xiao-wang007/linearmpc_panda/paper_data/panda_inverse_dynamics_controller_opt_time_to_start_no_acceleration_ff/2/trajectory.csv
Commanded Joint 0 Position,Commanded Joint 1 Position,Commanded Joint 2 Position,Commanded Joint 3 Position,Commanded Joint 4 Position,Commanded Joint 5 Position,Commanded Joint 6 Position,Commanded Joint 0 Velocity,Commanded Joint 1 Velocity,Commanded Joint 2 Velocity,Commanded Joint 3 Velocity,Commanded Joint 4 Velocity,Commanded Joint 5 Velocity,Commanded Joint 6 Velocity,Commanded Joint 0 Acceleration,Commanded Joint 1 Acceleration,Commanded Joint 2 Acceleration,Commanded Joint 3 Acceleration,Commanded Joint 4 Acceleration,Commanded Joint 5 Acceleration,Commanded Joint 6 Acceleration,Commanded Joint 0 Torque,Commanded Joint 1 Torque,Commanded Joint 2 Torque,Commanded Joint 3 Torque,Commanded Joint 4 Torque,Commanded Joint 5 Torque,Commanded Joint 6 Torque,Actual Joint 0 Position,Actual Joint 1 Position,Actual Joint 2 Position,Actual Joint 3 Position,Actual Joint 4 Position,Actual Joint 5 Position,Actual Joint 6 Position,Actual Joint 0 Velocity,Actual Joint 1 Velocity,Actual Joint 2 Velocity,Actual Joint 3 Velocity,Actual Joint 4 Velocity,Actual Joint 5 Velocity,Actual Joint 6 Velocity,Actual Joint 0 Acceleration,Actual Joint 1 Acceleration,Actual Joint 2 Acceleration,Actual Joint 3 Acceleration,Actual Joint 4 Acceleration,Actual Joint 5 Acceleration,Actual Joint 6 Acceleration,Actual Joint 0 Torque,Actual Joint 1 Torque,Actual Joint 2 Torque,Actual Joint 3 Torque,Actual Joint 4 Torque,Actual Joint 5 Torque,Actual Joint 6 Torque,
0.0434156,-0.0109599,-0.0327577,-1.89801,-0.0103167,0.347085,0.0273379,0.000392688,0.0231025,0.000351905,-0.0332926,-0.00405501,0.0570178,-0.000390167,0,0,0,0,0,0,0,0.0563836,24.1985,0.0544045,-24.3715,-0.551361,1.97774,-0.0247144,0.0433668,-0.0117789,-0.0327951,-1.8952,-0.010057,0.34093,0.0273722,0.00650453,0.00452908,0.000468924,0.001237,0.000204486,-9.17326e-05,0.000221249,0,0,0,0,0,0,0,0.182071,-35.0697,0.0882092,27.0026,0.733944,3.25829,0.0980684,
0.0434167,-0.0117274,-0.0327457,-1.89522,-0.0100084,0.340945,0.0273706,0.000627803,0.0187972,0.000595214,-0.0267496,-0.00281473,0.0456761,-0.000321132,0,0,0,0,0,0,0,0.0506464,24.6391,0.0440791,-24.2879,-0.551665,1.72662,-0.0231963,0.0433668,-0.0117789,-0.0327951,-1.8952,-0.010057,0.34093,0.0273722,0.00650453,0.00452908,0.000468924,0.001237,0.000204486,-9.17326e-05,0.000221249,0,0,0,0,0,0,0,0.182071,-35.0697,0.0882092,27.0026,0.733944,3.25829,0.0980684,
0.0434266,-0.0117174,-0.0327359,-1.89522,-0.00999287,0.340946,0.0273703,0.00074855,0.0152883,0.000722475,-0.021493,-0.00186439,0.0365655,-0.000263281,0,0,0,0,0,0,0,0.0434426,25.2107,0.0323461,-24.1799,-0.551095,1.37885,-0.0212273,0.0433668,-0.0117789,-0.0327951,-1.8952,-0.010057,0.34093,0.0273722,0.00650453,0.00452908,0.000468924,0.001237,0.000204486,-9.17326e-05,0.000221249,0,0,0,0,0,0,0,0.182071,-35.0697,0.0882092,27.0026,0.733944,3.25829,0.0980684,
0.0434344,-0.0117092,-0.0327281,-1.89522,-0.00997949,0.340947,0.0273701,0.00079337,0.0124344,0.000772501,-0.0172677,-0.00115708,0.0292638,-0.000215367,0,0,0,0,0,0,0,0.0374975,25.7347,0.0229236,-24.0121,-0.549013,0.993491,-0.0192263,0.0433668,-0.0117789,-0.0327951,-1.8952,-0.010057,0.34093,0.0273722,0.00650453,0.00452908,0.000468924,0.001237,0.000204486,-9.17326e-05,0.000221249,0,0,0,0,0,0,0,0.182071,-35.0697,0.0882092,27.0026,0.733944,3.25829,0.0980684,
0.0432047,-0.0117331,-0.0329563,-1.89509,-0.00160216,0.337452,0.0273326,6.08616e-05,0.00989363,4.64513e-05,-0.013591,0.0515637,0.000617109,-0.000215798,0,0,0,0,0,0,0,0.479452,0.139219,0.478792,-0.211598,3.02046,-1.4044,-0.00143198,0.0433633,-0.0113444,-0.0328014,-1.89528,-0.0100394,0.341005,0.0273725,-0.000334188,0.0378743,0.000639135,-0.000622919,-0.00105191,0.00858927,-0.000381243,-0.85484,4.16815,0.0212764,-0.23249,-0.15705,1.08513,-0.0753114,0.233646,-30.7771,0.163588,22.5671,0.617672,2.47643,0.110886,
0.043192,-0.0117358,-0.032969,-1.89509,0.000545794,0.336499,0.0273316,-0.000268998,0.00784722,-0.000279176,-0.0107864,0.0949498,-0.0233282,-0.000198569,0,0,0,0,0,0,0,0.473529,0.137268,0.472864,-0.20959,2.99355,-1.39168,-0.00141613,0.0433633,-0.0113444,-0.0328014,-1.89528,-0.0100394,0.341005,0.0273725,-0.000334188,0.0378743,0.000639135,-0.000622919,-0.00105191,0.00858927,-0.000381243,0,0,0,0,0,0,0,0.233646,-30.7771,0.163588,22.5671,0.617672,2.47643,0.110886,
0.0431887,-0.011738,-0.0329723,-1.89509,0.00271566,0.335521,0.0273309,-0.000299351,0.00622313,-0.00030672,-0.00865267,0.130207,-0.0431132,-0.000176201,0,0,0,0,0,0,0,0.467725,0.135395,0.467058,-0.207594,2.96654,-1.37897,-0.00140119,0.0433633,-0.0113444,-0.0328014,-1.89528,-0.0100394,0.341005,0.0273725,-0.000334188,0.0378743,0.000639135,-0.000622919,-0.00105191,0.00858927,-0.000381243,0,0,0,0,0,0,0,0.233646,-30.7771,0.163588,22.5671,0.617672,2.47643,0.110886,
0.0431934,-0.0117391,-0.0329676,-1.89509,0.00489132,0.334529,0.0273303,-0.000121834,0.00495063,-0.000127297,-0.00703269,0.158557,-0.0592935,-0.000154436,0,0,0,0,0,0,0,0.462065,0.133617,0.461394,-0.205592,2.93938,-1.36629,-0.00138472,0.0433633,-0.0113444,-0.0328014,-1.89528,-0.0100394,0.341005,0.0273725,-0.000334188,0.0378743,0.000639135,-0.000622919,-0.00105191,0.00858927,-0.000381243,0,0,0,0,0,0,0,0.233646,-30.7771,0.163588,22.5671,0.617672,2.47643,0.110886,
0.0429481,-0.0108846,-0.0332051,-1.89468,0.0192743,0.32061,0.0272462,-4.02661e-05,0.00427714,-8.87371e-06,-0.00490002,0.306662,-0.179451,-0.000227157,0,0,0,0,0,0,0,3.78326,1.01297,3.79391,-1.47261,11.0503,-8.28529,-0.0042072,0.043384,-0.010884,-0.0327783,-1.8957,-0.0100336,0.3409,0.0273715,0.000789723,0.0105285,-2.83245e-05,-0.0170146,0.00378936,-0.00441814,0.000271972,0.140489,-3.41822,-0.0834324,-2.04896,0.605159,-1.62593,0.0816518,0.0551182,-36.4186,0.0128308,27.8754,0.6488,3.41118,0.0907442,
0.0430007,-0.0108747,-0.0331513,-1.89469,0.0265535,0.315132,0.0272442,0.00128205,0.00366945,0.00133878,-0.00409233,0.427308,-0.280522,-0.000230748,0,0,0,0,0,0,0,3.67905,0.98317,3.69003,-1.45359,10.7916,-8.15124,-0.00459779,0.043384,-0.010884,-0.0327783,-1.8957,-0.0100336,0.3409,0.0273715,0.000789723,0.0105285,-2.83245e-05,-0.0170146,0.00378936,-0.00441814,0.000271972,0,0,0,0,0,0,0,0.0551182,-36.4186,0.0128308,27.8754,0.6488,3.41118,0.0907442,
0.043097,-0.0108607,-0.0330538,-1.89472,0.0338168,0.309551,0.0272431,0.00343364,0.00328584,0.00350778,-0.00415622,0.52343,-0.363932,-0.000210749,0,0,0,0,0,0,0,3.59137,0.947682,3.60324,-1.4415,10.5189,-8.01327,-0.00399854,0.043384,-0.010884,-0.0327783,-1.8957,-0.0100336,0.3409,0.0273715,0.000789723,0.0105285,-2.83245e-05,-0.0170146,0.00378936,-0.00441814,0.000271972,0,0,0,0,0,0,0,0.0551182,-36.4186,0.0128308,27.8754,0.6488,3.41118,0.0907442,
0.0476373,-0.0118318,-0.0284719,-1.89637,0.0243568,0.296403,0.0279159,0.0279143,-0.00302335,0.0276683,-0.015055,0.610358,-0.535501,0.00024712,0,0,0,0,0,0,0,19.5054,-1.78955,19.2596,-9.15335,11.059,-14.2496,0.278965,0.043384,-0.010884,-0.0327783,-1.8957,-0.0100336,0.3409,0.0273715,0.000789723,0.0105285,-2.83245e-05,-0.0170146,0.00378936,-0.00441814,0.000271972,0,0,0,0,0,0,0,0.0551182,-36.4186,0.0128308,27.8754,0.6488,3.41118,0.0907442,
0.0463364,-0.0125523,-0.0298426,-1.89696,0.0255834,0.296682,0.027545,0.0407296,-0.01105,0.0406349,-0.0242439,0.681288,-0.656185,0.000210197,0,0,0,0,0,0,0,16.118,-1.52128,15.9558,-8.799,11.059,-14.2496,0.0142483,0.043384,-0.010884,-0.0327783,-1.8957,-0.0100336,0.3409,0.0273715,0.000789723,0.0105285,-2.83245e-05,-0.0170146,0.00378936,-0.00441814,0.000271972,0,0,0,0,0,0,0,0.0551182,-36.4186,0.0128308,27.8754,0.6488,3.41118,0.0907442,
0.0471294,-0.0128718,-0.0290453,-1.89754,0.0335585,0.287772,0.0275463,0.0524076,-0.0168284,0.0524417,-0.0338163,0.744408,-0.747715,0.000201095,0,0,0,0,0,0,0,15.3812,-1.57164,15.349,-8.50943,11.059,-14.2452,0.00438231,0.0433745,-0.0104614,-0.0326197,-1.89604,-0.0099162,0.340673,0.02737,-0.000665164,0.0102996,0.0118429,-0.0110575,0.0184386,-0.0286962,-1.59285e-05,-0.181861,-0.0286091,1.4839,0.744631,1.83115,-3.03476,-0.0359875,1.30085,-35.7958,1.18715,26.3281,0.984799,2.73461,0.104477,
0.0479647,-0.0131602,-0.0282054,-1.89818,0.0417135,0.279212,0.0275481,0.0628089,-0.0206727,0.0629508,-0.0430945,0.799401,-0.812166,0.000206264,0,0,0,0,0,0,0,14.8067,-1.83764,14.8182,-8.36489,11.059,-14.2452,-0.000303012,0.0433745,-0.0104614,-0.0326197,-1.89604,-0.0099162,0.340673,0.02737,-0.000665164,0.0102996,0.0118429,-0.0110575,0.0184386,-0.0286962,-1.59285e-05,0,0,0,0,0,0,0,1.30085,-35.7958,1.18715,26.3281,0.984799,2.73461,0.104477,
0.0463799,-0.0109221,-0.0295628,-1.89743,0.0176436,0.306512,0.0273178,0.0722244,-0.0198093,0.0725617,-0.0490787,0.821518,-0.866051,-7.83541e-05,0,0,0,0,0,0,0,21.4622,3.6955,21.5585,-11.728,11.059,-14.2452,0.0181846,0.0433745,-0.0104614,-0.0326197,-1.89604,-0.0099162,0.340673,0.02737,-0.000665164,0.0102996,0.0118429,-0.0110575,0.0184386,-0.0286962,-1.59285e-05,0,0,0,0,0,0,0,1.30085,-35.7958,1.18715,26.3281,0.984799,2.73461,0.104477,
0.0473402,-0.0110246,-0.0285938,-1.89815,0.0253175,0.297938,0.0273088,0.0817887,-0.0184099,0.0822739,-0.0571486,0.849063,-0.907183,-0.000288698,0,0,0,0,0,0,0,20.2911,3.12105,20.3881,-11.5429,11.059,-14.2452,0.00430304,0.0433745,-0.0104614,-0.0326197,-1.89604,-0.0099162,0.340673,0.02737,-0.000665164,0.0102996,0.0118429,-0.0110575,0.0184386,-0.0286962,-1.59285e-05,0,0,0,0,0,0,0,1.30085,-35.7958,1.18715,26.3281,0.984799,2.73461,0.104477,
0.0483605,-0.011089,-0.0275653,-1.89896,0.0332708,0.289668,0.0273019,0.0909365,-0.0163378,0.0915333,-0.0660525,0.878082,-0.932501,-0.000404268,0,0,0,0,0,0,0,19.2785,2.55161,19.3768,-11.3866,11.0518,-14.2176,-0.00550916,0.0440161,-0.0103845,-0.0309785,-1.89707,-0.00683077,0.336688,0.0273715,0.0414181,-0.00644694,0.0542796,-0.050574,0.13683,-0.191082,0.00102403,5.26041,-2.09332,5.3046,-4.93956,14.7989,-20.2983,0.129995,5.12928,-33.7209,5.08699,24.4357,1.43615,1.72661,0.0907442,
0.049423,-0.0111133,-0.0264946,-1.89985,0.0414234,0.281834,0.0272968,0.0993123,-0.0136778,0.0999941,-0.074897,0.906281,-0.941835,-0.000449337,0,0,0,0,0,0,0,18.4003,2.03213,18.4991,-11.2661,11.0518,-13.8209,-0.012477,0.0440161,-0.0103845,-0.0309785,-1.89707,-0.00683077,0.336688,0.0273715,0.0414181,-0.00644694,0.0542796,-0.050574,0.13683,-0.191082,0.00102403,0,0,0,0,0,0,0,5.12928,-33.7209,5.08699,24.4357,1.43615,1.72661,0.0907442,
0.0486585,-0.0114123,-0.0263248,-1.9008,0.0223318,0.300564,0.0271421,0.108939,-0.0169433,0.109533,-0.0862767,0.910856,-0.973761,-0.00146129,0,0,0,0,0,0,0,25.0978,3.0449,25.0783,-17.2197,11.0518,-14.2176,-0.0281513,0.0440161,-0.0103845,-0.0309785,-1.89707,-0.00683077,0.336688,0.0273715,0.0414181,-0.00644694,0.0542796,-0.050574,0.13683,-0.191082,0.00102403,0,0,0,0,0,0,0,5.12928,-33.7209,5.08699,24.4357,1.43615,1.72661,0.0907442,
0.049906,-0.01163,-0.0250754,-1.90199,0.0301303,0.291945,0.0271019,0.118339,-0.018998,0.118862,-0.0987249,0.923647,-0.994494,-0.0021736,0,0,0,0,0,0,0,23.6462,2.09248,23.639,-17.0388,11.0518,-14.2176,-0.0467084,0.0440161,-0.0103845,-0.0309785,-1.89707,-0.00683077,0.336688,0.0273715,0.0414181,-0.00644694,0.0542796,-0.050574,0.13683,-0.191082,0.00102403,0,0,0,0,0,0,0,5.12928,-33.7209,5.08699,24.4357,1.43615,1.72661,0.0907442,
0.0512013,-0.0118152,-0.0237783,-1.90327,0.0381873,0.28374,0.0270676,0.127053,-0.0198283,0.127518,-0.111087,0.940344,-1.00072,-0.00259632,0,0,0,0,0,0,0,22.465,1.20648,22.4677,-16.8439,11.0408,-14.1488,-0.0555734,0.0457982,-0.0106366,-0.0275136,-1.89951,9.76853e-05,0.32722,0.0273722,0.0693551,-0.0101241,0.135993,-0.0889772,0.228018,-0.328584,0.000900692,3.49212,-0.459648,10.2141,-4.8004,11.3985,-17.1877,-0.0154171,7.51361,-32.3244,7.31264,24.039,1.96167,1.54809,0.0843355,
0.0525279,-0.0119657,-0.0224497,-1.90462,0.0464278,0.276074,0.0270383,0.134808,-0.019625,0.135228,-0.122571,0.958288,-0.992232,-0.0028093,0,0,0,0,0,0,0,21.4571,0.447052,21.4662,-16.7,11.0408,-13.9537,-0.0598436,0.0457982,-0.0106366,-0.0275136,-1.89951,9.76853e-05,0.32722,0.0273722,0.0693551,-0.0101241,0.135993,-0.0889772,0.228018,-0.328584,0.000900692,0,0,0,0,0,0,0,7.51361,-32.3244,7.31264,24.039,1.96167,1.54809,0.0843355,
0.0518293,-0.0115131,-0.0214265,-1.90528,0.0312135,0.29074,0.026925,0.142511,-0.0198764,0.143077,-0.135186,0.958528,-0.998365,-0.00416173,0,0,0,0,0,0,0,26.329,3.53521,26.4285,-21.7109,11.0408,-14.1488,-0.0973443,0.0457982,-0.0106366,-0.0275136,-1.89951,9.76853e-05,0.32722,0.0273722,0.0693551,-0.0101241,0.135993,-0.0889772,0.228018,-0.328584,0.000900692,0,0,0,0,0,0,0,7.51361,-32.3244,7.31264,24.039,1.96167,1.54809,0.0843355,
0.0532612,-0.0116413,-0.0199856,-1.90688,0.0392055,0.28295,0.0268559,0.149807,-0.0191055,0.150484,-0.14804,0.966624,-0.993441,-0.0050576,0,0,0,0,0,0,0,24.866,2.6305,24.9686,-21.4647,11.0408,-14.1488,-0.106911,0.0457982,-0.0106366,-0.0275136,-1.89951,9.76853e-05,0.32722,0.0273722,0.0693551,-0.0101241,0.135993,-0.0889772,0.228018,-0.328584,0.000900692,0,0,0,0,0,0,0,7.51361,-32.3244,7.31264,24.039,1.96167,1.54809,0.0843355,
0.0547222,-0.0117273,-0.0185159,-1.90855,0.0474167,0.275701,0.0267964,0.156371,-0.0174363,0.157131,-0.160141,0.978577,-0.975986,-0.00553451,0,0,0,0,0,0,0,23.6695,1.78887,23.7761,-21.1644,11.0363,-13.979,-0.107516,0.0484444,-0.010745,-0.021713,-1.90325,0.00703985,0.31533,0.0273718,0.0900991,-0.00821187,0.197035,-0.130743,0.211015,-0.367609,0.00136374,2.593,0.239032,7.63033,-5.22076,-2.12539,-4.87808,0.0578812,4.64527,-32.7489,4.43635,23.19,1.65588,1.08391,0.0980684,
0.0551659,-0.01191,-0.0149539,-1.91143,0.0388573,0.282976,0.0267307,0.161597,-0.0194126,0.162331,-0.176911,0.978041,-0.945695,-0.00697479,0,0,0,0,0,0,0,25.7686,1.75125,25.8132,-26.2787,11.0363,-14.062,-0.157455,0.0484444,-0.010745,-0.021713,-1.90325,0.00703985,0.31533,0.0273718,0.0900991,-0.00821187,0.197035,-0.130743,0.211015,-0.367609,0.00136374,0,0,0,0,0,0,0,4.64527,-32.7489,4.43635,23.19,1.65588,1.08391,0.0980684,
0.056656,-0.0120913,-0.0134589,-1.91345,0.0469517,0.276876,0.0266405,0.16653,-0.0200639,0.167239,-0.192123,0.984793,-0.909062,-0.00783431,0,0,0,0,0,0,0,24.43,0.846997,24.4791,-25.9909,11.0363,-12.7469,-0.158212,0.0484444,-0.010745,-0.021713,-1.90325,0.00703985,0.31533,0.0273718,0.0900991,-0.00821187,0.197035,-0.130743,0.211015,-0.367609,0.00136374,0,0,0,0,0,0,0,4.64527,-32.7489,4.43635,23.19,1.65588,1.08391,0.0980684,
0.0581638,-0.0122366,-0.0119463,-1.91552,0.0552401,0.271355,0.0265647,0.170919,-0.0196829,0.171606,-0.205301,0.995043,-0.865284,-0.00816147,0,0,0,0,0,0,0,23.3104,0.085649,23.3621,-25.7095,11.0363,-10.9777,-0.149871,0.0484444,-0.010745,-0.021713,-1.90325,0.00703985,0.31533,0.0273718,0.0900991,-0.00821187,0.197035,-0.130743,0.211015,-0.367609,0.00136374,0,0,0,0,0,0,0,4.64527,-32.7489,4.43635,23.19,1.65588,1.08391,0.0980684,
0.0596785,-0.0123501,-0.0104269,-1.9176,0.0636601,0.266442,0.0265009,0.174603,-0.0185839,0.175271,-0.216245,1.00653,-0.815033,-0.00812461,0,0,0,0,0,0,0,22.3754,-0.55091,22.4316,-25.3348,11.0275,-9.3104,-0.141456,0.0517209,-0.0107568,-0.0143056,-1.90849,0.0147495,0.301785,0.02737,0.109647,-0.000885763,0.229074,-0.175315,0.243639,-0.427169,0.000979731,2.4435,0.915763,4.0048,-5.57141,4.07811,-7.44504,-0.0480013,4.92694,-33.2726,4.58711,23.4399,1.76574,1.12328,0.104477,
0.0589012,-0.0114541,-0.00707387,-1.91865,0.0474553,0.275209,0.0266577,0.177407,-0.0174942,0.178127,-0.229564,1.00297,-0.779118,-0.00919263,0,0,0,0,0,0,0,25.2508,1.86384,25.3339,-29.5876,11.0275,-11.3896,-0.187211,0.0517209,-0.0107568,-0.0143056,-1.90849,0.0147495,0.301785,0.02737,0.109647,-0.000885763,0.229074,-0.175315,0.243639,-0.427169,0.000979731,0,0,0,0,0,0,0,4.92694,-33.2726,4.58711,23.4399,1.76574,1.12328,0.104477,
0.0604276,-0.0115254,-0.00554015,-1.92095,0.0556273,0.270591,0.0265654,0.180086,-0.0157786,0.180845,-0.241157,1.00668,-0.738731,-0.00966149,0,0,0,0,0,0,0,24.0264,1.11158,24.1115,-29.243,11.0275,-9.69961,-0.18076,0.0517209,-0.0107568,-0.0143056,-1.90849,0.0147495,0.301785,0.02737,0.109647,-0.000885763,0.229074,-0.175315,0.243639,-0.427169,0.000979731,0,0,0,0,0,0,0,4.92694,-33.2726,4.58711,23.4399,1.76574,1.12328,0.104477,
0.0619609,-0.0115658,-0.00399968,-1.92326,0.0639749,0.26648,0.0264872,0.182401,-0.0136321,0.183187,-0.25076,1.01403,-0.693775,-0.00968435,0,0,0,0,0,0,0,22.9967,0.513636,23.0823,-28.894,11.0275,-8.22801,-0.165286,0.0517209,-0.0107568,-0.0143056,-1.90849,0.0147495,0.301785,0.02737,0.109647,-0.000885763,0.229074,-0.175315,0.243639,-0.427169,0.000979731,0,0,0,0,0,0,0,4.92694,-33.2726,4.58711,23.4399,1.76574,1.12328,0.104477,
0.0633399,-0.0110706,0.00165517,-1.92675,0.0587938,0.26935,0.0269037,0.181653,-0.0112193,0.182462,-0.25666,1.01434,-0.624861,-0.00912684,0,0,0,0,0,0,0,21.3299,-0.288253,21.4184,-28.0407,11.0179,-5.69871,-0.132822,0.0561067,-0.010846,-0.00562975,-1.91568,0.0241258,0.286229,0.0273695,0.131353,-0.00119394,0.273532,-0.242337,0.320513,-0.458118,0.000246722,2.71321,-0.0385221,5.55728,-8.37786,9.60918,-3.86861,-0.0916261,0.765262,-32.5981,0.588087,24.6103,1.07635,1.96557,0.11821,
0.064766,-0.0110652,0.00308835,-1.92898,0.0671177,0.26693,0.0268634,0.180976,-0.00884007,0.181799,-0.260926,1.01957,-0.560393,-0.00831059,0,0,0,0,0,0,0,20.6062,-0.494867,20.694,-27.6549,11.0179,-4.73085,-0.114451,0.0561067,-0.010846,-0.00562975,-1.91568,0.0241258,0.286229,0.0273695,0.131353,-0.00119394,0.273532,-0.242337,0.320513,-0.458118,0.000246722,0,0,0,0,0,0,0,0.765262,-32.5981,0.588087,24.6103,1.07635,1.96557,0.11821,
0.0661853,-0.0110444,0.00451448,-1.93117,0.0755674,0.264881,0.0268387,0.180263,-0.00655319,0.181092,-0.263698,1.0269,-0.499536,-0.00726538,0,0,0,0,0,0,0,19.9282,-0.608897,20.0149,-27.2611,11.0179,-3.89899,-0.0968115,0.0561067,-0.010846,-0.00562975,-1.91568,0.0241258,0.286229,0.0273695,0.131353,-0.00119394,0.273532,-0.242337,0.320513,-0.458118,0.000246722,0,0,0,0,0,0,0,0.765262,-32.5981,0.588087,24.6103,1.07635,1.96557,0.11821,
0.0675926,-0.0110111,0.00592854,-1.93334,0.0840976,0.263184,0.0268249,0.179393,-0.00440932,0.180225,-0.265127,1.03477,-0.44207,-0.006157,0,0,0,0,0,0,0,19.3102,-0.644342,19.3955,-26.8516,11.0179,-3.18374,-0.0811478,0.0561067,-0.010846,-0.00562975,-1.91568,0.0241258,0.286229,0.0273695,0.131353,-0.00119394,0.273532,-0.242337,0.320513,-0.458118,0.000246722,0,0,0,0,0,0,0,0.765262,-32.5981,0.588087,24.6103,1.07635,1.96557,0.11821,
0.0628687,-0.0108433,0.00118059,-1.92664,0.0592577,0.275462,0.027163,0.176147,-0.0023622,0.176978,-0.265676,1.03255,-0.389648,-0.00506071,0,0,0,0,0,0,0,18.7647,-0.719593,18.8524,-26.2952,10.9831,-2.42338,-0.0649455,0.0600014,-0.0108887,0.00490626,-1.9249,0.0370093,0.271254,0.0273711,0.108925,0.00715508,0.329496,-0.297571,0.413454,-0.401269,0.000658663,-2.8035,1.04363,6.99546,-6.90424,11.6176,7.10614,0.0514926,1.12232,-33.1972,0.937208,26.3797,1.21643,2.48284,0.0980684,
0.0641638,-0.010784,0.00248218,-1.92874,0.0676316,0.274324,0.0271707,0.173295,-0.000408052,0.174122,-0.265163,1.03539,-0.340184,-0.00385688,0,0,0,0,0,0,0,18.2494,-0.675346,18.3354,-25.8768,10.9831,-1.88402,-0.0476478,0.0600014,-0.0108887,0.00490626,-1.9249,0.0370093,0.271254,0.0273711,0.108925,0.00715508,0.329496,-0.297571,0.413454,-0.401269,0.000658663,0,0,0,0,0,0,0,1.12232,-33.1972,0.937208,26.3797,1.21643,2.48284,0.0980684,
0.0654461,-0.0107157,0.00377094,-1.93081,0.0761205,0.273462,0.0271883,0.170695,0.00138282,0.171517,-0.263788,1.04054,-0.293678,-0.00264475,0,0,0,0,0,0,0,17.7538,-0.610691,17.838,-25.4635,10.9831,-1.40678,-0.0282809,0.0600014,-0.0108887,0.00490626,-1.9249,0.0370093,0.271254,0.0273711,0.108925,0.00715508,0.329496,-0.297571,0.413454,-0.401269,0.000658663,0,0,0,0,0,0,0,1.12232,-33.1972,0.937208,26.3797,1.21643,2.48284,0.0980684,
0.0667121,-0.0106402,0.00504321,-1.93284,0.0846816,0.272851,0.0272132,0.168206,0.00299362,0.16902,-0.261698,1.04645,-0.250222,-0.00149333,0,0,0,0,0,0,0,17.2358,-0.534024,17.3183,-25.0583,10.9831,-1.00931,-0.0146529,0.0600014,-0.0108887,0.00490626,-1.9249,0.0370093,0.271254,0.0273711,0.108925,0.00715508,0.329496,-0.297571,0.413454,-0.401269,0.000658663,0,0,0,0,0,0,0,1.12232,-33.1972,0.937208,26.3797,1.21643,2.48284,0.0980684,
0.0667915,-0.0101693,0.0117495,-1.93593,0.0736083,0.263884,0.0273746,0.16579,0.00631211,0.166595,-0.261139,1.04555,-0.217086,-0.000483426,0,0,0,0,0,0,0,16.7416,-0.436929,16.823,-24.6534,10.9831,-0.653646,-0.00167063,0.0600014,-0.0108887,0.00490626,-1.9249,0.0370093,0.271254,0.0273711,0.108925,0.00715508,0.329496,-0.297571,0.413454,-0.401269,0.000658663,0,0,0,0,0,0,0,1.12232,-33.1972,0.937208,26.3797,1.21643,2.48284,0.0980684,
0.0680106,-0.0100164,0.0129744,-1.93794,0.082089,0.263489,0.0274132,0.16311,0.00887145,0.1639,-0.259247,1.04846,-0.183539,0.000576256,0,0,0,0,0,0,0,16.2272,-0.558399,16.3107,-24.131,10.9112,-0.271694,0.0127588,0.0631221,-0.0104986,0.0150202,-1.93473,0.0503709,0.260102,0.0273758,0.0837823,0.0081194,0.282536,-0.259226,0.38012,-0.243802,0.000750753,-3.14281,0.120539,-5.86989,4.79319,-4.16668,19.6834,0.0115112,-4.20575,-38.9656,-4.33531,29.2957,0.239559,3.16582,0.0907442,
0.069201,-0.0098678,0.0141704,-1.9399,0.0906545,0.263336,0.0274549,0.160247,0.0108117,0.161018,-0.256393,1.05291,-0.15066,0.00150487,0,0,0,0,0,0,0,15.7342,-0.45053,15.8167,-23.7427,10.9112,0.00425071,0.0247292,0.0631221,-0.0104986,0.0150202,-1.93473,0.0503709,0.260102,0.0273758,0.0837823,0.0081194,0.282536,-0.259226,0.38012,-0.243802,0.000750753,0,0,0,0,0,0,0,-4.20575,-38.9656,-4.33531,29.2957,0.239559,3.16582,0.0907442,
0.0688002,-0.00985439,0.0207481,-1.94478,0.0859987,0.257754,0.0275116,0.154593,0.0124983,0.155368,-0.252434,1.04725,-0.117398,0.00229518,0,0,0,0,0,0,0,14.7608,-0.188659,14.8382,-22.9678,10.9112,0.454481,0.0423234,0.0631221,-0.0104986,0.0150202,-1.93473,0.0503709,0.260102,0.0273758,0.0837823,0.0081194,0.282536,-0.259226,0.38012,-0.243802,0.000750753,0,0,0,0,0,0,0,-4.20575,-38.9656,-4.33531,29.2957,0.239559,3.16582,0.0907442,
0.0698484,-0.00969892,0.0218026,-1.94662,0.0941664,0.258077,0.027562,0.14988,0.0138854,0.150658,-0.247802,1.04199,-0.085836,0.00309608,0,0,0,0,0,0,0,14.2959,-0.0418851,14.37,-22.577,10.9112,0.642223,0.0534775,0.0631221,-0.0104986,0.0150202,-1.93473,0.0503709,0.260102,0.0273758,0.0837823,0.0081194,0.282536,-0.259226,0.38012,-0.243802,0.000750753,0,0,0,0,0,0,0,-4.20575,-38.9656,-4.33531,29.2957,0.239559,3.16582,0.0907442,
0.0709069,-0.00954599,0.0228672,-1.94839,0.101904,0.258569,0.027619,0.146367,0.0149318,0.147143,-0.242559,1.02702,-0.0563819,0.00390327,0,0,0,0,0,0,0,13.7807,0.00437441,13.8531,-22.1205,10.844,0.877453,0.056052,0.0662121,-0.00979717,0.0249203,-1.94312,0.0664547,0.252961,0.0273695,0.0718087,0.0172159,0.263896,-0.238723,0.503992,-0.181954,0.00022314,-1.4967,1.13706,-2.33003,2.56289,15.484,7.73091,-0.0659516,-1.99597,-35.645,-2.21282,27.5262,1.19171,2.64214,0.11821,
0.0719779,-0.00939897,0.0239442,-1.95011,0.109025,0.259204,0.0276791,0.143869,0.0156209,0.144638,-0.236928,0.999652,-0.0292266,0.00462309,0,0,0,0,0,0,0,13.3215,0.164843,13.398,-21.7309,10.844,1.02022,0.0584439,0.0662121,-0.00979717,0.0249203,-1.94312,0.0664547,0.252961,0.0273695,0.0718087,0.0172159,0.263896,-0.238723,0.503992,-0.181954,0.00022314,0,0,0,0,0,0,0,-1.99597,-35.645,-2.21282,27.5262,1.19171,2.64214,0.11821,
0.0716147,-0.00896663,0.0303715,-1.9524,0.0989861,0.25304,0.0275862,0.141476,0.0168434,0.142236,-0.232492,0.953539,-0.00952217,0.00515739,0,0,0,0,0,0,0,12.9158,0.332761,12.9945,-21.3333,10.844,1.1629,0.0603125,0.0662121,-0.00979717,0.0249203,-1.94312,0.0664547,0.252961,0.0273695,0.0718087,0.0172159,0.263896,-0.238723,0.503992,-0.181954,0.00022314,0,0,0,0,0,0,0,-1.99597,-35.645,-2.21282,27.5262,1.19171,2.64214,0.11821,
0.0726731,-0.00880205,0.0314354,-1.95406,0.104558,0.253758,0.0276465,0.13964,0.0175894,0.140388,-0.227487,0.902129,0.0103156,0.00563301,0,0,0,0,0,0,0,12.5585,0.489774,12.638,-20.93,10.2217,1.29117,0.0638885,0.0662121,-0.00979717,0.0249203,-1.94312,0.0664547,0.252961,0.0273695,0.0718087,0.0172159,0.263896,-0.238723,0.503992,-0.181954,0.00022314,0,0,0,0,0,0,0,-1.99597,-35.645,-2.21282,27.5262,1.19171,2.64214,0.11821,
0.0737317,-0.00864824,0.0324993,-1.95567,0.109529,0.254608,0.0277076,0.138177,0.0179167,0.138908,-0.222188,0.84599,0.0295055,0.00603548,0,0,0,0,0,0,0,12.229,0.538156,12.3096,-20.4781,8.81332,1.45735,0.0650928,0.068549,-0.00912257,0.0331417,-1.95135,0.0845652,0.249013,0.0273692,0.0677192,0.0196559,0.220101,-0.241096,0.575283,-0.0989057,0.00121206,-0.511197,0.305009,-5.4744,-0.296676,8.9113,10.3811,0.123615,-1.3374,-34.3199,-1.41142,26.9272,0.642391,2.70806,0.110886,
0.0737902,-0.0081718,0.0384239,-1.95988,0.106618,0.250823,0.0276494,0.13624,0.0187443,0.136949,-0.217146,0.76814,0.044151,0.00638598,0,0,0,0,0,0,0,11.7122,0.738676,11.789,-19.6934,6.63607,1.60669,0.0662459,0.068549,-0.00912257,0.0331417,-1.95135,0.0845652,0.249013,0.0273692,0.0677192,0.0196559,0.220101,-0.241096,0.575283,-0.0989057,0.00121206,0,0,0,0,0,0,0,-1.3374,-34.3199,-1.41142,26.9272,0.642391,2.70806,0.110886,
0.0748102,-0.00800902,0.0394487,-1.96141,0.109824,0.251773,0.0277133,0.134492,0.0190652,0.135178,-0.211832,0.694644,0.0590902,0.00670597,0,0,0,0,0,0,0,11.5262,0.8035,11.6006,-19.3092,5.72496,1.65977,0.0676743,0.068549,-0.00912257,0.0331417,-1.95135,0.0845652,0.249013,0.0273692,0.0677192,0.0196559,0.220101,-0.241096,0.575283,-0.0989057,0.00121206,0,0,0,0,0,0,0,-1.3374,-34.3199,-1.41142,26.9272,0.642391,2.70806,0.110886,
0.0758206,-0.00785959,0.0404635,-1.96288,0.112605,0.252823,0.0277781,0.132853,0.0189877,0.133514,-0.20643,0.625244,0.0735129,0.00698317,0,0,0,0,0,0,0,11.3754,0.848671,11.4471,-18.9318,4.92709,1.70704,0.0687893,0.068549,-0.00912257,0.0331417,-1.95135,0.0845652,0.249013,0.0273692,0.0677192,0.0196559,0.220101,-0.241096,0.575283,-0.0989057,0.00121206,0,0,0,0,0,0,0,-1.3374,-34.3199,-1.41142,26.9272,0.642391,2.70806,0.110886,
0.0768196,-0.00772252,0.0414668,-1.96432,0.114994,0.253947,0.0278437,0.131257,0.0186169,0.131893,-0.201052,0.559921,0.0869059,0.00722845,0,0,0,0,0,0,0,11.2522,0.795797,11.3221,-18.4739,4.14975,1.80074,0.0705107,0.0708584,-0.00839243,0.0413299,-1.95978,0.103465,0.247856,0.0273684,0.0603651,0.0362281,0.245057,-0.225102,0.533454,0.0107381,2.58692e-05,-0.91926,2.07152,3.11945,1.99926,-5.22864,13.7055,-0.148274,1.2215,-34.4231,1.06416,25.8798,0.837399,2.32995,0.11821,
0.0763547,-0.00728728,0.0468648,-1.96757,0.118166,0.251529,0.0276802,0.130999,0.0192061,0.131607,-0.196877,0.501054,0.0949851,0.00741021,0,0,0,0,0,0,0,11.143,0.80995,11.2101,-18.1069,3.52814,1.83016,0.0721442,0.0708584,-0.00839243,0.0413299,-1.95978,0.103465,0.247856,0.0273684,0.0603651,0.0362281,0.245057,-0.225102,0.533454,0.0107381,2.58692e-05,0,0,0,0,0,0,0,1.2215,-34.4231,1.06416,25.8798,0.837399,2.32995,0.11821,
0.0773688,-0.00713348,0.0478827,-1.96896,0.119958,0.252625,0.0277459,0.130153,0.0192098,0.130733,-0.192393,0.445637,0.103378,0.00757091,0,0,0,0,0,0,0,11.0432,0.812769,11.1076,-17.7437,2.97564,1.8487,0.0743152,0.0708584,-0.00839243,0.0413299,-1.95978,0.103465,0.247856,0.0273684,0.0603651,0.0362281,0.245057,-0.225102,0.533454,0.0107381,2.58692e-05,0,0,0,0,0,0,0,1.2215,-34.4231,1.06416,25.8798,0.837399,2.32995,0.11821,
0.0783587,-0.0069956,0.0488761,-1.97032,0.121457,0.253777,0.0278117,0.12887,0.0188149,0.129423,-0.187758,0.394001,0.111495,0.00770171,0,0,0,0,0,0,0,10.9461,0.807702,11.0076,-17.385,2.5014,1.86151,0.0758469,0.0708584,-0.00839243,0.0413299,-1.95978,0.103465,0.247856,0.0273684,0.0603651,0.0362281,0.245057,-0.225102,0.533454,0.0107381,2.58692e-05,0,0,0,0,0,0,0,1.2215,-34.4231,1.06416,25.8798,0.837399,2.32995,0.11821,
0.0793255,-0.00687112,0.0498463,-1.97163,0.122702,0.254967,0.0278775,0.127266,0.018164,0.127792,-0.183078,0.346309,0.11895,0.00780734,0,0,0,0,0,0,0,10.8295,0.735157,10.887,-16.9694,2.03051,1.89987,0.0776888,0.0729554,-0.00710628,0.0494665,-1.96665,0.118751,0.248146,0.0273662,0.0576463,0.0576273,0.239904,-0.18557,0.378962,0.0230904,-0.000684022,-0.339844,2.67491,-0.644101,4.94147,-19.3115,1.54403,-0.0887364,0.463749,-33.6217,0.26277,24.3604,0.984799,1.5609,0.138352,
0.0782595,-0.00588014,0.0548043,-1.97379,0.127495,0.252384,0.0276893,0.126574,0.0188588,0.127068,-0.179639,0.305009,0.121527,0.00787048,0,0,0,0,0,0,0,10.7279,0.719908,10.7826,-16.617,1.67635,1.89786,0.0787599,0.0729554,-0.00710628,0.0494665,-1.96665,0.118751,0.248146,0.0273662,0.0576463,0.0576273,0.239904,-0.18557,0.378962,0.0230904,-0.000684022,0,0,0,0,0,0,0,0.463749,-33.6217,0.26277,24.3604,0.984799,1.5609,0.138352,
0.0792196,-0.00572876,0.0557671,-1.97507,0.128397,0.253487,0.0277538,0.125262,0.0188714,0.125725,-0.175777,0.266563,0.124814,0.00790999,0,0,0,0,0,0,0,10.621,0.701737,10.6731,-16.2668,1.36776,1.88768,0.0798492,0.0729554,-0.00710628,0.0494665,-1.96665,0.118751,0.248146,0.0273662,0.0576463,0.0576273,0.239904,-0.18557,0.378962,0.0230904,-0.000684022,0,0,0,0,0,0,0,0.463749,-33.6217,0.26277,24.3604,0.984799,1.5609,0.138352,
0.0801516,-0.00559501,0.0567017,-1.97632,0.129119,0.254624,0.0278176,0.123509,0.0184409,0.123944,-0.171662,0.231293,0.128259,0.00792254,0,0,0,0,0,0,0,10.5071,0.682396,10.5566,-15.919,1.10861,1.8732,0.0803121,0.0729554,-0.00710628,0.0494665,-1.96665,0.118751,0.248146,0.0273662,0.0576463,0.0576273,0.239904,-0.18557,0.378962,0.0230904,-0.000684022,0,0,0,0,0,0,0,0.463749,-33.6217,0.26277,24.3604,0.984799,1.5609,0.138352,
0.0782234,-0.0058284,0.0547636,-1.97331,0.125459,0.251858,0.0276891,0.122945,0.019147,0.123345,-0.167942,0.202658,0.126064,0.00787685,0,0,0,0,0,0,0,10.2469,0.598221,10.2889,-15.1834,0.66836,1.84932,0.0806362,0.0749238,-0.00572814,0.0573741,-1.97274,0.127878,0.249551,0.02737,0.0606843,0.0523784,0.229,-0.17603,0.199497,0.0584297,-1.96075e-05,0.379744,-0.656113,-1.36292,1.19258,-22.4331,4.41741,0.0830518,-0.0202602,-34.8714,-0.213304,27.1533,1.12487,2.05163,0.104477,
0.0791505,-0.00567613,0.0556926,-1.97449,0.12599,0.252841,0.0277494,0.121533,0.0191243,0.1219,-0.163839,0.175425,0.125423,0.0078079,0,0,0,0,0,0,0,10.1109,0.578802,10.1504,-14.8401,0.509088,1.81989,0.080355,0.0749238,-0.00572814,0.0573741,-1.97274,0.127878,0.249551,0.02737,0.0606843,0.0523784,0.229,-0.17603,0.199497,0.0584297,-1.96075e-05,0,0,0,0,0,0,0,-0.0202602,-34.8714,-0.213304,27.1533,1.12487,2.05163,0.104477,
0.0800427,-0.00554259,0.0565866,-1.97563,0.126387,0.253852,0.0278083,0.119532,0.018638,0.119869,-0.159517,0.150262,0.125621,0.00771802,0,0,0,0,0,0,0,9.96734,0.560498,10.0045,-14.4979,0.378034,1.78815,0.0796185,0.0749238,-0.00572814,0.0573741,-1.97274,0.127878,0.249551,0.02737,0.0606843,0.0523784,0.229,-0.17603,0.199497,0.0584297,-1.96075e-05,0,0,0,0,0,0,0,-0.0202602,-34.8714,-0.213304,27.1533,1.12487,2.05163,0.104477,
0.0809033,-0.00542406,0.0574488,-1.97673,0.126677,0.254879,0.0278657,0.117141,0.0178736,0.117451,-0.155091,0.127447,0.126167,0.00761161,0,0,0,0,0,0,0,9.81714,0.543098,9.85199,-14.1565,0.266492,1.75277,0.0787629,0.0749238,-0.00572814,0.0573741,-1.97274,0.127878,0.249551,0.02737,0.0606843,0.0523784,0.229,-0.17603,0.199497,0.0584297,-1.96075e-05,0,0,0,0,0,0,0,-0.0202602,-34.8714,-0.213304,27.1533,1.12487,2.05163,0.104477,
0.0798322,-0.00452413,0.0623051,-1.97881,0.131273,0.253377,0.0276599,0.115894,0.0184233,0.11617,-0.151787,0.10993,0.123091,0.00747412,0,0,0,0,0,0,0,9.65139,0.474467,9.68166,-13.7987,0.160436,1.71987,0.0776679,0.0767943,-0.00467977,0.0645567,-1.97804,0.131579,0.251324,0.0273729,0.0515362,0.0277354,0.198726,-0.142614,0.0441825,0.0538508,0.00102956,-1.14351,-3.08038,-3.78434,4.17702,-19.4144,-0.572357,0.131145,-1.69445,-37.0415,-1.83592,30.2161,0.91705,2.85363,0.0779268,
0.080682,-0.00438159,0.0631559,-1.97988,0.13149,0.254292,0.0277138,0.113961,0.0183022,0.114206,-0.148046,0.0933721,0.121329,0.00732735,0,0,0,0,0,0,0,9.48878,0.459506,9.51685,-13.4587,0.0830578,1.68075,0.0763457,0.0767943,-0.00467977,0.0645567,-1.97804,0.131579,0.251324,0.0273729,0.0515362,0.0277354,0.198726,-0.142614,0.0441825,0.0538508,0.00102956,0,0,0,0,0,0,0,-1.69445,-37.0415,-1.83592,30.2161,0.91705,2.85363,0.0779268,
0.0814984,-0.00425682,0.0639731,-1.9809,0.131627,0.255223,0.0277661,0.11158,0.017761,0.111796,-0.144039,0.0781104,0.120339,0.00717085,0,0,0,0,0,0,0,9.32056,0.445903,9.34647,-13.1192,0.0199937,1.64112,0.0747443,0.0767943,-0.00467977,0.0645567,-1.97804,0.131579,0.251324,0.0273729,0.0515362,0.0277354,0.198726,-0.142614,0.0441825,0.0538508,0.00102956,0,0,0,0,0,0,0,-1.69445,-37.0415,-1.83592,30.2161,0.91705,2.85363,0.0779268,
0.0822849,-0.00414621,0.0647602,-1.98189,0.131698,0.256161,0.0278169,0.108925,0.016974,0.109115,-0.139885,0.0642674,0.119741,0.00700645,0,0,0,0,0,0,0,9.14749,0.433289,9.17128,-12.7801,-0.0340737,1.60028,0.0730635,0.0767943,-0.00467977,0.0645567,-1.97804,0.131579,0.251324,0.0273729,0.0515362,0.0277354,0.198726,-0.142614,0.0441825,0.0538508,0.00102956,0,0,0,0,0,0,0,-1.69445,-37.0415,-1.83592,30.2161,0.91705,2.85363,0.0779268,
0.0810467,-0.00397922,0.068826,-1.98328,0.132372,0.255196,0.0276277,0.106566,0.0163074,0.10673,-0.136043,0.0523051,0.117526,0.00682518,0,0,0,0,0,0,0,8.9698,0.421866,8.99148,-12.4411,-0.078684,1.55973,0.0711801,0.0767943,-0.00467977,0.0645567,-1.97804,0.131579,0.251324,0.0273729,0.0515362,0.0277354,0.198726,-0.142614,0.0441825,0.0538508,0.00102956,0,0,0,0,0,0,0,-1.69445,-37.0415,-1.83592,30.2161,0.91705,2.85363,0.0779268,
0.0817948,-0.00388063,0.0695745,-1.98421,0.13236,0.256079,0.027675,0.103958,0.0155106,0.104097,-0.132039,0.0415435,0.11611,0.00664172,0,0,0,0,0,0,0,8.78544,0.387193,8.80082,-12.0777,-0.117086,1.53261,0.0692085,0.0789026,-0.00327089,0.0706557,-1.98175,0.131671,0.251907,0.0273652,0.063336,0.0194391,0.159142,-0.10216,0.00280806,0.00123461,0.000299726,1.47498,-1.03703,-4.94802,5.05667,-5.1718,-6.57703,-0.0912287,-2.93621,-36.1687,-2.96263,29.0219,1.04522,2.98638,0.11821,
0.0825168,-0.00379088,0.0702967,-1.9851,0.132306,0.256968,0.0277207,0.101216,0.0146523,0.101332,-0.127954,0.0318803,0.115114,0.0064549,0,0,0,0,0,0,0,8.60001,0.377545,8.61336,-11.7388,-0.15079,1.49292,0.0671481,0.0789026,-0.00327089,0.0706557,-1.98175,0.131671,0.251907,0.0273652,0.063336,0.0194391,0.159142,-0.10216,0.00280806,0.00123461,0.000299726,0,0,0,0,0,0,0,-2.93621,-36.1687,-2.96263,29.0219,1.04522,2.98638,0.11821,
0.0827113,-0.0028654,0.074472,-1.98625,0.131622,0.255212,0.027586,0.098435,0.0136099,0.0985162,-0.123308,0.0232777,0.112015,0.00621726,0,0,0,0,0,0,0,8.21985,0.360173,8.22922,-11.0603,-0.210882,1.41667,0.0629179,0.0789026,-0.00327089,0.0706557,-1.98175,0.131671,0.251907,0.0273652,0.063336,0.0194391,0.159142,-0.10216,0.00280806,0.00123461,0.000299726,0,0,0,0,0,0,0,-2.93621,-36.1687,-2.96263,29.0219,1.04522,2.98638,0.11821,
0.0833842,-0.002793,0.0751442,-1.98706,0.131493,0.256028,0.0276266,0.0955685,0.0126978,0.0956188,-0.118746,0.01541,0.110001,0.00599022,0,0,0,0,0,0,0,8.02587,0.352245,8.03329,-10.7205,-0.239514,1.38084,0.0607882,0.0789026,-0.00327089,0.0706557,-1.98175,0.131671,0.251907,0.0273652,0.063336,0.0194391,0.159142,-0.10216,0.00280806,0.00123461,0.000299726,0,0,0,0,0,0,0,-2.93621,-36.1687,-2.96263,29.0219,1.04522,2.98638,0.11821,
0.0840333,-0.00272391,0.0757926,-1.98783,0.131327,0.256852,0.0276658,0.0926839,0.0118854,0.0927061,-0.114282,0.0081734,0.108601,0.00577191,0,0,0,0,0,0,0,7.82772,0.324992,7.82915,-10.3501,-0.266424,1.36616,0.0585241,0.08089,-0.00206649,0.0758298,-1.98506,0.131632,0.251865,0.0273659,0.0575183,0.020501,0.141538,-0.0990931,-0.00419842,0.000596831,0.00151495,-0.727209,0.132736,-2.2005,0.383395,-0.875811,-0.0797226,0.151903,-0.603451,-34.6452,-0.586229,25.5069,1.28967,2.49566,0.0980684,
0.0846605,-0.00265805,0.0764189,-1.98857,0.131125,0.257677,0.0277036,0.0898257,0.0111551,0.0898217,-0.109919,0.00147465,0.107515,0.00556235,0,0,0,0,0,0,0,7.62998,0.317804,7.62948,-10.0089,-0.295928,1.33433,0.0564136,0.08089,-0.00206649,0.0758298,-1.98506,0.131632,0.251865,0.0273659,0.0575183,0.020501,0.141538,-0.0990931,-0.00419842,0.000596831,0.00151495,0,0,0,0,0,0,0,-0.603451,-34.6452,-0.586229,25.5069,1.28967,2.49566,0.0980684,
0.0843174,-0.00158708,0.0792591,-1.98909,0.131037,0.254722,0.0275572,0.0875618,0.011005,0.0875225,-0.106267,-0.00396425,0.103757,0.00535369,0,0,0,0,0,0,0,7.43099,0.31097,7.42855,-9.66696,-0.32613,1.30472,0.0543117,0.08089,-0.00206649,0.0758298,-1.98506,0.131632,0.251865,0.0273659,0.0575183,0.020501,0.141538,-0.0990931,-0.00419842,0.000596831,0.00151495,0,0,0,0,0,0,0,-0.603451,-34.6452,-0.586229,25.5069,1.28967,2.49566,0.0980684,
0.0849215,-0.00150918,0.0798615,-1.98978,0.130791,0.255455,0.0275921,0.0851503,0.0107515,0.0850792,-0.102458,-0.00931797,0.101334,0.00515614,0,0,0,0,0,0,0,7.23134,0.304258,7.22697,-9.32409,-0.35847,1.277,0.0522947,0.08089,-0.00206649,0.0758298,-1.98506,0.131632,0.251865,0.0273659,0.0575183,0.020501,0.141538,-0.0990931,-0.00419842,0.000596831,0.00151495,0,0,0,0,0,0,0,-0.603451,-34.6452,-0.586229,25.5069,1.28967,2.49566,0.0980684,
0.0855032,-0.00143624,0.0804415,-1.99045,0.130508,0.256201,0.0276259,0.0826633,0.0104248,0.0825627,-0.0985572,-0.0145305,0.0996958,0.00496946,0,0,0,0,0,0,0,7.02681,0.280128,7.01609,-8.95167,-0.391951,1.26922,0.0502334,0.0824354,-0.000864607,0.0806756,-1.98802,0.131498,0.251789,0.0273614,0.02825,0.0353142,0.142327,-0.0853469,-0.00165713,0.00750496,-0.000212053,-3.65853,1.85165,0.0986334,1.71827,0.317661,0.863516,-0.215876,0.285221,-33.4709,0.338148,23.5391,1.39404,1.9793,0.138352,
0.086064,-0.00136773,0.0810004,-1.99108,0.130191,0.256949,0.0276586,0.0801505,0.0100524,0.0800222,-0.094609,-0.0195431,0.0984587,0.00479387,0,0,0,0,0,0,0,6.82757,0.273805,6.81489,-8.60678,-0.427005,1.24451,0.0483743,0.0824354,-0.000864607,0.0806756,-1.98802,0.131498,0.251789,0.0273614,0.02825,0.0353142,0.142327,-0.0853469,-0.00165713,0.00750496,-0.000212053,0,0,0,0,0,0,0,0.285221,-33.4709,0.338148,23.5391,1.39404,1.9793,0.138352,
0.0854344,-0.000174911,0.0836748,-1.99154,0.130412,0.254484,0.0275287,0.0779545,0.0105876,0.0777896,-0.0914085,-0.0237384,0.0948305,0.00462871,0,0,0,0,0,0,0,6.6296,0.267787,6.61493,-8.26082,-0.462181,1.22041,0.0466012,0.0824354,-0.000864607,0.0806756,-1.98802,0.131498,0.251789,0.0273614,0.02825,0.0353142,0.142327,-0.0853469,-0.00165713,0.00750496,-0.000212053,0,0,0,0,0,0,0,0.285221,-33.4709,0.338148,23.5391,1.39404,1.9793,0.138352,
0.0859666,-8.35785e-05,0.0842043,-1.99214,0.130057,0.255139,0.0275596,0.075669,0.0107534,0.0754697,-0.0878973,-0.0278703,0.0922259,0.0044746,0,0,0,0,0,0,0,6.43379,0.261987,6.41708,-7.9139,-0.497182,1.19589,0.0449599,0.0824354,-0.000864607,0.0806756,-1.98802,0.131498,0.251789,0.0273614,0.02825,0.0353142,0.142327,-0.0853469,-0.00165713,0.00750496,-0.000212053,0,0,0,0,0,0,0,0.285221,-33.4709,0.338148,23.5391,1.39404,1.9793,0.138352,
0.0864788,-8.58879e-07,0.0847136,-1.99269,0.129681,0.255792,0.0275898,0.0733391,0.0106707,0.0731071,-0.084176,-0.0316933,0.0901141,0.0043337,0,0,0,0,0,0,0,6.24106,0.256662,6.22227,-7.56607,-0.529847,1.16975,0.0434454,0.0824354,-0.000864607,0.0806756,-1.98802,0.131498,0.251789,0.0273614,0.02825,0.0353142,0.142327,-0.0853469,-0.00165713,0.00750496,-0.000212053,0,0,0,0,0,0,0,0.285221,-33.4709,0.338148,23.5391,1.39404,1.9793,0.138352,
0.0852851,-9.71642e-05,0.0835207,-1.99107,0.130314,0.253815,0.0275085,0.0714266,0.0113105,0.0711554,-0.0803919,-0.0332704,0.0840092,0.00418878,0,0,0,0,0,0,0,5.86903,0.247736,5.84588,-6.86847,-0.580842,1.10607,0.0408853,0.0824354,-0.000864607,0.0806756,-1.98802,0.131498,0.251789,0.0273614,0.02825,0.0353142,0.142327,-0.0853469,-0.00165713,0.00750496,-0.000212053,0,0,0,0,0,0,0,0.285221,-33.4709,0.338148,23.5391,1.39404,1.9793,0.138352,
0.0857704,1.07692e-06,0.0840024,-1.99155,0.130001,0.254281,0.0275372,0.0692735,0.0115044,0.0689651,-0.0763471,-0.0344396,0.0788646,0.0040676,0,0,0,0,0,0,0,5.6919,0.244531,5.66643,-6.51921,-0.593473,1.06469,0.0398532,0.0824354,-0.000864607,0.0806756,-1.98802,0.131498,0.251789,0.0273614,0.02825,0.0353142,0.142327,-0.0853469,-0.00165713,0.00750496,-0.000212053,0,0,0,0,0,0,0,0.285221,-33.4709,0.338148,23.5391,1.39404,1.9793,0.138352,
0.0862327,8.90267e-05,0.0844608,-1.992,0.129714,0.254718,0.0275657,0.0669766,0.0114023,0.0666319,-0.0721444,-0.0347362,0.074021,0.00396721,0,0,0,0,0,0,0,5.52213,0.24253,5.49422,-6.16997,-0.593331,1.01398,0.0390505,0.0824354,-0.000864607,0.0806756,-1.98802,0.131498,0.251789,0.0273614,0.02825,0.0353142,0.142327,-0.0853469,-0.00165713,0.00750496,-0.000212053,0,0,0,0,0,0,0,0.285221,-33.4709,0.338148,23.5391,1.39404,1.9793,0.138352,
0.0866738,0.000168609,0.0848977,-1.9924,0.129473,0.255109,0.0275946,0.0646082,0.0111114,0.0642277,-0.0678604,-0.0338177,0.0690038,0.00389665,0,0,0,0,0,0,0,5.35855,0.233163,5.32334,-5.79285,-0.574243,0.969403,0.0383512,0.0833583,0.00033084,0.0855237,-1.99057,0.131287,0.251839,0.0273607,0.020536,0.0518779,0.148002,-0.0715306,-0.00737753,0.00266831,-0.000412429,-0.964254,2.07046,0.70946,1.72703,-0.715049,-0.604581,-0.025047,0.360599,-33.3717,0.389723,23.3646,1.55243,1.59386,0.14476,
0.0860195,0.00133801,0.0881739,-1.99314,0.130607,0.252933,0.0274977,0.0632341,0.0122231,0.062802,-0.0646931,-0.0295539,0.0601351,0.00384818,0,0,0,0,0,0,0,5.2056,0.234006,5.16763,-5.44487,-0.536914,0.893585,0.0380437,0.0833583,0.00033084,0.0855237,-1.99057,0.131287,0.251839,0.0273607,0.020536,0.0518779,0.148002,-0.0715306,-0.00737753,0.00266831,-0.000412429,0,0,0,0,0,0,0,0.360599,-33.3717,0.389723,23.3646,1.55243,1.59386,0.14476,
0.0864532,0.00145274,0.088602,-1.99351,0.13059,0.253075,0.0275269,0.0614283,0.0126466,0.0609451,-0.0610689,-0.0240676,0.0516658,0.00380717,0,0,0,0,0,0,0,5.06113,0.23637,5.02018,-5.09825,-0.474248,0.802674,0.0379029,0.0833583,0.00033084,0.0855237,-1.99057,0.131287,0.251839,0.0273607,0.020536,0.0518779,0.148002,-0.0715306,-0.00737753,0.00266831,-0.000412429,0,0,0,0,0,0,0,0.360599,-33.3717,0.389723,23.3646,1.55243,1.59386,0.14476,
0.0868612,0.00155247,0.0890042,-1.99384,0.130676,0.253148,0.0275547,0.0593438,0.0126107,0.0588094,-0.057172,-0.0171225,0.0431618,0.00374029,0,0,0,0,0,0,0,4.92474,0.24009,4.88054,-4.7535,-0.385263,0.695727,0.0378875,0.0833583,0.00033084,0.0855237,-1.99057,0.131287,0.251839,0.0273607,0.020536,0.0518779,0.148002,-0.0715306,-0.00737753,0.00266831,-0.000412429,0,0,0,0,0,0,0,0.360599,-33.3717,0.389723,23.3646,1.55243,1.59386,0.14476,
0.0858382,0.00141746,0.0879847,-1.99264,0.132213,0.251331,0.0274991,0.0577943,0.0136209,0.0571981,-0.0535572,-0.00445137,0.0295652,0.00382612,0,0,0,0,0,0,0,4.67085,0.226561,4.61546,-4.05252,-0.118637,0.445905,0.0399478,0.0836479,0.00124332,0.0899193,-1.99295,0.130899,0.251852,0.0273601,0.000134081,0.0393288,0.124487,-0.0642645,-0.0143125,-0.00351553,0.000348596,-2.55024,-1.56865,-2.93938,0.908266,-0.86687,-0.77298,0.0951281,-1.03589,-35.9703,-1.01073,27.8,1.46728,2.23107,0.110886,
0.0862155,0.00153812,0.0883541,-1.99291,0.132754,0.251089,0.0275315,0.0556679,0.0139132,0.0549938,-0.0497404,0.00997151,0.017597,0.00386928,0,0,0,0,0,0,0,4.53018,0.235562,4.47002,-3.71545,0.0705104,0.287892,0.0400038,0.0836479,0.00124332,0.0899193,-1.99295,0.130899,0.251852,0.0273601,0.000134081,0.0393288,0.124487,-0.0642645,-0.0143125,-0.00351553,0.000348596,0,0,0,0,0,0,0,-1.03589,-35.9703,-1.01073,27.8,1.46728,2.23107,0.110886,
0.0865585,0.00164082,0.088687,-1.99316,0.133491,0.25082,0.0275425,0.0531086,0.0136981,0.0523182,-0.0459481,0.0263897,0.00734442,0.00337089,0,0,0,0,0,0,0,4.37931,0.238161,4.31389,-3.3897,0.251864,0.131807,0.0382931,0.0836479,0.00124332,0.0899193,-1.99295,0.130899,0.251852,0.0273601,0.000134081,0.0393288,0.124487,-0.0642645,-0.0143125,-0.00351553,0.000348596,0,0,0,0,0,0,0,-1.03589,-35.9703,-1.01073,27.8,1.46728,2.23107,0.110886,
0.0868834,0.00173082,0.0890054,-1.99338,0.134198,0.25063,0.027553,0.0506094,0.0132084,0.0498132,-0.0423152,0.0387869,0.0011359,0.00295984,0,0,0,0,0,0,0,4.22931,0.254869,4.16094,-3.06197,0.35664,0.0176205,0.0400352,0.0836479,0.00124332,0.0899193,-1.99295,0.130899,0.251852,0.0273601,0.000134081,0.0393288,0.124487,-0.0642645,-0.0143125,-0.00351553,0.000348596,0,0,0,0,0,0,0,-1.03589,-35.9703,-1.01073,27.8,1.46728,2.23107,0.110886,
0.0854718,0.00217948,0.091715,-1.99448,0.133519,0.250528,0.0274524,0.0481543,0.0136864,0.0473386,-0.0394098,0.0504723,-0.00557882,0.00268558,0,0,0,0,0,0,0,4.05348,0.265489,3.97925,-2.75776,0.589227,-0.0906659,0.0465813,0.0836479,0.00124332,0.0899193,-1.99295,0.130899,0.251852,0.0273601,0.000134081,0.0393288,0.124487,-0.0642645,-0.0143125,-0.00351553,0.000348596,0,0,0,0,0,0,0,-1.03589,-35.9703,-1.01073,27.8,1.46728,2.23107,0.110886,
0.0857504,0.00228587,0.0919849,-1.99466,0.134536,0.250198,0.0274598,0.0454888,0.013609,0.0446197,-0.0361432,0.0658189,-0.0127112,0.00233422,0,0,0,0,0,0,0,3.75898,0.268199,3.66833,-2.43178,0.937076,-0.170254,0.0457543,0.0836887,0.00200312,0.0936417,-1.99475,0.13074,0.25199,0.0273552,-0.00293453,0.0214849,0.110935,-0.0534126,-0.00589576,-0.00307574,-0.000626888,-0.383577,-2.23048,-1.69402,1.35649,1.05209,0.054974,-0.121935,0.106693,-35.9703,0.163588,29.0219,1.54602,2.32995,0.151169,
0.0860055,0.0023767,0.0922314,-1.99481,0.135774,0.249787,0.0274621,0.0427675,0.013158,0.041856,-0.0326951,0.0836038,-0.0204481,0.00192394,0,0,0,0,0,0,0,3.41319,0.201399,3.29592,-2.14555,1.2338,-0.197099,0.0183551,0.0836887,0.00200312,0.0936417,-1.99475,0.13074,0.25199,0.0273552,-0.00293453,0.0214849,0.110935,-0.0534126,-0.00589576,-0.00307574,-0.000626888,0,0,0,0,0,0,0,0.106693,-35.9703,0.163588,29.0219,1.54602,2.32995,0.151169,
0.0862462,0.00245567,0.0924649,-1.99493,0.137102,0.249311,0.0274665,0.040232,0.0125005,0.0393227,-0.0291297,0.100079,-0.0282427,0.00164922,0,0,0,0,0,0,0,3.26512,0.206877,3.18656,-1.80723,0.768226,0.148998,0.0138849,0.0836887,0.00200312,0.0936417,-1.99475,0.13074,0.25199,0.0273552,-0.00293453,0.0214849,0.110935,-0.0534126,-0.00589576,-0.00307574,-0.000626888,0,0,0,0,0,0,0,0.106693,-35.9703,0.163588,29.0219,1.54602,2.32995,0.151169,
0.0851351,0.00264924,0.0950563,-1.99569,0.135759,0.24991,0.0273767,0.0379352,0.0122807,0.0370067,-0.0260223,0.117834,-0.0376826,0.0015134,0,0,0,0,0,0,0,3.20574,0.160838,3.12387,-1.60803,1.19577,-0.10432,0.0196475,0.0836887,0.00200312,0.0936417,-1.99475,0.13074,0.25199,0.0273552,-0.00293453,0.0214849,0.110935,-0.0534126,-0.00589576,-0.00307574,-0.000626888,0,0,0,0,0,0,0,0.106693,-35.9703,0.163588,29.0219,1.54602,2.32995,0.151169,
0.0853351,0.00272913,0.0952463,-1.99577,0.13763,0.249187,0.0273794,0.0353498,0.0118219,0.0343565,-0.0228378,0.141041,-0.0482159,0.00127795,0,0,0,0,0,0,0,3.02574,0.140453,2.92571,-1.38085,1.73822,-0.37798,0.0146373,0.083834,0.00235096,0.0962724,-1.9961,0.130765,0.251984,0.0273625,0.000745842,-0.0044613,0.0757679,-0.0410824,-0.00459347,0.00134774,0.00176815,0.460047,-3.24327,-4.3959,1.54127,0.162785,0.552934,0.299379,-0.373349,-35.4189,-0.185533,28.2245,1.38122,2.38305,0.0843355,
0.0855121,0.00279794,0.0954122,-1.99584,0.139801,0.248383,0.0273768,0.0327027,0.0111778,0.0316328,-0.0198026,0.167092,-0.0586852,0.000956984,0,0,0,0,0,0,0,2.89745,0.131287,2.79671,-1.15643,1.99444,-0.545405,0.00751026,0.083834,0.00235096,0.0962724,-1.9961,0.130765,0.251984,0.0273625,0.000745842,-0.0044613,0.0757679,-0.0410824,-0.00459347,0.00134774,0.00176815,0,0,0,0,0,0,0,-0.373349,-35.4189,-0.185533,28.2245,1.38122,2.38305,0.0843355,
0.0856756,0.00285827,0.0955681,-1.99588,0.142093,0.24758,0.0273735,0.0302517,0.0104505,0.0292021,-0.0170186,0.190974,-0.0670061,0.000684474,0,0,0,0,0,0,0,2.74621,0.156513,2.66066,-0.896571,1.85555,-0.605893,0.00795852,0.083834,0.00235096,0.0962724,-1.9961,0.130765,0.251984,0.0273625,0.000745842,-0.0044613,0.0757679,-0.0410824,-0.00459347,0.00134774,0.00176815,0,0,0,0,0,0,0,-0.373349,-35.4189,-0.185533,28.2245,1.38122,2.38305,0.0843355,
0.0847064,0.00258732,0.0971045,-1.99645,0.139281,0.248744,0.0273472,0.0273585,0.00950795,0.0263136,-0.0142247,0.214049,-0.0740457,0.000423604,0,0,0,0,0,0,0,2.60055,0.182846,2.50973,-0.686382,2.4054,-0.838458,0.0156158,0.083834,0.00235096,0.0962724,-1.9961,0.130765,0.251984,0.0273625,0.000745842,-0.0044613,0.0757679,-0.0410824,-0.00459347,0.00134774,0.00176815,0,0,0,0,0,0,0,-0.373349,-35.4189,-0.185533,28.2245,1.38122,2.38305,0.0843355,
0.0848096,0.00263106,0.0971978,-1.99646,0.142139,0.247822,0.0273341,0.0244665,0.0086999,0.0233834,-0.0115397,0.242681,-0.082282,1.2909e-05,0,0,0,0,0,0,0,2.32137,0.210321,2.20665,-0.455797,3.0714,-1.06741,0.0105984,0.0839417,0.00268328,0.0985302,-1.99723,0.130824,0.25196,0.0273577,-0.000300458,-0.0059602,0.0551099,-0.0328101,-0.00177549,0.00226326,0.000439384,-0.130788,-0.187362,-2.58225,1.03404,0.352248,0.114441,-0.166095,-1.08349,-34.7444,-0.859972,26.5543,1.08825,2.46911,0.11821,
0.0848972,0.00266858,0.0972778,-1.99645,0.145282,0.246828,0.0273171,0.0217634,0.00789783,0.0207068,-0.00908574,0.272728,-0.0906723,-0.000415052,0,0,0,0,0,0,0,2.13877,0.164931,2.00962,-0.264609,3.34287,-1.11062,0.00248054,0.0839417,0.00268328,0.0985302,-1.99723,0.130824,0.25196,0.0273577,-0.000300458,-0.0059602,0.0551099,-0.0328101,-0.00177549,0.00226326,0.000439384,0,0,0,0,0,0,0,-1.08349,-34.7444,-0.859972,26.5543,1.08825,2.46911,0.11821,
0.0843205,0.00286235,0.098872,-1.99729,0.142713,0.248058,0.0272668,0.0184661,0.00700859,0.0174599,-0.00657762,0.297503,-0.097432,-0.000745395,0,0,0,0,0,0,0,1.75085,0.139746,1.65533,0.0972658,3.80862,-1.13185,8.00491e-08,0.0839417,0.00268328,0.0985302,-1.99723,0.130824,0.25196,0.0273577,-0.000300458,-0.0059602,0.0551099,-0.0328101,-0.00177549,0.00226326,0.000439384,0,0,0,0,0,0,0,-1.08349,-34.7444,-0.859972,26.5543,1.08825,2.46911,0.11821,
0.0843502,0.00288281,0.0988948,-1.99725,0.146188,0.246974,0.0272449,0.0155156,0.00611844,0.014539,-0.00426277,0.324877,-0.105042,-0.00114385,0,0,0,0,0,0,0,1.50962,0.137985,1.39463,0.266556,4.45403,-1.34747,-0.0093117,0.0839417,0.00268328,0.0985302,-1.99723,0.130824,0.25196,0.0273577,-0.000300458,-0.0059602,0.0551099,-0.0328101,-0.00177549,0.00226326,0.000439384,0,0,0,0,0,0,0,-1.08349,-34.7444,-0.859972,26.5543,1.08825,2.46911,0.11821,
0.0843773,0.002891,0.0989154,-1.99721,0.149803,0.245872,0.0272246,0.0130894,0.00509956,0.0121456,-0.00237254,0.350272,-0.111579,-0.00142211,0,0,0,0,0,0,0,1.35104,0.0106327,1.26042,0.411648,4.58716,-1.37195,-0.0165128,0.0839614,0.00293206,0.100337,-1.99815,0.130884,0.251949,0.0273573,0.00468486,0.00363418,0.0430929,-0.0235791,-0.0039608,0.00193796,0.000475563,0.623165,1.1993,-1.50212,1.15388,-0.273164,-0.0406634,0.00452236,-0.500302,-34.2961,-0.312487,25.4593,1.36932,2.26403,0.11821,
0.0844108,0.00288729,0.0989444,-1.99717,0.153333,0.244846,0.0272059,0.0113087,0.00398681,0.0104414,-0.000912568,0.368471,-0.11491,-0.00160446,0,0,0,0,0,0,0,1.15284,-0.0871667,1.07709,0.569899,4.16917,-1.22381,-0.0166861,0.0839614,0.00293206,0.100337,-1.99815,0.130884,0.251949,0.0273573,0.00468486,0.00363418,0.0430929,-0.0235791,-0.0039608,0.00193796,0.000475563,0,0,0,0,0,0,0,-0.500302,-34.2961,-0.312487,25.4593,1.36932,2.26403,0.11821,
0.0840727,0.00312527,0.100418,-1.99811,0.144049,0.247893,0.0272184,0.00895197,0.00338564,0.00814548,0.000115915,0.377031,-0.115162,-0.00188416,0,0,0,0,0,0,0,0.980385,-0.160188,0.903819,0.677114,4.65915,-1.40041,-0.0159679,0.0839614,0.00293206,0.100337,-1.99815,0.130884,0.251949,0.0273573,0.00468486,0.00363418,0.0430929,-0.0235791,-0.0039608,0.00193796,0.000475563,0,0,0,0,0,0,0,-0.500302,-34.2961,-0.312487,25.4593,1.36932,2.26403,0.11821,
0.0840671,0.00312111,0.100408,-1.99807,0.147454,0.246962,0.0271899,0.00702101,0.00260436,0.00626752,0.0011098,0.386742,-0.115394,-0.00221978,0,0,0,0,0,0,0,0.755516,-0.215431,0.674559,0.803366,5.05361,-1.53177,-0.0225926,0.0839614,0.00293206,0.100337,-1.99815,0.130884,0.251949,0.0273573,0.00468486,0.00363418,0.0430929,-0.0235791,-0.0039608,0.00193796,0.000475563,0,0,0,0,0,0,0,-0.500302,-34.2961,-0.312487,25.4593,1.36932,2.26403,0.11821,
0.0840698,0.00310067,0.100409,-1.99803,0.150774,0.246104,0.0271631,0.00568594,0.00157254,0.00505784,0.00181236,0.392398,-0.113784,-0.00244599,0,0,0,0,0,0,0,0.654252,-0.414716,0.573057,0.85815,4.90841,-1.40228,-0.0232683,0.0839959,0.00306972,0.10174,-1.99875,0.131059,0.251923,0.0273541,-1.35314e-05,0.00781453,0.0358816,-0.00504495,0.00971558,-0.005198,0.00028375,-0.587299,0.522544,-0.901415,2.31677,1.70955,-0.891995,-0.0239766,-0.702633,-34.1454,-0.435472,25.2094,1.39404,2.13128,0.11821,
0.0840933,0.00306907,0.100432,-1.99799,0.153755,0.24538,0.0271417,0.00513551,0.000468146,0.00461938,0.002428,0.388457,-0.109107,-0.00249169,0,0,0,0,0,0,0,0.449377,-0.535552,0.389564,0.927682,4.3351,-1.07206,-0.0251246,0.0839959,0.00306972,0.10174,-1.99875,0.131059,0.251923,0.0273541,-1.35314e-05,0.00781453,0.0358816,-0.00504495,0.00971558,-0.005198,0.00028375,0,0,0,0,0,0,0,-0.702633,-34.1454,-0.435472,25.2094,1.39404,2.13128,0.11821,
0.0839813,0.0031142,0.101712,-1.99863,0.142532,0.249167,0.0271884,0.00398797,-0.000219974,0.00355033,0.00293229,0.373596,-0.10097,-0.00262055,0,0,0,0,0,0,0,0.311455,-0.601582,0.256812,0.946081,4.55675,-1.13129,-0.0277296,0.0839959,0.00306972,0.10174,-1.99875,0.131059,0.251923,0.0273541,-1.35314e-05,0.00781453,0.0358816,-0.00504495,0.00971558,-0.005198,0.00028375,0,0,0,0,0,0,0,-0.702633,-34.1454,-0.435472,25.2094,1.39404,2.13128,0.11821,
0.0839817,0.00308118,0.101711,-1.99858,0.145017,0.248649,0.0271629,0.00320091,-0.0010015,0.00282385,0.00349574,0.361018,-0.0937185,-0.00273483,0,0,0,0,0,0,0,0.188397,-0.653798,0.135292,0.971281,4.58528,-1.11868,-0.0342926,0.0839959,0.00306972,0.10174,-1.99875,0.131059,0.251923,0.0273541,-1.35314e-05,0.00781453,0.0358816,-0.00504495,0.00971558,-0.005198,0.00028375,0,0,0,0,0,0,0,-0.702633,-34.1454,-0.435472,25.2094,1.39404,2.13128,0.11821,
0.0839855,0.00304087,0.101714,-1.99853,0.147486,0.248155,0.0271371,0.00265616,-0.00180909,0.00232637,0.00408099,0.350533,-0.087342,-0.00283325,0,0,0,0,0,0,0,0.180704,-0.84927,0.163796,0.91371,4.07786,-0.874309,-0.0354909,0.0839412,0.00321688,0.10278,-1.999,0.131368,0.251868,0.0273474,8.33287e-05,0.0115991,0.0307887,-0.00544175,-0.000261563,-0.00114903,-0.0021552,0.0121075,0.473069,-0.636611,-0.0496001,-1.24714,0.506122,-0.304869,0.0551182,-34.1731,0.286573,25.2847,1.60095,1.9262,0.178635,
0.0839344,0.00329098,0.102765,-1.99892,0.14013,0.250106,0.0271827,0.00163257,-0.00193376,0.00133536,0.00429138,0.336157,-0.0807585,-0.00295586,0,0,0,0,0,0,0,0.127115,-0.875998,0.111093,0.954001,3.12576,-0.529613,-0.0328681,0.0839412,0.00321688,0.10278,-1.999,0.131368,0.251868,0.0273474,8.33287e-05,0.0115991,0.0307887,-0.00544175,-0.000261563,-0.00114903,-0.0021552,0,0,0,0,0,0,0,0.0551182,-34.1731,0.286573,25.2847,1.60095,1.9262,0.178635,
0.0839174,0.00326111,0.102747,-1.99887,0.142436,0.249664,0.0271559,0.000883031,-0.00229366,0.000614125,0.0046351,0.326574,-0.0756585,-0.00303614,0,0,0,0,0,0,0,0.127115,-0.875998,0.111093,0.954001,3.12576,-0.529613,-0.0328681,0.0839412,0.00321688,0.10278,-1.999,0.131368,0.251868,0.0273474,8.33287e-05,0.0115991,0.0307887,-0.00544175,-0.000261563,-0.00114903,-0.0021552,0,0,0,0,0,0,0,0.0551182,-34.1731,0.286573,25.2847,1.60095,1.9262,0.178635,
0.0839043,0.00322303,0.102733,-1.99882,0.144789,0.249221,0.0271294,0.000377886,-0.00278703,0.000132658,0.00504563,0.320089,-0.0716025,-0.00309096,0,0,0,0,0,0,0,0.127115,-0.875998,0.111093,0.954001,3.12576,-0.529613,-0.0328681,0.0839412,0.00321688,0.10278,-1.999,0.131368,0.251868,0.0273474,8.33287e-05,0.0115991,0.0307887,-0.00544175,-0.000261563,-0.00114903,-0.0021552,0,0,0,0,0,0,0,0.0551182,-34.1731,0.286573,25.2847,1.60095,1.9262,0.178635,
0.0838951,0.00317844,0.102722,-1.99876,0.147171,0.24878,0.0271031,7.15825e-05,-0.00334429,-0.000154264,0.00547993,0.315629,-0.0683049,-0.00313009,0,0,0,0,0,0,0,0.127057,-0.879073,0.110908,0.954717,3.12511,-0.529023,-0.032871,0.0839527,0.00323555,0.103212,-1.9991,0.131554,0.251834,0.0273519,-0.00123671,0.00160819,0.0153982,-0.00551639,-0.00210638,0.00184685,-0.000432933,-0.165004,-1.24886,-1.92381,-0.00933046,-0.230603,0.374484,0.215284,0.0551182,-34.2207,0.361952,25.6339,1.54052,1.89232,0.138352,
0.0837934,0.00316542,0.103045,-1.99895,0.140145,0.250192,0.0271921,-0.000855348,-0.00352212,-0.00106538,0.0056627,0.307564,-0.0649023,-0.00318514,0,0,0,0,0,0,0,0.127057,-0.879073,0.110908,0.954717,3.12511,-0.529023,-0.032871,0.0839527,0.00323555,0.103212,-1.9991,0.131554,0.251834,0.0273519,-0.00123671,0.00160819,0.0153982,-0.00551639,-0.00210638,0.00184685,-0.000432933,0,0,0,0,0,0,0,0.0551182,-34.2207,0.361952,25.6339,1.54052,1.89232,0.138352,
0.0837634,0.00312452,0.103014,-1.9989,0.142429,0.249772,0.0271654,-0.0014343,-0.00383998,-0.00163005,0.00593325,0.303151,-0.0624163,-0.00321367,0,0,0,0,0,0,0,0.127057,-0.879073,0.110908,0.954717,3.12511,-0.529023,-0.032871,0.0839527,0.00323555,0.103212,-1.9991,0.131554,0.251834,0.0273519,-0.00123671,0.00160819,0.0153982,-0.00551639,-0.00210638,0.00184685,-0.000432933,0,0,0,0,0,0,0,0.0551182,-34.2207,0.361952,25.6339,1.54052,1.89232,0.138352,
0.0837401,0.00307792,0.102989,-1.99884,0.144764,0.249348,0.0271391,-0.00173142,-0.00423719,-0.00191514,0.00624429,0.300909,-0.060529,-0.00322865,0,0,0,0,0,0,0,0.127057,-0.879073,0.110908,0.954717,3.12511,-0.529023,-0.032871,0.0839527,0.00323555,0.103212,-1.9991,0.131554,0.251834,0.0273519,-0.00123671,0.00160819,0.0153982,-0.00551639,-0.00210638,0.00184685,-0.000432933,0,0,0,0,0,0,0,0.0551182,-34.2207,0.361952,25.6339,1.54052,1.89232,0.138352,
0.0837228,0.00302667,0.102971,-1.99877,0.147132,0.248924,0.027113,-0.001816,-0.00467079,-0.00199,0.00656621,0.299932,-0.0590431,-0.003237,0,0,0,0,0,0,0,0.127057,-0.879073,0.110908,0.954717,3.12511,-0.529023,-0.032871,0.0839527,0.00323555,0.103212,-1.9991,0.131554,0.251834,0.0273519,-0.00123671,0.00160819,0.0153982,-0.00551639,-0.00210638,0.00184685,-0.000432933,0,0,0,0,0,0,0,0.0551182,-34.2207,0.361952,25.6339,1.54052,1.89232,0.138352,
0.0837176,0.00305375,0.103353,-1.99887,0.14011,0.250394,0.0271899,-0.00257453,-0.00489913,-0.00274075,0.00678735,0.294779,-0.0567236,-0.00326681,0,0,0,0,0,0,0,0.126981,-0.881324,0.110841,0.954711,3.12501,-0.529011,-0.032871,0.0839517,0.0032254,0.103596,-1.99912,0.131574,0.251833,0.0273489,0.00471865,-0.000653087,0.00160417,0.00508307,-0.0041043,0.00116584,-0.00175866,0.744419,-0.28266,-1.72425,1.32493,-0.24974,-0.0851258,-0.165716,0.00751081,-34.1216,0.286573,25.733,1.45446,1.9262,0.164902,
0.0836811,0.00300283,0.103315,-1.99881,0.142387,0.25,0.0271634,-0.00297226,-0.00519209,-0.00313086,0.00703613,0.292734,-0.0552453,-0.00327619,0,0,0,0,0,0,0,0.126981,-0.881324,0.110841,0.954711,3.12501,-0.529011,-0.032871,0.0839517,0.0032254,0.103596,-1.99912,0.131574,0.251833,0.0273489,0.00471865,-0.000653087,0.00160417,0.00508307,-0.0041043,0.00116584,-0.00175866,0,0,0,0,0,0,0,0.00751081,-34.1216,0.286573,25.733,1.45446,1.9262,0.164902,
0.0836527,0.00294825,0.103286,-1.99874,0.144716,0.249596,0.0271372,-0.00308873,-0.00551833,-0.00324084,0.00728807,0.292421,-0.0542859,-0.00327656,0,0,0,0,0,0,0,0.126981,-0.881324,0.110841,0.954711,3.12501,-0.529011,-0.032871,0.0839517,0.0032254,0.103596,-1.99912,0.131574,0.251833,0.0273489,0.00471865,-0.000653087,0.00160417,0.00508307,-0.0041043,0.00116584,-0.00175866,0,0,0,0,0,0,0,0.00751081,-34.1216,0.286573,25.733,1.45446,1.9262,0.164902,
0.0837176,0.00305375,0.103353,-1.99887,0.14011,0.250394,0.0271899,-0.00359271,-0.00557716,-0.00374142,0.00736484,0.28877,-0.0529178,-0.00329845,0,0,0,0,0,0,0,0.126981,-0.881324,0.110841,0.954711,3.12501,-0.529011,-0.032871,0.0839517,0.0032254,0.103596,-1.99912,0.131574,0.251833,0.0273489,0.00471865,-0.000653087,0.00160417,0.00508307,-0.0041043,0.00116584,-0.00175866,0,0,0,0,0,0,0,0.00751081,-34.1216,0.286573,25.733,1.45446,1.9262,0.164902,
0.0836811,0.00300283,0.103315,-1.99881,0.142387,0.25,0.0271634,-0.0037868,-0.00573452,-0.0039314,0.00749812,0.287926,-0.0522007,-0.0033015,0,0,0,0,0,0,0,0.127015,-0.882104,0.110856,0.954776,3.12502,-0.528982,-0.0328712,0.0839512,0.00322632,0.10376,-1.99913,0.131577,0.251836,0.0273512,0.00305069,-0.000591182,0.00557797,-0.000967589,-0.00361794,0.000951133,-0.0005088,-0.208494,0.0077381,0.496726,-0.756333,0.060795,-0.0268383,0.156233,-0.0202602,-34.2207,0.238966,25.9076,1.43066,1.9793,0.14476,
0.0836527,0.00294825,0.103286,-1.99874,0.144716,0.249596,0.0271372,-0.00374036,-0.00595227,-0.00388127,0.00765767,0.288575,-0.0518501,-0.00329681,0,0,0,0,0,0,0,0.127015,-0.882104,0.110856,0.954776,3.12502,-0.528982,-0.0328712,0.0839512,0.00322632,0.10376,-1.99913,0.131577,0.251836,0.0273512,0.00305069,-0.000591182,0.00557797,-0.000967589,-0.00361794,0.000951133,-0.0005088,0,0,0,0,0,0,0,-0.0202602,-34.2207,0.238966,25.9076,1.43066,1.9793,0.14476,
0.0836315,0.00289063,0.103264,-1.99867,0.147079,0.249187,0.0271111,-0.00352258,-0.00620228,-0.00366054,0.00782506,0.289942,-0.0516963,-0.00328991,0,0,0,0,0,0,0,0.127015,-0.882104,0.110856,0.954776,3.12502,-0.528982,-0.0328712,0.0839512,0.00322632,0.10376,-1.99913,0.131577,0.251836,0.0273512,0.00305069,-0.000591182,0.00557797,-0.000967589,-0.00361794,0.000951133,-0.0005088,0,0,0,0,0,0,0,-0.0202602,-34.2207,0.238966,25.9076,1.43066,1.9793,0.14476,
0.0837401,0.00309478,0.10354,-1.99893,0.140116,0.250282,0.0271924,-0.00387555,-0.00598758,-0.00401376,0.00767299,0.28682,-0.0512397,-0.00331026,0,0,0,0,0,0,0,0.127015,-0.882104,0.110856,0.954776,3.12502,-0.528982,-0.0328712,0.0839512,0.00322632,0.10376,-1.99913,0.131577,0.251836,0.0273512,0.00305069,-0.000591182,0.00557797,-0.000967589,-0.00361794,0.000951133,-0.0005088,0,0,0,0,0,0,0,-0.0202602,-34.2207,0.238966,25.9076,1.43066,1.9793,0.14476,
0.0837056,0.00304825,0.103505,-1.99887,0.142394,0.249875,0.0271659,-0.0039632,-0.00595326,-0.00410015,0.00764818,0.286396,-0.0511713,-0.00331178,0,0,0,0,0,0,0,0.127012,-0.882823,0.11089,0.954712,3.12498,-0.529009,-0.0328709,0.0839389,0.00321624,0.103846,-1.99913,0.131588,0.251835,0.0273515,0.00363035,-0.000589855,-0.00151848,-0.00075153,-0.00236684,6.19081e-05,-0.00116986,0.0724567,0.00016594,-0.887056,0.0270074,0.156388,-0.111153,-0.0826324,0.106693,-34.1731,0.314344,26.0306,1.3446,2.03148,0.14476,
0.0836787,0.00299718,0.103477,-1.9988,0.144724,0.249461,0.0271396,-0.00384259,-0.00603953,-0.00397808,0.00770107,0.287376,-0.0512739,-0.00330566,0,0,0,0,0,0,0,0.127012,-0.882823,0.11089,0.954712,3.12498,-0.529009,-0.0328709,0.0839389,0.00321624,0.103846,-1.99913,0.131588,0.251835,0.0273515,0.00363035,-0.000589855,-0.00151848,-0.00075153,-0.00236684,6.19081e-05,-0.00116986,0,0,0,0,0,0,0,0.106693,-34.1731,0.314344,26.0306,1.3446,2.03148,0.14476,
0.0836588,0.00294236,0.103456,-1.99874,0.147088,0.249045,0.0271135,-0.00357394,-0.00620192,-0.00370823,0.00779897,0.289004,-0.0514289,-0.00329748,0,0,0,0,0,0,0,0.127012,-0.882823,0.11089,0.954712,3.12498,-0.529009,-0.0328709,0.0839389,0.00321624,0.103846,-1.99913,0.131588,0.251835,0.0273515,0.00363035,-0.000589855,-0.00151848,-0.00075153,-0.00236684,6.19081e-05,-0.00116986,0,0,0,0,0,0,0,0.106693,-34.1731,0.314344,26.0306,1.3446,2.03148,0.14476,
0.0836693,0.00308579,0.103567,-1.99893,0.14008,0.250286,0.0271943,-0.00407597,-0.00598027,-0.00420989,0.00765608,0.285811,-0.0509715,-0.00331288,0,0,0,0,0,0,0,0.127012,-0.882823,0.11089,0.954712,3.12498,-0.529009,-0.0328709,0.0839389,0.00321624,0.103846,-1.99913,0.131588,0.251835,0.0273515,0.00363035,-0.000589855,-0.00151848,-0.00075153,-0.00236684,6.19081e-05,-0.00116986,0,0,0,0,0,0,0,0.106693,-34.1731,0.314344,26.0306,1.3446,2.03148,0.14476,
0.0836299,0.00303953,0.103527,-1.99887,0.142348,0.249881,0.0271678,-0.00424728,-0.00594083,-0.00437976,0.00763723,0.285368,-0.0509066,-0.00331143,0,0,0,0,0,0,0,0.127007,-0.88327,0.110979,0.954466,3.12497,-0.529161,-0.0328701,0.0839281,0.00319583,0.103852,-1.99912,0.131587,0.251836,0.0273534,0.000715609,-0.00123872,-0.00198177,-0.00128714,-0.0012171,0.000352637,-0.000238647,-0.364342,-0.0811081,-0.0579122,-0.0669517,0.143717,0.0363412,0.116402,0.209842,-34.1454,0.413527,26.0306,1.35101,2.03148,0.124619,
0.0835991,0.00298869,0.103495,-1.99881,0.144671,0.249469,0.0271417,-0.00416645,-0.00602367,-0.00429756,0.00769397,0.286368,-0.0510181,-0.00330362,0,0,0,0,0,0,0,0.127007,-0.88327,0.110979,0.954466,3.12497,-0.529161,-0.0328701,0.0839281,0.00319583,0.103852,-1.99912,0.131587,0.251836,0.0273534,0.000715609,-0.00123872,-0.00198177,-0.00128714,-0.0012171,0.000352637,-0.000238647,0,0,0,0,0,0,0,0.209842,-34.1454,0.413527,26.0306,1.35101,2.03148,0.124619,
0.0835761,0.00293408,0.103471,-1.99874,0.147029,0.249054,0.0271156,-0.00390871,-0.00618405,-0.00403888,0.00779436,0.288046,-0.0511869,-0.00329454,0,0,0,0,0,0,0,0.127007,-0.88327,0.110979,0.954466,3.12497,-0.529161,-0.0328701,0.0839281,0.00319583,0.103852,-1.99912,0.131587,0.251836,0.0273534,0.000715609,-0.00123872,-0.00198177,-0.00128714,-0.0012171,0.000352637,-0.000238647,0,0,0,0,0,0,0,0.209842,-34.1454,0.413527,26.0306,1.35101,2.03148,0.124619,
0.0836284,0.00306016,0.103544,-1.99892,0.140059,0.250291,0.0271975,-0.00442425,-0.00597536,-0.00455398,0.00766143,0.284922,-0.0507434,-0.00330871,0,0,0,0,0,0,0,0.127007,-0.88327,0.110979,0.954466,3.12497,-0.529161,-0.0328701,0.0839281,0.00319583,0.103852,-1.99912,0.131587,0.251836,0.0273534,0.000715609,-0.00123872,-0.00198177,-0.00128714,-0.0012171,0.000352637,-0.000238647,0,0,0,0,0,0,0,0.209842,-34.1454,0.413527,26.0306,1.35101,2.03148,0.124619,
0.0835865,0.00301363,0.103501,-1.99886,0.142324,0.249888,0.0271711,-0.00458823,-0.00594354,-0.00471665,0.0076484,0.28455,-0.0506919,-0.00330682,0,0,0,0,0,0,0,0.127008,-0.88331,0.110972,0.954462,3.1249,-0.529138,-0.0328702,0.0839105,0.00319706,0.103868,-1.99912,0.131606,0.251831,0.0273519,0.000452017,-0.000280084,-0.000579583,-0.000177343,0.00205732,0.000211603,-0.000894995,-0.032949,0.119829,0.175274,0.138725,0.409303,-0.0176293,-0.0820435,0.384403,-34.1731,0.564283,25.983,1.25305,2.07818,0.138352,
0.0835538,0.0029626,0.103467,-1.99879,0.144643,0.249477,0.0271449,-0.00448777,-0.00603062,-0.00461503,0.00770812,0.285626,-0.0508181,-0.003299,0,0,0,0,0,0,0,0.127008,-0.88331,0.110972,0.954462,3.1249,-0.529138,-0.0328702,0.0839105,0.00319706,0.103868,-1.99912,0.131606,0.251831,0.0273519,0.000452017,-0.000280084,-0.000579583,-0.000177343,0.00205732,0.000211603,-0.000894995,0,0,0,0,0,0,0,0.384403,-34.1731,0.564283,25.983,1.25305,2.07818,0.138352,
0.0836239,0.00306742,0.103573,-1.99891,0.140133,0.250297,0.0271956,-0.00484587,-0.00584732,-0.00497359,0.00759474,0.283113,-0.0504304,-0.00331267,0,0,0,0,0,0,0,0.127008,-0.88331,0.110972,0.954462,3.1249,-0.529138,-0.0328702,0.0839105,0.00319706,0.103868,-1.99912,0.131606,0.251831,0.0273519,0.000452017,-0.000280084,-0.000579583,-0.000177343,0.00205732,0.000211603,-0.000894995,0,0,0,0,0,0,0,0.384403,-34.1731,0.564283,25.983,1.25305,2.07818,0.138352,
0.0835833,0.00302098,0.103532,-1.99885,0.142401,0.249894,0.0271692,-0.00489214,-0.0058388,-0.00501923,0.00759676,0.283196,-0.0504324,-0.00331035,0,0,0,0,0,0,0,0.127008,-0.88331,0.110972,0.954462,3.1249,-0.529138,-0.0328702,0.0839105,0.00319706,0.103868,-1.99912,0.131606,0.251831,0.0273519,0.000452017,-0.000280084,-0.000579583,-0.000177343,0.00205732,0.000211603,-0.000894995,0,0,0,0,0,0,0,0.384403,-34.1731,0.564283,25.983,1.25305,2.07818,0.138352,
0.0835516,0.00296998,0.103499,-1.99879,0.144723,0.249483,0.0271431,-0.00470423,-0.0059462,-0.00483067,0.00766815,0.284611,-0.0506067,-0.00330214,0,0,0,0,0,0,0,0.127005,-0.883544,0.110996,0.954402,3.12495,-0.529192,-0.0328699,0.0839295,0.00319084,0.10389,-1.99912,0.131592,0.251835,0.0273512,-0.000737522,-0.00111656,0.000274476,-0.0019118,-0.00206728,0.00177023,-0.00131296,-0.148692,-0.10456,0.106757,-0.216807,-0.515575,0.194828,-0.0522458,0.182071,-34.2207,0.413527,26.0544,1.3327,2.04522,0.14476,
0.0835279,0.00291522,0.103474,-1.99872,0.14708,0.249069,0.027117,-0.00435568,-0.00612588,-0.00448179,0.00777867,0.286619,-0.0508332,-0.00329295,0,0,0,0,0,0,0,0.127005,-0.883544,0.110996,0.954402,3.12495,-0.529192,-0.0328699,0.0839295,0.00319084,0.10389,-1.99912,0.131592,0.251835,0.0273512,-0.000737522,-0.00111656,0.000274476,-0.0019118,-0.00206728,0.00177023,-0.00131296,0,0,0,0,0,0,0,0.182071,-34.2207,0.413527,26.0544,1.3327,2.04522,0.14476,
0.0836359,0.00306034,0.103588,-1.99892,0.140059,0.250297,0.0271946,-0.00476685,-0.00591559,-0.00489348,0.00764085,0.283787,-0.050465,-0.00330793,0,0,0,0,0,0,0,0.127005,-0.883544,0.110996,0.954402,3.12495,-0.529192,-0.0328699,0.0839295,0.00319084,0.10389,-1.99912,0.131592,0.251835,0.0273512,-0.000737522,-0.00111656,0.000274476,-0.0019118,-0.00206728,0.00177023,-0.00131296,0,0,0,0,0,0,0,0.182071,-34.2207,0.413527,26.0544,1.3327,2.04522,0.14476,
0.0835944,0.00301419,0.103546,-1.99886,0.142324,0.249893,0.0271682,-0.0048511,-0.00588604,-0.00497715,0.00762562,0.283652,-0.0504773,-0.00330652,0,0,0,0,0,0,0,0.127005,-0.883544,0.110996,0.954402,3.12495,-0.529192,-0.0328699,0.0839295,0.00319084,0.10389,-1.99912,0.131592,0.251835,0.0273512,-0.000737522,-0.00111656,0.000274476,-0.0019118,-0.00206728,0.00177023,-0.00131296,0,0,0,0,0,0,0,0.182071,-34.2207,0.413527,26.0544,1.3327,2.04522,0.14476,
0.0835621,0.00296345,0.103512,-1.99879,0.144644,0.249482,0.0271421,-0.00468957,-0.00597749,-0.00481501,0.00768489,0.284916,-0.0506556,-0.00329898,0,0,0,0,0,0,0,0.127006,-0.88375,0.111019,0.954331,3.12495,-0.529243,-0.0328697,0.0839252,0.00318553,0.103913,-1.99912,0.131592,0.251839,0.0273489,-0.000669273,-0.00123108,-0.000864868,-0.000726789,-0.00173854,0.0013177,-0.00138263,0.00853112,-0.0143148,-0.142418,0.148127,0.0410922,-0.0565661,-0.00870878,0.158268,-34.1454,0.286573,26.0068,1.33819,2.04522,0.164902,
0.0835378,0.00290891,0.103487,-1.99873,0.146999,0.249068,0.027116,-0.00435869,-0.00614536,-0.00448386,0.00778703,0.286819,-0.0508823,-0.00329029,0,0,0,0,0,0,0,0.127006,-0.88375,0.111019,0.954331,3.12495,-0.529243,-0.0328697,0.0839252,0.00318553,0.103913,-1.99912,0.131592,0.251839,0.0273489,-0.000669273,-0.00123108,-0.000864868,-0.000726789,-0.00173854,0.0013177,-0.00138263,0,0,0,0,0,0,0,0.158268,-34.1454,0.286573,26.0068,1.33819,2.04522,0.164902,
0.083622,0.0030459,0.103602,-1.99891,0.140057,0.250318,0.0271926,-0.00479507,-0.00596016,-0.00492063,0.00767139,0.283924,-0.0504339,-0.00330522,0,0,0,0,0,0,0,0.127006,-0.88375,0.111019,0.954331,3.12495,-0.529243,-0.0328697,0.0839252,0.00318553,0.103913,-1.99912,0.131592,0.251839,0.0273489,-0.000669273,-0.00123108,-0.000864868,-0.000726789,-0.00173854,0.0013177,-0.00138263,0,0,0,0,0,0,0,0.158268,-34.1454,0.286573,26.0068,1.33819,2.04522,0.164902,
0.0835797,0.00299884,0.103558,-1.99885,0.142321,0.249916,0.0271662,-0.00489356,-0.00594466,-0.00501847,0.00766891,0.28374,-0.0503944,-0.00330394,0,0,0,0,0,0,0,0.127006,-0.88375,0.111019,0.954331,3.12495,-0.529243,-0.0328697,0.0839252,0.00318553,0.103913,-1.99912,0.131592,0.251839,0.0273489,-0.000669273,-0.00123108,-0.000864868,-0.000726789,-0.00173854,0.0013177,-0.00138263,0,0,0,0,0,0,0,0.158268,-34.1454,0.286573,26.0068,1.33819,2.04522,0.164902,
0.0835467,0.00294737,0.103524,-1.99878,0.14464,0.249507,0.02714,-0.00473896,-0.00604265,-0.00486324,0.00773445,0.284968,-0.0505424,-0.00329662,0,0,0,0,0,0,0,0.127006,-0.88375,0.111019,0.954331,3.12495,-0.529243,-0.0328697,0.0839252,0.00318553,0.103913,-1.99912,0.131592,0.251839,0.0273489,-0.000669273,-0.00123108,-0.000864868,-0.000726789,-0.00173854,0.0013177,-0.00138263,0,0,0,0,0,0,0,0.158268,-34.1454,0.286573,26.0068,1.33819,2.04522,0.164902,
0.083622,0.0030459,0.103602,-1.99891,0.140057,0.250318,0.0271926,-0.00509928,-0.00587799,-0.00522413,0.00762933,0.282443,-0.0501619,-0.00331028,0,0,0,0,0,0,0,0.127008,-0.883693,0.111021,0.954308,3.12496,-0.529265,-0.0328696,0.0839116,0.00318553,0.103906,-1.99912,0.131588,0.251841,0.0273527,0.000925423,0.000166985,0.00111791,-0.000922203,-0.000823144,0.000944172,-0.000322757,0.199337,0.174758,0.247848,-0.0244268,0.114424,-0.0466911,0.132484,0.309024,-34.1454,0.389723,25.983,1.36932,2.02508,0.131027,
0.0836026,0.00302122,0.103588,-1.99886,0.142366,0.249893,0.0271694,-0.00506384,-0.00583991,-0.00518889,0.00760441,0.282685,-0.0502736,-0.00330928,0,0,0,0,0,0,0,0.127008,-0.883693,0.111021,0.954308,3.12496,-0.529265,-0.0328696,0.0839116,0.00318553,0.103906,-1.99912,0.131588,0.251841,0.0273527,0.000925423,0.000166985,0.00111791,-0.000922203,-0.000823144,0.000944172,-0.000322757,0,0,0,0,0,0,0,0.309024,-34.1454,0.389723,25.983,1.36932,2.02508,0.131027,
0.0835719,0.00297094,0.103556,-1.99879,0.144689,0.24948,0.0271432,-0.00481793,-0.00592898,-0.00494293,0.00765839,0.284228,-0.0505279,-0.00330184,0,0,0,0,0,0,0,0.127008,-0.883693,0.111021,0.954308,3.12496,-0.529265,-0.0328696,0.0839116,0.00318553,0.103906,-1.99912,0.131588,0.251841,0.0273527,0.000925423,0.000166985,0.00111791,-0.000922203,-0.000823144,0.000944172,-0.000322757,0,0,0,0,0,0,0,0.309024,-34.1454,0.389723,25.983,1.36932,2.02508,0.131027,
0.0835489,0.00291674,0.103532,-1.99873,0.147047,0.249065,0.0271172,-0.00442844,-0.00609807,-0.00455356,0.00775826,0.286336,-0.0508109,-0.00329309,0,0,0,0,0,0,0,0.127008,-0.883693,0.111021,0.954308,3.12496,-0.529265,-0.0328696,0.0839116,0.00318553,0.103906,-1.99912,0.131588,0.251841,0.0273527,0.000925423,0.000166985,0.00111791,-0.000922203,-0.000823144,0.000944172,-0.000322757,0,0,0,0,0,0,0,0.309024,-34.1454,0.389723,25.983,1.36932,2.02508,0.131027,
0.0836364,0.00306448,0.103632,-1.99891,0.140118,0.250302,0.0271999,-0.00474952,-0.00588271,-0.00487592,0.00761819,0.283734,-0.0504713,-0.00330919,0,0,0,0,0,0,0,0.127008,-0.883647,0.111014,0.954304,3.12495,-0.529264,-0.0328696,0.0839042,0.00318712,0.103908,-1.99912,0.131592,0.251841,0.0273564,0.000310287,5.49983e-06,0.00181475,-0.000742783,0.000428164,0.000948635,0.000793967,-0.076892,-0.0201857,0.0871039,0.0224275,0.156413,0.000557967,0.13959,0.336795,-34.1731,0.361952,25.983,1.3327,2.03148,0.0980684,
0.0835973,0.00301861,0.103592,-1.99885,0.142389,0.249896,0.0271735,-0.0047776,-0.00585314,-0.00490391,0.00760241,0.283744,-0.0505076,-0.00330842,0,0,0,0,0,0,0,0.127008,-0.883647,0.111014,0.954304,3.12495,-0.529264,-0.0328696,0.0839042,0.00318712,0.103908,-1.99912,0.131592,0.251841,0.0273564,0.000310287,5.49983e-06,0.00181475,-0.000742783,0.000428164,0.000948635,0.000793967,0,0,0,0,0,0,0,0.336795,-34.1731,0.361952,25.983,1.3327,2.03148,0.0980684,
0.0835668,0.00296802,0.10356,-1.99879,0.144712,0.249484,0.0271473,-0.00458366,-0.00594715,-0.00470968,0.00766228,0.285094,-0.0507039,-0.00330118,0,0,0,0,0,0,0,0.127008,-0.883647,0.111014,0.954304,3.12495,-0.529264,-0.0328696,0.0839042,0.00318712,0.103908,-1.99912,0.131592,0.251841,0.0273564,0.000310287,5.49983e-06,0.00181475,-0.000742783,0.000428164,0.000948635,0.000793967,0,0,0,0,0,0,0,0.336795,-34.1731,0.361952,25.983,1.3327,2.03148,0.0980684,
0.083544,0.00291358,0.103537,-1.99872,0.147071,0.249069,0.0271212,-0.00423673,-0.00611869,-0.00436267,0.00776574,0.287043,-0.0509425,-0.0032926,0,0,0,0,0,0,0,0.127008,-0.883647,0.111014,0.954304,3.12495,-0.529264,-0.0328696,0.0839042,0.00318712,0.103908,-1.99912,0.131592,0.251841,0.0273564,0.000310287,5.49983e-06,0.00181475,-0.000742783,0.000428164,0.000948635,0.000793967,0,0,0,0,0,0,0,0.336795,-34.1731,0.361952,25.983,1.3327,2.03148,0.0980684,
0.0836364,0.00306448,0.103632,-1.99891,0.140118,0.250302,0.0271999,-0.00459616,-0.0058992,-0.00472321,0.00762417,0.2843,-0.0505766,-0.0033088,0,0,0,0,0,0,0,0.127007,-0.883612,0.111006,0.95431,3.12494,-0.529249,-0.0328696,0.083902,0.00318865,0.103909,-1.99911,0.131595,0.251836,0.0273519,-0.000562198,-0.000248707,0.00129038,0.000582005,0.000865751,0.00058158,-0.000949056,-0.109061,-0.0317758,-0.0655456,0.165598,0.0546983,-0.0458819,-0.217878,0.309024,-34.2207,0.389723,25.9552,1.31988,2.07177,0.138352,
0.0835973,0.00301861,0.103592,-1.99885,0.142389,0.249896,0.0271735,-0.00465491,-0.00586634,-0.00478174,0.00760719,0.284196,-0.0505918,-0.0033081,0,0,0,0,0,0,0,0.127007,-0.883612,0.111006,0.95431,3.12494,-0.529249,-0.0328696,0.083902,0.00318865,0.103909,-1.99911,0.131595,0.251836,0.0273519,-0.000562198,-0.000248707,0.00129038,0.000582005,0.000865751,0.00058158,-0.000949056,0,0,0,0,0,0,0,0.309024,-34.2207,0.389723,25.9552,1.31988,2.07177,0.138352,
0.0835668,0.00296802,0.10356,-1.99879,0.144712,0.249484,0.0271473,-0.0044855,-0.00595771,-0.00461194,0.0076661,0.285456,-0.0507713,-0.00330093,0,0,0,0,0,0,0,0.127007,-0.883612,0.111006,0.95431,3.12494,-0.529249,-0.0328696,0.083902,0.00318865,0.103909,-1.99911,0.131595,0.251836,0.0273519,-0.000562198,-0.000248707,0.00129038,0.000582005,0.000865751,0.00058158,-0.000949056,0,0,0,0,0,0,0,0.309024,-34.2207,0.389723,25.9552,1.31988,2.07177,0.138352,
0.083544,0.00291358,0.103537,-1.99872,0.147071,0.249069,0.0271212,-0.0041582,-0.00612714,-0.00428448,0.0077688,0.287333,-0.0509965,-0.00329239,0,0,0,0,0,0,0,0.127007,-0.883612,0.111006,0.95431,3.12494,-0.529249,-0.0328696,0.083902,0.00318865,0.103909,-1.99911,0.131595,0.251836,0.0273519,-0.000562198,-0.000248707,0.00129038,0.000582005,0.000865751,0.00058158,-0.000949056,0,0,0,0,0,0,0,0.309024,-34.2207,0.389723,25.9552,1.31988,2.07177,0.138352,
0.0836215,0.00305404,0.10362,-1.9989,0.140118,0.250319,0.0271952,-0.00456697,-0.00594283,-0.00469394,0.00765736,0.284499,-0.0505286,-0.00330788,0,0,0,0,0,0,0,0.127009,-0.883637,0.111009,0.954348,3.12493,-0.529222,-0.0328698,0.0838969,0.00318833,0.103904,-1.99912,0.131597,0.251835,0.0273501,0.000271733,0.00037971,-0.00157443,-0.000223709,0.00326104,0.000268291,-0.000123678,0.104241,0.078552,-0.358102,-0.100714,0.299411,-0.0391611,0.103172,0.336795,-34.1969,0.43733,25.983,1.28967,2.08459,0.124619,
0.0835814,0.003007,0.103579,-1.99884,0.142387,0.249917,0.0271688,-0.00465749,-0.00593027,-0.00478397,0.00765811,0.284327,-0.0504779,-0.00330685,0,0,0,0,0,0,0,0.127009,-0.883637,0.111009,0.954348,3.12493,-0.529222,-0.0328698,0.0838969,0.00318833,0.103904,-1.99912,0.131597,0.251835,0.0273501,0.000271733,0.00037971,-0.00157443,-0.000223709,0.00326104,0.000268291,-0.000123678,0,0,0,0,0,0,0,0.336795,-34.1969,0.43733,25.983,1.28967,2.08459,0.124619,
0.0835501,0.0029555,0.103547,-1.99877,0.14471,0.249508,0.0271426,-0.00450768,-0.00603178,-0.00463359,0.00772618,0.285535,-0.0506186,-0.00329955,0,0,0,0,0,0,0,0.127009,-0.883637,0.111009,0.954348,3.12493,-0.529222,-0.0328698,0.0838969,0.00318833,0.103904,-1.99912,0.131597,0.251835,0.0273501,0.000271733,0.00037971,-0.00157443,-0.000223709,0.00326104,0.000268291,-0.000123678,0,0,0,0,0,0,0,0.336795,-34.1969,0.43733,25.983,1.28967,2.08459,0.124619,
0.0836002,0.003069,0.103599,-1.99891,0.140126,0.250301,0.0271944,-0.00488758,-0.00582232,-0.00501399,0.00759558,0.283008,-0.0502826,-0.00331242,0,0,0,0,0,0,0,0.127009,-0.883637,0.111009,0.954348,3.12493,-0.529222,-0.0328698,0.0838969,0.00318833,0.103904,-1.99912,0.131597,0.251835,0.0273501,0.000271733,0.00037971,-0.00157443,-0.000223709,0.00326104,0.000268291,-0.000123678,0,0,0,0,0,0,0,0.336795,-34.1969,0.43733,25.983,1.28967,2.08459,0.124619,
0.0835588,0.00302336,0.103556,-1.99885,0.142393,0.249897,0.0271681,-0.00494536,-0.00579902,-0.00507124,0.00758638,0.28308,-0.0503263,-0.00330968,0,0,0,0,0,0,0,0.127008,-0.88379,0.11103,0.954307,3.12492,-0.529246,-0.0328696,0.0839015,0.00318353,0.103911,-1.99912,0.1316,0.251836,0.0273472,-0.00030984,-0.000426517,-8.12231e-05,-0.000389825,0.000659362,0.000882171,-0.00106629,-0.0726966,-0.100778,0.186651,-0.0207645,-0.325209,0.0767349,-0.117826,0.285221,-34.1216,0.361952,25.983,1.25946,2.07818,0.138352,
0.0835266,0.00297296,0.103523,-1.99879,0.144714,0.249486,0.0271419,-0.00476221,-0.00589916,-0.00488757,0.00765087,0.28449,-0.0505332,-0.00330128,0,0,0,0,0,0,0,0.127008,-0.88379,0.11103,0.954307,3.12492,-0.529246,-0.0328696,0.0839015,0.00318353,0.103911,-1.99912,0.1316,0.251836,0.0273472,-0.00030984,-0.000426517,-8.12231e-05,-0.000389825,0.000659362,0.000882171,-0.00106629,0,0,0,0,0,0,0,0.285221,-34.1216,0.361952,25.983,1.25946,2.07818,0.138352,
0.0835024,0.00291868,0.103498,-1.99872,0.14707,0.249072,0.0271159,-0.00441408,-0.00607643,-0.00453928,0.00775761,0.286497,-0.0507847,-0.00329202,0,0,0,0,0,0,0,0.127008,-0.88379,0.11103,0.954307,3.12492,-0.529246,-0.0328696,0.0839015,0.00318353,0.103911,-1.99912,0.1316,0.251836,0.0273472,-0.00030984,-0.000426517,-8.12231e-05,-0.000389825,0.000659362,0.000882171,-0.00106629,0,0,0,0,0,0,0,0.285221,-34.1216,0.361952,25.983,1.25946,2.07818,0.138352,
0.0836109,0.00305303,0.103612,-1.99891,0.140107,0.250309,0.0271908,-0.00480049,-0.0058857,-0.00492636,0.0076357,0.283765,-0.050389,-0.00330704,0,0,0,0,0,0,0,0.127008,-0.88379,0.11103,0.954307,3.12492,-0.529246,-0.0328696,0.0839015,0.00318353,0.103911,-1.99912,0.1316,0.251836,0.0273472,-0.00030984,-0.000426517,-8.12231e-05,-0.000389825,0.000659362,0.000882171,-0.00106629,0,0,0,0,0,0,0,0.285221,-34.1216,0.361952,25.983,1.25946,2.07818,0.138352,
0.0835698,0.00300653,0.10357,-1.99885,0.142374,0.249906,0.0271644,-0.00486691,-0.00587099,-0.00499233,0.00763061,0.283686,-0.0503886,-0.00330576,0,0,0,0,0,0,0,0.127011,-0.883612,0.111008,0.95432,3.1249,-0.529232,-0.0328697,0.0839019,0.00318906,0.10391,-1.99911,0.131606,0.251835,0.0273516,-0.00121512,-2.03132e-05,-0.00221654,0.000478766,0.00273362,0.000349189,-0.000183636,-0.11316,0.0507755,-0.266914,0.108574,0.259283,-0.0666227,0.110331,0.233646,-34.1969,0.314344,25.9552,1.21002,2.08459,0.131027,
0.0835378,0.00295547,0.103537,-1.99878,0.144695,0.249496,0.0271382,-0.00469299,-0.00597327,-0.00481791,0.00769603,0.28498,-0.0505641,-0.00329839,0,0,0,0,0,0,0,0.127011,-0.883612,0.111008,0.95432,3.1249,-0.529232,-0.0328697,0.0839019,0.00318906,0.10391,-1.99911,0.131606,0.251835,0.0273516,-0.00121512,-2.03132e-05,-0.00221654,0.000478766,0.00273362,0.000349189,-0.000183636,0,0,0,0,0,0,0,0.233646,-34.1969,0.314344,25.9552,1.21002,2.08459,0.131027,
0.0835849,0.00305999,0.103585,-1.9989,0.140111,0.25032,0.0271963,-0.00509253,-0.00580268,-0.00521766,0.00759529,0.282471,-0.0501581,-0.00331042,0,0,0,0,0,0,0,0.127011,-0.883612,0.111008,0.95432,3.1249,-0.529232,-0.0328697,0.0839019,0.00318906,0.10391,-1.99911,0.131606,0.251835,0.0273516,-0.00121512,-2.03132e-05,-0.00221654,0.000478766,0.00273362,0.000349189,-0.000183636,0,0,0,0,0,0,0,0.233646,-34.1969,0.314344,25.9552,1.21002,2.08459,0.131027,
0.0835417,0.0030135,0.103541,-1.99884,0.142375,0.249919,0.02717,-0.00515359,-0.0058043,-0.00527804,0.00760499,0.282574,-0.0501591,-0.00330731,0,0,0,0,0,0,0,0.127011,-0.883612,0.111008,0.95432,3.1249,-0.529232,-0.0328697,0.0839019,0.00318906,0.10391,-1.99911,0.131606,0.251835,0.0273516,-0.00121512,-2.03132e-05,-0.00221654,0.000478766,0.00273362,0.000349189,-0.000183636,0,0,0,0,0,0,0,0.233646,-34.1969,0.314344,25.9552,1.21002,2.08459,0.131027,
0.0835081,0.00296245,0.103506,-1.99877,0.144694,0.24951,0.0271439,-0.00496347,-0.00591968,-0.00508735,0.00768067,0.284023,-0.050344,-0.0032988,0,0,0,0,0,0,0,0.127011,-0.883612,0.111008,0.95432,3.1249,-0.529232,-0.0328697,0.0839019,0.00318906,0.10391,-1.99911,0.131606,0.251835,0.0273516,-0.00121512,-2.03132e-05,-0.00221654,0.000478766,0.00273362,0.000349189,-0.000183636,0,0,0,0,0,0,0,0.233646,-34.1969,0.314344,25.9552,1.21002,2.08459,0.131027,
0.0834828,0.00290766,0.10348,-1.99871,0.147048,0.249098,0.0271178,-0.00460233,-0.00610556,-0.00472605,0.00779321,0.286073,-0.0505886,-0.00328959,0,0,0,0,0,0,0,0.127015,-0.883593,0.111015,0.954299,3.12491,-0.529251,-0.0328696,0.0838952,0.0031884,0.103908,-1.99911,0.131603,0.251837,0.0273508,-0.00291846,-8.65207e-05,-0.00127591,0.00144206,0.0021245,0.00072582,0.00028708,-0.212917,-0.00827593,0.117578,0.120411,-0.0761408,0.0470789,0.0588395,0.360599,-34.1969,0.389723,25.9076,1.24115,2.06536,0.104477,
0.0835699,0.00305219,0.103575,-1.99889,0.140097,0.250347,0.0271958,-0.00504342,-0.00593242,-0.00516736,0.00769527,0.283311,-0.0500981,-0.00330303,0,0,0,0,0,0,0,0.127015,-0.883593,0.111015,0.954299,3.12491,-0.529251,-0.0328696,0.0838952,0.0031884,0.103908,-1.99911,0.131603,0.251837,0.0273508,-0.00291846,-8.65207e-05,-0.00127591,0.00144206,0.0021245,0.00072582,0.00028708,0,0,0,0,0,0,0,0.360599,-34.1969,0.389723,25.9076,1.24115,2.06536,0.104477,
0.083526,0.00300494,0.10353,-1.99883,0.14236,0.249948,0.0271694,-0.0051327,-0.00592727,-0.00525601,0.00770262,0.283219,-0.050048,-0.00330112,0,0,0,0,0,0,0,0.127015,-0.883593,0.111015,0.954299,3.12491,-0.529251,-0.0328696,0.0838952,0.0031884,0.103908,-1.99911,0.131603,0.251837,0.0273508,-0.00291846,-8.65207e-05,-0.00127591,0.00144206,0.0021245,0.00072582,0.00028708,0,0,0,0,0,0,0,0.360599,-34.1969,0.389723,25.9076,1.24115,2.06536,0.104477,
0.0834918,0.00295327,0.103495,-1.99876,0.144678,0.249541,0.0271433,-0.00496124,-0.00603342,-0.00508404,0.00777277,0.284517,-0.0502056,-0.00329363,0,0,0,0,0,0,0,0.127015,-0.883593,0.111015,0.954299,3.12491,-0.529251,-0.0328696,0.0838952,0.0031884,0.103908,-1.99911,0.131603,0.251837,0.0273508,-0.00291846,-8.65207e-05,-0.00127591,0.00144206,0.0021245,0.00072582,0.00028708,0,0,0,0,0,0,0,0.360599,-34.1969,0.389723,25.9076,1.24115,2.06536,0.104477,
0.0834661,0.00289799,0.103469,-1.9987,0.147031,0.24913,0.0271173,-0.00461197,-0.00620887,-0.00473466,0.00787799,0.286452,-0.0504392,-0.00328528,0,0,0,0,0,0,0,0.12701,-0.88362,0.111016,0.954277,3.1249,-0.529264,-0.0328696,0.083892,0.0031872,0.103907,-1.99911,0.131605,0.251839,0.0273496,-0.00190386,0.000223515,0.00226945,0.000248105,0.00435165,0.00106342,-0.000414409,0.126825,0.0387545,0.44317,-0.149244,0.278394,0.0422006,-0.087686,0.360599,-34.1731,0.413527,25.9552,1.24664,2.05163,0.124619,
0.0836112,0.00306127,0.103618,-1.9989,0.140167,0.250321,0.0271935,-0.00492493,-0.00598776,-0.00504905,0.00773485,0.283848,-0.0500979,-0.00330182,0,0,0,0,0,0,0,0.12701,-0.88362,0.111016,0.954277,3.1249,-0.529264,-0.0328696,0.083892,0.0031872,0.103907,-1.99911,0.131605,0.251839,0.0273496,-0.00190386,0.000223515,0.00226945,0.000248105,0.00435165,0.00106342,-0.000414409,0,0,0,0,0,0,0,0.360599,-34.1731,0.413527,25.9552,1.24664,2.05163,0.124619,
0.0835712,0.00301483,0.103577,-1.99884,0.142437,0.249918,0.0271671,-0.004939,-0.00595109,-0.00506325,0.00771208,0.283838,-0.0501482,-0.00330181,0,0,0,0,0,0,0,0.12701,-0.88362,0.111016,0.954277,3.1249,-0.529264,-0.0328696,0.083892,0.0031872,0.103907,-1.99911,0.131605,0.251839,0.0273496,-0.00190386,0.000223515,0.00226945,0.000248105,0.00435165,0.00106342,-0.000414409,0,0,0,0,0,0,0,0.360599,-34.1731,0.413527,25.9552,1.24664,2.05163,0.124619,
0.0835401,0.00296378,0.103545,-1.99878,0.144761,0.249508,0.0271409,-0.00472857,-0.0060371,-0.00485276,0.00776287,0.285164,-0.0503684,-0.00329544,0,0,0,0,0,0,0,0.12701,-0.88362,0.111016,0.954277,3.1249,-0.529264,-0.0328696,0.083892,0.0031872,0.103907,-1.99911,0.131605,0.251839,0.0273496,-0.00190386,0.000223515,0.00226945,0.000248105,0.00435165,0.00106342,-0.000414409,0,0,0,0,0,0,0,0.360599,-34.1731,0.413527,25.9552,1.24664,2.05163,0.124619,
0.0836259,0.00304797,0.103639,-1.9989,0.140159,0.250301,0.0271939,-0.00497151,-0.00586815,-0.00509714,0.00764346,0.282866,-0.0500877,-0.00331113,0,0,0,0,0,0,0,0.127006,-0.88378,0.111034,0.954273,3.12491,-0.529268,-0.0328695,0.0838887,0.00318233,0.10391,-1.99912,0.131603,0.251838,0.0273505,-0.00131103,-0.000421042,0.00380419,4.85004e-05,0.00215544,6.73723e-05,-8.91143e-05,0.0741037,-0.0805697,0.191843,-0.0249506,-0.274527,-0.124507,0.0406618,0.285221,-34.1454,0.338148,26.0068,1.25946,2.08459,0.110886,
0.0835874,0.00300102,0.103599,-1.99884,0.142431,0.249897,0.0271674,-0.00494034,-0.00586839,-0.00506599,0.00763981,0.283101,-0.0501734,-0.00331006,0,0,0,0,0,0,0,0.127006,-0.88378,0.111034,0.954273,3.12491,-0.529268,-0.0328695,0.0838887,0.00318233,0.10391,-1.99912,0.131603,0.251838,0.0273505,-0.00131103,-0.000421042,0.00380419,4.85004e-05,0.00215544,6.73723e-05,-8.91143e-05,0,0,0,0,0,0,0,0.285221,-34.1454,0.338148,26.0068,1.25946,2.08459,0.110886,
0.0835574,0.00294958,0.103568,-1.99878,0.144756,0.249486,0.0271412,-0.00470178,-0.00598061,-0.00482719,0.00770588,0.28462,-0.0504127,-0.0033026,0,0,0,0,0,0,0,0.127006,-0.88378,0.111034,0.954273,3.12491,-0.529268,-0.0328695,0.0838887,0.00318233,0.10391,-1.99912,0.131603,0.251838,0.0273505,-0.00131103,-0.000421042,0.00380419,4.85004e-05,0.00215544,6.73723e-05,-8.91143e-05,0,0,0,0,0,0,0,0.285221,-34.1454,0.338148,26.0068,1.25946,2.08459,0.110886,
0.083535,0.00289447,0.103545,-1.99871,0.147116,0.249072,0.0271152,-0.00432147,-0.00616238,-0.00444684,0.0078115,0.286694,-0.0506893,-0.00329383,0,0,0,0,0,0,0,0.127006,-0.88378,0.111034,0.954273,3.12491,-0.529268,-0.0328695,0.0838887,0.00318233,0.10391,-1.99912,0.131603,0.251838,0.0273505,-0.00131103,-0.000421042,0.00380419,4.85004e-05,0.00215544,6.73723e-05,-8.91143e-05,0,0,0,0,0,0,0,0.285221,-34.1454,0.338148,26.0068,1.25946,2.08459,0.110886,
0.0836259,0.00304797,0.103639,-1.9989,0.140159,0.250301,0.0271939,-0.00464584,-0.00596838,-0.0047724,0.00768237,0.28409,-0.0503444,-0.00330984,0,0,0,0,0,0,0,0.127005,-0.883745,0.111032,0.954264,3.12492,-0.529274,-0.0328695,0.0838781,0.00318244,0.103906,-1.99911,0.131599,0.251836,0.0273515,-0.00301046,5.83806e-06,-0.00024436,-0.00187465,0.00254891,0.000564926,0.00130408,-0.212429,0.05336,-0.506069,-0.240394,0.0491843,0.0621942,0.174149,0.435978,-34.1454,0.43733,25.9552,1.27136,2.07177,0.0980684,
0.0835874,0.00300102,0.103599,-1.99884,0.142431,0.249897,0.0271674,-0.0046798,-0.00594857,-0.0048062,0.00767093,0.28408,-0.0503788,-0.00330903,0,0,0,0,0,0,0,0.127005,-0.883745,0.111032,0.954264,3.12492,-0.529274,-0.0328695,0.0838781,0.00318244,0.103906,-1.99911,0.131599,0.251836,0.0273515,-0.00301046,5.83806e-06,-0.00024436,-0.00187465,0.00254891,0.000564926,0.00130408,0,0,0,0,0,0,0,0.435978,-34.1454,0.43733,25.9552,1.27136,2.07177,0.0980684,
0.0835574,0.00294958,0.103568,-1.99878,0.144756,0.249486,0.0271412,-0.00449335,-0.00604476,-0.00461936,0.00773078,0.285403,-0.050577,-0.00330178,0,0,0,0,0,0,0,0.127005,-0.883745,0.111032,0.954264,3.12492,-0.529274,-0.0328695,0.0838781,0.00318244,0.103906,-1.99911,0.131599,0.251836,0.0273515,-0.00301046,5.83806e-06,-0.00024436,-0.00187465,0.00254891,0.000564926,0.00130408,0,0,0,0,0,0,0,0.435978,-34.1454,0.43733,25.9552,1.27136,2.07177,0.0980684,
0.0836259,0.00304797,0.103639,-1.9989,0.140159,0.250301,0.0271939,-0.00478334,-0.00587427,-0.00491042,0.0076178,0.283057,-0.0502546,-0.0033162,0,0,0,0,0,0,0,0.127005,-0.883745,0.111032,0.954264,3.12492,-0.529274,-0.0328695,0.0838781,0.00318244,0.103906,-1.99911,0.131599,0.251836,0.0273515,-0.00301046,5.83806e-06,-0.00024436,-0.00187465,0.00254891,0.000564926,0.00130408,0,0,0,0,0,0,0,0.435978,-34.1454,0.43733,25.9552,1.27136,2.07177,0.0980684,
0.0835197,0.00302454,0.103538,-1.99886,0.142357,0.249877,0.0271705,-0.00490308,-0.00581802,-0.0050292,0.00758672,0.283023,-0.0503452,-0.00331198,0,0,0,0,0,0,0,0.127007,-0.883607,0.111001,0.954332,3.12491,-0.529223,-0.0328697,0.0838853,0.00318957,0.103914,-1.99911,0.131602,0.251834,0.027347,-0.00191406,0.000694325,0.00659682,0.000378514,0.00377583,0.000269173,-0.000629077,0.13705,0.0860608,0.855147,0.281645,0.153365,-0.0369691,-0.241645,0.285221,-34.2485,0.26277,25.983,1.24664,2.09191,0.138352,
0.0834862,0.00297489,0.103504,-1.9988,0.144675,0.249465,0.0271443,-0.00476074,-0.0058957,-0.00488606,0.00763716,0.284366,-0.0505792,-0.00330258,0,0,0,0,0,0,0,0.127007,-0.883607,0.111001,0.954332,3.12491,-0.529223,-0.0328697,0.0838853,0.00318957,0.103914,-1.99911,0.131602,0.251834,0.027347,-0.00191406,0.000694325,0.00659682,0.000378514,0.00377583,0.000269173,-0.000629077,0,0,0,0,0,0,0,0.285221,-34.2485,0.26277,25.983,1.24664,2.09191,0.138352,
0.083461,0.00292122,0.103478,-1.99873,0.147029,0.24905,0.0271183,-0.00443841,-0.00605833,-0.0045634,0.00773542,0.286335,-0.0508446,-0.00329265,0,0,0,0,0,0,0,0.127007,-0.883607,0.111001,0.954332,3.12491,-0.529223,-0.0328697,0.0838853,0.00318957,0.103914,-1.99911,0.131602,0.251834,0.027347,-0.00191406,0.000694325,0.00659682,0.000378514,0.00377583,0.000269173,-0.000629077,0,0,0,0,0,0,0,0.285221,-34.2485,0.26277,25.983,1.24664,2.09191,0.138352,
0.0836435,0.00306856,0.103664,-1.99891,0.140198,0.250296,0.0271897,-0.00467873,-0.00585665,-0.00480559,0.00760461,0.283928,-0.0505031,-0.00330993,0,0,0,0,0,0,0,0.127007,-0.883607,0.111001,0.954332,3.12491,-0.529223,-0.0328697,0.0838853,0.00318957,0.103914,-1.99911,0.131602,0.251834,0.027347,-0.00191406,0.000694325,0.00659682,0.000378514,0.00377583,0.000269173,-0.000629077,0,0,0,0,0,0,0,0.285221,-34.2485,0.26277,25.983,1.24664,2.09191,0.138352,
0.0836069,0.00302243,0.103627,-1.99884,0.142474,0.249891,0.0271632,-0.00465849,-0.00583842,-0.00478564,0.00759531,0.284049,-0.0505405,-0.00330988,0,0,0,0,0,0,0,0.127019,-0.883775,0.111054,0.954224,3.12491,-0.529289,-0.0328696,0.0838871,0.00318066,0.10391,-1.99911,0.131601,0.251834,0.027347,-0.00462506,-0.000831882,-0.00163042,0.000678564,0.010764,-0.000254024,-0.00102599,-0.338874,-0.190776,-1.0284,0.0375063,0.873515,-0.0653996,-0.0496141,0.309024,-34.1216,0.361952,25.9552,1.25946,2.09832,0.138352,
0.0835784,0.00297161,0.103597,-1.99878,0.144803,0.249479,0.027137,-0.00443885,-0.00594127,-0.00456592,0.00765966,0.285454,-0.0507385,-0.00330305,0,0,0,0,0,0,0,0.127019,-0.883775,0.111054,0.954224,3.12491,-0.529289,-0.0328696,0.0838871,0.00318066,0.10391,-1.99911,0.131601,0.251834,0.027347,-0.00462506,-0.000831882,-0.00163042,0.000678564,0.010764,-0.000254024,-0.00102599,0,0,0,0,0,0,0,0.309024,-34.1216,0.361952,25.9552,1.25946,2.09832,0.138352,
0.0835572,0.00291696,0.103575,-1.99872,0.147165,0.249063,0.0271109,-0.00408164,-0.00611938,-0.00420873,0.00776615,0.287421,-0.0509782,-0.00329465,0,0,0,0,0,0,0,0.127019,-0.883775,0.111054,0.954224,3.12491,-0.529289,-0.0328696,0.0838871,0.00318066,0.10391,-1.99911,0.131601,0.251834,0.027347,-0.00462506,-0.000831882,-0.00163042,0.000678564,0.010764,-0.000254024,-0.00102599,0,0,0,0,0,0,0,0.309024,-34.1216,0.361952,25.9552,1.25946,2.09832,0.138352,
0.0835517,0.00303814,0.103568,-1.99889,0.140181,0.250323,0.0271929,-0.00463793,-0.00595766,-0.00476419,0.00768154,0.284494,-0.0504361,-0.00330551,0,0,0,0,0,0,0,0.127019,-0.883775,0.111054,0.954224,3.12491,-0.529289,-0.0328696,0.0838871,0.00318066,0.10391,-1.99911,0.131601,0.251834,0.027347,-0.00462506,-0.000831882,-0.00163042,0.000678564,0.010764,-0.000254024,-0.00102599,0,0,0,0,0,0,0,0.309024,-34.1216,0.361952,25.9552,1.25946,2.09832,0.138352,
0.0835076,0.00299045,0.103522,-1.99883,0.142446,0.249923,0.0271666,-0.00481416,-0.00595833,-0.00493904,0.00769762,0.284225,-0.050331,-0.00330221,0,0,0,0,0,0,0,0.127006,-0.883778,0.111034,0.954274,3.12491,-0.529258,-0.0328696,0.0838845,0.00318233,0.103908,-1.99911,0.131601,0.251832,0.027347,-0.00391831,-0.00032984,0.00241872,0.000760487,0.00300627,-0.00106624,-0.000148467,0.0883439,0.0627553,0.506142,0.0102404,-0.96971,-0.101527,0.10969,0.285221,-34.1454,0.361952,25.9552,1.25946,2.11114,0.138352,
0.0834733,0.00293845,0.103487,-1.99876,0.144765,0.249516,0.0271405,-0.00470935,-0.00606671,-0.00483319,0.00777333,0.285356,-0.0504367,-0.003294,0,0,0,0,0,0,0,0.127006,-0.883778,0.111034,0.954274,3.12491,-0.529258,-0.0328696,0.0838845,0.00318233,0.103908,-1.99911,0.131601,0.251832,0.027347,-0.00391831,-0.00032984,0.00241872,0.000760487,0.00300627,-0.00106624,-0.000148467,0,0,0,0,0,0,0,0.285221,-34.1454,0.361952,25.9552,1.25946,2.11114,0.138352,
0.0835854,0.00304654,0.103601,-1.9989,0.14013,0.250299,0.0271914,-0.00505383,-0.00589466,-0.00517838,0.00766017,0.282869,-0.0500961,-0.00330782,0,0,0,0,0,0,0,0.127006,-0.883778,0.111034,0.954274,3.12491,-0.529258,-0.0328696,0.0838845,0.00318233,0.103908,-1.99911,0.131601,0.251832,0.027347,-0.00391831,-0.00032984,0.00241872,0.000760487,0.00300627,-0.00106624,-0.000148467,0,0,0,0,0,0,0,0.285221,-34.1454,0.361952,25.9552,1.25946,2.11114,0.138352,
0.0835438,0.00299953,0.103558,-1.99884,0.142397,0.249897,0.027165,-0.00508195,-0.005891,-0.00520613,0.00765943,0.282974,-0.0501382,-0.0033059,0,0,0,0,0,0,0,0.127006,-0.883778,0.111034,0.954274,3.12491,-0.529258,-0.0328696,0.0838845,0.00318233,0.103908,-1.99911,0.131601,0.251832,0.027347,-0.00391831,-0.00032984,0.00241872,0.000760487,0.00300627,-0.00106624,-0.000148467,0,0,0,0,0,0,0,0.285221,-34.1454,0.361952,25.9552,1.25946,2.11114,0.138352,
0.0835115,0.00294807,0.103525,-1.99877,0.144719,0.249487,0.0271388,-0.00487412,-0.0059992,-0.0049979,0.00772634,0.284409,-0.0503481,-0.00329818,0,0,0,0,0,0,0,0.127006,-0.883778,0.111034,0.954274,3.12491,-0.529258,-0.0328696,0.0838845,0.00318233,0.103908,-1.99911,0.131601,0.251832,0.027347,-0.00391831,-0.00032984,0.00241872,0.000760487,0.00300627,-0.00106624,-0.000148467,0,0,0,0,0,0,0,0.285221,-34.1454,0.361952,25.9552,1.25946,2.11114,0.138352,
0.0834872,0.00289296,0.1035,-1.99871,0.147075,0.249074,0.0271128,-0.00450558,-0.00617718,-0.00462927,0.0078315,0.286435,-0.050607,-0.00328949,0,0,0,0,0,0,0,0.127012,-0.883769,0.11103,0.954298,3.12492,-0.529241,-0.0328698,0.0838814,0.00318428,0.103914,-1.99912,0.131599,0.251833,0.0273515,-0.00195582,0.000461981,7.7879e-05,-0.00122782,0.0107438,-0.00112356,0.00087981,0.245312,0.0989775,-0.292605,-0.248538,0.967191,-0.00716486,0.128535,0.25745,-34.1731,0.238966,26.0306,1.27777,2.10473,0.0980684,
0.083587,0.00307244,0.103611,-1.99892,0.140211,0.250262,0.027197,-0.00486535,-0.00591555,-0.00499,0.00765947,0.283858,-0.0503722,-0.0033036,0,0,0,0,0,0,0,0.127012,-0.883769,0.11103,0.954298,3.12492,-0.529241,-0.0328698,0.0838814,0.00318428,0.103914,-1.99912,0.131599,0.251833,0.0273515,-0.00195582,0.000461981,7.7879e-05,-0.00122782,0.0107438,-0.00112356,0.00087981,0,0,0,0,0,0,0,0.25745,-34.1731,0.238966,26.0306,1.27777,2.10473,0.0980684,
0.0835463,0.00302752,0.103569,-1.99886,0.142482,0.249855,0.0271706,-0.00490922,-0.00585545,-0.00503376,0.00762101,0.283845,-0.0504725,-0.00330227,0,0,0,0,0,0,0,0.127012,-0.883769,0.11103,0.954298,3.12492,-0.529241,-0.0328698,0.0838814,0.00318428,0.103914,-1.99912,0.131599,0.251833,0.0273515,-0.00195582,0.000461981,7.7879e-05,-0.00122782,0.0107438,-0.00112356,0.00087981,0,0,0,0,0,0,0,0.25745,-34.1731,0.238966,26.0306,1.27777,2.10473,0.0980684,
0.0835147,0.00297769,0.103537,-1.9988,0.144805,0.249441,0.0271445,-0.00471755,-0.00592998,-0.00484194,0.00766531,0.285156,-0.0507066,-0.00329522,0,0,0,0,0,0,0,0.127012,-0.883769,0.11103,0.954298,3.12492,-0.529241,-0.0328698,0.0838814,0.00318428,0.103914,-1.99912,0.131599,0.251833,0.0273515,-0.00195582,0.000461981,7.7879e-05,-0.00122782,0.0107438,-0.00112356,0.00087981,0,0,0,0,0,0,0,0.25745,-34.1731,0.238966,26.0306,1.27777,2.10473,0.0980684,
0.083491,0.00292386,0.103512,-1.99873,0.147162,0.249025,0.0271184,-0.0043652,-0.00608977,-0.00448972,0.00775855,0.287066,-0.050966,-0.00328716,0,0,0,0,0,0,0,0.127006,-0.883715,0.111025,0.954265,3.12491,-0.529271,-0.0328695,0.0838817,0.00318428,0.103911,-1.99911,0.131601,0.251836,0.0273478,-0.00345381,-0.000348599,0.000174335,-0.000109379,0.00397701,-0.000619021,-0.00170741,-0.187249,-0.101322,0.012057,0.139805,-0.845849,0.0630669,-0.323403,0.309024,-34.1731,0.338148,25.983,1.28967,2.07818,0.131027,
0.0835675,0.00305436,0.103589,-1.9989,0.140122,0.250298,0.0271923,-0.00481924,-0.00589325,-0.00494405,0.0076368,0.28417,-0.0505365,-0.00330141,0,0,0,0,0,0,0,0.127006,-0.883715,0.111025,0.954265,3.12491,-0.529271,-0.0328695,0.0838817,0.00318428,0.103911,-1.99911,0.131601,0.251836,0.0273478,-0.00345381,-0.000348599,0.000174335,-0.000109379,0.00397701,-0.000619021,-0.00170741,0,0,0,0,0,0,0,0.309024,-34.1731,0.338148,25.983,1.28967,2.07818,0.131027,
0.0835247,0.00300799,0.103545,-1.99884,0.142386,0.249895,0.0271659,-0.00492584,-0.00587392,-0.00505004,0.0076314,0.283956,-0.0505034,-0.00330011,0,0,0,0,0,0,0,0.127006,-0.883715,0.111025,0.954265,3.12491,-0.529271,-0.0328695,0.0838817,0.00318428,0.103911,-1.99911,0.131601,0.251836,0.0273478,-0.00345381,-0.000348599,0.000174335,-0.000109379,0.00397701,-0.000619021,-0.00170741,0,0,0,0,0,0,0,0.309024,-34.1731,0.338148,25.983,1.28967,2.07818,0.131027,
0.0834913,0.00295705,0.103511,-1.99878,0.144706,0.249485,0.0271398,-0.00477384,-0.00597266,-0.00489752,0.00769637,0.285144,-0.0506499,-0.00329308,0,0,0,0,0,0,0,0.127006,-0.883715,0.111025,0.954265,3.12491,-0.529271,-0.0328695,0.0838817,0.00318428,0.103911,-1.99911,0.131601,0.251836,0.0273478,-0.00345381,-0.000348599,0.000174335,-0.000109379,0.00397701,-0.000619021,-0.00170741,0,0,0,0,0,0,0,0.309024,-34.1731,0.338148,25.983,1.28967,2.07818,0.131027,
0.083597,0.00307534,0.103612,-1.99892,0.140112,0.250249,0.0271943,-0.00508164,-0.00573407,-0.00520645,0.00753151,0.282698,-0.0504546,-0.00330756,0,0,0,0,0,0,0,0.127004,-0.883788,0.111029,0.954293,3.12496,-0.529259,-0.0328696,0.0838866,0.00318276,0.10391,-1.99911,0.131587,0.251834,0.02735,0.00191835,0.000714041,-0.00250132,-0.00116593,0.00278593,-0.00189883,3.42772e-05,0.671519,0.13283,-0.334457,-0.132069,-0.148885,-0.159976,0.217711,0.209842,-34.1969,0.314344,26.0306,1.38122,2.10473,0.110886,
0.0835562,0.00303104,0.10357,-1.99886,0.142379,0.24984,0.0271679,-0.00508594,-0.0056949,-0.0052107,0.00750308,0.282837,-0.0505781,-0.00330602,0,0,0,0,0,0,0,0.127004,-0.883788,0.111029,0.954293,3.12496,-0.529259,-0.0328696,0.0838866,0.00318276,0.10391,-1.99911,0.131587,0.251834,0.02735,0.00191835,0.000714041,-0.00250132,-0.00116593,0.00278593,-0.00189883,3.42772e-05,0,0,0,0,0,0,0,0.209842,-34.1969,0.314344,26.0306,1.38122,2.10473,0.110886,
