xiao-wang007/linearmpc_panda/paper_data/panda_torque_PD_controller_Start_at_0_torque_rate_limiter/3/trajectory.csv
Commanded Joint 0 Position,Commanded Joint 1 Position,Commanded Joint 2 Position,Commanded Joint 3 Position,Commanded Joint 4 Position,Commanded Joint 5 Position,Commanded Joint 6 Position,Commanded Joint 0 Velocity,Commanded Joint 1 Velocity,Commanded Joint 2 Velocity,Commanded Joint 3 Velocity,Commanded Joint 4 Velocity,Commanded Joint 5 Velocity,Commanded Joint 6 Velocity,Commanded Joint 0 Acceleration,Commanded Joint 1 Acceleration,Commanded Joint 2 Acceleration,Commanded Joint 3 Acceleration,Commanded Joint 4 Acceleration,Commanded Joint 5 Acceleration,Commanded Joint 6 Acceleration,Commanded Joint 0 Torque,Commanded Joint 1 Torque,Commanded Joint 2 Torque,Commanded Joint 3 Torque,Commanded Joint 4 Torque,Commanded Joint 5 Torque,Commanded Joint 6 Torque,Actual Joint 0 Position,Actual Joint 1 Position,Actual Joint 2 Position,Actual Joint 3 Position,Actual Joint 4 Position,Actual Joint 5 Position,Actual Joint 6 Position,Actual Joint 0 Velocity,Actual Joint 1 Velocity,Actual Joint 2 Velocity,Actual Joint 3 Velocity,Actual Joint 4 Velocity,Actual Joint 5 Velocity,Actual Joint 6 Velocity,Actual Joint 0 Acceleration,Actual Joint 1 Acceleration,Actual Joint 2 Acceleration,Actual Joint 3 Acceleration,Actual Joint 4 Acceleration,Actual Joint 5 Acceleration,Actual Joint 6 Acceleration,Actual Joint 0 Torque,Actual Joint 1 Torque,Actual Joint 2 Torque,Actual Joint 3 Torque,Actual Joint 4 Torque,Actual Joint 5 Torque,Actual Joint 6 Torque,
-0.0160478,-0.153701,-0.000583665,-1.9059,0.0345002,0.247134,-0.060883,0.000522603,0.0171431,0.000672081,-0.0350258,-0.00594451,0.0509026,-0.000368387,0.326627,10.7144,0.420051,-21.8912,-3.71532,31.8141,-0.230242,0.0542863,19.571,0.225054,-24.4666,-0.757712,1.79859,-0.0236296,-0.0160849,-0.15444,-0.000625182,-1.90266,0.0348328,0.241559,-0.06084,-0.00222706,-0.000874516,-0.003094,-0.000875576,0.0163935,-0.000514965,0.00126148,0,0,0,0,0,0,0,0.158268,-30.2773,-0.0625476,27.4509,0.715634,3.45788,-0.0227812,
-0.0161063,-0.154446,-0.000651827,-1.90266,0.0349591,0.241548,-0.0608372,0.000318556,0.0136926,0.000415939,-0.0279914,-0.00427035,0.040704,-0.000284528,-0.127529,-2.15655,-0.160089,4.39652,1.04635,-6.3741,0.0524121,0.0485858,20.0118,0.214694,-24.3829,-0.757625,1.54768,-0.0221154,-0.0160849,-0.15444,-0.000625182,-1.90266,0.0348328,0.241559,-0.06084,-0.00222706,-0.000874516,-0.003094,-0.000875576,0.0163935,-0.000514965,0.00126148,0,0,0,0,0,0,0,0.158268,-30.2773,-0.0625476,27.4509,0.715634,3.45788,-0.0227812,
-0.0161088,-0.154446,-0.000654854,-1.90266,0.034969,0.241549,-0.060837,0.000192378,0.0109437,0.000257081,-0.0223687,-0.00316743,0.0325905,-0.000222108,-0.0788612,-1.71803,-0.0992858,3.51422,0.689324,-5.07093,0.0390126,0.0414253,20.5836,0.202972,-24.2748,-0.75678,1.2001,-0.020146,-0.0160849,-0.15444,-0.000625182,-1.90266,0.0348328,0.241559,-0.06084,-0.00222706,-0.000874516,-0.003094,-0.000875576,0.0163935,-0.000514965,0.00126148,0,0,0,0,0,0,0,0.158268,-30.2773,-0.0625476,27.4509,0.715634,3.45788,-0.0227812,
-0.0161105,-0.154446,-0.000656797,-1.90265,0.034974,0.241552,-0.0608368,0.000113471,0.00875351,0.000157073,-0.0178748,-0.00241084,0.026128,-0.000174751,-0.0493166,-1.36889,-0.0625052,2.80867,0.472869,-4.03906,0.0295977,0.0354742,21.1097,0.193449,-24.1065,-0.754429,0.815689,-0.018149,-0.0160782,-0.154366,-0.000622733,-1.90275,0.0348358,0.241549,-0.0608441,-0.00448906,0.00149064,-0.00194322,0.00130674,0.00822235,-0.0112886,-0.000647127,-0.28275,0.295644,0.143848,0.27279,-1.02139,-1.3467,-0.238576,0.0828892,-29.8805,-0.137926,27.3993,0.722042,3.49724,0.0239107,
-0.0161115,-0.154446,-0.00065809,-1.90265,0.0349762,0.241555,-0.0608368,6.37655e-05,0.00700821,9.33412e-05,-0.014283,-0.00187148,0.0209748,-0.00013831,-0.0310661,-1.09081,-0.0398324,2.24484,0.337098,-3.22073,0.0227755,0.0332597,21.4327,0.189255,-23.842,-0.749344,0.442827,-0.0164269,-0.0160782,-0.154366,-0.000622733,-1.90275,0.0348358,0.241549,-0.0608441,-0.00448906,0.00149064,-0.00194322,0.00130674,0.00822235,-0.0112886,-0.000647127,0,0,0,0,0,0,0,0.0828892,-29.8805,-0.137926,27.3993,0.722042,3.49724,0.0239107,
-0.0162304,-0.154343,-0.000751735,-1.90265,0.0372298,0.240081,-0.0608657,-0.0018824,0.00579117,-0.00170274,-0.0102456,0.0348322,-0.00530673,-0.00030725,-1.21636,-0.760649,-1.12255,2.52339,22.9398,-16.426,-0.105587,0.470218,0.227034,0.466428,-0.293585,3.01871,-1.98284,-0.00191382,-0.0160782,-0.154366,-0.000622733,-1.90275,0.0348358,0.241549,-0.0608441,-0.00448906,0.00149064,-0.00194322,0.00130674,0.00822235,-0.0112886,-0.000647127,0,0,0,0,0,0,0,0.0828892,-29.8805,-0.137926,27.3993,0.722042,3.49724,0.0239107,
-0.0162977,-0.154342,-0.000818325,-1.90261,0.0389846,0.239003,-0.06087,-0.00318849,0.00465318,-0.00302693,-0.0073106,0.0717357,-0.0311746,-0.000352948,-0.816301,-0.711246,-0.827619,1.83439,23.0647,-16.1674,-0.0285611,0.464197,0.223858,0.459967,-0.290626,2.99262,-1.9667,-0.00184217,-0.0160782,-0.154366,-0.000622733,-1.90275,0.0348358,0.241549,-0.0608441,-0.00448906,0.00149064,-0.00194322,0.00130674,0.00822235,-0.0112886,-0.000647127,0,0,0,0,0,0,0,0.0828892,-29.8805,-0.137926,27.3993,0.722042,3.49724,0.0239107,
-0.0163505,-0.154344,-0.000872979,-1.90259,0.040918,0.237798,-0.0608723,-0.00387164,0.00366386,-0.0037879,-0.00525232,0.105722,-0.055079,-0.000341799,-0.426973,-0.618322,-0.47561,1.28642,21.2417,-14.9402,0.00696803,0.457454,0.251874,0.451846,-0.286036,2.96838,-1.94864,-0.00180431,-0.0160788,-0.153723,-0.000620458,-1.90353,0.0347399,0.243299,-0.0608442,-0.000884843,0.060893,-0.0018523,-0.070319,-0.00104566,0.132164,-0.00144274,0.450527,7.42529,0.0113651,-8.95322,-1.1585,17.9315,-0.0994514,0.106693,-21.5413,-0.0387439,19.2307,0.392452,2.622,0.0239107,
-0.0164231,-0.152856,-0.000861469,-1.90342,0.04289,0.236999,-0.0609175,-0.00743467,0.0121717,-0.00648269,-0.00191005,0.210355,-0.145279,-0.000947819,-2.22689,5.31738,-1.68424,2.08892,65.3952,-56.3748,-0.378762,3.89891,1.83918,4.02837,-1.95784,10.8607,-9.86416,-0.0030145,-0.0160788,-0.153723,-0.000620458,-1.90353,0.0347399,0.243299,-0.0608442,-0.000884843,0.060893,-0.0018523,-0.070319,-0.00104566,0.132164,-0.00144274,0,0,0,0,0,0,0,0.106693,-21.5413,-0.0387439,19.2307,0.392452,2.622,0.0239107,
-0.0165555,-0.152592,-0.000977256,-1.90336,0.0490653,0.231858,-0.0609313,-0.00925735,0.0163428,-0.00808083,-0.000105233,0.322667,-0.244758,-0.00110254,-1.13918,2.60694,-0.998836,1.12801,70.195,-62.1748,-0.0967006,3.76401,1.81705,3.91348,-1.92015,10.8607,-9.69718,-0.00269279,-0.0160788,-0.153723,-0.000620458,-1.90353,0.0347399,0.243299,-0.0608442,-0.000884843,0.060893,-0.0018523,-0.070319,-0.00104566,0.132164,-0.00144274,0,0,0,0,0,0,0,0.106693,-21.5413,-0.0387439,19.2307,0.392452,2.622,0.0239107,
-0.0166293,-0.152396,-0.00104442,-1.90335,0.0558832,0.226029,-0.0609375,-0.00925173,0.0179897,-0.0081437,0.000165648,0.428581,-0.341519,-0.00103691,0.00351506,1.02931,-0.0392928,0.169301,66.1965,-60.4757,0.0410165,3.63582,1.78444,3.79126,-1.88796,10.7742,-9.52989,-0.00310525,-0.0160788,-0.153723,-0.000620458,-1.90353,0.0347399,0.243299,-0.0608442,-0.000884843,0.060893,-0.0018523,-0.070319,-0.00104566,0.132164,-0.00144274,0,0,0,0,0,0,0,0.106693,-21.5413,-0.0387439,19.2307,0.392452,2.622,0.0239107,
-0.0166431,-0.152238,-0.00105589,-1.90338,0.0630439,0.219774,-0.0609402,-0.00774566,0.0183341,-0.00680181,-0.000655982,0.521883,-0.429589,-0.000896484,0.941293,0.215261,0.838682,-0.513519,58.3135,-55.0432,0.0877682,3.51708,1.89131,3.66832,-1.86325,10.5444,-9.33895,-0.00411022,-0.0160785,-0.151062,-0.00056919,-1.90963,0.0354505,0.247432,-0.0608412,-0.00387642,0.0573142,0.000828971,-0.231691,0.13728,-0.01528,0.00115747,-0.373948,-0.447345,0.335159,-20.1714,17.2907,-18.4305,0.325026,0.233646,-18.9983,-0.0625476,20.9009,1.60736,1.41533,-0.0026396,
-0.0151041,-0.149745,0.000587987,-1.91082,0.0426201,0.235947,-0.0606742,0.0094173,0.0302308,0.0129771,-0.0124741,0.525038,-0.516402,0.00111931,10.7269,7.43545,12.3618,-7.38634,1.97206,-54.2584,1.25987,25.6731,5.17067,27.4345,-11.3409,10.8599,-14.3822,0.106443,-0.0160785,-0.151062,-0.00056919,-1.90963,0.0354505,0.247432,-0.0608412,-0.00387642,0.0573142,0.000828971,-0.231691,0.13728,-0.01528,0.00115747,0,0,0,0,0,0,0,0.233646,-18.9983,-0.0625476,20.9009,1.60736,1.41533,-0.0026396,
-0.0142534,-0.149257,0.00155259,-1.9113,0.0479983,0.227623,-0.0605765,0.0288019,0.0363724,0.0344968,-0.0219011,0.554487,-0.621209,0.00333651,12.1153,3.8385,13.4498,-5.89185,18.4055,-65.5042,1.38575,24.0904,5.05524,26.146,-9.76895,10.8599,-14.3822,0.0824641,-0.0160785,-0.151062,-0.00056919,-1.90963,0.0354505,0.247432,-0.0608412,-0.00387642,0.0573142,0.000828971,-0.231691,0.13728,-0.01528,0.00115747,0,0,0,0,0,0,0,0.233646,-18.9983,-0.0625476,20.9009,1.60736,1.41533,-0.0026396,
-0.0132274,-0.148975,0.00267013,-1.91191,0.0541953,0.218427,-0.0603929,0.04869,0.0361715,0.0555359,-0.0328606,0.598513,-0.726868,0.00725952,12.4301,-0.125557,13.1494,-6.84969,27.5164,-66.0371,2.45188,23.0822,3.37951,24.9954,-8.88395,10.8599,-14.3822,0.115801,-0.0160785,-0.151062,-0.00056919,-1.90963,0.0354505,0.247432,-0.0608412,-0.00387642,0.0573142,0.000828971,-0.231691,0.13728,-0.01528,0.00115747,0,0,0,0,0,0,0,0.233646,-18.9983,-0.0625476,20.9009,1.60736,1.41533,-0.0026396,
-0.0121281,-0.14894,0.00387822,-1.91274,0.0610707,0.208683,-0.0602251,0.0664363,0.0298077,0.0746311,-0.0469297,0.650697,-0.825098,0.0100031,11.0914,-3.97737,11.9345,-8.79321,32.615,-61.3936,1.71475,21.7606,0.246553,23.243,-9.93008,10.661,-14.3678,0.23041,-0.0162853,-0.149392,-0.000660857,-1.91699,0.0521279,0.234781,-0.0608564,-0.000746984,0.0927093,-0.00828412,-0.108084,1.02382,-0.930435,0.00410925,0.39118,4.42438,-1.13914,15.4508,110.818,-114.394,0.368972,3.83594,-34.7444,3.73811,29.3433,2.96325,-0.0101412,0.0843355,
-0.0143714,-0.148579,0.00120175,-1.91948,0.0659147,0.217252,-0.0604899,0.0822699,0.0329717,0.0891499,-0.0696138,0.689759,-0.88941,0.0116302,9.89603,1.9775,9.07428,-14.1776,24.4136,-40.1952,1.01695,34.217,3.67794,35.5977,-21.0963,10.661,-14.3678,0.201345,-0.0162853,-0.149392,-0.000660857,-1.91699,0.0521279,0.234781,-0.0608564,-0.000746984,0.0927093,-0.00828412,-0.108084,1.02382,-0.930435,0.00410925,0,0,0,0,0,0,0,3.83594,-34.7444,3.73811,29.3433,2.96325,-0.0101412,0.0843355,
-0.0129628,-0.148278,0.00268433,-1.92083,0.0728352,0.207514,-0.0603271,0.101031,0.0338942,0.108384,-0.0894407,0.724819,-0.954991,0.0133737,11.7254,0.576533,12.0216,-12.3918,21.9127,-40.9882,1.08966,30.95,4.40086,32.3956,-19.7597,10.661,-14.3678,0.131097,-0.0162853,-0.149392,-0.000660857,-1.91699,0.0521279,0.234781,-0.0608564,-0.000746984,0.0927093,-0.00828412,-0.108084,1.02382,-0.930435,0.00410925,0,0,0,0,0,0,0,3.83594,-34.7444,3.73811,29.3433,2.96325,-0.0101412,0.0843355,
-0.0114235,-0.148063,0.00431138,-1.92229,0.0800926,0.197413,-0.0602049,0.119307,0.0324903,0.127384,-0.108034,0.761291,-1.01653,0.0137547,11.4229,-0.87739,11.8746,-11.6209,22.7947,-38.4594,0.238157,28.3827,3.46626,30.0401,-19.48,10.661,-14.3678,0.179951,-0.0162853,-0.149392,-0.000660857,-1.91699,0.0521279,0.234781,-0.0608564,-0.000746984,0.0927093,-0.00828412,-0.108084,1.02382,-0.930435,0.00410925,0,0,0,0,0,0,0,3.83594,-34.7444,3.73811,29.3433,2.96325,-0.0101412,0.0843355,
-0.00982563,-0.147868,0.00597606,-1.92378,0.0877132,0.187006,-0.06016,0.135393,0.0308764,0.143524,-0.123533,0.799548,-1.07338,0.0121268,10.0535,-1.00874,10.0876,-9.68662,23.911,-35.534,-1.01749,25.4062,2.21389,26.8296,-20.15,10.5508,-14.0836,0.143805,-0.0162377,-0.14405,-5.63991e-05,-1.91614,0.0843086,0.190951,-0.060841,0.05075,0.113079,0.0842914,0.0290866,0.900171,-1.53507,0.00244242,6.43712,2.54626,11.5719,17.1463,-15.4565,-75.5797,-0.208354,11.1635,-34.1969,11.6886,21.6983,1.45446,-1.3166,0.104477,
-0.0137453,-0.143809,0.00258949,-1.91927,0.0980441,0.169984,-0.0605541,0.143647,0.0259843,0.152298,-0.142567,0.811726,-1.11821,0.0132214,5.15901,-3.05756,5.48379,-11.8961,7.61137,-28.0189,0.684154,33.4549,2.21669,35.8212,-26.0976,10.5508,-14.0836,0.13652,-0.0162377,-0.14405,-5.63991e-05,-1.91614,0.0843086,0.190951,-0.060841,0.05075,0.113079,0.0842914,0.0290866,0.900171,-1.53507,0.00244242,0,0,0,0,0,0,0,11.1635,-34.1969,11.6886,21.6983,1.45446,-1.3166,0.104477,
-0.0121628,-0.143813,0.00427126,-1.92117,0.105201,0.159552,-0.060468,0.15448,0.0206911,0.163883,-0.161574,0.828301,-1.15537,0.0127298,6.77052,-3.30823,7.24046,-11.8797,10.3592,-23.2255,-0.307281,30.3149,1.75127,32.293,-25.4357,10.5508,-14.0836,0.14498,-0.0162377,-0.14405,-5.63991e-05,-1.91614,0.0843086,0.190951,-0.060841,0.05075,0.113079,0.0842914,0.0290866,0.900171,-1.53507,0.00244242,0,0,0,0,0,0,0,11.1635,-34.1969,11.6886,21.6983,1.45446,-1.3166,0.104477,
-0.0105127,-0.143807,0.00602269,-1.92309,0.112699,0.148982,-0.0604647,0.164836,0.0167095,0.174892,-0.177358,0.850092,-1.18855,0.0102663,6.47251,-2.48846,6.88076,-9.86507,13.6192,-20.7376,-1.53963,26.943,0.48809,28.6018,-25.7512,10.5508,-14.0836,0.0927858,-0.0162377,-0.14405,-5.63991e-05,-1.91614,0.0843086,0.190951,-0.060841,0.05075,0.113079,0.0842914,0.0290866,0.900171,-1.53507,0.00244242,0,0,0,0,0,0,0,11.1635,-34.1969,11.6886,21.6983,1.45446,-1.3166,0.104477,
-0.00884981,-0.143766,0.00779599,-1.92501,0.1205,0.138425,-0.0605062,0.173442,0.0143869,0.184246,-0.189843,0.875097,-1.21475,0.00717458,5.37835,-1.45164,5.84619,-7.80287,15.6281,-16.3724,-1.93235,24.3738,0.992548,25.7972,-24.9745,10.6506,-13.641,-0.00348658,-0.0103505,-0.141984,0.00630206,-1.92099,0.116962,0.137724,-0.0605954,0.236115,0.0011546,0.24448,-0.279284,0.88008,-1.57934,0.00278731,23.1706,-13.9906,20.0236,-38.5463,-2.51138,-5.53368,0.0431113,20.5223,-25.6117,21.5354,14.7952,3.51898,-3.56422,0.0980684,
-0.00617447,-0.141939,0.0107546,-1.92622,0.13184,0.115903,-0.0604373,0.191676,0.0124752,0.203824,-0.218516,0.890319,-1.2339,0.00684354,11.3966,-1.19484,12.2362,-17.9207,9.51379,-11.9675,-0.206904,33.2943,2.78589,35.5427,-32.1861,10.6506,-11.915,0.125728,-0.0103505,-0.141984,0.00630206,-1.92099,0.116962,0.137724,-0.0605954,0.236115,0.0011546,0.24448,-0.279284,0.88008,-1.57934,0.00278731,0,0,0,0,0,0,0,20.5223,-25.6117,21.5354,14.7952,3.51898,-3.56422,0.0980684,
-0.0040837,-0.141849,0.0129844,-1.92888,0.139786,0.10605,-0.0604827,0.20561,0.0122264,0.218805,-0.24134,0.910894,-1.23343,0.00434014,8.70876,-0.155468,9.36325,-14.2652,12.8595,0.289908,-1.56463,29.1614,1.65413,31.0225,-32.1276,10.6506,-11.2539,0.0467292,-0.0103505,-0.141984,0.00630206,-1.92099,0.116962,0.137724,-0.0605954,0.236115,0.0011546,0.24448,-0.279284,0.88008,-1.57934,0.00278731,0,0,0,0,0,0,0,20.5223,-25.6117,21.5354,14.7952,3.51898,-3.56422,0.0980684,
-0.00204987,-0.141715,0.0151523,-1.93151,0.147991,0.0968617,-0.0605739,0.215334,0.013141,0.229241,-0.258958,0.933828,-1.21645,0.00119081,6.07733,0.571609,6.52227,-11.0114,14.3334,10.6106,-1.96833,25.7578,1.7,27.3605,-31.4803,10.6506,-10.6792,-0.0569379,-0.0103505,-0.141984,0.00630206,-1.92099,0.116962,0.137724,-0.0605954,0.236115,0.0011546,0.24448,-0.279284,0.88008,-1.57934,0.00278731,0,0,0,0,0,0,0,20.5223,-25.6117,21.5354,14.7952,3.51898,-3.56422,0.0980684,
-8.17532e-05,-0.14155,0.017251,-1.93412,0.156364,0.0883554,-0.0606725,0.22147,0.0146353,0.235862,-0.272205,0.956397,-1.18582,-0.00151283,3.83508,0.933958,4.13855,-8.27892,14.1057,19.1469,-1.68978,23.6002,1.88104,25.0461,-30.7118,10.6506,-9.67641,-0.108919,-0.0103505,-0.141984,0.00630206,-1.92099,0.116962,0.137724,-0.0605954,0.236115,0.0011546,0.24448,-0.279284,0.88008,-1.57934,0.00278731,0,0,0,0,0,0,0,20.5223,-25.6117,21.5354,14.7952,3.51898,-3.56422,0.0980684,
0.00474517,-0.142751,0.0226926,-1.94265,0.17219,0.0571059,-0.0606937,0.241928,0.0131786,0.257489,-0.310089,0.990291,-1.17588,-0.00448706,12.7863,-0.910459,13.5165,-23.6775,21.1837,6.2137,-1.85889,27.875,1.40304,29.6384,-38.4105,10.739,-4.75226,-0.062866,-0.00062099,-0.142727,0.0170067,-1.93516,0.154342,0.0776704,-0.0605094,0.416385,-0.0328232,0.338587,-0.461887,1.06096,-1.863,0.00167086,22.5337,-4.24722,11.7634,-22.8253,22.61,-35.4577,-0.139556,14.6111,-24.2629,14.9378,23.1186,3.9035,-1.07124,0.0376436,
0.00715945,-0.142612,0.0252599,-1.94621,0.181256,0.0499153,-0.0608609,0.253899,0.0140268,0.270173,-0.337278,1.01889,-1.12047,-0.00777026,7.48203,0.530137,7.92745,-16.9934,17.8746,34.631,-2.052,24.6733,1.03658,26.1911,-37.807,10.739,-4.01227,-0.155584,-0.00062099,-0.142727,0.0170067,-1.93516,0.154342,0.0776704,-0.0605094,0.416385,-0.0328232,0.338587,-0.461887,1.06096,-1.863,0.00167086,0,0,0,0,0,0,0,14.6111,-24.2629,14.9378,23.1186,3.9035,-1.07124,0.0376436,
0.00941709,-0.142438,0.0276622,-1.94966,0.190301,0.0442761,-0.0610253,0.259561,0.0155623,0.276197,-0.355941,1.04123,-1.03736,-0.0103257,3.53832,0.959712,3.76527,-11.664,13.962,51.9453,-1.59717,22.7077,0.916262,24.1057,-37.0858,10.739,-2.91507,-0.196167,-0.00062099,-0.142727,0.0170067,-1.93516,0.154342,0.0776704,-0.0605094,0.416385,-0.0328232,0.338587,-0.461887,1.06096,-1.863,0.00167086,0,0,0,0,0,0,0,14.6111,-24.2629,14.9378,23.1186,3.9035,-1.07124,0.0376436,
0.0115371,-0.142261,0.0299196,-1.95298,0.199277,0.0398901,-0.0611752,0.260648,0.016877,0.277392,-0.367887,1.05738,-0.939533,-0.0120091,0.679759,0.821633,0.746905,-7.46666,10.0961,61.1393,-1.05208,21.503,0.755394,22.8349,-36.4238,10.739,-1.97693,-0.190311,-0.00062099,-0.142727,0.0170067,-1.93516,0.154342,0.0776704,-0.0605094,0.416385,-0.0328232,0.338587,-0.461887,1.06096,-1.863,0.00167086,0,0,0,0,0,0,0,14.6111,-24.2629,14.9378,23.1186,3.9035,-1.07124,0.0376436,
0.0207593,-0.142367,0.0412339,-1.96399,0.217786,0.00620883,-0.0611175,0.285042,0.0238242,0.303448,-0.413436,1.10889,-0.851855,-0.0168376,15.2464,4.34202,16.2848,-28.4677,32.1936,54.799,-3.01783,20.0089,-0.00521494,21.4075,-42.6402,10.8006,6.87496,-0.327792,0.0142109,-0.143144,0.0342269,-1.95414,0.196579,0.017901,-0.0605504,0.410393,0.0266783,0.629285,-0.668588,1.32812,-1.59496,-0.00413172,-0.748984,7.43768,36.3372,-25.8376,33.3955,33.5058,-0.725323,6.04175,-23.9375,6.38826,21.7975,2.57873,0.135428,0.0239107,
0.0234744,-0.141969,0.0441255,-1.96845,0.227997,0.00492039,-0.0613773,0.29591,0.0290002,0.315048,-0.44222,1.14239,-0.713695,-0.0199653,6.7921,3.23501,7.25041,-17.9901,20.9386,86.3499,-1.9548,19.0914,-0.505864,20.3937,-42.1085,10.8006,7.64445,-0.330383,0.0142109,-0.143144,0.0342269,-1.95414,0.196579,0.017901,-0.0605504,0.410393,0.0266783,0.629285,-0.668588,1.32812,-1.59496,-0.00413172,0,0,0,0,0,0,0,6.04175,-23.9375,6.38826,21.7975,2.57873,0.135428,0.0239107,
0.0259136,-0.14162,0.0467237,-1.97263,0.237865,0.00561671,-0.0616017,0.297707,0.0319359,0.316995,-0.458356,1.1606,-0.553548,-0.0215807,1.12346,1.8348,1.21644,-10.0849,11.3757,100.092,-1.00966,18.678,-0.718523,19.9311,-41.5286,10.8006,8.17733,-0.295897,0.0142109,-0.143144,0.0342269,-1.95414,0.196579,0.017901,-0.0605504,0.410393,0.0266783,0.629285,-0.668588,1.32812,-1.59496,-0.00413172,0,0,0,0,0,0,0,6.04175,-23.9375,6.38826,21.7975,2.57873,0.135428,0.0239107,
0.0281342,-0.141333,0.0490898,-1.9766,0.247407,0.00798908,-0.0617916,0.293682,0.0327147,0.312749,-0.465953,1.16702,-0.383529,-0.022013,-2.51597,0.486769,-2.65391,-4.74827,4.018,106.262,-0.270144,18.35,-0.758711,19.5581,-40.9461,10.8006,8.36847,-0.254705,0.0142109,-0.143144,0.0342269,-1.95414,0.196579,0.017901,-0.0605504,0.410393,0.0266783,0.629285,-0.668588,1.32812,-1.59496,-0.00413172,0,0,0,0,0,0,0,6.04175,-23.9375,6.38826,21.7975,2.57873,0.135428,0.0239107,
0.0412096,-0.141532,0.0603969,-1.99385,0.267152,-0.0290968,-0.0618716,0.314372,0.0406651,0.335075,-0.509458,1.21533,-0.322741,-0.0277664,12.9315,4.96897,13.9539,-27.1908,30.1886,37.9923,-3.59587,11.0237,-5.31472,11.9366,-46.6916,10.7101,12.2036,-0.565219,0.0341896,-0.142794,0.0529083,-1.98229,0.24419,-0.0246772,-0.0609715,0.680449,0.0746673,0.558326,-0.886096,1.45838,-0.970901,-0.0183059,33.7571,5.99863,-8.86988,-27.1885,16.2821,78.007,-1.77177,2.23713,-29.0553,1.7624,29.1965,2.82867,3.34435,-0.137222,
0.0439115,-0.141093,0.0632791,-1.99885,0.277873,-0.0273557,-0.0621948,0.319045,0.0434869,0.340115,-0.532669,1.24028,-0.214666,-0.0302944,2.92062,1.76363,3.14996,-14.5066,15.5976,67.5472,-1.58002,12.5766,-5.07782,13.5449,-46.0516,10.7101,12.2036,-0.455547,0.0341896,-0.142794,0.0529083,-1.98229,0.24419,-0.0246772,-0.0609715,0.680449,0.0746673,0.558326,-0.886096,1.45838,-0.970901,-0.0183059,0,0,0,0,0,0,0,2.23713,-29.0553,1.7624,29.1965,2.82867,3.34435,-0.137222,
0.0462601,-0.140782,0.0657828,-2.00348,0.288053,-0.0238364,-0.0624524,0.313951,0.0425628,0.334685,-0.541881,1.24673,-0.0837499,-0.0306754,-3.18382,-0.577532,-3.39356,-5.75736,4.03019,81.8225,-0.238122,13.5821,-4.52219,14.56,-45.3537,10.7101,12.2036,-0.364817,0.0341896,-0.142794,0.0529083,-1.98229,0.24419,-0.0246772,-0.0609715,0.680449,0.0746673,0.558326,-0.886096,1.45838,-0.970901,-0.0183059,0,0,0,0,0,0,0,2.23713,-29.0553,1.7624,29.1965,2.82867,3.34435,-0.137222,
0.0483408,-0.140575,0.0680014,-2.00781,0.297755,-0.0189837,-0.0626577,0.303177,0.0392284,0.323212,-0.54165,1.23993,0.0543179,-0.0296733,-6.73355,-2.084,-7.17033,0.143805,-4.24952,86.2924,0.62632,14.1387,-3.71419,15.1208,-44.5417,10.7101,12.2036,-0.292772,0.0341896,-0.142794,0.0529083,-1.98229,0.24419,-0.0246772,-0.0609715,0.680449,0.0746673,0.558326,-0.886096,1.45838,-0.970901,-0.0183059,0,0,0,0,0,0,0,2.23713,-29.0553,1.7624,29.1965,2.82867,3.34435,-0.137222,
0.0412985,-0.141481,0.0604814,-1.99376,0.267043,-0.029114,-0.0617099,0.32322,0.0466864,0.344659,-0.568673,1.27231,0.0273214,-0.0320397,12.527,4.66127,13.4044,-16.8888,20.2391,-16.8728,-1.47903,12.4582,-5.9942,13.5501,-45.3077,10.364,12.4186,-0.463776,0.05413,-0.141584,0.074126,-2.01833,0.297665,-0.0347211,-0.0619095,0.605508,0.0547079,0.571826,-1.09342,1.5813,0.0687561,-0.02583,-9.36765,-2.49492,1.68753,-25.9161,15.3644,129.957,-0.940517,-4.93969,-28.3809,-6.23564,29.0933,1.54602,6.16967,-0.0703886,
0.0440474,-0.140996,0.0634112,-1.9987,0.27773,-0.0273847,-0.0619749,0.327297,0.0494697,0.348973,-0.578396,1.28503,0.0650897,-0.0322559,2.54766,1.73954,2.69606,-6.07691,7.94631,23.6052,-0.135143,13.4637,-5.43857,14.5652,-44.6098,10.364,12.4186,-0.373046,0.05413,-0.141584,0.074126,-2.01833,0.297665,-0.0347211,-0.0619095,0.605508,0.0547079,0.571826,-1.09342,1.5813,0.0687561,-0.02583,0,0,0,0,0,0,0,-4.93969,-28.3809,-6.23564,29.0933,1.54602,6.16967,-0.0703886,
0.0464348,-0.140632,0.0659551,-2.00326,0.287898,-0.0238756,-0.0621861,0.321523,0.0486578,0.342777,-0.57679,1.28222,0.139798,-0.0310835,-3.60881,-0.50747,-3.87286,1.00378,-1.75352,46.6925,0.73279,14.0203,-4.63058,15.126,-43.7978,10.364,12.4186,-0.301001,0.05413,-0.141584,0.074126,-2.01833,0.297665,-0.0347211,-0.0619095,0.605508,0.0547079,0.571826,-1.09342,1.5813,0.0687561,-0.02583,0,0,0,0,0,0,0,-4.93969,-28.3809,-6.23564,29.0933,1.54602,6.16967,-0.0703886,
0.0485601,-0.140378,0.0682135,-2.00751,0.297386,-0.0190304,-0.0623523,0.310351,0.0452998,0.330681,-0.567813,1.26296,0.232968,-0.0290217,-6.98207,-2.09871,-7.55939,5.61028,-12.0407,58.2315,1.28858,14.2999,-3.84311,15.4047,-42.9896,10.364,12.4186,-0.242881,0.05413,-0.141584,0.074126,-2.01833,0.297665,-0.0347211,-0.0619095,0.605508,0.0547079,0.571826,-1.09342,1.5813,0.0687561,-0.02583,0,0,0,0,0,0,0,-4.93969,-28.3809,-6.23564,29.0933,1.54602,6.16967,-0.0703886,
0.0609831,-0.139754,0.0814531,-2.02982,0.320059,-0.0313225,-0.062509,0.326196,0.0577205,0.347915,-0.585667,1.28128,0.24711,-0.0300224,9.90288,7.76294,10.7709,-11.1587,11.4519,8.83896,-0.625396,13.5373,-6.09243,14.768,-44.2435,10.1528,12.4732,-0.376576,0.0731089,-0.142282,0.0951375,-2.05931,0.356456,-0.0166936,-0.0634819,0.562089,-0.0132625,0.601162,-1.16549,1.59147,0.746535,-0.0318417,-5.42739,-8.4963,3.66696,-9.00839,1.27141,84.7224,-0.751461,-6.12988,-27.9088,-7.50914,31.2119,0.966488,4.10699,-0.0630644,
0.0636365,-0.139106,0.0842907,-2.03455,0.3303,-0.0274832,-0.0627269,0.327293,0.062377,0.349274,-0.586769,1.28105,0.29367,-0.0294671,0.685784,2.91028,0.849508,-0.688997,-0.144008,29.0999,0.347035,14.0938,-5.28443,15.3288,-43.4315,10.1528,12.4732,-0.304531,0.0731089,-0.142282,0.0951375,-2.05931,0.356456,-0.0166936,-0.0634819,0.562089,-0.0132625,0.601162,-1.16549,1.59147,0.746535,-0.0318417,0,0,0,0,0,0,0,-6.12988,-27.9088,-7.50914,31.2119,0.966488,4.10699,-0.0630644,
0.065954,-0.138653,0.0867623,-2.03891,0.339815,-0.0224781,-0.0628983,0.319772,0.061235,0.341209,-0.578407,1.2627,0.360066,-0.0278574,-4.70097,-0.713746,-5.0409,5.22675,-11.4667,41.4972,1.00607,14.3735,-4.49697,15.6074,-42.6233,10.1528,12.4732,-0.246411,0.0731089,-0.142282,0.0951375,-2.05931,0.356456,-0.0166936,-0.0634819,0.562089,-0.0132625,0.601162,-1.16549,1.59147,0.746535,-0.0318417,0,0,0,0,0,0,0,-6.12988,-27.9088,-7.50914,31.2119,0.966488,4.10699,-0.0630644,
0.0680236,-0.138358,0.0889625,-2.04298,0.348518,-0.0165449,-0.0630307,0.307558,0.056359,0.327972,-0.564609,1.22775,0.436382,-0.0255972,-7.63359,-3.04752,-8.27304,8.62357,-21.8462,47.6975,1.41264,14.5085,-3.87205,15.7192,-41.9129,9.33391,12.4732,-0.197831,0.0731089,-0.142282,0.0951375,-2.05931,0.356456,-0.0166936,-0.0634819,0.562089,-0.0132625,0.601162,-1.16549,1.59147,0.746535,-0.0318417,0,0,0,0,0,0,0,-6.12988,-27.9088,-7.50914,31.2119,0.966488,4.10699,-0.0630644,
0.079868,-0.14077,0.102397,-2.07034,0.377947,-0.00796355,-0.0639684,0.322772,0.063514,0.344753,-0.575857,1.24106,0.462557,-0.0260509,9.50884,4.47191,10.4883,-7.0301,8.32158,16.3594,-0.283607,14.0757,-5.70498,15.3948,-43.426,9.9847,12.3874,-0.304251,0.0909631,-0.140953,0.114649,-2.09828,0.410396,0.0129329,-0.0646651,0.398807,0.0365124,0.635979,-1.12031,1.53728,0.965657,-0.0164902,-20.4102,6.22186,4.35213,5.64804,-6.7741,27.3902,1.91893,-4.91589,-32.3482,-6.21184,28.1729,1.27136,3.02025,-0.117081,
0.0824838,-0.140232,0.105198,-2.07479,0.387529,-0.00267392,-0.0641455,0.323613,0.0642732,0.345808,-0.571786,1.2324,0.502286,-0.0252691,0.525767,0.474519,0.659063,2.54431,-5.41317,24.8308,0.488671,14.3554,-4.91751,15.6735,-42.6178,9.9847,12.3874,-0.246131,0.0909631,-0.140953,0.114649,-2.09828,0.410396,0.0129329,-0.0646651,0.398807,0.0365124,0.635979,-1.12031,1.53728,0.965657,-0.0164902,0,0,0,0,0,0,0,-4.91589,-32.3482,-6.21184,28.1729,1.27136,3.02025,-0.117081,
0.0847679,-0.139883,0.107635,-2.0789,0.396275,0.00335954,-0.0642822,0.315993,0.0601346,0.337574,-0.560264,1.20457,0.552665,-0.023633,-4.76297,-2.58666,-5.14607,7.20119,-17.3925,31.4871,1.02256,14.4903,-4.29259,15.7853,-41.9074,9.16578,12.3874,-0.197551,0.0909631,-0.140953,0.114649,-2.09828,0.410396,0.0129329,-0.0646651,0.398807,0.0365124,0.635979,-1.12031,1.53728,0.965657,-0.0164902,0,0,0,0,0,0,0,-4.91589,-32.3482,-6.21184,28.1729,1.27136,3.02025,-0.117081,
0.0868021,-0.139682,0.109801,-2.08277,0.404207,0.0100361,-0.0643853,0.30365,0.0531229,0.324221,-0.544987,1.16196,0.609047,-0.0214837,-7.71437,-4.3823,-8.34566,9.54813,-26.637,35.2384,1.34328,14.5289,-3.7581,15.7773,-41.2666,8.23965,12.3874,-0.156365,0.0909631,-0.140953,0.114649,-2.09828,0.410396,0.0129329,-0.0646651,0.398807,0.0365124,0.635979,-1.12031,1.53728,0.965657,-0.0164902,0,0,0,0,0,0,0,-4.91589,-32.3482,-6.21184,28.1729,1.27136,3.02025,-0.117081,
0.0970839,-0.139106,0.121266,-2.10899,0.430193,0.0239664,-0.065034,0.313042,0.0639645,0.334743,-0.556471,1.16432,0.624653,-0.0215019,5.87004,6.77601,6.57624,-7.17716,1.47993,9.75354,-0.0113548,14.4052,-5.23192,15.8032,-42.4848,9.90307,12.3649,-0.244942,0.10817,-0.139607,0.132721,-2.13573,0.462223,0.0525064,-0.0654151,0.471657,-0.0281691,0.59447,-1.0926,1.39292,1.30457,-0.0140068,9.10621,-8.08519,-5.18863,3.46368,-18.0447,42.3641,0.310435,-2.27765,-28.4047,-2.93486,25.1578,1.91314,1.20293,-0.0365141,
0.0995017,-0.138497,0.123855,-2.1133,0.438702,0.0299413,-0.0651699,0.310877,0.0663774,0.332523,-0.553132,1.14417,0.649095,-0.0205979,-1.35275,1.50805,-1.38715,2.0868,-12.5932,15.2768,0.564979,14.5401,-4.607,15.9151,-41.7745,9.08415,12.3649,-0.196361,0.10817,-0.139607,0.132721,-2.13573,0.462223,0.0525064,-0.0654151,0.471657,-0.0281691,0.59447,-1.0926,1.39292,1.30457,-0.0140068,0,0,0,0,0,0,0,-2.27765,-28.4047,-2.93486,25.1578,1.91314,1.20293,-0.0365141,
0.10163,-0.138106,0.12613,-2.11731,0.446401,0.0364718,-0.0652725,0.301908,0.0628756,0.322877,-0.542673,1.10782,0.682538,-0.0190442,-5.60586,-2.1886,-6.02908,6.53699,-22.7223,20.9017,0.971098,14.5787,-4.07251,15.9071,-41.1336,8.15802,12.3649,-0.155175,0.10817,-0.139607,0.132721,-2.13573,0.462223,0.0525064,-0.0654151,0.471657,-0.0281691,0.59447,-1.0926,1.39292,1.30457,-0.0140068,0,0,0,0,0,0,0,-2.27765,-28.4047,-2.93486,25.1578,1.91314,1.20293,-0.0365141,
0.114344,-0.138374,0.139382,-2.1458,0.479825,0.0663507,-0.0657084,0.311802,0.0652158,0.333834,-0.547056,1.09435,0.711444,-0.0186844,6.18368,1.46261,6.84811,-2.73952,-8.41985,18.0664,0.224847,14.5401,-4.607,15.9151,-41.7745,9.08415,12.3649,-0.196361,0.10817,-0.139607,0.132721,-2.13573,0.462223,0.0525064,-0.0654151,0.471657,-0.0281691,0.59447,-1.0926,1.39292,1.30457,-0.0140068,0,0,0,0,0,0,0,-2.27765,-28.4047,-2.93486,25.1578,1.91314,1.20293,-0.0365141,
0.116746,-0.137965,0.141957,-2.14987,0.487392,0.0730929,-0.0658154,0.309499,0.0623932,0.331429,-0.539313,1.06465,0.737712,-0.0176217,-1.43893,-1.76412,-1.503,4.8393,-18.5607,16.4175,0.664183,14.5787,-4.07251,15.9071,-41.1336,8.15802,12.3649,-0.155175,0.10817,-0.139607,0.132721,-2.13573,0.462223,0.0525064,-0.0654151,0.471657,-0.0281691,0.59447,-1.0926,1.39292,1.30457,-0.0140068,0,0,0,0,0,0,0,-2.27765,-28.4047,-2.93486,25.1578,1.91314,1.20293,-0.0365141,
0.118847,-0.137724,0.144205,-2.15367,0.49428,0.0801609,-0.0658912,0.300121,0.055937,0.321345,-0.526531,1.02394,0.76687,-0.0159915,-5.86168,-4.03511,-6.30262,7.98856,-25.4467,18.2233,1.01891,14.4783,-3.72974,15.8248,-40.5318,7.36621,12.2907,-0.118417,0.126078,-0.138414,0.14974,-2.17257,0.51131,0.100995,-0.0659966,0.55484,0.0190987,0.468825,-1.03974,1.23326,1.50365,-0.0162948,10.3979,5.90848,-15.7056,6.60762,-19.9574,24.8852,-0.286001,-2.60693,-30.4518,-3.91081,26.1298,1.92505,0.149161,-0.0026396,
0.120721,-0.137605,0.14621,-2.15729,0.500575,0.0875875,-0.065941,0.286947,0.0477167,0.307203,-0.511644,0.976522,0.79916,-0.0140398,-8.23344,-5.13769,-8.83886,9.30424,-29.633,20.1816,1.21976,14.4068,-3.22317,15.72,-39.9115,6.7885,12.2907,-0.0861118,0.126078,-0.138414,0.14974,-2.17257,0.51131,0.100995,-0.0659966,0.55484,0.0190987,0.468825,-1.03974,1.23326,1.50365,-0.0162948,0,0,0,0,0,0,0,-2.60693,-30.4518,-3.91081,26.1298,1.92505,0.149161,-0.0026396,
0.131917,-0.136936,0.156031,-2.18232,0.526525,0.11672,-0.0662205,0.295758,0.0551937,0.31713,-0.519001,0.960424,0.823802,-0.0138356,5.50685,4.67314,6.20476,-4.59766,-10.0614,15.4008,0.127633,14.5102,-4.25289,15.8962,-41.1575,8.09426,12.2907,-0.153224,0.126078,-0.138414,0.14974,-2.17257,0.51131,0.100995,-0.0659966,0.55484,0.0190987,0.468825,-1.03974,1.23326,1.50365,-0.0162948,0,0,0,0,0,0,0,-2.60693,-30.4518,-3.91081,26.1298,1.92505,0.149161,-0.0026396,
0.13418,-0.136475,0.158464,-2.18628,0.533063,0.123977,-0.0662969,0.293183,0.0556742,0.314538,-0.514406,0.931794,0.840474,-0.0129769,-1.60921,0.300279,-1.62039,2.87142,-17.8935,10.4205,0.536736,14.4783,-3.72974,15.8248,-40.5318,7.36621,12.2907,-0.118417,0.126078,-0.138414,0.14974,-2.17257,0.51131,0.100995,-0.0659966,0.55484,0.0190987,0.468825,-1.03974,1.23326,1.50365,-0.0162948,0,0,0,0,0,0,0,-2.60693,-30.4518,-3.91081,26.1298,1.92505,0.149161,-0.0026396,
0.136162,-0.136196,0.160593,-2.19001,0.539076,0.131395,-0.0663472,0.284104,0.0514988,0.304857,-0.504638,0.895757,0.857834,-0.011641,-5.67491,-2.60964,-6.05044,6.10525,-22.5232,10.8498,0.834891,14.4644,-3.45235,15.8479,-39.9443,6.77882,12.1902,-0.0842962,0.141299,-0.137323,0.16929,-2.20738,0.5565,0.155113,-0.066372,0.565259,-0.014274,0.439604,-0.988618,1.16755,1.60536,-0.00577089,1.30236,-4.17159,-3.65266,6.38993,-8.21306,12.7137,1.31549,-1.49212,-27.1074,-3.33556,19.556,2.46887,-0.322336,-0.0703886,
0.137939,-0.136048,0.162504,-2.19355,0.544511,0.139058,-0.0663742,0.271717,0.04492,0.291643,-0.492231,0.852463,0.877842,-0.00998682,-7.74183,-4.1117,-8.25839,7.75432,-27.0589,12.5047,1.03388,14.3485,-2.98156,15.7036,-39.3354,6.36165,12.1902,-0.0574138,0.141299,-0.137323,0.16929,-2.20738,0.5565,0.155113,-0.066372,0.565259,-0.014274,0.439604,-0.988618,1.16755,1.60536,-0.00577089,0,0,0,0,0,0,0,-1.49212,-27.1074,-3.33556,19.556,2.46887,-0.322336,-0.0703886,
0.146985,-0.136266,0.17541,-2.21662,0.570399,0.171764,-0.0665285,0.281716,0.048351,0.302672,-0.497971,0.844858,0.896144,-0.00984224,6.24953,2.14432,6.89276,-3.58741,-4.75304,11.4392,0.0903578,14.5359,-3.95891,15.9528,-40.5646,7.35652,12.1902,-0.116601,0.141299,-0.137323,0.16929,-2.20738,0.5565,0.155113,-0.066372,0.565259,-0.014274,0.439604,-0.988618,1.16755,1.60536,-0.00577089,0,0,0,0,0,0,0,-1.49212,-27.1074,-3.33556,19.556,2.46887,-0.322336,-0.0703886,
0.149181,-0.135942,0.177773,-2.22042,0.576362,0.179282,-0.0665808,0.280274,0.0467957,0.301218,-0.493279,0.824947,0.904866,-0.00918069,-0.900904,-0.97204,-0.908508,2.93279,-12.4442,5.45121,0.413472,14.4644,-3.45235,15.8479,-39.9443,6.77882,12.1902,-0.0842962,0.141299,-0.137323,0.16929,-2.20738,0.5565,0.155113,-0.066372,0.565259,-0.014274,0.439604,-0.988618,1.16755,1.60536,-0.00577089,0,0,0,0,0,0,0,-1.49212,-27.1074,-3.33556,19.556,2.46887,-0.322336,-0.0703886,
0.151108,-0.135761,0.179847,-2.22399,0.581754,0.186879,-0.0666093,0.272381,0.0419432,0.292814,-0.484034,0.794752,0.913813,-0.00805678,-4.9334,-3.0328,-5.25247,5.77757,-18.872,5.59159,0.702442,14.3786,-3.09271,15.7852,-39.2806,6.42385,12.1111,-0.0557219,0.15717,-0.136484,0.187158,-2.24189,0.595766,0.211646,-0.066498,0.341738,0.0414521,0.643387,-0.989192,1.06068,1.65856,-0.00106442,-27.9401,6.96577,25.4728,-0.0717601,-13.3592,6.64975,0.588309,-0.57568,-29.1783,-2.08586,27.1533,2.68219,1.06377,0.0440523,
0.152839,-0.135683,0.181713,-2.22741,0.586523,0.194667,-0.0666174,0.261187,0.0355042,0.280905,-0.472582,0.755036,0.925741,-0.00664673,-6.99643,-4.02437,-7.44316,7.15776,-24.8225,7.45524,0.881282,14.2198,-2.66504,15.6558,-38.6813,5.63966,12.1111,-0.0323853,0.15717,-0.136484,0.187158,-2.24189,0.595766,0.211646,-0.066498,0.341738,0.0414521,0.643387,-0.989192,1.06068,1.65856,-0.00106442,0,0,0,0,0,0,0,-0.57568,-29.1783,-2.08586,27.1533,2.68219,1.06377,0.0440523,
0.162688,-0.134917,0.193186,-2.25123,0.607645,0.228589,-0.0665857,0.271468,0.0460236,0.29247,-0.48352,0.743233,0.935829,-0.00649858,6.42588,6.57464,7.22821,-6.83631,-7.37706,6.30499,0.0925918,14.4944,-3.56349,15.9295,-39.8896,6.84102,12.1111,-0.0826043,0.15717,-0.136484,0.187158,-2.24189,0.595766,0.211646,-0.066498,0.341738,0.0414521,0.643387,-0.989192,1.06068,1.65856,-0.00106442,0,0,0,0,0,0,0,-0.57568,-29.1783,-2.08586,27.1533,2.68219,1.06377,0.0440523,
0.164819,-0.134441,0.19549,-2.25506,0.612678,0.236064,-0.0666143,0.270444,0.0487225,0.2916,-0.482364,0.720416,0.935532,-0.00591428,-0.639933,1.6868,-0.54423,0.722289,-14.2604,-0.18559,0.36519,14.3786,-3.09271,15.7852,-39.2806,6.42385,12.1111,-0.0557219,0.15717,-0.136484,0.187158,-2.24189,0.595766,0.211646,-0.066498,0.341738,0.0414521,0.643387,-0.989192,1.06068,1.65856,-0.00106442,0,0,0,0,0,0,0,-0.57568,-29.1783,-2.08586,27.1533,2.68219,1.06377,0.0440523,
0.16669,-0.134147,0.197515,-2.25864,0.617158,0.243577,-0.0666226,0.263128,0.0463087,0.283882,-0.475512,0.688328,0.93624,-0.00493825,-4.57263,-1.50863,-4.82347,4.28296,-20.0555,0.442216,0.61002,14.163,-2.75365,15.6348,-38.6355,5.69435,12.0548,-0.0305316,0.174914,-0.135186,0.203033,-2.2758,0.630051,0.268182,-0.0665036,0.537859,0.0675955,0.465468,-0.982032,0.932737,1.6479,-0.00154717,24.5151,3.26793,-22.2399,0.894913,-15.9929,-1.33187,-0.0603446,-1.00811,-30.3764,-2.11363,28.3713,2.63366,1.52154,0.00376909,
0.168374,-0.133983,0.199338,-2.26206,0.621094,0.25127,-0.0666125,0.252595,0.0411454,0.272691,-0.465804,0.649078,0.941336,-0.00369866,-6.58306,-3.22707,-6.99471,6.06735,-24.5312,3.18531,0.774743,14.0097,-2.37284,15.5138,-38.0443,4.83873,12.0548,-0.0107742,0.174914,-0.135186,0.203033,-2.2758,0.630051,0.268182,-0.0665036,0.537859,0.0675955,0.465468,-0.982032,0.932737,1.6479,-0.00154717,0,0,0,0,0,0,0,-1.00811,-30.3764,-2.11363,28.3713,2.63366,1.52154,0.00376909,
0.180423,-0.133459,0.209008,-2.28514,0.640298,0.284608,-0.0665473,0.264076,0.0521556,0.285442,-0.477978,0.637853,0.941663,-0.00355696,7.17557,6.88136,7.96979,-7.60852,-7.01545,0.204224,0.0885612,14.3219,-3.18132,15.7642,-39.2349,6.47853,12.0548,-0.0538682,0.174914,-0.135186,0.203033,-2.2758,0.630051,0.268182,-0.0665036,0.537859,0.0675955,0.465468,-0.982032,0.932737,1.6479,-0.00154717,0,0,0,0,0,0,0,-1.00811,-30.3764,-2.11363,28.3713,2.63366,1.52154,0.00376909,
0.182533,-0.132933,0.211295,-2.28895,0.644504,0.291837,-0.0665562,0.26401,0.0548813,0.285537,-0.477624,0.615455,0.93406,-0.00306834,-0.0413001,1.70357,0.0594128,0.221259,-13.9985,-4.7518,0.305387,14.163,-2.75365,15.6348,-38.6355,5.69435,12.0548,-0.0305316,0.174914,-0.135186,0.203033,-2.2758,0.630051,0.268182,-0.0665036,0.537859,0.0675955,0.465468,-0.982032,0.932737,1.6479,-0.00154717,0,0,0,0,0,0,0,-1.00811,-30.3764,-2.11363,28.3713,2.63366,1.52154,0.00376909,
0.184384,-0.132599,0.213302,-2.29252,0.648226,0.299139,-0.066547,0.257491,0.0522645,0.278609,-0.471398,0.585405,0.929797,-0.00222583,-4.07417,-1.63548,-4.32998,3.89075,-18.7817,-2.6643,0.526566,14.0404,-2.61721,15.5898,-38.0584,4.89808,11.9427,-0.00901964,0.189305,-0.134091,0.221533,-2.3082,0.661564,0.324655,-0.0665032,0.543081,0.0392994,0.416642,-0.948268,0.871356,1.6678,-0.0013386,0.652741,-3.53701,-6.10328,4.22061,-7.67262,2.48704,0.0260712,-2.55536,-27.8572,-4.31151,23.6383,1.65588,1.13701,0.00376909,
0.194548,-0.132697,0.22722,-2.31719,0.670476,0.341294,-0.0664988,0.264991,0.0575219,0.28704,-0.478542,0.569534,0.934889,-0.00184769,4.68759,3.28589,5.26941,-4.46495,-9.91932,3.18213,0.236337,14.1937,-2.99802,15.7109,-38.6496,5.7537,11.9427,-0.028777,0.189305,-0.134091,0.221533,-2.3082,0.661564,0.324655,-0.0665032,0.543081,0.0392994,0.416642,-0.948268,0.871356,1.6678,-0.0013386,0,0,0,0,0,0,0,-2.55536,-27.8572,-4.31151,23.6383,1.65588,1.13701,0.00376909,
0.196563,-0.132271,0.229409,-2.32088,0.674033,0.348613,-0.06649,0.262359,0.05665,0.284352,-0.474944,0.544545,0.930873,-0.00125827,-1.6454,-0.544939,-1.68021,2.24874,-15.6178,-2.50956,0.368388,14.0404,-2.61721,15.5898,-38.0584,4.89808,11.9427,-0.00901964,0.189305,-0.134091,0.221533,-2.3082,0.661564,0.324655,-0.0665032,0.543081,0.0392994,0.416642,-0.948268,0.871356,1.6678,-0.0013386,0,0,0,0,0,0,0,-2.55536,-27.8572,-4.31151,23.6383,1.65588,1.13701,0.00376909,
0.198338,-0.132008,0.231338,-2.32435,0.677195,0.355994,-0.0664652,0.254261,0.0519115,0.275708,-0.46677,0.514701,0.92923,-0.000386325,-5.06112,-2.96156,-5.4025,5.1092,-18.6528,-1.02737,0.544968,13.9212,-2.29089,15.4758,-37.4795,4.21415,11.9427,0.00972996,0.189305,-0.134091,0.221533,-2.3082,0.661564,0.324655,-0.0665032,0.543081,0.0392994,0.416642,-0.948268,0.871356,1.6678,-0.0013386,0,0,0,0,0,0,0,-2.55536,-27.8572,-4.31151,23.6383,1.65588,1.13701,0.00376909,
0.199942,-0.131857,0.233082,-2.32767,0.679994,0.363576,-0.0664269,0.243499,0.0452844,0.264169,-0.456473,0.481738,0.93294,0.00064855,-6.72627,-4.14197,-7.21188,6.43557,-20.6016,2.31917,0.646796,13.9169,-2.27206,15.4979,-36.8606,3.80197,11.8226,0.0288783,0.204467,-0.13348,0.239139,-2.34022,0.687819,0.382727,-0.0664896,0.335389,0.0114101,0.610104,-0.902239,0.874287,1.73314,0.000843643,-25.9614,-3.48616,24.1828,5.75356,0.366394,8.16784,0.272781,-1.3374,-26.0838,-3.08562,23.3923,2.06512,0.858694,-0.0301054,
0.209581,-0.132413,0.244744,-2.34877,0.695831,0.400067,-0.0664396,0.25243,0.0482559,0.274056,-0.461779,0.474867,0.944422,0.00087754,5.58165,1.85719,6.17955,-3.31627,-4.29454,7.17603,0.143119,14.1319,-2.86763,15.7222,-38.0009,4.99861,11.8226,-0.00774854,0.204467,-0.13348,0.239139,-2.34022,0.687819,0.382727,-0.0664896,0.335389,0.0114101,0.610104,-0.902239,0.874287,1.73314,0.000843643,0,0,0,0,0,0,0,-1.3374,-26.0838,-3.08562,23.3923,2.06512,0.858694,-0.0301054,
0.211543,-0.132101,0.246877,-2.3523,0.698968,0.407582,-0.0664165,0.251002,0.0464019,0.27259,-0.457774,0.458312,0.943412,0.00128164,-0.892188,-1.15875,-0.9166,2.50291,-10.347,-0.631333,0.252563,14.0127,-2.54131,15.6082,-37.422,4.31468,11.8226,0.0110011,0.204467,-0.13348,0.239139,-2.34022,0.687819,0.382727,-0.0664896,0.335389,0.0114101,0.610104,-0.902239,0.874287,1.73314,0.000843643,0,0,0,0,0,0,0,-1.3374,-26.0838,-3.08562,23.3923,2.06512,0.858694,-0.0301054,
0.213271,-0.131923,0.248757,-2.35565,0.701757,0.415102,-0.0663802,0.244001,0.0415852,0.265059,-0.450009,0.436368,0.942719,0.00193219,-4.37581,-3.0104,-4.70675,4.85324,-13.7146,-0.432947,0.406595,13.9169,-2.27206,15.4979,-36.8606,3.80197,11.8226,0.0288783,0.204467,-0.13348,0.239139,-2.34022,0.687819,0.382727,-0.0664896,0.335389,0.0114101,0.610104,-0.902239,0.874287,1.73314,0.000843643,0,0,0,0,0,0,0,-1.3374,-26.0838,-3.08562,23.3923,2.06512,0.858694,-0.0301054,
0.214836,-0.131835,0.25046,-2.35886,0.7041,0.422774,-0.0663268,0.234315,0.03545,0.254631,-0.440282,0.407689,0.945971,0.00287986,-6.0538,-3.83455,-6.51726,6.07929,-17.9246,2.03261,0.592291,13.7167,-2.09655,15.2968,-36.3157,3.4041,11.7358,0.0455385,0.22146,-0.132467,0.25376,-2.37209,0.709799,0.442334,-0.0664752,0.464654,0.0539366,0.493659,-0.901354,0.63998,1.75903,0.000967993,16.1581,5.31581,-14.5556,0.110612,-29.2884,3.23608,0.0155437,-1.71826,-27.5081,-2.7603,27.7008,1.95526,1.42174,0.0101778,
0.226501,-0.131096,0.259284,-2.38076,0.71536,0.459477,-0.0664038,0.243824,0.0434727,0.265378,-0.45047,0.389235,0.951349,0.00296068,5.9433,5.01421,6.7167,-6.36745,-11.5339,3.36132,0.0505135,13.9112,-2.58437,15.5331,-37.4128,4.38572,11.7358,0.0136839,0.22146,-0.132467,0.25376,-2.37209,0.709799,0.442334,-0.0664752,0.464654,0.0539366,0.493659,-0.901354,0.63998,1.75903,0.000967993,0,0,0,0,0,0,0,-1.71826,-27.5081,-2.7603,27.7008,1.95526,1.42174,0.0101778,
0.228415,-0.130691,0.261374,-2.38434,0.717687,0.466823,-0.0663705,0.242914,0.0449119,0.264557,-0.449991,0.369544,0.944746,0.00320073,-0.568653,0.899506,-0.512871,0.299534,-12.3065,-4.12728,0.150029,13.8153,-2.31512,15.4228,-36.8514,3.873,11.7358,0.0315611,0.22146,-0.132467,0.25376,-2.37209,0.709799,0.442334,-0.0664752,0.464654,0.0539366,0.493659,-0.901354,0.63998,1.75903,0.000967993,0,0,0,0,0,0,0,-1.71826,-27.5081,-2.7603,27.7008,1.95526,1.42174,0.0101778,
0.230104,-0.130438,0.263216,-2.38772,0.719714,0.474166,-0.0663196,0.236535,0.0422478,0.257702,-0.444322,0.346324,0.939362,0.00383385,-3.98722,-1.66508,-4.28466,3.54274,-14.5129,-3.36495,0.395704,13.7167,-2.09655,15.2968,-36.3157,3.4041,11.7358,0.0455385,0.22146,-0.132467,0.25376,-2.37209,0.709799,0.442334,-0.0664752,0.464654,0.0539366,0.493659,-0.901354,0.63998,1.75903,0.000967993,0,0,0,0,0,0,0,-1.71826,-27.5081,-2.7603,27.7008,1.95526,1.42174,0.0101778,
0.231634,-0.130292,0.264887,-2.39094,0.721415,0.481674,-0.0662543,0.227485,0.0374559,0.247931,-0.436003,0.319586,0.93919,0.00470028,-5.65614,-2.99494,-6.10697,5.19947,-16.7109,-0.107191,0.541514,13.6306,-1.89223,15.2113,-35.7813,2.61562,11.7358,0.0611155,0.22146,-0.132467,0.25376,-2.37209,0.709799,0.442334,-0.0664752,0.464654,0.0539366,0.493659,-0.901354,0.63998,1.75903,0.000967993,0,0,0,0,0,0,0,-1.71826,-27.5081,-2.7603,27.7008,1.95526,1.42174,0.0101778,
0.239011,-0.12947,0.276854,-2.41151,0.73253,0.519757,-0.0663164,0.232471,0.0464874,0.254013,-0.44744,0.302334,0.946939,0.00484106,3.11632,5.64472,3.80136,-7.14818,-10.7826,4.84275,0.0879882,13.7617,-2.51339,15.3906,-36.8479,3.98263,11.6041,0.0332888,0.234504,-0.130974,0.271899,-2.40279,0.728388,0.502552,-0.0664277,0.506002,0.0722581,0.356534,-0.906512,0.536556,1.76744,-0.000162613,5.16844,2.29019,-17.1407,-0.644685,-12.928,1.0507,-0.141326,-1.44055,-28.131,-3.43474,26.0068,2.12646,1.26244,0.017502,
0.240749,-0.129019,0.278766,-2.41509,0.734182,0.527143,-0.0662645,0.229437,0.0484566,0.251002,-0.447272,0.283171,0.942214,0.00516955,-1.8962,1.23074,-1.88175,0.104983,-11.9772,-2.95319,0.205306,13.6631,-2.29482,15.2646,-36.3121,3.51373,11.6041,0.0472662,0.234504,-0.130974,0.271899,-2.40279,0.728388,0.502552,-0.0664277,0.506002,0.0722581,0.356534,-0.906512,0.536556,1.76744,-0.000162613,0,0,0,0,0,0,0,-1.44055,-28.131,-3.43474,26.0068,2.12646,1.26244,0.017502,
0.242304,-0.12873,0.280473,-2.41844,0.735625,0.534525,-0.0661996,0.222414,0.0459851,0.24348,-0.441665,0.262623,0.938321,0.00575943,-4.3892,-1.5447,-4.70136,3.50436,-12.8421,-2.43292,0.368677,13.5769,-2.0905,15.1791,-35.7777,2.72525,11.6041,0.0628432,0.234504,-0.130974,0.271899,-2.40279,0.728388,0.502552,-0.0664277,0.506002,0.0722581,0.356534,-0.906512,0.536556,1.76744,-0.000162613,0,0,0,0,0,0,0,-1.44055,-28.131,-3.43474,26.0068,2.12646,1.26244,0.017502,
0.24373,-0.128555,0.282039,-2.42164,0.736873,0.542064,-0.0661269,0.21358,0.0411706,0.233928,-0.433347,0.241301,0.939118,0.00642343,-5.52154,-3.00904,-5.96995,5.19916,-13.3263,0.497867,0.414998,13.4753,-1.8915,15.0544,-35.2405,2.15367,11.6041,0.0769923,0.234504,-0.130974,0.271899,-2.40279,0.728388,0.502552,-0.0664277,0.506002,0.0722581,0.356534,-0.906512,0.536556,1.76744,-0.000162613,0,0,0,0,0,0,0,-1.44055,-28.131,-3.43474,26.0068,2.12646,1.26244,0.017502,
0.252816,-0.128986,0.293474,-2.44182,0.745399,0.578865,-0.0662199,0.221552,0.0455563,0.242994,-0.443472,0.222695,0.942051,0.00648735,4.98241,2.74102,5.66603,-6.32841,-11.629,1.83368,0.0399549,13.7451,-2.51046,15.3759,-36.2417,3.62044,11.4507,0.0490306,0.248306,-0.130086,0.288459,-2.43322,0.742713,0.562043,-0.0663576,0.286632,0.017901,0.584646,-0.901995,0.441576,1.73395,0.000875757,-27.4213,-6.79464,28.5141,0.564607,-11.8725,-4.18583,0.129796,-1.76983,-27.0082,-3.43474,21.7697,1.97357,1.84655,0.0440523,
0.254555,-0.128636,0.295385,-2.44532,0.746529,0.586086,-0.0661602,0.22072,0.0452114,0.242164,-0.442358,0.206402,0.934165,0.00668192,-0.519693,-0.215541,-0.518614,0.696592,-10.1832,-4.9291,0.121603,13.659,-2.30614,15.2904,-35.7073,2.83197,11.4507,0.0646076,0.248306,-0.130086,0.288459,-2.43322,0.742713,0.562043,-0.0663576,0.286632,0.017901,0.584646,-0.901995,0.441576,1.73395,0.000875757,0,0,0,0,0,0,0,-1.76983,-27.0082,-3.43474,21.7697,1.97357,1.84655,0.0440523,
0.256104,-0.128411,0.297086,-2.44862,0.747608,0.593327,-0.0660922,0.215312,0.0417757,0.236254,-0.436233,0.192092,0.928366,0.00704677,-3.38022,-2.14729,-3.69371,3.82762,-8.94335,-3.62403,0.228029,13.5573,-2.10714,15.1657,-35.1701,2.26039,11.4507,0.0787567,0.248306,-0.130086,0.288459,-2.43322,0.742713,0.562043,-0.0663576,0.286632,0.017901,0.584646,-0.901995,0.441576,1.73395,0.000875757,0,0,0,0,0,0,0,-1.76983,-27.0082,-3.43474,21.7697,1.97357,1.84655,0.0440523,
0.257523,-0.128278,0.298644,-2.45175,0.748412,0.60073,-0.0660051,0.207716,0.03675,0.227964,-0.427256,0.173779,0.927752,0.00781598,-4.74726,-3.14106,-5.18121,5.61079,-11.446,-0.383876,0.480759,13.4188,-1.92981,14.9941,-34.6408,1.87894,11.4507,0.0867467,0.248306,-0.130086,0.288459,-2.43322,0.742713,0.562043,-0.0663576,0.286632,0.017901,0.584646,-0.901995,0.441576,1.73395,0.000875757,0,0,0,0,0,0,0,-1.76983,-27.0082,-3.43474,21.7697,1.97357,1.84655,0.0440523,
0.267896,-0.129346,0.305471,-2.47148,0.758822,0.639865,-0.0667355,0.212669,0.0305485,0.232771,-0.423983,0.205527,0.96291,0.00149015,3.09555,-3.87596,3.00445,2.04549,19.8426,21.9736,-3.95365,13.6525,-2.55183,15.2927,-35.6641,2.94556,11.2939,0.0660505,0.263732,-0.129555,0.300944,-2.46381,0.753612,0.621051,-0.0662244,0.423226,-0.0385006,0.37822,-0.917076,0.362598,1.72405,0.00137472,17.0743,-7.05019,-25.8032,-1.88511,-9.87222,-1.23764,0.06237,-2.70611,-24.5882,-3.93462,19.5282,1.94976,1.23589,0.171311,
0.269427,-0.129616,0.307114,-2.47416,0.761561,0.647966,-0.0666161,0.208389,0.0176922,0.227291,-0.406325,0.232887,0.972842,0.00417707,-2.6753,-8.03521,-3.42514,11.0363,17.1002,6.20753,1.67933,13.5508,-2.35283,15.168,-35.1269,2.37398,11.2939,0.0801996,0.263732,-0.129555,0.300944,-2.46381,0.753612,0.621051,-0.0662244,0.423226,-0.0385006,0.37822,-0.917076,0.362598,1.72405,0.00137472,0,0,0,0,0,0,0,-2.70611,-24.5882,-3.93462,19.5282,1.94976,1.23589,0.171311,
0.270726,-0.130202,0.308491,-2.47645,0.764285,0.655375,-0.0661905,0.199191,-0.00048456,0.216258,-0.382268,0.254406,0.963495,0.013983,-5.74877,-11.3605,-6.89531,15.0355,13.4494,-5.84211,6.12868,13.4122,-2.1755,14.9964,-34.5976,1.99253,11.2939,0.0881897,0.263732,-0.129555,0.300944,-2.46381,0.753612,0.621051,-0.0662244,0.423226,-0.0385006,0.37822,-0.917076,0.362598,1.72405,0.00137472,0,0,0,0,0,0,0,-2.70611,-24.5882,-3.93462,19.5282,1.94976,1.23589,0.171311,
0.271858,-0.131063,0.309672,-2.47847,0.766946,0.662082,-0.0655049,0.187651,-0.02191,0.202543,-0.356253,0.270062,0.938485,0.0283265,-7.21226,-13.3909,-8.5724,16.2599,9.78474,-15.6313,8.96473,13.2735,-2.00967,14.8714,-34.066,1.20377,11.2939,0.103739,0.263732,-0.129555,0.300944,-2.46381,0.753612,0.621051,-0.0662244,0.423226,-0.0385006,0.37822,-0.917076,0.362598,1.72405,0.00137472,0,0,0,0,0,0,0,-2.70611,-24.5882,-3.93462,19.5282,1.94976,1.23589,0.171311,
0.267909,-0.129329,0.30547,-2.47136,0.758661,0.639773,-0.0667095,0.196795,-0.0161114,0.212461,-0.365718,0.280374,0.970264,0.0181815,5.71484,3.62413,6.19916,-5.91583,6.44483,19.8625,-6.34066,13.5379,-2.65341,15.1688,-34.9193,2.51225,11.1617,0.0807621,0.274335,-0.128715,0.318422,-2.49354,0.762413,0.677941,-0.0661477,0.460254,-0.0164953,0.357731,-0.87624,0.37799,1.66487,-0.000950508,4.62851,2.75066,-2.56115,5.10447,1.924,-7.3976,-0.290653,-2.6585,-26.2108,-4.23613,22.0712,1.11847,3.28484,0.164902,
0.269457,-0.129582,0.307124,-2.47398,0.761273,0.647824,-0.0665807,0.196128,-0.019203,0.211324,-0.357902,0.289602,0.97747,0.0177659,-0.416648,-1.93225,-0.710558,4.88468,5.76782,4.50349,-0.259703,13.3994,-2.47608,14.9972,-34.3899,2.1308,11.1617,0.0887522,0.274335,-0.128715,0.318422,-2.49354,0.762413,0.677941,-0.0661477,0.460254,-0.0164953,0.357731,-0.87624,0.37799,1.66487,-0.000950508,0,0,0,0,0,0,0,-2.6585,-26.2108,-4.23613,22.0712,1.11847,3.28484,0.164902,
0.270768,-0.130155,0.308507,-2.4762,0.763874,0.655181,-0.0661464,0.18968,-0.0296869,0.203643,-0.342034,0.296706,0.965896,0.0250696,-4.02976,-6.55244,-4.80061,9.91755,4.44027,-7.23403,4.56478,13.2607,-2.31025,14.8722,-33.8583,1.34203,11.1617,0.104302,0.274335,-0.128715,0.318422,-2.49354,0.762413,0.677941,-0.0661477,0.460254,-0.0164953,0.357731,-0.87624,0.37799,1.66487,-0.000950508,0,0,0,0,0,0,0,-2.6585,-26.2108,-4.23613,22.0712,1.11847,3.28484,0.164902,
0.271914,-0.130999,0.309697,-2.47815,0.766389,0.661818,-0.0654616,0.180402,-0.0448676,0.192651,-0.322375,0.300237,0.938639,0.0371766,-5.79873,-9.48795,-6.87049,12.2868,2.20658,-17.0352,7.56688,13.0296,-2.1673,14.5992,-33.3431,0.975722,11.1617,0.112642,0.274335,-0.128715,0.318422,-2.49354,0.762413,0.677941,-0.0661477,0.460254,-0.0164953,0.357731,-0.87624,0.37799,1.66487,-0.000950508,0,0,0,0,0,0,0,-2.6585,-26.2108,-4.23613,22.0712,1.11847,3.28484,0.164902,
0.278525,-0.128871,0.322888,-2.50029,0.768675,0.696387,-0.066782,0.19006,-0.0429321,0.202553,-0.325424,0.319417,0.963466,0.0245597,6.03594,1.20971,6.18928,-1.90519,11.9875,15.5168,-7.88559,13.3475,-2.84681,14.9514,-34.1541,2.24338,11.0449,0.0888705,0.289919,-0.128976,0.330958,-2.52073,0.775605,0.731507,-0.065685,0.29859,-0.0102658,0.577972,-0.717749,0.466511,1.52174,0.0147113,-20.208,0.778697,27.5301,19.8113,11.0652,-17.891,1.95772,-3.87249,-25.1872,-4.56145,18.3102,-0.578922,2.43615,0.158493,
0.279973,-0.129705,0.324383,-2.50224,0.77183,0.703552,-0.0667418,0.188239,-0.0551977,0.19942,-0.308962,0.334412,0.949886,0.0206517,-1.13792,-7.66602,-1.95853,10.2885,9.37182,-8.48771,-2.44246,13.2088,-2.68098,14.8265,-33.6225,1.45461,11.0449,0.10442,0.289919,-0.128976,0.330958,-2.52073,0.775605,0.731507,-0.065685,0.29859,-0.0102658,0.577972,-0.717749,0.466511,1.52174,0.0147113,0,0,0,0,0,0,0,-3.87249,-25.1872,-4.56145,18.3102,-0.578922,2.43615,0.158493,
0.281163,-0.131026,0.325574,-2.50371,0.774863,0.709565,-0.0664496,0.180356,-0.077177,0.189311,-0.283874,0.343354,0.910251,0.0238282,-4.92689,-13.737,-6.31789,15.68,5.58877,-24.7718,1.98531,12.9777,-2.53803,14.5534,-33.1073,1.08831,11.0449,0.11276,0.289919,-0.128976,0.330958,-2.52073,0.775605,0.731507,-0.065685,0.29859,-0.0102658,0.577972,-0.717749,0.466511,1.52174,0.0147113,0,0,0,0,0,0,0,-3.87249,-25.1872,-4.56145,18.3102,-0.578922,2.43615,0.158493,
0.282198,-0.132719,0.326572,-2.50484,0.777672,0.714628,-0.065917,0.170158,-0.104074,0.176409,-0.255458,0.344908,0.854761,0.0323766,-6.37378,-16.8106,-8.0639,17.7601,0.971136,-34.6811,5.34276,12.6605,-2.39252,14.2309,-32.5919,0.37517,11.0449,0.108821,0.289919,-0.128976,0.330958,-2.52073,0.775605,0.731507,-0.065685,0.29859,-0.0102658,0.577972,-0.717749,0.466511,1.52174,0.0147113,0,0,0,0,0,0,0,-3.87249,-25.1872,-4.56145,18.3102,-0.578922,2.43615,0.158493,
0.294205,-0.130095,0.33548,-2.52602,0.782207,0.748227,-0.0657022,0.181933,-0.105553,0.188359,-0.254517,0.359091,0.871151,0.028184,7.35909,-0.924577,7.46902,0.588092,8.86481,10.2438,-2.62036,13.0921,-3.03238,14.7537,-33.6366,1.54164,10.9044,0.105372,0.302948,-0.13096,0.34686,-2.54371,0.789632,0.784784,-0.0651251,0.488525,-0.0624467,0.311222,-0.614203,0.471973,1.55894,0.00651961,23.7419,-6.52262,-33.3438,12.9433,0.682693,4.64945,-1.02396,-6.45916,-23.6876,-7.38616,17.6358,-0.914921,3.90191,-0.0301054,
0.295606,-0.131659,0.336869,-2.52728,0.785459,0.754197,-0.0653845,0.180586,-0.123534,0.185405,-0.235085,0.368558,0.846165,0.0304892,-0.841851,-11.2377,-1.84666,12.1452,5.91636,-15.6165,1.4407,12.861,-2.88944,14.4807,-33.1213,1.17533,10.9044,0.113712,0.302948,-0.13096,0.34686,-2.54371,0.789632,0.784784,-0.0651251,0.488525,-0.0624467,0.311222,-0.614203,0.471973,1.55894,0.00651961,0,0,0,0,0,0,0,-6.45916,-23.6876,-7.38616,17.6358,-0.914921,3.90191,-0.0301054,
0.296741,-0.133761,0.337937,-2.52806,0.788493,0.758901,-0.064838,0.172838,-0.151369,0.175035,-0.207413,0.370698,0.794544,0.0380538,-4.84242,-17.3974,-6.48087,17.295,1.33749,-32.2629,4.72791,12.5437,-2.74393,14.1581,-32.606,0.462193,10.9044,0.109773,0.302948,-0.13096,0.34686,-2.54371,0.789632,0.784784,-0.0651251,0.488525,-0.0624467,0.311222,-0.614203,0.471973,1.55894,0.00651961,0,0,0,0,0,0,0,-6.45916,-23.6876,-7.38616,17.6358,-0.914921,3.90191,-0.0301054,
0.297718,-0.136259,0.338808,-2.52852,0.791237,0.762601,-0.0640694,0.162685,-0.183563,0.161805,-0.177448,0.365154,0.728124,0.0496578,-6.34529,-20.121,-8.26875,18.728,-3.46505,-41.5128,7.2525,12.2892,-2.58282,13.9283,-32.06,-0.591862,10.9044,0.104369,0.302948,-0.13096,0.34686,-2.54371,0.789632,0.784784,-0.0651251,0.488525,-0.0624467,0.311222,-0.614203,0.471973,1.55894,0.00651961,0,0,0,0,0,0,0,-6.45916,-23.6876,-7.38616,17.6358,-0.914921,3.90191,-0.0301054,
0.306811,-0.133487,0.350766,-2.5474,0.797432,0.801528,-0.0649578,0.171019,-0.187402,0.170014,-0.172891,0.387132,0.764231,0.0443351,5.2084,-2.39958,5.1305,2.84814,13.7365,22.5668,-3.32669,12.7993,-3.38475,14.4907,-33.0854,1.2594,10.7658,0.114226,0.314537,-0.136684,0.360548,-2.56377,0.803133,0.829756,-0.0644676,0.351612,-0.172515,0.350193,-0.537637,0.483383,1.25034,0.0151324,-17.1141,-13.7585,4.87133,9.5707,1.42623,-38.5748,1.0766,-4.50726,-19.2958,-5.13671,16.041,-0.267643,5.4995,0.104477,
0.308082,-0.135784,0.351953,-2.54794,0.800909,0.806995,-0.064542,0.168586,-0.207358,0.165693,-0.151814,0.396619,0.748061,0.0458634,-1.52081,-12.4724,-2.70062,13.1732,5.92918,-10.106,0.955192,12.482,-3.23924,14.1682,-32.57,0.546259,10.7658,0.110287,0.314537,-0.136684,0.360548,-2.56377,0.803133,0.829756,-0.0644676,0.351612,-0.172515,0.350193,-0.537637,0.483383,1.25034,0.0151324,0,0,0,0,0,0,0,-4.50726,-19.2958,-5.13671,16.041,-0.267643,5.4995,0.104477,
0.309137,-0.138609,0.352872,-2.54806,0.803998,0.811051,-0.0638905,0.161232,-0.236512,0.155522,-0.124582,0.394521,0.69984,0.0529781,-4.59574,-18.2213,-6.35723,17.0196,-1.31116,-30.1378,4.44665,12.2274,-3.07813,13.9383,-32.0241,-0.507796,10.7658,0.104883,0.314537,-0.136684,0.360548,-2.56377,0.803133,0.829756,-0.0644676,0.351612,-0.172515,0.350193,-0.537637,0.483383,1.25034,0.0151324,0,0,0,0,0,0,0,-4.50726,-19.2958,-5.13671,16.041,-0.267643,5.4995,0.104477,
0.310072,-0.141806,0.353635,-2.54795,0.806678,0.814045,-0.0630093,0.15237,-0.269122,0.143493,-0.0967877,0.382625,0.634718,0.0644119,-5.53933,-20.3812,-7.51763,17.3717,-7.4347,-40.7018,7.14612,12.0897,-2.94107,13.7902,-31.4636,-1.27525,10.7658,0.0993806,0.314537,-0.136684,0.360548,-2.56377,0.803133,0.829756,-0.0644676,0.351612,-0.172515,0.350193,-0.537637,0.483383,1.25034,0.0151324,0,0,0,0,0,0,0,-4.50726,-19.2958,-5.13671,16.041,-0.267643,5.4995,0.104477,
0.318031,-0.140667,0.363981,-2.5665,0.809967,0.843175,-0.0638066,0.159408,-0.27338,0.15038,-0.0966436,0.387723,0.650961,0.062225,4.39922,-2.66118,4.30431,0.0900579,3.18619,10.152,-1.36679,12.482,-3.23924,14.1682,-32.57,0.546259,10.7658,0.110287,0.314537,-0.136684,0.360548,-2.56377,0.803133,0.829756,-0.0644676,0.351612,-0.172515,0.350193,-0.537637,0.483383,1.25034,0.0151324,0,0,0,0,0,0,0,-4.50726,-19.2958,-5.13671,16.041,-0.267643,5.4995,0.104477,
0.319229,-0.143616,0.365032,-2.56661,0.812887,0.84732,-0.0631608,0.157477,-0.292424,0.146576,-0.0802131,0.383173,0.624391,0.0659263,-1.20675,-11.9023,-2.37742,10.269,-2.84412,-16.6063,2.31334,12.1764,-3.53826,14.0202,-32.0548,-0.443756,10.6389,0.105607,0.325548,-0.147589,0.372041,-2.5811,0.81572,0.868397,-0.0634108,0.35036,-0.294314,0.316385,-0.470672,0.498665,1.15916,0.0236533,-0.156478,-15.2249,-4.22596,8.37074,1.91024,-11.3969,1.06511,-0.424923,-17.7248,-1.08611,21.25,-0.725406,6.44799,0.017502,
0.320255,-0.147041,0.36586,-2.56636,0.815427,0.850251,-0.0622925,0.151617,-0.31956,0.137981,-0.0579246,0.370059,0.572786,0.0744485,-3.66286,-16.96,-5.37235,13.9303,-8.19575,-32.2531,5.32635,12.0386,-3.40119,13.8721,-31.4942,-1.21121,10.6389,0.100105,0.325548,-0.147589,0.372041,-2.5811,0.81572,0.868397,-0.0634108,0.35036,-0.294314,0.316385,-0.470672,0.498665,1.15916,0.0236533,0,0,0,0,0,0,0,-0.424923,-17.7248,-1.08611,21.25,-0.725406,6.44799,0.017502,
0.321178,-0.150778,0.366559,-2.56591,0.817584,0.85227,-0.0612108,0.144373,-0.349075,0.127863,-0.0349846,0.349971,0.50871,0.0865996,-4.52737,-18.447,-6.32328,14.3375,-12.5554,-40.0475,7.59444,12.003,-3.32091,13.8151,-30.9344,-1.78871,10.6389,0.0975374,0.325548,-0.147589,0.372041,-2.5811,0.81572,0.868397,-0.0634108,0.35036,-0.294314,0.316385,-0.470672,0.498665,1.15916,0.0236533,0,0,0,0,0,0,0,-0.424923,-17.7248,-1.08611,21.25,-0.725406,6.44799,0.017502,
0.329027,-0.152906,0.375329,-2.58287,0.822089,0.880617,-0.062582,0.153451,-0.352023,0.136804,-0.036465,0.353708,0.536702,0.082209,5.6738,-1.84252,5.58791,-0.925254,2.33589,17.4951,-2.74411,12.1764,-3.53826,14.0202,-32.0548,-0.443756,10.6389,0.105607,0.325548,-0.147589,0.372041,-2.5811,0.81572,0.868397,-0.0634108,0.35036,-0.294314,0.316385,-0.470672,0.498665,1.15916,0.0236533,0,0,0,0,0,0,0,-0.424923,-17.7248,-1.08611,21.25,-0.725406,6.44799,0.017502,
0.33028,-0.156321,0.376379,-2.58266,0.824614,0.88437,-0.0618356,0.154072,-0.367007,0.135701,-0.0238726,0.346114,0.523176,0.0844271,0.387721,-9.36524,-0.68948,7.87026,-4.74648,-8.45363,1.38631,11.9147,-3.76874,13.912,-31.6443,-1.17422,10.5206,0.101187,0.336301,-0.160141,0.383254,-2.59581,0.82866,0.903752,-0.0616732,0.344502,-0.37356,0.316905,-0.392375,0.353721,1.11502,0.0452733,-0.732345,-9.90582,0.0649687,9.78705,-18.118,-5.51772,2.7025,-0.476498,-18.3238,-1.76055,19.0799,-0.633854,5.29442,0.0577852,
0.33137,-0.160108,0.37723,-2.58216,0.826734,0.887028,-0.0608616,0.150509,-0.388276,0.129821,-0.00659817,0.32987,0.484993,0.0918917,-2.22662,-13.2929,-3.67523,10.7965,-10.1525,-23.8646,4.66538,11.8791,-3.68846,13.855,-31.0844,-1.75172,10.5206,0.0986194,0.336301,-0.160141,0.383254,-2.59581,0.82866,0.903752,-0.0616732,0.344502,-0.37356,0.316905,-0.392375,0.353721,1.11502,0.0452733,0,0,0,0,0,0,0,-0.476498,-18.3238,-1.76055,19.0799,-0.633854,5.29442,0.0577852,
0.332364,-0.164125,0.377963,-2.58153,0.82847,0.888887,-0.0596699,0.145271,-0.411043,0.1222,0.0105893,0.307313,0.434461,0.103307,-3.27385,-14.2295,-4.76275,10.7422,-14.0984,-31.5824,7.13442,11.9107,-3.67422,13.8572,-30.5385,-2.15124,9.89387,0.0970718,0.336301,-0.160141,0.383254,-2.59581,0.82866,0.903752,-0.0616732,0.344502,-0.37356,0.316905,-0.392375,0.353721,1.11502,0.0452733,0,0,0,0,0,0,0,-0.476498,-18.3238,-1.76055,19.0799,-0.633854,5.29442,0.0577852,
0.3398,-0.166378,0.386495,-2.59699,0.833027,0.915493,-0.0604645,0.154693,-0.411501,0.131949,0.00546987,0.296201,0.472774,0.100386,5.88919,-0.286452,6.09333,-3.19967,-6.94495,23.9459,-1.82555,11.9147,-3.76874,13.912,-31.6443,-1.17422,10.5206,0.101187,0.336301,-0.160141,0.383254,-2.59581,0.82866,0.903752,-0.0616732,0.344502,-0.37356,0.316905,-0.392375,0.353721,1.11502,0.0452733,0,0,0,0,0,0,0,-0.476498,-18.3238,-1.76055,19.0799,-0.633854,5.29442,0.0577852,
0.341081,-0.170067,0.387549,-2.59665,0.834743,0.919169,-0.0595284,0.155768,-0.421422,0.13191,0.012795,0.27985,0.470136,0.103711,0.671271,-6.20017,-0.0243952,4.5782,-10.2191,-1.64876,2.07818,11.8251,-4.14142,13.966,-31.1615,-1.68639,10.3689,0.0995213,0.347245,-0.17485,0.394043,-2.60791,0.837473,0.937892,-0.0592987,0.198403,-0.442126,0.460152,-0.359433,0.281126,1.02324,0.062535,-18.2623,-8.57073,17.9059,4.11781,-9.07432,-11.4721,2.15771,-0.655026,-19.2204,-2.01048,19.7305,-0.493778,4.90258,0.0641939,
0.342209,-0.17403,0.388417,-2.5961,0.836164,0.921856,-0.0583687,0.152806,-0.436211,0.12723,0.0240817,0.259416,0.443276,0.111963,-1.85111,-9.2431,-2.92503,7.05418,-12.7715,-16.7877,5.15768,11.8567,-4.12718,13.9682,-30.6157,-2.08591,9.74212,0.0979737,0.347245,-0.17485,0.394043,-2.60791,0.837473,0.937892,-0.0592987,0.198403,-0.442126,0.460152,-0.359433,0.281126,1.02324,0.062535,0,0,0,0,0,0,0,-0.655026,-19.2204,-2.01048,19.7305,-0.493778,4.90258,0.0641939,
0.343247,-0.178148,0.389179,-2.59546,0.83731,0.923839,-0.056996,0.148206,-0.451929,0.120845,0.0350817,0.236189,0.404192,0.123888,-2.87482,-9.82426,-3.99078,6.87504,-14.5169,-24.4276,7.45266,11.9304,-4.17118,14.0115,-30.081,-2.36819,9.11958,0.0992304,0.347245,-0.17485,0.394043,-2.60791,0.837473,0.937892,-0.0592987,0.198403,-0.442126,0.460152,-0.359433,0.281126,1.02324,0.062535,0,0,0,0,0,0,0,-0.655026,-19.2204,-2.01048,19.7305,-0.493778,4.90258,0.0641939,
0.350754,-0.18136,0.397358,-2.60928,0.839169,0.949207,-0.057701,0.157462,-0.446168,0.131503,0.0220021,0.208952,0.44624,0.121699,5.78512,3.6012,6.66127,-8.17478,-17.0232,26.2798,-1.3676,11.8251,-4.14142,13.966,-31.1615,-1.68639,10.3689,0.0995213,0.347245,-0.17485,0.394043,-2.60791,0.837473,0.937892,-0.0592987,0.198403,-0.442126,0.460152,-0.359433,0.281126,1.02324,0.062535,0,0,0,0,0,0,0,-0.655026,-19.2204,-2.01048,19.7305,-0.493778,4.90258,0.0641939,
0.352058,-0.185042,0.398442,-2.60909,0.839897,0.95298,-0.0565744,0.158565,-0.448996,0.132326,0.022198,0.185368,0.451323,0.125524,0.689218,-1.76758,0.514391,0.122419,-14.74,3.17711,2.39065,11.7631,-4.43909,14.0882,-30.9157,-2.05032,9.58734,0.0989257,0.359341,-0.190739,0.402391,-2.61944,0.842296,0.97121,-0.0566619,0.382799,-0.458314,0.22249,-0.324511,0.116229,0.947845,0.0710511,23.0495,-2.02351,-29.7077,4.36523,-20.6122,-9.42476,1.06452,-0.730404,-21.4183,-2.38738,23.2416,-0.121158,4.24615,0.110886,
0.353213,-0.188939,0.399347,-2.60871,0.84052,0.955905,-0.0552307,0.15572,-0.45661,0.128462,0.0272411,0.16387,0.434167,0.13401,-1.77798,-4.75884,-2.41528,3.15194,-13.4357,-10.7225,5.30365,11.8367,-4.48309,14.1315,-30.381,-2.3326,8.9648,0.100182,0.359341,-0.190739,0.402391,-2.61944,0.842296,0.97121,-0.0566619,0.382799,-0.458314,0.22249,-0.324511,0.116229,0.947845,0.0710511,0,0,0,0,0,0,0,-0.730404,-21.4183,-2.38738,23.2416,-0.121158,4.24615,0.110886,
0.354277,-0.19295,0.400146,-2.60827,0.841016,0.95822,-0.0536856,0.15119,-0.465569,0.122759,0.0329442,0.143496,0.405218,0.145838,-2.8314,-5.59966,-3.5641,3.56444,-12.7342,-18.0934,7.39206,11.9182,-4.57326,14.1791,-29.8599,-2.48639,8.40611,0.101664,0.359341,-0.190739,0.402391,-2.61944,0.842296,0.97121,-0.0566619,0.382799,-0.458314,0.22249,-0.324511,0.116229,0.947845,0.0710511,0,0,0,0,0,0,0,-0.730404,-21.4183,-2.38738,23.2416,-0.121158,4.24615,0.110886,
0.362831,-0.19774,0.405509,-2.62027,0.844025,0.981927,-0.0549765,0.1602,-0.461186,0.13246,0.024683,0.13345,0.443409,0.140761,5.63158,2.73969,6.0632,-5.16324,-6.2785,23.87,-3.17256,11.7631,-4.43909,14.0882,-30.9157,-2.05032,9.58734,0.0989257,0.359341,-0.190739,0.402391,-2.61944,0.842296,0.97121,-0.0566619,0.382799,-0.458314,0.22249,-0.324511,0.116229,0.947845,0.0710511,0,0,0,0,0,0,0,-0.730404,-21.4183,-2.38738,23.2416,-0.121158,4.24615,0.110886,
0.364192,-0.201442,0.406636,-2.62005,0.844606,0.985813,-0.053767,0.162171,-0.461478,0.13415,0.0251092,0.121261,0.451868,0.142847,1.2315,-0.182574,1.05601,0.266381,-7.61821,5.28642,1.30357,11.8367,-4.48309,14.1315,-30.381,-2.3326,8.9648,0.100182,0.359341,-0.190739,0.402391,-2.61944,0.842296,0.97121,-0.0566619,0.382799,-0.458314,0.22249,-0.324511,0.116229,0.947845,0.0710511,0,0,0,0,0,0,0,-0.730404,-21.4183,-2.38738,23.2416,-0.121158,4.24615,0.110886,
0.365418,-0.205242,0.407614,-2.61975,0.845036,0.989049,-0.0523279,0.160384,-0.464186,0.131764,0.0277201,0.107777,0.442394,0.150255,-1.1169,-1.69246,-1.49119,1.63183,-8.42733,-5.92123,4.62974,11.8659,-5.01241,14.3504,-30.0456,-2.43057,8.2209,0.102789,0.366926,-0.208009,0.415439,-2.63029,0.843503,1.00512,-0.0534102,0.327139,-0.499985,0.276368,-0.315611,-0.000608035,0.96285,0.10529,-6.95751,-5.20887,6.7347,1.11243,-14.6046,1.87553,4.27987,0.209842,-21.3945,-2.63732,23.7375,0.331112,2.80144,0.279343,
0.36656,-0.209072,0.408505,-2.61945,0.845342,0.991763,-0.050709,0.156864,-0.467112,0.127697,0.0295092,0.0938761,0.421771,0.160675,-2.19982,-1.82879,-2.54209,1.11817,-8.68826,-12.8893,6.51246,11.9391,-5.13362,14.3908,-29.5348,-2.48881,7.72532,0.105272,0.366926,-0.208009,0.415439,-2.63029,0.843503,1.00512,-0.0534102,0.327139,-0.499985,0.276368,-0.315611,-0.000608035,0.96285,0.10529,0,0,0,0,0,0,0,0.209842,-21.3945,-2.63732,23.7375,0.331112,2.80144,0.279343,
0.370385,-0.215024,0.418603,-2.63149,0.843033,1.01589,-0.0514645,0.164622,-0.460722,0.137092,0.0162538,0.0690939,0.460067,0.155903,4.84895,3.99375,5.87186,-8.28466,-15.4889,23.9349,-2.98235,11.7845,-4.92223,14.3028,-30.5667,-2.27677,8.7796,0.101308,0.366926,-0.208009,0.415439,-2.63029,0.843503,1.00512,-0.0534102,0.327139,-0.499985,0.276368,-0.315611,-0.000608035,0.96285,0.10529,0,0,0,0,0,0,0,0.209842,-21.3945,-2.63732,23.7375,0.331112,2.80144,0.279343,
0.37175,-0.218557,0.419769,-2.63155,0.842812,1.01998,-0.0501715,0.165824,-0.456906,0.138833,0.0114537,0.0497436,0.470355,0.157046,0.750856,2.38508,1.08839,-3.00001,-12.0939,6.43023,0.714656,11.8659,-5.01241,14.3504,-30.0456,-2.43057,8.2209,0.102789,0.366926,-0.208009,0.415439,-2.63029,0.843503,1.00512,-0.0534102,0.327139,-0.499985,0.276368,-0.315611,-0.000608035,0.96285,0.10529,0,0,0,0,0,0,0,0.209842,-21.3945,-2.63732,23.7375,0.331112,2.80144,0.279343,
0.372995,-0.222127,0.420801,-2.63155,0.842598,1.0234,-0.0487308,0.163793,-0.454772,0.136868,0.00915154,0.0344433,0.46172,0.161656,-1.26921,1.33338,-1.22837,-1.43888,-9.56272,-5.39683,2.88115,11.9482,-5.64953,14.573,-29.5799,-2.41039,7.54501,0.106117,0.377664,-0.225233,0.42469,-2.64173,0.84334,1.03819,-0.0495169,0.190928,-0.523669,0.398806,-0.319511,-0.0170585,0.866557,0.125728,-17.0264,-2.96044,15.3047,-0.487464,-2.05631,-12.0365,2.55471,1.98322,-21.3667,-0.836168,22.345,0.373226,3.91472,0.359909,
0.374171,-0.22569,0.421762,-2.63157,0.842382,1.02627,-0.0471888,0.160432,-0.452896,0.133497,0.00674571,0.0221493,0.441186,0.167875,-2.10067,1.17302,-2.10681,-1.50364,-7.68372,-12.8339,3.88647,11.9987,-5.78959,14.5895,-29.0788,-2.37067,7.09622,0.107808,0.377664,-0.225233,0.42469,-2.64173,0.84334,1.03819,-0.0495169,0.190928,-0.523669,0.398806,-0.319511,-0.0170585,0.866557,0.125728,0,0,0,0,0,0,0,1.98322,-21.3667,-0.836168,22.345,0.373226,3.91472,0.359909,
0.380999,-0.231853,0.427905,-2.64373,0.840691,1.04799,-0.0475486,0.16662,-0.443673,0.142192,-0.0122503,-0.0132039,0.46509,0.160691,3.86779,5.76381,5.43484,-11.8725,-22.0957,14.9402,-4.48969,11.875,-5.52832,14.5326,-30.0907,-2.35215,8.04058,0.103634,0.377664,-0.225233,0.42469,-2.64173,0.84334,1.03819,-0.0495169,0.190928,-0.523669,0.398806,-0.319511,-0.0170585,0.866557,0.125728,0,0,0,0,0,0,0,1.98322,-21.3667,-0.836168,22.345,0.373226,3.91472,0.359909,
0.382349,-0.235122,0.429106,-2.64419,0.839669,1.05182,-0.0463593,0.167066,-0.436655,0.143788,-0.0214339,-0.0361192,0.467826,0.158287,0.278257,4.38663,0.997088,-5.73975,-14.3221,1.70994,-1.50284,11.9482,-5.64953,14.573,-29.5799,-2.41039,7.54501,0.106117,0.377664,-0.225233,0.42469,-2.64173,0.84334,1.03819,-0.0495169,0.190928,-0.523669,0.398806,-0.319511,-0.0170585,0.866557,0.125728,0,0,0,0,0,0,0,1.98322,-21.3667,-0.836168,22.345,0.373226,3.91472,0.359909,
0.383593,-0.238404,0.430186,-2.64458,0.838815,1.05512,-0.0450666,0.164754,-0.431381,0.142016,-0.026726,-0.0502521,0.456711,0.158945,-1.44497,3.29606,-1.10731,-3.30752,-8.83309,-6.94699,0.411835,11.9822,-6.16274,14.7959,-29.2967,-2.32077,6.9129,0.108919,0.38849,-0.242569,0.433654,-2.65355,0.841005,1.07055,-0.0453558,0.25932,-0.516094,0.322091,-0.346424,-0.0762979,0.948922,0.130998,8.54898,0.946831,-9.5893,-3.36412,-7.40493,10.2955,0.65875,1.75708,-19.5696,-0.963121,21.7975,0.0134241,2.58263,0.305893,
0.384775,-0.241669,0.4312,-2.64496,0.838093,1.05799,-0.0437035,0.161333,-0.426728,0.138967,-0.0308981,-0.0582395,0.437093,0.161235,-2.13824,2.90811,-1.90594,-2.60761,-4.99214,-12.261,1.4307,12.0072,-6.31,14.7892,-28.8016,-2.2167,6.51332,0.110889,0.38849,-0.242569,0.433654,-2.65355,0.841005,1.07055,-0.0453558,0.25932,-0.516094,0.322091,-0.346424,-0.0762979,0.948922,0.130998,0,0,0,0,0,0,0,1.75708,-19.5696,-0.963121,21.7975,0.0134241,2.58263,0.305893,
0.391836,-0.248922,0.436892,-2.65576,0.838316,1.08092,-0.0435629,0.167578,-0.417935,0.147563,-0.0458391,-0.0790554,0.467749,0.15246,3.90348,5.49585,5.37248,-9.33809,-13.0099,19.1601,-5.48406,11.9317,-6.02268,14.7794,-29.7978,-2.36048,7.36168,0.107228,0.38849,-0.242569,0.433654,-2.65355,0.841005,1.07055,-0.0453558,0.25932,-0.516094,0.322091,-0.346424,-0.0762979,0.948922,0.130998,0,0,0,0,0,0,0,1.75708,-19.5696,-0.963121,21.7975,0.0134241,2.58263,0.305893,
0.393215,-0.251909,0.438164,-2.65643,0.837216,1.08502,-0.0425124,0.168535,-0.409021,0.149866,-0.0533999,-0.0907389,0.476632,0.14823,0.598079,5.5712,1.43943,-4.72553,-7.30218,5.55137,-2.64351,11.9822,-6.16274,14.7959,-29.2967,-2.32077,6.9129,0.108919,0.38849,-0.242569,0.433654,-2.65355,0.841005,1.07055,-0.0453558,0.25932,-0.516094,0.322091,-0.346424,-0.0762979,0.948922,0.130998,0,0,0,0,0,0,0,1.75708,-19.5696,-0.963121,21.7975,0.0134241,2.58263,0.305893,
0.394496,-0.254849,0.439332,-2.65706,0.8363,1.08861,-0.0413808,0.166843,-0.400711,0.149094,-0.0585366,-0.0954886,0.471148,0.146874,-1.05737,5.19351,-0.482321,-3.2104,-2.96856,-3.42737,-0.847866,12.0223,-6.76206,15.0197,-28.9338,-2.15725,6.33048,0.111706,0.398236,-0.259172,0.444681,-2.6663,0.836051,1.10314,-0.0415293,0.357122,-0.470381,0.2141,-0.372411,-0.138802,0.867029,0.110673,12.2252,5.71412,-13.4989,-3.24839,-7.81298,-10.2366,-2.54054,-0.0718349,-19.9941,-3.51012,21.4722,0.00701543,3.57689,0.332443,
0.395715,-0.257733,0.440442,-2.65771,0.835539,1.09179,-0.0402034,0.16396,-0.392684,0.147025,-0.0632375,-0.0954239,0.456385,0.146934,-1.80219,5.01712,-1.29314,-2.93809,0.0404757,-9.22655,0.0374897,12.0163,-6.90897,14.9823,-28.4439,-1.98958,5.96786,0.11271,0.398236,-0.259172,0.444681,-2.6663,0.836051,1.10314,-0.0415293,0.357122,-0.470381,0.2141,-0.372411,-0.138802,0.867029,0.110673,0,0,0,0,0,0,0,-0.0718349,-19.9941,-3.51012,21.4722,0.00701543,3.57689,0.332443,
0.401728,-0.265124,0.448005,-2.66863,0.833944,1.11293,-0.039999,0.171394,-0.38487,0.156108,-0.0740211,-0.103291,0.478207,0.137547,4.64662,4.88345,5.67693,-6.73972,-4.91687,13.6385,-5.86704,11.9974,-6.6148,15.0264,-29.4289,-2.26132,6.73005,0.109736,0.398236,-0.259172,0.444681,-2.6663,0.836051,1.10314,-0.0415293,0.357122,-0.470381,0.2141,-0.372411,-0.138802,0.867029,0.110673,0,0,0,0,0,0,0,-0.0718349,-19.9941,-3.51012,21.4722,0.00701543,3.57689,0.332443,
0.403178,-0.267822,0.449384,-2.66945,0.832978,1.11696,-0.0391059,0.173375,-0.375339,0.159377,-0.0797801,-0.106765,0.483409,0.132365,1.23771,5.95696,2.04308,-3.59937,-2.17126,3.25113,-3.23842,12.0223,-6.76206,15.0197,-28.9338,-2.15725,6.33048,0.111706,0.398236,-0.259172,0.444681,-2.6663,0.836051,1.10314,-0.0415293,0.357122,-0.470381,0.2141,-0.372411,-0.138802,0.867029,0.110673,0,0,0,0,0,0,0,-0.0718349,-19.9941,-3.51012,21.4722,0.00701543,3.57689,0.332443,
0.404524,-0.270435,0.450664,-2.67027,0.832154,1.12058,-0.0381541,0.172346,-0.365604,0.159496,-0.0844747,-0.106016,0.477154,0.129687,-0.642665,6.08456,0.0745049,-2.93417,0.46799,-3.90901,-1.67406,12.0301,-7.40991,15.201,-28.4525,-1.93429,5.80724,0.113503,0.407807,-0.275367,0.456715,-2.68026,0.830634,1.13378,-0.0379242,0.361434,-0.48425,0.24671,-0.383352,-0.133013,0.865643,0.113336,0.539029,-1.73354,4.0762,-1.36763,0.723579,-0.173158,0.332784,0.94379,-18.9467,-2.3358,20.0281,-0.328983,3.5302,0.392868,
0.405797,-0.272973,0.451881,-2.67115,0.831467,1.12383,-0.0371798,0.169696,-0.355926,0.158011,-0.0894061,-0.101997,0.463096,0.128106,-1.65625,6.04876,-0.928355,-3.0821,2.51191,-8.78642,-0.987981,11.9954,-7.54972,15.1378,-27.9649,-1.7313,5.48376,0.11452,0.407807,-0.275367,0.456715,-2.68026,0.830634,1.13378,-0.0379242,0.361434,-0.48425,0.24671,-0.383352,-0.133013,0.865643,0.113336,0,0,0,0,0,0,0,0.94379,-18.9467,-2.3358,20.0281,-0.328983,3.5302,0.392868,
0.411422,-0.281081,0.460252,-2.68286,0.828338,1.14352,-0.036436,0.177125,-0.351357,0.167186,-0.0988908,-0.111264,0.480987,0.120701,4.64262,2.85567,5.73422,-5.92794,-5.79207,11.1817,-4.62796,12.0361,-7.26301,15.2383,-28.9425,-2.10196,6.16986,0.112499,0.407807,-0.275367,0.456715,-2.68026,0.830634,1.13378,-0.0379242,0.361434,-0.48425,0.24671,-0.383352,-0.133013,0.865643,0.113336,0,0,0,0,0,0,0,0.94379,-18.9467,-2.3358,20.0281,-0.328983,3.5302,0.392868,
0.4129,-0.283553,0.46171,-2.68388,0.827289,1.14744,-0.0356642,0.178633,-0.342885,0.170205,-0.104464,-0.115229,0.482994,0.115857,0.942928,5.29503,1.88689,-3.4831,-2.47806,1.25468,-3.02789,12.0301,-7.40991,15.201,-28.4525,-1.93429,5.80724,0.113503,0.407807,-0.275367,0.456715,-2.68026,0.830634,1.13378,-0.0379242,0.361434,-0.48425,0.24671,-0.383352,-0.133013,0.865643,0.113336,0,0,0,0,0,0,0,0.94379,-18.9467,-2.3358,20.0281,-0.328983,3.5302,0.392868,
0.414259,-0.285902,0.463059,-2.68492,0.826424,1.15099,-0.0348638,0.17689,-0.333026,0.169897,-0.109519,-0.113814,0.475076,0.112694,-1.08984,6.16168,-0.192267,-3.1593,0.884242,-4.94877,-1.97632,11.9954,-7.54972,15.1378,-27.9649,-1.7313,5.48376,0.11452,0.407807,-0.275367,0.456715,-2.68026,0.830634,1.13378,-0.0379242,0.361434,-0.48425,0.24671,-0.383352,-0.133013,0.865643,0.113336,0,0,0,0,0,0,0,0.94379,-18.9467,-2.3358,20.0281,-0.328983,3.5302,0.392868,
0.415536,-0.28815,0.464339,-2.68601,0.825736,1.15423,-0.0340578,0.173429,-0.322621,0.167911,-0.114949,-0.108243,0.461029,0.110306,-2.16286,6.50298,-1.24103,-3.39381,3.4822,-8.77935,-1.49307,11.9307,-7.67903,15.0457,-27.4791,-1.49368,5.18991,0.114631,0.407807,-0.275367,0.456715,-2.68026,0.830634,1.13378,-0.0379242,0.361434,-0.48425,0.24671,-0.383352,-0.133013,0.865643,0.113336,0,0,0,0,0,0,0,0.94379,-18.9467,-2.3358,20.0281,-0.328983,3.5302,0.392868,
0.411374,-0.281091,0.460221,-2.68283,0.828426,1.14338,-0.0364667,0.179404,-0.324859,0.174611,-0.118903,-0.114922,0.477298,0.105947,3.73419,-1.39869,4.1876,-2.47124,-4.1742,10.1682,-2.72377,12.0301,-7.40991,15.201,-28.4525,-1.93429,5.80724,0.113503,0.407807,-0.275367,0.456715,-2.68026,0.830634,1.13378,-0.0379242,0.361434,-0.48425,0.24671,-0.383352,-0.133013,0.865643,0.113336,0,0,0,0,0,0,0,0.94379,-18.9467,-2.3358,20.0281,-0.328983,3.5302,0.392868,
0.412818,-0.283569,0.461655,-2.68383,0.827455,1.14723,-0.0357162,0.179635,-0.321851,0.175528,-0.120096,-0.116212,0.47798,0.103521,0.144831,1.88001,0.573097,-0.745896,-0.806334,0.425995,-1.51665,11.9954,-7.54972,15.1378,-27.9649,-1.7313,5.48376,0.11452,0.407807,-0.275367,0.456715,-2.68026,0.830634,1.13378,-0.0379242,0.361434,-0.48425,0.24671,-0.383352,-0.133013,0.865643,0.113336,0,0,0,0,0,0,0,0.94379,-18.9467,-2.3358,20.0281,-0.328983,3.5302,0.392868,
0.414142,-0.285922,0.462977,-2.68486,0.826687,1.15071,-0.0349347,0.176813,-0.316314,0.173479,-0.121686,-0.112171,0.469267,0.102356,-1.76375,3.46062,-1.28099,-0.993841,2.52562,-5.44537,-0.728256,12.0141,-8.19949,15.29,-27.4158,-1.43478,5.0202,0.115467,0.418087,-0.290676,0.468749,-2.69513,0.825408,1.16364,-0.034824,0.252635,-0.441081,0.40388,-0.421531,-0.155284,0.794934,0.0913925,-13.5999,5.39606,19.6463,-4.77231,-2.78388,-8.83866,-2.74289,1.72931,-17.3003,-1.78832,20.4526,-0.420536,3.6895,0.352585,
0.415382,-0.288174,0.464227,-2.68594,0.826115,1.15387,-0.0341466,0.17244,-0.309352,0.170032,-0.124338,-0.104051,0.454617,0.101585,-2.73366,4.35122,-2.15437,-1.65709,5.07506,-9.15683,-0.481531,11.9235,-8.31528,15.1749,-26.9301,-1.18433,4.75722,0.115515,0.418087,-0.290676,0.468749,-2.69513,0.825408,1.16364,-0.034824,0.252635,-0.441081,0.40388,-0.421531,-0.155284,0.794934,0.0913925,0,0,0,0,0,0,0,1.72931,-17.3003,-1.78832,20.4526,-0.420536,3.6895,0.352585,
0.421444,-0.295393,0.472455,-2.6989,0.82145,1.17299,-0.0337603,0.175983,-0.302823,0.177121,-0.140468,-0.129488,0.469292,0.093405,2.21471,4.08053,4.43067,-10.0813,-15.8982,9.17235,-5.11261,12.0788,-8.07018,15.3821,-27.9016,-1.6724,5.31405,0.115356,0.418087,-0.290676,0.468749,-2.69513,0.825408,1.16364,-0.034824,0.252635,-0.441081,0.40388,-0.421531,-0.155284,0.794934,0.0913925,0,0,0,0,0,0,0,1.72931,-17.3003,-1.78832,20.4526,-0.420536,3.6895,0.352585,
0.422773,-0.297487,0.47388,-2.70036,0.820025,1.1768,-0.0332411,0.174017,-0.294605,0.177325,-0.148851,-0.139222,0.470655,0.0877029,-1.22897,5.13683,0.127328,-5.23942,-6.08366,0.851481,-3.56385,12.0141,-8.19949,15.29,-27.4158,-1.43478,5.0202,0.115467,0.418087,-0.290676,0.468749,-2.69513,0.825408,1.16364,-0.034824,0.252635,-0.441081,0.40388,-0.421531,-0.155284,0.794934,0.0913925,0,0,0,0,0,0,0,1.72931,-17.3003,-1.78832,20.4526,-0.420536,3.6895,0.352585,
0.423982,-0.299517,0.475174,-2.70175,0.818983,1.18028,-0.0326909,0.169435,-0.286451,0.174199,-0.153848,-0.137417,0.463542,0.0839189,-2.86347,5.09611,-1.95336,-3.1234,1.12796,-4.44541,-2.36496,11.9235,-8.31528,15.1749,-26.9301,-1.18433,4.75722,0.115515,0.418087,-0.290676,0.468749,-2.69513,0.825408,1.16364,-0.034824,0.252635,-0.441081,0.40388,-0.421531,-0.155284,0.794934,0.0913925,0,0,0,0,0,0,0,1.72931,-17.3003,-1.78832,20.4526,-0.420536,3.6895,0.352585,
0.425114,-0.301496,0.476388,-2.70312,0.818265,1.1835,-0.0321199,0.163844,-0.278626,0.16972,-0.157296,-0.127876,0.451215,0.08141,-3.49462,4.89028,-2.7994,-2.15462,5.9633,-7.70422,-1.56809,11.8191,-8.86466,15.2154,-26.4354,-0.873144,4.37458,0.115609,0.429473,-0.304691,0.480412,-2.71007,0.820025,1.19249,-0.0323319,0.226975,-0.388922,0.442454,-0.430155,-0.158161,0.784238,0.0616513,-3.20743,6.5199,4.8217,-1.07806,-0.359621,-1.33703,-3.71765,0.94379,-15.4793,-2.28819,19.6036,-0.377506,3.44414,0.319626,
0.432709,-0.30871,0.484196,-2.71427,0.815929,1.20201,-0.0317279,0.167584,-0.270041,0.177419,-0.172246,-0.148935,0.469507,0.0718588,2.3375,5.36565,4.81148,-9.34427,-13.162,11.4326,-5.96949,12.0254,-8.64728,15.4696,-27.4069,-1.38696,4.87691,0.116241,0.429473,-0.304691,0.480412,-2.71007,0.820025,1.19249,-0.0323319,0.226975,-0.388922,0.442454,-0.430155,-0.158161,0.784238,0.0616513,0,0,0,0,0,0,0,0.94379,-15.4793,-2.28819,19.6036,-0.377506,3.44414,0.319626,
0.433973,-0.310505,0.485628,-2.71593,0.814557,1.20593,-0.0314207,0.165671,-0.260922,0.177753,-0.179294,-0.153447,0.473601,0.0651652,-1.19566,5.69942,0.209064,-4.40468,-2.82038,2.55837,-4.18347,11.9349,-8.76307,15.3544,-26.9211,-1.13651,4.61393,0.116289,0.429473,-0.304691,0.480412,-2.71007,0.820025,1.19249,-0.0323319,0.226975,-0.388922,0.442454,-0.430155,-0.158161,0.784238,0.0616513,0,0,0,0,0,0,0,0.94379,-15.4793,-2.28819,19.6036,-0.377506,3.44414,0.319626,
0.435117,-0.31226,0.486923,-2.7175,0.813612,1.20951,-0.031076,0.161144,-0.252599,0.174569,-0.182706,-0.146385,0.468503,0.0607515,-2.82944,5.20185,-1.98984,-2.13276,4.41413,-3.18629,-2.75861,11.8191,-8.86466,15.2154,-26.4354,-0.873144,4.37458,0.115609,0.429473,-0.304691,0.480412,-2.71007,0.820025,1.19249,-0.0323319,0.226975,-0.388922,0.442454,-0.430155,-0.158161,0.784238,0.0616513,0,0,0,0,0,0,0,0.94379,-15.4793,-2.28819,19.6036,-0.377506,3.44414,0.319626,
0.436187,-0.313981,0.488135,-2.71903,0.813019,1.21282,-0.0307035,0.155649,-0.245118,0.169961,-0.184381,-0.131922,0.457518,0.0579137,-3.43436,4.67605,-2.87994,-1.04683,9.03899,-6.8654,-1.77358,11.6655,-9.38411,15.2098,-25.9481,-0.575557,4.03971,0.115475,0.440295,-0.317692,0.492234,-2.72528,0.815105,1.21756,-0.0305669,0.258421,-0.328075,0.398496,-0.433193,-0.197439,0.744444,0.0622014,3.9307,7.60582,-5.49465,-0.379782,-4.90971,-4.97421,0.0687669,0.25745,-17.5264,-3.33556,19.9527,-0.334476,4.04748,0.305893,
0.443448,-0.321278,0.495976,-2.72957,0.811683,1.22669,-0.0299177,0.159862,-0.238354,0.177385,-0.195493,-0.14292,0.4708,0.0537134,2.63347,4.22717,4.63946,-6.94458,-6.87319,8.30104,-2.62523,11.9178,-9.19579,15.5062,-26.9205,-1.09943,4.49453,0.116905,0.440295,-0.317692,0.492234,-2.72528,0.815105,1.21756,-0.0305669,0.258421,-0.328075,0.398496,-0.433193,-0.197439,0.744444,0.0622014,0,0,0,0,0,0,0,0.25745,-17.5264,-3.33556,19.9527,-0.334476,4.04748,0.305893,
0.444674,-0.322894,0.497408,-2.7313,0.810637,1.23039,-0.0296404,0.15855,-0.231096,0.17769,-0.199762,-0.140484,0.46911,0.0499019,-0.820155,4.53658,0.190628,-2.6687,1.52241,-1.05585,-2.38215,11.802,-9.29738,15.3672,-26.4348,-0.836071,4.25518,0.116225,0.440295,-0.317692,0.492234,-2.72528,0.815105,1.21756,-0.0305669,0.258421,-0.328075,0.398496,-0.433193,-0.197439,0.744444,0.0622014,0,0,0,0,0,0,0,0.25745,-17.5264,-3.33556,19.9527,-0.334476,4.04748,0.305893,
0.445788,-0.324482,0.498706,-2.73295,0.809977,1.23374,-0.0293621,0.154675,-0.22457,0.174612,-0.201007,-0.128886,0.458999,0.0468806,-2.42175,4.07864,-1.92359,-0.777588,7.24875,-6.31955,-1.88831,11.6655,-9.38411,15.2098,-25.9481,-0.575557,4.03971,0.115475,0.440295,-0.317692,0.492234,-2.72528,0.815105,1.21756,-0.0305669,0.258421,-0.328075,0.398496,-0.433193,-0.197439,0.744444,0.0622014,0,0,0,0,0,0,0,0.25745,-17.5264,-3.33556,19.9527,-0.334476,4.04748,0.305893,
0.44683,-0.326048,0.499925,-2.73455,0.809634,1.23682,-0.0290793,0.149803,-0.218811,0.170157,-0.200852,-0.1117,0.444259,0.0445736,-3.04482,3.59919,-2.78418,0.096903,10.7413,-9.21226,-1.44192,11.5341,-9.89963,15.2236,-25.4376,-0.285467,3.71863,0.114812,0.450994,-0.330322,0.504169,-2.7412,0.809608,1.24194,-0.0292911,0.326037,-0.295303,0.298244,-0.49199,-0.238567,0.703361,0.0326884,8.452,4.0966,-12.5316,-7.34956,-5.14102,-5.13539,-3.68913,-1.66668,-16.725,-5.21208,18.584,0.0317347,3.93487,0.352585,
0.454119,-0.333713,0.507823,-2.74561,0.806934,1.25068,-0.0288961,0.154502,-0.214566,0.177324,-0.209559,-0.118113,0.457062,0.0403586,2.93663,2.65291,4.4795,-5.44196,-4.00816,8.00147,-2.63434,11.8265,-9.74027,15.5563,-26.4118,-0.804441,4.13102,0.116867,0.450994,-0.330322,0.504169,-2.7412,0.809608,1.24194,-0.0292911,0.326037,-0.295303,0.298244,-0.49199,-0.238567,0.703361,0.0326884,0,0,0,0,0,0,0,-1.66668,-16.725,-5.21208,18.584,0.0317347,3.93487,0.352585,
0.455313,-0.335218,0.50925,-2.74737,0.806185,1.25428,-0.028715,0.153453,-0.209272,0.177517,-0.211617,-0.113222,0.455523,0.0368149,-0.6557,3.30875,0.120383,-1.28616,3.05671,-0.961973,-2.21483,11.6899,-9.827,15.3989,-25.9251,-0.543927,3.91555,0.116117,0.450994,-0.330322,0.504169,-2.7412,0.809608,1.24194,-0.0292911,0.326037,-0.295303,0.298244,-0.49199,-0.238567,0.703361,0.0326884,0,0,0,0,0,0,0,-1.66668,-16.725,-5.21208,18.584,0.0317347,3.93487,0.352585,
0.456394,-0.336693,0.510544,-2.74904,0.805785,1.25751,-0.0285344,0.149785,-0.204305,0.174385,-0.211102,-0.100589,0.445294,0.0339675,-2.29257,3.10458,-1.95764,0.32183,7.89542,-6.39279,-1.77961,11.5341,-9.89963,15.2236,-25.4376,-0.285467,3.71863,0.114812,0.450994,-0.330322,0.504169,-2.7412,0.809608,1.24194,-0.0292911,0.326037,-0.295303,0.298244,-0.49199,-0.238567,0.703361,0.0326884,0,0,0,0,0,0,0,-1.66668,-16.725,-5.21208,18.584,0.0317347,3.93487,0.352585,
0.457403,-0.338149,0.51176,-2.75067,0.805674,1.26047,-0.0283516,0.145072,-0.199839,0.169891,-0.209597,-0.0832226,0.430255,0.0317422,-2.94537,2.79153,-2.80846,0.940679,10.8541,-9.39923,-1.3908,11.3403,-10.4448,15.1784,-24.8602,-0.0129334,3.44417,0.113931,0.460766,-0.342632,0.516875,-2.75818,0.804794,1.26566,-0.0287579,0.395464,-0.306209,0.235414,-0.488847,-0.212478,0.733983,0.00861444,8.67837,-1.36333,-7.85367,0.392841,3.26116,3.82778,-3.00924,-1.23822,-14.8802,-5.13671,17.3145,0.1535,3.52379,0.400192,
0.464137,-0.346263,0.520603,-2.76205,0.803126,1.27445,-0.0285869,0.152963,-0.201549,0.178505,-0.210259,-0.0845129,0.445794,0.0278129,4.93147,-1.06899,5.38366,-0.414164,-0.806454,9.71142,-2.45584,11.6671,-10.313,15.5425,-25.8364,-0.51718,3.81999,0.116609,0.460766,-0.342632,0.516875,-2.75818,0.804794,1.26566,-0.0287579,0.395464,-0.306209,0.235414,-0.488847,-0.212478,0.733983,0.00861444,0,0,0,0,0,0,0,-1.23822,-14.8802,-5.13671,17.3145,0.1535,3.52379,0.400192,
0.465387,-0.347796,0.522078,-2.76363,0.802732,1.27803,-0.0284648,0.1536,-0.199562,0.179675,-0.207636,-0.0774453,0.446127,0.0253027,0.398497,1.24189,0.731135,1.63964,4.41721,0.208348,-1.56887,11.5113,-10.3857,15.3671,-25.3489,-0.258719,3.62307,0.115305,0.460766,-0.342632,0.516875,-2.75818,0.804794,1.26566,-0.0287579,0.395464,-0.306209,0.235414,-0.488847,-0.212478,0.733983,0.00861444,0,0,0,0,0,0,0,-1.23822,-14.8802,-5.13671,17.3145,0.1535,3.52379,0.400192,
0.466495,-0.349255,0.523409,-2.76518,0.80266,1.28124,-0.0283177,0.15059,-0.196105,0.177005,-0.20489,-0.0637687,0.43731,0.0239213,-1.88108,2.16079,-1.66874,1.71631,8.54789,-5.51051,-0.86337,11.3403,-10.4448,15.1784,-24.8602,-0.0129334,3.44417,0.113931,0.460766,-0.342632,0.516875,-2.75818,0.804794,1.26566,-0.0287579,0.395464,-0.306209,0.235414,-0.488847,-0.212478,0.733983,0.00861444,0,0,0,0,0,0,0,-1.23822,-14.8802,-5.13671,17.3145,0.1535,3.52379,0.400192,
0.467514,-0.35066,0.524649,-2.76672,0.80287,1.28419,-0.0281557,0.145957,-0.192021,0.172611,-0.202592,-0.0457536,0.423422,0.0231852,-2.89578,2.55215,-2.74586,1.43614,11.2595,-8.67988,-0.460086,11.213,-10.9982,15.1444,-24.1794,0.24793,3.18176,0.112634,0.469181,-0.353838,0.530442,-2.77521,0.801259,1.28814,-0.0285132,0.232718,-0.31331,0.382404,-0.497601,-0.150038,0.681571,0.00121079,-20.3433,-0.887566,18.3738,-1.09428,7.80499,-6.55152,-0.925456,-1.36517,-15.1024,-5.46202,20.7739,-0.151371,4.16649,0.346176,
0.471815,-0.357163,0.53391,-2.78003,0.798603,1.29683,-0.0285624,0.145571,-0.192584,0.175827,-0.215439,-0.0629612,0.439331,0.0179694,-0.241119,-0.351623,2.00984,-8.02945,-10.7548,9.94302,-3.25986,11.5686,-10.8922,15.5343,-25.1577,-0.232295,3.52526,0.115776,0.469181,-0.353838,0.530442,-2.77521,0.801259,1.28814,-0.0285132,0.232718,-0.31331,0.382404,-0.497601,-0.150038,0.681571,0.00121079,0,0,0,0,0,0,0,-1.36517,-15.1024,-5.46202,20.7739,-0.151371,4.16649,0.346176,
0.472791,-0.358664,0.535185,-2.7819,0.798092,1.30036,-0.0285672,0.140868,-0.191589,0.172537,-0.219166,-0.0631495,0.439823,0.0142569,-2.93953,0.62151,-2.05632,-2.32952,-0.117662,0.307479,-2.32031,11.3976,-10.9513,15.3456,-24.669,0.0134906,3.34636,0.114402,0.469181,-0.353838,0.530442,-2.77521,0.801259,1.28814,-0.0285132,0.232718,-0.31331,0.382404,-0.497601,-0.150038,0.681571,0.00121079,0,0,0,0,0,0,0,-1.36517,-15.1024,-5.46202,20.7739,-0.151371,4.16649,0.346176,
0.473678,-0.360144,0.536336,-2.78364,0.798012,1.30353,-0.0285484,0.134866,-0.190274,0.166805,-0.218624,-0.0525207,0.431001,0.0118759,-3.75121,0.821896,-3.58274,0.338612,6.64299,-5.51377,-1.48813,11.213,-10.9982,15.1444,-24.1794,0.24793,3.18176,0.112634,0.469181,-0.353838,0.530442,-2.77521,0.801259,1.28814,-0.0285132,0.232718,-0.31331,0.382404,-0.497601,-0.150038,0.681571,0.00121079,0,0,0,0,0,0,0,-1.36517,-15.1024,-5.46202,20.7739,-0.151371,4.16649,0.346176,
0.47452,-0.361608,0.537422,-2.78528,0.798266,1.30641,-0.0285082,0.128941,-0.188824,0.160599,-0.215978,-0.0356525,0.41699,0.0105042,-3.70331,0.906353,-3.8784,1.65404,10.5426,-8.75687,-0.85728,11.1403,-11.4969,15.1612,-23.4572,0.481517,2.92992,0.111237,0.480057,-0.364935,0.541484,-2.79232,0.799232,1.31018,-0.028494,0.20186,-0.339459,0.478024,-0.536705,-0.0593274,0.64509,0.000176226,-3.8572,-3.26859,11.9524,-4.88798,11.3388,-4.56014,-0.12932,-0.67883,-15.7292,-4.71221,23.4399,-0.255741,4.39263,0.251877,
0.482756,-0.368458,0.545136,-2.79735,0.796713,1.31849,-0.0286438,0.13245,-0.192084,0.167325,-0.22737,-0.0528792,0.429962,0.00618263,2.19348,-2.03765,4.20327,-7.12002,-10.7667,8.10714,-2.70099,11.5196,-11.4142,15.5722,-24.4374,0.0305074,3.24593,0.114812,0.480057,-0.364935,0.541484,-2.79232,0.799232,1.31018,-0.028494,0.20186,-0.339459,0.478024,-0.536705,-0.0593274,0.64509,0.000176226,0,0,0,0,0,0,0,-0.67883,-15.7292,-4.71221,23.4399,-0.255741,4.39263,0.251877,
0.483733,-0.370028,0.546422,-2.79922,0.796324,1.32188,-0.0287222,0.130384,-0.192926,0.166005,-0.228524,-0.0520213,0.428775,0.0029872,-1.29146,-0.525979,-0.82465,-0.721117,0.536158,-0.741763,-1.99714,11.335,-11.4611,15.371,-23.9478,0.264946,3.08133,0.113044,0.480057,-0.364935,0.541484,-2.79232,0.799232,1.31018,-0.028494,0.20186,-0.339459,0.478024,-0.536705,-0.0593274,0.64509,0.000176226,0,0,0,0,0,0,0,-0.67883,-15.7292,-4.71221,23.4399,-0.255741,4.39263,0.251877,
0.484614,-0.37157,0.54757,-2.80091,0.796389,1.32492,-0.0287743,0.126328,-0.192905,0.161519,-0.225134,-0.0399888,0.419129,0.00108694,-2.53518,0.0132362,-2.80398,2.11849,7.52035,-6.02879,-1.18766,11.1403,-11.4969,15.1612,-23.4572,0.481517,2.92992,0.111237,0.480057,-0.364935,0.541484,-2.79232,0.799232,1.31018,-0.028494,0.20186,-0.339459,0.478024,-0.536705,-0.0593274,0.64509,0.000176226,0,0,0,0,0,0,0,-0.67883,-15.7292,-4.71221,23.4399,-0.255741,4.39263,0.251877,
0.485445,-0.373097,0.548648,-2.8025,0.79678,1.3277,-0.0287922,0.121857,-0.192497,0.15616,-0.219874,-0.022216,0.404794,0.000422013,-2.7942,0.254754,-3.34915,3.28793,11.108,-8.95934,-0.415579,10.937,-11.5231,14.9436,-22.9659,0.681795,2.78927,0.109176,0.480057,-0.364935,0.541484,-2.79232,0.799232,1.31018,-0.028494,0.20186,-0.339459,0.478024,-0.536705,-0.0593274,0.64509,0.000176226,0,0,0,0,0,0,0,-0.67883,-15.7292,-4.71221,23.4399,-0.255741,4.39263,0.251877,
0.493067,-0.379197,0.556531,-2.81365,0.797293,1.33808,-0.0283955,0.128169,-0.197967,0.162862,-0.222577,-0.0252698,0.414375,0.00141106,3.94485,-3.41838,4.1886,-1.68945,-1.90864,5.98799,0.618152,11.2642,-11.8959,15.4371,-23.8746,0.282878,3.0199,0.113356,0.490232,-0.375458,0.553085,-2.80928,0.798248,1.33023,-0.0284947,0.316491,-0.328667,0.311734,-0.527153,-0.0443333,0.633093,0.000383889,14.3289,1.34899,-20.7862,1.19402,1.87427,-1.49963,0.0259578,-1.49212,-14.8287,-6.13646,18.5562,-0.0296057,4.41186,0.185044,
0.494114,-0.38088,0.557823,-2.81524,0.797407,1.34125,-0.0283626,0.128697,-0.200454,0.162595,-0.217972,-0.0173682,0.410814,0.00195123,0.329963,-1.55462,-0.166697,2.87794,4.93852,-2.22519,0.337608,11.0695,-11.9318,15.2273,-23.384,0.499448,2.86848,0.111549,0.490232,-0.375458,0.553085,-2.80928,0.798248,1.33023,-0.0284947,0.316491,-0.328667,0.311734,-0.527153,-0.0443333,0.633093,0.000383889,0,0,0,0,0,0,0,-1.49212,-14.8287,-6.13646,18.5562,-0.0296057,4.41186,0.185044,
0.495063,-0.382531,0.558995,-2.81672,0.797839,1.34409,-0.0283171,0.12669,-0.201643,0.159376,-0.211216,-0.00308324,0.399732,0.00269772,-1.25409,-0.743035,-2.01168,4.22259,8.9281,-6.92655,0.466559,10.8662,-11.9579,15.0097,-22.8927,0.699727,2.72784,0.109487,0.490232,-0.375458,0.553085,-2.80928,0.798248,1.33023,-0.0284947,0.316491,-0.328667,0.311734,-0.527153,-0.0443333,0.633093,0.000383889,0,0,0,0,0,0,0,-1.49212,-14.8287,-6.13646,18.5562,-0.0296057,4.41186,0.185044,
0.495958,-0.384158,0.560102,-2.81813,0.798515,1.34669,-0.0282547,0.123719,-0.201996,0.155176,-0.204213,0.0144177,0.384666,0.00371937,-1.85712,-0.22061,-2.62536,4.37661,10.9381,-9.41631,0.638532,10.657,-11.9756,14.7871,-22.4008,0.880284,2.59654,0.107396,0.490232,-0.375458,0.553085,-2.80928,0.798248,1.33023,-0.0284947,0.316491,-0.328667,0.311734,-0.527153,-0.0443333,0.633093,0.000383889,0,0,0,0,0,0,0,-1.49212,-14.8287,-6.13646,18.5562,-0.0296057,4.41186,0.185044,
0.499431,-0.389938,0.571077,-2.83021,0.797633,1.35682,-0.0283612,0.128692,-0.206088,0.160554,-0.207578,0.0116876,0.391922,0.00485227,3.10816,-2.55772,3.36158,-2.1033,-1.70632,4.53538,0.70806,11.0367,-12.4106,15.3263,-23.2409,0.513565,2.80463,0.111874,0.496697,-0.386256,0.567794,-2.82607,0.797925,1.34954,-0.0285159,0.308961,-0.288485,0.283622,-0.501766,-0.00412015,0.58558,-0.000524978,-0.941256,5.02271,-3.51402,3.1734,5.02664,-5.93914,-0.113608,-0.452694,-15.4277,-6.68791,21.9205,-0.0479162,4.3258,0.171311,
0.500458,-0.39169,0.572329,-2.83171,0.797997,1.35979,-0.0282965,0.128626,-0.208671,0.159747,-0.203692,0.0184401,0.387746,0.00549925,-0.0414644,-1.6141,-0.504685,2.42898,4.22035,-2.61011,0.404364,10.8334,-12.4368,15.1087,-22.7496,0.713844,2.66398,0.109812,0.496697,-0.386256,0.567794,-2.82607,0.797925,1.34954,-0.0285159,0.308961,-0.288485,0.283622,-0.501766,-0.00412015,0.58558,-0.000524978,0,0,0,0,0,0,0,-0.452694,-15.4277,-6.68791,21.9205,-0.0479162,4.3258,0.171311,
0.501401,-0.393433,0.573474,-2.83309,0.798636,1.36246,-0.0282256,0.12646,-0.210508,0.156416,-0.197475,0.0307472,0.376968,0.0061725,-1.35348,-1.14799,-2.08181,3.88549,7.69189,-6.73626,0.42078,10.6242,-12.4545,14.8862,-22.2578,0.894401,2.53268,0.107721,0.496697,-0.386256,0.567794,-2.82607,0.797925,1.34954,-0.0285159,0.308961,-0.288485,0.283622,-0.501766,-0.00412015,0.58558,-0.000524978,0,0,0,0,0,0,0,-0.452694,-15.4277,-6.68791,21.9205,-0.0479162,4.3258,0.171311,
0.502296,-0.395162,0.574562,-2.83441,0.799483,1.3649,-0.0281439,0.123543,-0.211628,0.152331,-0.190853,0.0457571,0.362674,0.00698096,-1.82329,-0.700056,-2.55312,4.13917,9.38123,-8.93407,0.505288,10.4103,-12.465,14.6596,-21.7656,1.05683,2.40932,0.105479,0.496697,-0.386256,0.567794,-2.82607,0.797925,1.34954,-0.0285159,0.308961,-0.288485,0.283622,-0.501766,-0.00412015,0.58558,-0.000524978,0,0,0,0,0,0,0,-0.452694,-15.4277,-6.68791,21.9205,-0.0479162,4.3258,0.171311,
0.503161,-0.396868,0.575619,-2.83568,0.800486,1.36717,-0.0280522,0.120467,-0.211955,0.148288,-0.184537,0.0616928,0.346802,0.00787702,-1.92222,-0.204438,-2.52717,3.94736,9.95978,-9.91962,0.560034,10.2776,-12.9707,14.6002,-21.0017,1.20363,2.22199,0.103512,0.506214,-0.397768,0.579301,-2.84277,0.798153,1.36762,-0.028527,0.15682,-0.341475,0.504463,-0.484329,0.0311333,0.529295,0.00054433,-19.0177,-6.62378,27.6052,2.17956,4.40669,-7.03558,0.133663,1.17389,-14.8287,-4.03777,25.6061,-0.554203,4.90258,0.171311,
0.508635,-0.401603,0.582762,-2.84748,0.796704,1.37493,-0.0290208,0.122922,-0.215464,0.154734,-0.198273,0.0388719,0.362516,-0.000289934,1.53453,-2.19334,4.02897,-8.58503,-14.2631,9.82086,-5.10434,10.9172,-12.938,15.2779,-22.478,0.717486,2.59372,0.110121,0.506214,-0.397768,0.579301,-2.84277,0.798153,1.36762,-0.028527,0.15682,-0.341475,0.504463,-0.484329,0.0311333,0.529295,0.00054433,0,0,0,0,0,0,0,1.17389,-14.8287,-4.03777,25.6061,-0.554203,4.90258,0.171311,
0.509523,-0.403414,0.583948,-2.84918,0.796819,1.37795,-0.0292262,0.120541,-0.217647,0.15346,-0.201123,0.0339636,0.365439,-0.00536531,-1.48854,-1.36426,-0.7962,-1.78098,-3.06768,1.82694,-3.17211,10.708,-12.9557,15.0554,-21.9861,0.898043,2.46241,0.10803,0.506214,-0.397768,0.579301,-2.84277,0.798153,1.36762,-0.028527,0.15682,-0.341475,0.504463,-0.484329,0.0311333,0.529295,0.00054433,0,0,0,0,0,0,0,1.17389,-14.8287,-4.03777,25.6061,-0.554203,4.90258,0.171311,
0.510329,-0.405222,0.58501,-2.85071,0.797319,1.38067,-0.029365,0.116568,-0.219322,0.149312,-0.198986,0.0396793,0.360353,-0.00776204,-2.4828,-1.04677,-2.59241,1.33506,3.57232,-3.17881,-1.49796,10.4941,-12.9662,14.8288,-21.494,1.06047,2.33906,0.105788,0.506214,-0.397768,0.579301,-2.84277,0.798153,1.36762,-0.028527,0.15682,-0.341475,0.504463,-0.484329,0.0311333,0.529295,0.00054433,0,0,0,0,0,0,0,1.17389,-14.8287,-4.03777,25.6061,-0.554203,4.90258,0.171311,
0.511098,-0.407022,0.586013,-2.85212,0.798093,1.38315,-0.0294474,0.112491,-0.220456,0.144507,-0.194557,0.0510798,0.350368,-0.00827152,-2.54857,-0.708629,-3.00293,2.76856,7.12532,-6.24013,-0.318422,10.2052,-13.3963,14.6592,-20.9416,1.21353,2.17193,0.10372,0.516394,-0.409087,0.589294,-2.85912,0.7993,1.38491,-0.0285308,0.320313,-0.328367,0.26271,-0.480308,0.0738357,0.463131,8.99133e-05,20.4367,1.63855,-30.2191,0.50264,5.3378,-8.2706,-0.056802,0.412174,-14.2534,-5.08513,24.5349,-0.0900305,4.78997,0.205185,
0.519152,-0.413326,0.592457,-2.86293,0.7998,1.39074,-0.0283088,0.120136,-0.227135,0.151004,-0.195833,0.0502012,0.348551,-0.00430357,4.77828,-4.17467,4.06009,-0.797396,-0.549109,-1.13579,2.47997,10.6356,-13.3813,15.1144,-21.926,0.907945,2.41235,0.108237,0.516394,-0.409087,0.589294,-2.85912,0.7993,1.38491,-0.0285308,0.320313,-0.328367,0.26271,-0.480308,0.0738357,0.463131,8.99133e-05,0,0,0,0,0,0,0,0.412174,-14.2534,-5.08513,24.5349,-0.0900305,4.78997,0.205185,
0.520201,-0.415283,0.593691,-2.86429,0.800463,1.39321,-0.0282385,0.122329,-0.230631,0.151645,-0.190498,0.0567472,0.340512,-0.00168478,1.37059,-2.18509,0.40113,3.334,4.09124,-5.02467,1.63674,10.4217,-13.3918,14.8878,-21.4339,1.07037,2.28899,0.105996,0.516394,-0.409087,0.589294,-2.85912,0.7993,1.38491,-0.0285308,0.320313,-0.328367,0.26271,-0.480308,0.0738357,0.463131,8.99133e-05,0,0,0,0,0,0,0,0.412174,-14.2534,-5.08513,24.5349,-0.0900305,4.78997,0.205185,
0.521165,-0.417196,0.594828,-2.86552,0.801348,1.39548,-0.0281678,0.121957,-0.232336,0.149762,-0.183365,0.0675085,0.329146,0.000418446,-0.232441,-1.06575,-1.17732,4.45838,6.7258,-7.10324,1.31452,10.2052,-13.3963,14.6592,-20.9416,1.21353,2.17193,0.10372,0.516394,-0.409087,0.589294,-2.85912,0.7993,1.38491,-0.0285308,0.320313,-0.328367,0.26271,-0.480308,0.0738357,0.463131,8.99133e-05,0,0,0,0,0,0,0,0.412174,-14.2534,-5.08513,24.5349,-0.0900305,4.78997,0.205185,
0.522077,-0.41907,0.595914,-2.8667,0.802395,1.39759,-0.0280897,0.120378,-0.232721,0.146959,-0.176222,0.0801815,0.316165,0.00228957,-0.987103,-0.240179,-1.75155,4.46441,7.92062,-8.11342,1.16945,9.9472,-13.8518,14.53,-20.3528,1.34184,2.00388,0.101725,0.522999,-0.421073,0.602771,-2.87399,0.801005,1.39968,-0.0285521,0.285675,-0.307622,0.250052,-0.47591,0.0402558,0.466516,0.00053009,-4.32976,2.59313,-1.58226,0.549775,-4.19749,0.423147,0.0550221,0.868412,-14.428,-5.41045,20.4764,0.178219,4.37249,0.110886,
0.525426,-0.425229,0.605702,-2.87795,0.801743,1.40548,-0.0283829,0.123179,-0.236402,0.15044,-0.182653,0.0774845,0.32062,0.0030693,1.75067,-2.30109,2.17573,-4.01954,-1.6856,2.78409,0.487331,10.382,-13.8478,14.9884,-21.3372,1.07338,2.2323,0.106371,0.522999,-0.421073,0.602771,-2.87399,0.801005,1.39968,-0.0285521,0.285675,-0.307622,0.250052,-0.47591,0.0402558,0.466516,0.00053009,0,0,0,0,0,0,0,0.868412,-14.428,-5.41045,20.4764,0.178219,4.37249,0.110886,
0.526378,-0.427186,0.606862,-2.87934,0.802545,1.40792,-0.0283523,0.122353,-0.238035,0.149344,-0.180861,0.0820229,0.317425,0.00322193,-0.516244,-1.0204,-0.685416,1.12003,2.83645,-1.9964,0.0953939,10.1655,-13.8523,14.7598,-20.8449,1.21653,2.11523,0.104095,0.522999,-0.421073,0.602771,-2.87399,0.801005,1.39968,-0.0285521,0.285675,-0.307622,0.250052,-0.47591,0.0402558,0.466516,0.00053009,0,0,0,0,0,0,0,0.868412,-14.428,-5.41045,20.4764,0.178219,4.37249,0.110886,
0.527269,-0.429111,0.607945,-2.8806,0.803539,1.41015,-0.028316,0.120149,-0.238557,0.146546,-0.176083,0.0904884,0.309788,0.00348355,-1.37717,-0.326088,-1.74849,2.98642,5.29094,-4.7733,0.163515,9.9472,-13.8518,14.53,-20.3528,1.34184,2.00388,0.101725,0.522999,-0.421073,0.602771,-2.87399,0.801005,1.39968,-0.0285521,0.285675,-0.307622,0.250052,-0.47591,0.0402558,0.466516,0.00053009,0,0,0,0,0,0,0,0.868412,-14.428,-5.41045,20.4764,0.178219,4.37249,0.110886,
0.528125,-0.431004,0.608989,-2.88178,0.804673,1.41222,-0.0282676,0.117517,-0.238181,0.143348,-0.170449,0.100738,0.299636,0.00399814,-1.6454,0.234758,-1.99889,3.52084,6.40613,-6.34491,0.321617,9.76465,-14.3739,14.4315,-19.6102,1.44543,1.85052,0.0995826,0.531178,-0.43436,0.614117,-2.88915,0.803122,1.41401,-0.0285912,0.136418,-0.388076,0.46546,-0.412138,0.0924005,0.429257,0.00140069,-18.6571,-10.0568,26.9259,7.97149,6.51808,-4.65732,0.108825,1.04694,-11.4089,-4.11315,21.8213,0.00701543,4.57757,0.14476,
0.533403,-0.438588,0.617351,-2.89326,0.802838,1.42028,-0.0293153,0.118525,-0.241027,0.148603,-0.181289,0.0825907,0.313495,-0.00531385,0.630459,-1.77851,3.28466,-6.77513,-11.3422,8.66201,-5.81999,10.2016,-14.379,14.8912,-20.5942,1.21228,2.06919,0.104359,0.531178,-0.43436,0.614117,-2.88915,0.803122,1.41401,-0.0285912,0.136418,-0.388076,0.46546,-0.412138,0.0924005,0.429257,0.00140069,0,0,0,0,0,0,0,1.04694,-11.4089,-4.11315,21.8213,0.00701543,4.57757,0.14476,
