xiao-wang007/linearmpc_panda/paper_data/panda_inverse_dynamics_controller_opt_time_to_start_low_pass_acceleration/0/trajectory.csv
Commanded Joint 0 Position,Commanded Joint 1 Position,Commanded Joint 2 Position,Commanded Joint 3 Position,Commanded Joint 4 Position,Commanded Joint 5 Position,Commanded Joint 6 Position,Commanded Joint 0 Velocity,Commanded Joint 1 Velocity,Commanded Joint 2 Velocity,Commanded Joint 3 Velocity,Commanded Joint 4 Velocity,Commanded Joint 5 Velocity,Commanded Joint 6 Velocity,Commanded Joint 0 Acceleration,Commanded Joint 1 Acceleration,Commanded Joint 2 Acceleration,Commanded Joint 3 Acceleration,Commanded Joint 4 Acceleration,Commanded Joint 5 Acceleration,Commanded Joint 6 Acceleration,Commanded Joint 0 Torque,Commanded Joint 1 Torque,Commanded Joint 2 Torque,Commanded Joint 3 Torque,Commanded Joint 4 Torque,Commanded Joint 5 Torque,Commanded Joint 6 Torque,Actual Joint 0 Position,Actual Joint 1 Position,Actual Joint 2 Position,Actual Joint 3 Position,Actual Joint 4 Position,Actual Joint 5 Position,Actual Joint 6 Position,Actual Joint 0 Velocity,Actual Joint 1 Velocity,Actual Joint 2 Velocity,Actual Joint 3 Velocity,Actual Joint 4 Velocity,Actual Joint 5 Velocity,Actual Joint 6 Velocity,Actual Joint 0 Acceleration,Actual Joint 1 Acceleration,Actual Joint 2 Acceleration,Actual Joint 3 Acceleration,Actual Joint 4 Acceleration,Actual Joint 5 Acceleration,Actual Joint 6 Acceleration,Actual Joint 0 Torque,Actual Joint 1 Torque,Actual Joint 2 Torque,Actual Joint 3 Torque,Actual Joint 4 Torque,Actual Joint 5 Torque,Actual Joint 6 Torque,
0.0469676,-0.0486373,-0.046379,-1.80257,-0.00672502,0.226544,-0.0186708,0.000131415,0.0204771,5.03691e-05,-0.033536,-0.00445305,0.0526365,-0.000373634,0.0821341,12.7982,0.0314807,-20.96,-2.78316,32.8978,-0.233522,0.0572005,22.9513,0.0337173,-24.3613,-0.581049,1.89799,-0.0243515,0.0469595,-0.0495057,-0.046384,-1.79961,-0.00640462,0.220884,-0.0186187,-0.000133197,-0.000497171,0.00099713,-0.00221582,-0.00581405,0.000408192,-0.000995714,0,0,0,0,0,0,0,0.0828892,-33.947,0.139784,27.5262,0.837399,3.0468,-0.0429228,
0.0469613,-0.0494978,-0.0463818,-1.79962,-0.00645886,0.22087,-0.0186196,0.000103094,0.0164598,4.00995e-05,-0.0268731,-0.0038109,0.0420316,-0.000301879,-0.0177003,-2.51082,-0.00641853,4.1643,0.401347,-6.62805,0.0448472,0.0514308,23.3919,0.023336,-24.2777,-0.581321,1.64708,-0.0228362,0.0469595,-0.0495057,-0.046384,-1.79961,-0.00640462,0.220884,-0.0186187,-0.000133197,-0.000497171,0.00099713,-0.00221582,-0.00581405,0.000408192,-0.000995714,0,0,0,0,0,0,0,0.0828892,-33.947,0.139784,27.5262,0.837399,3.0468,-0.0429228,
0.046961,-0.0494948,-0.0463821,-1.79962,-0.006465,0.220869,-0.0186197,7.50401e-05,0.013243,2.58699e-05,-0.0215311,-0.00320221,0.0335908,-0.000243348,-0.0175338,-2.01051,-0.00889351,3.33875,0.380426,-5.2755,0.036582,0.0441988,23.9635,0.0115747,-24.1697,-0.580786,1.29951,-0.0208679,0.0469595,-0.0495057,-0.046384,-1.79961,-0.00640462,0.220884,-0.0186187,-0.000133197,-0.000497171,0.00099713,-0.00221582,-0.00581405,0.000408192,-0.000995714,0,0,0,0,0,0,0,0.0828892,-33.947,0.139784,27.5262,0.837399,3.0468,-0.0429228,
0.0469606,-0.0494919,-0.0463824,-1.79963,-0.00646891,0.220869,-0.0186197,5.08305e-05,0.010665,1.23942e-05,-0.0172496,-0.0026595,0.0268717,-0.000195911,-0.015131,-1.61121,-0.00842232,2.67593,0.339194,-4.19943,0.0296478,0.0382182,24.4891,0.00212605,-24.0016,-0.578739,0.914867,-0.01887,0.0469633,-0.0494489,-0.0463863,-1.79968,-0.00640093,0.220882,-0.0186175,0.00104259,0.0045003,0.00268325,-0.00367856,-0.0157513,0.00415531,6.01641e-05,0.146973,0.624683,0.210766,-0.182843,-1.24215,0.468389,0.131985,0.0313145,-33.9232,0.187391,27.5024,0.831906,3.06603,-0.0630644,
0.0466936,-0.0493423,-0.046647,-1.7996,0.00203754,0.216965,-0.0186491,-0.000970828,0.00870787,-0.00101688,-0.0137015,0.0518814,-0.00426285,-0.000185584,-0.638536,-1.22322,-0.643295,2.21757,34.088,-19.4591,0.00645453,0.465015,0.159525,0.463608,-0.249807,3.21667,-1.58641,-0.00126448,0.0469633,-0.0494489,-0.0463863,-1.79968,-0.00640093,0.220882,-0.0186175,0.00104259,0.0045003,0.00268325,-0.00367856,-0.0157513,0.00415531,6.01641e-05,0,0,0,0,0,0,0,0.0313145,-33.9232,0.187391,27.5024,0.831906,3.06603,-0.0630644,
0.046666,-0.0493371,-0.0466753,-1.7996,0.00426477,0.215887,-0.0186497,-0.00146632,0.00709527,-0.00152143,-0.0109963,0.0971857,-0.0303487,-0.000163243,-0.309682,-1.00788,-0.315344,1.69075,28.3152,-16.3037,0.0139628,0.460107,0.15831,0.458678,-0.247211,3.18788,-1.57188,-0.00124118,0.0469633,-0.0494489,-0.0463863,-1.79968,-0.00640093,0.220882,-0.0186175,0.00104259,0.0045003,0.00268325,-0.00367856,-0.0157513,0.00415531,6.01641e-05,0,0,0,0,0,0,0,0.0313145,-33.9232,0.187391,27.5024,0.831906,3.06603,-0.0630644,
0.0466501,-0.0493325,-0.0466919,-1.7996,0.00652775,0.214781,-0.01865,-0.00156845,0.00579165,-0.00163028,-0.00893632,0.134323,-0.0519357,-0.000139098,-0.0638312,-0.814765,-0.0680301,1.28748,23.2109,-13.4919,0.0150909,0.455197,0.15705,0.453745,-0.244622,3.15901,-1.55738,-0.00121753,0.0469633,-0.0494489,-0.0463863,-1.79968,-0.00640093,0.220882,-0.0186175,0.00104259,0.0045003,0.00268325,-0.00367856,-0.0157513,0.00415531,6.01641e-05,0,0,0,0,0,0,0,0.0313145,-33.9232,0.187391,27.5024,0.831906,3.06603,-0.0630644,
0.0466446,-0.0493276,-0.0466981,-1.79961,0.0088068,0.213659,-0.0186502,-0.00139447,0.00475435,-0.00145953,-0.00736864,0.164435,-0.0696035,-0.000117603,0.108737,-0.648309,0.106716,0.979802,18.8198,-11.0423,0.0134342,0.450455,0.176781,0.449226,-0.237144,3.13054,-1.5371,-0.0012167,0.0469494,-0.0488553,-0.0463964,-1.80014,-0.00639563,0.22105,-0.0186164,-0.00189832,0.0574355,0.00215886,-0.0357847,-0.019324,0.0187649,-3.57542e-05,-0.367614,6.61691,-0.0655494,-4.01327,-0.446594,1.8262,-0.0119898,0.182071,-25.7863,0.238966,19.7305,0.758663,1.63415,-0.0630644,
0.0463659,-0.0476117,-0.0469362,-1.79998,0.0222976,0.19852,-0.0187099,-0.00201091,0.00697066,-0.0019764,-0.0069277,0.314038,-0.201331,-9.6402e-05,-0.385277,1.38519,-0.323042,0.275585,93.5022,-82.33,0.0132509,3.73434,1.55295,3.78854,-1.78767,11.0092,-9.01604,-0.00375945,0.0469494,-0.0488553,-0.0463964,-1.80014,-0.00639563,0.22105,-0.0186164,-0.00189832,0.0574355,0.00215886,-0.0357847,-0.019324,0.0187649,-3.57542e-05,0,0,0,0,0,0,0,0.182071,-25.7863,0.238966,19.7305,0.758663,1.63415,-0.0630644,
0.0463833,-0.047502,-0.0469161,-1.80005,0.0297692,0.192476,-0.0187105,-0.00117379,0.00831907,-0.0010786,-0.00731063,0.43802,-0.312169,-9.34462e-05,0.523201,0.84276,0.561124,-0.23933,77.4885,-69.2734,0.0018474,3.62802,1.5297,3.68071,-1.75632,11.0092,-8.88125,-0.00429175,0.0469494,-0.0488553,-0.0463964,-1.80014,-0.00639563,0.22105,-0.0186164,-0.00189832,0.0574355,0.00215886,-0.0357847,-0.019324,0.0187649,-3.57542e-05,0,0,0,0,0,0,0,0.182071,-25.7863,0.238966,19.7305,0.758663,1.63415,-0.0630644,
0.0464484,-0.0473991,-0.0468485,-1.80014,0.0372861,0.186318,-0.0187108,0.000689647,0.00922752,0.000827064,-0.00815883,0.538337,-0.403688,-8.07308e-05,1.16465,0.567777,1.19104,-0.530127,62.6983,-57.1996,0.00794713,3.53169,1.5067,3.58061,-1.72401,11.0092,-8.7532,-0.00448032,0.0469494,-0.0488553,-0.0463964,-1.80014,-0.00639563,0.22105,-0.0186164,-0.00189832,0.0574355,0.00215886,-0.0357847,-0.019324,0.0187649,-3.57542e-05,0,0,0,0,0,0,0,0.182071,-25.7863,0.238966,19.7305,0.758663,1.63415,-0.0630644,
0.0465545,-0.0472977,-0.0467398,-1.80025,0.0447663,0.180119,-0.018711,0.00320472,0.00991703,0.00337953,-0.00924385,0.617676,-0.477923,-6.95994e-05,1.57192,0.430945,1.59529,-0.678136,49.5868,-46.397,0.00695707,3.44858,1.48857,3.48899,-1.68777,10.8363,-8.62807,-0.00223616,0.0470004,-0.0485762,-0.0462876,-1.80116,-0.00616105,0.220972,-0.0186164,0.0023524,0.0106777,0.0109684,-0.0416453,0.0273605,-0.012237,0.00118365,0.53134,-5.84473,1.10119,-0.732571,5.83556,-3.87524,0.152426,1.1977,-35.4427,1.28633,27.7246,1.28967,3.19237,-0.0630644,
0.0498397,-0.0499267,-0.0433191,-1.80296,0.0200612,0.185539,-0.0181762,0.0217948,-0.00302177,0.022578,-0.0223231,0.672116,-0.616521,0.000403265,11.6188,-8.08675,11.999,-8.17454,34.0252,-86.6233,0.295541,21.9425,1.07218,22.5972,-8.45761,11.0086,-14.305,0.173613,0.0470004,-0.0485762,-0.0462876,-1.80116,-0.00616105,0.220972,-0.0186164,0.0023524,0.0106777,0.0109684,-0.0416453,0.0273605,-0.012237,0.00118365,0,0,0,0,0,0,0,1.1977,-35.4427,1.28633,27.7246,1.28967,3.19237,-0.0630644,
0.0506605,-0.0503493,-0.0424714,-1.80364,0.02762,0.175995,-0.0181627,0.037958,-0.0129837,0.0392547,-0.0349345,0.726664,-0.731817,0.000660041,10.102,-6.22621,10.4229,-7.88208,34.0923,-72.0601,0.160485,20.3736,-3.18781,20.7097,-10.4915,11.0086,-14.305,0.226691,0.0470004,-0.0485762,-0.0462876,-1.80116,-0.00616105,0.220972,-0.0186164,0.0023524,0.0106777,0.0109684,-0.0416453,0.0273605,-0.012237,0.00118365,0,0,0,0,0,0,0,1.1977,-35.4427,1.28633,27.7246,1.28967,3.19237,-0.0630644,
0.0515204,-0.0507381,-0.0415843,-1.8044,0.0354874,0.166612,-0.0181504,0.0518631,-0.0201081,0.0535801,-0.0468835,0.778016,-0.820028,0.000835162,8.69068,-4.45273,8.9534,-7.46814,32.095,-55.1319,0.109451,17.6268,-4.82577,17.9168,-11.543,11.0086,-14.305,0.109985,0.0470004,-0.0485762,-0.0462876,-1.80116,-0.00616105,0.220972,-0.0186164,0.0023524,0.0106777,0.0109684,-0.0416453,0.0273605,-0.012237,0.00118365,0,0,0,0,0,0,0,1.1977,-35.4427,1.28633,27.7246,1.28967,3.19237,-0.0630644,
0.0524084,-0.0510849,-0.040669,-1.80521,0.043571,0.157593,-0.0181384,0.0636901,-0.0247561,0.0657467,-0.0578352,0.824503,-0.881485,0.000967113,7.39187,-2.90501,7.60409,-6.8448,29.0545,-38.411,0.0824693,15.8457,-4.27427,16.1822,-11.3118,10.9741,-14.276,0.0447809,0.04734,-0.0480198,-0.045496,-1.8023,0.000119838,0.216107,-0.0186121,0.0274196,0.006039,0.0466064,-0.0758539,0.414015,-0.374925,-0.000183182,3.13341,-0.579838,4.45476,-4.27608,48.3318,-45.336,-0.170855,6.82727,-30.1265,6.98732,21.0001,2.28485,0.466849,-0.0163725,
0.052295,-0.0476147,-0.0403703,-1.8069,0.0396069,0.168512,-0.018519,0.0770448,-0.0169836,0.0794424,-0.072652,0.855075,-0.919005,0.00107905,8.34671,4.85781,8.55984,-9.26056,19.1072,-23.45,0.0699586,20.7652,4.59462,21.2175,-15.1098,10.9741,-14.276,0.0298498,0.04734,-0.0480198,-0.045496,-1.8023,0.000119838,0.216107,-0.0186121,0.0274196,0.006039,0.0466064,-0.0758539,0.414015,-0.374925,-0.000183182,0,0,0,0,0,0,0,6.82727,-30.1265,6.98732,21.0001,2.28485,0.466849,-0.0163725,
0.0533754,-0.047463,-0.0392594,-1.80802,0.0476475,0.160427,-0.0185062,0.088647,-0.00979404,0.0913244,-0.0862483,0.885075,-0.937339,0.0011843,7.25136,4.49348,7.42623,-8.49763,18.75,-11.4586,0.0657851,19.6263,4.39278,20.0706,-14.7893,10.9741,-14.276,0.0208976,0.04734,-0.0480198,-0.045496,-1.8023,0.000119838,0.216107,-0.0186121,0.0274196,0.006039,0.0466064,-0.0758539,0.414015,-0.374925,-0.000183182,0,0,0,0,0,0,0,6.82727,-30.1265,6.98732,21.0001,2.28485,0.466849,-0.0163725,
0.0544794,-0.0472743,-0.038125,-1.8092,0.0558487,0.152904,-0.0184915,0.0985177,-0.00311624,0.101422,-0.0982591,0.913089,-0.937942,0.00131316,6.16921,4.17363,6.31078,-7.50675,17.5087,-0.376593,0.0805332,18.6427,4.10065,19.0778,-14.5407,10.9741,-14.276,0.01396,0.04734,-0.0480198,-0.045496,-1.8023,0.000119838,0.216107,-0.0186121,0.0274196,0.006039,0.0466064,-0.0758539,0.414015,-0.374925,-0.000183182,0,0,0,0,0,0,0,6.82727,-30.1265,6.98732,21.0001,2.28485,0.466849,-0.0163725,
0.055825,-0.0497291,-0.0357428,-1.81323,0.0648382,0.144798,-0.0186297,0.115733,-0.00483399,0.118617,-0.120472,0.935896,-0.981544,0.00079527,10.7598,-1.0736,10.7474,-13.883,14.2545,-27.2514,-0.323679,23.8792,3.53901,24.1805,-22.3786,10.8651,-14.1147,-0.00152098,0.048931,-0.0488051,-0.0427356,-1.8059,0.0258425,0.191841,-0.0186062,0.0949202,-0.0660399,0.164568,-0.177599,0.890979,-0.968358,-0.000849658,8.43757,-9.00986,14.7452,-12.7181,59.6205,-74.1791,-0.0833095,21.4348,-31.0509,21.337,19.7028,5.00305,-1.36329,-0.0301054,
0.0573123,-0.049788,-0.0342325,-1.81498,0.07318,0.136191,-0.0186375,0.129769,-0.00533975,0.132652,-0.140147,0.957262,-1.0004,0.000442826,8.77251,-0.316099,8.77164,-12.2969,13.3539,-11.7858,-0.220277,22.6229,2.74082,22.9239,-22.1364,10.8651,-14.1147,-0.0129839,0.048931,-0.0488051,-0.0427356,-1.8059,0.0258425,0.191841,-0.0186062,0.0949202,-0.0660399,0.164568,-0.177599,0.890979,-0.968358,-0.000849658,0,0,0,0,0,0,0,21.4348,-31.0509,21.337,19.7028,5.00305,-1.36329,-0.0301054,
0.0587999,-0.0498154,-0.0327217,-1.81678,0.0816097,0.128315,-0.0186417,0.141005,-0.00495772,0.143893,-0.157029,0.976552,-0.997237,0.00024876,7.02222,0.238766,7.02556,-10.5512,12.0559,1.97769,-0.121291,21.5789,2.01234,21.8759,-21.914,10.8651,-14.1147,-0.017824,0.048931,-0.0488051,-0.0427356,-1.8059,0.0258425,0.191841,-0.0186062,0.0949202,-0.0660399,0.164568,-0.177599,0.890979,-0.968358,-0.000849658,0,0,0,0,0,0,0,21.4348,-31.0509,21.337,19.7028,5.00305,-1.36329,-0.0301054,
0.0602799,-0.0498169,-0.0312182,-1.81859,0.0900979,0.121203,-0.0186421,0.149806,-0.00400261,0.152702,-0.171074,0.993448,-0.975584,0.000187628,5.50039,0.596943,5.50534,-8.77839,10.56,13.533,-0.0382075,20.6906,1.39293,20.9831,-21.6887,10.8651,-12.5568,-0.018018,0.048931,-0.0488051,-0.0427356,-1.8059,0.0258425,0.191841,-0.0186062,0.0949202,-0.0660399,0.164568,-0.177599,0.890979,-0.968358,-0.000849658,0,0,0,0,0,0,0,21.4348,-31.0509,21.337,19.7028,5.00305,-1.36329,-0.0301054,
0.0557781,-0.0498317,-0.0357016,-1.81566,0.0650539,0.154377,-0.0187629,0.156781,-0.00398879,0.160051,-0.19168,1.00066,-0.937475,-0.000490865,4.35931,0.00864126,4.59356,-12.8786,4.50635,23.8181,-0.424058,23.5254,4.58711,24.0939,-28.1839,10.7667,-12.7731,-0.05544,0.0539743,-0.0503529,-0.0356224,-1.81449,0.0629227,0.150825,-0.0186098,0.180608,-0.00586661,0.243322,-0.296121,1.16436,-1.20621,-0.000703245,10.711,7.52166,9.84433,-14.8153,34.1728,-29.732,0.0183017,16.44,-28.7816,16.2866,25.0348,4.72839,0.474173,-0.0365141,
0.0572696,-0.0498001,-0.0341717,-1.8179,0.073404,0.148882,-0.018783,0.162711,-0.00240262,0.166287,-0.209181,1.00928,-0.887346,-0.000896578,3.70684,0.991353,3.89745,-10.9384,5.38835,31.3308,-0.25357,22.4378,3.80771,22.989,-27.9085,10.7667,-10.756,-0.0551721,0.0539743,-0.0503529,-0.0356224,-1.81449,0.0629227,0.150825,-0.0186098,0.180608,-0.00586661,0.243322,-0.296121,1.16436,-1.20621,-0.000703245,0,0,0,0,0,0,0,16.44,-28.7816,16.2866,25.0348,4.72839,0.474173,-0.0365141,
0.058764,-0.0497179,-0.0326389,-1.82015,0.0818355,0.144164,-0.0187962,0.167529,0.000133462,0.171349,-0.223555,1.01821,-0.82783,-0.00104621,3.01106,1.58505,3.1635,-8.98376,5.58211,37.1973,-0.093521,21.5049,3.18234,22.0396,-27.626,10.7667,-8.97948,-0.0500442,0.0539743,-0.0503529,-0.0356224,-1.81449,0.0629227,0.150825,-0.0186098,0.180608,-0.00586661,0.243322,-0.296121,1.16436,-1.20621,-0.000703245,0,0,0,0,0,0,0,16.44,-28.7816,16.2866,25.0348,4.72839,0.474173,-0.0365141,
0.0602529,-0.0495961,-0.0311118,-1.82239,0.0903223,0.140191,-0.0188026,0.171247,0.00315353,0.175259,-0.23496,1.02674,-0.76159,-0.000996447,2.32375,1.88754,2.44362,-7.12777,5.32988,41.4001,0.0311024,20.6899,2.70726,21.2092,-27.3295,10.7667,-7.4093,-0.0440751,0.0539743,-0.0503529,-0.0356224,-1.81449,0.0629227,0.150825,-0.0186098,0.180608,-0.00586661,0.243322,-0.296121,1.16436,-1.20621,-0.000703245,0,0,0,0,0,0,0,16.44,-28.7816,16.2866,25.0348,4.72839,0.474173,-0.0365141,
0.062749,-0.050007,-0.0266925,-1.82804,0.107068,0.111574,-0.0188175,0.180278,0.00573473,0.184262,-0.258122,1.03961,-0.765305,-0.00157824,5.64399,1.61325,5.62691,-14.4764,8.0436,-2.3217,-0.363621,23.3932,4.13674,23.8012,-34.1623,10.7667,-11.4858,-0.0670156,0.0539743,-0.0503529,-0.0356224,-1.81449,0.0629227,0.150825,-0.0186098,0.180608,-0.00586661,0.243322,-0.296121,1.16436,-1.20621,-0.000703245,0,0,0,0,0,0,0,16.44,-28.7816,16.2866,25.0348,4.72839,0.474173,-0.0365141,
0.0644514,-0.0498623,-0.0249593,-1.83083,0.115771,0.106152,-0.0188397,0.186783,0.00820562,0.190739,-0.276444,1.04924,-0.747813,-0.00181677,4.06581,1.5443,4.04849,-11.4515,6.0218,10.9324,-0.149081,22.5881,2.93426,23.0072,-33.4541,10.7442,-9.37452,-0.067328,0.0611796,-0.051263,-0.0244733,-1.82627,0.0991557,0.111603,-0.0186042,0.227882,-0.0205945,0.360319,-0.365562,0.979632,-1.06734,-0.000309376,5.90918,-1.84099,14.6246,-8.68015,-23.0911,17.3589,0.0492336,1.95942,-34.2723,2.08772,32.3068,2.62725,2.79412,-0.0767973,
0.0661216,-0.0497076,-0.0232588,-1.83361,0.124446,0.101501,-0.0188524,0.19118,0.0104322,0.195103,-0.290478,1.05627,-0.714505,-0.00177159,2.74849,1.3916,2.72762,-8.7711,4.39484,20.8171,0.0282346,21.7251,2.23157,22.1288,-33.117,10.7442,-7.83507,-0.059201,0.0611796,-0.051263,-0.0244733,-1.82627,0.0991557,0.111603,-0.0186042,0.227882,-0.0205945,0.360319,-0.365562,0.979632,-1.06734,-0.000309376,0,0,0,0,0,0,0,1.95942,-34.2723,2.08772,32.3068,2.62725,2.79412,-0.0767973,
0.062749,-0.050007,-0.0266925,-1.82804,0.107068,0.111574,-0.0188175,0.196224,0.0115577,0.200137,-0.302537,1.06324,-0.727637,-0.00219836,3.15233,0.703421,3.14631,-7.53659,4.35155,-8.20726,-0.266728,20.3185,1.3374,20.6944,-32.3453,10.7442,-5.31523,-0.03882,0.0611796,-0.051263,-0.0244733,-1.82627,0.0991557,0.111603,-0.0186042,0.227882,-0.0205945,0.360319,-0.365562,0.979632,-1.06734,-0.000309376,0,0,0,0,0,0,0,1.95942,-34.2723,2.08772,32.3068,2.62725,2.79412,-0.0767973,
0.072411,-0.0507026,-0.0130096,-1.84298,0.151547,0.0823739,-0.0186904,0.198544,0.0129251,0.202463,-0.308635,1.07002,-0.653346,-0.00150648,1.4498,0.854658,1.45318,-3.81123,4.23671,46.4322,0.432425,19.7243,1.07368,20.087,-31.9259,10.7442,-4.29217,-0.0261989,0.0611796,-0.051263,-0.0244733,-1.82627,0.0991557,0.111603,-0.0186042,0.227882,-0.0205945,0.360319,-0.365562,0.979632,-1.06734,-0.000309376,0,0,0,0,0,0,0,1.95942,-34.2723,2.08772,32.3068,2.62725,2.79412,-0.0767973,
0.0740127,-0.0505563,-0.0113772,-1.84559,0.16027,0.0801109,-0.0186728,0.198878,0.0139981,0.20278,-0.312084,1.07407,-0.579252,-0.000764846,0.209075,0.670596,0.198677,-2.15554,2.53612,46.3082,0.463521,19.127,0.255648,19.5013,-31.0513,10.5968,-3.26448,-0.0159613,0.0683486,-0.0507608,-0.0122955,-1.83741,0.126483,0.0837539,-0.0186057,0.206413,0.0055822,0.35561,-0.296823,0.694936,-0.561177,-0.00112896,-2.68355,3.27209,-0.588672,8.59243,-35.5869,63.2706,-0.102449,-5.70141,-33.5463,-6.16026,30.6128,1.91864,3.66936,-0.0301054,
0.0755589,-0.0504143,-0.00980115,-1.84814,0.168935,0.0783651,-0.0186474,0.197757,0.0147488,0.201625,-0.313429,1.07588,-0.507047,2.18292e-05,-0.700854,0.469188,-0.722167,-0.841104,1.13196,45.1285,0.491672,18.5938,0.137822,18.9519,-30.6118,10.5968,-2.50012,-0.00186741,0.0683486,-0.0507608,-0.0122955,-1.83741,0.126483,0.0837539,-0.0186057,0.206413,0.0055822,0.35561,-0.296823,0.694936,-0.561177,-0.00112896,0,0,0,0,0,0,0,-5.70141,-33.5463,-6.16026,30.6128,1.91864,3.66936,-0.0301054,
0.0768672,-0.0504665,-0.00357131,-1.85019,0.166051,0.0724232,-0.0185566,0.196041,0.0141074,0.199913,-0.312629,1.07153,-0.436406,0.000856465,-1.07222,-0.400861,-1.06971,0.499912,-2.72066,44.1507,0.521648,18.0483,0.0534982,18.3904,-30.1865,10.5968,-1.84658,0.00920458,0.0683486,-0.0507608,-0.0122955,-1.83741,0.126483,0.0837539,-0.0186057,0.206413,0.0055822,0.35561,-0.296823,0.694936,-0.561177,-0.00112896,0,0,0,0,0,0,0,-5.70141,-33.5463,-6.16026,30.6128,1.91864,3.66936,-0.0301054,
0.0783205,-0.0503712,-0.00208859,-1.85262,0.174523,0.0715902,-0.0185157,0.193166,0.0136708,0.196999,-0.31077,1.06901,-0.36995,0.00170633,-1.79693,-0.272865,-1.82158,1.16202,-1.57309,41.5348,0.531167,17.521,0.0319379,17.8551,-29.7444,10.5968,-1.28448,0.0177966,0.0683486,-0.0507608,-0.0122955,-1.83741,0.126483,0.0837539,-0.0186057,0.206413,0.0055822,0.35561,-0.296823,0.694936,-0.561177,-0.00112896,0,0,0,0,0,0,0,-5.70141,-33.5463,-6.16026,30.6128,1.91864,3.66936,-0.0301054,
0.0797203,-0.0502752,-0.000662402,-1.855,0.183001,0.0711091,-0.0184691,0.189529,0.0133355,0.193254,-0.308076,1.06716,-0.307987,0.00252962,-2.27316,-0.209588,-2.34071,1.68361,-1.15916,38.7272,0.514555,17.002,-0.14943,17.3455,-29.1735,10.4954,-0.725968,0.0262505,0.0746388,-0.0484988,-0.00059956,-1.84935,0.144967,0.069851,-0.0185812,0.13918,0.00991902,0.295179,-0.404573,0.494015,-0.366985,-0.00314507,-8.40419,0.542103,-7.5538,-13.4687,-25.1152,24.274,-0.252013,-8.38726,-36.3194,-8.43749,29.4702,0.0198328,3.18596,-0.0566557,
0.081069,-0.0501794,0.000711488,-1.85733,0.191468,0.0709392,-0.0184219,0.185341,0.0130636,0.18895,-0.304732,1.06541,-0.250638,0.00320449,-2.61768,-0.169905,-2.68969,2.09056,-1.0924,35.8426,0.421794,16.5391,-0.128964,16.8723,-28.729,10.4954,-0.299148,0.0359376,0.0746388,-0.0484988,-0.00059956,-1.84935,0.144967,0.069851,-0.0185812,0.13918,0.00991902,0.295179,-0.404573,0.494015,-0.366985,-0.00314507,0,0,0,0,0,0,0,-8.38726,-36.3194,-8.43749,29.4702,0.0198328,3.18596,-0.0566557,
0.0813965,-0.0472196,0.0063375,-1.86238,0.179984,0.0635671,-0.0183845,0.17896,0.0163037,0.182556,-0.304004,1.04944,-0.207552,0.00373841,-3.98802,2.02504,-3.99619,0.454432,-9.98339,26.9291,0.3337,16.083,-0.10139,16.4051,-28.2957,10.4954,0.0848287,0.0490217,0.0746388,-0.0484988,-0.00059956,-1.84935,0.144967,0.069851,-0.0185812,0.13918,0.00991902,0.295179,-0.404573,0.494015,-0.366985,-0.00314507,0,0,0,0,0,0,0,-8.38726,-36.3194,-8.43749,29.4702,0.0198328,3.18596,-0.0566557,
0.0825859,-0.0470019,0.0075557,-1.86471,0.188013,0.0636306,-0.0183367,0.172904,0.0184847,0.1765,-0.301515,1.04026,-0.164453,0.00418497,-3.78503,1.36312,-3.78512,1.55562,-5.73486,26.9367,0.279097,15.5739,-0.0656246,15.8812,-27.8815,10.4954,0.414414,0.0571061,0.0746388,-0.0484988,-0.00059956,-1.84935,0.144967,0.069851,-0.0185812,0.13918,0.00991902,0.295179,-0.404573,0.494015,-0.366985,-0.00314507,0,0,0,0,0,0,0,-8.38726,-36.3194,-8.43749,29.4702,0.0198328,3.18596,-0.0566557,
0.0837597,-0.0468012,0.00875623,-1.86696,0.195851,0.0639876,-0.0182861,0.167668,0.0198062,0.171213,-0.297516,1.02816,-0.122638,0.00461151,-3.27244,0.825945,-3.30432,2.49974,-7.56519,26.1345,0.266588,15.0395,-0.0822011,15.3285,-27.4131,10.3552,0.831565,0.06228,0.0798972,-0.0467126,0.00936904,-1.86283,0.171542,0.0606105,-0.0185792,0.143829,0.00600142,0.25893,-0.328463,0.929944,-0.212839,-0.000675214,0.581188,-0.489701,-4.53112,9.51371,54.4912,19.2683,0.308732,-2.91241,-40.2351,-3.08562,28.645,0.502316,4.02093,-0.00996382,
0.0865787,-0.0459704,0.0162096,-1.87428,0.209838,0.0600433,-0.0183476,0.165575,0.0195065,0.169039,-0.290936,0.993384,-0.0822311,0.00494349,-1.3082,-0.187312,-1.3588,4.11256,-21.7342,25.2543,0.207487,13.975,0.168104,14.2833,-26.5569,10.3552,1.31862,0.0619998,0.0798972,-0.0467126,0.00936904,-1.86283,0.171542,0.0606105,-0.0185792,0.143829,0.00600142,0.25893,-0.328463,0.929944,-0.212839,-0.000675214,0,0,0,0,0,0,0,-2.91241,-40.2351,-3.08562,28.645,0.502316,4.02093,-0.00996382,
0.0878176,-0.0458397,0.0174725,-1.87632,0.215958,0.0609222,-0.0182971,0.163432,0.018875,0.166805,-0.283952,0.947708,-0.0438131,0.00521597,-1.33947,-0.394659,-1.3965,4.36482,-28.5475,24.0113,0.1703,13.529,0.336217,13.8492,-26.0844,10.3552,1.5189,0.0624492,0.0798972,-0.0467126,0.00936904,-1.86283,0.171542,0.0606105,-0.0185792,0.143829,0.00600142,0.25893,-0.328463,0.929944,-0.212839,-0.000675214,0,0,0,0,0,0,0,-2.91241,-40.2351,-3.08562,28.645,0.502316,4.02093,-0.00996382,
0.0890381,-0.0457257,0.0187164,-1.87831,0.221358,0.0620032,-0.0182465,0.161258,0.0179487,0.164539,-0.276851,0.893169,-0.00802488,0.00543853,-1.35873,-0.578962,-1.41585,4.43804,-34.0867,22.3676,0.139103,13.145,0.480167,13.4656,-25.6065,9.37967,1.70438,0.0632833,0.0798972,-0.0467126,0.00936904,-1.86283,0.171542,0.0606105,-0.0185792,0.143829,0.00600142,0.25893,-0.328463,0.929944,-0.212839,-0.000675214,0,0,0,0,0,0,0,-2.91241,-40.2351,-3.08562,28.645,0.502316,4.02093,-0.00996382,
0.0902398,-0.0456282,0.0199409,-1.88024,0.226061,0.0632527,-0.0181948,0.15905,0.0167956,0.162244,-0.26982,0.832106,0.0248172,0.00564333,-1.38025,-0.720671,-1.43475,4.39471,-38.1646,20.5263,0.128,12.7976,0.417107,13.1267,-25.0949,7.89538,1.86532,0.0631784,0.0835899,-0.0456273,0.0167847,-1.87048,0.200134,0.0598207,-0.0185744,0.0893957,-0.0263619,0.234477,-0.19388,0.927891,0.0448848,-0.0017362,-6.8042,-4.04542,-3.05661,16.8229,-0.256723,32.2155,-0.132623,-8.16113,-37.0415,-8.56047,23.4399,-0.903019,3.76916,-0.00996382,
0.0896792,-0.0463283,0.023003,-1.87953,0.227664,0.0664048,-0.0183248,0.156772,0.0117086,0.159878,-0.260472,0.769095,0.0596814,0.0058301,-1.42374,-3.1794,-1.47893,5.84248,-39.382,21.7901,0.116731,12.5174,0.477983,12.8376,-24.6369,6.74547,1.99017,0.0619531,0.0835899,-0.0456273,0.0167847,-1.87048,0.200134,0.0598207,-0.0185744,0.0893957,-0.0263619,0.234477,-0.19388,0.927891,0.0448848,-0.0017362,0,0,0,0,0,0,0,-8.16113,-37.0415,-8.56047,23.4399,-0.903019,3.76916,-0.00996382,
0.0908408,-0.0463792,0.0241864,-1.88129,0.231187,0.0680801,-0.0182705,0.154457,0.00809455,0.157486,-0.252411,0.703347,0.0896294,0.0060221,-1.44669,-2.25876,-1.49467,5.03822,-41.0924,18.7175,0.119996,12.2995,0.505021,12.61,-24.1866,5.72471,2.09583,0.0618738,0.0835899,-0.0456273,0.0167847,-1.87048,0.200134,0.0598207,-0.0185744,0.0893957,-0.0263619,0.234477,-0.19388,0.927891,0.0448848,-0.0017362,0,0,0,0,0,0,0,-8.16113,-37.0415,-8.56047,23.4399,-0.903019,3.76916,-0.00996382,
0.0919821,-0.0464174,0.0253493,-1.88303,0.234154,0.0698249,-0.0182147,0.152098,0.00551923,0.155061,-0.245367,0.636843,0.115323,0.00621279,-1.47426,-1.60957,-1.51597,4.40238,-41.5652,16.0582,0.119184,12.1336,0.504165,12.4342,-23.7451,4.83111,2.19255,0.0620111,0.0835899,-0.0456273,0.0167847,-1.87048,0.200134,0.0598207,-0.0185744,0.0893957,-0.0263619,0.234477,-0.19388,0.927891,0.0448848,-0.0017362,0,0,0,0,0,0,0,-8.16113,-37.0415,-8.56047,23.4399,-0.903019,3.76916,-0.00996382,
0.0931028,-0.046447,0.0264914,-1.88474,0.236621,0.0716285,-0.0181572,0.149697,0.00367506,0.152601,-0.239122,0.571165,0.137347,0.0064085,-1.50048,-1.15261,-1.53701,3.90296,-41.0483,13.7654,0.122317,11.9628,0.417455,12.2637,-23.2816,3.90603,2.27863,0.0638295,0.0860051,-0.0438261,0.0245031,-1.8772,0.231734,0.06385,-0.0185769,0.060186,0.0839429,0.168394,-0.146657,0.670843,0.10479,7.5524e-05,-3.6512,13.7881,-8.26049,5.9028,-32.1309,7.48817,0.226465,-8.76812,-28.9046,-8.63585,23.2178,-0.780338,3.05962,-0.0301054,
0.0911097,-0.0430676,0.0297138,-1.886,0.247058,0.0726462,-0.0182856,0.145787,0.00463506,0.148611,-0.234487,0.505046,0.156788,0.00663979,-2.4438,0.600001,-2.49408,2.89712,-41.3244,12.1507,0.144557,11.8639,0.374728,12.1557,-22.8542,3.21505,2.35749,0.0652327,0.0860051,-0.0438261,0.0245031,-1.8772,0.231734,0.06385,-0.0185769,0.060186,0.0839429,0.168394,-0.146657,0.670843,0.10479,7.5524e-05,0,0,0,0,0,0,0,-8.76812,-28.9046,-8.63585,23.2178,-0.780338,3.05962,-0.0301054,
0.0921441,-0.0430165,0.0307682,-1.8877,0.248591,0.0745574,-0.0182242,0.14249,0.00498405,0.14525,-0.22995,0.44235,0.17321,0.00684837,-2.06094,0.218119,-2.10074,2.83527,-39.185,10.2637,0.130363,11.7824,0.317629,12.0656,-22.4322,2.60673,2.42705,0.0673809,0.0860051,-0.0438261,0.0245031,-1.8772,0.231734,0.06385,-0.0185769,0.060186,0.0839429,0.168394,-0.146657,0.670843,0.10479,7.5524e-05,0,0,0,0,0,0,0,-8.76812,-28.9046,-8.63585,23.2178,-0.780338,3.05962,-0.0301054,
0.0931681,-0.0429784,0.0318122,-1.88936,0.249793,0.0765009,-0.018162,0.139591,0.0049409,0.142299,-0.22552,0.383939,0.187156,0.00703302,-1.81153,-0.0269675,-1.84436,2.76912,-36.5071,8.71599,0.115409,11.709,0.250322,11.9839,-22.0164,2.08663,2.49027,0.0692535,0.0860051,-0.0438261,0.0245031,-1.8772,0.231734,0.06385,-0.0185769,0.060186,0.0839429,0.168394,-0.146657,0.670843,0.10479,7.5524e-05,0,0,0,0,0,0,0,-8.76812,-28.9046,-8.63585,23.2178,-0.780338,3.05962,-0.0301054,
0.0916525,-0.0426827,0.0348278,-1.88895,0.250691,0.0805286,-0.018264,0.13458,0.00475959,0.13722,-0.22006,0.319559,0.204613,0.00724106,-3.13224,-0.113318,-3.17391,3.412,-40.2372,10.9109,0.130021,11.5178,0.0355497,11.7848,-21.1669,1.19441,2.58506,0.0741684,0.0871979,-0.0431861,0.0302634,-1.881,0.246014,0.0690141,-0.0185736,0.0309349,0.0771628,0.175973,-0.107917,0.199653,0.232603,0.000542454,-3.6564,-0.847515,0.947375,4.84249,-58.8988,15.9766,0.0583662,-2.91241,-34.796,-3.33556,28.1729,0.452877,3.22533,-0.0703886,
0.0925692,-0.0426617,0.0357635,-1.89051,0.25103,0.0826921,-0.0181993,0.130582,0.00433058,0.133168,-0.21503,0.264106,0.21778,0.00741027,-2.49844,-0.268132,-2.53247,3.14427,-34.6582,8.22895,0.105761,11.4393,-0.0444831,11.6995,-20.7633,0.871116,2.62654,0.0759542,0.0871979,-0.0431861,0.0302634,-1.881,0.246014,0.0690141,-0.0185736,0.0309349,0.0771628,0.175973,-0.107917,0.199653,0.232603,0.000542454,0,0,0,0,0,0,0,-2.91241,-34.796,-3.33556,28.1729,0.452877,3.22533,-0.0703886,
0.0934826,-0.0426494,0.0366958,-1.89204,0.251237,0.0848342,-0.0181348,0.127302,0.00377416,0.129843,-0.210323,0.216475,0.227775,0.00754167,-2.05032,-0.347765,-2.07865,2.94131,-29.7697,6.24739,0.0821244,11.3529,-0.124279,11.6065,-20.3631,0.604293,2.66263,0.0772589,0.0871979,-0.0431861,0.0302634,-1.881,0.246014,0.0690141,-0.0185736,0.0309349,0.0771628,0.175973,-0.107917,0.199653,0.232603,0.000542454,0,0,0,0,0,0,0,-2.91241,-34.796,-3.33556,28.1729,0.452877,3.22533,-0.0703886,
0.0943898,-0.0426436,0.0376218,-1.89355,0.251338,0.0869614,-0.0180705,0.124522,0.00316261,0.127024,-0.205864,0.175689,0.2354,0.00763953,-1.73751,-0.382218,-1.76165,2.78702,-25.4911,4.76525,0.0611594,11.2578,-0.202512,11.5053,-19.9652,0.381279,2.69235,0.0784563,0.0871979,-0.0431861,0.0302634,-1.881,0.246014,0.0690141,-0.0185736,0.0309349,0.0771628,0.175973,-0.107917,0.199653,0.232603,0.000542454,0,0,0,0,0,0,0,-2.91241,-34.796,-3.33556,28.1729,0.452877,3.22533,-0.0703886,
0.0916389,-0.0426712,0.0348054,-1.88844,0.248752,0.0804905,-0.0182528,0.122009,0.00315899,0.124461,-0.201537,0.143429,0.24336,0.00771205,-1.57017,-0.00226466,-1.60188,2.70454,-20.1623,4.97496,0.0453255,11.153,-0.278019,11.3947,-19.5698,0.201295,2.71729,0.0792045,0.0871979,-0.0431861,0.0302634,-1.881,0.246014,0.0690141,-0.0185736,0.0309349,0.0771628,0.175973,-0.107917,0.199653,0.232603,0.000542454,0,0,0,0,0,0,0,-2.91241,-34.796,-3.33556,28.1729,0.452877,3.22533,-0.0703886,
0.0925263,-0.0426592,0.0357109,-1.88989,0.248762,0.0826587,-0.0181896,0.119795,0.00282788,0.122206,-0.197372,0.114979,0.248892,0.00774888,-1.38416,-0.206941,-1.40936,2.60296,-17.7816,3.45785,0.0230186,10.9962,-0.238655,11.2349,-19.2819,0.0425718,2.67501,0.0808268,0.0880871,-0.0418645,0.035722,-1.88417,0.24394,0.081162,-0.0185814,0.0145859,0.067692,0.153113,-0.0913896,-0.209772,0.541203,-0.000808733,-2.04362,-1.18386,-2.85742,2.06596,-51.1781,38.575,-0.168898,-4.73736,-35.6688,-5.06133,29.9185,0.190121,2.15142,-0.0301054,
0.0934032,-0.0426567,0.0366056,-1.8913,0.248695,0.0848018,-0.0181274,0.117756,0.00232609,0.120134,-0.193324,0.0903261,0.252692,0.00775424,-1.27408,-0.313619,-1.29511,2.52993,-15.408,2.37495,0.00335275,10.8722,-0.306848,11.1057,-18.8901,-0.0722179,2.69046,0.0809658,0.0880871,-0.0418645,0.035722,-1.88417,0.24394,0.081162,-0.0185814,0.0145859,0.067692,0.153113,-0.0913896,-0.209772,0.541203,-0.000808733,0,0,0,0,0,0,0,-4.73736,-35.6688,-5.06133,29.9185,0.190121,2.15142,-0.0301054,
0.0942677,-0.0426612,0.037488,-1.89269,0.248576,0.0869253,-0.0180663,0.115817,0.0017473,0.118166,-0.189362,0.0692658,0.255242,0.00773166,-1.21178,-0.361746,-1.23015,2.47659,-13.1627,1.59338,-0.0141122,10.7393,-0.370902,10.9678,-18.4997,-0.162225,2.70148,0.0808802,0.0880871,-0.0418645,0.035722,-1.88417,0.24394,0.081162,-0.0185814,0.0145859,0.067692,0.153113,-0.0913896,-0.209772,0.541203,-0.000808733,0,0,0,0,0,0,0,-4.73736,-35.6688,-5.06133,29.9185,0.190121,2.15142,-0.0301054,
0.091534,-0.0414769,0.0392717,-1.89066,0.240134,0.0971891,-0.0182803,0.110659,0.00143183,0.112952,-0.184246,0.0427945,0.269161,0.00771369,-3.22379,-0.197166,-3.25843,3.19704,-16.5446,8.69944,-0.0112305,10.5978,-0.430602,10.8216,-18.1106,-0.229494,2.70892,0.0804489,0.0880871,-0.0418645,0.035722,-1.88417,0.24394,0.081162,-0.0185814,0.0145859,0.067692,0.153113,-0.0913896,-0.209772,0.541203,-0.000808733,0,0,0,0,0,0,0,-4.73736,-35.6688,-5.06133,29.9185,0.190121,2.15142,-0.0301054,
0.0922631,-0.0414868,0.0400172,-1.89195,0.239691,0.0996314,-0.0182204,0.106754,0.000897716,0.108999,-0.179698,0.0231802,0.276386,0.00766653,-2.4407,-0.333823,-2.47062,2.8426,-12.2589,4.51558,-0.0294805,10.4386,-0.344187,10.6586,-17.8538,-0.237193,2.62086,0.0805682,0.0881881,-0.0408782,0.0401325,-1.88769,0.234161,0.101768,-0.0185788,0.0110247,0.00492635,0.106472,-0.12202,-0.344296,0.66429,9.74671e-05,-0.445146,-7.8457,-5.83012,-3.82878,-16.8154,15.3859,0.113275,-3.2893,-37.3906,-3.51012,33.7033,0.679012,2.17156,-0.0566557,
0.0929971,-0.0415039,0.0407676,-1.89322,0.2393,0.101958,-0.0181622,0.103755,0.000291372,0.105959,-0.175536,0.00875247,0.279266,0.00759063,-1.87465,-0.378965,-1.89987,2.60146,-9.01731,1.80014,-0.047437,10.2822,-0.395397,10.498,-17.4668,-0.271008,2.62164,0.0796223,0.0881881,-0.0408782,0.0401325,-1.88769,0.234161,0.101768,-0.0185788,0.0110247,0.00492635,0.106472,-0.12202,-0.344296,0.66429,9.74671e-05,0,0,0,0,0,0,0,-3.2893,-37.3906,-3.51012,33.7033,0.679012,2.17156,-0.0566557,
0.0937327,-0.0415256,0.0415194,-1.89447,0.238951,0.104196,-0.0181056,0.101391,-0.000309433,0.103562,-0.171632,-0.00172102,0.279375,0.00748747,-1.47707,-0.375503,-1.4982,2.44003,-6.54593,0.0684426,-0.064471,10.1195,-0.442621,10.3313,-17.0809,-0.292432,2.61954,0.078453,0.0881881,-0.0408782,0.0401325,-1.88769,0.234161,0.101768,-0.0185788,0.0110247,0.00492635,0.106472,-0.12202,-0.344296,0.66429,9.74671e-05,0,0,0,0,0,0,0,-3.2893,-37.3906,-3.51012,33.7033,0.679012,2.17156,-0.0566557,
0.0908723,-0.0411658,0.0429067,-1.89336,0.228147,0.118852,-0.0182949,0.0960107,-0.00191502,0.0981232,-0.166002,-0.0182145,0.290258,0.00738881,-3.36298,-1.00349,-3.39932,3.51859,-10.3084,6.80147,-0.061663,9.95115,-0.485973,10.1591,-16.6957,-0.303815,2.61487,0.077058,0.0881881,-0.0408782,0.0401325,-1.88769,0.234161,0.101768,-0.0185788,0.0110247,0.00492635,0.106472,-0.12202,-0.344296,0.66429,9.74671e-05,0,0,0,0,0,0,0,-3.2893,-37.3906,-3.51012,33.7033,0.679012,2.17156,-0.0566557,
0.0914882,-0.0412291,0.0435376,-1.89449,0.227605,0.121328,-0.0182407,0.092206,-0.00311384,0.0942713,-0.161268,-0.0281332,0.294116,0.00726522,-2.37789,-0.749263,-2.40743,2.95912,-6.19921,2.41161,-0.0772424,9.77928,-0.458956,9.98508,-16.3967,-0.241955,2.51518,0.0758238,0.0884125,-0.0407889,0.0436149,-1.89207,0.220868,0.123098,-0.0185766,0.0168692,-0.0225617,0.06854,-0.115392,-0.430823,0.598791,0.00043757,0.730559,-3.436,-4.74152,0.828479,-10.8159,-8.18737,0.0425128,-2.75769,-35.1451,-2.83568,28.8474,1.43066,2.19811,-0.0767973,
0.0921185,-0.0412882,0.044183,-1.89562,0.227163,0.123657,-0.0181885,0.0895221,-0.00397007,0.0915504,-0.157139,-0.0335539,0.293522,0.00711771,-1.67743,-0.535143,-1.70058,2.58046,-3.38793,-0.371699,-0.0921955,9.60169,-0.49543,9.80408,-16.0129,-0.23948,2.50619,0.0740519,0.0884125,-0.0407889,0.0436149,-1.89207,0.220868,0.123098,-0.0185766,0.0168692,-0.0225617,0.06854,-0.115392,-0.430823,0.598791,0.00043757,0,0,0,0,0,0,0,-2.75769,-35.1451,-2.83568,28.8474,1.43066,2.19811,-0.0767973,
0.0905724,-0.0414346,0.0458555,-1.89715,0.21387,0.13886,-0.0183243,0.0842555,-0.00560682,0.08623,-0.151369,-0.0444601,0.29751,0.00692203,-3.29163,-1.02297,-3.32526,3.60595,-6.81639,2.4925,-0.122302,9.23592,-0.559626,9.43194,-15.2471,-0.222593,2.4832,0.0700343,0.0884125,-0.0407889,0.0436149,-1.89207,0.220868,0.123098,-0.0185766,0.0168692,-0.0225617,0.06854,-0.115392,-0.430823,0.598791,0.00043757,0,0,0,0,0,0,0,-2.75769,-35.1451,-2.83568,28.8474,1.43066,2.19811,-0.0767973,
0.0911034,-0.04152,0.0464006,-1.89817,0.21333,0.141192,-0.0182772,0.0806802,-0.00662148,0.0826124,-0.146535,-0.0490639,0.296316,0.00671566,-2.23462,-0.634165,-2.26102,3.02172,-2.87738,-0.746216,-0.128981,9.04871,-0.587936,9.24178,-14.8648,-0.210811,2.46966,0.0678375,0.0884125,-0.0407889,0.0436149,-1.89207,0.220868,0.123098,-0.0185766,0.0168692,-0.0225617,0.06854,-0.115392,-0.430823,0.598791,0.00043757,0,0,0,0,0,0,0,-2.75769,-35.1451,-2.83568,28.8474,1.43066,2.19811,-0.0767973,
0.0916534,-0.0415956,0.0469648,-1.89917,0.212912,0.143388,-0.0182322,0.0782941,-0.00718663,0.0801948,-0.142336,-0.0496915,0.291954,0.00649785,-1.49127,-0.353217,-1.51099,2.624,-0.39223,-2.72625,-0.136132,8.87473,-0.597663,9.06497,-14.5152,-0.122435,2.37968,0.0655552,0.0888878,-0.0407508,0.0459849,-1.89567,0.206509,0.141453,-0.0185784,0.0293605,-0.0135551,0.0408848,-0.0645571,-0.391995,0.449436,-0.000585797,1.56142,1.12582,-3.4569,6.35437,4.8535,-18.6693,-0.127921,-2.68231,-34.5223,-2.86345,26.3559,1.24115,2.37664,-0.0301054,
0.0922165,-0.041663,0.0475422,-1.90016,0.212587,0.145476,-0.0181893,0.0767118,-0.00743592,0.0785896,-0.138558,-0.0478943,0.285771,0.00626938,-0.988977,-0.155808,-1.00321,2.36119,1.12322,-3.864,-0.142791,8.68329,-0.621931,8.87084,-14.1333,-0.11056,2.3642,0.0631962,0.0888878,-0.0407508,0.0459849,-1.89567,0.206509,0.141453,-0.0185784,0.0293605,-0.0135551,0.0408848,-0.0645571,-0.391995,0.449436,-0.000585797,0,0,0,0,0,0,0,-2.68231,-34.5223,-2.86345,26.3559,1.24115,2.37664,-0.0301054,
0.0908066,-0.0415027,0.047975,-1.90013,0.200505,0.155241,-0.0183641,0.0728071,-0.00868062,0.0746422,-0.133714,-0.0527066,0.285685,0.00605501,-2.44043,-0.777938,-2.46717,3.02761,-3.0077,-0.0537659,-0.133979,8.49026,-0.644537,8.6753,-13.7511,-0.100427,2.34803,0.0608056,0.0888878,-0.0407508,0.0459849,-1.89567,0.206509,0.141453,-0.0185784,0.0293605,-0.0135551,0.0408848,-0.0645571,-0.391995,0.449436,-0.000585797,0,0,0,0,0,0,0,-2.68231,-34.5223,-2.86345,26.3559,1.24115,2.37664,-0.0301054,
0.0912881,-0.0415968,0.0484699,-1.90104,0.200073,0.15738,-0.0183245,0.0702825,-0.00929497,0.0720859,-0.129574,-0.0529556,0.282035,0.00583312,-1.57787,-0.383965,-1.59768,2.58752,-0.155595,-2.28131,-0.138685,8.29595,-0.665886,8.47855,-13.3688,-0.0917357,2.33131,0.0583527,0.0888878,-0.0407508,0.0459849,-1.89567,0.206509,0.141453,-0.0185784,0.0293605,-0.0135551,0.0408848,-0.0645571,-0.391995,0.449436,-0.000585797,0,0,0,0,0,0,0,-2.68231,-34.5223,-2.86345,26.3559,1.24115,2.37664,-0.0301054,
0.0917869,-0.0416786,0.0489823,-1.90192,0.199746,0.159405,-0.018287,0.0686974,-0.0094831,0.0704786,-0.125893,-0.0505444,0.276258,0.00560434,-0.990687,-0.117583,-1.00456,2.30082,1.50698,-3.61081,-0.142986,8.1236,-0.697263,8.30282,-12.9818,-0.0188129,2.27298,0.0557409,0.089373,-0.0406184,0.0474155,-1.89796,0.194532,0.152401,-0.0185777,0.0129032,-0.003089,0.0317831,-0.0422262,-0.336624,0.247481,9.6341e-05,-2.05717,1.30826,-1.13771,2.79136,6.92139,-25.2443,0.0852673,-0.246395,-33.0742,-0.411669,23.2654,1.57074,1.88592,-0.0566557,
0.0922974,-0.041751,0.0495064,-1.9028,0.199495,0.161338,-0.0182515,0.0677191,-0.00939441,0.0694855,-0.122496,-0.0467115,0.269317,0.00537023,-0.611432,0.0554304,-0.620677,2.12312,2.39558,-4.33794,-0.146321,7.92765,-0.716763,8.1046,-12.5986,-0.0154415,2.2555,0.0532765,0.089373,-0.0406184,0.0474155,-1.89796,0.194532,0.152401,-0.0185777,0.0129032,-0.003089,0.0317831,-0.0422262,-0.336624,0.247481,9.6341e-05,0,0,0,0,0,0,0,-0.246395,-33.0742,-0.411669,23.2654,1.57074,1.88592,-0.0566557,
0.0909987,-0.0412334,0.0491065,-1.90211,0.189318,0.163078,-0.0183934,0.0643489,-0.00962849,0.0660759,-0.11887,-0.0502339,0.264131,0.00516566,-2.10638,-0.1463,-2.13101,2.26612,-2.20154,-3.24145,-0.127853,7.73133,-0.735654,7.90612,-12.2146,-0.0156078,2.23778,0.0508536,0.089373,-0.0406184,0.0474155,-1.89796,0.194532,0.152401,-0.0185777,0.0129032,-0.003089,0.0317831,-0.0422262,-0.336624,0.247481,9.6341e-05,0,0,0,0,0,0,0,-0.246395,-33.0742,-0.411669,23.2654,1.57074,1.88592,-0.0566557,
0.0914293,-0.0413055,0.0495497,-1.90293,0.188927,0.164945,-0.0183606,0.0622423,-0.00950521,0.0639418,-0.11548,-0.0499579,0.25798,0.0049515,-1.31664,0.0770534,-1.33379,2.11879,0.172535,-3.84438,-0.133852,7.53497,-0.754296,7.70761,-11.8297,-0.0184917,2.21962,0.0484451,0.089373,-0.0406184,0.0474155,-1.89796,0.194532,0.152401,-0.0185777,0.0129032,-0.003089,0.0317831,-0.0422262,-0.336624,0.247481,9.6341e-05,0,0,0,0,0,0,0,-0.246395,-33.0742,-0.411669,23.2654,1.57074,1.88592,-0.0566557,
0.0918763,-0.0413687,0.0500096,-1.90372,0.188626,0.166742,-0.0183298,0.0609697,-0.00918376,0.0626509,-0.112214,-0.0474864,0.251308,0.00473186,-0.795383,0.200902,-0.806806,2.04109,1.54469,-4.17001,-0.137274,7.35287,-0.791278,7.52312,-11.4299,0.0231659,2.18422,0.0459741,0.0898701,-0.0406146,0.0486204,-1.89932,0.185102,0.15742,-0.0185805,0.0123572,0.00255393,0.027892,-0.0165875,-0.222083,0.0786821,0.000151214,-0.0682428,0.705366,-0.48639,3.20483,14.3176,-21.0999,0.00685916,1.52698,-32.3998,1.36171,23.3923,1.52771,1.68084,-0.0365141,
0.0914525,-0.0412192,0.0502621,-1.90302,0.181535,0.165492,-0.0184245,0.058479,-0.00934177,0.0601261,-0.108162,-0.047483,0.242485,0.00449827,-1.55664,-0.0987515,-1.57804,2.53284,0.00213068,-5.51401,-0.145993,6.96349,-0.82881,7.12965,-10.6542,0.00323484,2.14441,0.0414662,0.0898701,-0.0406146,0.0486204,-1.89932,0.185102,0.15742,-0.0185805,0.0123572,0.00255393,0.027892,-0.0165875,-0.222083,0.0786821,0.000151214,0,0,0,0,0,0,0,1.52698,-32.3998,1.36171,23.3923,1.52771,1.68084,-0.0365141,
0.0918577,-0.0412868,0.0506796,-1.90373,0.181242,0.167116,-0.0183979,0.0569134,-0.00916501,0.0585386,-0.104279,-0.0453221,0.234578,0.00426501,-0.978528,0.110472,-0.992207,2.42688,1.35055,-4.94192,-0.145791,6.77114,-0.848179,6.93527,-10.2644,-0.0089984,2.12226,0.0393269,0.0898701,-0.0406146,0.0486204,-1.89932,0.185102,0.15742,-0.0185805,0.0123572,0.00255393,0.027892,-0.0165875,-0.222083,0.0786821,0.000151214,0,0,0,0,0,0,0,1.52698,-32.3998,1.36171,23.3923,1.52771,1.68084,-0.0365141,
0.0922735,-0.0413465,0.0511079,-1.90441,0.181017,0.168698,-0.0183729,0.0559272,-0.00882367,0.057539,-0.100491,-0.04189,0.227214,0.0040371,-0.61637,0.213336,-0.624747,2.36719,2.14508,-4.60267,-0.142441,6.58116,-0.868035,6.74329,-9.87301,-0.0219398,2.09793,0.0373032,0.0898701,-0.0406146,0.0486204,-1.89932,0.185102,0.15742,-0.0185805,0.0123572,0.00255393,0.027892,-0.0165875,-0.222083,0.0786821,0.000151214,0,0,0,0,0,0,0,1.52698,-32.3998,1.36171,23.3923,1.52771,1.68084,-0.0365141,
0.0926949,-0.0414011,0.0515419,-1.90507,0.180849,0.170232,-0.0183494,0.0552757,-0.00842315,0.0568797,-0.09675,-0.037717,0.220133,0.00381748,-0.407179,0.250327,-0.412042,2.33822,2.60807,-4.42545,-0.137263,6.39419,-0.89069,6.55379,-9.47024,-0.0110029,2.06797,0.035359,0.0904267,-0.0403744,0.0496247,-1.90019,0.18005,0.159355,-0.0185788,0.0141832,0.018929,0.0301958,-0.0179283,-0.106583,0.0469403,0.000280429,0.228249,2.04688,0.287966,-0.167599,14.4376,-3.96772,0.0161518,1.78089,-32.6259,1.48866,24.3604,1.42425,1.7138,-0.0566557,
0.0920148,-0.0406553,0.0512694,-1.90349,0.178061,0.166212,-0.0184476,0.0535083,-0.00793911,0.0550863,-0.0932295,-0.0359015,0.211952,0.00363742,-1.10462,0.302524,-1.12087,2.20027,1.13472,-5.11342,-0.112538,6.21104,-0.911812,6.36864,-9.07606,-0.0200144,2.03615,0.0335556,0.0904267,-0.0403744,0.0496247,-1.90019,0.18005,0.159355,-0.0185788,0.0141832,0.018929,0.0301958,-0.0179283,-0.106583,0.0469403,0.000280429,0,0,0,0,0,0,0,1.78089,-32.6259,1.48866,24.3604,1.42425,1.7138,-0.0566557,
0.0923957,-0.0407001,0.0516623,-1.90409,0.177904,0.167608,-0.0184257,0.0523288,-0.00747017,0.0538912,-0.0896133,-0.0326578,0.204461,0.00345648,-0.737222,0.293089,-0.746956,2.26017,2.0273,-4.68165,-0.113086,6.03249,-0.933603,6.18808,-8.6808,-0.023621,1.99863,0.0318506,0.0904267,-0.0403744,0.0496247,-1.90019,0.18005,0.159355,-0.0185788,0.0141832,0.018929,0.0301958,-0.0179283,-0.106583,0.0469403,0.000280429,0,0,0,0,0,0,0,1.78089,-32.6259,1.48866,24.3604,1.42425,1.7138,-0.0566557,
0.0927807,-0.0407435,0.0520594,-1.90466,0.177819,0.168951,-0.018405,0.0514879,-0.0070621,0.0530416,-0.0859063,-0.0282435,0.197137,0.00328239,-0.52555,0.255047,-0.531014,2.31687,2.75897,-4.57747,-0.10881,5.85938,-0.955883,6.01299,-8.28439,-0.0203541,1.95397,0.0303038,0.0904267,-0.0403744,0.0496247,-1.90019,0.18005,0.159355,-0.0185788,0.0141832,0.018929,0.0301958,-0.0179283,-0.106583,0.0469403,0.000280429,0,0,0,0,0,0,0,1.78089,-32.6259,1.48866,24.3604,1.42425,1.7138,-0.0566557,
0.0918563,-0.0405752,0.0511108,-1.90294,0.178476,0.165207,-0.0184699,0.0493707,-0.00667728,0.0509036,-0.0814823,-0.0242764,0.186828,0.00312788,-1.32324,0.240511,-1.33624,2.765,2.47938,-6.44307,-0.0965652,5.53266,-1.00147,5.68233,-7.48991,0.0201252,1.83571,0.0276385,0.0904267,-0.0403744,0.0496247,-1.90019,0.18005,0.159355,-0.0185788,0.0141832,0.018929,0.0301958,-0.0179283,-0.106583,0.0469403,0.000280429,0,0,0,0,0,0,0,1.78089,-32.6259,1.48866,24.3604,1.42425,1.7138,-0.0566557,
0.0921895,-0.0406163,0.0514558,-1.90342,0.178534,0.166296,-0.0184508,0.0478259,-0.00637015,0.0493474,-0.0770767,-0.0179683,0.176669,0.00298176,-0.965516,0.191957,-0.972597,2.7535,3.94261,-6.34938,-0.0913257,5.38089,-1.02132,5.52893,-7.08783,0.0725038,1.75893,0.0265068,0.0909815,-0.0400882,0.050913,-1.90108,0.178265,0.160674,-0.0185784,0.0139499,0.0151991,0.0406178,-0.0290104,-0.00570423,0.0405969,-6.83571e-05,-0.0291646,-0.466242,1.30276,-1.38526,12.6098,-0.792921,-0.0435982,1.34845,-32.9988,1.11177,25.5823,1.43615,1.68725,-0.050247,
0.0925243,-0.0406587,0.0518025,-1.90386,0.178724,0.167288,-0.0184318,0.0466303,-0.00615587,0.048147,-0.07269,-0.00963081,0.166155,0.00285818,-0.747232,0.13392,-0.750244,2.74166,5.21091,-6.57147,-0.0772398,5.23634,-1.04385,5.38256,-6.69102,0.134801,1.6661,0.0256314,0.0909815,-0.0400882,0.050913,-1.90108,0.178265,0.160674,-0.0185784,0.0139499,0.0151991,0.0406178,-0.0290104,-0.00570423,0.0405969,-6.83571e-05,0,0,0,0,0,0,0,1.34845,-32.9988,1.11177,25.5823,1.43615,1.68725,-0.050247,
0.0928569,-0.0407031,0.0521473,-1.90427,0.179058,0.168168,-0.0184128,0.0456198,-0.0060352,0.047137,-0.0683314,0.000661081,0.154913,0.00276188,-0.63159,0.075418,-0.63129,2.72413,6.43243,-7.02646,-0.0601875,5.09933,-1.0658,5.2438,-6.29567,0.220293,1.55652,0.0249253,0.0909815,-0.0400882,0.050913,-1.90108,0.178265,0.160674,-0.0185784,0.0139499,0.0151991,0.0406178,-0.0290104,-0.00570423,0.0405969,-6.83571e-05,0,0,0,0,0,0,0,1.34845,-32.9988,1.11177,25.5823,1.43615,1.68725,-0.050247,
0.0924382,-0.0402144,0.0524275,-1.90329,0.179352,0.164617,-0.0184771,0.0442295,-0.0057361,0.0457415,-0.0643229,0.0122225,0.141146,0.00268891,-0.868896,0.18694,-0.872139,2.50529,7.22589,-8.60416,-0.0456053,4.969,-1.08686,5.11191,-5.90228,0.329637,1.42821,0.0244786,0.0909815,-0.0400882,0.050913,-1.90108,0.178265,0.160674,-0.0185784,0.0139499,0.0151991,0.0406178,-0.0290104,-0.00570423,0.0405969,-6.83571e-05,0,0,0,0,0,0,0,1.34845,-32.9988,1.11177,25.5823,1.43615,1.68725,-0.050247,
0.092745,-0.0402547,0.0527465,-1.90365,0.179977,0.165194,-0.0184593,0.0430543,-0.00559566,0.0445694,-0.0602724,0.0254054,0.127345,0.00259553,-0.734507,0.0877738,-0.732571,2.53161,8.23932,-8.62535,-0.0583593,4.84442,-1.10407,4.98624,-5.50982,0.466154,1.285,0.0240486,0.0915153,-0.0397504,0.0520837,-1.90181,0.178326,0.161083,-0.0185801,0.0201314,0.0147545,0.0227077,-0.0175028,0.0139308,-0.00474229,-0.000784827,0.77269,-0.0555694,-2.23877,1.43845,2.45438,-5.6674,-0.0895587,-0.702633,-34.4945,-0.836168,27.2009,1.00311,2.29699,-0.0163725,
0.093048,-0.0402984,0.0530617,-1.90397,0.18074,0.165658,-0.0184409,0.0420188,-0.00556751,0.0435364,-0.0562142,0.0393986,0.113479,0.00253867,-0.647176,0.017597,-0.645649,2.53636,8.74573,-8.66673,-0.0355375,4.72402,-1.12178,4.86477,-5.12411,0.619834,1.12211,0.0242976,0.0915153,-0.0397504,0.0520837,-1.90181,0.178326,0.161083,-0.0185801,0.0201314,0.0147545,0.0227077,-0.0175028,0.0139308,-0.00474229,-0.000784827,0,0,0,0,0,0,0,-0.702633,-34.4945,-0.836168,27.2009,1.00311,2.29699,-0.0163725,
0.0933434,-0.040345,0.0533695,-1.90426,0.181662,0.166017,-0.018419,0.0409997,-0.00562089,0.042522,-0.0522641,0.0545515,0.0997573,0.00257634,-0.636968,-0.033366,-0.633984,2.46877,9.47056,-8.57582,0.0235444,4.60023,-1.13788,4.74004,-4.74627,0.811053,0.937239,0.0249912,0.0915153,-0.0397504,0.0520837,-1.90181,0.178326,0.161083,-0.0185801,0.0201314,0.0147545,0.0227077,-0.0175028,0.0139308,-0.00474229,-0.000784827,0,0,0,0,0,0,0,-0.702633,-34.4945,-0.836168,27.2009,1.00311,2.29699,-0.0163725,
0.0926753,-0.0398645,0.0533005,-1.90346,0.181617,0.162596,-0.0184741,0.0389373,-0.00536236,0.0404588,-0.0488328,0.0691671,0.0851187,0.00266136,-1.28897,0.161582,-1.28951,2.14457,9.13479,-9.14914,0.0531343,4.45824,-1.14779,4.5978,-4.37457,1.02081,0.738405,0.0248111,0.0915153,-0.0397504,0.0520837,-1.90181,0.178326,0.161083,-0.0185801,0.0201314,0.0147545,0.0227077,-0.0175028,0.0139308,-0.00474229,-0.000784827,0,0,0,0,0,0,0,-0.702633,-34.4945,-0.836168,27.2009,1.00311,2.29699,-0.0163725,
0.0929125,-0.0399054,0.0535511,-1.90372,0.182843,0.162776,-0.018464,0.0370807,-0.00531067,0.038632,-0.0456148,0.0859744,0.0725792,0.00238254,-1.16043,0.03231,-1.14176,2.01125,10.5045,-7.83716,-0.174259,4.30322,-1.16398,4.44456,-4.02042,1.20903,0.559111,0.0235339,0.0922167,-0.0395742,0.0533441,-1.90232,0.17848,0.160905,-0.0185801,0.0195694,-0.000852122,0.0354231,-0.0113845,0.0177442,-0.00255571,-3.80071e-05,-0.0702457,-1.95083,1.58942,0.764791,0.476666,0.273323,0.0933525,-0.452694,-34.3715,-0.562425,27.7484,1.15509,2.66869,-0.0163725,
0.0931535,-0.0399482,0.0538028,-1.90396,0.18409,0.163008,-0.0184599,0.0356896,-0.00531957,0.0371982,-0.0424945,0.0999488,0.0638677,0.00200839,-0.869394,-0.00556596,-0.896131,1.9502,8.73403,-5.44472,-0.233846,4.13877,-1.14264,4.27966,-3.66451,1.32296,0.411073,0.0245406,0.0922167,-0.0395742,0.0533441,-1.90232,0.17848,0.160905,-0.0185801,0.0195694,-0.000852122,0.0354231,-0.0113845,0.0177442,-0.00255571,-3.80071e-05,0,0,0,0,0,0,0,-0.452694,-34.3715,-0.562425,27.7484,1.15509,2.66869,-0.0163725,
0.0933872,-0.039991,0.0540469,-1.90417,0.185471,0.163203,-0.0184545,0.0343927,-0.00532588,0.0358619,-0.0392768,0.114485,0.0559762,0.00174029,-0.810609,-0.00394397,-0.835197,2.0111,9.08527,-4.93219,-0.167562,3.94797,-1.11843,4.08712,-3.33561,1.54686,0.290949,0.0293852,0.0922167,-0.0395742,0.0533441,-1.90232,0.17848,0.160905,-0.0185801,0.0195694,-0.000852122,0.0354231,-0.0113845,0.0177442,-0.00255571,-3.80071e-05,0,0,0,0,0,0,0,-0.452694,-34.3715,-0.562425,27.7484,1.15509,2.66869,-0.0163725,
0.0932285,-0.0398803,0.0544155,-1.90341,0.183901,0.161759,-0.0185387,0.032384,-0.00559623,0.0338261,-0.0358837,0.129489,0.0475874,0.00146474,-1.25539,-0.16897,-1.27234,2.12066,9.37739,-5.24297,-0.172221,3.65737,-1.08412,3.79677,-3.00389,1.82478,0.20686,0.0316971,0.0922167,-0.0395742,0.0533441,-1.90232,0.17848,0.160905,-0.0185801,0.0195694,-0.000852122,0.0354231,-0.0113845,0.0177442,-0.00255571,-3.80071e-05,0,0,0,0,0,0,0,-0.452694,-34.3715,-0.562425,27.7484,1.15509,2.66869,-0.0163725,
0.0934157,-0.0399322,0.0546124,-1.90356,0.18563,0.161764,-0.0185382,0.0305864,-0.00577457,0.0319836,-0.0325475,0.146836,0.0381824,0.00118276,-1.12353,-0.11146,-1.15155,2.08514,10.8419,-5.87811,-0.176237,3.30371,-1.18084,3.45664,-2.72773,2.03934,0.240332,0.0141892,0.0926906,-0.0395477,0.0547664,-1.9027,0.179563,0.159538,-0.0185725,0.0104426,0.00281689,0.0374099,-0.00305464,0.0486857,-0.0611743,0.00140897,-1.14086,0.458626,0.248349,1.04123,3.86769,-7.32732,0.180872,-0.67883,-33.7486,-0.911547,27.0264,1.28967,2.49566,-0.0703886,
0.0936007,-0.0399816,0.0548066,-1.90369,0.18745,0.161656,-0.0185399,0.0290956,-0.00585431,0.0304434,-0.02913,0.16297,0.0278507,0.000903731,-0.931716,-0.0498376,-0.962615,2.13595,10.0835,-6.45737,-0.174393,3.11915,-1.10103,3.25024,-2.34642,1.66465,0.541018,0.00429515,0.0926906,-0.0395477,0.0547664,-1.9027,0.179563,0.159538,-0.0185725,0.0104426,0.00281689,0.0374099,-0.00305464,0.0486857,-0.0611743,0.00140897,0,0,0,0,0,0,0,-0.67883,-33.7486,-0.911547,27.0264,1.28967,2.49566,-0.0703886,
0.0934487,-0.0397347,0.0555761,-1.90342,0.187523,0.158036,-0.0185721,0.0267112,-0.00544437,0.0279981,-0.0257222,0.184014,0.0108822,0.000832941,-1.49024,0.256214,-1.52832,2.12986,13.1524,-10.6053,-0.0442434,2.86743,-1.06114,2.98313,-1.90764,2.52081,-0.0028676,0.00643779,0.0926906,-0.0395477,0.0547664,-1.9027,0.179563,0.159538,-0.0185725,0.0104426,0.00281689,0.0374099,-0.00305464,0.0486857,-0.0611743,0.00140897,0,0,0,0,0,0,0,-0.67883,-33.7486,-0.911547,27.0264,1.28967,2.49566,-0.0703886,
0.0935685,-0.0397615,0.0557041,-1.9035,0.189994,0.157456,-0.018567,0.024366,-0.00502589,0.0255981,-0.022451,0.208999,-0.00580253,0.000793485,-1.46581,0.261545,-1.49999,2.04448,15.616,-10.4279,-0.0246598,2.74141,-1.03493,2.84736,-1.68956,2.69824,-0.188129,0.00291637,0.0926906,-0.0395477,0.0547664,-1.9027,0.179563,0.159538,-0.0185725,0.0104426,0.00281689,0.0374099,-0.00305464,0.0486857,-0.0611743,0.00140897,0,0,0,0,0,0,0,-0.67883,-33.7486,-0.911547,27.0264,1.28967,2.49566,-0.0703886,
0.093675,-0.0397868,0.055819,-1.90356,0.192703,0.156793,-0.0185617,0.0221555,-0.0046534,0.0233529,-0.0194365,0.234905,-0.0212179,0.000768888,-1.38151,0.232808,-1.4033,1.88409,16.1911,-9.63459,-0.0153733,2.57108,-0.947647,2.67939,-1.40016,2.53372,-0.325467,-0.00133524,0.0930908,-0.0395442,0.0560475,-1.9028,0.181626,0.157683,-0.0185747,0.00665534,0.000640408,0.027766,0.00183819,0.0736192,-0.0457588,0.000138034,-0.473406,-0.27206,-1.20549,0.611603,3.11669,1.92694,-0.158867,-0.932736,-33.7962,-1.0623,27.3517,1.31988,2.41692,-0.050247,
0.0937761,-0.0398118,0.055927,-1.9036,0.195487,0.15613,-0.0185615,0.0202505,-0.0043476,0.0213805,-0.0167663,0.257529,-0.0335601,0.000619601,-1.19062,0.191128,-1.23274,1.66884,14.1401,-7.7139,-0.0933046,2.4456,-0.851139,2.54304,-1.16647,2.97789,-0.568984,0.00177677,0.0930908,-0.0395442,0.0560475,-1.9028,0.181626,0.157683,-0.0185747,0.00665534,0.000640408,0.027766,0.00183819,0.0736192,-0.0457588,0.000138034,0,0,0,0,0,0,0,-0.932736,-33.7962,-1.0623,27.3517,1.31988,2.41692,-0.050247,
0.0934307,-0.0396711,0.0564312,-1.90309,0.19271,0.154846,-0.0185704,0.017428,-0.00394494,0.0184856,-0.0143243,0.276631,-0.0440085,0.000457621,-1.7641,0.251662,-1.80929,1.52627,11.9386,-6.53021,-0.101237,2.22311,-0.763965,2.30781,-0.939438,3.39791,-0.778918,0.00915068,0.0930908,-0.0395442,0.0560475,-1.9028,0.181626,0.157683,-0.0185747,0.00665534,0.000640408,0.027766,0.00183819,0.0736192,-0.0457588,0.000138034,0,0,0,0,0,0,0,-0.932736,-33.7962,-1.0623,27.3517,1.31988,2.41692,-0.050247,
0.0934653,-0.0396862,0.0564714,-1.90312,0.195811,0.154085,-0.0185755,0.0148067,-0.00353366,0.0157931,-0.0120595,0.298832,-0.0542257,0.000238042,-1.6383,0.257052,-1.68281,1.4155,13.8758,-6.38578,-0.137237,1.87094,-0.675581,1.9478,-0.716553,3.85833,-0.973253,0.0107152,0.0930908,-0.0395442,0.0560475,-1.9028,0.181626,0.157683,-0.0185747,0.00665534,0.000640408,0.027766,0.00183819,0.0736192,-0.0457588,0.000138034,0,0,0,0,0,0,0,-0.932736,-33.7962,-1.0623,27.3517,1.31988,2.41692,-0.050247,
0.0934948,-0.0397039,0.0565036,-1.90314,0.199054,0.153295,-0.0185855,0.0125839,-0.00326837,0.0134411,-0.0101257,0.320152,-0.0631326,-5.87751e-05,-1.38925,0.165801,-1.47,1.20866,13.3248,-5.56679,-0.185511,1.58022,-0.627525,1.66876,-0.516658,3.94325,-0.97983,0.00984781,0.0934936,-0.0395928,0.0569391,-1.90275,0.185652,0.156334,-0.0185785,0.00314502,-0.000705526,0.0141342,0.00980769,0.160913,-0.0342467,-0.000312231,-0.43879,-0.168242,-1.70397,0.996187,10.9117,1.43902,-0.0562831,0.285221,-33.0742,0.0644055,26.2567,1.71722,1.93902,-0.0163725,
0.0935305,-0.0397219,0.0565436,-1.90314,0.202188,0.152529,-0.018596,0.010959,-0.00306655,0.0117535,-0.00824855,0.334449,-0.0696469,-0.000309171,-1.01555,0.126138,-1.05476,1.17319,8.93566,-4.07147,-0.156497,1.23374,-0.562102,1.31165,-0.322234,3.67645,-0.778086,0.00102717,0.0934936,-0.0395928,0.0569391,-1.90275,0.185652,0.156334,-0.0185785,0.00314502,-0.000705526,0.0141342,0.00980769,0.160913,-0.0342467,-0.000312231,0,0,0,0,0,0,0,0.285221,-33.0742,0.0644055,26.2567,1.71722,1.93902,-0.0163725,
0.0934997,-0.0397293,0.056975,-1.90272,0.199112,0.153441,-0.0186297,0.00876803,-0.00306187,0.00953734,-0.00620833,0.341701,-0.0729046,-0.000566188,-1.36938,0.00292401,-1.3851,1.27514,4.53228,-2.03606,-0.160636,0.999524,-0.476212,1.05869,-0.198718,4.16905,-0.962821,0.00113256,0.0934936,-0.0395928,0.0569391,-1.90275,0.185652,0.156334,-0.0185785,0.00314502,-0.000705526,0.0141342,0.00980769,0.160913,-0.0342467,-0.000312231,0,0,0,0,0,0,0,0.285221,-33.0742,0.0644055,26.2567,1.71722,1.93902,-0.0163725,
0.0935012,-0.039753,0.056982,-1.9027,0.20209,0.152732,-0.0186457,0.00705076,-0.00304306,0.0078043,-0.00442886,0.347823,-0.0760642,-0.000854147,-1.07329,0.0117616,-1.08315,1.11217,3.82652,-1.97474,-0.179974,0.729603,-0.425688,0.779268,-0.0877279,4.53541,-1.10018,-0.00298112,0.0934936,-0.0395928,0.0569391,-1.90275,0.185652,0.156334,-0.0185785,0.00314502,-0.000705526,0.0141342,0.00980769,0.160913,-0.0342467,-0.000312231,0,0,0,0,0,0,0,0.285221,-33.0742,0.0644055,26.2567,1.71722,1.93902,-0.0163725,
0.0935142,-0.0397781,0.0570057,-1.90268,0.204892,0.152071,-0.0186553,0.00596648,-0.00306064,0.00683775,-0.00290583,0.348293,-0.0773695,-0.00092159,-0.677678,-0.0109891,-0.604093,0.951895,0.293712,-0.815803,-0.042152,0.563301,-0.49243,0.585274,-0.0319463,4.43045,-1.0451,-0.0109388,0.0937844,-0.0395742,0.0572161,-1.90278,0.19205,0.155435,-0.0185762,0.00333602,0.000938337,0.000364714,0.00118663,0.19933,-0.00831621,0.000259004,0.0238759,0.205483,-1.72119,-1.07763,4.8022,3.24131,0.0714043,-0.627255,-33.3717,-0.887743,26.6296,1.6806,2.00493,-0.0365141,
0.0937117,-0.0396225,0.0571911,-1.90265,0.203289,0.153443,-0.0186409,0.00505034,-0.00299953,0.0060243,-0.00161564,0.329155,-0.0707266,-0.00095413,-0.572588,0.0381952,-0.508406,0.80637,-11.961,4.1518,-0.0203375,0.244795,-0.378317,0.309884,0.22633,3.85706,-0.941336,-0.0159051,0.0937844,-0.0395742,0.0572161,-1.90278,0.19205,0.155435,-0.0185762,0.00333602,0.000938337,0.000364714,0.00118663,0.19933,-0.00831621,0.000259004,0,0,0,0,0,0,0,-0.627255,-33.3717,-0.887743,26.6296,1.6806,2.00493,-0.0365141,
0.0937282,-0.0396474,0.0572193,-1.90262,0.205209,0.153124,-0.0186505,0.00445409,-0.0030219,0.00552271,-0.000552935,0.311325,-0.0645689,-0.00100407,-0.372656,-0.0139844,-0.313494,0.664188,-11.1439,3.84855,-0.0312116,0.135083,-0.366942,0.202544,0.303061,3.80217,-0.937841,-0.0202662,0.0937844,-0.0395742,0.0572161,-1.90278,0.19205,0.155435,-0.0185762,0.00333602,0.000938337,0.000364714,0.00118663,0.19933,-0.00831621,0.000259004,0,0,0,0,0,0,0,-0.627255,-33.3717,-0.887743,26.6296,1.6806,2.00493,-0.0365141,
0.0937468,-0.0396742,0.0572496,-1.90259,0.207065,0.152827,-0.0186607,0.0040259,-0.00308643,0.0051776,0.000325753,0.295471,-0.0590681,-0.00105765,-0.26762,-0.0403304,-0.215696,0.54918,-9.90869,3.43804,-0.0334871,0.153491,-0.355427,0.300473,0.391719,3.18188,-0.705167,-0.0144451,0.0937844,-0.0395742,0.0572161,-1.90278,0.19205,0.155435,-0.0185762,0.00333602,0.000938337,0.000364714,0.00118663,0.19933,-0.00831621,0.000259004,0,0,0,0,0,0,0,-0.627255,-33.3717,-0.887743,26.6296,1.6806,2.00493,-0.0365141,
0.0937654,-0.0397022,0.0572804,-1.90256,0.20888,0.152547,-0.0186712,0.00368724,-0.0031703,0.0049098,0.00105313,0.281753,-0.0542641,-0.00110809,-0.211661,-0.0524159,-0.167375,0.45461,-8.57389,3.00247,-0.0315292,0.104172,-0.386918,0.253566,0.44806,2.22475,-0.31645,-0.0134899,0.0937844,-0.0395742,0.0572161,-1.90278,0.19205,0.155435,-0.0185762,0.00333602,0.000938337,0.000364714,0.00118663,0.19933,-0.00831621,0.000259004,0,0,0,0,0,0,0,-0.627255,-33.3717,-0.887743,26.6296,1.6806,2.00493,-0.0365141,
0.0936129,-0.039672,0.0570369,-1.90258,0.206227,0.154588,-0.0186311,0.00245955,-0.00315996,0.00373687,0.00173812,0.26672,-0.0485005,-0.00114899,-0.767303,0.00645863,-0.733081,0.428122,-9.39575,3.60223,-0.0255599,0.103483,-0.387766,0.253729,0.447664,2.20118,-0.312619,-0.0134626,0.0937745,-0.0395716,0.0571379,-1.90276,0.19845,0.155361,-0.018577,-0.0055417,-0.00126659,-0.00467755,0.00422652,0.155407,-0.000889191,8.9057e-05,-1.10972,-0.275616,-0.630283,0.379986,-5.4904,0.928378,-0.0212434,-0.171017,-33.4233,-0.387865,26.5781,1.47918,2.05163,-0.0301054,
0.0935985,-0.0396983,0.0570346,-1.90254,0.207899,0.154374,-0.0186416,0.00160931,-0.00318715,0.00293101,0.00228172,0.25517,-0.044154,-0.00118141,-0.531401,-0.0169923,-0.50366,0.339744,-7.21884,2.71658,-0.0202639,0.103483,-0.387766,0.253729,0.447664,2.20118,-0.312619,-0.0134626,0.0937745,-0.0395716,0.0571379,-1.90276,0.19845,0.155361,-0.018577,-0.0055417,-0.00126659,-0.00467755,0.00422652,0.155407,-0.000889191,8.9057e-05,0,0,0,0,0,0,0,-0.171017,-33.4233,-0.387865,26.5781,1.47918,2.05163,-0.0301054,
0.0935887,-0.0397258,0.0570368,-1.90251,0.209583,0.154152,-0.0186521,0.00104076,-0.00323638,0.0023989,0.00271318,0.246241,-0.0408583,-0.00120771,-0.355344,-0.0307708,-0.332573,0.269665,-5.58023,2.05983,-0.0164375,0.103483,-0.387766,0.253729,0.447664,2.20118,-0.312619,-0.0134626,0.0937745,-0.0395716,0.0571379,-1.90276,0.19845,0.155361,-0.018577,-0.0055417,-0.00126659,-0.00467755,0.00422652,0.155407,-0.000889191,8.9057e-05,0,0,0,0,0,0,0,-0.171017,-33.4233,-0.387865,26.5781,1.47918,2.05163,-0.0301054,
0.0935825,-0.0397541,0.0570427,-1.90247,0.211275,0.153926,-0.0186626,0.00067876,-0.00329729,0.00206712,0.00305577,0.239297,-0.0383452,-0.00122939,-0.226251,-0.0380674,-0.207361,0.214118,-4.34025,1.57069,-0.0135499,0.103483,-0.387766,0.253729,0.447664,2.20118,-0.312619,-0.0134626,0.0937745,-0.0395716,0.0571379,-1.90276,0.19845,0.155361,-0.018577,-0.0055417,-0.00126659,-0.00467755,0.00422652,0.155407,-0.000889191,8.9057e-05,0,0,0,0,0,0,0,-0.171017,-33.4233,-0.387865,26.5781,1.47918,2.05163,-0.0301054,
0.0936129,-0.0396719,0.057037,-1.90258,0.206227,0.154588,-0.0186311,5.32327e-05,-0.0032615,0.00146319,0.00334007,0.232752,-0.0357622,-0.00124602,-0.390955,0.0223711,-0.377453,0.17769,-4.09036,1.61437,-0.0103915,0.101601,-0.390301,0.251929,0.450331,2.19355,-0.311206,-0.013431,0.0937284,-0.0395979,0.0569081,-1.90262,0.200501,0.155571,-0.018574,-0.0025817,0.000122245,-0.0103645,0.00608767,0.0076481,0.00970229,0.00105073,0.370001,0.173605,-0.710864,0.232644,-18.4699,1.32394,0.120209,-0.325741,-33.1218,-0.538622,26.5781,1.49109,1.9793,-0.0566557,
0.0935986,-0.0396983,0.0570347,-1.90254,0.207899,0.154374,-0.0186416,-0.000315269,-0.00326831,0.00111256,0.00356313,0.227993,-0.03396,-0.00125903,-0.230313,-0.00426079,-0.219149,0.139409,-2.97464,1.12637,-0.00813015,0.101598,-0.390301,0.251925,0.450332,2.19354,-0.311208,-0.013431,0.0937284,-0.0395979,0.0569081,-1.90262,0.200501,0.155571,-0.018574,-0.0025817,0.000122245,-0.0103645,0.00608767,0.0076481,0.00970229,0.00105073,0,0,0,0,0,0,0,-0.325741,-33.1218,-0.538622,26.5781,1.49109,1.9793,-0.0566557,
0.0935888,-0.0397258,0.0570369,-1.90251,0.209583,0.154153,-0.0186521,-0.000498419,-0.00330125,0.000944622,0.00373817,0.224497,-0.0326997,-0.0012698,-0.114469,-0.0205862,-0.104959,0.109405,-2.18498,0.787706,-0.00673108,0.101594,-0.390301,0.251922,0.450333,2.19353,-0.311209,-0.0134311,0.0937284,-0.0395979,0.0569081,-1.90262,0.200501,0.155571,-0.018574,-0.0025817,0.000122245,-0.0103645,0.00608767,0.0076481,0.00970229,0.00105073,0,0,0,0,0,0,0,-0.325741,-33.1218,-0.538622,26.5781,1.49109,1.9793,-0.0566557,
0.093383,-0.0396509,0.0566266,-1.90249,0.2063,0.154992,-0.0186357,-0.00168592,-0.00301862,-0.000231794,0.00370534,0.216811,-0.0308343,-0.00127867,-0.742186,0.176647,-0.73526,-0.0205204,-4.80367,1.16586,-0.00554422,0.104098,-0.390079,0.254469,0.449757,2.19241,-0.309321,-0.013428,0.0937284,-0.0395979,0.0569081,-1.90262,0.200501,0.155571,-0.018574,-0.0025817,0.000122245,-0.0103645,0.00608767,0.0076481,0.00970229,0.00105073,0,0,0,0,0,0,0,-0.325741,-33.1218,-0.538622,26.5781,1.49109,1.9793,-0.0566557,
0.0933417,-0.0396685,0.0565972,-1.90246,0.207852,0.15479,-0.0186461,-0.00238,-0.00285323,-0.000918643,0.00370873,0.212264,-0.0297189,-0.00128173,-0.433802,0.103365,-0.42928,0.00212045,-2.84222,0.697118,-0.0019108,0.104079,-0.384457,0.254071,0.445376,2.19278,-0.313637,-0.013405,0.093728,-0.0395906,0.0566186,-1.90257,0.200481,0.15644,-0.0185767,-0.000344111,-8.23239e-05,-0.0102119,-0.000173947,0.00398795,0.022756,0.00152242,0.279698,-0.0255711,0.0190688,-0.782702,-0.457519,1.63171,0.0589608,-0.29797,-33.1972,-0.510851,26.6772,1.43066,2.19811,-0.0630644,
0.0933096,-0.0396882,0.056577,-1.90243,0.209448,0.154577,-0.0186564,-0.00270874,-0.00277617,-0.0012417,0.0037353,0.20971,-0.0290852,-0.00128307,-0.205464,0.0481649,-0.201909,0.0166017,-1.59617,0.396094,-0.000843449,0.10404,-0.384457,0.25403,0.445384,2.19269,-0.313651,-0.013405,0.093728,-0.0395906,0.0566186,-1.90257,0.200481,0.15644,-0.0185767,-0.000344111,-8.23239e-05,-0.0102119,-0.000173947,0.00398795,0.022756,0.00152242,0,0,0,0,0,0,0,-0.29797,-33.1972,-0.510851,26.6772,1.43066,2.19811,-0.0630644,
0.0932851,-0.0397099,0.0565645,-1.9024,0.211074,0.154358,-0.0186667,-0.00277799,-0.00276301,-0.00130572,0.00377582,0.208409,-0.0287562,-0.00128451,-0.0432826,0.00822089,-0.0400118,0.0253291,-0.813205,0.205578,-0.000899018,0.104002,-0.384458,0.253991,0.445391,2.19259,-0.313666,-0.0134051,0.093728,-0.0395906,0.0566186,-1.90257,0.200481,0.15644,-0.0185767,-0.000344111,-8.23239e-05,-0.0102119,-0.000173947,0.00398795,0.022756,0.00152242,0,0,0,0,0,0,0,-0.29797,-33.1972,-0.510851,26.6772,1.43066,2.19811,-0.0630644,
0.0934049,-0.0396059,0.0563597,-1.90247,0.206196,0.155976,-0.0186385,-0.00343872,-0.00246991,-0.00196032,0.00366668,0.203657,-0.0274009,-0.00129067,-0.412952,0.18319,-0.409127,-0.0682155,-2.96971,0.847065,-0.00384655,0.129507,-0.38232,0.279956,0.439485,2.18355,-0.296325,-0.0133723,0.093728,-0.0395906,0.0566186,-1.90257,0.200481,0.15644,-0.0185767,-0.000344111,-8.23239e-05,-0.0102119,-0.000173947,0.00398795,0.022756,0.00152242,0,0,0,0,0,0,0,-0.29797,-33.1972,-0.510851,26.6772,1.43066,2.19811,-0.0630644,
0.0933662,-0.0396197,0.0563329,-1.90244,0.207738,0.155784,-0.0186488,-0.00371857,-0.00232092,-0.00223731,0.00361948,0.201468,-0.0267276,-0.00129104,-0.174904,0.0931203,-0.173121,-0.029501,-1.36817,0.420813,-0.000232698,0.128896,-0.380144,0.279068,0.437839,2.18255,-0.298202,-0.0133645,0.0937003,-0.0396007,0.0563559,-1.90255,0.200489,0.156778,-0.0185782,0.00504934,0.000120343,-0.00919272,0.000365927,0.00328807,-0.000289468,-0.000404668,0.674182,0.0253334,0.127399,0.0674842,-0.0874843,-2.88068,-0.240885,-0.274166,-32.9472,-0.586229,26.3043,1.36932,2.2503,-0.0301054,
0.0933364,-0.0396364,0.056315,-1.90241,0.209323,0.15558,-0.0186591,-0.00372063,-0.0022753,-0.00223748,0.00361375,0.200801,-0.0264662,-0.00128994,-0.00129083,0.0285142,-0.000101183,-0.00358036,-0.416542,0.163418,0.000689534,0.128472,-0.380131,0.278639,0.437906,2.18155,-0.29833,-0.0133657,0.0937003,-0.0396007,0.0563559,-1.90255,0.200489,0.156778,-0.0185782,0.00504934,0.000120343,-0.00919272,0.000365927,0.00328807,-0.000289468,-0.000404668,0,0,0,0,0,0,0,-0.274166,-32.9472,-0.586229,26.3043,1.36932,2.2503,-0.0301054,
0.0933141,-0.0396556,0.0563048,-1.90238,0.210937,0.155369,-0.0186694,-0.00353175,-0.00230091,-0.00204658,0.00363498,0.201005,-0.0264447,-0.00128924,0.11805,-0.0160061,0.119311,0.0132736,0.12723,0.0134239,0.000437253,0.128065,-0.380113,0.27822,0.437975,2.18057,-0.298453,-0.0133667,0.0937003,-0.0396007,0.0563559,-1.90255,0.200489,0.156778,-0.0185782,0.00504934,0.000120343,-0.00919272,0.000365927,0.00328807,-0.000289468,-0.000404668,0,0,0,0,0,0,0,-0.274166,-32.9472,-0.586229,26.3043,1.36932,2.2503,-0.0301054,
0.0935021,-0.039605,0.0562234,-1.90252,0.206159,0.156286,-0.0186393,-0.00344012,-0.00198161,-0.0019415,0.00326949,0.19723,-0.0243823,-0.00128876,0.057267,0.19956,0.0656735,-0.228436,-2.35941,1.28897,0.000298359,0.385286,-0.356799,0.540411,0.374439,2.1766,-0.180983,-0.0131027,0.0937003,-0.0396007,0.0563559,-1.90255,0.200489,0.156778,-0.0185782,0.00504934,0.000120343,-0.00919272,0.000365927,0.00328807,-0.000289468,-0.000404668,0,0,0,0,0,0,0,-0.274166,-32.9472,-0.586229,26.3043,1.36932,2.2503,-0.0301054,
0.0934869,-0.0396139,0.0562205,-1.9025,0.207674,0.156152,-0.0186494,-0.00313184,-0.00180884,-0.00162588,0.00305495,0.195664,-0.0228581,-0.00128409,0.192678,0.107983,0.19726,-0.134086,-0.978995,0.952672,0.00291628,0.38112,-0.355038,0.536102,0.375394,2.16688,-0.181697,-0.0131342,0.0936761,-0.0395551,0.0561862,-1.90258,0.200455,0.156769,-0.0185734,-0.00242947,0.00588982,-0.00184361,-0.000361177,0.00317888,-0.00137474,0.00150193,-0.934851,0.721185,0.918639,-0.0908879,-0.0136489,-0.135659,0.238325,0.00751081,-33.3717,-0.387865,26.6772,1.65588,2.32354,-0.0630644,
0.09348,-0.0396259,0.0562258,-1.90248,0.209226,0.156014,-0.0186595,-0.00267724,-0.0017475,-0.00116719,0.00294608,0.195337,-0.0217178,-0.00127919,0.284125,0.0383321,0.286687,-0.0680444,-0.203895,0.712677,0.00306281,0.377218,-0.354766,0.532375,0.375838,2.15683,-0.182593,-0.0131553,0.0936761,-0.0395551,0.0561862,-1.90258,0.200455,0.156769,-0.0185734,-0.00242947,0.00588982,-0.00184361,-0.000361177,0.00317888,-0.00137474,0.00150193,0,0,0,0,0,0,0,0.00751081,-33.3717,-0.387865,26.6772,1.65588,2.32354,-0.0630644,
0.0939288,-0.0393641,0.0565253,-1.9029,0.207121,0.157928,-0.0186116,0.000617486,-0.000343055,0.00193788,0.00118549,0.198694,-0.0104252,-0.00116954,2.0592,0.877781,1.94067,-1.10037,2.09775,7.05785,0.0685352,2.65765,-0.0261188,2.98706,-0.353663,2.86768,0.348835,-0.0125057,0.0936761,-0.0395551,0.0561862,-1.90258,0.200455,0.156769,-0.0185734,-0.00242947,0.00588982,-0.00184361,-0.000361177,0.00317888,-0.00137474,0.00150193,0,0,0,0,0,0,0,0.00751081,-33.3717,-0.387865,26.6772,1.65588,2.32354,-0.0630644,
0.0940573,-0.0393245,0.0566589,-1.90294,0.208881,0.158206,-0.018618,0.00370766,0.000717217,0.00488904,-5.14032e-05,0.202954,-0.00139588,-0.00109698,1.93136,0.66267,1.84447,-0.773056,2.66243,5.64333,0.0453481,2.61642,0.00623171,2.99129,-0.36798,2.73886,0.388594,-0.0119975,0.0936761,-0.0395551,0.0561862,-1.90258,0.200455,0.156769,-0.0185734,-0.00242947,0.00588982,-0.00184361,-0.000361177,0.00317888,-0.00137474,0.00150193,0,0,0,0,0,0,0,0.00751081,-33.3717,-0.387865,26.6772,1.65588,2.32354,-0.0630644,
0.0942004,-0.0392882,0.0568077,-1.90298,0.210673,0.158479,-0.0186249,0.00654325,0.00147985,0.00763122,-0.000907472,0.20716,0.00572178,-0.00104902,1.77224,0.476646,1.71387,-0.535043,2.62901,4.44854,0.029972,2.65454,0.0875481,2.8826,-0.338577,2.62385,0.408035,-0.0080736,0.0936615,-0.0394963,0.0561563,-1.9026,0.200437,0.156759,-0.0185783,-0.00198907,-0.00225131,-0.00372233,0.00168173,0.00128193,-0.00130059,-0.000397509,0.0550495,-1.01764,-0.23484,0.255364,-0.237119,0.0092684,-0.23743,0.539127,-33.1218,0.26277,26.6772,1.82708,2.36382,-0.0227812,
0.094355,-0.0392556,0.0569686,-1.90301,0.212475,0.158746,-0.018632,0.00910017,0.0019988,0.0101287,-0.0014852,0.210765,0.0112486,-0.00101812,1.59808,0.324342,1.5609,-0.361081,2.25343,3.45428,0.0193159,2.65145,0.156547,2.73299,-0.296801,2.58746,0.384579,-0.00794128,0.0936615,-0.0394963,0.0561563,-1.9026,0.200437,0.156759,-0.0185783,-0.00198907,-0.00225131,-0.00372233,0.00168173,0.00128193,-0.00130059,-0.000397509,0,0,0,0,0,0,0,0.539127,-33.1218,0.26277,26.6772,1.82708,2.36382,-0.0227812,
0.0955233,-0.0398689,0.0579834,-1.90526,0.210703,0.164392,-0.0182486,0.0208659,0.00154715,0.0214842,-0.013967,0.234524,0.0512396,0.000554464,7.35356,-0.282282,7.09718,-7.80111,14.8492,24.9944,0.982864,11.4561,-1.24976,11.4323,-6.84523,4.77329,2.53563,0.0937475,0.0936615,-0.0394963,0.0561563,-1.9026,0.200437,0.156759,-0.0185783,-0.00198907,-0.00225131,-0.00372233,0.00168173,0.00128193,-0.00130059,-0.000397509,0,0,0,0,0,0,0,0.539127,-33.1218,0.26277,26.6772,1.82708,2.36382,-0.0227812,
0.0961147,-0.0398505,0.0585662,-1.90576,0.213384,0.166048,-0.0181975,0.0314776,0.00169768,0.0317574,-0.0234719,0.254657,0.0823841,0.00172176,6.63234,0.094081,6.42074,-5.94061,12.5831,19.4653,0.729563,10.8601,-0.768103,10.8369,-6.72151,4.68259,2.382,0.0821867,0.0936615,-0.0394963,0.0561563,-1.9026,0.200437,0.156759,-0.0185783,-0.00198907,-0.00225131,-0.00372233,0.00168173,0.00128193,-0.00130059,-0.000397509,0,0,0,0,0,0,0,0.539127,-33.1218,0.26277,26.6772,1.82708,2.36382,-0.0227812,
0.0967419,-0.0398172,0.0591844,-1.90623,0.216041,0.167653,-0.0181491,0.0408615,0.00219053,0.0408623,-0.0306809,0.270143,0.106036,0.00258591,5.86492,0.308035,5.69056,-4.50563,9.67878,14.7822,0.540088,10.3978,-0.363987,10.3524,-6.59964,4.51057,2.24802,0.0738752,0.0936615,-0.0394963,0.0561563,-1.9026,0.200437,0.156759,-0.0185783,-0.00198907,-0.00225131,-0.00372233,0.00168173,0.00128193,-0.00130059,-0.000397509,0,0,0,0,0,0,0,0.539127,-33.1218,0.26277,26.6772,1.82708,2.36382,-0.0227812,
0.0973952,-0.0397728,0.0598285,-1.90669,0.218622,0.169199,-0.0181029,0.0490222,0.00286299,0.0487925,-0.0361223,0.280641,0.123464,0.00322453,5.10043,0.420289,4.95642,-3.40087,6.5613,10.8926,0.399138,10.0211,-0.0209038,9.95693,-6.48057,4.29152,2.13234,0.0676623,0.0940771,-0.0391416,0.0570246,-1.90261,0.20045,0.156781,-0.018579,0.0209292,0.0158145,0.0360353,0.00206759,0.00338827,-0.00139345,0.000353261,2.86479,2.25823,4.96971,0.0482326,0.263292,-0.011607,0.0938463,3.25275,-32.4751,3.18666,26.1575,2.16949,2.25762,-0.050247,
0.0969535,-0.0392365,0.060107,-1.90729,0.213301,0.166908,-0.0181275,0.0579305,0.00331664,0.0587631,-0.052684,0.301051,0.152419,0.00451511,5.56769,0.283529,6.23163,-10.351,12.7559,18.097,0.806615,14.2514,1.04091,14.8144,-12.5337,6.02523,3.31361,0.132842,0.0940771,-0.0391416,0.0570246,-1.90261,0.20045,0.156781,-0.018579,0.0209292,0.0158145,0.0360353,0.00206759,0.00338827,-0.00139345,0.000353261,0,0,0,0,0,0,0,3.25275,-32.4751,3.18666,26.1575,2.16949,2.25762,-0.050247,
0.0977511,-0.0391875,0.0609453,-1.90822,0.216292,0.168973,-0.0180546,0.0662838,0.00387802,0.0679668,-0.0655146,0.31562,0.173567,0.00543637,5.22085,0.350862,5.75232,-8.01915,9.10581,13.2177,0.575789,13.5368,0.883945,14.0929,-12.4646,5.65208,3.03073,0.117157,0.0940771,-0.0391416,0.0570246,-1.90261,0.20045,0.156781,-0.018579,0.0209292,0.0158145,0.0360353,0.00206759,0.00338827,-0.00139345,0.000353261,0,0,0,0,0,0,0,3.25275,-32.4751,3.18666,26.1575,2.16949,2.25762,-0.050247,
0.0985846,-0.0391369,0.0618195,-1.90914,0.219141,0.170946,-0.0179851,0.0738654,0.0043672,0.0762289,-0.0754072,0.32371,0.188182,0.00608622,4.73845,0.305739,5.16376,-6.18289,5.05604,9.13443,0.406153,12.9626,0.793878,13.5114,-12.3627,5.22881,2.79764,0.105697,0.0940771,-0.0391416,0.0570246,-1.90261,0.20045,0.156781,-0.018579,0.0209292,0.0158145,0.0360353,0.00206759,0.00338827,-0.00139345,0.000353261,0,0,0,0,0,0,0,3.25275,-32.4751,3.18666,26.1575,2.16949,2.25762,-0.050247,
0.0994436,-0.0390882,0.0627192,-1.91005,0.2218,0.172824,-0.0179181,0.0805674,0.00471022,0.0834755,-0.0829873,0.325436,0.197502,0.00654341,4.18878,0.214388,4.52915,-4.73753,1.07912,5.82462,0.285746,12.4854,0.784203,13.0289,-12.2284,4.78157,2.61418,0.097167,0.0959256,-0.038161,0.0611082,-1.90283,0.201231,0.157914,-0.0185759,0.0666189,0.0419723,0.150236,-0.0140344,0.0111297,0.0679909,1.1419e-05,5.7112,3.26973,14.2751,-2.01275,0.967679,8.67304,-0.0427303,9.23542,-30.2297,9.11378,23.7653,3.2077,1.78612,-0.0429228,
0.100619,-0.0379917,0.0657933,-1.90943,0.215827,0.170682,-0.0181447,0.0895643,0.00590129,0.0918272,-0.0998086,0.342158,0.223208,0.00719739,5.62308,0.744416,5.21984,-10.5133,10.451,16.0663,0.408735,15.7235,1.44904,15.6358,-17.7438,6.28533,3.92202,0.136858,0.0959256,-0.038161,0.0611082,-1.90283,0.201231,0.157914,-0.0185759,0.0666189,0.0419723,0.150236,-0.0140344,0.0111297,0.0679909,1.1419e-05,0,0,0,0,0,0,0,9.23542,-30.2297,9.11378,23.7653,3.2077,1.78612,-0.0429228,
0.101644,-0.0378945,0.0668162,-1.91074,0.218928,0.173207,-0.0180694,0.0972762,0.00715037,0.0990341,-0.112704,0.351269,0.241678,0.00763994,4.81992,0.780673,4.50429,-8.05964,5.69437,11.5437,0.276596,14.9699,1.37578,14.9106,-17.5995,5.75521,3.63491,0.121201,0.0959256,-0.038161,0.0611082,-1.90283,0.201231,0.157914,-0.0185759,0.0666189,0.0419723,0.150236,-0.0140344,0.0111297,0.0679909,1.1419e-05,0,0,0,0,0,0,0,9.23542,-30.2297,9.11378,23.7653,3.2077,1.78612,-0.0429228,
0.102682,-0.0377909,0.0678532,-1.91204,0.221797,0.175644,-0.0179968,0.103791,0.00831068,0.105153,-0.122518,0.352732,0.254261,0.00792705,4.07165,0.725197,3.82447,-6.13371,0.914507,7.86448,0.179441,14.3691,1.37064,14.3288,-17.42,5.20651,3.40572,0.109633,0.0959256,-0.038161,0.0611082,-1.90283,0.201231,0.157914,-0.0185759,0.0666189,0.0419723,0.150236,-0.0140344,0.0111297,0.0679909,1.1419e-05,0,0,0,0,0,0,0,9.23542,-30.2297,9.11378,23.7653,3.2077,1.78612,-0.0429228,
0.103729,-0.0376838,0.0688985,-1.91331,0.224398,0.177994,-0.0179259,0.109203,0.00932451,0.110255,-0.129911,0.347201,0.262164,0.00811365,3.38286,0.633645,3.1886,-4.62051,-3.45723,4.93954,0.116626,13.88,1.4918,13.8532,-17.1894,4.66375,3.24174,0.101351,0.0993624,-0.0364513,0.0680183,-1.90482,0.201812,0.161249,-0.0185748,0.126521,0.0697248,0.236606,-0.0901501,0.0113214,0.119407,0.000839085,7.4878,3.46906,10.7963,-9.51447,0.0239573,6.42699,0.103458,5.83942,-28.0318,5.68605,19.9765,2.76733,1.0244,-0.050247,
0.106397,-0.0358466,0.0752623,-1.91548,0.217795,0.177667,-0.0181727,0.115441,0.00950689,0.117003,-0.147014,0.342136,0.279257,0.00821973,3.89871,0.113986,4.21757,-10.6894,-3.16525,10.683,0.0663004,14.5152,0.651793,14.9038,-22.6024,5.43818,4.30717,0.108182,0.0993624,-0.0364513,0.0680183,-1.90482,0.201812,0.161249,-0.0185748,0.126521,0.0697248,0.236606,-0.0901501,0.0113214,0.119407,0.000839085,0,0,0,0,0,0,0,5.83942,-28.0318,5.68605,19.9765,2.76733,1.0244,-0.050247,
0.107511,-0.0357733,0.0764048,-1.91717,0.220093,0.180401,-0.0181038,0.120209,0.0094369,0.122165,-0.159888,0.33117,0.291763,0.00829626,2.97999,-0.0437444,3.22604,-8.04632,-6.85374,7.81607,0.0478319,14.0506,0.607741,14.4328,-22.3431,4.80331,4.09476,0.0997801,0.0993624,-0.0364513,0.0680183,-1.90482,0.201812,0.161249,-0.0185748,0.126521,0.0697248,0.236606,-0.0901501,0.0113214,0.119407,0.000839085,0,0,0,0,0,0,0,5.83942,-28.0318,5.68605,19.9765,2.76733,1.0244,-0.050247,
0.108616,-0.0357089,0.0775373,-1.91884,0.222106,0.183086,-0.0180356,0.123786,0.00916088,0.126045,-0.16947,0.315242,0.300544,0.00834377,2.23533,-0.17251,2.4253,-5.98881,-9.95523,5.48846,0.0296961,13.6785,0.584241,14.054,-22.0691,4.19478,3.91524,0.0942889,0.0993624,-0.0364513,0.0680183,-1.90482,0.201812,0.161249,-0.0185748,0.126521,0.0697248,0.236606,-0.0901501,0.0113214,0.119407,0.000839085,0,0,0,0,0,0,0,5.83942,-28.0318,5.68605,19.9765,2.76733,1.0244,-0.050247,
0.10971,-0.0356527,0.0786592,-1.92047,0.223836,0.185722,-0.0179674,0.126388,0.00873445,0.128882,-0.176481,0.295441,0.306324,0.00837868,1.62627,-0.266519,1.77273,-4.38175,-12.3753,3.6124,0.0218161,13.3747,0.67324,13.7433,-21.7527,3.65032,3.80053,0.0898928,0.104545,-0.0340686,0.0772993,-1.90914,0.20186,0.1664,-0.018577,0.171094,0.088654,0.28986,-0.161949,-0.00968864,0.164318,0.000608587,5.57162,2.36615,6.65679,-8.9749,-2.62625,5.61387,-0.0288122,3.76056,-28.5793,3.53578,20.7501,2.34069,1.08391,-0.0301054,
0.111397,-0.033045,0.0842435,-1.92024,0.215541,0.183073,-0.018306,0.13219,0.0110784,0.134468,-0.194474,0.307803,0.333665,0.00828434,3.62653,1.46494,3.49117,-11.2458,7.72616,17.0881,-0.0589589,14.3885,0.484678,14.5157,-26.8118,5.36733,5.65089,0.0930254,0.104545,-0.0340686,0.0772993,-1.90914,0.20186,0.1664,-0.018577,0.171094,0.088654,0.28986,-0.161949,-0.00968864,0.164318,0.000608587,0,0,0,0,0,0,0,3.76056,-28.5793,3.53578,20.7501,2.34069,1.08391,-0.0301054,
0.11261,-0.0328957,0.0854674,-1.92231,0.218142,0.186603,-0.0182421,0.136089,0.0125937,0.138171,-0.207464,0.311265,0.355175,0.00822687,2.43665,0.947118,2.31498,-8.11873,2.16382,13.444,-0.0359212,14.0309,0.573375,14.1593,-26.4676,4.69646,5.41298,0.0880122,0.104545,-0.0340686,0.0772993,-1.90914,0.20186,0.1664,-0.018577,0.171094,0.088654,0.28986,-0.161949,-0.00968864,0.164318,0.000608587,0,0,0,0,0,0,0,3.76056,-28.5793,3.53578,20.7501,2.34069,1.08391,-0.0301054,
0.113799,-0.0327602,0.0866662,-1.92434,0.220453,0.190097,-0.0181775,0.138597,0.0134629,0.140509,-0.216634,0.306785,0.371508,0.00819608,1.5677,0.54324,1.46082,-5.73122,-2.79988,10.2077,-0.0192458,13.7415,0.664169,13.8691,-26.1139,4.07686,5.20136,0.0848431,0.104545,-0.0340686,0.0772993,-1.90914,0.20186,0.1664,-0.018577,0.171094,0.088654,0.28986,-0.161949,-0.00968864,0.164318,0.000608587,0,0,0,0,0,0,0,3.76056,-28.5793,3.53578,20.7501,2.34069,1.08391,-0.0301054,
0.114967,-0.0326369,0.0878432,-1.92632,0.222468,0.193544,-0.0181126,0.140068,0.0138519,0.14183,-0.222901,0.295822,0.383366,0.00818002,0.919045,0.243107,0.826038,-3.91662,-6.85207,7.41139,-0.0100333,13.5107,0.786862,13.6358,-25.7273,3.53083,5.04062,0.0824447,0.110037,-0.031848,0.0871132,-1.91661,0.201819,0.173226,-0.0185778,0.148742,0.0975685,0.309321,-0.255091,-0.00467668,0.245012,-0.000725669,-2.79399,1.1143,2.4326,-11.6427,0.626495,10.0868,-0.166782,2.26093,-29.0553,1.96077,21.6229,1.82708,1.30913,-0.0227812,
0.116867,-0.0299996,0.0940296,-1.92768,0.209742,0.187539,-0.018315,0.142531,0.01758,0.144192,-0.230165,0.276222,0.382031,0.00809696,1.53955,2.33005,1.47585,-4.54006,-12.2501,-0.834028,-0.0519162,13.3131,0.853262,13.4351,-25.3708,3.01893,4.87367,0.0813208,0.110037,-0.031848,0.0871132,-1.91661,0.201819,0.173226,-0.0185778,0.148742,0.0975685,0.309321,-0.255091,-0.00467668,0.245012,-0.000725669,0,0,0,0,0,0,0,2.26093,-29.0553,1.96077,21.6229,1.82708,1.30913,-0.0227812,
0.118047,-0.0297748,0.0952195,-1.9297,0.211136,0.190568,-0.0182516,0.143543,0.0196843,0.145099,-0.234455,0.255836,0.381341,0.00806232,0.63248,1.31518,0.566995,-2.68142,-12.7414,-0.431301,-0.0216469,13.1436,0.903944,13.2616,-25.0165,2.56125,4.72531,0.0806069,0.110037,-0.031848,0.0871132,-1.91661,0.201819,0.173226,-0.0185778,0.148742,0.0975685,0.309321,-0.255091,-0.00467668,0.245012,-0.000725669,0,0,0,0,0,0,0,2.26093,-29.0553,1.96077,21.6229,1.82708,1.30913,-0.0227812,
0.119197,-0.029579,0.0963772,-1.93166,0.21233,0.193594,-0.0181874,0.143569,0.0206423,0.145024,-0.236562,0.234523,0.380738,0.00805561,0.0161895,0.598765,-0.0471642,-1.31721,-13.3207,-0.37679,-0.00419726,12.9947,0.939636,13.1086,-24.665,2.14929,4.58865,0.0804912,0.110037,-0.031848,0.0871132,-1.91661,0.201819,0.173226,-0.0185778,0.148742,0.0975685,0.309321,-0.255091,-0.00467668,0.245012,-0.000725669,0,0,0,0,0,0,0,2.26093,-29.0553,1.96077,21.6229,1.82708,1.30913,-0.0227812,
0.121438,-0.026726,0.104004,-1.93716,0.20587,0.195193,-0.0183035,0.144444,0.0248853,0.145812,-0.239568,0.206681,0.369937,0.00799793,0.546684,2.65191,0.492519,-1.87826,-17.4008,-6.75097,-0.0360506,12.734,1.01236,12.836,-23.943,1.47831,4.36844,0.0806144,0.114758,-0.0292504,0.0972495,-1.92618,0.201844,0.182688,-0.0185786,0.141275,0.113071,0.300926,-0.312667,-0.00635761,0.285537,1.22898e-05,-0.933452,1.93776,-1.04934,-7.19708,-0.210117,5.06565,0.0922448,0.360599,-31.4,0.112013,25.7092,1.55883,1.76049,-0.0163725,
0.122579,-0.0264434,0.105152,-1.93911,0.206508,0.197839,-0.0182405,0.144069,0.0269741,0.145344,-0.2403,0.181277,0.362101,0.0079744,-0.234443,1.30549,-0.292203,-0.457454,-15.878,-4.89726,-0.0147071,12.6112,1.01708,12.7085,-23.6006,1.19591,4.26141,0.0807639,0.114758,-0.0292504,0.0972495,-1.92618,0.201844,0.182688,-0.0185786,0.141275,0.113071,0.300926,-0.312667,-0.00635761,0.285537,1.22898e-05,0,0,0,0,0,0,0,0.360599,-31.4,0.112013,25.7092,1.55883,1.76049,-0.0163725,
0.123684,-0.0262023,0.106264,-1.941,0.207017,0.200502,-0.018177,0.142885,0.0276071,0.144069,-0.23943,0.157757,0.356274,0.0079667,-0.739533,0.395624,-0.797128,0.543396,-14.6999,-3.642,-0.00480684,12.4906,1.0157,12.5834,-23.2605,0.947202,4.15945,0.0810027,0.114758,-0.0292504,0.0972495,-1.92618,0.201844,0.182688,-0.0185786,0.141275,0.113071,0.300926,-0.312667,-0.00635761,0.285537,1.22898e-05,0,0,0,0,0,0,0,0.360599,-31.4,0.112013,25.7092,1.55883,1.76049,-0.0163725,
0.124759,-0.0259942,0.107345,-1.94283,0.207405,0.203171,-0.0181134,0.141188,0.0272891,0.142283,-0.237453,0.135912,0.351727,0.00796184,-1.06061,-0.198767,-1.11616,1.23549,-13.653,-2.84181,-0.00304054,12.3697,1.01026,12.4578,-22.9225,0.732099,4.06405,0.0810838,0.114758,-0.0292504,0.0972495,-1.92618,0.201844,0.182688,-0.0185786,0.141275,0.113071,0.300926,-0.312667,-0.00635761,0.285537,1.22898e-05,0,0,0,0,0,0,0,0.360599,-31.4,0.112013,25.7092,1.55883,1.76049,-0.0163725,
0.121398,-0.0266782,0.103956,-1.93664,0.203873,0.193992,-0.0183025,0.141961,0.0302087,0.143009,-0.237684,0.117185,0.339986,0.00788377,0.482664,1.82474,0.454061,-0.144236,-11.7044,-7.33791,-0.0487937,12.2487,0.975975,12.3258,-22.5716,0.553036,3.97622,0.0811717,0.119082,-0.0264103,0.106417,-1.93694,0.201644,0.192034,-0.0185744,0.12195,0.107554,0.251321,-0.306896,-0.0267116,0.276558,0.000892458,-2.41556,-0.689534,-6.20064,0.721455,-2.54425,-1.12239,0.110021,-4.17798,-36.3948,-4.21233,33.6279,1.25946,3.56316,-0.0630644,
0.122509,-0.0263966,0.105073,-1.93849,0.204119,0.19637,-0.0182414,0.141342,0.0312066,0.142332,-0.236236,0.099908,0.331431,0.00783439,-0.386559,0.623714,-0.423605,0.904818,-10.7982,-5.34732,-0.0308647,12.1239,0.966164,12.1965,-22.2369,0.391797,3.88912,0.0810518,0.119082,-0.0264103,0.106417,-1.93694,0.201644,0.192034,-0.0185744,0.12195,0.107554,0.251321,-0.306896,-0.0267116,0.276558,0.000892458,0,0,0,0,0,0,0,-4.17798,-36.3948,-4.21233,33.6279,1.25946,3.56316,-0.0630644,
0.123579,-0.026157,0.106149,-1.94027,0.204276,0.198769,-0.0181802,0.13983,0.0309559,0.140754,-0.23365,0.0838506,0.325122,0.00779746,-0.944904,-0.156674,-0.985869,1.61671,-10.0358,-3.94274,-0.0230781,11.9964,0.955469,12.0646,-21.9036,0.251833,3.80449,0.080865,0.119082,-0.0264103,0.106417,-1.93694,0.201644,0.192034,-0.0185744,0.12195,0.107554,0.251321,-0.306896,-0.0267116,0.276558,0.000892458,0,0,0,0,0,0,0,-4.17798,-36.3948,-4.21233,33.6279,1.25946,3.56316,-0.0630644,
0.124615,-0.0259504,0.107189,-1.94201,0.204351,0.201178,-0.0181193,0.137762,0.0299314,0.138619,-0.230315,0.0689592,0.32032,0.00776202,-1.29242,-0.640322,-1.33466,2.0845,-9.30717,-3.00147,-0.0221477,11.8655,0.944772,11.9293,-21.5713,0.132606,3.72356,0.0804895,0.119082,-0.0264103,0.106417,-1.93694,0.201644,0.192034,-0.0185744,0.12195,0.107554,0.251321,-0.306896,-0.0267116,0.276558,0.000892458,0,0,0,0,0,0,0,-4.17798,-36.3948,-4.21233,33.6279,1.25946,3.56316,-0.0630644,
0.124989,-0.0238862,0.112371,-1.94683,0.20171,0.202475,-0.0182908,0.136637,0.0321727,0.137435,-0.229181,0.0546976,0.310221,0.00768704,-0.703146,1.40078,-0.740083,0.708755,-8.91348,-6.31199,-0.0468685,11.7314,0.934303,11.7909,-21.2399,0.0296451,3.64447,0.0800616,0.119082,-0.0264103,0.106417,-1.93694,0.201644,0.192034,-0.0185744,0.12195,0.107554,0.251321,-0.306896,-0.0267116,0.276558,0.000892458,0,0,0,0,0,0,0,-4.17798,-36.3948,-4.21233,33.6279,1.25946,3.56316,-0.0630644,
0.126008,-0.0236093,0.113393,-1.94856,0.201644,0.204664,-0.0182319,0.13477,0.0326613,0.135501,-0.22669,0.0421107,0.302901,0.00762344,-1.16693,0.305381,-1.20834,1.55664,-7.86682,-4.57478,-0.0397494,11.6218,0.848401,11.6696,-20.9021,-0.0459623,3.56486,0.0794494,0.122688,-0.0238697,0.113768,-1.94624,0.201201,0.198388,-0.0185774,0.0826135,0.0349794,0.211563,-0.240062,-0.0337493,0.124156,-0.000350589,-4.91708,-9.07185,-4.96981,8.3542,-0.879702,-19.0503,-0.155381,-3.77331,-42.4092,-3.96239,38.4125,1.36932,4.28643,-0.0566557,
0.126994,-0.0233732,0.114382,-1.95024,0.201532,0.206873,-0.0181733,0.132464,0.0320332,0.133126,-0.223305,0.0309006,0.297533,0.00756211,-1.44165,-0.39255,-1.48462,2.11574,-7.00631,-3.3549,-0.0383291,11.4814,0.839384,11.525,-20.5723,-0.120908,3.4902,0.0787831,0.122688,-0.0238697,0.113768,-1.94624,0.201201,0.198388,-0.0185774,0.0826135,0.0349794,0.211563,-0.240062,-0.0337493,0.124156,-0.000350589,0,0,0,0,0,0,0,-3.77331,-42.4092,-3.96239,38.4125,1.36932,4.28643,-0.0566557,
0.127817,-0.0227717,0.118925,-1.95488,0.200376,0.207282,-0.0182917,0.129852,0.0301357,0.130437,-0.21889,0.0200172,0.28891,0.00746892,-1.63244,-1.18594,-1.68059,2.75906,-6.80214,-5.38932,-0.0582446,11.192,0.824217,11.2275,-19.9147,-0.238058,3.34685,0.0770989,0.122688,-0.0238697,0.113768,-1.94624,0.201201,0.198388,-0.0185774,0.0826135,0.0349794,0.211563,-0.240062,-0.0337493,0.124156,-0.000350589,0,0,0,0,0,0,0,-3.77331,-42.4092,-3.96239,38.4125,1.36932,4.28643,-0.0566557,
0.128745,-0.0226081,0.119856,-1.95644,0.200163,0.209362,-0.0182357,0.127099,0.0281994,0.127611,-0.214192,0.0106957,0.28314,0.00737392,-1.72041,-1.2102,-1.76589,2.93657,-5.82595,-3.60676,-0.0593714,11.0436,0.818066,11.075,-19.5867,-0.283324,3.27776,0.076111,0.122688,-0.0238697,0.113768,-1.94624,0.201201,0.198388,-0.0185774,0.0826135,0.0349794,0.211563,-0.240062,-0.0337493,0.124156,-0.000350589,0,0,0,0,0,0,0,-3.77331,-42.4092,-3.96239,38.4125,1.36932,4.28643,-0.0566557,
0.12965,-0.022459,0.120762,-1.95796,0.199927,0.211465,-0.0181807,0.124304,0.0262869,0.124748,-0.209372,0.00265482,0.279077,0.00727553,-1.74711,-1.19527,-1.78989,3.01228,-5.02553,-2.539,-0.0614955,10.8904,0.757807,10.9101,-19.2352,-0.318562,3.22154,0.0749844,0.124881,-0.0216413,0.119942,-1.9533,0.200396,0.201672,-0.0185837,0.051805,0.00754741,0.15292,-0.170707,-0.0334578,0.0364138,-0.00148449,-3.85106,-3.429,-7.33032,8.66934,0.0364317,-10.9677,-0.141737,-3.57098,-40.5367,-3.5855,36.0202,1.43066,4.11431,-0.00996382,
0.130534,-0.0223223,0.121647,-1.95944,0.19967,0.213573,-0.0181266,0.121529,0.0244473,0.121908,-0.204541,-0.00429825,0.275958,0.00717252,-1.73442,-1.14975,-1.77462,3.01958,-4.34567,-1.94926,-0.0643828,10.7381,0.75331,10.7539,-18.9082,-0.350746,3.15526,0.0738515,0.124881,-0.0216413,0.119942,-1.9533,0.200396,0.201672,-0.0185837,0.051805,0.00754741,0.15292,-0.170707,-0.0334578,0.0364138,-0.00148449,0,0,0,0,0,0,0,-3.57098,-40.5367,-3.5855,36.0202,1.43066,4.11431,-0.00996382,
0.129082,-0.021298,0.124155,-1.96086,0.198875,0.209962,-0.0183005,0.118053,0.0219674,0.118358,-0.199828,-0.0117679,0.270106,0.00708864,-2.17231,-1.54997,-2.21879,2.94542,-4.66851,-3.65747,-0.0524253,10.5842,0.74946,10.5962,-18.5817,-0.378139,3.09004,0.0726764,0.124881,-0.0216413,0.119942,-1.9533,0.200396,0.201672,-0.0185837,0.051805,0.00754741,0.15292,-0.170707,-0.0334578,0.0364138,-0.00148449,0,0,0,0,0,0,0,-3.57098,-40.5367,-3.5855,36.0202,1.43066,4.11431,-0.00996382,
0.129905,-0.021199,0.124978,-1.96227,0.198537,0.211973,-0.0182479,0.115009,0.0200484,0.115248,-0.195185,-0.0178698,0.266341,0.00698586,-1.90261,-1.19934,-1.94366,2.90203,-3.81373,-2.35341,-0.0642371,10.4289,0.746268,10.4372,-18.2557,-0.400771,3.02625,0.0714275,0.124881,-0.0216413,0.119942,-1.9533,0.200396,0.201672,-0.0185837,0.051805,0.00754741,0.15292,-0.170707,-0.0334578,0.0364138,-0.00148449,0,0,0,0,0,0,0,-3.57098,-40.5367,-3.5855,36.0202,1.43066,4.11431,-0.00996382,
0.130716,-0.0211,0.125788,-1.96365,0.198195,0.213994,-0.0181966,0.11228,0.018513,0.11246,-0.190642,-0.0228309,0.2636,0.00687033,-1.7054,-0.959649,-1.74242,2.83948,-3.10065,-1.71284,-0.0722041,10.2711,0.673735,10.274,-17.8896,-0.416726,2.9883,0.0699905,0.126655,-0.0208019,0.12461,-1.95957,0.199879,0.202183,-0.0185796,0.0433221,-0.0352506,0.114226,-0.13445,-0.0200868,0.0050437,-0.00133486,-1.06036,-5.34975,-4.83675,4.53221,1.67137,-3.92127,0.018703,0.309024,-36.5694,0.338148,28.3475,1.83349,2.78771,-0.0365141,
0.131514,-0.0210024,0.126586,-1.965,0.197852,0.216008,-0.0181466,0.109787,0.0172493,0.109913,-0.186216,-0.0268485,0.261246,0.00674588,-1.55832,-0.789835,-1.59227,2.76588,-2.511,-1.47139,-0.0777812,10.1138,0.67145,10.113,-17.5645,-0.432374,2.92676,0.0686579,0.126655,-0.0208019,0.12461,-1.95957,0.199879,0.202183,-0.0185796,0.0433221,-0.0352506,0.114226,-0.13445,-0.0200868,0.0050437,-0.00133486,0,0,0,0,0,0,0,0.309024,-36.5694,0.338148,28.3475,1.83349,2.78771,-0.0365141,
0.130323,-0.0212618,0.128277,-1.96613,0.19827,0.210114,-0.0183097,0.106684,0.0139925,0.106752,-0.181116,-0.0306577,0.256977,0.00664448,-1.93924,-2.0355,-1.97519,3.18766,-2.3808,-2.66825,-0.063377,9.95585,0.669441,9.95149,-17.2398,-0.445474,2.86619,0.0672986,0.126655,-0.0208019,0.12461,-1.95957,0.199879,0.202183,-0.0185796,0.0433221,-0.0352506,0.114226,-0.13445,-0.0200868,0.0050437,-0.00133486,0,0,0,0,0,0,0,0.309024,-36.5694,0.338148,28.3475,1.83349,2.78771,-0.0365141,
0.131073,-0.0212324,0.129026,-1.96739,0.197902,0.212059,-0.0182615,0.104102,0.0119294,0.104122,-0.176453,-0.033725,0.254219,0.00652044,-1.61372,-1.28939,-1.64394,2.91417,-1.91706,-1.72389,-0.0775229,9.79725,0.667699,9.78939,-16.9156,-0.456002,2.80673,0.0658983,0.126655,-0.0208019,0.12461,-1.95957,0.199879,0.202183,-0.0185796,0.0433221,-0.0352506,0.114226,-0.13445,-0.0200868,0.0050437,-0.00133486,0,0,0,0,0,0,0,0.309024,-36.5694,0.338148,28.3475,1.83349,2.78771,-0.0365141,
0.131817,-0.0211885,0.129768,-1.96863,0.197536,0.214004,-0.0182148,0.101864,0.0106395,0.101841,-0.172127,-0.0361283,0.251993,0.00638295,-1.399,-0.806204,-1.42551,2.7039,-1.50201,-1.39092,-0.0859316,9.63098,0.624733,9.6191,-16.5623,-0.462384,2.76901,0.064363,0.12833,-0.0203129,0.128436,-1.96426,0.199217,0.202606,-0.0185794,0.0437186,-0.0199946,0.0929341,-0.111675,-0.0255256,0.032507,-0.00109624,0.0495544,1.907,-2.66152,2.84686,-0.679851,3.43291,0.0298282,-1.74603,-32.6973,-1.68517,19.4806,1.36291,1.06377,-0.00996382,
0.132551,-0.0211351,0.1305,-1.96984,0.197173,0.215931,-0.0181696,0.0998526,0.00984672,0.0997918,-0.168061,-0.0379694,0.249769,0.00623753,-1.25689,-0.4955,-1.28098,2.54109,-1.15073,-1.39022,-0.0908908,9.47164,0.623224,9.45634,-16.239,-0.469124,2.71147,0.0629079,0.12833,-0.0203129,0.128436,-1.96426,0.199217,0.202606,-0.0185794,0.0437186,-0.0199946,0.0929341,-0.111675,-0.0255256,0.032507,-0.00109624,0,0,0,0,0,0,0,-1.74603,-32.6973,-1.68517,19.4806,1.36291,1.06377,-0.00996382,
0.13164,-0.0206292,0.131737,-1.97024,0.197428,0.210538,-0.0183337,0.0971119,0.00823886,0.0970029,-0.163871,-0.0402962,0.245517,0.00611702,-1.71294,-1.00491,-1.74304,2.61895,-1.45424,-2.65776,-0.0753135,9.31207,0.621706,9.29342,-15.9161,-0.474469,2.65483,0.0614334,0.12833,-0.0203129,0.128436,-1.96426,0.199217,0.202606,-0.0185794,0.0437186,-0.0199946,0.0929341,-0.111675,-0.0255256,0.032507,-0.00109624,0,0,0,0,0,0,0,-1.74603,-32.6973,-1.68517,19.4806,1.36291,1.06377,-0.00996382,
0.132328,-0.0205968,0.132423,-1.97139,0.197036,0.212373,-0.0182904,0.094882,0.00740102,0.0947321,-0.159965,-0.0420446,0.242294,0.00597658,-1.39365,-0.523647,-1.41925,2.44152,-1.09276,-2.01433,-0.0877785,9.15232,0.620172,9.13037,-15.5936,-0.478422,2.59909,0.0599381,0.12833,-0.0203129,0.128436,-1.96426,0.199217,0.202606,-0.0185794,0.0437186,-0.0199946,0.0929341,-0.111675,-0.0255256,0.032507,-0.00109624,0,0,0,0,0,0,0,-1.74603,-32.6973,-1.68517,19.4806,1.36291,1.06377,-0.00996382,
0.133011,-0.0205524,0.133103,-1.97253,0.196651,0.214195,-0.0182486,0.0929774,0.00703157,0.092791,-0.156266,-0.0432655,0.239388,0.00582486,-1.19043,-0.230906,-1.21318,2.31185,-0.763064,-1.81627,-0.0948246,8.99247,0.618526,8.96728,-15.2716,-0.481375,2.54425,0.0584285,0.12833,-0.0203129,0.128436,-1.96426,0.199217,0.202606,-0.0185794,0.0437186,-0.0199946,0.0929341,-0.111675,-0.0255256,0.032507,-0.00109624,0,0,0,0,0,0,0,-1.74603,-32.6973,-1.68517,19.4806,1.36291,1.06377,-0.00996382,
0.1315,-0.0205598,0.131593,-1.9698,0.197472,0.209736,-0.0183607,0.0906343,0.00616569,0.0904019,-0.152019,-0.0442161,0.232797,0.00565554,-1.4644,-0.541175,-1.49319,2.65435,-0.594102,-4.11933,-0.105827,8.67251,0.614854,8.64101,-14.6289,-0.484716,2.4371,0.0553724,0.12833,-0.0203129,0.128436,-1.96426,0.199217,0.202606,-0.0185794,0.0437186,-0.0199946,0.0929341,-0.111675,-0.0255256,0.032507,-0.00109624,0,0,0,0,0,0,0,-1.74603,-32.6973,-1.68517,19.4806,1.36291,1.06377,-0.00996382,
0.132146,-0.0205223,0.132236,-1.97085,0.197091,0.211397,-0.0183225,0.0886523,0.00586849,0.0883805,-0.148044,-0.0449054,0.227751,0.00547804,-1.23879,-0.185749,-1.26337,2.48426,-0.430847,-3.15361,-0.110935,8.51241,0.612771,8.47786,-14.3081,-0.485514,2.38477,0.0538327,0.12833,-0.0203129,0.128436,-1.96426,0.199217,0.202606,-0.0185794,0.0437186,-0.0199946,0.0929341,-0.111675,-0.0255256,0.032507,-0.00109624,0,0,0,0,0,0,0,-1.74603,-32.6973,-1.68517,19.4806,1.36291,1.06377,-0.00996382,
0.132785,-0.0204744,0.132871,-1.97189,0.196714,0.213048,-0.0182859,0.0868935,0.00589314,0.0865868,-0.144273,-0.0453384,0.223465,0.00529806,-1.09925,0.0154024,-1.1211,2.35681,-0.270566,-2.67898,-0.112486,8.35223,0.610478,8.31468,-13.9878,-0.486028,2.33336,0.0522816,0.12833,-0.0203129,0.128436,-1.96426,0.199217,0.202606,-0.0185794,0.0437186,-0.0199946,0.0929341,-0.111675,-0.0255256,0.032507,-0.00109624,0,0,0,0,0,0,0,-1.74603,-32.6973,-1.68517,19.4806,1.36291,1.06377,-0.00996382,
0.133415,-0.0204195,0.133497,-1.9729,0.196343,0.214676,-0.0182507,0.08527,0.00608606,0.0849313,-0.140656,-0.0455636,0.219491,0.00511896,-1.01465,0.120576,-1.03469,2.26052,-0.140804,-2.48318,-0.11194,8.18565,0.573289,8.14592,-13.6447,-0.482581,2.29913,0.0506466,0.1299,-0.0201825,0.131216,-1.96814,0.198445,0.203192,-0.0185862,0.0449515,0.014924,0.0771509,-0.0930179,-0.0145219,0.0434064,-0.00160334,0.154112,4.36482,-1.97289,2.3321,1.37546,1.36242,-0.0633871,0.689884,-30.5034,0.639662,17.8104,1.59546,0.552908,0.0101778,
0.13278,-0.0199641,0.134079,-1.97329,0.196782,0.209992,-0.0183934,0.0830615,0.00643767,0.082686,-0.137454,-0.0463052,0.213531,0.00496717,-1.38036,0.219753,-1.4033,2.00101,-0.463485,-3.72553,-0.0948647,8.02525,0.570514,7.98266,-13.3252,-0.483276,2.2504,0.0490948,0.1299,-0.0201825,0.131216,-1.96814,0.198445,0.203192,-0.0185862,0.0449515,0.014924,0.0771509,-0.0930179,-0.0145219,0.0434064,-0.00160334,0,0,0,0,0,0,0,0.689884,-30.5034,0.639662,17.8104,1.59546,0.552908,0.0101778,
0.13337,-0.0198971,0.134665,-1.97426,0.196387,0.21151,-0.0183602,0.0812087,0.00682736,0.0808003,-0.13422,-0.0469367,0.208775,0.00480383,-1.158,0.243562,-1.17853,2.02157,-0.39467,-2.97197,-0.102093,7.86456,0.567601,7.8192,-13.0061,-0.484282,2.20153,0.0475403,0.1299,-0.0201825,0.131216,-1.96814,0.198445,0.203192,-0.0185862,0.0449515,0.014924,0.0771509,-0.0930179,-0.0145219,0.0434064,-0.00160334,0,0,0,0,0,0,0,0.689884,-30.5034,0.639662,17.8104,1.59546,0.552908,0.0101778,
0.133955,-0.0198277,0.135245,-1.97521,0.195992,0.213015,-0.0183285,0.0795725,0.00719492,0.0791338,-0.130964,-0.0474102,0.204653,0.0046355,-1.02258,0.229723,-1.04156,2.03523,-0.295933,-2.57668,-0.105203,7.7036,0.564482,7.65553,-12.6875,-0.485969,2.15371,0.0459784,0.1299,-0.0201825,0.131216,-1.96814,0.198445,0.203192,-0.0185862,0.0449515,0.014924,0.0771509,-0.0930179,-0.0145219,0.0434064,-0.00160334,0,0,0,0,0,0,0,0.689884,-30.5034,0.639662,17.8104,1.59546,0.552908,0.0101778,
0.134531,-0.0197575,0.135816,-1.97613,0.195599,0.214499,-0.0182982,0.0780642,0.00751174,0.0775968,-0.127696,-0.0477575,0.200831,0.00446624,-0.942745,0.198013,-0.96066,2.04235,-0.217046,-2.38885,-0.105789,7.54138,0.528683,7.49141,-12.3504,-0.485289,2.11961,0.0443579,0.131482,-0.0201181,0.133252,-1.97131,0.198076,0.203502,-0.0185844,0.0460277,0.0218331,0.0554662,-0.0799202,-0.0113117,0.0129196,-0.00062285,0.134528,0.863634,-2.71059,1.63721,0.401281,-3.81085,0.122561,-0.67883,-32.3998,-0.637804,22.7417,1.60736,1.23589,-0.0026396,
0.13404,-0.0198014,0.135787,-1.97601,0.19632,0.209456,-0.0184136,0.0758485,0.00781211,0.0753524,-0.12475,-0.048903,0.19493,0.00432758,-1.38478,0.187731,-1.40275,1.84142,-0.715945,-3.68775,-0.0866638,7.38028,0.524424,7.3278,-12.0321,-0.491494,2.08392,0.0428108,0.131482,-0.0201181,0.133252,-1.97131,0.198076,0.203502,-0.0185844,0.0460277,0.0218331,0.0554662,-0.0799202,-0.0113117,0.0129196,-0.00062285,0,0,0,0,0,0,0,-0.67883,-32.3998,-0.637804,22.7417,1.60736,1.23589,-0.0026396,
0.134574,-0.0197278,0.136316,-1.97689,0.195885,0.210835,-0.0183851,0.0740321,0.00809134,0.0735098,-0.121677,-0.0499897,0.19042,0.0041743,-1.13527,0.174516,-1.15162,1.92051,-0.679191,-2.81895,-0.0957988,7.21808,0.520761,7.16315,-11.7145,-0.497419,2.03903,0.0412693,0.131482,-0.0201181,0.133252,-1.97131,0.198076,0.203502,-0.0185844,0.0460277,0.0218331,0.0554662,-0.0799202,-0.0113117,0.0129196,-0.00062285,0,0,0,0,0,0,0,-0.67883,-32.3998,-0.637804,22.7417,1.60736,1.23589,-0.0026396,
0.135104,-0.0196541,0.13684,-1.97773,0.195446,0.212208,-0.0183581,0.072457,0.00831606,0.0719101,-0.118515,-0.0509782,0.186674,0.004014,-0.984438,0.140451,-0.999831,1.97598,-0.61783,-2.34098,-0.100189,7.05536,0.516966,6.99805,-11.3974,-0.505391,1.99546,0.0397292,0.131482,-0.0201181,0.133252,-1.97131,0.198076,0.203502,-0.0185844,0.0460277,0.0218331,0.0554662,-0.0799202,-0.0113117,0.0129196,-0.00062285,0,0,0,0,0,0,0,-0.67883,-32.3998,-0.637804,22.7417,1.60736,1.23589,-0.0026396,
0.135626,-0.0195811,0.137357,-1.97855,0.195,0.213567,-0.0183325,0.0710222,0.00847573,0.0704516,-0.115295,-0.0519164,0.183324,0.00385169,-0.896746,0.0997951,-0.911525,2.01245,-0.586382,-2.09406,-0.101441,6.89206,0.513033,6.83248,-11.0805,-0.515988,1.95299,0.0382058,0.131482,-0.0201181,0.133252,-1.97131,0.198076,0.203502,-0.0185844,0.0460277,0.0218331,0.0554662,-0.0799202,-0.0113117,0.0129196,-0.00062285,0,0,0,0,0,0,0,-0.67883,-32.3998,-0.637804,22.7417,1.60736,1.23589,-0.0026396,
0.135558,-0.0191579,0.137446,-1.97813,0.196009,0.209015,-0.0184355,0.0694226,0.00931339,0.0688271,-0.112848,-0.0536955,0.178571,0.00371033,-0.999748,0.523535,-1.01535,1.52973,-1.11192,-2.97057,-0.0883494,6.73325,0.487307,6.67085,-10.7397,-0.554528,2.02922,0.0367329,0.133074,-0.0197649,0.13499,-1.97375,0.197989,0.203585,-0.0185777,0.0573403,0.0391404,0.0519627,-0.0743839,-0.0213135,0.00270089,0.000320898,1.41408,2.16341,-0.43794,0.692036,-1.25024,-1.27734,0.117969,0.463749,-32.8243,0.461134,25.8084,1.63757,1.5609,-0.0566557,
