xiao-wang007/linearmpc_panda/paper_data/panda_torque_PD_controller_error_match_to_start_no_torque_ff/3/trajectory.csv
Commanded Joint 0 Position,Commanded Joint 1 Position,Commanded Joint 2 Position,Commanded Joint 3 Position,Commanded Joint 4 Position,Commanded Joint 5 Position,Commanded Joint 6 Position,Commanded Joint 0 Velocity,Commanded Joint 1 Velocity,Commanded Joint 2 Velocity,Commanded Joint 3 Velocity,Commanded Joint 4 Velocity,Commanded Joint 5 Velocity,Commanded Joint 6 Velocity,Commanded Joint 0 Acceleration,Commanded Joint 1 Acceleration,Commanded Joint 2 Acceleration,Commanded Joint 3 Acceleration,Commanded Joint 4 Acceleration,Commanded Joint 5 Acceleration,Commanded Joint 6 Acceleration,Commanded Joint 0 Torque,Commanded Joint 1 Torque,Commanded Joint 2 Torque,Commanded Joint 3 Torque,Commanded Joint 4 Torque,Commanded Joint 5 Torque,Commanded Joint 6 Torque,Actual Joint 0 Position,Actual Joint 1 Position,Actual Joint 2 Position,Actual Joint 3 Position,Actual Joint 4 Position,Actual Joint 5 Position,Actual Joint 6 Position,Actual Joint 0 Velocity,Actual Joint 1 Velocity,Actual Joint 2 Velocity,Actual Joint 3 Velocity,Actual Joint 4 Velocity,Actual Joint 5 Velocity,Actual Joint 6 Velocity,Actual Joint 0 Acceleration,Actual Joint 1 Acceleration,Actual Joint 2 Acceleration,Actual Joint 3 Acceleration,Actual Joint 4 Acceleration,Actual Joint 5 Acceleration,Actual Joint 6 Acceleration,Actual Joint 0 Torque,Actual Joint 1 Torque,Actual Joint 2 Torque,Actual Joint 3 Torque,Actual Joint 4 Torque,Actual Joint 5 Torque,Actual Joint 6 Torque,
0.120239,0.077686,-0.103791,-1.72346,0.0283525,0.279998,0.00147441,9.25376e-05,0.0244924,0.000284698,-0.0317213,-0.00388799,0.0543409,-0.000381874,0.057836,15.3077,0.177936,-19.8258,-2.42999,33.9631,-0.238671,0,0,0,0,0,0,0,0.120245,0.0766825,-0.103805,-1.72075,0.0284888,0.274228,0.00151889,0.00304,-0.000223785,0.0034208,-0.000109862,-0.00485687,0.000160185,0.000354994,0,0,0,0,0,0,0,0.00751081,-38.5649,-0.288683,27.5262,1.11297,3.06603,-0.0365141,
0.12029,0.0766853,-0.103762,-1.72075,0.0284909,0.274236,0.00151722,0.000349531,0.0196311,0.00049172,-0.0253637,-0.002883,0.0435615,-0.000314543,0.160621,-3.03831,0.129389,3.97353,0.628119,-6.73716,0.042082,0,0,0,0,0,0,0,0.120247,0.0768079,-0.103798,-1.7208,0.0284899,0.274224,0.00151964,0.00190157,0.00754667,0.0012761,0.0012242,-0.00569207,-0.000103091,0.000103887,-0.142303,0.971307,-0.268087,0.166758,-0.1044,-0.0329095,-0.0313883,0.00751081,-37.8905,-0.288683,27.3279,1.11297,3.10631,-0.0429228,
0.120298,0.076687,-0.103754,-1.72075,0.0285019,0.27424,0.00151697,0.000494473,0.0157475,0.000601085,-0.0202779,-0.00203161,0.0349496,-0.000257755,0.0905891,-2.42728,0.0683534,3.17862,0.532118,-5.38244,0.0354926,0,0,0,0,0,0,0,0.120247,0.0768079,-0.103798,-1.7208,0.0284899,0.274224,0.00151964,0.00190157,0.00754667,0.0012761,0.0012242,-0.00569207,-0.000103091,0.000103887,0,0,0,0,0,0,0,0.00751081,-37.8905,-0.288683,27.3279,1.11297,3.10631,-0.0429228,
0.120305,0.0766888,-0.103747,-1.72075,0.0285129,0.274244,0.0015168,0.000565543,0.0126434,0.000646528,-0.0162096,-0.00135078,0.0280678,-0.000210572,0.0444186,-1.94005,0.028402,2.54265,0.425516,-4.30113,0.029489,0,0,0,0,0,0,0,0.120247,0.0768079,-0.103798,-1.7208,0.0284899,0.274224,0.00151964,0.00190157,0.00754667,0.0012761,0.0012242,-0.00569207,-0.000103091,0.000103887,0,0,0,0,0,0,0,0.00751081,-37.8905,-0.288683,27.3279,1.11297,3.10631,-0.0429228,
0.120172,0.0766989,-0.103896,-1.72061,0.030935,0.27264,0.00149085,-0.000746717,0.0101741,-0.000810274,-0.0113486,0.0364603,-0.00186972,-0.000433133,-0.820163,-1.54328,-0.910501,3.03818,23.6319,-18.7109,-0.1391,0,0,0,0,0,0,0,0.120247,0.0768079,-0.103798,-1.7208,0.0284899,0.274224,0.00151964,0.00190157,0.00754667,0.0012761,0.0012242,-0.00569207,-0.000103091,0.000103887,0,0,0,0,0,0,0,0.00751081,-37.8905,-0.288683,27.3279,1.11297,3.10631,-0.0429228,
0.120224,0.0777791,-0.103828,-1.72153,0.0291409,0.273803,0.00150573,-0.00147362,0.0198322,-0.00177457,-0.0143781,0.0493023,-0.0188764,-0.00077194,-0.454315,6.03628,-0.602684,-1.89347,8.02628,-10.6292,-0.211755,0,0,0,0,0,0,0,0.120248,0.0770964,-0.103793,-1.72114,0.0284913,0.274739,0.00151705,0.00119163,0.0170102,0.000399688,-0.0214723,-0.00750954,0.0322701,-0.000665308,-0.0887431,1.18295,-0.109552,-2.83706,-0.227184,4.04665,-0.0961494,0.00751081,-36.5416,-0.288683,26.5027,1.10016,3.07244,-0.0227812,
0.120168,0.0781492,-0.103886,-1.72167,0.0305114,0.272646,0.00149482,-0.00256827,0.025118,-0.00288375,-0.0150514,0.0737047,-0.0440192,-0.000890269,-0.684154,3.30361,-0.693239,-0.420833,15.2515,-15.7143,-0.0739552,0,0,0,0,0,0,0,0.120248,0.0770964,-0.103793,-1.72114,0.0284913,0.274739,0.00151705,0.00119163,0.0170102,0.000399688,-0.0214723,-0.00750954,0.0322701,-0.000665308,0,0,0,0,0,0,0,0.00751081,-36.5416,-0.288683,26.5027,1.10016,3.07244,-0.0227812,
0.120111,0.0784348,-0.103942,-1.72179,0.0322134,0.271231,0.00148833,-0.0034763,0.0272345,-0.00371116,-0.0149734,0.101513,-0.0706075,-0.000874358,-0.567521,1.32284,-0.517128,0.0487481,17.38,-16.6177,0.00994428,0,0,0,0,0,0,0,0.120248,0.0770964,-0.103793,-1.72114,0.0284913,0.274739,0.00151705,0.00119163,0.0170102,0.000399688,-0.0214723,-0.00750954,0.0322701,-0.000665308,0,0,0,0,0,0,0,0.00751081,-36.5416,-0.288683,26.5027,1.10016,3.07244,-0.0227812,
0.120255,0.0776915,-0.103782,-1.72172,0.0283087,0.275085,0.00152027,-0.00260631,0.0366665,-0.00269711,-0.0265488,0.0766443,-0.0478485,-0.000618826,0.543743,5.89498,0.63378,-7.23459,-15.5428,14.2244,0.159708,0,0,0,0,0,0,0,0.120248,0.0770964,-0.103793,-1.72114,0.0284913,0.274739,0.00151705,0.00119163,0.0170102,0.000399688,-0.0214723,-0.00750954,0.0322701,-0.000665308,0,0,0,0,0,0,0,0.00751081,-36.5416,-0.288683,26.5027,1.10016,3.07244,-0.0227812,
0.120145,0.0782691,-0.103931,-1.72171,0.0314451,0.272015,0.00146376,-0.00482068,0.0437731,-0.00586951,-0.0208043,0.139725,-0.115027,-0.00190803,-1.38398,4.44162,-1.98275,3.59031,39.4256,-41.9864,-0.805751,0,0,0,0,0,0,0,0.120248,0.0770964,-0.103793,-1.72114,0.0284913,0.274739,0.00151705,0.00119163,0.0170102,0.000399688,-0.0214723,-0.00750954,0.0322701,-0.000665308,0,0,0,0,0,0,0,0.00751081,-36.5416,-0.288683,26.5027,1.10016,3.07244,-0.0227812,
0.120005,0.0786823,-0.104087,-1.72164,0.03646,0.26711,0.0014307,-0.00736879,0.045349,-0.00860055,-0.0149221,0.237154,-0.214641,-0.00235285,-1.59256,0.984955,-1.7069,3.67635,60.8929,-62.2587,-0.278012,0,0,0,0,0,0,0,0.120244,0.0775608,-0.103799,-1.72155,0.0287532,0.274939,0.0015196,-0.00442485,0.0220236,0.000543454,-0.0155051,0.0237809,-0.000831624,0.000590045,-0.702059,0.626668,0.0179707,0.745901,3.91131,-4.13772,0.156919,0.0313145,-37.0931,-0.312487,26.6296,1.28967,2.92687,-0.0429228,
0.119892,0.0789642,-0.104204,-1.72161,0.0425115,0.2611,0.00141371,-0.00872405,0.0433255,-0.00980665,-0.0111961,0.341011,-0.321954,-0.00230688,-0.847041,-1.26466,-0.753816,2.32877,64.9107,-67.0709,0.0287295,0,0,0,0,0,0,0,0.120244,0.0775608,-0.103799,-1.72155,0.0287532,0.274939,0.0015196,-0.00442485,0.0220236,0.000543454,-0.0155051,0.0237809,-0.000831624,0.000590045,0,0,0,0,0,0,0,0.0313145,-37.0931,-0.312487,26.6296,1.28967,2.92687,-0.0429228,
0.120238,0.0781709,-0.103797,-1.72214,0.0287143,0.27514,0.00152508,-0.00711189,0.0499132,-0.00780457,-0.0236315,0.271837,-0.252538,-0.00170853,1.0076,4.11728,1.2513,-7.77215,-43.2338,43.385,0.373971,0,0,0,0,0,0,0,0.120244,0.0775608,-0.103799,-1.72155,0.0287532,0.274939,0.0015196,-0.00442485,0.0220236,0.000543454,-0.0155051,0.0237809,-0.000831624,0.000590045,0,0,0,0,0,0,0,0.0313145,-37.0931,-0.312487,26.6296,1.28967,2.92687,-0.0429228,
0.12053,0.0786134,-0.103507,-1.72245,0.0311002,0.271453,0.00159629,0.00159229,0.0509949,0.0010025,-0.0266385,0.277116,-0.294199,0.000413499,5.44012,0.67609,5.50442,-1.87938,3.2992,-26.0378,1.32627,0,0,0,0,0,0,0,0.120244,0.0775608,-0.103799,-1.72155,0.0287532,0.274939,0.0015196,-0.00442485,0.0220236,0.000543454,-0.0155051,0.0237809,-0.000831624,0.000590045,0,0,0,0,0,0,0,0.0313145,-37.0931,-0.312487,26.6296,1.28967,2.92687,-0.0429228,
0.121089,0.0789286,-0.102979,-1.7227,0.035172,0.265315,0.00167311,0.0152571,0.0486745,0.0139989,-0.0277318,0.323487,-0.388802,0.00225124,8.5405,-1.45028,8.12274,-0.683279,28.9819,-59.1271,1.14859,0,0,0,0,0,0,0,0.120202,0.0786996,-0.103899,-1.72189,0.0311988,0.274325,0.00151562,-0.00235443,0.0499547,-0.000697833,-0.00467357,0.180588,-0.0771248,-0.00120644,0.258802,3.49139,-0.155161,1.35394,19.6009,-9.53665,-0.22456,0.182071,-36.8431,-0.16173,26.5543,2.11456,1.94543,-0.00996382,
0.121862,0.0791595,-0.102249,-1.72297,0.040433,0.257562,0.00174645,0.0315256,0.0447121,0.0294535,-0.0288095,0.390317,-0.504865,0.00363463,10.1678,-2.47649,9.65914,-0.673606,41.7687,-72.5394,0.864617,0,0,0,0,0,0,0,0.120202,0.0786996,-0.103899,-1.72189,0.0311988,0.274325,0.00151562,-0.00235443,0.0499547,-0.000697833,-0.00467357,0.180588,-0.0771248,-0.00120644,0,0,0,0,0,0,0,0.182071,-36.8431,-0.16173,26.5543,2.11456,1.94543,-0.00996382,
0.120227,0.0794349,-0.103859,-1.72252,0.031911,0.274178,0.00152753,0.0258658,0.0541507,0.0245673,-0.0387789,0.330059,-0.407561,0.00320545,-3.53734,5.89912,-3.05391,-6.23082,-37.6612,60.8151,-0.268238,0,0,0,0,0,0,0,0.120202,0.0786996,-0.103899,-1.72189,0.0311988,0.274325,0.00151562,-0.00235443,0.0499547,-0.000697833,-0.00467357,0.180588,-0.0771248,-0.00120644,0,0,0,0,0,0,0,0.182071,-36.8431,-0.16173,26.5543,2.11456,1.94543,-0.00996382,
0.120804,0.0797234,-0.103262,-1.72344,0.0342913,0.270695,0.00181861,0.035109,0.0505346,0.0345644,-0.0538603,0.323554,-0.413127,0.00984132,5.77697,-2.26007,6.24822,-9.42589,-4.06529,-3.47867,4.14742,0,0,0,0,0,0,0,0.120202,0.0786996,-0.103899,-1.72189,0.0311988,0.274325,0.00151562,-0.00235443,0.0499547,-0.000697833,-0.00467357,0.180588,-0.0771248,-0.00120644,0,0,0,0,0,0,0,0.182071,-36.8431,-0.16173,26.5543,2.11456,1.94543,-0.00996382,
0.121757,0.0798811,-0.102305,-1.72437,0.0381407,0.264795,0.00198702,0.051913,0.044368,0.05157,-0.0665037,0.355078,-0.477984,0.0120833,10.5025,-3.85412,10.6285,-7.90216,19.7022,-40.5359,1.40123,0,0,0,0,0,0,0,0.120042,0.0800343,-0.104129,-1.72211,0.0389196,0.2689,0.00151822,0.00103117,0.0440451,0.00155779,-0.0148436,0.246152,-0.202283,-0.000320421,0.423199,-0.738705,0.281953,-1.27125,8.19547,-15.6448,0.110752,1.4278,-37.9897,0.86183,26.705,1.6806,1.42174,-0.0301054,
0.122975,0.0800363,-0.101103,-1.72528,0.0431799,0.257236,0.00207452,0.0719748,0.0393747,0.0713098,-0.0758838,0.410041,-0.571363,0.0118541,12.5386,-3.12077,12.3374,-5.86255,34.352,-58.3616,-0.143217,0,0,0,0,0,0,0,0.120042,0.0800343,-0.104129,-1.72211,0.0389196,0.2689,0.00151822,0.00103117,0.0440451,0.00155779,-0.0148436,0.246152,-0.202283,-0.000320421,0,0,0,0,0,0,0,1.4278,-37.9897,0.86183,26.705,1.6806,1.42174,-0.0301054,
0.120097,0.0807522,-0.104057,-1.72281,0.039961,0.268062,0.00153355,0.0589524,0.0494482,0.058836,-0.0781544,0.354068,-0.478025,0.00986651,-8.13898,6.29589,-7.79614,-1.4191,-34.9833,58.3361,-1.24226,0,0,0,0,0,0,0,0.120042,0.0800343,-0.104129,-1.72211,0.0389196,0.2689,0.00151822,0.00103117,0.0440451,0.00155779,-0.0148436,0.246152,-0.202283,-0.000320421,0,0,0,0,0,0,0,1.4278,-37.9897,0.86183,26.705,1.6806,1.42174,-0.0301054,
0.120881,0.0807881,-0.103316,-1.72431,0.04229,0.264533,0.00194942,0.0667574,0.0404553,0.0656042,-0.100041,0.341479,-0.470652,0.0182901,4.87808,-5.62055,4.23015,-13.6791,-7.8677,4.60802,5.26477,0,0,0,0,0,0,0,0.120042,0.0800343,-0.104129,-1.72211,0.0389196,0.2689,0.00151822,0.00103117,0.0440451,0.00155779,-0.0148436,0.246152,-0.202283,-0.000320421,0,0,0,0,0,0,0,1.4278,-37.9897,0.86183,26.705,1.6806,1.42174,-0.0301054,
0.122097,0.0807065,-0.102167,-1.72586,0.0460011,0.258666,0.00214717,0.0838035,0.0303248,0.0812049,-0.118876,0.36596,-0.523196,0.0195759,10.6539,-6.33155,9.75043,-11.7721,15.3001,-32.8397,0.803587,0,0,0,0,0,0,0,0.120137,0.0810934,-0.10396,-1.72303,0.047971,0.258979,0.0015368,0.0143491,0.0217012,0.0192226,-0.0549986,0.321427,-0.312112,0.00398048,1.66474,-2.79298,2.2081,-5.01938,9.40936,-13.7286,0.537613,3.22498,-37.466,2.76216,26.8518,1.88842,1.42815,0.017502,
0.123582,0.0806489,-0.100755,-1.72738,0.0509272,0.251159,0.00220975,0.104175,0.0228204,0.100252,-0.13304,0.41592,-0.606242,0.017225,12.7324,-4.69024,11.9046,-8.85233,31.2253,-51.9039,-1.46929,0,0,0,0,0,0,0,0.120137,0.0810934,-0.10396,-1.72303,0.047971,0.258979,0.0015368,0.0143491,0.0217012,0.0192226,-0.0549986,0.321427,-0.312112,0.00398048,0,0,0,0,0,0,0,3.22498,-37.466,2.76216,26.8518,1.88842,1.42815,0.017502,
0.1203,0.0817598,-0.103781,-1.72385,0.04943,0.257397,0.00155528,0.0874311,0.0349164,0.084676,-0.126846,0.369211,-0.524557,0.014242,-10.4651,7.55998,-9.73513,3.87121,-29.1929,51.0532,-1.86437,0,0,0,0,0,0,0,0.120137,0.0810934,-0.10396,-1.72303,0.047971,0.258979,0.0015368,0.0143491,0.0217012,0.0192226,-0.0549986,0.321427,-0.312112,0.00398048,0,0,0,0,0,0,0,3.22498,-37.466,2.76216,26.8518,1.88842,1.42815,0.017502,
0.121269,0.0817041,-0.102809,-1.72575,0.0518588,0.25366,0.00205561,0.0941555,0.0265412,0.092047,-0.148942,0.356088,-0.513056,0.0239018,4.20271,-5.23452,4.60688,-13.8099,-8.20204,7.18785,6.03735,0,0,0,0,0,0,0,0.120137,0.0810934,-0.10396,-1.72303,0.047971,0.258979,0.0015368,0.0143491,0.0217012,0.0192226,-0.0549986,0.321427,-0.312112,0.00398048,0,0,0,0,0,0,0,3.22498,-37.466,2.76216,26.8518,1.88842,1.42815,0.017502,
0.122699,0.0816048,-0.101405,-1.72771,0.0555851,0.247738,0.00226619,0.111073,0.0187516,0.108737,-0.168238,0.378028,-0.558509,0.024386,10.5732,-4.86848,10.431,-12.0598,13.7121,-28.4078,0.302613,0,0,0,0,0,0,0,0.120897,0.0819664,-0.102948,-1.72539,0.0575987,0.247196,0.00173845,0.0307063,0.0266214,0.0478025,-0.0837778,0.359218,-0.386908,0.0128342,2.04466,0.615015,3.57249,-3.5974,4.72385,-9.34951,1.10671,4.16523,-37.5414,3.63893,25.9076,1.93695,1.38878,0.0706026,
0.1244,0.0815774,-0.0997499,-1.72965,0.0605332,0.240261,0.00229352,0.1314,0.0143145,0.12836,-0.183134,0.426124,-0.633723,0.0201919,12.7046,-2.77317,12.2648,-9.3105,30.06,-47.0087,-2.62126,0,0,0,0,0,0,0,0.120897,0.0819664,-0.102948,-1.72539,0.0575987,0.247196,0.00173845,0.0307063,0.0266214,0.0478025,-0.0837778,0.359218,-0.386908,0.0128342,0,0,0,0,0,0,0,4.16523,-37.5414,3.63893,25.9076,1.93695,1.38878,0.0706026,
0.123756,0.0809871,-0.100212,-1.72988,0.0652175,0.236706,0.00249617,0.146526,-0.000118684,0.142385,-0.204468,0.448902,-0.66103,0.0210817,9.45387,-9.02075,8.76554,-13.3334,14.2364,-17.0667,0.556116,0,0,0,0,0,0,0,0.120897,0.0819664,-0.102948,-1.72539,0.0575987,0.247196,0.00173845,0.0307063,0.0266214,0.0478025,-0.0837778,0.359218,-0.386908,0.0128342,0,0,0,0,0,0,0,4.16523,-37.5414,3.63893,25.9076,1.93695,1.38878,0.0706026,
0.125652,0.0806636,-0.0983921,-1.73222,0.0706184,0.229176,0.00246528,0.16462,-0.00818263,0.159406,-0.222283,0.494144,-0.717089,0.0160933,11.3088,-5.03997,10.6383,-11.1346,28.2766,-35.0374,-3.11778,0,0,0,0,0,0,0,0.120897,0.0819664,-0.102948,-1.72539,0.0575987,0.247196,0.00173845,0.0307063,0.0266214,0.0478025,-0.0837778,0.359218,-0.386908,0.0128342,0,0,0,0,0,0,0,4.16523,-37.5414,3.63893,25.9076,1.93695,1.38878,0.0706026,
0.127676,0.0804534,-0.0964485,-1.73461,0.0769351,0.220686,0.00232344,0.182293,-0.0118015,0.176116,-0.237584,0.553233,-0.785909,0.00932848,11.0454,-2.26177,10.4435,-9.56312,36.9307,-43.012,-4.228,0,0,0,0,0,0,0,0.122467,0.0821254,-0.10096,-1.72986,0.0680684,0.23333,0.00207047,0.0653195,-0.0133469,0.0717934,-0.156071,0.408245,-0.441096,0.0107929,4.32665,-4.99604,2.99886,-9.03667,6.12846,-6.77357,-0.255153,5.28003,-35.518,4.76167,24.3881,1.93695,1.32928,0.104477,
0.123756,0.0809871,-0.100212,-1.72988,0.0652175,0.236706,0.00249617,0.18724,-0.0210115,0.18059,-0.248028,0.55059,-0.782778,0.012391,3.09226,-5.75625,2.79607,-6.52721,-1.65237,1.95649,1.91405,0,0,0,0,0,0,0,0.122467,0.0821254,-0.10096,-1.72986,0.0680684,0.23333,0.00207047,0.0653195,-0.0133469,0.0717934,-0.156071,0.408245,-0.441096,0.0107929,0,0,0,0,0,0,0,5.28003,-35.518,4.76167,24.3881,1.93695,1.32928,0.104477,
0.126871,0.0811304,-0.0967165,-1.7364,0.0829787,0.213705,0.00209919,0.192889,-0.023209,0.185915,-0.255793,0.587563,-0.822301,0.00650451,3.53072,-1.37348,3.32843,-4.85308,23.1085,-24.7018,-3.67903,0,0,0,0,0,0,0,0.122467,0.0821254,-0.10096,-1.72986,0.0680684,0.23333,0.00207047,0.0653195,-0.0133469,0.0717934,-0.156071,0.408245,-0.441096,0.0107929,0,0,0,0,0,0,0,5.28003,-35.518,4.76167,24.3881,1.93695,1.32928,0.104477,
0.12872,0.0809212,-0.0949396,-1.7388,0.0895938,0.205041,0.00198677,0.200537,-0.023797,0.193154,-0.264558,0.635426,-0.874449,0.00239318,4.78,-0.367484,4.52447,-5.47805,29.9144,-32.5925,-2.56958,0,0,0,0,0,0,0,0.122467,0.0821254,-0.10096,-1.72986,0.0680684,0.23333,0.00207047,0.0653195,-0.0133469,0.0717934,-0.156071,0.408245,-0.441096,0.0107929,0,0,0,0,0,0,0,5.28003,-35.518,4.76167,24.3881,1.93695,1.32928,0.104477,
0.130619,0.0807222,-0.093116,-1.74131,0.0968206,0.195797,0.00184504,0.207897,-0.0240122,0.200113,-0.274464,0.689012,-0.930645,-0.00162887,4.59948,-0.134505,4.34891,-6.19174,33.4912,-35.1222,-2.51378,0,0,0,0,0,0,0,0.12566,0.0816731,-0.0981255,-1.73641,0.0825757,0.21494,0.00222479,0.121654,-0.0115451,0.0757514,-0.196091,0.503388,-0.615551,-2.92881e-05,7.04178,0.225231,0.494754,-5.00246,11.8928,-21.8068,-1.35278,5.99018,-36.5932,5.51149,24.2374,1.80877,1.41533,0.0239107,
0.129752,0.0809273,-0.0941926,-1.74307,0.0998436,0.192681,0.00185253,0.204641,-0.0258014,0.196903,-0.279366,0.713941,-0.954615,-0.00473207,-2.03448,-1.11826,-2.00622,-3.06367,15.5807,-14.9814,-1.9395,0,0,0,0,0,0,0,0.12566,0.0816731,-0.0981255,-1.73641,0.0825757,0.21494,0.00222479,0.121654,-0.0115451,0.0757514,-0.196091,0.503388,-0.615551,-2.92881e-05,0,0,0,0,0,0,0,5.99018,-36.5932,5.51149,24.2374,1.80877,1.41533,0.0239107,
0.131352,0.0806976,-0.0926565,-1.74553,0.10694,0.183589,0.00165202,0.203711,-0.0263845,0.195924,-0.284759,0.74856,-0.990976,-0.00879844,-0.581405,-0.36444,-0.611886,-3.37021,21.6366,-22.7255,-2.54148,0,0,0,0,0,0,0,0.12566,0.0816731,-0.0981255,-1.73641,0.0825757,0.21494,0.00222479,0.121654,-0.0115451,0.0757514,-0.196091,0.503388,-0.615551,-2.92881e-05,0,0,0,0,0,0,0,5.99018,-36.5932,5.51149,24.2374,1.80877,1.41533,0.0239107,
0.132986,0.0805106,-0.091088,-1.748,0.114471,0.173994,0.00143833,0.203818,-0.0257833,0.195952,-0.289659,0.78713,-1.03266,-0.0123812,0.0669473,0.375791,0.0179678,-3.06277,24.1062,-26.055,-2.23921,0,0,0,0,0,0,0,0.12566,0.0816731,-0.0981255,-1.73641,0.0825757,0.21494,0.00222479,0.121654,-0.0115451,0.0757514,-0.196091,0.503388,-0.615551,-2.92881e-05,0,0,0,0,0,0,0,5.99018,-36.5932,5.51149,24.2374,1.80877,1.41533,0.0239107,
0.134636,0.0803566,-0.0895044,-1.75049,0.122311,0.164043,0.00123551,0.204298,-0.0244763,0.196352,-0.293961,0.825705,-1.0749,-0.0149754,0.299887,0.816848,0.249531,-2.68852,24.1092,-26.3954,-1.62141,0,0,0,0,0,0,0,0.12566,0.0816731,-0.0981255,-1.73641,0.0825757,0.21494,0.00222479,0.121654,-0.0115451,0.0757514,-0.196091,0.503388,-0.615551,-2.92881e-05,0,0,0,0,0,0,0,5.99018,-36.5932,5.51149,24.2374,1.80877,1.41533,0.0239107,
0.134919,0.080209,-0.0887661,-1.75396,0.128976,0.157136,0.00142591,0.199262,-0.0245723,0.191435,-0.29573,0.848652,-1.0948,-0.0164983,-3.14729,-0.0599985,-3.07259,-1.10598,14.3424,-12.4401,-0.951777,0,0,0,0,0,0,0,0.129575,0.081082,-0.0938901,-1.74463,0.101637,0.191458,0.00221808,0.106908,-0.0172702,0.159488,-0.248622,0.623913,-0.778471,9.94413e-05,-1.84324,-0.71564,10.4671,-6.56645,15.0656,-20.365,0.0160912,5.25623,-37.343,4.86085,25.0586,2.7005,1.16356,-0.0301054,
0.136386,0.0800298,-0.0873586,-1.75643,0.136757,0.14768,0.0012692,0.196085,-0.0241387,0.188337,-0.298183,0.873452,-1.11223,-0.0171164,-1.98583,0.271021,-1.93632,-1.53266,15.4995,-10.8916,-0.386331,0,0,0,0,0,0,0,0.129575,0.081082,-0.0938901,-1.74463,0.101637,0.191458,0.00221808,0.106908,-0.0172702,0.159488,-0.248622,0.623913,-0.778471,9.94413e-05,0,0,0,0,0,0,0,5.25623,-37.343,4.86085,25.0586,2.7005,1.16356,-0.0301054,
0.137872,0.079874,-0.0859321,-1.75891,0.144724,0.138301,0.00113726,0.194027,-0.0232048,0.186333,-0.300572,0.897927,-1.12427,-0.0169916,-1.28659,0.583668,-1.25265,-1.49328,15.297,-7.52826,0.0779806,0,0,0,0,0,0,0,0.129575,0.081082,-0.0938901,-1.74463,0.101637,0.191458,0.00221808,0.106908,-0.0172702,0.159488,-0.248622,0.623913,-0.778471,9.94413e-05,0,0,0,0,0,0,0,5.25623,-37.343,4.86085,25.0586,2.7005,1.16356,-0.0301054,
0.139367,0.0797382,-0.0844969,-1.76142,0.152827,0.129315,0.00102888,0.192601,-0.0219583,0.184945,-0.303239,0.920924,-1.12406,-0.0163028,-0.891023,0.779038,-0.867565,-1.66704,14.3733,0.130193,0.430533,0,0,0,0,0,0,0,0.129575,0.081082,-0.0938901,-1.74463,0.101637,0.191458,0.00221808,0.106908,-0.0172702,0.159488,-0.248622,0.623913,-0.778471,9.94413e-05,0,0,0,0,0,0,0,5.25623,-37.343,4.86085,25.0586,2.7005,1.16356,-0.0301054,
0.139873,0.0798664,-0.0836877,-1.76316,0.155689,0.127891,0.00159691,0.189119,-0.0220855,0.181544,-0.303615,0.932456,-1.1125,-0.0157536,-2.17628,-0.0794624,-2.12583,-0.235016,7.20723,7.22809,0.343235,0,0,0,0,0,0,0,0.134462,0.080655,-0.0888639,-1.75372,0.126135,0.162025,0.00217289,0.161666,-0.0165183,0.138465,-0.259266,0.770207,-0.945685,0.000376512,6.84475,0.0939878,-2.62799,-1.33046,18.2867,-20.9018,0.0346338,2.11017,-36.5694,1.63942,24.039,2.58422,0.82482,-0.050247,
0.141293,0.0797019,-0.082326,-1.76569,0.163683,0.120216,0.00151057,0.186796,-0.0217795,0.179278,-0.306066,0.945793,-1.08187,-0.0147613,-1.45194,0.191245,-1.41588,-1.53173,8.33601,19.1406,0.620207,0,0,0,0,0,0,0,0.134462,0.080655,-0.0888639,-1.75372,0.126135,0.162025,0.00217289,0.161666,-0.0165183,0.138465,-0.259266,0.770207,-0.945685,0.000376512,0,0,0,0,0,0,0,2.11017,-36.5694,1.63942,24.039,2.58422,0.82482,-0.050247,
0.142724,0.0795585,-0.0809538,-1.76829,0.17179,0.113747,0.00144055,0.185206,-0.0210091,0.177728,-0.309792,0.959309,-1.02722,-0.0135595,-0.993922,0.481463,-0.96862,-2.32913,8.44728,34.1595,0.751133,0,0,0,0,0,0,0,0.134462,0.080655,-0.0888639,-1.75372,0.126135,0.162025,0.00217289,0.161666,-0.0165183,0.138465,-0.259266,0.770207,-0.945685,0.000376512,0,0,0,0,0,0,0,2.11017,-36.5694,1.63942,24.039,2.58422,0.82482,-0.050247,
0.144157,0.0794364,-0.0795789,-1.77092,0.179971,0.108608,0.00138599,0.183999,-0.0198599,0.176553,-0.31371,0.971976,-0.950237,-0.0122116,-0.754259,0.71825,-0.734683,-2.44836,7.9168,48.1138,0.842395,0,0,0,0,0,0,0,0.134462,0.080655,-0.0888639,-1.75372,0.126135,0.162025,0.00217289,0.161666,-0.0165183,0.138465,-0.259266,0.770207,-0.945685,0.000376512,0,0,0,0,0,0,0,2.11017,-36.5694,1.63942,24.039,2.58422,0.82482,-0.050247,
0.135755,0.0804545,-0.087632,-1.75598,0.132969,0.153788,0.00199621,0.17951,-0.0209023,0.17204,-0.307549,0.948421,-0.966131,-0.0141864,-2.80525,-0.651472,-2.82064,3.85046,-14.7221,-9.934,-1.2342,0,0,0,0,0,0,0,0.140057,0.0804756,-0.0838215,-1.7634,0.155267,0.128768,0.00210478,0.171006,-0.00838956,0.144313,-0.280889,0.882852,-1.01117,-0.00174435,1.16751,1.01609,0.731096,-2.70286,14.0806,-8.18552,-0.265108,0.614505,-36.8153,0.711073,24.5349,1.8637,1.54809,-0.0026396,
0.137095,0.0802447,-0.0863497,-1.75833,0.140257,0.145181,0.00183796,0.17712,-0.0219655,0.16969,-0.304813,0.940953,-0.988085,-0.0153051,-1.49392,-0.664484,-1.46877,1.71024,-4.66724,-13.7214,-0.699231,0,0,0,0,0,0,0,0.140057,0.0804756,-0.0838215,-1.7634,0.155267,0.128768,0.00210478,0.171006,-0.00838956,0.144313,-0.280889,0.882852,-1.01117,-0.00174435,0,0,0,0,0,0,0,0.614505,-36.8153,0.711073,24.5349,1.8637,1.54809,-0.0026396,
0.138472,0.0800471,-0.0850312,-1.76072,0.147861,0.136421,0.00170536,0.176106,-0.0225117,0.168714,-0.303678,0.94285,-1.00947,-0.0155592,-0.634063,-0.341374,-0.61015,0.709288,1.18589,-13.3626,-0.158791,0,0,0,0,0,0,0,0.140057,0.0804756,-0.0838215,-1.7634,0.155267,0.128768,0.00210478,0.171006,-0.00838956,0.144313,-0.280889,0.882852,-1.01117,-0.00174435,0,0,0,0,0,0,0,0.614505,-36.8153,0.711073,24.5349,1.8637,1.54809,-0.0026396,
0.139873,0.0798664,-0.0836877,-1.76316,0.155689,0.127891,0.00159691,0.175923,-0.0225282,0.168559,-0.303966,0.949997,-1.02082,-0.0151587,-0.114352,-0.0102954,-0.0969135,-0.180163,4.46646,-7.0967,0.250286,0,0,0,0,0,0,0,0.140057,0.0804756,-0.0838215,-1.7634,0.155267,0.128768,0.00210478,0.171006,-0.00838956,0.144313,-0.280889,0.882852,-1.01117,-0.00174435,0,0,0,0,0,0,0,0.614505,-36.8153,0.711073,24.5349,1.8637,1.54809,-0.0026396,
0.146798,0.0799095,-0.0773671,-1.77629,0.194498,0.104306,0.00182457,0.174787,-0.0203084,0.167489,-0.308431,0.962405,-0.877745,-0.0128472,-0.709599,1.38734,-0.668429,-2.79058,7.75538,89.422,1.44474,0,0,0,0,0,0,0,0.145094,0.0806544,-0.0779686,-1.77433,0.184505,0.0978392,0.00209929,0.104028,0.0113232,0.221441,-0.309916,0.717904,-0.858326,-8.72849e-05,-8.37221,2.4641,9.64099,-3.6284,-20.6185,19.1054,0.207133,0.511356,-39.7868,-0.0109729,28.9941,1.32629,2.35009,-0.0429228,
0.148154,0.0798264,-0.0760677,-1.77886,0.20264,0.102973,0.00180699,0.173712,-0.0183239,0.166476,-0.311096,0.973492,-0.735532,-0.0107173,-0.67223,1.24029,-0.633531,-1.66551,6.92924,88.8833,1.33118,0,0,0,0,0,0,0,0.145094,0.0806544,-0.0779686,-1.77433,0.184505,0.0978392,0.00209929,0.104028,0.0113232,0.221441,-0.309916,0.717904,-0.858326,-8.72849e-05,0,0,0,0,0,0,0,0.511356,-39.7868,-0.0109729,28.9941,1.32629,2.35009,-0.0429228,
0.149497,0.0797492,-0.0747797,-1.78138,0.210811,0.102628,0.00180192,0.172555,-0.0165905,0.165381,-0.31197,0.983051,-0.597061,-0.00870061,-0.722841,1.08338,-0.684227,-0.546546,5.974,86.5442,1.26042,0,0,0,0,0,0,0,0.145094,0.0806544,-0.0779686,-1.77433,0.184505,0.0978392,0.00209929,0.104028,0.0113232,0.221441,-0.309916,0.717904,-0.858326,-8.72849e-05,0,0,0,0,0,0,0,0.511356,-39.7868,-0.0109729,28.9941,1.32629,2.35009,-0.0429228,
0.150824,0.0796756,-0.0735071,-1.78385,0.218996,0.103145,0.00180922,0.171228,-0.0151111,0.164119,-0.311213,0.991071,-0.464716,-0.00677796,-0.829273,0.924646,-0.788527,0.473479,5.01292,82.7159,1.20166,0,0,0,0,0,0,0,0.145094,0.0806544,-0.0779686,-1.77433,0.184505,0.0978392,0.00209929,0.104028,0.0113232,0.221441,-0.309916,0.717904,-0.858326,-8.72849e-05,0,0,0,0,0,0,0,0.511356,-39.7868,-0.0109729,28.9941,1.32629,2.35009,-0.0429228,
0.151472,0.0807254,-0.0718635,-1.7877,0.221446,0.0899979,0.00207574,0.168396,-0.011601,0.161383,-0.311799,0.989082,-0.352499,-0.00489814,-1.7701,2.19379,-1.70993,-0.366562,-1.24324,70.1351,1.17489,0,0,0,0,0,0,0,0.150598,0.0807012,-0.0722898,-1.78515,0.213609,0.0691872,0.00208184,0.203629,0.000273714,0.121917,-0.342063,0.949073,-0.713742,-0.00131345,12.45,-1.38119,-12.4406,-4.01833,28.8961,18.073,-0.15327,-0.222592,-37.5414,-0.487047,26.2567,1.55883,3.14568,-0.0026396,
0.152713,0.0807369,-0.0706745,-1.79012,0.229386,0.0915338,0.00210955,0.165735,-0.0089936,0.158832,-0.310101,0.989782,-0.243602,-0.00307324,-1.66349,1.62964,-1.59445,1.06128,0.437265,68.0609,1.14056,0,0,0,0,0,0,0,0.150598,0.0807012,-0.0722898,-1.78515,0.213609,0.0691872,0.00208184,0.203629,0.000273714,0.121917,-0.342063,0.949073,-0.713742,-0.00131345,0,0,0,0,0,0,0,-0.222592,-37.5414,-0.487047,26.2567,1.55883,3.14568,-0.0026396,
0.153933,0.0807389,-0.0695052,-1.79247,0.237392,0.0936874,0.0021538,0.163081,-0.0071431,0.156298,-0.306727,0.991972,-0.141042,-0.00135219,-1.65859,1.15656,-1.58392,2.10893,1.36889,64.1,1.07566,0,0,0,0,0,0,0,0.150598,0.0807012,-0.0722898,-1.78515,0.213609,0.0691872,0.00208184,0.203629,0.000273714,0.121917,-0.342063,0.949073,-0.713742,-0.00131345,0,0,0,0,0,0,0,-0.222592,-37.5414,-0.487047,26.2567,1.55883,3.14568,-0.0026396,
0.157045,0.0809422,-0.0661139,-1.79809,0.253321,0.0691569,0.00230298,0.161096,-0.00394419,0.154289,-0.30391,0.994783,-0.059623,0.000278648,-1.24055,1.99932,-1.25565,1.76057,1.75697,50.8869,1.01928,0,0,0,0,0,0,0,0.150598,0.0807012,-0.0722898,-1.78515,0.213609,0.0691872,0.00208184,0.203629,0.000273714,0.121917,-0.342063,0.949073,-0.713742,-0.00131345,0,0,0,0,0,0,0,-0.222592,-37.5414,-0.487047,26.2567,1.55883,3.14568,-0.0026396,
0.158256,0.0810013,-0.0649559,-1.8003,0.260844,0.07181,0.00235799,0.159144,-0.00167839,0.15238,-0.29845,0.983903,0.0186272,0.00159825,-1.22005,1.41613,-1.19309,3.41224,-6.80027,48.9064,0.824753,0,0,0,0,0,0,0,0.157106,0.081066,-0.0673993,-1.79688,0.245276,0.0548154,0.00208893,0.260798,0.0381489,0.072625,-0.335829,0.926428,-0.248036,-0.000522521,7.14618,4.73439,-6.16145,0.779231,-2.83058,58.2132,0.098866,-2.09912,-38.8149,-1.9113,29.9423,1.64398,3.94768,0.0101778,
0.159457,0.0810429,-0.0638056,-1.8024,0.267598,0.0748267,0.00240899,0.157358,-0.000302727,0.150662,-0.291139,0.955957,0.0903192,0.00255367,-1.116,0.859788,-1.07359,4.56984,-17.4661,44.8075,0.597139,0,0,0,0,0,0,0,0.157106,0.081066,-0.0673993,-1.79688,0.245276,0.0548154,0.00208893,0.260798,0.0381489,0.072625,-0.335829,0.926428,-0.248036,-0.000522521,0,0,0,0,0,0,0,-2.09912,-38.8149,-1.9113,29.9423,1.64398,3.94768,0.0101778,
0.160649,0.0810658,-0.0626645,-1.80439,0.27348,0.0780859,0.00245681,0.155677,0.000329633,0.149058,-0.282717,0.911807,0.153737,0.00323847,-1.05055,0.395225,-1.00284,5.26333,-27.5933,39.6362,0.427998,0,0,0,0,0,0,0,0.157106,0.081066,-0.0673993,-1.79688,0.245276,0.0548154,0.00208893,0.260798,0.0381489,0.072625,-0.335829,0.926428,-0.248036,-0.000522521,0,0,0,0,0,0,0,-2.09912,-38.8149,-1.9113,29.9423,1.64398,3.94768,0.0101778,
0.163482,0.082046,-0.0613168,-1.80853,0.277337,0.0627594,0.00234289,0.155187,0.00353917,0.148599,-0.277206,0.852002,0.193159,0.00370338,-0.306601,2.00596,-0.286561,3.44462,-37.3784,24.6387,0.290567,0,0,0,0,0,0,0,0.157106,0.081066,-0.0673993,-1.79688,0.245276,0.0548154,0.00208893,0.260798,0.0381489,0.072625,-0.335829,0.926428,-0.248036,-0.000522521,0,0,0,0,0,0,0,-2.09912,-38.8149,-1.9113,29.9423,1.64398,3.94768,0.0101778,
0.164683,0.0821439,-0.0601658,-1.81047,0.281401,0.0658232,0.00238694,0.154188,0.00527834,0.147654,-0.270221,0.783222,0.231122,0.00406389,-0.623955,1.08698,-0.590735,4.36579,-42.9872,23.727,0.225317,0,0,0,0,0,0,0,0.157106,0.081066,-0.0673993,-1.79688,0.245276,0.0548154,0.00208893,0.260798,0.0381489,0.072625,-0.335829,0.926428,-0.248036,-0.000522521,0,0,0,0,0,0,0,-2.09912,-38.8149,-1.9113,29.9423,1.64398,3.94768,0.0101778,
0.165859,0.0822124,-0.0590389,-1.81232,0.284676,0.0690482,0.00243098,0.15276,0.00593445,0.146294,-0.262504,0.708437,0.265523,0.00435216,-0.893106,0.410068,-0.849705,4.82298,-46.741,21.5007,0.18017,0,0,0,0,0,0,0,0.163052,0.0817014,-0.0619982,-1.80851,0.276102,0.0523678,0.00210654,0.198661,-0.00630994,0.152301,-0.322523,0.865821,0.0220397,-0.000810115,-7.76715,-5.55735,9.9595,1.66324,-7.57598,33.7595,-0.0359493,-1.99597,-38.2158,-1.4868,27.9507,1.68701,3.12554,0.0239107,
0.167011,0.0822556,-0.0579363,-1.8141,0.28722,0.0723646,0.00247671,0.150984,0.00582802,0.144601,-0.254564,0.630346,0.295327,0.00462504,-1.10961,-0.066518,-1.05823,4.96272,-48.8066,18.6274,0.170551,0,0,0,0,0,0,0,0.163052,0.0817014,-0.0619982,-1.80851,0.276102,0.0523678,0.00210654,0.198661,-0.00630994,0.152301,-0.322523,0.865821,0.0220397,-0.000810115,0,0,0,0,0,0,0,-1.99597,-38.2158,-1.4868,27.9507,1.68701,3.12554,0.0239107,
0.170901,0.0820226,-0.0544475,-1.81987,0.293996,0.0658508,0.00239014,0.150585,0.00516278,0.144263,-0.245803,0.531305,0.310142,0.00495019,-0.249757,-0.415771,-0.211674,5.47569,-61.9007,9.25916,0.20322,0,0,0,0,0,0,0,0.163052,0.0817014,-0.0619982,-1.80851,0.276102,0.0523678,0.00210654,0.198661,-0.00630994,0.152301,-0.322523,0.865821,0.0220397,-0.000810115,0,0,0,0,0,0,0,-1.99597,-38.2158,-1.4868,27.9507,1.68701,3.12554,0.0239107,
0.172051,0.0820277,-0.0533456,-1.82151,0.29459,0.0688746,0.0024426,0.149199,0.00425742,0.142958,-0.237572,0.439897,0.323708,0.00527172,-0.866034,-0.565849,-0.815628,5.14428,-57.13,8.47887,0.200954,0,0,0,0,0,0,0,0.163052,0.0817014,-0.0619982,-1.80851,0.276102,0.0523678,0.00210654,0.198661,-0.00630994,0.152301,-0.322523,0.865821,0.0220397,-0.000810115,0,0,0,0,0,0,0,-1.99597,-38.2158,-1.4868,27.9507,1.68701,3.12554,0.0239107,
0.17316,0.0820197,-0.0522817,-1.82311,0.294787,0.0719242,0.00249687,0.147107,0.00320608,0.140964,-0.229946,0.356847,0.335207,0.00557415,-1.30737,-0.657088,-1.24619,4.766,-51.9062,7.18692,0.189019,0,0,0,0,0,0,0,0.169045,0.0822433,-0.0563115,-1.81841,0.300179,0.0563304,0.00212497,0.150559,0.0283434,0.170754,-0.266992,0.597051,0.196762,-0.00132098,-6.01268,4.33167,2.30659,6.94144,-33.5962,21.8402,-0.0638579,-1.94836,-37.4422,-1.58599,27.2525,1.1615,2.81426,0.0303194,
0.174234,0.0820005,-0.0512524,-1.82467,0.294664,0.0749694,0.00255323,0.144536,0.00208392,0.138504,-0.222932,0.282388,0.344296,0.00586817,-1.6069,-0.701351,-1.53729,4.38384,-46.5369,5.68051,0.183762,0,0,0,0,0,0,0,0.169045,0.0822433,-0.0563115,-1.81841,0.300179,0.0563304,0.00212497,0.150559,0.0283434,0.170754,-0.266992,0.597051,0.196762,-0.00132098,0,0,0,0,0,0,0,-1.94836,-37.4422,-1.58599,27.2525,1.1615,2.81426,0.0303194,
0.177406,0.0827912,-0.0482347,-1.8298,0.305124,0.0735051,0.0025334,0.142054,0.00145511,0.13616,-0.21524,0.211885,0.343046,0.00618474,-1.55114,-0.393008,-1.46502,4.80774,-44.0643,-0.781525,0.197857,0,0,0,0,0,0,0,0.169045,0.0822433,-0.0563115,-1.81841,0.300179,0.0563304,0.00212497,0.150559,0.0283434,0.170754,-0.266992,0.597051,0.196762,-0.00132098,0,0,0,0,0,0,0,-1.94836,-37.4422,-1.58599,27.2525,1.1615,2.81426,0.0303194,
0.178422,0.082769,-0.0472603,-1.83124,0.304435,0.0762053,0.00259329,0.13904,0.000609244,0.133287,-0.20825,0.152273,0.341941,0.0064451,-1.88362,-0.528666,-1.79534,4.3682,-37.2577,-0.690484,0.162724,0,0,0,0,0,0,0,0.169045,0.0822433,-0.0563115,-1.81841,0.300179,0.0563304,0.00212497,0.150559,0.0283434,0.170754,-0.266992,0.597051,0.196762,-0.00132098,0,0,0,0,0,0,0,-1.94836,-37.4422,-1.58599,27.2525,1.1615,2.81426,0.0303194,
0.1794,0.082736,-0.046322,-1.83266,0.303667,0.0788886,0.00265346,0.135697,-0.000338879,0.130089,-0.201875,0.102632,0.340635,0.00666023,-2.08977,-0.592577,-1.99903,3.98457,-31.0255,-0.81588,0.134457,0,0,0,0,0,0,0,0.17453,0.0837632,-0.0506322,-1.82667,0.31224,0.0652029,0.00214341,0.0890205,0.0676436,0.235815,-0.209534,0.241464,0.299249,-0.00024725,-7.69236,4.91253,8.13261,7.18216,-44.4483,12.8109,0.134216,-1.00811,-40.5129,-0.859972,26.6772,0.868527,1.69366,0.0376436,
0.180345,0.0826942,-0.0454162,-1.83404,0.302862,0.0815471,0.00271345,0.132175,-0.00131437,0.126715,-0.196031,0.0619684,0.338972,0.00682804,-2.20132,-0.609679,-2.10873,3.65261,-25.4151,-1.0398,0.104882,0,0,0,0,0,0,0,0.17453,0.0837632,-0.0506322,-1.82667,0.31224,0.0652029,0.00214341,0.0890205,0.0676436,0.235815,-0.209534,0.241464,0.299249,-0.00024725,0,0,0,0,0,0,0,-1.00811,-40.5129,-0.859972,26.6772,0.868527,1.69366,0.0376436,
0.18126,0.0847298,-0.0441342,-1.83575,0.311899,0.080265,0.00249737,0.1306,-0.000269995,0.125219,-0.191741,0.0338188,0.334005,0.00693546,-0.984291,0.652732,-0.934678,2.6813,-17.5935,-3.10394,0.0671386,0,0,0,0,0,0,0,0.17453,0.0837632,-0.0506322,-1.82667,0.31224,0.0652029,0.00214341,0.0890205,0.0676436,0.235815,-0.209534,0.241464,0.299249,-0.00024725,0,0,0,0,0,0,0,-1.00811,-40.5129,-0.859972,26.6772,0.868527,1.69366,0.0376436,
0.182212,0.0847374,-0.0432213,-1.83711,0.311226,0.0827656,0.00255571,0.128283,-2.66513e-05,0.123,-0.187379,0.0102357,0.329718,0.00700696,-1.44786,0.15209,-1.38736,2.72646,-14.7394,-2.6794,0.0446875,0,0,0,0,0,0,0,0.17453,0.0837632,-0.0506322,-1.82667,0.31224,0.0652029,0.00214341,0.0890205,0.0676436,0.235815,-0.209534,0.241464,0.299249,-0.00024725,0,0,0,0,0,0,0,-1.00811,-40.5129,-0.859972,26.6772,0.868527,1.69366,0.0376436,
0.183126,0.084727,-0.0423449,-1.83843,0.310545,0.0852499,0.00261342,0.125481,-0.000281998,0.120308,-0.183013,-0.00883387,0.325882,0.00704816,-1.75161,-0.159592,-1.68216,2.72847,-11.9185,-2.39772,0.0257498,0,0,0,0,0,0,0,0.180103,0.0841674,-0.0452913,-1.83402,0.315704,0.0763198,0.00215234,0.0694801,-0.0402548,0.236296,-0.225076,0.0397841,0.33376,-0.000833935,-2.44255,-13.4873,0.0601338,-1.94275,-25.21,4.31396,-0.0733357,-1.61908,-35.8949,-1.23686,24.0866,0.685421,1.36864,0.0440523,
0.184006,0.0847027,-0.0415015,-1.83972,0.309881,0.0877153,0.00267019,0.122383,-0.000831707,0.117332,-0.178689,-0.0236723,0.32234,0.00705781,-1.93609,-0.343568,-1.86003,2.70266,-9.27401,-2.21356,0.00602944,0,0,0,0,0,0,0,0.180103,0.0841674,-0.0452913,-1.83402,0.315704,0.0763198,0.00215234,0.0694801,-0.0402548,0.236296,-0.225076,0.0397841,0.33376,-0.000833935,0,0,0,0,0,0,0,-1.61908,-35.8949,-1.23686,24.0866,0.685421,1.36864,0.0440523,
0.18612,0.0835532,-0.0394972,-1.84178,0.313925,0.09057,0.00248572,0.119916,-0.00279349,0.114975,-0.173151,-0.0294781,0.31744,0.00698573,-1.54183,-1.22612,-1.47295,3.46109,-3.62866,-3.06298,-0.0450496,0,0,0,0,0,0,0,0.180103,0.0841674,-0.0452913,-1.83402,0.315704,0.0763198,0.00215234,0.0694801,-0.0402548,0.236296,-0.225076,0.0397841,0.33376,-0.000833935,0,0,0,0,0,0,0,-1.61908,-35.8949,-1.23686,24.0866,0.685421,1.36864,0.0440523,
0.186963,0.0834698,-0.0386884,-1.84296,0.313519,0.0929399,0.00253811,0.117016,-0.00432019,0.112199,-0.168057,-0.0337477,0.313198,0.0068982,-1.8124,-0.954186,-1.73523,3.18344,-2.66848,-2.65108,-0.0547027,0,0,0,0,0,0,0,0.180103,0.0841674,-0.0452913,-1.83402,0.315704,0.0763198,0.00215234,0.0694801,-0.0402548,0.236296,-0.225076,0.0397841,0.33376,-0.000833935,0,0,0,0,0,0,0,-1.61908,-35.8949,-1.23686,24.0866,0.685421,1.36864,0.0440523,
0.187773,0.0833877,-0.0379116,-1.84412,0.313139,0.0952923,0.00258909,0.113865,-0.00550831,0.10918,-0.163316,-0.0364825,0.309368,0.00679321,-1.96925,-0.742572,-1.88701,2.96327,-1.70922,-2.39351,-0.0656243,0,0,0,0,0,0,0,0.185666,0.084864,-0.040794,-1.84004,0.315797,0.0870611,0.00216483,0.0992145,0.0735452,0.168918,-0.155743,0.000448354,0.294339,0.000745803,3.7168,14.225,-8.42224,8.66668,-4.91697,-4.92763,0.197467,-2.50378,-37.6167,-1.81212,25.4077,1.3446,1.42815,0.017502,
0.188553,0.0833067,-0.0371636,-1.84524,0.312795,0.0976237,0.00263859,0.110593,-0.00643226,0.106044,-0.158851,-0.0377972,0.305779,0.00667199,-2.04493,-0.57747,-1.9601,2.79063,-0.821737,-2.24304,-0.0757587,0,0,0,0,0,0,0,0.185666,0.084864,-0.040794,-1.84004,0.315797,0.0870611,0.00216483,0.0992145,0.0735452,0.168918,-0.155743,0.000448354,0.294339,0.000745803,0,0,0,0,0,0,0,-2.50378,-37.6167,-1.81212,25.4077,1.3446,1.42815,0.017502,
0.191014,0.0854537,-0.0363028,-1.83968,0.407693,0.0641534,0.00156957,0.0886733,-0.00692956,0.0844998,-0.1247,-0.0013325,0.247885,0.00497676,-13.7001,-0.310816,-13.4649,21.3444,22.7905,-36.1838,-1.05952,0,0,0,0,0,0,0,0.185666,0.084864,-0.040794,-1.84004,0.315797,0.0870611,0.00216483,0.0992145,0.0735452,0.168918,-0.155743,0.000448354,0.294339,0.000745803,0,0,0,0,0,0,0,-2.50378,-37.6167,-1.81212,25.4077,1.3446,1.42815,0.017502,
0.191021,0.0853824,-0.0363164,-1.83959,0.408846,0.0642838,0.00155515,0.0711343,-0.00732656,0.0672616,-0.0973841,0.027754,0.201567,0.0036208,-10.9618,-0.248122,-10.7739,17.0725,18.1791,-28.9488,-0.847475,0,0,0,0,0,0,0,0.185666,0.084864,-0.040794,-1.84004,0.315797,0.0870611,0.00216483,0.0992145,0.0735452,0.168918,-0.155743,0.000448354,0.294339,0.000745803,0,0,0,0,0,0,0,-2.50378,-37.6167,-1.81212,25.4077,1.3446,1.42815,0.017502,
0.191029,0.0853111,-0.03633,-1.83949,0.409996,0.064414,0.00154073,0.0571009,-0.00764325,0.0534685,-0.0755362,0.0509393,0.164509,0.00253625,-8.7709,-0.19793,-8.62072,13.6549,14.4908,-23.1614,-0.677842,0,0,0,0,0,0,0,0.1899,0.0853667,-0.036047,-1.8457,0.315184,0.0963347,0.00216853,0.0758713,-0.0206815,0.149484,-0.170912,0.025568,0.220434,0.000812026,-2.91791,-11.7783,-2.42922,-1.89615,3.13995,-9.23817,0.00827783,-2.20227,-39.2632,-1.71294,28.4229,3.08502,0.99053,0.0239107,
0.191037,0.0852399,-0.0363437,-1.8394,0.411142,0.064544,0.00152633,0.0458723,-0.00789564,0.0424318,-0.058063,0.0694046,0.134858,0.00166883,-7.01789,-0.157747,-6.89794,10.9208,11.5408,-18.5319,-0.54214,0,0,0,0,0,0,0,0.1899,0.0853667,-0.036047,-1.8457,0.315184,0.0963347,0.00216853,0.0758713,-0.0206815,0.149484,-0.170912,0.025568,0.220434,0.000812026,0,0,0,0,0,0,0,-2.20227,-39.2632,-1.71294,28.4229,3.08502,0.99053,0.0239107,
0.191093,0.0857175,-0.0349294,-1.84647,0.318952,0.0954619,0.00211816,0.0495492,-0.00160311,0.0459498,-0.0533052,0.115351,0.0861895,0.000713548,2.29812,3.93283,2.1988,2.97363,28.7166,-30.4177,-0.59705,0,0,0,0,0,0,0,0.1899,0.0853667,-0.036047,-1.8457,0.315184,0.0963347,0.00216853,0.0758713,-0.0206815,0.149484,-0.170912,0.025568,0.220434,0.000812026,0,0,0,0,0,0,0,-2.20227,-39.2632,-1.71294,28.4229,3.08502,0.99053,0.0239107,
0.191487,0.0858782,-0.0345598,-1.84666,0.322224,0.0939776,0.00209785,0.0494742,0.00273539,0.0459999,-0.0474305,0.174085,0.0318437,6.32095e-05,-0.0469073,2.71157,0.0312586,3.67166,36.7086,-33.9661,-0.406461,0,0,0,0,0,0,0,0.1899,0.0853667,-0.036047,-1.8457,0.315184,0.0963347,0.00216853,0.0758713,-0.0206815,0.149484,-0.170912,0.025568,0.220434,0.000812026,0,0,0,0,0,0,0,-2.20227,-39.2632,-1.71294,28.4229,3.08502,0.99053,0.0239107,
0.19179,0.0860078,-0.0342733,-1.8468,0.326277,0.0919737,0.00208348,0.0471703,0.00542881,0.0439622,-0.0415008,0.2406,-0.0246214,-0.000308656,-1.43994,1.68339,-1.27355,3.70606,41.572,-35.2907,-0.232416,0,0,0,0,0,0,0,0.192299,0.0861168,-0.0326194,-1.84887,0.320898,0.0978361,0.00216706,-0.0211493,0.0524465,0.159146,-0.0568735,0.0928204,0.00978681,-0.000229489,-12.1276,9.14101,1.20781,14.2548,8.40655,-26.3309,-0.130189,-1.61908,-38.3904,-1.51061,27.3279,1.97998,1.93902,-0.0026396,
0.192023,0.0861126,-0.0340527,-1.8469,0.331039,0.0895149,0.00207706,0.0435679,0.00696196,0.040684,-0.0357949,0.311523,-0.0811681,-0.000407461,-2.25152,0.958214,-2.04886,3.56618,44.3267,-35.3417,-0.0617533,0,0,0,0,0,0,0,0.192299,0.0861168,-0.0326194,-1.84887,0.320898,0.0978361,0.00216706,-0.0211493,0.0524465,0.159146,-0.0568735,0.0928204,0.00978681,-0.000229489,0,0,0,0,0,0,0,-1.61908,-38.3904,-1.51061,27.3279,1.97998,1.93902,-0.0026396,
0.193152,0.087015,-0.0318256,-1.84954,0.330711,0.0929558,0.00211521,0.039778,0.0114579,0.0370561,-0.032688,0.355746,-0.121354,-0.00052369,-2.36864,2.80996,-2.26743,1.94187,27.6394,-25.1161,-0.0726433,0,0,0,0,0,0,0,0.192299,0.0861168,-0.0326194,-1.84887,0.320898,0.0978361,0.00216706,-0.0211493,0.0524465,0.159146,-0.0568735,0.0928204,0.00978681,-0.000229489,0,0,0,0,0,0,0,-1.61908,-38.3904,-1.51061,27.3279,1.97998,1.93902,-0.0026396,
0.193288,0.0872042,-0.0317016,-1.84966,0.335761,0.0902294,0.00211913,0.0352226,0.0138965,0.0327454,-0.0291041,0.410825,-0.165245,-0.000320977,-2.84713,1.5241,-2.69417,2.23991,34.4244,-27.4318,0.126695,0,0,0,0,0,0,0,0.192299,0.0861168,-0.0326194,-1.84887,0.320898,0.0978361,0.00216706,-0.0211493,0.0524465,0.159146,-0.0568735,0.0928204,0.00978681,-0.000229489,0,0,0,0,0,0,0,-1.61908,-38.3904,-1.51061,27.3279,1.97998,1.93902,-0.0026396,
0.193371,0.0873573,-0.0316281,-1.84974,0.341488,0.087138,0.00213188,0.0302556,0.0149438,0.0280341,-0.0253502,0.471845,-0.20948,6.20727e-05,-3.10437,0.654564,-2.94459,2.34622,38.1377,-27.6472,0.239406,0,0,0,0,0,0,0,0.192299,0.0861168,-0.0326194,-1.84887,0.320898,0.0978361,0.00216706,-0.0211493,0.0524465,0.159146,-0.0568735,0.0928204,0.00978681,-0.000229489,0,0,0,0,0,0,0,-1.61908,-38.3904,-1.51061,27.3279,1.97998,1.93902,-0.0026396,
0.194189,0.0887132,-0.030422,-1.85032,0.334208,0.0947758,0.00213588,0.0273258,0.0197441,0.0251768,-0.023982,0.478472,-0.212134,-0.000132418,-1.83115,3.00023,-1.78582,0.855098,4.14147,-1.65858,-0.121557,0,0,0,0,0,0,0,0.193878,0.0879833,-0.0306987,-1.85,0.327048,0.0976368,0.00216006,0.0248453,0.0751918,0.0415088,-0.0145818,0.249015,-0.0341465,-0.000465054,5.74933,2.84316,-14.7047,5.28646,19.5244,-5.49167,-0.0294457,0.892215,-39.3623,0.611891,26.106,3.59863,0.732351,0.017502,
0.194267,0.0889533,-0.0303554,-1.85043,0.339036,0.0924233,0.00214048,0.0237951,0.0217968,0.0218051,-0.021969,0.50348,-0.228518,9.07356e-06,-2.20667,1.28291,-2.10728,1.25813,15.6304,-10.2401,0.0884325,0,0,0,0,0,0,0,0.193878,0.0879833,-0.0306987,-1.85,0.327048,0.0976368,0.00216006,0.0248453,0.0751918,0.0415088,-0.0145818,0.249015,-0.0341465,-0.000465054,0,0,0,0,0,0,0,0.892215,-39.3623,0.611891,26.106,3.59863,0.732351,0.017502,
0.194302,0.0891416,-0.0303288,-1.85051,0.344549,0.0896322,0.00215386,0.019922,0.0221448,0.018109,-0.0195278,0.540597,-0.252594,0.000341582,-2.42068,0.217507,-2.31011,1.52575,23.1981,-15.0472,0.207818,0,0,0,0,0,0,0,0.193878,0.0879833,-0.0306987,-1.85,0.327048,0.0976368,0.00216006,0.0248453,0.0751918,0.0415088,-0.0145818,0.249015,-0.0341465,-0.000465054,0,0,0,0,0,0,0,0.892215,-39.3623,0.611891,26.106,3.59863,0.732351,0.017502,
0.194299,0.0892831,-0.0303324,-1.85057,0.350574,0.08662,0.00213178,0.0158715,0.0212554,0.0143983,-0.0172896,0.583124,-0.277379,-0.000278716,-2.53161,-0.555896,-2.31915,1.39891,26.5795,-15.4906,-0.387687,0,0,0,0,0,0,0,0.193878,0.0879833,-0.0306987,-1.85,0.327048,0.0976368,0.00216006,0.0248453,0.0751918,0.0415088,-0.0145818,0.249015,-0.0341465,-0.000465054,0,0,0,0,0,0,0,0.892215,-39.3623,0.611891,26.106,3.59863,0.732351,0.017502,
0.195108,0.0887206,-0.0303108,-1.85148,0.354557,0.0871667,0.00217139,0.0130344,0.0175619,0.0118127,-0.0146179,0.595311,-0.281279,-0.000734556,-1.77319,-2.30838,-1.616,1.66976,7.61668,-2.43796,-0.2849,0,0,0,0,0,0,0,0.194961,0.0886916,-0.0304354,-1.85125,0.340783,0.0936683,0.00216535,0.0186933,-0.0219812,0.00944438,-0.0604813,0.412694,-0.151275,0.00209695,-0.769002,-12.1466,-4.00805,-5.73744,20.4598,-14.6411,0.320251,-0.0440639,-36.8669,0.314344,26.8042,2.95135,0.93743,-0.0301054,
0.195161,0.0887228,-0.0302686,-1.85149,0.359279,0.0851251,0.00216207,0.0117401,0.0141055,0.0105055,-0.0121187,0.594309,-0.276065,-0.000820654,-0.80892,-2.16026,-0.816983,1.56201,-0.626061,3.25907,-0.0538114,0,0,0,0,0,0,0,0.194961,0.0886916,-0.0304354,-1.85125,0.340783,0.0936683,0.00216535,0.0186933,-0.0219812,0.00944438,-0.0604813,0.412694,-0.151275,0.00209695,0,0,0,0,0,0,0,-0.0440639,-36.8669,0.314344,26.8042,2.95135,0.93743,-0.0301054,
0.195303,0.0886767,-0.0301204,-1.85151,0.362421,0.0840505,0.00216303,0.0129477,0.0101327,0.0121072,-0.0101804,0.55401,-0.247717,-0.000632638,0.754777,-2.48304,1.00103,1.21144,-25.1869,17.7175,0.11751,0,0,0,0,0,0,0,0.194961,0.0886916,-0.0304354,-1.85125,0.340783,0.0936683,0.00216535,0.0186933,-0.0219812,0.00944438,-0.0604813,0.412694,-0.151275,0.00209695,0,0,0,0,0,0,0,-0.0440639,-36.8669,0.314344,26.8042,2.95135,0.93743,-0.0301054,
0.195489,0.0886157,-0.0299431,-1.85151,0.364578,0.0835912,0.00215743,0.0150154,0.00658048,0.0141189,-0.007981,0.497127,-0.209656,-0.000646111,1.29226,-2.22012,1.25734,1.37464,-35.5517,23.7881,-0.0084204,0,0,0,0,0,0,0,0.194961,0.0886916,-0.0304354,-1.85125,0.340783,0.0936683,0.00216535,0.0186933,-0.0219812,0.00944438,-0.0604813,0.412694,-0.151275,0.00209695,0,0,0,0,0,0,0,-0.0440639,-36.8669,0.314344,26.8042,2.95135,0.93743,-0.0301054,
0.20698,0.0850524,-0.0207621,-1.84665,0.312274,0.18975,0.0011854,0.0120017,0.00452393,0.0107555,-0.00510393,0.436567,-0.178801,-0.000831081,-1.88356,-1.28534,-2.10214,1.79817,-37.8503,19.2842,-0.115606,0,0,0,0,0,0,0,0.194961,0.0886916,-0.0304354,-1.85125,0.340783,0.0936683,0.00216535,0.0186933,-0.0219812,0.00944438,-0.0604813,0.412694,-0.151275,0.00209695,0,0,0,0,0,0,0,-0.0440639,-36.8669,0.314344,26.8042,2.95135,0.93743,-0.0301054,
0.196751,0.0827581,-0.0308461,-1.84335,0.464522,0.09269,0.000776829,0.0097876,0.00203653,0.0082128,-0.00208921,0.375927,-0.14183,-0.00101543,-1.38378,-1.55462,-1.5892,1.8842,-37.8999,23.1072,-0.11522,0,0,0,0,0,0,0,0.194961,0.0886916,-0.0304354,-1.85125,0.340783,0.0936683,0.00216535,0.0186933,-0.0219812,0.00944438,-0.0604813,0.412694,-0.151275,0.00209695,0,0,0,0,0,0,0,-0.0440639,-36.8669,0.314344,26.8042,2.95135,0.93743,-0.0301054,
0.196751,0.0827581,-0.0308461,-1.84335,0.464522,0.09269,0.000776829,0.00801636,4.6616e-05,0.00617863,0.000322573,0.327415,-0.112252,-0.00116292,-1.10702,-1.2437,-1.27136,1.50736,-30.3199,18.4858,-0.0921761,0,0,0,0,0,0,0,0.194961,0.0886916,-0.0304354,-1.85125,0.340783,0.0936683,0.00216535,0.0186933,-0.0219812,0.00944438,-0.0604813,0.412694,-0.151275,0.00209695,0,0,0,0,0,0,0,-0.0440639,-36.8669,0.314344,26.8042,2.95135,0.93743,-0.0301054,
0.196751,0.0827581,-0.0308461,-1.84335,0.464522,0.09269,0.000776829,0.00659937,-0.00154532,0.00455129,0.002252,0.288606,-0.0885907,-0.0012809,-0.88562,-0.994959,-1.01709,1.20589,-24.2559,14.7886,-0.0737409,0,0,0,0,0,0,0,0.194961,0.0886916,-0.0304354,-1.85125,0.340783,0.0936683,0.00216535,0.0186933,-0.0219812,0.00944438,-0.0604813,0.412694,-0.151275,0.00209695,0,0,0,0,0,0,0,-0.0440639,-36.8669,0.314344,26.8042,2.95135,0.93743,-0.0301054,
0.211203,0.0911684,-0.014521,-1.85439,0.332108,0.128127,0.00224731,0.036215,-0.00264722,0.0322944,-0.00103037,0.175376,-0.00870845,-0.0010807,18.5098,-0.688689,17.3394,-2.05148,-70.7685,49.9264,0.125125,0,0,0,0,0,0,0,0.195111,0.0901043,-0.030019,-1.8517,0.358999,0.0870234,0.0021593,0.010072,0.0798766,0.00335261,0.00654215,0.519658,-0.208907,-0.000597618,-1.07767,12.7322,-0.761472,8.37794,13.3705,-7.20394,-0.336821,0.158268,-38.7157,0.0644055,26.4789,2.27295,1.11046,0.0239107,
0.212428,0.0911047,-0.0133873,-1.8545,0.329945,0.130474,0.002245,0.0596054,-0.00370991,0.054176,-0.00357603,0.0862368,0.0516982,-0.000922122,14.619,-0.664181,13.676,-1.59104,-55.7121,37.7541,0.0991119,0,0,0,0,0,0,0,0.195111,0.0901043,-0.030019,-1.8517,0.358999,0.0870234,0.0021593,0.010072,0.0798766,0.00335261,0.00654215,0.519658,-0.208907,-0.000597618,0,0,0,0,0,0,0,0.158268,-38.7157,0.0644055,26.4789,2.27295,1.11046,0.0239107,
0.213641,0.0910351,-0.0122664,-1.85461,0.327837,0.132688,0.00224265,0.0780057,-0.0047061,0.071364,-0.00554503,0.0162875,0.0967188,-0.000796436,11.5002,-0.622619,10.7425,-1.23062,-43.7183,28.1379,0.0785535,0,0,0,0,0,0,0,0.195111,0.0901043,-0.030019,-1.8517,0.358999,0.0870234,0.0021593,0.010072,0.0798766,0.00335261,0.00654215,0.519658,-0.208907,-0.000597618,0,0,0,0,0,0,0,0.158268,-38.7157,0.0644055,26.4789,2.27295,1.11046,0.0239107,
0.214841,0.090961,-0.0111583,-1.85471,0.32578,0.134778,0.00224027,0.0924061,-0.00561954,0.0847936,-0.00706204,-0.0383946,0.129625,-0.000696838,9.00024,-0.570901,8.39346,-0.948132,-34.1763,20.5662,0.0622486,0,0,0,0,0,0,0,0.195111,0.0901043,-0.030019,-1.8517,0.358999,0.0870234,0.0021593,0.010072,0.0798766,0.00335261,0.00654215,0.519658,-0.208907,-0.000597618,0,0,0,0,0,0,0,0.158268,-38.7157,0.0644055,26.4789,2.27295,1.11046,0.0239107,
0.195242,0.0909887,-0.029865,-1.85232,0.361512,0.0864298,0.00215725,0.077205,0.0176137,0.0716829,-0.0210556,0.032108,0.0888604,-0.000608857,-9.50067,14.5208,-8.19416,-8.746,44.0641,-25.4777,0.0549885,0,0,0,0,0,0,0,0.195648,0.0907718,-0.0295488,-1.85237,0.373708,0.0838429,0.00215272,0.00274744,-0.0211618,0.00358524,-0.0474343,0.607787,-0.0595228,0.00178544,-0.915564,-12.6298,0.0290796,-6.74706,11.0162,18.673,0.297883,-0.829586,-38.9378,-0.788561,28.7482,3.23791,1.42815,-0.0026396,
0.195979,0.0913397,-0.0291827,-1.85337,0.359667,0.0894128,0.00226095,0.0801863,0.022866,0.0744048,-0.0430339,-0.0204442,0.145665,0.00210562,1.86328,3.2827,1.7012,-13.7364,-32.8451,35.5026,1.69655,0,0,0,0,0,0,0,0.195648,0.0907718,-0.0295488,-1.85237,0.373708,0.0838429,0.00215272,0.00274744,-0.0211618,0.00358524,-0.0474343,0.607787,-0.0595228,0.00178544,0,0,0,0,0,0,0,-0.829586,-38.9378,-0.788561,28.7482,3.23791,1.42815,-0.0026396,
0.197004,0.0915141,-0.0282105,-1.85439,0.355569,0.0943866,0.00231841,0.0897757,0.0226524,0.0838284,-0.0599429,-0.118799,0.240876,0.00312098,5.99339,-0.133493,5.88973,-10.5681,-61.4716,59.5071,0.634597,0,0,0,0,0,0,0,0.195648,0.0907718,-0.0295488,-1.85237,0.373708,0.0838429,0.00215272,0.00274744,-0.0211618,0.00358524,-0.0474343,0.607787,-0.0595228,0.00178544,0,0,0,0,0,0,0,-0.829586,-38.9378,-0.788561,28.7482,3.23791,1.42815,-0.0026396,
0.198171,0.0916159,-0.0270943,-1.85532,0.350382,0.100599,0.00234972,0.101,0.0206688,0.0949679,-0.0711947,-0.224719,0.348012,0.00327949,7.01489,-1.23976,6.96218,-7.03239,-66.2002,66.96,0.0990711,0,0,0,0,0,0,0,0.195648,0.0907718,-0.0295488,-1.85237,0.373708,0.0838429,0.00215272,0.00274744,-0.0211618,0.00358524,-0.0474343,0.607787,-0.0595228,0.00178544,0,0,0,0,0,0,0,-0.829586,-38.9378,-0.788561,28.7482,3.23791,1.42815,-0.0026396,
0.197441,0.0894581,-0.0277167,-1.85433,0.367654,0.0925711,0.0024219,0.107928,9.18478e-05,0.102946,-0.0809358,-0.29947,0.412359,0.00483857,4.33002,-12.8606,4.98606,-6.0882,-46.7193,40.2168,0.974421,0,0,0,0,0,0,0,0.196784,0.0911354,-0.0283259,-1.85264,0.378765,0.0843101,0.0021451,0.0666454,0.0367565,0.0615032,-0.00223097,0.0113992,0.104875,-0.0010495,7.98724,7.23978,7.23974,5.65042,-74.5485,20.5498,-0.354368,1.40003,-36.1449,0.814222,26.6058,0.392452,2.16424,0.0706026,
0.198697,0.0888875,-0.026496,-1.85523,0.361212,0.0991514,0.00246645,0.117735,-0.0141932,0.112873,-0.0874557,-0.400626,0.494393,0.00498477,6.12975,-8.92818,6.20439,-4.07488,-63.2225,51.2711,0.0913797,0,0,0,0,0,0,0,0.196784,0.0911354,-0.0283259,-1.85264,0.378765,0.0843101,0.0021451,0.0666454,0.0367565,0.0615032,-0.00223097,0.0113992,0.104875,-0.0010495,0,0,0,0,0,0,0,1.40003,-36.1449,0.814222,26.6058,0.392452,2.16424,0.0706026,
0.20002,0.0884165,-0.0252189,-1.85611,0.354081,0.106514,0.00249341,0.127283,-0.0231281,0.122226,-0.0919486,-0.49878,0.579592,0.0046617,5.96732,-5.5843,5.84578,-2.80812,-61.3461,53.2495,-0.20192,0,0,0,0,0,0,0,0.196784,0.0911354,-0.0283259,-1.85264,0.378765,0.0843101,0.0021451,0.0666454,0.0367565,0.0615032,-0.00223097,0.0113992,0.104875,-0.0010495,0,0,0,0,0,0,0,1.40003,-36.1449,0.814222,26.6058,0.392452,2.16424,0.0706026,
0.201363,0.0880382,-0.0239273,-1.85698,0.346779,0.114386,0.00251388,0.135402,-0.0279617,0.130072,-0.0951903,-0.581577,0.660452,0.00424121,5.07418,-3.02101,4.90384,-2.02606,-51.7487,50.5375,-0.262809,0,0,0,0,0,0,0,0.196784,0.0911354,-0.0283259,-1.85264,0.378765,0.0843101,0.0021451,0.0666454,0.0367565,0.0615032,-0.00223097,0.0113992,0.104875,-0.0010495,0,0,0,0,0,0,0,1.40003,-36.1449,0.814222,26.6058,0.392452,2.16424,0.0706026,
0.198995,0.0909322,-0.0261726,-1.85447,0.368025,0.094681,0.00233048,0.138858,-0.0253043,0.13392,-0.101017,-0.632698,0.679983,0.00509297,2.16012,1.6609,2.40527,-3.64173,-31.9506,12.2071,0.532352,0,0,0,0,0,0,0,0.196784,0.0911354,-0.0283259,-1.85264,0.378765,0.0843101,0.0021451,0.0666454,0.0367565,0.0615032,-0.00223097,0.0113992,0.104875,-0.0010495,0,0,0,0,0,0,0,1.40003,-36.1449,0.814222,26.6058,0.392452,2.16424,0.0706026,
0.200324,0.0908443,-0.0248781,-1.85552,0.359835,0.101776,0.00236947,0.144293,-0.0224404,0.1395,-0.106988,-0.710897,0.721354,0.00504923,3.39702,1.78991,3.4873,-3.7319,-48.8742,25.8567,-0.0273392,0,0,0,0,0,0,0,0.198879,0.091326,-0.026184,-1.85337,0.376719,0.0888354,0.00215342,0.0749597,-0.024981,0.0841327,-0.06363,-0.195217,0.205775,-0.000373354,1.03929,-7.71719,2.82869,-7.67488,-25.827,12.6125,0.0845189,2.2887,-34.1969,2.1631,24.4635,0.800778,2.31072,0.0376436,
0.201682,0.0907931,-0.0235624,-1.85661,0.351096,0.109506,0.00239376,0.149388,-0.019233,0.144492,-0.112956,-0.787201,0.770351,0.00464654,3.18427,2.00466,3.11991,-3.72999,-47.6898,30.6232,-0.251681,0,0,0,0,0,0,0,0.198879,0.091326,-0.026184,-1.85337,0.376719,0.0888354,0.00215342,0.0749597,-0.024981,0.0841327,-0.06363,-0.195217,0.205775,-0.000373354,0,0,0,0,0,0,0,2.2887,-34.1969,2.1631,24.4635,0.800778,2.31072,0.0376436,
0.203034,0.090773,-0.0222567,-1.85775,0.342317,0.117633,0.00241355,0.153303,-0.0158874,0.148235,-0.118703,-0.849233,0.819434,0.00421204,2.4467,2.09097,2.33925,-3.59167,-38.7699,30.6769,-0.271557,0,0,0,0,0,0,0,0.198879,0.091326,-0.026184,-1.85337,0.376719,0.0888354,0.00215342,0.0749597,-0.024981,0.0841327,-0.06363,-0.195217,0.205775,-0.000373354,0,0,0,0,0,0,0,2.2887,-34.1969,2.1631,24.4635,0.800778,2.31072,0.0376436,
0.201102,0.0906844,-0.024014,-1.85566,0.364367,0.0997398,0.00228946,0.1529,-0.0202401,0.148022,-0.125425,-0.861947,0.812178,0.00466924,-0.251669,-2.72045,-0.132972,-4.20141,-7.9465,-4.53497,0.285747,0,0,0,0,0,0,0,0.198879,0.091326,-0.026184,-1.85337,0.376719,0.0888354,0.00215342,0.0749597,-0.024981,0.0841327,-0.06363,-0.195217,0.205775,-0.000373354,0,0,0,0,0,0,0,2.2887,-34.1969,2.1631,24.4635,0.800778,2.31072,0.0376436,
0.202409,0.090436,-0.0227399,-1.85694,0.355622,0.106979,0.00232485,0.154989,-0.0224013,0.150269,-0.132419,-0.908169,0.83072,0.00462009,1.30577,-1.35071,1.40448,-4.37102,-28.8889,11.5886,-0.030717,0,0,0,0,0,0,0,0.202629,0.0911645,-0.0226028,-1.85596,0.364309,0.10272,0.00216187,0.148227,0.00623965,0.0909219,-0.074299,-0.62986,0.52033,-0.000446327,9.15847,3.90258,0.848658,-1.33362,-54.3303,39.3193,-0.00912165,0.360599,-37.0415,0.139784,25.6577,0.624081,2.53594,0.0440523,
0.203751,0.0902323,-0.0214367,-1.85828,0.346239,0.114822,0.00235134,0.157539,-0.0230129,0.152794,-0.139522,-0.961119,0.860648,0.00435836,1.59362,-0.382258,1.5781,-4.43965,-33.0935,18.7049,-0.163584,0,0,0,0,0,0,0,0.202629,0.0911645,-0.0226028,-1.85596,0.364309,0.10272,0.00216187,0.148227,0.00623965,0.0909219,-0.074299,-0.62986,0.52033,-0.000446327,0,0,0,0,0,0,0,0.360599,-37.0415,0.139784,25.6577,0.624081,2.53594,0.0440523,
0.205091,0.0900665,-0.0201405,-1.85968,0.336816,0.123037,0.00237443,0.159537,-0.0225577,0.154641,-0.146582,-1.00446,0.893904,0.00406408,1.24905,0.284522,1.15399,-4.41267,-27.0884,20.7848,-0.183921,0,0,0,0,0,0,0,0.202629,0.0911645,-0.0226028,-1.85596,0.364309,0.10272,0.00216187,0.148227,0.00623965,0.0909219,-0.074299,-0.62986,0.52033,-0.000446327,0,0,0,0,0,0,0,0.360599,-37.0415,0.139784,25.6577,0.624081,2.53594,0.0440523,
0.207686,0.0903894,-0.0176375,-1.86144,0.33321,0.132318,0.0022913,0.160502,-0.022073,0.155601,-0.153787,-1.00444,0.920326,0.00397241,0.602707,0.302916,0.600078,-4.50258,0.011672,16.5138,-0.0572994,0,0,0,0,0,0,0,0.202629,0.0911645,-0.0226028,-1.85596,0.364309,0.10272,0.00216187,0.148227,0.00623965,0.0909219,-0.074299,-0.62986,0.52033,-0.000446327,0,0,0,0,0,0,0,0.360599,-37.0415,0.139784,25.6577,0.624081,2.53594,0.0440523,
0.208992,0.0902573,-0.0163737,-1.86291,0.325542,0.140738,0.00231882,0.161073,-0.0209608,0.156074,-0.159968,-0.995259,0.946765,0.00386585,0.356837,0.695145,0.295919,-3.86353,5.73897,16.5247,-0.0665977,0,0,0,0,0,0,0,0.206676,0.0908969,-0.0181989,-1.85942,0.3411,0.124204,0.00216483,0.116338,-0.0235957,0.172419,-0.112057,-0.868934,0.692582,-0.000276375,-3.98622,-3.72942,10.1872,-4.71971,-29.8844,21.5316,0.021244,0.106693,-36.1925,0.0366345,25.1855,1.05163,2.52953,0.017502,
0.210285,0.0901493,-0.0151262,-1.8644,0.318363,0.149286,0.00234545,0.16118,-0.0194695,0.156048,-0.16512,-0.975662,0.971119,0.00375857,0.0672319,0.932027,-0.0161739,-3.22016,12.2482,15.2208,-0.06705,0,0,0,0,0,0,0,0.206676,0.0908969,-0.0181989,-1.85942,0.3411,0.124204,0.00216483,0.116338,-0.0235957,0.172419,-0.112057,-0.868934,0.692582,-0.000276375,0,0,0,0,0,0,0,0.106693,-36.1925,0.0366345,25.1855,1.05163,2.52953,0.017502,
0.211563,0.0900607,-0.0138955,-1.86589,0.311733,0.15791,0.00237038,0.160883,-0.0177895,0.155605,-0.169301,-0.946295,0.992487,0.00363,-0.185643,1.05001,-0.276726,-2.61268,18.3549,13.3555,-0.0803576,0,0,0,0,0,0,0,0.206676,0.0908969,-0.0181989,-1.85942,0.3411,0.124204,0.00216483,0.116338,-0.0235957,0.172419,-0.112057,-0.868934,0.692582,-0.000276375,0,0,0,0,0,0,0,0.106693,-36.1925,0.0366345,25.1855,1.05163,2.52953,0.017502,
0.21176,0.0899758,-0.0132461,-1.86516,0.313643,0.155238,0.00228212,0.160841,-0.0182777,0.155525,-0.172398,-0.916644,1.00192,0.00356838,-0.0262748,-0.305117,-0.050095,-1.93548,18.5315,5.89356,-0.0385126,0,0,0,0,0,0,0,0.206676,0.0908969,-0.0181989,-1.85942,0.3411,0.124204,0.00216483,0.116338,-0.0235957,0.172419,-0.112057,-0.868934,0.692582,-0.000276375,0,0,0,0,0,0,0,0.106693,-36.1925,0.0366345,25.1855,1.05163,2.52953,0.017502,
0.213036,0.0898502,-0.0120149,-1.86664,0.307736,0.163704,0.00230727,0.160589,-0.0177622,0.1552,-0.174809,-0.881,1.01319,0.00348332,-0.157839,0.322149,-0.203103,-1.50687,22.2774,7.04581,-0.0531632,0,0,0,0,0,0,0,0.211615,0.0905917,-0.0131899,-1.86386,0.312466,0.148948,0.00216412,0.171708,-0.0120183,0.120741,-0.15542,-0.95957,0.754821,9.34158e-06,6.92128,1.44718,-6.45974,-5.4204,-11.3295,7.7799,0.0357146,0.487552,-35.9425,0.238966,25.3323,1.38763,2.19811,0.0239107,
0.2143,0.0897537,-0.0107945,-1.86811,0.302324,0.17226,0.00233118,0.16007,-0.0166219,0.154669,-0.176575,-0.840092,1.02446,0.00338444,-0.324008,0.712744,-0.332048,-1.10409,25.5674,7.04651,-0.0618001,0,0,0,0,0,0,0,0.211615,0.0905917,-0.0131899,-1.86386,0.312466,0.148948,0.00216412,0.171708,-0.0120183,0.120741,-0.15542,-0.95957,0.754821,9.34158e-06,0,0,0,0,0,0,0,0.487552,-35.9425,0.238966,25.3323,1.38763,2.19811,0.0239107,
0.215551,0.0896834,-0.00958683,-1.86957,0.297413,0.180867,0.00235316,0.159316,-0.0150554,0.153927,-0.177706,-0.794856,1.03474,0.00325703,-0.471388,0.979055,-0.463683,-0.706666,28.273,6.42163,-0.0796294,0,0,0,0,0,0,0,0.211615,0.0905917,-0.0131899,-1.86386,0.312466,0.148948,0.00216412,0.171708,-0.0120183,0.120741,-0.15542,-0.95957,0.754821,9.34158e-06,0,0,0,0,0,0,0,0.487552,-35.9425,0.238966,25.3323,1.38763,2.19811,0.0239107,
0.218626,0.090399,-0.0064477,-1.87251,0.283882,0.192176,0.00226698,0.155772,-0.0114041,0.150401,-0.174432,-0.718955,0.988836,0.00292175,-2.21487,2.28203,-2.20373,2.04581,47.4377,-28.6895,-0.209546,0,0,0,0,0,0,0,0.211615,0.0905917,-0.0131899,-1.86386,0.312466,0.148948,0.00216412,0.171708,-0.0120183,0.120741,-0.15542,-0.95957,0.754821,9.34158e-06,0,0,0,0,0,0,0,0.487552,-35.9425,0.238966,25.3323,1.38763,2.19811,0.0239107,
0.219743,0.0904232,-0.00537147,-1.87376,0.280971,0.198094,0.00227761,0.152565,-0.00851697,0.147227,-0.170769,-0.647947,0.939014,0.00260315,-2.00476,1.80447,-1.98409,2.2897,44.3803,-31.1392,-0.199125,0,0,0,0,0,0,0,0.217164,0.0906082,-0.00866231,-1.86944,0.281776,0.178041,0.00216024,0.207486,0.00478534,0.10623,-0.176448,-0.875032,0.920268,1.57103e-05,4.47228,2.10045,-1.81396,-2.6285,10.5673,20.6808,0.00079609,-1.18664,-37.7913,-0.736986,26.7288,2.65197,1.95916,0.0303194,
0.220847,0.0904432,-0.00430874,-1.87497,0.278421,0.203496,0.0022861,0.149643,-0.00631325,0.14435,-0.167028,-0.582106,0.886271,0.00229481,-1.82566,1.37732,-1.79815,2.33799,41.1503,-32.9642,-0.192716,0,0,0,0,0,0,0,0.217164,0.0906082,-0.00866231,-1.86944,0.281776,0.178041,0.00216024,0.207486,0.00478534,0.10623,-0.176448,-0.875032,0.920268,1.57103e-05,0,0,0,0,0,0,0,-1.18664,-37.7913,-0.736986,26.7288,2.65197,1.95916,0.0303194,
0.225359,0.0910896,-0.000853736,-1.87892,0.260915,0.212293,0.0021336,0.143973,-0.00455035,0.138852,-0.161612,-0.496674,0.781404,0.00174407,-3.54386,1.10181,-3.43616,3.38512,53.3951,-65.5419,-0.344214,0,0,0,0,0,0,0,0.217164,0.0906082,-0.00866231,-1.86944,0.281776,0.178041,0.00216024,0.207486,0.00478534,0.10623,-0.176448,-0.875032,0.920268,1.57103e-05,0,0,0,0,0,0,0,-1.18664,-37.7913,-0.736986,26.7288,2.65197,1.95916,0.0303194,
0.226323,0.0911024,7.56534e-05,-1.88002,0.259824,0.214959,0.00212891,0.139284,-0.00331833,0.134316,-0.156948,-0.424598,0.691751,0.00127795,-2.931,0.770014,-2.83477,2.91526,45.0475,-56.0329,-0.291322,0,0,0,0,0,0,0,0.217164,0.0906082,-0.00866231,-1.86944,0.281776,0.178041,0.00216024,0.207486,0.00478534,0.10623,-0.176448,-0.875032,0.920268,1.57103e-05,0,0,0,0,0,0,0,-1.18664,-37.7913,-0.736986,26.7288,2.65197,1.95916,0.0303194,
0.22728,0.0911097,0.000998576,-1.88112,0.258852,0.217428,0.00212334,0.135357,-0.00247387,0.130526,-0.152892,-0.363998,0.615129,0.00088303,-2.45407,0.52779,-2.36885,2.53463,37.8752,-47.889,-0.246826,0,0,0,0,0,0,0,0.221463,0.0906881,-0.00404787,-1.87534,0.257528,0.207228,0.0021647,0.0864027,0.00607192,0.17942,-0.190182,-0.673586,0.917285,-0.00115076,-15.1354,0.160823,9.1488,-1.71673,25.1808,-0.372918,-0.145809,1.2215,-38.6879,1.56404,27.9745,2.49267,2.52221,0.050461,
0.228229,0.0911125,0.00191395,-1.8822,0.257972,0.21973,0.00211695,0.132016,-0.00190883,0.127305,-0.149324,-0.313189,0.549661,0.000546871,-2.08842,0.353148,-2.01304,2.22992,31.7557,-40.9173,-0.2101,0,0,0,0,0,0,0,0.221463,0.0906881,-0.00404787,-1.87534,0.257528,0.207228,0.0021647,0.0864027,0.00607192,0.17942,-0.190182,-0.673586,0.917285,-0.00115076,0,0,0,0,0,0,0,1.2215,-38.6879,1.56404,27.9745,2.49267,2.52221,0.050461,
0.230999,0.0911186,0.00507983,-1.88679,0.241302,0.237475,0.00201559,0.124711,-0.00183737,0.12031,-0.141702,-0.266695,0.47787,0.000257918,-4.56538,0.0446639,-4.37183,4.76379,29.0585,-44.8698,-0.180595,0,0,0,0,0,0,0,0.221463,0.0906881,-0.00404787,-1.87534,0.257528,0.207228,0.0021647,0.0864027,0.00607192,0.17942,-0.190182,-0.673586,0.917285,-0.00115076,0,0,0,0,0,0,0,1.2215,-38.6879,1.56404,27.9745,2.49267,2.52221,0.050461,
0.231755,0.0911064,0.00581128,-1.88767,0.240672,0.238951,0.00200868,0.11868,-0.00177503,0.114534,-0.135219,-0.229117,0.419198,3.37474e-05,-3.76968,0.0389629,-3.60992,4.05219,23.4864,-36.67,-0.140107,0,0,0,0,0,0,0,0.221463,0.0906881,-0.00404787,-1.87534,0.257528,0.207228,0.0021647,0.0864027,0.00607192,0.17942,-0.190182,-0.673586,0.917285,-0.00115076,0,0,0,0,0,0,0,1.2215,-38.6879,1.56404,27.9745,2.49267,2.52221,0.050461,
0.232503,0.0910946,0.00653428,-1.88853,0.240053,0.240384,0.00200207,0.113635,-0.00171498,0.109703,-0.129632,-0.19877,0.371165,-0.00013831,-3.15287,0.037532,-3.01984,3.49157,18.9668,-30.0202,-0.107536,0,0,0,0,0,0,0,0.221463,0.0906881,-0.00404787,-1.87534,0.257528,0.207228,0.0021647,0.0864027,0.00607192,0.17942,-0.190182,-0.673586,0.917285,-0.00115076,0,0,0,0,0,0,0,1.2215,-38.6879,1.56404,27.9745,2.49267,2.52221,0.050461,
0.233241,0.0910833,0.00724781,-1.88937,0.239442,0.241776,0.00199579,0.109354,-0.00165453,0.1056,-0.124752,-0.174281,0.331746,-0.000267662,-2.67592,0.0377764,-2.56389,3.05014,15.3055,-24.6372,-0.0808445,0,0,0,0,0,0,0,0.22523,0.0913474,0.000736819,-1.88123,0.23895,0.23596,0.00216483,-0.000744241,0.0391912,0.217452,-0.149828,-0.394371,0.715217,5.55655e-05,-10.8934,4.13991,4.75393,5.04427,34.9019,-25.2584,0.15079,2.21332,-39.3147,2.26228,26.3043,2.91473,1.19012,0.017502,
0.231525,0.0921354,0.00679355,-1.88892,0.229062,0.256168,0.00206852,0.104408,-0.00125797,0.100856,-0.119844,-0.155879,0.300289,-0.000343387,-3.09099,0.247853,-2.96518,3.06758,11.5016,-19.6602,-0.0473281,0,0,0,0,0,0,0,0.22523,0.0913474,0.000736819,-1.88123,0.23895,0.23596,0.00216483,-0.000744241,0.0391912,0.217452,-0.149828,-0.394371,0.715217,5.55655e-05,0,0,0,0,0,0,0,2.21332,-39.3147,2.26228,26.3043,2.91473,1.19012,0.017502,
0.232196,0.0921353,0.0074435,-1.8897,0.228428,0.257495,0.00206378,0.100316,-0.00100883,0.0969334,-0.115537,-0.140556,0.273413,-0.000393293,-2.55751,0.155713,-2.45167,2.69159,9.57693,-16.7977,-0.0311914,0,0,0,0,0,0,0,0.22523,0.0913474,0.000736819,-1.88123,0.23895,0.23596,0.00216483,-0.000744241,0.0391912,0.217452,-0.149828,-0.394371,0.715217,5.55655e-05,0,0,0,0,0,0,0,2.21332,-39.3147,2.26228,26.3043,2.91473,1.19012,0.017502,
0.232861,0.0921337,0.00808695,-1.89047,0.227812,0.258765,0.00205946,0.0968722,-0.000845609,0.093633,-0.111697,-0.127843,0.250472,-0.000422666,-2.15234,0.102013,-2.0627,2.40043,7.94577,-14.338,-0.0183581,0,0,0,0,0,0,0,0.22523,0.0913474,0.000736819,-1.88123,0.23895,0.23596,0.00216483,-0.000744241,0.0391912,0.217452,-0.149828,-0.394371,0.715217,5.55655e-05,0,0,0,0,0,0,0,2.21332,-39.3147,2.26228,26.3043,2.91473,1.19012,0.017502,
0.233518,0.0921315,0.00872267,-1.89123,0.22721,0.259984,0.00205555,0.0939158,-0.00073153,0.0907995,-0.108217,-0.11732,0.230865,-0.000435891,-1.84773,0.0712996,-1.77099,2.17487,6.57655,-12.2546,-0.00826602,0,0,0,0,0,0,0,0.2284,0.0920745,0.00457715,-1.88572,0.229427,0.254652,0.00215726,0.0478004,0.0115773,0.149055,-0.134118,-0.216786,0.456991,-0.00138585,6.06807,-3.45174,-8.5496,1.96369,22.1981,-32.2783,-0.180177,1.85627,-39.1124,1.3379,25.4077,2.11456,0.904471,0.0440523,
0.2342,0.0924248,0.0101755,-1.89225,0.222393,0.268866,0.00210478,0.0899658,-0.000560262,0.0870079,-0.103165,-0.108491,0.211269,-0.000389463,-2.46876,0.107042,-2.36975,3.15725,5.51802,-12.2474,0.0290179,0,0,0,0,0,0,0,0.2284,0.0920745,0.00457715,-1.88572,0.229427,0.254652,0.00215726,0.0478004,0.0115773,0.149055,-0.134118,-0.216786,0.456991,-0.00138585,0,0,0,0,0,0,0,1.85627,-39.1124,1.3379,25.4077,2.11456,0.904471,0.0440523,
0.234782,0.0924251,0.0107398,-1.89289,0.221815,0.269878,0.00210367,0.0865338,-0.00044161,0.0837135,-0.098724,-0.10125,0.194307,-0.000339135,-2.14501,0.0741573,-2.05899,2.77573,4.52604,-10.6014,0.031455,0,0,0,0,0,0,0,0.2284,0.0920745,0.00457715,-1.88572,0.229427,0.254652,0.00215726,0.0478004,0.0115773,0.149055,-0.134118,-0.216786,0.456991,-0.00138585,0,0,0,0,0,0,0,1.85627,-39.1124,1.3379,25.4077,2.11456,0.904471,0.0440523,
0.235353,0.0924252,0.0112931,-1.89353,0.22124,0.270844,0.0021031,0.0835054,-0.000351873,0.0808057,-0.0947622,-0.0953671,0.179612,-0.000285752,-1.89275,0.0560854,-1.81738,2.47611,3.67658,-9.18443,0.0333644,0,0,0,0,0,0,0,0.2284,0.0920745,0.00457715,-1.88572,0.229427,0.254652,0.00215726,0.0478004,0.0115773,0.149055,-0.134118,-0.216786,0.456991,-0.00138585,0,0,0,0,0,0,0,1.85627,-39.1124,1.3379,25.4077,2.11456,0.904471,0.0440523,
0.235913,0.0924253,0.0118352,-1.89414,0.220666,0.271771,0.00210304,0.0807896,-0.000278123,0.0781967,-0.0911773,-0.0906481,0.166851,-0.000230074,-1.69736,0.046094,-1.63059,2.24061,2.94939,-7.97558,0.0347986,0,0,0,0,0,0,0,0.23182,0.0923455,0.007084,-1.8896,0.224347,0.266496,0.00216087,0.158859,0.000822389,0.00329228,-0.117734,-0.118629,0.307716,-0.00186476,13.8824,-1.34437,-18.2203,2.04801,12.2696,-18.6594,-0.0598628,0.00751081,-37.6643,0.0644055,25.8798,1.55243,1.33568,0.0101778,
0.23491,0.0924793,0.0100506,-1.89307,0.220768,0.2737,0.00214362,0.0793456,-3.01495e-05,0.0768007,-0.0893712,-0.0877857,0.161964,-0.000232599,-0.902504,0.154983,-0.87252,1.1288,1.78896,-3.05427,-0.00157795,0,0,0,0,0,0,0,0.23182,0.0923455,0.007084,-1.8896,0.224347,0.266496,0.00216087,0.158859,0.000822389,0.00329228,-0.117734,-0.118629,0.307716,-0.00186476,0,0,0,0,0,0,0,0.00751081,-37.6643,0.0644055,25.8798,1.55243,1.33568,0.0101778,
0.235487,0.0924833,0.0106099,-1.89371,0.220175,0.27476,0.00214239,0.0779141,7.45727e-05,0.0754238,-0.087564,-0.0850454,0.156077,-0.000216993,-0.894703,0.0654514,-0.860583,1.12948,1.71271,-3.67957,0.0097534,0,0,0,0,0,0,0,0.23182,0.0923455,0.007084,-1.8896,0.224347,0.266496,0.00216087,0.158859,0.000822389,0.00329228,-0.117734,-0.118629,0.307716,-0.00186476,0,0,0,0,0,0,0,0.00751081,-37.6643,0.0644055,25.8798,1.55243,1.33568,0.0101778,
0.236054,0.0924852,0.0111587,-1.89434,0.219593,0.275756,0.00214178,0.0764934,0.000108451,0.07406,-0.0857402,-0.0825955,0.149771,-0.000188803,-0.887915,0.021174,-0.852332,1.13992,1.53121,-3.94101,0.0176186,0,0,0,0,0,0,0,0.23182,0.0923455,0.007084,-1.8896,0.224347,0.266496,0.00216087,0.158859,0.000822389,0.00329228,-0.117734,-0.118629,0.307716,-0.00186476,0,0,0,0,0,0,0,0.00751081,-37.6643,0.0644055,25.8798,1.55243,1.33568,0.0101778,
0.236609,0.0924862,0.0116968,-1.89495,0.219015,0.276699,0.00214175,0.0750763,0.000112499,0.0727002,-0.0838901,-0.0805154,0.143398,-0.00015181,-0.885696,0.00252958,-0.849923,1.15631,1.30004,-3.98282,0.0231206,0,0,0,0,0,0,0,0.235001,0.0926575,0.00944667,-1.89281,0.221883,0.274429,0.00216006,0.105087,0.00837823,0.0573264,-0.0930905,-0.0600318,0.174114,-0.000202917,-6.72154,0.94448,6.75426,3.08044,7.32469,-16.7001,0.20773,-0.730404,-37.8151,-0.435472,25.8322,0.831906,1.99853,0.017502,
0.23801,0.0928295,0.0123555,-1.89602,0.219226,0.279501,0.00215573,0.0741855,0.000523852,0.0718419,-0.082227,-0.0780822,0.136745,-0.000114886,-0.556764,0.257096,-0.536389,1.03943,1.52075,-4.15817,0.0230778,0,0,0,0,0,0,0,0.235001,0.0926575,0.00944667,-1.89281,0.221883,0.274429,0.00216006,0.105087,0.00837823,0.0573264,-0.0930905,-0.0600318,0.174114,-0.000202917,0,0,0,0,0,0,0,-0.730404,-37.8151,-0.435472,25.8322,0.831906,1.99853,0.017502,
0.238559,0.0928431,0.0128873,-1.89661,0.218669,0.280342,0.0021566,0.0730713,0.000759218,0.0707686,-0.0804499,-0.0763986,0.130416,-7.02866e-05,-0.696403,0.147104,-0.670812,1.11069,1.05224,-3.95592,0.0278746,0,0,0,0,0,0,0,0.235001,0.0926575,0.00944667,-1.89281,0.221883,0.274429,0.00216006,0.105087,0.00837823,0.0573264,-0.0930905,-0.0600318,0.174114,-0.000202917,0,0,0,0,0,0,0,-0.730404,-37.8151,-0.435472,25.8322,0.831906,1.99853,0.017502,
0.239093,0.0928542,0.0134042,-1.89718,0.218099,0.281148,0.00215805,0.0717926,0.000883801,0.0695365,-0.0785821,-0.0753593,0.1245,-1.98387e-05,-0.799188,0.0778648,-0.770067,1.16736,0.649544,-3.69732,0.0315299,0,0,0,0,0,0,0,0.235001,0.0926575,0.00944667,-1.89281,0.221883,0.274429,0.00216006,0.105087,0.00837823,0.0573264,-0.0930905,-0.0600318,0.174114,-0.000202917,0,0,0,0,0,0,0,-0.730404,-37.8151,-0.435472,25.8322,0.831906,1.99853,0.017502,
0.239611,0.0928634,0.0139065,-1.89773,0.217515,0.281926,0.00216008,0.0703928,0.000939525,0.0681871,-0.0766426,-0.0748824,0.119031,3.47464e-05,-0.874866,0.0348275,-0.843363,1.21222,0.298099,-3.41851,0.0341157,0,0,0,0,0,0,0,0.236919,0.092805,0.0128619,-1.89572,0.220505,0.278233,0.00216158,-0.000859603,0.00563203,0.154327,-0.0856072,-0.0397106,0.0826289,8.26269e-05,-13.2433,-0.343274,12.1251,0.935411,2.54015,-11.4357,0.035693,0.158268,-37.4898,-0.0625476,26.2805,0.722042,2.73461,0.00376909,
0.239692,0.0929627,0.0155677,-1.89869,0.217942,0.28174,0.00217048,0.0693528,0.00131135,0.0671805,-0.0750303,-0.0750979,0.113025,9.5192e-05,-0.650002,0.232392,-0.62915,1.00769,-0.134712,-3.75345,0.0377785,0,0,0,0,0,0,0,0.236919,0.092805,0.0128619,-1.89572,0.220505,0.278233,0.00216158,-0.000859603,0.00563203,0.154327,-0.0856072,-0.0397106,0.0826289,8.26269e-05,0,0,0,0,0,0,0,0.158268,-37.4898,-0.0625476,26.2805,0.722042,2.73461,0.00376909,
0.240197,0.0929819,0.0160562,-1.89922,0.217304,0.282447,0.00217362,0.068091,0.00152793,0.0659571,-0.0732219,-0.0760229,0.108102,0.000154822,-0.788608,0.135362,-0.764629,1.13022,-0.578083,-3.07673,0.0372687,0,0,0,0,0,0,0,0.236919,0.092805,0.0128619,-1.89572,0.220505,0.278233,0.00216158,-0.000859603,0.00563203,0.154327,-0.0856072,-0.0397106,0.0826289,8.26269e-05,0,0,0,0,0,0,0,0.158268,-37.4898,-0.0625476,26.2805,0.722042,2.73461,0.00376909,
0.240684,0.0929983,0.0165285,-1.89973,0.216638,0.283147,0.00217725,0.0666638,0.00163323,0.0645731,-0.0712711,-0.0774613,0.103991,0.000214595,-0.891994,0.0658095,-0.865012,1.21923,-0.899013,-2.56942,0.037358,0,0,0,0,0,0,0,0.236919,0.092805,0.0128619,-1.89572,0.220505,0.278233,0.00216158,-0.000859603,0.00563203,0.154327,-0.0856072,-0.0397106,0.0826289,8.26269e-05,0,0,0,0,0,0,0,0.158268,-37.4898,-0.0625476,26.2805,0.722042,2.73461,0.00376909,
0.241156,0.0930125,0.0169851,-1.90021,0.215946,0.283839,0.00218135,0.0651166,0.00166017,0.0630731,-0.069218,-0.0792803,0.100494,0.000274029,-0.967005,0.016842,-0.937469,1.2832,-1.13688,-2.18578,0.0371467,0,0,0,0,0,0,0,0.239554,0.0931263,0.0154217,-1.89842,0.219412,0.280326,0.00216006,0.123615,0.0129202,0.0242635,-0.0755377,-0.0324788,0.0503844,-0.0014828,15.5593,0.911016,-16.2579,1.25869,0.903972,-4.03056,-0.195678,-0.984311,-38.1404,-1.16149,26.9272,0.764157,2.82799,0.017502,
0.242298,0.0933927,0.018073,-1.90116,0.215525,0.283894,0.00218509,0.064637,0.00222044,0.0625953,-0.0677381,-0.0871595,0.100508,0.000341252,-0.299753,0.350164,-0.298668,0.924966,-4.92449,0.00879497,0.0420144,0,0,0,0,0,0,0,0.239554,0.0931263,0.0154217,-1.89842,0.219412,0.280326,0.00216006,0.123615,0.0129202,0.0242635,-0.0755377,-0.0324788,0.0503844,-0.0014828,0,0,0,0,0,0,0,-0.984311,-38.1404,-1.16149,26.9272,0.764157,2.82799,0.017502,
0.242778,0.0934226,0.0185375,-1.90163,0.214526,0.284716,0.00219029,0.0637166,0.00252252,0.0616899,-0.0659597,-0.0947128,0.100962,0.000403,-0.575269,0.188802,-0.565864,1.11146,-4.72084,0.283711,0.0385923,0,0,0,0,0,0,0,0.239554,0.0931263,0.0154217,-1.89842,0.219412,0.280326,0.00216006,0.123615,0.0129202,0.0242635,-0.0755377,-0.0324788,0.0503844,-0.0014828,0,0,0,0,0,0,0,-0.984311,-38.1404,-1.16149,26.9272,0.764157,2.82799,0.017502,
0.243238,0.0934475,0.0189824,-1.90207,0.213485,0.285548,0.00219583,0.0624741,0.00264091,0.0604739,-0.0639687,-0.101783,0.101567,0.000460943,-0.77656,0.0739929,-0.759976,1.24437,-4.41899,0.378397,0.0362143,0,0,0,0,0,0,0,0.239554,0.0931263,0.0154217,-1.89842,0.219412,0.280326,0.00216006,0.123615,0.0129202,0.0242635,-0.0755377,-0.0324788,0.0503844,-0.0014828,0,0,0,0,0,0,0,-0.984311,-38.1404,-1.16149,26.9272,0.764157,2.82799,0.017502,
0.243679,0.0934682,0.0194088,-1.9025,0.212412,0.286383,0.00220165,0.0610028,0.00263142,0.0590383,-0.0618288,-0.108262,0.102119,0.000514404,-0.919568,-0.00593341,-0.897275,1.33745,-4.0493,0.344985,0.0334128,0,0,0,0,0,0,0,0.242172,0.0933778,0.0175274,-1.90093,0.218182,0.281924,0.00216288,0.0584441,-0.00728479,0.0704054,-0.0765049,-0.0502386,0.0477137,0.00130222,-8.14636,-2.52562,5.76773,-0.120904,-2.21997,-0.333837,0.348127,-1.13507,-37.6921,-0.713182,26.4035,0.97839,2.62841,-0.0365141,
0.244331,0.0933417,0.0196252,-1.90306,0.214484,0.285774,0.0022048,0.0621416,0.00221627,0.0601246,-0.0616936,-0.114275,0.110543,0.000638291,0.711757,-0.259465,0.678968,0.0845114,-3.75789,5.26483,0.0774295,0,0,0,0,0,0,0,0.242172,0.0933778,0.0175274,-1.90093,0.218182,0.281924,0.00216288,0.0584441,-0.00728479,0.0704054,-0.0765049,-0.0502386,0.0477137,0.00130222,0,0,0,0,0,0,0,-1.13507,-37.6921,-0.713182,26.4035,0.97839,2.62841,-0.0365141,
0.244854,0.0933482,0.0201296,-1.90353,0.213306,0.286985,0.00221366,0.0627711,0.00193632,0.0607076,-0.0609491,-0.120872,0.118703,0.000732172,0.393451,-0.174967,0.364368,0.465285,-4.12339,5.0997,0.0586759,0,0,0,0,0,0,0,0.242172,0.0933778,0.0175274,-1.90093,0.218182,0.281924,0.00216288,0.0584441,-0.00728479,0.0704054,-0.0765049,-0.0502386,0.0477137,0.00130222,0,0,0,0,0,0,0,-1.13507,-37.6921,-0.713182,26.4035,0.97839,2.62841,-0.0365141,
0.245363,0.093355,0.0206212,-1.90397,0.212071,0.288229,0.00222249,0.0629566,0.00171839,0.0608582,-0.0597518,-0.127558,0.126048,0.000806532,0.115939,-0.136209,0.0941334,0.748336,-4.17875,4.59095,0.0464747,0,0,0,0,0,0,0,0.242172,0.0933778,0.0175274,-1.90093,0.218182,0.281924,0.00216288,0.0584441,-0.00728479,0.0704054,-0.0765049,-0.0502386,0.0477137,0.00130222,0,0,0,0,0,0,0,-1.13507,-37.6921,-0.713182,26.4035,0.97839,2.62841,-0.0365141,
0.245859,0.093361,0.0210997,-1.90438,0.210794,0.289487,0.00223132,0.0627692,0.00152367,0.0606489,-0.0582201,-0.133992,0.132288,0.000865866,-0.117141,-0.121702,-0.130828,0.957321,-4.02122,3.89965,0.0370841,0,0,0,0,0,0,0,0.242172,0.0933778,0.0175274,-1.90093,0.218182,0.281924,0.00216288,0.0584441,-0.00728479,0.0704054,-0.0765049,-0.0502386,0.0477137,0.00130222,0,0,0,0,0,0,0,-1.13507,-37.6921,-0.713182,26.4035,0.97839,2.62841,-0.0365141,
0.246177,0.0940436,0.0227044,-1.90621,0.213408,0.291409,0.00235693,0.0677359,0.00173375,0.0653785,-0.0653365,-0.122118,0.159138,0.0017993,3.10421,0.131301,2.95602,-4.44779,7.42161,16.7816,0.583393,0,0,0,0,0,0,0,0.243634,0.0938907,0.0202429,-1.90307,0.215894,0.283776,0.00216158,0.0263332,0.0322655,0.085557,-0.0480041,-0.0857226,0.0611742,-0.000786984,-4.01386,4.94379,1.89395,3.5626,-4.43549,1.68256,-0.26115,0.717655,-38.1404,0.314344,26.2567,0.941769,2.61559,0.00376909,
0.246897,0.0940574,0.0233967,-1.90692,0.212833,0.29355,0.002399,0.072179,0.00173314,0.0696102,-0.0700385,-0.112092,0.180833,0.0024912,2.77695,-0.000382759,2.64477,-2.93871,6.26573,13.559,0.432438,0,0,0,0,0,0,0,0.243634,0.0938907,0.0202429,-1.90307,0.215894,0.283776,0.00216158,0.0263332,0.0322655,0.085557,-0.0480041,-0.0857226,0.0611742,-0.000786984,0,0,0,0,0,0,0,0.717655,-38.1404,0.314344,26.2567,0.941769,2.61559,0.00376909,
0.247627,0.0940643,0.0240995,-1.9076,0.212273,0.295665,0.0024395,0.0760055,0.00155804,0.0732592,-0.072889,-0.103651,0.197557,0.00300569,2.39153,-0.109433,2.28067,-1.78155,5.27605,10.4527,0.321558,0,0,0,0,0,0,0,0.243634,0.0938907,0.0202429,-1.90307,0.215894,0.283776,0.00216158,0.0263332,0.0322655,0.085557,-0.0480041,-0.0857226,0.0611742,-0.000786984,0,0,0,0,0,0,0,0.717655,-38.1404,0.314344,26.2567,0.941769,2.61559,0.00376909,
0.248363,0.0940645,0.0248077,-1.90824,0.211728,0.297733,0.002479,0.0791975,0.00125311,0.0763105,-0.0743336,-0.0965598,0.209727,0.00339188,1.99503,-0.190585,1.90704,-0.90287,4.4318,7.60626,0.241367,0,0,0,0,0,0,0,0.243634,0.0938907,0.0202429,-1.90307,0.215894,0.283776,0.00216158,0.0263332,0.0322655,0.085557,-0.0480041,-0.0857226,0.0611742,-0.000786984,0,0,0,0,0,0,0,0.717655,-38.1404,0.314344,26.2567,0.941769,2.61559,0.00376909,
0.249996,0.0937669,0.025694,-1.91041,0.2103,0.298691,0.00251807,0.083088,-0.000287997,0.0801823,-0.080177,-0.0818837,0.219598,0.00399206,2.43155,-0.96319,2.4199,-3.65215,9.17255,6.16947,0.375117,0,0,0,0,0,0,0,0.245851,0.0943267,0.0216594,-1.90502,0.212554,0.286294,0.00215863,0.0875431,-0.00381589,0.0120036,-0.0635621,-0.107501,0.0855357,-0.00158579,7.65124,-4.51017,-9.19417,-1.94475,-2.72236,3.04518,-0.0998511,-0.119442,-38.6403,0.112013,26.3281,0.788876,2.68792,0.0303194,
0.250799,0.0937216,0.0264719,-1.9112,0.21015,0.300667,0.00256438,0.0865455,-0.00136469,0.083593,-0.0840654,-0.0692692,0.225077,0.00435132,2.16092,-0.672935,2.13165,-2.43022,7.88411,3.42409,0.224538,0,0,0,0,0,0,0,0.245851,0.0943267,0.0216594,-1.90502,0.212554,0.286294,0.00215863,0.0875431,-0.00381589,0.0120036,-0.0635621,-0.107501,0.0855357,-0.00158579,0,0,0,0,0,0,0,-0.119442,-38.6403,0.112013,26.3281,0.788876,2.68792,0.0303194,
0.251612,0.0936804,0.0272596,-1.91197,0.209983,0.302549,0.00261201,0.0895475,-0.00212142,0.0865676,-0.0864257,-0.0595797,0.227106,0.00467184,1.87623,-0.472952,1.85913,-1.47522,6.05592,1.26803,0.200324,0,0,0,0,0,0,0,0.245851,0.0943267,0.0216594,-1.90502,0.212554,0.286294,0.00215863,0.0875431,-0.00381589,0.0120036,-0.0635621,-0.107501,0.0855357,-0.00158579,0,0,0,0,0,0,0,-0.119442,-38.6403,0.112013,26.3281,0.788876,2.68792,0.0303194,
0.252429,0.0936406,0.028055,-1.91271,0.209756,0.304359,0.00266599,0.0920825,-0.00269244,0.089139,-0.0877072,-0.0533464,0.226933,0.00508687,1.58437,-0.35689,1.60711,-0.800967,3.89577,-0.107721,0.259392,0,0,0,0,0,0,0,0.245851,0.0943267,0.0216594,-1.90502,0.212554,0.286294,0.00215863,0.0875431,-0.00381589,0.0120036,-0.0635621,-0.107501,0.0855357,-0.00158579,0,0,0,0,0,0,0,-0.119442,-38.6403,0.112013,26.3281,0.788876,2.68792,0.0303194,
0.252425,0.0938322,0.0279994,-1.91304,0.208373,0.30389,0.00265995,0.0942719,-0.0025631,0.0912017,-0.089857,-0.0513685,0.223354,0.0053537,1.3684,0.080836,1.28921,-1.34358,1.2362,-2.23723,0.166771,0,0,0,0,0,0,0,0.24738,0.0945295,0.0239748,-1.90745,0.209926,0.290502,0.0021634,0.00557813,0.0131626,0.109655,-0.0678627,-0.0628015,0.147554,-0.00124939,-10.2456,2.12231,12.2064,-0.537573,5.58749,7.75232,0.0420498,2.0586,-37.1684,1.93696,25.9552,0.971981,2.66137,0.0303194,
0.253251,0.0938181,0.0287965,-1.9138,0.208183,0.305365,0.00271243,0.0960617,-0.00240448,0.0928896,-0.0908908,-0.0458563,0.215537,0.00559497,1.11864,0.0991415,1.05496,-0.646149,3.44513,-4.88551,0.150792,0,0,0,0,0,0,0,0.24738,0.0945295,0.0239748,-1.90745,0.209926,0.290502,0.0021634,0.00557813,0.0131626,0.109655,-0.0678627,-0.0628015,0.147554,-0.00124939,0,0,0,0,0,0,0,2.0586,-37.1684,1.93696,25.9552,0.971981,2.66137,0.0303194,
0.254075,0.0938059,0.0295926,-1.91453,0.20818,0.306624,0.00276718,0.0974667,-0.00222879,0.0942148,-0.0910508,-0.0367484,0.203916,0.00584488,0.878106,0.109802,0.828226,-0.0999847,5.69242,-7.263,0.156194,0,0,0,0,0,0,0,0.24738,0.0945295,0.0239748,-1.90745,0.209926,0.290502,0.0021634,0.00557813,0.0131626,0.109655,-0.0678627,-0.0628015,0.147554,-0.00124939,0,0,0,0,0,0,0,2.0586,-37.1684,1.93696,25.9552,0.971981,2.66137,0.0303194,
0.254898,0.0937954,0.0303864,-1.91524,0.208372,0.307664,0.00282802,0.0985286,-0.0020451,0.0952147,-0.0905366,-0.0246226,0.18914,0.00619695,0.663683,0.114806,0.624921,0.32134,7.57864,-9.23521,0.220041,0,0,0,0,0,0,0,0.24738,0.0945295,0.0239748,-1.90745,0.209926,0.290502,0.0021634,0.00557813,0.0131626,0.109655,-0.0678627,-0.0628015,0.147554,-0.00124939,0,0,0,0,0,0,0,2.0586,-37.1684,1.93696,25.9552,0.971981,2.66137,0.0303194,
0.252606,0.0940352,0.0290762,-1.91476,0.211438,0.305401,0.00264713,0.0999971,-0.00308435,0.0967248,-0.0965583,-0.000676715,0.19326,0.00699791,0.917846,-0.649532,0.943852,-3.76352,14.9662,2.57531,0.5006,0,0,0,0,0,0,0,0.249658,0.094814,0.0259778,-1.91018,0.208784,0.296197,0.00216672,0.113875,0.00802751,0.0148394,-0.0917844,-0.01569,0.182756,0.000380363,13.5371,-0.64189,-11.8519,-2.99022,5.88893,4.40026,0.20372,1.52698,-38.5411,1.46089,26.1298,0.929867,2.55608,0.00376909,
0.253461,0.0939761,0.0299064,-1.9157,0.212346,0.306882,0.00274648,0.101373,-0.00394556,0.0981346,-0.100705,0.0221577,0.191637,0.00808215,0.860078,-0.538251,0.88108,-2.59154,14.2715,-1.01425,0.677653,0,0,0,0,0,0,0,0.249658,0.094814,0.0259778,-1.91018,0.208784,0.296197,0.00216672,0.113875,0.00802751,0.0148394,-0.0917844,-0.01569,0.182756,0.000380363,0,0,0,0,0,0,0,1.52698,-38.5411,1.46089,26.1298,0.929867,2.55608,0.00376909,
0.254314,0.0939155,0.0307341,-1.91661,0.2134,0.308199,0.00285783,0.102408,-0.00467098,0.0991988,-0.103486,0.044072,0.186232,0.00924928,0.646428,-0.453387,0.665119,-1.73807,13.6964,-3.37808,0.729454,0,0,0,0,0,0,0,0.249658,0.094814,0.0259778,-1.91018,0.208784,0.296197,0.00216672,0.113875,0.00802751,0.0148394,-0.0917844,-0.01569,0.182756,0.000380363,0,0,0,0,0,0,0,1.52698,-38.5411,1.46089,26.1298,0.929867,2.55608,0.00376909,
0.25515,0.093854,0.0315506,-1.91752,0.214582,0.309426,0.00295309,0.102827,-0.00527519,0.0997718,-0.105382,0.0648255,0.179673,0.00978112,0.262009,-0.377633,0.35812,-1.18518,12.9709,-4.09983,0.332402,0,0,0,0,0,0,0,0.249658,0.094814,0.0259778,-1.91018,0.208784,0.296197,0.00216672,0.113875,0.00802751,0.0148394,-0.0917844,-0.01569,0.182756,0.000380363,0,0,0,0,0,0,0,1.52698,-38.5411,1.46089,26.1298,0.929867,2.55608,0.00376909,
0.252783,0.0945422,0.0290011,-1.9151,0.210586,0.305947,0.0025384,0.103995,-0.00532743,0.100834,-0.114558,0.0715256,0.201364,0.0102287,0.730365,-0.0326479,0.663863,-5.73479,4.18758,13.5573,0.279745,0,0,0,0,0,0,0,0.252304,0.0948237,0.0283824,-1.91328,0.208259,0.302016,0.00216888,0.0371821,0.0064477,0.109007,-0.0882365,-0.00260729,0.168244,0.000271314,-9.58656,-0.197476,11.771,0.443489,1.63534,-1.81407,-0.0136311,1.14612,-37.0415,1.38948,25.1578,1.25305,2.19811,0.0239107,
0.253682,0.0945074,0.0298706,-1.91628,0.211528,0.308054,0.0026502,0.105683,-0.00513163,0.102404,-0.121066,0.0807742,0.213749,0.010978,1.055,0.12237,0.981125,-4.068,5.78041,7.74069,0.468291,0,0,0,0,0,0,0,0.252304,0.0948237,0.0283824,-1.91328,0.208259,0.302016,0.00216888,0.0371821,0.0064477,0.109007,-0.0882365,-0.00260729,0.168244,0.000271314,0,0,0,0,0,0,0,1.14612,-37.0415,1.38948,25.1578,1.25305,2.19811,0.0239107,
0.254596,0.094478,0.0307543,-1.91743,0.212597,0.309976,0.00277589,0.107398,-0.00484031,0.104018,-0.12558,0.0913377,0.219049,0.0119246,1.07171,0.182076,1.00862,-2.82109,6.60217,3.3125,0.591635,0,0,0,0,0,0,0,0.252304,0.0948237,0.0283824,-1.91328,0.208259,0.302016,0.00216888,0.0371821,0.0064477,0.109007,-0.0882365,-0.00260729,0.168244,0.000271314,0,0,0,0,0,0,0,1.14612,-37.0415,1.38948,25.1578,1.25305,2.19811,0.0239107,
0.255509,0.0944523,0.0316342,-1.91856,0.213784,0.311771,0.00288507,0.108745,-0.0045132,0.105211,-0.128725,0.10275,0.220135,0.0122693,0.84155,0.204446,0.745674,-1.96523,7.13265,0.678653,0.215433,0,0,0,0,0,0,0,0.252304,0.0948237,0.0283824,-1.91328,0.208259,0.302016,0.00216888,0.0371821,0.0064477,0.109007,-0.0882365,-0.00260729,0.168244,0.000271314,0,0,0,0,0,0,0,1.14612,-37.0415,1.38948,25.1578,1.25305,2.19811,0.0239107,
0.254693,0.0944019,0.0307212,-1.91751,0.210472,0.309919,0.00252239,0.108779,-0.00668512,0.105347,-0.138915,0.106691,0.242719,0.0129871,0.0213326,-1.35745,0.0851645,-6.36931,2.46344,14.1148,0.448627,0,0,0,0,0,0,0,0.254576,0.0950058,0.0315293,-1.91667,0.209094,0.308028,0.00217948,0.0710573,0.00505287,0.0859972,-0.100793,0.0513853,0.176863,-0.000536347,4.2344,-0.174354,-2.87628,-1.5695,6.74907,1.07735,-0.100958,1.55078,-38.438,1.26253,25.6061,1.43066,2.16424,0.0577852,
0.255603,0.0942985,0.0316053,-1.91892,0.211606,0.312444,0.00266224,0.109773,-0.00793286,0.10638,-0.146393,0.113707,0.257291,0.013886,0.621566,-0.779837,0.645755,-4.67376,4.38448,9.10738,0.561823,0,0,0,0,0,0,0,0.254576,0.0950058,0.0315293,-1.91667,0.209094,0.308028,0.00217948,0.0710573,0.00505287,0.0859972,-0.100793,0.0513853,0.176863,-0.000536347,0,0,0,0,0,0,0,1.55078,-38.438,1.26253,25.6061,1.43066,2.16424,0.0577852,
0.256526,0.0942078,0.032503,-1.92031,0.212881,0.314841,0.00278417,0.1109,-0.00861501,0.107548,-0.151817,0.122857,0.26578,0.0141571,0.703971,-0.426343,0.729646,-3.38953,5.7187,5.30549,0.169421,0,0,0,0,0,0,0,0.254576,0.0950058,0.0315293,-1.91667,0.209094,0.308028,0.00217948,0.0710573,0.00505287,0.0859972,-0.100793,0.0513853,0.176863,-0.000536347,0,0,0,0,0,0,0,1.55078,-38.438,1.26253,25.6061,1.43066,2.16424,0.0577852,
0.25746,0.0941245,0.0334094,-1.92168,0.214019,0.317258,0.00286838,0.112067,-0.00897487,0.108698,-0.1558,0.126714,0.273042,0.0134308,0.729527,-0.224912,0.719106,-2.48974,2.41088,4.53919,-0.45392,0,0,0,0,0,0,0,0.254576,0.0950058,0.0315293,-1.91667,0.209094,0.308028,0.00217948,0.0710573,0.00505287,0.0859972,-0.100793,0.0513853,0.176863,-0.000536347,0,0,0,0,0,0,0,1.55078,-38.438,1.26253,25.6061,1.43066,2.16424,0.0577852,
0.257089,0.0946064,0.0339783,-1.92127,0.211938,0.316048,0.00262075,0.112105,-0.0099308,0.108741,-0.16408,0.129291,0.286733,0.0142033,0.023874,-0.597456,0.0269468,-5.17468,1.61087,8.55652,0.482781,0,0,0,0,0,0,0,0.254576,0.0950058,0.0315293,-1.91667,0.209094,0.308028,0.00217948,0.0710573,0.00505287,0.0859972,-0.100793,0.0513853,0.176863,-0.000536347,0,0,0,0,0,0,0,1.55078,-38.438,1.26253,25.6061,1.43066,2.16424,0.0577852,
0.258017,0.0945204,0.0348779,-1.92284,0.212952,0.318815,0.00271723,0.112882,-0.0100933,0.109485,-0.170522,0.128787,0.29855,0.0137747,0.485809,-0.101541,0.464658,-4.0264,-0.315507,7.3857,-0.267851,0,0,0,0,0,0,0,0.25795,0.0948525,0.0337367,-1.92078,0.210937,0.314558,0.00221445,0.140429,-0.00543254,0.0205487,-0.116033,0.0667113,0.182605,0.0015912,8.67148,-1.31068,-8.18105,-1.9051,1.91575,0.717868,0.265943,0.840641,-36.494,1.28633,24.9594,1.39404,2.37664,-0.0026396,
0.258965,0.0944501,0.0357991,-1.9244,0.213721,0.321623,0.00279057,0.114029,-0.00983409,0.110617,-0.175319,0.122259,0.309037,0.0128531,0.716655,0.161982,0.707468,-2.99829,-4.0798,6.55469,-0.576029,0,0,0,0,0,0,0,0.25795,0.0948525,0.0337367,-1.92078,0.210937,0.314558,0.00221445,0.140429,-0.00543254,0.0205487,-0.116033,0.0667113,0.182605,0.0015912,0,0,0,0,0,0,0,0.840641,-36.494,1.28633,24.9594,1.39404,2.37664,-0.0026396,
0.259933,0.0943889,0.0367385,-1.92593,0.214125,0.324456,0.0028575,0.115421,-0.00939491,0.111979,-0.178629,0.107894,0.318057,0.0119558,0.870026,0.274486,0.851767,-2.0684,-8.97834,5.63697,-0.560758,0,0,0,0,0,0,0,0.25795,0.0948525,0.0337367,-1.92078,0.210937,0.314558,0.00221445,0.140429,-0.00543254,0.0205487,-0.116033,0.0667113,0.182605,0.0015912,0,0,0,0,0,0,0,0.840641,-36.494,1.28633,24.9594,1.39404,2.37664,-0.0026396,
0.261316,0.0941009,0.0370041,-1.92753,0.212704,0.326634,0.00254548,0.115024,-0.0111623,0.11163,-0.185787,0.0897621,0.333755,0.011275,-0.248333,-1.10463,-0.21838,-4.47395,-11.3322,9.81139,-0.4255,0,0,0,0,0,0,0,0.25795,0.0948525,0.0337367,-1.92078,0.210937,0.314558,0.00221445,0.140429,-0.00543254,0.0205487,-0.116033,0.0667113,0.182605,0.0015912,0,0,0,0,0,0,0,0.840641,-36.494,1.28633,24.9594,1.39404,2.37664,-0.0026396,
0.262244,0.0939745,0.0379048,-1.92922,0.212696,0.329723,0.00261088,0.115201,-0.012091,0.111823,-0.190997,0.0716101,0.344229,0.0106551,0.110697,-0.580435,0.120329,-3.25643,-11.345,6.5466,-0.38747,0,0,0,0,0,0,0,0.260569,0.0948647,0.0370488,-1.92561,0.213456,0.321808,0.00226163,0.0248581,0.00249667,0.153281,-0.151708,0.081371,0.219976,0.000638287,-14.4464,0.991151,16.5915,-4.45932,1.83247,4.67129,-0.119114,1.55078,-37.2914,1.81398,25.3323,1.41235,2.5158,0.0376436,
0.263183,0.0938611,0.0388169,-1.93089,0.21257,0.332699,0.00267457,0.115639,-0.0125072,0.112259,-0.194633,0.0541514,0.349769,0.0101161,0.27384,-0.260091,0.272879,-2.27251,-10.9117,3.46213,-0.336838,0,0,0,0,0,0,0,0.260569,0.0948647,0.0370488,-1.92561,0.213456,0.321808,0.00226163,0.0248581,0.00249667,0.153281,-0.151708,0.081371,0.219976,0.000638287,0,0,0,0,0,0,0,1.55078,-37.2914,1.81398,25.3323,1.41235,2.5158,0.0376436,
0.264128,0.0937567,0.0397348,-1.93255,0.21235,0.335549,0.00273678,0.116144,-0.0126168,0.112755,-0.197026,0.0378206,0.351081,0.00964829,0.315607,-0.0684998,0.310131,-1.49541,-10.2068,0.82023,-0.292408,0,0,0,0,0,0,0,0.260569,0.0948647,0.0370488,-1.92561,0.213456,0.321808,0.00226163,0.0248581,0.00249667,0.153281,-0.151708,0.081371,0.219976,0.000638287,0,0,0,0,0,0,0,1.55078,-37.2914,1.81398,25.3323,1.41235,2.5158,0.0376436,
0.264104,0.0944025,0.0405178,-1.9329,0.213814,0.33381,0.00257082,0.116483,-0.0122627,0.113128,-0.203559,0.0263946,0.35648,0.009482,0.212117,0.221285,0.233068,-4.08303,-7.14124,3.37426,-0.103932,0,0,0,0,0,0,0,0.260569,0.0948647,0.0370488,-1.92561,0.213456,0.321808,0.00226163,0.0248581,0.00249667,0.153281,-0.151708,0.081371,0.219976,0.000638287,0,0,0,0,0,0,0,1.55078,-37.2914,1.81398,25.3323,1.41235,2.5158,0.0376436,
0.265061,0.0943287,0.0414472,-1.93471,0.213577,0.336726,0.00263766,0.117098,-0.0116544,0.113738,-0.208318,0.0151684,0.358062,0.00925647,0.384501,0.380185,0.380997,-2.97456,-7.01637,0.988788,-0.140958,0,0,0,0,0,0,0,0.263301,0.0948795,0.0408802,-1.93154,0.215827,0.330001,0.00230955,0.0619829,0.000659517,0.126631,-0.183765,0.0386941,0.261944,-0.000280564,4.6406,-0.229644,-3.33122,-4.00713,-5.33462,5.24599,-0.114856,1.4516,-37.5652,1.01259,24.9118,1.1734,2.70165,0.0376436,
0.266023,0.094263,0.0423823,-1.93651,0.213278,0.339519,0.00270135,0.117748,-0.010965,0.114366,-0.211637,0.00467527,0.356291,0.00899762,0.405861,0.430862,0.392776,-2.07416,-6.55822,-1.10696,-0.161783,0,0,0,0,0,0,0,0.263301,0.0948795,0.0408802,-1.93154,0.215827,0.330001,0.00230955,0.0619829,0.000659517,0.126631,-0.183765,0.0386941,0.261944,-0.000280564,0,0,0,0,0,0,0,1.4516,-37.5652,1.01259,24.9118,1.1734,2.70165,0.0376436,
0.266987,0.0942024,0.0433183,-1.93829,0.212934,0.342192,0.00276225,0.118298,-0.010288,0.114893,-0.213796,-0.00486646,0.351853,0.00872039,0.343703,0.423149,0.328963,-1.34958,-5.96358,-2.77391,-0.173265,0,0,0,0,0,0,0,0.263301,0.0948795,0.0408802,-1.93154,0.215827,0.330001,0.00230955,0.0619829,0.000659517,0.126631,-0.183765,0.0386941,0.261944,-0.000280564,0,0,0,0,0,0,0,1.4516,-37.5652,1.01259,24.9118,1.1734,2.70165,0.0376436,
0.267721,0.0944716,0.0451985,-1.94032,0.214631,0.34269,0.00262634,0.117649,-0.00989067,0.114276,-0.214435,-0.0145308,0.342489,0.00839544,-0.405554,0.248329,-0.385362,-0.39959,-6.04019,-5.85235,-0.203096,0,0,0,0,0,0,0,0.263301,0.0948795,0.0408802,-1.93154,0.215827,0.330001,0.00230955,0.0619829,0.000659517,0.126631,-0.183765,0.0386941,0.261944,-0.000280564,0,0,0,0,0,0,0,1.4516,-37.5652,1.01259,24.9118,1.1734,2.70165,0.0376436,
0.268643,0.0944103,0.0460945,-1.94204,0.214172,0.345054,0.00268002,0.117181,-0.00944622,0.113821,-0.214438,-0.0230998,0.333078,0.00805817,-0.292463,0.27778,-0.28437,-0.00163828,-5.35563,-5.88162,-0.210791,0,0,0,0,0,0,0,0.267338,0.0948363,0.0439828,-1.93791,0.21624,0.339399,0.00231369,0.185539,-0.0056172,0.0223927,-0.197727,0.0092125,0.28549,-0.000164904,15.4445,-0.78459,-13.0298,-1.74533,-3.6852,2.94323,0.0144575,-1.18664,-36.9185,-1.0623,24.1382,1.13678,2.40319,0.0440523,
0.269564,0.0943525,0.0469886,-1.94373,0.21369,0.347345,0.0027308,0.116764,-0.00900187,0.113409,-0.213915,-0.0305361,0.323736,0.00771609,-0.260844,0.277717,-0.257587,0.326974,-4.64772,-5.83881,-0.213801,0,0,0,0,0,0,0,0.267338,0.0948363,0.0439828,-1.93791,0.21624,0.339399,0.00231369,0.185539,-0.0056172,0.0223927,-0.197727,0.0092125,0.28549,-0.000164904,0,0,0,0,0,0,0,-1.18664,-36.9185,-1.0623,24.1382,1.13678,2.40319,0.0440523,
0.27048,0.0942972,0.0478783,-1.9454,0.21319,0.349569,0.00277885,0.11632,-0.0085827,0.112969,-0.212956,-0.0369213,0.314606,0.00737415,-0.277064,0.26198,-0.274729,0.599234,-3.99073,-5.70653,-0.213717,0,0,0,0,0,0,0,0.267338,0.0948363,0.0439828,-1.93791,0.21624,0.339399,0.00231369,0.185539,-0.0056172,0.0223927,-0.197727,0.0092125,0.28549,-0.000164904,0,0,0,0,0,0,0,-1.18664,-36.9185,-1.0623,24.1382,1.13678,2.40319,0.0440523,
0.271858,0.0944552,0.0483655,-1.94626,0.214354,0.350915,0.00257519,0.115675,-0.00852941,0.112346,-0.211372,-0.0418287,0.306399,0.00704597,-0.403171,0.0333093,-0.389432,0.989828,-3.06714,-5.12942,-0.205111,0,0,0,0,0,0,0,0.267338,0.0948363,0.0439828,-1.93791,0.21624,0.339399,0.00231369,0.185539,-0.0056172,0.0223927,-0.197727,0.0092125,0.28549,-0.000164904,0,0,0,0,0,0,0,-1.18664,-36.9185,-1.0623,24.1382,1.13678,2.40319,0.0440523,
0.272756,0.0943927,0.0492382,-1.94788,0.213839,0.35305,0.00261842,0.115008,-0.00838378,0.111695,-0.209588,-0.0463363,0.298471,0.00671733,-0.416847,0.0910191,-0.406957,1.11524,-2.81723,-4.9548,-0.205398,0,0,0,0,0,0,0,0.271379,0.0948205,0.0471985,-1.94481,0.215988,0.349979,0.00231451,0.157991,0.00200704,0.0481686,-0.202855,-0.0144636,0.305253,0.000546991,-3.4434,0.95303,3.222,-0.64092,-2.95951,2.47044,0.0889869,-0.528073,-36.8153,0.163588,25.1102,1.21002,2.31713,0.017502,
0.273647,0.0943337,0.0501033,-1.94948,0.213307,0.355135,0.00265918,0.114282,-0.00818326,0.110983,-0.207619,-0.0503821,0.290905,0.00639291,-0.453926,0.12532,-0.444798,1.23055,-2.52862,-4.72854,-0.202762,0,0,0,0,0,0,0,0.271379,0.0948205,0.0471985,-1.94481,0.215988,0.349979,0.00231451,0.157991,0.00200704,0.0481686,-0.202855,-0.0144636,0.305253,0.000546991,0,0,0,0,0,0,0,-0.528073,-36.8153,0.163588,25.1102,1.21002,2.31713,0.017502,
0.274529,0.0942774,0.0509597,-1.95105,0.21276,0.357176,0.00269765,0.113479,-0.00795363,0.110196,-0.205482,-0.0539775,0.283759,0.00607604,-0.501841,0.143521,-0.491918,1.33549,-2.24711,-4.46612,-0.198046,0,0,0,0,0,0,0,0.271379,0.0948205,0.0471985,-1.94481,0.215988,0.349979,0.00231451,0.157991,0.00200704,0.0481686,-0.202855,-0.0144636,0.305253,0.000546991,0,0,0,0,0,0,0,-0.528073,-36.8153,0.163588,25.1102,1.21002,2.31713,0.017502,
0.275707,0.0946454,0.051396,-1.95276,0.213596,0.360859,0.00252595,0.112259,-0.0075029,0.109011,-0.203145,-0.0572414,0.277955,0.00577913,-0.762263,0.281704,-0.741176,1.46061,-2.03998,-3.62756,-0.185567,0,0,0,0,0,0,0,0.271379,0.0948205,0.0471985,-1.94481,0.215988,0.349979,0.00231451,0.157991,0.00200704,0.0481686,-0.202855,-0.0144636,0.305253,0.000546991,0,0,0,0,0,0,0,-0.528073,-36.8153,0.163588,25.1102,1.21002,2.31713,0.017502,
0.276559,0.0945991,0.0522227,-1.95429,0.213017,0.36285,0.00256049,0.111097,-0.00716055,0.107877,-0.200695,-0.0602479,0.272144,0.00548698,-0.726337,0.213972,-0.708537,1.53171,-1.87903,-3.63196,-0.182593,0,0,0,0,0,0,0,0.274702,0.0948261,0.0509181,-1.95162,0.215064,0.359418,0.00231154,0.0524835,0.0081554,0.14481,-0.199492,-0.0366721,0.248272,-0.000556698,-13.1885,0.768545,12.0802,0.42038,-2.77607,-7.12266,-0.137961,0.638309,-37.0931,1.23872,25.5347,1.22833,2.31072,0.0440523,
0.277402,0.0945528,0.053041,-1.9558,0.212428,0.364801,0.002593,0.109953,-0.00688604,0.106759,-0.198137,-0.0629463,0.26649,0.0052022,-0.715406,0.171568,-0.698769,1.59875,-1.6865,-3.53406,-0.177988,0,0,0,0,0,0,0,0.274702,0.0948261,0.0509181,-1.95162,0.215064,0.359418,0.00231154,0.0524835,0.0081554,0.14481,-0.199492,-0.0366721,0.248272,-0.000556698,0,0,0,0,0,0,0,0.638309,-37.0931,1.23872,25.5347,1.22833,2.31072,0.0440523,
0.278235,0.0945069,0.0538501,-1.95727,0.211828,0.366717,0.0026236,0.108802,-0.00665502,0.105634,-0.19548,-0.0653401,0.261078,0.00492679,-0.719443,0.144385,-0.702836,1.66056,-1.49616,-3.38252,-0.172133,0,0,0,0,0,0,0,0.274702,0.0948261,0.0509181,-1.95162,0.215064,0.359418,0.00231154,0.0524835,0.0081554,0.14481,-0.199492,-0.0366721,0.248272,-0.000556698,0,0,0,0,0,0,0,0.638309,-37.0931,1.23872,25.5347,1.22833,2.31072,0.0440523,
0.278755,0.0948268,0.0548684,-1.95925,0.212316,0.368935,0.00248066,0.107256,-0.00581357,0.104128,-0.193132,-0.0678491,0.255118,0.00467537,-0.966097,0.52591,-0.941168,1.4672,-1.56813,-3.72512,-0.157137,0,0,0,0,0,0,0,0.274702,0.0948261,0.0509181,-1.95162,0.215064,0.359418,0.00231154,0.0524835,0.0081554,0.14481,-0.199492,-0.0366721,0.248272,-0.000556698,0,0,0,0,0,0,0,0.638309,-37.0931,1.23872,25.5347,1.22833,2.31072,0.0440523,
0.279557,0.0948027,0.0556463,-1.9607,0.211683,0.370761,0.00250808,0.105845,-0.00525171,0.10275,-0.19055,-0.0700946,0.249748,0.00442582,-0.881674,0.35116,-0.861295,1.6139,-1.40344,-3.35622,-0.15597,0,0,0,0,0,0,0,0.274702,0.0948261,0.0509181,-1.95162,0.215064,0.359418,0.00231154,0.0524835,0.0081554,0.14481,-0.199492,-0.0366721,0.248272,-0.000556698,0,0,0,0,0,0,0,0.638309,-37.0931,1.23872,25.5347,1.22833,2.31072,0.0440523,
0.28035,0.0947755,0.0564161,-1.96211,0.211045,0.372563,0.0025337,0.104511,-0.00488161,0.101445,-0.187786,-0.0720285,0.244858,0.00418108,-0.834027,0.23131,-0.815582,1.72756,-1.20869,-3.05596,-0.152958,0,0,0,0,0,0,0,0.277525,0.0951385,0.0550529,-1.95847,0.213548,0.367488,0.00231188,0.0156407,0.0193285,0.180171,-0.193829,-0.0480838,0.229488,-2.95392e-05,-4.60536,1.39663,4.42016,0.707907,-1.42646,-2.34803,0.0658948,1.04694,-39.1402,1.13954,26.3043,1.19812,2.47643,0.0303194,
