xiao-wang007/linearmpc_panda/paper_data/panda_torque_PD_controller_opt_time_to_start/1/trajectory.csv
Commanded Joint 0 Position,Commanded Joint 1 Position,Commanded Joint 2 Position,Commanded Joint 3 Position,Commanded Joint 4 Position,Commanded Joint 5 Position,Commanded Joint 6 Position,Commanded Joint 0 Velocity,Commanded Joint 1 Velocity,Commanded Joint 2 Velocity,Commanded Joint 3 Velocity,Commanded Joint 4 Velocity,Commanded Joint 5 Velocity,Commanded Joint 6 Velocity,Commanded Joint 0 Acceleration,Commanded Joint 1 Acceleration,Commanded Joint 2 Acceleration,Commanded Joint 3 Acceleration,Commanded Joint 4 Acceleration,Commanded Joint 5 Acceleration,Commanded Joint 6 Acceleration,Commanded Joint 0 Torque,Commanded Joint 1 Torque,Commanded Joint 2 Torque,Commanded Joint 3 Torque,Commanded Joint 4 Torque,Commanded Joint 5 Torque,Commanded Joint 6 Torque,Actual Joint 0 Position,Actual Joint 1 Position,Actual Joint 2 Position,Actual Joint 3 Position,Actual Joint 4 Position,Actual Joint 5 Position,Actual Joint 6 Position,Actual Joint 0 Velocity,Actual Joint 1 Velocity,Actual Joint 2 Velocity,Actual Joint 3 Velocity,Actual Joint 4 Velocity,Actual Joint 5 Velocity,Actual Joint 6 Velocity,Actual Joint 0 Acceleration,Actual Joint 1 Acceleration,Actual Joint 2 Acceleration,Actual Joint 3 Acceleration,Actual Joint 4 Acceleration,Actual Joint 5 Acceleration,Actual Joint 6 Acceleration,Actual Joint 0 Torque,Actual Joint 1 Torque,Actual Joint 2 Torque,Actual Joint 3 Torque,Actual Joint 4 Torque,Actual Joint 5 Torque,Actual Joint 6 Torque,
0.149386,0.0420032,-0.126582,-1.82441,-0.0111169,0.365173,-0.110423,-0.000142143,0.0242399,-8.10646e-06,-0.0324528,-0.00302549,0.0553494,-0.000369442,-0.0888396,15.15,-0.00506653,-20.283,-1.89093,34.5934,-0.230901,0.0591836,25.9603,0.178834,-24.5661,-0.538357,1.75552,-0.0237787,0.1494,0.0410207,-0.126588,-1.82158,-0.010955,0.359228,-0.110375,-0.00224834,0.00210949,-0.00255933,0.00161337,0.00703437,-0.00191571,0.00091831,0,0,0,0,0,0,0,0.134464,-36.9423,0.0366345,27.3993,0.612179,3.38463,-0.0429228,
0.149369,0.04104,-0.126617,-1.82159,-0.0109231,0.359228,-0.110373,-0.000294828,0.0195095,-0.000175361,-0.0259895,-0.00241888,0.0443089,-0.000288259,-0.095428,-2.95652,-0.104534,4.03957,0.37913,-6.90033,0.0507392,0.0534002,26.4007,0.168476,-24.4825,-0.538684,1.50491,-0.0222596,0.1494,0.0410207,-0.126588,-1.82158,-0.010955,0.359228,-0.110375,-0.00224834,0.00210949,-0.00255933,0.00161337,0.00703437,-0.00191571,0.00091831,0,0,0,0,0,0,0,0.134464,-36.9423,0.0366345,27.3993,0.612179,3.38463,-0.0429228,
0.149364,0.041044,-0.126622,-1.82159,-0.0109263,0.359229,-0.110373,-0.000373557,0.0157071,-0.00026792,-0.0208138,-0.00201578,0.0354862,-0.000226493,-0.0492053,-2.37649,-0.0578495,3.2348,0.251941,-5.51421,0.0386035,0.0461496,26.9722,0.156706,-24.3745,-0.538125,1.15765,-0.0202896,0.1494,0.0410207,-0.126588,-1.82158,-0.010955,0.359228,-0.110375,-0.00224834,0.00210949,-0.00255933,0.00161337,0.00703437,-0.00191571,0.00091831,0,0,0,0,0,0,0,0.134464,-36.9423,0.0366345,27.3993,0.612179,3.38463,-0.0429228,
0.149359,0.0410475,-0.126626,-1.82159,-0.0109306,0.359231,-0.110372,-0.000405645,0.0126532,-0.000312392,-0.0166674,-0.00172016,0.0284384,-0.000178894,-0.020055,-1.90869,-0.0277949,2.59151,0.184762,-4.40487,0.0297499,0.0401574,27.4961,0.147239,-24.2067,-0.536043,0.772803,-0.0182883,0.1494,0.0410207,-0.126588,-1.82158,-0.010955,0.359228,-0.110375,-0.00224834,0.00210949,-0.00255933,0.00161337,0.00703437,-0.00191571,0.00091831,0,0,0,0,0,0,0,0.134464,-36.9423,0.0366345,27.3993,0.612179,3.38463,-0.0429228,
0.149356,0.0410506,-0.126629,-1.82159,-0.010935,0.359234,-0.110372,-0.000408551,0.0102015,-0.000326039,-0.0133451,-0.00148427,0.0228107,-0.000141867,-0.00181678,-1.53231,-0.00852918,2.07647,0.147433,-3.51726,0.0231416,0.0429413,27.8751,0.151327,-23.9229,-0.528438,0.411801,-0.0166406,0.149364,0.0421123,-0.126621,-1.82291,-0.0109081,0.361571,-0.110375,-0.00477741,0.101649,-0.00457058,-0.144039,0.00857579,0.221549,0.000107408,-0.316133,12.4425,-0.251406,-18.2065,0.192678,27.933,-0.101363,0.562931,-18.3476,0.461134,8.99109,0.00152227,1.24322,-0.0429228,
0.149081,0.0446664,-0.126894,-1.82415,-0.00290966,0.356886,-0.110414,-0.00124071,0.015241,-0.00109037,-0.0143849,0.049421,-0.0179213,-0.000168877,-0.520098,3.14967,-0.477704,-0.649901,31.8158,-25.4575,-0.0168809,0.505317,0.199362,0.515086,-0.240562,3.04361,-1.84873,-0.00146004,0.149364,0.0421123,-0.126621,-1.82291,-0.0109081,0.361571,-0.110375,-0.00477741,0.101649,-0.00457058,-0.144039,0.00857579,0.221549,0.000107408,0,0,0,0,0,0,0,0.562931,-18.3476,0.461134,8.99109,0.00152227,1.24322,-0.0429228,
0.149057,0.0448887,-0.126915,-1.82428,-0.00082138,0.35539,-0.110416,-0.00159212,0.0177497,-0.0013905,-0.014684,0.0917438,-0.0517331,-0.000168852,-0.219635,1.56799,-0.187587,-0.186944,26.4517,-21.1324,1.55583e-05,0.498868,0.199002,0.508745,-0.237736,3.01707,-1.83135,-0.001452,0.149364,0.0421123,-0.126621,-1.82291,-0.0109081,0.361571,-0.110375,-0.00477741,0.101649,-0.00457058,-0.144039,0.00857579,0.221549,0.000107408,0,0,0,0,0,0,0,0.562931,-18.3476,0.461134,8.99109,0.00152227,1.24322,-0.0429228,
0.149044,0.0450659,-0.126924,-1.82439,0.00130244,0.35388,-0.110417,-0.00159332,0.0186302,-0.00135569,-0.0144744,0.126491,-0.0791259,-0.000157266,-0.000748305,0.550289,0.0217574,0.131037,21.7168,-17.1205,0.00724114,0.492723,0.198549,0.502705,-0.234907,2.99022,-1.81399,-0.00143941,0.149364,0.0421123,-0.126621,-1.82291,-0.0109081,0.361571,-0.110375,-0.00477741,0.101649,-0.00457058,-0.144039,0.00857579,0.221549,0.000107408,0,0,0,0,0,0,0,0.562931,-18.3476,0.461134,8.99109,0.00152227,1.24322,-0.0429228,
0.149041,0.0452094,-0.126925,-1.82448,0.00344353,0.352378,-0.110417,-0.00135368,0.0184909,-0.00109284,-0.0139274,0.15472,-0.100859,-0.000142129,0.149777,-0.0870564,0.164285,0.341832,17.6432,-13.5835,0.00946064,0.479359,0.344606,0.501519,-0.232807,2.96058,-1.77465,-0.00167793,0.149384,0.0461825,-0.126597,-1.82973,-0.00958069,0.366715,-0.110375,0.0032001,0.0430806,0.000525707,-0.217312,0.21584,-0.0706577,0.00119766,0.997189,-7.3211,0.637035,-9.15913,25.908,-36.5258,0.136282,0.00751081,-28.9562,-0.0109729,26.4789,1.76574,2.27685,-0.0365141,
0.149181,0.0482965,-0.126809,-1.83065,0.0232497,0.336336,-0.11049,-0.000552963,0.0209096,-0.000239842,-0.0145009,0.3205,-0.260281,-0.000242811,0.500447,1.51168,0.533122,-0.358456,103.612,-99.6385,-0.0629263,3.82026,1.25305,3.82453,-1.58164,11.074,-10.164,-0.0070664,0.149384,0.0461825,-0.126597,-1.82973,-0.00958069,0.366715,-0.110375,0.0032001,0.0430806,0.000525707,-0.217312,0.21584,-0.0706577,0.00119766,0,0,0,0,0,0,0,0.00751081,-28.9562,-0.0109729,26.4789,1.76574,2.27685,-0.0365141,
0.14924,0.0485002,-0.126746,-1.83079,0.0313327,0.329017,-0.110492,0.00102175,0.0218193,0.00137044,-0.0151885,0.458476,-0.391207,-0.0002671,0.984195,0.568574,1.00643,-0.4297,86.235,-81.8288,-0.0151806,3.75459,1.26504,3.75861,-1.54415,11.074,-10.0229,-0.00668641,0.149384,0.0461825,-0.126597,-1.82973,-0.00958069,0.366715,-0.110375,0.0032001,0.0430806,0.000525707,-0.217312,0.21584,-0.0706577,0.00119766,0,0,0,0,0,0,0,0.00751081,-28.9562,-0.0109729,26.4789,1.76574,2.27685,-0.0365141,
0.149331,0.0486773,-0.126652,-1.83094,0.0395535,0.321644,-0.110494,0.00309323,0.0218843,0.00345486,-0.0159023,0.572301,-0.497293,-0.000262034,1.29467,0.0406049,1.30277,-0.446126,71.1411,-66.3036,0.00316583,3.68832,1.25758,3.69253,-1.51471,11.074,-9.89336,-0.00623743,0.149384,0.0461825,-0.126597,-1.82973,-0.00958069,0.366715,-0.110375,0.0032001,0.0430806,0.000525707,-0.217312,0.21584,-0.0706577,0.00119766,0,0,0,0,0,0,0,0.00751081,-28.9562,-0.0109729,26.4789,1.76574,2.27685,-0.0365141,
0.154963,0.046701,-0.121082,-1.8331,0.0260358,0.31572,-0.109927,0.034843,0.011783,0.0343679,-0.0296029,0.647384,-0.658413,0.00264327,19.8436,-6.3133,19.3207,-8.5629,46.9268,-100.7,1.81582,22.6906,-2.97398,22.3161,-8.41526,10.9316,-14.3965,0.139001,0.14924,0.0500736,-0.126579,-1.83172,0.00369298,0.355369,-0.110378,-0.00776005,0.143787,0.00506782,-0.0336366,0.958093,-0.70193,0.00123662,-1.37002,12.5883,0.567765,22.9594,92.7817,-78.9091,0.00486994,4.44294,-44.0794,4.13881,23.1662,3.5437,-2.31727,-0.0163725,
0.154118,0.0499142,-0.121839,-1.83587,0.0492452,0.297779,-0.109917,0.0534588,0.000947115,0.0519049,-0.0422994,0.721137,-0.797771,0.00236952,11.6349,-6.77243,10.9606,-7.93533,46.0957,-87.099,-0.171094,20.7883,-5.15918,20.3381,-9.17789,10.9316,-14.3965,0.143188,0.14924,0.0500736,-0.126579,-1.83172,0.00369298,0.355369,-0.110378,-0.00776005,0.143787,0.00506782,-0.0336366,0.958093,-0.70193,0.00123662,0,0,0,0,0,0,0,4.44294,-44.0794,4.13881,23.1662,3.5437,-2.31727,-0.0163725,
0.155151,0.0495635,-0.120852,-1.83659,0.0575248,0.286789,-0.109914,0.0685909,-0.00801091,0.0661958,-0.0518769,0.7839,-0.912965,0.00198124,9.45751,-5.59877,8.93178,-5.98589,39.2264,-71.9959,-0.242677,18.75,-6.31418,18.2218,-9.69561,10.9316,-14.3965,0.11032,0.14924,0.0500736,-0.126579,-1.83172,0.00369298,0.355369,-0.110378,-0.00776005,0.143787,0.00506782,-0.0336366,0.958093,-0.70193,0.00123662,0,0,0,0,0,0,0,4.44294,-44.0794,4.13881,23.1662,3.5437,-2.31727,-0.0163725,
0.156184,0.049214,-0.119864,-1.83729,0.065912,0.275716,-0.109913,0.0806851,-0.015147,0.0776562,-0.0589809,0.8368,-1.00719,0.00161517,7.55889,-4.46005,7.16277,-4.44002,33.063,-58.8929,-0.228797,16.9874,-6.46459,16.3716,-9.78799,10.9316,-14.3965,0.0628414,0.14924,0.0500736,-0.126579,-1.83172,0.00369298,0.355369,-0.110378,-0.00776005,0.143787,0.00506782,-0.0336366,0.958093,-0.70193,0.00123662,0,0,0,0,0,0,0,4.44294,-44.0794,4.13881,23.1662,3.5437,-2.31727,-0.0163725,
0.153025,0.0512939,-0.122782,-1.83569,0.0412231,0.309406,-0.110353,0.0901831,-0.0101255,0.087506,-0.0680006,0.866091,-1.06727,0.00112195,5.93626,3.13842,6.1561,-5.63728,18.3063,-37.546,-0.308263,21.3707,-0.71012,21.0638,-13.1861,10.9316,-14.3965,0.00682429,0.14924,0.0500736,-0.126579,-1.83172,0.00369298,0.355369,-0.110378,-0.00776005,0.143787,0.00506782,-0.0336366,0.958093,-0.70193,0.00123662,0,0,0,0,0,0,0,4.44294,-44.0794,4.13881,23.1662,3.5437,-2.31727,-0.0163725,
0.154107,0.0513638,-0.121712,-1.83652,0.0492666,0.298704,-0.110358,0.0992046,-0.0063526,0.0967477,-0.0752448,0.893958,-1.12137,0.000766183,5.63847,2.35807,5.77609,-4.52768,17.4174,-33.8138,-0.222352,19.8225,0.717204,19.5465,-12.9958,10.7292,-14.1061,-0.00793475,0.150373,0.0518439,-0.125195,-1.83301,0.0437011,0.310143,-0.110361,0.14086,0.00205296,0.149112,-0.127199,1.26701,-1.69084,-0.000366186,18.5775,-17.7168,18.0055,-11.6953,38.614,-123.613,-0.200351,20.0899,-40.6596,18.8614,19.0561,3.62884,-2.58277,0.0907442,
0.155226,0.05143,-0.120607,-1.83741,0.0574624,0.288195,-0.11036,0.107338,-0.00342613,0.105021,-0.0823498,0.920063,-1.15982,0.000561141,5.08315,1.82904,5.17105,-4.4406,16.3153,-24.0345,-0.128151,18.8042,1.14861,18.5482,-12.5714,10.7292,-14.1061,-0.0144176,0.150373,0.0518439,-0.125195,-1.83301,0.0437011,0.310143,-0.110361,0.14086,0.00205296,0.149112,-0.127199,1.26701,-1.69084,-0.000366186,0,0,0,0,0,0,0,20.0899,-40.6596,18.8614,19.0561,3.62884,-2.58277,0.0907442,
0.156367,0.0515055,-0.119481,-1.83835,0.0657788,0.278175,-0.110359,0.114394,-0.000854277,0.112171,-0.0894648,0.94396,-1.17835,0.00046508,4.41,1.60741,4.46851,-4.44686,14.9356,-11.5793,-0.0600377,17.9545,1.43207,17.7144,-12.1976,10.7292,-14.1061,-0.0152178,0.150373,0.0518439,-0.125195,-1.83301,0.0437011,0.310143,-0.110361,0.14086,0.00205296,0.149112,-0.127199,1.26701,-1.69084,-0.000366186,0,0,0,0,0,0,0,20.0899,-40.6596,18.8614,19.0561,3.62884,-2.58277,0.0907442,
0.158007,0.0516631,-0.117738,-1.84008,0.0875319,0.250955,-0.110479,0.131388,-0.000636659,0.128542,-0.106097,0.969533,-1.228,-0.000444325,10.6215,0.136011,10.2318,-10.395,15.9831,-31.0274,-0.568378,23.8418,0.573258,23.2174,-18.3777,10.7292,-14.1061,-0.0372583,0.150373,0.0518439,-0.125195,-1.83301,0.0437011,0.310143,-0.110361,0.14086,0.00205296,0.149112,-0.127199,1.26701,-1.69084,-0.000366186,0,0,0,0,0,0,0,20.0899,-40.6596,18.8614,19.0561,3.62884,-2.58277,0.0907442,
0.159592,0.0516592,-0.116196,-1.84146,0.0961202,0.239758,-0.110508,0.144731,-0.000607737,0.141369,-0.119278,0.990334,-1.26233,-0.00109271,8.33948,0.0180764,8.01697,-8.23811,13.0006,-21.4589,-0.405239,22.6415,0.722941,22.0442,-17.7988,10.5919,-13.7612,-0.04577,0.154485,0.0524445,-0.121529,-1.83914,0.0867771,0.248595,-0.11035,0.19494,0.0537231,0.111174,-0.221333,1.29685,-1.82416,-0.0102479,6.76007,6.45877,-4.7422,-11.7668,3.73108,-16.6657,-1.23521,14.4603,-37.0415,13.6881,29.3195,4.18457,-1.15089,-0.0026396,
0.16116,0.0516427,-0.114671,-1.84288,0.104729,0.229174,-0.110531,0.154995,-0.000899014,0.151223,-0.131034,1.0075,-1.27447,-0.00142968,6.41502,-0.182048,6.15903,-7.34789,10.7265,-7.58484,-0.21061,21.5363,0.608432,20.9662,-17.3756,10.5919,-13.7612,-0.0468156,0.154485,0.0524445,-0.121529,-1.83914,0.0867771,0.248595,-0.11035,0.19494,0.0537231,0.111174,-0.221333,1.29685,-1.82416,-0.0102479,0,0,0,0,0,0,0,14.4603,-37.0415,13.6881,29.3195,4.18457,-1.15089,-0.0026396,
0.162708,0.0516226,-0.113166,-1.84434,0.113351,0.21938,-0.110547,0.162687,-0.00122109,0.158595,-0.141358,1.02154,-1.26442,-0.00154688,4.80712,-0.2013,4.60725,-6.45206,8.77702,6.27829,-0.0732503,20.585,0.356757,20.0344,-17.0408,10.5919,-13.7612,-0.0458584,0.154485,0.0524445,-0.121529,-1.83914,0.0867771,0.248595,-0.11035,0.19494,0.0537231,0.111174,-0.221333,1.29685,-1.82416,-0.0102479,0,0,0,0,0,0,0,14.4603,-37.0415,13.6881,29.3195,4.18457,-1.15089,-0.0026396,
0.161767,0.0537066,-0.11442,-1.84763,0.131088,0.190466,-0.110409,0.167309,0.00329812,0.163061,-0.154352,1.03112,-1.24991,-0.00138743,2.88891,2.82451,2.79147,-8.12138,5.99025,9.06915,0.0996584,19.7581,0.0488168,19.2239,-16.7706,10.5919,-13.7612,-0.0398162,0.154485,0.0524445,-0.121529,-1.83914,0.0867771,0.248595,-0.11035,0.19494,0.0537231,0.111174,-0.221333,1.29685,-1.82416,-0.0102479,0,0,0,0,0,0,0,14.4603,-37.0415,13.6881,29.3195,4.18457,-1.15089,-0.0026396,
0.16324,0.0538506,-0.112987,-1.84925,0.139611,0.18198,-0.11041,0.170674,0.00623665,0.166286,-0.16385,1.03798,-1.21206,-0.00114086,2.10324,1.83658,2.01551,-5.9362,4.28555,23.6536,0.154107,19.4279,-0.198519,18.8783,-16.263,10.6144,-12.8362,-0.034356,0.162853,0.0497237,-0.114017,-1.84835,0.131157,0.180534,-0.110343,0.331671,-0.0817326,0.2343,-0.317559,1.38953,-2.07239,0.000945291,17.0914,-16.932,15.3908,-12.0282,11.5846,-31.0281,1.39915,8.47766,-30.2535,8.53853,24.9594,2.96966,0.149161,-0.110672,
0.164694,0.0539705,-0.111573,-1.85082,0.148114,0.17449,-0.110405,0.17288,0.00798843,0.168374,-0.170391,1.04296,-1.15691,-0.000790449,1.37899,1.09487,1.30514,-4.08817,3.11058,34.4703,0.219006,18.7661,-0.445961,18.2307,-16.0317,10.6144,-11.1799,-0.0247746,0.162853,0.0497237,-0.114017,-1.84835,0.131157,0.180534,-0.110343,0.331671,-0.0817326,0.2343,-0.317559,1.38953,-2.07239,0.000945291,0,0,0,0,0,0,0,8.47766,-30.2535,8.53853,24.9594,2.96966,0.149161,-0.110672,
0.166124,0.0540687,-0.110183,-1.85235,0.156601,0.167928,-0.110395,0.174055,0.00884484,0.169455,-0.17446,1.04655,-1.08957,-0.0003737,0.734286,0.535253,0.675261,-2.54319,2.24283,42.0876,0.260468,18.1541,-0.632217,17.6324,-15.8053,10.6144,-9.69752,-0.016932,0.162853,0.0497237,-0.114017,-1.84835,0.131157,0.180534,-0.110343,0.331671,-0.0817326,0.2343,-0.317559,1.38953,-2.07239,0.000945291,0,0,0,0,0,0,0,8.47766,-30.2535,8.53853,24.9594,2.96966,0.149161,-0.110672,
0.172533,0.0496598,-0.104595,-1.85746,0.179842,0.130602,-0.11032,0.182376,0.00931082,0.177512,-0.179778,1.06677,-1.04069,4.09104e-05,5.20033,0.291239,5.0354,-3.32357,12.6412,30.5516,0.259131,17.59,-0.754528,17.0815,-15.5812,10.6144,-8.36436,-0.00727907,0.162853,0.0497237,-0.114017,-1.84835,0.131157,0.180534,-0.110343,0.331671,-0.0817326,0.2343,-0.317559,1.38953,-2.07239,0.000945291,0,0,0,0,0,0,0,8.47766,-30.2535,8.53853,24.9594,2.96966,0.149161,-0.110672,
0.174173,0.049743,-0.103002,-1.85899,0.188851,0.124952,-0.1103,0.186885,0.0095282,0.181843,-0.182046,1.07866,-0.973807,0.000531148,2.81842,0.13586,2.70718,-1.4177,7.42706,41.801,0.306399,17.3261,-1.3872,16.7967,-14.7365,10.5431,-6.69442,-0.00381445,0.173787,0.0483646,-0.103337,-1.85988,0.179303,0.113575,-0.110352,0.340723,-0.059488,0.331232,-0.394517,1.40362,-1.75861,-0.000160479,1.13145,2.78056,12.1164,-9.61981,1.76136,39.2229,-0.138221,5.66089,-32.4513,5.91218,24.9594,2.90191,2.27685,-0.0227812,
0.175734,0.0498121,-0.101485,-1.86045,0.197721,0.120256,-0.110272,0.188545,0.00934933,0.183394,-0.182065,1.08465,-0.896459,0.00112806,1.03744,-0.111793,0.969079,-0.0119412,3.74957,48.3426,0.373071,16.8334,-1.40682,16.3165,-14.5128,10.5431,-5.63253,0.00552405,0.173787,0.0483646,-0.103337,-1.85988,0.179303,0.113575,-0.110352,0.340723,-0.059488,0.331232,-0.394517,1.40362,-1.75861,-0.000160479,0,0,0,0,0,0,0,5.66089,-32.4513,5.91218,24.9594,2.90191,2.27685,-0.0227812,
0.177224,0.0498642,-0.100039,-1.86184,0.206475,0.116383,-0.110237,0.188078,0.00878237,0.182876,-0.180437,1.08659,-0.813982,0.00178177,-0.29233,-0.35435,-0.323406,1.01738,1.2103,51.5479,0.408566,16.3656,-1.38958,15.861,-14.2902,10.5431,-4.69095,0.0136284,0.173787,0.0483646,-0.103337,-1.85988,0.179303,0.113575,-0.110352,0.340723,-0.059488,0.331232,-0.394517,1.40362,-1.75861,-0.000160479,0,0,0,0,0,0,0,5.66089,-32.4513,5.91218,24.9594,2.90191,2.27685,-0.0227812,
0.185766,0.0493247,-0.0916863,-1.87071,0.237868,0.0742716,-0.110167,0.190719,0.0111336,0.185262,-0.179935,1.0959,-0.728401,0.00235372,1.651,1.46951,1.49101,0.313961,5.82036,53.4882,0.357473,15.4881,-1.26803,15.0082,-13.8596,10.5431,-3.0942,0.0316797,0.173787,0.0483646,-0.103337,-1.85988,0.179303,0.113575,-0.110352,0.340723,-0.059488,0.331232,-0.394517,1.40362,-1.75861,-0.000160479,0,0,0,0,0,0,0,5.66089,-32.4513,5.91218,24.9594,2.90191,2.27685,-0.0227812,
0.187266,0.0494609,-0.0902373,-1.87203,0.246756,0.0719791,-0.110128,0.190072,0.0123139,0.184435,-0.177117,1.09892,-0.640034,0.00285511,-0.404641,0.737715,-0.516899,1.76113,1.88488,55.2294,0.313367,15.0558,-1.17169,14.5893,-13.6554,10.5431,-2.41354,0.0425848,0.173787,0.0483646,-0.103337,-1.85988,0.179303,0.113575,-0.110352,0.340723,-0.059488,0.331232,-0.394517,1.40362,-1.75861,-0.000160479,0,0,0,0,0,0,0,5.66089,-32.4513,5.91218,24.9594,2.90191,2.27685,-0.0227812,
0.188669,0.0495705,-0.088883,-1.87328,0.255494,0.0703451,-0.110088,0.187145,0.0125905,0.181406,-0.172794,1.0976,-0.552877,0.00330541,-1.82935,0.17286,-1.8926,2.70184,-0.821859,54.473,0.281438,14.5903,-1.04906,14.1415,-13.457,10.5431,-1.81176,0.0518082,0.173787,0.0483646,-0.103337,-1.85988,0.179303,0.113575,-0.110352,0.340723,-0.059488,0.331232,-0.394517,1.40362,-1.75861,-0.000160479,0,0,0,0,0,0,0,5.66089,-32.4513,5.91218,24.9594,2.90191,2.27685,-0.0227812,
0.189998,0.0496525,-0.0875994,-1.87444,0.263914,0.0692574,-0.110043,0.182941,0.012122,0.177214,-0.16735,1.08857,-0.469495,0.00376218,-2.62755,-0.292792,-2.62027,3.40271,-5.64678,52.1136,0.285481,14.084,-0.902146,13.6713,-13.2695,10.5431,-1.27023,0.0566869,0.173787,0.0483646,-0.103337,-1.85988,0.179303,0.113575,-0.110352,0.340723,-0.059488,0.331232,-0.394517,1.40362,-1.75861,-0.000160479,0,0,0,0,0,0,0,5.66089,-32.4513,5.91218,24.9594,2.90191,2.27685,-0.0227812,
0.183842,0.0494536,-0.0935693,-1.86922,0.228939,0.0819675,-0.110154,0.187705,0.0164473,0.181868,-0.170584,1.09913,-0.450894,0.00407656,2.97786,2.70327,2.90864,-2.02112,6.60019,11.6259,0.196484,13.6212,-0.701246,13.1735,-13.06,10.5431,-0.791913,0.0585399,0.173787,0.0483646,-0.103337,-1.85988,0.179303,0.113575,-0.110352,0.340723,-0.059488,0.331232,-0.394517,1.40362,-1.75861,-0.000160479,0,0,0,0,0,0,0,5.66089,-32.4513,5.91218,24.9594,2.90191,2.27685,-0.0227812,
0.185385,0.0496843,-0.0920717,-1.87055,0.237397,0.0798919,-0.110108,0.188737,0.0189255,0.182933,-0.169778,1.09076,-0.412605,0.00440298,0.644532,1.54892,0.666001,0.503329,-5.23088,23.9308,0.204018,13.2389,-0.955656,12.7414,-12.0658,10.4123,0.0991657,0.0536069,0.187016,0.0501775,-0.0912418,-1.87383,0.229633,0.0653463,-0.110343,0.476079,0.10898,0.333724,-0.419859,1.46862,-1.18007,0.0106054,16.9195,21.0585,0.3115,-3.16767,8.12438,72.3175,1.34573,1.09455,-39.6639,1.53627,34.0762,2.55401,3.67669,-0.0630644,
0.186838,0.0498686,-0.0906612,-1.87177,0.2451,0.0785463,-0.110062,0.187309,0.0197492,0.18161,-0.16626,1.06518,-0.363725,0.00469568,-0.892272,0.514787,-0.827471,2.19871,-15.9891,30.5499,0.182936,12.8343,-0.724531,12.3364,-11.8167,10.4123,0.467483,0.0553684,0.187016,0.0501775,-0.0912418,-1.87383,0.229633,0.0653463,-0.110343,0.476079,0.10898,0.333724,-0.419859,1.46862,-1.18007,0.0106054,0,0,0,0,0,0,0,1.09455,-39.6639,1.53627,34.0762,2.55401,3.67669,-0.0630644,
0.188215,0.050006,-0.0893248,-1.87289,0.252031,0.0777773,-0.110014,0.184261,0.0192334,0.178697,-0.16105,1.02543,-0.310205,0.00494154,-1.90522,-0.322367,-1.82031,3.25667,-24.8444,33.4499,0.15366,12.4619,-0.521868,11.9736,-11.5704,10.4123,0.802716,0.0573021,0.187016,0.0501775,-0.0912418,-1.87383,0.229633,0.0653463,-0.110343,0.476079,0.10898,0.333724,-0.419859,1.46862,-1.18007,0.0106054,0,0,0,0,0,0,0,1.09455,-39.6639,1.53627,34.0762,2.55401,3.67669,-0.0630644,
0.19843,0.0539139,-0.0801562,-1.88308,0.274112,0.0444407,-0.110166,0.192724,0.0273825,0.186983,-0.163315,0.99381,-0.291536,0.0049433,5.28946,5.09317,5.17865,-1.41601,-19.7609,11.6683,0.00110103,12.1174,-0.356229,11.6422,-11.3287,9.72462,1.09136,0.0599981,0.187016,0.0501775,-0.0912418,-1.87383,0.229633,0.0653463,-0.110343,0.476079,0.10898,0.333724,-0.419859,1.46862,-1.18007,0.0106054,0,0,0,0,0,0,0,1.09455,-39.6639,1.53627,34.0762,2.55401,3.67669,-0.0630644,
0.200085,0.0542805,-0.078549,-1.88431,0.280173,0.04343,-0.110124,0.195561,0.0310704,0.189766,-0.161592,0.94657,-0.258496,0.00499926,1.7733,2.30496,1.73923,1.07717,-29.5246,20.6495,0.0349741,11.7659,-0.744225,11.2687,-10.6501,8.33291,1.5893,0.0580399,0.199952,0.0524352,-0.0776506,-1.88807,0.281333,0.0324076,-0.110337,0.602836,0.0936292,0.191791,-0.398465,1.52405,-0.796116,0.000389397,15.8446,-1.91888,-17.7416,2.67425,6.92888,47.9936,-1.27699,-3.82489,-40.0884,-3.76006,32.1323,1.75384,5.32097,0.0101778,
0.201609,0.0545513,-0.0770708,-1.88544,0.285428,0.0429892,-0.11008,0.194535,0.0316264,0.188769,-0.157323,0.888645,-0.217817,0.00510697,-0.641231,0.347507,-0.622923,2.66771,-36.2033,25.425,0.0673181,11.4751,-0.647293,10.9906,-10.4297,7.30873,1.7865,0.0583055,0.199952,0.0524352,-0.0776506,-1.88807,0.281333,0.0324076,-0.110337,0.602836,0.0936292,0.191791,-0.398465,1.52405,-0.796116,0.000389397,0,0,0,0,0,0,0,-3.82489,-40.0884,-3.76006,32.1323,1.75384,5.32097,0.0101778,
0.203021,0.0547424,-0.0757012,-1.88646,0.289953,0.0430012,-0.110033,0.190935,0.0300795,0.185255,-0.15155,0.824047,-0.173954,0.00524907,-2.2497,-0.96683,-2.19625,3.60837,-40.3737,27.4138,0.0888178,11.2263,-0.573858,10.7546,-10.2178,6.39176,1.9581,0.0582018,0.199952,0.0524352,-0.0776506,-1.88807,0.281333,0.0324076,-0.110337,0.602836,0.0936292,0.191791,-0.398465,1.52405,-0.796116,0.000389397,0,0,0,0,0,0,0,-3.82489,-40.0884,-3.76006,32.1323,1.75384,5.32097,0.0101778,
0.211366,0.0554613,-0.0665762,-1.89588,0.31701,0.0192315,-0.110154,0.197462,0.0325701,0.191607,-0.150181,0.779622,-0.157649,0.00523409,4.07907,1.55661,3.97023,0.855852,-27.7656,10.1909,-0.0093661,11.017,-0.519935,10.5577,-10.0103,5.55322,2.09712,0.0589368,0.199952,0.0524352,-0.0776506,-1.88807,0.281333,0.0324076,-0.110337,0.602836,0.0936292,0.191791,-0.398465,1.52405,-0.796116,0.000389397,0,0,0,0,0,0,0,-3.82489,-40.0884,-3.76006,32.1323,1.75384,5.32097,0.0101778,
0.212984,0.0557034,-0.0650073,-1.89693,0.321007,0.0190577,-0.110109,0.198416,0.0321081,0.192507,-0.14629,0.723622,-0.130465,0.00529955,0.596259,-0.288743,0.562569,2.43183,-35,16.9898,0.0409144,10.8398,-0.481406,10.393,-9.80867,4.79837,2.22067,0.0597549,0.199952,0.0524352,-0.0776506,-1.88807,0.281333,0.0324076,-0.110337,0.602836,0.0936292,0.191791,-0.398465,1.52405,-0.796116,0.000389397,0,0,0,0,0,0,0,-3.82489,-40.0884,-3.76006,32.1323,1.75384,5.32097,0.0101778,
0.214459,0.0558659,-0.0635783,-1.89788,0.324302,0.0193267,-0.110062,0.195606,0.0297492,0.18973,-0.14091,0.661274,-0.097647,0.0054275,-1.75598,-1.47432,-1.73575,3.36224,-38.9675,20.5114,0.0799649,10.7281,-0.985291,10.2499,-9.17268,3.89189,2.48728,0.0591766,0.21486,0.0540908,-0.0628773,-1.90239,0.333286,0.014941,-0.110286,0.58913,-0.0253918,0.208759,-0.422755,1.39006,-0.297878,0.00213304,-1.71326,-14.8776,2.12096,-3.03628,-16.7492,62.2798,0.217956,-7.62555,-38.3904,-7.43773,29.5694,0.770565,4.29925,0.017502,
0.215814,0.0559645,-0.0622666,-1.89876,0.326995,0.0199447,-0.110012,0.190363,0.0262651,0.184579,-0.134762,0.596343,-0.0626675,0.00559187,-3.27738,-2.17754,-3.21973,3.84269,-40.5817,21.8622,0.102733,10.5924,-0.969708,10.1265,-8.97875,3.27811,2.5753,0.0606164,0.21486,0.0540908,-0.0628773,-1.90239,0.333286,0.014941,-0.110286,0.58913,-0.0253918,0.208759,-0.422755,1.39006,-0.297878,0.00213304,0,0,0,0,0,0,0,-7.62555,-38.3904,-7.43773,29.5694,0.770565,4.29925,0.017502,
0.226063,0.0552336,-0.052017,-1.90844,0.360927,0.00953392,-0.110087,0.195355,0.0234246,0.189408,-0.13014,0.559013,-0.0465112,0.00558526,3.12012,-1.77534,3.01808,2.88884,-23.3315,10.0977,-0.00413213,10.4682,-0.962181,10.014,-8.78729,2.7239,2.64403,0.0624902,0.21486,0.0540908,-0.0628773,-1.90239,0.333286,0.014941,-0.110286,0.58913,-0.0253918,0.208759,-0.422755,1.39006,-0.297878,0.00213304,0,0,0,0,0,0,0,-7.62555,-38.3904,-7.43773,29.5694,0.770565,4.29925,0.017502,
0.227609,0.0552753,-0.0505198,-1.90927,0.363491,0.0100703,-0.110039,0.194944,0.0197812,0.188957,-0.124723,0.511312,-0.0238006,0.0056571,-0.256863,-2.27712,-0.281414,3.38542,-29.8133,14.1941,0.0448999,10.3502,-0.960219,9.90773,-8.59931,2.23542,2.70434,0.0640619,0.21486,0.0540908,-0.0628773,-1.90239,0.333286,0.014941,-0.110286,0.58913,-0.0253918,0.208759,-0.422755,1.39006,-0.297878,0.00213304,0,0,0,0,0,0,0,-7.62555,-38.3904,-7.43773,29.5694,0.770565,4.29925,0.017502,
0.229009,0.0552742,-0.0491657,-1.91004,0.365468,0.0109138,-0.109989,0.190955,0.0157982,0.185017,-0.11899,0.458465,0.00204724,0.00578211,-2.49268,-2.48939,-2.46241,3.58289,-33.0292,16.1549,0.0781328,9.99572,-1.24496,9.53609,-8.16056,1.61667,2.81417,0.066511,0.227325,0.056137,-0.0482486,-1.91309,0.371268,0.00937124,-0.11021,0.508245,0.0761689,0.298603,-0.28231,0.940015,-0.0340591,0.00815933,-10.1106,12.6951,11.2305,17.5556,-56.255,32.9774,0.753286,-6.25683,-37.2398,-6.56096,28.6212,0.709225,2.84081,0.050461,
0.230288,0.0552402,-0.0479306,-1.91076,0.36696,0.0119991,-0.109937,0.18472,0.0117884,0.17889,-0.113251,0.404071,0.0287723,0.0059331,-3.89732,-2.50607,-3.82968,3.58717,-33.9963,16.7032,0.0943671,9.8806,-1.24934,9.43225,-7.97699,1.23682,2.85299,0.0678784,0.227325,0.056137,-0.0482486,-1.91309,0.371268,0.00937124,-0.11021,0.508245,0.0761689,0.298603,-0.28231,0.940015,-0.0340591,0.00815933,0,0,0,0,0,0,0,-6.25683,-37.2398,-6.56096,28.6212,0.709225,2.84081,0.050461,
0.238038,0.0579836,-0.0378869,-1.91831,0.388983,0.00982356,-0.110013,0.187906,0.0128473,0.181893,-0.110912,0.370263,0.0407322,0.00591332,1.99164,0.661794,1.87672,1.46218,-21.13,7.47493,-0.0123611,9.76382,-1.25491,9.32628,-7.79467,0.901204,2.87983,0.0692934,0.227325,0.056137,-0.0482486,-1.91309,0.371268,0.00937124,-0.11021,0.508245,0.0761689,0.298603,-0.28231,0.940015,-0.0340591,0.00815933,0,0,0,0,0,0,0,-6.25683,-37.2398,-6.56096,28.6212,0.709225,2.84081,0.050461,
0.23947,0.0580527,-0.0365044,-1.91906,0.390344,0.0107735,-0.109964,0.18613,0.0120041,0.180076,-0.107526,0.330246,0.0563334,0.00596333,-1.11003,-0.526983,-1.13516,2.11591,-25.0105,9.75074,0.0312549,9.6437,-1.26029,9.21695,-7.61419,0.613135,2.9024,0.0702676,0.227325,0.056137,-0.0482486,-1.91309,0.371268,0.00937124,-0.11021,0.508245,0.0761689,0.298603,-0.28231,0.940015,-0.0340591,0.00815933,0,0,0,0,0,0,0,-6.25683,-37.2398,-6.56096,28.6212,0.709225,2.84081,0.050461,
0.240761,0.0580716,-0.0352598,-1.91977,0.391287,0.0119241,-0.109912,0.181173,0.0100752,0.175175,-0.10356,0.287756,0.0738326,0.00605336,-3.09856,-1.20558,-3.06315,2.47854,-26.5567,10.937,0.0562733,9.45846,-1.38053,9.00905,-7.3978,0.235757,2.92068,0.072162,0.239446,0.0582183,-0.034406,-1.92199,0.396892,0.00964219,-0.110172,0.217926,0.0884975,0.553512,-0.215281,0.63903,0.0727547,0.00102829,-36.2898,1.54108,31.8637,8.37854,-37.6231,13.3517,-0.891379,-5.77679,-39.1402,-6.48558,28.2245,0.990292,1.4016,0.017502,
0.241936,0.0580534,-0.0341286,-1.92043,0.391891,0.0132401,-0.10986,0.1743,0.00760486,0.168423,-0.0993328,0.245316,0.0919668,0.00615742,-4.29538,-1.54397,-4.22058,2.64225,-26.5248,11.3339,0.0650378,9.33008,-1.3833,8.89098,-7.21935,0.0236196,2.9313,0.0726575,0.239446,0.0582183,-0.034406,-1.92199,0.396892,0.00964219,-0.110172,0.217926,0.0884975,0.553512,-0.215281,0.63903,0.0727547,0.00102829,0,0,0,0,0,0,0,-5.77679,-39.1402,-6.48558,28.2245,0.990292,1.4016,0.017502,
0.249322,0.0598943,-0.0248313,-1.92655,0.408293,0.0125404,-0.109978,0.176164,0.00885086,0.170131,-0.0976354,0.222084,0.09781,0.00609376,1.16522,0.778751,1.0676,1.0609,-14.5197,3.65198,-0.0397912,9.19746,-1.38398,8.76825,-7.04135,-0.158579,2.93508,0.0730545,0.239446,0.0582183,-0.034406,-1.92199,0.396892,0.00964219,-0.110172,0.217926,0.0884975,0.553512,-0.215281,0.63903,0.0727547,0.00102829,0,0,0,0,0,0,0,-5.77679,-39.1402,-6.48558,28.2245,0.990292,1.4016,0.017502,
0.25063,0.0599447,-0.0235723,-1.92722,0.408946,0.0136884,-0.10993,0.173632,0.00834119,0.167581,-0.0949602,0.194013,0.106948,0.00608709,-1.58285,-0.318545,-1.59342,1.67197,-17.5448,5.71148,-0.00416578,9.0604,-1.38201,8.64103,-6.86411,-0.308935,2.93726,0.0730416,0.239446,0.0582183,-0.034406,-1.92199,0.396892,0.00964219,-0.110172,0.217926,0.0884975,0.553512,-0.215281,0.63903,0.0727547,0.00102829,0,0,0,0,0,0,0,-5.77679,-39.1402,-6.48558,28.2245,0.990292,1.4016,0.017502,
0.251808,0.0599512,-0.0224405,-1.92785,0.4093,0.0149904,-0.10988,0.168335,0.00683568,0.162359,-0.0917085,0.164049,0.118107,0.00610945,-3.31029,-0.940945,-3.26375,2.03235,-18.7274,6.97391,0.0139737,8.92722,-1.51268,8.49528,-6.7176,-0.507706,2.8829,0.0736326,0.254829,0.058823,-0.0251476,-1.92997,0.412471,0.0156238,-0.110144,0.136296,-0.0557825,0.566214,-0.266075,0.400794,0.267755,0.00167415,-10.2037,-18.035,1.58773,-6.34927,-29.7795,24.375,0.0807317,-3.57098,-36.4424,-3.11339,23.4915,1.47277,-0.381845,0.0239107,
0.263651,0.0587246,-0.0166061,-1.93357,0.419216,0.0206975,-0.10995,0.167327,0.00398729,0.161307,-0.0875468,0.144827,0.125059,0.00598254,-0.630065,-1.78024,-0.657739,2.60107,-12.0134,4.34526,-0.0793182,8.63537,-1.49481,8.22174,-6.36422,-0.690482,2.87248,0.0725018,0.254829,0.058823,-0.0251476,-1.92997,0.412471,0.0156238,-0.110144,0.136296,-0.0557825,0.566214,-0.266075,0.400794,0.267755,0.00167415,0,0,0,0,0,0,0,-3.57098,-36.4424,-3.11339,23.4915,1.47277,-0.381845,0.0239107,
0.264815,0.0586477,-0.0154873,-1.93411,0.419499,0.0220495,-0.109905,0.162969,0.00126702,0.157015,-0.0834719,0.122924,0.133846,0.00590706,-2.72415,-1.70017,-2.68221,2.54679,-13.6894,5.49184,-0.0471771,8.48545,-1.48177,8.08066,-6.18765,-0.752333,2.86545,0.0715404,0.254829,0.058823,-0.0251476,-1.92997,0.412471,0.0156238,-0.110144,0.136296,-0.0557825,0.566214,-0.266075,0.400794,0.267755,0.00167415,0,0,0,0,0,0,0,-3.57098,-36.4424,-3.11339,23.4915,1.47277,-0.381845,0.0239107,
0.265865,0.0585587,-0.01448,-1.93462,0.419572,0.023513,-0.10986,0.156613,-0.00121086,0.150794,-0.0795523,0.100178,0.143665,0.00585673,-3.97223,-1.54867,-3.88816,2.44977,-14.2164,6.13699,-0.0314544,8.33378,-1.4664,7.93742,-6.0109,-0.799601,2.85613,0.0704435,0.254829,0.058823,-0.0251476,-1.92997,0.412471,0.0156238,-0.110144,0.136296,-0.0557825,0.566214,-0.266075,0.400794,0.267755,0.00167415,0,0,0,0,0,0,0,-3.57098,-36.4424,-3.11339,23.4915,1.47277,-0.381845,0.0239107,
0.266821,0.0584618,-0.0135636,-1.93511,0.419481,0.0250705,-0.109814,0.149192,-0.00339178,0.143546,-0.0758225,0.0778671,0.15387,0.00581209,-4.63786,-1.36307,-4.53001,2.33108,-13.9444,6.37833,-0.0279001,8.1156,-1.52146,7.7097,-5.9201,-0.889784,2.76912,0.0699842,0.26669,0.0591577,-0.0152159,-1.93637,0.420051,0.026973,-0.110127,0.550081,0.0171835,0.0501499,-0.169341,0.215676,0.355578,0.0052953,51.7231,9.12075,-64.5081,12.0918,-23.1398,10.9779,0.452645,-5.32055,-35.1213,-4.33531,24.9832,1.94336,-0.0238741,0.0843355,
0.274396,0.0596517,-0.00786148,-1.93948,0.423104,0.0348348,-0.109944,0.147674,-0.00288411,0.141988,-0.0735253,0.0658907,0.160021,0.00563863,-0.949315,0.317295,-0.974198,1.43574,-7.48528,3.84396,-0.108415,7.96176,-1.50232,7.56375,-5.7431,-0.910799,2.75872,0.0684788,0.26669,0.0591577,-0.0152159,-1.93637,0.420051,0.026973,-0.110127,0.550081,0.0171835,0.0501499,-0.169341,0.215676,0.355578,0.0052953,0,0,0,0,0,0,0,-5.32055,-35.1213,-4.33531,24.9832,1.94336,-0.0238741,0.0843355,
0.275409,0.0596166,-0.00689178,-1.93997,0.423087,0.0363601,-0.109904,0.143456,-0.00318648,0.137833,-0.070965,0.0522846,0.166149,0.00550939,-2.63611,-0.188981,-2.59676,1.6002,-8.50381,3.83037,-0.0807708,7.80743,-1.48189,7.41714,-5.56599,-0.920361,2.74887,0.0667307,0.26669,0.0591577,-0.0152159,-1.93637,0.420051,0.026973,-0.110127,0.550081,0.0171835,0.0501499,-0.169341,0.215676,0.355578,0.0052953,0,0,0,0,0,0,0,-5.32055,-35.1213,-4.33531,24.9832,1.94336,-0.0238741,0.0843355,
0.276326,0.0595617,-0.00601534,-1.94043,0.422941,0.037939,-0.109864,0.137677,-0.00392121,0.132177,-0.0682648,0.0381811,0.172391,0.00540075,-3.61179,-0.459204,-3.53473,1.68765,-8.81464,3.90098,-0.0678999,7.6532,-1.46077,7.27023,-5.38865,-0.922371,2.73824,0.0648779,0.26669,0.0591577,-0.0152159,-1.93637,0.420051,0.026973,-0.110127,0.550081,0.0171835,0.0501499,-0.169341,0.215676,0.355578,0.0052953,0,0,0,0,0,0,0,-5.32055,-35.1213,-4.33531,24.9832,1.94336,-0.0238741,0.0843355,
0.277164,0.0594932,-0.00521452,-1.94086,0.422694,0.0395697,-0.109825,0.131106,-0.00484914,0.125762,-0.0655107,0.0243875,0.17868,0.00529651,-4.1068,-0.579958,-4.00931,1.72127,-8.62103,3.93091,-0.0651503,7.44654,-1.44599,7.04602,-5.2894,-0.932581,2.6609,0.0635225,0.272669,0.0603055,-0.0015365,-1.94123,0.422524,0.0400685,-0.110114,0.387579,0.0816539,0.152357,-0.104447,0.0390954,0.378957,-0.000422318,-20.3128,8.0588,12.7759,8.11176,-22.0726,2.92231,-0.714703,-4.1264,-38.7871,-4.56145,26.0068,2.38922,0.248038,0.0706026,
0.279434,0.061484,0.00490677,-1.94413,0.422978,0.0490115,-0.109966,0.129718,-0.00228598,0.124298,-0.0646101,0.0168403,0.18188,0.00507987,-0.867311,1.60197,-0.915228,0.562872,-4.71701,1.9995,-0.135399,7.29315,-1.42492,6.89932,-5.11177,-0.921823,2.65056,0.0614016,0.272669,0.0603055,-0.0015365,-1.94123,0.422524,0.0400685,-0.110114,0.387579,0.0816539,0.152357,-0.104447,0.0390954,0.378957,-0.000422318,0,0,0,0,0,0,0,-4.1264,-38.7871,-4.56145,26.0068,2.38922,0.248038,0.0706026,
0.280325,0.0615055,0.00575468,-1.94458,0.422784,0.0505802,-0.109932,0.126028,-0.00129249,0.120636,-0.0630388,0.00863414,0.184722,0.00490539,-2.30627,0.620937,-2.2886,0.982106,-5.12884,1.77678,-0.109053,7.14032,-1.40458,6.75298,-4.9341,-0.905932,2.64088,0.0591308,0.272669,0.0603055,-0.0015365,-1.94123,0.422524,0.0400685,-0.110114,0.387579,0.0816539,0.152357,-0.104447,0.0390954,0.378957,-0.000422318,0,0,0,0,0,0,0,-4.1264,-38.7871,-4.56145,26.0068,2.38922,0.248038,0.0706026,
0.281133,0.0614965,0.00652321,-1.94501,0.42252,0.0521764,-0.109899,0.121024,-0.00125895,0.115722,-0.0610211,0.000289224,0.187683,0.00475156,-3.12764,0.0209622,-3.07127,1.26105,-5.21557,1.85054,-0.0961446,6.98827,-1.38549,6.60703,-4.75636,-0.887667,2.63105,0.0568129,0.272669,0.0603055,-0.0015365,-1.94123,0.422524,0.0400685,-0.110114,0.387579,0.0816539,0.152357,-0.104447,0.0390954,0.378957,-0.000422318,0,0,0,0,0,0,0,-4.1264,-38.7871,-4.56145,26.0068,2.38922,0.248038,0.0706026,
0.281874,0.0614655,0.00722756,-1.9454,0.422199,0.0538058,-0.109867,0.115364,-0.00178301,0.110187,-0.0587232,-0.00778926,0.190881,0.00460444,-3.53746,-0.327539,-3.45973,1.43616,-5.04905,1.99844,-0.0919474,6.90669,-1.42062,6.51881,-4.65352,-0.846099,2.5549,0.0547164,0.282166,0.0597562,0.00555964,-1.94633,0.422139,0.0520446,-0.110098,-0.0170957,-0.0806487,0.490207,-0.18039,-0.045795,0.350892,-0.000200598,-50.5843,-20.2878,42.2313,-9.49289,-10.6113,-3.50802,0.0277151,-0.325741,-34.9944,-0.110155,24.0152,3.40271,0.705801,0.0577852,
0.287984,0.0590453,0.0111572,-1.94859,0.421611,0.0595264,-0.109974,0.114086,-0.00407906,0.108908,-0.0559074,-0.00931381,0.189883,0.00435371,-0.798873,-1.43503,-0.799085,1.75989,-0.952842,-0.623669,-0.156708,6.7559,-1.40511,6.37356,-4.47582,-0.824503,2.54555,0.0522742,0.282166,0.0597562,0.00555964,-1.94633,0.422139,0.0520446,-0.110098,-0.0170957,-0.0806487,0.490207,-0.18039,-0.045795,0.350892,-0.000200598,0,0,0,0,0,0,0,-0.325741,-34.9944,-0.110155,24.0152,3.40271,0.705801,0.0577852,
0.28877,0.0589404,0.0119039,-1.94892,0.421437,0.061063,-0.109948,0.110899,-0.00588666,0.105794,-0.0531867,-0.0118057,0.190322,0.00414605,-1.99168,-1.12975,-1.94606,1.70047,-1.55745,0.274386,-0.129788,6.6055,-1.39177,6.22853,-4.29823,-0.801869,2.53652,0.0497706,0.282166,0.0597562,0.00555964,-1.94633,0.422139,0.0520446,-0.110098,-0.0170957,-0.0806487,0.490207,-0.18039,-0.045795,0.350892,-0.000200598,0,0,0,0,0,0,0,-0.325741,-34.9944,-0.110155,24.0152,3.40271,0.705801,0.0577852,
0.289485,0.0588361,0.0125834,-1.94925,0.421213,0.062645,-0.109922,0.106615,-0.00731684,0.101623,-0.0505611,-0.0150356,0.191807,0.00396282,-2.67792,-0.893861,-2.60709,1.64095,-2.01869,0.928216,-0.11452,6.45539,-1.38087,6.08352,-4.12069,-0.779975,2.52738,0.047285,0.282166,0.0597562,0.00555964,-1.94633,0.422139,0.0520446,-0.110098,-0.0170957,-0.0806487,0.490207,-0.18039,-0.045795,0.350892,-0.000200598,0,0,0,0,0,0,0,-0.325741,-34.9944,-0.110155,24.0152,3.40271,0.705801,0.0577852,
0.290145,0.0587321,0.013208,-1.94955,0.420946,0.0642655,-0.109897,0.101772,-0.00845144,0.0969139,-0.0480263,-0.0187071,0.193957,0.00379175,-3.02636,-0.709126,-2.94315,1.58426,-2.29469,1.34379,-0.106918,6.30528,-1.37243,5.93838,-3.94325,-0.758163,2.51824,0.0447756,0.282166,0.0597562,0.00555964,-1.94633,0.422139,0.0520446,-0.110098,-0.0170957,-0.0806487,0.490207,-0.18039,-0.045795,0.350892,-0.000200598,0,0,0,0,0,0,0,-0.325741,-34.9944,-0.110155,24.0152,3.40271,0.705801,0.0577852,
0.297272,0.0600176,0.0154501,-1.95345,0.419739,0.0693075,-0.109989,0.100985,-0.00609256,0.0960993,-0.0478469,-0.0201577,0.189904,0.00355067,-0.492003,1.4743,-0.509145,0.112152,-0.906603,-2.53322,-0.150675,6.15169,-1.40566,5.78319,-3.79065,-0.721589,2.47477,0.0424938,0.292048,0.0593897,0.0104657,-1.95103,0.420728,0.0623545,-0.110084,0.141384,0.0288222,0.272983,-0.12162,-0.0524681,0.26297,0.000944563,19.81,13.6839,-27.153,7.34624,-0.834136,-10.9903,0.143145,-1.46435,-34.796,-0.463243,27.4509,2.80487,1.99853,0.017502,
0.297977,0.0600147,0.0161177,-1.9538,0.419499,0.0707454,-0.109969,0.0984117,-0.00494701,0.0935699,-0.0468403,-0.0221173,0.187871,0.00334666,-1.60848,0.71597,-1.58088,0.62914,-1.22477,-1.2706,-0.127508,6.00102,-1.40218,5.63724,-3.61325,-0.701735,2.46487,0.0400269,0.292048,0.0593897,0.0104657,-1.95103,0.420728,0.0623545,-0.110084,0.141384,0.0288222,0.272983,-0.12162,-0.0524681,0.26297,0.000944563,0,0,0,0,0,0,0,-1.46435,-34.796,-0.463243,27.4509,2.80487,1.99853,0.017502,
0.298619,0.0599891,0.0167246,-1.95411,0.41923,0.0722292,-0.109949,0.0947836,-0.00459659,0.0900276,-0.0452668,-0.0244194,0.187392,0.00316471,-2.26755,0.219008,-2.21389,0.983416,-1.43882,-0.299588,-0.113716,5.8498,-1.40106,5.49063,-3.43573,-0.683322,2.45426,0.0376239,0.292048,0.0593897,0.0104657,-1.95103,0.420728,0.0623545,-0.110084,0.141384,0.0288222,0.272983,-0.12162,-0.0524681,0.26297,0.000944563,0,0,0,0,0,0,0,-1.46435,-34.796,-0.463243,27.4509,2.80487,1.99853,0.017502,
0.297136,0.0600641,0.0153167,-1.95323,0.419967,0.0689917,-0.110027,0.0944456,-0.00287341,0.0896679,-0.044344,-0.0232137,0.182858,0.00287386,-0.211269,1.07699,-0.224802,0.576724,0.753587,-2.83362,-0.181783,5.54498,-1.40513,5.19504,-3.08006,-0.64811,2.42963,0.0329612,0.292048,0.0593897,0.0104657,-1.95103,0.420728,0.0623545,-0.110084,0.141384,0.0288222,0.272983,-0.12162,-0.0524681,0.26297,0.000944563,0,0,0,0,0,0,0,-1.46435,-34.796,-0.463243,27.4509,2.80487,1.99853,0.017502,
0.2978,0.0600649,0.0159444,-1.95352,0.419793,0.0703535,-0.110013,0.0921539,-0.00227828,0.0874284,-0.0427045,-0.0229325,0.180331,0.00263813,-1.43231,0.371952,-1.39971,1.02471,0.175725,-1.57959,-0.147329,5.3657,-1.42001,5.0075,-2.90077,-0.614297,2.39527,0.0307686,0.298623,0.0602885,0.0176645,-1.95491,0.419304,0.0709584,-0.110079,0.370293,0.0585821,0.0176537,-0.081328,-0.0335944,0.239636,0.000120878,28.6136,3.71998,-31.9162,5.03651,2.35921,-2.91678,-0.102961,-1.71826,-39.4893,-1.21306,27.9507,2.26104,2.21093,0.017502,
0.298399,0.0600418,0.016509,-1.95377,0.419595,0.0717547,-0.11,0.0886872,-0.00240155,0.0840566,-0.0405909,-0.0232881,0.179293,0.00243875,-2.16665,-0.077042,-2.10735,1.32102,-0.222205,-0.648336,-0.124615,5.21098,-1.42632,4.85754,-2.72184,-0.59628,2.37813,0.0286218,0.298623,0.0602885,0.0176645,-1.95491,0.419304,0.0709584,-0.110079,0.370293,0.0585821,0.0176537,-0.081328,-0.0335944,0.239636,0.000120878,0,0,0,0,0,0,0,-1.71826,-39.4893,-1.21306,27.9507,2.26104,2.21093,0.017502,
0.298944,0.0600002,0.0170214,-1.954,0.419382,0.0731857,-0.109987,0.0845696,-0.00296011,0.0800567,-0.0381782,-0.0239491,0.179212,0.0022635,-2.57355,-0.349101,-2.49995,1.50795,-0.413155,-0.0511064,-0.10953,5.05535,-1.43391,4.70683,-2.54231,-0.576315,2.35784,0.0265481,0.298623,0.0602885,0.0176645,-1.95491,0.419304,0.0709584,-0.110079,0.370293,0.0585821,0.0176537,-0.081328,-0.0335944,0.239636,0.000120878,0,0,0,0,0,0,0,-1.71826,-39.4893,-1.21306,27.9507,2.26104,2.21093,0.017502,
0.303431,0.0611857,0.022192,-1.95678,0.418947,0.0775002,-0.110051,0.0848108,-0.00118236,0.0802356,-0.0373274,-0.0205597,0.17434,0.00201626,0.150804,1.1111,0.111804,0.531735,2.11839,-3.04471,-0.154521,4.89893,-1.44257,4.55543,-2.36205,-0.55401,2.33391,0.0245727,0.298623,0.0602885,0.0176645,-1.95491,0.419304,0.0709584,-0.110079,0.370293,0.0585821,0.0176537,-0.081328,-0.0335944,0.239636,0.000120878,0,0,0,0,0,0,0,-1.71826,-39.4893,-1.21306,27.9507,2.26104,2.21093,0.017502,
0.304037,0.0611971,0.0227618,-1.95702,0.41888,0.0787547,-0.110042,0.0829899,-0.000660088,0.078435,-0.0357067,-0.0181193,0.170833,0.00182307,-1.13809,0.326418,-1.12537,1.01292,1.52524,-2.19189,-0.120748,4.80967,-1.48291,4.45317,-2.21884,-0.518929,2.26602,0.0228808,0.303269,0.0602515,0.0260976,-1.95859,0.418087,0.0807476,-0.110089,0.318265,-0.0772825,0.0272031,-0.141379,-0.0316895,0.291211,-0.000680891,-6.50345,-16.9831,1.19368,-7.50634,0.238112,6.44684,-0.100221,-2.83307,-35.1689,-2.71269,23.6145,2.0285,0.904471,0.0577852,
0.304577,0.0611814,0.0232685,-1.95722,0.418812,0.0800199,-0.110034,0.0798997,-0.000920677,0.075415,-0.0335723,-0.0161875,0.168297,0.00166543,-1.93135,-0.162868,-1.88751,1.33397,1.20737,-1.58489,-0.0985215,4.65218,-1.49312,4.30108,-2.03703,-0.48736,2.23157,0.0211029,0.303269,0.0602515,0.0260976,-1.95859,0.418087,0.0807476,-0.110089,0.318265,-0.0772825,0.0272031,-0.141379,-0.0316895,0.291211,-0.000680891,0,0,0,0,0,0,0,-2.83307,-35.1689,-2.71269,23.6145,2.0285,0.904471,0.0577852,
0.305064,0.0611452,0.0237228,-1.95739,0.418758,0.0812845,-0.110026,0.0760764,-0.00164286,0.0716903,-0.0311109,-0.0143107,0.166253,0.00153185,-2.38957,-0.451362,-2.32796,1.53842,1.17299,-1.27742,-0.0834924,4.49455,-1.5038,4.14906,-1.85448,-0.448542,2.18982,0.0194269,0.303269,0.0602515,0.0260976,-1.95859,0.418087,0.0807476,-0.110089,0.318265,-0.0772825,0.0272031,-0.141379,-0.0316895,0.291211,-0.000680891,0,0,0,0,0,0,0,-2.83307,-35.1689,-2.71269,23.6145,2.0285,0.904471,0.0577852,
0.307512,0.0595104,0.0300807,-1.95969,0.418232,0.0867377,-0.110075,0.0757807,-0.00409421,0.0713748,-0.0280322,-0.00724384,0.160846,0.00132494,-0.184829,-1.5321,-0.197144,1.92415,4.41679,-3.37968,-0.129314,4.33705,-1.51489,3.99737,-1.67127,-0.401096,2.13966,0.0178644,0.303269,0.0602515,0.0260976,-1.95859,0.418087,0.0807476,-0.110089,0.318265,-0.0772825,0.0272031,-0.141379,-0.0316895,0.291211,-0.000680891,0,0,0,0,0,0,0,-2.83307,-35.1689,-2.71269,23.6145,2.0285,0.904471,0.0577852,
0.308034,0.0594004,0.0305695,-1.95979,0.418437,0.0878313,-0.11007,0.0736778,-0.00602547,0.06932,-0.0250484,-0.000685806,0.156017,0.0011739,-1.31431,-1.20704,-1.28427,1.86492,4.09877,-3.01826,-0.0944016,4.1243,-1.52487,3.78336,-1.52698,-0.338236,2.0439,0.0165971,0.30854,0.0603053,0.0319398,-1.96144,0.417608,0.0911051,-0.110086,0.231469,0.0184599,0.0784194,-0.0660076,-0.015635,0.331724,-0.00105612,-10.8495,11.9678,6.40204,9.4214,2.00682,5.0641,-0.0469035,-3.34088,-35.0459,-3.26018,26.4035,2.16949,1.16356,0.0303194,
0.308495,0.0592908,0.0309991,-1.95988,0.418688,0.0888875,-0.110066,0.0704666,-0.00756042,0.0661959,-0.0221625,0.00572891,0.151217,0.00106069,-2.00697,-0.959343,-1.95258,1.80366,4.0092,-2.99965,-0.0707551,3.96802,-1.5364,3.63334,-1.34301,-0.266731,1.97123,0.0152726,0.30854,0.0603053,0.0319398,-1.96144,0.417608,0.0911051,-0.110086,0.231469,0.0184599,0.0784194,-0.0660076,-0.015635,0.331724,-0.00105612,0,0,0,0,0,0,0,-3.34088,-35.0459,-3.26018,26.4035,2.16949,1.16356,0.0303194,
0.308904,0.0591813,0.031379,-1.95994,0.419003,0.0898858,-0.110061,0.0666177,-0.00878708,0.0624547,-0.0193721,0.0124618,0.145933,0.000974303,-2.4056,-0.766663,-2.33823,1.74401,4.20807,-3.3028,-0.0539938,3.81275,-1.548,3.48457,-1.15906,-0.179612,1.88408,0.0140809,0.30854,0.0603053,0.0319398,-1.96144,0.417608,0.0911051,-0.110086,0.231469,0.0184599,0.0784194,-0.0660076,-0.015635,0.331724,-0.00105612,0,0,0,0,0,0,0,-3.34088,-35.0459,-3.26018,26.4035,2.16949,1.16356,0.0303194,
0.312166,0.0605494,0.0353292,-1.96225,0.419088,0.097475,-0.110092,0.0656395,-0.00776972,0.0614452,-0.0176795,0.0224274,0.138673,0.000837778,-0.611361,0.635853,-0.630979,1.05784,6.22851,-4.53741,-0.085328,3.65858,-1.5597,3.33713,-0.975539,-0.0748225,1.78077,0.0130262,0.30854,0.0603053,0.0319398,-1.96144,0.417608,0.0911051,-0.110086,0.231469,0.0184599,0.0784194,-0.0660076,-0.015635,0.331724,-0.00105612,0,0,0,0,0,0,0,-3.34088,-35.0459,-3.26018,26.4035,2.16949,1.16356,0.0303194,
0.312591,0.060499,0.0357222,-1.96231,0.419688,0.0982229,-0.110089,0.0631415,-0.00747706,0.0589822,-0.0156954,0.0329432,0.129636,0.000751674,-1.56122,0.182913,-1.53936,1.24006,6.57237,-5.64816,-0.0538146,3.49487,-1.5446,3.16975,-0.830663,0.0576773,1.61971,0.0123131,0.313466,0.0611868,0.0365946,-1.96277,0.417569,0.101169,-0.110083,0.110838,0.0675909,0.159533,-0.00473239,-0.0106259,0.303397,0.0001006,-15.0789,6.14138,10.1392,7.6594,0.626128,-3.54088,0.14459,-1.11126,-38.3666,-1.73674,24.8087,1.79687,0.194937,0.00376909,
0.31296,0.0604334,0.0360607,-1.96235,0.420407,0.0988406,-0.110085,0.0597333,-0.00762073,0.0556477,-0.0135311,0.0443215,0.119151,0.000704662,-2.13013,-0.089795,-2.08405,1.3527,7.1114,-6.5529,-0.0293825,3.34245,-1.5562,3.02448,-0.649513,0.204522,1.47768,0.0115704,0.313466,0.0611868,0.0365946,-1.96277,0.417569,0.101169,-0.110083,0.110838,0.0675909,0.159533,-0.00473239,-0.0106259,0.303397,0.0001006,0,0,0,0,0,0,0,-1.11126,-38.3666,-1.73674,24.8087,1.79687,0.194937,0.00376909,
0.313281,0.0603569,0.0363529,-1.96237,0.421267,0.0993199,-0.11008,0.0558134,-0.00800934,0.0518227,-0.0112769,0.056965,0.107302,0.000685736,-2.44995,-0.242881,-2.39065,1.40891,7.90224,-7.40546,-0.0118291,3.18999,-1.5675,2.87933,-0.470499,0.374815,1.31392,0.0110114,0.313466,0.0611868,0.0365946,-1.96277,0.417569,0.101169,-0.110083,0.110838,0.0675909,0.159533,-0.00473239,-0.0106259,0.303397,0.0001006,0,0,0,0,0,0,0,-1.11126,-38.3666,-1.73674,24.8087,1.79687,0.194937,0.00376909,
0.316421,0.0618337,0.0393437,-1.96318,0.421252,0.106016,-0.110098,0.0542476,-0.00635731,0.0502274,-0.00987747,0.0729166,0.09495,0.000612574,-0.978612,1.03252,-0.997019,0.87462,9.96969,-7.72019,-0.045726,3.03625,-1.57826,2.73302,-0.294506,0.56904,1.12881,0.0106196,0.313466,0.0611868,0.0365946,-1.96277,0.417569,0.101169,-0.110083,0.110838,0.0675909,0.159533,-0.00473239,-0.0106259,0.303397,0.0001006,0,0,0,0,0,0,0,-1.11126,-38.3666,-1.73674,24.8087,1.79687,0.194937,0.00376909,
0.316744,0.0618075,0.0396351,-1.96319,0.422511,0.106186,-0.110095,0.0514583,-0.00574085,0.0474683,-0.00817747,0.0898058,0.0802285,0.00056606,-1.74334,0.38529,-1.72447,1.0625,10.5558,-9.20093,-0.0290712,2.90164,-1.59839,2.6028,-0.173907,0.802069,0.874572,0.010567,0.318919,0.0603858,0.0401498,-1.96445,0.417763,0.111326,-0.110089,-0.0423973,-0.0588822,0.268308,-0.0568932,-0.00304145,0.270214,-0.000501772,-19.1544,-15.8091,13.5969,-6.52011,0.948062,-4.14783,-0.0752965,-0.603451,-34.9468,-0.463243,24.9118,2.57232,0.466849,0.017502,
0.317017,0.0617617,0.0398786,-1.96318,0.42392,0.106197,-0.11009,0.0479846,-0.00573607,0.044062,-0.00630008,0.107086,0.0644474,0.000565391,-2.17109,0.00298495,-2.12897,1.17337,10.8002,-9.86318,-0.000418375,2.7403,-1.6058,2.44874,-0.00752907,1.03796,0.654312,0.0107347,0.318919,0.0603858,0.0401498,-1.96445,0.417763,0.111326,-0.110089,-0.0423973,-0.0588822,0.268308,-0.0568932,-0.00304145,0.270214,-0.000501772,0,0,0,0,0,0,0,-0.603451,-34.9468,-0.463243,24.9118,2.57232,0.466849,0.017502,
0.317246,0.0617032,0.0400805,-1.96316,0.425507,0.10608,-0.110085,0.0441288,-0.00605243,0.0402966,-0.00442743,0.125331,0.0486241,0.000595608,-2.40984,-0.19772,-2.35334,1.1704,11.4028,-9.88956,0.0188856,2.56895,-1.60992,2.28525,0.150399,1.30583,0.416561,0.0110924,0.318919,0.0603858,0.0401498,-1.96445,0.417763,0.111326,-0.110089,-0.0423973,-0.0588822,0.268308,-0.0568932,-0.00304145,0.270214,-0.000501772,0,0,0,0,0,0,0,-0.603451,-34.9468,-0.463243,24.9118,2.57232,0.466849,0.017502,
0.321316,0.0594411,0.0423539,-1.96412,0.426817,0.11261,-0.110128,0.0407649,-0.00790584,0.0370069,-0.00170734,0.148846,0.0377622,0.000190376,-2.10243,-1.15838,-2.0561,1.70006,14.6969,-6.78874,-0.25327,2.17443,-1.57678,1.90141,0.45153,1.8285,-0.0280419,0.0100284,0.318919,0.0603858,0.0401498,-1.96445,0.417763,0.111326,-0.110089,-0.0423973,-0.0588822,0.268308,-0.0568932,-0.00304145,0.270214,-0.000501772,0,0,0,0,0,0,0,-0.603451,-34.9468,-0.463243,24.9118,2.57232,0.466849,0.017502,
0.321496,0.0593271,0.0425088,-1.96404,0.428803,0.112587,-0.11014,0.0371196,-0.00917311,0.0334769,0.000648452,0.168732,0.0296425,-0.000136673,-2.27834,-0.792047,-2.20623,1.47237,12.4291,-5.0748,-0.204406,1.94659,-1.5307,1.67657,0.598367,2.0177,-0.19285,0.0108,0.318919,0.0603858,0.0401498,-1.96445,0.417763,0.111326,-0.110089,-0.0423973,-0.0588822,0.268308,-0.0568932,-0.00304145,0.270214,-0.000501772,0,0,0,0,0,0,0,-0.603451,-34.9468,-0.463243,24.9118,2.57232,0.466849,0.017502,
0.321641,0.0592204,0.0426296,-1.96395,0.430866,0.112554,-0.110155,0.0333204,-0.0100076,0.0298017,0.00272367,0.186556,0.022881,-0.000493222,-2.37451,-0.521526,-2.29696,1.29701,11.14,-4.22594,-0.222843,1.69108,-1.46439,1.42519,0.712789,2.32527,-0.332643,0.0120007,0.322824,0.0605851,0.0431432,-1.96487,0.419602,0.117334,-0.110086,-0.0283196,0.037808,0.224617,0.0108993,0.0679273,0.115351,0.000244416,1.7597,12.0863,-5.46146,8.47407,8.8711,-19.3579,0.0932735,-0.198788,-36.6924,-0.137926,24.761,2.82867,0.57305,-0.00996382,
0.321761,0.0591164,0.0427275,-1.96385,0.432913,0.112536,-0.110171,0.0296642,-0.0106041,0.02629,0.00458823,0.200429,0.0178598,-0.000784939,-2.28512,-0.372851,-2.19485,1.16535,8.67068,-3.13822,-0.182323,1.37705,-1.38175,1.11557,0.865528,2.60326,-0.351779,0.00855328,0.322824,0.0605851,0.0431432,-1.96487,0.419602,0.117334,-0.110086,-0.0283196,0.037808,0.224617,0.0108993,0.0679273,0.115351,0.000244416,0,0,0,0,0,0,0,-0.198788,-36.6924,-0.137926,24.761,2.82867,0.57305,-0.00996382,
0.324635,0.0608668,0.0447914,-1.96478,0.428327,0.118023,-0.110186,0.0288213,-0.00888331,0.0254403,0.0048733,0.21064,0.0129243,-0.0010714,-0.526777,1.0755,-0.531056,0.17817,6.38152,-3.08469,-0.179035,1.08418,-1.41634,0.798461,0.973414,2.65672,-0.168587,-0.00664952,0.322824,0.0605851,0.0431432,-1.96487,0.419602,0.117334,-0.110086,-0.0283196,0.037808,0.224617,0.0108993,0.0679273,0.115351,0.000244416,0,0,0,0,0,0,0,-0.198788,-36.6924,-0.137926,24.761,2.82867,0.57305,-0.00996382,
0.324804,0.0608309,0.0449337,-1.96471,0.430199,0.117993,-0.110203,0.0272861,-0.0080027,0.0239101,0.00568544,0.2153,0.0095845,-0.00126604,-0.959539,0.550384,-0.956349,0.507588,2.91263,-2.08739,-0.121656,0.881624,-1.30057,0.577796,1.19451,2.16717,0.346042,-0.0114622,0.322824,0.0605851,0.0431432,-1.96487,0.419602,0.117334,-0.110086,-0.0283196,0.037808,0.224617,0.0108993,0.0679273,0.115351,0.000244416,0,0,0,0,0,0,0,-0.198788,-36.6924,-0.137926,24.761,2.82867,0.57305,-0.00996382,
0.324941,0.0607806,0.0450453,-1.96463,0.431988,0.117981,-0.11022,0.0252501,-0.00766124,0.0219177,0.00672981,0.216979,0.00738031,-0.00144167,-1.27248,0.213409,-1.24525,0.652733,1.04966,-1.37762,-0.109767,0.719714,-1.30202,0.449591,1.25162,2.44349,0.184445,-0.0110214,0.325559,0.0600882,0.0455086,-1.96525,0.424761,0.11876,-0.110091,0.0345216,-0.0443263,0.114917,-0.0271056,0.194001,-0.00529516,-0.000315547,7.85516,-10.2668,-13.7125,-4.75061,15.7592,-15.0808,-0.0699954,0.134464,-35.3713,0.112013,26.4789,3.62243,1.0244,-0.0026396,
0.324635,0.0608668,0.0447914,-1.96478,0.428327,0.118023,-0.110186,0.0252901,-0.00652901,0.0219425,0.00658657,0.22388,0.00454072,-0.00159678,0.0249815,0.707644,0.0154748,-0.0895281,4.31276,-1.77475,-0.0969437,0.414114,-1.28421,0.159926,1.39781,2.45191,0.128511,-0.0176647,0.325559,0.0600882,0.0455086,-1.96525,0.424761,0.11876,-0.110091,0.0345216,-0.0443263,0.114917,-0.0271056,0.194001,-0.00529516,-0.000315547,0,0,0,0,0,0,0,0.134464,-35.3713,0.112013,26.4789,3.62243,1.0244,-0.0026396,
0.327269,0.0592485,0.0470396,-1.96473,0.434661,0.11816,-0.110209,0.0246326,-0.00820523,0.0212911,0.00827005,0.206575,0.0107458,-0.00159497,-0.410948,-1.04764,-0.407134,1.05218,-10.8156,3.87817,0.00113334,0.271568,-1.24246,-0.0209686,1.52298,1.90685,0.27433,-0.0188496,0.325559,0.0600882,0.0455086,-1.96525,0.424761,0.11876,-0.110091,0.0345216,-0.0443263,0.114917,-0.0271056,0.194001,-0.00529516,-0.000315547,0,0,0,0,0,0,0,0.134464,-35.3713,0.112013,26.4789,3.62243,1.0244,-0.0026396,
0.327425,0.0591296,0.0471672,-1.96461,0.435472,0.118623,-0.110223,0.0236008,-0.00953846,0.0202231,0.00974331,0.185533,0.0201749,-0.00162037,-0.64484,-0.833269,-0.667462,0.920786,-13.1514,5.89319,-0.0158731,0.132623,-1.22431,-0.139432,1.59647,1.95335,0.237172,-0.0196765,0.325559,0.0600882,0.0455086,-1.96525,0.424761,0.11876,-0.110091,0.0345216,-0.0443263,0.114917,-0.0271056,0.194001,-0.00529516,-0.000315547,0,0,0,0,0,0,0,0.134464,-35.3713,0.112013,26.4789,3.62243,1.0244,-0.0026396,
0.327559,0.0590124,0.0472722,-1.96448,0.43609,0.11921,-0.110237,0.0222317,-0.0105593,0.018805,0.0110163,0.163871,0.0308314,-0.00165669,-0.855707,-0.638023,-0.886358,0.795621,-13.5385,6.66033,-0.0227052,0.00805044,-1.20761,-0.25977,1.64787,1.80198,0.315092,-0.0242166,0.327939,0.060375,0.0464699,-1.96509,0.433419,0.118804,-0.110091,0.111371,0.0176059,-0.022486,0.00805581,0.226133,0.0217978,-0.000951947,9.60613,7.74152,-17.1753,4.39517,4.01652,3.38662,-0.07955,-1.5675,-37.5414,-1.10991,25.0864,2.8717,0.447622,-0.00996382,
0.329061,0.0603112,0.0474191,-1.96468,0.438059,0.121068,-0.110169,0.0215098,-0.0100093,0.0179879,0.0114172,0.143569,0.040814,-0.00170681,-0.451198,0.343772,-0.510641,0.250545,-12.6885,6.23911,-0.0313215,0.0959498,-1.21372,-0.250566,1.72666,1.14013,0.655021,-0.0190683,0.327939,0.060375,0.0464699,-1.96509,0.433419,0.118804,-0.110091,0.111371,0.0176059,-0.022486,0.00805581,0.226133,0.0217978,-0.000951947,0,0,0,0,0,0,0,-1.5675,-37.5414,-1.10991,25.0864,2.8717,0.447622,-0.00996382,
0.329183,0.0602386,0.0475102,-1.96456,0.438463,0.121771,-0.110184,0.0202578,-0.00982162,0.0166681,0.0119195,0.12495,0.0502421,-0.00174436,-0.782472,0.117277,-0.82489,0.313975,-11.6374,5.89258,-0.0234672,0.0512721,-1.23579,-0.301868,1.78725,0.178921,1.20265,-0.0176659,0.327939,0.060375,0.0464699,-1.96509,0.433419,0.118804,-0.110091,0.111371,0.0176059,-0.022486,0.00805581,0.226133,0.0217978,-0.000951947,0,0,0,0,0,0,0,-1.5675,-37.5414,-1.10991,25.0864,2.8717,0.447622,-0.00996382,
0.329283,0.0601591,0.0475793,-1.96445,0.438799,0.122521,-0.110199,0.0186963,-0.00984499,0.0150614,0.0124639,0.108357,0.0589331,-0.00177065,-0.975938,-0.0146025,-1.00422,0.340252,-10.3704,5.43184,-0.016433,0.0512721,-1.23579,-0.301868,1.78725,0.178921,1.20265,-0.0176659,0.327939,0.060375,0.0464699,-1.96509,0.433419,0.118804,-0.110091,0.111371,0.0176059,-0.022486,0.00805581,0.226133,0.0217978,-0.000951947,0,0,0,0,0,0,0,-1.5675,-37.5414,-1.10991,25.0864,2.8717,0.447622,-0.00996382,
0.329364,0.0600748,0.0476303,-1.96433,0.439086,0.123307,-0.110214,0.0169868,-0.00998424,0.0133245,0.0130111,0.0938523,0.0667989,-0.00178761,-1.06843,-0.0870364,-1.08556,0.341981,-9.0654,4.91612,-0.0106017,0.0523779,-1.24406,-0.303144,1.77302,0.15304,1.20744,-0.0175714,0.328959,0.0599772,0.0477241,-1.96493,0.441482,0.118729,-0.110095,-0.000538786,-0.0191131,0.0703657,0.00062766,0.180758,0.00105491,-0.000265288,-13.9887,-4.58987,11.6065,-0.928519,-5.67188,-2.59287,0.0858324,-1.11126,-34.4945,-0.610033,26.3043,2.77374,1.27617,-0.0163725,
0.329861,0.0594167,0.0484802,-1.96439,0.444808,0.121112,-0.110169,0.0166094,-0.0106451,0.0129139,0.0135202,0.0849005,0.0706421,-0.00180976,-0.235876,-0.413025,-0.25658,0.318156,-5.59485,2.40202,-0.0138415,0.0523779,-1.24406,-0.303144,1.77302,0.15304,1.20744,-0.0175714,0.328959,0.0599772,0.0477241,-1.96493,0.441482,0.118729,-0.110095,-0.000538786,-0.0191131,0.0703657,0.00062766,0.180758,0.00105491,-0.000265288,0,0,0,0,0,0,0,-1.11126,-34.4945,-0.610033,26.3043,2.77374,1.27617,-0.0163725,
0.32996,0.0593118,0.0485489,-1.96426,0.445135,0.121857,-0.110184,0.0157629,-0.0111373,0.0120486,0.0140006,0.076098,0.0751378,-0.00182369,-0.529081,-0.307609,-0.540823,0.300295,-5.50158,2.80978,-0.00870456,0.0523779,-1.24406,-0.303144,1.77302,0.15304,1.20744,-0.0175714,0.328959,0.0599772,0.0477241,-1.96493,0.441482,0.118729,-0.110095,-0.000538786,-0.0191131,0.0703657,0.00062766,0.180758,0.00105491,-0.000265288,0,0,0,0,0,0,0,-1.11126,-34.4945,-0.610033,26.3043,2.77374,1.27617,-0.0163725,
0.330041,0.0592082,0.0485998,-1.96413,0.445413,0.122644,-0.110199,0.0146344,-0.0115008,0.0109129,0.0144404,0.0678392,0.0798043,-0.00183061,-0.70532,-0.227216,-0.709815,0.274826,-5.16173,2.91658,-0.00433058,0.0523779,-1.24406,-0.303144,1.77302,0.15304,1.20744,-0.0175714,0.328959,0.0599772,0.0477241,-1.96493,0.441482,0.118729,-0.110095,-0.000538786,-0.0191131,0.0703657,0.00062766,0.180758,0.00105491,-0.000265288,0,0,0,0,0,0,0,-1.11126,-34.4945,-0.610033,26.3043,2.77374,1.27617,-0.0163725,
0.330107,0.0591056,0.0486362,-1.964,0.445655,0.123465,-0.110214,0.0133609,-0.0117668,0.00964101,0.014834,0.0603177,0.0843451,-0.00183204,-0.795946,-0.166265,-0.794945,0.246036,-4.70098,2.83802,-0.000893561,0.0490619,-1.22675,-0.308617,1.75299,0.140693,1.19788,-0.0174701,0.33014,0.0600727,0.0483493,-1.96423,0.445177,0.120601,-0.110096,0.0545655,-0.00125166,0.00219548,0.0195247,0.0541324,0.110704,-0.000370326,6.88804,2.23268,-8.52127,2.36213,-15.8282,13.7062,-0.0131297,-1.46435,-37.1684,-1.23686,25.7092,2.01019,1.32287,-0.0026396,
0.330772,0.0597084,0.0488151,-1.96359,0.446688,0.124882,-0.110177,0.0125509,-0.0116262,0.00881196,0.0150908,0.0540604,0.0889131,-0.00184136,-0.506218,0.0878639,-0.518157,0.160484,-3.9108,2.85497,-0.00582277,0.0490619,-1.22675,-0.308617,1.75299,0.140693,1.19788,-0.0174701,0.33014,0.0600727,0.0483493,-1.96423,0.445177,0.120601,-0.110096,0.0545655,-0.00125166,0.00219548,0.0195247,0.0541324,0.110704,-0.000370326,0,0,0,0,0,0,0,-1.46435,-37.1684,-1.23686,25.7092,2.01019,1.32287,-0.0026396,
0.330832,0.0596171,0.0488447,-1.96346,0.446897,0.125748,-0.110191,0.011532,-0.0115852,0.00778943,0.0153326,0.0484607,0.092773,-0.0018417,-0.636815,0.0256622,-0.639081,0.151163,-3.49982,2.41243,-0.000214066,0.0490619,-1.22675,-0.308617,1.75299,0.140693,1.19788,-0.0174701,0.33014,0.0600727,0.0483493,-1.96423,0.445177,0.120601,-0.110096,0.0545655,-0.00125166,0.00219548,0.0195247,0.0541324,0.110704,-0.000370326,0,0,0,0,0,0,0,-1.46435,-37.1684,-1.23686,25.7092,2.01019,1.32287,-0.0026396,
0.33088,0.0595239,0.0488631,-1.96333,0.447086,0.126622,-0.110206,0.0104264,-0.0115984,0.00668994,0.0155549,0.0435021,0.0960655,-0.00183657,-0.690993,-0.00825304,-0.687183,0.138886,-3.09909,2.05781,0.00320683,0.0490619,-1.22675,-0.308617,1.75299,0.140693,1.19788,-0.0174701,0.33014,0.0600727,0.0483493,-1.96423,0.445177,0.120601,-0.110096,0.0545655,-0.00125166,0.00219548,0.0195247,0.0541324,0.110704,-0.000370326,0,0,0,0,0,0,0,-1.46435,-37.1684,-1.23686,25.7092,2.01019,1.32287,-0.0026396,
0.330919,0.0594295,0.0488725,-1.9632,0.44726,0.127503,-0.11022,0.00931341,-0.0116382,0.00558887,0.0157545,0.0391519,0.0988825,-0.00182827,-0.695634,-0.0248801,-0.688168,0.124756,-2.71887,1.76063,0.00518735,0.0503304,-1.21481,-0.306841,1.72301,0.138475,1.17667,-0.0173467,0.330868,0.0596516,0.0489691,-1.96377,0.446967,0.124496,-0.110098,0.00968298,-0.00480128,0.0243163,0.0218809,0.0358387,0.119569,0.000300221,-5.61032,-0.443703,2.7651,0.294526,-2.28671,1.10805,0.0838184,-1.38897,-34.7206,-0.986925,25.9552,2.29766,1.50139,-0.0301054,
0.331246,0.0592282,0.0491953,-1.96309,0.44811,0.129033,-0.110174,0.00857518,-0.0116586,0.00485517,0.0159528,0.0359721,0.101402,-0.00182513,-0.46139,-0.0127331,-0.458564,0.123943,-1.9874,1.57495,0.00196123,0.0503304,-1.21481,-0.306841,1.72301,0.138475,1.17667,-0.0173467,0.330868,0.0596516,0.0489691,-1.96377,0.446967,0.124496,-0.110098,0.00968298,-0.00480128,0.0243163,0.0218809,0.0358387,0.119569,0.000300221,0,0,0,0,0,0,0,-1.38897,-34.7206,-0.986925,25.9552,2.29766,1.50139,-0.0301054,
0.331282,0.059133,0.0492022,-1.96296,0.448282,0.129925,-0.110188,0.00776539,-0.0117069,0.00405634,0.0161133,0.0330618,0.103415,-0.00181797,-0.506121,-0.0302077,-0.499265,0.100352,-1.81894,1.25807,0.0044799,0.0503304,-1.21481,-0.306841,1.72301,0.138475,1.17667,-0.0173467,0.330868,0.0596516,0.0489691,-1.96377,0.446967,0.124496,-0.110098,0.00968298,-0.00480128,0.0243163,0.0218809,0.0358387,0.119569,0.000300221,0,0,0,0,0,0,0,-1.38897,-34.7206,-0.986925,25.9552,2.29766,1.50139,-0.0301054,
0.331312,0.0590371,0.0492024,-1.96283,0.448441,0.130817,-0.110203,0.00694662,-0.0117628,0.00325206,0.0162423,0.0304388,0.105045,-0.00180868,-0.511729,-0.0349413,-0.502674,0.0805789,-1.63935,1.01842,0.005807,0.0503304,-1.21481,-0.306841,1.72301,0.138475,1.17667,-0.0173467,0.330868,0.0596516,0.0489691,-1.96377,0.446967,0.124496,-0.110098,0.00968298,-0.00480128,0.0243163,0.0218809,0.0358387,0.119569,0.000300221,0,0,0,0,0,0,0,-1.38897,-34.7206,-0.986925,25.9552,2.29766,1.50139,-0.0301054,
0.331336,0.0589409,0.0491975,-1.96269,0.448591,0.131711,-0.110217,0.00615759,-0.0118155,0.00247916,0.0163442,0.0281052,0.106371,-0.00179846,-0.493148,-0.0329125,-0.483067,0.0636937,-1.4585,0.828751,0.00638763,0.0503304,-1.21481,-0.306841,1.72301,0.138475,1.17667,-0.0173467,0.330868,0.0596516,0.0489691,-1.96377,0.446967,0.124496,-0.110098,0.00968298,-0.00480128,0.0243163,0.0218809,0.0358387,0.119569,0.000300221,0,0,0,0,0,0,0,-1.38897,-34.7206,-0.986925,25.9552,2.29766,1.50139,-0.0301054,
0.331731,0.059078,0.0495328,-1.96237,0.448551,0.133738,-0.110178,0.00576673,-0.0119857,0.00208895,0.0165509,0.0264992,0.107796,-0.00179836,-0.244285,-0.106377,-0.243881,0.129222,-1.00378,0.890493,5.89842e-05,0.0507834,-1.18783,-0.30685,1.69259,0.139517,1.15298,-0.0172154,0.331431,0.0595937,0.0493872,-1.96308,0.447747,0.128982,-0.110103,0.0224361,-0.0139391,0.00551713,0.0168924,0.0141033,0.139944,-0.000718286,1.59414,-1.14222,-2.3499,-0.62356,-2.71692,2.54695,-0.127313,-1.03589,-36.4424,-0.76079,26.1575,2.40112,1.42174,0.0101778,
0.331758,0.0589776,0.0495305,-1.96223,0.448706,0.134639,-0.110192,0.00528391,-0.0120974,0.0016139,0.0166812,0.0250576,0.108754,-0.00179312,-0.30176,-0.0698342,-0.296906,0.0814236,-0.900971,0.599232,0.00327291,0.0507834,-1.18783,-0.30685,1.69259,0.139517,1.15298,-0.0172154,0.331431,0.0595937,0.0493872,-1.96308,0.447747,0.128982,-0.110103,0.0224361,-0.0139391,0.00551713,0.0168924,0.0141033,0.139944,-0.000718286,0,0,0,0,0,0,0,-1.03589,-36.4424,-0.76079,26.1575,2.40112,1.42174,0.0101778,
0.33178,0.0588782,0.0495233,-1.9621,0.448854,0.135535,-0.110206,0.00476892,-0.0121627,0.00111042,0.0167561,0.0237497,0.109398,-0.00178519,-0.321874,-0.0408171,-0.314674,0.0467963,-0.817471,0.402459,0.00495688,0.0507834,-1.18783,-0.30685,1.69259,0.139517,1.15298,-0.0172154,0.331431,0.0595937,0.0493872,-1.96308,0.447747,0.128982,-0.110103,0.0224361,-0.0139391,0.00551713,0.0168924,0.0141033,0.139944,-0.000718286,0,0,0,0,0,0,0,-1.03589,-36.4424,-0.76079,26.1575,2.40112,1.42174,0.0101778,
0.331797,0.0587798,0.0495123,-1.96196,0.448996,0.136427,-0.11022,0.00425841,-0.0121922,0.00061315,0.0167909,0.0225631,0.109822,-0.00177605,-0.319064,-0.0184125,-0.310792,0.0217648,-0.741616,0.264529,0.00571157,0.0507834,-1.18783,-0.30685,1.69259,0.139517,1.15298,-0.0172154,0.331431,0.0595937,0.0493872,-1.96308,0.447747,0.128982,-0.110103,0.0224361,-0.0139391,0.00551713,0.0168924,0.0141033,0.139944,-0.000718286,0,0,0,0,0,0,0,-1.03589,-36.4424,-0.76079,26.1575,2.40112,1.42174,0.0101778,
0.331758,0.0589776,0.0495305,-1.96223,0.448706,0.134639,-0.110192,0.00407726,-0.0122626,0.00043326,0.0168732,0.0219088,0.110375,-0.00177528,-0.11322,-0.0440214,-0.112432,0.0514266,-0.408959,0.345988,0.000484634,0.0511893,-1.16401,-0.305139,1.65877,0.144646,1.12379,-0.0170672,0.331744,0.0593169,0.0494915,-1.96253,0.44774,0.134346,-0.1101,0.00746524,0.00794743,0.00534038,0.0251896,-0.0100563,0.158628,-0.000812115,-1.87135,2.73581,-0.0220929,1.03714,-3.01995,2.33549,-0.0117286,-0.373349,-35.3435,0.0644055,25.733,2.76184,1.20293,-0.00996382,
0.33178,0.0588782,0.0495233,-1.9621,0.448854,0.135535,-0.110206,0.0038036,-0.0122949,0.000165908,0.0169097,0.0212306,0.110695,-0.00177092,-0.171042,-0.0201669,-0.167095,0.0227987,-0.423861,0.199863,0.00272627,0.0511893,-1.16401,-0.305139,1.65877,0.144646,1.12379,-0.0170672,0.331744,0.0593169,0.0494915,-1.96253,0.44774,0.134346,-0.1101,0.00746524,0.00794743,0.00534038,0.0251896,-0.0100563,0.158628,-0.000812115,0,0,0,0,0,0,0,-0.373349,-35.3435,0.0644055,25.733,2.76184,1.20293,-0.00996382,
0.331797,0.0587798,0.0495123,-1.96196,0.448996,0.136427,-0.11022,0.00348616,-0.0122979,-0.000142458,0.0169138,0.0205478,0.110859,-0.00176463,-0.198399,-0.00189232,-0.192729,0.00256675,-0.426729,0.102453,0.00392708,0.0511893,-1.16401,-0.305139,1.65877,0.144646,1.12379,-0.0170672,0.331744,0.0593169,0.0494915,-1.96253,0.44774,0.134346,-0.1101,0.00746524,0.00794743,0.00534038,0.0251896,-0.0100563,0.158628,-0.000812115,0,0,0,0,0,0,0,-0.373349,-35.3435,0.0644055,25.733,2.76184,1.20293,-0.00996382,
0.331812,0.0586821,0.0494983,-1.96183,0.449134,0.137316,-0.110234,0.00315614,-0.0122793,-0.000462063,0.0168951,0.0198805,0.110913,-0.00175746,-0.206258,0.0116241,-0.199753,-0.0116495,-0.417049,0.0341227,0.00448665,0.0511893,-1.16401,-0.305139,1.65877,0.144646,1.12379,-0.0170672,0.331744,0.0593169,0.0494915,-1.96253,0.44774,0.134346,-0.1101,0.00746524,0.00794743,0.00534038,0.0251896,-0.0100563,0.158628,-0.000812115,0,0,0,0,0,0,0,-0.373349,-35.3435,0.0644055,25.733,2.76184,1.20293,-0.00996382,
0.331857,0.0590928,0.0494534,-1.96189,0.44809,0.139482,-0.110174,0.00275945,-0.0116224,-0.000859467,0.0166635,0.0184627,0.111975,-0.0017526,-0.247934,0.410541,-0.248378,-0.144753,-0.886174,0.663704,0.00303488,0.0529765,-1.1302,-0.302903,1.62616,0.150882,1.09506,-0.01693,0.331733,0.0593071,0.0494321,-1.96187,0.447664,0.139917,-0.110101,-0.00122338,-0.0109567,-0.00504249,0.0203274,-0.00420715,0.157771,-0.000152101,-1.08608,-2.36301,-1.29786,-0.607769,0.731142,-0.107115,0.0825017,0.487552,-36.2441,0.711073,26.1298,2.80487,1.03722,-0.00996382,
0.331864,0.0590153,0.0494318,-1.96176,0.448198,0.140392,-0.110188,0.00238593,-0.0112359,-0.00122796,0.0164972,0.0174594,0.112319,-0.00174537,-0.233451,0.241611,-0.230305,-0.10395,-0.627057,0.214757,0.00451819,0.0529765,-1.1302,-0.302903,1.62616,0.150882,1.09506,-0.01693,0.331733,0.0593071,0.0494321,-1.96187,0.447664,0.139917,-0.110101,-0.00122338,-0.0109567,-0.00504249,0.0203274,-0.00420715,0.157771,-0.000152101,0,0,0,0,0,0,0,0.487552,-36.2441,0.711073,26.1298,2.80487,1.03722,-0.00996382,
0.331869,0.0589339,0.049409,-1.96163,0.448309,0.141288,-0.110202,0.00205206,-0.0110229,-0.00155393,0.0163787,0.016745,0.112246,-0.00173741,-0.208666,0.133076,-0.203737,-0.0740924,-0.446458,-0.0454908,0.00497224,0.0529765,-1.1302,-0.302903,1.62616,0.150882,1.09506,-0.01693,0.331733,0.0593071,0.0494321,-1.96187,0.447664,0.139917,-0.110101,-0.00122338,-0.0109567,-0.00504249,0.0203274,-0.00420715,0.157771,-0.000152101,0,0,0,0,0,0,0,0.487552,-36.2441,0.711073,26.1298,2.80487,1.03722,-0.00996382,
0.33167,0.0588345,0.0492265,-1.96114,0.448017,0.145056,-0.110169,0.0014,-0.0112035,-0.0021876,0.0165994,0.0159454,0.113341,-0.00172752,-0.40754,-0.112848,-0.396042,0.137937,-0.49975,0.684342,0.00618203,0.0529765,-1.1302,-0.302903,1.62616,0.150882,1.09506,-0.01693,0.331733,0.0593071,0.0494321,-1.96187,0.447664,0.139917,-0.110101,-0.00122338,-0.0109567,-0.00504249,0.0203274,-0.00420715,0.157771,-0.000152101,0,0,0,0,0,0,0,0.487552,-36.2441,0.711073,26.1298,2.80487,1.03722,-0.00996382,
0.331663,0.0587397,0.0491907,-1.961,0.448125,0.145976,-0.110183,0.000927315,-0.0113347,-0.00264423,0.0167146,0.0154616,0.113655,-0.0017181,-0.295428,-0.0820022,-0.285394,0.0719953,-0.302381,0.196234,0.00589122,0.0533941,-1.1014,-0.301277,1.59483,0.156607,1.06638,-0.0167958,0.331642,0.0592039,0.0491745,-1.96128,0.4476,0.145391,-0.110096,-0.000961107,0.00323297,-0.00536287,0.021142,0.000698034,0.162057,0.000199953,0.0327838,1.77371,-0.0400469,0.101825,0.613148,0.535764,0.0440068,0.741459,-35.7958,1.03639,25.6061,2.74353,0.951163,-0.0429228,
0.331657,0.0586455,0.0491568,-1.96087,0.448237,0.146878,-0.110196,0.000594078,-0.0114229,-0.00296385,0.0167555,0.0151835,0.11347,-0.00170959,-0.208273,-0.0551538,-0.199764,0.0256079,-0.173825,-0.115821,0.00531824,0.0533941,-1.1014,-0.301277,1.59483,0.156607,1.06638,-0.0167958,0.331642,0.0592039,0.0491745,-1.96128,0.4476,0.145391,-0.110096,-0.000961107,0.00323297,-0.00536287,0.021142,0.000698034,0.162057,0.000199953,0,0,0,0,0,0,0,0.741459,-35.7958,1.03639,25.6061,2.74353,0.951163,-0.0429228,
0.331652,0.058552,0.0491244,-1.96073,0.448353,0.147765,-0.11021,0.000367043,-0.0114756,-0.00317949,0.0167451,0.0150397,0.112973,-0.00170212,-0.141896,-0.0328927,-0.134774,-0.00651898,-0.0898776,-0.310186,0.0046699,0.0533941,-1.1014,-0.301277,1.59483,0.156607,1.06638,-0.0167958,0.331642,0.0592039,0.0491745,-1.96128,0.4476,0.145391,-0.110096,-0.000961107,0.00323297,-0.00536287,0.021142,0.000698034,0.162057,0.000199953,0,0,0,0,0,0,0,0.741459,-35.7958,1.03639,25.6061,2.74353,0.951163,-0.0429228,
0.331575,0.0589435,0.0489639,-1.96063,0.447976,0.150511,-0.110164,2.92346e-05,-0.011017,-0.00351178,0.0165843,0.0144471,0.113342,-0.00169406,-0.21113,0.286629,-0.20768,-0.100509,-0.370384,0.230367,0.0050365,0.0533941,-1.1014,-0.301277,1.59483,0.156607,1.06638,-0.0167958,0.331642,0.0592039,0.0491745,-1.96128,0.4476,0.145391,-0.110096,-0.000961107,0.00323297,-0.00536287,0.021142,0.000698034,0.162057,0.000199953,0,0,0,0,0,0,0,0.741459,-35.7958,1.03639,25.6061,2.74353,0.951163,-0.0429228,
0.331566,0.0588658,0.0489273,-1.9605,0.448078,0.151404,-0.110178,-0.00018939,-0.0107551,-0.00372447,0.0164438,0.0141285,0.11301,-0.00168671,-0.13664,0.163661,-0.132929,-0.0878202,-0.199129,-0.207416,0.00459327,0.0527548,-1.06653,-0.301258,1.56182,0.161781,1.03708,-0.0166508,0.331577,0.0592201,0.0489359,-1.96062,0.447569,0.151097,-0.110101,0.00133152,-0.00591882,-0.00381587,0.0142283,-0.00614977,0.162542,-0.000805248,0.286578,-1.14397,0.193375,-0.864211,-0.855976,0.060588,-0.12565,0.511356,-36.3194,0.687269,26.2567,2.49267,1.18279,-0.0026396,
0.33156,0.0587853,0.0488926,-1.96037,0.448186,0.152279,-0.110191,-0.000316559,-0.0106156,-0.00384595,0.0163202,0.014001,0.112283,-0.00168033,-0.0794807,0.0872275,-0.0759281,-0.0772111,-0.0796556,-0.45478,0.00398617,0.0527548,-1.06653,-0.301258,1.56182,0.161781,1.03708,-0.0166508,0.331577,0.0592201,0.0489359,-1.96062,0.447569,0.151097,-0.110101,0.00133152,-0.00591882,-0.00381587,0.0142283,-0.00614977,0.162542,-0.000805248,0,0,0,0,0,0,0,0.511356,-36.3194,0.687269,26.2567,2.49267,1.18279,-0.0026396,
0.331555,0.058703,0.0488597,-1.96025,0.448298,0.15314,-0.110204,-0.000375999,-0.0105501,-0.00390021,0.0162105,0.0140044,0.111349,-0.00167493,-0.0371499,0.0408948,-0.0339126,-0.0686116,0.00209072,-0.583187,0.00337826,0.0527548,-1.06653,-0.301258,1.56182,0.161781,1.03708,-0.0166508,0.331577,0.0592201,0.0489359,-1.96062,0.447569,0.151097,-0.110101,0.00133152,-0.00591882,-0.00381587,0.0142283,-0.00614977,0.162542,-0.000805248,0,0,0,0,0,0,0,0.511356,-36.3194,0.687269,26.2567,2.49267,1.18279,-0.0026396,
0.331543,0.0588749,0.0487575,-1.95997,0.44789,0.156042,-0.110169,-0.000479685,-0.010421,-0.00400354,0.0161758,0.013761,0.111328,-0.00167288,-0.0648038,0.0807108,-0.0645812,-0.0216523,-0.152115,-0.0131721,0.00127981,0.0527548,-1.06653,-0.301258,1.56182,0.161781,1.03708,-0.0166508,0.331577,0.0592201,0.0489359,-1.96062,0.447569,0.151097,-0.110101,0.00133152,-0.00591882,-0.00381587,0.0142283,-0.00614977,0.162542,-0.000805248,0,0,0,0,0,0,0,0.511356,-36.3194,0.687269,26.2567,2.49267,1.18279,-0.0026396,
0.331537,0.0587937,0.0487235,-1.95984,0.448,0.156909,-0.110183,-0.000530569,-0.0103686,-0.00405168,0.0161196,0.0137671,0.110738,-0.00166934,-0.0318021,0.0327558,-0.0300877,-0.0351566,0.00383958,-0.369036,0.00221085,0.0521617,-1.03668,-0.301096,1.5314,0.166935,1.00898,-0.0165197,0.331573,0.059187,0.048763,-1.96005,0.447604,0.156596,-0.110097,0.00287049,0.00449126,0.00207698,0.0186732,0.000753549,0.153834,0.00105452,0.192371,1.30126,0.736607,0.555612,0.862915,-1.08855,0.232472,0.182071,-36.0179,0.286573,25.8798,2.27295,1.14983,-0.0365141,
0.331533,0.0587111,0.0486909,-1.95972,0.448116,0.157759,-0.110196,-0.000538067,-0.010358,-0.00405548,0.0160499,0.0139153,0.109839,-0.00166534,-0.00468663,0.00659997,-0.00237169,-0.0435434,0.0926236,-0.562035,0.00250127,0.0521617,-1.03668,-0.301096,1.5314,0.166935,1.00898,-0.0165197,0.331573,0.059187,0.048763,-1.96005,0.447604,0.156596,-0.110097,0.00287049,0.00449126,0.00207698,0.0186732,0.000753549,0.153834,0.00105452,0,0,0,0,0,0,0,0.182071,-36.0179,0.286573,25.8798,2.27295,1.14983,-0.0365141,
0.331529,0.0586279,0.0486597,-1.95959,0.448236,0.158596,-0.110209,-0.00051276,-0.0103679,-0.00402622,0.0159724,0.0141393,0.108791,-0.00166138,0.015817,-0.00619508,0.0182879,-0.048413,0.139958,-0.654534,0.00247479,0.0521617,-1.03668,-0.301096,1.5314,0.166935,1.00898,-0.0165197,0.331573,0.059187,0.048763,-1.96005,0.447604,0.156596,-0.110097,0.00287049,0.00449126,0.00207698,0.0186732,0.000753549,0.153834,0.00105452,0,0,0,0,0,0,0,0.182071,-36.0179,0.286573,25.8798,2.27295,1.14983,-0.0365141,
0.331614,0.0589724,0.0486584,-1.95945,0.44808,0.161348,-0.110166,-0.000364577,-0.00993962,-0.00388637,0.015757,0.0142524,0.108305,-0.0016613,0.0926144,0.267692,0.0874023,-0.134665,0.0706717,-0.304192,5.12015e-05,0.0521617,-1.03668,-0.301096,1.5314,0.166935,1.00898,-0.0165197,0.331573,0.059187,0.048763,-1.96005,0.447604,0.156596,-0.110097,0.00287049,0.00449126,0.00207698,0.0186732,0.000753549,0.153834,0.00105452,0,0,0,0,0,0,0,0.182071,-36.0179,0.286573,25.8798,2.27295,1.14983,-0.0365141,
0.331616,0.0589019,0.0486314,-1.95933,0.448202,0.162177,-0.110179,-0.000259658,-0.00971476,-0.00378444,0.0155884,0.0144565,0.107383,-0.00165898,0.0655745,0.140538,0.0637069,-0.105338,0.127599,-0.575859,0.00145048,0.0527099,-1.00863,-0.300001,1.50344,0.17202,0.983913,-0.0163976,0.331591,0.0591644,0.048662,-1.95952,0.447617,0.161494,-0.1101,0.000318361,-0.00374943,-0.00242634,0.0119126,0.000848622,0.153107,-0.000787548,-0.319016,-1.03009,-0.562915,-0.84508,0.0118842,-0.0908736,-0.230259,0.00751081,-35.8949,0.26277,26.1813,2.20611,1.39519,-0.00996382,
0.331617,0.0588282,0.0486043,-1.95921,0.448328,0.162992,-0.110192,-0.00017859,-0.00961492,-0.00370328,0.0154556,0.014704,0.10627,-0.00165568,0.0506672,0.062399,0.0507248,-0.083014,0.154649,-0.695561,0.00206006,0.0527099,-1.00863,-0.300001,1.50344,0.17202,0.983913,-0.0163976,0.331591,0.0591644,0.048662,-1.95952,0.447617,0.161494,-0.1101,0.000318361,-0.00374943,-0.00242634,0.0119126,0.000848622,0.153107,-0.000787548,0,0,0,0,0,0,0,0.00751081,-35.8949,0.26277,26.1813,2.20611,1.39519,-0.00996382,
0.331618,0.0587523,0.0485775,-1.95909,0.448456,0.163795,-0.110206,-0.000110998,-0.00958935,-0.00363386,0.0153494,0.0149666,0.105105,-0.00165207,0.042245,0.0159815,0.0433912,-0.0663914,0.164185,-0.728182,0.00225339,0.0527099,-1.00863,-0.300001,1.50344,0.17202,0.983913,-0.0163976,0.331591,0.0591644,0.048662,-1.95952,0.447617,0.161494,-0.1101,0.000318361,-0.00374943,-0.00242634,0.0119126,0.000848622,0.153107,-0.000787548,0,0,0,0,0,0,0,0.00751081,-35.8949,0.26277,26.1813,2.20611,1.39519,-0.00996382,
0.331567,0.0588756,0.0484949,-1.95892,0.44804,0.166135,-0.110167,-0.000222109,-0.00944402,-0.00374349,0.0152989,0.0148089,0.105015,-0.00164896,-0.0694443,0.090831,-0.0685224,-0.0315477,-0.0986159,-0.0565617,0.00194494,0.0527099,-1.00863,-0.300001,1.50344,0.17202,0.983913,-0.0163976,0.331591,0.0591644,0.048662,-1.95952,0.447617,0.161494,-0.1101,0.000318361,-0.00374943,-0.00242634,0.0119126,0.000848622,0.153107,-0.000787548,0,0,0,0,0,0,0,0.00751081,-35.8949,0.26277,26.1813,2.20611,1.39519,-0.00996382,
0.331563,0.0588019,0.0484625,-1.9588,0.44816,0.166952,-0.11018,-0.000285393,-0.00939883,-0.00380332,0.0152449,0.0148469,0.104431,-0.00164491,-0.0395527,0.0282406,-0.0373945,-0.0337299,0.0237586,-0.36462,0.0025353,0.0527099,-1.00863,-0.300001,1.50344,0.17202,0.983913,-0.0163976,0.331591,0.0591644,0.048662,-1.95952,0.447617,0.161494,-0.1101,0.000318361,-0.00374943,-0.00242634,0.0119126,0.000848622,0.153107,-0.000787548,0,0,0,0,0,0,0,0.00751081,-35.8949,0.26277,26.1813,2.20611,1.39519,-0.00996382,
0.331559,0.0587263,0.0484313,-1.95868,0.448285,0.167754,-0.110193,-0.000308896,-0.00940945,-0.00382262,0.0151891,0.0149986,0.103588,-0.00164069,-0.014689,-0.00663318,-0.0120589,-0.0348905,0.0948233,-0.526986,0.00263739,0.0527731,-0.981234,-0.299536,1.47674,0.177208,0.959247,-0.0162792,0.33159,0.059172,0.0485833,-1.95905,0.447607,0.166398,-0.110103,0.00114016,0.000329772,-0.00756895,0.014761,-0.000437983,0.145208,0.000489907,0.102725,0.5099,-0.642826,0.356052,-0.160826,-0.98727,0.159682,0.0313145,-36.0933,0.139784,26.106,2.32238,1.35583,-0.0163725,
0.331526,0.0589342,0.0483766,-1.95847,0.448,0.17093,-0.110168,-0.000494133,-0.0091447,-0.00400479,0.0150633,0.0147064,0.103338,-0.00163488,-0.115773,0.165466,-0.113857,-0.0786543,-0.182621,-0.156214,0.00362651,0.0527731,-0.981234,-0.299536,1.47674,0.177208,0.959247,-0.0162792,0.33159,0.059172,0.0485833,-1.95905,0.447607,0.166398,-0.110103,0.00114016,0.000329772,-0.00756895,0.014761,-0.000437983,0.145208,0.000489907,0,0,0,0,0,0,0,0.0313145,-36.0933,0.139784,26.106,2.32238,1.35583,-0.0163725,
0.331518,0.0588658,0.0483408,-1.95835,0.448116,0.171729,-0.110181,-0.00059222,-0.0090254,-0.00409896,0.0149604,0.0146685,0.10263,-0.00162936,-0.0613043,0.0745647,-0.058853,-0.0642922,-0.0236783,-0.442721,0.00345157,0.0527731,-0.981234,-0.299536,1.47674,0.177208,0.959247,-0.0162792,0.33159,0.059172,0.0485833,-1.95905,0.447607,0.166398,-0.110103,0.00114016,0.000329772,-0.00756895,0.014761,-0.000437983,0.145208,0.000489907,0,0,0,0,0,0,0,0.0313145,-36.0933,0.139784,26.106,2.32238,1.35583,-0.0163725,
0.331512,0.0587949,0.0483069,-1.95824,0.448238,0.172512,-0.110194,-0.000624674,-0.00899313,-0.00412739,0.0148747,0.0147906,0.101688,-0.00162447,-0.0202837,0.0201646,-0.0177743,-0.0535654,0.0763267,-0.589004,0.0030584,0.0527731,-0.981234,-0.299536,1.47674,0.177208,0.959247,-0.0162792,0.33159,0.059172,0.0485833,-1.95905,0.447607,0.166398,-0.110103,0.00114016,0.000329772,-0.00756895,0.014761,-0.000437983,0.145208,0.000489907,0,0,0,0,0,0,0,0.0313145,-36.0933,0.139784,26.106,2.32238,1.35583,-0.0163725,
0.331507,0.0587223,0.0482746,-1.95812,0.448365,0.173284,-0.110206,-0.000610066,-0.00901029,-0.004109,0.0148015,0.0150089,0.100647,-0.00162028,0.00913014,-0.0107256,0.0114967,-0.0457325,0.136391,-0.650433,0.00261812,0.0529756,-0.954324,-0.298885,1.45047,0.182724,0.93481,-0.0161616,0.331577,0.0591748,0.048494,-1.95871,0.447583,0.171381,-0.110097,-0.000878474,-0.000491049,-0.00819376,0.0089967,0.000582238,0.145188,0.000349414,-0.25233,-0.102603,-0.0781009,-0.720539,0.127528,-0.00260149,-0.0175617,0.25745,-36.0933,0.389723,26.4035,2.46887,1.47484,-0.0429228,
0.331488,0.0589678,0.0482635,-1.95817,0.447944,0.175786,-0.11016,-0.000803157,-0.00869187,-0.00429974,0.0146423,0.0146185,0.100415,-0.00161454,-0.120682,0.199016,-0.119213,-0.0995226,-0.244001,-0.145026,0.0035877,0.0529756,-0.954324,-0.298885,1.45047,0.182724,0.93481,-0.0161616,0.331577,0.0591748,0.048494,-1.95871,0.447583,0.171381,-0.110097,-0.000878474,-0.000491049,-0.00819376,0.0089967,0.000582238,0.145188,0.000349414,0,0,0,0,0,0,0,0.25745,-36.0933,0.389723,26.4035,2.46887,1.47484,-0.0429228,
0.331478,0.0589042,0.0482256,-1.95806,0.448058,0.176563,-0.110173,-0.000892566,-0.00854453,-0.00438624,0.0145254,0.0145386,0.099749,-0.00160953,-0.0558806,0.0920829,-0.0540635,-0.0730485,-0.0498888,-0.416102,0.00313165,0.0529756,-0.954324,-0.298885,1.45047,0.182724,0.93481,-0.0161616,0.331577,0.0591748,0.048494,-1.95871,0.447583,0.171381,-0.110097,-0.000878474,-0.000491049,-0.00819376,0.0089967,0.000582238,0.145188,0.000349414,0,0,0,0,0,0,0,0.25745,-36.0933,0.389723,26.4035,2.46887,1.47484,-0.0429228,
0.33147,0.0588375,0.0481901,-1.95795,0.448179,0.177325,-0.110186,-0.000906588,-0.00850214,-0.00439738,0.0144384,0.0146584,0.0988614,-0.00160537,-0.00876377,0.026494,-0.00695975,-0.0543755,0.0748453,-0.554785,0.00260021,0.0529756,-0.954324,-0.298885,1.45047,0.182724,0.93481,-0.0161616,0.331577,0.0591748,0.048494,-1.95871,0.447583,0.171381,-0.110097,-0.000878474,-0.000491049,-0.00819376,0.0089967,0.000582238,0.145188,0.000349414,0,0,0,0,0,0,0,0.25745,-36.0933,0.389723,26.4035,2.46887,1.47484,-0.0429228,
0.331465,0.0587687,0.0481565,-1.95783,0.448306,0.178077,-0.110198,-0.000868338,-0.00852125,-0.00435648,0.0143721,0.0149007,0.0978799,-0.001602,0.0239063,-0.0119399,0.0255633,-0.0414542,0.151414,-0.613461,0.00210324,0.0520262,-0.927717,-0.299449,1.4251,0.187553,0.91096,-0.0160482,0.331543,0.0592011,0.0483799,-1.95837,0.447574,0.176276,-0.110102,0.00113461,-0.000333876,-0.00367608,0.0157705,0.00187914,0.124488,-0.00107058,0.251635,0.0196467,0.56471,0.846721,0.162113,-2.58745,-0.1775,0.360599,-36.4186,0.488905,26.4313,2.49267,1.36223,0.00376909,
0.331526,0.0589579,0.0482204,-1.95782,0.448074,0.180387,-0.110167,-0.000782663,-0.00838086,-0.0042745,0.0142792,0.0150771,0.0972778,-0.0016012,0.0535471,0.0877436,0.051237,-0.0580759,0.11029,-0.376307,0.000498617,0.0520262,-0.927717,-0.299449,1.4251,0.187553,0.91096,-0.0160482,0.331543,0.0592011,0.0483799,-1.95837,0.447574,0.176276,-0.110102,0.00113461,-0.000333876,-0.00367608,0.0157705,0.00187914,0.124488,-0.00107058,0,0,0,0,0,0,0,0.360599,-36.4186,0.488905,26.4313,2.49267,1.36223,0.00376909,
0.331523,0.0588923,0.0481898,-1.9577,0.448207,0.181131,-0.11018,-0.00069249,-0.00834311,-0.00418541,0.0142081,0.0153702,0.0964315,-0.00159942,0.0563578,0.0235902,0.0556789,-0.0443899,0.183202,-0.528911,0.00111622,0.0520262,-0.927717,-0.299449,1.4251,0.187553,0.91096,-0.0160482,0.331543,0.0592011,0.0483799,-1.95837,0.447574,0.176276,-0.110102,0.00113461,-0.000333876,-0.00367608,0.0157705,0.00187914,0.124488,-0.00107058,0,0,0,0,0,0,0,0.360599,-36.4186,0.488905,26.4313,2.49267,1.36223,0.00376909,
0.331521,0.0588247,0.0481601,-1.95759,0.448344,0.181865,-0.110193,-0.000598112,-0.00836436,-0.00409066,0.0141525,0.0157191,0.0954849,-0.00159728,0.0589863,-0.0132777,0.0592218,-0.0347444,0.218067,-0.591637,0.00133438,0.0520262,-0.927717,-0.299449,1.4251,0.187553,0.91096,-0.0160482,0.331543,0.0592011,0.0483799,-1.95837,0.447574,0.176276,-0.110102,0.00113461,-0.000333876,-0.00367608,0.0157705,0.00187914,0.124488,-0.00107058,0,0,0,0,0,0,0,0.360599,-36.4186,0.488905,26.4313,2.49267,1.36223,0.00376909,
0.33152,0.0587557,0.0481313,-1.95748,0.448484,0.18259,-0.110205,-0.000501728,-0.0084167,-0.00399307,0.0141073,0.0160864,0.0945203,-0.0015951,0.0602403,-0.0327147,0.0609893,-0.0282502,0.229558,-0.602847,0.00136229,0.0525859,-0.90403,-0.298212,1.40245,0.192879,0.889536,-0.0159448,0.331529,0.0591991,0.0481593,-1.95814,0.447572,0.180711,-0.1101,-0.000830745,-0.0013197,-0.0112507,0.00613789,0.00144462,0.124609,0.000302129,-0.245669,-0.123228,-0.946829,-1.20407,-0.0543151,0.0151877,0.171589,0.412174,-36.3432,0.588087,26.4551,2.46246,1.4547,-0.0163725,
0.331422,0.0590122,0.0479127,-1.95765,0.447935,0.184691,-0.110161,-0.000740761,-0.00807088,-0.00422784,0.0139001,0.0155275,0.0941038,-0.00158817,-0.149396,0.216139,-0.14673,-0.129541,-0.349333,-0.260321,0.00433127,0.0525859,-0.90403,-0.298212,1.40245,0.192879,0.889536,-0.0159448,0.331529,0.0591991,0.0481593,-1.95814,0.447572,0.180711,-0.1101,-0.000830745,-0.0013197,-0.0112507,0.00613789,0.00144462,0.124609,0.000302129,0,0,0,0,0,0,0,0.412174,-36.3432,0.588087,26.4551,2.46246,1.4547,-0.0163725,
0.331412,0.0589544,0.0478744,-1.95754,0.448052,0.185418,-0.110173,-0.000856264,-0.00790148,-0.00433966,0.0137642,0.0153398,0.0934483,-0.00158292,-0.0721894,0.105876,-0.0698885,-0.0849058,-0.117307,-0.40972,0.00328153,0.0525859,-0.90403,-0.298212,1.40245,0.192879,0.889536,-0.0159448,0.331529,0.0591991,0.0481593,-1.95814,0.447572,0.180711,-0.1101,-0.000830745,-0.0013197,-0.0112507,0.00613789,0.00144462,0.124609,0.000302129,0,0,0,0,0,0,0,0.412174,-36.3432,0.588087,26.4551,2.46246,1.4547,-0.0163725,
0.331404,0.0588935,0.0478386,-1.95743,0.448177,0.186135,-0.110186,-0.000884659,-0.00784455,-0.00436501,0.0136775,0.0153964,0.0926796,-0.00157903,-0.017747,0.0355821,-0.0158444,-0.0542229,0.0353799,-0.480394,0.00243168,0.0525859,-0.90403,-0.298212,1.40245,0.192879,0.889536,-0.0159448,0.331529,0.0591991,0.0481593,-1.95814,0.447572,0.180711,-0.1101,-0.000830745,-0.0013197,-0.0112507,0.00613789,0.00144462,0.124609,0.000302129,0,0,0,0,0,0,0,0.412174,-36.3432,0.588087,26.4551,2.46246,1.4547,-0.0163725,
0.331398,0.0588302,0.047805,-1.95733,0.448308,0.186844,-0.110198,-0.000853989,-0.00785666,-0.00433185,0.0136236,0.0156073,0.0918724,-0.00157619,0.0191689,-0.00757165,0.020728,-0.0336382,0.13178,-0.504505,0.00177756,0.0521921,-0.880171,-0.298127,1.37952,0.197465,0.868275,-0.0158409,0.331497,0.0592096,0.0480121,-1.9579,0.447582,0.185125,-0.1101,8.16945e-05,0.00116004,-0.00573761,0.00467014,0.00123136,0.125126,-0.000860688,0.114055,0.309967,0.689137,-0.183468,-0.0266582,0.0645377,-0.145352,0.336795,-36.4424,0.488905,26.5305,2.40112,1.48125,-0.00996382,
0.331449,0.0590732,0.0478228,-1.95744,0.447986,0.188991,-0.110163,-0.000859562,-0.00746846,-0.00434099,0.0133928,0.0153604,0.0913211,-0.00157369,-0.00348303,0.242623,-0.00571339,-0.144271,-0.154285,-0.344578,0.00156384,0.0521921,-0.880171,-0.298127,1.37952,0.197465,0.868275,-0.0158409,0.331497,0.0592096,0.0480121,-1.9579,0.447582,0.185125,-0.1101,8.16945e-05,0.00116004,-0.00573761,0.00467014,0.00123136,0.125126,-0.000860688,0,0,0,0,0,0,0,0.336795,-36.4424,0.488905,26.5305,2.40112,1.48125,-0.00996382,
0.331444,0.0590206,0.0477894,-1.95734,0.448111,0.189691,-0.110175,-0.00082357,-0.00729015,-0.00430627,0.0132521,0.0154051,0.0905788,-0.00157123,0.0224945,0.111446,0.0217029,-0.0879159,0.0278999,-0.46391,0.00153544,0.0521921,-0.880171,-0.298127,1.37952,0.197465,0.868275,-0.0158409,0.331497,0.0592096,0.0480121,-1.9579,0.447582,0.185125,-0.1101,8.16945e-05,0.00116004,-0.00573761,0.00467014,0.00123136,0.125126,-0.000860688,0,0,0,0,0,0,0,0.336795,-36.4424,0.488905,26.5305,2.40112,1.48125,-0.00996382,
0.33144,0.0589641,0.0477576,-1.95723,0.448243,0.190384,-0.110188,-0.000757738,-0.00724464,-0.00424041,0.0131732,0.0156299,0.0897694,-0.00156907,0.0411454,0.0284443,0.0411574,-0.0493509,0.140552,-0.505891,0.00134946,0.0521921,-0.880171,-0.298127,1.37952,0.197465,0.868275,-0.0158409,0.331497,0.0592096,0.0480121,-1.9579,0.447582,0.185125,-0.1101,8.16945e-05,0.00116004,-0.00573761,0.00467014,0.00123136,0.125126,-0.000860688,0,0,0,0,0,0,0,0.336795,-36.4424,0.488905,26.5305,2.40112,1.48125,-0.00996382,
0.331437,0.0589047,0.0477271,-1.95713,0.448381,0.191069,-0.1102,-0.000672526,-0.00727981,-0.00415445,0.0131352,0.0159592,0.0889601,-0.00156727,0.0532573,-0.0219828,0.0537241,-0.0237183,0.205817,-0.505813,0.00112706,0.052364,-0.856764,-0.297489,1.35666,0.202058,0.847452,-0.0157393,0.331489,0.0592018,0.0479084,-1.95761,0.447592,0.189392,-0.110098,0.000416029,0.000165467,-0.00674006,0.00887711,0.00561241,0.123667,0.000228679,0.0417918,-0.124321,-0.125306,0.525871,0.547631,-0.182361,0.136171,0.182071,-36.2917,0.314344,26.2805,2.32238,1.59386,-0.0365141,
0.331436,0.0590239,0.0477144,-1.95712,0.448102,0.193258,-0.11016,-0.000728033,-0.00712602,-0.00420971,0.0130837,0.0159693,0.0888745,-0.00156489,-0.0346917,0.0961166,-0.0345327,-0.0322114,0.00630225,-0.0535166,0.00148854,0.052364,-0.856764,-0.297489,1.35666,0.202058,0.847452,-0.0157393,0.331489,0.0592018,0.0479084,-1.95761,0.447592,0.189392,-0.110098,0.000416029,0.000165467,-0.00674006,0.00887711,0.00561241,0.123667,0.000228679,0,0,0,0,0,0,0,0.182071,-36.2917,0.314344,26.2805,2.32238,1.59386,-0.0365141,
0.33143,0.0589678,0.0476807,-1.95701,0.448237,0.193952,-0.110172,-0.000729071,-0.00710304,-0.00420935,0.013061,0.0161639,0.0884499,-0.0015625,-0.000648955,0.0143656,0.000221715,-0.0141818,0.121602,-0.265388,0.00149371,0.052364,-0.856764,-0.297489,1.35666,0.202058,0.847452,-0.0157393,0.331489,0.0592018,0.0479084,-1.95761,0.447592,0.189392,-0.110098,0.000416029,0.000165467,-0.00674006,0.00887711,0.00561241,0.123667,0.000228679,0,0,0,0,0,0,0,0.182071,-36.2917,0.314344,26.2805,2.32238,1.59386,-0.0365141,
0.331426,0.0589089,0.0476487,-1.95691,0.448379,0.194635,-0.110185,-0.000690751,-0.0071559,-0.00416917,0.0130561,0.0164666,0.0878488,-0.00156035,0.0239501,-0.0330353,0.0251125,-0.00307187,0.18919,-0.375667,0.00134339,0.052364,-0.856764,-0.297489,1.35666,0.202058,0.847452,-0.0157393,0.331489,0.0592018,0.0479084,-1.95761,0.447592,0.189392,-0.110098,0.000416029,0.000165467,-0.00674006,0.00887711,0.00561241,0.123667,0.000228679,0,0,0,0,0,0,0,0.182071,-36.2917,0.314344,26.2805,2.32238,1.59386,-0.0365141,
0.331436,0.0590239,0.0477144,-1.95712,0.448102,0.193258,-0.11016,-0.000742613,-0.00702689,-0.00422148,0.0130204,0.0163752,0.0879854,-0.00155935,-0.0324136,0.0806272,-0.032693,-0.0223184,-0.0571165,0.0853976,0.000623415,0.052364,-0.856764,-0.297489,1.35666,0.202058,0.847452,-0.0157393,0.331489,0.0592018,0.0479084,-1.95761,0.447592,0.189392,-0.110098,0.000416029,0.000165467,-0.00674006,0.00887711,0.00561241,0.123667,0.000228679,0,0,0,0,0,0,0,0.182071,-36.2917,0.314344,26.2805,2.32238,1.59386,-0.0365141,
0.33143,0.0589678,0.0476807,-1.95701,0.448237,0.193952,-0.110172,-0.000740735,-0.00702373,-0.00421877,0.0130104,0.0164886,0.0877386,-0.00155807,0.00117354,0.00197408,0.00169349,-0.00626738,0.0708666,-0.154256,0.000801609,0.0520371,-0.83457,-0.297388,1.33497,0.206482,0.827454,-0.0156398,0.331487,0.0592001,0.0478124,-1.9574,0.44759,0.193554,-0.110097,-0.00142854,-0.00370344,-0.0011911,0.00341391,0.00247297,0.12533,0.00204094,-0.230571,-0.483613,0.693619,-0.6829,-0.39243,0.20787,0.226532,0.209842,-36.2679,0.338148,26.3043,2.3526,1.64696,-0.0365141,
0.331426,0.0589089,0.0476487,-1.95691,0.448379,0.194635,-0.110185,-0.000700082,-0.00709245,-0.00417671,0.0130156,0.0167264,0.0872798,-0.0015568,0.0254081,-0.0429485,0.0262899,0.00325966,0.148602,-0.286762,0.000789706,0.0520371,-0.83457,-0.297388,1.33497,0.206482,0.827454,-0.0156398,0.331487,0.0592001,0.0478124,-1.9574,0.44759,0.193554,-0.110097,-0.00142854,-0.00370344,-0.0011911,0.00341391,0.00247297,0.12533,0.00204094,0,0,0,0,0,0,0,0.209842,-36.2679,0.338148,26.3043,2.3526,1.64696,-0.0365141,
0.331423,0.0588479,0.047618,-1.95681,0.448525,0.195311,-0.110197,-0.000633427,-0.00719823,-0.00410841,0.0130287,0.0170337,0.0867134,-0.00155567,0.0416596,-0.066112,0.0426892,0.00818467,0.192097,-0.354024,0.00071004,0.0520371,-0.83457,-0.297388,1.33497,0.206482,0.827454,-0.0156398,0.331487,0.0592001,0.0478124,-1.9574,0.44759,0.193554,-0.110097,-0.00142854,-0.00370344,-0.0011911,0.00341391,0.00247297,0.12533,0.00204094,0,0,0,0,0,0,0,0.209842,-36.2679,0.338148,26.3043,2.3526,1.64696,-0.0365141,
0.331466,0.0590038,0.0476496,-1.95693,0.448081,0.197296,-0.110159,-0.000610463,-0.00705991,-0.00408859,0.0129545,0.0169408,0.0865099,-0.00155593,0.0143522,0.0864489,0.0123842,-0.0463482,-0.058075,-0.127153,-0.000163348,0.0520371,-0.83457,-0.297388,1.33497,0.206482,0.827454,-0.0156398,0.331487,0.0592001,0.0478124,-1.9574,0.44759,0.193554,-0.110097,-0.00142854,-0.00370344,-0.0011911,0.00341391,0.00247297,0.12533,0.00204094,0,0,0,0,0,0,0,0.209842,-36.2679,0.338148,26.3043,2.3526,1.64696,-0.0365141,
0.331463,0.0589483,0.0476186,-1.95682,0.448222,0.197969,-0.110172,-0.000567569,-0.00703641,-0.0040462,0.012914,0.0170746,0.0860298,-0.00155498,0.0268089,0.0146886,0.026493,-0.0253151,0.0836223,-0.300079,0.000594008,0.0522806,-0.814757,-0.296664,1.3157,0.21116,0.808864,-0.0155516,0.331483,0.059198,0.0476894,-1.95721,0.447595,0.197441,-0.110097,-0.00699376,0.00086905,-0.00500024,0.00842698,0.00432179,0.108322,0.000866123,-0.695653,0.571561,-0.476142,0.626634,0.231103,-2.12603,-0.146852,0.285221,-36.1925,0.43733,26.3043,2.34069,1.6076,-0.0429228,
0.331461,0.0588902,0.0475886,-1.95672,0.448369,0.198632,-0.110184,-0.000508374,-0.00708034,-0.00398612,0.012895,0.0173354,0.0854154,-0.00155353,0.036997,-0.0274534,0.0375503,-0.0118917,0.163023,-0.384008,0.00090461,0.0522806,-0.814757,-0.296664,1.3157,0.21116,0.808864,-0.0155516,0.331483,0.059198,0.0476894,-1.95721,0.447595,0.197441,-0.110097,-0.00699376,0.00086905,-0.00500024,0.00842698,0.00432179,0.108322,0.000866123,0,0,0,0,0,0,0,0.285221,-36.1925,0.43733,26.3043,2.34069,1.6076,-0.0429228,
0.33146,0.0588304,0.0475596,-1.95662,0.44852,0.199289,-0.110196,-0.000437858,-0.00716057,-0.00391401,0.0128889,0.0176602,0.0847492,-0.00155195,0.0440727,-0.0501457,0.0450694,-0.00382034,0.202999,-0.416357,0.000988978,0.0522806,-0.814757,-0.296664,1.3157,0.21116,0.808864,-0.0155516,0.331483,0.059198,0.0476894,-1.95721,0.447595,0.197441,-0.110097,-0.00699376,0.00086905,-0.00500024,0.00842698,0.00432179,0.108322,0.000866123,0,0,0,0,0,0,0,0.285221,-36.1925,0.43733,26.3043,2.34069,1.6076,-0.0429228,
0.331379,0.0590463,0.0474471,-1.95675,0.44807,0.201023,-0.110157,-0.000671133,-0.00689381,-0.00414241,0.012743,0.0172324,0.084545,-0.00154566,-0.145797,0.166724,-0.142747,-0.0911681,-0.267398,-0.127648,0.00393242,0.0522806,-0.814757,-0.296664,1.3157,0.21116,0.808864,-0.0155516,0.331483,0.059198,0.0476894,-1.95721,0.447595,0.197441,-0.110097,-0.00699376,0.00086905,-0.00500024,0.00842698,0.00432179,0.108322,0.000866123,0,0,0,0,0,0,0,0.285221,-36.1925,0.43733,26.3043,2.34069,1.6076,-0.0429228,
0.331369,0.0589955,0.0474097,-1.95665,0.448204,0.201682,-0.110169,-0.000783604,-0.00678499,-0.004251,0.0126585,0.017123,0.0841078,-0.00154111,-0.0702941,0.068016,-0.0678725,-0.0527911,-0.0683941,-0.27321,0.00284346,0.0517858,-0.794911,-0.296784,1.29687,0.215038,0.791449,-0.0154649,0.331488,0.0592137,0.0475676,-1.95707,0.447594,0.201132,-0.1101,0.00265338,-0.00228377,-0.00416158,0.00172423,0.00428208,0.114048,-0.0010124,1.20589,-0.394102,0.104833,-0.837845,-0.0049636,0.715745,-0.234816,0.209842,-36.4186,0.314344,26.5781,2.3526,1.6076,-0.00996382,
0.331361,0.0589416,0.0473747,-1.95655,0.448345,0.202333,-0.110181,-0.000811542,-0.00677486,-0.00427593,0.012615,0.0172235,0.0835502,-0.0015379,-0.0174611,0.0063281,-0.0155786,-0.0271958,0.0628626,-0.348532,0.00200703,0.0517858,-0.794911,-0.296784,1.29687,0.215038,0.791449,-0.0154649,0.331488,0.0592137,0.0475676,-1.95707,0.447594,0.201132,-0.1101,0.00265338,-0.00228377,-0.00416158,0.00172423,0.00428208,0.114048,-0.0010124,0,0,0,0,0,0,0,0.209842,-36.4186,0.314344,26.5781,2.3526,1.6076,-0.00996382,
0.331356,0.0588855,0.0473417,-1.95645,0.448492,0.202977,-0.110193,-0.000782516,-0.00682351,-0.00424456,0.0125977,0.0174561,0.0829397,-0.00153567,0.018141,-0.0304034,0.0196067,-0.0108195,0.14536,-0.38154,0.00139227,0.0517858,-0.794911,-0.296784,1.29687,0.215038,0.791449,-0.0154649,0.331488,0.0592137,0.0475676,-1.95707,0.447594,0.201132,-0.1101,0.00265338,-0.00228377,-0.00416158,0.00172423,0.00428208,0.114048,-0.0010124,0,0,0,0,0,0,0,0.209842,-36.4186,0.314344,26.5781,2.3526,1.6076,-0.00996382,
0.331485,0.0590591,0.0474225,-1.95664,0.448122,0.20459,-0.110162,-0.000665624,-0.00659282,-0.00413382,0.0124456,0.0174417,0.0823963,-0.00153651,0.0730576,0.144177,0.0692082,-0.0950576,-0.00899096,-0.339621,-0.000527578,0.0517858,-0.794911,-0.296784,1.29687,0.215038,0.791449,-0.0154649,0.331488,0.0592137,0.0475676,-1.95707,0.447594,0.201132,-0.1101,0.00265338,-0.00228377,-0.00416158,0.00172423,0.00428208,0.114048,-0.0010124,0,0,0,0,0,0,0,0.209842,-36.4186,0.314344,26.5781,2.3526,1.6076,-0.00996382,
0.331484,0.0590096,0.0473936,-1.95654,0.44827,0.205222,-0.110174,-0.000558183,-0.00651064,-0.00402914,0.0123605,0.017636,0.0817345,-0.00153613,0.0671504,0.051364,0.0654244,-0.05321,0.121448,-0.413657,0.000241446,0.0518353,-0.775811,-0.296306,1.27905,0.219286,0.774454,-0.0153826,0.331477,0.0592319,0.0474163,-1.9569,0.447585,0.204707,-0.110099,-0.000109879,0.00243981,-0.00552429,0.00479901,0.00438894,0.105739,-0.000499303,-0.345407,0.590448,-0.170339,0.384348,0.0133575,-1.03863,0.0641374,0.233646,-36.5694,0.361952,26.4551,2.40753,1.60119,-0.0227812,
0.331484,0.0589571,0.0473654,-1.95645,0.448423,0.205849,-0.110187,-0.000456449,-0.00652048,-0.00392817,0.0123201,0.0179443,0.081045,-0.00153518,0.0635843,-0.00614934,0.0631079,-0.0252401,0.192688,-0.430943,0.000588657,0.0518353,-0.775811,-0.296306,1.27905,0.219286,0.774454,-0.0153826,0.331477,0.0592319,0.0474163,-1.9569,0.447585,0.204707,-0.110099,-0.000109879,0.00243981,-0.00552429,0.00479901,0.00438894,0.105739,-0.000499303,0,0,0,0,0,0,0,0.233646,-36.5694,0.361952,26.4551,2.40753,1.60119,-0.0227812,
0.331484,0.0589024,0.0473379,-1.95635,0.448581,0.20647,-0.110199,-0.000359597,-0.00658423,-0.0038309,0.0123085,0.0183068,0.0803741,-0.00153404,0.0605325,-0.0398418,0.0607969,-0.00722247,0.226522,-0.419311,0.000717828,0.0518353,-0.775811,-0.296306,1.27905,0.219286,0.774454,-0.0153826,0.331477,0.0592319,0.0474163,-1.9569,0.447585,0.204707,-0.110099,-0.000109879,0.00243981,-0.00552429,0.00479901,0.00438894,0.105739,-0.000499303,0,0,0,0,0,0,0,0.233646,-36.5694,0.361952,26.4551,2.40753,1.60119,-0.0227812,
0.331436,0.0591351,0.0472344,-1.95649,0.448098,0.208068,-0.110159,-0.000431095,-0.00623618,-0.00390344,0.0121067,0.0180034,0.0799788,-0.00153074,-0.0446867,0.217528,-0.0453361,-0.126179,-0.189608,-0.247034,0.00206076,0.0518353,-0.775811,-0.296306,1.27905,0.219286,0.774454,-0.0153826,0.331477,0.0592319,0.0474163,-1.9569,0.447585,0.204707,-0.110099,-0.000109879,0.00243981,-0.00552429,0.00479901,0.00438894,0.105739,-0.000499303,0,0,0,0,0,0,0,0.233646,-36.5694,0.361952,26.4551,2.40753,1.60119,-0.0227812,
0.331432,0.0590912,0.0472023,-1.9564,0.448242,0.208687,-0.110172,-0.00045138,-0.00608722,-0.00392322,0.0119964,0.0179866,0.0794474,-0.00152784,-0.012678,0.093102,-0.0123685,-0.0689166,-0.010493,-0.33212,0.00181067,0.0519015,-0.757545,-0.295703,1.2608,0.223642,0.757235,-0.0152978,0.331447,0.059209,0.047299,-1.95683,0.447586,0.208394,-0.110102,-0.00358118,-0.00207485,-0.00669977,0.00363513,0.00416652,0.0993138,-0.00105773,-0.433913,-0.564334,-0.146935,-0.145486,-0.027803,-0.803092,-0.0698038,0.336795,-36.2163,0.43733,26.705,2.41943,1.73394,0.00376909,
0.331429,0.0590434,0.0471717,-1.95631,0.448392,0.209299,-0.110184,-0.000434336,-0.00606435,-0.00390491,0.0119478,0.0181504,0.0788707,-0.00152545,0.0106528,0.0142939,0.0114491,-0.0303397,0.102346,-0.360451,0.00149335,0.0519015,-0.757545,-0.295703,1.2608,0.223642,0.757235,-0.0152978,0.331447,0.059209,0.047299,-1.95683,0.447586,0.208394,-0.110102,-0.00358118,-0.00207485,-0.00669977,0.00363513,0.00416652,0.0993138,-0.00105773,0,0,0,0,0,0,0,0.336795,-36.2163,0.43733,26.705,2.41943,1.73394,0.00376909,
0.331427,0.0589928,0.0471422,-1.95621,0.448548,0.209907,-0.110196,-0.000391771,-0.00611795,-0.00386069,0.0119394,0.0184216,0.0782964,-0.00152354,0.026603,-0.0335009,0.0276376,-0.00530392,0.169497,-0.358939,0.00119408,0.0519015,-0.757545,-0.295703,1.2608,0.223642,0.757235,-0.0152978,0.331447,0.059209,0.047299,-1.95683,0.447586,0.208394,-0.110102,-0.00358118,-0.00207485,-0.00669977,0.00363513,0.00416652,0.0993138,-0.00105773,0,0,0,0,0,0,0,0.336795,-36.2163,0.43733,26.705,2.41943,1.73394,0.00376909,
