xiao-wang007/linearmpc_panda/paper_data/panda_inverse_dynamics_controller_Start_at_0/1/trajectory.csv
Commanded Joint 0 Position,Commanded Joint 1 Position,Commanded Joint 2 Position,Commanded Joint 3 Position,Commanded Joint 4 Position,Commanded Joint 5 Position,Commanded Joint 6 Position,Commanded Joint 0 Velocity,Commanded Joint 1 Velocity,Commanded Joint 2 Velocity,Commanded Joint 3 Velocity,Commanded Joint 4 Velocity,Commanded Joint 5 Velocity,Commanded Joint 6 Velocity,Commanded Joint 0 Acceleration,Commanded Joint 1 Acceleration,Commanded Joint 2 Acceleration,Commanded Joint 3 Acceleration,Commanded Joint 4 Acceleration,Commanded Joint 5 Acceleration,Commanded Joint 6 Acceleration,Commanded Joint 0 Torque,Commanded Joint 1 Torque,Commanded Joint 2 Torque,Commanded Joint 3 Torque,Commanded Joint 4 Torque,Commanded Joint 5 Torque,Commanded Joint 6 Torque,Actual Joint 0 Position,Actual Joint 1 Position,Actual Joint 2 Position,Actual Joint 3 Position,Actual Joint 4 Position,Actual Joint 5 Position,Actual Joint 6 Position,Actual Joint 0 Velocity,Actual Joint 1 Velocity,Actual Joint 2 Velocity,Actual Joint 3 Velocity,Actual Joint 4 Velocity,Actual Joint 5 Velocity,Actual Joint 6 Velocity,Actual Joint 0 Acceleration,Actual Joint 1 Acceleration,Actual Joint 2 Acceleration,Actual Joint 3 Acceleration,Actual Joint 4 Acceleration,Actual Joint 5 Acceleration,Actual Joint 6 Acceleration,Actual Joint 0 Torque,Actual Joint 1 Torque,Actual Joint 2 Torque,Actual Joint 3 Torque,Actual Joint 4 Torque,Actual Joint 5 Torque,Actual Joint 6 Torque,
-0.0107071,-0.121749,-0.0164331,-1.87976,-0.0341041,0.223389,0.0806635,0.000169194,0.018165,0.000156675,-0.0346131,-0.00301088,0.0525331,-0.000363944,0.105747,11.3531,0.0979218,-21.6332,-1.8818,32.8332,-0.227465,0.0574478,20.5094,0.101163,-24.3291,-0.433043,1.95537,-0.0245623,-0.0107026,-0.122365,-0.0164132,-1.87644,-0.034025,0.217729,0.0807006,-0.00204473,-0.00139923,-0.00114611,0.00048606,0.00982674,-0.000559933,-0.000595853,0,0,0,0,0,0,0,0.134464,-31.2254,-0.137926,27.1255,0.502316,3.06603,0.0980684,
-0.0107157,-0.122382,-0.0164285,-1.87643,-0.033947,0.217733,0.0807018,7.4987e-05,0.0144389,5.46228e-05,-0.0276123,-0.00209576,0.0421197,-0.00028536,-0.0588796,-2.32881,-0.0637825,4.37549,0.571949,-6.50837,0.0491148,0.0516591,20.9529,0.0906905,-24.2452,-0.4336,1.70476,-0.023052,-0.0107032,-0.122273,-0.0164177,-1.87648,-0.0340301,0.217729,0.080705,-0.000761418,0.00116646,-0.00348971,-0.00013002,0.0181622,-0.00140269,0.000100805,0.160414,0.320711,-0.29295,-0.07701,1.04193,-0.105345,0.0870822,0.00751081,-31.1263,-0.213304,27.1771,0.550839,3.07976,0.0577852,
-0.0107172,-0.122384,-0.0164303,-1.87642,-0.0339402,0.217738,0.0807019,2.23812e-05,0.0114889,-6.92259e-08,-0.0220262,-0.00150745,0.0338161,-0.000225155,-0.0328786,-1.84377,-0.0341825,3.49136,0.367691,-5.18979,0.0376283,0.0444171,21.5246,0.0789065,-24.1371,-0.433409,1.35693,-0.0210845,-0.0107032,-0.122273,-0.0164177,-1.87648,-0.0340301,0.217729,0.080705,-0.000761418,0.00116646,-0.00348971,-0.00013002,0.0181622,-0.00140269,0.000100805,0,0,0,0,0,0,0,0.00751081,-31.1263,-0.213304,27.1771,0.550839,3.07976,0.0577852,
-0.0107182,-0.122386,-0.0164314,-1.87642,-0.0339366,0.217744,0.080702,-6.15029e-06,0.0091523,-2.78919e-05,-0.0175688,-0.00111475,0.027186,-0.000178503,-0.0178322,-1.46035,-0.0173892,2.78587,0.245438,-4.14379,0.0291575,0.0384535,22.0487,0.0694493,-23.9693,-0.43172,0.971488,-0.0190849,-0.0107032,-0.122273,-0.0164177,-1.87648,-0.0340301,0.217729,0.080705,-0.000761418,0.00116646,-0.00348971,-0.00013002,0.0181622,-0.00140269,0.000100805,0,0,0,0,0,0,0,0.00751081,-31.1263,-0.213304,27.1771,0.550839,3.07976,0.0577852,
-0.010844,-0.122251,-0.0165399,-1.87642,-0.0313643,0.216804,0.080685,-0.0018311,0.00751169,-0.00171616,-0.0133076,0.039138,0.00754271,-0.000322957,-1.14059,-1.02538,-1.05516,2.66326,25.158,-12.277,-0.0902838,0.500696,0.157388,0.498912,-0.233426,3.2773,-1.33099,-0.00138118,-0.0107032,-0.122273,-0.0164177,-1.87648,-0.0340301,0.217729,0.080705,-0.000761418,0.00116646,-0.00348971,-0.00013002,0.0181622,-0.00140269,0.000100805,0,0,0,0,0,0,0,0.00751081,-31.1263,-0.213304,27.1771,0.550839,3.07976,0.0577852,
-0.0109084,-0.122249,-0.0166034,-1.87639,-0.0294466,0.216097,0.0806812,-0.00307468,0.00607196,-0.00296065,-0.0100962,0.0792525,-0.0116476,-0.000353304,-0.777234,-0.89983,-0.777812,2.0071,25.0716,-11.994,-0.0189672,0.494892,0.154909,0.492817,-0.23077,3.24867,-1.31916,-0.00135755,-0.0107032,-0.122273,-0.0164177,-1.87648,-0.0340301,0.217729,0.080705,-0.000761418,0.00116646,-0.00348971,-0.00013002,0.0181622,-0.00140269,0.000100805,0,0,0,0,0,0,0,0.00751081,-31.1263,-0.213304,27.1771,0.550839,3.07976,0.0577852,
-0.0109589,-0.122249,-0.0166551,-1.87638,-0.0273416,0.215297,0.0806793,-0.00372381,0.00485239,-0.00366148,-0.00772826,0.116028,-0.0293254,-0.000332372,-0.405708,-0.762235,-0.438018,1.47997,22.9846,-11.0486,0.0130826,0.489157,0.155342,0.486747,-0.227843,3.21985,-1.30688,-0.00135585,-0.0107022,-0.122154,-0.0164199,-1.87646,-0.0340483,0.217694,0.0807024,-0.00436271,0.00584811,-0.00255488,0.00348585,0.0101695,-0.015843,-0.000110295,-0.450161,0.585207,0.116854,0.451984,-0.999078,-1.80504,-0.0263874,0.158268,-30.1781,-0.0625476,26.0306,0.593868,2.68151,0.0843355,
-0.0109947,-0.12225,-0.0166928,-1.87637,-0.0251262,0.214434,0.0806782,-0.00387312,0.0038553,-0.00387173,-0.0060063,0.148207,-0.0450164,-0.000292436,-0.0933172,-0.623179,-0.131401,1.07622,20.1118,-9.80688,0.0249598,0.483561,0.151813,0.480923,-0.225447,3.19038,-1.29556,-0.00134988,-0.0107022,-0.122154,-0.0164199,-1.87646,-0.0340483,0.217694,0.0807024,-0.00436271,0.00584811,-0.00255488,0.00348585,0.0101695,-0.015843,-0.000110295,0,0,0,0,0,0,0,0.158268,-30.1781,-0.0625476,26.0306,0.593868,2.68151,0.0843355,
-0.0110193,-0.122051,-0.0166655,-1.87606,-0.025607,0.212224,0.0806364,-0.00701726,0.00393456,-0.00642275,-7.78401e-05,0.248095,-0.119422,-0.000830553,-1.96509,0.0495378,-1.59439,3.70529,62.4298,-46.5032,-0.336323,4.15573,1.42528,4.24424,-1.78614,11.119,-7.78259,-0.00396341,-0.0107022,-0.122154,-0.0164199,-1.87646,-0.0340483,0.217694,0.0807024,-0.00436271,0.00584811,-0.00255488,0.00348585,0.0101695,-0.015843,-0.000110295,0,0,0,0,0,0,0,0.158268,-30.1781,-0.0625476,26.0306,0.593868,2.68151,0.0843355,
-0.0111339,-0.122041,-0.016769,-1.87593,-0.019246,0.208108,0.0806239,-0.00847889,0.00341493,-0.00772716,0.00315079,0.357499,-0.198443,-0.000978162,-0.913522,-0.324765,-0.815258,2.0179,68.378,-49.3881,-0.0922562,4.02197,1.41705,4.13034,-1.75707,11.119,-7.68993,-0.00374873,-0.0107022,-0.122154,-0.0164199,-1.87646,-0.0340483,0.217694,0.0807024,-0.00436271,0.00584811,-0.00255488,0.00348585,0.0101695,-0.015843,-0.000110295,0,0,0,0,0,0,0,0.158268,-30.1781,-0.0625476,26.0306,0.593868,2.68151,0.0843355,
-0.0111943,-0.122037,-0.0168242,-1.87586,-0.0121448,0.203474,0.0806172,-0.00829272,0.00282473,-0.00756045,0.00428016,0.463531,-0.274608,-0.000949665,0.11636,-0.368876,0.104194,0.705854,66.2698,-47.6035,0.0178112,3.89306,1.39322,4.00823,-1.72734,11.1189,-7.58985,-0.00411658,-0.0106868,-0.122184,-0.0164122,-1.87711,-0.0339823,0.217173,0.0807027,-0.00572274,-0.0452046,-0.00146582,-0.00967357,0.0332932,-0.0135404,-1.19577e-05,-0.170004,-6.38159,0.136133,-1.64493,2.89045,0.287828,0.0122921,0.360599,-34.3199,0.163588,28.1253,0.837399,3.05321,0.0779268,
-0.00998757,-0.122694,-0.0154824,-1.87698,-0.027025,0.207584,0.0808843,0.00489283,-0.00406923,0.00880104,0.00360641,0.47911,-0.367287,0.000925613,8.24097,-4.30873,10.2259,-0.421091,9.73672,-57.9243,1.17205,22.4801,3.30914,24.2369,-11.095,11.1189,-14.2741,0.15205,-0.0106868,-0.122184,-0.0164122,-1.87711,-0.0339823,0.217173,0.0807027,-0.00572274,-0.0452046,-0.00146582,-0.00967357,0.0332932,-0.0135404,-1.19577e-05,0,0,0,0,0,0,0,0.360599,-34.3199,0.163588,28.1253,0.837399,3.05321,0.0779268,
-0.00935485,-0.122935,-0.0146852,-1.87711,-0.0214798,0.200171,0.0809065,0.0197324,-0.00928077,0.0269701,-0.000461141,0.521918,-0.479163,0.00129568,9.27471,-3.25721,11.3556,-2.54222,26.755,-69.9224,0.231291,20.4521,2.7743,22.5273,-10.6571,11.1189,-14.2741,0.0827492,-0.0106868,-0.122184,-0.0164122,-1.87711,-0.0339823,0.217173,0.0807027,-0.00572274,-0.0452046,-0.00146582,-0.00967357,0.0332932,-0.0135404,-1.19577e-05,0,0,0,0,0,0,0,0.360599,-34.3199,0.163588,28.1253,0.837399,3.05321,0.0779268,
-0.00860257,-0.123111,-0.0136797,-1.8773,-0.015104,0.191655,0.0810783,0.034593,-0.0118183,0.0467139,-0.00511691,0.576928,-0.596234,0.00533235,9.28789,-1.58598,12.3399,-2.90986,34.3812,-73.1694,2.52292,19.0628,2.23437,21.452,-10.0983,11.1189,-14.2741,0.0230875,-0.0106868,-0.122184,-0.0164122,-1.87711,-0.0339823,0.217173,0.0807027,-0.00572274,-0.0452046,-0.00146582,-0.00967357,0.0332932,-0.0135404,-1.19577e-05,0,0,0,0,0,0,0,0.360599,-34.3199,0.163588,28.1253,0.837399,3.05321,0.0779268,
-0.00767958,-0.123384,-0.012674,-1.87776,-0.00804272,0.182521,0.0811036,0.0507491,-0.0162805,0.0625122,-0.0156225,0.638075,-0.70533,0.00489664,10.0976,-2.78884,9.87394,-6.56598,38.2171,-68.1849,-0.272319,18.4568,2.58702,21.9508,-8.62455,11.0963,-14.2635,0.215219,-0.0104669,-0.121836,-0.0161879,-1.8775,-0.0291826,0.215138,0.0807016,0.0181959,0.0372661,0.0168338,-0.00801165,0.271653,-0.172671,-0.000453214,2.98983,10.3088,2.28745,0.207741,29.795,-19.8913,-0.0551571,3.63361,-29.2815,3.33742,19.7028,2.32238,0.00267619,0.131027,
-0.00864906,-0.121369,-0.0144615,-1.87833,-0.0210577,0.204754,0.0809128,0.0678139,-0.00731647,0.0762725,-0.0257051,0.627034,-0.718549,0.00518026,10.6655,5.60251,8.60017,-6.30161,-6.90076,-8.26182,0.177267,34.705,10.318,35.1955,-18.5611,11.0963,-14.2635,0.176908,-0.0104669,-0.121836,-0.0161879,-1.8775,-0.0291826,0.215138,0.0807016,0.0181959,0.0372661,0.0168338,-0.00801165,0.271653,-0.172671,-0.000453214,0,0,0,0,0,0,0,3.63361,-29.2815,3.33742,19.7028,2.32238,0.00267619,0.131027,
-0.00728784,-0.121089,-0.0131507,-1.87898,-0.0154302,0.197168,0.0810708,0.0882815,0.00113669,0.0937891,-0.0368107,0.642315,-0.764512,0.00809356,12.7922,5.28322,10.9479,-6.941,9.55097,-28.7273,1.82081,31.5375,9.54299,31.7988,-17.9233,11.0963,-14.2635,0.0400128,-0.0104669,-0.121836,-0.0161879,-1.8775,-0.0291826,0.215138,0.0807016,0.0181959,0.0372661,0.0168338,-0.00801165,0.271653,-0.172671,-0.000453214,0,0,0,0,0,0,0,3.63361,-29.2815,3.33742,19.7028,2.32238,0.00267619,0.131027,
-0.00584559,-0.12088,-0.0116451,-1.87991,-0.00893362,0.188708,0.0810673,0.106682,0.00614876,0.112672,-0.0525527,0.676266,-0.82311,0.00638711,11.5,3.13255,11.802,-9.83879,21.2192,-36.6234,-1.06653,30.3217,9.43447,30.2119,-16.5838,11.0963,-14.2635,0.189223,-0.0104669,-0.121836,-0.0161879,-1.8775,-0.0291826,0.215138,0.0807016,0.0181959,0.0372661,0.0168338,-0.00801165,0.271653,-0.172671,-0.000453214,0,0,0,0,0,0,0,3.63361,-29.2815,3.33742,19.7028,2.32238,0.00267619,0.131027,
-0.00431185,-0.120659,-0.0100459,-1.88095,-0.00179806,0.179534,0.0810496,0.123689,0.010428,0.130116,-0.0680618,0.719402,-0.887819,0.0046663,10.6295,2.67454,10.9025,-9.69315,26.9598,-40.4432,-1.07551,26.1656,6.19542,27.2356,-18.3648,10.9712,-14.1257,-0.0130419,-0.0086276,-0.1233,-0.0142026,-1.87969,-0.00261547,0.192943,0.0806671,0.114087,-0.0589801,0.139445,-0.100609,0.901719,-0.947723,0.00197008,11.9864,-12.0308,15.3265,-11.5746,78.7582,-96.8816,0.302912,20.447,-27.8334,20.611,16.1679,4.9234,-2.2779,-0.00996382,
-0.0052885,-0.12384,-0.0106996,-1.88228,0.0112382,0.175829,0.0808533,0.144501,0.00377723,0.152052,-0.0888733,0.750395,-0.93229,0.00678948,13.0079,-4.15674,13.7101,-13.0072,19.3708,-27.7942,1.32699,38.1401,7.65036,40.2405,-27.158,10.9712,-14.1257,0.0276448,-0.0086276,-0.1233,-0.0142026,-1.87969,-0.00261547,0.192943,0.0806671,0.114087,-0.0589801,0.139445,-0.100609,0.901719,-0.947723,0.00197008,0,0,0,0,0,0,0,20.447,-27.8334,20.611,16.1679,4.9234,-2.2779,-0.00996382,
-0.00332762,-0.123986,-0.00864895,-1.88391,0.0186441,0.16654,0.0807811,0.164623,-0.000625687,0.172908,-0.111889,0.785465,-0.978057,0.00362774,12.5762,-2.75182,13.0348,-14.3846,21.9184,-28.6045,-1.97609,35.2283,7.38926,37.1805,-25.7191,10.9712,-14.1257,0.12628,-0.0086276,-0.1233,-0.0142026,-1.87969,-0.00261547,0.192943,0.0806671,0.114087,-0.0589801,0.139445,-0.100609,0.901719,-0.947723,0.00197008,0,0,0,0,0,0,0,20.447,-27.8334,20.611,16.1679,4.9234,-2.2779,-0.00996382,
-0.00130841,-0.124056,-0.00653168,-1.88565,0.026432,0.156849,0.0806766,0.182179,-0.00225472,0.191258,-0.1329,0.823067,-1.02471,0.000288318,10.9723,-1.01815,11.4688,-13.1323,23.5017,-29.1605,-2.08714,30.892,4.1208,32.2881,-26.9279,10.9712,-14.1257,-0.107581,-0.0086276,-0.1233,-0.0142026,-1.87969,-0.00261547,0.192943,0.0806671,0.114087,-0.0589801,0.139445,-0.100609,0.901719,-0.947723,0.00197008,0,0,0,0,0,0,0,20.447,-27.8334,20.611,16.1679,4.9234,-2.2779,-0.00996382,
0.00072722,-0.12407,-0.0043992,-1.88746,0.0345413,0.146848,0.0805527,0.196634,-0.00215067,0.206319,-0.151463,0.861188,-1.0698,-0.00286718,9.03439,0.0650312,9.41275,-11.6016,23.8251,-28.1771,-1.97219,28.8543,3.85213,30.2196,-26.2059,10.964,-13.8333,-0.135028,-0.000980537,-0.124978,-0.00604083,-1.88668,0.0259787,0.150206,0.0805883,0.195402,0.0337901,0.186154,-0.271003,0.723599,-1.1806,-0.0109236,10.1644,11.5963,5.83859,-21.2993,-22.265,-29.1096,-1.61171,12.0522,-18.7206,12.9859,10.2368,1.47918,-1.20399,0.104477,
0.00284352,-0.124163,-0.00200125,-1.8913,0.0389546,0.130467,0.0804725,0.20695,0.00820714,0.217582,-0.18139,0.858875,-1.10417,-0.00639042,6.4478,6.47363,7.03947,-18.7045,-1.44511,-21.4816,-2.20203,37.8521,11.0296,39.9732,-32.1546,10.964,-13.8333,0.0337577,-0.000980537,-0.124978,-0.00604083,-1.88668,0.0259787,0.150206,0.0805883,0.195402,0.0337901,0.186154,-0.271003,0.723599,-1.1806,-0.0109236,0,0,0,0,0,0,0,12.0522,-18.7206,12.9859,10.2368,1.47918,-1.20399,0.104477,
0.0048981,-0.12376,0.000173091,-1.8938,0.0462927,0.12053,0.0802671,0.216925,0.0166486,0.228424,-0.207694,0.870551,-1.13178,-0.0102486,6.23401,5.27593,6.77635,-16.4398,7.29744,-17.2574,-2.41137,32.6342,7.26421,34.3826,-33.3133,10.964,-13.6974,-0.224729,-0.000980537,-0.124978,-0.00604083,-1.88668,0.0259787,0.150206,0.0805883,0.195402,0.0337901,0.186154,-0.271003,0.723599,-1.1806,-0.0109236,0,0,0,0,0,0,0,12.0522,-18.7206,12.9859,10.2368,1.47918,-1.20399,0.104477,
0.00697145,-0.123361,0.00236772,-1.89637,0.0540669,0.1107,0.0800405,0.225373,0.0232826,0.237605,-0.230241,0.890797,-1.15115,-0.0138636,5.28045,4.1462,5.73803,-14.0917,12.6533,-12.1087,-2.25938,30.0292,6.32224,31.6281,-32.7501,10.964,-13.036,-0.261589,-0.000980537,-0.124978,-0.00604083,-1.88668,0.0259787,0.150206,0.0805883,0.195402,0.0337901,0.186154,-0.271003,0.723599,-1.1806,-0.0109236,0,0,0,0,0,0,0,12.0522,-18.7206,12.9859,10.2368,1.47918,-1.20399,0.104477,
0.00260896,-0.124765,-0.00227121,-1.89244,0.0393865,0.13345,0.080091,0.226792,0.0213273,0.238976,-0.258538,0.88733,-1.12451,-0.0178743,0.886492,-1.22201,0.857169,-17.6859,-2.16692,16.6529,-2.50669,33.39,4.17093,35.0842,-38.4425,11.1116,-10.2126,-0.310292,0.00887821,-0.126606,0.00701026,-1.89789,0.0515529,0.110501,0.0804894,0.288612,-0.110045,0.457509,-0.410183,0.650019,-1.21244,0.00192137,11.6512,-17.9794,33.9194,-17.3975,-9.19747,-3.97979,1.60562,11.596,-24.6358,11.51,12.8275,2.52929,-1.92634,0.0577852,
0.00453046,-0.12464,-0.000248496,-1.89549,0.0468561,0.125727,0.0797967,0.229471,0.0202014,0.241749,-0.28299,0.896603,-1.09267,-0.0216569,1.67448,-0.70369,1.73293,-15.2826,5.79608,19.8971,-2.3641,30.4789,3.29234,32.0151,-37.8178,11.1116,-9.2857,-0.353312,0.00887821,-0.126606,0.00701026,-1.89789,0.0515529,0.110501,0.0804894,0.288612,-0.110045,0.457509,-0.410183,0.650019,-1.21244,0.00192137,0,0,0,0,0,0,0,11.596,-24.6358,11.51,12.8275,2.52929,-1.92634,0.0577852,
0.00647353,-0.12451,0.00179797,-1.89861,0.0547111,0.118803,0.0795021,0.232154,0.0194099,0.244561,-0.304541,0.913658,-1.04724,-0.0246889,1.67669,-0.494689,1.75743,-13.4694,10.6594,28.3969,-1.89502,28.252,2.29889,29.677,-37.365,11.1116,-8.52935,-0.374384,0.00887821,-0.126606,0.00701026,-1.89789,0.0515529,0.110501,0.0804894,0.288612,-0.110045,0.457509,-0.410183,0.650019,-1.21244,0.00192137,0,0,0,0,0,0,0,11.596,-24.6358,11.51,12.8275,2.52929,-1.92634,0.0577852,
0.00841444,-0.124382,0.00384275,-1.90182,0.0628555,0.113026,0.0792179,0.234245,0.0187307,0.246768,-0.323677,0.934538,-0.982213,-0.0268576,1.30743,-0.424532,1.37959,-11.96,13.0497,40.6407,-1.3554,26.555,1.52795,27.9044,-36.858,11.1116,-6.48377,-0.370747,0.00887821,-0.126606,0.00701026,-1.89789,0.0515529,0.110501,0.0804894,0.288612,-0.110045,0.457509,-0.410183,0.650019,-1.21244,0.00192137,0,0,0,0,0,0,0,11.596,-24.6358,11.51,12.8275,2.52929,-1.92634,0.0577852,
0.0141069,-0.127274,0.0125843,-1.90396,0.0659851,0.0930395,0.0798904,0.250795,0.0092787,0.264656,-0.334546,0.940349,-0.99485,-0.0293003,10.3437,-5.90748,11.1796,-6.79314,3.63207,-7.89756,-1.52668,30.3866,3.35213,31.9696,-37.7004,11.0302,-9.01523,-0.355318,0.0182781,-0.12412,0.0209121,-1.91227,0.0721361,0.0708598,0.0804924,0.269878,0.145681,0.425834,-0.470894,0.502358,-1.1297,0.00134105,-2.34167,31.9657,-3.95938,-7.58884,-18.4576,10.3422,-0.0725397,-1.86902,-13.9558,-3.38713,11.2088,1.39404,-1.68098,0.0577852,
0.0165075,-0.127391,0.0151247,-1.90704,0.0742836,0.08573,0.0795833,0.260651,0.00450061,0.275234,-0.344757,0.959743,-0.978619,-0.0311189,6.15992,-2.98631,6.61155,-6.38158,12.1212,10.144,-1.13663,28.1597,2.35868,29.6315,-37.2476,11.0302,-8.25889,-0.37639,0.0182781,-0.12412,0.0209121,-1.91227,0.0721361,0.0708598,0.0804924,0.269878,0.145681,0.425834,-0.470894,0.502358,-1.1297,0.00134105,0,0,0,0,0,0,0,-1.86902,-13.9558,-3.38713,11.2088,1.39404,-1.68098,0.0577852,
0.0187952,-0.127444,0.0175427,-1.9102,0.0829187,0.0797452,0.0792902,0.265712,0.00226668,0.280639,-0.354746,0.983671,-0.932515,-0.0322222,3.16307,-1.3962,3.3779,-6.24321,14.9546,28.8154,-0.689559,26.4628,1.58774,27.8589,-36.7406,11.0302,-6.2133,-0.372753,0.0182781,-0.12412,0.0209121,-1.91227,0.0721361,0.0708598,0.0804924,0.269878,0.145681,0.425834,-0.470894,0.502358,-1.1297,0.00134105,0,0,0,0,0,0,0,-1.86902,-13.9558,-3.38713,11.2088,1.39404,-1.68098,0.0577852,
0.0209856,-0.127458,0.0198569,-1.9134,0.0917288,0.0751511,0.0790149,0.267331,0.00147671,0.282365,-0.363784,1.00719,-0.860864,-0.0326605,1.01183,-0.493734,1.07893,-5.64891,14.6987,44.7817,-0.273935,25.0946,0.894955,26.4334,-36.2795,11.0302,-3.78138,-0.357982,0.0182781,-0.12412,0.0209121,-1.91227,0.0721361,0.0708598,0.0804924,0.269878,0.145681,0.425834,-0.470894,0.502358,-1.1297,0.00134105,0,0,0,0,0,0,0,-1.86902,-13.9558,-3.38713,11.2088,1.39404,-1.68098,0.0577852,
0.0230606,-0.12235,0.0260476,-1.91952,0.0849086,0.0547612,0.0798706,0.271805,0.0210843,0.287734,-0.380998,0.979681,-0.878235,-0.0339394,2.79638,12.2547,3.3555,-10.7587,-17.1922,-10.857,-0.799315,28.1597,2.35868,29.6315,-37.2476,11.0302,-8.25889,-0.37639,0.0182781,-0.12412,0.0209121,-1.91227,0.0721361,0.0708598,0.0804924,0.269878,0.145681,0.425834,-0.470894,0.502358,-1.1297,0.00134105,0,0,0,0,0,0,0,-1.86902,-13.9558,-3.38713,11.2088,1.39404,-1.68098,0.0577852,
0.0252626,-0.121706,0.0283899,-1.92309,0.0925636,0.0484679,0.0795745,0.272495,0.0329849,0.288743,-0.393943,0.97512,-0.859922,-0.0345556,0.431059,7.43787,0.630947,-8.09064,-2.85047,11.4459,-0.385147,26.2288,0.790864,27.6668,-36.1928,10.8314,-6.08807,-0.375747,0.0244877,-0.121777,0.0322614,-1.92731,0.0799982,0.0477707,0.0804728,0.200613,0.218736,0.372041,-0.441983,0.31061,-0.302282,-0.00737668,-8.65812,9.13193,-6.72407,3.61388,-23.9685,103.427,-1.08972,-3.51941,-37.343,-4.93834,35.4965,-0.139469,5.87121,0.339768,
0.027373,-0.121184,0.0306303,-1.92661,0.100638,0.0435808,0.0792975,0.270757,0.0394216,0.287004,-0.403157,0.981957,-0.810114,-0.0345686,-1.08641,4.02294,-1.08686,-5.75899,4.27276,31.1298,-0.00815593,24.8606,0.0980775,26.2412,-35.7316,10.8314,-3.65615,-0.360977,0.0244877,-0.121777,0.0322614,-1.92731,0.0799982,0.0477707,0.0804728,0.200613,0.218736,0.372041,-0.441983,0.31061,-0.302282,-0.00737668,0,0,0,0,0,0,0,-3.51941,-37.343,-4.93834,35.4965,-0.139469,5.87121,0.339768,
0.0284566,-0.1195,0.036571,-1.93415,0.0905116,0.040934,0.0798584,0.265096,0.0557059,0.281807,-0.407881,0.934263,-0.733403,-0.0352169,-3.53804,10.1777,-3.24828,-2.95233,-29.8084,47.944,-0.405173,26.2288,0.790864,27.6668,-36.1928,10.8314,-6.08807,-0.375747,0.0244877,-0.121777,0.0322614,-1.92731,0.0799982,0.0477707,0.0804728,0.200613,0.218736,0.372041,-0.441983,0.31061,-0.302282,-0.00737668,0,0,0,0,0,0,0,-3.51941,-37.343,-4.93834,35.4965,-0.139469,5.87121,0.339768,
0.0303338,-0.118784,0.0385808,-1.93755,0.0973485,0.0380654,0.0795781,0.259006,0.0624492,0.27569,-0.411163,0.918333,-0.658439,-0.0351812,-3.80589,4.21455,-3.82312,-2.05137,-9.95651,46.8531,0.022313,24.8606,0.0980775,26.2412,-35.7316,10.8314,-3.65615,-0.360977,0.0244877,-0.121777,0.0322614,-1.92731,0.0799982,0.0477707,0.0804728,0.200613,0.218736,0.372041,-0.441983,0.31061,-0.302282,-0.00737668,0,0,0,0,0,0,0,-3.51941,-37.343,-4.93834,35.4965,-0.139469,5.87121,0.339768,
0.0321664,-0.118251,0.0405361,-1.9409,0.10476,0.0360029,0.0793194,0.253021,0.0632831,0.269434,-0.412814,0.919955,-0.578312,-0.0346129,-3.74061,0.521191,-3.91037,-1.03139,1.01381,50.0791,0.355229,23.6546,-0.845229,25.0344,-35.3242,10.6496,-1.56316,-0.340502,0.0312341,-0.118065,0.0436612,-1.93734,0.10222,0.0324832,0.0804945,0.143981,0.0922829,0.203109,-0.280991,0.724504,-0.345856,0.0002218,-7.07899,-15.8067,-21.1166,20.124,51.7368,-5.44677,0.94981,-9.50207,-42.2823,-9.08415,34.0286,-0.719913,5.59929,0.185044,
0.0339625,-0.117851,0.042448,-1.9442,0.112545,0.0348498,0.079081,0.247319,0.0606267,0.263344,-0.412698,0.930593,-0.491476,-0.0336485,-3.56402,-1.66029,-3.80584,0.0722884,6.64858,54.2723,0.602729,22.6737,-1.31207,24.0048,-34.9306,10.6496,0.143105,-0.317356,0.0312341,-0.118065,0.0436612,-1.93734,0.10222,0.0324832,0.0804945,0.143981,0.0922829,0.203109,-0.280991,0.724504,-0.345856,0.0002218,0,0,0,0,0,0,0,-9.50207,-42.2823,-9.08415,34.0286,-0.719913,5.59929,0.185044,
0.0342286,-0.117502,0.0468682,-1.94309,0.115744,0.0281343,0.0799528,0.236357,0.0535365,0.251769,-0.404267,0.919891,-0.441386,-0.0336169,-6.85123,-4.43133,-7.23467,5.26943,-6.68819,31.3068,0.0197601,24.7938,-0.235781,26.2244,-35.7313,10.6496,-3.61463,-0.361384,0.0312341,-0.118065,0.0436612,-1.93734,0.10222,0.0324832,0.0804945,0.143981,0.0922829,0.203109,-0.280991,0.724504,-0.345856,0.0002218,0,0,0,0,0,0,0,-9.50207,-42.2823,-9.08415,34.0286,-0.719913,5.59929,0.185044,
0.0358225,-0.117384,0.0485663,-1.94612,0.123137,0.0268852,0.0797021,0.228934,0.0457927,0.243868,-0.399185,0.920747,-0.384338,-0.0331617,-4.63931,-4.83991,-4.93814,3.17601,0.534988,35.6549,0.284473,23.6546,-0.845229,25.0344,-35.3242,10.6496,-1.56316,-0.340502,0.0312341,-0.118065,0.0436612,-1.93734,0.10222,0.0324832,0.0804945,0.143981,0.0922829,0.203109,-0.280991,0.724504,-0.345856,0.0002218,0,0,0,0,0,0,0,-9.50207,-42.2823,-9.08415,34.0286,-0.719913,5.59929,0.185044,
0.0374472,-0.117313,0.0502953,-1.94917,0.130812,0.0264156,0.079469,0.223766,0.0383963,0.238318,-0.39546,0.928451,-0.319208,-0.0323555,-3.22996,-4.62274,-3.46836,2.32817,4.81492,40.7061,0.50391,22.6287,-1.29784,23.9767,-34.7735,10.524,0.269185,-0.317941,0.0362355,-0.111027,0.0515772,-1.94357,0.127967,0.0161775,0.0804971,0.0946356,0.221037,0.16903,-0.220547,0.537804,-0.294753,-0.00226763,-6.16823,16.0942,-4.25979,7.55552,-23.3375,6.38788,-0.311179,-16.909,-22.914,-17.586,26.7288,-0.890201,5.18822,0.158493,
0.0390852,-0.117272,0.0520369,-1.95219,0.138693,0.0267427,0.0792542,0.219961,0.0317481,0.234197,-0.392024,0.939802,-0.247191,-0.0312548,-2.37826,-4.15512,-2.57606,2.14777,7.09397,45.0109,0.687924,21.7676,-1.59945,23.0683,-34.3634,10.524,1.67876,-0.294173,0.0362355,-0.111027,0.0515772,-1.94357,0.127967,0.0161775,0.0804971,0.0946356,0.221037,0.16903,-0.220547,0.537804,-0.294753,-0.00226763,0,0,0,0,0,0,0,-16.909,-22.914,-17.586,26.7288,-0.890201,5.18822,0.158493,
0.0386701,-0.109535,0.054223,-1.94954,0.139575,0.0142854,0.0799885,0.208019,0.0397359,0.221926,-0.391256,0.906092,-0.213879,-0.0312141,-7.46399,4.99235,-7.66941,0.479938,-21.0684,20.82,0.0254231,23.6097,-0.831001,25.0063,-35.1672,10.524,-1.43708,-0.341087,0.0362355,-0.111027,0.0515772,-1.94357,0.127967,0.0161775,0.0804971,0.0946356,0.221037,0.16903,-0.220547,0.537804,-0.294753,-0.00226763,0,0,0,0,0,0,0,-16.909,-22.914,-17.586,26.7288,-0.890201,5.18822,0.158493,
0.0400449,-0.109144,0.0556981,-1.95268,0.146273,0.0142593,0.0797584,0.200786,0.0415804,0.214418,-0.391494,0.89234,-0.171756,-0.0307257,-4.52032,1.15282,-4.6925,-0.148917,-8.5951,26.3267,0.305239,22.6287,-1.29784,23.9767,-34.7735,10.524,0.269185,-0.317941,0.0362355,-0.111027,0.0515772,-1.94357,0.127967,0.0161775,0.0804971,0.0946356,0.221037,0.16903,-0.220547,0.537804,-0.294753,-0.00226763,0,0,0,0,0,0,0,-16.909,-22.914,-17.586,26.7288,-0.890201,5.18822,0.158493,
0.0414839,-0.108865,0.0572369,-1.95578,0.15337,0.0149005,0.0795462,0.196602,0.0402205,0.210006,-0.390911,0.891287,-0.121375,-0.0298836,-2.61497,-0.849891,-2.75719,0.364243,-0.658457,31.4884,0.526317,21.7801,-1.77818,23.1046,-34.3039,10.4358,1.67358,-0.294537,0.0396018,-0.108282,0.058525,-1.95,0.145047,0.0149031,0.0804986,0.055645,0.0477383,0.0709913,-0.190233,0.446837,0.00204988,0.00253422,-4.87383,-21.6623,-12.2549,3.78917,-11.3709,37.1004,0.600231,-17.7223,-44.6309,-17.7844,36.7661,-0.866398,4.60412,0.151169,
0.0412928,-0.108414,0.0603763,-1.95511,0.1555,0.0169833,0.0800461,0.18108,0.0293986,0.19385,-0.379967,0.854185,-0.0656987,-0.0294563,-9.70111,-6.76375,-10.0974,6.8403,-23.1883,34.7973,0.267055,22.6413,-1.47657,24.013,-34.714,10.4358,0.264,-0.318305,0.0396018,-0.108282,0.058525,-1.95,0.145047,0.0149031,0.0804986,0.055645,0.0477383,0.0709913,-0.190233,0.446837,0.00204988,0.00253422,0,0,0,0,0,0,0,-17.7223,-44.6309,-17.7844,36.7661,-0.866398,4.60412,0.151169,
0.0424028,-0.108536,0.0615722,-1.95789,0.161773,0.0186714,0.0798405,0.172615,0.020477,0.184977,-0.373374,0.840179,-0.0103573,-0.0287049,-5.291,-5.57598,-5.546,4.12041,-8.75407,34.5884,0.469637,21.7801,-1.77818,23.1046,-34.3039,10.4358,1.67358,-0.294537,0.0396018,-0.108282,0.058525,-1.95,0.145047,0.0149031,0.0804986,0.055645,0.0477383,0.0709913,-0.190233,0.446837,0.00204988,0.00253422,0,0,0,0,0,0,0,-17.7223,-44.6309,-17.7844,36.7661,-0.866398,4.60412,0.151169,
0.0436268,-0.108647,0.0628849,-1.96069,0.168527,0.0208246,0.0796515,0.168691,0.0136014,0.180799,-0.368656,0.840981,0.0455461,-0.0276889,-2.45208,-4.29725,-2.61133,2.94905,0.501098,34.9396,0.635027,21.022,-1.93836,22.3019,-33.8748,10.4358,2.80666,-0.270042,0.0396018,-0.108282,0.058525,-1.95,0.145047,0.0149031,0.0804986,0.055645,0.0477383,0.0709913,-0.190233,0.446837,0.00204988,0.00253422,0,0,0,0,0,0,0,-17.7223,-44.6309,-17.7844,36.7661,-0.866398,4.60412,0.151169,
0.0449301,-0.108742,0.0642787,-1.96348,0.175649,0.0234397,0.0794793,0.167536,0.00850289,0.179485,-0.364635,0.850846,0.101812,-0.0264564,-0.72186,-3.18656,-0.820922,2.51275,6.16591,35.1663,0.770298,20.3238,-2.0126,21.578,-33.3817,10.3575,3.76323,-0.245434,0.0421803,-0.107525,0.0624349,-1.95614,0.16509,0.0158773,0.0805086,0.077407,0.109075,0.0645853,-0.154899,0.277393,0.023592,-0.000287216,2.72025,7.66713,-0.800755,4.41672,-21.1805,2.69276,-0.35268,-9.50207,-22.7156,-8.96117,19.4806,-0.249332,1.86577,0.0706026,
0.0438215,-0.107235,0.0642516,-1.96136,0.174198,0.0193734,0.0800821,0.156845,0.00829313,0.168611,-0.360692,0.808438,0.1316,-0.0263093,-6.6819,-0.1311,-6.79617,2.46451,-26.5051,18.6175,0.09193,21.7606,-1.80552,23.1019,-34.256,10.3575,1.71342,-0.294488,0.0421803,-0.107525,0.0624349,-1.95614,0.16509,0.0158773,0.0805086,0.077407,0.109075,0.0645853,-0.154899,0.277393,0.023592,-0.000287216,0,0,0,0,0,0,0,-9.50207,-22.7156,-8.96117,19.4806,-0.249332,1.86577,0.0706026,
0.0448797,-0.107226,0.0653988,-1.96418,0.180093,0.0217837,0.0798945,0.151933,0.00685919,0.16357,-0.359146,0.794138,0.165536,-0.0257375,-3.07035,-0.89621,-3.15092,0.966132,-8.93716,21.2101,0.357381,21.0025,-1.9657,22.2991,-33.8269,10.3575,2.8465,-0.269992,0.0421803,-0.107525,0.0624349,-1.95614,0.16509,0.0158773,0.0805086,0.077407,0.109075,0.0645853,-0.154899,0.277393,0.023592,-0.000287216,0,0,0,0,0,0,0,-9.50207,-22.7156,-8.96117,19.4806,-0.249332,1.86577,0.0706026,
0.0460469,-0.107234,0.0666559,-1.967,0.186567,0.0245869,0.079724,0.150726,0.0053088,0.162283,-0.357763,0.797153,0.202509,-0.024852,-0.754362,-0.968994,-0.804106,0.864417,1.88441,23.108,0.553437,20.3238,-2.0126,21.578,-33.3817,10.3575,3.76323,-0.245434,0.0421803,-0.107525,0.0624349,-1.95614,0.16509,0.0158773,0.0805086,0.077407,0.109075,0.0645853,-0.154899,0.277393,0.023592,-0.000287216,0,0,0,0,0,0,0,-9.50207,-22.7156,-8.96117,19.4806,-0.249332,1.86577,0.0706026,
0.0472924,-0.107245,0.0679919,-1.96978,0.193473,0.0277706,0.0795701,0.151718,0.00395812,0.163227,-0.355867,0.810384,0.241601,-0.0237294,0.619806,-0.844172,0.589797,1.18538,8.26906,24.4323,0.701622,19.7089,-1.91768,20.9292,-32.9598,10.3178,4.44353,-0.221062,0.0442283,-0.105961,0.0647214,-1.95929,0.172678,0.0246251,0.0804823,0.0720742,0.0515133,0.094481,-0.0786499,0.239809,0.44402,-0.00687074,-0.666603,-7.19527,3.73697,9.53118,-4.69805,52.5535,-0.822941,0.463749,-33.4987,0.211195,22.944,1.38122,0.758902,0.225327,
0.0459008,-0.106395,0.0665785,-1.96368,0.181767,0.033102,0.0800793,0.144162,-0.0035008,0.15559,-0.344429,0.777251,0.299048,-0.0237721,-4.72214,-4.66183,-4.77317,7.1484,-20.7083,35.9044,-0.0266827,21.0031,-1.91027,22.3062,-33.8643,10.3178,2.8237,-0.269946,0.0442283,-0.105961,0.0647214,-1.95929,0.172678,0.0246251,0.0804823,0.0720742,0.0515133,0.094481,-0.0786499,0.239809,0.44402,-0.00687074,0,0,0,0,0,0,0,0.463749,-33.4987,0.211195,22.944,1.38122,0.758902,0.225327,
0.0469376,-0.106649,0.0677026,-1.9662,0.187755,0.0372901,0.0799076,0.141248,-0.00915001,0.152573,-0.338394,0.771498,0.343942,-0.0233099,-1.82149,-3.53076,-1.88529,3.77223,-3.59563,28.0589,0.288837,20.3244,-1.95717,21.5851,-33.4191,10.3178,3.74043,-0.245388,0.0442283,-0.105961,0.0647214,-1.95929,0.172678,0.0246251,0.0804823,0.0720742,0.0515133,0.094481,-0.0786499,0.239809,0.44402,-0.00687074,0,0,0,0,0,0,0,0.463749,-33.4987,0.211195,22.944,1.38122,0.758902,0.225327,
0.0480718,-0.106866,0.068924,-1.96875,0.194332,0.0415083,0.0797536,0.141354,-0.0127544,0.152595,-0.334638,0.781635,0.380608,-0.0224981,0.0664005,-2.25272,0.0134897,2.34715,6.33615,22.9164,0.507409,19.7089,-1.91768,20.9292,-32.9598,10.3178,4.44353,-0.221062,0.0442283,-0.105961,0.0647214,-1.95929,0.172678,0.0246251,0.0804823,0.0720742,0.0515133,0.094481,-0.0786499,0.239809,0.44402,-0.00687074,0,0,0,0,0,0,0,0.463749,-33.4987,0.211195,22.944,1.38122,0.758902,0.225327,
0.0458699,-0.106387,0.066544,-1.9637,0.181811,0.0336445,0.080117,0.135382,-0.0166628,0.146546,-0.327426,0.754836,0.418106,-0.0223081,-3.7327,-2.44277,-3.78031,4.5073,-16.7499,23.436,0.118733,20.3043,-1.77063,21.5759,-33.5216,10.296,3.66962,-0.244544,0.0472381,-0.104167,0.0694525,-1.96389,0.177447,0.0467168,0.0804924,0.0886888,0.000241922,0.131861,-0.217553,0.0495872,0.736057,0.000977216,2.07682,-6.40892,4.67246,-17.3629,-23.7777,36.5045,0.980995,0.967594,-28.131,0.413527,28.2999,3.07953,0.719534,0.14476,
0.0468811,-0.106627,0.0676405,-1.96619,0.18782,0.0381688,0.0799639,0.133588,-0.0193225,0.144649,-0.324374,0.754102,0.447593,-0.0216742,-1.12135,-1.66229,-1.18577,1.90789,-0.458706,18.4295,0.396197,19.6888,-1.73114,20.92,-33.0623,10.296,4.37273,-0.220218,0.0472381,-0.104167,0.0694525,-1.96389,0.177447,0.0467168,0.0804924,0.0886888,0.000241922,0.131861,-0.217553,0.0495872,0.736057,0.000977216,0,0,0,0,0,0,0,0.967594,-28.131,0.413527,28.2999,3.07953,0.719534,0.14476,
0.0479857,-0.106827,0.06883,-1.96872,0.194416,0.0427021,0.0798279,0.134484,-0.0204583,0.145456,-0.322675,0.768168,0.471407,-0.0207402,0.560014,-0.709881,0.504523,1.06153,8.79142,14.8836,0.583733,19.1209,-1.63034,20.3136,-32.5938,10.296,4.92147,-0.196646,0.0472381,-0.104167,0.0694525,-1.96389,0.177447,0.0467168,0.0804924,0.0886888,0.000241922,0.131861,-0.217553,0.0495872,0.736057,0.000977216,0,0,0,0,0,0,0,0.967594,-28.131,0.413527,28.2999,3.07953,0.719534,0.14476,
0.0491594,-0.106987,0.0700888,-1.97125,0.201435,0.0472755,0.0797077,0.136931,-0.0203764,0.147835,-0.321304,0.790027,0.491461,-0.0195964,1.5295,0.0511378,1.48633,0.85692,13.662,12.5339,0.714883,18.5918,-1.49015,19.7474,-32.119,10.296,5.31162,-0.173806,0.0472381,-0.104167,0.0694525,-1.96389,0.177447,0.0467168,0.0804924,0.0886888,0.000241922,0.131861,-0.217553,0.0495872,0.736057,0.000977216,0,0,0,0,0,0,0,0.967594,-28.131,0.413527,28.2999,3.07953,0.719534,0.14476,
0.0490298,-0.104555,0.0714598,-1.96864,0.184902,0.0575995,0.0801568,0.132929,-0.0213014,0.144134,-0.318383,0.745441,0.524918,-0.0196533,-2.50084,-0.578123,-2.31302,1.82566,-27.8663,20.9107,-0.0355298,19.6888,-1.73114,20.92,-33.0623,10.296,4.37273,-0.220218,0.0472381,-0.104167,0.0694525,-1.96389,0.177447,0.0467168,0.0804924,0.0886888,0.000241922,0.131861,-0.217553,0.0495872,0.736057,0.000977216,0,0,0,0,0,0,0,0.967594,-28.131,0.413527,28.2999,3.07953,0.719534,0.14476,
0.0500457,-0.104728,0.0725677,-1.97114,0.190521,0.0626399,0.080018,0.13174,-0.0213606,0.143004,-0.317206,0.736821,0.545945,-0.0191948,-0.74344,-0.0369975,-0.705879,0.73569,-5.38745,13.1417,0.286537,19.0987,-1.44069,20.3112,-32.815,10.2897,4.78595,-0.195714,0.0505173,-0.104993,0.0746411,-1.96978,0.178385,0.0796885,0.0804981,0.0803318,0.0847808,0.12664,-0.106871,0.0725694,1.04522,0.00281041,-1.04462,10.5674,-0.652616,13.8352,2.87278,38.6456,0.229149,3.96289,-31.9991,3.13905,21.5991,2.56042,0.43389,0.0641939,
0.0511324,-0.104868,0.0737427,-1.97365,0.196882,0.0675531,0.0798967,0.132561,-0.0205829,0.143778,-0.316463,0.748482,0.559585,-0.0183865,0.512975,0.48607,0.483873,0.464537,7.28824,8.52506,0.505188,18.5696,-1.3005,19.7449,-32.3402,10.2897,5.1761,-0.172873,0.0505173,-0.104993,0.0746411,-1.96978,0.178385,0.0796885,0.0804981,0.0803318,0.0847808,0.12664,-0.106871,0.0725694,1.04522,0.00281041,0,0,0,0,0,0,0,3.96289,-31.9991,3.13905,21.5991,2.56042,0.43389,0.0641939,
0.0521534,-0.104959,0.0764942,-1.974,0.186309,0.0944521,0.0801837,0.127471,-0.0179824,0.138908,-0.309612,0.717556,0.621465,-0.018358,-3.18093,1.6253,-3.04429,4.28155,-19.329,38.675,0.0178402,19.0987,-1.44069,20.3112,-32.815,10.2897,4.78595,-0.195714,0.0505173,-0.104993,0.0746411,-1.96978,0.178385,0.0796885,0.0804981,0.0803318,0.0847808,0.12664,-0.106871,0.0725694,1.04522,0.00281041,0,0,0,0,0,0,0,3.96289,-31.9991,3.13905,21.5991,2.56042,0.43389,0.0641939,
0.0530941,-0.105059,0.0775251,-1.97635,0.192091,0.100725,0.0800595,0.125492,-0.0168712,0.136898,-0.306483,0.718584,0.653996,-0.0177917,-1.23674,0.694498,-1.2562,1.95611,0.642257,20.3317,0.353939,18.5696,-1.3005,19.7449,-32.3402,10.2897,5.1761,-0.172873,0.0505173,-0.104993,0.0746411,-1.96978,0.178385,0.0796885,0.0804981,0.0803318,0.0847808,0.12664,-0.106871,0.0725694,1.04522,0.00281041,0,0,0,0,0,0,0,3.96289,-31.9991,3.13905,21.5991,2.56042,0.43389,0.0641939,
0.0541102,-0.10516,0.0786273,-1.97873,0.198573,0.106515,0.0799534,0.125798,-0.0160259,0.137074,-0.304756,0.736922,0.667942,-0.0168851,0.190722,0.528315,0.110021,1.07896,11.4614,8.7163,0.566586,18.039,-1.03635,19.1926,-31.9428,10.2983,5.32988,-0.150289,0.0539016,-0.104469,0.0801476,-1.97468,0.178986,0.113219,0.0804947,0.0981329,0.0558457,0.177769,-0.192409,-0.0415102,0.900284,-0.00180397,2.22513,-3.61689,6.39111,-10.6922,-14.26,-18.1172,-0.576798,2.36408,-27.5835,1.98854,25.856,2.52929,2.42974,0.138352,
0.0551882,-0.105249,0.0797892,-1.98112,0.205543,0.111966,0.0798633,0.127588,-0.0150586,0.138706,-0.303528,0.763787,0.670635,-0.0157619,1.11912,0.604575,1.01995,0.767553,16.7908,1.6834,0.702011,17.5649,-0.865766,18.684,-31.4662,10.2983,5.50013,-0.129512,0.0539016,-0.104469,0.0801476,-1.97468,0.178986,0.113219,0.0804947,0.0981329,0.0558457,0.177769,-0.192409,-0.0415102,0.900284,-0.00180397,0,0,0,0,0,0,0,2.36408,-27.5835,1.98854,25.856,2.52929,2.42974,0.138352,
0.0558233,-0.1044,0.0823173,-1.97934,0.186151,0.126079,0.0802012,0.126297,-0.0123297,0.137922,-0.30319,0.723602,0.689489,-0.0159653,-0.806681,1.7056,-0.490044,0.2114,-25.1158,11.7832,-0.127152,18.5384,-1.19867,19.7275,-32.4194,10.2983,5.04554,-0.171996,0.0539016,-0.104469,0.0801476,-1.97468,0.178986,0.113219,0.0804947,0.0981329,0.0558457,0.177769,-0.192409,-0.0415102,0.900284,-0.00180397,0,0,0,0,0,0,0,2.36408,-27.5835,1.98854,25.856,2.52929,2.42974,0.138352,
0.0568338,-0.104431,0.0834246,-1.98179,0.191835,0.131717,0.08009,0.126298,-0.0106444,0.13802,-0.303792,0.720996,0.692537,-0.0155529,0.000481427,1.05329,0.0612531,-0.376052,-1.62847,1.90501,0.2578,18.039,-1.03635,19.1926,-31.9428,10.2983,5.32988,-0.150289,0.0539016,-0.104469,0.0801476,-1.97468,0.178986,0.113219,0.0804947,0.0981329,0.0558457,0.177769,-0.192409,-0.0415102,0.900284,-0.00180397,0,0,0,0,0,0,0,2.36408,-27.5835,1.98854,25.856,2.52929,2.42974,0.138352,
0.057891,-0.104461,0.084572,-1.98423,0.198301,0.137016,0.0799973,0.127471,-0.00926756,0.139101,-0.304194,0.738445,0.686508,-0.0147587,0.73273,0.860521,0.675645,-0.251278,10.9053,-3.76794,0.496339,17.6026,-0.810835,18.7298,-31.57,10.3446,5.3876,-0.129116,0.0568162,-0.104145,0.0839382,-1.9806,0.177439,0.141108,0.0804994,0.0815087,0.052127,0.0909994,-0.173746,-0.00335639,0.864065,0.00255547,-2.07803,-0.464839,-10.8462,2.33282,4.76923,-4.5273,0.54493,-6.86779,-33.947,-7.33458,37.4643,2.07794,4.75701,0.110886,
0.0589904,-0.104483,0.0857576,-1.98666,0.205295,0.142069,0.0799207,0.129461,-0.0079583,0.140921,-0.304062,0.765593,0.675535,-0.0137221,1.24398,0.818285,1.13771,0.0825855,16.9676,-6.85806,0.6479,17.1488,-0.641379,18.2429,-31.0962,10.3446,5.48845,-0.10958,0.0568162,-0.104145,0.0839382,-1.9806,0.177439,0.141108,0.0804994,0.0815087,0.052127,0.0909994,-0.173746,-0.00335639,0.864065,0.00255547,0,0,0,0,0,0,0,-6.86779,-33.947,-7.33458,37.4643,2.07794,4.75701,0.110886,
0.0582134,-0.104136,0.0855425,-1.98511,0.184755,0.153946,0.0802507,0.122107,-0.00724137,0.133665,-0.302041,0.725517,0.694124,-0.0137942,-4.59636,0.448081,-4.53526,1.26308,-25.0473,11.6183,-0.0450893,18.0767,-0.981419,19.2383,-32.0466,10.3446,5.21735,-0.149892,0.0568162,-0.104145,0.0839382,-1.9806,0.177439,0.141108,0.0804994,0.0815087,0.052127,0.0909994,-0.173746,-0.00335639,0.864065,0.00255547,0,0,0,0,0,0,0,-6.86779,-33.947,-7.33458,37.4643,2.07794,4.75701,0.110886,
0.0590473,-0.104179,0.0864636,-1.98751,0.190403,0.159631,0.0801587,0.118533,-0.0068811,0.129959,-0.301438,0.721613,0.697424,-0.0133346,-2.23391,0.225171,-2.31616,0.37661,-2.44015,2.06207,0.287273,17.6026,-0.810835,18.7298,-31.57,10.3446,5.3876,-0.129116,0.0568162,-0.104145,0.0839382,-1.9806,0.177439,0.141108,0.0804994,0.0815087,0.052127,0.0909994,-0.173746,-0.00335639,0.864065,0.00255547,0,0,0,0,0,0,0,-6.86779,-33.947,-7.33458,37.4643,2.07794,4.75701,0.110886,
0.0599643,-0.104213,0.0874634,-1.9899,0.196811,0.164961,0.0800835,0.117749,-0.00636024,0.128962,-0.300943,0.737486,0.691187,-0.0125471,-0.489648,0.325534,-0.622664,0.309531,9.92064,-3.8981,0.492199,17.1462,-0.609212,18.2513,-31.0952,10.3493,5.43358,-0.109669,0.0601525,-0.102856,0.089553,-1.98622,0.182231,0.162635,0.0804918,0.117762,0.0786999,0.134177,-0.142943,0.0725595,0.582262,-0.00157243,4.53171,3.32162,5.3972,3.85036,9.48948,-35.2254,-0.515987,-7.9588,-31.6023,-7.48534,32.3822,1.49109,2.79412,0.164902,
0.0619637,-0.102702,0.0915846,-1.99085,0.190674,0.173185,0.0802603,0.117216,-0.00441989,0.128708,-0.301362,0.715949,0.68337,-0.0125759,-0.333425,1.21272,-0.158844,-0.262062,-13.461,-4.88563,-0.0180459,17.6,-0.778669,18.7382,-31.569,10.3493,5.33274,-0.129204,0.0601525,-0.102856,0.089553,-1.98622,0.182231,0.162635,0.0804918,0.117762,0.0786999,0.134177,-0.142943,0.0725595,0.582262,-0.00157243,0,0,0,0,0,0,0,-7.9588,-31.6023,-7.48534,32.3822,1.49109,2.79412,0.164902,
0.0629331,-0.102687,0.0926452,-1.9933,0.196738,0.178182,0.0801805,0.118006,-0.00315347,0.129481,-0.302377,0.724367,0.671619,-0.0120559,0.49416,0.79151,0.482887,-0.634223,5.26135,-7.34452,0.325033,17.1462,-0.609212,18.2513,-31.0952,10.3493,5.43358,-0.109669,0.0601525,-0.102856,0.089553,-1.98622,0.182231,0.162635,0.0804918,0.117762,0.0786999,0.134177,-0.142943,0.0725595,0.582262,-0.00157243,0,0,0,0,0,0,0,-7.9588,-31.6023,-7.48534,32.3822,1.49109,2.79412,0.164902,
0.0639509,-0.102665,0.093749,-1.99573,0.203475,0.182982,0.0801174,0.119851,-0.00197305,0.13118,-0.302705,0.74792,0.657296,-0.0112228,1.15308,0.737762,1.06177,-0.205313,14.7209,-8.95144,0.52067,16.7105,-0.44799,17.7835,-30.6249,10.3493,5.45481,-0.0910921,0.0601525,-0.102856,0.089553,-1.98622,0.182231,0.162635,0.0804918,0.117762,0.0786999,0.134177,-0.142943,0.0725595,0.582262,-0.00157243,0,0,0,0,0,0,0,-7.9588,-31.6023,-7.48534,32.3822,1.49109,2.79412,0.164902,
0.0650096,-0.102633,0.0948906,-1.99813,0.210665,0.187611,0.0800685,0.122348,-0.000799435,0.133483,-0.302169,0.778083,0.641574,-0.0102006,1.5608,0.73351,1.43976,0.33534,18.852,-9.82663,0.638912,16.3243,-0.2842,17.381,-30.2328,10.3548,5.36906,-0.0732623,0.0633794,-0.102184,0.094653,-1.99235,0.187269,0.179727,0.0804981,0.0648728,-0.0164022,0.0781592,-0.164611,0.0381628,0.54058,-0.00102974,-6.61119,-11.8878,-7.00223,-2.70847,-4.29958,-5.21025,0.0678358,-12.3188,-35.0221,-12.3849,32.0331,1.03332,3.29857,0.151169,
0.0646417,-0.102751,0.0961029,-1.99676,0.195091,0.189824,0.0803129,0.114945,-0.00705431,0.126041,-0.299103,0.74111,0.639705,-0.010175,-4.62718,-3.9093,-4.6517,1.91595,-23.1084,-1.16816,0.015983,17.1803,-0.594523,18.3001,-31.1684,10.3548,5.36923,-0.109229,0.0633794,-0.102184,0.094653,-1.99235,0.187269,0.179727,0.0804981,0.0648728,-0.0164022,0.0781592,-0.164611,0.0381628,0.54058,-0.00102974,0,0,0,0,0,0,0,-12.3188,-35.0221,-12.3849,32.0331,1.03332,3.29857,0.151169,
0.0654247,-0.102929,0.0969674,-1.99908,0.200914,0.194757,0.0802509,0.111529,-0.0101001,0.122445,-0.29749,0.738463,0.635075,-0.00968875,-2.1349,-1.90362,-2.24698,1.00841,-1.65407,-2.89375,0.303901,16.7446,-0.433301,17.8323,-30.6981,10.3548,5.39046,-0.0906524,0.0633794,-0.102184,0.094653,-1.99235,0.187269,0.179727,0.0804981,0.0648728,-0.0164022,0.0781592,-0.164611,0.0381628,0.54058,-0.00102974,0,0,0,0,0,0,0,-12.3188,-35.0221,-12.3849,32.0331,1.03332,3.29857,0.151169,
0.0662936,-0.103043,0.0979151,-2.00141,0.207458,0.199534,0.0802037,0.110946,-0.0109164,0.121648,-0.296061,0.754377,0.62749,-0.00893133,-0.364374,-0.510178,-0.498089,0.893054,9.94628,-4.74034,0.473384,16.3243,-0.2842,17.381,-30.2328,10.3548,5.36906,-0.0732623,0.0633794,-0.102184,0.094653,-1.99235,0.187269,0.179727,0.0804981,0.0648728,-0.0164022,0.0781592,-0.164611,0.0381628,0.54058,-0.00102974,0,0,0,0,0,0,0,-12.3188,-35.0221,-12.3849,32.0331,1.03332,3.29857,0.151169,
0.0672312,-0.103108,0.0989301,-2.00371,0.214497,0.204153,0.0801691,0.112198,-0.0103618,0.122694,-0.294475,0.779464,0.617462,-0.0080098,0.782139,0.346638,0.653317,0.991511,15.6794,-6.26721,0.575958,15.944,-0.0684953,16.9859,-29.729,10.3614,5.30814,-0.0572808,0.0668184,-0.100699,0.101083,-1.99915,0.192079,0.195298,0.0804983,0.136266,-0.0503965,0.219098,-0.181151,0.282649,0.424508,-0.00188517,8.9242,-4.24929,17.6173,-2.06752,30.5607,-14.509,-0.106929,0.816837,-32.0744,1.23872,27.8754,1.72363,2.70165,0.14476,
0.0692365,-0.10152,0.103728,-2.00355,0.202777,0.203981,0.0803203,0.119462,-0.017222,0.130394,-0.292383,0.774484,0.604765,-0.00831666,4.54046,-4.28764,4.81269,1.30747,-3.11294,-7.936,-0.191791,16.7704,-0.351762,17.8734,-30.655,10.3614,5.40382,-0.091172,0.0668184,-0.100699,0.101083,-1.99915,0.192079,0.195298,0.0804983,0.136266,-0.0503965,0.219098,-0.181151,0.282649,0.424508,-0.00188517,0,0,0,0,0,0,0,0.816837,-32.0744,1.23872,27.8754,1.72363,2.70165,0.14476,
0.0704094,-0.101768,0.104993,-2.00584,0.209639,0.208411,0.0802642,0.124893,-0.01998,0.135942,-0.291276,0.791153,0.594571,-0.00805575,3.39427,-1.72377,3.46752,0.691827,10.4186,-6.37119,0.163074,16.3501,-0.202662,17.4222,-30.1896,10.3614,5.38243,-0.073782,0.0668184,-0.100699,0.101083,-1.99915,0.192079,0.195298,0.0804983,0.136266,-0.0503965,0.219098,-0.181151,0.282649,0.424508,-0.00188517,0,0,0,0,0,0,0,0.816837,-32.0744,1.23872,27.8754,1.72363,2.70165,0.14476,
0.0715783,-0.101932,0.106249,-2.00813,0.217013,0.212779,0.0802238,0.129136,-0.0200716,0.140147,-0.290159,0.817259,0.584851,-0.00745457,2.65167,-0.0572189,2.62808,0.69769,16.316,-6.07505,0.375736,15.944,-0.0684953,16.9859,-29.729,10.3614,5.30814,-0.0572808,0.0668184,-0.100699,0.101083,-1.99915,0.192079,0.195298,0.0804983,0.136266,-0.0503965,0.219098,-0.181151,0.282649,0.424508,-0.00188517,0,0,0,0,0,0,0,0.816837,-32.0744,1.23872,27.8754,1.72363,2.70165,0.14476,
0.0727454,-0.102034,0.107499,-2.0104,0.224707,0.217051,0.0801967,0.132487,-0.0186014,0.143387,-0.288776,0.846164,0.574693,-0.00664064,2.09429,0.918855,2.02467,0.864626,18.0657,-6.34839,0.508704,15.5507,0.0499653,16.5635,-29.2737,10.3614,5.21134,-0.0418582,0.0668184,-0.100699,0.101083,-1.99915,0.192079,0.195298,0.0804983,0.136266,-0.0503965,0.219098,-0.181151,0.282649,0.424508,-0.00188517,0,0,0,0,0,0,0,0.816837,-32.0744,1.23872,27.8754,1.72363,2.70165,0.14476,
0.0716938,-0.101888,0.107333,-2.01015,0.208706,0.215115,0.0803605,0.131482,-0.0236126,0.14254,-0.288376,0.823261,0.558085,-0.00677392,-0.6279,-3.13201,-0.528892,0.249765,-14.3147,-10.38,-0.0833019,16.3622,-0.249759,17.4483,-30.2279,10.3599,5.33853,-0.0734828,0.0696647,-0.101056,0.105097,-2.00569,0.198357,0.207628,0.0805,0.101389,-0.0596753,0.177185,-0.191567,0.270401,0.298638,0.000186423,-4.35965,-1.15985,-5.23915,-1.30194,-1.53101,-15.7337,0.258949,10.9096,-27.3811,9.41133,18.584,2.42584,0.281912,0.0907442,
0.0727346,-0.102116,0.10846,-2.01245,0.215393,0.219176,0.0803199,0.131207,-0.0245813,0.142221,-0.288306,0.825797,0.547996,-0.00643254,-0.172056,-0.6054,-0.19957,0.0437765,1.58492,-6.30597,0.213368,15.9562,-0.115593,17.012,-29.7673,10.3599,5.26425,-0.0569817,0.0696647,-0.101056,0.105097,-2.00569,0.198357,0.207628,0.0805,0.101389,-0.0596753,0.177185,-0.191567,0.270401,0.298638,0.000186423,0,0,0,0,0,0,0,10.9096,-27.3811,9.41133,18.584,2.42584,0.281912,0.0907442,
0.0737972,-0.102254,0.109606,-2.01474,0.222611,0.223253,0.0802934,0.13153,-0.0231215,0.142415,-0.287777,0.84107,0.540322,-0.00580793,0.201835,0.91236,0.121032,0.33108,9.54596,-4.79602,0.39038,15.5629,0.00286796,16.5896,-29.312,10.3599,5.16745,-0.041559,0.0696647,-0.101056,0.105097,-2.00569,0.198357,0.207628,0.0805,0.101389,-0.0596753,0.177185,-0.191567,0.270401,0.298638,0.000186423,0,0,0,0,0,0,0,10.9096,-27.3811,9.41133,18.584,2.42584,0.281912,0.0907442,
0.0716707,-0.101866,0.107307,-2.01009,0.208725,0.215007,0.0803845,0.13035,-0.0269358,0.14136,-0.286736,0.819488,0.529001,-0.00581119,-0.73738,-2.38395,-0.659115,0.650094,-13.4887,-7.07561,-0.00203568,15.9562,-0.115593,17.012,-29.7673,10.3599,5.26425,-0.0569817,0.0696647,-0.101056,0.105097,-2.00569,0.198357,0.207628,0.0805,0.101389,-0.0596753,0.177185,-0.191567,0.270401,0.298638,0.000186423,0,0,0,0,0,0,0,10.9096,-27.3811,9.41133,18.584,2.42584,0.281912,0.0907442,
0.0726925,-0.102083,0.108414,-2.01236,0.215426,0.218988,0.0803553,0.129826,-0.0269733,0.14076,-0.28609,0.823109,0.522712,-0.00537824,-0.327198,-0.0234062,-0.375297,0.404156,2.26294,-3.93072,0.270592,15.5455,0.0199506,16.594,-29.2989,10.3405,5.18812,-0.0416689,0.0737841,-0.100749,0.112503,-2.01185,0.2089,0.215519,0.0804978,0.122679,0.0534586,0.221412,-0.143584,0.345176,0.13548,-0.00454255,2.66118,14.1417,5.52838,5.99785,9.34692,-20.3948,-0.591121,5.15308,-26.4845,4.71406,16.5646,1.99829,0.613333,0.110886,
0.0737332,-0.102212,0.109536,-2.0146,0.222655,0.222973,0.0803396,0.129879,-0.0248097,0.140653,-0.285093,0.839225,0.517807,-0.00469541,0.0329154,1.35219,-0.0668545,0.623171,10.0727,-3.06592,0.426768,15.164,0.122225,16.184,-28.8486,10.3405,5.05984,-0.0270597,0.0737841,-0.100749,0.112503,-2.01185,0.2089,0.215519,0.0804978,0.122679,0.0534586,0.221412,-0.143584,0.345176,0.13548,-0.00454255,0,0,0,0,0,0,0,5.15308,-26.4845,4.71406,16.5646,1.99829,0.613333,0.110886,
0.0747891,-0.10228,0.11067,-2.01683,0.230226,0.226906,0.0803354,0.1303,-0.0215628,0.140886,-0.283638,0.860644,0.512551,-0.00386098,0.263235,2.02935,0.14585,0.90899,13.3866,-3.28454,0.521519,14.7934,0.209072,15.7858,-28.4035,10.3405,4.9252,-0.0133691,0.0737841,-0.100749,0.112503,-2.01185,0.2089,0.215519,0.0804978,0.122679,0.0534586,0.221412,-0.143584,0.345176,0.13548,-0.00454255,0,0,0,0,0,0,0,5.15308,-26.4845,4.71406,16.5646,1.99829,0.613333,0.110886,
0.0761149,-0.10071,0.115058,-2.01644,0.220242,0.221659,0.0803914,0.132854,-0.0171436,0.143809,-0.286625,0.845631,0.493215,-0.0040589,1.59599,2.76197,1.82692,-1.86646,-9.38322,-12.0854,-0.123704,15.5455,0.0199506,16.594,-29.2989,10.3405,5.18812,-0.0416689,0.0737841,-0.100749,0.112503,-2.01185,0.2089,0.215519,0.0804978,0.122679,0.0534586,0.221412,-0.143584,0.345176,0.13548,-0.00454255,0,0,0,0,0,0,0,5.15308,-26.4845,4.71406,16.5646,1.99829,0.613333,0.110886,
0.0772405,-0.100678,0.116274,-2.01883,0.227242,0.225161,0.0803712,0.134423,-0.0129102,0.145453,-0.288864,0.851501,0.482115,-0.00375191,0.980676,2.64589,1.02756,-1.39955,3.66875,-6.93757,0.191874,15.1767,0.0280238,16.2161,-28.86,10.3274,5.04825,-0.0266443,0.0773463,-0.100904,0.118257,-2.01707,0.214752,0.216514,0.0805054,0.105202,-0.00515246,0.154566,-0.166351,0.0703309,0.0044999,0.000392795,-2.18458,-7.32638,-8.35574,-2.84593,-34.3556,-16.3726,0.616918,-3.57098,-29.7298,-4.86296,26.4313,2.05322,2.52953,0.0440523,
0.0783569,-0.100619,0.117476,-2.02116,0.23468,0.228714,0.0803646,0.135448,-0.00887249,0.146408,-0.289523,0.867153,0.474519,-0.00316535,0.640705,2.52358,0.596915,-0.41196,9.78275,-4.74732,0.366598,14.8061,0.11487,15.8179,-28.4149,10.3274,4.91361,-0.0129536,0.0773463,-0.100904,0.118257,-2.01707,0.214752,0.216514,0.0805054,0.105202,-0.00515246,0.154566,-0.166351,0.0703309,0.0044999,0.000392795,0,0,0,0,0,0,0,-3.57098,-29.7298,-4.86296,26.4313,2.05322,2.52953,0.0440523,
0.0794664,-0.100545,0.118667,-2.02345,0.242394,0.232262,0.0803695,0.136097,-0.00523949,0.146915,-0.288808,0.886565,0.468304,-0.00241065,0.405549,2.27063,0.316848,0.446777,12.1324,-3.88402,0.471686,14.445,0.187048,15.4299,-27.975,10.3274,4.7663,9.65101e-05,0.0773463,-0.100904,0.118257,-2.01707,0.214752,0.216514,0.0805054,0.105202,-0.00515246,0.154566,-0.166351,0.0703309,0.0044999,0.000392795,0,0,0,0,0,0,0,-3.57098,-29.7298,-4.86296,26.4313,2.05322,2.52953,0.0440523,
0.0791582,-0.101264,0.120281,-2.0217,0.223518,0.221306,0.0804245,0.13157,-0.00770936,0.142628,-0.290749,0.839838,0.443934,-0.00258949,-2.82959,-1.54367,-2.67934,-1.21281,-29.204,-15.2318,-0.111772,15.1767,0.0280238,16.2161,-28.86,10.3274,5.04825,-0.0266443,0.0773463,-0.100904,0.118257,-2.01707,0.214752,0.216514,0.0805054,0.105202,-0.00515246,0.154566,-0.166351,0.0703309,0.0044999,0.000392795,0,0,0,0,0,0,0,-3.57098,-29.7298,-4.86296,26.4313,2.05322,2.52953,0.0440523,
0.0800876,-0.101315,0.121298,-2.02407,0.229764,0.22442,0.0804162,0.128491,-0.00744483,0.139524,-0.29183,0.82804,0.432998,-0.00227788,-1.92418,0.165334,-1.94012,-0.675934,-7.37421,-6.83473,0.194756,14.8002,0.141539,15.8217,-28.3662,10.3348,4.95842,-0.0131577,0.0813941,-0.0993952,0.124657,-2.02231,0.21628,0.216557,0.0805036,0.12068,0.0718361,0.192896,-0.1867,0.0328087,0.00851353,-0.000572174,1.93469,9.62357,4.79129,-2.54359,-4.69027,0.501704,-0.120621,-3.57098,-23.6638,-3.33556,20.0519,1.26495,1.23589,0.104477,
0.0810418,-0.101304,0.122335,-2.02638,0.236661,0.2277,0.0804211,0.126647,-0.00567722,0.137536,-0.291434,0.834837,0.428394,-0.00170125,-1.15252,1.10475,-1.24268,0.247341,4.24805,-2.87771,0.360391,14.4392,0.213717,15.4336,-27.9263,10.3348,4.81111,-0.000107531,0.0813941,-0.0993952,0.124657,-2.02231,0.21628,0.216557,0.0805036,0.12068,0.0718361,0.192896,-0.1867,0.0328087,0.00851353,-0.000572174,0,0,0,0,0,0,0,-3.57098,-23.6638,-3.33556,20.0519,1.26495,1.23589,0.104477,
0.0834212,-0.0990085,0.126923,-2.02724,0.224862,0.22102,0.0804311,0.126116,-0.000195531,0.137458,-0.296182,0.797139,0.406679,-0.00187976,-0.331792,3.42606,-0.0485624,-2.96724,-23.5609,-13.5716,-0.111568,14.8002,0.141539,15.8217,-28.3662,10.3348,4.95842,-0.0131577,0.0813941,-0.0993952,0.124657,-2.02231,0.21628,0.216557,0.0805036,0.12068,0.0718361,0.192896,-0.1867,0.0328087,0.00851353,-0.000572174,0,0,0,0,0,0,0,-3.57098,-23.6638,-3.33556,20.0519,1.26495,1.23589,0.104477,
0.084403,-0.0988262,0.127998,-2.02971,0.231091,0.223879,0.08043,0.125438,0.00440119,0.136842,-0.298698,0.793448,0.396804,-0.00153254,-0.423564,2.87295,-0.385032,-1.57249,-2.30713,-6.17214,0.217013,14.4392,0.213717,15.4336,-27.9263,10.3348,4.81111,-0.000107531,0.0813941,-0.0993952,0.124657,-2.02231,0.21628,0.216557,0.0805036,0.12068,0.0718361,0.192896,-0.1867,0.0328087,0.00851353,-0.000572174,0,0,0,0,0,0,0,-3.57098,-23.6638,-3.33556,20.0519,1.26495,1.23589,0.104477,
0.0853878,-0.0986398,0.129068,-2.0321,0.237985,0.226895,0.0804431,0.124971,0.00818066,0.136245,-0.298766,0.807097,0.392845,-0.000897113,-0.292256,2.36217,-0.373362,-0.0422334,8.53067,-2.47438,0.397143,14.0869,0.165294,15.0662,-27.4775,10.3146,4.68873,0.0122617,0.0841354,-0.0988465,0.129017,-2.02894,0.220493,0.216385,0.0805054,0.0701578,-0.00350043,0.0884619,-0.217411,0.0259225,-0.016754,0.00137157,-6.31522,-9.41706,-13.0543,-3.8389,-0.860784,-3.15844,0.242968,-7.04236,-31.527,-7.6599,28.5736,1.31439,2.622,0.0440523,
0.0863782,-0.0984584,0.13014,-2.03442,0.245306,0.229996,0.0804699,0.124737,0.0110803,0.13579,-0.29697,0.82871,0.391814,-4.85649e-05,-0.146166,1.81225,-0.284103,1.12244,13.5082,-0.644272,0.530343,13.7384,0.213574,14.6915,-27.0496,10.3146,4.55689,0.0248961,0.0841354,-0.0988465,0.129017,-2.02894,0.220493,0.216385,0.0805054,0.0701578,-0.00350043,0.0884619,-0.217411,0.0259225,-0.016754,0.00137157,0,0,0,0,0,0,0,-7.04236,-31.527,-7.6599,28.5736,1.31439,2.622,0.0440523,
0.0853996,-0.0989782,0.130471,-2.03372,0.228408,0.220441,0.0804808,0.116395,0.00824327,0.127449,-0.298177,0.783258,0.373672,-5.19533e-05,-5.21378,-1.77312,-5.21325,-0.754681,-28.4073,-11.3389,-0.00211771,14.4398,0.106112,15.4453,-27.9116,10.3146,4.8269,-0.000184981,0.0841354,-0.0988465,0.129017,-2.02894,0.220493,0.216385,0.0805054,0.0701578,-0.00350043,0.0884619,-0.217411,0.0259225,-0.016754,0.00137157,0,0,0,0,0,0,0,-7.04236,-31.527,-7.6599,28.5736,1.31439,2.622,0.0440523,
0.0861306,-0.0989293,0.131284,-2.0361,0.2343,0.223238,0.0804961,0.11139,0.00781728,0.122276,-0.297911,0.773904,0.368845,0.0003385,-3.12772,-0.266241,-3.23289,0.166586,-5.84653,-3.01665,0.244033,14.0869,0.165294,15.0662,-27.4775,10.3146,4.68873,0.0122617,0.0841354,-0.0988465,0.129017,-2.02894,0.220493,0.216385,0.0805054,0.0701578,-0.00350043,0.0884619,-0.217411,0.0259225,-0.016754,0.00137157,0,0,0,0,0,0,0,-7.04236,-31.527,-7.6599,28.5736,1.31439,2.622,0.0440523,
0.0869196,-0.0988359,0.13215,-2.03841,0.240902,0.226246,0.0805249,0.108838,0.00858753,0.11949,-0.296039,0.784165,0.370298,0.000992683,-1.59525,0.481403,-1.74133,1.16976,6.41342,0.90801,0.408865,13.7395,0.264304,14.6908,-26.9594,10.3235,4.62978,0.0244556,0.0867688,-0.0957486,0.134758,-2.03564,0.222802,0.215931,0.0805014,0.086852,0.0705248,0.192378,-0.188522,0.134087,-0.0161941,0.00121434,2.08678,9.25315,12.9896,3.61113,13.5205,0.0699787,-0.0196537,1.70551,-35.1689,1.21095,35.3735,1.94336,3.13286,0.0779268,
0.087753,-0.098721,0.133059,-2.04065,0.247983,0.229364,0.080563,0.107906,0.0097431,0.118309,-0.29296,0.804359,0.374183,0.00174603,-0.582744,0.722236,-0.738146,1.92444,12.621,2.42838,0.470839,13.3828,0.305106,14.3074,-26.539,10.3235,4.51936,0.0391598,0.0867688,-0.0957486,0.134758,-2.03564,0.222802,0.215931,0.0805014,0.086852,0.0705248,0.192378,-0.188522,0.134087,-0.0161941,0.00121434,0,0,0,0,0,0,0,1.70551,-35.1689,1.21095,35.3735,1.94336,3.13286,0.0779268,
0.0886378,-0.0953331,0.136849,-2.04043,0.232088,0.219963,0.0804788,0.109412,0.0124927,0.120167,-0.295644,0.779162,0.358167,0.00145872,0.941675,1.7185,1.16147,-1.67745,-15.7479,-10.01,-0.179567,14.0881,0.216024,15.0655,-27.3873,10.3235,4.76163,0.0118212,0.0867688,-0.0957486,0.134758,-2.03564,0.222802,0.215931,0.0805014,0.086852,0.0705248,0.192378,-0.188522,0.134087,-0.0161941,0.00121434,0,0,0,0,0,0,0,1.70551,-35.1689,1.21095,35.3735,1.94336,3.13286,0.0779268,
0.0895611,-0.0951406,0.137859,-2.04283,0.238465,0.222642,0.080501,0.110611,0.0148061,0.121398,-0.296487,0.782755,0.353516,0.00172215,0.749269,1.44586,0.769274,-0.527062,2.24577,-2.90709,0.164643,13.7395,0.264304,14.6908,-26.9594,10.3235,4.62978,0.0244556,0.0867688,-0.0957486,0.134758,-2.03564,0.222802,0.215931,0.0805014,0.086852,0.0705248,0.192378,-0.188522,0.134087,-0.0161941,0.00121434,0,0,0,0,0,0,0,1.70551,-35.1689,1.21095,35.3735,1.94336,3.13286,0.0779268,
0.0904905,-0.0949476,0.13887,-2.04516,0.245445,0.225501,0.0805352,0.111724,0.0166698,0.122387,-0.295251,0.800716,0.354295,0.00223265,0.695455,1.16479,0.618031,0.77261,11.2254,0.48667,0.319062,13.3717,0.227819,14.2991,-26.5082,10.3023,4.54325,0.0389937,0.0888409,-0.0944231,0.13831,-2.04225,0.227018,0.215778,0.0805048,0.056426,0.0454225,0.122197,-0.149549,0.18823,-0.00117296,0.000841184,-3.80325,-3.13779,-8.77269,4.87162,6.76794,1.87765,-0.0466441,4.8476,-37.0653,3.63893,34.6237,1.73553,3.69591,0.0577852,
0.0902142,-0.0943195,0.139868,-2.04667,0.236515,0.220272,0.0805182,0.107147,0.0145768,0.117774,-0.293385,0.777108,0.348204,0.00229522,-2.86049,-1.3081,-2.88317,1.16625,-14.7552,-3.80634,0.0391072,13.7284,0.187018,14.6824,-26.9286,10.3023,4.65367,0.0242894,0.0888409,-0.0944231,0.13831,-2.04225,0.227018,0.215778,0.0805048,0.056426,0.0454225,0.122197,-0.149549,0.18823,-0.00117296,0.000841184,0,0,0,0,0,0,0,4.8476,-37.0653,3.63893,34.6237,1.73553,3.69591,0.0577852,
0.0909729,-0.0942353,0.140704,-2.04893,0.242861,0.223165,0.080553,0.104686,0.0137664,0.115135,-0.291357,0.780318,0.350899,0.00270638,-1.53829,-0.506511,-1.64945,1.26722,2.0062,1.68403,0.25698,13.3717,0.227819,14.2991,-26.5082,10.3023,4.54325,0.0389937,0.0888409,-0.0944231,0.13831,-2.04225,0.227018,0.215778,0.0805048,0.056426,0.0454225,0.122197,-0.149549,0.18823,-0.00117296,0.000841184,0,0,0,0,0,0,0,4.8476,-37.0653,3.63893,34.6237,1.73553,3.69591,0.0577852,
0.0917736,-0.0941265,0.141582,-2.05114,0.249714,0.226206,0.0805988,0.103765,0.0137335,0.114043,-0.288293,0.795583,0.356748,0.00330945,-0.57566,-0.0205301,-0.682617,1.91547,9.54079,3.65577,0.376915,12.9542,0.263007,13.8542,-26.1025,10.3023,4.43044,0.0497956,0.0888409,-0.0944231,0.13831,-2.04225,0.227018,0.215778,0.0805048,0.056426,0.0454225,0.122197,-0.149549,0.18823,-0.00117296,0.000841184,0,0,0,0,0,0,0,4.8476,-37.0653,3.63893,34.6237,1.73553,3.69591,0.0577852,
0.0926173,-0.0940068,0.142498,-2.05328,0.256649,0.229312,0.0806538,0.104106,0.0139778,0.114136,-0.284098,0.809849,0.363035,0.00402293,0.213542,0.152685,0.0580764,2.62185,8.91651,3.92929,0.445928,12.4881,0.310321,13.4042,-25.7002,10.0681,4.33586,0.060164,0.0888409,-0.0944231,0.13831,-2.04225,0.227018,0.215778,0.0805048,0.056426,0.0454225,0.122197,-0.149549,0.18823,-0.00117296,0.000841184,0,0,0,0,0,0,0,4.8476,-37.0653,3.63893,34.6237,1.73553,3.69591,0.0577852,
0.0936939,-0.0922984,0.145191,-2.05204,0.243762,0.219582,0.0805382,0.103015,0.00967916,0.113153,-0.282526,0.786171,0.352007,0.00386117,-0.681807,-2.68667,-0.614318,0.98261,-14.799,-6.89265,-0.101104,13.3774,0.220552,14.3068,-26.4506,10.2877,4.59016,0.0388071,0.0921255,-0.092141,0.143438,-2.04778,0.234181,0.21539,0.0805129,0.0909999,0.0192612,0.129841,-0.136367,0.172357,-0.0315695,0.00233863,4.32174,-3.27017,0.955518,1.64783,-1.98419,-3.79957,0.187181,1.80469,-34.0462,1.43709,32.6321,1.91864,4.01452,0.00376909,
0.0945063,-0.0922943,0.146084,-2.05423,0.250128,0.22238,0.0805799,0.102723,0.00784666,0.11284,-0.280879,0.788063,0.351567,0.00412957,-0.182892,-1.14531,-0.195444,1.02925,1.18268,-0.274893,0.167751,12.9599,0.25574,13.8619,-26.0449,10.2877,4.47735,0.049609,0.0921255,-0.092141,0.143438,-2.04778,0.234181,0.21539,0.0805129,0.0909999,0.0192612,0.129841,-0.136367,0.172357,-0.0315695,0.00233863,0,0,0,0,0,0,0,1.80469,-34.0462,1.43709,32.6321,1.91864,4.01452,0.00376909,
0.0953528,-0.0922449,0.147004,-2.05636,0.256765,0.225345,0.0806327,0.10334,0.00751145,0.113291,-0.278044,0.796379,0.355365,0.00462442,0.385799,-0.209505,0.28171,1.77175,5.19728,2.37354,0.309284,12.4939,0.303054,13.412,-25.6426,10.0535,4.38277,0.0599774,0.0921255,-0.092141,0.143438,-2.04778,0.234181,0.21539,0.0805129,0.0909999,0.0192612,0.129841,-0.136367,0.172357,-0.0315695,0.00233863,0,0,0,0,0,0,0,1.80469,-34.0462,1.43709,32.6321,1.91864,4.01452,0.00376909,
0.096226,-0.0921708,0.147948,-2.05843,0.263392,0.228385,0.0806929,0.104502,0.00786083,0.114214,-0.274199,0.802796,0.360295,0.00520579,0.726269,0.218365,0.577233,2.40278,4.0108,3.08144,0.363355,12.0008,0.361811,12.9077,-25.2478,9.16667,4.28941,0.0672302,0.0921255,-0.092141,0.143438,-2.04778,0.234181,0.21539,0.0805129,0.0909999,0.0192612,0.129841,-0.136367,0.172357,-0.0315695,0.00233863,0,0,0,0,0,0,0,1.80469,-34.0462,1.43709,32.6321,1.91864,4.01452,0.00376909,
0.0936707,-0.0922851,0.145168,-2.05198,0.243712,0.219459,0.0805545,0.102982,0.00495033,0.112893,-0.273801,0.779098,0.348058,0.00502201,-0.950325,-1.81907,-0.825863,0.249033,-14.8116,-7.64791,-0.114863,12.9567,0.198801,13.8618,-26.0137,10.2757,4.4971,0.0495219,0.0951485,-0.0912941,0.146364,-2.05337,0.237495,0.215709,0.0805057,0.0783214,-0.0151988,0.0712475,-0.144493,0.107378,0.0143032,-0.00213663,-1.58482,-4.30749,-7.32418,-1.01579,-8.12239,5.73408,-0.559408,-1.82141,-31.3246,-2.58574,23.9874,1.53412,2.07177,0.0779268,
0.0944764,-0.092276,0.14605,-2.05413,0.249786,0.222177,0.0806045,0.102527,0.00418799,0.112376,-0.27282,0.775138,0.346409,0.00526604,-0.283871,-0.47646,-0.323238,0.612978,-2.47474,-1.03055,0.152521,12.4906,0.246115,13.4118,-25.6114,10.0416,4.40253,0.0598903,0.0951485,-0.0912941,0.146364,-2.05337,0.237495,0.215709,0.0805057,0.0783214,-0.0151988,0.0712475,-0.144493,0.107378,0.0143032,-0.00213663,0,0,0,0,0,0,0,-1.82141,-31.3246,-2.58574,23.9874,1.53412,2.07177,0.0779268,
0.0953115,-0.0922239,0.146957,-2.05622,0.256049,0.225057,0.0806635,0.102899,0.0046541,0.112556,-0.270547,0.776693,0.349123,0.00568887,0.232336,0.29132,0.112681,1.42048,0.971736,1.69617,0.264267,11.9976,0.304872,12.9075,-25.2166,9.15475,4.30917,0.0671431,0.0951485,-0.0912941,0.146364,-2.05337,0.237495,0.215709,0.0805057,0.0783214,-0.0151988,0.0712475,-0.144493,0.107378,0.0143032,-0.00213663,0,0,0,0,0,0,0,-1.82141,-31.3246,-2.58574,23.9874,1.53412,2.07177,0.0779268,
0.0963123,-0.0916842,0.147693,-2.0574,0.245874,0.220113,0.0805703,0.0975952,-2.26798e-05,0.107253,-0.268446,0.74204,0.342658,0.00568876,-3.31499,-2.92299,-3.31468,1.31317,-21.6583,-4.04067,-6.9334e-05,12.4906,0.246115,13.4118,-25.6114,10.0416,4.40253,0.0598903,0.0951485,-0.0912941,0.146364,-2.05337,0.237495,0.215709,0.0805057,0.0783214,-0.0151988,0.0712475,-0.144493,0.107378,0.0143032,-0.00213663,0,0,0,0,0,0,0,-1.82141,-31.3246,-2.58574,23.9874,1.53412,2.07177,0.0779268,
0.0969851,-0.0917433,0.148436,-2.05946,0.251299,0.222944,0.0806283,0.0948965,-0.00149457,0.104378,-0.266259,0.729237,0.344906,0.00600179,-1.68666,-0.91993,-1.79658,1.3671,-8.00144,1.40479,0.195642,11.9995,0.271335,12.9147,-25.1777,9.15592,4.33517,0.0670495,0.0986147,-0.0902717,0.150866,-2.05853,0.239008,0.216017,0.0805011,0.0790425,-0.0188865,0.0755259,-0.144827,-0.00273489,0.00713872,-4.38558e-05,0.0901325,-0.460965,0.534805,-0.0417469,-13.7641,-0.895559,0.261596,-8.16113,-30.428,-8.15978,21.6467,1.15509,2.19811,0.0907442,
0.0977066,-0.0917407,0.149224,-2.06147,0.256954,0.2259,0.0806866,0.093955,-0.00113108,0.103203,-0.263269,0.724776,0.349821,0.00625997,-0.588476,0.227181,-0.734112,1.86905,-2.78841,3.07226,0.161368,11.5003,0.36337,12.3824,-24.7731,8.46745,4.22303,0.0740982,0.0986147,-0.0902717,0.150866,-2.05853,0.239008,0.216017,0.0805011,0.0790425,-0.0188865,0.0755259,-0.144827,-0.00273489,0.00713872,-4.38558e-05,0,0,0,0,0,0,0,-8.16113,-30.428,-8.15978,21.6467,1.15509,2.19811,0.0907442,
0.0984778,-0.0916997,0.150061,-2.06341,0.262303,0.228884,0.0807466,0.0944433,0.000119707,0.103504,-0.259144,0.713546,0.354454,0.00650716,0.305225,0.781741,0.187945,2.57759,-7.01859,2.89509,0.15449,10.9591,0.470516,11.8104,-24.3716,7.883,4.07057,0.0715113,0.0986147,-0.0902717,0.150866,-2.05853,0.239008,0.216017,0.0805011,0.0790425,-0.0188865,0.0755259,-0.144827,-0.00273489,0.00713872,-4.38558e-05,0,0,0,0,0,0,0,-8.16113,-30.428,-8.15978,21.6467,1.15509,2.19811,0.0907442,
0.0997665,-0.0906782,0.152185,-2.06252,0.245891,0.220251,0.0805738,0.0904953,-0.0037586,0.0996834,-0.258664,0.674154,0.344722,0.006436,-2.46753,-2.42394,-2.38798,0.300199,-24.6201,-6.0824,-0.0444723,11.9995,0.271335,12.9147,-25.1777,9.15592,4.33517,0.0670495,0.0986147,-0.0902717,0.150866,-2.05853,0.239008,0.216017,0.0805011,0.0790425,-0.0188865,0.0755259,-0.144827,-0.00273489,0.00713872,-4.38558e-05,0,0,0,0,0,0,0,-8.16113,-30.428,-8.15978,21.6467,1.15509,2.19811,0.0907442,
0.100413,-0.0907371,0.152902,-2.06455,0.250716,0.222983,0.0806284,0.0885684,-0.00447961,0.0976765,-0.257698,0.659934,0.344079,0.00651385,-1.20434,-0.450628,-1.25435,0.603603,-8.88737,-0.401848,0.0486561,11.4886,0.322968,12.3739,-24.7435,8.46947,4.24217,0.074011,0.100881,-0.0898717,0.153546,-2.063,0.238377,0.216407,0.0804971,0.0584934,0.0144852,0.0637415,-0.114478,-0.0250668,0.0388996,-0.00157828,-2.56863,4.17146,-1.47305,3.79368,-2.79149,3.97011,-0.191803,-7.67712,-29.2537,-8.0844,19.0085,0.850216,1.25603,0.131027,
0.101118,-0.0907305,0.153675,-2.06651,0.255519,0.225832,0.0806867,0.0884574,-0.00341827,0.0974543,-0.255221,0.648045,0.346494,0.00666772,-0.0693669,0.663337,-0.138847,1.5482,-7.43059,1.50962,0.0961659,10.9474,0.430114,11.8019,-24.342,7.88502,4.08971,0.0714241,0.100881,-0.0898717,0.153546,-2.063,0.238377,0.216407,0.0804971,0.0584934,0.0144852,0.0637415,-0.114478,-0.0250668,0.0388996,-0.00157828,0,0,0,0,0,0,0,-7.67712,-29.2537,-8.0844,19.0085,0.850216,1.25603,0.131027,
0.101872,-0.090686,0.154496,-2.06841,0.259944,0.228716,0.0807437,0.089621,-0.00162141,0.098498,-0.251536,0.629044,0.349294,0.00675834,0.727264,1.12304,0.652293,2.30294,-11.8756,1.74987,0.0566413,10.4397,0.568824,11.3536,-23.9185,6.27638,3.94979,0.0675498,0.100881,-0.0898717,0.153546,-2.063,0.238377,0.216407,0.0804971,0.0584934,0.0144852,0.0637415,-0.114478,-0.0250668,0.0388996,-0.00157828,0,0,0,0,0,0,0,-7.67712,-29.2537,-8.0844,19.0085,0.850216,1.25603,0.131027,
0.10184,-0.0900651,0.154666,-2.06684,0.244561,0.221073,0.0805748,0.0844154,-0.00318675,0.0933662,-0.251156,0.596949,0.344881,0.00661393,-3.25349,-0.978336,-3.20735,0.237521,-20.0598,-2.75778,-0.0902574,11.4886,0.322968,12.3739,-24.7435,8.46947,4.24217,0.074011,0.100881,-0.0898717,0.153546,-2.063,0.238377,0.216407,0.0804971,0.0584934,0.0144852,0.0637415,-0.114478,-0.0250668,0.0388996,-0.00157828,0,0,0,0,0,0,0,-7.67712,-29.2537,-8.0844,19.0085,0.850216,1.25603,0.131027,
0.102425,-0.0900729,0.15532,-2.06881,0.24865,0.223894,0.0806311,0.0821445,-0.00274318,0.0910497,-0.250122,0.57979,0.346431,0.00669801,-1.4193,0.277226,-1.44782,0.646764,-10.7245,0.968469,0.0525483,10.9478,0.413582,11.8045,-24.3106,7.89359,4.10852,0.0713093,0.102964,-0.0891887,0.156429,-2.06699,0.237793,0.217803,0.0804952,0.0591711,0.0312187,0.0757221,-0.123176,0.0184436,0.0259186,0.0013403,0.0847081,2.09169,1.49758,-1.08726,5.43881,-1.62263,0.364822,0.0551182,-25.9609,-0.237108,17.6596,0.722042,0.613333,0.104477,
0.103079,-0.0900338,0.156042,-2.07071,0.252587,0.226781,0.0806875,0.0820771,-0.00121709,0.0908871,-0.247743,0.562268,0.349328,0.00676963,-0.0421249,0.95381,-0.101651,1.48665,-10.9513,1.81069,0.0447663,10.4401,0.552293,11.3562,-23.8871,6.28495,3.9686,0.0674351,0.102964,-0.0891887,0.156429,-2.06699,0.237793,0.217803,0.0804952,0.0591711,0.0312187,0.0757221,-0.123176,0.0184436,0.0259186,0.0013403,0,0,0,0,0,0,0,0.0551182,-25.9609,-0.237108,17.6596,0.722042,0.613333,0.104477,
0.104007,-0.089198,0.157632,-2.07083,0.243624,0.222107,0.080575,0.0794604,-0.000894107,0.0883856,-0.247745,0.533129,0.340141,0.00665814,-1.63545,0.201864,-1.56345,-0.00134855,-18.2117,-5.74223,-0.0696835,10.9478,0.413582,11.8045,-24.3106,7.89359,4.10852,0.0713093,0.102964,-0.0891887,0.156429,-2.06699,0.237793,0.217803,0.0804952,0.0591711,0.0312187,0.0757221,-0.123176,0.0184436,0.0259186,0.0013403,0,0,0,0,0,0,0,0.0551182,-25.9609,-0.237108,17.6596,0.722042,0.613333,0.104477,
0.104627,-0.0891497,0.158322,-2.07278,0.24708,0.224745,0.0806289,0.0790594,0.000490403,0.0879581,-0.246855,0.512888,0.33808,0.0066738,-0.250649,0.865318,-0.267182,0.556441,-12.6504,-1.28761,0.00978644,10.4401,0.552293,11.3562,-23.8871,6.28495,3.9686,0.0674351,0.102964,-0.0891887,0.156429,-2.06699,0.237793,0.217803,0.0804952,0.0591711,0.0312187,0.0757221,-0.123176,0.0184436,0.0259186,0.0013403,0,0,0,0,0,0,0,0.0551182,-25.9609,-0.237108,17.6596,0.722042,0.613333,0.104477,
0.105307,-0.0890703,0.159069,-2.07466,0.250296,0.227468,0.0806832,0.0802346,0.00237894,0.0890445,-0.244576,0.490707,0.338536,0.0066975,0.734506,1.18033,0.679046,1.42435,-13.8629,0.284915,0.0148114,10.0508,0.690663,10.9786,-23.4086,4.94999,3.85254,0.0624219,0.104645,-0.0883631,0.158174,-2.07136,0.237855,0.218385,0.0804914,0.0551223,0.0688602,0.075132,-0.122446,0.0230072,0.0142837,-0.00443267,-0.506092,4.70518,-0.073763,0.0912416,0.570444,-1.45435,-0.721621,3.25275,-28.4801,2.53602,21.9958,0.905148,1.30913,0.124619,
0.106034,-0.0889747,0.159862,-2.07649,0.253094,0.230216,0.080737,0.082369,0.00429367,0.0910643,-0.241251,0.462514,0.339513,0.00670153,1.33401,1.19671,1.26235,2.07816,-17.6209,0.610506,0.00251871,9.7869,0.824135,10.7089,-22.9569,3.79383,3.73063,0.0595846,0.104645,-0.0883631,0.158174,-2.07136,0.237855,0.218385,0.0804914,0.0551223,0.0688602,0.075132,-0.122446,0.0230072,0.0142837,-0.00443267,0,0,0,0,0,0,0,3.25275,-28.4801,2.53602,21.9958,0.905148,1.30913,0.124619,
0.105685,-0.0880337,0.159375,-2.07521,0.242557,0.222444,0.0805692,0.0796797,0.00697874,0.0885202,-0.242701,0.436388,0.329,0.00655632,-1.68083,1.67817,-1.59007,-0.906331,-16.3286,-6.57077,-0.0907564,10.4354,0.541178,11.3498,-23.8503,6.28914,3.9933,0.0673147,0.104645,-0.0883631,0.158174,-2.07136,0.237855,0.218385,0.0804914,0.0551223,0.0688602,0.075132,-0.122446,0.0230072,0.0142837,-0.00443267,0,0,0,0,0,0,0,3.25275,-28.4801,2.53602,21.9958,0.905148,1.30913,0.124619,
0.106302,-0.0878863,0.160062,-2.07716,0.245245,0.224946,0.0806215,0.0791667,0.00926777,0.0879956,-0.24287,0.416307,0.325753,0.00655193,-0.320584,1.43064,-0.327892,-0.105527,-12.5509,-2.02924,-0.00274415,10.0508,0.690663,10.9786,-23.4086,4.94999,3.85254,0.0624219,0.104645,-0.0883631,0.158174,-2.07136,0.237855,0.218385,0.0804914,0.0551223,0.0688602,0.075132,-0.122446,0.0230072,0.0142837,-0.00443267,0,0,0,0,0,0,0,3.25275,-28.4801,2.53602,21.9958,0.905148,1.30913,0.124619,
0.106976,-0.0877342,0.160803,-2.07904,0.247684,0.227538,0.0806745,0.080171,0.0112171,0.0889144,-0.241343,0.394016,0.325389,0.00656714,0.627689,1.21834,0.574287,0.95414,-13.9315,-0.227548,0.00950988,9.79121,0.814882,10.7119,-22.9098,3.8032,3.76273,0.059437,0.106658,-0.087184,0.160926,-2.07658,0.237438,0.218631,0.0804993,0.0555597,0.0687337,0.0850204,-0.163088,-0.0075613,0.00722364,0.000769687,0.0546656,-0.015809,1.23604,-5.08035,-3.82106,-0.882513,0.650294,5.28003,-32.0744,4.41255,29.7678,1.60736,2.29699,0.050461,
0.107694,-0.0875845,0.161587,-2.08086,0.249738,0.230166,0.0807282,0.0820991,0.0127179,0.0907244,-0.238541,0.366561,0.326017,0.00659497,1.20502,0.937992,1.13126,1.75107,-17.1593,0.392241,0.0173922,9.62177,0.913602,10.5263,-22.4577,2.81254,3.65746,0.0578589,0.106658,-0.087184,0.160926,-2.07658,0.237438,0.218631,0.0804993,0.0555597,0.0687337,0.0850204,-0.163088,-0.0075613,0.00722364,0.000769687,0,0,0,0,0,0,0,5.28003,-32.0744,4.41255,29.7678,1.60736,2.29699,0.050461,
0.107772,-0.0867123,0.162202,-2.08056,0.240838,0.222152,0.0805787,0.0802732,0.015495,0.0890692,-0.241285,0.341832,0.31138,0.00644384,-1.14114,1.73569,-1.03453,-1.71454,-15.4562,-9.14767,-0.094455,10.0551,0.68141,10.9815,-23.3615,4.95936,3.88465,0.0622743,0.106658,-0.087184,0.160926,-2.07658,0.237438,0.218631,0.0804993,0.0555597,0.0687337,0.0850204,-0.163088,-0.0075613,0.00722364,0.000769687,0,0,0,0,0,0,0,5.28003,-32.0744,4.41255,29.7678,1.60736,2.29699,0.050461,
0.108411,-0.0865063,0.162912,-2.08252,0.242793,0.224416,0.0806295,0.0801975,0.0175453,0.0889946,-0.242011,0.322342,0.305712,0.0064248,-0.0473658,1.28144,-0.0466129,-0.453955,-12.181,-3.54245,-0.011899,9.79121,0.814882,10.7119,-22.9098,3.8032,3.76273,0.059437,0.106658,-0.087184,0.160926,-2.07658,0.237438,0.218631,0.0804993,0.0555597,0.0687337,0.0850204,-0.163088,-0.0075613,0.00722364,0.000769687,0,0,0,0,0,0,0,5.28003,-32.0744,4.41255,29.7678,1.60736,2.29699,0.050461,
0.109098,-0.086308,0.163666,-2.0844,0.244524,0.22681,0.0806822,0.0813368,0.0189955,0.090052,-0.240726,0.30117,0.30443,0.00645621,0.712095,0.90639,0.660882,0.803257,-13.2326,-0.801406,0.0196285,9.62177,0.913602,10.5263,-22.4577,2.81254,3.65746,0.0578589,0.106658,-0.087184,0.160926,-2.07658,0.237438,0.218631,0.0804993,0.0555597,0.0687337,0.0850204,-0.163088,-0.0075613,0.00722364,0.000769687,0,0,0,0,0,0,0,5.28003,-32.0744,4.41255,29.7678,1.60736,2.29699,0.050461,
0.10955,-0.0856579,0.164314,-2.08627,0.239141,0.221722,0.080583,0.0786748,0.0174454,0.0873866,-0.240876,0.27425,0.290498,0.00638603,-1.66376,-0.968848,-1.66587,-0.0937952,-16.8248,-8.70733,-0.0438628,9.79701,0.779821,10.7135,-22.8593,3.80988,3.79324,0.0592693,0.108538,-0.0858143,0.163153,-2.08245,0.236837,0.218553,0.0804956,0.0395214,0.0240064,0.0725059,-0.176407,-0.0234093,-0.0129188,0.000386577,-2.00478,-5.59091,-1.56431,-1.66476,-1.981,-2.51781,-0.0478887,1.85627,-33.7962,0.961012,31.5848,1.3446,2.71447,0.0577852,
0.110161,-0.0855371,0.164991,-2.08815,0.240458,0.223901,0.0806353,0.078213,0.016976,0.0868351,-0.239701,0.252318,0.286872,0.00641784,-0.288625,-0.293347,-0.344713,0.73444,-13.7073,-2.26645,0.0198848,9.62756,0.878541,10.5279,-22.4072,2.81922,3.68796,0.0576912,0.108538,-0.0858143,0.163153,-2.08245,0.236837,0.218553,0.0804956,0.0395214,0.0240064,0.0725059,-0.176407,-0.0234093,-0.0129188,0.000386577,0,0,0,0,0,0,0,1.85627,-33.7962,0.961012,31.5848,1.3446,2.71447,0.0577852,
0.110826,-0.0854002,0.165719,-2.08997,0.241578,0.226249,0.0806889,0.0791887,0.0170028,0.087683,-0.237176,0.229862,0.288203,0.00647315,0.6098,0.0167254,0.529956,1.57794,-14.0351,0.832136,0.0345643,9.52778,0.937254,10.4078,-21.9601,1.96517,3.60211,0.05809,0.108538,-0.0858143,0.163153,-2.08245,0.236837,0.218553,0.0804956,0.0395214,0.0240064,0.0725059,-0.176407,-0.0234093,-0.0129188,0.000386577,0,0,0,0,0,0,0,1.85627,-33.7962,0.961012,31.5848,1.3446,2.71447,0.0577852,
0.111532,-0.0852599,0.166487,-2.09172,0.24242,0.228694,0.0807436,0.0809974,0.0171092,0.0893491,-0.233701,0.20494,0.291694,0.00654621,1.13049,0.0664869,1.04127,2.17179,-15.5764,2.18173,0.0456649,9.47255,0.956756,10.3286,-21.5209,1.25094,3.52778,0.0589197,0.108538,-0.0858143,0.163153,-2.08245,0.236837,0.218553,0.0804956,0.0395214,0.0240064,0.0725059,-0.176407,-0.0234093,-0.0129188,0.000386577,0,0,0,0,0,0,0,1.85627,-33.7962,0.961012,31.5848,1.3446,2.71447,0.0577852,
0.110702,-0.0840244,0.167126,-2.09273,0.235598,0.220998,0.0805908,0.0758774,0.0157565,0.0841956,-0.234889,0.175548,0.27729,0.00653701,-3.20003,-0.845441,-3.22089,-0.742612,-18.3701,-9.00253,-0.00574882,9.62552,0.851124,10.5209,-22.3469,2.82832,3.72643,0.0575228,0.109925,-0.0841359,0.16621,-2.08889,0.235053,0.21809,0.0804951,0.0104705,0.00557084,0.0537579,-0.20287,-0.119785,-0.0155117,-0.000384489,-3.63136,-2.30444,-2.34349,-3.30793,-12.047,-0.324102,-0.0963833,-5.95532,-32.4513,-6.28722,25.0864,0.667111,2.11114,0.0907442,
0.111234,-0.0839015,0.167721,-2.09458,0.236121,0.22309,0.080645,0.0739919,0.0156769,0.0822204,-0.234338,0.153525,0.274133,0.00658493,-1.17842,-0.0497606,-1.2345,0.344422,-13.7641,-1.97299,0.02995,9.52573,0.909838,10.4009,-21.8999,1.97428,3.64058,0.0579216,0.109925,-0.0841359,0.16621,-2.08889,0.235053,0.21809,0.0804951,0.0104705,0.00557084,0.0537579,-0.20287,-0.119785,-0.0155117,-0.000384489,0,0,0,0,0,0,0,-5.95532,-32.4513,-6.28722,25.0864,0.667111,2.11114,0.0907442,
0.111835,-0.0837599,0.168383,-2.09638,0.23654,0.225379,0.0807005,0.0742181,0.0160829,0.082333,-0.232285,0.133282,0.276535,0.00665544,0.141341,0.253775,0.0703684,1.28303,-12.652,1.5011,0.0440672,9.4705,0.929339,10.3217,-21.4607,1.26005,3.56626,0.0587512,0.109925,-0.0841359,0.16621,-2.08889,0.235053,0.21809,0.0804951,0.0104705,0.00557084,0.0537579,-0.20287,-0.119785,-0.0155117,-0.000384489,0,0,0,0,0,0,0,-5.95532,-32.4513,-6.28722,25.0864,0.667111,2.11114,0.0907442,
0.112488,-0.0836146,0.169097,-2.09811,0.236779,0.227784,0.0807566,0.0757091,0.0164988,0.0836994,-0.229192,0.112598,0.281352,0.00672572,0.931918,0.259958,0.854009,1.93359,-12.9279,3.01025,0.043927,9.44351,0.915576,10.2701,-21.0299,0.660592,3.50484,0.060674,0.109925,-0.0841359,0.16621,-2.08889,0.235053,0.21809,0.0804951,0.0104705,0.00557084,0.0537579,-0.20287,-0.119785,-0.0155117,-0.000384489,0,0,0,0,0,0,0,-5.95532,-32.4513,-6.28722,25.0864,0.667111,2.11114,0.0907442,
0.110727,-0.0840102,0.167144,-2.09265,0.234974,0.220894,0.080596,0.0719663,0.015403,0.0799201,-0.23026,0.0924947,0.267624,0.00672548,-2.33925,-0.684908,-2.3621,-0.667946,-12.5643,-8.57952,-0.000150308,9.51455,0.878591,10.386,-21.8403,1.98849,3.67344,0.0577904,0.110653,-0.0828215,0.169221,-2.09475,0.231362,0.218243,0.0804906,0.00570427,0.0587422,0.0275087,-0.161093,-0.18566,0.00696937,0.000243519,-0.595777,6.64642,-3.28115,5.22215,-8.23427,2.81013,0.0785009,-8.43884,-26.2584,-8.38591,15.8188,0.116879,0.885245,0.0980684,
0.111269,-0.0838859,0.167747,-2.09447,0.235095,0.222933,0.080652,0.0711176,0.01543,0.0790006,-0.229704,0.0770318,0.26507,0.0067782,-0.530467,0.0169184,-0.574681,0.347873,-9.66434,-1.59667,0.0329474,9.45933,0.898092,10.3069,-21.4011,1.27426,3.59912,0.05862,0.110653,-0.0828215,0.169221,-2.09475,0.231362,0.218243,0.0804906,0.00570427,0.0587422,0.0275087,-0.161093,-0.18566,0.00696937,0.000243519,0,0,0,0,0,0,0,-8.43884,-26.2584,-8.38591,15.8188,0.116879,0.885245,0.0980684,
0.111876,-0.0837455,0.168414,-2.09623,0.235123,0.225172,0.0807085,0.0720778,0.0158531,0.079873,-0.227746,0.0623182,0.268029,0.00683661,0.600131,0.26441,0.545254,1.22359,-9.19597,1.8498,0.0365056,9.43234,0.884329,10.2553,-20.9704,0.6748,3.5377,0.0605428,0.110653,-0.0828215,0.169221,-2.09475,0.231362,0.218243,0.0804906,0.00570427,0.0587422,0.0275087,-0.161093,-0.18566,0.00696937,0.000243519,0,0,0,0,0,0,0,-8.43884,-26.2584,-8.38591,15.8188,0.116879,0.885245,0.0980684,
0.112532,-0.0836031,0.169128,-2.09793,0.235004,0.22753,0.0807658,0.0740633,0.0162424,0.0817608,-0.224804,0.0468813,0.273376,0.0069016,1.24093,0.243337,1.17988,1.83872,-9.64809,3.34155,0.0406197,9.41766,0.843317,10.2145,-20.5481,0.192054,3.48248,0.0622574,0.110653,-0.0828215,0.169221,-2.09475,0.231362,0.218243,0.0804906,0.00570427,0.0587422,0.0275087,-0.161093,-0.18566,0.00696937,0.000243519,0,0,0,0,0,0,0,-8.43884,-26.2584,-8.38591,15.8188,0.116879,0.885245,0.0980684,
0.111275,-0.0823539,0.169966,-2.09837,0.230233,0.22154,0.0805931,0.0686304,0.018371,0.0762879,-0.22581,0.0267319,0.26665,0.00691579,-3.39557,1.33032,-3.42058,-0.628807,-12.5934,-4.20373,0.0088681,9.46531,0.85445,10.3104,-21.3421,1.29883,3.62565,0.058434,0.111241,-0.0817699,0.172273,-2.10038,0.226467,0.218545,0.0804863,0.0182779,0.0372958,0.0499632,-0.168109,-0.142351,0.0159044,0.00292561,1.57171,-2.6808,2.8068,-0.877005,5.41359,1.11688,0.335262,-7.57794,-28.7538,-7.50914,20.1788,0.251461,1.18279,0.11821,
0.111751,-0.0821488,0.170501,-2.10017,0.229855,0.223724,0.0806508,0.0668179,0.0198235,0.0744081,-0.22554,0.0119513,0.267942,0.00697577,-1.13279,0.907823,-1.17484,0.169179,-9.23788,0.807543,0.0374891,9.43831,0.840687,10.2588,-20.9114,0.699375,3.56424,0.0603567,0.111241,-0.0817699,0.172273,-2.10038,0.226467,0.218545,0.0804863,0.0182779,0.0372958,0.0499632,-0.168109,-0.142351,0.0159044,0.00292561,0,0,0,0,0,0,0,-7.57794,-28.7538,-7.50914,20.1788,0.251461,1.18279,0.11821,
0.112305,-0.0819555,0.171113,-2.10191,0.229434,0.226057,0.0807093,0.067301,0.0206917,0.07481,-0.223873,-0.000973601,0.27266,0.00704275,0.301902,0.542657,0.251168,1.04154,-8.07805,2.94875,0.0418614,9.42364,0.799675,10.218,-20.4891,0.216628,3.50902,0.0620714,0.111241,-0.0817699,0.172273,-2.10038,0.226467,0.218545,0.0804863,0.0182779,0.0372958,0.0499632,-0.168109,-0.142351,0.0159044,0.00292561,0,0,0,0,0,0,0,-7.57794,-28.7538,-7.50914,20.1788,0.251461,1.18279,0.11821,
0.112078,-0.0814637,0.173229,-2.10389,0.225376,0.221748,0.0805933,0.0656048,0.0202588,0.0730622,-0.223482,-0.0125709,0.264756,0.00704901,-1.06012,-0.270551,-1.09234,0.244434,-7.24832,-4.9399,0.00391208,9.43831,0.840687,10.2588,-20.9114,0.699375,3.56424,0.0603567,0.111241,-0.0817699,0.172273,-2.10038,0.226467,0.218545,0.0804863,0.0182779,0.0372958,0.0499632,-0.168109,-0.142351,0.0159044,0.00292561,0,0,0,0,0,0,0,-7.57794,-28.7538,-7.50914,20.1788,0.251461,1.18279,0.11821,
0.112628,-0.0813112,0.173837,-2.10563,0.224904,0.223888,0.0806516,0.0662444,0.0200181,0.073638,-0.222185,-0.0218581,0.26532,0.00709631,0.399786,-0.150461,0.359848,0.810465,-5.80448,0.352495,0.0295618,9.41144,0.77773,10.201,-20.427,0.230944,3.54168,0.0619362,0.111969,-0.0805578,0.174659,-2.10539,0.223045,0.218743,0.0804869,0.0180774,0.103438,0.0277475,-0.144136,-0.1316,0.0157848,-0.000457768,-0.0250619,8.26772,-2.77696,2.99664,1.34389,-0.0149471,-0.422923,-6.48694,-27.0082,-6.66014,21.6467,0.349423,1.26244,0.110886,
0.113238,-0.081161,0.174503,-2.10731,0.224373,0.226186,0.0807101,0.0682354,0.019771,0.0755558,-0.219855,-0.0307598,0.269683,0.00713998,1.24438,-0.154456,1.19863,1.45625,-5.56354,2.72671,0.0272958,9.40079,0.716861,10.1648,-20.0122,-0.159039,3.49422,0.0641332,0.111969,-0.0805578,0.174659,-2.10539,0.223045,0.218743,0.0804869,0.0180774,0.103438,0.0277475,-0.144136,-0.1316,0.0157848,-0.000457768,0,0,0,0,0,0,0,-6.48694,-27.0082,-6.66014,21.6467,0.349423,1.26244,0.110886,
0.11389,-0.0810194,0.17521,-2.10895,0.223763,0.228573,0.0807689,0.0708957,0.0193559,0.0781338,-0.216746,-0.0398515,0.275423,0.00718072,1.66264,-0.2594,1.61125,1.94329,-5.68234,3.58759,0.0254624,9.38515,0.641843,10.1233,-19.6041,-0.456716,3.44966,0.0658212,0.111969,-0.0805578,0.174659,-2.10539,0.223045,0.218743,0.0804869,0.0180774,0.103438,0.0277475,-0.144136,-0.1316,0.0157848,-0.000457768,0,0,0,0,0,0,0,-6.48694,-27.0082,-6.66014,21.6467,0.349423,1.26244,0.110886,
0.11269,-0.0797533,0.175494,-2.10891,0.22169,0.222087,0.080598,0.067247,0.0240593,0.0744329,-0.218255,-0.0483054,0.268299,0.00723676,-2.28041,2.93961,-2.31307,-0.943231,-5.28366,-4.45235,0.0350248,9.41144,0.77773,10.201,-20.427,0.230944,3.54168,0.0619362,0.111969,-0.0805578,0.174659,-2.10539,0.223045,0.218743,0.0804869,0.0180774,0.103438,0.0277475,-0.144136,-0.1316,0.0157848,-0.000457768,0,0,0,0,0,0,0,-6.48694,-27.0082,-6.66014,21.6467,0.349423,1.26244,0.110886,
0.113203,-0.0794693,0.176061,-2.11067,0.220992,0.224239,0.0806586,0.0666041,0.0263467,0.0737339,-0.218463,-0.0560758,0.26845,0.00730243,-0.401822,1.4296,-0.43686,-0.130153,-4.85654,0.0942439,0.041045,9.41993,0.680891,10.1809,-19.9588,-0.139948,3.51881,0.0638921,0.11306,-0.0794529,0.177314,-2.11012,0.221038,0.219022,0.0804894,0.0427228,0.0444304,0.100903,-0.143332,-0.0149062,-0.0022591,0.000257164,3.08066,-7.37588,9.14451,0.100515,14.5867,-2.25549,0.0893665,4.79999,-34.3953,4.13881,33.3542,1.88842,2.7813,0.0577852,
0.113781,-0.0792281,0.176694,-2.11236,0.220237,0.226521,0.0807189,0.0677529,0.0271069,0.074819,-0.217152,-0.0637554,0.271796,0.0073506,0.717982,0.475158,0.678183,0.819427,-4.79971,2.09148,0.0301066,9.40428,0.605873,10.1394,-19.5507,-0.437624,3.47425,0.0655801,0.11306,-0.0794529,0.177314,-2.11012,0.221038,0.219022,0.0804894,0.0427228,0.0444304,0.100903,-0.143332,-0.0149062,-0.0022591,0.000257164,0,0,0,0,0,0,0,4.79999,-34.3953,4.13881,33.3542,1.88842,2.7813,0.0577852,
0.114408,-0.079023,0.177374,-2.114,0.219427,0.228877,0.0807787,0.0698576,0.0268135,0.0768487,-0.214664,-0.071239,0.276346,0.00737441,1.31549,-0.18341,1.26855,1.555,-4.67728,2.84328,0.0148776,9.38041,0.522557,10.0907,-19.1481,-0.664201,3.43408,0.0673796,0.11306,-0.0794529,0.177314,-2.11012,0.221038,0.219022,0.0804894,0.0427228,0.0444304,0.100903,-0.143332,-0.0149062,-0.0022591,0.000257164,0,0,0,0,0,0,0,4.79999,-34.3953,4.13881,33.3542,1.88842,2.7813,0.0577852,
0.11434,-0.0791661,0.178709,-2.1134,0.220711,0.222043,0.0805992,0.0725773,0.0246214,0.0795299,-0.2135,-0.0628091,0.265589,0.00734507,1.6998,-1.37005,1.67577,0.727431,5.26868,-6.72282,-0.0183354,9.41993,0.680891,10.1809,-19.9588,-0.139948,3.51881,0.0638921,0.11306,-0.0794529,0.177314,-2.11012,0.221038,0.219022,0.0804894,0.0427228,0.0444304,0.100903,-0.143332,-0.0149062,-0.0022591,0.000257164,0,0,0,0,0,0,0,4.79999,-34.3953,4.13881,33.3542,1.88842,2.7813,0.0577852,
0.115043,-0.0790446,0.179466,-2.11505,0.220322,0.224105,0.080658,0.0756371,0.0227344,0.0825537,-0.211934,-0.0599776,0.264019,0.00734595,1.91236,-1.17939,1.88986,0.979346,1.76973,-0.981434,0.00055076,9.40504,0.592611,10.1308,-19.4963,-0.427967,3.50095,0.0654309,0.114064,-0.0775565,0.179526,-2.11459,0.219303,0.219309,0.0804863,0.0300845,0.030149,0.109704,-0.130425,-0.0198423,0.000278086,-0.000942027,-1.57978,-1.78518,1.10012,1.61337,-0.617005,0.317149,-0.149899,5.99018,-34.1216,4.93623,35.8456,1.78405,3.13286,0.0843355,
0.115768,-0.0789284,0.180245,-2.11665,0.219798,0.226329,0.0807165,0.0786364,0.0210929,0.0855103,-0.209599,-0.0610693,0.266827,0.00734072,1.87455,-1.02593,1.84791,1.45903,-0.68234,1.75482,-0.00326883,9.38117,0.509295,10.0821,-19.0938,-0.654543,3.46078,0.0672305,0.114064,-0.0775565,0.179526,-2.11459,0.219303,0.219309,0.0804863,0.0300845,0.030149,0.109704,-0.130425,-0.0198423,0.000278086,-0.000942027,0,0,0,0,0,0,0,5.99018,-34.1216,4.93623,35.8456,1.78405,3.13286,0.0843355,
0.115336,-0.0774203,0.180906,-2.1177,0.218744,0.222415,0.0805997,0.0795264,0.0184047,0.0862933,-0.207531,-0.0577793,0.259128,0.00735759,0.556258,-1.68011,0.489373,1.29224,2.05626,-4.81141,0.010542,9.40504,0.592611,10.1308,-19.4963,-0.427967,3.50095,0.0654309,0.114064,-0.0775565,0.179526,-2.11459,0.219303,0.219309,0.0804863,0.0300845,0.030149,0.109704,-0.130425,-0.0198423,0.000278086,-0.000942027,0,0,0,0,0,0,0,5.99018,-34.1216,4.93623,35.8456,1.78405,3.13286,0.0843355,
0.116036,-0.0773503,0.181657,-2.11928,0.218239,0.224522,0.0806592,0.0811139,0.0164744,0.0878043,-0.205505,-0.0588425,0.259976,0.00737414,0.992186,-1.20647,0.944378,1.26679,-0.664527,0.529913,0.0103456,9.38117,0.509295,10.0821,-19.0938,-0.654543,3.46078,0.0672305,0.114064,-0.0775565,0.179526,-2.11459,0.219303,0.219309,0.0804863,0.0300845,0.030149,0.109704,-0.130425,-0.0198423,0.000278086,-0.000942027,0,0,0,0,0,0,0,5.99018,-34.1216,4.93623,35.8456,1.78405,3.13286,0.0843355,
0.116756,-0.0772749,0.182428,-2.12083,0.21762,0.226787,0.0807183,0.0829061,0.0150641,0.0895317,-0.203001,-0.0625633,0.264597,0.00737563,1.12015,-0.88143,1.07957,1.56493,-2.32549,2.88798,0.000931329,9.3444,0.421733,10.0209,-18.6959,-0.811913,3.42173,0.0684314,0.114064,-0.0775565,0.179526,-2.11459,0.219303,0.219309,0.0804863,0.0300845,0.030149,0.109704,-0.130425,-0.0198423,0.000278086,-0.000942027,0,0,0,0,0,0,0,5.99018,-34.1216,4.93623,35.8456,1.78405,3.13286,0.0843355,
0.117488,-0.0772,0.18321,-2.12233,0.216921,0.229141,0.0807766,0.0846109,0.0139228,0.0911698,-0.200041,-0.0675204,0.270544,0.00735867,1.06547,-0.713307,1.02383,1.84995,-3.09817,3.71706,-0.010601,9.29378,0.279091,9.94856,-18.2579,-0.912436,3.40698,0.0694292,0.115772,-0.0768189,0.183034,-2.11894,0.218896,0.219257,0.0804771,0.0467877,0.00851948,0.0831339,-0.101918,-0.0193804,-0.0243291,-0.000300157,2.0879,-2.70369,-3.32131,3.56328,0.0577366,-3.0759,0.0802338,-0.932736,-35.645,-1.08611,30.3668,1.65039,3.10631,0.124619,
0.117007,-0.0769465,0.184362,-2.1218,0.218248,0.222347,0.080594,0.0839099,0.00977659,0.0903195,-0.197246,-0.0643411,0.262662,0.00741055,-0.438096,-2.59136,-0.531432,1.74647,1.98705,-4.92662,0.032427,9.3806,0.454628,10.0831,-19.05,-0.64941,3.48286,0.0671047,0.115772,-0.0768189,0.183034,-2.11894,0.218896,0.219257,0.0804771,0.0467877,0.00851948,0.0831339,-0.101918,-0.0193804,-0.0243291,-0.000300157,0,0,0,0,0,0,0,-0.932736,-35.645,-1.08611,30.3668,1.65039,3.10631,0.124619,
0.117694,-0.0769656,0.185098,-2.12329,0.217685,0.224499,0.0806546,0.084324,0.00734386,0.0906522,-0.19513,-0.0655524,0.263915,0.00744344,0.258794,-1.52045,0.207924,1.32265,-0.757074,0.783549,0.020554,9.34384,0.367066,10.0218,-18.6521,-0.80678,3.44381,0.0683057,0.115772,-0.0768189,0.183034,-2.11894,0.218896,0.219257,0.0804771,0.0467877,0.00851948,0.0831339,-0.101918,-0.0193804,-0.0243291,-0.000300157,0,0,0,0,0,0,0,-0.932736,-35.645,-1.08611,30.3668,1.65039,3.10631,0.124619,
0.118405,-0.0769593,0.185857,-2.12477,0.217019,0.226812,0.080714,0.0852163,0.00603241,0.0914932,-0.192881,-0.0690998,0.26898,0.00743938,0.557685,-0.819654,0.525662,1.40594,-2.2171,3.16542,-0.00253467,9.29378,0.279091,9.94856,-18.2579,-0.912436,3.40698,0.0694292,0.115772,-0.0768189,0.183034,-2.11894,0.218896,0.219257,0.0804771,0.0467877,0.00851948,0.0831339,-0.101918,-0.0193804,-0.0243291,-0.000300157,0,0,0,0,0,0,0,-0.932736,-35.645,-1.08611,30.3668,1.65039,3.10631,0.124619,
0.119126,-0.0769386,0.186627,-2.12621,0.21629,0.229213,0.0807724,0.08621,0.005342,0.0924435,-0.190358,-0.0734966,0.275206,0.0074108,0.621105,-0.431506,0.593899,1.57666,-2.74802,3.89158,-0.0178627,9.23363,0.133727,9.87091,-17.8188,-0.962882,3.39055,0.0698479,0.117608,-0.0764631,0.186805,-2.12286,0.21879,0.219653,0.0804831,0.0564643,-0.0483144,0.111165,-0.0961161,-0.000215172,0.00808533,0.00121677,1.20958,-7.10424,3.50393,0.725293,2.39565,4.0518,0.189615,-3.74554,-30.7256,-4.25994,24.0152,1.28326,2.22375,0.0706026,
0.11905,-0.0770919,0.188339,-2.12545,0.218331,0.222993,0.0805995,0.0874401,-0.00230628,0.0935377,-0.186074,-0.0668839,0.269201,0.00742608,0.768789,-4.78018,0.683885,2.6775,4.13295,-3.75316,0.00954659,9.34912,0.307712,10.0321,-18.6041,-0.800789,3.46398,0.0681784,0.117608,-0.0764631,0.186805,-2.12286,0.21879,0.219653,0.0804831,0.0564643,-0.0483144,0.111165,-0.0961161,-0.000215172,0.00808533,0.00121677,0,0,0,0,0,0,0,-3.74554,-30.7256,-4.25994,24.0152,1.28326,2.22375,0.0706026,
0.119805,-0.077267,0.18914,-2.12683,0.217857,0.225246,0.0806587,0.0888127,-0.00622208,0.0948502,-0.183204,-0.0653541,0.271682,0.0074206,0.857901,-2.44738,0.820343,1.79403,0.956145,1.55027,-0.00342515,9.29906,0.219738,9.95889,-18.2099,-0.906444,3.42714,0.0693019,0.117608,-0.0764631,0.186805,-2.12286,0.21879,0.219653,0.0804831,0.0564643,-0.0483144,0.111165,-0.0961161,-0.000215172,0.00808533,0.00121677,0,0,0,0,0,0,0,-3.74554,-30.7256,-4.25994,24.0152,1.28326,2.22375,0.0706026,
0.120563,-0.07738,0.189946,-2.1282,0.21728,0.22765,0.0807168,0.0900156,-0.00780423,0.0960277,-0.180795,-0.0667096,0.277433,0.00739036,0.751769,-0.988844,0.735945,1.50542,-0.847195,3.59456,-0.0188957,9.23363,0.133727,9.87091,-17.8188,-0.962882,3.39055,0.0698479,0.117608,-0.0764631,0.186805,-2.12286,0.21879,0.219653,0.0804831,0.0564643,-0.0483144,0.111165,-0.0961161,-0.000215172,0.00808533,0.00121677,0,0,0,0,0,0,0,-3.74554,-30.7256,-4.25994,24.0152,1.28326,2.22375,0.0706026,
0.121168,-0.0772838,0.192626,-2.12861,0.21841,0.223218,0.0805986,0.0921522,-0.0148897,0.0980579,-0.176869,-0.0598891,0.270035,0.00738034,1.3354,-4.42842,1.26883,2.45371,4.26282,-4.6238,-0.00626234,9.30297,0.162568,9.97111,-18.1721,-0.90029,3.44432,0.0692039,0.119569,-0.0764586,0.190936,-2.12615,0.218743,0.219963,0.0804838,0.066196,-0.0700197,0.130954,-0.0925532,0.0106685,0.00424303,0.0015793,1.21646,-2.71316,2.47359,0.445354,1.36046,-0.480287,0.0453168,2.49103,-34.3199,1.93696,28.1729,1.14959,2.41692,0.0641939,
0.121971,-0.0775219,0.193475,-2.12993,0.218001,0.225444,0.0806567,0.0937928,-0.0178633,0.0996642,-0.174414,-0.0581452,0.271669,0.00735668,1.02538,-1.85847,1.00398,1.53429,1.08994,1.02124,-0.0147924,9.23755,0.0765577,9.88313,-17.781,-0.956728,3.40773,0.0697499,0.119569,-0.0764586,0.190936,-2.12615,0.218743,0.219963,0.0804838,0.066196,-0.0700197,0.130954,-0.0925532,0.0106685,0.00424303,0.0015793,0,0,0,0,0,0,0,2.49103,-34.3199,1.93696,28.1729,1.14959,2.41692,0.0641939,
0.122763,-0.0776843,0.194314,-2.13125,0.217492,0.227827,0.0807136,0.0948538,-0.0183506,0.100722,-0.172472,-0.0592281,0.276917,0.00730835,0.663119,-0.304615,0.661277,1.21382,-0.676846,3.28012,-0.0302041,9.15781,-0.00535414,9.78214,-17.3922,-0.97759,3.37192,0.0701199,0.119569,-0.0764586,0.190936,-2.12615,0.218743,0.219963,0.0804838,0.066196,-0.0700197,0.130954,-0.0925532,0.0106685,0.00424303,0.0015793,0,0,0,0,0,0,0,2.49103,-34.3199,1.93696,28.1729,1.14959,2.41692,0.0641939,
0.123542,-0.0777959,0.19514,-2.13256,0.216926,0.230287,0.0807695,0.0953523,-0.0174703,0.101224,-0.170677,-0.0615353,0.283042,0.00724322,0.311565,0.550235,0.31379,1.12217,-1.44202,3.82814,-0.0407041,9.06319,-0.082005,9.66706,-17.0055,-0.96557,3.33593,0.0699908,0.119569,-0.0764586,0.190936,-2.12615,0.218743,0.219963,0.0804838,0.066196,-0.0700197,0.130954,-0.0925532,0.0106685,0.00424303,0.0015793,0,0,0,0,0,0,0,2.49103,-34.3199,1.93696,28.1729,1.14959,2.41692,0.0641939,
0.121166,-0.0772792,0.192621,-2.12857,0.218371,0.223157,0.0805994,0.0963722,-0.0225853,0.10213,-0.168169,-0.0562181,0.273669,0.00726762,0.637429,-3.1969,0.566194,1.56732,3.32331,-5.85845,0.0152474,9.22771,0.000235268,9.88784,-17.7725,-0.958374,3.41463,0.0697288,0.121819,-0.077318,0.195156,-2.12915,0.219126,0.220211,0.0804854,0.0536755,-0.0410038,0.11279,-0.0660056,0.00193904,0.0139606,0.000450379,-1.56506,3.62699,-2.27046,3.31846,-1.09118,1.2147,-0.141115,1.90784,-29.0791,1.3141,23.6383,1.44256,1.95916,0.0779268,
0.121965,-0.0775176,0.193464,-2.12986,0.217954,0.225347,0.0806572,0.0970653,-0.0240293,0.102786,-0.166809,-0.0553911,0.273676,0.00725839,0.433156,-0.902504,0.409739,0.849965,0.516839,0.00453801,-0.00576703,9.14797,-0.0816766,9.78685,-17.3837,-0.979236,3.37883,0.0700988,0.121819,-0.077318,0.195156,-2.12915,0.219126,0.220211,0.0804854,0.0536755,-0.0410038,0.11279,-0.0660056,0.00193904,0.0139606,0.000450379,0,0,0,0,0,0,0,1.90784,-29.0791,1.3141,23.6383,1.44256,1.95916,0.0779268,
0.122751,-0.0776817,0.194296,-2.13115,0.217452,0.227694,0.0807136,0.0973199,-0.0233252,0.103037,-0.165722,-0.0568613,0.277617,0.00721666,0.15914,0.44007,0.15684,0.679397,-0.918882,2.46334,-0.0260798,9.05335,-0.158327,9.67177,-16.997,-0.967217,3.34284,0.0699697,0.121819,-0.077318,0.195156,-2.12915,0.219126,0.220211,0.0804854,0.0536755,-0.0410038,0.11279,-0.0660056,0.00193904,0.0139606,0.000450379,0,0,0,0,0,0,0,1.90784,-29.0791,1.3141,23.6383,1.44256,1.95916,0.0779268,
0.123242,-0.0779668,0.196663,-2.13146,0.218643,0.223681,0.0806018,0.0960284,-0.0257425,0.10163,-0.163343,-0.0538746,0.272416,0.00726609,-0.807155,-1.51082,-0.879443,1.48645,1.86669,-3.25097,0.0308914,9.14797,-0.0816766,9.78685,-17.3837,-0.979236,3.37883,0.0700988,0.121819,-0.077318,0.195156,-2.12915,0.219126,0.220211,0.0804854,0.0536755,-0.0410038,0.11279,-0.0660056,0.00193904,0.0139606,0.000450379,0,0,0,0,0,0,0,1.90784,-29.0791,1.3141,23.6383,1.44256,1.95916,0.0779268,
0.12398,-0.0781694,0.197444,-2.13273,0.218178,0.225954,0.0806601,0.095258,-0.0256594,0.10083,-0.162271,-0.0547306,0.274768,0.00727086,-0.481509,0.0519324,-0.499593,0.670359,-0.534969,1.47028,0.00298225,9.05147,-0.21099,9.68085,-16.9779,-0.963768,3.35389,0.0699166,0.123946,-0.0776551,0.199358,-2.13178,0.219187,0.220595,0.0804857,0.0566699,-0.00594585,0.122448,-0.0760961,0.00320397,0.0378706,0.00216202,0.374303,4.38225,1.20724,-1.26131,0.158117,2.98874,0.213955,-3.74554,-27.3335,-4.23613,17.489,0.893246,0.798269,0.0577852,
0.124717,-0.0783125,0.198226,-2.13399,0.217643,0.228353,0.0807165,0.0946267,-0.0241048,0.100209,-0.161435,-0.0571656,0.279783,0.0072262,-0.394553,0.971604,-0.388591,0.522403,-1.52188,3.13441,-0.027911,8.94363,-0.281465,9.55374,-16.5926,-0.928975,3.31778,0.0695695,0.123946,-0.0776551,0.199358,-2.13178,0.219187,0.220595,0.0804857,0.0566699,-0.00594585,0.122448,-0.0760961,0.00320397,0.0378706,0.00216202,0,0,0,0,0,0,0,-3.74554,-27.3335,-4.23613,17.489,0.893246,0.798269,0.0577852,
0.125446,-0.0784149,0.199001,-2.13525,0.217083,0.230806,0.0807711,0.0939413,-0.0218444,0.0995421,-0.160493,-0.0597428,0.285147,0.00714692,-0.428377,1.41281,-0.416546,0.589049,-1.61079,3.3522,-0.0495506,8.82279,-0.345413,9.41443,-16.2086,-0.874035,3.28132,0.0688187,0.123946,-0.0776551,0.199358,-2.13178,0.219187,0.220595,0.0804857,0.0566699,-0.00594585,0.122448,-0.0760961,0.00320397,0.0378706,0.00216202,0,0,0,0,0,0,0,-3.74554,-27.3335,-4.23613,17.489,0.893246,0.798269,0.0577852,
0.125413,-0.0779817,0.200914,-2.1342,0.218737,0.224108,0.0805992,0.0937033,-0.0212763,0.0992685,-0.160152,-0.0556925,0.278066,0.00717348,-0.148755,0.355053,-0.171017,0.213027,2.53146,-4.4257,0.0165998,9.05147,-0.21099,9.68085,-16.9779,-0.963768,3.35389,0.0699166,0.123946,-0.0776551,0.199358,-2.13178,0.219187,0.220595,0.0804857,0.0566699,-0.00594585,0.122448,-0.0760961,0.00320397,0.0378706,0.00216202,0,0,0,0,0,0,0,-3.74554,-27.3335,-4.23613,17.489,0.893246,0.798269,0.0577852,
0.126157,-0.0780935,0.201703,-2.13548,0.2183,0.226329,0.0806562,0.0935572,-0.0198147,0.099136,-0.160323,-0.0554844,0.277966,0.00716165,-0.0913044,0.913496,-0.0828359,-0.106732,0.130074,-0.0626087,-0.00739871,8.93778,-0.318431,9.5527,-16.5704,-0.925738,3.33118,0.06952,0.125449,-0.0772269,0.203457,-2.1345,0.219022,0.220989,0.0804846,0.0358883,0.0524049,0.115486,-0.0741772,-0.00800978,0.0289969,0.000237177,-2.59771,7.29384,-0.870262,0.239853,-1.40172,-1.10921,-0.240605,-1.74603,-25.0127,-2.28819,16.9138,1.13678,0.454031,0.0980684,
0.126894,-0.0781734,0.202486,-2.13676,0.217802,0.228658,0.0807112,0.0932775,-0.0178502,0.0988854,-0.160175,-0.0568482,0.2806,0.00710567,-0.17486,1.22779,-0.156606,0.0920081,-0.852382,1.64631,-0.0349858,8.81693,-0.38238,9.4134,-16.1864,-0.870799,3.29471,0.0687692,0.125449,-0.0772269,0.203457,-2.1345,0.219022,0.220989,0.0804846,0.0358883,0.0524049,0.115486,-0.0741772,-0.00800978,0.0289969,0.000237177,0,0,0,0,0,0,0,-1.74603,-25.0127,-2.28819,16.9138,1.13678,0.454031,0.0980684,
0.12762,-0.0782319,0.203258,-2.13802,0.217287,0.231036,0.0807644,0.0927706,-0.0157429,0.0984033,-0.159544,-0.0583514,0.283942,0.00701512,-0.316781,1.3171,-0.30129,0.394433,-0.939471,2.08923,-0.0565937,8.6849,-0.439672,9.26393,-15.8034,-0.802826,3.25753,0.0678009,0.125449,-0.0772269,0.203457,-2.1345,0.219022,0.220989,0.0804846,0.0358883,0.0524049,0.115486,-0.0741772,-0.00800978,0.0289969,0.000237177,0,0,0,0,0,0,0,-1.74603,-25.0127,-2.28819,16.9138,1.13678,0.454031,0.0980684,
0.126749,-0.0770599,0.204851,-2.13704,0.218423,0.224403,0.0805977,0.0909053,-0.0113957,0.0965132,-0.160997,-0.0563738,0.275549,0.00707347,-1.16584,2.71698,-1.18132,-0.907694,1.23596,-5.24563,0.0364714,8.93778,-0.318431,9.5527,-16.5704,-0.925738,3.33118,0.06952,0.125449,-0.0772269,0.203457,-2.1345,0.219022,0.220989,0.0804846,0.0358883,0.0524049,0.115486,-0.0741772,-0.00800978,0.0289969,0.000237177,0,0,0,0,0,0,0,-1.74603,-25.0127,-2.28819,16.9138,1.13678,0.454031,0.0980684,
0.127432,-0.0770304,0.205579,-2.13838,0.217926,0.226542,0.0806546,0.0898027,-0.00837869,0.0954201,-0.162209,-0.057515,0.273905,0.0070825,-0.689143,1.88563,-0.683198,-0.757987,-0.713218,-1.02757,0.00564354,8.81693,-0.38238,9.4134,-16.1864,-0.870799,3.29471,0.0687692,0.125449,-0.0772269,0.203457,-2.1345,0.219022,0.220989,0.0804846,0.0358883,0.0524049,0.115486,-0.0741772,-0.00800978,0.0289969,0.000237177,0,0,0,0,0,0,0,-1.74603,-25.0127,-2.28819,16.9138,1.13678,0.454031,0.0980684,
0.12812,-0.0770088,0.206312,-2.13969,0.217387,0.228781,0.0807093,0.0890237,-0.0061617,0.0946579,-0.162491,-0.059506,0.275108,0.00703217,-0.48684,1.38562,-0.476371,-0.175893,-1.24443,0.751488,-0.0314575,8.68888,-0.469932,9.2696,-15.7701,-0.796782,3.27623,0.0677064,0.126639,-0.0765082,0.207066,-2.13754,0.2191,0.221157,0.0804819,0.0433749,0.0509879,0.107553,-0.100855,-0.0106928,0.00641744,0.00124651,0.935824,-0.177118,-0.991635,-3.33471,-0.335377,-2.82244,0.126167,0.590702,-30.1543,-0.0109729,25.2094,1.38122,1.18279,0.0843355,
0.127933,-0.0762687,0.208452,-2.14019,0.218455,0.224104,0.0805954,0.087809,-0.00277818,0.0934191,-0.164199,-0.0576249,0.262975,0.00707331,-0.7592,2.1147,-0.774214,-1.06746,1.17573,-7.58311,0.0257123,8.82092,-0.412639,9.41906,-16.1531,-0.864755,3.31341,0.0686746,0.126639,-0.0765082,0.207066,-2.13754,0.2191,0.221157,0.0804819,0.0433749,0.0509879,0.107553,-0.100855,-0.0106928,0.00641744,0.00124651,0,0,0,0,0,0,0,0.590702,-30.1543,-0.0109729,25.2094,1.38122,1.18279,0.0843355,
