xiao-wang007/linearmpc_panda/paper_data/panda_torque_PD_controller_Start_at_0_torque_rate_limiter/0/trajectory.csv
Commanded Joint 0 Position,Commanded Joint 1 Position,Commanded Joint 2 Position,Commanded Joint 3 Position,Commanded Joint 4 Position,Commanded Joint 5 Position,Commanded Joint 6 Position,Commanded Joint 0 Velocity,Commanded Joint 1 Velocity,Commanded Joint 2 Velocity,Commanded Joint 3 Velocity,Commanded Joint 4 Velocity,Commanded Joint 5 Velocity,Commanded Joint 6 Velocity,Commanded Joint 0 Acceleration,Commanded Joint 1 Acceleration,Commanded Joint 2 Acceleration,Commanded Joint 3 Acceleration,Commanded Joint 4 Acceleration,Commanded Joint 5 Acceleration,Commanded Joint 6 Acceleration,Commanded Joint 0 Torque,Commanded Joint 1 Torque,Commanded Joint 2 Torque,Commanded Joint 3 Torque,Commanded Joint 4 Torque,Commanded Joint 5 Torque,Commanded Joint 6 Torque,Actual Joint 0 Position,Actual Joint 1 Position,Actual Joint 2 Position,Actual Joint 3 Position,Actual Joint 4 Position,Actual Joint 5 Position,Actual Joint 6 Position,Actual Joint 0 Velocity,Actual Joint 1 Velocity,Actual Joint 2 Velocity,Actual Joint 3 Velocity,Actual Joint 4 Velocity,Actual Joint 5 Velocity,Actual Joint 6 Velocity,Actual Joint 0 Acceleration,Actual Joint 1 Acceleration,Actual Joint 2 Acceleration,Actual Joint 3 Acceleration,Actual Joint 4 Acceleration,Actual Joint 5 Acceleration,Actual Joint 6 Acceleration,Actual Joint 0 Torque,Actual Joint 1 Torque,Actual Joint 2 Torque,Actual Joint 3 Torque,Actual Joint 4 Torque,Actual Joint 5 Torque,Actual Joint 6 Torque,
0.043925,0.0165126,-0.0164683,-1.78931,-0.0196004,0.275044,0.114458,0.000228946,0.0230382,0.000187905,-0.0327764,-0.00385905,0.0544634,-0.000369079,0.143091,14.3989,0.117441,-20.4852,-2.4119,34.0396,-0.230674,0.0573502,25.1211,0.0491288,-24.4122,-0.518866,1.91856,-0.0244683,0.0439167,0.0154582,-0.0164805,-1.78653,-0.0193615,0.269256,0.114513,0.000603006,0.000772819,-0.00170377,-6.48353e-05,-0.00435326,0.000270144,0.000130109,0,0,0,0,0,0,0,0.0551182,-36.1925,0.0882092,27.2287,0.788876,3.07244,-0.0969389,
0.0439059,0.0154708,-0.0164916,-1.78653,-0.0194119,0.269264,0.114513,0.000104205,0.0185204,7.13679e-05,-0.026244,-0.00337037,0.0436367,-0.000296242,-0.0779634,-2.82363,-0.072836,4.08271,0.305425,-6.76669,0.0455232,0.0515519,25.5616,0.038744,-24.3286,-0.519185,1.66768,-0.0229521,0.0439167,0.0154582,-0.0164805,-1.78653,-0.0193615,0.269256,0.114513,0.000603006,0.000772819,-0.00170377,-6.48353e-05,-0.00435326,0.000270144,0.000130109,0,0,0,0,0,0,0,0.0551182,-36.1925,0.0882092,27.2287,0.788876,3.07244,-0.0969389,
0.0439033,0.015474,-0.0164942,-1.78653,-0.0194202,0.269267,0.114513,1.67633e-05,0.014896,-9.50841e-06,-0.0210127,-0.00290317,0.0349761,-0.000237544,-0.0546509,-2.26525,-0.0505477,3.26958,0.291995,-5.41286,0.0366861,0.0443003,26.1347,0.0269415,-24.2199,-0.518617,1.321,-0.020989,0.0439215,0.015529,-0.016477,-1.78665,-0.0193623,0.269256,0.114506,0.00168435,0.000927901,0.000805645,-0.00505802,-0.00492179,0.00152771,-0.00128372,0.135169,0.0193852,0.313677,-0.624148,-0.0710657,0.157196,-0.176728,0.0313145,-35.8672,0.0366345,26.951,0.758663,3.07244,-0.0227812,
0.043901,0.0154768,-0.0164964,-1.78653,-0.0194264,0.269269,0.114513,-4.20353e-05,0.0119884,-6.31068e-05,-0.0168231,-0.00247702,0.0280503,-0.000190401,-0.0367491,-1.81723,-0.033499,2.61853,0.266347,-4.3286,0.0294643,0.0383289,26.6586,0.0174911,-24.0521,-0.516607,0.935857,-0.0189878,0.0439215,0.015529,-0.016477,-1.78665,-0.0193623,0.269256,0.114506,0.00168435,0.000927901,0.000805645,-0.00505802,-0.00492179,0.00152771,-0.00128372,0,0,0,0,0,0,0,0.0313145,-35.8672,0.0366345,26.951,0.758663,3.07244,-0.0227812,
0.0437378,0.0154682,-0.0166641,-1.78641,-0.0151003,0.267327,0.114483,-0.00159344,0.00949253,-0.00161175,-0.012706,0.0435357,0.00150699,-0.000280257,-0.969629,-1.55994,-0.9679,2.57319,28.7579,-16.5896,-0.05616,0.501271,0.13576,0.501267,-0.242758,3.08155,-1.56488,-0.00175541,0.0439215,0.015529,-0.016477,-1.78665,-0.0193623,0.269256,0.114506,0.00168435,0.000927901,0.000805645,-0.00505802,-0.00492179,0.00152771,-0.00128372,0,0,0,0,0,0,0,0.0313145,-35.8672,0.0366345,26.951,0.758663,3.07244,-0.0227812,
0.0437697,0.0155662,-0.0166337,-1.78657,-0.0151258,0.2673,0.114475,-0.00266142,0.00770113,-0.00268008,-0.0095689,0.0801143,-0.0198906,-0.000355184,-0.667487,-1.11962,-0.667707,1.96067,22.8616,-13.3735,-0.0468293,0.495039,0.135595,0.495044,-0.240389,3.05479,-1.55055,-0.0017114,0.0439215,0.015529,-0.016477,-1.78665,-0.0193623,0.269256,0.114506,0.00168435,0.000927901,0.000805645,-0.00505802,-0.00492179,0.00152771,-0.00128372,0,0,0,0,0,0,0,0.0313145,-35.8672,0.0366345,26.951,0.758663,3.07244,-0.0227812,
0.0437233,0.0155658,-0.0166798,-1.78655,-0.0131307,0.26635,0.114472,-0.0032896,0.00615029,-0.00329613,-0.00726555,0.11397,-0.0396596,-0.000357865,-0.39261,-0.969277,-0.385034,1.43959,21.1601,-12.3557,-0.0016755,0.488323,0.149595,0.488214,-0.239151,3.02851,-1.53646,-0.0016772,0.0439154,0.0158204,-0.0164803,-1.78703,-0.0193692,0.270172,0.114513,-0.000249326,0.0214023,0.000404038,-0.0432753,-0.0043563,0.128971,0.000221658,-0.24171,2.5593,-0.0502009,-4.77716,0.0706857,15.9304,0.188172,0.106693,-31.1025,0.139784,22.5671,0.471188,3.35808,-0.0969389,
0.0436887,0.0155633,-0.0167139,-1.78654,-0.0110307,0.26533,0.11447,-0.00349773,0.00485942,-0.00348996,-0.0056024,0.143675,-0.0572098,-0.00033,-0.130085,-0.806795,-0.121143,1.03946,18.5651,-10.9689,0.0174153,0.482119,0.149575,0.48202,-0.23656,3.00219,-1.52209,-0.00165564,0.0439154,0.0158204,-0.0164803,-1.78703,-0.0193692,0.270172,0.114513,-0.000249326,0.0214023,0.000404038,-0.0432753,-0.0043563,0.128971,0.000221658,0,0,0,0,0,0,0,0.106693,-31.1025,0.139784,22.5671,0.471188,3.35808,-0.0969389,
0.043666,0.0155606,-0.016736,-1.78654,-0.00887268,0.264267,0.114469,-0.00336544,0.0038207,-0.00334547,-0.00441854,0.168891,-0.0723589,-0.00029256,0.0826848,-0.649196,0.0903083,0.739915,15.7604,-9.46817,0.0234002,0.476127,0.149436,0.476036,-0.23396,2.97573,-1.50776,-0.00163447,0.0439154,0.0158204,-0.0164803,-1.78703,-0.0193692,0.270172,0.114513,-0.000249326,0.0214023,0.000404038,-0.0432753,-0.0043563,0.128971,0.000221658,0,0,0,0,0,0,0,0.106693,-31.1025,0.139784,22.5671,0.471188,3.35808,-0.0969389,
0.0436559,0.0161977,-0.0167536,-1.78665,-0.0108363,0.264527,0.114428,-0.0062486,0.00673109,-0.00632666,0.00151932,0.266521,-0.149234,-0.0010322,-1.80197,1.819,-1.86325,3.71116,61.0189,-48.0471,-0.462275,4.14185,1.28261,4.13333,-1.73872,11.0766,-9.1754,-0.00531922,0.0439154,0.0158204,-0.0164803,-1.78703,-0.0193692,0.270172,0.114513,-0.000249326,0.0214023,0.000404038,-0.0432753,-0.0043563,0.128971,0.000221658,0,0,0,0,0,0,0,0.106693,-31.1025,0.139784,22.5671,0.471188,3.35808,-0.0969389,
0.0435382,0.0162762,-0.016872,-1.78651,-0.00439281,0.259838,0.11441,-0.00794037,0.0073454,-0.00802049,0.00490323,0.374303,-0.236612,-0.00126544,-1.05736,0.383939,-1.05864,2.11494,67.3637,-54.6111,-0.145776,4.02669,1.35924,4.01223,-1.71234,11.073,-9.04228,-0.00490371,0.0439022,0.0171354,-0.016492,-1.7916,-0.0182439,0.274642,0.114513,-0.00351629,0.0173962,-0.00150743,-0.163922,0.179207,-0.0280289,0.00051734,-0.408371,-0.500766,-0.238933,-15.0809,22.9454,-19.625,0.0369603,0.336795,-28.73,0.338148,23.3923,1.76574,1.75316,-0.0905302,
0.0434648,0.0163165,-0.0169448,-1.78642,0.00277495,0.25448,0.114401,-0.00818782,0.00688614,-0.00823702,0.00609543,0.478637,-0.323237,-0.00125657,-0.154658,-0.287038,-0.135334,0.745125,65.2084,-54.1408,0.00554255,3.90815,1.35054,3.89196,-1.68605,11.073,-8.91514,-0.00500975,0.0439022,0.0171354,-0.016492,-1.7916,-0.0182439,0.274642,0.114513,-0.00351629,0.0173962,-0.00150743,-0.163922,0.179207,-0.0280289,0.00051734,0,0,0,0,0,0,0,0.336795,-28.73,0.338148,23.3923,1.76574,1.75316,-0.0905302,
0.04344,0.0163416,-0.0169685,-1.78639,0.0103953,0.248692,0.114395,-0.00716967,0.00613622,-0.00718245,0.005743,0.573417,-0.403287,-0.00115024,0.63634,-0.468699,0.659106,-0.220266,59.2379,-50.0307,0.0664559,3.79344,1.33316,3.77736,-1.6629,11.073,-8.79435,-0.00538486,0.0439022,0.0171354,-0.016492,-1.7916,-0.0182439,0.274642,0.114513,-0.00351629,0.0173962,-0.00150743,-0.163922,0.179207,-0.0280289,0.00051734,0,0,0,0,0,0,0,0.336795,-28.73,0.338148,23.3923,1.76574,1.75316,-0.0905302,
0.0446542,0.0177279,-0.0157429,-1.79225,-0.00997576,0.263441,0.114699,0.00642131,0.0114046,0.00632968,-0.0021401,0.580311,-0.490921,0.000961484,8.49436,3.29271,8.44508,-4.92694,4.30853,-54.7712,1.31983,22.7327,3.21841,22.5736,-10.0149,11.073,-14.2875,0.150638,0.0439022,0.0171354,-0.016492,-1.7916,-0.0182439,0.274642,0.114513,-0.00351629,0.0173962,-0.00150743,-0.163922,0.179207,-0.0280289,0.00051734,0,0,0,0,0,0,0,0.336795,-28.73,0.338148,23.3923,1.76574,1.75316,-0.0905302,
0.0453116,0.017903,-0.0150862,-1.79256,-0.0040746,0.255294,0.114738,0.0215712,0.0135001,0.0214807,-0.00937097,0.611778,-0.596404,0.00174065,9.46868,1.3097,9.46938,-4.5193,19.6668,-65.9275,0.48698,20.9607,3.0585,20.7821,-9.15144,11.0238,-14.2528,0.0971467,0.0437817,0.0185483,-0.0165961,-1.79582,-0.00898382,0.269919,0.11451,-0.00591907,0.122026,0.00127216,-0.0155582,0.414276,-0.296409,0.00109316,-0.300347,13.0787,0.347448,18.5455,29.3837,-33.5475,0.0719777,2.49103,-42.0601,2.5638,32.1838,2.86529,1.29632,-0.0703886,
0.0461026,0.0180131,-0.0142783,-1.79292,0.00254997,0.246198,0.114819,0.0370319,0.0135529,0.0373826,-0.0164314,0.655036,-0.704531,0.00341896,9.66294,0.0330137,9.9387,-4.41275,27.0366,-67.5791,1.04894,19.6858,2.39823,19.5658,-8.44654,11.0238,-14.2528,0.0472869,0.0437817,0.0185483,-0.0165961,-1.79582,-0.00898382,0.269919,0.11451,-0.00591907,0.122026,0.00127216,-0.0155582,0.414276,-0.296409,0.00109316,0,0,0,0,0,0,0,2.49103,-42.0601,2.5638,32.1838,2.86529,1.29632,-0.0703886,
0.0470188,0.0179128,-0.0133999,-1.79356,0.00973194,0.236613,0.114893,0.0525313,0.0083347,0.0518646,-0.0292147,0.703578,-0.80325,0.00459295,9.6871,-3.26138,9.05128,-7.98961,30.3387,-61.699,0.733742,18.9757,1.45698,19.0961,-7.7403,11.0238,-14.2528,0.100232,0.0437817,0.0185483,-0.0165961,-1.79582,-0.00898382,0.269919,0.11451,-0.00591907,0.122026,0.00127216,-0.0155582,0.414276,-0.296409,0.00109316,0,0,0,0,0,0,0,2.49103,-42.0601,2.5638,32.1838,2.86529,1.29632,-0.0703886,
0.0451374,0.0193102,-0.0152216,-1.79726,0.000395328,0.258323,0.114735,0.0634983,0.0137998,0.0630164,-0.0434589,0.691495,-0.811444,0.0052744,6.85438,3.4157,6.96983,-8.90259,-7.55211,-5.12154,0.425909,33.2558,2.71416,33.076,-18.1898,11.0238,-14.2528,0.184233,0.0437817,0.0185483,-0.0165961,-1.79582,-0.00898382,0.269919,0.11451,-0.00591907,0.122026,0.00127216,-0.0155582,0.414276,-0.296409,0.00109316,0,0,0,0,0,0,0,2.49103,-42.0601,2.5638,32.1838,2.86529,1.29632,-0.0703886,
0.0462593,0.0195265,-0.0141177,-1.79813,0.0063254,0.250217,0.114798,0.0788467,0.0164462,0.0780102,-0.0563099,0.701448,-0.85181,0.00580724,9.59275,1.65401,9.37115,-8.03189,6.22056,-25.2287,0.333019,29.7645,3.81849,29.5313,-17.3666,10.7604,-14.1912,0.0624517,0.0434047,0.0211983,-0.017014,-1.79502,0.0259812,0.242392,0.114522,-0.00912372,0.0915222,-0.0092811,0.0168907,1.0368,-1.00667,0.0015363,-0.400582,-3.81298,-1.31916,4.05611,77.8157,-88.7827,0.0553916,7.46204,-36.9939,7.33644,20.3018,2.12646,-1.19026,-0.00996382,
0.0475313,0.0195956,-0.012829,-1.79921,0.0129347,0.24131,0.114846,0.0948769,0.0148857,0.0946256,-0.0721889,0.726391,-0.904118,0.00582565,10.0189,-0.975353,10.3846,-9.92435,15.5896,-32.6926,0.0115094,27.9795,4.13071,27.5711,-16.1895,10.7604,-14.1912,0.0707716,0.0434047,0.0211983,-0.017014,-1.79502,0.0259812,0.242392,0.114522,-0.00912372,0.0915222,-0.0092811,0.0168907,1.0368,-1.00667,0.0015363,0,0,0,0,0,0,0,7.46204,-36.9939,7.33644,20.3018,2.12646,-1.19026,-0.00996382,
0.0488971,0.0196615,-0.0114359,-1.80032,0.0201031,0.231732,0.114831,0.110047,0.0135559,0.110528,-0.0855042,0.760323,-0.96273,0.00429454,9.48113,-0.831086,9.93886,-8.32204,21.2074,-36.6325,-0.956947,25.6492,1.15684,25.7409,-18.0112,10.7604,-14.1912,0.0554842,0.0434047,0.0211983,-0.017014,-1.79502,0.0259812,0.242392,0.114522,-0.00912372,0.0915222,-0.0092811,0.0168907,1.0368,-1.00667,0.0015363,0,0,0,0,0,0,0,7.46204,-36.9939,7.33644,20.3018,2.12646,-1.19026,-0.00996382,
0.0451804,0.0211951,-0.0152232,-1.79768,0.039882,0.225675,0.11472,0.116085,0.00948172,0.116554,-0.104922,0.778028,-0.988272,0.00517165,3.77411,-2.54638,3.7661,-12.1362,11.0655,-15.964,0.548196,37.5301,0.874778,37.0587,-26.0583,10.7604,-14.1912,0.0926289,0.0434047,0.0211983,-0.017014,-1.79502,0.0259812,0.242392,0.114522,-0.00912372,0.0915222,-0.0092811,0.0168907,1.0368,-1.00667,0.0015363,0,0,0,0,0,0,0,7.46204,-36.9939,7.33644,20.3018,2.12646,-1.19026,-0.00996382,
0.0465953,0.02105,-0.0138285,-1.79936,0.0468101,0.216412,0.114735,0.128239,0.00395714,0.128112,-0.12582,0.795624,-1.02218,0.00453094,7.59631,-3.45286,7.22412,-13.0612,10.9974,-21.1951,-0.400443,34.0434,2.25561,33.7088,-24.2874,10.7522,-13.8142,0.0408074,0.0452067,0.0220253,-0.0137064,-1.79772,0.059544,0.194466,0.114575,0.117286,0.00178393,0.187066,-0.169354,0.945286,-1.49237,0.005227,15.8012,-11.2173,24.5434,-23.2806,-11.4394,-60.7131,0.461338,18.138,-31.1025,17.8616,16.4655,3.80645,-0.991587,0.00376909,
0.0481726,0.0209392,-0.0122793,-1.80105,0.0540469,0.206645,0.114668,0.142025,0.000396669,0.141219,-0.142908,0.817419,-1.06193,0.00193775,8.6159,-2.2253,8.19168,-10.6799,13.6224,-24.8427,-1.62074,30.9055,0.0981593,30.4273,-25.3527,10.7522,-13.8142,-0.00390696,0.0452067,0.0220253,-0.0137064,-1.79772,0.059544,0.194466,0.114575,0.117286,0.00178393,0.187066,-0.169354,0.945286,-1.49237,0.005227,0,0,0,0,0,0,0,18.138,-31.1025,17.8616,16.4655,3.80645,-0.991587,0.00376909,
0.0487679,0.0217966,-0.0101709,-1.80197,0.0740448,0.172722,0.114647,0.161107,-0.00256119,0.160116,-0.170487,0.836374,-1.11768,0.00139384,11.9263,-1.84867,11.8105,-17.237,11.8466,-34.8425,-0.339947,39.0413,3.97518,38.4463,-30.5004,10.7522,-13.8142,0.054888,0.0452067,0.0220253,-0.0137064,-1.79772,0.059544,0.194466,0.114575,0.117286,0.00178393,0.187066,-0.169354,0.945286,-1.49237,0.005227,0,0,0,0,0,0,0,18.138,-31.1025,17.8616,16.4655,3.80645,-0.991587,0.00376909,
0.0507724,0.0217714,-0.00818105,-1.80423,0.0816209,0.162017,0.114534,0.178998,-0.00267898,0.177839,-0.192683,0.858503,-1.16178,-0.00170724,11.182,-0.0736128,11.0772,-13.8727,13.8304,-27.5594,-1.93817,34.3401,2.10045,33.9807,-31.088,10.7522,-13.8142,-0.0323288,0.0452067,0.0220253,-0.0137064,-1.79772,0.059544,0.194466,0.114575,0.117286,0.00178393,0.187066,-0.169354,0.945286,-1.49237,0.005227,0,0,0,0,0,0,0,18.138,-31.1025,17.8616,16.4655,3.80645,-0.991587,0.00376909,
0.0528159,0.0218089,-0.00615633,-1.80647,0.0894918,0.151309,0.114382,0.194286,-0.00120462,0.192889,-0.210324,0.883575,-1.1971,-0.00517143,9.55471,0.921471,9.4064,-11.0254,15.6701,-22.0784,-2.16512,30.6708,2.92512,30.4086,-29.6764,10.7745,-13.3727,-0.154037,0.0542046,0.0210683,-0.0071208,-1.80714,0.0929603,0.140944,0.114618,0.358946,-0.0980152,0.183148,-0.400935,1.12229,-1.61012,0.00223442,30.2075,-12.4749,-0.489808,-28.9475,22.1251,-14.7181,-0.374072,20.9032,-27.1074,20.6348,15.4697,4.04449,-1.9062,-0.0163725,
0.0548583,0.021881,-0.004133,-1.80873,0.0976164,0.140706,0.114216,0.20649,0.000839527,0.204895,-0.224692,0.909975,-1.22277,-0.00828255,7.62756,1.27759,7.50341,-8.97971,16.5001,-16.0432,-1.94445,28.2174,2.63533,27.9579,-29.0503,10.7745,-13.3727,-0.192747,0.0542046,0.0210683,-0.0071208,-1.80714,0.0929603,0.140944,0.114618,0.358946,-0.0980152,0.183148,-0.400935,1.12229,-1.61012,0.00223442,0,0,0,0,0,0,0,20.9032,-27.1074,20.6348,15.4697,4.04449,-1.9062,-0.0163725,
0.0589424,0.0204675,-0.0024467,-1.81292,0.11011,0.118378,0.114408,0.224657,-0.00410105,0.222774,-0.250672,0.942182,-1.2485,-0.0107434,11.3548,-3.08786,11.1745,-16.2377,20.1297,-16.0811,-1.53805,34.5048,1.65244,34.0901,-35.0566,10.7745,-11.2218,-0.0876074,0.0542046,0.0210683,-0.0071208,-1.80714,0.0929603,0.140944,0.114618,0.358946,-0.0980152,0.183148,-0.400935,1.12229,-1.61012,0.00223442,0,0,0,0,0,0,0,20.9032,-27.1074,20.6348,15.4697,4.04449,-1.9062,-0.0163725,
0.0612874,0.0203921,-0.000126205,-1.81571,0.118756,0.108324,0.1142,0.238351,-0.00516585,0.236231,-0.270282,0.969906,-1.25016,-0.0137949,8.55826,-0.665503,8.41092,-12.2561,17.3269,-1.03616,-1.90719,30.2418,1.86878,29.9293,-33.9491,10.7745,-10.8394,-0.218283,0.0542046,0.0210683,-0.0071208,-1.80714,0.0929603,0.140944,0.114618,0.358946,-0.0980152,0.183148,-0.400935,1.12229,-1.61012,0.00223442,0,0,0,0,0,0,0,20.9032,-27.1074,20.6348,15.4697,4.04449,-1.9062,-0.0163725,
0.0635701,0.0203739,0.00213264,-1.81848,0.127484,0.0989627,0.113979,0.247747,-0.00458926,0.245456,-0.285451,0.994123,-1.23415,-0.0165559,5.87281,0.360373,5.76545,-9.48068,15.1361,10.004,-1.72559,27.6306,1.29772,27.3584,-33.3778,10.7745,-10.5101,-0.25947,0.0542046,0.0210683,-0.0071208,-1.80714,0.0929603,0.140944,0.114618,0.358946,-0.0980152,0.183148,-0.400935,1.12229,-1.61012,0.00223442,0,0,0,0,0,0,0,20.9032,-27.1074,20.6348,15.4697,4.04449,-1.9062,-0.0163725,
0.0657781,0.0203817,0.00431766,-1.82124,0.136268,0.0902779,0.113761,0.253397,-0.00347456,0.250991,-0.297157,1.0149,-1.20444,-0.0186892,3.53143,0.696687,3.45904,-7.31634,12.9861,18.5682,-1.33335,26.1804,1.17564,25.9273,-32.582,10.9556,-9.20969,-0.271974,0.064476,0.0196889,0.00859312,-1.82239,0.130717,0.0825907,0.114607,0.403875,-0.0494636,0.489948,-0.568109,1.16956,-1.78608,-0.000657274,5.61609,6.06895,38.3501,-20.8968,5.90847,-21.9949,-0.361462,19.1021,-27.5597,18.0878,18.4848,3.99505,-1.55555,-0.0630644,
0.0708089,0.0199201,0.0148591,-1.83037,0.150102,0.0630598,0.114023,0.278544,0.00216505,0.275753,-0.334745,1.05543,-1.17654,-0.0227346,15.7167,3.52475,15.4765,-23.4925,25.3333,17.4387,-2.52836,27.6483,2.57195,27.376,-38.4816,10.9556,-2.84204,-0.342027,0.064476,0.0196889,0.00859312,-1.82239,0.130717,0.0825907,0.114607,0.403875,-0.0494636,0.489948,-0.568109,1.16956,-1.78608,-0.000657274,0,0,0,0,0,0,0,19.1021,-27.5597,18.0878,18.4848,3.99505,-1.55555,-0.0630644,
0.0736021,0.0201647,0.0176218,-1.83409,0.159811,0.0564642,0.11371,0.292665,0.00784645,0.289669,-0.360803,1.08708,-1.10612,-0.0260077,8.82542,3.55088,8.69772,-16.2863,19.7789,44.0111,-2.04567,25.3384,1.31621,25.1145,-38.1936,10.9556,-2.4467,-0.373832,0.064476,0.0196889,0.00859312,-1.82239,0.130717,0.0825907,0.114607,0.403875,-0.0494636,0.489948,-0.568109,1.16956,-1.78608,-0.000657274,0,0,0,0,0,0,0,19.1021,-27.5597,18.0878,18.4848,3.99505,-1.55555,-0.0630644,
0.0761863,0.0204017,0.0201787,-1.83768,0.169415,0.0513963,0.113413,0.298735,0.012204,0.295657,-0.378224,1.10975,-1.0116,-0.0282377,3.79414,2.72345,3.74255,-10.888,14.1704,59.0793,-1.39375,23.7258,0.466428,23.53,-37.8021,10.9556,-1.80304,-0.372156,0.064476,0.0196889,0.00859312,-1.82239,0.130717,0.0825907,0.114607,0.403875,-0.0494636,0.489948,-0.568109,1.16956,-1.78608,-0.000657274,0,0,0,0,0,0,0,19.1021,-27.5597,18.0878,18.4848,3.99505,-1.55555,-0.0630644,
0.0785878,0.020609,0.0225554,-1.84113,0.178876,0.0475112,0.113137,0.299026,0.0149445,0.295945,-0.388787,1.12434,-0.906405,-0.029481,0.181907,1.71282,0.179859,-6.60232,9.11591,65.7447,-0.777053,22.7364,-0.0056285,22.5465,-36.804,10.9878,-0.427589,-0.356088,0.083042,0.0196324,0.0241909,-1.84398,0.174353,0.0214213,0.11439,0.548217,0.0275203,0.565522,-0.677388,1.31459,-1.69675,-0.0092151,18.0427,9.623,9.44665,-13.6599,18.1299,11.1661,-1.06973,9.66785,-34.0978,9.31215,22.8409,2.99347,-0.613474,-0.137222,
0.0902259,0.0202943,0.031291,-1.85421,0.196139,0.0100287,0.113455,0.322834,0.0206365,0.319404,-0.434639,1.17066,-0.817393,-0.0349427,14.8796,3.55752,14.6616,-28.6575,28.9494,55.6319,-3.41359,18.4126,-2.29084,18.2942,-42.881,10.9878,8.8922,-0.582444,0.083042,0.0196324,0.0241909,-1.84398,0.174353,0.0214213,0.11439,0.548217,0.0275203,0.565522,-0.677388,1.31459,-1.69675,-0.0092151,0,0,0,0,0,0,0,9.66785,-34.0978,9.31215,22.8409,2.99347,-0.613474,-0.137222,
0.0931804,0.0206127,0.034213,-1.85882,0.206693,0.00919368,0.113048,0.332129,0.0244692,0.328575,-0.462939,1.20037,-0.674789,-0.0381448,5.80965,2.39541,5.73184,-17.6869,18.5711,89.1278,-2.00128,18.2465,-3.11292,18.1337,-42.6306,10.9878,9.12165,-0.533793,0.083042,0.0196324,0.0241909,-1.84398,0.174353,0.0214213,0.11439,0.548217,0.0275203,0.565522,-0.677388,1.31459,-1.69675,-0.0092151,0,0,0,0,0,0,0,9.66785,-34.0978,9.31215,22.8409,2.99347,-0.613474,-0.137222,
0.0958214,0.0208729,0.0368262,-1.86312,0.216893,0.0103571,0.112685,0.331729,0.0260815,0.328188,-0.477834,1.21529,-0.510747,-0.039574,-0.250287,1.00768,-0.241377,-9.30932,9.32587,102.526,-0.893293,18.1003,-3.31384,17.9906,-42.1513,10.9878,9.32776,-0.477699,0.083042,0.0196324,0.0241909,-1.84398,0.174353,0.0214213,0.11439,0.548217,0.0275203,0.565522,-0.677388,1.31459,-1.69675,-0.0092151,0,0,0,0,0,0,0,9.66785,-34.0978,9.31215,22.8409,2.99347,-0.613474,-0.137222,
0.0982146,0.0210564,0.0391951,-1.86721,0.226749,0.0134264,0.112367,0.325214,0.0254532,0.321773,-0.484609,1.21866,-0.331865,-0.0396116,-4.07177,-0.392696,-4.0097,-4.23447,2.10318,111.801,-0.023457,17.8691,-3.90665,17.7432,-40.514,10.793,9.79653,-0.433162,0.102247,0.0201807,0.0464333,-1.87274,0.223706,-0.0227468,0.113543,0.614944,0.0299075,0.62558,-0.925432,1.496,-0.883084,-0.0271346,8.34087,0.29839,7.50725,-31.0055,22.6753,101.708,-2.23994,-1.26202,-34.07,-1.43523,28.9703,1.72912,2.9406,-0.143631,
0.109679,0.021068,0.053768,-1.88433,0.247205,-0.0264062,0.112339,0.344515,0.0305425,0.340694,-0.524264,1.26388,-0.272832,-0.0455848,12.0629,3.18083,11.8257,-24.7843,28.2618,36.8955,-3.73329,8.69051,-8.73099,8.6926,-46.2502,10.793,12.5144,-0.774842,0.102247,0.0201807,0.0464333,-1.87274,0.223706,-0.0227468,0.113543,0.614944,0.0299075,0.62558,-0.925432,1.496,-0.883084,-0.0271346,0,0,0,0,0,0,0,-1.26202,-34.07,-1.43523,28.9703,1.72912,2.9406,-0.143631,
0.112546,0.0213455,0.0566011,-1.88932,0.258235,-0.0243633,0.111873,0.347273,0.0313712,0.343382,-0.544175,1.28683,-0.167193,-0.0481133,1.72418,0.517974,1.6797,-12.4445,14.3471,66.0244,-1.58027,10.735,-8.33044,10.7117,-45.7019,10.793,12.5144,-0.645473,0.102247,0.0201807,0.0464333,-1.87274,0.223706,-0.0227468,0.113543,0.614944,0.0299075,0.62558,-0.925432,1.496,-0.883084,-0.0271346,0,0,0,0,0,0,0,-1.26202,-34.07,-1.43523,28.9703,1.72912,2.9406,-0.143631,
0.11503,0.0215068,0.0590576,-1.89392,0.268721,-0.0205791,0.111482,0.339925,0.0291295,0.336119,-0.550513,1.29162,-0.0391504,-0.0482776,-4.59263,-1.40112,-4.53891,-3.96114,2.99044,80.0265,-0.102701,12.0213,-7.44757,11.9853,-44.9725,10.793,12.5144,-0.543317,0.102247,0.0201807,0.0464333,-1.87274,0.223706,-0.0227468,0.113543,0.614944,0.0299075,0.62558,-0.925432,1.496,-0.883084,-0.0271346,0,0,0,0,0,0,0,-1.26202,-34.07,-1.43523,28.9703,1.72912,2.9406,-0.143631,
0.117221,0.021568,0.0612254,-1.89823,0.278714,-0.015486,0.111152,0.326713,0.0248345,0.323091,-0.547966,1.28312,0.0960079,-0.0468689,-8.25758,-2.68434,-8.14297,1.59138,-5.30984,84.4739,0.880457,12.6039,-7.16222,12.5334,-43.2342,10.4405,12.778,-0.46805,0.123342,0.0202652,0.0672742,-1.90858,0.278723,-0.0337906,0.111953,0.626007,0.0721192,0.60029,-1.10024,1.56381,0.155503,-0.0447115,1.38293,5.27647,-3.16115,-21.8507,8.47656,129.823,-2.1971,-5.2174,-36.4186,-5.5374,34.8499,1.70532,7.12365,-0.177505,
0.130204,0.021639,0.074039,-1.92084,0.302142,-0.0293473,0.110612,0.337333,0.0341804,0.333443,-0.580061,1.31197,0.148278,-0.0524262,6.63776,5.84119,6.47051,-20.0593,18.0321,32.6689,-3.47333,-0.117248,-14.6377,0.0359565,-48.7215,10.4405,12.778,-0.881076,0.123342,0.0202652,0.0672742,-1.90858,0.278723,-0.0337906,0.111953,0.626007,0.0721192,0.60029,-1.10024,1.56381,0.155503,-0.0447115,0,0,0,0,0,0,0,-5.2174,-36.4186,-5.5374,34.8499,1.70532,7.12365,-0.177505,
0.132707,0.0219684,0.0765154,-1.92592,0.312604,-0.0252346,0.110143,0.332458,0.0355807,0.328664,-0.591116,1.31114,0.221442,-0.0536566,-3.04682,0.875189,-2.98694,-6.90901,-0.519946,45.7274,-0.768979,3.79917,-12.4837,3.88901,-47.6488,10.4405,12.778,-0.690965,0.123342,0.0202652,0.0672742,-1.90858,0.278723,-0.0337906,0.111953,0.626007,0.0721192,0.60029,-1.10024,1.56381,0.155503,-0.0447115,0,0,0,0,0,0,0,-5.2174,-36.4186,-5.5374,34.8499,1.70532,7.12365,-0.177505,
0.134839,0.0221041,0.078627,-1.93058,0.321945,-0.020045,0.109768,0.319247,0.0318551,0.315722,-0.589254,1.28244,0.306894,-0.052304,-8.25708,-2.32849,-8.08917,1.16372,-17.9354,53.4075,0.845341,6.29419,-10.1874,6.34931,-46.4291,9.22677,12.778,-0.548917,0.123342,0.0202652,0.0672742,-1.90858,0.278723,-0.0337906,0.111953,0.626007,0.0721192,0.60029,-1.10024,1.56381,0.155503,-0.0447115,0,0,0,0,0,0,0,-5.2174,-36.4186,-5.5374,34.8499,1.70532,7.12365,-0.177505,
0.136714,0.0220979,0.0804871,-1.93489,0.329933,-0.0139717,0.109465,0.302285,0.0253294,0.299078,-0.579211,1.22566,0.397347,-0.0494213,-10.601,-4.07859,-10.4022,6.27698,-35.4914,56.5334,1.80167,8.04991,-9.08733,8.06172,-45.1325,7.78965,12.755,-0.45019,0.143298,0.0198164,0.0868879,-1.94765,0.337627,-0.0153826,0.109744,0.480923,-0.079989,0.672137,-1.17782,1.67128,0.793406,-0.0442863,-18.1356,-19.0135,8.98082,-9.69782,13.4336,79.7379,0.0531421,-6.76465,-33.9708,-6.93785,24.9832,0.178219,4.44573,-0.163772,
0.149978,0.0202391,0.0934983,-1.95907,0.360392,-0.00607995,0.108694,0.31678,0.0253896,0.313331,-0.592448,1.25066,0.437845,-0.051364,9.05896,0.037631,8.90832,-8.27329,15.6284,25.311,-1.21414,3.97053,-13.295,4.0435,-47.3851,10.1983,12.755,-0.695046,0.143298,0.0198164,0.0868879,-1.94765,0.337627,-0.0153826,0.109744,0.480923,-0.079989,0.672137,-1.17782,1.67128,0.793406,-0.0442863,0,0,0,0,0,0,0,-6.76465,-33.9708,-6.93785,24.9832,0.178219,4.44573,-0.163772,
0.152481,0.0202945,0.0959754,-1.9637,0.370005,-0.000571989,0.108312,0.315984,0.0216986,0.312592,-0.589654,1.24084,0.487975,-0.0506172,-0.497459,-2.30686,-0.461888,1.74614,-6.14118,31.3313,0.466722,6.46555,-10.9987,6.5038,-46.1653,8.98456,12.755,-0.552998,0.143298,0.0198164,0.0868879,-1.94765,0.337627,-0.0153826,0.109744,0.480923,-0.079989,0.672137,-1.17782,1.67128,0.793406,-0.0442863,0,0,0,0,0,0,0,-6.76465,-33.9708,-6.93785,24.9832,0.178219,4.44573,-0.163772,
0.154634,0.0202157,0.0981097,-1.96796,0.37821,0.00564969,0.108005,0.306634,0.0153881,0.30343,-0.578394,1.19781,0.545922,-0.0481841,-5.84337,-3.94405,-5.72654,7.03744,-26.8929,36.2168,1.52069,8.04991,-9.08733,8.06172,-45.1325,7.78965,12.755,-0.45019,0.143298,0.0198164,0.0868879,-1.94765,0.337627,-0.0153826,0.109744,0.480923,-0.079989,0.672137,-1.17782,1.67128,0.793406,-0.0442863,0,0,0,0,0,0,0,-6.76465,-33.9708,-6.93785,24.9832,0.178219,4.44573,-0.163772,
0.156534,0.0200425,0.099993,-1.97196,0.385012,0.0125005,0.107755,0.292796,0.00798064,0.289826,-0.56264,1.12829,0.608008,-0.0447963,-8.64928,-4.62969,-8.50228,9.84646,-43.447,38.8035,2.11736,9.04235,-7.96232,9.00993,-44.2822,5.73765,12.5774,-0.370195,0.160876,0.0184165,0.103905,-1.98877,0.395561,0.0192525,0.107374,0.573292,0.0088691,0.367551,-1.18709,1.51117,1.12597,-0.0384658,11.5462,11.1073,-38.0733,-1.15874,-20.0141,41.5705,0.727564,-10.2638,-37.2398,-9.83397,33.0051,0.269772,5.03533,-0.150955,
0.166535,0.0198093,0.109476,-2.00007,0.414436,0.031539,0.106561,0.298186,0.0219419,0.295092,-0.577361,1.12267,0.636685,-0.0451681,3.36878,8.72576,3.29081,-9.20089,-3.51163,17.9234,-0.232355,6.39259,-11.5035,6.4277,-46.2288,8.79351,12.5774,-0.552757,0.160876,0.0184165,0.103905,-1.98877,0.395561,0.0192525,0.107374,0.573292,0.0088691,0.367551,-1.18709,1.51117,1.12597,-0.0384658,0,0,0,0,0,0,0,-10.2638,-37.2398,-9.83397,33.0051,0.269772,5.03533,-0.150955,
0.168714,0.0201797,0.111634,-2.00461,0.421914,0.0378927,0.106257,0.29304,0.0268121,0.290009,-0.575518,1.08508,0.668189,-0.0437318,-3.21628,3.04393,-3.17664,1.15173,-23.497,19.6903,0.897677,7.97695,-9.5921,7.98562,-45.1959,7.5986,12.5774,-0.449949,0.160876,0.0184165,0.103905,-1.98877,0.395561,0.0192525,0.107374,0.573292,0.0088691,0.367551,-1.18709,1.51117,1.12597,-0.0384658,0,0,0,0,0,0,0,-10.2638,-37.2398,-9.83397,33.0051,0.269772,5.03533,-0.150955,
0.17062,0.0203432,0.113521,-2.00881,0.428093,0.0447178,0.10601,0.282083,0.0255371,0.279201,-0.565276,1.02254,0.70518,-0.0411601,-6.84757,-0.796889,-6.75518,6.40146,-39.0875,23.119,1.60729,9.04235,-7.96232,9.00993,-44.2822,5.73765,12.5774,-0.370195,0.160876,0.0184165,0.103905,-1.98877,0.395561,0.0192525,0.107374,0.573292,0.0088691,0.367551,-1.18709,1.51117,1.12597,-0.0384658,0,0,0,0,0,0,0,-10.2638,-37.2398,-9.83397,33.0051,0.269772,5.03533,-0.150955,
0.172323,0.0203619,0.115208,-2.01274,0.433084,0.0520063,0.105812,0.268228,0.0208987,0.265532,-0.550656,0.942815,0.746356,-0.0378767,-8.65965,-2.899,-8.54286,9.13782,-49.8275,25.7349,2.05217,9.77807,-6.5294,9.72039,-43.4141,4.30215,12.5774,-0.306605,0.160876,0.0184165,0.103905,-1.98877,0.395561,0.0192525,0.107374,0.573292,0.0088691,0.367551,-1.18709,1.51117,1.12597,-0.0384658,0,0,0,0,0,0,0,-10.2638,-37.2398,-9.83397,33.0051,0.269772,5.03533,-0.150955,
0.180605,0.0174095,0.126524,-2.03968,0.462167,0.080124,0.10485,0.275408,0.0259686,0.27261,-0.558183,0.944152,0.777014,-0.0377618,4.48751,3.16865,4.42378,-4.70494,0.83528,19.1613,0.071771,8.17301,-10.0676,8.18137,-45.1788,7.55163,12.4547,-0.449946,0.175262,0.0166392,0.12125,-2.02913,0.44532,0.0649137,0.10549,0.475139,-0.0746499,0.398798,-1.18542,1.48553,1.48276,-0.0340351,-12.2692,-10.4399,3.90589,0.208605,-3.20492,44.5989,0.553844,-8.36346,-32.6735,-8.31053,24.4357,1.28967,0.87792,-0.0630644,
0.182691,0.0175947,0.128591,-2.0439,0.468376,0.087335,0.104604,0.272492,0.0254053,0.26975,-0.551984,0.910544,0.801884,-0.0363728,-1.82278,-0.352029,-1.78756,3.87449,-21.0048,15.544,0.868136,9.2384,-8.43786,9.20567,-44.2651,5.69068,12.4547,-0.370192,0.175262,0.0166392,0.12125,-2.02913,0.44532,0.0649137,0.10549,0.475139,-0.0746499,0.398798,-1.18542,1.48553,1.48276,-0.0340351,0,0,0,0,0,0,0,-8.36346,-32.6735,-8.31053,24.4357,1.28967,0.87792,-0.0630644,
0.184522,0.0176223,0.130405,-2.04783,0.473365,0.0947941,0.104406,0.263769,0.0210143,0.261163,-0.539862,0.853176,0.827987,-0.0340466,-5.45137,-2.74437,-5.36683,7.57631,-35.8549,16.314,1.4539,9.97412,-7.00493,9.91614,-43.3969,4.25518,12.4547,-0.306602,0.175262,0.0166392,0.12125,-2.02913,0.44532,0.0649137,0.10549,0.475139,-0.0746499,0.398798,-1.18542,1.48553,1.48276,-0.0340351,0,0,0,0,0,0,0,-8.36346,-32.6735,-8.31053,24.4357,1.28967,0.87792,-0.0630644,
0.180707,0.0175383,0.126625,-2.03947,0.460871,0.0800841,0.10497,0.273265,0.0278161,0.270512,-0.546818,0.853753,0.842107,-0.0333694,5.9348,4.25109,5.84328,-4.34719,0.360573,8.82513,0.423259,9.2384,-8.43786,9.20567,-44.2651,5.69068,12.4547,-0.370192,0.175262,0.0166392,0.12125,-2.02913,0.44532,0.0649137,0.10549,0.475139,-0.0746499,0.398798,-1.18542,1.48553,1.48276,-0.0340351,0,0,0,0,0,0,0,-8.36346,-32.6735,-8.31053,24.4357,1.28967,0.87792,-0.0630644,
0.182848,0.0177953,0.128745,-2.04359,0.466307,0.087303,0.104769,0.272124,0.0286801,0.269392,-0.540607,0.818893,0.854159,-0.0317309,-0.712952,0.54,-0.700122,3.88194,-21.7877,7.53254,1.02404,9.71921,-7.24226,9.66544,-43.3816,4.17351,12.3728,-0.301056,0.190337,0.0151807,0.134543,-2.06794,0.487309,0.118302,0.104318,0.309138,-0.0167476,0.521671,-1.1083,1.00877,1.64002,-0.0175586,-20.7501,7.23779,15.3592,9.63968,-59.5951,19.657,2.05955,-2.57916,-32.8005,-2.83568,25.1855,0.434567,0.891653,-0.23793,
0.184723,0.0178933,0.130603,-2.04745,0.470589,0.0947754,0.104609,0.264589,0.0253936,0.261965,-0.528954,0.762164,0.870137,-0.0293697,-4.70926,-2.05404,-4.6421,7.28278,-35.4557,9.98654,1.47573,10.2566,-6.01468,10.1907,-42.5523,3.08981,12.3728,-0.245113,0.190337,0.0151807,0.134543,-2.06794,0.487309,0.118302,0.104318,0.309138,-0.0167476,0.521671,-1.1083,1.00877,1.64002,-0.0175586,0,0,0,0,0,0,0,-2.57916,-32.8005,-2.83568,25.1855,0.434567,0.891653,-0.23793,
0.186397,0.0178807,0.132262,-2.05112,0.473869,0.102547,0.104485,0.253522,0.0199984,0.251046,-0.514889,0.691729,0.890388,-0.0265954,-6.91689,-3.37201,-6.82412,8.79077,-44.0215,12.657,1.73398,10.6343,-4.99818,10.5637,-41.7669,2.30772,12.3728,-0.196367,0.190337,0.0151807,0.134543,-2.06794,0.487309,0.118302,0.104318,0.309138,-0.0167476,0.521671,-1.1083,1.00877,1.64002,-0.0175586,0,0,0,0,0,0,0,-2.57916,-32.8005,-2.83568,25.1855,0.434567,0.891653,-0.23793,
0.195379,0.0164525,0.139541,-2.07797,0.497341,0.135207,0.103907,0.260321,0.0307657,0.257676,-0.524314,0.663096,0.909887,-0.0261672,4.24916,6.72957,4.14361,-5.89094,-17.8956,12.1866,0.267627,9.71921,-7.24226,9.66544,-43.3816,4.17351,12.3728,-0.301056,0.190337,0.0151807,0.134543,-2.06794,0.487309,0.118302,0.104318,0.309138,-0.0167476,0.521671,-1.1083,1.00877,1.64002,-0.0175586,0,0,0,0,0,0,0,-2.57916,-32.8005,-2.83568,25.1855,0.434567,0.891653,-0.23793,
0.197348,0.0168308,0.141489,-2.08203,0.50082,0.142908,0.103748,0.257496,0.0340705,0.254857,-0.521065,0.617464,0.920447,-0.0248929,-1.76583,2.06553,-1.7617,2.03079,-28.5202,6.60002,0.796439,10.251,-6.31623,10.1887,-42.6787,3.06318,12.2076,-0.241799,0.20558,0.0139247,0.146247,-2.10454,0.523348,0.177494,0.10318,0.459373,-0.0665948,0.271108,-1.03148,0.840714,1.63848,-0.0141647,18.7794,-6.2309,-31.3204,9.60256,-21.0064,-0.191611,0.424243,-2.83307,-31.4516,-2.43498,19.5282,0.550839,0.301138,-0.278213,
0.199076,0.0170321,0.1432,-2.08584,0.5035,0.150702,0.103625,0.249185,0.032287,0.246645,-0.512151,0.560948,0.9312,-0.0229955,-5.19431,-1.11475,-5.13273,5.57117,-35.3224,6.72067,1.18584,10.6287,-5.29974,10.5618,-41.8933,2.28109,12.2076,-0.193053,0.20558,0.0139247,0.146247,-2.10454,0.523348,0.177494,0.10318,0.459373,-0.0665948,0.271108,-1.03148,0.840714,1.63848,-0.0141647,0,0,0,0,0,0,0,-2.83307,-31.4516,-2.43498,19.5282,0.550839,0.301138,-0.278213,
0.200628,0.017107,0.144737,-2.08947,0.50534,0.158684,0.103534,0.238155,0.0277023,0.235755,-0.500277,0.494759,0.944504,-0.0206834,-6.89382,-2.86541,-6.80594,7.42153,-41.3682,8.3149,1.44509,10.8789,-4.48092,10.8069,-41.1562,1.49977,12.2076,-0.15296,0.20558,0.0139247,0.146247,-2.10454,0.523348,0.177494,0.10318,0.459373,-0.0665948,0.271108,-1.03148,0.840714,1.63848,-0.0141647,0,0,0,0,0,0,0,-2.83307,-31.4516,-2.43498,19.5282,0.550839,0.301138,-0.278213,
0.210101,0.0146127,0.150697,-2.11394,0.530866,0.194835,0.102874,0.242166,0.0307808,0.239685,-0.506072,0.476193,0.95912,-0.0202762,2.50719,1.9241,2.4562,-3.62175,-11.6036,9.13489,0.254458,10.251,-6.31623,10.1887,-42.6787,3.06318,12.2076,-0.241799,0.20558,0.0139247,0.146247,-2.10454,0.523348,0.177494,0.10318,0.459373,-0.0665948,0.271108,-1.03148,0.840714,1.63848,-0.0141647,0,0,0,0,0,0,0,-2.83307,-31.4516,-2.43498,19.5282,0.550839,0.301138,-0.278213,
0.21189,0.0148199,0.152469,-2.1178,0.533308,0.202764,0.102753,0.238447,0.0298027,0.236029,-0.501365,0.442009,0.965524,-0.0192435,-2.32459,-0.611349,-2.28504,2.94193,-21.365,4.0026,0.645447,10.662,-5.39791,10.5964,-41.7871,2.37598,12.1498,-0.192023,0.216753,0.0130537,0.16155,-2.13924,0.548211,0.234962,0.102576,0.41901,-0.0336491,0.352114,-1.06356,0.766483,1.72043,-0.0149392,-5.04544,4.11822,10.1257,-4.00988,-9.27891,10.2433,-0.0968144,-2.45221,-33.0504,-2.88725,22.4957,0.941769,1.01708,-0.244339,
0.21348,0.0149028,0.154045,-2.12144,0.534962,0.210756,0.102663,0.230523,0.0259145,0.228229,-0.492108,0.394959,0.972215,-0.0176479,-4.95278,-2.43009,-4.87499,5.78557,-29.4067,4.18173,0.997245,10.9122,-4.57909,10.8415,-41.05,1.59466,12.1498,-0.15193,0.216753,0.0130537,0.16155,-2.13924,0.548211,0.234962,0.102576,0.41901,-0.0336491,0.352114,-1.06356,0.766483,1.72043,-0.0149392,0,0,0,0,0,0,0,-2.45221,-33.0504,-2.88725,22.4957,0.941769,1.01708,-0.244339,
0.214926,0.014895,0.155478,-2.12493,0.535868,0.218906,0.1026,0.220548,0.0205386,0.218407,-0.480832,0.338603,0.981526,-0.0156781,-6.23384,-3.35994,-6.13917,7.04733,-35.2222,5.81936,1.23115,11.1109,-3.93237,11.0305,-40.3497,0.507692,12.1498,-0.117165,0.216753,0.0130537,0.16155,-2.13924,0.548211,0.234962,0.102576,0.41901,-0.0336491,0.352114,-1.06356,0.766483,1.72043,-0.0149392,0,0,0,0,0,0,0,-2.45221,-33.0504,-2.88725,22.4957,0.941769,1.01708,-0.244339,
0.221437,0.0141613,0.16617,-2.14875,0.554074,0.252383,0.102353,0.229742,0.0296834,0.227433,-0.491227,0.330336,0.987174,-0.0153609,5.74617,5.71546,5.64183,-6.4968,-5.16705,3.53043,0.198231,10.662,-5.39791,10.5964,-41.7871,2.37598,12.1498,-0.192023,0.216753,0.0130537,0.16155,-2.13924,0.548211,0.234962,0.102576,0.41901,-0.0336491,0.352114,-1.06356,0.766483,1.72043,-0.0149392,0,0,0,0,0,0,0,-2.45221,-33.0504,-2.88725,22.4957,0.941769,1.01708,-0.244339,
0.223274,0.0145104,0.167988,-2.15261,0.555615,0.260163,0.102264,0.229723,0.0324751,0.22741,-0.489533,0.302789,0.984263,-0.0145195,-0.0121329,1.74481,-0.0146886,1.05874,-17.2169,-1.81989,0.525859,10.8137,-4.70601,10.7433,-41.0602,1.63672,12.0456,-0.148771,0.231599,0.0126064,0.172643,-2.1742,0.562925,0.293166,0.102225,0.246685,-0.0189142,0.49657,-1.03506,0.519754,1.75414,-0.00868305,-21.5407,1.84186,18.057,3.56299,-30.8411,4.21347,0.782018,-1.3374,-31.9515,-1.21306,21.972,1.8518,0.652701,-0.157364,
0.224898,0.014701,0.169598,-2.15625,0.556418,0.267982,0.102202,0.224395,0.0307443,0.222161,-0.482588,0.262317,0.982878,-0.0131782,-3.32999,-1.08173,-3.28081,4.34076,-25.295,-0.865299,0.83833,11.0123,-4.05929,10.9323,-40.3599,0.549749,12.0456,-0.114006,0.231599,0.0126064,0.172643,-2.1742,0.562925,0.293166,0.102225,0.246685,-0.0189142,0.49657,-1.03506,0.519754,1.75414,-0.00868305,0,0,0,0,0,0,0,-1.3374,-31.9515,-1.21306,21.972,1.8518,0.652701,-0.157364,
0.226366,0.0147758,0.171052,-2.15974,0.55658,0.275958,0.102166,0.216212,0.0264654,0.214099,-0.473181,0.213895,0.985701,-0.011422,-5.11417,-2.6743,-5.0386,5.87936,-30.2638,1.76443,1.09763,11.1804,-3.56295,11.0979,-39.6929,-0.28731,12.0456,-0.0822272,0.231599,0.0126064,0.172643,-2.1742,0.562925,0.293166,0.102225,0.246685,-0.0189142,0.49657,-1.03506,0.519754,1.75414,-0.00868305,0,0,0,0,0,0,0,-1.3374,-31.9515,-1.21306,21.972,1.8518,0.652701,-0.157364,
0.236032,0.0138021,0.177041,-2.18357,0.565855,0.310851,0.102067,0.223529,0.0353789,0.221252,-0.483663,0.196328,0.992775,-0.0111862,4.57297,5.57092,4.47065,-6.55171,-10.9793,4.421,0.147363,10.8137,-4.70601,10.7433,-41.0602,1.63672,12.0456,-0.148771,0.231599,0.0126064,0.172643,-2.1742,0.562925,0.293166,0.102225,0.246685,-0.0189142,0.49657,-1.03506,0.519754,1.75414,-0.00868305,0,0,0,0,0,0,0,-1.3374,-31.9515,-1.21306,21.972,1.8518,0.652701,-0.157364,
0.237776,0.0141861,0.178767,-2.18739,0.566247,0.318674,0.102005,0.222429,0.0379035,0.22015,-0.482396,0.166862,0.98978,-0.0105056,-0.6873,1.57786,-0.688594,0.792129,-18.4163,-1.8718,0.425411,11.006,-4.24358,10.9243,-40.3795,0.593726,11.912,-0.111247,0.244214,0.0122604,0.186048,-2.20759,0.574444,0.351558,0.102132,0.517354,-0.0659703,0.230656,-1.00431,0.320752,1.73734,-0.00230457,33.8337,-5.88201,-33.2392,3.84415,-24.8753,-2.09971,0.79731,-3.39245,-30.678,-3.26018,17.3859,1.47277,0.613333,-0.110672,
0.239323,0.0144093,0.180299,-2.191,0.56612,0.326503,0.101969,0.216604,0.0359028,0.214408,-0.476043,0.130327,0.987565,-0.00929735,-3.641,-1.25043,-3.58879,3.97047,-22.8342,-1.38423,0.755127,11.1741,-3.74723,11.0899,-39.7125,-0.243332,11.912,-0.0794688,0.244214,0.0122604,0.186048,-2.20759,0.574444,0.351558,0.102132,0.517354,-0.0659703,0.230656,-1.00431,0.320752,1.73734,-0.00230457,0,0,0,0,0,0,0,-3.39245,-30.678,-3.26018,17.3859,1.47277,0.613333,-0.110672,
0.240722,0.0145142,0.181686,-2.19446,0.565605,0.334469,0.101953,0.208267,0.0313434,0.206195,-0.467384,0.0913878,0.989205,-0.00785459,-5.2104,-2.84958,-5.13325,5.41195,-24.337,1.02497,0.901727,11.3183,-3.38548,11.2362,-39.0783,-0.857212,11.912,-0.0469359,0.244214,0.0122604,0.186048,-2.20759,0.574444,0.351558,0.102132,0.517354,-0.0659703,0.230656,-1.00431,0.320752,1.73734,-0.00230457,0,0,0,0,0,0,0,-3.39245,-30.678,-3.26018,17.3859,1.47277,0.613333,-0.110672,
0.248673,0.0129961,0.190422,-2.21666,0.574925,0.369051,0.102029,0.217047,0.0346025,0.214783,-0.475742,0.0713511,0.993337,-0.0077538,5.4874,2.0369,5.36762,-5.2237,-12.5229,2.58215,0.0629893,11.006,-4.24358,10.9243,-40.3795,0.593726,11.912,-0.111247,0.244214,0.0122604,0.186048,-2.20759,0.574444,0.351558,0.102132,0.517354,-0.0659703,0.230656,-1.00431,0.320752,1.73734,-0.00230457,0,0,0,0,0,0,0,-3.39245,-30.678,-3.26018,17.3859,1.47277,0.613333,-0.110672,
0.250406,0.0132531,0.192137,-2.22037,0.574495,0.376798,0.10199,0.216977,0.0341093,0.214717,-0.473477,0.0463095,0.988355,-0.00717399,-0.0436085,-0.308259,-0.0410608,1.41532,-15.651,-3.11345,0.362385,11.0715,-3.83511,10.9818,-39.6844,-0.153928,11.7937,-0.0773548,0.255063,0.0125194,0.200113,-2.24041,0.579141,0.411106,0.102102,0.256707,-0.00500642,0.466423,-0.996326,0.14519,1.78341,0.000210342,-32.5809,7.62048,29.4709,0.997378,-21.9453,5.75808,0.314364,-3.90026,-33.0226,-3.96239,23.6899,2.05322,1.18279,-0.050247,
0.251937,0.0133903,0.193654,-2.2239,0.573811,0.384563,0.10197,0.211848,0.030715,0.209683,-0.466972,0.0199631,0.984801,-0.00623455,-3.20539,-2.12145,-3.14677,4.06615,-16.4665,-2.22136,0.587151,11.2158,-3.47336,11.1281,-39.0502,-0.767808,11.7937,-0.0448219,0.255063,0.0125194,0.200113,-2.24041,0.579141,0.411106,0.102102,0.256707,-0.00500642,0.466423,-0.996326,0.14519,1.78341,0.000210342,0,0,0,0,0,0,0,-3.90026,-33.0226,-3.96239,23.6899,2.05322,1.18279,-0.050247,
0.253324,0.0134356,0.195029,-2.22729,0.572741,0.392458,0.101971,0.204162,0.0257053,0.20212,-0.458178,-0.0107794,0.985224,-0.00496038,-4.80388,-3.13104,-4.72659,5.49591,-19.2141,0.264559,0.796353,11.2725,-3.21983,11.1907,-38.4535,-1.04109,11.7937,-0.0214758,0.255063,0.0125194,0.200113,-2.24041,0.579141,0.411106,0.102102,0.256707,-0.00500642,0.466423,-0.996326,0.14519,1.78341,0.000210342,0,0,0,0,0,0,0,-3.90026,-33.0226,-3.96239,23.6899,2.05322,1.18279,-0.050247,
0.259273,0.0137471,0.204281,-2.24956,0.577462,0.428774,0.102051,0.211079,0.0350569,0.208833,-0.469533,-0.0345794,0.990798,-0.00478171,4.32292,5.84476,4.19554,-7.0965,-14.875,3.48367,0.111671,11.0715,-3.83511,10.9818,-39.6844,-0.153928,11.7937,-0.0773548,0.255063,0.0125194,0.200113,-2.24041,0.579141,0.411106,0.102102,0.256707,-0.00500642,0.466423,-0.996326,0.14519,1.78341,0.000210342,0,0,0,0,0,0,0,-3.90026,-33.0226,-3.96239,23.6899,2.05322,1.18279,-0.050247,
0.260913,0.0141469,0.205902,-2.25332,0.576335,0.436479,0.102029,0.209861,0.038041,0.207599,-0.469574,-0.0558358,0.985242,-0.00435555,-0.761468,1.86507,-0.771277,-0.0258109,-13.2853,-3.47272,0.266347,11.2158,-3.47336,11.1281,-39.0502,-0.767808,11.7937,-0.0448219,0.255063,0.0125194,0.200113,-2.24041,0.579141,0.411106,0.102102,0.256707,-0.00500642,0.466423,-0.996326,0.14519,1.78341,0.000210342,0,0,0,0,0,0,0,-3.90026,-33.0226,-3.96239,23.6899,2.05322,1.18279,-0.050247,
0.26237,0.0143891,0.207344,-2.25686,0.574968,0.444152,0.102029,0.204312,0.0364889,0.202118,-0.464225,-0.0788399,0.980041,-0.00349332,-3.46785,-0.97009,-3.42542,3.34299,-14.3776,-3.25055,0.538898,11.162,-3.27751,11.0709,-38.3848,-0.945745,11.6718,-0.0195449,0.269438,0.0134033,0.209278,-2.27312,0.578977,0.470395,0.102107,0.335795,0.0661365,0.359679,-0.988247,-0.0379022,1.74421,0.000531647,9.88599,8.89286,-13.343,1.00996,-22.8865,-4.89964,0.0401632,-2.20227,-34.5461,-1.8637,27.4271,1.57074,1.47484,-0.0630644,
0.263699,0.0145107,0.208659,-2.26025,0.573297,0.451942,0.102046,0.19667,0.0322303,0.194579,-0.456108,-0.104846,0.978767,-0.00237037,-4.77653,-2.66161,-4.7123,5.07315,-16.2536,-0.796026,0.70184,11.2354,-3.10668,11.1373,-37.8134,-1.69567,11.6718,0.000875243,0.269438,0.0134033,0.209278,-2.27312,0.578977,0.470395,0.102107,0.335795,0.0661365,0.359679,-0.988247,-0.0379022,1.74421,0.000531647,0,0,0,0,0,0,0,-2.20227,-34.5461,-1.8637,27.4271,1.57074,1.47484,-0.0630644,
0.273457,0.0152008,0.213235,-2.28247,0.575405,0.487527,0.102096,0.202742,0.0460668,0.200415,-0.470501,-0.129169,0.978862,-0.00230952,3.79518,8.64778,3.64794,-8.99583,-15.2024,0.0590294,0.0380318,11.1053,-3.53104,11.0083,-38.9816,-0.67246,11.6718,-0.042891,0.269438,0.0134033,0.209278,-2.27312,0.578977,0.470395,0.102107,0.335795,0.0661365,0.359679,-0.988247,-0.0379022,1.74421,0.000531647,0,0,0,0,0,0,0,-2.20227,-34.5461,-1.8637,27.4271,1.57074,1.47484,-0.0630644,
0.274955,0.0155394,0.214715,-2.28596,0.574365,0.494793,0.102252,0.199645,0.0453187,0.197319,-0.463878,-0.129324,0.964732,0.00204219,-1.93566,-0.467541,-1.93518,4.13961,-0.0966704,-8.83127,2.71982,11.162,-3.27751,11.0709,-38.3848,-0.945745,11.6718,-0.0195449,0.269438,0.0134033,0.209278,-2.27312,0.578977,0.470395,0.102107,0.335795,0.0661365,0.359679,-0.988247,-0.0379022,1.74421,0.000531647,0,0,0,0,0,0,0,-2.20227,-34.5461,-1.8637,27.4271,1.57074,1.47484,-0.0630644,
0.276208,0.0153655,0.215956,-2.28893,0.573887,0.501102,0.102444,0.191047,0.0319076,0.1889,-0.445244,-0.115422,0.929509,0.00643666,-5.37342,-8.38194,-5.26207,11.646,8.6889,-22.0142,2.74654,11.2455,-3.44605,11.1396,-37.711,-1.5834,11.5026,0.00186832,0.277777,0.0139389,0.223166,-2.30538,0.576887,0.528437,0.102111,0.416953,0.0162419,0.236587,-0.966256,-0.106795,1.61189,0.00056305,10.1447,-6.23682,-15.3865,2.74885,-8.61159,-16.5402,0.00392542,-0.67883,-33.5741,-0.93535,23.6383,0.0381434,3.32512,-0.050247,
0.277296,0.0147434,0.217039,-2.29151,0.573764,0.506561,0.102684,0.180042,0.00997302,0.178192,-0.42065,-0.0954169,0.880098,0.0111585,-6.87849,-13.7091,-6.69258,15.3714,12.5031,-30.8818,2.95113,11.3393,-3.33318,11.2296,-37.1582,-2.1484,11.5026,0.0196074,0.277777,0.0139389,0.223166,-2.30538,0.576887,0.528437,0.102111,0.416953,0.0162419,0.236587,-0.966256,-0.106795,1.61189,0.00056305,0,0,0,0,0,0,0,-0.67883,-33.5741,-0.93535,23.6383,0.0381434,3.32512,-0.050247,
0.281463,0.0144353,0.226783,-2.31338,0.577269,0.547379,0.101774,0.184446,0.00845928,0.182482,-0.419082,-0.0639703,0.918031,0.0050581,2.75282,-0.946084,2.68133,0.979957,19.6541,23.708,-3.81274,11.1721,-3.61687,11.0732,-38.2824,-0.833475,11.5026,-0.0185518,0.277777,0.0139389,0.223166,-2.30538,0.576887,0.528437,0.102111,0.416953,0.0162419,0.236587,-0.966256,-0.106795,1.61189,0.00056305,0,0,0,0,0,0,0,-0.67883,-33.5741,-0.93535,23.6383,0.0381434,3.32512,-0.050247,
0.282751,0.0138106,0.228062,-2.31587,0.57809,0.554272,0.101686,0.179749,-0.00885098,0.17795,-0.397515,-0.0306343,0.906757,0.0018553,-2.9355,-10.8189,-2.83198,13.4794,20.835,-7.04608,-2.00175,11.2455,-3.44605,11.1396,-37.711,-1.5834,11.5026,0.00186832,0.277777,0.0139389,0.223166,-2.30538,0.576887,0.528437,0.102111,0.416953,0.0162419,0.236587,-0.966256,-0.106795,1.61189,0.00056305,0,0,0,0,0,0,0,-0.67883,-33.5741,-0.93535,23.6383,0.0381434,3.32512,-0.050247,
0.283813,0.0125877,0.229122,-2.31784,0.579058,0.55976,0.101687,0.17035,-0.0376515,0.16887,-0.367402,-0.000307661,0.86261,0.00150301,-5.87484,-18.0003,-5.67537,18.8208,18.9542,-27.5921,-0.220179,11.398,-3.82114,11.2905,-36.9299,-2.02352,11.35,0.0194224,0.28981,0.0135713,0.233695,-2.33585,0.575433,0.580605,0.102126,0.199196,-0.0568752,0.494705,-0.858052,-0.0125194,1.44169,0.00302405,-27.2196,-9.13964,32.2647,13.5255,11.7844,-21.2751,0.307624,0.00751081,-28.5555,-0.0625476,19.9527,-2.29554,3.43773,0.017502,
0.284728,0.0108773,0.230041,-2.31948,0.580057,0.564114,0.101788,0.159161,-0.0728817,0.158056,-0.33481,0.0247289,0.798922,0.00374311,-6.99315,-22.0188,-6.75839,20.3701,15.6479,-39.8048,1.40006,11.5241,-3.74156,11.4169,-36.3765,-2.39541,11.35,0.036834,0.28981,0.0135713,0.233695,-2.33585,0.575433,0.580605,0.102126,0.199196,-0.0568752,0.494705,-0.858052,-0.0125194,1.44169,0.00302405,0,0,0,0,0,0,0,0.00751081,-28.5555,-0.0625476,19.9527,-2.29554,3.43773,0.017502,
0.293583,0.0125215,0.237452,-2.34241,0.577572,0.59779,0.102018,0.167903,-0.07942,0.166658,-0.331125,0.0513809,0.827038,0.00213012,5.46401,-4.08646,5.37625,2.30289,16.6575,17.5727,-1.00812,11.3042,-3.934,11.2005,-37.4827,-1.45852,11.35,0.00168339,0.28981,0.0135713,0.233695,-2.33585,0.575433,0.580605,0.102126,0.199196,-0.0568752,0.494705,-0.858052,-0.0125194,1.44169,0.00302405,0,0,0,0,0,0,0,0.00751081,-28.5555,-0.0625476,19.9527,-2.29554,3.43773,0.017502,
0.294816,0.0109145,0.238682,-2.3441,0.578991,0.603403,0.102066,0.165158,-0.103711,0.164064,-0.307021,0.0765694,0.801957,0.00288797,-1.71561,-15.1821,-1.62184,15.0652,15.7428,-15.6758,0.473654,11.398,-3.82114,11.2905,-36.9299,-2.02352,11.35,0.0194224,0.28981,0.0135713,0.233695,-2.33585,0.575433,0.580605,0.102126,0.199196,-0.0568752,0.494705,-0.858052,-0.0125194,1.44169,0.00302405,0,0,0,0,0,0,0,0.00751081,-28.5555,-0.0625476,19.9527,-2.29554,3.43773,0.017502,
0.295787,0.00864651,0.239656,-2.34527,0.58042,0.607456,0.102219,0.156404,-0.139669,0.155596,-0.275028,0.0969835,0.742892,0.00613499,-5.47102,-22.4738,-5.29192,19.9954,12.7589,-36.9157,2.02939,11.5047,-4.1066,11.4139,-36.3201,-2.33008,11.1963,0.0377118,0.302262,0.0114077,0.245799,-2.36264,0.577032,0.631468,0.102181,0.504866,-0.130995,0.21361,-0.731266,0.00239337,1.47091,0.00238352,38.2087,-9.26499,-35.1368,15.8482,1.86409,3.65366,-0.0800662,-3.16235,-30.5034,-2.7365,19.7781,-1.23902,3.35808,-0.0969389,
0.296587,0.00587043,0.240461,-2.34614,0.581782,0.610287,0.102491,0.145103,-0.181138,0.144601,-0.241762,0.11164,0.665081,0.0117073,-7.06315,-25.9176,-6.87246,20.7914,9.16059,-48.6321,3.4827,11.6498,-4.06887,11.5617,-35.776,-2.53734,11.1963,0.059389,0.302262,0.0114077,0.245799,-2.36264,0.577032,0.631468,0.102181,0.504866,-0.130995,0.21361,-0.731266,0.00239337,1.47091,0.00238352,0,0,0,0,0,0,0,-3.16235,-30.5034,-2.7365,19.7781,-1.23902,3.35808,-0.0969389,
0.305857,0.00826956,0.249331,-2.36739,0.578482,0.646656,0.102293,0.153549,-0.193157,0.152886,-0.235601,0.113147,0.691406,0.0116378,5.2788,-7.5121,5.17829,3.85092,0.941729,16.4534,-0.0434353,11.3785,-4.18618,11.2876,-36.8734,-1.95819,11.1963,0.0203002,0.302262,0.0114077,0.245799,-2.36264,0.577032,0.631468,0.102181,0.504866,-0.130995,0.21361,-0.731266,0.00239337,1.47091,0.00238352,0,0,0,0,0,0,0,-3.16235,-30.5034,-2.7365,19.7781,-1.23902,3.35808,-0.0969389,
0.306955,0.00557871,0.250429,-2.36832,0.57965,0.650985,0.102493,0.150308,-0.221797,0.149748,-0.211754,0.1197,0.661347,0.0142931,-2.026,-17.9,-1.96112,14.9039,4.09573,-18.7868,1.65954,11.5047,-4.1066,11.4139,-36.3201,-2.33008,11.1963,0.0377118,0.302262,0.0114077,0.245799,-2.36264,0.577032,0.631468,0.102181,0.504866,-0.130995,0.21361,-0.731266,0.00239337,1.47091,0.00238352,0,0,0,0,0,0,0,-3.16235,-30.5034,-2.7365,19.7781,-1.23902,3.35808,-0.0969389,
0.307792,0.00226489,0.251268,-2.36882,0.58088,0.653698,0.102821,0.141151,-0.260283,0.140769,-0.181904,0.126529,0.596891,0.0196412,-5.72323,-24.0537,-5.61175,18.6563,4.26777,-40.285,3.34257,11.5648,-4.70615,11.5394,-35.7036,-2.45185,11.0373,0.0596587,0.311783,0.00450077,0.259036,-2.38515,0.578978,0.675572,0.102352,0.223271,-0.272049,0.414542,-0.602921,0.00508684,1.17074,0.00999788,-35.1994,-17.6318,25.1164,16.0432,0.336684,-37.5219,0.951796,-2.15069,-27.032,-2.43498,20.7739,-0.102848,4.25347,-0.150955,
0.308465,-0.00149656,0.251943,-2.36907,0.582074,0.655187,0.103287,0.129751,-0.302263,0.129504,-0.151895,0.131065,0.514748,0.0273598,-7.12484,-26.2373,-7.04062,18.7555,2.83499,-51.3392,4.82413,11.6376,-4.70448,11.6192,-35.1774,-2.39198,11.0373,0.0820469,0.311783,0.00450077,0.259036,-2.38515,0.578978,0.675572,0.102352,0.223271,-0.272049,0.414542,-0.602921,0.00508684,1.17074,0.00999788,0,0,0,0,0,0,0,-2.15069,-27.032,-2.43498,20.7739,-0.102848,4.25347,-0.150955,
0.315016,-0.000582581,0.262264,-2.38856,0.580936,0.68752,0.102642,0.137811,-0.313541,0.137435,-0.148461,0.132905,0.532818,0.026728,5.03781,-7.04899,4.9567,2.14642,1.14993,11.2938,-0.39484,11.4197,-4.74389,11.3916,-36.2476,-2.24459,11.0373,0.0379815,0.311783,0.00450077,0.259036,-2.38515,0.578978,0.675572,0.102352,0.223271,-0.272049,0.414542,-0.602921,0.00508684,1.17074,0.00999788,0,0,0,0,0,0,0,-2.15069,-27.032,-2.43498,20.7739,-0.102848,4.25347,-0.150955,
0.31602,-0.0041269,0.263264,-2.38898,0.582165,0.690493,0.102968,0.13537,-0.339441,0.134959,-0.129179,0.137048,0.500577,0.0295249,-1.52585,-16.1873,-1.54765,12.0512,2.58981,-20.151,1.74804,11.5648,-4.70615,11.5394,-35.7036,-2.45185,11.0373,0.0596587,0.311783,0.00450077,0.259036,-2.38515,0.578978,0.675572,0.102352,0.223271,-0.272049,0.414542,-0.602921,0.00508684,1.17074,0.00999788,0,0,0,0,0,0,0,-2.15069,-27.032,-2.43498,20.7739,-0.102848,4.25347,-0.150955,
0.316797,-0.00819909,0.264035,-2.38904,0.583379,0.692018,0.103441,0.127717,-0.373357,0.127239,-0.104836,0.139973,0.438603,0.0354482,-4.78309,-21.1979,-4.825,15.2147,1.82782,-38.7335,3.70204,11.5665,-5.31702,11.6664,-35.1961,-2.32411,10.8971,0.0823158,0.323778,-0.00830919,0.265004,-2.40435,0.580503,0.710597,0.102943,0.230488,-0.430709,0.239786,-0.519057,0.0377085,0.841382,0.0251912,0.902077,-19.8325,-21.8444,10.483,4.07771,-41.1697,1.89916,-0.147213,-22.7156,0.112013,20.9485,-0.0662268,7.24358,-0.0703886,
0.317449,-0.0126225,0.264676,-2.3889,0.584468,0.692479,0.104066,0.118462,-0.409271,0.117801,-0.0804205,0.139215,0.362403,0.0439833,-5.7847,-22.446,-5.89868,15.2596,-0.473981,-47.6251,5.33447,11.5082,-5.32873,11.6114,-34.6888,-2.35255,10.8971,0.0912801,0.323778,-0.00830919,0.265004,-2.40435,0.580503,0.710597,0.102943,0.230488,-0.430709,0.239786,-0.519057,0.0377085,0.841382,0.0251912,0,0,0,0,0,0,0,-0.147213,-22.7156,0.112013,20.9485,-0.0662268,7.24358,-0.0703886,
0.326255,-0.0153326,0.267454,-2.40682,0.582108,0.718377,0.103573,0.121303,-0.420672,0.120418,-0.0813303,0.133971,0.364799,0.0445573,1.77601,-7.12572,1.63576,-0.568637,-3.27705,1.49746,0.358716,11.4937,-5.31869,11.5866,-35.7223,-2.38398,10.8971,0.0599276,0.323778,-0.00830919,0.265004,-2.40435,0.580503,0.710597,0.102943,0.230488,-0.430709,0.239786,-0.519057,0.0377085,0.841382,0.0251912,0,0,0,0,0,0,0,-0.147213,-22.7156,0.112013,20.9485,-0.0662268,7.24358,-0.0703886,
0.32708,-0.0195441,0.26826,-2.40695,0.583068,0.719918,0.104094,0.117672,-0.441825,0.116485,-0.068312,0.131181,0.330363,0.0486815,-2.26947,-13.2205,-2.45801,8.13642,-1.74384,-21.5223,2.57764,11.5665,-5.31702,11.6664,-35.1961,-2.32411,10.8971,0.0823158,0.323778,-0.00830919,0.265004,-2.40435,0.580503,0.710597,0.102943,0.230488,-0.430709,0.239786,-0.519057,0.0377085,0.841382,0.0251912,0,0,0,0,0,0,0,-0.147213,-22.7156,0.112013,20.9485,-0.0662268,7.24358,-0.0703886,
0.327773,-0.024117,0.268926,-2.40679,0.583952,0.72036,0.104772,0.111459,-0.467782,0.109831,-0.0507265,0.127038,0.275346,0.0558741,-3.88322,-16.223,-4.15914,10.991,-2.58913,-34.3858,4.49538,11.5082,-5.32873,11.6114,-34.6888,-2.35255,10.8971,0.0912801,0.323778,-0.00830919,0.265004,-2.40435,0.580503,0.710597,0.102943,0.230488,-0.430709,0.239786,-0.519057,0.0377085,0.841382,0.0251912,0,0,0,0,0,0,0,-0.147213,-22.7156,0.112013,20.9485,-0.0662268,7.24358,-0.0703886,
0.328401,-0.0289136,0.269519,-2.4065,0.584684,0.720024,0.105607,0.104873,-0.49414,0.102683,-0.0332922,0.119934,0.211872,0.0655806,-4.11642,-16.4738,-4.46714,10.8965,-4.44013,-39.6711,6.06654,11.477,-5.33013,11.5746,-34.1722,-2.79915,10.8971,0.0994501,0.323778,-0.00830919,0.265004,-2.40435,0.580503,0.710597,0.102943,0.230488,-0.430709,0.239786,-0.519057,0.0377085,0.841382,0.0251912,0,0,0,0,0,0,0,-0.147213,-22.7156,0.112013,20.9485,-0.0662268,7.24358,-0.0703886,
0.326259,-0.0153039,0.26746,-2.40678,0.582094,0.718374,0.103576,0.110493,-0.488154,0.108392,-0.0430476,0.118292,0.244292,0.0618696,3.51254,3.74157,3.5683,-6.09716,-1.02616,20.2625,-2.31936,11.5665,-5.31702,11.6664,-35.1961,-2.32411,10.8971,0.0823158,0.323778,-0.00830919,0.265004,-2.40435,0.580503,0.710597,0.102943,0.230488,-0.430709,0.239786,-0.519057,0.0377085,0.841382,0.0251912,0,0,0,0,0,0,0,-0.147213,-22.7156,0.112013,20.9485,-0.0662268,7.24358,-0.0703886,
0.327099,-0.0194932,0.268279,-2.40687,0.583007,0.71991,0.104098,0.109373,-0.495254,0.107195,-0.0366635,0.117473,0.233828,0.0625486,-0.699956,-4.43751,-0.748205,3.99005,-0.512415,-6.54004,0.424366,11.5082,-5.32873,11.6114,-34.6888,-2.35255,10.8971,0.0912801,0.323778,-0.00830919,0.265004,-2.40435,0.580503,0.710597,0.102943,0.230488,-0.430709,0.239786,-0.519057,0.0377085,0.841382,0.0251912,0,0,0,0,0,0,0,-0.147213,-22.7156,0.112013,20.9485,-0.0662268,7.24358,-0.0703886,
0.327808,-0.0240465,0.268961,-2.40667,0.583827,0.720344,0.104776,0.105242,-0.510036,0.102815,-0.0243351,0.114469,0.197908,0.0670019,-2.58171,-9.23909,-2.73747,7.70526,-1.87712,-22.4498,2.78333,11.477,-5.33013,11.5746,-34.1722,-2.79915,10.8971,0.0994501,0.323778,-0.00830919,0.265004,-2.40435,0.580503,0.710597,0.102943,0.230488,-0.430709,0.239786,-0.519057,0.0377085,0.841382,0.0251912,0,0,0,0,0,0,0,-0.147213,-22.7156,0.112013,20.9485,-0.0662268,7.24358,-0.0703886,
0.328446,-0.0288295,0.269565,-2.40634,0.584505,0.719997,0.105615,0.100146,-0.527605,0.0973376,-0.0113438,0.108532,0.149646,0.0745682,-3.18524,-10.9803,-3.42356,8.11956,-3.71101,-30.1643,4.72895,11.4584,-5.33367,11.5557,-33.6528,-3.10282,10.8971,0.109879,0.323778,-0.00830919,0.265004,-2.40435,0.580503,0.710597,0.102943,0.230488,-0.430709,0.239786,-0.519057,0.0377085,0.841382,0.0251912,0,0,0,0,0,0,0,-0.147213,-22.7156,0.112013,20.9485,-0.0662268,7.24358,-0.0703886,
0.326274,-0.0152694,0.267474,-2.40672,0.582043,0.718369,0.103574,0.107047,-0.514387,0.104436,-0.0245261,0.108071,0.19443,0.0690379,4.31338,8.26078,4.43664,-8.23891,-0.287891,27.99,-3.45647,11.5082,-5.32873,11.6114,-34.6888,-2.35255,10.8971,0.0912801,0.323778,-0.00830919,0.265004,-2.40435,0.580503,0.710597,0.102943,0.230488,-0.430709,0.239786,-0.519057,0.0377085,0.841382,0.0251912,0,0,0,0,0,0,0,-0.147213,-22.7156,0.112013,20.9485,-0.0662268,7.24358,-0.0703886,
0.32713,-0.019439,0.26831,-2.40677,0.582894,0.719898,0.104096,0.107034,-0.515749,0.104443,-0.0207954,0.107746,0.193773,0.0682797,-0.00836562,-0.851239,0.00427238,2.33168,-0.203109,-0.410446,-0.473842,11.477,-5.33013,11.5746,-34.1722,-2.79915,10.8971,0.0994501,0.323778,-0.00830919,0.265004,-2.40435,0.580503,0.710597,0.102943,0.230488,-0.430709,0.239786,-0.519057,0.0377085,0.841382,0.0251912,0,0,0,0,0,0,0,-0.147213,-22.7156,0.112013,20.9485,-0.0662268,7.24358,-0.0703886,
0.32785,-0.023978,0.269003,-2.40654,0.583661,0.720322,0.104777,0.103623,-0.526074,0.100884,-0.010813,0.105369,0.165597,0.071631,-2.13162,-6.45314,-2.22447,6.239,-1.48568,-17.6099,2.09451,11.4584,-5.33367,11.5557,-33.6528,-3.10282,10.8971,0.109879,0.323778,-0.00830919,0.265004,-2.40435,0.580503,0.710597,0.102943,0.230488,-0.430709,0.239786,-0.519057,0.0377085,0.841382,0.0251912,0,0,0,0,0,0,0,-0.147213,-22.7156,0.112013,20.9485,-0.0662268,7.24358,-0.0703886,
0.328487,-0.028749,0.269607,-2.40619,0.584306,0.719958,0.105618,0.09883,-0.540135,0.0957973,8.54768e-05,0.100425,0.123397,0.0783244,-2.99569,-8.78817,-3.17913,6.81155,-3.08976,-26.375,4.18339,11.3919,-5.34343,11.4959,-33.1385,-3.11829,10.8971,0.125655,0.323778,-0.00830919,0.265004,-2.40435,0.580503,0.710597,0.102943,0.230488,-0.430709,0.239786,-0.519057,0.0377085,0.841382,0.0251912,0,0,0,0,0,0,0,-0.147213,-22.7156,0.112013,20.9485,-0.0662268,7.24358,-0.0703886,
0.326304,-0.0152326,0.267503,-2.40665,0.581946,0.718366,0.103573,0.106411,-0.523935,0.103617,-0.0143958,0.100142,0.173351,0.0720257,4.73814,10.1251,4.8872,-9.05083,-0.176893,31.2212,-3.9367,11.477,-5.33013,11.5746,-34.1722,-2.79915,10.8971,0.0994501,0.323778,-0.00830919,0.265004,-2.40435,0.580503,0.710597,0.102943,0.230488,-0.430709,0.239786,-0.519057,0.0377085,0.841382,0.0251912,0,0,0,0,0,0,0,-0.147213,-22.7156,0.112013,20.9485,-0.0662268,7.24358,-0.0703886,
0.32717,-0.0193875,0.26835,-2.40667,0.582748,0.719888,0.104096,0.106782,-0.523021,0.10406,-0.0118867,0.100164,0.176715,0.0706988,0.23178,0.571355,0.277262,1.56821,0.0135167,2.10214,-0.829311,11.4584,-5.33367,11.5557,-33.6528,-3.10282,10.8971,0.109879,0.323778,-0.00830919,0.265004,-2.40435,0.580503,0.710597,0.102943,0.230488,-0.430709,0.239786,-0.519057,0.0377085,0.841382,0.0251912,0,0,0,0,0,0,0,-0.147213,-22.7156,0.112013,20.9485,-0.0662268,7.24358,-0.0703886,
0.32789,-0.0239135,0.269044,-2.40641,0.583484,0.720296,0.104777,0.103413,-0.531567,0.100591,-0.00308317,0.0985247,0.15158,0.0735976,-2.1054,-5.34129,-2.16825,5.50221,-1.02445,-15.709,1.81179,11.3919,-5.34343,11.4959,-33.1385,-3.11829,10.8971,0.125655,0.323778,-0.00830919,0.265004,-2.40435,0.580503,0.710597,0.102943,0.230488,-0.430709,0.239786,-0.519057,0.0377085,0.841382,0.0251912,0,0,0,0,0,0,0,-0.147213,-22.7156,0.112013,20.9485,-0.0662268,7.24358,-0.0703886,
0.328541,-0.0286612,0.26966,-2.40601,0.584055,0.719915,0.105617,0.0990265,-0.543946,0.0958894,0.00743516,0.0930972,0.111742,0.0798647,-2.74172,-7.73705,-2.9387,6.57396,-3.39219,-24.8988,3.91693,11.155,-5.35239,11.2661,-32.6462,-3.03651,10.8971,0.121872,0.323778,-0.00830919,0.265004,-2.40435,0.580503,0.710597,0.102943,0.230488,-0.430709,0.239786,-0.519057,0.0377085,0.841382,0.0251912,0,0,0,0,0,0,0,-0.147213,-22.7156,0.112013,20.9485,-0.0662268,7.24358,-0.0703886,
0.32632,-0.0152002,0.267519,-2.4066,0.581891,0.718362,0.103572,0.106723,-0.52658,0.10386,-0.00782727,0.0935954,0.163918,0.0732724,4.8106,10.8541,4.98168,-9.53902,0.311368,32.6097,-4.12016,11.4584,-5.33367,11.5557,-33.6528,-3.10282,10.8971,0.109879,0.323778,-0.00830919,0.265004,-2.40435,0.580503,0.710597,0.102943,0.230488,-0.430709,0.239786,-0.519057,0.0377085,0.841382,0.0251912,0,0,0,0,0,0,0,-0.147213,-22.7156,0.112013,20.9485,-0.0662268,7.24358,-0.0703886,
0.327183,-0.0193398,0.268364,-2.40659,0.582678,0.719871,0.104096,0.106967,-0.524756,0.104208,-0.00606891,0.0945685,0.168871,0.0717069,0.152008,1.14012,0.217691,1.09897,0.60821,3.09562,-0.978463,11.3919,-5.34343,11.4959,-33.1385,-3.11829,10.8971,0.125655,0.323778,-0.00830919,0.265004,-2.40435,0.580503,0.710597,0.102943,0.230488,-0.430709,0.239786,-0.519057,0.0377085,0.841382,0.0251912,0,0,0,0,0,0,0,-0.147213,-22.7156,0.112013,20.9485,-0.0662268,7.24358,-0.0703886,
0.327915,-0.0238414,0.269069,-2.40629,0.583354,0.720266,0.104776,0.103882,-0.532344,0.100997,0.00273038,0.0925366,0.144963,0.0743577,-1.92806,-4.74279,-2.00719,5.49956,-1.26997,-14.9422,1.65677,11.155,-5.35239,11.2661,-32.6462,-3.03651,10.8971,0.121872,0.323778,-0.00830919,0.265004,-2.40435,0.580503,0.710597,0.102943,0.230488,-0.430709,0.239786,-0.519057,0.0377085,0.841382,0.0251912,0,0,0,0,0,0,0,-0.147213,-22.7156,0.112013,20.9485,-0.0662268,7.24358,-0.0703886,
0.328583,-0.0285677,0.269701,-2.40584,0.583847,0.719868,0.105613,0.0997885,-0.544033,0.0965977,0.0132654,0.0863692,0.106016,0.0804212,-2.55833,-7.30526,-2.74948,6.58438,-3.85464,-24.342,3.78967,10.9958,-5.33084,11.0988,-32.142,-3.67632,10.8971,0.116043,0.323778,-0.00830919,0.265004,-2.40435,0.580503,0.710597,0.102943,0.230488,-0.430709,0.239786,-0.519057,0.0377085,0.841382,0.0251912,0,0,0,0,0,0,0,-0.147213,-22.7156,0.112013,20.9485,-0.0662268,7.24358,-0.0703886,
0.326315,-0.015171,0.267516,-2.40656,0.581886,0.718352,0.103572,0.107197,-0.526246,0.104307,-0.00269849,0.0882588,0.15912,0.0737101,4.63052,11.1165,4.81833,-9.97743,1.18105,33.1902,-4.19445,11.3919,-5.34343,11.4959,-33.1385,-3.11829,10.8971,0.125655,0.323778,-0.00830919,0.265004,-2.40435,0.580503,0.710597,0.102943,0.230488,-0.430709,0.239786,-0.519057,0.0377085,0.841382,0.0251912,0,0,0,0,0,0,0,-0.147213,-22.7156,0.112013,20.9485,-0.0662268,7.24358,-0.0703886,
0.32719,-0.0192846,0.268371,-2.40651,0.582626,0.71985,0.104093,0.107623,-0.523838,0.104815,-0.000842374,0.0890984,0.164759,0.0719887,0.265956,1.50496,0.317179,1.16007,0.524724,3.52449,-1.07587,11.155,-5.35239,11.2661,-32.6462,-3.03651,10.8971,0.121872,0.323778,-0.00830919,0.265004,-2.40435,0.580503,0.710597,0.102943,0.230488,-0.430709,0.239786,-0.519057,0.0377085,0.841382,0.0251912,0,0,0,0,0,0,0,-0.147213,-22.7156,0.112013,20.9485,-0.0662268,7.24358,-0.0703886,
0.327937,-0.0237635,0.269091,-2.40616,0.583233,0.72023,0.10477,0.104769,-0.531043,0.101842,0.00808243,0.086463,0.141303,0.07451,-1.78367,-4.50267,-1.85759,5.578,-1.64715,-14.6603,1.57584,10.9958,-5.33084,11.0988,-32.142,-3.67632,10.8971,0.116043,0.323778,-0.00830919,0.265004,-2.40435,0.580503,0.710597,0.102943,0.230488,-0.430709,0.239786,-0.519057,0.0377085,0.841382,0.0251912,0,0,0,0,0,0,0,-0.147213,-22.7156,0.112013,20.9485,-0.0662268,7.24358,-0.0703886,
0.328618,-0.028472,0.269737,-2.40567,0.583655,0.719815,0.105605,0.100846,-0.542546,0.0976347,0.0185976,0.079703,0.10267,0.0804932,-2.45167,-7.18989,-2.62976,6.57198,-4.22498,-24.1459,3.73946,10.9262,-5.28385,11.0321,-31.6209,-4.03811,10.8971,0.110097,0.323778,-0.00830919,0.265004,-2.40435,0.580503,0.710597,0.102943,0.230488,-0.430709,0.239786,-0.519057,0.0377085,0.841382,0.0251912,0,0,0,0,0,0,0,-0.147213,-22.7156,0.112013,20.9485,-0.0662268,7.24358,-0.0703886,
