xiao-wang007/linearmpc_panda/paper_data/panda_torque_PD_controller_Start_at_0/4/trajectory.csv
Commanded Joint 0 Position,Commanded Joint 1 Position,Commanded Joint 2 Position,Commanded Joint 3 Position,Commanded Joint 4 Position,Commanded Joint 5 Position,Commanded Joint 6 Position,Commanded Joint 0 Velocity,Commanded Joint 1 Velocity,Commanded Joint 2 Velocity,Commanded Joint 3 Velocity,Commanded Joint 4 Velocity,Commanded Joint 5 Velocity,Commanded Joint 6 Velocity,Commanded Joint 0 Acceleration,Commanded Joint 1 Acceleration,Commanded Joint 2 Acceleration,Commanded Joint 3 Acceleration,Commanded Joint 4 Acceleration,Commanded Joint 5 Acceleration,Commanded Joint 6 Acceleration,Commanded Joint 0 Torque,Commanded Joint 1 Torque,Commanded Joint 2 Torque,Commanded Joint 3 Torque,Commanded Joint 4 Torque,Commanded Joint 5 Torque,Commanded Joint 6 Torque,Actual Joint 0 Position,Actual Joint 1 Position,Actual Joint 2 Position,Actual Joint 3 Position,Actual Joint 4 Position,Actual Joint 5 Position,Actual Joint 6 Position,Actual Joint 0 Velocity,Actual Joint 1 Velocity,Actual Joint 2 Velocity,Actual Joint 3 Velocity,Actual Joint 4 Velocity,Actual Joint 5 Velocity,Actual Joint 6 Velocity,Actual Joint 0 Acceleration,Actual Joint 1 Acceleration,Actual Joint 2 Acceleration,Actual Joint 3 Acceleration,Actual Joint 4 Acceleration,Actual Joint 5 Acceleration,Actual Joint 6 Acceleration,Actual Joint 0 Torque,Actual Joint 1 Torque,Actual Joint 2 Torque,Actual Joint 3 Torque,Actual Joint 4 Torque,Actual Joint 5 Torque,Actual Joint 6 Torque,
0.0920647,0.0394915,-0.0152969,-1.76945,-0.00781683,0.2947,0.105452,0.000469945,0.023672,0.000410305,-0.0323901,-0.00484158,0.0544105,-0.000375124,0.293716,14.795,0.25644,-20.2438,-3.02599,34.0066,-0.234452,0.0545466,25.9221,0.033757,-24.4944,-0.599019,1.83696,-0.0240183,0.0920058,0.0376703,-0.0153309,-1.76633,-0.00739235,0.288889,0.105502,0.000656593,0.00112833,0.0002295,-0.00369004,0.00804543,-0.000315714,0.00541141,0,0,0,0,0,0,0,0.106693,-36.3194,-0.16173,27.1771,0.550839,3.21892,-0.0227812,
0.0920183,0.0377022,-0.0153184,-1.76636,-0.00731505,0.288838,0.105504,0.00047245,0.0191596,0.000424129,-0.0260655,-0.0034873,0.0431441,-0.000298603,0.00156601,-2.82024,0.00864039,3.95288,0.846423,-7.04151,0.0478253,0.0488217,26.3625,0.0234501,-24.4108,-0.599044,1.58613,-0.0225008,0.0920058,0.0376703,-0.0153309,-1.76633,-0.00739235,0.288889,0.105502,0.000656593,0.00112833,0.0002295,-0.00369004,0.00804543,-0.000315714,0.00541141,0,0,0,0,0,0,0,0.106693,-36.3194,-0.16173,27.1771,0.550839,3.21892,-0.0227812,
0.0920216,0.0377094,-0.0153151,-1.76637,-0.00730466,0.288825,0.105504,0.000461419,0.0155079,0.000421729,-0.020976,-0.00253003,0.034197,-0.000238634,-0.00689456,-2.28228,-0.00150016,3.18094,0.598294,-5.59191,0.0374804,0.0416218,26.9357,0.0116737,-24.3016,-0.598116,1.24012,-0.0205405,0.0920183,0.0377617,-0.0153195,-1.76657,-0.00739816,0.28888,0.105505,-0.00130133,-0.00014275,1.62878e-05,-0.00505723,0.00726501,0.000199227,0.000943703,-0.24474,-0.158885,-0.0266516,-0.170898,-0.0975534,0.0643676,-0.558463,-0.0202602,-36.8907,-0.288683,27.5024,0.612179,3.29125,-0.0429228,
0.0920244,0.0377153,-0.0153124,-1.76637,-0.00729745,0.288815,0.105504,0.000439506,0.0125528,0.00040661,-0.0168815,-0.00184392,0.0270985,-0.0001912,-0.0136958,-1.84698,-0.00944948,2.55908,0.42882,-4.43658,0.0296463,0.0356932,27.4596,0.00226922,-24.1338,-0.595781,0.855045,-0.0185387,0.0920183,0.0377617,-0.0153195,-1.76657,-0.00739816,0.28888,0.105505,-0.00130133,-0.00014275,1.62878e-05,-0.00505723,0.00726501,0.000199227,0.000943703,0,0,0,0,0,0,0,-0.0202602,-36.8907,-0.288683,27.5024,0.612179,3.29125,-0.0429228,
0.0920267,0.0377201,-0.0153101,-1.76637,-0.00729234,0.288807,0.105504,0.000410027,0.0101614,0.000382602,-0.0135873,-0.00134742,0.0214703,-0.000153478,-0.0184245,-1.49458,-0.0150047,2.05889,0.310311,-3.51764,0.0235765,0.0334455,27.7823,-0.00193268,-23.8694,-0.590696,0.482316,-0.0168167,0.0920183,0.0377617,-0.0153195,-1.76657,-0.00739816,0.28888,0.105505,-0.00130133,-0.00014275,1.62878e-05,-0.00505723,0.00726501,0.000199227,0.000943703,0,0,0,0,0,0,0,-0.0202602,-36.8907,-0.288683,27.5024,0.612179,3.29125,-0.0429228,
0.0919107,0.0377836,-0.0154349,-1.76649,-0.00495593,0.287633,0.105481,-0.00119093,0.00829812,-0.00126443,-0.00988794,0.0358994,-0.00186611,-0.000355468,-1.0006,-1.16458,-1.02939,2.31209,23.2793,-14.5852,-0.126244,0.470532,0.154359,0.471617,-0.258448,2.97115,-1.73017,-0.00199597,0.0920183,0.0377617,-0.0153195,-1.76657,-0.00739816,0.28888,0.105505,-0.00130133,-0.00014275,1.62878e-05,-0.00505723,0.00726501,0.000199227,0.000943703,0,0,0,0,0,0,0,-0.0202602,-36.8907,-0.288683,27.5024,0.612179,3.29125,-0.0429228,
0.0918524,0.0377824,-0.0154933,-1.76646,-0.003183,0.286696,0.105476,-0.00241038,0.00660915,-0.00247277,-0.00715115,0.0730428,-0.0249118,-0.000415303,-0.762157,-1.05561,-0.755215,1.71049,23.2146,-14.4036,-0.0373967,0.465689,0.202249,0.466328,-0.240056,2.94628,-1.70479,-0.00199868,0.0919948,0.0386903,-0.0153347,-1.76788,-0.00739471,0.291201,0.105501,-0.00281659,0.103345,-0.00260489,-0.126659,0.00426009,0.22871,-0.000233697,-0.189407,12.936,-0.327648,-15.2003,-0.375615,28.5639,-0.147175,0.309024,-19.5973,0.0644055,10.5859,0.184628,1.62041,-0.00996382,
0.0918038,0.0377768,-0.0155413,-1.76644,-0.00124282,0.285644,0.105473,-0.00314529,0.00514799,-0.00317725,-0.00520484,0.106939,-0.0462227,-0.000407553,-0.459316,-0.913228,-0.440299,1.21645,21.1849,-13.3193,0.00484352,0.460632,0.199992,0.461292,-0.237453,2.92013,-1.68963,-0.0019529,0.0919948,0.0386903,-0.0153347,-1.76788,-0.00739471,0.291201,0.105501,-0.00281659,0.103345,-0.00260489,-0.126659,0.00426009,0.22871,-0.000233697,0,0,0,0,0,0,0,0.309024,-19.5973,0.0644055,10.5859,0.184628,1.62041,-0.00996382,
0.0917671,0.0377697,-0.015577,-1.76643,0.000791728,0.284517,0.105471,-0.00343397,0.00394062,-0.00343368,-0.00385753,0.136415,-0.0651558,-0.00037225,-0.18043,-0.754604,-0.160269,0.84207,18.4225,-11.8332,0.0220646,0.45543,0.197469,0.456116,-0.23504,2.89418,-1.67448,-0.00191679,0.0919948,0.0386903,-0.0153347,-1.76788,-0.00739471,0.291201,0.105501,-0.00281659,0.103345,-0.00260489,-0.126659,0.00426009,0.22871,-0.000233697,0,0,0,0,0,0,0,0.309024,-19.5973,0.0644055,10.5859,0.184628,1.62041,-0.00996382,
0.0916994,0.0401279,-0.0156586,-1.76803,0.00114337,0.285101,0.105407,-0.00680884,0.0185462,-0.007018,-0.00326188,0.240359,-0.153456,-0.00120215,-2.10929,9.12849,-2.2402,0.372277,64.9649,-55.1878,-0.518688,3.85272,1.57105,3.83258,-1.75009,11.0349,-9.91683,-0.00717629,0.0919948,0.0386903,-0.0153347,-1.76788,-0.00739471,0.291201,0.105501,-0.00281659,0.103345,-0.00260489,-0.126659,0.00426009,0.22871,-0.000233697,0,0,0,0,0,0,0,0.309024,-19.5973,0.0644055,10.5859,0.184628,1.62041,-0.00996382,
0.091558,0.0405718,-0.0158024,-1.76805,0.00756515,0.279849,0.105386,-0.00898327,0.0259358,-0.00920882,-0.00308355,0.352831,-0.25405,-0.00148136,-1.35902,4.61849,-1.36927,0.11146,70.2955,-62.8711,-0.174507,3.74326,1.73354,3.71176,-1.72178,11.0331,-9.75367,-0.00675439,0.0920302,0.0429796,-0.0152782,-1.77454,-0.00639436,0.296389,0.105502,0.000147649,0.0760135,0.00305216,-0.191251,0.159485,-0.0432176,-0.00221686,0.37053,-3.41649,0.707132,-8.07397,19.4031,-33.991,-0.247895,0.0313145,-26.9328,-0.0625476,24.884,1.82708,2.27044,-0.0227812,
0.0914584,0.0408995,-0.0159016,-1.7681,0.0146992,0.273851,0.105374,-0.00967687,0.0289409,-0.00984779,-0.00373833,0.460618,-0.353184,-0.00148747,-0.4335,1.87817,-0.399355,-0.409238,67.3664,-61.9584,-0.0038155,3.6294,1.71862,3.59478,-1.69652,11.0331,-9.61446,-0.00675278,0.0920302,0.0429796,-0.0152782,-1.77454,-0.00639436,0.296389,0.105502,0.000147649,0.0760135,0.00305216,-0.191251,0.159485,-0.0432176,-0.00221686,0,0,0,0,0,0,0,0.0313145,-26.9328,-0.0625476,24.884,1.82708,2.27044,-0.0227812,
0.0914059,0.0411534,-0.0159527,-1.76818,0.0222766,0.267393,0.105367,-0.00905252,0.0294992,-0.009154,-0.00499853,0.557929,-0.444011,-0.00137747,0.390216,0.348951,0.433619,-0.787623,60.8194,-56.7673,0.0687508,3.51751,1.69331,3.48288,-1.67434,11.0331,-9.48067,-0.007003,0.0920302,0.0429796,-0.0152782,-1.77454,-0.00639436,0.296389,0.105502,0.000147649,0.0760135,0.00305216,-0.191251,0.159485,-0.0432176,-0.00221686,0,0,0,0,0,0,0,0.0313145,-26.9328,-0.0625476,24.884,1.82708,2.27044,-0.0227812,
0.0929505,0.044148,-0.0143656,-1.77562,0.00149936,0.284796,0.105571,0.00753217,0.0365295,0.00724965,-0.0153332,0.562911,-0.529212,-0.00023532,10.3654,4.39392,10.2523,-6.45916,3.11418,-53.2504,0.713841,25.6592,2.38714,25.3128,-10.9885,11.0331,-14.3376,0.052323,0.0920302,0.0429796,-0.0152782,-1.77454,-0.00639436,0.296389,0.105502,0.000147649,0.0760135,0.00305216,-0.191251,0.159485,-0.0432176,-0.00221686,0,0,0,0,0,0,0,0.0313145,-26.9328,-0.0625476,24.884,1.82708,2.27044,-0.0227812,
0.0937512,0.0445402,-0.0135775,-1.77606,0.00719073,0.276397,0.105611,0.0260424,0.0390276,0.0255031,-0.0231138,0.592613,-0.633357,0.000820416,11.5689,1.56136,11.4084,-4.86291,18.5638,-65.0908,0.659835,24.3835,3.28364,23.9775,-9.64759,10.9282,-14.3207,0.0461768,0.0919161,0.0465275,-0.0152618,-1.77634,0.00463241,0.286812,0.105501,-0.00762476,0.198157,0.00449945,-0.0206495,0.824678,-0.561005,0.0040612,-0.971551,15.2679,0.18091,21.3252,83.1492,-64.7235,0.784756,4.01447,-43.3296,3.83729,23.8882,4.08111,-1.97944,-0.00996382,
0.0947146,0.0448102,-0.0126274,-1.77653,0.0136304,0.267073,0.105677,0.0449185,0.0379733,0.0441563,-0.0303819,0.635083,-0.73979,0.00230805,11.7976,-0.658971,11.6583,-4.54252,26.5436,-66.5201,0.92977,23.3453,2.84701,22.9361,-8.52938,10.9282,-14.3207,0.0492521,0.0919161,0.0465275,-0.0152618,-1.77634,0.00463241,0.286812,0.105501,-0.00762476,0.198157,0.00449945,-0.0206495,0.824678,-0.561005,0.0040612,0,0,0,0,0,0,0,4.01447,-43.3296,3.83729,23.8882,4.08111,-1.97944,-0.00996382,
0.0957954,0.0449254,-0.0115614,-1.77712,0.0206374,0.25717,0.105785,0.062955,0.0332568,0.0619735,-0.038953,0.683242,-0.839405,0.00453496,11.2728,-2.94782,11.1357,-5.35692,30.099,-62.2597,1.39182,22.3347,1.30126,21.9694,-7.98135,10.9282,-14.3207,0.0805819,0.0919161,0.0465275,-0.0152618,-1.77634,0.00463241,0.286812,0.105501,-0.00762476,0.198157,0.00449945,-0.0206495,0.824678,-0.561005,0.0040612,0,0,0,0,0,0,0,4.01447,-43.3296,3.83729,23.8882,4.08111,-1.97944,-0.00996382,
0.093475,0.0478741,-0.0136707,-1.7784,0.0170854,0.272831,0.105717,0.0749333,0.0399198,0.0742169,-0.0585886,0.703695,-0.866002,0.00540912,7.48642,4.16438,7.65211,-12.2723,12.7835,-16.6232,0.546353,34.47,0.888877,33.9466,-19.0792,10.9282,-14.3207,0.136652,0.0919161,0.0465275,-0.0152618,-1.77634,0.00463241,0.286812,0.105501,-0.00762476,0.198157,0.00449945,-0.0206495,0.824678,-0.561005,0.0040612,0,0,0,0,0,0,0,4.01447,-43.3296,3.83729,23.8882,4.08111,-1.97944,-0.00996382,
0.0947264,0.0482748,-0.0124341,-1.77952,0.0237081,0.263938,0.105759,0.09123,0.0419528,0.090289,-0.0748355,0.728526,-0.915138,0.00538076,10.1855,1.27063,10.0451,-10.1543,15.5192,-30.7101,-0.0177256,31.3702,2.29714,30.8437,-17.6205,10.9282,-14.3207,0.0559547,0.0919161,0.0465275,-0.0152618,-1.77634,0.00463241,0.286812,0.105501,-0.00762476,0.198157,0.00449945,-0.0206495,0.824678,-0.561005,0.0040612,0,0,0,0,0,0,0,4.01447,-43.3296,3.83729,23.8882,4.08111,-1.97944,-0.00996382,
0.0961508,0.0485736,-0.0110339,-1.78068,0.0307316,0.254324,0.105811,0.108595,0.0410332,0.107236,-0.0889549,0.758406,-0.972456,0.00560264,10.8528,-0.57473,10.5918,-8.82467,18.6753,-35.8237,0.138671,28.9502,3.22014,28.398,-16.7398,10.7487,-14.1251,0.0366572,0.0917882,0.0511086,-0.0146792,-1.77632,0.0373485,0.252915,0.105493,0.0263939,0.0864792,0.12659,-0.0608484,1.01327,-1.3148,9.26961e-05,4.25233,-13.9597,15.2614,-5.02487,23.5739,-94.2242,-0.496062,16.1107,-38.6641,15.3623,14.9698,2.20611,-3.94874,0.017502,
0.0976695,0.0487763,-0.00953846,-1.78192,0.0381563,0.244253,0.105851,0.124843,0.0378947,0.123174,-0.102082,0.792343,-1.02973,0.00550168,10.1554,-1.96155,9.96136,-8.20427,21.2101,-35.7935,-0.0631,26.9799,2.41838,26.4438,-16.4928,10.7487,-14.1251,0.0586831,0.0917882,0.0511086,-0.0146792,-1.77632,0.0373485,0.252915,0.105493,0.0263939,0.0864792,0.12659,-0.0608484,1.01327,-1.3148,9.26961e-05,0,0,0,0,0,0,0,16.1107,-38.6641,15.3623,14.9698,2.20611,-3.94874,0.017502,
0.0943992,0.0510996,-0.0121025,-1.77982,0.0519048,0.232963,0.105613,0.136671,0.0289625,0.134619,-0.127404,0.813851,-1.07651,0.00489532,7.39259,-5.58264,7.15303,-15.8264,13.4427,-29.2415,-0.378972,36.7076,-2.4083,35.6628,-26.9345,10.7487,-14.1251,0.0789011,0.0917882,0.0511086,-0.0146792,-1.77632,0.0373485,0.252915,0.105493,0.0263939,0.0864792,0.12659,-0.0608484,1.01327,-1.3148,9.26961e-05,0,0,0,0,0,0,0,16.1107,-38.6641,15.3623,14.9698,2.20611,-3.94874,0.017502,
0.0960628,0.0510296,-0.0104762,-1.78166,0.0592502,0.222578,0.10561,0.150926,0.0214213,0.148352,-0.14805,0.834716,-1.12085,0.00384238,8.90888,-4.71327,8.58303,-12.9036,13.0404,-27.7095,-0.658087,32.7487,-0.782886,31.9,-25.2022,10.7487,-14.1251,-0.0089444,0.0917882,0.0511086,-0.0146792,-1.77632,0.0373485,0.252915,0.105493,0.0263939,0.0864792,0.12659,-0.0608484,1.01327,-1.3148,9.26961e-05,0,0,0,0,0,0,0,16.1107,-38.6641,15.3623,14.9698,2.20611,-3.94874,0.017502,
0.0978228,0.0509403,-0.00875964,-1.78353,0.0668671,0.212011,0.105581,0.164741,0.0149027,0.161596,-0.165084,0.858196,-1.16085,0.00234878,8.63478,-4.07411,8.2779,-10.6463,14.6753,-24.9992,-0.933502,30.1004,-0.544352,29.3492,-24.202,10.772,-13.7376,-0.0195831,0.0968742,0.0524166,-0.0097033,-1.78064,0.0704985,0.201733,0.105521,0.15014,-0.102631,0.249298,-0.331603,0.994295,-1.54562,0.0026763,15.4683,-23.6388,15.3384,-33.8443,-2.37192,-28.8522,0.32295,27.5722,-30.5034,26.6849,15.4697,3.91632,-2.56263,-0.0630644,
0.099613,0.0508506,-0.00701437,-1.78539,0.0747742,0.201306,0.105513,0.176549,0.00968176,0.172909,-0.178479,0.884234,-1.19631,0.000177103,7.37965,-3.26309,7.07025,-8.3719,16.2738,-22.1651,-1.3573,27.3094,-1.08975,26.6303,-24.0081,10.772,-13.7376,-0.0418864,0.0968742,0.0524166,-0.0097033,-1.78064,0.0704985,0.201733,0.105521,0.15014,-0.102631,0.249298,-0.331603,0.994295,-1.54562,0.0026763,0,0,0,0,0,0,0,27.5722,-30.5034,26.6849,15.4697,3.91632,-2.56263,-0.0630644,
0.100791,0.051641,-0.0058628,-1.78537,0.0859732,0.178143,0.105453,0.191987,0.000459115,0.187944,-0.200879,0.901913,-1.24741,-0.00131857,9.64901,-5.76415,9.39671,-14,11.0495,-31.9378,-0.934797,35.3251,0.875062,34.3852,-30.8147,10.772,-13.7376,-0.0481642,0.0968742,0.0524166,-0.0097033,-1.78064,0.0704985,0.201733,0.105521,0.15014,-0.102631,0.249298,-0.331603,0.994295,-1.54562,0.0026763,0,0,0,0,0,0,0,27.5722,-30.5034,26.6849,15.4697,3.91632,-2.56263,-0.0630644,
0.102865,0.0514515,-0.00383599,-1.78769,0.0939765,0.166882,0.105358,0.205427,-0.00437047,0.201025,-0.218689,0.921613,-1.27945,-0.00342246,8.39978,-3.01849,8.17599,-11.1315,12.312,-20.0238,-1.31493,31.5548,0.996693,30.7957,-29.8006,10.772,-13.7376,-0.0899347,0.0968742,0.0524166,-0.0097033,-1.78064,0.0704985,0.201733,0.105521,0.15014,-0.102631,0.249298,-0.331603,0.994295,-1.54562,0.0026763,0,0,0,0,0,0,0,27.5722,-30.5034,26.6849,15.4697,3.91632,-2.56263,-0.0630644,
0.104923,0.0513347,-0.00182409,-1.79001,0.10222,0.156043,0.105224,0.215803,-0.00641453,0.211118,-0.233036,0.943377,-1.29453,-0.00609526,6.48501,-1.27754,6.30782,-8.9665,13.6028,-9.42537,-1.6705,28.735,0.668372,28.0823,-29.1129,10.8697,-12.9298,-0.123821,0.106894,0.0510752,-0.00012088,-1.79131,0.106489,0.144323,0.105538,0.307823,-0.15891,0.407663,-0.439739,1.10452,-1.75744,0.00350628,19.7103,-7.03482,19.7957,-13.517,13.7776,-26.4779,0.103748,23.4899,-26.1116,22.785,12.3077,4.33746,-2.52326,-0.117081,
0.106936,0.0512805,0.000143701,-1.79232,0.110659,0.145631,0.105067,0.222972,-0.00648661,0.218089,-0.244073,0.965686,-1.29594,-0.00879572,4.48058,-0.0450494,4.357,-6.89851,13.943,-0.879214,-1.68779,25.9414,0.649021,25.3817,-28.5208,10.8697,-12.1957,-0.167212,0.106894,0.0510752,-0.00012088,-1.79131,0.106489,0.144323,0.105538,0.307823,-0.15891,0.407663,-0.439739,1.10452,-1.75744,0.00350628,0,0,0,0,0,0,0,23.4899,-26.1116,22.785,12.3077,4.33746,-2.52326,-0.117081,
0.112358,0.050031,0.00521528,-1.79739,0.124651,0.121498,0.105212,0.245065,-0.0147843,0.239505,-0.270181,1.00146,-1.30165,-0.0116175,13.8084,-5.18605,13.3852,-16.3175,22.3587,-3.57052,-1.76364,30.2628,2.27928,29.5108,-34.7007,10.8697,-9.25582,-0.18886,0.106894,0.0510752,-0.00012088,-1.79131,0.106489,0.144323,0.105538,0.307823,-0.15891,0.407663,-0.439739,1.10452,-1.75744,0.00350628,0,0,0,0,0,0,0,23.4899,-26.1116,22.785,12.3077,4.33746,-2.52326,-0.117081,
0.114873,0.0498011,0.00766878,-1.80036,0.133905,0.1123,0.104995,0.258914,-0.0175748,0.252941,-0.290328,1.03252,-1.27128,-0.014724,8.65576,-1.74405,8.39774,-12.5919,19.4155,18.9821,-1.94151,26.9941,0.888475,26.3739,-34.4773,10.8697,-8.56124,-0.223429,0.106894,0.0510752,-0.00012088,-1.79131,0.106489,0.144323,0.105538,0.307823,-0.15891,0.407663,-0.439739,1.10452,-1.75744,0.00350628,0,0,0,0,0,0,0,23.4899,-26.1116,22.785,12.3077,4.33746,-2.52326,-0.117081,
0.117235,0.0496673,0.00997416,-1.80328,0.143189,0.104256,0.104763,0.266179,-0.0174047,0.259988,-0.305383,1.05811,-1.21811,-0.0175667,4.54018,0.10633,4.40391,-9.40905,15.9892,33.2309,-1.77671,24.541,0.614914,23.9841,-33.846,10.8766,-6.95193,-0.262985,0.120246,0.0502705,0.0133801,-1.80696,0.146841,0.0815562,0.105506,0.444604,-0.0334238,0.422663,-0.607229,1.22218,-1.85767,-0.00248944,17.0977,15.6858,1.87493,-20.9362,14.7079,-12.529,-0.749465,13.5241,-30.9041,12.9382,15.2435,3.18939,-2.56996,0.0303194,
0.119454,0.0495918,0.0121413,-1.80615,0.152444,0.097166,0.104538,0.268439,-0.0158099,0.262168,-0.316023,1.07786,-1.15175,-0.0196909,1.41253,0.996732,1.36238,-6.65005,12.3464,41.477,-1.32761,22.5965,0.308496,22.0973,-33.2225,10.8766,-6.0836,-0.278063,0.120246,0.0502705,0.0133801,-1.80696,0.146841,0.0815562,0.105506,0.444604,-0.0334238,0.422663,-0.607229,1.22218,-1.85767,-0.00248944,0,0,0,0,0,0,0,13.5241,-30.9041,12.9382,15.2435,3.18939,-2.56996,0.0303194,
0.126276,0.0508278,0.0192567,-1.81535,0.166811,0.0626544,0.104869,0.286264,-0.00373947,0.279479,-0.35461,1.1121,-1.11903,-0.0239734,11.141,7.544,10.8199,-24.1168,21.4005,20.4473,-2.67658,22.2016,3.59178,21.7156,-38.0749,10.8766,-0.686861,-0.386553,0.120246,0.0502705,0.0133801,-1.80696,0.146841,0.0815562,0.105506,0.444604,-0.0334238,0.422663,-0.607229,1.22218,-1.85767,-0.00248944,0,0,0,0,0,0,0,13.5241,-30.9041,12.9382,15.2435,3.18939,-2.56996,0.0303194,
0.128872,0.0512224,0.0217898,-1.81922,0.17669,0.0570966,0.104545,0.293913,0.00687389,0.286912,-0.380503,1.13667,-1.03417,-0.0272576,4.78055,6.63335,4.6451,-16.1836,15.3538,53.0372,-2.05265,20.4311,1.96188,20.0086,-37.9447,10.8766,0.267618,-0.393484,0.120246,0.0502705,0.0133801,-1.80696,0.146841,0.0815562,0.105506,0.444604,-0.0334238,0.422663,-0.607229,1.22218,-1.85767,-0.00248944,0,0,0,0,0,0,0,13.5241,-30.9041,12.9382,15.2435,3.18939,-2.56996,0.0303194,
0.131244,0.0516012,0.0241053,-1.82291,0.186389,0.0532985,0.104246,0.29444,0.0149699,0.287417,-0.396582,1.1518,-0.922288,-0.0292999,0.329133,5.05998,0.316038,-10.0492,9.46018,69.9259,-1.27641,19.4142,0.93797,18.9932,-36.8349,10.8554,1.64412,-0.390359,0.137362,0.0506049,0.0294406,-1.82938,0.192247,0.0216823,0.105373,0.644589,0.0542743,0.416924,-0.822263,1.35926,-1.47162,-0.0109157,24.9981,10.9623,-0.717352,-26.8793,17.1354,48.256,-1.05328,0.614505,-36.7915,0.611891,27.55,3.0365,0.421072,-0.050247,
0.133974,0.0505113,0.0267872,-1.83403,0.206467,0.0837975,0.10305,0.279657,0.012581,0.2731,-0.414422,1.15401,-0.603915,-0.0305032,-9.23899,-1.49301,-8.94802,-11.1498,1.38035,198.984,-0.752071,18.6315,0.445305,18.234,-36.329,10.8554,2.11101,-0.360269,0.137362,0.0506049,0.0294406,-1.82938,0.192247,0.0216823,0.105373,0.644589,0.0542743,0.416924,-0.822263,1.35926,-1.47162,-0.0109157,0,0,0,0,0,0,0,0.614505,-36.7915,0.611891,27.55,3.0365,0.421072,-0.050247,
0.144178,0.0518901,0.0360537,-1.84042,0.214029,0.013251,0.104434,0.302346,0.0258792,0.295021,-0.462824,1.19311,-0.538017,-0.0357602,14.1804,8.31133,13.7006,-30.2514,24.4381,41.1863,-3.28559,13.2283,-3.95729,12.9644,-42.4786,10.8554,12.0138,-0.595187,0.137362,0.0506049,0.0294406,-1.82938,0.192247,0.0216823,0.105373,0.644589,0.0542743,0.416924,-0.822263,1.35926,-1.47162,-0.0109157,0,0,0,0,0,0,0,0.614505,-36.7915,0.611891,27.55,3.0365,0.421072,-0.050247,
0.146919,0.0524216,0.0387247,-1.84524,0.22448,0.0139726,0.104035,0.310405,0.0339896,0.302792,-0.490661,1.21577,-0.412372,-0.0385753,5.03679,5.06902,4.8564,-17.3981,14.1616,78.5276,-1.75945,13.5929,-4.69854,13.3308,-42.2118,10.8554,12.0138,-0.534923,0.137362,0.0506049,0.0294406,-1.82938,0.192247,0.0216823,0.105373,0.644589,0.0542743,0.416924,-0.822263,1.35926,-1.47162,-0.0109157,0,0,0,0,0,0,0,0.614505,-36.7915,0.611891,27.55,3.0365,0.421072,-0.050247,
0.149343,0.0528309,0.0410872,-1.84969,0.234548,0.0168077,0.103693,0.308904,0.0374249,0.301296,-0.503841,1.22431,-0.259023,-0.0394115,-0.937671,2.14704,-0.934761,-8.23748,5.33839,95.8436,-0.522636,13.9311,-5.75006,13.6264,-40.794,10.5959,12.451,-0.475614,0.156461,0.0507743,0.0470821,-1.85829,0.243568,-0.0170908,0.104437,0.657107,0.019943,0.457256,-0.961924,1.55101,-0.718526,-0.0399646,1.56476,-4.29142,5.04158,-17.4576,23.9688,94.1371,-3.63111,-3.19012,-35.2681,-2.41118,31.2872,1.82068,3.90191,-0.177505,
0.163163,0.0514847,0.0535803,-1.86991,0.266972,-0.0196138,0.103281,0.322798,0.0375761,0.314668,-0.539195,1.26522,-0.20405,-0.0446839,8.68365,0.0945391,8.35768,-22.0962,25.5644,34.3581,-3.29527,4.44406,-12.698,4.40764,-45.8008,10.5959,12.451,-0.755652,0.156461,0.0507743,0.0470821,-1.85829,0.243568,-0.0170908,0.104437,0.657107,0.019943,0.457256,-0.961924,1.55101,-0.718526,-0.0399646,0,0,0,0,0,0,0,-3.19012,-35.2681,-2.41118,31.2872,1.82068,3.90191,-0.177505,
0.165729,0.0516442,0.0560828,-1.87484,0.277604,-0.0173174,0.102857,0.322372,0.0340488,0.314297,-0.554611,1.27795,-0.105828,-0.0463445,-0.266326,-2.20459,-0.232285,-9.63528,7.95918,61.3884,-1.03784,6.99649,-11.5565,6.89863,-45.0833,10.5959,12.451,-0.613681,0.156461,0.0507743,0.0470821,-1.85829,0.243568,-0.0170908,0.104437,0.657107,0.019943,0.457256,-0.961924,1.55101,-0.718526,-0.0399646,0,0,0,0,0,0,0,-3.19012,-35.2681,-2.41118,31.2872,1.82068,3.90191,-0.177505,
0.167964,0.0516763,0.0582693,-1.87936,0.287157,-0.0133731,0.102516,0.313772,0.0280412,0.3061,-0.556539,1.2612,0.0139437,-0.0456005,-5.37534,-3.75478,-5.12303,-1.20492,-10.4699,74.8574,0.464989,8.72229,-10.0311,8.59171,-44.2239,9.84808,12.451,-0.496278,0.156461,0.0507743,0.0470821,-1.85829,0.243568,-0.0170908,0.104437,0.657107,0.019943,0.457256,-0.961924,1.55101,-0.718526,-0.0399646,0,0,0,0,0,0,0,-3.19012,-35.2681,-2.41118,31.2872,1.82068,3.90191,-0.177505,
0.16995,0.0516109,0.0602161,-1.88354,0.295628,-0.00817697,0.10224,0.300681,0.0207966,0.29355,-0.549706,1.22074,0.141058,-0.0433785,-8.18194,-4.52785,-7.84391,4.27072,-25.2844,79.4467,1.38877,9.82546,-8.39767,9.67512,-43.2995,8.42093,12.451,-0.402179,0.156461,0.0507743,0.0470821,-1.85829,0.243568,-0.0170908,0.104437,0.657107,0.019943,0.457256,-0.961924,1.55101,-0.718526,-0.0399646,0,0,0,0,0,0,0,-3.19012,-35.2681,-2.41118,31.2872,1.82068,3.90191,-0.177505,
0.181457,0.0506366,0.0716633,-1.90517,0.321228,-0.00945732,0.101656,0.308595,0.0207,0.301156,-0.571811,1.24323,0.210082,-0.0480669,4.94646,-0.0603677,4.75387,-13.8156,14.0553,43.14,-2.93025,-3.25068,-16.982,-3.03138,-47.8114,10.2699,12.5981,-0.812933,0.175302,0.0501972,0.065709,-1.89363,0.298535,-0.016454,0.102873,0.703728,-0.0239767,0.385719,-1.09117,1.6158,0.462039,-0.0530803,5.82756,-5.48996,-8.94212,-16.1561,8.09827,147.571,-1.63946,-6.43536,-35.1689,-5.78734,29.7678,0.893246,5.27428,-0.230606,
0.183716,0.0506274,0.0738733,-1.90987,0.33008,-0.00460871,0.101246,0.30336,0.0163286,0.296175,-0.575119,1.21589,0.289281,-0.0487172,-3.27162,-2.73215,-3.1132,-2.06735,-17.0872,49.4992,-0.406491,0.840184,-14.0943,0.90674,-46.5621,7.7588,12.5981,-0.622119,0.175302,0.0501972,0.065709,-1.89363,0.298535,-0.016454,0.102873,0.703728,-0.0239767,0.385719,-1.09117,1.6158,0.462039,-0.0530803,0,0,0,0,0,0,0,-6.43536,-35.1689,-5.78734,29.7678,0.893246,5.27428,-0.230606,
0.185652,0.0504878,0.0757704,-1.91418,0.337126,0.00111811,0.100927,0.291073,0.00957285,0.284369,-0.567633,1.14887,0.374595,-0.0469288,-7.67967,-4.22232,-7.37867,4.67884,-41.8918,53.3215,1.11777,3.53397,-11.3121,3.48191,-45.3004,5.07514,12.5981,-0.48503,0.175302,0.0501972,0.065709,-1.89363,0.298535,-0.016454,0.102873,0.703728,-0.0239767,0.385719,-1.09117,1.6158,0.462039,-0.0530803,0,0,0,0,0,0,0,-6.43536,-35.1689,-5.78734,29.7678,0.893246,5.27428,-0.230606,
0.187347,0.0502652,0.0774348,-1.91818,0.342588,0.00759368,0.100679,0.275252,0.00209262,0.269103,-0.554202,1.05564,0.461565,-0.0437578,-9.88802,-4.67515,-9.54111,8.39404,-58.2638,54.3562,1.98191,5.34962,-8.86332,5.23797,-44.1028,3.33495,12.5981,-0.382233,0.175302,0.0501972,0.065709,-1.89363,0.298535,-0.016454,0.102873,0.703728,-0.0239767,0.385719,-1.09117,1.6158,0.462039,-0.0530803,0,0,0,0,0,0,0,-6.43536,-35.1689,-5.78734,29.7678,0.893246,5.27428,-0.230606,
0.19871,0.0504866,0.088289,-1.94397,0.373143,0.0170006,0.100004,0.287192,0.0138436,0.28053,-0.571689,1.05404,0.493289,-0.0453125,7.4624,7.34438,7.14176,-10.9291,-1.00454,19.8275,-0.971739,0.806022,-14.5184,0.844442,-46.3873,7.58363,12.5912,-0.623449,0.192726,0.049347,0.0824899,-1.93262,0.354619,0.00725321,0.10093,0.615659,0.0147582,0.40534,-1.14246,1.49568,0.825602,-0.0424469,-11.0085,4.84186,2.45253,-6.41146,-15.0149,45.4453,1.32918,-7.22088,-42.4568,-6.91008,33.4058,0.788876,5.46654,-0.284622,
0.200951,0.0507414,0.0904772,-1.94853,0.37982,0.0225746,0.099683,0.285789,0.0174441,0.279131,-0.57152,1.01015,0.533981,-0.0442814,-0.876805,2.25029,-0.874529,0.105728,-27.431,25.4324,0.644491,3.49981,-11.7362,3.41961,-45.1256,4.89997,12.5912,-0.48636,0.192726,0.049347,0.0824899,-1.93262,0.354619,0.00725321,0.10093,0.615659,0.0147582,0.40534,-1.14246,1.49568,0.825602,-0.0424469,0,0,0,0,0,0,0,-7.22088,-42.4568,-6.91008,33.4058,0.788876,5.46654,-0.284622,
0.20287,0.0508149,0.092354,-1.95273,0.384993,0.0288088,0.0994322,0.276619,0.0157929,0.270224,-0.562108,0.937447,0.583041,-0.0416953,-5.73139,-1.03201,-5.56683,5.88263,-45.4379,30.6622,1.61626,5.31545,-9.2874,5.17567,-43.928,3.15978,12.5912,-0.383563,0.192726,0.049347,0.0824899,-1.93262,0.354619,0.00725321,0.10093,0.615659,0.0147582,0.40534,-1.14246,1.49568,0.825602,-0.0424469,0,0,0,0,0,0,0,-7.22088,-42.4568,-6.91008,33.4058,0.788876,5.46654,-0.284622,
0.204552,0.050767,0.0940001,-1.95665,0.388796,0.0356421,0.0992373,0.263346,0.0114376,0.257331,-0.547645,0.845038,0.637265,-0.0382282,-8.29571,-2.72204,-8.05813,9.03909,-57.7557,33.8899,2.16696,6.58791,-7.31304,6.42264,-42.901,2.07242,12.5912,-0.304706,0.192726,0.049347,0.0824899,-1.93262,0.354619,0.00725321,0.10093,0.615659,0.0147582,0.40534,-1.14246,1.49568,0.825602,-0.0424469,0,0,0,0,0,0,0,-7.22088,-42.4568,-6.91008,33.4058,0.788876,5.46654,-0.284622,
0.198914,0.0506994,0.0884957,-1.94366,0.371331,0.0169673,0.100203,0.280523,0.0242673,0.273938,-0.562655,0.860436,0.633906,-0.0387541,10.736,8.01856,10.3798,-9.38144,9.62376,-2.09889,-0.328679,3.40313,-12.4883,3.31004,-45.1861,4.70085,12.3802,-0.482371,0.207249,0.0468841,0.0974324,-1.97281,0.400793,0.043665,0.0990938,0.546459,-0.0487189,0.274805,-1.04753,1.10554,1.17108,-0.023441,-8.64999,-7.93464,-16.3169,11.8673,-48.7675,43.1844,2.37573,-10.9501,-34.5976,-10.9091,21.9443,0.447384,2.42333,-0.130813,
0.201263,0.0510735,0.0907889,-1.94811,0.377072,0.0225706,0.0999453,0.28315,0.0287662,0.276482,-0.561417,0.831861,0.647207,-0.0374476,1.64207,2.81179,1.58968,0.77385,-17.8596,8.31284,0.816544,5.21877,-10.0395,5.0661,-43.9886,2.96067,12.3802,-0.379574,0.207249,0.0468841,0.0974324,-1.97281,0.400793,0.043665,0.0990938,0.546459,-0.0487189,0.274805,-1.04753,1.10554,1.17108,-0.023441,0,0,0,0,0,0,0,-10.9501,-34.5976,-10.9091,21.9443,0.447384,2.42333,-0.130813,
0.20328,0.051262,0.0927598,-1.95221,0.381342,0.0288377,0.0997445,0.276947,0.0277251,0.270458,-0.551731,0.772237,0.674444,-0.0349768,-3.87737,-0.650672,-3.76495,6.05393,-37.265,17.0233,1.54427,6.49123,-8.06517,6.31307,-42.9616,1.87331,12.3802,-0.300717,0.207249,0.0468841,0.0974324,-1.97281,0.400793,0.043665,0.0990938,0.546459,-0.0487189,0.274805,-1.04753,1.10554,1.17108,-0.023441,0,0,0,0,0,0,0,-10.9501,-34.5976,-10.9091,21.9443,0.447384,2.42333,-0.130813,
0.205048,0.0513208,0.0944887,-1.95606,0.38426,0.0356984,0.0995937,0.265756,0.0236513,0.259588,-0.537459,0.69076,0.711071,-0.0317513,-6.99435,-2.54609,-6.79363,8.91966,-50.923,22.8915,2.01592,7.42977,-6.46369,7.22471,-42.0407,0.740838,12.3802,-0.238004,0.207249,0.0468841,0.0974324,-1.97281,0.400793,0.043665,0.0990938,0.546459,-0.0487189,0.274805,-1.04753,1.10554,1.17108,-0.023441,0,0,0,0,0,0,0,-10.9501,-34.5976,-10.9091,21.9443,0.447384,2.42333,-0.130813,
0.212319,0.0475512,0.102344,-1.98279,0.412073,0.0570949,0.0985481,0.27005,0.0267243,0.263672,-0.542977,0.674684,0.733237,-0.0316639,2.68413,1.92062,2.55259,-3.44835,-10.0474,13.8537,0.05461,5.04733,-10.3037,4.89526,-43.9992,2.89099,12.2983,-0.375889,0.220054,0.0436368,0.111639,-2.0118,0.435614,0.0910675,0.097594,0.430404,0.00866219,0.321992,-1.01366,0.701113,1.36983,-0.0311728,-14.5069,7.17264,5.89843,4.2337,-50.5533,24.8447,-0.966472,-6.8916,-37.466,-7.31078,31.9577,0.825497,2.31072,-0.183914,
0.214275,0.0477125,0.104255,-1.98688,0.415669,0.0639403,0.0983505,0.264947,0.0254112,0.258697,-0.53656,0.629649,0.757724,-0.030272,-3.18945,-0.820688,-3.10964,4.01074,-28.1471,15.3045,0.86997,6.31978,-8.3293,6.14223,-42.9722,1.80363,12.2983,-0.297032,0.220054,0.0436368,0.111639,-2.0118,0.435614,0.0910675,0.097594,0.430404,0.00866219,0.321992,-1.01366,0.701113,1.36983,-0.0311728,0,0,0,0,0,0,0,-6.8916,-37.466,-7.31078,31.9577,0.825497,2.31072,-0.183914,
0.215981,0.0477481,0.105922,-1.99069,0.418066,0.0711713,0.0982021,0.254602,0.0212202,0.248649,-0.524594,0.563639,0.786954,-0.0279267,-6.46553,-2.61938,-6.27952,7.4785,-41.2563,18.2689,1.46579,7.25832,-6.72782,7.05387,-42.0513,0.671159,12.2983,-0.234319,0.220054,0.0436368,0.111639,-2.0118,0.435614,0.0910675,0.097594,0.430404,0.00866219,0.321992,-1.01366,0.701113,1.36983,-0.0311728,0,0,0,0,0,0,0,-6.8916,-37.466,-7.31078,31.9577,0.825497,2.31072,-0.183914,
0.224645,0.0448531,0.116091,-2.0216,0.441976,0.106385,0.0971713,0.25574,0.0307483,0.249579,-0.530848,0.516628,0.813083,-0.0271766,0.710961,5.95506,0.58101,-3.90901,-29.3816,16.3308,0.468852,6.31978,-8.3293,6.14223,-42.9722,1.80363,12.2983,-0.297032,0.220054,0.0436368,0.111639,-2.0118,0.435614,0.0910675,0.097594,0.430404,0.00866219,0.321992,-1.01366,0.701113,1.36983,-0.0311728,0,0,0,0,0,0,0,-6.8916,-37.466,-7.31078,31.9577,0.825497,2.31072,-0.183914,
0.226424,0.0452057,0.117826,-2.02563,0.443629,0.11375,0.097024,0.24906,0.0334136,0.24302,-0.525447,0.454628,0.834596,-0.0254217,-4.17507,1.66582,-4.09972,3.37588,-38.7501,13.4452,1.09676,7.20615,-6.95504,6.99819,-42.1527,0.63689,12.1722,-0.231027,0.232505,0.0416928,0.123285,-2.04703,0.458593,0.142539,0.0966049,0.167697,-0.0466218,0.545565,-0.957128,0.429588,1.51928,-0.017848,-32.8383,-6.9105,27.9466,7.06606,-33.9406,18.6806,1.6656,-0.325741,-31.1778,-0.836168,17.9373,0.923458,-0.918344,-0.123489,
0.227979,0.0453973,0.119344,-2.0294,0.444445,0.121336,0.0969149,0.238125,0.0315206,0.232372,-0.514762,0.384101,0.857323,-0.023066,-6.83439,-1.18317,-6.65498,6.67829,-44.0792,14.2047,1.47232,7.93124,-5.66298,7.70257,-41.3076,-0.499268,12.1722,-0.17542,0.232505,0.0416928,0.123285,-2.04703,0.458593,0.142539,0.0966049,0.167697,-0.0466218,0.545565,-0.957128,0.429588,1.51928,-0.017848,0,0,0,0,0,0,0,-0.325741,-31.1778,-0.836168,17.9373,0.923458,-0.918344,-0.123489,
0.229372,0.0454754,0.120705,-2.03299,0.444429,0.129187,0.0968375,0.225322,0.0271691,0.219921,-0.501408,0.306886,0.882128,-0.0203868,-8.00173,-2.71968,-7.78173,8.34597,-48.2592,15.5032,1.67454,8.43803,-4.64308,8.20979,-40.5274,-1.18518,12.1722,-0.131889,0.232505,0.0416928,0.123285,-2.04703,0.458593,0.142539,0.0966049,0.167697,-0.0466218,0.545565,-0.957128,0.429588,1.51928,-0.017848,0,0,0,0,0,0,0,-0.325741,-31.1778,-0.836168,17.9373,0.923458,-0.918344,-0.123489,
0.236779,0.0423621,0.127472,-2.05619,0.461677,0.159321,0.096285,0.229,0.0298702,0.223375,-0.505194,0.273418,0.904878,-0.0199434,2.29898,1.68822,2.15896,-2.36617,-20.9176,14.2186,0.277123,7.20615,-6.95504,6.99819,-42.1527,0.63689,12.1722,-0.231027,0.232505,0.0416928,0.123285,-2.04703,0.458593,0.142539,0.0966049,0.167697,-0.0466218,0.545565,-0.957128,0.429588,1.51928,-0.017848,0,0,0,0,0,0,0,-0.325741,-31.1778,-0.836168,17.9373,0.923458,-0.918344,-0.123489,
0.238446,0.0425581,0.129097,-2.06,0.462127,0.167162,0.0961746,0.224865,0.0287985,0.219331,-0.49945,0.230001,0.919921,-0.0187162,-2.58471,-0.669813,-2.52775,3.58986,-27.136,9.40205,0.766981,8.03499,-5.894,7.81284,-41.3402,-0.434934,12.038,-0.174093,0.245921,0.0390731,0.132725,-2.08191,0.477361,0.198629,0.095935,0.12957,-0.147591,0.536769,-1.00187,0.380112,1.64603,-0.0173836,-4.7659,-12.6211,-1.09951,-5.59221,-6.1844,15.8436,0.0580489,-0.0202602,-29.706,0.512709,16.3147,0.484005,-0.109934,-0.103348,
0.239912,0.0426415,0.130528,-2.0636,0.461872,0.175104,0.0960963,0.216533,0.0251235,0.211244,-0.489491,0.177624,0.934496,-0.0169289,-5.20759,-2.29691,-5.05452,6.22472,-32.7354,9.10891,1.11704,8.54178,-4.8741,8.32006,-40.56,-1.12084,12.038,-0.130562,0.245921,0.0390731,0.132725,-2.08191,0.477361,0.198629,0.095935,0.12957,-0.147591,0.536769,-1.00187,0.380112,1.64603,-0.0173836,0,0,0,0,0,0,0,-0.0202602,-29.706,0.512709,16.3147,0.484005,-0.109934,-0.103348,
0.241233,0.0426437,0.13182,-2.06704,0.460897,0.183222,0.0960454,0.206267,0.0201523,0.201287,-0.477577,0.117722,0.950534,-0.0148154,-6.41575,-3.107,-6.22271,7.44593,-37.4391,10.0238,1.32094,8.94681,-4.08739,8.71104,-39.836,-2.0654,12.038,-0.0954089,0.245921,0.0390731,0.132725,-2.08191,0.477361,0.198629,0.095935,0.12957,-0.147591,0.536769,-1.00187,0.380112,1.64603,-0.0173836,0,0,0,0,0,0,0,-0.0202602,-29.706,0.512709,16.3147,0.484005,-0.109934,-0.103348,
0.249964,0.0390881,0.136698,-2.09075,0.478801,0.215984,0.0957172,0.211312,0.0180933,0.206184,-0.481336,0.102018,0.964814,-0.0144572,3.15265,-1.28686,3.06035,-2.34917,-9.81494,8.92515,0.223868,8.03499,-5.894,7.81284,-41.3402,-0.434934,12.038,-0.174093,0.245921,0.0390731,0.132725,-2.08191,0.477361,0.198629,0.095935,0.12957,-0.147591,0.536769,-1.00187,0.380112,1.64603,-0.0173836,0,0,0,0,0,0,0,-0.0202602,-29.706,0.512709,16.3147,0.484005,-0.109934,-0.103348,
0.251561,0.0391209,0.138258,-2.09438,0.478444,0.223978,0.095639,0.208968,0.0152956,0.203948,-0.475795,0.0726929,0.971688,-0.0135203,-1.46462,-1.74858,-1.39728,3.46313,-18.328,4.29633,0.58558,8.54178,-4.8741,8.32006,-40.56,-1.12084,12.038,-0.130562,0.245921,0.0390731,0.132725,-2.08191,0.477361,0.198629,0.095935,0.12957,-0.147591,0.536769,-1.00187,0.380112,1.64603,-0.0173836,0,0,0,0,0,0,0,-0.0202602,-29.706,0.512709,16.3147,0.484005,-0.109934,-0.103348,
0.252976,0.0390906,0.139643,-2.09782,0.477414,0.232042,0.0955876,0.202549,0.0114765,0.197761,-0.46672,0.0323977,0.978946,-0.0121016,-4.01176,-2.38692,-3.86662,5.67198,-25.1845,4.53641,0.886702,8.91361,-4.04807,8.67529,-39.8405,-2.00241,11.9469,-0.0927767,0.258801,0.0378814,0.142122,-2.11634,0.484623,0.256386,0.0956784,0.491665,-0.0709301,0.150283,-1.04709,0.115489,1.66427,-0.00662853,45.2618,9.58255,-48.3108,-5.65339,-33.0779,2.28017,1.34438,-3.2655,-36.1687,-1.93511,28.0222,1.63757,2.46911,-0.217789,
0.254259,0.039011,0.140898,-2.10114,0.475762,0.240255,0.0955597,0.194113,0.00719294,0.189607,-0.456318,-0.0153754,0.988485,-0.0103793,-5.27282,-2.67722,-5.09631,6.50087,-29.8582,5.96135,1.07641,9.27058,-3.45745,9.02311,-39.155,-2.86592,11.9469,-0.0628792,0.258801,0.0378814,0.142122,-2.11634,0.484623,0.256386,0.0956784,0.491665,-0.0709301,0.150283,-1.04709,0.115489,1.66427,-0.00662853,0,0,0,0,0,0,0,-3.2655,-36.1687,-1.93511,28.0222,1.63757,2.46911,-0.217789,
0.262747,0.0387847,0.145922,-2.12563,0.482603,0.273422,0.0955396,0.200014,0.0175588,0.195166,-0.468961,-0.0443464,0.989532,-0.0101097,3.68793,6.47868,3.47383,-7.90179,-18.1069,0.654796,0.168495,8.50858,-4.83478,8.28431,-40.5645,-1.05786,11.9469,-0.12793,0.258801,0.0378814,0.142122,-2.11634,0.484623,0.256386,0.0956784,0.491665,-0.0709301,0.150283,-1.04709,0.115489,1.66427,-0.00662853,0,0,0,0,0,0,0,-3.2655,-36.1687,-1.93511,28.0222,1.63757,2.46911,-0.217789,
0.26429,0.0391278,0.147425,-2.12939,0.480889,0.281148,0.0954879,0.198569,0.0226252,0.19371,-0.46935,-0.0783337,0.98479,-0.00938051,-0.90309,3.16645,-0.909817,-0.242828,-21.2421,-2.96408,0.455761,8.91361,-4.04807,8.67529,-39.8405,-2.00241,11.9469,-0.0927767,0.258801,0.0378814,0.142122,-2.11634,0.484623,0.256386,0.0956784,0.491665,-0.0709301,0.150283,-1.04709,0.115489,1.66427,-0.00662853,0,0,0,0,0,0,0,-3.2655,-36.1687,-1.93511,28.0222,1.63757,2.46911,-0.217789,
0.265659,0.0393416,0.148761,-2.13295,0.478753,0.288945,0.0954592,0.193074,0.0234446,0.188366,-0.464283,-0.116058,0.982743,-0.00822007,-3.43399,0.512156,-3.33962,3.16653,-23.5778,-1.27907,0.725272,9.13784,-3.51619,8.87879,-39.1745,-2.81997,11.8194,-0.0604025,0.266891,0.0377649,0.15635,-2.14984,0.483865,0.314175,0.0956378,0.555716,0.000610269,0.114011,-0.970616,-0.113276,1.68861,-0.00170448,8.0064,8.94255,-4.53401,9.55959,-28.5956,3.04238,0.615506,-4.30493,-33.8716,-4.03777,27.1771,1.72912,2.07177,-0.117081,
0.266903,0.0394541,0.149977,-2.13635,0.476233,0.296905,0.0954525,0.185574,0.0215686,0.181092,-0.456523,-0.155861,0.985206,-0.00674459,-4.68765,-1.17249,-4.54623,4.85026,-24.8764,1.53954,0.922178,9.47477,-3.09972,9.2159,-38.5296,-3.42669,11.8194,-0.0338481,0.266891,0.0377649,0.15635,-2.14984,0.483865,0.314175,0.0956378,0.555716,0.000610269,0.114011,-0.970616,-0.113276,1.68861,-0.00170448,0,0,0,0,0,0,0,-4.30493,-33.8716,-4.03777,27.1771,1.72912,2.07177,-0.117081,
0.270922,0.0390806,0.160213,-2.15892,0.479467,0.331626,0.0955375,0.193797,0.0328636,0.188851,-0.467821,-0.183071,0.990533,-0.00671054,5.13951,7.05934,4.84935,-7.0616,-17.0066,3.32917,0.0212787,8.78088,-4.10681,8.53097,-39.86,-1.95646,11.8194,-0.0903,0.266891,0.0377649,0.15635,-2.14984,0.483865,0.314175,0.0956378,0.555716,0.000610269,0.114011,-0.970616,-0.113276,1.68861,-0.00170448,0,0,0,0,0,0,0,-4.30493,-33.8716,-4.03777,27.1771,1.72912,2.07177,-0.117081,
0.272472,0.0395261,0.161722,-2.16266,0.476927,0.339391,0.0955047,0.19381,0.0374271,0.188792,-0.467858,-0.209959,0.98656,-0.00618946,0.00820379,2.85223,-0.0371008,-0.0225851,-16.8051,-2.48295,0.325675,9.13784,-3.51619,8.87879,-39.1745,-2.81997,11.8194,-0.0604025,0.266891,0.0377649,0.15635,-2.14984,0.483865,0.314175,0.0956378,0.555716,0.000610269,0.114011,-0.970616,-0.113276,1.68861,-0.00170448,0,0,0,0,0,0,0,-4.30493,-33.8716,-4.03777,27.1771,1.72912,2.07177,-0.117081,
0.273842,0.039813,0.163056,-2.1662,0.474164,0.347157,0.0954947,0.189285,0.0371155,0.184389,-0.462738,-0.237054,0.98341,-0.00519976,-2.82847,-0.194749,-2.75192,3.19988,-16.9341,-1.96885,0.618562,9.31779,-3.15906,9.04661,-38.5933,-3.3792,11.6706,-0.0314724,0.276902,0.0380984,0.167771,-2.18226,0.478627,0.372124,0.095646,0.10338,0.0591563,0.508327,-0.921775,-0.327015,1.73764,-0.000274583,-56.542,7.31825,49.2895,6.10516,-26.7174,6.12945,0.178737,-1.51593,-35.9941,-1.98668,28.0499,1.36932,2.32354,-0.150955,
0.275083,0.0399786,0.164267,-2.16959,0.471197,0.355047,0.0955084,0.182466,0.0338321,0.177786,-0.455029,-0.263797,0.983973,-0.00381741,-4.26196,-2.05216,-4.12662,4.81785,-16.7142,0.351884,0.863973,9.64772,-2.89411,9.38135,-37.9857,-3.78632,11.6706,-0.00625101,0.276902,0.0380984,0.167771,-2.18226,0.478627,0.372124,0.095646,0.10338,0.0591563,0.508327,-0.921775,-0.327015,1.73764,-0.000274583,0,0,0,0,0,0,0,-1.51593,-35.9941,-1.98668,28.0499,1.36932,2.32354,-0.150955,
0.280468,0.0397743,0.171249,-2.19118,0.472052,0.390134,0.0955825,0.186516,0.04606,0.181446,-0.465548,-0.293383,0.995386,-0.00385072,2.53118,7.64243,2.28738,-6.57434,-18.4913,7.13269,-0.0208227,8.98086,-3.57553,8.7095,-39.2382,-2.77248,11.6706,-0.0580268,0.276902,0.0380984,0.167771,-2.18226,0.478627,0.372124,0.095646,0.10338,0.0591563,0.508327,-0.921775,-0.327015,1.73764,-0.000274583,0,0,0,0,0,0,0,-1.51593,-35.9941,-1.98668,28.0499,1.36932,2.32354,-0.150955,
0.281866,0.0403111,0.172605,-2.19489,0.468776,0.398046,0.09557,0.18416,0.0502666,0.179052,-0.465404,-0.316602,0.994106,-0.00339275,-1.47244,2.62916,-1.49651,0.0899896,-14.5124,-0.799962,0.286233,9.31779,-3.15906,9.04661,-38.5933,-3.3792,11.6706,-0.0314724,0.276902,0.0380984,0.167771,-2.18226,0.478627,0.372124,0.095646,0.10338,0.0591563,0.508327,-0.921775,-0.327015,1.73764,-0.000274583,0,0,0,0,0,0,0,-1.51593,-35.9941,-1.98668,28.0499,1.36932,2.32354,-0.150955,
0.283114,0.0406621,0.173818,-2.19841,0.465482,0.405893,0.0955817,0.17853,0.0489881,0.173567,-0.460276,-0.335639,0.991471,-0.00242112,-3.51864,-0.799062,-3.42772,3.20516,-11.8978,-1.64634,0.607268,9.64491,-3.03784,9.37265,-37.978,-3.69276,11.4786,-0.00457778,0.290174,0.0383068,0.174736,-2.21441,0.46789,0.431166,0.0956538,0.129808,-0.00280182,0.472022,-0.926319,-0.470046,1.72245,0.00022095,3.30349,-7.74476,-4.53815,-0.568022,-17.879,-1.89925,0.0619416,-0.198788,-34.7444,0.211195,27.2525,0.984799,1.67351,-0.137222,
0.284257,0.0408729,0.174931,-2.20179,0.462211,0.413816,0.0956148,0.171405,0.0444613,0.166676,-0.452666,-0.350275,0.991247,-0.00110946,-4.45286,-2.8293,-4.30716,4.75599,-9.14761,-0.140201,0.819787,9.95793,-2.89665,9.69385,-37.4102,-3.91242,11.4786,0.022528,0.290174,0.0383068,0.174736,-2.21441,0.46789,0.431166,0.0956538,0.129808,-0.00280182,0.472022,-0.926319,-0.470046,1.72245,0.00022095,0,0,0,0,0,0,0,-0.198788,-34.7444,0.211195,27.2525,0.984799,1.67351,-0.137222,
0.293683,0.0394127,0.178157,-2.22303,0.460681,0.448858,0.0956409,0.17701,0.0478741,0.172038,-0.458235,-0.356196,0.998781,-0.000911315,3.50303,2.13302,3.35109,-3.4805,-3.70044,4.7084,0.123842,9.31497,-3.30279,9.0379,-38.5857,-3.28563,11.4786,-0.0297992,0.290174,0.0383068,0.174736,-2.21441,0.46789,0.431166,0.0956538,0.129808,-0.00280182,0.472022,-0.926319,-0.470046,1.72245,0.00022095,0,0,0,0,0,0,0,-0.198788,-34.7444,0.211195,27.2525,0.984799,1.67351,-0.137222,
0.294999,0.0394457,0.179443,-2.2262,0.458591,0.455908,0.0956641,0.174499,0.0391245,0.169781,-0.445857,-0.337189,0.975274,-0.000148101,-1.56969,-5.46852,-1.41069,7.73618,11.8793,-14.6917,0.477009,9.64491,-3.03784,9.37265,-37.978,-3.69276,11.4786,-0.00457778,0.290174,0.0383068,0.174736,-2.21441,0.46789,0.431166,0.0956538,0.129808,-0.00280182,0.472022,-0.926319,-0.470046,1.72245,0.00022095,0,0,0,0,0,0,0,-0.198788,-34.7444,0.211195,27.2525,0.984799,1.67351,-0.137222,
0.296119,0.0390045,0.180549,-2.22892,0.457149,0.461909,0.095729,0.167608,0.0202689,0.163468,-0.424687,-0.305802,0.930242,0.00150263,-4.3067,-11.7848,-3.94549,13.2315,19.617,-28.1449,1.03171,10.0274,-3.186,9.75577,-37.1464,-3.73006,11.3392,0.0221672,0.300717,0.0388719,0.184613,-2.24663,0.454721,0.489874,0.0957051,0.538929,0.00967244,0.0565752,-0.924764,-0.392624,1.5789,0.00173964,51.1401,1.55928,-51.9308,0.194364,9.67778,-17.9432,0.189836,-1.49212,-32.8243,-0.836168,25.6577,-1.57502,3.6831,-0.183914,
0.297111,0.038147,0.181537,-2.23132,0.456139,0.467024,0.0958455,0.158877,-0.00522028,0.155472,-0.399739,-0.26989,0.872054,0.00411515,-5.45703,-15.9307,-4.99752,15.5922,22.4446,-36.3676,1.63282,10.2535,-3.13217,9.99755,-36.6134,-3.67393,11.3392,0.0476219,0.300717,0.0388719,0.184613,-2.24663,0.454721,0.489874,0.0957051,0.538929,0.00967244,0.0565752,-0.924764,-0.392624,1.5789,0.00173964,0,0,0,0,0,0,0,-1.49212,-32.8243,-0.836168,25.6577,-1.57502,3.6831,-0.183914,
0.30414,0.0390845,0.1879,-2.25411,0.451178,0.508095,0.0955002,0.164514,-0.00785117,0.160964,-0.396688,-0.248452,0.901443,0.000976408,3.52345,-1.64431,3.43292,1.907,13.3987,18.3681,-1.96171,9.71438,-3.32719,9.43456,-37.7142,-3.5104,11.3392,-0.00493859,0.300717,0.0388719,0.184613,-2.24663,0.454721,0.489874,0.0957051,0.538929,0.00967244,0.0565752,-0.924764,-0.392624,1.5789,0.00173964,0,0,0,0,0,0,0,-1.49212,-32.8243,-0.836168,25.6577,-1.57502,3.6831,-0.183914,
0.305338,0.0382571,0.189086,-2.25642,0.450462,0.514533,0.0954656,0.161553,-0.026968,0.158421,-0.374999,-0.216639,0.882103,-8.38664e-05,-1.85082,-11.948,-1.5896,13.5558,19.8834,-12.0874,-0.662671,10.0274,-3.186,9.75577,-37.1464,-3.73006,11.3392,0.0221672,0.300717,0.0388719,0.184613,-2.24663,0.454721,0.489874,0.0957051,0.538929,0.00967244,0.0565752,-0.924764,-0.392624,1.5789,0.00173964,0,0,0,0,0,0,0,-1.49212,-32.8243,-0.836168,25.6577,-1.57502,3.6831,-0.183914,
0.306333,0.0368078,0.190085,-2.25824,0.450099,0.519544,0.0955088,0.154138,-0.0578059,0.151712,-0.345623,-0.182409,0.830966,0.00101182,-4.63452,-19.2737,-4.19334,18.3601,21.3934,-31.9606,0.684803,10.2526,-3.55913,9.98728,-36.4044,-3.53775,11.1854,0.0473469,0.307677,0.0391746,0.198337,-2.27639,0.44335,0.544197,0.0957476,0.398768,0.00924917,0.188498,-0.821232,-0.329496,1.37169,2.80842e-05,-17.5201,-0.052909,16.4903,12.9416,7.89105,-25.9021,-0.213944,-2.32922,-35.8196,-2.7365,27.3993,0.190121,4.3322,-0.0026396,
0.307202,0.0348607,0.190966,-2.25975,0.449924,0.523417,0.0956391,0.145014,-0.0949211,0.143397,-0.314264,-0.150288,0.761589,0.00406851,-5.70205,-23.197,-5.19682,19.5992,20.0758,-43.3608,1.91043,10.3779,-3.55718,10.1198,-35.9029,-3.58021,11.1854,0.0684376,0.307677,0.0391746,0.198337,-2.27639,0.44335,0.544197,0.0957476,0.398768,0.00924917,0.188498,-0.821232,-0.329496,1.37169,2.80842e-05,0,0,0,0,0,0,0,-2.32922,-35.8196,-2.7365,27.3993,0.190121,4.3322,-0.0026396,
0.310891,0.0381566,0.201467,-2.28259,0.441128,0.559583,0.0957135,0.150586,-0.0988081,0.148847,-0.311066,-0.137901,0.775806,0.00331069,3.48231,-2.4294,3.40659,1.99854,7.74196,8.88584,-0.473639,10.0265,-3.61296,9.74549,-36.9374,-3.59387,11.1854,0.0218921,0.307677,0.0391746,0.198337,-2.27639,0.44335,0.544197,0.0957476,0.398768,0.00924917,0.188498,-0.821232,-0.329496,1.37169,2.80842e-05,0,0,0,0,0,0,0,-2.32922,-35.8196,-2.7365,27.3993,0.190121,4.3322,-0.0026396,
0.311966,0.0363798,0.202545,-2.28415,0.440892,0.564427,0.0957928,0.147339,-0.123467,0.146045,-0.287989,-0.116225,0.741739,0.00462961,-2.02948,-15.412,-1.75119,14.4233,13.5475,-21.2923,0.824328,10.2526,-3.55913,9.98728,-36.4044,-3.53775,11.1854,0.0473469,0.307677,0.0391746,0.198337,-2.27639,0.44335,0.544197,0.0957476,0.398768,0.00924917,0.188498,-0.821232,-0.329496,1.37169,2.80842e-05,0,0,0,0,0,0,0,-2.32922,-35.8196,-2.7365,27.3993,0.190121,4.3322,-0.0026396,
0.31284,0.0338854,0.203437,-2.28522,0.440902,0.567783,0.0959678,0.139727,-0.161134,0.139138,-0.257061,-0.0927194,0.677299,0.00807834,-4.7577,-23.5414,-4.31724,19.3303,14.691,-40.2749,2.15546,10.3927,-4.15375,10.1542,-35.734,-3.46416,11.0208,0.0682024,0.318212,0.0366461,0.207686,-2.30352,0.435111,0.592339,0.095809,-0.0425524,-0.162028,0.596767,-0.695846,-0.176136,1.25987,0.00103038,-55.165,-21.4097,51.0337,15.6732,19.1699,-13.9775,0.125288,1.1977,-34.5976,1.21095,25.4593,-0.249332,5.59289,-0.0905302,
0.3136,0.0308566,0.204223,-2.28598,0.440997,0.569981,0.0962469,0.130771,-0.204626,0.130939,-0.224505,-0.0718179,0.596775,0.0134421,-5.59707,-27.1827,-5.12437,20.347,13.0634,-50.3271,3.35235,10.4226,-4.16526,10.1857,-35.2452,-3.6042,11.0208,0.0777847,0.318212,0.0366461,0.207686,-2.30352,0.435111,0.592339,0.095809,-0.0425524,-0.162028,0.596767,-0.695846,-0.176136,1.25987,0.00103038,0,0,0,0,0,0,0,1.1977,-34.5976,1.21095,25.4593,-0.249332,5.59289,-0.0905302,
0.321313,0.0334133,0.210827,-2.30804,0.43588,0.606646,0.0957947,0.138585,-0.213767,0.138769,-0.218693,-0.0438715,0.626498,0.011353,4.88336,-5.71327,4.89379,3.63282,17.4665,18.5766,-1.30568,10.2675,-4.15569,10.0217,-36.2355,-3.42169,11.0208,0.0471116,0.318212,0.0366461,0.207686,-2.30352,0.435111,0.592339,0.095809,-0.0425524,-0.162028,0.596767,-0.695846,-0.176136,1.25987,0.00103038,0,0,0,0,0,0,0,1.1977,-34.5976,1.21095,25.4593,-0.249332,5.59289,-0.0905302,
0.322382,0.0305921,0.211914,-2.30884,0.436513,0.610597,0.09592,0.137587,-0.241544,0.138181,-0.195111,-0.0192887,0.599989,0.0122131,-0.623809,-17.3609,-0.367387,14.7385,15.3642,-16.5677,0.537544,10.3927,-4.15375,10.1542,-35.734,-3.46416,11.0208,0.0682024,0.318212,0.0366461,0.207686,-2.30352,0.435111,0.592339,0.095809,-0.0425524,-0.162028,0.596767,-0.695846,-0.176136,1.25987,0.00103038,0,0,0,0,0,0,0,1.1977,-34.5976,1.21095,25.4593,-0.249332,5.59289,-0.0905302,
0.323269,0.0271104,0.212828,-2.30922,0.43709,0.612964,0.0961642,0.132264,-0.280279,0.13341,-0.165439,-0.00100706,0.539168,0.0158766,-3.3265,-24.2091,-2.98225,18.5453,11.426,-38.0136,2.28969,10.4226,-4.16526,10.1857,-35.2452,-3.6042,11.0208,0.0777847,0.318212,0.0366461,0.207686,-2.30352,0.435111,0.592339,0.095809,-0.0425524,-0.162028,0.596767,-0.695846,-0.176136,1.25987,0.00103038,0,0,0,0,0,0,0,1.1977,-34.5976,1.21095,25.4593,-0.249332,5.59289,-0.0905302,
0.324055,0.0231584,0.213644,-2.30935,0.437527,0.614141,0.0965359,0.125455,-0.323022,0.127123,-0.13563,0.0101199,0.460757,0.0219947,-4.25595,-26.7146,-3.92936,18.6307,6.95435,-49.0068,3.82385,10.5785,-4.79962,10.3966,-34.6615,-3.90828,10.8813,0.0859797,0.329878,0.0279012,0.213322,-2.32571,0.430698,0.629743,0.0962542,0.350038,-0.371098,0.116192,-0.587386,-0.0802094,0.867211,0.022546,49.0738,-26.1337,-60.0719,13.5576,11.9909,-49.082,2.68945,2.08637,-26.5083,3.0121,18.5324,-0.768436,6.85906,-0.137222,
0.332488,0.0217528,0.215917,-2.32882,0.430419,0.63785,0.0967386,0.128893,-0.341599,0.13052,-0.132239,0.00866626,0.448015,0.0246691,2.14898,-11.6105,2.12309,2.11921,-0.908522,-7.9634,1.67148,10.4821,-4.76987,10.3102,-35.6349,-3.38802,10.8813,0.0680781,0.329878,0.0279012,0.213322,-2.32571,0.430698,0.629743,0.0962542,0.350038,-0.371098,0.116192,-0.587386,-0.0802094,0.867211,0.022546,0,0,0,0,0,0,0,2.08637,-26.5083,3.0121,18.5324,-0.768436,6.85906,-0.137222,
0.333421,0.0178528,0.21687,-2.32914,0.430542,0.639552,0.0971326,0.126446,-0.370779,0.128231,-0.113795,0.0100198,0.400966,0.0295836,-1.52905,-18.2374,-1.43032,11.5274,0.845959,-29.4056,3.07155,10.512,-4.78138,10.3417,-35.1461,-3.52807,10.8813,0.0776603,0.329878,0.0279012,0.213322,-2.32571,0.430698,0.629743,0.0962542,0.350038,-0.371098,0.116192,-0.587386,-0.0802094,0.867211,0.022546,0,0,0,0,0,0,0,2.08637,-26.5083,3.0121,18.5324,-0.768436,6.85906,-0.137222,
0.334232,0.0134991,0.217702,-2.32913,0.43063,0.640112,0.0976506,0.121435,-0.405464,0.123392,-0.0907587,0.0102215,0.334779,0.036618,-3.1323,-21.6779,-3.02416,14.3977,0.12604,-41.3673,4.39651,10.5785,-4.79962,10.3966,-34.6615,-3.90828,10.8813,0.0859797,0.329878,0.0279012,0.213322,-2.32571,0.430698,0.629743,0.0962542,0.350038,-0.371098,0.116192,-0.587386,-0.0802094,0.867211,0.022546,0,0,0,0,0,0,0,2.08637,-26.5083,3.0121,18.5324,-0.768436,6.85906,-0.137222,
0.334964,0.0088423,0.218454,-2.32897,0.43064,0.639837,0.0982968,0.115448,-0.440792,0.117511,-0.068576,0.00843131,0.260942,0.0454499,-3.7419,-22.0802,-3.67575,13.8642,-1.11884,-46.1478,5.51991,10.6727,-4.81987,10.4883,-34.1738,-4.19081,10.8813,0.107188,0.329878,0.0279012,0.213322,-2.32571,0.430698,0.629743,0.0962542,0.350038,-0.371098,0.116192,-0.587386,-0.0802094,0.867211,0.022546,0,0,0,0,0,0,0,2.08637,-26.5083,3.0121,18.5324,-0.768436,6.85906,-0.137222,
0.332509,0.0217858,0.215939,-2.32877,0.430367,0.637849,0.0967379,0.121282,-0.435338,0.123227,-0.0778183,0.00634397,0.288139,0.0434217,3.64622,3.4087,3.57243,-5.77643,-1.30459,16.9982,-1.26763,10.512,-4.78138,10.3417,-35.1461,-3.52807,10.8813,0.0776603,0.329878,0.0279012,0.213322,-2.32571,0.430698,0.629743,0.0962542,0.350038,-0.371098,0.116192,-0.587386,-0.0802094,0.867211,0.022546,0,0,0,0,0,0,0,2.08637,-26.5083,3.0121,18.5324,-0.768436,6.85906,-0.137222,
0.333463,0.0179034,0.216913,-2.32906,0.430436,0.639549,0.0971329,0.120867,-0.445331,0.122915,-0.0693982,0.00679096,0.272998,0.0446121,-0.259512,-6.24542,-0.195055,5.26255,0.27937,-9.4635,0.744005,10.5785,-4.79962,10.3966,-34.6615,-3.90828,10.8813,0.0859797,0.329878,0.0279012,0.213322,-2.32571,0.430698,0.629743,0.0962542,0.350038,-0.371098,0.116192,-0.587386,-0.0802094,0.867211,0.022546,0,0,0,0,0,0,0,2.08637,-26.5083,3.0121,18.5324,-0.768436,6.85906,-0.137222,
0.334278,0.0135611,0.21775,-2.32903,0.430498,0.640099,0.0976537,0.117077,-0.464823,0.119269,-0.0546982,0.00697933,0.232162,0.0487099,-2.36816,-12.1829,-2.27867,9.18751,0.11773,-25.5222,2.56113,10.6727,-4.81987,10.4883,-34.1738,-4.19081,10.8813,0.107188,0.329878,0.0279012,0.213322,-2.32571,0.430698,0.629743,0.0962542,0.350038,-0.371098,0.116192,-0.587386,-0.0802094,0.867211,0.022546,0,0,0,0,0,0,0,2.08637,-26.5083,3.0121,18.5324,-0.768436,6.85906,-0.137222,
0.335019,0.00892149,0.218511,-2.32884,0.430467,0.639812,0.0983012,0.112183,-0.487848,0.114434,-0.0389494,0.00480588,0.178535,0.0551561,-3.05929,-14.3906,-3.02189,9.843,-1.35841,-33.5168,4.02889,10.557,-4.8294,10.3976,-33.695,-3.90745,10.8813,0.114429,0.329878,0.0279012,0.213322,-2.32571,0.430698,0.629743,0.0962542,0.350038,-0.371098,0.116192,-0.587386,-0.0802094,0.867211,0.022546,0,0,0,0,0,0,0,2.08637,-26.5083,3.0121,18.5324,-0.768436,6.85906,-0.137222,
0.33254,0.0218192,0.215971,-2.32872,0.430293,0.637851,0.0967375,0.119129,-0.472542,0.121236,-0.0533323,0.00229384,0.22222,0.0511967,4.34159,9.56632,4.25149,-8.98934,-1.57002,27.303,-2.47463,10.5785,-4.79962,10.3966,-34.6615,-3.90828,10.8813,0.0859797,0.329878,0.0279012,0.213322,-2.32571,0.430698,0.629743,0.0962542,0.350038,-0.371098,0.116192,-0.587386,-0.0802094,0.867211,0.022546,0,0,0,0,0,0,0,2.08637,-26.5083,3.0121,18.5324,-0.768436,6.85906,-0.137222,
0.333497,0.017949,0.216948,-2.32899,0.430342,0.639544,0.0971344,0.119226,-0.474788,0.121423,-0.0492964,0.00306462,0.220087,0.050882,0.0606629,-1.40342,0.11681,2.52244,0.481738,-1.33293,-0.196693,10.6727,-4.81987,10.4883,-34.1738,-4.19081,10.8813,0.107188,0.329878,0.0279012,0.213322,-2.32571,0.430698,0.629743,0.0962542,0.350038,-0.371098,0.116192,-0.587386,-0.0802094,0.867211,0.022546,0,0,0,0,0,0,0,2.08637,-26.5083,3.0121,18.5324,-0.768436,6.85906,-0.137222,
0.33432,0.0136249,0.217794,-2.32892,0.430368,0.640084,0.0976558,0.11597,-0.487933,0.118284,-0.0378498,0.00309975,0.189574,0.0537393,-2.03538,-8.21566,-1.96237,7.15412,0.0219563,-19.071,1.78582,10.557,-4.8294,10.3976,-33.695,-3.90745,10.8813,0.114429,0.329878,0.0279012,0.213322,-2.32571,0.430698,0.629743,0.0962542,0.350038,-0.371098,0.116192,-0.587386,-0.0802094,0.867211,0.022546,0,0,0,0,0,0,0,2.08637,-26.5083,3.0121,18.5324,-0.768436,6.85906,-0.137222,
0.335076,0.00900606,0.21857,-2.32869,0.43028,0.639783,0.0983026,0.111662,-0.505817,0.114014,-0.0245138,0.000267261,0.144127,0.0591617,-2.69213,-11.1777,-2.66849,8.33504,-1.77031,-28.4044,3.38901,10.397,-4.82289,10.2322,-33.2129,-4.25019,10.8813,0.111167,0.329878,0.0279012,0.213322,-2.32571,0.430698,0.629743,0.0962542,0.350038,-0.371098,0.116192,-0.587386,-0.0802094,0.867211,0.022546,0,0,0,0,0,0,0,2.08637,-26.5083,3.0121,18.5324,-0.768436,6.85906,-0.137222,
0.33254,0.0218192,0.215971,-2.32872,0.430293,0.637851,0.0967375,0.118713,-0.486917,0.1209,-0.0417839,-0.00133705,0.194693,0.0544012,4.40664,11.8124,4.304,-10.7938,-1.0027,31.604,-2.97533,10.6727,-4.81987,10.4883,-34.1738,-4.19081,10.8813,0.107188,0.329878,0.0279012,0.213322,-2.32571,0.430698,0.629743,0.0962542,0.350038,-0.371098,0.116192,-0.587386,-0.0802094,0.867211,0.022546,0,0,0,0,0,0,0,2.08637,-26.5083,3.0121,18.5324,-0.768436,6.85906,-0.137222,
0.333512,0.0179974,0.216965,-2.32892,0.430297,0.639534,0.0971358,0.119026,-0.485784,0.121295,-0.0393295,-0.000382387,0.197869,0.0534391,0.195986,0.708415,0.246742,1.53396,0.596667,1.98489,-0.601276,10.557,-4.8294,10.3976,-33.695,-3.90745,10.8813,0.114429,0.329878,0.0279012,0.213322,-2.32571,0.430698,0.629743,0.0962542,0.350038,-0.371098,0.116192,-0.587386,-0.0802094,0.867211,0.022546,0,0,0,0,0,0,0,2.08637,-26.5083,3.0121,18.5324,-0.768436,6.85906,-0.137222,
0.334348,0.0136957,0.217824,-2.32882,0.430276,0.640063,0.0976556,0.116131,-0.496168,0.11851,-0.0289333,-0.000818716,0.171513,0.0557457,-1.80938,-6.49023,-1.74098,6.49761,-0.272706,-16.4728,1.44158,10.397,-4.82289,10.2322,-33.2129,-4.25019,10.8813,0.111167,0.329878,0.0279012,0.213322,-2.32571,0.430698,0.629743,0.0962542,0.350038,-0.371098,0.116192,-0.587386,-0.0802094,0.867211,0.022546,0,0,0,0,0,0,0,2.08637,-26.5083,3.0121,18.5324,-0.768436,6.85906,-0.137222,
0.335117,0.00909609,0.218614,-2.32855,0.430133,0.639747,0.098301,0.112142,-0.511926,0.114558,-0.0164619,-0.00424439,0.129309,0.0607307,-2.49342,-9.84841,-2.46979,7.79464,-2.14104,-26.3772,3.11563,10.3045,-4.79209,10.1327,-32.7076,-4.69296,10.8813,0.104593,0.329878,0.0279012,0.213322,-2.32571,0.430698,0.629743,0.0962542,0.350038,-0.371098,0.116192,-0.587386,-0.0802094,0.867211,0.022546,0,0,0,0,0,0,0,2.08637,-26.5083,3.0121,18.5324,-0.768436,6.85906,-0.137222,
0.332549,0.0218474,0.215982,-2.32868,0.430269,0.637849,0.0967391,0.119066,-0.491469,0.121324,-0.034925,-0.00497571,0.182735,0.0556909,4.32751,12.7855,4.22861,-11.5394,-0.457078,33.3912,-3.14984,10.557,-4.8294,10.3976,-33.695,-3.90745,10.8813,0.114429,0.329878,0.0279012,0.213322,-2.32571,0.430698,0.629743,0.0962542,0.350038,-0.371098,0.116192,-0.587386,-0.0802094,0.867211,0.022546,0,0,0,0,0,0,0,2.08637,-26.5083,3.0121,18.5324,-0.768436,6.85906,-0.137222,
0.333515,0.018053,0.21697,-2.32885,0.430273,0.639516,0.0971315,0.119567,-0.488824,0.121904,-0.0329359,-0.00415729,0.188069,0.0543955,0.313058,1.653,0.362394,1.24321,0.511513,3.33351,-0.809654,10.397,-4.82289,10.2322,-33.2129,-4.25019,10.8813,0.111167,0.329878,0.0279012,0.213322,-2.32571,0.430698,0.629743,0.0962542,0.350038,-0.371098,0.116192,-0.587386,-0.0802094,0.867211,0.022546,0,0,0,0,0,0,0,2.08637,-26.5083,3.0121,18.5324,-0.768436,6.85906,-0.137222,
0.334364,0.013772,0.217843,-2.32871,0.430207,0.640032,0.0976484,0.116876,-0.498084,0.119324,-0.0229125,-0.00498543,0.163348,0.0564387,-1.68155,-5.78757,-1.6124,6.26462,-0.517586,-15.4505,1.27699,10.3045,-4.79209,10.1327,-32.7076,-4.69296,10.8813,0.104593,0.329878,0.0279012,0.213322,-2.32571,0.430698,0.629743,0.0962542,0.350038,-0.371098,0.116192,-0.587386,-0.0802094,0.867211,0.022546,0,0,0,0,0,0,0,2.08637,-26.5083,3.0121,18.5324,-0.768436,6.85906,-0.137222,
0.335145,0.00918798,0.218644,-2.32841,0.430018,0.6397,0.0982918,0.11301,-0.513067,0.115496,-0.0108581,-0.0087111,0.122391,0.061235,-2.41621,-9.36454,-2.392,7.53402,-2.32855,-25.5978,2.99769,10.3044,-4.76911,10.1356,-32.1894,-4.92114,10.8813,0.100197,0.329878,0.0279012,0.213322,-2.32571,0.430698,0.629743,0.0962542,0.350038,-0.371098,0.116192,-0.587386,-0.0802094,0.867211,0.022546,0,0,0,0,0,0,0,2.08637,-26.5083,3.0121,18.5324,-0.768436,6.85906,-0.137222,
0.335893,0.00443959,0.219409,-2.32806,0.429678,0.63879,0.0990599,0.109122,-0.529164,0.111531,0.000107052,-0.0154656,0.0751563,0.0681911,-2.43053,-10.0602,-2.47811,6.85319,-4.22158,-29.5218,4.34759,10.374,-4.7803,10.2126,-31.679,-4.97194,10.8813,0.0963035,0.329878,0.0279012,0.213322,-2.32571,0.430698,0.629743,0.0962542,0.350038,-0.371098,0.116192,-0.587386,-0.0802094,0.867211,0.022546,0,0,0,0,0,0,0,2.08637,-26.5083,3.0121,18.5324,-0.768436,6.85906,-0.137222,
0.332563,0.0219177,0.215998,-2.32859,0.430216,0.637834,0.0967325,0.117027,-0.504181,0.119303,-0.0201597,-0.0152269,0.139132,0.0615356,4.94078,15.614,4.85743,-12.6667,0.14923,39.985,-4.15969,10.397,-4.82289,10.2322,-33.2129,-4.25019,10.8813,0.111167,0.329878,0.0279012,0.213322,-2.32571,0.430698,0.629743,0.0962542,0.350038,-0.371098,0.116192,-0.587386,-0.0802094,0.867211,0.022546,0,0,0,0,0,0,0,2.08637,-26.5083,3.0121,18.5324,-0.768436,6.85906,-0.137222,
0.333551,0.0181115,0.217007,-2.32875,0.430156,0.639499,0.0971231,0.118308,-0.498499,0.120673,-0.0202331,-0.0136892,0.152943,0.0589929,0.800659,3.5516,0.856123,-0.0459062,0.961012,8.63175,-1.5892,10.3045,-4.79209,10.1327,-32.7076,-4.69296,10.8813,0.104593,0.329878,0.0279012,0.213322,-2.32571,0.430698,0.629743,0.0962542,0.350038,-0.371098,0.116192,-0.587386,-0.0802094,0.867211,0.022546,0,0,0,0,0,0,0,2.08637,-26.5083,3.0121,18.5324,-0.768436,6.85906,-0.137222,
0.334412,0.0138458,0.217892,-2.32859,0.430039,0.640002,0.0976378,0.116182,-0.505443,0.118665,-0.0119704,-0.0138838,0.134926,0.0600615,-1.32847,-4.34011,-1.25517,5.1642,-0.121611,-11.2605,0.667893,10.3044,-4.76911,10.1356,-32.1894,-4.92114,10.8813,0.100197,0.329878,0.0279012,0.213322,-2.32571,0.430698,0.629743,0.0962542,0.350038,-0.371098,0.116192,-0.587386,-0.0802094,0.867211,0.022546,0,0,0,0,0,0,0,2.08637,-26.5083,3.0121,18.5324,-0.768436,6.85906,-0.137222,
0.335202,0.00927319,0.218704,-2.32826,0.429806,0.639656,0.0982802,0.112695,-0.518669,0.11522,-0.00145,-0.0169229,0.0992982,0.0641104,-2.17967,-8.26624,-2.15324,6.57526,-1.89943,-22.2676,2.53052,10.374,-4.7803,10.2126,-31.679,-4.97194,10.8813,0.0963035,0.329878,0.0279012,0.213322,-2.32571,0.430698,0.629743,0.0962542,0.350038,-0.371098,0.116192,-0.587386,-0.0802094,0.867211,0.022546,0,0,0,0,0,0,0,2.08637,-26.5083,3.0121,18.5324,-0.768436,6.85906,-0.137222,
0.332586,0.0219563,0.216022,-2.32853,0.430148,0.637828,0.0967276,0.120206,-0.49528,0.12259,-0.0206059,-0.0173969,0.158321,0.0582059,4.69453,14.6179,4.60658,-11.9724,-0.296215,36.8891,-3.6903,10.3045,-4.79209,10.1327,-32.7076,-4.69296,10.8813,0.104593,0.329878,0.0279012,0.213322,-2.32571,0.430698,0.629743,0.0962542,0.350038,-0.371098,0.116192,-0.587386,-0.0802094,0.867211,0.022546,0,0,0,0,0,0,0,2.08637,-26.5083,3.0121,18.5324,-0.768436,6.85906,-0.137222,
