xiao-wang007/linearmpc_panda/paper_data/panda_torque_PD_controller_error_match_to_start_no_torque_ff/4/trajectory.csv
Commanded Joint 0 Position,Commanded Joint 1 Position,Commanded Joint 2 Position,Commanded Joint 3 Position,Commanded Joint 4 Position,Commanded Joint 5 Position,Commanded Joint 6 Position,Commanded Joint 0 Velocity,Commanded Joint 1 Velocity,Commanded Joint 2 Velocity,Commanded Joint 3 Velocity,Commanded Joint 4 Velocity,Commanded Joint 5 Velocity,Commanded Joint 6 Velocity,Commanded Joint 0 Acceleration,Commanded Joint 1 Acceleration,Commanded Joint 2 Acceleration,Commanded Joint 3 Acceleration,Commanded Joint 4 Acceleration,Commanded Joint 5 Acceleration,Commanded Joint 6 Acceleration,Commanded Joint 0 Torque,Commanded Joint 1 Torque,Commanded Joint 2 Torque,Commanded Joint 3 Torque,Commanded Joint 4 Torque,Commanded Joint 5 Torque,Commanded Joint 6 Torque,Actual Joint 0 Position,Actual Joint 1 Position,Actual Joint 2 Position,Actual Joint 3 Position,Actual Joint 4 Position,Actual Joint 5 Position,Actual Joint 6 Position,Actual Joint 0 Velocity,Actual Joint 1 Velocity,Actual Joint 2 Velocity,Actual Joint 3 Velocity,Actual Joint 4 Velocity,Actual Joint 5 Velocity,Actual Joint 6 Velocity,Actual Joint 0 Acceleration,Actual Joint 1 Acceleration,Actual Joint 2 Acceleration,Actual Joint 3 Acceleration,Actual Joint 4 Acceleration,Actual Joint 5 Acceleration,Actual Joint 6 Acceleration,Actual Joint 0 Torque,Actual Joint 1 Torque,Actual Joint 2 Torque,Actual Joint 3 Torque,Actual Joint 4 Torque,Actual Joint 5 Torque,Actual Joint 6 Torque,
-0.100894,0.114801,0.0823123,-1.71896,0.0218258,0.315908,-0.0123676,0.000986042,0.025959,0.000431213,-0.0313508,-0.00620713,0.0553442,-0.000386573,0.616276,16.2244,0.269508,-19.5942,-3.87946,34.5901,-0.241608,0,0,0,0,0,0,0,-0.100968,0.113616,0.0822685,-1.7163,0.0222928,0.31003,-0.0123233,0.0025965,0.00021861,0.000508342,0.000236762,-0.00441025,-0.000478097,-0.00123386,0,0,0,0,0,0,0,-0.0956386,-39.6123,0.512709,27.4747,0.886837,3.25188,-0.00996382,
-0.100947,0.11362,0.0822872,-1.7163,0.0222728,0.310035,-0.0123248,0.000919324,0.020805,0.000458169,-0.0250828,-0.00496027,0.0443378,-0.000314883,-0.0416988,-3.2213,0.0168478,3.9175,0.779291,-6.87898,0.0448063,0,0,0,0,0,0,0,-0.100968,0.113616,0.0822685,-1.7163,0.0222928,0.31003,-0.0123233,0.0025965,0.00021861,0.000508342,0.000236762,-0.00441025,-0.000478097,-0.00123386,0,0,0,0,0,0,0,-0.0956386,-39.6123,0.512709,27.4747,0.886837,3.25188,-0.00996382,
-0.100943,0.113622,0.0822907,-1.7163,0.0222753,0.310038,-0.012325,0.000835806,0.0166839,0.000453094,-0.0200647,-0.00390701,0.0355459,-0.000255628,-0.0521989,-2.5757,-0.00317167,3.13627,0.658282,-5.49495,0.0370341,0,0,0,0,0,0,0,-0.100966,0.113671,0.0822713,-1.71635,0.0223153,0.310033,-0.0123175,0.00467131,0.00206183,0.000491666,-0.00179436,-0.00264352,0.000526281,0.000759316,0.259351,0.230402,-0.00208449,-0.25389,0.220841,0.125547,0.249148,-0.0440639,-39.1124,0.512709,27.2763,0.685421,3.25188,-0.0630644,
-0.100939,0.113624,0.0822934,-1.7163,0.0222785,0.310041,-0.0123251,0.000747291,0.013388,0.00042951,-0.0160476,-0.00304478,0.0285222,-0.000207135,-0.0553217,-2.05988,-0.0147402,2.51068,0.538898,-4.38976,0.030308,0,0,0,0,0,0,0,-0.100966,0.113671,0.0822713,-1.71635,0.0223153,0.310033,-0.0123175,0.00467131,0.00206183,0.000491666,-0.00179436,-0.00264352,0.000526281,0.000759316,0,0,0,0,0,0,0,-0.0440639,-39.1124,0.512709,27.2763,0.685421,3.25188,-0.0630644,
-0.100926,0.114176,0.0823013,-1.71685,0.0221234,0.310321,-0.0123126,0.00159366,0.0233526,0.00109227,-0.0251822,-0.00723362,0.0300102,-4.27307e-05,0.528982,6.22788,0.414228,-5.70912,-2.61803,0.929966,0.102753,0,0,0,0,0,0,0,-0.100966,0.113671,0.0822713,-1.71635,0.0223153,0.310033,-0.0123175,0.00467131,0.00206183,0.000491666,-0.00179436,-0.00264352,0.000526281,0.000759316,0,0,0,0,0,0,0,-0.0440639,-39.1124,0.512709,27.2763,0.685421,3.25188,-0.0630644,
-0.100938,0.114631,0.0822631,-1.71704,0.0229472,0.30955,-0.0123324,0.000973227,0.030043,-8.16545e-05,-0.025086,0.0148064,0.00472397,-0.000529667,-0.387772,4.18145,-0.733705,0.0601439,13.775,-15.8039,-0.304335,0,0,0,0,0,0,0,-0.100966,0.113671,0.0822713,-1.71635,0.0223153,0.310033,-0.0123175,0.00467131,0.00206183,0.000491666,-0.00179436,-0.00264352,0.000526281,0.000759316,0,0,0,0,0,0,0,-0.0440639,-39.1124,0.512709,27.2763,0.685421,3.25188,-0.0630644,
-0.100981,0.114985,0.0822075,-1.71717,0.0243658,0.308259,-0.0123453,-0.000285915,0.0328779,-0.00145421,-0.0232744,0.0473104,-0.0284869,-0.000746315,-0.786964,1.77187,-0.857846,1.13224,20.315,-20.7568,-0.135405,0,0,0,0,0,0,0,-0.100966,0.113671,0.0822713,-1.71635,0.0223153,0.310033,-0.0123175,0.00467131,0.00206183,0.000491666,-0.00179436,-0.00264352,0.000526281,0.000759316,0,0,0,0,0,0,0,-0.0440639,-39.1124,0.512709,27.2763,0.685421,3.25188,-0.0630644,
-0.101031,0.115255,0.0821517,-1.71728,0.0261246,0.306674,-0.012353,-0.00148309,0.0330605,-0.00255925,-0.0212282,0.0818193,-0.0624064,-0.000788251,-0.748236,0.114124,-0.690653,1.27891,21.5681,-21.1997,-0.0262101,0,0,0,0,0,0,0,-0.100963,0.113936,0.0822805,-1.71668,0.0222928,0.31037,-0.0123175,0.000804582,0.0120969,-0.00150014,-0.0226281,-0.00960747,0.0174162,0.00067491,-0.483341,1.25438,-0.248976,-2.60422,-0.870493,2.11125,-0.0105507,-0.0202602,-38.0135,0.43733,26.6772,0.843807,3.19237,-0.0630644,
-0.100942,0.114533,0.082292,-1.71725,0.0220411,0.310656,-0.0123121,-0.000654662,0.0413801,-0.00175971,-0.0310753,0.0591634,-0.0427793,-0.000493732,0.51777,5.19972,0.499711,-6.15449,-14.1599,12.2669,0.184075,0,0,0,0,0,0,0,-0.100963,0.113936,0.0822805,-1.71668,0.0222928,0.31037,-0.0123175,0.000804582,0.0120969,-0.00150014,-0.0226281,-0.00960747,0.0174162,0.00067491,0,0,0,0,0,0,0,-0.0202602,-38.0135,0.43733,26.6772,0.843807,3.19237,-0.0630644,
-0.101026,0.115071,0.0821378,-1.71719,0.0251892,0.307204,-0.0123751,-0.00260782,0.0465541,-0.00526171,-0.0235461,0.126033,-0.120517,-0.00197103,-1.22072,3.23373,-2.18875,4.70577,41.7937,-48.5863,-0.923309,0,0,0,0,0,0,0,-0.100963,0.113936,0.0822805,-1.71668,0.0222928,0.31037,-0.0123175,0.000804582,0.0120969,-0.00150014,-0.0226281,-0.00960747,0.0174162,0.00067491,0,0,0,0,0,0,0,-0.0202602,-38.0135,0.43733,26.6772,0.843807,3.19237,-0.0630644,
-0.101153,0.115432,0.0819774,-1.71708,0.0302754,0.301736,-0.0124129,-0.00527662,0.0462826,-0.00822152,-0.0161023,0.227981,-0.233115,-0.00252173,-1.668,-0.169694,-1.84988,4.65236,63.7174,-70.3734,-0.344189,0,0,0,0,0,0,0,-0.100963,0.113936,0.0822805,-1.71668,0.0222928,0.31037,-0.0123175,0.000804582,0.0120969,-0.00150014,-0.0226281,-0.00960747,0.0174162,0.00067491,0,0,0,0,0,0,0,-0.0202602,-38.0135,0.43733,26.6772,0.843807,3.19237,-0.0630644,
-0.10126,0.115663,0.0818572,-1.71702,0.0364105,0.295063,-0.0124324,-0.00690258,0.0427869,-0.00958122,-0.0111652,0.335762,-0.353318,-0.00250485,-1.01622,-2.18478,-0.849809,3.0857,67.3632,-75.127,0.010548,0,0,0,0,0,0,0,-0.100958,0.114537,0.0822829,-1.71714,0.0223586,0.310479,-0.0123175,0.00123483,0.0279573,0.00142009,-0.0124252,0.00599305,-0.00117622,0.000672066,0.0537815,1.98256,0.365029,1.27537,1.95007,-2.32406,-0.000355467,-0.119442,-38.1404,0.314344,26.5027,1.05163,3.00652,-0.0630644,
-0.100926,0.115202,0.0823056,-1.71771,0.0221958,0.310717,-0.0123123,-0.00471734,0.0508409,-0.00709754,-0.023166,0.26454,-0.276724,-0.00187181,1.36577,5.03375,1.5523,-7.50046,-44.5142,47.8715,0.395651,0,0,0,0,0,0,0,-0.100958,0.114537,0.0822829,-1.71714,0.0223586,0.310479,-0.0123175,0.00123483,0.0279573,0.00142009,-0.0124252,0.00599305,-0.00117622,0.000672066,0,0,0,0,0,0,0,-0.119442,-38.1404,0.314344,26.5027,1.05163,3.00652,-0.0630644,
-0.100611,0.115658,0.082597,-1.71803,0.0245958,0.307042,-0.0122372,0.00409818,0.0520871,0.00160907,-0.026573,0.271632,-0.313252,0.000377828,5.5097,0.778898,5.44163,-2.12938,4.43237,-22.8304,1.40602,0,0,0,0,0,0,0,-0.100958,0.114537,0.0822829,-1.71714,0.0223586,0.310479,-0.0123175,0.00123483,0.0279573,0.00142009,-0.0124252,0.00599305,-0.00117622,0.000672066,0,0,0,0,0,0,0,-0.119442,-38.1404,0.314344,26.5027,1.05163,3.00652,-0.0630644,
-0.100029,0.115967,0.0831132,-1.71831,0.0287285,0.300893,-0.0121582,0.0178353,0.049397,0.0141915,-0.0281089,0.320622,-0.404313,0.00227787,8.58571,-1.68133,7.86405,-0.959982,30.6192,-56.913,1.18752,0,0,0,0,0,0,0,-0.100958,0.114537,0.0822829,-1.71714,0.0223586,0.310479,-0.0123175,0.00123483,0.0279573,0.00142009,-0.0124252,0.00599305,-0.00117622,0.000672066,0,0,0,0,0,0,0,-0.119442,-38.1404,0.314344,26.5027,1.05163,3.00652,-0.0630644,
-0.0992299,0.116181,0.0838268,-1.71859,0.0340521,0.293114,-0.0120946,0.0342481,0.0448542,0.0291937,-0.029451,0.389589,-0.517928,0.00341182,10.258,-2.83924,9.37632,-0.838765,43.1042,-71.0096,0.708722,0,0,0,0,0,0,0,-0.10099,0.115621,0.0821391,-1.71758,0.0251093,0.309504,-0.012322,-0.00113546,0.0391226,-0.0124455,0.000835851,0.214607,-0.118699,-0.000169269,-0.296287,1.39566,-1.7332,1.65763,26.0767,-14.6903,-0.105167,-0.119442,-38.6641,0.512709,26.6296,1.99829,1.99212,-0.0227812,
-0.100977,0.116322,0.0821591,-1.71817,0.0259126,0.309186,-0.0123047,0.0277293,0.0534076,0.0238571,-0.0382016,0.331755,-0.42229,0.00316355,-4.07428,5.34583,-3.33534,-5.46912,-36.1465,59.7737,-0.155169,0,0,0,0,0,0,0,-0.10099,0.115621,0.0821391,-1.71758,0.0251093,0.309504,-0.012322,-0.00113546,0.0391226,-0.0124455,0.000835851,0.214607,-0.118699,-0.000169269,0,0,0,0,0,0,0,-0.119442,-38.6641,0.512709,26.6296,1.99829,1.99212,-0.0227812,
-0.100429,0.116541,0.0827447,-1.7191,0.0284134,0.305606,-0.011993,0.035874,0.0482034,0.0337248,-0.0537517,0.327924,-0.427332,0.0103225,5.09044,-3.25259,6.16732,-9.71881,-2.39385,-3.15106,4.47436,0,0,0,0,0,0,0,-0.10099,0.115621,0.0821391,-1.71758,0.0251093,0.309504,-0.012322,-0.00113546,0.0391226,-0.0124455,0.000835851,0.214607,-0.118699,-0.000169269,0,0,0,0,0,0,0,-0.119442,-38.6641,0.512709,26.6296,1.99829,1.99212,-0.0227812,
-0.0994939,0.116591,0.0837053,-1.72009,0.0323486,0.29965,-0.0118097,0.052087,0.0398077,0.0509934,-0.0677987,0.360717,-0.49075,0.0128389,10.1332,-5.24731,10.7928,-8.77939,20.4956,-39.6359,1.57272,0,0,0,0,0,0,0,-0.10099,0.115621,0.0821391,-1.71758,0.0251093,0.309504,-0.012322,-0.00113546,0.0391226,-0.0124455,0.000835851,0.214607,-0.118699,-0.000169269,0,0,0,0,0,0,0,-0.119442,-38.6641,0.512709,26.6296,1.99829,1.99212,-0.0227812,
-0.101088,0.117697,0.081975,-1.71843,0.0343842,0.301734,-0.012297,0.0435567,0.0500331,0.0429195,-0.0708355,0.319987,-0.418742,0.0107923,-5.33144,6.39084,-5.04613,-1.89801,-25.4568,45.0048,-1.27912,0,0,0,0,0,0,0,-0.101164,0.116969,0.08189,-1.71777,0.0331277,0.30278,-0.0123179,0.0044405,0.0422088,-0.00287088,-0.0060568,0.302934,-0.254243,9.71567e-05,0.696995,0.385768,1.19682,-0.861581,11.0409,-16.9431,0.0333032,1.32465,-39.3861,1.83778,26.6058,1.95526,1.36223,-0.0301054,
-0.100293,0.11769,0.0827094,-1.71998,0.036933,0.298101,-0.0118501,0.0547281,0.0398618,0.0526956,-0.0953445,0.319708,-0.425839,0.0198053,6.98209,-6.35703,6.11002,-15.3182,-0.173997,-4.43541,5.63315,0,0,0,0,0,0,0,-0.101164,0.116969,0.08189,-1.71777,0.0331277,0.30278,-0.0123179,0.0044405,0.0422088,-0.00287088,-0.0060568,0.302934,-0.254243,9.71567e-05,0,0,0,0,0,0,0,1.32465,-39.3861,1.83778,26.6058,1.95526,1.36223,-0.0301054,
-0.0990428,0.117516,0.0838632,-1.72162,0.0407801,0.292173,-0.0116284,0.0750362,0.0275251,0.0710028,-0.117396,0.351945,-0.488852,0.0213884,12.6926,-7.71045,11.442,-13.7822,20.148,-39.3836,0.989445,0,0,0,0,0,0,0,-0.101164,0.116969,0.08189,-1.71777,0.0331277,0.30278,-0.0123179,0.0044405,0.0422088,-0.00287088,-0.0060568,0.302934,-0.254243,9.71567e-05,0,0,0,0,0,0,0,1.32465,-39.3861,1.83778,26.6058,1.95526,1.36223,-0.0301054,
-0.097504,0.11733,0.0852973,-1.72325,0.0457735,0.284619,-0.0115631,0.0984993,0.0173713,0.0926547,-0.134519,0.406391,-0.579934,0.0187434,14.6645,-6.34616,13.5324,-10.7019,34.0284,-56.9261,-1.65311,0,0,0,0,0,0,0,-0.101164,0.116969,0.08189,-1.71777,0.0331277,0.30278,-0.0123179,0.0044405,0.0422088,-0.00287088,-0.0060568,0.302934,-0.254243,9.71567e-05,0,0,0,0,0,0,0,1.32465,-39.3861,1.83778,26.6058,1.95526,1.36223,-0.0301054,
-0.101088,0.117697,0.081975,-1.71843,0.0343842,0.301734,-0.012297,0.0806866,0.0320839,0.0762486,-0.124212,0.356525,-0.490089,0.0155159,-11.133,9.1954,-10.2538,6.44206,-31.1659,56.1529,-2.0172,0,0,0,0,0,0,0,-0.101155,0.118139,0.0819969,-1.7187,0.0423389,0.292344,-0.0122861,0.0103087,0.0210008,0.0109932,-0.0480933,0.34364,-0.31571,0.00280127,0.733521,-2.65099,1.73301,-5.25457,5.08829,-7.68335,0.338014,3.09803,-38.7157,3.33742,26.4551,1.66229,1.81267,-0.0026396,
-0.100218,0.117587,0.0828613,-1.72033,0.0367452,0.298427,-0.011758,0.0863089,0.0229259,0.0831576,-0.14693,0.344245,-0.474767,0.0258882,3.51395,-5.72377,4.31815,-14.1991,-7.67523,9.57644,6.48264,0,0,0,0,0,0,0,-0.101155,0.118139,0.0819969,-1.7187,0.0423389,0.292344,-0.0122861,0.0103087,0.0210008,0.0109932,-0.0480933,0.34364,-0.31571,0.00280127,0,0,0,0,0,0,0,3.09803,-38.7157,3.33742,26.4551,1.66229,1.81267,-0.0026396,
-0.0988429,0.117356,0.0842125,-1.72237,0.0403939,0.292799,-0.0115169,0.103423,0.0125649,0.100304,-0.168355,0.366612,-0.520501,0.0267388,10.6966,-6.4756,10.7164,-13.3906,13.9798,-28.5837,0.531642,0,0,0,0,0,0,0,-0.101155,0.118139,0.0819969,-1.7187,0.0423389,0.292344,-0.0122861,0.0103087,0.0210008,0.0109932,-0.0480933,0.34364,-0.31571,0.00280127,0,0,0,0,0,0,0,3.09803,-38.7157,3.33742,26.4551,1.66229,1.81267,-0.0026396,
-0.0971552,0.117148,0.085843,-1.7244,0.045254,0.285508,-0.0114836,0.124931,0.00483855,0.121007,-0.185596,0.414794,-0.598684,0.0222224,13.442,-4.82897,12.9392,-10.7755,30.1133,-48.8644,-2.82273,0,0,0,0,0,0,0,-0.101155,0.118139,0.0819969,-1.7187,0.0423389,0.292344,-0.0122861,0.0103087,0.0210008,0.0109932,-0.0480933,0.34364,-0.31571,0.00280127,0,0,0,0,0,0,0,3.09803,-38.7157,3.33742,26.4551,1.66229,1.81267,-0.0026396,
-0.101006,0.118825,0.0821539,-1.71947,0.0438075,0.290798,-0.0122629,0.103671,0.0210251,0.10073,-0.167757,0.36855,-0.517592,0.0183592,-13.2875,10.1166,-12.6727,11.1498,-28.9022,50.6824,-2.4145,0,0,0,0,0,0,0,-0.100402,0.118946,0.0828262,-1.72154,0.0519621,0.281138,-0.0119347,0.0392227,0.0329028,0.0290726,-0.0656643,0.338126,-0.421859,0.00599533,3.61426,1.48774,2.25992,-2.19637,-0.68923,-13.2686,0.399258,4.16523,-38.4895,4.23799,25.6815,1.63757,2.19079,-0.0163725,
-0.0999575,0.118591,0.0831377,-1.72181,0.046205,0.287479,-0.0116533,0.109145,0.0109676,0.105178,-0.192585,0.354776,-0.497049,0.0299261,3.4212,-6.28593,2.78002,-15.5176,-8.60907,12.8398,7.2293,0,0,0,0,0,0,0,-0.100402,0.118946,0.0828262,-1.72154,0.0519621,0.281138,-0.0119347,0.0392227,0.0329028,0.0290726,-0.0656643,0.338126,-0.421859,0.00599533,0,0,0,0,0,0,0,4.16523,-38.4895,4.23799,25.6815,1.63757,2.19079,-0.0163725,
-0.0984047,0.118265,0.0846145,-1.72432,0.0498477,0.281943,-0.0114157,0.126136,0.000624316,0.121064,-0.216833,0.374888,-0.536047,0.0298812,10.6197,-6.46455,9.92863,-15.1551,12.5703,-24.3743,-0.0280409,0,0,0,0,0,0,0,-0.100402,0.118946,0.0828262,-1.72154,0.0519621,0.281138,-0.0119347,0.0392227,0.0329028,0.0290726,-0.0656643,0.338126,-0.421859,0.00599533,0,0,0,0,0,0,0,4.16523,-38.4895,4.23799,25.6815,1.63757,2.19079,-0.0163725,
-0.0974376,0.117747,0.0857339,-1.7268,0.0591983,0.271173,-0.0110308,0.144696,-0.0141687,0.139235,-0.24274,0.402839,-0.575594,0.029616,11.5998,-9.24563,11.3567,-16.1919,17.4696,-24.7167,-0.165787,0,0,0,0,0,0,0,-0.100402,0.118946,0.0828262,-1.72154,0.0519621,0.281138,-0.0119347,0.0392227,0.0329028,0.0290726,-0.0656643,0.338126,-0.421859,0.00599533,0,0,0,0,0,0,0,4.16523,-38.4895,4.23799,25.6815,1.63757,2.19079,-0.0163725,
-0.0954059,0.117278,0.0876825,-1.72967,0.0644336,0.263911,-0.0111084,0.166548,-0.0230587,0.160102,-0.26575,0.453154,-0.642023,0.0217512,13.6575,-5.55624,13.0424,-14.381,31.4466,-41.5183,-4.91547,0,0,0,0,0,0,0,-0.0989162,0.119332,0.0846059,-1.72634,0.0614247,0.268369,-0.0116881,0.0572606,-0.0103752,0.0580585,-0.132071,0.309136,-0.426925,0.00505042,2.25474,-5.40974,3.62324,-8.30089,-3.62376,-0.63333,-0.118113,3.25275,-39.037,3.4366,26.2805,1.66229,2.71447,0.00376909,
-0.093229,0.116909,0.0897624,-1.7326,0.0706361,0.255639,-0.0113488,0.187661,-0.0276588,0.180079,-0.285839,0.517584,-0.720412,0.0113914,13.1956,-2.87508,12.4853,-12.5561,40.2685,-48.9927,-6.47486,0,0,0,0,0,0,0,-0.0989162,0.119332,0.0846059,-1.72634,0.0614247,0.268369,-0.0116881,0.0572606,-0.0103752,0.0580585,-0.132071,0.309136,-0.426925,0.00505042,0,0,0,0,0,0,0,3.25275,-39.037,3.4366,26.2805,1.66229,2.71447,0.00376909,
-0.09098,0.116588,0.0919083,-1.73561,0.0775882,0.246658,-0.0115342,0.206353,-0.0301585,0.197713,-0.304128,0.58787,-0.800869,0.00447876,11.6825,-1.56228,11.021,-11.4302,43.9291,-50.2862,-4.32043,0,0,0,0,0,0,0,-0.0989162,0.119332,0.0846059,-1.72634,0.0614247,0.268369,-0.0116881,0.0572606,-0.0103752,0.0580585,-0.132071,0.309136,-0.426925,0.00505042,0,0,0,0,0,0,0,3.25275,-39.037,3.4366,26.2805,1.66229,2.71447,0.00376909,
-0.0962742,0.118274,0.087188,-1.73131,0.0695147,0.257571,-0.0115495,0.203183,-0.0371844,0.19505,-0.309305,0.585162,-0.795394,0.00181131,-1.98131,-4.3912,-1.66387,-3.23575,-1.6926,3.42191,-1.66716,0,0,0,0,0,0,0,-0.0989162,0.119332,0.0846059,-1.72634,0.0614247,0.268369,-0.0116881,0.0572606,-0.0103752,0.0580585,-0.132071,0.309136,-0.426925,0.00505042,0,0,0,0,0,0,0,3.25275,-39.037,3.4366,26.2805,1.66229,2.71447,0.00376909,
-0.094505,0.117829,0.0888861,-1.73409,0.0751021,0.250125,-0.0117835,0.206776,-0.0408769,0.198492,-0.316874,0.607815,-0.82248,-0.00440303,2.24594,-2.30783,2.15099,-4.73077,14.1582,-16.9288,-3.88396,0,0,0,0,0,0,0,-0.0989162,0.119332,0.0846059,-1.72634,0.0614247,0.268369,-0.0116881,0.0572606,-0.0103752,0.0580585,-0.132071,0.309136,-0.426925,0.00505042,0,0,0,0,0,0,0,3.25275,-39.037,3.4366,26.2805,1.66229,2.71447,0.00376909,
-0.0925851,0.117429,0.0907229,-1.73699,0.0814963,0.241767,-0.0119641,0.213418,-0.0427039,0.204715,-0.326015,0.646106,-0.866933,-0.00803768,4.15081,-1.14185,3.88916,-5.71337,23.932,-27.7831,-2.27165,0,0,0,0,0,0,0,-0.0964674,0.119092,0.0874404,-1.73325,0.0715972,0.25487,-0.0114419,0.0836644,-0.0136743,0.103201,-0.216178,0.374475,-0.458692,0.00201897,3.30048,-0.412386,5.64286,-10.5133,8.16738,-3.97078,-0.378931,5.15308,-37.466,5.23775,22.6663,2.21801,1.13701,0.0376436,
-0.0906077,0.117045,0.0926131,-1.74,0.0885769,0.232748,-0.0122258,0.220171,-0.0437523,0.211025,-0.336274,0.6939,-0.919008,-0.0129725,4.22101,-0.655252,3.94421,-6.4116,29.8713,-32.5468,-3.08429,0,0,0,0,0,0,0,-0.0964674,0.119092,0.0874404,-1.73325,0.0715972,0.25487,-0.0114419,0.0836644,-0.0136743,0.103201,-0.216178,0.374475,-0.458692,0.00201897,0,0,0,0,0,0,0,5.15308,-37.466,5.23775,22.6663,2.21801,1.13701,0.0376436,
-0.0924333,0.117899,0.0913231,-1.74117,0.0875238,0.234956,-0.012107,0.214518,-0.0457699,0.20562,-0.340165,0.710614,-0.931575,-0.0168236,-3.53328,-1.26099,-3.37847,-2.432,10.4459,-7.85445,-2.4069,0,0,0,0,0,0,0,-0.0964674,0.119092,0.0874404,-1.73325,0.0715972,0.25487,-0.0114419,0.0836644,-0.0136743,0.103201,-0.216178,0.374475,-0.458692,0.00201897,0,0,0,0,0,0,0,5.15308,-37.466,5.23775,22.6663,2.21801,1.13701,0.0376436,
-0.0908074,0.117509,0.0928797,-1.74407,0.0944018,0.226248,-0.0124256,0.212262,-0.046363,0.20341,-0.344637,0.740441,-0.96296,-0.0214245,-1.41014,-0.3707,-1.38091,-2.79483,18.6418,-19.6155,-2.87558,0,0,0,0,0,0,0,-0.0964674,0.119092,0.0874404,-1.73325,0.0715972,0.25487,-0.0114419,0.0836644,-0.0136743,0.103201,-0.216178,0.374475,-0.458692,0.00201897,0,0,0,0,0,0,0,5.15308,-37.466,5.23775,22.6663,2.21801,1.13701,0.0376436,
-0.0891236,0.117162,0.09449,-1.747,0.101759,0.216929,-0.0127455,0.211903,-0.0457738,0.202987,-0.349,0.776273,-1.00334,-0.0251354,-0.224295,0.368231,-0.264662,-2.72696,22.3956,-25.2351,-2.31929,0,0,0,0,0,0,0,-0.0926814,0.118235,0.0912112,-1.74221,0.0879181,0.235096,-0.0114509,0.12522,-0.0263266,0.132146,-0.272283,0.484494,-0.623987,0.000678977,5.19441,-1.58154,3.61808,-7.01311,13.7523,-20.662,-0.167499,5.30384,-38.4142,5.31312,23.6899,1.92505,0.984122,-0.00996382,
-0.0908074,0.117509,0.0928797,-1.74407,0.0944018,0.226248,-0.0124256,0.21017,-0.0463661,0.201304,-0.351705,0.792968,-1.02037,-0.028074,-1.08325,-0.370206,-1.0518,-1.69047,10.4343,-10.6454,-1.8366,0,0,0,0,0,0,0,-0.0926814,0.118235,0.0912112,-1.74221,0.0879181,0.235096,-0.0114509,0.12522,-0.0263266,0.132146,-0.272283,0.484494,-0.623987,0.000678977,0,0,0,0,0,0,0,5.30384,-38.4142,5.31312,23.6899,1.92505,0.984122,-0.00996382,
-0.0858217,0.116358,0.0977599,-1.75589,0.121126,0.193485,-0.0129132,0.206002,-0.0456052,0.19724,-0.352144,0.824309,-1.05773,-0.0286157,-2.60493,0.475585,-2.54027,-0.274394,19.5878,-23.3522,-0.338597,0,0,0,0,0,0,0,-0.0926814,0.118235,0.0912112,-1.74221,0.0879181,0.235096,-0.0114509,0.12522,-0.0263266,0.132146,-0.272283,0.484494,-0.623987,0.000678977,0,0,0,0,0,0,0,5.30384,-38.4142,5.31312,23.6899,1.92505,0.984122,-0.00996382,
-0.0842721,0.116045,0.0992414,-1.75875,0.128955,0.183682,-0.0131284,0.20354,-0.0443296,0.194829,-0.353161,0.855166,-1.09125,-0.0282706,-1.53843,0.79728,-1.50685,-0.635896,19.2858,-20.9468,0.215665,0,0,0,0,0,0,0,-0.0926814,0.118235,0.0912112,-1.74221,0.0879181,0.235096,-0.0114509,0.12522,-0.0263266,0.132146,-0.272283,0.484494,-0.623987,0.000678977,0,0,0,0,0,0,0,5.30384,-38.4142,5.31312,23.6899,1.92505,0.984122,-0.00996382,
-0.082701,0.115761,0.100743,-1.76163,0.136952,0.173959,-0.0133119,0.202109,-0.0425547,0.193409,-0.354382,0.884045,-1.11608,-0.0272056,-0.894446,1.10926,-0.887012,-0.762877,18.0495,-15.5192,0.665651,0,0,0,0,0,0,0,-0.0876237,0.117346,0.0962209,-1.7531,0.108818,0.210217,-0.01151,0.153383,-0.0470689,0.163496,-0.318404,0.658218,-0.774685,-0.000253211,3.52041,-2.59279,3.91879,-5.76512,21.7155,-18.8373,-0.116524,3.02265,-37.4422,3.36122,22.3688,2.58422,0.20867,-0.0630644,
-0.081964,0.115812,0.101608,-1.7639,0.137109,0.176168,-0.0124364,0.198521,-0.0428813,0.189903,-0.352743,0.899244,-1.12034,-0.0263826,-2.24242,-0.2041,-2.19156,1.02408,9.49892,-2.66438,0.514399,0,0,0,0,0,0,0,-0.0876237,0.117346,0.0962209,-1.7531,0.108818,0.210217,-0.01151,0.153383,-0.0470689,0.163496,-0.318404,0.658218,-0.774685,-0.000253211,0,0,0,0,0,0,0,3.02265,-37.4422,3.36122,22.3688,2.58422,0.20867,-0.0630644,
-0.0804669,0.115492,0.103039,-1.7667,0.144998,0.167248,-0.0125889,0.196243,-0.0422918,0.187676,-0.35235,0.916631,-1.11928,-0.0249179,-1.42411,0.36842,-1.39199,0.245913,10.8669,0.666207,0.915444,0,0,0,0,0,0,0,-0.0876237,0.117346,0.0962209,-1.7531,0.108818,0.210217,-0.01151,0.153383,-0.0470689,0.163496,-0.318404,0.658218,-0.774685,-0.000253211,0,0,0,0,0,0,0,3.02265,-37.4422,3.36122,22.3688,2.58422,0.20867,-0.0630644,
-0.0789549,0.115209,0.104483,-1.76955,0.153037,0.158907,-0.0127115,0.194795,-0.040923,0.18625,-0.353168,0.934271,-1.10394,-0.0229991,-0.904955,0.855548,-0.891066,-0.511201,11.0251,9.58529,1.1992,0,0,0,0,0,0,0,-0.0876237,0.117346,0.0962209,-1.7531,0.108818,0.210217,-0.01151,0.153383,-0.0470689,0.163496,-0.318404,0.658218,-0.774685,-0.000253211,0,0,0,0,0,0,0,3.02265,-37.4422,3.36122,22.3688,2.58422,0.20867,-0.0630644,
-0.0774354,0.11496,0.105934,-1.77246,0.161182,0.151555,-0.0128079,0.193823,-0.0389443,0.185278,-0.355163,0.951051,-1.06694,-0.020809,-0.607152,1.23667,-0.607412,-1.24716,10.4875,23.125,1.36882,0,0,0,0,0,0,0,-0.0821393,0.116565,0.101563,-1.76415,0.134692,0.181131,-0.011781,0.162609,0.00685679,0.150534,-0.305128,0.849191,-0.953166,-0.00478043,1.15331,6.74071,-1.62035,1.65956,23.8717,-22.3101,-0.565903,2.36408,-37.4422,2.83754,23.6661,2.3526,0.37438,-0.117081,
-0.0765986,0.115895,0.106843,-1.77535,0.165204,0.150085,-0.0123348,0.19082,-0.0358057,0.182337,-0.356453,0.9589,-1.02827,-0.0190519,-1.87729,1.96159,-1.83818,-0.806262,4.90602,24.1692,1.09818,0,0,0,0,0,0,0,-0.0821393,0.116565,0.101563,-1.76415,0.134692,0.181131,-0.011781,0.162609,0.00685679,0.150534,-0.305128,0.849191,-0.953166,-0.00478043,0,0,0,0,0,0,0,2.36408,-37.4422,2.83754,23.6661,2.3526,0.37438,-0.117081,
-0.0751518,0.11572,0.108223,-1.7783,0.173238,0.144346,-0.0124108,0.188825,-0.03302,0.180371,-0.358978,0.967965,-0.966083,-0.017142,-1.24646,1.74112,-1.22865,-1.57814,5.66528,38.866,1.19372,0,0,0,0,0,0,0,-0.0821393,0.116565,0.101563,-1.76415,0.134692,0.181131,-0.011781,0.162609,0.00685679,0.150534,-0.305128,0.849191,-0.953166,-0.00478043,0,0,0,0,0,0,0,2.36408,-37.4422,2.83754,23.6661,2.3526,0.37438,-0.117081,
-0.0736976,0.115561,0.10961,-1.78128,0.181347,0.139991,-0.0124687,0.187417,-0.0304145,0.17897,-0.361707,0.977099,-0.881741,-0.0151596,-0.880291,1.62841,-0.875619,-1.70576,5.70893,52.7137,1.23898,0,0,0,0,0,0,0,-0.0821393,0.116565,0.101563,-1.76415,0.134692,0.181131,-0.011781,0.162609,0.00685679,0.150534,-0.305128,0.849191,-0.953166,-0.00478043,0,0,0,0,0,0,0,2.36408,-37.4422,2.83754,23.6661,2.3526,0.37438,-0.117081,
-0.0722441,0.115415,0.110996,-1.78426,0.189505,0.137008,-0.0125125,0.18627,-0.0279777,0.177823,-0.3638,0.985613,-0.779969,-0.0132234,-0.71661,1.52298,-0.717006,-1.30804,5.32113,63.6074,1.21014,0,0,0,0,0,0,0,-0.0765679,0.116483,0.106859,-1.77563,0.164016,0.147178,-0.0118526,0.166736,0.0120009,0.163608,-0.342394,0.9148,-1.02595,-0.000704606,0.515776,0.64301,1.63428,-4.65836,8.20105,-9.09798,0.509479,1.4278,-41.3103,1.83778,28.0499,1.94976,1.88592,-0.0767973,
-0.0695931,0.116259,0.113499,-1.79077,0.203509,0.129914,-0.0120682,0.183982,-0.0237531,0.175548,-0.364855,0.990139,-0.642506,-0.0109408,-1.42994,2.64036,-1.42206,-0.659325,2.82876,85.9141,1.42666,0,0,0,0,0,0,0,-0.0765679,0.116483,0.106859,-1.77563,0.164016,0.147178,-0.0118526,0.166736,0.0120009,0.163608,-0.342394,0.9148,-1.02595,-0.000704606,0,0,0,0,0,0,0,1.4278,-41.3103,1.83778,28.0499,1.94976,1.88592,-0.0767973,
-0.0682057,0.116201,0.11482,-1.79365,0.211608,0.13022,-0.0120664,0.181872,-0.0204645,0.173459,-0.363794,0.99457,-0.506368,-0.00870567,-1.31889,2.05542,-1.30549,0.663566,2.76961,85.0863,1.39692,0,0,0,0,0,0,0,-0.0765679,0.116483,0.106859,-1.77563,0.164016,0.147178,-0.0118526,0.166736,0.0120009,0.163608,-0.342394,0.9148,-1.02595,-0.000704606,0,0,0,0,0,0,0,1.4278,-41.3103,1.83778,28.0499,1.94976,1.88592,-0.0767973,
-0.0668344,0.116139,0.116125,-1.79645,0.219728,0.131412,-0.0120489,0.179779,-0.0179152,0.1714,-0.360898,0.99865,-0.375287,-0.00652878,-1.30797,1.59332,-1.28664,1.81001,2.54968,81.9257,1.36056,0,0,0,0,0,0,0,-0.0765679,0.116483,0.106859,-1.77563,0.164016,0.147178,-0.0118526,0.166736,0.0120009,0.163608,-0.342394,0.9148,-1.02595,-0.000704606,0,0,0,0,0,0,0,1.4278,-41.3103,1.83778,28.0499,1.94976,1.88592,-0.0767973,
-0.0751929,0.116459,0.108167,-1.77866,0.171663,0.140749,-0.0119262,0.178199,-0.0149301,0.169843,-0.364374,0.990075,-0.460939,-0.00706397,-0.987794,1.86566,-0.973063,-2.1725,-5.35928,-53.5327,-0.334497,0,0,0,0,0,0,0,-0.0709054,0.115802,0.112761,-1.78848,0.19567,0.117858,-0.0118562,0.177518,-0.0368405,0.175164,-0.391736,0.959863,-0.734461,-0.00168007,1.34779,-6.10517,1.44458,-6.16766,5.63292,36.4361,-0.121932,0.539127,-36.2163,0.913405,25.2332,1.38122,2.72179,-0.0301054,
-0.0737993,0.116414,0.109494,-1.78174,0.179488,0.135928,-0.0119831,0.177399,-0.0130657,0.169042,-0.368484,0.987694,-0.489293,-0.00707397,-0.499947,1.16528,-0.50112,-2.56876,-1.48791,-17.721,-0.00624645,0,0,0,0,0,0,0,-0.0709054,0.115802,0.112761,-1.78848,0.19567,0.117858,-0.0118562,0.177518,-0.0368405,0.175164,-0.391736,0.959863,-0.734461,-0.00168007,0,0,0,0,0,0,0,0.539127,-36.2163,0.913405,25.2332,1.38122,2.72179,-0.0301054,
-0.0723961,0.116365,0.11083,-1.7848,0.187428,0.132608,-0.0120259,0.176999,-0.0116752,0.168632,-0.371393,0.988651,-0.474413,-0.00672966,-0.249915,0.869061,-0.255834,-1.81849,0.597898,9.29996,0.21519,0,0,0,0,0,0,0,-0.0709054,0.115802,0.112761,-1.78848,0.19567,0.117858,-0.0118562,0.177518,-0.0368405,0.175164,-0.391736,0.959863,-0.734461,-0.00168007,0,0,0,0,0,0,0,0.539127,-36.2163,0.913405,25.2332,1.38122,2.72179,-0.0301054,
-0.0709917,0.116314,0.112167,-1.78782,0.195444,0.130655,-0.0120538,0.176709,-0.0106256,0.168333,-0.37255,0.991313,-0.428353,-0.00607911,-0.181431,0.655996,-0.187012,-0.722878,1.66381,28.7872,0.406598,0,0,0,0,0,0,0,-0.0709054,0.115802,0.112761,-1.78848,0.19567,0.117858,-0.0118562,0.177518,-0.0368405,0.175164,-0.391736,0.959863,-0.734461,-0.00168007,0,0,0,0,0,0,0,0.539127,-36.2163,0.913405,25.2332,1.38122,2.72179,-0.0301054,
-0.0638543,0.115249,0.119481,-1.80315,0.235728,0.115924,-0.0117586,0.175426,-0.00976577,0.167108,-0.365852,0.995246,-0.294832,-0.00364738,-0.80169,0.537375,-0.765503,4.18605,2.45828,83.4512,1.51983,0,0,0,0,0,0,0,-0.0709054,0.115802,0.112761,-1.78848,0.19567,0.117858,-0.0118562,0.177518,-0.0368405,0.175164,-0.391736,0.959863,-0.734461,-0.00168007,0,0,0,0,0,0,0,0.539127,-36.2163,0.913405,25.2332,1.38122,2.72179,-0.0301054,
-0.0625238,0.115204,0.120754,-1.80575,0.243673,0.11847,-0.0116978,0.173603,-0.00893411,0.165507,-0.357777,0.99484,-0.172204,-0.00139629,-1.13968,0.519785,-1.00069,5.04685,-0.253866,76.6422,1.40693,0,0,0,0,0,0,0,-0.0647559,0.116428,0.118514,-1.80165,0.226916,0.100699,-0.0118461,0.205967,0.0598676,0.161951,-0.348222,0.776426,-0.45777,0.00104908,3.55613,12.0885,-1.65172,5.43917,-22.9296,34.5864,0.341143,-1.86902,-41.4333,-1.26067,29.1687,1.1615,2.34368,-0.0301054,
-0.0612248,0.11516,0.121998,-1.80825,0.251348,0.121454,-0.0116372,0.171356,-0.00823751,0.163506,-0.348661,0.987749,-0.0631652,0.000396592,-1.40417,0.435378,-1.25096,5.69788,-4.43167,68.1493,1.12055,0,0,0,0,0,0,0,-0.0647559,0.116428,0.118514,-1.80165,0.226916,0.100699,-0.0118461,0.205967,0.0598676,0.161951,-0.348222,0.776426,-0.45777,0.00104908,0,0,0,0,0,0,0,-1.86902,-41.4333,-1.26067,29.1687,1.1615,2.34368,-0.0301054,
-0.059936,0.115114,0.12323,-1.81063,0.258283,0.124722,-0.0115779,0.169307,-0.00775753,0.161598,-0.338439,0.963562,0.0311525,0.00180057,-1.28069,0.299984,-1.19254,6.3884,-15.1171,58.9485,0.877489,0,0,0,0,0,0,0,-0.0647559,0.116428,0.118514,-1.80165,0.226916,0.100699,-0.0118461,0.205967,0.0598676,0.161951,-0.348222,0.776426,-0.45777,0.00104908,0,0,0,0,0,0,0,-1.86902,-41.4333,-1.26067,29.1687,1.1615,2.34368,-0.0301054,
-0.0579597,0.117455,0.124956,-1.81562,0.260486,0.106298,-0.0115665,0.168076,-0.00272644,0.160276,-0.332601,0.914215,0.0908739,0.00282248,-0.769335,3.14443,-0.825939,3.64892,-30.8422,37.3259,0.638693,0,0,0,0,0,0,0,-0.0647559,0.116428,0.118514,-1.80165,0.226916,0.100699,-0.0118461,0.205967,0.0598676,0.161951,-0.348222,0.776426,-0.45777,0.00104908,0,0,0,0,0,0,0,-1.86902,-41.4333,-1.26067,29.1687,1.1615,2.34368,-0.0301054,
-0.0566707,0.117559,0.12618,-1.81796,0.2653,0.109242,-0.0115153,0.166686,0.000423919,0.15883,-0.324559,0.85172,0.146295,0.00353668,-0.869031,1.96897,-0.903653,5.02589,-39.0589,34.638,0.446374,0,0,0,0,0,0,0,-0.0589674,0.116611,0.124744,-1.81467,0.256614,0.0883387,-0.0118367,0.145262,-0.034083,0.214308,-0.412822,0.93417,-0.201848,-0.000269954,-7.58809,-11.7438,6.54468,-8.07496,19.718,31.9903,-0.164879,-0.932736,-38.0412,-0.288683,27.1017,2.10815,2.71447,-0.0301054,
-0.0553998,0.117632,0.127388,-1.82018,0.269179,0.112371,-0.0114653,0.16512,0.00215803,0.157246,-0.315291,0.778341,0.195243,0.00407957,-0.97837,1.08382,-0.990129,5.7929,-45.862,30.5925,0.339307,0,0,0,0,0,0,0,-0.0589674,0.116611,0.124744,-1.81467,0.256614,0.0883387,-0.0118367,0.145262,-0.034083,0.214308,-0.412822,0.93417,-0.201848,-0.000269954,0,0,0,0,0,0,0,-0.932736,-38.0412,-0.288683,27.1017,2.10815,2.71447,-0.0301054,
-0.0541492,0.117678,0.128576,-1.82231,0.272164,0.115594,-0.011416,0.163361,0.00287939,0.155499,-0.305516,0.697313,0.236774,0.00449659,-1.09942,0.450854,-1.09195,6.10894,-50.6425,25.9572,0.260639,0,0,0,0,0,0,0,-0.0589674,0.116611,0.124744,-1.81467,0.256614,0.0883387,-0.0118367,0.145262,-0.034083,0.214308,-0.412822,0.93417,-0.201848,-0.000269954,0,0,0,0,0,0,0,-0.932736,-38.0412,-0.288683,27.1017,2.10815,2.71447,-0.0301054,
-0.0505562,0.11684,0.132788,-1.82856,0.275908,0.0976128,-0.0115173,0.163297,0.00319496,0.155403,-0.29502,0.582444,0.254743,0.00493812,-0.0399487,0.197228,-0.059872,6.56005,-71.7932,11.2303,0.275954,0,0,0,0,0,0,0,-0.0589674,0.116611,0.124744,-1.81467,0.256614,0.0883387,-0.0118367,0.145262,-0.034083,0.214308,-0.412822,0.93417,-0.201848,-0.000269954,0,0,0,0,0,0,0,-0.932736,-38.0412,-0.288683,27.1017,2.10815,2.71447,-0.0301054,
-0.0492936,0.116862,0.133988,-1.83052,0.276282,0.100326,-0.0114617,0.162203,0.00310055,0.154319,-0.284939,0.475292,0.271627,0.00534093,-0.684079,-0.0590044,-0.677579,6.30091,-66.9698,10.553,0.251754,0,0,0,0,0,0,0,-0.0527592,0.117564,0.13036,-1.82718,0.28608,0.0881684,-0.011817,0.216033,0.0791584,0.116552,-0.31725,0.775314,0.0491464,0.0015418,8.84632,14.1552,-12.2195,11.9465,-19.8571,31.3743,0.226469,-1.3374,-38.914,-0.736986,27.8992,1.35101,2.38305,0.00376909,
-0.04807,0.116871,0.135151,-1.83242,0.276144,0.103076,-0.0114032,0.160351,0.00270528,0.152515,-0.275451,0.37678,0.286047,0.00573672,-1.15739,-0.247043,-1.12728,5.93007,-61.5699,9.0124,0.247372,0,0,0,0,0,0,0,-0.0527592,0.117564,0.13036,-1.82718,0.28608,0.0881684,-0.011817,0.216033,0.0791584,0.116552,-0.31725,0.775314,0.0491464,0.0015418,0,0,0,0,0,0,0,-1.3374,-38.914,-0.736986,27.8992,1.35101,2.38305,0.00376909,
-0.0468829,0.116869,0.136278,-1.83427,0.27559,0.105818,-0.0113426,0.157958,0.00210958,0.1502,-0.266647,0.287575,0.297398,0.00610399,-1.49575,-0.372311,-1.44719,5.50215,-55.7536,7.09398,0.229544,0,0,0,0,0,0,0,-0.0527592,0.117564,0.13036,-1.82718,0.28608,0.0881684,-0.011817,0.216033,0.0791584,0.116552,-0.31725,0.775314,0.0491464,0.0015418,0,0,0,0,0,0,0,-1.3374,-38.914,-0.736986,27.8992,1.35101,2.38305,0.00376909,
-0.0434846,0.119215,0.139245,-1.84112,0.289846,0.101137,-0.0113567,0.156026,0.00330552,0.148303,-0.257763,0.20011,0.293292,0.00653239,-1.20694,0.747462,-1.18524,5.55268,-54.6657,-2.56586,0.267747,0,0,0,0,0,0,0,-0.0527592,0.117564,0.13036,-1.82718,0.28608,0.0881684,-0.011817,0.216033,0.0791584,0.116552,-0.31725,0.775314,0.0491464,0.0015418,0,0,0,0,0,0,0,-1.3374,-38.914,-0.736986,27.8992,1.35101,2.38305,0.00376909,
-0.0423435,0.119255,0.140327,-1.84285,0.288468,0.103347,-0.01129,0.153349,0.00363419,0.145691,-0.249478,0.125646,0.289885,0.0068943,-1.67365,0.20542,-1.63249,5.17842,-46.5396,-2.12946,0.226194,0,0,0,0,0,0,0,-0.0465827,0.119141,0.136069,-1.83748,0.303945,0.0941636,-0.011798,0.157754,0.0537449,0.205452,-0.27214,0.365821,0.216424,0.00135109,-7.28485,-3.17669,11.1125,5.63874,-51.1866,20.9097,-0.0238387,-3.41626,-40.8104,-2.43498,26.828,0.770565,1.95275,-0.050247,
-0.0412438,0.119275,0.141369,-1.84454,0.286979,0.105535,-0.0112231,0.150171,0.00341551,0.142608,-0.241779,0.0633009,0.286613,0.00718773,-1.98591,-0.136674,-1.92744,4.81179,-38.9658,-2.04501,0.183398,0,0,0,0,0,0,0,-0.0465827,0.119141,0.136069,-1.83748,0.303945,0.0941636,-0.011798,0.157754,0.0537449,0.205452,-0.27214,0.365821,0.216424,0.00135109,0,0,0,0,0,0,0,-3.41626,-40.8104,-2.43498,26.828,0.770565,1.95275,-0.050247,
-0.0388244,0.120057,0.143486,-1.84813,0.302086,0.105657,-0.0113944,0.148753,0.00355624,0.141216,-0.23436,0.0196435,0.278602,0.00738967,-0.886351,0.0879536,-0.869429,4.63656,-27.2859,-5.00685,0.126212,0,0,0,0,0,0,0,-0.0465827,0.119141,0.136069,-1.83748,0.303945,0.0941636,-0.011798,0.157754,0.0537449,0.205452,-0.27214,0.365821,0.216424,0.00135109,0,0,0,0,0,0,0,-3.41626,-40.8104,-2.43498,26.828,0.770565,1.95275,-0.050247,
-0.0377307,0.12007,0.144522,-1.84973,0.300753,0.107614,-0.0113293,0.146345,0.00315771,0.138872,-0.227384,-0.0176053,0.271803,0.00753783,-1.50475,-0.24908,-1.4653,4.35994,-23.2805,-4.24914,0.0926007,0,0,0,0,0,0,0,-0.0465827,0.119141,0.136069,-1.83748,0.303945,0.0941636,-0.011798,0.157754,0.0537449,0.205452,-0.27214,0.365821,0.216424,0.00135109,0,0,0,0,0,0,0,-3.41626,-40.8104,-2.43498,26.828,0.770565,1.95275,-0.050247,
-0.0366827,0.120067,0.145514,-1.85128,0.299379,0.109548,-0.0112652,0.143275,0.00246819,0.135895,-0.220822,-0.0484311,0.265792,0.00763387,-1.91909,-0.43095,-1.86031,4.10123,-19.2661,-3.75731,0.0600219,0,0,0,0,0,0,0,-0.0411473,0.11952,0.142793,-1.84654,0.309195,0.102136,-0.0117855,0.0676106,-0.0245623,0.267145,-0.276668,0.0502273,0.231558,0.000507341,-11.2679,-9.78841,7.71167,-0.566057,-39.4492,1.89183,-0.105469,-1.18664,-37.0177,-0.788561,24.6619,0.562741,1.47484,-0.00996382,
-0.0356759,0.120054,0.146467,-1.8528,0.297999,0.111453,-0.0112021,0.139792,0.00164654,0.13253,-0.214632,-0.0732365,0.260269,0.00768537,-2.17687,-0.513531,-2.10319,3.86893,-15.5033,-3.45159,0.0321859,0,0,0,0,0,0,0,-0.0411473,0.11952,0.142793,-1.84654,0.309195,0.102136,-0.0117855,0.0676106,-0.0245623,0.267145,-0.276668,0.0502273,0.231558,0.000507341,0,0,0,0,0,0,0,-1.18664,-37.0177,-0.788561,24.6619,0.562741,1.47484,-0.00996382,
-0.034317,0.11934,0.14931,-1.85596,0.304016,0.112192,-0.0114052,0.136997,0.000353626,0.129846,-0.207992,-0.0873557,0.251588,0.00763838,-1.74676,-0.808073,-1.67767,4.15011,-8.82454,-5.42569,-0.0293692,0,0,0,0,0,0,0,-0.0411473,0.11952,0.142793,-1.84654,0.309195,0.102136,-0.0117855,0.0676106,-0.0245623,0.267145,-0.276668,0.0502273,0.231558,0.000507341,0,0,0,0,0,0,0,-1.18664,-37.0177,-0.788561,24.6619,0.562741,1.47484,-0.00996382,
-0.0333531,0.119298,0.150222,-1.85738,0.302866,0.113918,-0.0113473,0.133693,-0.000751559,0.126671,-0.201788,-0.0986406,0.244416,0.00755921,-2.06473,-0.69074,-1.98448,3.87774,-7.05308,-4.48252,-0.0494779,0,0,0,0,0,0,0,-0.0411473,0.11952,0.142793,-1.84654,0.309195,0.102136,-0.0117855,0.0676106,-0.0245623,0.267145,-0.276668,0.0502273,0.231558,0.000507341,0,0,0,0,0,0,0,-1.18664,-37.0177,-0.788561,24.6619,0.562741,1.47484,-0.00996382,
-0.0324278,0.119255,0.151096,-1.85876,0.301735,0.115627,-0.0112911,0.130089,-0.00168344,0.123208,-0.195949,-0.107195,0.238247,0.0074518,-2.25278,-0.582429,-2.1644,3.649,-5.34648,-3.85569,-0.0671311,0,0,0,0,0,0,0,-0.0351312,0.120912,0.148065,-1.8542,0.308707,0.110204,-0.01177,0.0113692,0.0929871,0.312622,-0.183485,-0.0382199,0.244318,0.000867609,-7.03017,14.6937,5.68456,11.6479,-11.0559,1.59495,0.0450335,-1.76983,-38.7633,-0.93535,27.8,1.08184,1.6607,-0.0301054,
-0.0315372,0.119211,0.151938,-1.8601,0.300634,0.117312,-0.0112369,0.126335,-0.00246021,0.119604,-0.190418,-0.113264,0.232744,0.00731769,-2.34622,-0.485478,-2.25254,3.45699,-3.79292,-3.43965,-0.0838219,0,0,0,0,0,0,0,-0.0351312,0.120912,0.148065,-1.8542,0.308707,0.110204,-0.01177,0.0113692,0.0929871,0.312622,-0.183485,-0.0382199,0.244318,0.000867609,0,0,0,0,0,0,0,-1.76983,-38.7633,-0.93535,27.8,1.08184,1.6607,-0.0301054,
-0.0290066,0.122168,0.153868,-1.86298,0.304058,0.120207,-0.0114571,0.123321,-0.0004516,0.116614,-0.185774,-0.113679,0.224557,0.00708958,-1.88395,1.25538,-1.86887,2.90268,-0.25947,-5.11679,-0.142565,0,0,0,0,0,0,0,-0.0351312,0.120912,0.148065,-1.8542,0.308707,0.110204,-0.01177,0.0113692,0.0929871,0.312622,-0.183485,-0.0382199,0.244318,0.000867609,0,0,0,0,0,0,0,-1.76983,-38.7633,-0.93535,27.8,1.08184,1.6607,-0.0301054,
-0.0281553,0.122204,0.154668,-1.86428,0.303145,0.121717,-0.0114098,0.119938,0.000539956,0.1133,-0.180922,-0.113751,0.217385,0.00685461,-2.11446,0.619722,-2.07127,3.03241,-0.0453189,-4.48222,-0.146855,0,0,0,0,0,0,0,-0.0351312,0.120912,0.148065,-1.8542,0.308707,0.110204,-0.01177,0.0113692,0.0929871,0.312622,-0.183485,-0.0382199,0.244318,0.000867609,0,0,0,0,0,0,0,-1.76983,-38.7633,-0.93535,27.8,1.08184,1.6607,-0.0301054,
-0.0273389,0.122222,0.155435,-1.86552,0.302253,0.123204,-0.0113646,0.116361,0.000881533,0.109823,-0.175967,-0.113315,0.211092,0.00661217,-2.23517,0.213485,-2.17271,3.09657,0.272971,-3.93346,-0.151525,0,0,0,0,0,0,0,-0.0299991,0.122012,0.153247,-1.86061,0.306379,0.11731,-0.0117663,0.00640631,0.0311648,0.285343,-0.177116,-0.0955517,0.202223,-0.000686955,-0.620357,-7.72778,-3.40984,0.796113,-7.16647,-5.2618,-0.19432,-0.908932,-40.5843,-0.185533,25.3839,1.28326,1.32287,0.0239107,
-0.0265539,0.122227,0.156173,-1.86673,0.301385,0.12467,-0.0113217,0.112713,0.00082142,0.106295,-0.170981,-0.112354,0.205511,0.00636242,-2.27999,-0.0375705,-2.205,3.11628,0.600104,-3.48812,-0.156098,0,0,0,0,0,0,0,-0.0299991,0.122012,0.153247,-1.86061,0.306379,0.11731,-0.0117663,0.00640631,0.0311648,0.285343,-0.177116,-0.0955517,0.202223,-0.000686955,0,0,0,0,0,0,0,-0.908932,-40.5843,-0.185533,25.3839,1.28326,1.32287,0.0239107,
-0.0245703,0.122384,0.158377,-1.86815,0.302157,0.125807,-0.0115212,0.109752,0.000759377,0.103415,-0.165428,-0.108026,0.198421,0.00602864,-1.85079,-0.0387769,-1.80043,3.4708,2.70497,-4.43115,-0.208613,0,0,0,0,0,0,0,-0.0299991,0.122012,0.153247,-1.86061,0.306379,0.11731,-0.0117663,0.00640631,0.0311648,0.285343,-0.177116,-0.0955517,0.202223,-0.000686955,0,0,0,0,0,0,0,-0.908932,-40.5843,-0.185533,25.3839,1.28326,1.32287,0.0239107,
-0.0238226,0.122378,0.159078,-1.86926,0.301435,0.127151,-0.0114858,0.106494,0.00046003,0.100267,-0.159993,-0.10447,0.192351,0.00570912,-2.03638,-0.187092,-1.96736,3.39707,2.22273,-3.79382,-0.199696,0,0,0,0,0,0,0,-0.0299991,0.122012,0.153247,-1.86061,0.306379,0.11731,-0.0117663,0.00640631,0.0311648,0.285343,-0.177116,-0.0955517,0.202223,-0.000686955,0,0,0,0,0,0,0,-0.908932,-40.5843,-0.185533,25.3839,1.28326,1.32287,0.0239107,
-0.0231069,0.122365,0.159749,-1.87033,0.300717,0.128479,-0.0114525,0.103088,3.7909e-05,0.0969891,-0.154689,-0.101511,0.187072,0.00540036,-2.12897,-0.263826,-2.04852,3.31505,1.8496,-3.29901,-0.192973,0,0,0,0,0,0,0,-0.0299991,0.122012,0.153247,-1.86061,0.306379,0.11731,-0.0117663,0.00640631,0.0311648,0.285343,-0.177116,-0.0955517,0.202223,-0.000686955,0,0,0,0,0,0,0,-0.908932,-40.5843,-0.185533,25.3839,1.28326,1.32287,0.0239107,
-0.0210364,0.121448,0.161676,-1.87362,0.298641,0.130402,-0.0115677,0.099116,-0.00114219,0.093198,-0.147733,-0.0980185,0.179592,0.00498316,-2.48223,-0.73756,-2.36947,4.3475,2.18266,-4.67505,-0.26075,0,0,0,0,0,0,0,-0.0255972,0.121958,0.157369,-1.86716,0.302895,0.123596,-0.011756,-0.00437388,-0.0517914,0.239533,-0.217908,-0.107168,0.178889,0.000516228,-1.34752,-10.3695,-5.72622,-5.09899,-1.45202,-2.91687,0.150398,-0.500302,-35.2959,0.536512,24.1382,1.87652,1.25603,-0.0301054,
-0.0204003,0.121405,0.162272,-1.87454,0.297964,0.131601,-0.0115431,0.0951966,-0.00199937,0.0894586,-0.1413,-0.0953442,0.173654,0.00460155,-2.44961,-0.535738,-2.33713,4.02041,1.67141,-3.71167,-0.238508,0,0,0,0,0,0,0,-0.0255972,0.121958,0.157369,-1.86716,0.302895,0.123596,-0.011756,-0.00437388,-0.0517914,0.239533,-0.217908,-0.107168,0.178889,0.000516228,0,0,0,0,0,0,0,-0.500302,-35.2959,0.536512,24.1382,1.87652,1.25603,-0.0301054,
-0.0197915,0.121364,0.162842,-1.87543,0.297278,0.132796,-0.0115203,0.0913778,-0.00262537,0.085816,-0.135301,-0.0934365,0.168797,0.00424907,-2.38678,-0.391249,-2.2766,3.74914,1.19237,-3.03508,-0.2203,0,0,0,0,0,0,0,-0.0255972,0.121958,0.157369,-1.86716,0.302895,0.123596,-0.011756,-0.00437388,-0.0517914,0.239533,-0.217908,-0.107168,0.178889,0.000516228,0,0,0,0,0,0,0,-0.500302,-35.2959,0.536512,24.1382,1.87652,1.25603,-0.0301054,
-0.0192081,0.121324,0.163388,-1.87629,0.296578,0.133983,-0.0114995,0.0876865,-0.00308345,0.0822955,-0.129662,-0.092233,0.164712,0.00392096,-2.30704,-0.286301,-2.2003,3.52486,0.752131,-2.5533,-0.20507,0,0,0,0,0,0,0,-0.0255972,0.121958,0.157369,-1.86716,0.302895,0.123596,-0.011756,-0.00437388,-0.0517914,0.239533,-0.217908,-0.107168,0.178889,0.000516228,0,0,0,0,0,0,0,-0.500302,-35.2959,0.536512,24.1382,1.87652,1.25603,-0.0301054,
-0.0183376,0.124322,0.164675,-1.87858,0.295031,0.135492,-0.0116349,0.0838232,-0.000390754,0.0785001,-0.125263,-0.0933271,0.15828,0.00356888,-2.41454,1.68293,-2.37212,2.74888,-0.683808,-4.02005,-0.22005,0,0,0,0,0,0,0,-0.022085,0.122997,0.161189,-1.87261,0.299501,0.12884,-0.0117556,0.0164317,0.0880264,0.179987,-0.1244,-0.107403,0.146522,0.000175146,2.60069,17.4772,-7.44335,11.6885,-0.0294495,-4.04581,-0.0426353,0.182071,-38.5649,0.889601,28.0222,2.08984,1.84655,-0.0301054,
-0.0178151,0.12438,0.165159,-1.8794,0.294235,0.136553,-0.0116193,0.0801222,0.00114139,0.0748942,-0.120563,-0.0945549,0.153162,0.003245,-2.31313,0.957588,-2.25369,2.93776,-0.767326,-3.19881,-0.202423,0,0,0,0,0,0,0,-0.022085,0.122997,0.161189,-1.87261,0.299501,0.12884,-0.0117556,0.0164317,0.0880264,0.179987,-0.1244,-0.107403,0.146522,0.000175146,0,0,0,0,0,0,0,0.182071,-38.5649,0.889601,28.0222,2.08984,1.84655,-0.0301054,
-0.0173154,0.12442,0.165621,-1.88017,0.293425,0.137617,-0.0116053,0.0765905,0.00189622,0.0714746,-0.115695,-0.0959017,0.149136,0.00294444,-2.20731,0.471769,-2.13726,3.0423,-0.841782,-2.51608,-0.18785,0,0,0,0,0,0,0,-0.022085,0.122997,0.161189,-1.87261,0.299501,0.12884,-0.0117556,0.0164317,0.0880264,0.179987,-0.1244,-0.107403,0.146522,0.000175146,0,0,0,0,0,0,0,0.182071,-38.5649,0.889601,28.0222,2.08984,1.84655,-0.0301054,
-0.0168373,0.124445,0.166063,-1.88089,0.2926,0.138684,-0.011593,0.0732243,0.00214224,0.0682304,-0.110753,-0.0973362,0.14598,0.00266315,-2.10387,0.153767,-2.02762,3.08864,-0.896525,-1.97287,-0.175809,0,0,0,0,0,0,0,-0.022085,0.122997,0.161189,-1.87261,0.299501,0.12884,-0.0117556,0.0164317,0.0880264,0.179987,-0.1244,-0.107403,0.146522,0.000175146,0,0,0,0,0,0,0,0.182071,-38.5649,0.889601,28.0222,2.08984,1.84655,-0.0301054,
-0.0214703,0.124188,0.161736,-1.8736,0.298865,0.129554,-0.0117791,0.0739476,0.0314754,0.0682711,-0.113307,-0.0937645,0.134632,0.00154286,0.452064,18.3332,0.0254218,-1.59608,2.23231,-7.09198,-0.70018,0,0,0,0,0,0,0,-0.0185879,0.124163,0.163733,-1.87711,0.296425,0.133259,-0.0117569,0.129741,0.0355275,0.038134,-0.126097,-0.0880118,0.13065,0.000516834,14.1637,-6.56236,-17.7316,-0.212132,2.42396,-1.98403,0.042711,-1.03589,-40.1875,-0.411669,25.6339,1.56433,1.32287,-0.0227812,
-0.0208888,0.124958,0.162269,-1.87481,0.298166,0.130507,-0.0117578,0.073697,0.0444303,0.0679255,-0.1209,-0.0924771,0.131521,0.00176625,-0.156616,8.09682,-0.216028,-4.74537,0.804592,-1.94487,0.139617,0,0,0,0,0,0,0,-0.0185879,0.124163,0.163733,-1.87711,0.296425,0.133259,-0.0117569,0.129741,0.0355275,0.038134,-0.126097,-0.0880118,0.13065,0.000516834,0,0,0,0,0,0,0,-1.03589,-40.1875,-0.411669,25.6339,1.56433,1.32287,-0.0227812,
-0.0203248,0.125509,0.162785,-1.87599,0.297378,0.131463,-0.0117338,0.0730552,0.0493199,0.0672513,-0.12611,-0.0936754,0.129136,0.00201294,-0.40114,3.05602,-0.421349,-3.25616,-0.748903,-1.49025,0.154182,0,0,0,0,0,0,0,-0.0185879,0.124163,0.163733,-1.87711,0.296425,0.133259,-0.0117569,0.129741,0.0355275,0.038134,-0.126097,-0.0880118,0.13065,0.000516834,0,0,0,0,0,0,0,-1.03589,-40.1875,-0.411669,25.6339,1.56433,1.32287,-0.0227812,
-0.0197778,0.125917,0.163286,-1.87708,0.296534,0.132405,-0.0117114,0.0721197,0.0496711,0.0663331,-0.128319,-0.0960604,0.126856,0.00217204,-0.584664,0.219515,-0.573863,-1.38075,-1.49064,-1.42542,0.0994372,0,0,0,0,0,0,0,-0.0185879,0.124163,0.163733,-1.87711,0.296425,0.133259,-0.0117569,0.129741,0.0355275,0.038134,-0.126097,-0.0880118,0.13065,0.000516834,0,0,0,0,0,0,0,-1.03589,-40.1875,-0.411669,25.6339,1.56433,1.32287,-0.0227812,
-0.016176,0.124679,0.165956,-1.88072,0.293411,0.137443,-0.0116874,0.0714218,0.0415467,0.0657671,-0.12328,-0.0961953,0.127583,0.00211541,-0.436203,-5.0778,-0.35376,3.14948,-0.0842998,0.45476,-0.0353936,0,0,0,0,0,0,0,-0.0155406,0.124592,0.165697,-1.88133,0.294388,0.137006,-0.0117634,0.110959,-0.0282308,0.0254324,-0.152004,-0.0359626,0.0853466,-0.000894335,-2.34773,-7.96979,-1.58771,-3.23846,6.50616,-5.6629,-0.176396,-1.61908,-34.669,-0.110155,24.0866,1.21002,1.26977,-0.0026396,
-0.0156554,0.124729,0.166437,-1.88149,0.292619,0.138493,-0.0116738,0.0701516,0.0344863,0.0646496,-0.118083,-0.0967575,0.128321,0.00203193,-0.79388,-4.41275,-0.698452,3.24774,-0.351372,0.461013,-0.0521763,0,0,0,0,0,0,0,-0.0155406,0.124592,0.165697,-1.88133,0.294388,0.137006,-0.0117634,0.110959,-0.0282308,0.0254324,-0.152004,-0.0359626,0.0853466,-0.000894335,0,0,0,0,0,0,0,-1.61908,-34.669,-0.110155,24.0866,1.21002,1.26977,-0.0026396,
-0.0151608,0.124762,0.166894,-1.88223,0.291809,0.13955,-0.0116617,0.068486,0.0284135,0.0631465,-0.112831,-0.097659,0.129075,0.00192653,-1.041,-3.79545,-0.939417,3.28247,-0.563439,0.471134,-0.0658746,0,0,0,0,0,0,0,-0.0155406,0.124592,0.165697,-1.88133,0.294388,0.137006,-0.0117634,0.110959,-0.0282308,0.0254324,-0.152004,-0.0359626,0.0853466,-0.000894335,0,0,0,0,0,0,0,-1.61908,-34.669,-0.110155,24.0866,1.21002,1.26977,-0.0026396,
-0.0129688,0.124466,0.168082,-1.88498,0.290541,0.14139,-0.0117018,0.0662856,0.0224467,0.0611529,-0.105873,-0.0999232,0.129395,0.00172413,-1.37529,-3.72929,-1.24603,4.3486,-1.41517,0.199944,-0.126496,0,0,0,0,0,0,0,-0.0155406,0.124592,0.165697,-1.88133,0.294388,0.137006,-0.0117634,0.110959,-0.0282308,0.0254324,-0.152004,-0.0359626,0.0853466,-0.000894335,0,0,0,0,0,0,0,-1.61908,-34.669,-0.110155,24.0866,1.21002,1.26977,-0.0026396,
-0.0125346,0.124454,0.168483,-1.88557,0.289658,0.142467,-0.0116962,0.0638841,0.0176471,0.0589412,-0.0993151,-0.102031,0.130428,0.00151979,-1.50089,-2.99972,-1.38226,4.099,-1.31716,0.645975,-0.127715,0,0,0,0,0,0,0,-0.0138187,0.126263,0.168548,-1.88459,0.292877,0.139916,-0.0117581,0.00772359,0.107539,0.12232,-0.0588378,-0.0577847,0.0841596,0.00110164,-12.9044,16.9712,12.1109,11.6458,-2.72777,-0.148375,0.249497,0.412174,-37.343,1.16334,27.1017,1.14959,1.75316,-0.050247,
-0.0121248,0.12444,0.16886,-1.88611,0.288781,0.143552,-0.0116923,0.0613521,0.0137737,0.0565857,-0.0931089,-0.103544,0.131487,0.00131318,-1.58252,-2.42092,-1.47221,3.87889,-0.94601,0.661489,-0.129128,0,0,0,0,0,0,0,-0.0138187,0.126263,0.168548,-1.88459,0.292877,0.139916,-0.0117581,0.00772359,0.107539,0.12232,-0.0588378,-0.0577847,0.0841596,0.00110164,0,0,0,0,0,0,0,0.412174,-37.343,1.16334,27.1017,1.14959,1.75316,-0.050247,
-0.0117383,0.124425,0.169215,-1.88662,0.287933,0.144626,-0.0116902,0.0587444,0.0106418,0.0541432,-0.087207,-0.104018,0.13204,0.00110363,-1.62978,-1.9574,-1.52655,3.68866,-0.295977,0.346151,-0.130969,0,0,0,0,0,0,0,-0.0138187,0.126263,0.168548,-1.88459,0.292877,0.139916,-0.0117581,0.00772359,0.107539,0.12232,-0.0588378,-0.0577847,0.0841596,0.00110164,0,0,0,0,0,0,0,0.412174,-37.343,1.16334,27.1017,1.14959,1.75316,-0.050247,
-0.0111834,0.126961,0.17032,-1.88479,0.346578,0.127952,-0.0120438,0.0479977,0.0048465,0.043288,-0.0667726,-0.053116,0.1207,0.000409791,-6.71674,-3.62209,-6.78448,12.7715,31.8137,-7.08778,-0.433652,0,0,0,0,0,0,0,-0.0138187,0.126263,0.168548,-1.88459,0.292877,0.139916,-0.0117581,0.00772359,0.107539,0.12232,-0.0588378,-0.0577847,0.0841596,0.00110164,0,0,0,0,0,0,0,0.412174,-37.343,1.16334,27.1017,1.14959,1.75316,-0.050247,
-0.011148,0.126812,0.170314,-1.88467,0.347777,0.128552,-0.0120627,0.0392824,0.000171998,0.0344934,-0.0503843,-0.0125085,0.111578,-0.000143914,-5.44704,-2.92156,-5.49665,10.2427,25.3797,-5.70122,-0.346065,0,0,0,0,0,0,0,-0.0114702,0.127938,0.170406,-1.8877,0.29072,0.143014,-0.0117648,0.113849,0.0476669,0.0047246,-0.0866784,-0.0763332,0.0822599,-0.000278701,13.2656,-7.48399,-14.6994,-3.48008,-2.31857,-0.237459,-0.172543,-0.881161,-39.9376,0.0366345,25.257,1.18621,1.29632,0.0101778,
-0.0111165,0.126663,0.170305,-1.88455,0.348974,0.129148,-0.0120815,0.0322132,-0.00359704,0.0273671,-0.037244,0.0199109,0.104165,-0.000585711,-4.41824,-2.35565,-4.45395,8.21267,20.2621,-4.63328,-0.276123,0,0,0,0,0,0,0,-0.0114702,0.127938,0.170406,-1.8877,0.29072,0.143014,-0.0117648,0.113849,0.0476669,0.0047246,-0.0866784,-0.0763332,0.0822599,-0.000278701,0,0,0,0,0,0,0,-0.881161,-39.9376,0.0366345,25.257,1.18621,1.29632,0.0101778,
-0.0110882,0.126513,0.170293,-1.88443,0.350169,0.129738,-0.0121003,0.026478,-0.00663467,0.0215917,-0.0267112,0.0458179,0.0980664,-0.000938146,-3.5845,-1.89852,-3.60962,6.58303,16.1919,-3.81143,-0.220272,0,0,0,0,0,0,0,-0.0114702,0.127938,0.170406,-1.8877,0.29072,0.143014,-0.0117648,0.113849,0.0476669,0.0047246,-0.0866784,-0.0763332,0.0822599,-0.000278701,0,0,0,0,0,0,0,-0.881161,-39.9376,0.0366345,25.257,1.18621,1.29632,0.0101778,
-0.00835029,0.121736,0.171005,-1.88258,0.373927,0.143217,-0.012906,0.0214365,-0.00903567,0.0166036,-0.0186588,0.0851006,0.0725986,-0.00122113,-3.15097,-1.50062,-3.11756,5.03272,24.5517,-15.9173,-0.176865,0,0,0,0,0,0,0,-0.0114702,0.127938,0.170406,-1.8877,0.29072,0.143014,-0.0117648,0.113849,0.0476669,0.0047246,-0.0866784,-0.0763332,0.0822599,-0.000278701,0,0,0,0,0,0,0,-0.881161,-39.9376,0.0366345,25.257,1.18621,1.29632,0.0101778,
-0.00834012,0.121586,0.170979,-1.88247,0.37586,0.142984,-0.0129248,0.0174033,-0.0109625,0.0126139,-0.0122223,0.116397,0.0522588,-0.00144745,-2.5207,-1.2043,-2.49353,4.02283,19.5604,-12.7124,-0.141449,0,0,0,0,0,0,0,-0.0114702,0.127938,0.170406,-1.8877,0.29072,0.143014,-0.0117648,0.113849,0.0476669,0.0047246,-0.0866784,-0.0763332,0.0822599,-0.000278701,0,0,0,0,0,0,0,-0.881161,-39.9376,0.0366345,25.257,1.18621,1.29632,0.0101778,
-0.00832995,0.121437,0.170952,-1.88236,0.377787,0.142753,-0.0129436,0.0141769,-0.0125101,0.00942301,-0.00707847,0.141305,0.0360212,-0.00162843,-2.01651,-0.967208,-1.99434,3.2149,15.5675,-10.1485,-0.113115,0,0,0,0,0,0,0,-0.00968405,0.12863,0.171962,-1.89052,0.292699,0.144557,-0.0117622,0.0101304,-0.0366105,0.0696553,-0.0944418,0.10215,0.0192988,0.00130807,-12.9648,-10.5347,8.11634,-0.970432,22.3104,-7.87014,0.198346,-2.07531,-37.8667,-0.463243,26.4035,2.46887,1.37505,-0.0566557,
0.0130111,0.128545,0.197087,-1.8939,0.268984,0.293075,-0.0117702,0.0417223,-0.0127021,0.0370447,-0.00699246,0.0990783,0.101666,-0.00140077,17.2159,-0.120046,17.2636,0.053754,-26.3918,41.0278,0.142288,0,0,0,0,0,0,0,-0.00968405,0.12863,0.171962,-1.89052,0.292699,0.144557,-0.0117622,0.0101304,-0.0366105,0.0696553,-0.0944418,0.10215,0.0192988,0.00130807,0,0,0,0,0,0,0,-2.07531,-37.8667,-0.463243,26.4035,2.46887,1.37505,-0.0566557,
0.0162097,0.12304,0.196305,-1.89258,0.266611,0.181177,-0.0117975,0.0559226,-0.0156418,0.0506878,-0.00588131,0.0495747,0.101343,-0.00126233,8.8752,-1.83731,8.52688,0.694469,-30.9397,-0.201846,0.0865287,0,0,0,0,0,0,0,-0.00968405,0.12863,0.171962,-1.89052,0.292699,0.144557,-0.0117622,0.0101304,-0.0366105,0.0696553,-0.0944418,0.10215,0.0192988,0.00130807,0,0,0,0,0,0,0,-2.07531,-37.8667,-0.463243,26.4035,2.46887,1.37505,-0.0566557,
0.0170949,0.122824,0.197131,-1.89259,0.265414,0.181944,-0.0118032,0.0668689,-0.0179035,0.061207,-0.00495444,0.00973401,0.100255,-0.00115217,6.84143,-1.41352,6.57453,0.579294,-24.9004,-0.679572,0.0688491,0,0,0,0,0,0,0,-0.00968405,0.12863,0.171962,-1.89052,0.292699,0.144557,-0.0117622,0.0101304,-0.0366105,0.0696553,-0.0944418,0.10215,0.0192988,0.00130807,0,0,0,0,0,0,0,-2.07531,-37.8667,-0.463243,26.4035,2.46887,1.37505,-0.0566557,
0.0179634,0.122612,0.197941,-1.8926,0.26421,0.18268,-0.0118089,0.0752083,-0.0196282,0.0692231,-0.00417357,-0.0223336,0.0985974,-0.00106456,5.21214,-1.07798,5.01003,0.488047,-20.0423,-1.0362,0.0547565,0,0,0,0,0,0,0,-0.0087923,0.130074,0.172829,-1.89158,0.299863,0.145186,-0.0117626,0.0445117,0.0799236,0.0195832,0.00121719,0.0594364,0.113231,-0.000178672,4.29767,14.5668,-6.25901,11.9574,-5.33923,11.7416,-0.185843,1.2215,-39.7115,2.1869,26.7288,1.13678,3.60985,-0.0630644,
0.00750202,0.128932,0.188418,-1.89605,0.281038,0.189794,-0.0118146,0.0747509,-0.0178798,0.0693129,-0.00558698,-0.0385984,0.111035,-0.000933375,-0.28593,1.09279,0.0561378,-0.88338,-10.1655,7.77348,0.0819883,0,0,0,0,0,0,0,-0.0087923,0.130074,0.172829,-1.89158,0.299863,0.145186,-0.0117626,0.0445117,0.0799236,0.0195832,0.00121719,0.0594364,0.113231,-0.000178672,0,0,0,0,0,0,0,1.2215,-39.7115,2.1869,26.7288,1.13678,3.60985,-0.0630644,
0.00807014,0.12885,0.188961,-1.89613,0.280199,0.191041,-0.0118177,0.0740036,-0.0163727,0.0690236,-0.00660053,-0.0518456,0.119989,-0.00082383,-0.467019,0.941941,-0.180783,-0.633471,-8.27946,5.59603,0.0684654,0,0,0,0,0,0,0,-0.0087923,0.130074,0.172829,-1.89158,0.299863,0.145186,-0.0117626,0.0445117,0.0799236,0.0195832,0.00121719,0.0594364,0.113231,-0.000178672,0,0,0,0,0,0,0,1.2215,-39.7115,2.1869,26.7288,1.13678,3.60985,-0.0630644,
0.00862293,0.128771,0.189489,-1.89621,0.279351,0.192249,-0.0118206,0.0730226,-0.0150546,0.0684294,-0.00729453,-0.062676,0.126183,-0.000731714,-0.613141,0.823813,-0.371424,-0.43375,-6.769,3.87142,0.0575729,0,0,0,0,0,0,0,-0.0087923,0.130074,0.172829,-1.89158,0.299863,0.145186,-0.0117626,0.0445117,0.0799236,0.0195832,0.00121719,0.0594364,0.113231,-0.000178672,0,0,0,0,0,0,0,1.2215,-39.7115,2.1869,26.7288,1.13678,3.60985,-0.0630644,
0.00916032,0.128698,0.190003,-1.89629,0.278494,0.193418,-0.0118234,0.071853,-0.0138839,0.0675897,-0.00773303,-0.0715563,0.130189,-0.00065409,-0.730988,0.731698,-0.524793,-0.274062,-5.5502,2.50411,0.0485148,0,0,0,0,0,0,0,-0.00724297,0.130358,0.174174,-1.8925,0.296779,0.150889,-0.0117686,0.0429523,-0.0425713,0.0385428,-0.0522078,-0.1318,0.166477,-0.000193968,-0.194923,-15.3119,2.36995,-6.67812,-23.9045,6.65572,-0.00191203,2.54261,-37.8151,3.68654,24.8364,2.57873,1.9793,-0.0026396,
0.00844431,0.127106,0.189579,-1.89759,0.275109,0.190394,-0.0114371,0.0672939,-0.00938661,0.0645453,-0.00742903,-0.0687476,0.119337,-0.000766138,-2.84946,2.81078,-1.90271,0.190001,1.75541,-6.78264,-0.0700299,0,0,0,0,0,0,0,-0.00724297,0.130358,0.174174,-1.8925,0.296779,0.150889,-0.0117686,0.0429523,-0.0425713,0.0385428,-0.0522078,-0.1318,0.166477,-0.000193968,0,0,0,0,0,0,0,2.54261,-37.8151,3.68654,24.8364,2.57873,1.9793,-0.0026396,
0.00883294,0.127183,0.189997,-1.89763,0.274771,0.190969,-0.0114496,0.0635509,-0.00558138,0.0620854,-0.00704647,-0.0634438,0.109859,-0.000924998,-2.33939,2.37827,-1.53744,0.239096,3.31491,-5.92396,-0.0992877,0,0,0,0,0,0,0,-0.00724297,0.130358,0.174174,-1.8925,0.296779,0.150889,-0.0117686,0.0429523,-0.0425713,0.0385428,-0.0522078,-0.1318,0.166477,-0.000193968,0,0,0,0,0,0,0,2.54261,-37.8151,3.68654,24.8364,2.57873,1.9793,-0.0026396,
0.00921954,0.127267,0.190416,-1.89767,0.274569,0.191515,-0.0114651,0.0605056,-0.00236309,0.0601481,-0.00657891,-0.055806,0.101533,-0.00112626,-1.90327,2.01143,-1.21082,0.292226,4.77359,-5.20363,-0.125786,0,0,0,0,0,0,0,-0.00724297,0.130358,0.174174,-1.8925,0.296779,0.150889,-0.0117686,0.0429523,-0.0425713,0.0385428,-0.0522078,-0.1318,0.166477,-0.000193968,0,0,0,0,0,0,0,2.54261,-37.8151,3.68654,24.8364,2.57873,1.9793,-0.0026396,
0.00960635,0.127356,0.190839,-1.8977,0.274505,0.192032,-0.0114835,0.0580749,0.000333482,0.0586959,-0.00600753,-0.0462584,0.0941594,-0.00136317,-1.51921,1.68536,-0.907655,0.357115,5.96727,-4.60856,-0.148073,0,0,0,0,0,0,0,-0.00551034,0.130649,0.176149,-1.89327,0.294308,0.156573,-0.0117665,0.0570521,0.042692,0.0784679,-0.000250787,-0.0784484,0.171832,-0.00231283,1.76247,10.6579,4.99065,6.49462,6.66893,0.66937,-0.264857,0.182071,-37.4144,1.13954,24.9118,1.22833,1.39519,-0.0227812,
0.0117745,0.127927,0.192301,-1.89883,0.272927,0.20015,-0.0115924,0.0569443,0.00177311,0.0577131,-0.00625897,-0.0349435,0.0925098,-0.00150748,-0.706622,0.899767,-0.614264,-0.157154,7.0718,-1.03099,-0.0901941,0,0,0,0,0,0,0,-0.00551034,0.130649,0.176149,-1.89327,0.294308,0.156573,-0.0117665,0.0570521,0.042692,0.0784679,-0.000250787,-0.0784484,0.171832,-0.00231283,0,0,0,0,0,0,0,0.182071,-37.4144,1.13954,24.9118,1.22833,1.39519,-0.0227812,
0.012191,0.128001,0.192735,-1.89888,0.273315,0.200765,-0.0116155,0.0559691,0.00327779,0.0570109,-0.0062127,-0.0182672,0.0893722,-0.001783,-0.60952,0.940424,-0.438848,0.028923,10.4227,-1.96103,-0.172199,0,0,0,0,0,0,0,-0.00551034,0.130649,0.176149,-1.89327,0.294308,0.156573,-0.0117665,0.0570521,0.042692,0.0784679,-0.000250787,-0.0784484,0.171832,-0.00231283,0,0,0,0,0,0,0,0.182071,-37.4144,1.13954,24.9118,1.22833,1.39519,-0.0227812,
0.0126103,0.128087,0.19318,-1.89891,0.273975,0.201299,-0.0116451,0.0552564,0.00476727,0.056727,-0.00577784,0.00190553,0.0848544,-0.00216666,-0.445422,0.930928,-0.17744,0.271788,12.608,-2.8236,-0.239785,0,0,0,0,0,0,0,-0.00551034,0.130649,0.176149,-1.89327,0.294308,0.156573,-0.0117665,0.0570521,0.042692,0.0784679,-0.000250787,-0.0784484,0.171832,-0.00231283,0,0,0,0,0,0,0,0.182071,-37.4144,1.13954,24.9118,1.22833,1.39519,-0.0227812,
0.0140531,0.127273,0.194665,-1.89919,0.272869,0.20446,-0.0115974,0.0559127,0.00356265,0.0570278,-0.00670513,-0.0282318,0.0929712,-0.00175466,0.410206,-0.752889,0.187973,-0.579556,-18.8358,5.07297,0.257497,0,0,0,0,0,0,0,-0.00329906,0.130939,0.178234,-1.89375,0.292646,0.161709,-0.0117712,0.0813378,-0.0256323,0.0382126,-0.0459715,-0.0428421,0.180247,-0.00133818,3.03571,-8.54054,-5.03192,-5.71508,4.45079,1.05183,0.121831,-0.603451,-36.8669,0.762648,25.7092,1.56433,1.21667,0.0239107,
0.0145078,0.127274,0.195119,-1.89927,0.271776,0.205398,-0.0115999,0.0560983,0.0028772,0.0569794,-0.00733251,-0.0499039,0.0978423,-0.00146658,0.116002,-0.428404,-0.0302464,-0.392112,-13.5451,3.04448,0.180053,0,0,0,0,0,0,0,-0.00329906,0.130939,0.178234,-1.89375,0.292646,0.161709,-0.0117712,0.0813378,-0.0256323,0.0382126,-0.0459715,-0.0428421,0.180247,-0.00133818,0,0,0,0,0,0,0,-0.603451,-36.8669,0.762648,25.7092,1.56433,1.21667,0.0239107,
0.0149496,0.127287,0.195563,-1.89934,0.270822,0.20627,-0.0116045,0.0559226,0.0026217,0.0566731,-0.00772658,-0.0637713,0.100079,-0.00128945,-0.109848,-0.159689,-0.191423,-0.246294,-8.66707,1.39769,0.110709,0,0,0,0,0,0,0,-0.00329906,0.130939,0.178234,-1.89375,0.292646,0.161709,-0.0117712,0.0813378,-0.0256323,0.0382126,-0.0459715,-0.0428421,0.180247,-0.00133818,0,0,0,0,0,0,0,-0.603451,-36.8669,0.762648,25.7092,1.56433,1.21667,0.0239107,
0.0153792,0.127312,0.195997,-1.89941,0.270053,0.207076,-0.011612,0.0554792,0.00272488,0.0561913,-0.00793908,-0.0702451,0.100213,-0.0012182,-0.277122,0.064485,-0.301123,-0.132813,-4.04615,0.0839349,0.0445257,0,0,0,0,0,0,0,-0.00329906,0.130939,0.178234,-1.89375,0.292646,0.161709,-0.0117712,0.0813378,-0.0256323,0.0382126,-0.0459715,-0.0428421,0.180247,-0.00133818,0,0,0,0,0,0,0,-0.603451,-36.8669,0.762648,25.7092,1.56433,1.21667,0.0239107,
0.0137758,0.126817,0.194299,-1.89958,0.274713,0.20393,-0.0115586,0.0572355,0.00104358,0.0575488,-0.00884479,-0.0855123,0.108466,-0.000974565,1.09771,-1.05081,0.848464,-0.566069,-9.542,5.15816,0.152275,0,0,0,0,0,0,0,-0.00124066,0.131414,0.180523,-1.894,0.290809,0.167696,-0.0117706,0.0324434,0.0408967,0.0969325,-0.00962015,-0.103538,0.194553,0.000111206,-6.1118,8.31613,7.33999,4.54391,-7.58698,1.78824,0.181173,-0.0202602,-38.2396,0.988783,24.9832,1.62567,1.09673,-0.00996382,
0.0142746,0.126779,0.19479,-1.89967,0.273513,0.205022,-0.0115589,0.0582565,-0.000101175,0.0582921,-0.00941689,-0.0984279,0.114073,-0.000787938,0.638104,-0.715473,0.464565,-0.357564,-8.07225,3.50465,0.116642,0,0,0,0,0,0,0,-0.00124066,0.131414,0.180523,-1.894,0.290809,0.167696,-0.0117706,0.0324434,0.0408967,0.0969325,-0.00962015,-0.103538,0.194553,0.000111206,0,0,0,0,0,0,0,-0.0202602,-38.2396,0.988783,24.9832,1.62567,1.09673,-0.00996382,
0.0147582,0.12675,0.195266,-1.89976,0.272306,0.20607,-0.0115598,0.0586951,-0.000803926,0.0585503,-0.00972859,-0.108923,0.117458,-0.000652032,0.274148,-0.439219,0.161325,-0.194815,-6.55915,2.11548,0.0849411,0,0,0,0,0,0,0,-0.00124066,0.131414,0.180523,-1.894,0.290809,0.167696,-0.0117706,0.0324434,0.0408967,0.0969325,-0.00962015,-0.103538,0.194553,0.000111206,0,0,0,0,0,0,0,-0.0202602,-38.2396,0.988783,24.9832,1.62567,1.09673,-0.00996382,
0.0152269,0.12673,0.19573,-1.89984,0.271118,0.20707,-0.0115615,0.058675,-0.00113983,0.0584282,-0.00984006,-0.116831,0.118965,-0.00056377,-0.0125463,-0.20994,-0.0762825,-0.0696647,-4.94295,0.941783,0.0551639,0,0,0,0,0,0,0,-0.00124066,0.131414,0.180523,-1.894,0.290809,0.167696,-0.0117706,0.0324434,0.0408967,0.0969325,-0.00962015,-0.103538,0.194553,0.000111206,0,0,0,0,0,0,0,-0.0202602,-38.2396,0.988783,24.9832,1.62567,1.09673,-0.00996382,
0.0159766,0.12856,0.196739,-1.90002,0.26888,0.209269,-0.011601,0.0585166,-0.0013285,0.0581123,-0.00987007,-0.121664,0.119227,-0.000531921,-0.0989995,-0.11792,-0.197417,-0.0187601,-3.02052,0.163968,0.0199058,0,0,0,0,0,0,0,0.000800937,0.131632,0.182397,-1.89455,0.287015,0.173843,-0.0117674,0.0842973,-0.0233227,0.0232695,-0.0368716,-0.138096,0.184604,5.4694e-05,6.48174,-8.02743,-9.20788,-3.40644,-4.31981,-1.24352,-0.00706394,-0.171017,-37.0415,1.11177,25.3601,1.88202,1.49499,-0.00996382,
0.0164249,0.128552,0.19718,-1.90009,0.267792,0.210188,-0.0116053,0.0580187,-0.00125953,0.0575313,-0.00975869,-0.124529,0.118363,-0.000534445,-0.311208,0.0431049,-0.363169,0.0696153,-1.79054,-0.540227,-0.00157745,0,0,0,0,0,0,0,0.000800937,0.131632,0.182397,-1.89455,0.287015,0.173843,-0.0117674,0.0842973,-0.0233227,0.0232695,-0.0368716,-0.138096,0.184604,5.4694e-05,0,0,0,0,0,0,0,-0.171017,-37.0415,1.11177,25.3601,1.88202,1.49499,-0.00996382,
0.0168587,0.128554,0.197609,-1.90016,0.266782,0.211061,-0.0116112,0.0572606,-0.000965976,0.0567528,-0.00954305,-0.124895,0.116511,-0.000573791,-0.473836,0.183474,-0.486523,0.134772,-0.228769,-1.15757,-0.0245914,0,0,0,0,0,0,0,0.000800937,0.131632,0.182397,-1.89455,0.287015,0.173843,-0.0117674,0.0842973,-0.0233227,0.0232695,-0.0368716,-0.138096,0.184604,5.4694e-05,0,0,0,0,0,0,0,-0.171017,-37.0415,1.11177,25.3601,1.88202,1.49499,-0.00996382,
0.0230164,0.126562,0.203956,-1.9088,0.256679,0.33179,-0.0104577,0.0635339,-0.00645685,0.0620199,-0.0150795,-0.121469,0.160052,0.000142813,3.92082,-3.4318,3.29192,-3.46025,2.14148,27.2133,0.447877,0,0,0,0,0,0,0,0.000800937,0.131632,0.182397,-1.89455,0.287015,0.173843,-0.0117674,0.0842973,-0.0233227,0.0232695,-0.0368716,-0.138096,0.184604,5.4694e-05,0,0,0,0,0,0,0,-0.171017,-37.0415,1.11177,25.3601,1.88202,1.49499,-0.00996382,
0.0176727,0.127755,0.198407,-1.90021,0.264015,0.215475,-0.0115897,0.0622683,-0.00554845,0.0609544,-0.0141082,-0.124162,0.151253,4.41301e-06,-0.790961,0.567751,-0.665915,0.607065,-1.68337,-5.49978,-0.0864999,0,0,0,0,0,0,0,0.000800937,0.131632,0.182397,-1.89455,0.287015,0.173843,-0.0117674,0.0842973,-0.0233227,0.0232695,-0.0368716,-0.138096,0.184604,5.4694e-05,0,0,0,0,0,0,0,-0.171017,-37.0415,1.11177,25.3601,1.88202,1.49499,-0.00996382,
0.0181155,0.127749,0.198847,-1.90029,0.26301,0.21636,-0.0115957,0.0608839,-0.00458895,0.0597823,-0.013209,-0.124461,0.143111,-0.000146751,-0.865282,0.599689,-0.732586,0.562,-0.186849,-5.08865,-0.0944774,0,0,0,0,0,0,0,0.000800937,0.131632,0.182397,-1.89455,0.287015,0.173843,-0.0117674,0.0842973,-0.0233227,0.0232695,-0.0368716,-0.138096,0.184604,5.4694e-05,0,0,0,0,0,0,0,-0.171017,-37.0415,1.11177,25.3601,1.88202,1.49499,-0.00996382,
0.018544,0.127753,0.199276,-1.90036,0.262125,0.217198,-0.0116039,0.059419,-0.0035648,0.0585468,-0.0123768,-0.12169,0.135442,-0.000322303,-0.915526,0.640091,-0.772218,0.520113,1.73171,-4.79322,-0.10972,0,0,0,0,0,0,0,0.000800937,0.131632,0.182397,-1.89455,0.287015,0.173843,-0.0117674,0.0842973,-0.0233227,0.0232695,-0.0368716,-0.138096,0.184604,5.4694e-05,0,0,0,0,0,0,0,-0.171017,-37.0415,1.11177,25.3601,1.88202,1.49499,-0.00996382,
0.0171839,0.127922,0.197834,-1.90018,0.266895,0.213847,-0.0116208,0.0603713,-0.00379578,0.0593484,-0.0123863,-0.125695,0.134406,-0.000338509,0.595135,-0.144361,0.50105,-0.0059448,-2.50286,-0.647529,-0.0101292,0,0,0,0,0,0,0,0.000800937,0.131632,0.182397,-1.89455,0.287015,0.173843,-0.0117674,0.0842973,-0.0233227,0.0232695,-0.0368716,-0.138096,0.184604,5.4694e-05,0,0,0,0,0,0,0,-0.171017,-37.0415,1.11177,25.3601,1.88202,1.49499,-0.00996382,
0.0176813,0.12789,0.19832,-1.90027,0.265722,0.214864,-0.0116245,0.0607309,-0.00384104,0.0596216,-0.0122508,-0.129883,0.13294,-0.000362965,0.224783,-0.0282882,0.170741,0.084708,-2.61759,-0.915834,-0.0152848,0,0,0,0,0,0,0,0.000800937,0.131632,0.182397,-1.89455,0.287015,0.173843,-0.0117674,0.0842973,-0.0233227,0.0232695,-0.0368716,-0.138096,0.184604,5.4694e-05,0,0,0,0,0,0,0,-0.171017,-37.0415,1.11177,25.3601,1.88202,1.49499,-0.00996382,
0.0181628,0.127864,0.198791,-1.90036,0.264532,0.215851,-0.0116288,0.0606217,-0.00371823,0.0594801,-0.0120032,-0.133642,0.131021,-0.000398643,-0.0682506,0.0767558,-0.088442,0.154695,-2.34958,-1.19957,-0.0222983,0,0,0,0,0,0,0,0.00292679,0.131983,0.184248,-1.89502,0.28235,0.179128,-0.0117719,0.0392623,0.0241918,0.0707002,-0.00880154,-0.134017,0.145117,-0.00142513,-5.62937,5.93931,5.92885,3.50876,0.509991,-4.93588,-0.184978,0.134464,-37.6167,1.43709,25.8322,1.77215,1.89965,0.0303194,
0.0186287,0.127846,0.199249,-1.90044,0.263355,0.216804,-0.011634,0.0601445,-0.0034401,0.0590167,-0.011673,-0.136358,0.128642,-0.000450201,-0.298257,0.173834,-0.289602,0.206424,-1.69728,-1.48683,-0.0322239,0,0,0,0,0,0,0,0.00292679,0.131983,0.184248,-1.89502,0.28235,0.179128,-0.0117719,0.0392623,0.0241918,0.0707002,-0.00880154,-0.134017,0.145117,-0.00142513,0,0,0,0,0,0,0,0.134464,-37.6167,1.43709,25.8322,1.77215,1.89965,0.0303194,
0.0191395,0.128933,0.199585,-1.90109,0.262526,0.21884,-0.0116342,0.0612486,-0.00357594,0.0599971,-0.0119527,-0.133325,0.127364,-0.000457919,0.690082,-0.0849025,0.612704,-0.174825,1.89544,-0.798549,-0.00482422,0,0,0,0,0,0,0,0.00292679,0.131983,0.184248,-1.89502,0.28235,0.179128,-0.0117719,0.0392623,0.0241918,0.0707002,-0.00880154,-0.134017,0.145117,-0.00142513,0,0,0,0,0,0,0,0.134464,-37.6167,1.43709,25.8322,1.77215,1.89965,0.0303194,
0.0196483,0.128904,0.20008,-1.90119,0.26149,0.219808,-0.0116386,0.0617189,-0.00359322,0.0603884,-0.0120348,-0.13257,0.126084,-0.000475565,0.293948,-0.0108023,0.244607,-0.0513102,0.47214,-0.80007,-0.0110287,0,0,0,0,0,0,0,0.00450817,0.132027,0.186545,-1.89585,0.277886,0.187048,-0.0117674,0.0511551,-0.0245808,0.0617904,-0.0242614,-0.120819,0.185972,-0.000273369,1.48659,-6.09657,-1.11373,-1.93248,1.64971,5.10683,0.14397,0.285221,-36.8431,1.38948,24.2889,1.58264,1.53435,-0.00996382,
0.0201406,0.128879,0.200561,-1.90128,0.260405,0.22076,-0.0116435,0.0616825,-0.00350097,0.0603159,-0.0119596,-0.13317,0.124658,-0.000503312,-0.022749,0.0576618,-0.0453345,0.0470056,-0.375076,-0.891228,-0.017342,0,0,0,0,0,0,0,0.00450817,0.132027,0.186545,-1.89585,0.277886,0.187048,-0.0117674,0.0511551,-0.0245808,0.0617904,-0.0242614,-0.120819,0.185972,-0.000273369,0,0,0,0,0,0,0,0.285221,-36.8431,1.38948,24.2889,1.58264,1.53435,-0.00996382,
0.0208776,0.128144,0.202127,-1.90141,0.257402,0.225848,-0.0116714,0.0616286,-0.00342872,0.0602736,-0.0119718,-0.132302,0.122214,-0.000539711,-0.0337391,0.0451516,-0.026411,-0.00762582,0.542593,-1.52745,-0.022749,0,0,0,0,0,0,0,0.00450817,0.132027,0.186545,-1.89585,0.277886,0.187048,-0.0117674,0.0511551,-0.0245808,0.0617904,-0.0242614,-0.120819,0.185972,-0.000273369,0,0,0,0,0,0,0,0.285221,-36.8431,1.38948,24.2889,1.58264,1.53435,-0.00996382,
0.0213521,0.128122,0.202593,-1.9015,0.256338,0.226733,-0.0116776,0.0611666,-0.00327097,0.0598479,-0.0118485,-0.132442,0.1199,-0.000588075,-0.288732,0.0985951,-0.266093,0.0770494,-0.0877188,-1.44664,-0.0302275,0,0,0,0,0,0,0,0.00450817,0.132027,0.186545,-1.89585,0.277886,0.187048,-0.0117674,0.0511551,-0.0245808,0.0617904,-0.0242614,-0.120819,0.185972,-0.000273369,0,0,0,0,0,0,0,0.285221,-36.8431,1.38948,24.2889,1.58264,1.53435,-0.00996382,
0.0218101,0.128106,0.203042,-1.90159,0.255269,0.227599,-0.0116848,0.0603829,-0.0030223,0.0591271,-0.0116198,-0.132685,0.117563,-0.00065096,-0.489822,0.155417,-0.450518,0.142933,-0.151503,-1.46019,-0.0393035,0,0,0,0,0,0,0,0.00673476,0.132384,0.188225,-1.89635,0.273677,0.192778,-0.0117689,0.0883792,0.0200324,0.0320568,-0.0139547,-0.129446,0.181237,-0.00022216,4.65301,5.57665,-3.7167,1.28834,-1.07836,-0.591843,0.00640104,-0.29797,-38.2634,1.13954,25.3323,1.43066,1.5609,0.00376909,
0.0222518,0.128096,0.203478,-1.90167,0.254229,0.228441,-0.0116933,0.0593494,-0.00267467,0.0581845,-0.0113123,-0.13215,0.115108,-0.000733177,-0.645942,0.217271,-0.589123,0.192208,0.333843,-1.53478,-0.0513856,0,0,0,0,0,0,0,0.00673476,0.132384,0.188225,-1.89635,0.273677,0.192778,-0.0117689,0.0883792,0.0200324,0.0320568,-0.0139547,-0.129446,0.181237,-0.00022216,0,0,0,0,0,0,0,-0.29797,-38.2634,1.13954,25.3323,1.43066,1.5609,0.00376909,
0.0224602,0.129416,0.203069,-1.90229,0.254561,0.230495,-0.0116417,0.0612026,-0.00271172,0.059962,-0.011876,-0.12602,0.113752,-0.00066467,1.15827,-0.0231549,1.11097,-0.352319,3.83122,-0.847335,0.0428175,0,0,0,0,0,0,0,0.00673476,0.132384,0.188225,-1.89635,0.273677,0.192778,-0.0117689,0.0883792,0.0200324,0.0320568,-0.0139547,-0.129446,0.181237,-0.00022216,0,0,0,0,0,0,0,-0.29797,-38.2634,1.13954,25.3323,1.43066,1.5609,0.00376909,
0.0229933,0.129396,0.203588,-1.9024,0.253659,0.231372,-0.0116458,0.0622876,-0.00268113,0.0609563,-0.0122028,-0.12337,0.112926,-0.000632648,0.678122,0.019114,0.621392,-0.204252,1.65647,-0.515948,0.0200135,0,0,0,0,0,0,0,0.00673476,0.132384,0.188225,-1.89635,0.273677,0.192778,-0.0117689,0.0883792,0.0200324,0.0320568,-0.0139547,-0.129446,0.181237,-0.00022216,0,0,0,0,0,0,0,-0.29797,-38.2634,1.13954,25.3323,1.43066,1.5609,0.00376909,
0.0235096,0.129378,0.204091,-1.9025,0.252682,0.232251,-0.0116506,0.0627386,-0.00260172,0.0613284,-0.0123372,-0.123117,0.112302,-0.000626792,0.281864,0.0496313,0.232612,-0.0840314,0.15789,-0.390283,0.00366021,0,0,0,0,0,0,0,0.00673476,0.132384,0.188225,-1.89635,0.273677,0.192778,-0.0117689,0.0883792,0.0200324,0.0320568,-0.0139547,-0.129446,0.181237,-0.00022216,0,0,0,0,0,0,0,-0.29797,-38.2634,1.13954,25.3323,1.43066,1.5609,0.00376909,
0.024009,0.129362,0.204577,-1.9026,0.251649,0.233124,-0.0116562,0.0626756,-0.00247452,0.0612122,-0.0123165,-0.124317,0.111665,-0.000641594,-0.0393441,0.0795054,-0.0726639,0.0129876,-0.749601,-0.398027,-0.0092514,0,0,0,0,0,0,0,0.00820811,0.13239,0.190497,-1.89685,0.269443,0.198641,-0.0117689,0.0179207,-0.00352765,0.095979,-0.0239861,-0.128025,0.181759,-0.000614408,-8.80731,-2.945,7.99027,-1.25393,0.177596,0.0652407,-0.049031,0.689884,-37.5414,1.88936,25.2094,1.43615,1.42815,0.00376909,
0.0237799,0.128785,0.205317,-1.90286,0.251615,0.235836,-0.011677,0.0641559,-0.00275011,0.0628047,-0.0128618,-0.115081,0.108452,-0.000603213,0.925172,-0.172243,0.995307,-0.340863,5.77258,-2.00816,0.0239884,0,0,0,0,0,0,0,0.00820811,0.13239,0.190497,-1.89685,0.269443,0.198641,-0.0117689,0.0179207,-0.00352765,0.095979,-0.0239861,-0.128025,0.181759,-0.000614408,0,0,0,0,0,0,0,0.689884,-37.5414,1.88936,25.2094,1.43615,1.42815,0.00376909,
0.0243264,0.128757,0.205853,-1.90298,0.250879,0.236632,-0.0116818,0.0649889,-0.00289648,0.0636488,-0.0131804,-0.110442,0.106654,-0.000603542,0.520626,-0.0914859,0.527565,-0.199115,2.89906,-1.12356,-0.000205877,0,0,0,0,0,0,0,0.00820811,0.13239,0.190497,-1.89685,0.269443,0.198641,-0.0117689,0.0179207,-0.00352765,0.095979,-0.0239861,-0.128025,0.181759,-0.000614408,0,0,0,0,0,0,0,0.689884,-37.5414,1.88936,25.2094,1.43615,1.42815,0.00376909,
0.0248571,0.128731,0.206372,-1.90309,0.250046,0.237447,-0.0116876,0.0652579,-0.00297058,0.063888,-0.0133148,-0.109187,0.105697,-0.000627327,0.168146,-0.0463082,0.149535,-0.0839758,0.784634,-0.59842,-0.0148654,0,0,0,0,0,0,0,0.00820811,0.13239,0.190497,-1.89685,0.269443,0.198641,-0.0117689,0.0179207,-0.00352765,0.095979,-0.0239861,-0.128025,0.181759,-0.000614408,0,0,0,0,0,0,0,0.689884,-37.5414,1.88936,25.2094,1.43615,1.42815,0.00376909,
0.0309721,0.128724,0.212346,-1.91075,0.246482,0.336516,-0.0106705,0.0711799,-0.00736443,0.0689027,-0.019224,-0.0974878,0.142258,-8.83051e-05,3.70121,-2.74616,3.13417,-3.69324,7.31186,22.8508,0.336888,0,0,0,0,0,0,0,0.0102896,0.132489,0.192206,-1.89721,0.264972,0.203979,-0.0117652,0.0954699,0.00508391,0.0220041,-0.021733,-0.118968,0.161042,0.000350223,9.69365,1.07645,-9.24685,0.281637,1.13206,-2.58959,0.120579,0.0828892,-37.6167,1.38948,25.011,1.52221,1.49499,-0.0301054,
0.0262843,0.12916,0.20734,-1.90353,0.245233,0.241021,-0.0116797,0.0705785,-0.00622113,0.0688032,-0.0182348,-0.0917029,0.128902,-0.00010073,-0.375839,0.714561,-0.0621647,0.618255,3.61555,-8.34745,-0.00776539,0,0,0,0,0,0,0,0.0102896,0.132489,0.192206,-1.89721,0.264972,0.203979,-0.0117652,0.0954699,0.00508391,0.0220041,-0.021733,-0.118968,0.161042,0.000350223,0,0,0,0,0,0,0,0.0828892,-37.6167,1.38948,25.011,1.52221,1.49499,-0.0301054,
0.0268186,0.129152,0.20787,-1.90364,0.244568,0.241674,-0.011683,0.0698214,-0.00519122,0.0682882,-0.0173377,-0.08998,0.119466,-0.000161889,-0.473201,0.64369,-0.321898,0.560655,1.07682,-5.8977,-0.0382245,0,0,0,0,0,0,0,0.0102896,0.132489,0.192206,-1.89721,0.264972,0.203979,-0.0117652,0.0954699,0.00508391,0.0220041,-0.021733,-0.118968,0.161042,0.000350223,0,0,0,0,0,0,0,0.0828892,-37.6167,1.38948,25.011,1.52221,1.49499,-0.0301054,
0.0273386,0.129146,0.208381,-1.90374,0.243805,0.242363,-0.0116878,0.0688562,-0.00430445,0.0674212,-0.0165131,-0.09105,0.112778,-0.000250367,-0.603251,0.554236,-0.541854,0.515375,-0.668749,-4.17991,-0.0552987,0,0,0,0,0,0,0,0.0102896,0.132489,0.192206,-1.89721,0.264972,0.203979,-0.0117652,0.0954699,0.00508391,0.0220041,-0.021733,-0.118968,0.161042,0.000350223,0,0,0,0,0,0,0,0.0828892,-37.6167,1.38948,25.011,1.52221,1.49499,-0.0301054,
0.0274261,0.128794,0.208581,-1.90381,0.243108,0.244473,-0.0116904,0.0687466,-0.00398511,0.0679367,-0.0161436,-0.082856,0.102925,-0.000176044,-0.0685367,0.199584,0.322165,0.230965,5.12125,-6.15829,0.0464517,0,0,0,0,0,0,0,0.0121519,0.132468,0.194114,-1.89774,0.260821,0.209096,-0.011766,0.0275096,-0.00149008,0.0878749,-0.0193093,-0.109601,0.157843,0.000831556,-8.49504,-0.82175,8.23384,0.302971,1.17099,-0.399931,0.0601666,0.689884,-37.1922,2.06392,25.2847,1.74743,1.73394,-0.0227812,
0.0279673,0.12878,0.209126,-1.90393,0.242565,0.245054,-0.0116919,0.0685269,-0.00353854,0.0679674,-0.0157565,-0.0798702,0.096855,-0.000179784,-0.137292,0.279106,0.0192047,0.24189,1.86611,-3.79367,-0.00233743,0,0,0,0,0,0,0,0.0121519,0.132468,0.194114,-1.89774,0.260821,0.209096,-0.011766,0.0275096,-0.00149008,0.0878749,-0.0193093,-0.109601,0.157843,0.000831556,0,0,0,0,0,0,0,0.689884,-37.1922,2.06392,25.2847,1.74743,1.73394,-0.0227812,
0.0284976,0.128771,0.209653,-1.90404,0.241904,0.245687,-0.0116956,0.0680792,-0.00306905,0.067555,-0.0153521,-0.0804176,0.0933038,-0.000236515,-0.279782,0.29343,-0.257756,0.252763,-0.342099,-2.21951,-0.0354568,0,0,0,0,0,0,0,0.0121519,0.132468,0.194114,-1.89774,0.260821,0.209096,-0.011766,0.0275096,-0.00149008,0.0878749,-0.0193093,-0.109601,0.157843,0.000831556,0,0,0,0,0,0,0,0.689884,-37.1922,2.06392,25.2847,1.74743,1.73394,-0.0227812,
0.0290136,0.128764,0.210162,-1.90414,0.241144,0.246356,-0.011701,0.0673637,-0.00263471,0.0667666,-0.0149301,-0.0833324,0.0913855,-0.000323813,-0.447239,0.271465,-0.492759,0.263748,-1.82174,-1.1989,-0.0545612,0,0,0,0,0,0,0,0.0121519,0.132468,0.194114,-1.89774,0.260821,0.209096,-0.011766,0.0275096,-0.00149008,0.0878749,-0.0193093,-0.109601,0.157843,0.000831556,0,0,0,0,0,0,0,0.689884,-37.1922,2.06392,25.2847,1.74743,1.73394,-0.0227812,
0.0273722,0.128958,0.208524,-1.90371,0.242659,0.243538,-0.0117122,0.0675678,-0.00243262,0.0674861,-0.014794,-0.0766725,0.0849642,-0.000228982,0.127575,0.126306,0.449661,0.0851071,4.16238,-4.01334,0.0592693,0,0,0,0,0,0,0,0.0139991,0.132604,0.196287,-1.89852,0.257076,0.215872,-0.011766,0.0767916,0.00388601,0.0431945,-0.0113455,-0.0996103,0.137898,0.000438825,6.16025,0.672012,-5.58505,0.995477,1.24878,-2.49313,-0.0490913,0.66608,-38.5887,1.68703,26.1298,1.60736,1.22948,-0.0227812,
0.0279141,0.128952,0.209071,-1.90382,0.242116,0.244088,-0.0117137,0.067602,-0.00209736,0.0676706,-0.0146112,-0.0749083,0.0817139,-0.000220955,0.0213875,0.209539,0.115362,0.114216,1.10263,-2.03145,0.00501678,0,0,0,0,0,0,0,0.0139991,0.132604,0.196287,-1.89852,0.257076,0.215872,-0.011766,0.0767916,0.00388601,0.0431945,-0.0113455,-0.0996103,0.137898,0.000438825,0,0,0,0,0,0,0,0.66608,-38.5887,1.68703,26.1298,1.60736,1.22948,-0.0227812,
0.0284452,0.12895,0.2096,-1.90392,0.241456,0.244693,-0.0117175,0.0673592,-0.00173084,0.0673666,-0.0143828,-0.0764216,0.0805162,-0.000273274,-0.151773,0.229075,-0.190005,0.142726,-0.94577,-0.748559,-0.0326995,0,0,0,0,0,0,0,0.0139991,0.132604,0.196287,-1.89852,0.257076,0.215872,-0.011766,0.0767916,0.00388601,0.0431945,-0.0113455,-0.0996103,0.137898,0.000438825,0,0,0,0,0,0,0,0.66608,-38.5887,1.68703,26.1298,1.60736,1.22948,-0.0227812,
0.0293391,0.129129,0.210813,-1.9045,0.239588,0.249569,-0.0117304,0.0675812,-0.00159383,0.0680114,-0.0143299,-0.0704807,0.0754008,-0.000179585,0.13875,0.0856315,0.402996,0.033114,3.71302,-3.19708,0.0585555,0,0,0,0,0,0,0,0.0139991,0.132604,0.196287,-1.89852,0.257076,0.215872,-0.011766,0.0767916,0.00388601,0.0431945,-0.0113455,-0.0996103,0.137898,0.000438825,0,0,0,0,0,0,0,0.66608,-38.5887,1.68703,26.1298,1.60736,1.22948,-0.0227812,
0.0298816,0.129128,0.211361,-1.90461,0.23907,0.250085,-0.0117317,0.0676298,-0.00132142,0.0681316,-0.0142319,-0.0693329,0.073235,-0.000176569,0.0303965,0.170254,0.0750954,0.0612347,0.717364,-1.35367,0.0018852,0,0,0,0,0,0,0,0.016521,0.132591,0.197965,-1.899,0.253864,0.219987,-0.0117712,0.0684153,0.00823912,0.0537204,-0.0100452,-0.0841226,0.130491,-0.00208001,-1.04704,0.544139,1.31574,0.162537,1.93596,-0.925846,-0.314854,-0.373349,-37.7397,1.21095,25.4593,1.48559,1.51513,0.0239107,
0.0304134,0.129129,0.211892,-1.90472,0.238434,0.25066,-0.0117355,0.0673982,-0.00101463,0.0677661,-0.0140848,-0.07138,0.0729682,-0.000237349,-0.144736,0.191745,-0.228403,0.091901,-1.27942,-0.166741,-0.0379875,0,0,0,0,0,0,0,0.016521,0.132591,0.197965,-1.899,0.253864,0.219987,-0.0117712,0.0684153,0.00823912,0.0537204,-0.0100452,-0.0841226,0.130491,-0.00208001,0,0,0,0,0,0,0,-0.373349,-37.7397,1.21095,25.4593,1.48559,1.51513,0.0239107,
0.0309308,0.129132,0.212403,-1.90483,0.237697,0.25128,-0.0117414,0.0668524,-0.000733083,0.0669859,-0.0138885,-0.075518,0.073859,-0.000336687,-0.341115,0.175967,-0.487651,0.12274,-2.58627,0.556748,-0.0620861,0,0,0,0,0,0,0,0.016521,0.132591,0.197965,-1.899,0.253864,0.219987,-0.0117712,0.0684153,0.00823912,0.0537204,-0.0100452,-0.0841226,0.130491,-0.00208001,0,0,0,0,0,0,0,-0.373349,-37.7397,1.21095,25.4593,1.48559,1.51513,0.0239107,
0.0315221,0.129069,0.212042,-1.90507,0.236562,0.25354,-0.0117414,0.0665947,-0.00118847,0.0682921,-0.0138089,-0.0593209,0.0630478,-0.000216925,-0.161095,-0.284615,0.816352,0.0497537,10.1232,-6.75698,0.074851,0,0,0,0,0,0,0,0.016521,0.132591,0.197965,-1.899,0.253864,0.219987,-0.0117712,0.0684153,0.00823912,0.0537204,-0.0100452,-0.0841226,0.130491,-0.00208001,0,0,0,0,0,0,0,-0.373349,-37.7397,1.21095,25.4593,1.48559,1.51513,0.0239107,
0.0320669,0.129056,0.212621,-1.90519,0.236372,0.253828,-0.0117367,0.0668957,-0.00127116,0.0691182,-0.0138526,-0.0522186,0.0576527,-5.64965e-05,0.188115,-0.051681,0.516328,-0.0273496,4.43895,-3.37195,0.100268,0,0,0,0,0,0,0,0.0182187,0.132663,0.200498,-1.89934,0.251196,0.22398,-0.011766,0.0133857,0.00145595,0.115584,-0.00183609,-0.0796333,0.110423,-0.00014677,-6.87871,-0.847896,7.73299,1.02613,0.561161,-2.50852,0.241655,1.14612,-37.5414,2.01234,24.761,1.33819,1.54168,-0.0227812,
0.0326154,0.129053,0.213189,-1.9053,0.236,0.254219,-0.0117349,0.06723,-0.00109983,0.069487,-0.0138733,-0.0510693,0.0558821,-5.30939e-07,0.208969,0.107079,0.230497,-0.0129401,0.718296,-1.10662,0.0349785,0,0,0,0,0,0,0,0.0182187,0.132663,0.200498,-1.89934,0.251196,0.22398,-0.011766,0.0133857,0.00145595,0.115584,-0.00183609,-0.0796333,0.110423,-0.00014677,0,0,0,0,0,0,0,1.14612,-37.5414,2.01234,24.761,1.33819,1.54168,-0.0227812,
0.0331587,0.129056,0.21374,-1.90541,0.235484,0.25469,-0.0117362,0.0673645,-0.000813085,0.0693771,-0.0138506,-0.0537444,0.0564772,-3.22547e-05,0.0840621,0.179216,-0.0686511,0.0141974,-1.67189,0.371937,-0.0198273,0,0,0,0,0,0,0,0.0182187,0.132663,0.200498,-1.89934,0.251196,0.22398,-0.011766,0.0133857,0.00145595,0.115584,-0.00183609,-0.0796333,0.110423,-0.00014677,0,0,0,0,0,0,0,1.14612,-37.5414,2.01234,24.761,1.33819,1.54168,-0.0227812,
0.0333312,0.128828,0.214545,-1.9054,0.234329,0.257234,-0.0117611,0.0670659,-0.00130321,0.0697112,-0.0133482,-0.0401626,0.0471123,-0.000156939,-0.186637,-0.306326,0.208794,0.314001,8.48857,-5.85306,-0.0779277,0,0,0,0,0,0,0,0.0182187,0.132663,0.200498,-1.89934,0.251196,0.22398,-0.011766,0.0133857,0.00145595,0.115584,-0.00183609,-0.0796333,0.110423,-0.00014677,0,0,0,0,0,0,0,1.14612,-37.5414,2.01234,24.761,1.33819,1.54168,-0.0227812,
0.0338493,0.128808,0.215124,-1.9055,0.23439,0.257329,-0.0117591,0.0666043,-0.00154905,0.0702574,-0.0132498,-0.0306095,0.040069,-7.55514e-05,-0.28847,-0.153653,0.341342,0.0615054,5.9707,-4.40206,0.0508672,0,0,0,0,0,0,0,0.0182187,0.132663,0.200498,-1.89934,0.251196,0.22398,-0.011766,0.0133857,0.00145595,0.115584,-0.00183609,-0.0796333,0.110423,-0.00014677,0,0,0,0,0,0,0,1.14612,-37.5414,2.01234,24.761,1.33819,1.54168,-0.0227812,
0.0343866,0.128798,0.215696,-1.90561,0.234219,0.257554,-0.0117546,0.0667169,-0.00148272,0.0704989,-0.0133026,-0.0287634,0.0376691,5.12207e-05,0.0703469,0.0414594,0.150981,-0.0329754,1.1538,-1.49995,0.0792326,0,0,0,0,0,0,0,0.0206219,0.132669,0.202207,-1.89971,0.248732,0.227664,-0.0117644,0.109454,-6.7784e-05,0.0118743,-0.00621263,-0.0691668,0.0950955,4.23849e-05,12.0085,-0.190467,-12.9638,-0.547067,1.30831,-1.91594,0.0236444,-0.171017,-37.1922,1.08797,24.6619,1.31439,1.72661,-0.0365141,
0.0349273,0.128797,0.216256,-1.90572,0.233867,0.257883,-0.0117531,0.0668919,-0.00120407,0.0704099,-0.0133495,-0.0318051,0.038349,7.85989e-05,0.109357,0.174156,-0.0556338,-0.0293685,-1.90104,0.42496,0.0171114,0,0,0,0,0,0,0,0.0206219,0.132669,0.202207,-1.89971,0.248732,0.227664,-0.0117644,0.109454,-6.7784e-05,0.0118743,-0.00621263,-0.0691668,0.0950955,4.23849e-05,0,0,0,0,0,0,0,-0.171017,-37.1922,1.08797,24.6619,1.31439,1.72661,-0.0365141,
0.0357154,0.128882,0.216129,-1.90589,0.231246,0.259968,-0.0117622,0.0664857,-0.00187796,0.070454,-0.0131433,-0.0261165,0.0344729,-2.32239e-05,-0.253827,-0.421183,0.0275566,0.128893,3.55535,-2.42256,-0.0636392,0,0,0,0,0,0,0,0.0206219,0.132669,0.202207,-1.89971,0.248732,0.227664,-0.0117644,0.109454,-6.7784e-05,0.0118743,-0.00621263,-0.0691668,0.0950955,4.23849e-05,0,0,0,0,0,0,0,-0.171017,-37.1922,1.08797,24.6619,1.31439,1.72661,-0.0365141,
0.0362314,0.128868,0.216685,-1.90597,0.231324,0.260001,-0.0117671,0.0660904,-0.00184878,0.0702719,-0.0125472,-0.0189337,0.0284009,-0.000141238,-0.247062,0.0182396,-0.113827,0.372597,4.48925,-3.79504,-0.0737586,0,0,0,0,0,0,0,0.0206219,0.132669,0.202207,-1.89971,0.248732,0.227664,-0.0117644,0.109454,-6.7784e-05,0.0118743,-0.00621263,-0.0691668,0.0950955,4.23849e-05,0,0,0,0,0,0,0,-0.171017,-37.1922,1.08797,24.6619,1.31439,1.72661,-0.0365141,
0.0367392,0.12886,0.217253,-1.90607,0.231345,0.26005,-0.0117641,0.0655657,-0.00169608,0.0704178,-0.012388,-0.014633,0.0239692,-3.6636e-05,-0.327988,0.0954352,0.0911753,0.0994971,2.68794,-2.76978,0.065376,0,0,0,0,0,0,0,0.0225295,0.132666,0.204463,-1.90007,0.247012,0.230345,-0.011766,0.0207322,0.000637702,0.101074,-0.00198394,-0.0388397,0.0587968,-0.000295828,-11.0902,0.0881858,11.15,0.528586,3.79089,-4.53733,-0.0422766,0.638309,-37.1407,2.01234,24.7372,1.33819,1.87951,-0.0227812,
0.037265,0.128861,0.217814,-1.90617,0.231137,0.260227,-0.011759,0.0655989,-0.00133004,0.070355,-0.0124152,-0.016909,0.0236004,9.79039e-05,0.0207709,0.228773,-0.0392398,-0.0170004,-1.42246,-0.230527,0.0840874,0,0,0,0,0,0,0,0.0225295,0.132666,0.204463,-1.90007,0.247012,0.230345,-0.011766,0.0207322,0.000637702,0.101074,-0.00198394,-0.0388397,0.0587968,-0.000295828,0,0,0,0,0,0,0,0.638309,-37.1407,2.01234,24.7372,1.33819,1.87951,-0.0227812,
0.037649,0.128755,0.218403,-1.90618,0.231271,0.260867,-0.0117663,0.0653874,-0.00196809,0.0703385,-0.0123093,-0.0142858,0.0226622,-2.36238e-05,-0.132194,-0.398781,-0.010294,0.0661408,1.63947,-0.586329,-0.0759548,0,0,0,0,0,0,0,0.0225295,0.132666,0.204463,-1.90007,0.247012,0.230345,-0.011766,0.0207322,0.000637702,0.101074,-0.00198394,-0.0388397,0.0587968,-0.000295828,0,0,0,0,0,0,0,0.638309,-37.1407,2.01234,24.7372,1.33819,1.87951,-0.0227812,
0.0381629,0.128742,0.218957,-1.90626,0.231343,0.260897,-0.0117713,0.0651577,-0.00190582,0.0701183,-0.0117883,-0.0096263,0.0188934,-0.000144415,-0.143538,0.0389204,-0.13761,0.325676,2.91221,-2.35554,-0.0754943,0,0,0,0,0,0,0,0.0225295,0.132666,0.204463,-1.90007,0.247012,0.230345,-0.011766,0.0207322,0.000637702,0.101074,-0.00198394,-0.0388397,0.0587968,-0.000295828,0,0,0,0,0,0,0,0.638309,-37.1407,2.01234,24.7372,1.33819,1.87951,-0.0227812,
0.0386687,0.128734,0.219523,-1.90635,0.231357,0.260942,-0.0117682,0.0647722,-0.00172948,0.0702351,-0.0116912,-0.00735929,0.0162326,-3.83693e-05,-0.240949,0.110211,0.0730096,0.0606578,1.41688,-1.66301,0.0662783,0,0,0,0,0,0,0,0.0241029,0.132698,0.207131,-1.90058,0.245827,0.232518,-0.0117678,0.0326517,0.000621412,0.0924441,-0.0111647,-0.0380697,0.0690416,-0.00128194,1.48994,-0.00203635,-1.07874,-1.14759,0.0962505,1.28059,-0.123264,1.04694,-37.466,1.78621,25.1855,1.27136,1.85296,0.00376909,
0.0392084,0.128952,0.221056,-1.90667,0.229439,0.262639,-0.0117874,0.0647154,-0.00212474,0.0702376,-0.0116022,-0.00658881,0.0163385,-0.000145326,-0.0355142,-0.247038,0.00150202,0.0556146,0.481547,0.0661787,-0.0668476,0,0,0,0,0,0,0,0.0241029,0.132698,0.207131,-1.90058,0.245827,0.232518,-0.0117678,0.0326517,0.000621412,0.0924441,-0.0111647,-0.0380697,0.0690416,-0.00128194,0,0,0,0,0,0,0,1.04694,-37.466,1.78621,25.1855,1.27136,1.85296,0.00376909,
0.0397231,0.128945,0.22161,-1.90674,0.229508,0.26265,-0.0117921,0.0646396,-0.00187454,0.0700511,-0.0110951,-0.00353341,0.0133557,-0.000234448,-0.0473314,0.156379,-0.116534,0.316959,1.90962,-1.86422,-0.0557014,0,0,0,0,0,0,0,0.0241029,0.132698,0.207131,-1.90058,0.245827,0.232518,-0.0117678,0.0326517,0.000621412,0.0924441,-0.0111647,-0.0380697,0.0690416,-0.00128194,0,0,0,0,0,0,0,1.04694,-37.466,1.78621,25.1855,1.27136,1.85296,0.00376909,
0.0402306,0.128942,0.222176,-1.90682,0.229518,0.262673,-0.0117884,0.0643991,-0.00156724,0.0701947,-0.011028,-0.00258452,0.0112642,-9.56856e-05,-0.150364,0.192062,0.0897461,0.041957,0.59306,-1.30717,0.0867264,0,0,0,0,0,0,0,0.0241029,0.132698,0.207131,-1.90058,0.245827,0.232518,-0.0117678,0.0326517,0.000621412,0.0924441,-0.0111647,-0.0380697,0.0690416,-0.00128194,0,0,0,0,0,0,0,1.04694,-37.466,1.78621,25.1855,1.27136,1.85296,0.00376909,
0.0407552,0.128948,0.222736,-1.90692,0.229302,0.262818,-0.0117829,0.0646343,-0.00109782,0.0701541,-0.0111523,-0.00746136,0.0126191,6.06331e-05,0.147023,0.293385,-0.0253961,-0.0776821,-3.04803,0.846804,0.0976992,0,0,0,0,0,0,0,0.0268213,0.132715,0.208675,-1.90104,0.244955,0.23434,-0.0117656,0.128327,0.000488925,0.00189647,-0.0107854,-0.0120866,0.0518337,-0.000137827,11.9594,-0.0165608,-11.3185,0.0474087,3.24789,-2.15099,0.143014,0.0828892,-37.3906,1.16334,25.0864,1.22833,1.80627,-0.0227812,
0.0420933,0.129005,0.222771,-1.9071,0.228825,0.263817,-0.011809,0.0645782,-0.00151684,0.0701465,-0.0110581,-0.00648566,0.0132147,-7.87311e-05,-0.0350614,-0.261888,-0.00471602,0.0588178,0.609816,0.372249,-0.0871026,0,0,0,0,0,0,0,0.0268213,0.132715,0.208675,-1.90104,0.244955,0.23434,-0.0117656,0.128327,0.000488925,0.00189647,-0.0107854,-0.0120866,0.0518337,-0.000137827,0,0,0,0,0,0,0,0.0828892,-37.3906,1.16334,25.0864,1.22833,1.80627,-0.0227812,
0.0426072,0.129002,0.223324,-1.90717,0.228902,0.263816,-0.011814,0.064509,-0.00129149,0.0699642,-0.0105554,-0.00327022,0.0105556,-0.000187055,-0.0432249,0.140845,-0.113953,0.314205,2.00965,-1.66196,-0.0677024,0,0,0,0,0,0,0,0.0268213,0.132715,0.208675,-1.90104,0.244955,0.23434,-0.0117656,0.128327,0.000488925,0.00189647,-0.0107854,-0.0120866,0.0518337,-0.000137827,0,0,0,0,0,0,0,0.0828892,-37.3906,1.16334,25.0864,1.22833,1.80627,-0.0227812,
0.0431166,0.129003,0.22389,-1.90725,0.228892,0.263824,-0.0118102,0.0643418,-0.00100981,0.0701171,-0.0104636,-0.00285507,0.0086249,-5.62424e-05,-0.104536,0.176052,0.0955669,0.057415,0.259468,-1.20667,0.0817578,0,0,0,0,0,0,0,0.0268213,0.132715,0.208675,-1.90104,0.244955,0.23434,-0.0117656,0.128327,0.000488925,0.00189647,-0.0107854,-0.0120866,0.0518337,-0.000137827,0,0,0,0,0,0,0,0.0828892,-37.3906,1.16334,25.0864,1.22833,1.80627,-0.0227812,
0.0436412,0.129012,0.22445,-1.90734,0.228669,0.26395,-0.0118048,0.0645895,-0.000579371,0.0700952,-0.0106159,-0.00786441,0.0100664,9.04432e-05,0.154827,0.269022,-0.013673,-0.0952379,-3.13084,0.90093,0.0916785,0,0,0,0,0,0,0,0.0289211,0.132732,0.210953,-1.90138,0.244492,0.235861,-0.0117593,0.0179898,0.00260065,0.108089,-0.00946608,-0.0068678,0.0309294,0.000720448,-13.7921,0.263966,13.2741,0.164917,0.652348,-2.61303,0.107284,0.0828892,-37.5176,1.53627,25.3601,1.1734,1.84655,-0.050247,
0.0437411,0.128909,0.224467,-1.90754,0.228442,0.26611,-0.0117927,0.0653034,-0.00212253,0.0697954,-0.0114118,-0.0153858,0.0192081,-0.000197198,0.446171,-0.964473,-0.187398,-0.497439,-4.70087,5.7136,-0.179776,0,0,0,0,0,0,0,0.0289211,0.132732,0.210953,-1.90138,0.244492,0.235861,-0.0117593,0.0179898,0.00260065,0.108089,-0.00946608,-0.0068678,0.0309294,0.000720448,0,0,0,0,0,0,0,0.0828892,-37.5176,1.53627,25.3601,1.1734,1.84655,-0.050247,
0.044263,0.128861,0.225028,-1.90764,0.228262,0.266384,-0.0118016,0.0652901,-0.00288383,0.069861,-0.0116767,-0.0168305,0.0222374,-0.000379945,-0.00830605,-0.475812,0.0409883,-0.165565,-0.902955,1.89326,-0.114217,0,0,0,0,0,0,0,0.0289211,0.132732,0.210953,-1.90138,0.244492,0.235861,-0.0117593,0.0179898,0.00260065,0.108089,-0.00946608,-0.0068678,0.0309294,0.000720448,0,0,0,0,0,0,0,0.0828892,-37.5176,1.53627,25.3601,1.1734,1.84655,-0.050247,
0.0447746,0.128838,0.225586,-1.90773,0.228259,0.266493,-0.0118072,0.065023,-0.00288706,0.0698411,-0.0113974,-0.0135341,0.0205065,-0.00044431,-0.166942,-0.00201972,-0.0124055,0.174575,2.06029,-1.08177,-0.0402285,0,0,0,0,0,0,0,0.0289211,0.132732,0.210953,-1.90138,0.244492,0.235861,-0.0117593,0.0179898,0.00260065,0.108089,-0.00946608,-0.0068678,0.0309294,0.000720448,0,0,0,0,0,0,0,0.0828892,-37.5176,1.53627,25.3601,1.1734,1.84655,-0.050247,
0.0450858,0.12881,0.227669,-1.90797,0.227926,0.267434,-0.0118121,0.0661359,-0.00412475,0.0686207,-0.0121128,-0.0227769,0.0310931,-0.000770765,0.695586,-0.773555,-0.76273,-0.447137,-5.77675,6.61661,-0.204034,0,0,0,0,0,0,0,0.0301838,0.132729,0.214086,-1.90174,0.244086,0.237088,-0.0117674,0.000356991,0.00135564,0.129986,-0.00720624,-0.00679822,0.0320643,-0.000346287,-2.2041,-0.155627,2.73703,0.282479,0.00869751,0.141863,-0.133342,1.24927,-37.3152,2.21467,25.3601,1.1734,1.93902,-0.00996382,
0.0456194,0.128746,0.228211,-1.90809,0.227576,0.267865,-0.0118239,0.0662474,-0.0048925,0.0684237,-0.0125226,-0.0269676,0.0356455,-0.000911793,0.0697005,-0.479846,-0.123128,-0.256111,-2.61918,2.84527,-0.0881421,0,0,0,0,0,0,0,0.0301838,0.132729,0.214086,-1.90174,0.244086,0.237088,-0.0117674,0.000356991,0.00135564,0.129986,-0.00720624,-0.00679822,0.0320643,-0.000346287,0,0,0,0,0,0,0,1.24927,-37.3152,2.21467,25.3601,1.1734,1.93902,-0.00996382,
0.0461311,0.128701,0.228761,-1.90818,0.22742,0.26812,-0.011833,0.0657909,-0.00504008,0.0685045,-0.0124545,-0.0254908,0.0348892,-0.00095692,-0.285314,-0.092237,0.0504937,0.0425958,0.922952,-0.472676,-0.0282049,0,0,0,0,0,0,0,0.0301838,0.132729,0.214086,-1.90174,0.244086,0.237088,-0.0117674,0.000356991,0.00135564,0.129986,-0.00720624,-0.00679822,0.0320643,-0.000346287,0,0,0,0,0,0,0,1.24927,-37.3152,2.21467,25.3601,1.1734,1.93902,-0.00996382,
0.046632,0.128679,0.229307,-1.90826,0.22746,0.268204,-0.0118394,0.0651562,-0.00458073,0.0684604,-0.0119269,-0.0193953,0.030016,-0.00092456,-0.396724,0.28709,-0.0275971,0.32973,3.8097,-3.04577,0.0202252,0,0,0,0,0,0,0,0.0301838,0.132729,0.214086,-1.90174,0.244086,0.237088,-0.0117674,0.000356991,0.00135564,0.129986,-0.00720624,-0.00679822,0.0320643,-0.000346287,0,0,0,0,0,0,0,1.24927,-37.3152,2.21467,25.3601,1.1734,1.93902,-0.00996382,
0.0449805,0.128832,0.227683,-1.90802,0.227421,0.267769,-0.011826,0.0660795,-0.00562048,0.066502,-0.0127766,-0.0289371,0.0420151,-0.00160316,0.577043,-0.649839,-1.22399,-0.531045,-5.96361,7.49943,-0.424123,0,0,0,0,0,0,0,0.0327783,0.13272,0.215909,-1.90215,0.243481,0.238265,-0.0117652,0.127272,-0.00124237,0.00707178,-0.016077,-0.0195054,0.0397111,-0.000472468,15.8644,-0.324752,-15.3642,-1.10885,-1.58839,0.955847,-0.0157727,-0.246395,-37.1684,0.961012,25.3323,0.93536,2.03148,-0.0301054,
0.0455269,0.128764,0.228182,-1.90814,0.226925,0.268349,-0.0118442,0.0665222,-0.00617699,0.0656805,-0.0130957,-0.0355512,0.0480961,-0.00173744,0.276686,-0.34782,-0.513414,-0.199486,-4.13385,3.80063,-0.0839261,0,0,0,0,0,0,0,0.0327783,0.13272,0.215909,-1.90215,0.243481,0.238265,-0.0117652,0.127272,-0.00124237,0.00707178,-0.016077,-0.0195054,0.0397111,-0.000472468,0,0,0,0,0,0,0,-0.246395,-37.1684,0.961012,25.3323,0.93536,2.03148,-0.0301054,
0.0460437,0.128708,0.22871,-1.90824,0.226566,0.268772,-0.0118583,0.0661379,-0.00636161,0.0657409,-0.0131569,-0.037402,0.0490556,-0.00174142,-0.240185,-0.11539,0.0377236,-0.0382399,-1.1567,0.599696,-0.00249048,0,0,0,0,0,0,0,0.0327783,0.13272,0.215909,-1.90215,0.243481,0.238265,-0.0117652,0.127272,-0.00124237,0.00707178,-0.016077,-0.0195054,0.0397111,-0.000472468,0,0,0,0,0,0,0,-0.246395,-37.1684,0.961012,25.3323,0.93536,2.03148,-0.0301054,
0.0465409,0.12867,0.229246,-1.90833,0.226399,0.269018,-0.0118687,0.0653403,-0.00602002,0.0660001,-0.0127782,-0.0341118,0.0454073,-0.00165404,-0.498488,0.213497,0.162024,0.236678,2.05634,-2.28021,0.0546119,0,0,0,0,0,0,0,0.0327783,0.13272,0.215909,-1.90215,0.243481,0.238265,-0.0117652,0.127272,-0.00124237,0.00707178,-0.016077,-0.0195054,0.0397111,-0.000472468,0,0,0,0,0,0,0,-0.246395,-37.1684,0.961012,25.3323,0.93536,2.03148,-0.0301054,
0.0478015,0.128818,0.229726,-1.90855,0.227202,0.268531,-0.0118563,0.0661977,-0.00695069,0.0645354,-0.013512,-0.0407984,0.054535,-0.00220155,0.535917,-0.581672,-0.91545,-0.45858,-4.17909,5.70486,-0.342191,0,0,0,0,0,0,0,0.0327783,0.13272,0.215909,-1.90215,0.243481,0.238265,-0.0117652,0.127272,-0.00124237,0.00707178,-0.016077,-0.0195054,0.0397111,-0.000472468,0,0,0,0,0,0,0,-0.246395,-37.1684,0.961012,25.3323,0.93536,2.03148,-0.0301054,
0.0483473,0.128745,0.230222,-1.90867,0.226704,0.26912,-0.0118753,0.0666017,-0.00739083,0.0640362,-0.0137105,-0.0450917,0.0583346,-0.00223782,0.252469,-0.275089,-0.312024,-0.124065,-2.68332,2.37472,-0.0226668,0,0,0,0,0,0,0,0.0347937,0.132722,0.218271,-1.90259,0.242666,0.23992,-0.0117637,0.0123071,0.000902052,0.109036,-0.0128116,-0.0251167,0.0504911,0.00048226,-14.3706,0.268053,12.7455,0.408184,-0.701418,1.3475,0.119341,0.25745,-37.216,1.68703,25.3601,1.01501,2.07177,-0.0429228,
0.0488635,0.128683,0.230746,-1.90877,0.226342,0.269552,-0.01189,0.0661885,-0.00746468,0.0643134,-0.0136599,-0.0451069,0.0574831,-0.00215712,-0.258275,-0.046156,0.173264,0.0316055,-0.0095146,-0.532159,0.0504333,0,0,0,0,0,0,0,0.0347937,0.132722,0.218271,-1.90259,0.242666,0.23992,-0.0117637,0.0123071,0.000902052,0.109036,-0.0128116,-0.0251167,0.0504911,0.00048226,0,0,0,0,0,0,0,0.25745,-37.216,1.68703,25.3601,1.01501,2.07177,-0.0429228,
0.0493442,0.128892,0.231697,-1.90887,0.225674,0.270807,-0.011868,0.0667533,-0.00801617,0.0630871,-0.0141681,-0.0494856,0.0643487,-0.00262402,0.353047,-0.344677,-0.766405,-0.317632,-2.73667,4.29099,-0.291809,0,0,0,0,0,0,0,0.0347937,0.132722,0.218271,-1.90259,0.242666,0.23992,-0.0117637,0.0123071,0.000902052,0.109036,-0.0128116,-0.0251167,0.0504911,0.00048226,0,0,0,0,0,0,0,0.25745,-37.216,1.68703,25.3601,1.01501,2.07177,-0.0429228,
0.0498852,0.128821,0.232191,-1.90899,0.225178,0.271399,-0.0118877,0.0669267,-0.0081746,0.0628046,-0.0141973,-0.0519852,0.0662974,-0.00259315,0.108342,-0.0990236,-0.176589,-0.0182565,-1.56229,1.21792,0.0192923,0,0,0,0,0,0,0,0.0347937,0.132722,0.218271,-1.90259,0.242666,0.23992,-0.0117637,0.0123071,0.000902052,0.109036,-0.0128116,-0.0251167,0.0504911,0.00048226,0,0,0,0,0,0,0,0.25745,-37.216,1.68703,25.3601,1.01501,2.07177,-0.0429228,
0.0503973,0.128761,0.232711,-1.90909,0.224818,0.271834,-0.0119034,0.066345,-0.00803665,0.0632582,-0.0140117,-0.0505724,0.0638944,-0.00246534,-0.363557,0.0862237,0.283523,0.116037,0.882997,-1.50186,0.0798809,0,0,0,0,0,0,0,0.0362308,0.132743,0.221221,-1.90305,0.241384,0.241954,-0.0117622,0.0190516,0.00118096,0.113344,-0.0139926,-0.0409221,0.0588334,0.00110087,0.843068,0.0348633,0.53849,-0.147632,-1.97567,1.04279,0.0773268,1.63013,-37.5652,2.41304,25.4593,1.14959,2.03881,-0.0566557,
0.0508898,0.128721,0.23324,-1.90918,0.224648,0.272088,-0.0119154,0.0653887,-0.00743764,0.0638225,-0.0134277,-0.0447082,0.0574825,-0.0022743,-0.597702,0.374381,0.352687,0.364959,3.66517,-4.00743,0.1194,0,0,0,0,0,0,0,0.0362308,0.132743,0.221221,-1.90305,0.241384,0.241954,-0.0117622,0.0190516,0.00118096,0.113344,-0.0139926,-0.0409221,0.0588334,0.00110087,0,0,0,0,0,0,0,1.63013,-37.5652,2.41304,25.4593,1.14959,2.03881,-0.0566557,
0.050837,0.128913,0.234699,-1.90931,0.224356,0.272392,-0.0118947,0.066007,-0.00801465,0.0626397,-0.0139711,-0.0490561,0.0642955,-0.00273581,0.386483,-0.360633,-0.739276,-0.33958,-2.71746,4.2581,-0.288446,0,0,0,0,0,0,0,0.0362308,0.132743,0.221221,-1.90305,0.241384,0.241954,-0.0117622,0.0190516,0.00118096,0.113344,-0.0139926,-0.0409221,0.0588334,0.00110087,0,0,0,0,0,0,0,1.63013,-37.5652,2.41304,25.4593,1.14959,2.03881,-0.0566557,
0.0513737,0.128841,0.235189,-1.90942,0.223869,0.272982,-0.0119158,0.0662226,-0.00819181,0.0623723,-0.0140262,-0.0514224,0.0661797,-0.00271812,0.134721,-0.110725,-0.167123,-0.0344769,-1.47896,1.17763,0.011057,0,0,0,0,0,0,0,0.0362308,0.132743,0.221221,-1.90305,0.241384,0.241954,-0.0117622,0.0190516,0.00118096,0.113344,-0.0139926,-0.0409221,0.0588334,0.00110087,0,0,0,0,0,0,0,1.63013,-37.5652,2.41304,25.4593,1.14959,2.03881,-0.0566557,
