xiao-wang007/linearmpc_panda/paper_data/panda_inverse_dynamics_controller_error_match_to_start_no_acceleration_ff/0/trajectory.csv
Commanded Joint 0 Position,Commanded Joint 1 Position,Commanded Joint 2 Position,Commanded Joint 3 Position,Commanded Joint 4 Position,Commanded Joint 5 Position,Commanded Joint 6 Position,Commanded Joint 0 Velocity,Commanded Joint 1 Velocity,Commanded Joint 2 Velocity,Commanded Joint 3 Velocity,Commanded Joint 4 Velocity,Commanded Joint 5 Velocity,Commanded Joint 6 Velocity,Commanded Joint 0 Acceleration,Commanded Joint 1 Acceleration,Commanded Joint 2 Acceleration,Commanded Joint 3 Acceleration,Commanded Joint 4 Acceleration,Commanded Joint 5 Acceleration,Commanded Joint 6 Acceleration,Commanded Joint 0 Torque,Commanded Joint 1 Torque,Commanded Joint 2 Torque,Commanded Joint 3 Torque,Commanded Joint 4 Torque,Commanded Joint 5 Torque,Commanded Joint 6 Torque,Actual Joint 0 Position,Actual Joint 1 Position,Actual Joint 2 Position,Actual Joint 3 Position,Actual Joint 4 Position,Actual Joint 5 Position,Actual Joint 6 Position,Actual Joint 0 Velocity,Actual Joint 1 Velocity,Actual Joint 2 Velocity,Actual Joint 3 Velocity,Actual Joint 4 Velocity,Actual Joint 5 Velocity,Actual Joint 6 Velocity,Actual Joint 0 Acceleration,Actual Joint 1 Acceleration,Actual Joint 2 Acceleration,Actual Joint 3 Acceleration,Actual Joint 4 Acceleration,Actual Joint 5 Acceleration,Actual Joint 6 Acceleration,Actual Joint 0 Torque,Actual Joint 1 Torque,Actual Joint 2 Torque,Actual Joint 3 Torque,Actual Joint 4 Torque,Actual Joint 5 Torque,Actual Joint 6 Torque,
-0.0223198,0.0551166,-0.0367685,-1.72023,0.00730916,0.241985,-0.0374073,0.000465058,0.0238163,0.000437712,-0.0320622,-0.00392842,0.0535302,-0.000389006,0,0,0,0,0,0,0,0.0628279,26.3325,0.0663126,-24.3806,-0.597673,1.8721,-0.024496,-0.022377,0.0538868,-0.0368181,-1.71712,0.00759717,0.236283,-0.0373611,0.00172864,0.00807149,0.00142063,-0.00679653,-0.00592294,0.00143976,-0.000701725,0,0,0,0,0,0,0,0.0313145,-37.7159,0.0366345,27.3279,0.990292,3.08617,0.0779268,
-0.0223573,0.0540249,-0.0367995,-1.7172,0.0075442,0.236211,-0.0373626,0.000483734,0.0199683,0.000456865,-0.0261587,-0.00337255,0.0421306,-0.000318244,0,0,0,0,0,0,0,0.0570134,26.7766,0.0559356,-24.2963,-0.598233,1.6228,-0.0229819,-0.0223736,0.0540274,-0.0368217,-1.71722,0.00759972,0.236276,-0.0373625,0.00669938,0.00450681,-0.000499181,-0.00194433,-0.00606695,0.0022726,-0.0006445,0.621342,-0.445585,-0.239977,0.606525,-0.0180018,0.104105,0.00715311,0.00751081,-37.7397,0.0882092,27.4747,0.948178,3.17864,0.0907442,
-0.0223541,0.0540545,-0.0367964,-1.71722,0.00753884,0.236185,-0.0373628,0.000468401,0.0167141,0.000443733,-0.0213432,-0.00283197,0.0330469,-0.000259391,0,0,0,0,0,0,0,0.0497453,27.348,0.0441602,-24.1883,-0.597956,1.27576,-0.0210117,-0.0223736,0.0540274,-0.0368217,-1.71722,0.00759972,0.236276,-0.0373625,0.00669938,0.00450681,-0.000499181,-0.00194433,-0.00606695,0.0022726,-0.0006445,0,0,0,0,0,0,0,0.00751081,-37.7397,0.0882092,27.4747,0.948178,3.17864,0.0907442,
-0.0223517,0.0540786,-0.036794,-1.71723,0.00753566,0.236161,-0.0373629,0.000435084,0.0139725,0.000413298,-0.0174157,-0.0023452,0.0258477,-0.000210904,0,0,0,0,0,0,0,0.0437479,27.8718,0.0346853,-24.0205,-0.596169,0.891111,-0.0190087,-0.0223736,0.0540274,-0.0368217,-1.71722,0.00759972,0.236276,-0.0373625,0.00669938,0.00450681,-0.000499181,-0.00194433,-0.00606695,0.0022726,-0.0006445,0,0,0,0,0,0,0,0.00751081,-37.7397,0.0882092,27.4747,0.948178,3.17864,0.0907442,
-0.0223439,0.0545031,-0.0367937,-1.71775,0.00742847,0.236533,-0.0373587,0.00109092,0.0230706,0.00103104,-0.0271692,-0.00615757,0.027094,-7.33148e-05,0,0,0,0,0,0,0,-5.407e-05,32.4949,0.00474323,-23.281,-1.02444,-2.29161,0.000921088,-0.0223736,0.0540274,-0.0368217,-1.71722,0.00759972,0.236276,-0.0373625,0.00669938,0.00450681,-0.000499181,-0.00194433,-0.00606695,0.0022726,-0.0006445,0,0,0,0,0,0,0,0.00751081,-37.7397,0.0882092,27.4747,0.948178,3.17864,0.0907442,
-0.0223755,0.0549532,-0.0368362,-1.71797,0.00835629,0.235858,-0.0373763,8.17016e-05,0.0297092,-0.000236598,-0.0272491,0.0182695,0.00481281,-0.000500093,0,0,0,0,0,0,0,0.528518,0.193723,0.53068,-0.295251,3.48053,-2.14944,-0.00184272,-0.0223885,0.054557,-0.0368222,-1.71732,0.00760487,0.236401,-0.0373637,0.0013341,0.045867,0.000579111,-0.00289406,-0.0125487,0.0137309,-0.0010236,-0.67066,5.17003,0.134786,-0.118717,-0.810222,1.43228,-0.0473881,0.209842,-34.0224,0.139784,23.8129,0.93536,2.21093,0.0980684,
-0.0224344,0.0553122,-0.0368993,-1.71812,0.0099342,0.234744,-0.0373874,-0.00140591,0.0327432,-0.00176681,-0.0254605,0.0540634,-0.024017,-0.000677661,0,0,0,0,0,0,0,0.523235,0.192859,0.525444,-0.291867,3.45061,-2.13081,-0.00179978,-0.0223885,0.054557,-0.0368222,-1.71732,0.00760487,0.236401,-0.0373637,0.0013341,0.045867,0.000579111,-0.00289406,-0.0125487,0.0137309,-0.0010236,0,0,0,0,0,0,0,0.209842,-34.0224,0.139784,23.8129,0.93536,2.21093,0.0980684,
-0.0224973,0.0555908,-0.036963,-1.71824,0.0118932,0.233383,-0.0373938,-0.00269751,0.03316,-0.00300524,-0.0233548,0.0922249,-0.05324,-0.000700391,0,0,0,0,0,0,0,0.517887,0.191425,0.520132,-0.288748,3.42063,-2.11218,-0.00176228,-0.0223885,0.054557,-0.0368222,-1.71732,0.00760487,0.236401,-0.0373637,0.0013341,0.045867,0.000579111,-0.00289406,-0.0125487,0.0137309,-0.0010236,0,0,0,0,0,0,0,0.209842,-34.0224,0.139784,23.8129,0.93536,2.21093,0.0980684,
-0.0223737,0.0552575,-0.0368078,-1.71792,0.00738549,0.236725,-0.0373607,-0.00178945,0.0440382,-0.00204231,-0.0336881,0.0682953,-0.0344943,-0.000487228,0,0,0,0,0,0,0,-0.000164805,32.5106,0.00468402,-23.2779,-1.02416,-2.28871,0.000908179,-0.0223885,0.054557,-0.0368222,-1.71732,0.00760487,0.236401,-0.0373637,0.0013341,0.045867,0.000579111,-0.00289406,-0.0125487,0.0137309,-0.0010236,0,0,0,0,0,0,0,0.209842,-34.0224,0.139784,23.8129,0.93536,2.21093,0.0980684,
-0.0224741,0.0558993,-0.0369381,-1.71795,0.0104303,0.233687,-0.0374114,-0.00394069,0.0512772,-0.00489122,-0.0276735,0.130756,-0.103542,-0.00165714,0,0,0,0,0,0,0,4.60061,0.839102,4.53447,-2.00578,10.976,-10.9506,-0.00644111,-0.0223775,0.0549768,-0.0368185,-1.71785,0.00763424,0.2363,-0.0373603,0.0021064,0.0179898,0.00067663,-0.0271494,-0.001474,-0.00382418,0.000471817,0.096538,-3.48465,0.0121899,-3.03192,1.38434,-2.19438,0.186928,0.0551182,-35.7958,0.0882092,26.828,0.709225,3.02666,0.0706026,
-0.0226062,0.0563609,-0.0370836,-1.71793,0.0154435,0.22882,-0.0374418,-0.00645389,0.0525605,-0.00755164,-0.021499,0.229936,-0.204504,-0.00208409,0,0,0,0,0,0,0,4.54138,0.918718,4.4672,-1.92682,10.976,-10.7199,-0.00553177,-0.0223775,0.0549768,-0.0368185,-1.71785,0.00763424,0.2363,-0.0373603,0.0021064,0.0179898,0.00067663,-0.0271494,-0.001474,-0.00382418,0.000471817,0,0,0,0,0,0,0,0.0551182,-35.7958,0.0882092,26.828,0.709225,3.02666,0.0706026,
-0.0227154,0.0566821,-0.037198,-1.71793,0.0216492,0.22285,-0.0374578,-0.00789352,0.0500796,-0.0089006,-0.0174018,0.339092,-0.312865,-0.00206827,0,0,0,0,0,0,0,4.4693,0.967368,4.39086,-1.85893,10.976,-10.4827,-0.00503848,-0.0223775,0.0549768,-0.0368185,-1.71785,0.00763424,0.2363,-0.0373603,0.0021064,0.0179898,0.00067663,-0.0271494,-0.001474,-0.00382418,0.000471817,0,0,0,0,0,0,0,0.0551182,-35.7958,0.0882092,26.828,0.709225,3.02666,0.0706026,
-0.0223575,0.0555701,-0.0367989,-1.71848,0.00746458,0.236423,-0.0373553,-0.00581438,0.0548961,-0.00662943,-0.0296121,0.267032,-0.247223,-0.00153014,0,0,0,0,0,0,0,-3.86413e-05,32.5223,0.00483158,-23.2763,-1.02403,-2.2843,0.000880617,-0.0223775,0.0549768,-0.0368185,-1.71785,0.00763424,0.2363,-0.0373603,0.0021064,0.0179898,0.00067663,-0.0271494,-0.001474,-0.00382418,0.000471817,0,0,0,0,0,0,0,0.0551182,-35.7958,0.0882092,26.828,0.709225,3.02666,0.0706026,
-0.0219858,0.0559791,-0.0364261,-1.71886,0.00960247,0.232718,-0.0372765,0.00464241,0.0541415,0.00401656,-0.0332873,0.267073,-0.290381,0.000745055,0,0,0,0,0,0,0,29.8996,1.19087,29.3799,-12.1596,10.9766,-14.2754,0.104132,-0.0223694,0.0561296,-0.0368119,-1.71857,0.00763289,0.236278,-0.0373613,0.00247964,0.0374683,-9.32199e-06,-0.0264163,-0.00284311,0.00301166,0.000578508,0.0466547,2.43482,-0.0857441,0.0916436,-0.171139,0.85448,0.0133364,0.00751081,-35.7958,0.0366345,26.3281,0.807186,3.02025,0.0706026,
-0.0213088,0.0562578,-0.0357715,-1.71919,0.0134018,0.226576,-0.0371886,0.0206383,0.0502817,0.0195784,-0.0349563,0.308642,-0.385859,0.00279527,0,0,0,0,0,0,0,28.5634,2.26542,27.8268,-10.237,10.9766,-14.2754,0.106531,-0.0223694,0.0561296,-0.0368119,-1.71857,0.00763289,0.236278,-0.0373613,0.00247964,0.0374683,-9.32199e-06,-0.0264163,-0.00284311,0.00301166,0.000578508,0,0,0,0,0,0,0,0.00751081,-35.7958,0.0366345,26.3281,0.807186,3.02025,0.0706026,
-0.0203904,0.0564533,-0.0348875,-1.71953,0.0184135,0.218823,-0.0370997,0.0394707,0.0451104,0.0377619,-0.0363525,0.372204,-0.502518,0.0044572,0,0,0,0,0,0,0,27.1947,2.12996,26.3956,-8.71224,10.9766,-14.2754,0.104482,-0.0223694,0.0561296,-0.0368119,-1.71857,0.00763289,0.236278,-0.0373613,0.00247964,0.0374683,-9.32199e-06,-0.0264163,-0.00284311,0.00301166,0.000578508,0,0,0,0,0,0,0,0.00751081,-35.7958,0.0366345,26.3281,0.807186,3.02025,0.0706026,
-0.0223505,0.0568276,-0.0367932,-1.71922,0.00745217,0.236447,-0.0373568,0.0320505,0.0535372,0.0306773,-0.0454936,0.293246,-0.397798,0.00367874,0,0,0,0,0,0,0,-0.000128326,32.5542,0.00483633,-23.2697,-1.0234,-2.27539,0.000830712,-0.0223694,0.0561296,-0.0368119,-1.71857,0.00763289,0.236278,-0.0373613,0.00247964,0.0374683,-9.32199e-06,-0.0264163,-0.00284311,0.00301166,0.000578508,0,0,0,0,0,0,0,0.00751081,-35.7958,0.0366345,26.3281,0.807186,3.02025,0.0706026,
-0.0217214,0.0570534,-0.0361522,-1.72022,0.00909203,0.23322,-0.0370759,0.0413673,0.0484754,0.0405666,-0.0613741,0.275593,-0.398926,0.00996698,0,0,0,0,0,0,0,43.8585,-1.45617,42.9872,-22.8044,10.9774,-14.2614,0.337111,-0.0223293,0.0576028,-0.0367042,-1.71965,0.00775078,0.235881,-0.0373622,0.00957203,0.0427864,0.0183692,-0.040689,0.00865219,-0.0205409,0.000388708,0.886548,0.664757,2.29731,-1.78409,1.43691,-2.94407,-0.023725,2.56641,-36.5694,2.6114,25.6815,1.10656,2.622,0.0843355,
-0.0206652,0.0571453,-0.0350993,-1.72125,0.0123303,0.227497,-0.0369143,0.059498,0.0410769,0.0587754,-0.0747766,0.301431,-0.462207,0.0120125,0,0,0,0,0,0,0,39.0166,1.49359,38.2949,-20.5013,10.9774,-14.2614,0.178934,-0.0223293,0.0576028,-0.0367042,-1.71965,0.00775078,0.235881,-0.0373622,0.00957203,0.0427864,0.0183692,-0.040689,0.00865219,-0.0205409,0.000388708,0,0,0,0,0,0,0,2.56641,-36.5694,2.6114,25.6815,1.10656,2.622,0.0843355,
-0.0222303,0.0583555,-0.0366073,-1.72037,0.0076707,0.235871,-0.0373594,0.0500744,0.0516785,0.0494418,-0.0777333,0.239143,-0.370007,0.00967918,0,0,0,0,0,0,0,4.79634e-06,32.5956,0.00492472,-23.2603,-1.0226,-2.26135,0.000752739,-0.0223293,0.0576028,-0.0367042,-1.71965,0.00775078,0.235881,-0.0373622,0.00957203,0.0427864,0.0183692,-0.040689,0.00865219,-0.0205409,0.000388708,0,0,0,0,0,0,0,2.56641,-36.5694,2.6114,25.6815,1.10656,2.622,0.0843355,
-0.0213523,0.0583786,-0.0357566,-1.72196,0.00911052,0.232921,-0.0369541,0.0620091,0.0419216,0.060822,-0.101862,0.22731,-0.369763,0.0178757,0,0,0,0,0,0,0,53.0432,-4.54089,51.3726,-32.5004,10.9774,-14.2614,0.482502,-0.0223293,0.0576028,-0.0367042,-1.71965,0.00775078,0.235881,-0.0373622,0.00957203,0.0427864,0.0183692,-0.040689,0.00865219,-0.0205409,0.000388708,0,0,0,0,0,0,0,2.56641,-36.5694,2.6114,25.6815,1.10656,2.622,0.0843355,
-0.0199906,0.0582624,-0.034441,-1.72362,0.0121191,0.227444,-0.03677,0.0836505,0.0306307,0.0815456,-0.123011,0.257063,-0.432734,0.0189043,0,0,0,0,0,0,0,45.3106,-0.401209,43.9446,-29.2843,10.9774,-14.2614,0.196565,-0.0223293,0.0576028,-0.0367042,-1.71965,0.00775078,0.235881,-0.0373622,0.00957203,0.0427864,0.0183692,-0.040689,0.00865219,-0.0205409,0.000388708,0,0,0,0,0,0,0,2.56641,-36.5694,2.6114,25.6815,1.10656,2.622,0.0843355,
-0.0183196,0.0581507,-0.0328256,-1.72526,0.016507,0.220206,-0.0367214,0.108694,0.0217118,0.105622,-0.139511,0.315346,-0.527144,0.0163388,0,0,0,0,0,0,0,40.3435,1.49031,39.1625,-27.0537,10.9788,-14.2387,0.0421314,-0.0215694,0.0591062,-0.0355614,-1.72149,0.00804889,0.234623,-0.0373591,0.0313055,0.0335253,0.0486421,-0.0614268,0.0188139,-0.041133,0.00147919,2.71669,-1.15764,3.78411,-2.59222,1.27021,-2.57401,0.13631,5.9148,-37.0415,5.88838,25.9314,1.27136,2.39037,0.050461,
-0.0213075,0.0598473,-0.035308,-1.72226,0.00811351,0.234421,-0.0373598,0.0935014,0.0358974,0.0908323,-0.130837,0.253892,-0.426765,0.0130524,0,0,0,0,0,0,0,0.00158314,32.6361,0.00458,-23.2444,-1.02118,-2.23865,0.000628517,-0.0215694,0.0591062,-0.0355614,-1.72149,0.00804889,0.234623,-0.0373591,0.0313055,0.0335253,0.0486421,-0.0614268,0.0188139,-0.041133,0.00147919,0,0,0,0,0,0,0,5.9148,-37.0415,5.88838,25.9314,1.27136,2.39037,0.050461,
-0.0201824,0.0597623,-0.0341862,-1.72425,0.00948571,0.231651,-0.036871,0.10293,0.0265937,0.100711,-0.154432,0.237419,-0.410643,0.0226617,0,0,0,0,0,0,0,60.0747,-3.5669,58.4961,-40.2715,10.9788,-14.2387,0.579271,-0.0215694,0.0591062,-0.0355614,-1.72149,0.00804889,0.234623,-0.0373591,0.0313055,0.0335253,0.0486421,-0.0614268,0.0188139,-0.041133,0.00147919,0,0,0,0,0,0,0,5.9148,-37.0415,5.88838,25.9314,1.27136,2.39037,0.050461,
-0.0185465,0.0595894,-0.0325773,-1.72635,0.0124189,0.226376,-0.0366903,0.12324,0.0169507,0.120792,-0.175997,0.263265,-0.460395,0.0226479,0,0,0,0,0,0,0,49.8494,1.41149,48.6705,-36.2663,10.9788,-14.2387,0.184953,-0.0215694,0.0591062,-0.0355614,-1.72149,0.00804889,0.234623,-0.0373591,0.0313055,0.0335253,0.0486421,-0.0614268,0.0188139,-0.041133,0.00147919,0,0,0,0,0,0,0,5.9148,-37.0415,5.88838,25.9314,1.27136,2.39037,0.050461,
-0.0166076,0.0594617,-0.0306803,-1.72845,0.0167924,0.219336,-0.0367003,0.147066,0.0103692,0.144059,-0.193357,0.319948,-0.544327,0.0178676,0,0,0,0,0,0,0,43.4447,3.17649,42.4446,-33.9332,10.987,-14.2028,-0.0325071,-0.0199846,0.0602693,-0.0330332,-1.72475,0.00816594,0.233206,-0.037362,0.0686582,0.0253305,0.120408,-0.119237,0.0030593,-0.0610113,0.000705924,4.66909,-1.02435,8.97068,-7.22626,-1.96932,-2.48478,-0.0966584,9.43775,-35.0459,9.26057,23.4637,1.76025,1.82,0.0440523,
-0.0193888,0.0610715,-0.0324589,-1.72568,0.00834532,0.232664,-0.0373727,0.132548,0.0283492,0.129605,-0.178028,0.260443,-0.449027,0.0140278,0,0,0,0,0,0,0,0.0114594,32.6887,0.0100429,-23.2204,-1.01302,-2.20283,0.000445522,-0.0199846,0.0602693,-0.0330332,-1.72475,0.00816594,0.233206,-0.037362,0.0686582,0.0253305,0.120408,-0.119237,0.0030593,-0.0610113,0.000705924,0,0,0,0,0,0,0,9.43775,-35.0459,9.26057,23.4637,1.76025,1.82,0.0440523,
-0.0179108,0.0609303,-0.0310225,-1.72815,0.00981191,0.229926,-0.0368472,0.142988,0.0191495,0.139594,-0.204228,0.245019,-0.427658,0.024358,0,0,0,0,0,0,0,64.7247,-3.52425,62.627,-47.9608,10.987,-14.2028,0.627421,-0.0199846,0.0602693,-0.0330332,-1.72475,0.00816594,0.233206,-0.037362,0.0686582,0.0253305,0.120408,-0.119237,0.0030593,-0.0610113,0.000705924,0,0,0,0,0,0,0,9.43775,-35.0459,9.26057,23.4637,1.76025,1.82,0.0440523,
-0.0159624,0.0607072,-0.0291281,-1.73078,0.0128905,0.224734,-0.0367107,0.163099,0.00974123,0.159035,-0.228961,0.27298,-0.471919,0.0229013,0,0,0,0,0,0,0,52.2362,1.61796,50.7791,-43.4615,10.987,-14.2028,0.129911,-0.0199846,0.0602693,-0.0330332,-1.72475,0.00816594,0.233206,-0.037362,0.0686582,0.0253305,0.120408,-0.119237,0.0030593,-0.0610113,0.000705924,0,0,0,0,0,0,0,9.43775,-35.0459,9.26057,23.4637,1.76025,1.82,0.0440523,
-0.0117022,0.0606384,-0.0233615,-1.73753,0.0189067,0.214955,-0.0375833,0.181557,0.00257812,0.176882,-0.246267,0.345417,-0.555275,0.0126735,0,0,0,0,0,0,0,52.2473,1.6587,50.7821,-43.4276,10.9967,-14.153,0.12966,-0.017113,0.061258,-0.0286271,-1.73033,0.00820747,0.230865,-0.0373699,0.0918862,0.0270656,0.14878,-0.190885,-0.010337,-0.0715592,-0.00090057,2.9035,0.216885,3.54659,-8.95596,-1.67454,-1.31849,-0.200812,6.42261,-34.2723,6.06294,23.4637,1.75384,2.09832,0.104477,
-0.00954033,0.0604396,-0.0212597,-1.74015,0.0250528,0.20675,-0.0378044,0.199293,-0.00290634,0.19405,-0.262681,0.429985,-0.649355,0.00461016,0,0,0,0,0,0,0,44.5683,2.87717,43.4116,-41.1401,10.9967,-14.153,-0.144356,-0.017113,0.061258,-0.0286271,-1.73033,0.00820747,0.230865,-0.0373699,0.0918862,0.0270656,0.14878,-0.190885,-0.010337,-0.0715592,-0.00090057,0,0,0,0,0,0,0,6.42261,-34.2723,6.06294,23.4637,1.75384,2.09832,0.104477,
-0.00732672,0.0602216,-0.0191075,-1.7429,0.032022,0.197799,-0.0380207,0.214774,-0.00777638,0.209045,-0.278934,0.51822,-0.743245,-0.00171925,0,0,0,0,0,0,0,39.6648,2.50752,38.6639,-39.5957,10.9967,-14.153,-0.288832,-0.017113,0.061258,-0.0286271,-1.73033,0.00820747,0.230865,-0.0373699,0.0918862,0.0270656,0.14878,-0.190885,-0.010337,-0.0715592,-0.00090057,0,0,0,0,0,0,0,6.42261,-34.2723,6.06294,23.4637,1.75384,2.09832,0.104477,
-0.00511715,0.0600145,-0.0169591,-1.74571,0.0396279,0.188288,-0.0382984,0.227059,-0.0113979,0.220947,-0.29336,0.604723,-0.832377,-0.0083178,0,0,0,0,0,0,0,36.3455,1.19087,35.4328,-38.7686,10.9967,-14.153,-0.274282,-0.017113,0.061258,-0.0286271,-1.73033,0.00820747,0.230865,-0.0373699,0.0918862,0.0270656,0.14878,-0.190885,-0.010337,-0.0715592,-0.00090057,0,0,0,0,0,0,0,6.42261,-34.2723,6.06294,23.4637,1.75384,2.09832,0.104477,
-0.0155928,0.0610751,-0.0271438,-1.73258,0.0101433,0.227583,-0.0372555,0.219652,-0.0136898,0.21384,-0.290918,0.532174,-0.747947,-0.0037937,0,0,0,0,0,0,0,52.2815,1.75632,50.8059,-43.3641,11.0231,-14.0668,0.129211,-0.0130123,0.0618625,-0.022876,-1.73775,0.00843711,0.228637,-0.0373684,0.177801,0.0219853,0.231046,-0.272474,0.0237521,-0.0887678,0.000843044,10.7393,-0.63504,10.2832,-10.1987,4.26114,-2.15108,0.217952,9.18384,-33.3241,8.48695,23.4161,1.72912,1.67351,0.0577852,
-0.0137453,0.060847,-0.0253477,-1.735,0.0138254,0.222065,-0.0373574,0.221909,-0.0166556,0.215975,-0.293386,0.517791,-0.736326,-0.00558216,0,0,0,0,0,0,0,44.6025,2.97479,43.4355,-41.0767,11.0231,-14.0668,-0.144805,-0.0130123,0.0618625,-0.022876,-1.73775,0.00843711,0.228637,-0.0373684,0.177801,0.0219853,0.231046,-0.272474,0.0237521,-0.0887678,0.000843044,0,0,0,0,0,0,0,9.18384,-33.3241,8.48695,23.4161,1.72912,1.67351,0.0577852,
-0.0117022,0.0606384,-0.0233615,-1.73753,0.0189067,0.214955,-0.0375833,0.228604,-0.0185393,0.222435,-0.297807,0.541266,-0.766801,-0.0101133,0,0,0,0,0,0,0,39.6991,2.60514,38.6878,-39.5322,11.0231,-14.0668,-0.289281,-0.0130123,0.0618625,-0.022876,-1.73775,0.00843711,0.228637,-0.0373684,0.177801,0.0219853,0.231046,-0.272474,0.0237521,-0.0887678,0.000843044,0,0,0,0,0,0,0,9.18384,-33.3241,8.48695,23.4161,1.72912,1.67351,0.0577852,
-0.00904028,0.0618165,-0.0190264,-1.74256,0.0155867,0.218902,-0.0377258,0.23451,-0.0162502,0.227977,-0.299781,0.545025,-0.761956,-0.0139834,0,0,0,0,0,0,0,44.6025,2.97479,43.4355,-41.0767,11.0231,-14.0668,-0.144805,-0.0130123,0.0618625,-0.022876,-1.73775,0.00843711,0.228637,-0.0373684,0.177801,0.0219853,0.231046,-0.272474,0.0237521,-0.0887678,0.000843044,0,0,0,0,0,0,0,9.18384,-33.3241,8.48695,23.4161,1.72912,1.67351,0.0577852,
-0.0068768,0.0617109,-0.016927,-1.74514,0.0213716,0.211494,-0.0379527,0.241695,-0.0156405,0.234868,-0.304234,0.580643,-0.794761,-0.0168596,0,0,0,0,0,0,0,39.7182,2.5024,38.6912,-39.4888,11.02,-14.0107,-0.289564,-0.00743132,0.0616502,-0.0152895,-1.74812,0.0101068,0.222959,-0.0373756,0.150449,-0.0238367,0.195159,-0.304692,0.0111015,-0.150734,-0.0020142,-3.41904,-5.72775,-4.48588,-4.02726,-1.58132,-7.7458,-0.357156,-7.45099,-45.829,-7.11241,38.587,1.37573,4.60412,0.151169,
-0.00467122,0.0615477,-0.0147851,-1.74785,0.0281203,0.203091,-0.0381725,0.248496,-0.0165931,0.241442,-0.311172,0.633231,-0.845883,-0.0189807,0,0,0,0,0,0,0,36.3989,1.18575,35.46,-38.6617,11.02,-14.0107,-0.275014,-0.00743132,0.0616502,-0.0152895,-1.74812,0.0101068,0.222959,-0.0373756,0.150449,-0.0238367,0.195159,-0.304692,0.0111015,-0.150734,-0.0020142,0,0,0,0,0,0,0,-7.45099,-45.829,-7.11241,38.587,1.37573,4.60412,0.151169,
-0.00247351,0.061371,-0.0126499,-1.75063,0.0355891,0.193958,-0.0384522,0.253739,-0.0176916,0.246532,-0.318351,0.693305,-0.905029,-0.0221776,0,0,0,0,0,0,0,33.0657,-0.543343,32.2242,-38.6226,11.02,-14.0107,-0.265788,-0.00743132,0.0616502,-0.0152895,-1.74812,0.0101068,0.222959,-0.0373756,0.150449,-0.0238367,0.195159,-0.304692,0.0111015,-0.150734,-0.0020142,0,0,0,0,0,0,0,-7.45099,-45.829,-7.11241,38.587,1.37573,4.60412,0.151169,
-0.00402402,0.0612877,-0.0119941,-1.75286,0.0171967,0.212365,-0.0378372,0.247625,-0.0191747,0.240417,-0.315273,0.665786,-0.881093,-0.0234232,0,0,0,0,0,0,0,39.7182,2.5024,38.6912,-39.4888,11.02,-14.0107,-0.289564,-0.00743132,0.0616502,-0.0152895,-1.74812,0.0101068,0.222959,-0.0373756,0.150449,-0.0238367,0.195159,-0.304692,0.0111015,-0.150734,-0.0020142,0,0,0,0,0,0,0,-7.45099,-45.829,-7.11241,38.587,1.37573,4.60412,0.151169,
-0.00213732,0.0610298,-0.0101646,-1.75544,0.022947,0.204766,-0.038056,0.245267,-0.0217877,0.238072,-0.316713,0.676385,-0.894845,-0.0242095,0,0,0,0,0,0,0,36.4457,1.19858,35.4896,-38.5659,11.0444,-13.9081,-0.275586,-0.00108151,0.0616408,-0.00641377,-1.75778,0.0104623,0.217231,-0.0373693,0.217632,-0.0335692,0.282945,-0.270519,0.0162275,-0.198725,-0.000455348,8.39792,-1.21656,10.9732,4.27159,0.640745,-5.9989,0.194857,-1.21045,-41.1833,-0.986925,30.589,1.35742,2.93328,0.104477,
-0.000205362,0.0607619,-0.00828916,-1.75811,0.0296567,0.196219,-0.0383342,0.244513,-0.0241261,0.237344,-0.320085,0.708852,-0.929564,-0.0263214,0,0,0,0,0,0,0,33.1125,-0.530519,32.2537,-38.5268,11.0444,-13.9081,-0.26636,-0.00108151,0.0616408,-0.00641377,-1.75778,0.0104623,0.217231,-0.0373693,0.217632,-0.0335692,0.282945,-0.270519,0.0162275,-0.198725,-0.000455348,0,0,0,0,0,0,0,-1.21045,-41.1833,-0.986925,30.589,1.35742,2.93328,0.104477,
0.00174403,0.0605199,-0.00639564,-1.76081,0.0370418,0.186982,-0.0386332,0.244345,-0.025352,0.237213,-0.323559,0.751708,-0.974566,-0.0285322,0,0,0,0,0,0,0,29.814,-0.946684,29.0564,-37.9239,11.0444,-13.9081,-0.34395,-0.00108151,0.0616408,-0.00641377,-1.75778,0.0104623,0.217231,-0.0373693,0.217632,-0.0335692,0.282945,-0.270519,0.0162275,-0.198725,-0.000455348,0,0,0,0,0,0,0,-1.21045,-41.1833,-0.986925,30.589,1.35742,2.93328,0.104477,
0.00102108,0.061369,-0.00438656,-1.76002,0.0134463,0.212842,-0.0376176,0.248041,-0.0270742,0.240451,-0.314656,0.675966,-0.889389,-0.0290321,0,0,0,0,0,0,0,39.765,2.51522,38.7207,-39.393,11.0444,-13.9081,-0.290137,-0.00108151,0.0616408,-0.00641377,-1.75778,0.0104623,0.217231,-0.0373693,0.217632,-0.0335692,0.282945,-0.270519,0.0162275,-0.198725,-0.000455348,0,0,0,0,0,0,0,-1.21045,-41.1833,-0.986925,30.589,1.35742,2.93328,0.104477,
0.0031802,0.0610763,-0.0023019,-1.76239,0.0183299,0.206579,-0.0378544,0.252411,-0.028979,0.244477,-0.311042,0.662863,-0.868088,-0.0291455,0,0,0,0,0,0,0,36.4457,1.19858,35.4896,-38.5659,11.0444,-13.9081,-0.275586,-0.00108151,0.0616408,-0.00641377,-1.75778,0.0104623,0.217231,-0.0373693,0.217632,-0.0335692,0.282945,-0.270519,0.0162275,-0.198725,-0.000455348,0,0,0,0,0,0,0,-1.21045,-41.1833,-0.986925,30.589,1.35742,2.93328,0.104477,
0.00536106,0.0607465,-0.000190789,-1.76493,0.024527,0.199041,-0.0380798,0.25645,-0.0314285,0.24836,-0.312349,0.685218,-0.882924,-0.0289533,0,0,0,0,0,0,0,33.1127,-0.687662,32.2376,-38.475,11.0371,-13.8417,-0.266641,0.00506573,0.0608469,0.00242023,-1.76796,0.0118959,0.20899,-0.0373698,0.151136,-0.0657799,0.257035,-0.29644,0.0859697,-0.288162,5.79977e-05,-8.31204,-4.02634,-3.23864,-3.24008,8.71777,-11.1796,0.0641682,3.07422,-35.0935,3.23823,22.5671,1.56433,1.38878,0.0843355,
0.00752679,0.060422,0.00190875,-1.76756,0.0316513,0.190572,-0.0383629,0.259303,-0.0332551,0.251176,-0.315771,0.726282,-0.918045,-0.0302379,0,0,0,0,0,0,0,29.8142,-1.10383,29.0402,-37.8721,11.0371,-13.8417,-0.344231,0.00506573,0.0608469,0.00242023,-1.76796,0.0118959,0.20899,-0.0373698,0.151136,-0.0657799,0.257035,-0.29644,0.0859697,-0.288162,5.79977e-05,0,0,0,0,0,0,0,3.07422,-35.0935,3.23823,22.5671,1.56433,1.38878,0.0843355,
0.0086804,0.0599886,0.00591095,-1.77264,0.020155,0.197344,-0.0378239,0.253666,-0.0374783,0.245557,-0.312963,0.706145,-0.900907,-0.0298117,0,0,0,0,0,0,0,36.4459,1.04143,35.4734,-38.5141,11.0371,-13.8417,-0.275867,0.00506573,0.0608469,0.00242023,-1.76796,0.0118959,0.20899,-0.0373698,0.151136,-0.0657799,0.257035,-0.29644,0.0859697,-0.288162,5.79977e-05,0,0,0,0,0,0,0,3.07422,-35.0935,3.23823,22.5671,1.56433,1.38878,0.0843355,
0.0105669,0.0595685,0.00773674,-1.77517,0.0263894,0.189511,-0.0381057,0.250095,-0.0404861,0.24209,-0.313482,0.720775,-0.916545,-0.030894,0,0,0,0,0,0,0,33.1127,-0.687662,32.2376,-38.475,11.0371,-13.8417,-0.266641,0.00506573,0.0608469,0.00242023,-1.76796,0.0118959,0.20899,-0.0373698,0.151136,-0.0657799,0.257035,-0.29644,0.0859697,-0.288162,5.79977e-05,0,0,0,0,0,0,0,3.07422,-35.0935,3.23823,22.5671,1.56433,1.38878,0.0843355,
0.0124712,0.0591938,0.00958244,-1.77775,0.0334646,0.180831,-0.0384067,0.247682,-0.0417574,0.239815,-0.315275,0.753502,-0.950242,-0.032242,0,0,0,0,0,0,0,29.8396,-1.16273,29.048,-37.7775,11.0429,-13.729,-0.344766,0.0104569,0.0604448,0.0118779,-1.77819,0.0152353,0.198354,-0.037364,0.169154,-0.0473721,0.29817,-0.274322,0.107222,-0.363883,0.000907348,2.25229,2.30097,5.14181,2.76471,2.65654,-9.46502,0.106169,0.765262,-36.9423,0.937208,19.9289,0.831906,0.911795,0.0577852,
0.0142299,0.0596108,0.0155144,-1.78292,0.0241962,0.186266,-0.0378878,0.245297,-0.0439694,0.237273,-0.312825,0.737054,-0.931217,-0.0330687,0,0,0,0,0,0,0,33.1381,-0.746561,32.2453,-38.3804,11.0429,-13.729,-0.267176,0.0104569,0.0604448,0.0118779,-1.77819,0.0152353,0.198354,-0.037364,0.169154,-0.0473721,0.29817,-0.274322,0.107222,-0.363883,0.000907348,0,0,0,0,0,0,0,0.765262,-36.9423,0.937208,19.9289,0.831906,0.911795,0.0577852,
0.0161132,0.0592161,0.0173344,-1.78542,0.0307329,0.178296,-0.0381943,0.24332,-0.045042,0.23532,-0.312643,0.75306,-0.944235,-0.0341171,0,0,0,0,0,0,0,29.8396,-1.16273,29.048,-37.7775,11.0429,-13.729,-0.344766,0.0104569,0.0604448,0.0118779,-1.77819,0.0152353,0.198354,-0.037364,0.169154,-0.0473721,0.29817,-0.274322,0.107222,-0.363883,0.000907348,0,0,0,0,0,0,0,0.765262,-36.9423,0.937208,19.9289,0.831906,0.911795,0.0577852,
0.0179959,0.058858,0.0191572,-1.78797,0.0380313,0.169534,-0.0384871,0.241724,-0.0449851,0.233825,-0.313805,0.784909,-0.974425,-0.0346135,0,0,0,0,0,0,0,27.7395,-1.12707,27.0002,-36.8467,11.0429,-13.729,-0.370648,0.0104569,0.0604448,0.0118779,-1.77819,0.0152353,0.198354,-0.037364,0.169154,-0.0473721,0.29817,-0.274322,0.107222,-0.363883,0.000907348,0,0,0,0,0,0,0,0.765262,-36.9423,0.937208,19.9289,0.831906,0.911795,0.0577852,
0.0198761,0.058535,0.0209794,-1.79055,0.0458297,0.160234,-0.0387549,0.240383,-0.0440642,0.232613,-0.315749,0.822887,-1.01203,-0.0343848,0,0,0,0,0,0,0,26.3638,-1.41148,25.6348,-35.982,11.0226,-13.6024,-0.358154,0.0160558,0.0595903,0.0214986,-1.78841,0.0216227,0.185807,-0.0373737,0.178212,-0.0242562,0.290864,-0.310442,0.254836,-0.396052,-0.00162918,1.13225,2.8895,-0.913224,-4.51491,18.4517,-4.02114,-0.317066,4.06208,-32.4236,4.16261,15.5927,1.36932,-0.295786,0.131027,
0.0197586,0.0591015,0.0250673,-1.79333,0.0319123,0.173139,-0.037978,0.2384,-0.0417121,0.230491,-0.314663,0.805724,-0.987502,-0.0353041,0,0,0,0,0,0,0,29.8334,-1.25506,29.0245,-37.6808,11.0226,-13.6024,-0.345333,0.0160558,0.0595903,0.0214986,-1.78841,0.0216227,0.185807,-0.0373737,0.178212,-0.0242562,0.290864,-0.310442,0.254836,-0.396052,-0.00162918,0,0,0,0,0,0,0,4.06208,-32.4236,4.16261,15.5927,1.36932,-0.295786,0.131027,
0.0215962,0.0588341,0.0268424,-1.79586,0.0387811,0.164962,-0.0382741,0.23666,-0.040054,0.228771,-0.315029,0.816298,-0.994413,-0.0356461,0,0,0,0,0,0,0,27.7334,-1.2194,26.9767,-36.75,11.0226,-13.6024,-0.371214,0.0160558,0.0595903,0.0214986,-1.78841,0.0216227,0.185807,-0.0373737,0.178212,-0.0242562,0.290864,-0.310442,0.254836,-0.396052,-0.00162918,0,0,0,0,0,0,0,4.06208,-32.4236,4.16261,15.5927,1.36932,-0.295786,0.131027,
0.0234321,0.0585696,0.0286188,-1.79844,0.0462827,0.15607,-0.0385437,0.235225,-0.0386566,0.227426,-0.316381,0.840578,-1.01783,-0.0352582,0,0,0,0,0,0,0,26.3638,-1.41148,25.6348,-35.982,11.0226,-13.6024,-0.358154,0.0160558,0.0595903,0.0214986,-1.78841,0.0216227,0.185807,-0.0373737,0.178212,-0.0242562,0.290864,-0.310442,0.254836,-0.396052,-0.00162918,0,0,0,0,0,0,0,4.06208,-32.4236,4.16261,15.5927,1.36932,-0.295786,0.131027,
0.0252646,0.0583128,0.0303936,-1.80107,0.0542033,0.146861,-0.0387835,0.233992,-0.037345,0.226312,-0.318761,0.870478,-1.04449,-0.0342019,0,0,0,0,0,0,0,25.2893,-1.78253,24.5646,-35.2291,10.9949,-13.4177,-0.329995,0.022006,0.0590172,0.0313067,-1.79895,0.030433,0.170849,-0.0373729,0.174147,0.0470359,0.281781,-0.320079,0.266002,-0.456992,-0.00127094,-0.508093,8.91151,-1.13543,-1.20465,1.39587,-7.61753,0.0447798,0.0313145,-35.9941,0.163588,22.1942,0.9967,0.51354,0.131027,
0.0271883,0.0592098,0.0362901,-1.80668,0.0477828,0.149328,-0.0382072,0.229872,-0.0309339,0.222188,-0.320593,0.868619,-1.04081,-0.0335213,0,0,0,0,0,0,0,26.3513,-1.49047,25.6047,-35.8988,10.9949,-13.4777,-0.358695,0.022006,0.0590172,0.0313067,-1.79895,0.030433,0.170849,-0.0373729,0.174147,0.0470359,0.281781,-0.320079,0.266002,-0.456992,-0.00127094,0,0,0,0,0,0,0,0.0313145,-35.9941,0.163588,22.1942,0.9967,0.51354,0.131027,
0.0288925,0.059115,0.0379364,-1.80935,0.0552728,0.140753,-0.03842,0.226503,-0.0271155,0.218908,-0.323063,0.882145,-1.04704,-0.032138,0,0,0,0,0,0,0,25.2893,-1.78253,24.5646,-35.2291,10.9949,-13.4177,-0.329995,0.022006,0.0590172,0.0313067,-1.79895,0.030433,0.170849,-0.0373729,0.174147,0.0470359,0.281781,-0.320079,0.266002,-0.456992,-0.00127094,0,0,0,0,0,0,0,0.0313145,-35.9941,0.163588,22.1942,0.9967,0.51354,0.131027,
0.0305948,0.0589911,0.0395827,-1.81207,0.0631619,0.132385,-0.0386024,0.22376,-0.0247904,0.216285,-0.326547,0.902943,-1.04684,-0.0302699,0,0,0,0,0,0,0,24.3605,-2.0604,23.6581,-34.5927,10.9949,-12.7598,-0.295569,0.022006,0.0590172,0.0313067,-1.79895,0.030433,0.170849,-0.0373729,0.174147,0.0470359,0.281781,-0.320079,0.266002,-0.456992,-0.00127094,0,0,0,0,0,0,0,0.0313145,-35.9941,0.163588,22.1942,0.9967,0.51354,0.131027,
0.0334456,0.0581719,0.0460792,-1.81815,0.0594141,0.132979,-0.0380485,0.22206,-0.0213254,0.214488,-0.327719,0.902477,-1.02219,-0.0289795,0,0,0,0,0,0,0,24.3878,-2.19538,23.6675,-34.4547,10.9705,-12.603,-0.296346,0.0281082,0.0580967,0.0409522,-1.81028,0.0408094,0.153569,-0.0373741,0.199521,0.0204863,0.291068,-0.36353,0.358654,-0.482758,-0.0015751,3.17177,-3.3187,1.16088,-5.43147,11.5814,-3.22074,-0.0380193,0.590702,-34.1454,0.663466,25.3085,1.01501,1.06377,0.138352,
0.0351406,0.0580658,0.0477149,-1.82091,0.0671516,0.126179,-0.0382068,0.220025,-0.0197137,0.212483,-0.331163,0.91542,-0.987735,-0.0271412,0,0,0,0,0,0,0,23.5121,-2.41365,22.8147,-33.8154,10.9705,-11.8491,-0.260055,0.0281082,0.0580967,0.0409522,-1.81028,0.0408094,0.153569,-0.0373741,0.199521,0.0204863,0.291068,-0.36353,0.358654,-0.482758,-0.0015751,0,0,0,0,0,0,0,0.590702,-34.1454,0.663466,25.3085,1.01501,1.06377,0.138352,
0.0368163,0.0579404,0.0493336,-1.82374,0.0752246,0.120368,-0.038342,0.21791,-0.018906,0.210456,-0.3357,0.934162,-0.935462,-0.0250937,0,0,0,0,0,0,0,22.6637,-2.56087,21.9858,-33.1368,10.9705,-10.1027,-0.225671,0.0281082,0.0580967,0.0409522,-1.81028,0.0408094,0.153569,-0.0373741,0.199521,0.0204863,0.291068,-0.36353,0.358654,-0.482758,-0.0015751,0,0,0,0,0,0,0,0.590702,-34.1454,0.663466,25.3085,1.01501,1.06377,0.138352,
0.038474,0.0578094,0.0509362,-1.82661,0.0835074,0.115714,-0.0384552,0.215772,-0.0183987,0.208429,-0.340199,0.954399,-0.864741,-0.0229042,0,0,0,0,0,0,0,21.8366,-2.72055,21.1748,-32.4762,10.9705,-7.21801,-0.192222,0.0281082,0.0580967,0.0409522,-1.81028,0.0408094,0.153569,-0.0373741,0.199521,0.0204863,0.291068,-0.36353,0.358654,-0.482758,-0.0015751,0,0,0,0,0,0,0,0.590702,-34.1454,0.663466,25.3085,1.01501,1.06377,0.138352,
0.0299555,0.0582147,0.042724,-1.81289,0.045842,0.147514,-0.0376318,0.218801,-0.0117674,0.211039,-0.337587,0.889333,-0.843161,-0.024765,0,0,0,0,0,0,0,24.3811,-2.36624,23.6416,-34.322,10.9218,-12.4617,-0.297062,0.0344032,0.0575453,0.0511862,-1.82246,0.0531945,0.136657,-0.0373708,0.180425,0.0412199,0.304278,-0.366741,0.376018,-0.485044,-0.000181201,-2.38705,2.5917,1.65126,-0.401372,2.17052,-0.285716,0.174237,-0.932736,-36.7677,-0.637804,33.0051,1.19171,2.23107,0.110886,
0.0317235,0.0582316,0.0444207,-1.81549,0.0522092,0.140368,-0.0378579,0.219241,-0.00899214,0.21125,-0.335061,0.870646,-0.85319,-0.0254654,0,0,0,0,0,0,0,23.5054,-2.58451,22.7889,-33.6828,10.9218,-11.7078,-0.260771,0.0344032,0.0575453,0.0511862,-1.82246,0.0531945,0.136657,-0.0373708,0.180425,0.0412199,0.304278,-0.366741,0.376018,-0.485044,-0.000181201,0,0,0,0,0,0,0,-0.932736,-36.7677,-0.637804,33.0051,1.19171,2.23107,0.110886,
0.0334456,0.0581719,0.0460792,-1.81815,0.0594141,0.132979,-0.0380485,0.218444,-0.0086868,0.21046,-0.334529,0.87664,-0.867274,-0.0251359,0,0,0,0,0,0,0,22.657,-2.73173,21.9599,-33.0042,10.9218,-9.9614,-0.226387,0.0344032,0.0575453,0.0511862,-1.82246,0.0531945,0.136657,-0.0373708,0.180425,0.0412199,0.304278,-0.366741,0.376018,-0.485044,-0.000181201,0,0,0,0,0,0,0,-0.932736,-36.7677,-0.637804,33.0051,1.19171,2.23107,0.110886,
0.0351406,0.0580658,0.0477149,-1.82091,0.0671516,0.126179,-0.0382068,0.217132,-0.00960285,0.209261,-0.336612,0.89475,-0.863799,-0.0240663,0,0,0,0,0,0,0,21.8299,-2.89141,21.1489,-32.3436,10.9218,-7.07673,-0.192937,0.0344032,0.0575453,0.0511862,-1.82246,0.0531945,0.136657,-0.0373708,0.180425,0.0412199,0.304278,-0.366741,0.376018,-0.485044,-0.000181201,0,0,0,0,0,0,0,-0.932736,-36.7677,-0.637804,33.0051,1.19171,2.23107,0.110886,
0.0395598,0.0578975,0.0561335,-1.83074,0.0720085,0.120843,-0.0378862,0.215,-0.00724282,0.207104,-0.339744,0.896847,-0.814321,-0.0228141,0,0,0,0,0,0,0,22.6359,-3.07661,21.9196,-32.8493,10.8494,-9.87496,-0.226908,0.0396185,0.0575829,0.060299,-1.83383,0.0641269,0.120509,-0.0373648,0.153069,-0.0188662,0.262819,-0.297863,0.282557,-0.426535,0.00208437,-3.41944,-7.51076,-5.18238,8.60974,-11.6826,7.31356,0.283197,-3.44403,-44.3532,-2.88725,36.4447,0.770565,3.21252,0.0577852,
0.0411782,0.0578614,0.0576928,-1.8336,0.0797484,0.116788,-0.0380034,0.212462,-0.00669758,0.204666,-0.343125,0.910975,-0.752846,-0.0211809,0,0,0,0,0,0,0,21.8089,-3.23629,21.1086,-32.1887,10.8494,-6.99029,-0.193458,0.0396185,0.0575829,0.060299,-1.83383,0.0641269,0.120509,-0.0373648,0.153069,-0.0188662,0.262819,-0.297863,0.282557,-0.426535,0.00208437,0,0,0,0,0,0,0,-3.44403,-44.3532,-2.88725,36.4447,0.770565,3.21252,0.0577852,
0.042773,0.0577924,0.0592314,-1.83645,0.0877975,0.113732,-0.0381022,0.209838,-0.00708241,0.202196,-0.34593,0.930007,-0.678661,-0.0194133,0,0,0,0,0,0,0,21.0228,-3.53944,20.3419,-31.681,10.8494,-4.57635,-0.168206,0.0396185,0.0575829,0.060299,-1.83383,0.0641269,0.120509,-0.0373648,0.153069,-0.0188662,0.262819,-0.297863,0.282557,-0.426535,0.00208437,0,0,0,0,0,0,0,-3.44403,-44.3532,-2.88725,36.4447,0.770565,3.21252,0.0577852,
0.0443474,0.0577032,0.0607516,-1.83929,0.0960381,0.111687,-0.0381818,0.207232,-0.0078963,0.199762,-0.347611,0.950022,-0.59406,-0.0175227,0,0,0,0,0,0,0,20.3058,-3.84381,19.6455,-31.2593,10.8494,-2.56283,-0.141684,0.0396185,0.0575829,0.060299,-1.83383,0.0641269,0.120509,-0.0373648,0.153069,-0.0188662,0.262819,-0.297863,0.282557,-0.426535,0.00208437,0,0,0,0,0,0,0,-3.44403,-44.3532,-2.88725,36.4447,0.770565,3.21252,0.0577852,
0.0441009,0.0568736,0.0645863,-1.84172,0.0817008,0.112022,-0.0377444,0.202091,-0.0124275,0.194639,-0.34535,0.933015,-0.530226,-0.0165808,0,0,0,0,0,0,0,21.0228,-3.53944,20.3419,-31.681,10.8494,-4.57635,-0.168206,0.0396185,0.0575829,0.060299,-1.83383,0.0641269,0.120509,-0.0373648,0.153069,-0.0188662,0.262819,-0.297863,0.282557,-0.426535,0.00208437,0,0,0,0,0,0,0,-3.44403,-44.3532,-2.88725,36.4447,0.770565,3.21252,0.0577852,
0.0455408,0.0566371,0.0659716,-1.84442,0.0891768,0.110621,-0.0378255,0.197671,-0.0158531,0.190345,-0.343785,0.933313,-0.459213,-0.015292,0,0,0,0,0,0,0,20.279,-4.06012,19.602,-31.1415,10.7859,-2.46198,-0.142259,0.0448769,0.057416,0.0687951,-1.84447,0.0748388,0.107562,-0.0373705,0.127956,-0.0387654,0.22617,-0.301924,0.339225,-0.372194,-0.000937674,-3.13918,-2.4874,-4.58109,-0.507506,7.08349,6.7926,-0.377756,-2.12292,-38.2634,-1.81212,30.0415,0.911556,2.7282,0.11821,
0.046975,0.0564122,0.0673539,-1.8471,0.0970076,0.110021,-0.0378904,0.193991,-0.018306,0.186833,-0.342131,0.942421,-0.382385,-0.013857,0,0,0,0,0,0,0,19.6278,-4.28414,18.9714,-30.7484,10.7859,-0.800609,-0.121669,0.0448769,0.057416,0.0687951,-1.84447,0.0748388,0.107562,-0.0373705,0.127956,-0.0387654,0.22617,-0.301924,0.339225,-0.372194,-0.000937674,0,0,0,0,0,0,0,-2.12292,-38.2634,-1.81212,30.0415,0.911556,2.7282,0.11821,
0.0488624,0.0564849,0.0726048,-1.85242,0.0926357,0.103656,-0.0376303,0.188057,-0.0216663,0.180972,-0.340267,0.926272,-0.318397,-0.0127453,0,0,0,0,0,0,0,19.6278,-4.28414,18.9714,-30.7484,10.7859,-0.800609,-0.121669,0.0448769,0.057416,0.0687951,-1.84447,0.0748388,0.107562,-0.0373705,0.127956,-0.0387654,0.22617,-0.301924,0.339225,-0.372194,-0.000937674,0,0,0,0,0,0,0,-2.12292,-38.2634,-1.81212,30.0415,0.911556,2.7282,0.11821,
0.0501813,0.0562312,0.0738728,-1.85505,0.100047,0.103896,-0.0376788,0.183419,-0.0236753,0.176479,-0.337997,0.92631,-0.248717,-0.011408,0,0,0,0,0,0,0,19.0431,-4.39411,18.4069,-30.3558,10.7859,0.544936,-0.0984217,0.0448769,0.057416,0.0687951,-1.84447,0.0748388,0.107562,-0.0373705,0.127956,-0.0387654,0.22617,-0.301924,0.339225,-0.372194,-0.000937674,0,0,0,0,0,0,0,-2.12292,-38.2634,-1.81212,30.0415,0.911556,2.7282,0.11821,
0.0515065,0.0559996,0.0751491,-1.85764,0.107798,0.104798,-0.0377133,0.179865,-0.0247308,0.173089,-0.335054,0.93482,-0.176428,-0.00998772,0,0,0,0,0,0,0,18.494,-4.56285,17.8617,-29.8387,10.7212,1.73927,-0.0803572,0.0493639,0.0572773,0.0762612,-1.85497,0.0886743,0.0951565,-0.0373695,0.12345,-0.0376063,0.213739,-0.288585,0.451046,-0.352485,0.000970685,-0.563196,0.144887,-1.55387,1.6673,13.9777,2.46368,0.238545,1.88404,-36.9423,2.31386,24.7372,0.960079,1.84655,0.0779268,
0.0528357,0.0557857,0.0764306,-1.86017,0.115774,0.10627,-0.0377335,0.177122,-0.0251325,0.17051,-0.331357,0.947247,-0.104352,-0.00849574,0,0,0,0,0,0,0,18.0092,-4.47902,17.3954,-29.4211,10.7212,2.57987,-0.059681,0.0493639,0.0572773,0.0762612,-1.85497,0.0886743,0.0951565,-0.0373695,0.12345,-0.0376063,0.213739,-0.288585,0.451046,-0.352485,0.000970685,0,0,0,0,0,0,0,1.88404,-36.9423,2.31386,24.7372,0.960079,1.84655,0.0779268,
0.0544457,0.056151,0.0811315,-1.86539,0.115181,0.0965713,-0.0374924,0.173226,-0.0254851,0.166723,-0.32828,0.946453,-0.0445362,-0.00700431,0,0,0,0,0,0,0,18.0092,-4.47902,17.3954,-29.4211,10.7212,2.57987,-0.059681,0.0493639,0.0572773,0.0762612,-1.85497,0.0886743,0.0951565,-0.0373695,0.12345,-0.0376063,0.213739,-0.288585,0.451046,-0.352485,0.000970685,0,0,0,0,0,0,0,1.88404,-36.9423,2.31386,24.7372,0.960079,1.84655,0.0779268,
0.0557083,0.0559604,0.0823473,-1.86785,0.12301,0.0986462,-0.0374881,0.170146,-0.0251539,0.163773,-0.324031,0.95288,0.0162433,-0.0054968,0,0,0,0,0,0,0,17.5586,-4.33394,16.9624,-28.9923,10.7212,3.228,-0.0426293,0.0493639,0.0572773,0.0762612,-1.85497,0.0886743,0.0951565,-0.0373695,0.12345,-0.0376063,0.213739,-0.288585,0.451046,-0.352485,0.000970685,0,0,0,0,0,0,0,1.88404,-36.9423,2.31386,24.7372,0.960079,1.84655,0.0779268,
0.0569703,0.0557853,0.0835635,-1.87024,0.131027,0.101122,-0.0374726,0.167667,-0.0245008,0.161425,-0.318917,0.962723,0.0748836,-0.00401029,0,0,0,0,0,0,0,17.1411,-4.14548,16.5617,-28.5557,10.7212,3.70589,-0.0244554,0.0493639,0.0572773,0.0762612,-1.85497,0.0886743,0.0951565,-0.0373695,0.12345,-0.0376063,0.213739,-0.288585,0.451046,-0.352485,0.000970685,0,0,0,0,0,0,0,1.88404,-36.9423,2.31386,24.7372,0.960079,1.84655,0.0779268,
0.0582281,0.0556198,0.0847765,-1.87256,0.13917,0.103904,-0.0374442,0.165579,-0.0237375,0.159465,-0.313216,0.973753,0.129466,-0.00249758,0,0,0,0,0,0,0,16.7451,-3.93689,16.1817,-28.1154,10.7212,4.0542,-0.00904599,0.0493639,0.0572773,0.0762612,-1.85497,0.0886743,0.0951565,-0.0373695,0.12345,-0.0376063,0.213739,-0.288585,0.451046,-0.352485,0.000970685,0,0,0,0,0,0,0,1.88404,-36.9423,2.31386,24.7372,0.960079,1.84655,0.0779268,
0.0506562,0.0569222,0.0774979,-1.85761,0.0940681,0.0940729,-0.0374251,0.164771,-0.0278676,0.158491,-0.316623,0.913847,0.0764819,-0.0033877,0,0,0,0,0,0,0,18.0092,-4.47902,17.3954,-29.4211,10.7212,2.57987,-0.059681,0.0493639,0.0572773,0.0762612,-1.85497,0.0886743,0.0951565,-0.0373695,0.12345,-0.0376063,0.213739,-0.288585,0.451046,-0.352485,0.000970685,0,0,0,0,0,0,0,1.88404,-36.9423,2.31386,24.7372,0.960079,1.84655,0.0779268,
0.051924,0.0566184,0.0787096,-1.86027,0.100519,0.0941188,-0.0374629,0.16351,-0.0298894,0.157084,-0.319667,0.892347,0.0623348,-0.0036541,0,0,0,0,0,0,0,17.5586,-4.33394,16.9624,-28.9923,10.7212,3.228,-0.0426293,0.0493639,0.0572773,0.0762612,-1.85497,0.0886743,0.0951565,-0.0373695,0.12345,-0.0376063,0.213739,-0.288585,0.451046,-0.352485,0.000970685,0,0,0,0,0,0,0,1.88404,-36.9423,2.31386,24.7372,0.960079,1.84655,0.0779268,
0.0531846,0.0563662,0.0799189,-1.86287,0.107635,0.0950135,-0.0374841,0.162323,-0.0302171,0.155899,-0.320687,0.891784,0.0722346,-0.00345273,0,0,0,0,0,0,0,17.1408,-4.31537,16.5457,-28.4147,10.6591,3.80705,-0.0252532,0.0545008,0.0571574,0.083729,-1.86524,0.103872,0.0870311,-0.0373704,0.149071,-0.0295402,0.210362,-0.302117,0.449369,-0.173045,-0.000563545,3.20252,1.00826,-0.422176,-1.69152,-0.20966,22.43,-0.191779,-0.222592,-33.098,0.211195,19.2307,0.862118,0.904471,0.104477,
0.0544457,0.056151,0.0811315,-1.86539,0.115181,0.0965713,-0.0374924,0.161387,-0.0295528,0.155034,-0.319744,0.902082,0.0967328,-0.0029699,0,0,0,0,0,0,0,16.7447,-4.10677,16.1657,-27.9744,10.6591,4.15537,-0.00984378,0.0545008,0.0571574,0.083729,-1.86524,0.103872,0.0870311,-0.0373704,0.149071,-0.0295402,0.210362,-0.302117,0.449369,-0.173045,-0.000563545,0,0,0,0,0,0,0,-0.222592,-33.098,0.211195,19.2307,0.862118,0.904471,0.104477,
0.0596181,0.0563719,0.0886258,-1.87532,0.130478,0.0924967,-0.0373515,0.15998,-0.0272942,0.153682,-0.315907,0.911051,0.135558,-0.00169376,0,0,0,0,0,0,0,16.7447,-4.10677,16.1657,-27.9744,10.6591,4.15537,-0.00984378,0.0545008,0.0571574,0.083729,-1.86524,0.103872,0.0870311,-0.0373704,0.149071,-0.0295402,0.210362,-0.302117,0.449369,-0.173045,-0.000563545,0,0,0,0,0,0,0,-0.222592,-33.098,0.211195,19.2307,0.862118,0.904471,0.104477,
0.0608391,0.0562383,0.0898006,-1.87765,0.138331,0.0951924,-0.0373121,0.15851,-0.0251751,0.152315,-0.310896,0.925158,0.17584,-0.00037012,0,0,0,0,0,0,0,16.3696,-3.88886,15.8058,-27.534,10.6591,4.39417,0.00613761,0.0545008,0.0571574,0.083729,-1.86524,0.103872,0.0870311,-0.0373704,0.149071,-0.0295402,0.210362,-0.302117,0.449369,-0.173045,-0.000563545,0,0,0,0,0,0,0,-0.222592,-33.098,0.211195,19.2307,0.862118,0.904471,0.104477,
0.0620456,0.0561098,0.0909628,-1.8799,0.146367,0.0981565,-0.0372616,0.156971,-0.0233535,0.150906,-0.305151,0.941039,0.214773,0.000966732,0,0,0,0,0,0,0,15.9632,-3.83883,15.3999,-27.0277,10.5793,4.59981,0.0203243,0.0588781,0.0569601,0.0910858,-1.87513,0.118993,0.0852517,-0.0373713,0.105259,0.0260378,0.199337,-0.258557,0.385012,0.00747414,0.000406123,-5.4765,6.94726,-1.37804,5.4451,-8.04469,22.5649,0.121209,-3.19012,-37.2398,-2.56194,26.0068,1.08184,1.63415,0.0843355,
0.0632669,0.0568515,0.0952735,-1.88469,0.14441,0.0941886,-0.0372102,0.15237,-0.0198138,0.146401,-0.301327,0.936844,0.243177,0.00230531,0,0,0,0,0,0,0,15.6005,-3.63338,15.0521,-26.598,10.5793,4.70794,0.0372184,0.0588781,0.0569601,0.0910858,-1.87513,0.118993,0.0852517,-0.0373713,0.105259,0.0260378,0.199337,-0.258557,0.385012,0.00747414,0.000406123,0,0,0,0,0,0,0,-3.19012,-37.2398,-2.56194,26.0068,1.08184,1.63415,0.0843355,
0.0643288,0.0567974,0.0962924,-1.8869,0.152092,0.0972451,-0.037144,0.148444,-0.0172034,0.142593,-0.296336,0.941545,0.270953,0.00349927,0,0,0,0,0,0,0,15.1917,-3.43769,14.6608,-26.1793,10.5793,4.76944,0.052129,0.0588781,0.0569601,0.0910858,-1.87513,0.118993,0.0852517,-0.0373713,0.105259,0.0260378,0.199337,-0.258557,0.385012,0.00747414,0.000406123,0,0,0,0,0,0,0,-3.19012,-37.2398,-2.56194,26.0068,1.08184,1.63415,0.0843355,
0.0653783,0.0567359,0.0972962,-1.88904,0.159997,0.100421,-0.03708,0.144994,-0.0153007,0.139167,-0.290542,0.950854,0.296156,0.00439804,0,0,0,0,0,0,0,14.7301,-3.25073,14.2208,-25.7787,10.5793,4.79662,0.0663098,0.0588781,0.0569601,0.0910858,-1.87513,0.118993,0.0852517,-0.0373713,0.105259,0.0260378,0.199337,-0.258557,0.385012,0.00747414,0.000406123,0,0,0,0,0,0,0,-3.19012,-37.2398,-2.56194,26.0068,1.08184,1.63415,0.0843355,
0.066431,0.056669,0.0983042,-1.8911,0.167672,0.103652,-0.0370168,0.142312,-0.0139117,0.136536,-0.283856,0.952561,0.317705,0.00509757,0,0,0,0,0,0,0,14.1872,-3.1424,13.6828,-25.3455,10.5355,4.82477,0.0800057,0.0620933,0.0574436,0.0975573,-1.88236,0.12909,0.0854111,-0.0373699,0.102453,0.0552309,0.193388,-0.199755,0.297942,0.00664674,-0.000622266,-0.350763,3.64913,-0.743643,7.35022,-10.8836,-0.103425,-0.128549,-1.84521,-35.6212,-1.36382,23.8129,1.08184,0.911795,0.110886,
0.0651922,0.0575253,0.100498,-1.88929,0.146317,0.0921141,-0.0372183,0.138791,-0.0113302,0.132966,-0.284293,0.929921,0.321829,0.00568057,0,0,0,0,0,0,0,14.7112,-3.33429,14.187,-25.7326,10.5355,4.82723,0.0663642,0.0620933,0.0574436,0.0975573,-1.88236,0.12909,0.0854111,-0.0373699,0.102453,0.0552309,0.193388,-0.199755,0.297942,0.00664674,-0.000622266,0,0,0,0,0,0,0,-1.84521,-35.6212,-1.36382,23.8129,1.08184,0.911795,0.110886,
0.0661749,0.0575081,0.101432,-1.89149,0.153565,0.0950425,-0.037155,0.135601,-0.00949211,0.129724,-0.282572,0.925137,0.330673,0.00612843,0,0,0,0,0,0,0,14.1872,-3.1424,13.6828,-25.3455,10.5355,4.82477,0.0800057,0.0620933,0.0574436,0.0975573,-1.88236,0.12909,0.0854111,-0.0373699,0.102453,0.0552309,0.193388,-0.199755,0.297942,0.00664674,-0.000622266,0,0,0,0,0,0,0,-1.84521,-35.6212,-1.36382,23.8129,1.08184,0.911795,0.110886,
0.0671649,0.0574832,0.102376,-1.8936,0.160788,0.0980981,-0.0370918,0.133231,-0.00821796,0.127377,-0.278824,0.920666,0.340927,0.00648122,0,0,0,0,0,0,0,13.5704,-2.92344,13.0815,-24.962,10.5355,4.76769,0.0859793,0.0620933,0.0574436,0.0975573,-1.88236,0.12909,0.0854111,-0.0373699,0.102453,0.0552309,0.193388,-0.199755,0.297942,0.00664674,-0.000622266,0,0,0,0,0,0,0,-1.84521,-35.6212,-1.36382,23.8129,1.08184,0.911795,0.110886,
0.06317,0.0575239,0.0985783,-1.88465,0.133701,0.0870716,-0.0373378,0.133502,-0.00456842,0.127427,-0.280301,0.851824,0.314255,0.00598699,0,0,0,0,0,0,0,14.7112,-3.33429,14.187,-25.7326,10.5355,4.82723,0.0663642,0.0620933,0.0574436,0.0975573,-1.88236,0.12909,0.0854111,-0.0373699,0.102453,0.0552309,0.193388,-0.199755,0.297942,0.00664674,-0.000622266,0,0,0,0,0,0,0,-1.84521,-35.6212,-1.36382,23.8129,1.08184,0.911795,0.110886,
0.0641945,0.0575333,0.0995488,-1.887,0.139603,0.0894075,-0.0372824,0.132414,-0.00341884,0.126205,-0.283036,0.828991,0.309802,0.00617377,0,0,0,0,0,0,0,14.1941,-3.22947,13.6753,-25.3179,10.4929,4.8505,0.0798304,0.0651642,0.0576468,0.103862,-1.88902,0.13988,0.0858531,-0.0373652,0.0832811,0.0168483,0.173515,-0.210558,0.355022,0.03452,0.000841794,-2.39643,-4.79782,-2.48412,-1.35042,7.1349,3.48416,0.183007,3.30432,-33.947,3.41279,26.3797,1.52221,1.32928,0.0706026,
0.0651922,0.0575253,0.100498,-1.88929,0.146317,0.0921141,-0.0372183,0.130873,-0.00293589,0.124701,-0.283637,0.831065,0.315507,0.00654153,0,0,0,0,0,0,0,13.5773,-3.01051,13.0741,-24.9345,10.4929,4.79343,0.085804,0.0651642,0.0576468,0.103862,-1.88902,0.13988,0.0858531,-0.0373652,0.0832811,0.0168483,0.173515,-0.210558,0.355022,0.03452,0.000841794,0,0,0,0,0,0,0,3.30432,-33.947,3.41279,26.3797,1.52221,1.32928,0.0706026,
0.0661749,0.0575081,0.101432,-1.89149,0.153565,0.0950425,-0.037155,0.129266,-0.00277668,0.123113,-0.282047,0.846052,0.325616,0.0068172,0,0,0,0,0,0,0,12.9547,-2.75254,12.4177,-24.5342,10.4929,4.69091,0.0831254,0.0651642,0.0576468,0.103862,-1.88902,0.13988,0.0858531,-0.0373652,0.0832811,0.0168483,0.173515,-0.210558,0.355022,0.03452,0.000841794,0,0,0,0,0,0,0,3.30432,-33.947,3.41279,26.3797,1.52221,1.32928,0.0706026,
0.0688908,0.0574106,0.107391,-1.89746,0.161583,0.095119,-0.0371391,0.127077,-0.00339557,0.12108,-0.275635,0.812173,0.329786,0.00690035,0,0,0,0,0,0,0,12.9547,-2.75254,12.4177,-24.5342,10.4929,4.69091,0.0831254,0.0651642,0.0576468,0.103862,-1.88902,0.13988,0.0858531,-0.0373652,0.0832811,0.0168483,0.173515,-0.210558,0.355022,0.03452,0.000841794,0,0,0,0,0,0,0,3.30432,-33.947,3.41279,26.3797,1.52221,1.32928,0.0706026,
0.0698593,0.0573625,0.108318,-1.89938,0.166464,0.0980006,-0.0370829,0.125874,-0.00391831,0.120053,-0.268455,0.771772,0.33587,0.00692388,0,0,0,0,0,0,0,12.4067,-2.50559,11.8197,-24.0622,9.098,4.6205,0.0784108,0.0680947,0.0582176,0.10918,-1.89553,0.153422,0.0875769,-0.0373669,0.110236,0.0262226,0.154566,-0.199857,0.393052,0.0777404,0.000829848,3.3694,1.17179,-2.36868,1.33765,4.75376,5.40255,-0.00149319,-2.98779,-37.4144,-2.36357,28.9465,1.26495,1.72021,0.0779268,
0.0708451,0.057308,0.109264,-1.90123,0.170728,0.10094,-0.0370286,0.125345,-0.00449866,0.119693,-0.260968,0.724027,0.342173,0.00689765,0,0,0,0,0,0,0,11.9392,-2.22067,11.3477,-23.6059,7.47965,4.49345,0.0736197,0.0680947,0.0582176,0.10918,-1.89553,0.153422,0.0875769,-0.0373669,0.110236,0.0262226,0.154566,-0.199857,0.393052,0.0777404,0.000829848,0,0,0,0,0,0,0,-2.98779,-37.4144,-2.36357,28.9465,1.26495,1.72021,0.0779268,
0.0718425,0.0572443,0.110222,-1.90301,0.174352,0.103901,-0.0369742,0.125212,-0.0051901,0.119714,-0.253495,0.669803,0.347768,0.00687684,0,0,0,0,0,0,0,11.5732,-1.97352,10.99,-23.1457,6.12162,4.3606,0.0680615,0.0680947,0.0582176,0.10918,-1.89553,0.153422,0.0875769,-0.0373669,0.110236,0.0262226,0.154566,-0.199857,0.393052,0.0777404,0.000829848,0,0,0,0,0,0,0,-2.98779,-37.4144,-2.36357,28.9465,1.26495,1.72021,0.0779268,
0.0720674,0.058159,0.112964,-1.90332,0.168085,0.0966767,-0.0371667,0.124831,-0.00485133,0.119378,-0.249253,0.616337,0.34413,0.00683047,0,0,0,0,0,0,0,11.5732,-1.97352,10.99,-23.1457,6.12162,4.3606,0.0680615,0.0680947,0.0582176,0.10918,-1.89553,0.153422,0.0875769,-0.0373669,0.110236,0.0262226,0.154566,-0.199857,0.393052,0.0777404,0.000829848,0,0,0,0,0,0,0,-2.98779,-37.4144,-2.36357,28.9465,1.26495,1.72021,0.0779268,
0.0730557,0.0581212,0.113912,-1.90511,0.170823,0.0994049,-0.0371131,0.124573,-0.00482596,0.119197,-0.244252,0.561535,0.343509,0.00680436,0,0,0,0,0,0,0,11.2989,-1.85868,10.7154,-22.674,4.88997,4.23079,0.0656822,0.0709564,0.0588034,0.113999,-1.90129,0.162752,0.0905574,-0.0373677,0.062836,-0.00235505,0.134,-0.170053,0.215156,0.0814974,0.00141963,-5.92505,-3.57221,-2.57067,3.72553,-22.2369,0.469618,0.0737232,-1.99597,-37.1407,-1.36382,29.5694,1.39953,2.33727,0.0641939,
0.0740442,0.0580713,0.114861,-1.90685,0.173074,0.102184,-0.037058,0.124371,-0.00510863,0.119083,-0.238866,0.505498,0.344294,0.00681969,0,0,0,0,0,0,0,11.1207,-1.71992,10.5529,-22.2248,3.87572,4.11868,0.0635388,0.0709564,0.0588034,0.113999,-1.90129,0.162752,0.0905574,-0.0373677,0.062836,-0.00235505,0.134,-0.170053,0.215156,0.0814974,0.00141963,0,0,0,0,0,0,0,-1.99597,-37.1407,-1.36382,29.5694,1.39953,2.33727,0.0641939,
0.07503,0.0580085,0.115808,-1.90854,0.174867,0.104988,-0.0370021,0.124142,-0.00565656,0.118945,-0.233366,0.449216,0.345531,0.00685399,0,0,0,0,0,0,0,11.0067,-1.63372,10.4545,-21.7847,2.98776,4.01962,0.0639551,0.0709564,0.0588034,0.113999,-1.90129,0.162752,0.0905574,-0.0373677,0.062836,-0.00235505,0.134,-0.170053,0.215156,0.0814974,0.00141963,0,0,0,0,0,0,0,-1.99597,-37.1407,-1.36382,29.5694,1.39953,2.33727,0.0641939,
0.0743476,0.0582868,0.117241,-1.90828,0.169708,0.0995509,-0.0371507,0.121367,-0.00716651,0.116281,-0.229238,0.393675,0.341413,0.00692015,0,0,0,0,0,0,0,11.0067,-1.63372,10.4545,-21.7847,2.98776,4.01962,0.0639551,0.0709564,0.0588034,0.113999,-1.90129,0.162752,0.0905574,-0.0373677,0.062836,-0.00235505,0.134,-0.170053,0.215156,0.0814974,0.00141963,0,0,0,0,0,0,0,-1.99597,-37.1407,-1.36382,29.5694,1.39953,2.33727,0.0641939,
0.0752436,0.0581864,0.118101,-1.90994,0.170778,0.102234,-0.0370919,0.119494,-0.0082417,0.114509,-0.224851,0.341697,0.340206,0.00700614,0,0,0,0,0,0,0,10.9286,-1.6236,10.3795,-21.3365,2.22263,3.94967,0.0643444,0.0730813,0.0596504,0.118535,-1.90623,0.17015,0.0929562,-0.0373721,0.0550073,0.00226526,0.126189,-0.135063,0.198132,0.0382885,-0.00110623,-0.978584,0.577539,-0.976369,4.37367,-2.12799,-5.40111,-0.315733,0.614505,-37.2398,0.988783,25.856,1.59546,1.78612,0.124619,
0.0761477,0.0580857,0.118968,-1.91156,0.171568,0.104962,-0.0370324,0.118197,-0.00911182,0.113302,-0.220364,0.293105,0.340356,0.00709185,0,0,0,0,0,0,0,10.882,-1.61951,10.3487,-20.9172,1.58993,3.8746,0.0663369,0.0730813,0.0596504,0.118535,-1.90623,0.17015,0.0929562,-0.0373721,0.0550073,0.00226526,0.126189,-0.135063,0.198132,0.0382885,-0.00110623,0,0,0,0,0,0,0,0.614505,-37.2398,0.988783,25.856,1.59546,1.78612,0.124619,
0.0781941,0.0587771,0.123465,-1.91544,0.172767,0.10617,-0.0369958,0.116419,-0.0106106,0.111654,-0.213121,0.23296,0.336489,0.0072423,0,0,0,0,0,0,0,10.776,-1.74935,10.2898,-19.7104,0.337615,3.70372,0.071653,0.0730813,0.0596504,0.118535,-1.90623,0.17015,0.0929562,-0.0373721,0.0550073,0.00226526,0.126189,-0.135063,0.198132,0.0382885,-0.00110623,0,0,0,0,0,0,0,0.614505,-37.2398,0.988783,25.856,1.59546,1.78612,0.124619,
0.0790611,0.058643,0.124298,-1.91688,0.17263,0.108766,-0.0369336,0.11481,-0.0118424,0.110154,-0.206526,0.182959,0.334097,0.00734823,0,0,0,0,0,0,0,10.7299,-1.81805,10.258,-19.3202,0.0809081,3.65849,0.0736871,0.0730813,0.0596504,0.118535,-1.90623,0.17015,0.0929562,-0.0373721,0.0550073,0.00226526,0.126189,-0.135063,0.198132,0.0382885,-0.00110623,0,0,0,0,0,0,0,0.614505,-37.2398,0.988783,25.856,1.59546,1.78612,0.124619,
0.0799178,0.0585062,0.125121,-1.91829,0.17245,0.111372,-0.0368719,0.113267,-0.0128943,0.108708,-0.200466,0.141868,0.332432,0.00742138,0,0,0,0,0,0,0,10.669,-1.91887,10.1989,-18.9014,-0.116372,3.64323,0.074831,0.075364,0.0603976,0.122903,-1.91051,0.175455,0.0937003,-0.0373759,0.0760309,0.00713526,0.128338,-0.124284,0.124995,0.0217054,-0.00078081,2.62794,0.60875,0.2686,1.34745,-9.14218,-2.07288,0.0406777,0.638309,-34.0462,1.11177,22.218,1.55883,1.33568,0.124619,
0.0807623,0.0583661,0.125933,-1.91967,0.172254,0.113977,-0.036811,0.111726,-0.0138177,0.107256,-0.19485,0.108581,0.331058,0.0074592,0,0,0,0,0,0,0,10.5957,-1.99166,10.1389,-18.5189,-0.249509,3.60631,0.0762075,0.075364,0.0603976,0.122903,-1.91051,0.175455,0.0937003,-0.0373759,0.0760309,0.00713526,0.128338,-0.124284,0.124995,0.0217054,-0.00078081,0,0,0,0,0,0,0,0.638309,-34.0462,1.11177,22.218,1.55883,1.33568,0.124619,
0.080519,0.0595543,0.127877,-1.91897,0.176337,0.10593,-0.037005,0.110325,-0.0145547,0.105933,-0.189379,0.0845004,0.325428,0.00744294,0,0,0,0,0,0,0,10.4021,-2.12698,9.97078,-17.7609,-0.373164,3.54259,0.0773887,0.075364,0.0603976,0.122903,-1.91051,0.175455,0.0937003,-0.0373759,0.0760309,0.00713526,0.128338,-0.124284,0.124995,0.0217054,-0.00078081,0,0,0,0,0,0,0,0.638309,-34.0462,1.11177,22.218,1.55883,1.33568,0.124619,
0.0813392,0.0594123,0.128665,-1.92028,0.176246,0.10839,-0.0369474,0.108763,-0.015194,0.104445,-0.184121,0.0653429,0.32184,0.00739537,0,0,0,0,0,0,0,10.2822,-2.18604,9.86307,-17.3841,-0.380838,3.51445,0.077296,0.075364,0.0603976,0.122903,-1.91051,0.175455,0.0937003,-0.0373759,0.0760309,0.00713526,0.128338,-0.124284,0.124995,0.0217054,-0.00078081,0,0,0,0,0,0,0,0.638309,-34.0462,1.11177,22.218,1.55883,1.33568,0.124619,
0.0821409,0.0592677,0.129435,-1.92155,0.176179,0.110868,-0.0368913,0.107054,-0.0157709,0.102808,-0.179059,0.0506013,0.319414,0.00731835,0,0,0,0,0,0,0,10.1484,-2.26455,9.72947,-16.9782,-0.370601,3.50416,0.0771309,0.0785016,0.0610581,0.127104,-1.91488,0.177025,0.0944074,-0.0373718,0.0963339,0.0198535,0.121358,-0.135778,0.00622198,0.0323897,-0.000523903,2.53788,1.58978,-0.872488,-1.43683,-14.8466,1.33553,0.0321133,1.47541,-32.6259,1.86159,20.0519,1.39404,0.500723,0.0980684,
0.082924,0.0591203,0.130187,-1.92279,0.176148,0.11335,-0.0368368,0.10522,-0.0163011,0.101047,-0.174174,0.0396956,0.31758,0.00721794,0,0,0,0,0,0,0,10.0011,-2.30917,9.59336,-16.6029,-0.33349,3.47783,0.0764062,0.0785016,0.0610581,0.127104,-1.91488,0.177025,0.0944074,-0.0373718,0.0963339,0.0198535,0.121358,-0.135778,0.00622198,0.0323897,-0.000523903,0,0,0,0,0,0,0,1.47541,-32.6259,1.86159,20.0519,1.39404,0.500723,0.0980684,
0.0834035,0.0606103,0.131815,-1.92283,0.177216,0.105736,-0.0370441,0.1033,-0.0157332,0.0991796,-0.169823,0.0335992,0.310692,0.00704734,0,0,0,0,0,0,0,9.67192,-2.37593,9.28505,-15.8529,-0.222881,3.4242,0.0743263,0.0785016,0.0610581,0.127104,-1.91488,0.177025,0.0944074,-0.0373718,0.0963339,0.0198535,0.121358,-0.135778,0.00622198,0.0323897,-0.000523903,0,0,0,0,0,0,0,1.47541,-32.6259,1.86159,20.0519,1.39404,0.500723,0.0980684,
0.084147,0.0604937,0.132528,-1.92401,0.177334,0.108045,-0.0369951,0.101227,-0.0155022,0.0971665,-0.165278,0.029806,0.306282,0.0068613,0,0,0,0,0,0,0,9.49238,-2.39845,9.11529,-15.4782,-0.156245,3.39648,0.0729452,0.0785016,0.0610581,0.127104,-1.91488,0.177025,0.0944074,-0.0373718,0.0963339,0.0198535,0.121358,-0.135778,0.00622198,0.0323897,-0.000523903,0,0,0,0,0,0,0,1.47541,-32.6259,1.86159,20.0519,1.39404,0.500723,0.0980684,
0.0848695,0.0603693,0.133221,-1.92515,0.177496,0.110379,-0.0369482,0.0990459,-0.0155119,0.0950512,-0.160638,0.0279095,0.303361,0.00666332,0,0,0,0,0,0,0,9.29944,-2.45865,8.92348,-15.0756,-0.0824101,3.38514,0.0711252,0.0818051,0.0614235,0.130904,-1.91949,0.176923,0.0957449,-0.0373691,0.0862161,0.0281983,0.106931,-0.139083,-0.0049329,0.0569359,0.00144528,-1.26473,1.0431,-1.80343,-0.413075,-1.39436,3.06828,0.246148,-0.349545,-35.7204,0.238966,24.5627,1.66229,0.957571,0.0641939,
0.086114,0.0612656,0.135033,-1.92673,0.177896,0.106602,-0.0370948,0.0959737,-0.0144975,0.0920566,-0.155507,0.0290008,0.296259,0.00635085,0,0,0,0,0,0,0,8.69485,-2.4702,8.34558,-13.9515,0.133837,3.29697,0.0649784,0.0818051,0.0614235,0.130904,-1.91949,0.176923,0.0957449,-0.0373691,0.0862161,0.0281983,0.106931,-0.139083,-0.0049329,0.0569359,0.00144528,0,0,0,0,0,0,0,-0.349545,-35.7204,0.238966,24.5627,1.66229,0.957571,0.0641939,
0.0867638,0.0611685,0.135655,-1.92777,0.178202,0.108786,-0.0370562,0.0930236,-0.0140262,0.0891865,-0.150249,0.0308425,0.291587,0.00604599,0,0,0,0,0,0,0,8.48301,-2.46401,8.14215,-13.5767,0.201179,3.26631,0.06258,0.0818051,0.0614235,0.130904,-1.91949,0.176923,0.0957449,-0.0373691,0.0862161,0.0281983,0.106931,-0.139083,-0.0049329,0.0569359,0.00144528,0,0,0,0,0,0,0,-0.349545,-35.7204,0.238966,24.5627,1.66229,0.957571,0.0641939,
0.0873942,0.0610601,0.136258,-1.92876,0.178541,0.110991,-0.0370198,0.0901802,-0.0139291,0.0864248,-0.14497,0.0331689,0.288405,0.00574723,0,0,0,0,0,0,0,8.26756,-2.45392,7.93481,-13.2021,0.262305,3.23398,0.0601397,0.0818051,0.0614235,0.130904,-1.91949,0.176923,0.0957449,-0.0373691,0.0862161,0.0281983,0.106931,-0.139083,-0.0049329,0.0569359,0.00144528,0,0,0,0,0,0,0,-0.349545,-35.7204,0.238966,24.5627,1.66229,0.957571,0.0641939,
0.0880057,0.0609428,0.136843,-1.92971,0.17891,0.113205,-0.0369855,0.0874319,-0.0140779,0.0837594,-0.139737,0.0357417,0.286079,0.00545446,0,0,0,0,0,0,0,8.04887,-2.44022,7.72409,-12.8274,0.318502,3.20149,0.0575604,0.0818051,0.0614235,0.130904,-1.91949,0.176923,0.0957449,-0.0373691,0.0862161,0.0281983,0.106931,-0.139083,-0.0049329,0.0569359,0.00144528,0,0,0,0,0,0,0,-0.349545,-35.7204,0.238966,24.5627,1.66229,0.957571,0.0641939,
0.0890743,0.0616204,0.139327,-1.93085,0.179428,0.109141,-0.0371554,0.0841427,-0.0134403,0.0805549,-0.133152,0.039516,0.27892,0.00499639,0,0,0,0,0,0,0,7.38086,-2.42013,7.06978,-11.6758,0.446653,3.11413,0.049486,0.0844633,0.0617746,0.134917,-1.92374,0.176817,0.0974254,-0.0373684,0.0720279,0.0289969,0.133658,-0.126725,-0.0010119,0.042712,0.00123437,-1.77352,0.0998257,3.34083,1.54481,0.490126,-1.77799,-0.0263646,-0.349545,-35.0697,0.163588,25.8084,1.68701,1.24962,0.0577852,
0.0896187,0.0615213,0.139847,-1.93166,0.179861,0.11117,-0.0371321,0.0809225,-0.0132291,0.077424,-0.126776,0.0424522,0.273864,0.0045807,0,0,0,0,0,0,0,7.15485,-2.39739,6.85104,-11.3011,0.473237,3.07952,0.0467401,0.0844633,0.0617746,0.134917,-1.92374,0.176817,0.0974254,-0.0373684,0.0720279,0.0289969,0.133658,-0.126725,-0.0010119,0.042712,0.00123437,0,0,0,0,0,0,0,-0.349545,-35.0697,0.163588,25.8084,1.68701,1.24962,0.0577852,
0.0901408,0.0614126,0.140344,-1.93243,0.180286,0.113212,-0.0371107,0.0777926,-0.0133008,0.0743855,-0.120639,0.0445905,0.270136,0.00419974,0,0,0,0,0,0,0,6.92809,-2.37354,6.63138,-10.9263,0.491259,3.04444,0.0440208,0.0844633,0.0617746,0.134917,-1.92374,0.176817,0.0974254,-0.0373684,0.0720279,0.0289969,0.133658,-0.126725,-0.0010119,0.042712,0.00123437,0,0,0,0,0,0,0,-0.349545,-35.0697,0.163588,25.8084,1.68701,1.24962,0.0577852,
0.090642,0.0612963,0.140822,-1.93316,0.180699,0.115256,-0.0370912,0.0747627,-0.0135493,0.0714474,-0.11475,0.0459947,0.267194,0.00384677,0,0,0,0,0,0,0,6.70078,-2.34879,6.41111,-10.5513,0.501994,3.00973,0.0412879,0.0844633,0.0617746,0.134917,-1.92374,0.176817,0.0974254,-0.0373684,0.0720279,0.0289969,0.133658,-0.126725,-0.0010119,0.042712,0.00123437,0,0,0,0,0,0,0,-0.349545,-35.0697,0.163588,25.8084,1.68701,1.24962,0.0577852,
0.090388,0.0615878,0.142449,-1.93318,0.178977,0.108595,-0.0372428,0.0712977,-0.0132958,0.0680778,-0.108284,0.0458282,0.259948,0.00341285,0,0,0,0,0,0,0,6.02133,-2.32899,5.74379,-9.40304,0.490626,2.91705,0.033229,0.0866062,0.0620619,0.138842,-1.92751,0.176635,0.0981351,-0.0373721,0.0562527,0.00748153,0.113887,-0.104465,-0.00345805,0.00724125,0.00056924,-1.9719,-2.68942,-2.47131,2.78246,-0.305769,-4.43385,-0.0831409,-0.627255,-36.7439,-0.0387439,28.5458,1.75384,1.9262,0.0907442,
0.0908257,0.0614816,0.142865,-1.9338,0.17933,0.110461,-0.0372313,0.0679791,-0.0132905,0.0648553,-0.102041,0.0454851,0.2546,0.00301841,0,0,0,0,0,0,0,5.79635,-2.30423,5.5256,-9.02667,0.474512,2.88251,0.0306192,0.0866062,0.0620619,0.138842,-1.92751,0.176635,0.0981351,-0.0373721,0.0562527,0.00748153,0.113887,-0.104465,-0.00345805,0.00724125,0.00056924,0,0,0,0,0,0,0,-0.627255,-36.7439,-0.0387439,28.5458,1.75384,1.9262,0.0907442,
0.0912425,0.0613688,0.143261,-1.93438,0.179678,0.112324,-0.0372217,0.0648048,-0.0134538,0.061776,-0.0960355,0.0450994,0.250267,0.00265514,0,0,0,0,0,0,0,5.57342,-2.28022,5.30943,-8.64979,0.453677,2.84728,0.028068,0.0866062,0.0620619,0.138842,-1.92751,0.176635,0.0981351,-0.0373721,0.0562527,0.00748153,0.113887,-0.104465,-0.00345805,0.00724125,0.00056924,0,0,0,0,0,0,0,-0.627255,-36.7439,-0.0387439,28.5458,1.75384,1.9262,0.0907442,
0.0916395,0.0612504,0.143637,-1.93491,0.180031,0.114167,-0.037214,0.0617675,-0.0137231,0.0588321,-0.0902639,0.0448814,0.246289,0.00231595,0,0,0,0,0,0,0,5.35325,-2.25708,5.09605,-8.27231,0.43066,2.81086,0.0255419,0.0866062,0.0620619,0.138842,-1.92751,0.176635,0.0981351,-0.0373721,0.0562527,0.00748153,0.113887,-0.104465,-0.00345805,0.00724125,0.00056924,0,0,0,0,0,0,0,-0.627255,-36.7439,-0.0387439,28.5458,1.75384,1.9262,0.0907442,
0.0924681,0.0615191,0.146161,-1.93429,0.203789,0.0973538,-0.0375252,0.052929,-0.0138385,0.0501998,-0.0728391,0.162635,0.147715,0.00155754,0,0,0,0,0,0,0,3.72266,-2.15113,3.52209,-4.8395,0.67268,2.1118,0.00329308,0.0884693,0.0624958,0.142417,-1.93051,0.176487,0.0982433,-0.0373774,0.0605365,0.00387172,0.0985833,-0.0822562,-0.00635418,-0.00200396,-0.00160181,0.535473,-0.451226,-1.91297,2.77608,-0.362017,-1.15565,-0.271382,-1.3374,-37.3906,-0.562425,28.2999,1.81518,1.97198,0.138352,
0.0925845,0.0614065,0.146262,-1.93428,0.209545,0.0949307,-0.0375303,0.0452532,-0.0138864,0.0426945,-0.0581968,0.274012,0.057594,0.00111928,0,0,0,0,0,0,0,3.6163,-2.14138,3.42397,-4.46561,0.856664,1.91916,0.000713856,0.0884693,0.0624958,0.142417,-1.93051,0.176487,0.0982433,-0.0373774,0.0605365,0.00387172,0.0985833,-0.0822562,-0.00635418,-0.00200396,-0.00160181,0,0,0,0,0,0,0,-1.3374,-37.3906,-0.562425,28.2999,1.81518,1.97198,0.138352,
0.0926736,0.0612975,0.146336,-1.93426,0.215958,0.0920957,-0.0375238,0.0384282,-0.0138332,0.0360017,-0.0458511,0.379545,-0.0247983,0.00105613,0,0,0,0,0,0,0,3.53271,-2.13185,3.34894,-4.095,1.1032,1.68181,-0.00191825,0.0884693,0.0624958,0.142417,-1.93051,0.176487,0.0982433,-0.0373774,0.0605365,0.00387172,0.0985833,-0.0822562,-0.00635418,-0.00200396,-0.00160181,0,0,0,0,0,0,0,-1.3374,-37.3906,-0.562425,28.2999,1.81518,1.97198,0.138352,
0.0927292,0.0611918,0.146376,-1.93421,0.222967,0.0889093,-0.037507,0.0321342,-0.0137085,0.0298018,-0.0354462,0.478858,-0.0995008,0.00126603,0,0,0,0,0,0,0,3.4732,-2.12185,3.2983,-3.72854,1.42282,1.39252,-0.00454155,0.0884693,0.0624958,0.142417,-1.93051,0.176487,0.0982433,-0.0373774,0.0605365,0.00387172,0.0985833,-0.0822562,-0.00635418,-0.00200396,-0.00160181,0,0,0,0,0,0,0,-1.3374,-37.3906,-0.562425,28.2999,1.81518,1.97198,0.138352,
0.0889866,0.0631507,0.142906,-1.93131,0.176408,0.0984022,-0.0373923,0.0386394,0.00540655,0.0360708,-0.048318,0.381108,-0.075628,0.000639479,0,0,0,0,0,0,0,0.00513459,30.3949,-0.37092,-21.4661,-1.63832,-0.526325,-0.00767528,0.090357,0.0628242,0.145239,-1.93268,0.176362,0.0983834,-0.0373721,0.0562293,-0.00377665,0.0724824,-0.0506781,-0.0120008,-6.98032e-05,0.00042546,-0.538402,-0.956047,-3.26261,3.94726,-0.705829,0.24177,0.253409,-0.67883,-36.4424,0.0644055,26.4551,1.84539,1.91887,0.0907442,
0.0894355,0.0635893,0.143325,-1.93209,0.176621,0.0988561,-0.0373984,0.0421345,0.0152911,0.0393348,-0.0581621,0.310212,-0.0491557,0.000360195,0,0,0,0,0,0,0,3.61258,-2.17603,3.41339,-4.44954,0.854473,1.93023,0.000676324,0.090357,0.0628242,0.145239,-1.93268,0.176362,0.0983834,-0.0373721,0.0562293,-0.00377665,0.0724824,-0.0506781,-0.0120008,-6.98032e-05,0.00042546,0,0,0,0,0,0,0,-0.67883,-36.4424,0.0644055,26.4551,1.84539,1.91887,0.0907442,
0.0898323,0.063895,0.143695,-1.93277,0.177064,0.0994248,-0.0374041,0.0436282,0.019875,0.0407208,-0.0636416,0.259257,-0.0251057,0.000145426,0,0,0,0,0,0,0,3.529,-2.16651,3.33837,-4.07894,1.10099,1.69285,-0.00195577,0.090357,0.0628242,0.145239,-1.93268,0.176362,0.0983834,-0.0373721,0.0562293,-0.00377665,0.0724824,-0.0506781,-0.0120008,-6.98032e-05,0.00042546,0,0,0,0,0,0,0,-0.67883,-36.4424,0.0644055,26.4551,1.84539,1.91887,0.0907442,
0.0915592,0.0625744,0.14637,-1.93397,0.178307,0.0999936,-0.0373981,0.0437422,0.0137409,0.0408718,-0.0604248,0.231276,-0.00512948,-0.000122924,0,0,0,0,0,0,0,3.52979,-2.16866,3.33914,-4.07705,1.09531,1.71837,-0.00193253,0.090357,0.0628242,0.145239,-1.93268,0.176362,0.0983834,-0.0373721,0.0562293,-0.00377665,0.0724824,-0.0506781,-0.0120008,-6.98032e-05,0.00042546,0,0,0,0,0,0,0,-0.67883,-36.4424,0.0644055,26.4551,1.84539,1.91887,0.0907442,
0.0918766,0.0624846,0.146668,-1.9343,0.179581,0.100504,-0.0374094,0.0429301,0.00874685,0.0401272,-0.0564478,0.21687,0.00865507,-0.000381749,0,0,0,0,0,0,0,3.46709,-2.18105,3.28075,-3.69964,1.41194,1.43619,-0.00458377,0.0925525,0.0629574,0.1473,-1.93384,0.176729,0.0983141,-0.0373722,0.066738,-0.00763608,0.0504394,-0.0140048,0.0254331,-0.00691994,0.000500658,1.31359,-0.482429,-2.75538,4.58417,4.67924,-0.856267,0.00939972,-0.349545,-36.617,0.338148,25.3601,2.05322,1.48125,0.104477,
0.0921629,0.0623897,0.146935,-1.93457,0.181217,0.100841,-0.0374227,0.041502,0.00462636,0.0387817,-0.0519441,0.214398,0.0153481,-0.000635894,0,0,0,0,0,0,0,3.4319,-2.16967,3.25479,-3.3383,1.81485,1.08744,-0.00719856,0.0925525,0.0629574,0.1473,-1.93384,0.176729,0.0983141,-0.0373722,0.066738,-0.00763608,0.0504394,-0.0140048,0.0254331,-0.00691994,0.000500658,0,0,0,0,0,0,0,-0.349545,-36.617,0.338148,25.3601,2.05322,1.48125,0.104477,
0.0924216,0.0622893,0.147175,-1.93479,0.183272,0.100928,-0.0374376,0.039667,0.00119143,0.0370352,-0.0471055,0.222904,0.0144623,-0.000882245,0,0,0,0,0,0,0,3.41963,-2.15597,3.25206,-2.98279,2.31013,0.673719,-0.00968235,0.0925525,0.0629574,0.1473,-1.93384,0.176729,0.0983141,-0.0373722,0.066738,-0.00763608,0.0504394,-0.0140048,0.0254331,-0.00691994,0.000500658,0,0,0,0,0,0,0,-0.349545,-36.617,0.338148,25.3601,2.05322,1.48125,0.104477,
0.0936346,0.0625322,0.148314,-1.93472,0.180154,0.0995836,-0.0374119,0.0396217,-0.00246407,0.037003,-0.044331,0.217146,0.0212524,-0.00105205,0,0,0,0,0,0,0,3.44026,-2.18631,3.26298,-3.31975,1.7567,1.33188,-0.00697386,0.0925525,0.0629574,0.1473,-1.93384,0.176729,0.0983141,-0.0373722,0.066738,-0.00763608,0.0504394,-0.0140048,0.0254331,-0.00691994,0.000500658,0,0,0,0,0,0,0,-0.349545,-36.617,0.338148,25.3601,2.05322,1.48125,0.104477,
0.0939155,0.0624018,0.148575,-1.93494,0.18215,0.0997692,-0.0374272,0.0387202,-0.00523113,0.0361438,-0.0409377,0.223627,0.0216422,-0.00122274,0,0,0,0,0,0,0,3.42665,-2.17141,3.25389,-2.95903,2.24958,0.920032,-0.00947297,0.094311,0.0635288,0.148216,-1.93439,0.176909,0.0981969,-0.0373759,0.0636246,0.0123084,0.019873,-0.0197597,-0.00451342,-0.00197436,-0.000320199,-0.389182,2.49306,-3.8208,-0.71936,-3.74332,0.618197,-0.102607,-0.198788,-33.0504,0.536512,23.7375,1.70532,1.19012,0.124619,
0.0941661,0.0622746,0.148807,-1.93511,0.184644,0.0996675,-0.0374436,0.0372407,-0.0073634,0.0347224,-0.0370793,0.24124,0.0147706,-0.00138997,0,0,0,0,0,0,0,3.43374,-2.15385,3.27083,-2.61025,2.84308,0.435893,-0.0117773,0.094311,0.0635288,0.148216,-1.93439,0.176909,0.0981969,-0.0373759,0.0636246,0.0123084,0.019873,-0.0197597,-0.00451342,-0.00197436,-0.000320199,0,0,0,0,0,0,0,-0.198788,-33.0504,0.536512,23.7375,1.70532,1.19012,0.124619,
0.0943892,0.0621489,0.149013,-1.93524,0.187695,0.0992082,-0.0374608,0.0353697,-0.00903496,0.0329167,-0.032917,0.269275,0.000333845,-0.00154007,0,0,0,0,0,0,0,3.45298,-2.1312,3.30012,-2.26797,3.5386,-0.116657,-0.0136893,0.094311,0.0635288,0.148216,-1.93439,0.176909,0.0981969,-0.0373759,0.0636246,0.0123084,0.019873,-0.0197597,-0.00451342,-0.00197436,-0.000320199,0,0,0,0,0,0,0,-0.198788,-33.0504,0.536512,23.7375,1.70532,1.19012,0.124619,
0.0948994,0.0634501,0.148757,-1.93515,0.178546,0.100061,-0.0373984,0.035276,-0.00848424,0.0327929,-0.0357253,0.242149,0.026864,-0.00151603,0,0,0,0,0,0,0,3.53508,-2.29027,3.36083,-2.83406,1.97368,2.73829,-0.00795941,0.094311,0.0635288,0.148216,-1.93439,0.176909,0.0981969,-0.0373759,0.0636246,0.0123084,0.019873,-0.0197597,-0.00451342,-0.00197436,-0.000320199,0,0,0,0,0,0,0,-0.198788,-33.0504,0.536512,23.7375,1.70532,1.19012,0.124619,
0.0951549,0.0633937,0.148993,-1.93547,0.180114,0.101136,-0.0374112,0.0346082,-0.00819743,0.0321267,-0.036419,0.232904,0.0483665,-0.00153119,0,0,0,0,0,0,0,3.54469,-2.27489,3.37736,-2.48055,2.55141,2.24301,-0.0102659,0.0958581,0.0638195,0.148709,-1.93505,0.176927,0.0981957,-0.0373759,0.0440293,0.00601296,0.0194489,-0.0161394,-0.0114248,0.00449231,-0.000147847,-2.4494,-0.786927,-0.0530152,0.45254,-0.863919,0.808333,0.0215441,1.50318,-36.0933,2.1393,25.4077,1.84539,1.14983,0.124619,
0.0953884,0.0633306,0.149208,-1.93571,0.182216,0.102063,-0.0374254,0.0335257,-0.0081355,0.0310652,-0.0353259,0.238865,0.0618809,-0.00158105,0,0,0,0,0,0,0,3.56618,-2.25091,3.4087,-2.13973,3.23151,1.67554,-0.0121522,0.0958581,0.0638195,0.148709,-1.93505,0.176927,0.0981957,-0.0373759,0.0440293,0.00601296,0.0194489,-0.0161394,-0.0114248,0.00449231,-0.000147847,0,0,0,0,0,0,0,1.50318,-36.0933,2.1393,25.4077,1.84539,1.14983,0.124619,
0.0956009,0.0632591,0.149402,-1.9359,0.184901,0.102728,-0.0374406,0.0321318,-0.00829502,0.0297044,-0.0329274,0.258234,0.0661189,-0.00164402,0,0,0,0,0,0,0,3.58824,-2.21978,3.44074,-1.80536,4.01171,1.04619,-0.0135133,0.0958581,0.0638195,0.148709,-1.93505,0.176927,0.0981957,-0.0373759,0.0440293,0.00601296,0.0194489,-0.0161394,-0.0114248,0.00449231,-0.000147847,0,0,0,0,0,0,0,1.50318,-36.0933,2.1393,25.4077,1.84539,1.14983,0.124619,
0.0976102,0.0540528,0.148514,-1.92811,0.281732,0.115407,-0.0381624,0.0259306,-0.0107979,0.0233154,-0.0237361,0.250348,0.051313,-0.00160652,0,0,0,0,0,0,0,0.726395,-1.97813,0.367107,1.56674,0.981483,1.84307,-0.0131707,0.0958581,0.0638195,0.148709,-1.93505,0.176927,0.0981957,-0.0373759,0.0440293,0.00601296,0.0194489,-0.0161394,-0.0114248,0.00449231,-0.000147847,0,0,0,0,0,0,0,1.50318,-36.0933,2.1393,25.4077,1.84539,1.14983,0.124619,
0.0976192,0.053886,0.148497,-1.92801,0.283477,0.115344,-0.0381741,0.0209695,-0.0128063,0.0182055,-0.0163894,0.243914,0.0394719,-0.00157632,0,0,0,0,0,0,0,0.704576,-1.97304,0.345688,1.56716,1.00164,1.78401,-0.0131909,0.0958581,0.0638195,0.148709,-1.93505,0.176927,0.0981957,-0.0373759,0.0440293,0.00601296,0.0194489,-0.0161394,-0.0114248,0.00449231,-0.000147847,0,0,0,0,0,0,0,1.50318,-36.0933,2.1393,25.4077,1.84539,1.14983,0.124619,
0.0976282,0.0537191,0.148479,-1.9279,0.285217,0.115281,-0.0381857,0.0170004,-0.0144191,0.0141189,-0.0105184,0.238642,0.0300026,-0.00155196,0,0,0,0,0,0,0,0.681383,-1.96654,0.320112,1.57154,1.02344,1.72732,-0.0132219,0.0970888,0.0641121,0.149288,-1.93527,0.176951,0.0982261,-0.0373726,0.0346316,0.0197919,0.0252604,0.000615868,-0.00867171,0.00798058,-0.000441431,-1.17471,1.72237,0.726445,2.0944,0.344133,0.436034,-0.0366979,-0.424923,-35.518,0.26277,24.3604,1.85821,0.918204,0.124619,
0.0976372,0.0535519,0.148461,-1.9278,0.286953,0.115218,-0.0381973,0.013825,-0.0157156,0.010851,-0.00582783,0.234299,0.0224309,-0.00153228,0,0,0,0,0,0,0,0.659673,-1.9614,0.298829,1.57199,1.04787,1.66811,-0.01324,0.0970888,0.0641121,0.149288,-1.93527,0.176951,0.0982261,-0.0373726,0.0346316,0.0197919,0.0252604,0.000615868,-0.00867171,0.00798058,-0.000441431,0,0,0,0,0,0,0,-0.424923,-35.518,0.26277,24.3604,1.85821,0.918204,0.124619,
0.109693,0.0604505,0.16116,-1.93682,0.195703,0.139588,-0.0375155,0.0221971,-0.0168974,0.0191029,-0.0046115,0.193392,0.0426853,-0.00138879,0,0,0,0,0,0,0,7.61838,-2.46284,7.31179,-0.50295,2.11907,3.87009,-0.00589911,0.0970888,0.0641121,0.149288,-1.93527,0.176951,0.0982261,-0.0373726,0.0346316,0.0197919,0.0252604,0.000615868,-0.00867171,0.00798058,-0.000441431,0,0,0,0,0,0,0,-0.424923,-35.518,0.26277,24.3604,1.85821,0.918204,0.124619,
0.110131,0.0602784,0.161569,-1.93682,0.195911,0.140538,-0.0375219,0.0286932,-0.0178194,0.0255032,-0.0036117,0.159906,0.0579099,-0.00127279,0,0,0,0,0,0,0,7.52355,-2.54116,7.18981,-0.51061,2.0304,3.58424,-0.00579549,0.0970888,0.0641121,0.149288,-1.93527,0.176951,0.0982261,-0.0373726,0.0346316,0.0197919,0.0252604,0.000615868,-0.00867171,0.00798058,-0.000441431,0,0,0,0,0,0,0,-0.424923,-35.518,0.26277,24.3604,1.85821,0.918204,0.124619,
0.11056,0.0601073,0.16197,-1.93682,0.19609,0.141452,-0.0375284,0.0336865,-0.0185326,0.0304203,-0.00278385,0.132414,0.0691632,-0.00117876,0,0,0,0,0,0,0,7.42724,-2.60426,7.06753,-0.518576,1.94627,3.32603,-0.00588497,0.0984247,0.0639111,0.150101,-1.93509,0.177765,0.0981592,-0.0373721,0.0450554,-0.0426507,0.0349115,0.0201956,0.0681365,-0.0190832,0.00130496,1.30297,-7.80533,1.20638,2.44747,9.60102,-3.38297,0.218299,2.69336,-43.405,3.31361,34.227,2.98797,2.48925,0.0907442,
0.124354,0.0606539,0.176039,-1.94808,0.270385,0.325702,-0.0371745,0.0344537,-0.0138683,0.0317016,-0.00509053,0.102781,0.0687621,-0.000972573,0,0,0,0,0,0,0,3.65858,-0.193295,3.64142,-0.51624,-0.0243309,1.60552,-0.0053691,0.0984247,0.0639111,0.150101,-1.93509,0.177765,0.0981592,-0.0373721,0.0450554,-0.0426507,0.0349115,0.0201956,0.0681365,-0.0190832,0.00130496,0,0,0,0,0,0,0,2.69336,-43.405,3.31361,34.227,2.98797,2.48925,0.0907442,
0.106882,0.0561459,0.157371,-1.93124,0.242451,0.108061,-0.0378523,0.027839,-0.0153087,0.02493,-0.00139674,0.136865,0.0456325,-0.00112355,0,0,0,0,0,0,0,3.62667,-0.18157,3.61187,-0.439884,0.0220228,1.56655,-0.0061133,0.0984247,0.0639111,0.150101,-1.93509,0.177765,0.0981592,-0.0373721,0.0450554,-0.0426507,0.0349115,0.0201956,0.0681365,-0.0190832,0.00130496,0,0,0,0,0,0,0,2.69336,-43.405,3.31361,34.227,2.98797,2.48925,0.0907442,
0.106893,0.0559766,0.157353,-1.93114,0.24463,0.107688,-0.0378661,0.0225448,-0.0164787,0.0195116,0.00156273,0.16397,0.0271975,-0.00124427,0,0,0,0,0,0,0,3.60253,-0.177921,3.58976,-0.3604,0.0790382,1.52958,-0.006951,0.0984247,0.0639111,0.150101,-1.93509,0.177765,0.0981592,-0.0373721,0.0450554,-0.0426507,0.0349115,0.0201956,0.0681365,-0.0190832,0.00130496,0,0,0,0,0,0,0,2.69336,-43.405,3.31361,34.227,2.98797,2.48925,0.0907442,
0.106903,0.0558067,0.157336,-1.93103,0.246803,0.107319,-0.03788,0.0183072,-0.0174308,0.0151762,0.00393306,0.185493,0.0125105,-0.00134077,0,0,0,0,0,0,0,3.58242,-0.1924,3.57333,-0.288233,0.131727,1.48998,-0.00780446,0.0999275,0.0629387,0.151641,-1.93384,0.180803,0.0984546,-0.0373729,0.0821185,-0.0213892,0.0947353,0.029137,0.0662576,0.0100968,0.000176498,4.63289,2.6577,7.47798,1.11767,-0.234859,3.64751,-0.141058,9.7948,-32.1498,10.1611,21.9443,2.81677,0.519949,0.0980684,
0.114448,0.0585052,0.165622,-1.93454,0.211214,0.135579,-0.0376802,0.0235384,-0.0182631,0.0203583,0.00353764,0.154751,0.0273168,-0.00128151,0,0,0,0,0,0,0,5.42493,0.422825,5.5963,-0.95578,2.14555,3.46589,-0.0168714,0.0999275,0.0629387,0.151641,-1.93384,0.180803,0.0984546,-0.0373729,0.0821185,-0.0213892,0.0947353,0.029137,0.0662576,0.0100968,0.000176498,0,0,0,0,0,0,0,9.7948,-32.1498,10.1611,21.9443,2.81677,0.519949,0.0980684,
0.114795,0.0583333,0.165942,-1.93452,0.211444,0.136247,-0.0376885,0.0275088,-0.0189088,0.0242899,0.00326481,0.129536,0.0385466,-0.00123271,0,0,0,0,0,0,0,5.55365,0.362408,5.72977,-0.847227,2.15936,3.29374,-0.0185296,0.0999275,0.0629387,0.151641,-1.93384,0.180803,0.0984546,-0.0373729,0.0821185,-0.0213892,0.0947353,0.029137,0.0662576,0.0100968,0.000176498,0,0,0,0,0,0,0,9.7948,-32.1498,10.1611,21.9443,2.81677,0.519949,0.0980684,
0.115134,0.0581622,0.166253,-1.9345,0.211651,0.136891,-0.0376968,0.0304697,-0.0194044,0.0272206,0.00309047,0.108809,0.0469396,-0.00119233,0,0,0,0,0,0,0,5.69304,0.257419,5.87092,-0.730075,2.15631,3.11918,-0.019832,0.0999275,0.0629387,0.151641,-1.93384,0.180803,0.0984546,-0.0373729,0.0821185,-0.0213892,0.0947353,0.029137,0.0662576,0.0100968,0.000176498,0,0,0,0,0,0,0,9.7948,-32.1498,10.1611,21.9443,2.81677,0.519949,0.0980684,
0.115464,0.057992,0.166556,-1.93448,0.211839,0.137512,-0.037705,0.0326225,-0.0197793,0.0293501,0.0029956,0.0917349,0.0530858,-0.0011587,0,0,0,0,0,0,0,5.84339,0.0553592,6.01962,-0.635145,2.11879,2.91572,-0.0204554,0.102442,0.0618427,0.154259,-1.93293,0.182462,0.099047,-0.0373752,0.0680518,-0.0617445,0.0433604,0.0179313,0.0149289,0.00631441,-0.000416477,-1.75834,-5.04442,-6.42186,-1.40071,-6.41609,-0.472803,-0.0741218,-4.83654,-35.4189,-3.98619,26.2567,2.08343,1.54168,0.11821,
0.113142,0.054413,0.163967,-1.93016,0.229261,0.110525,-0.0378376,0.0262335,-0.0199521,0.0229338,0.00460903,0.137356,0.0216519,-0.00129481,0,0,0,0,0,0,0,4.11048,-0.0415722,4.11316,-0.688223,0.0457322,1.69588,-0.00775445,0.102442,0.0618427,0.154259,-1.93293,0.182462,0.099047,-0.0373752,0.0680518,-0.0617445,0.0433604,0.0179313,0.0149289,0.00631441,-0.000416477,0,0,0,0,0,0,0,-4.83654,-35.4189,-3.98619,26.2567,2.08343,1.54168,0.11821,
0.11315,0.0542468,0.163948,-1.93007,0.231801,0.109726,-0.0378525,0.0211914,-0.020116,0.0178651,0.00595305,0.173376,-0.00264833,-0.00140872,0,0,0,0,0,0,0,4.0965,-0.0373273,4.1017,-0.610182,0.0976602,1.64672,-0.00872702,0.102442,0.0618427,0.154259,-1.93293,0.182462,0.099047,-0.0373752,0.0680518,-0.0617445,0.0433604,0.0179313,0.0149289,0.00631441,-0.000416477,0,0,0,0,0,0,0,-4.83654,-35.4189,-3.98619,26.2567,2.08343,1.54168,0.11821,
0.11316,0.0540795,0.16393,-1.92998,0.234327,0.108951,-0.0378675,0.0171987,-0.020277,0.0138489,0.00708209,0.201844,-0.0214864,-0.00150335,0,0,0,0,0,0,0,4.09116,-0.0434472,4.09845,-0.528205,0.15989,1.60004,-0.00976069,0.102442,0.0618427,0.154259,-1.93293,0.182462,0.099047,-0.0373752,0.0680518,-0.0617445,0.0433604,0.0179313,0.0149289,0.00631441,-0.000416477,0,0,0,0,0,0,0,-4.83654,-35.4189,-3.98619,26.2567,2.08343,1.54168,0.11821,
0.113171,0.0539108,0.163914,-1.92988,0.236842,0.108194,-0.0378827,0.0140285,-0.0204392,0.0106592,0.00803125,0.224349,-0.0361134,-0.00158133,0,0,0,0,0,0,0,4.08937,-0.0716531,4.09668,-0.446269,0.227894,1.55257,-0.0108667,0.105898,0.0611566,0.157411,-1.9323,0.183062,0.0996356,-0.0373828,0.119012,-0.0110893,0.100489,0.0221547,0.00119135,0.0178371,-0.00150905,6.37001,6.33191,7.1411,0.527923,-1.71719,1.44033,-0.136572,-4.02722,-34.796,-3.23638,24.8364,2.02301,1.37505,0.158493,
0.121167,0.0563383,0.171979,-1.93278,0.211855,0.129495,-0.0377815,0.0183397,-0.0205219,0.01499,0.00725412,0.186758,-0.017652,-0.00150721,0,0,0,0,0,0,0,5.14282,0.348391,5.24242,-0.91554,1.50367,2.82167,-0.0156071,0.105898,0.0611566,0.157411,-1.9323,0.183062,0.0996356,-0.0373828,0.119012,-0.0110893,0.100489,0.0221547,0.00119135,0.0178371,-0.00150905,0,0,0,0,0,0,0,-4.02722,-34.796,-3.23638,24.8364,2.02301,1.37505,0.158493,
0.121443,0.0561722,0.172229,-1.93275,0.212136,0.129929,-0.0377912,0.021566,-0.02057,0.0182334,0.00668349,0.156451,-0.00328131,-0.00144703,0,0,0,0,0,0,0,5.23759,0.307099,5.34144,-0.815244,1.55082,2.69675,-0.0173509,0.105898,0.0611566,0.157411,-1.9323,0.183062,0.0996356,-0.0373828,0.119012,-0.0110893,0.100489,0.0221547,0.00119135,0.0178371,-0.00150905,0,0,0,0,0,0,0,-4.02722,-34.796,-3.23638,24.8364,2.02301,1.37505,0.158493,
0.12171,0.0560068,0.17247,-1.93271,0.212411,0.130346,-0.0378008,0.0239235,-0.0205903,0.0206062,0.00627845,0.132037,0.00781958,-0.00139809,0,0,0,0,0,0,0,5.34456,0.231428,5.45089,-0.706165,1.59172,2.57141,-0.0189276,0.105898,0.0611566,0.157411,-1.9323,0.183062,0.0996356,-0.0373828,0.119012,-0.0110893,0.100489,0.0221547,0.00119135,0.0178371,-0.00150905,0,0,0,0,0,0,0,-4.02722,-34.796,-3.23638,24.8364,2.02301,1.37505,0.158493,
0.121967,0.0558421,0.172701,-1.93267,0.212682,0.130748,-0.0378104,0.0255852,-0.0205885,0.0222816,0.00600651,0.112403,0.0163041,-0.00135818,0,0,0,0,0,0,0,5.4638,0.0537033,5.57249,-0.613962,1.61411,2.42401,-0.020101,0.108901,0.0598759,0.160508,-1.93163,0.183534,0.0999937,-0.0373766,0.0653793,-0.035306,0.0833565,0.015309,0.0332487,0.0112181,-0.000108488,-6.70407,-3.02709,-2.1416,-0.855707,4.00717,-0.827373,0.175071,-0.476498,-35.4704,0.238966,25.3601,1.77856,0.931021,0.131027,
0.121124,0.0530235,0.17178,-1.92975,0.222246,0.114295,-0.0378824,0.0208833,-0.0202657,0.0176452,0.00748005,0.143529,-0.00804941,-0.00137308,0,0,0,0,0,0,0,4.27611,0.025428,4.29136,-0.711626,0.259697,1.79284,-0.0110735,0.108901,0.0598759,0.160508,-1.93163,0.183534,0.0999937,-0.0373766,0.0653793,-0.035306,0.0833565,0.015309,0.0332487,0.0112181,-0.000108488,0,0,0,0,0,0,0,-0.476498,-35.4704,0.238966,25.3601,1.77856,0.931021,0.131027,
0.121129,0.0528718,0.171762,-1.92964,0.22461,0.113321,-0.0378945,0.0168379,-0.0200054,0.0136597,0.00871833,0.173933,-0.0307988,-0.00139907,0,0,0,0,0,0,0,4.28478,0.0166608,4.30217,-0.629658,0.319508,1.73781,-0.0122337,0.108901,0.0598759,0.160508,-1.93163,0.183534,0.0999937,-0.0373766,0.0653793,-0.035306,0.0833565,0.015309,0.0332487,0.0112181,-0.000108488,0,0,0,0,0,0,0,-0.476498,-35.4704,0.238966,25.3601,1.77856,0.931021,0.131027,
0.121125,0.0527196,0.171734,-1.92953,0.227181,0.112225,-0.0379073,0.013361,-0.0198085,0.010244,0.00975865,0.203428,-0.0520364,-0.00143982,0,0,0,0,0,0,0,4.30288,-0.00697176,4.32175,-0.542761,0.388063,1.68513,-0.0134657,0.108901,0.0598759,0.160508,-1.93163,0.183534,0.0999937,-0.0373766,0.0653793,-0.035306,0.0833565,0.015309,0.0332487,0.0112181,-0.000108488,0,0,0,0,0,0,0,-0.476498,-35.4704,0.238966,25.3601,1.77856,0.931021,0.131027,
0.126492,0.058364,0.177912,-1.93873,0.262188,0.290221,-0.0373484,0.0202541,-0.0144973,0.0178365,0.00530973,0.1829,-0.00268688,-0.0014128,0,0,0,0,0,0,0,4.94634,0.25782,5.0139,-0.885204,1.13932,2.55886,-0.0155458,0.111205,0.0590311,0.164279,-1.93102,0.184652,0.100211,-0.0373721,0.0700892,-0.0251192,0.114164,0.0151678,0.0156444,0.00487783,0.000998195,0.58874,1.27335,3.85092,-0.0176508,-2.20053,-0.792534,0.138335,-1.92059,-35.0935,-1.41142,25.7092,1.52221,1.62774,0.0907442,
0.123313,0.0542462,0.1742,-1.93156,0.213399,0.12585,-0.0378207,0.0220838,-0.0156599,0.0195321,0.00537525,0.156866,0.00521769,-0.00140402,0,0,0,0,0,0,0,5.01885,0.223933,5.08952,-0.791761,1.19222,2.45423,-0.0171866,0.111205,0.0590311,0.164279,-1.93102,0.184652,0.100211,-0.0373721,0.0700892,-0.0251192,0.114164,0.0151678,0.0156444,0.00487783,0.000998195,0,0,0,0,0,0,0,-1.92059,-35.0935,-1.41142,25.7092,1.52221,1.62774,0.0907442,
0.123539,0.0540843,0.174402,-1.93151,0.213822,0.12613,-0.0378317,0.0233224,-0.0165749,0.0206647,0.0054821,0.136087,0.0111818,-0.00139677,0,0,0,0,0,0,0,5.10299,0.162057,5.17547,-0.690368,1.24511,2.35095,-0.0187442,0.111205,0.0590311,0.164279,-1.93102,0.184652,0.100211,-0.0373721,0.0700892,-0.0251192,0.114164,0.0151678,0.0156444,0.00487783,0.000998195,0,0,0,0,0,0,0,-1.92059,-35.0935,-1.41142,25.7092,1.52221,1.62774,0.0907442,
0.123756,0.053923,0.174594,-1.93146,0.214252,0.126395,-0.0378426,0.0240867,-0.0172923,0.0213457,0.00562279,0.119597,0.0155697,-0.00139079,0,0,0,0,0,0,0,5.19673,0.0653147,5.26895,-0.581584,1.2906,2.24439,-0.0201378,0.111205,0.0590311,0.164279,-1.93102,0.184652,0.100211,-0.0373721,0.0700892,-0.0251192,0.114164,0.0151678,0.0156444,0.00487783,0.000998195,0,0,0,0,0,0,0,-1.92059,-35.0935,-1.41142,25.7092,1.52221,1.62774,0.0907442,
0.124677,0.0528372,0.176862,-1.92997,0.218602,0.117079,-0.0379088,0.0214979,-0.0177548,0.0186943,0.00666514,0.125842,0.00545653,-0.00140993,0,0,0,0,0,0,0,4.36413,0.0818001,4.37332,-0.811381,0.332775,1.94141,-0.0116493,0.111205,0.0590311,0.164279,-1.93102,0.184652,0.100211,-0.0373721,0.0700892,-0.0251192,0.114164,0.0151678,0.0156444,0.00487783,0.000998195,0,0,0,0,0,0,0,-1.92059,-35.0935,-1.41142,25.7092,1.52221,1.62774,0.0907442,
0.124754,0.0526807,0.176915,-1.92988,0.21994,0.116707,-0.0379208,0.0191284,-0.0181158,0.0162748,0.00758512,0.134126,-0.00493138,-0.00142741,0,0,0,0,0,0,0,4.36596,0.038131,4.3789,-0.741554,0.371104,1.87837,-0.0128169,0.113033,0.0577228,0.168454,-1.93063,0.18596,0.100538,-0.0373756,0.0702762,-0.00599445,0.152248,0.0181911,0.103479,0.0525412,0.000442014,0.0233703,2.39059,4.76057,0.377904,10.9793,5.95792,-0.0695227,5.45856,-31.7769,5.96376,23.7891,2.37091,1.4547,0.110886,
0.124819,0.0525245,0.176955,-1.92979,0.221431,0.11623,-0.0379328,0.0169248,-0.0183962,0.0140314,0.00840856,0.144571,-0.0158672,-0.00144384,0,0,0,0,0,0,0,4.38449,0.0260413,4.39942,-0.659606,0.428621,1.81922,-0.0140674,0.113033,0.0577228,0.168454,-1.93063,0.18596,0.100538,-0.0373756,0.0702762,-0.00599445,0.152248,0.0181911,0.103479,0.0525412,0.000442014,0,0,0,0,0,0,0,5.45856,-31.7769,5.96376,23.7891,2.37091,1.4547,0.110886,
0.124871,0.0523687,0.176983,-1.92969,0.223096,0.115635,-0.037945,0.0148458,-0.0186129,0.0119208,0.00915446,0.157293,-0.0275723,-0.00145982,0,0,0,0,0,0,0,4.41281,-0.00226155,4.42904,-0.572348,0.494702,1.76274,-0.0153887,0.113033,0.0577228,0.168454,-1.93063,0.18596,0.100538,-0.0373756,0.0702762,-0.00599445,0.152248,0.0181911,0.103479,0.0525412,0.000442014,0,0,0,0,0,0,0,5.45856,-31.7769,5.96376,23.7891,2.37091,1.4547,0.110886,
0.127995,0.0522046,0.182657,-1.93049,0.219641,0.121897,-0.0378865,0.0170383,-0.0190443,0.014094,0.00860503,0.139917,-0.0178343,-0.00146904,0,0,0,0,0,0,0,4.72826,0.184819,4.77894,-0.857322,0.875744,2.35518,-0.0152062,0.113033,0.0577228,0.168454,-1.93063,0.18596,0.100538,-0.0373756,0.0702762,-0.00599445,0.152248,0.0181911,0.103479,0.0525412,0.000442014,0,0,0,0,0,0,0,5.45856,-31.7769,5.96376,23.7891,2.37091,1.4547,0.110886,
0.128193,0.0520389,0.18283,-1.93044,0.220215,0.12205,-0.0378986,0.0185626,-0.0193775,0.0156039,0.00822332,0.126279,-0.0104465,-0.00147672,0,0,0,0,0,0,0,4.79128,0.114786,4.84359,-0.793502,0.930894,2.24623,-0.0166891,0.115318,0.0569729,0.172373,-1.93018,0.186513,0.101105,-0.0373775,0.0618516,-0.0155934,0.117799,0.00286856,0.00364897,-0.0103524,-0.00103798,-1.05307,-1.19987,-4.30616,-1.91531,-12.4788,-7.86169,-0.184999,-0.603451,-35.8434,-0.16173,26.2567,1.40594,1.49499,0.138352,
0.128381,0.0518737,0.182994,-1.93038,0.220804,0.122185,-0.0379107,0.0195503,-0.0196326,0.0165813,0.00797667,0.115749,-0.00499358,-0.00148335,0,0,0,0,0,0,0,4.85656,0.0718631,4.9109,-0.699067,0.990233,2.15972,-0.0182482,0.115318,0.0569729,0.172373,-1.93018,0.186513,0.101105,-0.0373775,0.0618516,-0.0155934,0.117799,0.00286856,0.00364897,-0.0103524,-0.00103798,0,0,0,0,0,0,0,-0.603451,-35.8434,-0.16173,26.2567,1.40594,1.49499,0.138352,
0.128559,0.0517089,0.183149,-1.93032,0.221414,0.122298,-0.0379228,0.0201064,-0.0198256,0.0171302,0.00783929,0.10784,-0.00115484,-0.00148922,0,0,0,0,0,0,0,4.93226,0.000783412,4.98721,-0.597363,1.04927,2.07265,-0.0197539,0.115318,0.0569729,0.172373,-1.93018,0.186513,0.101105,-0.0373775,0.0618516,-0.0155934,0.117799,0.00286856,0.00364897,-0.0103524,-0.00103798,0,0,0,0,0,0,0,-0.603451,-35.8434,-0.16173,26.2567,1.40594,1.49499,0.138352,
0.132134,0.0502183,0.188261,-1.92974,0.198056,0.132921,-0.0378947,0.0163334,-0.019405,0.0134155,0.00912457,0.142656,-0.028224,-0.00150395,0,0,0,0,0,0,0,6.12756,0.698463,6.27406,-1.00889,0.502079,2.7891,-0.0217967,0.115318,0.0569729,0.172373,-1.93018,0.186513,0.101105,-0.0373775,0.0618516,-0.0155934,0.117799,0.00286856,0.00364897,-0.0103524,-0.00103798,0,0,0,0,0,0,0,-0.603451,-35.8434,-0.16173,26.2567,1.40594,1.49499,0.138352,
0.132127,0.0500763,0.188233,-1.92963,0.20067,0.131593,-0.0379079,0.0128917,-0.0190741,0.0100307,0.0102589,0.179473,-0.055796,-0.00153413,0,0,0,0,0,0,0,6.25438,0.479629,6.39732,-0.877349,0.517476,2.69723,-0.0231866,0.117654,0.0557673,0.175906,-1.92995,0.186545,0.101125,-0.0373753,0.0888189,-0.0438693,0.118846,-0.00500533,-0.00938586,0.00233201,0.000456873,3.37091,-3.53448,0.130895,-0.984237,-1.62935,1.58555,0.186856,3.35193,-35.9941,3.93648,27.2525,2.46246,1.30913,0.0907442,
0.132106,0.0499334,0.188192,-1.9295,0.203624,0.130036,-0.0379221,0.00977891,-0.0188324,0.00698196,0.0112545,0.217439,-0.0835461,-0.00158195,0,0,0,0,0,0,0,6.3788,0.253103,6.51121,-0.735901,0.504262,2.59731,-0.0240232,0.117654,0.0557673,0.175906,-1.92995,0.186545,0.101125,-0.0373753,0.0888189,-0.0438693,0.118846,-0.00500533,-0.00938586,0.00233201,0.000456873,0,0,0,0,0,0,0,3.35193,-35.9941,3.93648,27.2525,2.46246,1.30913,0.0907442,
0.132075,0.0497866,0.188141,-1.92938,0.206862,0.128283,-0.0379361,0.00703843,-0.0187348,0.00432756,0.0120605,0.25489,-0.110664,-0.00161626,0,0,0,0,0,0,0,6.49566,-0.0367615,6.61068,-0.595513,0.453968,2.47166,-0.0238334,0.117654,0.0557673,0.175906,-1.92995,0.186545,0.101125,-0.0373753,0.0888189,-0.0438693,0.118846,-0.00500533,-0.00938586,0.00233201,0.000456873,0,0,0,0,0,0,0,3.35193,-35.9941,3.93648,27.2525,2.46246,1.30913,0.0907442,
0.131871,0.0487911,0.189288,-1.92975,0.226436,0.113338,-0.0379335,0.0101253,-0.0192315,0.00739786,0.0110061,0.220907,-0.087081,-0.00162469,0,0,0,0,0,0,0,4.72073,0.0679304,4.77827,-0.78909,1.06439,2.47208,-0.022122,0.117654,0.0557673,0.175906,-1.92995,0.186545,0.101125,-0.0373753,0.0888189,-0.0438693,0.118846,-0.00500533,-0.00938586,0.00233201,0.000456873,0,0,0,0,0,0,0,3.35193,-35.9941,3.93648,27.2525,2.46246,1.30913,0.0907442,
0.132042,0.0486217,0.189436,-1.92969,0.227136,0.113376,-0.0379468,0.0123686,-0.0196221,0.00962881,0.0102251,0.194219,-0.0687169,-0.00163215,0,0,0,0,0,0,0,4.83053,-0.0370584,4.90416,-0.660932,1.21489,2.33926,-0.0246174,0.120393,0.0545472,0.178953,-1.9297,0.186584,0.101139,-0.0373762,0.0916307,-0.045807,0.0798409,0.00655147,-0.00478954,-0.000294388,-0.00107762,0.351468,-0.242218,-4.87567,1.4446,0.57454,-0.3283,-0.191811,1.93164,-35.4189,2.46461,26.8796,1.78405,1.36864,0.124619,
0.132204,0.0484524,0.189576,-1.92963,0.227862,0.11339,-0.0379601,0.0139344,-0.0199283,0.0111855,0.00966425,0.173523,-0.0546151,-0.00163907,0,0,0,0,0,0,0,4.9622,-0.145476,5.04685,-0.500848,1.3327,2.18862,-0.0267398,0.120393,0.0545472,0.178953,-1.9297,0.186584,0.101139,-0.0373762,0.0916307,-0.045807,0.0798409,0.00655147,-0.00478954,-0.000294388,-0.00107762,0,0,0,0,0,0,0,1.93164,-35.4189,2.46461,26.8796,1.78405,1.36864,0.124619,
0.136894,0.0465367,0.194517,-1.92876,0.199394,0.132041,-0.0379304,0.0112623,-0.0196831,0.00854889,0.0106333,0.198836,-0.073902,-0.00166344,0,0,0,0,0,0,0,6.38472,0.380401,6.48542,-0.811796,0.454561,2.8126,-0.0241732,0.120393,0.0545472,0.178953,-1.9297,0.186584,0.101139,-0.0373762,0.0916307,-0.045807,0.0798409,0.00655147,-0.00478954,-0.000294388,-0.00107762,0,0,0,0,0,0,0,1.93164,-35.4189,2.46461,26.8796,1.78405,1.36864,0.124619,
0.136881,0.0463866,0.194484,-1.92864,0.202173,0.130569,-0.0379451,0.00869696,-0.0194983,0.00602138,0.0115186,0.22853,-0.0959053,-0.00169979,0,0,0,0,0,0,0,6.50048,0.126967,6.58837,-0.673342,0.426508,2.70263,-0.0245962,0.120393,0.0545472,0.178953,-1.9297,0.186584,0.101139,-0.0373762,0.0916307,-0.045807,0.0798409,0.00655147,-0.00478954,-0.000294388,-0.00107762,0,0,0,0,0,0,0,1.93164,-35.4189,2.46461,26.8796,1.78405,1.36864,0.124619,
0.136854,0.0462354,0.194438,-1.92852,0.205312,0.128842,-0.0379607,0.00628188,-0.0193789,0.00365358,0.012317,0.261305,-0.119903,-0.00174945,0,0,0,0,0,0,0,6.60285,-0.229749,6.67442,-0.548412,0.366552,2.56144,-0.0240688,0.123232,0.0534962,0.181864,-1.9293,0.186643,0.101149,-0.0373755,0.0848262,-0.0355265,0.0961698,0.00846106,0.00638168,-0.000789156,-0.000436322,-0.850556,1.28507,2.04111,0.238699,1.3964,-0.0618461,0.0801622,-0.452694,-35.3197,0.187391,25.856,1.83349,1.27617,0.11821,
0.136817,0.0460801,0.194382,-1.92839,0.208754,0.126889,-0.0379758,0.00409905,-0.0193867,0.00154114,0.0129628,0.295106,-0.144742,-0.00177748,0,0,0,0,0,0,0,6.6834,-0.60962,6.72693,-0.425413,0.27887,2.38848,-0.0222231,0.123232,0.0534962,0.181864,-1.9293,0.186643,0.101149,-0.0373755,0.0848262,-0.0355265,0.0961698,0.00846106,0.00638168,-0.000789156,-0.000436322,0,0,0,0,0,0,0,-0.452694,-35.3197,0.187391,25.856,1.83349,1.27617,0.11821,
0.141414,0.0457262,0.199188,-1.92998,0.191939,0.139696,-0.0378622,0.0074415,-0.0192334,0.00490463,0.0118046,0.23612,-0.104393,-0.00172684,0,0,0,0,0,0,0,6.88289,0.216082,7.07485,-0.803136,1.27661,3.44587,-0.0348073,0.123232,0.0534962,0.181864,-1.9293,0.186643,0.101149,-0.0373755,0.0848262,-0.0355265,0.0961698,0.00846106,0.00638168,-0.000789156,-0.000436322,0,0,0,0,0,0,0,-0.452694,-35.3197,0.187391,25.856,1.83349,1.27617,0.11821,
0.141566,0.0455776,0.199321,-1.92992,0.192053,0.140068,-0.0378746,0.00975528,-0.0191039,0.00723503,0.0109939,0.19175,-0.07422,-0.0016901,0,0,0,0,0,0,0,7.11796,-0.258679,7.29516,-0.601894,1.08652,3.12435,-0.0313717,0.123232,0.0534962,0.181864,-1.9293,0.186643,0.101149,-0.0373755,0.0848262,-0.0355265,0.0961698,0.00846106,0.00638168,-0.000789156,-0.000436322,0,0,0,0,0,0,0,-0.452694,-35.3197,0.187391,25.856,1.83349,1.27617,0.11821,
0.141704,0.0454291,0.199438,-1.92985,0.192302,0.140341,-0.0378871,0.0112345,-0.0189952,0.00872721,0.0104683,0.15961,-0.0525646,-0.00166501,0,0,0,0,0,0,0,7.29432,-0.953883,7.43073,-0.471136,0.838726,2.69863,-0.0231941,0.125882,0.0521141,0.185447,-1.92905,0.18669,0.101126,-0.0373752,0.0772407,-0.0357726,0.0962626,0.014426,0.0031721,0.00112044,-1.72451e-05,-0.948194,-0.0307716,0.0116058,0.745617,-0.401198,0.2387,0.0523846,-1.00811,-35.3435,-0.312487,25.7806,1.70532,1.44189,0.11821,
0.141825,0.0452807,0.19954,-1.92978,0.192709,0.140496,-0.0378998,0.0120326,-0.0189051,0.00953523,0.0101787,0.137872,-0.0381633,-0.00164959,0,0,0,0,0,0,0,7.37158,-1.71904,7.42013,-0.423477,0.638254,2.2091,-0.0118219,0.125882,0.0521141,0.185447,-1.92905,0.18669,0.101126,-0.0373752,0.0772407,-0.0357726,0.0962626,0.014426,0.0031721,0.00112044,-1.72451e-05,0,0,0,0,0,0,0,-1.00811,-35.3435,-0.312487,25.7806,1.70532,1.44189,0.11821,
0.142164,0.0437603,0.200815,-1.92873,0.201915,0.12978,-0.0379367,0.0104707,-0.0189173,0.00798703,0.0107391,0.154123,-0.0505135,-0.00167693,0,0,0,0,0,0,0,6.22985,0.321608,6.37012,-0.852178,0.891522,3.09194,-0.0327967,0.125882,0.0521141,0.185447,-1.92905,0.18669,0.101126,-0.0373752,0.0772407,-0.0357726,0.0962626,0.014426,0.0031721,0.00112044,-1.72451e-05,0,0,0,0,0,0,0,-1.00811,-35.3435,-0.312487,25.7806,1.70532,1.44189,0.11821,
0.142179,0.0436081,0.20081,-1.92862,0.204031,0.128718,-0.0379513,0.00875197,-0.0189384,0.00628129,0.0113395,0.176209,-0.0669614,-0.00170701,0,0,0,0,0,0,0,6.43903,-0.0361428,6.57433,-0.643791,0.790924,2.87933,-0.031929,0.125882,0.0521141,0.185447,-1.92905,0.18669,0.101126,-0.0373752,0.0772407,-0.0357726,0.0962626,0.014426,0.0031721,0.00112044,-1.72451e-05,0,0,0,0,0,0,0,-1.00811,-35.3435,-0.312487,25.7806,1.70532,1.44189,0.11821,
0.142175,0.0434554,0.200788,-1.92851,0.206538,0.127376,-0.0379664,0.00691664,-0.0189696,0.00446112,0.0119599,0.203635,-0.0871162,-0.00174254,0,0,0,0,0,0,0,6.61893,-0.588319,6.73502,-0.470772,0.612318,2.5722,-0.0272615,0.12877,0.0508126,0.189175,-1.92872,0.186671,0.101126,-0.0373733,0.098489,-0.0349463,0.0984195,0.00879263,0.00776502,-0.00070019,0.000223597,2.65604,0.103293,0.269604,-0.70417,0.574115,-0.227579,0.0301053,-0.424923,-34.8714,0.187391,25.6339,1.63757,1.52794,0.0907442,
0.146189,0.0421962,0.205673,-1.92886,0.19531,0.134504,-0.0379001,0.00806364,-0.0190374,0.00562927,0.0115716,0.179872,-0.0692132,-0.00175045,0,0,0,0,0,0,0,7.02535,-0.568758,7.15046,-0.499195,0.742425,2.98828,-0.0281714,0.12877,0.0508126,0.189175,-1.92872,0.186671,0.101126,-0.0373733,0.098489,-0.0349463,0.0984195,0.00879263,0.00776502,-0.00070019,0.000223597,0,0,0,0,0,0,0,-0.424923,-34.8714,0.187391,25.6339,1.63757,1.52794,0.0907442,
0.146273,0.0420415,0.205738,-1.92878,0.196213,0.134353,-0.0379146,0.00856492,-0.0190988,0.00614659,0.0114114,0.166482,-0.0591349,-0.00176277,0,0,0,0,0,0,0,7.15116,-1.25173,7.22282,-0.381042,0.523575,2.5634,-0.0190467,0.12877,0.0508126,0.189175,-1.92872,0.186671,0.101126,-0.0373733,0.098489,-0.0349463,0.0984195,0.00879263,0.00776502,-0.00070019,0.000223597,0,0,0,0,0,0,0,-0.424923,-34.8714,0.187391,25.6339,1.63757,1.52794,0.0907442,
0.14634,0.0418864,0.205787,-1.92868,0.197378,0.134006,-0.0379294,0.0085313,-0.0191576,0.00612513,0.0114406,0.1623,-0.0559864,-0.00177897,0,0,0,0,0,0,0,7.16495,-2.0315,7.14512,-0.361092,0.390171,2.06101,-0.00754817,0.12877,0.0508126,0.189175,-1.92872,0.186671,0.101126,-0.0373733,0.098489,-0.0349463,0.0984195,0.00879263,0.00776502,-0.00070019,0.000223597,0,0,0,0,0,0,0,-0.424923,-34.8714,0.187391,25.6339,1.63757,1.52794,0.0907442,
0.146389,0.0417307,0.205817,-1.92859,0.198842,0.133434,-0.0379444,0.00805253,-0.0192171,0.00565579,0.0116256,0.166448,-0.0590814,-0.00179848,0,0,0,0,0,0,0,7.05192,-2.79928,6.90931,-0.439443,0.44553,1.52858,0.00198395,0.12877,0.0508126,0.189175,-1.92872,0.186671,0.101126,-0.0373733,0.098489,-0.0349463,0.0984195,0.00879263,0.00776502,-0.00070019,0.000223597,0,0,0,0,0,0,0,-0.424923,-34.8714,0.187391,25.6339,1.63757,1.52794,0.0907442,
0.14869,0.0400474,0.208234,-1.92789,0.202532,0.127278,-0.0379518,0.00714461,-0.0193551,0.00476779,0.01195,0.179497,-0.0686304,-0.00183132,0,0,0,0,0,0,0,6.79099,-0.725953,6.87084,-0.431009,0.506901,2.75502,-0.0265622,0.132188,0.0493701,0.192679,-1.92839,0.186684,0.101136,-0.0373735,0.102868,-0.0504244,0.109463,0.00775978,0.00619322,0.0016905,0.000878098,0.54735,-1.93476,1.38047,-0.129107,-0.196474,0.298836,0.0818125,1.04694,-35.768,1.61165,26.6296,1.67419,1.42174,0.0907442,
0.148699,0.0398874,0.208225,-1.92777,0.204766,0.126139,-0.0379679,0.00594664,-0.0194847,0.00358754,0.012368,0.199442,-0.0833745,-0.00186577,0,0,0,0,0,0,0,6.87433,-1.40046,6.89893,-0.332572,0.327286,2.33561,-0.017479,0.132188,0.0493701,0.192679,-1.92839,0.186684,0.101136,-0.0373735,0.102868,-0.0504244,0.109463,0.00775978,0.00619322,0.0016905,0.000878098,0,0,0,0,0,0,0,1.04694,-35.768,1.61165,26.6296,1.67419,1.42174,0.0907442,
0.14869,0.0397265,0.208197,-1.92766,0.207409,0.124696,-0.0379843,0.00452477,-0.0196103,0.00218402,0.0128486,0.225625,-0.102775,-0.00190417,0,0,0,0,0,0,0,6.84667,-2.14529,6.78427,-0.325369,0.251336,1.84146,-0.00678005,0.132188,0.0493701,0.192679,-1.92839,0.186684,0.101136,-0.0373735,0.102868,-0.0504244,0.109463,0.00775978,0.00619322,0.0016905,0.000878098,0,0,0,0,0,0,0,1.04694,-35.768,1.61165,26.6296,1.67419,1.42174,0.0907442,
0.148663,0.0395645,0.208153,-1.92753,0.210474,0.122938,-0.0380014,0.00295486,-0.0197381,0.000636972,0.0133638,0.257121,-0.126171,-0.00195031,0,0,0,0,0,0,0,6.70144,-2.85401,6.52927,-0.402724,0.365411,1.31788,0.00154725,0.132188,0.0493701,0.192679,-1.92839,0.186684,0.101136,-0.0373735,0.102868,-0.0504244,0.109463,0.00775978,0.00619322,0.0016905,0.000878098,0,0,0,0,0,0,0,1.04694,-35.768,1.61165,26.6296,1.67419,1.42174,0.0907442,
0.148916,0.0401816,0.208445,-1.92805,0.199096,0.1305,-0.0379387,0.00390477,-0.0196673,0.00158149,0.0130552,0.236628,-0.110091,-0.00195771,0,0,0,0,0,0,0,7.03233,-1.51945,7.04769,-0.348285,0.328415,2.51792,-0.0166649,0.135631,0.047713,0.19634,-1.92807,0.186662,0.101119,-0.0373768,0.0897339,-0.0624532,0.115448,0.00619466,0.00785605,0.000966122,0.000431546,-1.64174,-1.50361,0.748122,-0.19564,0.207854,-0.0905469,-0.0558189,2.18555,-35.5458,2.63917,27.0541,1.6687,1.58745,0.0907442,
0.14896,0.0400258,0.20847,-1.92795,0.200643,0.129896,-0.0379549,0.00421509,-0.0196291,0.0018865,0.0129754,0.22798,-0.103175,-0.00197065,0,0,0,0,0,0,0,6.99529,-2.27666,6.92439,-0.349115,0.264768,2.00348,-0.00598678,0.135631,0.047713,0.19634,-1.92807,0.186662,0.101119,-0.0373768,0.0897339,-0.0624532,0.115448,0.00619466,0.00785605,0.000966122,0.000431546,0,0,0,0,0,0,0,2.18555,-35.5458,2.63917,27.0541,1.6687,1.58745,0.0907442,
