xiao-wang007/linearmpc_panda/paper_data/panda_torque_PD_controller_opt_time_to_start_no_torque_ff/1/trajectory.csv
Commanded Joint 0 Position,Commanded Joint 1 Position,Commanded Joint 2 Position,Commanded Joint 3 Position,Commanded Joint 4 Position,Commanded Joint 5 Position,Commanded Joint 6 Position,Commanded Joint 0 Velocity,Commanded Joint 1 Velocity,Commanded Joint 2 Velocity,Commanded Joint 3 Velocity,Commanded Joint 4 Velocity,Commanded Joint 5 Velocity,Commanded Joint 6 Velocity,Commanded Joint 0 Acceleration,Commanded Joint 1 Acceleration,Commanded Joint 2 Acceleration,Commanded Joint 3 Acceleration,Commanded Joint 4 Acceleration,Commanded Joint 5 Acceleration,Commanded Joint 6 Acceleration,Commanded Joint 0 Torque,Commanded Joint 1 Torque,Commanded Joint 2 Torque,Commanded Joint 3 Torque,Commanded Joint 4 Torque,Commanded Joint 5 Torque,Commanded Joint 6 Torque,Actual Joint 0 Position,Actual Joint 1 Position,Actual Joint 2 Position,Actual Joint 3 Position,Actual Joint 4 Position,Actual Joint 5 Position,Actual Joint 6 Position,Actual Joint 0 Velocity,Actual Joint 1 Velocity,Actual Joint 2 Velocity,Actual Joint 3 Velocity,Actual Joint 4 Velocity,Actual Joint 5 Velocity,Actual Joint 6 Velocity,Actual Joint 0 Acceleration,Actual Joint 1 Acceleration,Actual Joint 2 Acceleration,Actual Joint 3 Acceleration,Actual Joint 4 Acceleration,Actual Joint 5 Acceleration,Actual Joint 6 Acceleration,Actual Joint 0 Torque,Actual Joint 1 Torque,Actual Joint 2 Torque,Actual Joint 3 Torque,Actual Joint 4 Torque,Actual Joint 5 Torque,Actual Joint 6 Torque,
-0.108372,-0.1439,0.0632287,-1.85764,0.0180318,0.228023,-0.00786977,0.000766807,0.0169788,0.00130483,-0.0348238,-0.00561439,0.0487326,-0.000357244,0.479255,10.6118,0.815518,-21.7649,-3.50899,30.4578,-0.223278,0,0,0,0,0,0,0,-0.108442,-0.144385,0.0631123,-1.85446,0.0184452,0.222717,-0.00782714,-0.000389272,0.000704791,0.000380539,-0.000238123,-2.92086e-05,-0.000177055,0.000890362,0,0,0,0,0,0,0,0.0313145,-30.428,-0.435472,27.4509,0.770565,3.21892,0.0779268,
-0.108442,-0.144373,0.0631121,-1.85446,0.018444,0.222717,-0.00782693,0.000614042,0.0136744,0.00104068,-0.0278876,-0.00450008,0.0390066,-0.000286474,-0.0954785,-2.0653,-0.165094,4.33509,0.696447,-6.0787,0.0442314,0,0,0,0,0,0,0,-0.108442,-0.144256,0.0631159,-1.85451,0.0184432,0.222719,-0.00782185,-0.000938006,0.00857745,0.00170027,0.000580492,-0.000714267,0.00729008,0.00207187,-0.0685917,0.984082,0.164966,0.102327,-0.0856323,0.933392,0.147688,0.0313145,-30.1265,-0.487047,27.3001,0.788876,3.19878,0.0303194,
-0.108442,-0.14437,0.063112,-1.85447,0.0184437,0.222719,-0.00782696,0.000491422,0.0110217,0.000828753,-0.0223327,-0.00360758,0.031239,-0.000229833,-0.0766372,-1.65792,-0.132454,3.47186,0.557807,-4.8548,0.0354008,0,0,0,0,0,0,0,-0.108442,-0.144256,0.0631159,-1.85451,0.0184432,0.222719,-0.00782185,-0.000938006,0.00857745,0.00170027,0.000580492,-0.000714267,0.00729008,0.00207187,0,0,0,0,0,0,0,0.0313145,-30.1265,-0.487047,27.3001,0.788876,3.19878,0.0303194,
-0.108442,-0.144367,0.0631118,-1.85447,0.0184434,0.222721,-0.00782699,0.000393074,0.00889244,0.000658811,-0.0178837,-0.00289276,0.0250362,-0.000184499,-0.0614676,-1.33078,-0.106214,2.78058,0.446764,-3.87671,0.0283335,0,0,0,0,0,0,0,-0.108442,-0.144256,0.0631159,-1.85451,0.0184432,0.222719,-0.00782185,-0.000938006,0.00857745,0.00170027,0.000580492,-0.000714267,0.00729008,0.00207187,0,0,0,0,0,0,0,0.0313145,-30.1265,-0.487047,27.3001,0.788876,3.19878,0.0303194,
-0.108442,-0.144364,0.0631116,-1.85447,0.0184432,0.222723,-0.00782701,0.000314245,0.00718346,0.000522591,-0.0143206,-0.0023202,0.0200838,-0.00014822,-0.0492679,-1.06811,-0.0851376,2.22697,0.357853,-3.09523,0.0226748,0,0,0,0,0,0,0,-0.108442,-0.144256,0.0631159,-1.85451,0.0184432,0.222719,-0.00782185,-0.000938006,0.00857745,0.00170027,0.000580492,-0.000714267,0.00729008,0.00207187,0,0,0,0,0,0,0,0.0313145,-30.1265,-0.487047,27.3001,0.788876,3.19878,0.0303194,
-0.108741,-0.144137,0.0628392,-1.85437,0.0272214,0.217943,-0.00785433,-0.000746605,0.00591936,-0.000657802,-0.011199,0.0535495,-0.0156473,-0.000155141,-0.663031,-0.790065,-0.737745,1.951,34.9185,-22.332,-0.00432597,0,0,0,0,0,0,0,-0.108433,-0.144054,0.0631145,-1.85484,0.0184393,0.22306,-0.00783267,-0.00117417,0.00863698,0.00127299,-0.0249541,-0.0021242,0.0262134,-3.27563e-05,-0.0295207,0.00744111,-0.0534098,-3.19183,-0.176242,2.36541,-0.263078,-0.0440639,-28.8054,-0.435472,26.4035,0.795284,3.14568,0.0980684,
-0.108767,-0.144131,0.0628099,-1.85436,0.0295033,0.216615,-0.00785524,-0.00124654,0.00487534,-0.00125889,-0.00888312,0.0998887,-0.0457308,-0.000147007,-0.31246,-0.652507,-0.375683,1.44743,28.962,-18.8022,0.00508383,0,0,0,0,0,0,0,-0.108433,-0.144054,0.0631145,-1.85484,0.0184393,0.22306,-0.00783267,-0.00117417,0.00863698,0.00127299,-0.0249541,-0.0021242,0.0262134,-3.27563e-05,0,0,0,0,0,0,0,-0.0440639,-28.8054,-0.435472,26.4035,0.795284,3.14568,0.0980684,
-0.108781,-0.144125,0.0627932,-1.85437,0.0318205,0.215249,-0.00785592,-0.00133754,0.00404214,-0.00142555,-0.0071757,0.13784,-0.0707228,-0.00013455,-0.056873,-0.520754,-0.104162,1.06714,23.7199,-15.62,0.00778533,0,0,0,0,0,0,0,-0.108433,-0.144054,0.0631145,-1.85484,0.0184393,0.22306,-0.00783267,-0.00117417,0.00863698,0.00127299,-0.0249541,-0.0021242,0.0262134,-3.27563e-05,0,0,0,0,0,0,0,-0.0440639,-28.8054,-0.435472,26.4035,0.795284,3.14568,0.0980684,
-0.10908,-0.143701,0.0625767,-1.85404,0.0475074,0.197105,-0.0079406,-0.00227727,0.00406074,-0.00221896,-0.00477968,0.297125,-0.224718,-0.000241171,-0.587333,0.0116244,-0.495877,1.49751,99.553,-96.2473,-0.0666377,0,0,0,0,0,0,0,-0.108433,-0.144054,0.0631145,-1.85484,0.0184393,0.22306,-0.00783267,-0.00117417,0.00863698,0.00127299,-0.0249541,-0.0021242,0.0262134,-3.27563e-05,0,0,0,0,0,0,0,-0.0440639,-28.8054,-0.435472,26.4035,0.795284,3.14568,0.0980684,
-0.10908,-0.143658,0.0625806,-1.85405,0.0552795,0.190105,-0.00794565,-0.0018159,0.00432351,-0.00167732,-0.00412723,0.432002,-0.354792,-0.000319193,0.288355,0.164231,0.338526,0.407781,84.2983,-81.2962,-0.0487637,0,0,0,0,0,0,0,-0.108446,-0.143721,0.0631057,-1.85524,0.0188988,0.223143,-0.00783516,-0.0022995,0.0147663,-0.00234058,-0.00644687,0.0630124,-0.00113207,-0.000801265,-0.140666,0.76617,-0.451696,2.31341,8.14208,-3.41818,-0.0960636,0.134464,-30.3288,-0.33629,27.5739,1.52221,3.15941,0.11821,
-0.109038,-0.1436,0.0626266,-1.8541,0.0632489,0.182944,-0.00795031,-0.000403861,0.00490284,-0.000194089,-0.00459741,0.544837,-0.462855,-0.000371714,0.882525,0.362086,0.927017,-0.293864,70.5215,-67.5393,-0.032826,0,0,0,0,0,0,0,-0.108446,-0.143721,0.0631057,-1.85524,0.0188988,0.223143,-0.00783516,-0.0022995,0.0147663,-0.00234058,-0.00644687,0.0630124,-0.00113207,-0.000801265,0,0,0,0,0,0,0,0.134464,-30.3288,-0.33629,27.5739,1.52221,3.15941,0.11821,
-0.108961,-0.143526,0.0627082,-1.85419,0.0713509,0.175703,-0.00795488,0.00158966,0.00576323,0.0018857,-0.00575105,0.63842,-0.551292,-0.000411736,1.24595,0.537739,1.29987,-0.721022,58.4893,-55.273,-0.0250139,0,0,0,0,0,0,0,-0.108446,-0.143721,0.0631057,-1.85524,0.0188988,0.223143,-0.00783516,-0.0022995,0.0147663,-0.00234058,-0.00644687,0.0630124,-0.00113207,-0.000801265,0,0,0,0,0,0,0,0.134464,-30.3288,-0.33629,27.5739,1.52221,3.15941,0.11821,
-0.105727,-0.145129,0.0663419,-1.85691,0.0451947,0.188261,-0.00757952,0.0213206,-0.00748796,0.0238484,-0.0206524,0.686771,-0.675016,6.37879e-05,12.3318,-8.28199,13.7267,-9.31334,30.2193,-77.3277,0.297203,0,0,0,0,0,0,0,-0.108446,-0.143721,0.0631057,-1.85524,0.0188988,0.223143,-0.00783516,-0.0022995,0.0147663,-0.00234058,-0.00644687,0.0630124,-0.00113207,-0.000801265,0,0,0,0,0,0,0,0.134464,-30.3288,-0.33629,27.5739,1.52221,3.15941,0.11821,
-0.104867,-0.145611,0.0673071,-1.85761,0.0526647,0.178331,-0.00756616,0.0385597,-0.018053,0.0432081,-0.0338852,0.736166,-0.788252,0.000385008,10.7744,-6.60312,12.0998,-8.2705,30.8723,-70.7719,0.200762,0,0,0,0,0,0,0,-0.108802,-0.143324,0.0628283,-1.85518,0.0290324,0.218994,-0.00783334,-0.0161045,-0.000619212,-0.0132004,0.00825021,0.555702,-0.3161,-0.00131703,-1.72563,-1.92319,-1.35747,1.83714,61.5862,-39.371,-0.0644707,1.90784,-30.1265,1.18715,25.2094,3.17108,1.01067,0.0907442,
-0.103965,-0.146079,0.068321,-1.85834,0.0604441,0.168005,-0.00755347,0.0534012,-0.0261314,0.0599152,-0.0453946,0.783418,-0.888772,0.00062543,9.27594,-5.049,10.4419,-7.19338,29.5323,-62.8255,0.150264,0,0,0,0,0,0,0,-0.108802,-0.143324,0.0628283,-1.85518,0.0290324,0.218994,-0.00783334,-0.0161045,-0.000619212,-0.0132004,0.00825021,0.555702,-0.3161,-0.00131703,0,0,0,0,0,0,0,1.90784,-30.1265,1.18715,25.2094,3.17108,1.01067,0.0907442,
-0.103035,-0.146525,0.0693657,-1.85909,0.0684474,0.157402,-0.00754035,0.0659857,-0.0320688,0.0740476,-0.0552323,0.826817,-0.976086,0.000828245,7.86527,-3.71093,8.83273,-6.14854,27.1243,-54.5711,0.126759,0,0,0,0,0,0,0,-0.108802,-0.143324,0.0628283,-1.85518,0.0290324,0.218994,-0.00783334,-0.0161045,-0.000619212,-0.0132004,0.00825021,0.555702,-0.3161,-0.00131703,0,0,0,0,0,0,0,1.90784,-30.1265,1.18715,25.2094,3.17108,1.01067,0.0907442,
-0.105145,-0.143681,0.0667687,-1.85826,0.0607942,0.1811,-0.00772991,0.0788344,-0.0255309,0.0873452,-0.0661499,0.845084,-1.01813,0.000907671,8.03045,4.08619,8.31103,-6.82354,11.4172,-26.2771,0.0496408,0,0,0,0,0,0,0,-0.108802,-0.143324,0.0628283,-1.85518,0.0290324,0.218994,-0.00783334,-0.0161045,-0.000619212,-0.0132004,0.00825021,0.555702,-0.3161,-0.00131703,0,0,0,0,0,0,0,1.90784,-30.1265,1.18715,25.2094,3.17108,1.01067,0.0907442,
-0.104034,-0.143627,0.0679686,-1.85921,0.0684532,0.171139,-0.0077183,0.0908446,-0.0190805,0.0998741,-0.0766525,0.867542,-1.06352,0.00101632,7.50642,4.03155,7.83055,-6.56412,14.0362,-28.3705,0.0679052,0,0,0,0,0,0,0,-0.108802,-0.143324,0.0628283,-1.85518,0.0290324,0.218994,-0.00783334,-0.0161045,-0.000619212,-0.0132004,0.00825021,0.555702,-0.3161,-0.00131703,0,0,0,0,0,0,0,1.90784,-30.1265,1.18715,25.2094,3.17108,1.01067,0.0907442,
-0.102879,-0.143531,0.0692164,-1.86021,0.0763559,0.160839,-0.00770472,0.101549,-0.0128638,0.111094,-0.0863918,0.8916,-1.10831,0.00115267,6.69016,3.88543,7.01246,-6.08705,15.0362,-27.9952,0.0852199,0,0,0,0,0,0,0,-0.109223,-0.143179,0.0624784,-1.85505,0.0511837,0.201135,-0.00784008,-0.00857859,0.00271821,0.00562219,0.00201725,0.723247,-0.691191,-0.00162498,0.940739,0.417177,2.35282,-0.77912,20.9432,-46.8863,-0.0384938,4.49451,-30.8009,4.18641,24.6857,3.17108,-0.175852,0.151169,
-0.101699,-0.143402,0.0704913,-1.86127,0.0844465,0.150409,-0.00768986,0.110738,-0.0070614,0.120748,-0.0955861,0.915545,-1.1474,0.00129357,5.74323,3.62648,6.03397,-5.74648,14.9653,-24.4307,0.0880625,0,0,0,0,0,0,0,-0.109223,-0.143179,0.0624784,-1.85505,0.0511837,0.201135,-0.00784008,-0.00857859,0.00271821,0.00562219,0.00201725,0.723247,-0.691191,-0.00162498,0,0,0,0,0,0,0,4.49451,-30.8009,4.18641,24.6857,3.17108,-0.175852,0.151169,
-0.104703,-0.144077,0.0672877,-1.86135,0.0848823,0.159325,-0.00785812,0.119054,-0.00852032,0.129278,-0.115053,0.918587,-1.16188,0.000672904,5.19723,-0.911825,5.33101,-12.167,1.90138,-9.04835,-0.387917,0,0,0,0,0,0,0,-0.109223,-0.143179,0.0624784,-1.85505,0.0511837,0.201135,-0.00784008,-0.00857859,0.00271821,0.00562219,0.00201725,0.723247,-0.691191,-0.00162498,0,0,0,0,0,0,0,4.49451,-30.8009,4.18641,24.6857,3.17108,-0.175852,0.151169,
-0.10342,-0.144165,0.0686663,-1.86295,0.0925923,0.149193,-0.00787141,0.127326,-0.00901146,0.137887,-0.132206,0.92762,-1.1828,0.000205881,5.17,-0.306961,5.38039,-10.7203,5.64558,-13.0761,-0.291889,0,0,0,0,0,0,0,-0.109223,-0.143179,0.0624784,-1.85505,0.0511837,0.201135,-0.00784008,-0.00857859,0.00271821,0.00562219,0.00201725,0.723247,-0.691191,-0.00162498,0,0,0,0,0,0,0,4.49451,-30.8009,4.18641,24.6857,3.17108,-0.175852,0.151169,
-0.102095,-0.144235,0.0700898,-1.86462,0.100512,0.138869,-0.00787983,0.134972,-0.00897884,0.145899,-0.147332,0.940081,-1.20433,-4.55519e-05,4.77914,0.0203856,5.00779,-9.45359,7.78787,-13.4571,-0.157145,0,0,0,0,0,0,0,-0.108997,-0.143696,0.0630825,-1.85604,0.0785786,0.171617,-0.00783299,0.0240336,-0.0269751,0.0289752,-0.0440055,0.821263,-0.899999,0.001006,4.07653,-3.71167,2.91912,-5.75285,12.2521,-26.101,0.328873,6.29566,-27.7342,6.13832,23.2892,2.77374,0.188528,0.0843355,
-0.100743,-0.144301,0.0715423,-1.86638,0.108597,0.128928,-0.00788235,0.141777,-0.00882246,0.153031,-0.16208,0.954205,-1.21201,-9.96009e-05,4.25318,0.0977386,4.45755,-9.21805,8.82786,-4.79835,-0.0337807,0,0,0,0,0,0,0,-0.108997,-0.143696,0.0630825,-1.85604,0.0785786,0.171617,-0.00783299,0.0240336,-0.0269751,0.0289752,-0.0440055,0.821263,-0.899999,0.001006,0,0,0,0,0,0,0,6.29566,-27.7342,6.13832,23.2892,2.77374,0.188528,0.0843355,
-0.103739,-0.144743,0.0686745,-1.86472,0.114022,0.127635,-0.00793822,0.146613,-0.00843937,0.158066,-0.180062,0.953558,-1.21554,-0.000673082,3.02226,0.239428,3.14699,-11.2386,-0.404537,-2.20355,-0.358426,0,0,0,0,0,0,0,-0.108997,-0.143696,0.0630825,-1.85604,0.0785786,0.171617,-0.00783299,0.0240336,-0.0269751,0.0289752,-0.0440055,0.821263,-0.899999,0.001006,0,0,0,0,0,0,0,6.29566,-27.7342,6.13832,23.2892,2.77374,0.188528,0.0843355,
-0.102355,-0.144758,0.0701614,-1.86688,0.12185,0.11807,-0.00795629,0.151903,-0.00713414,0.163626,-0.197965,0.958541,-1.21155,-0.000990121,3.30604,0.815769,3.47451,-11.1894,3.11436,2.49223,-0.198149,0,0,0,0,0,0,0,-0.108997,-0.143696,0.0630825,-1.85604,0.0785786,0.171617,-0.00783299,0.0240336,-0.0269751,0.0289752,-0.0440055,0.821263,-0.899999,0.001006,0,0,0,0,0,0,0,6.29566,-27.7342,6.13832,23.2892,2.77374,0.188528,0.0843355,
-0.100933,-0.144732,0.0716883,-1.86915,0.129848,0.109154,-0.00796675,0.157065,-0.00506413,0.169072,-0.215168,0.966786,-1.19213,-0.00105358,3.22655,1.29376,3.4043,-10.7518,5.15331,12.137,-0.0396614,0,0,0,0,0,0,0,-0.107149,-0.144393,0.0651474,-1.85905,0.107216,0.138162,-0.0078282,0.075694,-0.00772409,0.0756768,-0.110265,0.888477,-1.04286,0.00174936,6.45755,2.40638,5.8377,-8.28244,8.40167,-17.8582,0.0929196,5.30384,-26.9328,5.18617,23.0432,2.56042,0.672842,0.0440523,
-0.0994896,-0.144664,0.0732385,-1.8715,0.137971,0.101078,-0.00797147,0.161732,-0.0023595,0.174013,-0.230779,0.976514,-1.1556,-0.000960752,2.91704,1.69039,3.08817,-9.7571,6.0801,22.8294,0.0580173,0,0,0,0,0,0,0,-0.107149,-0.144393,0.0651474,-1.85905,0.107216,0.138162,-0.0078282,0.075694,-0.00772409,0.0756768,-0.110265,0.888477,-1.04286,0.00174936,0,0,0,0,0,0,0,5.30384,-26.9328,5.18617,23.0432,2.56042,0.672842,0.0440523,
-0.101127,-0.14568,0.0715654,-1.87123,0.144684,0.0962265,-0.00795111,0.164586,-0.00606434,0.176947,-0.254902,0.977238,-1.11571,-0.00127859,1.78376,-2.31552,1.83337,-15.0769,0.452175,24.9318,-0.19865,0,0,0,0,0,0,0,-0.107149,-0.144393,0.0651474,-1.85905,0.107216,0.138162,-0.0078282,0.075694,-0.00772409,0.0756768,-0.110265,0.888477,-1.04286,0.00174936,0,0,0,0,0,0,0,5.30384,-26.9328,5.18617,23.0432,2.56042,0.672842,0.0440523,
-0.0996801,-0.145802,0.0731179,-1.87412,0.152659,0.0894976,-0.00796568,0.167845,-0.00789427,0.18037,-0.276179,0.981173,-1.06079,-0.00138727,2.03664,-1.14371,2.13956,-13.2981,2.45962,34.3246,-0.0679229,0,0,0,0,0,0,0,-0.107149,-0.144393,0.0651474,-1.85905,0.107216,0.138162,-0.0078282,0.075694,-0.00772409,0.0756768,-0.110265,0.888477,-1.04286,0.00174936,0,0,0,0,0,0,0,5.30384,-26.9328,5.18617,23.0432,2.56042,0.672842,0.0440523,
-0.0982119,-0.145885,0.074694,-1.87705,0.160736,0.0837435,-0.00797192,0.170982,-0.00839359,0.183699,-0.294113,0.986871,-0.992487,-0.00126585,1.96093,-0.312075,2.08034,-11.2085,3.5613,42.6912,0.0758869,0,0,0,0,0,0,0,-0.10384,-0.1449,0.0686675,-1.86493,0.138045,0.101182,-0.00784117,0.120553,-0.0129701,0.116157,-0.203193,0.925274,-1.09426,-0.000449684,5.60732,-0.655747,5.06,-11.6161,4.5997,-6.42404,-0.27488,3.20118,-27.4565,2.88911,23.3646,1.98639,1.90606,0.11821,
-0.0972554,-0.145725,0.0756888,-1.87965,0.17693,0.0718567,-0.00789137,0.172822,-0.00752519,0.185552,-0.31399,0.989241,-0.895845,-0.000988934,1.14946,0.542749,1.15799,-12.423,1.48126,60.4014,0.173072,0,0,0,0,0,0,0,-0.10384,-0.1449,0.0686675,-1.86493,0.138045,0.101182,-0.00784117,0.120553,-0.0129701,0.116157,-0.203193,0.925274,-1.09426,-0.000449684,0,0,0,0,0,0,0,3.20118,-27.4565,2.88911,23.3646,1.98639,1.90606,0.11821,
-0.0957998,-0.145712,0.0772489,-1.8828,0.184996,0.0686519,-0.00788446,0.174648,-0.00568591,0.187443,-0.329928,0.99306,-0.796796,-0.000618537,1.14124,1.14955,1.18247,-9.96159,2.38676,61.9058,0.231498,0,0,0,0,0,0,0,-0.10384,-0.1449,0.0686675,-1.86493,0.138045,0.101182,-0.00784117,0.120553,-0.0129701,0.116157,-0.203193,0.925274,-1.09426,-0.000449684,0,0,0,0,0,0,0,3.20118,-27.4565,2.88911,23.3646,1.98639,1.90606,0.11821,
-0.0943431,-0.145663,0.078811,-1.88593,0.19312,0.0662537,-0.00787064,0.176134,-0.00333783,0.189007,-0.342132,0.997541,-0.697391,-0.000149322,0.929234,1.46755,0.977466,-7.62722,2.80041,62.1277,0.293259,0,0,0,0,0,0,0,-0.10384,-0.1449,0.0686675,-1.86493,0.138045,0.101182,-0.00784117,0.120553,-0.0129701,0.116157,-0.203193,0.925274,-1.09426,-0.000449684,0,0,0,0,0,0,0,3.20118,-27.4565,2.88911,23.3646,1.98639,1.90606,0.11821,
-0.0928946,-0.145588,0.080365,-1.88902,0.201283,0.0645914,-0.0078495,0.17712,-0.000798359,0.190056,-0.350954,1.0021,-0.599469,0.000409188,0.616146,1.58717,0.655668,-5.51362,2.84913,61.2014,0.349069,0,0,0,0,0,0,0,-0.0993557,-0.145652,0.0738296,-1.87452,0.170338,0.0678832,-0.00783741,0.140427,-0.0375327,0.163715,-0.354659,0.987457,-0.86294,0.000234996,2.48428,-3.07032,5.94481,-18.9332,7.77286,28.9146,0.085585,0.892215,-26.3338,0.413527,25.4831,2.0047,2.84722,0.0843355,
-0.0922042,-0.14652,0.0814689,-1.89225,0.210353,0.0533018,-0.00778009,0.178808,-0.00189385,0.191834,-0.370069,1.00383,-0.506067,0.000888901,1.05494,-0.684684,1.11087,-11.9473,1.07998,58.3762,0.299821,0,0,0,0,0,0,0,-0.0993557,-0.145652,0.0738296,-1.87452,0.170338,0.0678832,-0.00783741,0.140427,-0.0375327,0.163715,-0.354659,0.987457,-0.86294,0.000234996,0,0,0,0,0,0,0,0.892215,-26.3338,0.413527,25.4831,2.0047,2.84722,0.0843355,
-0.0907258,-0.14654,0.083055,-1.89578,0.218469,0.0529413,-0.00774947,0.180005,-0.00202529,0.19312,-0.384302,1.00597,-0.413864,0.00147667,0.748065,-0.0821509,0.803777,-8.89525,1.33843,57.6267,0.367353,0,0,0,0,0,0,0,-0.0993557,-0.145652,0.0738296,-1.87452,0.170338,0.0678832,-0.00783741,0.140427,-0.0375327,0.163715,-0.354659,0.987457,-0.86294,0.000234996,0,0,0,0,0,0,0,0.892215,-26.3338,0.413527,25.4831,2.0047,2.84722,0.0843355,
-0.0892623,-0.146541,0.0846261,-1.89926,0.226606,0.0531905,-0.00770959,0.180593,-0.00164086,0.193772,-0.394392,1.0082,-0.324863,0.00217833,0.367296,0.24027,0.407423,-6.30646,1.39634,55.6259,0.43854,0,0,0,0,0,0,0,-0.0993557,-0.145652,0.0738296,-1.87452,0.170338,0.0678832,-0.00783741,0.140427,-0.0375327,0.163715,-0.354659,0.987457,-0.86294,0.000234996,0,0,0,0,0,0,0,0.892215,-26.3338,0.413527,25.4831,2.0047,2.84722,0.0843355,
-0.0878205,-0.14653,0.0861743,-1.90268,0.234757,0.0539674,-0.00766213,0.180519,-0.00102839,0.193724,-0.401038,1.01032,-0.240466,0.00292916,-0.0461961,0.382793,-0.0298567,-4.15374,1.32522,52.7479,0.469267,0,0,0,0,0,0,0,-0.0940814,-0.145448,0.0797363,-1.887,0.203829,0.045077,-0.00784036,0.167632,0.0317064,0.180911,-0.375014,0.986776,-0.508087,-0.000779191,3.4006,8.65489,2.14949,-2.54437,-0.0851665,44.3566,-0.126773,0.590702,-29.1783,-0.0387439,25.7568,2.29766,2.95983,0.110886,
-0.0867407,-0.145352,0.0875656,-1.9066,0.244132,0.0465828,-0.00765934,0.18128,0.000939358,0.194404,-0.417522,1.01025,-0.146817,0.0036549,0.475863,1.22984,0.425274,-10.3025,-0.0448648,58.5307,0.453589,0,0,0,0,0,0,0,-0.0940814,-0.145448,0.0797363,-1.887,0.203829,0.045077,-0.00784036,0.167632,0.0317064,0.180911,-0.375014,0.986776,-0.508087,-0.000779191,0,0,0,0,0,0,0,0.590702,-29.1783,-0.0387439,25.7568,2.29766,2.95983,0.110886,
-0.0852877,-0.145268,0.08912,-1.9104,0.252222,0.0488715,-0.00759635,0.181347,0.00286284,0.194384,-0.428987,1.01047,-0.0602358,0.00449869,0.0415767,1.20218,-0.0125787,-7.16531,0.138838,54.1133,0.527368,0,0,0,0,0,0,0,-0.0940814,-0.145448,0.0797363,-1.887,0.203829,0.045077,-0.00784036,0.167632,0.0317064,0.180911,-0.375014,0.986776,-0.508087,-0.000779191,0,0,0,0,0,0,0,0.590702,-29.1783,-0.0387439,25.7568,2.29766,2.95983,0.110886,
-0.0838652,-0.145174,0.0906419,-1.91413,0.260324,0.0515263,-0.00752964,0.180641,0.00462485,0.193555,-0.436374,1.01093,0.0181807,0.00526672,-0.441209,1.10126,-0.518059,-4.61693,0.285147,49.0104,0.480023,0,0,0,0,0,0,0,-0.0940814,-0.145448,0.0797363,-1.887,0.203829,0.045077,-0.00784036,0.167632,0.0317064,0.180911,-0.375014,0.986776,-0.508087,-0.000779191,0,0,0,0,0,0,0,0.590702,-29.1783,-0.0387439,25.7568,2.29766,2.95983,0.110886,
-0.082478,-0.145074,0.0921225,-1.91778,0.268435,0.0544587,-0.00746505,0.179193,0.00620636,0.191859,-0.440456,1.01151,0.0878544,0.0058283,-0.904726,0.988442,-1.06016,-2.55163,0.36125,43.546,0.350988,0,0,0,0,0,0,0,-0.0883149,-0.145599,0.0860756,-1.90163,0.237567,0.0357281,-0.00783453,0.173617,-0.0292796,0.194425,-0.488721,0.977504,-0.134791,0.000291995,0.748204,-7.62325,1.68921,-14.2133,-1.15902,46.662,0.133898,-0.119442,-28.0556,-0.812364,27.677,2.17498,3.57049,0.0980684,
-0.0810265,-0.146361,0.0938548,-1.92289,0.277645,0.0500756,-0.00750273,0.178616,0.00365465,0.191304,-0.455146,1.01084,0.172411,0.0063279,-0.36091,-1.59482,-0.346809,-9.18127,-0.416333,52.8479,0.312248,0,0,0,0,0,0,0,-0.0883149,-0.145599,0.0860756,-1.90163,0.237567,0.0357281,-0.00783453,0.173617,-0.0292796,0.194425,-0.488721,0.977504,-0.134791,0.000291995,0,0,0,0,0,0,0,-0.119442,-28.0556,-0.812364,27.677,2.17498,3.57049,0.0980684,
-0.0796314,-0.14639,0.0953521,-1.92689,0.285269,0.0544049,-0.00743675,0.17777,0.00219716,0.190476,-0.464147,0.999282,0.246162,0.00671181,-0.528322,-0.910929,-0.517978,-5.62538,-7.2248,46.0941,0.239946,0,0,0,0,0,0,0,-0.0883149,-0.145599,0.0860756,-1.90163,0.237567,0.0357281,-0.00783453,0.173617,-0.0292796,0.194425,-0.488721,0.977504,-0.134791,0.000291995,0,0,0,0,0,0,0,-0.119442,-28.0556,-0.812364,27.677,2.17498,3.57049,0.0980684,
-0.0782412,-0.146407,0.096842,-1.93078,0.292153,0.0588911,-0.00737471,0.176972,0.00133551,0.189628,-0.468569,0.97151,0.309086,0.00692039,-0.498836,-0.538528,-0.529648,-2.7636,-17.3578,39.3275,0.130362,0,0,0,0,0,0,0,-0.0883149,-0.145599,0.0860756,-1.90163,0.237567,0.0357281,-0.00783453,0.173617,-0.0292796,0.194425,-0.488721,0.977504,-0.134791,0.000291995,0,0,0,0,0,0,0,-0.119442,-28.0556,-0.812364,27.677,2.17498,3.57049,0.0980684,
-0.0768562,-0.146419,0.0983251,-1.93457,0.298165,0.0634738,-0.00731418,0.176202,0.000758343,0.188781,-0.469553,0.927512,0.361836,0.00704975,-0.481278,-0.360731,-0.529295,-0.614944,-27.4987,32.9688,0.0808446,0,0,0,0,0,0,0,-0.0883149,-0.145599,0.0860756,-1.90163,0.237567,0.0357281,-0.00783453,0.173617,-0.0292796,0.194425,-0.488721,0.977504,-0.134791,0.000291995,0,0,0,0,0,0,0,-0.119442,-28.0556,-0.812364,27.677,2.17498,3.57049,0.0980684,
-0.0753295,-0.145008,0.100264,-1.93972,0.304989,0.0599097,-0.00749303,0.176926,0.00258431,0.189305,-0.479739,0.870478,0.426373,0.00714693,0.45212,1.14123,0.327167,-6.36669,-35.6461,40.3356,0.060743,0,0,0,0,0,0,0,-0.0825062,-0.145153,0.0926445,-1.91787,0.271074,0.0364365,-0.00783559,0.174782,0.0200979,0.188437,-0.486537,0.97854,0.139417,0.00173134,0.145595,6.17218,-0.748486,0.272926,0.129597,34.276,0.179918,-0.40112,-27.5081,-1.18529,23.6383,2.27935,2.80785,0.110886,
-0.0739015,-0.144923,0.101784,-1.94378,0.309207,0.0654602,-0.00743219,0.177242,0.00419191,0.189454,-0.485335,0.801839,0.479861,0.00723853,0.197987,1.00475,0.0931979,-3.49702,-42.8991,33.4302,0.0572494,0,0,0,0,0,0,0,-0.0825062,-0.145153,0.0926445,-1.91787,0.271074,0.0364365,-0.00783559,0.174782,0.0200979,0.188437,-0.486537,0.97854,0.139417,0.00173134,0,0,0,0,0,0,0,-0.40112,-27.5081,-1.18529,23.6383,2.27935,2.80785,0.110886,
-0.0724886,-0.144837,0.103288,-1.94775,0.312577,0.0710204,-0.00737154,0.177115,0.00550992,0.189172,-0.487582,0.725719,0.522893,0.00730716,-0.0799189,0.823751,-0.176009,-1.40452,-47.575,26.8951,0.0428915,0,0,0,0,0,0,0,-0.0825062,-0.145153,0.0926445,-1.91787,0.271074,0.0364365,-0.00783559,0.174782,0.0200979,0.188437,-0.486537,0.97854,0.139417,0.00173134,0,0,0,0,0,0,0,-0.40112,-27.5081,-1.18529,23.6383,2.27935,2.80785,0.110886,
-0.0710931,-0.144751,0.104774,-1.95165,0.315176,0.0765484,-0.00730782,0.176581,0.00654377,0.188487,-0.487394,0.645544,0.556515,0.00743867,-0.33363,0.64616,-0.428172,0.117559,-50.1097,21.0134,0.0821941,0,0,0,0,0,0,0,-0.0825062,-0.145153,0.0926445,-1.91787,0.271074,0.0364365,-0.00783559,0.174782,0.0200979,0.188437,-0.486537,0.97854,0.139417,0.00173134,0,0,0,0,0,0,0,-0.40112,-27.5081,-1.18529,23.6383,2.27935,2.80785,0.110886,
-0.0749733,-0.14556,0.100592,-1.94052,0.292497,0.0644542,-0.00751533,0.178322,0.00437473,0.190137,-0.498571,0.575495,0.608552,0.00758349,1.08858,-1.35565,1.03112,-6.98604,-43.7806,32.5236,0.0905143,0,0,0,0,0,0,0,-0.0763408,-0.144467,0.0993187,-1.93475,0.301427,0.0464782,-0.00783709,0.185716,0.0287518,0.20739,-0.504953,0.768621,0.404469,-0.0010669,1.36678,1.08174,2.36915,-2.30201,-26.2399,33.1315,-0.349781,-1.28582,-30.305,-2.11363,27.6492,1.76574,3.15941,0.124619,
-0.0735193,-0.145587,0.102137,-1.94477,0.294189,0.071048,-0.00744639,0.179009,0.00283856,0.190744,-0.505175,0.50269,0.651686,0.00779025,0.428924,-0.960111,0.379144,-4.1275,-45.5031,26.9583,0.129221,0,0,0,0,0,0,0,-0.0763408,-0.144467,0.0993187,-1.93475,0.301427,0.0464782,-0.00783709,0.185716,0.0287518,0.20739,-0.504953,0.768621,0.404469,-0.0010669,0,0,0,0,0,0,0,-1.28582,-30.305,-2.11363,27.6492,1.76574,3.15941,0.124619,
-0.0720949,-0.14561,0.103652,-1.94894,0.295337,0.077619,-0.00737541,0.178817,0.00167707,0.190464,-0.508373,0.430853,0.685625,0.0080067,-0.119856,-0.725931,-0.174955,-1.99876,-44.8978,21.2119,0.135283,0,0,0,0,0,0,0,-0.0763408,-0.144467,0.0993187,-1.93475,0.301427,0.0464782,-0.00783709,0.185716,0.0287518,0.20739,-0.504953,0.768621,0.404469,-0.0010669,0,0,0,0,0,0,0,-1.28582,-30.305,-2.11363,27.6492,1.76574,3.15941,0.124619,
-0.0706991,-0.145634,0.105136,-1.95304,0.296043,0.0841135,-0.00730107,0.177946,0.000744603,0.189488,-0.509021,0.36234,0.710862,0.00826379,-0.544122,-0.582789,-0.609689,-0.404658,-42.8208,15.7732,0.160679,0,0,0,0,0,0,0,-0.0763408,-0.144467,0.0993187,-1.93475,0.301427,0.0464782,-0.00783709,0.185716,0.0287518,0.20739,-0.504953,0.768621,0.404469,-0.0010669,0,0,0,0,0,0,0,-1.28582,-30.305,-2.11363,27.6492,1.76574,3.15941,0.124619,
-0.0685738,-0.144433,0.107501,-1.95775,0.317418,0.0796404,-0.00750057,0.179975,0.00177274,0.191414,-0.518362,0.334353,0.749391,0.00841481,1.2678,0.642585,1.20385,-5.83798,-17.4916,24.081,0.0943899,0,0,0,0,0,0,0,-0.0698493,-0.144256,0.106429,-1.95155,0.320699,0.064698,-0.00783193,0.212293,-0.0166929,0.195516,-0.517896,0.410089,0.603433,0.00024861,3.32209,-5.68059,-1.48427,-1.61785,-44.8165,24.8705,0.164439,-1.74603,-28.0556,-2.53813,25.6061,0.837399,2.27685,0.11821,
-0.0671028,-0.144377,0.109059,-1.96211,0.318759,0.0868071,-0.00742555,0.180753,0.00282462,0.192093,-0.523619,0.301015,0.778682,0.00860739,0.486542,0.657424,0.424172,-3.28607,-20.8368,18.3067,0.120366,0,0,0,0,0,0,0,-0.0698493,-0.144256,0.106429,-1.95155,0.320699,0.064698,-0.00783193,0.212293,-0.0166929,0.195516,-0.517896,0.410089,0.603433,0.00024861,0,0,0,0,0,0,0,-1.74603,-28.0556,-2.53813,25.6061,0.837399,2.27685,0.11821,
-0.0656649,-0.144316,0.110583,-1.96638,0.319759,0.0938445,-0.00734907,0.180551,0.00377985,0.19178,-0.52578,0.265811,0.798879,0.00879774,-0.126545,0.597018,-0.195528,-1.35025,-22.0022,12.6232,0.118965,0,0,0,0,0,0,0,-0.0698493,-0.144256,0.106429,-1.95155,0.320699,0.064698,-0.00783193,0.212293,-0.0166929,0.195516,-0.517896,0.410089,0.603433,0.00024861,0,0,0,0,0,0,0,-1.74603,-28.0556,-2.53813,25.6061,0.837399,2.27685,0.11821,
-0.0621689,-0.145222,0.114534,-1.97479,0.327293,0.101308,-0.00745831,0.181252,0.00038,0.192483,-0.533935,0.22281,0.832346,0.0090262,0.438327,-2.1249,0.439196,-5.09684,-26.8755,20.9168,0.142787,0,0,0,0,0,0,0,-0.0698493,-0.144256,0.106429,-1.95155,0.320699,0.064698,-0.00783193,0.212293,-0.0166929,0.195516,-0.517896,0.410089,0.603433,0.00024861,0,0,0,0,0,0,0,-1.74603,-28.0556,-2.53813,25.6061,0.837399,2.27685,0.11821,
-0.0607322,-0.145304,0.11606,-1.97924,0.327448,0.108912,-0.00737746,0.18092,-0.0017457,0.192138,-0.538383,0.182108,0.855978,0.00924208,-0.207725,-1.32856,-0.215236,-2.78006,-25.4389,14.7701,0.134929,0,0,0,0,0,0,0,-0.0631978,-0.143821,0.113537,-1.96914,0.331141,0.0878278,-0.00783525,0.179192,0.0245966,0.218625,-0.512705,0.291677,0.761894,-0.00161639,-4.13768,5.16118,2.88868,0.648955,-14.8016,19.8076,-0.233125,-2.24987,-28.3333,-2.86345,24.1382,1.05804,1.96557,0.151169,
-0.0593292,-0.14537,0.117551,-1.98361,0.327417,0.116328,-0.00729621,0.179811,-0.00306341,0.190993,-0.539956,0.144908,0.870197,0.00942497,-0.693225,-0.823565,-0.716163,-0.98311,-23.2498,8.8867,0.114302,0,0,0,0,0,0,0,-0.0631978,-0.143821,0.113537,-1.96914,0.331141,0.0878278,-0.00783525,0.179192,0.0245966,0.218625,-0.512705,0.291677,0.761894,-0.00161639,0,0,0,0,0,0,0,-2.24987,-28.3333,-2.86345,24.1382,1.05804,1.96557,0.151169,
-0.0579573,-0.145427,0.11901,-1.9879,0.327249,0.123522,-0.00721466,0.178146,-0.00387258,0.189265,-0.539299,0.111742,0.876009,0.00957869,-1.04014,-0.505735,-1.07947,0.410216,-20.7289,3.6322,0.0960731,0,0,0,0,0,0,0,-0.0631978,-0.143821,0.113537,-1.96914,0.331141,0.0878278,-0.00783525,0.179192,0.0245966,0.218625,-0.512705,0.291677,0.761894,-0.00161639,0,0,0,0,0,0,0,-2.24987,-28.3333,-2.86345,24.1382,1.05804,1.96557,0.151169,
-0.0566139,-0.145478,0.120439,-1.99212,0.326986,0.130477,-0.00713362,0.1761,-0.00436297,0.187133,-0.536919,0.0828088,0.874678,0.00968901,-1.27893,-0.306492,-1.33279,1.48802,-18.0834,-0.831403,0.0689522,0,0,0,0,0,0,0,-0.0631978,-0.143821,0.113537,-1.96914,0.331141,0.0878278,-0.00783525,0.179192,0.0245966,0.218625,-0.512705,0.291677,0.761894,-0.00161639,0,0,0,0,0,0,0,-2.24987,-28.3333,-2.86345,24.1382,1.05804,1.96557,0.151169,
-0.054173,-0.143818,0.122994,-1.99635,0.33123,0.133053,-0.00734509,0.176189,-0.00262858,0.186928,-0.538963,0.0471874,0.88151,0.00979726,0.0552914,1.08399,-0.127977,-1.27766,-22.2633,4.26992,0.0676599,0,0,0,0,0,0,0,-0.0568841,-0.143721,0.120707,-1.98726,0.336715,0.115248,-0.00782746,0.192106,-0.00397974,0.208003,-0.549394,0.066285,0.837529,0.000792166,1.61436,-3.57204,-1.32786,-4.58621,-28.174,9.45434,0.30107,-1.36517,-29.4798,-2.312,28.0222,1.69891,2.80144,0.0907442,
-0.0527958,-0.143776,0.124446,-2.00065,0.330376,0.140065,-0.00726417,0.175379,-0.00104784,0.185859,-0.538703,0.0163879,0.880515,0.00986082,-0.506084,0.987961,-0.668513,0.162382,-19.2497,-0.621945,0.039724,0,0,0,0,0,0,0,-0.0568841,-0.143721,0.120707,-1.98726,0.336715,0.115248,-0.00782746,0.192106,-0.00397974,0.208003,-0.549394,0.066285,0.837529,0.000792166,0,0,0,0,0,0,0,-1.36517,-29.4798,-2.312,28.0222,1.69891,2.80144,0.0907442,
-0.0514508,-0.143728,0.125866,-2.00488,0.329472,0.146812,-0.0071846,0.173929,0.000352984,0.184169,-0.536625,-0.0094796,0.873085,0.00987776,-0.905915,0.875516,-1.056,1.29887,-16.1672,-4.64401,0.0105868,0,0,0,0,0,0,0,-0.0568841,-0.143721,0.120707,-1.98726,0.336715,0.115248,-0.00782746,0.192106,-0.00397974,0.208003,-0.549394,0.066285,0.837529,0.000792166,0,0,0,0,0,0,0,-1.36517,-29.4798,-2.312,28.0222,1.69891,2.80144,0.0907442,
-0.0494815,-0.144264,0.128513,-2.01048,0.332691,0.153835,-0.00742299,0.174255,-0.00141694,0.184532,-0.542111,-0.0380918,0.887638,0.00992674,0.203757,-1.1062,0.226743,-3.42904,-17.8827,9.09591,0.0306134,0,0,0,0,0,0,0,-0.0568841,-0.143721,0.120707,-1.98726,0.336715,0.115248,-0.00782746,0.192106,-0.00397974,0.208003,-0.549394,0.066285,0.837529,0.000792166,0,0,0,0,0,0,0,-1.36517,-29.4798,-2.312,28.0222,1.69891,2.80144,0.0907442,
-0.0481129,-0.144321,0.129964,-2.01491,0.331433,0.161168,-0.00734305,0.17362,-0.00256059,0.183904,-0.544483,-0.0619151,0.893442,0.00993987,-0.396828,-0.71478,-0.392562,-1.48221,-14.8896,3.62757,0.00820485,0,0,0,0,0,0,0,-0.0502237,-0.143617,0.127214,-2.00529,0.336982,0.144173,-0.00783152,0.213519,0.0287327,0.160674,-0.536298,-0.0190177,0.851763,5.04166e-05,2.67657,4.08906,-5.91601,1.63706,-10.6628,1.77934,-0.0927187,-2.20227,-29.6306,-2.93486,27.6016,1.94336,2.11846,0.11821,
-0.0467768,-0.144372,0.131382,-2.01926,0.33018,0.16825,-0.00726442,0.172299,-0.00330193,0.182557,-0.54438,-0.0808608,0.891806,0.00991754,-0.825784,-0.463342,-0.841376,0.0645673,-11.841,-1.02275,-0.0139569,0,0,0,0,0,0,0,-0.0502237,-0.143617,0.127214,-2.00529,0.336982,0.144173,-0.00783152,0.213519,0.0287327,0.160674,-0.536298,-0.0190177,0.851763,5.04166e-05,0,0,0,0,0,0,0,-2.20227,-29.6306,-2.93486,27.6016,1.94336,2.11846,0.11821,
-0.04547,-0.144417,0.132768,-2.02353,0.32896,0.175077,-0.00718741,0.170508,-0.00378606,0.180713,-0.542312,-0.0951906,0.884116,0.00985934,-1.11954,-0.302579,-1.15297,1.29239,-8.95615,-4.80617,-0.0363745,0,0,0,0,0,0,0,-0.0502237,-0.143617,0.127214,-2.00529,0.336982,0.144173,-0.00783152,0.213519,0.0287327,0.160674,-0.536298,-0.0190177,0.851763,5.04166e-05,0,0,0,0,0,0,0,-2.20227,-29.6306,-2.93486,27.6016,1.94336,2.11846,0.11821,
-0.0433674,-0.143566,0.13445,-2.0271,0.332663,0.178375,-0.00744045,0.169118,-0.00347138,0.179246,-0.539138,-0.102186,0.869158,0.00977421,-0.868752,0.196672,-0.916591,1.98338,-4.3718,-9.34891,-0.0532089,0,0,0,0,0,0,0,-0.0502237,-0.143617,0.127214,-2.00529,0.336982,0.144173,-0.00783152,0.213519,0.0287327,0.160674,-0.536298,-0.0190177,0.851763,5.04166e-05,0,0,0,0,0,0,0,-2.20227,-29.6306,-2.93486,27.6016,1.94336,2.11846,0.11821,
-0.0420875,-0.143589,0.135808,-2.03123,0.33164,0.184634,-0.00736713,0.167292,-0.00333618,0.177333,-0.534533,-0.107313,0.851782,0.00965246,-1.1413,0.084504,-1.19577,2.87824,-3.2048,-10.86,-0.076089,0,0,0,0,0,0,0,-0.0502237,-0.143617,0.127214,-2.00529,0.336982,0.144173,-0.00783152,0.213519,0.0287327,0.160674,-0.536298,-0.0190177,0.851763,5.04166e-05,0,0,0,0,0,0,0,-2.20227,-29.6306,-2.93486,27.6016,1.94336,2.11846,0.11821,
-0.040834,-0.143615,0.137137,-2.03527,0.330659,0.190679,-0.00729591,0.165172,-0.00331658,0.175112,-0.528798,-0.110399,0.832568,0.00950257,-1.32512,0.0122498,-1.38785,3.58416,-1.92834,-12.0085,-0.0936857,0,0,0,0,0,0,0,-0.0446091,-0.143564,0.134004,-2.02379,0.334394,0.173296,-0.00782612,0.111437,-0.022117,0.241219,-0.543413,-0.0776465,0.872132,-0.000507115,-12.7603,-6.35622,10.0681,-0.889407,-7.3286,2.54607,-0.0696915,-0.829586,-28.131,-1.63756,24.0866,1.80236,1.82641,0.110886,
-0.0396047,-0.143643,0.138442,-2.03924,0.32973,0.19652,-0.00722679,0.162867,-0.0033697,0.172695,-0.522174,-0.111523,0.812075,0.00933002,-1.44015,-0.033205,-1.51057,4.14039,-0.702764,-12.8083,-0.107843,0,0,0,0,0,0,0,-0.0446091,-0.143564,0.134004,-2.02379,0.334394,0.173296,-0.00782612,0.111437,-0.022117,0.241219,-0.543413,-0.0776465,0.872132,-0.000507115,0,0,0,0,0,0,0,-0.829586,-28.131,-1.63756,24.0866,1.80236,1.82641,0.110886,
-0.0370774,-0.143966,0.142005,-2.04721,0.329756,0.208516,-0.00741988,0.159868,-0.00405831,0.169519,-0.510376,-0.10645,0.782796,0.00903979,-1.87463,-0.43038,-1.985,7.37388,3.17092,-18.2994,-0.181392,0,0,0,0,0,0,0,-0.0446091,-0.143564,0.134004,-2.02379,0.334394,0.173296,-0.00782612,0.111437,-0.022117,0.241219,-0.543413,-0.0776465,0.872132,-0.000507115,0,0,0,0,0,0,0,-0.829586,-28.131,-1.63756,24.0866,1.80236,1.82641,0.110886,
-0.0359171,-0.144018,0.143236,-2.05083,0.329115,0.213665,-0.00735847,0.156902,-0.00454644,0.166381,-0.499003,-0.101202,0.754977,0.00876711,-1.85361,-0.305083,-1.96169,7.10761,3.2799,-17.3865,-0.170425,0,0,0,0,0,0,0,-0.0446091,-0.143564,0.134004,-2.02379,0.334394,0.173296,-0.00782612,0.111437,-0.022117,0.241219,-0.543413,-0.0776465,0.872132,-0.000507115,0,0,0,0,0,0,0,-0.829586,-28.131,-1.63756,24.0866,1.80236,1.82641,0.110886,
-0.0347778,-0.144068,0.144444,-2.05438,0.32852,0.218651,-0.00729848,0.154006,-0.00488423,0.163316,-0.487954,-0.0958276,0.728623,0.00851328,-1.81032,-0.211119,-1.91548,6.90609,3.35876,-16.4718,-0.158647,0,0,0,0,0,0,0,-0.0446091,-0.143564,0.134004,-2.02379,0.334394,0.173296,-0.00782612,0.111437,-0.022117,0.241219,-0.543413,-0.0776465,0.872132,-0.000507115,0,0,0,0,0,0,0,-0.829586,-28.131,-1.63756,24.0866,1.80236,1.82641,0.110886,
-0.0336581,-0.144116,0.145632,-2.05786,0.327971,0.223483,-0.00723986,0.151197,-0.00511103,0.160344,-0.477148,-0.0903902,0.70371,0.00827611,-1.75568,-0.14175,-1.85767,6.75364,3.39841,-15.5701,-0.148227,0,0,0,0,0,0,0,-0.0446091,-0.143564,0.134004,-2.02379,0.334394,0.173296,-0.00782612,0.111437,-0.022117,0.241219,-0.543413,-0.0776465,0.872132,-0.000507115,0,0,0,0,0,0,0,-0.829586,-28.131,-1.63756,24.0866,1.80236,1.82641,0.110886,
-0.0385179,-0.143681,0.140489,-2.04207,0.331165,0.200381,-0.00752443,0.149582,-0.0049065,0.158616,-0.468465,-0.0860217,0.685866,0.00806269,-1.009,0.127835,-1.07989,5.42701,2.73033,-11.153,-0.133388,0,0,0,0,0,0,0,-0.0446091,-0.143564,0.134004,-2.02379,0.334394,0.173296,-0.00782612,0.111437,-0.022117,0.241219,-0.543413,-0.0776465,0.872132,-0.000507115,0,0,0,0,0,0,0,-0.829586,-28.131,-1.63756,24.0866,1.80236,1.82641,0.110886,
-0.0373986,-0.143717,0.141675,-2.04546,0.330654,0.205131,-0.00746759,0.147649,-0.00483155,0.156546,-0.459531,-0.0815878,0.667443,0.00787114,-1.20809,0.0468433,-1.29395,5.58355,2.77118,-11.5144,-0.11972,0,0,0,0,0,0,0,-0.0446091,-0.143564,0.134004,-2.02379,0.334394,0.173296,-0.00782612,0.111437,-0.022117,0.241219,-0.543413,-0.0776465,0.872132,-0.000507115,0,0,0,0,0,0,0,-0.829586,-28.131,-1.63756,24.0866,1.80236,1.82641,0.110886,
-0.0363021,-0.143755,0.142837,-2.04877,0.330177,0.209733,-0.00741161,0.145533,-0.00482172,0.154281,-0.450394,-0.0772046,0.649009,0.00769643,-1.32281,0.00614323,-1.4156,5.71053,2.7395,-11.5212,-0.109195,0,0,0,0,0,0,0,-0.0400355,-0.143091,0.140674,-2.0419,0.330767,0.201372,-0.00783062,0.0816716,0.0381645,0.24577,-0.495582,-0.106367,0.777198,-2.89037e-05,-3.72066,7.53519,0.568824,5.97892,-3.59008,-11.8668,0.0597764,1.98322,-29.6306,0.314344,27.0026,2.13836,2.01867,0.110886,
-0.0352263,-0.143795,0.143977,-2.052,0.329729,0.214201,-0.00735632,0.14332,-0.00484002,0.151916,-0.441087,-0.072971,0.630897,0.0075394,-1.38308,-0.011437,-1.47816,5.81681,2.64598,-11.3196,-0.0981395,0,0,0,0,0,0,0,-0.0400355,-0.143091,0.140674,-2.0419,0.330767,0.201372,-0.00783062,0.0816716,0.0381645,0.24577,-0.495582,-0.106367,0.777198,-2.89037e-05,0,0,0,0,0,0,0,1.98322,-29.6306,0.314344,27.0026,2.13836,2.01867,0.110886,
-0.0344303,-0.142354,0.146676,-2.05896,0.327613,0.225337,-0.00755667,0.141128,-0.0025318,0.149649,-0.432887,-0.0705125,0.612948,0.00738671,-1.36983,1.44264,-1.41668,5.12488,1.53657,-11.2182,-0.0954349,0,0,0,0,0,0,0,-0.0400355,-0.143091,0.140674,-2.0419,0.330767,0.201372,-0.00783062,0.0816716,0.0381645,0.24577,-0.495582,-0.106367,0.777198,-2.89037e-05,0,0,0,0,0,0,0,1.98322,-29.6306,0.314344,27.0026,2.13836,2.01867,0.110886,
-0.0333923,-0.142324,0.147777,-2.06207,0.327167,0.229531,-0.00750269,0.138853,-0.00127024,0.147256,-0.424056,-0.0675572,0.595209,0.00725896,-1.42223,0.788471,-1.49557,5.51951,1.84705,-11.0871,-0.0798391,0,0,0,0,0,0,0,-0.0400355,-0.143091,0.140674,-2.0419,0.330767,0.201372,-0.00783062,0.0816716,0.0381645,0.24577,-0.495582,-0.106367,0.777198,-2.89037e-05,0,0,0,0,0,0,0,1.98322,-29.6306,0.314344,27.0026,2.13836,2.01867,0.110886,
-0.0323731,-0.14231,0.148858,-2.06509,0.326752,0.233608,-0.00744897,0.136563,-0.000680886,0.144827,-0.414773,-0.0644219,0.578098,0.00715001,-1.43085,0.368349,-1.51793,5.80175,1.95959,-10.6944,-0.0680993,0,0,0,0,0,0,0,-0.0354191,-0.142434,0.146297,-2.0584,0.327953,0.226357,-0.00783134,0.091361,0.00539176,0.190324,-0.487485,-0.0626041,0.632614,-0.00144987,1.21117,-4.09659,-6.93064,1.01208,5.47039,-18.0729,-0.177621,0.66608,-31.9991,-1.10991,28.772,1.6806,1.69366,0.14476,
-0.0313713,-0.142309,0.14992,-2.06802,0.326361,0.23758,-0.00739544,0.134296,-0.000513773,0.14241,-0.405168,-0.0613117,0.561771,0.00705838,-1.4172,0.104446,-1.51046,6.00332,1.94387,-10.2043,-0.057264,0,0,0,0,0,0,0,-0.0354191,-0.142434,0.146297,-2.0584,0.327953,0.226357,-0.00783134,0.091361,0.00539176,0.190324,-0.487485,-0.0626041,0.632614,-0.00144987,0,0,0,0,0,0,0,0.66608,-31.9991,-1.10991,28.772,1.6806,1.69366,0.14476,
-0.0302952,-0.141946,0.151764,-2.07398,0.325383,0.246554,-0.00755765,0.132068,0.00067865,0.140075,-0.396292,-0.0595245,0.544158,0.00698171,-1.39236,0.745264,-1.45996,5.54753,1.11701,-11.0084,-0.0479188,0,0,0,0,0,0,0,-0.0354191,-0.142434,0.146297,-2.0584,0.327953,0.226357,-0.00783134,0.091361,0.00539176,0.190324,-0.487485,-0.0626041,0.632614,-0.00144987,0,0,0,0,0,0,0,0.66608,-31.9991,-1.10991,28.772,1.6806,1.69366,0.14476,
-0.0293266,-0.14192,0.152792,-2.07678,0.324995,0.250259,-0.00750427,0.129869,0.00118373,0.137746,-0.386868,-0.0573313,0.527932,0.0069198,-1.37462,0.315673,-1.45522,5.89007,1.3707,-10.1408,-0.0386965,0,0,0,0,0,0,0,-0.0354191,-0.142434,0.146297,-2.0584,0.327953,0.226357,-0.00783134,0.091361,0.00539176,0.190324,-0.487485,-0.0626041,0.632614,-0.00144987,0,0,0,0,0,0,0,0.66608,-31.9991,-1.10991,28.772,1.6806,1.69366,0.14476,
-0.028374,-0.141908,0.153802,-2.07948,0.324632,0.253879,-0.00745082,0.12771,0.00124689,0.135448,-0.377071,-0.0549272,0.512852,0.00687207,-1.34905,0.0394749,-1.43609,6.12332,1.50259,-9.42508,-0.0298307,0,0,0,0,0,0,0,-0.0305706,-0.141965,0.151135,-2.07351,0.32636,0.24553,-0.00783146,0.101667,0.00511372,0.184224,-0.427052,-0.0270787,0.564545,-0.000587161,1.2882,-0.0347553,-0.76255,7.55418,4.44067,-8.50871,0.107839,0.689884,-28.6546,-0.76079,24.761,1.27136,1.86577,0.11821,
-0.0274369,-0.141907,0.154795,-2.08209,0.324294,0.257413,-0.00739678,0.125596,0.00103764,0.133191,-0.367023,-0.0524063,0.498637,0.0068488,-1.32114,-0.13078,-1.41075,6.27998,1.57557,-8.88435,-0.0145418,0,0,0,0,0,0,0,-0.0305706,-0.141965,0.151135,-2.07351,0.32636,0.24553,-0.00783146,0.101667,0.00511372,0.184224,-0.427052,-0.0270787,0.564545,-0.000587161,0,0,0,0,0,0,0,0.689884,-28.6546,-0.76079,24.761,1.27136,1.86577,0.11821,
-0.025563,-0.141629,0.156466,-2.08732,0.324749,0.263728,-0.00756495,0.124126,0.00139361,0.131629,-0.357306,-0.0489698,0.483864,0.00681763,-0.919036,0.22248,-0.976371,6.07306,2.14778,-9.2333,-0.0194838,0,0,0,0,0,0,0,-0.0305706,-0.141965,0.151135,-2.07351,0.32636,0.24553,-0.00783146,0.101667,0.00511372,0.184224,-0.427052,-0.0270787,0.564545,-0.000587161,0,0,0,0,0,0,0,0.689884,-28.6546,-0.76079,24.761,1.27136,1.86577,0.11821,
-0.0246386,-0.141621,0.157446,-2.08978,0.324496,0.267029,-0.00751185,0.122411,0.00133305,0.1298,-0.347291,-0.0455067,0.469606,0.00678172,-1.07199,-0.0378508,-1.14346,6.25954,2.16447,-8.91129,-0.0224439,0,0,0,0,0,0,0,-0.0305706,-0.141965,0.151135,-2.07351,0.32636,0.24553,-0.00783146,0.101667,0.00511372,0.184224,-0.427052,-0.0270787,0.564545,-0.000587161,0,0,0,0,0,0,0,0.689884,-28.6546,-0.76079,24.761,1.27136,1.86577,0.11821,
-0.0237333,-0.141622,0.158405,-2.09215,0.324271,0.270229,-0.0074573,0.120561,0.00102827,0.127824,-0.33709,-0.0420388,0.455701,0.00678904,-1.15602,-0.190485,-1.2347,6.37506,2.16745,-8.6909,0.00457781,0,0,0,0,0,0,0,-0.0261331,-0.140898,0.155689,-2.08704,0.325506,0.262385,-0.00782934,0.133797,0.0652244,0.127614,-0.368858,-0.0297835,0.438969,0.00029112,4.01636,7.51383,-7.07629,7.27424,-0.338099,-15.697,0.109785,1.60236,-31.5508,-0.0625476,28.7482,1.44256,2.66137,0.0980684,
-0.0228457,-0.141631,0.159346,-2.09443,0.324074,0.273324,-0.00739955,0.118639,0.000596877,0.12577,-0.326779,-0.0385483,0.441918,0.00687495,-1.20101,-0.26962,-1.28383,6.44457,2.18154,-8.61403,0.0536892,0,0,0,0,0,0,0,-0.0261331,-0.140898,0.155689,-2.08704,0.325506,0.262385,-0.00782934,0.133797,0.0652244,0.127614,-0.368858,-0.0297835,0.438969,0.00029112,0,0,0,0,0,0,0,1.60236,-31.5508,-0.0625476,28.7482,1.44256,2.66137,0.0980684,
-0.0215347,-0.139789,0.160583,-2.09959,0.324199,0.277461,-0.00755233,0.11677,0.00300499,0.123822,-0.31841,-0.0358784,0.423704,0.00694941,-1.16807,1.50507,-1.21766,5.23079,1.6687,-11.384,0.0465418,0,0,0,0,0,0,0,-0.0261331,-0.140898,0.155689,-2.08704,0.325506,0.262385,-0.00782934,0.133797,0.0652244,0.127614,-0.368858,-0.0297835,0.438969,0.00029112,0,0,0,0,0,0,0,1.60236,-31.5508,-0.0625476,28.7482,1.44256,2.66137,0.0980684,
-0.0206806,-0.139719,0.16149,-2.10177,0.324047,0.280164,-0.00749829,0.114769,0.00414418,0.121712,-0.309237,-0.032497,0.406528,0.00691054,-1.25074,0.711993,-1.31847,5.7331,2.11337,-10.7347,-0.0242958,0,0,0,0,0,0,0,-0.0261331,-0.140898,0.155689,-2.08704,0.325506,0.262385,-0.00782934,0.133797,0.0652244,0.127614,-0.368858,-0.0297835,0.438969,0.00029112,0,0,0,0,0,0,0,1.60236,-31.5508,-0.0625476,28.7482,1.44256,2.66137,0.0980684,
-0.0198434,-0.139673,0.162377,-2.10386,0.323935,0.28279,-0.00744531,0.112746,0.00446159,0.119569,-0.299663,-0.0288039,0.390893,0.00685295,-1.26481,0.198382,-1.33956,5.98356,2.30815,-9.77195,-0.0359966,0,0,0,0,0,0,0,-0.0219435,-0.140408,0.16015,-2.09964,0.324674,0.276823,-0.00783605,0.172016,-0.0442848,0.082742,-0.380128,-0.00480555,0.409928,-0.00226337,4.77733,-13.6886,-5.60897,-1.40885,3.12225,-3.63012,-0.319311,-0.754208,-29.1307,-2.06206,25.5347,1.08825,2.32995,0.158493,
-0.0190154,-0.139644,0.163255,-2.10587,0.323784,0.285399,-0.00736486,0.110897,0.00430986,0.117581,-0.289902,-0.0268076,0.377922,0.0074936,-1.1556,-0.0948345,-1.24218,6.1007,1.24773,-8.1068,0.40041,0,0,0,0,0,0,0,-0.0219435,-0.140408,0.16015,-2.09964,0.324674,0.276823,-0.00783605,0.172016,-0.0442848,0.082742,-0.380128,-0.00480555,0.409928,-0.00226337,0,0,0,0,0,0,0,-0.754208,-29.1307,-2.06206,25.5347,1.08825,2.32995,0.158493,
-0.0167541,-0.140523,0.165636,-2.11179,0.323993,0.291692,-0.00751198,0.108695,0.0032085,0.115227,-0.276539,-0.0249958,0.364923,0.00713015,-1.37604,-0.688348,-1.47166,8.35191,1.13234,-8.12432,-0.22716,0,0,0,0,0,0,0,-0.0219435,-0.140408,0.16015,-2.09964,0.324674,0.276823,-0.00783605,0.172016,-0.0442848,0.082742,-0.380128,-0.00480555,0.409928,-0.00226337,0,0,0,0,0,0,0,-0.754208,-29.1307,-2.06206,25.5347,1.08825,2.32995,0.158493,
-0.0159745,-0.140536,0.166461,-2.1135,0.323858,0.294171,-0.00745418,0.106445,0.00223931,0.112818,-0.263916,-0.0233769,0.353914,0.00714928,-1.40636,-0.605743,-1.50538,7.88935,1.0118,-6.8808,0.0119608,0,0,0,0,0,0,0,-0.0219435,-0.140408,0.16015,-2.09964,0.324674,0.276823,-0.00783605,0.172016,-0.0442848,0.082742,-0.380128,-0.00480555,0.409928,-0.00226337,0,0,0,0,0,0,0,-0.754208,-29.1307,-2.06206,25.5347,1.08825,2.32995,0.158493,
-0.0152216,-0.140553,0.167259,-2.11513,0.323799,0.296554,-0.00740898,0.103978,0.00135247,0.110199,-0.251876,-0.0201833,0.342718,0.00684937,-1.54155,-0.554276,-1.63717,7.52477,1.99601,-6.99731,-0.187445,0,0,0,0,0,0,0,-0.0219435,-0.140408,0.16015,-2.09964,0.324674,0.276823,-0.00783605,0.172016,-0.0442848,0.082742,-0.380128,-0.00480555,0.409928,-0.00226337,0,0,0,0,0,0,0,-0.754208,-29.1307,-2.06206,25.5347,1.08825,2.32995,0.158493,
-0.0144871,-0.140574,0.168038,-2.11668,0.323684,0.298827,-0.00737515,0.101545,0.000555778,0.107624,-0.24016,-0.01902,0.330992,0.00632519,-1.52052,-0.497933,-1.60926,7.32298,0.727058,-7.32882,-0.327615,0,0,0,0,0,0,0,-0.0176129,-0.139756,0.164123,-2.11086,0.324213,0.289198,-0.00783157,0.140114,0.0791391,0.0920223,-0.298379,-0.00702349,0.344152,-0.00079358,-3.98778,15.428,1.16003,10.2187,-0.277243,-8.22197,0.183723,-0.528073,-29.0791,-1.83592,28.6212,1.46728,2.84081,0.11821,
-0.0136784,-0.138377,0.168319,-2.12027,0.323194,0.300572,-0.00761358,0.0996233,0.00363865,0.105661,-0.233278,-0.0201972,0.316956,0.0059125,-1.20137,1.9268,-1.22641,4.30131,-0.735696,-8.77275,-0.257932,0,0,0,0,0,0,0,-0.0176129,-0.139756,0.164123,-2.11086,0.324213,0.289198,-0.00783157,0.140114,0.0791391,0.0920223,-0.298379,-0.00702349,0.344152,-0.00079358,0,0,0,0,0,0,0,-0.528073,-29.0791,-1.83592,28.6212,1.46728,2.84081,0.11821,
-0.0129544,-0.138286,0.169088,-2.12182,0.322945,0.302614,-0.0075591,0.0977978,0.00516831,0.103752,-0.225464,-0.0223893,0.304618,0.00609209,-1.14095,0.956038,-1.19326,4.88339,-1.37011,-7.711,0.112249,0,0,0,0,0,0,0,-0.0176129,-0.139756,0.164123,-2.11086,0.324213,0.289198,-0.00783157,0.140114,0.0791391,0.0920223,-0.298379,-0.00702349,0.344152,-0.00079358,0,0,0,0,0,0,0,-0.528073,-29.0791,-1.83592,28.6212,1.46728,2.84081,0.11821,
-0.0122484,-0.138224,0.169837,-2.12329,0.322736,0.304601,-0.00749241,0.0958899,0.00570656,0.101727,-0.217171,-0.023147,0.293372,0.00654098,-1.19238,0.336407,-1.26574,5.18297,-0.473529,-7.02889,0.280553,0,0,0,0,0,0,0,-0.0176129,-0.139756,0.164123,-2.11086,0.324213,0.289198,-0.00783157,0.140114,0.0791391,0.0920223,-0.298379,-0.00702349,0.344152,-0.00079358,0,0,0,0,0,0,0,-0.528073,-29.0791,-1.83592,28.6212,1.46728,2.84081,0.11821,
-0.0101432,-0.137003,0.171049,-2.12815,0.322758,0.308152,-0.0075834,0.0933619,0.00695831,0.0990642,-0.208072,-0.0261759,0.280082,0.00622457,-1.58002,0.782343,-1.6643,5.68728,-1.89308,-8.30614,-0.197758,0,0,0,0,0,0,0,-0.0136304,-0.138035,0.167367,-2.12033,0.323947,0.298806,-0.007833,0.189536,0.0620448,0.00438867,-0.244861,3.94928e-05,0.267901,-0.000992261,6.17775,-2.13679,-10.9542,6.68971,0.882873,-9.53135,-0.0248352,-0.702633,-32.6497,-1.83592,27.3517,1.29608,2.71447,0.131027,
-0.00948657,-0.136936,0.171746,-2.12945,0.322405,0.309985,-0.00753196,0.0911042,0.00724273,0.0966643,-0.198936,-0.0297566,0.269896,0.00626578,-1.41108,0.177762,-1.49992,5.70967,-2.23796,-6.36641,0.0257584,0,0,0,0,0,0,0,-0.0136304,-0.138035,0.167367,-2.12033,0.323947,0.298806,-0.007833,0.189536,0.0620448,0.00438867,-0.244861,3.94928e-05,0.267901,-0.000992261,0,0,0,0,0,0,0,-0.702633,-32.6497,-1.83592,27.3517,1.29608,2.71447,0.131027,
-0.00884397,-0.13689,0.172427,-2.13067,0.322067,0.311813,-0.00746675,0.0889484,0.00694628,0.0943537,-0.189898,-0.0322497,0.261611,0.00664285,-1.34738,-0.185283,-1.44412,5.64863,-1.55817,-5.17794,0.23567,0,0,0,0,0,0,0,-0.0136304,-0.138035,0.167367,-2.12033,0.323947,0.298806,-0.007833,0.189536,0.0620448,0.00438867,-0.244861,3.94928e-05,0.267901,-0.000992261,0,0,0,0,0,0,0,-0.702633,-32.6497,-1.83592,27.3517,1.29608,2.71447,0.131027,
-0.00822615,-0.136862,0.173082,-2.13184,0.321816,0.313574,-0.0074228,0.0866043,0.00625705,0.0918637,-0.180982,-0.0320769,0.253316,0.00641296,-1.46508,-0.430768,-1.55624,5.5728,0.108031,-5.18454,-0.143685,0,0,0,0,0,0,0,-0.0136304,-0.138035,0.167367,-2.12033,0.323947,0.298806,-0.007833,0.189536,0.0620448,0.00438867,-0.244861,3.94928e-05,0.267901,-0.000992261,0,0,0,0,0,0,0,-0.702633,-32.6497,-1.83592,27.3517,1.29608,2.71447,0.131027,
-0.00761908,-0.136846,0.173726,-2.13293,0.321415,0.315299,-0.00738775,0.0844602,0.00538512,0.0895808,-0.172009,-0.0356913,0.245792,0.00600662,-1.34002,-0.544956,-1.42684,5.60791,-2.25905,-4.70258,-0.253958,0,0,0,0,0,0,0,-0.00995946,-0.137816,0.17048,-2.129,0.323892,0.307775,-0.0078271,0.186317,-0.0587165,0.00291907,-0.264168,0.00502085,0.254589,0.00111182,-0.402364,-15.0952,-0.1837,-2.41334,0.62267,-1.66408,0.263011,-1.69445,-27.881,-2.13744,25.3839,1.10656,2.54876,0.0779268,
-0.00590475,-0.13817,0.174727,-2.136,0.319204,0.31791,-0.00750165,0.0830514,0.00371469,0.0880519,-0.161989,-0.0544445,0.240238,0.00630919,-0.880481,-1.04402,-0.955574,6.2625,-11.7207,-3.47114,0.189106,0,0,0,0,0,0,0,-0.00995946,-0.137816,0.17048,-2.129,0.323892,0.307775,-0.0078271,0.186317,-0.0587165,0.00291907,-0.264168,0.00502085,0.254589,0.00111182,0,0,0,0,0,0,0,-1.69445,-27.881,-2.13744,25.3839,1.10656,2.54876,0.0779268,
-0.00531432,-0.138196,0.175353,-2.13693,0.318202,0.319617,-0.00745807,0.0812018,0.00234501,0.0860966,-0.152697,-0.0686153,0.234861,0.00613688,-1.15602,-0.856054,-1.22206,5.80748,-8.85673,-3.36068,-0.107694,0,0,0,0,0,0,0,-0.00995946,-0.137816,0.17048,-2.129,0.323892,0.307775,-0.0078271,0.186317,-0.0587165,0.00291907,-0.264168,0.00502085,0.254589,0.00111182,0,0,0,0,0,0,0,-1.69445,-27.881,-2.13744,25.3839,1.10656,2.54876,0.0779268,
-0.00473837,-0.138221,0.175964,-2.1378,0.317041,0.321346,-0.00742225,0.0793602,0.0012312,0.0841487,-0.143952,-0.083906,0.231108,0.00580482,-1.15098,-0.696127,-1.21744,5.46586,-9.55668,-2.34564,-0.207541,0,0,0,0,0,0,0,-0.00995946,-0.137816,0.17048,-2.129,0.323892,0.307775,-0.0078271,0.186317,-0.0587165,0.00291907,-0.264168,0.00502085,0.254589,0.00111182,0,0,0,0,0,0,0,-1.69445,-27.881,-2.13744,25.3839,1.10656,2.54876,0.0779268,
-0.00549709,-0.13815,0.175148,-2.13612,0.315667,0.319603,-0.00747401,0.080962,0.000490121,0.0858166,-0.140096,-0.111225,0.23671,0.00621015,1.0011,-0.463177,1.04248,2.4103,-17.0741,3.50163,0.253329,0,0,0,0,0,0,0,-0.00742729,-0.136727,0.174274,-2.13588,0.323632,0.315136,-0.00783217,0.18709,0.0670144,-0.0226519,-0.185137,-0.00652977,0.1863,-0.000509064,0.0966664,15.7164,-3.19636,9.87889,-1.44383,-8.53606,-0.202611,-1.53973,-29.4798,-2.83568,29.744,1.19812,2.90673,0.124619,
-0.00348562,-0.135513,0.178411,-2.14225,0.314161,0.325335,-0.00750571,0.080455,0.00229944,0.0852988,-0.133867,-0.138819,0.234623,0.00623013,-0.316913,1.13082,-0.323635,3.89269,-17.2466,-1.30494,0.0124896,0,0,0,0,0,0,0,-0.00742729,-0.136727,0.174274,-2.13588,0.323632,0.315136,-0.00783217,0.18709,0.0670144,-0.0226519,-0.185137,-0.00652977,0.1863,-0.000509064,0,0,0,0,0,0,0,-1.53973,-29.4798,-2.83568,29.744,1.19812,2.90673,0.124619,
-0.00288048,-0.135461,0.179054,-2.14306,0.3122,0.327104,-0.00746854,0.0794922,0.00313987,0.0843117,-0.127374,-0.160099,0.231936,0.0059133,-0.601699,0.525274,-0.616954,4.0583,-13.3002,-1.67909,-0.198017,0,0,0,0,0,0,0,-0.00742729,-0.136727,0.174274,-2.13588,0.323632,0.315136,-0.00783217,0.18709,0.0670144,-0.0226519,-0.185137,-0.00652977,0.1863,-0.000509064,0,0,0,0,0,0,0,-1.53973,-29.4798,-2.83568,29.744,1.19812,2.90673,0.124619,
-0.00228753,-0.135426,0.179683,-2.14381,0.310121,0.328846,-0.00743531,0.0784177,0.00337192,0.0831944,-0.120615,-0.180033,0.229084,0.00556133,-0.671589,0.145031,-0.698288,4.22461,-12.4583,-1.78223,-0.219981,0,0,0,0,0,0,0,-0.00742729,-0.136727,0.174274,-2.13588,0.323632,0.315136,-0.00783217,0.18709,0.0670144,-0.0226519,-0.185137,-0.00652977,0.1863,-0.000509064,0,0,0,0,0,0,0,-1.53973,-29.4798,-2.83568,29.744,1.19812,2.90673,0.124619,
-0.000415522,-0.133531,0.181339,-2.14696,0.313943,0.334497,-0.00739328,0.0839173,0.00544894,0.0884721,-0.121604,-0.193294,0.257943,0.00651629,3.43728,1.29814,3.29851,-0.618139,-8.28803,18.0369,0.596851,0,0,0,0,0,0,0,-0.00442434,-0.134765,0.17723,-2.14118,0.32252,0.320471,-0.00782781,0.0937224,0.1203,0.0509595,-0.0966135,-0.0565945,0.137107,0.000792416,-11.671,6.6607,9.20142,11.0654,-6.2581,-6.1491,0.162685,-1.51593,-32.5981,-2.21282,28.0737,0.800778,3.03307,0.0843355,
0.00042769,-0.133443,0.182211,-2.14789,0.312066,0.337438,-0.00730528,0.0882142,0.00655317,0.0925806,-0.120546,-0.201568,0.279894,0.00741305,2.68552,0.690143,2.56782,0.660676,-5.17182,13.7194,0.560472,0,0,0,0,0,0,0,-0.00442434,-0.134765,0.17723,-2.14118,0.32252,0.320471,-0.00782781,0.0937224,0.1203,0.0509595,-0.0966135,-0.0565945,0.137107,0.000792416,0,0,0,0,0,0,0,-1.51593,-32.5981,-2.21282,28.0737,0.800778,3.03307,0.0843355,
0.00125839,-0.133372,0.183069,-2.14876,0.310328,0.340295,-0.0072325,0.0913388,0.00702027,0.0955111,-0.118069,-0.204708,0.295332,0.00774995,1.95287,0.291937,1.83161,1.54831,-1.96239,9.64839,0.210563,0,0,0,0,0,0,0,-0.00442434,-0.134765,0.17723,-2.14118,0.32252,0.320471,-0.00782781,0.0937224,0.1203,0.0509595,-0.0966135,-0.0565945,0.137107,0.000792416,0,0,0,0,0,0,0,-1.51593,-32.5981,-2.21282,28.0737,0.800778,3.03307,0.0843355,
0.00208502,-0.133311,0.183923,-2.14956,0.30853,0.343107,-0.00716815,0.0937368,0.00714423,0.0977598,-0.1145,-0.208694,0.306559,0.00780858,1.4988,0.0774737,1.40541,2.23061,-2.49125,7.01685,0.036642,0,0,0,0,0,0,0,-0.00442434,-0.134765,0.17723,-2.14118,0.32252,0.320471,-0.00782781,0.0937224,0.1203,0.0509595,-0.0966135,-0.0565945,0.137107,0.000792416,0,0,0,0,0,0,0,-1.51593,-32.5981,-2.21282,28.0737,0.800778,3.03307,0.0843355,
0.00212818,-0.13459,0.185426,-2.15147,0.309212,0.340361,-0.00728018,0.098853,0.00401244,0.103544,-0.116771,-0.215691,0.323959,0.0087048,3.19761,-1.95736,3.61543,-1.41907,-4.37299,10.8748,0.560141,0,0,0,0,0,0,0,-0.00237914,-0.133963,0.180655,-2.14576,0.318807,0.325733,-0.00782786,-0.0141333,-0.0333131,0.170955,-0.15326,-0.135084,0.162497,0.000886234,-13.482,-19.2016,14.9994,-7.08075,-9.81123,3.17367,0.0117272,-0.171017,-29.4798,-0.963121,23.1662,0.562741,2.43615,0.0843355,
0.00307795,-0.134647,0.186436,-2.15242,0.307406,0.343418,-0.00717914,0.102827,0.00177656,0.108077,-0.117182,-0.217684,0.335591,0.00948993,2.48358,-1.39743,2.83305,-0.257268,-1.24548,7.27038,0.490703,0,0,0,0,0,0,0,-0.00237914,-0.133963,0.180655,-2.14576,0.318807,0.325733,-0.00782786,-0.0141333,-0.0333131,0.170955,-0.15326,-0.135084,0.162497,0.000886234,0,0,0,0,0,0,0,-0.171017,-29.4798,-0.963121,23.1662,0.562741,2.43615,0.0843355,
0.00401306,-0.1347,0.187432,-2.15332,0.30578,0.346321,-0.00709642,0.105639,9.18986e-05,0.11137,-0.116215,-0.214808,0.341043,0.00965976,1.7577,-1.05291,2.05817,0.60481,1.79745,3.4074,0.106144,0,0,0,0,0,0,0,-0.00237914,-0.133963,0.180655,-2.14576,0.318807,0.325733,-0.00782786,-0.0141333,-0.0333131,0.170955,-0.15326,-0.135084,0.162497,0.000886234,0,0,0,0,0,0,0,-0.171017,-29.4798,-0.963121,23.1662,0.562741,2.43615,0.0843355,
0.00494494,-0.134751,0.188425,-2.15417,0.304103,0.349098,-0.00702023,0.107808,-0.00119189,0.113922,-0.114098,-0.213762,0.342277,0.00963268,1.35573,-0.802366,1.59469,1.32268,0.654027,0.771109,-0.0169222,0,0,0,0,0,0,0,-0.00237914,-0.133963,0.180655,-2.14576,0.318807,0.325733,-0.00782786,-0.0141333,-0.0333131,0.170955,-0.15326,-0.135084,0.162497,0.000886234,0,0,0,0,0,0,0,-0.171017,-29.4798,-0.963121,23.1662,0.562741,2.43615,0.0843355,
0.00237011,-0.13403,0.185503,-2.15149,0.30987,0.341263,-0.00726937,0.111583,0.000341198,0.117139,-0.11688,-0.216494,0.35626,0.0102541,2.3591,0.958177,2.01072,-1.73877,-1.70786,8.7398,0.388357,0,0,0,0,0,0,0,-0.00237914,-0.133963,0.180655,-2.14576,0.318807,0.325733,-0.00782786,-0.0141333,-0.0333131,0.170955,-0.15326,-0.135084,0.162497,0.000886234,0,0,0,0,0,0,0,-0.171017,-29.4798,-0.963121,23.1662,0.562741,2.43615,0.0843355,
0.00338169,-0.133971,0.186542,-2.15246,0.308188,0.344435,-0.00716332,0.114556,0.00173987,0.119673,-0.117869,-0.215264,0.364333,0.0108546,1.85811,0.874172,1.58346,-0.617969,0.768942,5.04515,0.375321,0,0,0,0,0,0,0,-0.000107692,-0.13378,0.184154,-2.15039,0.312911,0.333171,-0.00782628,0.00819939,-0.0311431,0.175455,-0.152318,-0.178351,0.24682,0.00122308,2.79158,0.271254,0.562483,0.117631,-5.40836,10.5404,0.0421053,1.85627,-27.4843,0.536512,27.1017,1.0086,2.77489,0.0706026,
0.0043825,-0.133912,0.187568,-2.15339,0.306682,0.347437,-0.00707279,0.116665,0.00288111,0.121405,-0.11756,-0.20986,0.366492,0.0109469,1.31812,0.71327,1.08276,0.19313,3.37743,1.34975,0.0577095,0,0,0,0,0,0,0,-0.000107692,-0.13378,0.184154,-2.15039,0.312911,0.333171,-0.00782628,0.00819939,-0.0311431,0.175455,-0.152318,-0.178351,0.24682,0.00122308,0,0,0,0,0,0,0,1.85627,-27.4843,0.536512,27.1017,1.0086,2.77489,0.0706026,
0.00538035,-0.133852,0.188593,-2.15428,0.305158,0.350309,-0.00699053,0.118278,0.00379243,0.122738,-0.116222,-0.205984,0.364994,0.0108139,1.00837,0.569581,0.832808,0.836495,2.42236,-0.936181,-0.0831235,0,0,0,0,0,0,0,-0.000107692,-0.13378,0.184154,-2.15039,0.312911,0.333171,-0.00782628,0.00819939,-0.0311431,0.175455,-0.152318,-0.178351,0.24682,0.00122308,0,0,0,0,0,0,0,1.85627,-27.4843,0.536512,27.1017,1.0086,2.77489,0.0706026,
0.00476356,-0.134193,0.189291,-2.15639,0.303899,0.349586,-0.00725804,0.120247,0.00213124,0.125237,-0.120462,-0.207767,0.375369,0.0112413,1.23072,-1.03825,1.56238,-2.64993,-1.11428,6.484,0.267117,0,0,0,0,0,0,0,-0.000107692,-0.13378,0.184154,-2.15039,0.312911,0.333171,-0.00782628,0.00819939,-0.0311431,0.175455,-0.152318,-0.178351,0.24682,0.00122308,0,0,0,0,0,0,0,1.85627,-27.4843,0.536512,27.1017,1.0086,2.77489,0.0706026,
0.00578505,-0.134224,0.19037,-2.15744,0.302353,0.352771,-0.00715411,0.121735,0.000918093,0.127157,-0.122761,-0.204856,0.379928,0.0115913,0.929776,-0.758214,1.2,-1.43713,1.81932,2.84963,0.218767,0,0,0,0,0,0,0,0.00296092,-0.13277,0.187504,-2.1543,0.306268,0.341933,-0.00782698,0.115332,0.103088,0.0740305,-0.0681077,-0.200788,0.281337,0.000730765,13.3916,16.7789,-12.678,10.5264,-2.80454,4.31463,-0.0615389,2.21332,-30.5788,0.639662,27.9507,1.28967,2.9406,0.0779268,
0.00679407,-0.134256,0.191437,-2.15846,0.301009,0.355762,-0.00706768,0.122614,-6.68651e-05,0.128399,-0.123583,-0.197505,0.378725,0.0114337,0.549115,-0.615599,0.775733,-0.513544,4.59419,-0.751799,-0.0985054,0,0,0,0,0,0,0,0.00296092,-0.13277,0.187504,-2.1543,0.306268,0.341933,-0.00782698,0.115332,0.103088,0.0740305,-0.0681077,-0.200788,0.281337,0.000730765,0,0,0,0,0,0,0,2.21332,-30.5788,0.639662,27.9507,1.28967,2.9406,0.0779268,
0.00780059,-0.134289,0.192501,-2.15943,0.299646,0.358598,-0.00698857,0.123254,-0.000882887,0.129331,-0.123161,-0.192076,0.373872,0.0111247,0.400101,-0.510013,0.583069,0.26361,3.39317,-3.03346,-0.193114,0,0,0,0,0,0,0,0.00296092,-0.13277,0.187504,-2.1543,0.306268,0.341933,-0.00782698,0.115332,0.103088,0.0740305,-0.0681077,-0.200788,0.281337,0.000730765,0,0,0,0,0,0,0,2.21332,-30.5788,0.639662,27.9507,1.28967,2.9406,0.0779268,
0.00775088,-0.131682,0.192423,-2.16046,0.298524,0.359451,-0.00730422,0.123999,0.00220351,0.129677,-0.127666,-0.191297,0.382206,0.0113729,0.465674,1.929,0.215753,-2.81536,0.486891,5.209,0.155083,0,0,0,0,0,0,0,0.00296092,-0.13277,0.187504,-2.1543,0.306268,0.341933,-0.00782698,0.115332,0.103088,0.0740305,-0.0681077,-0.200788,0.281337,0.000730765,0,0,0,0,0,0,0,2.21332,-30.5788,0.639662,27.9507,1.28967,2.9406,0.0779268,
0.00876959,-0.131585,0.193474,-2.16158,0.297172,0.36259,-0.00720121,0.124667,0.00417941,0.130015,-0.13012,-0.18683,0.384238,0.0116735,0.417439,1.23494,0.211525,-1.53383,2.79174,1.26973,0.187896,0,0,0,0,0,0,0,0.00660947,-0.131901,0.19069,-2.15816,0.299979,0.352368,-0.00783239,0.199476,0.0114232,-0.00199777,-0.114875,-0.190893,0.310188,-0.00205406,10.5181,-11.4581,-9.50353,-5.84591,1.23688,3.60632,-0.348103,0.463749,-29.706,-0.812364,24.6619,1.25946,2.52221,0.164902,
0.0097818,-0.131505,0.194518,-2.16266,0.296019,0.365529,-0.00711332,0.125039,0.00534372,0.1301,-0.131083,-0.178299,0.380876,0.0115361,0.232431,0.727693,0.0531729,-0.601997,5.33213,-2.10137,-0.0858727,0,0,0,0,0,0,0,0.00660947,-0.131901,0.19069,-2.15816,0.299979,0.352368,-0.00783239,0.199476,0.0114232,-0.00199777,-0.114875,-0.190893,0.310188,-0.00205406,0,0,0,0,0,0,0,0.463749,-29.706,-0.812364,24.6619,1.25946,2.52221,0.164902,
0.0107943,-0.131437,0.195562,-2.1637,0.294877,0.368331,-0.00703402,0.125344,0.00598234,0.130187,-0.130878,-0.171175,0.374748,0.0112114,0.190868,0.399137,0.0541037,0.127984,4.45261,-3.82946,-0.202954,0,0,0,0,0,0,0,0.00660947,-0.131901,0.19069,-2.15816,0.299979,0.352368,-0.00783239,0.199476,0.0114232,-0.00199777,-0.114875,-0.190893,0.310188,-0.00205406,0,0,0,0,0,0,0,0.463749,-29.706,-0.812364,24.6619,1.25946,2.52221,0.164902,
0.0114226,-0.13225,0.195683,-2.16449,0.293923,0.369621,-0.00732054,0.125599,0.00337953,0.130666,-0.134815,-0.162949,0.383507,0.0113514,0.159469,-1.62676,0.299422,-2.46087,5.14125,5.47396,0.0875044,0,0,0,0,0,0,0,0.00660947,-0.131901,0.19069,-2.15816,0.299979,0.352368,-0.00783239,0.199476,0.0114232,-0.00199777,-0.114875,-0.190893,0.310188,-0.00205406,0,0,0,0,0,0,0,0.463749,-29.706,-0.812364,24.6619,1.25946,2.52221,0.164902,
0.012436,-0.132301,0.196744,-2.16565,0.293062,0.372805,-0.00722454,0.125814,0.00143452,0.131065,-0.137033,-0.151887,0.386421,0.0114809,0.13417,-1.21563,0.249586,-1.38568,6.91374,1.82149,0.0809524,0,0,0,0,0,0,0,0.0104972,-0.131872,0.193981,-2.16263,0.294076,0.363234,-0.00782528,0.20085,-0.038993,0.000632221,-0.150914,-0.15724,0.318702,0.00048625,0.171747,-6.30203,0.328748,-4.50483,4.20655,1.06427,0.317539,-0.373349,-27.2066,-1.08611,25.7092,1.33819,2.77489,0.104477,
0.0134404,-0.13235,0.197797,-2.16679,0.292399,0.375796,-0.00714573,0.12576,-8.31568e-05,0.131172,-0.137933,-0.138082,0.383902,0.0111551,-0.0336211,-0.948548,0.0669458,-0.56286,8.6279,-1.57429,-0.203626,0,0,0,0,0,0,0,0.0104972,-0.131872,0.193981,-2.16263,0.294076,0.363234,-0.00782528,0.20085,-0.038993,0.000632221,-0.150914,-0.15724,0.318702,0.00048625,0,0,0,0,0,0,0,-0.373349,-27.2066,-1.08611,25.7092,1.33819,2.77489,0.104477,
0.0153817,-0.13234,0.198964,-2.16885,0.289347,0.379112,-0.00734507,0.126151,-0.000445878,0.131282,-0.140059,-0.131192,0.383169,0.011228,0.244291,-0.226701,0.0684171,-1.32855,4.30616,-0.458176,0.0455547,0,0,0,0,0,0,0,0.0104972,-0.131872,0.193981,-2.16263,0.294076,0.363234,-0.00782528,0.20085,-0.038993,0.000632221,-0.150914,-0.15724,0.318702,0.00048625,0,0,0,0,0,0,0,-0.373349,-27.2066,-1.08611,25.7092,1.33819,2.77489,0.104477,
0.0164035,-0.132341,0.200018,-2.17001,0.288641,0.381992,-0.00724472,0.126466,-0.000379585,0.13138,-0.141139,-0.122603,0.378545,0.0114912,0.196649,0.0414335,0.0615719,-0.674878,5.36822,-2.89044,0.164537,0,0,0,0,0,0,0,0.0104972,-0.131872,0.193981,-2.16263,0.294076,0.363234,-0.00782528,0.20085,-0.038993,0.000632221,-0.150914,-0.15724,0.318702,0.00048625,0,0,0,0,0,0,0,-0.373349,-27.2066,-1.08611,25.7092,1.33819,2.77489,0.104477,
0.0174151,-0.132335,0.201062,-2.17115,0.288107,0.384685,-0.00716085,0.126463,-0.000150199,0.131204,-0.141442,-0.111432,0.370161,0.0112898,-0.00162472,0.143366,-0.110166,-0.18939,6.98228,-5.23971,-0.125898,0,0,0,0,0,0,0,0.0142647,-0.13067,0.197687,-2.1667,0.288949,0.374374,-0.00782975,0.139366,0.0979791,0.0931523,-0.0754242,-0.143844,0.300078,-0.000889705,-7.68561,17.1215,11.565,9.43618,1.67454,-2.32801,-0.171994,0.487552,-30.3288,-0.16173,26.7526,1.42425,2.66137,0.14476,
0.0184251,-0.132324,0.202105,-2.17227,0.28754,0.38725,-0.00708318,0.12642,0.000161601,0.131036,-0.141076,-0.103335,0.360257,0.0109735,-0.0268785,0.194875,-0.105032,0.228759,5.06012,-6.1901,-0.197669,0,0,0,0,0,0,0,0.0142647,-0.13067,0.197687,-2.1667,0.288949,0.374374,-0.00782975,0.139366,0.0979791,0.0931523,-0.0754242,-0.143844,0.300078,-0.000889705,0,0,0,0,0,0,0,0.487552,-30.3288,-0.16173,26.7526,1.42425,2.66137,0.14476,
0.0190556,-0.12964,0.202634,-2.17257,0.285548,0.387631,-0.00739788,0.125497,0.00270229,0.129995,-0.141511,-0.0975669,0.347839,0.0109611,-0.576733,1.58793,-0.650712,-0.272073,3.60528,-7.76124,-0.00775097,0,0,0,0,0,0,0,0.0142647,-0.13067,0.197687,-2.1667,0.288949,0.374374,-0.00782975,0.139366,0.0979791,0.0931523,-0.0754242,-0.143844,0.300078,-0.000889705,0,0,0,0,0,0,0,0.487552,-30.3288,-0.16173,26.7526,1.42425,2.66137,0.14476,
0.0200248,-0.129555,0.203634,-2.17369,0.28508,0.389874,-0.00731242,0.12463,0.00428605,0.129015,-0.141145,-0.0897534,0.334331,0.0109056,-0.542198,0.989851,-0.612688,0.22863,4.88346,-8.44232,-0.0347269,0,0,0,0,0,0,0,0.0142647,-0.13067,0.197687,-2.1667,0.288949,0.374374,-0.00782975,0.139366,0.0979791,0.0931523,-0.0754242,-0.143844,0.300078,-0.000889705,0,0,0,0,0,0,0,0.487552,-30.3288,-0.16173,26.7526,1.42425,2.66137,0.14476,
0.0209833,-0.129484,0.204623,-2.17478,0.284753,0.39197,-0.00724189,0.123664,0.00519261,0.127938,-0.14019,-0.0799769,0.319869,0.0104877,-0.603223,0.566604,-0.672655,0.597002,6.11028,-9.03893,-0.261191,0,0,0,0,0,0,0,0.0176144,-0.129969,0.202075,-2.17103,0.285575,0.385286,-0.00782904,0.0286882,-0.0198379,0.199253,-0.147911,-0.086115,0.32786,-0.000470844,-13.8347,-14.7271,13.2626,-9.06081,7.21611,3.47282,0.0523576,0.412174,-30.305,-0.637804,24.6381,1.14959,2.47643,0.138352,
0.0219396,-0.129423,0.205609,-2.17584,0.284354,0.393964,-0.00717822,0.122841,0.0056761,0.127004,-0.138657,-0.0739595,0.305747,0.00998187,-0.514726,0.302182,-0.583831,0.958085,3.76093,-8.8259,-0.316127,0,0,0,0,0,0,0,0.0176144,-0.129969,0.202075,-2.17103,0.285575,0.385286,-0.00782904,0.0286882,-0.0198379,0.199253,-0.147911,-0.086115,0.32786,-0.000470844,0,0,0,0,0,0,0,0.412174,-30.305,-0.637804,24.6381,1.14959,2.47643,0.138352,
0.0222994,-0.130056,0.206924,-2.17627,0.283111,0.396358,-0.00746128,0.121724,0.00480998,0.125749,-0.136118,-0.0691276,0.294028,0.00947826,-0.698354,-0.54133,-0.784409,1.58696,3.01991,-7.32487,-0.314756,0,0,0,0,0,0,0,0.0176144,-0.129969,0.202075,-2.17103,0.285575,0.385286,-0.00782904,0.0286882,-0.0198379,0.199253,-0.147911,-0.086115,0.32786,-0.000470844,0,0,0,0,0,0,0,0.412174,-30.305,-0.637804,24.6381,1.14959,2.47643,0.138352,
0.0232334,-0.130039,0.207885,-2.17726,0.282753,0.398249,-0.00739284,0.120728,0.0042668,0.124628,-0.133785,-0.0642474,0.282479,0.0092938,-0.621931,-0.339485,-0.70091,1.45808,3.05011,-7.2178,-0.115288,0,0,0,0,0,0,0,0.0176144,-0.129969,0.202075,-2.17103,0.285575,0.385286,-0.00782904,0.0286882,-0.0198379,0.199253,-0.147911,-0.086115,0.32786,-0.000470844,0,0,0,0,0,0,0,0.412174,-30.305,-0.637804,24.6381,1.14959,2.47643,0.138352,
0.0241542,-0.130018,0.208832,-2.17825,0.282505,0.400037,-0.00733997,0.119604,0.00393634,0.123372,-0.131615,-0.0576089,0.270685,0.00875662,-0.702939,-0.20654,-0.784664,1.35649,4.14908,-7.37133,-0.335737,0,0,0,0,0,0,0,0.0209341,-0.130339,0.206534,-2.17601,0.283467,0.395607,-0.00782529,0.0185754,-0.0543755,0.226372,-0.166267,-0.0373903,0.26992,5.6676e-05,-1.2641,-4.3172,3.38993,-2.29449,6.09058,-7.24253,0.06594,1.14612,-26.4607,-0.213304,24.1898,1.28326,2.21734,0.104477,
0.0250646,-0.129995,0.209768,-2.17922,0.282267,0.401762,-0.00728851,0.118444,0.00372435,0.122082,-0.129577,-0.0520316,0.259678,0.00829186,-0.725099,-0.132489,-0.806155,1.27318,3.48582,-6.87958,-0.290477,0,0,0,0,0,0,0,0.0209341,-0.130339,0.206534,-2.17601,0.283467,0.395607,-0.00782529,0.0185754,-0.0543755,0.226372,-0.166267,-0.0373903,0.26992,5.6676e-05,0,0,0,0,0,0,0,1.14612,-26.4607,-0.213304,24.1898,1.28326,2.21734,0.104477,
0.0256748,-0.130739,0.211434,-2.18091,0.281742,0.404396,-0.00754781,0.117797,0.00265685,0.121351,-0.127152,-0.0517288,0.250105,0.00767819,-0.404078,-0.66719,-0.456888,1.51578,0.189257,-5.98279,-0.383542,0,0,0,0,0,0,0,0.0209341,-0.130339,0.206534,-2.17601,0.283467,0.395607,-0.00782529,0.0185754,-0.0543755,0.226372,-0.166267,-0.0373903,0.26992,5.6676e-05,0,0,0,0,0,0,0,1.14612,-26.4607,-0.213304,24.1898,1.28326,2.21734,0.104477,
0.0265827,-0.13074,0.212367,-2.18184,0.281235,0.40607,-0.00751104,0.116937,0.0021036,0.120419,-0.124908,-0.0540718,0.241931,0.00706186,-0.537627,-0.345784,-0.582501,1.40259,-1.4644,-5.10891,-0.385203,0,0,0,0,0,0,0,0.0209341,-0.130339,0.206534,-2.17601,0.283467,0.395607,-0.00782529,0.0185754,-0.0543755,0.226372,-0.166267,-0.0373903,0.26992,5.6676e-05,0,0,0,0,0,0,0,1.14612,-26.4607,-0.213304,24.1898,1.28326,2.21734,0.104477,
0.0274766,-0.130732,0.213286,-2.18275,0.280663,0.407714,-0.00747727,0.115896,0.00187362,0.119313,-0.122818,-0.0575559,0.234644,0.00649354,-0.650495,-0.143734,-0.691643,1.30619,-2.17756,-4.55465,-0.355201,0,0,0,0,0,0,0,0.0209341,-0.130339,0.206534,-2.17601,0.283467,0.395607,-0.00782529,0.0185754,-0.0543755,0.226372,-0.166267,-0.0373903,0.26992,5.6676e-05,0,0,0,0,0,0,0,1.14612,-26.4607,-0.213304,24.1898,1.28326,2.21734,0.104477,
0.0283567,-0.130718,0.214191,-2.18365,0.280049,0.409322,-0.00744562,0.11472,0.00184113,0.118074,-0.120839,-0.0613812,0.227912,0.00598607,-0.735248,-0.0203101,-0.774205,1.23667,-2.3908,-4.20737,-0.317171,0,0,0,0,0,0,0,0.0244641,-0.129465,0.21056,-2.18028,0.28232,0.404243,-0.00782387,0.0883592,0.0898565,0.134573,-0.0985107,-0.0286957,0.234786,0.000681782,8.72297,18.029,-11.4749,8.46949,1.08683,-4.39175,0.0781382,2.16175,-29.2061,0.286573,27.0026,1.39404,2.55608,0.0907442,
0.028735,-0.128277,0.214977,-2.18521,0.279431,0.412675,-0.00765129,0.112821,0.00447036,0.116123,-0.120305,-0.0663453,0.220294,0.0055435,-1.18676,1.64327,-1.21929,0.333888,-3.10254,-4.76123,-0.276605,0,0,0,0,0,0,0,0.0244641,-0.129465,0.21056,-2.18028,0.28232,0.404243,-0.00782387,0.0883592,0.0898565,0.134573,-0.0985107,-0.0286957,0.234786,0.000681782,0,0,0,0,0,0,0,2.16175,-29.2061,0.286573,27.0026,1.39404,2.55608,0.0907442,
0.0295691,-0.12818,0.215834,-2.18613,0.278736,0.414145,-0.00762335,0.111109,0.00600539,0.114345,-0.119267,-0.0704523,0.213003,0.00513342,-1.06995,0.959394,-1.11134,0.649196,-2.5669,-4.55701,-0.2563,0,0,0,0,0,0,0,0.0244641,-0.129465,0.21056,-2.18028,0.28232,0.404243,-0.00782387,0.0883592,0.0898565,0.134573,-0.0985107,-0.0286957,0.234786,0.000681782,0,0,0,0,0,0,0,2.16175,-29.2061,0.286573,27.0026,1.39404,2.55608,0.0907442,
0.0303947,-0.128098,0.216683,-2.18703,0.278049,0.415576,-0.00759769,0.109526,0.00683858,0.112688,-0.117869,-0.0735536,0.206169,0.00474826,-0.989123,0.520744,-1.03541,0.873349,-1.93828,-4.271,-0.240728,0,0,0,0,0,0,0,0.0244641,-0.129465,0.21056,-2.18028,0.28232,0.404243,-0.00782387,0.0883592,0.0898565,0.134573,-0.0985107,-0.0286957,0.234786,0.000681782,0,0,0,0,0,0,0,2.16175,-29.2061,0.286573,27.0026,1.39404,2.55608,0.0907442,
0.028735,-0.128277,0.214977,-2.18521,0.279431,0.412675,-0.00765129,0.108666,0.00846832,0.111815,-0.117929,-0.0760832,0.2029,0.00455325,-0.53759,1.01859,-0.546085,-0.0373987,-1.58099,-2.04338,-0.121879,0,0,0,0,0,0,0,0.0283437,-0.128528,0.214054,-2.18418,0.281535,0.411436,-0.00782978,0.188985,0.0250841,0.0234217,-0.113037,-0.0334793,0.18829,-0.000897369,12.5782,-8.09655,-13.894,-1.8158,-0.597957,-5.81197,-0.197394,0.233646,-30.8287,-1.28844,24.6619,1.11847,2.35009,0.131027,
0.0332665,-0.128043,0.219079,-2.18944,0.278196,0.419951,-0.00767741,0.106888,0.00810507,0.109923,-0.115184,-0.0760763,0.195741,0.00413238,-1.1114,-0.227028,-1.18234,1.71589,0.00425435,-4.47396,-0.263048,0,0,0,0,0,0,0,0.0283437,-0.128528,0.214054,-2.18418,0.281535,0.411436,-0.00782978,0.188985,0.0250841,0.0234217,-0.113037,-0.0334793,0.18829,-0.000897369,0,0,0,0,0,0,0,0.233646,-30.8287,-1.28844,24.6619,1.11847,2.35009,0.131027,
0.0340537,-0.127994,0.219886,-2.19026,0.277604,0.421255,-0.00765991,0.10519,0.00771603,0.108122,-0.112552,-0.0756608,0.189194,0.00374353,-1.06114,-0.243154,-1.12517,1.64454,0.259693,-4.09227,-0.243031,0,0,0,0,0,0,0,0.0283437,-0.128528,0.214054,-2.18418,0.281535,0.411436,-0.00782978,0.188985,0.0250841,0.0234217,-0.113037,-0.0334793,0.18829,-0.000897369,0,0,0,0,0,0,0,0.233646,-30.8287,-1.28844,24.6619,1.11847,2.35009,0.131027,
0.0348294,-0.127947,0.220682,-2.19106,0.277032,0.422527,-0.00764434,0.103547,0.00733462,0.106385,-0.11002,-0.0748203,0.18315,0.003384,-1.02701,-0.238378,-1.08602,1.58299,0.525319,-3.77704,-0.224702,0,0,0,0,0,0,0,0.0283437,-0.128528,0.214054,-2.18418,0.281535,0.411436,-0.00782978,0.188985,0.0250841,0.0234217,-0.113037,-0.0334793,0.18829,-0.000897369,0,0,0,0,0,0,0,0.233646,-30.8287,-1.28844,24.6619,1.11847,2.35009,0.131027,
0.036472,-0.129249,0.221711,-2.1925,0.277699,0.422291,-0.00773397,0.102654,0.00547714,0.105402,-0.107,-0.072192,0.176487,0.00304152,-0.558197,-1.16093,-0.614443,1.88727,1.6427,-4.16431,-0.214052,0,0,0,0,0,0,0,0.0323178,-0.128704,0.217496,-2.18846,0.28013,0.416644,-0.00782934,0.207529,-0.0714615,0.01309,-0.162191,-0.0308002,0.154576,0.000939305,2.31801,-12.0682,-1.29147,-6.14421,0.334893,-4.2143,0.229584,-1.53973,-27.282,-2.51036,25.4315,1.13678,2.59545,0.0980684,
0.0372471,-0.129249,0.222505,-2.19325,0.277218,0.423483,-0.00772235,0.101499,0.00437202,0.104172,-0.104287,-0.0697829,0.171011,0.00272385,-0.721764,-0.690703,-0.768332,1.69584,1.5057,-3.42304,-0.198544,0,0,0,0,0,0,0,0.0323178,-0.128704,0.217496,-2.18846,0.28013,0.416644,-0.00782934,0.207529,-0.0714615,0.01309,-0.162191,-0.0308002,0.154576,0.000939305,0,0,0,0,0,0,0,-1.53973,-27.282,-2.51036,25.4315,1.13678,2.59545,0.0980684,
0.0380054,-0.12924,0.223282,-2.19398,0.27675,0.42466,-0.00771236,0.100157,0.00374142,0.102764,-0.101802,-0.0675141,0.16623,0.00242878,-0.839023,-0.394124,-0.880355,1.553,1.41797,-2.98755,-0.184417,0,0,0,0,0,0,0,0.0323178,-0.128704,0.217496,-2.18846,0.28013,0.416644,-0.00782934,0.207529,-0.0714615,0.01309,-0.162191,-0.0308002,0.154576,0.000939305,0,0,0,0,0,0,0,-1.53973,-27.282,-2.51036,25.4315,1.13678,2.59545,0.0980684,
0.0387477,-0.129223,0.224043,-2.19471,0.276297,0.425815,-0.00770394,0.0986846,0.00340906,0.10123,-0.0994836,-0.065334,0.161862,0.00215353,-0.919936,-0.207728,-0.958502,1.44887,1.3626,-2.73056,-0.172031,0,0,0,0,0,0,0,0.0323178,-0.128704,0.217496,-2.18846,0.28013,0.416644,-0.00782934,0.207529,-0.0714615,0.01309,-0.162191,-0.0308002,0.154576,0.000939305,0,0,0,0,0,0,0,-1.53973,-27.282,-2.51036,25.4315,1.13678,2.59545,0.0980684,
0.0396148,-0.126889,0.22468,-2.19612,0.276463,0.426228,-0.00778339,0.0969279,0.00550097,0.0994223,-0.0986977,-0.0637916,0.154977,0.00191299,-1.09793,1.30744,-1.12994,0.491163,0.963989,-4.30284,-0.150338,0,0,0,0,0,0,0,0.0358911,-0.127896,0.220863,-2.19208,0.278591,0.420964,-0.0078351,0.128927,0.073276,0.0720439,-0.0792893,-0.043153,0.112933,-0.000628999,-9.82522,18.0922,7.36924,10.3627,-1.5441,-5.20531,-0.196038,-0.805783,-29.0791,-1.463,28.3713,1.26495,3.09258,0.110886,
0.0403215,-0.126797,0.225404,-2.19686,0.276014,0.427235,-0.00777748,0.0952107,0.0067159,0.0976424,-0.0974255,-0.0622777,0.149168,0.00167816,-1.0733,0.759332,-1.11249,0.795171,0.946198,-3.63094,-0.14677,0,0,0,0,0,0,0,0.0358911,-0.127896,0.220863,-2.19208,0.278591,0.420964,-0.0078351,0.128927,0.073276,0.0720439,-0.0792893,-0.043153,0.112933,-0.000628999,0,0,0,0,0,0,0,-0.805783,-29.0791,-1.463,28.3713,1.26495,3.09258,0.110886,
0.0410158,-0.126717,0.226115,-2.19758,0.27558,0.428232,-0.0077731,0.0935251,0.00735902,0.0958865,-0.0958098,-0.0606722,0.144237,0.00145193,-1.0535,0.401953,-1.09744,1.00977,1.00341,-3.08144,-0.141393,0,0,0,0,0,0,0,0.0358911,-0.127896,0.220863,-2.19208,0.278591,0.420964,-0.0078351,0.128927,0.073276,0.0720439,-0.0792893,-0.043153,0.112933,-0.000628999,0,0,0,0,0,0,0,-0.805783,-29.0791,-1.463,28.3713,1.26495,3.09258,0.110886,
0.0416976,-0.126647,0.226813,-2.19827,0.275164,0.429216,-0.00777017,0.0918652,0.00763321,0.0941517,-0.093959,-0.0589413,0.139995,0.00123487,-1.0374,0.171368,-1.08421,1.15678,1.08185,-2.65116,-0.135663,0,0,0,0,0,0,0,0.0358911,-0.127896,0.220863,-2.19208,0.278591,0.420964,-0.0078351,0.128927,0.073276,0.0720439,-0.0792893,-0.043153,0.112933,-0.000628999,0,0,0,0,0,0,0,-0.805783,-29.0791,-1.463,28.3713,1.26495,3.09258,0.110886,
0.0419964,-0.125777,0.228419,-2.19871,0.275372,0.429282,-0.00781434,0.0904305,0.00861535,0.0926601,-0.0925509,-0.057864,0.135554,0.00103457,-0.89672,0.613834,-0.932272,0.880061,0.673295,-2.77569,-0.125186,0,0,0,0,0,0,0,0.0384647,-0.126659,0.224774,-2.19503,0.277385,0.424516,-0.00783711,0.0109974,0.062443,0.178913,-0.0673866,-0.0336546,0.0859138,-0.000603726,-14.7413,-1.35413,13.3587,1.48784,1.18731,-3.37744,0.00315917,0.995365,-31.1263,-0.312487,26.2289,1.15509,2.87377,0.124619,
0.0426598,-0.125692,0.229097,-2.19938,0.274952,0.430216,-0.00781384,0.0889299,0.00902028,0.0910922,-0.090808,-0.0568052,0.131802,0.000840135,-0.937877,0.253084,-0.97991,1.08929,0.661773,-2.34491,-0.121525,0,0,0,0,0,0,0,0.0384647,-0.126659,0.224774,-2.19503,0.277385,0.424516,-0.00783711,0.0109974,0.062443,0.178913,-0.0673866,-0.0336546,0.0859138,-0.000603726,0,0,0,0,0,0,0,0.995365,-31.1263,-0.312487,26.2289,1.15509,2.87377,0.124619,
0.0433095,-0.125618,0.229762,-2.20002,0.274543,0.431142,-0.00781456,0.0873871,0.00907002,0.0894757,-0.0888375,-0.0556732,0.128585,0.000654032,-0.964238,0.0310845,-1.01035,1.23156,0.707492,-2.01108,-0.116314,0,0,0,0,0,0,0,0.0384647,-0.126659,0.224774,-2.19503,0.277385,0.424516,-0.00783711,0.0109974,0.062443,0.178913,-0.0673866,-0.0336546,0.0859138,-0.000603726,0,0,0,0,0,0,0,0.995365,-31.1263,-0.312487,26.2289,1.15509,2.87377,0.124619,
0.0439459,-0.125552,0.230411,-2.20065,0.274146,0.432058,-0.00781644,0.0858187,0.00890844,0.0878298,-0.0867203,-0.0544442,0.125758,0.000476301,-0.980232,-0.100985,-1.02866,1.32328,0.768132,-1.76674,-0.111082,0,0,0,0,0,0,0,0.0384647,-0.126659,0.224774,-2.19503,0.277385,0.424516,-0.00783711,0.0109974,0.062443,0.178913,-0.0673866,-0.0336546,0.0859138,-0.000603726,0,0,0,0,0,0,0,0.995365,-31.1263,-0.312487,26.2289,1.15509,2.87377,0.124619,
0.0419044,-0.125738,0.22832,-2.19847,0.274293,0.429415,-0.00783477,0.0848631,0.00975981,0.0868398,-0.0854008,-0.0612634,0.125609,0.000323437,-0.597238,0.532105,-0.618738,0.824713,-4.26199,-0.0933224,-0.09554,0,0,0,0,0,0,0,0.0411929,-0.126592,0.22843,-2.19833,0.27643,0.427618,-0.00783452,0.0587395,-0.0674829,0.124938,-0.131574,-0.0208529,0.0868108,0.00103819,5.96777,-16.2407,-6.74689,-8.02339,1.60021,0.112124,0.205239,0.336795,-27.1074,-1.36382,23.5907,1.10016,2.5158,0.0980684,
0.0425351,-0.125649,0.228964,-2.19908,0.273576,0.430418,-0.00783819,0.0836593,0.0100354,0.0855855,-0.0836958,-0.0669483,0.125553,0.00017318,-0.752418,0.172267,-0.783976,1.06562,-3.55312,-0.0349885,-0.0939109,0,0,0,0,0,0,0,0.0411929,-0.126592,0.22843,-2.19833,0.27643,0.427618,-0.00783452,0.0587395,-0.0674829,0.124938,-0.131574,-0.0208529,0.0868108,0.00103819,0,0,0,0,0,0,0,0.336795,-27.1074,-1.36382,23.5907,1.10016,2.5158,0.0980684,
0.0431495,-0.125571,0.229591,-2.19967,0.272855,0.431421,-0.00784254,0.0822861,0.00996333,0.0841506,-0.0817282,-0.0715879,0.125506,2.96908e-05,-0.858252,-0.0450622,-0.896834,1.22971,-2.89971,-0.0293615,-0.0896807,0,0,0,0,0,0,0,0.0411929,-0.126592,0.22843,-2.19833,0.27643,0.427618,-0.00783452,0.0587395,-0.0674829,0.124938,-0.131574,-0.0208529,0.0868108,0.00103819,0,0,0,0,0,0,0,0.336795,-27.1074,-1.36382,23.5907,1.10016,2.5158,0.0980684,
0.0437483,-0.125502,0.230202,-2.20024,0.272132,0.43242,-0.00784774,0.0808008,0.00969048,0.0825961,-0.0795909,-0.0753357,0.125396,-0.000106244,-0.928291,-0.170532,-0.971545,1.3358,-2.34237,-0.0684732,-0.0849595,0,0,0,0,0,0,0,0.0411929,-0.126592,0.22843,-2.19833,0.27643,0.427618,-0.00783452,0.0587395,-0.0674829,0.124938,-0.131574,-0.0208529,0.0868108,0.00103819,0,0,0,0,0,0,0,0.336795,-27.1074,-1.36382,23.5907,1.10016,2.5158,0.0980684,
0.0447367,-0.127046,0.232051,-2.20137,0.272589,0.432978,-0.00782875,0.0813473,0.00758649,0.0831886,-0.0773135,-0.0820449,0.132246,-0.000189288,0.34157,-1.315,0.370298,1.42338,-4.19325,4.28108,-0.0519021,0,0,0,0,0,0,0,0.0411929,-0.126592,0.22843,-2.19833,0.27643,0.427618,-0.00783452,0.0587395,-0.0674829,0.124938,-0.131574,-0.0208529,0.0868108,0.00103819,0,0,0,0,0,0,0,0.336795,-27.1074,-1.36382,23.5907,1.10016,2.5158,0.0980684,
0.0453848,-0.127041,0.232715,-2.20189,0.271691,0.434283,-0.00783363,0.0812799,0.0061985,0.0831539,-0.0750422,-0.0881098,0.138446,-0.000273289,-0.0421481,-0.86749,-0.0216727,1.41956,-3.79058,3.8749,-0.0525007,0,0,0,0,0,0,0,0.0445614,-0.126022,0.230842,-2.20133,0.275416,0.430485,-0.00784116,0.163172,0.0472501,-0.00181826,-0.0757098,-0.0430901,0.0673329,-0.000415359,13.0541,14.3416,-15.8445,6.98298,-2.77966,-2.43474,-0.181693,-1.26202,-27.7818,-2.51036,27.1771,1.25305,2.82799,0.11821,
0.0460141,-0.127029,0.23336,-2.2024,0.270763,0.435601,-0.00783896,0.0807553,0.00526788,0.0826468,-0.072786,-0.0936814,0.143683,-0.000352056,-0.327841,-0.581639,-0.316904,1.41018,-3.48224,3.27322,-0.0492295,0,0,0,0,0,0,0,0.0445614,-0.126022,0.230842,-2.20133,0.275416,0.430485,-0.00784116,0.163172,0.0472501,-0.00181826,-0.0757098,-0.0430901,0.0673329,-0.000415359,0,0,0,0,0,0,0,-1.26202,-27.7818,-2.51036,27.1771,1.25305,2.82799,0.11821,
0.0466258,-0.127012,0.233987,-2.2029,0.269803,0.436918,-0.00784466,0.0798974,0.00463369,0.0817917,-0.0705495,-0.0989309,0.147879,-0.00042416,-0.53621,-0.396366,-0.534488,1.39779,-3.28095,2.6225,-0.0450651,0,0,0,0,0,0,0,0.0445614,-0.126022,0.230842,-2.20133,0.275416,0.430485,-0.00784116,0.163172,0.0472501,-0.00181826,-0.0757098,-0.0430901,0.0673329,-0.000415359,0,0,0,0,0,0,0,-1.26202,-27.7818,-2.51036,27.1771,1.25305,2.82799,0.11821,
0.0482261,-0.125298,0.234633,-2.20503,0.272607,0.439318,-0.00773308,0.0826728,0.00570612,0.0849845,-0.0730407,-0.094666,0.167418,0.000107656,1.73462,0.670267,1.99552,-1.55701,2.66556,12.212,0.332385,0,0,0,0,0,0,0,0.0445614,-0.126022,0.230842,-2.20133,0.275416,0.430485,-0.00784116,0.163172,0.0472501,-0.00181826,-0.0757098,-0.0430901,0.0673329,-0.000415359,0,0,0,0,0,0,0,-1.26202,-27.7818,-2.51036,27.1771,1.25305,2.82799,0.11821,
0.0489725,-0.12524,0.23541,-2.20565,0.271992,0.441272,-0.00771632,0.0847981,0.00602564,0.0874343,-0.0740892,-0.0911094,0.182775,0.000505224,1.3283,0.199696,1.53115,-0.655299,2.22288,9.59827,0.24848,0,0,0,0,0,0,0,0.0471745,-0.124578,0.23335,-2.20358,0.273719,0.432762,-0.00784188,0.058775,0.0842591,0.0813212,-0.0410757,-0.0594073,0.0686807,-0.00105402,-13.0497,4.62612,10.3924,4.32927,-2.03965,0.168475,-0.079833,-0.603451,-31.3008,-1.4868,26.7764,1.05804,3.02666,0.124619,
0.0497126,-0.125199,0.236181,-2.20625,0.27138,0.443196,-0.00770023,0.0863401,0.00583785,0.0892229,-0.074082,-0.0881905,0.194325,0.000806474,0.963786,-0.117367,1.11788,0.00449006,1.82432,7.21882,0.188281,0,0,0,0,0,0,0,0.0471745,-0.124578,0.23335,-2.20358,0.273719,0.432762,-0.00784188,0.058775,0.0842591,0.0813212,-0.0410757,-0.0594073,0.0686807,-0.00105402,0,0,0,0,0,0,0,-0.603451,-31.3008,-1.4868,26.7764,1.05804,3.02666,0.124619,
0.0504448,-0.125173,0.236944,-2.20681,0.270764,0.44508,-0.00768455,0.087376,0.00532772,0.090442,-0.0733149,-0.0859682,0.202556,0.00103708,0.647395,-0.318829,0.761906,0.479448,1.3889,5.14402,0.144126,0,0,0,0,0,0,0,0.0471745,-0.124578,0.23335,-2.20358,0.273719,0.432762,-0.00784188,0.058775,0.0842591,0.0813212,-0.0410757,-0.0594073,0.0686807,-0.00105402,0,0,0,0,0,0,0,-0.603451,-31.3008,-1.4868,26.7764,1.05804,3.02666,0.124619,
0.0508598,-0.123771,0.237171,-2.20762,0.270745,0.443103,-0.00765654,0.0895769,0.00601161,0.0927754,-0.076841,-0.0841969,0.216831,0.00164371,1.37561,0.42743,1.45837,-2.2038,1.10712,8.9219,0.379144,0,0,0,0,0,0,0,0.0471745,-0.124578,0.23335,-2.20358,0.273719,0.432762,-0.00784188,0.058775,0.0842591,0.0813212,-0.0410757,-0.0594073,0.0686807,-0.00105402,0,0,0,0,0,0,0,-0.603451,-31.3008,-1.4868,26.7764,1.05804,3.02666,0.124619,
0.0516512,-0.123719,0.237992,-2.2083,0.27014,0.445247,-0.00762518,0.0914465,0.00611107,0.0947461,-0.0785032,-0.0824843,0.227064,0.00209891,1.16846,0.0621648,1.23169,-1.03889,1.07036,6.39584,0.2845,0,0,0,0,0,0,0,0.0489058,-0.124515,0.236644,-2.20644,0.271543,0.435747,-0.00784117,0.0163772,-0.0720037,0.139961,-0.118915,-0.0491821,0.116877,-0.000194355,-5.29972,-19.5328,7.33003,-9.72985,1.27815,6.02453,0.107458,1.1977,-28.1548,-0.33629,24.3365,0.9967,2.89391,0.11821,
0.0524424,-0.12368,0.238813,-2.20894,0.269536,0.447329,-0.00759438,0.092939,0.00586542,0.0963092,-0.0788252,-0.0810816,0.233693,0.00244917,0.932837,-0.153532,0.97694,-0.20123,0.876688,4.14271,0.218917,0,0,0,0,0,0,0,0.0489058,-0.124515,0.236644,-2.20644,0.271543,0.435747,-0.00784117,0.0163772,-0.0720037,0.139961,-0.118915,-0.0491821,0.116877,-0.000194355,0,0,0,0,0,0,0,1.1977,-28.1548,-0.33629,24.3365,0.9967,2.89391,0.11821,
0.0532306,-0.123651,0.23963,-2.20955,0.268919,0.449339,-0.00756371,0.0940544,0.00543321,0.0974679,-0.0782002,-0.0802829,0.237221,0.00272606,0.697129,-0.270131,0.72422,0.390571,0.499189,2.20508,0.173054,0,0,0,0,0,0,0,0.0489058,-0.124515,0.236644,-2.20644,0.271543,0.435747,-0.00784117,0.0163772,-0.0720037,0.139961,-0.118915,-0.0491821,0.116877,-0.000194355,0,0,0,0,0,0,0,1.1977,-28.1548,-0.33629,24.3365,0.9967,2.89391,0.11821,
0.0529812,-0.125345,0.240824,-2.21032,0.268783,0.447322,-0.00760472,0.0964792,0.00289408,0.0998207,-0.0796178,-0.0772225,0.253144,0.00320342,1.51546,-1.58696,1.47048,-0.885944,1.91276,9.95212,0.298348,0,0,0,0,0,0,0,0.0489058,-0.124515,0.236644,-2.20644,0.271543,0.435747,-0.00784117,0.0163772,-0.0720037,0.139961,-0.118915,-0.0491821,0.116877,-0.000194355,0,0,0,0,0,0,0,1.1977,-28.1548,-0.33629,24.3365,0.9967,2.89391,0.11821,
0.0538285,-0.125387,0.241696,-2.21097,0.268255,0.449803,-0.00756428,0.0983642,0.001275,0.101664,-0.0798794,-0.0749927,0.264556,0.00357375,1.17818,-1.01192,1.15216,-0.163534,1.39364,7.13223,0.231457,0,0,0,0,0,0,0,0.0518071,-0.124228,0.239022,-2.20941,0.269771,0.440545,-0.0078404,0.146703,0.0163958,0.0194905,-0.092589,-0.0456309,0.164948,0.000555472,16.2907,11.0499,-15.0589,3.29069,0.443892,6.00891,0.0937285,-0.0202602,-27.2066,-1.13768,26.8518,1.18621,3.15209,0.110886,
0.0546703,-0.125419,0.242563,-2.21158,0.2677,0.452205,-0.00752373,0.0997377,0.000224903,0.10301,-0.0793233,-0.0738543,0.271694,0.0038729,0.858386,-0.656311,0.841078,0.34759,0.711452,4.46118,0.186971,0,0,0,0,0,0,0,0.0518071,-0.124228,0.239022,-2.20941,0.269771,0.440545,-0.0078404,0.146703,0.0163958,0.0194905,-0.092589,-0.0456309,0.164948,0.000555472,0,0,0,0,0,0,0,-0.0202602,-27.2066,-1.13768,26.8518,1.18621,3.15209,0.110886,
0.0555049,-0.125445,0.243423,-2.21217,0.267107,0.454513,-0.00748259,0.100654,-0.000467833,0.103904,-0.0781944,-0.0739166,0.275043,0.00412668,0.572607,-0.43296,0.558707,0.705537,-0.0389238,2.09374,0.158609,0,0,0,0,0,0,0,0.0518071,-0.124228,0.239022,-2.20941,0.269771,0.440545,-0.0078404,0.146703,0.0163958,0.0194905,-0.092589,-0.0456309,0.164948,0.000555472,0,0,0,0,0,0,0,-0.0202602,-27.2066,-1.13768,26.8518,1.18621,3.15209,0.110886,
0.0558585,-0.123813,0.243191,-2.21343,0.266877,0.45256,-0.00757043,0.10164,0.00131085,0.105003,-0.0805246,-0.0763991,0.280953,0.00458786,0.616084,1.11168,0.686881,-1.45636,-1.55153,3.69329,0.28824,0,0,0,0,0,0,0,0.0518071,-0.124228,0.239022,-2.20941,0.269771,0.440545,-0.0078404,0.146703,0.0163958,0.0194905,-0.092589,-0.0456309,0.164948,0.000555472,0,0,0,0,0,0,0,-0.0202602,-27.2066,-1.13768,26.8518,1.18621,3.15209,0.110886,
0.0567034,-0.123757,0.244066,-2.21411,0.266153,0.454894,-0.0075191,0.102432,0.00244924,0.105882,-0.0814415,-0.0792185,0.283112,0.00495338,0.495462,0.711491,0.549171,-0.573108,-1.76217,1.34931,0.228446,0,0,0,0,0,0,0,0.0547605,-0.122933,0.241738,-2.2119,0.2679,0.446758,-0.00783812,0.0601451,0.0926433,0.105125,-0.0486496,-0.0699192,0.204209,0.000533719,-10.8198,9.53094,10.7043,5.49242,-3.03603,4.90755,-0.00271916,-0.171017,-31.1263,-1.0623,27.5262,1.1679,3.26562,0.0907442,
0.0575449,-0.123711,0.244938,-2.21475,0.265404,0.457108,-0.00746769,0.102984,0.00310106,0.106491,-0.0813392,-0.082109,0.28184,0.00524816,0.344624,0.407387,0.381,0.0639707,-1.80652,-0.794682,0.184237,0,0,0,0,0,0,0,0.0547605,-0.122933,0.241738,-2.2119,0.2679,0.446758,-0.00783812,0.0601451,0.0926433,0.105125,-0.0486496,-0.0699192,0.204209,0.000533719,0,0,0,0,0,0,0,-0.171017,-31.1263,-1.0623,27.5262,1.1679,3.26562,0.0907442,
0.0587227,-0.121989,0.245831,-2.21613,0.264612,0.46003,-0.00753298,0.103187,0.00443516,0.106649,-0.0842096,-0.083217,0.289475,0.00571328,0.126967,0.833814,0.0986348,-1.79402,-0.692553,4.772,0.290704,0,0,0,0,0,0,0,0.0547605,-0.122933,0.241738,-2.2119,0.2679,0.446758,-0.00783812,0.0601451,0.0926433,0.105125,-0.0486496,-0.0699192,0.204209,0.000533719,0,0,0,0,0,0,0,-0.171017,-31.1263,-1.0623,27.5262,1.1679,3.26562,0.0907442,
0.0595579,-0.121934,0.246692,-2.21685,0.263959,0.462466,-0.0074728,0.103429,0.00492735,0.106845,-0.0853952,-0.0829058,0.292469,0.0060753,0.151438,0.307619,0.122387,-0.740996,0.194553,1.87106,0.22626,0,0,0,0,0,0,0,0.0547605,-0.122933,0.241738,-2.2119,0.2679,0.446758,-0.00783812,0.0601451,0.0926433,0.105125,-0.0486496,-0.0699192,0.204209,0.000533719,0,0,0,0,0,0,0,-0.171017,-31.1263,-1.0623,27.5262,1.1679,3.26562,0.0907442,
0.0603913,-0.121896,0.247551,-2.21753,0.263387,0.464765,-0.00741711,0.10358,0.00489144,0.106945,-0.0853818,-0.0806276,0.291461,0.00625234,0.0941776,-0.0224439,0.0627034,0.00837585,1.42384,-0.630158,0.110653,0,0,0,0,0,0,0,0.0570609,-0.122467,0.245561,-2.21472,0.266128,0.453721,-0.00783818,0.0211834,-0.038428,0.161861,-0.1041,-0.0550242,0.213486,-0.000616827,-4.87021,-16.3839,7.09197,-6.93128,1.86186,1.15962,-0.143818,1.27307,-29.4045,-0.33629,24.884,0.953671,2.6751,0.131027,
0.0612201,-0.121871,0.248404,-2.21818,0.262896,0.46692,-0.00736941,0.103583,0.00453782,0.106896,-0.0844888,-0.07676,0.28704,0.00619439,0.00209813,-0.221009,-0.030922,0.558116,2.41727,-2.76275,-0.0362209,0,0,0,0,0,0,0,0.0570609,-0.122467,0.245561,-2.21472,0.266128,0.453721,-0.00783818,0.0211834,-0.038428,0.161861,-0.1041,-0.0550242,0.213486,-0.000616827,0,0,0,0,0,0,0,1.27307,-29.4045,-0.33629,24.884,0.953671,2.6751,0.131027,
0.0612982,-0.123015,0.249933,-2.21861,0.263447,0.466066,-0.00750643,0.104455,0.00246207,0.107803,-0.0850414,-0.0718136,0.290262,0.00648939,0.544943,-1.29735,0.567421,-0.345344,3.0915,2.0137,0.184373,0,0,0,0,0,0,0,0.0570609,-0.122467,0.245561,-2.21472,0.266128,0.453721,-0.00783818,0.0211834,-0.038428,0.161861,-0.1041,-0.0550242,0.213486,-0.000616827,0,0,0,0,0,0,0,1.27307,-29.4045,-0.33629,24.884,0.953671,2.6751,0.131027,
0.0621576,-0.123049,0.250821,-2.21928,0.263073,0.468388,-0.00743341,0.10505,0.00110568,0.108431,-0.0847176,-0.066779,0.29026,0.00701706,0.371517,-0.847744,0.392378,0.202341,3.14664,-0.00161955,0.329799,0,0,0,0,0,0,0,0.0570609,-0.122467,0.245561,-2.21472,0.266128,0.453721,-0.00783818,0.0211834,-0.038428,0.161861,-0.1041,-0.0550242,0.213486,-0.000616827,0,0,0,0,0,0,0,1.27307,-29.4045,-0.33629,24.884,0.953671,2.6751,0.131027,
0.0630045,-0.123078,0.251696,-2.21992,0.262765,0.470578,-0.00737229,0.105212,0.00017099,0.10862,-0.0837807,-0.0611306,0.28694,0.00714155,0.101586,-0.58418,0.118235,0.585589,3.53025,-2.07455,0.0778046,0,0,0,0,0,0,0,0.0603448,-0.122338,0.24837,-2.21783,0.264213,0.461396,-0.00783984,0.156133,-0.00689102,0.0247827,-0.102586,-0.0530484,0.23468,-0.00187876,16.8687,3.94212,-17.1347,0.189234,0.246978,2.64934,-0.157741,0.309024,-26.7583,-1.0385,26.106,1.14318,2.80785,0.14476,
0.0638441,-0.123102,0.252563,-2.22053,0.262338,0.47265,-0.00731996,0.105159,-0.000459078,0.108589,-0.0822788,-0.0595942,0.281375,0.00702147,-0.0330805,-0.393793,-0.0195452,0.938669,0.96022,-3.47834,-0.0750535,0,0,0,0,0,0,0,0.0603448,-0.122338,0.24837,-2.21783,0.264213,0.461396,-0.00783984,0.156133,-0.00689102,0.0247827,-0.102586,-0.0530484,0.23468,-0.00187876,0,0,0,0,0,0,0,0.309024,-26.7583,-1.0385,26.106,1.14318,2.80785,0.14476,
0.0644538,-0.122263,0.252566,-2.22163,0.261751,0.473144,-0.00748738,0.105193,0.000314001,0.108535,-0.0830562,-0.0633649,0.281813,0.00735093,0.0210193,0.483174,-0.0340172,-0.485873,-2.35667,0.273709,0.205918,0,0,0,0,0,0,0,0.0603448,-0.122338,0.24837,-2.21783,0.264213,0.461396,-0.00783984,0.156133,-0.00689102,0.0247827,-0.102586,-0.0530484,0.23468,-0.00187876,0,0,0,0,0,0,0,0.309024,-26.7583,-1.0385,26.106,1.14318,2.80785,0.14476,
0.065294,-0.122238,0.25343,-2.2223,0.261099,0.475307,-0.0074101,0.105159,0.000871706,0.108425,-0.0830044,-0.0669768,0.279519,0.00781279,-0.020924,0.348566,-0.0685414,0.0323902,-2.25746,-1.43375,0.288659,0,0,0,0,0,0,0,0.0603448,-0.122338,0.24837,-2.21783,0.264213,0.461396,-0.00783984,0.156133,-0.00689102,0.0247827,-0.102586,-0.0530484,0.23468,-0.00187876,0,0,0,0,0,0,0,0.309024,-26.7583,-1.0385,26.106,1.14318,2.80785,0.14476,
0.0661235,-0.122218,0.254283,-2.22294,0.260489,0.47734,-0.00734714,0.104866,0.00118638,0.108061,-0.0823904,-0.0688506,0.274434,0.0078242,-0.183503,0.19667,-0.227406,0.383747,-1.17111,-3.17812,0.00712899,0,0,0,0,0,0,0,0.0603448,-0.122338,0.24837,-2.21783,0.264213,0.461396,-0.00783984,0.156133,-0.00689102,0.0247827,-0.102586,-0.0530484,0.23468,-0.00187876,0,0,0,0,0,0,0,0.309024,-26.7583,-1.0385,26.106,1.14318,2.80785,0.14476,
0.0669486,-0.122203,0.255131,-2.22355,0.259762,0.479271,-0.00729251,0.10452,0.00133637,0.107654,-0.081292,-0.0732383,0.267825,0.00762501,-0.216094,0.093748,-0.25435,0.686481,-2.74233,-4.13088,-0.124491,0,0,0,0,0,0,0,0.0637989,-0.121064,0.25107,-2.22019,0.262802,0.469843,-0.00784088,0.144222,0.109223,0.0307009,-0.0271982,-0.0342985,0.243192,-0.00167016,-1.48887,14.5142,0.739774,9.42347,2.34374,1.06393,0.0260744,-0.551876,-29.829,-1.53838,27.3001,1.04522,3.06603,0.158493,
0.0677124,-0.120018,0.255099,-2.22399,0.25985,0.481885,-0.0074794,0.103917,0.00302538,0.107093,-0.083083,-0.0784642,0.269192,0.00776522,-0.376623,1.05563,-0.350548,-1.11936,-3.26616,0.854296,0.0876319,0,0,0,0,0,0,0,0.0637989,-0.121064,0.25107,-2.22019,0.262802,0.469843,-0.00784088,0.144222,0.109223,0.0307009,-0.0271982,-0.0342985,0.243192,-0.00167016,0,0,0,0,0,0,0,-0.551876,-29.829,-1.53838,27.3001,1.04522,3.06603,0.158493,
0.068525,-0.119963,0.255938,-2.22468,0.259082,0.483963,-0.00741337,0.103448,0.00380559,0.106643,-0.0837589,-0.0819756,0.267307,0.00786278,-0.293632,0.487635,-0.281753,-0.422428,-2.19461,-1.17812,0.0609719,0,0,0,0,0,0,0,0.0637989,-0.121064,0.25107,-2.22019,0.262802,0.469843,-0.00784088,0.144222,0.109223,0.0307009,-0.0271982,-0.0342985,0.243192,-0.00167016,0,0,0,0,0,0,0,-0.551876,-29.829,-1.53838,27.3001,1.04522,3.06603,0.158493,
0.0693309,-0.119925,0.256769,-2.22534,0.258383,0.485916,-0.00735847,0.102906,0.00398116,0.106105,-0.0836328,-0.0830585,0.262649,0.00766292,-0.338611,0.10973,-0.336174,0.0787925,-0.67684,-2.91065,-0.124911,0,0,0,0,0,0,0,0.0637989,-0.121064,0.25107,-2.22019,0.262802,0.469843,-0.00784088,0.144222,0.109223,0.0307009,-0.0271982,-0.0342985,0.243192,-0.00167016,0,0,0,0,0,0,0,-0.551876,-29.829,-1.53838,27.3001,1.04522,3.06603,0.158493,
0.0701349,-0.1199,0.257599,-2.22598,0.257593,0.487761,-0.00731029,0.102425,0.00382186,0.10562,-0.0827794,-0.0862001,0.256263,0.00733469,-0.300752,-0.0995645,-0.302984,0.533413,-1.96351,-3.9917,-0.205146,0,0,0,0,0,0,0,0.0667694,-0.120143,0.254568,-2.2225,0.261493,0.477445,-0.00783211,0.0374197,0.0206086,0.149986,-0.0664366,-0.0507909,0.207813,-0.000237213,-13.3503,-11.0767,14.9107,-4.9048,-2.06155,-4.42233,0.179119,0.336795,-30.1027,-0.812364,24.0866,0.722042,2.8344,0.11821,
0.0708782,-0.120125,0.258795,-2.22616,0.257861,0.487905,-0.00749476,0.102779,0.00279637,0.105913,-0.0833401,-0.0897536,0.254646,0.00751113,0.221268,-0.64093,0.183148,-0.350444,-2.22092,-1.01018,0.110277,0,0,0,0,0,0,0,0.0667694,-0.120143,0.254568,-2.2225,0.261493,0.477445,-0.00783211,0.0374197,0.0206086,0.149986,-0.0664366,-0.0507909,0.207813,-0.000237213,0,0,0,0,0,0,0,0.336795,-30.1027,-0.812364,24.0866,0.722042,2.8344,0.11821,
0.0717073,-0.120134,0.259647,-2.22682,0.257069,0.489807,-0.00741939,0.10295,0.00200698,0.106033,-0.0832278,-0.0915999,0.25127,0.00789312,0.107275,-0.493367,0.0752143,0.0701603,-1.15398,-2.11004,0.238745,0,0,0,0,0,0,0,0.0667694,-0.120143,0.254568,-2.2225,0.261493,0.477445,-0.00783211,0.0374197,0.0206086,0.149986,-0.0664366,-0.0507909,0.207813,-0.000237213,0,0,0,0,0,0,0,0.336795,-30.1027,-0.812364,24.0866,0.722042,2.8344,0.11821,
0.0725233,-0.120144,0.260485,-2.22746,0.256406,0.491596,-0.00736293,0.102759,0.00135092,0.105797,-0.0826428,-0.089851,0.245722,0.00772583,-0.119644,-0.410041,-0.147904,0.36563,1.09308,-3.46796,-0.104558,0,0,0,0,0,0,0,0.0667694,-0.120143,0.254568,-2.2225,0.261493,0.477445,-0.00783211,0.0374197,0.0206086,0.149986,-0.0664366,-0.0507909,0.207813,-0.000237213,0,0,0,0,0,0,0,0.336795,-30.1027,-0.812364,24.0866,0.722042,2.8344,0.11821,
0.0733355,-0.120154,0.26132,-2.22808,0.255686,0.493305,-0.00730653,0.102511,0.000842572,0.10551,-0.0816263,-0.0898771,0.23931,0.00759084,-0.15467,-0.317716,-0.17914,0.63533,-0.0163136,-4.00719,-0.0843689,0,0,0,0,0,0,0,0.0694654,-0.120315,0.258501,-2.2255,0.259636,0.484968,-0.00783222,0.0845623,-0.0587159,0.116645,-0.111646,-0.0576258,0.213807,0.000719726,5.89282,-9.91556,-4.16763,-5.65123,-0.854372,0.749189,0.119617,1.12232,-26.9328,-0.610033,24.9118,0.850216,2.80144,0.0843355,
0.0737116,-0.120954,0.262853,-2.22891,0.255718,0.494468,-0.00747746,0.103061,-0.000543162,0.106056,-0.0813568,-0.0910198,0.237471,0.00770163,0.343557,-0.866083,0.341192,0.168433,-0.714206,-1.14966,0.0692453,0,0,0,0,0,0,0,0.0694654,-0.120315,0.258501,-2.2255,0.259636,0.484968,-0.00783222,0.0845623,-0.0587159,0.116645,-0.111646,-0.0576258,0.213807,0.000719726,0,0,0,0,0,0,0,1.12232,-26.9328,-0.610033,24.9118,0.850216,2.80144,0.0843355,
0.0745421,-0.120989,0.263707,-2.22954,0.255029,0.496204,-0.00742166,0.10321,-0.00131674,0.106206,-0.0807576,-0.0900292,0.233387,0.00755644,0.0930487,-0.483484,0.0936894,0.374521,0.619155,-2.55236,-0.0907409,0,0,0,0,0,0,0,0.0694654,-0.120315,0.258501,-2.2255,0.259636,0.484968,-0.00783222,0.0845623,-0.0587159,0.116645,-0.111646,-0.0576258,0.213807,0.000719726,0,0,0,0,0,0,0,1.12232,-26.9328,-0.610033,24.9118,0.850216,2.80144,0.0843355,
0.0753596,-0.121017,0.264549,-2.23015,0.254455,0.497846,-0.00737213,0.103007,-0.00175199,0.106004,-0.0800474,-0.0863771,0.227764,0.00728325,-0.127068,-0.272032,-0.125966,0.443874,2.28254,-3.51415,-0.170749,0,0,0,0,0,0,0,0.0694654,-0.120315,0.258501,-2.2255,0.259636,0.484968,-0.00783222,0.0845623,-0.0587159,0.116645,-0.111646,-0.0576258,0.213807,0.000719726,0,0,0,0,0,0,0,1.12232,-26.9328,-0.610033,24.9118,0.850216,2.80144,0.0843355,
0.0761689,-0.121039,0.265382,-2.23076,0.253885,0.499408,-0.00731967,0.102637,-0.00195546,0.105635,-0.0791441,-0.083364,0.221269,0.00713818,-0.230698,-0.127173,-0.230766,0.564554,1.88318,-4.05953,-0.0906651,0,0,0,0,0,0,0,0.0731151,-0.119455,0.261164,-2.22801,0.257379,0.492061,-0.00783191,0.162859,0.0819692,0.00487015,-0.0501658,-0.0611566,0.18353,0.00049238,9.78705,17.5856,-13.9719,7.68509,-0.441339,-3.7846,-0.0284182,0.0313145,-29.2299,-1.16149,26.7764,0.850216,2.92046,0.0779268,
0.0768925,-0.118458,0.265023,-2.2316,0.253935,0.500505,-0.00750903,0.101679,0.0008308,0.104614,-0.0805705,-0.0850428,0.214896,0.00740072,-0.599226,1.74142,-0.637938,-0.891531,-1.04925,-3.9833,0.164084,0,0,0,0,0,0,0,0.0731151,-0.119455,0.261164,-2.22801,0.257379,0.492061,-0.00783191,0.162859,0.0819692,0.00487015,-0.0501658,-0.0611566,0.18353,0.00049238,0,0,0,0,0,0,0,0.0313145,-29.2299,-1.16149,26.7764,0.850216,2.92046,0.0779268,
