xiao-wang007/linearmpc_panda/paper_data/panda_torque_PD_controller_opt_time_to_start/2/trajectory.csv
Commanded Joint 0 Position,Commanded Joint 1 Position,Commanded Joint 2 Position,Commanded Joint 3 Position,Commanded Joint 4 Position,Commanded Joint 5 Position,Commanded Joint 6 Position,Commanded Joint 0 Velocity,Commanded Joint 1 Velocity,Commanded Joint 2 Velocity,Commanded Joint 3 Velocity,Commanded Joint 4 Velocity,Commanded Joint 5 Velocity,Commanded Joint 6 Velocity,Commanded Joint 0 Acceleration,Commanded Joint 1 Acceleration,Commanded Joint 2 Acceleration,Commanded Joint 3 Acceleration,Commanded Joint 4 Acceleration,Commanded Joint 5 Acceleration,Commanded Joint 6 Acceleration,Commanded Joint 0 Torque,Commanded Joint 1 Torque,Commanded Joint 2 Torque,Commanded Joint 3 Torque,Commanded Joint 4 Torque,Commanded Joint 5 Torque,Commanded Joint 6 Torque,Actual Joint 0 Position,Actual Joint 1 Position,Actual Joint 2 Position,Actual Joint 3 Position,Actual Joint 4 Position,Actual Joint 5 Position,Actual Joint 6 Position,Actual Joint 0 Velocity,Actual Joint 1 Velocity,Actual Joint 2 Velocity,Actual Joint 3 Velocity,Actual Joint 4 Velocity,Actual Joint 5 Velocity,Actual Joint 6 Velocity,Actual Joint 0 Acceleration,Actual Joint 1 Acceleration,Actual Joint 2 Acceleration,Actual Joint 3 Acceleration,Actual Joint 4 Acceleration,Actual Joint 5 Acceleration,Actual Joint 6 Acceleration,Actual Joint 0 Torque,Actual Joint 1 Torque,Actual Joint 2 Torque,Actual Joint 3 Torque,Actual Joint 4 Torque,Actual Joint 5 Torque,Actual Joint 6 Torque,
-0.00788717,0.0578509,0.021972,-1.84959,-0.0108876,0.340304,0.0349262,0.000334172,0.0251212,0.000189248,-0.0321948,-0.00457219,0.0594447,-0.000392533,0.208858,15.7008,0.11828,-20.1217,-2.85762,37.153,-0.245333,0.0567939,26.2235,-0.0372584,-24.2277,-0.54531,2.11161,-0.0253747,-0.00789383,0.0566134,0.0219777,-1.84676,-0.0105693,0.333977,0.0349779,0.00153951,0.00509332,0.00162086,-0.00262642,-0.0111964,0.00140797,-0.00150984,0,0,0,0,0,0,0,-0.0440639,-37.2676,0.0366345,27.0541,0.697323,3.14568,0.0577852,
-0.00787777,0.0566905,0.021992,-1.8468,-0.0106595,0.333957,0.0349755,0.000344952,0.0205965,0.00021938,-0.0260168,-0.00402159,0.0473067,-0.000323165,0.00673733,-2.82793,0.0188322,3.86122,0.344128,-7.58627,0.0433547,0.0509794,26.664,-0.0476464,-24.1442,-0.545611,1.86037,-0.0238589,-0.00789383,0.0566134,0.0219777,-1.84676,-0.0105693,0.333977,0.0349779,0.00153951,0.00509332,0.00162086,-0.00262642,-0.0111964,0.00140797,-0.00150984,0,0,0,0,0,0,0,-0.0440639,-37.2676,0.0366345,27.0541,0.697323,3.14568,0.0577852,
-0.00787577,0.0567065,0.0219937,-1.84681,-0.0106674,0.333947,0.0349752,0.000326064,0.0168779,0.00021858,-0.0210234,-0.00341537,0.0375897,-0.000264113,-0.0118049,-2.32416,-0.000499466,3.12087,0.378885,-6.07309,0.036908,0.0437283,27.2355,-0.0594197,-24.0362,-0.545054,1.5125,-0.0218923,-0.00789383,0.0566134,0.0219777,-1.84676,-0.0105693,0.333977,0.0349779,0.00153951,0.00509332,0.00162086,-0.00262642,-0.0111964,0.00140797,-0.00150984,0,0,0,0,0,0,0,-0.0440639,-37.2676,0.0366345,27.0541,0.697323,3.14568,0.0577852,
-0.00787444,0.0567195,0.0219948,-1.84682,-0.0106717,0.333938,0.0349751,0.000294,0.013827,0.000202482,-0.0169873,-0.00283995,0.0298379,-0.000214862,-0.0200398,-1.90677,-0.0100614,2.52257,0.359636,-4.84491,0.0307815,0.0377531,27.7594,-0.0688671,-23.8684,-0.543016,1.12704,-0.0198922,-0.00789383,0.0566134,0.0219777,-1.84676,-0.0105693,0.333977,0.0349779,0.00153951,0.00509332,0.00162086,-0.00262642,-0.0111964,0.00140797,-0.00150984,0,0,0,0,0,0,0,-0.0440639,-37.2676,0.0366345,27.0541,0.697323,3.14568,0.0577852,
-0.00805492,0.0566727,0.0218046,-1.84663,-0.00345441,0.329626,0.03494,-0.000334829,0.0109948,-0.000389794,-0.0132732,0.0426253,-0.00437276,-0.000221903,-0.393019,-1.77016,-0.370173,2.32132,28.4158,-21.3817,-0.00440017,0.495738,0.157552,0.49424,-0.241559,2.61487,-1.73041,-0.00190643,-0.00789383,0.0566134,0.0219777,-1.84676,-0.0105693,0.333977,0.0349779,0.00153951,0.00509332,0.00162086,-0.00262642,-0.0111964,0.00140797,-0.00150984,0,0,0,0,0,0,0,-0.0440639,-37.2676,0.0366345,27.0541,0.697323,3.14568,0.0577852,
-0.00806775,0.0566694,0.0217926,-1.84662,-0.0016126,0.328448,0.0349386,-0.000588509,0.0087124,-0.00061092,-0.010466,0.0801455,-0.0329502,-0.000211331,-0.158549,-1.42648,-0.138203,1.75449,23.4501,-17.8609,0.00660721,0.488958,0.179687,0.48663,-0.229719,2.59095,-1.71107,-0.00189364,-0.00790637,0.0571718,0.0219569,-1.84742,-0.0105297,0.335166,0.0349766,-5.83508e-05,0.0709086,-0.00091324,-0.0802564,-0.00396195,0.15568,-0.000408294,-0.199732,8.22691,-0.316763,-9.70375,0.90431,19.284,0.137693,0.134464,-25.4372,0.26277,15.1443,0.159909,2.3034,0.0376436,
-0.00807142,0.0566667,0.0217897,-1.84662,0.00025105,0.327241,0.0349376,-0.00056247,0.00690312,-0.000559904,-0.00835278,0.110708,-0.0565474,-0.000194911,0.016274,-1.1308,0.031885,1.32076,19.1014,-14.7483,0.0102628,0.483591,0.177911,0.481332,-0.227423,2.56664,-1.69625,-0.00185802,-0.00790637,0.0571718,0.0219569,-1.84742,-0.0105297,0.335166,0.0349766,-5.83508e-05,0.0709086,-0.00091324,-0.0802564,-0.00396195,0.15568,-0.000408294,0,0,0,0,0,0,0,0.134464,-25.4372,0.26277,15.1443,0.159909,2.3034,0.0376436,
-0.00806711,0.0566653,0.0217947,-1.84662,0.00212186,0.326017,0.0349367,-0.000342393,0.00548884,-0.000322828,-0.0067676,0.135336,-0.0758334,-0.000178207,0.137548,-0.883929,0.148172,0.990736,15.3929,-12.0537,0.0104396,0.478237,0.176175,0.476045,-0.225133,2.54234,-1.68136,-0.00182316,-0.00790637,0.0571718,0.0219569,-1.84742,-0.0105297,0.335166,0.0349766,-5.83508e-05,0.0709086,-0.00091324,-0.0802564,-0.00396195,0.15568,-0.000408294,0,0,0,0,0,0,0,0.134464,-25.4372,0.26277,15.1443,0.159909,2.3034,0.0376436,
-0.00834788,0.0586225,0.0214642,-1.84792,0.0184816,0.322126,0.0348606,-0.000629879,0.00761812,-0.00061547,-0.00776996,0.287675,-0.149751,-0.000222322,-0.179679,1.33081,-0.182901,-0.626476,95.2115,-46.1984,-0.0275721,3.70808,0.228988,3.66714,-1.2799,10.9607,-5.57105,-0.00201527,-0.00790637,0.0571718,0.0219569,-1.84742,-0.0105297,0.335166,0.0349766,-5.83508e-05,0.0709086,-0.00091324,-0.0802564,-0.00396195,0.15568,-0.000408294,0,0,0,0,0,0,0,0.134464,-25.4372,0.26277,15.1443,0.159909,2.3034,0.0376436,
-0.00831309,0.0587183,0.0214996,-1.84802,0.0257755,0.318438,0.0348595,0.00036591,0.00849024,0.00039238,-0.00879906,0.412487,-0.212004,-0.000203588,0.622368,0.545073,0.629906,-0.643184,78.008,-38.9083,0.0117089,3.59776,0.350212,3.55369,-1.24875,10.7246,-5.41067,-0.00253744,-0.00789035,0.0615058,0.02199,-1.85294,-0.00883219,0.340657,0.0349838,-0.000615293,0.0575223,0.0031555,-0.134519,0.199008,-0.105057,0.000117775,-0.0696178,-1.67329,0.508592,-6.78287,25.3712,-32.5922,0.0657586,0.0828892,-31.9237,0.163588,30.1407,1.82068,2.59545,0.00376909,
-0.00823475,0.0587928,0.0215783,-1.84813,0.0330872,0.3147,0.0348594,0.00225133,0.00865461,0.00228204,-0.00978513,0.512783,-0.263053,-0.000165885,1.17838,0.102732,1.18104,-0.616291,62.685,-31.9058,0.0235646,3.50326,0.319652,3.47835,-1.23635,10.4807,-5.27749,-0.00150555,-0.00789035,0.0615058,0.02199,-1.85294,-0.00883219,0.340657,0.0349838,-0.000615293,0.0575223,0.0031555,-0.134519,0.199008,-0.105057,0.000117775,0,0,0,0,0,0,0,0.0828892,-31.9237,0.163588,30.1407,1.82068,2.59545,0.00376909,
-0.00811938,0.0588536,0.0216935,-1.84824,0.0403559,0.310961,0.0348596,0.00468531,0.00844245,0.0047056,-0.0106801,0.591943,-0.303906,-0.000129289,1.52124,-0.132604,1.51472,-0.559372,49.475,-25.5327,0.0228724,3.43252,0.351034,3.34681,-1.18536,10.2942,-5.15615,-0.0032471,-0.00789035,0.0615058,0.02199,-1.85294,-0.00883219,0.340657,0.0349838,-0.000615293,0.0575223,0.0031555,-0.134519,0.199008,-0.105057,0.000117775,0,0,0,0,0,0,0,0.0828892,-31.9237,0.163588,30.1407,1.82068,2.59545,0.00376909,
-0.00500635,0.0614053,0.0247342,-1.85498,0.020579,0.301701,0.0354701,0.0231998,0.000604066,0.0222136,-0.0208513,0.660268,-0.484448,0.000224372,11.5716,-4.89899,10.9425,-6.357,42.7032,-112.839,0.221038,22.9679,-1.31416,22.5844,-5.70621,11.0583,-14.1114,0.257732,-0.00789035,0.0615058,0.02199,-1.85294,-0.00883219,0.340657,0.0349838,-0.000615293,0.0575223,0.0031555,-0.134519,0.199008,-0.105057,0.000117775,0,0,0,0,0,0,0,0.0828892,-31.9237,0.163588,30.1407,1.82068,2.59545,0.00376909,
-0.00417544,0.0611695,0.025527,-1.85551,0.0283938,0.292001,0.0354815,0.0393326,-0.00541378,0.0375897,-0.0300092,0.723585,-0.630057,0.000465455,10.083,-3.76116,9.61006,-5.72371,39.5726,-91.006,0.150677,20.0195,-4.99204,19.5981,-8.50221,10.9324,-14.1421,0.250518,-0.00801778,0.0644989,0.0218781,-1.85411,0.00594367,0.330247,0.0349673,-0.00999037,0.165926,-0.011894,-0.012993,1.11019,-0.457864,-0.00169125,-1.17188,13.5505,-1.88119,15.1908,113.898,-44.1008,-0.226128,4.89917,-46.8486,4.93623,25.5823,3.72039,0.0695097,0.110886,
-0.00330423,0.0609615,0.0263616,-1.85608,0.0364471,0.282495,0.0354938,0.0532464,-0.00953074,0.0509376,-0.038284,0.780198,-0.741684,0.000680984,8.69612,-2.5731,8.3424,-5.17171,35.3837,-69.7669,0.134706,17.0623,-5.04331,16.4502,-9.02405,10.9324,-14.1421,0.0939364,-0.00801778,0.0644989,0.0218781,-1.85411,0.00594367,0.330247,0.0349673,-0.00999037,0.165926,-0.011894,-0.012993,1.11019,-0.457864,-0.00169125,0,0,0,0,0,0,0,4.89917,-46.8486,4.93623,25.5823,3.72039,0.0695097,0.110886,
-0.0040882,0.0655334,0.025887,-1.85833,0.0449151,0.291173,0.0349902,0.0700463,-0.0089325,0.0680221,-0.056928,0.822125,-0.807328,0.000231361,10.5,0.373901,10.6779,-11.6525,26.2041,-41.0273,-0.281015,22.7614,-1.49851,22.601,-14.196,10.9324,-14.1421,0.00149964,-0.00801778,0.0644989,0.0218781,-1.85411,0.00594367,0.330247,0.0349673,-0.00999037,0.165926,-0.011894,-0.012993,1.11019,-0.457864,-0.00169125,0,0,0,0,0,0,0,4.89917,-46.8486,4.93623,25.5823,3.72039,0.0695097,0.110886,
-0.00292208,0.0654524,0.0270414,-1.85945,0.052981,0.283013,0.0349769,0.08519,-0.00917237,0.0832796,-0.0733759,0.859349,-0.849858,-0.000147157,9.46476,-0.149917,9.5359,-10.2799,23.2647,-26.5812,-0.236574,21.4804,-1.28646,21.2883,-13.6952,10.9324,-14.1421,-0.0131026,-0.00801778,0.0644989,0.0218781,-1.85411,0.00594367,0.330247,0.0349673,-0.00999037,0.165926,-0.011894,-0.012993,1.11019,-0.457864,-0.00169125,0,0,0,0,0,0,0,4.89917,-46.8486,4.93623,25.5823,3.72039,0.0695097,0.110886,
-0.00171048,0.0653589,0.0282382,-1.8606,0.0611743,0.275393,0.0349655,0.098442,-0.00967426,0.0965433,-0.0875084,0.89231,-0.87038,-0.000402363,8.2825,-0.313681,8.28986,-8.83283,20.601,-12.8265,-0.159504,20.1457,-0.927604,19.9176,-13.5125,10.7152,-13.3422,-0.0164818,-0.00744511,0.0667733,0.0230473,-1.85527,0.04287,0.303083,0.0349951,0.0860416,-0.0624598,0.126131,-0.0605712,1.27902,-1.36585,-0.000893138,12.004,-28.5482,17.2531,-5.94728,21.1041,-113.498,0.0997639,20.3438,-41.0365,19.4605,14.3231,3.21319,-5.67909,0.11821,
-0.000470312,0.065261,0.0294614,-1.86177,0.0694708,0.268386,0.0349563,0.109758,-0.0101872,0.107813,-0.0993271,0.921263,-0.871491,-0.000551782,7.0724,-0.320585,7.04353,-7.38664,18.0953,-0.694386,-0.0933865,19.2444,-1.18037,19.0054,-13.2765,10.7152,-11.9044,-0.0207825,-0.00744511,0.0667733,0.0230473,-1.85527,0.04287,0.303083,0.0349951,0.0860416,-0.0624598,0.126131,-0.0605712,1.27902,-1.36585,-0.000893138,0,0,0,0,0,0,0,20.3438,-41.0365,19.4605,14.3231,3.21319,-5.67909,0.11821,
-0.000751672,0.0649637,0.0296268,-1.8609,0.0864165,0.256559,0.0348983,0.124706,-0.0135373,0.12229,-0.111895,0.949418,-0.894344,-0.00109653,9.34245,-2.0938,9.04824,-7.85471,17.5974,-14.2829,-0.340468,22.9235,-0.513424,22.3233,-16.3823,10.7152,-13.9038,-0.0398035,-0.00744511,0.0667733,0.0230473,-1.85527,0.04287,0.303083,0.0349951,0.0860416,-0.0624598,0.126131,-0.0605712,1.27902,-1.36585,-0.000893138,0,0,0,0,0,0,0,20.3438,-41.0365,19.4605,14.3231,3.21319,-5.67909,0.11821,
0.000737523,0.0648021,0.0310801,-1.86222,0.0949304,0.249441,0.0348749,0.136994,-0.0148705,0.134164,-0.122598,0.972381,-0.89344,-0.00146139,7.68045,-0.833302,7.42135,-6.68961,14.3516,0.564999,-0.228038,21.7624,-0.588763,21.2092,-16.0627,10.7152,-12.2692,-0.045241,-0.00744511,0.0667733,0.0230473,-1.85527,0.04287,0.303083,0.0349951,0.0860416,-0.0624598,0.126131,-0.0605712,1.27902,-1.36585,-0.000893138,0,0,0,0,0,0,0,20.3438,-41.0365,19.4605,14.3231,3.21319,-5.67909,0.11821,
0.00222693,0.0646834,0.0325328,-1.86356,0.103465,0.243069,0.034857,0.146831,-0.0148648,0.143649,-0.131388,0.991279,-0.874038,-0.00161706,6.14771,0.00359535,5.92806,-5.49385,11.8114,12.1263,-0.0972954,20.8911,-0.552061,20.3552,-15.7792,10.6075,-10.4768,-0.0448219,-0.00361564,0.0663931,0.0266875,-1.86087,0.0838412,0.251717,0.0349951,0.178184,0.0105066,0.102816,-0.236981,1.25899,-1.57689,0.00134882,11.5178,9.1208,-2.91437,-22.0512,-2.50386,-26.3801,0.280245,16.2099,-34.6968,15.636,25.6577,3.28094,-0.872568,-0.00996382,
0.00370738,0.0645982,0.0339762,-1.86489,0.112018,0.23741,0.0348444,0.154476,-0.0140216,0.151004,-0.138323,1.00683,-0.840716,-0.00160775,4.77816,0.526988,4.59683,-4.33423,9.71923,20.8261,0.00581982,20.0414,-0.661597,19.5327,-15.5461,10.6075,-9.16381,-0.0423515,-0.00361564,0.0663931,0.0266875,-1.86087,0.0838412,0.251717,0.0349951,0.178184,0.0105066,0.102816,-0.236981,1.25899,-1.57689,0.00134882,0,0,0,0,0,0,0,16.2099,-34.6968,15.636,25.6577,3.28094,-0.872568,-0.00996382,
0.00387297,0.0667746,0.0340391,-1.87087,0.127185,0.210173,0.0348077,0.163069,-0.00980241,0.159424,-0.159278,1.01639,-0.822304,-0.00215098,5.37065,2.637,5.26241,-13.097,5.9772,11.5074,-0.339514,22.5316,-0.514561,21.9985,-20.5138,10.6075,-9.33192,-0.0730127,-0.00361564,0.0663931,0.0266875,-1.86087,0.0838412,0.251717,0.0349951,0.178184,0.0105066,0.102816,-0.236981,1.25899,-1.57689,0.00134882,0,0,0,0,0,0,0,16.2099,-34.6968,15.636,25.6577,3.28094,-0.872568,-0.00996382,
0.00544942,0.0668119,0.0355798,-1.87276,0.13562,0.205111,0.0347809,0.169866,-0.0069088,0.166058,-0.174805,1.024,-0.784389,-0.00239236,4.24848,1.80851,4.14595,-9.70459,4.75615,23.6974,-0.150866,21.5001,-1.08626,21.0057,-20.3387,10.6075,-7.91572,-0.0717821,-0.00361564,0.0663931,0.0266875,-1.86087,0.0838412,0.251717,0.0349951,0.178184,0.0105066,0.102816,-0.236981,1.25899,-1.57689,0.00134882,0,0,0,0,0,0,0,16.2099,-34.6968,15.636,25.6577,3.28094,-0.872568,-0.00996382,
0.00701262,0.066829,0.0371069,-1.8746,0.144062,0.200881,0.0347646,0.174973,-0.00509988,0.171024,-0.1859,1.03025,-0.733272,-0.00232167,3.19167,1.13058,3.10378,-6.93392,3.9039,31.9478,0.0441797,20.9671,-1.93076,20.4813,-19.5827,10.6127,-6.19183,-0.0669051,0.00437497,0.0639538,0.0342805,-1.87027,0.128369,0.198734,0.0349821,0.287171,-0.00801674,0.259281,-0.258023,1.30284,-1.38682,-0.00225153,13.6235,-2.31542,19.5582,-2.63024,5.48128,23.7586,-0.450045,7.05738,-32.1498,7.13807,22.5433,3.05481,0.593191,0.0641939,
0.00855496,0.0668261,0.0386132,-1.87639,0.152512,0.19739,0.0347556,0.178537,-0.00415243,0.174475,-0.193403,1.03544,-0.673884,-0.00208055,2.22745,0.592152,2.15717,-4.68936,3.24452,37.1177,0.150704,20.2103,-2.19851,19.7487,-19.3597,10.6127,-5.08148,-0.0584153,0.00437497,0.0639538,0.0342805,-1.87027,0.128369,0.198734,0.0349821,0.287171,-0.00801674,0.259281,-0.258023,1.30284,-1.38682,-0.00225153,0,0,0,0,0,0,0,7.05738,-32.1498,7.13807,22.5433,3.05481,0.593191,0.0641939,
0.0145092,0.0632726,0.0441794,-1.8823,0.175148,0.176423,0.0347506,0.189859,-0.00575516,0.185462,-0.210304,1.05191,-0.585051,-0.00238282,7.07593,-1.0017,6.86652,-10.5633,10.2923,55.5207,-0.188921,21.5958,-4.64294,21.0625,-24.1806,10.6127,-1.87068,-0.0839357,0.00437497,0.0639538,0.0342805,-1.87027,0.128369,0.198734,0.0349821,0.287171,-0.00801674,0.259281,-0.258023,1.30284,-1.38682,-0.00225153,0,0,0,0,0,0,0,7.05738,-32.1498,7.13807,22.5433,3.05481,0.593191,0.0641939,
0.0163186,0.0631773,0.0459443,-1.88443,0.18398,0.175406,0.0347316,0.197122,-0.0069872,0.192491,-0.22146,1.06234,-0.493464,-0.00238182,4.53965,-0.770026,4.39339,-6.97284,6.51683,57.2418,0.000624025,20.7732,-4.39341,20.2745,-23.8339,10.6127,-0.935109,-0.0727754,0.00437497,0.0639538,0.0342805,-1.87027,0.128369,0.198734,0.0349821,0.287171,-0.00801674,0.259281,-0.258023,1.30284,-1.38682,-0.00225153,0,0,0,0,0,0,0,7.05738,-32.1498,7.13807,22.5433,3.05481,0.593191,0.0641939,
0.0180606,0.0630807,0.0476432,-1.88648,0.192724,0.175061,0.0347234,0.201247,-0.00800501,0.196464,-0.228236,1.06845,-0.403383,-0.00210915,2.57796,-0.636133,2.48323,-4.2348,3.82388,56.3002,0.170424,20.3331,-4.5055,19.8307,-22.9294,10.5623,0.262531,-0.0602385,0.0151651,0.0620018,0.0461078,-1.8842,0.17576,0.15874,0.0349786,0.276558,-0.059369,0.444551,-0.445793,1.36369,-1.00474,-0.00250329,-1.32668,-6.41903,23.1588,-23.4713,7.60538,47.7602,-0.0314694,6.1687,-36.0179,5.88838,25.0586,3.11615,3.03948,0.050461,
0.0266502,0.0619922,0.0573186,-1.89636,0.22445,0.144509,0.0349209,0.210358,-0.00579929,0.205259,-0.23502,1.0847,-0.334635,-0.00146629,5.69479,1.37857,5.49677,-4.24013,10.1518,42.968,0.401783,19.079,-3.79318,18.6217,-22.1988,10.5623,1.45834,-0.0326255,0.0151651,0.0620018,0.0461078,-1.8842,0.17576,0.15874,0.0349786,0.276558,-0.059369,0.444551,-0.445793,1.36369,-1.00474,-0.00250329,0,0,0,0,0,0,0,6.1687,-36.0179,5.88838,25.0586,3.11615,3.03948,0.050461,
0.0285042,0.0619979,0.0591245,-1.89835,0.233463,0.144724,0.0349406,0.214635,-0.00449557,0.209354,-0.237742,1.09308,-0.262333,-0.000680757,2.67295,0.814827,2.55919,-1.70133,5.23903,45.1883,0.49096,18.5447,-3.42433,18.1055,-21.8295,10.5623,1.90097,-0.0193345,0.0151651,0.0620018,0.0461078,-1.8842,0.17576,0.15874,0.0349786,0.276558,-0.059369,0.444551,-0.445793,1.36369,-1.00474,-0.00250329,0,0,0,0,0,0,0,6.1687,-36.0179,5.88838,25.0586,3.11615,3.03948,0.050461,
0.0302534,0.0619845,0.0608282,-1.90024,0.242322,0.145487,0.034972,0.21544,-0.00393135,0.210076,-0.237621,1.09593,-0.19079,0.000239795,0.502972,0.352634,0.451593,0.0757513,1.78278,44.7145,0.575345,18.0613,-3.06617,17.6381,-21.4647,10.5623,2.26969,-0.00500921,0.0151651,0.0620018,0.0461078,-1.8842,0.17576,0.15874,0.0349786,0.276558,-0.059369,0.444551,-0.445793,1.36369,-1.00474,-0.00250329,0,0,0,0,0,0,0,6.1687,-36.0179,5.88838,25.0586,3.11615,3.03948,0.050461,
0.0319109,0.0619536,0.0624424,-1.90206,0.251052,0.146687,0.035017,0.213787,-0.00391709,0.208415,-0.235552,1.09501,-0.122633,0.00131725,-1.0329,0.00891321,-1.03841,1.29306,-0.578141,42.5985,0.67341,17.6137,-2.73038,17.205,-21.1074,10.5623,2.56594,0.00831068,0.0151651,0.0620018,0.0461078,-1.8842,0.17576,0.15874,0.0349786,0.276558,-0.059369,0.444551,-0.445793,1.36369,-1.00474,-0.00250329,0,0,0,0,0,0,0,6.1687,-36.0179,5.88838,25.0586,3.11615,3.03948,0.050461,
0.0407134,0.062342,0.0722284,-1.91577,0.277389,0.132999,0.0351156,0.221769,0.00148563,0.216079,-0.238193,1.1102,-0.0870278,0.00230738,4.98867,3.3767,4.79023,-1.65026,9.49878,22.253,0.618831,17.3679,-2.77763,16.9359,-20.2708,10.4471,3.13784,0.0159206,0.0282579,0.0608972,0.0600851,-1.90363,0.226506,0.139238,0.0349807,0.291492,-0.048078,0.552658,-0.627645,1.54592,-0.407564,0.000530023,1.86678,1.41137,13.5134,-22.7315,22.7789,74.6466,0.379164,4.03827,-37.7159,4.11104,30.4382,2.42584,4.432,-0.00996382,
0.0425767,0.0624694,0.0740418,-1.91765,0.286507,0.133968,0.0351736,0.223998,0.00437349,0.218198,-0.237474,1.11609,-0.0453874,0.00329543,1.39314,1.80491,1.32425,0.448936,3.68164,26.0253,0.617532,16.9662,-2.48967,16.5471,-19.9334,10.4471,3.34147,0.029062,0.0282579,0.0608972,0.0600851,-1.90363,0.226506,0.139238,0.0349807,0.291492,-0.048078,0.552658,-0.627645,1.54592,-0.407564,0.000530023,0,0,0,0,0,0,0,4.03827,-37.7159,4.11104,30.4382,2.42584,4.432,-0.00996382,
0.0442967,0.0625517,0.0757155,-1.91943,0.295421,0.13534,0.0352333,0.222199,0.00555568,0.216402,-0.234478,1.11575,-0.00201455,0.00413015,-1.12472,0.738868,-1.12267,1.87301,-0.218373,27.108,0.521701,16.5723,-2.22263,16.1659,-19.6078,10.4471,3.52285,0.0432234,0.0282579,0.0608972,0.0600851,-1.90363,0.226506,0.139238,0.0349807,0.291492,-0.048078,0.552658,-0.627645,1.54592,-0.407564,0.000530023,0,0,0,0,0,0,0,4.03827,-37.7159,4.11104,30.4382,2.42584,4.432,-0.00996382,
0.040376,0.0626722,0.0718987,-1.91534,0.276906,0.133732,0.0352569,0.226478,0.0109122,0.220464,-0.234102,1.11172,0.0122551,0.00480672,2.67437,3.3478,2.53892,0.234508,-2.51299,8.91855,0.422854,15.6784,-1.73858,15.3044,-18.9995,10.4471,3.78763,0.0734955,0.0282579,0.0608972,0.0600851,-1.90363,0.226506,0.139238,0.0349807,0.291492,-0.048078,0.552658,-0.627645,1.54592,-0.407564,0.000530023,0,0,0,0,0,0,0,4.03827,-37.7159,4.11104,30.4382,2.42584,4.432,-0.00996382,
0.04218,0.0628657,0.0736526,-1.91706,0.284678,0.134769,0.0353185,0.226282,0.0135673,0.220218,-0.230291,1.08368,0.0357412,0.00538539,-0.121998,1.65946,-0.153587,2.38244,-17.5285,14.6788,0.361672,15.0542,-1.81602,14.6767,-18.388,10.2364,4.06607,0.0782301,0.0433523,0.0610998,0.0754921,-1.92308,0.281283,0.13385,0.0349707,0.320557,0.0599088,0.607006,-0.490739,1.64939,-0.00238516,-0.00365461,3.63306,13.4984,6.79344,17.1132,12.9335,50.6473,-0.523079,0.487552,-36.0179,0.338148,26.705,1.49109,4.02733,0.124619,
0.0438651,0.0630019,0.0752912,-1.91867,0.291433,0.136175,0.03538,0.223152,0.014258,0.21714,-0.224359,1.03584,0.0637426,0.00584555,-1.9563,0.431682,-1.92363,3.70704,-29.9022,17.5009,0.287601,14.4882,-1.54605,14.1287,-18.0926,10.2364,4.09354,0.0789817,0.0433523,0.0610998,0.0754921,-1.92308,0.281283,0.13385,0.0349707,0.320557,0.0599088,0.607006,-0.490739,1.64939,-0.00238516,-0.00365461,0,0,0,0,0,0,0,0.487552,-36.0179,0.338148,26.705,1.49109,4.02733,0.124619,
0.0454504,0.0630898,0.0768331,-1.92018,0.297199,0.13786,0.0354423,0.218156,0.0136029,0.21226,-0.21724,0.972821,0.0931103,0.00623515,-3.12284,-0.409441,-3.05031,4.44927,-39.3839,18.3549,0.243494,14.0263,-1.26196,13.5902,-17.7815,9.78078,4.10745,0.0785872,0.0433523,0.0610998,0.0754921,-1.92308,0.281283,0.13385,0.0349707,0.320557,0.0599088,0.607006,-0.490739,1.64939,-0.00238516,-0.00365461,0,0,0,0,0,0,0,0.487552,-36.0179,0.338148,26.705,1.49109,4.02733,0.124619,
0.0561835,0.0634974,0.0879827,-1.93296,0.323438,0.135554,0.035221,0.225027,0.0168421,0.218864,-0.213631,0.922699,0.103309,0.00636532,4.29446,2.02453,4.12728,2.25584,-31.3266,6.37433,0.0813572,13.612,-0.977831,13.1487,-17.4571,8.17624,4.12084,0.0772161,0.0433523,0.0610998,0.0754921,-1.92308,0.281283,0.13385,0.0349707,0.320557,0.0599088,0.607006,-0.490739,1.64939,-0.00238516,-0.00365461,0,0,0,0,0,0,0,0.487552,-36.0179,0.338148,26.705,1.49109,4.02733,0.124619,
0.0580246,0.063655,0.0897709,-1.93446,0.32815,0.136997,0.0352793,0.22605,0.0174144,0.219798,-0.208257,0.85595,0.118703,0.00654919,0.639305,0.35765,0.583759,3.35864,-41.7179,9.62117,0.114919,13.224,-1.03228,12.709,-16.9295,6.62801,4.18412,0.0751508,0.0592234,0.0623799,0.0912223,-1.94059,0.334053,0.136407,0.0349934,0.281241,0.0285019,0.656129,-0.472388,1.47734,0.143355,-0.00141448,-4.91448,-3.92586,6.14039,2.29394,-21.5059,18.2175,0.280016,-3.36865,-40.612,-3.21257,26.4313,0.562741,3.55675,0.0907442,
0.0597182,0.0637507,0.0914157,-1.93587,0.331923,0.138671,0.0353399,0.223178,0.0163242,0.216957,-0.20195,0.779091,0.136834,0.00675568,-1.79455,-0.681354,-1.7755,3.94201,-48.0371,11.332,0.129058,12.9499,-0.808602,12.4405,-16.6007,5.43302,4.15436,0.0727569,0.0592234,0.0623799,0.0912223,-1.94059,0.334053,0.136407,0.0349934,0.281241,0.0285019,0.656129,-0.472388,1.47734,0.143355,-0.00141448,0,0,0,0,0,0,0,-3.36865,-40.612,-3.21257,26.4313,0.562741,3.55675,0.0907442,
0.0612895,0.0637995,0.0929416,-1.93722,0.334874,0.140529,0.0354034,0.217826,0.0142776,0.211712,-0.195251,0.697034,0.155903,0.00699038,-3.34515,-1.27912,-3.27771,4.18678,-51.2852,11.9181,0.146689,12.7497,-0.628843,12.2504,-16.2765,4.36385,4.11332,0.0724374,0.0592234,0.0623799,0.0912223,-1.94059,0.334053,0.136407,0.0349934,0.281241,0.0285019,0.656129,-0.472388,1.47734,0.143355,-0.00141448,0,0,0,0,0,0,0,-3.36865,-40.612,-3.21257,26.4313,0.562741,3.55675,0.0907442,
0.0720654,0.0641213,0.103737,-1.94923,0.363369,0.139717,0.0352574,0.224059,0.0149748,0.217707,-0.191554,0.639332,0.15613,0.00705444,3.89561,0.435711,3.74686,2.31079,-36.064,0.14162,0.0400341,12.6058,-0.490045,12.1192,-15.9607,3.43564,4.07669,0.0721834,0.0592234,0.0623799,0.0912223,-1.94059,0.334053,0.136407,0.0349934,0.281241,0.0285019,0.656129,-0.472388,1.47734,0.143355,-0.00141448,0,0,0,0,0,0,0,-3.36865,-40.612,-3.21257,26.4313,0.562741,3.55675,0.0907442,
0.073867,0.0641992,0.105485,-1.95057,0.365777,0.141212,0.0353194,0.224287,0.013929,0.217867,-0.186787,0.571672,0.162266,0.0071917,0.142621,-0.653613,0.0994573,2.97929,-42.2876,3.83498,0.0857873,12.3996,-0.788643,11.8896,-15.5346,2.45934,3.98978,0.0755203,0.0761857,0.0633888,0.105012,-1.95616,0.375656,0.146527,0.0350178,0.326777,-0.0252497,0.548679,-0.47897,0.974506,0.374928,0.000439593,5.69205,-6.71895,-13.4312,-0.822816,-62.8542,28.9467,0.231759,-4.78894,-35.8434,-3.73625,26.3043,-0.371097,1.68084,0.0303194,
0.0755124,0.0642302,0.107081,-1.95186,0.367475,0.142899,0.0353837,0.220564,0.0119174,0.214188,-0.181491,0.499779,0.172001,0.00736206,-2.32698,-1.25727,-2.29905,3.31015,-44.933,6.08462,0.106476,12.3239,-0.718578,11.828,-15.2342,1.75496,3.94931,0.076541,0.0761857,0.0633888,0.105012,-1.95616,0.375656,0.146527,0.0350178,0.326777,-0.0252497,0.548679,-0.47897,0.974506,0.374928,0.000439593,0,0,0,0,0,0,0,-4.78894,-35.8434,-3.73625,26.3043,-0.371097,1.68084,0.0303194,
0.0880282,0.0644142,0.116516,-1.96389,0.3914,0.152482,0.0353115,0.222044,0.0111225,0.21553,-0.17702,0.433444,0.173503,0.00745208,0.924596,-0.49677,0.83873,2.79443,-41.4592,0.93885,0.0562644,12.212,-0.649929,11.7433,-14.6524,0.623066,3.85647,0.0799138,0.0761857,0.0633888,0.105012,-1.95616,0.375656,0.146527,0.0350178,0.326777,-0.0252497,0.548679,-0.47897,0.974506,0.374928,0.000439593,0,0,0,0,0,0,0,-4.78894,-35.8434,-3.73625,26.3043,-0.371097,1.68084,0.0303194,
0.0896779,0.0644317,0.118113,-1.96511,0.392185,0.154075,0.0353765,0.218878,0.00933462,0.212372,-0.172087,0.366369,0.178628,0.00758704,-1.97842,-1.11744,-1.97371,3.08313,-41.9219,3.20318,0.0843498,12.1604,-0.640657,11.7045,-14.3693,0.179956,3.8045,0.0818266,0.0761857,0.0633888,0.105012,-1.95616,0.375656,0.146527,0.0350178,0.326777,-0.0252497,0.548679,-0.47897,0.974506,0.374928,0.000439593,0,0,0,0,0,0,0,-4.78894,-35.8434,-3.73625,26.3043,-0.371097,1.68084,0.0303194,
0.091186,0.0644165,0.119574,-1.96628,0.39252,0.155799,0.035443,0.212805,0.00708753,0.206399,-0.166993,0.301481,0.18601,0.00773359,-3.79591,-1.40443,-3.73331,3.18339,-40.5549,4.61382,0.0915919,11.8207,-0.796776,11.3447,-14.1214,-0.308078,3.68764,0.0851286,0.0916542,0.0651095,0.119493,-1.96901,0.400043,0.162965,0.0350314,0.6186,0.113996,0.20269,-0.309046,0.529538,0.489034,0.000209649,36.4779,17.4058,-43.2487,21.2405,-55.621,14.2632,-0.028743,-6.08227,-38.065,-5.03752,25.9314,-0.407718,0.73876,0.0376436,
0.0925781,0.0643783,0.120921,-1.96742,0.392496,0.157628,0.0355108,0.205046,0.00471534,0.198796,-0.161916,0.240585,0.19452,0.00788124,-4.84946,-1.48262,-4.7517,3.17364,-38.0602,5.31842,0.0922797,11.7574,-0.805156,11.2933,-13.846,-0.612103,3.63175,0.0865187,0.0916542,0.0651095,0.119493,-1.96901,0.400043,0.162965,0.0350314,0.6186,0.113996,0.20269,-0.309046,0.529538,0.489034,0.000209649,0,0,0,0,0,0,0,-6.08227,-38.065,-5.03752,25.9314,-0.407718,0.73876,0.0376436,
0.102549,0.0672432,0.129967,-1.97605,0.406722,0.172105,0.0353186,0.205375,0.00744149,0.198927,-0.159852,0.197639,0.195593,0.0078832,0.205951,1.70384,0.0818586,1.28994,-26.8411,0.670586,0.001226,11.684,-0.817355,11.2314,-13.5737,-0.851802,3.57781,0.0871401,0.0916542,0.0651095,0.119493,-1.96901,0.400043,0.162965,0.0350314,0.6186,0.113996,0.20269,-0.309046,0.529538,0.489034,0.000209649,0,0,0,0,0,0,0,-6.08227,-38.065,-5.03752,25.9314,-0.407718,0.73876,0.0376436,
0.104045,0.0673226,0.131411,-1.97721,0.40659,0.173749,0.0353833,0.201708,0.00793929,0.195225,-0.156837,0.154797,0.197572,0.00792596,-2.29192,0.311126,-2.31354,1.88417,-26.7763,1.23691,0.0267229,11.6006,-0.831957,11.1586,-13.3031,-1.04882,3.51908,0.0878778,0.0916542,0.0651095,0.119493,-1.96901,0.400043,0.162965,0.0350314,0.6186,0.113996,0.20269,-0.309046,0.529538,0.489034,0.000209649,0,0,0,0,0,0,0,-6.08227,-38.065,-5.03752,25.9314,-0.407718,0.73876,0.0376436,
0.105415,0.067355,0.132731,-1.97832,0.406193,0.175448,0.0354488,0.195613,0.00716021,0.189199,-0.153241,0.113937,0.200529,0.00797823,-3.80915,-0.486926,-3.76643,2.2472,-25.5375,1.84818,0.0326721,11.5254,-0.982002,11.0463,-13.1623,-1.23878,3.35409,0.0898404,0.101134,0.0663115,0.137912,-1.9799,0.410296,0.180285,0.0350346,0.471981,0.0634838,0.282857,-0.286324,0.13752,0.450382,-0.00240193,-18.3274,-6.31407,10.0209,2.84032,-49.0022,-4.83152,-0.326448,-5.11822,-38.438,-5.41045,23.5391,0.459286,0.447622,0.11821,
0.106682,0.0673543,0.133952,-1.97939,0.405595,0.177199,0.0355146,0.188169,0.00571079,0.181885,-0.149315,0.0761756,0.204199,0.00802772,-4.65272,-0.905886,-4.57136,2.45417,-23.6011,2.29342,0.0309332,11.4195,-0.996013,10.95,-12.8946,-1.35645,3.29376,0.0899165,0.101134,0.0663115,0.137912,-1.9799,0.410296,0.180285,0.0350346,0.471981,0.0634838,0.282857,-0.286324,0.13752,0.450382,-0.00240193,0,0,0,0,0,0,0,-5.11822,-38.438,-5.41045,23.5391,0.459286,0.447622,0.11821,
0.11098,0.0676762,0.147357,-1.98639,0.410577,0.18859,0.0353072,0.187893,0.00665753,0.181436,-0.147394,0.0507403,0.200011,0.00792871,-0.172409,0.591714,-0.28063,1.20032,-15.897,-2.61731,-0.0618854,11.3021,-1.00794,10.8419,-12.628,-1.43897,3.23561,0.0894174,0.101134,0.0663115,0.137912,-1.9799,0.410296,0.180285,0.0350346,0.471981,0.0634838,0.282857,-0.286324,0.13752,0.450382,-0.00240193,0,0,0,0,0,0,0,-5.11822,-38.438,-5.41045,23.5391,0.459286,0.447622,0.11821,
0.112335,0.0677118,0.14866,-1.98745,0.410002,0.190098,0.0353685,0.184195,0.00621497,0.17772,-0.144586,0.0262222,0.197726,0.00787535,-2.31105,-0.276599,-2.32217,1.75519,-15.3238,-1.42806,-0.0333466,11.1746,-1.01784,10.7231,-12.3619,-1.50005,3.17479,0.0889067,0.101134,0.0663115,0.137912,-1.9799,0.410296,0.180285,0.0350346,0.471981,0.0634838,0.282857,-0.286324,0.13752,0.450382,-0.00240193,0,0,0,0,0,0,0,-5.11822,-38.438,-5.41045,23.5391,0.459286,0.447622,0.11821,
0.113579,0.0677133,0.149855,-1.98848,0.409295,0.191657,0.03543,0.178452,0.00501079,0.172054,-0.141218,0.00329401,0.197132,0.00783743,-3.58946,-0.752614,-3.54146,2.10487,-14.3301,-0.370928,-0.023702,11.1212,-1.17245,10.6594,-12.1392,-1.51271,3.04887,0.088484,0.116326,0.0660955,0.147502,-1.99077,0.41304,0.195669,0.0350547,0.040564,-0.0808246,0.66717,-0.357545,0.00930346,0.430643,0.000854061,-53.9271,-18.0385,48.0392,-8.90269,-16.0271,-2.46732,0.406999,-2.09912,-33.225,-1.56218,21.9958,1.12487,0.85137,0.0577852,
0.114733,0.0676907,0.150962,-1.98946,0.408485,0.19326,0.0354912,0.171597,0.0034424,0.16533,-0.137517,-0.017612,0.197793,0.00780082,-4.28475,-0.980241,-4.20247,2.31316,-13.0663,0.412673,-0.0228779,10.9748,-1.1769,10.5207,-11.8738,-1.53522,2.98841,0.0874796,0.116326,0.0660955,0.147502,-1.99077,0.41304,0.195669,0.0350547,0.040564,-0.0808246,0.66717,-0.357545,0.00930346,0.430643,0.000854061,0,0,0,0,0,0,0,-2.09912,-33.225,-1.56218,21.9958,1.12487,0.85137,0.0577852,
0.125404,0.065812,0.156287,-1.99657,0.411438,0.202158,0.0353131,0.17198,0.0012578,0.165648,-0.134362,-0.0269729,0.190059,0.00761471,0.239701,-1.36538,0.198711,1.97192,-5.85057,-4.83348,-0.116323,10.8197,-1.1783,10.3732,-11.6087,-1.54135,2.93012,0.0861119,0.116326,0.0660955,0.147502,-1.99077,0.41304,0.195669,0.0350547,0.040564,-0.0808246,0.66717,-0.357545,0.00930346,0.430643,0.000854061,0,0,0,0,0,0,0,-2.09912,-33.225,-1.56218,21.9958,1.12487,0.85137,0.0577852,
0.126662,0.0657416,0.157498,-1.9975,0.410822,0.203502,0.0353687,0.169058,-0.00075362,0.162779,-0.130868,-0.0369707,0.185646,0.00748144,-1.82659,-1.25714,-1.79305,2.18389,-6.24864,-2.75821,-0.0832941,10.6573,-1.17723,10.2179,-11.3435,-1.53916,2.87066,0.0847223,0.116326,0.0660955,0.147502,-1.99077,0.41304,0.195669,0.0350547,0.040564,-0.0808246,0.66717,-0.357545,0.00930346,0.430643,0.000854061,0,0,0,0,0,0,0,-2.09912,-33.225,-1.56218,21.9958,1.12487,0.85137,0.0577852,
0.127817,0.0656637,0.158607,-1.9984,0.41012,0.204908,0.0354242,0.16412,-0.00254931,0.157964,-0.127194,-0.0471325,0.183675,0.00737237,-3.08626,-1.12231,-3.0095,2.29611,-6.35113,-1.23161,-0.0681674,10.442,-1.29234,9.99636,-11.1165,-1.51652,2.76734,0.0834867,0.130526,0.0660982,0.156425,-2.00076,0.411225,0.20784,0.0350606,0.538714,0.0409444,0.0732775,-0.262529,-0.0951035,0.324852,0.000159604,62.2687,15.2211,-74.2366,11.877,-13.0509,-13.2239,-0.0868071,-3.16235,-34.3953,-1.8637,26.5305,1.66229,2.53594,0.0440523,
0.138639,0.0672024,0.164147,-2.00652,0.407671,0.213699,0.0352968,0.162182,-0.000173011,0.15595,-0.125887,-0.0554015,0.174399,0.00714587,-1.21076,1.48519,-1.25865,0.816982,-5.16811,-5.79757,-0.141563,10.0861,-1.27811,9.65332,-10.5861,-1.47787,2.65339,0.0799064,0.130526,0.0660982,0.156425,-2.00076,0.411225,0.20784,0.0350606,0.538714,0.0409444,0.0732775,-0.262529,-0.0951035,0.324852,0.000159604,0,0,0,0,0,0,0,-3.16235,-34.3953,-1.8637,26.5305,1.66229,2.53594,0.0440523,
0.139763,0.0672357,0.165222,-2.00743,0.406921,0.214858,0.0353469,0.157835,0.000693405,0.151644,-0.12347,-0.0630739,0.168485,0.00696931,-2.71703,0.54151,-2.6912,1.51065,-4.79526,-3.69674,-0.110347,9.90083,-1.26817,9.47411,-10.3209,-1.4547,2.59723,0.0780071,0.130526,0.0660982,0.156425,-2.00076,0.411225,0.20784,0.0350606,0.538714,0.0409444,0.0732775,-0.262529,-0.0951035,0.324852,0.000159604,0,0,0,0,0,0,0,-3.16235,-34.3953,-1.8637,26.5305,1.66229,2.53594,0.0440523,
0.140797,0.0672383,0.16621,-2.00829,0.40613,0.216076,0.0353965,0.152109,0.000621146,0.146028,-0.12033,-0.0702339,0.165234,0.00681693,-3.57895,-0.0451615,-3.51028,1.96236,-4.47499,-2.03154,-0.0952388,9.71128,-1.25643,9.29048,-10.0556,-1.42919,2.54307,0.0759578,0.130526,0.0660982,0.156425,-2.00076,0.411225,0.20784,0.0350606,0.538714,0.0409444,0.0732775,-0.262529,-0.0951035,0.324852,0.000159604,0,0,0,0,0,0,0,-3.16235,-34.3953,-1.8637,26.5305,1.66229,2.53594,0.0440523,
0.141757,0.0672182,0.167128,-2.00911,0.405303,0.217345,0.0354454,0.145691,-6.45734e-06,0.139756,-0.116741,-0.0768647,0.163918,0.00667495,-4.01142,-0.392252,-3.9196,2.24329,-4.14427,-0.822346,-0.0887386,9.51825,-1.24348,9.10313,-9.79013,-1.40486,2.4891,0.0739112,0.130526,0.0660982,0.156425,-2.00076,0.411225,0.20784,0.0350606,0.538714,0.0409444,0.0732775,-0.262529,-0.0951035,0.324852,0.000159604,0,0,0,0,0,0,0,-3.16235,-34.3953,-1.8637,26.5305,1.66229,2.53594,0.0440523,
0.144219,0.0688701,0.178452,-2.01551,0.403475,0.222427,0.035267,0.145359,0.0029168,0.13926,-0.116227,-0.0791208,0.152811,0.0064251,-0.207197,1.82703,-0.310414,0.320823,-1.41005,-6.94188,-0.156159,9.31387,-1.3515,8.8697,-9.49373,-1.34823,2.42779,0.0718169,0.136595,0.0673467,0.17121,-2.00993,0.407263,0.217997,0.0350661,0.429713,0.0745328,0.156315,-0.242423,-0.133909,0.258387,0.001016,-13.6251,4.19855,10.3797,2.51331,-4.85065,-8.30818,0.10705,-4.30493,-38.9378,-4.28771,26.9272,1.70532,2.25762,0.0376436,
0.145264,0.0689356,0.179447,-2.01636,0.402737,0.223372,0.0353105,0.142396,0.00396926,0.136268,-0.114249,-0.0817337,0.145875,0.00622678,-1.8522,0.657788,-1.86994,1.23684,-1.63307,-4.33491,-0.123947,9.11496,-1.33644,8.67617,-9.22807,-1.32671,2.37639,0.0696884,0.136595,0.0673467,0.17121,-2.00993,0.407263,0.217997,0.0350661,0.429713,0.0745328,0.156315,-0.242423,-0.133909,0.258387,0.001016,0,0,0,0,0,0,0,-4.30493,-38.9378,-4.28771,26.9272,1.70532,2.25762,0.0376436,
0.146221,0.0689626,0.180357,-2.01715,0.401964,0.224392,0.0353534,0.137855,0.00385151,0.131782,-0.111301,-0.0847179,0.142205,0.00605513,-2.83802,-0.0735948,-2.80366,1.84216,-1.86508,-2.29419,-0.107282,8.9136,-1.32048,8.48009,-8.96223,-1.30688,2.32707,0.0674858,0.136595,0.0673467,0.17121,-2.00993,0.407263,0.217997,0.0350661,0.429713,0.0745328,0.156315,-0.242423,-0.133909,0.258387,0.001016,0,0,0,0,0,0,0,-4.30493,-38.9378,-4.28771,26.9272,1.70532,2.25762,0.0376436,
0.147108,0.0689608,0.1812,-2.0179,0.401156,0.225478,0.0353955,0.132447,0.00303594,0.126478,-0.10774,-0.0879808,0.140911,0.00589667,-3.37982,-0.509731,-3.31502,2.22591,-2.03931,-0.808653,-0.0990388,8.71031,-1.30408,8.28193,-8.69626,-1.29091,2.27868,0.065311,0.136595,0.0673467,0.17121,-2.00993,0.407263,0.217997,0.0350661,0.429713,0.0745328,0.156315,-0.242423,-0.133909,0.258387,0.001016,0,0,0,0,0,0,0,-4.30493,-38.9378,-4.28771,26.9272,1.70532,2.25762,0.0376436,
0.144039,0.0689434,0.178272,-2.01514,0.403643,0.221686,0.0352295,0.13352,0.005613,0.127417,-0.107024,-0.0871961,0.130398,0.0056225,0.670463,1.61066,0.587131,0.447181,0.490442,-6.57074,-0.171356,8.55682,-1.45504,8.11779,-8.40444,-1.25046,2.2048,0.0631418,0.147646,0.0672705,0.179562,-2.01882,0.402666,0.227414,0.0350604,0.00167902,-0.0816128,0.559248,-0.297647,-0.146641,0.312856,7.88176e-05,-53.5043,-19.5182,50.3666,-6.90301,-1.59151,6.80869,-0.117148,-1.49212,-34.1969,-0.93535,23.4915,1.97998,1.07018,0.0779268,
0.14503,0.0690179,0.179215,-2.01591,0.402928,0.222476,0.0352659,0.131597,0.00635318,0.125496,-0.104855,-0.0876438,0.124076,0.00540858,-1.20189,0.462614,-1.20113,1.35577,-0.27987,-3.95136,-0.133698,8.35038,-1.43794,7.91627,-8.13805,-1.24191,2.15985,0.0609617,0.147646,0.0672705,0.179562,-2.01882,0.402666,0.227414,0.0350604,0.00167902,-0.0816128,0.559248,-0.297647,-0.146641,0.312856,7.88176e-05,0,0,0,0,0,0,0,-1.49212,-34.1969,-0.93535,23.4915,1.97998,1.07018,0.0779268,
0.145932,0.069053,0.180071,-2.01663,0.402164,0.223349,0.035302,0.127827,0.00596009,0.121807,-0.101732,-0.0892087,0.12107,0.00522785,-2.3561,-0.24568,-2.30525,1.95174,-0.978014,-1.87862,-0.112956,8.14268,-1.42056,7.71345,-7.87136,-1.23687,2.1172,0.0587494,0.147646,0.0672705,0.179562,-2.01882,0.402666,0.227414,0.0350604,0.00167902,-0.0816128,0.559248,-0.297647,-0.146641,0.312856,7.88176e-05,0,0,0,0,0,0,0,-1.49212,-34.1969,-0.93535,23.4915,1.97998,1.07018,0.0779268,
0.15454,0.0669053,0.186186,-2.02296,0.39917,0.230841,0.0351914,0.127765,0.0032686,0.12174,-0.09733,-0.0867981,0.114818,0.00491081,-0.0388744,-1.68218,-0.041711,2.7513,1.50658,-3.90722,-0.198149,7.72495,-1.38593,7.30521,-7.33705,-1.2404,2.03732,0.0544059,0.147646,0.0672705,0.179562,-2.01882,0.402666,0.227414,0.0350604,0.00167902,-0.0816128,0.559248,-0.297647,-0.146641,0.312856,7.88176e-05,0,0,0,0,0,0,0,-1.49212,-34.1969,-0.93535,23.4915,1.97998,1.07018,0.0779268,
0.155453,0.066837,0.187054,-2.02356,0.398501,0.231644,0.035221,0.125039,0.000905346,0.119105,-0.0927484,-0.086173,0.111921,0.00466816,-1.70374,-1.47703,-1.64715,2.86352,0.390729,-1.81105,-0.151656,7.45491,-1.46312,7.03022,-7.06957,-1.23934,1.98667,0.0523482,0.159085,0.0675726,0.185077,-2.02641,0.398752,0.237005,0.0350625,0.274789,0.0487318,0.193379,-0.188898,-0.0937708,0.252298,0.000809973,34.1387,16.2931,-45.7335,13.5936,6.60874,-7.56979,0.0913944,-2.27765,-35.2443,-0.360094,26.828,1.71081,1.20293,0.0303194,
0.15628,0.0667618,0.187839,-2.02411,0.39777,0.232521,0.0352504,0.120703,-0.001156,0.114911,-0.0881313,-0.0872144,0.111454,0.00446986,-2.71,-1.28834,-2.62114,2.88564,-0.650878,-0.291783,-0.123941,7.2454,-1.44616,6.82534,-6.80135,-1.25122,1.95175,0.0502193,0.159085,0.0675726,0.185077,-2.02641,0.398752,0.237005,0.0350625,0.274789,0.0487318,0.193379,-0.188898,-0.0937708,0.252298,0.000809973,0,0,0,0,0,0,0,-2.27765,-35.2443,-0.360094,26.828,1.71081,1.20293,0.0303194,
0.157036,0.0666811,0.188556,-2.02463,0.396976,0.233458,0.0352793,0.11547,-0.00294025,0.109845,-0.083565,-0.0896026,0.112606,0.00429801,-3.27076,-1.11516,-3.16642,2.85397,-1.49266,0.720287,-0.107402,7.03637,-1.4296,6.62086,-6.53267,-1.26723,1.91833,0.048155,0.159085,0.0675726,0.185077,-2.02641,0.398752,0.237005,0.0350625,0.274789,0.0487318,0.193379,-0.188898,-0.0937708,0.252298,0.000809973,0,0,0,0,0,0,0,-2.27765,-35.2443,-0.360094,26.828,1.71081,1.20293,0.0303194,
0.165006,0.0685456,0.190684,-2.03021,0.39529,0.240844,0.0351755,0.114285,-0.00102986,0.108606,-0.0816685,-0.0902438,0.107489,0.00406346,-0.740529,1.194,-0.77447,1.1853,-0.400749,-3.19849,-0.146594,6.8281,-1.41327,6.41715,-6.26339,-1.28561,1.88662,0.046094,0.159085,0.0675726,0.185077,-2.02641,0.398752,0.237005,0.0350625,0.274789,0.0487318,0.193379,-0.188898,-0.0937708,0.252298,0.000809973,0,0,0,0,0,0,0,-2.27765,-35.2443,-0.360094,26.828,1.71081,1.20293,0.0303194,
0.165792,0.068561,0.191426,-2.03075,0.394491,0.241593,0.0352005,0.111079,-0.000439333,0.105439,-0.0788642,-0.0921828,0.104715,0.00387661,-2.00375,0.369076,-1.97892,1.75269,-1.21187,-1.73357,-0.116781,6.59416,-1.49671,6.1638,-5.96376,-1.28154,1.84217,0.0441092,0.165262,0.0688439,0.194318,-2.03238,0.394734,0.244729,0.0350599,0.429972,0.0745316,-0.00744935,-0.131711,-0.0978052,0.182846,0.000638082,19.3979,3.22497,-25.1036,7.1484,-0.504296,-8.68156,-0.0214864,-3.08697,-38.7395,-2.53813,26.6296,1.03973,1.64055,0.050461,
0.166505,0.068549,0.192098,-2.03125,0.393639,0.242394,0.0352252,0.106687,-0.000651655,0.101141,-0.0754801,-0.0950466,0.103792,0.00371717,-2.74494,-0.132701,-2.68627,2.1151,-1.78984,-0.576674,-0.0996504,6.38915,-1.48116,5.96334,-5.69323,-1.30284,1.81201,0.0421328,0.165262,0.0688439,0.194318,-2.03238,0.394734,0.244729,0.0350599,0.429972,0.0745316,-0.00744935,-0.131711,-0.0978052,0.182846,0.000638082,0,0,0,0,0,0,0,-3.08697,-38.7395,-2.53813,26.6296,1.03973,1.64055,0.050461,
0.167157,0.0685169,0.192711,-2.0317,0.392743,0.243238,0.0352492,0.101668,-0.00132502,0.0962448,-0.071746,-0.0984165,0.10414,0.00357338,-3.13703,-0.420852,-3.06037,2.33376,-2.10621,0.217553,-0.0898721,6.18676,-1.46609,5.76548,-5.42207,-1.32395,1.78144,0.0402339,0.165262,0.0688439,0.194318,-2.03238,0.394734,0.244729,0.0350599,0.429972,0.0745316,-0.00744935,-0.131711,-0.0978052,0.182846,0.000638082,0,0,0,0,0,0,0,-3.08697,-38.7395,-2.53813,26.6296,1.03973,1.64055,0.050461,
0.170651,0.069937,0.199362,-2.03563,0.391036,0.248056,0.035147,0.101004,0.000403845,0.0954807,-0.0699669,-0.0982019,0.0983307,0.00335884,-0.414971,1.08054,-0.477575,1.11196,0.134118,-3.63095,-0.134089,5.98758,-1.45131,5.57088,-5.1502,-1.34222,1.7497,0.0383689,0.165262,0.0688439,0.194318,-2.03238,0.394734,0.244729,0.0350599,0.429972,0.0745316,-0.00744935,-0.131711,-0.0978052,0.182846,0.000638082,0,0,0,0,0,0,0,-3.08697,-38.7395,-2.53813,26.6296,1.03973,1.64055,0.050461,
0.171353,0.0699566,0.20002,-2.03608,0.390225,0.248693,0.0351671,0.0983542,0.000811898,0.092829,-0.0672443,-0.098839,0.0945893,0.00318988,-1.65592,0.255033,-1.6573,1.70162,-0.398152,-2.33837,-0.105595,5.87843,-1.56305,5.44878,-4.87712,-1.33722,1.68824,0.0366752,0.171196,0.0686546,0.202343,-2.0381,0.390856,0.251573,0.0350547,0.314332,-0.0750286,0.0679204,-0.189645,-0.122818,0.181487,0.000653524,-14.4551,-18.695,9.42122,-7.24176,-3.1266,-0.169834,0.00193023,-2.98779,-34.7206,-2.7365,23.2416,1.08825,1.36864,0.0577852,
0.171986,0.0699478,0.200611,-2.03649,0.389396,0.24936,0.0351871,0.0945149,0.000431746,0.0890458,-0.0639097,-0.099798,0.0923564,0.0030495,-2.39954,-0.237595,-2.3645,2.08412,-0.599368,-1.39556,-0.0877384,5.68815,-1.5488,5.26317,-4.60395,-1.34374,1.64985,0.0349507,0.171196,0.0686546,0.202343,-2.0381,0.390856,0.251573,0.0350547,0.314332,-0.0750286,0.0679204,-0.189645,-0.122818,0.181487,0.000653524,0,0,0,0,0,0,0,-2.98779,-34.7206,-2.7365,23.2416,1.08825,1.36864,0.0577852,
0.172562,0.0699185,0.201148,-2.03685,0.388568,0.250044,0.0352066,0.0900205,-0.000388247,0.08464,-0.0601986,-0.100532,0.0909866,0.00292741,-2.80903,-0.512495,-2.75363,2.31948,-0.458674,-0.856155,-0.0763048,5.50357,-1.53469,5.0833,-4.33023,-1.34037,1.60553,0.0333179,0.171196,0.0686546,0.202343,-2.0381,0.390856,0.251573,0.0350547,0.314332,-0.0750286,0.0679204,-0.189645,-0.122818,0.181487,0.000653524,0,0,0,0,0,0,0,-2.98779,-34.7206,-2.7365,23.2416,1.08825,1.36864,0.0577852,
0.176081,0.0680091,0.206929,-2.04047,0.386956,0.253788,0.0351265,0.0897129,-0.00270808,0.0843164,-0.056435,-0.096323,0.0842038,0.00272625,-0.192232,-1.44989,-0.202242,2.35223,2.6305,-4.23925,-0.125726,5.32538,-1.52042,4.9099,-4.05599,-1.32364,1.55321,0.0317911,0.171196,0.0686546,0.202343,-2.0381,0.390856,0.251573,0.0350547,0.314332,-0.0750286,0.0679204,-0.189645,-0.122818,0.181487,0.000653524,0,0,0,0,0,0,0,-2.98779,-34.7206,-2.7365,23.2416,1.08825,1.36864,0.0577852,
0.176708,0.0679135,0.207515,-2.04077,0.386363,0.254257,0.0351426,0.0874419,-0.00455538,0.0820964,-0.0525133,-0.0918865,0.0790912,0.00258342,-1.41937,-1.15457,-1.38751,2.45104,2.77284,-3.19538,-0.089273,5.11794,-1.58605,4.70064,-3.76992,-1.27354,1.48153,0.0303945,0.176633,0.0684757,0.208389,-2.04214,0.387308,0.256329,0.0350476,0.066596,-0.0426622,0.301515,-0.146202,-0.133848,0.14856,0.000283596,-30.9669,4.0458,29.1993,5.43041,-1.37872,-4.1159,-0.046241,-1.66668,-33.1218,-1.28844,24.5865,1.64398,1.5545,0.0779268,
0.177268,0.0678179,0.208036,-2.04103,0.385828,0.254714,0.0351591,0.0839681,-0.00603574,0.0787095,-0.0485339,-0.0868868,0.0746985,0.00248006,-2.17115,-0.925224,-2.11685,2.48715,3.12484,-2.74543,-0.0645945,4.95442,-1.5709,4.54202,-3.49514,-1.21998,1.40601,0.0291602,0.176633,0.0684757,0.208389,-2.04214,0.387308,0.256329,0.0350476,0.066596,-0.0426622,0.301515,-0.146202,-0.133848,0.14856,0.000283596,0,0,0,0,0,0,0,-1.66668,-33.1218,-1.28844,24.5865,1.64398,1.5545,0.0779268,
0.18106,0.0680599,0.212569,-2.04401,0.384867,0.257294,0.0350979,0.082919,-0.00681085,0.0776205,-0.0448868,-0.0748391,0.0621066,0.00235502,-0.655678,-0.484442,-0.680617,2.27944,7.52977,-7.86992,-0.0781558,4.65039,-1.53783,4.24782,-2.94601,-1.03823,1.20662,0.0272825,0.176633,0.0684757,0.208389,-2.04214,0.387308,0.256329,0.0350476,0.066596,-0.0426622,0.301515,-0.146202,-0.133848,0.14856,0.000283596,0,0,0,0,0,0,0,-1.66668,-33.1218,-1.28844,24.5865,1.64398,1.5545,0.0779268,
0.181611,0.0679766,0.213078,-2.04421,0.384786,0.257339,0.0351141,0.0801071,-0.00753082,0.074832,-0.0410422,-0.0618992,0.0507995,0.00228982,-1.75745,-0.449985,-1.7428,2.40282,8.08746,-7.06699,-0.0407464,4.50868,-1.51945,4.11091,-2.67229,-0.903671,1.07853,0.0266716,0.176633,0.0684757,0.208389,-2.04214,0.387308,0.256329,0.0350476,0.066596,-0.0426622,0.301515,-0.146202,-0.133848,0.14856,0.000283596,0,0,0,0,0,0,0,-1.66668,-33.1218,-1.28844,24.5865,1.64398,1.5545,0.0779268,
0.182097,0.0678899,0.213524,-2.04439,0.384849,0.257318,0.0351303,0.0762366,-0.00819299,0.071017,-0.0371448,-0.0479468,0.0401321,0.00223633,-2.41907,-0.413853,-2.3844,2.43591,8.72025,-6.66712,-0.0334318,4.37227,-1.49995,3.97894,-2.39998,-0.739354,0.92991,0.0262813,0.176633,0.0684757,0.208389,-2.04214,0.387308,0.256329,0.0350476,0.066596,-0.0426622,0.301515,-0.146202,-0.133848,0.14856,0.000283596,0,0,0,0,0,0,0,-1.66668,-33.1218,-1.28844,24.5865,1.64398,1.5545,0.0779268,
0.18253,0.0678006,0.213918,-2.04453,0.385048,0.257232,0.0351493,0.0718134,-0.00878607,0.0666659,-0.0332895,-0.0333767,0.0299501,0.002264,-2.76449,-0.370676,-2.71939,2.40954,9.1063,-6.36373,0.0172968,4.20861,-1.50596,3.80378,-2.13103,-0.544638,0.76272,0.0265853,0.183513,0.0693875,0.212845,-2.04541,0.383362,0.260221,0.0350565,-0.0321855,0.0867107,0.337761,-0.048271,-0.0969604,0.093448,0.00205115,-12.3477,16.1716,4.53074,12.2414,4.61092,-6.88896,0.220944,-0.119442,-37.8389,0.413527,28.1491,1.72363,1.81267,-0.0026396,
0.187024,0.0703118,0.216119,-2.04695,0.38381,0.259851,0.0351129,0.0697597,-0.00614415,0.0644987,-0.0317023,-0.0158723,0.0150644,0.00235363,-1.28357,1.6512,-1.35456,0.992025,10.9403,-9.30359,0.0560134,4.07383,-1.48353,3.67305,-1.86317,-0.310919,0.571933,0.0276135,0.183513,0.0693875,0.212845,-2.04541,0.383362,0.260221,0.0350565,-0.0321855,0.0867107,0.337761,-0.048271,-0.0969604,0.093448,0.00205115,0,0,0,0,0,0,0,-0.119442,-37.8389,0.413527,28.1491,1.72363,1.81267,-0.0026396,
0.187446,0.0703155,0.216496,-2.04711,0.384477,0.259403,0.0351294,0.0663676,-0.00482317,0.0610231,-0.0294252,0.00397182,0.000858677,0.00229423,-2.12006,0.825614,-2.17224,1.42319,12.4026,-8.87855,-0.0371213,3.92173,-1.45798,3.52376,-1.5971,-0.0489101,0.368553,0.0280561,0.183513,0.0693875,0.212845,-2.04541,0.383362,0.260221,0.0350565,-0.0321855,0.0867107,0.337761,-0.048271,-0.0969604,0.093448,0.00205115,0,0,0,0,0,0,0,-0.119442,-37.8389,0.413527,28.1491,1.72363,1.81267,-0.0026396,
0.187816,0.0702944,0.216813,-2.04724,0.385329,0.25889,0.0351334,0.062328,-0.00438662,0.0567233,-0.0267413,0.0244788,-0.0121272,0.00193665,-2.52473,0.272844,-2.68737,1.67742,12.8169,-8.11618,-0.22349,3.75022,-1.43855,3.35202,-1.34461,0.210187,0.173471,0.027029,0.183513,0.0693875,0.212845,-2.04541,0.383362,0.260221,0.0350565,-0.0321855,0.0867107,0.337761,-0.048271,-0.0969604,0.093448,0.00205115,0,0,0,0,0,0,0,-0.119442,-37.8389,0.413527,28.1491,1.72363,1.81267,-0.0026396,
0.188144,0.070256,0.217099,-2.04733,0.38614,0.2584,0.0351388,0.0580684,-0.00446856,0.0525444,-0.0236822,0.0398535,-0.0219697,0.00168271,-2.66225,-0.0512155,-2.61183,1.91194,9.60915,-6.15157,-0.158714,3.56615,-1.40672,3.16395,-1.0971,0.406086,0.0291768,0.0296807,0.183513,0.0693875,0.212845,-2.04541,0.383362,0.260221,0.0350565,-0.0321855,0.0867107,0.337761,-0.048271,-0.0969604,0.093448,0.00205115,0,0,0,0,0,0,0,-0.119442,-37.8389,0.413527,28.1491,1.72363,1.81267,-0.0026396,
0.186737,0.0703933,0.215803,-2.04663,0.38654,0.258094,0.0350615,0.0569981,-0.00240368,0.051426,-0.0223946,0.0567328,-0.0348899,0.00142492,-0.668934,1.29055,-0.698964,0.804757,10.5496,-8.07514,-0.161113,3.32982,-1.36928,2.93195,-0.872107,0.744549,-0.157541,0.0355679,0.183513,0.0693875,0.212845,-2.04541,0.383362,0.260221,0.0350565,-0.0321855,0.0867107,0.337761,-0.048271,-0.0969604,0.093448,0.00205115,0,0,0,0,0,0,0,-0.119442,-37.8389,0.413527,28.1491,1.72363,1.81267,-0.0026396,
0.187087,0.0704067,0.216106,-2.04674,0.387808,0.257321,0.0350561,0.0543493,-0.00158859,0.0487179,-0.0204365,0.077097,-0.0472206,0.00100464,-1.65553,0.509432,-1.69257,1.22378,12.7276,-7.70663,-0.26268,2.97907,-1.30501,2.57219,-0.629035,1.18542,-0.352226,0.0285578,0.183513,0.0693875,0.212845,-2.04541,0.383362,0.260221,0.0350565,-0.0321855,0.0867107,0.337761,-0.048271,-0.0969604,0.093448,0.00205115,0,0,0,0,0,0,0,-0.119442,-37.8389,0.413527,28.1491,1.72363,1.81267,-0.0026396,
0.187383,0.0703939,0.216358,-2.04681,0.389276,0.256528,0.0350477,0.050896,-0.00159176,0.0452773,-0.0181313,0.0983698,-0.0576114,0.000592421,-2.15829,-0.001981,-2.15034,1.44077,13.2955,-6.49427,-0.257634,2.71283,-1.34372,2.18104,-0.417657,1.34435,-0.441202,0.0110668,0.183513,0.0693875,0.212845,-2.04541,0.383362,0.260221,0.0350565,-0.0321855,0.0867107,0.337761,-0.048271,-0.0969604,0.093448,0.00205115,0,0,0,0,0,0,0,-0.119442,-37.8389,0.413527,28.1491,1.72363,1.81267,-0.0026396,
0.191702,0.0688675,0.219179,-2.04849,0.388437,0.257747,0.0349901,0.0494008,-0.00348431,0.0438776,-0.0151121,0.123153,-0.0664952,0.000184421,-0.934466,-1.18285,-0.874851,1.88698,15.4896,-5.55237,-0.255,2.2984,-1.4056,1.89303,0.0726821,1.42764,-0.499959,0.0120127,0.188994,0.0693796,0.216706,-2.04795,0.382026,0.261686,0.0350502,-0.0161094,-0.0435437,0.271508,-0.0920819,-0.00271362,0.0268015,0.00189683,2.00952,-16.2818,-8.28159,-5.47637,11.7808,-8.33081,-0.0192891,-0.702633,-36.3194,0.0882092,25.0864,1.94976,0.944754,0.0239107,
0.191986,0.0687782,0.219423,-2.04849,0.390496,0.256879,0.0349737,0.0466123,-0.00501992,0.0411857,-0.0120958,0.149999,-0.0748958,-0.000260979,-1.74283,-0.959755,-1.68241,1.88518,16.7788,-5.25037,-0.278374,2.06309,-1.35914,1.64124,0.285508,2.0514,-0.730459,0.00164961,0.188994,0.0693796,0.216706,-2.04795,0.382026,0.261686,0.0350502,-0.0161094,-0.0435437,0.271508,-0.0920819,-0.00271362,0.0268015,0.00189683,0,0,0,0,0,0,0,-0.702633,-36.3194,0.0882092,25.0864,1.94976,0.944754,0.0239107,
0.192221,0.0686851,0.219619,-2.04847,0.392761,0.255961,0.0349571,0.043179,-0.00634256,0.0378427,-0.00912254,0.176606,-0.0828676,-0.000624837,-2.14579,-0.826646,-2.08939,1.85832,16.629,-4.98238,-0.227412,1.9706,-1.42641,1.5394,0.46239,2.19521,-0.707885,-0.00451943,0.188994,0.0693796,0.216706,-2.04795,0.382026,0.261686,0.0350502,-0.0161094,-0.0435437,0.271508,-0.0920819,-0.00271362,0.0268015,0.00189683,0,0,0,0,0,0,0,-0.702633,-36.3194,0.0882092,25.0864,1.94976,0.944754,0.0239107,
0.19242,0.068586,0.219784,-2.04842,0.395078,0.255017,0.0349437,0.0395137,-0.00755344,0.034415,-0.00615001,0.199221,-0.089892,-0.000833709,-2.29085,-0.756804,-2.14234,1.85783,14.1347,-4.39025,-0.130545,1.83527,-1.45396,1.41816,0.658245,1.93602,-0.369208,-0.00674655,0.188994,0.0693796,0.216706,-2.04795,0.382026,0.261686,0.0350502,-0.0161094,-0.0435437,0.271508,-0.0920819,-0.00271362,0.0268015,0.00189683,0,0,0,0,0,0,0,-0.702633,-36.3194,0.0882092,25.0864,1.94976,0.944754,0.0239107,
0.194788,0.0691872,0.222203,-2.05005,0.393293,0.257157,0.034945,0.037531,-0.00750862,0.0325656,-0.00442451,0.221066,-0.0993457,-0.00103765,-1.2392,0.0280137,-1.15587,1.07844,13.653,-5.90858,-0.12746,1.70547,-1.5383,1.32161,0.767443,2.49101,-0.630962,-0.00607465,0.192804,0.0691785,0.220433,-2.04977,0.383272,0.261587,0.0350452,-0.0186256,0.0143884,0.217469,-0.0386684,0.0800636,-0.00771437,0.000520116,-0.314535,7.24151,-6.75487,6.67668,10.3471,-4.31449,-0.17209,-0.655026,-33.098,0.338148,25.5069,2.79846,1.12328,0.0577852,
0.194974,0.0691101,0.222355,-2.05001,0.395967,0.255998,0.0349271,0.0346646,-0.00793285,0.0298508,-0.00250412,0.243704,-0.10844,-0.00127756,-1.79148,-0.265146,-1.69672,1.20024,14.1488,-5.68375,-0.149944,1.53047,-1.53063,1.15091,0.917546,3.02788,-0.901833,-0.012133,0.192804,0.0691785,0.220433,-2.04977,0.383272,0.261587,0.0350452,-0.0186256,0.0143884,0.217469,-0.0386684,0.0800636,-0.00771437,0.000520116,0,0,0,0,0,0,0,-0.655026,-33.098,0.338148,25.5069,2.79846,1.12328,0.0577852,
0.195123,0.0690116,0.222476,-2.04995,0.398713,0.254864,0.0349105,0.0314726,-0.00880996,0.0269026,-0.000714773,0.26361,-0.115107,-0.00143708,-1.99498,-0.548193,-1.84262,1.11834,12.4411,-4.16696,-0.0997016,1.42551,-1.60057,1.02273,1.05127,3.18248,-1.02312,-0.0145517,0.192804,0.0691785,0.220433,-2.04977,0.383272,0.261587,0.0350452,-0.0186256,0.0143884,0.217469,-0.0386684,0.0800636,-0.00771437,0.000520116,0,0,0,0,0,0,0,-0.655026,-33.098,0.338148,25.5069,2.79846,1.12328,0.0577852,
0.195256,0.0688947,0.222577,-2.04989,0.40133,0.253867,0.0348949,0.0284991,-0.00996956,0.0240637,0.00093778,0.276299,-0.117006,-0.00153934,-1.85848,-0.72475,-1.77433,1.03285,7.93085,-1.187,-0.0639129,1.21048,-1.67602,0.854498,1.1996,2.96855,-1.03543,-0.0135048,0.192804,0.0691785,0.220433,-2.04977,0.383272,0.261587,0.0350452,-0.0186256,0.0143884,0.217469,-0.0386684,0.0800636,-0.00771437,0.000520116,0,0,0,0,0,0,0,-0.655026,-33.098,0.338148,25.5069,2.79846,1.12328,0.0577852,
0.194591,0.0691252,0.222017,-2.04995,0.39455,0.256556,0.0349183,0.0278547,-0.0100925,0.0233763,0.00133981,0.284548,-0.118948,-0.00177755,-0.40273,-0.076859,-0.429644,0.251268,5.15572,-1.21398,-0.148883,0.993259,-1.7577,0.664266,1.32415,3.34022,-1.17238,-0.0115506,0.195378,0.0697932,0.223242,-2.05043,0.388875,0.259488,0.0350376,-0.00121087,0.021494,0.152151,-0.015219,0.236646,-0.0822602,0.00155166,2.17685,0.888211,-8.16482,2.93118,19.5728,-9.31822,0.128943,0.0828892,-37.0415,0.536512,25.3085,2.8598,0.639883,0.0440523,
0.19475,0.0690186,0.22214,-2.04991,0.397113,0.255619,0.0348928,0.0262554,-0.0107387,0.0217826,0.00209799,0.291727,-0.118595,-0.00206005,-0.999569,-0.403874,-0.996017,0.47386,4.48679,0.221089,-0.176563,0.739063,-1.79934,0.419342,1.46764,3.66529,-1.29137,-0.0161084,0.195378,0.0697932,0.223242,-2.05043,0.388875,0.259488,0.0350376,-0.00121087,0.021494,0.152151,-0.015219,0.236646,-0.0822602,0.00155166,0,0,0,0,0,0,0,0.0828892,-37.0415,0.536512,25.3085,2.8598,0.639883,0.0440523,
0.194888,0.0688879,0.222236,-2.04986,0.399538,0.254839,0.0348675,0.0244454,-0.0118569,0.0198323,0.00289481,0.294007,-0.114376,-0.00227823,-1.13125,-0.698854,-1.21894,0.498015,1.4249,2.63667,-0.136359,0.575817,-2.02513,0.276808,1.50191,3.50518,-1.12273,-0.0174332,0.195378,0.0697932,0.223242,-2.05043,0.388875,0.259488,0.0350376,-0.00121087,0.021494,0.152151,-0.015219,0.236646,-0.0822602,0.00155166,0,0,0,0,0,0,0,0.0828892,-37.0415,0.536512,25.3085,2.8598,0.639883,0.0440523,
0.195017,0.0687401,0.222327,-2.0498,0.401589,0.254302,0.0348478,0.0227831,-0.0131819,0.0181486,0.00388467,0.286478,-0.104917,-0.0023174,-1.03892,-0.828095,-1.05234,0.618665,-4.70585,5.91206,-0.0244826,0.387681,-2.13825,0.0104602,1.58528,2.94045,-0.699447,-0.020284,0.195378,0.0697932,0.223242,-2.05043,0.388875,0.259488,0.0350376,-0.00121087,0.021494,0.152151,-0.015219,0.236646,-0.0822602,0.00155166,0,0,0,0,0,0,0,0.0828892,-37.0415,0.536512,25.3085,2.8598,0.639883,0.0440523,
0.196899,0.0696001,0.224542,-2.0505,0.399168,0.256249,0.0349029,0.0231894,-0.0135279,0.0183839,0.00401611,0.270522,-0.0922175,-0.00242718,0.253945,-0.216287,0.147054,0.0821509,-9.97222,7.93698,-0.0686131,0.231509,-2.2567,-0.145533,1.60606,2.83481,-0.491378,-0.0228105,0.197774,0.0693061,0.224785,-2.05097,0.399566,0.255814,0.0350291,0.102376,-0.0201293,-0.0130352,-0.0195044,0.366403,-0.130105,-0.000583789,12.9483,-5.20291,-20.6482,-0.535684,16.2197,-5.98066,-0.266931,-1.11126,-33.6495,-0.360094,26.951,3.21319,1.05736,0.0303194,
0.197064,0.0694604,0.224663,-2.05045,0.400672,0.256049,0.0348792,0.022674,-0.0143133,0.0177333,0.00456129,0.254001,-0.0787609,-0.00253264,-0.322137,-0.490867,-0.406599,0.340733,-10.3257,8.41038,-0.0659124,0.100889,-2.30655,-0.278305,1.64155,2.84803,-0.435162,-0.0287744,0.197774,0.0693061,0.224785,-2.05097,0.399566,0.255814,0.0350291,0.102376,-0.0201293,-0.0130352,-0.0195044,0.366403,-0.130105,-0.000583789,0,0,0,0,0,0,0,-1.11126,-33.6495,-0.360094,26.951,3.21319,1.05736,0.0303194,
0.1972,0.0693057,0.224755,-2.05038,0.402074,0.255951,0.0348553,0.02154,-0.0153181,0.0164996,0.00535689,0.23826,-0.0654542,-0.00262543,-0.708779,-0.627973,-0.771061,0.497254,-9.83818,8.31671,-0.0579954,0.143474,-2.51837,-0.356442,1.57818,2.36872,-0.116539,-0.0318054,0.197774,0.0693061,0.224785,-2.05097,0.399566,0.255814,0.0350291,0.102376,-0.0201293,-0.0130352,-0.0195044,0.366403,-0.130105,-0.000583789,0,0,0,0,0,0,0,-1.11126,-33.6495,-0.360094,26.951,3.21319,1.05736,0.0303194,
0.199221,0.0685115,0.22602,-2.05087,0.403205,0.257831,0.0349436,0.0223358,-0.0167214,0.0172082,0.00593511,0.192874,-0.0288846,-0.00266261,0.497381,-0.877075,0.442842,0.361388,-28.3662,22.856,-0.0232359,0.0816262,-2.6657,-0.427305,1.73731,-0.493286,2.00745,-0.0279643,0.197774,0.0693061,0.224785,-2.05097,0.399566,0.255814,0.0350291,0.102376,-0.0201293,-0.0130352,-0.0195044,0.366403,-0.130105,-0.000583789,0,0,0,0,0,0,0,-1.11126,-33.6495,-0.360094,26.951,3.21319,1.05736,0.0303194,
0.199389,0.0683258,0.226144,-2.05079,0.403176,0.258898,0.0349206,0.0220727,-0.0180174,0.0168798,0.0067364,0.15358,0.00355359,-0.00270382,-0.164395,-0.810008,-0.205227,0.500805,-24.5587,20.2739,-0.025755,0.0864703,-2.66124,-0.422375,1.73648,-0.480125,1.99032,-0.0279636,0.197774,0.0693061,0.224785,-2.05097,0.399566,0.255814,0.0350291,0.102376,-0.0201293,-0.0130352,-0.0195044,0.366403,-0.130105,-0.000583789,0,0,0,0,0,0,0,-1.11126,-33.6495,-0.360094,26.951,3.21319,1.05736,0.0303194,
0.199527,0.0681347,0.226238,-2.0507,0.403069,0.260055,0.0348975,0.0210957,-0.0191928,0.0158608,0.00765309,0.120193,0.0317801,-0.00274116,-0.610619,-0.734634,-0.6369,0.572927,-20.8672,17.6416,-0.023337,0.0883207,-2.67305,-0.426934,1.73283,-0.509041,2.00594,-0.0280732,0.199555,0.069511,0.225584,-2.05072,0.412525,0.250904,0.0350212,0.0244298,-0.000548185,0.0343797,0.00572492,0.378512,-0.134954,0.000439918,-9.74323,2.44763,5.92686,3.15367,1.51355,-0.60612,0.127963,-1.64288,-36.9661,-0.637804,25.134,2.25464,0.832144,0.0577852,
0.199639,0.0679391,0.226307,-2.0506,0.402912,0.261277,0.0348744,0.0196734,-0.020244,0.0144172,0.00860934,0.0922119,0.0559795,-0.00277152,-0.888978,-0.656998,-0.902213,0.597657,-17.4879,15.1246,-0.0189755,0.0916117,-2.6701,-0.423705,1.73166,-0.495382,1.98819,-0.028068,0.199555,0.069511,0.225584,-2.05072,0.412525,0.250904,0.0350212,0.0244298,-0.000548185,0.0343797,0.00572492,0.378512,-0.134954,0.000439918,0,0,0,0,0,0,0,-1.64288,-36.9661,-0.637804,25.134,2.25464,0.832144,0.0577852,
0.201549,0.0688461,0.22746,-2.05081,0.400783,0.26684,0.0350104,0.024546,-0.0202667,0.0192998,0.00781263,-0.0225438,0.154983,-0.00263538,3.04541,-0.0142057,3.05162,-0.497944,-71.7223,61.8771,0.0850836,0.79698,-2.83582,0.323758,2.0353,-6.25869,7.47842,-0.0262523,0.199555,0.069511,0.225584,-2.05072,0.412525,0.250904,0.0350212,0.0244298,-0.000548185,0.0343797,0.00572492,0.378512,-0.134954,0.000439918,0,0,0,0,0,0,0,-1.64288,-36.9661,-0.637804,25.134,2.25464,0.832144,0.0577852,
0.201855,0.0686738,0.227723,-2.05075,0.396716,0.271439,0.0349918,0.0272909,-0.0205207,0.022007,0.00774489,-0.119702,0.238973,-0.00257312,1.71556,-0.158739,1.69201,-0.0423379,-60.7241,52.4941,0.0389129,0.878093,-2.83199,0.402413,2.02975,-6.1536,7.32777,-0.0259229,0.199555,0.069511,0.225584,-2.05072,0.412525,0.250904,0.0350212,0.0244298,-0.000548185,0.0343797,0.00572492,0.378512,-0.134954,0.000439918,0,0,0,0,0,0,0,-1.64288,-36.9661,-0.637804,25.134,2.25464,0.832144,0.0577852,
0.202118,0.0684936,0.227942,-2.05067,0.392544,0.276137,0.0349723,0.0284058,-0.0209225,0.0230761,0.00815828,-0.200072,0.30862,-0.0025467,0.696798,-0.251139,0.668137,0.258369,-50.2309,43.5288,0.0165162,0.940495,-2.89813,0.463472,2.03967,-6.07357,7.198,-0.0256454,0.20032,0.0687067,0.226824,-2.05078,0.422512,0.248746,0.0350194,0.0272277,-0.0270988,0.029861,-0.0021228,0.17192,0.0132709,-0.00025625,0.349746,-3.31883,-0.564841,-0.980966,-25.824,18.5282,-0.087021,-0.857357,-33.9986,-0.260912,26.7288,1.37573,2.19079,0.0303194,
0.202342,0.0683067,0.228122,-2.05058,0.388335,0.280869,0.0349523,0.0283384,-0.0214086,0.022973,0.00886841,-0.265279,0.365202,-0.00253555,-0.0421391,-0.303759,-0.0644335,0.443835,-40.7546,35.3639,0.00696493,0.989835,-2.90805,0.507168,2.02978,-5.96819,7.0439,-0.0252172,0.20032,0.0687067,0.226824,-2.05078,0.422512,0.248746,0.0350194,0.0272277,-0.0270988,0.029861,-0.0021228,0.17192,0.0132709,-0.00025625,0,0,0,0,0,0,0,-0.857357,-33.9986,-0.260912,26.7288,1.37573,2.19079,0.0303194,
0.203502,0.0686558,0.230336,-2.05053,0.385412,0.278371,0.0351044,0.0404461,-0.0151188,0.0372638,0.00881112,-0.463271,0.486532,-0.00231483,7.5673,3.93108,8.9318,-0.0358056,-123.745,75.8311,0.137951,2.35634,0.40973,2.63809,1.76876,-14.1976,11.5555,-0.0106664,0.20032,0.0687067,0.226824,-2.05078,0.422512,0.248746,0.0350194,0.0272277,-0.0270988,0.029861,-0.0021228,0.17192,0.0132709,-0.00025625,0,0,0,0,0,0,0,-0.857357,-33.9986,-0.260912,26.7288,1.37573,2.19079,0.0303194,
0.204215,0.0687558,0.231087,-2.05046,0.374885,0.286508,0.0350907,0.0501894,-0.00959602,0.0485918,0.00879256,-0.63379,0.59267,-0.00219315,6.08957,3.45175,7.07995,-0.0116015,-106.575,66.3366,0.0760541,3.47539,0.82302,3.85144,1.80014,-14.1976,11.5555,-0.0172783,0.20032,0.0687067,0.226824,-2.05078,0.422512,0.248746,0.0350194,0.0272277,-0.0270988,0.029861,-0.0021228,0.17192,0.0132709,-0.00025625,0,0,0,0,0,0,0,-0.857357,-33.9986,-0.260912,26.7288,1.37573,2.19079,0.0303194,
0.20493,0.0688631,0.231833,-2.05039,0.364046,0.294882,0.0350778,0.0580323,-0.00499351,0.0575233,0.00871545,-0.778017,0.68348,-0.00207849,4.90183,2.87657,5.58222,-0.0481911,-90.142,56.7563,0.0716629,4.54952,1.14729,4.99078,1.79325,-14.2079,11.5237,-0.0234177,0.201692,0.0681749,0.227476,-2.05047,0.422642,0.253382,0.0350261,0.05063,-0.0280842,0.0224741,0.00231741,-0.158996,0.30859,0.00230216,2.92528,-0.123174,-0.923359,0.555027,-41.3644,36.9149,0.319801,-0.95654,-35.518,-0.185533,25.5823,-0.0964392,4.37249,-0.0429228,
0.205648,0.068968,0.232574,-2.05033,0.353008,0.303405,0.0350668,0.0643747,-0.00137318,0.0645456,0.00852697,-0.898368,0.759854,-0.00193787,3.96402,2.2627,4.3889,-0.117805,-75.219,47.7336,0.0878834,5.56733,1.26621,6.04009,1.86135,-14.2079,11.5237,-0.0278956,0.201692,0.0681749,0.227476,-2.05047,0.422642,0.253382,0.0350261,0.05063,-0.0280842,0.0224741,0.00231741,-0.158996,0.30859,0.00230216,0,0,0,0,0,0,0,-0.95654,-35.518,-0.185533,25.5823,-0.0964392,4.37249,-0.0429228,
0.205065,0.066948,0.230788,-2.05063,0.38118,0.287321,0.0352832,0.0698264,-0.00714057,0.0695023,0.00561167,-0.977881,0.810563,-0.000642219,3.40727,-3.60462,3.09797,-1.82206,-49.6958,31.6933,0.809783,4.73773,-3.07783,4.07516,0.880781,-14.2079,11.5237,0.0265449,0.201692,0.0681749,0.227476,-2.05047,0.422642,0.253382,0.0350261,0.05063,-0.0280842,0.0224741,0.00231741,-0.158996,0.30859,0.00230216,0,0,0,0,0,0,0,-0.95654,-35.518,-0.185533,25.5823,-0.0964392,4.37249,-0.0429228,
0.205789,0.0667111,0.231498,-2.05069,0.370446,0.29567,0.0353177,0.0739749,-0.0116358,0.0733463,0.00312245,-1.05064,0.857192,0.000347657,2.59281,-2.80954,2.40252,-1.55576,-45.4764,29.1433,0.618673,5.64931,-3.23576,5.09663,0.768234,-14.2079,11.5237,0.0275557,0.201692,0.0681749,0.227476,-2.05047,0.422642,0.253382,0.0350261,0.05063,-0.0280842,0.0224741,0.00231741,-0.158996,0.30859,0.00230216,0,0,0,0,0,0,0,-0.95654,-35.518,-0.185533,25.5823,-0.0964392,4.37249,-0.0429228,
0.206503,0.0664792,0.2322,-2.05075,0.359485,0.304172,0.0353502,0.0770191,-0.0151044,0.0762299,0.000971565,-1.11455,0.898306,0.00109211,1.90265,-2.16783,1.80224,-1.3443,-39.9419,25.6963,0.465281,6.26199,-2.84753,5.78469,0.116519,-14.2858,11.3038,0.031339,0.203568,0.0672589,0.229634,-2.05085,0.404386,0.278929,0.035033,0.0422173,-0.00562706,0.117145,-0.00253756,-0.825373,1.0322,0.00107488,-1.05159,2.80714,11.8339,-0.606872,-83.2972,90.4519,-0.15341,0.995365,-32.376,1.56404,26.8796,-1.46424,5.63225,-0.0969389,
0.207206,0.0662536,0.232894,-2.05082,0.348384,0.312767,0.0353806,0.0791846,-0.0177248,0.0783383,-0.000900054,-1.16916,0.933512,0.00163253,1.35342,-1.63776,1.31773,-1.16976,-34.1301,22.0037,0.337763,6.84062,-2.91885,6.43724,0.0180103,-14.2858,11.3038,0.0335523,0.203568,0.0672589,0.229634,-2.05085,0.404386,0.278929,0.035033,0.0422173,-0.00562706,0.117145,-0.00253756,-0.825373,1.0322,0.00107488,0,0,0,0,0,0,0,0.995365,-32.376,1.56404,26.8796,-1.46424,5.63225,-0.0969389,
0.206834,0.0667313,0.232864,-2.05092,0.355026,0.322299,0.0353977,0.0793199,-0.0171987,0.0782659,-0.00244937,-1.20638,0.966806,0.00289496,0.0845646,0.328801,-0.0452409,-0.968322,-23.2642,20.8085,0.789021,5.36612,-0.837881,5.14404,-0.666891,-14.2858,11.3038,0.0793137,0.203568,0.0672589,0.229634,-2.05085,0.404386,0.278929,0.035033,0.0422173,-0.00562706,0.117145,-0.00253756,-0.825373,1.0322,0.00107488,0,0,0,0,0,0,0,0.995365,-32.376,1.56404,26.8796,-1.46424,5.63225,-0.0969389,
0.207465,0.0666136,0.233478,-2.05101,0.344013,0.331099,0.0354575,0.0792347,-0.016703,0.0779812,-0.00424455,-1.24042,0.993457,0.00381194,-0.0532402,0.309824,-0.177935,-1.12199,-21.2734,16.657,0.573109,5.9331,-0.967011,5.72481,-0.812759,-14.2858,11.3038,0.0808995,0.203568,0.0672589,0.229634,-2.05085,0.404386,0.278929,0.035033,0.0422173,-0.00562706,0.117145,-0.00253756,-0.825373,1.0322,0.00107488,0,0,0,0,0,0,0,0.995365,-32.376,1.56404,26.8796,-1.46424,5.63225,-0.0969389,
0.208091,0.0664998,0.234087,-2.05112,0.332897,0.339887,0.0355129,0.0790436,-0.0162059,0.0775965,-0.0061665,-1.27025,1.01445,0.0044347,-0.119447,0.310676,-0.240462,-1.20122,-18.6478,13.1185,0.38923,6.08915,-0.126998,5.85658,-1.92442,-14.3877,10.8323,0.0858025,0.207601,0.0676207,0.23402,-2.05084,0.353343,0.326427,0.0350216,0.16248,-0.018335,0.0811404,-0.0205417,-1.55232,1.5096,0.0033341,15.0329,-1.58849,-4.50058,-2.25051,-90.868,59.6742,0.282403,-0.0718349,-36.7915,0.564283,25.3601,0.971981,3.61626,0.0101778,
0.211139,0.0669791,0.237411,-2.05103,0.295651,0.375186,0.0352534,0.0789556,-0.0162564,0.0773802,-0.00701411,-1.29829,1.03841,0.00467561,-0.0549895,-0.0315853,-0.135193,-0.529757,-17.5232,14.9787,0.150563,6.73534,-0.273822,6.49401,-2.18485,-14.3877,10.8323,0.0799232,0.207601,0.0676207,0.23402,-2.05084,0.353343,0.326427,0.0350216,0.16248,-0.018335,0.0811404,-0.0205417,-1.55232,1.5096,0.0033341,0,0,0,0,0,0,0,-0.0718349,-36.7915,0.564283,25.3601,0.971981,3.61626,0.0101778,
0.211759,0.0668555,0.238022,-2.05113,0.284406,0.384108,0.0352968,0.0786776,-0.0160949,0.077156,-0.00825044,-1.31974,1.05378,0.00482505,-0.173729,0.100987,-0.14012,-0.772702,-13.4068,9.60491,0.0933999,6.99428,-0.335651,6.74415,-2.30912,-14.3877,10.8323,0.0763156,0.207601,0.0676207,0.23402,-2.05084,0.353343,0.326427,0.0350216,0.16248,-0.018335,0.0811404,-0.0205417,-1.55232,1.5096,0.0033341,0,0,0,0,0,0,0,-0.0718349,-36.7915,0.564283,25.3601,0.971981,3.61626,0.0101778,
0.212379,0.0667407,0.238634,-2.05126,0.273191,0.392915,0.0353376,0.0784314,-0.0157478,0.0770322,-0.00976093,-1.33619,1.06319,0.00487975,-0.153909,0.216884,-0.0773377,-0.944055,-10.2794,5.88086,0.0341875,7.22647,-0.389382,6.96209,-2.43214,-14.3877,10.8323,0.0712123,0.207601,0.0676207,0.23402,-2.05084,0.353343,0.326427,0.0350216,0.16248,-0.018335,0.0811404,-0.0205417,-1.55232,1.5096,0.0033341,0,0,0,0,0,0,0,-0.0718349,-36.7915,0.564283,25.3601,0.971981,3.61626,0.0101778,
0.213002,0.0666349,0.239251,-2.05141,0.261999,0.40163,0.0353759,0.0783164,-0.0152411,0.0770646,-0.0114486,-1.34875,1.06842,0.0048615,-0.0718674,0.316687,0.0202225,-1.0548,-7.84857,3.27128,-0.0114058,7.12978,0.0150684,6.86085,-2.93358,-14.3048,10.4439,0.0681536,0.213223,0.06733,0.238381,-2.05197,0.294149,0.379802,0.0350269,0.202354,0.0266407,0.116081,-0.0342897,-1.73498,1.63922,0.000327146,4.98427,5.62195,4.36757,-1.7185,-22.8333,16.2023,-0.375869,-4.1026,-36.1171,-2.48656,26.8042,0.782467,3.31139,0.0907442,
0.217373,0.0673152,0.242386,-2.05256,0.235321,0.428898,0.0351527,0.0801402,-0.0140007,0.0789168,-0.0127121,-1.35916,1.07696,0.00466939,1.1399,0.775252,1.15766,-0.789695,-6.50539,5.3341,-0.120068,7.31802,0.0303312,7.09573,-3.02045,-14.3048,10.4439,0.064397,0.213223,0.06733,0.238381,-2.05197,0.294149,0.379802,0.0350269,0.202354,0.0266407,0.116081,-0.0342897,-1.73498,1.63922,0.000327146,0,0,0,0,0,0,0,-4.1026,-36.1171,-2.48656,26.8042,0.782467,3.31139,0.0907442,
0.218047,0.0672424,0.243049,-2.05273,0.224477,0.437608,0.035177,0.0809477,-0.0130213,0.0797188,-0.0144356,-1.35841,1.07933,0.00434324,0.504674,0.61214,0.50121,-1.07719,0.463526,1.48393,-0.203842,7.47907,0.0459287,7.31794,-3.10626,-14.3048,10.4439,0.0606112,0.213223,0.06733,0.238381,-2.05197,0.294149,0.379802,0.0350269,0.202354,0.0266407,0.116081,-0.0342897,-1.73498,1.63922,0.000327146,0,0,0,0,0,0,0,-4.1026,-36.1171,-2.48656,26.8042,0.782467,3.31139,0.0907442,
0.218694,0.0671799,0.243684,-2.05293,0.214238,0.446193,0.0351949,0.0809412,-0.0119791,0.0796477,-0.016528,-1.34271,1.07808,0.00392125,-0.00408417,0.651364,-0.0444017,-1.30774,9.81663,-0.78417,-0.263746,7.63896,0.0532859,7.50677,-3.21157,-14.3048,10.4439,0.0563455,0.213223,0.06733,0.238381,-2.05197,0.294149,0.379802,0.0350269,0.202354,0.0266407,0.116081,-0.0342897,-1.73498,1.63922,0.000327146,0,0,0,0,0,0,0,-4.1026,-36.1171,-2.48656,26.8042,0.782467,3.31139,0.0907442,
0.219316,0.0671343,0.244292,-2.05312,0.204705,0.454524,0.0352089,0.0803026,-0.0107217,0.0789167,-0.0181147,-1.31249,1.07075,0.00348757,-0.399077,0.78591,-0.456875,-0.991711,18.8864,-4.58022,-0.271049,7.46803,0.473138,7.3402,-3.66956,-14.1842,10.0752,0.0552432,0.218489,0.0681079,0.244005,-2.05369,0.230299,0.437952,0.0350463,0.0841806,0.00926688,0.208233,-0.0694593,-1.8946,1.76798,0.00134454,-14.7717,-2.17172,11.519,-4.3962,-19.9525,16.0956,0.127174,0.463749,-38.3666,1.56404,28.7482,0.507809,3.05962,0.00376909,
0.222118,0.0680697,0.247498,-2.05429,0.175142,0.48711,0.0350509,0.0789619,-0.00974705,0.0773964,-0.016762,-1.27345,1.06385,0.00295222,-0.837998,0.609144,-0.950245,0.845467,24.3986,-4.30951,-0.334594,7.60213,0.565693,7.49274,-3.77545,-14.1842,10.0752,0.0513636,0.218489,0.0681079,0.244005,-2.05369,0.230299,0.437952,0.0350463,0.0841806,0.00926688,0.208233,-0.0694593,-1.8946,1.76798,0.00134454,0,0,0,0,0,0,0,0.463749,-38.3666,1.56404,28.7482,0.507809,3.05962,0.00376909,
0.222679,0.0680191,0.248043,-2.05435,0.167039,0.494646,0.0350577,0.0772059,-0.00906106,0.0755408,-0.0149975,-1.22133,1.0395,0.00253127,-1.09748,0.428744,-1.1597,1.10282,32.5767,-15.2223,-0.263093,7.71818,0.73492,7.60843,-3.84292,-13.3563,10.0752,0.0468385,0.218489,0.0681079,0.244005,-2.05369,0.230299,0.437952,0.0350463,0.0841806,0.00926688,0.208233,-0.0694593,-1.8946,1.76798,0.00134454,0,0,0,0,0,0,0,0.463749,-38.3666,1.56404,28.7482,0.507809,3.05962,0.00376909,
0.223223,0.0679641,0.248571,-2.0544,0.159703,0.501448,0.0350643,0.0753513,-0.00862385,0.0736396,-0.0131003,-1.16048,1.00164,0.0021886,-1.15911,0.273258,-1.18828,1.18572,38.0308,-23.6605,-0.214169,7.81173,0.93866,7.69293,-3.8827,-12.2058,10.0752,0.0438603,0.218489,0.0681079,0.244005,-2.05369,0.230299,0.437952,0.0350463,0.0841806,0.00926688,0.208233,-0.0694593,-1.8946,1.76798,0.00134454,0,0,0,0,0,0,0,0.463749,-38.3666,1.56404,28.7482,0.507809,3.05962,0.00376909,
0.22174,0.0680846,0.247081,-2.05384,0.186162,0.479783,0.0349561,0.0731715,-0.00859459,0.07135,-0.0100105,-1.08874,0.953294,0.00169576,-1.36238,0.0182878,-1.431,1.93115,44.8379,-30.2178,-0.308021,7.87981,1.32214,7.73682,-3.91614,-10.2062,8.42359,0.0395336,0.218489,0.0681079,0.244005,-2.05369,0.230299,0.437952,0.0350463,0.0841806,0.00926688,0.208233,-0.0694593,-1.8946,1.76798,0.00134454,0,0,0,0,0,0,0,0.463749,-38.3666,1.56404,28.7482,0.507809,3.05962,0.00376909,
0.222241,0.0680068,0.247566,-2.05382,0.180478,0.485095,0.0349547,0.071055,-0.00881895,0.0692119,-0.00767509,-1.0131,0.895446,0.00132016,-1.32284,-0.140228,-1.33629,1.45963,47.273,-36.1552,-0.234753,7.52497,1.68526,7.3691,-4.09174,-9.1802,7.07199,0.0393645,0.223245,0.0681474,0.249572,-2.05636,0.16242,0.49837,0.0350347,0.0327468,-0.00577644,0.26771,-0.0909802,-1.96957,1.81174,-0.00520089,-6.42922,-1.88041,7.43467,-2.69011,-9.37126,5.4696,-0.818179,3.07422,-35.0221,3.93648,26.9788,2.89642,2.15783,0.151169,
0.222734,0.0679249,0.248046,-2.05382,0.175415,0.489741,0.0349527,0.0691855,-0.00910326,0.0673632,-0.00603249,-0.937056,0.832509,0.00100836,-1.16841,-0.177694,-1.15543,1.02662,47.5291,-39.3352,-0.194873,7.44101,1.79958,7.27555,-4.08869,-8.38999,6.16851,0.0372617,0.223245,0.0681474,0.249572,-2.05636,0.16242,0.49837,0.0350347,0.0327468,-0.00577644,0.26771,-0.0909802,-1.96957,1.81174,-0.00520089,0,0,0,0,0,0,0,3.07422,-35.0221,3.93648,26.9788,2.89642,2.15783,0.151169,
0.223225,0.0678424,0.248524,-2.05382,0.170894,0.493802,0.0349495,0.0676128,-0.00934468,0.0658288,-0.00499564,-0.862659,0.767533,0.000725241,-0.98291,-0.150887,-0.958994,0.648035,46.4978,-40.6102,-0.17695,7.31764,1.88258,7.14426,-4.0814,-7.65879,5.35711,0.0342902,0.223245,0.0681474,0.249572,-2.05636,0.16242,0.49837,0.0350347,0.0327468,-0.00577644,0.26771,-0.0909802,-1.96957,1.81174,-0.00520089,0,0,0,0,0,0,0,3.07422,-35.0221,3.93648,26.9788,2.89642,2.15783,0.151169,
0.22616,0.0677205,0.2523,-2.05589,0.12724,0.532242,0.0348123,0.0654921,-0.0111413,0.0636892,-0.00141764,-0.798831,0.720459,0.000232675,-1.32548,-1.1229,-1.33728,2.23625,39.893,-29.421,-0.307854,7.16421,1.93793,6.98421,-4.07112,-6.99058,4.63076,0.0311126,0.223245,0.0681474,0.249572,-2.05636,0.16242,0.49837,0.0350347,0.0327468,-0.00577644,0.26771,-0.0909802,-1.96957,1.81174,-0.00520089,0,0,0,0,0,0,0,3.07422,-35.0221,3.93648,26.9788,2.89642,2.15783,0.151169,
0.226612,0.0675745,0.25274,-2.05581,0.123505,0.535805,0.0348012,0.0636954,-0.0125635,0.0619468,0.000682133,-0.732449,0.665442,-9.27203e-05,-1.12292,-0.888873,-1.08898,1.31236,41.4882,-34.3857,-0.203372,7.10878,1.72398,6.92792,-3.67878,-6.02701,3.85687,0.0267349,0.227496,0.0695377,0.254143,-2.05841,0.0998888,0.558591,0.0350347,-0.00388667,0.0907586,0.238529,-0.0255141,-1.59056,1.70432,-0.00147798,-4.57919,12.0669,-3.6476,8.18326,47.3765,-13.4273,0.465364,3.80817,-38.315,4.43635,26.6058,3.12164,1.76049,0.0980684,
0.227066,0.0674357,0.253183,-2.05577,0.120249,0.538803,0.0347908,0.0623082,-0.0135201,0.0606354,0.00162318,-0.667365,0.60729,-0.000333413,-0.86701,-0.597861,-0.819651,0.588157,40.6779,-36.345,-0.150433,6.92125,1.73701,6.73599,-3.66309,-5.46961,3.28127,0.0230917,0.227496,0.0695377,0.254143,-2.05841,0.0998888,0.558591,0.0350347,-0.00388667,0.0907586,0.238529,-0.0255141,-1.59056,1.70432,-0.00147798,0,0,0,0,0,0,0,3.80817,-38.315,4.43635,26.6058,3.12164,1.76049,0.0980684,
0.227524,0.0673075,0.25363,-2.05576,0.117385,0.54133,0.0347801,0.0612952,-0.0140214,0.0596961,0.00169334,-0.605485,0.549018,-0.00053522,-0.633122,-0.313299,-0.587031,0.0438507,38.6745,-36.42,-0.126129,6.72648,1.73501,6.53777,-3.64489,-4.96123,2.77207,0.0192567,0.227496,0.0695377,0.254143,-2.05841,0.0998888,0.558591,0.0350347,-0.00388667,0.0907586,0.238529,-0.0255141,-1.59056,1.70432,-0.00147798,0,0,0,0,0,0,0,3.80817,-38.315,4.43635,26.6058,3.12164,1.76049,0.0980684,
0.229825,0.0698559,0.256315,-2.05752,0.0754338,0.586404,0.0347753,0.0589713,-0.0142548,0.0573697,0.00438133,-0.553415,0.513791,-0.000892706,-1.45244,-0.145884,-1.45404,1.67999,32.5442,-22.0169,-0.223429,6.52882,1.72107,6.33728,-3.62432,-4.5041,2.32298,0.0156881,0.227496,0.0695377,0.254143,-2.05841,0.0998888,0.558591,0.0350347,-0.00388667,0.0907586,0.238529,-0.0255141,-1.59056,1.70432,-0.00147798,0,0,0,0,0,0,0,3.80817,-38.315,4.43635,26.6058,3.12164,1.76049,0.0980684,
0.23023,0.0697226,0.256709,-2.05744,0.0730983,0.588758,0.0347597,0.0573166,-0.0147354,0.0557582,0.00545762,-0.501119,0.469898,-0.00110589,-1.03415,-0.300398,-1.00717,0.67268,32.685,-27.4334,-0.13324,7.06138,1.12685,6.89007,-3.07543,-3.66286,1.89519,0.00811034,0.230666,0.0699136,0.257662,-2.05959,0.0602997,0.601895,0.0350326,0.016799,-0.0461818,0.181421,-0.0466321,-0.969661,1.03366,0.00119189,2.58571,-17.1176,-7.13853,-2.63975,77.6126,-83.833,0.333733,5.20465,-34.0462,5.48768,23.5153,1.76025,2.18438,0.050461,
0.230646,0.0695916,0.257114,-2.0574,0.0710846,0.59063,0.034745,0.0562433,-0.0150639,0.0547344,0.00536108,-0.451237,0.422703,-0.00125015,-0.670799,-0.205304,-0.639859,-0.0603349,31.1759,-29.4963,-0.0901595,6.86688,1.09788,6.69384,-3.05022,-3.29338,1.55,0.00491519,0.230666,0.0699136,0.257662,-2.05959,0.0602997,0.601895,0.0350326,0.016799,-0.0461818,0.181421,-0.0466321,-0.969661,1.03366,0.00119189,0,0,0,0,0,0,0,5.20465,-34.0462,5.48768,23.5153,1.76025,2.18438,0.050461,
0.233239,0.068692,0.260134,-2.05878,0.0458902,0.617994,0.0348278,0.0564708,-0.0174756,0.0549904,0.00673223,-0.400846,0.380306,-0.00149446,0.142168,-1.50729,0.160005,0.85697,31.4947,-26.4981,-0.152697,6.49165,1.02953,6.31639,-2.99315,-2.66576,0.987856,-0.000842801,0.230666,0.0699136,0.257662,-2.05959,0.0602997,0.601895,0.0350326,0.016799,-0.0461818,0.181421,-0.0466321,-0.969661,1.03366,0.00119189,0,0,0,0,0,0,0,5.20465,-34.0462,5.48768,23.5153,1.76025,2.18438,0.050461,
0.233694,0.0685008,0.260578,-2.05873,0.0445409,0.619287,0.03481,0.0565544,-0.0187604,0.0551142,0.00672447,-0.354409,0.336572,-0.0016408,0.0522431,-0.803023,0.0773679,-0.00485401,29.0228,-27.3341,-0.0914647,6.31236,0.993334,6.13649,-2.96144,-2.40143,0.761897,-0.00336238,0.230666,0.0699136,0.257662,-2.05959,0.0602997,0.601895,0.0350326,0.016799,-0.0461818,0.181421,-0.0466321,-0.969661,1.03366,0.00119189,0,0,0,0,0,0,0,5.20465,-34.0462,5.48768,23.5153,1.76025,2.18438,0.050461,
0.234147,0.0683359,0.261021,-2.05871,0.0433751,0.620272,0.034793,0.0565604,-0.0191319,0.0551548,0.00576994,-0.312671,0.293879,-0.0017376,0.00375622,-0.232201,0.0253543,-0.59658,26.0862,-26.6829,-0.0604997,6.3905,0.815145,6.21802,-2.81033,-2.00011,0.498789,-0.00640068,0.234007,0.0703557,0.260203,-2.0597,0.0339847,0.629364,0.0350252,0.117315,0.0409073,0.0456535,0.0225557,-0.674055,0.688782,-0.00120702,12.5646,10.8861,-16.9709,8.64847,36.9507,-43.1092,-0.299864,4.34375,-34.0462,4.51173,22.2696,1.35742,1.82,0.0641939,
0.234597,0.0681959,0.261461,-2.05873,0.0423555,0.62101,0.0347762,0.0565041,-0.0188065,0.0551221,0.00420795,-0.275628,0.25357,-0.00181028,-0.0352165,0.203406,-0.0204628,-0.976245,23.1519,-25.1932,-0.0454198,6.22311,0.780224,6.05047,-2.77467,-1.79161,0.331576,-0.00839798,0.234007,0.0703557,0.260203,-2.0597,0.0339847,0.629364,0.0350252,0.117315,0.0409073,0.0456535,0.0225557,-0.674055,0.688782,-0.00120702,0,0,0,0,0,0,0,4.34375,-34.0462,4.51173,22.2696,1.35742,1.82,0.0641939,
0.236335,0.0701563,0.262418,-2.05932,0.0248502,0.639594,0.0348371,0.0559173,-0.0176332,0.0545027,0.00344772,-0.244887,0.224668,-0.00193921,-0.36672,0.733339,-0.387069,-0.475138,19.2136,-18.0639,-0.0805849,6.06151,0.746914,5.88885,-2.73713,-1.608,0.18819,-0.010079,0.234007,0.0703557,0.260203,-2.0597,0.0339847,0.629364,0.0350252,0.117315,0.0409073,0.0456535,0.0225557,-0.674055,0.688782,-0.00120702,0,0,0,0,0,0,0,4.34375,-34.0462,4.51173,22.2696,1.35742,1.82,0.0641939,
0.236761,0.0700592,0.262832,-2.05935,0.024026,0.640186,0.034819,0.0553833,-0.0165329,0.0539528,0.00210254,-0.216514,0.194531,-0.00200456,-0.333733,0.687636,-0.343696,-0.840742,17.7331,-18.8355,-0.0408449,5.90543,0.715952,5.73294,-2.69791,-1.44466,0.0664965,-0.0116108,0.234007,0.0703557,0.260203,-2.0597,0.0339847,0.629364,0.0350252,0.117315,0.0409073,0.0456535,0.0225557,-0.674055,0.688782,-0.00120702,0,0,0,0,0,0,0,4.34375,-34.0462,4.51173,22.2696,1.35742,1.82,0.0641939,
0.237185,0.0699734,0.263244,-2.0594,0.0233141,0.640567,0.0348015,0.0549008,-0.015371,0.0534576,0.000409543,-0.191009,0.165141,-0.0020393,-0.301561,0.726193,-0.309506,-1.05812,15.9403,-18.3689,-0.0217087,5.90169,0.644114,5.7319,-2.63566,-1.21589,-0.095671,-0.0131399,0.237792,0.0700056,0.262662,-2.05982,0.0168653,0.64837,0.0350153,0.162721,-0.0495628,0.0350636,-0.0275984,-0.449417,0.449107,-0.00252671,5.67572,-11.3088,-1.32375,-6.26927,28.0798,-29.9594,-0.164961,1.67774,-33.8954,2.81373,23.7137,1.3327,1.74676,0.110886,
0.237606,0.0699007,0.263653,-2.05947,0.022691,0.640785,0.0347844,0.0544467,-0.014116,0.0529892,-0.0014522,-0.168385,0.137571,-0.00206041,-0.283841,0.784409,-0.292764,-1.16359,14.14,-17.2309,-0.013196,5.75566,0.618458,5.58627,-2.59331,-1.08867,-0.182627,-0.0142667,0.237792,0.0700056,0.262662,-2.05982,0.0168653,0.64837,0.0350153,0.162721,-0.0495628,0.0350636,-0.0275984,-0.449417,0.449107,-0.00252671,0,0,0,0,0,0,0,1.67774,-33.8954,2.81373,23.7137,1.3327,1.74676,0.110886,
0.24064,0.0689441,0.265397,-2.0596,0.0114103,0.65403,0.0348431,0.0557652,-0.0151485,0.054275,-0.00125166,-0.14758,0.120247,-0.00215943,0.824045,-0.645317,0.803596,0.125332,13.0034,-10.8276,-0.0618849,5.61412,0.595553,5.4452,-2.54951,-0.977428,-0.256066,-0.0151627,0.237792,0.0700056,0.262662,-2.05982,0.0168653,0.64837,0.0350153,0.162721,-0.0495628,0.0350636,-0.0275984,-0.449417,0.449107,-0.00252671,0,0,0,0,0,0,0,1.67774,-33.8954,2.81373,23.7137,1.3327,1.74676,0.110886,
0.241108,0.0688159,0.265853,-2.05963,0.0109772,0.654257,0.0348243,0.0563169,-0.0153245,0.0548128,-0.0017739,-0.128891,0.101874,-0.00219843,0.344859,-0.110038,0.336128,-0.326401,11.6805,-11.4832,-0.0243771,5.47667,0.575645,5.30832,-2.50448,-0.878897,-0.316914,-0.0159617,0.237792,0.0700056,0.262662,-2.05982,0.0168653,0.64837,0.0350153,0.162721,-0.0495628,0.0350636,-0.0275984,-0.449417,0.449107,-0.00252671,0,0,0,0,0,0,0,1.67774,-33.8954,2.81373,23.7137,1.3327,1.74676,0.110886,
0.241559,0.0687112,0.266292,-2.05968,0.0106002,0.654344,0.0348063,0.0563385,-0.0148756,0.0548273,-0.00275939,-0.11254,0.0836791,-0.00220671,0.0134965,0.280599,0.00908715,-0.615928,10.2197,-11.3719,-0.00517396,5.42969,0.500136,5.2591,-2.42981,-0.74041,-0.383827,-0.0167979,0.240936,0.069944,0.266482,-2.05962,0.00841296,0.657083,0.035018,0.0395638,0.032348,0.18039,0.0132199,-0.214446,0.179902,-0.00201491,-15.3947,10.2389,18.1658,5.10229,29.3714,-33.6505,0.0639745,1.63013,-34.8714,2.28609,23.19,0.0436365,2.622,0.0843355,
0.243981,0.0699804,0.269432,-2.05999,0.00625779,0.658706,0.0348735,0.0577698,-0.0125729,0.0561449,-0.00481239,-0.0956347,0.0646333,-0.0022424,0.894558,1.43917,0.823504,-1.28312,10.5655,-11.9036,-0.0223058,5.17215,0.47412,5.00298,-2.33417,-0.598813,-0.459864,-0.0176981,0.240936,0.069944,0.266482,-2.05962,0.00841296,0.657083,0.035018,0.0395638,0.032348,0.18039,0.0132199,-0.214446,0.179902,-0.00201491,0,0,0,0,0,0,0,1.63013,-34.8714,2.28609,23.19,0.0436365,2.622,0.0843355,
0.244459,0.0699565,0.269894,-2.06011,0.00605457,0.65852,0.0348555,0.0581516,-0.0106559,0.0564533,-0.00664972,-0.0815884,0.0470547,-0.00224359,0.238586,1.19816,0.192733,-1.14833,8.77894,-10.9867,-0.000747354,5.04769,0.464996,4.87932,-2.28498,-0.540856,-0.487393,-0.0180045,0.240936,0.069944,0.266482,-2.05962,0.00841296,0.657083,0.035018,0.0395638,0.032348,0.18039,0.0132199,-0.214446,0.179902,-0.00201491,0,0,0,0,0,0,0,1.63013,-34.8714,2.28609,23.19,0.0436365,2.622,0.0843355,
0.24491,0.0699378,0.27033,-2.06022,0.00586464,0.658266,0.0348383,0.0578198,-0.00899039,0.056074,-0.0082684,-0.070019,0.0312986,-0.00222573,-0.207384,1.04091,-0.237029,-1.01168,7.23091,-9.84756,0.0111656,4.92572,0.458137,4.75815,-2.23493,-0.490948,-0.510066,-0.0181774,0.240936,0.069944,0.266482,-2.05962,0.00841296,0.657083,0.035018,0.0395638,0.032348,0.18039,0.0132199,-0.214446,0.179902,-0.00201491,0,0,0,0,0,0,0,1.63013,-34.8714,2.28609,23.19,0.0436365,2.622,0.0843355,
0.245341,0.0699253,0.270745,-2.06035,0.00568459,0.657963,0.0348216,0.0570106,-0.00750554,0.0552345,-0.00967197,-0.0605164,0.017449,-0.00219817,-0.505711,0.928035,-0.524692,-0.877232,5.93912,-8.65599,0.017221,4.85368,0.391063,4.68258,-2.1628,-0.424617,-0.527287,-0.0183472,0.244321,0.0695377,0.271055,-2.06026,0.00502934,0.659832,0.035022,0.0294938,-0.0314867,0.213905,-0.0396783,-0.0910489,0.0272355,-0.000117659,-1.25875,-7.97934,4.18944,-6.61228,15.4246,-19.0834,0.237157,0.840641,-33.6495,1.28633,26.0068,-0.0479162,3.66295,0.0101778,
0.247662,0.0690981,0.274303,-2.06088,0.00446706,0.658617,0.0348976,0.0590045,-0.00707852,0.0571385,-0.0106595,-0.0495982,0.00552418,-0.00222328,1.24617,0.266888,1.18998,-0.617193,6.82387,-7.453,-0.015692,4.73594,0.388403,4.56571,-2.11136,-0.387255,-0.541632,-0.018375,0.244321,0.0695377,0.271055,-2.06026,0.00502934,0.659832,0.035022,0.0294938,-0.0314867,0.213905,-0.0396783,-0.0910489,0.0272355,-0.000117659,0,0,0,0,0,0,0,0.840641,-33.6495,1.28633,26.0068,-0.0479162,3.66295,0.0101778,
0.248155,0.0690678,0.27478,-2.061,0.00440861,0.658255,0.0348802,0.059537,-0.00642197,0.057621,-0.011503,-0.0411397,-0.00462896,-0.00221563,0.332801,0.410343,0.301572,-0.527213,5.28658,-6.34572,0.00478329,4.61998,0.387659,4.45068,-2.05937,-0.354678,-0.55226,-0.018372,0.244321,0.0695377,0.271055,-2.06026,0.00502934,0.659832,0.035022,0.0294938,-0.0314867,0.213905,-0.0396783,-0.0910489,0.0272355,-0.000117659,0,0,0,0,0,0,0,0.840641,-33.6495,1.28633,26.0068,-0.0479162,3.66295,0.0101778,
0.248613,0.0690477,0.275221,-2.06112,0.00433755,0.657873,0.0348635,0.0590811,-0.00563835,0.0571412,-0.0122125,-0.0346883,-0.0132551,-0.00218825,-0.284944,0.489761,-0.299884,-0.443424,4.03208,-5.39136,0.0171126,4.50562,0.388505,4.33723,-2.0068,-0.327327,-0.560891,-0.0182749,0.244321,0.0695377,0.271055,-2.06026,0.00502934,0.659832,0.035022,0.0294938,-0.0314867,0.213905,-0.0396783,-0.0910489,0.0272355,-0.000117659,0,0,0,0,0,0,0,0.840641,-33.6495,1.28633,26.0068,-0.0479162,3.66295,0.0101778,
0.249042,0.0690363,0.275634,-2.06124,0.00425469,0.657475,0.0348476,0.0579748,-0.00479745,0.056028,-0.0127954,-0.0298221,-0.020564,-0.0021498,-0.691402,0.525563,-0.695765,-0.364296,3.04139,-4.56803,0.0240299,4.39268,0.390928,4.22527,-1.9538,-0.30376,-0.566828,-0.0181667,0.244321,0.0695377,0.271055,-2.06026,0.00502934,0.659832,0.035022,0.0294938,-0.0314867,0.213905,-0.0396783,-0.0910489,0.0272355,-0.000117659,0,0,0,0,0,0,0,0.840641,-33.6495,1.28633,26.0068,-0.0479162,3.66295,0.0101778,
0.251496,0.0705405,0.27835,-2.06183,0.00420933,0.657872,0.0349114,0.0590175,-0.00253967,0.0569482,-0.0142593,-0.0233987,-0.0286913,-0.00214473,0.651674,1.41111,0.575118,-0.914931,4.01466,-5.07957,0.00316858,4.27291,0.364221,4.09435,-1.88986,-0.282095,-0.563711,-0.0180089,0.248286,0.0700002,0.275262,-2.06093,0.00387306,0.659788,0.035022,0.106434,0.0434693,0.129776,-0.014927,-0.0156558,-0.00543664,-5.51377e-06,9.61746,9.36949,-10.5161,3.09391,9.42414,-4.08402,0.0140181,-0.40112,-37.0415,-0.435472,25.7568,-0.0964392,3.58971,0.0101778,
0.251958,0.0705838,0.278793,-2.06198,0.00419703,0.657374,0.0348954,0.058766,-0.000950065,0.0566251,-0.0152118,-0.0190265,-0.0354091,-0.00211643,-0.157176,0.993503,-0.201916,-0.595347,2.7326,-4.19865,0.0176875,4.16239,0.36918,3.98483,-1.83606,-0.265845,-0.566571,-0.0178124,0.248286,0.0700002,0.275262,-2.06093,0.00387306,0.659788,0.035022,0.106434,0.0434693,0.129776,-0.014927,-0.0156558,-0.00543664,-5.51377e-06,0,0,0,0,0,0,0,-0.40112,-37.0415,-0.435472,25.7568,-0.0964392,3.58971,0.0101778,
0.252384,0.0706219,0.2792,-2.06212,0.00415819,0.656874,0.0348802,0.0576661,0.000192186,0.0554881,-0.0157767,-0.016192,-0.040817,-0.00207372,-0.68743,0.713907,-0.71064,-0.35305,1.77154,-3.37989,0.0266915,4.05289,0.375128,3.87634,-1.78188,-0.253174,-0.568944,-0.0175454,0.248286,0.0700002,0.275262,-2.06093,0.00387306,0.659788,0.035022,0.106434,0.0434693,0.129776,-0.014927,-0.0156558,-0.00543664,-5.51377e-06,0,0,0,0,0,0,0,-0.40112,-37.0415,-0.435472,25.7568,-0.0964392,3.58971,0.0101778,
0.25278,0.0706569,0.279579,-2.06226,0.00409694,0.656377,0.0348656,0.0560332,0.00103034,0.0538411,-0.0160493,-0.0144849,-0.0450776,-0.00202301,-1.02057,0.523847,-1.02936,-0.170351,1.06695,-2.66289,0.031697,3.94433,0.382073,3.76882,-1.72746,-0.242947,-0.569879,-0.0172753,0.248286,0.0700002,0.275262,-2.06093,0.00387306,0.659788,0.035022,0.106434,0.0434693,0.129776,-0.014927,-0.0156558,-0.00543664,-5.51377e-06,0,0,0,0,0,0,0,-0.40112,-37.0415,-0.435472,25.7568,-0.0964392,3.58971,0.0101778,
0.25141,0.0705563,0.278263,-2.06176,0.00436397,0.657818,0.0349142,0.0568663,0.00220781,0.0546041,-0.0164632,-0.0105824,-0.0484883,-0.00201325,0.520683,0.735918,0.476889,-0.258692,2.43907,-2.13166,0.00610106,3.86344,0.332453,3.68139,-1.6498,-0.231138,-0.559632,-0.0170035,0.252966,0.0699921,0.278817,-2.06231,0.00371113,0.658562,0.0350208,0.202706,-0.0259778,0.0318657,-0.057427,-0.0019714,-0.0502768,-0.000672574,12.0341,-8.68088,-12.2388,-5.3125,1.71055,-5.60502,-0.0833825,-2.20227,-34.4231,-1.56218,26.3797,0.208431,3.6364,0.017502,
0.251846,0.0706031,0.27868,-2.0619,0.00436593,0.657314,0.0348995,0.0564017,0.00293487,0.0541116,-0.0165642,-0.00841688,-0.0513884,-0.00197831,-0.290404,0.45441,-0.307809,-0.0631314,1.35344,-1.81257,0.021833,3.75653,0.340924,3.57556,-1.59491,-0.225907,-0.55948,-0.0166825,0.252966,0.0699921,0.278817,-2.06231,0.00371113,0.658562,0.0350208,0.202706,-0.0259778,0.0318657,-0.057427,-0.0019714,-0.0502768,-0.000672574,0,0,0,0,0,0,0,-2.20227,-34.4231,-1.56218,26.3797,0.208431,3.6364,0.017502,
0.252245,0.0706447,0.279061,-2.06202,0.00433438,0.65681,0.0348857,0.0550963,0.00338882,0.0528054,-0.0164386,-0.00752226,-0.0537099,-0.00192825,-0.815847,0.283724,-0.816351,0.078492,0.559141,-1.45097,0.0312875,3.65037,0.349956,3.47048,-1.53981,-0.223227,-0.559626,-0.0163042,0.252966,0.0699921,0.278817,-2.06231,0.00371113,0.658562,0.0350208,0.202706,-0.0259778,0.0318657,-0.057427,-0.0019714,-0.0502768,-0.000672574,0,0,0,0,0,0,0,-2.20227,-34.4231,-1.56218,26.3797,0.208431,3.6364,0.017502,
0.256106,0.0698854,0.281816,-2.06307,0.00415045,0.655669,0.0349247,0.0558526,0.00290516,0.0535194,-0.0159909,-0.00481855,-0.0561699,-0.00191158,0.472662,-0.302292,0.446223,0.279794,1.68982,-1.53746,0.0104227,3.44026,0.369663,3.26262,-1.42927,-0.223014,-0.559042,-0.0155013,0.252966,0.0699921,0.278817,-2.06231,0.00371113,0.658562,0.0350208,0.202706,-0.0259778,0.0318657,-0.057427,-0.0019714,-0.0502768,-0.000672574,0,0,0,0,0,0,0,-2.20227,-34.4231,-1.56218,26.3797,0.208431,3.6364,0.017502,
0.256528,0.0698984,0.282219,-2.06318,0.00415797,0.655159,0.0349112,0.0552224,0.00264889,0.0528845,-0.0154393,-0.00366679,-0.0577009,-0.00186749,-0.393834,-0.160169,-0.396794,0.344787,0.719855,-0.956872,0.0275568,3.30648,0.350231,3.11751,-1.35475,-0.227382,-0.546422,-0.0151513,0.25729,0.0708397,0.281864,-2.06335,0.00364283,0.657079,0.0350194,0.191634,0.0527981,0.0157774,-0.0100994,0.00255333,-0.0442618,-0.000618096,-1.38405,9.84698,-2.01104,5.91595,0.565592,0.751874,0.00680975,-1.28582,-36.494,-0.288683,26.6534,0.507809,3.27843,0.0303194,
0.256908,0.0699154,0.282582,-2.06328,0.00412923,0.65466,0.0348987,0.0537007,0.00254237,0.0513813,-0.0148278,-0.00365209,-0.0586246,-0.00180784,-0.951078,-0.0665709,-0.939497,0.382151,0.00918209,-0.577346,0.0372781,3.20338,0.361134,3.0156,-1.29934,-0.230896,-0.546912,-0.0146928,0.25729,0.0708397,0.281864,-2.06335,0.00364283,0.657079,0.0350194,0.191634,0.0527981,0.0157774,-0.0100994,0.00255333,-0.0442618,-0.000618096,0,0,0,0,0,0,0,-1.28582,-36.494,-0.288683,26.6534,0.507809,3.27843,0.0303194,
0.257256,0.0699354,0.282912,-2.06337,0.0040701,0.654169,0.0348869,0.0516361,0.00253459,0.049349,-0.0141838,-0.00439975,-0.0591658,-0.00174096,-1.2904,-0.00486678,-1.27019,0.402498,-0.467286,-0.338239,0.0418046,3.10119,0.372476,2.91465,-1.244,-0.234816,-0.547351,-0.01425,0.25729,0.0708397,0.281864,-2.06335,0.00364283,0.657079,0.0350194,0.191634,0.0527981,0.0157774,-0.0100994,0.00255333,-0.0442618,-0.000618096,0,0,0,0,0,0,0,-1.28582,-36.494,-0.288683,26.6534,0.507809,3.27843,0.0303194,
0.260009,0.0715936,0.284436,-2.06413,0.00407249,0.654521,0.0349325,0.0514622,0.00406859,0.0490972,-0.0145328,-0.0032244,-0.0614453,-0.00170647,-0.108675,0.958753,-0.15738,-0.218124,0.734595,-1.42469,0.0215525,3.00002,0.384146,2.81474,-1.1887,-0.239496,-0.549098,-0.0137623,0.25729,0.0708397,0.281864,-2.06335,0.00364283,0.657079,0.0350194,0.191634,0.0527981,0.0157774,-0.0100994,0.00255333,-0.0442618,-0.000618096,0,0,0,0,0,0,0,-1.28582,-36.494,-0.288683,26.6534,0.507809,3.27843,0.0303194,
0.260373,0.0716623,0.284779,-2.06425,0.00404844,0.65396,0.0349209,0.0502496,0.00497437,0.0478512,-0.0144736,-0.00318069,-0.063186,-0.00165453,-0.757865,0.56611,-0.778761,0.0369856,0.0273205,-1.08796,0.0324645,2.91847,0.346028,2.72419,-1.11886,-0.243771,-0.542427,-0.0133617,0.260554,0.0711743,0.284968,-2.06451,0.00364954,0.655513,0.0350231,0.0732323,-0.0256125,0.103193,-0.0473004,0.00194567,-0.0462057,-0.000241913,-14.8002,-9.80132,10.927,-4.65013,-0.0759573,-0.242982,0.0470229,0.0313145,-34.8436,1.23872,26.3797,0.489498,3.09899,-0.0026396,
0.2607,0.0717224,0.285087,-2.06435,0.00399756,0.653404,0.0349101,0.0483935,0.005482,0.0459908,-0.0141281,-0.00381648,-0.0644414,-0.00159361,-1.16004,0.317271,-1.16278,0.215953,-0.397368,-0.784622,0.0380709,2.81984,0.358518,2.62691,-1.06386,-0.247553,-0.546477,-0.0128551,0.260554,0.0711743,0.284968,-2.06451,0.00364954,0.655513,0.0350231,0.0732323,-0.0256125,0.103193,-0.0473004,0.00194567,-0.0462057,-0.000241913,0,0,0,0,0,0,0,0.0313145,-34.8436,1.23872,26.3797,0.489498,3.09899,-0.0026396,
0.260999,0.0717766,0.285367,-2.06444,0.00392972,0.652853,0.0348999,0.0461689,0.00573946,0.0437803,-0.0135865,-0.00474932,-0.0653289,-0.00153027,-1.3904,0.160909,-1.38157,0.338503,-0.583026,-0.55467,0.0395919,2.7228,0.37153,2.5313,-1.00912,-0.249413,-0.551643,-0.0123754,0.260554,0.0711743,0.284968,-2.06451,0.00364954,0.655513,0.0350231,0.0732323,-0.0256125,0.103193,-0.0473004,0.00194567,-0.0462057,-0.000241913,0,0,0,0,0,0,0,0.0313145,-34.8436,1.23872,26.3797,0.489498,3.09899,-0.0026396,
0.262906,0.0710523,0.28721,-2.06499,0.00383922,0.652768,0.034953,0.0457935,0.00477457,0.0433989,-0.0124901,-0.00356164,-0.0653609,-0.00150357,-0.234601,-0.603051,-0.238376,0.685237,0.742297,-0.019984,0.0166866,2.62764,0.385035,2.43762,-0.954613,-0.249232,-0.559396,-0.0118585,0.260554,0.0711743,0.284968,-2.06451,0.00364954,0.655513,0.0350231,0.0732323,-0.0256125,0.103193,-0.0473004,0.00194567,-0.0462057,-0.000241913,0,0,0,0,0,0,0,0.0313145,-34.8436,1.23872,26.3797,0.489498,3.09899,-0.0026396,
0.263222,0.0710656,0.287508,-2.06505,0.00383973,0.652244,0.0349426,0.0445424,0.00415209,0.0421644,-0.011452,-0.0028366,-0.0653896,-0.00146312,-0.781938,-0.389051,-0.771532,0.648843,0.453153,-0.0179941,0.0252827,2.52202,0.378061,2.31922,-0.89174,-0.248742,-0.559162,-0.0114429,0.262834,0.0719201,0.288434,-2.06518,0.003676,0.654009,0.0350254,-0.00817116,0.0556004,0.165459,-0.00329541,0.00543096,-0.039953,0.00445919,-10.1754,10.1516,7.78315,5.50063,0.43566,0.781586,0.587638,1.12232,-36.0933,1.81398,25.9314,0.294491,2.95342,-0.0227812,
0.263507,0.0710834,0.287775,-2.0651,0.00384314,0.651712,0.0349327,0.0427502,0.00376655,0.0404023,-0.010472,-0.00218399,-0.0655985,-0.00141669,-1.12016,-0.240964,-1.10129,0.612478,0.407883,-0.130534,0.0290168,2.43163,0.392925,2.23045,-0.837932,-0.240133,-0.572413,-0.0109295,0.262834,0.0719201,0.288434,-2.06518,0.003676,0.654009,0.0350254,-0.00817116,0.0556004,0.165459,-0.00329541,0.00543096,-0.039953,0.00445919,0,0,0,0,0,0,0,1.12232,-36.0933,1.81398,25.9314,0.294491,2.95342,-0.0227812,
0.263765,0.0711047,0.288016,-2.06515,0.00386379,0.651167,0.0349232,0.0406506,0.00354636,0.0383404,-0.00954492,-0.00123103,-0.0661065,-0.00137083,-1.31227,-0.137618,-1.28873,0.579435,0.595596,-0.317529,0.0286614,2.34421,0.408709,2.14476,-0.784535,-0.224656,-0.588702,-0.0104589,0.262834,0.0719201,0.288434,-2.06518,0.003676,0.654009,0.0350254,-0.00817116,0.0556004,0.165459,-0.00329541,0.00543096,-0.039953,0.00445919,0,0,0,0,0,0,0,1.12232,-36.0933,1.81398,25.9314,0.294491,2.95342,-0.0227812,
0.265057,0.0727664,0.290534,-2.06575,0.00480853,0.650528,0.0349497,0.0389944,0.00463936,0.0366467,-0.0091698,0.00510447,-0.0702458,-0.00134612,-1.03511,0.683124,-1.05854,0.234448,3.95969,-2.58702,0.0154417,2.18013,0.443469,1.98445,-0.678842,-0.167266,-0.634607,-0.0095242,0.262834,0.0719201,0.288434,-2.06518,0.003676,0.654009,0.0350254,-0.00817116,0.0556004,0.165459,-0.00329541,0.00543096,-0.039953,0.00445919,0,0,0,0,0,0,0,1.12232,-36.0933,1.81398,25.9314,0.294491,2.95342,-0.0227812,
0.265289,0.0728301,0.290746,-2.0658,0.0051265,0.649804,0.0349398,0.0369801,0.00530286,0.0346207,-0.00857335,0.0120328,-0.0742813,-0.00132544,-1.25893,0.414687,-1.26629,0.372785,4.33021,-2.52219,0.0129283,2.10444,0.462753,1.9108,-0.626512,-0.120966,-0.665253,-0.00906909,0.262834,0.0719201,0.288434,-2.06518,0.003676,0.654009,0.0350254,-0.00817116,0.0556004,0.165459,-0.00329541,0.00543096,-0.039953,0.00445919,0,0,0,0,0,0,0,1.12232,-36.0933,1.81398,25.9314,0.294491,2.95342,-0.0227812,
0.265497,0.0728882,0.290936,-2.06583,0.00554357,0.649048,0.0349298,0.0347885,0.00569519,0.032435,-0.0078227,0.0200529,-0.0783199,-0.0013103,-1.36972,0.245203,-1.36604,0.469156,5.01258,-2.52413,0.00946161,2.03358,0.48378,1.84214,-0.574303,-0.0589832,-0.701106,-0.00868073,0.262834,0.0719201,0.288434,-2.06518,0.003676,0.654009,0.0350254,-0.00817116,0.0556004,0.165459,-0.00329541,0.00543096,-0.039953,0.00445919,0,0,0,0,0,0,0,1.12232,-36.0933,1.81398,25.9314,0.294491,2.95342,-0.0227812,
0.265685,0.0729427,0.291106,-2.06586,0.00608473,0.648255,0.0349196,0.0325412,0.00591948,0.0302059,-0.00696607,0.0295713,-0.0824911,-0.00130117,-1.4046,0.140181,-1.3932,0.53539,5.94896,-2.60699,0.00570704,1.96798,0.506612,1.77887,-0.521977,0.0204666,-0.743531,-0.00828391,0.262834,0.0719201,0.288434,-2.06518,0.003676,0.654009,0.0350254,-0.00817116,0.0556004,0.165459,-0.00329541,0.00543096,-0.039953,0.00445919,0,0,0,0,0,0,0,1.12232,-36.0933,1.81398,25.9314,0.294491,2.95342,-0.0227812,
0.264715,0.07271,0.290211,-2.06558,0.00599445,0.650667,0.0349524,0.0327802,0.00694658,0.0304015,-0.00684719,0.039533,-0.0866189,-0.00132504,0.149384,0.641939,0.12224,0.0743051,6.22608,-2.57988,-0.01492,1.90791,0.53148,1.72132,-0.469254,0.121101,-0.792033,-0.00796305,0.262834,0.0719201,0.288434,-2.06518,0.003676,0.654009,0.0350254,-0.00817116,0.0556004,0.165459,-0.00329541,0.00543096,-0.039953,0.00445919,0,0,0,0,0,0,0,1.12232,-36.0933,1.81398,25.9314,0.294491,2.95342,-0.0227812,
0.264951,0.0727858,0.290427,-2.06562,0.00675986,0.649793,0.0349413,0.0321132,0.00745367,0.0297289,-0.00641882,0.0507615,-0.0911653,-0.0013373,-0.416893,0.316931,-0.420329,0.267726,7.01781,-2.84152,-0.00766412,1.85286,0.491626,1.65051,-0.370841,0.2453,-0.819043,-0.00779373,0.268457,0.0729398,0.293079,-2.06659,0.00382079,0.649621,0.0350179,0.132731,0.0284134,-0.000167844,-0.00956384,0.0224073,-0.0792179,-0.000909313,17.6128,-3.39837,-20.7033,-0.783554,2.12205,-4.90812,-0.671063,-2.12292,-34.8952,-1.13768,25.983,0.221249,3.05321,0.0440523,
0.265158,0.0728537,0.290616,-2.06565,0.0076816,0.648869,0.0349305,0.0308683,0.00766021,0.0285071,-0.00576814,0.0636527,-0.0960167,-0.00133973,-0.778042,0.129091,-0.763617,0.40668,8.057,-3.03212,-0.00151592,1.804,0.521046,1.60468,-0.31589,0.394428,-0.88051,-0.00755171,0.268457,0.0729398,0.293079,-2.06659,0.00382079,0.649621,0.0350179,0.132731,0.0284134,-0.000167844,-0.00956384,0.0224073,-0.0792179,-0.000909313,0,0,0,0,0,0,0,-2.12292,-34.8952,-1.13768,25.983,0.221249,3.05321,0.0440523,
0.265341,0.0729166,0.290782,-2.06566,0.00878614,0.647894,0.03492,0.0292716,0.00769941,0.0269568,-0.00495592,0.0785359,-0.101186,-0.00133476,-0.997911,0.0244987,-0.968935,0.507634,9.30198,-3.23097,0.00310349,1.76016,0.552439,1.56429,-0.25852,0.570461,-0.949679,-0.00728928,0.268457,0.0729398,0.293079,-2.06659,0.00382079,0.649621,0.0350179,0.132731,0.0284134,-0.000167844,-0.00956384,0.0224073,-0.0792179,-0.000909313,0,0,0,0,0,0,0,-2.12292,-34.8952,-1.13768,25.983,0.221249,3.05321,0.0440523,
