xiao-wang007/linearmpc_panda/paper_data/panda_inverse_dynamics_controller_Start_at_0_low_pass_acceleration/3/trajectory.csv
Commanded Joint 0 Position,Commanded Joint 1 Position,Commanded Joint 2 Position,Commanded Joint 3 Position,Commanded Joint 4 Position,Commanded Joint 5 Position,Commanded Joint 6 Position,Commanded Joint 0 Velocity,Commanded Joint 1 Velocity,Commanded Joint 2 Velocity,Commanded Joint 3 Velocity,Commanded Joint 4 Velocity,Commanded Joint 5 Velocity,Commanded Joint 6 Velocity,Commanded Joint 0 Acceleration,Commanded Joint 1 Acceleration,Commanded Joint 2 Acceleration,Commanded Joint 3 Acceleration,Commanded Joint 4 Acceleration,Commanded Joint 5 Acceleration,Commanded Joint 6 Acceleration,Commanded Joint 0 Torque,Commanded Joint 1 Torque,Commanded Joint 2 Torque,Commanded Joint 3 Torque,Commanded Joint 4 Torque,Commanded Joint 5 Torque,Commanded Joint 6 Torque,Actual Joint 0 Position,Actual Joint 1 Position,Actual Joint 2 Position,Actual Joint 3 Position,Actual Joint 4 Position,Actual Joint 5 Position,Actual Joint 6 Position,Actual Joint 0 Velocity,Actual Joint 1 Velocity,Actual Joint 2 Velocity,Actual Joint 3 Velocity,Actual Joint 4 Velocity,Actual Joint 5 Velocity,Actual Joint 6 Velocity,Actual Joint 0 Acceleration,Actual Joint 1 Acceleration,Actual Joint 2 Acceleration,Actual Joint 3 Acceleration,Actual Joint 4 Acceleration,Actual Joint 5 Acceleration,Actual Joint 6 Acceleration,Actual Joint 0 Torque,Actual Joint 1 Torque,Actual Joint 2 Torque,Actual Joint 3 Torque,Actual Joint 4 Torque,Actual Joint 5 Torque,Actual Joint 6 Torque,
-0.0104953,-0.0703461,0.0256742,-1.85598,0.0339452,0.244722,0.00531356,0.000663445,0.0200753,0.000792175,-0.033975,-0.00591205,0.0537402,-0.000381838,0.414653,12.5471,0.495109,-21.2344,-3.69503,33.5876,-0.238649,0.0531504,22.1885,0.187482,-24.3562,-0.75791,1.98867,-0.0246157,-0.0105455,-0.0709785,0.025643,-1.85318,0.0343132,0.238973,0.00535123,0.000243802,0.00146282,-0.000603316,-0.00100527,0.00194438,-0.000758594,0.000846815,0,0,0,0,0,0,0,0.0828892,-33.0226,-0.185533,27.3755,0.593868,3.09899,0.0303194,
-0.0105466,-0.0709528,0.0256414,-1.85319,0.0343286,0.238958,0.00535163,0.000527816,0.0162385,0.000627342,-0.0272591,-0.00466951,0.0429101,-0.0003054,-0.0847683,-2.39802,-0.10302,4.19747,0.776586,-6.76881,0.0477736,0.0474365,22.6291,0.17715,-24.2726,-0.757683,1.73749,-0.0231016,-0.0105455,-0.0709785,0.025643,-1.85318,0.0343132,0.238973,0.00535123,0.000243802,0.00146282,-0.000603316,-0.00100527,0.00194438,-0.000758594,0.000846815,0,0,0,0,0,0,0,0.0828892,-33.0226,-0.185533,27.3755,0.593868,3.09899,0.0303194,
-0.0105466,-0.0709467,0.0256412,-1.8532,0.0343299,0.238957,0.00535161,0.000421336,0.0131428,0.000497719,-0.0218695,-0.00370324,0.0342822,-0.000244695,-0.0665495,-1.93476,-0.0810142,3.36846,0.60392,-5.39243,0.0379409,0.0402712,23.2008,0.165446,-24.1646,-0.756678,1.38965,-0.0211338,-0.0105455,-0.0709785,0.025643,-1.85318,0.0343132,0.238973,0.00535123,0.000243802,0.00146282,-0.000603316,-0.00100527,0.00194438,-0.000758594,0.000846815,0,0,0,0,0,0,0,0.0828892,-33.0226,-0.185533,27.3755,0.593868,3.09899,0.0303194,
-0.0105466,-0.0709415,0.0256411,-1.8532,0.0343306,0.238956,0.00535159,0.000337005,0.0106459,0.000394947,-0.0175444,-0.00294462,0.0274118,-0.000196359,-0.0527073,-1.56062,-0.0642325,2.70323,0.474138,-4.29403,0.0302097,0.0343904,23.7275,0.1559,-23.9964,-0.754135,1.00481,-0.0191363,-0.0105468,-0.0708871,0.0256438,-1.85323,0.0343089,0.238981,0.00534792,-0.0017268,0.00717916,-0.000928227,-0.000754707,0.0024566,-0.00126967,0.000327127,-0.246325,0.714543,-0.0406139,0.0313206,0.0640268,-0.0638847,-0.064961,0.158268,-32.8243,-0.16173,26.8796,0.575558,2.94701,0.050461,
-0.0106658,-0.0708072,0.0255349,-1.85315,0.0364703,0.237631,0.0053268,-0.00131986,0.00929999,-0.00120288,-0.0131185,0.0306681,0.00120644,-0.000356876,-1.03554,-0.84117,-0.998645,2.76617,21.0079,-16.3783,-0.100323,0.457051,0.226633,0.453656,-0.277125,2.76381,-1.90933,-0.0020699,-0.0105468,-0.0708871,0.0256438,-1.85323,0.0343089,0.238981,0.00534792,-0.0017268,0.00717916,-0.000928227,-0.000754707,0.0024566,-0.00126967,0.000327127,0,0,0,0,0,0,0,0.158268,-32.8243,-0.16173,26.8796,0.575558,2.94701,0.050461,
-0.0107238,-0.0707884,0.0254774,-1.85313,0.0380729,0.236603,0.00532224,-0.00250635,0.00790868,-0.00240132,-0.00981443,0.0645994,-0.0247208,-0.000399655,-0.741554,-0.869571,-0.749021,2.06505,21.2071,-16.2045,-0.0267369,0.452388,0.22531,0.448927,-0.274191,2.73997,-1.89381,-0.00202915,-0.0105468,-0.0708871,0.0256438,-1.85323,0.0343089,0.238981,0.00534792,-0.0017268,0.00717916,-0.000928227,-0.000754707,0.0024566,-0.00126967,0.000327127,0,0,0,0,0,0,0,0.158268,-32.8243,-0.16173,26.8796,0.575558,2.94701,0.050461,
-0.0107707,-0.0707771,0.0254299,-1.85311,0.0398409,0.235445,0.00531955,-0.00317569,0.00661045,-0.00310829,-0.00741187,0.0958805,-0.0487255,-0.000386945,-0.418341,-0.811394,-0.441858,1.5016,19.5507,-15.0029,0.00794421,0.447737,0.223517,0.444223,-0.271389,2.71599,-1.87828,-0.00198864,-0.0105468,-0.0708871,0.0256438,-1.85323,0.0343089,0.238981,0.00534792,-0.0017268,0.00717916,-0.000928227,-0.000754707,0.0024566,-0.00126967,0.000327127,0,0,0,0,0,0,0,0.158268,-32.8243,-0.16173,26.8796,0.575558,2.94701,0.050461,
-0.0108048,-0.0707694,0.0253946,-1.8531,0.0417057,0.234202,0.00531784,-0.0033937,0.00547942,-0.0033678,-0.00569575,0.123325,-0.0700671,-0.000352238,-0.136256,-0.706888,-0.162191,1.07257,17.1527,-13.3385,0.021692,0.443033,0.241652,0.438093,-0.264345,2.69229,-1.8559,-0.00198862,-0.0105265,-0.0701555,0.0256569,-1.85436,0.0343236,0.239346,0.00534778,-0.00137622,-0.00553156,-0.00211346,-0.0326519,0.00424779,0.0146905,-0.00082852,0.0438216,-1.58884,-0.148155,-3.98715,0.223899,1.99502,-0.144456,-0.0440639,-32.6735,-0.288683,27.5739,0.575558,3.39745,0.0577852,
-0.0107888,-0.0700521,0.0254352,-1.85407,0.0417379,0.233608,0.00528854,-0.0060189,0.00541143,-0.00565534,-0.000674056,0.212116,-0.14372,-0.000803069,-1.64075,-0.0424962,-1.42971,3.13856,55.4944,-46.0331,-0.28177,3.9415,1.17919,4.01063,-1.72165,9.85409,-8.11275,-0.00166207,-0.0105265,-0.0701555,0.0256569,-1.85436,0.0343236,0.239346,0.00534778,-0.00137622,-0.00553156,-0.00211346,-0.0326519,0.00424779,0.0146905,-0.00082852,0,0,0,0,0,0,0,-0.0440639,-32.6735,-0.288683,27.5739,0.575558,3.39745,0.0577852,
-0.0108821,-0.0700353,0.0253484,-1.85396,0.047228,0.229326,0.00527891,-0.00714718,0.00475114,-0.00669342,0.00218063,0.306947,-0.222009,-0.000883124,-0.705175,-0.412682,-0.648802,1.78418,59.2692,-48.9306,-0.0500346,3.82743,1.18008,3.90426,-1.67671,9.63176,-7.93587,-0.00141918,-0.0105265,-0.0701555,0.0256569,-1.85436,0.0343236,0.239346,0.00534778,-0.00137622,-0.00553156,-0.00211346,-0.0326519,0.00424779,0.0146905,-0.00082852,0,0,0,0,0,0,0,-0.0440639,-32.6735,-0.288683,27.5739,0.575558,3.39745,0.0577852,
-0.0109221,-0.0700288,0.0253115,-1.85391,0.0532477,0.224561,0.00527495,-0.00671708,0.00396355,-0.00627655,0.00317651,0.396049,-0.296748,-0.000805491,0.268809,-0.492245,0.260541,0.622422,55.6892,-46.7116,0.0485209,3.71502,1.16508,3.79382,-1.63772,9.42296,-7.7603,-0.00195185,-0.0105265,-0.0701555,0.0256569,-1.85436,0.0343236,0.239346,0.00534778,-0.00137622,-0.00553156,-0.00211346,-0.0326519,0.00424779,0.0146905,-0.00082852,0,0,0,0,0,0,0,-0.0440639,-32.6735,-0.288683,27.5739,0.575558,3.39745,0.0577852,
-0.0109071,-0.0700215,0.0253281,-1.85389,0.059541,0.219498,0.00527353,-0.00499866,0.00335121,-0.0046075,0.00287925,0.474172,-0.36398,-0.000679852,1.07401,-0.38271,1.04316,-0.185787,48.8268,-42.0204,0.0785241,3.61071,1.15483,3.68755,-1.5956,9.20771,-7.58634,-0.00290985,-0.010552,-0.0696162,0.0257444,-1.85508,0.0354342,0.238801,0.00534971,0.00198035,0.0252481,0.0111601,-0.00658954,0.0890531,-0.0396058,0.000433963,0.419572,3.84745,1.6592,3.25779,10.6007,-6.78704,0.15781,1.88404,-35.4427,1.56404,25.4831,1.38763,1.82,0.0440523,
-0.00989985,-0.0694702,0.0265721,-1.85512,0.0430999,0.229075,0.00558442,0.00639122,0.00326833,0.00905449,0.000292604,0.495293,-0.440324,0.00198043,7.11867,-0.0518024,8.53875,-1.61665,13.2002,-47.7149,1.66268,20.5822,3.13163,21.7664,-10.0139,10.8724,-14.2364,0.188561,-0.010552,-0.0696162,0.0257444,-1.85508,0.0354342,0.238801,0.00534971,0.00198035,0.0252481,0.0111601,-0.00658954,0.0890531,-0.0396058,0.000433963,0,0,0,0,0,0,0,1.88404,-35.4427,1.56404,25.4831,1.38763,1.82,0.0440523,
-0.0093429,-0.0695174,0.0272412,-1.85534,0.0488538,0.221612,0.00567137,0.0190369,0.00143467,0.0239707,-0.00528154,0.54008,-0.538816,0.00375805,7.90353,-1.14604,9.32265,-3.48384,27.9923,-61.5574,1.11101,18.7266,2.45238,20.0581,-9.68367,10.8724,-14.2364,0.131996,-0.010552,-0.0696162,0.0257444,-1.85508,0.0354342,0.238801,0.00534971,0.00198035,0.0252481,0.0111601,-0.00658954,0.0890531,-0.0396058,0.000433963,0,0,0,0,0,0,0,1.88404,-35.4427,1.56404,25.4831,1.38763,1.82,0.0440523,
-0.00860571,-0.0696577,0.0279616,-1.85576,0.0553966,0.213158,0.00574417,0.0336593,-0.00236143,0.0371882,-0.0146903,0.595635,-0.642413,0.00482656,9.139,-2.37256,8.26092,-5.8805,34.7218,-64.7482,0.667814,17.3214,1.60237,18.8613,-9.52303,10.8724,-14.2364,0.11002,-0.010552,-0.0696162,0.0257444,-1.85508,0.0354342,0.238801,0.00534971,0.00198035,0.0252481,0.0111601,-0.00658954,0.0890531,-0.0396058,0.000433963,0,0,0,0,0,0,0,1.88404,-35.4427,1.56404,25.4831,1.38763,1.82,0.0440523,
-0.00924118,-0.069506,0.026915,-1.85589,0.0424195,0.229793,0.00568125,0.0470152,-0.000968317,0.0481761,-0.024329,0.582999,-0.653828,0.00737445,8.34744,0.870695,6.86741,-6.02416,-7.89777,-7.13466,1.59243,30.8561,6.08836,30.3412,-18.1805,10.8724,-14.2364,0.240837,-0.010126,-0.0695592,0.0267184,-1.85633,0.04667,0.229027,0.00534925,0.0244514,0.0205496,0.0586916,-0.047079,0.584271,-0.5015,-0.000226604,2.80889,-0.58731,5.94143,-5.06118,61.9022,-57.7368,-0.0825708,7.96985,-31.3246,7.76094,21.4246,1.74743,0.394522,0.0907442,
-0.00829383,-0.0695071,0.0279322,-1.85661,0.0478423,0.222701,0.00578613,0.061296,-0.000802555,0.0639722,-0.0375623,0.601969,-0.700365,0.00852156,8.9255,0.103601,9.87256,-8.27079,11.8565,-29.0853,0.716942,27.8802,6.15041,27.368,-17.5067,10.8034,-14.1919,0.168401,-0.010126,-0.0695592,0.0267184,-1.85633,0.04667,0.229027,0.00534925,0.0244514,0.0205496,0.0586916,-0.047079,0.584271,-0.5015,-0.000226604,0,0,0,0,0,0,0,7.96985,-31.3246,7.76094,21.4246,1.74743,0.394522,0.0907442,
-0.0071739,-0.0694735,0.0290701,-1.85745,0.0541305,0.214493,0.00584838,0.077035,0.00019977,0.0796246,-0.0509018,0.638779,-0.765492,0.00837338,9.83689,0.626453,9.78275,-8.33723,23.006,-40.7043,-0.0926123,24.7727,4.7739,25.8943,-17.8956,10.8034,-14.1919,0.126492,-0.010126,-0.0695592,0.0267184,-1.85633,0.04667,0.229027,0.00534925,0.0244514,0.0205496,0.0586916,-0.047079,0.584271,-0.5015,-0.000226604,0,0,0,0,0,0,0,7.96985,-31.3246,7.76094,21.4246,1.74743,0.394522,0.0907442,
-0.00595384,-0.0694066,0.0303086,-1.85838,0.0610606,0.2055,0.00589547,0.0921294,0.00183094,0.0946608,-0.0640507,0.684275,-0.837201,0.00787592,9.43401,1.01948,9.39766,-8.21807,28.4353,-44.8182,-0.31091,23.0962,5.02877,23.4646,-17.105,10.8034,-14.1919,0.0731383,-0.010126,-0.0695592,0.0267184,-1.85633,0.04667,0.229027,0.00534925,0.0244514,0.0205496,0.0586916,-0.047079,0.584271,-0.5015,-0.000226604,0,0,0,0,0,0,0,7.96985,-31.3246,7.76094,21.4246,1.74743,0.394522,0.0907442,
-0.00808629,-0.0696081,0.0288363,-1.85851,0.0575808,0.216331,0.0057041,0.103825,0.000317665,0.105943,-0.0822672,0.69189,-0.84551,0.00973396,7.30972,-0.945794,7.05157,-11.3853,4.75953,-5.1933,1.16127,34.5596,6.64143,36.1247,-25.4066,10.8034,-14.1919,0.242552,-0.010126,-0.0695592,0.0267184,-1.85633,0.04667,0.229027,0.00534925,0.0244514,0.0205496,0.0586916,-0.047079,0.584271,-0.5015,-0.000226604,0,0,0,0,0,0,0,7.96985,-31.3246,7.76094,21.4246,1.74743,0.394522,0.0907442,
-0.00669975,-0.0696197,0.0302663,-1.8599,0.0640075,0.208228,0.00576222,0.117724,-3.35148e-05,0.120504,-0.100495,0.714179,-0.878984,0.00924017,8.68664,-0.219487,9.10064,-11.3921,13.9307,-20.9209,-0.308621,31.2962,5.31518,31.7462,-25.3916,10.7554,-14.0082,0.14685,-0.00805225,-0.0699577,0.0310691,-1.86014,0.0685814,0.204801,0.00534641,0.0935329,0.0128011,0.182455,-0.137402,0.66124,-0.825064,-0.00235746,8.63518,-0.968553,15.4704,-11.2904,9.62119,-40.4455,-0.266358,14.1826,-28.2579,14.3347,20.5994,2.5476,-0.335153,0.0303194,
-0.00519558,-0.0696019,0.0318212,-1.86141,0.0709933,0.199348,0.00578371,0.131783,0.000416248,0.135276,-0.118028,0.745987,-0.925177,0.00792948,8.78714,0.281102,9.23236,-10.9585,19.8796,-28.8707,-0.819176,27.9934,5.06555,28.7887,-24.5619,10.7554,-14.0082,0.058587,-0.00805225,-0.0699577,0.0310691,-1.86014,0.0685814,0.204801,0.00534641,0.0935329,0.0128011,0.182455,-0.137402,0.66124,-0.825064,-0.00235746,0,0,0,0,0,0,0,14.1826,-28.2579,14.3347,20.5994,2.5476,-0.335153,0.0303194,
-0.0049401,-0.0699357,0.0342917,-1.86372,0.0808756,0.189168,0.00553028,0.146962,0.00107467,0.150963,-0.141899,0.758338,-0.946233,0.0072813,9.48717,0.411512,9.80442,-14.9191,7.71931,-13.16,-0.405118,35.5214,6.98129,36.6565,-32.1349,10.7554,-14.0082,0.165095,-0.00805225,-0.0699577,0.0310691,-1.86014,0.0685814,0.204801,0.00534641,0.0935329,0.0128011,0.182455,-0.137402,0.66124,-0.825064,-0.00235746,0,0,0,0,0,0,0,14.1826,-28.2579,14.3347,20.5994,2.5476,-0.335153,0.0303194,
-0.0031738,-0.0698677,0.0361093,-1.86576,0.0879072,0.180248,0.00551015,0.161727,0.00256118,0.166209,-0.164448,0.782461,-0.979987,0.00532195,9.22808,0.929071,9.52834,-14.0932,15.0771,-21.0966,-1.22459,31.3365,6.33304,32.1785,-31.3074,10.7554,-14.0082,0.0308268,-0.00805225,-0.0699577,0.0310691,-1.86014,0.0685814,0.204801,0.00534641,0.0935329,0.0128011,0.182455,-0.137402,0.66124,-0.825064,-0.00235746,0,0,0,0,0,0,0,14.1826,-28.2579,14.3347,20.5994,2.5476,-0.335153,0.0303194,
-0.00136395,-0.0697729,0.0379753,-1.86789,0.0954052,0.170812,0.00545375,0.174628,0.00441962,0.179618,-0.184879,0.813418,-1.0199,0.00284756,8.06303,1.16152,8.38061,-12.7692,19.3479,-24.9459,-1.5465,28.5542,5.2146,29.3348,-30.7776,10.7453,-13.7336,-0.0313839,-0.00316417,-0.0706464,0.0397843,-1.86759,0.0933927,0.171809,0.00533568,0.165105,-0.0243407,0.30832,-0.247138,0.741186,-1.02617,-0.00033469,8.94654,-4.64273,15.7331,-13.717,9.99328,-25.1382,0.252847,14.4603,-27.9088,14.1364,21.9958,3.01178,-0.0366915,0.0843355,
0.000455003,-0.0696617,0.039851,-1.87009,0.10326,0.160985,0.00538143,0.185176,0.0063151,0.190588,-0.202812,0.847097,-1.06159,0.000469994,6.59262,1.18468,6.85668,-11.2082,21.0494,-26.058,-1.48598,26.2735,4.14497,27.0358,-30.3907,10.7453,-13.7336,-0.0714643,-0.00316417,-0.0706464,0.0397843,-1.86759,0.0933927,0.171809,0.00533568,0.165105,-0.0243407,0.30832,-0.247138,0.741186,-1.02617,-0.00033469,0,0,0,0,0,0,0,14.4603,-27.9088,14.1364,21.9958,3.01178,-0.0366915,0.0843355,
0.000867856,-0.0709102,0.0439516,-1.87253,0.107349,0.154266,0.00524059,0.199121,0.00250074,0.204989,-0.226671,0.859942,-1.07249,-0.0016687,8.71536,-2.38397,9.00025,-14.9117,8.02854,-6.81332,-1.33668,32.7289,5.8166,33.6304,-37.9524,10.7453,-13.7336,-0.020991,-0.00316417,-0.0706464,0.0397843,-1.86759,0.0933927,0.171809,0.00533568,0.165105,-0.0243407,0.30832,-0.247138,0.741186,-1.02617,-0.00033469,0,0,0,0,0,0,0,14.4603,-27.9088,14.1364,21.9958,3.01178,-0.0366915,0.0843355,
0.00289954,-0.0709645,0.0460441,-1.87525,0.115113,0.145212,0.00511823,0.210089,0.000641463,0.216302,-0.249142,0.882052,-1.08436,-0.00439415,6.85499,-1.16205,7.07117,-14.0446,13.8183,-7.41418,-1.7034,29.2366,4.29874,30.0438,-37.5353,10.7453,-13.1476,-0.102463,-0.00316417,-0.0706464,0.0397843,-1.86759,0.0933927,0.171809,0.00533568,0.165105,-0.0243407,0.30832,-0.247138,0.741186,-1.02617,-0.00033469,0,0,0,0,0,0,0,14.4603,-27.9088,14.1364,21.9958,3.01178,-0.0366915,0.0843355,
0.00489756,-0.0709844,0.0481022,-1.87804,0.123213,0.136163,0.0049811,0.218022,1.58907e-05,0.224495,-0.269213,0.908154,-1.0937,-0.00694352,4.95791,-0.390983,5.12005,-12.5448,16.314,-5.84141,-1.59336,26.831,3.04929,27.5963,-36.8717,10.7808,-12.1424,-0.151075,0.00441787,-0.0705478,0.0526065,-1.87919,0.115984,0.137357,0.00534177,0.229625,-0.000259711,0.411924,-0.391743,0.631727,-1.03412,-0.000281708,8.065,3.01013,12.9506,-18.0756,-13.6825,-0.993242,0.00662275,7.08118,-27.5597,6.73738,19.3298,2.29126,-1.14448,0.0706026,
0.00684709,-0.0709814,0.0501108,-1.88088,0.131542,0.127198,0.00484242,0.223156,8.93315e-05,0.229812,-0.286362,0.934737,-1.0991,-0.00902172,3.20873,0.0459005,3.32327,-10.7178,16.6143,-3.37067,-1.29888,24.8745,2.04745,25.5913,-36.3842,10.7808,-11.5473,-0.167279,0.00441787,-0.0705478,0.0526065,-1.87919,0.115984,0.137357,0.00534177,0.229625,-0.000259711,0.411924,-0.391743,0.631727,-1.03412,-0.000281708,0,0,0,0,0,0,0,7.08118,-27.5597,6.73738,19.3298,2.29126,-1.14448,0.0706026,
0.00905694,-0.0703108,0.0574209,-1.88587,0.129887,0.12167,0.00496439,0.235024,0.00361406,0.242225,-0.313783,0.93315,-1.07068,-0.0123914,7.41803,2.20295,7.75838,-17.1382,-0.992083,17.7577,-2.10604,28.4847,5.60276,29.2762,-42.8277,10.7808,-9.93292,-0.198797,0.00441787,-0.0705478,0.0526065,-1.87919,0.115984,0.137357,0.00534177,0.229625,-0.000259711,0.411924,-0.391743,0.631727,-1.03412,-0.000281708,0,0,0,0,0,0,0,7.08118,-27.5597,6.73738,19.3298,2.29126,-1.14448,0.0706026,
0.0112043,-0.0701491,0.0596373,-1.88931,0.137864,0.114442,0.00475272,0.241704,0.00693226,0.249191,-0.33704,0.94596,-1.03726,-0.015205,4.17441,2.07387,4.35364,-14.5358,8.00658,20.8872,-1.75849,25.8763,3.95924,26.6061,-42.4299,10.7808,-8.86573,-0.24212,0.00441787,-0.0705478,0.0526065,-1.87919,0.115984,0.137357,0.00534177,0.229625,-0.000259711,0.411924,-0.391743,0.631727,-1.03412,-0.000281708,0,0,0,0,0,0,0,7.08118,-27.5597,6.73738,19.3298,2.29126,-1.14448,0.0706026,
0.0132498,-0.0699833,0.0617476,-1.89276,0.146174,0.107637,0.00454802,0.244499,0.00969142,0.252109,-0.355916,0.964517,-0.999933,-0.0172814,1.74745,1.72448,1.82389,-11.7972,11.5981,23.3326,-1.29776,24.0257,2.52086,24.7469,-41.726,10.7362,-7.72076,-0.251993,0.0124485,-0.0703589,0.0677536,-1.89441,0.137337,0.10162,0.00534335,0.237787,-0.0058508,0.434822,-0.463302,0.622717,-1.02888,0.00139822,1.02029,-0.698886,2.86224,-8.94486,-1.12625,0.654251,0.209991,0.158268,-29.7298,-0.213304,20.8493,1.84539,0.161978,0.0577852,
0.0152093,-0.0698331,0.0637686,-1.89628,0.154679,0.101906,0.00435889,0.244589,0.0115077,0.252214,-0.372885,0.984234,-0.943218,-0.0185534,0.0560305,1.13515,0.0652936,-10.6056,12.3228,35.447,-0.795006,22.4985,1.61108,23.1802,-41.1649,10.7362,-7.06051,-0.245049,0.0124485,-0.0703589,0.0677536,-1.89441,0.137337,0.10162,0.00534335,0.237787,-0.0058508,0.434822,-0.463302,0.622717,-1.02888,0.00139822,0,0,0,0,0,0,0,0.158268,-29.7298,-0.213304,20.8493,1.84539,0.161978,0.0577852,
0.0171282,-0.0700439,0.0726223,-1.9015,0.151209,0.0861757,0.00492037,0.252127,0.0137708,0.260223,-0.386723,0.97253,-0.941501,-0.020266,4.71144,1.41449,5.00559,-8.64891,-7.31472,1.07313,-1.07035,25.9379,3.75981,26.7063,-42.2074,10.7362,-8.59475,-0.243673,0.0124485,-0.0703589,0.0677536,-1.89441,0.137337,0.10162,0.00534335,0.237787,-0.0058508,0.434822,-0.463302,0.622717,-1.02888,0.00139822,0,0,0,0,0,0,0,0.158268,-29.7298,-0.213304,20.8493,1.84539,0.161978,0.0577852,
0.0192468,-0.0698528,0.0748132,-1.90502,0.15917,0.079205,0.00471195,0.254668,0.0157936,0.262951,-0.397285,0.977051,-0.927468,-0.0214233,1.58786,1.2642,1.70547,-6.60114,2.82573,8.77018,-0.723347,24.0257,2.52086,24.7469,-41.726,10.7362,-7.72076,-0.251993,0.0124485,-0.0703589,0.0677536,-1.89441,0.137337,0.10162,0.00534335,0.237787,-0.0058508,0.434822,-0.463302,0.622717,-1.02888,0.00139822,0,0,0,0,0,0,0,0.158268,-29.7298,-0.213304,20.8493,1.84539,0.161978,0.0577852,
0.0212561,-0.0696817,0.0768895,-1.90859,0.167455,0.073377,0.00452028,0.253967,0.0169115,0.262269,-0.40709,0.988773,-0.887674,-0.0219303,-0.437919,0.69871,-0.426278,-6.12839,7.32619,24.8713,-0.316894,22.4674,1.27595,23.1817,-40.8426,10.6405,-6.80098,-0.247359,0.0209606,-0.0690594,0.0833451,-1.91251,0.158227,0.0699439,0.00534881,0.22895,0.0337468,0.434025,-0.545843,0.580726,-0.775076,0.00236656,-1.10468,4.9497,-0.0996503,-10.3176,-5.24877,31.7257,0.121043,-5.92755,-33.3995,-6.46178,28.3475,1.31439,2.62841,0.0376436,
0.0254684,-0.068197,0.0880515,-1.91998,0.171459,0.0567728,0.0049214,0.257247,0.0239733,0.265968,-0.41714,0.968663,-0.872932,-0.022892,2.04964,4.41361,2.31181,-6.28139,-12.5687,9.21394,-0.601016,23.9947,2.18572,24.7484,-41.4036,10.6405,-7.46123,-0.254303,0.0209606,-0.0690594,0.0833451,-1.91251,0.158227,0.0699439,0.00534881,0.22895,0.0337468,0.434025,-0.545843,0.580726,-0.775076,0.00236656,0,0,0,0,0,0,0,-5.92755,-33.3995,-6.46178,28.3475,1.31439,2.62841,0.0376436,
0.0274929,-0.0678536,0.09015,-1.92364,0.179164,0.0512353,0.0047258,0.256411,0.0277639,0.265238,-0.42523,0.96755,-0.836783,-0.0232035,-0.522414,2.36917,-0.456204,-5.05626,-0.695938,22.5932,-0.194726,22.4674,1.27595,23.1817,-40.8426,10.6405,-6.80098,-0.247359,0.0209606,-0.0690594,0.0833451,-1.91251,0.158227,0.0699439,0.00534881,0.22895,0.0337468,0.434025,-0.545843,0.580726,-0.775076,0.00236656,0,0,0,0,0,0,0,-5.92755,-33.3995,-6.46178,28.3475,1.31439,2.62841,0.0376436,
0.0294126,-0.0675786,0.0921378,-1.92732,0.187213,0.0470263,0.0045497,0.253121,0.0290867,0.261884,-0.431973,0.975266,-0.774651,-0.0229654,-2.05612,0.826719,-2.0963,-4.21408,4.82252,38.8328,0.148861,21.2142,0.645492,21.9067,-40.17,10.6405,-3.83606,-0.230956,0.0209606,-0.0690594,0.0833451,-1.91251,0.158227,0.0699439,0.00534881,0.22895,0.0337468,0.434025,-0.545843,0.580726,-0.775076,0.00236656,0,0,0,0,0,0,0,-5.92755,-33.3995,-6.46178,28.3475,1.31439,2.62841,0.0376436,
0.031248,-0.0673609,0.094037,-1.93097,0.195448,0.0442511,0.00439212,0.248382,0.0287112,0.25699,-0.437035,0.986078,-0.689101,-0.0223118,-2.96188,-0.234695,-3.05914,-3.16402,6.75776,53.4686,0.4085,20.1338,-0.184427,20.8307,-39.4022,10.5443,-1.01003,-0.212958,0.0288055,-0.0673619,0.0979861,-1.93166,0.179719,0.0478782,0.00534135,0.242378,0.0879448,0.427431,-0.580583,0.769121,-0.66597,-0.000979278,1.67852,6.77475,-0.824223,-4.34251,23.5493,13.6382,-0.41823,-0.325741,-30.0789,-0.859972,23.6383,-0.0598181,2.98638,0.104477,
0.0333443,-0.0659873,0.102721,-1.93947,0.194462,0.0366077,0.00493243,0.25311,0.03847,0.262073,-0.445435,0.980979,-0.683528,-0.0228529,2.95471,6.09924,3.17696,-5.24995,-3.18722,3.48276,-0.338213,22.4224,1.1137,23.1641,-40.6226,10.5443,-6.54397,-0.249209,0.0288055,-0.0673619,0.0979861,-1.93166,0.179719,0.0478782,0.00534135,0.242378,0.0879448,0.427431,-0.580583,0.769121,-0.66597,-0.000979278,0,0,0,0,0,0,0,-0.325741,-30.0789,-0.859972,23.6383,-0.0598181,2.98638,0.104477,
0.0353752,-0.0655056,0.104826,-1.94326,0.202509,0.0325278,0.00475239,0.25326,0.0428172,0.262293,-0.450971,0.985942,-0.648821,-0.0227834,0.0938034,2.717,0.137381,-3.46003,3.10206,21.6924,0.0434652,21.1692,0.483245,21.8892,-39.95,10.5443,-3.57905,-0.232806,0.0288055,-0.0673619,0.0979861,-1.93166,0.179719,0.0478782,0.00534135,0.242378,0.0879448,0.427431,-0.580583,0.769121,-0.66597,-0.000979278,0,0,0,0,0,0,0,-0.325741,-30.0789,-0.859972,23.6383,-0.0598181,2.98638,0.104477,
0.0372931,-0.0651387,0.106813,-1.947,0.210745,0.0298288,0.00459184,0.250556,0.043426,0.259499,-0.45425,0.994652,-0.586532,-0.0222403,-1.68959,0.380552,-1.74582,-2.04913,5.44355,38.9301,0.339384,20.1338,-0.184427,20.8307,-39.4022,10.5443,-1.01003,-0.212958,0.0288055,-0.0673619,0.0979861,-1.93166,0.179719,0.0478782,0.00534135,0.242378,0.0879448,0.427431,-0.580583,0.769121,-0.66597,-0.000979278,0,0,0,0,0,0,0,-0.325741,-30.0789,-0.859972,23.6383,-0.0598181,2.98638,0.104477,
0.0391191,-0.0648631,0.108703,-1.95067,0.219066,0.0285069,0.00445084,0.246095,0.041631,0.254859,-0.455289,1.00376,-0.502271,-0.0213174,-2.7886,-1.12189,-2.9001,-0.64942,5.69565,52.6631,0.576828,19.2757,-0.781084,19.9484,-38.9328,10.5443,1.10421,-0.192116,0.0288055,-0.0673619,0.0979861,-1.93166,0.179719,0.0478782,0.00534135,0.242378,0.0879448,0.427431,-0.580583,0.769121,-0.66597,-0.000979278,0,0,0,0,0,0,0,-0.325741,-30.0789,-0.859972,23.6383,-0.0598181,2.98638,0.104477,
0.0394771,-0.0635499,0.115544,-1.95702,0.221835,0.0245666,0.00497387,0.245742,0.0484861,0.254684,-0.456406,0.994943,-0.466067,-0.0216215,-0.220381,4.28443,-0.109398,-0.69817,-5.51371,22.6279,-0.190072,21.0522,-0.00556082,21.7917,-39.6765,10.3555,-3.43574,-0.234523,0.0354343,-0.064994,0.111314,-1.94961,0.206936,0.0302801,0.00535088,0.17767,0.136503,0.407672,-0.486591,0.815618,-0.359286,0.00251123,-8.08854,6.06983,-2.46994,11.7489,5.81212,38.3356,0.436313,3.42731,-25.9847,2.36146,20.6985,1.23474,1.89232,-0.00996382,
0.0413257,-0.0631171,0.117462,-1.96068,0.229772,0.0229475,0.00481157,0.242809,0.0496077,0.251711,-0.456514,0.994375,-0.41333,-0.0213547,-1.83298,0.701025,-1.85796,-0.0673396,-0.354656,32.9601,0.166786,20.0168,-0.673233,20.7333,-39.1288,10.3555,-0.866713,-0.214675,0.0354343,-0.064994,0.111314,-1.94961,0.206936,0.0302801,0.00535088,0.17767,0.136503,0.407672,-0.486591,0.815618,-0.359286,0.00251123,0,0,0,0,0,0,0,3.42731,-25.9847,2.36146,20.6985,1.23474,1.89232,-0.00996382,
0.0430916,-0.0628131,0.119293,-1.96429,0.237847,0.0224111,0.00466963,0.238394,0.0472869,0.247142,-0.45536,0.997377,-0.344075,-0.0206323,-2.75969,-1.45052,-2.85587,0.721368,1.87608,43.2847,0.451495,19.1587,-1.26989,19.851,-38.6594,10.3555,1.24753,-0.193833,0.0354343,-0.064994,0.111314,-1.94961,0.206936,0.0302801,0.00535088,0.17767,0.136503,0.407672,-0.486591,0.815618,-0.359286,0.00251123,0,0,0,0,0,0,0,3.42731,-25.9847,2.36146,20.6985,1.23474,1.89232,-0.00996382,
0.0394449,-0.0635949,0.11551,-1.95717,0.221897,0.0262015,0.00500589,0.239076,0.0525403,0.247979,-0.45799,0.990546,-0.315523,-0.0206558,0.426185,3.28336,0.523464,-1.64399,-4.26928,17.845,-0.0147014,20.0168,-0.673233,20.7333,-39.1288,10.3555,-0.866713,-0.214675,0.0354343,-0.064994,0.111314,-1.94961,0.206936,0.0302801,0.00535088,0.17767,0.136503,0.407672,-0.486591,0.815618,-0.359286,0.00251123,0,0,0,0,0,0,0,3.42731,-25.9847,2.36146,20.6985,1.23474,1.89232,-0.00996382,
0.0412669,-0.0631717,0.117401,-1.96085,0.229852,0.0256245,0.00486144,0.236811,0.0526111,0.245655,-0.458364,0.991297,-0.266842,-0.020136,-1.41556,0.0442719,-1.45309,-0.233589,0.469605,30.4256,0.324906,19.0944,-1.56109,19.7947,-38.4742,10.2041,1.34401,-0.195319,0.0411345,-0.061427,0.123363,-1.96643,0.234637,0.0234441,0.0053447,0.163484,0.169787,0.324136,-0.470863,0.81904,-0.0394044,0.000284831,-1.77328,4.16039,-10.442,1.96609,0.427858,39.9851,-0.2783,-3.90026,-29.5036,-4.41069,23.3923,0.397946,2.58263,0.0843355,
0.0430014,-0.0628707,0.119199,-1.96444,0.237936,0.0261085,0.00473733,0.232811,0.0496139,0.241483,-0.456602,0.995136,-0.201373,-0.0192114,-2.49964,-1.87329,-2.60713,1.10091,2.39909,40.9182,0.577871,18.3791,-2.00178,19.0553,-38.0245,10.2041,3.03648,-0.172671,0.0411345,-0.061427,0.123363,-1.96643,0.234637,0.0234441,0.0053447,0.163484,0.169787,0.324136,-0.470863,0.81904,-0.0394044,0.000284831,0,0,0,0,0,0,0,-3.90026,-29.5036,-4.41069,23.3923,0.397946,2.58263,0.0843355,
0.0446642,-0.0626596,0.120922,-1.96795,0.24608,0.0275892,0.00463301,0.227819,0.0449686,0.236262,-0.45286,0.999719,-0.124082,-0.0179771,-3.12025,-2.90331,-3.26301,2.3391,2.86461,48.3067,0.771405,17.7755,-2.26506,18.4289,-37.5658,10.2041,4.38667,-0.14986,0.0411345,-0.061427,0.123363,-1.96643,0.234637,0.0234441,0.0053447,0.163484,0.169787,0.324136,-0.470863,0.81904,-0.0394044,0.000284831,0,0,0,0,0,0,0,-3.90026,-29.5036,-4.41069,23.3923,0.397946,2.58263,0.0843355,
0.0445946,-0.0598177,0.126986,-1.97385,0.249206,0.0238382,0.00504015,0.224466,0.0525243,0.232969,-0.454324,0.986272,-0.08711,-0.0179985,-2.09527,4.72234,-2.05853,-0.914931,-8.40433,23.1076,-0.0133548,19.0944,-1.56109,19.7947,-38.4742,10.2041,1.34401,-0.195319,0.0411345,-0.061427,0.123363,-1.96643,0.234637,0.0234441,0.0053447,0.163484,0.169787,0.324136,-0.470863,0.81904,-0.0394044,0.000284831,0,0,0,0,0,0,0,-3.90026,-29.5036,-4.41069,23.3923,0.397946,2.58263,0.0843355,
0.0462173,-0.0593564,0.128673,-1.97745,0.256877,0.0250728,0.00491624,0.220142,0.0535512,0.228542,-0.453399,0.980807,-0.0388225,-0.0174963,-2.7028,0.641783,-2.76677,0.577766,-3.41613,30.1797,0.313838,18.3309,-2.2281,19.0076,-37.9332,10.0867,3.05641,-0.172459,0.0455722,-0.0582128,0.132153,-1.97821,0.257831,0.0247152,0.00533641,0.125721,0.177012,0.284543,-0.353958,0.6852,0.127301,-0.00057689,-4.72031,0.903213,-4.94908,14.6131,-16.73,20.8382,-0.107715,-4.1264,-33.1496,-4.81139,28.6728,1.57074,2.87377,0.124619,
0.0477882,-0.0590375,0.130304,-1.98095,0.264677,0.0270912,0.00481243,0.215384,0.0508135,0.2236,-0.450275,0.979636,0.019402,-0.0165923,-2.97353,-1.71101,-3.08865,1.95248,-0.731853,36.3903,0.564996,17.7274,-2.49138,18.3812,-37.4746,10.0867,4.4066,-0.149647,0.0455722,-0.0582128,0.132153,-1.97821,0.257831,0.0247152,0.00533641,0.125721,0.177012,0.284543,-0.353958,0.6852,0.127301,-0.00057689,0,0,0,0,0,0,0,-4.1264,-33.1496,-4.81139,28.6728,1.57074,2.87377,0.124619,
0.0493149,-0.0588201,0.131887,-1.98435,0.272554,0.0298553,0.00472745,0.210475,0.0460874,0.218468,-0.445265,0.980638,0.0846248,-0.0153984,-3.06826,-2.95382,-3.20772,3.13142,0.626249,40.7643,0.746201,17.2107,-2.59488,17.843,-36.9964,10.0867,5.43351,-0.126214,0.0455722,-0.0582128,0.132153,-1.97821,0.257831,0.0247152,0.00533641,0.125721,0.177012,0.284543,-0.353958,0.6852,0.127301,-0.00057689,0,0,0,0,0,0,0,-4.1264,-33.1496,-4.81139,28.6728,1.57074,2.87377,0.124619,
0.0485389,-0.0569237,0.13527,-1.98506,0.271203,0.0286279,0.00506649,0.204972,0.049279,0.212969,-0.442739,0.958181,0.122962,-0.0154465,-3.4392,1.99474,-3.43689,1.57871,-14.0353,23.9605,-0.0300294,18.3309,-2.2281,19.0076,-37.9332,10.0867,3.05641,-0.172459,0.0455722,-0.0582128,0.132153,-1.97821,0.257831,0.0247152,0.00533641,0.125721,0.177012,0.284543,-0.353958,0.6852,0.127301,-0.00057689,0,0,0,0,0,0,0,-4.1264,-33.1496,-4.81139,28.6728,1.57074,2.87377,0.124619,
0.0499748,-0.0566004,0.136765,-1.98848,0.278467,0.0313809,0.00496305,0.199875,0.0475055,0.207747,-0.439625,0.948156,0.167195,-0.0149431,-3.1861,-1.10844,-3.26354,1.94625,-6.2656,27.6458,0.314629,17.683,-2.58606,18.3213,-37.4337,9.99502,4.39555,-0.148741,0.0495983,-0.0527986,0.141428,-1.98764,0.277027,0.0320674,0.00534989,0.0915672,0.1604,0.221105,-0.237002,0.415479,0.27562,0.00364427,-4.26924,-2.07652,-7.92972,14.6195,-33.7151,18.5399,0.527645,-3.19012,-36.4186,-3.5855,39.0591,1.96808,5.08202,0.0101778,
0.0513898,-0.0563896,0.138236,-1.99182,0.285938,0.0346918,0.00487895,0.195274,0.0432739,0.202965,-0.435203,0.945293,0.216529,-0.0140569,-2.87516,-2.64476,-2.98902,2.76382,-1.78933,30.8339,0.553826,17.1664,-2.68957,17.7831,-36.9555,9.99502,5.42246,-0.125308,0.0495983,-0.0527986,0.141428,-1.98764,0.277027,0.0320674,0.00534989,0.0915672,0.1604,0.221105,-0.237002,0.415479,0.27562,0.00364427,0,0,0,0,0,0,0,-3.19012,-36.4186,-3.5855,39.0591,1.96808,5.08202,0.0101778,
0.0519313,-0.0519986,0.143895,-1.99384,0.288016,0.0391055,0.00511693,0.185535,0.0413449,0.193121,-0.428475,0.905277,0.266596,-0.0138595,-6.08685,-1.20561,-6.15238,4.2047,-25.0099,31.2919,0.123413,17.683,-2.58606,18.3213,-37.4337,9.99502,4.39555,-0.148741,0.0495983,-0.0527986,0.141428,-1.98764,0.277027,0.0320674,0.00534989,0.0915672,0.1604,0.221105,-0.237002,0.415479,0.27562,0.00364427,0,0,0,0,0,0,0,-3.19012,-36.4186,-3.5855,39.0591,1.96808,5.08202,0.0101778,
0.0531242,-0.0518479,0.145141,-1.99706,0.29456,0.0431923,0.00503414,0.178251,0.0368438,0.185644,-0.423238,0.88781,0.315447,-0.0131572,-4.55284,-2.81321,-4.67269,3.27346,-10.9173,30.5317,0.438918,17.1664,-2.68957,17.7831,-36.9555,9.99502,5.42246,-0.125308,0.0495983,-0.0527986,0.141428,-1.98764,0.277027,0.0320674,0.00534989,0.0915672,0.1604,0.221105,-0.237002,0.415479,0.27562,0.00364427,0,0,0,0,0,0,0,-3.19012,-36.4186,-3.5855,39.0591,1.96808,5.08202,0.0101778,
0.0543369,-0.0517626,0.146404,-2.00023,0.301493,0.0476202,0.00497008,0.172917,0.031607,0.18009,-0.417742,0.88357,0.363054,-0.0121273,-3.33371,-3.273,-3.47131,3.4348,-2.64963,29.7544,0.643717,16.7037,-2.64138,17.2913,-36.4965,9.95368,6.1589,-0.101897,0.0522576,-0.0496669,0.147344,-1.99509,0.287857,0.0467275,0.00535253,0.0778643,0.13309,0.163888,-0.199767,0.241916,0.558593,-0.000739375,-1.71286,-3.41378,-7.15211,4.65434,-21.6954,35.3716,-0.547956,-2.88464,-36.9423,-3.38713,39.2337,2.27935,4.56475,0.0440523,
0.0555641,-0.0517175,0.14768,-2.00332,0.308696,0.0523653,0.00492292,0.169014,0.0264138,0.175965,-0.411627,0.886935,0.409071,-0.0108808,-2.43919,-3.24573,-2.57861,3.82225,2.10297,28.7605,0.779014,16.3052,-2.52635,16.8741,-35.9845,9.95368,6.70062,-0.0794669,0.0522576,-0.0496669,0.147344,-1.99509,0.287857,0.0467275,0.00535253,0.0778643,0.13309,0.163888,-0.199767,0.241916,0.558593,-0.000739375,0,0,0,0,0,0,0,-2.88464,-36.9423,-3.38713,39.2337,2.27935,4.56475,0.0440523,
0.0541211,-0.0491785,0.149329,-2.00087,0.297238,0.0572424,0.00515369,0.159051,0.0244998,0.165946,-0.404699,0.841968,0.459851,-0.0108542,-6.22724,-1.19626,-6.26142,4.33002,-28.1044,31.7378,0.0166484,17.1537,-2.66473,17.7611,-36.9936,9.95368,5.38193,-0.124702,0.0522576,-0.0496669,0.147344,-1.99509,0.287857,0.0467275,0.00535253,0.0778643,0.13309,0.163888,-0.199767,0.241916,0.558593,-0.000739375,0,0,0,0,0,0,0,-2.88464,-36.9423,-3.38713,39.2337,2.27935,4.56475,0.0440523,
0.0551261,-0.0491269,0.150384,-2.00391,0.303305,0.0625902,0.00508963,0.152365,0.0208899,0.159114,-0.399842,0.825239,0.501577,-0.010285,-4.17835,-2.25615,-4.27011,3.0352,-10.4555,26.0786,0.355738,16.7037,-2.64138,17.2913,-36.4965,9.95368,6.1589,-0.101897,0.0522576,-0.0496669,0.147344,-1.99509,0.287857,0.0467275,0.00535253,0.0778643,0.13309,0.163888,-0.199767,0.241916,0.558593,-0.000739375,0,0,0,0,0,0,0,-2.88464,-36.9423,-3.38713,39.2337,2.27935,4.56475,0.0440523,
0.0561787,-0.0491137,0.151483,-2.00692,0.309891,0.0680156,0.0050435,0.148205,0.0170402,0.154775,-0.395129,0.824852,0.536895,-0.00938125,-2.59995,-2.40609,-2.71193,2.94554,-0.24227,22.0738,0.564858,16.3219,-2.3728,16.8846,-36.1502,9.94542,6.60323,-0.0783543,0.0548511,-0.0474321,0.15197,-2.00209,0.292614,0.0720183,0.00535419,0.063566,0.055918,0.104227,-0.16894,0.107264,0.877822,0.00175557,-1.78729,-9.64648,-7.4577,3.85338,-16.8315,39.9036,0.311868,-3.74554,-38.2912,-4.13695,39.0829,1.97998,4.54461,0.00376909,
0.0562471,-0.0476528,0.153473,-2.00726,0.300779,0.0860741,0.00519143,0.136986,0.00959081,0.143456,-0.384143,0.780132,0.60121,-0.0092051,-7.01232,-4.65587,-7.07467,6.86649,-27.9496,40.1971,0.110096,16.7204,-2.48783,17.3018,-36.6622,9.94542,6.06151,-0.100784,0.0548511,-0.0474321,0.15197,-2.00209,0.292614,0.0720183,0.00535419,0.063566,0.055918,0.104227,-0.16894,0.107264,0.877822,0.00175557,0,0,0,0,0,0,0,-3.74554,-38.2912,-4.13695,39.0829,1.97998,4.54461,0.00376909,
0.0570676,-0.0478199,0.154339,-2.01005,0.306523,0.0926547,0.0051447,0.130101,0.00349392,0.136403,-0.377008,0.767702,0.645483,-0.0085324,-4.30318,-3.81056,-4.40786,4.45915,-7.76902,27.6703,0.420438,16.3219,-2.3728,16.8846,-36.1502,9.94542,6.60323,-0.0783543,0.0548511,-0.0474321,0.15197,-2.00209,0.292614,0.0720183,0.00535419,0.063566,0.055918,0.104227,-0.16894,0.107264,0.877822,0.00175557,0,0,0,0,0,0,0,-3.74554,-38.2912,-4.13695,39.0829,1.97998,4.54461,0.00376909,
0.0579637,-0.0479694,0.155278,-2.01284,0.312896,0.0990314,0.0051156,0.126481,-0.000942687,0.1326,-0.371391,0.77349,0.675804,-0.00755323,-2.26203,-2.77288,-2.37665,3.51119,3.6176,18.9505,0.61198,15.9636,-2.19819,16.5091,-35.6287,9.94542,6.97494,-0.0570393,0.0548511,-0.0474321,0.15197,-2.00209,0.292614,0.0720183,0.00535419,0.063566,0.055918,0.104227,-0.16894,0.107264,0.877822,0.00175557,0,0,0,0,0,0,0,-3.74554,-38.2912,-4.13695,39.0829,1.97998,4.54461,0.00376909,
0.0589223,-0.0480969,0.156278,-2.01561,0.319705,0.105264,0.00510371,0.12515,-0.003942,0.131092,-0.366414,0.789014,0.696466,-0.00634,-0.832127,-1.87457,-0.942975,3.11046,9.7025,12.9139,0.758265,15.6373,-1.98951,16.1666,-35.1027,9.94542,7.19016,-0.0362948,0.0548511,-0.0474321,0.15197,-2.00209,0.292614,0.0720183,0.00535419,0.063566,0.055918,0.104227,-0.16894,0.107264,0.877822,0.00175557,0,0,0,0,0,0,0,-3.74554,-38.2912,-4.13695,39.0829,1.97998,4.54461,0.00376909,
0.0574498,-0.0475766,0.155646,-2.01295,0.300638,0.123035,0.00521189,0.113038,-0.0147264,0.11888,-0.354634,0.742819,0.755067,-0.00632668,-7.57018,-6.74024,-7.63223,7.36243,-28.8717,36.6259,0.0083243,16.3509,-2.14232,16.9133,-36.3846,9.96939,6.45847,-0.0769672,0.0565402,-0.0466231,0.154643,-2.00832,0.293343,0.106629,0.00533922,0.0341569,-0.0283125,0.0503915,-0.149395,0.0124862,1.08887,-0.00164172,-3.67613,-10.5288,-6.72942,2.44309,-11.8472,26.3816,-0.424661,-6.9154,-38.8625,-6.98546,37.2897,1.65588,4.90258,0.138352,
0.058088,-0.0479614,0.156325,-2.01551,0.30616,0.130444,0.00518246,0.106385,-0.0214,0.112082,-0.347653,0.732307,0.789297,-0.00579697,-4.15776,-4.17098,-4.24853,4.36311,-6.5701,21.3936,0.33107,15.9926,-1.96771,16.5378,-35.8631,9.96939,6.83018,-0.0556522,0.0565402,-0.0466231,0.154643,-2.00832,0.293343,0.106629,0.00533922,0.0341569,-0.0283125,0.0503915,-0.149395,0.0124862,1.08887,-0.00164172,0,0,0,0,0,0,0,-6.9154,-38.8625,-6.98546,37.2897,1.65588,4.90258,0.138352,
0.0588326,-0.0482703,0.15711,-2.01811,0.312394,0.13746,0.0051714,0.103723,-0.0248435,0.109272,-0.342993,0.741716,0.806828,-0.00491417,-1.66371,-2.15223,-1.7567,2.91233,5.88022,10.957,0.551754,15.6663,-1.75904,16.1953,-35.3371,9.96939,7.0454,-0.0349076,0.0565402,-0.0466231,0.154643,-2.00832,0.293343,0.106629,0.00533922,0.0341569,-0.0283125,0.0503915,-0.149395,0.0124862,1.08887,-0.00164172,0,0,0,0,0,0,0,-6.9154,-38.8625,-6.98546,37.2897,1.65588,4.90258,0.138352,
0.0596641,-0.0485151,0.15798,-2.02071,0.319122,0.144159,0.00517504,0.103764,-0.0259958,0.109175,-0.339509,0.761551,0.812947,-0.00384042,0.0256339,-0.720154,-0.060137,2.17752,12.3971,3.82439,0.67109,15.3628,-1.53578,15.8767,-34.8102,9.96939,7.15972,-0.0132595,0.0565402,-0.0466231,0.154643,-2.00832,0.293343,0.106629,0.00533922,0.0341569,-0.0283125,0.0503915,-0.149395,0.0124862,1.08887,-0.00164172,0,0,0,0,0,0,0,-6.9154,-38.8625,-6.98546,37.2897,1.65588,4.90258,0.138352,
0.0579366,-0.0481861,0.157764,-2.0174,0.301096,0.162873,0.00525284,0.092367,-0.039005,0.0976643,-0.327032,0.722283,0.861613,-0.00392511,-7.12331,-8.13074,-7.1944,7.79812,-24.5424,30.4158,-0.0529329,16.0128,-1.75398,16.5618,-36.0791,10.0033,6.6665,-0.0545586,0.0573475,-0.0466134,0.157092,-2.01332,0.293726,0.145365,0.0053504,0.00267343,-0.0836384,0.024983,-0.0907693,9.70412e-05,1.14075,-0.00250348,-3.93544,-6.91574,-3.17606,7.32822,-1.54864,6.48429,-0.107721,-5.47131,-39.5131,-5.5374,34.9252,2.03491,4.02093,0.0239107,
0.058459,-0.0487675,0.158324,-2.01976,0.306689,0.17073,0.00524083,0.0869531,-0.0457367,0.0921187,-0.320514,0.717641,0.885701,-0.00344039,-3.38366,-4.20733,-3.46602,4.07387,-2.90144,15.0551,0.302951,15.6865,-1.5453,16.2193,-35.5532,10.0033,6.88172,-0.0338141,0.0573475,-0.0466134,0.157092,-2.01332,0.293726,0.145365,0.0053504,0.00267343,-0.0836384,0.024983,-0.0907693,9.70412e-05,1.14075,-0.00250348,0,0,0,0,0,0,0,-5.47131,-39.5131,-5.5374,34.9252,2.03491,4.02093,0.0239107,
0.0591072,-0.0492218,0.159008,-2.02218,0.312997,0.178083,0.00524485,0.0857671,-0.047949,0.0908129,-0.316989,0.731836,0.892386,-0.0026517,-0.741301,-1.38271,-0.816121,2.20329,8.87224,4.17823,0.492931,15.383,-1.32205,15.9007,-35.0263,10.0033,6.99604,-0.012166,0.0573475,-0.0466134,0.157092,-2.01332,0.293726,0.145365,0.0053504,0.00267343,-0.0836384,0.024983,-0.0907693,9.70412e-05,1.14075,-0.00250348,0,0,0,0,0,0,0,-5.47131,-39.5131,-5.5374,34.9252,2.03491,4.02093,0.0239107,
0.0579231,-0.048155,0.157749,-2.01735,0.301103,0.162948,0.00528586,0.0777444,-0.0561095,0.0827255,-0.308244,0.698625,0.926169,-0.00254682,-5.01417,-5.10031,-5.05466,5.46543,-20.7569,21.1147,0.0655537,15.6865,-1.5453,16.2193,-35.5532,10.0033,6.88172,-0.0338141,0.0573475,-0.0466134,0.157092,-2.01332,0.293726,0.145365,0.0053504,0.00267343,-0.0836384,0.024983,-0.0907693,9.70412e-05,1.14075,-0.00250348,0,0,0,0,0,0,0,-5.47131,-39.5131,-5.5374,34.9252,2.03491,4.02093,0.0239107,
0.058432,-0.0487163,0.158294,-2.01967,0.306702,0.170826,0.00528838,0.0749181,-0.0589197,0.0798057,-0.304525,0.698881,0.937879,-0.00197436,-1.76641,-1.75634,-1.82488,2.32471,0.159849,7.31879,0.35779,15.3688,-1.2083,15.8957,-35.1756,10.0261,6.83436,-0.0113543,0.0574878,-0.047614,0.159077,-2.01698,0.294222,0.182567,0.00534534,0.00114564,-0.12908,0.0272637,-0.0594655,0.00252987,1.05874,5.72309e-06,-0.190974,-5.6802,0.285091,3.91298,0.304104,-10.2514,0.313651,-4.91589,-38.8902,-4.91057,32.6321,2.24823,3.25188,0.0706026,
0.0590632,-0.0491511,0.15896,-2.02205,0.313019,0.178179,0.00530571,0.0757143,-0.0580058,0.0805134,-0.303151,0.717021,0.934121,-0.0011464,0.497615,0.571177,0.442356,0.858424,11.3372,-2.34911,0.517471,15.0499,-0.984651,15.5613,-34.6548,10.0261,6.84598,0.00705926,0.0574878,-0.047614,0.159077,-2.01698,0.294222,0.182567,0.00534534,0.00114564,-0.12908,0.0272637,-0.0594655,0.00252987,1.05874,5.72309e-06,0,0,0,0,0,0,0,-4.91589,-38.8902,-4.91057,32.6321,2.24823,3.25188,0.0706026,
0.0598006,-0.0494858,0.159732,-2.02446,0.31969,0.185089,0.00533993,0.0790062,-0.0547713,0.0837075,-0.302717,0.74041,0.92005,-6.16609e-05,2.05742,2.02154,1.99627,0.270974,14.6183,-8.79463,0.677963,14.7343,-0.767244,15.2314,-34.1393,10.0261,6.80825,0.0239602,0.0574878,-0.047614,0.159077,-2.01698,0.294222,0.182567,0.00534534,0.00114564,-0.12908,0.0272637,-0.0594655,0.00252987,1.05874,5.72309e-06,0,0,0,0,0,0,0,-4.91589,-38.8902,-4.91057,32.6321,2.24823,3.25188,0.0706026,
0.0580614,-0.0496205,0.159727,-2.02071,0.301909,0.199626,0.00530523,0.072265,-0.0664116,0.0769152,-0.293527,0.709763,0.94341,-0.000170441,-4.21324,-7.27522,-4.24515,5.74389,-19.1541,14.6001,-0.0679878,15.3688,-1.2083,15.8957,-35.1756,10.0261,6.83436,-0.0113543,0.0574878,-0.047614,0.159077,-2.01698,0.294222,0.182567,0.00534534,0.00114564,-0.12908,0.0272637,-0.0594655,0.00252987,1.05874,5.72309e-06,0,0,0,0,0,0,0,-4.91589,-38.8902,-4.91057,32.6321,2.24823,3.25188,0.0706026,
0.0585639,-0.0503194,0.160264,-2.02292,0.30768,0.207366,0.00531989,0.070373,-0.0706023,0.074953,-0.289914,0.712072,0.948223,0.000230253,-1.1825,-2.61913,-1.22637,2.25827,1.44307,3.00811,0.250434,15.0499,-0.984651,15.5613,-34.6548,10.0261,6.84598,0.00705926,0.0574878,-0.047614,0.159077,-2.01698,0.294222,0.182567,0.00534534,0.00114564,-0.12908,0.0272637,-0.0594655,0.00252987,1.05874,5.72309e-06,0,0,0,0,0,0,0,-4.91589,-38.8902,-4.91057,32.6321,2.24823,3.25188,0.0706026,
0.0591926,-0.0508523,0.160926,-2.02519,0.314016,0.214597,0.00535347,0.0720157,-0.0698045,0.0765102,-0.288794,0.728071,0.939358,0.00102368,1.02669,0.498584,0.973251,0.69998,9.99931,-5.54051,0.495889,14.7343,-0.767244,15.2314,-34.1393,10.0261,6.80825,0.0239602,0.0574878,-0.047614,0.159077,-2.01698,0.294222,0.182567,0.00534534,0.00114564,-0.12908,0.0272637,-0.0594655,0.00252987,1.05874,5.72309e-06,0,0,0,0,0,0,0,-4.91589,-38.8902,-4.91057,32.6321,2.24823,3.25188,0.0706026,
0.0599268,-0.0512593,0.161692,-2.02751,0.320581,0.221384,0.00540179,0.0759685,-0.0660175,0.0803767,-0.288846,0.746572,0.921157,0.00202695,2.47052,2.36691,2.41652,-0.0324338,11.5633,-11.3753,0.627045,14.4247,-0.559884,14.908,-33.6303,9.55906,6.73532,0.0432995,0.0574878,-0.047614,0.159077,-2.01698,0.294222,0.182567,0.00534534,0.00114564,-0.12908,0.0272637,-0.0594655,0.00252987,1.05874,5.72309e-06,0,0,0,0,0,0,0,-4.91589,-38.8902,-4.91057,32.6321,2.24823,3.25188,0.0706026,
0.058045,-0.0495893,0.159709,-2.02065,0.301915,0.199569,0.00533248,0.0695655,-0.0749745,0.0739596,-0.281522,0.714816,0.943418,0.00183128,-4.00187,-5.59811,-4.01065,4.57749,-19.8475,13.9131,-0.122292,15.0499,-0.984651,15.5613,-34.6548,10.0261,6.84598,0.00705926,0.0574878,-0.047614,0.159077,-2.01698,0.294222,0.182567,0.00534534,0.00114564,-0.12908,0.0272637,-0.0594655,0.00252987,1.05874,5.72309e-06,0,0,0,0,0,0,0,-4.91589,-38.8902,-4.91057,32.6321,2.24823,3.25188,0.0706026,
0.05854,-0.0502708,0.160236,-2.02281,0.307555,0.207258,0.00536384,0.0680288,-0.0770174,0.0723563,-0.279125,0.712846,0.946965,0.00224911,-0.960482,-1.27683,-1.00206,1.49817,-1.23153,2.21696,0.261147,14.712,-0.785902,15.2275,-34.2264,10.0518,6.65448,0.0244964,0.0575322,-0.0501491,0.160899,-2.02025,0.294594,0.216417,0.00534145,-0.00601308,-0.165063,0.0642457,-0.0837942,0.023116,0.901271,-0.000304146,-0.89484,-4.49792,4.62275,-3.04109,2.57326,-19.6833,-0.0387336,4.54608,-30.2773,4.21419,19.9051,2.45056,0.447622,0.11821,
0.0591606,-0.0507895,0.160888,-2.02503,0.313655,0.214425,0.00541141,0.0699382,-0.0745823,0.0741844,-0.278924,0.72277,0.936753,0.00298858,1.19338,1.52193,1.14257,0.125569,6.20268,-6.38268,0.462169,14.4023,-0.578543,14.9042,-33.7173,9.58477,6.58155,0.0438358,0.0575322,-0.0501491,0.160899,-2.02025,0.294594,0.216417,0.00534145,-0.00601308,-0.165063,0.0642457,-0.0837942,0.023116,0.901271,-0.000304146,0,0,0,0,0,0,0,4.54608,-30.2773,4.21419,19.9051,2.45056,0.447622,0.11821,
0.0598821,-0.0511848,0.161641,-2.0273,0.319941,0.221133,0.00547499,0.0739882,-0.0695468,0.078155,-0.279758,0.73538,0.917104,0.0039803,2.53124,3.14717,2.48162,-0.521261,7.88087,-12.2809,0.619819,14.0414,-0.392504,14.5273,-33.2288,9.0349,6.47703,0.0601073,0.0575322,-0.0501491,0.160899,-2.02025,0.294594,0.216417,0.00534145,-0.00601308,-0.165063,0.0642457,-0.0837942,0.023116,0.901271,-0.000304146,0,0,0,0,0,0,0,4.54608,-30.2773,4.21419,19.9051,2.45056,0.447622,0.11821,
0.0582683,-0.052343,0.161714,-2.02398,0.302515,0.231662,0.00535318,0.0700602,-0.0797066,0.0742481,-0.274357,0.707051,0.92107,0.0037604,-2.45495,-6.34985,-2.44185,3.37581,-17.7051,2.47916,-0.137432,14.712,-0.785902,15.2275,-34.2264,10.0518,6.65448,0.0244964,0.0575322,-0.0501491,0.160899,-2.02025,0.294594,0.216417,0.00534145,-0.00601308,-0.165063,0.0642457,-0.0837942,0.023116,0.901271,-0.000304146,0,0,0,0,0,0,0,4.54608,-30.2773,4.21419,19.9051,2.45056,0.447622,0.11821,
0.0588299,-0.0530678,0.162307,-2.02612,0.308083,0.238753,0.00539745,0.0700886,-0.0818856,0.0742387,-0.273057,0.704837,0.91412,0.00411502,0.017716,-1.36188,-0.00584649,0.81241,-1.38408,-4.34363,0.221638,14.3857,-0.585254,14.9069,-33.8189,9.60727,6.44015,0.044433,0.0578427,-0.0526654,0.162903,-2.02389,0.294947,0.247642,0.00533446,0.00665062,-0.133163,0.0920244,-0.10719,0.00428198,0.815709,-0.000950043,1.58296,3.98757,3.47234,-2.92441,-2.35425,-10.6953,-0.0807371,7.89051,-26.9606,7.53877,13.4781,2.63366,-0.918344,0.138352,
0.0594989,-0.0536106,0.163008,-2.02833,0.314049,0.245432,0.00545982,0.0727951,-0.0790793,0.0768928,-0.273579,0.713017,0.898278,0.00485133,1.69156,1.75392,1.65878,-0.326543,5.1123,-9.90178,0.46019,14.0248,-0.399216,14.53,-33.3303,9.0574,6.33563,0.0607045,0.0578427,-0.0526654,0.162903,-2.02389,0.294947,0.247642,0.00533446,0.00665062,-0.133163,0.0920244,-0.10719,0.00428198,0.815709,-0.000950043,0,0,0,0,0,0,0,7.89051,-26.9606,7.53877,13.4781,2.63366,-0.918344,0.138352,
0.0587793,-0.054495,0.163927,-2.02785,0.302522,0.261716,0.00536589,0.0712219,-0.0833262,0.0754211,-0.271647,0.684199,0.892128,0.00471637,-0.983258,-2.65431,-0.919803,1.20795,-18.0111,-3.84359,-0.0843511,14.3857,-0.585254,14.9069,-33.8189,9.60727,6.44015,0.044433,0.0578427,-0.0526654,0.162903,-2.02389,0.294947,0.247642,0.00533446,0.00665062,-0.133163,0.0920244,-0.10719,0.00428198,0.815709,-0.000950043,0,0,0,0,0,0,0,7.89051,-26.9606,7.53877,13.4781,2.63366,-0.918344,0.138352,
0.0593987,-0.0550937,0.16458,-2.03005,0.307868,0.268304,0.00542365,0.0724614,-0.0816302,0.0766647,-0.27244,0.680999,0.878387,0.00521694,0.774698,1.05998,0.777265,-0.49574,-1.99955,-8.58774,0.31286,14.0248,-0.399216,14.53,-33.3303,9.0574,6.33563,0.0607045,0.0578427,-0.0526654,0.162903,-2.02389,0.294947,0.247642,0.00533446,0.00665062,-0.133163,0.0920244,-0.10719,0.00428198,0.815709,-0.000950043,0,0,0,0,0,0,0,7.89051,-26.9606,7.53877,13.4781,2.63366,-0.918344,0.138352,
0.0601,-0.0555366,0.165314,-2.0323,0.313632,0.274511,0.00549583,0.0755027,-0.0763758,0.0796766,-0.274146,0.688907,0.857897,0.00597821,1.90081,3.28399,1.88243,-1.06634,4.94246,-12.8068,0.475792,13.6199,-0.19809,14.1194,-32.9332,8.61703,6.08169,0.0801979,0.0585864,-0.0542942,0.165482,-2.02749,0.295157,0.276067,0.00534377,0.0330444,-0.0738592,0.110323,-0.132374,0.00805348,0.743483,0.000911003,3.29923,7.41296,2.28731,-3.14807,0.471437,-9.02815,0.232631,6.57337,-26.0362,5.96376,12.157,2.50549,-1.64802,0.0577852,
0.0608676,-0.0558634,0.166115,-2.03456,0.319429,0.280326,0.0055699,0.0795921,-0.0692708,0.0837636,-0.275772,0.696035,0.831685,0.00663413,2.5559,4.44066,2.55437,-1.01611,4.45496,-16.3822,0.40995,13.1051,-0.00565564,13.5804,-32.4675,8.29502,5.88715,0.0942118,0.0585864,-0.0542942,0.165482,-2.02749,0.295157,0.276067,0.00534377,0.0330444,-0.0738592,0.110323,-0.132374,0.00805348,0.743483,0.000911003,0,0,0,0,0,0,0,6.57337,-26.0362,5.96376,12.157,2.50549,-1.64802,0.0577852,
0.0597437,-0.0555175,0.166734,-2.03174,0.302547,0.289024,0.00539602,0.0789504,-0.0689836,0.0832897,-0.27661,0.667463,0.825079,0.00645418,-0.40108,0.179465,-0.296153,-0.523851,-17.8579,-4.12898,-0.112468,14.0176,-0.387369,14.5372,-33.4143,9.08398,6.21484,0.0611585,0.0585864,-0.0542942,0.165482,-2.02749,0.295157,0.276067,0.00534377,0.0330444,-0.0738592,0.110323,-0.132374,0.00805348,0.743483,0.000911003,0,0,0,0,0,0,0,6.57337,-26.0362,5.96376,12.157,2.50549,-1.64802,0.0577852,
0.0604217,-0.0559181,0.167448,-2.03404,0.307754,0.295075,0.00546302,0.0801124,-0.0652039,0.0844859,-0.278811,0.664168,0.811327,0.00683831,0.72624,2.36234,0.747591,-1.37571,-2.05922,-8.59466,0.240084,13.6199,-0.19809,14.1194,-32.9332,8.61703,6.08169,0.0801979,0.0585864,-0.0542942,0.165482,-2.02749,0.295157,0.276067,0.00534377,0.0330444,-0.0738592,0.110323,-0.132374,0.00805348,0.743483,0.000911003,0,0,0,0,0,0,0,6.57337,-26.0362,5.96376,12.157,2.50549,-1.64802,0.0577852,
0.061162,-0.0562074,0.168224,-2.03635,0.313204,0.300748,0.00553498,0.0825969,-0.0593952,0.0869823,-0.280699,0.667575,0.790902,0.00726962,1.55282,3.63044,1.56024,-1.18022,2.12943,-12.766,0.269564,13.1051,-0.00565564,13.5804,-32.4675,8.29502,5.88715,0.0942118,0.0585864,-0.0542942,0.165482,-2.02749,0.295157,0.276067,0.00534377,0.0330444,-0.0738592,0.110323,-0.132374,0.00805348,0.743483,0.000911003,0,0,0,0,0,0,0,6.57337,-26.0362,5.96376,12.157,2.50549,-1.64802,0.0577852,
0.0597437,-0.0555175,0.166734,-2.03174,0.302547,0.289024,0.00539602,0.0813542,-0.0610832,0.0858647,-0.280552,0.644694,0.792452,0.00696257,-0.776676,-1.05498,-0.698489,0.0921049,-14.3004,0.968955,-0.191904,13.6122,-0.199312,14.1221,-32.9896,8.64854,5.98605,0.0805556,0.0598026,-0.0553908,0.168281,-2.03172,0.295142,0.300335,0.00533258,0.0505022,0.0171694,0.0828266,-0.125193,-0.00370188,0.6259,-0.0017085,2.18221,11.3786,-3.43704,0.897682,-1.46942,-14.6979,-0.327438,0.285221,-28.2817,0.0366345,16.8384,2.28485,-0.838693,0.158493,
0.0615251,-0.0559683,0.170136,-2.03863,0.307034,0.317596,0.00547555,0.0811435,-0.0526209,0.0857115,-0.284505,0.636327,0.771505,0.00728889,-0.131733,5.28891,-0.0957648,-2.47065,-5.2296,-13.0917,0.203949,13.0973,-0.00687749,13.5831,-32.5239,8.32653,5.79152,0.0945694,0.0598026,-0.0553908,0.168281,-2.03172,0.295142,0.300335,0.00533258,0.0505022,0.0171694,0.0828266,-0.125193,-0.00370188,0.6259,-0.0017085,0,0,0,0,0,0,0,0.285221,-28.2817,0.0366345,16.8384,2.28485,-0.838693,0.158493,
0.0622472,-0.0560642,0.170896,-2.04099,0.311642,0.32274,0.00555117,0.0829653,-0.0444944,0.0875728,-0.286594,0.624264,0.745802,0.00772164,1.13866,5.0791,1.16331,-1.30583,-7.53924,-16.0647,0.27047,12.4608,0.203,12.9586,-32.0712,7.4926,5.52279,0.0921948,0.0598026,-0.0553908,0.168281,-2.03172,0.295142,0.300335,0.00533258,0.0505022,0.0171694,0.0828266,-0.125193,-0.00370188,0.6259,-0.0017085,0,0,0,0,0,0,0,0.285221,-28.2817,0.0366345,16.8384,2.28485,-0.838693,0.158493,
0.063038,-0.0561213,0.171725,-2.0433,0.315672,0.327544,0.0056258,0.0861441,-0.037022,0.090782,-0.287026,0.600159,0.716761,0.00804301,1.98673,4.67025,2.00577,-0.269666,-15.0658,-18.1507,0.20086,11.8919,0.467257,12.442,-31.5854,5.61548,5.25374,0.0867275,0.0598026,-0.0553908,0.168281,-2.03172,0.295142,0.300335,0.00533258,0.0505022,0.0171694,0.0828266,-0.125193,-0.00370188,0.6259,-0.0017085,0,0,0,0,0,0,0,0.285221,-28.2817,0.0366345,16.8384,2.28485,-0.838693,0.158493,
0.0628296,-0.0557045,0.173079,-2.04121,0.301991,0.327133,0.00541916,0.0858521,-0.0300981,0.0906925,-0.2927,0.579986,0.692582,0.00784823,-0.182462,4.32744,-0.0559118,-3.54635,-12.6082,-15.1113,-0.121737,13.0933,-0.0129133,13.5853,-32.5332,8.35216,5.73861,0.0947207,0.0615072,-0.0556963,0.171654,-2.03635,0.295218,0.317701,0.00533664,0.066824,0.050859,0.111503,-0.157833,-0.00707611,0.428526,0.000690253,2.04023,4.2112,3.58451,-4.08,-0.421778,-24.6717,0.299844,0.487552,-29.7536,0.361952,23.7891,2.18139,0.818411,0.11821,
0.0635677,-0.0556951,0.173859,-2.0437,0.306099,0.331737,0.00548991,0.0871329,-0.0238423,0.0920638,-0.296385,0.56668,0.669159,0.00804716,0.800471,3.90987,0.857044,-2.30346,-8.31649,-14.6399,0.124327,12.4567,0.196964,12.9608,-32.0806,7.51823,5.46988,0.092346,0.0615072,-0.0556963,0.171654,-2.03635,0.295218,0.317701,0.00533664,0.066824,0.050859,0.111503,-0.157833,-0.00707611,0.428526,0.000690253,0,0,0,0,0,0,0,0.487552,-29.7536,0.361952,23.7891,2.18139,0.818411,0.11821,
0.0643654,-0.0556605,0.174698,-2.04612,0.309814,0.336122,0.00556251,0.0896501,-0.0182094,0.0946165,-0.297627,0.546233,0.644966,0.00825276,1.57326,3.52055,1.5954,-0.775935,-12.7791,-15.1206,0.128498,11.8879,0.461221,12.4443,-31.5948,5.64112,5.20083,0.0868788,0.0615072,-0.0556963,0.171654,-2.03635,0.295218,0.317701,0.00533664,0.066824,0.050859,0.111503,-0.157833,-0.00707611,0.428526,0.000690253,0,0,0,0,0,0,0,0.487552,-29.7536,0.361952,23.7891,2.18139,0.818411,0.11821,
0.0652129,-0.0556099,0.175585,-2.04848,0.312907,0.340286,0.00563469,0.0929076,-0.0133016,0.09788,-0.296998,0.514293,0.620067,0.00840684,2.03597,3.06735,2.03973,0.393399,-19.9622,-15.5617,0.0963023,11.4681,0.750656,12.04,-31.0733,4.10938,4.9212,0.0801345,0.0615072,-0.0556963,0.171654,-2.03635,0.295218,0.317701,0.00533664,0.066824,0.050859,0.111503,-0.157833,-0.00707611,0.428526,0.000690253,0,0,0,0,0,0,0,0.487552,-29.7536,0.361952,23.7891,2.18139,0.818411,0.11821,
0.0628362,-0.0556812,0.173086,-2.04108,0.300999,0.326861,0.00542324,0.0914764,-0.0108309,0.0966031,-0.298768,0.492894,0.611194,0.00820641,-0.894506,1.54419,-0.798078,-1.10658,-13.3747,-5.54559,-0.125268,12.4693,0.187378,12.9754,-32.0671,7.54123,5.45723,0.0923609,0.0634307,-0.0552752,0.175258,-2.0419,0.29533,0.327276,0.00533664,0.0755694,0.0581182,0.127347,-0.172056,-0.00759551,0.210555,-0.000627174,1.09318,0.907407,1.98054,-1.77791,-0.0649252,-27.2464,-0.164678,1.90784,-27.1352,1.48866,22.8171,1.82708,0.798269,0.11821,
0.0635798,-0.055664,0.173872,-2.0435,0.304196,0.331287,0.00549092,0.0917735,-0.00823624,0.096937,-0.299464,0.474238,0.599604,0.00825714,0.185669,1.62167,0.208697,-0.434707,-11.6596,-7.24356,0.0317047,11.9005,0.451635,12.4589,-31.5813,5.66412,5.18818,0.0868937,0.0634307,-0.0552752,0.175258,-2.0419,0.29533,0.327276,0.00533664,0.0755694,0.0581182,0.127347,-0.172056,-0.00759551,0.210555,-0.000627174,0,0,0,0,0,0,0,1.90784,-27.1352,1.48866,22.8171,1.82708,0.798269,0.11821,
0.0643779,-0.0556233,0.174711,-2.04586,0.306962,0.335493,0.00556078,0.0933708,-0.00557155,0.0985174,-0.298569,0.448523,0.584837,0.00835216,0.998284,1.66543,0.987715,0.559056,-16.0719,-9.22968,0.0593883,11.4807,0.741071,12.0546,-31.0597,4.13239,4.90855,0.0801494,0.0634307,-0.0552752,0.175258,-2.0419,0.29533,0.327276,0.00533664,0.0755694,0.0581182,0.127347,-0.172056,-0.00759551,0.210555,-0.000627174,0,0,0,0,0,0,0,1.90784,-27.1352,1.48866,22.8171,1.82708,0.798269,0.11821,
0.0649529,-0.0551202,0.176886,-2.04678,0.299786,0.334111,0.00542403,0.0940995,-0.00287759,0.0993983,-0.30151,0.420837,0.557677,0.00810733,0.45543,1.68372,0.550599,-1.83822,-17.3037,-16.9748,-0.153017,11.9005,0.451635,12.4589,-31.5813,5.66412,5.18818,0.0868937,0.0634307,-0.0552752,0.175258,-2.0419,0.29533,0.327276,0.00533664,0.0755694,0.0581182,0.127347,-0.172056,-0.00759551,0.210555,-0.000627174,0,0,0,0,0,0,0,1.90784,-27.1352,1.48866,22.8171,1.82708,0.798269,0.11821,
0.0657694,-0.0550345,0.177746,-2.04924,0.302126,0.337739,0.00548955,0.095693,-0.000161207,0.101022,-0.302791,0.395169,0.536824,0.0081238,0.995937,1.69774,1.01474,-0.800554,-16.043,-13.0334,0.01029,11.502,0.743973,12.0708,-31.0141,4.15314,4.93768,0.080006,0.0658307,-0.0537735,0.179166,-2.04934,0.29532,0.330873,0.00533958,0.0760765,0.0503003,0.115853,-0.243412,-0.00724071,0.0489029,0.000183654,0.063389,-0.977245,-1.43672,-8.9195,0.0443499,-20.2065,0.101354,1.83246,-29.456,1.48866,26.7526,1.74194,1.87951,0.0907442,
0.0666236,-0.0549302,0.178642,-2.05163,0.304043,0.341304,0.00555749,0.0979092,0.00247974,0.103211,-0.302097,0.364048,0.518587,0.00819771,1.38516,1.65059,1.36821,0.433595,-19.4501,-11.3977,0.0461967,11.2344,1.00519,11.8027,-30.4768,2.84565,4.68118,0.0762754,0.0658307,-0.0537735,0.179166,-2.04934,0.29532,0.330873,0.00533958,0.0760765,0.0503003,0.115853,-0.243412,-0.00724071,0.0489029,0.000183654,0,0,0,0,0,0,0,1.83246,-29.456,1.48866,26.7526,1.74194,1.87951,0.0907442,
0.0675085,-0.0548163,0.179567,-2.05397,0.305422,0.344771,0.00562716,0.10045,0.00483026,0.105696,-0.299956,0.325718,0.501562,0.0082999,1.58783,1.46907,1.5533,1.33832,-23.9567,-10.6407,0.0638659,11.0851,1.20858,11.645,-29.9403,1.74169,4.44517,0.0743561,0.0658307,-0.0537735,0.179166,-2.04934,0.29532,0.330873,0.00533958,0.0760765,0.0503003,0.115853,-0.243412,-0.00724071,0.0489029,0.000183654,0,0,0,0,0,0,0,1.83246,-29.456,1.48866,26.7526,1.74194,1.87951,0.0907442,
0.0673668,-0.0534197,0.180803,-2.05455,0.298357,0.335489,0.00543997,0.10009,0.00823984,0.105443,-0.305536,0.302185,0.46625,0.00814172,-0.224876,2.13099,-0.15818,-3.48734,-14.7082,-22.0702,-0.0988582,11.502,0.743973,12.0708,-31.0141,4.15314,4.93768,0.080006,0.0658307,-0.0537735,0.179166,-2.04934,0.29532,0.330873,0.00533958,0.0760765,0.0503003,0.115853,-0.243412,-0.00724071,0.0489029,0.000183654,0,0,0,0,0,0,0,1.83246,-29.456,1.48866,26.7526,1.74194,1.87951,0.0907442,
0.068198,-0.0532271,0.181677,-2.0571,0.299838,0.338334,0.00550599,0.100854,0.0114059,0.106217,-0.308,0.278768,0.444141,0.00816366,0.477574,1.97878,0.483742,-1.54032,-14.6352,-13.8178,0.01371,11.2363,0.965362,11.7946,-30.4084,2.85301,4.72341,0.0760498,0.0682541,-0.0518368,0.18228,-2.05739,0.295223,0.331041,0.00534016,0.0751645,0.0385605,0.094255,-0.236828,-0.0165221,0.004418,0.000739732,-0.114007,-1.46747,-2.69977,0.823029,-1.16018,-5.56062,0.0695098,1.4278,-35.2959,0.889601,29.7162,1.82068,2.66137,0.0440523,
0.0690649,-0.0530279,0.182585,-2.05955,0.300927,0.341283,0.00557485,0.102354,0.0141053,0.107676,-0.30774,0.25026,0.429038,0.00825255,0.937217,1.68713,0.911936,0.162432,-17.8178,-9.43979,0.0555541,11.0871,1.16876,11.6369,-29.8719,1.74905,4.4874,0.0741305,0.0682541,-0.0518368,0.18228,-2.05739,0.295223,0.331041,0.00534016,0.0751645,0.0385605,0.094255,-0.236828,-0.0165221,0.004418,0.000739732,0,0,0,0,0,0,0,1.4278,-35.2959,0.889601,29.7162,1.82068,2.66137,0.0440523,
0.0699586,-0.0528325,0.183519,-2.06192,0.301556,0.344259,0.00564507,0.104227,0.016169,0.109483,-0.305579,0.215918,0.417632,0.00835757,1.17086,1.28978,1.12893,1.35088,-21.4637,-7.12885,0.0656418,11.0247,1.30674,11.5619,-29.3442,0.809237,4.28008,0.0749332,0.0682541,-0.0518368,0.18228,-2.05739,0.295223,0.331041,0.00534016,0.0751645,0.0385605,0.094255,-0.236828,-0.0165221,0.004418,0.000739732,0,0,0,0,0,0,0,1.4278,-35.2959,0.889601,29.7162,1.82068,2.66137,0.0440523,
0.0697118,-0.0515706,0.183827,-2.06244,0.297137,0.335156,0.00544789,0.102348,0.0164374,0.107615,-0.308066,0.198259,0.39371,0.00823883,-1.17453,0.167791,-1.16749,-1.55466,-11.0368,-14.9511,-0.074214,11.2363,0.965362,11.7946,-30.4084,2.85301,4.72341,0.0760498,0.0682541,-0.0518368,0.18228,-2.05739,0.295223,0.331041,0.00534016,0.0751645,0.0385605,0.094255,-0.236828,-0.0165221,0.004418,0.000739732,0,0,0,0,0,0,0,1.4278,-35.2959,0.889601,29.7162,1.82068,2.66137,0.0440523,
0.0705217,-0.0514027,0.184678,-2.06492,0.297931,0.337836,0.00551569,0.102125,0.017347,0.107351,-0.308354,0.178476,0.381958,0.00828604,-0.139358,0.568505,-0.165065,-0.179513,-12.3647,-7.34518,0.0295037,11.0816,1.1467,11.6187,-29.7944,1.75836,4.53449,0.0739106,0.0704138,-0.0495548,0.18573,-2.06528,0.294028,0.330941,0.00533859,0.0531141,0.0613991,0.102072,-0.232397,-0.0603816,0.0042702,0.000721003,-2.7563,2.85483,0.97709,0.553862,-5.48244,-0.0184749,-0.00234122,0.539127,-32.126,0.413527,22.468,1.40594,1.73394,0.0577852,
0.0713713,-0.0512215,0.185566,-2.06731,0.298364,0.340651,0.00558559,0.102939,0.0184091,0.108098,-0.306614,0.153592,0.375938,0.00837633,0.508896,0.663795,0.466995,1.0875,-15.5521,-3.76238,0.0564345,11.0192,1.28468,11.5438,-29.2667,0.818545,4.32716,0.0747132,0.0704138,-0.0495548,0.18573,-2.06528,0.294028,0.330941,0.00533859,0.0531141,0.0613991,0.102072,-0.232397,-0.0603816,0.0042702,0.000721003,0,0,0,0,0,0,0,0.539127,-32.126,0.413527,22.468,1.40594,1.73394,0.0577852,
0.071804,-0.0490751,0.187209,-2.07026,0.294697,0.334911,0.00545103,0.100602,0.0204172,0.105742,-0.308211,0.13184,0.358165,0.00830925,-1.46032,1.25505,-1.47242,-0.998023,-13.5948,-11.1082,-0.0419267,11.0816,1.1467,11.6187,-29.7944,1.75836,4.53449,0.0739106,0.0704138,-0.0495548,0.18573,-2.06528,0.294028,0.330941,0.00533859,0.0531141,0.0613991,0.102072,-0.232397,-0.0603816,0.0042702,0.000721003,0,0,0,0,0,0,0,0.539127,-32.126,0.413527,22.468,1.40594,1.73394,0.0577852,
0.0725899,-0.0488455,0.188033,-2.07271,0.294837,0.337488,0.00552021,0.10013,0.0220734,0.105209,-0.307865,0.108995,0.350958,0.00837699,-0.295196,1.03511,-0.333138,0.215777,-14.2781,-4.504,0.0423407,11.0192,1.28468,11.5438,-29.2667,0.818545,4.32716,0.0747132,0.0704138,-0.0495548,0.18573,-2.06528,0.294028,0.330941,0.00533859,0.0531141,0.0613991,0.102072,-0.232397,-0.0603816,0.0042702,0.000721003,0,0,0,0,0,0,0,0.539127,-32.126,0.413527,22.468,1.40594,1.73394,0.0577852,
0.0734184,-0.0486201,0.188899,-2.07509,0.294666,0.340196,0.00559193,0.100818,0.023293,0.105815,-0.305662,0.0829182,0.348474,0.00849454,0.430057,0.762276,0.378596,1.37688,-16.2983,-1.55273,0.0734678,11.0225,1.31261,11.5242,-28.6674,0.065716,4.18799,0.0759233,0.0721575,-0.0479772,0.189186,-2.07376,0.291881,0.329999,0.0053293,0.0607557,0.0385573,0.101679,-0.265214,-0.07325,-0.0243535,-0.00078578,0.955207,-2.85523,-0.0490412,-4.1022,-1.60855,-3.57796,-0.188348,0.182071,-29.6782,-0.0387439,21.0754,1.48559,1.36223,0.0980684,
0.0742778,-0.0484064,0.189795,-2.07739,0.29417,0.342954,0.00566494,0.102138,0.0239781,0.10704,-0.302165,0.0539333,0.347743,0.00862089,0.825023,0.428181,0.765752,2.18612,-18.1156,-0.456667,0.0789688,11.046,1.33543,11.5311,-28.1656,-0.567596,4.02094,0.0788376,0.0721575,-0.0479772,0.189186,-2.07376,0.291881,0.329999,0.0053293,0.0607557,0.0385573,0.101679,-0.265214,-0.07325,-0.0243535,-0.00078578,0,0,0,0,0,0,0,0.182071,-29.6782,-0.0387439,21.0754,1.48559,1.36223,0.0980684,
0.0736241,-0.0475726,0.190735,-2.07876,0.291652,0.333275,0.0054514,0.100869,0.024366,0.105753,-0.304242,0.0399238,0.327449,0.00857228,-0.793276,0.242473,-0.804199,-1.29867,-8.75589,-12.6838,-0.0303851,11.0315,1.23695,11.5483,-29.1823,0.836066,4.37724,0.0744336,0.0721575,-0.0479772,0.189186,-2.07376,0.291881,0.329999,0.0053293,0.0607557,0.0385573,0.101679,-0.265214,-0.07325,-0.0243535,-0.00078578,0,0,0,0,0,0,0,0.182071,-29.6782,-0.0387439,21.0754,1.48559,1.36223,0.0980684,
0.0744398,-0.0473524,0.191588,-2.08119,0.291311,0.335587,0.0055225,0.101088,0.0249989,0.105924,-0.304062,0.0234197,0.319757,0.00863524,0.136966,0.395513,0.106736,0.112724,-10.3151,-4.80722,0.0393509,11.0225,1.31261,11.5242,-28.6674,0.065716,4.18799,0.0759233,0.0721575,-0.0479772,0.189186,-2.07376,0.291881,0.329999,0.0053293,0.0607557,0.0385573,0.101679,-0.265214,-0.07325,-0.0243535,-0.00078578,0,0,0,0,0,0,0,0.182071,-29.6782,-0.0387439,21.0754,1.48559,1.36223,0.0980684,
0.075291,-0.0471324,0.192475,-2.08354,0.290705,0.338081,0.00559523,0.10215,0.0254986,0.106918,-0.301973,0.0036003,0.318149,0.00872636,0.663469,0.312321,0.621197,1.30542,-12.3871,-1.00522,0.0569505,11.046,1.33543,11.5311,-28.1656,-0.567596,4.02094,0.0788376,0.0721575,-0.0479772,0.189186,-2.07376,0.291881,0.329999,0.0053293,0.0607557,0.0385573,0.101679,-0.265214,-0.07325,-0.0243535,-0.00078578,0,0,0,0,0,0,0,0.182071,-29.6782,-0.0387439,21.0754,1.48559,1.36223,0.0980684,
0.0761666,-0.0469226,0.193386,-2.08582,0.289836,0.340665,0.00566945,0.103609,0.0256442,0.108295,-0.298573,-0.0188514,0.319112,0.00883671,0.91191,0.0910288,0.860567,2.12539,-14.0323,0.60161,0.0689684,11.0744,1.25919,11.5375,-27.5856,-1.04441,3.91992,0.0813034,0.0738634,-0.0468988,0.192626,-2.08305,0.288377,0.329406,0.00533529,0.0531447,0.068355,0.103418,-0.281834,-0.114945,-0.00620539,0.000839593,-0.951382,3.72472,0.217324,-2.07744,-5.21191,2.26851,0.203172,-1.18664,-30.1027,-1.41142,24.5349,1.3327,1.85937,0.0440523,
0.0752987,-0.0461719,0.194143,-2.08812,0.287143,0.332536,0.00546521,0.101689,0.0290914,0.106388,-0.301998,-0.0312036,0.301882,0.00882231,-1.19962,2.1545,-1.19168,-2.14102,-7.72008,-10.7683,-0.00900188,11.0156,1.25603,11.5126,-28.5765,0.083262,4.24053,0.075684,0.0738634,-0.0468988,0.192626,-2.08305,0.288377,0.329406,0.00533529,0.0531447,0.068355,0.103418,-0.281834,-0.114945,-0.00620539,0.000839593,0,0,0,0,0,0,0,-1.18664,-30.1027,-1.41142,24.5349,1.3327,1.85937,0.0440523,
0.0761008,-0.0458546,0.194982,-2.09056,0.286321,0.334717,0.00553816,0.101404,0.0312058,0.106074,-0.302608,-0.0455018,0.29602,0.00888174,-0.178094,1.32145,-0.196161,-0.380925,-8.93641,-3.66372,0.0371476,11.0391,1.27885,11.5196,-28.0747,-0.55005,4.07348,0.0785982,0.0738634,-0.0468988,0.192626,-2.08305,0.288377,0.329406,0.00533529,0.0531447,0.068355,0.103418,-0.281834,-0.114945,-0.00620539,0.000839593,0,0,0,0,0,0,0,-1.18664,-30.1027,-1.41142,24.5349,1.3327,1.85937,0.0440523,
0.0769387,-0.0455654,0.195855,-2.09292,0.285295,0.337074,0.00561275,0.102071,0.0321959,0.106684,-0.300952,-0.0620721,0.295763,0.00897009,0.416896,0.618813,0.380922,1.03518,-10.3564,-0.160931,0.0552188,11.0744,1.25919,11.5375,-27.5856,-1.04441,3.91992,0.0813034,0.0738634,-0.0468988,0.192626,-2.08305,0.288377,0.329406,0.00533529,0.0531447,0.068355,0.103418,-0.281834,-0.114945,-0.00620539,0.000839593,0,0,0,0,0,0,0,-1.18664,-30.1027,-1.41142,24.5349,1.3327,1.85937,0.0440523,
0.077801,-0.0453062,0.196751,-2.0952,0.284076,0.339527,0.00568814,0.103215,0.0322353,0.107749,-0.297733,-0.0801129,0.297923,0.00906091,0.714796,0.0246314,0.66582,2.01152,-11.2755,1.34999,0.0567622,11.1132,1.09996,11.5539,-27.017,-1.41214,3.82301,0.0842536,0.075438,-0.0458851,0.195943,-2.09228,0.284808,0.32931,0.00534034,0.0513066,0.045122,0.0946295,-0.250612,-0.0897823,-0.0213502,0.00204715,-0.229754,-2.90413,-1.09857,3.90273,3.14538,-1.89311,0.150945,0.0828892,-33.5463,-0.213304,29.3671,1.49749,2.6751,-0.0026396,
0.076853,-0.0454419,0.197431,-2.09704,0.283372,0.332459,0.00548032,0.101249,0.0311872,0.105731,-0.297828,-0.0841527,0.285651,0.00909575,-1.22873,-0.655055,-1.26133,-0.0592054,-2.52484,-7.66964,0.0217727,11.0412,1.17063,11.5168,-27.9842,-0.532288,4.11362,0.0783016,0.075438,-0.0458851,0.195943,-2.09228,0.284808,0.32931,0.00534034,0.0513066,0.045122,0.0946295,-0.250612,-0.0897823,-0.0213502,0.00204715,0,0,0,0,0,0,0,0.0828892,-33.5463,-0.213304,29.3671,1.49749,2.6751,-0.0026396,
0.0776542,-0.045227,0.198265,-2.09937,0.282355,0.334678,0.00555611,0.101029,0.0303227,0.105454,-0.296422,-0.0927482,0.284,0.0091715,-0.137667,-0.540267,-0.172816,0.878964,-5.3722,-1.03234,0.0473466,11.0765,1.15097,11.5347,-27.4951,-1.02665,3.96006,0.0810067,0.075438,-0.0458851,0.195943,-2.09228,0.284808,0.32931,0.00534034,0.0513066,0.045122,0.0946295,-0.250612,-0.0897823,-0.0213502,0.00204715,0,0,0,0,0,0,0,0.0828892,-33.5463,-0.213304,29.3671,1.49749,2.6751,-0.0026396,
0.0784917,-0.0450206,0.199136,-2.10163,0.28114,0.337071,0.00563231,0.10176,0.0294181,0.106122,-0.293621,-0.104564,0.287023,0.00924211,0.457077,-0.565401,0.417313,1.75033,-7.38472,1.88935,0.0441272,11.1132,1.09996,11.5539,-27.017,-1.41214,3.82301,0.0842536,0.075438,-0.0458851,0.195943,-2.09228,0.284808,0.32931,0.00534034,0.0513066,0.045122,0.0946295,-0.250612,-0.0897823,-0.0213502,0.00204715,0,0,0,0,0,0,0,0.0828892,-33.5463,-0.213304,29.3671,1.49749,2.6751,-0.0026396,
0.0787439,-0.0438274,0.20034,-2.105,0.280308,0.333166,0.00547092,0.100119,0.0296313,0.104405,-0.292867,-0.106919,0.279831,0.00932814,-1.02606,0.133258,-1.07324,0.471041,-1.47196,-4.49502,0.0537723,11.0676,1.08899,11.5164,-27.4038,-1.01185,4.00275,0.0807471,0.0773265,-0.0443578,0.198857,-2.10039,0.281899,0.3297,0.00532384,0.0630051,0.0592054,0.0810471,-0.23847,-0.0654906,0.019982,-0.000938615,1.46231,1.76042,-1.6978,1.5178,3.03645,5.16652,-0.373221,-0.476498,-32.4513,-0.76079,28.1729,1.26495,2.21734,0.104477,
0.0795454,-0.043603,0.201173,-2.10727,0.279134,0.335444,0.00554879,0.100134,0.0293166,0.104352,-0.291013,-0.114883,0.280828,0.00940921,0.00952213,-0.196718,-0.0330852,1.15907,-4.97777,0.623188,0.0506681,11.1043,1.03797,11.5356,-26.9257,-1.39734,3.86571,0.083994,0.0773265,-0.0443578,0.198857,-2.10039,0.281899,0.3297,0.00532384,0.0630051,0.0592054,0.0810471,-0.23847,-0.0654906,0.019982,-0.000938615,0,0,0,0,0,0,0,-0.476498,-32.4513,-0.76079,28.1729,1.26495,2.21734,0.104477,
0.0803816,-0.0433975,0.20204,-2.10948,0.27777,0.33786,0.00562661,0.101012,0.0285903,0.10516,-0.288012,-0.126013,0.285059,0.00947299,0.548845,-0.453912,0.504875,1.8756,-6.95629,2.64464,0.0398614,11.1312,0.964924,11.545,-26.457,-1.67594,3.73903,0.0866379,0.0773265,-0.0443578,0.198857,-2.10039,0.281899,0.3297,0.00532384,0.0630051,0.0592054,0.0810471,-0.23847,-0.0654906,0.019982,-0.000938615,0,0,0,0,0,0,0,-0.476498,-32.4513,-0.76079,28.1729,1.26495,2.21734,0.104477,
0.0812393,-0.0432126,0.202928,-2.11163,0.27627,0.34034,0.00570415,0.102253,0.0274949,0.106323,-0.284173,-0.138314,0.290029,0.00951667,0.775411,-0.684656,0.72733,2.39904,-7.68813,3.10627,0.0273013,11.1445,0.878349,11.5412,-25.9958,-1.87342,3.62481,0.0893196,0.0773265,-0.0443578,0.198857,-2.10039,0.281899,0.3297,0.00532384,0.0630051,0.0592054,0.0810471,-0.23847,-0.0654906,0.019982,-0.000938615,0,0,0,0,0,0,0,-0.476498,-32.4513,-0.76079,28.1729,1.26495,2.21734,0.104477,
0.0787565,-0.0438192,0.200349,-2.10493,0.280008,0.333024,0.00547841,0.100668,0.0281473,0.104684,-0.284365,-0.138116,0.280246,0.00961482,-0.990302,0.407785,-1.02467,-0.119572,0.124067,-6.11451,0.0613405,11.1189,0.951802,11.5437,-26.844,-1.38265,3.89987,0.0837362,0.0797034,-0.0432116,0.201479,-2.10833,0.280323,0.330203,0.00533158,0.0710087,-0.00244885,0.0776075,-0.235877,-0.0352189,0.00525705,0.000373673,1.00045,-7.70678,-0.429942,0.324099,3.78396,-1.84061,0.164036,0.66608,-34.3199,0.338148,31.3626,1.45446,3.00652,0.0440523,
0.0795624,-0.0435963,0.201185,-2.10716,0.278672,0.335218,0.00555823,0.100681,0.0280912,0.104651,-0.283316,-0.143888,0.279048,0.0096873,0.00803309,-0.0350715,-0.020291,0.655363,-3.60759,-0.748608,0.0453052,11.1459,0.878752,11.5531,-26.3753,-1.66125,3.77319,0.0863801,0.0797034,-0.0432116,0.201479,-2.10833,0.280323,0.330203,0.00533158,0.0710087,-0.00244885,0.0776075,-0.235877,-0.0352189,0.00525705,0.000373673,0,0,0,0,0,0,0,0.66608,-34.3199,0.338148,31.3626,1.45446,3.00652,0.0440523,
0.0804003,-0.0433946,0.202053,-2.10934,0.277174,0.337549,0.0056371,0.101492,0.027514,0.105414,-0.281018,-0.152566,0.281501,0.00972174,0.506859,-0.360736,0.476773,1.43643,-5.42402,1.53294,0.0215203,11.1591,0.792176,11.5493,-25.9141,-1.85873,3.65897,0.0890618,0.0797034,-0.0432116,0.201479,-2.10833,0.280323,0.330203,0.00533158,0.0710087,-0.00244885,0.0776075,-0.235877,-0.0352189,0.00525705,0.000373673,0,0,0,0,0,0,0,0.66608,-34.3199,0.338148,31.3626,1.45446,3.00652,0.0440523,
0.0811974,-0.0432011,0.203025,-2.1126,0.278501,0.333341,0.00549528,0.100845,0.0227229,0.10465,-0.27844,-0.149339,0.27184,0.00984864,-0.404246,-2.99448,-0.477449,1.6111,2.01688,-6.03821,0.0793149,11.1459,0.878752,11.5531,-26.3753,-1.66125,3.77319,0.0863801,0.0797034,-0.0432116,0.201479,-2.10833,0.280323,0.330203,0.00533158,0.0710087,-0.00244885,0.0776075,-0.235877,-0.0352189,0.00525705,0.000373673,0,0,0,0,0,0,0,0.66608,-34.3199,0.338148,31.3626,1.45446,3.00652,0.0440523,
0.0820299,-0.0431387,0.203885,-2.11472,0.277164,0.335516,0.00557609,0.101488,0.0197393,0.105222,-0.275582,-0.152883,0.271837,0.00989914,0.402052,-1.86472,0.357154,1.78651,-2.21449,-0.00182846,0.0315643,11.1515,0.724223,11.5347,-25.8338,-1.85081,3.69718,0.0888423,0.0820301,-0.0420374,0.204008,-2.11617,0.279594,0.330891,0.00532769,0.0607559,0.00729696,0.0751408,-0.211666,-0.0192685,0.0208042,-0.000955157,-1.2816,1.21823,-0.308344,3.02641,1.9938,1.9434,-0.166104,0.892215,-33.7209,0.639662,26.9272,1.38122,2.7813,0.0980684,
0.0828886,-0.0430587,0.204771,-2.11679,0.275674,0.33785,0.00565545,0.102658,0.0177898,0.106337,-0.272257,-0.159562,0.27584,0.00990323,0.730984,-1.21845,0.696961,2.07821,-4.1744,2.50197,0.00255471,11.1458,0.6305,11.5125,-25.3788,-1.97122,3.59132,0.0908134,0.0820301,-0.0420374,0.204008,-2.11617,0.279594,0.330891,0.00532769,0.0607559,0.00729696,0.0751408,-0.211666,-0.0192685,0.0208042,-0.000955157,0,0,0,0,0,0,0,0.892215,-33.7209,0.639662,26.9272,1.38122,2.7813,0.0980684,
0.0837605,-0.042973,0.20567,-2.11882,0.274099,0.34026,0.00573367,0.103923,0.0163763,0.107551,-0.268548,-0.167026,0.280908,0.009878,0.790743,-0.88343,0.758526,2.31796,-4.66529,3.16762,-0.0157675,11.1209,0.535,11.4717,-24.9282,-2.03499,3.49497,0.0925981,0.0820301,-0.0420374,0.204008,-2.11617,0.279594,0.330891,0.00532769,0.0607559,0.00729696,0.0751408,-0.211666,-0.0192685,0.0208042,-0.000955157,0,0,0,0,0,0,0,0.892215,-33.7209,0.639662,26.9272,1.38122,2.7813,0.0980684,
0.0834609,-0.0420111,0.205487,-2.12026,0.277787,0.334278,0.00549621,0.102111,0.0137355,0.105626,-0.266563,-0.161311,0.27406,0.0100292,-1.13243,-1.65053,-1.20281,1.24044,3.57192,-4.28033,0.0944705,11.1515,0.724223,11.5347,-25.8338,-1.85081,3.69718,0.0888423,0.0820301,-0.0420374,0.204008,-2.11617,0.279594,0.330891,0.00532769,0.0607559,0.00729696,0.0751408,-0.211666,-0.0192685,0.0208042,-0.000955157,0,0,0,0,0,0,0,0.892215,-33.7209,0.639662,26.9272,1.38122,2.7813,0.0980684,
0.0842715,-0.0419607,0.206323,-2.12231,0.276421,0.336526,0.00557864,0.101954,0.0122482,0.105406,-0.264493,-0.163201,0.275438,0.010084,-0.0983109,-0.929564,-0.137613,1.294,-1.18113,0.861207,0.0343035,11.1394,0.566164,11.5009,-25.3177,-1.96702,3.61924,0.0906502,0.083638,-0.0410716,0.206678,-2.12216,0.279479,0.331436,0.00533054,0.032466,0.0123178,0.0888325,-0.165041,-0.00263502,0.0145134,-0.000139753,-3.53624,0.627603,1.71146,5.8281,2.07919,-0.786354,0.101925,0.967594,-31.6777,0.762648,22.9916,1.19171,1.79345,0.0577852,
0.0851114,-0.0418964,0.207189,-2.12433,0.27491,0.338906,0.00565875,0.10256,0.011405,0.105969,-0.261974,-0.168348,0.27986,0.0100699,0.378764,-0.526982,0.351737,1.57432,-3.21697,2.76371,-0.00886608,11.1144,0.470664,11.4601,-24.8671,-2.0308,3.52288,0.0924349,0.083638,-0.0410716,0.206678,-2.12216,0.279479,0.331436,0.00533054,0.032466,0.0123178,0.0888325,-0.165041,-0.00263502,0.0145134,-0.000139753,0,0,0,0,0,0,0,0.967594,-31.6777,0.762648,22.9916,1.19171,1.79345,0.0577852,
0.0834609,-0.0420111,0.205487,-2.12026,0.277787,0.334278,0.00549621,0.101021,0.00975841,0.104361,-0.261304,-0.162369,0.273221,0.0101826,-0.962033,-1.02911,-1.00507,0.418686,3.73715,-4.14925,0.0704889,11.1394,0.566164,11.5009,-25.3177,-1.96702,3.61924,0.0906502,0.083638,-0.0410716,0.206678,-2.12216,0.279479,0.331436,0.00533054,0.032466,0.0123178,0.0888325,-0.165041,-0.00263502,0.0145134,-0.000139753,0,0,0,0,0,0,0,0.967594,-31.6777,0.762648,22.9916,1.19171,1.79345,0.0577852,
0.0857795,-0.041134,0.20889,-2.12792,0.276484,0.337441,0.00558544,0.100462,0.00782772,0.103721,-0.258046,-0.163223,0.277531,0.0102348,-0.349209,-1.20668,-0.39991,2.03614,-0.534042,2.69385,0.0325996,11.1144,0.470664,11.4601,-24.8671,-2.0308,3.52288,0.0924349,0.083638,-0.0410716,0.206678,-2.12216,0.279479,0.331436,0.00533054,0.032466,0.0123178,0.0888325,-0.165041,-0.00263502,0.0145134,-0.000139753,0,0,0,0,0,0,0,0.967594,-31.6777,0.762648,22.9916,1.19171,1.79345,0.0577852,
0.0865987,-0.0411137,0.209733,-2.12986,0.275003,0.339905,0.00566617,0.100848,0.00677065,0.104056,-0.254912,-0.167584,0.283616,0.0102062,0.241203,-0.660667,0.209491,1.95908,-2.7255,3.8031,-0.0178999,11.0705,0.306606,11.4023,-24.3645,-2.03584,3.46095,0.0934111,0.0846677,-0.0407591,0.21027,-2.1276,0.279496,0.331482,0.00533182,0.0296914,0.0130314,0.104723,-0.158311,-0.00297911,0.00349479,-0.000315257,-0.346817,0.089201,1.98627,0.841266,-0.0430118,-1.37732,-0.021938,-0.0956386,-31.1778,-0.213304,23.0432,1.08184,2.03881,0.0706026,
0.0874353,-0.0410826,0.210594,-2.13177,0.273464,0.3424,0.00574472,0.101594,0.00619261,0.104762,-0.251691,-0.172549,0.289268,0.0101287,0.466433,-0.361278,0.441095,2.01271,-3.10294,3.53287,-0.0484029,11.0047,0.217751,11.3222,-23.9201,-2.01101,3.37871,0.0942402,0.0846677,-0.0407591,0.21027,-2.1276,0.279496,0.331482,0.00533182,0.0296914,0.0130314,0.104723,-0.158311,-0.00297911,0.00349479,-0.000315257,0,0,0,0,0,0,0,-0.0956386,-31.1778,-0.213304,23.0432,1.08184,2.03881,0.0706026,
0.0860894,-0.0408354,0.211739,-2.13132,0.277852,0.334975,0.00550293,0.100161,0.00407935,0.103229,-0.249304,-0.164046,0.282238,0.0102674,-0.895913,-1.32078,-0.957872,1.49202,5.31424,-4.39415,0.0866714,11.1166,0.400203,11.4635,-24.8115,-2.02394,3.55042,0.0922855,0.0846677,-0.0407591,0.21027,-2.1276,0.279496,0.331482,0.00533182,0.0296914,0.0130314,0.104723,-0.158311,-0.00297911,0.00349479,-0.000315257,0,0,0,0,0,0,0,-0.0956386,-31.1778,-0.213304,23.0432,1.08184,2.03881,0.0706026,
0.0868944,-0.0408451,0.212566,-2.13325,0.27655,0.337262,0.00558617,0.100252,0.00302127,0.103276,-0.247561,-0.163791,0.282963,0.0102948,0.0568065,-0.661302,0.0291128,1.08924,0.15932,0.453479,0.0171259,11.0705,0.306606,11.4023,-24.3645,-2.03584,3.46095,0.0934111,0.0846677,-0.0407591,0.21027,-2.1276,0.279496,0.331482,0.00533182,0.0296914,0.0130314,0.104723,-0.158311,-0.00297911,0.00349479,-0.000315257,0,0,0,0,0,0,0,-0.0956386,-31.1778,-0.213304,23.0432,1.08184,2.03881,0.0706026,
0.0877256,-0.040836,0.213421,-2.13515,0.275117,0.33966,0.00566627,0.100983,0.00264544,0.103986,-0.245648,-0.16686,0.286307,0.0102384,0.457153,-0.234897,0.443979,1.19543,-1.91808,2.08995,-0.0352202,11.0047,0.217751,11.3222,-23.9201,-2.01101,3.37871,0.0942402,0.0846677,-0.0407591,0.21027,-2.1276,0.279496,0.331482,0.00533182,0.0296914,0.0130314,0.104723,-0.158311,-0.00297911,0.00349479,-0.000315257,0,0,0,0,0,0,0,-0.0956386,-31.1778,-0.213304,23.0432,1.08184,2.03881,0.0706026,
0.0885689,-0.0408162,0.214288,-2.13703,0.273639,0.342094,0.00574407,0.101869,0.00261023,0.104855,-0.243403,-0.170431,0.289909,0.0101356,0.553474,-0.0220032,0.54318,1.40365,-2.23206,2.25094,-0.0642776,10.9217,0.0572594,11.2295,-23.4258,-1.94772,3.32612,0.0943631,0.0856236,-0.0407689,0.213875,-2.13263,0.279506,0.33152,0.00532985,0.0386031,0.005556,0.116191,-0.150595,-0.00449199,0.0117164,0.000722076,1.11396,-0.934424,1.4336,0.964428,-0.18911,1.0277,0.129667,0.717655,-30.4796,0.413527,23.6145,1.08825,1.72021,0.0641939,
0.0871443,-0.0409346,0.215442,-2.13623,0.277938,0.33503,0.00549856,0.101404,0.000188567,0.104314,-0.241232,-0.161089,0.282668,0.0102428,-0.290469,-1.51354,-0.338172,1.35656,5.83875,-4.52566,0.0669853,11.0731,0.228529,11.4086,-24.3127,-2.02937,3.48495,0.0932744,0.0856236,-0.0407689,0.213875,-2.13263,0.279506,0.33152,0.00532985,0.0386031,0.005556,0.116191,-0.150595,-0.00449199,0.0117164,0.000722076,0,0,0,0,0,0,0,0.717655,-30.4796,0.413527,23.6145,1.08825,1.72021,0.0641939,
0.0879773,-0.0409794,0.216297,-2.1381,0.276706,0.337301,0.00558057,0.101948,-0.000970187,0.104832,-0.239776,-0.159677,0.282904,0.0102446,0.339876,-0.724221,0.323614,0.910145,0.882579,0.147694,0.00115891,11.0072,0.139674,11.3285,-23.8683,-2.00455,3.40271,0.0941035,0.0856236,-0.0407689,0.213875,-2.13263,0.279506,0.33152,0.00532985,0.0386031,0.005556,0.116191,-0.150595,-0.00449199,0.0117164,0.000722076,0,0,0,0,0,0,0,0.717655,-30.4796,0.413527,23.6145,1.08825,1.72021,0.0641939,
0.088827,-0.0410006,0.217169,-2.13996,0.275356,0.339675,0.00565954,0.1028,-0.00130456,0.105678,-0.238182,-0.161478,0.285681,0.0101698,0.532487,-0.208984,0.528923,0.996357,-1.12591,1.73558,-0.0467593,10.9217,0.0572594,11.2295,-23.4258,-1.94772,3.32612,0.0943631,0.0856236,-0.0407689,0.213875,-2.13263,0.279506,0.33152,0.00532985,0.0386031,0.005556,0.116191,-0.150595,-0.00449199,0.0117164,0.000722076,0,0,0,0,0,0,0,0.717655,-30.4796,0.413527,23.6145,1.08825,1.72021,0.0641939,
0.0896813,-0.041007,0.218046,-2.14179,0.273972,0.342083,0.0057361,0.103597,-0.00120465,0.106472,-0.236259,-0.163783,0.288739,0.0100498,0.498387,0.0624415,0.49646,1.20184,-1.44045,1.9115,-0.0749855,10.8185,-0.0942366,11.1168,-22.936,-1.864,3.27855,0.0941686,0.0866939,-0.0406498,0.217876,-2.13757,0.279521,0.331623,0.00532997,0.0299979,0.00479113,0.119511,-0.151505,0.00131261,0.00512158,-0.000572368,-1.07565,-0.0956084,0.414959,-0.11366,0.725575,-0.824356,-0.161805,1.24927,-31.3524,0.937208,25.2332,0.984799,1.93902,0.0907442,
0.088185,-0.0408138,0.219412,-2.14113,0.278003,0.33499,0.00550014,0.10245,-0.00285602,0.105254,-0.234845,-0.155087,0.27998,0.0101827,-0.716985,-1.0321,-0.761566,0.883527,5.43502,-5.47448,0.0830525,11.0073,0.0630749,11.3316,-23.8197,-1.99912,3.42636,0.0939746,0.0866939,-0.0406498,0.217876,-2.13757,0.279521,0.331623,0.00532997,0.0299979,0.00479113,0.119511,-0.151505,0.00131261,0.00512158,-0.000572368,0,0,0,0,0,0,0,1.24927,-31.3524,0.937208,25.2332,0.984799,1.93902,0.0907442,
0.0890054,-0.0408604,0.220254,-2.14297,0.27681,0.337197,0.00558199,0.102471,-0.00345174,0.105255,-0.233931,-0.153892,0.279164,0.0101924,0.01321,-0.372328,0.000513653,0.571642,0.747235,-0.510185,0.0060694,10.9217,-0.0193401,11.2326,-23.3772,-1.94229,3.34977,0.0942342,0.0866939,-0.0406498,0.217876,-2.13757,0.279521,0.331623,0.00532997,0.0299979,0.00479113,0.119511,-0.151505,0.00131261,0.00512158,-0.000572368,0,0,0,0,0,0,0,1.24927,-31.3524,0.937208,25.2332,0.984799,1.93902,0.0907442,
0.0898428,-0.0408852,0.221114,-2.14479,0.275513,0.339514,0.00566035,0.102912,-0.00338043,0.105696,-0.232731,-0.155521,0.281262,0.0101131,0.275611,0.0445714,0.275701,0.749649,-1.01854,1.31118,-0.0495937,10.8185,-0.0942366,11.1168,-22.936,-1.864,3.27855,0.0941686,0.0866939,-0.0406498,0.217876,-2.13757,0.279521,0.331623,0.00532997,0.0299979,0.00479113,0.119511,-0.151505,0.00131261,0.00512158,-0.000572368,0,0,0,0,0,0,0,1.24927,-31.3524,0.937208,25.2332,0.984799,1.93902,0.0907442,
0.0906849,-0.0408966,0.221979,-2.14659,0.274195,0.341871,0.00573605,0.10338,-0.00298838,0.106167,-0.231091,-0.157382,0.283924,0.00998288,0.292677,0.245029,0.29424,1.02488,-1.16277,1.66369,-0.081373,10.6965,-0.230465,10.9845,-22.4473,-1.76356,3.2352,0.0935555,0.0876679,-0.0403577,0.221951,-2.14214,0.279503,0.331702,0.00532916,0.0340912,0.0172185,0.123522,-0.13383,0.00243062,0.00191611,-0.000263061,0.511668,1.55343,0.501317,2.20929,0.139751,-0.400683,0.0386634,1.37622,-31.3524,1.08797,24.7372,1.18621,1.69366,0.0706026,
0.0891863,-0.040469,0.223515,-2.1456,0.278128,0.335085,0.00549556,0.102511,-0.00391336,0.105233,-0.229677,-0.147984,0.276172,0.0100961,-0.543358,-0.578108,-0.583424,0.883716,5.87322,-4.84479,0.0707535,10.9195,-0.0886563,11.2321,-23.3289,-1.93735,3.37312,0.0941113,0.0876679,-0.0403577,0.221951,-2.14214,0.279503,0.331702,0.00532916,0.0340912,0.0172185,0.123522,-0.13383,0.00243062,0.00191611,-0.000263061,0,0,0,0,0,0,0,1.37622,-31.3524,1.08797,24.7372,1.18621,1.69366,0.0706026,
0.0900103,-0.0405114,0.22436,-2.1474,0.277022,0.337279,0.00557628,0.102608,-0.0041921,0.105313,-0.228876,-0.146038,0.275778,0.0100949,0.060458,-0.174212,0.0496245,0.500791,1.21681,-0.246119,-0.000770308,10.8163,-0.163553,11.1162,-22.8877,-1.85905,3.3019,0.0940457,0.0876679,-0.0403577,0.221951,-2.14214,0.279503,0.331702,0.00532916,0.0340912,0.0172185,0.123522,-0.13383,0.00243062,0.00191611,-0.000263061,0,0,0,0,0,0,0,1.37622,-31.3524,1.08797,24.7372,1.18621,1.69366,0.0706026,
0.090847,-0.0405375,0.225218,-2.14919,0.275818,0.339572,0.00565349,0.103003,-0.00400457,0.105709,-0.227787,-0.146938,0.27796,0.0100062,0.247301,0.117204,0.248083,0.680933,-0.562592,1.36337,-0.055431,10.6965,-0.230465,10.9845,-22.4473,-1.76356,3.2352,0.0935555,0.0876679,-0.0403577,0.221951,-2.14214,0.279503,0.331702,0.00532916,0.0340912,0.0172185,0.123522,-0.13383,0.00243062,0.00191611,-0.000263061,0,0,0,0,0,0,0,1.37622,-31.3524,1.08797,24.7372,1.18621,1.69366,0.0706026,
0.0902985,-0.0400647,0.227911,-2.14983,0.278212,0.335059,0.00549419,0.102405,-0.00499521,0.105051,-0.226204,-0.138439,0.270305,0.0100788,-0.373922,-0.619148,-0.411301,0.98903,5.31175,-4.78397,0.0453828,10.8175,-0.231383,11.1183,-22.8396,-1.85357,3.32446,0.0939238,0.0887568,-0.0399297,0.226325,-2.14644,0.279525,0.331754,0.00533046,0.0350851,0.0144182,0.129119,-0.132855,-0.00105339,0.00221811,-0.00014159,0.124238,-0.350044,0.699622,0.121877,-0.435501,0.0377494,0.0151838,0.868412,-30.428,0.536512,24.1382,0.9967,1.6076,0.0779268,
0.0911247,-0.0401172,0.228758,-2.1516,0.277176,0.337207,0.00557349,0.102581,-0.00530841,0.105211,-0.225228,-0.136671,0.26995,0.0100457,0.10962,-0.195751,0.0996193,0.610121,1.10507,-0.222187,-0.020698,10.6977,-0.298295,10.9866,-22.3993,-1.75808,3.25776,0.0934336,0.0887568,-0.0399297,0.226325,-2.14644,0.279525,0.331754,0.00533046,0.0350851,0.0144182,0.129119,-0.132855,-0.00105339,0.00221811,-0.00014159,0,0,0,0,0,0,0,0.868412,-30.428,0.536512,24.1382,0.9967,1.6076,0.0779268,
0.0919597,-0.0401529,0.229614,-2.15335,0.276054,0.339456,0.00564923,0.102938,-0.00513814,0.10557,-0.223979,-0.137367,0.2722,0.00993012,0.223642,0.106419,0.224502,0.780776,-0.435326,1.40612,-0.0722083,10.5634,-0.357188,10.841,-21.9596,-1.65216,3.19488,0.0926373,0.0887568,-0.0399297,0.226325,-2.14644,0.279525,0.331754,0.00533046,0.0350851,0.0144182,0.129119,-0.132855,-0.00105339,0.00221811,-0.00014159,0,0,0,0,0,0,0,0.868412,-30.428,0.536512,24.1382,0.9967,1.6076,0.0779268,
0.0927931,-0.0401778,0.230469,-2.15508,0.274923,0.341743,0.00572211,0.103186,-0.00473383,0.105821,-0.22228,-0.138178,0.274915,0.00976587,0.15498,0.252691,0.156672,1.06158,-0.506792,1.69719,-0.102659,10.4161,-0.40826,10.6831,-21.5203,-1.53953,3.13548,0.091514,0.0887568,-0.0399297,0.226325,-2.14644,0.279525,0.331754,0.00533046,0.0350851,0.0144182,0.129119,-0.132855,-0.00105339,0.00221811,-0.00014159,0,0,0,0,0,0,0,0.868412,-30.428,0.536512,24.1382,0.9967,1.6076,0.0779268,
0.0902878,-0.0400577,0.227899,-2.14979,0.278286,0.334969,0.00549231,0.102381,-0.0055028,0.104954,-0.221133,-0.130231,0.266599,0.00985956,-0.503313,-0.480606,-0.541576,0.716686,4.96707,-5.1978,0.0585555,10.7008,-0.375517,10.9925,-22.3487,-1.75162,3.2816,0.0933013,0.0903421,-0.0397858,0.230396,-2.1512,0.279523,0.331741,0.00533418,0.0470287,0.00485524,0.117857,-0.146295,0.00300562,-0.000361644,0.000435273,1.49294,-1.19537,-1.40768,-1.68002,0.507377,-0.322469,0.0721079,0.717655,-30.551,0.361952,25.011,1.05163,1.74035,0.050461,
0.0911052,-0.0401086,0.228737,-2.15153,0.277314,0.337063,0.00557038,0.102339,-0.00567384,0.104894,-0.220444,-0.128488,0.265624,0.00983933,-0.025973,-0.106897,-0.037297,0.430609,1.08931,-0.608996,-0.0126418,10.5666,-0.43441,10.847,-21.909,-1.6457,3.21872,0.0925049,0.0903421,-0.0397858,0.230396,-2.1512,0.279523,0.331741,0.00533418,0.0470287,0.00485524,0.117857,-0.146295,0.00300562,-0.000361644,0.000435273,0,0,0,0,0,0,0,0.717655,-30.551,0.361952,25.011,1.05163,1.74035,0.050461,
0.0919298,-0.0401437,0.229582,-2.15325,0.276268,0.339258,0.00564477,0.102488,-0.00541617,0.105042,-0.21939,-0.128927,0.267376,0.00973137,0.0926929,0.161042,0.0922179,0.659266,-0.274685,1.09473,-0.0674746,10.4193,-0.485482,10.689,-21.4698,-1.53307,3.15932,0.0913817,0.0903421,-0.0397858,0.230396,-2.1512,0.279523,0.331741,0.00533418,0.0470287,0.00485524,0.117857,-0.146295,0.00300562,-0.000361644,0.000435273,0,0,0,0,0,0,0,0.717655,-30.551,0.361952,25.011,1.05163,1.74035,0.050461,
0.0927519,-0.0401687,0.230424,-2.15494,0.275219,0.341491,0.00571621,0.102542,-0.00495875,0.105097,-0.217821,-0.129367,0.269729,0.00957096,0.034074,0.285888,0.0346159,0.98019,-0.274698,1.47096,-0.100256,10.2609,-0.529271,10.5206,-21.0309,-1.41758,3.10248,0.089991,0.0903421,-0.0397858,0.230396,-2.1512,0.279523,0.331741,0.00533418,0.0470287,0.00485524,0.117857,-0.146295,0.00300562,-0.000361644,0.000435273,0,0,0,0,0,0,0,0.717655,-30.551,0.361952,25.011,1.05163,1.74035,0.050461,
0.0918722,-0.0399497,0.231967,-2.15454,0.278363,0.334753,0.00549531,0.101804,-0.00595127,0.104305,-0.217166,-0.121941,0.259902,0.00967677,-0.461236,-0.620324,-0.495384,0.409767,4.64109,-6.14186,0.0661308,10.5634,-0.512908,10.8458,-21.8578,-1.64194,3.24521,0.0923806,0.0923466,-0.0396138,0.234052,-2.15635,0.279524,0.33174,0.00532928,0.0517161,0.0111394,0.0956717,-0.145182,0.000964528,-0.00618595,-0.00170709,0.585926,0.785514,-2.77318,0.139149,-0.255136,-0.728038,-0.267796,-0.932736,-31.6777,-1.31224,27.0264,1.08825,2.24389,0.0980684,
0.0926845,-0.0400071,0.232799,-2.15626,0.277458,0.336759,0.0055719,0.101751,-0.00619447,0.104239,-0.216659,-0.12017,0.258085,0.00965616,-0.0334046,-0.152,-0.0411886,0.316986,1.10722,-1.1357,-0.0128798,10.4161,-0.563981,10.6879,-21.4185,-1.5293,3.1858,0.0912572,0.0923466,-0.0396138,0.234052,-2.15635,0.279524,0.33174,0.00532928,0.0517161,0.0111394,0.0956717,-0.145182,0.000964528,-0.00618595,-0.00170709,0,0,0,0,0,0,0,-0.932736,-31.6777,-1.31224,27.0264,1.08825,2.24389,0.0980684,
0.093502,-0.0400474,0.233636,-2.15795,0.276492,0.338882,0.0056447,0.101838,-0.0059631,0.104329,-0.215653,-0.120295,0.25953,0.00954472,0.0543285,0.144606,0.0565009,0.628588,-0.0786015,0.902972,-0.0696514,10.2577,-0.607771,10.5194,-20.9796,-1.41381,3.12894,0.0898664,0.0923466,-0.0396138,0.234052,-2.15635,0.279524,0.33174,0.00532928,0.0517161,0.0111394,0.0956717,-0.145182,0.000964528,-0.00618595,-0.00170709,0,0,0,0,0,0,0,-0.932736,-31.6777,-1.31224,27.0264,1.08825,2.24389,0.0980684,
0.0943152,-0.0400774,0.23447,-2.15962,0.275528,0.341054,0.00571441,0.101802,-0.00552076,0.104298,-0.214063,-0.120323,0.261939,0.00937869,-0.0221582,0.276462,-0.0195699,0.993793,-0.0171529,1.50556,-0.103769,10.0897,-0.644765,10.3418,-20.541,-1.29856,3.0746,0.088262,0.0923466,-0.0396138,0.234052,-2.15635,0.279524,0.33174,0.00532928,0.0517161,0.0111394,0.0956717,-0.145182,0.000964528,-0.00618595,-0.00170709,0,0,0,0,0,0,0,-0.932736,-31.6777,-1.31224,27.0264,1.08825,2.24389,0.0980684,
0.0937751,-0.0397194,0.235517,-2.15966,0.278387,0.334676,0.00548901,0.100053,-0.00580566,0.102494,-0.213699,-0.114223,0.252782,0.00950883,-1.09305,-0.178066,-1.12722,0.227406,3.81269,-5.72332,0.0813347,10.4127,-0.633,10.6846,-21.3671,-1.53301,3.22551,0.0911542,0.0943558,-0.0393143,0.237022,-2.16082,0.27955,0.331786,0.00533305,0.062333,0.0121706,0.0872629,-0.124778,0.00894062,-0.00288076,0.000776184,1.32712,0.128905,-1.05109,2.55048,0.997011,0.413149,0.31041,-1.03589,-31.5746,-1.31224,26.0544,0.941769,2.07177,0.0641939,
0.0945486,-0.0397606,0.23631,-2.16136,0.277515,0.336651,0.0055647,0.0993817,-0.00567574,0.10181,-0.213323,-0.113172,0.251615,0.00949949,-0.419858,0.0812005,-0.4276,0.235201,0.656668,-0.728921,-0.00583742,10.2543,-0.676803,10.5162,-20.9282,-1.41748,3.16849,0.0897622,0.0943558,-0.0393143,0.237022,-2.16082,0.27955,0.331786,0.00533305,0.062333,0.0121706,0.0872629,-0.124778,0.00894062,-0.00288076,0.000776184,0,0,0,0,0,0,0,-1.03589,-31.5746,-1.31224,26.0544,0.941769,2.07177,0.0641939,
0.0953331,-0.0397905,0.237114,-2.16302,0.276593,0.338747,0.00563629,0.0991166,-0.00528789,0.101548,-0.212334,-0.113601,0.253681,0.00938929,-0.165697,0.242411,-0.163823,0.617946,-0.268201,1.29119,-0.0688747,10.0863,-0.713801,10.3386,-20.4896,-1.30221,3.114,0.088157,0.0943558,-0.0393143,0.237022,-2.16082,0.27955,0.331786,0.00533305,0.062333,0.0121706,0.0872629,-0.124778,0.00894062,-0.00288076,0.000776184,0,0,0,0,0,0,0,-1.03589,-31.5746,-1.31224,26.0544,0.941769,2.07177,0.0641939,
0.095786,-0.039467,0.238485,-2.16398,0.278588,0.33497,0.0054891,0.0978677,-0.00625431,0.100235,-0.210759,-0.106736,0.249514,0.00947441,-0.780567,-0.604015,-0.820598,0.984571,4.2906,-2.60442,0.0531979,10.2484,-0.69184,10.5108,-20.912,-1.4933,3.34186,0.0899643,0.0943558,-0.0393143,0.237022,-2.16082,0.27955,0.331786,0.00533305,0.062333,0.0121706,0.0872629,-0.124778,0.00894062,-0.00288076,0.000776184,0,0,0,0,0,0,0,-1.03589,-31.5746,-1.31224,26.0544,0.941769,2.07177,0.0641939,
0.0965551,-0.0395317,0.239273,-2.16562,0.277789,0.33708,0.00556319,0.0975229,-0.00662014,0.0998728,-0.209611,-0.105359,0.252353,0.00943183,-0.215494,-0.228645,-0.226491,0.716966,0.86093,1.77407,-0.0266085,10.0803,-0.728882,10.3331,-20.4736,-1.37772,3.28579,0.0883461,0.0943558,-0.0393143,0.237022,-2.16082,0.27955,0.331786,0.00533305,0.062333,0.0121706,0.0872629,-0.124778,0.00894062,-0.00288076,0.000776184,0,0,0,0,0,0,0,-1.03589,-31.5746,-1.31224,26.0544,0.941769,2.07177,0.0641939,
0.0973328,-0.0395822,0.240069,-2.16724,0.276929,0.339306,0.00563315,0.0974607,-0.00655822,0.0998112,-0.2081,-0.105801,0.257537,0.00929445,-0.038853,0.0387032,-0.0385287,0.944405,-0.276192,3.24035,-0.0858664,9.90152,-0.826657,10.1454,-19.9916,-1.26127,3.25193,0.0863954,0.0962059,-0.039028,0.239993,-2.16513,0.279553,0.33172,0.00533234,0.044828,0.00825504,0.0742167,-0.125219,0.00415215,-0.00625266,-0.000549267,-2.18814,-0.489444,-1.63078,-0.0550665,-0.598558,-0.421488,-0.165681,-0.857357,-30.9279,-1.0385,26.1575,0.953671,2.4627,0.0706026,
0.0981087,-0.039624,0.240864,-2.16882,0.276069,0.341582,0.00569972,0.0973652,-0.00629211,0.0997185,-0.206092,-0.106126,0.262927,0.00909988,-0.0596683,0.166318,-0.0579214,1.25515,-0.203294,3.36851,-0.121603,9.71893,-0.852026,9.95401,-19.5538,-1.15236,3.19918,0.0844055,0.0962059,-0.039028,0.239993,-2.16513,0.279553,0.33172,0.00533234,0.044828,0.00825504,0.0742167,-0.125219,0.00415215,-0.00625266,-0.000549267,0,0,0,0,0,0,0,-0.857357,-30.9279,-1.0385,26.1575,0.953671,2.4627,0.0706026,
0.0975027,-0.039191,0.24132,-2.16832,0.278191,0.335796,0.00549604,0.0951096,-0.00702771,0.0973857,-0.20603,-0.106635,0.270753,0.0093178,-1.40977,-0.459754,-1.45797,0.0386504,-0.318382,4.89158,0.136201,10.0393,-0.908924,10.2955,-20.3093,-1.83461,4.61218,0.0897077,0.0962059,-0.039028,0.239993,-2.16513,0.279553,0.33172,0.00533234,0.044828,0.00825504,0.0742167,-0.125219,0.00415215,-0.00625266,-0.000549267,0,0,0,0,0,0,0,-0.857357,-30.9279,-1.0385,26.1575,0.953671,2.4627,0.0706026,
0.0982321,-0.0392487,0.242067,-2.16996,0.27712,0.338593,0.00557165,0.0943218,-0.00706485,0.0965811,-0.205854,-0.112069,0.286546,0.00934454,-0.492404,-0.0232103,-0.502895,0.110197,-3.3959,9.87019,0.0167084,9.86304,-0.940944,10.1098,-19.8729,-1.71973,4.54421,0.0877459,0.0962059,-0.039028,0.239993,-2.16513,0.279553,0.33172,0.00533234,0.044828,0.00825504,0.0742167,-0.125219,0.00415215,-0.00625266,-0.000549267,0,0,0,0,0,0,0,-0.857357,-30.9279,-1.0385,26.1575,0.953671,2.4627,0.0706026,
0.0989784,-0.0392909,0.242832,-2.17156,0.27597,0.341592,0.00564214,0.0941167,-0.00670657,0.0963831,-0.204888,-0.118411,0.304206,0.00923786,-0.128171,0.223925,-0.123771,0.603793,-3.96405,11.038,-0.0666751,9.68181,-1.02755,9.91929,-19.3875,-1.60523,4.50055,0.0855577,0.0977502,-0.0386868,0.242831,-2.16928,0.279563,0.33174,0.00533529,0.0416906,0.00467752,0.0896054,-0.115792,0.00934807,-0.00264085,0.00108368,-0.392166,-0.447189,1.92359,1.17838,0.64949,0.451476,0.204118,-0.119442,-31.0033,-0.312487,24.9594,0.948178,2.17797,0.0440523,
0.0997279,-0.0393255,0.2436,-2.17313,0.274812,0.344694,0.00570869,0.0940304,-0.00622952,0.0963075,-0.203116,-0.123684,0.320911,0.00905397,-0.0539457,0.298155,-0.0472221,1.10753,-3.29582,10.4403,-0.114925,9.49495,-1.04783,9.72393,-18.9515,-1.50141,4.43619,0.0833349,0.0977502,-0.0386868,0.242831,-2.16928,0.279563,0.33174,0.00533529,0.0416906,0.00467752,0.0896054,-0.115792,0.00934807,-0.00264085,0.00108368,0,0,0,0,0,0,0,-0.119442,-31.0033,-0.312487,24.9594,0.948178,2.17797,0.0440523,
0.0991917,-0.0388905,0.244299,-2.17272,0.277973,0.339318,0.00551083,0.0942838,-0.00712346,0.0964421,-0.20692,-0.124846,0.370006,0.00940843,0.158362,-0.558707,0.084086,-2.37764,-0.726122,30.6843,0.221536,9.84395,-1.48619,10.0791,-19.4709,-2.31484,9.40703,0.0932749,0.0977502,-0.0386868,0.242831,-2.16928,0.279563,0.33174,0.00533529,0.0416906,0.00467752,0.0896054,-0.115792,0.00934807,-0.00264085,0.00108368,0,0,0,0,0,0,0,-0.119442,-31.0033,-0.312487,24.9594,0.948178,2.17797,0.0440523,
0.0999866,-0.0389349,0.24511,-2.17447,0.276666,0.344653,0.00558955,0.0953007,-0.00680923,0.097428,-0.209106,-0.132546,0.429363,0.00949494,0.635579,0.196388,0.61622,-1.36618,-4.81216,37.0986,0.0540692,9.65682,-1.5295,9.88076,-19.0545,-2.16856,9.19936,0.0897817,0.0977502,-0.0386868,0.242831,-2.16928,0.279563,0.33174,0.00533529,0.0416906,0.00467752,0.0896054,-0.115792,0.00934807,-0.00264085,0.00108368,0,0,0,0,0,0,0,-0.119442,-31.0033,-0.312487,24.9594,0.948178,2.17797,0.0440523,
0.100787,-0.038957,0.245928,-2.17614,0.275237,0.350438,0.00566191,0.0962383,-0.00600024,0.0983707,-0.209198,-0.141762,0.488133,0.00940483,0.586035,0.505619,0.589185,-0.0577975,-5.7604,36.7312,-0.0563209,9.47581,-1.61229,9.68952,-18.5933,-2.03928,9.02401,0.0866759,0.0993077,-0.0382977,0.245627,-2.17307,0.279563,0.331774,0.00533269,0.0398657,0.00463281,0.075776,-0.103818,0.00520164,-0.000183595,0.000181318,-0.22812,-0.00558923,-1.72868,1.49675,-0.518305,0.307157,-0.112795,0.209842,-30.4042,-0.0863513,24.5865,0.862118,2.17156,0.0641939,
0.101577,-0.0389726,0.246735,-2.17775,0.273775,0.356471,0.00572956,0.0967497,-0.00519074,0.0988948,-0.207541,-0.149965,0.541314,0.00921519,0.319583,0.505943,0.327566,1.03569,-5.12691,33.2383,-0.118526,9.30058,-1.6223,9.50615,-18.171,-1.92961,8.83932,0.084044,0.0993077,-0.0382977,0.245627,-2.17307,0.279563,0.331774,0.00533269,0.0398657,0.00463281,0.075776,-0.103818,0.00520164,-0.000183595,0.000181318,0,0,0,0,0,0,0,0.209842,-30.4042,-0.0863513,24.5865,0.862118,2.17156,0.0641939,
0.100684,-0.038629,0.246988,-2.17649,0.277286,0.340642,0.00555229,0.0957324,-0.00827069,0.0972481,-0.210628,-0.156152,0.566544,0.0100243,-0.635799,-1.92497,-1.02922,-1.92925,-3.86693,15.7686,0.505671,8.98636,-3.17339,8.98669,-18.1917,-3.20163,11.0842,0.120032,0.0993077,-0.0382977,0.245627,-2.17307,0.279563,0.331774,0.00533269,0.0398657,0.00463281,0.075776,-0.103818,0.00520164,-0.000183595,0.000181318,0,0,0,0,0,0,0,0.209842,-30.4042,-0.0863513,24.5865,0.862118,2.17156,0.0641939,
0.101455,-0.0387698,0.247753,-2.17825,0.275485,0.347042,0.00564885,0.0958769,-0.0101378,0.0969359,-0.212448,-0.169953,0.613254,0.0104335,0.0903056,-1.16693,-0.195098,-1.13752,-8.62547,29.1939,0.25577,8.92227,-3.55355,8.88015,-17.9735,-2.96365,11.0842,0.110319,0.0993077,-0.0382977,0.245627,-2.17307,0.279563,0.331774,0.00533269,0.0398657,0.00463281,0.075776,-0.103818,0.00520164,-0.000183595,0.000181318,0,0,0,0,0,0,0,0.209842,-30.4042,-0.0863513,24.5865,0.862118,2.17156,0.0641939,
0.102238,-0.0388948,0.248531,-2.17994,0.273509,0.354113,0.00573914,0.0962628,-0.0112342,0.0969835,-0.212212,-0.185354,0.667361,0.0106041,0.241175,-0.685256,0.0297756,0.147399,-9.62553,33.8166,0.106604,8.91326,-3.67163,8.84667,-17.6485,-2.80841,11.0912,0.106076,0.100806,-0.037721,0.24829,-2.1764,0.279526,0.3343,0.00533681,0.0394587,0.0200838,0.0798399,-0.0810813,0.00705066,0.173194,0.00109839,-0.0508666,1.93138,0.507995,2.84206,0.231127,21.6722,0.114634,0.412174,-31.1263,0.211195,26.1813,0.97839,3.00011,0.0303194,
0.102154,-0.03802,0.24962,-2.17958,0.277493,0.344815,0.00553927,0.0949062,-0.013128,0.0952441,-0.21162,-0.181258,0.684296,0.011005,-0.847826,-1.1836,-1.08718,0.370447,2.56027,10.5846,0.250601,8.91169,-3.5882,8.86691,-17.9442,-2.96292,11.0912,0.11029,0.100806,-0.037721,0.24829,-2.1764,0.279526,0.3343,0.00533681,0.0394587,0.0200838,0.0798399,-0.0810813,0.00705066,0.173194,0.00109839,0,0,0,0,0,0,0,0.412174,-31.1263,0.211195,26.1813,0.97839,3.00011,0.0303194,
0.102907,-0.0381728,0.250365,-2.18124,0.275813,0.351694,0.0056335,0.0947485,-0.0143207,0.0948352,-0.210738,-0.187018,0.719389,0.0111598,-0.098619,-0.745442,-0.255568,0.550888,-3.60048,21.9327,0.0967474,8.91326,-3.67163,8.84667,-17.6485,-2.80841,11.0912,0.106076,0.100806,-0.037721,0.24829,-2.1764,0.279526,0.3343,0.00533681,0.0394587,0.0200838,0.0798399,-0.0810813,0.00705066,0.173194,0.00109839,0,0,0,0,0,0,0,0.412174,-31.1263,0.211195,26.1813,0.97839,3.00011,0.0303194,
0.103672,-0.0383112,0.251124,-2.18284,0.273949,0.359107,0.00572224,0.094919,-0.0149171,0.0948382,-0.208574,-0.196199,0.760838,0.0111464,0.106598,-0.372798,0.00191873,1.35259,-5.73781,25.9055,-0.00837475,8.92251,-3.56936,8.84489,-17.2945,-2.68505,11.0912,0.103944,0.100806,-0.037721,0.24829,-2.1764,0.279526,0.3343,0.00533681,0.0394587,0.0200838,0.0798399,-0.0810813,0.00705066,0.173194,0.00109839,0,0,0,0,0,0,0,0.412174,-31.1263,0.211195,26.1813,0.97839,3.00011,0.0303194,
