xiao-wang007/linearmpc_panda/paper_data/panda_torque_PD_controller_error_match_to_start_no_torque_ff/2/trajectory.csv
Commanded Joint 0 Position,Commanded Joint 1 Position,Commanded Joint 2 Position,Commanded Joint 3 Position,Commanded Joint 4 Position,Commanded Joint 5 Position,Commanded Joint 6 Position,Commanded Joint 0 Velocity,Commanded Joint 1 Velocity,Commanded Joint 2 Velocity,Commanded Joint 3 Velocity,Commanded Joint 4 Velocity,Commanded Joint 5 Velocity,Commanded Joint 6 Velocity,Commanded Joint 0 Acceleration,Commanded Joint 1 Acceleration,Commanded Joint 2 Acceleration,Commanded Joint 3 Acceleration,Commanded Joint 4 Acceleration,Commanded Joint 5 Acceleration,Commanded Joint 6 Acceleration,Commanded Joint 0 Torque,Commanded Joint 1 Torque,Commanded Joint 2 Torque,Commanded Joint 3 Torque,Commanded Joint 4 Torque,Commanded Joint 5 Torque,Commanded Joint 6 Torque,Actual Joint 0 Position,Actual Joint 1 Position,Actual Joint 2 Position,Actual Joint 3 Position,Actual Joint 4 Position,Actual Joint 5 Position,Actual Joint 6 Position,Actual Joint 0 Velocity,Actual Joint 1 Velocity,Actual Joint 2 Velocity,Actual Joint 3 Velocity,Actual Joint 4 Velocity,Actual Joint 5 Velocity,Actual Joint 6 Velocity,Actual Joint 0 Acceleration,Actual Joint 1 Acceleration,Actual Joint 2 Acceleration,Actual Joint 3 Acceleration,Actual Joint 4 Acceleration,Actual Joint 5 Acceleration,Actual Joint 6 Acceleration,Actual Joint 0 Torque,Actual Joint 1 Torque,Actual Joint 2 Torque,Actual Joint 3 Torque,Actual Joint 4 Torque,Actual Joint 5 Torque,Actual Joint 6 Torque,
0.000631073,-0.0113616,0.000697015,-0.0422128,-0.0137669,-1.56816,-0.787149,0.00582309,-0.122737,0.00620517,-0.499062,-0.169976,0.065479,-0.0204692,3.63943,-76.7108,3.87823,-311.914,-106.235,40.9244,-12.7933,0,0,0,0,0,0,0,0,0,0,0,0,-1.5708,-0.785398,0,0,0,0,0,0,0,0,0,0,0,0,0,0,0,0,0,0,0,0,0,
0.000646464,-0.0111157,0.000670338,-0.0423071,-0.0138803,-1.56816,-0.787144,0.0105089,-0.218014,0.0109321,-0.899332,-0.306833,0.117863,-0.0368238,2.92861,-59.5482,2.95431,-250.169,-85.536,32.74,-10.2216,0,0,0,0,0,0,0,0,0,0,0,0,-1.5708,-0.785398,0,0,0,0,0,0,0,0,0,0,0,0,0,0,0,0,0,0,0,0,0,
0.00084743,-0.0162135,0.000873529,-0.0666888,-0.0219046,-1.56339,-0.788214,0.0134312,-0.301855,0.0138254,-1.32901,-0.446075,0.213496,-0.0562189,1.82649,-52.4005,1.80835,-268.547,-87.0261,59.7707,-12.122,0,0,0,0,0,0,0,0,0,0,0,0,-1.5708,-0.785398,0,0,0,0,0,0,0,0,0,0,0,0,0,0,0,0,0,0,0,0,0,
0.00101223,-0.0212101,0.00103862,-0.0943841,-0.0304762,-1.55668,-0.789536,0.014865,-0.3664,0.0151875,-1.75559,-0.571149,0.338578,-0.0780372,0.896084,-40.3405,0.851316,-266.613,-78.1715,78.1759,-13.6364,0,0,0,0,0,0,0,0,0,0,0,0,-1.5708,-0.785398,0,0,0,0,0,0,0,0,0,0,0,0,0,0,0,0,0,0,0,0,0,
0.0011468,-0.0258258,0.00117207,-0.124422,-0.0392721,-1.54836,-0.791074,0.0152563,-0.408513,0.0154864,-2.15541,-0.676816,0.478924,-0.100859,0.244548,-26.3203,0.186775,-249.886,-66.0415,87.7165,-14.2634,0,0,0,0,0,0,0,0,0,0,0,0,-1.5708,-0.785398,0,0,0,0,0,0,0,0,0,0,0,0,0,0,0,0,0,0,0,0,0,
0.000185408,-0.00231889,0.000197796,-0.00782318,-0.00227426,-1.5714,-0.785737,0.0168402,-0.384782,0.017334,-1.9199,-0.598309,0.368095,-0.0891547,0.989966,14.8314,1.15477,147.189,49.0667,-69.2679,7.31494,0,0,0,0,0,0,0,0,0,0,0,0,-1.5708,-0.785398,0,0,0,0,0,0,0,0,0,0,0,0,0,0,0,0,0,0,0,0,0,
0.000386732,-0.00619235,0.000405266,-0.0223207,-0.00717215,-1.57075,-0.786315,0.0185053,-0.404662,0.0190539,-1.89836,-0.601095,0.310561,-0.085771,1.04066,-12.425,1.07498,13.464,-1.741,-35.9588,2.11485,0,0,0,0,0,0,0,0,0,0,0,0,-1.5708,-0.785398,0,0,0,0,0,0,0,0,0,0,0,0,0,0,0,0,0,0,0,0,0,
0.000576196,-0.0109207,0.000604245,-0.042331,-0.0141701,-1.56813,-0.787118,0.0195408,-0.441939,0.0202176,-2.01895,-0.655824,0.313945,-0.0886955,0.647223,-23.298,0.727297,-75.3656,-34.2062,2.11459,-1.82787,0,0,0,0,0,0,0,0,0,0,0,0,-1.5708,-0.785398,0,0,0,0,0,0,0,0,0,0,0,0,0,0,0,0,0,0,0,0,0,
0.000726987,-0.0159546,0.000764884,-0.0667176,-0.0223431,-1.56337,-0.788176,0.0194024,-0.479399,0.0201901,-2.22482,-0.728984,0.37035,-0.0974023,-0.0865044,-23.4126,-0.0172151,-128.672,-45.7248,35.2535,-5.44171,0,0,0,0,0,0,0,0,0,0,0,0,-1.5708,-0.785398,0,0,0,0,0,0,0,0,0,0,0,0,0,0,0,0,0,0,0,0,0,
0.000829458,-0.0208898,0.00089136,-0.0944147,-0.0310178,-1.55666,-0.789489,0.0180837,-0.506897,0.019314,-2.47228,-0.800056,0.464023,-0.110764,-0.82418,-17.1865,-0.547567,-154.664,-44.4199,58.5456,-8.35112,0,0,0,0,0,0,0,0,0,0,0,0,-1.5708,-0.785398,0,0,0,0,0,0,0,0,0,0,0,0,0,0,0,0,0,0,0,0,0,
0.000185408,-0.00231889,0.000197796,-0.00782318,-0.00227426,-1.5714,-0.785737,0.0191022,-0.46349,0.0203961,-2.17341,-0.696901,0.356175,-0.0970791,0.636532,27.1296,0.676314,186.798,64.4717,-67.4053,8.55313,0,0,0,0,0,0,0,0,0,0,0,0,-1.5708,-0.785398,0,0,0,0,0,0,0,0,0,0,0,0,0,0,0,0,0,0,0,0,0,
0.000316944,-0.00598572,0.000657723,-0.0223466,-0.0059081,-1.57067,-0.786457,0.0185701,-0.462463,0.027815,-2.10181,-0.648367,0.303228,-0.0956547,-0.332527,0.642034,4.63685,44.7471,30.3339,-33.0915,0.89022,0,0,0,0,0,0,0,0,0,0,0,0,-1.5708,-0.785398,0,0,0,0,0,0,0,0,0,0,0,0,0,0,0,0,0,0,0,0,0,
0.000413735,-0.0103639,0.00130853,-0.0423995,-0.0108064,-1.56795,-0.787486,0.0172759,-0.479425,0.0385223,-2.18277,-0.641151,0.310477,-0.102256,-0.808899,-10.6013,6.69203,-50.6001,4.50986,4.5304,-4.12551,0,0,0,0,0,0,0,0,0,0,0,0,-1.5708,-0.785398,0,0,0,0,0,0,0,0,0,0,0,0,0,0,0,0,0,0,0,0,0,
0.000515114,-0.0149624,0.00204297,-0.0668395,-0.0165289,-1.56309,-0.788801,0.0163552,-0.498503,0.0491787,-2.35722,-0.655985,0.369868,-0.114677,-0.57544,-11.9239,6.66028,-109.028,-9.27074,37.1194,-7.76369,0,0,0,0,0,0,0,0,0,0,0,0,-1.5708,-0.785398,0,0,0,0,0,0,0,0,0,0,0,0,0,0,0,0,0,0,0,0,0,
0.000185408,-0.00231889,0.000197796,-0.00782318,-0.00227426,-1.5714,-0.785737,0.0177193,-0.456775,0.0442879,-2.08135,-0.581644,0.280851,-0.10021,0.852599,26.0803,-3.05678,172.415,46.4628,-55.6359,9.0423,0,0,0,0,0,0,0,0,0,0,0,0,-1.5708,-0.785398,0,0,0,0,0,0,0,0,0,0,0,0,0,0,0,0,0,0,0,0,0,
0.000772046,-0.0050439,0.00120842,-0.0225781,-0.00328834,-1.57032,-0.786729,0.0288414,-0.433545,0.0606959,-2.03395,-0.490667,0.251655,-0.104967,6.9513,14.5186,10.255,29.6238,56.8604,-18.2474,-2.97333,0,0,0,0,0,0,0,0,0,0,0,0,-1.5708,-0.785398,0,0,0,0,0,0,0,0,0,0,0,0,0,0,0,0,0,0,0,0,0,
0.00144829,-0.00784839,0.00261741,-0.0429998,-0.00490146,-1.56724,-0.788086,0.0399792,-0.416948,0.0837816,-2.13771,-0.432862,0.278421,-0.117896,6.96113,10.373,14.4286,-64.8446,36.1285,16.7289,-8.08063,0,0,0,0,0,0,0,0,0,0,0,0,-1.5708,-0.785398,0,0,0,0,0,0,0,0,0,0,0,0,0,0,0,0,0,0,0,0,0,
0.00216734,-0.0104713,0.00421968,-0.0678652,-0.00726162,-1.56209,-0.789715,0.0499597,-0.399131,0.107082,-2.3318,-0.405293,0.351462,-0.135058,6.23779,11.1356,14.5628,-121.309,17.2302,45.6505,-10.7264,0,0,0,0,0,0,0,0,0,0,0,0,-1.5708,-0.785398,0,0,0,0,0,0,0,0,0,0,0,0,0,0,0,0,0,0,0,0,0,
0.00274497,-0.012698,0.00621816,-0.0960163,-0.00899973,-1.55509,-0.791634,0.0544084,-0.374972,0.135628,-2.56922,-0.367688,0.456051,-0.156016,2.78046,15.0998,17.8409,-148.386,23.5036,65.368,-13.0986,0,0,0,0,0,0,0,0,0,0,0,0,-1.5708,-0.785398,0,0,0,0,0,0,0,0,0,0,0,0,0,0,0,0,0,0,0,0,0,
0.000185408,-0.00231889,0.000197796,-0.00782318,-0.00227426,-1.5714,-0.785737,0.0481619,-0.357949,0.113447,-2.25095,-0.351007,0.349797,-0.133281,-3.90406,10.6388,-13.8629,198.915,10.4257,-66.4087,14.2096,0,0,0,0,0,0,0,0,0,0,0,0,-1.5708,-0.785398,0,0,0,0,0,0,0,0,0,0,0,0,0,0,0,0,0,0,0,0,0,
0.00061441,-0.00451965,0.00135142,-0.0227009,-0.00248557,-1.57016,-0.786825,0.0492546,-0.341379,0.119598,-2.17271,-0.286088,0.310909,-0.133824,0.682919,10.3568,3.84446,48.9047,40.5741,-24.3051,-0.339389,0,0,0,0,0,0,0,0,0,0,0,0,-1.5708,-0.785398,0,0,0,0,0,0,0,0,0,0,0,0,0,0,0,0,0,0,0,0,0,
0.00096475,-0.00629934,0.00317497,-0.0433324,-0.00200755,-1.56682,-0.788403,0.0481622,-0.317595,0.141267,-2.25395,-0.21692,0.332049,-0.146503,-0.682764,14.8646,13.5433,-50.7788,43.2301,13.2131,-7.92438,0,0,0,0,0,0,0,0,0,0,0,0,-1.5708,-0.785398,0,0,0,0,0,0,0,0,0,0,0,0,0,0,0,0,0,0,0,0,0,
0.00135515,-0.00750248,0.00536915,-0.0684808,-0.00215302,-1.56152,-0.790248,0.0482897,-0.284155,0.167868,-2.43187,-0.177173,0.398166,-0.163335,0.0796841,20.9003,16.6257,-111.199,24.8419,41.3229,-10.5201,0,0,0,0,0,0,0,0,0,0,0,0,-1.5708,-0.785398,0,0,0,0,0,0,0,0,0,0,0,0,0,0,0,0,0,0,0,0,0,
0.000185408,-0.00231889,0.000197796,-0.00782318,-0.00227426,-1.5714,-0.785737,0.0432669,-0.285296,0.13924,-2.14108,-0.198595,0.303489,-0.139136,-3.13921,-0.713305,-17.893,181.747,-13.3887,-59.1732,15.1245,0,0,0,0,0,0,0,0,0,0,0,0,-1.5708,-0.785398,0,0,0,0,0,0,0,0,0,0,0,0,0,0,0,0,0,0,0,0,0,
0.00126356,-0.00452386,0.00131079,-0.0227384,-0.00267992,-1.57013,-0.786849,0.0615673,-0.283361,0.139217,-2.08574,-0.169017,0.274555,-0.139103,11.4377,1.2093,-0.014387,34.5846,18.4858,-18.0835,0.0206168,0,0,0,0,0,0,0,0,0,0,0,0,-1.5708,-0.785398,0,0,0,0,0,0,0,0,0,0,0,0,0,0,0,0,0,0,0,0,0,
0.00252052,-0.00635809,0.00266417,-0.0434453,-0.00436568,-1.56681,-0.788314,0.0806778,-0.272544,0.145208,-2.18627,-0.177358,0.3025,-0.147924,11.9441,6.7603,3.7444,-62.8282,-5.2128,17.4651,-5.51302,0,0,0,0,0,0,0,0,0,0,0,0,-1.5708,-0.785398,0,0,0,0,0,0,0,0,0,0,0,0,0,0,0,0,0,0,0,0,0,
0.00381924,-0.00756688,0.00399089,-0.068697,-0.00767017,-1.56141,-0.790028,0.0970103,-0.248255,0.149334,-2.3803,-0.224499,0.376999,-0.161172,10.2078,15.1807,2.57904,-121.274,-29.463,46.5618,-8.28005,0,0,0,0,0,0,0,0,0,0,0,0,-1.5708,-0.785398,0,0,0,0,0,0,0,0,0,0,0,0,0,0,0,0,0,0,0,0,0,
0.000185408,-0.00231889,0.000197796,-0.00782318,-0.00227426,-1.5714,-0.785737,0.0822434,-0.256576,0.124412,-2.09982,-0.236455,0.286555,-0.137405,-9.22929,-5.20071,-15.5762,175.301,-7.47295,-56.5272,14.8541,0,0,0,0,0,0,0,0,0,0,0,0,-1.5708,-0.785398,0,0,0,0,0,0,0,0,0,0,0,0,0,0,0,0,0,0,0,0,0,
0.00148231,-0.00447896,0.00167008,-0.0227261,-0.00101981,-1.57007,-0.78703,0.0982173,-0.259263,0.136337,-2.05243,-0.157803,0.262543,-0.142264,9.98366,-1.67902,7.45293,29.6197,49.1576,-15.0075,-3.03697,0,0,0,0,0,0,0,0,0,0,0,0,-1.5708,-0.785398,0,0,0,0,0,0,0,0,0,0,0,0,0,0,0,0,0,0,0,0,0,
0.00303442,-0.00629884,0.00325593,-0.0434384,-0.00188642,-1.56675,-0.788616,0.117377,-0.252907,0.148716,-2.15975,-0.147908,0.29284,-0.153452,11.9746,3.97215,7.73686,-67.075,6.18466,18.9359,-6.99224,0,0,0,0,0,0,0,0,0,0,0,0,-1.5708,-0.785398,0,0,0,0,0,0,0,0,0,0,0,0,0,0,0,0,0,0,0,0,0,
0.00450165,-0.00753258,0.00462366,-0.0687106,-0.0059249,-1.56149,-0.790309,0.130582,-0.233169,0.153166,-2.35961,-0.219288,0.365877,-0.165085,8.25332,12.3364,2.78118,-124.91,-44.6128,45.6476,-7.2705,0,0,0,0,0,0,0,0,0,0,0,0,-1.5708,-0.785398,0,0,0,0,0,0,0,0,0,0,0,0,0,0,0,0,0,0,0,0,0,
0.0033809,-0.00630375,0.00891665,-0.12829,-0.0113517,-1.54567,-0.794464,0.11481,-0.17172,0.16093,-2.66146,-0.310852,0.508775,-0.183251,-9.85755,38.4059,4.85261,-188.657,-57.2273,89.3116,-11.3542,0,0,0,0,0,0,0,0,0,0,0,0,-1.5708,-0.785398,0,0,0,0,0,0,0,0,0,0,0,0,0,0,0,0,0,0,0,0,0,
0.000185408,-0.00231889,0.000197796,-0.00782318,-0.00227426,-1.5714,-0.785737,0.0964831,-0.195348,0.133689,-2.32475,-0.305538,0.391976,-0.155069,-11.4542,-14.7676,-17.0257,210.445,3.3212,-72.9993,17.614,0,0,0,0,0,0,0,0,0,0,0,0,-1.5708,-0.785398,0,0,0,0,0,0,0,0,0,0,0,0,0,0,0,0,0,0,0,0,0,
0.000797225,-0.0044708,0.00173619,-0.0226845,-0.000660827,-1.57009,-0.787038,0.0924819,-0.210076,0.145411,-2.23133,-0.204095,0.346372,-0.156591,-2.50074,-9.20504,7.32633,58.3854,63.4021,-28.5027,-0.951235,0,0,0,0,0,0,0,0,0,0,0,0,-1.5708,-0.785398,0,0,0,0,0,0,0,0,0,0,0,0,0,0,0,0,0,0,0,0,0,
0.00161656,-0.00627319,0.00349636,-0.0433508,-0.000688566,-1.56678,-0.788659,0.0944688,-0.213121,0.160333,-2.30172,-0.163969,0.359713,-0.165792,1.24183,-1.90292,9.32622,-43.9953,25.0784,8.33832,-5.75095,0,0,0,0,0,0,0,0,0,0,0,0,-1.5708,-0.785398,0,0,0,0,0,0,0,0,0,0,0,0,0,0,0,0,0,0,0,0,0,
0.00236285,-0.00748314,0.00515306,-0.0685791,-0.00348322,-1.56154,-0.790405,0.0942323,-0.200745,0.169684,-2.47209,-0.201042,0.418729,-0.176288,-0.147852,7.73466,5.84433,-106.477,-23.1704,36.8849,-6.55969,0,0,0,0,0,0,0,0,0,0,0,0,-1.5708,-0.785398,0,0,0,0,0,0,0,0,0,0,0,0,0,0,0,0,0,0,0,0,0,
0.000185408,-0.00231889,0.000197796,-0.00782318,-0.00227426,-1.5714,-0.785737,0.080021,-0.218569,0.140692,-2.17325,-0.21769,0.319939,-0.149498,-8.88203,-11.1395,-18.1199,186.774,-10.4051,-61.7435,16.7436,0,0,0,0,0,0,0,0,0,0,0,0,-1.5708,-0.785398,0,0,0,0,0,0,0,0,0,0,0,0,0,0,0,0,0,0,0,0,0,
0.000797225,-0.0044708,0.00173619,-0.0226845,-0.000660827,-1.57009,-0.787038,0.0793122,-0.228652,0.151013,-2.11013,-0.133816,0.288743,-0.152134,-0.44298,-6.30249,6.45094,39.4481,52.4211,-19.4981,-1.64758,0,0,0,0,0,0,0,0,0,0,0,0,-1.5708,-0.785398,0,0,0,0,0,0,0,0,0,0,0,0,0,0,0,0,0,0,0,0,0,
0.00161656,-0.00627319,0.00349636,-0.0433508,-0.000688566,-1.56678,-0.788659,0.0839331,-0.227982,0.164815,-2.20476,-0.107746,0.31361,-0.162227,2.88804,0.419118,8.6259,-59.1451,16.2936,15.542,-6.30802,0,0,0,0,0,0,0,0,0,0,0,0,-1.5708,-0.785398,0,0,0,0,0,0,0,0,0,0,0,0,0,0,0,0,0,0,0,0,0,
0.00236285,-0.00748314,0.00515306,-0.0685791,-0.00348322,-1.56154,-0.790405,0.0858037,-0.212634,0.173269,-2.39452,-0.156064,0.381846,-0.173436,1.16911,9.59229,5.28408,-118.597,-30.1982,42.6479,-7.00536,0,0,0,0,0,0,0,0,0,0,0,0,-1.5708,-0.785398,0,0,0,0,0,0,0,0,0,0,0,0,0,0,0,0,0,0,0,0,0,
0.000185408,-0.00231889,0.000197796,-0.00782318,-0.00227426,-1.5714,-0.785737,0.0732781,-0.22808,0.14356,-2.11119,-0.181707,0.290433,-0.147216,-7.82846,-9.65335,-18.5681,177.078,-16.0273,-57.1332,16.3871,0,0,0,0,0,0,0,0,0,0,0,0,-1.5708,-0.785398,0,0,0,0,0,0,0,0,0,0,0,0,0,0,0,0,0,0,0,0,0,
0.000797225,-0.0044708,0.00173619,-0.0226845,-0.000660827,-1.57009,-0.787038,0.0739179,-0.236261,0.153308,-2.06049,-0.10503,0.265138,-0.150309,0.399878,-5.1136,6.09238,31.6914,47.9233,-15.8098,-1.9328,0,0,0,0,0,0,0,0,0,0,0,0,-1.5708,-0.785398,0,0,0,0,0,0,0,0,0,0,0,0,0,0,0,0,0,0,0,0,0,
0.00161656,-0.00627319,0.00349636,-0.0433508,-0.000688566,-1.56678,-0.788659,0.0796177,-0.234069,0.166651,-2.16505,-0.0847175,0.294726,-0.160767,3.56232,1.37023,8.33905,-65.3505,12.6953,18.4926,-6.5362,0,0,0,0,0,0,0,0,0,0,0,0,-1.5708,-0.785398,0,0,0,0,0,0,0,0,0,0,0,0,0,0,0,0,0,0,0,0,0,
0.00236285,-0.00748314,0.00515306,-0.0685791,-0.00348322,-1.56154,-0.790405,0.0823513,-0.217504,0.174738,-2.36275,-0.13764,0.366739,-0.172267,1.70854,10.3532,5.0546,-123.561,-33.0768,45.0084,-7.1879,0,0,0,0,0,0,0,0,0,0,0,0,-1.5708,-0.785398,0,0,0,0,0,0,0,0,0,0,0,0,0,0,0,0,0,0,0,0,0,
0.000185408,-0.00231889,0.000197796,-0.00782318,-0.00227426,-1.5714,-0.785737,0.0705163,-0.231975,0.144735,-2.08578,-0.166969,0.278347,-0.146282,-7.39692,-9.04464,-18.7517,173.106,-18.3302,-55.2448,16.241,0,0,0,0,0,0,0,0,0,0,0,0,-1.5708,-0.785398,0,0,0,0,0,0,0,0,0,0,0,0,0,0,0,0,0,0,0,0,0,
0.000797225,-0.0044708,0.00173619,-0.0226845,-0.000660827,-1.57009,-0.787038,0.0717084,-0.239378,0.154248,-2.04015,-0.0932393,0.255469,-0.149561,0.745113,-4.62663,5.94551,28.5142,46.0809,-14.2991,-2.04963,0,0,0,0,0,0,0,0,0,0,0,0,-1.5708,-0.785398,0,0,0,0,0,0,0,0,0,0,0,0,0,0,0,0,0,0,0,0,0,
0.00161656,-0.00627319,0.00349636,-0.0433508,-0.000688566,-1.56678,-0.788659,0.0778501,-0.236562,0.167403,-2.14878,-0.0752849,0.286991,-0.160169,3.83851,1.7598,8.22156,-67.8922,11.2215,19.7012,-6.62967,0,0,0,0,0,0,0,0,0,0,0,0,-1.5708,-0.785398,0,0,0,0,0,0,0,0,0,0,0,0,0,0,0,0,0,0,0,0,0,
0.00236285,-0.00748314,0.00515306,-0.0685791,-0.00348322,-1.56154,-0.790405,0.0809373,-0.219499,0.17534,-2.34973,-0.130094,0.360551,-0.171789,1.92949,10.6648,4.96061,-125.595,-34.2559,45.9752,-7.26267,0,0,0,0,0,0,0,0,0,0,0,0,-1.5708,-0.785398,0,0,0,0,0,0,0,0,0,0,0,0,0,0,0,0,0,0,0,0,0,
0.00302083,-0.00786852,0.00679898,-0.0971972,-0.0073384,-1.55436,-0.792373,0.0811994,-0.185233,0.18142,-2.59524,-0.200455,0.467945,-0.186615,0.163823,21.4158,3.80008,-153.441,-43.9753,67.1214,-9.26603,0,0,0,0,0,0,0,0,0,0,0,0,-1.5708,-0.785398,0,0,0,0,0,0,0,0,0,0,0,0,0,0,0,0,0,0,0,0,0,
0.000185408,-0.00231889,0.000197796,-0.00782318,-0.00227426,-1.5714,-0.785737,0.0695947,-0.206159,0.150081,-2.27177,-0.21722,0.359312,-0.157759,-7.25292,-13.0785,-19.5869,202.168,-10.4784,-67.8956,18.0344,0,0,0,0,0,0,0,0,0,0,0,0,-1.5708,-0.785398,0,0,0,0,0,0,0,0,0,0,0,0,0,0,0,0,0,0,0,0,0,
0.000797225,-0.0044708,0.00173619,-0.0226845,-0.000660827,-1.57009,-0.787038,0.0709712,-0.218725,0.158524,-2.18895,-0.133441,0.320241,-0.158743,0.860309,-7.85369,5.27734,51.7635,52.3624,-24.4197,-0.61492,0,0,0,0,0,0,0,0,0,0,0,0,-1.5708,-0.785398,0,0,0,0,0,0,0,0,0,0,0,0,0,0,0,0,0,0,0,0,0,
0.00161656,-0.00627319,0.00349636,-0.0433508,-0.000688566,-1.56678,-0.788659,0.0772603,-0.22004,0.170824,-2.26782,-0.107446,0.338808,-0.167514,3.93067,-0.821847,7.68703,-49.2928,16.2466,11.6047,-5.4819,0,0,0,0,0,0,0,0,0,0,0,0,-1.5708,-0.785398,0,0,0,0,0,0,0,0,0,0,0,0,0,0,0,0,0,0,0,0,0,
0.00236285,-0.00748314,0.00515306,-0.0685791,-0.00348322,-1.56154,-0.790405,0.0804654,-0.20628,0.178076,-2.44496,-0.155823,0.402005,-0.177665,2.00322,8.59952,4.53298,-110.715,-30.2358,39.498,-6.34445,0,0,0,0,0,0,0,0,0,0,0,0,-1.5708,-0.785398,0,0,0,0,0,0,0,0,0,0,0,0,0,0,0,0,0,0,0,0,0,
0.000185408,-0.00231889,0.000197796,-0.00782318,-0.00227426,-1.5714,-0.785737,0.0690075,-0.222997,0.147406,-2.15155,-0.181515,0.30656,-0.1506,-7.16118,-10.4476,-19.169,183.383,-16.0574,-59.653,16.9158,0,0,0,0,0,0,0,0,0,0,0,0,-1.5708,-0.785398,0,0,0,0,0,0,0,0,0,0,0,0,0,0,0,0,0,0,0,0,0,
0.000797225,-0.0044708,0.00173619,-0.0226845,-0.000660827,-1.57009,-0.787038,0.0705015,-0.232195,0.156385,-2.09277,-0.104876,0.278039,-0.153016,0.933706,-5.74898,5.61167,36.7358,47.8992,-17.8257,-1.50983,0,0,0,0,0,0,0,0,0,0,0,0,-1.5708,-0.785398,0,0,0,0,0,0,0,0,0,0,0,0,0,0,0,0,0,0,0,0,0,
0.00161656,-0.00627319,0.00349636,-0.0433508,-0.000688566,-1.56678,-0.788659,0.0768845,-0.230816,0.169112,-2.19088,-0.0845944,0.305047,-0.162932,3.98939,0.861927,7.95449,-61.315,12.6761,16.8799,-6.19782,0,0,0,0,0,0,0,0,0,0,0,0,-1.5708,-0.785398,0,0,0,0,0,0,0,0,0,0,0,0,0,0,0,0,0,0,0,0,0,
0.00236285,-0.00748314,0.00515306,-0.0685791,-0.00348322,-1.56154,-0.790405,0.0801648,-0.214901,0.176707,-2.38341,-0.137542,0.374996,-0.174,2.05019,9.94654,4.74695,-120.333,-33.0922,43.7182,-6.91719,0,0,0,0,0,0,0,0,0,0,0,0,-1.5708,-0.785398,0,0,0,0,0,0,0,0,0,0,0,0,0,0,0,0,0,0,0,0,0,
0.000185408,-0.00231889,0.000197796,-0.00782318,-0.00227426,-1.5714,-0.785737,0.068767,-0.229893,0.146311,-2.10231,-0.16689,0.284953,-0.147668,-7.1236,-9.36995,-18.9978,175.689,-18.3425,-56.2769,16.4576,0,0,0,0,0,0,0,0,0,0,0,0,-1.5708,-0.785398,0,0,0,0,0,0,0,0,0,0,0,0,0,0,0,0,0,0,0,0,0,
0.000797225,-0.0044708,0.00173619,-0.0226845,-0.000660827,-1.57009,-0.787038,0.070309,-0.237712,0.155508,-2.05338,-0.0931763,0.260753,-0.15067,0.963769,-4.88688,5.74861,30.5804,46.0711,-15.1248,-1.87638,0,0,0,0,0,0,0,0,0,0,0,0,-1.5708,-0.785398,0,0,0,0,0,0,0,0,0,0,0,0,0,0,0,0,0,0,0,0,0,
0.00161656,-0.00627319,0.00349636,-0.0433508,-0.000688566,-1.56678,-0.788659,0.0767305,-0.23523,0.168411,-2.15936,-0.0752345,0.291218,-0.161056,4.01344,1.5516,8.06404,-66.2393,11.2136,19.0406,-6.49106,0,0,0,0,0,0,0,0,0,0,0,0,-1.5708,-0.785398,0,0,0,0,0,0,0,0,0,0,0,0,0,0,0,0,0,0,0,0,0,
0.00236285,-0.00748314,0.00515306,-0.0685791,-0.00348322,-1.56154,-0.790405,0.0800416,-0.218433,0.176146,-2.3582,-0.130054,0.363933,-0.172499,2.06943,10.4983,4.83459,-124.272,-34.2622,45.4468,-7.15179,0,0,0,0,0,0,0,0,0,0,0,0,-1.5708,-0.785398,0,0,0,0,0,0,0,0,0,0,0,0,0,0,0,0,0,0,0,0,0,
0.00302083,-0.00786852,0.00679898,-0.0971972,-0.0073384,-1.55436,-0.792373,0.0804829,-0.184381,0.182065,-2.60201,-0.200423,0.470651,-0.187182,0.275774,21.2825,3.69926,-152.383,-43.9804,66.6986,-9.17733,0,0,0,0,0,0,0,0,0,0,0,0,-1.5708,-0.785398,0,0,0,0,0,0,0,0,0,0,0,0,0,0,0,0,0,0,0,0,0,
0.000185408,-0.00231889,0.000197796,-0.00782318,-0.00227426,-1.5714,-0.785737,0.0690215,-0.205477,0.150597,-2.27719,-0.217195,0.361477,-0.158214,-7.16336,-13.1851,-19.6676,203.014,-10.4825,-68.2338,18.1054,0,0,0,0,0,0,0,0,0,0,0,0,-1.5708,-0.785398,0,0,0,0,0,0,0,0,0,0,0,0,0,0,0,0,0,0,0,0,0,
0.000797225,-0.0044708,0.00173619,-0.0226845,-0.000660827,-1.57009,-0.787038,0.0705126,-0.218179,0.158937,-2.19328,-0.13342,0.321973,-0.159107,0.931959,-7.93897,5.21282,52.4405,52.3592,-24.6903,-0.558149,0,0,0,0,0,0,0,0,0,0,0,0,-1.5708,-0.785398,0,0,0,0,0,0,0,0,0,0,0,0,0,0,0,0,0,0,0,0,0,
0.00161656,-0.00627319,0.00349636,-0.0433508,-0.000688566,-1.56678,-0.788659,0.0768934,-0.219603,0.171154,-2.27128,-0.107429,0.340194,-0.167805,3.98799,-0.89007,7.63541,-48.7512,16.2441,11.3882,-5.43648,0,0,0,0,0,0,0,0,0,0,0,0,-1.5708,-0.785398,0,0,0,0,0,0,0,0,0,0,0,0,0,0,0,0,0,0,0,0,0,
0.00236285,-0.00748314,0.00515306,-0.0685791,-0.00348322,-1.56154,-0.790405,0.0801719,-0.205931,0.178341,-2.44774,-0.15581,0.403114,-0.177898,2.04907,8.54494,4.49169,-110.282,-30.2378,39.3248,-6.30812,0,0,0,0,0,0,0,0,0,0,0,0,-1.5708,-0.785398,0,0,0,0,0,0,0,0,0,0,0,0,0,0,0,0,0,0,0,0,0,
0.000185408,-0.00231889,0.000197796,-0.00782318,-0.00227426,-1.5714,-0.785737,0.0687727,-0.222717,0.147617,-2.15377,-0.181504,0.307447,-0.150786,-7.12449,-10.4912,-19.202,183.73,-16.059,-59.7916,16.9449,0,0,0,0,0,0,0,0,0,0,0,0,-1.5708,-0.785398,0,0,0,0,0,0,0,0,0,0,0,0,0,0,0,0,0,0,0,0,0,
0.000797225,-0.0044708,0.00173619,-0.0226845,-0.000660827,-1.57009,-0.787038,0.0703136,-0.231971,0.156554,-2.09455,-0.104868,0.278749,-0.153165,0.963053,-5.78391,5.58524,37.0131,47.8979,-17.9365,-1.48657,0,0,0,0,0,0,0,0,0,0,0,0,-1.5708,-0.785398,0,0,0,0,0,0,0,0,0,0,0,0,0,0,0,0,0,0,0,0,0,
0.00161656,-0.00627319,0.00349636,-0.0433508,-0.000688566,-1.56678,-0.788659,0.0767342,-0.230637,0.169247,-2.1923,-0.0845877,0.305615,-0.163051,4.01286,0.833983,7.93335,-61.0932,12.675,16.7912,-6.17922,0,0,0,0,0,0,0,0,0,0,0,0,-1.5708,-0.785398,0,0,0,0,0,0,0,0,0,0,0,0,0,0,0,0,0,0,0,0,0,
0.00236285,-0.00748314,0.00515306,-0.0685791,-0.00348322,-1.56154,-0.790405,0.0800446,-0.214758,0.176815,-2.38454,-0.137537,0.37545,-0.174095,2.06898,9.92418,4.73004,-120.155,-33.0931,43.6473,-6.90231,0,0,0,0,0,0,0,0,0,0,0,0,-1.5708,-0.785398,0,0,0,0,0,0,0,0,0,0,0,0,0,0,0,0,0,0,0,0,0,
0.000185408,-0.00231889,0.000197796,-0.00782318,-0.00227426,-1.5714,-0.785737,0.0686709,-0.229779,0.146397,-2.10322,-0.166886,0.285316,-0.147744,-7.10857,-9.38783,-19.0114,175.831,-18.3432,-56.3337,16.4695,0,0,0,0,0,0,0,0,0,0,0,0,-1.5708,-0.785398,0,0,0,0,0,0,0,0,0,0,0,0,0,0,0,0,0,0,0,0,0,
0.000797225,-0.0044708,0.00173619,-0.0226845,-0.000660827,-1.57009,-0.787038,0.0702321,-0.237621,0.155578,-2.0541,-0.0931728,0.261044,-0.150731,0.975789,-4.90119,5.73779,30.694,46.0706,-15.1702,-1.86686,0,0,0,0,0,0,0,0,0,0,0,0,-1.5708,-0.785398,0,0,0,0,0,0,0,0,0,0,0,0,0,0,0,0,0,0,0,0,0,
0.00161656,-0.00627319,0.00349636,-0.0433508,-0.000688566,-1.56678,-0.788659,0.076669,-0.235157,0.168466,-2.15994,-0.0752317,0.291451,-0.161104,4.02305,1.54015,8.05538,-66.1484,11.2132,19.0043,-6.48344,0,0,0,0,0,0,0,0,0,0,0,0,-1.5708,-0.785398,0,0,0,0,0,0,0,0,0,0,0,0,0,0,0,0,0,0,0,0,0,
0.00236285,-0.00748314,0.00515306,-0.0685791,-0.00348322,-1.56154,-0.790405,0.0799924,-0.218374,0.17619,-2.35866,-0.130052,0.364119,-0.172538,2.07713,10.4891,4.82767,-124.2,-34.2625,45.4177,-7.14569,0,0,0,0,0,0,0,0,0,0,0,0,-1.5708,-0.785398,0,0,0,0,0,0,0,0,0,0,0,0,0,0,0,0,0,0,0,0,0,
0.000185408,-0.00231889,0.000197796,-0.00782318,-0.00227426,-1.5714,-0.785737,0.0686291,-0.232671,0.145897,-2.08251,-0.160898,0.276252,-0.146498,-7.10205,-8.93588,-18.9333,172.596,-19.2788,-54.9173,16.2748,0,0,0,0,0,0,0,0,0,0,0,0,-1.5708,-0.785398,0,0,0,0,0,0,0,0,0,0,0,0,0,0,0,0,0,0,0,0,0,
0.000797225,-0.0044708,0.00173619,-0.0226845,-0.000660827,-1.57009,-0.787038,0.0701987,-0.239935,0.155178,-2.03754,-0.0883825,0.253792,-0.149734,0.981006,-4.53963,5.80027,28.1057,45.3221,-14.0371,-2.02262,0,0,0,0,0,0,0,0,0,0,0,0,-1.5708,-0.785398,0,0,0,0,0,0,0,0,0,0,0,0,0,0,0,0,0,0,0,0,0,
0.00161656,-0.00627319,0.00349636,-0.0433508,-0.000688566,-1.56678,-0.788659,0.0766423,-0.237008,0.168146,-2.14669,-0.0713995,0.285649,-0.160307,4.02723,1.8294,8.10537,-68.2191,10.6144,19.9108,-6.60806,0,0,0,0,0,0,0,0,0,0,0,0,-1.5708,-0.785398,0,0,0,0,0,0,0,0,0,0,0,0,0,0,0,0,0,0,0,0,0,
0.00236285,-0.00748314,0.00515306,-0.0685791,-0.00348322,-1.56154,-0.790405,0.079971,-0.219855,0.175935,-2.34806,-0.126986,0.359478,-0.1719,2.08047,10.7205,4.86766,-125.856,-34.7416,46.1429,-7.24538,0,0,0,0,0,0,0,0,0,0,0,0,-1.5708,-0.785398,0,0,0,0,0,0,0,0,0,0,0,0,0,0,0,0,0,0,0,0,0,
0.00302083,-0.00786852,0.00679898,-0.0971972,-0.0073384,-1.55436,-0.792373,0.0804264,-0.185518,0.181896,-2.5939,-0.197968,0.467087,-0.186703,0.2846,21.4603,3.72571,-153.65,-44.3639,67.2555,-9.2522,0,0,0,0,0,0,0,0,0,0,0,0,-1.5708,-0.785398,0,0,0,0,0,0,0,0,0,0,0,0,0,0,0,0,0,0,0,0,0,
0.000185408,-0.00231889,0.000197796,-0.00782318,-0.00227426,-1.5714,-0.785737,0.0689763,-0.206387,0.150461,-2.2707,-0.215231,0.358626,-0.15783,-7.1563,-13.0428,-19.6464,202,-10.7892,-67.7883,18.0455,0,0,0,0,0,0,0,0,0,0,0,0,-1.5708,-0.785398,0,0,0,0,0,0,0,0,0,0,0,0,0,0,0,0,0,0,0,0,0,
0.000797225,-0.0044708,0.00173619,-0.0226845,-0.000660827,-1.57009,-0.787038,0.0704765,-0.218907,0.158829,-2.18809,-0.131849,0.319692,-0.1588,0.937607,-7.82519,5.22975,51.6296,52.1137,-24.3339,-0.606068,0,0,0,0,0,0,0,0,0,0,0,0,-1.5708,-0.785398,0,0,0,0,0,0,0,0,0,0,0,0,0,0,0,0,0,0,0,0,0,
0.00161656,-0.00627319,0.00349636,-0.0433508,-0.000688566,-1.56678,-0.788659,0.0768645,-0.220186,0.171067,-2.26713,-0.106173,0.338369,-0.16756,3.99251,-0.79904,7.64895,-49.3999,16.0477,11.6734,-5.47481,0,0,0,0,0,0,0,0,0,0,0,0,-1.5708,-0.785398,0,0,0,0,0,0,0,0,0,0,0,0,0,0,0,0,0,0,0,0,0,
0.00236285,-0.00748314,0.00515306,-0.0685791,-0.00348322,-1.56154,-0.790405,0.0801488,-0.206397,0.178271,-2.44441,-0.154805,0.401654,-0.177702,2.05269,8.61776,4.50252,-110.801,-30.3949,39.553,-6.33879,0,0,0,0,0,0,0,0,0,0,0,0,-1.5708,-0.785398,0,0,0,0,0,0,0,0,0,0,0,0,0,0,0,0,0,0,0,0,0,
0.000185408,-0.00231889,0.000197796,-0.00782318,-0.00227426,-1.5714,-0.785737,0.0687542,-0.22309,0.147562,-2.15111,-0.1807,0.306279,-0.150629,-7.1216,-10.433,-19.1934,183.315,-16.1847,-59.6091,16.9203,0,0,0,0,0,0,0,0,0,0,0,0,-1.5708,-0.785398,0,0,0,0,0,0,0,0,0,0,0,0,0,0,0,0,0,0,0,0,0,
0.000797225,-0.0044708,0.00173619,-0.0226845,-0.000660827,-1.57009,-0.787038,0.0702988,-0.23227,0.15651,-2.09242,-0.104224,0.277814,-0.153039,0.965367,-5.7373,5.59218,36.6809,47.7974,-17.7905,-1.5062,0,0,0,0,0,0,0,0,0,0,0,0,-1.5708,-0.785398,0,0,0,0,0,0,0,0,0,0,0,0,0,0,0,0,0,0,0,0,0,
0.00161656,-0.00627319,0.00349636,-0.0433508,-0.000688566,-1.56678,-0.788659,0.0767224,-0.230876,0.169212,-2.1906,-0.084073,0.304867,-0.162951,4.01471,0.871269,7.9389,-61.3589,12.5946,16.908,-6.19492,0,0,0,0,0,0,0,0,0,0,0,0,-1.5708,-0.785398,0,0,0,0,0,0,0,0,0,0,0,0,0,0,0,0,0,0,0,0,0,
0.00236285,-0.00748314,0.00515306,-0.0685791,-0.00348322,-1.56154,-0.790405,0.0800351,-0.214949,0.176787,-2.38318,-0.137125,0.374852,-0.174015,2.07046,9.95401,4.73448,-120.368,-33.1574,43.7407,-6.91487,0,0,0,0,0,0,0,0,0,0,0,0,-1.5708,-0.785398,0,0,0,0,0,0,0,0,0,0,0,0,0,0,0,0,0,0,0,0,0,
0.000185408,-0.00231889,0.000197796,-0.00782318,-0.00227426,-1.5714,-0.785737,0.0686633,-0.229932,0.146374,-2.10213,-0.166556,0.284838,-0.14768,-7.10739,-9.36397,-19.0078,175.661,-18.3947,-56.2589,16.4595,0,0,0,0,0,0,0,0,0,0,0,0,-1.5708,-0.785398,0,0,0,0,0,0,0,0,0,0,0,0,0,0,0,0,0,0,0,0,0,
0.000797225,-0.0044708,0.00173619,-0.0226845,-0.000660827,-1.57009,-0.787038,0.0702261,-0.237743,0.155559,-2.05323,-0.0929093,0.260661,-0.150679,0.976737,-4.8821,5.74063,30.558,46.0294,-15.1104,-1.8749,0,0,0,0,0,0,0,0,0,0,0,0,-1.5708,-0.785398,0,0,0,0,0,0,0,0,0,0,0,0,0,0,0,0,0,0,0,0,0,
0.00161656,-0.00627319,0.00349636,-0.0433508,-0.000688566,-1.56678,-0.788659,0.0766641,-0.235254,0.168452,-2.15925,-0.0750209,0.291145,-0.161063,4.02381,1.55543,8.05766,-66.2573,11.1802,19.0522,-6.48988,0,0,0,0,0,0,0,0,0,0,0,0,-1.5708,-0.785398,0,0,0,0,0,0,0,0,0,0,0,0,0,0,0,0,0,0,0,0,0,
0.00236285,-0.00748314,0.00515306,-0.0685791,-0.00348322,-1.56154,-0.790405,0.0799885,-0.218452,0.176179,-2.3581,-0.129883,0.363874,-0.172505,2.07773,10.5013,4.82948,-124.287,-34.2889,45.456,-7.15084,0,0,0,0,0,0,0,0,0,0,0,0,-1.5708,-0.785398,0,0,0,0,0,0,0,0,0,0,0,0,0,0,0,0,0,0,0,0,0,
0.00302083,-0.00786852,0.00679898,-0.0971972,-0.0073384,-1.55436,-0.792373,0.0804404,-0.184396,0.182091,-2.60194,-0.200286,0.470604,-0.187187,0.282414,21.285,3.69518,-152.395,-44.0017,66.706,-9.17657,0,0,0,0,0,0,0,0,0,0,0,0,-1.5708,-0.785398,0,0,0,0,0,0,0,0,0,0,0,0,0,0,0,0,0,0,0,0,0,
0.000185408,-0.00231889,0.000197796,-0.00782318,-0.00227426,-1.5714,-0.785737,0.0689875,-0.205489,0.150618,-2.27713,-0.217085,0.361439,-0.158218,-7.15805,-13.1831,-19.6708,203.005,-10.4995,-68.2279,18.106,0,0,0,0,0,0,0,0,0,0,0,0,-1.5708,-0.785398,0,0,0,0,0,0,0,0,0,0,0,0,0,0,0,0,0,0,0,0,0,
0.000797225,-0.0044708,0.00173619,-0.0226845,-0.000660827,-1.57009,-0.787038,0.0704854,-0.218189,0.158954,-2.19324,-0.133332,0.321942,-0.15911,0.936208,-7.93741,5.21021,52.4332,52.3455,-24.6856,-0.557662,0,0,0,0,0,0,0,0,0,0,0,0,-1.5708,-0.785398,0,0,0,0,0,0,0,0,0,0,0,0,0,0,0,0,0,0,0,0,0,
0.00161656,-0.00627319,0.00349636,-0.0433508,-0.000688566,-1.56678,-0.788659,0.0768717,-0.219611,0.171167,-2.27125,-0.107359,0.34017,-0.167808,3.99139,-0.888816,7.63332,-48.7571,16.2331,11.392,-5.43609,0,0,0,0,0,0,0,0,0,0,0,0,-1.5708,-0.785398,0,0,0,0,0,0,0,0,0,0,0,0,0,0,0,0,0,0,0,0,0,
0.00236285,-0.00748314,0.00515306,-0.0685791,-0.00348322,-1.56154,-0.790405,0.0801545,-0.205938,0.178351,-2.44771,-0.155754,0.403094,-0.1779,2.05179,8.54594,4.49001,-110.287,-30.2466,39.3279,-6.30781,0,0,0,0,0,0,0,0,0,0,0,0,-1.5708,-0.785398,0,0,0,0,0,0,0,0,0,0,0,0,0,0,0,0,0,0,0,0,0,
0.000185408,-0.00231889,0.000197796,-0.00782318,-0.00227426,-1.5714,-0.785737,0.0687588,-0.222722,0.147626,-2.15374,-0.18146,0.307432,-0.150788,-7.12232,-10.4904,-19.2034,183.726,-16.066,-59.7892,16.9451,0,0,0,0,0,0,0,0,0,0,0,0,-1.5708,-0.785398,0,0,0,0,0,0,0,0,0,0,0,0,0,0,0,0,0,0,0,0,0,
0.000797225,-0.0044708,0.00173619,-0.0226845,-0.000660827,-1.57009,-0.787038,0.0703025,-0.231976,0.156561,-2.09453,-0.104832,0.278736,-0.153166,0.964794,-5.78326,5.58417,37.0101,47.8923,-17.9346,-1.48637,0,0,0,0,0,0,0,0,0,0,0,0,-1.5708,-0.785398,0,0,0,0,0,0,0,0,0,0,0,0,0,0,0,0,0,0,0,0,0,
0.00161656,-0.00627319,0.00349636,-0.0433508,-0.000688566,-1.56678,-0.788659,0.0767253,-0.23064,0.169253,-2.19228,-0.084559,0.305605,-0.163053,4.01426,0.834496,7.93249,-61.0956,12.6706,16.7928,-6.17906,0,0,0,0,0,0,0,0,0,0,0,0,-1.5708,-0.785398,0,0,0,0,0,0,0,0,0,0,0,0,0,0,0,0,0,0,0,0,0,
0.00236285,-0.00748314,0.00515306,-0.0685791,-0.00348322,-1.56154,-0.790405,0.0800374,-0.214761,0.17682,-2.38453,-0.137514,0.375442,-0.174096,2.07009,9.92459,4.72935,-120.157,-33.0966,43.6485,-6.90218,0,0,0,0,0,0,0,0,0,0,0,0,-1.5708,-0.785398,0,0,0,0,0,0,0,0,0,0,0,0,0,0,0,0,0,0,0,0,0,
0.00302083,-0.00786852,0.00679898,-0.0971972,-0.0073384,-1.55436,-0.792373,0.0804795,-0.181443,0.182604,-2.62308,-0.20639,0.479858,-0.18846,0.276299,20.8236,3.61507,-149.091,-43.0479,65.26,-8.97764,0,0,0,0,0,0,0,0,0,0,0,0,-1.5708,-0.785398,0,0,0,0,0,0,0,0,0,0,0,0,0,0,0,0,0,0,0,0,0,
0.000185408,-0.00231889,0.000197796,-0.00782318,-0.00227426,-1.5714,-0.785737,0.0690188,-0.203127,0.151028,-2.29404,-0.221969,0.368843,-0.159236,-7.16294,-13.5522,-19.7349,205.648,-9.73649,-69.3847,18.2651,0,0,0,0,0,0,0,0,0,0,0,0,-1.5708,-0.785398,0,0,0,0,0,0,0,0,0,0,0,0,0,0,0,0,0,0,0,0,0,
0.000797225,-0.0044708,0.00173619,-0.0226845,-0.000660827,-1.57009,-0.787038,0.0705105,-0.216299,0.159282,-2.20677,-0.137239,0.327865,-0.159925,0.932294,-8.2327,5.15894,54.5474,52.9559,-25.611,-0.430351,0,0,0,0,0,0,0,0,0,0,0,0,-1.5708,-0.785398,0,0,0,0,0,0,0,0,0,0,0,0,0,0,0,0,0,0,0,0,0,
0.00161656,-0.00627319,0.00349636,-0.0433508,-0.000688566,-1.56678,-0.788659,0.0768917,-0.218099,0.17143,-2.28207,-0.110485,0.344908,-0.168459,3.98826,-1.12505,7.5923,-47.0657,16.7215,10.6517,-5.33424,0,0,0,0,0,0,0,0,0,0,0,0,-1.5708,-0.785398,0,0,0,0,0,0,0,0,0,0,0,0,0,0,0,0,0,0,0,0,0,
0.00236285,-0.00748314,0.00515306,-0.0685791,-0.00348322,-1.56154,-0.790405,0.0801706,-0.204728,0.178561,-2.45637,-0.158254,0.406885,-0.178421,2.04929,8.35695,4.4572,-108.933,-29.8559,38.7356,-6.22633,0,0,0,0,0,0,0,0,0,0,0,0,-1.5708,-0.785398,0,0,0,0,0,0,0,0,0,0,0,0,0,0,0,0,0,0,0,0,0,
0.000185408,-0.00231889,0.000197796,-0.00782318,-0.00227426,-1.5714,-0.785737,0.0687716,-0.221755,0.147794,-2.16067,-0.18346,0.310464,-0.151205,-7.12432,-10.6416,-19.2296,184.808,-15.7535,-60.263,17.0103,0,0,0,0,0,0,0,0,0,0,0,0,-1.5708,-0.785398,0,0,0,0,0,0,0,0,0,0,0,0,0,0,0,0,0,0,0,0,0,
0.000797225,-0.0044708,0.00173619,-0.0226845,-0.000660827,-1.57009,-0.787038,0.0703127,-0.231201,0.156695,-2.10007,-0.106432,0.281162,-0.1535,0.963191,-5.90422,5.56317,37.8761,48.1423,-18.3137,-1.43423,0,0,0,0,0,0,0,0,0,0,0,0,-1.5708,-0.785398,0,0,0,0,0,0,0,0,0,0,0,0,0,0,0,0,0,0,0,0,0,
0.00161656,-0.00627319,0.00349636,-0.0433508,-0.000688566,-1.56678,-0.788659,0.0767335,-0.230021,0.16936,-2.19671,-0.0858392,0.307545,-0.163319,4.01297,0.737735,7.91569,-60.4028,12.8706,16.4895,-6.13734,0,0,0,0,0,0,0,0,0,0,0,0,-1.5708,-0.785398,0,0,0,0,0,0,0,0,0,0,0,0,0,0,0,0,0,0,0,0,0,
0.00236285,-0.00748314,0.00515306,-0.0685791,-0.00348322,-1.56154,-0.790405,0.080044,-0.214266,0.176906,-2.38808,-0.138538,0.376995,-0.17431,2.06906,9.84718,4.71591,-119.603,-32.9366,43.4059,-6.86881,0,0,0,0,0,0,0,0,0,0,0,0,-1.5708,-0.785398,0,0,0,0,0,0,0,0,0,0,0,0,0,0,0,0,0,0,0,0,0,
0.000185408,-0.00231889,0.000197796,-0.00782318,-0.00227426,-1.5714,-0.785737,0.0686704,-0.229385,0.146469,-2.10604,-0.167687,0.286552,-0.147915,-7.1085,-9.44943,-19.0227,176.273,-18.2181,-56.5267,16.4963,0,0,0,0,0,0,0,0,0,0,0,0,-1.5708,-0.785398,0,0,0,0,0,0,0,0,0,0,0,0,0,0,0,0,0,0,0,0,0,
0.000797225,-0.0044708,0.00173619,-0.0226845,-0.000660827,-1.57009,-0.787038,0.0702318,-0.237305,0.155635,-2.05637,-0.0938136,0.262033,-0.150868,0.975846,-4.95047,5.72875,31.0475,46.1707,-15.3247,-1.84541,0,0,0,0,0,0,0,0,0,0,0,0,-1.5708,-0.785398,0,0,0,0,0,0,0,0,0,0,0,0,0,0,0,0,0,0,0,0,0,
0.00161656,-0.00627319,0.00349636,-0.0433508,-0.000688566,-1.56678,-0.788659,0.0766687,-0.234904,0.168512,-2.16175,-0.0757443,0.292242,-0.161214,4.0231,1.50073,8.04815,-65.8656,11.2933,18.8807,-6.46629,0,0,0,0,0,0,0,0,0,0,0,0,-1.5708,-0.785398,0,0,0,0,0,0,0,0,0,0,0,0,0,0,0,0,0,0,0,0,0,
0.00236285,-0.00748314,0.00515306,-0.0685791,-0.00348322,-1.56154,-0.790405,0.0799922,-0.218172,0.176228,-2.36011,-0.130462,0.364752,-0.172625,2.07716,10.4576,4.82188,-123.973,-34.1985,45.3188,-7.13197,0,0,0,0,0,0,0,0,0,0,0,0,-1.5708,-0.785398,0,0,0,0,0,0,0,0,0,0,0,0,0,0,0,0,0,0,0,0,0,
0.000185408,-0.00231889,0.000197796,-0.00782318,-0.00227426,-1.5714,-0.785737,0.0686289,-0.23251,0.145927,-2.08367,-0.161226,0.276758,-0.146568,-7.10202,-8.96111,-18.9379,172.776,-19.2275,-54.9964,16.2858,0,0,0,0,0,0,0,0,0,0,0,0,-1.5708,-0.785398,0,0,0,0,0,0,0,0,0,0,0,0,0,0,0,0,0,0,0,0,0,
0.000797225,-0.0044708,0.00173619,-0.0226845,-0.000660827,-1.57009,-0.787038,0.0701986,-0.239806,0.155201,-2.03847,-0.088645,0.254197,-0.14979,0.981029,-4.55982,5.79657,28.2505,45.3631,-14.1004,-2.01384,0,0,0,0,0,0,0,0,0,0,0,0,-1.5708,-0.785398,0,0,0,0,0,0,0,0,0,0,0,0,0,0,0,0,0,0,0,0,0,
0.00161656,-0.00627319,0.00349636,-0.0433508,-0.000688566,-1.56678,-0.788659,0.0766422,-0.236904,0.168165,-2.14743,-0.0716095,0.285973,-0.160352,4.02724,1.81326,8.10241,-68.1032,10.6472,19.8602,-6.60103,0,0,0,0,0,0,0,0,0,0,0,0,-1.5708,-0.785398,0,0,0,0,0,0,0,0,0,0,0,0,0,0,0,0,0,0,0,0,0,
0.00236285,-0.00748314,0.00515306,-0.0685791,-0.00348322,-1.56154,-0.790405,0.0799709,-0.219772,0.17595,-2.34865,-0.127154,0.359737,-0.171936,2.08048,10.7076,4.86529,-125.763,-34.7153,46.1024,-7.23976,0,0,0,0,0,0,0,0,0,0,0,0,-1.5708,-0.785398,0,0,0,0,0,0,0,0,0,0,0,0,0,0,0,0,0,0,0,0,0,
0.00302083,-0.00786852,0.00679898,-0.0971972,-0.0073384,-1.55436,-0.792373,0.0804263,-0.185452,0.181908,-2.59437,-0.198103,0.467294,-0.186732,0.284612,21.45,3.72382,-153.576,-44.3429,67.2231,-9.2477,0,0,0,0,0,0,0,0,0,0,0,0,-1.5708,-0.785398,0,0,0,0,0,0,0,0,0,0,0,0,0,0,0,0,0,0,0,0,0,
0.000185408,-0.00231889,0.000197796,-0.00782318,-0.00227426,-1.5714,-0.785737,0.0689763,-0.206334,0.150471,-2.27108,-0.215339,0.358792,-0.157853,-7.15629,-13.0511,-19.6479,202.06,-10.7725,-67.8142,18.0491,0,0,0,0,0,0,0,0,0,0,0,0,-1.5708,-0.785398,0,0,0,0,0,0,0,0,0,0,0,0,0,0,0,0,0,0,0,0,0,
0.000797225,-0.0044708,0.00173619,-0.0226845,-0.000660827,-1.57009,-0.787038,0.0704764,-0.218865,0.158837,-2.1884,-0.131935,0.319824,-0.158818,0.937614,-7.8318,5.22854,51.6771,52.1272,-24.3546,-0.60319,0,0,0,0,0,0,0,0,0,0,0,0,-1.5708,-0.785398,0,0,0,0,0,0,0,0,0,0,0,0,0,0,0,0,0,0,0,0,0,
0.00161656,-0.00627319,0.00349636,-0.0433508,-0.000688566,-1.56678,-0.788659,0.0768645,-0.220152,0.171074,-2.26738,-0.106242,0.338475,-0.167574,3.99251,-0.804331,7.64798,-49.362,16.0585,11.6568,-5.47251,0,0,0,0,0,0,0,0,0,0,0,0,-1.5708,-0.785398,0,0,0,0,0,0,0,0,0,0,0,0,0,0,0,0,0,0,0,0,0,
0.00236285,-0.00748314,0.00515306,-0.0685791,-0.00348322,-1.56154,-0.790405,0.0801488,-0.20637,0.178276,-2.44461,-0.15486,0.401739,-0.177714,2.05269,8.61353,4.50175,-110.77,-30.3863,39.5397,-6.33695,0,0,0,0,0,0,0,0,0,0,0,0,-1.5708,-0.785398,0,0,0,0,0,0,0,0,0,0,0,0,0,0,0,0,0,0,0,0,0,
0.000185408,-0.00231889,0.000197796,-0.00782318,-0.00227426,-1.5714,-0.785737,0.0687542,-0.223068,0.147566,-2.15127,-0.180744,0.306347,-0.150639,-7.1216,-10.4364,-19.194,183.339,-16.1778,-59.6197,16.9218,0,0,0,0,0,0,0,0,0,0,0,0,-1.5708,-0.785398,0,0,0,0,0,0,0,0,0,0,0,0,0,0,0,0,0,0,0,0,0,
0.000797225,-0.0044708,0.00173619,-0.0226845,-0.000660827,-1.57009,-0.787038,0.0702988,-0.232252,0.156513,-2.09255,-0.10426,0.277869,-0.153047,0.96537,-5.74001,5.59168,36.7004,47.8029,-17.799,-1.50502,0,0,0,0,0,0,0,0,0,0,0,0,-1.5708,-0.785398,0,0,0,0,0,0,0,0,0,0,0,0,0,0,0,0,0,0,0,0,0,
0.00161656,-0.00627319,0.00349636,-0.0433508,-0.000688566,-1.56678,-0.788659,0.0767223,-0.230862,0.169214,-2.19069,-0.0841011,0.304911,-0.162957,4.01472,0.869102,7.9385,-61.3433,12.599,16.9012,-6.19398,0,0,0,0,0,0,0,0,0,0,0,0,-1.5708,-0.785398,0,0,0,0,0,0,0,0,0,0,0,0,0,0,0,0,0,0,0,0,0,
0.00236285,-0.00748314,0.00515306,-0.0685791,-0.00348322,-1.56154,-0.790405,0.0800351,-0.214938,0.176789,-2.38326,-0.137147,0.374887,-0.17402,2.07046,9.95228,4.73416,-120.356,-33.1539,43.7353,-6.91412,0,0,0,0,0,0,0,0,0,0,0,0,-1.5708,-0.785398,0,0,0,0,0,0,0,0,0,0,0,0,0,0,0,0,0,0,0,0,0,
0.000185408,-0.00231889,0.000197796,-0.00782318,-0.00227426,-1.5714,-0.785737,0.0686633,-0.229923,0.146376,-2.10219,-0.166574,0.284866,-0.147684,-7.10739,-9.36536,-19.0081,175.671,-18.3919,-56.2633,16.4601,0,0,0,0,0,0,0,0,0,0,0,0,-1.5708,-0.785398,0,0,0,0,0,0,0,0,0,0,0,0,0,0,0,0,0,0,0,0,0,
0.000797225,-0.0044708,0.00173619,-0.0226845,-0.000660827,-1.57009,-0.787038,0.070226,-0.237736,0.155561,-2.05328,-0.0929237,0.260684,-0.150683,0.976738,-4.88321,5.74042,30.5659,46.0316,-15.1139,-1.87441,0,0,0,0,0,0,0,0,0,0,0,0,-1.5708,-0.785398,0,0,0,0,0,0,0,0,0,0,0,0,0,0,0,0,0,0,0,0,0,
0.00161656,-0.00627319,0.00349636,-0.0433508,-0.000688566,-1.56678,-0.788659,0.0766641,-0.235249,0.168453,-2.15929,-0.0750324,0.291163,-0.161066,4.02381,1.55454,8.05749,-66.2509,11.182,19.0494,-6.48949,0,0,0,0,0,0,0,0,0,0,0,0,-1.5708,-0.785398,0,0,0,0,0,0,0,0,0,0,0,0,0,0,0,0,0,0,0,0,0,
0.00236285,-0.00748314,0.00515306,-0.0685791,-0.00348322,-1.56154,-0.790405,0.0799885,-0.218448,0.17618,-2.35814,-0.129892,0.363889,-0.172507,2.07773,10.5006,4.82935,-124.282,-34.2875,45.4538,-7.15053,0,0,0,0,0,0,0,0,0,0,0,0,-1.5708,-0.785398,0,0,0,0,0,0,0,0,0,0,0,0,0,0,0,0,0,0,0,0,0,
0.00302083,-0.00786852,0.00679898,-0.0971972,-0.0073384,-1.55436,-0.792373,0.0804404,-0.184393,0.182092,-2.60196,-0.200293,0.470615,-0.187189,0.282415,21.2844,3.69507,-152.391,-44.0006,66.7042,-9.17632,0,0,0,0,0,0,0,0,0,0,0,0,-1.5708,-0.785398,0,0,0,0,0,0,0,0,0,0,0,0,0,0,0,0,0,0,0,0,0,
0.000185408,-0.00231889,0.000197796,-0.00782318,-0.00227426,-1.5714,-0.785737,0.0689875,-0.205486,0.150618,-2.27715,-0.217091,0.361448,-0.158219,-7.15805,-13.1836,-19.6709,203.008,-10.4986,-68.2293,18.1062,0,0,0,0,0,0,0,0,0,0,0,0,-1.5708,-0.785398,0,0,0,0,0,0,0,0,0,0,0,0,0,0,0,0,0,0,0,0,0,
0.000797225,-0.0044708,0.00173619,-0.0226845,-0.000660827,-1.57009,-0.787038,0.0704854,-0.218187,0.158955,-2.19325,-0.133337,0.32195,-0.159111,0.936208,-7.93777,5.21014,52.4358,52.3462,-24.6867,-0.557504,0,0,0,0,0,0,0,0,0,0,0,0,-1.5708,-0.785398,0,0,0,0,0,0,0,0,0,0,0,0,0,0,0,0,0,0,0,0,0,
0.00161656,-0.00627319,0.00349636,-0.0433508,-0.000688566,-1.56678,-0.788659,0.0768717,-0.219609,0.171168,-2.27126,-0.107363,0.340175,-0.167808,3.99139,-0.889107,7.63326,-48.755,16.2337,11.3911,-5.43596,0,0,0,0,0,0,0,0,0,0,0,0,-1.5708,-0.785398,0,0,0,0,0,0,0,0,0,0,0,0,0,0,0,0,0,0,0,0,0,
0.00236285,-0.00748314,0.00515306,-0.0685791,-0.00348322,-1.56154,-0.790405,0.0801545,-0.205936,0.178352,-2.44772,-0.155757,0.403099,-0.177901,2.05179,8.54571,4.48997,-110.285,-30.2461,39.3271,-6.30771,0,0,0,0,0,0,0,0,0,0,0,0,-1.5708,-0.785398,0,0,0,0,0,0,0,0,0,0,0,0,0,0,0,0,0,0,0,0,0,
0.000185408,-0.00231889,0.000197796,-0.00782318,-0.00227426,-1.5714,-0.785737,0.0687588,-0.222721,0.147626,-2.15375,-0.181462,0.307435,-0.150788,-7.12232,-10.4906,-19.2034,183.727,-16.0657,-59.7897,16.9452,0,0,0,0,0,0,0,0,0,0,0,0,-1.5708,-0.785398,0,0,0,0,0,0,0,0,0,0,0,0,0,0,0,0,0,0,0,0,0,
0.000797225,-0.0044708,0.00173619,-0.0226845,-0.000660827,-1.57009,-0.787038,0.0703025,-0.231975,0.156561,-2.09453,-0.104834,0.278739,-0.153166,0.964794,-5.78341,5.58415,37.0111,47.8926,-17.9351,-1.48631,0,0,0,0,0,0,0,0,0,0,0,0,-1.5708,-0.785398,0,0,0,0,0,0,0,0,0,0,0,0,0,0,0,0,0,0,0,0,0,
0.00161656,-0.00627319,0.00349636,-0.0433508,-0.000688566,-1.56678,-0.788659,0.0767253,-0.23064,0.169253,-2.19229,-0.0845606,0.305607,-0.163053,4.01426,0.834377,7.93247,-61.0947,12.6708,16.7924,-6.17901,0,0,0,0,0,0,0,0,0,0,0,0,-1.5708,-0.785398,0,0,0,0,0,0,0,0,0,0,0,0,0,0,0,0,0,0,0,0,0,
0.00236285,-0.00748314,0.00515306,-0.0685791,-0.00348322,-1.56154,-0.790405,0.0800374,-0.21476,0.17682,-2.38454,-0.137515,0.375444,-0.174096,2.07009,9.9245,4.72934,-120.157,-33.0964,43.6482,-6.90214,0,0,0,0,0,0,0,0,0,0,0,0,-1.5708,-0.785398,0,0,0,0,0,0,0,0,0,0,0,0,0,0,0,0,0,0,0,0,0,
0.000185408,-0.00231889,0.000197796,-0.00782318,-0.00227426,-1.5714,-0.785737,0.0686651,-0.22978,0.146401,-2.10321,-0.166868,0.285311,-0.147745,-7.10768,-9.38758,-19.0119,175.83,-18.3459,-56.3329,16.4696,0,0,0,0,0,0,0,0,0,0,0,0,-1.5708,-0.785398,0,0,0,0,0,0,0,0,0,0,0,0,0,0,0,0,0,0,0,0,0,
0.000797225,-0.0044708,0.00173619,-0.0226845,-0.000660827,-1.57009,-0.787038,0.0702276,-0.237622,0.15558,-2.0541,-0.0931589,0.26104,-0.150732,0.976502,-4.90099,5.73734,30.6932,46.0684,-15.1696,-1.86675,0,0,0,0,0,0,0,0,0,0,0,0,-1.5708,-0.785398,0,0,0,0,0,0,0,0,0,0,0,0,0,0,0,0,0,0,0,0,0,
0.00161656,-0.00627319,0.00349636,-0.0433508,-0.000688566,-1.56678,-0.788659,0.0766654,-0.235158,0.168469,-2.15994,-0.0752206,0.291448,-0.161105,4.02362,1.54032,8.05502,-66.1491,11.2114,19.0048,-6.48336,0,0,0,0,0,0,0,0,0,0,0,0,-1.5708,-0.785398,0,0,0,0,0,0,0,0,0,0,0,0,0,0,0,0,0,0,0,0,0,
0.00236285,-0.00748314,0.00515306,-0.0685791,-0.00348322,-1.56154,-0.790405,0.0799895,-0.218375,0.176192,-2.35866,-0.130043,0.364117,-0.172538,2.07758,10.4892,4.82738,-124.2,-34.2639,45.4181,-7.14562,0,0,0,0,0,0,0,0,0,0,0,0,-1.5708,-0.785398,0,0,0,0,0,0,0,0,0,0,0,0,0,0,0,0,0,0,0,0,0,
0.000185408,-0.00231889,0.000197796,-0.00782318,-0.00227426,-1.5714,-0.785737,0.0686268,-0.232672,0.145899,-2.08251,-0.160891,0.27625,-0.146498,-7.10169,-8.93578,-18.9335,172.595,-19.2799,-54.917,16.2749,0,0,0,0,0,0,0,0,0,0,0,0,-1.5708,-0.785398,0,0,0,0,0,0,0,0,0,0,0,0,0,0,0,0,0,0,0,0,0,
0.000797225,-0.0044708,0.00173619,-0.0226845,-0.000660827,-1.57009,-0.787038,0.0701969,-0.239935,0.155179,-2.03754,-0.0883769,0.253791,-0.149734,0.981298,-4.53955,5.80009,28.1054,45.3212,-14.0369,-2.02258,0,0,0,0,0,0,0,0,0,0,0,0,-1.5708,-0.785398,0,0,0,0,0,0,0,0,0,0,0,0,0,0,0,0,0,0,0,0,0,
0.00161656,-0.00627319,0.00349636,-0.0433508,-0.000688566,-1.56678,-0.788659,0.0766408,-0.237008,0.168147,-2.14669,-0.071395,0.285648,-0.160307,4.02746,1.82947,8.10522,-68.2193,10.6137,19.911,-6.60802,0,0,0,0,0,0,0,0,0,0,0,0,-1.5708,-0.785398,0,0,0,0,0,0,0,0,0,0,0,0,0,0,0,0,0,0,0,0,0,
0.00236285,-0.00748314,0.00515306,-0.0685791,-0.00348322,-1.56154,-0.790405,0.0799698,-0.219855,0.175935,-2.34806,-0.126982,0.359477,-0.1719,2.08065,10.7206,4.86754,-125.856,-34.7421,46.143,-7.24535,0,0,0,0,0,0,0,0,0,0,0,0,-1.5708,-0.785398,0,0,0,0,0,0,0,0,0,0,0,0,0,0,0,0,0,0,0,0,0,
0.00302083,-0.00786852,0.00679898,-0.0971972,-0.0073384,-1.55436,-0.792373,0.0804254,-0.185519,0.181896,-2.5939,-0.197965,0.467086,-0.186703,0.284749,21.4603,3.72562,-153.651,-44.3643,67.2556,-9.25218,0,0,0,0,0,0,0,0,0,0,0,0,-1.5708,-0.785398,0,0,0,0,0,0,0,0,0,0,0,0,0,0,0,0,0,0,0,0,0,
0.000185408,-0.00231889,0.000197796,-0.00782318,-0.00227426,-1.5714,-0.785737,0.0689755,-0.206387,0.150462,-2.2707,-0.215229,0.358625,-0.15783,-7.15618,-13.0428,-19.6465,202,-10.7896,-67.7882,18.0455,0,0,0,0,0,0,0,0,0,0,0,0,-1.5708,-0.785398,0,0,0,0,0,0,0,0,0,0,0,0,0,0,0,0,0,0,0,0,0,
0.000797225,-0.0044708,0.00173619,-0.0226845,-0.000660827,-1.57009,-0.787038,0.0704759,-0.218907,0.158829,-2.18809,-0.131847,0.319691,-0.1588,0.937703,-7.82516,5.22969,51.6295,52.1134,-24.3338,-0.606054,0,0,0,0,0,0,0,0,0,0,0,0,-1.5708,-0.785398,0,0,0,0,0,0,0,0,0,0,0,0,0,0,0,0,0,0,0,0,0,
0.00161656,-0.00627319,0.00349636,-0.0433508,-0.000688566,-1.56678,-0.788659,0.076864,-0.220186,0.171068,-2.26713,-0.106171,0.338368,-0.16756,3.99258,-0.799018,7.6489,-49.4,16.0475,11.6734,-5.4748,0,0,0,0,0,0,0,0,0,0,0,0,-1.5708,-0.785398,0,0,0,0,0,0,0,0,0,0,0,0,0,0,0,0,0,0,0,0,0,
0.00236285,-0.00748314,0.00515306,-0.0685791,-0.00348322,-1.56154,-0.790405,0.0801484,-0.206397,0.178272,-2.44441,-0.154803,0.401653,-0.177702,2.05275,8.61778,4.50248,-110.801,-30.3951,39.553,-6.33878,0,0,0,0,0,0,0,0,0,0,0,0,-1.5708,-0.785398,0,0,0,0,0,0,0,0,0,0,0,0,0,0,0,0,0,0,0,0,0,
0.000185408,-0.00231889,0.000197796,-0.00782318,-0.00227426,-1.5714,-0.785737,0.0687539,-0.22309,0.147562,-2.15111,-0.180699,0.306279,-0.150629,-7.12155,-10.433,-19.1934,183.314,-16.1849,-59.6091,16.9203,0,0,0,0,0,0,0,0,0,0,0,0,-1.5708,-0.785398,0,0,0,0,0,0,0,0,0,0,0,0,0,0,0,0,0,0,0,0,0,
0.000797225,-0.0044708,0.00173619,-0.0226845,-0.000660827,-1.57009,-0.787038,0.0702986,-0.23227,0.15651,-2.09242,-0.104224,0.277814,-0.153039,0.965406,-5.73729,5.59215,36.6809,47.7972,-17.7905,-1.50619,0,0,0,0,0,0,0,0,0,0,0,0,-1.5708,-0.785398,0,0,0,0,0,0,0,0,0,0,0,0,0,0,0,0,0,0,0,0,0,
0.00161656,-0.00627319,0.00349636,-0.0433508,-0.000688566,-1.56678,-0.788659,0.0767222,-0.230876,0.169212,-2.1906,-0.0840723,0.304867,-0.162951,4.01475,0.871278,7.93888,-61.3589,12.5945,16.9081,-6.19492,0,0,0,0,0,0,0,0,0,0,0,0,-1.5708,-0.785398,0,0,0,0,0,0,0,0,0,0,0,0,0,0,0,0,0,0,0,0,0,
0.00236285,-0.00748314,0.00515306,-0.0685791,-0.00348322,-1.56154,-0.790405,0.0800349,-0.214949,0.176787,-2.38318,-0.137124,0.374852,-0.174015,2.07048,9.95402,4.73446,-120.368,-33.1575,43.7407,-6.91487,0,0,0,0,0,0,0,0,0,0,0,0,-1.5708,-0.785398,0,0,0,0,0,0,0,0,0,0,0,0,0,0,0,0,0,0,0,0,0,
0.00302083,-0.00786852,0.00679898,-0.0971972,-0.0073384,-1.55436,-0.792373,0.0804775,-0.181594,0.182578,-2.622,-0.206079,0.479386,-0.188395,0.276613,20.8471,3.61916,-149.26,-43.0966,65.3338,-8.98779,0,0,0,0,0,0,0,0,0,0,0,0,-1.5708,-0.785398,0,0,0,0,0,0,0,0,0,0,0,0,0,0,0,0,0,0,0,0,0,
0.000185408,-0.00231889,0.000197796,-0.00782318,-0.00227426,-1.5714,-0.785737,0.0690172,-0.203247,0.151007,-2.29318,-0.22172,0.368465,-0.159184,-7.16269,-13.5334,-19.7316,205.513,-9.77542,-69.3257,18.257,0,0,0,0,0,0,0,0,0,0,0,0,-1.5708,-0.785398,0,0,0,0,0,0,0,0,0,0,0,0,0,0,0,0,0,0,0,0,0,
0.000797225,-0.0044708,0.00173619,-0.0226845,-0.000660827,-1.57009,-0.787038,0.0705092,-0.216396,0.159266,-2.20608,-0.13704,0.327563,-0.159883,0.932495,-8.21763,5.16155,54.4395,52.9248,-25.5638,-0.436846,0,0,0,0,0,0,0,0,0,0,0,0,-1.5708,-0.785398,0,0,0,0,0,0,0,0,0,0,0,0,0,0,0,0,0,0,0,0,0,
0.00161656,-0.00627319,0.00349636,-0.0433508,-0.000688566,-1.56678,-0.788659,0.0768907,-0.218176,0.171417,-2.28152,-0.110325,0.344666,-0.168426,3.98842,-1.113,7.5944,-47.152,16.6966,10.6894,-5.33944,0,0,0,0,0,0,0,0,0,0,0,0,-1.5708,-0.785398,0,0,0,0,0,0,0,0,0,0,0,0,0,0,0,0,0,0,0,0,0,
0.00236285,-0.00748314,0.00515306,-0.0685791,-0.00348322,-1.56154,-0.790405,0.0801697,-0.20479,0.178551,-2.45592,-0.158127,0.406691,-0.178395,2.04942,8.3666,4.45888,-109.002,-29.8758,38.7658,-6.23049,0,0,0,0,0,0,0,0,0,0,0,0,-1.5708,-0.785398,0,0,0,0,0,0,0,0,0,0,0,0,0,0,0,0,0,0,0,0,0,
0.000185408,-0.00231889,0.000197796,-0.00782318,-0.00227426,-1.5714,-0.785737,0.068771,-0.221804,0.147785,-2.16032,-0.183358,0.310309,-0.151184,-7.12422,-10.6339,-19.2283,184.753,-15.7694,-60.2388,17.007,0,0,0,0,0,0,0,0,0,0,0,0,-1.5708,-0.785398,0,0,0,0,0,0,0,0,0,0,0,0,0,0,0,0,0,0,0,0,0,
0.000797225,-0.0044708,0.00173619,-0.0226845,-0.000660827,-1.57009,-0.787038,0.0703122,-0.231241,0.156688,-2.09979,-0.10635,0.281038,-0.153483,0.963273,-5.89805,5.56424,37.8319,48.1296,-18.2943,-1.43689,0,0,0,0,0,0,0,0,0,0,0,0,-1.5708,-0.785398,0,0,0,0,0,0,0,0,0,0,0,0,0,0,0,0,0,0,0,0,0,
0.00161656,-0.00627319,0.00349636,-0.0433508,-0.000688566,-1.56678,-0.788659,0.0767331,-0.230053,0.169355,-2.19649,-0.0857739,0.307446,-0.163306,4.01304,0.742671,7.91655,-60.4381,12.8604,16.505,-6.13947,0,0,0,0,0,0,0,0,0,0,0,0,-1.5708,-0.785398,0,0,0,0,0,0,0,0,0,0,0,0,0,0,0,0,0,0,0,0,0,
0.00236285,-0.00748314,0.00515306,-0.0685791,-0.00348322,-1.56154,-0.790405,0.0800437,-0.214291,0.176901,-2.3879,-0.138486,0.376916,-0.174299,2.06912,9.85113,4.7166,-119.631,-32.9448,43.4183,-6.87051,0,0,0,0,0,0,0,0,0,0,0,0,-1.5708,-0.785398,0,0,0,0,0,0,0,0,0,0,0,0,0,0,0,0,0,0,0,0,0,
0.000185408,-0.00231889,0.000197796,-0.00782318,-0.00227426,-1.5714,-0.785737,0.0686701,-0.229405,0.146466,-2.1059,-0.167645,0.286489,-0.147907,-7.10846,-9.44627,-19.0221,176.25,-18.2246,-56.5168,16.495,0,0,0,0,0,0,0,0,0,0,0,0,-1.5708,-0.785398,0,0,0,0,0,0,0,0,0,0,0,0,0,0,0,0,0,0,0,0,0,
0.000797225,-0.0044708,0.00173619,-0.0226845,-0.000660827,-1.57009,-0.787038,0.0702315,-0.237322,0.155633,-2.05625,-0.0937801,0.261982,-0.150861,0.975879,-4.94794,5.72919,31.0294,46.1655,-15.3167,-1.8465,0,0,0,0,0,0,0,0,0,0,0,0,-1.5708,-0.785398,0,0,0,0,0,0,0,0,0,0,0,0,0,0,0,0,0,0,0,0,0,
0.00161656,-0.00627319,0.00349636,-0.0433508,-0.000688566,-1.56678,-0.788659,0.0766685,-0.234917,0.16851,-2.16166,-0.0757176,0.292201,-0.161209,4.02313,1.50275,8.0485,-65.8801,11.2891,18.8871,-6.46716,0,0,0,0,0,0,0,0,0,0,0,0,-1.5708,-0.785398,0,0,0,0,0,0,0,0,0,0,0,0,0,0,0,0,0,0,0,0,0,
0.00236285,-0.00748314,0.00515306,-0.0685791,-0.00348322,-1.56154,-0.790405,0.079992,-0.218182,0.176226,-2.36004,-0.13044,0.364719,-0.172621,2.07718,10.4592,4.82216,-123.985,-34.2018,45.3239,-7.13267,0,0,0,0,0,0,0,0,0,0,0,0,-1.5708,-0.785398,0,0,0,0,0,0,0,0,0,0,0,0,0,0,0,0,0,0,0,0,0,
0.000185408,-0.00231889,0.000197796,-0.00782318,-0.00227426,-1.5714,-0.785737,0.0686288,-0.232518,0.145925,-2.08361,-0.161209,0.276732,-0.146565,-7.10201,-8.95982,-18.9377,172.767,-19.2302,-54.9923,16.2852,0,0,0,0,0,0,0,0,0,0,0,0,-1.5708,-0.785398,0,0,0,0,0,0,0,0,0,0,0,0,0,0,0,0,0,0,0,0,0,
0.000797225,-0.0044708,0.00173619,-0.0226845,-0.000660827,-1.57009,-0.787038,0.0701985,-0.239812,0.1552,-2.03842,-0.0886313,0.254176,-0.149787,0.981043,-4.55878,5.79675,28.2431,45.361,-14.0971,-2.01428,0,0,0,0,0,0,0,0,0,0,0,0,-1.5708,-0.785398,0,0,0,0,0,0,0,0,0,0,0,0,0,0,0,0,0,0,0,0,0,
0.00161656,-0.00627319,0.00349636,-0.0433508,-0.000688566,-1.56678,-0.788659,0.0766421,-0.23691,0.168164,-2.14739,-0.0715985,0.285957,-0.16035,4.02726,1.81408,8.10255,-68.1092,10.6455,19.8628,-6.60139,0,0,0,0,0,0,0,0,0,0,0,0,-1.5708,-0.785398,0,0,0,0,0,0,0,0,0,0,0,0,0,0,0,0,0,0,0,0,0,
0.00236285,-0.00748314,0.00515306,-0.0685791,-0.00348322,-1.56154,-0.790405,0.0799709,-0.219776,0.175949,-2.34862,-0.127145,0.359724,-0.171934,2.08049,10.7083,4.8654,-125.768,-34.7167,46.1045,-7.24004,0,0,0,0,0,0,0,0,0,0,0,0,-1.5708,-0.785398,0,0,0,0,0,0,0,0,0,0,0,0,0,0,0,0,0,0,0,0,0,
0.00302083,-0.00786852,0.00679898,-0.0971972,-0.0073384,-1.55436,-0.792373,0.0804263,-0.185456,0.181907,-2.59435,-0.198096,0.467284,-0.18673,0.284619,21.4505,3.72391,-153.58,-44.344,67.2248,-9.24793,0,0,0,0,0,0,0,0,0,0,0,0,-1.5708,-0.785398,0,0,0,0,0,0,0,0,0,0,0,0,0,0,0,0,0,0,0,0,0,
0.000185408,-0.00231889,0.000197796,-0.00782318,-0.00227426,-1.5714,-0.785737,0.0689762,-0.206337,0.150471,-2.27106,-0.215333,0.358783,-0.157852,-7.15629,-13.0507,-19.6478,202.057,-10.7733,-67.8128,18.0489,0,0,0,0,0,0,0,0,0,0,0,0,-1.5708,-0.785398,0,0,0,0,0,0,0,0,0,0,0,0,0,0,0,0,0,0,0,0,0,
0.000797225,-0.0044708,0.00173619,-0.0226845,-0.000660827,-1.57009,-0.787038,0.0704764,-0.218867,0.158836,-2.18838,-0.131931,0.319817,-0.158817,0.937619,-7.83146,5.22859,51.6746,52.1265,-24.3535,-0.603337,0,0,0,0,0,0,0,0,0,0,0,0,-1.5708,-0.785398,0,0,0,0,0,0,0,0,0,0,0,0,0,0,0,0,0,0,0,0,0,
0.00161656,-0.00627319,0.00349636,-0.0433508,-0.000688566,-1.56678,-0.788659,0.0768644,-0.220154,0.171073,-2.26736,-0.106238,0.33847,-0.167574,3.99252,-0.80406,7.64803,-49.3639,16.0579,11.6576,-5.47263,0,0,0,0,0,0,0,0,0,0,0,0,-1.5708,-0.785398,0,0,0,0,0,0,0,0,0,0,0,0,0,0,0,0,0,0,0,0,0,
0.00236285,-0.00748314,0.00515306,-0.0685791,-0.00348322,-1.56154,-0.790405,0.0801487,-0.206372,0.178276,-2.4446,-0.154857,0.401734,-0.177713,2.0527,8.61375,4.50178,-110.772,-30.3868,39.5404,-6.33704,0,0,0,0,0,0,0,0,0,0,0,0,-1.5708,-0.785398,0,0,0,0,0,0,0,0,0,0,0,0,0,0,0,0,0,0,0,0,0,
0.000185408,-0.00231889,0.000197796,-0.00782318,-0.00227426,-1.5714,-0.785737,0.0687542,-0.223069,0.147566,-2.15126,-0.180742,0.306344,-0.150638,-7.1216,-10.4362,-19.194,183.338,-16.1782,-59.6192,16.9217,0,0,0,0,0,0,0,0,0,0,0,0,-1.5708,-0.785398,0,0,0,0,0,0,0,0,0,0,0,0,0,0,0,0,0,0,0,0,0,
0.000797225,-0.0044708,0.00173619,-0.0226845,-0.000660827,-1.57009,-0.787038,0.0702988,-0.232253,0.156513,-2.09254,-0.104258,0.277866,-0.153046,0.965372,-5.73987,5.5917,36.6994,47.8026,-17.7986,-1.50508,0,0,0,0,0,0,0,0,0,0,0,0,-1.5708,-0.785398,0,0,0,0,0,0,0,0,0,0,0,0,0,0,0,0,0,0,0,0,0,
0.00161656,-0.00627319,0.00349636,-0.0433508,-0.000688566,-1.56678,-0.788659,0.0767223,-0.230862,0.169214,-2.19069,-0.0840997,0.304908,-0.162957,4.01472,0.869213,7.93852,-61.3441,12.5988,16.9016,-6.19403,0,0,0,0,0,0,0,0,0,0,0,0,-1.5708,-0.785398,0,0,0,0,0,0,0,0,0,0,0,0,0,0,0,0,0,0,0,0,0,
0.00236285,-0.00748314,0.00515306,-0.0685791,-0.00348322,-1.56154,-0.790405,0.0800351,-0.214939,0.176789,-2.38326,-0.137146,0.374885,-0.174019,2.07046,9.95236,4.73417,-120.356,-33.1541,43.7355,-6.91416,0,0,0,0,0,0,0,0,0,0,0,0,-1.5708,-0.785398,0,0,0,0,0,0,0,0,0,0,0,0,0,0,0,0,0,0,0,0,0,
0.00302083,-0.00786852,0.00679898,-0.0971972,-0.0073384,-1.55436,-0.792373,0.0804776,-0.181585,0.182579,-2.62206,-0.206096,0.479413,-0.188399,0.276595,20.8458,3.61893,-149.25,-43.0939,65.3296,-8.98722,0,0,0,0,0,0,0,0,0,0,0,0,-1.5708,-0.785398,0,0,0,0,0,0,0,0,0,0,0,0,0,0,0,0,0,0,0,0,0,
0.000185408,-0.00231889,0.000197796,-0.00782318,-0.00227426,-1.5714,-0.785737,0.0690173,-0.203241,0.151008,-2.29323,-0.221734,0.368486,-0.159187,-7.16271,-13.5344,-19.7318,205.52,-9.77324,-69.329,18.2575,0,0,0,0,0,0,0,0,0,0,0,0,-1.5708,-0.785398,0,0,0,0,0,0,0,0,0,0,0,0,0,0,0,0,0,0,0,0,0,
0.000797225,-0.0044708,0.00173619,-0.0226845,-0.000660827,-1.57009,-0.787038,0.0705093,-0.21639,0.159266,-2.20611,-0.137051,0.32758,-0.159885,0.932484,-8.21848,5.16141,54.4456,52.9265,-25.5664,-0.436482,0,0,0,0,0,0,0,0,0,0,0,0,-1.5708,-0.785398,0,0,0,0,0,0,0,0,0,0,0,0,0,0,0,0,0,0,0,0,0,
0.00161656,-0.00627319,0.00349636,-0.0433508,-0.000688566,-1.56678,-0.788659,0.0768907,-0.218172,0.171417,-2.28155,-0.110334,0.34468,-0.168428,3.98841,-1.11368,7.59428,-47.1472,16.698,10.6873,-5.33914,0,0,0,0,0,0,0,0,0,0,0,0,-1.5708,-0.785398,0,0,0,0,0,0,0,0,0,0,0,0,0,0,0,0,0,0,0,0,0,
0.00236285,-0.00748314,0.00515306,-0.0685791,-0.00348322,-1.56154,-0.790405,0.0801698,-0.204786,0.178551,-2.45595,-0.158134,0.406702,-0.178396,2.04941,8.36605,4.45878,-108.999,-29.8747,38.7641,-6.23025,0,0,0,0,0,0,0,0,0,0,0,0,-1.5708,-0.785398,0,0,0,0,0,0,0,0,0,0,0,0,0,0,0,0,0,0,0,0,0,
0.000185408,-0.00231889,0.000197796,-0.00782318,-0.00227426,-1.5714,-0.785737,0.068771,-0.221801,0.147786,-2.16034,-0.183364,0.310318,-0.151185,-7.12423,-10.6343,-19.2284,184.756,-15.7685,-60.2402,17.0072,0,0,0,0,0,0,0,0,0,0,0,0,-1.5708,-0.785398,0,0,0,0,0,0,0,0,0,0,0,0,0,0,0,0,0,0,0,0,0,
0.000797225,-0.0044708,0.00173619,-0.0226845,-0.000660827,-1.57009,-0.787038,0.0703123,-0.231239,0.156689,-2.0998,-0.106355,0.281045,-0.153484,0.963268,-5.89839,5.56418,37.8344,48.1303,-18.2954,-1.43674,0,0,0,0,0,0,0,0,0,0,0,0,-1.5708,-0.785398,0,0,0,0,0,0,0,0,0,0,0,0,0,0,0,0,0,0,0,0,0,
0.00161656,-0.00627319,0.00349636,-0.0433508,-0.000688566,-1.56678,-0.788659,0.0767331,-0.230051,0.169355,-2.1965,-0.0857775,0.307452,-0.163307,4.01304,0.742394,7.9165,-60.4361,12.861,16.5042,-6.13935,0,0,0,0,0,0,0,0,0,0,0,0,-1.5708,-0.785398,0,0,0,0,0,0,0,0,0,0,0,0,0,0,0,0,0,0,0,0,0,
0.00236285,-0.00748314,0.00515306,-0.0685791,-0.00348322,-1.56154,-0.790405,0.0800437,-0.214289,0.176902,-2.38791,-0.138488,0.37692,-0.174299,2.06911,9.85091,4.71656,-119.63,-32.9443,43.4176,-6.87042,0,0,0,0,0,0,0,0,0,0,0,0,-1.5708,-0.785398,0,0,0,0,0,0,0,0,0,0,0,0,0,0,0,0,0,0,0,0,0,
0.000185408,-0.00231889,0.000197796,-0.00782318,-0.00227426,-1.5714,-0.785737,0.0686701,-0.229404,0.146466,-2.10591,-0.167647,0.286492,-0.147907,-7.10846,-9.44645,-19.0221,176.251,-18.2242,-56.5174,16.495,0,0,0,0,0,0,0,0,0,0,0,0,-1.5708,-0.785398,0,0,0,0,0,0,0,0,0,0,0,0,0,0,0,0,0,0,0,0,0,
0.000797225,-0.0044708,0.00173619,-0.0226845,-0.000660827,-1.57009,-0.787038,0.0702316,-0.237321,0.155633,-2.05626,-0.093782,0.261985,-0.150862,0.975877,-4.94808,5.72916,31.0304,46.1658,-15.3172,-1.84644,0,0,0,0,0,0,0,0,0,0,0,0,-1.5708,-0.785398,0,0,0,0,0,0,0,0,0,0,0,0,0,0,0,0,0,0,0,0,0,
0.00161656,-0.00627319,0.00349636,-0.0433508,-0.000688566,-1.56678,-0.788659,0.0766685,-0.234916,0.16851,-2.16166,-0.0757191,0.292203,-0.161209,4.02312,1.50264,8.04848,-65.8793,11.2893,18.8867,-6.46711,0,0,0,0,0,0,0,0,0,0,0,0,-1.5708,-0.785398,0,0,0,0,0,0,0,0,0,0,0,0,0,0,0,0,0,0,0,0,0,
0.00236285,-0.00748314,0.00515306,-0.0685791,-0.00348322,-1.56154,-0.790405,0.079992,-0.218182,0.176226,-2.36004,-0.130442,0.364721,-0.172621,2.07718,10.4591,4.82215,-123.984,-34.2016,45.3236,-7.13263,0,0,0,0,0,0,0,0,0,0,0,0,-1.5708,-0.785398,0,0,0,0,0,0,0,0,0,0,0,0,0,0,0,0,0,0,0,0,0,
0.000185408,-0.00231889,0.000197796,-0.00782318,-0.00227426,-1.5714,-0.785737,0.0686288,-0.232518,0.145926,-2.08361,-0.16121,0.276733,-0.146565,-7.10201,-8.95989,-18.9377,172.768,-19.2301,-54.9926,16.2853,0,0,0,0,0,0,0,0,0,0,0,0,-1.5708,-0.785398,0,0,0,0,0,0,0,0,0,0,0,0,0,0,0,0,0,0,0,0,0,
0.000797225,-0.0044708,0.00173619,-0.0226845,-0.000660827,-1.57009,-0.787038,0.0701985,-0.239812,0.1552,-2.03842,-0.0886321,0.254178,-0.149788,0.981042,-4.55884,5.79674,28.2435,45.3611,-14.0973,-2.01426,0,0,0,0,0,0,0,0,0,0,0,0,-1.5708,-0.785398,0,0,0,0,0,0,0,0,0,0,0,0,0,0,0,0,0,0,0,0,0,
0.00161656,-0.00627319,0.00349636,-0.0433508,-0.000688566,-1.56678,-0.788659,0.0766421,-0.236909,0.168164,-2.1474,-0.0715991,0.285958,-0.16035,4.02726,1.81404,8.10254,-68.1088,10.6456,19.8626,-6.60137,0,0,0,0,0,0,0,0,0,0,0,0,-1.5708,-0.785398,0,0,0,0,0,0,0,0,0,0,0,0,0,0,0,0,0,0,0,0,0,
0.00236285,-0.00748314,0.00515306,-0.0685791,-0.00348322,-1.56154,-0.790405,0.0799709,-0.219776,0.175949,-2.34862,-0.127146,0.359725,-0.171934,2.08049,10.7082,4.86539,-125.768,-34.7166,46.1044,-7.24003,0,0,0,0,0,0,0,0,0,0,0,0,-1.5708,-0.785398,0,0,0,0,0,0,0,0,0,0,0,0,0,0,0,0,0,0,0,0,0,
0.00302083,-0.00786852,0.00679898,-0.0971972,-0.0073384,-1.55436,-0.792373,0.0804263,-0.185455,0.181907,-2.59435,-0.198096,0.467284,-0.18673,0.284618,21.4505,3.7239,-153.58,-44.3439,67.2247,-9.24792,0,0,0,0,0,0,0,0,0,0,0,0,-1.5708,-0.785398,0,0,0,0,0,0,0,0,0,0,0,0,0,0,0,0,0,0,0,0,0,
0.000185408,-0.00231889,0.000197796,-0.00782318,-0.00227426,-1.5714,-0.785737,0.0689762,-0.206337,0.150471,-2.27106,-0.215333,0.358784,-0.157852,-7.15629,-13.0507,-19.6478,202.057,-10.7733,-67.8129,18.0489,0,0,0,0,0,0,0,0,0,0,0,0,-1.5708,-0.785398,0,0,0,0,0,0,0,0,0,0,0,0,0,0,0,0,0,0,0,0,0,
0.000797225,-0.0044708,0.00173619,-0.0226845,-0.000660827,-1.57009,-0.787038,0.0704764,-0.218867,0.158836,-2.18838,-0.131931,0.319818,-0.158817,0.937619,-7.83148,5.22859,51.6748,52.1265,-24.3536,-0.603328,0,0,0,0,0,0,0,0,0,0,0,0,-1.5708,-0.785398,0,0,0,0,0,0,0,0,0,0,0,0,0,0,0,0,0,0,0,0,0,
0.00161656,-0.00627319,0.00349636,-0.0433508,-0.000688566,-1.56678,-0.788659,0.0768644,-0.220153,0.171073,-2.26736,-0.106238,0.33847,-0.167574,3.99252,-0.804075,7.64803,-49.3638,16.0579,11.6576,-5.47262,0,0,0,0,0,0,0,0,0,0,0,0,-1.5708,-0.785398,0,0,0,0,0,0,0,0,0,0,0,0,0,0,0,0,0,0,0,0,0,
0.00236285,-0.00748314,0.00515306,-0.0685791,-0.00348322,-1.56154,-0.790405,0.0801487,-0.206371,0.178276,-2.4446,-0.154857,0.401734,-0.177713,2.0527,8.61373,4.50178,-110.772,-30.3867,39.5403,-6.33703,0,0,0,0,0,0,0,0,0,0,0,0,-1.5708,-0.785398,0,0,0,0,0,0,0,0,0,0,0,0,0,0,0,0,0,0,0,0,0,
0.000185408,-0.00231889,0.000197796,-0.00782318,-0.00227426,-1.5714,-0.785737,0.0687542,-0.223069,0.147566,-2.15126,-0.180742,0.306344,-0.150638,-7.1216,-10.4362,-19.194,183.338,-16.1782,-59.6192,16.9217,0,0,0,0,0,0,0,0,0,0,0,0,-1.5708,-0.785398,0,0,0,0,0,0,0,0,0,0,0,0,0,0,0,0,0,0,0,0,0,
0.000797225,-0.0044708,0.00173619,-0.0226845,-0.000660827,-1.57009,-0.787038,0.0702988,-0.232253,0.156513,-2.09254,-0.104258,0.277866,-0.153046,0.965371,-5.73988,5.5917,36.6994,47.8026,-17.7986,-1.50508,0,0,0,0,0,0,0,0,0,0,0,0,-1.5708,-0.785398,0,0,0,0,0,0,0,0,0,0,0,0,0,0,0,0,0,0,0,0,0,
0.00161656,-0.00627319,0.00349636,-0.0433508,-0.000688566,-1.56678,-0.788659,0.0767223,-0.230862,0.169214,-2.19069,-0.0840997,0.304908,-0.162957,4.01472,0.869206,7.93852,-61.3441,12.5988,16.9016,-6.19402,0,0,0,0,0,0,0,0,0,0,0,0,-1.5708,-0.785398,0,0,0,0,0,0,0,0,0,0,0,0,0,0,0,0,0,0,0,0,0,
0.00236285,-0.00748314,0.00515306,-0.0685791,-0.00348322,-1.56154,-0.790405,0.0800351,-0.214939,0.176789,-2.38326,-0.137146,0.374885,-0.174019,2.07046,9.95236,4.73417,-120.356,-33.154,43.7355,-6.91415,0,0,0,0,0,0,0,0,0,0,0,0,-1.5708,-0.785398,0,0,0,0,0,0,0,0,0,0,0,0,0,0,0,0,0,0,0,0,0,
0.000185408,-0.00231889,0.000197796,-0.00782318,-0.00227426,-1.5714,-0.785737,0.0686633,-0.229923,0.146376,-2.10219,-0.166573,0.284864,-0.147683,-7.10739,-9.36529,-19.008,175.67,-18.392,-56.2631,16.46,0,0,0,0,0,0,0,0,0,0,0,0,-1.5708,-0.785398,0,0,0,0,0,0,0,0,0,0,0,0,0,0,0,0,0,0,0,0,0,
0.000797225,-0.0044708,0.00173619,-0.0226845,-0.000660827,-1.57009,-0.787038,0.070226,-0.237736,0.155561,-2.05328,-0.092923,0.260682,-0.150682,0.976739,-4.88316,5.74043,30.5655,46.0315,-15.1137,-1.87444,0,0,0,0,0,0,0,0,0,0,0,0,-1.5708,-0.785398,0,0,0,0,0,0,0,0,0,0,0,0,0,0,0,0,0,0,0,0,0,
0.00161656,-0.00627319,0.00349636,-0.0433508,-0.000688566,-1.56678,-0.788659,0.0766641,-0.235249,0.168453,-2.15928,-0.0750319,0.291162,-0.161066,4.02381,1.55458,8.0575,-66.2512,11.1819,19.0495,-6.48951,0,0,0,0,0,0,0,0,0,0,0,0,-1.5708,-0.785398,0,0,0,0,0,0,0,0,0,0,0,0,0,0,0,0,0,0,0,0,0,
0.00236285,-0.00748314,0.00515306,-0.0685791,-0.00348322,-1.56154,-0.790405,0.0799885,-0.218448,0.17618,-2.35814,-0.129892,0.363888,-0.172506,2.07773,10.5007,4.82936,-124.282,-34.2875,45.4539,-7.15054,0,0,0,0,0,0,0,0,0,0,0,0,-1.5708,-0.785398,0,0,0,0,0,0,0,0,0,0,0,0,0,0,0,0,0,0,0,0,0,
0.00302083,-0.00786852,0.00679898,-0.0971972,-0.0073384,-1.55436,-0.792373,0.0804404,-0.184393,0.182092,-2.60196,-0.200293,0.470615,-0.187189,0.282415,21.2844,3.69508,-152.391,-44.0006,66.7043,-9.17633,0,0,0,0,0,0,0,0,0,0,0,0,-1.5708,-0.785398,0,0,0,0,0,0,0,0,0,0,0,0,0,0,0,0,0,0,0,0,0,
0.000185408,-0.00231889,0.000197796,-0.00782318,-0.00227426,-1.5714,-0.785737,0.0689875,-0.205486,0.150618,-2.27715,-0.217091,0.361448,-0.158219,-7.15805,-13.1835,-19.6709,203.008,-10.4987,-68.2292,18.1062,0,0,0,0,0,0,0,0,0,0,0,0,-1.5708,-0.785398,0,0,0,0,0,0,0,0,0,0,0,0,0,0,0,0,0,0,0,0,0,
0.000797225,-0.0044708,0.00173619,-0.0226845,-0.000660827,-1.57009,-0.787038,0.0704854,-0.218187,0.158955,-2.19325,-0.133337,0.321949,-0.159111,0.936209,-7.93775,5.21014,52.4356,52.3462,-24.6867,-0.557511,0,0,0,0,0,0,0,0,0,0,0,0,-1.5708,-0.785398,0,0,0,0,0,0,0,0,0,0,0,0,0,0,0,0,0,0,0,0,0,
0.00161656,-0.00627319,0.00349636,-0.0433508,-0.000688566,-1.56678,-0.788659,0.0768717,-0.219609,0.171168,-2.27126,-0.107363,0.340175,-0.167808,3.99139,-0.889093,7.63327,-48.7551,16.2337,11.3912,-5.43597,0,0,0,0,0,0,0,0,0,0,0,0,-1.5708,-0.785398,0,0,0,0,0,0,0,0,0,0,0,0,0,0,0,0,0,0,0,0,0,
0.00236285,-0.00748314,0.00515306,-0.0685791,-0.00348322,-1.56154,-0.790405,0.0801545,-0.205936,0.178352,-2.44772,-0.155757,0.403099,-0.177901,2.05179,8.54572,4.48997,-110.285,-30.2461,39.3272,-6.30771,0,0,0,0,0,0,0,0,0,0,0,0,-1.5708,-0.785398,0,0,0,0,0,0,0,0,0,0,0,0,0,0,0,0,0,0,0,0,0,
0.000185408,-0.00231889,0.000197796,-0.00782318,-0.00227426,-1.5714,-0.785737,0.0687588,-0.222721,0.147626,-2.15375,-0.181462,0.307435,-0.150788,-7.12232,-10.4906,-19.2034,183.727,-16.0657,-59.7897,16.9452,0,0,0,0,0,0,0,0,0,0,0,0,-1.5708,-0.785398,0,0,0,0,0,0,0,0,0,0,0,0,0,0,0,0,0,0,0,0,0,
0.000797225,-0.0044708,0.00173619,-0.0226845,-0.000660827,-1.57009,-0.787038,0.0703025,-0.231975,0.156561,-2.09453,-0.104834,0.278739,-0.153166,0.964794,-5.78341,5.58415,37.0111,47.8926,-17.935,-1.48631,0,0,0,0,0,0,0,0,0,0,0,0,-1.5708,-0.785398,0,0,0,0,0,0,0,0,0,0,0,0,0,0,0,0,0,0,0,0,0,
0.00161656,-0.00627319,0.00349636,-0.0433508,-0.000688566,-1.56678,-0.788659,0.0767253,-0.23064,0.169253,-2.19229,-0.0845605,0.305607,-0.163053,4.01426,0.834383,7.93247,-61.0948,12.6708,16.7924,-6.17901,0,0,0,0,0,0,0,0,0,0,0,0,-1.5708,-0.785398,0,0,0,0,0,0,0,0,0,0,0,0,0,0,0,0,0,0,0,0,0,
0.00236285,-0.00748314,0.00515306,-0.0685791,-0.00348322,-1.56154,-0.790405,0.0800374,-0.21476,0.17682,-2.38454,-0.137515,0.375444,-0.174096,2.07009,9.9245,4.72934,-120.157,-33.0965,43.6482,-6.90214,0,0,0,0,0,0,0,0,0,0,0,0,-1.5708,-0.785398,0,0,0,0,0,0,0,0,0,0,0,0,0,0,0,0,0,0,0,0,0,
0.000185408,-0.00231889,0.000197796,-0.00782318,-0.00227426,-1.5714,-0.785737,0.0686651,-0.229781,0.146401,-2.10321,-0.166868,0.285311,-0.147745,-7.10768,-9.38758,-19.0119,175.83,-18.3459,-56.3329,16.4696,0,0,0,0,0,0,0,0,0,0,0,0,-1.5708,-0.785398,0,0,0,0,0,0,0,0,0,0,0,0,0,0,0,0,0,0,0,0,0,
0.000797225,-0.0044708,0.00173619,-0.0226845,-0.000660827,-1.57009,-0.787038,0.0702276,-0.237622,0.15558,-2.0541,-0.0931589,0.26104,-0.150732,0.976502,-4.90099,5.73734,30.6932,46.0684,-15.1696,-1.86675,0,0,0,0,0,0,0,0,0,0,0,0,-1.5708,-0.785398,0,0,0,0,0,0,0,0,0,0,0,0,0,0,0,0,0,0,0,0,0,
0.00161656,-0.00627319,0.00349636,-0.0433508,-0.000688566,-1.56678,-0.788659,0.0766653,-0.235158,0.168469,-2.15994,-0.0752206,0.291448,-0.161105,4.02362,1.54032,8.05502,-66.1491,11.2114,19.0048,-6.48336,0,0,0,0,0,0,0,0,0,0,0,0,-1.5708,-0.785398,0,0,0,0,0,0,0,0,0,0,0,0,0,0,0,0,0,0,0,0,0,
0.00236285,-0.00748314,0.00515306,-0.0685791,-0.00348322,-1.56154,-0.790405,0.0799895,-0.218375,0.176192,-2.35866,-0.130043,0.364117,-0.172538,2.07758,10.4892,4.82738,-124.2,-34.2639,45.4181,-7.14562,0,0,0,0,0,0,0,0,0,0,0,0,-1.5708,-0.785398,0,0,0,0,0,0,0,0,0,0,0,0,0,0,0,0,0,0,0,0,0,
0.00302083,-0.00786852,0.00679898,-0.0971972,-0.0073384,-1.55436,-0.792373,0.0804412,-0.184334,0.182102,-2.60238,-0.200414,0.470798,-0.187214,0.282294,21.2753,3.69349,-152.326,-43.9818,66.6757,-9.17239,0,0,0,0,0,0,0,0,0,0,0,0,-1.5708,-0.785398,0,0,0,0,0,0,0,0,0,0,0,0,0,0,0,0,0,0,0,0,0,
0.000185408,-0.00231889,0.000197796,-0.00782318,-0.00227426,-1.5714,-0.785737,0.0689881,-0.20544,0.150626,-2.27748,-0.217187,0.361594,-0.158239,-7.15815,-13.1908,-19.6722,203.06,-10.4836,-68.2521,18.1093,0,0,0,0,0,0,0,0,0,0,0,0,-1.5708,-0.785398,0,0,0,0,0,0,0,0,0,0,0,0,0,0,0,0,0,0,0,0,0,
0.000797225,-0.0044708,0.00173619,-0.0226845,-0.000660827,-1.57009,-0.787038,0.0704859,-0.218149,0.158961,-2.19352,-0.133414,0.322066,-0.159127,0.936131,-7.94359,5.20913,52.4775,52.3583,-24.705,-0.554992,0,0,0,0,0,0,0,0,0,0,0,0,-1.5708,-0.785398,0,0,0,0,0,0,0,0,0,0,0,0,0,0,0,0,0,0,0,0,0,
0.00161656,-0.00627319,0.00349636,-0.0433508,-0.000688566,-1.56678,-0.788659,0.0768721,-0.219579,0.171173,-2.27147,-0.107425,0.340269,-0.167821,3.99133,-0.893767,7.63246,-48.7216,16.2433,11.3765,-5.43395,0,0,0,0,0,0,0,0,0,0,0,0,-1.5708,-0.785398,0,0,0,0,0,0,0,0,0,0,0,0,0,0,0,0,0,0,0,0,0,
0.00236285,-0.00748314,0.00515306,-0.0685791,-0.00348322,-1.56154,-0.790405,0.0801548,-0.205912,0.178356,-2.44789,-0.155806,0.403174,-0.177911,2.05175,8.54198,4.48932,-110.258,-30.2384,39.3155,-6.3061,0,0,0,0,0,0,0,0,0,0,0,0,-1.5708,-0.785398,0,0,0,0,0,0,0,0,0,0,0,0,0,0,0,0,0,0,0,0,0,
0.000185408,-0.00231889,0.000197796,-0.00782318,-0.00227426,-1.5714,-0.785737,0.0687591,-0.222702,0.14763,-2.15389,-0.181501,0.307495,-0.150797,-7.12236,-10.4936,-19.2039,183.749,-16.0595,-59.7991,16.9465,0,0,0,0,0,0,0,0,0,0,0,0,-1.5708,-0.785398,0,0,0,0,0,0,0,0,0,0,0,0,0,0,0,0,0,0,0,0,0,
0.000797225,-0.0044708,0.00173619,-0.0226845,-0.000660827,-1.57009,-0.787038,0.0703027,-0.231959,0.156564,-2.09464,-0.104865,0.278787,-0.153173,0.964762,-5.7858,5.58373,37.0282,47.8975,-17.9425,-1.48528,0,0,0,0,0,0,0,0,0,0,0,0,-1.5708,-0.785398,0,0,0,0,0,0,0,0,0,0,0,0,0,0,0,0,0,0,0,0,0,
0.00161656,-0.00627319,0.00349636,-0.0433508,-0.000688566,-1.56678,-0.788659,0.0767255,-0.230627,0.169255,-2.19237,-0.0845858,0.305645,-0.163058,4.01423,0.832469,7.93214,-61.0811,12.6748,16.7864,-6.17818,0,0,0,0,0,0,0,0,0,0,0,0,-1.5708,-0.785398,0,0,0,0,0,0,0,0,0,0,0,0,0,0,0,0,0,0,0,0,0,
0.00236285,-0.00748314,0.00515306,-0.0685791,-0.00348322,-1.56154,-0.790405,0.0800376,-0.214751,0.176821,-2.38461,-0.137535,0.375475,-0.1741,2.07007,9.92297,4.72907,-120.146,-33.0933,43.6434,-6.90148,0,0,0,0,0,0,0,0,0,0,0,0,-1.5708,-0.785398,0,0,0,0,0,0,0,0,0,0,0,0,0,0,0,0,0,0,0,0,0,
0.000185408,-0.00231889,0.000197796,-0.00782318,-0.00227426,-1.5714,-0.785737,0.0686653,-0.229773,0.146402,-2.10326,-0.166884,0.285336,-0.147748,-7.1077,-9.3888,-19.0121,175.839,-18.3434,-56.3367,16.4702,0,0,0,0,0,0,0,0,0,0,0,0,-1.5708,-0.785398,0,0,0,0,0,0,0,0,0,0,0,0,0,0,0,0,0,0,0,0,0,
0.000797225,-0.0044708,0.00173619,-0.0226845,-0.000660827,-1.57009,-0.787038,0.0702276,-0.237616,0.155582,-2.05414,-0.0931718,0.26106,-0.150734,0.976489,-4.90197,5.73717,30.7002,46.0704,-15.1727,-1.86633,0,0,0,0,0,0,0,0,0,0,0,0,-1.5708,-0.785398,0,0,0,0,0,0,0,0,0,0,0,0,0,0,0,0,0,0,0,0,0,
0.00161656,-0.00627319,0.00349636,-0.0433508,-0.000688566,-1.56678,-0.788659,0.0766654,-0.235153,0.168469,-2.15997,-0.0752309,0.291463,-0.161107,4.02361,1.53953,8.05489,-66.1435,11.2131,19.0023,-6.48302,0,0,0,0,0,0,0,0,0,0,0,0,-1.5708,-0.785398,0,0,0,0,0,0,0,0,0,0,0,0,0,0,0,0,0,0,0,0,0,
0.00236285,-0.00748314,0.00515306,-0.0685791,-0.00348322,-1.56154,-0.790405,0.0799895,-0.218371,0.176193,-2.35869,-0.130051,0.364129,-0.17254,2.07757,10.4886,4.82727,-124.196,-34.2626,45.4161,-7.14535,0,0,0,0,0,0,0,0,0,0,0,0,-1.5708,-0.785398,0,0,0,0,0,0,0,0,0,0,0,0,0,0,0,0,0,0,0,0,0,
0.00302083,-0.00786852,0.00679898,-0.0971972,-0.0073384,-1.55436,-0.792373,0.0804412,-0.184331,0.182102,-2.6024,-0.20042,0.470808,-0.187215,0.282287,21.2748,3.6934,-152.322,-43.9807,66.6741,-9.17218,0,0,0,0,0,0,0,0,0,0,0,0,-1.5708,-0.785398,0,0,0,0,0,0,0,0,0,0,0,0,0,0,0,0,0,0,0,0,0,
0.000185408,-0.00231889,0.000197796,-0.00782318,-0.00227426,-1.5714,-0.785737,0.0689882,-0.205437,0.150627,-2.2775,-0.217193,0.361602,-0.15824,-7.15815,-13.1912,-19.6722,203.063,-10.4827,-68.2534,18.1095,0,0,0,0,0,0,0,0,0,0,0,0,-1.5708,-0.785398,0,0,0,0,0,0,0,0,0,0,0,0,0,0,0,0,0,0,0,0,0,
0.000797225,-0.0044708,0.00173619,-0.0226845,-0.000660827,-1.57009,-0.787038,0.070486,-0.218147,0.158961,-2.19353,-0.133418,0.322073,-0.159128,0.936127,-7.94392,5.20907,52.4798,52.3589,-24.706,-0.554854,0,0,0,0,0,0,0,0,0,0,0,0,-1.5708,-0.785398,0,0,0,0,0,0,0,0,0,0,0,0,0,0,0,0,0,0,0,0,0,
0.00161656,-0.00627319,0.00349636,-0.0433508,-0.000688566,-1.56678,-0.788659,0.0768721,-0.219578,0.171173,-2.27149,-0.107428,0.340274,-0.167822,3.99132,-0.894024,7.63241,-48.7198,16.2439,11.3757,-5.43384,0,0,0,0,0,0,0,0,0,0,0,0,-1.5708,-0.785398,0,0,0,0,0,0,0,0,0,0,0,0,0,0,0,0,0,0,0,0,0,
0.00236285,-0.00748314,0.00515306,-0.0685791,-0.00348322,-1.56154,-0.790405,0.0801549,-0.205911,0.178356,-2.4479,-0.155809,0.403178,-0.177911,2.05174,8.54178,4.48929,-110.257,-30.238,39.3148,-6.30601,0,0,0,0,0,0,0,0,0,0,0,0,-1.5708,-0.785398,0,0,0,0,0,0,0,0,0,0,0,0,0,0,0,0,0,0,0,0,0,
0.000185408,-0.00231889,0.000197796,-0.00782318,-0.00227426,-1.5714,-0.785737,0.0687591,-0.222701,0.14763,-2.1539,-0.181504,0.307498,-0.150797,-7.12236,-10.4938,-19.204,183.75,-16.0592,-59.7996,16.9466,0,0,0,0,0,0,0,0,0,0,0,0,-1.5708,-0.785398,0,0,0,0,0,0,0,0,0,0,0,0,0,0,0,0,0,0,0,0,0,
0.000797225,-0.0044708,0.00173619,-0.0226845,-0.000660827,-1.57009,-0.787038,0.0703027,-0.231958,0.156564,-2.09465,-0.104867,0.27879,-0.153173,0.96476,-5.78593,5.58371,37.0292,47.8978,-17.943,-1.48522,0,0,0,0,0,0,0,0,0,0,0,0,-1.5708,-0.785398,0,0,0,0,0,0,0,0,0,0,0,0,0,0,0,0,0,0,0,0,0,
0.00161656,-0.00627319,0.00349636,-0.0433508,-0.000688566,-1.56678,-0.788659,0.0767255,-0.230627,0.169255,-2.19238,-0.0845872,0.305647,-0.163058,4.01423,0.832363,7.93212,-61.0803,12.675,16.7861,-6.17814,0,0,0,0,0,0,0,0,0,0,0,0,-1.5708,-0.785398,0,0,0,0,0,0,0,0,0,0,0,0,0,0,0,0,0,0,0,0,0,
0.00236285,-0.00748314,0.00515306,-0.0685791,-0.00348322,-1.56154,-0.790405,0.0800376,-0.21475,0.176822,-2.38461,-0.137536,0.375476,-0.174101,2.07007,9.92288,4.72906,-120.145,-33.0931,43.6431,-6.90145,0,0,0,0,0,0,0,0,0,0,0,0,-1.5708,-0.785398,0,0,0,0,0,0,0,0,0,0,0,0,0,0,0,0,0,0,0,0,0,
0.000185408,-0.00231889,0.000197796,-0.00782318,-0.00227426,-1.5714,-0.785737,0.0686653,-0.229772,0.146402,-2.10327,-0.166885,0.285337,-0.147748,-7.1077,-9.38887,-19.0121,175.839,-18.3433,-56.3369,16.4702,0,0,0,0,0,0,0,0,0,0,0,0,-1.5708,-0.785398,0,0,0,0,0,0,0,0,0,0,0,0,0,0,0,0,0,0,0,0,0,
0.000797225,-0.0044708,0.00173619,-0.0226845,-0.000660827,-1.57009,-0.787038,0.0702276,-0.237615,0.155582,-2.05415,-0.0931725,0.261061,-0.150734,0.976489,-4.90202,5.73716,30.7006,46.0705,-15.1728,-1.8663,0,0,0,0,0,0,0,0,0,0,0,0,-1.5708,-0.785398,0,0,0,0,0,0,0,0,0,0,0,0,0,0,0,0,0,0,0,0,0,
0.00161656,-0.00627319,0.00349636,-0.0433508,-0.000688566,-1.56678,-0.788659,0.0766654,-0.235152,0.168469,-2.15998,-0.0752315,0.291464,-0.161107,4.02361,1.53949,8.05488,-66.1432,11.2131,19.0022,-6.483,0,0,0,0,0,0,0,0,0,0,0,0,-1.5708,-0.785398,0,0,0,0,0,0,0,0,0,0,0,0,0,0,0,0,0,0,0,0,0,
0.00236285,-0.00748314,0.00515306,-0.0685791,-0.00348322,-1.56154,-0.790405,0.0799895,-0.218371,0.176193,-2.35869,-0.130052,0.36413,-0.17254,2.07757,10.4886,4.82726,-124.195,-34.2626,45.416,-7.14534,0,0,0,0,0,0,0,0,0,0,0,0,-1.5708,-0.785398,0,0,0,0,0,0,0,0,0,0,0,0,0,0,0,0,0,0,0,0,0,
0.00302083,-0.00786852,0.00679898,-0.0971972,-0.0073384,-1.55436,-0.792373,0.0804412,-0.184331,0.182102,-2.6024,-0.200421,0.470808,-0.187215,0.282287,21.2748,3.6934,-152.322,-43.9807,66.674,-9.17217,0,0,0,0,0,0,0,0,0,0,0,0,-1.5708,-0.785398,0,0,0,0,0,0,0,0,0,0,0,0,0,0,0,0,0,0,0,0,0,
0.000185408,-0.00231889,0.000197796,-0.00782318,-0.00227426,-1.5714,-0.785737,0.0689882,-0.205437,0.150627,-2.2775,-0.217193,0.361603,-0.15824,-7.15815,-13.1913,-19.6723,203.063,-10.4827,-68.2534,18.1095,0,0,0,0,0,0,0,0,0,0,0,0,-1.5708,-0.785398,0,0,0,0,0,0,0,0,0,0,0,0,0,0,0,0,0,0,0,0,0,
0.000797225,-0.0044708,0.00173619,-0.0226845,-0.000660827,-1.57009,-0.787038,0.070486,-0.218147,0.158961,-2.19353,-0.133419,0.322073,-0.159128,0.936127,-7.94393,5.20907,52.4799,52.359,-24.706,-0.554846,0,0,0,0,0,0,0,0,0,0,0,0,-1.5708,-0.785398,0,0,0,0,0,0,0,0,0,0,0,0,0,0,0,0,0,0,0,0,0,
0.00161656,-0.00627319,0.00349636,-0.0433508,-0.000688566,-1.56678,-0.788659,0.0768721,-0.219578,0.171173,-2.27149,-0.107428,0.340274,-0.167822,3.99132,-0.894038,7.63241,-48.7197,16.2439,11.3757,-5.43384,0,0,0,0,0,0,0,0,0,0,0,0,-1.5708,-0.785398,0,0,0,0,0,0,0,0,0,0,0,0,0,0,0,0,0,0,0,0,0,
0.00236285,-0.00748314,0.00515306,-0.0685791,-0.00348322,-1.56154,-0.790405,0.0801549,-0.205911,0.178356,-2.4479,-0.155809,0.403178,-0.177912,2.05174,8.54176,4.48929,-110.257,-30.238,39.3148,-6.30601,0,0,0,0,0,0,0,0,0,0,0,0,-1.5708,-0.785398,0,0,0,0,0,0,0,0,0,0,0,0,0,0,0,0,0,0,0,0,0,
0.000185408,-0.00231889,0.000197796,-0.00782318,-0.00227426,-1.5714,-0.785737,0.0687591,-0.222701,0.14763,-2.1539,-0.181504,0.307499,-0.150797,-7.12236,-10.4938,-19.204,183.75,-16.0591,-59.7996,16.9466,0,0,0,0,0,0,0,0,0,0,0,0,-1.5708,-0.785398,0,0,0,0,0,0,0,0,0,0,0,0,0,0,0,0,0,0,0,0,0,
0.000797225,-0.0044708,0.00173619,-0.0226845,-0.000660827,-1.57009,-0.787038,0.0703027,-0.231958,0.156564,-2.09465,-0.104867,0.27879,-0.153173,0.96476,-5.78594,5.58371,37.0292,47.8978,-17.943,-1.48522,0,0,0,0,0,0,0,0,0,0,0,0,-1.5708,-0.785398,0,0,0,0,0,0,0,0,0,0,0,0,0,0,0,0,0,0,0,0,0,
0.00161656,-0.00627319,0.00349636,-0.0433508,-0.000688566,-1.56678,-0.788659,0.0767255,-0.230627,0.169255,-2.19238,-0.0845873,0.305648,-0.163058,4.01423,0.832358,7.93212,-61.0803,12.675,16.7861,-6.17814,0,0,0,0,0,0,0,0,0,0,0,0,-1.5708,-0.785398,0,0,0,0,0,0,0,0,0,0,0,0,0,0,0,0,0,0,0,0,0,
0.00236285,-0.00748314,0.00515306,-0.0685791,-0.00348322,-1.56154,-0.790405,0.0800376,-0.21475,0.176822,-2.38461,-0.137536,0.375477,-0.174101,2.07007,9.92288,4.72905,-120.145,-33.0931,43.6431,-6.90144,0,0,0,0,0,0,0,0,0,0,0,0,-1.5708,-0.785398,0,0,0,0,0,0,0,0,0,0,0,0,0,0,0,0,0,0,0,0,0,
0.00302083,-0.00786852,0.00679898,-0.0971972,-0.0073384,-1.55436,-0.792373,0.0804796,-0.181435,0.182605,-2.62314,-0.206408,0.479886,-0.188464,0.276282,20.8222,3.61483,-149.082,-43.0451,65.2557,-8.97705,0,0,0,0,0,0,0,0,0,0,0,0,-1.5708,-0.785398,0,0,0,0,0,0,0,0,0,0,0,0,0,0,0,0,0,0,0,0,0,
0.000185408,-0.00231889,0.000197796,-0.00782318,-0.00227426,-1.5714,-0.785737,0.0690189,-0.20312,0.151029,-2.29409,-0.221983,0.368865,-0.159239,-7.16296,-13.5533,-19.7351,205.655,-9.73423,-69.3881,18.2656,0,0,0,0,0,0,0,0,0,0,0,0,-1.5708,-0.785398,0,0,0,0,0,0,0,0,0,0,0,0,0,0,0,0,0,0,0,0,0,
0.000797225,-0.0044708,0.00173619,-0.0226845,-0.000660827,-1.57009,-0.787038,0.0705106,-0.216294,0.159283,-2.20681,-0.137251,0.327883,-0.159927,0.932283,-8.23357,5.15879,54.5537,52.9577,-25.6137,-0.429973,0,0,0,0,0,0,0,0,0,0,0,0,-1.5708,-0.785398,0,0,0,0,0,0,0,0,0,0,0,0,0,0,0,0,0,0,0,0,0,
0.00161656,-0.00627319,0.00349636,-0.0433508,-0.000688566,-1.56678,-0.788659,0.0768918,-0.218095,0.171431,-2.2821,-0.110494,0.344922,-0.168461,3.98825,-1.12575,7.59218,-47.0607,16.7229,10.6495,-5.33394,0,0,0,0,0,0,0,0,0,0,0,0,-1.5708,-0.785398,0,0,0,0,0,0,0,0,0,0,0,0,0,0,0,0,0,0,0,0,0,
0.00236285,-0.00748314,0.00515306,-0.0685791,-0.00348322,-1.56154,-0.790405,0.0801706,-0.204724,0.178562,-2.45639,-0.158262,0.406896,-0.178423,2.04928,8.35639,4.45711,-108.929,-29.8548,38.7338,-6.22609,0,0,0,0,0,0,0,0,0,0,0,0,-1.5708,-0.785398,0,0,0,0,0,0,0,0,0,0,0,0,0,0,0,0,0,0,0,0,0,
0.000185408,-0.00231889,0.000197796,-0.00782318,-0.00227426,-1.5714,-0.785737,0.0687717,-0.221752,0.147795,-2.16069,-0.183466,0.310473,-0.151206,-7.12433,-10.6421,-19.2297,184.812,-15.7526,-60.2644,17.0105,0,0,0,0,0,0,0,0,0,0,0,0,-1.5708,-0.785398,0,0,0,0,0,0,0,0,0,0,0,0,0,0,0,0,0,0,0,0,0,
0.000797225,-0.0044708,0.00173619,-0.0226845,-0.000660827,-1.57009,-0.787038,0.0703128,-0.231199,0.156696,-2.10009,-0.106437,0.281169,-0.153501,0.963186,-5.90458,5.56311,37.8786,48.1431,-18.3148,-1.43407,0,0,0,0,0,0,0,0,0,0,0,0,-1.5708,-0.785398,0,0,0,0,0,0,0,0,0,0,0,0,0,0,0,0,0,0,0,0,0,
0.00161656,-0.00627319,0.00349636,-0.0433508,-0.000688566,-1.56678,-0.788659,0.0767335,-0.230019,0.169361,-2.19673,-0.085843,0.307551,-0.16332,4.01297,0.737448,7.91564,-60.4007,12.8712,16.4886,-6.13722,0,0,0,0,0,0,0,0,0,0,0,0,-1.5708,-0.785398,0,0,0,0,0,0,0,0,0,0,0,0,0,0,0,0,0,0,0,0,0,
0.00236285,-0.00748314,0.00515306,-0.0685791,-0.00348322,-1.56154,-0.790405,0.080044,-0.214264,0.176906,-2.38809,-0.138541,0.376999,-0.17431,2.06906,9.84695,4.71587,-119.601,-32.9361,43.4052,-6.86871,0,0,0,0,0,0,0,0,0,0,0,0,-1.5708,-0.785398,0,0,0,0,0,0,0,0,0,0,0,0,0,0,0,0,0,0,0,0,0,
0.00302083,-0.00786852,0.00679898,-0.0971972,-0.0073384,-1.55436,-0.792373,0.0804848,-0.181046,0.182673,-2.62592,-0.207212,0.481104,-0.188632,0.275476,20.7615,3.60429,-148.647,-42.9195,65.0653,-8.95086,0,0,0,0,0,0,0,0,0,0,0,0,-1.5708,-0.785398,0,0,0,0,0,0,0,0,0,0,0,0,0,0,0,0,0,0,0,0,0,
0.000185408,-0.00231889,0.000197796,-0.00782318,-0.00227426,-1.5714,-0.785737,0.069023,-0.202809,0.151083,-2.29632,-0.222626,0.369839,-0.159373,-7.1636,-13.6019,-19.7435,206.003,-9.63377,-69.5404,18.2866,0,0,0,0,0,0,0,0,0,0,0,0,-1.5708,-0.785398,0,0,0,0,0,0,0,0,0,0,0,0,0,0,0,0,0,0,0,0,0,
0.000797225,-0.0044708,0.00173619,-0.0226845,-0.000660827,-1.57009,-0.787038,0.0705139,-0.216045,0.159326,-2.20859,-0.137765,0.328662,-0.160034,0.931768,-8.27245,5.15204,54.832,53.0381,-25.7356,-0.413213,0,0,0,0,0,0,0,0,0,0,0,0,-1.5708,-0.785398,0,0,0,0,0,0,0,0,0,0,0,0,0,0,0,0,0,0,0,0,0,
0.00161656,-0.00627319,0.00349636,-0.0433508,-0.000688566,-1.56678,-0.788659,0.0768944,-0.217896,0.171465,-2.28353,-0.110906,0.345546,-0.168547,3.98784,-1.15685,7.58678,-46.838,16.7872,10.552,-5.32053,0,0,0,0,0,0,0,0,0,0,0,0,-1.5708,-0.785398,0,0,0,0,0,0,0,0,0,0,0,0,0,0,0,0,0,0,0,0,0,
0.00236285,-0.00748314,0.00515306,-0.0685791,-0.00348322,-1.56154,-0.790405,0.0801727,-0.204565,0.17859,-2.45753,-0.158591,0.407395,-0.178492,2.04895,8.33151,4.45279,-108.751,-29.8033,38.6559,-6.21536,0,0,0,0,0,0,0,0,0,0,0,0,-1.5708,-0.785398,0,0,0,0,0,0,0,0,0,0,0,0,0,0,0,0,0,0,0,0,0,
0.000185408,-0.00231889,0.000197796,-0.00782318,-0.00227426,-1.5714,-0.785737,0.0687734,-0.221624,0.147817,-2.1616,-0.183729,0.310872,-0.151261,-7.12459,-10.662,-19.2332,184.954,-15.7114,-60.3268,17.0191,0,0,0,0,0,0,0,0,0,0,0,0,-1.5708,-0.785398,0,0,0,0,0,0,0,0,0,0,0,0,0,0,0,0,0,0,0,0,0,
0.000797225,-0.0044708,0.00173619,-0.0226845,-0.000660827,-1.57009,-0.787038,0.0703141,-0.231097,0.156713,-2.10082,-0.106648,0.281489,-0.153545,0.962975,-5.9205,5.56035,37.9926,48.176,-18.3647,-1.42721,0,0,0,0,0,0,0,0,0,0,0,0,-1.5708,-0.785398,0,0,0,0,0,0,0,0,0,0,0,0,0,0,0,0,0,0,0,0,0,
0.00161656,-0.00627319,0.00349636,-0.0433508,-0.000688566,-1.56678,-0.788659,0.0767346,-0.229938,0.169375,-2.19731,-0.0860115,0.307807,-0.163355,4.0128,0.724709,7.91343,-60.3095,12.8975,16.4487,-6.13173,0,0,0,0,0,0,0,0,0,0,0,0,-1.5708,-0.785398,0,0,0,0,0,0,0,0,0,0,0,0,0,0,0,0,0,0,0,0,0,
0.00236285,-0.00748314,0.00515306,-0.0685791,-0.00348322,-1.56154,-0.790405,0.0800449,-0.214199,0.176917,-2.38856,-0.138676,0.377204,-0.174338,2.06893,9.83676,4.7141,-119.528,-32.9151,43.3732,-6.86432,0,0,0,0,0,0,0,0,0,0,0,0,-1.5708,-0.785398,0,0,0,0,0,0,0,0,0,0,0,0,0,0,0,0,0,0,0,0,0,
