xiao-wang007/linearmpc_panda/paper_data/panda_torque_PD_controller_error_match_to_start_torque_rate_limiter_low_pass_filter/2/trajectory.csv
Commanded Joint 0 Position,Commanded Joint 1 Position,Commanded Joint 2 Position,Commanded Joint 3 Position,Commanded Joint 4 Position,Commanded Joint 5 Position,Commanded Joint 6 Position,Commanded Joint 0 Velocity,Commanded Joint 1 Velocity,Commanded Joint 2 Velocity,Commanded Joint 3 Velocity,Commanded Joint 4 Velocity,Commanded Joint 5 Velocity,Commanded Joint 6 Velocity,Commanded Joint 0 Acceleration,Commanded Joint 1 Acceleration,Commanded Joint 2 Acceleration,Commanded Joint 3 Acceleration,Commanded Joint 4 Acceleration,Commanded Joint 5 Acceleration,Commanded Joint 6 Acceleration,Commanded Joint 0 Torque,Commanded Joint 1 Torque,Commanded Joint 2 Torque,Commanded Joint 3 Torque,Commanded Joint 4 Torque,Commanded Joint 5 Torque,Commanded Joint 6 Torque,Actual Joint 0 Position,Actual Joint 1 Position,Actual Joint 2 Position,Actual Joint 3 Position,Actual Joint 4 Position,Actual Joint 5 Position,Actual Joint 6 Position,Actual Joint 0 Velocity,Actual Joint 1 Velocity,Actual Joint 2 Velocity,Actual Joint 3 Velocity,Actual Joint 4 Velocity,Actual Joint 5 Velocity,Actual Joint 6 Velocity,Actual Joint 0 Acceleration,Actual Joint 1 Acceleration,Actual Joint 2 Acceleration,Actual Joint 3 Acceleration,Actual Joint 4 Acceleration,Actual Joint 5 Acceleration,Actual Joint 6 Acceleration,Actual Joint 0 Torque,Actual Joint 1 Torque,Actual Joint 2 Torque,Actual Joint 3 Torque,Actual Joint 4 Torque,Actual Joint 5 Torque,Actual Joint 6 Torque,
0.0267115,-0.0232034,-0.0258603,-1.7893,0.0115252,0.231749,0.0172534,0.00031203,0.0213396,0.000276824,-0.0331962,-0.00510967,0.0531304,-0.000381261,0.195019,13.3373,0.173015,-20.7476,-3.19355,33.2065,-0.238288,0.0567744,23.7683,0.0613274,-24.3572,-0.656751,1.92283,-0.0244875,0.0266928,-0.0245848,-0.0258729,-1.78609,0.0119104,0.226061,0.017299,0.000272908,0.00572652,0.000920899,-0.00230619,-0.00211077,0.000584003,-0.00114281,0,0,0,0,0,0,0,0.158268,-34.6452,-0.185533,26.9272,0.709225,3.23174,-0.0301054,
0.0266998,-0.0245021,-0.0258657,-1.78613,0.011889,0.226035,0.0172981,0.000289048,0.0175982,0.000261805,-0.0268405,-0.00419804,0.0422049,-0.00030819,-0.0143636,-2.3384,-0.00938726,3.97232,0.569768,-6.82841,0.0456693,0.0510158,24.2088,0.0509669,-24.2736,-0.656925,1.67198,-0.0229714,0.0266928,-0.0245848,-0.0258729,-1.78609,0.0119104,0.226061,0.017299,0.000272908,0.00572652,0.000920899,-0.00230619,-0.00211077,0.000584003,-0.00114281,0,0,0,0,0,0,0,0.158268,-34.6452,-0.185533,26.9272,0.709225,3.23174,-0.0301054,
0.026701,-0.0244855,-0.0258645,-1.78614,0.0118859,0.226023,0.017298,0.000259379,0.0144953,0.000238212,-0.0217044,-0.00343556,0.0334563,-0.000248752,-0.0185432,-1.93929,-0.0147451,3.21008,0.476555,-5.46789,0.0371488,0.0437945,24.7804,0.0392214,-24.1656,-0.656285,1.32445,-0.0210028,0.0266928,-0.0245848,-0.0258729,-1.78609,0.0119104,0.226061,0.017299,0.000272908,0.00572652,0.000920899,-0.00230619,-0.00211077,0.000584003,-0.00114281,0,0,0,0,0,0,0,0.158268,-34.6452,-0.185533,26.9272,0.709225,3.23174,-0.0301054,
0.0267018,-0.0244722,-0.0258637,-1.78614,0.0118837,0.226011,0.0172979,0.000227776,0.0119291,0.000211271,-0.0175528,-0.00280491,0.0264762,-0.000200588,-0.0197522,-1.60388,-0.0168385,2.59474,0.394154,-4.36256,0.0301021,0.0377907,25.3114,0.029665,-23.9969,-0.654038,0.940714,-0.0190088,0.0266967,-0.0243473,-0.0258741,-1.7862,0.0119055,0.226116,0.0173035,0.000997052,0.0137838,0.00295941,-0.0038147,-0.00602869,0.0103459,0.000213334,0.090518,1.00716,0.254813,-0.188564,-0.48974,1.22023,0.169518,0.134464,-33.7209,-0.137926,26.0068,0.557247,3.51739,-0.0703886,
0.0267201,-0.0238618,-0.0258519,-1.78679,0.0117179,0.226406,0.0173073,0.000765581,0.0216798,0.000725157,-0.0287238,-0.00693282,0.0284408,-6.60798e-05,0.336129,6.09422,0.321179,-6.98187,-2.57995,1.22787,0.0840679,-6.09328e-05,29.9319,0.00655317,-23.2615,-1.0532,-2.28635,0.000915541,0.0266967,-0.0243473,-0.0258741,-1.7862,0.0119055,0.226116,0.0173035,0.000997052,0.0137838,0.00295941,-0.0038147,-0.00602869,0.0103459,0.000213334,0,0,0,0,0,0,0,0.134464,-33.7209,-0.137926,26.0068,0.557247,3.51739,-0.0703886,
0.0266811,-0.023399,-0.0258883,-1.78704,0.0125379,0.225795,0.0172914,-0.000360915,0.0289151,-0.000330845,-0.0293448,0.0149531,0.00748102,-0.0004505,-0.70406,4.52204,-0.660001,-0.388143,13.6787,-13.0999,-0.240263,0.475151,0.19081,0.474082,-0.281811,3.22038,-1.90342,-0.00188034,0.0266967,-0.0243473,-0.0258741,-1.7862,0.0119055,0.226116,0.0173035,0.000997052,0.0137838,0.00295941,-0.0038147,-0.00602869,0.0103459,0.000213334,0,0,0,0,0,0,0,0.134464,-33.7209,-0.137926,26.0068,0.557247,3.51739,-0.0703886,
0.0266209,-0.0230278,-0.0259471,-1.78721,0.0139632,0.224775,0.0172812,-0.00179461,0.0324105,-0.00173534,-0.0276657,0.0475965,-0.0195264,-0.000615828,-0.896061,2.18463,-0.877809,1.04942,20.4021,-16.8796,-0.10333,0.470388,0.189562,0.469318,-0.278733,3.19274,-1.88734,-0.00183957,0.0266967,-0.0243473,-0.0258741,-1.7862,0.0119055,0.226116,0.0173035,0.000997052,0.0137838,0.00295941,-0.0038147,-0.00602869,0.0103459,0.000213334,0,0,0,0,0,0,0,0.134464,-33.7209,-0.137926,26.0068,0.557247,3.51739,-0.0703886,
0.0265595,-0.022739,-0.0260079,-1.78735,0.0157477,0.223533,0.0172752,-0.00297133,0.0331483,-0.0029078,-0.0254721,0.0826896,-0.0466521,-0.000640963,-0.735451,0.461118,-0.732788,1.371,21.9332,-16.9536,-0.0157094,0.464447,0.263891,0.46297,-0.275439,3.16715,-1.86266,-0.00184515,0.0266877,-0.0230277,-0.0258833,-1.78953,0.0118282,0.230829,0.0172982,9.43618e-05,0.0426454,-0.000728587,-0.178273,-0.000309705,0.129008,-0.00144571,-0.112836,3.6077,-0.460999,-21.8073,0.714873,14.8328,-0.207381,0.233646,-20.2718,-0.0387439,14.696,0.361325,0.606009,-0.0227812,
0.0267057,-0.0220832,-0.0258677,-1.79063,0.0115523,0.231006,0.0173052,-0.00192704,0.0501327,-0.00193607,-0.047901,0.0592551,-0.0328941,-0.000337564,0.652684,10.6152,0.607331,-14.0181,-14.6466,8.59873,0.189624,-0.00120995,30.0079,0.00501137,-23.2611,-1.05105,-2.27776,0.000872017,0.0266877,-0.0230277,-0.0258833,-1.78953,0.0118282,0.230829,0.0172982,9.43618e-05,0.0426454,-0.000728587,-0.178273,-0.000309705,0.129008,-0.00144571,0,0,0,0,0,0,0,0.233646,-20.2718,-0.0387439,14.696,0.361325,0.606009,-0.0227812,
0.0265846,-0.0211787,-0.0259807,-1.79098,0.0145124,0.228128,0.0172567,-0.00456833,0.062717,-0.00437472,-0.0470983,0.121404,-0.0982837,-0.00148335,-1.65081,7.86519,-1.52416,0.501699,38.8433,-40.8685,-0.716113,4.14483,0.956916,4.16856,-1.92673,10.9489,-9.15695,-0.00647711,0.0266877,-0.0230277,-0.0258833,-1.78953,0.0118282,0.230829,0.0172982,9.43618e-05,0.0426454,-0.000728587,-0.178273,-0.000309705,0.129008,-0.00144571,0,0,0,0,0,0,0,0.233646,-20.2718,-0.0387439,14.696,0.361325,0.606009,-0.0227812,
0.0264379,-0.0204753,-0.026122,-1.79119,0.0194454,0.223703,0.0172272,-0.00732094,0.0677588,-0.00703279,-0.0429207,0.220449,-0.189243,-0.0019243,-1.72038,3.15112,-1.66129,2.61099,61.9028,-56.8498,-0.2756,4.08743,1.03466,4.113,-1.85609,10.9489,-8.9562,-0.00549797,0.0266877,-0.0230277,-0.0258833,-1.78953,0.0118282,0.230829,0.0172982,9.43618e-05,0.0426454,-0.000728587,-0.178273,-0.000309705,0.129008,-0.00144571,0,0,0,0,0,0,0,0.233646,-20.2718,-0.0387439,14.696,0.361325,0.606009,-0.0227812,
0.0267057,-0.0220832,-0.0258677,-1.79063,0.0115523,0.231006,0.0173052,-0.00540672,0.077821,-0.00523606,-0.06186,0.169462,-0.146967,-0.00136424,1.19638,6.28892,1.12295,-11.837,-31.8665,26.4226,0.350042,-0.00120995,30.0079,0.00501137,-23.2611,-1.05105,-2.27776,0.000872017,0.0266877,-0.0230277,-0.0258833,-1.78953,0.0118282,0.230829,0.0172982,9.43618e-05,0.0426454,-0.000728587,-0.178273,-0.000309705,0.129008,-0.00144571,0,0,0,0,0,0,0,0.233646,-20.2718,-0.0387439,14.696,0.361325,0.606009,-0.0227812,
0.0270786,-0.0213668,-0.0254844,-1.79129,0.0135842,0.227125,0.017349,0.00499776,0.0801649,0.00539317,-0.0659241,0.186365,-0.214616,3.05648e-06,6.5028,1.46493,6.64327,-2.54008,10.5644,-42.2808,0.854559,28.7409,0.174359,28.9127,-12.3914,10.9325,-14.2195,0.058345,0.0266219,-0.0220616,-0.0259509,-1.79828,0.0161702,0.229759,0.0173004,-0.00202761,0.0344834,-0.00282286,-0.301477,0.132848,-0.0891833,-0.0013857,-0.265247,-1.02025,-0.261784,-15.4004,16.6447,-27.2739,0.00750163,1.01917,-28.607,0.687269,22.0712,0.898739,1.5609,-0.0429228,
0.0277494,-0.02085,-0.0247986,-1.79183,0.0172944,0.220762,0.0174105,0.0207696,0.0770527,0.0214592,-0.0662182,0.241848,-0.330767,0.00153967,9.85742,-1.94513,10.0413,-0.183799,34.6768,-72.5939,0.960381,27.5416,1.42121,27.7618,-10.5907,10.9325,-14.2195,0.0740755,0.0266219,-0.0220616,-0.0259509,-1.79828,0.0161702,0.229759,0.0173004,-0.00202761,0.0344834,-0.00282286,-0.301477,0.132848,-0.0891833,-0.0013857,0,0,0,0,0,0,0,1.01917,-28.607,0.687269,22.0712,0.898739,1.5609,-0.0429228,
0.028659,-0.0204771,-0.0238729,-1.79234,0.0222368,0.212799,0.0174859,0.0393549,0.0709639,0.0403113,-0.0657725,0.317038,-0.463676,0.00311639,11.6158,-3.80552,11.7826,0.278524,46.9934,-83.0684,0.985455,26.2865,1.42281,26.5149,-9.24374,10.9325,-14.2195,0.0885876,0.0266219,-0.0220616,-0.0259509,-1.79828,0.0161702,0.229759,0.0173004,-0.00202761,0.0344834,-0.00282286,-0.301477,0.132848,-0.0891833,-0.0013857,0,0,0,0,0,0,0,1.01917,-28.607,0.687269,22.0712,0.898739,1.5609,-0.0429228,
0.0266583,-0.0209542,-0.0259187,-1.79982,0.0164783,0.22829,0.0173176,0.0323952,0.0844542,0.0330538,-0.0910951,0.261333,-0.407679,0.00292187,-4.34982,8.43143,-4.53594,-15.8266,-34.8158,34.9979,-0.121575,-0.00668276,30.0891,-0.000405664,-23.2522,-1.06746,-2.21953,0.000535018,0.0266219,-0.0220616,-0.0259509,-1.79828,0.0161702,0.229759,0.0173004,-0.00202761,0.0344834,-0.00282286,-0.301477,0.132848,-0.0891833,-0.0013857,0,0,0,0,0,0,0,1.01917,-28.607,0.687269,22.0712,0.898739,1.5609,-0.0429228,
0.0273134,-0.0203252,-0.0252492,-1.80135,0.018408,0.223602,0.0175877,0.042292,0.0832891,0.0431801,-0.111167,0.257307,-0.443335,0.00909115,6.18552,-0.72817,6.32892,-12.5453,-2.51576,-22.2851,3.8558,41.3414,-3.31181,41.6049,-23.1473,10.8542,-14.1156,0.31896,0.026808,-0.0177432,-0.0258116,-1.80477,0.0245695,0.21414,0.0172968,0.00615719,0.180413,-0.00024082,-0.112131,0.484119,-0.804956,0.00146654,1.0231,18.2412,0.322755,23.6682,43.9089,-89.4716,0.35653,2.94727,-32.5981,2.6114,20.0043,2.8598,-2.24494,-0.00996382,
0.0283804,-0.0199205,-0.0241699,-1.80282,0.0218466,0.216742,0.0177366,0.0605092,0.0767501,0.0615265,-0.12548,0.291811,-0.526177,0.010995,11.3858,-4.08688,11.4665,-8.94504,21.5647,-51.7757,1.18989,36.5182,-0.429559,36.7158,-21.3984,10.8542,-14.1156,0.163336,0.026808,-0.0177432,-0.0258116,-1.80477,0.0245695,0.21414,0.0172968,0.00615719,0.180413,-0.00024082,-0.112131,0.484119,-0.804956,0.00146654,0,0,0,0,0,0,0,2.94727,-32.5981,2.6114,20.0043,2.8598,-2.24494,-0.00996382,
0.0297229,-0.0195913,-0.022814,-1.80418,0.0265489,0.208428,0.0178084,0.0819706,0.0696293,0.0831194,-0.134535,0.351008,-0.628782,0.0105893,13.4134,-4.45051,13.4956,-5.65966,36.9985,-64.1285,-0.253547,33.143,1.92577,33.3374,-19.4923,10.8542,-14.1156,0.0755739,0.026808,-0.0177432,-0.0258116,-1.80477,0.0245695,0.21414,0.0172968,0.00615719,0.180413,-0.00024082,-0.112131,0.484119,-0.804956,0.00146654,0,0,0,0,0,0,0,2.94727,-32.5981,2.6114,20.0043,2.8598,-2.24494,-0.00996382,
0.0290894,-0.0173134,-0.0235232,-1.80933,0.0330584,0.198745,0.017898,0.100287,0.0576934,0.101327,-0.165789,0.395388,-0.711174,0.0128616,11.4476,-7.4599,11.38,-19.5336,27.7375,-51.495,1.42021,49.3126,-9.64872,49.4041,-33.4601,10.8542,-14.1156,0.481011,0.026808,-0.0177432,-0.0258116,-1.80477,0.0245695,0.21414,0.0172968,0.00615719,0.180413,-0.00024082,-0.112131,0.484119,-0.804956,0.00146654,0,0,0,0,0,0,0,2.94727,-32.5981,2.6114,20.0043,2.8598,-2.24494,-0.00996382,
0.030766,-0.0172688,-0.0218403,-1.81153,0.0384838,0.189448,0.0179292,0.122146,0.0472706,0.123136,-0.187695,0.451946,-0.801354,0.0110706,13.6621,-6.51426,13.6305,-13.6911,35.3483,-56.3623,-1.11939,41.2862,-4.75618,41.3832,-30.7638,10.7701,-13.8659,0.169955,0.0278852,-0.0143422,-0.0250973,-1.81045,0.0491648,0.17355,0.0174567,0.0580099,0.0667371,0.0437437,-0.294828,0.552652,-1.1334,0.016854,6.48159,-14.2095,5.49807,-22.8372,8.56656,-41.0551,1.92343,8.27137,-35.2205,7.9117,17.612,1.47918,-1.56196,0.0101778,
0.0326125,-0.0172135,-0.0199867,-1.81362,0.0446941,0.179527,0.0179008,0.143877,0.0391971,0.144847,-0.202556,0.516815,-0.889111,0.00814561,13.5819,-5.04599,13.5695,-9.28817,40.5432,-54.8485,-1.82813,36.2811,-1.55685,36.3793,-28.3657,10.7701,-13.8659,0.0131155,0.0278852,-0.0143422,-0.0250973,-1.81045,0.0491648,0.17355,0.0174567,0.0580099,0.0667371,0.0437437,-0.294828,0.552652,-1.1334,0.016854,0,0,0,0,0,0,0,8.27137,-35.2205,7.9117,17.612,1.47918,-1.56196,0.0101778,
0.0303579,-0.0139393,-0.0226113,-1.81534,0.0590141,0.153818,0.0176799,0.150802,0.0358271,0.151767,-0.221403,0.544156,-0.964709,0.00757144,4.32834,-2.10625,4.32452,-11.7799,17.0882,-47.2487,-0.358854,41.2862,-4.75618,41.3832,-30.7638,10.7701,-13.8659,0.169955,0.0278852,-0.0143422,-0.0250973,-1.81045,0.0491648,0.17355,0.0174567,0.0580099,0.0667371,0.0437437,-0.294828,0.552652,-1.1334,0.016854,0,0,0,0,0,0,0,8.27137,-35.2205,7.9117,17.612,1.47918,-1.56196,0.0101778,
0.0320208,-0.0137599,-0.0209406,-1.81758,0.0649289,0.143337,0.0176588,0.162214,0.0331456,0.163182,-0.233044,0.583194,-1.0338,0.00552998,7.13226,-1.67589,7.13459,-7.27562,24.3989,-43.1837,-1.27591,36.2811,-1.55685,36.3793,-28.3657,10.7701,-13.8659,0.0131155,0.0278852,-0.0143422,-0.0250973,-1.81045,0.0491648,0.17355,0.0174567,0.0580099,0.0667371,0.0437437,-0.294828,0.552652,-1.1334,0.016854,0,0,0,0,0,0,0,8.27137,-35.2205,7.9117,17.612,1.47918,-1.56196,0.0101778,
0.033824,-0.0135994,-0.0191297,-1.81974,0.0714777,0.132678,0.0176362,0.174851,0.0305301,0.175818,-0.240492,0.630276,-1.09353,0.0038581,7.8979,-1.6347,7.89778,-4.65453,29.4261,-37.3263,-1.04493,33.3078,0.210832,33.4081,-26.676,10.8816,-13.4359,-0.0482937,0.0326671,-0.0146475,-0.0201048,-1.82634,0.0732785,0.129657,0.0178813,0.21372,-0.0409602,0.237081,-0.589058,0.700705,-1.45531,0.000807394,19.4637,-13.4622,24.1671,-36.7787,18.5067,-40.2395,-2.00582,20.5739,-30.6264,20.3095,19.1553,4.0628,-2.07191,-0.0301054,
0.0356957,-0.0134859,-0.0172505,-1.82189,0.0785787,0.121984,0.0176186,0.186674,0.027261,0.187634,-0.246045,0.681745,-1.14217,0.00264786,7.38953,-2.04318,7.38448,-3.47081,32.1683,-30.4051,-0.7564,30.7847,0.144122,30.8787,-25.8328,10.8816,-13.4359,-0.0382091,0.0326671,-0.0146475,-0.0201048,-1.82634,0.0732785,0.129657,0.0178813,0.21372,-0.0409602,0.237081,-0.589058,0.700705,-1.45531,0.000807394,0,0,0,0,0,0,0,20.5739,-30.6264,20.3095,19.1553,4.0628,-2.07191,-0.0301054,
0.0404139,-0.013193,-0.0123285,-1.83692,0.101579,0.081623,0.0177447,0.197267,0.0297199,0.198211,-0.256668,0.740767,-1.19346,0.000454322,6.62053,1.5368,6.61061,-6.6397,36.8884,-32.0565,-1.37096,30.7847,0.144122,30.8787,-25.8328,10.8816,-13.4359,-0.0382091,0.0326671,-0.0146475,-0.0201048,-1.82634,0.0732785,0.129657,0.0178813,0.21372,-0.0409602,0.237081,-0.589058,0.700705,-1.45531,0.000807394,0,0,0,0,0,0,0,20.5739,-30.6264,20.3095,19.1553,4.0628,-2.07191,-0.0301054,
0.0422834,-0.0129137,-0.0104523,-1.83922,0.109682,0.0710794,0.0176684,0.204551,0.0307582,0.205475,-0.262797,0.795196,-1.21836,-0.001544,4.55287,0.648904,4.54038,-3.83038,34.0182,-15.5608,-1.24895,28.2834,-0.573152,28.3699,-25.6166,10.8816,-13.2898,-0.0248389,0.0326671,-0.0146475,-0.0201048,-1.82634,0.0732785,0.129657,0.0178813,0.21372,-0.0409602,0.237081,-0.589058,0.700705,-1.45531,0.000807394,0,0,0,0,0,0,0,20.5739,-30.6264,20.3095,19.1553,4.0628,-2.07191,-0.0301054,
0.0441047,-0.0126744,-0.00862451,-1.84149,0.117983,0.0615944,0.0175954,0.209174,0.0305878,0.210074,-0.267029,0.843669,-1.21182,-0.00305917,2.8892,-0.106494,2.87439,-2.64517,30.2955,4.09083,-0.946983,25.993,-0.544771,26.0803,-25.2877,10.9561,-11.994,-0.0505705,0.0442048,-0.0149286,-0.00894835,-1.84554,0.103673,0.0707813,0.0178785,0.382587,0.0183698,0.324539,-0.52953,0.939058,-1.85113,0.000513785,21.1084,7.41625,10.9323,7.44091,29.7941,-49.4776,-0.0367011,18.5189,-31.8761,18.2346,24.761,4.21478,-0.315012,0.017502,
0.0458792,-0.0124685,-0.00684391,-1.84374,0.126404,0.0533322,0.0175286,0.2117,0.0296176,0.212574,-0.26986,0.885481,-1.17601,-0.00411726,1.57875,-0.60636,1.56269,-1.76922,26.1329,22.3809,-0.661307,23.9017,-0.241848,23.9854,-24.7217,10.9561,-11.3734,-0.0811553,0.0442048,-0.0149286,-0.00894835,-1.84554,0.103673,0.0707813,0.0178785,0.382587,0.0183698,0.324539,-0.52953,0.939058,-1.85113,0.000513785,0,0,0,0,0,0,0,18.5189,-31.8761,18.2346,24.761,4.21478,-0.315012,0.017502,
0.055267,-0.0124336,0.00214212,-1.85917,0.147036,0.0196871,0.0175245,0.217668,0.0332994,0.218519,-0.276674,0.930155,-1.11006,-0.00464006,3.73009,2.30113,3.71549,-4.25896,27.9208,41.214,-0.326746,22.3994,0.173693,22.4805,-24.0186,10.9561,-10.5789,-0.0915634,0.0442048,-0.0149286,-0.00894835,-1.84554,0.103673,0.0707813,0.0178785,0.382587,0.0183698,0.324539,-0.52953,0.939058,-1.85113,0.000513785,0,0,0,0,0,0,0,18.5189,-31.8761,18.2346,24.761,4.21478,-0.315012,0.017502,
0.057104,-0.0121222,0.00398478,-1.8615,0.155861,0.0143643,0.0174811,0.220059,0.0344249,0.220882,-0.279591,0.964757,-1.02112,-0.00479716,1.49425,0.703409,1.47671,-1.82257,21.6263,55.5884,-0.0981862,21.2747,0.373634,21.3524,-23.3853,10.9561,-8.36762,-0.0874332,0.0442048,-0.0149286,-0.00894835,-1.84554,0.103673,0.0707813,0.0178785,0.382587,0.0183698,0.324539,-0.52953,0.939058,-1.85113,0.000513785,0,0,0,0,0,0,0,18.5189,-31.8761,18.2346,24.761,4.21478,-0.315012,0.017502,
0.0588581,-0.0118784,0.00574423,-1.86373,0.164624,0.0103309,0.0174464,0.2199,0.0336349,0.220692,-0.27952,0.990857,-0.917734,-0.00470483,-0.0994749,-0.493704,-0.118853,0.0439391,16.3128,64.6179,0.0577028,20.6859,0.332992,20.7704,-22.3578,11.0293,-5.73388,-0.0830767,0.057037,-0.0143556,0.00753121,-1.86526,0.143828,0.00441668,0.0178245,0.395043,0.00928086,0.59374,-0.595853,1.26376,-1.83188,-0.00424356,1.55699,-1.13612,33.6501,-8.29034,40.5874,2.40634,-0.594669,8.60065,-33.9232,8.6139,24.1144,3.62884,0.666434,-0.083206,
0.060539,-0.0116954,0.00743016,-1.86588,0.173316,0.00743656,0.0174214,0.217942,0.0314829,0.218702,-0.277184,1.01,-0.806544,-0.00438831,-1.22339,-1.34504,-1.24383,1.46012,11.9672,69.4934,0.197825,19.9406,0.143666,20.0213,-21.978,11.0293,-4.05297,-0.0709299,0.057037,-0.0143556,0.00753121,-1.86526,0.143828,0.00441668,0.0178245,0.395043,0.00928086,0.59374,-0.595853,1.26376,-1.83188,-0.00424356,0,0,0,0,0,0,0,8.60065,-33.9232,8.6139,24.1144,3.62884,0.666434,-0.083206,
0.0724695,-0.0115224,0.0230138,-1.8817,0.20373,-0.0313348,0.0176119,0.223403,0.0322037,0.22412,-0.276238,1.04322,-0.686002,-0.00373742,3.413,0.450513,3.38672,0.591549,20.7575,75.3389,0.406806,18.7195,-0.277552,18.792,-21.3601,11.0293,-1.32993,-0.0471801,0.057037,-0.0143556,0.00753121,-1.86526,0.143828,0.00441668,0.0178245,0.395043,0.00928086,0.59374,-0.595853,1.26376,-1.83188,-0.00424356,0,0,0,0,0,0,0,8.60065,-33.9232,8.6139,24.1144,3.62884,0.666434,-0.083206,
0.0742848,-0.0113206,0.0248333,-1.88374,0.21291,-0.0319445,0.0176123,0.224105,0.0308087,0.224782,-0.272061,1.06408,-0.564043,-0.00298088,0.438668,-0.871877,0.41353,2.61032,13.0386,76.2243,0.472838,18.1962,-0.427672,18.2647,-21.0747,11.0293,-0.244574,-0.0362126,0.057037,-0.0143556,0.00753121,-1.86526,0.143828,0.00441668,0.0178245,0.395043,0.00928086,0.59374,-0.595853,1.26376,-1.83188,-0.00424356,0,0,0,0,0,0,0,8.60065,-33.9232,8.6139,24.1144,3.62884,0.666434,-0.083206,
0.0759773,-0.0111863,0.0265296,-1.88566,0.221892,-0.031723,0.017621,0.221594,0.0280038,0.222233,-0.265801,1.07581,-0.445697,-0.00216754,-1.56924,-1.75308,-1.59292,3.91272,7.32947,73.9666,0.508336,17.5567,-1.37049,17.6254,-19.8587,10.7423,1.17752,-0.0312824,0.0721647,-0.0113354,0.0282074,-1.88608,0.191907,-0.0465434,0.0177806,0.485622,0.0792646,0.569855,-0.649858,1.45649,-1.0893,-0.000515978,11.3223,8.74797,-2.98556,-6.75064,24.0915,92.8229,0.465948,-0.349545,-35.8672,-0.487047,29.3671,2.74902,4.82293,-0.050247,
0.0878234,-0.00736228,0.0438838,-1.90174,0.253796,-0.0618234,0.017762,0.224543,0.0301633,0.225089,-0.261923,1.09577,-0.340476,-0.00113018,1.84276,1.34969,1.78451,2.42376,12.4808,65.7628,0.648351,16.2745,-1.37589,16.3319,-18.9994,10.7423,3.17829,0.0001804,0.0721647,-0.0113354,0.0282074,-1.88608,0.191907,-0.0465434,0.0177806,0.485622,0.0792646,0.569855,-0.649858,1.45649,-1.0893,-0.000515978,0,0,0,0,0,0,0,-0.349545,-35.8672,-0.487047,29.3671,2.74902,4.82293,-0.050247,
0.0895431,-0.00715005,0.0456047,-1.90358,0.262929,-0.0604762,0.0177947,0.222628,0.0294365,0.223091,-0.255378,1.10496,-0.238701,-8.69051e-05,-1.19665,-0.454219,-1.24821,4.09074,5.7395,63.6096,0.652048,15.8853,-1.31475,15.9393,-18.7126,10.7423,3.63811,0.0103269,0.0721647,-0.0113354,0.0282074,-1.88608,0.191907,-0.0465434,0.0177806,0.485622,0.0792646,0.569855,-0.649858,1.45649,-1.0893,-0.000515978,0,0,0,0,0,0,0,-0.349545,-35.8672,-0.487047,29.3671,2.74902,4.82293,-0.050247,
0.0911193,-0.007016,0.0471814,-1.9053,0.271837,-0.0585755,0.0178316,0.217508,0.0269004,0.217891,-0.247325,1.10667,-0.143443,0.000852905,-3.20025,-1.5851,-3.25062,5.03281,1.07282,59.536,0.587382,15.5054,-1.23708,15.5561,-18.4283,10.7423,4.01831,0.0193419,0.0721647,-0.0113354,0.0282074,-1.88608,0.191907,-0.0465434,0.0177806,0.485622,0.0792646,0.569855,-0.649858,1.45649,-1.0893,-0.000515978,0,0,0,0,0,0,0,-0.349545,-35.8672,-0.487047,29.3671,2.74902,4.82293,-0.050247,
0.0925733,-0.00694124,0.0486359,-1.90692,0.28056,-0.056244,0.0178704,0.210355,0.0233892,0.210676,-0.238498,1.1034,-0.0564662,0.00165351,-4.47041,-2.19447,-4.50885,5.51714,-2.04742,54.3607,0.500379,15.1328,-1.14552,15.1804,-18.1487,10.7423,4.33485,0.0290077,0.0721647,-0.0113354,0.0282074,-1.88608,0.191907,-0.0465434,0.0177806,0.485622,0.0792646,0.569855,-0.649858,1.45649,-1.0893,-0.000515978,0,0,0,0,0,0,0,-0.349545,-35.8672,-0.487047,29.3671,2.74902,4.82293,-0.050247,
0.104111,-0.0042728,0.0609398,-1.92177,0.308424,-0.0651344,0.0178891,0.211704,0.0254975,0.211928,-0.233115,1.10832,0.00465856,0.00213022,0.843178,1.31765,0.782244,3.3642,3.07337,38.203,0.29794,14.1457,-1.72071,14.1864,-16.9822,10.3486,5.0369,0.041629,0.0892201,-0.00826044,0.0460565,-1.90808,0.245935,-0.0663724,0.0177786,0.478679,0.0965078,0.558376,-0.636232,1.61849,-0.272911,-0.000328264,-0.867884,2.1554,-1.4349,1.70325,20.2506,102.049,0.0234643,-5.92755,-40.5367,-6.18804,35.322,2.71881,5.46654,-0.0026396,
0.105693,-0.00409625,0.0625215,-1.92332,0.316638,-0.0627389,0.0179233,0.208929,0.0248118,0.209086,-0.225381,1.092,0.0636144,0.00255893,-1.73428,-0.428527,-1.77607,4.8334,-10.1966,36.8474,0.267943,13.7025,-1.59212,13.7373,-16.7221,10.3486,5.20205,0.049552,0.0892201,-0.00826044,0.0460565,-1.90808,0.245935,-0.0663724,0.0177786,0.478679,0.0965078,0.558376,-0.636232,1.61849,-0.272911,-0.000328264,0,0,0,0,0,0,0,-5.92755,-40.5367,-6.18804,35.322,2.71881,5.46654,-0.0026396,
0.107154,-0.00399603,0.0639818,-1.92477,0.323981,-0.060036,0.0179586,0.203666,0.022355,0.203776,-0.216361,1.05717,0.118465,0.00292898,-3.28939,-1.53548,-3.31906,5.638,-21.7703,34.2814,0.231285,13.2187,-1.45625,13.2443,-16.4817,10.3486,5.33041,0.0525433,0.0892201,-0.00826044,0.0460565,-1.90808,0.245935,-0.0663724,0.0177786,0.478679,0.0965078,0.558376,-0.636232,1.61849,-0.272911,-0.000328264,0,0,0,0,0,0,0,-5.92755,-40.5367,-6.18804,35.322,2.71881,5.46654,-0.0026396,
0.108516,-0.00395651,0.0653433,-1.92612,0.330452,-0.0571016,0.0179946,0.196982,0.018872,0.197057,-0.206835,1.00752,0.16813,0.00324209,-4.1776,-2.17687,-4.19904,5.95351,-31.0312,31.0405,0.195693,12.7378,-1.27015,12.7632,-16.2194,10.3486,5.41972,0.0531821,0.0892201,-0.00826044,0.0460565,-1.90808,0.245935,-0.0663724,0.0177786,0.478679,0.0965078,0.558376,-0.636232,1.61849,-0.272911,-0.000328264,0,0,0,0,0,0,0,-5.92755,-40.5367,-6.18804,35.322,2.71881,5.46654,-0.0026396,
0.120463,-0.00314829,0.0776162,-1.93882,0.355845,-0.0543471,0.0179406,0.193912,0.0161064,0.193923,-0.196576,0.910636,0.203057,0.00347546,-1.91857,-1.72851,-1.95892,6.41182,-60.5522,21.8297,0.145856,11.4483,-1.18397,11.4733,-15.2471,7.67577,5.48653,0.050515,0.105593,-0.00579676,0.0627693,-1.92698,0.30322,-0.066884,0.0177828,0.440675,0.0692342,0.468183,-0.51051,1.70938,0.135793,-0.00111228,-4.7505,-3.4092,-11.2741,15.7153,11.3607,51.088,-0.0980015,-5.37213,-38.188,-5.66039,31.2872,0.642391,4.51165,0.0577852,
0.121797,-0.00316,0.078948,-1.94,0.359252,-0.051449,0.0179794,0.188467,0.0125925,0.188436,-0.186726,0.813683,0.234898,0.00375152,-3.40306,-2.19621,-3.42967,6.15627,-60.5957,19.9007,0.172534,11.144,-1.03565,11.1678,-14.9511,6.5641,5.45466,0.0491804,0.105593,-0.00579676,0.0627693,-1.92698,0.30322,-0.066884,0.0177828,0.440675,0.0692342,0.468183,-0.51051,1.70938,0.135793,-0.00111228,0,0,0,0,0,0,0,-5.37213,-38.188,-5.66039,31.2872,0.642391,4.51165,0.0577852,
0.123032,-0.00321,0.0801821,-1.94113,0.361982,-0.0484379,0.0180211,0.181658,0.00882398,0.1816,-0.177515,0.719217,0.263196,0.00404411,-4.25607,-2.35531,-4.27247,5.75674,-59.0412,17.6859,0.182871,10.8999,-0.916781,10.9222,-14.6613,5.57764,5.41145,0.0479086,0.105593,-0.00579676,0.0627693,-1.92698,0.30322,-0.066884,0.0177828,0.440675,0.0692342,0.468183,-0.51051,1.70938,0.135793,-0.00111228,0,0,0,0,0,0,0,-5.37213,-38.188,-5.66039,31.2872,0.642391,4.51165,0.0577852,
0.108685,-0.0049873,0.0658571,-1.92953,0.314818,-0.0662749,0.0177939,0.222616,0.0272956,0.222475,-0.205527,0.865319,0.225784,0.00351144,25.5992,11.5447,25.5469,-17.5071,91.3136,-23.3821,-0.332921,11.4483,-1.18397,11.4733,-15.2471,7.67577,5.48653,0.050515,0.105593,-0.00579676,0.0627693,-1.92698,0.30322,-0.066884,0.0177828,0.440675,0.0692342,0.468183,-0.51051,1.70938,0.135793,-0.00111228,0,0,0,0,0,0,0,-5.37213,-38.188,-5.66039,31.2872,0.642391,4.51165,0.0577852,
0.111331,-0.00431733,0.0684984,-1.93153,0.324768,-0.0652788,0.0178067,0.244246,0.0385857,0.244013,-0.214499,0.941024,0.205528,0.00313018,13.5185,7.05634,13.4615,-5.60794,47.3159,-12.66,-0.238282,10.9329,-1.4145,10.9467,-14.8164,6.30848,5.37771,0.0514536,0.120404,-0.00310525,0.0776478,-1.94245,0.352756,-0.0560633,0.0178003,0.450804,0.0799452,0.402132,-0.398364,1.21497,0.433872,0.000349701,1.26615,1.33887,-8.25645,14.0183,-61.8017,37.2599,0.182747,-7.7525,-37.343,-8.03679,25.3323,-1.84967,2.68151,0.017502,
0.113621,-0.00383149,0.0707848,-1.93326,0.333279,-0.0637949,0.017824,0.252656,0.0430148,0.252369,-0.214986,0.965577,0.201521,0.00293642,5.2563,2.76814,5.22249,-0.303911,15.3458,-2.50478,-0.121103,10.6888,-1.29563,10.7011,-14.5266,5.32201,5.33451,0.0501819,0.120404,-0.00310525,0.0776478,-1.94245,0.352756,-0.0560633,0.0178003,0.450804,0.0799452,0.402132,-0.398364,1.21497,0.433872,0.000349701,0,0,0,0,0,0,0,-7.7525,-37.343,-8.03679,25.3323,-1.84967,2.68151,0.017502,
0.115629,-0.00350357,0.0727889,-1.93482,0.340504,-0.0618824,0.0178466,0.252313,0.0426099,0.251998,-0.210976,0.953089,0.209029,0.00291307,-0.214478,-0.253064,-0.231999,2.5061,-7.80538,4.693,-0.0145945,10.4968,-1.20418,10.5077,-14.2407,4.42798,5.27868,0.050197,0.120404,-0.00310525,0.0776478,-1.94245,0.352756,-0.0560633,0.0178003,0.450804,0.0799452,0.402132,-0.398364,1.21497,0.433872,0.000349701,0,0,0,0,0,0,0,-7.7525,-37.343,-8.03679,25.3323,-1.84967,2.68151,0.017502,
0.135263,-0.00555372,0.0924571,-1.94056,0.432815,-0.0212395,0.016997,0.201958,0.0311422,0.201749,-0.165528,0.767712,0.193235,0.00204792,-31.4718,-7.1673,-31.4055,28.4051,-115.861,-9.87119,-0.54072,3.13932,-1.01382,3.15458,-1.37498,1.07894,2.22978,-0.00810717,0.120404,-0.00310525,0.0776478,-1.94245,0.352756,-0.0560633,0.0178003,0.450804,0.0799452,0.402132,-0.398364,1.21497,0.433872,0.000349701,0,0,0,0,0,0,0,-7.7525,-37.343,-8.03679,25.3323,-1.84967,2.68151,0.017502,
0.135268,-0.0056713,0.0924632,-1.94043,0.433024,-0.0202038,0.0169857,0.161674,0.0219741,0.161551,-0.129183,0.619407,0.180482,0.00135639,-25.1776,-5.73003,-25.1238,22.7154,-92.6904,-7.97074,-0.432207,3.05903,-1.14296,3.06695,-1.22574,1.22734,1.92042,-0.00982878,0.13393,-0.00147639,0.0918372,-1.95613,0.390492,-0.0370182,0.0178077,0.369598,0.0728375,0.391004,-0.399057,1.14471,0.587118,-0.000782726,-10.1507,-0.888456,-1.39093,-0.0866997,-8.78179,19.1558,-0.141553,-3.39245,-34.3477,-3.5855,27.8476,1.60736,0.274588,0.017502,
0.135272,-0.00578865,0.0924693,-1.9403,0.433234,-0.0191727,0.0169745,0.129446,0.0146457,0.129394,-0.100121,0.50076,0.170162,0.000803748,-20.1422,-4.58026,-20.0983,18.1637,-74.1541,-6.4501,-0.345399,2.9724,-1.13684,2.98001,-0.988377,1.5585,1.66138,-0.0117921,0.13393,-0.00147639,0.0918372,-1.95613,0.390492,-0.0370182,0.0178077,0.369598,0.0728375,0.391004,-0.399057,1.14471,0.587118,-0.000782726,0,0,0,0,0,0,0,-3.39245,-34.3477,-3.5855,27.8476,1.60736,0.274588,0.017502,
0.135448,-0.0104154,0.0927635,-1.93546,0.441734,0.0192944,0.0165321,0.103665,0.00899069,0.10372,-0.0773891,0.405744,0.157509,0.000383747,-16.1135,-3.53439,-16.0462,14.2076,-59.3853,-7.9084,-0.2625,2.9724,-1.13684,2.98001,-0.988377,1.5585,1.66138,-0.0117921,0.13393,-0.00147639,0.0918372,-1.95613,0.390492,-0.0370182,0.0178077,0.369598,0.0728375,0.391004,-0.399057,1.14471,0.587118,-0.000782726,0,0,0,0,0,0,0,-3.39245,-34.3477,-3.5855,27.8476,1.60736,0.274588,0.017502,
0.145234,-0.00847959,0.103157,-1.94714,0.441395,0.0515855,0.0165363,0.0830408,0.00463213,0.0831651,-0.0593565,0.330614,0.145732,5.53387e-05,-12.8899,-2.7241,-12.8465,11.2704,-46.956,-7.36041,-0.205255,2.9724,-1.13684,2.98001,-0.988377,1.5585,1.66138,-0.0117921,0.13393,-0.00147639,0.0918372,-1.95613,0.390492,-0.0370182,0.0178077,0.369598,0.0728375,0.391004,-0.399057,1.14471,0.587118,-0.000782726,0,0,0,0,0,0,0,-3.39245,-34.3477,-3.5855,27.8476,1.60736,0.274588,0.017502,
0.145234,-0.00847959,0.103157,-1.94714,0.441395,0.0515855,0.0165363,0.0665417,0.00114529,0.0667216,-0.0449304,0.270511,0.136311,-0.000207388,-10.312,-2.17928,-10.2772,9.01629,-37.5648,-5.88832,-0.164204,2.72926,-1.29283,2.72462,-1.07242,1.40255,1.55684,-0.00744832,0.149384,0.000750708,0.101415,-1.96447,0.418539,-0.0224071,0.0178063,0.431698,0.123997,0.24888,-0.0595764,0.623479,0.310009,0.000724524,7.76242,6.39494,-17.7656,42.4351,-65.1541,-34.6386,0.188406,-9.04583,-38.8387,-8.90959,31.4618,0.593868,0.99053,-0.0227812,
0.145234,-0.00847959,0.103157,-1.94714,0.441395,0.0515855,0.0165363,0.0533424,-0.00164419,0.0535667,-0.0333896,0.222428,0.128774,-0.00041757,-8.24957,-1.74342,-8.22179,7.21303,-30.0518,-4.71066,-0.131363,2.72926,-1.29283,2.72462,-1.07242,1.40255,1.55684,-0.00744832,0.149384,0.000750708,0.101415,-1.96447,0.418539,-0.0224071,0.0178063,0.431698,0.123997,0.24888,-0.0595764,0.623479,0.310009,0.000724524,0,0,0,0,0,0,0,-9.04583,-38.8387,-8.90959,31.4618,0.593868,0.99053,-0.0227812,
0.158927,-0.00776969,0.110931,-1.95403,0.458337,0.0664614,0.0165572,0.0427818,-0.00384571,0.0430376,-0.0242434,0.183285,0.12245,-0.000582385,-6.60037,-1.37595,-6.58067,5.71639,-24.4642,-3.95214,-0.10301,2.72926,-1.29283,2.72462,-1.07242,1.40255,1.55684,-0.00744832,0.149384,0.000750708,0.101415,-1.96447,0.418539,-0.0224071,0.0178063,0.431698,0.123997,0.24888,-0.0595764,0.623479,0.310009,0.000724524,0,0,0,0,0,0,0,-9.04583,-38.8387,-8.90959,31.4618,0.593868,0.99053,-0.0227812,
0.158927,-0.00776969,0.110931,-1.95403,0.458337,0.0664614,0.0165572,0.0343333,-0.00560692,0.0346144,-0.0169264,0.151971,0.117391,-0.000714237,-5.2803,-1.10076,-5.26454,4.57311,-19.5713,-3.16171,-0.0824076,2.72926,-1.29283,2.72462,-1.07242,1.40255,1.55684,-0.00744832,0.149384,0.000750708,0.101415,-1.96447,0.418539,-0.0224071,0.0178063,0.431698,0.123997,0.24888,-0.0595764,0.623479,0.310009,0.000724524,0,0,0,0,0,0,0,-9.04583,-38.8387,-8.90959,31.4618,0.593868,0.99053,-0.0227812,
0.158927,-0.00776969,0.110931,-1.95403,0.458337,0.0664614,0.0165572,0.0275745,-0.0070159,0.0278758,-0.0110728,0.12692,0.113344,-0.000819719,-4.22424,-0.880609,-4.21163,3.65849,-15.6571,-2.52937,-0.0659261,2.78569,-1.40709,2.771,-1.30276,1.33228,1.37933,-0.00580882,0.157688,0.00238453,0.110418,-1.96634,0.431188,-0.00802196,0.0177943,0.222289,0.0703108,0.180656,-0.0157322,0.321231,0.45286,0.00179483,-26.1761,-6.71078,-8.52802,5.48053,-37.7809,17.8564,0.133789,-12.0887,-37.5652,-12.0874,26.9272,1.74743,0.221487,-0.0301054,
0.158927,-0.00776969,0.110931,-1.95403,0.458337,0.0664614,0.0165572,0.0221675,-0.00814308,0.0224849,-0.00638995,0.106879,0.110107,-0.000904104,-3.37939,-0.704487,-3.3693,2.92679,-12.5256,-2.02349,-0.0527409,2.78569,-1.40709,2.771,-1.30276,1.33228,1.37933,-0.00580882,0.157688,0.00238453,0.110418,-1.96634,0.431188,-0.00802196,0.0177943,0.222289,0.0703108,0.180656,-0.0157322,0.321231,0.45286,0.00179483,0,0,0,0,0,0,0,-12.0887,-37.5652,-12.0874,26.9272,1.74743,0.221487,-0.0301054,
0.163182,-0.00665527,0.115882,-1.95543,0.462664,0.0820927,0.0166432,0.0178425,-0.00890334,0.0181612,-0.00277532,0.0909312,0.106412,-0.000965797,-2.70314,-0.475167,-2.70227,2.25914,-9.96712,-2.30927,-0.0385576,2.78569,-1.40709,2.771,-1.30276,1.33228,1.37933,-0.00580882,0.157688,0.00238453,0.110418,-1.96634,0.431188,-0.00802196,0.0177943,0.222289,0.0703108,0.180656,-0.0157322,0.321231,0.45286,0.00179483,0,0,0,0,0,0,0,-12.0887,-37.5652,-12.0874,26.9272,1.74743,0.221487,-0.0301054,
0.163182,-0.00665527,0.115882,-1.95543,0.462664,0.0820927,0.0166432,0.0143825,-0.00951156,0.0147023,0.000116388,0.0781733,0.103456,-0.00101515,-2.16252,-0.380133,-2.16182,1.80732,-7.9737,-1.84742,-0.0308461,2.78569,-1.40709,2.771,-1.30276,1.33228,1.37933,-0.00580882,0.157688,0.00238453,0.110418,-1.96634,0.431188,-0.00802196,0.0177943,0.222289,0.0703108,0.180656,-0.0157322,0.321231,0.45286,0.00179483,0,0,0,0,0,0,0,-12.0887,-37.5652,-12.0874,26.9272,1.74743,0.221487,-0.0301054,
0.163182,-0.00665527,0.115882,-1.95543,0.462664,0.0820927,0.0166432,0.0116144,-0.00999813,0.0119352,0.00242975,0.067967,0.101092,-0.00105463,-1.73001,-0.304107,-1.72945,1.44585,-6.37896,-1.47793,-0.0246769,2.83525,-1.44519,2.81858,-1.41728,1.32563,1.28572,-0.00504056,0.163244,0.00262339,0.116576,-1.96736,0.439623,0.00531663,0.0177765,0.10953,-0.0116858,0.110654,-0.00454096,0.214906,0.306231,-0.00281426,-14.0949,-10.2496,-8.75017,1.3989,-13.2907,-18.3287,-0.576137,-8.66894,-35.0221,-8.73503,26.2289,2.11456,1.96557,0.0440523,
0.163182,-0.00665527,0.115882,-1.95543,0.462664,0.0820927,0.0166432,0.00940002,-0.0103874,0.0097215,0.00428044,0.0598019,0.0991997,-0.00108622,-1.38401,-0.243285,-1.38356,1.15668,-5.10317,-1.18235,-0.0197415,2.83525,-1.44519,2.81858,-1.41728,1.32563,1.28572,-0.00504056,0.163244,0.00262339,0.116576,-1.96736,0.439623,0.00531663,0.0177765,0.10953,-0.0116858,0.110654,-0.00454096,0.214906,0.306231,-0.00281426,0,0,0,0,0,0,0,-8.66894,-35.0221,-8.73503,26.2289,2.11456,1.96557,0.0440523,
0.166514,-0.0078402,0.119896,-1.95632,0.467101,0.0915231,0.0166939,0.00762859,-0.010722,0.00796732,0.00565466,0.0531893,0.0968815,-0.00110703,-1.10715,-0.209122,-1.09637,0.858884,-4.1329,-1.44893,-0.0130079,2.83525,-1.44519,2.81858,-1.41728,1.32563,1.28572,-0.00504056,0.163244,0.00262339,0.116576,-1.96736,0.439623,0.00531663,0.0177765,0.10953,-0.0116858,0.110654,-0.00454096,0.214906,0.306231,-0.00281426,0,0,0,0,0,0,0,-8.66894,-35.0221,-8.73503,26.2289,2.11456,1.96557,0.0440523,
0.166514,-0.0078402,0.119896,-1.95632,0.467101,0.0915231,0.0166939,0.00621144,-0.0109897,0.00656397,0.00675403,0.0478992,0.0950268,-0.00112368,-0.885718,-0.167297,-0.877093,0.687107,-3.30632,-1.15915,-0.0104063,2.83525,-1.44519,2.81858,-1.41728,1.32563,1.28572,-0.00504056,0.163244,0.00262339,0.116576,-1.96736,0.439623,0.00531663,0.0177765,0.10953,-0.0116858,0.110654,-0.00454096,0.214906,0.306231,-0.00281426,0,0,0,0,0,0,0,-8.66894,-35.0221,-8.73503,26.2289,2.11456,1.96557,0.0440523,
0.166514,-0.0078402,0.119896,-1.95632,0.467101,0.0915231,0.0166939,0.00507772,-0.0112038,0.00544129,0.00763352,0.0436671,0.0935431,-0.001137,-0.708574,-0.133838,-0.701674,0.549686,-2.64505,-0.927318,-0.00832506,2.83525,-1.44519,2.81858,-1.41728,1.32563,1.28572,-0.00504056,0.163244,0.00262339,0.116576,-1.96736,0.439623,0.00531663,0.0177765,0.10953,-0.0116858,0.110654,-0.00454096,0.214906,0.306231,-0.00281426,0,0,0,0,0,0,0,-8.66894,-35.0221,-8.73503,26.2289,2.11456,1.96557,0.0440523,
0.166514,-0.0078402,0.119896,-1.95632,0.467101,0.0915231,0.0166939,0.00417074,-0.0113751,0.00454315,0.00833712,0.0402814,0.0923561,-0.00114766,-0.56686,-0.10707,-0.561339,0.439748,-2.11604,-0.741855,-0.00666005,2.83525,-1.44519,2.81858,-1.41728,1.32563,1.28572,-0.00504056,0.163244,0.00262339,0.116576,-1.96736,0.439623,0.00531663,0.0177765,0.10953,-0.0116858,0.110654,-0.00454096,0.214906,0.306231,-0.00281426,0,0,0,0,0,0,0,-8.66894,-35.0221,-8.73503,26.2289,2.11456,1.96557,0.0440523,
0.166514,-0.0078402,0.119896,-1.95632,0.467101,0.0915231,0.0166939,0.00344516,-0.0115122,0.00382463,0.0089,0.0375729,0.0914066,-0.00115618,-0.453488,-0.0856563,-0.449071,0.351799,-1.69283,-0.593484,-0.00532804,2.83525,-1.44519,2.81858,-1.41728,1.32563,1.28572,-0.00504056,0.163244,0.00262339,0.116576,-1.96736,0.439623,0.00531663,0.0177765,0.10953,-0.0116858,0.110654,-0.00454096,0.214906,0.306231,-0.00281426,0,0,0,0,0,0,0,-8.66894,-35.0221,-8.73503,26.2289,2.11456,1.96557,0.0440523,
0.166514,-0.0078402,0.119896,-1.95632,0.467101,0.0915231,0.0166939,0.0028647,-0.0116218,0.00324982,0.0093503,0.0354061,0.0906469,-0.001163,-0.36279,-0.068525,-0.359257,0.281439,-1.35427,-0.474787,-0.00426243,2.83525,-1.44519,2.81858,-1.41728,1.32563,1.28572,-0.00504056,0.163244,0.00262339,0.116576,-1.96736,0.439623,0.00531663,0.0177765,0.10953,-0.0116858,0.110654,-0.00454096,0.214906,0.306231,-0.00281426,0,0,0,0,0,0,0,-8.66894,-35.0221,-8.73503,26.2289,2.11456,1.96557,0.0440523,
0.166514,-0.0078402,0.119896,-1.95632,0.467101,0.0915231,0.0166939,0.00240033,-0.0117095,0.00278997,0.00971054,0.0336726,0.0900392,-0.00116846,-0.290232,-0.05482,-0.287406,0.225151,-1.08341,-0.37983,-0.00340995,2.83525,-1.44519,2.81858,-1.41728,1.32563,1.28572,-0.00504056,0.163244,0.00262339,0.116576,-1.96736,0.439623,0.00531663,0.0177765,0.10953,-0.0116858,0.110654,-0.00454096,0.214906,0.306231,-0.00281426,0,0,0,0,0,0,0,-8.66894,-35.0221,-8.73503,26.2289,2.11456,1.96557,0.0440523,
0.167769,-0.00917388,0.120932,-1.95747,0.46858,0.098072,0.0167374,0.00202905,-0.0118096,0.00243979,0.00992872,0.03234,0.0889633,-0.00116978,-0.232045,-0.0625343,-0.218865,0.136361,-0.832858,-0.672396,-0.000824156,2.84524,-1.46748,2.83423,-1.48056,1.32501,1.22931,-0.0046469,0.16593,0.00169301,0.118962,-1.96822,0.444042,0.0146865,0.0177731,0.0251868,-0.0475792,0.0842172,-0.0195558,0.116664,0.24255,-0.000279819,-10.5429,-4.48667,-3.30466,-1.87685,-12.2802,-7.96007,0.316806,-1.26202,-31.5746,-1.43523,27.6016,3.42743,2.47643,0.017502,
0.167769,-0.00917388,0.120932,-1.95747,0.46858,0.098072,0.0167374,0.00173204,-0.0118896,0.00215964,0.0101033,0.031274,0.0881027,-0.00117083,-0.185636,-0.0500274,-0.175092,0.109089,-0.666286,-0.537917,-0.000659324,2.84524,-1.46748,2.83423,-1.48056,1.32501,1.22931,-0.0046469,0.16593,0.00169301,0.118962,-1.96822,0.444042,0.0146865,0.0177731,0.0251868,-0.0475792,0.0842172,-0.0195558,0.116664,0.24255,-0.000279819,0,0,0,0,0,0,0,-1.26202,-31.5746,-1.43523,27.6016,3.42743,2.47643,0.017502,
0.167769,-0.00917388,0.120932,-1.95747,0.46858,0.098072,0.0167374,0.00149442,-0.0119536,0.00193552,0.0102429,0.0304211,0.0874141,-0.00117168,-0.148509,-0.0400219,-0.140074,0.0872708,-0.533029,-0.430333,-0.00052746,2.84524,-1.46748,2.83423,-1.48056,1.32501,1.22931,-0.0046469,0.16593,0.00169301,0.118962,-1.96822,0.444042,0.0146865,0.0177731,0.0251868,-0.0475792,0.0842172,-0.0195558,0.116664,0.24255,-0.000279819,0,0,0,0,0,0,0,-1.26202,-31.5746,-1.43523,27.6016,3.42743,2.47643,0.017502,
0.167769,-0.00917388,0.120932,-1.95747,0.46858,0.098072,0.0167374,0.00130433,-0.0120049,0.00175623,0.0103546,0.0297388,0.0868633,-0.00117235,-0.118807,-0.0320175,-0.112059,0.0698167,-0.426423,-0.344267,-0.000421968,2.84524,-1.46748,2.83423,-1.48056,1.32501,1.22931,-0.0046469,0.16593,0.00169301,0.118962,-1.96822,0.444042,0.0146865,0.0177731,0.0251868,-0.0475792,0.0842172,-0.0195558,0.116664,0.24255,-0.000279819,0,0,0,0,0,0,0,-1.26202,-31.5746,-1.43523,27.6016,3.42743,2.47643,0.017502,
0.167769,-0.00917388,0.120932,-1.95747,0.46858,0.098072,0.0167374,0.00115226,-0.0120459,0.00161279,0.010444,0.029193,0.0864227,-0.00117289,-0.0950456,-0.025614,-0.0896473,0.0558533,-0.341139,-0.275413,-0.000337574,2.84675,-1.46278,2.84093,-1.53271,1.32197,1.18879,-0.00442573,0.167588,0.000858372,0.120568,-1.9685,0.447403,0.0226866,0.0177708,0.0418647,-0.00499048,0.0167267,0.0147594,0.0916985,0.224339,-0.000180152,2.08474,5.32359,-8.43631,4.2894,-3.1207,-2.27637,0.0124583,-0.857357,-31.7015,-0.93535,25.4077,3.12164,1.95275,0.0376436,
0.167769,-0.00917388,0.120932,-1.95747,0.46858,0.098072,0.0167374,0.0010306,-0.0120786,0.00149804,0.0105155,0.0287564,0.0860701,-0.00117332,-0.0760365,-0.0204912,-0.0717178,0.0446827,-0.272911,-0.220331,-0.000270059,2.84675,-1.46278,2.84093,-1.53271,1.32197,1.18879,-0.00442573,0.167588,0.000858372,0.120568,-1.9685,0.447403,0.0226866,0.0177708,0.0418647,-0.00499048,0.0167267,0.0147594,0.0916985,0.224339,-0.000180152,0,0,0,0,0,0,0,-0.857357,-31.7015,-0.93535,25.4077,3.12164,1.95275,0.0376436,
0.167769,-0.00917388,0.120932,-1.95747,0.46858,0.098072,0.0167374,0.000933273,-0.0121049,0.00140625,0.0105727,0.028407,0.0857881,-0.00117367,-0.0608292,-0.016393,-0.0573743,0.0357461,-0.218329,-0.176265,-0.000216047,2.84675,-1.46278,2.84093,-1.53271,1.32197,1.18879,-0.00442573,0.167588,0.000858372,0.120568,-1.9685,0.447403,0.0226866,0.0177708,0.0418647,-0.00499048,0.0167267,0.0147594,0.0916985,0.224339,-0.000180152,0,0,0,0,0,0,0,-0.857357,-31.7015,-0.93535,25.4077,3.12164,1.95275,0.0376436,
0.167769,-0.00917388,0.120932,-1.95747,0.46858,0.098072,0.0167374,0.000855411,-0.0121259,0.00133281,0.0106184,0.0281276,0.0855625,-0.00117395,-0.0486634,-0.0131144,-0.0458994,0.0285969,-0.174663,-0.141012,-0.000172838,2.84675,-1.46278,2.84093,-1.53271,1.32197,1.18879,-0.00442573,0.167588,0.000858372,0.120568,-1.9685,0.447403,0.0226866,0.0177708,0.0418647,-0.00499048,0.0167267,0.0147594,0.0916985,0.224339,-0.000180152,0,0,0,0,0,0,0,-0.857357,-31.7015,-0.93535,25.4077,3.12164,1.95275,0.0376436,
0.168711,-0.00925004,0.121831,-1.95812,0.470816,0.104483,0.0167587,0.000793376,-0.0120995,0.00127584,0.0105944,0.0279156,0.0848986,-0.00117154,-0.0387722,0.0164737,-0.0356014,-0.0149753,-0.132453,-0.41493,0.00150423,2.84954,-1.41524,2.84585,-1.59497,1.32008,1.1444,-0.00415812,0.168988,0.000518907,0.121598,-1.96869,0.450041,0.0327322,0.0177642,0.0584286,-0.0178017,0.0125966,-0.00624718,0.067642,0.328623,-0.00127983,2.07048,-1.6014,-0.516267,-2.62583,-3.00706,13.0355,-0.13746,-0.908932,-34.1216,-0.887743,24.8602,3.13995,0.87792,0.0641939,
0.168711,-0.00925004,0.121831,-1.95812,0.470816,0.104483,0.0167587,0.000743748,-0.0120784,0.00123027,0.0105753,0.0277461,0.0843675,-0.00116961,-0.0310177,0.013179,-0.0284811,-0.0119802,-0.105963,-0.331944,0.00120338,2.84954,-1.41524,2.84585,-1.59497,1.32008,1.1444,-0.00415812,0.168988,0.000518907,0.121598,-1.96869,0.450041,0.0327322,0.0177642,0.0584286,-0.0178017,0.0125966,-0.00624718,0.067642,0.328623,-0.00127983,0,0,0,0,0,0,0,-0.908932,-34.1216,-0.887743,24.8602,3.13995,0.87792,0.0641939,
0.168711,-0.00925004,0.121831,-1.95812,0.470816,0.104483,0.0167587,0.000704045,-0.0120615,0.00119382,0.0105599,0.0276105,0.0839426,-0.00116807,-0.0248142,0.0105432,-0.0227849,-0.00958418,-0.08477,-0.265555,0.000962707,2.84954,-1.41524,2.84585,-1.59497,1.32008,1.1444,-0.00415812,0.168988,0.000518907,0.121598,-1.96869,0.450041,0.0327322,0.0177642,0.0584286,-0.0178017,0.0125966,-0.00624718,0.067642,0.328623,-0.00127983,0,0,0,0,0,0,0,-0.908932,-34.1216,-0.887743,24.8602,3.13995,0.87792,0.0641939,
0.170133,-0.00943492,0.122896,-1.95859,0.473258,0.112718,0.0167655,0.000672688,-0.0119922,0.00116809,0.0104652,0.0275395,0.0829307,-0.00116324,-0.0195983,0.0433389,-0.0160787,-0.0592064,-0.0443452,-0.632456,0.00301911,2.84954,-1.41524,2.84585,-1.59497,1.32008,1.1444,-0.00415812,0.168988,0.000518907,0.121598,-1.96869,0.450041,0.0327322,0.0177642,0.0584286,-0.0178017,0.0125966,-0.00624718,0.067642,0.328623,-0.00127983,0,0,0,0,0,0,0,-0.908932,-34.1216,-0.887743,24.8602,3.13995,0.87792,0.0641939,
0.170133,-0.00943492,0.122896,-1.95859,0.473258,0.112718,0.0167655,0.000647602,-0.0119367,0.00114751,0.0103894,0.0274828,0.0821211,-0.00115938,-0.0156786,0.0346711,-0.0128629,-0.0473652,-0.0354762,-0.505965,0.00241529,2.84976,-1.36976,2.8474,-1.65561,1.32302,1.09288,-0.00389933,0.170111,0.000308868,0.122636,-1.96891,0.452791,0.0443974,0.0177614,0.0234495,-0.000971876,0.034739,0.00570137,0.0641136,0.330406,-0.00035847,-4.37238,2.10373,2.76779,1.49357,-0.441055,0.22287,0.115171,0.384403,-33.0742,0.286573,25.3085,3.18298,0.367972,0.0376436,
0.170133,-0.00943492,0.122896,-1.95859,0.473258,0.112718,0.0167655,0.000627533,-0.0118923,0.00113105,0.0103288,0.0274374,0.0814735,-0.00115629,-0.0125429,0.0277369,-0.0102903,-0.0378921,-0.0283809,-0.404772,0.00193223,2.84976,-1.36976,2.8474,-1.65561,1.32302,1.09288,-0.00389933,0.170111,0.000308868,0.122636,-1.96891,0.452791,0.0443974,0.0177614,0.0234495,-0.000971876,0.034739,0.00570137,0.0641136,0.330406,-0.00035847,0,0,0,0,0,0,0,0.384403,-33.0742,0.286573,25.3085,3.18298,0.367972,0.0376436,
0.170133,-0.00943492,0.122896,-1.95859,0.473258,0.112718,0.0167655,0.000611478,-0.0118568,0.00111788,0.0102803,0.027401,0.0809554,-0.00115381,-0.0100343,0.0221895,-0.00823227,-0.0303137,-0.0227047,-0.323817,0.00154578,2.84976,-1.36976,2.8474,-1.65561,1.32302,1.09288,-0.00389933,0.170111,0.000308868,0.122636,-1.96891,0.452791,0.0443974,0.0177614,0.0234495,-0.000971876,0.034739,0.00570137,0.0641136,0.330406,-0.00035847,0,0,0,0,0,0,0,0.384403,-33.0742,0.286573,25.3085,3.18298,0.367972,0.0376436,
0.17105,-0.00904852,0.123728,-1.95921,0.475975,0.121557,0.0167823,0.000599111,-0.0117354,0.00110338,0.0101617,0.027421,0.0798927,-0.00114832,-0.00772931,0.0759102,-0.00906016,-0.0741015,0.0124529,-0.664157,0.00343237,2.84976,-1.36976,2.8474,-1.65561,1.32302,1.09288,-0.00389933,0.170111,0.000308868,0.122636,-1.96891,0.452791,0.0443974,0.0177614,0.0234495,-0.000971876,0.034739,0.00570137,0.0641136,0.330406,-0.00035847,0,0,0,0,0,0,0,0.384403,-33.0742,0.286573,25.3085,3.18298,0.367972,0.0376436,
0.17105,-0.00904852,0.123728,-1.95921,0.475975,0.121557,0.0167823,0.000589218,-0.0116382,0.00109178,0.0100669,0.0274369,0.0790426,-0.00114393,-0.00618345,0.0607282,-0.00724813,-0.0592812,0.00996236,-0.531325,0.0027459,2.8514,-1.32674,2.85159,-1.7185,1.32584,1.04052,-0.00363319,0.170874,-8.97989e-05,0.123816,-1.9689,0.455252,0.0559592,0.0177584,0.0265955,-0.0189935,0.027744,0.00313547,0.0727396,0.327079,-0.00136556,0.393244,-2.2527,-0.87437,-0.320737,1.07825,-0.415859,-0.125886,0.336795,-32.8481,0.211195,24.039,3.07312,0.301138,0.0641939,
0.17105,-0.00904852,0.123728,-1.95921,0.475975,0.121557,0.0167823,0.000581303,-0.0115605,0.0010825,0.00999101,0.0274496,0.0783625,-0.00114041,-0.00494676,0.0485825,-0.0057985,-0.0474249,0.00796988,-0.42506,0.00219672,2.8514,-1.32674,2.85159,-1.7185,1.32584,1.04052,-0.00363319,0.170874,-8.97989e-05,0.123816,-1.9689,0.455252,0.0559592,0.0177584,0.0265955,-0.0189935,0.027744,0.00313547,0.0727396,0.327079,-0.00136556,0,0,0,0,0,0,0,0.336795,-32.8481,0.211195,24.039,3.07312,0.301138,0.0641939,
0.17105,-0.00904852,0.123728,-1.95921,0.475975,0.121557,0.0167823,0.000574971,-0.0114983,0.00107508,0.00993031,0.0274598,0.0778184,-0.0011376,-0.00395741,0.038866,-0.0046388,-0.03794,0.00637591,-0.340048,0.00175737,2.8514,-1.32674,2.85159,-1.7185,1.32584,1.04052,-0.00363319,0.170874,-8.97989e-05,0.123816,-1.9689,0.455252,0.0559592,0.0177584,0.0265955,-0.0189935,0.027744,0.00313547,0.0727396,0.327079,-0.00136556,0,0,0,0,0,0,0,0.336795,-32.8481,0.211195,24.039,3.07312,0.301138,0.0641939,
0.171792,-0.0095932,0.124918,-1.95945,0.478786,0.12974,0.0167981,0.000570312,-0.0114105,0.00107735,0.00979174,0.0274817,0.0766711,-0.00113147,-0.00291222,0.0548934,0.00142019,-0.0866063,0.0136781,-0.717056,0.00382993,2.8514,-1.32674,2.85159,-1.7185,1.32584,1.04052,-0.00363319,0.170874,-8.97989e-05,0.123816,-1.9689,0.455252,0.0559592,0.0177584,0.0265955,-0.0189935,0.027744,0.00313547,0.0727396,0.327079,-0.00136556,0,0,0,0,0,0,0,0.336795,-32.8481,0.211195,24.039,3.07312,0.301138,0.0641939,
0.171792,-0.0095932,0.124918,-1.95945,0.478786,0.12974,0.0167981,0.000566584,-0.0113402,0.00107917,0.00968088,0.0274992,0.0757533,-0.00112657,-0.00232978,0.0439147,0.00113615,-0.069285,0.0109425,-0.573645,0.00306394,2.84775,-1.30009,2.85012,-1.76411,1.32861,0.99555,-0.00341664,0.171843,-0.000425505,0.124573,-1.96895,0.457782,0.0659254,0.0177562,0.0269914,-0.00090768,0.0257799,-0.00055263,0.058373,0.268968,-0.000710518,0.0494847,2.26072,-0.245506,-0.461013,-1.79582,-7.26383,0.0818802,0.435978,-33.1496,0.488905,24.8602,3.27453,0.898062,0.0440523,
0.171792,-0.0095932,0.124918,-1.95945,0.478786,0.12974,0.0167981,0.000563602,-0.011284,0.00108063,0.0095922,0.0275132,0.0750191,-0.00112265,-0.00186382,0.0351318,0.000908924,-0.055428,0.00875401,-0.458916,0.00245115,2.84775,-1.30009,2.85012,-1.76411,1.32861,0.99555,-0.00341664,0.171843,-0.000425505,0.124573,-1.96895,0.457782,0.0659254,0.0177562,0.0269914,-0.00090768,0.0257799,-0.00055263,0.058373,0.268968,-0.000710518,0,0,0,0,0,0,0,0.435978,-33.1496,0.488905,24.8602,3.27453,0.898062,0.0440523,
0.171792,-0.0095932,0.124918,-1.95945,0.478786,0.12974,0.0167981,0.000561216,-0.011239,0.00108179,0.00952125,0.0275244,0.0744316,-0.00111951,-0.00149106,0.0281054,0.000727139,-0.0443424,0.0070032,-0.367133,0.00196092,2.84775,-1.30009,2.85012,-1.76411,1.32861,0.99555,-0.00341664,0.171843,-0.000425505,0.124573,-1.96895,0.457782,0.0659254,0.0177562,0.0269914,-0.00090768,0.0257799,-0.00055263,0.058373,0.268968,-0.000710518,0,0,0,0,0,0,0,0.435978,-33.1496,0.488905,24.8602,3.27453,0.898062,0.0440523,
0.172777,-0.00921694,0.125681,-1.96011,0.480983,0.136252,0.0168109,0.000559655,-0.0111343,0.00107866,0.00940942,0.0275706,0.0735224,-0.00111457,-0.000975722,0.0654604,-0.00195561,-0.0698947,0.0288653,-0.568285,0.00308967,2.84775,-1.30009,2.85012,-1.76411,1.32861,0.99555,-0.00341664,0.171843,-0.000425505,0.124573,-1.96895,0.457782,0.0659254,0.0177562,0.0269914,-0.00090768,0.0257799,-0.00055263,0.058373,0.268968,-0.000710518,0,0,0,0,0,0,0,0.435978,-33.1496,0.488905,24.8602,3.27453,0.898062,0.0440523,
0.172777,-0.00921694,0.125681,-1.96011,0.480983,0.136252,0.0168109,0.000558406,-0.0110505,0.00107616,0.00931995,0.0276076,0.072795,-0.00111061,-0.000780577,0.0523683,-0.00156449,-0.0559158,0.0230923,-0.454628,0.00247174,2.84679,-1.27035,2.85048,-1.80645,1.32985,0.958582,-0.00323413,0.172663,-0.000627195,0.125517,-1.9692,0.460217,0.0747097,0.0177572,0.019789,-0.00872334,0.0398193,-0.00464848,0.0675131,0.240751,0.000167436,-0.900298,-0.976957,1.75492,-0.511981,1.14251,-3.52717,0.109744,0.412174,-32.7727,0.286573,25.1102,3.17657,1.28258,0.0303194,
0.172777,-0.00921694,0.125681,-1.96011,0.480983,0.136252,0.0168109,0.000557407,-0.0109835,0.00107416,0.00924838,0.0276371,0.0722131,-0.00110745,-0.000624462,0.0418947,-0.00125159,-0.0447326,0.0184738,-0.363702,0.00197739,2.84679,-1.27035,2.85048,-1.80645,1.32985,0.958582,-0.00323413,0.172663,-0.000627195,0.125517,-1.9692,0.460217,0.0747097,0.0177572,0.019789,-0.00872334,0.0398193,-0.00464848,0.0675131,0.240751,0.000167436,0,0,0,0,0,0,0,0.412174,-32.7727,0.286573,25.1102,3.17657,1.28258,0.0303194,
0.173738,-0.00938009,0.126781,-1.96065,0.48367,0.142227,0.0168235,0.00055685,-0.0108968,0.00107563,0.00913187,0.0276491,0.0713047,-0.00110239,-0.000348212,0.0541875,0.000918716,-0.0728193,0.00748251,-0.567696,0.00316358,2.84679,-1.27035,2.85048,-1.80645,1.32985,0.958582,-0.00323413,0.172663,-0.000627195,0.125517,-1.9692,0.460217,0.0747097,0.0177572,0.019789,-0.00872334,0.0398193,-0.00464848,0.0675131,0.240751,0.000167436,0,0,0,0,0,0,0,0.412174,-32.7727,0.286573,25.1102,3.17657,1.28258,0.0303194,
0.173738,-0.00938009,0.126781,-1.96065,0.48367,0.142227,0.0168235,0.000556404,-0.0108274,0.0010768,0.00903866,0.0276587,0.0705781,-0.00109834,-0.000278569,0.04335,0.000734973,-0.0582554,0.00598601,-0.454157,0.00253086,2.84679,-1.27035,2.85048,-1.80645,1.32985,0.958582,-0.00323413,0.172663,-0.000627195,0.125517,-1.9692,0.460217,0.0747097,0.0177572,0.019789,-0.00872334,0.0398193,-0.00464848,0.0675131,0.240751,0.000167436,0,0,0,0,0,0,0,0.412174,-32.7727,0.286573,25.1102,3.17657,1.28258,0.0303194,
0.173738,-0.00938009,0.126781,-1.96065,0.48367,0.142227,0.0168235,0.000556047,-0.0107719,0.00107774,0.00896409,0.0276664,0.0699968,-0.0010951,-0.000222855,0.03468,0.000587978,-0.0466043,0.00478881,-0.363325,0.00202469,2.84679,-1.27035,2.85048,-1.80645,1.32985,0.958582,-0.00323413,0.172663,-0.000627195,0.125517,-1.9692,0.460217,0.0747097,0.0177572,0.019789,-0.00872334,0.0398193,-0.00464848,0.0675131,0.240751,0.000167436,0,0,0,0,0,0,0,0.412174,-32.7727,0.286573,25.1102,3.17657,1.28258,0.0303194,
0.173738,-0.00938009,0.126781,-1.96065,0.48367,0.142227,0.0168235,0.000555762,-0.0107275,0.0010785,0.00890444,0.0276725,0.0695317,-0.00109251,-0.000178284,0.027744,0.000470383,-0.0372835,0.00383104,-0.29066,0.00161975,2.84695,-1.24424,2.85226,-1.84752,1.33061,0.924238,-0.00305809,0.173606,-0.000873402,0.126499,-1.96945,0.462731,0.0827971,0.0177579,0.0360713,-0.00646215,0.0235344,-0.00854369,0.0691461,0.233541,0.000103508,2.03528,0.282648,-2.03562,-0.486901,0.204127,-0.901206,-0.00799101,-0.0718349,-33.5463,-0.110155,25.0348,3.06121,1.31554,0.0239107,
0.174694,-0.00936526,0.127779,-1.96122,0.486165,0.148062,0.0168365,0.000555798,-0.0106504,0.0010798,0.00880194,0.0276799,0.0687471,-0.00108808,2.26179e-05,0.0481798,0.000816068,-0.0640593,0.00463302,-0.490406,0.00276958,2.84695,-1.24424,2.85226,-1.84752,1.33061,0.924238,-0.00305809,0.173606,-0.000873402,0.126499,-1.96945,0.462731,0.0827971,0.0177579,0.0360713,-0.00646215,0.0235344,-0.00854369,0.0691461,0.233541,0.000103508,0,0,0,0,0,0,0,-0.0718349,-33.5463,-0.110155,25.0348,3.06121,1.31554,0.0239107,
0.174694,-0.00936526,0.127779,-1.96122,0.486165,0.148062,0.0168365,0.000555827,-0.0105888,0.00108085,0.00871995,0.0276858,0.0681193,-0.00108453,1.80943e-05,0.0385438,0.000652854,-0.0512475,0.00370641,-0.392325,0.00221566,2.84695,-1.24424,2.85226,-1.84752,1.33061,0.924238,-0.00305809,0.173606,-0.000873402,0.126499,-1.96945,0.462731,0.0827971,0.0177579,0.0360713,-0.00646215,0.0235344,-0.00854369,0.0691461,0.233541,0.000103508,0,0,0,0,0,0,0,-0.0718349,-33.5463,-0.110155,25.0348,3.06121,1.31554,0.0239107,
0.174694,-0.00936526,0.127779,-1.96122,0.486165,0.148062,0.0168365,0.00055585,-0.0105394,0.00108168,0.00865435,0.0276906,0.0676172,-0.0010817,1.44755e-05,0.0308351,0.000522283,-0.040998,0.00296513,-0.31386,0.00177253,2.84695,-1.24424,2.85226,-1.84752,1.33061,0.924238,-0.00305809,0.173606,-0.000873402,0.126499,-1.96945,0.462731,0.0827971,0.0177579,0.0360713,-0.00646215,0.0235344,-0.00854369,0.0691461,0.233541,0.000103508,0,0,0,0,0,0,0,-0.0718349,-33.5463,-0.110155,25.0348,3.06121,1.31554,0.0239107,
0.174694,-0.00936526,0.127779,-1.96122,0.486165,0.148062,0.0168365,0.000555869,-0.0105,0.00108235,0.00860187,0.0276944,0.0672154,-0.00107943,1.15804e-05,0.0246681,0.000417827,-0.0327984,0.0023721,-0.251088,0.00141802,2.84787,-1.2093,2.85409,-1.89214,1.3315,0.889293,-0.00288029,0.174473,-0.00100677,0.127489,-1.96976,0.465292,0.0913512,0.017755,0.0276437,-0.00367319,0.037029,-0.00719077,0.0809235,0.260395,-0.00137563,-1.05344,0.34862,1.68683,0.169115,1.47218,3.35673,-0.184893,0.0313145,-33.1972,0.187391,25.1855,3.0365,1.27617,0.050461,
0.175599,-0.00926473,0.128811,-1.96177,0.489032,0.154759,0.0168444,0.000556214,-0.0104137,0.00108255,0.00849687,0.0277025,0.0664209,-0.0010749,0.000215649,0.0539345,0.000125279,-0.065628,0.00509372,-0.49658,0.00283102,2.84787,-1.2093,2.85409,-1.89214,1.3315,0.889293,-0.00288029,0.174473,-0.00100677,0.127489,-1.96976,0.465292,0.0913512,0.017755,0.0276437,-0.00367319,0.037029,-0.00719077,0.0809235,0.260395,-0.00137563,0,0,0,0,0,0,0,0.0313145,-33.1972,0.187391,25.1855,3.0365,1.27617,0.050461,
0.175599,-0.00926473,0.128811,-1.96177,0.489032,0.154759,0.0168444,0.00055649,-0.0103446,0.00108271,0.00841287,0.027709,0.0657853,-0.00107127,0.000172519,0.0431476,0.000100223,-0.0525024,0.00407498,-0.397264,0.00226482,2.84787,-1.2093,2.85409,-1.89214,1.3315,0.889293,-0.00288029,0.174473,-0.00100677,0.127489,-1.96976,0.465292,0.0913512,0.017755,0.0276437,-0.00367319,0.037029,-0.00719077,0.0809235,0.260395,-0.00137563,0,0,0,0,0,0,0,0.0313145,-33.1972,0.187391,25.1855,3.0365,1.27617,0.050461,
0.175599,-0.00926473,0.128811,-1.96177,0.489032,0.154759,0.0168444,0.000556711,-0.0102894,0.00108284,0.00834566,0.0277142,0.0652768,-0.00106838,0.000138015,0.0345181,8.01788e-05,-0.0420019,0.00325998,-0.317811,0.00181185,2.84787,-1.2093,2.85409,-1.89214,1.3315,0.889293,-0.00288029,0.174473,-0.00100677,0.127489,-1.96976,0.465292,0.0913512,0.017755,0.0276437,-0.00367319,0.037029,-0.00719077,0.0809235,0.260395,-0.00137563,0,0,0,0,0,0,0,0.0313145,-33.1972,0.187391,25.1855,3.0365,1.27617,0.050461,
0.175599,-0.00926473,0.128811,-1.96177,0.489032,0.154759,0.0168444,0.000556888,-0.0102452,0.00108294,0.0082919,0.0277184,0.06487,-0.00106606,0.000110412,0.0276144,6.4143e-05,-0.0336015,0.00260799,-0.254249,0.00144948,2.84819,-1.18349,2.85521,-1.9311,1.3337,0.855026,-0.00270906,0.175179,-0.00112408,0.128572,-1.97009,0.467849,0.0996168,0.017755,0.0200613,-0.00308849,0.0336238,-0.0065564,0.0880059,0.22142,-0.0011009,-0.947805,0.0730875,-0.425643,0.0792965,0.885303,-4.87186,0.0343415,0.134464,-33.5225,0.163588,24.9118,2.97516,1.05736,0.050461,
0.176219,-0.00916547,0.12981,-1.9624,0.491594,0.160544,0.0168593,0.000557302,-0.0101654,0.0010826,0.00819655,0.0277279,0.0641563,-0.00106195,0.000258941,0.0499,-0.000212062,-0.0595953,0.00589977,-0.446047,0.00256727,2.84819,-1.18349,2.85521,-1.9311,1.3337,0.855026,-0.00270906,0.175179,-0.00112408,0.128572,-1.97009,0.467849,0.0996168,0.017755,0.0200613,-0.00308849,0.0336238,-0.0065564,0.0880059,0.22142,-0.0011009,0,0,0,0,0,0,0,0.134464,-33.5225,0.163588,24.9118,2.97516,1.05736,0.050461,
0.176219,-0.00916547,0.12981,-1.9624,0.491594,0.160544,0.0168593,0.000557633,-0.0101015,0.00108233,0.00812027,0.0277354,0.0635854,-0.00105866,0.000207152,0.03992,-0.000169649,-0.0476762,0.00471981,-0.356838,0.00205382,2.84819,-1.18349,2.85521,-1.9311,1.3337,0.855026,-0.00270906,0.175179,-0.00112408,0.128572,-1.97009,0.467849,0.0996168,0.017755,0.0200613,-0.00308849,0.0336238,-0.0065564,0.0880059,0.22142,-0.0011009,0,0,0,0,0,0,0,0.134464,-33.5225,0.163588,24.9118,2.97516,1.05736,0.050461,
0.176219,-0.00916547,0.12981,-1.9624,0.491594,0.160544,0.0168593,0.000557898,-0.0100504,0.00108211,0.00805924,0.0277415,0.0631286,-0.00105603,0.000165722,0.031936,-0.00013572,-0.038141,0.00377585,-0.28547,0.00164306,2.84819,-1.18349,2.85521,-1.9311,1.3337,0.855026,-0.00270906,0.175179,-0.00112408,0.128572,-1.97009,0.467849,0.0996168,0.017755,0.0200613,-0.00308849,0.0336238,-0.0065564,0.0880059,0.22142,-0.0011009,0,0,0,0,0,0,0,0.134464,-33.5225,0.163588,24.9118,2.97516,1.05736,0.050461,
0.177037,-0.0093615,0.130622,-1.96299,0.494001,0.166333,0.0168778,0.000558403,-0.00997772,0.00108536,0.0079542,0.0277598,0.0623396,-0.00105151,0.000315468,0.0454354,0.00203153,-0.0656493,0.0114811,-0.493114,0.00282691,2.84888,-1.15647,2.85739,-1.9712,1.33461,0.822954,-0.0025277,0.176042,-0.00134423,0.129415,-1.97046,0.470355,0.107403,0.0177602,0.0256614,-0.0135715,0.0251498,-0.014967,0.0798124,0.228233,0.00115916,0.700017,-1.31038,-1.05925,-1.05132,-1.02419,0.851682,0.282507,0.285221,-33.5741,0.286573,25.2332,3.03009,1.14342,0.00376909,
0.177037,-0.0093615,0.130622,-1.96299,0.494001,0.166333,0.0168778,0.000558807,-0.00991956,0.00108796,0.00787017,0.0277745,0.0617084,-0.00104789,0.000252375,0.0363483,0.00162522,-0.0525195,0.00918487,-0.394491,0.00226153,2.84888,-1.15647,2.85739,-1.9712,1.33461,0.822954,-0.0025277,0.176042,-0.00134423,0.129415,-1.97046,0.470355,0.107403,0.0177602,0.0256614,-0.0135715,0.0251498,-0.014967,0.0798124,0.228233,0.00115916,0,0,0,0,0,0,0,0.285221,-33.5741,0.286573,25.2332,3.03009,1.14342,0.00376909,
0.177037,-0.0093615,0.130622,-1.96299,0.494001,0.166333,0.0168778,0.00055913,-0.00987304,0.00109004,0.00780294,0.0277863,0.0612035,-0.001045,0.0002019,0.0290787,0.00130018,-0.0420156,0.00734789,-0.315593,0.00180922,2.84888,-1.15647,2.85739,-1.9712,1.33461,0.822954,-0.0025277,0.176042,-0.00134423,0.129415,-1.97046,0.470355,0.107403,0.0177602,0.0256614,-0.0135715,0.0251498,-0.014967,0.0798124,0.228233,0.00115916,0,0,0,0,0,0,0,0.285221,-33.5741,0.286573,25.2332,3.03009,1.14342,0.00376909,
0.177037,-0.0093615,0.130622,-1.96299,0.494001,0.166333,0.0168778,0.000559388,-0.00983582,0.00109171,0.00774916,0.0277957,0.0607995,-0.00104268,0.00016152,0.0232629,0.00104014,-0.0336125,0.00587832,-0.252474,0.00144738,2.84888,-1.15647,2.85739,-1.9712,1.33461,0.822954,-0.0025277,0.176042,-0.00134423,0.129415,-1.97046,0.470355,0.107403,0.0177602,0.0256614,-0.0135715,0.0251498,-0.014967,0.0798124,0.228233,0.00115916,0,0,0,0,0,0,0,0.285221,-33.5741,0.286573,25.2332,3.03009,1.14342,0.00376909,
0.177037,-0.0093615,0.130622,-1.96299,0.494001,0.166333,0.0168778,0.000559595,-0.00980604,0.00109304,0.00770614,0.0278032,0.0604764,-0.00104083,0.000129216,0.0186104,0.000832113,-0.02689,0.00470265,-0.201979,0.0011579,2.84745,-1.12801,2.85653,-2.00897,1.33571,0.791856,-0.00235586,0.176782,-0.00142237,0.130394,-1.97083,0.472862,0.115205,0.017755,0.0163125,-0.00176078,0.0371147,-0.012676,0.0691864,0.225508,-0.00123473,-1.16862,1.47634,1.4956,0.286369,-1.32826,-0.340641,-0.299236,0.384403,-33.5225,0.286573,25.1855,3.00628,1.28258,0.050461,
0.177037,-0.0093615,0.130622,-1.96299,0.494001,0.166333,0.0168778,0.000559761,-0.00978222,0.00109411,0.00767172,0.0278092,0.0602178,-0.00103935,0.000103373,0.0148883,0.000665691,-0.021512,0.00376212,-0.161584,0.000926323,2.84745,-1.12801,2.85653,-2.00897,1.33571,0.791856,-0.00235586,0.176782,-0.00142237,0.130394,-1.97083,0.472862,0.115205,0.017755,0.0163125,-0.00176078,0.0371147,-0.012676,0.0691864,0.225508,-0.00123473,0,0,0,0,0,0,0,0.384403,-33.5225,0.286573,25.1855,3.00628,1.28258,0.050461,
0.177037,-0.0093615,0.130622,-1.96299,0.494001,0.166333,0.0168778,0.000559893,-0.00976316,0.00109496,0.00764419,0.027814,0.060011,-0.00103816,8.26981e-05,0.0119106,0.000532552,-0.0172096,0.0030097,-0.129267,0.000741058,2.84745,-1.12801,2.85653,-2.00897,1.33571,0.791856,-0.00235586,0.176782,-0.00142237,0.130394,-1.97083,0.472862,0.115205,0.017755,0.0163125,-0.00176078,0.0371147,-0.012676,0.0691864,0.225508,-0.00123473,0,0,0,0,0,0,0,0.384403,-33.5225,0.286573,25.1855,3.00628,1.28258,0.050461,
0.177037,-0.0093615,0.130622,-1.96299,0.494001,0.166333,0.0168778,0.000559999,-0.00974792,0.00109564,0.00762216,0.0278179,0.0598455,-0.00103721,6.61585e-05,0.0095285,0.000426042,-0.0137677,0.00240776,-0.103413,0.000592847,2.84745,-1.12801,2.85653,-2.00897,1.33571,0.791856,-0.00235586,0.176782,-0.00142237,0.130394,-1.97083,0.472862,0.115205,0.017755,0.0163125,-0.00176078,0.0371147,-0.012676,0.0691864,0.225508,-0.00123473,0,0,0,0,0,0,0,0.384403,-33.5225,0.286573,25.1855,3.00628,1.28258,0.050461,
0.177783,-0.0089869,0.131597,-1.9637,0.496408,0.172217,0.0168815,0.000560402,-0.00967702,0.00109208,0.00755629,0.0278499,0.0593503,-0.00103434,0.000252188,0.0443087,-0.00222629,-0.0411646,0.019987,-0.309529,0.00179337,2.84781,-1.10829,2.85836,-2.04186,1.3365,0.76449,-0.00221307,0.177669,-0.00163829,0.131246,-1.97134,0.475415,0.122243,0.0177602,0.0399515,-0.0134949,0.0156128,-0.0194477,0.0792557,0.196561,0.00044065,2.95488,-1.46676,-2.68774,-0.846457,1.25867,-3.61847,0.209423,0.134464,-33.3717,0.187391,25.3323,2.99347,1.43548,0.00376909,
0.177783,-0.0089869,0.131597,-1.9637,0.496408,0.172217,0.0168815,0.000560725,-0.00962031,0.00108923,0.0075036,0.0278755,0.0589541,-0.00103205,0.00020175,0.035447,-0.00178103,-0.0329317,0.0159896,-0.247623,0.0014347,2.84781,-1.10829,2.85836,-2.04186,1.3365,0.76449,-0.00221307,0.177669,-0.00163829,0.131246,-1.97134,0.475415,0.122243,0.0177602,0.0399515,-0.0134949,0.0156128,-0.0194477,0.0792557,0.196561,0.00044065,0,0,0,0,0,0,0,0.134464,-33.3717,0.187391,25.3323,2.99347,1.43548,0.00376909,
0.177783,-0.0089869,0.131597,-1.9637,0.496408,0.172217,0.0168815,0.000560983,-0.00957494,0.00108695,0.00746145,0.0278959,0.0586371,-0.00103021,0.0001614,0.0283576,-0.00142483,-0.0263453,0.0127917,-0.198098,0.00114776,2.84781,-1.10829,2.85836,-2.04186,1.3365,0.76449,-0.00221307,0.177669,-0.00163829,0.131246,-1.97134,0.475415,0.122243,0.0177602,0.0399515,-0.0134949,0.0156128,-0.0194477,0.0792557,0.196561,0.00044065,0,0,0,0,0,0,0,0.134464,-33.3717,0.187391,25.3323,2.99347,1.43548,0.00376909,
0.177783,-0.0089869,0.131597,-1.9637,0.496408,0.172217,0.0168815,0.00056119,-0.00953864,0.00108512,0.00742773,0.0279123,0.0583836,-0.00102874,0.00012912,0.0226861,-0.00113986,-0.0210763,0.0102334,-0.158479,0.000918206,2.84781,-1.10829,2.85836,-2.04186,1.3365,0.76449,-0.00221307,0.177669,-0.00163829,0.131246,-1.97134,0.475415,0.122243,0.0177602,0.0399515,-0.0134949,0.0156128,-0.0194477,0.0792557,0.196561,0.00044065,0,0,0,0,0,0,0,0.134464,-33.3717,0.187391,25.3323,2.99347,1.43548,0.00376909,
0.178768,-0.00928869,0.132561,-1.96443,0.499117,0.177046,0.0168974,0.000561524,-0.00949622,0.0010885,0.00735366,0.0279038,0.0578565,-0.0010256,0.000208699,0.0265086,0.00211296,-0.0462964,-0.005319,-0.329447,0.00196354,2.84596,-1.08564,2.8569,-2.07309,1.33637,0.739635,-0.00207683,0.178401,-0.00168627,0.132281,-1.97174,0.478038,0.128842,0.0177595,0.0142466,0.00465713,0.0462136,-0.0117895,0.0753627,0.188896,0.000449253,-3.21312,2.269,3.8251,0.957271,-0.486625,-0.958056,0.00107542,0.384403,-33.824,0.361952,25.2847,2.87811,1.4547,0.0101778,
0.178768,-0.00928869,0.132561,-1.96443,0.499117,0.177046,0.0168974,0.000561791,-0.00946229,0.00109121,0.0072944,0.027897,0.0574348,-0.00102309,0.000166959,0.0212069,0.00169037,-0.0370371,-0.0042552,-0.263557,0.00157083,2.84596,-1.08564,2.8569,-2.07309,1.33637,0.739635,-0.00207683,0.178401,-0.00168627,0.132281,-1.97174,0.478038,0.128842,0.0177595,0.0142466,0.00465713,0.0462136,-0.0117895,0.0753627,0.188896,0.000449253,0,0,0,0,0,0,0,0.384403,-33.824,0.361952,25.2847,2.87811,1.4547,0.0101778,
0.178768,-0.00928869,0.132561,-1.96443,0.499117,0.177046,0.0168974,0.000562005,-0.00943515,0.00109337,0.00724699,0.0278915,0.0570974,-0.00102108,0.000133567,0.0169655,0.0013523,-0.0296297,-0.00340416,-0.210846,0.00125666,2.84596,-1.08564,2.8569,-2.07309,1.33637,0.739635,-0.00207683,0.178401,-0.00168627,0.132281,-1.97174,0.478038,0.128842,0.0177595,0.0142466,0.00465713,0.0462136,-0.0117895,0.0753627,0.188896,0.000449253,0,0,0,0,0,0,0,0.384403,-33.824,0.361952,25.2847,2.87811,1.4547,0.0101778,
0.17954,-0.00884143,0.133626,-1.96514,0.501677,0.182097,0.0169035,0.000562412,-0.0093604,0.00108993,0.00716965,0.0278922,0.0565536,-0.00101778,0.000254708,0.046715,-0.00214943,-0.0483348,0.000406218,-0.339898,0.00205959,2.84596,-1.08564,2.8569,-2.07309,1.33637,0.739635,-0.00207683,0.178401,-0.00168627,0.132281,-1.97174,0.478038,0.128842,0.0177595,0.0142466,0.00465713,0.0462136,-0.0117895,0.0753627,0.188896,0.000449253,0,0,0,0,0,0,0,0.384403,-33.824,0.361952,25.2847,2.87811,1.4547,0.0101778,
0.17954,-0.00884143,0.133626,-1.96514,0.501677,0.182097,0.0169035,0.000562738,-0.00930061,0.00108718,0.00710778,0.0278927,0.0561185,-0.00101514,0.000203766,0.037372,-0.00171954,-0.0386678,0.000324975,-0.271919,0.00164767,2.84596,-1.08564,2.8569,-2.07309,1.33637,0.739635,-0.00207683,0.178401,-0.00168627,0.132281,-1.97174,0.478038,0.128842,0.0177595,0.0142466,0.00465713,0.0462136,-0.0117895,0.0753627,0.188896,0.000449253,0,0,0,0,0,0,0,0.384403,-33.824,0.361952,25.2847,2.87811,1.4547,0.0101778,
0.17954,-0.00884143,0.133626,-1.96514,0.501677,0.182097,0.0169035,0.000562999,-0.00925277,0.00108498,0.00705829,0.0278931,0.0557705,-0.00101304,0.000163013,0.0298976,-0.00137563,-0.0309343,0.00025998,-0.217535,0.00131813,2.84653,-1.06374,2.85815,-2.10568,1.33681,0.714365,-0.00193247,0.179168,-0.00177807,0.133308,-1.97218,0.48058,0.135431,0.0177609,0.0384277,-0.00256254,0.0173359,-0.0137395,0.0733652,0.18725,0.000690868,3.02264,-0.902458,-3.60971,-0.243753,-0.249686,-0.205725,0.0302019,0.182071,-33.4471,0.187391,25.2332,2.84698,1.42174,-0.0026396,
0.17954,-0.00884143,0.133626,-1.96514,0.501677,0.182097,0.0169035,0.000563208,-0.0092145,0.00108322,0.00701869,0.0278934,0.055492,-0.00101135,0.00013041,0.0239181,-0.00110051,-0.0247474,0.000207984,-0.174028,0.00105451,2.84653,-1.06374,2.85815,-2.10568,1.33681,0.714365,-0.00193247,0.179168,-0.00177807,0.133308,-1.97218,0.48058,0.135431,0.0177609,0.0384277,-0.00256254,0.0173359,-0.0137395,0.0733652,0.18725,0.000690868,0,0,0,0,0,0,0,0.182071,-33.4471,0.187391,25.2332,2.84698,1.42174,-0.0026396,
0.180254,-0.00893149,0.134604,-1.96574,0.504187,0.187111,0.0169156,0.000563609,-0.00915676,0.00108386,0.00693981,0.0278936,0.0549351,-0.001008,0.000251079,0.0360908,0.000397874,-0.0493025,7.91398e-05,-0.348089,0.00209295,2.84653,-1.06374,2.85815,-2.10568,1.33681,0.714365,-0.00193247,0.179168,-0.00177807,0.133308,-1.97218,0.48058,0.135431,0.0177609,0.0384277,-0.00256254,0.0173359,-0.0137395,0.0733652,0.18725,0.000690868,0,0,0,0,0,0,0,0.182071,-33.4471,0.187391,25.2332,2.84698,1.42174,-0.0026396,
0.180254,-0.00893149,0.134604,-1.96574,0.504187,0.187111,0.0169156,0.000563931,-0.00911056,0.00108437,0.0068767,0.0278937,0.0544895,-0.00100532,0.000200863,0.0288726,0.000318299,-0.039442,6.33119e-05,-0.278471,0.00167436,2.84653,-1.06374,2.85815,-2.10568,1.33681,0.714365,-0.00193247,0.179168,-0.00177807,0.133308,-1.97218,0.48058,0.135431,0.0177609,0.0384277,-0.00256254,0.0173359,-0.0137395,0.0733652,0.18725,0.000690868,0,0,0,0,0,0,0,0.182071,-33.4471,0.187391,25.2332,2.84698,1.42174,-0.0026396,
0.180254,-0.00893149,0.134604,-1.96574,0.504187,0.187111,0.0169156,0.000564188,-0.00907361,0.00108477,0.00682622,0.0278938,0.0541331,-0.00100318,0.00016069,0.0230981,0.000254639,-0.0315536,5.06495e-05,-0.222777,0.00133949,2.84717,-1.04447,2.85921,-2.1337,1.3369,0.692332,-0.00181866,0.180121,-0.0018331,0.134161,-1.97257,0.483231,0.141335,0.0177587,0.02196,0.00117485,0.0284288,-0.0162581,0.0843885,0.171496,1.97503e-05,-2.05845,0.467173,1.38661,-0.314826,1.37792,-1.96925,-0.0838898,0.158268,-33.7486,0.211195,25.4593,2.80487,1.5609,0.017502,
0.180254,-0.00893149,0.134604,-1.96574,0.504187,0.187111,0.0169156,0.000564394,-0.00904404,0.0010851,0.00678583,0.0278938,0.0538479,-0.00100146,0.000128552,0.0184785,0.000203711,-0.0252429,4.05196e-05,-0.178222,0.00107159,2.84717,-1.04447,2.85921,-2.1337,1.3369,0.692332,-0.00181866,0.180121,-0.0018331,0.134161,-1.97257,0.483231,0.141335,0.0177587,0.02196,0.00117485,0.0284288,-0.0162581,0.0843885,0.171496,1.97503e-05,0,0,0,0,0,0,0,0.158268,-33.7486,0.211195,25.4593,2.80487,1.5609,0.017502,
0.181168,-0.00873146,0.135417,-1.96638,0.506806,0.191507,0.0169236,0.000564739,-0.00898247,0.00108332,0.00671635,0.0278782,0.0533776,-0.000998546,0.000216151,0.0384799,-0.00111377,-0.0434235,-0.00976198,-0.293938,0.00182276,2.84717,-1.04447,2.85921,-2.1337,1.3369,0.692332,-0.00181866,0.180121,-0.0018331,0.134161,-1.97257,0.483231,0.141335,0.0177587,0.02196,0.00117485,0.0284288,-0.0162581,0.0843885,0.171496,1.97503e-05,0,0,0,0,0,0,0,0.158268,-33.7486,0.211195,25.4593,2.80487,1.5609,0.017502,
0.181168,-0.00873146,0.135417,-1.96638,0.506806,0.191507,0.0169236,0.000565016,-0.00893322,0.00108189,0.00666077,0.0278657,0.0530014,-0.000996213,0.000172921,0.0307839,-0.00089102,-0.0347388,-0.00780959,-0.23515,0.00145821,2.84717,-1.04447,2.85921,-2.1337,1.3369,0.692332,-0.00181866,0.180121,-0.0018331,0.134161,-1.97257,0.483231,0.141335,0.0177587,0.02196,0.00117485,0.0284288,-0.0162581,0.0843885,0.171496,1.97503e-05,0,0,0,0,0,0,0,0.158268,-33.7486,0.211195,25.4593,2.80487,1.5609,0.017502,
0.181168,-0.00873146,0.135417,-1.96638,0.506806,0.191507,0.0169236,0.000565237,-0.00889382,0.00108075,0.0066163,0.0278557,0.0527004,-0.000994347,0.000138337,0.0246271,-0.000712816,-0.027791,-0.00624767,-0.18812,0.00116657,2.84657,-1.02488,2.85914,-2.1625,1.3359,0.671159,-0.00168992,0.180945,-0.00190219,0.135171,-1.97297,0.485902,0.14715,0.0177602,0.0173638,-0.000612599,0.0359669,-0.0138851,0.0778611,0.172589,0.000207403,-0.574535,-0.223431,0.942262,0.296623,-0.815932,0.136645,0.0234566,0.384403,-33.6217,0.286573,25.4831,2.74353,1.60119,0.00376909,
0.181168,-0.00873146,0.135417,-1.96638,0.506806,0.191507,0.0169236,0.000565415,-0.00886229,0.00107984,0.00658073,0.0278477,0.0524596,-0.000992854,0.00011067,0.0197017,-0.000570253,-0.0222328,-0.00499814,-0.150496,0.000933253,2.84657,-1.02488,2.85914,-2.1625,1.3359,0.671159,-0.00168992,0.180945,-0.00190219,0.135171,-1.97297,0.485902,0.14715,0.0177602,0.0173638,-0.000612599,0.0359669,-0.0138851,0.0778611,0.172589,0.000207403,0,0,0,0,0,0,0,0.384403,-33.6217,0.286573,25.4831,2.74353,1.60119,0.00376909,
0.182016,-0.00874562,0.136457,-1.96693,0.50941,0.196006,0.0169319,0.000565746,-0.00881137,0.00108011,0.00651032,0.0278269,0.0519871,-0.000989916,0.000207458,0.0318258,0.000168217,-0.0440047,-0.013022,-0.295322,0.00183598,2.84657,-1.02488,2.85914,-2.1625,1.3359,0.671159,-0.00168992,0.180945,-0.00190219,0.135171,-1.97297,0.485902,0.14715,0.0177602,0.0173638,-0.000612599,0.0359669,-0.0138851,0.0778611,0.172589,0.000207403,0,0,0,0,0,0,0,0.384403,-33.6217,0.286573,25.4831,2.74353,1.60119,0.00376909,
0.182016,-0.00874562,0.136457,-1.96693,0.50941,0.196006,0.0169319,0.000566012,-0.00877063,0.00108032,0.006454,0.0278102,0.0516091,-0.000987566,0.000165966,0.0254607,0.000134573,-0.0352038,-0.0104176,-0.236257,0.00146879,2.84657,-1.02488,2.85914,-2.1625,1.3359,0.671159,-0.00168992,0.180945,-0.00190219,0.135171,-1.97297,0.485902,0.14715,0.0177602,0.0173638,-0.000612599,0.0359669,-0.0138851,0.0778611,0.172589,0.000207403,0,0,0,0,0,0,0,0.384403,-33.6217,0.286573,25.4831,2.74353,1.60119,0.00376909,
0.182016,-0.00874562,0.136457,-1.96693,0.50941,0.196006,0.0169319,0.000566224,-0.00873804,0.0010805,0.00640894,0.0277969,0.0513067,-0.000985686,0.000132773,0.0203685,0.000107659,-0.028163,-0.00833408,-0.189006,0.00117503,2.84699,-1.00449,2.85981,-2.19024,1.33624,0.649982,-0.00157397,0.181991,-0.00193105,0.136042,-1.97345,0.488459,0.153034,0.0177617,0.0367073,0.00136468,0.0149621,-0.0159552,0.0822463,0.172232,0.00101274,2.41794,0.247159,-2.6256,-0.258758,0.548152,-0.044648,0.100667,0.233646,-33.6733,0.211195,25.7092,2.73071,1.69366,-0.00996382,
0.183048,-0.00856988,0.137306,-1.96761,0.511966,0.200584,0.0169426,0.000566604,-0.00867489,0.00107893,0.00633453,0.0277842,0.0508095,-0.000982575,0.000237475,0.0394694,-0.00097945,-0.0465031,-0.00792075,-0.310737,0.00194415,2.84699,-1.00449,2.85981,-2.19024,1.33624,0.649982,-0.00157397,0.181991,-0.00193105,0.136042,-1.97345,0.488459,0.153034,0.0177617,0.0367073,0.00136468,0.0149621,-0.0159552,0.0822463,0.172232,0.00101274,0,0,0,0,0,0,0,0.233646,-33.6733,0.211195,25.7092,2.73071,1.69366,-0.00996382,
0.183048,-0.00856988,0.137306,-1.96761,0.511966,0.200584,0.0169426,0.000566908,-0.00862437,0.00107767,0.00627501,0.0277741,0.0504117,-0.000980087,0.00018998,0.0315755,-0.00078356,-0.0372025,-0.0063366,-0.24859,0.00155532,2.84699,-1.00449,2.85981,-2.19024,1.33624,0.649982,-0.00157397,0.181991,-0.00193105,0.136042,-1.97345,0.488459,0.153034,0.0177617,0.0367073,0.00136468,0.0149621,-0.0159552,0.0822463,0.172232,0.00101274,0,0,0,0,0,0,0,0.233646,-33.6733,0.211195,25.7092,2.73071,1.69366,-0.00996382,
0.183048,-0.00856988,0.137306,-1.96761,0.511966,0.200584,0.0169426,0.000567152,-0.00858396,0.00107667,0.00622739,0.027766,0.0500935,-0.000978096,0.000151984,0.0252604,-0.000626848,-0.029762,-0.00506928,-0.198872,0.00124426,2.84699,-1.00449,2.85981,-2.19024,1.33624,0.649982,-0.00157397,0.181991,-0.00193105,0.136042,-1.97345,0.488459,0.153034,0.0177617,0.0367073,0.00136468,0.0149621,-0.0159552,0.0822463,0.172232,0.00101274,0,0,0,0,0,0,0,0.233646,-33.6733,0.211195,25.7092,2.73071,1.69366,-0.00996382,
0.183048,-0.00856988,0.137306,-1.96761,0.511966,0.200584,0.0169426,0.000567346,-0.00855162,0.00107587,0.00618929,0.0277595,0.049839,-0.000976503,0.000121587,0.0202083,-0.000501478,-0.0238096,-0.00405543,-0.159097,0.000995407,2.84649,-0.989412,2.85979,-2.21415,1.33557,0.631816,-0.00146417,0.183017,-0.00199286,0.136924,-1.97396,0.491089,0.158297,0.0177609,0.0261661,-0.00384765,0.0263745,-0.0212777,0.0795454,0.145504,0.000634189,-1.31764,-0.65154,1.42656,-0.665307,-0.337611,-3.34106,-0.0473184,0.511356,-33.3995,0.512709,25.5347,2.74353,1.6076,-0.0026396,
0.184127,-0.0085852,0.138246,-1.96833,0.514455,0.204295,0.0169486,0.000567616,-0.00850896,0.0010761,0.00612696,0.0277325,0.049441,-0.000973936,0.000168402,0.0266662,0.000145225,-0.0389599,-0.0168709,-0.248717,0.00160475,2.84649,-0.989412,2.85979,-2.21415,1.33557,0.631816,-0.00146417,0.183017,-0.00199286,0.136924,-1.97396,0.491089,0.158297,0.0177609,0.0261661,-0.00384765,0.0263745,-0.0212777,0.0795454,0.145504,0.000634189,0,0,0,0,0,0,0,0.511356,-33.3995,0.512709,25.5347,2.74353,1.6076,-0.0026396,
0.184127,-0.0085852,0.138246,-1.96833,0.514455,0.204295,0.0169486,0.000567831,-0.00847482,0.00107629,0.00607709,0.0277109,0.0491227,-0.000971882,0.000134721,0.021333,0.00011618,-0.0311679,-0.0134967,-0.198973,0.0012838,2.84649,-0.989412,2.85979,-2.21415,1.33557,0.631816,-0.00146417,0.183017,-0.00199286,0.136924,-1.97396,0.491089,0.158297,0.0177609,0.0261661,-0.00384765,0.0263745,-0.0212777,0.0795454,0.145504,0.000634189,0,0,0,0,0,0,0,0.511356,-33.3995,0.512709,25.5347,2.74353,1.6076,-0.0026396,
0.184127,-0.0085852,0.138246,-1.96833,0.514455,0.204295,0.0169486,0.000568004,-0.00844752,0.00107644,0.00603719,0.0276936,0.048868,-0.000970238,0.000107777,0.0170664,9.29443e-05,-0.0249343,-0.0107974,-0.159179,0.00102704,2.84649,-0.989412,2.85979,-2.21415,1.33557,0.631816,-0.00146417,0.183017,-0.00199286,0.136924,-1.97396,0.491089,0.158297,0.0177609,0.0261661,-0.00384765,0.0263745,-0.0212777,0.0795454,0.145504,0.000634189,0,0,0,0,0,0,0,0.511356,-33.3995,0.512709,25.5347,2.74353,1.6076,-0.0026396,
0.184104,-0.00825081,0.138204,-1.96857,0.51332,0.202369,0.0169874,0.000568019,-0.00843112,0.00107173,0.00603357,0.0276984,0.0488593,-0.000970083,9.72463e-06,0.0102478,-0.00294448,-0.00226604,0.00300386,-0.00543536,9.72305e-05,2.84559,-0.971679,2.85883,-2.23949,1.33473,0.613719,-0.00134774,0.183818,-0.00197199,0.138086,-1.97442,0.493655,0.163597,0.0177617,0.01729,-0.00214936,0.0361721,-0.0151823,0.0667343,0.149412,0.00117567,-1.10951,0.212286,1.2247,0.761923,-1.60139,0.488567,0.0676849,0.614505,-33.6971,0.461134,25.0348,2.67028,1.43548,-0.00996382,
0.184104,-0.00825081,0.138204,-1.96857,0.51332,0.202369,0.0169874,0.000568032,-0.008418,0.00106796,0.00603067,0.0277023,0.0488523,-0.000969958,7.7797e-06,0.00819827,-0.00235558,-0.00181283,0.00240309,-0.00434829,7.77844e-05,2.84559,-0.971679,2.85883,-2.23949,1.33473,0.613719,-0.00134774,0.183818,-0.00197199,0.138086,-1.97442,0.493655,0.163597,0.0177617,0.01729,-0.00214936,0.0361721,-0.0151823,0.0667343,0.149412,0.00117567,0,0,0,0,0,0,0,0.614505,-33.6971,0.461134,25.0348,2.67028,1.43548,-0.00996382,
0.184104,-0.00825081,0.138204,-1.96857,0.51332,0.202369,0.0169874,0.000568042,-0.00840751,0.00106494,0.00602835,0.0277053,0.0488468,-0.000969859,6.22376e-06,0.00655861,-0.00188446,-0.00145027,0.00192247,-0.00347863,6.22275e-05,2.84559,-0.971679,2.85883,-2.23949,1.33473,0.613719,-0.00134774,0.183818,-0.00197199,0.138086,-1.97442,0.493655,0.163597,0.0177617,0.01729,-0.00214936,0.0361721,-0.0151823,0.0667343,0.149412,0.00117567,0,0,0,0,0,0,0,0.614505,-33.6971,0.461134,25.0348,2.67028,1.43548,-0.00996382,
0.184104,-0.00825081,0.138204,-1.96857,0.51332,0.202369,0.0169874,0.000568049,-0.00839912,0.00106253,0.00602649,0.0277078,0.0488423,-0.000969779,4.97901e-06,0.00524689,-0.00150757,-0.00116021,0.00153798,-0.00278291,4.9782e-05,2.84559,-0.971679,2.85883,-2.23949,1.33473,0.613719,-0.00134774,0.183818,-0.00197199,0.138086,-1.97442,0.493655,0.163597,0.0177617,0.01729,-0.00214936,0.0361721,-0.0151823,0.0667343,0.149412,0.00117567,0,0,0,0,0,0,0,0.614505,-33.6971,0.461134,25.0348,2.67028,1.43548,-0.00996382,
0.184907,-0.008466,0.139387,-1.96893,0.516917,0.208546,0.0169548,0.000568544,-0.00835895,0.00106478,0.00595952,0.0276952,0.0483911,-0.000967105,0.000309333,0.0251008,0.00140593,-0.0418542,-0.0078534,-0.282012,0.00167124,2.84707,-0.955499,2.86054,-2.26373,1.33472,0.59626,-0.00125324,0.184835,-0.00199747,0.138946,-1.97499,0.496297,0.168739,0.0177609,0.0316888,0.000286747,0.0108368,-0.0159771,0.0779126,0.153848,0.00090653,1.79985,0.304513,-3.16691,-0.0993478,1.39729,0.554484,-0.0336423,0.360599,-33.4709,0.314344,25.5585,2.7005,1.62041,-0.0026396,
0.184907,-0.008466,0.139387,-1.96893,0.516917,0.208546,0.0169548,0.00056894,-0.00832683,0.00106658,0.00590595,0.0276852,0.0480301,-0.000964966,0.000247466,0.0200806,0.00112474,-0.0334834,-0.00628272,-0.22561,0.00133699,2.84707,-0.955499,2.86054,-2.26373,1.33472,0.59626,-0.00125324,0.184835,-0.00199747,0.138946,-1.97499,0.496297,0.168739,0.0177609,0.0316888,0.000286747,0.0108368,-0.0159771,0.0779126,0.153848,0.00090653,0,0,0,0,0,0,0,0.360599,-33.4709,0.314344,25.5585,2.7005,1.62041,-0.0026396,
0.184907,-0.008466,0.139387,-1.96893,0.516917,0.208546,0.0169548,0.000569257,-0.00830112,0.00106802,0.00586309,0.0276771,0.0477413,-0.000963254,0.000197973,0.0160645,0.000899794,-0.0267867,-0.00502618,-0.180488,0.00106959,2.84707,-0.955499,2.86054,-2.26373,1.33472,0.59626,-0.00125324,0.184835,-0.00199747,0.138946,-1.97499,0.496297,0.168739,0.0177609,0.0316888,0.000286747,0.0108368,-0.0159771,0.0779126,0.153848,0.00090653,0,0,0,0,0,0,0,0.360599,-33.4709,0.314344,25.5585,2.7005,1.62041,-0.0026396,
0.184985,-0.00150205,0.139093,-1.97551,0.496485,0.169897,0.0177459,0.00422093,0.00574465,0.00452855,-0.00846399,0.0268443,0.0671455,-0.00114497,2.2823,8.77861,2.16283,-8.95442,-0.520527,12.1276,-0.11357,0.00304918,28.981,0.0169079,-22.2756,-2.62537,-0.707277,-0.00547682,0.184835,-0.00199747,0.138946,-1.97499,0.496297,0.168739,0.0177609,0.0316888,0.000286747,0.0108368,-0.0159771,0.0779126,0.153848,0.00090653,0,0,0,0,0,0,0,0.360599,-33.4709,0.314344,25.5585,2.7005,1.62041,-0.0026396,
0.185255,-0.00112908,0.139366,-1.97574,0.494055,0.171714,0.0177736,0.010112,0.0139201,0.0104382,-0.0123952,-0.0392663,0.0991345,-0.00022352,3.68192,5.10963,3.69355,-2.45702,-41.3191,19.9931,0.575904,1.06308,-0.823075,1.07464,0.695404,-8.27989,4.83188,-0.00588709,0.184835,-0.00199747,0.138946,-1.97499,0.496297,0.168739,0.0177609,0.0316888,0.000286747,0.0108368,-0.0159771,0.0779126,0.153848,0.00090653,0,0,0,0,0,0,0,0.360599,-33.4709,0.314344,25.5585,2.7005,1.62041,-0.0026396,
0.185564,-0.000880006,0.139676,-1.97586,0.490134,0.174041,0.0177848,0.0158196,0.0173628,0.0161175,-0.0130348,-0.129432,0.137471,0.00010018,3.56727,2.15171,3.54952,-0.399758,-56.3539,23.9605,0.202313,1.13832,-0.716423,1.14854,0.698233,-8.07603,4.71853,-0.00812522,0.185696,-0.00199768,0.139972,-1.97554,0.498838,0.173464,0.0177587,0.0145338,-0.00203686,0.0354652,-0.021941,0.0824817,0.133475,-0.000222742,-2.14438,-0.290451,3.07855,-0.745487,0.571142,-2.54665,-0.141159,0.638309,-33.6495,0.564283,25.5347,2.76733,1.68725,0.017502,
0.185873,-0.000719829,0.139986,-1.97594,0.485351,0.176709,0.0177865,0.0203765,0.0178946,0.0206233,-0.0123762,-0.223128,0.176682,0.00012347,2.84806,0.332403,2.81613,0.411653,-58.56,24.5068,0.0145561,1.22786,-0.660469,1.23682,0.723699,-7.91318,4.63819,-0.00906697,0.185696,-0.00199768,0.139972,-1.97554,0.498838,0.173464,0.0177587,0.0145338,-0.00203686,0.0354652,-0.021941,0.0824817,0.133475,-0.000222742,0,0,0,0,0,0,0,0.638309,-33.6495,0.564283,25.5347,2.76733,1.68725,0.017502,
0.186884,-0.00279251,0.14115,-1.9763,0.48832,0.182904,0.0180931,0.0327174,0.00320786,0.0327217,-0.0191862,-0.345073,0.279652,0.00354932,7.71305,-9.17924,7.56154,-4.25629,-76.2153,64.3562,2.14116,4.90282,-8.57386,4.75422,-3.26156,-14.626,11.2779,0.182942,0.185696,-0.00199768,0.139972,-1.97554,0.498838,0.173464,0.0177587,0.0145338,-0.00203686,0.0354652,-0.021941,0.0824817,0.133475,-0.000222742,0,0,0,0,0,0,0,0.638309,-33.6495,0.564283,25.5347,2.76733,1.68725,0.017502,
0.187565,-0.0032212,0.141822,-1.97661,0.479908,0.189436,0.0181939,0.0431784,-0.00815093,0.042996,-0.0232126,-0.486357,0.387029,0.00535972,6.53814,-7.09924,6.4214,-2.5165,-88.3025,67.1102,1.1315,3.63204,-6.60237,3.50806,-3.20726,-14.626,11.2779,0.128146,0.185696,-0.00199768,0.139972,-1.97554,0.498838,0.173464,0.0177587,0.0145338,-0.00203686,0.0354652,-0.021941,0.0824817,0.133475,-0.000222742,0,0,0,0,0,0,0,0.638309,-33.6495,0.564283,25.5347,2.76733,1.68725,0.017502,
0.188225,-0.00358872,0.142477,-1.97688,0.470397,0.196623,0.0182766,0.0510651,-0.0157088,0.0507587,-0.0251933,-0.626863,0.489281,0.00635558,4.92917,-4.72366,4.85168,-1.23789,-87.8164,63.9078,0.622415,3.29777,-4.59621,3.20158,-2.97273,-14.6244,11.2629,0.100562,0.186467,-0.00199389,0.140751,-1.97607,0.499392,0.176674,0.0177624,0.0162163,0.00262883,0.0245431,-0.00876588,-0.161794,0.0422271,0.00145758,0.210314,0.583211,-1.36526,1.64688,-30.5345,-11.406,0.21004,-0.805783,-32.0744,-0.788561,23.5153,0.520626,1.86577,-0.0163725,
0.188853,-0.0038793,0.143098,-1.97711,0.460187,0.204254,0.0183516,0.0565289,-0.0198314,0.0561461,-0.0259624,-0.756746,0.582215,0.00695882,3.41489,-2.57666,3.36715,-0.480726,-81.177,58.0835,0.377027,3.43196,-2.98243,3.35564,-2.75171,-14.6244,11.2629,0.0887499,0.186467,-0.00199389,0.140751,-1.97607,0.499392,0.176674,0.0177624,0.0162163,0.00262883,0.0245431,-0.00876588,-0.161794,0.0422271,0.00145758,0,0,0,0,0,0,0,-0.805783,-32.0744,-0.788561,23.5153,0.520626,1.86577,-0.0163725,
0.187531,-0.0021311,0.14185,-1.97692,0.48708,0.185596,0.0181045,0.0602247,-0.0170503,0.0603196,-0.0319941,-0.788764,0.600247,0.00949971,2.30985,1.73824,2.60841,-3.76981,-20.0107,11.2703,1.58805,3.99471,1.87128,4.15975,-5.98901,-14.6244,11.2629,0.17958,0.186467,-0.00199389,0.140751,-1.97607,0.499392,0.176674,0.0177624,0.0162163,0.00262883,0.0245431,-0.00876588,-0.161794,0.0422271,0.00145758,0,0,0,0,0,0,0,-0.805783,-32.0744,-0.788561,23.5153,0.520626,1.86577,-0.0163725,
0.188178,-0.00211719,0.142511,-1.97737,0.478248,0.192108,0.018247,0.0643383,-0.0132925,0.0647756,-0.0368741,-0.851819,0.642985,0.0111624,2.571,2.34862,2.78503,-3.04998,-39.4096,26.711,1.03921,3.80144,2.51659,3.97794,-5.66319,-14.6244,11.2629,0.158629,0.186467,-0.00199389,0.140751,-1.97607,0.499392,0.176674,0.0177624,0.0162163,0.00262883,0.0245431,-0.00876588,-0.161794,0.0422271,0.00145758,0,0,0,0,0,0,0,-0.805783,-32.0744,-0.788561,23.5153,0.520626,1.86577,-0.0163725,
0.188827,-0.00205784,0.143174,-1.97783,0.468457,0.199345,0.0183825,0.0677173,-0.00915016,0.0684054,-0.0409082,-0.92624,0.695324,0.0123173,2.11188,2.58893,2.26864,-2.52134,-46.5129,32.712,0.721787,3.99075,3.34532,4.17167,-6.17309,-14.7287,11.0104,0.15983,0.188507,-0.00254587,0.143088,-1.97765,0.470894,0.19459,0.0177952,0.0868285,-0.0714281,0.100161,-0.140906,-1.21763,1.09777,0.00255552,8.82653,-9.25711,9.45223,-16.5175,-131.979,131.943,0.137243,0.765262,-35.0221,0.611891,27.0779,-1.05591,5.22118,-0.00996382,
0.191731,-0.00292133,0.146375,-1.98008,0.415644,0.236941,0.0183938,0.0695098,-0.00838245,0.0703782,-0.0455643,-1.02602,0.770989,0.0125745,1.12033,0.479821,1.23294,-2.91003,-62.3599,47.2905,0.160748,4.88683,2.41911,5.05936,-6.04293,-14.7287,11.0104,0.158954,0.188507,-0.00254587,0.143088,-1.97765,0.470894,0.19459,0.0177952,0.0868285,-0.0714281,0.100161,-0.140906,-1.21763,1.09777,0.00255552,0,0,0,0,0,0,0,0.765262,-35.0221,0.611891,27.0779,-1.05591,5.22118,-0.00996382,
0.192349,-0.00297317,0.147006,-1.98061,0.404162,0.245549,0.0184984,0.0710629,-0.00800188,0.0720754,-0.0498873,-1.10785,0.832,0.0126734,0.970634,0.237859,1.06078,-2.7019,-51.1453,38.1317,0.0618409,5.4214,1.67453,5.58854,-6.11965,-14.7287,11.0104,0.154011,0.188507,-0.00254587,0.143088,-1.97765,0.470894,0.19459,0.0177952,0.0868285,-0.0714281,0.100161,-0.140906,-1.21763,1.09777,0.00255552,0,0,0,0,0,0,0,0.765262,-35.0221,0.611891,27.0779,-1.05591,5.22118,-0.00996382,
0.192973,-0.00303206,0.147643,-1.98115,0.392624,0.253994,0.0185979,0.0724467,-0.00787365,0.0735706,-0.0532248,-1.17474,0.876711,0.0126277,0.864899,0.0801431,0.934518,-2.08593,-41.8046,27.9446,-0.0285588,6.01101,0.903655,6.1731,-6.26841,-14.7287,11.0104,0.147907,0.188507,-0.00254587,0.143088,-1.97765,0.470894,0.19459,0.0177952,0.0868285,-0.0714281,0.100161,-0.140906,-1.21763,1.09777,0.00255552,0,0,0,0,0,0,0,0.765262,-35.0221,0.611891,27.0779,-1.05591,5.22118,-0.00996382,
0.193601,-0.00309888,0.148282,-1.98165,0.381052,0.262044,0.0186922,0.073648,-0.0079696,0.0748548,-0.0551868,-1.2291,0.90262,0.0124581,0.750786,-0.0599726,0.802609,-1.22627,-33.975,16.1931,-0.106009,6.47019,0.594548,6.63477,-6.84315,-14.6409,10.7242,0.143619,0.192139,-0.00319732,0.146848,-1.9815,0.424916,0.238412,0.0178793,0.129291,-0.00982644,0.10592,-0.116372,-1.36847,1.32752,-0.000830371,5.30778,7.7002,0.719875,3.06671,-18.8551,28.7191,-0.423236,-0.829586,-29.9281,-0.887743,24.9594,0.27618,3.90191,0.0706026,
0.196635,-0.00351449,0.151411,-1.98441,0.356509,0.286796,0.0184101,0.0763954,-0.00916697,0.0776474,-0.0547474,-1.27023,0.883838,0.0118483,1.71712,-0.748356,1.74541,0.274641,-25.7071,-11.7388,-0.381169,7.64937,-0.332231,7.8096,-7.18698,-14.6409,10.7242,0.131169,0.192139,-0.00319732,0.146848,-1.9815,0.424916,0.238412,0.0178793,0.129291,-0.00982644,0.10592,-0.116372,-1.36847,1.32752,-0.000830371,0,0,0,0,0,0,0,-0.829586,-29.9281,-0.887743,24.9594,0.27618,3.90191,0.0706026,
0.197337,-0.00364175,0.152125,-1.98483,0.345038,0.292664,0.0184812,0.0786776,-0.0105149,0.0799693,-0.0542106,-1.30295,0.853763,0.0112583,1.42638,-0.842474,1.45117,0.33548,-20.4513,-18.7965,-0.368735,8.15396,-0.580488,8.31152,-7.30905,-14.6409,10.1466,0.124812,0.192139,-0.00319732,0.146848,-1.9815,0.424916,0.238412,0.0178793,0.129291,-0.00982644,0.10592,-0.116372,-1.36847,1.32752,-0.000830371,0,0,0,0,0,0,0,-0.829586,-29.9281,-0.887743,24.9594,0.27618,3.90191,0.0706026,
0.198048,-0.00378314,0.152848,-1.98524,0.333585,0.297969,0.0185493,0.0807221,-0.0119466,0.0820505,-0.0537528,-1.3287,0.815637,0.0107083,1.27783,-0.894819,1.30074,0.286155,-16.0943,-23.8289,-0.343765,8.59795,-0.726845,8.75229,-7.39093,-14.6409,9.13909,0.118739,0.192139,-0.00319732,0.146848,-1.9815,0.424916,0.238412,0.0178793,0.129291,-0.00982644,0.10592,-0.116372,-1.36847,1.32752,-0.000830371,0,0,0,0,0,0,0,-0.829586,-29.9281,-0.887743,24.9594,0.27618,3.90191,0.0706026,
0.198772,-0.00393676,0.153583,-1.98566,0.322156,0.302752,0.0186148,0.0826595,-0.0133979,0.0840182,-0.0534589,-1.34868,0.772076,0.0102037,1.2109,-0.907026,1.22979,0.183698,-12.4867,-27.2255,-0.315329,8.70935,-0.140904,8.86018,-8.07885,-14.6075,7.80088,0.116264,0.197426,-0.00313484,0.152187,-1.98575,0.366159,0.287582,0.018162,0.159287,-0.000794811,0.183659,-0.152819,-1.74486,1.5699,0.0100534,3.74955,1.12895,9.71742,-4.55576,-47.049,30.2972,1.36048,-1.74603,-32.376,-1.53838,25.733,-0.194401,4.15368,0.0101778,
0.203401,-0.00356389,0.158231,-1.98869,0.284664,0.326798,0.0185172,0.0845043,-0.0146531,0.0858543,-0.054078,-1.33254,0.700319,0.00925929,1.15299,-0.784503,1.1476,-0.386969,10.0882,-44.8484,-0.590272,9.65724,-0.246116,9.79959,-8.03241,-14.6075,5.51314,0.0960811,0.197426,-0.00313484,0.152187,-1.98575,0.366159,0.287582,0.018162,0.159287,-0.000794811,0.183659,-0.152819,-1.74486,1.5699,0.0100534,0,0,0,0,0,0,0,-1.74603,-32.376,-1.53838,25.733,-0.194401,4.15368,0.0101778,
0.204117,-0.00371677,0.158958,-1.98916,0.275289,0.329692,0.0185585,0.0854992,-0.0155445,0.0868424,-0.0550297,-1.30041,0.632599,0.00844184,0.621813,-0.557154,0.617534,-0.594786,20.0801,-42.325,-0.51091,9.90305,-0.327302,10.046,-8.02178,-14.6075,4.91647,0.0921657,0.197426,-0.00313484,0.152187,-1.98575,0.366159,0.287582,0.018162,0.159287,-0.000794811,0.183659,-0.152819,-1.74486,1.5699,0.0100534,0,0,0,0,0,0,0,-1.74603,-32.376,-1.53838,25.733,-0.194401,4.15368,0.0101778,
0.204817,-0.00386124,0.159668,-1.98965,0.266694,0.33223,0.0185977,0.0859079,-0.0160474,0.0872462,-0.0560789,-1.25521,0.569549,0.00773341,0.255408,-0.314278,0.252411,-0.655741,28.2483,-39.4062,-0.442765,10.0929,-0.4067,10.2349,-8.01979,-14.6075,4.38656,0.0889977,0.197426,-0.00313484,0.152187,-1.98575,0.366159,0.287582,0.018162,0.159287,-0.000794811,0.183659,-0.152819,-1.74486,1.5699,0.0100534,0,0,0,0,0,0,0,-1.74603,-32.376,-1.53838,25.733,-0.194401,4.15368,0.0101778,
0.207864,-0.00259318,0.163613,-1.9943,0.23701,0.363644,0.0183548,0.0843668,-0.014757,0.0856821,-0.0568112,-1.15127,0.499657,0.00690124,-0.963153,0.8065,-0.97756,-0.457699,64.9611,-43.6827,-0.52011,10.2227,-0.250859,10.3541,-8.07114,-11.6599,2.40762,0.0765726,0.202677,-0.00286724,0.158361,-1.99081,0.299455,0.337573,0.0182055,0.140847,0.024496,0.20146,-0.164002,-1.97379,1.35825,-0.00305926,-2.30507,3.16135,2.22511,-1.39797,-28.6158,-26.4563,-1.63909,1.80469,-35.9425,1.7386,25.6061,1.30157,1.18279,0.178635,
0.208487,-0.00267613,0.164245,-1.99478,0.231775,0.365139,0.0183821,0.0830684,-0.0138791,0.0843667,-0.0574097,-1.05189,0.437107,0.00620203,-0.811531,0.548657,-0.822182,-0.374076,62.1174,-39.0936,-0.437006,10.1506,-0.18783,10.2801,-8.00437,-10.607,2.11179,0.0739683,0.202677,-0.00286724,0.158361,-1.99081,0.299455,0.337573,0.0182055,0.140847,0.024496,0.20146,-0.164002,-1.97379,1.35825,-0.00305926,0,0,0,0,0,0,0,1.80469,-35.9425,1.7386,25.6061,1.30157,1.18279,0.178635,
0.209109,-0.00276163,0.164877,-1.99526,0.227122,0.366422,0.0184076,0.0820043,-0.0132409,0.0832899,-0.0578635,-0.957854,0.381766,0.0056003,-0.665052,0.398885,-0.672974,-0.28361,58.7705,-34.5883,-0.376082,10.0366,-0.126224,10.1645,-7.93184,-9.63601,1.84021,0.0709809,0.202677,-0.00286724,0.158361,-1.99081,0.299455,0.337573,0.0182055,0.140847,0.024496,0.20146,-0.164002,-1.97379,1.35825,-0.00305926,0,0,0,0,0,0,0,1.80469,-35.9425,1.7386,25.6061,1.30157,1.18279,0.178635,
0.20973,-0.00284769,0.165509,-1.99573,0.22299,0.367535,0.0184314,0.0811384,-0.0127443,0.0824146,-0.0581771,-0.869585,0.333232,0.0050748,-0.541149,0.310391,-0.547036,-0.195998,55.1678,-30.3337,-0.328435,9.89091,-0.0692768,10.0176,-7.85634,-8.74172,1.60422,0.0676293,0.202677,-0.00286724,0.158361,-1.99081,0.299455,0.337573,0.0182055,0.140847,0.024496,0.20146,-0.164002,-1.97379,1.35825,-0.00305926,0,0,0,0,0,0,0,1.80469,-35.9425,1.7386,25.6061,1.30157,1.18279,0.178635,
0.203708,-0.00261551,0.159402,-1.99145,0.286255,0.344822,0.0182081,0.0906915,-0.00390219,0.0919766,-0.0623862,-1.02567,0.4478,0.00412333,5.97063,5.52631,5.97622,-2.63072,-97.5531,71.6049,-0.594668,10.5049,-0.735752,10.6316,-7.58908,-11.2049,2.29902,0.0732528,0.208607,-0.00229909,0.164613,-1.99552,0.233681,0.372935,0.0182134,0.183422,0.017961,0.166148,-0.161439,-1.71184,0.810654,0.0012263,5.32194,-0.816875,-4.41402,0.320408,32.7434,-68.4495,0.535696,2.51484,-36.0695,2.41304,25.6577,3.06671,0.12261,0.110886,
0.204549,-0.00246479,0.160251,-1.99194,0.27507,0.350078,0.0182203,0.0935781,0.000646395,0.0947941,-0.062216,-1.10017,0.489648,0.00360327,1.80417,2.84287,1.76095,0.106388,-46.5634,26.1555,-0.325035,10.4328,-0.672723,10.5575,-7.52231,-10.1521,2.00318,0.0706485,0.208607,-0.00229909,0.164613,-1.99552,0.233681,0.372935,0.0182134,0.183422,0.017961,0.166148,-0.161439,-1.71184,0.810654,0.0012263,0,0,0,0,0,0,0,2.51484,-36.0695,2.41304,25.6577,3.06671,0.12261,0.110886,
0.205283,-0.0024061,0.160993,-1.99241,0.265417,0.35408,0.0182414,0.093211,0.00198442,0.0943987,-0.0614732,-1.12145,0.491777,0.00341195,-0.229463,0.836266,-0.247135,0.464224,-13.3012,1.33015,-0.119576,10.3188,-0.611117,10.4419,-7.44978,-9.18109,1.73161,0.0676612,0.208607,-0.00229909,0.164613,-1.99552,0.233681,0.372935,0.0182134,0.183422,0.017961,0.166148,-0.161439,-1.71184,0.810654,0.0012263,0,0,0,0,0,0,0,2.51484,-36.0695,2.41304,25.6577,3.06671,0.12261,0.110886,
0.205959,-0.00240981,0.161679,-1.99288,0.25697,0.357234,0.018268,0.0914794,0.00149479,0.0926595,-0.0608909,-1.10834,0.472252,0.00339365,-1.08224,-0.306019,-1.08702,0.363939,8.19567,-12.2027,-0.0114391,10.1731,-0.55417,10.2951,-7.37428,-8.28681,1.49562,0.0643095,0.208607,-0.00229909,0.164613,-1.99552,0.233681,0.372935,0.0182134,0.183422,0.017961,0.166148,-0.161439,-1.71184,0.810654,0.0012263,0,0,0,0,0,0,0,2.51484,-36.0695,2.41304,25.6577,3.06671,0.12261,0.110886,
0.214635,-0.00191291,0.17071,-2.00033,0.19526,0.386358,0.0182027,0.0876013,2.74205e-06,0.0887797,-0.0600618,-0.930571,0.391309,0.00302983,-2.42384,-0.932531,-2.42483,0.518193,111.106,-50.5898,-0.227387,9.22429,-0.348522,9.34412,-6.9658,-4.84643,0.681228,0.045952,0.208607,-0.00229909,0.164613,-1.99552,0.233681,0.372935,0.0182134,0.183422,0.017961,0.166148,-0.161439,-1.71184,0.810654,0.0012263,0,0,0,0,0,0,0,2.51484,-36.0695,2.41304,25.6577,3.06671,0.12261,0.110886,
0.21521,-0.001966,0.171295,-2.00078,0.193752,0.386852,0.0182145,0.0844591,-0.00132496,0.0856366,-0.0591817,-0.782166,0.325409,0.0027195,-1.96384,-0.829816,-1.96448,0.5501,92.7534,-41.1872,-0.193956,9.09024,-0.638581,9.20891,-6.54039,-4.08501,0.597921,0.0417782,0.213617,-0.0021871,0.169942,-2.00048,0.185794,0.395403,0.0182072,0.160618,0.00802283,0.156039,-0.152376,-1.33777,0.634846,0.00180273,-2.85052,-1.24227,-1.26359,1.13287,46.7584,-21.976,0.0720535,4.67304,-34.4231,4.41255,25.8084,1.93145,1.46203,0.050461,
0.215783,-0.00202278,0.171877,-2.00121,0.192457,0.387315,0.0182255,0.0818882,-0.00247955,0.0830651,-0.0582669,-0.658107,0.271892,0.0024489,-1.60683,-0.721616,-1.60719,0.571737,77.5372,-33.4482,-0.169124,8.89049,-0.613304,9.00916,-6.45367,-3.62589,0.51505,0.0385171,0.213617,-0.0021871,0.169942,-2.00048,0.185794,0.395403,0.0182072,0.160618,0.00802283,0.156039,-0.152376,-1.33777,0.634846,0.00180273,0,0,0,0,0,0,0,4.67304,-34.4231,4.41255,25.8084,1.93145,1.46203,0.050461,
0.220508,-0.00207908,0.17694,-2.00589,0.167851,0.406662,0.0180837,0.0770496,-0.00314482,0.0782252,-0.0548093,-0.527607,0.228127,0.00204736,-3.02413,-0.415792,-3.02495,2.16099,81.5623,-27.3529,-0.250967,7.12377,-0.428351,7.24291,-5.55603,-1.01217,0.279731,0.0170297,0.213617,-0.0021871,0.169942,-2.00048,0.185794,0.395403,0.0182072,0.160618,0.00802283,0.156039,-0.152376,-1.33777,0.634846,0.00180273,0,0,0,0,0,0,0,4.67304,-34.4231,4.41255,25.8084,1.93145,1.46203,0.050461,
0.220964,-0.00212586,0.177406,-2.00621,0.167838,0.407088,0.0180869,0.0730416,-0.00368531,0.0742162,-0.0518326,-0.422419,0.193142,0.00171883,-2.50502,-0.337807,-2.5056,1.86048,65.7425,-21.8655,-0.20533,6.9705,-0.410449,7.08966,-5.46448,-0.88494,0.286798,0.0157984,0.213617,-0.0021871,0.169942,-2.00048,0.185794,0.395403,0.0182072,0.160618,0.00802283,0.156039,-0.152376,-1.33777,0.634846,0.00180273,0,0,0,0,0,0,0,4.67304,-34.4231,4.41255,25.8084,1.93145,1.46203,0.050461,
0.221414,-0.0021726,0.177865,-2.00652,0.16785,0.407515,0.0180898,0.0696799,-0.00411668,0.070854,-0.0492423,-0.337633,0.165188,0.00144789,-2.10105,-0.269607,-2.10137,1.61891,52.9912,-17.4716,-0.169338,6.93597,-0.65118,7.05443,-5.11499,-0.543728,0.305377,0.0137724,0.218849,-0.00210676,0.175234,-2.00487,0.141728,0.414047,0.0181906,0.117649,-0.00157115,0.146996,-0.120928,-0.975218,0.392862,-0.000335564,-5.37106,-1.19925,-1.13038,3.93101,45.3195,-30.248,-0.267287,4.41913,-33.3479,4.38875,25.7092,4.7467,1.25603,0.104477,
0.221857,-0.00221901,0.178317,-2.00682,0.167882,0.407943,0.0180924,0.0668206,-0.00445363,0.0679945,-0.0469622,-0.269302,0.142851,0.00122424,-1.78708,-0.210594,-1.78718,1.42509,42.7069,-13.9606,-0.139779,6.78933,-0.632229,6.9078,-5.02317,-0.445869,0.315657,0.0127588,0.218849,-0.00210676,0.175234,-2.00487,0.141728,0.414047,0.0181906,0.117649,-0.00157115,0.146996,-0.120928,-0.975218,0.392862,-0.000335564,0,0,0,0,0,0,0,4.41913,-33.3479,4.38875,25.7092,4.7467,1.25603,0.104477,
0.223966,-0.00204777,0.180446,-2.00875,0.132661,0.421358,0.0180536,0.0631864,-0.00429247,0.0643581,-0.0442714,-0.212219,0.123594,0.00101674,-2.27134,0.100725,-2.27276,1.68173,35.6769,-12.0355,-0.129691,5.83247,-0.482563,5.95098,-4.3793,-0.0423263,0.388218,0.00753584,0.218849,-0.00210676,0.175234,-2.00487,0.141728,0.414047,0.0181906,0.117649,-0.00157115,0.146996,-0.120928,-0.975218,0.392862,-0.000335564,0,0,0,0,0,0,0,4.41913,-33.3479,4.38875,25.7092,4.7467,1.25603,0.104477,
0.224349,-0.00207772,0.180838,-2.00901,0.132802,0.421724,0.0180549,0.0601272,-0.00418284,0.0612969,-0.0418921,-0.166241,0.108023,0.000846477,-1.91201,0.0685203,-1.91323,1.48702,28.7359,-9.73177,-0.106411,5.70341,-0.458864,5.8219,-4.28726,-0.0143286,0.395609,0.0070305,0.218849,-0.00210676,0.175234,-2.00487,0.141728,0.414047,0.0181906,0.117649,-0.00157115,0.146996,-0.120928,-0.975218,0.392862,-0.000335564,0,0,0,0,0,0,0,4.41913,-33.3479,4.38875,25.7092,4.7467,1.25603,0.104477,
