xiao-wang007/linearmpc_panda/paper_data/panda_torque_PD_controller_error_match_to_start/4/trajectory.csv
Commanded Joint 0 Position,Commanded Joint 1 Position,Commanded Joint 2 Position,Commanded Joint 3 Position,Commanded Joint 4 Position,Commanded Joint 5 Position,Commanded Joint 6 Position,Commanded Joint 0 Velocity,Commanded Joint 1 Velocity,Commanded Joint 2 Velocity,Commanded Joint 3 Velocity,Commanded Joint 4 Velocity,Commanded Joint 5 Velocity,Commanded Joint 6 Velocity,Commanded Joint 0 Acceleration,Commanded Joint 1 Acceleration,Commanded Joint 2 Acceleration,Commanded Joint 3 Acceleration,Commanded Joint 4 Acceleration,Commanded Joint 5 Acceleration,Commanded Joint 6 Acceleration,Commanded Joint 0 Torque,Commanded Joint 1 Torque,Commanded Joint 2 Torque,Commanded Joint 3 Torque,Commanded Joint 4 Torque,Commanded Joint 5 Torque,Commanded Joint 6 Torque,Actual Joint 0 Position,Actual Joint 1 Position,Actual Joint 2 Position,Actual Joint 3 Position,Actual Joint 4 Position,Actual Joint 5 Position,Actual Joint 6 Position,Actual Joint 0 Velocity,Actual Joint 1 Velocity,Actual Joint 2 Velocity,Actual Joint 3 Velocity,Actual Joint 4 Velocity,Actual Joint 5 Velocity,Actual Joint 6 Velocity,Actual Joint 0 Acceleration,Actual Joint 1 Acceleration,Actual Joint 2 Acceleration,Actual Joint 3 Acceleration,Actual Joint 4 Acceleration,Actual Joint 5 Acceleration,Actual Joint 6 Acceleration,Actual Joint 0 Torque,Actual Joint 1 Torque,Actual Joint 2 Torque,Actual Joint 3 Torque,Actual Joint 4 Torque,Actual Joint 5 Torque,Actual Joint 6 Torque,
0.200886,0.144826,-0.247651,-1.64824,0.150589,0.25907,-0.0205138,-0.000328028,0.025789,0.000798612,-0.0308458,-0.00572819,0.0540474,-0.000421982,-0.205017,16.1181,0.499133,-19.2786,-3.58012,33.7796,-0.263739,0.0603389,28.6613,0.924321,-24.4379,-1.12603,1.84538,-0.0241544,0.200921,0.143645,-0.247728,-1.64546,0.150896,0.253368,-0.020458,0.000289738,0.00252206,-0.000126887,-0.00125307,-0.00783825,0.000207815,0.000135834,0,0,0,0,0,0,0,0.0551182,-39.763,-0.93535,27.1771,0.880428,3.13286,-0.0566557,
0.200917,0.143688,-0.24773,-1.64548,0.150814,0.253358,-0.0204587,-0.000302051,0.0209281,0.000612238,-0.0248174,-0.00501137,0.0431408,-0.000340528,0.0162357,-3.03806,-0.116484,3.76778,0.448008,-6.8166,0.0509088,0.0546088,29.1015,0.914103,-24.3543,-1.12526,1.59543,-0.0226314,0.200921,0.143645,-0.247728,-1.64546,0.150896,0.253368,-0.020458,0.000289738,0.00252206,-0.000126887,-0.00125307,-0.00783825,0.000207815,0.000135834,0,0,0,0,0,0,0,0.0551182,-39.763,-0.93535,27.1771,0.880428,3.13286,-0.0566557,
0.200916,0.143698,-0.247731,-1.64549,0.150802,0.253355,-0.0204587,-0.000280118,0.0169925,0.000465665,-0.0199702,-0.00430411,0.0344235,-0.000274154,0.013708,-2.45973,-0.0916084,3.02946,0.442042,-5.44831,0.0414839,0.0473995,29.6727,0.902426,-24.2464,-1.12363,1.24879,-0.0206563,0.200921,0.143645,-0.247728,-1.64546,0.150896,0.253368,-0.020458,0.000289738,0.00252206,-0.000126887,-0.00125307,-0.00783825,0.000207815,0.000135834,0,0,0,0,0,0,0,0.0551182,-39.763,-0.93535,27.1771,0.880428,3.13286,-0.0566557,
0.200914,0.143706,-0.247732,-1.64549,0.150794,0.253352,-0.0204588,-0.000258837,0.0138063,0.000352492,-0.0160717,-0.00365075,0.027466,-0.000220419,0.0133009,-1.99138,-0.0707331,2.43659,0.408347,-4.34843,0.033584,0.04144,30.1964,0.893023,-24.0786,-1.12046,0.864539,-0.0186484,0.200921,0.143645,-0.247728,-1.64546,0.150896,0.253368,-0.020458,0.000289738,0.00252206,-0.000126887,-0.00125307,-0.00783825,0.000207815,0.000135834,0,0,0,0,0,0,0,0.0551182,-39.763,-0.93535,27.1771,0.880428,3.13286,-0.0566557,
0.200893,0.144377,-0.247721,-1.64599,0.15077,0.25367,-0.0204592,-0.000770464,0.0246971,0.00026763,-0.0255424,-0.00606971,0.0288962,-0.000190279,-0.319767,6.80675,-0.0530385,-5.91922,-1.51185,0.893848,0.0188379,4.92527e-05,34.8302,0.86917,-23.3403,-1.42485,-2.28638,0.00133217,0.200915,0.143831,-0.247721,-1.64548,0.150896,0.253393,-0.0204586,-0.00206798,0.0077562,-8.98806e-05,-0.00732061,-0.00519023,0.0103434,0.000694642,-0.294715,0.654268,0.00462583,-0.758443,0.331003,1.26695,0.069851,0.134464,-38.9894,-0.836168,26.3559,0.685421,3.6364,-0.083206,
0.200847,0.14488,-0.247767,-1.64618,0.151188,0.252801,-0.0204695,-0.00175261,0.032336,-0.000935482,-0.0251981,0.00559762,0.0013766,-0.000410568,-0.613841,4.77428,-0.751945,0.215214,7.29208,-17.1997,-0.137681,0.52756,0.259339,0.530574,-0.336708,1.91897,-2.89977,-0.00306989,0.200915,0.143831,-0.247721,-1.64548,0.150896,0.253393,-0.0204586,-0.00206798,0.0077562,-8.98806e-05,-0.00732061,-0.00519023,0.0103434,0.000694642,0,0,0,0,0,0,0,0.134464,-38.9894,-0.836168,26.3559,0.685421,3.6364,-0.083206,
0.200795,0.145273,-0.247815,-1.64631,0.151945,0.251368,-0.0204769,-0.00271216,0.0356983,-0.00195325,-0.0233463,0.023387,-0.0347232,-0.00051291,-0.599717,2.10142,-0.636103,1.15734,11.1184,-22.5624,-0.063964,0.521954,0.25806,0.525092,-0.33306,1.90287,-2.87579,-0.00301359,0.200915,0.143831,-0.247721,-1.64548,0.150896,0.253393,-0.0204586,-0.00206798,0.0077562,-8.98806e-05,-0.00732061,-0.00519023,0.0103434,0.000694642,0,0,0,0,0,0,0,0.134464,-38.9894,-0.836168,26.3559,0.685421,3.6364,-0.083206,
0.200747,0.145574,-0.247857,-1.64642,0.152913,0.249609,-0.0204819,-0.00336356,0.0360692,-0.00259332,-0.021396,0.0429106,-0.0717497,-0.000534926,-0.407128,0.231865,-0.400044,1.21893,12.2022,-23.1415,-0.01376,0.516362,0.256267,0.519656,-0.329576,1.88666,-2.85175,-0.00295971,0.200915,0.143831,-0.247721,-1.64548,0.150896,0.253393,-0.0204586,-0.00206798,0.0077562,-8.98806e-05,-0.00732061,-0.00519023,0.0103434,0.000694642,0,0,0,0,0,0,0,0.134464,-38.9894,-0.836168,26.3559,0.685421,3.6364,-0.083206,
0.200893,0.144377,-0.247721,-1.64599,0.15077,0.25367,-0.0204592,-0.00325424,0.0425075,-0.00208902,-0.0298019,0.0311793,-0.0504764,-0.000441884,0.0683235,4.02389,0.315188,-5.25367,-7.33201,13.2958,0.0581512,0.0253634,34.9979,0.920466,-23.2966,-1.40659,-2.25318,0.00118653,0.20086,0.148074,-0.247723,-1.65012,0.150581,0.260326,-0.0204628,-0.00470078,0.21404,-0.00209201,-0.130415,-0.00868011,0.124642,-0.00157919,-0.3291,25.7855,-0.250266,-15.3868,-0.436235,14.2874,-0.284228,0.638309,-19.9703,0.0644055,18.9053,0.465695,1.04363,-0.0163725,
0.200811,0.144924,-0.247843,-1.64587,0.152632,0.250133,-0.0204943,-0.00464479,0.0476914,-0.0047216,-0.0208219,0.0714861,-0.128818,-0.00123184,-0.869091,3.23993,-1.64536,5.61252,25.1917,-48.9635,-0.493726,4.6431,1.33317,4.46879,-1.85608,6.97164,-12.6515,-0.00720721,0.20086,0.148074,-0.247723,-1.65012,0.150581,0.260326,-0.0204628,-0.00470078,0.21404,-0.00209201,-0.130415,-0.00868011,0.124642,-0.00157919,0,0,0,0,0,0,0,0.638309,-19.9703,0.0644055,18.9053,0.465695,1.04363,-0.0163725,
0.200724,0.145301,-0.247949,-1.64572,0.155653,0.24455,-0.0205164,-0.00590181,0.0475807,-0.00641293,-0.0129941,0.132714,-0.242618,-0.00153706,-0.785637,-0.0691514,-1.05708,4.89238,38.2672,-71.125,-0.190758,4.56826,1.42199,4.38836,-1.76561,6.8118,-12.3671,-0.0070336,0.20086,0.148074,-0.247723,-1.65012,0.150581,0.260326,-0.0204628,-0.00470078,0.21404,-0.00209201,-0.130415,-0.00868011,0.124642,-0.00157919,0,0,0,0,0,0,0,0.638309,-19.9703,0.0644055,18.9053,0.465695,1.04363,-0.0163725,
0.20067,0.145545,-0.248009,-1.64564,0.159338,0.237733,-0.0205287,-0.00606628,0.0441444,-0.00663513,-0.0082285,0.198303,-0.364527,-0.0015367,-0.102795,-2.14771,-0.138874,2.97848,40.9936,-76.1928,0.000222795,4.49126,1.46379,4.30948,-1.69165,6.64167,-12.0905,-0.0067489,0.20086,0.148074,-0.247723,-1.65012,0.150581,0.260326,-0.0204628,-0.00470078,0.21404,-0.00209201,-0.130415,-0.00868011,0.124642,-0.00157919,0,0,0,0,0,0,0,0.638309,-19.9703,0.0644055,18.9053,0.465695,1.04363,-0.0163725,
0.200822,0.149957,-0.247703,-1.65129,0.150204,0.260733,-0.0204603,-0.00582041,0.0823889,-0.00481266,-0.0359058,0.14921,-0.281442,-0.0011686,0.153669,23.9028,1.13904,-17.2983,-30.6834,51.9277,0.230064,0.0101235,35.0881,0.927062,-23.3178,-1.41481,-2.21477,0.00101818,0.200879,0.15169,-0.247691,-1.65418,0.152096,0.254346,-0.020458,-0.00245664,0.101872,0.000677882,-0.0153948,-0.0163442,-0.34598,-0.00012197,0.280518,-14.021,0.346236,14.3776,-0.958005,-58.8279,0.182152,0.309024,-44.3056,-1.0623,29.7678,0.740353,3.63,-0.0566557,
0.2011,0.151415,-0.247444,-1.65209,0.152108,0.257037,-0.0203658,0.00230719,0.10236,0.00262527,-0.0487055,0.16697,-0.317558,0.0014271,5.07975,12.4818,4.64871,-7.99981,11.1004,-22.5724,1.62231,28.5405,3.20227,26.9256,-10.117,10.5852,-14.2148,0.133462,0.200879,0.15169,-0.247691,-1.65418,0.152096,0.254346,-0.020458,-0.00245664,0.101872,0.000677882,-0.0153948,-0.0163442,-0.34598,-0.00012197,0,0,0,0,0,0,0,0.309024,-44.3056,-1.0623,29.7678,0.740353,3.63,-0.0566557,
0.201647,0.152525,-0.246957,-1.65276,0.155643,0.250772,-0.0202615,0.0155137,0.109623,0.014289,-0.0558043,0.221956,-0.410658,0.00374963,8.25408,4.53929,7.28983,-4.43678,34.3657,-58.1872,1.45158,26.9444,3.33616,25.0289,-8.39522,10.5852,-14.2148,0.133669,0.200879,0.15169,-0.247691,-1.65418,0.152096,0.254346,-0.020458,-0.00245664,0.101872,0.000677882,-0.0153948,-0.0163442,-0.34598,-0.00012197,0,0,0,0,0,0,0,0.309024,-44.3056,-1.0623,29.7678,0.740353,3.63,-0.0566557,
0.202407,0.15335,-0.246272,-1.6534,0.160362,0.242844,-0.0201336,0.0314073,0.108322,0.0285515,-0.0606338,0.295535,-0.526745,0.00619676,9.9335,-0.812751,8.91405,-3.01841,45.9872,-72.5544,1.52945,25.2099,1.91221,23.2986,-7.34495,10.5852,-14.2148,0.159549,0.200879,0.15169,-0.247691,-1.65418,0.152096,0.254346,-0.020458,-0.00245664,0.101872,0.000677882,-0.0153948,-0.0163442,-0.34598,-0.00012197,0,0,0,0,0,0,0,0.309024,-44.3056,-1.0623,29.7678,0.740353,3.63,-0.0566557,
0.200875,0.152757,-0.247658,-1.65503,0.151865,0.252794,-0.0204575,0.0250131,0.113316,0.023653,-0.0697339,0.230665,-0.460197,0.00497064,-3.99638,3.12125,-3.06153,-5.68758,-40.5437,41.5925,-0.766322,0.0101235,35.0881,0.927062,-23.3178,-1.41481,-2.21477,0.00101818,0.200879,0.15169,-0.247691,-1.65418,0.152096,0.254346,-0.020458,-0.00245664,0.101872,0.000677882,-0.0153948,-0.0163442,-0.34598,-0.00012197,0,0,0,0,0,0,0,0.309024,-44.3056,-1.0623,29.7678,0.740353,3.63,-0.0566557,
0.201494,0.153143,-0.247026,-1.65631,0.153319,0.248542,-0.0201049,0.0354983,0.100315,0.0347311,-0.0877946,0.220867,-0.474449,0.0127913,6.55322,-8.12566,6.92381,-11.2879,-6.12408,-8.90795,4.88788,46.0548,-4.96047,43.6066,-19.59,10.527,-14.0703,0.432998,0.200625,0.15772,-0.247642,-1.65468,0.162473,0.229486,-0.0204532,-0.0273258,0.143693,0.0102411,-0.0023919,0.0976123,-0.967314,0.00279491,-3.10865,5.22764,1.19541,1.62536,14.2446,-77.6667,0.36461,1.60236,-43.8295,-0.0625476,20.6747,-0.383915,1.99853,-0.137222,
0.202533,0.153214,-0.246016,-1.65765,0.156316,0.242178,-0.0197745,0.0543764,0.0820368,0.0530381,-0.103766,0.251634,-0.538656,0.0184946,11.7988,-11.424,11.4419,-9.98222,19.2298,-40.1291,3.56462,40.2163,-4.58029,38.1495,-18.8419,10.527,-14.0703,0.398774,0.200625,0.15772,-0.247642,-1.65468,0.162473,0.229486,-0.0204532,-0.0273258,0.143693,0.0102411,-0.0023919,0.0976123,-0.967314,0.00279491,0,0,0,0,0,0,0,1.60236,-43.8295,-0.0625476,20.6747,-0.383915,1.99853,-0.137222,
0.200606,0.158968,-0.247594,-1.65583,0.162777,0.224809,-0.0204432,0.0430132,0.0968229,0.0436284,-0.111653,0.208926,-0.547864,0.0150465,-7.10199,9.24134,-5.88106,-4.92907,-26.6926,-5.75504,-2.1551,-0.0054833,35.4614,0.943543,-23.3648,-1.47303,-2.07029,0.00109209,0.200625,0.15772,-0.247642,-1.65468,0.162473,0.229486,-0.0204532,-0.0273258,0.143693,0.0102411,-0.0023919,0.0976123,-0.967314,0.00279491,0,0,0,0,0,0,0,1.60236,-43.8295,-0.0625476,20.6747,-0.383915,1.99853,-0.137222,
0.201439,0.159281,-0.24682,-1.65799,0.164267,0.218947,-0.0199463,0.055235,0.0852952,0.0542424,-0.143341,0.204373,-0.584838,0.0244587,7.63862,-7.20485,6.63375,-19.8053,-2.84578,-23.109,5.88266,54.2917,-7.06309,50.0494,-29.5574,10.527,-14.0703,0.597311,0.200625,0.15772,-0.247642,-1.65468,0.162473,0.229486,-0.0204532,-0.0273258,0.143693,0.0102411,-0.0023919,0.0976123,-0.967314,0.00279491,0,0,0,0,0,0,0,1.60236,-43.8295,-0.0625476,20.6747,-0.383915,1.99853,-0.137222,
0.20275,0.159399,-0.245621,-1.66009,0.16715,0.211485,-0.0195754,0.0769791,0.0711743,0.0733793,-0.167127,0.235576,-0.654424,0.0288394,13.5901,-8.82554,11.9606,-14.866,19.5019,-43.491,2.73793,45.5667,-2.80749,42.1398,-26.4147,10.4418,-13.8529,0.43156,0.203824,0.16411,-0.245317,-1.65841,0.175966,0.194406,-0.0204337,0.26927,0.251415,-0.173154,-0.128866,0.699562,-0.971896,0.0102388,37.0745,13.4653,-22.9244,-15.8092,75.2437,-0.572796,0.930491,11.3936,-31.2254,8.36,15.918,4.04449,1.32287,-0.0365141,
0.204338,0.159477,-0.244165,-1.66204,0.171345,0.202853,-0.0193164,0.101282,0.0588915,0.095093,-0.182384,0.293338,-0.739339,0.0295474,15.1891,-7.67674,13.571,-9.53604,36.1015,-53.0717,0.442472,39.0154,-0.974437,36.2158,-24.4086,10.4418,-13.8529,0.306632,0.203824,0.16411,-0.245317,-1.65841,0.175966,0.194406,-0.0204337,0.26927,0.251415,-0.173154,-0.128866,0.699562,-0.971896,0.0102388,0,0,0,0,0,0,0,11.3936,-31.2254,8.36,15.918,4.04449,1.32287,-0.0365141,
0.204368,0.166113,-0.244737,-1.66002,0.179064,0.189198,-0.020398,0.0946191,0.0971865,0.090553,-0.186251,0.312122,-0.72168,0.0245303,-4.16407,23.9344,-2.8375,-2.41657,11.7397,11.0367,-3.13567,-0.182235,35.8169,0.806575,-23.3389,-1.55817,-1.8529,0.000593048,0.203824,0.16411,-0.245317,-1.65841,0.175966,0.194406,-0.0204337,0.26927,0.251415,-0.173154,-0.128866,0.699562,-0.971896,0.0102388,0,0,0,0,0,0,0,11.3936,-31.2254,8.36,15.918,4.04449,1.32287,-0.0365141,
0.205796,0.16681,-0.243333,-1.66296,0.182215,0.183203,-0.0197968,0.111403,0.095178,0.107551,-0.222637,0.32849,-0.727212,0.0346556,10.4899,-1.25532,10.6235,-22.7414,10.2303,-3.45787,6.32829,59.4705,-9.79556,55.1369,-37.155,10.4418,-13.8529,0.716626,0.203824,0.16411,-0.245317,-1.65841,0.175966,0.194406,-0.0204337,0.26927,0.251415,-0.173154,-0.128866,0.699562,-0.971896,0.0102388,0,0,0,0,0,0,0,11.3936,-31.2254,8.36,15.918,4.04449,1.32287,-0.0365141,
0.207675,0.167245,-0.241544,-1.66574,0.186182,0.175587,-0.019403,0.136106,0.087016,0.130768,-0.24743,0.361961,-0.772183,0.0375697,15.4394,-5.10128,14.5107,-15.4956,20.9194,-28.1063,1.82136,49.1073,-3.2277,45.873,-32.2805,10.6209,-13.4536,0.451717,0.214088,0.164601,-0.245337,-1.67262,0.192062,0.157572,-0.0194625,0.0965318,0.00741635,0.457964,-0.450181,0.426011,-1.26728,0.0471389,-21.5923,-30.4999,78.8898,-40.1644,-34.1938,-36.9234,4.61251,20.4946,-34.3953,18.0124,17.0129,5.32714,-1.32942,0.124619,
0.209781,0.167596,-0.239568,-1.66828,0.191145,0.166809,-0.0191606,0.16154,0.0783977,0.154008,-0.261486,0.413635,-0.837203,0.0361153,15.8961,-5.38645,14.5254,-8.7847,32.2962,-40.6375,-0.908998,41.6027,-0.963191,38.9401,-29.8242,10.6209,-13.4536,0.284708,0.214088,0.164601,-0.245337,-1.67262,0.192062,0.157572,-0.0194625,0.0965318,0.00741635,0.457964,-0.450181,0.426011,-1.26728,0.0471389,0,0,0,0,0,0,0,20.4946,-34.3953,18.0124,17.0129,5.32714,-1.32942,0.124619,
0.215819,0.166007,-0.24362,-1.67485,0.195003,0.149251,-0.0194646,0.172526,0.0978611,0.166113,-0.265001,0.404439,-0.877766,0.028838,6.86614,12.1646,7.56521,-2.19728,-5.74788,-25.3524,-4.54836,0.250947,36.1921,1.23674,-23.1901,-1.37907,-1.45361,-5.58719e-05,0.214088,0.164601,-0.245337,-1.67262,0.192062,0.157572,-0.0194625,0.0965318,0.00741635,0.457964,-0.450181,0.426011,-1.26728,0.0471389,0,0,0,0,0,0,0,20.4946,-34.3953,18.0124,17.0129,5.32714,-1.32942,0.124619,
0.218285,0.166126,-0.241401,-1.67859,0.198581,0.141273,-0.0188534,0.199659,0.0812658,0.18838,-0.30528,0.412998,-0.901661,0.0383504,16.9583,-10.372,13.9169,-25.1742,5.34951,-14.9339,5.94527,61.4743,-17.2252,55.5471,-45.1766,10.6209,-13.4536,0.756951,0.214088,0.164601,-0.245337,-1.67262,0.192062,0.157572,-0.0194625,0.0965318,0.00741635,0.457964,-0.450181,0.426011,-1.26728,0.0471389,0,0,0,0,0,0,0,20.4946,-34.3953,18.0124,17.0129,5.32714,-1.32942,0.124619,
0.220964,0.166126,-0.23897,-1.68202,0.203231,0.13225,-0.018508,0.226696,0.0650079,0.211479,-0.330185,0.446654,-0.946904,0.0393172,16.8979,-10.1612,14.4372,-15.5656,21.0351,-28.2771,0.604229,49.1575,-8.11651,44.9207,-38.5565,10.7183,-12.9755,0.404511,0.228839,0.164536,-0.23444,-1.68857,0.207655,0.111627,-0.018187,0.689,-0.0867209,0.10558,-0.611651,0.748897,-1.36625,0.0618841,74.0585,-11.7672,-44.048,-20.1837,40.3606,-12.3713,1.84315,24.2754,-32.7251,20.8371,16.1679,4.45373,-1.79359,0.164902,
0.22368,0.166139,-0.236491,-1.68515,0.208954,0.122486,-0.0183346,0.249256,0.0523257,0.231157,-0.342209,0.500383,-1.00164,0.035788,14.1,-7.92638,12.2989,-7.51517,33.5807,-34.2075,-2.20574,40.9593,-4.865,37.7106,-35.5501,10.7183,-12.9755,0.208883,0.228839,0.164536,-0.23444,-1.68857,0.207655,0.111627,-0.018187,0.689,-0.0867209,0.10558,-0.611651,0.748897,-1.36625,0.0618841,0,0,0,0,0,0,0,24.2754,-32.7251,20.8371,16.1679,4.45373,-1.79359,0.164902,
0.238595,0.163862,-0.225494,-1.6997,0.229403,0.0806698,-0.0178532,0.276071,0.0397058,0.255798,-0.359268,0.599475,-1.04431,0.029008,16.7598,-7.8874,15.4004,-10.662,61.9326,-26.6719,-4.23751,44.318,-8.40767,41.1048,-42.8144,10.7183,-10.9818,0.283449,0.228839,0.164536,-0.23444,-1.68857,0.207655,0.111627,-0.018187,0.689,-0.0867209,0.10558,-0.611651,0.748897,-1.36625,0.0618841,0,0,0,0,0,0,0,24.2754,-32.7251,20.8371,16.1679,4.45373,-1.79359,0.164902,
0.241457,0.163809,-0.222846,-1.70301,0.237822,0.0716404,-0.0178642,0.29242,0.030434,0.270837,-0.369993,0.690045,-1.06118,0.0229321,10.2181,-5.79492,9.39913,-6.70296,56.6061,-10.5449,-3.79744,36.6012,-5.1874,34.1015,-39.7566,10.7183,-10.1522,0.0864515,0.228839,0.164536,-0.23444,-1.68857,0.207655,0.111627,-0.018187,0.689,-0.0867209,0.10558,-0.611651,0.748897,-1.36625,0.0618841,0,0,0,0,0,0,0,24.2754,-32.7251,20.8371,16.1679,4.45373,-1.79359,0.164902,
0.244113,0.163788,-0.220388,-1.70621,0.246534,0.063441,-0.0179569,0.300323,0.0238272,0.278115,-0.376059,0.769854,-1.05393,0.016028,4.93937,-4.12924,4.549,-3.79129,49.8807,4.53277,-4.31507,31.8241,-3.17214,29.6535,-37.4953,10.9711,-8.83311,0.0300181,0.236376,0.169806,-0.20972,-1.70584,0.221042,0.064361,-0.016904,0.129621,0.190563,1.0023,-0.437894,0.284926,-1.6045,0.0683133,-69.9223,34.6605,112.09,21.7196,-57.9963,-29.7801,0.803645,15.2459,-28.3571,13.1128,16.3901,2.43225,-1.81373,0.017502,
0.246974,0.172702,-0.199919,-1.71729,0.24198,0.0337819,-0.0170625,0.31905,0.0388169,0.29494,-0.392677,0.81765,-1.07148,0.0101894,11.7045,9.36855,10.5153,-10.3862,29.8721,-10.967,-3.6491,31.8241,-3.17214,29.6535,-37.4953,10.9711,-8.83311,0.0300181,0.236376,0.169806,-0.20972,-1.70584,0.221042,0.064361,-0.016904,0.129621,0.190563,1.0023,-0.437894,0.284926,-1.6045,0.0683133,0,0,0,0,0,0,0,15.2459,-28.3571,13.1128,16.3901,2.43225,-1.81373,0.017502,
0.249827,0.173368,-0.197289,-1.7208,0.25051,0.0257905,-0.0171799,0.326576,0.047706,0.301696,-0.401771,0.867374,-1.05697,0.00521711,4.70356,5.55571,4.22299,-5.68385,31.0773,9.06923,-3.10768,27.6482,-3.07514,25.7905,-36.7021,10.9711,-8.16983,0.00124718,0.236376,0.169806,-0.20972,-1.70584,0.221042,0.064361,-0.016904,0.129621,0.190563,1.0023,-0.437894,0.284926,-1.6045,0.0683133,0,0,0,0,0,0,0,15.2459,-28.3571,13.1128,16.3901,2.43225,-1.81373,0.017502,
0.252443,0.17392,-0.194875,-1.72415,0.259243,0.0189388,-0.0172818,0.32666,0.051966,0.301695,-0.405341,0.912218,-1.01687,0.0016249,0.0521331,2.66251,-0.00110049,-2.23142,28.0279,25.0636,-2.24513,24.2755,-2.18682,22.6598,-35.4606,10.9711,-6.80501,-0.103811,0.236376,0.169806,-0.20972,-1.70584,0.221042,0.064361,-0.016904,0.129621,0.190563,1.0023,-0.437894,0.284926,-1.6045,0.0683133,0,0,0,0,0,0,0,15.2459,-28.3571,13.1128,16.3901,2.43225,-1.81373,0.017502,
0.254866,0.174371,-0.19264,-1.72737,0.268032,0.013149,-0.017363,0.321887,0.0528461,0.297244,-0.404719,0.949485,-0.958237,-0.000728422,-2.98279,0.550046,-2.78142,0.388994,23.2915,36.6428,-1.47083,22.7106,-1.17259,21.0894,-33.7299,10.9775,-4.55826,-0.12891,0.267535,0.166568,-0.198792,-1.73843,0.255507,0.0146223,-0.0167248,1.09618,0.106715,0.146057,-0.970925,1.16171,-1.39071,-0.00484723,120.82,-10.481,-107.031,-66.6288,109.598,26.7235,-9.14506,16.8962,-36.5932,14.5847,19.8297,3.52539,-2.03254,0.225327,
0.285489,0.173087,-0.182309,-1.75846,0.303505,-0.0233449,-0.0170893,0.327553,0.0644688,0.302581,-0.407739,0.99659,-0.874944,-0.00136051,3.54137,7.26419,3.33514,-1.88729,29.4412,52.0583,-0.395058,21.7092,-0.947509,20.1212,-32.8851,10.9775,-3.36048,-0.11334,0.267535,0.166568,-0.198792,-1.73843,0.255507,0.0146223,-0.0167248,1.09618,0.106715,0.146057,-0.970925,1.16171,-1.39071,-0.00484723,0,0,0,0,0,0,0,16.8962,-36.5932,14.5847,19.8297,3.52539,-2.03254,0.225327,
0.28804,0.173798,-0.179951,-1.76162,0.312773,-0.0263924,-0.0170993,0.325815,0.0693564,0.300999,-0.405206,1.02896,-0.776143,-0.00133719,-1.08628,3.05475,-0.988589,1.58283,20.2283,61.7508,0.0145784,20.9383,-0.811792,19.3882,-32.1517,10.9775,-2.41557,-0.0902431,0.267535,0.166568,-0.198792,-1.73843,0.255507,0.0146223,-0.0167248,1.09618,0.106715,0.146057,-0.970925,1.16171,-1.39071,-0.00484723,0,0,0,0,0,0,0,16.8962,-36.5932,14.5847,19.8297,3.52539,-2.03254,0.225327,
0.290384,0.17436,-0.177783,-1.7646,0.321721,-0.0283841,-0.0170859,0.31926,0.069545,0.294995,-0.398566,1.04686,-0.670708,-0.000735205,-4.0972,0.117879,-3.7524,4.15043,11.192,65.8969,0.37624,20.2733,-0.661621,18.7653,-31.4475,10.9775,-1.47097,-0.0655477,0.267535,0.166568,-0.198792,-1.73843,0.255507,0.0146223,-0.0167248,1.09618,0.106715,0.146057,-0.970925,1.16171,-1.39071,-0.00484723,0,0,0,0,0,0,0,16.8962,-36.5932,14.5847,19.8297,3.52539,-2.03254,0.225327,
0.27215,0.168201,-0.194642,-1.74345,0.264862,0.00365647,-0.0168249,0.370797,0.0964627,0.33974,-0.444479,1.07138,-0.810712,-0.00309098,32.2108,16.8236,27.9657,-28.6957,15.3209,-87.5029,-1.47236,21.7092,-0.947509,20.1212,-32.8851,10.9775,-3.36048,-0.11334,0.267535,0.166568,-0.198792,-1.73843,0.255507,0.0146223,-0.0167248,1.09618,0.106715,0.146057,-0.970925,1.16171,-1.39071,-0.00484723,0,0,0,0,0,0,0,16.8962,-36.5932,14.5847,19.8297,3.52539,-2.03254,0.225327,
0.276103,0.169766,-0.190992,-1.74768,0.274579,-0.00563161,-0.0169272,0.395453,0.116295,0.363052,-0.461289,1.10004,-0.880772,-0.00502993,15.4101,12.3949,14.5699,-10.5067,17.9133,-43.7872,-1.21185,20.8117,-0.972369,19.0548,-31.1689,10.9001,-1.64304,-0.0951794,0.283176,0.169699,-0.166568,-1.76819,0.29935,-0.0312441,-0.0168331,0.409525,0.134029,1.18105,-0.783006,1.28917,-1.09241,-0.0112168,-85.8318,3.41429,129.374,23.4898,15.9324,37.2872,-0.796198,8.98151,-43.1075,7.36024,29.7162,5.99273,1.52154,0.0303194,
0.279582,0.171102,-0.187773,-1.75152,0.284357,-0.013169,-0.0170052,0.403338,0.126425,0.370901,-0.465033,1.12448,-0.893053,-0.005974,4.92816,6.33179,4.90564,-2.34,15.2735,-7.67549,-0.590045,20.1467,-0.822198,18.4319,-30.4647,10.9001,-0.698447,-0.070484,0.283176,0.169699,-0.166568,-1.76819,0.29935,-0.0312441,-0.0168331,0.409525,0.134029,1.18105,-0.783006,1.28917,-1.09241,-0.0112168,0,0,0,0,0,0,0,8.98151,-43.1075,7.36024,29.7162,5.99273,1.52154,0.0303194,
0.282687,0.172199,-0.1849,-1.7551,0.294025,-0.0190107,-0.0170582,0.400301,0.128567,0.368554,-0.461505,1.14128,-0.860484,-0.00610396,-1.89861,1.33859,-1.46702,2.20507,10.5046,20.3551,-0.0812223,19.5631,-0.650062,17.8829,-29.775,10.9001,0.653868,-0.0455908,0.283176,0.169699,-0.166568,-1.76819,0.29935,-0.0312441,-0.0168331,0.409525,0.134029,1.18105,-0.783006,1.28917,-1.09241,-0.0112168,0,0,0,0,0,0,0,8.98151,-43.1075,7.36024,29.7162,5.99273,1.52154,0.0303194,
0.306152,0.176333,-0.145306,-1.78885,0.360069,-0.0514956,-0.0167942,0.387998,0.118,0.357279,-0.439995,1.1261,-0.672958,-0.00358006,-7.68884,-6.60438,-7.04653,13.444,-9.48885,117.204,1.57744,18.5401,-0.366026,16.9595,-28.5708,10.9001,2.43252,0.000340501,0.283176,0.169699,-0.166568,-1.76819,0.29935,-0.0312441,-0.0168331,0.409525,0.134029,1.18105,-0.783006,1.28917,-1.09241,-0.0112168,0,0,0,0,0,0,0,8.98151,-43.1075,7.36024,29.7162,5.99273,1.52154,0.0303194,
0.308603,0.176799,-0.143052,-1.79153,0.367685,-0.0494698,-0.0167438,0.371669,0.106057,0.342154,-0.419036,1.0913,-0.487722,-0.00160311,-10.2057,-7.46443,-9.45347,13.0996,-21.7509,115.772,1.2356,17.9652,-0.953921,16.3034,-27.6351,10.1508,2.97875,0.0245192,0.314285,0.175584,-0.148913,-1.79753,0.350374,-0.0581983,-0.0170607,0.927163,0.168597,0.448888,-0.852024,1.3366,-0.88002,-0.00838189,64.7047,4.32095,-91.5205,-8.62723,5.92895,26.5487,0.354365,-3.79712,-42.3061,-2.16124,28.8474,1.43066,-0.368112,-0.0566557,
0.310845,0.177152,-0.140995,-1.79406,0.374204,-0.0462434,-0.0166976,0.353394,0.0936666,0.325168,-0.398465,1.036,-0.309518,-0.000127513,-11.4224,-7.74402,-10.6163,12.8569,-34.5619,111.377,0.922245,17.4476,-0.740158,15.8501,-27.1073,9.51045,3.51193,0.0524603,0.314285,0.175584,-0.148913,-1.79753,0.350374,-0.0581983,-0.0170607,0.927163,0.168597,0.448888,-0.852024,1.3366,-0.88002,-0.00838189,0,0,0,0,0,0,0,-3.79712,-42.3061,-2.16124,28.8474,1.43066,-0.368112,-0.0566557,
0.312915,0.177414,-0.139098,-1.79645,0.379573,-0.0420295,-0.0166548,0.334453,0.0814889,0.307539,-0.378451,0.963034,-0.142267,0.000966743,-11.8381,-7.61105,-11.0178,12.5084,-45.6041,104.532,0.68391,16.7922,-0.469428,15.2719,-26.5766,9.01553,4.10786,0.0694969,0.314285,0.175584,-0.148913,-1.79753,0.350374,-0.0581983,-0.0170607,0.927163,0.168597,0.448888,-0.852024,1.3366,-0.88002,-0.00838189,0,0,0,0,0,0,0,-3.79712,-42.3061,-2.16124,28.8474,1.43066,-0.368112,-0.0566557,
0.357667,0.185504,-0.109141,-1.83351,0.358025,-0.0242347,-0.0164217,0.274425,0.0643372,0.251836,-0.307634,0.767535,-0.0798066,0.000484453,-37.5172,-10.7198,-34.8147,44.2609,-122.186,39.0378,-0.301431,11.6808,1.52665,10.9244,-14.4531,-0.740862,3.98974,0.0733958,0.314285,0.175584,-0.148913,-1.79753,0.350374,-0.0581983,-0.0170607,0.927163,0.168597,0.448888,-0.852024,1.3366,-0.88002,-0.00838189,0,0,0,0,0,0,0,-3.79712,-42.3061,-2.16124,28.8474,1.43066,-0.368112,-0.0566557,
0.357924,0.185472,-0.108925,-1.83367,0.35821,-0.0231311,-0.0164352,0.225981,0.0506677,0.206868,-0.250201,0.618653,-0.0362553,5.0663e-05,-30.2777,-8.54349,-28.1049,35.8952,-93.0516,27.2196,-0.271119,11.3278,1.03057,10.3537,-13.382,-0.900822,4.31896,0.0657441,0.334199,0.179587,-0.117729,-1.82604,0.400691,-0.081306,-0.0171224,0.830734,0.111538,0.624911,-0.901757,1.4987,-0.352565,0.00155708,-12.0536,-7.13233,22.0028,-6.21663,20.2621,65.9319,1.24237,-5.06665,-43.282,-6.88628,30.5136,1.65588,3.38463,-0.00996382,
0.358165,0.185442,-0.108725,-1.8338,0.358766,-0.0223471,-0.0164504,0.186802,0.0397933,0.170485,-0.203469,0.508812,-0.00940419,-0.000340104,-24.487,-6.79645,-22.7395,29.2078,-68.6502,16.782,-0.244229,11.0725,1.01368,10.1162,-13.0336,-0.824126,4.27623,0.0632068,0.334199,0.179587,-0.117729,-1.82604,0.400691,-0.081306,-0.0171224,0.830734,0.111538,0.624911,-0.901757,1.4987,-0.352565,0.00155708,0,0,0,0,0,0,0,-5.06665,-43.282,-6.88628,30.5136,1.65588,3.38463,-0.00996382,
0.359522,0.185303,-0.107747,-1.83373,0.405037,-0.0469825,-0.0164963,0.150568,0.0315965,0.136494,-0.161527,0.575585,-0.104736,-0.000607031,-22.6459,-5.12303,-21.2442,26.2138,41.7331,-59.5822,-0.166829,1.05971,1.602,0.527968,2.69744,8.87639,-2.64067,-0.0317591,0.334199,0.179587,-0.117729,-1.82604,0.400691,-0.081306,-0.0171224,0.830734,0.111538,0.624911,-0.901757,1.4987,-0.352565,0.00155708,0,0,0,0,0,0,0,-5.06665,-43.282,-6.88628,30.5136,1.65588,3.38463,-0.00996382,
0.359377,0.189268,-0.0977596,-1.82629,0.530019,-0.0974381,-0.0183498,0.12066,0.0244338,0.107657,-0.124494,0.500876,-0.0713916,-0.000920941,-18.6926,-4.47669,-18.0227,23.1455,-46.6935,20.84,-0.196193,0.813483,1.47005,0.182167,3.1572,3.19351,1.45908,-0.0323918,0.334199,0.179587,-0.117729,-1.82604,0.400691,-0.081306,-0.0171224,0.830734,0.111538,0.624911,-0.901757,1.4987,-0.352565,0.00155708,0,0,0,0,0,0,0,-5.06665,-43.282,-6.88628,30.5136,1.65588,3.38463,-0.00996382,
0.359385,0.189235,-0.0978211,-1.8261,0.531631,-0.0969439,-0.0183672,0.0967329,0.0187152,0.0845866,-0.0948804,0.441002,-0.0447585,-0.00117163,-14.9545,-3.5741,-14.4193,18.5085,-37.421,16.6457,-0.156683,0.18315,0.534236,-0.584006,3.20267,2.67515,1.15845,-0.0266202,0.358515,0.186453,-0.099089,-1.85033,0.440946,-0.0812538,-0.0170984,0.285901,0.26705,0.94572,-0.530095,0.508192,0.099907,0.00557297,-68.1041,19.4391,40.1012,46.4578,-123.814,56.559,0.501987,-15.5403,-51.2682,-14.686,42.6971,-3.70636,4.93645,-0.137222,
0.359393,0.189202,-0.0978828,-1.82591,0.533239,-0.0964514,-0.0183846,0.0775906,0.014152,0.0661283,-0.0712023,0.392998,-0.0234941,-0.00137175,-11.9639,-2.85202,-11.5365,14.7988,-30.0026,13.2903,-0.125076,0.18315,0.534236,-0.584006,3.20267,2.67515,1.15845,-0.0266202,0.358515,0.186453,-0.099089,-1.85033,0.440946,-0.0812538,-0.0170984,0.285901,0.26705,0.94572,-0.530095,0.508192,0.099907,0.00557297,0,0,0,0,0,0,0,-15.5403,-51.2682,-14.686,42.6971,-3.70636,4.93645,-0.137222,
0.373311,0.195906,-0.0859511,-1.85577,0.464901,-0.0937615,-0.0174372,0.0858831,0.0251075,0.0730386,-0.062215,0.382422,-0.0450455,-0.0018597,5.1828,6.84718,4.31897,5.61702,-6.61029,-13.4696,-0.304966,0.18315,0.534236,-0.584006,3.20267,2.67515,1.15845,-0.0266202,0.358515,0.186453,-0.099089,-1.85033,0.440946,-0.0812538,-0.0170984,0.285901,0.26705,0.94572,-0.530095,0.508192,0.099907,0.00557297,0,0,0,0,0,0,0,-15.5403,-51.2682,-14.686,42.6971,-3.70636,4.93645,-0.137222,
0.374074,0.196326,-0.0853205,-1.85589,0.467449,-0.0945462,-0.0174651,0.0877625,0.030568,0.0741943,-0.052893,0.369631,-0.0556558,-0.00218366,1.17463,3.41284,0.72231,5.82625,-7.99406,-6.63143,-0.202477,0.18315,0.534236,-0.584006,3.20267,2.67515,1.15845,-0.0266202,0.358515,0.186453,-0.099089,-1.85033,0.440946,-0.0812538,-0.0170984,0.285901,0.26705,0.94572,-0.530095,0.508192,0.099907,0.00557297,0,0,0,0,0,0,0,-15.5403,-51.2682,-14.686,42.6971,-3.70636,4.93645,-0.137222,
0.374685,0.196643,-0.084829,-1.85595,0.469852,-0.0950985,-0.0174909,0.0854931,0.0323792,0.0716433,-0.0437199,0.355786,-0.0583313,-0.00239172,-1.4184,1.13198,-1.59437,5.73321,-8.65334,-1.67222,-0.130036,0.0955369,-0.264882,-0.805019,2.72162,2.34382,0.823919,-0.0252051,0.374942,0.195532,-0.0812854,-1.85798,0.462085,-0.0844525,-0.0171534,0.436644,0.254678,0.0247323,-0.115266,1.1054,-0.120957,-0.00820236,18.8428,-1.54654,-115.124,51.8536,74.6507,-27.6079,-1.72192,-28.065,-54.4142,-25.6833,31.9339,1.65588,2.37664,0.0779268,
0.375176,0.19688,-0.0844483,-1.85595,0.472136,-0.0954507,-0.0175151,0.0806754,0.031847,0.0668333,-0.0350049,0.341726,-0.0554705,-0.00251851,-3.01106,-0.332635,-3.00624,5.44685,-8.78743,1.78803,-0.0792405,0.0955369,-0.264882,-0.805019,2.72162,2.34382,0.823919,-0.0252051,0.374942,0.195532,-0.0812854,-1.85798,0.462085,-0.0844525,-0.0171534,0.436644,0.254678,0.0247323,-0.115266,1.1054,-0.120957,-0.00820236,0,0,0,0,0,0,0,-28.065,-54.4142,-25.6833,31.9339,1.65588,2.37664,0.0779268,
0.381908,0.200509,-0.0753216,-1.8594,0.48982,-0.0888051,-0.017365,0.0767992,0.0312185,0.0629065,-0.0271717,0.335987,-0.0490559,-0.00262673,-2.42259,-0.392824,-2.45424,4.89576,-3.58668,4.00911,-0.0676397,0.0955369,-0.264882,-0.805019,2.72162,2.34382,0.823919,-0.0252051,0.374942,0.195532,-0.0812854,-1.85798,0.462085,-0.0844525,-0.0171534,0.436644,0.254678,0.0247323,-0.115266,1.1054,-0.120957,-0.00820236,0,0,0,0,0,0,0,-28.065,-54.4142,-25.6833,31.9339,1.65588,2.37664,0.0779268,
0.382306,0.200675,-0.0750312,-1.85933,0.492144,-0.0888643,-0.0173883,0.0713717,0.0291256,0.0575863,-0.0199632,0.326899,-0.0407262,-0.00268162,-3.39224,-1.30806,-3.32517,4.50533,-5.68036,5.20609,-0.0343083,0.0955369,-0.264882,-0.805019,2.72162,2.34382,0.823919,-0.0252051,0.374942,0.195532,-0.0812854,-1.85798,0.462085,-0.0844525,-0.0171534,0.436644,0.254678,0.0247323,-0.115266,1.1054,-0.120957,-0.00820236,0,0,0,0,0,0,0,-28.065,-54.4142,-25.6833,31.9339,1.65588,2.37664,0.0779268,
0.382628,0.200794,-0.0748111,-1.85923,0.494333,-0.0888116,-0.0174105,0.0651468,0.0262639,0.0515713,-0.0134516,0.316258,-0.0312637,-0.00270021,-3.89056,-1.78853,-3.75933,4.06974,-6.65045,5.91405,-0.0116152,0.0351506,-0.174873,-0.955368,2.971,2.28538,0.976748,-0.0243424,0.384896,0.199886,-0.0712656,-1.86014,0.483206,-0.0856926,-0.0171857,0.426247,0.0713224,0.273583,-0.0338133,0.696472,-0.013204,-0.00230941,-1.29961,-22.9195,31.1064,10.1816,-51.1157,13.4691,0.736619,-19.1664,-44.9522,-18.6334,21.0992,-0.316166,-0.586923,0.0376436,
0.393406,0.201285,-0.0639852,-1.85987,0.505998,-0.0886596,-0.0174323,0.0706404,0.0228366,0.056227,-0.0077549,0.325371,-0.0317491,-0.00290455,3.4335,-2.14211,2.9098,3.56044,5.69575,-0.303387,-0.127714,0.0351506,-0.174873,-0.955368,2.971,2.28538,0.976748,-0.0243424,0.384896,0.199886,-0.0712656,-1.86014,0.483206,-0.0856926,-0.0171857,0.426247,0.0713224,0.273583,-0.0338133,0.696472,-0.013204,-0.00230941,0,0,0,0,0,0,0,-19.1664,-44.9522,-18.6334,21.0992,-0.316166,-0.586923,0.0376436,
0.393999,0.201329,-0.0635218,-1.85973,0.508659,-0.0888018,-0.0174596,0.0713538,0.0193698,0.0565663,-0.00275698,0.32683,-0.0289538,-0.00300583,0.445858,-2.1667,0.212066,3.1237,0.911694,1.74705,-0.0633018,0.0351506,-0.174873,-0.955368,2.971,2.28538,0.976748,-0.0243424,0.384896,0.199886,-0.0712656,-1.86014,0.483206,-0.0856926,-0.0171857,0.426247,0.0713224,0.273583,-0.0338133,0.696472,-0.013204,-0.00230941,0,0,0,0,0,0,0,-19.1664,-44.9522,-18.6334,21.0992,-0.316166,-0.586923,0.0376436,
0.394476,0.201352,-0.0631662,-1.85958,0.51113,-0.0888262,-0.0174849,0.0690029,0.0160717,0.0541453,0.00160462,0.323224,-0.0237752,-0.0030386,-1.46931,-2.06136,-1.51315,2.726,-2.25368,3.23661,-0.0204772,0.0351506,-0.174873,-0.955368,2.971,2.28538,0.976748,-0.0243424,0.384896,0.199886,-0.0712656,-1.86014,0.483206,-0.0856926,-0.0171857,0.426247,0.0713224,0.273583,-0.0338133,0.696472,-0.013204,-0.00230941,0,0,0,0,0,0,0,-19.1664,-44.9522,-18.6334,21.0992,-0.316166,-0.586923,0.0376436,
0.39486,0.20136,-0.0628963,-1.85942,0.513445,-0.0887456,-0.0175088,0.064797,0.0130541,0.0500617,0.00539059,0.316451,-0.0170044,-0.00302711,-2.62868,-1.88596,-2.55226,2.36623,-4.2332,4.23176,0.00718088,0.103657,-0.332808,-0.945579,2.75542,2.1775,0.824439,-0.023109,0.392381,0.202416,-0.0651165,-1.86098,0.498772,-0.0856417,-0.017241,0.278911,-0.00667584,0.0131665,-0.0529299,0.464753,-0.00517556,0.00238804,-18.417,-9.74978,-32.5521,-2.38957,-28.9649,1.00356,0.587181,-13.3821,-43.1551,-11.3852,29.1449,1.95526,-0.454172,-0.0026396,
0.395903,0.202672,-0.0623425,-1.86048,0.512295,-0.0863682,-0.0173737,0.062478,0.010879,0.0477241,0.00827139,0.311726,-0.0125075,-0.00303471,-1.44936,-1.35948,-1.46099,1.80049,-2.95297,2.8106,-0.00475033,0.103657,-0.332808,-0.945579,2.75542,2.1775,0.824439,-0.023109,0.392381,0.202416,-0.0651165,-1.86098,0.498772,-0.0856417,-0.017241,0.278911,-0.00667584,0.0131665,-0.0529299,0.464753,-0.00517556,0.00238804,0,0,0,0,0,0,0,-13.3821,-43.1551,-11.3852,29.1449,1.95526,-0.454172,-0.0026396,
0.396245,0.202678,-0.0621122,-1.86031,0.514512,-0.0862305,-0.0173969,0.058538,0.00883334,0.0439368,0.0108448,0.304825,-0.00656284,-0.00300721,-2.4625,-1.27851,-2.36704,1.6084,-4.31322,3.71539,0.0171825,0.103657,-0.332808,-0.945579,2.75542,2.1775,0.824439,-0.023109,0.392381,0.202416,-0.0651165,-1.86098,0.498772,-0.0856417,-0.017241,0.278911,-0.00667584,0.0131665,-0.0529299,0.464753,-0.00517556,0.00238804,0,0,0,0,0,0,0,-13.3821,-43.1551,-11.3852,29.1449,1.95526,-0.454172,-0.0026396,
0.396521,0.202674,-0.061943,-1.86013,0.516627,-0.0860106,-0.017419,0.0537283,0.00697194,0.039379,0.0131201,0.296716,0.000246653,-0.00295886,-3.00606,-1.16338,-2.84865,1.42207,-5.06837,4.25593,0.0302225,0.103657,-0.332808,-0.945579,2.75542,2.1775,0.824439,-0.023109,0.392381,0.202416,-0.0651165,-1.86098,0.498772,-0.0856417,-0.017241,0.278911,-0.00667584,0.0131665,-0.0529299,0.464753,-0.00517556,0.00238804,0,0,0,0,0,0,0,-13.3821,-43.1551,-11.3852,29.1449,1.95526,-0.454172,-0.0026396,
0.396744,0.202664,-0.0618226,-1.85995,0.518655,-0.0857203,-0.0174403,0.0485589,0.00531884,0.034512,0.0151148,0.288093,0.00745566,-0.0028994,-3.23089,-1.03319,-3.04185,1.24666,-5.38927,4.50563,0.037161,0.103657,-0.332808,-0.945579,2.75542,2.1775,0.824439,-0.023109,0.392381,0.202416,-0.0651165,-1.86098,0.498772,-0.0856417,-0.017241,0.278911,-0.00667584,0.0131665,-0.0529299,0.464753,-0.00517556,0.00238804,0,0,0,0,0,0,0,-13.3821,-43.1551,-11.3852,29.1449,1.95526,-0.454172,-0.0026396,
0.399728,0.204353,-0.0600091,-1.85988,0.522104,-0.0839127,-0.017401,0.0456231,0.00567778,0.0316316,0.0159406,0.280107,0.0136882,-0.00286793,-1.83484,0.224336,-1.80028,0.516119,-4.99085,3.89534,0.0196691,0.0669546,-0.323674,-1.00873,2.71845,2.119,0.813331,-0.0227851,0.397441,0.203672,-0.0616202,-1.86055,0.511448,-0.0852485,-0.0172807,0.216884,0.0524819,-0.032017,0.0325974,0.306796,0.017656,0.000395703,-7.75343,7.39471,-5.64794,10.6909,-19.7446,2.85394,-0.249042,-6.84002,-39.8106,-6.18804,26.705,3.81195,-0.169443,0.0440523,
0.399945,0.20439,-0.0598972,-1.85972,0.52403,-0.0835637,-0.0174221,0.0419312,0.00547553,0.0281051,0.0168801,0.272228,0.0196744,-0.00282103,-2.30744,-0.126405,-2.20402,0.587181,-4.92479,3.7414,0.0293141,0.0669625,-0.32367,-1.00873,2.71845,2.11902,0.813288,-0.0227851,0.397441,0.203672,-0.0616202,-1.86055,0.511448,-0.0852485,-0.0172807,0.216884,0.0524819,-0.032017,0.0325974,0.306796,0.017656,0.000395703,0,0,0,0,0,0,0,-6.84002,-39.8106,-6.18804,26.705,3.81195,-0.169443,0.0440523,
0.40012,0.204413,-0.0598238,-1.85954,0.525904,-0.083175,-0.0174425,0.0379202,0.00494888,0.0243182,0.0178605,0.264653,0.025457,-0.00276695,-2.5069,-0.329158,-2.3668,0.612784,-4.734,3.6141,0.033802,0.066969,-0.323667,-1.00872,2.71844,2.11905,0.813244,-0.0227851,0.397441,0.203672,-0.0616202,-1.86055,0.511448,-0.0852485,-0.0172807,0.216884,0.0524819,-0.032017,0.0325974,0.306796,0.017656,0.000395703,0,0,0,0,0,0,0,-6.84002,-39.8106,-6.18804,26.705,3.81195,-0.169443,0.0440523,
0.39813,0.204476,-0.0610149,-1.86092,0.513039,-0.0845367,-0.0173099,0.0475475,0.0240563,0.0345872,0.00486445,0.251501,0.0381603,-0.00294174,6.0171,11.9421,6.41807,-8.12254,-8.22044,7.93956,-0.109248,-0.0189206,34.4069,-0.296046,-20.3404,-2.7594,0.895509,-0.0127003,0.397441,0.203672,-0.0616202,-1.86055,0.511448,-0.0852485,-0.0172807,0.216884,0.0524819,-0.032017,0.0325974,0.306796,0.017656,0.000395703,0,0,0,0,0,0,0,-6.84002,-39.8106,-6.18804,26.705,3.81195,-0.169443,0.0440523,
0.398692,0.205122,-0.0605988,-1.86111,0.514641,-0.0841303,-0.0173341,0.0521116,0.0353926,0.0380714,-0.000701075,0.241259,0.0406894,-0.00295861,2.85252,7.08515,2.17763,-3.47846,-6.40084,1.58069,-0.0105452,0.0899588,-0.301631,-1.0039,2.6743,2.03742,0.851536,-0.0225636,0.400109,0.203867,-0.060641,-1.85981,0.521962,-0.0845519,-0.0173151,0.0845882,-0.0125762,-0.00980678,0.0484521,0.293124,0.0320403,0.000989712,-16.5369,-8.13225,2.77628,1.98183,-1.70908,1.79804,0.0742511,-2.12292,-38.9656,-0.911547,22.1188,3.8916,-0.261911,0.050461,
0.399132,0.20562,-0.0602927,-1.8612,0.516259,-0.0838305,-0.0173568,0.0526775,0.0407648,0.0381108,-0.00279069,0.23344,0.0400465,-0.0029348,0.353735,3.35764,0.0246315,-1.30601,-4.88735,-0.401796,0.0148825,0.0900648,-0.301559,-1.0038,2.67427,2.03767,0.85108,-0.022563,0.400109,0.203867,-0.060641,-1.85981,0.521962,-0.0845519,-0.0173151,0.0845882,-0.0125762,-0.00980678,0.0484521,0.293124,0.0320403,0.000989712,0,0,0,0,0,0,0,-2.12292,-38.9656,-0.911547,22.1188,3.8916,-0.261911,0.050461,
0.399477,0.206,-0.06007,-1.86122,0.517886,-0.0835549,-0.0173784,0.0507733,0.0421066,0.0360564,-0.00288121,0.227445,0.0389254,-0.00288675,-1.19016,0.838612,-1.28397,-0.0565802,-3.74677,-0.700673,0.0300339,0.0901506,-0.301498,-1.00372,2.67424,2.03794,0.850613,-0.0225628,0.400109,0.203867,-0.060641,-1.85981,0.521962,-0.0845519,-0.0173151,0.0845882,-0.0125762,-0.00980678,0.0484521,0.293124,0.0320403,0.000989712,0,0,0,0,0,0,0,-2.12292,-38.9656,-0.911547,22.1188,3.8916,-0.261911,0.050461,
0.401461,0.20321,-0.0600909,-1.85789,0.535738,-0.0785142,-0.0174774,0.0424993,0.0324666,0.0283905,0.00324151,0.218899,0.0532602,-0.00278213,-5.17123,-6.02496,-4.79119,3.8267,-5.34123,8.95923,0.0653884,0.0790814,-0.326844,-1.0219,2.70711,1.65931,1.27979,-0.0222824,0.400109,0.203867,-0.060641,-1.85981,0.521962,-0.0845519,-0.0173151,0.0845882,-0.0125762,-0.00980678,0.0484521,0.293124,0.0320403,0.000989712,0,0,0,0,0,0,0,-2.12292,-38.9656,-0.911547,22.1188,3.8916,-0.261911,0.050461,
0.401523,0.203167,-0.0601215,-1.85767,0.537183,-0.0776166,-0.0174961,0.0355475,0.0248842,0.0219459,0.00808279,0.211253,0.0650472,-0.00269226,-4.3449,-4.73899,-4.02786,3.0258,-4.77887,7.36685,0.0561673,0.08652,-0.261958,-1.02833,2.68904,1.64854,1.2612,-0.0223547,0.401049,0.205841,-0.0592773,-1.859,0.528625,-0.0808835,-0.0173536,0.014814,0.037918,0.0366368,-0.0289703,0.248411,0.123357,-0.00268362,-8.72177,6.31177,5.80545,-9.6778,-5.589,11.4146,-0.459166,0.66608,-37.9143,0.361952,25.134,3.70208,-0.401071,0.0980684,
0.401574,0.203127,-0.0601623,-1.85745,0.538602,-0.0767102,-0.0175145,0.0297167,0.0189254,0.0165379,0.0119068,0.204488,0.0746973,-0.0026153,-3.64425,-3.72428,-3.38002,2.39003,-4.22784,6.03133,0.0480993,0.0868236,-0.261423,-1.02794,2.68867,1.6516,1.25642,-0.0223585,0.401049,0.205841,-0.0592773,-1.859,0.528625,-0.0808835,-0.0173536,0.014814,0.037918,0.0366368,-0.0289703,0.248411,0.123357,-0.00268362,0,0,0,0,0,0,0,0.66608,-37.9143,0.361952,25.134,3.70208,-0.401071,0.0980684,
0.401617,0.203092,-0.0602112,-1.85724,0.540001,-0.0757982,-0.0175328,0.0248341,0.0142474,0.0120073,0.0149234,0.198558,0.0825593,-0.00254955,-3.05161,-2.92377,-2.8316,1.88538,-3.70651,4.91375,0.0410913,0.0870764,-0.260936,-1.02757,2.6883,1.65471,1.25161,-0.0223641,0.401049,0.205841,-0.0592773,-1.859,0.528625,-0.0808835,-0.0173536,0.014814,0.037918,0.0366368,-0.0289703,0.248411,0.123357,-0.00268362,0,0,0,0,0,0,0,0.66608,-37.9143,0.361952,25.134,3.70208,-0.401071,0.0980684,
0.402622,0.207504,-0.0650703,-1.84424,0.648338,-0.0325955,-0.018765,0.0200603,0.0120678,0.00752213,0.0162391,0.193928,0.0785675,-0.00245891,-2.98362,-1.36222,-2.80326,0.822256,-2.89356,-2.49484,0.0566553,0.0870764,-0.260936,-1.02757,2.6883,1.65471,1.25161,-0.0223641,0.401049,0.205841,-0.0592773,-1.859,0.528625,-0.0808835,-0.0173536,0.014814,0.037918,0.0366368,-0.0289703,0.248411,0.123357,-0.00268362,0,0,0,0,0,0,0,0.66608,-37.9143,0.361952,25.134,3.70208,-0.401071,0.0980684,
0.402622,0.207504,-0.0650703,-1.84424,0.648338,-0.0325955,-0.018765,0.0162413,0.0103242,0.00393397,0.0172915,0.190224,0.0753741,-0.00238639,-2.3869,-1.08978,-2.2426,0.657805,-2.31484,-1.99587,0.0453243,0.0919459,-0.207241,-1.0307,2.66638,1.63135,1.25234,-0.0223375,0.402517,0.2068,-0.0591685,-1.85904,0.537095,-0.0782304,-0.0173697,0.0425422,0.0164991,0.0151274,-0.0107512,0.30742,0.130554,-0.000914602,3.46603,-2.67736,-2.68867,2.27739,7.37604,0.899591,0.221127,-1.66668,-39.1878,-1.26067,27.7008,3.24432,0.540091,0.050461,
0.402622,0.207504,-0.0650703,-1.84424,0.648338,-0.0325955,-0.018765,0.013186,0.00892924,0.00106343,0.0181335,0.187261,0.0728194,-0.00232837,-1.90952,-0.871824,-1.79408,0.526244,-1.85188,-1.5967,0.0362594,0.0919459,-0.207241,-1.0307,2.66638,1.63135,1.25234,-0.0223375,0.402517,0.2068,-0.0591685,-1.85904,0.537095,-0.0782304,-0.0173697,0.0425422,0.0164991,0.0151274,-0.0107512,0.30742,0.130554,-0.000914602,0,0,0,0,0,0,0,-1.66668,-39.1878,-1.26067,27.7008,3.24432,0.540091,0.050461,
0.406475,0.208381,-0.0617082,-1.84375,0.353552,0.285366,-0.0183856,0.0100563,0.00987132,-0.00141509,0.0167961,0.205189,0.0385686,-0.00217942,-1.95608,0.588801,-1.54907,-0.835894,11.2047,-21.4068,0.0930961,0.0919459,-0.207241,-1.0307,2.66638,1.63135,1.25234,-0.0223375,0.402517,0.2068,-0.0591685,-1.85904,0.537095,-0.0782304,-0.0173697,0.0425422,0.0164991,0.0151274,-0.0107512,0.30742,0.130554,-0.000914602,0,0,0,0,0,0,0,-1.66668,-39.1878,-1.26067,27.7008,3.24432,0.540091,0.050461,
0.404407,0.208556,-0.0662975,-1.84111,0.684419,-0.0250336,-0.0190722,0.00823721,0.00887422,-0.00324261,0.0175057,0.197608,0.0430273,-0.00215717,-1.13693,-0.623188,-1.1422,0.443477,-4.73822,2.78671,0.0139082,0.0919459,-0.207241,-1.0307,2.66638,1.63135,1.25234,-0.0223375,0.402517,0.2068,-0.0591685,-1.85904,0.537095,-0.0782304,-0.0173697,0.0425422,0.0164991,0.0151274,-0.0107512,0.30742,0.130554,-0.000914602,0,0,0,0,0,0,0,-1.66668,-39.1878,-1.26067,27.7008,3.24432,0.540091,0.050461,
0.404407,0.208556,-0.0662975,-1.84111,0.684419,-0.0250336,-0.0190722,0.00678194,0.00807654,-0.00470463,0.0180733,0.191543,0.0465943,-0.00213936,-0.909544,-0.498551,-0.913762,0.354781,-3.79058,2.22937,0.0111265,0.150509,-0.0927629,-0.985488,2.59367,1.60523,1.22875,-0.0226309,0.403392,0.208256,-0.0590331,-1.85827,0.549737,-0.0723511,-0.0173987,0.0133866,0.0735215,0.000571969,0.0413638,0.541648,0.236286,0.000129135,-3.64445,7.1278,-1.81943,6.51438,29.2785,13.2165,0.130467,-1.11126,-41.711,-0.610033,27.2763,3.58581,0.307547,0.0239107,
0.404407,0.208556,-0.0662975,-1.84111,0.684419,-0.0250336,-0.0190722,0.00561772,0.00743839,-0.00587425,0.0185274,0.186691,0.0494479,-0.00212512,-0.727635,-0.39884,-0.73101,0.283825,-3.03246,1.78349,0.00890123,0.150509,-0.0927629,-0.985488,2.59367,1.60523,1.22875,-0.0226309,0.403392,0.208256,-0.0590331,-1.85827,0.549737,-0.0723511,-0.0173987,0.0133866,0.0735215,0.000571969,0.0413638,0.541648,0.236286,0.000129135,0,0,0,0,0,0,0,-1.11126,-41.711,-0.610033,27.2763,3.58581,0.307547,0.0239107,
0.404773,0.211235,-0.0666423,-1.8403,0.711358,-0.0279551,-0.0191016,0.00470811,0.00714793,-0.00681574,0.0188152,0.185263,0.0492913,-0.00211565,-0.568507,-0.181541,-0.588431,0.179871,-0.892599,-0.0978618,0.00592079,0.150509,-0.0927629,-0.985488,2.59367,1.60523,1.22875,-0.0226309,0.403392,0.208256,-0.0590331,-1.85827,0.549737,-0.0723511,-0.0173987,0.0133866,0.0735215,0.000571969,0.0413638,0.541648,0.236286,0.000129135,0,0,0,0,0,0,0,-1.11126,-41.711,-0.610033,27.2763,3.58581,0.307547,0.0239107,
0.404773,0.211235,-0.0666423,-1.8403,0.711358,-0.0279551,-0.0191016,0.00398042,0.00691556,-0.00756893,0.0190455,0.18412,0.0491661,-0.00210807,-0.454806,-0.145233,-0.470744,0.143897,-0.714079,-0.0782894,0.00473664,0.150509,-0.0927629,-0.985488,2.59367,1.60523,1.22875,-0.0226309,0.403392,0.208256,-0.0590331,-1.85827,0.549737,-0.0723511,-0.0173987,0.0133866,0.0735215,0.000571969,0.0413638,0.541648,0.236286,0.000129135,0,0,0,0,0,0,0,-1.11126,-41.711,-0.610033,27.2763,3.58581,0.307547,0.0239107,
0.404773,0.211235,-0.0666423,-1.8403,0.711358,-0.0279551,-0.0191016,0.00339827,0.00672966,-0.00817148,0.0192297,0.183206,0.0490659,-0.00210201,-0.363845,-0.116186,-0.376596,0.115117,-0.571264,-0.0626315,0.00378931,0.22339,0.0752152,-0.924712,2.46611,1.57685,1.17847,-0.022683,0.404021,0.209524,-0.05922,-1.8568,0.56319,-0.0620885,-0.0174594,-0.00735802,0.00456816,-0.0255192,0.00863629,0.757743,0.220058,0.00111162,-2.59308,-8.61917,-3.2614,-4.09094,27.012,-2.02844,0.122811,0.25745,-41.3857,0.889601,27.1533,5.4187,-0.216135,0.0641939,
0.404773,0.211235,-0.0666423,-1.8403,0.711358,-0.0279551,-0.0191016,0.00293255,0.00658094,-0.00865352,0.019377,0.182475,0.0489857,-0.00209716,-0.291076,-0.0929488,-0.301276,0.0920939,-0.457011,-0.0501052,0.00303145,0.22339,0.0752152,-0.924712,2.46611,1.57685,1.17847,-0.022683,0.404021,0.209524,-0.05922,-1.8568,0.56319,-0.0620885,-0.0174594,-0.00735802,0.00456816,-0.0255192,0.00863629,0.757743,0.220058,0.00111162,0,0,0,0,0,0,0,0.25745,-41.3857,0.889601,27.1533,5.4187,-0.216135,0.0641939,
0.405019,0.211681,-0.0671359,-1.83876,0.738182,-0.030171,-0.0191446,0.00258099,0.00660138,-0.00903511,0.0193679,0.184136,0.0463652,-0.00209287,-0.219724,0.0127724,-0.23849,-0.00567504,1.03834,-1.63781,0.00267744,0.22339,0.0752152,-0.924712,2.46611,1.57685,1.17847,-0.022683,0.404021,0.209524,-0.05922,-1.8568,0.56319,-0.0620885,-0.0174594,-0.00735802,0.00456816,-0.0255192,0.00863629,0.757743,0.220058,0.00111162,0,0,0,0,0,0,0,0.25745,-41.3857,0.889601,27.1533,5.4187,-0.216135,0.0641939,
0.405019,0.211681,-0.0671359,-1.83876,0.738182,-0.030171,-0.0191446,0.00229975,0.00661773,-0.00934037,0.0193607,0.185465,0.0442688,-0.00208944,-0.175779,0.0102179,-0.190792,-0.00454003,0.830673,-1.31025,0.00214195,0.22339,0.0752152,-0.924712,2.46611,1.57685,1.17847,-0.022683,0.404021,0.209524,-0.05922,-1.8568,0.56319,-0.0620885,-0.0174594,-0.00735802,0.00456816,-0.0255192,0.00863629,0.757743,0.220058,0.00111162,0,0,0,0,0,0,0,0.25745,-41.3857,0.889601,27.1533,5.4187,-0.216135,0.0641939,
0.405019,0.211681,-0.0671359,-1.83876,0.738182,-0.030171,-0.0191446,0.00207475,0.0066308,-0.00958459,0.0193548,0.186528,0.0425917,-0.0020867,-0.140623,0.00817433,-0.152633,-0.00363203,0.664539,-1.0482,0.00171356,0.160598,0.127386,-0.992099,2.44551,1.52368,1.17813,-0.0220971,0.404169,0.210295,-0.0598106,-1.85573,0.580961,-0.0555496,-0.0175287,0.00516213,0.0311422,-0.014264,0.0530734,0.583738,0.182441,-0.00116989,1.56502,3.32176,1.40691,5.55464,-21.7507,-4.70215,-0.285189,-0.0202602,-39.3861,0.112013,26.1575,4.23309,-0.0101412,0.0706026,
0.405019,0.211681,-0.0671359,-1.83876,0.738182,-0.030171,-0.0191446,0.00189475,0.00664127,-0.00977996,0.0193502,0.187379,0.04125,-0.00208451,-0.112499,0.00653946,-0.122107,-0.00290562,0.531631,-0.838558,0.00137085,0.160598,0.127386,-0.992099,2.44551,1.52368,1.17813,-0.0220971,0.404169,0.210295,-0.0598106,-1.85573,0.580961,-0.0555496,-0.0175287,0.00516213,0.0311422,-0.014264,0.0530734,0.583738,0.182441,-0.00116989,0,0,0,0,0,0,0,-0.0202602,-39.3861,0.112013,26.1575,4.23309,-0.0101412,0.0706026,
0.405851,0.209387,-0.0592211,-1.85494,0.574978,-0.0443914,-0.0175752,0.0231371,-0.00926561,0.00641944,0.026384,0.0273897,0.196841,-0.00149035,13.2765,-9.9418,10.1246,4.39613,-99.9933,97.2444,0.37135,14.8383,-9.79998,0.669813,7.02612,-14.9438,12.7991,-0.101178,0.404169,0.210295,-0.0598106,-1.85573,0.580961,-0.0555496,-0.0175287,0.00516213,0.0311422,-0.014264,0.0530734,0.583738,0.182441,-0.00116989,0,0,0,0,0,0,0,-0.0202602,-39.3861,0.112013,26.1575,4.23309,-0.0101412,0.0706026,
0.406738,0.208713,-0.0583609,-1.8544,0.567636,-0.0366557,-0.0175533,0.0406886,-0.0242554,0.0266404,0.0346193,-0.16164,0.350864,-0.000643632,10.9696,-9.36859,12.6381,5.14703,-118.143,96.2646,0.529198,12.6814,-9.28729,6.6106,7.03602,-14.9438,12.7991,-0.0141723,0.404169,0.210295,-0.0598106,-1.85573,0.580961,-0.0555496,-0.0175287,0.00516213,0.0311422,-0.014264,0.0530734,0.583738,0.182441,-0.00116989,0,0,0,0,0,0,0,-0.0202602,-39.3861,0.112013,26.1575,4.23309,-0.0101412,0.0706026,
0.407675,0.208002,-0.0574192,-1.85382,0.558747,-0.0281753,-0.0175287,0.0559757,-0.0371756,0.044856,0.0423659,-0.351553,0.492701,0.00010063,9.55444,-8.07516,11.3848,4.84165,-118.696,88.6478,0.465164,10.7467,-8.32313,9.03877,7.56719,-14.9438,12.7991,0.0116303,0.404169,0.210295,-0.0598106,-1.85573,0.580961,-0.0555496,-0.0175287,0.00516213,0.0311422,-0.014264,0.0530734,0.583738,0.182441,-0.00116989,0,0,0,0,0,0,0,-0.0202602,-39.3861,0.112013,26.1575,4.23309,-0.0101412,0.0706026,
0.405107,0.21101,-0.059648,-1.85263,0.591234,-0.0367838,-0.0175444,0.0606363,-0.0351965,0.0506875,0.0527364,-0.416345,0.564018,0.000330439,2.9129,1.23696,3.64466,6.48157,-40.4946,44.5732,0.143631,7.92779,-1.10621,5.87524,8.51469,-14.9909,12.79,-0.00511596,0.404145,0.211347,-0.0606903,-1.85405,0.598682,-0.0486358,-0.0175749,0.0141984,0.0249119,-0.0258712,0.0789718,0.402659,0.271855,-0.00521572,1.12953,-0.778797,-1.4509,3.2373,-22.6349,11.1767,-0.505729,2.69336,-42.9329,2.48842,26.9272,2.66388,1.35583,-0.0163725,
0.405875,0.210757,-0.0589544,-1.85185,0.583649,-0.0288712,-0.0175385,0.0677043,-0.0344745,0.0578899,0.0618036,-0.522702,0.649031,0.000413084,4.41748,0.451239,4.50155,5.667,-66.4736,53.1329,0.0516532,8.58288,-0.307132,5.84059,8.99725,-14.9909,12.79,-0.0070272,0.404145,0.211347,-0.0606903,-1.85405,0.598682,-0.0486358,-0.0175749,0.0141984,0.0249119,-0.0258712,0.0789718,0.402659,0.271855,-0.00521572,0,0,0,0,0,0,0,2.69336,-42.9329,2.48842,26.9272,2.66388,1.35583,-0.0163725,
0.406701,0.210494,-0.0582079,-1.85108,0.574639,-0.0202365,-0.0175343,0.0748125,-0.0341516,0.0649729,0.0687013,-0.643406,0.735093,0.000435314,4.44266,0.201781,4.42688,4.31109,-75.4398,53.7888,0.0138939,8.58235,-0.467533,6.38292,8.99448,-14.9909,12.79,-0.00425966,0.404145,0.211347,-0.0606903,-1.85405,0.598682,-0.0486358,-0.0175749,0.0141984,0.0249119,-0.0258712,0.0789718,0.402659,0.271855,-0.00521572,0,0,0,0,0,0,0,2.69336,-42.9329,2.48842,26.9272,2.66388,1.35583,-0.0163725,
0.407549,0.210231,-0.057441,-1.85034,0.56469,-0.0111398,-0.0175295,0.0810527,-0.0338924,0.0711519,0.0733201,-0.763469,0.81549,0.000466977,3.90012,0.162029,3.86183,2.8867,-75.0391,50.2485,0.0197895,8.60224,-0.959454,6.88996,8.79987,-14.9909,12.79,-0.00205921,0.404145,0.211347,-0.0606903,-1.85405,0.598682,-0.0486358,-0.0175749,0.0141984,0.0249119,-0.0258712,0.0789718,0.402659,0.271855,-0.00521572,0,0,0,0,0,0,0,2.69336,-42.9329,2.48842,26.9272,2.66388,1.35583,-0.0163725,
0.413322,0.208565,-0.0520414,-1.84677,0.507716,0.0530988,-0.0175623,0.0858249,-0.0334289,0.0750761,0.0737698,-0.897006,0.901962,0.000714494,2.98263,0.289699,2.45264,0.281076,-83.4605,54.0449,0.154698,8.95605,-0.923822,7.66752,7.26187,-15.1373,12.4516,0.00874556,0.408034,0.21028,-0.056712,-1.85127,0.57189,-0.00889411,-0.0176069,0.150356,-0.0172173,0.0747004,0.155645,-1.05192,1.3583,-0.00837242,17.0197,-5.26615,12.5714,9.58417,-181.822,135.806,-0.394588,1.90784,-40.5129,-0.510851,26.2289,0.484005,1.82,0.285752,
0.414148,0.208337,-0.0513266,-1.8462,0.496161,0.0629898,-0.0175471,0.0893242,-0.0324395,0.0779308,0.073272,-1.00648,0.968843,0.000952256,2.18706,0.618359,1.78418,-0.311094,-68.423,41.8009,0.148601,9.16168,-1.25563,7.91202,6.99644,-15.1373,12.4516,0.011046,0.408034,0.21028,-0.056712,-1.85127,0.57189,-0.00889411,-0.0176069,0.150356,-0.0172173,0.0747004,0.155645,-1.05192,1.3583,-0.00837242,0,0,0,0,0,0,0,1.90784,-40.5129,-0.510851,26.2289,0.484005,1.82,0.285752,
0.414962,0.208134,-0.0506198,-1.84566,0.484538,0.0728004,-0.0175305,0.0918141,-0.0310392,0.0800155,0.0721327,-1.09575,1.02034,0.0011764,1.55618,0.875175,1.30297,-0.71211,-55.7952,32.1859,0.140092,9.36385,-1.45301,8.07992,6.76268,-15.1373,12.4516,0.0130078,0.408034,0.21028,-0.056712,-1.85127,0.57189,-0.00889411,-0.0176069,0.150356,-0.0172173,0.0747004,0.155645,-1.05192,1.3583,-0.00837242,0,0,0,0,0,0,0,1.90784,-40.5129,-0.510851,26.2289,0.484005,1.82,0.285752,
0.415764,0.207953,-0.0499181,-1.84514,0.472875,0.0825393,-0.017513,0.0935038,-0.0293422,0.0815533,0.070568,-1.16819,1.05974,0.00137871,1.05604,1.06062,0.961084,-0.977904,-45.2691,24.6267,0.126443,9.53756,-1.53583,8.18803,6.55863,-15.1373,12.4516,0.0151317,0.408034,0.21028,-0.056712,-1.85127,0.57189,-0.00889411,-0.0176069,0.150356,-0.0172173,0.0747004,0.155645,-1.05192,1.3583,-0.00837242,0,0,0,0,0,0,0,1.90784,-40.5129,-0.510851,26.2289,0.484005,1.82,0.285752,
0.408971,0.210007,-0.0558721,-1.85031,0.562414,0.00187321,-0.0176083,0.098228,-0.0302986,0.0862398,0.0805319,-1.17146,1.11698,0.00106891,2.9526,-0.597717,2.9291,6.22741,-2.04931,35.7715,-0.193626,8.91774,0.339558,7.6056,6.06859,-15.2722,11.9124,0.0146849,0.414764,0.208831,-0.0519113,-1.84697,0.521457,0.0462666,-0.0175813,0.321723,-0.0709178,0.114612,0.111345,-1.67465,1.83897,-0.00292422,21.4208,-6.71257,4.989,-5.53747,-77.8412,60.0837,0.681026,-1.94836,-35.8672,-2.28819,26.5027,-0.774845,3.19878,0.0706026,
0.409877,0.2097,-0.0550577,-1.84947,0.552212,0.0124338,-0.0176042,0.101246,-0.0319346,0.0893529,0.0853458,-1.19221,1.1576,0.000956862,1.8864,-1.02248,1.9457,3.00868,-12.9679,25.3868,-0.0700304,9.12337,0.00774603,7.8501,5.80316,-15.2722,11.9124,0.0169853,0.414764,0.208831,-0.0519113,-1.84697,0.521457,0.0462666,-0.0175813,0.321723,-0.0709178,0.114612,0.111345,-1.67465,1.83897,-0.00292422,0,0,0,0,0,0,0,-1.94836,-35.8672,-2.28819,26.5027,-0.774845,3.19878,0.0706026,
0.410762,0.20939,-0.0542713,-1.84871,0.541506,0.0228074,-0.0175972,0.103119,-0.0332818,0.0911436,0.0871723,-1.22141,1.18542,0.000940953,1.1702,-0.84202,1.11915,1.14156,-18.2475,17.3885,-0.00994343,9.32554,-0.189632,8.018,5.5694,-15.2722,11.9124,0.0189472,0.414764,0.208831,-0.0519113,-1.84697,0.521457,0.0462666,-0.0175813,0.321723,-0.0709178,0.114612,0.111345,-1.67465,1.83897,-0.00292422,0,0,0,0,0,0,0,-1.94836,-35.8672,-2.28819,26.5027,-0.774845,3.19878,0.0706026,
0.422665,0.206925,-0.0450817,-1.84239,0.43842,0.122072,-0.0175336,0.104168,-0.0309285,0.0926543,0.0819923,-1.26619,1.19147,0.00112092,0.655747,1.47079,0.944208,-3.23747,-27.9886,3.78513,0.112481,9.7404,-0.131515,8.30345,4.87918,-15.2722,11.9124,0.026118,0.414764,0.208831,-0.0519113,-1.84697,0.521457,0.0462666,-0.0175813,0.321723,-0.0709178,0.114612,0.111345,-1.67465,1.83897,-0.00292422,0,0,0,0,0,0,0,-1.94836,-35.8672,-2.28819,26.5027,-0.774845,3.19878,0.0706026,
0.423497,0.206773,-0.0443068,-1.84193,0.426859,0.131671,-0.0175163,0.104143,-0.02854,0.0934973,0.0770154,-1.30197,1.19315,0.00132812,-0.0154747,1.49284,0.526881,-3.11056,-22.3627,1.04746,0.129498,9.46115,-0.0565267,8.12103,4.72849,-14.9882,11.611,0.0275362,0.422991,0.208315,-0.0454899,-1.84233,0.463514,0.109039,-0.0175821,0.317436,0.025128,0.0544793,0.148112,-1.49565,1.75041,-0.00195659,-0.535764,12.0057,-7.51664,4.59586,22.3748,-11.0701,0.120954,-3.2893,-40.2629,-3.13719,27.9745,0.514218,2.38305,0.0779268,
0.424301,0.206639,-0.0435391,-1.8415,0.415299,0.14117,-0.0174971,0.103408,-0.026184,0.0939886,0.0723199,-1.33058,1.19199,0.00154239,-0.45946,1.47248,0.307037,-2.93473,-17.8792,-0.724758,0.13392,9.43235,0.0398188,8.17326,4.59364,-14.9882,11.611,0.0282872,0.422991,0.208315,-0.0454899,-1.84233,0.463514,0.109039,-0.0175821,0.317436,0.025128,0.0544793,0.148112,-1.49565,1.75041,-0.00195659,0,0,0,0,0,0,0,-3.2893,-40.2629,-3.13719,27.9745,0.514218,2.38305,0.0779268,
0.425081,0.206521,-0.0427755,-1.8411,0.403743,0.150586,-0.0174767,0.102234,-0.0239054,0.0942816,0.0679392,-1.35337,1.18899,0.00174397,-0.733625,1.42411,0.183106,-2.73793,-14.2473,-1.87354,0.125986,9.39076,0.128681,8.23125,4.46371,-14.9882,11.611,0.0284552,0.422991,0.208315,-0.0454899,-1.84233,0.463514,0.109039,-0.0175821,0.317436,0.025128,0.0544793,0.148112,-1.49565,1.75041,-0.00195659,0,0,0,0,0,0,0,-3.2893,-40.2629,-3.13719,27.9745,0.514218,2.38305,0.0779268,
0.430132,0.207676,-0.0388087,-1.83847,0.38325,0.183414,-0.0174956,0.101927,-0.0217532,0.0958061,0.0641485,-1.36789,1.18826,0.00190263,-0.191954,1.34516,0.952808,-2.36917,-9.07563,-0.456853,0.0991625,9.35323,0.252765,8.5127,4.06752,-14.9882,11.611,0.0269411,0.422991,0.208315,-0.0454899,-1.84233,0.463514,0.109039,-0.0175821,0.317436,0.025128,0.0544793,0.148112,-1.49565,1.75041,-0.00195659,0,0,0,0,0,0,0,-3.2893,-40.2629,-3.13719,27.9745,0.514218,2.38305,0.0779268,
0.430905,0.207585,-0.0380262,-1.83812,0.372042,0.192759,-0.0174771,0.100881,-0.0196754,0.0962075,0.0601306,-1.37452,1.18423,0.00198411,-0.653423,1.29861,0.250927,-2.51119,-4.14081,-2.51941,0.0509273,8.97742,1.27226,8.31701,2.99686,-15.0061,11.0516,0.03318,0.431504,0.207594,-0.0379815,-1.83873,0.399226,0.175029,-0.0175722,0.362577,-0.0546052,0.125108,0.0806002,-1.84375,2.00993,-0.00289123,5.64261,-9.96665,8.82859,-8.43901,-43.5123,32.4396,-0.11683,-3.99945,-41.0365,-4.56145,25.8322,0.0317347,2.04522,0.0303194,
0.431648,0.207513,-0.0372829,-1.83781,0.361248,0.201998,-0.0174601,0.0992644,-0.0175382,0.095549,0.0558973,-1.36947,1.17834,0.00201108,-1.01063,1.33577,-0.411591,-2.6458,3.15542,-3.6802,0.0168538,8.89422,1.28966,8.46322,2.85508,-15.0061,11.0516,0.0346469,0.431504,0.207594,-0.0379815,-1.83873,0.399226,0.175029,-0.0175722,0.362577,-0.0546052,0.125108,0.0806002,-1.84375,2.00993,-0.00289123,0,0,0,0,0,0,0,-3.99945,-41.0365,-4.56145,25.8322,0.0317347,2.04522,0.0303194,
0.432361,0.207462,-0.0365774,-1.83753,0.350981,0.21115,-0.0174436,0.0972524,-0.0153148,0.0940759,0.0516338,-1.35224,1.17148,0.0020228,-1.2575,1.3896,-0.920655,-2.66472,10.7678,-4.29068,0.00732412,8.79647,1.31267,8.58242,2.71613,-15.0061,11.0516,0.035464,0.431504,0.207594,-0.0379815,-1.83873,0.399226,0.175029,-0.0175722,0.362577,-0.0546052,0.125108,0.0806002,-1.84375,2.00993,-0.00289123,0,0,0,0,0,0,0,-3.99945,-41.0365,-4.56145,25.8322,0.0317347,2.04522,0.0303194,
0.439102,0.206357,-0.0309679,-1.83524,0.32519,0.25048,-0.0175556,0.0965967,-0.0144283,0.0929632,0.0487111,-1.28996,1.17012,0.00194806,-0.409796,0.554039,-0.695451,-1.82666,38.9258,-0.850501,-0.046711,8.54727,1.39802,8.73492,2.31034,-15.0061,11.0516,0.0363395,0.431504,0.207594,-0.0379815,-1.83873,0.399226,0.175029,-0.0175722,0.362577,-0.0546052,0.125108,0.0806002,-1.84375,2.00993,-0.00289123,0,0,0,0,0,0,0,-3.99945,-41.0365,-4.56145,25.8322,0.0317347,2.04522,0.0303194,
0.439813,0.206295,-0.030301,-1.83498,0.317463,0.259637,-0.0175421,0.095057,-0.0130968,0.0910426,0.0454943,-1.22514,1.16503,0.00189593,-0.962358,0.832183,-1.20038,-2.01048,40.5118,-3.18144,-0.0325814,8.14981,1.77786,8.41511,1.79733,-14.0805,10.5831,0.0378978,0.439597,0.208201,-0.0310242,-1.83678,0.327931,0.244611,-0.0175639,0.358076,0.0464144,0.0475161,0.0642412,-2.08729,1.97652,0.000697508,-0.562659,12.6275,-9.69898,-2.04488,-30.4426,-4.1762,0.448592,-2.68231,-40.2113,-0.836168,28.1967,3.92181,0.931021,-0.0301054,
0.440494,0.206255,-0.0296647,-1.83475,0.3103,0.268675,-0.0175286,0.0930663,-0.0114832,0.0887413,0.0422181,-1.15921,1.15797,0.00185458,-1.24414,1.00856,-1.43834,-2.04766,41.2084,-4.40973,-0.0258432,8.13808,1.80058,8.36215,1.66115,-13.1119,10.5831,0.0381764,0.439597,0.208201,-0.0310242,-1.83678,0.327931,0.244611,-0.0175639,0.358076,0.0464144,0.0475161,0.0642412,-2.08729,1.97652,0.000697508,0,0,0,0,0,0,0,-2.68231,-40.2113,-0.836168,28.1967,3.92181,0.931021,-0.0301054,
0.441151,0.206234,-0.02905,-1.83454,0.303663,0.277621,-0.0175154,0.0908837,-0.0097032,0.0863615,0.0390413,-1.09328,1.15002,0.00181446,-1.36417,1.11247,-1.48735,-1.98547,41.2051,-4.96716,-0.0250722,8.15018,1.82131,8.27305,1.52148,-12.2149,10.5831,0.0385769,0.439597,0.208201,-0.0310242,-1.83678,0.327931,0.244611,-0.0175639,0.358076,0.0464144,0.0475161,0.0642412,-2.08729,1.97652,0.000697508,0,0,0,0,0,0,0,-2.68231,-40.2113,-0.836168,28.1967,3.92181,0.931021,-0.0301054,
0.448673,0.209362,-0.0234161,-1.83118,0.267392,0.300685,-0.0177334,0.0823527,-0.00734899,0.0780799,0.0358291,-0.908229,0.925263,0.00143731,-5.33185,1.47138,-5.17603,-2.00767,115.657,-140.475,-0.235719,7.13891,2.96434,6.51029,0.230309,-4.82959,4.29016,0.0264169,0.439597,0.208201,-0.0310242,-1.83678,0.327931,0.244611,-0.0175639,0.358076,0.0464144,0.0475161,0.0642412,-2.08729,1.97652,0.000697508,0,0,0,0,0,0,0,-2.68231,-40.2113,-0.836168,28.1967,3.92181,0.931021,-0.0301054,
0.449052,0.20938,-0.0230625,-1.831,0.266105,0.300799,-0.0177342,0.0753572,-0.00541486,0.0713045,0.0330675,-0.758762,0.743062,0.00113023,-4.37216,1.20883,-4.2346,-1.72595,93.4169,-113.876,-0.191926,6.80668,2.74232,6.22526,0.531237,-4.17324,3.5301,0.0250071,0.445614,0.21007,-0.0244362,-1.83559,0.262057,0.31415,-0.0175728,0.310663,0.0470528,0.00733789,0.0306019,-1.68086,1.92222,0.000363519,-5.92669,0.0797937,-5.02228,-4.20491,50.804,-6.788,-0.0417486,0.590702,-44.1786,0.43733,26.8796,3.69568,1.49499,0.0641939,
0.449424,0.209401,-0.0227154,-1.83083,0.264869,0.300831,-0.0177352,0.0695751,-0.0038226,0.0657187,0.0306806,-0.637893,0.595244,0.000879808,-3.61383,0.995161,-3.49112,-1.49185,75.5434,-92.3867,-0.156515,6.61413,2.7841,6.04297,0.492921,-3.94067,3.02423,0.0236817,0.445614,0.21007,-0.0244362,-1.83559,0.262057,0.31415,-0.0175728,0.310663,0.0470528,0.00733789,0.0306019,-1.68086,1.92222,0.000363519,0,0,0,0,0,0,0,0.590702,-44.1786,0.43733,26.8796,3.69568,1.49499,0.0641939,
0.450653,0.210362,-0.0203432,-1.82983,0.229722,0.33699,-0.0178858,0.0586828,-0.00229997,0.0554807,0.0266379,-0.506911,0.460465,0.000561756,-6.80773,0.951643,-6.39879,-2.52668,81.8636,-84.2365,-0.198783,3.06122,2.60712,2.79363,-0.0743245,-1.98591,-0.707719,0.0100227,0.445614,0.21007,-0.0244362,-1.83559,0.262057,0.31415,-0.0175728,0.310663,0.0470528,0.00733789,0.0306019,-1.68086,1.92222,0.000363519,0,0,0,0,0,0,0,0.590702,-44.1786,0.43733,26.8796,3.69568,1.49499,0.0641939,
0.450766,0.210395,-0.0202352,-1.82975,0.22999,0.336307,-0.0178916,0.0497666,-0.00101407,0.047085,0.0233239,-0.39883,0.35128,0.000303814,-5.57262,0.803689,-5.24726,-2.07127,67.5505,-68.2406,-0.161213,2.91153,2.58823,2.65576,-0.0970553,-1.9492,-0.731078,0.00982427,0.445614,0.21007,-0.0244362,-1.83559,0.262057,0.31415,-0.0175728,0.310663,0.0470528,0.00733789,0.0306019,-1.68086,1.92222,0.000363519,0,0,0,0,0,0,0,0.590702,-44.1786,0.43733,26.8796,3.69568,1.49499,0.0641939,
0.450871,0.210431,-0.020136,-1.82967,0.230404,0.335564,-0.0178973,0.0424292,8.91241e-05,0.0401466,0.0205925,-0.308707,0.262466,0.000101508,-4.58585,0.689494,-4.3365,-1.70709,56.3268,-55.5086,-0.126442,2.76425,2.56989,2.52004,-0.119594,-1.91374,-0.74811,0.00964373,0.445614,0.21007,-0.0244362,-1.83559,0.262057,0.31415,-0.0175728,0.310663,0.0470528,0.00733789,0.0306019,-1.68086,1.92222,0.000363519,0,0,0,0,0,0,0,0.590702,-44.1786,0.43733,26.8796,3.69568,1.49499,0.0641939,
0.450967,0.21047,-0.0200469,-1.8296,0.230983,0.334759,-0.0179023,0.0363543,0.00106016,0.034345,0.0183303,-0.232493,0.189835,-4.46039e-05,-3.79681,0.606899,-3.626,-1.41388,47.6336,-45.3946,-0.0913197,3.45009,1.04758,3.27511,1.0672,-1.21451,-0.708387,0.00192825,0.44919,0.211237,-0.0219243,-1.83385,0.228113,0.35421,-0.017604,0.155629,0.000386754,-0.0211304,0.0481061,-0.772484,0.711049,-0.00338619,-19.3792,-5.83326,-3.55854,2.18802,113.547,-151.396,-0.468714,-1.05969,-40.3105,0.937208,20.6985,3.78814,-1.46858,0.191452,
0.451014,0.210761,-0.0204652,-1.83083,0.220189,0.359095,-0.0177823,0.030845,0.0013459,0.0290283,0.0169384,-0.165826,0.13004,-0.00012278,-3.4433,0.178589,-3.32296,-0.869921,41.6669,-37.3717,-0.04886,2.15265,0.908956,2.07974,0.837106,-0.77617,-0.70035,0.000199464,0.44919,0.211237,-0.0219243,-1.83385,0.228113,0.35421,-0.017604,0.155629,0.000386754,-0.0211304,0.0481061,-0.772484,0.711049,-0.00338619,0,0,0,0,0,0,0,-1.05969,-40.3105,0.937208,20.6985,3.78814,-1.46858,0.191452,
0.451079,0.210791,-0.0204149,-1.83074,0.221221,0.358122,-0.0177842,0.0263009,0.0018378,0.0244802,0.015675,-0.106861,0.0796993,-0.000145792,-2.84006,0.307436,-2.84255,-0.789637,36.8535,-31.4631,-0.0143824,2.04183,0.90088,1.97835,0.81124,-0.705438,-0.707605,-5.92428e-05,0.44919,0.211237,-0.0219243,-1.83385,0.228113,0.35421,-0.017604,0.155629,0.000386754,-0.0211304,0.0481061,-0.772484,0.711049,-0.00338619,0,0,0,0,0,0,0,-1.05969,-40.3105,0.937208,20.6985,3.78814,-1.46858,0.191452,
0.451137,0.210832,-0.0203796,-1.83066,0.222519,0.357034,-0.0177848,0.0224856,0.00250149,0.0204657,0.014578,-0.0530437,0.0365622,-0.000130547,-2.3846,0.414803,-2.50906,-0.68561,33.6356,-26.9607,0.00952764,1.93536,0.894578,1.8812,0.784219,-0.62567,-0.720982,-0.000343812,0.44919,0.211237,-0.0219243,-1.83385,0.228113,0.35421,-0.017604,0.155629,0.000386754,-0.0211304,0.0481061,-0.772484,0.711049,-0.00338619,0,0,0,0,0,0,0,-1.05969,-40.3105,0.937208,20.6985,3.78814,-1.46858,0.191452,
0.449581,0.211794,-0.0217183,-1.83393,0.224478,0.358521,-0.0176678,0.027784,0.0159467,0.0215226,0.00975506,-0.133298,0.137024,-0.00170061,3.3115,8.40328,0.660519,-3.01436,-50.1589,62.7886,-0.981288,-0.189032,36.8413,-0.430683,-22.6365,-1.69402,-1.56716,-0.00122824,0.44919,0.211237,-0.0219243,-1.83385,0.228113,0.35421,-0.017604,0.155629,0.000386754,-0.0211304,0.0481061,-0.772484,0.711049,-0.00338619,0,0,0,0,0,0,0,-1.05969,-40.3105,0.937208,20.6985,3.78814,-1.46858,0.191452,
0.449803,0.212239,-0.0215746,-1.8338,0.222093,0.361008,-0.0176976,0.0277731,0.0238626,0.0208101,0.0110479,-0.166267,0.171793,-0.00210468,-0.00680548,4.94741,-0.445266,0.808012,-20.6056,21.7304,-0.252546,2.04186,0.900847,1.97834,0.811243,-0.70718,-0.707082,-5.85518e-05,0.44919,0.211237,-0.0219243,-1.83385,0.228113,0.35421,-0.017604,0.155629,0.000386754,-0.0211304,0.0481061,-0.772484,0.711049,-0.00338619,0,0,0,0,0,0,0,-1.05969,-40.3105,0.937208,20.6985,3.78814,-1.46858,0.191452,
0.449948,0.212554,-0.0214734,-1.83365,0.220496,0.36244,-0.0177167,0.0258329,0.026979,0.0191779,0.0126134,-0.172955,0.173234,-0.00216268,-1.21263,1.94774,-1.02011,0.978464,-4.18024,0.900722,-0.0362475,1.93539,0.894547,1.88119,0.784224,-0.627412,-0.720454,-0.000342948,0.44919,0.211237,-0.0219243,-1.83385,0.228113,0.35421,-0.017604,0.155629,0.000386754,-0.0211304,0.0481061,-0.772484,0.711049,-0.00338619,0,0,0,0,0,0,0,-1.05969,-40.3105,0.937208,20.6985,3.78814,-1.46858,0.191452,
0.450054,0.212774,-0.0213911,-1.83351,0.219394,0.363204,-0.0177292,0.023328,0.0270837,0.0174001,0.0135958,-0.165915,0.157673,-0.00204089,-1.56555,0.0654379,-1.11116,0.613992,4.39997,-9.72527,0.0761175,1.83341,0.890377,1.78852,0.755766,-0.53737,-0.740959,-0.000654505,0.44919,0.211237,-0.0219243,-1.83385,0.228113,0.35421,-0.017604,0.155629,0.000386754,-0.0211304,0.0481061,-0.772484,0.711049,-0.00338619,0,0,0,0,0,0,0,-1.05969,-40.3105,0.937208,20.6985,3.78814,-1.46858,0.191452,
0.450775,0.21362,-0.0197274,-1.8306,0.215806,0.367092,-0.0176883,0.0199688,0.022824,0.0151172,0.0133288,-0.118947,0.109266,-0.00175338,-2.09946,-2.6623,-1.42678,-0.166888,29.3549,-30.2546,0.179693,1.72677,0.659673,1.7146,0.883973,-0.0675937,-0.851054,-0.00265983,0.450314,0.212774,-0.0201328,-1.83171,0.216374,0.366392,-0.0176184,-0.0279529,0.0753275,0.0694186,0.0806042,-0.211163,0.246609,-0.0013529,-22.9478,9.3676,11.3186,4.06226,70.1651,-58.055,0.254162,2.36408,-42.8337,2.48842,24.6857,2.31598,0.115286,0.131027,
0.450826,0.213667,-0.0196848,-1.83051,0.216565,0.366284,-0.0176918,0.0172416,0.0194393,0.0131585,0.0129055,-0.0761717,0.0672104,-0.00149024,-1.70451,-2.11541,-1.22423,-0.26454,26.7348,-26.2848,0.164464,1.64258,0.669635,1.63948,0.846761,0.0741249,-0.909778,-0.00300456,0.450314,0.212774,-0.0201328,-1.83171,0.216374,0.366392,-0.0176184,-0.0279529,0.0753275,0.0694186,0.0806042,-0.211163,0.246609,-0.0013529,0,0,0,0,0,0,0,2.36408,-42.8337,2.48842,24.6857,2.31598,0.115286,0.131027,
0.450874,0.213719,-0.0196511,-1.83043,0.217561,0.36535,-0.0176936,0.0149959,0.0168381,0.0113707,0.0124168,-0.036046,0.0304131,-0.00123846,-1.40356,-1.62575,-1.11737,-0.30544,25.0786,-22.9983,0.15736,1.56202,0.685209,1.56738,0.806683,0.23084,-0.978392,-0.00329254,0.450314,0.212774,-0.0201328,-1.83171,0.216374,0.366392,-0.0176184,-0.0279529,0.0753275,0.0694186,0.0806042,-0.211163,0.246609,-0.0013529,0,0,0,0,0,0,0,2.36408,-42.8337,2.48842,24.6857,2.31598,0.115286,0.131027,
0.450918,0.213777,-0.0196297,-1.83035,0.218831,0.364284,-0.0176941,0.0130861,0.0149213,0.00963017,0.0119419,0.00290657,-0.0023151,-0.00100275,-1.19362,-1.19803,-1.08781,-0.296852,24.3453,-20.4552,0.14732,1.48433,0.707569,1.49681,0.763624,0.403701,-1.05496,-0.003458,0.450314,0.212774,-0.0201328,-1.83171,0.216374,0.366392,-0.0176184,-0.0279529,0.0753275,0.0694186,0.0806042,-0.211163,0.246609,-0.0013529,0,0,0,0,0,0,0,2.36408,-42.8337,2.48842,24.6857,2.31598,0.115286,0.131027,
0.450402,0.213644,-0.0200714,-1.83193,0.215459,0.368474,-0.0176489,0.012678,0.0336896,0.00924044,0.0038475,-0.0205403,0.0501936,-0.00156449,-0.255074,11.7302,-0.243583,-5.05898,-14.6543,32.818,-0.351087,-0.0190171,36.6304,-0.25198,-22.4465,-1.52981,-1.6044,-0.00202257,0.450349,0.212449,-0.0197148,-1.83123,0.210887,0.372895,-0.0176139,0.0212049,-0.00545059,0.0222287,0.0057017,-0.192362,0.246581,0.000655619,6.14473,-10.0973,-5.89873,-9.36282,2.35011,-0.00346056,0.251065,3.60584,-38.4142,3.53578,28.3475,1.69891,1.82641,0.017502,
0.450466,0.214311,-0.0200238,-1.83201,0.214766,0.369412,-0.0176573,0.0117317,0.0436288,0.00858095,0.00121023,-0.0337742,0.0636098,-0.00146066,-0.591473,6.212,-0.412183,-1.64829,-8.27124,8.38513,0.0648928,1.64542,0.688544,1.64131,0.811749,-0.0833282,-0.895697,-0.00273824,0.450349,0.212449,-0.0197148,-1.83123,0.210887,0.372895,-0.0176139,0.0212049,-0.00545059,0.0222287,0.0057017,-0.192362,0.246581,0.000655619,0,0,0,0,0,0,0,3.60584,-38.4142,3.53578,28.3475,1.69891,1.82641,0.017502,
0.450518,0.214809,-0.0199816,-1.83204,0.214293,0.369685,-0.0176645,0.0106828,0.0473498,0.00791913,0.00011245,-0.0388343,0.0577045,-0.00134972,-0.655525,2.32566,-0.413639,-0.686112,-3.16253,-3.69083,0.0693378,1.56478,0.704425,1.56907,0.77186,0.0735325,-0.963655,-0.00302179,0.450349,0.212449,-0.0197148,-1.83123,0.210887,0.372895,-0.0176139,0.0212049,-0.00545059,0.0222287,0.0057017,-0.192362,0.246581,0.000655619,0,0,0,0,0,0,0,3.60584,-38.4142,3.53578,28.3475,1.69891,1.82641,0.017502,
0.450789,0.212403,-0.0193379,-1.83048,0.207604,0.374454,-0.0176468,0.0106619,0.0374823,0.00817898,0.00404971,-0.0429413,0.0431682,-0.00122458,-0.013067,-6.1672,0.162406,2.46079,-2.56688,-9.0852,0.0782103,1.57367,0.654486,1.55044,0.716028,-0.912868,-0.74655,-0.00258802,0.450349,0.212449,-0.0197148,-1.83123,0.210887,0.372895,-0.0176139,0.0212049,-0.00545059,0.0222287,0.0057017,-0.192362,0.246581,0.000655619,0,0,0,0,0,0,0,3.60584,-38.4142,3.53578,28.3475,1.69891,1.82641,0.017502,
0.450865,0.212394,-0.0192751,-1.83034,0.207346,0.374127,-0.0176508,0.0104251,0.0297512,0.00811363,0.00670197,-0.0407941,0.0263411,-0.00107816,-0.147992,-4.83193,-0.0408403,1.65766,1.342,-10.5169,0.0915177,1.51537,0.69458,1.49699,0.67833,-0.703379,-0.839744,-0.00253466,0.450852,0.21301,-0.0194915,-1.83023,0.208452,0.376968,-0.0176192,-0.000652308,0.0432013,0.0105071,0.0445946,0.0162467,0.00530531,-0.00131811,-2.73216,6.08149,-1.46521,4.86161,26.0761,-30.1595,-0.246716,1.37622,-42.2823,1.36171,26.4313,0.886837,1.62041,0.0641939,
0.450933,0.212395,-0.019225,-1.83022,0.207327,0.373621,-0.0176527,0.0100491,0.0238239,0.00774426,0.00843618,-0.0331127,0.00842592,-0.000911567,-0.234992,-3.70458,-0.230858,1.08388,4.80089,-11.197,0.104119,1.4396,0.738858,1.41848,0.633476,-0.490802,-0.920669,-0.00206338,0.450852,0.21301,-0.0194915,-1.83023,0.208452,0.376968,-0.0176192,-0.000652308,0.0432013,0.0105071,0.0445946,0.0162467,0.00530531,-0.00131811,0,0,0,0,0,0,0,1.37622,-42.2823,1.36171,26.4313,0.886837,1.62041,0.0641939,
0.450993,0.212408,-0.0191899,-1.83011,0.207581,0.372947,-0.0176531,0.00954968,0.0193947,0.00707172,0.00954704,-0.0201379,-0.0101113,-0.000739187,-0.312169,-2.76823,-0.420339,0.694284,8.10921,-11.5858,0.107737,1.36449,0.793408,1.32847,0.58963,-0.248595,-1.00882,-0.000901489,0.450852,0.21301,-0.0194915,-1.83023,0.208452,0.376968,-0.0176192,-0.000652308,0.0432013,0.0105071,0.0445946,0.0162467,0.00530531,-0.00131811,0,0,0,0,0,0,0,1.37622,-42.2823,1.36171,26.4313,0.886837,1.62041,0.0641939,
0.45111,0.213262,-0.0191802,-1.8299,0.2057,0.376388,-0.0175865,0.0115347,0.0176881,0.00984488,0.0110886,-0.0580012,-0.0183652,-0.000304279,1.24063,-1.06664,1.73322,0.963481,-23.6646,-5.15864,0.271818,2.71867,0.5607,2.54049,0.430907,-3.32921,-1.27848,0.00104541,0.450852,0.21301,-0.0194915,-1.83023,0.208452,0.376968,-0.0176192,-0.000652308,0.0432013,0.0105071,0.0445946,0.0162467,0.00530531,-0.00131811,0,0,0,0,0,0,0,1.37622,-42.2823,1.36171,26.4313,0.886837,1.62041,0.0641939,
0.45129,0.213312,-0.0190063,-1.82979,0.203779,0.375775,-0.0175815,0.01371,0.015405,0.0122227,0.011636,-0.0944428,-0.0300371,-0.000117515,1.35959,-1.42693,1.48611,0.342146,-22.776,-7.29495,0.116728,2.65851,0.623431,2.46475,0.421187,-3.08442,-1.3251,0.000733943,0.451324,0.214191,-0.0188176,-1.83081,0.208726,0.375839,-0.0176094,0.0314886,0.0389141,0.0207433,-0.0203771,-0.000621792,-0.0790484,9.39205e-06,4.01761,-0.535908,1.27953,-8.12145,-2.10856,-10.5442,0.165938,0.511356,-42.0085,0.338148,33.1042,0.123287,4.44573,0.0101778,
0.451477,0.213346,-0.0188356,-1.8297,0.201819,0.374995,-0.0175796,0.0156402,0.0131751,0.0140475,0.0116142,-0.124546,-0.043515,-4.58065e-05,1.20637,-1.3937,1.1405,-0.0136259,-18.8147,-8.42372,0.0448176,2.60179,0.659183,2.39324,0.387073,-2.82304,-1.39718,0.00112217,0.451324,0.214191,-0.0188176,-1.83081,0.208726,0.375839,-0.0176094,0.0314886,0.0389141,0.0207433,-0.0203771,-0.000621792,-0.0790484,9.39205e-06,0,0,0,0,0,0,0,0.511356,-42.0085,0.338148,33.1042,0.123287,4.44573,0.0101778,
0.451663,0.213375,-0.0186734,-1.82962,0.19995,0.374075,-0.0175788,0.0171626,0.0112707,0.0152912,0.0112582,-0.146365,-0.0578198,-1.68062e-05,0.951499,-1.19027,0.77736,-0.222541,-13.6364,-8.94047,0.0181252,2.54641,0.698386,2.31458,0.350285,-2.53467,-1.48133,0.00220577,0.451324,0.214191,-0.0188176,-1.83081,0.208726,0.375839,-0.0176094,0.0314886,0.0389141,0.0207433,-0.0203771,-0.000621792,-0.0790484,9.39205e-06,0,0,0,0,0,0,0,0.511356,-42.0085,0.338148,33.1042,0.123287,4.44573,0.0101778,
0.451512,0.215028,-0.0186496,-1.83139,0.20866,0.375807,-0.0176174,0.0184441,0.0299469,0.0164347,-0.00553919,-0.118733,-0.0470502,-0.000212634,0.800915,11.6726,0.714668,-10.4984,17.2697,6.73101,-0.122393,0.00172439,36.6578,-0.235799,-22.4224,-1.50909,-1.60699,-0.00212604,0.451324,0.214191,-0.0188176,-1.83081,0.208726,0.375839,-0.0176094,0.0314886,0.0389141,0.0207433,-0.0203771,-0.000621792,-0.0790484,9.39205e-06,0,0,0,0,0,0,0,0.511356,-42.0085,0.338148,33.1042,0.123287,4.44573,0.0101778,
0.451892,0.215559,-0.0182727,-1.83172,0.205497,0.374704,-0.0174965,0.0242487,0.0372267,0.02257,-0.0127363,-0.174061,-0.0652007,0.00285063,3.62789,4.54989,3.83455,-4.49819,-34.5797,-11.3441,1.91454,7.71767,-3.0023,6.06963,-2.4434,-8.52352,-2.96693,0.0811336,0.452089,0.215464,-0.0180034,-1.83113,0.208764,0.371273,-0.0176059,0.0365496,0.0550777,0.0269828,-0.00604439,0.01705,-0.173412,0.000983292,0.632628,2.02045,0.779933,1.79158,2.20897,-11.7955,0.121737,-1.11126,-42.5838,-1.23686,30.7397,-0.304264,4.06762,-0.00996382,
0.452365,0.215868,-0.0178413,-1.832,0.201173,0.373068,-0.0174312,0.0312313,0.0375199,0.0288412,-0.017215,-0.247359,-0.093081,0.00391317,4.36411,0.183262,3.91953,-2.79919,-45.8114,-17.4252,0.664087,7.16967,-2.5692,6.03285,-2.13845,-7.08309,-2.89582,0.0513602,0.452089,0.215464,-0.0180034,-1.83113,0.208764,0.371273,-0.0176059,0.0365496,0.0550777,0.0269828,-0.00604439,0.01705,-0.173412,0.000983292,0,0,0,0,0,0,0,-1.11126,-42.5838,-1.23686,30.7397,-0.304264,4.06762,-0.00996382,
0.45232,0.216363,-0.0177936,-1.83173,0.208818,0.370822,-0.0176143,0.0307472,0.0524896,0.02832,-0.0289111,-0.19655,-0.0857553,0.00292204,-0.302534,9.35604,-0.325752,-7.31006,31.7557,4.57852,-0.619457,0.00339176,36.6702,-0.241547,-22.3909,-1.5102,-1.57731,-0.0022568,0.452089,0.215464,-0.0180034,-1.83113,0.208764,0.371273,-0.0176059,0.0365496,0.0550777,0.0269828,-0.00604439,0.01705,-0.173412,0.000983292,0,0,0,0,0,0,0,-1.11126,-42.5838,-1.23686,30.7397,-0.304264,4.06762,-0.00996382,
0.452834,0.216685,-0.0172514,-1.83238,0.204289,0.369579,-0.0173866,0.0374571,0.0500597,0.0362095,-0.0393458,-0.270459,-0.0996598,0.0080289,4.1937,-1.51865,4.93092,-6.52168,-46.1934,-8.69026,3.19179,10.7299,-8.99294,8.60144,-7.13627,-12.7359,-3.21889,0.18697,0.452089,0.215464,-0.0180034,-1.83113,0.208764,0.371273,-0.0176059,0.0365496,0.0550777,0.0269828,-0.00604439,0.01705,-0.173412,0.000983292,0,0,0,0,0,0,0,-1.11126,-42.5838,-1.23686,30.7397,-0.304264,4.06762,-0.00996382,
0.453461,0.216732,-0.0166524,-1.83303,0.198354,0.367863,-0.0172714,0.0456408,0.0412201,0.0439417,-0.0475953,-0.364737,-0.122629,0.00930365,5.11479,-5.5248,4.83263,-5.15595,-58.9236,-14.3556,0.796717,8.89869,-6.89045,7.82577,-6.50845,-9.56106,-2.92523,0.106579,0.452089,0.215464,-0.0180034,-1.83113,0.208764,0.371273,-0.0176059,0.0365496,0.0550777,0.0269828,-0.00604439,0.01705,-0.173412,0.000983292,0,0,0,0,0,0,0,-1.11126,-42.5838,-1.23686,30.7397,-0.304264,4.06762,-0.00996382,
0.454104,0.216663,-0.0160555,-1.83364,0.192336,0.365944,-0.0172123,0.0525791,0.0312404,0.0500771,-0.0534771,-0.442241,-0.146091,0.00891907,4.33645,-6.23731,3.83461,-3.67611,-48.4401,-14.6642,-0.240365,8.26138,-5.22734,7.64739,-5.83922,-7.53836,-2.48837,0.0693536,0.453741,0.216733,-0.0160522,-1.83116,0.203023,0.365463,-0.0176041,0.0420097,0.012972,0.0534957,0.00454036,-0.152504,-0.149975,-0.000821274,0.682509,-5.26321,3.31412,1.32309,-21.1943,2.9297,-0.225571,-2.02374,-40.985,-1.83592,26.951,0.379635,2.85363,0.0101778,
0.455188,0.215735,-0.0147295,-1.83218,0.191194,0.362816,-0.0172493,0.0610259,0.0112305,0.0574413,-0.0563403,-0.517079,-0.152777,0.0099942,5.27921,-12.5062,4.60262,-1.78953,-46.7737,-4.17851,0.671956,12.2222,-11.306,9.08862,-9.82912,-13.4929,-3.03619,0.221238,0.453741,0.216733,-0.0160522,-1.83116,0.203023,0.365463,-0.0176041,0.0420097,0.012972,0.0534957,0.00454036,-0.152504,-0.149975,-0.000821274,0,0,0,0,0,0,0,-2.02374,-40.985,-1.83592,26.951,0.379635,2.85363,0.0101778,
0.455938,0.21522,-0.014038,-1.83272,0.184705,0.361334,-0.0171898,0.0675786,-0.00387513,0.0632397,-0.0585144,-0.575888,-0.159268,0.00948426,4.09545,-9.44101,3.624,-1.35878,-36.7553,-4.05697,-0.318713,9.79464,-7.52251,8.3864,-8.36453,-10.3345,-2.56,0.110599,0.453741,0.216733,-0.0160522,-1.83116,0.203023,0.365463,-0.0176041,0.0420097,0.012972,0.0534957,0.00454036,-0.152504,-0.149975,-0.000821274,0,0,0,0,0,0,0,-2.02374,-40.985,-1.83592,26.951,0.379635,2.85363,0.0101778,
0.456662,0.214778,-0.0133673,-1.83325,0.178719,0.359956,-0.0171485,0.0721653,-0.014162,0.0673605,-0.060103,-0.610376,-0.161849,0.00861951,2.86674,-6.42928,2.57549,-0.99288,-21.555,-1.61309,-0.540466,9.07047,-5.19401,8.37585,-7.36061,-8.15469,-1.97503,0.0740835,0.453741,0.216733,-0.0160522,-1.83116,0.203023,0.365463,-0.0176041,0.0420097,0.012972,0.0534957,0.00454036,-0.152504,-0.149975,-0.000821274,0,0,0,0,0,0,0,-2.02374,-40.985,-1.83592,26.951,0.379635,2.85363,0.0101778,
0.457361,0.214408,-0.0127182,-1.83378,0.173395,0.358752,-0.017114,0.0751935,-0.0205627,0.0701153,-0.0613203,-0.621382,-0.159589,0.00775747,1.8926,-4.00047,1.72174,-0.760787,-6.87867,1.41246,-0.538778,8.99283,-3.88304,8.55017,-6.73121,-6.67685,-1.45948,0.0621146,0.455928,0.217202,-0.0140942,-1.83348,0.188243,0.361897,-0.0175886,0.0618912,-0.0165361,0.0509859,-0.133096,-0.415007,-0.0364024,-0.00147157,2.48519,-3.68852,-0.31373,-17.2045,-32.8129,14.1965,-0.0812868,-3.06317,-36.7439,-3.61327,15.6442,-0.963444,-0.733408,0.11821,
0.457254,0.216976,-0.012792,-1.835,0.176406,0.360528,-0.01738,0.0775551,-0.0189882,0.0729033,-0.0672365,-0.651498,-0.144544,0.00817601,1.47598,0.98409,1.74253,-3.69766,-18.8227,9.40304,0.261588,10.7268,-2.8121,9.38443,-9.77536,-10.629,-1.20732,0.108764,0.455928,0.217202,-0.0140942,-1.83348,0.188243,0.361897,-0.0175886,0.0618912,-0.0165361,0.0509859,-0.133096,-0.415007,-0.0364024,-0.00147157,0,0,0,0,0,0,0,-3.06317,-36.7439,-3.61327,15.6442,-0.963444,-0.733408,0.11821,
0.457967,0.216905,-0.012116,-1.83572,0.170447,0.360015,-0.0173219,0.0798703,-0.0169725,0.0752225,-0.0717194,-0.67017,-0.128451,0.00799161,1.44701,1.25982,1.44948,-2.80182,-11.6702,10.0585,-0.115247,10.007,-1.23904,9.32874,-8.81962,-8.46126,-0.627511,0.0811599,0.455928,0.217202,-0.0140942,-1.83348,0.188243,0.361897,-0.0175886,0.0618912,-0.0165361,0.0509859,-0.133096,-0.415007,-0.0364024,-0.00147157,0,0,0,0,0,0,0,-3.06317,-36.7439,-3.61327,15.6442,-0.963444,-0.733408,0.11821,
0.458678,0.216859,-0.0114496,-1.83644,0.165016,0.359694,-0.0172728,0.0816625,-0.0147264,0.0768388,-0.0753969,-0.671902,-0.110804,0.00762122,1.1201,1.40382,1.01016,-2.29844,-1.08208,11.0294,-0.231497,9.84878,-0.71598,9.38608,-8.31868,-6.99934,-0.175942,0.0740383,0.455928,0.217202,-0.0140942,-1.83348,0.188243,0.361897,-0.0175886,0.0618912,-0.0165361,0.0509859,-0.133096,-0.415007,-0.0364024,-0.00147157,0,0,0,0,0,0,0,-3.06317,-36.7439,-3.61327,15.6442,-0.963444,-0.733408,0.11821,
0.464723,0.213928,-0.00606225,-1.84453,0.139788,0.358218,-0.0174351,0.0829891,-0.0154729,0.0778184,-0.0830367,-0.565149,-0.0648572,0.00622852,0.829167,-0.466591,0.612298,-4.77488,66.7205,28.7165,-0.870435,10.3955,-2.61718,10.0134,-10.4465,-3.12455,1.25906,0.0630246,0.459947,0.215492,-0.0103557,-1.83849,0.1577,0.356957,-0.0174841,0.118544,-0.114127,0.153124,-0.197578,-1.09131,-0.138648,0.00855885,7.08159,-12.1988,12.7673,-8.06028,-84.5379,-12.7807,1.2538,5.40699,-42.4092,5.41231,25.6815,1.07635,0.447622,-0.0301054,
0.46542,0.213784,-0.00541486,-1.84542,0.138891,0.359383,-0.01744,0.0838296,-0.0159816,0.0784396,-0.0886344,-0.474539,-0.0227833,0.00486016,0.525313,-0.317926,0.388256,-3.49852,56.6312,26.2962,-0.855227,10.2994,-2.72969,9.94126,-10.3983,-2.22754,1.28057,0.0589984,0.459947,0.215492,-0.0103557,-1.83849,0.1577,0.356957,-0.0174841,0.118544,-0.114127,0.153124,-0.197578,-1.09131,-0.138648,0.00855885,0,0,0,0,0,0,0,5.40699,-42.4092,5.41231,25.6815,1.07635,0.447622,-0.0301054,
0.466107,0.213642,-0.00477646,-1.84628,0.138187,0.360687,-0.0174502,0.0842291,-0.0163374,0.0787116,-0.0924654,-0.397229,0.0143884,0.0036323,0.249685,-0.222377,0.169999,-2.3944,48.3186,23.2323,-0.767412,10.1231,-2.76323,9.77885,-10.3554,-1.37486,1.2933,0.0477656,0.459947,0.215492,-0.0103557,-1.83849,0.1577,0.356957,-0.0174841,0.118544,-0.114127,0.153124,-0.197578,-1.09131,-0.138648,0.00855885,0,0,0,0,0,0,0,5.40699,-42.4092,5.41231,25.6815,1.07635,0.447622,-0.0301054,
0.466783,0.213501,-0.00414723,-1.84711,0.137642,0.362086,-0.0174632,0.0842841,-0.0165987,0.0787,-0.0948655,-0.331425,0.0464846,0.0025808,0.0343753,-0.1633,-0.00729418,-1.50005,41.1275,20.0601,-0.657186,9.92642,-2.74724,9.5575,-10.3516,-0.721942,1.40351,0.0160488,0.459947,0.215492,-0.0103557,-1.83849,0.1577,0.356957,-0.0174841,0.118544,-0.114127,0.153124,-0.197578,-1.09131,-0.138648,0.00855885,0,0,0,0,0,0,0,5.40699,-42.4092,5.41231,25.6815,1.07635,0.447622,-0.0301054,
0.470432,0.215323,-0.000879222,-1.85159,0.110779,0.360992,-0.0177628,0.0823335,-0.0134615,0.0768052,-0.0958922,-0.272213,0.0678234,0.00156422,-1.21917,1.96073,-1.18421,-0.641674,37.0077,13.3367,-0.635364,8.66346,-2.40654,8.1629,-9.81202,-0.442154,2.02753,-0.0101284,0.464813,0.214472,-0.00579025,-1.84365,0.124434,0.353803,-0.0174905,0.167046,0.0366372,0.122803,-0.142135,-1.11697,-0.0261792,-0.000952799,6.06281,18.8455,-3.79016,6.93033,-3.20715,14.0586,-1.18896,3.53046,-40.3621,3.38899,28.6212,1.61377,1.89232,0.0303194,
0.471023,0.215294,-0.000329222,-1.85236,0.110556,0.362234,-0.0177829,0.0806393,-0.0114824,0.0751942,-0.0958494,-0.223354,0.0853069,0.000748908,-1.05884,1.23694,-1.00691,0.0267166,30.5368,10.9272,-0.50957,8.47316,-2.28058,7.98459,-9.69412,-0.317965,2.01869,-0.0139107,0.464813,0.214472,-0.00579025,-1.84365,0.124434,0.353803,-0.0174905,0.167046,0.0366372,0.122803,-0.142135,-1.11697,-0.0261792,-0.000952799,0,0,0,0,0,0,0,3.53046,-40.3621,3.38899,28.6212,1.61377,1.89232,0.0303194,
0.471609,0.215248,0.000216755,-1.85309,0.110366,0.363477,-0.0178032,0.0791582,-0.0103329,0.0738048,-0.0950654,-0.183419,0.0993318,9.06028e-05,-0.925701,0.718451,-0.868375,0.489999,24.9593,8.76552,-0.411441,8.30605,-2.14515,7.82269,-9.56796,-0.237153,1.99731,-0.0164586,0.464813,0.214472,-0.00579025,-1.84365,0.124434,0.353803,-0.0174905,0.167046,0.0366372,0.122803,-0.142135,-1.11697,-0.0261792,-0.000952799,0,0,0,0,0,0,0,3.53046,-40.3621,3.38899,28.6212,1.61377,1.89232,0.0303194,
0.47219,0.215188,0.000758314,-1.8538,0.110193,0.364711,-0.0178238,0.0778444,-0.00976346,0.0725828,-0.0937833,-0.15106,0.110292,-0.000441472,-0.821147,0.355879,-0.763749,0.80135,20.2245,6.85045,-0.332547,8.15062,-2.01176,7.67136,-9.43877,-0.18313,1.96255,-0.0185169,0.464813,0.214472,-0.00579025,-1.84365,0.124434,0.353803,-0.0174905,0.167046,0.0366372,0.122803,-0.142135,-1.11697,-0.0261792,-0.000952799,0,0,0,0,0,0,0,3.53046,-40.3621,3.38899,28.6212,1.61377,1.89232,0.0303194,
0.46581,0.2147,-0.00500776,-1.84488,0.119167,0.354107,-0.0175666,0.0871976,-0.00210185,0.0776283,-0.105745,-0.25252,0.0958231,-0.00225472,5.84579,4.78851,3.15345,-7.47624,-63.4127,-9.04338,-1.13328,8.559,-2.75536,8.05058,-9.45674,-0.387696,2.18697,-0.00979536,0.470081,0.213239,-0.00117275,-1.85067,0.105195,0.35427,-0.0174955,0.15635,0.0151269,0.135863,-0.222261,-0.423227,0.0277849,-0.000208488,-1.33701,-2.68879,1.63249,-10.0157,86.7176,6.74551,0.0930389,3.1496,-42.9805,3.48817,29.9423,2.46887,3.92846,0.0303194,
0.466622,0.214897,-0.00433254,-1.84604,0.115992,0.354686,-0.017617,0.090057,0.00323809,0.0789831,-0.113674,-0.281388,0.0911461,-0.00306514,1.78712,3.33746,0.846761,-4.95571,-18.0428,-2.92312,-0.506509,8.3687,-2.6294,7.87227,-9.33884,-0.263507,2.17813,-0.0135776,0.470081,0.213239,-0.00117275,-1.85067,0.105195,0.35427,-0.0174955,0.15635,0.0151269,0.135863,-0.222261,-0.423227,0.0277849,-0.000208488,0,0,0,0,0,0,0,3.1496,-42.9805,3.48817,29.9423,2.46887,3.92846,0.0303194,
0.467334,0.215058,-0.00371444,-1.84712,0.114034,0.355464,-0.017652,0.0898437,0.00661216,0.0786392,-0.117947,-0.274068,0.0923735,-0.00332545,-0.133317,2.10879,-0.214957,-2.67049,4.57507,0.767095,-0.162698,8.2016,-2.49396,7.71037,-9.21267,-0.182695,2.15675,-0.0161255,0.470081,0.213239,-0.00117275,-1.85067,0.105195,0.35427,-0.0174955,0.15635,0.0151269,0.135863,-0.222261,-0.423227,0.0277849,-0.000208488,0,0,0,0,0,0,0,3.1496,-42.9805,3.48817,29.9423,2.46887,3.92846,0.0303194,
0.467992,0.21518,-0.00312643,-1.84813,0.112795,0.356396,-0.0176789,0.0883246,0.00833054,0.0776116,-0.119494,-0.250226,0.0971855,-0.00333264,-0.949444,1.07399,-0.642243,-0.966509,14.9018,3.00751,-0.00449117,8.04616,-2.36058,7.55904,-9.08348,-0.128672,2.122,-0.0181839,0.470081,0.213239,-0.00117275,-1.85067,0.105195,0.35427,-0.0174955,0.15635,0.0151269,0.135863,-0.222261,-0.423227,0.0277849,-0.000208488,0,0,0,0,0,0,0,3.1496,-42.9805,3.48817,29.9423,2.46887,3.92846,0.0303194,
0.476797,0.214382,0.00492827,-1.8586,0.100311,0.359305,-0.0177615,0.0854875,0.00647585,0.0758926,-0.112483,-0.204715,0.0987173,-0.00322632,-1.77318,-1.15918,-1.07437,4.38158,28.4439,0.957392,0.0664484,7.35235,-2.02579,6.86276,-8.30528,-0.0798855,1.8721,-0.0243063,0.47513,0.211719,0.00442369,-1.85962,0.0977443,0.35775,-0.0175087,0.121076,-0.10873,0.172567,-0.288309,-0.102158,0.159803,0.00144041,-4.40926,-15.4821,4.58803,-8.25606,40.1335,16.5023,0.206113,1.4278,-39.5369,1.68703,25.1578,1.58905,3.50365,-0.0227812,
0.477372,0.214356,0.00546473,-1.85925,0.100112,0.360153,-0.0177837,0.0827873,0.00451864,0.0741256,-0.106208,-0.168758,0.100177,-0.00313649,-1.6876,-1.22326,-1.1044,3.92192,22.4735,0.912482,0.0561473,7.22876,-1.94664,6.74692,-8.17997,-0.0998437,1.80077,-0.0249745,0.47513,0.211719,0.00442369,-1.85962,0.0977443,0.35775,-0.0175087,0.121076,-0.10873,0.172567,-0.288309,-0.102158,0.159803,0.00144041,0,0,0,0,0,0,0,1.4278,-39.5369,1.68703,25.1578,1.58905,3.50365,-0.0227812,
0.477933,0.214314,0.00598711,-1.85988,0.0998925,0.361003,-0.0178057,0.0802433,0.00256842,0.07236,-0.100606,-0.140492,0.101371,-0.00306027,-1.59006,-1.21889,-1.10349,3.50139,17.6658,0.74599,0.0476334,7.10881,-1.87565,6.63501,-8.05554,-0.124879,1.72939,-0.0254539,0.47513,0.211719,0.00442369,-1.85962,0.0977443,0.35775,-0.0175087,0.121076,-0.10873,0.172567,-0.288309,-0.102158,0.159803,0.00144041,0,0,0,0,0,0,0,1.4278,-39.5369,1.68703,25.1578,1.58905,3.50365,-0.0227812,
0.483253,0.210649,0.011946,-1.86698,0.0952124,0.363384,-0.0178045,0.0761763,-0.000126609,0.069069,-0.092383,-0.119609,0.0969752,-0.00296782,-2.54182,-1.68439,-2.05685,5.13925,13.0524,-2.74728,0.0577823,6.13333,-1.49656,5.74309,-6.96384,-0.374827,1.20006,-0.0265901,0.47513,0.211719,0.00442369,-1.85962,0.0977443,0.35775,-0.0175087,0.121076,-0.10873,0.172567,-0.288309,-0.102158,0.159803,0.00144041,0,0,0,0,0,0,0,1.4278,-39.5369,1.68703,25.1578,1.58905,3.50365,-0.0227812,
0.483715,0.21056,0.0123776,-1.86745,0.0949103,0.364017,-0.017825,0.0725029,-0.00233696,0.066046,-0.0854947,-0.103239,0.0934105,-0.00288646,-2.29589,-1.38147,-1.88941,4.30515,10.2309,-2.22796,0.0508516,5.98787,-1.49763,5.58734,-6.79566,-0.378186,1.16917,-0.0265139,0.480895,0.211634,0.00920393,-1.86732,0.0904209,0.363267,-0.0175323,0.243173,0.0526182,0.0623577,-0.203195,-0.141363,0.197854,-0.00211777,15.262,20.1685,-13.7762,10.6393,-4.90059,4.75634,-0.444773,0.233646,-40.6874,0.461134,27.0264,1.1734,3.37823,-0.0301054,
0.484163,0.210469,0.0127952,-1.8679,0.0945981,0.364647,-0.0178452,0.069186,-0.0041454,0.0632759,-0.0796884,-0.0903959,0.0904613,-0.00281398,-2.07309,-1.13027,-1.73128,3.62895,8.02701,-1.84326,0.0452993,5.88768,-1.4755,5.49702,-6.67637,-0.396535,1.13107,-0.0264065,0.480895,0.211634,0.00920393,-1.86732,0.0904209,0.363267,-0.0175323,0.243173,0.0526182,0.0623577,-0.203195,-0.141363,0.197854,-0.00211777,0,0,0,0,0,0,0,0.233646,-40.6874,0.461134,27.0264,1.1734,3.37823,-0.0301054,
0.484596,0.210376,0.0131999,-1.86834,0.0942789,0.365271,-0.0178651,0.066188,-0.00561999,0.0607397,-0.0747595,-0.0802967,0.0879706,-0.00274933,-1.8737,-0.921619,-1.58516,3.08059,6.31201,-1.55664,0.0404085,5.78834,-1.45491,5.40748,-6.55718,-0.412965,1.09615,-0.0262497,0.480895,0.211634,0.00920393,-1.86732,0.0904209,0.363267,-0.0175323,0.243173,0.0526182,0.0623577,-0.203195,-0.141363,0.197854,-0.00211777,0,0,0,0,0,0,0,0.233646,-40.6874,0.461134,27.0264,1.1734,3.37823,-0.0301054,
0.489122,0.213289,0.0167454,-1.87471,0.08713,0.368287,-0.0178596,0.0617439,-0.0056648,0.0567978,-0.0683122,-0.0700558,0.0820042,-0.00262993,-2.7776,-0.0280081,-2.46367,4.02951,6.40052,-3.72905,0.0746218,4.81912,-1.28039,4.53412,-5.3664,-0.463481,0.87631,-0.0240914,0.480895,0.211634,0.00920393,-1.86732,0.0904209,0.363267,-0.0175323,0.243173,0.0526182,0.0623577,-0.203195,-0.141363,0.197854,-0.00211777,0,0,0,0,0,0,0,0.233646,-40.6874,0.461134,27.0264,1.1734,3.37823,-0.0301054,
0.489459,0.213237,0.0170601,-1.87504,0.0868934,0.368759,-0.0178764,0.0578221,-0.00583393,0.0533044,-0.0627816,-0.0619585,0.0774009,-0.00252436,-2.45109,-0.105705,-2.18338,3.45665,5.0608,-2.87703,0.0659792,4.72348,-1.26287,4.44768,-5.24708,-0.459767,0.862494,-0.0238385,0.480895,0.211634,0.00920393,-1.86732,0.0904209,0.363267,-0.0175323,0.243173,0.0526182,0.0623577,-0.203195,-0.141363,0.197854,-0.00211777,0,0,0,0,0,0,0,0.233646,-40.6874,0.461134,27.0264,1.1734,3.37823,-0.0301054,
0.489783,0.21318,0.0173623,-1.87535,0.0866541,0.369235,-0.0178929,0.0543516,-0.00607081,0.0502004,-0.0580081,-0.0555481,0.0738241,-0.00243033,-2.16912,-0.148049,-1.93999,2.98347,4.00654,-2.2355,0.0587717,4.65321,-1.30657,4.35827,-5.07537,-0.437287,0.858428,-0.0237,0.486626,0.212235,0.0133968,-1.87429,0.0866861,0.369271,-0.01756,0.20431,-0.00480658,0.0942726,-0.202531,-0.0569881,0.150534,-0.00152561,-4.8578,-7.17809,3.98936,0.083084,10.5469,-5.91506,0.0740203,0.868412,-45.3014,1.53627,29.4424,0.404354,2.48925,-0.0026396,
0.490094,0.213121,0.0176532,-1.87565,0.0864128,0.369713,-0.0179089,0.0512689,-0.00633621,0.047433,-0.0538589,-0.0504721,0.0710127,-0.00234529,-1.92663,-0.165875,-1.72963,2.5932,3.17249,-1.7571,0.0531486,4.55774,-1.28842,4.27182,-4.95587,-0.431689,0.845857,-0.0234283,0.486626,0.212235,0.0133968,-1.87429,0.0866861,0.369271,-0.01756,0.20431,-0.00480658,0.0942726,-0.202531,-0.0569881,0.150534,-0.00152561,0,0,0,0,0,0,0,0.868412,-45.3014,1.53627,29.4424,0.404354,2.48925,-0.0026396,
0.493821,0.212987,0.0200162,-1.87945,0.0856,0.372684,-0.0178262,0.0474957,-0.00607365,0.0439989,-0.0482126,-0.0461765,0.0671428,-0.00218577,-2.35828,0.164099,-2.14629,3.52895,2.68472,-2.4187,0.0996994,3.60106,-1.09077,3.40008,-3.75385,-0.361779,0.729896,-0.0202166,0.486626,0.212235,0.0133968,-1.87429,0.0866861,0.369271,-0.01756,0.20431,-0.00480658,0.0942726,-0.202531,-0.0569881,0.150534,-0.00152561,0,0,0,0,0,0,0,0.868412,-45.3014,1.53627,29.4424,0.404354,2.48925,-0.0026396,
0.494064,0.212944,0.0202438,-1.87964,0.0853469,0.373111,-0.017838,0.0440873,-0.00594086,0.0408897,-0.0433632,-0.0432693,0.0643974,-0.00204473,-2.13026,0.0829906,-1.94326,3.03086,1.81701,-1.71587,0.0881516,3.5046,-1.07004,3.31161,-3.63272,-0.356843,0.718892,-0.0198367,0.486626,0.212235,0.0133968,-1.87429,0.0866861,0.369271,-0.01756,0.20431,-0.00480658,0.0942726,-0.202531,-0.0569881,0.150534,-0.00152561,0,0,0,0,0,0,0,0.868412,-45.3014,1.53627,29.4424,0.404354,2.48925,-0.0026396,
0.494294,0.212899,0.0204584,-1.87982,0.0850744,0.373551,-0.0178493,0.0410095,-0.0058901,0.0380764,-0.0391679,-0.0414281,0.0625132,-0.00191879,-1.92362,0.031725,-1.75833,2.6221,1.15077,-1.17763,0.0787126,3.3917,-1.10453,3.17565,-3.48492,-0.351952,0.710839,-0.0194876,0.49138,0.212351,0.0184039,-1.88011,0.0853763,0.374125,-0.0175644,0.0933993,-0.0110395,0.187603,-0.155153,-0.0267685,0.13206,0.000590008,-13.8639,-0.779119,11.6663,5.92218,3.77745,-2.30918,0.264452,-0.40112,-42.683,0.687269,25.3323,-0.13306,1.79345,-0.0301054,
0.494511,0.212852,0.0206611,-1.87998,0.0847846,0.374002,-0.0178602,0.0382277,-0.00588721,0.0355291,-0.0355097,-0.0403869,0.061286,-0.00180581,-1.73859,0.00180607,-1.59208,2.28634,0.650757,-0.767018,0.0706099,3.29473,-1.08384,3.08651,-3.36333,-0.34926,0.700767,-0.0190861,0.49138,0.212351,0.0184039,-1.88011,0.0853763,0.374125,-0.0175644,0.0933993,-0.0110395,0.187603,-0.155153,-0.0267685,0.13206,0.000590008,0,0,0,0,0,0,0,-0.40112,-42.683,0.687269,25.3323,-0.13306,1.79345,-0.0301054,
0.49727,0.212809,0.023849,-1.88291,0.0855983,0.377359,-0.0177726,0.0341602,-0.00538735,0.0317391,-0.0291831,-0.0257382,0.0496293,-0.00170116,-2.54219,0.312413,-2.36875,3.95416,9.15543,-7.28543,0.0654096,2.22363,-0.868762,2.09764,-2.00932,-0.427249,0.675316,-0.0138701,0.49138,0.212351,0.0184039,-1.88011,0.0853763,0.374125,-0.0175644,0.0933993,-0.0110395,0.187603,-0.155153,-0.0267685,0.13206,0.000590008,0,0,0,0,0,0,0,-0.40112,-42.683,0.687269,25.3323,-0.13306,1.79345,-0.0301054,
0.497399,0.212781,0.0239686,-1.88292,0.0860412,0.377231,-0.017783,0.0305622,-0.00500955,0.0283818,-0.023682,-0.00951852,0.0365067,-0.00162056,-2.24875,0.236124,-2.0983,3.4382,10.1373,-8.20162,0.0503762,2.13027,-0.850046,2.01168,-1.88564,-0.440847,0.681085,-0.0133351,0.49138,0.212351,0.0184039,-1.88011,0.0853763,0.374125,-0.0175644,0.0933993,-0.0110395,0.187603,-0.155153,-0.0267685,0.13206,0.000590008,0,0,0,0,0,0,0,-0.40112,-42.683,0.687269,25.3323,-0.13306,1.79345,-0.0301054,
0.497516,0.212752,0.0240764,-1.88291,0.086705,0.376912,-0.0177932,0.0273715,-0.00471847,0.0253991,-0.0188274,0.00898097,0.0212263,-0.00155146,-1.9942,0.181925,-1.8642,3.03413,11.5622,-9.55022,0.0431826,2.02009,-0.848321,1.8765,-1.74582,-0.457302,0.687147,-0.0128243,0.495253,0.213385,0.0233016,-1.8833,0.0852501,0.377629,-0.0175677,0.0494752,0.0648126,0.189316,-0.0568574,0.00648782,0.0874337,0.000613203,-5.49051,9.48152,0.214163,12.287,4.15704,-5.57831,0.00289936,-1.79364,-44.9284,-1.81212,26.9034,-0.0112951,2.4627,-0.00996382,
0.499337,0.214848,0.0270451,-1.88416,0.100617,0.367847,-0.0177006,0.0243452,-0.00375018,0.0224611,-0.0126347,0.0810686,-0.0441406,-0.0011503,-1.89145,0.605183,-1.83624,3.8704,45.0548,-40.8543,0.250731,1.46241,-0.596221,1.39902,-0.708428,-0.100321,0.398221,-0.00922283,0.495253,0.213385,0.0233016,-1.8833,0.0852501,0.377629,-0.0175677,0.0494752,0.0648126,0.189316,-0.0568574,0.00648782,0.0874337,0.000613203,0,0,0,0,0,0,0,-1.79364,-44.9284,-1.81212,26.9034,-0.0112951,2.4627,-0.00996382,
0.499411,0.21484,0.0271082,-1.88406,0.104004,0.365035,-0.017691,0.0213152,-0.00319637,0.0195476,-0.00755175,0.149531,-0.105617,-0.000681604,-1.89373,0.346132,-1.82092,3.17684,42.7889,-38.4229,0.292932,1.45149,-0.547779,1.39965,-0.610755,0.0667074,0.252918,-0.00906051,0.495253,0.213385,0.0233016,-1.8833,0.0852501,0.377629,-0.0175677,0.0494752,0.0648126,0.189316,-0.0568574,0.00648782,0.0874337,0.000613203,0,0,0,0,0,0,0,-1.79364,-44.9284,-1.81212,26.9034,-0.0112951,2.4627,-0.00996382,
0.499481,0.214831,0.0271298,-1.88396,0.107791,0.361969,-0.0176519,0.0188088,-0.00277799,0.0161762,-0.00365443,0.214289,-0.161138,0.000433383,-1.56654,0.261488,-2.10711,2.43583,40.4739,-34.7005,0.696867,1.45458,-0.492548,1.41488,-0.518718,0.277921,0.0636064,-0.00889319,0.495253,0.213385,0.0233016,-1.8833,0.0852501,0.377629,-0.0175677,0.0494752,0.0648126,0.189316,-0.0568574,0.00648782,0.0874337,0.000613203,0,0,0,0,0,0,0,-1.79364,-44.9284,-1.81212,26.9034,-0.0112951,2.4627,-0.00996382,
0.499483,0.214845,0.0271471,-1.88386,0.112141,0.358729,-0.0176566,0.0151064,-0.00187865,0.0133745,-0.000402842,0.280178,-0.209912,0.000227625,-2.314,0.562084,-1.75109,2.03224,41.1808,-30.4836,-0.128599,1.49785,-0.486346,1.44824,-0.418328,0.543093,-0.17587,-0.00865201,0.499102,0.213271,0.0264877,-1.88605,0.0852224,0.378671,-0.0175692,0.13712,-0.0500605,0.0432612,-0.0826339,0.00239227,-0.00381005,0.000292,10.9556,-14.3591,-18.2569,-3.22206,-0.511944,-11.4055,-0.0401503,-3.57098,-41.584,-3.13719,26.8518,0.1535,3.25188,0.00376909,
0.50102,0.212962,0.0282134,-1.88641,0.0879654,0.376591,-0.0176342,0.0207704,-0.00237172,0.0186199,-0.000557791,0.251215,-0.18498,-0.000160551,3.54003,-0.308168,3.27837,-0.096843,-18.102,15.5822,-0.24261,1.49289,-0.502113,1.44049,-0.405764,0.402998,-0.0191966,-0.00849898,0.499102,0.213271,0.0264877,-1.88605,0.0852224,0.378671,-0.0175692,0.13712,-0.0500605,0.0432612,-0.0826339,0.00239227,-0.00381005,0.000292,0,0,0,0,0,0,0,-3.57098,-41.584,-3.13719,26.8518,0.1535,3.25188,0.00376909,
0.501308,0.212934,0.0284765,-1.88639,0.0893296,0.375697,-0.0176452,0.0238315,-0.00260763,0.0214713,1.53804e-05,0.235078,-0.170341,-0.000402155,1.91318,-0.14744,1.78213,0.358232,-10.0856,9.14969,-0.151003,1.52287,-0.430845,1.48348,-0.324771,0.71517,-0.313518,-0.00799902,0.499102,0.213271,0.0264877,-1.88605,0.0852224,0.378671,-0.0175692,0.13712,-0.0500605,0.0432612,-0.0826339,0.00239227,-0.00381005,0.000292,0,0,0,0,0,0,0,-3.57098,-41.584,-3.13719,26.8518,0.1535,3.25188,0.00376909,
