xiao-wang007/linearmpc_panda/paper_data/panda_inverse_dynamics_controller_opt_time_to_start/0/trajectory.csv
Commanded Joint 0 Position,Commanded Joint 1 Position,Commanded Joint 2 Position,Commanded Joint 3 Position,Commanded Joint 4 Position,Commanded Joint 5 Position,Commanded Joint 6 Position,Commanded Joint 0 Velocity,Commanded Joint 1 Velocity,Commanded Joint 2 Velocity,Commanded Joint 3 Velocity,Commanded Joint 4 Velocity,Commanded Joint 5 Velocity,Commanded Joint 6 Velocity,Commanded Joint 0 Acceleration,Commanded Joint 1 Acceleration,Commanded Joint 2 Acceleration,Commanded Joint 3 Acceleration,Commanded Joint 4 Acceleration,Commanded Joint 5 Acceleration,Commanded Joint 6 Acceleration,Commanded Joint 0 Torque,Commanded Joint 1 Torque,Commanded Joint 2 Torque,Commanded Joint 3 Torque,Commanded Joint 4 Torque,Commanded Joint 5 Torque,Commanded Joint 6 Torque,Actual Joint 0 Position,Actual Joint 1 Position,Actual Joint 2 Position,Actual Joint 3 Position,Actual Joint 4 Position,Actual Joint 5 Position,Actual Joint 6 Position,Actual Joint 0 Velocity,Actual Joint 1 Velocity,Actual Joint 2 Velocity,Actual Joint 3 Velocity,Actual Joint 4 Velocity,Actual Joint 5 Velocity,Actual Joint 6 Velocity,Actual Joint 0 Acceleration,Actual Joint 1 Acceleration,Actual Joint 2 Acceleration,Actual Joint 3 Acceleration,Actual Joint 4 Acceleration,Actual Joint 5 Acceleration,Actual Joint 6 Acceleration,Actual Joint 0 Torque,Actual Joint 1 Torque,Actual Joint 2 Torque,Actual Joint 3 Torque,Actual Joint 4 Torque,Actual Joint 5 Torque,Actual Joint 6 Torque,
0.00357565,-0.00244827,0.0160689,-1.7797,0.00483512,0.245929,0.060394,0.00047551,0.0221188,0.000445825,-0.0329646,-0.0047531,0.0534038,-0.000370175,0.297194,13.8243,0.27864,-20.6029,-2.97069,33.3774,-0.23136,0.0563561,24.4557,0.0594335,-24.3834,-0.631814,1.91473,-0.0244666,0.00352633,-0.0031805,0.0160242,-1.77672,0.00509187,0.240235,0.0604363,0.00324524,0.000773889,-0.00162416,-0.00640005,-0.00656442,0.00385872,0.000187001,0,0,0,0,0,0,0,-0.0956386,-35.2205,0.0128308,27.2287,0.868527,3.19878,-0.0163725,
0.00353418,-0.00313565,0.0160312,-1.77676,0.00502909,0.240208,0.0604356,0.000412152,0.0180285,0.000385239,-0.0265601,-0.00407978,0.0424602,-0.000300996,-0.0395985,-2.55645,-0.0378658,4.00284,0.420825,-6.8397,0.0432369,0.0505716,24.8962,0.0490562,-24.2998,-0.631913,1.66388,-0.0229516,0.00352633,-0.0031805,0.0160242,-1.77672,0.00509187,0.240235,0.0604363,0.00324524,0.000773889,-0.00162416,-0.00640005,-0.00656442,0.00385872,0.000187001,0,0,0,0,0,0,0,-0.0956386,-35.2205,0.0128308,27.2287,0.868527,3.19878,-0.0163725,
0.00353485,-0.00312436,0.0160317,-1.77676,0.00502261,0.2402,0.0604355,0.00034666,0.0147049,0.000322089,-0.0213953,-0.00342562,0.03375,-0.000243979,-0.0409326,-2.07723,-0.0394693,3.22799,0.408852,-5.4439,0.0356356,0.0433403,25.4677,0.0373058,-24.1918,-0.631211,1.31636,-0.0209836,0.00352633,-0.0031805,0.0160242,-1.77672,0.00509187,0.240235,0.0604363,0.00324524,0.000773889,-0.00162416,-0.00640005,-0.00656442,0.00385872,0.000187001,0,0,0,0,0,0,0,-0.0956386,-35.2205,0.0128308,27.2287,0.868527,3.19878,-0.0163725,
0.00353519,-0.00311479,0.016032,-1.77677,0.0050188,0.240193,0.0604354,0.000285879,0.0120033,0.000263216,-0.0172337,-0.0028358,0.0268305,-0.000197349,-0.0379881,-1.68852,-0.0367953,2.60097,0.368637,-4.32468,0.0291442,0.0373927,25.9916,0.0278761,-24.024,-0.629019,0.931237,-0.0189824,0.00352633,-0.0031805,0.0160242,-1.77672,0.00509187,0.240235,0.0604363,0.00324524,0.000773889,-0.00162416,-0.00640005,-0.00656442,0.00385872,0.000187001,0,0,0,0,0,0,0,-0.0956386,-35.2205,0.0128308,27.2287,0.868527,3.19878,-0.0163725,
0.00331202,-0.00155136,0.0158235,-1.77735,0.0134383,0.233521,0.0603957,-0.000595729,0.0122591,-0.000615175,-0.0152589,0.0503371,-0.0105616,-0.000205493,-0.551005,0.159842,-0.548994,1.23427,33.2331,-23.3701,-0.00509013,0.459727,0.201442,0.456388,-0.248953,3.11607,-1.72448,-0.00182042,0.00350855,-0.00246386,0.0160217,-1.77695,0.00509646,0.238925,0.0604322,0.00421891,0.0443007,0.00463765,-0.0229221,-0.00360886,-0.0392389,-0.00121676,0.121709,5.44085,0.782726,-2.06525,0.369445,-5.38721,-0.17547,0.158268,-28.73,0.139784,21.2222,0.697323,2.09191,0.017502,
0.00328973,-0.00146522,0.0158012,-1.77741,0.0156022,0.232217,0.0603944,-0.0010338,0.0119607,-0.00105126,-0.0135214,0.0943675,-0.0410513,-0.000196352,-0.273795,-0.186478,-0.272551,1.08595,27.519,-19.0561,0.00571292,0.454924,0.199491,0.451603,-0.246432,3.08828,-1.7091,-0.00178869,0.00350855,-0.00246386,0.0160217,-1.77695,0.00509646,0.238925,0.0604322,0.00421891,0.0443007,0.00463765,-0.0229221,-0.00360886,-0.0392389,-0.00121676,0,0,0,0,0,0,0,0.158268,-28.73,0.139784,21.2222,0.697323,2.09191,0.017502,
0.00327755,-0.00139416,0.0157889,-1.77745,0.0177972,0.230906,0.0603935,-0.00113153,0.0113451,-0.00114836,-0.0119983,0.130371,-0.0656151,-0.000181508,-0.0610817,-0.384766,-0.0606898,0.951918,22.5019,-15.3523,0.00927789,0.450123,0.197591,0.446823,-0.243912,3.06039,-1.69369,-0.00175625,0.00350855,-0.00246386,0.0160217,-1.77695,0.00509646,0.238925,0.0604322,0.00421891,0.0443007,0.00463765,-0.0229221,-0.00360886,-0.0392389,-0.00121676,0,0,0,0,0,0,0,0.158268,-28.73,0.139784,21.2222,0.697323,2.09191,0.017502,
0.00327435,-0.00133453,0.0157855,-1.7775,0.0200055,0.229598,0.0603926,-0.0009852,0.0105669,-0.00100259,-0.0106664,0.159504,-0.0851809,-0.000166469,0.0914573,-0.486387,0.0911077,0.832461,18.2085,-12.2287,0.00939888,0.44532,0.195739,0.44204,-0.241393,3.03241,-1.67827,-0.00172445,0.00350855,-0.00246386,0.0160217,-1.77695,0.00509646,0.238925,0.0604322,0.00421891,0.0443007,0.00463765,-0.0229221,-0.00360886,-0.0392389,-0.00121676,0,0,0,0,0,0,0,0.158268,-28.73,0.139784,21.2222,0.697323,2.09191,0.017502,
0.00315371,-0.00162575,0.015666,-1.77673,0.0317885,0.216667,0.0603425,-0.00059008,0.0102566,-0.000585178,-0.00920859,0.291801,-0.20849,-0.00011872,0.24695,-0.193929,0.260881,0.911113,82.6854,-77.0683,0.0298432,3.83361,1.1446,3.82825,-1.67192,10.5106,-8.68369,-0.00501165,0.00365168,-0.00240321,0.016399,-1.77742,0.00745075,0.236274,0.060434,0.00901996,0.0640249,0.0200573,-0.0251976,0.206857,-0.186692,-0.00305758,0.600131,2.46552,1.92746,-0.284444,26.3082,-18.4316,-0.230102,3.53046,-30.4796,3.4366,20.7263,1.77856,1.6671,0.0440523,
0.00321135,-0.00156659,0.0157244,-1.77679,0.0384432,0.210876,0.0603448,0.000969025,0.00968427,0.000990194,-0.00880928,0.39981,-0.311557,-3.96186e-05,0.974441,-0.357687,0.984608,0.249566,67.5055,-64.4166,0.0494385,3.75866,1.12433,3.7532,-1.62862,10.198,-8.52155,-0.00446912,0.00365168,-0.00240321,0.016399,-1.77742,0.00745075,0.236274,0.060434,0.00901996,0.0640249,0.0200573,-0.0251976,0.206857,-0.186692,-0.00305758,0,0,0,0,0,0,0,3.53046,-30.4796,3.4366,20.7263,1.77856,1.6671,0.0440523,
0.00331171,-0.00151244,0.0158253,-1.77687,0.0451,0.205005,0.060347,0.00328426,0.00910131,0.00331598,-0.00909191,0.486267,-0.396021,2.34519e-05,1.44702,-0.364355,1.45362,-0.176645,54.0359,-52.7899,0.0394191,3.68341,1.0837,3.67824,-1.59475,9.88174,-8.36895,-0.00352163,0.00365168,-0.00240321,0.016399,-1.77742,0.00745075,0.236274,0.060434,0.00901996,0.0640249,0.0200573,-0.0251976,0.206857,-0.186692,-0.00305758,0,0,0,0,0,0,0,3.53046,-30.4796,3.4366,20.7263,1.77856,1.6671,0.0440523,
0.00633366,-0.00291546,0.0190858,-1.77969,0.0366056,0.198375,0.0607369,0.0205545,0.00109553,0.020579,-0.021818,0.572149,-0.558235,0.000275822,10.7939,-5.00361,10.7894,-7.95379,53.6765,-101.384,0.157731,20.2779,-2.02889,20.3107,-9.95845,10.9663,-14.2712,0.267966,0.00365168,-0.00240321,0.016399,-1.77742,0.00745075,0.236274,0.060434,0.00901996,0.0640249,0.0200573,-0.0251976,0.206857,-0.186692,-0.00305758,0,0,0,0,0,0,0,3.53046,-30.4796,3.4366,20.7263,1.77856,1.6671,0.0440523,
0.0071072,-0.00316653,0.0198597,-1.78034,0.0442728,0.188503,0.0607476,0.0357822,-0.00540027,0.0358107,-0.0337013,0.649399,-0.693396,0.000488538,9.51731,-4.05988,9.51983,-7.42706,48.2812,-84.4755,0.132948,16.963,-3.46467,16.8962,-11.4141,10.8607,-14.1952,0.0898827,0.00448154,-0.00181158,0.0181041,-1.77885,0.0238702,0.222178,0.0604199,0.0458315,0.0143665,0.12357,-0.0977816,0.847044,-0.80381,-0.00510523,4.60144,-6.2073,12.9391,-9.073,80.0234,-77.1398,-0.255957,14.131,-27.1828,13.7119,15.3467,5.73639,-3.31245,0.225327,
0.0079241,-0.00340791,0.0206772,-1.78107,0.0521855,0.178783,0.0607594,0.0490484,-0.0103549,0.0490856,-0.045071,0.717338,-0.797702,0.00068421,8.29138,-3.09665,8.2968,-7.10607,42.4614,-65.1912,0.122295,15.429,-2.58186,15.3784,-10.7993,10.8607,-14.1952,0.0310199,0.00448154,-0.00181158,0.0181041,-1.77885,0.0238702,0.222178,0.0604199,0.0458315,0.0143665,0.12357,-0.0977816,0.847044,-0.80381,-0.00510523,0,0,0,0,0,0,0,14.131,-27.1828,13.7119,15.3467,5.73639,-3.31245,0.225327,
0.00877297,-0.00362882,0.0215268,-1.78185,0.0602738,0.16943,0.0607717,0.0604603,-0.0138065,0.0605083,-0.0556084,0.776078,-0.872001,0.000855795,7.13247,-2.15727,7.1392,-6.58587,36.7127,-46.4372,0.107241,14.6009,-2.15051,14.5689,-10.3758,10.8607,-14.1952,0.0162657,0.00448154,-0.00181158,0.0181041,-1.77885,0.0238702,0.222178,0.0604199,0.0458315,0.0143665,0.12357,-0.0977816,0.847044,-0.80381,-0.00510523,0,0,0,0,0,0,0,14.131,-27.1828,13.7119,15.3467,5.73639,-3.31245,0.225327,
0.0102664,-0.000999153,0.0239264,-1.78364,0.0614018,0.17601,0.0605463,0.0811355,-0.00620398,0.0812796,-0.0715915,0.820875,-0.95273,0.00100996,12.922,4.7516,12.9821,-9.98945,27.9983,-50.4554,0.0963522,23.3777,5.627,23.4281,-17.005,10.8607,-14.1952,0.0391421,0.00448154,-0.00181158,0.0181041,-1.77885,0.0238702,0.222178,0.0604199,0.0458315,0.0143665,0.12357,-0.0977816,0.847044,-0.80381,-0.00510523,0,0,0,0,0,0,0,14.131,-27.1828,13.7119,15.3467,5.73639,-3.31245,0.225327,
0.0115998,-0.000798425,0.0252637,-1.78481,0.0695747,0.165893,0.060558,0.0982432,5.50174e-05,0.0984544,-0.086468,0.861021,-1.01513,0.0011005,10.6923,3.91187,10.7342,-9.2978,25.091,-38.9969,0.0565901,22.1483,6.37767,22.1967,-16.8553,10.7976,-13.7328,0.0308544,0.00739534,-0.00267371,0.0240122,-1.78406,0.0661643,0.176788,0.0604369,0.226006,-0.0491662,0.372927,-0.287232,1.47012,-1.5623,2.9188e-05,22.5218,-7.94159,31.1696,-23.6813,77.8842,-94.8107,0.641802,20.6731,-33.6495,19.9365,25.6577,5.2539,-0.454172,0.017502,
0.0129431,-0.000586691,0.0266105,-1.78607,0.0778783,0.156201,0.0605711,0.112178,0.00533736,0.112434,-0.100483,0.896407,-1.05439,0.00120765,8.70946,3.30146,8.73755,-8.75928,22.1167,-24.5423,0.0669651,21.0048,5.98201,21.0517,-16.5469,10.7976,-13.7328,0.0244073,0.00739534,-0.00267371,0.0240122,-1.78406,0.0661643,0.176788,0.0604369,0.226006,-0.0491662,0.372927,-0.287232,1.47012,-1.5623,2.9188e-05,0,0,0,0,0,0,0,20.6731,-33.6495,19.9365,25.6577,5.2539,-0.454172,0.017502,
0.014287,-0.000357682,0.0279577,-1.78738,0.0862747,0.147115,0.0605855,0.123341,0.00999513,0.123626,-0.113201,0.927036,-1.07065,0.00132663,6.97643,2.91111,6.99473,-7.94893,19.1431,-10.1636,0.0743671,19.9906,5.5234,20.037,-16.313,10.7976,-13.7328,0.0189481,0.00739534,-0.00267371,0.0240122,-1.78406,0.0661643,0.176788,0.0604369,0.226006,-0.0491662,0.372927,-0.287232,1.47012,-1.5623,2.9188e-05,0,0,0,0,0,0,0,20.6731,-33.6495,19.9365,25.6577,5.2539,-0.454172,0.017502,
0.0179386,-0.002522,0.0345452,-1.79319,0.116403,0.121512,0.0603566,0.146397,0.0100073,0.146526,-0.137318,0.978393,-1.08981,0.000701057,14.4105,0.00761313,14.3125,-15.0728,32.0978,-11.9711,-0.390986,22.0477,2.84573,22.009,-21.6383,10.7976,-13.7328,-0.0158266,0.00739534,-0.00267371,0.0240122,-1.78406,0.0661643,0.176788,0.0604369,0.226006,-0.0491662,0.372927,-0.287232,1.47012,-1.5623,2.9188e-05,0,0,0,0,0,0,0,20.6731,-33.6495,19.9365,25.6577,5.2539,-0.454172,0.017502,
0.0197621,-0.00243517,0.036365,-1.79507,0.125701,0.113221,0.0603461,0.162705,0.0101768,0.162715,-0.156852,1.01515,-1.07913,0.000298655,10.1922,0.105924,10.1183,-12.2087,22.9759,6.67574,-0.251502,20.9726,2.3222,20.937,-21.3476,10.7976,-13.7328,-0.0199932,0.00739534,-0.00267371,0.0240122,-1.78406,0.0661643,0.176788,0.0604369,0.226006,-0.0491662,0.372927,-0.287232,1.47012,-1.5623,2.9188e-05,0,0,0,0,0,0,0,20.6731,-33.6495,19.9365,25.6577,5.2539,-0.454172,0.017502,
0.021508,-0.00234543,0.0381074,-1.79694,0.134851,0.105949,0.0603412,0.17381,0.0103849,0.173732,-0.172284,1.04088,-1.0451,0.000115188,6.94076,0.130081,6.88536,-9.64514,16.0761,21.2694,-0.114667,20.057,1.85349,20.0239,-21.0694,10.7976,-12.2624,-0.0182246,0.00739534,-0.00267371,0.0240122,-1.78406,0.0661643,0.176788,0.0604369,0.226006,-0.0491662,0.372927,-0.287232,1.47012,-1.5623,2.9188e-05,0,0,0,0,0,0,0,20.6731,-33.6495,19.9365,25.6577,5.2539,-0.454172,0.017502,
0.0176006,-0.00302729,0.0342292,-1.79618,0.11695,0.139753,0.0602324,0.185022,0.00960401,0.184966,-0.197524,1.07019,-0.95278,-0.000406104,7.00744,-0.488066,7.02111,-15.7752,18.3203,57.6975,-0.325807,19.3719,1.06582,19.3959,-27.1847,10.7976,-7.99699,-0.0777648,0.00739534,-0.00267371,0.0240122,-1.78406,0.0661643,0.176788,0.0604369,0.226006,-0.0491662,0.372927,-0.287232,1.47012,-1.5623,2.9188e-05,0,0,0,0,0,0,0,20.6731,-33.6495,19.9365,25.6577,5.2539,-0.454172,0.017502,
0.0193576,-0.00295037,0.0359866,-1.79853,0.12625,0.136149,0.0602224,0.191943,0.00960627,0.191909,-0.216548,1.08863,-0.852331,-0.000575395,4.32552,0.00140957,4.33961,-11.8897,11.5265,62.7806,-0.105807,18.8453,0.774583,18.8689,-26.8618,10.7976,-6.23861,-0.0620118,0.00739534,-0.00267371,0.0240122,-1.78406,0.0661643,0.176788,0.0604369,0.226006,-0.0491662,0.372927,-0.287232,1.47012,-1.5623,2.9188e-05,0,0,0,0,0,0,0,20.6731,-33.6495,19.9365,25.6577,5.2539,-0.454172,0.017502,
0.021041,-0.00285759,0.0376707,-1.80081,0.135384,0.133479,0.0602232,0.19564,0.0100046,0.195628,-0.230448,1.09927,-0.748611,-0.000439923,2.31058,0.248981,2.32441,-8.68793,6.65187,64.8252,0.0846701,18.403,0.0856392,18.4321,-26.2675,10.5963,-4.47514,-0.0490988,0.012711,-0.00442704,0.034354,-1.79818,0.111646,0.125533,0.0604505,0.163691,0.054502,0.290159,-0.459738,1.32305,-1.2714,0.00127003,-7.78933,12.9585,-10.3461,-21.5633,-18.3838,36.3621,0.155105,8.77918,-29.579,8.48695,33.5803,3.39721,4.9099,-0.117081,
0.0226579,-0.00275528,0.0392883,-1.80305,0.144383,0.131627,0.0602347,0.196933,0.0105614,0.196942,-0.240176,1.10438,-0.645198,-6.43224e-05,0.808392,0.348004,0.821463,-6.07959,3.19275,64.633,0.23475,17.9351,0.00346915,17.9636,-25.93,10.5963,-3.16221,-0.0348695,0.012711,-0.00442704,0.034354,-1.79818,0.111646,0.125533,0.0604505,0.163691,0.054502,0.290159,-0.459738,1.32305,-1.2714,0.00127003,0,0,0,0,0,0,0,8.77918,-29.579,8.48695,33.5803,3.39721,4.9099,-0.117081,
0.0213434,-0.00240049,0.0430056,-1.81371,0.157734,0.09367,0.0603127,0.198632,0.016295,0.198664,-0.264747,1.10305,-0.619307,-8.86839e-05,1.06188,3.58349,1.0757,-15.3571,-0.833428,16.182,-0.015226,18.8145,0.433414,18.8449,-32.5593,10.5963,-6.08034,-0.077508,0.012711,-0.00442704,0.034354,-1.79818,0.111646,0.125533,0.0604505,0.163691,0.054502,0.290159,-0.459738,1.32305,-1.2714,0.00127003,0,0,0,0,0,0,0,8.77918,-29.579,8.48695,33.5803,3.39721,4.9099,-0.117081,
0.0229423,-0.00212497,0.0446052,-1.81653,0.166411,0.0904074,0.0603217,0.198878,0.019924,0.198922,-0.282138,1.09936,-0.577009,0.000155292,0.15333,2.26809,0.161327,-10.8692,-2.30831,26.436,0.152485,18.4852,0.246541,18.5133,-32.168,10.5963,-4.78029,-0.0562898,0.012711,-0.00442704,0.034354,-1.79818,0.111646,0.125533,0.0604505,0.163691,0.054502,0.290159,-0.459738,1.32305,-1.2714,0.00127003,0,0,0,0,0,0,0,8.77918,-29.579,8.48695,33.5803,3.39721,4.9099,-0.117081,
0.0244975,-0.00188278,0.046161,-1.81925,0.175007,0.0878976,0.0603424,0.197983,0.0219939,0.198033,-0.293895,1.09437,-0.524352,0.000641659,-0.55909,1.29374,-0.555121,-7.34835,-3.11491,32.9109,0.303979,18.1515,0.178092,18.1774,-31.7535,10.5963,-3.68024,-0.0346743,0.012711,-0.00442704,0.034354,-1.79818,0.111646,0.125533,0.0604505,0.163691,0.054502,0.290159,-0.459738,1.32305,-1.2714,0.00127003,0,0,0,0,0,0,0,8.77918,-29.579,8.48695,33.5803,3.39721,4.9099,-0.117081,
0.0260098,-0.00166961,0.0476739,-1.8219,0.183538,0.0860439,0.0603742,0.196195,0.0229242,0.196247,-0.301287,1.08878,-0.465825,0.00130817,-1.11754,0.581423,-1.11638,-4.61968,-3.49405,36.5791,0.41657,18.0198,-0.616588,18.0506,-30.4478,10.499,-2.26499,-0.0206329,0.0222224,-0.00547769,0.0496495,-1.81284,0.164063,0.0860839,0.0604553,0.303262,0.00227236,0.461311,-0.330751,1.32883,-0.603039,-0.00728209,17.4464,-6.5287,21.3941,16.1233,0.723335,83.5449,-1.06901,-3.2655,-38.438,-2.86345,41.2769,0.135189,7.03118,0.00376909,
0.0336186,-0.00625632,0.0610556,-1.82784,0.213985,0.0811366,0.0603888,0.205121,0.0151927,0.205169,-0.312773,1.1066,-0.357843,0.00155876,5.57864,-4.83222,5.5762,-7.17869,11.1363,67.4891,0.156619,18.2363,-3.45613,18.2567,-34.8339,10.499,1.01626,-0.0318005,0.0222224,-0.00547769,0.0496495,-1.81284,0.164063,0.0860839,0.0604553,0.303262,0.00227236,0.461311,-0.330751,1.32883,-0.603039,-0.00728209,0,0,0,0,0,0,0,-3.2655,-38.438,-2.86345,41.2769,0.135189,7.03118,0.00376909,
0.0354226,-0.00636897,0.0628602,-1.83064,0.223185,0.082266,0.0604257,0.209196,0.00933783,0.209252,-0.320156,1.11528,-0.258038,0.00216737,2.54719,-3.65927,2.552,-4.61481,5.4248,62.3777,0.380382,17.8455,-3.08749,17.8657,-34.2861,10.499,1.7331,-0.0147554,0.0222224,-0.00547769,0.0496495,-1.81284,0.164063,0.0860839,0.0604553,0.303262,0.00227236,0.461311,-0.330751,1.32883,-0.603039,-0.00728209,0,0,0,0,0,0,0,-3.2655,-38.438,-2.86345,41.2769,0.135189,7.03118,0.00376909,
0.0371178,-0.00647008,0.0645565,-1.83337,0.2322,0.0838354,0.0604713,0.209737,0.00494262,0.20981,-0.324366,1.1176,-0.167196,0.0028747,0.338226,-2.74701,0.348302,-2.63114,1.44893,56.7767,0.442078,17.4717,-2.72559,17.4918,-33.7458,10.499,2.32769,0.00381547,0.0222224,-0.00547769,0.0496495,-1.81284,0.164063,0.0860839,0.0604553,0.303262,0.00227236,0.461311,-0.330751,1.32883,-0.603039,-0.00728209,0,0,0,0,0,0,0,-3.2655,-38.438,-2.86345,41.2769,0.135189,7.03118,0.00376909,
0.0359257,-0.00467962,0.0678167,-1.83153,0.233951,0.109533,0.0606159,0.200234,-0.00191124,0.200411,-0.328254,1.08472,-0.0160173,0.00368373,-5.93991,-4.28366,-5.87383,-2.42997,-20.5492,94.4864,0.505646,15.4494,-0.701898,15.5211,-37.8594,10.2054,5.57053,-0.00880108,0.0290342,-0.00259561,0.0608929,-1.81839,0.196707,0.0870915,0.0605242,0.156925,0.0163963,0.277107,-0.0234501,0.591555,0.19206,-0.00199841,-18.2922,1.7655,-23.0255,38.4127,-92.1599,99.3875,0.66046,-13.7153,-29.9281,-13.3609,26.0068,1.1679,1.73394,-0.0969389,
0.0371999,-0.00484455,0.0690957,-1.83426,0.241334,0.114202,0.0606732,0.192041,-0.00565224,0.192302,-0.330769,1.05236,0.103917,0.00437957,-5.12065,-2.33812,-5.06833,-1.57188,-20.2254,74.9586,0.4349,15.4181,-0.508378,15.4862,-37.3014,10.2054,5.79306,0.0249773,0.0290342,-0.00259561,0.0608929,-1.81839,0.196707,0.0870915,0.0605242,0.156925,0.0163963,0.277107,-0.0234501,0.591555,0.19206,-0.00199841,0,0,0,0,0,0,0,-13.7153,-29.9281,-13.3609,26.0068,1.1679,1.73394,-0.0969389,
0.0384736,-0.00495653,0.0703741,-1.83693,0.248021,0.1188,0.0607335,0.185474,-0.00732132,0.185802,-0.331583,1.00904,0.198068,0.00501137,-4.10382,-1.04318,-4.0627,-0.50838,-27.0718,58.8448,0.394877,15.1761,-0.321156,15.241,-36.7682,10.2054,5.91182,0.047796,0.0290342,-0.00259561,0.0608929,-1.81839,0.196707,0.0870915,0.0605242,0.156925,0.0163963,0.277107,-0.0234501,0.591555,0.19206,-0.00199841,0,0,0,0,0,0,0,-13.7153,-29.9281,-13.3609,26.0068,1.1679,1.73394,-0.0969389,
0.0397516,-0.00503028,0.0716568,-1.83956,0.253802,0.123306,0.0607946,0.180331,-0.00770074,0.180709,-0.330965,0.951779,0.271119,0.00553683,-3.21443,-0.237137,-3.18318,0.386241,-35.7902,45.6566,0.328413,14.8094,-0.121898,14.8719,-36.2418,9.49825,5.95575,0.0630887,0.0290342,-0.00259561,0.0608929,-1.81839,0.196707,0.0870915,0.0605242,0.156925,0.0163963,0.277107,-0.0234501,0.591555,0.19206,-0.00199841,0,0,0,0,0,0,0,-13.7153,-29.9281,-13.3609,26.0068,1.1679,1.73394,-0.0969389,
0.0361315,-0.00436608,0.0680103,-1.83211,0.227847,0.108006,0.0608148,0.178364,-0.0107253,0.178724,-0.337047,0.888755,0.317696,0.00592968,-1.22937,-1.89038,-1.24034,-3.80126,-39.3898,29.1109,0.245526,15.8095,3.1339,15.8227,-41.0334,9.48516,5.33542,0.0973352,0.0347324,0.00479702,0.0716921,-1.81635,0.208835,0.0907521,0.0605145,0.106899,0.176334,0.29111,0.0373943,0.621916,0.333646,0.0013996,-6.25327,19.9923,1.75035,7.60556,3.79512,17.6982,0.424751,-12.4696,-36.3194,-12.3373,33.7033,1.88202,3.6895,0.0577852,
0.037485,-0.00449667,0.0693663,-1.83499,0.232026,0.111863,0.0608749,0.176528,-0.011845,0.176878,-0.3416,0.815471,0.35058,0.00624681,-1.14758,-0.699785,-1.15359,-2.84578,-45.8026,20.5524,0.19821,15.0989,2.56712,15.1086,-40.6,8.89611,5.09434,0.0942224,0.0347324,0.00479702,0.0716921,-1.81635,0.208835,0.0907521,0.0605145,0.106899,0.176334,0.29111,0.0373943,0.621916,0.333646,0.0013996,0,0,0,0,0,0,0,-12.4696,-36.3194,-12.3373,33.7033,1.88202,3.6895,0.0577852,
0.0388263,-0.00459015,0.0707101,-1.83785,0.235327,0.115557,0.0609345,0.174753,-0.011813,0.175099,-0.344851,0.73491,0.372817,0.00648519,-1.10928,0.0199793,-1.11247,-2.03212,-50.3508,13.898,0.14899,14.5004,2.16967,14.5046,-40.1275,6.93714,4.88377,0.0859821,0.0347324,0.00479702,0.0716921,-1.81635,0.208835,0.0907521,0.0605145,0.106899,0.176334,0.29111,0.0373943,0.621916,0.333646,0.0013996,0,0,0,0,0,0,0,-12.4696,-36.3194,-12.3373,33.7033,1.88202,3.6895,0.0577852,
0.041558,0.00496294,0.0785328,-1.83148,0.23488,0.116507,0.0607555,0.173164,-0.00936607,0.173425,-0.356085,0.687842,0.417108,0.00660481,-0.993477,1.52935,-1.04612,-7.02096,-29.4172,27.6821,0.0747626,15.0102,3.64681,15.0158,-44.254,7.55467,5.87469,0.0799076,0.0347324,0.00479702,0.0716921,-1.81635,0.208835,0.0907521,0.0605145,0.106899,0.176334,0.29111,0.0373943,0.621916,0.333646,0.0013996,0,0,0,0,0,0,0,-12.4696,-36.3194,-12.3373,33.7033,1.88202,3.6895,0.0577852,
0.0428841,0.00497439,0.079858,-1.83468,0.238221,0.121069,0.0608152,0.171683,-0.00720638,0.171872,-0.364743,0.633793,0.447742,0.00677595,-0.925672,1.3498,-0.970682,-5.41149,-33.7808,19.1461,0.106961,14.7647,3.16029,14.7556,-44.0287,6.08824,5.49811,0.0770698,0.036817,0.00708665,0.0783948,-1.81851,0.222525,0.11361,0.0606138,0.00279053,0.116077,0.0786666,0.0104256,0.222455,1.04266,0.00887234,-13.0135,-7.53214,-26.5554,-3.37109,-49.9326,88.6261,0.934092,-13.4614,-39.886,-13.4363,24.9118,-4.49372,3.80852,-0.183914,
0.0442001,0.00499059,0.081173,-1.83786,0.240976,0.125478,0.0608763,0.170246,-0.00536024,0.170371,-0.371216,0.575916,0.468406,0.00694858,-0.89786,1.15384,-0.937763,-4.04536,-36.1731,12.9149,0.107894,14.5437,2.62491,14.5316,-43.4714,4.92848,5.34169,0.0716583,0.036817,0.00708665,0.0783948,-1.81851,0.222525,0.11361,0.0606138,0.00279053,0.116077,0.0786666,0.0104256,0.222455,1.04266,0.00887234,0,0,0,0,0,0,0,-13.4614,-39.886,-13.4363,24.9118,-4.49372,3.80852,-0.183914,
0.0455049,0.00500948,0.0824765,-1.84101,0.243215,0.129763,0.0609405,0.168818,-0.00381603,0.168886,-0.375821,0.516693,0.481847,0.00716414,-0.892855,0.965132,-0.928309,-2.87857,-37.0145,8.40046,0.134721,14.4297,2.18736,14.4151,-42.8858,3.91286,5.22249,0.0719972,0.036817,0.00708665,0.0783948,-1.81851,0.222525,0.11361,0.0606138,0.00279053,0.116077,0.0786666,0.0104256,0.222455,1.04266,0.00887234,0,0,0,0,0,0,0,-13.4614,-39.886,-13.4363,24.9118,-4.49372,3.80852,-0.183914,
0.0402752,0.00621257,0.0818792,-1.83155,0.230942,0.148753,0.0609284,0.157417,-0.00754431,0.157502,-0.37233,0.441432,0.524944,0.0075071,-7.12515,-2.33017,-7.11472,2.18207,-47.038,26.9358,0.214352,14.3776,1.81921,14.3607,-42.2883,3.1114,5.13763,0.0712698,0.036817,0.00708665,0.0783948,-1.81851,0.222525,0.11361,0.0606138,0.00279053,0.116077,0.0786666,0.0104256,0.222455,1.04266,0.00887234,0,0,0,0,0,0,0,-13.4614,-39.886,-13.4363,24.9118,-4.49372,3.80852,-0.183914,
0.0412314,0.00606387,0.0828358,-1.83444,0.231835,0.153899,0.0610013,0.149839,-0.00975292,0.149918,-0.370165,0.375456,0.548617,0.007828,-4.73677,-1.38038,-4.74042,1.35291,-41.2351,14.7959,0.200561,14.2039,1.63599,14.1835,-41.8258,2.38117,4.926,0.0769713,0.038308,0.00725445,0.0828695,-1.82456,0.221218,0.14914,0.0605694,0.0449773,-0.0486169,0.101922,-0.256109,-0.342637,0.94913,-0.00942604,5.27334,-20.5868,2.90693,-33.3168,-70.6365,-11.6906,-2.2873,-5.37213,-22.8664,-5.33507,5.82916,0.440975,-1.22321,0.225327,
0.0422341,0.00594392,0.0838384,-1.83734,0.232542,0.158715,0.0610748,0.14494,-0.010801,0.144998,-0.368713,0.318041,0.559278,0.00810022,-3.06182,-0.655075,-3.07495,0.907641,-35.8846,6.66322,0.170141,14.2112,1.35911,14.189,-41.2177,1.85189,4.88257,0.0785017,0.038308,0.00725445,0.0828695,-1.82456,0.221218,0.14914,0.0605694,0.0449773,-0.0486169,0.101922,-0.256109,-0.342637,0.94913,-0.00942604,0,0,0,0,0,0,0,-5.37213,-22.8664,-5.33507,5.82916,0.440975,-1.22321,0.225327,
0.0432715,0.00584973,0.084875,-1.84025,0.233099,0.163273,0.0611495,0.141886,-0.0109957,0.141914,-0.36754,0.268364,0.561371,0.00834831,-1.90884,-0.121664,-1.92761,0.733137,-31.0476,1.30756,0.155052,14.226,1.11631,14.2021,-40.6071,1.40208,4.84852,0.0823362,0.038308,0.00725445,0.0828695,-1.82456,0.221218,0.14914,0.0605694,0.0449773,-0.0486169,0.101922,-0.256109,-0.342637,0.94913,-0.00942604,0,0,0,0,0,0,0,-5.37213,-22.8664,-5.33507,5.82916,0.440975,-1.22321,0.225327,
0.0420668,0.00572878,0.086633,-1.83809,0.218186,0.177848,0.060909,0.135491,-0.0133371,0.135508,-0.36392,0.21207,0.569324,0.00857528,-3.99658,-1.46335,-4.0037,2.26249,-35.1842,4.97102,0.141855,14.2298,0.90558,14.2043,-39.9975,1.07443,4.82425,0.084421,0.038308,0.00725445,0.0828695,-1.82456,0.221218,0.14914,0.0605694,0.0449773,-0.0486169,0.101922,-0.256109,-0.342637,0.94913,-0.00942604,0,0,0,0,0,0,0,-5.37213,-22.8664,-5.33507,5.82916,0.440975,-1.22321,0.225327,
0.0429929,0.00559008,0.0875585,-1.84089,0.218154,0.182382,0.0609857,0.131546,-0.014137,0.131544,-0.3611,0.168858,0.568792,0.00877918,-2.46573,-0.499976,-2.47746,1.76272,-27.0074,-0.332876,0.127437,14.2784,0.673822,14.2475,-39.335,0.899312,4.7439,0.0873374,0.0402886,0.00800656,0.0869506,-1.83615,0.211277,0.175803,0.0605898,0.041921,-0.109334,0.0915979,-0.404572,-0.290194,0.609105,0.00171233,-0.382032,-7.58969,-1.29052,-18.558,6.5554,-42.5032,1.3923,5.25623,-24.9135,4.964,15.9933,-0.0112951,1.44829,-0.0227812,
0.0439557,0.00548637,0.0885203,-1.84368,0.218172,0.186695,0.0610624,0.129306,-0.0139024,0.129279,-0.35867,0.135548,0.562876,0.00893933,-1.39982,0.146666,-1.41531,1.5186,-20.8187,-3.69751,0.100099,14.2497,0.518776,14.2174,-38.7257,0.712129,4.725,0.0890983,0.0402886,0.00800656,0.0869506,-1.83615,0.211277,0.175803,0.0605898,0.041921,-0.109334,0.0915979,-0.404572,-0.290194,0.609105,0.00171233,0,0,0,0,0,0,0,5.25623,-24.9135,4.964,15.9933,-0.0112951,1.44829,-0.0227812,
0.0441439,0.00671212,0.0908063,-1.8501,0.207182,0.196573,0.060977,0.125664,-0.0136286,0.125609,-0.355506,0.101429,0.54896,0.00907579,-2.27602,0.171108,-2.29368,1.97784,-21.3241,-8.69738,0.0852866,14.1329,0.28072,14.098,-37.5074,0.464215,4.68178,0.0925566,0.0402886,0.00800656,0.0869506,-1.83615,0.211277,0.175803,0.0605898,0.041921,-0.109334,0.0915979,-0.404572,-0.290194,0.609105,0.00171233,0,0,0,0,0,0,0,5.25623,-24.9135,4.964,15.9933,-0.0112951,1.44829,-0.0227812,
0.0450685,0.00664859,0.0917291,-1.85282,0.20703,0.200424,0.061053,0.123647,-0.0124911,0.123559,-0.352339,0.0773379,0.535445,0.00916253,-1.26119,0.710941,-1.28143,1.97916,-15.0573,-8.44696,0.0542142,14.0442,0.193678,14.0081,-36.8985,0.388354,4.65532,0.0938649,0.0402886,0.00800656,0.0869506,-1.83615,0.211277,0.175803,0.0605898,0.041921,-0.109334,0.0915979,-0.404572,-0.290194,0.609105,0.00171233,0,0,0,0,0,0,0,5.25623,-24.9135,4.964,15.9933,-0.0112951,1.44829,-0.0227812,
0.0460195,0.00661236,0.0926781,-1.85551,0.206975,0.204183,0.0611278,0.122694,-0.0108987,0.122571,-0.349058,0.0604951,0.522335,0.0091991,-0.59563,0.995229,-0.617521,2.05051,-10.5267,-8.19338,0.0228551,13.8621,0.248099,13.8307,-36.4084,0.389698,4.53814,0.095064,0.0420949,0.0066876,0.0894189,-1.84865,0.19631,0.202623,0.0606134,0.0845582,0.0263694,0.134669,-0.335543,-0.454316,0.689902,0.00274444,5.32965,16.963,5.38387,8.62866,-20.5153,10.0996,0.129014,4.64527,-35.518,4.33717,27.2009,1.57074,2.09191,-0.210464,
0.0469892,0.00659668,0.0936453,-1.85816,0.206994,0.207854,0.0612012,0.122397,-0.00911093,0.122238,-0.34559,0.0488834,0.50964,0.0091943,-0.185595,1.11737,-0.20819,2.16783,-7.25732,-7.93448,-0.0029992,13.7366,0.196331,13.7041,-35.8002,0.35701,4.50423,0.0953546,0.0420949,0.0066876,0.0894189,-1.84865,0.19631,0.202623,0.0606134,0.0845582,0.0263694,0.134669,-0.335543,-0.454316,0.689902,0.00274444,0,0,0,0,0,0,0,4.64527,-35.518,4.33717,27.2009,1.57074,2.09191,-0.210464,
0.0463734,0.00716836,0.0936865,-1.8622,0.191025,0.223912,0.0609505,0.120248,-0.00546767,0.120057,-0.342452,0.0320638,0.501157,0.00913324,-1.34279,2.27703,-1.36296,1.96068,-10.5122,-5.30175,-0.038166,13.5947,0.159532,13.5611,-35.1924,0.342413,4.46777,0.0948853,0.0420949,0.0066876,0.0894189,-1.84865,0.19631,0.202623,0.0606134,0.0845582,0.0263694,0.134669,-0.335543,-0.454316,0.689902,0.00274444,0,0,0,0,0,0,0,4.64527,-35.518,4.33717,27.2009,1.57074,2.09191,-0.210464,
0.0472851,0.00723701,0.0945955,-1.8648,0.190903,0.227502,0.0610207,0.118991,-0.00265771,0.118769,-0.338873,0.0225963,0.490674,0.00906104,-0.785711,1.75623,-0.804923,2.23702,-5.91722,-6.55177,-0.0451255,13.4401,0.134772,13.4056,-34.5854,0.330642,4.42534,0.0943374,0.0420949,0.0066876,0.0894189,-1.84865,0.19631,0.202623,0.0606134,0.0845582,0.0263694,0.134669,-0.335543,-0.454316,0.689902,0.00274444,0,0,0,0,0,0,0,4.64527,-35.518,4.33717,27.2009,1.57074,2.09191,-0.210464,
0.0482109,0.00730312,0.0955183,-1.86735,0.190893,0.23097,0.0610894,0.118338,-0.000473541,0.118085,-0.334909,0.0178322,0.479245,0.00896768,-0.408319,1.36511,-0.427476,2.4777,-2.97753,-7.14359,-0.0583468,13.2735,0.121096,13.2381,-33.9788,0.326887,4.37993,0.0932528,0.0420949,0.0066876,0.0894189,-1.84865,0.19631,0.202623,0.0606134,0.0845582,0.0263694,0.134669,-0.335543,-0.454316,0.689902,0.00274444,0,0,0,0,0,0,0,4.64527,-35.518,4.33717,27.2009,1.57074,2.09191,-0.210464,
0.0474306,0.00729227,0.0954695,-1.87029,0.173788,0.241333,0.0609098,0.113922,0.00249901,0.113667,-0.329835,0.0063153,0.468199,0.00884093,-2.75953,1.85785,-2.76177,3.171,-7.19809,-6.90354,-0.0792225,12.9527,0.0547519,12.9168,-32.7746,0.418771,4.21376,0.0902217,0.0440679,0.00640572,0.0921126,-1.85769,0.178769,0.222679,0.0605848,0.058587,0.0910758,0.075003,-0.211665,-0.413402,0.443346,0.000366039,-3.2464,8.0883,-7.45822,15.4847,5.11426,-30.8195,-0.2973,-0.730404,-30.4796,-0.562425,20.1788,1.02142,0.87792,0.0239107,
0.0482332,0.00739726,0.0962696,-1.87272,0.173625,0.244598,0.0609745,0.111204,0.00462383,0.110935,-0.324568,0.000962745,0.456188,0.00869186,-1.69931,1.32801,-1.70741,3.29228,-3.34534,-7.50675,-0.0931678,12.7634,0.0631057,12.7266,-32.1713,0.412763,4.15451,0.0885018,0.0440679,0.00640572,0.0921126,-1.85769,0.178769,0.222679,0.0605848,0.058587,0.0910758,0.075003,-0.211665,-0.413402,0.443346,0.000366039,0,0,0,0,0,0,0,-0.730404,-30.4796,-0.562425,20.1788,1.02142,0.87792,0.0239107,
0.0490602,0.00749477,0.0970937,-1.8751,0.173573,0.247753,0.0610372,0.109639,0.0061368,0.109351,-0.319138,-0.000519591,0.443829,0.00852085,-0.977669,0.94561,-0.990113,3.39348,-0.92646,-7.7247,-0.106881,12.5691,0.0766676,12.5315,-31.5688,0.405535,4.09231,0.086555,0.0440679,0.00640572,0.0921126,-1.85769,0.178769,0.222679,0.0605848,0.058587,0.0910758,0.075003,-0.211665,-0.413402,0.443346,0.000366039,0,0,0,0,0,0,0,-0.730404,-30.4796,-0.562425,20.1788,1.02142,0.87792,0.0239107,
0.0499047,0.00758673,0.0979348,-1.87743,0.173603,0.25081,0.0610978,0.108822,0.0072086,0.108508,-0.313578,0.000322069,0.431474,0.00833063,-0.510858,0.669871,-0.526271,3.47503,0.526038,-7.72147,-0.118887,12.3717,0.0937089,12.3332,-30.968,0.394718,4.02559,0.0845011,0.0440679,0.00640572,0.0921126,-1.85769,0.178769,0.222679,0.0605848,0.058587,0.0910758,0.075003,-0.211665,-0.413402,0.443346,0.000366039,0,0,0,0,0,0,0,-0.730404,-30.4796,-0.562425,20.1788,1.02142,0.87792,0.0239107,
0.049903,0.00790004,0.0993989,-1.87761,0.171994,0.242416,0.0608888,0.108803,0.00882699,0.108458,-0.309279,0.00240022,0.412083,0.00813017,-0.0119871,1.01149,-0.0318184,2.68678,1.29884,-12.1199,-0.12529,12.242,0.0804562,12.1985,-30.3023,0.447472,3.97965,0.0815431,0.0457364,0.0072308,0.0952437,-1.86543,0.172407,0.230046,0.0605802,0.0781423,0.0456305,0.106829,-0.255938,-0.0861749,0.135371,-0.00111516,2.44441,-5.68067,3.97831,-5.53406,40.9034,-38.4969,-0.18515,2.08637,-28.9324,1.91316,24.6381,1.60736,2.4096,0.0641939,
0.0507774,0.00801745,0.100269,-1.87988,0.172119,0.245091,0.0609452,0.108904,0.00999686,0.108526,-0.304351,0.00505949,0.396544,0.00791254,0.0632237,0.731168,0.0426296,3.07989,1.66204,-9.71174,-0.136015,12.0406,0.102609,11.9963,-29.7042,0.430817,3.90635,0.0792719,0.0457364,0.0072308,0.0952437,-1.86543,0.172407,0.230046,0.0605802,0.0781423,0.0456305,0.106829,-0.255938,-0.0861749,0.135371,-0.00111516,0,0,0,0,0,0,0,2.08637,-28.9324,1.91316,24.6381,1.60736,2.4096,0.0641939,
0.0516523,0.0081294,0.10114,-1.8821,0.172272,0.247745,0.0609994,0.108995,0.0107962,0.108583,-0.298974,0.00785657,0.383578,0.00768424,0.0566532,0.499601,0.0360608,3.36104,1.74817,-8.10358,-0.142687,11.8383,0.126579,11.7932,-29.1071,0.411523,3.83073,0.0769453,0.0457364,0.0072308,0.0952437,-1.86543,0.172407,0.230046,0.0605802,0.0781423,0.0456305,0.106829,-0.255938,-0.0861749,0.135371,-0.00111516,0,0,0,0,0,0,0,2.08637,-28.9324,1.91316,24.6381,1.60736,2.4096,0.0641939,
0.0525242,0.00823601,0.102007,-1.88427,0.17244,0.250363,0.0610515,0.108994,0.0113023,0.10855,-0.293283,0.0104984,0.372311,0.00745004,-0.000620515,0.316288,-0.0207418,3.55697,1.65114,-7.04165,-0.146374,11.6358,0.151271,11.5899,-28.5118,0.389495,3.75185,0.0745743,0.0457364,0.0072308,0.0952437,-1.86543,0.172407,0.230046,0.0605802,0.0781423,0.0456305,0.106829,-0.255938,-0.0861749,0.135371,-0.00111516,0,0,0,0,0,0,0,2.08637,-28.9324,1.91316,24.6381,1.60736,2.4096,0.0641939,
0.0497434,0.00806885,0.099236,-1.87678,0.171792,0.241136,0.0608495,0.107794,0.0126726,0.107333,-0.288529,0.00913749,0.357598,0.00723239,-0.749516,0.856468,-0.760628,2.97097,-0.850565,-9.19575,-0.136033,11.4583,0.142185,11.4076,-27.8803,0.385353,3.70285,0.0719468,0.0480308,0.00790528,0.0990641,-1.87345,0.170709,0.231843,0.0605903,0.0675365,0.00769907,0.152819,-0.241374,-0.0300572,0.019897,0.00296906,-1.32573,-4.74142,5.74864,1.82046,7.01471,-14.4342,0.510528,5.86322,-34.796,5.61067,33.7787,1.93695,3.61626,-0.0163725,
0.0505682,0.00820515,0.100056,-1.87887,0.171852,0.243522,0.0608984,0.106858,0.0135458,0.106375,-0.283192,0.00881987,0.345724,0.00700739,-0.585473,0.545701,-0.598607,3.3356,-0.198511,-7.42143,-0.140626,11.2562,0.167646,11.2048,-27.2875,0.359083,3.61948,0.0695654,0.0480308,0.00790528,0.0990641,-1.87345,0.170709,0.231843,0.0605903,0.0675365,0.00769907,0.152819,-0.241374,-0.0300572,0.019897,0.00296906,0,0,0,0,0,0,0,5.86322,-34.796,5.61067,33.7787,1.93695,3.61626,-0.0163725,
0.0513906,0.00833301,0.100874,-1.88091,0.171931,0.245885,0.0609453,0.106046,0.014033,0.105541,-0.277454,0.00902774,0.335647,0.00677963,-0.50715,0.304558,-0.521451,3.58625,0.129916,-6.29786,-0.142348,11.0547,0.19325,11.0024,-26.6955,0.331279,3.53466,0.0672147,0.0480308,0.00790528,0.0990641,-1.87345,0.170709,0.231843,0.0605903,0.0675365,0.00769907,0.152819,-0.241374,-0.0300572,0.019897,0.00296906,0,0,0,0,0,0,0,5.86322,-34.796,5.61067,33.7787,1.93695,3.61626,-0.0163725,
0.0522079,0.00845326,0.101686,-1.88289,0.172019,0.248211,0.0609905,0.105268,0.0142325,0.10474,-0.271451,0.00940943,0.326676,0.00655333,-0.486068,0.124669,-0.500928,3.75222,0.238561,-5.60703,-0.141437,10.8539,0.218283,10.8008,-26.1048,0.301918,3.44799,0.0649012,0.0480308,0.00790528,0.0990641,-1.87345,0.170709,0.231843,0.0605903,0.0675365,0.00769907,0.152819,-0.241374,-0.0300572,0.019897,0.00296906,0,0,0,0,0,0,0,5.86322,-34.796,5.61067,33.7787,1.93695,3.61626,-0.0163725,
0.0523216,0.0082196,0.103338,-1.88377,0.171092,0.24031,0.0608212,0.105174,0.0137949,0.104618,-0.265931,0.0104666,0.312051,0.00632657,-0.0589747,-0.2735,-0.0759475,3.44958,0.66075,-9.14075,-0.141726,10.6466,0.195847,10.5858,-25.4752,0.265827,3.398,0.0624186,0.0503128,0.00912887,0.103409,-1.88049,0.172099,0.231408,0.060594,0.0589968,0.0202385,0.118641,-0.18796,0.037205,-0.0418917,0.000263528,-1.06747,1.56743,-4.27216,6.67679,8.40778,-7.72358,-0.338192,1.24927,-40.1875,1.18715,33.6041,1.91864,3.92846,-0.0163725,
0.0531464,0.00831941,0.104157,-1.88566,0.171202,0.242369,0.060863,0.10476,0.0135312,0.104179,-0.26004,0.0111243,0.301114,0.00610584,-0.258852,-0.164836,-0.274615,3.68216,0.411011,-6.83554,-0.137955,10.4471,0.219696,10.3854,-24.886,0.234122,3.30937,0.06024,0.0503128,0.00912887,0.103409,-1.88049,0.172099,0.231408,0.060594,0.0589968,0.0202385,0.118641,-0.18796,0.037205,-0.0418917,0.000263528,0,0,0,0,0,0,0,1.24927,-40.1875,1.18715,33.6041,1.91864,3.92846,-0.0163725,
0.0539569,0.00841965,0.104962,-1.88749,0.171298,0.244429,0.0609033,0.104071,0.013331,0.103466,-0.253909,0.0113013,0.292386,0.00589331,-0.430571,-0.125136,-0.445301,3.83175,0.110687,-5.45476,-0.132834,10.2479,0.242961,10.1854,-24.297,0.201722,3.22058,0.0581342,0.0503128,0.00912887,0.103409,-1.88049,0.172099,0.231408,0.060594,0.0589968,0.0202385,0.118641,-0.18796,0.037205,-0.0418917,0.000263528,0,0,0,0,0,0,0,1.24927,-40.1875,1.18715,33.6041,1.91864,3.92846,-0.0163725,
0.0541131,0.00944727,0.107191,-1.88971,0.172739,0.238713,0.0608054,0.102311,0.0129588,0.101679,-0.246875,0.00976947,0.279132,0.00568708,-1.10006,-0.232615,-1.11709,4.3964,-0.957422,-8.2843,-0.128893,9.85054,0.286549,9.78639,-23.12,0.133099,3.0432,0.0542355,0.0503128,0.00912887,0.103409,-1.88049,0.172099,0.231408,0.060594,0.0589968,0.0202385,0.118641,-0.18796,0.037205,-0.0418917,0.000263528,0,0,0,0,0,0,0,1.24927,-40.1875,1.18715,33.6041,1.91864,3.92846,-0.0163725,
0.0548658,0.00954328,0.107937,-1.8914,0.172738,0.240551,0.0608429,0.100666,0.0127673,0.100006,-0.239824,0.00777925,0.269275,0.00548682,-1.02823,-0.119691,-1.04556,4.40647,-1.24389,-6.16049,-0.125162,9.64496,0.25846,9.57275,-22.4932,0.0906658,2.97829,0.0523207,0.0521805,0.0103733,0.107369,-1.88536,0.17247,0.231079,0.060583,0.0494115,-0.016564,0.125112,-0.113139,-0.00355488,0.0214226,-0.00241923,-1.19816,-4.60031,0.808892,9.35255,-5.09498,7.91428,-0.335344,0.741459,-36.6686,0.663466,27.2009,1.27777,2.78771,0.0440523,
0.0556069,0.00964056,0.108672,-1.89304,0.172706,0.242392,0.0608792,0.0990609,0.0126458,0.0983742,-0.232806,0.00543756,0.26143,0.00529797,-1.00304,-0.0759232,-1.01996,4.38646,-1.46355,-4.90276,-0.118032,9.44623,0.277818,9.37315,-21.9041,0.052727,2.89215,0.0506493,0.0521805,0.0103733,0.107369,-1.88536,0.17247,0.231079,0.060583,0.0494115,-0.016564,0.125112,-0.113139,-0.00355488,0.0214226,-0.00241923,0,0,0,0,0,0,0,0.741459,-36.6686,0.663466,27.2009,1.27777,2.78771,0.0440523,
0.0563352,0.00973745,0.109394,-1.89462,0.172643,0.244215,0.0609147,0.0974566,0.0125389,0.096744,-0.225851,0.00277005,0.254734,0.00512489,-1.00269,-0.0668013,-1.01885,4.34679,-1.66719,-4.18519,-0.108172,9.24736,0.295917,9.1734,-21.3145,0.0119303,2.80766,0.0491369,0.0521805,0.0103733,0.107369,-1.88536,0.17247,0.231079,0.060583,0.0494115,-0.016564,0.125112,-0.113139,-0.00355488,0.0214226,-0.00241923,0,0,0,0,0,0,0,0.741459,-36.6686,0.663466,27.2009,1.27777,2.78771,0.0440523,
0.0557348,0.00972671,0.110901,-1.89282,0.172564,0.2395,0.0607631,0.0955831,0.0092615,0.0948506,-0.217246,0.000557764,0.250224,0.00497917,-1.1709,-2.04838,-1.18337,5.37814,-1.38268,-2.81853,-0.0910767,9.04809,0.313109,8.97324,-20.724,-0.0306765,2.72553,0.04773,0.0521805,0.0103733,0.107369,-1.88536,0.17247,0.231079,0.060583,0.0494115,-0.016564,0.125112,-0.113139,-0.00355488,0.0214226,-0.00241923,0,0,0,0,0,0,0,0.741459,-36.6686,0.663466,27.2009,1.27777,2.78771,0.0440523,
0.056429,0.0097237,0.111589,-1.89425,0.172454,0.241335,0.0607975,0.0938199,0.00733389,0.0930674,-0.209405,-0.00231203,0.246058,0.00484452,-1.102,-1.20475,-1.11452,4.90073,-1.79362,-2.60386,-0.0841604,8.84294,0.295219,8.76293,-20.112,-0.0775618,2.66377,0.0464149,0.0538918,0.0109836,0.111325,-1.88942,0.172378,0.231238,0.0605874,0.033226,-0.00359415,0.0915111,-0.107787,-0.000602517,0.0385054,-0.00247653,-2.02318,1.62123,-4.20016,0.669062,0.369046,2.13536,-0.00716303,-2.47998,-31.7769,-2.48656,19.9527,0.624081,1.08391,0.0440523,
0.057111,0.009741,0.112264,-1.89563,0.172299,0.243132,0.0608314,0.092106,0.00629956,0.0913338,-0.202129,-0.00573442,0.241761,0.00472383,-1.07122,-0.646458,-1.08348,4.54757,-2.13899,-2.6859,-0.0754269,8.64326,0.310237,8.56234,-19.5194,-0.126251,2.58703,0.0453071,0.0538918,0.0109836,0.111325,-1.88942,0.172378,0.231238,0.0605874,0.033226,-0.00359415,0.0915111,-0.107787,-0.000602517,0.0385054,-0.00247653,0,0,0,0,0,0,0,-2.47998,-31.7769,-2.48656,19.9527,0.624081,1.08391,0.0440523,
0.0577799,0.00977331,0.112926,-1.89698,0.172097,0.24488,0.0608651,0.0904073,0.00584751,0.0896161,-0.195269,-0.0096365,0.23712,0.00461955,-1.06166,-0.282531,-1.07356,4.28763,-2.4388,-2.90025,-0.0651734,8.44376,0.324028,8.36191,-18.9259,-0.179144,2.51302,0.0443879,0.0538918,0.0109836,0.111325,-1.88942,0.172378,0.231238,0.0605874,0.033226,-0.00359415,0.0915111,-0.107787,-0.000602517,0.0385054,-0.00247653,0,0,0,0,0,0,0,-2.47998,-31.7769,-2.48656,19.9527,0.624081,1.08391,0.0440523,
0.0568194,0.0106691,0.11423,-1.89606,0.171431,0.238941,0.0607665,0.0875003,0.00482464,0.0866959,-0.188346,-0.0154956,0.231325,0.00456226,-1.81687,-0.639297,-1.82515,4.32677,-3.66191,-3.62205,-0.0358107,8.24469,0.336995,8.1619,-18.331,-0.234545,2.44199,0.0435878,0.0538918,0.0109836,0.111325,-1.88942,0.172378,0.231238,0.0605874,0.033226,-0.00359415,0.0915111,-0.107787,-0.000602517,0.0385054,-0.00247653,0,0,0,0,0,0,0,-2.47998,-31.7769,-2.48656,19.9527,0.624081,1.08391,0.0440523,
0.0574236,0.0106947,0.114827,-1.8973,0.171077,0.240577,0.0608007,0.0851059,0.00449911,0.0842837,-0.181779,-0.0212319,0.225972,0.00450542,-1.49651,-0.203454,-1.50761,4.10415,-3.58523,-3.34551,-0.0355261,8.04663,0.304338,7.96242,-17.7189,-0.292506,2.38579,0.0429105,0.0549241,0.0108624,0.114734,-1.89264,0.172317,0.231194,0.0605903,0.0233787,-0.0122034,0.0959581,-0.0658585,-0.0174772,-0.000983713,8.79756e-05,-1.23091,-1.07616,0.555876,5.24106,-2.10934,-4.93615,0.320563,0.182071,-36.0179,0.112013,26.5305,1.68701,2.42974,0.00376909,
0.0580219,0.0107345,0.115418,-1.8985,0.170685,0.24217,0.0608348,0.0830424,0.00459643,0.0822,-0.175459,-0.0267826,0.220595,0.00445627,-1.28969,0.0608252,-1.30229,3.94989,-3.46918,-3.36068,-0.030719,7.85051,0.315537,7.76532,-17.1219,-0.353341,2.31899,0.0424312,0.0549241,0.0108624,0.114734,-1.89264,0.172317,0.231194,0.0605903,0.0233787,-0.0122034,0.0959581,-0.0658585,-0.0174772,-0.000983713,8.79756e-05,0,0,0,0,0,0,0,0.182071,-36.0179,0.112013,26.5305,1.68701,2.42974,0.00376909,
0.0576509,0.0102883,0.117437,-1.89814,0.17072,0.237961,0.0607663,0.0804346,0.00304129,0.0795794,-0.167185,-0.032627,0.213337,0.00444689,-1.6299,-0.971964,-1.63787,5.17142,-3.65276,-4.53611,-0.00586062,7.4678,0.335808,7.38059,-15.9263,-0.478019,2.18615,0.0419756,0.0549241,0.0108624,0.114734,-1.89264,0.172317,0.231194,0.0605903,0.0233787,-0.0122034,0.0959581,-0.0658585,-0.0174772,-0.000983713,8.79756e-05,0,0,0,0,0,0,0,0.182071,-36.0179,0.112013,26.5305,1.68701,2.42974,0.00376909,
0.0582061,0.0102889,0.117985,-1.89918,0.170242,0.23939,0.0608017,0.0782269,0.0024486,0.0773549,-0.159619,-0.0380697,0.206395,0.00444203,-1.37977,-0.370428,-1.39036,4.72862,-3.40169,-4.33883,-0.00303924,7.28353,0.345252,7.19526,-15.3283,-0.537884,2.11699,0.0419946,0.0549241,0.0108624,0.114734,-1.89264,0.172317,0.231194,0.0605903,0.0233787,-0.0122034,0.0959581,-0.0658585,-0.0174772,-0.000983713,8.79756e-05,0,0,0,0,0,0,0,0.182071,-36.0179,0.112013,26.5305,1.68701,2.42974,0.00376909,
0.0587536,0.0103087,0.118524,-1.90017,0.169746,0.240753,0.0608371,0.0762698,0.00245422,0.0753783,-0.152566,-0.0428428,0.199191,0.00444107,-1.2232,0.00350706,-1.23534,4.40817,-2.98314,-4.5025,-0.000594455,7.10571,0.35477,7.01634,-14.7308,-0.592386,2.04382,0.0421926,0.0549241,0.0108624,0.114734,-1.89264,0.172317,0.231194,0.0605903,0.0233787,-0.0122034,0.0959581,-0.0658585,-0.0174772,-0.000983713,8.79756e-05,0,0,0,0,0,0,0,0.182071,-36.0179,0.112013,26.5305,1.68701,2.42974,0.00376909,
0.0592919,0.0103428,0.119055,-1.90113,0.169244,0.242036,0.0608733,0.0744732,0.00281566,0.0735613,-0.145884,-0.0468176,0.19142,0.00445775,-1.12288,0.2259,-1.13562,4.17635,-2.48427,-4.85688,0.0104241,6.93127,0.334494,6.83943,-14.1257,-0.639841,1.97165,0.0425015,0.0555313,0.0109362,0.117773,-1.89462,0.172316,0.231247,0.0605914,0.0175204,0.0100327,0.0639918,-0.0341947,-0.0112119,-0.00188629,0.000274795,-0.732295,2.77952,-3.99579,3.95798,0.783159,-0.112822,0.0233524,-3.31707,-32.8481,-3.23638,24.2889,0.93536,2.11846,-0.0026396,
0.0577583,0.0106531,0.119974,-1.89918,0.170214,0.237194,0.0607832,0.0715599,0.00228032,0.0706402,-0.138853,-0.0506719,0.183235,0.00455113,-1.82083,-0.334586,-1.82569,4.39432,-2.40896,-5.11572,0.0583615,6.76962,0.344669,6.67661,-13.5309,-0.674675,1.88331,0.0431213,0.0555313,0.0109362,0.117773,-1.89462,0.172316,0.231247,0.0605914,0.0175204,0.0100327,0.0639918,-0.0341947,-0.0112119,-0.00188629,0.000274795,0,0,0,0,0,0,0,-3.31707,-32.8481,-3.23638,24.2889,0.93536,2.11846,-0.0026396,
0.0582373,0.0106736,0.120445,-1.90002,0.169706,0.238308,0.0608231,0.0692234,0.00233675,0.0682876,-0.132257,-0.053244,0.174422,0.004637,-1.46029,0.0352723,-1.47039,4.12269,-1.60757,-5.50846,0.0536706,6.61639,0.355478,6.52215,-12.9388,-0.692832,1.78378,0.0438913,0.0555313,0.0109362,0.117773,-1.89462,0.172316,0.231247,0.0605914,0.0175204,0.0100327,0.0639918,-0.0341947,-0.0112119,-0.00188629,0.000274795,0,0,0,0,0,0,0,-3.31707,-32.8481,-3.23638,24.2889,0.93536,2.11846,-0.0026396,
0.0587115,0.0107082,0.120911,-1.90083,0.16924,0.239314,0.0608605,0.0672351,0.00273557,0.0662774,-0.125984,-0.0542573,0.164698,0.00464506,-1.24268,0.249262,-1.2564,3.92064,-0.633304,-6.07714,0.00503359,6.47115,0.367083,6.3756,-12.3501,-0.691575,1.67211,0.0445085,0.0555313,0.0109362,0.117773,-1.89462,0.172316,0.231247,0.0605914,0.0175204,0.0100327,0.0639918,-0.0341947,-0.0112119,-0.00188629,0.000274795,0,0,0,0,0,0,0,-3.31707,-32.8481,-3.23638,24.2889,0.93536,2.11846,-0.0026396,
0.0591807,0.0107537,0.121372,-1.9016,0.16879,0.240219,0.0608979,0.0655169,0.00332608,0.064539,-0.119956,-0.0546442,0.154375,0.00465178,-1.07392,0.369067,-1.08648,3.7675,-0.241779,-6.45185,0.00420354,6.3373,0.352857,6.24048,-11.7578,-0.680017,1.55716,0.0456814,0.0558524,0.0107769,0.120304,-1.89599,0.172032,0.231226,0.0605888,0.00584723,0.00549758,0.0691927,-0.0209027,-0.0153475,0.0151489,-0.000386278,-1.45914,-0.566894,0.650113,1.6615,-0.51695,2.1294,-0.0826342,0.336795,-32.3998,0.286573,23.2654,1.1615,1.96557,-0.0026396,
0.0582332,0.0105304,0.122647,-1.89999,0.170032,0.236267,0.0608324,0.0625815,0.00311783,0.0615678,-0.111674,-0.0511603,0.141836,0.00437377,-1.83457,-0.130158,-1.85703,5.17591,2.17741,-7.83676,-0.173759,6.06233,0.386155,5.96293,-10.5994,-0.57447,1.26563,0.0498044,0.0558524,0.0107769,0.120304,-1.89599,0.172032,0.231226,0.0605888,0.00584723,0.00549758,0.0691927,-0.0209027,-0.0153475,0.0151489,-0.000386278,0,0,0,0,0,0,0,0.336795,-32.3998,0.286573,23.2654,1.1615,1.96557,-0.0026396,
0.0586419,0.0105632,0.123047,-1.90059,0.169589,0.237049,0.0608551,0.0602807,0.00331358,0.0592619,-0.104416,-0.0520186,0.133006,0.0040651,-1.43804,0.122343,-1.44119,4.53665,-0.536447,-5.51913,-0.192918,5.89357,0.400781,5.79236,-10.0354,-0.496117,1.10899,0.0473646,0.0558524,0.0107769,0.120304,-1.89599,0.172032,0.231226,0.0605888,0.00584723,0.00549758,0.0691927,-0.0209027,-0.0153475,0.0151489,-0.000386278,0,0,0,0,0,0,0,0.336795,-32.3998,0.286573,23.2654,1.1615,1.96557,-0.0026396,
0.0590466,0.0106076,0.123443,-1.90116,0.169073,0.23781,0.0608874,0.0583431,0.00376329,0.0573122,-0.0977566,-0.0545034,0.125427,0.00406013,-1.21099,0.281067,-1.21856,4.16192,-1.55297,-4.73672,-0.00310966,5.74545,0.431315,5.64314,-9.4701,-0.534792,1.00707,0.04722,0.0558524,0.0107769,0.120304,-1.89599,0.172032,0.231226,0.0605888,0.00584723,0.00549758,0.0691927,-0.0209027,-0.0153475,0.0151489,-0.000386278,0,0,0,0,0,0,0,0.336795,-32.3998,0.286573,23.2654,1.1615,1.96557,-0.0026396,
0.0594363,0.0106614,0.123824,-1.9017,0.168608,0.238488,0.0609187,0.056416,0.00435386,0.0553536,-0.09151,-0.055229,0.117303,0.00403067,-1.20445,0.369109,-1.22412,3.90414,-0.453508,-5.07728,-0.0184118,5.59934,0.449964,5.4951,-8.91814,-0.536921,0.938431,0.0552991,0.0561951,0.0109151,0.122355,-1.89694,0.172045,0.231211,0.0605919,0.00776196,-0.00115777,0.0634665,-0.0233666,-0.0193432,0.00570857,-0.000461152,0.239341,-0.83192,-0.715782,-0.307988,-0.499458,-1.18005,-0.00935916,1.65393,-31.5508,1.61165,22.7417,1.3327,1.87951,0.00376909,
0.0582569,0.0107765,0.124372,-1.89988,0.169596,0.235087,0.0607509,0.0539274,0.0042557,0.0528568,-0.084071,-0.0590511,0.108032,0.00371643,-1.55535,-0.06135,-1.56049,4.64942,-2.38883,-5.79463,-0.196399,4.85217,0.452776,4.7422,-7.86082,-0.211116,0.832526,0.0335328,0.0561951,0.0109151,0.122355,-1.89694,0.172045,0.231211,0.0605919,0.00776196,-0.00115777,0.0634665,-0.0233666,-0.0193432,0.00570857,-0.000461152,0,0,0,0,0,0,0,1.65393,-31.5508,1.61165,22.7417,1.3327,1.87951,0.00376909,
0.0586036,0.0108199,0.12471,-1.90028,0.168979,0.235561,0.0607764,0.0518079,0.00448976,0.0507159,-0.0773297,-0.0626794,0.0982634,0.00361114,-1.32473,0.14629,-1.33806,4.21327,-2.26765,-6.10537,-0.0658078,4.69556,0.481401,4.58785,-7.29955,-0.884315,1.19969,0.0256862,0.0561951,0.0109151,0.122355,-1.89694,0.172045,0.231211,0.0605919,0.00776196,-0.00115777,0.0634665,-0.0233666,-0.0193432,0.00570857,-0.000461152,0,0,0,0,0,0,0,1.65393,-31.5508,1.61165,22.7417,1.3327,1.87951,0.00376909,
0.0589368,0.0108733,0.125032,-1.90065,0.168464,0.235912,0.0608025,0.0497769,0.00492748,0.0486454,-0.0711988,-0.063005,0.0873907,0.00354161,-1.26932,0.273573,-1.29407,3.83185,-0.203491,-6.79544,-0.0434551,4.65321,0.479888,4.54568,-6.8762,-0.826262,1.03008,0.0400078,0.0561951,0.0109151,0.122355,-1.89694,0.172045,0.231211,0.0605919,0.00776196,-0.00115777,0.0634665,-0.0233666,-0.0193432,0.00570857,-0.000461152,0,0,0,0,0,0,0,1.65393,-31.5508,1.61165,22.7417,1.3327,1.87951,0.00376909,
0.0592562,0.010933,0.125341,-1.901,0.168079,0.236155,0.0608243,0.0478066,0.0054336,0.0466274,-0.0656825,-0.0600403,0.0759885,0.00337744,-1.23147,0.316327,-1.26122,3.44766,1.85291,-7.12633,-0.102601,4.39316,0.511204,4.28083,-6.43968,-0.538798,0.789306,0.0408712,0.056518,0.0110433,0.124076,-1.89757,0.172194,0.2312,0.0605834,0.00419696,0.0194642,0.0570124,-0.000848236,-0.00262665,0.0101525,-0.000552715,-0.445624,2.57775,-0.806762,2.8148,2.08957,0.555496,-0.0114455,1.1977,-32.4236,1.18715,22.6187,1.06353,1.64055,0.0376436,
0.0580112,0.0111647,0.12553,-1.89936,0.170276,0.233405,0.0607045,0.0458052,0.00542392,0.0445928,-0.060913,-0.057301,0.0677481,0.00326512,-1.25086,-0.00604987,-1.27162,2.98093,1.71208,-5.15025,-0.0702014,4.18139,0.521945,4.06347,-6.01005,-0.512944,0.639494,0.0278171,0.056518,0.0110433,0.124076,-1.89757,0.172194,0.2312,0.0605834,0.00419696,0.0194642,0.0570124,-0.000848236,-0.00262665,0.0101525,-0.000552715,0,0,0,0,0,0,0,1.1977,-32.4236,1.18715,22.6187,1.06353,1.64055,0.0376436,
0.0583113,0.0112166,0.12582,-1.89968,0.169928,0.233636,0.0607264,0.0441466,0.0056364,0.042916,-0.0566377,-0.0545353,0.0599843,0.003161,-1.03664,0.132798,-1.04801,2.67207,1.72853,-4.85238,-0.065074,4.06452,0.58191,3.94985,-5.52772,-1.10023,0.660802,0.022008,0.056518,0.0110433,0.124076,-1.89757,0.172194,0.2312,0.0605834,0.00419696,0.0194642,0.0570124,-0.000848236,-0.00262665,0.0101525,-0.000552715,0,0,0,0,0,0,0,1.1977,-32.4236,1.18715,22.6187,1.06353,1.64055,0.0376436,
0.0586031,0.0112761,0.1261,-1.89997,0.169697,0.233778,0.0607541,0.0426123,0.00599703,0.0413535,-0.052652,-0.0494041,0.0515322,0.00322171,-0.958934,0.225392,-0.976584,2.49105,3.20704,-5.28255,0.0379439,4.07694,0.647337,3.96089,-5.1148,-0.850765,0.447212,0.032308,0.056518,0.0110433,0.124076,-1.89757,0.172194,0.2312,0.0605834,0.00419696,0.0194642,0.0570124,-0.000848236,-0.00262665,0.0101525,-0.000552715,0,0,0,0,0,0,0,1.1977,-32.4236,1.18715,22.6187,1.06353,1.64055,0.0376436,
0.058879,0.011342,0.126364,-1.90024,0.169681,0.233797,0.0607806,0.0409867,0.00644458,0.0396771,-0.0488724,-0.0399248,0.0417044,0.00323897,-1.01601,0.279719,-1.0477,2.36229,5.92458,-6.14238,0.010787,3.95482,0.69236,3.83243,-4.71313,-0.474638,0.225006,0.0351498,0.0566249,0.0111285,0.125645,-1.89761,0.172142,0.231151,0.0605869,-0.000439917,0.0004667,0.0590473,-0.00306263,-0.00450393,0.00390331,-0.00148842,-0.57961,-2.37469,0.254362,-0.276799,-0.234661,-0.781153,-0.116964,1.57856,-32.5227,1.53627,23.8882,1.06353,1.87951,0.0376436,
0.0581428,0.0111514,0.127101,-1.89883,0.172709,0.231426,0.0607129,0.0387961,0.00617712,0.0374363,-0.0435129,-0.0237235,0.0284927,0.00304006,-1.36913,-0.167161,-1.40053,3.34969,10.1258,-8.25734,-0.124321,3.76297,0.70297,3.63466,-3.96208,-0.422303,0.238265,0.0278103,0.0566249,0.0111285,0.125645,-1.89761,0.172142,0.231151,0.0605869,-0.000439917,0.0004667,0.0590473,-0.00306263,-0.00450393,0.00390331,-0.00148842,0,0,0,0,0,0,0,1.57856,-32.5227,1.53627,23.8882,1.06353,1.87951,0.0376436,
0.0583658,0.0112022,0.127309,-1.89899,0.173281,0.231085,0.0607267,0.0366129,0.00621277,0.0351596,-0.0387562,-0.00468987,0.0142806,0.00277863,-1.36445,0.0222825,-1.42297,2.97294,11.896,-8.88258,-0.163395,3.70043,0.711913,3.57001,-3.65905,-0.0882037,0.0336442,0.0371034,0.0566249,0.0111285,0.125645,-1.89761,0.172142,0.231151,0.0605869,-0.000439917,0.0004667,0.0590473,-0.00306263,-0.00450393,0.00390331,-0.00148842,0,0,0,0,0,0,0,1.57856,-32.5227,1.53627,23.8882,1.06353,1.87951,0.0376436,
0.0585743,0.0112596,0.127502,-1.89913,0.174064,0.230619,0.0607356,0.0345029,0.00640511,0.0329594,-0.0345474,0.015817,-0.000233693,0.00244539,-1.31881,0.120209,-1.3751,2.6305,12.8168,-9.07141,-0.208273,3.48548,0.739205,3.34661,-3.35046,0.367191,-0.195169,0.0371776,0.0566249,0.0111285,0.125645,-1.89761,0.172142,0.231151,0.0605869,-0.000439917,0.0004667,0.0590473,-0.00306263,-0.00450393,0.00390331,-0.00148842,0,0,0,0,0,0,0,1.57856,-32.5227,1.53627,23.8882,1.06353,1.87951,0.0376436,
0.0587767,0.0113216,0.127692,-1.89926,0.174904,0.230095,0.0607435,0.0326608,0.00667333,0.0311179,-0.0308413,0.0336519,-0.01328,0.00215342,-1.1513,0.167637,-1.15096,2.31628,11.1468,-8.15393,-0.182482,3.25575,0.694387,3.09794,-3.05549,0.630735,-0.341356,0.0208698,0.0566487,0.0111283,0.126962,-1.89764,0.172345,0.231119,0.0605886,-0.0026795,0.00136318,0.047709,-0.00447297,0.00999609,0.00385612,0.000322222,-0.279948,0.11206,-1.41728,-0.176293,1.8125,-0.00589962,0.226331,1.88404,-32.1736,1.88936,24.0628,1.37573,1.86577,0.00376909,
0.0576612,0.011212,0.127916,-1.89828,0.174038,0.23032,0.0606557,0.0310884,0.00635051,0.029555,-0.0275438,0.0419703,-0.0199851,0.00193578,-0.982715,-0.201758,-0.976793,2.06094,5.19902,-4.19069,-0.136024,3.31297,0.707639,3.16591,-2.75829,-0.0100922,-0.157742,0.0177517,0.0566487,0.0111283,0.126962,-1.89764,0.172345,0.231119,0.0605886,-0.0026795,0.00136318,0.047709,-0.00447297,0.00999609,0.00385612,0.000322222,0,0,0,0,0,0,0,1.88404,-32.1736,1.88936,24.0628,1.37573,1.86577,0.00376909,
0.0578502,0.011261,0.128093,-1.89839,0.174849,0.229837,0.0606649,0.0295951,0.00630497,0.0280633,-0.0246364,0.0538734,-0.0280497,0.00177712,-0.933348,-0.028466,-0.932295,1.81715,7.43946,-5.04037,-0.0991643,3.23438,0.732512,3.08515,-2.4864,0.400692,-0.393402,0.0252103,0.0566487,0.0111283,0.126962,-1.89764,0.172345,0.231119,0.0605886,-0.0026795,0.00136318,0.047709,-0.00447297,0.00999609,0.00385612,0.000322222,0,0,0,0,0,0,0,1.88404,-32.1736,1.88936,24.0628,1.37573,1.86577,0.00376909,
0.058023,0.011318,0.128252,-1.89848,0.175988,0.229223,0.0606717,0.0279971,0.00646994,0.0264328,-0.0220172,0.0715649,-0.0378057,0.00159376,-0.998734,0.103109,-1.0191,1.63697,11.0571,-6.09752,-0.114601,3.0259,0.776887,2.85656,-2.20693,0.930378,-0.646278,0.0220604,0.0566487,0.0111283,0.126962,-1.89764,0.172345,0.231119,0.0605886,-0.0026795,0.00136318,0.047709,-0.00447297,0.00999609,0.00385612,0.000322222,0,0,0,0,0,0,0,1.88404,-32.1736,1.88936,24.0628,1.37573,1.86577,0.00376909,
0.0577708,0.0112448,0.128035,-1.89817,0.177937,0.229388,0.060625,0.0283703,0.00620489,0.0268501,-0.0201422,0.100943,-0.0454045,0.0013639,0.233247,-0.165659,0.260823,1.17187,18.3614,-4.74922,-0.143664,4.64637,0.665217,4.51007,-2.23696,1.37171,-0.567394,0.0133713,0.0566487,0.0111283,0.126962,-1.89764,0.172345,0.231119,0.0605886,-0.0026795,0.00136318,0.047709,-0.00447297,0.00999609,0.00385612,0.000322222,0,0,0,0,0,0,0,1.88404,-32.1736,1.88936,24.0628,1.37573,1.86577,0.00376909,
0.0580089,0.0112928,0.128262,-1.89826,0.179994,0.228656,0.0606275,0.0286495,0.00616582,0.0271547,-0.0183866,0.132195,-0.0546337,0.00115178,0.174481,-0.0244175,0.190364,1.09724,19.5325,-5.76826,-0.13257,4.56374,0.645004,4.43415,-2.0342,1.85657,-0.775422,0.01709,0.0567103,0.0109508,0.128185,-1.89756,0.174124,0.230319,0.0605883,-0.000901187,-0.00803114,0.0452687,-0.00179365,0.0976353,-0.0419238,0.000763151,0.222289,-1.17429,-0.305033,0.334916,10.9549,-5.72249,0.0551161,1.57856,-32.1736,1.56404,23.6661,1.52771,1.70006,0.00376909,
0.0582412,0.0113476,0.128481,-1.89834,0.182395,0.227777,0.0606236,0.0287266,0.00630033,0.0272084,-0.0166245,0.165772,-0.0656901,0.000825695,0.0482383,0.0840722,0.0335738,1.10135,20.9855,-6.91024,-0.203805,4.40685,0.659127,4.27164,-1.82678,2.40232,-0.980644,0.0162,0.0567103,0.0109508,0.128185,-1.89756,0.174124,0.230319,0.0605883,-0.000901187,-0.00803114,0.0452687,-0.00179365,0.0976353,-0.0419238,0.000763151,0,0,0,0,0,0,0,1.57856,-32.1736,1.56404,23.6661,1.52771,1.70006,0.00376909,
0.0584702,0.0114016,0.1287,-1.89841,0.18503,0.226786,0.0606176,0.0287059,0.00639098,0.0272367,-0.0150072,0.19848,-0.077319,0.000509693,-0.0129772,0.0566551,0.0177079,1.01082,20.4428,-7.26806,-0.197501,4.25551,0.605883,4.10851,-1.64981,2.78342,-1.0876,0.00883932,0.0567103,0.0109508,0.128185,-1.89756,0.174124,0.230319,0.0605883,-0.000901187,-0.00803114,0.0452687,-0.00179365,0.0976353,-0.0419238,0.000763151,0,0,0,0,0,0,0,1.57856,-32.1736,1.56404,23.6661,1.52771,1.70006,0.00376909,
0.0589171,0.0102137,0.130536,-1.89975,0.188571,0.228918,0.0608667,0.0374998,0.00206954,0.0368193,-0.02344,0.244495,-0.0739496,0.00159111,5.4962,-2.7009,5.98911,-5.27052,28.7588,2.10583,0.675884,11.86,-1.35191,12.141,-6.66028,5.37089,-0.7097,0.084608,0.0567103,0.0109508,0.128185,-1.89756,0.174124,0.230319,0.0605883,-0.000901187,-0.00803114,0.0452687,-0.00179365,0.0976353,-0.0419238,0.000763151,0,0,0,0,0,0,0,1.57856,-32.1736,1.56404,23.6661,1.52771,1.70006,0.00376909,
0.0595345,0.0101067,0.131172,-1.9002,0.192046,0.228371,0.0609144,0.0454334,-0.0010203,0.0453469,-0.0299897,0.28247,-0.0728457,0.00246438,4.95849,-1.93115,5.32977,-4.09355,23.735,0.689924,0.545797,11.3076,-1.48389,11.6262,-6.57813,5.48178,-0.92637,0.0798655,0.0567571,0.0108779,0.129545,-1.89753,0.178259,0.229841,0.0605878,-0.000289031,-0.00814697,0.0745874,0.000293152,0.200172,-0.0129594,-0.000527136,0.0765195,-0.0144782,3.66484,0.26085,12.8171,3.62056,-0.161286,4.97455,-32.4989,4.86085,24.5349,2.16949,1.83922,0.0376436,
0.0601698,0.0100161,0.131825,-1.90064,0.195593,0.227773,0.0609585,0.0522292,-0.00307995,0.0526138,-0.0350402,0.31464,-0.0732144,0.00307425,4.24735,-1.28728,4.54177,-3.15657,20.1058,-0.230426,0.381168,10.6806,-1.47949,11.1007,-6.47166,5.59192,-1.08497,0.0697565,0.0567571,0.0108779,0.129545,-1.89753,0.178259,0.229841,0.0605878,-0.000289031,-0.00814697,0.0745874,0.000293152,0.200172,-0.0129594,-0.000527136,0,0,0,0,0,0,0,4.97455,-32.4989,4.86085,24.5349,2.16949,1.83922,0.0376436,
0.0608185,0.00994177,0.13249,-1.90108,0.199126,0.227181,0.0609972,0.0580017,-0.00432248,0.0587035,-0.0389616,0.340051,-0.073383,0.00342866,3.60786,-0.776581,3.8061,-2.4509,15.882,-0.105388,0.221508,10.221,-1.43359,10.5389,-6.3463,5.38562,-1.07017,0.0580439,0.0567571,0.0108779,0.129545,-1.89753,0.178259,0.229841,0.0605878,-0.000289031,-0.00814697,0.0745874,0.000293152,0.200172,-0.0129594,-0.000527136,0,0,0,0,0,0,0,4.97455,-32.4989,4.86085,24.5349,2.16949,1.83922,0.0376436,
0.0597988,0.0103696,0.132512,-1.90112,0.196753,0.231291,0.0609757,0.0652531,-0.0043755,0.0655104,-0.0509354,0.372403,-0.0536266,0.00444303,4.53212,-0.0331384,4.25432,-7.4836,20.2201,12.3478,0.633979,14.4949,1.19383,14.1842,-11.5204,6.70524,-0.398727,0.112841,0.0567571,0.0108779,0.129545,-1.89753,0.178259,0.229841,0.0605878,-0.000289031,-0.00814697,0.0745874,0.000293152,0.200172,-0.0129594,-0.000527136,0,0,0,0,0,0,0,4.97455,-32.4989,4.86085,24.5349,2.16949,1.83922,0.0376436,
0.0605919,0.0103462,0.133294,-1.90192,0.200631,0.231495,0.0610414,0.072032,-0.00408577,0.0719626,-0.0607039,0.394871,-0.0378072,0.00519855,4.23678,0.181084,4.03262,-6.10529,14.0428,9.88709,0.472199,13.6688,0.979457,13.3999,-11.3527,6.52761,-0.431153,0.107676,0.0570227,0.010716,0.132082,-1.89767,0.189831,0.228557,0.0605909,0.0174957,-0.0262927,0.126473,-0.0244021,0.542855,-0.0798245,0.00156108,2.22309,-2.26822,6.48575,-3.08691,42.8354,-8.35814,0.261027,10.1757,-32.4513,10.1135,23.2416,2.81677,0.951163,-0.0163725,
0.0614073,0.0103297,0.134101,-1.90272,0.204367,0.231713,0.0611002,0.0780109,-0.00368126,0.0777418,-0.0686562,0.409285,-0.0247848,0.00562755,3.73681,0.252817,3.612,-4.97022,9.0087,8.13903,0.26813,12.8719,0.804081,12.6163,-11.142,6.3964,-0.431385,0.0989933,0.0570227,0.010716,0.132082,-1.89767,0.189831,0.228557,0.0605909,0.0174957,-0.0262927,0.126473,-0.0244021,0.542855,-0.0798245,0.00156108,0,0,0,0,0,0,0,10.1757,-32.4513,10.1135,23.2416,2.81677,0.951163,-0.0163725,
0.0612678,0.00985813,0.136331,-1.90259,0.21165,0.230152,0.0609934,0.0865024,-0.00462564,0.0861456,-0.0820445,0.42236,-0.00762607,0.00604647,5.30722,-0.590238,5.25232,-8.36771,8.17159,10.7242,0.26182,14.8428,1.72136,14.8213,-15.488,6.51157,-0.236201,0.119999,0.0570227,0.010716,0.132082,-1.89767,0.189831,0.228557,0.0605909,0.0174957,-0.0262927,0.126473,-0.0244021,0.542855,-0.0798245,0.00156108,0,0,0,0,0,0,0,10.1757,-32.4513,10.1135,23.2416,2.81677,0.951163,-0.0163725,
0.0622593,0.00982172,0.137317,-1.90369,0.21499,0.23072,0.0610506,0.0939887,-0.0046109,0.093578,-0.0929754,0.421393,0.00810152,0.00626665,4.67892,0.00921519,4.64527,-6.83177,-0.604245,9.82975,0.137618,14.0406,1.42265,14.0072,-15.3695,6.09989,-0.173792,0.111705,0.0570227,0.010716,0.132082,-1.89767,0.189831,0.228557,0.0605909,0.0174957,-0.0262927,0.126473,-0.0244021,0.542855,-0.0798245,0.00156108,0,0,0,0,0,0,0,10.1757,-32.4513,10.1135,23.2416,2.81677,0.951163,-0.0163725,
0.0632669,0.00980861,0.13832,-1.90478,0.217906,0.231354,0.0611049,0.100381,-0.00401627,0.0999339,-0.101796,0.410031,0.0223457,0.00637058,3.9954,0.371639,3.97246,-5.51297,-7.10107,8.90259,0.0649544,13.3282,1.25284,13.2687,-15.2101,5.63607,0.007288,0.0981261,0.0592938,0.0109206,0.138175,-1.89904,0.2127,0.227053,0.0605841,0.0593319,0.0249908,0.185816,-0.0503296,0.665918,0.00661601,-5.80337e-05,5.22953,6.41043,7.41782,-3.24093,15.3828,10.8051,-0.202389,10.5288,-27.8572,10.3873,18.4848,2.12646,0.752493,0.0303194,
0.064283,0.00981379,0.139331,-1.90588,0.220424,0.232047,0.061158,0.105706,-0.00308367,0.105231,-0.108811,0.390963,0.0351957,0.00642447,3.32811,0.582876,3.31061,-4.38421,-11.9178,8.03128,0.0336819,12.7449,1.0952,12.6416,-15.0432,5.01186,0.238055,0.0737356,0.0592938,0.0109206,0.138175,-1.89904,0.2127,0.227053,0.0605841,0.0593319,0.0249908,0.185816,-0.0503296,0.665918,0.00661601,-5.80337e-05,0,0,0,0,0,0,0,10.5288,-27.8572,10.3873,18.4848,2.12646,0.752493,0.0303194,
0.0646961,0.0104904,0.143589,-1.90582,0.232486,0.232079,0.0609093,0.112351,-0.00426901,0.111941,-0.123215,0.387501,0.0547626,0.00658817,4.15291,-0.740837,4.19386,-9.00239,-2.16387,12.2293,0.102309,14.0391,1.44635,14.0082,-19.8013,4.96246,0.759296,0.091852,0.0592938,0.0109206,0.138175,-1.89904,0.2127,0.227053,0.0605841,0.0593319,0.0249908,0.185816,-0.0503296,0.665918,0.00661601,-5.80337e-05,0,0,0,0,0,0,0,10.5288,-27.8572,10.3873,18.4848,2.12646,0.752493,0.0303194,
0.0658068,0.0104269,0.144698,-1.90727,0.235045,0.233176,0.0609657,0.117649,-0.00500449,0.117289,-0.13484,0.373975,0.0712146,0.00668047,3.31119,-0.459676,3.34238,-7.26575,-8.45319,10.2825,0.0576912,13.555,0.973355,13.5249,-19.6633,4.35503,0.863385,0.0809529,0.0592938,0.0109206,0.138175,-1.89904,0.2127,0.227053,0.0605841,0.0593319,0.0249908,0.185816,-0.0503296,0.665918,0.00661601,-5.80337e-05,0,0,0,0,0,0,0,10.5288,-27.8572,10.3873,18.4848,2.12646,0.752493,0.0303194,
0.0669127,0.0103694,0.145803,-1.90872,0.237208,0.234315,0.0610207,0.121767,-0.00543926,0.121445,-0.144114,0.353256,0.0854588,0.00671978,2.57376,-0.271727,2.59783,-5.79615,-12.9496,8.90261,0.0245666,13.1899,0.570987,13.1559,-19.4243,3.70887,1.04618,0.0736795,0.0626272,0.0113302,0.145498,-1.90242,0.232287,0.227319,0.06059,0.099935,0.0359735,0.205663,-0.121179,0.430283,0.0177714,0.000410385,5.07539,1.37284,2.48084,-8.8562,-29.4543,1.39442,0.0585524,-0.627255,-28.3055,-0.736986,20.3018,1.20453,1.49499,-0.0227812,
0.068011,0.0103164,0.1469,-1.91016,0.239008,0.235504,0.0610751,0.124871,-0.00567669,0.12458,-0.151401,0.327593,0.0980968,0.00673591,1.94034,-0.148398,1.95925,-4.55438,-16.0396,7.89878,0.01008,12.9207,0.322055,12.8889,-19.2214,3.13575,1.18112,0.0698425,0.0626272,0.0113302,0.145498,-1.90242,0.232287,0.227319,0.06059,0.099935,0.0359735,0.205663,-0.121179,0.430283,0.0177714,0.000410385,0,0,0,0,0,0,0,-0.627255,-28.3055,-0.736986,20.3018,1.20453,1.49499,-0.0227812,
0.0686402,0.0114189,0.151475,-1.91093,0.242722,0.232613,0.0608847,0.129487,-0.00397882,0.129018,-0.164802,0.292229,0.108734,0.00682621,2.88475,1.06117,2.77379,-8.37601,-22.1021,6.64836,0.0564407,13.7527,1.64514,13.6245,-23.3161,2.30042,1.09922,0.0767624,0.0626272,0.0113302,0.145498,-1.90242,0.232287,0.227319,0.06059,0.099935,0.0359735,0.205663,-0.121179,0.430283,0.0177714,0.000410385,0,0,0,0,0,0,0,-0.627255,-28.3055,-0.736986,20.3018,1.20453,1.49499,-0.0227812,
0.0698092,0.0114483,0.152634,-1.91266,0.243579,0.23389,0.0609417,0.132815,-0.00244788,0.132205,-0.175329,0.255219,0.118906,0.00688629,2.08021,0.956833,1.99195,-6.57901,-23.1312,6.35769,0.0375461,13.495,1.38967,13.3711,-23.0559,1.76587,1.26232,0.0732793,0.0626272,0.0113302,0.145498,-1.90242,0.232287,0.227319,0.06059,0.099935,0.0359735,0.205663,-0.121179,0.430283,0.0177714,0.000410385,0,0,0,0,0,0,0,-0.627255,-28.3055,-0.736986,20.3018,1.20453,1.49499,-0.0227812,
0.0709627,0.0114833,0.153778,-1.91439,0.244132,0.235235,0.060998,0.13509,-0.00108376,0.134368,-0.183467,0.218004,0.128743,0.00691684,1.42153,0.852575,1.3517,-5.08626,-23.2597,6.14762,0.019094,13.2911,1.12969,13.1622,-22.7517,1.27331,1.43948,0.0707111,0.0669068,0.0122171,0.153321,-1.90735,0.240783,0.228033,0.0606033,0.117051,0.0246529,0.187278,-0.163922,0.106679,0.0363643,0.0159392,2.13951,-1.41507,-2.29807,-5.34291,-40.4506,2.32411,1.94111,-10.1884,-31.277,-9.86174,25.5823,0.685421,2.68792,-0.143631,
0.0721003,0.0115228,0.154907,-1.91611,0.24442,0.236645,0.0610541,0.136512,0.000120676,0.135702,-0.189619,0.181585,0.138262,0.00693591,0.88886,0.752774,0.833987,-3.84537,-22.7619,5.94947,0.0119223,13.1309,0.979268,13.005,-22.4707,0.845866,1.58675,0.0696507,0.0669068,0.0122171,0.153321,-1.90735,0.240783,0.228033,0.0606033,0.117051,0.0246529,0.187278,-0.163922,0.106679,0.0363643,0.0159392,0,0,0,0,0,0,0,-10.1884,-31.277,-9.86174,25.5823,0.685421,2.68792,-0.143631,
0.0726978,0.0118519,0.159115,-1.91767,0.242917,0.237097,0.0608749,0.137549,-0.00144144,0.136881,-0.203591,0.144701,0.164119,0.00693762,0.648315,-0.976324,0.736884,-8.73254,-23.0526,16.161,0.00106657,13.2114,-0.183957,13.1978,-26.9383,0.418391,2.56071,0.0682753,0.0669068,0.0122171,0.153321,-1.90735,0.240783,0.228033,0.0606033,0.117051,0.0246529,0.187278,-0.163922,0.106679,0.0363643,0.0159392,0,0,0,0,0,0,0,-10.1884,-31.277,-9.86174,25.5823,0.685421,2.68792,-0.143631,
0.0738177,0.0117963,0.160234,-1.91973,0.242718,0.239333,0.0609304,0.138037,-0.00254431,0.137484,-0.214226,0.110797,0.187181,0.00693708,0.304707,-0.689294,0.376401,-6.64641,-21.1897,14.4134,-0.000333702,13.1053,-0.359683,13.0941,-26.6025,0.0912798,2.72093,0.0680451,0.0669068,0.0122171,0.153321,-1.90735,0.240783,0.228033,0.0606033,0.117051,0.0246529,0.187278,-0.163922,0.106679,0.0363643,0.0159392,0,0,0,0,0,0,0,-10.1884,-31.277,-9.86174,25.5823,0.685421,2.68792,-0.143631,
0.0749234,0.0117443,0.161339,-1.92176,0.242375,0.241648,0.0609854,0.138073,-0.00333513,0.137613,-0.222144,0.0800527,0.207628,0.00692469,0.0223987,-0.494259,0.0806298,-4.94902,-19.2153,12.7798,-0.00774589,13.0274,-0.511959,13.0072,-26.2512,-0.158169,2.87431,0.0676054,0.0707705,0.0135097,0.160623,-1.91321,0.238531,0.228815,0.0605863,0.101415,0.034428,0.205186,-0.19295,-0.160556,0.0196158,-0.000101377,-1.95454,1.22188,2.23846,-3.62838,-33.4043,-2.09355,-2.00508,-7.16931,-33.0742,-6.8347,30.6406,0.905148,3.45055,0.0101778,
0.0760148,0.0116945,0.16243,-1.92376,0.241913,0.24403,0.0610401,0.137743,-0.00391314,0.137359,-0.227852,0.0525012,0.225643,0.00690731,-0.20599,-0.36126,-0.158428,-3.56768,-17.2197,11.2589,-0.0108644,12.9457,-0.620728,12.9273,-25.9082,-0.384329,2.9979,0.0679035,0.0707705,0.0135097,0.160623,-1.91321,0.238531,0.228815,0.0605863,0.101415,0.034428,0.205186,-0.19295,-0.160556,0.0196158,-0.000101377,0,0,0,0,0,0,0,-7.16931,-33.0742,-6.8347,30.6406,0.905148,3.45055,0.0101778,
0.0765325,0.0135461,0.166344,-1.92485,0.23446,0.240144,0.0608528,0.138316,-0.00246482,0.13776,-0.239892,0.020334,0.247715,0.00693129,0.357945,0.905203,0.250223,-7.52486,-20.1045,13.7952,0.014991,13.5364,0.236925,13.4153,-29.4621,-0.88567,3.74357,0.0709856,0.0707705,0.0135097,0.160623,-1.91321,0.238531,0.228815,0.0605863,0.101415,0.034428,0.205186,-0.19295,-0.160556,0.0196158,-0.000101377,0,0,0,0,0,0,0,-7.16931,-33.0742,-6.8347,30.6406,0.905148,3.45055,0.0101778,
0.0776436,0.0135778,0.167445,-1.92712,0.233557,0.242908,0.0609086,0.138431,-0.00117804,0.137739,-0.2486,-0.00630552,0.267278,0.00694003,0.0721899,0.804238,-0.0129394,-5.44247,-16.6497,12.227,0.0054589,13.4582,0.118917,13.3391,-29.085,-1.01868,3.79338,0.0710088,0.0707705,0.0135097,0.160623,-1.91321,0.238531,0.228815,0.0605863,0.101415,0.034428,0.205186,-0.19295,-0.160556,0.0196158,-0.000101377,0,0,0,0,0,0,0,-7.16931,-33.0742,-6.8347,30.6406,0.905148,3.45055,0.0101778,
0.0787409,0.0136118,0.168533,-1.92935,0.232628,0.245719,0.0609636,0.138177,-9.32072e-05,0.137377,-0.254652,-0.0282595,0.284104,0.00692742,-0.158662,0.678019,-0.225935,-3.78254,-13.7212,10.5162,-0.00787711,13.3784,0.04049,13.2612,-28.7012,-1.11222,3.82868,0.0706165,0.0707705,0.0135097,0.160623,-1.91321,0.238531,0.228815,0.0605863,0.101415,0.034428,0.205186,-0.19295,-0.160556,0.0196158,-0.000101377,0,0,0,0,0,0,0,-7.16931,-33.0742,-6.8347,30.6406,0.905148,3.45055,0.0101778,
0.0780631,0.0134399,0.172042,-1.93331,0.226745,0.247042,0.0608588,0.135716,-0.00177605,0.135013,-0.263798,-0.0423599,0.315546,0.00687912,-1.53857,-1.05177,-1.47752,-5.71618,-8.81273,19.6514,-0.0301884,13.3625,-1.10208,13.3244,-30.9263,-0.735099,5.0542,0.0694807,0.0731717,0.0140851,0.16715,-1.92106,0.231666,0.231489,0.060591,0.0603219,-0.00646485,0.167746,-0.230104,-0.22911,0.109228,0.000159077,-5.1366,-5.1116,-4.67997,-4.6443,-8.56928,11.2015,0.0325567,-3.82489,-35.4189,-3.68468,30.9381,0.953671,4.12072,-0.0227812,
0.0790721,0.0133842,0.173048,-1.93568,0.226007,0.250606,0.0609109,0.133796,-0.00281322,0.133169,-0.270068,-0.0523545,0.341544,0.00680791,-1.20009,-0.648236,-1.15253,-3.91863,-6.24666,16.2483,-0.0445109,13.2609,-1.13701,13.2238,-30.5125,-0.767223,4.99755,0.0688777,0.0731717,0.0140851,0.16715,-1.92106,0.231666,0.231489,0.060591,0.0603219,-0.00646485,0.167746,-0.230104,-0.22911,0.109228,0.000159077,0,0,0,0,0,0,0,-3.82489,-35.4189,-3.68468,30.9381,0.953671,4.12072,-0.0227812,
0.0800794,0.0133354,0.174053,-1.938,0.225313,0.254169,0.0609617,0.13222,-0.00346849,0.131654,-0.274067,-0.0592402,0.362305,0.00671546,-0.98474,-0.409543,-0.947372,-2.49924,-4.30357,12.9756,-0.0577775,13.1515,-1.14264,13.1155,-30.0914,-0.780208,4.9338,0.0679349,0.0731717,0.0140851,0.16715,-1.92106,0.231666,0.231489,0.060591,0.0603219,-0.00646485,0.167746,-0.230104,-0.22911,0.109228,0.000159077,0,0,0,0,0,0,0,-3.82489,-35.4189,-3.68468,30.9381,0.953671,4.12072,-0.0227812,
0.0810825,0.0132904,0.175053,-1.94028,0.224657,0.257706,0.0610111,0.130855,-0.00389979,0.130336,-0.276277,-0.0637717,0.378278,0.00660713,-0.853268,-0.269559,-0.823626,-1.38156,-2.83218,9.9831,-0.067707,13.0348,-1.13103,12.9998,-29.6666,-0.785606,4.86272,0.0670974,0.0731717,0.0140851,0.16715,-1.92106,0.231666,0.231489,0.060591,0.0603219,-0.00646485,0.167746,-0.230104,-0.22911,0.109228,0.000159077,0,0,0,0,0,0,0,-3.82489,-35.4189,-3.68468,30.9381,0.953671,4.12072,-0.0227812,
0.0798436,0.0145701,0.177736,-1.94208,0.221041,0.254928,0.0608627,0.129544,-0.00459642,0.128971,-0.284291,-0.0600515,0.408437,0.00659373,-0.818994,-0.435395,-0.852755,-5.00849,2.32515,18.8499,-0.00837584,13.8825,-0.715232,13.7905,-32.8546,-0.142399,6.3578,0.0767007,0.0751018,0.0152908,0.173012,-1.92918,0.22423,0.235681,0.0605848,0.0548361,-0.0114122,0.15215,-0.227339,-0.217344,0.145422,-0.000692708,-0.685731,-0.618421,-1.94946,0.345624,1.47075,4.52425,-0.106473,-4.17798,-36.2917,-3.96239,32.533,1.27777,4.19304,0.0239107,
0.0808433,0.0145275,0.178729,-1.94457,0.220741,0.259128,0.0609127,0.12863,-0.00474261,0.128011,-0.289542,-0.0555292,0.431752,0.00652551,-0.571443,-0.0913696,-0.60045,-3.28185,2.82642,14.5716,-0.0426351,13.6662,-0.803655,13.5765,-32.4306,-0.13611,6.12147,0.0728815,0.0751018,0.0152908,0.173012,-1.92918,0.22423,0.235681,0.0605848,0.0548361,-0.0114122,0.15215,-0.227339,-0.217344,0.145422,-0.000692708,0,0,0,0,0,0,0,-4.17798,-36.2917,-3.96239,32.533,1.27777,4.19304,0.0239107,
0.0818438,0.0144942,0.179723,-1.94701,0.220484,0.263258,0.0609607,0.127917,-0.0046272,0.127258,-0.292628,-0.050842,0.448637,0.00641858,-0.445922,0.0721288,-0.470281,-1.92914,2.92951,10.5533,-0.0668315,13.4633,-0.83272,13.3756,-31.9863,-0.138211,5.90264,0.0696783,0.0751018,0.0152908,0.173012,-1.92918,0.22423,0.235681,0.0605848,0.0548361,-0.0114122,0.15215,-0.227339,-0.217344,0.145422,-0.000692708,0,0,0,0,0,0,0,-4.17798,-36.2917,-3.96239,32.533,1.27777,4.19304,0.0239107,
0.0828417,0.0144659,0.180715,-1.9494,0.220256,0.267294,0.0610067,0.12728,-0.00440903,0.126589,-0.294027,-0.0463888,0.45981,0.00628501,-0.397955,0.136355,-0.418041,-0.874271,2.78323,6.98323,-0.0834804,13.2685,-0.828281,13.1825,-31.5306,-0.147936,5.69696,0.0669419,0.0751018,0.0152908,0.173012,-1.92918,0.22423,0.235681,0.0605848,0.0548361,-0.0114122,0.15215,-0.227339,-0.217344,0.145422,-0.000692708,0,0,0,0,0,0,0,-4.17798,-36.2917,-3.96239,32.533,1.27777,4.19304,0.0239107,
0.0797672,0.014425,0.177682,-1.94283,0.222994,0.257135,0.0608409,0.126265,-0.00553866,0.125671,-0.301971,-0.0352005,0.484905,0.00622028,-0.634557,-0.706013,-0.573811,-4.96474,6.99271,15.6844,-0.0404606,13.829,-1.01246,13.7888,-34.6712,0.63428,7.30436,0.0748952,0.07712,0.0160378,0.178098,-1.93704,0.219938,0.24372,0.0605748,0.0697004,-0.0110384,0.131615,-0.214146,-0.0532872,0.250495,-0.00339405,1.85804,0.0467305,-2.56686,1.6491,20.5071,13.1341,-0.337668,-2.35302,-32.5981,-2.18505,20.4526,1.27136,1.95275,0.11821,
0.0807499,0.0143607,0.178663,-1.94545,0.223112,0.261752,0.060886,0.125581,-0.00603805,0.125062,-0.306992,-0.0251988,0.503348,0.00610469,-0.427476,-0.312121,-0.380457,-3.13805,6.25107,11.5265,-0.07224,13.5495,-1.1357,13.5114,-34.224,0.591282,6.93632,0.0694574,0.07712,0.0160378,0.178098,-1.93704,0.219938,0.24372,0.0605748,0.0697004,-0.0110384,0.131615,-0.214146,-0.0532872,0.250495,-0.00339405,0,0,0,0,0,0,0,-2.35302,-32.5981,-2.18505,20.4526,1.27136,1.95275,0.11821,
0.0817332,0.0143046,0.179645,-1.94802,0.223246,0.266263,0.0609289,0.125046,-0.00623295,0.124587,-0.309753,-0.0168217,0.51545,0.00595632,-0.334229,-0.121813,-0.297469,-1.72604,5.23567,7.56409,-0.0927345,13.2963,-1.18186,13.2599,-33.7479,0.533889,6.60707,0.0651574,0.07712,0.0160378,0.178098,-1.93704,0.219938,0.24372,0.0605748,0.0697004,-0.0110384,0.131615,-0.214146,-0.0532872,0.250495,-0.00339405,0,0,0,0,0,0,0,-2.35302,-32.5981,-2.18505,20.4526,1.27136,1.95275,0.11821,
0.0818546,0.0150159,0.182813,-1.95071,0.220831,0.267085,0.0608251,0.124902,-0.00760381,0.124378,-0.315417,-0.00847444,0.533112,0.00589126,-0.0896278,-0.856786,-0.130579,-3.54001,5.21703,11.0385,-0.0406637,13.8559,-0.642239,13.7593,-36.0994,0.681183,7.3503,0.0717513,0.07712,0.0160378,0.178098,-1.93704,0.219938,0.24372,0.0605748,0.0697004,-0.0110384,0.131615,-0.214146,-0.0532872,0.250495,-0.00339405,0,0,0,0,0,0,0,-2.35302,-32.5981,-2.18505,20.4526,1.27136,1.95275,0.11821,
0.0828525,0.0149345,0.183805,-1.95337,0.220998,0.271777,0.0608675,0.124871,-0.00811781,0.12429,-0.318825,-0.00261185,0.543783,0.00577245,-0.0197072,-0.321253,-0.0549196,-2.12979,3.66412,6.66969,-0.0742512,13.5526,-0.773196,13.449,-35.602,0.598306,6.91498,0.0657967,0.0797595,0.01706,0.183081,-1.94479,0.22016,0.254036,0.0605833,0.0685001,-0.00641842,0.130271,-0.225042,0.00311027,0.333827,-0.00303415,-0.150039,0.577493,-0.168005,-1.36202,7.04968,10.4165,0.0449874,-4.30493,-29.579,-4.06157,17.7628,0.984799,1.29632,0.0779268,
0.083849,0.0148682,0.184795,-1.95598,0.221122,0.276305,0.0609077,0.124809,-0.00815109,0.12418,-0.320459,0.00102269,0.548241,0.00562166,-0.0389871,-0.0207996,-0.0683323,-1.0212,2.27159,2.78621,-0.0942467,13.2846,-0.808793,13.183,-35.0854,0.494037,6.53581,0.0612658,0.0797595,0.01706,0.183081,-1.94479,0.22016,0.254036,0.0605833,0.0685001,-0.00641842,0.130271,-0.225042,0.00311027,0.333827,-0.00303415,0,0,0,0,0,0,0,-4.30493,-29.579,-4.06157,17.7628,0.984799,1.29632,0.0779268,
0.0848407,0.014812,0.18578,-1.95856,0.221198,0.280661,0.0609459,0.124639,-0.00792773,0.123973,-0.320705,0.00271357,0.547486,0.00545363,-0.10581,0.1396,-0.129704,-0.153754,1.0568,-0.471871,-0.105019,13.0401,-0.801274,12.9403,-34.5504,0.386639,6.19807,0.0575899,0.0797595,0.01706,0.183081,-1.94479,0.22016,0.254036,0.0605833,0.0685001,-0.00641842,0.130271,-0.225042,0.00311027,0.333827,-0.00303415,0,0,0,0,0,0,0,-4.30493,-29.579,-4.06157,17.7628,0.984799,1.29632,0.0779268,
0.0844127,0.0160856,0.187736,-1.95881,0.222098,0.279035,0.0608094,0.124118,-0.00914005,0.123525,-0.326108,0.00994685,0.563996,0.00537879,-0.326036,-0.757696,-0.279719,-3.37722,4.5208,10.3183,-0.0467748,13.4913,-0.4357,13.4431,-37.3318,0.837202,7.54024,0.0645774,0.0797595,0.01706,0.183081,-1.94479,0.22016,0.254036,0.0605833,0.0685001,-0.00641842,0.130271,-0.225042,0.00311027,0.333827,-0.00303415,0,0,0,0,0,0,0,-4.30493,-29.579,-4.06157,17.7628,0.984799,1.29632,0.0779268,
0.0853918,0.0159919,0.188712,-1.96155,0.222349,0.283911,0.0608477,0.12377,-0.00965513,0.123233,-0.329356,0.0142451,0.573091,0.00525888,-0.216981,-0.321927,-0.182973,-2.02969,2.6864,5.68469,-0.0749455,13.1978,-0.642943,13.1439,-36.796,0.721735,7.09033,0.0589776,0.0821401,0.0179348,0.18808,-1.95218,0.221289,0.264519,0.0605876,0.0839931,0.0511927,0.159497,-0.22161,0.0113321,0.267548,-0.000206254,1.93662,7.20138,3.65315,0.429001,1.02772,-8.28487,0.353487,-1.3136,-29.1307,-1.18529,17.6874,1.3446,1.05736,0.0376436,
0.086369,0.0159091,0.189687,-1.96425,0.222539,0.288606,0.0608839,0.123447,-0.00979251,0.12295,-0.33089,0.016136,0.575864,0.00511282,-0.202161,-0.0858618,-0.176601,-0.958475,1.18184,1.73329,-0.0912822,12.9442,-0.770593,12.8925,-36.2488,0.589188,6.70181,0.0547684,0.0821401,0.0179348,0.18808,-1.95218,0.221289,0.264519,0.0605876,0.0839931,0.0511927,0.159497,-0.22161,0.0113321,0.267548,-0.000206254,0,0,0,0,0,0,0,-1.3136,-29.1307,-1.18529,17.6874,1.3446,1.05736,0.0376436,
0.0873412,0.015833,0.190657,-1.9669,0.222666,0.293119,0.0609185,0.123064,-0.00973673,0.122598,-0.331064,0.0160867,0.573509,0.00495423,-0.23951,0.0348587,-0.219804,-0.109321,-0.0308136,-1.47201,-0.0991183,12.7139,-0.847392,12.6639,-35.6836,0.459344,6.3604,0.0514753,0.0821401,0.0179348,0.18808,-1.95218,0.221289,0.264519,0.0605876,0.0839931,0.0511927,0.159497,-0.22161,0.0113321,0.267548,-0.000206254,0,0,0,0,0,0,0,-1.3136,-29.1307,-1.18529,17.6874,1.3446,1.05736,0.0376436,
0.0872204,0.0178286,0.193136,-1.96682,0.222642,0.287905,0.0607926,0.124039,-0.00808869,0.123481,-0.336911,0.0152667,0.577711,0.004916,0.609388,1.03003,0.551394,-3.65381,-0.512538,2.62637,-0.023897,13.3262,-0.106343,13.226,-38.0305,0.432401,7.35617,0.0599608,0.0821401,0.0179348,0.18808,-1.95218,0.221289,0.264519,0.0605876,0.0839931,0.0511927,0.159497,-0.22161,0.0113321,0.267548,-0.000206254,0,0,0,0,0,0,0,-1.3136,-29.1307,-1.18529,17.6874,1.3446,1.05736,0.0376436,
0.0882355,0.0178177,0.194144,-1.96964,0.222659,0.292521,0.0608286,0.124607,-0.00674362,0.123973,-0.340203,0.0126443,0.577571,0.00483474,0.355,0.840671,0.307523,-2.05757,-1.639,-0.0877554,-0.0507882,13.0652,-0.370304,12.9612,-37.4576,0.316414,6.9122,0.0550742,0.0841599,0.0186817,0.193733,-1.96004,0.22143,0.272512,0.0605874,0.0456782,0.0458401,0.172768,-0.229942,-0.00426589,0.23127,-0.00181113,-4.78936,-0.669073,1.65889,-1.04151,-1.94974,-4.53483,-0.20061,-0.198788,-31.7491,-0.110155,23.7891,1.19812,2.5158,0.0440523,
0.0892398,0.017805,0.19514,-1.97242,0.222604,0.296981,0.060863,0.124794,-0.00571078,0.124099,-0.341507,0.00874546,0.573564,0.00472702,0.117048,0.645522,0.0789872,-0.815243,-2.43676,-2.50458,-0.0673267,12.83,-0.503101,12.7293,-36.8733,0.189771,6.53182,0.0513859,0.0841599,0.0186817,0.193733,-1.96004,0.22143,0.272512,0.0605874,0.0456782,0.0458401,0.172768,-0.229942,-0.00426589,0.23127,-0.00181113,0,0,0,0,0,0,0,-0.198788,-31.7491,-0.110155,23.7891,1.19812,2.5158,0.0440523,
0.0889121,0.0182349,0.198492,-1.97516,0.221942,0.296506,0.0607676,0.124211,-0.00641436,0.12359,-0.347163,0.00534463,0.584229,0.00465065,-0.36458,-0.439739,-0.318072,-3.53506,-2.12552,6.66568,-0.0477308,12.7354,-1.65591,12.6957,-38.9112,0.231301,7.7324,0.0488153,0.0841599,0.0186817,0.193733,-1.96004,0.22143,0.272512,0.0605874,0.0456782,0.0458401,0.172768,-0.229942,-0.00426589,0.23127,-0.00181113,0,0,0,0,0,0,0,-0.198788,-31.7491,-0.110155,23.7891,1.19812,2.5158,0.0440523,
0.0898831,0.0181651,0.19946,-1.97805,0.221817,0.301417,0.0608007,0.123645,-0.00687486,0.12308,-0.350084,0.0011494,0.590152,0.00454808,-0.353696,-0.287808,-0.318683,-1.82568,-2.62202,3.7023,-0.064106,12.5441,-1.6592,12.5077,-38.2694,0.111886,7.3349,0.0462905,0.0841599,0.0186817,0.193733,-1.96004,0.22143,0.272512,0.0605874,0.0456782,0.0458401,0.172768,-0.229942,-0.00426589,0.23127,-0.00181113,0,0,0,0,0,0,0,-0.198788,-31.7491,-0.110155,23.7891,1.19812,2.5158,0.0440523,
0.090847,0.0180962,0.200421,-1.98089,0.221642,0.306197,0.0608324,0.123013,-0.00722432,0.122492,-0.350903,-0.00344806,0.591639,0.00443114,-0.395024,-0.218416,-0.36769,-0.511541,-2.87342,0.929093,-0.073088,12.3831,-1.67195,12.3402,-37.5672,0.0222937,7.01424,0.044172,0.0856312,0.0194008,0.199849,-1.9683,0.221411,0.276654,0.060587,0.0621995,0.0509859,0.178107,-0.261833,-0.0230229,0.103913,-0.0017813,2.06516,0.643224,0.667424,-3.98635,-2.34463,-15.9195,0.00372875,-2.09912,-30.7018,-1.98668,25.5347,1.36291,2.37664,0.0440523,
0.0918018,0.0180263,0.201373,-1.98366,0.221425,0.310836,0.060863,0.122279,-0.00752593,0.121793,-0.350112,-0.00819317,0.589267,0.00430845,-0.458554,-0.188506,-0.436502,0.494276,-2.96569,-1.48241,-0.0766807,12.213,-1.63322,12.1718,-36.9058,-0.0752559,6.70287,0.0425823,0.0856312,0.0194008,0.199849,-1.9683,0.221411,0.276654,0.060587,0.0621995,0.0509859,0.178107,-0.261833,-0.0230229,0.103913,-0.0017813,0,0,0,0,0,0,0,-2.09912,-30.7018,-1.98668,25.5347,1.36291,2.37664,0.0440523,
0.0906668,0.0193718,0.204863,-1.98397,0.220894,0.298969,0.0607667,0.123069,-0.00592758,0.122482,-0.355509,-0.0131108,0.594511,0.00430408,0.49385,0.998972,0.430257,-3.37292,-3.07354,3.27729,-0.00272944,12.6826,-1.40176,12.585,-38.9767,-0.124558,8.10181,0.0480808,0.0856312,0.0194008,0.199849,-1.9683,0.221411,0.276654,0.060587,0.0621995,0.0509859,0.178107,-0.261833,-0.0230229,0.103913,-0.0017813,0,0,0,0,0,0,0,-2.09912,-30.7018,-1.98668,25.5347,1.36291,2.37664,0.0440523,
0.0916647,0.019373,0.205853,-1.98691,0.220584,0.303837,0.0607994,0.123402,-0.00471205,0.122732,-0.357816,-0.0182336,0.597294,0.00426062,0.208301,0.759702,0.156233,-1.44218,-3.20174,1.73934,-0.0271639,12.5053,-1.37396,12.4122,-38.3029,-0.206195,7.66677,0.045705,0.0856312,0.0194008,0.199849,-1.9683,0.221411,0.276654,0.060587,0.0621995,0.0509859,0.178107,-0.261833,-0.0230229,0.103913,-0.0017813,0,0,0,0,0,0,0,-2.09912,-30.7018,-1.98668,25.5347,1.36291,2.37664,0.0440523,
0.0926489,0.0193686,0.206829,-1.98977,0.220237,0.308602,0.0608308,0.123326,-0.00387878,0.122589,-0.357806,-0.0232808,0.596976,0.00419301,-0.0475913,0.520796,-0.0891008,0.0064969,-3.15449,-0.198777,-0.0422554,12.3395,-1.32129,12.2493,-37.6166,-0.282713,7.28043,0.0438943,0.0856312,0.0194008,0.199849,-1.9683,0.221411,0.276654,0.060587,0.0621995,0.0509859,0.178107,-0.261833,-0.0230229,0.103913,-0.0017813,0,0,0,0,0,0,0,-2.09912,-30.7018,-1.98668,25.5347,1.36291,2.37664,0.0440523,
0.0936187,0.0193577,0.20779,-1.99256,0.219858,0.31324,0.0608611,0.122905,-0.00337709,0.122116,-0.356069,-0.0280987,0.593518,0.0041114,-0.263177,0.313558,-0.295576,1.08536,-3.01119,-2.16102,-0.0510035,12.1979,-1.36296,12.1036,-36.8653,-0.338812,6.95946,0.0422922,0.0872616,0.0197971,0.205762,-1.97777,0.22135,0.28011,0.060592,0.0566177,0.00229543,0.183518,-0.290673,-0.0178409,0.0862381,0.000225948,-0.697731,-6.0863,0.676308,-3.60496,0.64775,-2.20942,0.250906,-2.45221,-34.5461,-2.23662,29.9423,1.03973,3.66295,-0.00996382,
0.0922486,0.0191072,0.210747,-1.99326,0.220959,0.302836,0.0607542,0.123108,-0.0045631,0.122372,-0.3588,-0.0276953,0.603668,0.00406315,0.126497,-0.741259,0.159666,-1.70714,0.252117,6.34405,-0.0301572,12.1298,-2.33394,12.0824,-38.2741,-0.110215,8.5596,0.0407386,0.0872616,0.0197971,0.205762,-1.97777,0.22135,0.28011,0.060592,0.0566177,0.00229543,0.183518,-0.290673,-0.0178409,0.0862381,0.000225948,0,0,0,0,0,0,0,-2.45221,-34.5461,-2.23662,29.9423,1.03973,3.66295,-0.00996382,
0.0932245,0.0190406,0.211719,-1.99613,0.220715,0.30796,0.0607839,0.122885,-0.00531508,0.122191,-0.358877,-0.0282749,0.611032,0.00399223,-0.139314,-0.469986,-0.11327,-0.0477474,-0.362212,4.60209,-0.0443283,11.9955,-2.21332,11.9507,-37.5668,-0.180684,8.12695,0.0397166,0.0872616,0.0197971,0.205762,-1.97777,0.22135,0.28011,0.060592,0.0566177,0.00229543,0.183518,-0.290673,-0.0178409,0.0862381,0.000225948,0,0,0,0,0,0,0,-2.45221,-34.5461,-2.23662,29.9423,1.03973,3.66295,-0.00996382,
0.0941839,0.0189758,0.212674,-1.99893,0.220442,0.312995,0.0608125,0.122293,-0.00587239,0.121633,-0.356997,-0.0294218,0.614685,0.00390961,-0.369944,-0.348318,-0.348257,1.17508,-0.716831,2.2833,-0.0516378,11.861,-2.08761,11.8178,-36.852,-0.241883,7.73419,0.0388647,0.0872616,0.0197971,0.205762,-1.97777,0.22135,0.28011,0.060592,0.0566177,0.00229543,0.183518,-0.290673,-0.0178409,0.0862381,0.000225948,0,0,0,0,0,0,0,-2.45221,-34.5461,-2.23662,29.9423,1.03973,3.66295,-0.00996382,
0.0963146,0.0189722,0.214756,-2.00649,0.22073,0.338646,0.0609114,0.121745,-0.00613053,0.121072,-0.356957,-0.0300858,0.661224,0.0038855,-0.342562,-0.161339,-0.350747,0.0248513,-0.415017,29.0871,-0.0150658,11.7268,-2.08091,11.6742,-36.0625,-0.285536,7.41106,0.03787,0.0888371,0.0206989,0.212041,-1.98771,0.221166,0.282101,0.0605979,0.0435073,-0.0136155,0.18645,-0.268805,-0.0112304,0.053658,0.00128772,-1.6388,-1.98887,0.366586,2.73352,0.826311,-4.07251,0.132721,0.106693,-34.9944,0.211195,28.2483,1.47918,3.00652,-0.050247,
0.093759,0.0197616,0.216954,-2.00311,0.220782,0.308991,0.0607607,0.121978,-0.00698462,0.121281,-0.358756,-0.0301373,0.682901,0.0038913,0.146018,-0.533809,0.13075,-1.12435,-0.0321862,13.5477,0.00362763,11.8007,-2.28138,11.726,-37.8748,-0.170936,10.4661,0.038707,0.0888371,0.0206989,0.212041,-1.98771,0.221166,0.282101,0.0605979,0.0435073,-0.0136155,0.18645,-0.268805,-0.0112304,0.053658,0.00128772,0,0,0,0,0,0,0,0.106693,-34.9944,0.211195,28.2483,1.47918,3.00652,-0.050247,
0.0947263,0.0196925,0.217915,-2.00595,0.220497,0.315089,0.060791,0.121764,-0.00731377,0.121045,-0.357871,-0.0312288,0.698777,0.00387128,-0.13402,-0.205714,-0.147661,0.552803,-0.682157,9.92258,-0.0125156,11.7138,-2.20005,11.6415,-37.1773,-0.233296,9.86296,0.0376802,0.0888371,0.0206989,0.212041,-1.98771,0.221166,0.282101,0.0605979,0.0435073,-0.0136155,0.18645,-0.268805,-0.0112304,0.053658,0.00128772,0,0,0,0,0,0,0,0.106693,-34.9944,0.211195,28.2483,1.47918,3.00652,-0.050247,
0.0956761,0.0196286,0.218858,-2.0087,0.220182,0.321049,0.0608207,0.121158,-0.00744828,0.120422,-0.355048,-0.0328537,0.708025,0.00383798,-0.378536,-0.0840717,-0.38913,1.76489,-1.01557,5.77977,-0.0208133,11.6273,-2.08125,11.5564,-36.4587,-0.295229,9.31522,0.0374016,0.0888371,0.0206989,0.212041,-1.98771,0.221166,0.282101,0.0605979,0.0435073,-0.0136155,0.18645,-0.268805,-0.0112304,0.053658,0.00128772,0,0,0,0,0,0,0,0.106693,-34.9944,0.211195,28.2483,1.47918,3.00652,-0.050247,
0.0955084,0.0208791,0.222948,-2.01094,0.220278,0.320112,0.060749,0.121156,-0.00795022,0.120451,-0.355324,-0.0358846,0.745642,0.00389692,-0.00131477,-0.313714,0.0179351,-0.17279,-1.89432,23.5106,0.0368358,11.4919,-2.24219,11.4424,-37.286,-0.454525,10.7138,0.0409749,0.090602,0.0215656,0.218046,-1.99612,0.221208,0.287065,0.0605889,0.0640813,0.0297276,0.17983,-0.214812,-0.0279435,0.290441,-0.00148567,2.57176,5.4179,-0.82759,6.74908,-2.08913,29.5978,-0.346674,0.614505,-34.7722,0.988783,27.7484,1.43066,3.33794,0.0303194,
0.0964594,0.0208092,0.223894,-2.01369,0.219847,0.327106,0.0607815,0.120702,-0.00810692,0.12002,-0.353152,-0.0394944,0.771359,0.00393109,-0.284009,-0.0979374,-0.269581,1.35737,-2.25611,16.0735,0.0213591,11.4322,-2.19769,11.3857,-36.5886,-0.513273,10.7138,0.0401641,0.090602,0.0215656,0.218046,-1.99612,0.221208,0.287065,0.0605889,0.0640813,0.0297276,0.17983,-0.214812,-0.0279435,0.290441,-0.00148567,0,0,0,0,0,0,0,0.614505,-34.7722,0.988783,27.7484,1.43066,3.33794,0.0303194,
0.0973919,0.0207416,0.224822,-2.01636,0.219383,0.333852,0.0608139,0.119872,-0.00817497,0.11921,-0.349242,-0.043184,0.785735,0.0039544,-0.518336,-0.0425276,-0.505888,2.44401,-2.30599,8.98478,0.0145679,11.3687,-2.0888,11.3234,-35.8617,-0.555154,10.621,0.0396832,0.090602,0.0215656,0.218046,-1.99612,0.221208,0.287065,0.0605889,0.0640813,0.0297276,0.17983,-0.214812,-0.0279435,0.290441,-0.00148567,0,0,0,0,0,0,0,0.614505,-34.7722,0.988783,27.7484,1.43066,3.33794,0.0303194,
0.0983062,0.0206726,0.225732,-2.01895,0.218898,0.34031,0.0608462,0.118755,-0.00826565,0.118112,-0.344132,-0.0466789,0.790051,0.00397213,-0.698267,-0.0566775,-0.686606,3.19378,-2.18434,2.69735,0.0110848,11.298,-1.95765,11.2532,-35.1202,-0.583515,9.94243,0.0393307,0.090602,0.0215656,0.218046,-1.99612,0.221208,0.287065,0.0605889,0.0640813,0.0297276,0.17983,-0.214812,-0.0279435,0.290441,-0.00148567,0,0,0,0,0,0,0,0.614505,-34.7722,0.988783,27.7484,1.43066,3.33794,0.0303194,
0.0978031,0.022086,0.228698,-2.01753,0.219265,0.334222,0.0607658,0.119058,-0.00860126,0.118379,-0.343789,-0.0534771,0.817327,0.00411482,0.189489,-0.209754,0.166706,0.21403,-4.24884,17.0476,0.0891801,11.3931,-2.04166,11.3204,-36.5292,-0.905737,10.6979,0.0443442,0.092919,0.0227175,0.223827,-2.00339,0.221198,0.29878,0.0605881,0.0717966,0.041932,0.173508,-0.187177,-0.0247565,0.432013,-0.000402517,0.9644,1.52554,-0.790163,3.45436,0.398377,17.6965,0.135394,0.765262,-31.3246,0.937208,21.5714,1.05163,1.9793,0.0376436,
0.0987464,0.0220182,0.229634,-2.02017,0.218567,0.341372,0.0608032,0.118828,-0.00857632,0.118116,-0.341193,-0.0602409,0.832601,0.00422668,-0.144036,0.0155868,-0.164054,1.62272,-4.22739,9.54648,0.0699086,11.3554,-1.94396,11.2854,-35.7963,-0.943044,10.6979,0.044255,0.092919,0.0227175,0.223827,-2.00339,0.221198,0.29878,0.0605881,0.0717966,0.041932,0.173508,-0.187177,-0.0247565,0.432013,-0.000402517,0,0,0,0,0,0,0,0.765262,-31.3246,0.937208,21.5714,1.05163,1.9793,0.0376436,
0.0996704,0.0219546,0.230551,-2.02273,0.217834,0.348198,0.0608409,0.118162,-0.00845117,0.117426,-0.337001,-0.0665179,0.836731,0.00432574,-0.416098,0.0782203,-0.431503,2.61991,-3.92315,2.58143,0.0619128,11.3057,-1.80071,11.2365,-35.0368,-0.963759,10.6979,0.0443603,0.092919,0.0227175,0.223827,-2.00339,0.221198,0.29878,0.0605881,0.0717966,0.041932,0.173508,-0.187177,-0.0247565,0.432013,-0.000402517,0,0,0,0,0,0,0,0.765262,-31.3246,0.937208,21.5714,1.05163,1.9793,0.0376436,
0.100576,0.0218912,0.23145,-2.02522,0.217077,0.354672,0.0608793,0.117166,-0.0083446,0.116412,-0.331719,-0.0721389,0.831237,0.00442005,-0.622762,0.0666037,-0.633492,3.30162,-3.51312,-3.4343,0.0589457,11.2419,-1.64917,11.1728,-34.2649,-0.970956,10.0544,0.0444478,0.092919,0.0227175,0.223827,-2.00339,0.221198,0.29878,0.0605881,0.0717966,0.041932,0.173508,-0.187177,-0.0247565,0.432013,-0.000402517,0,0,0,0,0,0,0,0.765262,-31.3246,0.937208,21.5714,1.05163,1.9793,0.0376436,
0.0978078,0.0221808,0.228715,-2.01713,0.218185,0.333429,0.0607938,0.117666,-0.00839468,0.116958,-0.331491,-0.0802805,0.842512,0.00463215,0.312789,-0.0312989,0.341471,0.141964,-5.08849,7.04718,0.132562,11.2944,-1.79471,11.2401,-35.6347,-1.2935,10.6622,0.0490857,0.0955247,0.0237429,0.229097,-2.01057,0.220975,0.315035,0.0605868,0.0802806,0.0626612,0.162249,-0.190926,-0.02176,0.522639,-0.000249865,1.0605,2.59115,-1.40745,-0.468638,0.374563,11.3283,0.0190814,0.384403,-30.8287,0.512709,20.8731,1.17981,1.83282,0.0101778,
0.0987442,0.0221194,0.229647,-2.01968,0.217225,0.340232,0.0608384,0.117543,-0.00824928,0.11687,-0.329044,-0.088215,0.844094,0.00482138,-0.0769073,0.0908738,-0.0552749,1.52977,-4.95905,0.988742,0.11827,11.2593,-1.72434,11.2087,-34.8762,-1.30511,10.6622,0.0497574,0.0955247,0.0237429,0.229097,-2.01057,0.220975,0.315035,0.0605868,0.0802806,0.0626612,0.162249,-0.190926,-0.02176,0.522639,-0.000249865,0,0,0,0,0,0,0,0.384403,-30.8287,0.512709,20.8731,1.17981,1.83282,0.0101778,
0.09966,0.0220595,0.230558,-2.02216,0.21623,0.346692,0.0608844,0.116928,-0.00809911,0.116283,-0.325028,-0.095462,0.836772,0.00500593,-0.384752,0.0938568,-0.366591,2.5097,-4.52938,-4.57605,0.115345,11.206,-1.61273,11.1565,-34.0934,-1.30551,10.2627,0.0505942,0.0955247,0.0237429,0.229097,-2.01057,0.220975,0.315035,0.0605868,0.0802806,0.0626612,0.162249,-0.190926,-0.02176,0.522639,-0.000249865,0,0,0,0,0,0,0,0.384403,-30.8287,0.512709,20.8731,1.17981,1.83282,0.0101778,
0.100556,0.0219979,0.23145,-2.02455,0.215213,0.35279,0.0609318,0.115945,-0.00801884,0.115327,-0.319935,-0.101795,0.821871,0.00519009,-0.61433,0.0501684,-0.598012,3.18317,-3.9582,-9.31331,0.115094,11.1349,-1.49428,11.0857,-33.2975,-1.30734,9.47078,0.0517847,0.0955247,0.0237429,0.229097,-2.01057,0.220975,0.315035,0.0605868,0.0802806,0.0626612,0.162249,-0.190926,-0.02176,0.522639,-0.000249865,0,0,0,0,0,0,0,0.384403,-30.8287,0.512709,20.8731,1.17981,1.83282,0.0101778,
0.100337,0.0235535,0.233893,-2.024,0.217701,0.350431,0.0608311,0.116286,-0.00746494,0.115622,-0.320218,-0.105395,0.834437,0.00548493,0.213464,0.346186,0.184307,-0.176448,-2.24998,7.85387,0.184281,11.2446,-1.85947,11.1643,-34.7536,-1.35158,10.6164,0.0563366,0.0977063,0.0245108,0.234226,-2.01744,0.220817,0.331109,0.0605922,0.0584779,0.030561,0.148843,-0.192073,-0.0268209,0.465337,-0.000165797,-2.72534,-4.01252,-1.67566,-0.143287,-0.632615,-7.16279,0.0105085,-1.44055,-33.5979,-1.16149,26.0544,1.11847,2.64214,-0.0026396,
0.101258,0.0235096,0.234808,-2.02648,0.216697,0.357186,0.0608863,0.116069,-0.00707048,0.115365,-0.318166,-0.109417,0.836436,0.00576782,-0.135898,0.246542,-0.160459,1.28211,-2.51344,1.24941,0.176803,11.2007,-1.77154,11.1236,-33.9623,-1.36002,10.6164,0.0581914,0.0977063,0.0245108,0.234226,-2.01744,0.220817,0.331109,0.0605922,0.0584779,0.030561,0.148843,-0.192073,-0.0268209,0.465337,-0.000165797,0,0,0,0,0,0,0,-1.44055,-33.5979,-1.16149,26.0544,1.11847,2.64214,-0.0026396,
0.102161,0.0234608,0.235703,-2.02888,0.21568,0.363584,0.0609435,0.115411,-0.00687551,0.114677,-0.314459,-0.112978,0.829085,0.00604386,-0.410926,0.121853,-0.429749,2.31706,-2.22576,-4.59465,0.172528,11.1416,-1.65494,11.0654,-33.154,-1.35877,10.0965,0.0603136,0.0977063,0.0245108,0.234226,-2.01744,0.220817,0.331109,0.0605922,0.0584779,0.030561,0.148843,-0.192073,-0.0268209,0.465337,-0.000165797,0,0,0,0,0,0,0,-1.44055,-33.5979,-1.16149,26.0544,1.11847,2.64214,-0.0026396,
0.102233,0.0239491,0.238751,-2.03021,0.216025,0.363765,0.0609067,0.115032,-0.00747865,0.114326,-0.312459,-0.121141,0.822746,0.00643828,-0.236872,-0.376962,-0.219649,1.24977,-5.10178,-3.96173,0.246508,11.2277,-1.97287,11.1705,-33.6362,-1.83748,10.6164,0.0684065,0.0977063,0.0245108,0.234226,-2.01744,0.220817,0.331109,0.0605922,0.0584779,0.030561,0.148843,-0.192073,-0.0268209,0.465337,-0.000165797,0,0,0,0,0,0,0,-1.44055,-33.5979,-1.16149,26.0544,1.11847,2.64214,-0.0026396,
0.103129,0.0238768,0.239642,-2.03257,0.214802,0.369799,0.0609743,0.11442,-0.0077918,0.113731,-0.30881,-0.127487,0.809049,0.00684278,-0.382409,-0.19572,-0.371614,2.28069,-3.96672,-8.5609,0.252817,11.2242,-1.84463,11.1633,-32.8045,-1.78507,9.76753,0.0717866,0.0993865,0.0249611,0.239018,-2.02405,0.220684,0.343361,0.0605897,0.0534279,0.00335338,0.139721,-0.187933,-0.00667819,0.34848,-0.000443906,-0.631238,-3.40095,-1.14028,0.517476,2.51784,-14.6071,-0.0347636,-0.222592,-32.7727,-0.0387439,26.6772,1.06994,2.98638,0.0101778,
0.10401,0.0238072,0.240518,-2.03484,0.213635,0.375457,0.0610412,0.113569,-0.00797418,0.112893,-0.30399,-0.131189,0.788687,0.00714648,-0.532422,-0.113986,-0.524128,3.01273,-2.31332,-12.7261,0.189812,11.1959,-1.66945,11.1368,-31.9725,-1.74297,8.96862,0.0757453,0.0993865,0.0249611,0.239018,-2.02405,0.220684,0.343361,0.0605897,0.0534279,0.00335338,0.139721,-0.187933,-0.00667819,0.34848,-0.000443906,0,0,0,0,0,0,0,-0.222592,-32.7727,-0.0387439,26.6772,1.06994,2.98638,0.0101778,
0.104877,0.0237383,0.24138,-2.03705,0.212535,0.380732,0.0611086,0.112525,-0.0080996,0.111862,-0.298343,-0.132434,0.762826,0.0074006,-0.652298,-0.0783849,-0.644116,3.52896,-0.778465,-16.1631,0.158821,11.1514,-1.51557,11.0937,-31.1386,-1.67463,8.24396,0.0795384,0.0993865,0.0249611,0.239018,-2.02405,0.220684,0.343361,0.0605897,0.0534279,0.00335338,0.139721,-0.187933,-0.00667819,0.34848,-0.000443906,0,0,0,0,0,0,0,-0.222592,-32.7727,-0.0387439,26.6772,1.06994,2.98638,0.0101778,
0.103834,0.0241194,0.243465,-2.03625,0.216234,0.372089,0.0609456,0.11244,-0.00905628,0.111783,-0.296997,-0.132518,0.752241,0.00730693,-0.0528404,-0.597925,-0.0491432,0.841334,-0.0525691,-6.61542,-0.0585415,11.3101,-1.6791,11.2453,-32.3935,-1.88645,9.66203,0.0821788,0.0993865,0.0249611,0.239018,-2.02405,0.220684,0.343361,0.0605897,0.0534279,0.00335338,0.139721,-0.187933,-0.00667819,0.34848,-0.000443906,0,0,0,0,0,0,0,-0.222592,-32.7727,-0.0387439,26.6772,1.06994,2.98638,0.0101778,
0.104726,0.0240281,0.244351,-2.03851,0.215107,0.377501,0.0610332,0.11224,-0.00952627,0.111584,-0.294032,-0.134198,0.737089,0.00803371,-0.125108,-0.293747,-0.124673,1.85326,-1.04971,-9.47017,0.45424,11.3295,-1.61306,11.2682,-31.5773,-1.78858,8.8422,0.0879976,0.0993865,0.0249611,0.239018,-2.02405,0.220684,0.343361,0.0605897,0.0534279,0.00335338,0.139721,-0.187933,-0.00667819,0.34848,-0.000443906,0,0,0,0,0,0,0,-0.222592,-32.7727,-0.0387439,26.6772,1.06994,2.98638,0.0101778,
0.105598,0.0239426,0.245218,-2.04069,0.214053,0.382592,0.0611076,0.111589,-0.00975982,0.110932,-0.289889,-0.133685,0.71695,0.00828902,-0.407201,-0.14597,-0.407729,2.58941,0.320429,-12.5866,0.159567,11.2942,-1.59584,11.2329,-30.7161,-1.60949,8.08316,0.0884412,0.101011,0.0250588,0.243539,-2.03065,0.220652,0.351175,0.0605844,0.0479151,-0.00926428,0.128837,-0.19347,-0.0163928,0.134854,-0.00120118,-0.689107,-1.57721,-1.36055,-0.692199,-1.21432,-26.7032,-0.0946591,0.511356,-30.9279,0.711073,23.912,1.3446,2.07818,0.0376436,
0.106453,0.0238592,0.246068,-2.04282,0.212983,0.387398,0.0611691,0.110661,-0.00989289,0.110004,-0.284945,-0.133701,0.693711,0.00816853,-0.579946,-0.0831665,-0.579593,3.08983,-0.00958649,-14.5246,-0.0753065,11.205,-1.51825,11.1456,-29.8699,-1.50507,7.41907,0.0921436,0.101011,0.0250588,0.243539,-2.03065,0.220652,0.351175,0.0605844,0.0479151,-0.00926428,0.128837,-0.19347,-0.0163928,0.134854,-0.00120118,0,0,0,0,0,0,0,0.511356,-30.9279,0.711073,23.912,1.3446,2.07818,0.0376436,
0.105345,0.0243086,0.247872,-2.04263,0.215571,0.375161,0.0609666,0.110658,-0.0096404,0.109999,-0.284818,-0.139478,0.682872,0.00802965,-0.00190821,0.157806,-0.00319818,0.0793337,-3.61114,-6.77453,-0.0867996,11.2101,-1.36766,11.1462,-30.8737,-1.68073,8.81323,0.0712704,0.101011,0.0250588,0.243539,-2.03065,0.220652,0.351175,0.0605844,0.0479151,-0.00926428,0.128837,-0.19347,-0.0163928,0.134854,-0.00120118,0,0,0,0,0,0,0,0.511356,-30.9279,0.711073,23.912,1.3446,2.07818,0.0376436,
