xiao-wang007/linearmpc_panda/paper_data/panda_torque_PD_controller_opt_time_to_start_torque_rate_limiter_low_pass_filter/1/trajectory.csv
Commanded Joint 0 Position,Commanded Joint 1 Position,Commanded Joint 2 Position,Commanded Joint 3 Position,Commanded Joint 4 Position,Commanded Joint 5 Position,Commanded Joint 6 Position,Commanded Joint 0 Velocity,Commanded Joint 1 Velocity,Commanded Joint 2 Velocity,Commanded Joint 3 Velocity,Commanded Joint 4 Velocity,Commanded Joint 5 Velocity,Commanded Joint 6 Velocity,Commanded Joint 0 Acceleration,Commanded Joint 1 Acceleration,Commanded Joint 2 Acceleration,Commanded Joint 3 Acceleration,Commanded Joint 4 Acceleration,Commanded Joint 5 Acceleration,Commanded Joint 6 Acceleration,Commanded Joint 0 Torque,Commanded Joint 1 Torque,Commanded Joint 2 Torque,Commanded Joint 3 Torque,Commanded Joint 4 Torque,Commanded Joint 5 Torque,Commanded Joint 6 Torque,Actual Joint 0 Position,Actual Joint 1 Position,Actual Joint 2 Position,Actual Joint 3 Position,Actual Joint 4 Position,Actual Joint 5 Position,Actual Joint 6 Position,Actual Joint 0 Velocity,Actual Joint 1 Velocity,Actual Joint 2 Velocity,Actual Joint 3 Velocity,Actual Joint 4 Velocity,Actual Joint 5 Velocity,Actual Joint 6 Velocity,Actual Joint 0 Acceleration,Actual Joint 1 Acceleration,Actual Joint 2 Acceleration,Actual Joint 3 Acceleration,Actual Joint 4 Acceleration,Actual Joint 5 Acceleration,Actual Joint 6 Acceleration,Actual Joint 0 Torque,Actual Joint 1 Torque,Actual Joint 2 Torque,Actual Joint 3 Torque,Actual Joint 4 Torque,Actual Joint 5 Torque,Actual Joint 6 Torque,
0.0542502,-0.179288,-0.0905057,-1.83324,-0.0249383,0.15859,-0.0195934,6.82444e-05,0.0150383,-0.000462435,-0.0349683,-0.00409018,0.0476232,-0.000369397,0.0426528,9.39892,-0.289022,-21.8552,-2.55636,29.7645,-0.230873,0.0574924,18.4274,-0.269394,-24.2033,-0.533222,1.75136,-0.0235604,0.0542373,-0.17972,-0.0904487,-1.82992,-0.0246192,0.153393,-0.0195266,0.00101044,3.92986e-06,0.000341256,-0.000591496,-0.00177748,0.00204432,0.000848377,0,0,0,0,0,0,0,0.0551182,-28.857,0.413527,27.1255,0.635983,3.28484,-0.123489,
0.054244,-0.179714,-0.0904407,-1.82992,-0.0246276,0.153415,-0.0195268,9.12172e-05,0.0120788,-0.000325171,-0.0279725,-0.00327787,0.0382428,-0.000297841,0.014358,-1.84969,0.0857896,4.37236,0.507691,-5.86276,0.0447223,0.0518147,18.8683,-0.279776,-24.1196,-0.533813,1.50048,-0.0220438,0.0542373,-0.17972,-0.0904487,-1.82992,-0.0246192,0.153393,-0.0195266,0.00101044,3.92986e-06,0.000341256,-0.000591496,-0.00177748,0.00204432,0.000848377,0,0,0,0,0,0,0,0.0551182,-28.857,0.413527,27.1255,0.635983,3.28484,-0.123489,
0.054245,-0.179712,-0.0904394,-1.82992,-0.0246269,0.15342,-0.0195268,9.945e-05,0.00970925,-0.000227417,-0.0223754,-0.00260666,0.0307199,-0.000239917,0.00514549,-1.48095,0.0610963,3.49821,0.419511,-4.70179,0.0362028,0.0446252,19.44,-0.291535,-24.0114,-0.533603,1.15293,-0.020074,0.0542373,-0.17972,-0.0904487,-1.82992,-0.0246192,0.153393,-0.0195266,0.00101044,3.92986e-06,0.000341256,-0.000591496,-0.00177748,0.00204432,0.000848377,0,0,0,0,0,0,0,0.0551182,-28.857,0.413527,27.1255,0.635983,3.28484,-0.123489,
0.0542458,-0.17971,-0.0904384,-1.82992,-0.024626,0.153425,-0.0195269,9.91599e-05,0.00781212,-0.000157232,-0.0178978,-0.00206195,0.0246895,-0.000193168,-0.000181336,-1.18571,0.0438655,2.79847,0.340441,-3.76897,0.0292182,0.0386792,19.9675,-0.30081,-23.8435,-0.531786,0.768417,-0.0180767,0.0542412,-0.179618,-0.0904461,-1.82996,-0.0246264,0.153393,-0.0195298,0.00226193,0.00555958,0.00052867,-0.00480788,-0.00491962,0.00229169,-0.000124233,0.156436,0.694456,0.0234267,-0.527047,-0.392767,0.0309206,-0.121576,0.0551182,-28.607,0.389723,27.1017,0.672604,3.27843,-0.083206,
0.0539317,-0.179463,-0.0907257,-1.8299,-0.0155658,0.149359,-0.0195555,-0.000963526,0.0066015,-0.00125363,-0.0143241,0.056134,-0.00671736,-0.0001728,-0.664179,-0.756638,-0.685246,2.23359,36.3724,-19.6293,0.0127299,0.462514,0.20046,0.457945,-0.277159,3.47454,-1.62378,-0.00116794,0.0542412,-0.179618,-0.0904461,-1.82996,-0.0246264,0.153393,-0.0195298,0.00226193,0.00555958,0.00052867,-0.00480788,-0.00491962,0.00229169,-0.000124233,0,0,0,0,0,0,0,0.0551182,-28.607,0.389723,27.1017,0.672604,3.27843,-0.083206,
0.0539043,-0.179452,-0.0907569,-1.82991,-0.0131779,0.148251,-0.0195558,-0.00145771,0.00556155,-0.00178138,-0.011595,0.104605,-0.0330581,-0.000146076,-0.308865,-0.649968,-0.329849,1.70568,30.2945,-16.463,0.0167027,0.456957,0.196818,0.452043,-0.274589,3.44428,-1.60928,-0.00115885,0.0542412,-0.179618,-0.0904461,-1.82996,-0.0246264,0.153393,-0.0195298,0.00226193,0.00555958,0.00052867,-0.00480788,-0.00491962,0.00229169,-0.000124233,0,0,0,0,0,0,0,0.0551182,-28.607,0.389723,27.1017,0.672604,3.27843,-0.083206,
0.0538894,-0.179442,-0.0907751,-1.82992,-0.0107469,0.147114,-0.0195559,-0.00153758,0.00469696,-0.00188125,-0.00951089,0.144459,-0.0548718,-0.000120763,-0.049917,-0.540363,-0.0624154,1.30256,24.9086,-13.6335,0.0158207,0.451732,0.193489,0.446541,-0.272005,3.41359,-1.59474,-0.00114454,0.0542412,-0.179618,-0.0904461,-1.82996,-0.0246264,0.153393,-0.0195298,0.00226193,0.00555958,0.00052867,-0.00480788,-0.00491962,0.00229169,-0.000124233,0,0,0,0,0,0,0,0.0551182,-28.607,0.389723,27.1017,0.672604,3.27843,-0.083206,
0.0538853,-0.179432,-0.0907821,-1.82993,-0.00829463,0.145961,-0.0195561,-0.0013334,0.00399619,-0.00168053,-0.00791825,0.176873,-0.0727317,-9.98533e-05,0.12761,-0.437983,0.12545,0.9954,20.259,-11.1624,0.0130683,0.446579,0.218745,0.441943,-0.272466,3.38286,-1.57987,-0.00111678,0.0542299,-0.17909,-0.0904641,-1.83057,-0.0246292,0.154966,-0.0195304,-0.000786992,0.0452921,0.000111716,-0.0602094,-0.0112739,0.13785,0.000649,-0.381115,4.96657,-0.0521193,-6.9252,-0.794287,16.9448,0.0966541,0.233646,-21.942,0.461134,20.2264,0.429074,2.97356,-0.110672,
0.0536012,-0.177726,-0.0909652,-1.83033,0.00379433,0.133123,-0.0196114,-0.00213854,0.00718454,-0.00225994,-0.00725373,0.326409,-0.20597,-0.000149563,-0.503212,1.99272,-0.362135,0.415323,93.4596,-83.2737,-0.0310683,3.50766,2.21794,3.66654,-2.14954,11.0152,-9.34737,-0.00600173,0.0542299,-0.17909,-0.0904641,-1.83057,-0.0246292,0.154966,-0.0195304,-0.000786992,0.0452921,0.000111716,-0.0602094,-0.0112739,0.13785,0.000649,0,0,0,0,0,0,0,0.233646,-21.942,0.461134,20.2264,0.429074,2.97356,-0.110672,
0.053605,-0.177579,-0.0909561,-1.8304,0.01152,0.126933,-0.0196148,-0.00161434,0.0094065,-0.00158012,-0.00765529,0.454269,-0.319549,-0.000205088,0.327625,1.38873,0.424889,-0.250975,79.9129,-70.9875,-0.0347036,3.39523,2.19409,3.54945,-2.12075,11.0152,-9.23393,-0.00560273,0.0542299,-0.17909,-0.0904641,-1.83057,-0.0246292,0.154966,-0.0195304,-0.000786992,0.0452921,0.000111716,-0.0602094,-0.0112739,0.13785,0.000649,0,0,0,0,0,0,0,0.233646,-21.942,0.461134,20.2264,0.429074,2.97356,-0.110672,
0.0536493,-0.177436,-0.0909064,-1.8305,0.0194686,0.120576,-0.0196181,-0.000186155,0.0111138,-2.09548e-05,-0.00868042,0.56213,-0.414562,-0.000247778,0.892617,1.06707,0.97448,-0.640706,67.4133,-59.383,-0.0266809,3.29411,2.17891,3.43854,-2.09909,11.0152,-9.11485,-0.00428128,0.0542299,-0.17909,-0.0904641,-1.83057,-0.0246292,0.154966,-0.0195304,-0.000786992,0.0452921,0.000111716,-0.0602094,-0.0112739,0.13785,0.000649,0,0,0,0,0,0,0,0.233646,-21.942,0.461134,20.2264,0.429074,2.97356,-0.110672,
0.0537269,-0.17729,-0.090822,-1.83063,0.0275699,0.114132,-0.0196216,0.00179282,0.0125412,0.00209255,-0.0100384,0.652237,-0.492731,-0.000283485,1.23686,0.892104,1.32094,-0.84872,56.3164,-48.8555,-0.0223168,3.21103,2.26374,3.35817,-2.1197,11,-8.96372,-0.00192369,0.0541512,-0.177954,-0.0905214,-1.83564,-0.0213559,0.156709,-0.0195313,-0.00659731,0.00225147,-0.00672094,-0.189798,0.32249,-0.049368,-0.00136035,-0.72629,-5.38008,-0.854082,-16.1986,41.7205,-23.4022,-0.251169,1.14612,-24.1637,1.23872,25.2847,2.15118,2.73461,-0.0703886,
0.057829,-0.178158,-0.0863877,-1.83906,0.00680093,0.118362,-0.0190157,0.0259209,0.00300243,0.0292224,-0.029852,0.700214,-0.637732,0.000774026,15.0801,-5.96172,16.9561,-12.3835,29.9861,-90.6254,0.660944,23.3765,3.12486,25.7293,-10.6936,11,-14.4382,0.139982,0.0541512,-0.177954,-0.0905214,-1.83564,-0.0213559,0.156709,-0.0195313,-0.00659731,0.00225147,-0.00672094,-0.189798,0.32249,-0.049368,-0.00136035,0,0,0,0,0,0,0,1.14612,-24.1637,1.23872,25.2847,2.15118,2.73461,-0.0703886,
0.0588492,-0.178459,-0.0852401,-1.83996,0.0143687,0.10815,-0.0189869,0.0462435,-0.00512223,0.0520677,-0.0463845,0.749367,-0.765477,0.00133928,12.7016,-5.07792,14.2783,-10.3328,30.7201,-79.841,0.353284,22.3004,-0.757112,24.14,-11.9199,11,-14.4382,0.190208,0.0541512,-0.177954,-0.0905214,-1.83564,-0.0213559,0.156709,-0.0195313,-0.00659731,0.00225147,-0.00672094,-0.189798,0.32249,-0.049368,-0.00136035,0,0,0,0,0,0,0,1.14612,-24.1637,1.23872,25.2847,2.15118,2.73461,-0.0703886,
0.0598944,-0.178764,-0.0840665,-1.84091,0.0222547,0.0978545,-0.01896,0.0631238,-0.0117314,0.0709928,-0.060823,0.796643,-0.86977,0.00174355,10.5502,-4.13074,11.8282,-9.02411,29.5477,-65.1826,0.25267,20.1219,-3.37975,21.8124,-13.0594,11,-14.4382,0.138111,0.0541512,-0.177954,-0.0905214,-1.83564,-0.0213559,0.156709,-0.0195313,-0.00659731,0.00225147,-0.00672094,-0.189798,0.32249,-0.049368,-0.00136035,0,0,0,0,0,0,0,1.14612,-24.1637,1.23872,25.2847,2.15118,2.73461,-0.0703886,
0.0584663,-0.174561,-0.0857562,-1.84452,0.0290092,0.099392,-0.0193834,0.0794315,-0.00262566,0.0887431,-0.0808725,0.828227,-0.942502,0.00192731,10.1923,5.69109,11.0939,-12.5309,19.7402,-45.4579,0.114846,22.6143,5.29344,24.5865,-19.5018,10.8562,-14.4006,0.0300207,0.054048,-0.175977,-0.0905867,-1.83911,-0.0063581,0.144343,-0.0195387,0.00100092,0.114211,-0.00369972,0.0224007,0.854228,-0.843875,-0.00142538,0.949778,13.9949,0.377653,26.5249,66.4672,-99.3134,-0.00812868,3.63361,-32.126,4.03566,27.7246,3.25622,-0.899118,-0.0429228,
0.0596713,-0.174265,-0.0844258,-1.8459,0.0369002,0.0898871,-0.0193641,0.0936694,0.00531093,0.104253,-0.0992027,0.859857,-0.991624,0.00202439,8.89869,4.96037,9.69353,-11.4563,19.7687,-30.7012,0.0606809,21.296,5.40241,23.2043,-19.044,10.8562,-14.4006,0.0146905,0.054048,-0.175977,-0.0905867,-1.83911,-0.0063581,0.144343,-0.0195387,0.00100092,0.114211,-0.00369972,0.0224007,0.854228,-0.843875,-0.00142538,0,0,0,0,0,0,0,3.63361,-32.126,4.03566,27.7246,3.25622,-0.899118,-0.0429228,
0.0609023,-0.173935,-0.083068,-1.84735,0.0449938,0.0809671,-0.0193456,0.105711,0.0125031,0.117349,-0.115503,0.890227,-1.0163,0.00208201,7.5262,4.49512,8.18533,-10.1874,18.9813,-15.4231,0.0360116,20.2364,5.42386,22.092,-18.6321,10.8562,-14.4006,0.0123532,0.054048,-0.175977,-0.0905867,-1.83911,-0.0063581,0.144343,-0.0195387,0.00100092,0.114211,-0.00369972,0.0224007,0.854228,-0.843875,-0.00142538,0,0,0,0,0,0,0,3.63361,-32.126,4.03566,27.7246,3.25622,-0.899118,-0.0429228,
0.0621441,-0.17357,-0.0816993,-1.84883,0.0532408,0.0727499,-0.0193278,0.115614,0.019127,0.128096,-0.129537,0.918356,-1.01847,0.00211026,6.1889,4.13995,6.71693,-8.77148,17.5804,-1.35519,0.0176532,19.3006,5.35697,21.1025,-18.2835,10.8562,-14.4006,0.0156322,0.054048,-0.175977,-0.0905867,-1.83911,-0.0063581,0.144343,-0.0195387,0.00100092,0.114211,-0.00369972,0.0224007,0.854228,-0.843875,-0.00142538,0,0,0,0,0,0,0,3.63361,-32.126,4.03566,27.7246,3.25622,-0.899118,-0.0429228,
0.0588516,-0.175609,-0.0854825,-1.84777,0.0288351,0.104967,-0.0195236,0.12403,0.0165532,0.136481,-0.156005,0.924774,-1.00405,0.00149936,5.26004,-1.60865,5.24046,-16.5423,4.01118,9.00915,-0.381813,23.9454,4.92484,25.7396,-28.1014,10.5688,-14.2043,-0.0069934,0.0536257,-0.173801,-0.0908235,-1.83818,0.0378512,0.0992937,-0.019367,0.035972,0.00219218,0.0315736,-0.0136658,1.23745,-1.65872,0.00956158,4.37139,-14.0023,4.40916,-4.50832,47.9032,-101.855,1.37337,9.771,-34.0462,10.7364,19.6274,1.14318,-2.98744,0.017502,
0.0601727,-0.175525,-0.0840567,-1.84994,0.0366848,0.0981087,-0.0195307,0.13225,0.0153248,0.144831,-0.178878,0.93606,-0.97471,0.00102257,5.13763,-0.767733,5.21874,-14.2961,7.05354,18.3402,-0.29799,22.6307,4.39739,24.336,-27.6742,10.5688,-14.1783,-0.0168705,0.0536257,-0.173801,-0.0908235,-1.83818,0.0378512,0.0992937,-0.019367,0.035972,0.00219218,0.0315736,-0.0136658,1.23745,-1.65872,0.00956158,0,0,0,0,0,0,0,9.771,-34.0462,10.7364,19.6274,1.14318,-2.98744,0.017502,
0.061531,-0.175411,-0.0825901,-1.85214,0.0447296,0.0920379,-0.0195345,0.139757,0.0151128,0.15253,-0.198073,0.949969,-0.931539,0.000723554,4.69169,-0.132538,4.8118,-11.9969,8.69335,26.9822,-0.186888,21.5388,3.85007,23.1795,-27.2981,10.5688,-12.0276,-0.0188985,0.0536257,-0.173801,-0.0908235,-1.83818,0.0378512,0.0992937,-0.019367,0.035972,0.00219218,0.0315736,-0.0136658,1.23745,-1.65872,0.00956158,0,0,0,0,0,0,0,9.771,-34.0462,10.7364,19.6274,1.14318,-2.98744,0.017502,
0.0629101,-0.175272,-0.0811006,-1.85435,0.0529236,0.0867729,-0.0195354,0.146285,0.0155739,0.159261,-0.213713,0.964824,-0.876855,0.000555062,4.08022,0.288188,4.20718,-9.77455,9.28429,34.1773,-0.105307,20.61,3.33547,22.1966,-26.9543,10.5688,-10.1296,-0.0194617,0.0536257,-0.173801,-0.0908235,-1.83818,0.0378512,0.0992937,-0.019367,0.035972,0.00219218,0.0315736,-0.0136658,1.23745,-1.65872,0.00956158,0,0,0,0,0,0,0,9.771,-34.0462,10.7364,19.6274,1.14318,-2.98744,0.017502,
0.0593886,-0.174448,-0.0846563,-1.8492,0.0791394,0.0534895,-0.0193855,0.152044,0.0152542,0.165428,-0.233492,0.975028,-0.880604,9.57882e-05,3.59965,-0.199823,3.8543,-12.3621,6.37753,-2.34276,-0.287046,23.5027,7.21007,25.5223,-32.2613,10.6322,-13.2665,-0.0344549,0.0576779,-0.175149,-0.0861045,-1.84621,0.0785444,0.042815,-0.0193357,0.13928,-0.0454589,0.212197,-0.349835,1.09124,-1.65969,-0.000646678,12.9135,-5.95639,22.578,-42.0212,-18.2763,-0.122325,-1.27603,16.5154,-22.1404,18.4607,18.457,4.17816,-2.10578,-0.0905302,
0.060827,-0.174252,-0.0830921,-1.85173,0.0873388,0.0472567,-0.019398,0.157596,0.017114,0.171448,-0.249999,0.985007,-0.860302,-0.000237666,3.46948,1.1624,3.76251,-10.3171,6.23718,12.6888,-0.208409,22.3941,6.53764,24.3299,-31.8956,10.6322,-11.1986,-0.0388212,0.0576779,-0.175149,-0.0861045,-1.84621,0.0785444,0.042815,-0.0193357,0.13928,-0.0454589,0.212197,-0.349835,1.09124,-1.65969,-0.000646678,0,0,0,0,0,0,0,16.5154,-22.1404,18.4607,18.457,4.17816,-2.10578,-0.0905302,
0.0622835,-0.173992,-0.0815068,-1.85426,0.095606,0.0418973,-0.0194064,0.162489,0.0201947,0.17679,-0.263281,0.994686,-0.822228,-0.000398701,3.05851,1.92541,3.33868,-8.30071,6.04891,23.7962,-0.100647,21.4633,5.98746,23.3294,-31.5331,10.6322,-9.40091,-0.0357188,0.0576779,-0.175149,-0.0861045,-1.84621,0.0785444,0.042815,-0.0193357,0.13928,-0.0454589,0.212197,-0.349835,1.09124,-1.65969,-0.000646678,0,0,0,0,0,0,0,16.5154,-22.1404,18.4607,18.457,4.17816,-2.10578,-0.0905302,
0.0637444,-0.173685,-0.0799159,-1.85678,0.103928,0.0373438,-0.0194109,0.166513,0.0238249,0.181205,-0.273547,1.00379,-0.771619,-0.000431711,2.51511,2.26888,2.75905,-6.41669,5.69263,31.6305,-0.0206307,20.6558,5.5552,22.4605,-31.1609,10.6322,-7.83269,-0.0326977,0.0576779,-0.175149,-0.0861045,-1.84621,0.0785444,0.042815,-0.0193357,0.13928,-0.0454589,0.212197,-0.349835,1.09124,-1.65969,-0.000646678,0,0,0,0,0,0,0,16.5154,-22.1404,18.4607,18.457,4.17816,-2.10578,-0.0905302,
0.065723,-0.175056,-0.0774027,-1.86284,0.120616,0.00879537,-0.019469,0.174322,0.0237016,0.189521,-0.301701,1.01319,-0.712589,-0.00102096,4.88013,-0.0770639,5.19781,-17.5958,5.87413,36.8937,-0.368283,22.8846,5.39408,24.8502,-39.3232,10.6322,-6.51836,-0.0460843,0.0576779,-0.175149,-0.0861045,-1.84621,0.0785444,0.042815,-0.0193357,0.13928,-0.0454589,0.212197,-0.349835,1.09124,-1.65969,-0.000646678,0,0,0,0,0,0,0,16.5154,-22.1404,18.4607,18.457,4.17816,-2.10578,-0.0905302,
0.0673524,-0.174845,-0.0756353,-1.8661,0.129029,0.00604527,-0.0194914,0.180194,0.0242285,0.195802,-0.322912,1.02089,-0.638824,-0.00137693,3.67052,0.329331,3.92548,-13.2572,4.81129,46.1032,-0.222481,22.2243,4.13633,24.1675,-38.5203,10.6898,-4.36864,-0.0550347,0.0663778,-0.177217,-0.0772558,-1.86387,0.117751,-0.00859583,-0.0193273,0.298831,-0.0769158,0.350183,-0.582425,1.13436,-1.34212,-8.9742e-05,19.9438,-3.9321,17.2482,-29.0737,5.38917,39.6973,0.0696171,11.6951,-16.003,12.4384,21.1469,3.43933,1.31554,-0.137222,
0.0689605,-0.174624,-0.0738903,-1.8693,0.137443,0.00420392,-0.0195069,0.184356,0.0249102,0.200267,-0.338368,1.02705,-0.557093,-0.00148975,2.60098,0.426102,2.79095,-9.66011,3.84957,51.082,-0.0705116,21.4057,3.3336,23.2633,-38.1592,10.6898,-2.98604,-0.0504082,0.0663778,-0.177217,-0.0772558,-1.86387,0.117751,-0.00859583,-0.0193273,0.298831,-0.0769158,0.350183,-0.582425,1.13436,-1.34212,-8.9742e-05,0,0,0,0,0,0,0,11.6951,-16.003,12.4384,21.1469,3.43933,1.31554,-0.137222,
0.0767179,-0.176457,-0.0659877,-1.88436,0.163329,-0.0227704,-0.0195421,0.194001,0.0282685,0.210881,-0.366318,1.04467,-0.434234,-0.00185837,6.02788,2.0989,6.63345,-17.4687,11.0144,76.7867,-0.230389,21.4125,4.0891,23.3722,-45.0845,10.6898,2.10394,-0.0673029,0.0663778,-0.177217,-0.0772558,-1.86387,0.117751,-0.00859583,-0.0193273,0.298831,-0.0769158,0.350183,-0.582425,1.13436,-1.34212,-8.9742e-05,0,0,0,0,0,0,0,11.6951,-16.003,12.4384,21.1469,3.43933,1.31554,-0.137222,
0.0785002,-0.176107,-0.0640452,-1.88807,0.172134,-0.0213912,-0.0195595,0.199758,0.0313684,0.217265,-0.38579,1.05585,-0.312906,-0.00192299,3.59819,1.93747,3.99007,-12.1696,6.98573,75.83,-0.0403846,20.7293,3.62203,22.6059,-44.6091,10.6898,2.94486,-0.0600868,0.0663778,-0.177217,-0.0772558,-1.86387,0.117751,-0.00859583,-0.0193273,0.298831,-0.0769158,0.350183,-0.582425,1.13436,-1.34212,-8.9742e-05,0,0,0,0,0,0,0,11.6951,-16.003,12.4384,21.1469,3.43933,1.31554,-0.137222,
0.0802125,-0.175753,-0.0621781,-1.89167,0.180831,-0.0193089,-0.0195659,0.202613,0.033945,0.220492,-0.398696,1.06212,-0.198269,-0.00169916,1.78479,1.61035,2.01677,-8.06645,3.91567,71.648,0.139893,20.2695,3.38894,22.1945,-43.6692,10.6273,4.11377,-0.0524195,0.0776032,-0.177882,-0.0615337,-1.88567,0.160949,-0.051584,-0.019325,0.431863,-0.0145121,0.415894,-0.705695,1.28333,-1.0891,0.000482834,16.6291,7.80046,8.21382,-15.4087,18.622,31.6265,0.071572,4.79999,-18.423,5.28932,20.1788,2.92022,2.58263,-0.157364,
0.0818612,-0.175403,-0.0603792,-1.89518,0.189434,-0.0166908,-0.0195625,0.203307,0.0359112,0.221364,-0.406588,1.06476,-0.0931604,-0.00127276,0.43352,1.22889,0.545065,-4.93277,1.65488,65.6929,0.266499,19.7532,3.27,21.6138,-43.0926,10.6273,4.64138,-0.0413686,0.0776032,-0.177882,-0.0615337,-1.88567,0.160949,-0.051584,-0.019325,0.431863,-0.0145121,0.415894,-0.705695,1.28333,-1.0891,0.000482834,0,0,0,0,0,0,0,4.79999,-18.423,5.28932,20.1788,2.92022,2.58263,-0.157364,
0.089373,-0.176171,-0.0487533,-1.9089,0.209996,-0.0493425,-0.0195139,0.211643,0.0382514,0.230326,-0.429279,1.08347,0.0208073,-0.00127461,5.20989,1.46262,5.6015,-14.1814,11.6935,71.2298,-0.00115464,18.8801,1.4702,20.593,-48.0745,10.6273,9.25626,-0.0631753,0.0776032,-0.177882,-0.0615337,-1.88567,0.160949,-0.051584,-0.019325,0.431863,-0.0145121,0.415894,-0.705695,1.28333,-1.0891,0.000482834,0,0,0,0,0,0,0,4.79999,-18.423,5.28932,20.1788,2.92022,2.58263,-0.157364,
0.091203,-0.17582,-0.0467638,-1.91289,0.219029,-0.0447741,-0.019513,0.215064,0.0393655,0.233998,-0.44315,1.0926,0.130857,-0.000997334,2.13838,0.696304,2.29466,-8.66944,5.70173,68.7811,0.173297,18.6002,1.38459,20.2569,-47.4459,10.6273,9.32329,-0.0456957,0.0776032,-0.177882,-0.0615337,-1.88567,0.160949,-0.051584,-0.019325,0.431863,-0.0145121,0.415894,-0.705695,1.28333,-1.0891,0.000482834,0,0,0,0,0,0,0,4.79999,-18.423,5.28932,20.1788,2.92022,2.58263,-0.157364,
0.092924,-0.175503,-0.0448917,-1.91674,0.227863,-0.0397005,-0.0194998,0.215077,0.039412,0.234002,-0.450599,1.09492,0.231526,-0.000468186,0.00804731,0.0290517,0.0025627,-4.65585,1.45371,62.9178,0.330717,18.2786,1.21753,20.009,-46.0625,10.4227,9.75377,-0.0355838,0.0930346,-0.176521,-0.0452416,-1.91574,0.20911,-0.0728163,-0.0193306,0.44672,0.042791,0.51288,-1.02545,1.39404,-0.135473,0.000523906,1.85715,7.1629,12.1233,-39.9699,13.838,119.204,0.00513403,-0.603451,-25.9609,-0.661608,20.8731,2.34069,4.49151,-0.110672,
0.105217,-0.172705,-0.0319896,-1.94196,0.258804,-0.0552723,-0.0194426,0.219995,0.0451805,0.239233,-0.474281,1.10662,0.33438,0.000105463,3.0735,3.60533,3.26934,-14.8011,7.31019,64.2842,0.358531,15.8584,-0.997188,17.3636,-51.6922,10.4227,11.7508,-0.0534343,0.0930346,-0.176521,-0.0452416,-1.91574,0.20911,-0.0728163,-0.0193306,0.44672,0.042791,0.51288,-1.02545,1.39404,-0.135473,0.000523906,0,0,0,0,0,0,0,-0.603451,-25.9609,-0.661608,20.8731,2.34069,4.49151,-0.110672,
0.106977,-0.172253,-0.0300785,-1.94632,0.267759,-0.0486261,-0.0194078,0.220014,0.0474409,0.239164,-0.488372,1.10916,0.433659,0.000954523,0.0121825,1.41274,-0.0432025,-8.80711,1.59089,62.0493,0.530663,15.9394,-0.62878,17.3977,-50.9075,10.4227,11.7508,-0.0260373,0.0930346,-0.176521,-0.0452416,-1.91574,0.20911,-0.0728163,-0.0193306,0.44672,0.042791,0.51288,-1.02545,1.39404,-0.135473,0.000523906,0,0,0,0,0,0,0,-0.603451,-25.9609,-0.661608,20.8731,2.34069,4.49151,-0.110672,
0.108618,-0.171877,-0.0283016,-1.95051,0.276372,-0.0414734,-0.019356,0.217023,0.0473596,0.235754,-0.495444,1.10266,0.525746,0.00205943,-1.86956,-0.0508088,-2.13115,-4.41988,-4.06577,57.5542,0.690564,15.917,-0.245486,17.3265,-50.1099,10.4227,11.7508,-0.000746221,0.0930346,-0.176521,-0.0452416,-1.91574,0.20911,-0.0728163,-0.0193306,0.44672,0.042791,0.51288,-1.02545,1.39404,-0.135473,0.000523906,0,0,0,0,0,0,0,-0.603451,-25.9609,-0.661608,20.8731,2.34069,4.49151,-0.110672,
0.110158,-0.171561,-0.0266361,-1.95455,0.284608,-0.0339423,-0.019296,0.212128,0.0457831,0.23024,-0.497527,1.08802,0.608874,0.00314681,-3.05936,-0.985347,-3.446,-1.30215,-9.14617,51.9551,0.679618,15.8421,0.0023066,17.3469,-48.9664,10.2114,12.0004,0.0119305,0.109081,-0.173982,-0.0278127,-1.95203,0.26169,-0.0661017,-0.0193399,0.507002,0.0104333,0.521836,-1.14582,1.60251,0.558124,-0.00140417,7.53521,-4.04472,1.11947,-15.046,26.0593,86.6996,-0.24101,-3.46783,-26.6353,-3.41094,28.399,0.093075,6.28228,-0.0566557,
0.121785,-0.169607,-0.0140578,-1.97672,0.312237,-0.0406636,-0.0192019,0.218128,0.0516602,0.236522,-0.503306,1.08735,0.652087,0.00367938,3.74984,3.67318,3.92617,-3.61168,-0.421628,27.0082,0.332853,15.6573,0.329451,17.1104,-48.1851,10.2114,12.0004,0.0315665,0.109081,-0.173982,-0.0278127,-1.95203,0.26169,-0.0661017,-0.0193399,0.507002,0.0104333,0.521836,-1.14582,1.60251,0.558124,-0.00140417,0,0,0,0,0,0,0,-3.46783,-26.6353,-3.41094,28.399,0.093075,6.28228,-0.0566557,
0.123556,-0.169119,-0.0121416,-1.98073,0.319862,-0.0335754,-0.0191555,0.218766,0.0535372,0.237125,-0.502843,1.0605,0.698874,0.00410388,0.398735,1.17315,0.376403,0.289155,-16.7779,29.2419,0.265313,15.3759,0.602125,16.7724,-47.4399,10.2114,12.0004,0.0476271,0.109081,-0.173982,-0.0278127,-1.95203,0.26169,-0.0661017,-0.0193399,0.507002,0.0104333,0.521836,-1.14582,1.60251,0.558124,-0.00140417,0,0,0,0,0,0,0,-3.46783,-26.6353,-3.41094,28.399,0.093075,6.28228,-0.0566557,
0.125197,-0.168719,-0.0103626,-1.98457,0.326349,-0.0261054,-0.0191127,0.216048,0.0528271,0.234174,-0.498156,1.01058,0.745849,0.00435378,-1.69851,-0.443789,-1.84406,2.92999,-31.2049,29.3594,0.156187,15.0239,0.876637,16.3618,-46.6987,9.76929,12.0004,0.0661254,0.109081,-0.173982,-0.0278127,-1.95203,0.26169,-0.0661017,-0.0193399,0.507002,0.0104333,0.521836,-1.14582,1.60251,0.558124,-0.00140417,0,0,0,0,0,0,0,-3.46783,-26.6353,-3.41094,28.399,0.093075,6.28228,-0.0566557,
0.126736,-0.168387,-0.00869329,-1.98826,0.331703,-0.0183365,-0.0190703,0.2113,0.0505711,0.229072,-0.490766,0.9423,0.7909,0.00454186,-2.96748,-1.41,-3.18882,4.6183,-42.673,28.1569,0.11755,14.4824,1.0055,15.8606,-45.8656,9.10722,11.9856,0.0711679,0.1252,-0.172186,-0.0102015,-1.99248,0.314984,-0.0322398,-0.0193303,0.456719,0.109327,0.508747,-1.1784,1.52529,1.24208,0.00107239,-6.28538,12.3617,-1.63614,-4.07236,-9.65276,85.4945,0.30957,-4.73736,-30.9041,-5.38664,32.3346,0.25787,5.26055,-0.0703886,
0.137055,-0.165949,0.00267352,-2.0158,0.352089,0.00182396,-0.0191695,0.214481,0.0596272,0.232635,-0.489863,0.873281,0.813748,0.00449124,1.98802,5.66004,2.2271,0.564484,-43.1367,14.2801,-0.0316397,13.885,1.30288,15.2306,-45.1534,8.29606,11.9856,0.0659545,0.1252,-0.172186,-0.0102015,-1.99248,0.314984,-0.0322398,-0.0193303,0.456719,0.109327,0.508747,-1.1784,1.52529,1.24208,0.00107239,0,0,0,0,0,0,0,-4.73736,-30.9041,-5.38664,32.3346,0.25787,5.26055,-0.0703886,
0.138714,-0.16534,0.00447823,-2.01952,0.355766,0.00935556,-0.0191307,0.213076,0.0629305,0.231226,-0.484741,0.790545,0.839289,0.00456215,-0.878304,2.06457,-0.880852,3.20148,-51.7101,15.9628,0.0443223,13.3072,1.65249,14.7729,-44.3904,6.40882,11.9856,0.0602312,0.1252,-0.172186,-0.0102015,-1.99248,0.314984,-0.0322398,-0.0193303,0.456719,0.109327,0.508747,-1.1784,1.52529,1.24208,0.00107239,0,0,0,0,0,0,0,-4.73736,-30.9041,-5.38664,32.3346,0.25787,5.26055,-0.0703886,
0.140249,-0.164848,0.00614888,-2.02309,0.358482,0.0171382,-0.019089,0.208835,0.0626464,0.226747,-0.477075,0.700347,0.865997,0.00469301,-2.65003,-0.177577,-2.79932,4.79078,-56.3734,16.6928,0.0817873,12.8991,1.98282,14.3957,-43.6108,4.90574,11.9856,0.0515421,0.1252,-0.172186,-0.0102015,-1.99248,0.314984,-0.0322398,-0.0193303,0.456719,0.109327,0.508747,-1.1784,1.52529,1.24208,0.00107239,0,0,0,0,0,0,0,-4.73736,-30.9041,-5.38664,32.3346,0.25787,5.26055,-0.0703886,
0.137289,-0.165742,0.00284937,-2.01453,0.340833,0.00134875,-0.019196,0.212926,0.0698469,0.23104,-0.473288,0.619978,0.872752,0.0047061,2.5563,4.50036,2.68328,2.36716,-50.2308,4.22145,0.00818313,12.5135,2.3441,14.0925,-42.1207,2.40534,11.8825,0.0465439,0.140993,-0.169144,0.00711887,-2.03032,0.36597,0.01454,-0.0193052,0.478583,0.0891154,0.484232,-1.0751,1.33132,1.51657,0.00240954,2.73307,-2.52644,-3.06436,12.9119,-24.2465,34.3119,0.167144,-6.66546,-29.8052,-7.18779,26.7288,0.336605,3.74901,-0.00996382,
0.138951,-0.165116,0.00465056,-2.01804,0.342355,0.00884924,-0.0191514,0.211887,0.0715396,0.229862,-0.466306,0.534041,0.885714,0.00487886,-0.649369,1.0579,-0.736484,4.36399,-53.7106,8.10133,0.10797,12.4819,2.46808,14.0336,-41.3618,1.48965,11.8825,0.0472559,0.140993,-0.169144,0.00711887,-2.03032,0.36597,0.01454,-0.0193052,0.478583,0.0891154,0.484232,-1.0751,1.33132,1.51657,0.00240954,0,0,0,0,0,0,0,-6.66546,-29.8052,-7.18779,26.7288,0.336605,3.74901,-0.00996382,
0.140474,-0.164608,0.0063041,-2.02141,0.343193,0.0165205,-0.0191027,0.207584,0.0699216,0.225228,-0.457205,0.448182,0.900352,0.00511996,-2.68929,-1.01125,-2.89612,5.6877,-53.6619,9.14915,0.150689,12.5043,2.52705,14.0198,-40.6216,0.767919,11.8825,0.0471559,0.140993,-0.169144,0.00711887,-2.03032,0.36597,0.01454,-0.0193052,0.478583,0.0891154,0.484232,-1.0751,1.33132,1.51657,0.00240954,0,0,0,0,0,0,0,-6.66546,-29.8052,-7.18779,26.7288,0.336605,3.74901,-0.00996382,
0.141885,-0.164189,0.00783825,-2.02465,0.343491,0.0242281,-0.0190497,0.20133,0.0664152,0.218536,-0.446777,0.365993,0.912973,0.00542177,-3.90859,-2.19148,-4.18246,6.51741,-51.368,7.88792,0.188632,12.5601,2.53347,14.0412,-39.8962,0.15852,11.8825,0.0499671,0.140993,-0.169144,0.00711887,-2.03032,0.36597,0.01454,-0.0193052,0.478583,0.0891154,0.484232,-1.0751,1.33132,1.51657,0.00240954,0,0,0,0,0,0,0,-6.66546,-29.8052,-7.18779,26.7288,0.336605,3.74901,-0.00996382,
0.152862,-0.163658,0.0199033,-2.05008,0.38313,0.051544,-0.0191122,0.205363,0.069353,0.222832,-0.440143,0.317816,0.907159,0.00553706,2.52065,1.83612,2.68485,4.14651,-30.1106,-3.63406,0.0720544,12.6272,2.49918,14.0693,-39.1874,-0.295558,11.8825,0.0513817,0.155688,-0.165017,0.0235962,-2.06612,0.400203,0.0687094,-0.019224,0.460339,0.164367,0.426449,-1.00398,0.5867,1.5633,-0.00264961,-2.28051,9.40647,-7.22286,8.89094,-93.0771,5.8412,-0.632395,-5.64984,-30.1027,-6.48558,29.2203,-0.371097,2.70165,-0.0026396,
0.154456,-0.163149,0.0216339,-2.05325,0.383503,0.0585547,-0.0190591,0.204128,0.0682082,0.22153,-0.431493,0.263575,0.900994,0.00575933,-0.77187,-0.715483,-0.813733,5.40646,-33.9008,-3.85302,0.138922,12.3818,2.49729,13.8473,-38.6104,-0.788418,11.73,0.0631382,0.155688,-0.165017,0.0235962,-2.06612,0.400203,0.0687094,-0.019224,0.460339,0.164367,0.426449,-1.00398,0.5867,1.5633,-0.00264961,0,0,0,0,0,0,0,-5.64984,-30.1027,-6.48558,29.2203,-0.371097,2.70165,-0.0026396,
0.155909,-0.162742,0.023215,-2.05632,0.383416,0.0654795,-0.0190025,0.199623,0.0647322,0.216751,-0.421786,0.20869,0.893915,0.00602202,-2.81545,-2.17253,-2.9868,6.06652,-34.3035,-4.42412,0.164179,12.4398,2.4148,13.867,-37.9259,-1.03907,11.4139,0.0647752,0.155688,-0.165017,0.0235962,-2.06612,0.400203,0.0687094,-0.019224,0.460339,0.164367,0.426449,-1.00398,0.5867,1.5633,-0.00264961,0,0,0,0,0,0,0,-5.64984,-30.1027,-6.48558,29.2203,-0.371097,2.70165,-0.0026396,
0.15725,-0.16241,0.0246775,-2.05928,0.382996,0.0722926,-0.018943,0.193233,0.0600729,0.209965,-0.411621,0.156456,0.885459,0.00630478,-3.99363,-2.91208,-4.24154,6.3535,-32.6462,-5.285,0.176726,12.4854,2.3211,13.8778,-37.248,-1.23754,10.9568,0.0677651,0.155688,-0.165017,0.0235962,-2.06612,0.400203,0.0687094,-0.019224,0.460339,0.164367,0.426449,-1.00398,0.5867,1.5633,-0.00264961,0,0,0,0,0,0,0,-5.64984,-30.1027,-6.48558,29.2203,-0.371097,2.70165,-0.0026396,
0.166131,-0.158646,0.0349599,-2.08516,0.403786,0.102624,-0.0189696,0.193503,0.0664978,0.210437,-0.408783,0.115569,0.859433,0.00645518,0.168612,4.01559,0.295231,1.77374,-25.5539,-16.2665,0.0939984,12.5098,2.22207,13.8661,-36.5762,-1.3593,10.5306,0.0695863,0.155688,-0.165017,0.0235962,-2.06612,0.400203,0.0687094,-0.019224,0.460339,0.164367,0.426449,-1.00398,0.5867,1.5633,-0.00264961,0,0,0,0,0,0,0,-5.64984,-30.1027,-6.48558,29.2203,-0.371097,2.70165,-0.0026396,
0.167541,-0.158067,0.0365003,-2.0882,0.403163,0.108565,-0.0189105,0.190049,0.0676582,0.206859,-0.403012,0.0768726,0.83606,0.00664199,-2.159,0.725224,-2.2364,3.60644,-24.1855,-14.6082,0.116755,12.4194,2.24476,13.8072,-36.1775,-1.48835,9.94641,0.076536,0.169265,-0.160363,0.0398766,-2.09782,0.410894,0.12596,-0.0191713,0.379521,0.176018,0.441058,-0.893644,0.247327,1.78483,-0.000817026,-10.1022,1.45631,1.82611,13.7917,-42.4216,27.6903,0.229073,-4.76117,-29.2815,-6.03728,24.9594,0.495907,0.474173,-0.0026396,
0.168836,-0.157606,0.0379179,-2.09112,0.402383,0.114412,-0.0188501,0.184434,0.0656644,0.200928,-0.395429,0.0420098,0.815033,0.00682406,-3.50906,-1.24613,-3.70685,4.73961,-21.7892,-13.1418,0.113793,12.3919,2.14733,13.7459,-35.5135,-1.51614,9.56881,0.0776914,0.169265,-0.160363,0.0398766,-2.09782,0.410894,0.12596,-0.0191713,0.379521,0.176018,0.441058,-0.893644,0.247327,1.78483,-0.000817026,0,0,0,0,0,0,0,-4.76117,-29.2815,-6.03728,24.9594,0.495907,0.474173,-0.0026396,
0.178534,-0.154429,0.0500598,-2.115,0.409639,0.160285,-0.0189073,0.181945,0.0690831,0.198463,-0.388938,0.016672,0.789994,0.00686258,-1.55612,2.13668,-1.54033,4.05707,-15.8361,-15.6494,0.0240797,12.2617,1.96831,13.5533,-34.1925,-1.48723,8.87345,0.0793129,0.169265,-0.160363,0.0398766,-2.09782,0.410894,0.12596,-0.0191713,0.379521,0.176018,0.441058,-0.893644,0.247327,1.78483,-0.000817026,0,0,0,0,0,0,0,-4.76117,-29.2815,-6.03728,24.9594,0.495907,0.474173,-0.0026396,
0.179787,-0.153912,0.0514348,-2.11779,0.408892,0.165589,-0.0188498,0.176886,0.0681793,0.193148,-0.380748,-0.00532996,0.764589,0.00692782,-3.16135,-0.564878,-3.32222,5.11829,-13.7513,-15.8782,0.0407717,12.1631,1.88902,13.4255,-33.5345,-1.44225,8.55293,0.0796213,0.169265,-0.160363,0.0398766,-2.09782,0.410894,0.12596,-0.0191713,0.379521,0.176018,0.441058,-0.893644,0.247327,1.78483,-0.000817026,0,0,0,0,0,0,0,-4.76117,-29.2815,-6.03728,24.9594,0.495907,0.474173,-0.0026396,
0.180947,-0.153501,0.0527082,-2.12047,0.408113,0.170731,-0.018792,0.1705,0.0648359,0.186352,-0.371597,-0.0237536,0.740233,0.00698603,-3.99151,-2.08963,-4.2471,5.71958,-11.5148,-15.222,0.0363856,12.0219,1.83974,13.2971,-33.0752,-1.34907,8.05684,0.0818972,0.182737,-0.155916,0.0532994,-2.12698,0.41355,0.183481,-0.0190857,0.273629,0.166817,0.465228,-0.79071,0.0331091,1.61918,0.00235529,-13.2366,-1.15009,3.02129,12.8666,-26.7773,-20.7064,0.39654,-1.49212,-30.0789,-2.28819,24.0628,1.1734,-0.195993,0.00376909,
0.182033,-0.153165,0.0539025,-2.12305,0.407327,0.175739,-0.0187346,0.163567,0.0602607,0.178939,-0.361963,-0.0386521,0.717368,0.00702406,-4.33281,-2.85949,-4.63315,6.02134,-9.31158,-14.2911,0.0237662,11.8872,1.77529,13.1353,-32.4195,-1.27923,7.76935,0.0813289,0.182737,-0.155916,0.0532994,-2.12698,0.41355,0.183481,-0.0190857,0.273629,0.166817,0.465228,-0.79071,0.0331091,1.61918,0.00235529,0,0,0,0,0,0,0,-1.49212,-30.0789,-2.28819,24.0628,1.1734,-0.195993,0.00376909,
0.19101,-0.150613,0.0624481,-2.14274,0.410139,0.213406,-0.0188342,0.161767,0.0630618,0.177143,-0.356503,-0.0477552,0.691213,0.0069121,-1.12503,1.75072,-1.12241,3.41265,-5.68941,-16.3467,-0.0699759,11.7379,1.71809,12.9592,-31.7647,-1.19936,7.49811,0.0801411,0.182737,-0.155916,0.0532994,-2.12698,0.41355,0.183481,-0.0190857,0.273629,0.166817,0.465228,-0.79071,0.0331091,1.61918,0.00235529,0,0,0,0,0,0,0,-1.49212,-30.0789,-2.28819,24.0628,1.1734,-0.195993,0.00376909,
0.192142,-0.150145,0.0636935,-2.1453,0.409486,0.217906,-0.0187819,0.157725,0.0621288,0.172851,-0.349313,-0.0545114,0.665464,0.00683645,-2.52659,-0.583124,-2.68279,4.49328,-4.22265,-16.0931,-0.0472819,11.5767,1.66728,12.7727,-31.1108,-1.12095,7.23964,0.0788758,0.182737,-0.155916,0.0532994,-2.12698,0.41355,0.183481,-0.0190857,0.273629,0.166817,0.465228,-0.79071,0.0331091,1.61918,0.00235529,0,0,0,0,0,0,0,-1.49212,-30.0789,-2.28819,24.0628,1.1734,-0.195993,0.00376909,
0.193196,-0.14977,0.0648526,-2.14777,0.408859,0.222267,-0.01873,0.152514,0.0590993,0.167258,-0.341083,-0.0592831,0.641406,0.00676573,-3.25671,-1.89346,-3.49579,5.14388,-2.98231,-15.0361,-0.0442008,11.4049,1.58817,12.5959,-30.5166,-0.948612,6.86335,0.0780421,0.194814,-0.152161,0.0645839,-2.15505,0.412838,0.23418,-0.0190009,0.328333,0.142698,0.320933,-0.773618,-0.0511641,1.38908,0.00160803,6.83804,-3.0149,-18.0368,2.13652,-10.5342,-28.7624,-0.0934074,-0.932736,-29.2537,-1.43523,24.884,0.971981,0.632559,-0.0163725,
0.194187,-0.14946,0.0659445,-2.15014,0.408262,0.226517,-0.0186791,0.146803,0.0550183,0.161104,-0.332272,-0.0623715,0.619369,0.00668536,-3.5692,-2.55059,-3.84587,5.50708,-1.93026,-13.7731,-0.0502318,11.225,1.54869,12.3922,-29.8642,-0.872084,6.63033,0.076256,0.194814,-0.152161,0.0645839,-2.15505,0.412838,0.23418,-0.0190009,0.328333,0.142698,0.320933,-0.773618,-0.0511641,1.38908,0.00160803,0,0,0,0,0,0,0,-0.932736,-29.2537,-1.43523,24.884,0.971981,0.632559,-0.0163725,
0.202139,-0.147194,0.0726749,-2.16998,0.408848,0.258233,-0.0187676,0.14527,0.0583815,0.159543,-0.328209,-0.0648893,0.59063,0.0064907,-0.958556,2.10196,-0.975997,2.53934,-1.57362,-17.962,-0.121657,11.0381,1.51409,12.182,-29.2123,-0.797223,6.40976,0.074153,0.194814,-0.152161,0.0645839,-2.15505,0.412838,0.23418,-0.0190009,0.328333,0.142698,0.320933,-0.773618,-0.0511641,1.38908,0.00160803,0,0,0,0,0,0,0,-0.932736,-29.2537,-1.43523,24.884,0.971981,0.632559,-0.0163725,
0.203165,-0.146738,0.0738054,-2.17236,0.408309,0.261922,-0.018722,0.141867,0.0581133,0.155897,-0.322021,-0.0653853,0.564728,0.00633207,-2.12692,-0.167587,-2.27885,3.86757,-0.310021,-16.1889,-0.0991436,10.8458,1.4834,11.9672,-28.5612,-0.728883,6.19906,0.07197,0.194814,-0.152161,0.0645839,-2.15505,0.412838,0.23418,-0.0190009,0.328333,0.142698,0.320933,-0.773618,-0.0511641,1.38908,0.00160803,0,0,0,0,0,0,0,-0.932736,-29.2537,-1.43523,24.884,0.971981,0.632559,-0.0163725,
0.204125,-0.146368,0.0748628,-2.17463,0.407818,0.265532,-0.0186773,0.137478,0.0557433,0.151153,-0.314494,-0.0645851,0.542046,0.00618381,-2.74301,-1.48128,-2.96463,4.70404,0.500155,-14.1758,-0.092664,10.6605,1.37785,11.7827,-27.9024,-0.582775,5.90355,0.0699908,0.204838,-0.148361,0.0766282,-2.18048,0.409796,0.274936,-0.0189402,0.37587,0.119339,0.247646,-0.708134,-0.10989,1.10816,0.003617,5.94218,-2.91982,-9.16088,8.18547,-7.34078,-35.1149,0.251121,-0.984311,-30.4042,-1.98668,26.3043,2.14477,1.70739,0.00376909,
0.205031,-0.146061,0.0758628,-2.17682,0.407366,0.26908,-0.0186338,0.132651,0.0522614,0.145922,-0.306165,-0.0629701,0.522328,0.00603358,-3.01663,-2.17618,-3.26951,5.20589,1.00938,-12.3239,-0.0938973,10.4603,1.35362,11.5612,-27.2526,-0.526288,5.71241,0.0675595,0.204838,-0.148361,0.0766282,-2.18048,0.409796,0.274936,-0.0189402,0.37587,0.119339,0.247646,-0.708134,-0.10989,1.10816,0.003617,0,0,0,0,0,0,0,-0.984311,-30.4042,-1.98668,26.3043,2.14477,1.70739,0.00376909,
0.211805,-0.143986,0.0842937,-2.19429,0.406214,0.293407,-0.0187527,0.132426,0.0548893,0.1457,-0.302214,-0.0612158,0.493357,0.00576627,-0.14082,1.64245,-0.138665,2.46933,1.09645,-18.1071,-0.167068,10.2573,1.33203,11.3372,-26.6029,-0.475677,5.53083,0.0649994,0.204838,-0.148361,0.0766282,-2.18048,0.409796,0.274936,-0.0189402,0.37587,0.119339,0.247646,-0.708134,-0.10989,1.10816,0.003617,0,0,0,0,0,0,0,-0.984311,-30.4042,-1.98668,26.3043,2.14477,1.70739,0.00376909,
0.212772,-0.143565,0.0853588,-2.19646,0.405836,0.296389,-0.0187152,0.130115,0.054415,0.143189,-0.296101,-0.0584257,0.469246,0.0055517,-1.44423,-0.296428,-1.5695,3.82088,1.74379,-15.0691,-0.134106,10.0523,1.31231,11.1118,-25.9539,-0.433121,5.35702,0.0624235,0.204838,-0.148361,0.0766282,-2.18048,0.409796,0.274936,-0.0189402,0.37587,0.119339,0.247646,-0.708134,-0.10989,1.10816,0.003617,0,0,0,0,0,0,0,-0.984311,-30.4042,-1.98668,26.3043,2.14477,1.70739,0.00376909,
0.213674,-0.143221,0.0863523,-2.19853,0.405492,0.299354,-0.0186783,0.126623,0.0521322,0.139388,-0.288614,-0.0553449,0.449519,0.00536201,-2.18284,-1.4268,-2.37549,4.67911,1.92547,-12.3293,-0.118553,9.90474,1.16142,10.9665,-25.2361,-0.306774,5.13503,0.0596559,0.213625,-0.145136,0.08782,-2.20427,0.406078,0.307272,-0.0189172,0.29928,0.0947429,0.270925,-0.66271,-0.0940637,0.850911,8.84245e-05,-9.57373,-3.07454,2.90981,5.67801,1.97832,-32.1556,-0.441073,-0.95654,-30.3764,-2.23662,26.8796,2.22992,2.25762,0.0101778,
0.220107,-0.141224,0.0949538,-2.21705,0.403006,0.320893,-0.0187614,0.125852,0.0538189,0.13854,-0.283091,-0.0531033,0.418741,0.00505264,-0.481354,1.05424,-0.529899,3.45211,1.401,-19.2363,-0.193359,9.4885,1.12919,10.5112,-23.9381,-0.259118,4.82583,0.0544274,0.213625,-0.145136,0.08782,-2.20427,0.406078,0.307272,-0.0189172,0.29928,0.0947429,0.270925,-0.66271,-0.0940637,0.850911,8.84245e-05,0,0,0,0,0,0,0,-0.95654,-30.3764,-2.23662,26.8796,2.22992,2.25762,0.0101778,
0.221008,-0.140831,0.0959466,-2.21902,0.402688,0.323293,-0.0187308,0.123209,0.0528643,0.135654,-0.275666,-0.0504198,0.394977,0.00480695,-1.65223,-0.596661,-1.80408,4.64072,1.67722,-14.8525,-0.153553,9.27945,1.11432,10.2832,-23.2886,-0.247568,4.68136,0.0518861,0.213625,-0.145136,0.08782,-2.20427,0.406078,0.307272,-0.0189172,0.29928,0.0947429,0.270925,-0.66271,-0.0940637,0.850911,8.84245e-05,0,0,0,0,0,0,0,-0.95654,-30.3764,-2.23662,26.8796,2.22992,2.25762,0.0101778,
0.221846,-0.140508,0.0968709,-2.22088,0.402383,0.325728,-0.0187007,0.119512,0.0503692,0.131629,-0.267081,-0.04797,0.376871,0.00459749,-2.31063,-1.55942,-2.51548,5.36529,1.53109,-11.3164,-0.130913,9.07007,1.10013,10.055,-22.6385,-0.24342,4.54368,0.0493694,0.213625,-0.145136,0.08782,-2.20427,0.406078,0.307272,-0.0189172,0.29928,0.0947429,0.270925,-0.66271,-0.0940637,0.850911,8.84245e-05,0,0,0,0,0,0,0,-0.95654,-30.3764,-2.23662,26.8796,2.22992,2.25762,0.0101778,
0.222633,-0.140238,0.0977402,-2.22264,0.402074,0.328191,-0.0186715,0.115284,0.0470599,0.127036,-0.25784,-0.0460918,0.363066,0.00440995,-2.64234,-2.06834,-2.87046,5.77574,1.17392,-8.62802,-0.117215,8.89021,0.95542,9.87176,-21.9006,-0.180217,4.38058,0.0468516,0.222134,-0.141597,0.0978973,-2.22612,0.403276,0.333634,-0.0189121,0.193258,0.0784498,0.314837,-0.611165,-0.071161,0.688552,0.000287992,-13.2528,-2.03664,5.48905,6.44318,2.86284,-20.295,0.024946,-1.00811,-31.3524,-2.16124,27.8238,2.1997,2.38305,0.0101778,
0.228773,-0.137683,0.105225,-2.23917,0.399798,0.345731,-0.0187638,0.112443,0.0467136,0.123929,-0.248604,-0.0468406,0.338142,0.0041263,-1.77563,-0.216388,-1.94207,5.77259,-0.467984,-15.5779,-0.177278,8.47233,0.92805,9.41753,-20.5953,-0.212841,4.13417,0.0422929,0.222134,-0.141597,0.0978973,-2.22612,0.403276,0.333634,-0.0189121,0.193258,0.0784498,0.314837,-0.611165,-0.071161,0.688552,0.000287992,0,0,0,0,0,0,0,-1.00811,-31.3524,-2.16124,27.8238,2.1997,2.38305,0.0101778,
0.229523,-0.137384,0.106054,-2.24076,0.39939,0.347701,-0.0187399,0.108704,0.0448412,0.119857,-0.238577,-0.0476737,0.319753,0.0038971,-2.33686,-1.1703,-2.5448,6.26655,-0.520701,-11.4932,-0.143253,8.26453,0.914279,9.19177,-19.9404,-0.240255,4.01882,0.040162,0.222134,-0.141597,0.0978973,-2.22612,0.403276,0.333634,-0.0189121,0.193258,0.0784498,0.314837,-0.611165,-0.071161,0.688552,0.000287992,0,0,0,0,0,0,0,-1.00811,-31.3524,-2.16124,27.8238,2.1997,2.38305,0.0101778,
0.230225,-0.137134,0.106831,-2.24225,0.398961,0.349717,-0.0187164,0.104528,0.0421217,0.115322,-0.228184,-0.0488635,0.306198,0.00370468,-2.61011,-1.6997,-2.83476,6.49609,-0.743628,-8.47172,-0.120259,8.05809,0.900085,8.96763,-19.284,-0.275427,3.90779,0.0381943,0.222134,-0.141597,0.0978973,-2.22612,0.403276,0.333634,-0.0189121,0.193258,0.0784498,0.314837,-0.611165,-0.071161,0.688552,0.000287992,0,0,0,0,0,0,0,-1.00811,-31.3524,-2.16124,27.8238,2.1997,2.38305,0.0101778,
0.230888,-0.136922,0.107567,-2.24365,0.398505,0.35176,-0.0186934,0.100204,0.0390001,0.110634,-0.217703,-0.0504755,0.296044,0.00353882,-2.70234,-1.95096,-2.92947,6.5504,-1.00754,-6.34602,-0.103665,7.85355,0.885532,8.74536,-18.6257,-0.316046,3.80087,0.036327,0.222134,-0.141597,0.0978973,-2.22612,0.403276,0.333634,-0.0189121,0.193258,0.0784498,0.314837,-0.611165,-0.071161,0.688552,0.000287992,0,0,0,0,0,0,0,-1.00811,-31.3524,-2.16124,27.8238,2.1997,2.38305,0.0101778,
0.235523,-0.13531,0.112707,-2.25614,0.397642,0.363489,-0.0188038,0.100355,0.0415601,0.110771,-0.213896,-0.0535449,0.273456,0.00332589,0.0945002,1.60002,0.0855274,2.37949,-1.91835,-14.1176,-0.13308,7.66717,0.757304,8.55267,-17.8668,-0.304408,3.68232,0.034544,0.230179,-0.138528,0.106801,-2.24589,0.401165,0.355706,-0.0189122,0.151773,0.0550748,0.312691,-0.588933,-0.0615929,0.590831,-0.000249378,-5.18571,-2.92187,-0.26828,2.77903,1.19602,-12.2151,-0.0671713,-0.702633,-31.2016,-1.78832,29.1211,2.15118,2.35009,0.0101778,
0.236261,-0.134974,0.113522,-2.25761,0.397127,0.365042,-0.0187833,0.0987262,0.0416656,0.108985,-0.20786,-0.0557174,0.257601,0.00317335,-1.01829,0.0659159,-1.11659,3.77232,-1.35783,-9.90938,-0.0953421,7.46858,0.741349,8.3364,-17.2048,-0.353681,3.58082,0.0329653,0.230179,-0.138528,0.106801,-2.24589,0.401165,0.355706,-0.0189122,0.151773,0.0550748,0.312691,-0.588933,-0.0615929,0.590831,-0.000249378,0,0,0,0,0,0,0,-0.702633,-31.2016,-1.78832,29.1211,2.15118,2.35009,0.0101778,
0.236943,-0.134696,0.114277,-2.25897,0.396608,0.366667,-0.0187625,0.0960406,0.0402591,0.106064,-0.200394,-0.0575349,0.246697,0.00305784,-1.6785,-0.8791,-1.82566,4.66611,-1.13591,-6.81514,-0.0721895,7.27423,0.724367,8.12436,-16.541,-0.405148,3.48026,0.0315528,0.230179,-0.138528,0.106801,-2.24589,0.401165,0.355706,-0.0189122,0.151773,0.0550748,0.312691,-0.588933,-0.0615929,0.590831,-0.000249378,0,0,0,0,0,0,0,-0.702633,-31.2016,-1.78832,29.1211,2.15118,2.35009,0.0101778,
0.237581,-0.134466,0.114983,-2.26024,0.396082,0.368339,-0.0187417,0.0927705,0.03798,0.102519,-0.192048,-0.0591737,0.23916,0.00296837,-2.04381,-1.42441,-2.21548,5.2162,-1.02425,-4.71083,-0.0559222,7.08508,0.706475,7.91734,-15.8756,-0.455494,3.37961,0.0302956,0.230179,-0.138528,0.106801,-2.24589,0.401165,0.355706,-0.0189122,0.151773,0.0550748,0.312691,-0.588933,-0.0615929,0.590831,-0.000249378,0,0,0,0,0,0,0,-0.702633,-31.2016,-1.78832,29.1211,2.15118,2.35009,0.0101778,
0.242923,-0.133128,0.119734,-2.27126,0.396664,0.380733,-0.0188229,0.0928332,0.0383704,0.102502,-0.18609,-0.0597795,0.223375,0.00281502,0.0392003,0.243993,-0.0104878,3.72401,-0.37863,-9.86552,-0.0958397,6.87605,0.537218,7.69453,-15.1169,-0.468934,3.2619,0.0291425,0.23792,-0.135617,0.114231,-2.26286,0.399647,0.373743,-0.0189096,0.146794,0.0447202,0.293572,-0.472746,-0.0396992,0.503022,0.00130198,-0.622288,-1.29433,-2.38989,14.5234,2.73671,-10.976,0.19392,-0.805783,-30.4796,-1.66136,25.8798,1.43066,1.5545,-0.0227812,
0.243599,-0.132868,0.120479,-2.27245,0.39618,0.382062,-0.0188043,0.0911582,0.037199,0.100639,-0.178709,-0.0599359,0.211934,0.00271702,-1.04691,-0.732101,-1.1645,4.61299,-0.0977262,-7.1502,-0.0612533,6.70002,0.517178,7.50018,-14.4493,-0.509749,3.15601,0.0282572,0.23792,-0.135617,0.114231,-2.26286,0.399647,0.373743,-0.0189096,0.146794,0.0447202,0.293572,-0.472746,-0.0396992,0.503022,0.00130198,0,0,0,0,0,0,0,-0.805783,-30.4796,-1.66136,25.8798,1.43066,1.5545,-0.0227812,
0.24422,-0.132653,0.121167,-2.27355,0.395707,0.383421,-0.0187848,0.0884611,0.0351253,0.0976976,-0.170463,-0.0597799,0.203524,0.00266223,-1.68567,-1.2961,-1.83832,5.15357,0.0975035,-5.25648,-0.0342457,6.53149,0.496085,7.31296,-13.7816,-0.540965,3.04473,0.0275214,0.23792,-0.135617,0.114231,-2.26286,0.399647,0.373743,-0.0189096,0.146794,0.0447202,0.293572,-0.472746,-0.0396992,0.503022,0.00130198,0,0,0,0,0,0,0,-0.805783,-30.4796,-1.66136,25.8798,1.43066,1.5545,-0.0227812,
0.244798,-0.132474,0.121807,-2.27457,0.395252,0.384786,-0.0187636,0.0852043,0.0325843,0.0941695,-0.161738,-0.0591805,0.196939,0.00266084,-2.03553,-1.58809,-2.20507,5.45318,0.3746,-4.11585,-0.00086586,6.37075,0.474457,7.13321,-13.1144,-0.5601,2.92656,0.0270835,0.23792,-0.135617,0.114231,-2.26286,0.399647,0.373743,-0.0189096,0.146794,0.0447202,0.293572,-0.472746,-0.0396992,0.503022,0.00130198,0,0,0,0,0,0,0,-0.805783,-30.4796,-1.66136,25.8798,1.43066,1.5545,-0.0227812,
0.249477,-0.130411,0.126355,-2.28424,0.396026,0.393886,-0.0188311,0.0850871,0.033058,0.093947,-0.15576,-0.0569405,0.180421,0.00259388,-0.0732229,0.29606,-0.139088,3.73627,1.39999,-10.3237,-0.0418527,6.18135,0.356586,6.92553,-12.3564,-0.529238,2.79928,0.0267422,0.244867,-0.132638,0.121335,-2.27724,0.398468,0.388687,-0.0189111,0.276608,0.0502772,0.136098,-0.401152,-0.0376005,0.417574,0.000501497,16.2267,0.694626,-19.6842,8.94924,0.262342,-10.681,-0.100061,-1.84521,-32.2252,-2.81188,28.5458,1.10016,2.42333,-0.0301054,
0.250087,-0.130185,0.127028,-2.2852,0.395681,0.39482,-0.018812,0.083331,0.0321033,0.0919968,-0.148539,-0.0541761,0.167693,0.0025535,-1.09754,-0.596687,-1.21885,4.51321,1.72774,-7.95497,-0.0252368,6.03302,0.334934,6.75727,-11.6947,-0.514978,2.66234,0.026427,0.244867,-0.132638,0.121335,-2.27724,0.398468,0.388687,-0.0189111,0.276608,0.0502772,0.136098,-0.401152,-0.0376005,0.417574,0.000501497,0,0,0,0,0,0,0,-1.84521,-32.2252,-2.81188,28.5458,1.10016,2.42333,-0.0301054,
0.250646,-0.129999,0.127647,-2.28607,0.395344,0.395768,-0.018791,0.0806393,0.0303402,0.0890718,-0.140563,-0.051779,0.157856,0.00256649,-1.68232,-1.10193,-1.82813,4.98477,1.49822,-6.14794,0.00811817,5.89273,0.315806,6.59835,-11.0376,-0.49261,2.51879,0.0266787,0.244867,-0.132638,0.121335,-2.27724,0.398468,0.388687,-0.0189111,0.276608,0.0502772,0.136098,-0.401152,-0.0376005,0.417574,0.000501497,0,0,0,0,0,0,0,-1.84521,-32.2252,-2.81188,28.5458,1.10016,2.42333,-0.0301054,
0.251164,-0.129843,0.128222,-2.28686,0.395016,0.39674,-0.0187621,0.0774653,0.0281696,0.0856423,-0.132302,-0.0496233,0.150575,0.00277766,-1.98376,-1.35666,-2.14345,5.16332,1.3473,-4.55073,0.131981,5.7543,0.298239,6.43961,-10.3893,-0.448014,2.36259,0.0284211,0.244867,-0.132638,0.121335,-2.27724,0.398468,0.388687,-0.0189111,0.276608,0.0502772,0.136098,-0.401152,-0.0376005,0.417574,0.000501497,0,0,0,0,0,0,0,-1.84521,-32.2252,-2.81188,28.5458,1.10016,2.42333,-0.0301054,
0.24929,-0.130305,0.12615,-2.28337,0.396298,0.391882,-0.0188073,0.0777057,0.0297916,0.0858009,-0.127715,-0.0471652,0.133337,0.00304396,0.150244,1.01373,0.0991162,2.8669,1.53633,-10.774,0.166439,5.56438,0.182642,6.23264,-9.67752,-0.350926,2.18997,0.0285311,0.250574,-0.130246,0.12875,-2.28902,0.397248,0.401116,-0.0189192,0.232192,0.071482,0.124159,-0.314601,-0.0326782,0.319358,-0.00207525,-5.55203,2.6506,-1.49244,10.8189,0.615287,-12.277,-0.322093,-1.51593,-30.0551,-2.58574,26.9272,1.07635,2.31072,0.0303194,
0.249845,-0.130073,0.126762,-2.28416,0.396079,0.392488,-0.0187884,0.0760546,0.0296403,0.0839438,-0.121921,-0.0431934,0.121816,0.00290816,-1.03192,-0.0945186,-1.16066,3.62155,2.48237,-7.20028,-0.0848731,5.3926,0.172063,6.04379,-9.06048,-0.307746,2.02719,0.0277015,0.250574,-0.130246,0.12875,-2.28902,0.397248,0.401116,-0.0189192,0.232192,0.071482,0.124159,-0.314601,-0.0326782,0.319358,-0.00207525,0,0,0,0,0,0,0,-1.51593,-30.0551,-2.58574,26.9272,1.07635,2.31072,0.0303194,
0.250352,-0.129879,0.127323,-2.28486,0.395733,0.393251,-0.0187749,0.0735086,0.0285393,0.0811899,-0.115165,-0.043217,0.116534,0.00266221,-1.59128,-0.688111,-1.7212,4.22251,-0.0147648,-3.30124,-0.15372,5.22145,0.189725,5.86724,-8.44362,-0.346018,1.90269,0.0284515,0.250574,-0.130246,0.12875,-2.28902,0.397248,0.401116,-0.0189192,0.232192,0.071482,0.124159,-0.314601,-0.0326782,0.319358,-0.00207525,0,0,0,0,0,0,0,-1.51593,-30.0551,-2.58574,26.9272,1.07635,2.31072,0.0303194,
0.250816,-0.129719,0.127839,-2.2855,0.395382,0.394108,-0.0187555,0.0704182,0.0268517,0.0778553,-0.107971,-0.0433494,0.11463,0.00261522,-1.93146,-1.05478,-2.08409,4.49578,-0.0827818,-1.18986,-0.0293694,5.05816,0.208825,5.68933,-7.85208,-0.330313,1.84734,0.0382512,0.250574,-0.130246,0.12875,-2.28902,0.397248,0.401116,-0.0189192,0.232192,0.071482,0.124159,-0.314601,-0.0326782,0.319358,-0.00207525,0,0,0,0,0,0,0,-1.51593,-30.0551,-2.58574,26.9272,1.07635,2.31072,0.0303194,
0.254363,-0.127991,0.132887,-2.29395,0.395417,0.403853,-0.0188371,0.0696927,0.0281173,0.0770131,-0.103537,-0.0408316,0.104885,0.0024176,-0.453475,0.790981,-0.526374,2.7717,1.57367,-6.09064,-0.123511,4.7784,0.130745,5.38093,-7.19468,-0.228606,1.83614,0.0473301,0.255182,-0.128017,0.135437,-2.29869,0.396181,0.409169,-0.0189153,0.100675,0.0901366,0.206077,-0.230345,-0.0461185,0.150408,-0.00165152,-16.4396,2.33183,10.2398,10.5321,-1.68005,-21.1188,0.0529661,-1.3136,-30.551,-2.46276,27.2009,1.52771,2.42974,0.0239107,
0.254836,-0.12778,0.133411,-2.29455,0.395264,0.404418,-0.0188246,0.0675808,0.0277676,0.074715,-0.0978349,-0.0365112,0.0980134,0.00224609,-1.31991,-0.21852,-1.43632,3.56361,2.70024,-4.29494,-0.107196,4.40028,0.0382903,4.96247,-6.65651,-0.100951,1.82716,0.0281805,0.255182,-0.128017,0.135437,-2.29869,0.396181,0.409169,-0.0189153,0.100675,0.0901366,0.206077,-0.230345,-0.0461185,0.150408,-0.00165152,0,0,0,0,0,0,0,-1.3136,-30.551,-2.46276,27.2009,1.52771,2.42974,0.0239107,
0.255265,-0.127608,0.13389,-2.29506,0.395065,0.404992,-0.0188117,0.0647892,0.0265012,0.0717278,-0.0910798,-0.0341781,0.0927763,0.00211839,-1.74474,-0.791497,-1.867,4.22192,1.45818,-3.27319,-0.079809,4.18166,0.0936765,4.80923,-6.00507,-0.619788,2.07964,0.0154901,0.255182,-0.128017,0.135437,-2.29869,0.396181,0.409169,-0.0189153,0.100675,0.0901366,0.206077,-0.230345,-0.0461185,0.150408,-0.00165152,0,0,0,0,0,0,0,-1.3136,-30.551,-2.46276,27.2009,1.52771,2.42974,0.0239107,
0.258505,-0.125821,0.139092,-2.30264,0.394576,0.41022,-0.0188531,0.0634688,0.02747,0.0702255,-0.0859983,-0.0294311,0.0799507,0.00206701,-0.825297,0.605475,-0.938943,3.17596,2.96687,-8.01599,-0.0321168,4.03139,-0.0145489,4.54023,-5.08773,-0.251671,1.89674,0.023139,0.255182,-0.128017,0.135437,-2.29869,0.396181,0.409169,-0.0189153,0.100675,0.0901366,0.206077,-0.230345,-0.0461185,0.150408,-0.00165152,0,0,0,0,0,0,0,-1.3136,-30.551,-2.46276,27.2009,1.52771,2.42974,0.0239107,
0.258912,-0.12562,0.139544,-2.30308,0.394657,0.410499,-0.0188393,0.0609593,0.0269915,0.0674836,-0.0799273,-0.0215348,0.0709332,0.00199753,-1.56844,-0.299081,-1.71372,3.79439,4.9352,-5.63598,-0.0434202,3.92548,-0.0933546,4.43375,-4.5475,-0.176667,1.76163,0.0201321,0.260809,-0.12616,0.139587,-2.30604,0.395201,0.41355,-0.018919,0.0554285,0.0510709,0.231276,-0.196604,-0.0180823,0.127451,-0.00159188,-5.65578,-4.88322,3.14987,4.21756,3.50454,-2.86959,0.00745503,-0.424923,-29.2537,-1.23686,25.5069,1.62567,2.21093,0.0376436,
0.25928,-0.125457,0.139955,-2.30346,0.39474,0.41087,-0.0188287,0.057956,0.0256694,0.0642675,-0.0732619,-0.0151402,0.0660237,0.00186312,-1.87702,-0.82626,-2.01003,4.16584,3.99661,-3.06842,-0.0840071,3.77826,-0.0458147,4.31942,-4.03133,-0.464232,1.60493,0.0166405,0.260809,-0.12616,0.139587,-2.30604,0.395201,0.41355,-0.018919,0.0554285,0.0510709,0.231276,-0.196604,-0.0180823,0.127451,-0.00159188,0,0,0,0,0,0,0,-0.424923,-29.2537,-1.23686,25.5069,1.62567,2.21093,0.0376436,
0.259611,-0.125326,0.140326,-2.30378,0.395005,0.411282,-0.0188164,0.0546298,0.0238296,0.0606843,-0.0665875,-0.00549279,0.063117,0.00179774,-2.07886,-1.14991,-2.23949,4.17153,6.02965,-1.81666,-0.0408606,3.72529,-0.0299216,4.21373,-3.57252,-0.14824,1.44862,0.0288063,0.260809,-0.12616,0.139587,-2.30604,0.395201,0.41355,-0.018919,0.0554285,0.0510709,0.231276,-0.196604,-0.0180823,0.127451,-0.00159188,0,0,0,0,0,0,0,-0.424923,-29.2537,-1.23686,25.5069,1.62567,2.21093,0.0376436,
0.263995,-0.12457,0.143055,-2.30903,0.391504,0.417398,-0.0188511,0.0545295,0.0238176,0.0604282,-0.0626603,-0.0181739,0.0760957,0.00157026,-0.0627059,-0.00748642,-0.160064,2.45447,-7.92568,8.11164,-0.142176,3.43967,-0.220587,3.87591,-3.06714,-1.28859,2.76047,0.0278904,0.260809,-0.12616,0.139587,-2.30604,0.395201,0.41355,-0.018919,0.0554285,0.0510709,0.231276,-0.196604,-0.0180823,0.127451,-0.00159188,0,0,0,0,0,0,0,-0.424923,-29.2537,-1.23686,25.5069,1.62567,2.21093,0.0376436,
0.264365,-0.12442,0.143465,-2.30934,0.391182,0.418479,-0.0188457,0.0528826,0.0227978,0.0585978,-0.0578342,-0.0225879,0.0878914,0.00139034,-1.02932,-0.637364,-1.14401,3.01631,-2.75878,7.37231,-0.112452,3.25845,-0.239004,3.69703,-2.56437,-1.13963,2.68071,0.0242794,0.26544,-0.12485,0.143386,-2.31174,0.39443,0.417397,-0.0189178,0.160971,0.00776627,0.0676819,-0.158412,-0.0281844,0.101048,-0.00091438,13.1928,-5.41308,-20.4493,4.77399,-1.26277,-3.30042,0.0846871,-1.61908,-29.0315,-2.38738,25.8322,1.79687,2.08459,0.017502,
0.264689,-0.124301,0.143828,-2.30958,0.390971,0.419582,-0.0188393,0.050404,0.0212031,0.055946,-0.0522797,-0.0233467,0.0978763,0.00127436,-1.54916,-0.996728,-1.65737,3.47154,-0.474254,6.24059,-0.0724868,3.06327,-0.224058,3.55335,-2.12189,-1.419,2.77497,0.0156011,0.26544,-0.12485,0.143386,-2.31174,0.39443,0.417397,-0.0189178,0.160971,0.00776627,0.0676819,-0.158412,-0.0281844,0.101048,-0.00091438,0,0,0,0,0,0,0,-1.61908,-29.0315,-2.38738,25.8322,1.79687,2.08459,0.017502,
0.264971,-0.124209,0.144145,-2.30977,0.391025,0.420679,-0.0188306,0.0473699,0.0192634,0.0526872,-0.0466706,-0.0173304,0.105731,0.00123482,-1.8963,-1.21227,-2.03676,3.50573,3.76019,4.90938,-0.0247135,3.05152,-0.255964,3.46831,-1.80111,-0.870772,2.56527,0.0220043,0.26544,-0.12485,0.143386,-2.31174,0.39443,0.417397,-0.0189178,0.160971,0.00776627,0.0676819,-0.158412,-0.0281844,0.101048,-0.00091438,0,0,0,0,0,0,0,-1.61908,-29.0315,-2.38738,25.8322,1.79687,2.08459,0.017502,
0.268605,-0.124004,0.146696,-2.31422,0.382065,0.433006,-0.0188002,0.0490981,0.0183361,0.0542425,-0.0442652,-0.0800004,0.183173,0.00121131,1.08011,-0.579564,0.972081,1.50338,-39.1687,48.4009,-0.0146942,3.1384,-1.15447,3.51549,-1.10995,-4.58098,7.47409,0.020837,0.26544,-0.12485,0.143386,-2.31174,0.39443,0.417397,-0.0189178,0.160971,0.00776627,0.0676819,-0.158412,-0.0281844,0.101048,-0.00091438,0,0,0,0,0,0,0,-1.61908,-29.0315,-2.38738,25.8322,1.79687,2.08459,0.017502,
0.268986,-0.123912,0.14711,-2.31442,0.379598,0.437088,-0.0187883,0.0487894,0.0169618,0.0537598,-0.0405575,-0.125687,0.248593,0.00126714,-0.192928,-0.858929,-0.301702,2.31731,-28.5541,40.8878,0.0348925,3.12057,-1.10017,3.50216,-0.810458,-4.28076,7.21367,0.0199822,0.26544,-0.12485,0.143386,-2.31174,0.39443,0.417397,-0.0189178,0.160971,0.00776627,0.0676819,-0.158412,-0.0281844,0.101048,-0.00091438,0,0,0,0,0,0,0,-1.61908,-29.0315,-2.38738,25.8322,1.79687,2.08459,0.017502,
0.269313,-0.123843,0.147475,-2.31457,0.377185,0.441285,-0.018779,0.0472143,0.0152873,0.0521116,-0.0360291,-0.160873,0.303795,0.00124646,-0.9844,-1.04657,-1.03015,2.83022,-21.9915,34.5014,-0.0129198,2.98761,-1.06861,3.41054,-0.455203,-4.30049,6.96347,0.0185267,0.267576,-0.123655,0.148633,-2.31576,0.392574,0.422288,-0.0189168,0.167742,0.0350133,0.0416688,-0.105364,-0.0633302,0.199781,-0.00307068,0.846401,3.40588,-3.25164,6.63103,-4.39321,12.3416,-0.269537,-2.60693,-29.5036,-3.71245,27.8238,1.56433,2.9937,0.017502,
0.271438,-0.123299,0.152322,-2.31752,0.361283,0.449927,-0.0183844,0.0531,0.0125242,0.0566583,-0.0338058,-0.304455,0.4187,0.00294806,3.67855,-1.72694,2.84171,1.38959,-89.7387,71.8153,1.0635,3.66625,-4.6292,3.55693,1.23276,-11.4642,11.0272,0.0953786,0.267576,-0.123655,0.148633,-2.31576,0.392574,0.422288,-0.0189168,0.167742,0.0350133,0.0416688,-0.105364,-0.0633302,0.199781,-0.00307068,0,0,0,0,0,0,0,-2.60693,-29.5036,-3.71245,27.8238,1.56433,2.9937,0.017502,
0.271987,-0.123283,0.152858,-2.31766,0.354547,0.457319,-0.0183109,0.0562068,0.0104301,0.0587062,-0.0305822,-0.411964,0.519776,0.00419563,1.94174,-1.3088,1.27993,2.01472,-67.1926,63.1724,0.77973,4.05646,-3.99458,3.91188,1.47859,-10.8512,11.0272,0.103897,0.267576,-0.123655,0.148633,-2.31576,0.392574,0.422288,-0.0189168,0.167742,0.0350133,0.0416688,-0.105364,-0.0633302,0.199781,-0.00307068,0,0,0,0,0,0,0,-2.60693,-29.5036,-3.71245,27.8238,1.56433,2.9937,0.017502,
0.272496,-0.123256,0.153343,-2.31774,0.348,0.464973,-0.0182398,0.0576934,0.00903005,0.0591064,-0.0264192,-0.493232,0.607176,0.00513618,0.929103,-0.875055,0.250135,2.60193,-50.7928,54.6251,0.587843,4.28146,-3.41165,4.09714,1.69136,-10.6206,11.0272,0.103152,0.267576,-0.123655,0.148633,-2.31576,0.392574,0.422288,-0.0189168,0.167742,0.0350133,0.0416688,-0.105364,-0.0633302,0.199781,-0.00307068,0,0,0,0,0,0,0,-2.60693,-29.5036,-3.71245,27.8238,1.56433,2.9937,0.017502,
0.272968,-0.123216,0.153784,-2.31778,0.341902,0.472836,-0.018174,0.0579581,0.00821171,0.0583082,-0.0221999,-0.54705,0.682305,0.0057535,0.165462,-0.511465,-0.498859,2.63703,-33.6362,46.9556,0.385827,4.43075,-2.63642,4.17169,1.57196,-9.60481,10.9182,0.114537,0.270528,-0.122409,0.152628,-2.31887,0.383496,0.437905,-0.0189108,0.0449988,0.0569168,0.163942,-0.0740019,-0.554473,0.751123,-0.00158366,-15.3429,2.73794,15.2842,3.92026,-61.3929,68.9177,0.185877,-0.881161,-30.7256,-1.68517,30.1645,0.569149,5.73845,-0.0026396,
0.273989,-0.121913,0.156243,-2.3192,0.338707,0.473349,-0.0182326,0.0606504,0.00588439,0.0623051,-0.0175734,-0.669602,0.738523,0.00721236,1.68269,-1.45457,2.49806,2.89156,-76.595,35.136,0.911784,4.08647,-3.57734,4.42023,2.91673,-13.7811,10.9182,0.153556,0.270528,-0.122409,0.152628,-2.31887,0.383496,0.437905,-0.0189108,0.0449988,0.0569168,0.163942,-0.0740019,-0.554473,0.751123,-0.00158366,0,0,0,0,0,0,0,-0.881161,-30.7256,-1.68517,30.1645,0.569149,5.73845,-0.0026396,
0.274517,-0.121956,0.15684,-2.31918,0.329941,0.481229,-0.0181342,0.0617183,0.00363067,0.0647878,-0.0133941,-0.754838,0.787823,0.0082309,0.667451,-1.40858,1.55169,2.61206,-53.2724,30.8128,0.636586,4.68606,-3.1999,5.01987,3.0115,-13.7811,10.9182,0.151311,0.270528,-0.122409,0.152628,-2.31887,0.383496,0.437905,-0.0189108,0.0449988,0.0569168,0.163942,-0.0740019,-0.554473,0.751123,-0.00158366,0,0,0,0,0,0,0,-0.881161,-30.7256,-1.68517,30.1645,0.569149,5.73845,-0.0026396,
0.275014,-0.122007,0.157426,-2.31912,0.321633,0.489233,-0.018041,0.0618174,0.00163403,0.0664702,-0.00942531,-0.811573,0.830348,0.00891337,0.0619096,-1.2479,1.05148,2.4805,-35.4597,26.5785,0.426543,5.11658,-2.90869,5.55928,3.10331,-13.5256,10.9182,0.147669,0.270528,-0.122409,0.152628,-2.31887,0.383496,0.437905,-0.0189108,0.0449988,0.0569168,0.163942,-0.0740019,-0.554473,0.751123,-0.00158366,0,0,0,0,0,0,0,-0.881161,-30.7256,-1.68517,30.1645,0.569149,5.73845,-0.0026396,
0.275487,-0.122061,0.158002,-2.31906,0.313916,0.497334,-0.0179553,0.0612827,-2.90775e-05,0.0675753,-0.00592724,-0.842188,0.866818,0.00927399,-0.334169,-1.03944,0.690671,2.18629,-19.1345,22.7937,0.225393,5.27005,-2.01218,5.76163,2.43198,-12.314,10.5888,0.15545,0.275921,-0.121424,0.156178,-2.32129,0.349416,0.477417,-0.0187403,0.0798396,0.0376585,0.212367,-0.036626,-1.11764,1.31971,0.00927305,4.3551,-2.40729,6.05313,4.67198,-70.3961,71.0738,1.35709,-1.26202,-32.249,-1.63756,30.5652,0.184628,5.56634,0.0440523,
0.279861,-0.121129,0.159971,-2.32029,0.298855,0.520629,-0.0181044,0.0655043,-0.000635124,0.069203,0.000349255,-0.913754,0.90186,0.00969709,2.63847,-0.378779,1.01735,3.92281,-44.7283,21.9008,0.264436,5.73216,-1.6004,5.49057,3.34241,-13.8947,10.5888,0.18649,0.275921,-0.121424,0.156178,-2.32129,0.349416,0.477417,-0.0187403,0.0798396,0.0376585,0.212367,-0.036626,-1.11764,1.31971,0.00927305,0,0,0,0,0,0,0,-1.26202,-32.249,-1.63756,30.5652,0.184628,5.56634,0.0440523,
0.280498,-0.121154,0.160547,-2.3201,0.289727,0.528931,-0.0179952,0.0683352,-0.00113878,0.0697549,0.00525037,-0.959222,0.929057,0.010487,1.76936,-0.314783,0.344933,3.06319,-28.4179,16.9983,0.493686,6.40116,-1.2349,5.99972,3.34035,-13.8947,10.5888,0.177811,0.275921,-0.121424,0.156178,-2.32129,0.349416,0.477417,-0.0187403,0.0798396,0.0376585,0.212367,-0.036626,-1.11764,1.31971,0.00927305,0,0,0,0,0,0,0,-1.26202,-32.249,-1.63756,30.5652,0.184628,5.56634,0.0440523,
0.281115,-0.121175,0.16111,-2.3199,0.280962,0.537206,-0.0179019,0.0700902,-0.00144633,0.0698917,0.00919842,-0.986485,0.950115,0.0107223,1.09686,-0.192218,0.0854562,2.46754,-17.0393,13.1615,0.147088,6.90032,-0.981548,6.36877,3.29449,-13.7757,10.5888,0.167662,0.275921,-0.121424,0.156178,-2.32129,0.349416,0.477417,-0.0187403,0.0798396,0.0376585,0.212367,-0.036626,-1.11764,1.31971,0.00927305,0,0,0,0,0,0,0,-1.26202,-32.249,-1.63756,30.5652,0.184628,5.56634,0.0440523,
0.284555,-0.121193,0.164939,-2.32051,0.255435,0.571748,-0.0181043,0.0723577,-0.00223719,0.0709611,0.013432,-0.978236,0.973515,0.0102359,1.41715,-0.494291,0.668431,2.64596,5.15582,14.6249,-0.30405,7.31493,-0.138655,6.51851,2.60575,-11.3266,10.2272,0.134865,0.280603,-0.121045,0.161192,-2.32182,0.299657,0.525847,-0.0184838,0.162998,0.000129247,0.155831,-0.0139858,-1.41643,1.4973,0.00618269,10.3947,-4.69116,-7.06699,2.83003,-37.348,22.198,-0.386296,-1.64288,-30.7533,-2.13744,29.2679,0.123287,5.57274,0.0101778,
0.285184,-0.121222,0.165516,-2.32029,0.248483,0.580174,-0.018043,0.0736135,-0.00250884,0.0712017,0.0162657,-0.956376,0.989474,0.00972022,0.784893,-0.169784,0.150341,1.77111,13.6623,9.97447,-0.322271,7.59693,-0.0046479,6.74593,2.4824,-10.9001,10.2272,0.154444,0.280603,-0.121045,0.161192,-2.32182,0.299657,0.525847,-0.0184838,0.162998,0.000129247,0.155831,-0.0139858,-1.41643,1.4973,0.00618269,0,0,0,0,0,0,0,-1.64288,-30.7533,-2.13744,29.2679,0.123287,5.57274,0.0101778,
0.285802,-0.121231,0.166079,-2.32008,0.242109,0.58852,-0.0179863,0.0743444,-0.00223425,0.071022,0.0181098,-0.924443,1.00023,0.00919376,0.456854,0.171621,-0.112298,1.15252,19.958,6.72482,-0.329035,7.47002,0.134913,6.75837,2.37261,-10.6404,10.2272,0.129364,0.280603,-0.121045,0.161192,-2.32182,0.299657,0.525847,-0.0184838,0.162998,0.000129247,0.155831,-0.0139858,-1.41643,1.4973,0.00618269,0,0,0,0,0,0,0,-1.64288,-30.7533,-2.13744,29.2679,0.123287,5.57274,0.0101778,
0.286415,-0.121217,0.166633,-2.31989,0.236284,0.596804,-0.0179348,0.0747907,-0.00143652,0.0706711,0.0192796,-0.885185,1.00727,0.00864345,0.278923,0.498583,-0.219353,0.731126,24.5365,4.39605,-0.343946,7.61781,0.339571,6.90237,2.23156,-9.73507,10.2272,0.117027,0.280603,-0.121045,0.161192,-2.32182,0.299657,0.525847,-0.0184838,0.162998,0.000129247,0.155831,-0.0139858,-1.41643,1.4973,0.00618269,0,0,0,0,0,0,0,-1.64288,-30.7533,-2.13744,29.2679,0.123287,5.57274,0.0101778,
0.284461,-0.120967,0.164877,-2.32074,0.2637,0.571732,-0.0182991,0.0759464,-0.000575616,0.0712981,0.0218081,-0.846498,1.01231,0.0079373,0.722294,0.538064,0.391884,1.58031,24.1795,3.14986,-0.441344,7.57224,0.73818,6.84905,1.94244,-8.79784,9.97315,0.108095,0.285946,-0.120542,0.166188,-2.32176,0.24724,0.579687,-0.0182777,0.201792,0.0283414,0.0976674,-0.00349487,-1.33709,1.65437,0.00447669,4.84929,3.52652,-7.27047,1.31136,9.91673,19.6346,-0.21325,0.00751081,-30.0035,-0.661608,29.1449,0.727535,4.40545,0.0641939,
0.285077,-0.12094,0.165437,-2.32044,0.2587,0.579355,-0.018261,0.0761492,0.000209679,0.0710487,0.0249816,-0.802206,1.00041,0.00730364,0.126731,0.490809,-0.155868,1.98348,27.6825,-7.43479,-0.396039,7.69596,0.932419,6.96824,1.79022,-8.08334,9.97315,0.099534,0.285946,-0.120542,0.166188,-2.32176,0.24724,0.579687,-0.0182777,0.201792,0.0283414,0.0976674,-0.00349487,-1.33709,1.65437,0.00447669,0,0,0,0,0,0,0,0.00751081,-30.0035,-0.661608,29.1449,0.727535,4.40545,0.0641939,
0.285671,-0.120915,0.165976,-2.32011,0.254171,0.586293,-0.0182258,0.0757773,0.000793483,0.0703092,0.0284125,-0.754993,0.973773,0.00672236,-0.232422,0.364878,-0.462175,2.14427,29.5081,-16.6494,-0.363301,7.78666,1.17695,7.02748,1.66257,-7.42592,9.97315,0.0919775,0.285946,-0.120542,0.166188,-2.32176,0.24724,0.579687,-0.0182777,0.201792,0.0283414,0.0976674,-0.00349487,-1.33709,1.65437,0.00447669,0,0,0,0,0,0,0,0.00751081,-30.0035,-0.661608,29.1449,0.727535,4.40545,0.0641939,
0.28625,-0.12099,0.164286,-2.321,0.269234,0.563472,-0.01834,0.0750881,0.000950107,0.0720446,0.0281627,-0.758014,0.997965,0.00644512,-0.430731,0.0978898,1.08461,-0.156097,-1.88839,15.1204,-0.173272,7.56136,2.28131,6.83845,1.33374,-4.86014,5.82807,0.0594543,0.285946,-0.120542,0.166188,-2.32176,0.24724,0.579687,-0.0182777,0.201792,0.0283414,0.0976674,-0.00349487,-1.33709,1.65437,0.00447669,0,0,0,0,0,0,0,0.00751081,-30.0035,-0.661608,29.1449,0.727535,4.40545,0.0641939,
0.289362,-0.120298,0.169427,-2.3198,0.219849,0.620394,-0.0182399,0.0743476,0.000361342,0.0705915,0.0336905,-0.701788,0.947764,0.00573875,-0.462832,-0.367978,-0.908182,3.45489,35.1418,-31.3758,-0.441481,7.94289,1.69882,7.13624,1.65803,-5.98554,8.73846,0.0761449,0.290711,-0.119817,0.171213,-2.32146,0.20541,0.635563,-0.0182778,0.22906,0.0238134,0.0645724,0.00627666,-0.922119,1.60344,-0.00244056,3.40855,-0.566003,-4.13688,1.22144,51.8717,-6.36696,-0.864655,0.309024,-29.7536,-0.836168,26.6296,2.0166,3.07976,0.124619,
0.289919,-0.120321,0.169929,-2.31936,0.216463,0.625594,-0.018217,0.0734028,-0.000301177,0.0690338,0.0379235,-0.646091,0.88822,0.00516301,-0.590462,-0.414074,-0.973532,2.64559,34.8104,-37.2154,-0.359834,7.89442,1.9342,7.10327,1.5981,-5.47814,7.59635,0.0698889,0.290711,-0.119817,0.171213,-2.32146,0.20541,0.635563,-0.0182778,0.22906,0.0238134,0.0645724,0.00627666,-0.922119,1.60344,-0.00244056,0,0,0,0,0,0,0,0.309024,-29.7536,-0.836168,26.6296,2.0166,3.07976,0.124619,
0.290468,-0.120347,0.170423,-2.31893,0.21343,0.630106,-0.0181958,0.0724343,-0.000888421,0.0675587,0.040971,-0.592688,0.823363,0.00466136,-0.605367,-0.367027,-0.921949,1.9047,33.3766,-40.5356,-0.313537,7.80899,2.1187,7.04177,1.54666,-5.02244,6.57369,0.0644207,0.290711,-0.119817,0.171213,-2.32146,0.20541,0.635563,-0.0182778,0.22906,0.0238134,0.0645724,0.00627666,-0.922119,1.60344,-0.00244056,0,0,0,0,0,0,0,0.309024,-29.7536,-0.836168,26.6296,2.0166,3.07976,0.124619,
0.294152,-0.119981,0.174447,-2.31861,0.187507,0.666706,-0.018292,0.072323,-0.00320784,0.0670722,0.045869,-0.535092,0.75732,0.00402392,-0.0695618,-1.44964,-0.304082,3.06123,35.9978,-41.2766,-0.398395,7.55773,2.33322,6.83644,1.45621,-4.23055,4.84019,0.0540452,0.290711,-0.119817,0.171213,-2.32146,0.20541,0.635563,-0.0182778,0.22906,0.0238134,0.0645724,0.00627666,-0.922119,1.60344,-0.00244056,0,0,0,0,0,0,0,0.309024,-29.7536,-0.836168,26.6296,2.0166,3.07976,0.124619,
0.29471,-0.120075,0.174949,-2.31813,0.18534,0.669973,-0.0182801,0.0718005,-0.00492462,0.0662246,0.048656,-0.482252,0.687527,0.00351686,-0.326538,-1.07299,-0.529726,1.74189,33.0249,-43.6208,-0.316918,7.40684,2.37411,6.70396,1.41424,-3.88651,4.11153,0.0490584,0.290711,-0.119817,0.171213,-2.32146,0.20541,0.635563,-0.0182778,0.22906,0.0238134,0.0645724,0.00627666,-0.922119,1.60344,-0.00244056,0,0,0,0,0,0,0,0.309024,-29.7536,-0.836168,26.6296,2.0166,3.07976,0.124619,
0.295256,-0.120158,0.17544,-2.31769,0.183393,0.672673,-0.0182691,0.071084,-0.00601648,0.0652472,0.0498281,-0.434472,0.617521,0.00308809,-0.447821,-0.682413,-0.610915,0.732551,29.8629,-43.7536,-0.26798,7.291,2.46219,6.5974,1.30598,-3.43514,3.23825,0.0447346,0.29468,-0.118648,0.176459,-2.32053,0.175381,0.685184,-0.0182825,0.136616,0.0261254,0.0962427,0.0363545,-0.91373,1.458,-0.00703064,-11.5556,0.289007,3.95879,3.75973,1.04852,-18.1804,-0.573761,1.4516,-29.3529,0.0366345,25.8322,2.76733,1.94543,0.124619,
0.295792,-0.120228,0.175922,-2.3173,0.181633,0.674892,-0.0182594,0.0702845,-0.00655467,0.0642505,0.0497957,-0.391564,0.549509,0.00271174,-0.49971,-0.336368,-0.622916,-0.0202086,26.8173,-42.5074,-0.235219,7.12678,2.44043,6.44642,1.26691,-3.15101,2.66725,0.0402035,0.29468,-0.118648,0.176459,-2.32053,0.175381,0.685184,-0.0182825,0.136616,0.0261254,0.0962427,0.0363545,-0.91373,1.458,-0.00703064,0,0,0,0,0,0,0,1.4516,-29.3529,0.0366345,25.8322,2.76733,1.94543,0.124619,
0.297473,-0.119096,0.179062,-2.31734,0.16138,0.70929,-0.0183768,0.0687033,-0.00899998,0.0625153,0.0531221,-0.354811,0.504784,0.00225704,-0.988228,-1.52832,-1.08452,2.07896,22.9703,-27.9534,-0.284188,6.96085,2.39707,6.29188,1.22923,-2.8929,2.16446,0.0359439,0.29468,-0.118648,0.176459,-2.32053,0.175381,0.685184,-0.0182825,0.136616,0.0261254,0.0962427,0.0363545,-0.91373,1.458,-0.00703064,0,0,0,0,0,0,0,1.4516,-29.3529,0.0366345,25.8322,2.76733,1.94543,0.124619,
0.297968,-0.119231,0.179502,-2.31687,0.159926,0.711313,-0.0183721,0.0673455,-0.0105774,0.0610248,0.054234,-0.320197,0.454419,0.00192216,-0.848597,-0.985877,-0.931531,0.694967,21.6339,-31.4779,-0.209296,6.79624,2.33763,6.13773,1.1932,-2.65982,1.72587,0.0320077,0.29468,-0.118648,0.176459,-2.32053,0.175381,0.685184,-0.0182825,0.136616,0.0261254,0.0962427,0.0363545,-0.91373,1.458,-0.00703064,0,0,0,0,0,0,0,1.4516,-29.3529,0.0366345,25.8322,2.76733,1.94543,0.124619,
0.298462,-0.119346,0.179941,-2.31646,0.158632,0.712873,-0.0183676,0.0662056,-0.0113327,0.0597931,0.0537552,-0.28853,0.402519,0.00165099,-0.712484,-0.472066,-0.769831,-0.299286,19.792,-32.4379,-0.169485,7.03441,2.04597,6.355,1.37768,-2.22435,1.22982,0.0265612,0.298418,-0.117716,0.179248,-2.31762,0.153896,0.722401,-0.0182924,0.068697,0.0227223,0.130944,0.0986397,-0.512376,0.862825,-0.00643171,-8.48985,-0.425388,4.33764,7.78565,50.1693,-74.3964,0.0748662,4.56989,-27.8572,3.33742,22.095,1.97998,0.519949,0.0980684,
0.301239,-0.118289,0.18185,-2.31474,0.14583,0.736399,-0.0183602,0.0656854,-0.01247,0.0592359,0.0538392,-0.256606,0.355416,0.00132782,-0.325109,-0.710789,-0.348225,0.0525109,19.9525,-29.4393,-0.201983,6.72005,1.88427,6.0591,1.31393,-1.86121,0.616656,0.0202043,0.298418,-0.117716,0.179248,-2.31762,0.153896,0.722401,-0.0182924,0.068697,0.0227223,0.130944,0.0986397,-0.512376,0.862825,-0.00643171,0,0,0,0,0,0,0,4.56989,-27.8572,3.33742,22.095,1.97998,0.519949,0.0980684,
0.301737,-0.118404,0.182296,-2.31436,0.14491,0.737347,-0.0183594,0.0650031,-0.0128496,0.0585415,0.0525083,-0.228288,0.308021,0.00108139,-0.426447,-0.237271,-0.434036,-0.831784,17.6984,-29.622,-0.154018,6.56895,1.79923,5.91725,1.28461,-1.70577,0.375449,0.0174636,0.298418,-0.117716,0.179248,-2.31762,0.153896,0.722401,-0.0182924,0.068697,0.0227223,0.130944,0.0986397,-0.512376,0.862825,-0.00643171,0,0,0,0,0,0,0,4.56989,-27.8572,3.33742,22.095,1.97998,0.519949,0.0980684,
0.302226,-0.118496,0.182735,-2.31403,0.144079,0.73799,-0.0183589,0.0642412,-0.0125834,0.0577984,0.050249,-0.203416,0.262491,0.000879528,-0.476151,0.166348,-0.464414,-1.41211,15.545,-28.4561,-0.126162,6.42175,1.71417,5.77933,1.25691,-1.56487,0.170659,0.0149621,0.298418,-0.117716,0.179248,-2.31762,0.153896,0.722401,-0.0182924,0.068697,0.0227223,0.130944,0.0986397,-0.512376,0.862825,-0.00643171,0,0,0,0,0,0,0,4.56989,-27.8572,3.33742,22.095,1.97998,0.519949,0.0980684,
0.302708,-0.118566,0.183167,-2.31374,0.143323,0.738391,-0.0183587,0.0634394,-0.0118244,0.0570447,0.0474251,-0.181642,0.220022,0.000706817,-0.501154,0.474411,-0.471084,-1.76491,13.609,-26.5431,-0.107945,6.4275,1.60883,5.79143,1.23272,-1.35231,-0.0942972,0.0125335,0.301694,-0.117641,0.181927,-2.31418,0.140446,0.745052,-0.0182898,0.0364726,-0.00664365,0.151356,0.0930427,-0.289513,0.55478,0.000502853,-4.02806,-3.67075,2.55149,-0.699625,27.8579,-38.5056,0.866821,5.15308,-26.6353,4.01185,22.6425,1.1734,1.18279,0.017502,
0.304517,-0.118441,0.184533,-2.31168,0.135648,0.753253,-0.018343,0.0633452,-0.0127998,0.0570021,0.0470117,-0.16149,0.191742,0.000504691,-0.0588352,-0.609668,-0.0265961,-0.258378,12.5951,-17.675,-0.126329,6.28825,1.52809,5.66196,1.2081,-1.23733,-0.23695,0.0104955,0.301694,-0.117641,0.181927,-2.31418,0.140446,0.745052,-0.0182898,0.0364726,-0.00664365,0.151356,0.0930427,-0.289513,0.55478,0.000502853,0,0,0,0,0,0,0,5.15308,-26.6353,4.01185,22.6425,1.1734,1.18279,0.017502,
0.305005,-0.118547,0.184973,-2.31136,0.135061,0.753617,-0.0183451,0.0628727,-0.012906,0.0566008,0.0454304,-0.143872,0.162476,0.000352423,-0.295343,-0.06636,-0.250834,-0.988306,11.0113,-18.2913,-0.0951678,6.15283,1.45097,5.5367,1.18489,-1.13385,-0.353335,0.00866949,0.301694,-0.117641,0.181927,-2.31418,0.140446,0.745052,-0.0182898,0.0364726,-0.00664365,0.151356,0.0930427,-0.289513,0.55478,0.000502853,0,0,0,0,0,0,0,5.15308,-26.6353,4.01185,22.6425,1.1734,1.18279,0.017502,
0.30548,-0.118628,0.185401,-2.31109,0.134523,0.753775,-0.0183472,0.0621657,-0.0123543,0.0559859,0.0431157,-0.128548,0.133934,0.000229631,-0.441848,0.344811,-0.38428,-1.44671,9.57753,-17.8385,-0.076745,6.0207,1.37803,5.41497,1.16296,-1.04004,-0.447968,0.0070146,0.301694,-0.117641,0.181927,-2.31418,0.140446,0.745052,-0.0182898,0.0364726,-0.00664365,0.151356,0.0930427,-0.289513,0.55478,0.000502853,0,0,0,0,0,0,0,5.15308,-26.6353,4.01185,22.6425,1.1734,1.18279,0.017502,
0.305943,-0.118687,0.18582,-2.31086,0.134028,0.753773,-0.0183495,0.0613145,-0.0113435,0.0552452,0.0403846,-0.115218,0.10711,0.000126135,-0.531996,0.631751,-0.462976,-1.70692,8.33079,-16.7648,-0.0646847,5.96285,1.29646,5.37598,1.11161,-0.915265,-0.587354,0.00558087,0.305336,-0.118274,0.184704,-2.31089,0.132301,0.757844,-0.0182985,0.040069,-0.0247607,0.163592,0.0727465,-0.18117,0.29955,0.000297568,0.449558,-2.26463,1.52952,-2.53702,13.5429,-31.9038,-0.0256605,3.20118,-26.1116,2.1869,22.4957,0.745846,1.6607,0.0101778,
0.308313,-0.119064,0.187485,-2.30897,0.129435,0.761489,-0.0183549,0.0618023,-0.0116736,0.0558652,0.0392263,-0.102065,0.0886642,-1.4488e-05,0.304856,-0.206278,0.387531,-0.723923,8.22104,-11.5288,-0.0878894,5.83685,1.23292,5.26099,1.09191,-0.838774,-0.645614,0.00424906,0.305336,-0.118274,0.184704,-2.31089,0.132301,0.757844,-0.0182985,0.040069,-0.0247607,0.163592,0.0727465,-0.18117,0.29955,0.000297568,0,0,0,0,0,0,0,3.20118,-26.1116,2.1869,22.4957,0.745846,1.6607,0.0101778,
0.308798,-0.119142,0.187929,-2.30873,0.129067,0.761449,-0.018359,0.0615803,-0.0112771,0.0557799,0.0373451,-0.0908494,0.0699341,-0.00011423,-0.138737,0.247769,-0.0533199,-1.1758,7.00966,-11.7063,-0.0623389,5.71364,1.1743,5.14913,1.07314,-0.769968,-0.688787,0.0030619,0.305336,-0.118274,0.184704,-2.31089,0.132301,0.757844,-0.0182985,0.040069,-0.0247607,0.163592,0.0727465,-0.18117,0.29955,0.000297568,0,0,0,0,0,0,0,3.20118,-26.1116,2.1869,22.4957,0.745846,1.6607,0.0101778,
0.309264,-0.119196,0.188354,-2.30852,0.128722,0.761288,-0.018363,0.0609034,-0.0103815,0.0552463,0.0350446,-0.0813022,0.0519251,-0.000189662,-0.42307,0.559775,-0.333491,-1.43777,5.96701,-11.2556,-0.0471451,5.59278,1.12056,5.03984,1.05521,-0.707711,-0.720151,0.00199516,0.305336,-0.118274,0.184704,-2.31089,0.132301,0.757844,-0.0182985,0.040069,-0.0247607,0.163592,0.0727465,-0.18117,0.29955,0.000297568,0,0,0,0,0,0,0,3.20118,-26.1116,2.1869,22.4957,0.745846,1.6607,0.0101778,
0.308313,-0.119064,0.187485,-2.30897,0.129435,0.761489,-0.0183549,0.0614734,-0.0109039,0.0558661,0.0349543,-0.0749318,0.0445161,-0.000267126,0.356246,-0.326531,0.387387,-0.0564245,3.9815,-4.63064,-0.0484147,5.40476,1.0209,4.88198,1.011,-0.578192,-0.776249,0.000201728,0.310181,-0.118385,0.187317,-2.30845,0.1285,0.762397,-0.0183008,0.142686,0.00955122,0.0901,0.0634068,-0.0786281,0.0548385,-0.00136587,12.8271,4.28899,-9.18649,-1.16746,12.8177,-30.5889,-0.20793,1.85627,-27.6827,1.3379,24.0152,0.17181,3.07976,0.0303194,
0.313882,-0.118535,0.190796,-2.30718,0.127086,0.761531,-0.0183622,0.0613731,-0.00884517,0.0560002,0.0314824,-0.0654888,0.0257496,-0.000347033,-0.0626772,1.28673,0.0837993,-2.16997,5.90183,-11.7291,-0.049942,5.29006,0.981096,4.77953,0.99489,-0.532898,-0.780437,-0.000553922,0.310181,-0.118385,0.187317,-2.30845,0.1285,0.762397,-0.0183008,0.142686,0.00955122,0.0901,0.0634068,-0.0786281,0.0548385,-0.00136587,0,0,0,0,0,0,0,1.85627,-27.6827,1.3379,24.0152,0.17181,3.07976,0.0303194,
0.314342,-0.118529,0.191221,-2.30705,0.126866,0.761097,-0.0183672,0.0605928,-0.00692849,0.0554328,0.0283172,-0.0578961,0.00976266,-0.000404123,-0.487726,1.19792,-0.354629,-1.97825,4.74549,-9.99182,-0.0356811,5.17694,0.945521,4.6788,0.979236,-0.492187,-0.779141,-0.00122114,0.310181,-0.118385,0.187317,-2.30845,0.1285,0.762397,-0.0183008,0.142686,0.00955122,0.0901,0.0634068,-0.0786281,0.0548385,-0.00136587,0,0,0,0,0,0,0,1.85627,-27.6827,1.3379,24.0152,0.17181,3.07976,0.0303194,
0.314779,-0.118514,0.191625,-2.30694,0.126649,0.760638,-0.0183721,0.0593945,-0.00516219,0.0544318,0.0254645,-0.0517323,-0.00367924,-0.000445907,-0.748934,1.10394,-0.625618,-1.78293,3.85236,-8.40119,-0.0261148,5.06537,0.913958,4.57976,0.963904,-0.455799,-0.772467,-0.00181312,0.310181,-0.118385,0.187317,-2.30845,0.1285,0.762397,-0.0183008,0.142686,0.00955122,0.0901,0.0634068,-0.0786281,0.0548385,-0.00136587,0,0,0,0,0,0,0,1.85627,-27.6827,1.3379,24.0152,0.17181,3.07976,0.0303194,
0.313284,-0.118563,0.190256,-2.30736,0.127785,0.76201,-0.0183691,0.0598868,-0.00469628,0.0551097,0.0241765,-0.0446893,-0.0106131,-0.000527062,0.307687,0.29119,0.42365,-0.805006,4.40189,-4.33365,-0.0507222,4.97975,0.864255,4.51939,0.937003,-0.415187,-0.768421,-0.00228152,0.313983,-0.118407,0.191282,-2.30707,0.126928,0.762395,-0.0183101,0.198956,0.00163133,0.0156177,0.0106358,-0.0186606,-0.0160889,-0.00374838,7.03376,-0.989986,-9.31029,-6.59638,7.49594,-8.86592,-0.297814,0.106693,-28.2579,-0.788561,25.5069,-0.279545,3.80852,0.0706026,
0.313743,-0.118573,0.190683,-2.30723,0.127642,0.761654,-0.0183752,0.0593792,-0.00400632,0.0547721,0.0226861,-0.039337,-0.0173981,-0.000574212,-0.317235,0.431227,-0.210995,-0.931498,3.34515,-4.24065,-0.0294687,4.87069,0.839914,4.42306,0.92215,-0.386313,-0.754905,-0.00273403,0.313983,-0.118407,0.191282,-2.30707,0.126928,0.762395,-0.0183101,0.198956,0.00163133,0.0156177,0.0106358,-0.0186606,-0.0160889,-0.00374838,0,0,0,0,0,0,0,0.106693,-28.2579,-0.788561,25.5069,-0.279545,3.80852,0.0706026,
0.314173,-0.118572,0.191083,-2.30711,0.12749,0.761264,-0.0183808,0.058251,-0.00316712,0.0538046,0.0211174,-0.0352686,-0.0236579,-0.000600199,-0.705137,0.524498,-0.604648,-0.980468,2.54275,-3.91233,-0.0162418,4.76266,0.818784,4.32779,0.907476,-0.360796,-0.739654,-0.00311581,0.313983,-0.118407,0.191282,-2.30707,0.126928,0.762395,-0.0183101,0.198956,0.00163133,0.0156177,0.0106358,-0.0186606,-0.0160889,-0.00374838,0,0,0,0,0,0,0,0.106693,-28.2579,-0.788561,25.5069,-0.279545,3.80852,0.0706026,
0.313284,-0.118563,0.190256,-2.30736,0.127785,0.76201,-0.0183691,0.058972,-0.00310023,0.0546079,0.0206988,-0.0315183,-0.026596,-0.000650496,0.450624,0.0418073,0.502048,-0.261612,2.34393,-1.83632,-0.0314356,4.54938,0.785177,4.14011,0.878341,-0.318822,-0.704378,-0.00371884,0.313983,-0.118407,0.191282,-2.30707,0.126928,0.762395,-0.0183101,0.198956,0.00163133,0.0156177,0.0106358,-0.0186606,-0.0160889,-0.00374838,0,0,0,0,0,0,0,0.106693,-28.2579,-0.788561,25.5069,-0.279545,3.80852,0.0706026,
0.317305,-0.118307,0.194423,-2.30648,0.126571,0.759724,-0.018368,0.0578028,-0.00171915,0.0536695,0.0185492,-0.0280226,-0.0333584,-0.000666621,-0.730734,0.863179,-0.586508,-1.34346,2.18482,-4.22651,-0.0100783,4.45393,0.752188,4.0728,0.899378,-0.295948,-0.666057,-0.00404609,0.317912,-0.118079,0.196764,-2.30685,0.126952,0.760039,-0.0183011,0.141276,0.0222269,0.148466,-0.00489782,-0.00309381,-0.0729092,0.000250039,-7.20998,2.57445,16.6061,-1.9417,1.94585,-7.10254,0.499802,-1.11126,-29.4283,-2.08586,27.2525,-0.127567,3.88817,-0.00996382,
0.317701,-0.118271,0.194795,-2.30641,0.126445,0.759246,-0.0183734,0.0561636,-0.00049489,0.0522352,0.0166921,-0.0255811,-0.0386243,-0.000667448,-1.02451,0.76516,-0.896414,-1.16069,1.52597,-3.29118,-0.000516642,4.3491,0.741458,3.98071,0.884849,-0.281658,-0.6473,-0.00420894,0.317912,-0.118079,0.196764,-2.30685,0.126952,0.760039,-0.0183011,0.141276,0.0222269,0.148466,-0.00489782,-0.00309381,-0.0729092,0.000250039,0,0,0,0,0,0,0,-1.11126,-29.4283,-2.08586,27.2525,-0.127567,3.88817,-0.00996382,
0.318075,-0.118232,0.195144,-2.30634,0.126307,0.758777,-0.0183784,0.0542739,0.000584593,0.0505314,0.0150922,-0.0239068,-0.0426337,-0.000658553,-1.18106,0.674677,-1.06493,-0.999989,1.04645,-2.5059,0.0055593,4.24489,0.732761,3.88919,0.870239,-0.269646,-0.628114,-0.00433399,0.317912,-0.118079,0.196764,-2.30685,0.126952,0.760039,-0.0183011,0.141276,0.0222269,0.148466,-0.00489782,-0.00309381,-0.0729092,0.000250039,0,0,0,0,0,0,0,-1.11126,-29.4283,-2.08586,27.2525,-0.127567,3.88817,-0.00996382,
0.321385,-0.11762,0.200158,-2.30677,0.127282,0.756579,-0.0183702,0.0560559,0.00219177,0.0525911,0.0128153,-0.0194425,-0.0500014,-0.000716416,1.11373,1.00449,1.28734,-1.42304,2.79016,-4.60481,-0.0361643,4.14116,0.725876,3.79806,0.855605,-0.25998,-0.609738,-0.0043991,0.317912,-0.118079,0.196764,-2.30685,0.126952,0.760039,-0.0183011,0.141276,0.0222269,0.148466,-0.00489782,-0.00309381,-0.0729092,0.000250039,0,0,0,0,0,0,0,-1.11126,-29.4283,-2.08586,27.2525,-0.127567,3.88817,-0.00996382,
0.321837,-0.117554,0.200591,-2.30674,0.127231,0.755984,-0.0183766,0.0561319,0.00338756,0.0528912,0.0110823,-0.0168316,-0.0548753,-0.000733398,0.0475197,0.747364,0.187569,-1.08313,1.6318,-3.04618,-0.0106136,4.03791,0.720623,3.7073,0.840849,-0.252313,-0.591359,-0.0044341,0.317912,-0.118079,0.196764,-2.30685,0.126952,0.760039,-0.0183011,0.141276,0.0222269,0.148466,-0.00489782,-0.00309381,-0.0729092,0.000250039,0,0,0,0,0,0,0,-1.11126,-29.4283,-2.08586,27.2525,-0.127567,3.88817,-0.00996382,
0.322246,-0.117491,0.200981,-2.3067,0.127148,0.755427,-0.0183821,0.0551302,0.00428469,0.052077,0.00976664,-0.0155319,-0.057828,-0.000724784,-0.626039,0.560705,-0.508902,-0.822278,0.812346,-1.84545,0.00538367,3.93501,0.716808,3.61678,0.826044,-0.246778,-0.574113,-0.00440861,0.317912,-0.118079,0.196764,-2.30685,0.126952,0.760039,-0.0183011,0.141276,0.0222269,0.148466,-0.00489782,-0.00309381,-0.0729092,0.000250039,0,0,0,0,0,0,0,-1.11126,-29.4283,-2.08586,27.2525,-0.127567,3.88817,-0.00996382,
0.322621,-0.11743,0.201338,-2.30667,0.12704,0.754904,-0.0183869,0.0534808,0.0049598,0.0505896,0.00876996,-0.0151317,-0.0593344,-0.000700403,-1.03092,0.421949,-0.929609,-0.622929,0.250096,-0.941512,0.015238,3.83248,0.714277,3.5265,0.81109,-0.243003,-0.557095,-0.00435098,0.317912,-0.118079,0.196764,-2.30685,0.126952,0.760039,-0.0183011,0.141276,0.0222269,0.148466,-0.00489782,-0.00309381,-0.0729092,0.000250039,0,0,0,0,0,0,0,-1.11126,-29.4283,-2.08586,27.2525,-0.127567,3.88817,-0.00996382,
0.32129,-0.117623,0.200084,-2.30681,0.127351,0.75674,-0.01837,0.054791,0.00569452,0.0521021,0.00761549,-0.0123358,-0.0624187,-0.000731625,0.818924,0.459197,0.945313,-0.721542,1.74744,-1.92766,-0.0195137,3.73023,0.712862,3.43633,0.796074,-0.241163,-0.541366,-0.00423227,0.317912,-0.118079,0.196764,-2.30685,0.126952,0.760039,-0.0183011,0.141276,0.0222269,0.148466,-0.00489782,-0.00309381,-0.0729092,0.000250039,0,0,0,0,0,0,0,-1.11126,-29.4283,-2.08586,27.2525,-0.127567,3.88817,-0.00996382,
0.321715,-0.117557,0.200493,-2.30678,0.127298,0.756183,-0.0183755,0.0544484,0.0061962,0.0519205,0.00679068,-0.011205,-0.0638612,-0.000722718,-0.214161,0.31355,-0.113495,-0.515505,0.706771,-0.901548,0.00556661,3.62826,0.712433,3.34629,0.780909,-0.240855,-0.525949,-0.00408075,0.317912,-0.118079,0.196764,-2.30685,0.126952,0.760039,-0.0183011,0.141276,0.0222269,0.148466,-0.00489782,-0.00309381,-0.0729092,0.000250039,0,0,0,0,0,0,0,-1.11126,-29.4283,-2.08586,27.2525,-0.127567,3.88817,-0.00996382,
0.322096,-0.117494,0.200859,-2.30675,0.127208,0.755664,-0.0183799,0.0530808,0.00654081,0.0506875,0.00620927,-0.0112176,-0.0640787,-0.000689145,-0.854759,0.215383,-0.770625,-0.363383,-0.0078918,-0.135981,0.0209833,3.52626,0.668142,3.26833,0.775508,-0.243699,-0.503006,-0.00392731,0.322136,-0.117715,0.201247,-2.30683,0.126953,0.757457,-0.0183022,0.0182269,0.0101809,0.23672,-0.00397865,0.0048502,-0.0688486,0.000475805,-15.3811,-1.50576,11.0317,0.114896,0.993002,0.507579,0.0282208,-1.59131,-28.857,-2.63732,27.0026,-0.194401,3.6895,-0.0301054,
0.325131,-0.117393,0.204226,-2.30675,0.127104,0.754566,-0.0183568,0.0531287,0.00664473,0.050932,0.00570744,-0.0101165,-0.0642066,-0.000679268,0.0299672,0.0649463,0.152806,-0.313644,0.688215,-0.0798808,0.00617321,3.32343,0.671074,3.08841,0.744708,-0.250512,-0.476704,-0.00337198,0.322136,-0.117715,0.201247,-2.30683,0.126953,0.757457,-0.0183022,0.0182269,0.0101809,0.23672,-0.00397865,0.0048502,-0.0688486,0.000475805,0,0,0,0,0,0,0,-1.59131,-28.857,-2.63732,27.0026,-0.194401,3.6895,-0.0301054,
0.325507,-0.117337,0.204591,-2.30671,0.127017,0.754083,-0.0183605,0.051911,0.00670785,0.0498725,0.0053679,-0.0102594,-0.063437,-0.000636032,-0.761046,0.0394543,-0.662167,-0.212209,-0.0893555,0.480993,0.0270227,3.22235,0.673396,2.99846,0.729147,-0.255563,-0.464431,-0.00302928,0.322136,-0.117715,0.201247,-2.30683,0.126953,0.757457,-0.0183022,0.0182269,0.0101809,0.23672,-0.00397865,0.0048502,-0.0688486,0.000475805,0,0,0,0,0,0,0,-1.59131,-28.857,-2.63732,27.0026,-0.194401,3.6895,-0.0301054,
0.325844,-0.117282,0.204917,-2.30668,0.126897,0.753631,-0.0183631,0.0499445,0.00674784,0.048039,0.00514279,-0.011216,-0.0620426,-0.00057295,-1.22908,0.0249894,-1.14596,-0.140698,-0.597841,0.871492,0.0394257,3.12149,0.676172,2.9085,0.713551,-0.261648,-0.453365,-0.00261876,0.322136,-0.117715,0.201247,-2.30683,0.126953,0.757457,-0.0183022,0.0182269,0.0101809,0.23672,-0.00397865,0.0048502,-0.0688486,0.000475805,0,0,0,0,0,0,0,-1.59131,-28.857,-2.63732,27.0026,-0.194401,3.6895,-0.0301054,
0.326149,-0.117227,0.205211,-2.30664,0.12675,0.753207,-0.0183647,0.0475758,0.00677321,0.0457865,0.0049966,-0.0126443,-0.0602433,-0.000498504,-1.48047,0.0158589,-1.40784,-0.0913643,-0.89272,1.12452,0.0465292,3.0206,0.656255,2.82324,0.697222,-0.269309,-0.435868,-0.00221249,0.327147,-0.117156,0.204075,-2.30698,0.12691,0.755193,-0.0182993,0.155158,0.0101486,0.0473007,-0.0186531,0.000974998,-0.05854,0.000736463,17.1163,-0.00403546,-23.6774,-1.83431,-0.4844,1.28858,0.0325822,-1.89679,-29.5036,-2.68492,28.1253,0.239559,3.64281,-0.0301054,
0.329576,-0.116775,0.206454,-2.307,0.126791,0.752395,-0.0183323,0.0468367,0.0070929,0.0451922,0.00446926,-0.0126888,-0.0604012,-0.000452623,-0.461906,0.199804,-0.371426,-0.329588,-0.027801,-0.0986867,0.0286753,2.92035,0.659766,2.73339,0.681495,-0.2762,-0.426106,-0.00169329,0.327147,-0.117156,0.204075,-2.30698,0.12691,0.755193,-0.0182993,0.155158,0.0101486,0.0473007,-0.0186531,0.000974998,-0.05854,0.000736463,0,0,0,0,0,0,0,-1.89679,-29.5036,-2.68492,28.1253,0.239559,3.64281,-0.0301054,
0.329888,-0.116711,0.206758,-2.30697,0.12666,0.751943,-0.0183333,0.0452611,0.00728263,0.0437357,0.00414751,-0.0134265,-0.0596283,-0.000385239,-0.984732,0.118583,-0.910302,-0.201095,-0.461022,0.48308,0.0421155,2.82053,0.663584,2.64369,0.665681,-0.282698,-0.416476,-0.0011355,0.327147,-0.117156,0.204075,-2.30698,0.12691,0.755193,-0.0182993,0.155158,0.0101486,0.0473007,-0.0186531,0.000974998,-0.05854,0.000736463,0,0,0,0,0,0,0,-1.89679,-29.5036,-2.68492,28.1253,0.239559,3.64281,-0.0301054,
0.330168,-0.116649,0.20703,-2.30695,0.12651,0.751521,-0.0183331,0.0432115,0.00738391,0.0417883,0.00396712,-0.0145011,-0.0582376,-0.000304717,-1.28104,0.0632981,-1.21709,-0.112745,-0.671646,0.869226,0.0503262,2.7212,0.667679,2.5542,0.649874,-0.288605,-0.40799,-0.00050318,0.327147,-0.117156,0.204075,-2.30698,0.12691,0.755193,-0.0182993,0.155158,0.0101486,0.0473007,-0.0186531,0.000974998,-0.05854,0.000736463,0,0,0,0,0,0,0,-1.89679,-29.5036,-2.68492,28.1253,0.239559,3.64281,-0.0301054,
0.330422,-0.116588,0.207276,-2.30692,0.126349,0.751126,-0.018332,0.0409285,0.007425,0.0395967,0.00388112,-0.0156203,-0.0564717,-0.00021682,-1.42683,0.0256827,-1.36976,-0.0537486,-0.699488,1.10369,0.0549354,2.61516,0.641032,2.46612,0.639011,-0.294576,-0.393691,0.000130376,0.329267,-0.116597,0.208033,-2.30701,0.126846,0.753464,-0.0183059,0.147658,0.0230204,0.00222783,-0.00451276,0.00143449,-0.0406205,-0.000550775,-0.937468,1.60898,-5.6341,1.76754,0.057436,2.23993,-0.160905,-0.730404,-29.579,-2.11363,26.7764,0.562741,3.13286,0.00376909,
0.33113,-0.116132,0.20985,-2.30695,0.126539,0.751295,-0.0183171,0.0396537,0.00766625,0.0384391,0.00365349,-0.015491,-0.0554055,-0.000143684,-0.796774,0.150783,-0.723494,-0.142272,0.0808112,0.666363,0.0457102,2.5173,0.645742,2.37748,0.62306,-0.297505,-0.38755,0.00088151,0.329267,-0.116597,0.208033,-2.30701,0.126846,0.753464,-0.0183059,0.147658,0.0230204,0.00222783,-0.00451276,0.00143449,-0.0406205,-0.000550775,0,0,0,0,0,0,0,-0.730404,-29.579,-2.11363,26.7764,0.562741,3.13286,0.00376909,
0.331377,-0.116068,0.210092,-2.30693,0.126418,0.750906,-0.0183149,0.0379119,0.0077541,0.0367969,0.00353841,-0.0154327,-0.0540496,-5.96073e-05,-1.08863,0.0549011,-1.02639,-0.0719211,0.0364411,0.847413,0.0525477,2.42048,0.650688,2.28952,0.607209,-0.296132,-0.380915,0.0016794,0.329267,-0.116597,0.208033,-2.30701,0.126846,0.753464,-0.0183059,0.147658,0.0230204,0.00222783,-0.00451276,0.00143449,-0.0406205,-0.000550775,0,0,0,0,0,0,0,-0.730404,-29.579,-2.11363,26.7764,0.562741,3.13286,0.00376909,
0.331601,-0.116006,0.21031,-2.3069,0.126308,0.750535,-0.0183117,0.0359269,0.00775437,0.0348999,0.00349837,-0.0150894,-0.0525284,3.10881e-05,-1.24065,0.000171199,-1.18566,-0.0250292,0.214556,0.950774,0.0566846,2.32492,0.655982,2.20248,0.591423,-0.290302,-0.375818,0.0025576,0.329267,-0.116597,0.208033,-2.30701,0.126846,0.753464,-0.0183059,0.147658,0.0230204,0.00222783,-0.00451276,0.00143449,-0.0406205,-0.000550775,0,0,0,0,0,0,0,-0.730404,-29.579,-2.11363,26.7764,0.562741,3.13286,0.00376909,
0.332828,-0.115814,0.212315,-2.30687,0.126576,0.750997,-0.0182999,0.0344064,0.00743264,0.0334913,0.00373599,-0.0122261,-0.0504557,0.000124224,-0.950272,-0.201078,-0.880331,0.148515,1.78952,1.29543,0.0582101,2.13833,0.653044,2.03753,0.565064,-0.267571,-0.373849,0.00444678,0.331306,-0.116092,0.210809,-2.30706,0.12675,0.752619,-0.0183059,0.046814,0.0107151,0.0738131,0.00269169,0.000290976,-0.0249871,-0.00068907,-12.6055,-1.53817,8.94815,0.900556,-0.142939,1.95417,-0.0172869,0.539127,-28.73,-0.788561,26.1298,0.562741,3.03307,0.00376909,
0.33303,-0.115764,0.212514,-2.30684,0.126622,0.75066,-0.018295,0.0325783,0.00717879,0.031761,0.00390351,-0.00863106,-0.0487967,0.000221238,-1.14256,-0.158657,-1.08147,0.104697,2.24692,1.03688,0.0606334,2.04875,0.659852,1.9552,0.549531,-0.236942,-0.373086,0.00550045,0.331306,-0.116092,0.210809,-2.30706,0.12675,0.752619,-0.0183059,0.046814,0.0107151,0.0738131,0.00269169,0.000290976,-0.0249871,-0.00068907,0,0,0,0,0,0,0,0.539127,-28.73,-0.788561,26.1298,0.562741,3.03307,0.00376909,
0.333211,-0.115714,0.212693,-2.3068,0.126743,0.75032,-0.0182894,0.0306075,0.0069901,0.0298786,0.0040162,-0.0038682,-0.0475273,0.000318524,-1.23177,-0.117933,-1.1765,0.0704342,2.97679,0.793363,0.0608038,1.96203,0.667434,1.87528,0.534187,-0.193471,-0.375138,0.00663838,0.331306,-0.116092,0.210809,-2.30706,0.12675,0.752619,-0.0183059,0.046814,0.0107151,0.0738131,0.00269169,0.000290976,-0.0249871,-0.00068907,0,0,0,0,0,0,0,0.539127,-28.73,-0.788561,26.1298,0.562741,3.03307,0.00376909,
0.333376,-0.115664,0.212855,-2.30677,0.126966,0.749975,-0.0182831,0.0285998,0.00685797,0.0279529,0.00408641,0.00248201,-0.0466594,0.000411899,-1.25483,-0.0825802,-1.20357,0.0438802,3.96888,0.542453,0.0583593,1.87872,0.675906,1.79825,0.519056,-0.133665,-0.37981,0.00782342,0.331306,-0.116092,0.210809,-2.30706,0.12675,0.752619,-0.0183059,0.046814,0.0107151,0.0738131,0.00269169,0.000290976,-0.0249871,-0.00068907,0,0,0,0,0,0,0,0.539127,-28.73,-0.788561,26.1298,0.562741,3.03307,0.00376909,
0.332733,-0.11582,0.212235,-2.30688,0.127511,0.750708,-0.0182913,0.0279142,0.00670452,0.0273653,0.00413945,0.0101821,-0.0479562,0.000471589,-0.428504,-0.0959069,-0.367258,0.0331486,4.81253,-0.810518,0.0373064,1.79991,0.683496,1.72874,0.500276,-0.149917,-0.460795,0.00896345,0.333339,-0.115633,0.212537,-2.30714,0.12659,0.751873,-0.0182997,0.022055,0.0151367,0.0768846,0.00278375,0.00267448,-0.0312834,0.000267674,-3.09487,0.552706,0.383941,0.0115076,0.297938,-0.787038,0.119593,1.1977,-28.8054,-0.0387439,27.0779,0.447384,3.33794,-0.0227812,
0.332908,-0.115771,0.212409,-2.30685,0.127991,0.750266,-0.0182852,0.0267147,0.00660096,0.0262498,0.00415085,0.0201459,-0.0493939,0.000529241,-0.749674,-0.0647258,-0.697147,0.00712669,6.22739,-0.898587,0.0360328,1.72537,0.694215,1.6593,0.485982,-0.0464442,-0.471938,0.0102454,0.333339,-0.115633,0.212537,-2.30714,0.12659,0.751873,-0.0182997,0.022055,0.0151367,0.0768846,0.00278375,0.00267448,-0.0312834,0.000267674,0,0,0,0,0,0,0,1.1977,-28.8054,-0.0387439,27.0779,0.447384,3.33794,-0.0227812,
0.333062,-0.11572,0.212562,-2.30682,0.12866,0.749806,-0.0182788,0.0252188,0.00654758,0.0248327,0.00413334,0.0328366,-0.0510321,0.000583534,-0.934914,-0.0333606,-0.885729,-0.010945,7.93173,-1.02384,0.0339328,1.65618,0.706573,1.59478,0.472345,0.0850696,-0.48806,0.0116106,0.333339,-0.115633,0.212537,-2.30714,0.12659,0.751873,-0.0182997,0.022055,0.0151367,0.0768846,0.00278375,0.00267448,-0.0312834,0.000267674,0,0,0,0,0,0,0,1.1977,-28.8054,-0.0387439,27.0779,0.447384,3.33794,-0.0227812,
0.334499,-0.115335,0.21371,-2.30689,0.127667,0.74813,-0.0182723,0.0241735,0.00638595,0.0239015,0.00430758,0.0413442,-0.0631975,0.000592813,-0.653302,-0.101018,-0.581945,0.108902,5.3172,-7.60337,0.00579938,1.55171,0.776298,1.50922,0.368626,-0.289464,-1.11452,0.0137032,0.333339,-0.115633,0.212537,-2.30714,0.12659,0.751873,-0.0182997,0.022055,0.0151367,0.0768846,0.00278375,0.00267448,-0.0312834,0.000267674,0,0,0,0,0,0,0,1.1977,-28.8054,-0.0387439,27.0779,0.447384,3.33794,-0.0227812,
0.334636,-0.115289,0.213848,-2.30685,0.128564,0.747184,-0.0182699,0.022766,0.00625773,0.0225839,0.00434465,0.0555114,-0.074218,0.000534733,-0.879708,-0.0801417,-0.823535,0.023167,8.85452,-6.88785,-0.0363,1.50378,0.783244,1.46527,0.369915,-0.0464386,-1.13288,0.014785,0.335189,-0.115193,0.214211,-2.30727,0.126606,0.75085,-0.0182989,0.0479684,0.0107027,0.0535781,-0.00971116,0.00698142,-0.0419681,0.000789323,3.23917,-0.554253,-2.91332,-1.56186,0.538367,-1.33558,0.0652061,0.336795,-29.1783,-0.836168,27.5262,0.373226,3.56316,-0.0301054,
0.334754,-0.115242,0.213969,-2.30682,0.129779,0.746193,-0.0182672,0.0211702,0.00618301,0.0210961,0.00427739,0.0747798,-0.0841476,0.000494684,-0.997404,-0.0467008,-0.929862,-0.0420345,12.0427,-6.206,-0.0250303,1.46087,0.79909,1.42599,0.361876,0.239077,-1.16408,0.0160097,0.335189,-0.115193,0.214211,-2.30727,0.126606,0.75085,-0.0182989,0.0479684,0.0107027,0.0535781,-0.00971116,0.00698142,-0.0419681,0.000789323,0,0,0,0,0,0,0,0.336795,-29.1783,-0.836168,27.5262,0.373226,3.56316,-0.0301054,
0.334857,-0.115195,0.214075,-2.30679,0.131325,0.745149,-0.0182645,0.0195132,0.00612961,0.0195248,0.00416561,0.0984722,-0.0933976,0.000463638,-1.03562,-0.0333718,-0.982053,-0.0698651,14.8078,-5.78122,-0.0194042,1.42069,0.810957,1.38835,0.354407,0.569181,-1.20821,0.0169202,0.335189,-0.115193,0.214211,-2.30727,0.126606,0.75085,-0.0182989,0.0479684,0.0107027,0.0535781,-0.00971116,0.00698142,-0.0419681,0.000789323,0,0,0,0,0,0,0,0.336795,-29.1783,-0.836168,27.5262,0.373226,3.56316,-0.0301054,
0.336384,-0.115103,0.215428,-2.30667,0.127471,0.740353,-0.0182742,0.0198029,0.00489232,0.0199207,0.0053824,0.0956963,-0.137474,0.000434721,0.181064,-0.773309,0.247437,0.760491,-1.7349,-27.5475,-0.0180729,1.81714,0.911751,1.82573,0.171542,-0.546645,-3.64866,0.0165978,0.335189,-0.115193,0.214211,-2.30727,0.126606,0.75085,-0.0182989,0.0479684,0.0107027,0.0535781,-0.00971116,0.00698142,-0.0419681,0.000789323,0,0,0,0,0,0,0,0.336795,-29.1783,-0.836168,27.5262,0.373226,3.56316,-0.0301054,
0.336524,-0.115102,0.215577,-2.3066,0.128515,0.737741,-0.0182881,0.019365,0.00395917,0.0196716,0.00587775,0.102659,-0.175275,-1.49305e-07,-0.273703,-0.583215,-0.15572,0.309596,4.35146,-23.6256,-0.271794,1.78798,0.895982,1.79177,0.168614,-0.153173,-3.6269,0.0145257,0.335189,-0.115193,0.214211,-2.30727,0.126606,0.75085,-0.0182989,0.0479684,0.0107027,0.0535781,-0.00971116,0.00698142,-0.0419681,0.000789323,0,0,0,0,0,0,0,0.336795,-29.1783,-0.836168,27.5262,0.373226,3.56316,-0.0301054,
0.336659,-0.115089,0.215707,-2.30655,0.12979,0.735094,-0.0182938,0.018844,0.00347341,0.0189906,0.00590109,0.114003,-0.206406,-0.00014119,-0.325614,-0.303601,-0.425587,0.0145894,7.09013,-19.4572,-0.0881502,1.76144,0.875457,1.78131,0.179632,0.23864,-3.57685,0.0153957,0.336859,-0.114697,0.215685,-2.30744,0.127208,0.749424,-0.0183011,0.0637805,0.0140754,0.0170526,-0.00188786,0.0408605,-0.0588822,0.000321896,1.97652,0.421587,-4.56568,0.977912,4.23488,-2.11426,-0.0584284,-0.424923,-28.98,-1.56218,26.9034,0.27618,3.24547,-0.00996382,
0.336782,-0.115071,0.21583,-2.30651,0.131164,0.732405,-0.0182979,0.0181584,0.00324901,0.0182579,0.00572766,0.125568,-0.232333,-0.000215845,-0.428474,-0.140249,-0.457986,-0.108392,7.22827,-16.2042,-0.0466594,1.70608,0.837954,1.72402,0.169777,0.63521,-3.57234,0.0157946,0.336859,-0.114697,0.215685,-2.30744,0.127208,0.749424,-0.0183011,0.0637805,0.0140754,0.0170526,-0.00188786,0.0408605,-0.0588822,0.000321896,0,0,0,0,0,0,0,-0.424923,-28.98,-1.56218,26.9034,0.27618,3.24547,-0.00996382,
0.338027,-0.115067,0.216894,-2.30568,0.133665,0.724717,-0.0182972,0.0202195,-0.000259245,0.0204489,0.00946162,0.141574,-0.327263,-0.000152245,1.28818,-2.19266,1.36942,2.33372,10.0036,-59.3313,0.0397495,3.59033,1.41496,3.64508,0.422773,1.49797,-9.95007,0.031203,0.336859,-0.114697,0.215685,-2.30744,0.127208,0.749424,-0.0183011,0.0637805,0.0140754,0.0170526,-0.00188786,0.0408605,-0.0588822,0.000321896,0,0,0,0,0,0,0,-0.424923,-28.98,-1.56218,26.9034,0.27618,3.24547,-0.00996382,
0.338244,-0.115173,0.217136,-2.30555,0.135515,0.71908,-0.0183168,0.0215997,-0.00285241,0.0224063,0.0108076,0.1595,-0.402733,-0.000611331,0.862595,-1.62073,1.22338,0.841209,11.204,-47.169,-0.286928,3.44824,1.07941,3.40682,0.453156,1.92848,-9.39163,0.0104434,0.336859,-0.114697,0.215685,-2.30744,0.127208,0.749424,-0.0183011,0.0637805,0.0140754,0.0170526,-0.00188786,0.0408605,-0.0588822,0.000321896,0,0,0,0,0,0,0,-0.424923,-28.98,-1.56218,26.9034,0.27618,3.24547,-0.00996382,
0.338496,-0.115263,0.217362,-2.30548,0.137375,0.713573,-0.0183225,0.0235786,-0.00453436,0.023575,0.0106221,0.174122,-0.459862,-0.000632606,1.23685,-1.05122,0.730428,-0.115891,9.13849,-35.705,-0.0132973,3.31001,0.78561,3.51993,0.501607,2.01826,-8.7019,0.0128167,0.338442,-0.114105,0.216804,-2.30741,0.129798,0.74554,-0.0182972,0.0508412,0.0222427,0.0082708,0.00650048,0.09541,-0.168857,-1.58051e-05,-1.61741,1.02092,-1.09773,1.04854,6.8187,-13.7468,-0.0422126,-0.730404,-28.7062,-1.56218,25.856,0.373226,2.50939,-0.0163725,
0.339575,-0.114062,0.217964,-2.30558,0.137044,0.718912,-0.0183315,0.0251461,-0.00434703,0.025345,0.0133911,0.178071,-0.511484,-0.000697367,0.979687,0.117083,1.10622,1.73059,2.46799,-32.2642,-0.0404755,4.07757,2.35207,4.12411,1.11644,1.99798,-10.4779,0.0144703,0.338442,-0.114105,0.216804,-2.30741,0.129798,0.74554,-0.0182972,0.0508412,0.0222427,0.0082708,0.00650048,0.09541,-0.168857,-1.58051e-05,0,0,0,0,0,0,0,-0.730404,-28.7062,-1.56218,25.856,0.373226,2.50939,-0.0163725,
0.339834,-0.114078,0.218237,-2.30546,0.138613,0.713375,-0.0183653,0.0266109,-0.00386105,0.0271118,0.0138146,0.181686,-0.547616,-0.00140425,0.915455,0.303741,1.10425,0.264701,2.25958,-22.5821,-0.441805,3.89749,1.87499,3.89433,1.11774,2.26919,-9.72263,-0.00765589,0.338442,-0.114105,0.216804,-2.30741,0.129798,0.74554,-0.0182972,0.0508412,0.0222427,0.0082708,0.00650048,0.09541,-0.168857,-1.58051e-05,0,0,0,0,0,0,0,-0.730404,-28.7062,-1.56218,25.856,0.373226,2.50939,-0.0163725,
0.340116,-0.114069,0.218532,-2.30538,0.139933,0.708153,-0.0183678,0.0283241,-0.00288092,0.0290694,0.0129487,0.178344,-0.568639,-0.00118683,1.07076,0.61258,1.22353,-0.541183,-2.08874,-13.14,0.135891,3.84247,1.47027,3.96211,1.11349,2.13406,-8.88206,-0.000439598,0.338442,-0.114105,0.216804,-2.30741,0.129798,0.74554,-0.0182972,0.0508412,0.0222427,0.0082708,0.00650048,0.09541,-0.168857,-1.58051e-05,0,0,0,0,0,0,0,-0.730404,-28.7062,-1.56218,25.856,0.373226,2.50939,-0.0163725,
