xiao-wang007/linearmpc_panda/paper_data/panda_torque_PD_controller_error_match_to_start_no_torque_ff/0/trajectory.csv
Commanded Joint 0 Position,Commanded Joint 1 Position,Commanded Joint 2 Position,Commanded Joint 3 Position,Commanded Joint 4 Position,Commanded Joint 5 Position,Commanded Joint 6 Position,Commanded Joint 0 Velocity,Commanded Joint 1 Velocity,Commanded Joint 2 Velocity,Commanded Joint 3 Velocity,Commanded Joint 4 Velocity,Commanded Joint 5 Velocity,Commanded Joint 6 Velocity,Commanded Joint 0 Acceleration,Commanded Joint 1 Acceleration,Commanded Joint 2 Acceleration,Commanded Joint 3 Acceleration,Commanded Joint 4 Acceleration,Commanded Joint 5 Acceleration,Commanded Joint 6 Acceleration,Commanded Joint 0 Torque,Commanded Joint 1 Torque,Commanded Joint 2 Torque,Commanded Joint 3 Torque,Commanded Joint 4 Torque,Commanded Joint 5 Torque,Commanded Joint 6 Torque,Actual Joint 0 Position,Actual Joint 1 Position,Actual Joint 2 Position,Actual Joint 3 Position,Actual Joint 4 Position,Actual Joint 5 Position,Actual Joint 6 Position,Actual Joint 0 Velocity,Actual Joint 1 Velocity,Actual Joint 2 Velocity,Actual Joint 3 Velocity,Actual Joint 4 Velocity,Actual Joint 5 Velocity,Actual Joint 6 Velocity,Actual Joint 0 Acceleration,Actual Joint 1 Acceleration,Actual Joint 2 Acceleration,Actual Joint 3 Acceleration,Actual Joint 4 Acceleration,Actual Joint 5 Acceleration,Actual Joint 6 Acceleration,Actual Joint 0 Torque,Actual Joint 1 Torque,Actual Joint 2 Torque,Actual Joint 3 Torque,Actual Joint 4 Torque,Actual Joint 5 Torque,Actual Joint 6 Torque,
0.0412358,0.0354357,-0.0887738,-1.74323,0.0225633,0.244734,-0.00997353,0.000261138,0.0232594,0.000303688,-0.0324366,-0.00368046,0.053186,-0.000390002,0.163211,14.5371,0.189805,-20.2729,-2.30029,33.2413,-0.243752,0,0,0,0,0,0,0,0.0412103,0.0336519,-0.0888036,-1.73988,0.0227571,0.239081,-0.00992491,0.000990269,-6.03174e-05,9.75899e-05,-0.0030136,0.0041658,-0.00071717,-0.000780171,0,0,0,0,0,0,0,0.0828892,-36.1687,-0.288683,26.9272,0.599362,3.0468,0.104477,
0.0412214,0.0336662,-0.0887927,-1.73989,0.0228017,0.239036,-0.00992495,0.00028826,0.0187177,0.000321494,-0.0260412,-0.00269677,0.0422298,-0.000311887,0.0169514,-2.83858,0.011129,3.99713,0.614807,-6.84762,0.048822,0,0,0,0,0,0,0,0.0412103,0.0336519,-0.0888036,-1.73988,0.0227571,0.239081,-0.00992491,0.000990269,-6.03174e-05,9.75899e-05,-0.0030136,0.0041658,-0.00071717,-0.000780171,0,0,0,0,0,0,0,0.0828892,-36.1687,-0.288683,26.9272,0.599362,3.0468,0.104477,
0.0412241,0.0336699,-0.0887901,-1.7399,0.022809,0.239025,-0.00992496,0.000297439,0.0150667,0.000323187,-0.020906,-0.00197643,0.0335294,-0.000249782,0.0057367,-2.28187,0.00105778,3.20949,0.450211,-5.43775,0.0388157,0,0,0,0,0,0,0,0.0412103,0.0336519,-0.0888036,-1.73988,0.0227571,0.239081,-0.00992491,0.000990269,-6.03174e-05,9.75899e-05,-0.0030136,0.0041658,-0.00071717,-0.000780171,0,0,0,0,0,0,0,0.0828892,-36.1687,-0.288683,26.9272,0.599362,3.0468,0.104477,
0.0412263,0.0336729,-0.0887879,-1.7399,0.0228144,0.239017,-0.00992498,0.000293542,0.0121303,0.000313356,-0.0167841,-0.00144532,0.026621,-0.000200237,-0.00243529,-1.83521,-0.00614401,2.57618,0.331948,-4.31779,0.0309659,0,0,0,0,0,0,0,0.041205,0.0338447,-0.088804,-1.74004,0.0227608,0.239064,-0.0099242,-0.000950146,0.00657907,0.000413648,0.000970055,0.00328288,-0.00348386,-0.00102082,-0.242552,0.829924,0.0395073,0.497956,-0.110365,-0.345836,-0.030081,0.158268,-36.9939,-0.288683,27.3993,0.557247,3.16582,0.0980684,
0.0412095,0.0343156,-0.0887985,-1.74058,0.022635,0.239306,-0.00992061,0.000345715,0.0214783,0.000385963,-0.0268623,-0.00430232,0.0273429,-7.0488e-05,0.032608,5.84246,0.0453793,-6.29889,-1.78563,0.451182,0.081093,0,0,0,0,0,0,0,0.041205,0.0338447,-0.088804,-1.74004,0.0227608,0.239064,-0.0099242,-0.000950146,0.00657907,0.000413648,0.000970055,0.00328288,-0.00348386,-0.00102082,0,0,0,0,0,0,0,0.158268,-36.9939,-0.288683,27.3993,0.557247,3.16582,0.0980684,
0.0411615,0.0347655,-0.0888519,-1.74079,0.0235136,0.23857,-0.00993692,-0.000923312,0.0284301,-0.00102647,-0.0268891,0.018523,0.00347268,-0.000464171,-0.793142,4.34486,-0.882769,-0.0167414,14.2658,-14.9189,-0.246052,0,0,0,0,0,0,0,0.041205,0.0338447,-0.088804,-1.74004,0.0227608,0.239064,-0.0099242,-0.000950146,0.00657907,0.000413648,0.000970055,0.00328288,-0.00348386,-0.00102082,0,0,0,0,0,0,0,0.158268,-36.9939,-0.288683,27.3993,0.557247,3.16582,0.0980684,
0.0410943,0.0351237,-0.0889206,-1.74094,0.0249912,0.237373,-0.00994736,-0.00241786,0.0316974,-0.00253751,-0.0250357,0.0517596,-0.0271616,-0.000632345,-0.934091,2.0421,-0.944404,1.15841,20.7729,-19.1464,-0.105109,0,0,0,0,0,0,0,0.041205,0.0338447,-0.088804,-1.74004,0.0227608,0.239064,-0.0099242,-0.000950146,0.00657907,0.000413648,0.000970055,0.00328288,-0.00348386,-0.00102082,0,0,0,0,0,0,0,0.158268,-36.9939,-0.288683,27.3993,0.557247,3.16582,0.0980684,
0.0410277,0.0354002,-0.0889867,-1.74105,0.026824,0.235916,-0.00995349,-0.00359982,0.032271,-0.00368278,-0.0229081,0.0872277,-0.0581323,-0.000659123,-0.738724,0.358492,-0.715794,1.32971,22.1676,-19.3567,-0.0167364,0,0,0,0,0,0,0,0.0412034,0.0340945,-0.0888047,-1.74046,0.0227575,0.239523,-0.00992269,-0.000485452,0.009083,0.00126468,-0.0259772,0.00221983,0.0328222,-0.00050104,0.0580868,0.312991,0.106379,-3.36841,-0.132881,4.53826,0.0649723,0.182071,-34.9944,-0.288683,25.7806,0.58746,2.95342,0.0843355,
0.0412117,0.0346274,-0.0887953,-1.74106,0.0226129,0.239839,-0.0099187,-0.00267098,0.0391377,-0.00271265,-0.0334395,0.0661672,-0.0386059,-0.000427542,0.580524,4.2917,0.60633,-6.58213,-13.1628,12.204,0.144739,0,0,0,0,0,0,0,0.0412034,0.0340945,-0.0888047,-1.74046,0.0227575,0.239523,-0.00992269,-0.000485452,0.009083,0.00126468,-0.0259772,0.00221983,0.0328222,-0.00050104,0,0,0,0,0,0,0,0.182071,-34.9944,-0.288683,25.7806,0.58746,2.95342,0.0843355,
0.0411004,0.0351641,-0.0889253,-1.74107,0.0256912,0.236878,-0.0099683,-0.00491975,0.0447295,-0.00541886,-0.0269175,0.129892,-0.104927,-0.00158201,-1.40549,3.49488,-1.69138,4.07627,39.8278,-41.4508,-0.721542,0,0,0,0,0,0,0,0.0412034,0.0340945,-0.0888047,-1.74046,0.0227575,0.239523,-0.00992269,-0.000485452,0.009083,0.00126468,-0.0259772,0.00221983,0.0328222,-0.00050104,0,0,0,0,0,0,0,0.182071,-34.9944,-0.288683,25.7806,0.58746,2.95342,0.0843355,
0.0409626,0.0355532,-0.0890706,-1.74102,0.030712,0.232163,-0.00999808,-0.00738058,0.0455105,-0.00796949,-0.0203203,0.229433,-0.201799,-0.0020102,-1.53802,0.488131,-1.59414,4.12322,62.213,-60.5448,-0.267617,0,0,0,0,0,0,0,0.0412034,0.0340945,-0.0888047,-1.74046,0.0227575,0.239523,-0.00992269,-0.000485452,0.009083,0.00126468,-0.0259772,0.00221983,0.0328222,-0.00050104,0,0,0,0,0,0,0,0.182071,-34.9944,-0.288683,25.7806,0.58746,2.95342,0.0843355,
0.040851,0.0358218,-0.0891843,-1.74101,0.0369074,0.226399,-0.0100139,-0.00869389,0.0431234,-0.00921825,-0.0159765,0.338431,-0.305552,-0.00200374,-0.820818,-1.49194,-0.780473,2.71492,68.1243,-64.8458,0.00403637,0,0,0,0,0,0,0,0.0412034,0.0340945,-0.0888047,-1.74046,0.0227575,0.239523,-0.00992269,-0.000485452,0.009083,0.00126468,-0.0259772,0.00221983,0.0328222,-0.00050104,0,0,0,0,0,0,0,0.182071,-34.9944,-0.288683,25.7806,0.58746,2.95342,0.0843355,
0.0412111,0.0351057,-0.0887956,-1.74168,0.0226874,0.239929,-0.00991772,-0.00680196,0.0495383,-0.00717728,-0.0282905,0.268372,-0.239735,-0.00149011,1.18246,4.00928,1.2756,-7.69629,-43.7873,41.1356,0.321017,0,0,0,0,0,0,0,0.041205,0.0345041,-0.0888035,-1.74106,0.0227823,0.239741,-0.00992224,-0.00192728,0.0248583,0.00121445,-0.0174011,0.0127063,0.000136878,0.000324144,-0.180228,1.97192,-0.0062787,1.07201,1.3108,-4.08567,0.103148,0.158268,-34.7206,-0.33629,26.2051,0.654293,2.86095,0.0706026,
0.0415616,0.0355546,-0.0884406,-1.74203,0.0248841,0.236267,-0.00982273,0.00332049,0.0508545,0.00313253,-0.0311862,0.269616,-0.283331,0.00118263,6.32653,0.82263,6.44363,-1.8098,0.777538,-27.2475,1.67046,0,0,0,0,0,0,0,0.041205,0.0345041,-0.0888035,-1.74106,0.0227823,0.239741,-0.00992224,-0.00192728,0.0248583,0.00121445,-0.0174011,0.0127063,0.000136878,0.000324144,0,0,0,0,0,0,0,0.158268,-34.7206,-0.33629,26.2051,0.654293,2.86095,0.0706026,
0.0422049,0.0358864,-0.0878101,-1.74231,0.0287381,0.230167,-0.00972394,0.0187377,0.0489774,0.0182684,-0.0320877,0.312043,-0.379162,0.00341594,9.63572,-1.17318,9.45989,-0.563446,26.5168,-59.8939,1.39582,0,0,0,0,0,0,0,0.041205,0.0345041,-0.0888035,-1.74106,0.0227823,0.239741,-0.00992224,-0.00192728,0.0248583,0.00121445,-0.0174011,0.0127063,0.000136878,0.000324144,0,0,0,0,0,0,0,0.158268,-34.7206,-0.33629,26.2051,0.654293,2.86095,0.0706026,
0.0430772,0.0361375,-0.086958,-1.7426,0.0338008,0.222457,-0.00963045,0.0367977,0.0454594,0.0359163,-0.0329596,0.376202,-0.496089,0.00507012,11.2875,-2.19872,11.0299,-0.544938,40.0995,-73.0799,1.03386,0,0,0,0,0,0,0,0.041205,0.0345041,-0.0888035,-1.74106,0.0227823,0.239741,-0.00992224,-0.00192728,0.0248583,0.00121445,-0.0174011,0.0127063,0.000136878,0.000324144,0,0,0,0,0,0,0,0.158268,-34.7206,-0.33629,26.2051,0.654293,2.86095,0.0706026,
0.0411764,0.0360717,-0.0888458,-1.74228,0.0252669,0.239268,-0.00991056,0.0298488,0.0527754,0.0292593,-0.0422983,0.313153,-0.397946,0.00430391,-4.34308,4.57248,-4.16059,-5.83664,-39.4053,61.3395,-0.478883,0,0,0,0,0,0,0,0.0411599,0.0354154,-0.0888669,-1.74165,0.0247792,0.239311,-0.00992048,-0.000979897,0.0383172,-0.00394092,-0.00995152,0.134125,-0.0505051,0.000328545,0.118423,1.68237,-0.644422,0.931195,15.1774,-6.33024,0.000550165,0.336795,-35.5696,-0.0863513,27.0026,1.52221,2.14501,0.0641939,
0.0418126,0.0362843,-0.0881977,-1.74325,0.0273373,0.235924,-0.00959968,0.039785,0.0475347,0.0396109,-0.0579107,0.302283,-0.401954,0.0112151,6.21015,-3.27544,6.46973,-9.75776,-6.79416,-2.50461,4.31949,0,0,0,0,0,0,0,0.0411599,0.0354154,-0.0888669,-1.74165,0.0247792,0.239311,-0.00992048,-0.000979897,0.0383172,-0.00394092,-0.00995152,0.134125,-0.0505051,0.000328545,0,0,0,0,0,0,0,0.336795,-35.5696,-0.0863513,27.0026,1.52221,2.14501,0.0641939,
0.0428635,0.03638,-0.0871459,-1.74424,0.0308792,0.230152,-0.00941591,0.0581012,0.0404221,0.0579833,-0.0711424,0.330373,-0.465869,0.0135665,11.4476,-4.44538,11.4828,-8.26982,17.5568,-39.947,1.46964,0,0,0,0,0,0,0,0.0411599,0.0354154,-0.0888669,-1.74165,0.0247792,0.239311,-0.00992048,-0.000979897,0.0383172,-0.00394092,-0.00995152,0.134125,-0.0505051,0.000328545,0,0,0,0,0,0,0,0.336795,-35.5696,-0.0863513,27.0026,1.52221,2.14501,0.0641939,
0.0441978,0.0364787,-0.0858202,-1.74521,0.0356525,0.222705,-0.00931649,0.0798371,0.0348037,0.0795286,-0.0812084,0.383633,-0.558858,0.0133386,13.5849,-3.51148,13.4658,-6.29125,33.2873,-58.1181,-0.14243,0,0,0,0,0,0,0,0.0411599,0.0354154,-0.0888669,-1.74165,0.0247792,0.239311,-0.00992048,-0.000979897,0.0383172,-0.00394092,-0.00995152,0.134125,-0.0505051,0.000328545,0,0,0,0,0,0,0,0.336795,-35.5696,-0.0863513,27.0026,1.52221,2.14501,0.0641939,
0.0410495,0.0372429,-0.0890436,-1.74267,0.0335136,0.233248,-0.00991119,0.0649843,0.0443353,0.0649049,-0.0829459,0.33076,-0.466488,0.0110287,-9.28299,5.95725,-9.1398,-1.08594,-33.0456,57.7311,-1.44369,0,0,0,0,0,0,0,0.041005,0.0365832,-0.0890949,-1.74195,0.0325595,0.234024,-0.0099255,0.000835962,0.035906,-0.00228783,-0.0222593,0.228506,-0.181661,0.000580834,0.226982,-0.301412,0.206636,-1.53847,11.7976,-16.3945,0.0315361,1.47541,-35.9425,1.03639,26.8796,1.28967,1.68725,0.0706026,
0.0418983,0.037246,-0.0882178,-1.74422,0.035594,0.229824,-0.00947449,0.073207,0.0355446,0.0725681,-0.10503,0.316618,-0.458788,0.0197404,5.1392,-5.49419,4.78951,-13.8028,-8.83852,4.8126,5.4448,0,0,0,0,0,0,0,0.041005,0.0365832,-0.0890949,-1.74195,0.0325595,0.234024,-0.0099255,0.000835962,0.035906,-0.00228783,-0.0222593,0.228506,-0.181661,0.000580834,0,0,0,0,0,0,0,1.47541,-35.9425,1.03639,26.8796,1.28967,1.68725,0.0706026,
0.0432238,0.0371533,-0.0869268,-1.74583,0.0390229,0.224073,-0.00926254,0.091703,0.0261193,0.0903306,-0.124399,0.339016,-0.510796,0.0210911,11.56,-5.89081,11.1016,-12.1055,13.9983,-32.5048,0.844153,0,0,0,0,0,0,0,0.041005,0.0365832,-0.0890949,-1.74195,0.0325595,0.234024,-0.0099255,0.000835962,0.035906,-0.00228783,-0.0222593,0.228506,-0.181661,0.000580834,0,0,0,0,0,0,0,1.47541,-35.9425,1.03639,26.8796,1.28967,1.68725,0.0706026,
0.0448458,0.0370948,-0.0853444,-1.74743,0.0436939,0.216682,-0.00919403,0.113911,0.0194332,0.111824,-0.139402,0.387988,-0.593416,0.0185855,13.8801,-4.17885,13.4335,-9.37697,30.6077,-51.638,-1.56598,0,0,0,0,0,0,0,0.041005,0.0365832,-0.0890949,-1.74195,0.0325595,0.234024,-0.0099255,0.000835962,0.035906,-0.00228783,-0.0222593,0.228506,-0.181661,0.000580834,0,0,0,0,0,0,0,1.47541,-35.9425,1.03639,26.8796,1.28967,1.68725,0.0706026,
0.0410495,0.0372429,-0.0890436,-1.74267,0.0335136,0.233248,-0.00991119,0.0922435,0.0320389,0.0907414,-0.129501,0.334244,-0.494135,0.0152262,-13.5423,7.87857,-13.1768,6.18829,-33.59,62.0509,-2.09955,0,0,0,0,0,0,0,0.0411657,0.0376668,-0.0888563,-1.74289,0.040792,0.224833,-0.00992745,0.00936211,0.0225864,0.0195306,-0.0556055,0.270096,-0.271257,-0.00117306,1.06577,-1.66494,2.72731,-4.16827,5.1987,-11.1995,-0.219237,3.25275,-35.6212,2.83754,25.9314,1.54602,1.52794,0.138352,
0.042007,0.0371492,-0.0880804,-1.74457,0.0353934,0.230143,-0.0093872,0.0977321,0.0232894,0.0966735,-0.1511,0.31439,-0.472922,0.0252805,3.43037,-5.46845,3.70757,-13.4996,-12.409,13.2584,6.28395,0,0,0,0,0,0,0,0.0411657,0.0376668,-0.0888563,-1.74289,0.040792,0.224833,-0.00992745,0.00936211,0.0225864,0.0195306,-0.0556055,0.270096,-0.271257,-0.00117306,0,0,0,0,0,0,0,3.25275,-35.6212,2.83754,25.9314,1.54602,1.52794,0.138352,
0.0434875,0.0370017,-0.0866128,-1.74659,0.0386275,0.224698,-0.00916947,0.115198,0.0149422,0.114028,-0.171367,0.332365,-0.514464,0.0256678,10.9159,-5.21695,10.8468,-12.6669,11.2342,-25.9641,0.242039,0,0,0,0,0,0,0,0.0411657,0.0376668,-0.0888563,-1.74289,0.040792,0.224833,-0.00992745,0.00936211,0.0225864,0.0195306,-0.0556055,0.270096,-0.271257,-0.00117306,0,0,0,0,0,0,0,3.25275,-35.6212,2.83754,25.9314,1.54602,1.52794,0.138352,
0.0452741,0.0369206,-0.08485,-1.74863,0.0431759,0.217578,-0.00914884,0.136822,0.00992701,0.135292,-0.18795,0.379602,-0.589571,0.0210499,13.5153,-3.13452,13.2896,-10.3642,29.5232,-46.9419,-2.88616,0,0,0,0,0,0,0,0.0411657,0.0376668,-0.0888563,-1.74289,0.040792,0.224833,-0.00992745,0.00936211,0.0225864,0.0195306,-0.0556055,0.270096,-0.271257,-0.00117306,0,0,0,0,0,0,0,3.25275,-35.6212,2.83754,25.9314,1.54602,1.52794,0.138352,
0.04131,0.0383122,-0.0887059,-1.74372,0.0420021,0.22345,-0.00991392,0.113064,0.0240765,0.111992,-0.171063,0.333933,-0.506239,0.0171781,-14.8486,8.84343,-14.5621,10.5541,-28.5429,52.083,-2.41986,0,0,0,0,0,0,0,0.0421918,0.0383206,-0.0876275,-1.7457,0.0505876,0.212606,-0.0099135,0.0395778,0.00638255,0.0481202,-0.108412,0.346839,-0.362326,0.000546858,3.77697,-2.02549,3.57369,-6.60083,9.59296,-11.3836,0.21499,4.51831,-34.796,4.03566,25.5347,1.66229,1.37505,0.131027,
0.0424555,0.038134,-0.0875876,-1.74604,0.0439417,0.22024,-0.00932523,0.119091,0.0148066,0.117553,-0.194853,0.315639,-0.485225,0.0284598,3.76671,-5.7937,3.47519,-14.8684,-11.4339,13.1335,7.05104,0,0,0,0,0,0,0,0.0421918,0.0383206,-0.0876275,-1.7457,0.0505876,0.212606,-0.0099135,0.0395778,0.00638255,0.0481202,-0.108412,0.346839,-0.362326,0.000546858,0,0,0,0,0,0,0,4.51831,-34.796,4.03566,25.5347,1.66229,1.37505,0.131027,
0.0441254,0.0379314,-0.0859504,-1.74853,0.0472055,0.214824,-0.00912354,0.137018,0.00678,0.134971,-0.218269,0.334104,-0.523596,0.02781,11.2044,-5.01662,10.8867,-14.635,11.541,-23.9818,-0.406121,0,0,0,0,0,0,0,0.0421918,0.0383206,-0.0876275,-1.7457,0.0505876,0.212606,-0.0099135,0.0395778,0.00638255,0.0481202,-0.108412,0.346839,-0.362326,0.000546858,0,0,0,0,0,0,0,4.51831,-34.796,4.03566,25.5347,1.66229,1.37505,0.131027,
0.0460804,0.0378094,-0.0840329,-1.75108,0.0518087,0.20779,-0.00916984,0.158491,0.00237384,0.155914,-0.238266,0.382365,-0.594719,0.0210905,13.4204,-2.75385,13.089,-12.4981,30.163,-44.452,-4.19972,0,0,0,0,0,0,0,0.0421918,0.0383206,-0.0876275,-1.7457,0.0505876,0.212606,-0.0099135,0.0395778,0.00638255,0.0481202,-0.108412,0.346839,-0.362326,0.000546858,0,0,0,0,0,0,0,4.51831,-34.796,4.03566,25.5347,1.66229,1.37505,0.131027,
0.0455102,0.037197,-0.0843409,-1.75104,0.0574671,0.202887,-0.00909915,0.174833,-0.0106808,0.172101,-0.260237,0.404865,-0.619895,0.0212093,10.214,-8.15913,10.1172,-13.7317,14.0627,-15.735,0.0742729,0,0,0,0,0,0,0,0.044123,0.0386128,-0.0854564,-1.75021,0.0590871,0.200153,-0.00989497,0.0754492,0.0060829,0.0726575,-0.144732,0.34362,-0.401089,0.000635819,4.48392,-0.0374558,3.06717,-4.53992,-0.402409,-4.84532,0.0111201,5.12928,-34.9468,4.71406,25.3085,1.72912,1.34209,0.104477,
0.0476861,0.0368637,-0.0822002,-1.75393,0.0626126,0.195739,-0.00922171,0.194263,-0.016878,0.191197,-0.280481,0.45253,-0.674632,0.0139035,12.1439,-3.87327,11.935,-12.6529,29.7905,-34.2104,-4.56611,0,0,0,0,0,0,0,0.044123,0.0386128,-0.0854564,-1.75021,0.0590871,0.200153,-0.00989497,0.0754492,0.0060829,0.0726575,-0.144732,0.34362,-0.401089,0.000635819,0,0,0,0,0,0,0,5.12928,-34.9468,4.71406,25.3085,1.72912,1.34209,0.104477,
0.0499836,0.036659,-0.0799418,-1.75691,0.0687807,0.187591,-0.00948493,0.212848,-0.01862,0.209418,-0.299064,0.516228,-0.74339,0.00454225,11.6156,-1.08873,11.3878,-11.6142,39.811,-42.9739,-5.8508,0,0,0,0,0,0,0,0.044123,0.0386128,-0.0854564,-1.75021,0.0590871,0.200153,-0.00989497,0.0754492,0.0060829,0.0726575,-0.144732,0.34362,-0.401089,0.000635819,0,0,0,0,0,0,0,5.12928,-34.9468,4.71406,25.3085,1.72912,1.34209,0.104477,
0.0523332,0.0365158,-0.0776328,-1.76002,0.0757407,0.178741,-0.00971336,0.229019,-0.0184752,0.225261,-0.316873,0.586981,-0.815982,-0.00207672,10.1068,0.0905028,9.90174,-11.1304,44.2206,-45.3698,-4.13686,0,0,0,0,0,0,0,0.044123,0.0386128,-0.0854564,-1.75021,0.0590871,0.200153,-0.00989497,0.0754492,0.0060829,0.0726575,-0.144732,0.34362,-0.401089,0.000635819,0,0,0,0,0,0,0,5.12928,-34.9468,4.71406,25.3085,1.72912,1.34209,0.104477,
0.0471273,0.0379189,-0.0824792,-1.75531,0.0671951,0.189565,-0.00984788,0.225704,-0.0230162,0.222173,-0.321343,0.584216,-0.805102,-0.00450208,-2.0716,-2.83813,-1.92992,-2.79406,-1.72782,6.79948,-1.51585,0,0,0,0,0,0,0,0.0470656,0.0386521,-0.0824169,-1.75635,0.0677112,0.187415,-0.00987002,0.105957,0.000537508,0.0981503,-0.202805,0.349914,-0.390126,0.00115473,3.81345,-0.693174,3.1866,-7.25919,0.786685,1.37031,0.0648634,5.00232,-34.2485,4.61091,24.5865,1.58264,1.19652,0.0980684,
0.0490512,0.0376767,-0.0805844,-1.75818,0.0727844,0.182209,-0.010104,0.228663,-0.0244665,0.225109,-0.328868,0.607106,-0.827974,-0.0100046,1.84899,-0.906433,1.83499,-4.70281,14.3057,-14.2945,-3.43905,0,0,0,0,0,0,0,0.0470656,0.0386521,-0.0824169,-1.75635,0.0677112,0.187415,-0.00987002,0.105957,0.000537508,0.0981503,-0.202805,0.349914,-0.390126,0.00115473,0,0,0,0,0,0,0,5.00232,-34.2485,4.61091,24.5865,1.58264,1.19652,0.0980684,
0.0511046,0.0374825,-0.0785644,-1.7612,0.0792031,0.173942,-0.0103273,0.234264,-0.0244286,0.230587,-0.33852,0.646153,-0.869066,-0.0135862,3.50053,0.0236722,3.42417,-6.03285,24.4044,-25.6824,-2.23852,0,0,0,0,0,0,0,0.0470656,0.0386521,-0.0824169,-1.75635,0.0677112,0.187415,-0.00987002,0.105957,0.000537508,0.0981503,-0.202805,0.349914,-0.390126,0.00115473,0,0,0,0,0,0,0,5.00232,-34.2485,4.61091,24.5865,1.58264,1.19652,0.0980684,
0.0513842,0.037792,-0.0781572,-1.76439,0.0830876,0.168677,-0.0106005,0.22814,-0.0272352,0.224577,-0.343863,0.669075,-0.883867,-0.0175314,-3.82739,-1.75415,-3.75626,-3.33915,14.3264,-9.25094,-2.46576,0,0,0,0,0,0,0,0.0470656,0.0386521,-0.0824169,-1.75635,0.0677112,0.187415,-0.00987002,0.105957,0.000537508,0.0981503,-0.202805,0.349914,-0.390126,0.00115473,0,0,0,0,0,0,0,5.00232,-34.2485,4.61091,24.5865,1.58264,1.19652,0.0980684,
0.0530935,0.0375315,-0.0764748,-1.76739,0.089893,0.160225,-0.0109259,0.225246,-0.0283018,0.221722,-0.35028,0.705396,-0.9184,-0.0221583,-1.80877,-0.66658,-1.78435,-4.0106,22.7005,-21.5834,-2.89181,0,0,0,0,0,0,0,0.0470656,0.0386521,-0.0824169,-1.75635,0.0677112,0.187415,-0.00987002,0.105957,0.000537508,0.0981503,-0.202805,0.349914,-0.390126,0.00115473,0,0,0,0,0,0,0,5.00232,-34.2485,4.61091,24.5865,1.58264,1.19652,0.0980684,
0.0548495,0.0373223,-0.0747469,-1.77045,0.097226,0.151113,-0.0112528,0.224095,-0.0278699,0.220574,-0.356636,0.747641,-0.962517,-0.0258995,-0.719405,0.269945,-0.718046,-3.97253,26.4036,-27.5728,-2.33824,0,0,0,0,0,0,0,0.05125,0.0380006,-0.0783142,-1.76478,0.0809454,0.170559,-0.00987304,0.142786,-0.0256969,0.129479,-0.263979,0.540185,-0.585718,0.00191391,4.60366,-3.2793,3.91607,-7.64669,23.7839,-24.449,0.0948977,7.23194,-34.3715,7.01112,23.0154,2.47436,0.367972,0.0303194,
0.0566319,0.0371539,-0.0729932,-1.77355,0.104935,0.141576,-0.0115575,0.223837,-0.0265062,0.220302,-0.362718,0.790849,-1.00842,-0.0283372,-0.160852,0.852277,-0.169736,-3.80146,27.0049,-28.6901,-1.52359,0,0,0,0,0,0,0,0.05125,0.0380006,-0.0783142,-1.76478,0.0809454,0.170559,-0.00987304,0.142786,-0.0256969,0.129479,-0.263979,0.540185,-0.585718,0.00191391,0,0,0,0,0,0,0,7.23194,-34.3715,7.01112,23.0154,2.47436,0.367972,0.0303194,
0.0555761,0.0369512,-0.0740543,-1.77315,0.0994558,0.148781,-0.010778,0.217821,-0.0290955,0.214385,-0.362991,0.804424,-1.01427,-0.0307979,-3.7605,-1.61829,-3.69817,-0.170635,8.48407,-3.65244,-1.53792,0,0,0,0,0,0,0,0.05125,0.0380006,-0.0783142,-1.76478,0.0809454,0.170559,-0.00987304,0.142786,-0.0256969,0.129479,-0.263979,0.540185,-0.585718,0.00191391,0,0,0,0,0,0,0,7.23194,-34.3715,7.01112,23.0154,2.47436,0.367972,0.0303194,
0.0571908,0.0366816,-0.0724653,-1.77613,0.106786,0.13985,-0.0110811,0.214624,-0.0300156,0.211233,-0.364932,0.826794,-1.03469,-0.0322161,-1.99788,-0.575084,-1.97002,-1.21285,13.9815,-12.7679,-0.886396,0,0,0,0,0,0,0,0.05125,0.0380006,-0.0783142,-1.76478,0.0809454,0.170559,-0.00987304,0.142786,-0.0256969,0.129479,-0.263979,0.540185,-0.585718,0.00191391,0,0,0,0,0,0,0,7.23194,-34.3715,7.01112,23.0154,2.47436,0.367972,0.0303194,
0.058849,0.0364528,-0.0708336,-1.77917,0.114453,0.130638,-0.0113532,0.213154,-0.0297312,0.209779,-0.368098,0.853116,-1.05806,-0.0325766,-0.918543,0.177778,-0.908702,-1.9789,16.4513,-14.6025,-0.225274,0,0,0,0,0,0,0,0.0563395,0.0374061,-0.072973,-1.77534,0.0987353,0.149484,-0.00997825,0.149931,-0.0212389,0.178522,-0.312825,0.583773,-0.660236,-0.0112111,0.893185,0.557241,6.1304,-6.10584,5.4486,-9.31476,-1.64063,3.35193,-35.3435,3.13905,25.1102,2.5476,0.758902,0.0101778,
0.0605333,0.0362638,-0.0691762,-1.78227,0.122366,0.12143,-0.0115917,0.212633,-0.0285109,0.209257,-0.37187,0.880321,-1.07663,-0.0320231,-0.326164,0.762646,-0.326083,-2.35752,17.0031,-11.6104,0.345905,0,0,0,0,0,0,0,0.0563395,0.0374061,-0.072973,-1.77534,0.0987353,0.149484,-0.00997825,0.149931,-0.0212389,0.178522,-0.312825,0.583773,-0.660236,-0.0112111,0,0,0,0,0,0,0,3.35193,-35.3435,3.13905,25.1102,2.5476,0.758902,0.0101778,
0.0622085,0.0364472,-0.0672047,-1.78689,0.126006,0.119042,-0.0110036,0.208518,-0.0282079,0.205184,-0.373319,0.893412,-1.06076,-0.0307717,-2.57127,0.189401,-2.54569,-0.905543,8.18144,9.92034,0.782145,0,0,0,0,0,0,0,0.0563395,0.0374061,-0.072973,-1.77534,0.0987353,0.149484,-0.00997825,0.149931,-0.0212389,0.178522,-0.312825,0.583773,-0.660236,-0.0112111,0,0,0,0,0,0,0,3.35193,-35.3435,3.13905,25.1102,2.5476,0.758902,0.0101778,
0.0637732,0.0362641,-0.0656655,-1.79003,0.133841,0.111817,-0.0111796,0.205933,-0.0271436,0.202627,-0.377064,0.91061,-1.02925,-0.0290161,-1.61608,0.665194,-1.5979,-2.34038,10.7491,19.6925,1.09723,0,0,0,0,0,0,0,0.0563395,0.0374061,-0.072973,-1.77534,0.0987353,0.149484,-0.00997825,0.149931,-0.0212389,0.178522,-0.312825,0.583773,-0.660236,-0.0112111,0,0,0,0,0,0,0,3.35193,-35.3435,3.13905,25.1102,2.5476,0.758902,0.0101778,
0.0653561,0.0361173,-0.0641082,-1.79326,0.141865,0.105807,-0.0113277,0.204318,-0.0253842,0.201033,-0.382343,0.929097,-0.973653,-0.0269166,-1.00905,1.09961,-0.9966,-3.2997,11.5543,34.7509,1.31224,0,0,0,0,0,0,0,0.0622222,0.0370171,-0.0669831,-1.78629,0.121166,0.12394,-0.0104571,0.185628,-0.00971103,0.171985,-0.328399,0.652811,-0.799812,-0.0194616,4.46212,1.44099,-0.8171,-1.94675,8.62972,-17.447,-1.0313,1.34845,-35.3951,1.18715,24.162,2.03491,0.871512,0.00376909,
0.0669467,0.0360065,-0.0625433,-1.79653,0.150018,0.101181,-0.0114555,0.20322,-0.0230789,0.19995,-0.387854,0.947087,-0.894561,-0.0247266,-0.686563,1.44081,-0.677112,-3.44425,11.2437,49.4324,1.36874,0,0,0,0,0,0,0,0.0622222,0.0370171,-0.0669831,-1.78629,0.121166,0.12394,-0.0104571,0.185628,-0.00971103,0.171985,-0.328399,0.652811,-0.799812,-0.0194616,0,0,0,0,0,0,0,1.34845,-35.3951,1.18715,24.162,2.03491,0.871512,0.00376909,
0.0681319,0.0364074,-0.061183,-1.79858,0.149679,0.101451,-0.0111285,0.200182,-0.0216278,0.196931,-0.390813,0.951432,-0.819311,-0.0229961,-1.89876,0.906928,-1.88643,-1.84957,2.71572,47.0308,1.08157,0,0,0,0,0,0,0,0.0622222,0.0370171,-0.0669831,-1.78629,0.121166,0.12394,-0.0104571,0.185628,-0.00971103,0.171985,-0.328399,0.652811,-0.799812,-0.0194616,0,0,0,0,0,0,0,1.34845,-35.3951,1.18715,24.162,2.03491,0.871512,0.00376909,
0.0696453,0.0363078,-0.0596946,-1.80182,0.157625,0.0985624,-0.0112349,0.197979,-0.0197901,0.194754,-0.393788,0.959786,-0.727664,-0.0210575,-1.37657,1.14856,-1.36056,-1.85905,5.2213,57.2798,1.21163,0,0,0,0,0,0,0,0.0622222,0.0370171,-0.0669831,-1.78629,0.121166,0.12394,-0.0104571,0.185628,-0.00971103,0.171985,-0.328399,0.652811,-0.799812,-0.0194616,0,0,0,0,0,0,0,1.34845,-35.3951,1.18715,24.162,2.03491,0.871512,0.00376909,
0.0711602,0.0362325,-0.0582044,-1.80506,0.165698,0.096886,-0.0113241,0.196256,-0.0177169,0.193059,-0.395901,0.969662,-0.62404,-0.0190747,-1.07711,1.29577,-1.05967,-1.32063,6.17255,64.7647,1.23925,0,0,0,0,0,0,0,0.0683392,0.0367885,-0.06109,-1.79811,0.14756,0.0941576,-0.0109469,0.175526,-0.00805779,0.179524,-0.364272,0.793015,-0.900838,-0.0112688,-1.26281,0.206655,0.942311,-4.4841,17.5255,-12.6283,1.02409,1.12232,-36.367,1.08797,25.856,2.05322,1.6607,-0.0163725,
0.0726697,0.0361776,-0.0567193,-1.80826,0.173854,0.096311,-0.0113942,0.194743,-0.0155443,0.191576,-0.396641,0.97962,-0.513608,-0.0170117,-0.945556,1.35786,-0.927,-0.462802,6.22332,69.0204,1.28937,0,0,0,0,0,0,0,0.0683392,0.0367885,-0.06109,-1.79811,0.14756,0.0941576,-0.0109469,0.175526,-0.00805779,0.179524,-0.364272,0.793015,-0.900838,-0.0112688,0,0,0,0,0,0,0,1.12232,-36.367,1.08797,25.856,2.05322,1.6607,-0.0163725,
0.0755673,0.0364981,-0.0539825,-1.81445,0.185774,0.085731,-0.0112973,0.19183,-0.0123228,0.188719,-0.395817,0.984203,-0.390967,-0.0145169,-1.82072,2.01343,-1.78566,0.515031,2.86464,76.6506,1.5592,0,0,0,0,0,0,0,0.0683392,0.0367885,-0.06109,-1.79811,0.14756,0.0941576,-0.0109469,0.175526,-0.00805779,0.179524,-0.364272,0.793015,-0.900838,-0.0112688,0,0,0,0,0,0,0,1.12232,-36.367,1.08797,25.856,2.05322,1.6607,-0.0163725,
0.0769965,0.0365153,-0.052576,-1.8175,0.193866,0.0873228,-0.0113194,0.189194,-0.00942955,0.186137,-0.392913,0.989673,-0.272978,-0.0121673,-1.64751,1.80831,-1.61373,1.81535,3.41888,73.7429,1.46856,0,0,0,0,0,0,0,0.0683392,0.0367885,-0.06109,-1.79811,0.14756,0.0941576,-0.0109469,0.175526,-0.00805779,0.179524,-0.364272,0.793015,-0.900838,-0.0112688,0,0,0,0,0,0,0,1.12232,-36.367,1.08797,25.856,2.05322,1.6607,-0.0163725,
0.0784097,0.03654,-0.0511853,-1.82046,0.202005,0.0895358,-0.0113267,0.186683,-0.00692584,0.183679,-0.38835,0.995206,-0.163058,-0.00991472,-1.56904,1.56482,-1.53624,2.85194,3.45779,68.7,1.40783,0,0,0,0,0,0,0,0.0741414,0.0367118,-0.0549211,-1.81125,0.176406,0.068135,-0.011121,0.168459,-0.00685856,0.208742,-0.40856,0.852689,-0.651928,-0.00243409,-0.88342,0.149904,3.65228,-5.536,7.45927,31.1137,1.10434,0.463749,-35.1967,0.163588,26.2051,1.77856,2.54235,-0.0301054,
0.0813697,0.0369569,-0.0478072,-1.82712,0.215344,0.0694119,-0.0111498,0.184266,-0.00305264,0.181307,-0.383861,0.997416,-0.0738279,-0.00738445,-1.51094,2.42075,-1.48205,2.80548,1.38165,55.7688,1.58142,0,0,0,0,0,0,0,0.0741414,0.0367118,-0.0549211,-1.81125,0.176406,0.068135,-0.011121,0.168459,-0.00685856,0.208742,-0.40856,0.852689,-0.651928,-0.00243409,0,0,0,0,0,0,0,0.463749,-35.1967,0.163588,26.2051,1.77856,2.54235,-0.0301054,
0.0827388,0.0370553,-0.0464598,-1.82994,0.22344,0.072176,-0.0111152,0.181639,1.63561e-05,0.178731,-0.377655,1.00033,0.0100399,-0.00504352,-1.64184,1.91812,-1.61042,3.87859,1.82392,52.4174,1.46308,0,0,0,0,0,0,0,0.0741414,0.0367118,-0.0549211,-1.81125,0.176406,0.068135,-0.011121,0.168459,-0.00685856,0.208742,-0.40856,0.852689,-0.651928,-0.00243409,0,0,0,0,0,0,0,0.463749,-35.1967,0.163588,26.2051,1.77856,2.54235,-0.0301054,
0.0840782,0.037148,-0.0451415,-1.83267,0.231565,0.0752969,-0.0110653,0.178797,0.00233083,0.175943,-0.37039,1.0034,0.0860523,-0.00278553,-1.77602,1.44655,-1.74258,4.5405,1.91429,47.5077,1.41125,0,0,0,0,0,0,0,0.0741414,0.0367118,-0.0549211,-1.81125,0.176406,0.068135,-0.011121,0.168459,-0.00685856,0.208742,-0.40856,0.852689,-0.651928,-0.00243409,0,0,0,0,0,0,0,0.463749,-35.1967,0.163588,26.2051,1.77856,2.54235,-0.0301054,
0.0853846,0.0372333,-0.0438554,-1.83532,0.239711,0.0786658,-0.0109993,0.175698,0.00399758,0.172905,-0.362566,1.00636,0.153065,-0.000579755,-1.93702,1.04172,-1.8985,4.8905,1.8519,41.8831,1.37861,0,0,0,0,0,0,0,0.0806111,0.0368983,-0.0486729,-1.82595,0.209039,0.0524311,-0.0111329,0.204409,0.012192,0.159541,-0.442023,0.945013,-0.284155,-0.00102738,4.49377,2.38132,-6.15008,-4.1829,11.5404,45.9716,0.175838,-0.702633,-37.7159,-0.812364,31.3388,1.87011,4.31298,0.017502,
0.0875123,0.0378976,-0.0418825,-1.84089,0.248586,0.0596878,-0.0108757,0.1732,0.00786072,0.170486,-0.357941,1.00465,0.192836,0.00139179,-1.56102,2.41446,-1.51168,2.89056,-1.06925,24.8566,1.23222,0,0,0,0,0,0,0,0.0806111,0.0368983,-0.0486729,-1.82595,0.209039,0.0524311,-0.0111329,0.204409,0.012192,0.159541,-0.442023,0.945013,-0.284155,-0.00102738,0,0,0,0,0,0,0,-0.702633,-37.7159,-0.812364,31.3388,1.87011,4.31298,0.017502,
0.0887834,0.0380651,-0.0406289,-1.84349,0.256308,0.0627672,-0.0108039,0.17034,0.010474,0.167728,-0.351395,0.996788,0.231252,0.00290853,-1.78805,1.6333,-1.72381,4.09079,-4.91388,24.0101,0.947961,0,0,0,0,0,0,0,0.0806111,0.0368983,-0.0486729,-1.82595,0.209039,0.0524311,-0.0111329,0.204409,0.012192,0.159541,-0.442023,0.945013,-0.284155,-0.00102738,0,0,0,0,0,0,0,-0.702633,-37.7159,-0.812364,31.3388,1.87011,4.31298,0.017502,
0.0900401,0.0382107,-0.0393905,-1.84597,0.263317,0.0659845,-0.0107361,0.167688,0.0120204,0.165144,-0.343174,0.972657,0.265435,0.00402182,-1.65708,0.966488,-1.61527,5.13806,-15.0818,21.3645,0.695808,0,0,0,0,0,0,0,0.0806111,0.0368983,-0.0486729,-1.82595,0.209039,0.0524311,-0.0111329,0.204409,0.012192,0.159541,-0.442023,0.945013,-0.284155,-0.00102738,0,0,0,0,0,0,0,-0.702633,-37.7159,-0.812364,31.3388,1.87011,4.31298,0.017502,
0.0912852,0.0383345,-0.0381639,-1.84834,0.269415,0.0692546,-0.0106732,0.165279,0.0127099,0.162779,-0.333899,0.930563,0.294101,0.00478898,-1.50569,0.430987,-1.47822,5.79696,-26.3084,17.9162,0.479475,0,0,0,0,0,0,0,0.0806111,0.0368983,-0.0486729,-1.82595,0.209039,0.0524311,-0.0111329,0.204409,0.012192,0.159541,-0.442023,0.945013,-0.284155,-0.00102738,0,0,0,0,0,0,0,-0.702633,-37.7159,-0.812364,31.3388,1.87011,4.31298,0.017502,
0.0937818,0.0384134,-0.0356067,-1.85326,0.275437,0.0604841,-0.0107863,0.164484,0.0138799,0.16198,-0.326049,0.873136,0.306151,0.00525352,-0.496992,0.731238,-0.498926,4.90622,-35.8918,7.53113,0.290335,0,0,0,0,0,0,0,0.0870075,0.0375529,-0.0422802,-1.84012,0.241667,0.0495607,-0.0111175,0.173894,0.0106997,0.201556,-0.398193,0.971364,0.018257,0.00362883,-3.81432,-0.18654,5.25186,5.47881,3.29386,37.8015,0.582027,-1.89679,-36.5416,-1.76055,28.2721,2.12005,3.27843,-0.0630644,
0.0950448,0.0385417,-0.0343635,-1.85552,0.279625,0.0634074,-0.0107312,0.163162,0.0143111,0.160664,-0.317403,0.803201,0.318001,0.00558153,-0.826059,0.269503,-0.822819,5.40426,-43.7096,7.40658,0.205005,0,0,0,0,0,0,0,0.0870075,0.0375529,-0.0422802,-1.84012,0.241667,0.0495607,-0.0111175,0.173894,0.0106997,0.201556,-0.398193,0.971364,0.018257,0.00362883,0,0,0,0,0,0,0,-1.89679,-36.5416,-1.76055,28.2721,2.12005,3.27843,-0.0630644,
0.0962799,0.0386517,-0.033148,-1.8577,0.282904,0.0663635,-0.0106773,0.161406,0.0141985,0.15892,-0.308534,0.724554,0.328304,0.00581156,-1.09794,-0.0704018,-1.08988,5.54267,-49.1543,6.43937,0.143769,0,0,0,0,0,0,0,0.0870075,0.0375529,-0.0422802,-1.84012,0.241667,0.0495607,-0.0111175,0.173894,0.0106997,0.201556,-0.398193,0.971364,0.018257,0.00362883,0,0,0,0,0,0,0,-1.89679,-36.5416,-1.76055,28.2721,2.12005,3.27843,-0.0630644,
0.0974873,0.0387459,-0.0319596,-1.85982,0.285345,0.0693166,-0.0106222,0.159311,0.0137127,0.156845,-0.299818,0.640666,0.336471,0.00602709,-1.30928,-0.303596,-1.29669,5.44742,-52.4302,5.104,0.134708,0,0,0,0,0,0,0,0.0870075,0.0375529,-0.0422802,-1.84012,0.241667,0.0495607,-0.0111175,0.173894,0.0106997,0.201556,-0.398193,0.971364,0.018257,0.00362883,0,0,0,0,0,0,0,-1.89679,-36.5416,-1.76055,28.2721,2.12005,3.27843,-0.0630644,
0.10065,0.0404182,-0.0280224,-1.86651,0.290206,0.0665637,-0.0107586,0.157685,0.0148306,0.155229,-0.291193,0.529199,0.333171,0.00629675,-1.01581,0.69865,-1.01007,5.3908,-69.6669,-2.06222,0.168534,0,0,0,0,0,0,0,0.0927746,0.0387997,-0.035788,-1.85297,0.273639,0.0529352,-0.0110982,0.158439,0.0634138,0.193821,-0.341675,0.885631,0.161569,0.00258156,-1.93196,6.58927,-0.966859,7.06467,-10.7166,17.914,-0.130908,-1.26202,-37.6643,-1.73674,29.4702,1.82068,3.29125,-0.050247,
0.10182,0.0405466,-0.0268707,-1.86851,0.29035,0.0691411,-0.0106971,0.155413,0.0150742,0.152976,-0.28301,0.426967,0.330973,0.00657514,-1.41993,0.152251,-1.40855,5.11435,-63.8949,-1.37383,0.173996,0,0,0,0,0,0,0,0.0927746,0.0387997,-0.035788,-1.85297,0.273639,0.0529352,-0.0110982,0.158439,0.0634138,0.193821,-0.341675,0.885631,0.161569,0.00258156,0,0,0,0,0,0,0,-1.26202,-37.6643,-1.73674,29.4702,1.82068,3.29125,-0.050247,
0.102955,0.0406543,-0.0257548,-1.87047,0.290076,0.0717178,-0.010634,0.152691,0.0147506,0.150279,-0.275347,0.33472,0.329196,0.00683748,-1.70159,-0.202241,-1.68527,4.78945,-57.6545,-1.11046,0.163963,0,0,0,0,0,0,0,0.0927746,0.0387997,-0.035788,-1.85297,0.273639,0.0529352,-0.0110982,0.158439,0.0634138,0.193821,-0.341675,0.885631,0.161569,0.00258156,0,0,0,0,0,0,0,-1.26202,-37.6643,-1.73674,29.4702,1.82068,3.29125,-0.050247,
0.104056,0.0407453,-0.0246716,-1.87238,0.28947,0.0742806,-0.0105688,0.149681,0.0140765,0.147302,-0.268209,0.252611,0.327427,0.00709875,-1.88137,-0.421316,-1.86085,4.46147,-51.3178,-1.10574,0.163291,0,0,0,0,0,0,0,0.0927746,0.0387997,-0.035788,-1.85297,0.273639,0.0529352,-0.0110982,0.158439,0.0634138,0.193821,-0.341675,0.885631,0.161569,0.00258156,0,0,0,0,0,0,0,-1.26202,-37.6643,-1.73674,29.4702,1.82068,3.29125,-0.050247,
0.0941794,0.0392232,-0.034396,-1.8555,0.279076,0.0546856,-0.0110408,0.154864,0.0218479,0.152644,-0.277673,0.337999,0.305703,0.00711438,3.23982,4.85715,3.33863,-5.91539,53.3677,-13.5777,0.00977253,0,0,0,0,0,0,0,0.0993131,0.0403794,-0.0304367,-1.86398,0.29821,0.0617332,-0.0110957,0.241396,0.031545,0.0883019,-0.301372,0.554378,0.307869,0.00142707,10.3697,-3.98361,-13.1899,5.03794,-41.4066,18.2875,-0.144312,-2.57916,-37.6921,-2.312,25.5585,1.39953,1.43548,0.0577852,
0.0955567,0.0395681,-0.033037,-1.85788,0.283176,0.0567624,-0.0109855,0.158324,0.0261023,0.156088,-0.281688,0.372898,0.296482,0.00707217,2.16228,2.65897,2.15266,-2.50916,21.8116,-5.76311,-0.0263811,0,0,0,0,0,0,0,0.0993131,0.0403794,-0.0304367,-1.86398,0.29821,0.0617332,-0.0110957,0.241396,0.031545,0.0883019,-0.301372,0.554378,0.307869,0.00142707,0,0,0,0,0,0,0,-2.57916,-37.6921,-2.312,25.5585,1.39953,1.43548,0.0577852,
0.0968945,0.0398483,-0.0317186,-1.86015,0.286167,0.0590564,-0.0109304,0.160106,0.0278865,0.15783,-0.282165,0.373103,0.294536,0.00703635,1.11376,1.11516,1.08905,-0.298318,0.128128,-1.21627,-0.0223869,0,0,0,0,0,0,0,0.0993131,0.0403794,-0.0304367,-1.86398,0.29821,0.0617332,-0.0110957,0.241396,0.031545,0.0883019,-0.301372,0.554378,0.307869,0.00142707,0,0,0,0,0,0,0,-2.57916,-37.6921,-2.312,25.5585,1.39953,1.43548,0.0577852,
0.106727,0.0412325,-0.023138,-1.87575,0.301735,0.0763469,-0.0107063,0.156199,0.0241072,0.153923,-0.271856,0.279588,0.296868,0.00729815,-2.44178,-2.36209,-2.44177,6.44326,-58.4471,1.45781,0.163622,0,0,0,0,0,0,0,0.0993131,0.0403794,-0.0304367,-1.86398,0.29821,0.0617332,-0.0110957,0.241396,0.031545,0.0883019,-0.301372,0.554378,0.307869,0.00142707,0,0,0,0,0,0,0,-2.57916,-37.6921,-2.312,25.5585,1.39953,1.43548,0.0577852,
0.107811,0.041292,-0.0220719,-1.87756,0.300761,0.0787781,-0.010639,0.152057,0.0207739,0.149791,-0.262762,0.199305,0.298275,0.00752121,-2.58883,-2.0833,-2.58264,5.68391,-50.1767,0.87924,0.139414,0,0,0,0,0,0,0,0.105919,0.0413189,-0.0238485,-1.87471,0.310546,0.0739768,-0.0110849,0.109499,0.0201779,0.228215,-0.270186,0.229814,0.298996,0.000135792,-16.4872,-1.42089,17.4891,3.89825,-40.5705,-1.10918,-0.16141,-2.35302,-35.5934,-1.93511,25.5823,1.27136,0.99053,0.017502,
0.108858,0.0413423,-0.0210425,-1.87934,0.299639,0.0811853,-0.010571,0.147815,0.0178773,0.145568,-0.25466,0.131394,0.2988,0.00771613,-2.65143,-1.8104,-2.63924,5.06342,-42.4441,0.327933,0.121826,0,0,0,0,0,0,0,0.105919,0.0413189,-0.0238485,-1.87471,0.310546,0.0739768,-0.0110849,0.109499,0.0201779,0.228215,-0.270186,0.229814,0.298996,0.000135792,0,0,0,0,0,0,0,-2.35302,-35.5934,-1.93511,25.5823,1.27136,0.99053,0.017502,
0.10987,0.0413857,-0.0200466,-1.88109,0.298427,0.083565,-0.0105031,0.143572,0.0153849,0.141353,-0.247368,0.0748196,0.298532,0.0078724,-2.65208,-1.55773,-2.6349,4.55772,-35.3592,-0.167588,0.0976641,0,0,0,0,0,0,0,0.105919,0.0413189,-0.0238485,-1.87471,0.310546,0.0739768,-0.0110849,0.109499,0.0201779,0.228215,-0.270186,0.229814,0.298996,0.000135792,0,0,0,0,0,0,0,-2.35302,-35.5934,-1.93511,25.5823,1.27136,0.99053,0.017502,
0.113873,0.041943,-0.0160053,-1.88692,0.307368,0.0893151,-0.0106186,0.139493,0.0132541,0.137298,-0.238455,0.034314,0.293002,0.00791526,-2.54891,-1.33174,-2.53434,5.57068,-25.316,-3.45621,0.0267912,0,0,0,0,0,0,0,0.105919,0.0413189,-0.0238485,-1.87471,0.310546,0.0739768,-0.0110849,0.109499,0.0201779,0.228215,-0.270186,0.229814,0.298996,0.000135792,0,0,0,0,0,0,0,-2.35302,-35.5934,-1.93511,25.5823,1.27136,0.99053,0.017502,
0.114819,0.0419747,-0.0150749,-1.88851,0.306332,0.0914623,-0.0105549,0.13526,0.0113959,0.133097,-0.230444,0.00154285,0.288081,0.00792565,-2.6458,-1.1614,-2.62549,5.00666,-20.482,-3.07552,0.00649573,0,0,0,0,0,0,0,0.111056,0.0427056,-0.01804,-1.8833,0.319253,0.0824252,-0.0110739,0.054394,0.0768803,0.277939,-0.217643,0.148693,0.254712,-0.000304184,-6.88809,7.0878,6.21548,6.56786,-10.1401,-5.53545,-0.054997,-1.00811,-36.4424,-0.963121,26.0306,0.6488,1.81267,-0.00996382,
0.115731,0.0420018,-0.0141791,-1.89006,0.305306,0.093586,-0.0104924,0.130998,0.00979468,0.128874,-0.223158,-0.0244121,0.283559,0.00790249,-2.66375,-1.00075,-2.63918,4.55403,-16.2219,-2.82616,-0.0144789,0,0,0,0,0,0,0,0.111056,0.0427056,-0.01804,-1.8833,0.319253,0.0824252,-0.0110739,0.054394,0.0768803,0.277939,-0.217643,0.148693,0.254712,-0.000304184,0,0,0,0,0,0,0,-1.00811,-36.4424,-0.963121,26.0306,0.6488,1.81267,-0.00996382,
0.116611,0.0420254,-0.0133144,-1.89158,0.304307,0.0956828,-0.0104313,0.126795,0.00842554,0.124715,-0.216448,-0.0445054,0.279268,0.00785027,-2.62705,-0.855711,-2.59959,4.19377,-12.5583,-2.68219,-0.0326342,0,0,0,0,0,0,0,0.111056,0.0427056,-0.01804,-1.8833,0.319253,0.0824252,-0.0110739,0.054394,0.0768803,0.277939,-0.217643,0.148693,0.254712,-0.000304184,0,0,0,0,0,0,0,-1.00811,-36.4424,-0.963121,26.0306,0.6488,1.81267,-0.00996382,
0.117588,0.0440003,-0.011594,-1.89315,0.317193,0.0944066,-0.0107062,0.125072,0.00911102,0.122981,-0.211217,-0.0543665,0.272268,0.00774199,-1.07664,0.428428,-1.08367,3.26905,-6.16318,-4.37476,-0.067678,0,0,0,0,0,0,0,0.111056,0.0427056,-0.01804,-1.8833,0.319253,0.0824252,-0.0110739,0.054394,0.0768803,0.277939,-0.217643,0.148693,0.254712,-0.000304184,0,0,0,0,0,0,0,-1.00811,-36.4424,-0.963121,26.0306,0.6488,1.81267,-0.00996382,
0.118489,0.0440751,-0.0107095,-1.89463,0.316422,0.096346,-0.0106492,0.122583,0.00915975,0.120498,-0.205939,-0.0627892,0.2663,0.00761688,-1.55601,0.0304518,-1.55192,3.29864,-5.26419,-3.73,-0.0781927,0,0,0,0,0,0,0,0.116575,0.0434048,-0.0132103,-1.89109,0.320117,0.0905678,-0.0110705,0.0684007,0.000129746,0.204938,-0.239146,-0.0160494,0.229745,0.00167661,1.75084,-9.59381,-9.12512,-2.68785,-20.5929,-3.12084,0.247599,-0.95654,-36.9939,-0.637804,26.2289,1.93695,1.89232,-0.0163725,
0.11935,0.0441351,-0.00986394,-1.89607,0.315651,0.0982683,-0.010594,0.1196,0.00882798,0.117536,-0.200665,-0.0695061,0.261098,0.00747444,-1.86379,-0.207357,-1.85112,3.2967,-4.19803,-3.25108,-0.089024,0,0,0,0,0,0,0,0.116575,0.0434048,-0.0132103,-1.89109,0.320117,0.0905678,-0.0110705,0.0684007,0.000129746,0.204938,-0.239146,-0.0160494,0.229745,0.00167661,0,0,0,0,0,0,0,-0.95654,-36.9939,-0.637804,26.2289,1.93695,1.89232,-0.0163725,
0.120176,0.044184,-0.00905337,-1.89747,0.314894,0.10017,-0.0105405,0.116327,0.00828327,0.114293,-0.195423,-0.0745231,0.256426,0.00731645,-2.04574,-0.340439,-2.02683,3.2759,-3.13567,-2.92011,-0.098748,0,0,0,0,0,0,0,0.116575,0.0434048,-0.0132103,-1.89109,0.320117,0.0905678,-0.0110705,0.0684007,0.000129746,0.204938,-0.239146,-0.0160494,0.229745,0.00167661,0,0,0,0,0,0,0,-0.95654,-36.9939,-0.637804,26.2289,1.93695,1.89232,-0.0163725,
0.122018,0.0437942,-0.0078516,-1.89981,0.31671,0.100966,-0.0107469,0.113066,0.00765104,0.111067,-0.189559,-0.0755761,0.249367,0.00708418,-2.03848,-0.395147,-2.01656,3.66541,-0.658079,-4.41178,-0.145166,0,0,0,0,0,0,0,0.116575,0.0434048,-0.0132103,-1.89109,0.320117,0.0905678,-0.0110705,0.0684007,0.000129746,0.204938,-0.239146,-0.0160494,0.229745,0.00167661,0,0,0,0,0,0,0,-0.95654,-36.9939,-0.637804,26.2289,1.93695,1.89232,-0.0163725,
0.122785,0.0438284,-0.0070994,-1.9011,0.31608,0.102725,-0.0106996,0.109616,0.0069758,0.107658,-0.183847,-0.0762027,0.243488,0.00684915,-2.15601,-0.422021,-2.13021,3.5699,-0.391644,-3.67415,-0.146896,0,0,0,0,0,0,0,0.121248,0.0438423,-0.00776099,-1.89896,0.318508,0.0985181,-0.0110647,0.178431,0.0171517,0.0799957,-0.212295,-0.0431875,0.184842,0.000271193,13.7538,2.12774,-15.6177,3.35633,-3.39226,-5.61287,-0.175677,-2.6585,-34.8952,-1.81212,25.0348,1.71722,1.58105,0.00376909,
0.123521,0.0438571,-0.00637733,-1.90235,0.315463,0.104468,-0.0106543,0.106091,0.0062976,0.104179,-0.178285,-0.0763996,0.238368,0.00661122,-2.20312,-0.423878,-2.17484,3.47639,-0.123038,-3.20061,-0.148705,0,0,0,0,0,0,0,0.121248,0.0438423,-0.00776099,-1.89896,0.318508,0.0985181,-0.0110647,0.178431,0.0171517,0.0799957,-0.212295,-0.0431875,0.184842,0.000271193,0,0,0,0,0,0,0,-2.6585,-34.8952,-1.81212,25.0348,1.71722,1.58105,0.00376909,
0.124228,0.0438812,-0.00568293,-1.90356,0.314859,0.106189,-0.0106111,0.102568,0.00564146,0.100703,-0.172865,-0.0762247,0.233714,0.00636974,-2.20207,-0.410089,-2.17237,3.38709,0.10931,-2.90868,-0.150926,0,0,0,0,0,0,0,0.121248,0.0438423,-0.00776099,-1.89896,0.318508,0.0985181,-0.0110647,0.178431,0.0171517,0.0799957,-0.212295,-0.0431875,0.184842,0.000271193,0,0,0,0,0,0,0,-2.6585,-34.8952,-1.81212,25.0348,1.71722,1.58105,0.00376909,
0.126817,0.0445821,-0.00231284,-1.90772,0.315141,0.108562,-0.0107871,0.0986105,0.00581975,0.096786,-0.165633,-0.0738652,0.223879,0.00595068,-2.47329,0.111432,-2.44801,4.52033,1.47467,-6.1466,-0.261913,0,0,0,0,0,0,0,0.121248,0.0438423,-0.00776099,-1.89896,0.318508,0.0985181,-0.0110647,0.178431,0.0171517,0.0799957,-0.212295,-0.0431875,0.184842,0.000271193,0,0,0,0,0,0,0,-2.6585,-34.8952,-1.81212,25.0348,1.71722,1.58105,0.00376909,
0.127448,0.0446242,-0.00169443,-1.90878,0.314613,0.110032,-0.0107549,0.0946675,0.00570832,0.0928891,-0.158776,-0.0722867,0.215857,0.00556731,-2.46441,-0.0696397,-2.43551,4.28556,0.986537,-5.01388,-0.239604,0,0,0,0,0,0,0,0.121248,0.0438423,-0.00776099,-1.89896,0.318508,0.0985181,-0.0110647,0.178431,0.0171517,0.0799957,-0.212295,-0.0431875,0.184842,0.000271193,0,0,0,0,0,0,0,-2.6585,-34.8952,-1.81212,25.0348,1.71722,1.58105,0.00376909,
0.128051,0.044658,-0.00110386,-1.90979,0.314071,0.111492,-0.0107245,0.0908046,0.00541253,0.0890756,-0.152261,-0.0713783,0.209166,0.00521187,-2.41428,-0.184874,-2.38345,4.07153,0.567785,-4.18196,-0.22215,0,0,0,0,0,0,0,0.125049,0.0452886,-0.00329325,-1.9054,0.316068,0.104602,-0.011062,0.134743,0.0831348,0.0675914,-0.142196,-0.0596429,0.166561,0.00202508,-5.46112,8.24789,-1.55054,8.76241,-2.05693,-2.28512,0.219236,-2.04754,-37.466,-1.43523,26.7288,1.94336,1.79345,-0.0163725,
0.128628,0.0446851,-0.000538971,-1.91075,0.313513,0.112936,-0.0106962,0.087061,0.00500672,0.0853826,-0.146055,-0.0710631,0.203453,0.00487901,-2.33975,-0.253629,-2.30811,3.8792,0.197015,-3.57035,-0.208036,0,0,0,0,0,0,0,0.125049,0.0452886,-0.00329325,-1.9054,0.316068,0.104602,-0.011062,0.134743,0.0831348,0.0675914,-0.142196,-0.0596429,0.166561,0.00202508,0,0,0,0,0,0,0,-2.04754,-37.466,-1.43523,26.7288,1.94336,1.79345,-0.0163725,
0.128478,0.046586,5.81524e-05,-1.91128,0.31336,0.111782,-0.0108946,0.0849885,0.00752266,0.0833151,-0.143563,-0.0713437,0.197682,0.00466099,-1.29529,1.57246,-1.29222,1.55725,-0.175385,-3.6072,-0.136263,0,0,0,0,0,0,0,0.125049,0.0452886,-0.00329325,-1.9054,0.316068,0.104602,-0.011062,0.134743,0.0831348,0.0675914,-0.142196,-0.0596429,0.166561,0.00202508,0,0,0,0,0,0,0,-2.04754,-37.466,-1.43523,26.7288,1.94336,1.79345,-0.0163725,
0.129063,0.046696,0.000630444,-1.9123,0.312767,0.113167,-0.0108663,0.082616,0.00876922,0.0809594,-0.140276,-0.0719032,0.192765,0.00443806,-1.48282,0.779103,-1.47233,2.05419,-0.349732,-3.07261,-0.139332,0,0,0,0,0,0,0,0.125049,0.0452886,-0.00329325,-1.9054,0.316068,0.104602,-0.011062,0.134743,0.0831348,0.0675914,-0.142196,-0.0596429,0.166561,0.00202508,0,0,0,0,0,0,0,-2.04754,-37.466,-1.43523,26.7288,1.94336,1.79345,-0.0163725,
0.129622,0.0467825,0.00117696,-1.91327,0.31216,0.114542,-0.0108399,0.080062,0.00917706,0.0784304,-0.136438,-0.0727094,0.188573,0.00421087,-1.59625,0.254898,-1.58057,2.39908,-0.503865,-2.62056,-0.141994,0,0,0,0,0,0,0,0.127974,0.0459893,0.000496488,-1.91103,0.313806,0.111043,-0.0110665,0.0228423,-0.0347817,0.146347,-0.190105,-0.0540991,0.186619,0.000484688,-13.9875,-14.7396,9.84444,-5.98863,0.692975,2.50718,-0.192549,-0.57568,-36.7677,-0.288683,25.4593,1.82708,1.30913,0.0239107,
0.130156,0.0468506,0.00169953,-1.91419,0.311536,0.115906,-0.0108154,0.0774094,0.00904532,0.0758085,-0.132227,-0.0737614,0.184966,0.00398077,-1.6579,-0.0823364,-1.6387,2.63179,-0.657458,-2.2542,-0.143814,0,0,0,0,0,0,0,0.127974,0.0459893,0.000496488,-1.91103,0.313806,0.111043,-0.0110665,0.0228423,-0.0347817,0.146347,-0.190105,-0.0540991,0.186619,0.000484688,0,0,0,0,0,0,0,-0.57568,-36.7677,-0.288683,25.4593,1.82708,1.30913,0.0239107,
0.130877,0.0458806,0.00334791,-1.91586,0.310999,0.117398,-0.0109328,0.0750765,0.00730133,0.0735074,-0.127281,-0.0741039,0.181056,0.00374289,-1.45809,-1.09,-1.43823,3.09127,-0.214066,-2.44383,-0.148673,0,0,0,0,0,0,0,0.127974,0.0459893,0.000496488,-1.91103,0.313806,0.111043,-0.0110665,0.0228423,-0.0347817,0.146347,-0.190105,-0.0540991,0.186619,0.000484688,0,0,0,0,0,0,0,-0.57568,-36.7677,-0.288683,25.4593,1.82708,1.30913,0.0239107,
0.131378,0.045884,0.00383849,-1.91668,0.31037,0.118729,-0.0109124,0.0726041,0.00592742,0.0710706,-0.122379,-0.0750257,0.178111,0.00350521,-1.54522,-0.858691,-1.52301,3.06371,-0.576175,-1.84069,-0.148553,0,0,0,0,0,0,0,0.127974,0.0459893,0.000496488,-1.91103,0.313806,0.111043,-0.0110665,0.0228423,-0.0347817,0.146347,-0.190105,-0.0540991,0.186619,0.000484688,0,0,0,0,0,0,0,-0.57568,-36.7677,-0.288683,25.4593,1.82708,1.30913,0.0239107,
0.131857,0.0458873,0.00430654,-1.91747,0.309714,0.120059,-0.0108938,0.0700533,0.00482299,0.0685576,-0.117533,-0.0764225,0.175737,0.00326742,-1.59424,-0.690271,-1.57062,3.02849,-0.872964,-1.48332,-0.148616,0,0,0,0,0,0,0,0.13008,0.0468663,0.00406477,-1.91604,0.312209,0.116846,-0.0110646,0.00356442,0.0630977,0.149666,-0.120257,-0.0531433,0.154863,0.00115943,-2.40973,12.2349,0.414835,8.73101,0.119482,-3.96952,0.0843423,0.562931,-35.1451,0.286573,26.2567,1.71081,1.43548,-0.0026396,
0.132314,0.0458897,0.00475312,-1.91821,0.309033,0.121382,-0.0108772,0.0674674,0.00391933,0.0660107,-0.112747,-0.0781607,0.17367,0.00302935,-1.61617,-0.564785,-1.59182,2.99156,-1.0864,-1.29201,-0.148794,0,0,0,0,0,0,0,0.13008,0.0468663,0.00406477,-1.91604,0.312209,0.116846,-0.0110646,0.00356442,0.0630977,0.149666,-0.120257,-0.0531433,0.154863,0.00115943,0,0,0,0,0,0,0,0.562931,-35.1451,0.286573,26.2567,1.71081,1.43548,-0.0026396,
0.133031,0.0480199,0.00695881,-1.92103,0.307872,0.124541,-0.0109732,0.0645254,0.00532689,0.0630892,-0.107614,-0.0831165,0.170884,0.00268773,-1.83879,0.879726,-1.82592,3.20818,-3.09738,-1.74125,-0.213513,0,0,0,0,0,0,0,0.13008,0.0468663,0.00406477,-1.91604,0.312209,0.116846,-0.0110646,0.00356442,0.0630977,0.149666,-0.120257,-0.0531433,0.154863,0.00115943,0,0,0,0,0,0,0,0.562931,-35.1451,0.286573,26.2567,1.71081,1.43548,-0.0026396,
0.133429,0.0480872,0.00734649,-1.92168,0.307056,0.125805,-0.0109648,0.0615742,0.00594492,0.0601635,-0.102333,-0.0868857,0.16832,0.00236081,-1.84452,0.386265,-1.82856,3.30033,-2.35576,-1.60241,-0.204327,0,0,0,0,0,0,0,0.13008,0.0468663,0.00406477,-1.91604,0.312209,0.116846,-0.0110646,0.00356442,0.0630977,0.149666,-0.120257,-0.0531433,0.154863,0.00115943,0,0,0,0,0,0,0,0.562931,-35.1451,0.286573,26.2567,1.71081,1.43548,-0.0026396,
0.133805,0.0481388,0.00771197,-1.92228,0.306271,0.127044,-0.0109586,0.0586497,0.00604512,0.0572678,-0.0969898,-0.0891281,0.165632,0.00204341,-1.82777,0.0626243,-1.80982,3.33965,-1.40145,-1.6803,-0.198375,0,0,0,0,0,0,0,0.132855,0.0481993,0.00651979,-1.92002,0.310651,0.121534,-0.0110652,0.122728,0.057662,0.0157698,-0.0995658,-0.045724,0.12372,0.00258508,14.8954,-0.679453,-16.737,2.5864,0.927407,-3.89277,0.178207,-0.908932,-38.8149,-1.21306,26.9034,1.33819,1.6671,-0.0301054,
0.134159,0.048178,0.00805632,-1.92284,0.305546,0.128242,-0.0109548,0.0557746,0.0058174,0.054423,-0.0916378,-0.0894434,0.162439,0.00173023,-1.79696,-0.142326,-1.77797,3.34503,-0.197054,-1.99545,-0.195735,0,0,0,0,0,0,0,0.132855,0.0481993,0.00651979,-1.92002,0.310651,0.121534,-0.0110652,0.122728,0.057662,0.0157698,-0.0995658,-0.045724,0.12372,0.00258508,0,0,0,0,0,0,0,-0.908932,-38.8149,-1.21306,26.9034,1.33819,1.6671,-0.0301054,
0.135649,0.0494222,0.00898519,-1.92075,0.365297,0.110774,-0.0113161,0.0456019,0.00307455,0.0441518,-0.0710433,-0.0408775,0.144094,0.000999093,-6.35792,-1.71428,-6.41953,12.8715,30.3536,-11.4658,-0.456963,0,0,0,0,0,0,0,0.132855,0.0481993,0.00651979,-1.92002,0.310651,0.121534,-0.0110652,0.122728,0.057662,0.0157698,-0.0995658,-0.045724,0.12372,0.00258508,0,0,0,0,0,0,0,-0.908932,-38.8149,-1.21306,26.9034,1.33819,1.6671,-0.0301054,
0.135684,0.0493581,0.0090053,-1.92066,0.366518,0.111337,-0.0113314,0.0373509,0.000857936,0.0358242,-0.0545393,-0.00215753,0.129366,0.000415528,-5.15688,-1.38539,-5.20471,10.315,24.2,-9.20486,-0.364728,0,0,0,0,0,0,0,0.132855,0.0481993,0.00651979,-1.92002,0.310651,0.121534,-0.0110652,0.122728,0.057662,0.0157698,-0.0995658,-0.045724,0.12372,0.00258508,0,0,0,0,0,0,0,-0.908932,-38.8149,-1.21306,26.9034,1.33819,1.6671,-0.0301054,
0.135715,0.0492934,0.0090218,-1.92057,0.367737,0.111897,-0.0113467,0.0306578,-0.00093214,0.0290719,-0.0413156,0.028738,0.117472,-5.01926e-05,-4.18318,-1.1188,-4.22024,8.26481,19.3097,-7.43373,-0.291075,0,0,0,0,0,0,0,0.135505,0.0484772,0.00845298,-1.92382,0.308991,0.125826,-0.0110719,0.0577361,-0.0501209,0.0566369,-0.127124,-0.0524053,0.118119,0.000435638,-8.12397,-13.4729,5.10839,-3.44476,-0.835169,-0.700195,-0.268681,-1.99597,-34.2485,-1.56218,24.5349,1.37573,1.60119,0.0303194,
0.135743,0.0492282,0.00903534,-1.92047,0.368954,0.112449,-0.011362,0.0252278,-0.0023764,0.023596,-0.0307226,0.0534159,0.107798,-0.000421814,-3.39378,-0.902661,-3.42242,6.62058,15.4237,-6.04633,-0.232264,0,0,0,0,0,0,0,0.135505,0.0484772,0.00845298,-1.92382,0.308991,0.125826,-0.0110719,0.0577361,-0.0501209,0.0566369,-0.127124,-0.0524053,0.118119,0.000435638,0,0,0,0,0,0,0,-1.99597,-34.2485,-1.56218,24.5349,1.37573,1.60119,0.0303194,
0.138342,0.0451167,0.0103862,-1.91962,0.402284,0.124509,-0.0120243,0.0204681,-0.0035013,0.0188267,-0.0226003,0.0916426,0.0804213,-0.000720461,-2.97479,-0.703061,-2.98079,5.07644,23.8917,-17.1104,-0.186654,0,0,0,0,0,0,0,0.135505,0.0484772,0.00845298,-1.92382,0.308991,0.125826,-0.0110719,0.0577361,-0.0501209,0.0566369,-0.127124,-0.0524053,0.118119,0.000435638,0,0,0,0,0,0,0,-1.99597,-34.2485,-1.56218,24.5349,1.37573,1.60119,0.0303194,
0.138353,0.0450526,0.0103841,-1.91954,0.404235,0.124278,-0.0120396,0.0166603,-0.00440217,0.015011,-0.0161058,0.12209,0.058566,-0.000959355,-2.37986,-0.563048,-2.38482,4.05908,19.0297,-13.6596,-0.149309,0,0,0,0,0,0,0,0.135505,0.0484772,0.00845298,-1.92382,0.308991,0.125826,-0.0110719,0.0577361,-0.0501209,0.0566369,-0.127124,-0.0524053,0.118119,0.000435638,0,0,0,0,0,0,0,-1.99597,-34.2485,-1.56218,24.5349,1.37573,1.60119,0.0303194,
0.138364,0.0449885,0.0103821,-1.91947,0.406181,0.124049,-0.0120549,0.0136141,-0.00512381,0.0119581,-0.0109135,0.146315,0.0411276,-0.00115045,-1.90392,-0.451022,-1.90805,3.24518,15.1404,-10.899,-0.119432,0,0,0,0,0,0,0,0.136469,0.0498271,0.0107309,-1.92596,0.311955,0.127705,-0.011075,0.0116579,0.0801439,0.066102,-0.0212991,0.118606,0.0177626,0.000905961,-5.75977,16.2831,1.18313,13.2281,21.3764,-12.5445,0.0587904,-0.551876,-37.3152,-0.76079,27.5262,2.59063,1.80627,0.0239107,
0.138376,0.0449244,0.0103801,-1.91939,0.408121,0.123822,-0.0120702,0.011177,-0.00570203,0.00951548,-0.00676303,0.165561,0.0272226,-0.00130329,-1.52318,-0.361387,-1.52665,2.59404,12.0292,-8.69061,-0.09553,0,0,0,0,0,0,0,0.136469,0.0498271,0.0107309,-1.92596,0.311955,0.127705,-0.011075,0.0116579,0.0801439,0.066102,-0.0212991,0.118606,0.0177626,0.000905961,0,0,0,0,0,0,0,-0.551876,-37.3152,-0.76079,27.5262,2.59063,1.80627,0.0239107,
0.162482,0.0500879,0.0360756,-1.92941,0.286594,0.164282,-0.0110724,0.0299535,-0.00439572,0.0282208,-0.00675735,0.104198,0.0445881,-0.00112023,11.7353,0.816445,11.6908,0.0035514,-38.3523,10.8534,0.114413,0,0,0,0,0,0,0,0.136469,0.0498271,0.0107309,-1.92596,0.311955,0.127705,-0.011075,0.0116579,0.0801439,0.066102,-0.0212991,0.118606,0.0177626,0.000905961,0,0,0,0,0,0,0,-0.551876,-37.3152,-0.76079,27.5262,2.59063,1.80627,0.0239107,
0.163306,0.0500943,0.036883,-1.92946,0.28546,0.165165,-0.0110755,0.0445568,-0.00335789,0.0427636,-0.00670583,0.0550184,0.0577365,-0.000973842,9.12705,0.64864,9.08927,0.032203,-30.7371,8.21776,0.0914945,0,0,0,0,0,0,0,0.136469,0.0498271,0.0107309,-1.92596,0.311955,0.127705,-0.011075,0.0116579,0.0801439,0.066102,-0.0212991,0.118606,0.0177626,0.000905961,0,0,0,0,0,0,0,-0.551876,-37.3152,-0.76079,27.5262,2.59063,1.80627,0.0239107,
0.164113,0.0501001,0.0376736,-1.92951,0.284325,0.166019,-0.0110787,0.0558198,-0.00253953,0.0539747,-0.00661588,0.0156244,0.0675478,-0.000856816,7.0394,0.511477,7.00693,0.0562156,-24.6213,6.13205,0.0731411,0,0,0,0,0,0,0,0.136469,0.0498271,0.0107309,-1.92596,0.311955,0.127705,-0.011075,0.0116579,0.0801439,0.066102,-0.0212991,0.118606,0.0177626,0.000905961,0,0,0,0,0,0,0,-0.551876,-37.3152,-0.76079,27.5262,2.59063,1.80627,0.0239107,
0.164903,0.0501054,0.0384471,-1.92956,0.283188,0.166846,-0.0110818,0.064409,-0.00190043,0.0625187,-0.00649314,-0.0159037,0.0747229,-0.000763272,5.36824,0.399434,5.33998,0.0767135,-19.7051,4.48444,0.058465,0,0,0,0,0,0,0,0.137465,0.0513243,0.0111975,-1.92676,0.321389,0.128209,-0.0110813,0.0382282,0.0249756,-0.00517782,-0.0278706,0.267032,0.0112724,0.000472242,3.32129,-6.89604,-8.90997,-0.821431,18.5533,-0.811283,-0.0542149,-1.03589,-39.1402,-0.836168,26.0544,2.75543,1.28258,0.0376436,
0.153736,0.050331,0.0272515,-1.93227,0.305857,0.173313,-0.0110097,0.0637467,-0.00258445,0.0620858,-0.00828025,-0.0329807,0.0910894,-0.0005493,-0.41396,-0.42751,-0.270557,-1.11694,-10.6731,10.2291,0.133733,0,0,0,0,0,0,0,0.137465,0.0513243,0.0111975,-1.92676,0.321389,0.128209,-0.0110813,0.0382282,0.0249756,-0.00517782,-0.0278706,0.267032,0.0112724,0.000472242,0,0,0,0,0,0,0,-1.03589,-39.1402,-0.836168,26.0544,2.75543,1.28258,0.0376436,
0.154208,0.0502907,0.0277186,-1.93238,0.305037,0.174528,-0.011007,0.0628098,-0.00307385,0.0613478,-0.00957666,-0.0468976,0.103243,-0.000371546,-0.58552,-0.305873,-0.4612,-0.810258,-8.69804,7.59589,0.111096,0,0,0,0,0,0,0,0.137465,0.0513243,0.0111975,-1.92676,0.321389,0.128209,-0.0110813,0.0382282,0.0249756,-0.00517782,-0.0278706,0.267032,0.0112724,0.000472242,0,0,0,0,0,0,0,-1.03589,-39.1402,-0.836168,26.0544,2.75543,1.28258,0.0376436,
0.154664,0.050253,0.0281701,-1.9325,0.304209,0.175705,-0.0110041,0.0616511,-0.00340323,0.0603645,-0.01048,-0.0582092,0.112006,-0.000223299,-0.724188,-0.205868,-0.614596,-0.564568,-7.06976,5.47707,0.0926541,0,0,0,0,0,0,0,0.137465,0.0513243,0.0111975,-1.92676,0.321389,0.128209,-0.0110813,0.0382282,0.0249756,-0.00517782,-0.0278706,0.267032,0.0112724,0.000472242,0,0,0,0,0,0,0,-1.03589,-39.1402,-0.836168,26.0544,2.75543,1.28258,0.0376436,
0.155104,0.0502179,0.0286057,-1.9326,0.303379,0.176841,-0.0110009,0.0603126,-0.00359963,0.0591834,-0.0110686,-0.0673205,0.118021,-9.98074e-05,-0.836585,-0.122748,-0.738189,-0.367862,-5.69454,3.7594,0.0771825,0,0,0,0,0,0,0,0.138407,0.0516184,0.0128492,-1.92744,0.320079,0.131482,-0.0110823,0.0063722,0.019251,0.0728119,-0.018607,-0.0804087,0.144853,-0.000503148,-3.982,-0.715578,9.74871,1.15795,-43.4301,16.6976,-0.121924,2.61798,-35.3435,2.38923,26.951,2.78564,1.98571,0.0376436,
0.153604,0.0496072,0.0273995,-1.93412,0.299846,0.173765,-0.0103921,0.0569949,-0.00292075,0.0563635,-0.0112551,-0.0773072,0.112264,0.000190056,-2.07352,0.424299,-1.76244,-0.116564,-6.24169,-3.5981,0.181165,0,0,0,0,0,0,0,0.138407,0.0516184,0.0128492,-1.92744,0.320079,0.131482,-0.0110823,0.0063722,0.019251,0.0728119,-0.018607,-0.0804087,0.144853,-0.000503148,0,0,0,0,0,0,0,2.61798,-35.3435,2.38923,26.951,2.78564,1.98571,0.0376436,
0.153941,0.0496177,0.0277503,-1.93422,0.299002,0.174407,-0.0103831,0.0540133,-0.00207487,0.0538627,-0.0112724,-0.0829274,0.105869,0.00037848,-1.86351,0.528678,-1.56298,-0.0108215,-3.51266,-3.99709,0.117765,0,0,0,0,0,0,0,0.138407,0.0516184,0.0128492,-1.92744,0.320079,0.131482,-0.0110823,0.0063722,0.019251,0.0728119,-0.018607,-0.0804087,0.144853,-0.000503148,0,0,0,0,0,0,0,2.61798,-35.3435,2.38923,26.951,2.78564,1.98571,0.0376436,
0.154265,0.0496411,0.0280922,-1.9343,0.298297,0.17497,-0.0103763,0.051311,-0.00107387,0.0516363,-0.0111645,-0.0839673,0.0987837,0.000472279,-1.68895,0.625626,-1.39153,0.0674344,-0.649891,-4.42822,0.0586244,0,0,0,0,0,0,0,0.138407,0.0516184,0.0128492,-1.92744,0.320079,0.131482,-0.0110823,0.0063722,0.019251,0.0728119,-0.018607,-0.0804087,0.144853,-0.000503148,0,0,0,0,0,0,0,2.61798,-35.3435,2.38923,26.951,2.78564,1.98571,0.0376436,
0.154577,0.0496785,0.0284262,-1.93438,0.297779,0.17545,-0.0103726,0.0488481,7.48007e-05,0.0496602,-0.0109646,-0.0801285,0.0910053,0.000470358,-1.5393,0.717917,-1.23505,0.124948,2.39923,-4.86153,-0.00120042,0,0,0,0,0,0,0,0.140128,0.0523541,0.0143355,-1.92795,0.317853,0.136805,-0.0110842,0.0815387,0.0214865,0.03338,-0.0114354,-0.0641666,0.153176,-0.000682862,9.39581,0.279447,-4.92898,0.896451,2.03025,1.04035,-0.0224643,-0.57568,-37.0415,-0.685411,25.2332,1.04522,1.62041,0.0641939,
0.156925,0.0494935,0.0301556,-1.93458,0.299848,0.180063,-0.010626,0.0468109,0.000885643,0.0483056,-0.0106802,-0.0486618,0.0784334,2.54023e-05,-1.2733,0.506777,-0.846611,0.177737,19.6667,-7.85741,-0.278097,0,0,0,0,0,0,0,0.140128,0.0523541,0.0143355,-1.92795,0.317853,0.136805,-0.0110842,0.0815387,0.0214865,0.03338,-0.0114354,-0.0641666,0.153176,-0.000682862,0,0,0,0,0,0,0,-0.57568,-37.0415,-0.685411,25.2332,1.04522,1.62041,0.0641939,
0.157226,0.0495477,0.0305111,-1.93464,0.30084,0.180119,-0.0106542,0.0449808,0.00206224,0.0475316,-0.0099984,-0.0141146,0.0641462,-0.000686231,-1.14381,0.73537,-0.483751,0.426111,21.5919,-8.92954,-0.444771,0,0,0,0,0,0,0,0.140128,0.0523541,0.0143355,-1.92795,0.317853,0.136805,-0.0110842,0.0815387,0.0214865,0.03338,-0.0114354,-0.0641666,0.153176,-0.000682862,0,0,0,0,0,0,0,-0.57568,-37.0415,-0.685411,25.2332,1.04522,1.62041,0.0641939,
0.157529,0.0496181,0.0309031,-1.93467,0.30203,0.179991,-0.0106953,0.0435511,0.00341116,0.0478245,-0.00865266,0.018456,0.0481034,-0.00157512,-0.893503,0.843076,0.18308,0.841089,20.3567,-10.0268,-0.555559,0,0,0,0,0,0,0,0.140128,0.0523541,0.0143355,-1.92795,0.317853,0.136805,-0.0110842,0.0815387,0.0214865,0.03338,-0.0114354,-0.0641666,0.153176,-0.000682862,0,0,0,0,0,0,0,-0.57568,-37.0415,-0.685411,25.2332,1.04522,1.62041,0.0641939,
0.157851,0.0496856,0.0313555,-1.93466,0.303095,0.179688,-0.0107228,0.0429024,0.00441665,0.0495695,-0.00673868,0.0414012,0.030924,-0.0019472,-0.40546,0.62843,1.09058,1.19623,14.3408,-10.7371,-0.232546,0,0,0,0,0,0,0,0.142106,0.0524196,0.0164892,-1.92853,0.315522,0.141465,-0.0110814,0.0354442,0.00435201,0.0852221,-0.0139003,-0.0431422,0.138876,0.000267757,-5.76181,-2.14181,6.48027,-0.308112,2.62805,-1.78748,0.118827,-0.781979,-34.4469,-0.487047,26.0544,1.82708,1.77971,0.0303194,
0.159431,0.0498095,0.0332853,-1.9339,0.300978,0.175291,-0.0109008,0.0470802,0.00186989,0.0514736,-0.00797917,0.0417032,0.0237446,-0.00152467,2.61113,-1.59172,1.19009,-0.775302,0.188696,-4.48714,0.26408,0,0,0,0,0,0,0,0.142106,0.0524196,0.0164892,-1.92853,0.315522,0.141465,-0.0110814,0.0354442,0.00435201,0.0852221,-0.0139003,-0.0431422,0.138876,0.000267757,0,0,0,0,0,0,0,-0.781979,-34.4469,-0.487047,26.0544,1.82708,1.77971,0.0303194,
0.159918,0.0498005,0.0337918,-1.93396,0.30118,0.175423,-0.0109007,0.0498447,0.00127125,0.0538413,-0.00783699,0.0384229,0.0222914,-0.0012183,1.72781,-0.374153,1.47978,0.0888604,-2.05019,-0.908229,0.191483,0,0,0,0,0,0,0,0.142106,0.0524196,0.0164892,-1.92853,0.315522,0.141465,-0.0110814,0.0354442,0.00435201,0.0852221,-0.0139003,-0.0431422,0.138876,0.000267757,0,0,0,0,0,0,0,-0.781979,-34.4469,-0.487047,26.0544,1.82708,1.77971,0.0303194,
0.160388,0.0498303,0.0342985,-1.93399,0.301338,0.17566,-0.010906,0.0516238,0.00176124,0.055742,-0.00710134,0.0346878,0.0237627,-0.00110797,1.1119,0.306244,1.18798,0.45978,-2.33441,0.919515,0.0689585,0,0,0,0,0,0,0,0.142106,0.0524196,0.0164892,-1.92853,0.315522,0.141465,-0.0110814,0.0354442,0.00435201,0.0852221,-0.0139003,-0.0431422,0.138876,0.000267757,0,0,0,0,0,0,0,-0.781979,-34.4469,-0.487047,26.0544,1.82708,1.77971,0.0303194,
0.160405,0.0508784,0.0351351,-1.93373,0.302232,0.179876,-0.0109739,0.0548906,-5.30119e-05,0.0579632,-0.00767143,0.0334138,0.0191616,-0.000895229,2.0418,-1.13391,1.38823,-0.356301,-0.796238,-2.87566,0.13296,0,0,0,0,0,0,0,0.143563,0.0531357,0.0186868,-1.92853,0.315413,0.145341,-0.0110833,0.0453353,0.0222005,0.0645257,-0.00372171,-0.0108393,0.103889,-0.000279666,1.23639,2.23106,-2.58705,1.27232,4.03786,-4.37338,-0.0684279,0.285221,-36.7677,0.0366345,23.912,1.92505,0.791861,0.0577852,
0.160934,0.0508706,0.0356845,-1.93378,0.302355,0.180028,-0.0109775,0.0571212,-0.000237457,0.0601057,-0.00737885,0.0297914,0.0191319,-0.000808434,1.3941,-0.115278,1.33905,0.18286,-2.26399,-0.0185502,0.0542466,0,0,0,0,0,0,0,0.143563,0.0531357,0.0186868,-1.92853,0.315413,0.145341,-0.0110833,0.0453353,0.0222005,0.0645257,-0.00372171,-0.0108393,0.103889,-0.000279666,0,0,0,0,0,0,0,0.285221,-36.7677,0.0366345,23.912,1.92505,0.791861,0.0577852,
0.161447,0.050897,0.0362288,-1.93381,0.30243,0.180277,-0.0109845,0.0585343,0.000469059,0.0616911,-0.00675856,0.0257082,0.0215213,-0.000821897,0.883216,0.441573,0.990899,0.387679,-2.55202,1.4934,-0.00841404,0,0,0,0,0,0,0,0.143563,0.0531357,0.0186868,-1.92853,0.315413,0.145341,-0.0110833,0.0453353,0.0222005,0.0645257,-0.00372171,-0.0108393,0.103889,-0.000279666,0,0,0,0,0,0,0,0.285221,-36.7677,0.0366345,23.912,1.92505,0.791861,0.0577852,
0.161946,0.0509443,0.0367594,-1.93384,0.302473,0.18059,-0.0109933,0.0593019,0.00155846,0.0626191,-0.00608192,0.0216547,0.025035,-0.000877602,0.479738,0.680876,0.579988,0.422901,-2.5334,2.19601,-0.0348155,0,0,0,0,0,0,0,0.143563,0.0531357,0.0186868,-1.92853,0.315413,0.145341,-0.0110833,0.0453353,0.0222005,0.0645257,-0.00372171,-0.0108393,0.103889,-0.000279666,0,0,0,0,0,0,0,0.285221,-36.7677,0.0366345,23.912,1.92505,0.791861,0.0577852,
0.159876,0.0505443,0.034734,-1.93374,0.297406,0.184177,-0.0109215,0.060574,-0.00326706,0.0576726,-0.00680465,0.0428293,0.000150623,-0.00113755,0.795035,-3.01595,-3.09155,-0.451705,13.2341,-15.5527,-0.162469,0,0,0,0,0,0,0,0.145647,0.0532807,0.0200497,-1.92897,0.315295,0.148372,-0.0110815,0.0731728,0.00456937,0.0297355,-0.0106588,-0.014409,0.0799863,-0.000724571,3.47969,-2.20389,-4.34877,-0.867142,-0.446213,-2.98786,-0.055613,0.717655,-35.2443,1.11177,25.6815,2.43225,1.42174,0.0440523,
0.1604,0.0503504,0.0350454,-1.93385,0.298558,0.183344,-0.0109746,0.06155,-0.00746152,0.0539223,-0.00814444,0.0630686,-0.020705,-0.0022391,0.610023,-2.62154,-2.34394,-0.837368,12.6496,-13.0347,-0.688467,0,0,0,0,0,0,0,0.145647,0.0532807,0.0200497,-1.92897,0.315295,0.148372,-0.0110815,0.0731728,0.00456937,0.0297355,-0.0106588,-0.014409,0.0799863,-0.000724571,0,0,0,0,0,0,0,0.717655,-35.2443,1.11177,25.6815,2.43225,1.42174,0.0440523,
0.160928,0.0501744,0.0354457,-1.93397,0.299331,0.18282,-0.0109958,0.0624352,-0.0103706,0.0531476,-0.00950406,0.0697913,-0.0296641,-0.00232027,0.553216,-1.81815,-0.484224,-0.849762,4.20165,-5.59943,-0.0507339,0,0,0,0,0,0,0,0.145647,0.0532807,0.0200497,-1.92897,0.315295,0.148372,-0.0110815,0.0731728,0.00456937,0.0297355,-0.0106588,-0.014409,0.0799863,-0.000724571,0,0,0,0,0,0,0,0.717655,-35.2443,1.11177,25.6815,2.43225,1.42174,0.0440523,
0.161454,0.0500506,0.0359159,-1.93406,0.299778,0.182576,-0.0110006,0.0630972,-0.0113905,0.0542717,-0.00991508,0.0670077,-0.0298299,-0.00197682,0.413801,-0.63749,0.702574,-0.25689,-1.73974,-0.103643,0.21466,0,0,0,0,0,0,0,0.145647,0.0532807,0.0200497,-1.92897,0.315295,0.148372,-0.0110815,0.0731728,0.00456937,0.0297355,-0.0106588,-0.014409,0.0799863,-0.000724571,0,0,0,0,0,0,0,0.717655,-35.2443,1.11177,25.6815,2.43225,1.42174,0.0440523,
0.162012,0.0502046,0.0360777,-1.93402,0.300044,0.183966,-0.0110043,0.0624983,-0.0142609,0.0506508,-0.0101096,0.0848722,-0.0478628,-0.00287904,-0.374343,-1.794,-2.26309,-0.121553,11.1653,-11.2706,-0.563888,0,0,0,0,0,0,0,0.145647,0.0532807,0.0200497,-1.92897,0.315295,0.148372,-0.0110815,0.0731728,0.00456937,0.0297355,-0.0106588,-0.014409,0.0799863,-0.000724571,0,0,0,0,0,0,0,0.717655,-35.2443,1.11177,25.6815,2.43225,1.42174,0.0440523,
0.162507,0.0500073,0.0364414,-1.93412,0.300954,0.18327,-0.0110315,0.0623795,-0.0163426,0.0496116,-0.0107668,0.0906485,-0.0556835,-0.00298186,-0.0742203,-1.30105,-0.649489,-0.410793,3.61021,-4.8879,-0.0642632,0,0,0,0,0,0,0,0.146987,0.0536133,0.0222116,-1.92912,0.315142,0.150791,-0.0110852,0.0150322,-0.00358232,0.0868077,-0.00723744,-0.00880069,0.0439528,-0.000687542,-7.26757,-1.01896,7.13402,0.427676,0.701037,-4.50418,0.00462861,0.919986,-36.6408,0.711073,25.2094,2.07153,1.30913,0.0641939,
0.163013,0.0498528,0.0368703,-1.93421,0.301524,0.18286,-0.0110416,0.0625494,-0.0169353,0.0504114,-0.0109257,0.0867706,-0.0548099,-0.0026388,0.106148,-0.370423,0.499875,-0.0992885,-2.42369,0.546003,0.214411,0,0,0,0,0,0,0,0.146987,0.0536133,0.0222116,-1.92912,0.315142,0.150791,-0.0110852,0.0150322,-0.00358232,0.0868077,-0.00723744,-0.00880069,0.0439528,-0.000687542,0,0,0,0,0,0,0,0.919986,-36.6408,0.711073,25.2094,2.07153,1.30913,0.0641939,
0.163513,0.0497533,0.0373441,-1.93428,0.301861,0.182682,-0.011046,0.0625453,-0.0160376,0.052174,-0.0103937,0.0778469,-0.0482827,-0.00222191,-0.00254089,0.561066,1.10163,0.332481,-5.5773,4.07944,0.260554,0,0,0,0,0,0,0,0.146987,0.0536133,0.0222116,-1.92912,0.315142,0.150791,-0.0110852,0.0150322,-0.00358232,0.0868077,-0.00723744,-0.00880069,0.0439528,-0.000687542,0,0,0,0,0,0,0,0.919986,-36.6408,0.711073,25.2094,2.07153,1.30913,0.0641939,
0.163272,0.0501389,0.0381223,-1.93387,0.301845,0.18363,-0.011037,0.0623441,-0.0183134,0.050539,-0.0108359,0.0879995,-0.0593579,-0.00258535,-0.125763,-1.42241,-1.02183,-0.276329,6.34535,-6.92199,-0.22715,0,0,0,0,0,0,0,0.146987,0.0536133,0.0222116,-1.92912,0.315142,0.150791,-0.0110852,0.0150322,-0.00358232,0.0868077,-0.00723744,-0.00880069,0.0439528,-0.000687542,0,0,0,0,0,0,0,0.919986,-36.6408,0.711073,25.2094,2.07153,1.30913,0.0641939,
0.163785,0.0499558,0.0385378,-1.93397,0.302521,0.18309,-0.0110523,0.0626906,-0.0192294,0.0508195,-0.0110817,0.0873101,-0.0609875,-0.00245084,0.216585,-0.572477,0.175293,-0.153634,-0.430874,-1.0185,0.0840733,0,0,0,0,0,0,0,0.149067,0.0535633,0.023606,-1.92954,0.315649,0.151227,-0.011086,0.0963208,-0.00174652,0.00960044,-0.0116737,0.0326956,0.0106365,-0.00153511,10.1611,0.229475,-9.65091,-0.554529,5.18704,-4.16454,-0.105946,0.336795,-35.8672,0.512709,25.4831,1.98639,1.52794,0.0706026,
0.164298,0.049827,0.0390053,-1.93405,0.302924,0.182814,-0.0110588,0.0629944,-0.0186029,0.0523435,-0.0107431,0.0799266,-0.0557024,-0.00212268,0.189841,0.391589,0.952493,0.21161,-4.61465,3.3032,0.205098,0,0,0,0,0,0,0,0.149067,0.0535633,0.023606,-1.92954,0.315649,0.151227,-0.011086,0.0963208,-0.00174652,0.00960044,-0.0116737,0.0326956,0.0106365,-0.00153511,0,0,0,0,0,0,0,0.336795,-35.8672,0.512709,25.4831,1.98639,1.52794,0.0706026,
0.164801,0.0497535,0.0395007,-1.9341,0.303163,0.182741,-0.0110638,0.0629675,-0.0167199,0.0542577,-0.00989827,0.0699037,-0.0463853,-0.00182469,-0.0168061,1.17683,1.19635,0.528015,-6.26431,5.82319,0.186241,0,0,0,0,0,0,0,0.149067,0.0535633,0.023606,-1.92954,0.315649,0.151227,-0.011086,0.0963208,-0.00174652,0.00960044,-0.0116737,0.0326956,0.0106365,-0.00153511,0,0,0,0,0,0,0,0.336795,-35.8672,0.512709,25.4831,1.98639,1.52794,0.0706026,
0.16553,0.0497607,0.0395024,-1.93425,0.301127,0.18396,-0.0110313,0.0619758,-0.0192924,0.0513805,-0.010004,0.0857973,-0.061748,-0.00236157,-0.619817,-1.60779,-1.79822,-0.0660921,9.93349,-9.6017,-0.335547,0,0,0,0,0,0,0,0.149067,0.0535633,0.023606,-1.92954,0.315649,0.151227,-0.011086,0.0963208,-0.00174652,0.00960044,-0.0116737,0.0326956,0.0106365,-0.00153511,0,0,0,0,0,0,0,0.336795,-35.8672,0.512709,25.4831,1.98639,1.52794,0.0706026,
0.166025,0.0495479,0.0398772,-1.93435,0.301984,0.183234,-0.0110538,0.061941,-0.0207537,0.0504756,-0.0103056,0.0900662,-0.0675425,-0.00244998,-0.0217485,-0.913326,-0.565552,-0.188503,2.66809,-3.62155,-0.0552538,0,0,0,0,0,0,0,0.150873,0.0535307,0.0254019,-1.92982,0.316591,0.151288,-0.0110831,0.018532,-0.00223478,0.0917362,-0.00546965,0.0149117,0.00418418,-0.000872949,-9.7236,-0.061032,10.267,0.775502,-2.22299,-0.806539,0.0827701,0.717655,-35.7204,0.814222,25.257,1.77215,1.50139,0.0440523,
0.16653,0.0493821,0.0403085,-1.93443,0.302531,0.182791,-0.0110648,0.0621957,-0.0207466,0.0511614,-0.0102778,0.0857085,-0.0651035,-0.00223629,0.15918,0.00447301,0.42862,0.0173759,-2.7236,1.52434,0.133551,0,0,0,0,0,0,0,0.150873,0.0535307,0.0254019,-1.92982,0.316591,0.151288,-0.0110831,0.018532,-0.00223478,0.0917362,-0.00546965,0.0149117,0.00418418,-0.000872949,0,0,0,0,0,0,0,0.717655,-35.7204,0.814222,25.257,1.77215,1.50139,0.0440523,
0.16703,0.0492729,0.0407795,-1.93449,0.302859,0.18259,-0.0110709,0.0622549,-0.0193284,0.0527052,-0.00974659,0.0767901,-0.0571045,-0.00194161,0.0370057,0.886375,0.964844,0.332018,-5.57397,4.9994,0.184175,0,0,0,0,0,0,0,0.150873,0.0535307,0.0254019,-1.92982,0.316591,0.151288,-0.0110831,0.018532,-0.00223478,0.0917362,-0.00546965,0.0149117,0.00418418,-0.000872949,0,0,0,0,0,0,0,0.717655,-35.7204,0.814222,25.257,1.77215,1.50139,0.0440523,
0.167176,0.0495706,0.0411783,-1.93435,0.301873,0.184309,-0.0110329,0.0608031,-0.0216287,0.0497056,-0.00954979,0.0936945,-0.0725426,-0.00246921,-0.907354,-1.43769,-1.87475,0.123,10.5652,-9.64878,-0.329746,0,0,0,0,0,0,0,0.150873,0.0535307,0.0254019,-1.92982,0.316591,0.151288,-0.0110831,0.018532,-0.00223478,0.0917362,-0.00546965,0.0149117,0.00418418,-0.000872949,0,0,0,0,0,0,0,0.717655,-35.7204,0.814222,25.257,1.77215,1.50139,0.0440523,
0.16765,0.0493406,0.0415289,-1.93444,0.302852,0.183458,-0.0110594,0.0605052,-0.0230517,0.0485284,-0.00976431,0.0994413,-0.0792927,-0.00263863,-0.186224,-0.889387,-0.735728,-0.134078,3.59174,-4.21884,-0.105887,0,0,0,0,0,0,0,0.152779,0.0535095,0.0273278,-1.93003,0.317323,0.151318,-0.0110827,0.0856429,0.00338817,0.0308533,-0.00562899,0.0196598,0.00105512,-0.00050293,8.38886,0.702869,-7.61037,-0.0199184,0.593518,-0.391133,0.0462524,0.0313145,-35.9187,-0.0625476,25.2847,1.76574,1.5078,0.0376436,
0.168144,0.0491513,0.041934,-1.93452,0.303512,0.182891,-0.0110747,0.0607528,-0.0231738,0.0489507,-0.00987476,0.0960373,-0.0776093,-0.00249224,0.154808,-0.0763056,0.263955,-0.0690271,-2.12748,1.05209,0.0914896,0,0,0,0,0,0,0,0.152779,0.0535095,0.0273278,-1.93003,0.317323,0.151318,-0.0110827,0.0856429,0.00338817,0.0308533,-0.00562899,0.0196598,0.00105512,-0.00050293,0,0,0,0,0,0,0,0.0313145,-35.9187,-0.0625476,25.2847,1.76574,1.5078,0.0376436,
0.168638,0.0490172,0.0423838,-1.93459,0.303923,0.18259,-0.0110828,0.0609622,-0.0218924,0.0504052,-0.00956115,0.0871,-0.0696333,-0.00219593,0.130843,0.800876,0.909049,0.196005,-5.58586,4.98505,0.185199,0,0,0,0,0,0,0,0.152779,0.0535095,0.0273278,-1.93003,0.317323,0.151318,-0.0110827,0.0856429,0.00338817,0.0308533,-0.00562899,0.0196598,0.00105512,-0.00050293,0,0,0,0,0,0,0,0.0313145,-35.9187,-0.0625476,25.2847,1.76574,1.5078,0.0376436,
0.168841,0.0501198,0.0433593,-1.93463,0.300165,0.187891,-0.0109449,0.0596896,-0.0233472,0.0463619,-0.0084481,0.0994961,-0.0772,-0.00203193,-0.795379,-0.909265,-2.52704,0.695653,7.74762,-4.72922,0.102499,0,0,0,0,0,0,0,0.152779,0.0535095,0.0273278,-1.93003,0.317323,0.151318,-0.0110827,0.0856429,0.00338817,0.0308533,-0.00562899,0.0196598,0.00105512,-0.00050293,0,0,0,0,0,0,0,0.0313145,-35.9187,-0.0625476,25.2847,1.76574,1.5078,0.0376436,
0.169239,0.0498776,0.0436056,-1.93466,0.301695,0.186714,-0.0109867,0.0577093,-0.0247317,0.043247,-0.00755772,0.117845,-0.0911887,-0.0026711,-1.23768,-0.865339,-1.94683,0.556489,11.4683,-8.74292,-0.399482,0,0,0,0,0,0,0,0.155166,0.0534911,0.0288901,-1.93023,0.318062,0.1513,-0.0110808,0.0737738,-0.00145072,0.0385452,-0.00919447,0.0117488,0.000539696,-0.00109011,-1.48364,-0.604861,0.96149,-0.445684,-0.988883,-0.0644275,-0.0733973,-0.171017,-36.0179,0.187391,25.5823,2.03491,1.62774,0.0239107,
0.169656,0.0496254,0.0438892,-1.93472,0.303077,0.185565,-0.0110229,0.0565852,-0.0260917,0.0416869,-0.00747403,0.128832,-0.101661,-0.00304211,-0.702586,-0.849993,-0.975062,0.0523099,6.86686,-6.54523,-0.231881,0,0,0,0,0,0,0,0.155166,0.0534911,0.0288901,-1.93023,0.318062,0.1513,-0.0110808,0.0737738,-0.00145072,0.0385452,-0.00919447,0.0117488,0.000539696,-0.00109011,0,0,0,0,0,0,0,-0.171017,-36.0179,0.187391,25.5823,2.03491,1.62774,0.0239107,
0.170109,0.0493835,0.0442151,-1.93479,0.30418,0.1846,-0.0110525,0.0566011,-0.0269209,0.041498,-0.00788804,0.130647,-0.10547,-0.00317358,0.00996166,-0.51824,-0.118046,-0.258757,1.13422,-2.38028,-0.0821736,0,0,0,0,0,0,0,0.155166,0.0534911,0.0288901,-1.93023,0.318062,0.1513,-0.0110808,0.0737738,-0.00145072,0.0385452,-0.00919447,0.0117488,0.000539696,-0.00109011,0,0,0,0,0,0,0,-0.171017,-36.0179,0.187391,25.5823,2.03491,1.62774,0.0239107,
0.171354,0.0511314,0.0452151,-1.93551,0.296592,0.193084,-0.0107661,0.0532642,-0.0241454,0.0418788,-0.00855441,0.099081,-0.0642192,-0.00277449,-2.08557,1.7347,0.237992,-0.416485,-19.7288,25.7814,0.249433,0,0,0,0,0,0,0,0.155166,0.0534911,0.0288901,-1.93023,0.318062,0.1513,-0.0110808,0.0737738,-0.00145072,0.0385452,-0.00919447,0.0117488,0.000539696,-0.00109011,0,0,0,0,0,0,0,-0.171017,-36.0179,0.187391,25.5823,2.03491,1.62774,0.0239107,
0.171652,0.0510453,0.0455684,-1.93558,0.296787,0.193787,-0.0107907,0.0500433,-0.0214703,0.0423348,-0.00875396,0.0841419,-0.0338197,-0.00283356,-2.01306,1.67194,0.28498,-0.124715,-9.33692,18.9997,-0.0369186,0,0,0,0,0,0,0,0.156892,0.0534929,0.0308638,-1.93049,0.31904,0.151286,-0.0110817,0.0304043,-0.00211191,0.0756697,-0.0105887,0.042341,-5.43273e-05,0.000407443,-5.42118,-0.0826493,4.64057,-0.174275,3.82403,-0.0742529,0.187194,0.0313145,-36.2679,-0.0625476,25.5585,2.35901,1.58105,0.017502,
0.171928,0.0509768,0.0459562,-1.93563,0.297281,0.194362,-0.0108368,0.0469375,-0.0188868,0.0435639,-0.00814692,0.0796535,-0.0126753,-0.00342067,-1.94113,1.61471,0.768192,0.3794,-2.80525,13.2153,-0.366944,0,0,0,0,0,0,0,0.156892,0.0534929,0.0308638,-1.93049,0.31904,0.151286,-0.0110817,0.0304043,-0.00211191,0.0756697,-0.0105887,0.042341,-5.43273e-05,0.000407443,0,0,0,0,0,0,0,0.0313145,-36.2679,-0.0625476,25.5585,2.35901,1.58105,0.017502,
0.17218,0.0509154,0.0464264,-1.93562,0.297757,0.19476,-0.0108814,0.0438637,-0.0166444,0.0466048,-0.00631972,0.0756433,-0.000174306,-0.00385102,-1.9211,1.40148,1.90054,1.142,-2.50638,7.81311,-0.268965,0,0,0,0,0,0,0,0.156892,0.0534929,0.0308638,-1.93049,0.31904,0.151286,-0.0110817,0.0304043,-0.00211191,0.0756697,-0.0105887,0.042341,-5.43273e-05,0.000407443,0,0,0,0,0,0,0,0.0313145,-36.2679,-0.0625476,25.5585,2.35901,1.58105,0.017502,
0.173283,0.0513651,0.0476269,-1.93549,0.299718,0.190546,-0.0109578,0.0407238,-0.0150531,0.0485768,-0.00474266,0.0685671,0.00949229,-0.00399475,-1.96246,0.994557,1.23253,0.985662,-4.42262,6.04163,-0.0898332,0,0,0,0,0,0,0,0.156892,0.0534929,0.0308638,-1.93049,0.31904,0.151286,-0.0110817,0.0304043,-0.00211191,0.0756697,-0.0105887,0.042341,-5.43273e-05,0.000407443,0,0,0,0,0,0,0,0.0313145,-36.2679,-0.0625476,25.5585,2.35901,1.58105,0.017502,
0.173598,0.0512591,0.048056,-1.93547,0.299774,0.190793,-0.0109163,0.0404436,-0.014693,0.0495898,-0.0031801,0.0562549,0.0137651,-0.00215853,-0.175088,0.225078,0.633084,0.976604,-7.69515,2.67048,1.14764,0,0,0,0,0,0,0,0.156892,0.0534929,0.0308638,-1.93049,0.31904,0.151286,-0.0110817,0.0304043,-0.00211191,0.0756697,-0.0105887,0.042341,-5.43273e-05,0.000407443,0,0,0,0,0,0,0,0.0313145,-36.2679,-0.0625476,25.5585,2.35901,1.58105,0.017502,
0.174028,0.0510888,0.0483348,-1.93549,0.300012,0.19079,-0.0108869,0.0431226,-0.016011,0.0466432,-0.00298098,0.0509593,0.0109408,-0.000991211,1.67436,-0.823776,-1.84158,0.12445,-3.30973,-1.76517,0.729573,0,0,0,0,0,0,0,0.156892,0.0534929,0.0308638,-1.93049,0.31904,0.151286,-0.0110817,0.0304043,-0.00211191,0.0756697,-0.0105887,0.042341,-5.43273e-05,0.000407443,0,0,0,0,0,0,0,0.0313145,-36.2679,-0.0625476,25.5585,2.35901,1.58105,0.017502,
0.174432,0.0508874,0.0485604,-1.93551,0.300711,0.190406,-0.0108795,0.0445994,-0.0178444,0.0429524,-0.00301444,0.0582343,-0.00085927,-0.000607154,0.923019,-1.14587,-2.30678,-0.0209143,4.54689,-7.37504,0.240036,0,0,0,0,0,0,0,0.156892,0.0534929,0.0308638,-1.93049,0.31904,0.151286,-0.0110817,0.0304043,-0.00211191,0.0756697,-0.0105887,0.042341,-5.43273e-05,0.000407443,0,0,0,0,0,0,0,0.0313145,-36.2679,-0.0625476,25.5585,2.35901,1.58105,0.017502,
0.172914,0.0512542,0.0472102,-1.93485,0.303201,0.188306,-0.0108217,0.046643,-0.019751,0.0403531,-0.00307524,0.0628013,-0.00898712,-0.000269703,1.27723,-1.19164,-1.62457,-0.0379996,2.85432,-5.07991,0.210907,0,0,0,0,0,0,0,0.156892,0.0534929,0.0308638,-1.93049,0.31904,0.151286,-0.0110817,0.0304043,-0.00211191,0.0756697,-0.0105887,0.042341,-5.43273e-05,0.000407443,0,0,0,0,0,0,0,0.0313145,-36.2679,-0.0625476,25.5585,2.35901,1.58105,0.017502,
0.173306,0.0510253,0.0474148,-1.93487,0.304379,0.187547,-0.0108266,0.0471149,-0.0215235,0.0373968,-0.00290178,0.0796829,-0.0261606,-0.000337533,0.294916,-1.10779,-1.84768,0.108415,10.5511,-10.7334,-0.0423935,0,0,0,0,0,0,0,0.156892,0.0534929,0.0308638,-1.93049,0.31904,0.151286,-0.0110817,0.0304043,-0.00211191,0.0756697,-0.0105887,0.042341,-5.43273e-05,0.000407443,0,0,0,0,0,0,0,0.0313145,-36.2679,-0.0625476,25.5585,2.35901,1.58105,0.017502,
0.173647,0.0507943,0.0476217,-1.93487,0.305955,0.186417,-0.0108597,0.0462171,-0.0229943,0.0350905,-0.00249701,0.103144,-0.0491832,-0.00109749,-0.561123,-0.919238,-1.44141,0.252979,14.6634,-14.3891,-0.474975,0,0,0,0,0,0,0,0.158968,0.0534704,0.0323201,-1.93081,0.319118,0.151912,-0.0110813,0.0885813,0.00166246,0.00898715,-0.0104163,-0.00467696,0.0513506,-0.000509083,7.27212,0.471796,-8.33532,0.0215396,-5.87724,6.42561,-0.114566,-0.349545,-35.8672,-0.0625476,25.856,2.10815,1.91887,0.0239107,
0.173998,0.0505521,0.0478514,-1.9349,0.307484,0.185213,-0.010892,0.0457696,-0.0244505,0.0338136,-0.00263607,0.120739,-0.0694449,-0.00168518,-0.279685,-0.910125,-0.798055,-0.0869117,10.997,-12.6636,-0.367304,0,0,0,0,0,0,0,0.158968,0.0534704,0.0323201,-1.93081,0.319118,0.151912,-0.0110813,0.0885813,0.00166246,0.00898715,-0.0104163,-0.00467696,0.0513506,-0.000509083,0,0,0,0,0,0,0,-0.349545,-35.8672,-0.0625476,25.856,2.10815,1.91887,0.0239107,
0.174877,0.0513129,0.0482894,-1.93572,0.29727,0.194646,-0.0107662,0.044446,-0.023151,0.035863,-0.00417281,0.0898839,-0.0358712,-0.00167564,-0.82723,0.812149,1.28084,-0.960465,-19.2848,20.9836,0.00596286,0,0,0,0,0,0,0,0.158968,0.0534704,0.0323201,-1.93081,0.319118,0.151912,-0.0110813,0.0885813,0.00166246,0.00898715,-0.0104163,-0.00467696,0.0513506,-0.000509083,0,0,0,0,0,0,0,-0.349545,-35.8672,-0.0625476,25.856,2.10815,1.91887,0.0239107,
0.175165,0.0511852,0.048661,-1.93579,0.297342,0.195336,-0.0107986,0.0427562,-0.0217139,0.0379785,-0.00504501,0.0736989,-0.0114574,-0.0021489,-1.05615,0.898193,1.32223,-0.545127,-10.1156,15.2586,-0.295787,0,0,0,0,0,0,0,0.158968,0.0534704,0.0323201,-1.93081,0.319118,0.151912,-0.0110813,0.0885813,0.00166246,0.00898715,-0.0104163,-0.00467696,0.0513506,-0.000509083,0,0,0,0,0,0,0,-0.349545,-35.8672,-0.0625476,25.856,2.10815,1.91887,0.0239107,
0.175421,0.0510721,0.0490959,-1.93582,0.297555,0.195923,-0.0108507,0.0406221,-0.0201987,0.041256,-0.00491686,0.0642823,0.00551929,-0.00302173,-1.3338,0.947017,2.04843,0.0800963,-5.88534,10.6104,-0.545517,0,0,0,0,0,0,0,0.160276,0.0534872,0.0342918,-1.93102,0.319083,0.153659,-0.0110804,0.0105698,0.00417063,0.0864813,-0.00145362,-0.000337544,0.0469622,0.00134139,-9.75144,0.313521,9.68676,1.12034,0.542427,-0.548546,0.23131,0.209842,-36.0417,0.139784,25.733,1.77856,1.82,-0.00996382,
0.17565,0.0509607,0.0496307,-1.93581,0.297566,0.196381,-0.0108605,0.0382282,-0.0189442,0.0463764,-0.00356827,0.0516991,0.0158578,-0.00266392,-1.49617,0.78409,3.20025,0.842867,-7.86448,6.46155,0.223629,0,0,0,0,0,0,0,0.160276,0.0534872,0.0342918,-1.93102,0.319083,0.153659,-0.0110804,0.0105698,0.00417063,0.0864813,-0.00145362,-0.000337544,0.0469622,0.00134139,0,0,0,0,0,0,0,0.209842,-36.0417,0.139784,25.733,1.77856,1.82,-0.00996382,
0.176095,0.0546483,0.0501542,-1.93661,0.305805,0.196554,-0.0106717,0.0440686,-0.0178671,0.0489031,-0.00685896,0.0194646,0.0458054,-0.00202824,3.6502,0.673194,1.57915,-2.05668,-20.1466,18.7172,0.397298,0,0,0,0,0,0,0,0.160276,0.0534872,0.0342918,-1.93102,0.319083,0.153659,-0.0110804,0.0105698,0.00417063,0.0864813,-0.00145362,-0.000337544,0.0469622,0.00134139,0,0,0,0,0,0,0,0.209842,-36.0417,0.139784,25.733,1.77856,1.82,-0.00996382,
0.176618,0.0545204,0.0506132,-1.93677,0.304808,0.197857,-0.0106664,0.0483385,-0.0174911,0.050597,-0.0093732,-0.00936204,0.0692136,-0.0014907,2.66871,0.234979,1.05869,-1.5714,-18.0167,14.6302,0.335966,0,0,0,0,0,0,0,0.160276,0.0534872,0.0342918,-1.93102,0.319083,0.153659,-0.0110804,0.0105698,0.00417063,0.0864813,-0.00145362,-0.000337544,0.0469622,0.00134139,0,0,0,0,0,0,0,0.209842,-36.0417,0.139784,25.733,1.77856,1.82,-0.00996382,
0.177126,0.0543768,0.0510599,-1.93692,0.303696,0.19914,-0.0106601,0.0513586,-0.0175829,0.051646,-0.0112446,-0.0353012,0.0874562,-0.00103557,1.88753,-0.0573813,0.655631,-1.16961,-16.212,11.4016,0.284454,0,0,0,0,0,0,0,0.161873,0.0534801,0.0357484,-1.93111,0.319782,0.15433,-0.0110756,0.0692435,-0.00157987,0.0195603,-0.00218,0.0261177,0.00338051,0.00115114,7.33422,-0.718811,-8.36512,-0.0907977,3.3069,-5.44771,-0.023782,-0.325741,-36.0417,-0.237108,25.2847,1.77215,1.84655,-0.0227812,
0.177617,0.0542211,0.0514947,-1.93706,0.30248,0.200405,-0.0106531,0.0533776,-0.0179599,0.0521878,-0.0125863,-0.0586258,0.101584,-0.000652219,1.26188,-0.235653,0.338648,-0.838599,-14.5779,8.82969,0.239595,0,0,0,0,0,0,0,0.161873,0.0534801,0.0357484,-1.93111,0.319782,0.15433,-0.0110756,0.0692435,-0.00157987,0.0195603,-0.00218,0.0261177,0.00338051,0.00115114,0,0,0,0,0,0,0,-0.325741,-36.0417,-0.237108,25.2847,1.77215,1.84655,-0.0227812,
0.177582,0.0552579,0.052028,-1.93768,0.298771,0.198005,-0.0105767,0.0555631,-0.0136229,0.0557881,-0.0143596,-0.0558109,0.107825,-0.000444976,1.36595,2.71065,2.25017,-1.1083,1.75935,3.90054,0.129527,0,0,0,0,0,0,0,0.161873,0.0534801,0.0357484,-1.93111,0.319782,0.15433,-0.0110756,0.0692435,-0.00157987,0.0195603,-0.00218,0.0261177,0.00338051,0.00115114,0,0,0,0,0,0,0,-0.325741,-36.0417,-0.237108,25.2847,1.77215,1.84655,-0.0227812,
0.178103,0.0552748,0.0525485,-1.93784,0.298326,0.199128,-0.0105747,0.0574761,-0.010476,0.0576413,-0.0156246,-0.0557572,0.114336,-0.000305563,1.19565,1.96681,1.15823,-0.7906,0.0335262,4.06958,0.0871333,0,0,0,0,0,0,0,0.161873,0.0534801,0.0357484,-1.93111,0.319782,0.15433,-0.0110756,0.0692435,-0.00157987,0.0195603,-0.00218,0.0261177,0.00338051,0.00115114,0,0,0,0,0,0,0,-0.325741,-36.0417,-0.237108,25.2847,1.77215,1.84655,-0.0227812,
0.178621,0.0552756,0.0530313,-1.938,0.297807,0.200273,-0.0105742,0.0589218,-0.00836098,0.0581844,-0.0164359,-0.0575837,0.120093,-0.000232532,0.903539,1.32189,0.339465,-0.507072,-1.14153,3.59841,0.0456441,0,0,0,0,0,0,0,0.163225,0.0534725,0.0373447,-1.93133,0.319709,0.156222,-0.0110871,0.0200939,-0.00123198,0.0636482,-0.00375032,-0.00656177,0.0773765,-0.00121787,-6.14371,0.0434861,5.51099,-0.196289,-4.08493,9.2495,-0.296126,0.25745,-35.8434,0.43733,25.5069,1.88842,1.93261,0.050461,
0.179125,0.0552555,0.0534853,-1.93815,0.297209,0.201415,-0.0105746,0.0597545,-0.00718955,0.057897,-0.0169318,-0.061031,0.124637,-0.000196054,0.520424,0.732144,-0.17964,-0.309917,-2.15459,2.83977,0.0227986,0,0,0,0,0,0,0,0.163225,0.0534725,0.0373447,-1.93133,0.319709,0.156222,-0.0110871,0.0200939,-0.00123198,0.0636482,-0.00375032,-0.00656177,0.0773765,-0.00121787,0,0,0,0,0,0,0,0.25745,-35.8434,0.43733,25.5069,1.88842,1.93261,0.050461,
0.178087,0.0544856,0.0525099,-1.93835,0.295109,0.203772,-0.0106004,0.0595006,-0.00284999,0.0608782,-0.0168642,-0.0506432,0.120337,0.000321676,-0.158635,2.71223,1.86324,0.0422037,6.49238,-2.68743,0.323582,0,0,0,0,0,0,0,0.163225,0.0534725,0.0373447,-1.93133,0.319709,0.156222,-0.0110871,0.0200939,-0.00123198,0.0636482,-0.00375032,-0.00656177,0.0773765,-0.00121787,0,0,0,0,0,0,0,0.25745,-35.8434,0.43733,25.5069,1.88842,1.93261,0.050461,
0.178542,0.0545857,0.0530841,-1.93848,0.294923,0.204617,-0.0105848,0.058987,0.000222651,0.0630564,-0.0167665,-0.0451705,0.117399,0.000648407,-0.32101,1.9204,1.36143,0.061088,3.42045,-1.83646,0.204207,0,0,0,0,0,0,0,0.163225,0.0534725,0.0373447,-1.93133,0.319709,0.156222,-0.0110871,0.0200939,-0.00123198,0.0636482,-0.00375032,-0.00656177,0.0773765,-0.00121787,0,0,0,0,0,0,0,0.25745,-35.8434,0.43733,25.5069,1.88842,1.93261,0.050461,
0.178985,0.054664,0.0536478,-1.93862,0.294615,0.20551,-0.0105746,0.058262,0.00213706,0.0645396,-0.0168301,-0.0438159,0.116261,0.000774908,-0.45312,1.19651,0.926971,-0.0397792,0.84665,-0.711309,0.0790634,0,0,0,0,0,0,0,0.164398,0.0534569,0.0392479,-1.93167,0.317828,0.160341,-0.0110793,0.0256681,-0.000185279,0.0684763,-0.0122099,-0.068969,0.149834,0.00424748,0.69678,0.130837,0.603518,-1.05745,-7.80091,9.05724,0.683169,0.995365,-35.5696,0.786451,25.4077,1.47277,1.99212,0.0101778,
0.179421,0.0547202,0.0541923,-1.93877,0.294193,0.206485,-0.0105675,0.0575102,0.00311303,0.0652431,-0.0170963,-0.0456197,0.117378,0.000795766,-0.469877,0.609984,0.43967,-0.166346,-1.12739,0.698142,0.0130363,0,0,0,0,0,0,0,0.164398,0.0534569,0.0392479,-1.93167,0.317828,0.160341,-0.0110793,0.0256681,-0.000185279,0.0684763,-0.0122099,-0.068969,0.149834,0.00424748,0,0,0,0,0,0,0,0.995365,-35.5696,0.786451,25.4077,1.47277,1.99212,0.0101778,
0.179043,0.0535177,0.0537357,-1.93876,0.29358,0.205133,-0.0105143,0.0576582,0.00532474,0.0674751,-0.0173528,-0.0365721,0.114784,0.00104252,0.0924555,1.38231,1.39504,-0.16035,5.65474,-1.62114,0.154224,0,0,0,0,0,0,0,0.164398,0.0534569,0.0392479,-1.93167,0.317828,0.160341,-0.0110793,0.0256681,-0.000185279,0.0684763,-0.0122099,-0.068969,0.149834,0.00424748,0,0,0,0,0,0,0,0.995365,-35.5696,0.786451,25.4077,1.47277,1.99212,0.0101778,
0.179504,0.0536243,0.0543293,-1.93889,0.293517,0.20596,-0.0104971,0.0576558,0.00692516,0.0688203,-0.0173131,-0.0308305,0.112495,0.001265,-0.00145712,1.00027,0.840721,0.0248704,3.58847,-1.43071,0.139047,0,0,0,0,0,0,0,0.164398,0.0534569,0.0392479,-1.93167,0.317828,0.160341,-0.0110793,0.0256681,-0.000185279,0.0684763,-0.0122099,-0.068969,0.149834,0.00424748,0,0,0,0,0,0,0,0.995365,-35.5696,0.786451,25.4077,1.47277,1.99212,0.0101778,
0.179953,0.0537132,0.0549161,-1.93903,0.29335,0.206799,-0.0104836,0.0573377,0.00776226,0.0697252,-0.0172584,-0.0288385,0.110965,0.00134866,-0.198804,0.523185,0.56558,0.0341819,1.24503,-0.956224,0.0522862,0,0,0,0,0,0,0,0.166731,0.0535071,0.0408419,-1.93227,0.314899,0.166092,-0.0110831,0.0614807,0.00506959,0.0426062,-0.015796,-0.0615516,0.155527,-0.000804586,4.47657,0.656859,-3.23376,-0.44826,0.927178,0.711602,-0.631508,0.0313145,-35.518,0.461134,25.3323,1.52771,1.95916,0.0440523,
0.185952,0.0505913,0.0603493,-1.94622,0.2607,0.311335,-0.00947887,0.0662674,0.00277625,0.0728038,-0.0228041,-0.0398515,0.14819,0.00217434,5.58104,-3.11626,1.92411,-3.46608,-6.88315,23.266,0.516053,0,0,0,0,0,0,0,0.166731,0.0535071,0.0408419,-1.93227,0.314899,0.166092,-0.0110831,0.0614807,0.00506959,0.0426062,-0.015796,-0.0615516,0.155527,-0.000804586,0,0,0,0,0,0,0,0.0313145,-35.518,0.461134,25.3323,1.52771,1.95916,0.0440523,
0.182159,0.054103,0.0562478,-1.93969,0.289798,0.210836,-0.0105343,0.0645978,0.00538239,0.0733228,-0.0219096,-0.0310976,0.137433,0.0021673,-1.04352,1.62884,0.324395,0.559082,5.4712,-6.72316,-0.00440126,0,0,0,0,0,0,0,0.166731,0.0535071,0.0408419,-1.93227,0.314899,0.166092,-0.0110831,0.0614807,0.00506959,0.0426062,-0.015796,-0.0615516,0.155527,-0.000804586,0,0,0,0,0,0,0,0.0313145,-35.518,0.461134,25.3323,1.52771,1.95916,0.0440523,
0.182615,0.0542245,0.0568332,-1.93982,0.289776,0.211584,-0.0105151,0.063098,0.00734395,0.073294,-0.020915,-0.0254201,0.12867,0.00221215,-0.937375,1.22598,-0.0180183,0.621623,3.54845,-5.47693,0.0280309,0,0,0,0,0,0,0,0.166731,0.0535071,0.0408419,-1.93227,0.314899,0.166092,-0.0110831,0.0614807,0.00506959,0.0426062,-0.015796,-0.0615516,0.155527,-0.000804586,0,0,0,0,0,0,0,0.0313145,-35.518,0.461134,25.3323,1.52771,1.95916,0.0440523,
0.183057,0.0543297,0.0574123,-1.93996,0.289651,0.212338,-0.0104993,0.0615294,0.00850427,0.073112,-0.0200209,-0.0234468,0.121774,0.0021655,-0.98038,0.725198,-0.113754,0.558796,1.23328,-4.31014,-0.029156,0,0,0,0,0,0,0,0.1681,0.0537208,0.0434124,-1.93285,0.312522,0.171836,-0.0110823,0.00941372,0.00371296,0.100879,-0.0185491,-0.0534342,0.166771,-0.000555924,-6.50837,-0.16958,7.28409,-0.344136,1.01468,1.40546,0.0310828,0.995365,-35.645,0.814222,25.3085,1.55883,1.62041,0.0376436,
0.186739,0.0506511,0.0606662,-1.94635,0.259854,0.309406,-0.0096772,0.0709936,0.00243876,0.0765272,-0.0259676,-0.0380457,0.168687,0.00289053,5.91513,-3.79095,2.13451,-3.71672,-9.12431,29.3208,0.453143,0,0,0,0,0,0,0,0.1681,0.0537208,0.0434124,-1.93285,0.312522,0.171836,-0.0110823,0.00941372,0.00371296,0.100879,-0.0185491,-0.0534342,0.166771,-0.000555924,0,0,0,0,0,0,0,0.995365,-35.645,0.814222,25.3085,1.55883,1.62041,0.0376436,
0.183285,0.0530747,0.0575021,-1.94052,0.287511,0.217067,-0.0105025,0.072405,0.00438688,0.0749804,-0.0255965,-0.0482405,0.161391,0.00255937,0.882123,1.21758,-0.966766,0.231984,-6.37175,-4.56038,-0.206975,0,0,0,0,0,0,0,0.1681,0.0537208,0.0434124,-1.93285,0.312522,0.171836,-0.0110823,0.00941372,0.00371296,0.100879,-0.0185491,-0.0534342,0.166771,-0.000555924,0,0,0,0,0,0,0,0.995365,-35.645,0.814222,25.3085,1.55883,1.62041,0.0376436,
0.1838,0.0531585,0.0581784,-1.94072,0.286807,0.218083,-0.0104837,0.0707845,0.00560298,0.0768922,-0.0255792,-0.0561878,0.154512,0.00251673,-1.01278,0.760064,1.1949,0.0107639,-4.96703,-4.29933,-0.0266475,0,0,0,0,0,0,0,0.1681,0.0537208,0.0434124,-1.93285,0.312522,0.171836,-0.0110823,0.00941372,0.00371296,0.100879,-0.0185491,-0.0534342,0.166771,-0.000555924,0,0,0,0,0,0,0,0.995365,-35.645,0.814222,25.3085,1.55883,1.62041,0.0376436,
0.184301,0.0532419,0.058852,-1.94092,0.286229,0.219032,-0.0104652,0.0691683,0.00656777,0.0783541,-0.0255135,-0.0594033,0.14735,0.0024779,-1.01015,0.60299,0.913696,0.0410902,-2.00972,-4.47603,-0.0242702,0,0,0,0,0,0,0,0.1681,0.0537208,0.0434124,-1.93285,0.312522,0.171836,-0.0110823,0.00941372,0.00371296,0.100879,-0.0185491,-0.0534342,0.166771,-0.000555924,0,0,0,0,0,0,0,0.995365,-35.645,0.814222,25.3085,1.55883,1.62041,0.0376436,
0.184982,0.0525372,0.0595235,-1.94138,0.287195,0.222146,-0.0104922,0.0685555,0.00684127,0.0764845,-0.0264578,-0.0771331,0.15205,0.00250034,-0.382998,0.170938,-1.16853,-0.590162,-11.0811,2.93724,0.0140245,0,0,0,0,0,0,0,0.170301,0.0540502,0.045421,-1.93356,0.309854,0.179636,-0.0110771,0.0991421,0.015442,0.0187302,-0.0104889,-0.0202182,0.179417,-0.000728018,11.2161,1.46614,-10.2686,1.00752,4.152,1.58072,-0.0215118,-0.119442,-35.8672,0.0644055,25.8084,1.58905,0.96398,0.0303194,
0.185514,0.0526122,0.060054,-1.94161,0.286192,0.223379,-0.0104774,0.0681531,0.00734791,0.0744496,-0.0269257,-0.0867747,0.152459,0.00237071,-0.251498,0.316648,-1.27179,-0.292459,-6.02594,0.255798,-0.0810167,0,0,0,0,0,0,0,0.170301,0.0540502,0.045421,-1.93356,0.309854,0.179636,-0.0110771,0.0991421,0.015442,0.0187302,-0.0104889,-0.0202182,0.179417,-0.000728018,0,0,0,0,0,0,0,-0.119442,-35.8672,0.0644055,25.8084,1.58905,0.96398,0.0303194,
0.186064,0.0526956,0.0605554,-1.94183,0.285415,0.224465,-0.0104802,0.0682628,0.00796451,0.0720935,-0.0270729,-0.0888331,0.149112,0.00182704,0.068573,0.385378,-1.47257,-0.0920227,-1.28655,-2.09196,-0.339792,0,0,0,0,0,0,0,0.170301,0.0540502,0.045421,-1.93356,0.309854,0.179636,-0.0110771,0.0991421,0.015442,0.0187302,-0.0104889,-0.0202182,0.179417,-0.000728018,0,0,0,0,0,0,0,-0.119442,-35.8672,0.0644055,25.8084,1.58905,0.96398,0.0303194,
0.186669,0.0527835,0.0610131,-1.94205,0.284799,0.225452,-0.0105136,0.0697357,0.00857013,0.0691178,-0.0270788,-0.086487,0.143958,0.000624995,0.920568,0.378511,-1.85984,-0.00363909,1.46635,-3.22103,-0.751281,0,0,0,0,0,0,0,0.170301,0.0540502,0.045421,-1.93356,0.309854,0.179636,-0.0110771,0.0991421,0.015442,0.0187302,-0.0104889,-0.0202182,0.179417,-0.000728018,0,0,0,0,0,0,0,-0.119442,-35.8672,0.0644055,25.8084,1.58905,0.96398,0.0303194,
0.187028,0.0518285,0.0616771,-1.94227,0.286467,0.229567,-0.0104822,0.0685955,0.00607129,0.0704135,-0.0290368,-0.101465,0.1511,0.0009434,-0.712637,-1.56177,0.809842,-1.22378,-9.36134,4.46363,0.199003,0,0,0,0,0,0,0,0.172327,0.0542556,0.0478633,-1.93428,0.306974,0.187597,-0.0110767,0.0147518,0.00960394,0.110037,-0.00191074,-0.037576,0.18308,0.000506056,-10.5488,-0.729761,11.4134,1.07227,-2.16973,0.457865,0.154259,0.412174,-36.494,0.564283,25.8322,1.37573,1.03081,0.0303194,
0.187528,0.0518145,0.0622667,-1.94256,0.28513,0.230983,-0.0104635,0.0673775,0.00450691,0.0710704,-0.0303156,-0.114597,0.156279,0.00122202,-0.76126,-0.977737,0.41058,-0.799243,-8.20754,3.23721,0.174136,0,0,0,0,0,0,0,0.172327,0.0542556,0.0478633,-1.93428,0.306974,0.187597,-0.0110767,0.0147518,0.00960394,0.110037,-0.00191074,-0.037576,0.18308,0.000506056,0,0,0,0,0,0,0,0.412174,-36.494,0.564283,25.8322,1.37573,1.03081,0.0303194,
0.18802,0.0518186,0.0628405,-1.94283,0.283766,0.232372,-0.0104434,0.0662172,0.0037081,0.0712003,-0.0310274,-0.125768,0.159755,0.00148021,-0.725153,-0.499256,0.0811561,-0.44485,-6.982,2.17205,0.161372,0,0,0,0,0,0,0,0.172327,0.0542556,0.0478633,-1.93428,0.306974,0.187597,-0.0110767,0.0147518,0.00960394,0.110037,-0.00191074,-0.037576,0.18308,0.000506056,0,0,0,0,0,0,0,0.412174,-36.494,0.564283,25.8322,1.37573,1.03081,0.0303194,
0.188508,0.0518405,0.0633979,-1.94308,0.28241,0.23372,-0.0104219,0.0651751,0.00351226,0.0708955,-0.031272,-0.134519,0.161498,0.00172212,-0.651314,-0.122401,-0.190516,-0.152886,-5.46924,1.08954,0.151193,0,0,0,0,0,0,0,0.172327,0.0542556,0.0478633,-1.93428,0.306974,0.187597,-0.0110767,0.0147518,0.00960394,0.110037,-0.00191074,-0.037576,0.18308,0.000506056,0,0,0,0,0,0,0,0.412174,-36.494,0.564283,25.8322,1.37573,1.03081,0.0303194,
0.188668,0.0521263,0.0635034,-1.94324,0.281784,0.237469,-0.0104222,0.0692636,0.000137302,0.0708313,-0.0326432,-0.130588,0.156427,0.00202915,2.55531,-2.10935,-0.0401246,-0.857021,2.4569,-3.16919,0.19189,0,0,0,0,0,0,0,0.174311,0.0544377,0.0504863,-1.93498,0.30363,0.194441,-0.01107,0.0873626,0.0027033,0.0459559,-0.0123636,-0.0903079,0.189866,0.0008962,9.07636,-0.86258,-8.01016,-1.30661,-6.59148,0.848258,0.0487679,0.384403,-35.8672,0.286573,25.0586,1.13128,1.58745,-0.0301054,
0.18934,0.0520239,0.0640506,-1.94355,0.280738,0.238585,-0.0103997,0.0722246,-0.00244801,0.0703441,-0.0338013,-0.130614,0.153026,0.00218456,1.8506,-1.61582,-0.304509,-0.723835,-0.0159292,-2.12573,0.0971362,0,0,0,0,0,0,0,0.174311,0.0544377,0.0504863,-1.93498,0.30363,0.194441,-0.01107,0.0873626,0.0027033,0.0459559,-0.0123636,-0.0903079,0.189866,0.0008962,0,0,0,0,0,0,0,0.384403,-35.8672,0.286573,25.0586,1.13128,1.58745,-0.0301054,
0.189987,0.0519311,0.0645873,-1.94386,0.279609,0.239752,-0.0103768,0.0739407,-0.00427995,0.0696932,-0.0348147,-0.132719,0.151598,0.00231926,1.07256,-1.14496,-0.406775,-0.633375,-1.31575,-0.892791,0.0841856,0,0,0,0,0,0,0,0.174311,0.0544377,0.0504863,-1.93498,0.30363,0.194441,-0.01107,0.0873626,0.0027033,0.0459559,-0.0123636,-0.0903079,0.189866,0.0008962,0,0,0,0,0,0,0,0.384403,-35.8672,0.286573,25.0586,1.13128,1.58745,-0.0301054,
0.190579,0.0518539,0.0651326,-1.94416,0.278457,0.240945,-0.0103635,0.0739606,-0.00535342,0.0693871,-0.0355052,-0.134978,0.151118,0.00218891,0.0124622,-0.670917,-0.191294,-0.431521,-1.41181,-0.29955,-0.0814723,0,0,0,0,0,0,0,0.174311,0.0544377,0.0504863,-1.93498,0.30363,0.194441,-0.01107,0.0873626,0.0027033,0.0459559,-0.0123636,-0.0903079,0.189866,0.0008962,0,0,0,0,0,0,0,0.384403,-35.8672,0.286573,25.0586,1.13128,1.58745,-0.0301054,
0.187361,0.0528547,0.0630728,-1.94345,0.281427,0.240147,-0.0104625,0.0773701,-0.00709576,0.0704182,-0.0370377,-0.122341,0.153912,0.0025613,2.1309,-1.08896,0.64439,-0.957816,7.89776,1.74577,0.232744,0,0,0,0,0,0,0,0.176704,0.0545485,0.0522803,-1.93579,0.299873,0.20079,-0.0110799,0.10758,0.00385513,0.0195652,-0.0178245,-0.148662,0.199248,-0.000752451,2.52712,0.143979,-3.29883,-0.682604,-7.29429,1.17278,-0.206081,-0.528073,-35.4704,-0.0387439,25.011,1.1615,1.9262,0.0303194,
0.18807,0.0527457,0.0636609,-1.94379,0.280894,0.241335,-0.0104093,0.0796418,-0.00840221,0.0710367,-0.0379066,-0.111196,0.152837,0.00337978,1.41981,-0.816534,0.386599,-0.543101,6.96568,-0.671737,0.511553,0,0,0,0,0,0,0,0.176704,0.0545485,0.0522803,-1.93579,0.299873,0.20079,-0.0110799,0.10758,0.00385513,0.0195652,-0.0178245,-0.148662,0.199248,-0.000752451,0,0,0,0,0,0,0,-0.528073,-35.4704,-0.0387439,25.011,1.1615,1.9262,0.0303194,
0.188752,0.0526475,0.0642335,-1.94408,0.28037,0.242319,-0.010384,0.0807461,-0.00917608,0.0711441,-0.0377761,-0.102079,0.146868,0.00333635,0.690183,-0.483672,0.0671273,0.0816022,5.69852,-3.73068,-0.0271468,0,0,0,0,0,0,0,0.176704,0.0545485,0.0522803,-1.93579,0.299873,0.20079,-0.0110799,0.10758,0.00385513,0.0195652,-0.0178245,-0.148662,0.199248,-0.000752451,0,0,0,0,0,0,0,-0.528073,-35.4704,-0.0387439,25.011,1.1615,1.9262,0.0303194,
0.189418,0.0525491,0.0647969,-1.94438,0.279734,0.243275,-0.0103549,0.0812642,-0.00980016,0.0710012,-0.0376612,-0.0975434,0.141386,0.00339602,0.323859,-0.390046,-0.0893092,0.0717991,2.83446,-3.4262,0.0372956,0,0,0,0,0,0,0,0.176704,0.0545485,0.0522803,-1.93579,0.299873,0.20079,-0.0110799,0.10758,0.00385513,0.0195652,-0.0178245,-0.148662,0.199248,-0.000752451,0,0,0,0,0,0,0,-0.528073,-35.4704,-0.0387439,25.011,1.1615,1.9262,0.0303194,
0.189826,0.0533239,0.0652347,-1.94483,0.277414,0.2449,-0.0104313,0.0826152,-0.0104288,0.0711528,-0.0387604,-0.0936536,0.144931,0.0031989,0.844355,-0.392928,0.094739,-0.686977,2.43116,2.21589,-0.123199,0,0,0,0,0,0,0,0.178526,0.0545494,0.0555149,-1.93682,0.294518,0.208393,-0.0110716,-0.00989265,0.00148455,0.139336,-0.0254431,-0.13755,0.192576,0.00119222,-14.684,-0.296323,14.9714,-0.95233,1.389,-0.833988,0.243084,0.892215,-35.4704,0.889601,24.1144,1.10016,1.89965,-0.0163725,
0.19052,0.0532217,0.0658016,-1.94516,0.276872,0.246055,-0.0104014,0.0834562,-0.0108999,0.0710947,-0.0393112,-0.0884912,0.144813,0.00330734,0.525628,-0.294428,-0.0363403,-0.344243,3.22647,-0.0741203,0.0677769,0,0,0,0,0,0,0,0.178526,0.0545494,0.0555149,-1.93682,0.294518,0.208393,-0.0110716,-0.00989265,0.00148455,0.139336,-0.0254431,-0.13755,0.192576,0.00119222,0,0,0,0,0,0,0,0.892215,-35.4704,0.889601,24.1144,1.10016,1.89965,-0.0163725,
