xiao-wang007/linearmpc_panda/paper_data/panda_torque_PD_controller_error_match_to_start_torque_rate_limiter_low_pass_filter/3/trajectory.csv
Commanded Joint 0 Position,Commanded Joint 1 Position,Commanded Joint 2 Position,Commanded Joint 3 Position,Commanded Joint 4 Position,Commanded Joint 5 Position,Commanded Joint 6 Position,Commanded Joint 0 Velocity,Commanded Joint 1 Velocity,Commanded Joint 2 Velocity,Commanded Joint 3 Velocity,Commanded Joint 4 Velocity,Commanded Joint 5 Velocity,Commanded Joint 6 Velocity,Commanded Joint 0 Acceleration,Commanded Joint 1 Acceleration,Commanded Joint 2 Acceleration,Commanded Joint 3 Acceleration,Commanded Joint 4 Acceleration,Commanded Joint 5 Acceleration,Commanded Joint 6 Acceleration,Commanded Joint 0 Torque,Commanded Joint 1 Torque,Commanded Joint 2 Torque,Commanded Joint 3 Torque,Commanded Joint 4 Torque,Commanded Joint 5 Torque,Commanded Joint 6 Torque,Actual Joint 0 Position,Actual Joint 1 Position,Actual Joint 2 Position,Actual Joint 3 Position,Actual Joint 4 Position,Actual Joint 5 Position,Actual Joint 6 Position,Actual Joint 0 Velocity,Actual Joint 1 Velocity,Actual Joint 2 Velocity,Actual Joint 3 Velocity,Actual Joint 4 Velocity,Actual Joint 5 Velocity,Actual Joint 6 Velocity,Actual Joint 0 Acceleration,Actual Joint 1 Acceleration,Actual Joint 2 Acceleration,Actual Joint 3 Acceleration,Actual Joint 4 Acceleration,Actual Joint 5 Acceleration,Actual Joint 6 Acceleration,Actual Joint 0 Torque,Actual Joint 1 Torque,Actual Joint 2 Torque,Actual Joint 3 Torque,Actual Joint 4 Torque,Actual Joint 5 Torque,Actual Joint 6 Torque,
0.0497114,0.00959492,-0.0437186,-1.72584,0.0252626,0.175842,-0.00520785,0.000529344,0.0217865,0.000494048,-0.0325159,-0.00461045,0.0535488,-0.000397186,0.33084,13.6166,0.30878,-20.3224,-2.88153,33.468,-0.248241,0.0557273,24.6602,0.0554578,-24.1821,-0.71905,2.05343,-0.025054,0.0496555,0.00805282,-0.0437734,-1.72254,0.0255609,0.170159,-0.00515528,-0.00263186,0.00164083,-0.000251517,0.000539824,0.00179417,-0.000504638,0.000812709,0,0,0,0,0,0,0,0.233646,-35.518,0.187391,26.9788,0.642391,3.13927,-0.110672,
0.0496361,0.00807051,-0.0437922,-1.72255,0.0255574,0.170159,-0.00515443,0.000306878,0.0175362,0.000280339,-0.0260599,-0.00380384,0.0428307,-0.000314564,-0.139041,-2.65646,-0.133568,4.03501,0.504131,-6.69881,0.0516386,0.0500346,25.104,0.0451975,-24.0983,-0.71913,1.80298,-0.0235395,0.0496576,0.00816188,-0.0437736,-1.72256,0.0255627,0.170158,-0.00515517,-0.000676015,0.00608093,0.000293878,0.0024369,0.00429071,-0.00386561,0.000535477,0.24448,0.555012,0.0681743,0.237135,0.312068,-0.420122,-0.0346539,0.209842,-35.4704,0.238966,26.8518,0.593868,3.19878,-0.110672,
0.0496325,0.0080739,-0.0437958,-1.72255,0.0255521,0.170159,-0.00515434,0.000155682,0.0141135,0.000135671,-0.0208877,-0.00317527,0.0342481,-0.000249594,-0.0944978,-2.13919,-0.0904175,3.23264,0.392856,-5.3641,0.0406064,0.0428591,25.6755,0.0335063,-23.9903,-0.718402,1.45528,-0.0215708,0.0496576,0.00816188,-0.0437736,-1.72256,0.0255627,0.170158,-0.00515517,-0.000676015,0.00608093,0.000293878,0.0024369,0.00429071,-0.00386561,0.000535477,0,0,0,0,0,0,0,0.209842,-35.4704,0.238966,26.8518,0.593868,3.19878,-0.110672,
0.0496297,0.00807662,-0.0437985,-1.72255,0.025547,0.170158,-0.00515429,5.42394e-05,0.0113589,3.91462e-05,-0.0167429,-0.0026682,0.0273799,-0.000198314,-0.0634013,-1.72162,-0.0603278,2.59045,0.316915,-4.29263,0.0320499,0.0369521,26.1994,0.0241163,-23.8226,-0.716168,1.06997,-0.0195685,0.0496576,0.00816188,-0.0437736,-1.72256,0.0255627,0.170158,-0.00515517,-0.000676015,0.00608093,0.000293878,0.0024369,0.00429071,-0.00386561,0.000535477,0,0,0,0,0,0,0,0.209842,-35.4704,0.238966,26.8518,0.593868,3.19878,-0.110672,
0.0496682,0.00860416,-0.0437638,-1.72311,0.0254298,0.17038,-0.00515113,0.000308357,0.0201441,0.000277197,-0.0270541,-0.00545634,0.0274518,-5.77923e-05,0.158823,5.49079,0.148782,-6.44451,-1.74258,0.0449011,0.0878259,2.09294e-06,30.8232,0.00176375,-23.0896,-1.11195,-2.17525,0.000315556,0.0496576,0.00816188,-0.0437736,-1.72256,0.0255627,0.170158,-0.00515517,-0.000676015,0.00608093,0.000293878,0.0024369,0.00429071,-0.00386561,0.000535477,0,0,0,0,0,0,0,0.209842,-35.4704,0.238966,26.8518,0.593868,3.19878,-0.110672,
0.0496326,0.00903634,-0.0438015,-1.72333,0.0260934,0.169722,-0.0051626,-0.000644431,0.0269197,-0.000720871,-0.0272763,0.0122246,0.00550739,-0.000332852,-0.595493,4.23475,-0.623793,-0.138851,11.0506,-13.7152,-0.171912,0.489135,0.208377,0.489046,-0.295532,2.69045,-2.02844,-0.00205253,0.0496576,0.00816188,-0.0437736,-1.72256,0.0255627,0.170158,-0.00515517,-0.000676015,0.00608093,0.000293878,0.0024369,0.00429071,-0.00386561,0.000535477,0,0,0,0,0,0,0,0.209842,-35.4704,0.238966,26.8518,0.593868,3.19878,-0.110672,
0.0495802,0.00938477,-0.0438544,-1.72348,0.0272468,0.168658,-0.00517028,-0.0018244,0.0302467,-0.00189845,-0.0255107,0.0386151,-0.0221849,-0.000458506,-0.737481,2.07934,-0.73599,1.10348,16.4941,-17.3077,-0.0785335,0.482988,0.207197,0.482944,-0.29277,2.66729,-2.01196,-0.00200309,0.0496576,0.00816188,-0.0437736,-1.72256,0.0255627,0.170158,-0.00515517,-0.000676015,0.00608093,0.000293878,0.0024369,0.00429071,-0.00386561,0.000535477,0,0,0,0,0,0,0,0.209842,-35.4704,0.238966,26.8518,0.593868,3.19878,-0.110672,
0.0495277,0.00965688,-0.0439067,-1.7236,0.0286976,0.16737,-0.00517496,-0.00277263,0.0310001,-0.00282703,-0.0233889,0.0671611,-0.0499462,-0.000483605,-0.592644,0.470872,-0.580362,1.32615,17.8413,-17.3508,-0.0156873,0.476784,0.206116,0.476772,-0.289861,2.64449,-1.99542,-0.0019679,0.0496576,0.00816188,-0.0437736,-1.72256,0.0255627,0.170158,-0.00515517,-0.000676015,0.00608093,0.000293878,0.0024369,0.00429071,-0.00386561,0.000535477,0,0,0,0,0,0,0,0.209842,-35.4704,0.238966,26.8518,0.593868,3.19878,-0.110672,
0.0496682,0.00860416,-0.0437638,-1.72311,0.0254298,0.17038,-0.00515113,-0.00195314,0.0358571,-0.00201575,-0.0323709,0.0504071,-0.0344091,-0.000286026,0.512182,3.03564,0.507054,-5.61376,-10.4713,9.71066,0.123487,2.09294e-06,30.8232,0.00176375,-23.0896,-1.11195,-2.17525,0.000315556,0.0496576,0.00816188,-0.0437736,-1.72256,0.0255627,0.170158,-0.00515517,-0.000676015,0.00608093,0.000293878,0.0024369,0.00429071,-0.00386561,0.000535477,0,0,0,0,0,0,0,0.209842,-35.4704,0.238966,26.8518,0.593868,3.19878,-0.110672,
0.0495542,0.00905533,-0.0438847,-1.72322,0.0282774,0.168332,-0.00518676,-0.00441232,0.0399649,-0.00463613,-0.0287607,0.111516,-0.078712,-0.00111958,-1.53699,2.56735,-1.63774,2.25636,38.1931,-27.6893,-0.520974,4.07652,0.55134,4.06488,-1.79737,10.3896,-7.35785,-0.00350388,0.0496576,0.00816188,-0.0437736,-1.72256,0.0255627,0.170158,-0.00515517,-0.000676015,0.00608093,0.000293878,0.0024369,0.00429071,-0.00386561,0.000535477,0,0,0,0,0,0,0,0.209842,-35.4704,0.238966,26.8518,0.593868,3.19878,-0.110672,
0.0494186,0.00940069,-0.0440224,-1.72328,0.0328673,0.165069,-0.005206,-0.00692005,0.0406059,-0.0071516,-0.0245372,0.20396,-0.144551,-0.00137655,-1.56733,0.400659,-1.57217,2.6397,57.7772,-41.1497,-0.160604,4.01678,0.685925,4.00382,-1.7378,10.1293,-7.15696,-0.00272192,0.0496586,0.00935471,-0.043777,-1.72496,0.0253808,0.174522,-0.00515528,-0.000545011,0.0350062,-0.000765565,-0.147024,0.00182764,0.16766,0.000749158,0.0163756,3.61566,-0.13243,-18.6826,-0.307883,21.4407,0.0267101,0.209842,-23.2155,0.238966,17.3145,0.281674,1.5545,-0.110672,
0.0493137,0.00965497,-0.0441272,-1.72336,0.0384582,0.161082,-0.00521405,-0.00815732,0.0388418,-0.00833933,-0.0214923,0.30294,-0.215319,-0.00130266,-0.773296,-1.10257,-0.742336,1.90307,61.8626,-44.23,0.0461814,3.94841,0.73435,3.93416,-1.67841,9.8771,-6.95895,-0.00208566,0.0496586,0.00935471,-0.043777,-1.72496,0.0253808,0.174522,-0.00515528,-0.000545011,0.0350062,-0.000765565,-0.147024,0.00182764,0.16766,0.000749158,0,0,0,0,0,0,0,0.209842,-23.2155,0.238966,17.3145,0.281674,1.5545,-0.110672,
0.04967,0.0102231,-0.0437668,-1.72591,0.0251386,0.17503,-0.00514932,-0.00623937,0.0527822,-0.00641592,-0.0411245,0.236295,-0.159554,-0.000893103,1.19872,8.71275,1.20213,-12.2701,-41.6527,34.8536,0.255974,-0.000353577,30.8884,0.00168641,-23.0946,-1.10945,-2.17254,0.000298879,0.0496586,0.00935471,-0.043777,-1.72496,0.0253808,0.174522,-0.00515528,-0.000545011,0.0350062,-0.000765565,-0.147024,0.00182764,0.16766,0.000749158,0,0,0,0,0,0,0,0.209842,-23.2155,0.238966,17.3145,0.281674,1.5545,-0.110672,
0.0500207,0.0109936,-0.0434073,-1.72638,0.0271138,0.171466,-0.00504571,0.00377365,0.0614889,0.00385388,-0.0446911,0.238417,-0.21674,0.00187585,6.25813,5.44167,6.41862,-2.22914,1.32606,-35.7412,1.73059,28.3405,3.93609,28.2718,-11.2531,10.8905,-14.1725,0.129564,0.0496586,0.00935471,-0.043777,-1.72496,0.0253808,0.174522,-0.00515528,-0.000545011,0.0350062,-0.000765565,-0.147024,0.00182764,0.16766,0.000749158,0,0,0,0,0,0,0,0.209842,-23.2155,0.238966,17.3145,0.281674,1.5545,-0.110672,
0.050653,0.0116287,-0.0427732,-1.72675,0.0307436,0.165412,-0.00494032,0.018827,0.0650695,0.0189365,-0.0448322,0.281478,-0.324734,0.00413533,9.40833,2.2379,9.42664,-0.0881475,26.9127,-67.4966,1.41218,26.6992,4.91289,26.5669,-9.33358,10.8775,-14.1232,0.124941,0.049577,0.0102546,-0.0438539,-1.73306,0.0283383,0.174299,-0.00515528,-0.00455393,0.0232246,-0.00507996,-0.27312,0.165319,-0.091279,0.000803904,-0.501115,-1.4727,-0.539299,-15.762,20.4365,-32.3674,0.00684318,1.14612,-30.0789,1.06416,22.6425,1.08825,1.94543,-0.110672,
0.0495986,0.0112712,-0.0438322,-1.73446,0.0288345,0.172937,-0.00513849,0.0156012,0.0774701,0.015692,-0.0709168,0.237587,-0.293847,0.00372819,-2.0161,7.75036,-2.02783,-16.3029,-27.4317,19.3047,-0.25446,-0.00662271,30.9696,-0.00447285,-23.0976,-1.12255,-2.1232,-2.14162e-05,0.049577,0.0102546,-0.0438539,-1.73306,0.0283383,0.174299,-0.00515528,-0.00455393,0.0232246,-0.00507996,-0.27312,0.165319,-0.091279,0.000803904,0,0,0,0,0,0,0,1.14612,-30.0789,1.06416,22.6425,1.08825,1.94543,-0.110672,
0.0502376,0.0118746,-0.0431857,-1.73589,0.0307896,0.168444,-0.00481769,0.0284541,0.0770617,0.0287156,-0.0923481,0.238946,-0.34738,0.0110025,8.03308,-0.255254,8.13979,-13.3946,0.84934,-33.4583,4.54647,41.3906,-1.87883,41.1238,-22.4088,10.8775,-14.1232,0.377762,0.049577,0.0102546,-0.0438539,-1.73306,0.0283383,0.174299,-0.00515528,-0.00455393,0.0232246,-0.00507996,-0.27312,0.165319,-0.091279,0.000803904,0,0,0,0,0,0,0,1.14612,-30.0789,1.06416,22.6425,1.08825,1.94543,-0.110672,
0.0512814,0.012267,-0.0421455,-1.73729,0.0341745,0.161813,-0.00460416,0.0488597,0.07146,0.0489783,-0.108775,0.275779,-0.443694,0.0141402,12.7535,-3.50107,12.6642,-10.2669,23.021,-60.1966,1.96107,36.3231,-0.19208,36.0429,-20.848,10.8775,-14.1232,0.240189,0.049577,0.0102546,-0.0438539,-1.73306,0.0283383,0.174299,-0.00515528,-0.00455393,0.0232246,-0.00507996,-0.27312,0.165319,-0.091279,0.000803904,0,0,0,0,0,0,0,1.14612,-30.0789,1.06416,22.6425,1.08825,1.94543,-0.110672,
0.052589,0.012567,-0.0408486,-1.73862,0.0387964,0.153725,-0.00447188,0.0717776,0.0646672,0.0716058,-0.120507,0.336171,-0.557143,0.0146193,14.3237,-4.24553,14.1422,-7.33213,37.7448,-70.9055,0.299405,32.4999,1.28415,32.2157,-19.2453,10.7955,-14.0543,0.148866,0.049708,0.013266,-0.0437632,-1.73985,0.036795,0.162341,-0.00515681,-0.00508103,0.151902,-0.00898683,-0.0837708,0.644539,-0.622005,0.000764052,-0.0658872,16.0847,-0.488359,23.6686,59.9024,-66.3407,-0.00498145,2.41565,-38.0888,2.43684,28.5458,2.72522,1.49499,-0.0969389,
0.0519679,0.0135603,-0.0414993,-1.74388,0.0462908,0.148863,-0.00441519,0.0922423,0.0527788,0.0920161,-0.148364,0.391984,-0.632691,0.0180709,12.7904,-7.4302,12.7564,-17.4112,34.883,-47.2176,2.15724,50.1529,-6.0923,49.6375,-32.6382,10.7955,-14.0543,0.548996,0.049708,0.013266,-0.0437632,-1.73985,0.036795,0.162341,-0.00515681,-0.00508103,0.151902,-0.00898683,-0.0837708,0.644539,-0.622005,0.000764052,0,0,0,0,0,0,0,2.41565,-38.0888,2.43684,28.5458,2.72522,1.49499,-0.0969389,
0.0536578,0.0135933,-0.0398183,-1.74588,0.0518821,0.140251,-0.00430766,0.116041,0.0430492,0.115637,-0.168782,0.45337,-0.721436,0.0171451,14.8741,-6.081,14.7632,-12.7607,38.3664,-55.4652,-0.578587,41.948,-2.25412,41.5733,-30.0828,10.7955,-14.0543,0.2635,0.049708,0.013266,-0.0437632,-1.73985,0.036795,0.162341,-0.00515681,-0.00508103,0.151902,-0.00898683,-0.0837708,0.644539,-0.622005,0.000764052,0,0,0,0,0,0,0,2.41565,-38.0888,2.43684,28.5458,2.72522,1.49499,-0.0969389,
0.0555178,0.0136486,-0.0379696,-1.74782,0.0581659,0.130884,-0.00423293,0.139332,0.0358224,0.138728,-0.183568,0.519791,-0.811332,0.0155844,14.557,-4.51678,14.4318,-9.24175,41.513,-56.1849,-0.975469,36.6406,0.204258,36.3514,-27.8188,10.7955,-14.0543,0.104694,0.049708,0.013266,-0.0437632,-1.73985,0.036795,0.162341,-0.00515681,-0.00508103,0.151902,-0.00898683,-0.0837708,0.644539,-0.622005,0.000764052,0,0,0,0,0,0,0,2.41565,-38.0888,2.43684,28.5458,2.72522,1.49499,-0.0969389,
0.0574632,0.0136794,-0.0360378,-1.74979,0.065076,0.121066,-0.00411288,0.160101,0.0294274,0.159276,-0.196186,0.588585,-0.89452,0.0154686,12.9806,-3.99685,12.8426,-7.88569,42.9965,-51.9928,-0.0723538,33.1534,1.21465,32.9152,-26.2561,10.7073,-13.8603,0.0808761,0.0496417,0.0181711,-0.0438174,-1.74303,0.0580633,0.132593,-0.00505313,0.02433,0.081632,0.0268786,-0.164043,0.580984,-1.03695,0.0176521,3.67637,-8.78377,4.48317,-10.034,-7.94435,-51.8677,2.111,4.01447,-37.7913,3.96425,18.4094,1.80877,-1.84669,0.0641939,
0.0499273,0.0192717,-0.0435267,-1.74459,0.0608424,0.1268,-0.00502344,0.135221,0.0510575,0.134688,-0.195838,0.540346,-0.860448,0.0131172,-15.5503,13.5188,-15.3675,0.216923,-30.1496,21.2948,-1.46962,-0.126563,31.4864,-0.124619,-23.2128,-1.29268,-1.86027,0.000735535,0.0496417,0.0181711,-0.0438174,-1.74303,0.0580633,0.132593,-0.00505313,0.02433,0.081632,0.0268786,-0.164043,0.580984,-1.03695,0.0176521,0,0,0,0,0,0,0,4.01447,-37.7913,3.96425,18.4094,1.80877,-1.84669,0.0641939,
0.0509011,0.0196638,-0.0425512,-1.7471,0.0642672,0.120123,-0.00478716,0.13252,0.0506478,0.132139,-0.219614,0.517898,-0.855275,0.0164007,-1.68775,-0.256007,-1.59326,-14.8598,-14.0299,3.2337,2.05215,44.9824,-2.05599,44.4604,-37.8823,10.7073,-13.8603,0.25362,0.0496417,0.0181711,-0.0438174,-1.74303,0.0580633,0.132593,-0.00505313,0.02433,0.081632,0.0268786,-0.164043,0.580984,-1.03695,0.0176521,0,0,0,0,0,0,0,4.01447,-37.7913,3.96425,18.4094,1.80877,-1.84669,0.0641939,
0.0522811,0.0199035,-0.0411775,-1.7497,0.0686165,0.11222,-0.00472473,0.140518,0.0465107,0.140054,-0.240599,0.523049,-0.881792,0.0146813,4.99837,-2.58572,4.94675,-13.1158,3.21955,-16.5735,-1.07457,38.4472,0.423177,38.0626,-35.4219,10.7073,-13.8603,0.0404463,0.0496417,0.0181711,-0.0438174,-1.74303,0.0580633,0.132593,-0.00505313,0.02433,0.081632,0.0268786,-0.164043,0.580984,-1.03695,0.0176521,0,0,0,0,0,0,0,4.01447,-37.7913,3.96425,18.4094,1.80877,-1.84669,0.0641939,
0.056266,0.0184343,-0.0354747,-1.76676,0.100657,0.0619698,-0.00425144,0.160445,0.0371633,0.159567,-0.278203,0.584091,-0.934443,0.0115479,12.4544,-5.84212,12.1955,-23.5025,38.151,-32.9067,-1.95841,41.1865,-1.40399,40.6542,-42.8466,10.6709,-11.4214,0.0297573,0.0511486,0.0186933,-0.0405522,-1.75616,0.0820743,0.0914403,-0.00429722,0.0695014,-0.0566454,0.151742,-0.51328,0.755959,-1.33677,0.0310669,5.64643,-17.2847,15.6079,-43.6546,21.8718,-37.4777,1.67686,17.1224,-31.4992,16.6358,16.5408,3.79364,-2.85468,0.110886,
0.0582408,0.0184479,-0.0335214,-1.77017,0.107804,0.0535338,-0.00431447,0.177726,0.0300691,0.176486,-0.307824,0.645951,-0.958454,0.00766262,10.8007,-4.43389,10.5747,-18.5127,38.6627,-15.0072,-2.4283,35.9721,-0.17272,35.5466,-40.8561,10.6709,-10.7039,-0.0724597,0.0511486,0.0186933,-0.0405522,-1.75616,0.0820743,0.0914403,-0.00429722,0.0695014,-0.0566454,0.151742,-0.51328,0.755959,-1.33677,0.0310669,0,0,0,0,0,0,0,17.1224,-31.4992,16.6358,16.5408,3.79364,-2.85468,0.110886,
0.0602074,0.0184964,-0.0315763,-1.77352,0.1154,0.0458792,-0.00444008,0.191347,0.0252691,0.189816,-0.330149,0.706679,-0.95813,0.00298989,8.5132,-2.99995,8.33097,-13.9535,37.9549,0.20282,-2.92045,32.2209,-0.535611,31.8584,-40.0737,10.6709,-9.54478,-0.0257331,0.0511486,0.0186933,-0.0405522,-1.75616,0.0820743,0.0914403,-0.00429722,0.0695014,-0.0566454,0.151742,-0.51328,0.755959,-1.33677,0.0310669,0,0,0,0,0,0,0,17.1224,-31.4992,16.6358,16.5408,3.79364,-2.85468,0.110886,
0.0621449,0.0185737,-0.0296602,-1.77684,0.12333,0.0391964,-0.00457826,0.201515,0.0221463,0.199755,-0.34696,0.76358,-0.933573,-0.00106276,6.35473,-1.95176,6.2118,-10.5066,35.563,15.3479,-2.53291,28.2144,-0.991453,27.9185,-39.8229,10.6709,-8.73472,-0.0858406,0.0511486,0.0186933,-0.0405522,-1.75616,0.0820743,0.0914403,-0.00429722,0.0695014,-0.0566454,0.151742,-0.51328,0.755959,-1.33677,0.0310669,0,0,0,0,0,0,0,17.1224,-31.4992,16.6358,16.5408,3.79364,-2.85468,0.110886,
0.0519897,0.0196516,-0.039709,-1.75861,0.0859048,0.0826302,-0.00426359,0.182238,0.0416741,0.180883,-0.338834,0.706626,-0.96711,-9.2916e-06,-12.0477,12.2049,-11.7945,5.07864,-35.5963,-20.9604,0.658415,0.350359,32.2349,0.341093,-23.0691,-1.1715,-0.999008,-0.0011253,0.0563485,0.0191632,-0.0304662,-1.77426,0.109891,0.0400389,-0.00418891,0.194531,0.051735,0.400819,-0.539437,0.744048,-1.57268,0.00396172,15.6287,13.5475,31.1346,-3.26957,-1.48879,-29.4886,-3.38815,20.927,-30.7771,20.1865,22.6941,3.51257,-0.752634,0.0376436,
0.0532609,0.0199578,-0.0384427,-1.76237,0.0905889,0.0763057,-0.00432227,0.177571,0.0409938,0.176364,-0.365009,0.682404,-0.931801,-0.0014744,-2.91696,-0.425211,-2.82438,-16.3591,-15.1388,22.0681,-0.915691,36.9259,-0.413016,36.5147,-46.7581,10.8285,-4.4506,-0.11442,0.0563485,0.0191632,-0.0304662,-1.77426,0.109891,0.0400389,-0.00418891,0.194531,0.051735,0.400819,-0.539437,0.744048,-1.57268,0.00396172,0,0,0,0,0,0,0,20.927,-30.7771,20.1865,22.6941,3.51257,-0.752634,0.0376436,
0.0547898,0.0201141,-0.0369238,-1.76637,0.0960622,0.0712189,-0.00437531,0.180278,0.0367028,0.179064,-0.39183,0.682756,-0.872611,-0.00250563,1.69209,-2.68184,1.6872,-16.7635,0.219931,36.9938,-0.644524,32.6553,-1.15726,32.3331,-46.0632,10.8285,-3.22949,-0.0895719,0.0563485,0.0191632,-0.0304662,-1.77426,0.109891,0.0400389,-0.00418891,0.194531,0.051735,0.400819,-0.539437,0.744048,-1.57268,0.00396172,0,0,0,0,0,0,0,20.927,-30.7771,20.1865,22.6941,3.51257,-0.752634,0.0376436,
0.0564439,0.0202124,-0.0352821,-1.77037,0.10228,0.0670053,-0.0044865,0.185577,0.0318211,0.184294,-0.413662,0.701646,-0.803428,-0.00478426,3.31149,-3.05108,3.26906,-13.6448,11.8066,43.2392,-1.42414,28.4537,-1.77788,28.2066,-45.7754,10.8285,-2.47963,-0.152128,0.0563485,0.0191632,-0.0304662,-1.77426,0.109891,0.0400389,-0.00418891,0.194531,0.051735,0.400819,-0.539437,0.744048,-1.57268,0.00396172,0,0,0,0,0,0,0,20.927,-30.7771,20.1865,22.6941,3.51257,-0.752634,0.0376436,
0.065323,0.0200352,-0.0215685,-1.79335,0.140555,0.0193005,-0.00494685,0.201586,0.0314931,0.2,-0.445613,0.766891,-0.695083,-0.0089383,10.0057,-0.204993,9.81597,-19.9695,40.7783,67.716,-2.59627,29.9918,-1.95511,29.6939,-51.6776,10.8285,-0.944078,-0.177766,0.0563485,0.0191632,-0.0304662,-1.77426,0.109891,0.0400389,-0.00418891,0.194531,0.051735,0.400819,-0.539437,0.744048,-1.57268,0.00396172,0,0,0,0,0,0,0,20.927,-30.7771,20.1865,22.6941,3.51257,-0.752634,0.0376436,
0.0673704,0.0202632,-0.0195425,-1.79782,0.148932,0.0189285,-0.00513389,0.212454,0.030895,0.210649,-0.46827,0.822946,-0.565366,-0.0118267,6.79285,-0.373813,6.65588,-14.1608,35.0343,81.073,-1.80528,26.8054,-1.16585,26.5567,-50.0937,10.9652,0.699949,-0.260247,0.0721839,0.0170278,-0.018562,-1.80005,0.141582,-0.00888703,-0.00416175,0.617835,0.019233,0.308896,-0.853149,1.00568,-1.33937,-0.000151869,52.9129,-4.06275,-11.4903,-39.2141,32.7046,29.1637,-0.514198,19.356,-30.9755,18.7106,24.4357,4.43542,0.844961,-0.0767973,
0.0693444,0.0204698,-0.0175891,-1.80217,0.157392,0.0200216,-0.00529988,0.219313,0.0298791,0.217354,-0.483421,0.869856,-0.424966,-0.0136112,4.28644,-0.63495,4.1904,-9.46947,29.3188,87.75,-1.11528,24.7382,-0.781386,24.5136,-49.1237,10.9652,2.04813,-0.272226,0.0721839,0.0170278,-0.018562,-1.80005,0.141582,-0.00888703,-0.00416175,0.617835,0.019233,0.308896,-0.853149,1.00568,-1.33937,-0.000151869,0,0,0,0,0,0,0,19.356,-30.9755,18.7106,24.4357,4.43542,0.844961,-0.0767973,
0.071249,0.020652,-0.0157044,-1.8064,0.165888,0.0223193,-0.00544597,0.223064,0.0284599,0.221003,-0.492502,0.908289,-0.282529,-0.0145413,2.34471,-0.887003,2.2803,-5.67563,24.0202,89.0229,-0.581292,23.3434,-0.613281,23.1303,-48.2798,10.9652,4.05305,-0.252936,0.0721839,0.0170278,-0.018562,-1.80005,0.141582,-0.00888703,-0.00416175,0.617835,0.019233,0.308896,-0.853149,1.00568,-1.33937,-0.000151869,0,0,0,0,0,0,0,19.356,-30.9755,18.7106,24.4357,4.43542,0.844961,-0.0767973,
0.0856365,0.0191009,-0.00528852,-1.8271,0.187485,-0.00674714,-0.00509025,0.233789,0.0309379,0.231569,-0.512812,0.955796,-0.107243,-0.0150407,6.70279,1.54875,6.60384,-12.6937,29.692,109.554,-0.312173,21.1893,-3.60987,21.0223,-52.0167,10.9652,10.7031,-0.278487,0.0721839,0.0170278,-0.018562,-1.80005,0.141582,-0.00888703,-0.00416175,0.617835,0.019233,0.308896,-0.853149,1.00568,-1.33937,-0.000151869,0,0,0,0,0,0,0,19.356,-30.9755,18.7106,24.4357,4.43542,0.844961,-0.0767973,
0.0876946,0.0193549,-0.00325121,-1.83163,0.19652,-0.000930782,-0.00520212,0.238482,0.0310988,0.236188,-0.523395,0.990512,0.059615,-0.0148292,2.93299,0.100594,2.8869,-6.61434,21.6975,104.286,0.132227,20.6698,-3.67946,20.4967,-50.2619,11.0329,12.1317,-0.251486,0.0954477,0.018619,-0.00329348,-1.8297,0.175327,-0.0448639,-0.00418924,0.666228,0.000979412,0.645087,-0.993784,0.914239,-0.722591,-0.00366645,6.04915,-2.28169,42.0239,-17.5793,-11.4307,77.097,-0.439322,11.2151,-32.0744,10.9863,22.3926,3.2315,2.45629,-0.0703886,
0.0896219,0.0195449,-0.00134295,-1.83595,0.205423,0.00558536,-0.00529134,0.238969,0.0296305,0.236657,-0.526839,1.01497,0.210595,-0.014094,0.304514,-0.917699,0.293118,-2.15208,15.2859,94.3628,0.459499,20.0678,-3.44095,19.9021,-49.6151,11.0329,12.3435,-0.219688,0.0954477,0.018619,-0.00329348,-1.8297,0.175327,-0.0448639,-0.00418924,0.666228,0.000979412,0.645087,-0.993784,0.914239,-0.722591,-0.00366645,0,0,0,0,0,0,0,11.2151,-32.0744,10.9863,22.3926,3.2315,2.45629,-0.0703886,
0.149265,0.0148824,0.0580596,-2.00559,0.270172,0.3553,-0.00284871,0.197796,0.0243241,0.195905,-0.433422,0.801415,0.180069,-0.0113648,-25.733,-3.31647,-25.4699,58.3857,-133.472,-19.0787,1.70573,4.72336,1.42884,4.74078,-5.03179,0.358845,2.50105,-0.00652647,0.0954477,0.018619,-0.00329348,-1.8297,0.175327,-0.0448639,-0.00418924,0.666228,0.000979412,0.645087,-0.993784,0.914239,-0.722591,-0.00366645,0,0,0,0,0,0,0,11.2151,-32.0744,10.9863,22.3926,3.2315,2.45629,-0.0703886,
0.118356,0.0233461,0.018895,-1.83653,0.437582,-0.113061,-0.00601259,0.158633,0.0173684,0.15698,-0.344202,0.704091,0.139378,-0.00967563,-24.4766,-4.34736,-24.3284,55.762,-60.8274,-25.432,1.05574,4.72336,1.42884,4.74078,-5.03179,0.358845,2.50105,-0.00652647,0.0954477,0.018619,-0.00329348,-1.8297,0.175327,-0.0448639,-0.00418924,0.666228,0.000979412,0.645087,-0.993784,0.914239,-0.722591,-0.00366645,0,0,0,0,0,0,0,11.2151,-32.0744,10.9863,22.3926,3.2315,2.45629,-0.0703886,
0.118356,0.0233461,0.018895,-1.83653,0.437582,-0.113061,-0.00601259,0.127303,0.0118038,0.125839,-0.272827,0.626232,0.106825,-0.00832429,-19.5813,-3.47789,-19.4627,44.6096,-48.6619,-20.3456,0.844588,4.64601,0.998685,4.64058,-4.28231,0.123269,2.97842,-0.0142455,0.113177,0.0193697,0.0236816,-1.86856,0.216082,-0.0552708,-0.00454089,0.469237,-0.0224593,0.910768,-1.19083,1.3322,0.000858976,-0.01183,-24.6239,-2.92984,33.2101,-24.6304,52.2456,90.4312,-1.02045,-1.99597,-33.7962,-1.98668,23.6383,1.8518,3.424,-0.0969389,
0.118356,0.0233461,0.018895,-1.83653,0.437582,-0.113061,-0.00601259,0.102239,0.00735206,0.100927,-0.215727,0.563945,0.080783,-0.00724322,-15.665,-2.78231,-15.5701,35.6877,-38.9295,-16.2765,0.67567,4.64601,0.998685,4.64058,-4.28231,0.123269,2.97842,-0.0142455,0.113177,0.0193697,0.0236816,-1.86856,0.216082,-0.0552708,-0.00454089,0.469237,-0.0224593,0.910768,-1.19083,1.3322,0.000858976,-0.01183,0,0,0,0,0,0,0,-1.99597,-33.7962,-1.98668,23.6383,1.8518,3.424,-0.0969389,
0.13632,0.022309,0.0459118,-1.8716,0.470395,-0.108321,-0.00668305,0.0822291,0.0033169,0.0810074,-0.169923,0.519121,0.057293,-0.00636651,-12.5063,-2.52198,-12.4498,28.6273,-28.0145,-14.6812,0.547942,4.64601,0.998685,4.64058,-4.28231,0.123269,2.97842,-0.0142455,0.113177,0.0193697,0.0236816,-1.86856,0.216082,-0.0552708,-0.00454089,0.469237,-0.0224593,0.910768,-1.19083,1.3322,0.000858976,-0.01183,0,0,0,0,0,0,0,-1.99597,-33.7962,-1.98668,23.6383,1.8518,3.424,-0.0969389,
0.13632,0.022309,0.0459118,-1.8716,0.470395,-0.108321,-0.00668305,0.066221,8.87623e-05,0.0650717,-0.13328,0.483263,0.0385011,-0.00566515,-10.005,-2.01758,-9.95981,22.9018,-22.4116,-11.745,0.438354,4.64601,0.998685,4.64058,-4.28231,0.123269,2.97842,-0.0142455,0.113177,0.0193697,0.0236816,-1.86856,0.216082,-0.0552708,-0.00454089,0.469237,-0.0224593,0.910768,-1.19083,1.3322,0.000858976,-0.01183,0,0,0,0,0,0,0,-1.99597,-33.7962,-1.98668,23.6383,1.8518,3.424,-0.0969389,
0.13632,0.022309,0.0459118,-1.8716,0.470395,-0.108321,-0.00668305,0.0534146,-0.00249374,0.0523231,-0.103966,0.454576,0.0234675,-0.00510405,-8.00404,-1.61407,-7.96785,18.3215,-17.9293,-9.39599,0.350683,4.23529,0.361597,4.20596,-3.81993,-0.301312,3.03252,-0.0184712,0.132308,0.0205505,0.0521395,-1.91084,0.263668,-0.0336644,-0.00481942,0.601916,0.121853,0.726314,-1.17524,1.26366,1.07206,-0.000874625,16.5849,18.0391,-23.0568,1.94811,-8.56754,133.9,1.36942,-8.46264,-39.5369,-8.21135,36.4447,0.855709,6.66039,-0.0703886,
0.13632,0.022309,0.0459118,-1.8716,0.470395,-0.108321,-0.00668305,0.0431694,-0.00455975,0.0421243,-0.0805144,0.431627,0.0114406,-0.00465518,-6.40323,-1.29125,-6.37428,14.6572,-14.3434,-7.51679,0.280546,4.23529,0.361597,4.20596,-3.81993,-0.301312,3.03252,-0.0184712,0.132308,0.0205505,0.0521395,-1.91084,0.263668,-0.0336644,-0.00481942,0.601916,0.121853,0.726314,-1.17524,1.26366,1.07206,-0.000874625,0,0,0,0,0,0,0,-8.46264,-39.5369,-8.21135,36.4447,0.855709,6.66039,-0.0703886,
0.153613,0.0247528,0.0722797,-1.9128,0.519863,-0.0769191,-0.0068983,0.0350109,-0.00636711,0.0339381,-0.0617723,0.416878,-0.00127078,-0.00428178,-5.09903,-1.1296,-5.11639,11.7138,-9.21762,-7.94462,0.233371,4.23529,0.361597,4.20596,-3.81993,-0.301312,3.03252,-0.0184712,0.132308,0.0205505,0.0521395,-1.91084,0.263668,-0.0336644,-0.00481942,0.601916,0.121853,0.726314,-1.17524,1.26366,1.07206,-0.000874625,0,0,0,0,0,0,0,-8.46264,-39.5369,-8.21135,36.4447,0.855709,6.66039,-0.0703886,
0.153613,0.0247528,0.0722797,-1.9128,0.519863,-0.0769191,-0.0068983,0.0284842,-0.00781301,0.0273891,-0.0467786,0.40508,-0.0114399,-0.00398307,-4.07923,-0.903683,-4.09311,9.37107,-7.3741,-6.3557,0.186697,4.23529,0.361597,4.20596,-3.81993,-0.301312,3.03252,-0.0184712,0.132308,0.0205505,0.0521395,-1.91084,0.263668,-0.0336644,-0.00481942,0.601916,0.121853,0.726314,-1.17524,1.26366,1.07206,-0.000874625,0,0,0,0,0,0,0,-8.46264,-39.5369,-8.21135,36.4447,0.855709,6.66039,-0.0703886,
0.153613,0.0247528,0.0722797,-1.9128,0.519863,-0.0769191,-0.0068983,0.0232628,-0.00896972,0.0221499,-0.0347836,0.395641,-0.0195752,-0.0037441,-3.26338,-0.722946,-3.27449,7.49686,-5.89928,-5.08456,0.149358,3.92908,-0.547072,3.86191,-4.42377,-0.580287,2.55151,-0.00858216,0.152513,0.027114,0.0703161,-1.93898,0.298258,-0.0100974,-0.00482229,0.572204,0.217518,0.36558,-0.494474,1.01651,0.0422864,0.00248435,-3.71408,11.958,-45.0917,85.096,-30.8942,-128.722,0.419872,-20.1027,-46.4519,-19.4864,38.7854,0.6488,0.679251,-0.0301054,
0.178192,0.0313629,0.095135,-1.94198,0.360239,0.0197195,-0.00594966,0.0190564,-0.00933345,0.0178632,-0.0254898,0.40603,-0.0385035,-0.0035241,-2.62895,-0.227333,-2.67919,5.80863,6.49337,-11.8302,0.137498,7.16263,0.269048,7.15125,0.649538,-0.979815,3.97639,-0.0220286,0.152513,0.027114,0.0703161,-1.93898,0.298258,-0.0100974,-0.00482229,0.572204,0.217518,0.36558,-0.494474,1.01651,0.0422864,0.00248435,0,0,0,0,0,0,0,-20.1027,-46.4519,-19.4864,38.7854,0.6488,0.679251,-0.0301054,
0.17821,0.031276,0.0951414,-1.94189,0.363811,0.0188104,-0.00597083,0.0157082,-0.00963938,0.0144504,-0.0180507,0.414124,-0.0535303,-0.00334859,-2.09263,-0.191206,-2.13297,4.64942,5.05822,-9.39177,0.109697,7.00526,0.245299,6.99021,0.678186,-1.00502,3.8699,-0.0220805,0.152513,0.027114,0.0703161,-1.93898,0.298258,-0.0100974,-0.00482229,0.572204,0.217518,0.36558,-0.494474,1.01651,0.0422864,0.00248435,0,0,0,0,0,0,0,-20.1027,-46.4519,-19.4864,38.7854,0.6488,0.679251,-0.0301054,
0.178229,0.0311885,0.0951484,-1.94179,0.367374,0.0179059,-0.00599202,0.013043,-0.009898,0.0117334,-0.0120962,0.42037,-0.0654356,-0.00320859,-1.66575,-0.161638,-1.69813,3.72156,3.9039,-7.44085,0.0874989,6.84695,0.221988,6.8283,0.707224,-1.02827,3.7703,-0.0221292,0.152513,0.027114,0.0703161,-1.93898,0.298258,-0.0100974,-0.00482229,0.572204,0.217518,0.36558,-0.494474,1.01651,0.0422864,0.00248435,0,0,0,0,0,0,0,-20.1027,-46.4519,-19.4864,38.7854,0.6488,0.679251,-0.0301054,
0.178249,0.0311005,0.0951557,-1.9417,0.370927,0.0170061,-0.00601322,0.0109215,-0.0101178,0.0095703,-0.00733002,0.425131,-0.0748434,-0.00309695,-1.32597,-0.1374,-1.35196,2.97887,2.97576,-5.87985,0.0697753,6.5584,-0.124888,6.47138,0.587547,-1.35182,3.58086,-0.0197824,0.166646,0.0370864,0.0835175,-1.94327,0.329044,-0.0151824,-0.00481763,0.203466,0.250939,0.4682,-0.0108266,1.03471,-0.00155493,-0.000168127,-46.0922,4.17767,12.8275,60.4559,2.27533,-5.48017,-0.331559,-22.5901,-55.7869,-21.835,38.1387,0.593868,1.53435,-0.0429228,
0.185395,0.0378591,0.1013,-1.94107,0.436119,0.00318594,-0.00602087,0.00928847,-0.0100575,0.00780103,-0.00348433,0.4291,-0.0839073,-0.00301671,-1.02063,0.0377406,-1.10579,2.40356,2.48051,-5.66496,0.0501507,5.74739,0.167511,5.74228,0.40549,-0.751585,3.46703,-0.0185103,0.166646,0.0370864,0.0835175,-1.94327,0.329044,-0.0151824,-0.00481763,0.203466,0.250939,0.4682,-0.0108266,1.03471,-0.00155493,-0.000168127,0,0,0,0,0,0,0,-22.5901,-55.7869,-21.835,38.1387,0.593868,1.53435,-0.0429228,
0.185417,0.0377802,0.101306,-1.94097,0.439669,0.00222992,-0.00604245,0.00798394,-0.0100182,0.00638731,-0.000407125,0.432021,-0.0910265,-0.00295272,-0.815333,0.024526,-0.883575,1.92325,1.82585,-4.44947,0.0399905,5.59784,0.140021,5.58598,0.440789,-0.809619,3.38991,-0.018576,0.166646,0.0370864,0.0835175,-1.94327,0.329044,-0.0151824,-0.00481763,0.203466,0.250939,0.4682,-0.0108266,1.03471,-0.00155493,-0.000168127,0,0,0,0,0,0,0,-22.5901,-55.7869,-21.835,38.1387,0.593868,1.53435,-0.0429228,
0.18544,0.037701,0.101312,-1.94088,0.443208,0.00127917,-0.00606403,0.00694177,-0.00999562,0.00525763,0.00205511,0.434105,-0.09659,-0.00290173,-0.651355,0.0141218,-0.706052,1.53889,1.3021,-3.47718,0.0318693,5.44844,0.111523,5.42989,0.476374,-0.862843,3.31767,-0.0186367,0.166646,0.0370864,0.0835175,-1.94327,0.329044,-0.0151824,-0.00481763,0.203466,0.250939,0.4682,-0.0108266,1.03471,-0.00155493,-0.000168127,0,0,0,0,0,0,0,-22.5901,-55.7869,-21.835,38.1387,0.593868,1.53435,-0.0429228,
0.185462,0.0376214,0.101318,-1.94078,0.446737,0.000333679,-0.00608562,0.00610916,-0.00998612,0.00435486,0.00402521,0.435518,-0.100909,-0.00286113,-0.520382,0.00594125,-0.564232,1.23131,0.883232,-2.69948,0.0253783,5.29895,0.0824386,5.2738,0.512215,-0.911234,3.24943,-0.0186878,0.166646,0.0370864,0.0835175,-1.94327,0.329044,-0.0151824,-0.00481763,0.203466,0.250939,0.4682,-0.0108266,1.03471,-0.00155493,-0.000168127,0,0,0,0,0,0,0,-22.5901,-55.7869,-21.835,38.1387,0.593868,1.53435,-0.0429228,
0.178017,0.0321727,0.0931386,-1.9348,0.686436,-0.0997845,-0.00721133,0.00545528,-0.0106507,0.00366754,0.0058194,0.424064,-0.0958447,-0.0028488,-0.408674,-0.415362,-0.429572,1.12137,-7.15872,3.1653,0.0077016,5.25981,-0.0884857,5.20128,0.367541,-1.04517,3.05021,-0.0165276,0.17636,0.0420165,0.0898266,-1.94183,0.351131,-0.00937605,-0.00481594,0.353346,0.0961204,0.0103539,0.0435508,0.381295,0.33828,-0.000409319,18.735,-19.3523,-57.2307,6.79718,-81.6773,42.4794,-0.030149,-16.4766,-45.1268,-15.8365,28.2245,-1.09803,0.705801,-0.0163725,
0.178017,0.0321727,0.0931386,-1.9348,0.686436,-0.0997845,-0.00721133,0.00493218,-0.0111824,0.00311769,0.00725476,0.414901,-0.0917931,-0.00283894,-0.32694,-0.332289,-0.343658,0.8971,-5.72697,2.53224,0.00616128,5.25981,-0.0884857,5.20128,0.367541,-1.04517,3.05021,-0.0165276,0.17636,0.0420165,0.0898266,-1.94183,0.351131,-0.00937605,-0.00481594,0.353346,0.0961204,0.0103539,0.0435508,0.381295,0.33828,-0.000409319,0,0,0,0,0,0,0,-16.4766,-45.1268,-15.8365,28.2245,-1.09803,0.705801,-0.0163725,
0.178017,0.0321727,0.0931386,-1.9348,0.686436,-0.0997845,-0.00721133,0.0045137,-0.0116077,0.00267781,0.00840305,0.40757,-0.0885518,-0.00283106,-0.261552,-0.265832,-0.274926,0.71768,-4.58158,2.02579,0.00492902,5.25981,-0.0884857,5.20128,0.367541,-1.04517,3.05021,-0.0165276,0.17636,0.0420165,0.0898266,-1.94183,0.351131,-0.00937605,-0.00481594,0.353346,0.0961204,0.0103539,0.0435508,0.381295,0.33828,-0.000409319,0,0,0,0,0,0,0,-16.4766,-45.1268,-15.8365,28.2245,-1.09803,0.705801,-0.0163725,
0.21406,0.037201,0.131737,-1.9435,0.279048,0.361454,-0.00562571,0.00259714,-0.00894932,0.000691812,0.0066833,0.433909,-0.133328,-0.00272107,-1.19785,1.66148,-1.24125,-1.07485,16.462,-27.9849,0.0687437,5.25981,-0.0884857,5.20128,0.367541,-1.04517,3.05021,-0.0165276,0.17636,0.0420165,0.0898266,-1.94183,0.351131,-0.00937605,-0.00481594,0.353346,0.0961204,0.0103539,0.0435508,0.381295,0.33828,-0.000409319,0,0,0,0,0,0,0,-16.4766,-45.1268,-15.8365,28.2245,-1.09803,0.705801,-0.0163725,
0.182738,0.0351244,0.0943374,-1.93179,0.704663,-0.0971306,-0.00706836,0.00268082,-0.00955706,0.000729762,0.00781258,0.425463,-0.124627,-0.00272417,0.0523011,-0.379837,0.0237185,0.705805,-5.279,5.4379,-0.00193914,5.38567,-0.0577974,5.319,0.197588,-1.08569,2.956,-0.0160571,0.180713,0.0424873,0.0903077,-1.94201,0.369946,-0.000143296,-0.00481033,0.0137733,-0.0267885,0.0438122,-0.000504533,0.562215,0.135427,0.000918603,-42.4466,-15.3636,4.18228,-5.50692,22.615,-25.3566,0.16599,-7.04236,-32.4989,-6.53716,27.677,1.43066,1.35583,-0.0767973,
0.182738,0.0351244,0.0943374,-1.93179,0.704663,-0.0971306,-0.00706836,0.00274777,-0.0100433,0.000760121,0.00871601,0.418706,-0.117667,-0.00272665,0.0418409,-0.30387,0.0189748,0.564644,-4.2232,4.35032,-0.00155131,5.38567,-0.0577974,5.319,0.197588,-1.08569,2.956,-0.0160571,0.180713,0.0424873,0.0903077,-1.94201,0.369946,-0.000143296,-0.00481033,0.0137733,-0.0267885,0.0438122,-0.000504533,0.562215,0.135427,0.000918603,0,0,0,0,0,0,0,-7.04236,-32.4989,-6.53716,27.677,1.43066,1.35583,-0.0767973,
0.182738,0.0351244,0.0943374,-1.93179,0.704663,-0.0971306,-0.00706836,0.00280133,-0.0104322,0.000784409,0.00943876,0.4133,-0.112098,-0.00272864,0.0334727,-0.243096,0.0151798,0.451715,-3.37856,3.48026,-0.00124105,5.38567,-0.0577974,5.319,0.197588,-1.08569,2.956,-0.0160571,0.180713,0.0424873,0.0903077,-1.94201,0.369946,-0.000143296,-0.00481033,0.0137733,-0.0267885,0.0438122,-0.000504533,0.562215,0.135427,0.000918603,0,0,0,0,0,0,0,-7.04236,-32.4989,-6.53716,27.677,1.43066,1.35583,-0.0767973,
0.183722,0.0339336,0.091668,-1.9318,0.730705,-0.0993808,-0.00692002,0.00287547,-0.0107138,0.000852142,0.00990187,0.410983,-0.10976,-0.00271893,0.0463397,-0.175986,0.0423334,0.289446,-1.44825,1.46124,0.00606803,5.38567,-0.0577974,5.319,0.197588,-1.08569,2.956,-0.0160571,0.180713,0.0424873,0.0903077,-1.94201,0.369946,-0.000143296,-0.00481033,0.0137733,-0.0267885,0.0438122,-0.000504533,0.562215,0.135427,0.000918603,0,0,0,0,0,0,0,-7.04236,-32.4989,-6.53716,27.677,1.43066,1.35583,-0.0767973,
0.183722,0.0339336,0.091668,-1.9318,0.730705,-0.0993808,-0.00692002,0.00293478,-0.010939,0.000906329,0.0102724,0.409129,-0.10789,-0.00271116,0.0370718,-0.140789,0.0338667,0.231557,-1.1586,1.16899,0.00485443,5.57929,0.164179,5.50924,-0.137764,-1.19657,2.89788,-0.0168914,0.179319,0.0408975,0.0922715,-1.94167,0.399567,8.63141e-05,-0.00480657,-0.0214537,-0.0198146,0.0177987,0.00480088,1.33029,-0.0233379,0.00202235,-4.40337,0.871737,-3.25168,0.663176,96.01,-19.8457,0.137968,1.83246,-30.5034,2.1631,25.134,4.7348,1.70739,-0.110672,
0.183722,0.0339336,0.091668,-1.9318,0.730705,-0.0993808,-0.00692002,0.00298224,-0.0111193,0.000949679,0.0105688,0.407646,-0.106393,-0.00270495,0.0296574,-0.112631,0.0270934,0.185245,-0.926882,0.935196,0.00388354,5.57929,0.164179,5.50924,-0.137764,-1.19657,2.89788,-0.0168914,0.179319,0.0408975,0.0922715,-1.94167,0.399567,8.63141e-05,-0.00480657,-0.0214537,-0.0198146,0.0177987,0.00480088,1.33029,-0.0233379,0.00202235,0,0,0,0,0,0,0,1.83246,-30.5034,2.1631,25.134,4.7348,1.70739,-0.110672,
0.183722,0.0339336,0.091668,-1.9318,0.730705,-0.0993808,-0.00692002,0.0030202,-0.0112634,0.000984358,0.0108059,0.40646,-0.105196,-0.00269998,0.0237259,-0.0901048,0.0216747,0.148196,-0.741505,0.748157,0.00310683,5.57929,0.164179,5.50924,-0.137764,-1.19657,2.89788,-0.0168914,0.179319,0.0408975,0.0922715,-1.94167,0.399567,8.63141e-05,-0.00480657,-0.0214537,-0.0198146,0.0177987,0.00480088,1.33029,-0.0233379,0.00202235,0,0,0,0,0,0,0,1.83246,-30.5034,2.1631,25.134,4.7348,1.70739,-0.110672,
0.182928,0.0315125,0.0943298,-1.93143,0.774969,-0.106928,-0.00685439,0.0030768,-0.0114894,0.00105825,0.010866,0.406242,-0.105381,-0.00268441,0.0353789,-0.141259,0.0461819,0.0375683,-0.136026,-0.115382,0.00972715,5.57929,0.164179,5.50924,-0.137764,-1.19657,2.89788,-0.0168914,0.179319,0.0408975,0.0922715,-1.94167,0.399567,8.63141e-05,-0.00480657,-0.0214537,-0.0198146,0.0177987,0.00480088,1.33029,-0.0233379,0.00202235,0,0,0,0,0,0,0,1.83246,-30.5034,2.1631,25.134,4.7348,1.70739,-0.110672,
0.182928,0.0315125,0.0943298,-1.93143,0.774969,-0.106928,-0.00685439,0.00312209,-0.0116702,0.00111736,0.0109141,0.406068,-0.105529,-0.00267196,0.0283031,-0.113007,0.0369455,0.0300546,-0.108821,-0.0923056,0.00778172,5.42655,-0.0111255,5.35607,0.0478144,-1.29842,2.97581,-0.0159662,0.179702,0.0406991,0.0925843,-1.9413,0.429316,-0.000851931,-0.00481694,0.0250866,0.0106894,0.0148398,0.0170162,0.82724,-0.0257322,-0.00165511,5.81754,3.813,-0.36987,1.52692,-62.8819,-0.299289,-0.459683,3.09803,-34.7722,3.13905,23.8129,3.53088,0.129019,-0.00996382,
0.182928,0.0315125,0.0943298,-1.93143,0.774969,-0.106928,-0.00685439,0.00315832,-0.0118149,0.00116465,0.0109525,0.405929,-0.105647,-0.002662,0.0226425,-0.0904056,0.0295564,0.0240437,-0.0870567,-0.0738445,0.00622537,5.42655,-0.0111255,5.35607,0.0478144,-1.29842,2.97581,-0.0159662,0.179702,0.0406991,0.0925843,-1.9413,0.429316,-0.000851931,-0.00481694,0.0250866,0.0106894,0.0148398,0.0170162,0.82724,-0.0257322,-0.00165511,0,0,0,0,0,0,0,3.09803,-34.7722,3.13905,23.8129,3.53088,0.129019,-0.00996382,
0.182928,0.0315125,0.0943298,-1.93143,0.774969,-0.106928,-0.00685439,0.0031873,-0.0119306,0.00120248,0.0109833,0.405817,-0.105741,-0.00265403,0.018114,-0.0723245,0.0236451,0.019235,-0.0696453,-0.0590756,0.0049803,5.42655,-0.0111255,5.35607,0.0478144,-1.29842,2.97581,-0.0159662,0.179702,0.0406991,0.0925843,-1.9413,0.429316,-0.000851931,-0.00481694,0.0250866,0.0106894,0.0148398,0.0170162,0.82724,-0.0257322,-0.00165511,0,0,0,0,0,0,0,3.09803,-34.7722,3.13905,23.8129,3.53088,0.129019,-0.00996382,
0.183163,0.0324647,0.0943979,-1.93201,0.802173,-0.112747,-0.00683697,0.00323797,-0.0119559,0.00124359,0.0109637,0.407375,-0.106739,-0.0026381,0.0316715,-0.0158116,0.0256897,-0.0122405,0.973615,-0.62335,0.00996081,5.42655,-0.0111255,5.35607,0.0478144,-1.29842,2.97581,-0.0159662,0.179702,0.0406991,0.0925843,-1.9413,0.429316,-0.000851931,-0.00481694,0.0250866,0.0106894,0.0148398,0.0170162,0.82724,-0.0257322,-0.00165511,0,0,0,0,0,0,0,3.09803,-34.7722,3.13905,23.8129,3.53088,0.129019,-0.00996382,
0.183163,0.0324647,0.0943979,-1.93201,0.802173,-0.112747,-0.00683697,0.00327851,-0.0119762,0.00127647,0.0109481,0.408621,-0.107537,-0.00262535,0.0253372,-0.0126493,0.0205517,-0.00979238,0.778892,-0.49868,0.00796865,5.42861,0.0164879,5.34889,0.0395886,-1.40129,3.02513,-0.0160837,0.180762,0.0413013,0.0933637,-1.94164,0.460822,-0.00192256,-0.00481865,0.0471144,-0.00320473,0.0499576,-0.0145784,0.843845,-0.0170082,-0.00110774,2.75347,-1.73677,4.38973,-3.94933,2.07564,1.09049,0.0684216,2.0586,-35.518,2.33766,26.7288,4.61853,-0.0302828,-0.0227812,
0.183163,0.0324647,0.0943979,-1.93201,0.802173,-0.112747,-0.00683697,0.00331095,-0.0119923,0.00130278,0.0109355,0.409618,-0.108175,-0.00261515,0.0202698,-0.0101194,0.0164414,-0.0078339,0.623113,-0.398944,0.00637492,5.42861,0.0164879,5.34889,0.0395886,-1.40129,3.02513,-0.0160837,0.180762,0.0413013,0.0933637,-1.94164,0.460822,-0.00192256,-0.00481865,0.0471144,-0.00320473,0.0499576,-0.0145784,0.843845,-0.0170082,-0.00110774,0,0,0,0,0,0,0,2.0586,-35.518,2.33766,26.7288,4.61853,-0.0302828,-0.0227812,
0.185087,0.0332311,0.0959499,-1.93279,0.837945,-0.11797,-0.00680961,0.00336221,-0.0119412,0.00133061,0.0108505,0.411553,-0.109297,-0.00259643,0.0320403,0.0319766,0.0173965,-0.0531689,1.20935,-0.701566,0.0116983,5.42861,0.0164879,5.34889,0.0395886,-1.40129,3.02513,-0.0160837,0.180762,0.0413013,0.0933637,-1.94164,0.460822,-0.00192256,-0.00481865,0.0471144,-0.00320473,0.0499576,-0.0145784,0.843845,-0.0170082,-0.00110774,0,0,0,0,0,0,0,2.0586,-35.518,2.33766,26.7288,4.61853,-0.0302828,-0.0227812,
0.185087,0.0332311,0.0959499,-1.93279,0.837945,-0.11797,-0.00680961,0.00340322,-0.0119003,0.00135288,0.0107824,0.413101,-0.110195,-0.00258146,0.0256322,0.0255813,0.0139172,-0.0425351,0.967479,-0.561253,0.0093586,5.42861,0.0164879,5.34889,0.0395886,-1.40129,3.02513,-0.0160837,0.180762,0.0413013,0.0933637,-1.94164,0.460822,-0.00192256,-0.00481865,0.0471144,-0.00320473,0.0499576,-0.0145784,0.843845,-0.0170082,-0.00110774,0,0,0,0,0,0,0,2.0586,-35.518,2.33766,26.7288,4.61853,-0.0302828,-0.0227812,
0.185087,0.0332311,0.0959499,-1.93279,0.837945,-0.11797,-0.00680961,0.00343603,-0.0118675,0.00137069,0.010728,0.414339,-0.110914,-0.00256948,0.0205058,0.0204651,0.0111338,-0.0340281,0.773983,-0.449002,0.00748688,5.44694,0.0447763,5.36038,-0.0049933,-1.50765,3.05978,-0.0161285,0.182249,0.0412638,0.094754,-1.94179,0.493441,-0.0026534,-0.00482059,0.058202,-0.00651285,0.0435635,0.00351681,0.904921,0.000118981,-0.00123231,1.38595,-0.413515,-0.799272,2.2619,7.63459,2.1409,-0.0155709,1.47541,-34.3715,1.81398,25.5347,4.2276,-0.666574,-0.0163725,
0.185087,0.0332311,0.0959499,-1.93279,0.837945,-0.11797,-0.00680961,0.00346228,-0.0118413,0.00138494,0.0106844,0.41533,-0.111489,-0.00255989,0.0164046,0.016372,0.008907,-0.0272225,0.619187,-0.359202,0.0059895,5.44694,0.0447763,5.36038,-0.0049933,-1.50765,3.05978,-0.0161285,0.182249,0.0412638,0.094754,-1.94179,0.493441,-0.0026534,-0.00482059,0.058202,-0.00651285,0.0435635,0.00351681,0.904921,0.000118981,-0.00123231,0,0,0,0,0,0,0,1.47541,-34.3715,1.81398,25.5347,4.2276,-0.666574,-0.0163725,
0.186747,0.0329915,0.0974886,-1.93303,0.874566,-0.121391,-0.00677047,0.00350675,-0.0117818,0.00141532,0.0105384,0.417095,-0.112621,-0.00254042,0.0277944,0.0372205,0.0189856,-0.0912584,1.10281,-0.707639,0.0121741,5.44694,0.0447763,5.36038,-0.0049933,-1.50765,3.05978,-0.0161285,0.182249,0.0412638,0.094754,-1.94179,0.493441,-0.0026534,-0.00482059,0.058202,-0.00651285,0.0435635,0.00351681,0.904921,0.000118981,-0.00123231,0,0,0,0,0,0,0,1.47541,-34.3715,1.81398,25.5347,4.2276,-0.666574,-0.0163725,
0.186747,0.0329915,0.0974886,-1.93303,0.874566,-0.121391,-0.00677047,0.00354233,-0.0117341,0.00143962,0.0104216,0.418506,-0.113527,-0.00252483,0.0222355,0.0297764,0.0151885,-0.0730067,0.882248,-0.566111,0.00973932,5.44694,0.0447763,5.36038,-0.0049933,-1.50765,3.05978,-0.0161285,0.182249,0.0412638,0.094754,-1.94179,0.493441,-0.0026534,-0.00482059,0.058202,-0.00651285,0.0435635,0.00351681,0.904921,0.000118981,-0.00123231,0,0,0,0,0,0,0,1.47541,-34.3715,1.81398,25.5347,4.2276,-0.666574,-0.0163725,
0.186747,0.0329915,0.0974886,-1.93303,0.874566,-0.121391,-0.00677047,0.00357079,-0.011696,0.00145906,0.0103281,0.419636,-0.114251,-0.00251237,0.0177884,0.0238211,0.0121508,-0.0584054,0.705799,-0.452889,0.00779145,5.49546,0.108084,5.40075,-0.0893589,-1.61913,3.08638,-0.0163698,0.18408,0.041298,0.0961942,-1.94157,0.528811,-0.00266724,-0.00481493,0.0639629,0.000258131,0.0449269,0.0013297,1.05078,0.00264046,0.00100199,0.72011,0.846373,0.170424,-0.273389,18.2323,0.315185,0.279287,0.717655,-35.0935,1.21095,24.5111,3.70208,-1.1042,-0.0630644,
0.186747,0.0329915,0.0974886,-1.93303,0.874566,-0.121391,-0.00677047,0.00359356,-0.0116655,0.00147462,0.0102534,0.420539,-0.114831,-0.00250239,0.0142307,0.0190569,0.00972063,-0.0467243,0.564639,-0.362311,0.00623316,5.49546,0.108084,5.40075,-0.0893589,-1.61913,3.08638,-0.0163698,0.18408,0.041298,0.0961942,-1.94157,0.528811,-0.00266724,-0.00481493,0.0639629,0.000258131,0.0449269,0.0013297,1.05078,0.00264046,0.00100199,0,0,0,0,0,0,0,0.717655,-35.0935,1.21095,24.5111,3.70208,-1.1042,-0.0630644,
0.188907,0.033258,0.0992111,-1.93314,0.913856,-0.123711,-0.00672148,0.00363217,-0.0115577,0.00149531,0.01007,0.422005,-0.115709,-0.00248282,0.024135,0.0673831,0.0129309,-0.114595,0.916029,-0.5491,0.0122332,5.49546,0.108084,5.40075,-0.0893589,-1.61913,3.08638,-0.0163698,0.18408,0.041298,0.0961942,-1.94157,0.528811,-0.00266724,-0.00481493,0.0639629,0.000258131,0.0449269,0.0013297,1.05078,0.00264046,0.00100199,0,0,0,0,0,0,0,0.717655,-35.0935,1.21095,24.5111,3.70208,-1.1042,-0.0630644,
0.188907,0.033258,0.0992111,-1.93314,0.913856,-0.123711,-0.00672148,0.00366307,-0.0114715,0.00151186,0.00992333,0.423177,-0.116412,-0.00246716,0.019308,0.0539065,0.0103447,-0.0916763,0.732823,-0.43928,0.00978659,5.49546,0.108084,5.40075,-0.0893589,-1.61913,3.08638,-0.0163698,0.18408,0.041298,0.0961942,-1.94157,0.528811,-0.00266724,-0.00481493,0.0639629,0.000258131,0.0449269,0.0013297,1.05078,0.00264046,0.00100199,0,0,0,0,0,0,0,0.717655,-35.0935,1.21095,24.5111,3.70208,-1.1042,-0.0630644,
0.188907,0.033258,0.0992111,-1.93314,0.913856,-0.123711,-0.00672148,0.00368778,-0.0114024,0.0015251,0.00980599,0.424115,-0.116975,-0.00245463,0.0154464,0.0431252,0.00827576,-0.073341,0.586259,-0.351424,0.00782927,5.53476,0.159638,5.43107,-0.16826,-1.73235,3.11638,-0.0164239,0.185899,0.0413985,0.0981295,-1.94163,0.565193,-0.0030314,-0.00481763,0.0291955,0.00244046,0.0756568,-0.00548639,1.14631,-0.0299065,-0.000130775,-4.34593,0.272791,3.84125,-0.852011,11.9413,-4.06837,-0.141596,0.765262,-35.518,1.01259,25.7092,3.23791,-0.355295,-0.0429228,
0.188907,0.033258,0.0992111,-1.93314,0.913856,-0.123711,-0.00672148,0.00370755,-0.0113472,0.00153569,0.00971211,0.424866,-0.117424,-0.00244461,0.0123571,0.0345001,0.00662061,-0.0586728,0.469007,-0.281139,0.00626342,5.53476,0.159638,5.43107,-0.16826,-1.73235,3.11638,-0.0164239,0.185899,0.0413985,0.0981295,-1.94163,0.565193,-0.0030314,-0.00481763,0.0291955,0.00244046,0.0756568,-0.00548639,1.14631,-0.0299065,-0.000130775,0,0,0,0,0,0,0,0.765262,-35.518,1.01259,25.7092,3.23791,-0.355295,-0.0429228,
0.187952,0.0410359,0.100461,-1.94039,0.559514,0.0109474,-0.00476967,0.0210599,-0.0124218,0.0213177,0.0197613,0.204508,0.0640119,-0.00179327,10.8452,-0.671591,12.3637,6.28075,-137.724,113.398,0.407092,-2.50771,1.18528,-1.90704,3.54936,-15.0297,12.1642,0.00136225,0.185899,0.0413985,0.0981295,-1.94163,0.565193,-0.0030314,-0.00481763,0.0291955,0.00244046,0.0756568,-0.00548639,1.14631,-0.0299065,-0.000130775,0,0,0,0,0,0,0,0.765262,-35.518,1.01259,25.7092,3.23791,-0.355295,-0.0429228,
0.188652,0.0409362,0.101237,-1.93992,0.55208,0.0182483,-0.00476368,0.0343525,-0.01243,0.0364357,0.027641,-0.0222399,0.233731,-0.00128493,8.30787,-0.00514087,9.44878,4.92478,-141.717,106.075,0.317709,-1.04534,2.30426,-0.342171,3.80244,-15.0297,12.1642,-0.00251387,0.185899,0.0413985,0.0981295,-1.94163,0.565193,-0.0030314,-0.00481763,0.0291955,0.00244046,0.0756568,-0.00548639,1.14631,-0.0299065,-0.000130775,0,0,0,0,0,0,0,0.765262,-35.518,1.01259,25.7092,3.23791,-0.355295,-0.0429228,
0.189318,0.0408817,0.101975,-1.93947,0.543274,0.0262224,-0.00475634,0.0441194,-0.0113059,0.0476117,0.0333118,-0.237946,0.386338,-0.000844504,6.1043,0.702553,6.98497,3.54425,-134.816,95.3796,0.275268,0.350114,2.884,1.1128,3.91016,-15.1439,12.2265,-3.06805e-05,0.187931,0.0412762,0.100311,-1.94156,0.603,-0.00494505,-0.00481536,0.0760653,0.000922717,0.063285,0.0023972,1.14688,-0.0668684,0.000340508,5.85873,-0.189718,-1.54647,0.985448,0.0717765,-4.62025,0.0589104,-0.349545,-33.8954,-0.137926,25.257,2.49908,-0.0165499,-0.0630644,
0.190562,0.040931,0.10287,-1.94025,0.597289,0.00878955,-0.00466304,0.0581272,-0.0130538,0.0600421,0.0380279,-0.326273,0.466851,0.000504588,8.75493,-1.09241,7.76899,2.94761,-55.2045,50.3201,0.843182,-0.219651,3.56102,-1.10872,3.30743,-15.1439,12.2265,0.0367052,0.187931,0.0412762,0.100311,-1.94156,0.603,-0.00494505,-0.00481536,0.0760653,0.000922717,0.063285,0.0023972,1.14688,-0.0668684,0.000340508,0,0,0,0,0,0,0,-0.349545,-33.8954,-0.137926,25.257,2.49908,-0.0165499,-0.0630644,
0.19145,0.0407609,0.103715,-1.93984,0.589816,0.0161131,-0.00461445,0.0687009,-0.0146954,0.0691772,0.0406618,-0.447846,0.55657,0.00161846,6.60855,-1.02598,5.7095,1.64618,-75.9828,56.0745,0.696169,1.3385,3.11271,0.600206,3.30202,-15.1439,12.2265,0.045187,0.187931,0.0412762,0.100311,-1.94156,0.603,-0.00494505,-0.00481536,0.0760653,0.000922717,0.063285,0.0023972,1.14688,-0.0668684,0.000340508,0,0,0,0,0,0,0,-0.349545,-33.8954,-0.137926,25.257,2.49908,-0.0165499,-0.0630644,
0.192301,0.0405948,0.10452,-1.93949,0.580953,0.0241204,-0.00456394,0.0762334,-0.0159097,0.0754439,0.0414258,-0.579845,0.645439,0.00255755,4.70783,-0.758983,3.91666,0.477498,-82.4994,55.5431,0.586931,2.71651,2.42831,2.04089,3.1983,-15.1439,12.2265,0.0521365,0.187931,0.0412762,0.100311,-1.94156,0.603,-0.00494505,-0.00481536,0.0760653,0.000922717,0.063285,0.0023972,1.14688,-0.0668684,0.000340508,0,0,0,0,0,0,0,-0.349545,-33.8954,-0.137926,25.257,2.49908,-0.0165499,-0.0630644,
0.193114,0.0404389,0.105283,-1.93918,0.571133,0.0325888,-0.00451156,0.0813202,-0.0166239,0.0794509,0.0407328,-0.709374,0.72806,0.00335561,3.17925,-0.446359,2.50436,-0.433125,-80.9557,51.638,0.498792,3.90204,1.68794,3.24624,3.03161,-15.1439,12.2265,0.0574042,0.19012,0.0415267,0.102992,-1.94044,0.63024,-0.00479645,-0.00481052,0.101647,0.00307482,0.0842439,0.0662674,0.269164,0.236533,0.000948572,3.19775,0.269012,2.61986,7.98377,-109.715,37.9251,0.076008,-3.72174,-33.9232,-3.46251,26.0822,-0.200809,3.74261,-0.0630644,
0.193369,0.0409056,0.106343,-1.93931,0.606253,0.0210178,-0.00439918,0.0845035,-0.0172018,0.0835665,0.0371232,-0.788515,0.781594,0.00541785,1.98955,-0.361164,2.57225,-2.25603,-49.463,33.4587,1.2889,0.217844,3.84684,0.168881,1.06311,-15.2307,12.2784,0.112027,0.19012,0.0415267,0.102992,-1.94044,0.63024,-0.00479645,-0.00481052,0.101647,0.00307482,0.0842439,0.0662674,0.269164,0.236533,0.000948572,0,0,0,0,0,0,0,-3.72174,-33.9232,-3.46251,26.0822,-0.200809,3.74261,-0.0630644,
0.194109,0.040771,0.107105,-1.93918,0.596442,0.0294743,-0.00428715,0.0861043,-0.0171252,0.085902,0.0327424,-0.876094,0.836689,0.00713513,1.00048,0.0478555,1.45969,-2.73799,-54.7369,34.4347,1.0733,1.65701,3.06032,1.72734,0.866378,-15.2307,12.2784,0.122309,0.19012,0.0415267,0.102992,-1.94044,0.63024,-0.00479645,-0.00481052,0.101647,0.00307482,0.0842439,0.0662674,0.269164,0.236533,0.000948572,0,0,0,0,0,0,0,-3.72174,-33.9232,-3.46251,26.0822,-0.200809,3.74261,-0.0630644,
0.194815,0.0406593,0.107832,-1.93912,0.585957,0.0382583,-0.00417428,0.0865288,-0.0164919,0.0869047,0.0279251,-0.962989,0.888951,0.00852976,0.265317,0.395841,0.6267,-3.01078,-54.3092,32.6635,0.871644,2.8357,2.31543,2.98686,0.63235,-15.2307,12.2784,0.130739,0.19012,0.0415267,0.102992,-1.94044,0.63024,-0.00479645,-0.00481052,0.101647,0.00307482,0.0842439,0.0662674,0.269164,0.236533,0.000948572,0,0,0,0,0,0,0,-3.72174,-33.9232,-3.46251,26.0822,-0.200809,3.74261,-0.0630644,
0.195492,0.0405693,0.10853,-1.93909,0.575004,0.0472582,-0.00406188,0.0861609,-0.0154435,0.0869816,0.0229462,-1.04423,0.936158,0.00963383,-0.229941,0.655229,0.0480643,-3.11182,-50.7731,29.5046,0.690042,3.79105,1.66007,3.99499,0.405704,-15.2307,12.2784,0.13575,0.19012,0.0415267,0.102992,-1.94044,0.63024,-0.00479645,-0.00481052,0.101647,0.00307482,0.0842439,0.0662674,0.269164,0.236533,0.000948572,0,0,0,0,0,0,0,-3.72174,-33.9232,-3.46251,26.0822,-0.200809,3.74261,-0.0630644,
0.200248,0.0402717,0.113144,-1.93797,0.536314,0.0922283,-0.00414786,0.086069,-0.0145355,0.0869429,0.0171824,-1.12782,0.986534,0.0103464,-0.0574463,0.567509,-0.0241956,-3.60241,-52.2473,31.4849,0.445341,5.36437,1.88261,5.59727,-1.29434,-15.4549,11.8367,0.14655,0.19514,0.0411631,0.107999,-1.93861,0.604816,0.032237,-0.00475967,0.197208,-0.021787,0.151742,0.0810677,-1.39375,1.44575,0.00174198,11.945,-3.10772,8.43722,1.85004,-207.864,151.152,0.0991766,-3.0354,-30.5788,-3.31175,24.3127,-3.03437,3.98156,-0.0905302,
0.200913,0.0402007,0.113817,-1.93805,0.524547,0.101654,-0.0040441,0.0854915,-0.0134037,0.0863833,0.0117344,-1.19643,1.02488,0.0108711,-0.360948,0.707389,-0.349755,-3.40501,-42.8808,23.9673,0.327954,5.87879,1.53045,6.11291,-1.47114,-15.4549,11.8367,0.145138,0.19514,0.0411631,0.107999,-1.93861,0.604816,0.032237,-0.00475967,0.197208,-0.021787,0.151742,0.0810677,-1.39375,1.44575,0.00174198,0,0,0,0,0,0,0,-3.0354,-30.5788,-3.31175,24.3127,-3.03437,3.98156,-0.0905302,
0.201567,0.0401426,0.114477,-1.93816,0.512731,0.111016,-0.00394276,0.0847266,-0.0121755,0.0856016,0.00668827,-1.25256,1.05396,0.0112303,-0.478047,0.767606,-0.488532,-3.15381,-35.0783,18.1718,0.224511,6.33202,1.25238,6.54339,-1.61991,-15.4549,11.8367,0.143593,0.19514,0.0411631,0.107999,-1.93861,0.604816,0.032237,-0.00475967,0.197208,-0.021787,0.151742,0.0810677,-1.39375,1.44575,0.00174198,0,0,0,0,0,0,0,-3.0354,-30.5788,-3.31175,24.3127,-3.03437,3.98156,-0.0905302,
0.202213,0.0400944,0.115129,-1.93829,0.500882,0.120322,-0.00384469,0.0839514,-0.0109462,0.0847783,0.00207926,-1.29827,1.07581,0.011436,-0.484471,0.768292,-0.514556,-2.88063,-28.5729,13.6571,0.128531,6.72466,1.01677,6.89376,-1.76024,-15.4549,11.8367,0.142034,0.19514,0.0411631,0.107999,-1.93861,0.604816,0.032237,-0.00475967,0.197208,-0.021787,0.151742,0.0810677,-1.39375,1.44575,0.00174198,0,0,0,0,0,0,0,-3.0354,-30.5788,-3.31175,24.3127,-3.03437,3.98156,-0.0905302,
0.206956,0.0404547,0.120531,-1.93788,0.463302,0.156977,-0.00403398,0.0853264,-0.00997095,0.085999,-0.00270603,-1.33305,1.09115,0.0111686,0.859368,0.609543,0.762934,-2.99081,-21.736,9.58734,-0.167083,7.4198,0.921736,7.51423,-2.5956,-15.3082,11.4865,0.135968,0.200708,0.0405211,0.11433,-1.93722,0.546037,0.0865145,-0.00463332,0.192254,0.011925,0.182376,-0.00299629,-1.54064,1.66335,0.00573682,-0.619202,4.214,3.82935,-10.508,-18.3614,27.1998,0.499354,-5.06665,-31.2532,-4.81139,26.4313,1.19812,3.27202,0.0239107,
0.207672,0.040399,0.12125,-1.93807,0.451519,0.166107,-0.0039548,0.0861652,-0.00936839,0.0867595,-0.00699396,-1.36103,1.10117,0.0109142,0.524246,0.376598,0.475285,-2.67996,-17.4864,6.263,-0.159019,7.62342,0.786285,7.69474,-2.69643,-15.3082,11.4865,0.131937,0.200708,0.0405211,0.11433,-1.93722,0.546037,0.0865145,-0.00463332,0.192254,0.011925,0.182376,-0.00299629,-1.54064,1.66335,0.00573682,0,0,0,0,0,0,0,-5.06665,-31.2532,-4.81139,26.4313,1.19812,3.27202,0.0239107,
0.208385,0.0403348,0.121965,-1.93828,0.439735,0.175167,-0.00387764,0.0867532,-0.00909879,0.0872805,-0.0108683,-1.38343,1.10741,0.0106604,0.367517,0.168499,0.325629,-2.42144,-14.001,3.90337,-0.158602,7.8072,0.658327,7.85584,-2.78416,-15.3082,11.4865,0.127083,0.200708,0.0405211,0.11433,-1.93722,0.546037,0.0865145,-0.00463332,0.192254,0.011925,0.182376,-0.00299629,-1.54064,1.66335,0.00573682,0,0,0,0,0,0,0,-5.06665,-31.2532,-4.81139,26.4313,1.19812,3.27202,0.0239107,
0.209099,0.0402632,0.12268,-1.93851,0.427956,0.184165,-0.00380265,0.0872406,-0.00907119,0.0877146,-0.0143507,-1.40122,1.1109,0.0104032,0.304626,0.0172477,0.271308,-2.17651,-11.119,2.17671,-0.160783,7.98204,0.527907,8.00828,-2.85982,-15.3082,11.4865,0.121379,0.200708,0.0405211,0.11433,-1.93722,0.546037,0.0865145,-0.00463332,0.192254,0.011925,0.182376,-0.00299629,-1.54064,1.66335,0.00573682,0,0,0,0,0,0,0,-5.06665,-31.2532,-4.81139,26.4313,1.19812,3.27202,0.0239107,
0.201931,0.0405869,0.115533,-1.93721,0.534012,0.0982273,-0.00454862,0.100375,-0.00561188,0.100252,-0.011307,-1.42161,1.18154,0.0104402,8.20902,2.16207,7.83614,1.90227,-12.745,44.1498,0.0231248,7.30257,1.77163,7.38951,-3.48459,-15.2586,10.972,0.139626,0.206941,0.0405705,0.120644,-1.93747,0.486582,0.147833,-0.00439371,0.182146,-0.0144675,0.187206,-0.0110059,-2.01023,1.83396,0.0117524,-1.26347,-3.29906,0.603749,-1.00121,-58.6984,21.3258,0.751947,-1.76983,-33.3995,-2.06206,23.2892,-2.09961,3.05321,0.017502,
0.202964,0.0406111,0.116555,-1.93724,0.522152,0.108981,-0.0044599,0.106128,-0.0038859,0.105756,-0.00977234,-1.43379,1.21407,0.0105701,3.59553,1.07874,3.43944,0.959185,-7.61026,20.3355,0.0811713,7.50619,1.63618,7.57001,-3.58542,-15.2586,10.972,0.135595,0.206941,0.0405705,0.120644,-1.93747,0.486582,0.147833,-0.00439371,0.182146,-0.0144675,0.187206,-0.0110059,-2.01023,1.83396,0.0117524,0,0,0,0,0,0,0,-1.76983,-33.3995,-2.06206,23.2892,-2.09961,3.05321,0.017502,
0.203874,0.0406053,0.117459,-1.93731,0.510367,0.119135,-0.00437033,0.10765,-0.00325439,0.107196,-0.00956023,-1.44166,1.22509,0.0106953,0.951502,0.394692,0.900428,0.132571,-4.91937,6.88861,0.0782644,7.68997,1.50822,7.73111,-3.67316,-15.2586,10.972,0.13074,0.206941,0.0405705,0.120644,-1.93747,0.486582,0.147833,-0.00439371,0.182146,-0.0144675,0.187206,-0.0110059,-2.01023,1.83396,0.0117524,0,0,0,0,0,0,0,-1.76983,-33.3995,-2.06206,23.2892,-2.09961,3.05321,0.017502,
0.206229,0.0405032,0.119804,-1.9377,0.47508,0.147757,-0.00411477,0.104794,-0.0036634,0.104351,-0.0115221,-1.44752,1.21361,0.010619,-1.78537,-0.255631,-1.77849,-1.22616,-3.66075,-7.17672,-0.0476676,8.27008,1.06936,8.24151,-3.8702,-15.2586,10.972,0.112963,0.206941,0.0405705,0.120644,-1.93747,0.486582,0.147833,-0.00439371,0.182146,-0.0144675,0.187206,-0.0110059,-2.01023,1.83396,0.0117524,0,0,0,0,0,0,0,-1.76983,-33.3995,-2.06206,23.2892,-2.09961,3.05321,0.017502,
0.2128,0.0400683,0.126432,-1.93844,0.397853,0.219722,-0.00393022,0.101598,-0.00515709,0.101327,-0.0147691,-1.45426,1.19844,0.0102336,-1.99761,-0.933557,-1.88948,-2.02938,-4.21343,-9.48142,-0.240911,8.1366,1.28662,8.14072,-4.30272,-15.0694,10.5381,0.111875,0.213281,0.0406372,0.12713,-1.93957,0.416262,0.211681,-0.00428251,0.190998,0.0183933,0.234937,-0.0898668,-2.14096,1.87909,-0.00252006,1.10652,4.1076,5.96629,-9.85761,-16.3422,5.64212,-1.78406,-0.198788,-35.0221,-0.110155,27.3517,1.76025,2.12487,0.151169,
0.213512,0.0399847,0.127148,-1.93867,0.386075,0.228691,-0.00386251,0.0990761,-0.00621515,0.0989604,-0.0176665,-1.45785,1.18298,0.00987969,-1.5759,-0.661286,-1.47942,-1.81091,-2.24392,-9.66517,-0.221175,8.34489,1.05953,8.36081,-4.38116,-15.0694,10.5381,0.108869,0.213281,0.0406372,0.12713,-1.93957,0.416262,0.211681,-0.00428251,0.190998,0.0183933,0.234937,-0.0898668,-2.14096,1.87909,-0.00252006,0,0,0,0,0,0,0,-0.198788,-35.0221,-0.110155,27.3517,1.76025,2.12487,0.151169,
0.214228,0.0399114,0.127868,-1.93892,0.374354,0.237554,-0.00379788,0.0971659,-0.00680409,0.0971709,-0.0201763,-1.45929,1.16797,0.00951938,-1.19393,-0.368088,-1.11845,-1.56857,-0.90352,-9.37894,-0.225189,8.55633,0.827699,8.56238,-4.48469,-15.0694,10.5381,0.105638,0.213281,0.0406372,0.12713,-1.93957,0.416262,0.211681,-0.00428251,0.190998,0.0183933,0.234937,-0.0898668,-2.14096,1.87909,-0.00252006,0,0,0,0,0,0,0,-0.198788,-35.0221,-0.110155,27.3517,1.76025,2.12487,0.151169,
0.219591,0.0413092,0.133326,-1.94144,0.330786,0.278083,-0.00398579,0.0942696,-0.00443614,0.0940694,-0.0210784,-1.41204,1.11487,0.00869214,-1.81014,1.47997,-1.93844,-0.563854,29.5332,-33.1913,-0.517024,9.03572,0.61772,9.0599,-4.78837,-15.0694,10.5381,0.0964895,0.213281,0.0406372,0.12713,-1.93957,0.416262,0.211681,-0.00428251,0.190998,0.0183933,0.234937,-0.0898668,-2.14096,1.87909,-0.00252006,0,0,0,0,0,0,0,-0.198788,-35.0221,-0.110155,27.3517,1.76025,2.12487,0.151169,
0.220218,0.0413444,0.133946,-1.94162,0.321774,0.28462,-0.00394313,0.0911105,-0.00266756,0.0907572,-0.0213603,-1.35492,1.05532,0.0080202,-1.97445,1.10536,-2.07008,-0.176197,35.6993,-37.2171,-0.419966,8.86088,0.938323,8.87556,-4.98093,-14.8219,10.1898,0.0940177,0.220172,0.0423291,0.134155,-1.94268,0.351698,0.272891,-0.00420509,0.20543,0.0658843,0.184844,-0.091431,-2.19966,1.81468,0.00468626,1.80393,5.93636,-6.26156,-0.195526,-7.33748,-8.05157,0.900789,-0.829586,-38.8902,-0.661608,28.6966,2.48077,3.01293,0.050461,
0.220821,0.0413753,0.134541,-1.94178,0.313501,0.290513,-0.00390162,0.0879586,-0.00136281,0.0874924,-0.0212586,-1.29076,0.991563,0.00745392,-1.96997,0.81547,-2.04054,0.0635687,40.103,-39.8467,-0.353923,8.93434,1.11919,8.9424,-5.00325,-14.8219,10.1898,0.0894894,0.220172,0.0423291,0.134155,-1.94268,0.351698,0.272891,-0.00420509,0.20543,0.0658843,0.184844,-0.091431,-2.19966,1.81468,0.00468626,0,0,0,0,0,0,0,-0.829586,-38.8902,-0.661608,28.6966,2.48077,3.01293,0.050461,
0.221405,0.0414022,0.135119,-1.94194,0.305927,0.295802,-0.00386147,0.0849749,-0.000417531,0.0844267,-0.0209421,-1.22197,0.925484,0.00696701,-1.86478,0.590797,-1.91604,0.197829,42.9927,-41.2991,-0.304323,8.98819,1.32198,8.98649,-5.00793,-14.2966,9.94135,0.0848878,0.220172,0.0423291,0.134155,-1.94268,0.351698,0.272891,-0.00420509,0.20543,0.0658843,0.184844,-0.091431,-2.19966,1.81468,0.00468626,0,0,0,0,0,0,0,-0.829586,-38.8902,-0.661608,28.6966,2.48077,3.01293,0.050461,
0.224755,0.0439306,0.138575,-1.94415,0.290646,0.31838,-0.00407552,0.0819695,0.00252438,0.0812571,-0.0211117,-1.15738,0.864478,0.00643385,-1.8784,1.8387,-1.98097,-0.10603,40.3701,-38.1293,-0.33322,9.05603,1.72085,9.02778,-4.9691,-12.0508,7.78465,0.0793837,0.220172,0.0423291,0.134155,-1.94268,0.351698,0.272891,-0.00420509,0.20543,0.0658843,0.184844,-0.091431,-2.19966,1.81468,0.00468626,0,0,0,0,0,0,0,-0.829586,-38.8902,-0.661608,28.6966,2.48077,3.01293,0.050461,
0.225297,0.0440176,0.139108,-1.94432,0.284183,0.322718,-0.00404142,0.0791308,0.00419595,0.0783256,-0.0210232,-1.08749,0.800036,0.0059996,-1.77415,1.04473,-1.83219,0.0553637,43.6807,-40.2759,-0.271408,8.73797,1.95182,8.69341,-4.89257,-10.7866,6.61312,0.0792729,0.226016,0.0437877,0.140648,-1.94636,0.274404,0.337581,-0.00418228,0.108808,0.0523903,0.192545,-0.113229,-2.05391,1.85842,0.0017239,-12.0777,-1.68675,0.9626,-2.7247,18.219,5.46781,-0.370295,1.78089,-38.2158,2.28609,28.5974,6.31591,0.679251,-0.00996382,
0.22583,0.0440849,0.139632,-1.94448,0.278359,0.326517,-0.00400865,0.076612,0.00503982,0.0757558,-0.0208075,-1.01558,0.735007,0.00561889,-1.57424,0.527424,-1.60616,0.134813,44.9396,-40.6431,-0.237945,8.66999,2.08943,8.61396,-4.85314,-9.91802,5.80186,0.0780615,0.226016,0.0437877,0.140648,-1.94636,0.274404,0.337581,-0.00418228,0.108808,0.0523903,0.192545,-0.113229,-2.05391,1.85842,0.0017239,0,0,0,0,0,0,0,1.78089,-38.2158,2.28609,28.5974,6.31591,0.679251,-0.00996382,
0.230129,0.04508,0.144572,-1.94716,0.225921,0.374417,-0.00418175,0.0711917,0.0041476,0.0703717,-0.0197191,-0.862788,0.614276,0.00485338,-3.38772,-0.55764,-3.36506,0.680206,95.498,-75.4568,-0.478443,7.39194,2.42071,7.30253,-4.56197,-5.47491,2.06231,0.0564983,0.226016,0.0437877,0.140648,-1.94636,0.274404,0.337581,-0.00418228,0.108808,0.0523903,0.192545,-0.113229,-2.05391,1.85842,0.0017239,0,0,0,0,0,0,0,1.78089,-38.2158,2.28609,28.5974,6.31591,0.679251,-0.00996382,
0.230534,0.0450856,0.144973,-1.94729,0.224127,0.375292,-0.00416842,0.0671018,0.0034575,0.0663056,-0.0190528,-0.735093,0.513304,0.00421593,-2.55618,-0.431314,-2.54133,0.416482,79.8093,-63.1074,-0.398404,7.16979,2.41723,7.07902,-4.51847,-5.04115,1.74473,0.0531329,0.226016,0.0437877,0.140648,-1.94636,0.274404,0.337581,-0.00418228,0.108808,0.0523903,0.192545,-0.113229,-2.05391,1.85842,0.0017239,0,0,0,0,0,0,0,1.78089,-38.2158,2.28609,28.5974,6.31591,0.679251,-0.00996382,
0.230947,0.0450932,0.14538,-1.94743,0.222521,0.376026,-0.00415607,0.0640003,0.00295557,0.0632172,-0.0186808,-0.628228,0.428984,0.0036814,-1.93843,-0.313704,-1.93024,0.232504,66.7904,-52.7004,-0.334084,7.39475,1.50457,7.31143,-3.57157,-4.05165,1.42962,0.0445724,0.230561,0.0457477,0.144069,-1.949,0.214358,0.390671,-0.00418906,0.039383,0.044221,0.169068,-0.0470749,-1.40825,1.20235,-0.000332788,-8.67815,-1.02116,-2.93464,8.26922,80.7072,-82.0095,-0.257086,5.15308,-36.9939,5.58687,25.1102,4.53888,0.586783,0.0376436,
0.231364,0.0451033,0.14579,-1.94757,0.221079,0.376644,-0.00414469,0.0616203,0.00261652,0.0608418,-0.0185068,-0.538635,0.35865,0.00322976,-1.48748,-0.211903,-1.48464,0.10871,55.9958,-43.9589,-0.282276,7.17636,1.49246,7.09222,-3.52683,-3.69641,1.18901,0.0415108,0.230561,0.0457477,0.144069,-1.949,0.214358,0.390671,-0.00418906,0.039383,0.044221,0.169068,-0.0470749,-1.40825,1.20235,-0.000332788,0,0,0,0,0,0,0,5.15308,-36.9939,5.58687,25.1102,4.53888,0.586783,0.0376436,
0.235105,0.0466433,0.148388,-1.95005,0.189973,0.412213,-0.00431483,0.0548972,0.00333033,0.0540379,-0.0173215,-0.438987,0.291633,0.00261261,-4.20196,0.446131,-4.25244,0.740798,62.2798,-41.8852,-0.385717,4.43091,1.35276,4.34026,-2.82337,-1.19651,-0.0155489,0.015799,0.230561,0.0457477,0.144069,-1.949,0.214358,0.390671,-0.00418906,0.039383,0.044221,0.169068,-0.0470749,-1.40825,1.20235,-0.000332788,0,0,0,0,0,0,0,5.15308,-36.9939,5.58687,25.1102,4.53888,0.586783,0.0376436,
0.235321,0.0466952,0.148595,-1.95015,0.189681,0.412394,-0.00431434,0.0493392,0.00396375,0.0484037,-0.0163206,-0.358503,0.237817,0.00210237,-3.47379,0.395888,-3.52135,0.62557,50.3026,-33.6349,-0.318897,4.27616,1.35526,4.18501,-2.77724,-1.13995,-0.0200577,0.0150533,0.230561,0.0457477,0.144069,-1.949,0.214358,0.390671,-0.00418906,0.039383,0.044221,0.169068,-0.0470749,-1.40825,1.20235,-0.000332788,0,0,0,0,0,0,0,5.15308,-36.9939,5.58687,25.1102,4.53888,0.586783,0.0376436,
0.235531,0.0467493,0.148794,-1.95024,0.189429,0.412562,-0.00431463,0.0447028,0.00452367,0.0436932,-0.0154542,-0.293089,0.194471,0.0016747,-2.89774,0.349946,-2.94408,0.541503,40.8836,-27.0915,-0.267296,4.12359,1.35912,4.03189,-2.73155,-1.09088,-0.0212129,0.0143625,0.230561,0.0457477,0.144069,-1.949,0.214358,0.390671,-0.00418906,0.039383,0.044221,0.169068,-0.0470749,-1.40825,1.20235,-0.000332788,0,0,0,0,0,0,0,5.15308,-36.9939,5.58687,25.1102,4.53888,0.586783,0.0376436,
0.235732,0.0468052,0.148984,-1.95034,0.189232,0.412714,-0.00431581,0.0407962,0.00501567,0.0397116,-0.014682,-0.239391,0.159357,0.00131034,-2.4416,0.307499,-2.48852,0.482656,33.5614,-21.9462,-0.227727,4.41315,0.750748,4.32772,-2.08164,-0.663567,0.0215344,0.0105118,0.233601,0.0467565,0.146475,-1.95008,0.179107,0.418793,-0.00420159,0.0346655,0.00534022,0.0730619,-0.0185735,-0.554513,0.518222,-7.17359e-05,-0.589691,-4.8601,-12.0008,3.56267,106.718,-85.5157,0.0326315,6.26789,-35.3951,6.81276,24.2374,4.52057,0.20867,0.0641939,
0.235744,0.0471883,0.148361,-1.95015,0.206899,0.411651,-0.00440096,0.0324717,0.00479835,0.031276,-0.0118237,-0.0495668,0.0555287,0.00102797,-5.2028,-0.135822,-5.2722,1.78642,118.64,-64.8927,-0.176481,2.34566,0.91035,2.23279,-1.39336,-0.38582,0.148529,0.00286649,0.233601,0.0467565,0.146475,-1.95008,0.179107,0.418793,-0.00420159,0.0346655,0.00534022,0.0730619,-0.0185735,-0.554513,0.518222,-7.17359e-05,0,0,0,0,0,0,0,6.26789,-35.3951,6.81276,24.2374,4.52057,0.20867,0.0641939,
0.23573,0.0472246,0.14833,-1.95015,0.212942,0.408535,-0.00441217,0.025627,0.00474669,0.0242454,-0.00955977,0.111413,-0.0334681,0.00054222,-4.27796,-0.032287,-4.39412,1.41496,100.612,-55.623,-0.303592,2.2618,0.917957,2.14406,-1.34982,-0.316536,0.128099,0.00213744,0.233601,0.0467565,0.146475,-1.95008,0.179107,0.418793,-0.00420159,0.0346655,0.00534022,0.0730619,-0.0185735,-0.554513,0.518222,-7.17359e-05,0,0,0,0,0,0,0,6.26789,-35.3951,6.81276,24.2374,4.52057,0.20867,0.0641939,
0.235715,0.0472646,0.148303,-1.95016,0.219114,0.405252,-0.00442009,0.0201129,0.00479702,0.018721,-0.00778499,0.243436,-0.10886,0.000235631,-3.44634,0.031454,-3.45275,1.10923,82.5143,-47.1202,-0.191618,2.18949,0.923414,2.06568,-1.30568,-0.223205,0.0941978,0.00133256,0.233601,0.0467565,0.146475,-1.95008,0.179107,0.418793,-0.00420159,0.0346655,0.00534022,0.0730619,-0.0185735,-0.554513,0.518222,-7.17359e-05,0,0,0,0,0,0,0,6.26789,-35.3951,6.81276,24.2374,4.52057,0.20867,0.0641939,
0.237157,0.0479253,0.149817,-1.95052,0.174421,0.429957,-0.00434731,0.0184015,0.00446659,0.0179297,-0.00623172,0.257783,-0.116731,8.43957e-05,-1.06957,-0.206518,-0.494595,0.970797,8.96741,-4.91906,-0.0945218,2.15292,0.81147,1.93828,-1.01782,0.659148,-0.380879,-0.0063798,0.235639,0.04742,0.148349,-1.95048,0.165897,0.430954,-0.0042084,0.0594583,0.0305877,0.0532591,0.00131779,-0.192422,0.245148,-0.000665413,3.0991,3.15593,-2.47535,2.48641,45.2614,-34.1343,-0.0742097,3.65741,-35.8949,4.13881,24.3127,2.33429,1.06377,0.0440523,
0.237251,0.0479431,0.14989,-1.95052,0.177503,0.428443,-0.00434396,0.0170628,0.00401781,0.0161581,-0.00503353,0.283282,-0.13125,0.000151311,-0.83671,-0.280489,-1.10724,0.748864,15.9366,-9.0747,0.0418222,2.20251,0.784704,1.93682,-0.989551,0.983719,-0.53389,-0.00961023,0.235639,0.04742,0.148349,-1.95048,0.165897,0.430954,-0.0042084,0.0594583,0.0305877,0.0532591,0.00131779,-0.192422,0.245148,-0.000665413,0,0,0,0,0,0,0,3.65741,-35.8949,4.13881,24.3127,2.33429,1.06377,0.0440523,
0.23733,0.0479553,0.149921,-1.95053,0.181269,0.426577,-0.00434584,0.0156222,0.0035196,0.0137117,-0.0041869,0.320771,-0.151655,7.42198e-05,-0.900352,-0.311379,-1.52899,0.529146,23.4305,-12.7528,-0.0481821,2.27935,0.761308,1.951,-0.968646,1.33158,-0.684457,-0.012315,0.235639,0.04742,0.148349,-1.95048,0.165897,0.430954,-0.0042084,0.0594583,0.0305877,0.0532591,0.00131779,-0.192422,0.245148,-0.000665413,0,0,0,0,0,0,0,3.65741,-35.8949,4.13881,24.3127,2.33429,1.06377,0.0440523,
0.237375,0.0479689,0.149934,-1.95053,0.185732,0.424354,-0.00434849,0.0136283,0.00315404,0.0112841,-0.00350761,0.368198,-0.176893,-7.03089e-06,-1.24619,-0.228477,-1.51729,0.424554,29.6419,-15.7741,-0.0507817,2.33374,0.754738,2.00154,-0.936359,1.70241,-0.851945,-0.010208,0.235639,0.04742,0.148349,-1.95048,0.165897,0.430954,-0.0042084,0.0594583,0.0305877,0.0532591,0.00131779,-0.192422,0.245148,-0.000665413,0,0,0,0,0,0,0,3.65741,-35.8949,4.13881,24.3127,2.33429,1.06377,0.0440523,
0.235975,0.0480697,0.14866,-1.95096,0.164988,0.432597,-0.00423473,0.0193071,0.0187652,0.0167912,-0.0147914,0.27182,-0.100436,-0.000664063,3.54923,9.75698,3.44197,-7.05237,-60.2361,47.7858,-0.410645,0.0147686,31.4928,-0.279182,-23.0772,-1.4391,-2.11448,0.000290344,0.236592,0.0478044,0.149955,-1.95058,0.171294,0.433062,-0.00421175,0.00973074,0.00429432,0.0257792,-0.00707776,0.459518,-0.00965312,0.000397104,-6.21594,-3.28667,-3.43499,-1.04944,81.4925,-31.8501,0.132815,0.562931,-34.5461,1.06416,25.6339,2.16308,1.91887,-0.0163725,
0.236256,0.0485884,0.148909,-1.95122,0.164265,0.433274,-0.00425005,0.0224512,0.0279796,0.0196594,-0.0182003,0.199386,-0.0634119,-0.000914181,1.96506,5.75903,1.79262,-2.13055,-45.2713,23.1402,-0.156323,2.29917,0.782476,2.02404,-1.06967,-0.545566,-0.435095,-0.00947676,0.236592,0.0478044,0.149955,-1.95058,0.171294,0.433062,-0.00421175,0.00973074,0.00429432,0.0257792,-0.00707776,0.459518,-0.00965312,0.000397104,0,0,0,0,0,0,0,0.562931,-34.5461,1.06416,25.6339,2.16308,1.91887,-0.0163725,
0.236495,0.0489789,0.149114,-1.95141,0.163786,0.433434,-0.00426727,0.0239511,0.0321478,0.0208727,-0.0192653,0.147539,-0.0467452,-0.00116176,0.937417,2.60508,0.758283,-0.66564,-32.4044,10.4167,-0.15474,2.37666,0.760596,2.0396,-1.04636,-0.210821,-0.569168,-0.0121117,0.236592,0.0478044,0.149955,-1.95058,0.171294,0.433062,-0.00421175,0.00973074,0.00429432,0.0257792,-0.00707776,0.459518,-0.00965312,0.000397104,0,0,0,0,0,0,0,0.562931,-34.5461,1.06416,25.6339,2.16308,1.91887,-0.0163725,
0.236705,0.0492748,0.149292,-1.95156,0.163566,0.433263,-0.00428219,0.0244131,0.0331146,0.021133,-0.0193349,0.11254,-0.0416619,-0.00130239,0.28874,0.604289,0.162732,-0.0435096,-21.8739,3.17702,-0.0878916,2.43185,0.754594,2.09084,-1.01192,0.147945,-0.720486,-0.0100214,0.236592,0.0478044,0.149955,-1.95058,0.171294,0.433062,-0.00421175,0.00973074,0.00429432,0.0257792,-0.00707776,0.459518,-0.00965312,0.000397104,0,0,0,0,0,0,0,0.562931,-34.5461,1.06416,25.6339,2.16308,1.91887,-0.0163725,
0.236796,0.0483403,0.150163,-1.95106,0.173227,0.433359,-0.00418389,0.0246216,0.0398887,0.0221009,-0.0275332,0.138358,-0.0259116,-0.000345358,0.130313,4.23377,0.604926,-5.12391,16.136,9.84397,0.598145,-0.00554071,31.5018,-0.306879,-23.0775,-1.48514,-2.08922,0.000307507,0.237593,0.0483954,0.15107,-1.95078,0.184467,0.429768,-0.00421403,0.0104214,0.0341145,0.0262032,-0.0147206,0.478334,-0.128432,-0.000295064,0.0863355,3.72752,0.052998,-0.955357,2.35202,-14.8474,-0.0865211,-1.44055,-33.225,-1.18529,22.345,0.722042,1.91247,0.00376909,
0.237091,0.0487682,0.150449,-1.95125,0.173278,0.432689,-0.00415218,0.0270716,0.0426088,0.0248339,-0.0266831,0.111952,-0.0374866,0.000516389,1.5313,1.70005,1.70809,0.531276,-16.5038,-7.23438,0.538592,3.53345,0.317246,3.25052,-1.64727,-2.74719,-2.11362,-0.00853519,0.237593,0.0483954,0.15107,-1.95078,0.184467,0.429768,-0.00421403,0.0104214,0.0341145,0.0262032,-0.0147206,0.478334,-0.128432,-0.000295064,0,0,0,0,0,0,0,-1.44055,-33.225,-1.18529,22.345,0.722042,1.91247,0.00376909,
0.237419,0.0490682,0.150755,-1.95138,0.172451,0.431579,-0.00414318,0.0298585,0.0415873,0.0275313,-0.0247511,0.0688827,-0.0577319,0.000638095,1.74177,-0.638434,1.68593,1.20753,-26.9183,-12.6533,0.0760659,3.60684,0.378604,3.2696,-1.58591,-2.4706,-2.12945,-0.0101787,0.237593,0.0483954,0.15107,-1.95078,0.184467,0.429768,-0.00421403,0.0104214,0.0341145,0.0262032,-0.0147206,0.478334,-0.128432,-0.000295064,0,0,0,0,0,0,0,-1.44055,-33.225,-1.18529,22.345,0.722042,1.91247,0.00376909,
0.237805,0.0490997,0.151287,-1.95138,0.186487,0.429425,-0.00418539,0.0291959,0.0508794,0.0274388,-0.0348691,0.105621,-0.0547567,0.00122647,-0.414111,5.80761,-0.0578429,-6.32376,22.9614,1.85949,0.367735,-0.00554071,31.5018,-0.306879,-23.0775,-1.48514,-2.08922,0.000307507,0.237593,0.0483954,0.15107,-1.95078,0.184467,0.429768,-0.00421403,0.0104214,0.0341145,0.0262032,-0.0147206,0.478334,-0.128432,-0.000295064,0,0,0,0,0,0,0,-1.44055,-33.225,-1.18529,22.345,0.722042,1.91247,0.00376909,
0.238245,0.0494756,0.151737,-1.95157,0.185088,0.426176,-0.00403647,0.0343544,0.0501008,0.033194,-0.0325379,0.049512,-0.125033,0.00470425,3.22407,-0.486669,3.59703,1.457,-35.0681,-43.9226,2.17361,10.3847,-3.76669,10.0804,-6.52809,-6.40619,-10.1347,0.102387,0.238772,0.0495725,0.151993,-1.95151,0.186058,0.426983,-0.00420731,0.0223162,0.062335,0.0219149,-0.00239859,-0.00747744,-0.140842,0.00161572,1.48684,3.52757,-0.536034,1.54025,-60.7264,-1.55131,0.238848,-2.02374,-31.4754,-1.66136,21.9958,-0.0662268,2.11114,-0.0566557,
0.238779,0.0495739,0.152278,-1.95178,0.182367,0.421526,-0.00394635,0.0408367,0.0425365,0.0400954,-0.0312902,-0.0283996,-0.216294,0.00601617,4.05145,-4.72769,4.31334,0.779821,-48.6948,-57.0384,0.819953,9.32524,-3.11267,9.23311,-6.28332,-5.29849,-9.44669,0.0783002,0.238772,0.0495725,0.151993,-1.95151,0.186058,0.426983,-0.00420731,0.0223162,0.062335,0.0219149,-0.00239859,-0.00747744,-0.140842,0.00161572,0,0,0,0,0,0,0,-2.02374,-31.4754,-1.66136,21.9958,-0.0662268,2.11114,-0.0566557,
0.239345,0.0495178,0.152855,-1.95207,0.179304,0.416169,-0.00389262,0.0468227,0.0326278,0.0465092,-0.0322422,-0.099316,-0.306943,0.00615632,3.74126,-6.19289,4.00867,-0.594989,-44.3227,-56.6553,0.0875897,8.58762,-2.49203,8.66209,-5.99368,-4.34271,-8.77251,0.0588157,0.238772,0.0495725,0.151993,-1.95151,0.186058,0.426983,-0.00420731,0.0223162,0.062335,0.0219149,-0.00239859,-0.00747744,-0.140842,0.00161572,0,0,0,0,0,0,0,-2.02374,-31.4754,-1.66136,21.9958,-0.0662268,2.11114,-0.0566557,
0.238937,0.0504046,0.152144,-1.95219,0.185905,0.426669,-0.00421312,0.0415656,0.0469053,0.0409876,-0.0428638,-0.083277,-0.253415,0.0047799,-3.28571,8.92345,-3.45103,-6.63847,10.0244,33.455,-0.860262,0.00122555,31.4675,-0.308163,-23.0048,-1.48018,-2.05121,0.000272395,0.238772,0.0495725,0.151993,-1.95151,0.186058,0.426983,-0.00420731,0.0223162,0.062335,0.0219149,-0.00239859,-0.00747744,-0.140842,0.00161572,0,0,0,0,0,0,0,-2.02374,-31.4754,-1.66136,21.9958,-0.0662268,2.11114,-0.0566557,
0.239372,0.0507502,0.152558,-1.95258,0.1824,0.422732,-0.00399801,0.0441385,0.046164,0.0431407,-0.0440972,-0.154243,-0.301147,0.0092018,1.60805,-0.463354,1.34569,-0.770914,-44.3535,-29.8326,2.76369,13.3188,-5.41363,12.5609,-11.9798,-8.72943,-13.3024,0.191941,0.240884,0.0503818,0.154043,-1.95383,0.186433,0.419726,-0.00419271,0.0739003,0.010834,0.0779692,-0.0827342,-0.125767,-0.386219,0.00737897,6.44802,-6.43763,7.00679,-10.042,-14.7862,-30.6721,0.720407,2.64179,-35.6212,2.83754,24.7372,-0.85358,0.552908,-0.103348,
0.239909,0.0508274,0.153062,-1.95303,0.178214,0.417111,-0.00390382,0.0487409,0.0388602,0.0471284,-0.0465388,-0.228057,-0.381449,0.00971595,2.87654,-4.56484,2.4923,-1.52601,-46.1338,-50.1887,0.321343,11.4486,-2.26467,10.8749,-10.656,-5.94078,-11.6293,0.0947787,0.240884,0.0503818,0.154043,-1.95383,0.186433,0.419726,-0.00419271,0.0739003,0.010834,0.0779692,-0.0827342,-0.125767,-0.386219,0.00737897,0,0,0,0,0,0,0,2.64179,-35.6212,2.83754,24.7372,-0.85358,0.552908,-0.103348,
0.240495,0.0508142,0.153615,-1.95357,0.174178,0.410808,-0.00385236,0.0536352,0.0307592,0.0515099,-0.0505548,-0.283332,-0.462739,0.0090595,3.05889,-5.06317,2.73847,-2.50996,-34.5469,-50.8061,-0.410284,10.6189,-0.284368,10.1384,-9.59054,-4.59168,-10.0721,0.0645684,0.240884,0.0503818,0.154043,-1.95383,0.186433,0.419726,-0.00419271,0.0739003,0.010834,0.0779692,-0.0827342,-0.125767,-0.386219,0.00737897,0,0,0,0,0,0,0,2.64179,-35.6212,2.83754,24.7372,-0.85358,0.552908,-0.103348,
0.241387,0.0510687,0.15452,-1.95482,0.185824,0.417782,-0.00420752,0.0554964,0.0417796,0.0531278,-0.0650519,-0.241881,-0.418772,0.00687736,1.16329,6.88774,1.0112,-9.06069,25.9066,27.4795,-1.36383,0.0669226,31.4933,-0.251033,-22.9738,-1.45917,-2.00474,1.18616e-05,0.240884,0.0503818,0.154043,-1.95383,0.186433,0.419726,-0.00419271,0.0739003,0.010834,0.0779692,-0.0827342,-0.125767,-0.386219,0.00737897,0,0,0,0,0,0,0,2.64179,-35.6212,2.83754,24.7372,-0.85358,0.552908,-0.103348,
0.242141,0.0512283,0.155277,-1.95563,0.181522,0.412661,-0.0039138,0.0632275,0.0374136,0.0614225,-0.0722911,-0.301073,-0.463056,0.0128449,4.83189,-2.72874,5.18414,-4.52452,-36.9948,-27.6778,3.72968,15.8393,-8.02811,15.38,-16.9411,-10.582,-14.0047,0.289842,0.240884,0.0503818,0.154043,-1.95383,0.186433,0.419726,-0.00419271,0.0739003,0.010834,0.0779692,-0.0827342,-0.125767,-0.386219,0.00737897,0,0,0,0,0,0,0,2.64179,-35.6212,2.83754,24.7372,-0.85358,0.552908,-0.103348,
0.242938,0.0511872,0.156077,-1.95642,0.176872,0.405834,-0.00380302,0.0705172,0.0289049,0.0691603,-0.0776803,-0.357087,-0.541119,0.0130454,4.55611,-5.31792,4.83612,-3.36826,-35.0086,-48.7891,0.125364,13.2327,-2.76918,13.1984,-14.4782,-6.04229,-12.8646,0.122954,0.244177,0.0504338,0.157978,-1.95542,0.1762,0.389272,-0.00417616,0.107108,-0.0231748,0.133531,-0.0943425,-0.405602,-1.05669,0.00181374,4.15098,-4.2511,6.94525,-1.45104,-34.9794,-83.8085,-0.695654,7.51361,-33.0226,7.36024,17.2391,-1.31775,-0.242685,-0.083206,
0.246396,0.049425,0.160133,-1.95782,0.165874,0.371241,-0.00382958,0.0837685,0.0114751,0.0819017,-0.0926332,-0.409513,-0.660566,0.0126653,8.28205,-10.8936,7.96341,-9.34555,-32.7668,-74.6544,-0.237564,16.3543,-8.76319,15.5607,-20.9545,-10.432,-13.8728,0.287208,0.244177,0.0504338,0.157978,-1.95542,0.1762,0.389272,-0.00417616,0.107108,-0.0231748,0.133531,-0.0943425,-0.405602,-1.05669,0.00181374,0,0,0,0,0,0,0,7.51361,-33.0226,7.36024,17.2391,-1.31775,-0.242685,-0.083206,
0.24744,0.0491142,0.16115,-1.95908,0.161744,0.362669,-0.003778,0.0931142,0.00141032,0.0909443,-0.105588,-0.430852,-0.742762,0.0114218,5.84106,-6.2905,5.65162,-8.09669,-13.3368,-51.3728,-0.77722,13.3226,-2.36367,12.9682,-17.6313,-5.68574,-12.2342,0.116141,0.244177,0.0504338,0.157978,-1.95542,0.1762,0.389272,-0.00417616,0.107108,-0.0231748,0.133531,-0.0943425,-0.405602,-1.05669,0.00181374,0,0,0,0,0,0,0,7.51361,-33.0226,7.36024,17.2391,-1.31775,-0.242685,-0.083206,
0.248437,0.0489337,0.162125,-1.9604,0.158413,0.354996,-0.00373894,0.0994109,-0.00338261,0.0971406,-0.117469,-0.427963,-0.78603,0.010114,3.93545,-2.99558,3.87266,-7.42577,1.80585,-27.0426,-0.81734,12.2265,0.155002,11.9724,-15.7908,-3.9565,-9.69345,0.0820523,0.244177,0.0504338,0.157978,-1.95542,0.1762,0.389272,-0.00417616,0.107108,-0.0231748,0.133531,-0.0943425,-0.405602,-1.05669,0.00181374,0,0,0,0,0,0,0,7.51361,-33.0226,7.36024,17.2391,-1.31775,-0.242685,-0.083206,
0.249392,0.048842,0.163066,-1.96178,0.155769,0.348356,-0.00370025,0.103411,-0.00499956,0.101228,-0.128451,-0.408473,-0.794818,0.00905854,2.50024,-1.0106,2.55472,-6.86351,12.1813,-5.4921,-0.659687,11.7723,0.428342,11.5879,-14.7966,-2.8471,-7.4708,0.0638923,0.250517,0.0500792,0.161677,-1.96199,0.159631,0.358837,-0.00401792,0.179013,-0.055195,0.168053,-0.277804,-0.632983,-0.91303,0.0159383,8.98809,-4.00253,4.31523,-22.9326,-28.4226,17.957,1.76557,6.47419,-31.5508,6.76118,19.5798,-0.0167883,-2.12501,-0.050247,
0.252976,0.0498998,0.164076,-1.9654,0.152072,0.344237,-0.00392401,0.112007,-0.00434571,0.109596,-0.144127,-0.408512,-0.809478,0.00806553,5.37254,0.408656,5.23002,-9.79776,-0.0242322,-9.1626,-0.620633,12.5259,-0.439132,12.3366,-18.7868,-4.08793,-8.90936,0.092929,0.250517,0.0500792,0.161677,-1.96199,0.159631,0.358837,-0.00401792,0.179013,-0.055195,0.168053,-0.277804,-0.632983,-0.91303,0.0159383,0,0,0,0,0,0,0,6.47419,-31.5508,6.76118,19.5798,-0.0167883,-2.12501,-0.050247,
0.254055,0.0499638,0.165132,-1.96706,0.149675,0.338377,-0.00390114,0.116561,-0.0018744,0.114072,-0.156921,-0.386734,-0.794105,0.00702434,2.84592,1.54457,2.79743,-7.99633,13.6107,9.6083,-0.650743,11.5563,1.12769,11.4305,-17.1909,-2.53492,-6.40359,0.0641874,0.250517,0.0500792,0.161677,-1.96199,0.159631,0.358837,-0.00401792,0.179013,-0.055195,0.168053,-0.277804,-0.632983,-0.91303,0.0159383,0,0,0,0,0,0,0,6.47419,-31.5508,6.76118,19.5798,-0.0167883,-2.12501,-0.050247,
0.255061,0.0500581,0.166119,-1.96876,0.147961,0.33369,-0.00387629,0.118412,0.000856848,0.115943,-0.167844,-0.352247,-0.752451,0.00624063,1.15708,1.70703,1.16926,-6.82657,21.5543,26.0333,-0.489821,11.0308,0.791849,10.9219,-16.5625,-1.63627,-4.36128,0.0477722,0.250517,0.0500792,0.161677,-1.96199,0.159631,0.358837,-0.00401792,0.179013,-0.055195,0.168053,-0.277804,-0.632983,-0.91303,0.0159383,0,0,0,0,0,0,0,6.47419,-31.5508,6.76118,19.5798,-0.0167883,-2.12501,-0.050247,
0.256009,0.0501531,0.16705,-1.97046,0.146822,0.330141,-0.00385346,0.118438,0.0030601,0.116029,-0.176995,-0.31027,-0.690692,0.00556324,0.0159215,1.37703,0.0537209,-5.7196,26.2361,38.5993,-0.423368,10.8127,-0.164407,10.717,-16.1671,-0.865085,-2.42789,0.0443944,0.257083,0.0487036,0.169945,-1.97059,0.131336,0.31569,-0.00383429,0.245658,-0.0285388,0.177733,-0.306155,-0.514451,-1.2285,0.00129513,8.33064,3.33202,1.20995,-3.5439,14.8165,-39.4339,-1.83039,0.793033,-31.6023,1.21095,20.1273,0.880428,0.228811,0.050461,
0.273955,0.0516587,0.186468,-1.99908,0.112891,0.324711,-0.00396949,0.0992202,0.00211219,0.0972293,-0.148482,-0.261081,-0.530338,0.00403127,-12.0109,-0.592442,-11.7497,17.8207,30.743,100.222,-0.957481,6.2893,0.605937,6.23453,-11.1758,-0.435164,1.67377,0.0212977,0.257083,0.0487036,0.169945,-1.97059,0.131336,0.31569,-0.00383429,0.245658,-0.0285388,0.177733,-0.306155,-0.514451,-1.2285,0.00129513,0,0,0,0,0,0,0,0.793033,-31.6023,1.21095,20.1273,0.880428,0.228811,0.050461,
0.274127,0.0516456,0.186637,-1.99934,0.112352,0.325608,-0.00398574,0.083663,0.00136332,0.0820097,-0.125318,-0.22234,-0.401847,0.00281884,-9.72322,-0.468043,-9.51223,14.4774,24.2131,80.3068,-0.757768,6.18658,0.596268,6.13394,-10.98,-0.425696,1.61168,0.020237,0.257083,0.0487036,0.169945,-1.97059,0.131336,0.31569,-0.00383429,0.245658,-0.0285388,0.177733,-0.306155,-0.514451,-1.2285,0.00129513,0,0,0,0,0,0,0,0.793033,-31.6023,1.21095,20.1273,0.880428,0.228811,0.050461,
0.274291,0.051633,0.186799,-1.99959,0.111794,0.32651,-0.00400142,0.0710338,0.000775994,0.0696537,-0.106422,-0.191826,-0.298913,0.00186292,-7.89326,-0.36708,-7.72249,11.8101,19.0714,64.3337,-0.597447,6.08409,0.586556,6.03355,-10.784,-0.415534,1.55754,0.0191714,0.257083,0.0487036,0.169945,-1.97059,0.131336,0.31569,-0.00383429,0.245658,-0.0285388,0.177733,-0.306155,-0.514451,-1.2285,0.00129513,0,0,0,0,0,0,0,0.793033,-31.6023,1.21095,20.1273,0.880428,0.228811,0.050461,
0.274448,0.051621,0.186953,-1.99982,0.111226,0.327413,-0.00401675,0.0607466,0.000320239,0.0595882,-0.0909263,-0.167658,-0.216559,0.00110712,-6.42948,-0.284847,-6.29096,9.68484,15.1052,51.4714,-0.472375,5.69133,-0.0183401,5.64311,-10.0764,-0.47175,1.76451,0.017281,0.265255,0.0479608,0.177393,-1.98408,0.117998,0.284249,-0.00383277,0.273137,0.00618437,0.183313,-0.411731,-0.355639,-0.618155,-0.000252662,3.4349,4.3404,0.697487,-13.197,19.8515,76.2934,-0.193474,-0.908932,-33.1218,-0.610033,29.4424,1.71722,3.86895,0.0239107,
0.275647,0.0508745,0.187917,-1.99071,0.242511,0.222454,-0.00474047,0.0484985,-0.000601095,0.0468981,-0.0717384,0.0375288,-0.251489,7.32536e-05,-7.65509,-0.575834,-7.93134,11.9924,128.241,-21.8313,-0.646168,3.69392,-0.203395,3.75143,-2.14786,0.40592,0.900128,0.0161672,0.265255,0.0479608,0.177393,-1.98408,0.117998,0.284249,-0.00383277,0.273137,0.00618437,0.183313,-0.411731,-0.355639,-0.618155,-0.000252662,0,0,0,0,0,0,0,-0.908932,-33.1218,-0.610033,29.4424,1.71722,3.86895,0.0239107,
0.275651,0.0508413,0.187894,-1.99067,0.249381,0.219319,-0.00477302,0.0388935,-0.00131109,0.036935,-0.0564499,0.201794,-0.279564,-0.000755228,-6.0031,-0.443747,-6.22694,9.55533,102.666,-17.547,-0.517801,3.90767,-0.157813,3.97436,-1.9355,1.12294,0.48216,0.0265063,0.265255,0.0479608,0.177393,-1.98408,0.117998,0.284249,-0.00383277,0.273137,0.00618437,0.183313,-0.411731,-0.355639,-0.618155,-0.000252662,0,0,0,0,0,0,0,-0.908932,-33.1218,-0.610033,29.4424,1.71722,3.86895,0.0239107,
0.275661,0.0508087,0.187876,-1.99063,0.256251,0.216184,-0.00480565,0.03137,-0.00186306,0.0291204,-0.0442652,0.333161,-0.302032,-0.00142,-4.70218,-0.34498,-4.88411,7.61542,82.1043,-14.0426,-0.415481,4.03195,-0.108391,4.15192,-1.71617,2.01615,-0.00100708,0.0359076,0.265255,0.0479608,0.177393,-1.98408,0.117998,0.284249,-0.00383277,0.273137,0.00618437,0.183313,-0.411731,-0.355639,-0.618155,-0.000252662,0,0,0,0,0,0,0,-0.908932,-33.1218,-0.610033,29.4424,1.71722,3.86895,0.0239107,
0.284047,0.0453591,0.19438,-1.99954,0.178005,0.440357,-0.00414197,0.0352999,-0.00650598,0.0302211,-0.0371452,0.264013,-0.221175,-0.000890048,2.45616,-2.90183,0.687927,4.45001,-43.2174,50.536,0.331218,5.35749,-3.23826,4.07395,-0.499859,-0.136077,1.47163,0.0204504,0.272334,0.0494705,0.183974,-1.99611,0.110975,0.276223,-0.00383972,0.20463,0.0519953,0.132753,-0.286564,-0.220665,-0.162871,-0.000755267,-8.56342,5.72636,-6.31999,15.6459,16.8717,56.9104,-0.0628255,-5.82837,-38.8387,-5.13671,34.7507,2.37732,4.06762,0.00376909,
0.285336,0.0505321,0.19615,-2.00088,0.141629,0.28246,-0.00452029,0.0306467,-0.00536424,0.0263565,-0.0287836,0.224738,-0.15802,-0.00127374,-2.90827,0.71359,-2.41534,5.226,-24.5467,39.4716,-0.239806,5.12164,-3.41805,3.51897,-0.536639,0.447846,1.04867,0.0165626,0.272334,0.0494705,0.183974,-1.99611,0.110975,0.276223,-0.00383972,0.20463,0.0519953,0.132753,-0.286564,-0.220665,-0.162871,-0.000755267,0,0,0,0,0,0,0,-5.82837,-38.8387,-5.13671,34.7507,2.37732,4.06762,0.00376909,
0.285425,0.0505229,0.196229,-2.00084,0.142261,0.283173,-0.00454331,0.0267589,-0.00452257,0.0230419,-0.0220316,0.195604,-0.108592,-0.00159449,-2.42985,0.526041,-2.07167,4.21998,-18.2087,30.8925,-0.200471,4.85055,-3.43897,3.17643,-0.519137,1.02646,0.622,0.0156795,0.272334,0.0494705,0.183974,-1.99611,0.110975,0.276223,-0.00383972,0.20463,0.0519953,0.132753,-0.286564,-0.220665,-0.162871,-0.000755267,0,0,0,0,0,0,0,-5.82837,-38.8387,-5.13671,34.7507,2.37732,4.06762,0.00376909,
0.285508,0.0505106,0.196298,-2.0008,0.143004,0.28383,-0.00456692,0.0234755,-0.00392615,0.0201609,-0.0165603,0.175047,-0.0704441,-0.00186586,-2.05209,0.372763,-1.80062,3.41954,-12.8486,23.8425,-0.169608,4.58795,-3.39056,2.93071,-0.481961,1.61261,0.198594,0.0170495,0.272334,0.0494705,0.183974,-1.99611,0.110975,0.276223,-0.00383972,0.20463,0.0519953,0.132753,-0.286564,-0.220665,-0.162871,-0.000755267,0,0,0,0,0,0,0,-5.82837,-38.8387,-5.13671,34.7507,2.37732,4.06762,0.00376909,
0.281802,0.0498253,0.191922,-1.99933,0.230103,0.230669,-0.00504328,0.01865,-0.00422854,0.0153363,-0.012138,0.314705,-0.137558,-0.0023185,-3.01596,-0.188992,-3.01536,2.76394,87.2867,-41.9463,-0.282898,4.03208,-2.74258,3.17219,-0.260694,-0.362606,0.816775,0.00687191,0.276832,0.0518782,0.188062,-2.00066,0.11751,0.257736,-0.0038493,0.160159,0.0384193,0.0427876,-0.102982,0.376783,-0.548554,0.000635837,-5.55889,-1.69699,-11.2456,22.9477,74.681,-48.2103,0.173888,-2.83307,-43.3296,-2.03826,31.3388,2.16308,5.87121,-0.0429228,
0.281804,0.0497834,0.191898,-1.99929,0.237095,0.227413,-0.00507636,0.0149899,-0.00443,0.0116724,-0.00867935,0.426556,-0.19145,-0.00268187,-2.28759,-0.125917,-2.28994,2.16168,69.9067,-33.6822,-0.227104,3.76216,-2.88691,2.76783,-0.291036,0.20472,0.41895,0.00532298,0.276832,0.0518782,0.188062,-2.00066,0.11751,0.257736,-0.0038493,0.160159,0.0384193,0.0427876,-0.102982,0.376783,-0.548554,0.000635837,0,0,0,0,0,0,0,-2.83307,-43.3296,-2.03826,31.3388,2.16308,5.87121,-0.0429228,
0.281814,0.0497426,0.191881,-1.99925,0.244085,0.224154,-0.00510952,0.0122278,-0.0045639,0.00890276,-0.00597243,0.515994,-0.234621,-0.0029745,-1.72631,-0.083684,-1.73101,1.69182,55.8986,-26.9819,-0.182897,3.498,-2.88754,2.5076,-0.279483,0.780775,0.0176372,0.0058552,0.276832,0.0518782,0.188062,-2.00066,0.11751,0.257736,-0.0038493,0.160159,0.0384193,0.0427876,-0.102982,0.376783,-0.548554,0.000635837,0,0,0,0,0,0,0,-2.83307,-43.3296,-2.03826,31.3388,2.16308,5.87121,-0.0429228,
0.281829,0.0497025,0.191869,-1.99922,0.251068,0.220898,-0.00514277,0.0101546,-0.00465492,0.00681924,-0.00385119,0.587387,-0.269109,-0.00321083,-1.29576,-0.0568869,-1.3022,1.32578,44.6206,-21.5552,-0.147706,3.26409,-2.82532,2.31503,-0.257464,1.3657,-0.37538,0.00775311,0.276832,0.0518782,0.188062,-2.00066,0.11751,0.257736,-0.0038493,0.160159,0.0384193,0.0427876,-0.102982,0.376783,-0.548554,0.000635837,0,0,0,0,0,0,0,-2.83307,-43.3296,-2.03826,31.3388,2.16308,5.87121,-0.0429228,
0.288877,0.0507067,0.199439,-2.00341,0.154156,0.264022,-0.00450282,0.0106684,-0.00416251,0.00772239,-0.00196325,0.480657,-0.193738,-0.00315478,0.321157,0.307756,0.564472,1.17996,-66.7061,47.1069,0.0350348,4.87535,-3.39121,4.03076,-0.182993,-0.204855,1.63151,0.0144749,0.27934,0.0536741,0.190318,-2.00377,0.129494,0.249825,-0.00388391,0.078077,0.0172855,-0.0106495,-0.0647726,0.682296,-0.288833,-0.00128303,-10.2602,-2.64172,-6.67963,4.77619,38.1891,32.4652,-0.239858,-0.57568,-39.9138,-0.137926,28.522,3.29925,1.7669,0.0577852,
0.288972,0.0506867,0.199522,-2.00336,0.154661,0.264849,-0.00452671,0.0109165,-0.00382944,0.00823293,-0.000399861,0.397155,-0.134297,-0.00312125,0.155049,0.208169,0.319089,0.977119,-52.189,37.1507,0.0209521,4.62307,-3.6495,3.50073,-0.252423,0.377593,1.1688,0.0114428,0.27934,0.0536741,0.190318,-2.00377,0.129494,0.249825,-0.00388391,0.078077,0.0172855,-0.0106495,-0.0647726,0.682296,-0.288833,-0.00128303,0,0,0,0,0,0,0,-0.57568,-39.9138,-0.137926,28.522,3.29925,1.7669,0.0577852,
0.289061,0.0506641,0.199595,-2.00331,0.155257,0.265633,-0.00455112,0.0109454,-0.00362759,0.00842437,0.00090935,0.332635,-0.0878529,-0.00310719,0.0180666,0.126154,0.119648,0.818257,-40.3247,29.0276,0.00879238,4.34921,-3.70639,3.17067,-0.257929,0.973677,0.701783,0.0104062,0.27934,0.0536741,0.190318,-2.00377,0.129494,0.249825,-0.00388391,0.078077,0.0172855,-0.0106495,-0.0647726,0.682296,-0.288833,-0.00128303,0,0,0,0,0,0,0,-0.57568,-39.9138,-0.137926,28.522,3.29925,1.7669,0.0577852,
0.289142,0.0506388,0.19966,-2.00326,0.155964,0.26636,-0.00457608,0.0107912,-0.00353534,0.00835419,0.00202211,0.283764,-0.0521099,-0.00310958,-0.0963576,0.057657,-0.0438645,0.695477,-30.5444,22.3394,-0.00149726,4.10426,-3.67176,2.94384,-0.241289,1.57605,0.243322,0.0110738,0.27934,0.0536741,0.190318,-2.00377,0.129494,0.249825,-0.00388391,0.078077,0.0172855,-0.0106495,-0.0647726,0.682296,-0.288833,-0.00128303,0,0,0,0,0,0,0,-0.57568,-39.9138,-0.137926,28.522,3.29925,1.7669,0.0577852,
0.286731,0.050502,0.196238,-2.00317,0.257746,0.215507,-0.00504303,0.00849139,-0.0041261,0.00584933,0.00287496,0.401281,-0.123321,-0.00333399,-1.43739,-0.369223,-1.56554,0.533027,73.4481,-44.5071,-0.140257,3.87024,-2.88025,3.11446,-0.0905948,-0.284415,0.925466,0.00208527,0.27934,0.0536741,0.190318,-2.00377,0.129494,0.249825,-0.00388391,0.078077,0.0172855,-0.0106495,-0.0647726,0.682296,-0.288833,-0.00128303,0,0,0,0,0,0,0,-0.57568,-39.9138,-0.137926,28.522,3.29925,1.7669,0.0577852,
0.286733,0.0504516,0.196213,-2.00313,0.264723,0.212233,-0.00507693,0.00685975,-0.00456257,0.00404925,0.0034787,0.495449,-0.180512,-0.00351479,-1.01978,-0.272798,-1.12505,0.37734,58.8548,-35.7443,-0.113001,3.64453,-3.142,2.78324,0.00459446,0.186249,0.609346,0.00102356,0.280503,0.0536502,0.191088,-2.00554,0.158422,0.239171,-0.00388682,0.0915274,0.00446271,0.0263474,-0.0762234,0.541842,-0.114348,0.000819284,1.6813,-1.60285,4.6246,-1.43135,-17.5567,21.8106,0.262789,0.793033,-36.2679,1.06416,29.9185,-0.187992,4.44573,-0.050247,
0.286743,0.050402,0.196195,-2.00308,0.271699,0.208956,-0.00511092,0.0057272,-0.00488828,0.00277751,0.00390211,0.570761,-0.226337,-0.0036614,-0.707842,-0.203567,-0.794835,0.264633,47.0704,-28.6406,-0.0916298,3.40086,-3.14625,2.5382,0.0135909,0.75869,0.191178,0.00192883,0.280503,0.0536502,0.191088,-2.00554,0.158422,0.239171,-0.00388682,0.0915274,0.00446271,0.0263474,-0.0762234,0.541842,-0.114348,0.000819284,0,0,0,0,0,0,0,0.793033,-36.2679,1.06416,29.9185,-0.187992,4.44573,-0.050247,
0.286758,0.050353,0.196182,-2.00304,0.27867,0.205681,-0.00514499,0.00496326,-0.00513605,0.00189798,0.00419684,0.630869,-0.262957,-0.00378094,-0.477465,-0.154857,-0.549708,0.184207,37.5675,-22.8878,-0.0747084,3.18616,-3.09148,2.35255,0.0300727,1.34722,-0.220201,0.00370962,0.280503,0.0536502,0.191088,-2.00554,0.158422,0.239171,-0.00388682,0.0915274,0.00446271,0.0263474,-0.0762234,0.541842,-0.114348,0.000819284,0,0,0,0,0,0,0,0.793033,-36.2679,1.06416,29.9185,-0.187992,4.44573,-0.050247,
0.291261,0.0505207,0.201183,-2.00536,0.197197,0.260135,-0.00463946,0.00613078,-0.00504599,0.00322894,0.00485109,0.518937,-0.188201,-0.00367266,0.729699,0.0562865,0.83185,0.408906,-69.9581,46.7225,0.0676704,4.53949,-3.85581,3.65335,0.222348,0.324679,1.39372,0.0080368,0.280503,0.0536502,0.191088,-2.00554,0.158422,0.239171,-0.00388682,0.0915274,0.00446271,0.0263474,-0.0762234,0.541842,-0.114348,0.000819284,0,0,0,0,0,0,0,0.793033,-36.2679,1.06416,29.9185,-0.187992,4.44573,-0.050247,
0.29134,0.050481,0.201243,-2.0053,0.197872,0.260962,-0.00466589,0.0068846,-0.00502763,0.00407373,0.00542381,0.432031,-0.129888,-0.00359896,0.471143,0.0114768,0.527995,0.357947,-54.3159,36.4458,0.0460669,4.28108,-3.95568,3.31463,0.181241,0.882121,0.901705,0.00765504,0.283147,0.0533633,0.192868,-2.00648,0.169682,0.23657,-0.00391429,0.0674351,-0.0219059,0.0194397,-0.00252863,0.659134,-0.120057,0.00174706,-3.01154,-3.29607,-0.863457,9.21185,14.6615,-0.713645,0.115972,-1.15887,-35.0697,-0.435472,25.4315,2.37732,0.175711,0.0239107,
0.291412,0.0504391,0.201293,-2.00523,0.198674,0.261714,-0.00469291,0.00729835,-0.00507164,0.00452135,0.00593912,0.365682,-0.0851022,-0.00355449,0.258588,-0.027509,0.279761,0.322069,-41.4681,27.9912,0.027791,4.04937,-3.93526,3.07595,0.18098,1.49998,0.410606,0.00819369,0.283147,0.0533633,0.192868,-2.00648,0.169682,0.23657,-0.00391429,0.0674351,-0.0219059,0.0194397,-0.00252863,0.659134,-0.120057,0.00174706,0,0,0,0,0,0,0,-1.15887,-35.0697,-0.435472,25.4315,2.37732,0.175711,0.0239107,
0.292776,0.0479293,0.201418,-2.00454,0.233273,0.245258,-0.00482149,0.0049964,-0.00612614,0.00188682,0.0072004,0.396715,-0.105863,-0.00365874,-1.43872,-0.659058,-1.64658,0.788299,19.3954,-12.9757,-0.0651555,4.18557,-0.861769,4.93332,0.593182,-0.843186,2.50025,-0.0363885,0.283147,0.0533633,0.192868,-2.00648,0.169682,0.23657,-0.00391429,0.0674351,-0.0219059,0.0194397,-0.00252863,0.659134,-0.120057,0.00174706,0,0,0,0,0,0,0,-1.15887,-35.0697,-0.435472,25.4315,2.37732,0.175711,0.0239107,
0.292729,0.047843,0.201333,-2.00444,0.237996,0.243373,-0.00485446,0.00281767,-0.00705769,-0.000598548,0.00822621,0.435443,-0.131826,-0.00375136,-1.36171,-0.582218,-1.55336,0.641136,24.2049,-16.2265,-0.0578863,4.3453,-1.61798,4.74569,0.592795,-1.13297,2.21828,-0.0187399,0.283147,0.0533633,0.192868,-2.00648,0.169682,0.23657,-0.00391429,0.0674351,-0.0219059,0.0194397,-0.00252863,0.659134,-0.120057,0.00174706,0,0,0,0,0,0,0,-1.15887,-35.0697,-0.435472,25.4315,2.37732,0.175711,0.0239107,
0.29267,0.0477551,0.201235,-2.00434,0.243289,0.241119,-0.00488804,0.000773456,-0.00784496,-0.00292707,0.00898736,0.480682,-0.16182,-0.00384046,-1.27763,-0.492049,-1.45533,0.475718,28.2748,-18.7461,-0.0556915,4.43374,-2.34768,4.3327,0.409709,-1.24124,1.88654,-0.00581443,0.284834,0.0531078,0.194019,-2.00626,0.20682,0.235127,-0.00391165,0.0594754,0.00376756,0.0484823,0.000359426,0.871242,0.0609218,0.000369638,-0.994956,3.20918,3.63033,0.361008,26.5135,22.6224,-0.172178,0.209842,-37.5652,0.937208,24.7095,0.776974,0.5996,-0.0429228,
0.292601,0.0476686,0.201127,-2.00425,0.249134,0.238523,-0.00492373,-0.00108807,-0.00843742,-0.00505063,0.00947764,0.530652,-0.194333,-0.00396464,-1.16345,-0.370282,-1.32723,0.306423,31.2308,-20.3211,-0.0776083,4.29858,-2.91444,3.77075,0.281267,-0.944969,1.49289,-0.000401282,0.284834,0.0531078,0.194019,-2.00626,0.20682,0.235127,-0.00391165,0.0594754,0.00376756,0.0484823,0.000359426,0.871242,0.0609218,0.000369638,0,0,0,0,0,0,0,0.209842,-37.5652,0.937208,24.7095,0.776974,0.5996,-0.0429228,
0.289795,0.0454365,0.196081,-2.00016,0.784054,-0.0105756,-0.00722887,0.000267139,-0.00971842,-0.00370034,0.00930557,0.56921,-0.211158,-0.00412536,0.847006,-0.800627,0.843934,-0.107543,24.0988,-10.5155,-0.100454,4.29858,-2.91444,3.77075,0.281267,-0.944969,1.49289,-0.000401282,0.284834,0.0531078,0.194019,-2.00626,0.20682,0.235127,-0.00391165,0.0594754,0.00376756,0.0484823,0.000359426,0.871242,0.0609218,0.000369638,0,0,0,0,0,0,0,0.209842,-37.5652,0.937208,24.7095,0.776974,0.5996,-0.0429228,
0.289795,0.0454365,0.196081,-2.00016,0.784054,-0.0105756,-0.00722887,0.00135131,-0.0107432,-0.0026201,0.00916792,0.600056,-0.224618,-0.00425395,0.677605,-0.640502,0.675147,-0.0860345,19.279,-8.41243,-0.0803635,4.29858,-2.91444,3.77075,0.281267,-0.944969,1.49289,-0.000401282,0.284834,0.0531078,0.194019,-2.00626,0.20682,0.235127,-0.00391165,0.0594754,0.00376756,0.0484823,0.000359426,0.871242,0.0609218,0.000369638,0,0,0,0,0,0,0,0.209842,-37.5652,0.937208,24.7095,0.776974,0.5996,-0.0429228,
0.289795,0.0454365,0.196081,-2.00016,0.784054,-0.0105756,-0.00722887,0.00221864,-0.0115631,-0.00175591,0.00905779,0.624733,-0.235386,-0.00435681,0.542084,-0.512402,0.540118,-0.0688276,15.4232,-6.72995,-0.0642908,4.24671,-3.00107,3.72001,0.323285,-0.99298,1.4975,0.000390948,0.286976,0.0523678,0.196136,-2.00582,0.220872,0.238851,-0.00394382,0.0361039,-0.0369748,0.0476014,0.0192324,0.521437,0.0305274,-0.00454559,-2.92143,-5.0928,-0.110122,2.35912,-43.7257,-3.7993,-0.614404,0.384403,-32.4513,0.786451,23.8644,1.31988,-0.533823,0.00376909,
0.289795,0.0454365,0.196081,-2.00016,0.784054,-0.0105756,-0.00722887,0.00291251,-0.0122189,-0.00106456,0.00896969,0.644475,-0.244,-0.0044391,0.433667,-0.409921,0.432094,-0.0550621,12.3386,-5.38396,-0.0514326,4.24671,-3.00107,3.72001,0.323285,-0.99298,1.4975,0.000390948,0.286976,0.0523678,0.196136,-2.00582,0.220872,0.238851,-0.00394382,0.0361039,-0.0369748,0.0476014,0.0192324,0.521437,0.0305274,-0.00454559,0,0,0,0,0,0,0,0.384403,-32.4513,0.786451,23.8644,1.31988,-0.533823,0.00376909,
0.291009,0.0434218,0.197291,-1.99946,0.805949,-0.0152199,-0.00738906,0.00345081,-0.0128639,-0.000498704,0.00885372,0.658531,-0.250327,-0.00450593,0.33644,-0.403122,0.353661,-0.0724848,8.7853,-3.95444,-0.0417689,4.24671,-3.00107,3.72001,0.323285,-0.99298,1.4975,0.000390948,0.286976,0.0523678,0.196136,-2.00582,0.220872,0.238851,-0.00394382,0.0361039,-0.0369748,0.0476014,0.0192324,0.521437,0.0305274,-0.00454559,0,0,0,0,0,0,0,0.384403,-32.4513,0.786451,23.8644,1.31988,-0.533823,0.00376909,
0.291009,0.0434218,0.197291,-1.99946,0.805949,-0.0152199,-0.00738906,0.00388146,-0.0133799,-4.60182e-05,0.00876094,0.669777,-0.255389,-0.0045594,0.269152,-0.322498,0.282929,-0.0579878,7.02824,-3.16355,-0.0334151,4.24671,-3.00107,3.72001,0.323285,-0.99298,1.4975,0.000390948,0.286976,0.0523678,0.196136,-2.00582,0.220872,0.238851,-0.00394382,0.0361039,-0.0369748,0.0476014,0.0192324,0.521437,0.0305274,-0.00454559,0,0,0,0,0,0,0,0.384403,-32.4513,0.786451,23.8644,1.31988,-0.533823,0.00376909,
