xiao-wang007/linearmpc_panda/paper_data/panda_inverse_dynamics_controller_error_match_to_start_no_acceleration_ff/3/trajectory.csv
Commanded Joint 0 Position,Commanded Joint 1 Position,Commanded Joint 2 Position,Commanded Joint 3 Position,Commanded Joint 4 Position,Commanded Joint 5 Position,Commanded Joint 6 Position,Commanded Joint 0 Velocity,Commanded Joint 1 Velocity,Commanded Joint 2 Velocity,Commanded Joint 3 Velocity,Commanded Joint 4 Velocity,Commanded Joint 5 Velocity,Commanded Joint 6 Velocity,Commanded Joint 0 Acceleration,Commanded Joint 1 Acceleration,Commanded Joint 2 Acceleration,Commanded Joint 3 Acceleration,Commanded Joint 4 Acceleration,Commanded Joint 5 Acceleration,Commanded Joint 6 Acceleration,Commanded Joint 0 Torque,Commanded Joint 1 Torque,Commanded Joint 2 Torque,Commanded Joint 3 Torque,Commanded Joint 4 Torque,Commanded Joint 5 Torque,Commanded Joint 6 Torque,Actual Joint 0 Position,Actual Joint 1 Position,Actual Joint 2 Position,Actual Joint 3 Position,Actual Joint 4 Position,Actual Joint 5 Position,Actual Joint 6 Position,Actual Joint 0 Velocity,Actual Joint 1 Velocity,Actual Joint 2 Velocity,Actual Joint 3 Velocity,Actual Joint 4 Velocity,Actual Joint 5 Velocity,Actual Joint 6 Velocity,Actual Joint 0 Acceleration,Actual Joint 1 Acceleration,Actual Joint 2 Acceleration,Actual Joint 3 Acceleration,Actual Joint 4 Acceleration,Actual Joint 5 Acceleration,Actual Joint 6 Acceleration,Actual Joint 0 Torque,Actual Joint 1 Torque,Actual Joint 2 Torque,Actual Joint 3 Torque,Actual Joint 4 Torque,Actual Joint 5 Torque,Actual Joint 6 Torque,
0.0438174,-0.00336786,-0.0631305,-1.79484,0.00694958,0.238998,-0.00291455,0.000244111,0.0223495,0.000199369,-0.0331182,-0.0039852,0.0542636,-0.00039227,0,0,0,0,0,0,0,0.0579771,24.3681,0.0522355,-24.3085,-0.615453,2.01587,-0.0249716,0.0437862,-0.00430002,-0.0631533,-1.79212,0.00718459,0.233256,-0.00286495,-0.00213835,0.000754983,-0.00099869,-0.00325115,-0.00237451,0.000676252,0.000484401,0,0,0,0,0,0,0,0.0828892,-34.8952,0.112013,27.1771,0.960079,2.89391,0.0239107,
0.0437623,-0.00427196,-0.0631768,-1.79214,0.00713388,0.233231,-0.00286435,3.95097e-05,0.0180868,5.76485e-06,-0.0266096,-0.0035498,0.0432301,-0.000311789,0,0,0,0,0,0,0,0.0522328,24.8087,0.0418976,-24.2249,-0.615854,1.76492,-0.0234535,0.0437862,-0.00430002,-0.0631533,-1.79212,0.00718459,0.233256,-0.00286495,-0.00213835,0.000754983,-0.00099869,-0.00325115,-0.00237451,0.000676252,0.000484401,0,0,0,0,0,0,0,0.0828892,-34.8952,0.112013,27.1771,0.960079,2.89391,0.0239107,
0.0437573,-0.00426486,-0.0631817,-1.79214,0.00712189,0.233226,-0.0028643,-9.34591e-05,0.0146468,-0.000118531,-0.0213779,-0.00313973,0.0344533,-0.000248137,0,0,0,0,0,0,0,0.0450138,25.3802,0.0301564,-24.1169,-0.615402,1.4173,-0.0214846,0.0437862,-0.00430002,-0.0631533,-1.79212,0.00718459,0.233256,-0.00286495,-0.00213835,0.000754983,-0.00099869,-0.00325115,-0.00237451,0.000676252,0.000484401,0,0,0,0,0,0,0,0.0828892,-34.8952,0.112013,27.1771,0.960079,2.89391,0.0239107,
0.0437532,-0.00425877,-0.0631857,-1.79215,0.00711208,0.233222,-0.00286426,-0.00017549,0.0118698,-0.00019373,-0.0171741,-0.00275688,0.0274761,-0.000197694,0,0,0,0,0,0,0,0.0394365,25.9121,0.0213356,-23.9469,-0.613255,1.03417,-0.0194918,0.0437844,-0.00403392,-0.0631524,-1.7923,0.00719594,0.233356,-0.00286295,-0.00659665,0.0349542,0.000251319,-0.00995998,-0.00987736,0.0198367,0.00122723,-0.557287,4.27491,0.156251,-0.838604,-0.937856,2.39506,0.0928538,0.158268,-30.2773,0.187391,22.468,0.862118,2.08459,0.0101778,
0.0437723,-0.00340666,-0.063165,-1.79293,0.00697511,0.233701,-0.00285883,-0.000441315,0.0251773,-0.000468842,-0.0294469,-0.00772626,0.0305996,-5.53092e-05,0,0,0,0,0,0,0,0.0003722,30.5355,-0.00321696,-23.2125,-1.02779,-2.2008,0.000409328,0.0437844,-0.00403392,-0.0631524,-1.7923,0.00719594,0.233356,-0.00286295,-0.00659665,0.0349542,0.000251319,-0.00995998,-0.00987736,0.0198367,0.00122723,0,0,0,0,0,0,0,0.158268,-30.2773,0.187391,22.468,0.862118,2.08459,0.0101778,
0.043708,-0.00283919,-0.0632297,-1.79323,0.00778481,0.23311,-0.00287487,-0.00196068,0.0343285,-0.00199213,-0.0309619,0.0140613,0.00971297,-0.000445275,0,0,0,0,0,0,0,0.493306,0.183849,0.494574,-0.273311,3.32359,-1.89077,-0.00181371,0.0437844,-0.00403392,-0.0631524,-1.7923,0.00719594,0.233356,-0.00286295,-0.00659665,0.0349542,0.000251319,-0.00995998,-0.00987736,0.0198367,0.00122723,0,0,0,0,0,0,0,0.158268,-30.2773,0.187391,22.468,0.862118,2.08459,0.0101778,
0.0436281,-0.00238892,-0.0633092,-1.79343,0.00921683,0.232087,-0.00288507,-0.00356695,0.0387195,-0.00358247,-0.0298646,0.0470496,-0.0178101,-0.000611164,0,0,0,0,0,0,0,0.487036,0.183344,0.48829,-0.27079,3.29579,-1.87472,-0.00177761,0.0437844,-0.00403392,-0.0631524,-1.7923,0.00719594,0.233356,-0.00286295,-0.00659665,0.0349542,0.000251319,-0.00995998,-0.00987736,0.0198367,0.00122723,0,0,0,0,0,0,0,0.158268,-30.2773,0.187391,22.468,0.862118,2.08459,0.0101778,
0.0435512,-0.00203953,-0.0633854,-1.7936,0.0110226,0.230831,-0.00289096,-0.00477457,0.0397105,-0.00477052,-0.027992,0.082783,-0.0456611,-0.000636032,0,0,0,0,0,0,0,0.480627,0.201009,0.482405,-0.263634,3.2687,-1.85302,-0.00178156,0.0437898,-0.00343449,-0.0631473,-1.79288,0.00719451,0.233469,-0.00286738,-0.000167502,0.0515999,-9.88341e-05,-0.0234791,-0.0051833,0.00484656,-0.000600783,0.803643,2.0807,-0.0437691,-1.68989,0.586758,-1.87377,-0.228502,-0.0440639,-31.4754,-0.0625476,23.7653,0.874935,2.31072,0.050461,
0.0437979,-0.00269516,-0.0631403,-1.79358,0.00699858,0.233685,-0.00286416,-0.00361684,0.0502516,-0.00364132,-0.0399652,0.0613281,-0.0311389,-0.000428253,0,0,0,0,0,0,0,0.000179681,30.5535,-0.0028769,-23.2081,-1.02723,-2.19525,0.000379873,0.0437898,-0.00343449,-0.0631473,-1.79288,0.00719451,0.233469,-0.00286738,-0.000167502,0.0515999,-9.88341e-05,-0.0234791,-0.0051833,0.00484656,-0.000600783,0,0,0,0,0,0,0,-0.0440639,-31.4754,-0.0625476,23.7653,0.874935,2.31072,0.050461,
0.0436798,-0.002024,-0.0632595,-1.79379,0.0100418,0.231389,-0.00291088,-0.00584561,0.0569803,-0.00589375,-0.0371821,0.125142,-0.082302,-0.00151072,0,0,0,0,0,0,0,4.27586,0.442594,4.28098,-1.78866,10.9728,-7.87412,-0.00468569,0.0437898,-0.00343449,-0.0631473,-1.79288,0.00719451,0.233469,-0.00286738,-0.000167502,0.0515999,-9.88341e-05,-0.0234791,-0.0051833,0.00484656,-0.000600783,0,0,0,0,0,0,0,-0.0440639,-31.4754,-0.0625476,23.7653,0.874935,2.31072,0.050461,
0.04354,-0.00151799,-0.0633985,-1.79392,0.0150434,0.227764,-0.00293817,-0.00817141,0.0582346,-0.00818911,-0.0329498,0.225156,-0.156466,-0.00189064,0,0,0,0,0,0,0,4.21088,0.547619,4.21559,-1.71256,10.9728,-7.66754,-0.00390273,0.0437898,-0.00343449,-0.0631473,-1.79288,0.00719451,0.233469,-0.00286738,-0.000167502,0.0515999,-9.88341e-05,-0.0234791,-0.0051833,0.00484656,-0.000600783,0,0,0,0,0,0,0,-0.0440639,-31.4754,-0.0625476,23.7653,0.874935,2.31072,0.050461,
0.0437979,-0.00269516,-0.0631403,-1.79358,0.00699858,0.233685,-0.00286416,-0.0063343,0.0650708,-0.00637619,-0.0439315,0.175226,-0.119783,-0.00143194,0,0,0,0,0,0,0,6.15378e-05,30.5909,-0.00181388,-23.2005,-1.02629,-2.1846,0.000321895,0.0437764,-0.00210563,-0.0631663,-1.7938,0.00718375,0.233424,-0.00286895,0.00201192,0.0521488,-0.00172561,-0.0354165,-0.0106151,-0.00289959,-0.00124004,0.272428,0.0686199,-0.203347,-1.49218,-0.678977,-0.968269,-0.079907,-0.0956386,-33.4709,-0.0863513,26.7526,1.01501,2.71447,0.0641939,
0.0441798,-0.00215395,-0.0627479,-1.79397,0.00908426,0.229989,-0.00278965,0.00447944,0.0655871,0.00470971,-0.0447151,0.192323,-0.188227,0.000717209,0,0,0,0,0,0,0,29.5887,1.39287,29.6252,-11.1199,10.9737,-14.1846,0.0962252,0.0437764,-0.00210563,-0.0631663,-1.7938,0.00718375,0.233424,-0.00286895,0.00201192,0.0521488,-0.00172561,-0.0354165,-0.0106151,-0.00289959,-0.00124004,0,0,0,0,0,0,0,-0.0956386,-33.4709,-0.0863513,26.7526,1.01501,2.71447,0.0641939,
0.0448691,-0.00176393,-0.0620494,-1.79427,0.0128423,0.223841,-0.00270219,0.0208169,0.0622201,0.0212284,-0.0434124,0.247811,-0.304285,0.00276023,0,0,0,0,0,0,0,28.0868,2.56885,28.1188,-9.2323,10.9737,-14.1846,0.105402,0.0437764,-0.00210563,-0.0631663,-1.7938,0.00718375,0.233424,-0.00286895,0.00201192,0.0521488,-0.00172561,-0.0354165,-0.0106151,-0.00289959,-0.00124004,0,0,0,0,0,0,0,-0.0956386,-33.4709,-0.0863513,26.7526,1.01501,2.71447,0.0641939,
0.0457982,-0.00148101,-0.0611122,-1.79458,0.0178359,0.216092,-0.00260485,0.0398827,0.056849,0.040414,-0.0423455,0.323087,-0.437142,0.00464181,0,0,0,0,0,0,0,26.6007,2.33992,26.6364,-7.85641,10.9737,-14.1846,0.115904,0.0437764,-0.00210563,-0.0631663,-1.7938,0.00718375,0.233424,-0.00286895,0.00201192,0.0521488,-0.00172561,-0.0354165,-0.0106151,-0.00289959,-0.00124004,0,0,0,0,0,0,0,-0.0956386,-33.4709,-0.0863513,26.7526,1.01501,2.71447,0.0641939,
0.0437856,-0.00134164,-0.0631585,-1.79454,0.00695705,0.233552,-0.00286593,0.032136,0.0645789,0.0325241,-0.0524309,0.252802,-0.34652,0.00378897,0,0,0,0,0,0,0,6.15378e-05,30.5909,-0.00181388,-23.2005,-1.02629,-2.1846,0.000321895,0.0437764,-0.00210563,-0.0631663,-1.7938,0.00718375,0.233424,-0.00286895,0.00201192,0.0521488,-0.00172561,-0.0354165,-0.0106151,-0.00289959,-0.00124004,0,0,0,0,0,0,0,-0.0956386,-33.4709,-0.0863513,26.7526,1.01501,2.71447,0.0641939,
0.04442,-0.00106616,-0.0625148,-1.79554,0.00858154,0.230242,-0.00259382,0.0415676,0.0585501,0.0421122,-0.0670329,0.242854,-0.359976,0.00983394,0,0,0,0,0,0,0,42.2915,-2.40346,42.227,-21.7683,10.9753,-14.1692,0.32549,0.0438285,-0.000292698,-0.0630354,-1.79511,0.00725144,0.233332,-0.0028681,0.010003,0.0513086,0.021879,-0.0548577,0.000816897,-0.00406198,-0.00103474,0.998883,-0.105027,2.95057,-2.43015,1.429,-0.145299,0.0256619,3.05042,-35.5934,3.0359,28.772,1.32629,2.8875,0.0440523,
0.0454754,-0.000954784,-0.0614577,-1.79656,0.0118446,0.224459,-0.00244077,0.0596402,0.0496245,0.0601179,-0.0791101,0.275859,-0.432549,0.0116932,0,0,0,0,0,0,0,37.4027,0.479864,37.3058,-19.6546,10.9753,-14.1692,0.169736,0.0438285,-0.000292698,-0.0630354,-1.79511,0.00725144,0.233332,-0.0028681,0.010003,0.0513086,0.021879,-0.0548577,0.000816897,-0.00406198,-0.00103474,0,0,0,0,0,0,0,3.05042,-35.5934,3.0359,28.772,1.32629,2.8875,0.0440523,
0.0468157,-0.00087573,-0.0601181,-1.79756,0.0164492,0.216989,-0.00235748,0.0812194,0.0416759,0.0815841,-0.0881039,0.335802,-0.532781,0.0114369,0,0,0,0,0,0,0,34.0048,2.20339,33.919,-17.7497,10.9753,-14.1692,0.0907602,0.0438285,-0.000292698,-0.0630354,-1.79511,0.00725144,0.233332,-0.0028681,0.010003,0.0513086,0.021879,-0.0548577,0.000816897,-0.00406198,-0.00103474,0,0,0,0,0,0,0,3.05042,-35.5934,3.0359,28.772,1.32629,2.8875,0.0440523,
0.0439346,0.000502546,-0.0629302,-1.79591,0.00713254,0.233374,-0.00286718,0.0676265,0.0532219,0.0678993,-0.0904374,0.265669,-0.425164,0.00917252,0,0,0,0,0,0,0,0.000366674,30.6425,0.000106991,-23.1891,-1.02474,-2.1692,0.00023298,0.0438285,-0.000292698,-0.0630354,-1.79511,0.00725144,0.233332,-0.0028681,0.010003,0.0513086,0.021879,-0.0548577,0.000816897,-0.00406198,-0.00103474,0,0,0,0,0,0,0,3.05042,-35.5934,3.0359,28.772,1.32629,2.8875,0.0440523,
0.0448194,0.000609211,-0.0620462,-1.79742,0.0085808,0.23037,-0.00248065,0.0762215,0.0452441,0.0764173,-0.110191,0.248742,-0.415242,0.0170014,0,0,0,0,0,0,0,50.9764,-4.02263,50.7044,-30.7879,10.9773,-14.1468,0.458023,0.0444899,0.0014044,-0.0617058,-1.79733,0.00768095,0.232843,-0.00286339,0.0264915,0.0356966,0.060783,-0.0866344,0.0124398,-0.0196483,0.000454378,2.06106,-1.9515,4.86301,-3.97209,1.45286,-1.94829,0.18614,7.02961,-36.7677,6.96351,28.1253,1.58264,2.61559,0.00376909,
0.046171,0.000582347,-0.0606948,-1.79898,0.0116486,0.224855,-0.00231511,0.0947665,0.0355237,0.094919,-0.127111,0.275689,-0.470055,0.0177395,0,0,0,0,0,0,0,43.238,0.505346,43.0913,-27.6499,10.9773,-14.1468,0.174998,0.0444899,0.0014044,-0.0617058,-1.79733,0.00768095,0.232843,-0.00286339,0.0264915,0.0356966,0.060783,-0.0866344,0.0124398,-0.0196483,0.000454378,0,0,0,0,0,0,0,7.02961,-36.7677,6.96351,28.1253,1.58264,2.61559,0.00376909,
0.0447644,0.00217378,-0.0614318,-1.7982,0.00771433,0.232671,-0.00286584,0.0826744,0.0476535,0.082786,-0.123498,0.221386,-0.380349,0.0141303,0,0,0,0,0,0,0,0.00311879,30.6928,0.00430713,-23.173,-1.02273,-2.14675,0.000107518,0.0444899,0.0014044,-0.0617058,-1.79733,0.00768095,0.232843,-0.00286339,0.0264915,0.0356966,0.060783,-0.0866344,0.0124398,-0.0196483,0.000454378,0,0,0,0,0,0,0,7.02961,-36.7677,6.96351,28.1253,1.58264,2.61559,0.00376909,
0.0458935,0.00213187,-0.0602975,-1.80015,0.00914872,0.229833,-0.00241515,0.0943688,0.037075,0.0945854,-0.147581,0.212969,-0.375229,0.0225715,0,0,0,0,0,0,0,56.9341,-4.40636,56.6767,-38.7797,10.9773,-14.1468,0.532926,0.0444899,0.0014044,-0.0617058,-1.79733,0.00768095,0.232843,-0.00286339,0.0264915,0.0356966,0.060783,-0.0866344,0.0124398,-0.0196483,0.000454378,0,0,0,0,0,0,0,7.02961,-36.7677,6.96351,28.1253,1.58264,2.61559,0.00376909,
0.0475019,0.00199362,-0.0586903,-1.80219,0.0122077,0.224503,-0.00227197,0.115704,0.0262037,0.115849,-0.16889,0.24685,-0.433425,0.0216368,0,0,0,0,0,0,0,46.8486,1.06334,46.6729,-34.8433,10.9821,-14.1144,0.141675,0.0462337,0.0026261,-0.0590958,-1.80105,0.00812538,0.232048,-0.00286327,0.0562514,0.0321982,0.107001,-0.125073,0.000757179,-0.0243291,0.000351946,3.71999,-0.437297,5.77727,-4.80486,-1.46033,-0.585099,-0.012804,8.06903,-34.1731,7.9355,23.5391,1.62567,1.88592,0.00376909,
0.0493826,0.00189924,-0.0568129,-1.80421,0.0167337,0.217429,-0.00230851,0.139581,0.0186036,0.139616,-0.185683,0.31063,-0.523596,0.0163958,0,0,0,0,0,0,0,40.5693,3.07291,40.443,-32.5345,10.9821,-14.1144,-0.0619666,0.0462337,0.0026261,-0.0590958,-1.80105,0.00812538,0.232048,-0.00286327,0.0562514,0.0321982,0.107001,-0.125073,0.000757179,-0.0243291,0.000351946,0,0,0,0,0,0,0,8.06903,-34.1731,7.9355,23.5391,1.62567,1.88592,0.00376909,
0.0467353,0.00344671,-0.0585957,-1.80203,0.00822884,0.231696,-0.00287266,0.124205,0.0353983,0.124196,-0.173163,0.25109,-0.427665,0.0128819,0,0,0,0,0,0,0,0.00925888,30.736,0.0112741,-23.1478,-1.01788,-2.11441,-6.55577e-05,0.0462337,0.0026261,-0.0590958,-1.80105,0.00812538,0.232048,-0.00286327,0.0562514,0.0321982,0.107001,-0.125073,0.000757179,-0.0243291,0.000351946,0,0,0,0,0,0,0,8.06903,-34.1731,7.9355,23.5391,1.62567,1.88592,0.00376909,
0.0481242,0.00337936,-0.057208,-1.80437,0.00968538,0.22898,-0.00239489,0.134087,0.026635,0.134049,-0.196863,0.237286,-0.410039,0.0222496,0,0,0,0,0,0,0,61.325,-3.205,60.95,-45.5888,10.9821,-14.1144,0.565534,0.0462337,0.0026261,-0.0590958,-1.80105,0.00812538,0.232048,-0.00286327,0.0562514,0.0321982,0.107001,-0.125073,0.000757179,-0.0243291,0.000351946,0,0,0,0,0,0,0,8.06903,-34.1731,7.9355,23.5391,1.62567,1.88592,0.00376909,
0.0499715,0.00324197,-0.0553637,-1.80682,0.0128111,0.223802,-0.0023024,0.153452,0.0178732,0.153347,-0.21885,0.267971,-0.457481,0.0201119,0,0,0,0,0,0,0,49.1279,2.58243,48.926,-41.1333,10.9909,-14.0748,0.0767109,0.0487473,0.00367427,-0.0550831,-1.80609,0.00809027,0.231199,-0.00286596,0.0714471,0.0442107,0.144918,-0.169968,-0.014811,-0.0348832,-0.00208314,1.89946,1.50155,4.73965,-5.61189,-1.94602,-1.31927,-0.304386,7.23194,-30.5034,6.78895,19.8773,1.75384,1.13701,0.0376436,
0.0520558,0.00316264,-0.0532838,-1.80929,0.0174609,0.216882,-0.00243481,0.17487,0.0123154,0.174674,-0.236874,0.330623,-0.538971,0.0127795,0,0,0,0,0,0,0,41.7147,4.15707,41.5799,-38.8454,10.9909,-14.0748,-0.17971,0.0487473,0.00367427,-0.0550831,-1.80609,0.00809027,0.231199,-0.00286596,0.0714471,0.0442107,0.144918,-0.169968,-0.014811,-0.0348832,-0.00208314,0,0,0,0,0,0,0,7.23194,-30.5034,6.78895,19.8773,1.75384,1.13701,0.0376436,
0.0538032,0.00341986,-0.0500244,-1.81272,0.0188941,0.215785,-0.00315386,0.18781,0.00760411,0.187574,-0.247875,0.392966,-0.605616,0.00451684,0,0,0,0,0,0,0,49.1279,2.58243,48.926,-41.1333,10.9909,-14.0748,0.0767109,0.0487473,0.00367427,-0.0550831,-1.80609,0.00809027,0.231199,-0.00286596,0.0714471,0.0442107,0.144918,-0.169968,-0.014811,-0.0348832,-0.00208314,0,0,0,0,0,0,0,7.23194,-30.5034,6.78895,19.8773,1.75384,1.13701,0.0376436,
0.0558277,0.00333603,-0.0480038,-1.81517,0.0251063,0.207698,-0.00336598,0.200863,0.00398735,0.200573,-0.25955,0.469679,-0.686669,-0.00168934,0,0,0,0,0,0,0,41.7147,4.15707,41.5799,-38.8454,10.9909,-14.0748,-0.17971,0.0487473,0.00367427,-0.0550831,-1.80609,0.00809027,0.231199,-0.00286596,0.0714471,0.0442107,0.144918,-0.169968,-0.014811,-0.0348832,-0.00208314,0,0,0,0,0,0,0,7.23194,-30.5034,6.78895,19.8773,1.75384,1.13701,0.0376436,
0.0578932,0.00324294,-0.0459427,-1.81773,0.0321417,0.198844,-0.00357688,0.212328,0.000862787,0.211986,-0.271842,0.551627,-0.770681,-0.00662408,0,0,0,0,0,0,0,37.0569,3.95283,36.9534,-37.3498,11.0085,-14.012,-0.289285,0.0518672,0.00425711,-0.0497873,-1.81312,0.00838579,0.230169,-0.00286908,0.118125,0.0239438,0.206185,-0.258587,0.0147756,-0.0325556,-0.000606354,5.83476,-2.53336,7.65836,-11.0773,3.69832,0.290958,0.184598,7.71595,-31.3762,7.41182,22.8925,1.71722,1.36223,0.0239107,
0.0552541,0.00435248,-0.0463969,-1.81751,0.0152457,0.220897,-0.00324779,0.214644,0.00119964,0.214305,-0.27369,0.549639,-0.760097,-0.0111547,0,0,0,0,0,0,0,41.7398,4.21354,41.6047,-38.7945,11.0085,-14.012,-0.180056,0.0518672,0.00425711,-0.0497873,-1.81312,0.00838579,0.230169,-0.00286908,0.118125,0.0239438,0.206185,-0.258587,0.0147756,-0.0325556,-0.000606354,0,0,0,0,0,0,0,7.71595,-31.3762,7.41182,22.8925,1.71722,1.36223,0.0239107,
0.057166,0.00432796,-0.0444885,-1.81989,0.0209025,0.213657,-0.00346311,0.219511,0.000346814,0.219155,-0.278381,0.581131,-0.789088,-0.0143068,0,0,0,0,0,0,0,37.0569,3.95283,36.9534,-37.3498,11.0085,-14.012,-0.289285,0.0518672,0.00425711,-0.0497873,-1.81312,0.00838579,0.230169,-0.00286908,0.118125,0.0239438,0.206185,-0.258587,0.0147756,-0.0325556,-0.000606354,0,0,0,0,0,0,0,7.71595,-31.3762,7.41182,22.8925,1.71722,1.36223,0.0239107,
0.0591338,0.00426163,-0.0425245,-1.8224,0.0275449,0.205389,-0.00367562,0.224805,-0.00138087,0.224424,-0.285432,0.630965,-0.83798,-0.0167582,0,0,0,0,0,0,0,33.7422,2.66955,33.6564,-36.711,11.0085,-14.012,-0.261261,0.0518672,0.00425711,-0.0497873,-1.81312,0.00838579,0.230169,-0.00286908,0.118125,0.0239438,0.206185,-0.258587,0.0147756,-0.0325556,-0.000606354,0,0,0,0,0,0,0,7.71595,-31.3762,7.41182,22.8925,1.71722,1.36223,0.0239107,
0.0611073,0.00419272,-0.040555,-1.82498,0.0349182,0.196371,-0.00392562,0.229182,-0.00282738,0.228778,-0.292827,0.689103,-0.895813,-0.0196566,0,0,0,0,0,0,0,30.4973,1.32474,30.4292,-36.5028,11.0306,-13.9179,-0.258156,0.0565813,0.00443219,-0.0416385,-1.82294,0.0109348,0.226746,-0.00287037,0.138246,0.0167311,0.273591,-0.327127,0.0898382,-0.12766,-0.000814335,2.51509,-0.901596,8.42577,-8.56754,9.38282,-11.888,-0.0259976,2.51484,-36.7439,2.33766,30.7874,1.93145,2.3034,0.0440523,
0.0602464,0.00470262,-0.0379701,-1.82762,0.0190762,0.216038,-0.0033333,0.230434,0.000172205,0.230009,-0.293394,0.674833,-0.875603,-0.0212933,0,0,0,0,0,0,0,37.1028,4.00142,36.9982,-37.2816,11.0306,-13.9179,-0.289758,0.0565813,0.00443219,-0.0416385,-1.82294,0.0109348,0.226746,-0.00287037,0.138246,0.0167311,0.273591,-0.327127,0.0898382,-0.12766,-0.000814335,0,0,0,0,0,0,0,2.51484,-36.7439,2.33766,30.7874,1.93145,2.3034,0.0440523,
0.0621769,0.00471838,-0.0360437,-1.8301,0.0252599,0.208359,-0.00355033,0.232609,0.000531892,0.232166,-0.296877,0.694458,-0.892462,-0.0224604,0,0,0,0,0,0,0,33.7881,2.71814,33.7013,-36.6428,11.0306,-13.9179,-0.261735,0.0565813,0.00443219,-0.0416385,-1.82294,0.0109348,0.226746,-0.00287037,0.138246,0.0167311,0.273591,-0.327127,0.0898382,-0.12766,-0.000814335,0,0,0,0,0,0,0,2.51484,-36.7439,2.33766,30.7874,1.93145,2.3034,0.0440523,
0.0641119,0.0047013,-0.0341127,-1.83266,0.032331,0.199744,-0.0038029,0.234464,-1.5696e-06,0.234009,-0.301465,0.732344,-0.929334,-0.0242826,0,0,0,0,0,0,0,30.4973,1.32474,30.4292,-36.5028,11.0306,-13.9179,-0.258156,0.0565813,0.00443219,-0.0416385,-1.82294,0.0109348,0.226746,-0.00287037,0.138246,0.0167311,0.273591,-0.327127,0.0898382,-0.12766,-0.000814335,0,0,0,0,0,0,0,2.51484,-36.7439,2.33766,30.7874,1.93145,2.3034,0.0440523,
0.0660315,0.00468514,-0.032197,-1.83527,0.0400152,0.190598,-0.00406522,0.235561,-0.000405231,0.235099,-0.30632,0.77798,-0.972112,-0.0259842,0,0,0,0,0,0,0,27.5072,0.966262,27.4577,-35.913,11.0306,-13.9179,-0.306483,0.0565813,0.00443219,-0.0416385,-1.82294,0.0109348,0.226746,-0.00287037,0.138246,0.0167311,0.273591,-0.327127,0.0898382,-0.12766,-0.000814335,0,0,0,0,0,0,0,2.51484,-36.7439,2.33766,30.7874,1.93145,2.3034,0.0440523,
0.0583628,0.00460525,-0.0398496,-1.82525,0.0141342,0.222396,-0.00311058,0.232988,0.00400241,0.232802,-0.302904,0.702368,-0.886436,-0.0267926,0,0,0,0,0,0,0,37.1028,4.00142,36.9982,-37.2816,11.0306,-13.9179,-0.289758,0.0565813,0.00443219,-0.0416385,-1.82294,0.0109348,0.226746,-0.00287037,0.138246,0.0167311,0.273591,-0.327127,0.0898382,-0.12766,-0.000814335,0,0,0,0,0,0,0,2.51484,-36.7439,2.33766,30.7874,1.93145,2.3034,0.0440523,
0.0602464,0.00470262,-0.0379701,-1.82762,0.0190762,0.216038,-0.0033333,0.233479,0.00563604,0.233229,-0.301456,0.685445,-0.868101,-0.0270021,0,0,0,0,0,0,0,33.7881,2.71814,33.7013,-36.6428,11.0306,-13.9179,-0.261735,0.0565813,0.00443219,-0.0416385,-1.82294,0.0109348,0.226746,-0.00287037,0.138246,0.0167311,0.273591,-0.327127,0.0898382,-0.12766,-0.000814335,0,0,0,0,0,0,0,2.51484,-36.7439,2.33766,30.7874,1.93145,2.3034,0.0440523,
0.0621769,0.00471838,-0.0360437,-1.8301,0.0252599,0.208359,-0.00355033,0.235045,0.00490296,0.234742,-0.303326,0.702948,-0.886461,-0.0270275,0,0,0,0,0,0,0,30.4973,1.32474,30.4292,-36.5028,11.0306,-13.9179,-0.258156,0.0565813,0.00443219,-0.0416385,-1.82294,0.0109348,0.226746,-0.00287037,0.138246,0.0167311,0.273591,-0.327127,0.0898382,-0.12766,-0.000814335,0,0,0,0,0,0,0,2.51484,-36.7439,2.33766,30.7874,1.93145,2.3034,0.0440523,
0.0583628,0.00460525,-0.0398496,-1.82525,0.0141342,0.222396,-0.00311058,0.232575,0.00824897,0.232517,-0.300509,0.642343,-0.817915,-0.0276272,0,0,0,0,0,0,0,37.1028,4.00142,36.9982,-37.2816,11.0306,-13.9179,-0.289758,0.0565813,0.00443219,-0.0416385,-1.82294,0.0109348,0.226746,-0.00287037,0.138246,0.0167311,0.273591,-0.327127,0.0898382,-0.12766,-0.000814335,0,0,0,0,0,0,0,2.51484,-36.7439,2.33766,30.7874,1.93145,2.3034,0.0440523,
0.0602464,0.00470262,-0.0379701,-1.82762,0.0190762,0.216038,-0.0033333,0.233149,0.00903328,0.233001,-0.29954,0.637425,-0.813284,-0.0276698,0,0,0,0,0,0,0,33.834,2.71002,33.7457,-36.5531,11.0482,-13.817,-0.262232,0.0613346,0.00448251,-0.0306764,-1.83407,0.0139877,0.220321,-0.00286372,0.151605,0.00181742,0.351948,-0.319832,0.0782211,-0.212255,-4.71341e-05,1.66988,-1.8642,9.79462,0.911816,-1.45213,-10.5744,0.0959001,1.63013,-37.589,1.3379,28.8474,1.79046,2.02508,0.017502,
0.0621769,0.00471838,-0.0360437,-1.8301,0.0252599,0.208359,-0.00355033,0.234781,0.00762076,0.23456,-0.301793,0.664532,-0.842607,-0.0275616,0,0,0,0,0,0,0,30.5432,1.31663,30.4735,-36.413,11.0482,-13.817,-0.258654,0.0613346,0.00448251,-0.0306764,-1.83407,0.0139877,0.220321,-0.00286372,0.151605,0.00181742,0.351948,-0.319832,0.0782211,-0.212255,-4.71341e-05,0,0,0,0,0,0,0,1.63013,-37.589,1.3379,28.8474,1.79046,2.02508,0.017502,
0.0641119,0.0047013,-0.0341127,-1.83266,0.032331,0.199744,-0.0038029,0.236201,0.00566952,0.235923,-0.305398,0.708403,-0.88945,-0.0283635,0,0,0,0,0,0,0,27.5531,0.958149,27.502,-35.8232,11.0482,-13.817,-0.306981,0.0613346,0.00448251,-0.0306764,-1.83407,0.0139877,0.220321,-0.00286372,0.151605,0.00181742,0.351948,-0.319832,0.0782211,-0.212255,-4.71341e-05,0,0,0,0,0,0,0,1.63013,-37.589,1.3379,28.8474,1.79046,2.02508,0.017502,
0.0653035,0.00452584,-0.0267041,-1.83875,0.0227234,0.208974,-0.00332573,0.238483,0.00413523,0.238106,-0.303771,0.699257,-0.876376,-0.0284177,0,0,0,0,0,0,0,33.834,2.71002,33.7457,-36.5531,11.0482,-13.817,-0.262232,0.0613346,0.00448251,-0.0306764,-1.83407,0.0139877,0.220321,-0.00286372,0.151605,0.00181742,0.351948,-0.319832,0.0782211,-0.212255,-4.71341e-05,0,0,0,0,0,0,0,1.63013,-37.589,1.3379,28.8474,1.79046,2.02508,0.017502,
0.0672559,0.00446846,-0.0247569,-1.84121,0.0292761,0.20113,-0.00358562,0.239597,0.00187365,0.239165,-0.304478,0.723223,-0.897206,-0.0292314,0,0,0,0,0,0,0,30.5025,1.09427,30.4313,-36.3574,11.0141,-13.7819,-0.25893,0.0655165,0.00421167,-0.019547,-1.84513,0.0155335,0.213419,-0.00286821,0.0933877,-0.0297012,0.290679,-0.272281,-0.000365875,-0.164389,-0.000837047,-7.27714,-3.93983,-7.65867,5.94396,-9.82338,5.98324,-0.0987391,-7.39941,-40.0606,-7.40996,30.6406,1.25305,2.5158,0.0706026,
0.0691763,0.00440634,-0.0228411,-1.84373,0.0366533,0.192542,-0.00385222,0.239687,-5.4108e-05,0.239228,-0.306628,0.763009,-0.932452,-0.0300501,0,0,0,0,0,0,0,27.5124,0.735788,27.4598,-35.7676,11.0141,-13.7819,-0.307258,0.0655165,0.00421167,-0.019547,-1.84513,0.0155335,0.213419,-0.00286821,0.0933877,-0.0297012,0.290679,-0.272281,-0.000365875,-0.164389,-0.000837047,0,0,0,0,0,0,0,-7.39941,-40.0606,-7.40996,30.6406,1.25305,2.5158,0.0706026,
0.0710663,0.00434985,-0.0209552,-1.84638,0.0445729,0.184121,-0.00410089,0.239001,-0.00145558,0.238528,-0.311559,0.808395,-0.956508,-0.0302568,0,0,0,0,0,0,0,25.5048,0.688609,25.4624,-34.9304,11.0141,-13.2895,-0.321084,0.0655165,0.00421167,-0.019547,-1.84513,0.0155335,0.213419,-0.00286821,0.0933877,-0.0297012,0.290679,-0.272281,-0.000365875,-0.164389,-0.000837047,0,0,0,0,0,0,0,-7.39941,-40.0606,-7.40996,30.6406,1.25305,2.5158,0.0706026,
0.0686469,0.00374255,-0.0164085,-1.84944,0.0233861,0.202896,-0.00336002,0.230735,-0.00729595,0.230264,-0.304297,0.769312,-0.92074,-0.0307889,0,0,0,0,0,0,0,30.5025,1.09427,30.4313,-36.3574,11.0141,-13.7819,-0.25893,0.0655165,0.00421167,-0.019547,-1.84513,0.0155335,0.213419,-0.00286821,0.0933877,-0.0297012,0.290679,-0.272281,-0.000365875,-0.164389,-0.000837047,0,0,0,0,0,0,0,-7.39941,-40.0606,-7.40996,30.6406,1.25305,2.5158,0.0706026,
0.0702514,0.00350575,-0.0148071,-1.85174,0.0295808,0.195489,-0.00362763,0.224701,-0.0117566,0.224247,-0.301096,0.770316,-0.921788,-0.0313214,0,0,0,0,0,0,0,27.514,0.658647,27.4601,-35.6929,11.0158,-13.7049,-0.307644,0.0688918,0.00424622,-0.00990764,-1.85433,0.0162962,0.207466,-0.00286261,0.0947103,-0.0244597,0.290541,-0.247134,0.0660967,-0.219255,-0.000694472,0.165321,0.655198,-0.0172151,3.14333,8.30782,-6.85829,0.0178219,0.336795,-36.7677,-0.0109729,24.0628,0.855709,1.53435,0.050461,
0.071877,0.00329043,-0.0131842,-1.85422,0.0366345,0.187937,-0.00387584,0.220402,-0.0147882,0.219968,-0.302739,0.792594,-0.926216,-0.0312622,0,0,0,0,0,0,0,25.5065,0.611468,25.4627,-34.8557,11.0158,-13.2125,-0.32147,0.0688918,0.00424622,-0.00990764,-1.85433,0.0162962,0.207466,-0.00286261,0.0947103,-0.0244597,0.290541,-0.247134,0.0660967,-0.219255,-0.000694472,0,0,0,0,0,0,0,0.336795,-36.7677,-0.0109729,24.0628,0.855709,1.53435,0.050461,
0.0735194,0.00310935,-0.0115446,-1.85686,0.044257,0.180951,-0.00409712,0.217381,-0.0163578,0.216964,-0.308172,0.824639,-0.915626,-0.0305418,0,0,0,0,0,0,0,24.149,0.409267,24.1084,-34.0673,11.0158,-10.7028,-0.303909,0.0688918,0.00424622,-0.00990764,-1.85433,0.0162962,0.207466,-0.00286261,0.0947103,-0.0244597,0.290541,-0.247134,0.0660967,-0.219255,-0.000694472,0,0,0,0,0,0,0,0.336795,-36.7677,-0.0109729,24.0628,0.855709,1.53435,0.050461,
0.0704571,0.00400555,-0.00833008,-1.85639,0.0195812,0.203004,-0.00308846,0.213036,-0.0191032,0.213011,-0.298045,0.741836,-0.84404,-0.0300795,0,0,0,0,0,0,0,30.5041,1.01713,30.4316,-36.2827,11.0158,-13.7049,-0.259316,0.0688918,0.00424622,-0.00990764,-1.85433,0.0162962,0.207466,-0.00286261,0.0947103,-0.0244597,0.290541,-0.247134,0.0660967,-0.219255,-0.000694472,0,0,0,0,0,0,0,0.336795,-36.7677,-0.0109729,24.0628,0.855709,1.53435,0.050461,
0.0720594,0.00373856,-0.00673139,-1.85858,0.0246974,0.19672,-0.00335014,0.210487,-0.0219572,0.210376,-0.293145,0.721373,-0.832338,-0.0306056,0,0,0,0,0,0,0,27.4934,0.581371,27.4383,-35.6479,10.9919,-13.6215,-0.307887,0.071346,0.00425019,-0.000722274,-1.86242,0.0211586,0.197271,-0.00286687,0.0480077,-0.00147483,0.257187,-0.242871,0.217067,-0.369013,-0.00111042,-5.83782,2.8731,-4.16925,0.532862,18.8712,-18.7198,-0.0519941,3.45508,-30.1543,3.11128,17.489,1.1679,0.387198,0.050461,
0.0736854,0.00348391,-0.00510857,-1.86088,0.0310296,0.189295,-0.00361698,0.209039,-0.023932,0.208871,-0.292009,0.735404,-0.851499,-0.0311555,0,0,0,0,0,0,0,25.4859,0.534192,25.4409,-34.8108,10.9919,-13.1291,-0.321713,0.071346,0.00425019,-0.000722274,-1.86242,0.0211586,0.197271,-0.00286687,0.0480077,-0.00147483,0.257187,-0.242871,0.217067,-0.369013,-0.00111042,0,0,0,0,0,0,0,3.45508,-30.1543,3.11128,17.489,1.1679,0.387198,0.050461,
0.075331,0.00325452,-0.00346585,-1.86334,0.0381754,0.181752,-0.00386497,0.208372,-0.0248804,0.208165,-0.295332,0.76697,-0.869781,-0.0311243,0,0,0,0,0,0,0,24.1284,0.331991,24.0866,-34.0223,10.9919,-10.6194,-0.304153,0.071346,0.00425019,-0.000722274,-1.86242,0.0211586,0.197271,-0.00286687,0.0480077,-0.00147483,0.257187,-0.242871,0.217067,-0.369013,-0.00111042,0,0,0,0,0,0,0,3.45508,-30.1543,3.11128,17.489,1.1679,0.387198,0.050461,
0.0740125,0.00394297,0.00195949,-1.86679,0.0306184,0.185372,-0.00338739,0.201073,-0.0242817,0.200872,-0.292537,0.750505,-0.862825,-0.0315505,0,0,0,0,0,0,0,27.4934,0.581371,27.4383,-35.6479,10.9919,-13.6215,-0.307887,0.071346,0.00425019,-0.000722274,-1.86242,0.0211586,0.197271,-0.00286687,0.0480077,-0.00147483,0.257187,-0.242871,0.217067,-0.369013,-0.00111042,0,0,0,0,0,0,0,3.45508,-30.1543,3.11128,17.489,1.1679,0.387198,0.050461,
0.0754517,0.00375894,0.00339701,-1.86923,0.0371096,0.178352,-0.00363435,0.196839,-0.0240263,0.196635,-0.294806,0.762684,-0.865766,-0.0314144,0,0,0,0,0,0,0,25.4899,0.466157,25.444,-34.7131,10.9632,-13.0082,-0.322269,0.0733287,0.00391437,0.00844801,-1.87075,0.0308975,0.183896,-0.00286344,0.0606935,0.0279899,0.279966,-0.251652,0.321134,-0.407555,-0.00132091,1.58572,3.68309,2.84728,-1.09765,13.0085,-4.81764,-0.0263104,0.158268,-33.9232,-0.185533,23.6145,1.01501,1.20293,0.0440523,
0.076943,0.00359009,0.00488644,-1.87183,0.0442896,0.171761,-0.00385453,0.194754,-0.0234422,0.194544,-0.300935,0.789648,-0.857388,-0.030636,0,0,0,0,0,0,0,24.1324,0.263956,24.0897,-33.9247,10.9632,-10.4984,-0.304708,0.0733287,0.00391437,0.00844801,-1.87075,0.0308975,0.183896,-0.00286344,0.0606935,0.0279899,0.279966,-0.251652,0.321134,-0.407555,-0.00132091,0,0,0,0,0,0,0,0.158268,-33.9232,-0.185533,23.6145,1.01501,1.20293,0.0440523,
0.0774923,0.00383758,0.0126235,-1.87812,0.0484119,0.169696,-0.00355165,0.191432,-0.02071,0.191208,-0.306451,0.803183,-0.801324,-0.0295904,0,0,0,0,0,0,0,24.1324,0.263956,24.0897,-33.9247,10.9632,-10.4984,-0.304708,0.0733287,0.00391437,0.00844801,-1.87075,0.0308975,0.183896,-0.00286344,0.0606935,0.0279899,0.279966,-0.251652,0.321134,-0.407555,-0.00132091,0,0,0,0,0,0,0,0.158268,-33.9232,-0.185533,23.6145,1.01501,1.20293,0.0440523,
0.0789508,0.0037521,0.0140798,-1.88085,0.0558401,0.165739,-0.00372802,0.189609,-0.018705,0.189374,-0.313367,0.828253,-0.739985,-0.0280815,0,0,0,0,0,0,0,23.0661,-0.228891,23.0252,-33.3496,10.9632,-7.78906,-0.275385,0.0733287,0.00391437,0.00844801,-1.87075,0.0308975,0.183896,-0.00286344,0.0606935,0.0279899,0.279966,-0.251652,0.321134,-0.407555,-0.00132091,0,0,0,0,0,0,0,0.158268,-33.9232,-0.185533,23.6145,1.01501,1.20293,0.0440523,
0.080435,0.00367281,0.0155617,-1.88363,0.0636488,0.162599,-0.0038838,0.188792,-0.0169461,0.188545,-0.320255,0.857821,-0.670493,-0.0263599,0,0,0,0,0,0,0,22.1563,-1.00446,22.1163,-32.8107,10.9254,-5.40037,-0.249971,0.0751126,0.00354845,0.0176996,-1.87903,0.0402997,0.170574,-0.00286275,0.058828,0.0066781,0.268483,-0.246126,0.25142,-0.351533,0.000179903,-0.233183,-2.66397,-1.43532,0.690824,-8.71422,7.00273,0.187601,-2.55536,-36.8907,-2.7603,29.2957,0.911556,2.06536,0.0101778,
0.0819359,0.00360557,0.01706,-1.88643,0.071714,0.160319,-0.00401746,0.188555,-0.0152379,0.188294,-0.326185,0.887886,-0.593405,-0.0244294,0,0,0,0,0,0,0,21.3595,-1.52921,21.3209,-32.4486,10.9254,-3.47313,-0.219727,0.0751126,0.00354845,0.0176996,-1.87903,0.0402997,0.170574,-0.00286275,0.058828,0.0066781,0.268483,-0.246126,0.25142,-0.351533,0.000179903,0,0,0,0,0,0,0,-2.55536,-36.8907,-2.7603,29.2957,0.911556,2.06536,0.0101778,
0.0789793,0.00313791,0.021576,-1.88661,0.0571598,0.162651,-0.00342107,0.183783,-0.0159947,0.183517,-0.327196,0.878186,-0.530887,-0.0235464,0,0,0,0,0,0,0,22.1563,-1.00446,22.1163,-32.8107,10.9254,-5.40037,-0.249971,0.0751126,0.00354845,0.0176996,-1.87903,0.0402997,0.170574,-0.00286275,0.058828,0.0066781,0.268483,-0.246126,0.25142,-0.351533,0.000179903,0,0,0,0,0,0,0,-2.55536,-36.8907,-2.7603,29.2957,0.911556,2.06536,0.0101778,
0.0803297,0.00299921,0.0229243,-1.8893,0.0644754,0.161023,-0.00355643,0.180788,-0.0162632,0.180521,-0.329111,0.885438,-0.465423,-0.0222211,0,0,0,0,0,0,0,21.3595,-1.52921,21.3209,-32.4486,10.9254,-3.47313,-0.219727,0.0751126,0.00354845,0.0176996,-1.87903,0.0402997,0.170574,-0.00286275,0.058828,0.0066781,0.268483,-0.246126,0.25142,-0.351533,0.000179903,0,0,0,0,0,0,0,-2.55536,-36.8907,-2.7603,29.2957,0.911556,2.06536,0.0101778,
0.0817077,0.00287965,0.0243001,-1.89201,0.0721901,0.160058,-0.00367269,0.17908,-0.0159995,0.178814,-0.33089,0.901218,-0.396472,-0.0206834,0,0,0,0,0,0,0,20.6461,-2.04705,20.6084,-31.9896,10.8975,-1.77377,-0.195872,0.0769555,0.0033202,0.0267296,-1.8869,0.0479679,0.158722,-0.00286308,0.0575162,-0.00683784,0.270143,-0.247652,0.240737,-0.335859,-0.00125549,-0.16397,-1.68949,0.20747,-0.190819,-1.33544,1.95917,-0.179424,2.72113,-34.1731,2.28609,27.2525,1.38763,1.68084,0.0440523,
0.0806993,0.00272923,0.0304823,-1.89466,0.0648168,0.154827,-0.00329781,0.174867,-0.0172582,0.174592,-0.331091,0.888885,-0.334668,-0.019548,0,0,0,0,0,0,0,20.6461,-2.04705,20.6084,-31.9896,10.8975,-1.77377,-0.195872,0.0769555,0.0033202,0.0267296,-1.8869,0.0479679,0.158722,-0.00286308,0.0575162,-0.00683784,0.270143,-0.247652,0.240737,-0.335859,-0.00125549,0,0,0,0,0,0,0,2.72113,-34.1731,2.28609,27.2525,1.38763,1.68084,0.0440523,
0.0819895,0.00258256,0.0317703,-1.89731,0.0721295,0.154716,-0.00339561,0.172147,-0.0174733,0.171873,-0.331162,0.893925,-0.270508,-0.0180834,0,0,0,0,0,0,0,20.0032,-2.26778,19.9669,-31.6179,10.8975,-0.460607,-0.167976,0.0769555,0.0033202,0.0267296,-1.8869,0.0479679,0.158722,-0.00286308,0.0575162,-0.00683784,0.270143,-0.247652,0.240737,-0.335859,-0.00125549,0,0,0,0,0,0,0,2.72113,-34.1731,2.28609,27.2525,1.38763,1.68084,0.0440523,
0.0833027,0.0024646,0.0330814,-1.89993,0.0798366,0.155157,-0.00347589,0.170548,-0.0169276,0.170277,-0.330594,0.907818,-0.205387,-0.0164738,0,0,0,0,0,0,0,19.4124,-2.35104,19.3776,-31.2239,10.8975,0.605308,-0.145254,0.0769555,0.0033202,0.0267296,-1.8869,0.0479679,0.158722,-0.00286308,0.0575162,-0.00683784,0.270143,-0.247652,0.240737,-0.335859,-0.00125549,0,0,0,0,0,0,0,2.72113,-34.1731,2.28609,27.2525,1.38763,1.68084,0.0440523,
0.0846327,0.00237141,0.0344094,-1.90252,0.0878088,0.15609,-0.00353849,0.16969,-0.0158719,0.169422,-0.329175,0.925558,-0.140982,-0.0147439,0,0,0,0,0,0,0,18.8713,-2.32132,18.838,-30.8094,10.8975,1.44641,-0.120063,0.0769555,0.0033202,0.0267296,-1.8869,0.0479679,0.158722,-0.00286308,0.0575162,-0.00683784,0.270143,-0.247652,0.240737,-0.335859,-0.00125549,0,0,0,0,0,0,0,2.72113,-34.1731,2.28609,27.2525,1.38763,1.68084,0.0440523,
0.0825056,0.00242722,0.0389046,-1.90391,0.0734522,0.148193,-0.00317362,0.165414,-0.0168162,0.165142,-0.329015,0.907488,-0.103013,-0.0138622,0,0,0,0,0,0,0,19.4081,-2.50435,19.3729,-31.1154,10.86,0.693413,-0.145842,0.0790003,0.00307227,0.0353931,-1.89604,0.0566423,0.148955,-0.00285978,0.0627482,-0.0309064,0.241822,-0.291133,0.254073,-0.240267,0.00113441,0.653993,-3.00857,-3.54007,-5.43513,1.66695,11.9491,0.298737,-0.452694,-35.645,-0.610033,29.9185,1.38763,2.5689,-0.0163725,
0.0837194,0.00230308,0.0401164,-1.9065,0.0807245,0.149109,-0.00323687,0.162675,-0.0165564,0.162409,-0.327934,0.907797,-0.0595145,-0.0126709,0,0,0,0,0,0,0,18.867,-2.47463,18.8333,-30.701,10.86,1.53451,-0.120651,0.0790003,0.00307227,0.0353931,-1.89604,0.0566423,0.148955,-0.00285978,0.0627482,-0.0309064,0.241822,-0.291133,0.254073,-0.240267,0.00113441,0,0,0,0,0,0,0,-0.452694,-35.645,-0.610033,29.9185,1.38763,2.5689,-0.0163725,
0.0849573,0.00220997,0.0413526,-1.90904,0.0883897,0.150469,-0.0032845,0.161088,-0.015573,0.16083,-0.325883,0.917868,-0.0136046,-0.0113277,0,0,0,0,0,0,0,18.3603,-2.36755,18.328,-30.2707,10.86,2.19229,-0.0996551,0.0790003,0.00307227,0.0353931,-1.89604,0.0566423,0.148955,-0.00285978,0.0627482,-0.0309064,0.241822,-0.291133,0.254073,-0.240267,0.00113441,0,0,0,0,0,0,0,-0.452694,-35.645,-0.610033,29.9185,1.38763,2.5689,-0.0163725,
0.0862133,0.00214043,0.0426067,-1.91153,0.0963206,0.152194,-0.00331678,0.16027,-0.014197,0.160017,-0.322936,0.932566,0.0322496,-0.00986906,0,0,0,0,0,0,0,17.888,-2.20585,17.8571,-29.8296,10.86,2.68618,-0.0772908,0.0790003,0.00307227,0.0353931,-1.89604,0.0566423,0.148955,-0.00285978,0.0627482,-0.0309064,0.241822,-0.291133,0.254073,-0.240267,0.00113441,0,0,0,0,0,0,0,-0.452694,-35.645,-0.610033,29.9185,1.38763,2.5689,-0.0163725,
0.0801552,0.00280719,0.0365594,-1.89864,0.0609948,0.14802,-0.0029873,0.157088,-0.0179845,0.157171,-0.323351,0.854866,0.00242164,-0.0110833,0,0,0,0,0,0,0,19.407,-2.62276,19.3712,-31.0042,10.8279,0.783803,-0.146402,0.0813403,0.00294743,0.044237,-1.90606,0.0655879,0.142411,-0.00285936,0.074737,-0.0133813,0.262437,-0.283175,0.270689,-0.15777,-0.00100307,1.49861,2.19064,2.57687,0.994745,2.07702,10.3121,-0.267185,-0.829586,-36.1687,-1.0623,27.9745,1.43066,2.40319,0.017502,
0.0813192,0.00259197,0.0377204,-1.90129,0.0667705,0.147802,-0.00309094,0.154769,-0.0197682,0.154762,-0.324779,0.828285,-0.00351905,-0.0114575,0,0,0,0,0,0,0,18.866,-2.59304,18.8316,-30.5898,10.8279,1.6249,-0.121211,0.0813403,0.00294743,0.044237,-1.90606,0.0655879,0.142411,-0.00285936,0.074737,-0.0133813,0.262437,-0.283175,0.270689,-0.15777,-0.00100307,0,0,0,0,0,0,0,-0.829586,-36.1687,-1.0623,27.9745,1.43066,2.40319,0.017502,
0.0825056,0.00242722,0.0389046,-1.90391,0.0734522,0.148193,-0.00317362,0.153477,-0.0199332,0.153415,-0.325498,0.82967,0.00695797,-0.011233,0,0,0,0,0,0,0,18.3593,-2.48596,18.3263,-30.1594,10.8279,2.28268,-0.100215,0.0813403,0.00294743,0.044237,-1.90606,0.0655879,0.142411,-0.00285936,0.074737,-0.0133813,0.262437,-0.283175,0.270689,-0.15777,-0.00100307,0,0,0,0,0,0,0,-0.829586,-36.1687,-1.0623,27.9745,1.43066,2.40319,0.017502,
0.0849936,0.00252841,0.047895,-1.91384,0.0828214,0.144189,-0.00307987,0.152958,-0.0184667,0.152837,-0.324765,0.83384,0.0353947,-0.0102871,0,0,0,0,0,0,0,18.3593,-2.48596,18.3263,-30.1594,10.8279,2.28268,-0.100215,0.0813403,0.00294743,0.044237,-1.90606,0.0655879,0.142411,-0.00285936,0.074737,-0.0133813,0.262437,-0.283175,0.270689,-0.15777,-0.00100307,0,0,0,0,0,0,0,-0.829586,-36.1687,-1.0623,27.9745,1.43066,2.40319,0.017502,
0.0862085,0.00245907,0.0491076,-1.91636,0.0901929,0.145805,-0.00311429,0.152739,-0.0165068,0.152584,-0.322732,0.851359,0.0687269,-0.0090902,0,0,0,0,0,0,0,17.8683,-2.45218,17.8358,-29.6474,10.7828,2.82773,-0.078236,0.0832065,0.00299784,0.0527191,-1.91494,0.0745438,0.13948,-0.00286159,0.0375438,-0.0097524,0.264773,-0.270624,0.2965,-0.0489665,-0.00100376,-4.64916,0.453616,0.292032,1.56897,3.22643,13.6005,-8.58327e-05,0.590702,-35.1213,0.413527,25.0586,0.898739,1.82,0.0376436,
0.0874331,0.0024117,0.0503301,-1.91881,0.0979354,0.147754,-0.00313435,0.152805,-0.0143898,0.152629,-0.3196,0.874651,0.103698,-0.00777353,0,0,0,0,0,0,0,17.4195,-2.26289,17.3882,-29.2005,10.7828,3.1923,-0.05924,0.0832065,0.00299784,0.0527191,-1.91494,0.0745438,0.13948,-0.00286159,0.0375438,-0.0097524,0.264773,-0.270624,0.2965,-0.0489665,-0.00100376,0,0,0,0,0,0,0,0.590702,-35.1213,0.413527,25.0586,0.898739,1.82,0.0376436,
0.0886648,0.00237928,0.0515597,-1.92121,0.105924,0.149958,-0.00314036,0.153036,-0.0123224,0.152844,-0.31561,0.899442,0.138052,-0.00636925,0,0,0,0,0,0,0,16.9954,-2.05918,16.9653,-28.7513,10.7828,3.44485,-0.0396839,0.0832065,0.00299784,0.0527191,-1.91494,0.0745438,0.13948,-0.00286159,0.0375438,-0.0097524,0.264773,-0.270624,0.2965,-0.0489665,-0.00100376,0,0,0,0,0,0,0,0.590702,-35.1213,0.413527,25.0586,0.898739,1.82,0.0376436,
0.0865492,0.00263899,0.0560718,-1.92243,0.091874,0.143453,-0.00298629,0.150336,-0.0119059,0.150121,-0.314246,0.889334,0.155843,-0.00565023,0,0,0,0,0,0,0,17.4195,-2.26289,17.3882,-29.2005,10.7828,3.1923,-0.05924,0.0832065,0.00299784,0.0527191,-1.91494,0.0745438,0.13948,-0.00286159,0.0375438,-0.0097524,0.264773,-0.270624,0.2965,-0.0489665,-0.00100376,0,0,0,0,0,0,0,0.590702,-35.1213,0.413527,25.0586,0.898739,1.82,0.0376436,
0.0876806,0.00258641,0.0572012,-1.92484,0.0992158,0.145577,-0.00299287,0.148555,-0.010839,0.148333,-0.311652,0.895014,0.177784,-0.00468476,0,0,0,0,0,0,0,16.975,-2.17652,16.9439,-28.7082,10.7348,3.47394,-0.0398056,0.0842402,0.00303729,0.0611694,-1.92342,0.0844722,0.139369,-0.00286437,0.0178262,-0.00106361,0.240492,-0.20899,0.287867,-0.00160048,-0.00109453,-2.46469,1.0861,-3.03517,7.7042,-1.07917,5.92076,-0.0113466,-0.222592,-34.2207,-0.288683,23.1662,0.624081,1.36864,0.0376436,
0.088827,0.00255306,0.0583457,-1.92719,0.106922,0.147927,-0.00298505,0.147503,-0.00950494,0.147278,-0.308089,0.908658,0.200982,-0.00355231,0,0,0,0,0,0,0,16.568,-1.97533,16.538,-28.2602,10.7348,3.64221,-0.0227584,0.0842402,0.00303729,0.0611694,-1.92342,0.0844722,0.139369,-0.00286437,0.0178262,-0.00106361,0.240492,-0.20899,0.287867,-0.00160048,-0.00109453,0,0,0,0,0,0,0,-0.222592,-34.2207,-0.288683,23.1662,0.624081,1.36864,0.0376436,
0.0899836,0.00253164,0.0595004,-1.92948,0.114873,0.150437,-0.00296541,0.146918,-0.00813951,0.146691,-0.303829,0.925709,0.223539,-0.00235085,0,0,0,0,0,0,0,16.1788,-1.78196,16.1498,-27.8155,10.7348,3.74262,-0.00524019,0.0842402,0.00303729,0.0611694,-1.92342,0.0844722,0.139369,-0.00286437,0.0178262,-0.00106361,0.240492,-0.20899,0.287867,-0.00160048,-0.00109453,0,0,0,0,0,0,0,-0.222592,-34.2207,-0.288683,23.1662,0.624081,1.36864,0.0376436,
0.0871896,0.00257502,0.0641308,-1.93037,0.101591,0.144932,-0.00290302,0.14262,-0.00939447,0.142391,-0.301304,0.908399,0.235555,-0.00171608,0,0,0,0,0,0,0,16.568,-1.97533,16.538,-28.2602,10.7348,3.64221,-0.0227584,0.0842402,0.00303729,0.0611694,-1.92342,0.0844722,0.139369,-0.00286437,0.0178262,-0.00106361,0.240492,-0.20899,0.287867,-0.00160048,-0.00109453,0,0,0,0,0,0,0,-0.222592,-34.2207,-0.288683,23.1662,0.624081,1.36864,0.0376436,
0.0882197,0.00249626,0.0651593,-1.93266,0.108858,0.147411,-0.00288325,0.139849,-0.0094847,0.139625,-0.298092,0.908394,0.250422,-0.000878769,0,0,0,0,0,0,0,16.1788,-1.8488,16.1482,-27.7769,10.6962,3.78109,-0.00548666,0.0848287,0.00326091,0.0691905,-1.93105,0.0951836,0.139419,-0.00286015,0.00861404,0.00555834,0.228629,-0.216433,0.340757,0.00566005,0.000849281,-1.15152,0.827743,-1.48293,-0.930403,6.61131,0.907566,0.242976,2.03479,-34.3715,1.81398,24.8087,1.03332,1.44829,-0.00996382,
0.0892726,0.00244247,0.0662107,-1.93489,0.116496,0.150028,-0.00285304,0.1382,-0.0089324,0.137984,-0.29428,0.917676,0.26574,5.23969e-05,0,0,0,0,0,0,0,15.7962,-1.67244,15.7666,-27.3386,10.6962,3.83426,0.011931,0.0848287,0.00326091,0.0691905,-1.93105,0.0951836,0.139419,-0.00286015,0.00861404,0.00555834,0.228629,-0.216433,0.340757,0.00566005,0.000849281,0,0,0,0,0,0,0,2.03479,-34.3715,1.81398,24.8087,1.03332,1.44829,-0.00996382,
0.0875989,0.00298711,0.0719734,-1.9379,0.112742,0.145033,-0.00281947,0.134261,-0.00865995,0.134044,-0.292433,0.903754,0.269491,0.000769505,0,0,0,0,0,0,0,15.7962,-1.67244,15.7666,-27.3386,10.6962,3.83426,0.011931,0.0848287,0.00326091,0.0691905,-1.93105,0.0951836,0.139419,-0.00286015,0.00861404,0.00555834,0.228629,-0.216433,0.340757,0.00566005,0.000849281,0,0,0,0,0,0,0,2.03479,-34.3715,1.81398,24.8087,1.03332,1.44829,-0.00996382,
0.0885739,0.00295393,0.0729468,-1.94013,0.120044,0.14751,-0.00277839,0.131783,-0.0077574,0.131571,-0.289632,0.905551,0.277524,0.00164271,0,0,0,0,0,0,0,15.3896,-1.51275,15.3613,-26.9116,10.6962,3.84401,0.0267482,0.0848287,0.00326091,0.0691905,-1.93105,0.0951836,0.139419,-0.00286015,0.00861404,0.00555834,0.228629,-0.216433,0.340757,0.00566005,0.000849281,0,0,0,0,0,0,0,2.03479,-34.3715,1.81398,24.8087,1.03332,1.44829,-0.00996382,
0.0895704,0.00293755,0.0739419,-1.9423,0.127696,0.150121,-0.0027237,0.13034,-0.00661537,0.130133,-0.286102,0.915735,0.287291,0.00268144,0,0,0,0,0,0,0,14.9769,-1.41591,14.9477,-26.4592,10.6454,3.86746,0.0391796,0.0854082,0.00366281,0.0765222,-1.93778,0.108638,0.139807,-0.00285919,0.0162551,0.0323189,0.215535,-0.188463,0.433252,0.0286622,0.00138123,0.95513,3.34507,-1.63676,3.49631,11.5619,2.87527,0.0664937,1.01917,-35.4704,0.889601,26.951,1.21643,1.6607,-0.0227812,
0.0905793,0.00293053,0.0749492,-1.94443,0.135591,0.152817,-0.00265776,0.129494,-0.00546787,0.12929,-0.282097,0.929964,0.297244,0.00379359,0,0,0,0,0,0,0,14.5717,-1.28004,14.5438,-26.0461,10.6454,3.85169,0.0530213,0.0854082,0.00366281,0.0765222,-1.93778,0.108638,0.139807,-0.00285919,0.0162551,0.0323189,0.215535,-0.188463,0.433252,0.0286622,0.00138123,0,0,0,0,0,0,0,1.01917,-35.4704,0.889601,26.951,1.21643,1.6607,-0.0227812,
0.0889869,0.00367776,0.0801103,-1.94644,0.134733,0.14833,-0.00264767,0.126448,-0.00398829,0.126243,-0.278967,0.930604,0.30046,0.00477932,0,0,0,0,0,0,0,14.5717,-1.28004,14.5438,-26.0461,10.6454,3.85169,0.0530213,0.0854082,0.00366281,0.0765222,-1.93778,0.108638,0.139807,-0.00285919,0.0162551,0.0323189,0.215535,-0.188463,0.433252,0.0286622,0.00138123,0,0,0,0,0,0,0,1.01917,-35.4704,0.889601,26.951,1.21643,1.6607,-0.0227812,
0.0899077,0.00370311,0.0810292,-1.94852,0.142468,0.150912,-0.0025796,0.124177,-0.00255695,0.123967,-0.275067,0.937871,0.304921,0.00552516,0,0,0,0,0,0,0,14.1444,-1.15841,14.118,-25.6474,10.6454,3.83686,0.0701027,0.0854082,0.00366281,0.0765222,-1.93778,0.108638,0.139807,-0.00285919,0.0162551,0.0323189,0.215535,-0.188463,0.433252,0.0286622,0.00138123,0,0,0,0,0,0,0,1.01917,-35.4704,0.889601,26.951,1.21643,1.6607,-0.0227812,
0.0908573,0.00373537,0.081977,-1.95052,0.149847,0.153515,-0.00250869,0.123081,-0.00123919,0.122868,-0.2701,0.934761,0.30901,0.00619298,0,0,0,0,0,0,0,13.6239,-1.04225,13.5996,-25.274,10.6454,3.80874,0.0846496,0.0854082,0.00366281,0.0765222,-1.93778,0.108638,0.139807,-0.00285919,0.0162551,0.0323189,0.215535,-0.188463,0.433252,0.0286622,0.00138123,0,0,0,0,0,0,0,1.01917,-35.4704,0.889601,26.951,1.21643,1.6607,-0.0227812,
0.0918355,0.00376912,0.0829533,-1.95245,0.156573,0.15611,-0.00244065,0.122921,-0.000147403,0.122702,-0.264384,0.915956,0.312078,0.00665525,0,0,0,0,0,0,0,12.9965,-0.956754,12.9709,-24.8649,10.5984,3.76742,0.0900845,0.0862134,0.00435166,0.0840898,-1.94414,0.121707,0.141232,-0.0028545,0.0128591,0.0355313,0.216743,-0.17998,0.360128,0.0583651,0.00147464,-0.424504,0.401548,0.151043,1.06035,-9.14052,3.71286,0.0116765,0.0828892,-34.9944,-0.0625476,27.1017,1.18621,1.6671,-0.0227812,
0.0895594,0.00449811,0.0874425,-1.95233,0.145044,0.149721,-0.00260686,0.120169,0.00109271,0.119942,-0.261059,0.882691,0.309386,0.00700284,0,0,0,0,0,0,0,12.9965,-0.956754,12.9709,-24.8649,10.5984,3.76742,0.0900845,0.0862134,0.00435166,0.0840898,-1.94414,0.121707,0.141232,-0.0028545,0.0128591,0.0355313,0.216743,-0.17998,0.360128,0.0583651,0.00147464,0,0,0,0,0,0,0,0.0828892,-34.9944,-0.0625476,27.1017,1.18621,1.6671,-0.0227812,
0.0904677,0.00455054,0.0883488,-1.95424,0.150482,0.152148,-0.00254148,0.118842,0.00218484,0.11861,-0.256629,0.842099,0.30819,0.00723682,0,0,0,0,0,0,0,12.3636,-0.757035,12.3375,-24.4743,10.4703,3.678,0.0873355,0.0862134,0.00435166,0.0840898,-1.94414,0.121707,0.141232,-0.0028545,0.0128591,0.0355313,0.216743,-0.17998,0.360128,0.0583651,0.00147464,0,0,0,0,0,0,0,0.0828892,-34.9944,-0.0625476,27.1017,1.18621,1.6671,-0.0227812,
0.0914035,0.00460167,0.0892825,-1.95609,0.155247,0.154585,-0.0024785,0.118469,0.00302602,0.118231,-0.251545,0.792811,0.307465,0.00736397,0,0,0,0,0,0,0,11.8167,-0.520368,11.7807,-24.0476,8.58921,3.58795,0.0846319,0.0862134,0.00435166,0.0840898,-1.94414,0.121707,0.141232,-0.0028545,0.0128591,0.0355313,0.216743,-0.17998,0.360128,0.0583651,0.00147464,0,0,0,0,0,0,0,0.0828892,-34.9944,-0.0625476,27.1017,1.18621,1.6671,-0.0227812,
0.0901371,0.00478933,0.0948872,-1.95833,0.149227,0.150161,-0.00262817,0.116861,0.00329339,0.116611,-0.247243,0.721049,0.299991,0.00742942,0,0,0,0,0,0,0,11.3578,-0.349704,11.3161,-23.5733,7.00419,3.50443,0.0784747,0.0867299,0.00475888,0.0914753,-1.95072,0.133857,0.142737,-0.00286018,0.0140197,0.0164758,0.205794,-0.184382,0.356223,0.0362017,4.90011e-05,0.145085,-2.38193,-1.36865,-0.550298,-0.488101,-2.77043,-0.178205,0.717655,-34.6452,0.588087,27.8238,1.54602,2.00493,0.017502,
0.0910401,0.00483111,0.095788,-1.96011,0.152192,0.152388,-0.00256663,0.116065,0.00367924,0.115808,-0.242455,0.650949,0.295681,0.00748215,0,0,0,0,0,0,0,11.0161,-0.152695,10.9744,-23.1242,5.6557,3.39397,0.0747196,0.0867299,0.00475888,0.0914753,-1.95072,0.133857,0.142737,-0.00286018,0.0140197,0.0164758,0.205794,-0.184382,0.356223,0.0362017,4.90011e-05,0,0,0,0,0,0,0,0.717655,-34.6452,0.588087,27.8238,1.54602,2.00493,0.017502,
0.0919577,0.00487343,0.0967031,-1.96185,0.154623,0.15465,-0.00250393,0.11579,0.00400147,0.115526,-0.23744,0.581535,0.293076,0.00755323,0,0,0,0,0,0,0,10.7781,-0.0032785,10.7376,-22.6795,4.49921,3.29741,0.0715102,0.0867299,0.00475888,0.0914753,-1.95072,0.133857,0.142737,-0.00286018,0.0140197,0.0164758,0.205794,-0.184382,0.356223,0.0362017,4.90011e-05,0,0,0,0,0,0,0,0.717655,-34.6452,0.588087,27.8238,1.54602,2.00493,0.017502,
0.0928838,0.00491249,0.0976269,-1.96355,0.15654,0.156924,-0.00244072,0.115786,0.00417778,0.115515,-0.232396,0.51317,0.291311,0.00762271,0,0,0,0,0,0,0,10.6238,0.0953068,10.5848,-22.2417,3.47632,3.21305,0.0712779,0.0867299,0.00475888,0.0914753,-1.95072,0.133857,0.142737,-0.00286018,0.0140197,0.0164758,0.205794,-0.184382,0.356223,0.0362017,4.90011e-05,0,0,0,0,0,0,0,0.717655,-34.6452,0.588087,27.8238,1.54602,2.00493,0.017502,
0.0910782,0.00539514,0.10221,-1.96418,0.154219,0.150013,-0.00262605,0.115302,0.00358966,0.115019,-0.228962,0.453576,0.283343,0.00767353,0,0,0,0,0,0,0,10.6209,0.0353929,10.5775,-22.1999,3.43837,3.24656,0.0712489,0.0875284,0.00547491,0.0986546,-1.95714,0.145134,0.14338,-0.00286333,0.0173744,0.00937566,0.203021,-0.168793,0.321316,0.00488066,0.000369635,0.419332,-0.887516,-0.346592,1.94872,-4.36344,-3.91513,0.0400793,-0.0956386,-34.5223,-0.16173,26.6534,1.19171,2.2503,0.017502,
0.0919914,0.00541336,0.10312,-1.96586,0.155529,0.152112,-0.00256155,0.115072,0.00332718,0.114777,-0.225178,0.395624,0.279161,0.00775122,0,0,0,0,0,0,0,10.5238,0.0880957,10.482,-21.7727,2.57479,3.1757,0.0710687,0.0875284,0.00547491,0.0986546,-1.95714,0.145134,0.14338,-0.00286333,0.0173744,0.00937566,0.203021,-0.168793,0.321316,0.00488066,0.000369635,0,0,0,0,0,0,0,-0.0956386,-34.5223,-0.16173,26.6534,1.19171,2.2503,0.017502,
0.0929064,0.00543352,0.104033,-1.9675,0.15646,0.154262,-0.00249637,0.114931,0.00316567,0.114627,-0.221211,0.339771,0.277067,0.00783055,0,0,0,0,0,0,0,10.4668,0.100867,10.4265,-21.3547,1.82394,3.11405,0.0728754,0.0875284,0.00547491,0.0986546,-1.95714,0.145134,0.14338,-0.00286333,0.0173744,0.00937566,0.203021,-0.168793,0.321316,0.00488066,0.000369635,0,0,0,0,0,0,0,-0.0956386,-34.5223,-0.16173,26.6534,1.19171,2.2503,0.017502,
0.0938194,0.00545176,0.104943,-1.96911,0.157051,0.156436,-0.00243,0.114771,0.00298855,0.114458,-0.217173,0.286597,0.276008,0.0079238,0,0,0,0,0,0,0,10.4309,0.0821577,10.3921,-20.9468,1.20867,3.06173,0.0741071,0.0875284,0.00547491,0.0986546,-1.95714,0.145134,0.14338,-0.00286333,0.0173744,0.00937566,0.203021,-0.168793,0.321316,0.00488066,0.000369635,0,0,0,0,0,0,0,-0.0956386,-34.5223,-0.16173,26.6534,1.19171,2.2503,0.017502,
0.0883918,0.00542687,0.0995316,-1.95889,0.14786,0.144522,-0.00281067,0.1134,0.00118985,0.113489,-0.217585,0.297444,0.249354,0.00765543,0,0,0,0,0,0,0,10.6147,-0.01881,10.5651,-22.1562,3.40633,3.2765,0.0712297,0.0883303,0.00649202,0.105795,-1.96282,0.154332,0.143672,-0.00285584,0.014163,0.0207028,0.197276,-0.159644,0.212174,0.0182695,0.00301993,-0.401424,1.41589,-0.71805,1.14361,-13.6427,1.6736,0.331287,-0.0956386,-32.8481,-0.110155,23.0908,1.11297,1.53435,-0.050247,
0.0892747,0.00539283,0.100412,-1.96069,0.150363,0.146136,-0.00275118,0.112793,0.000100956,0.112797,-0.218987,0.300532,0.239837,0.00761168,0,0,0,0,0,0,0,10.5175,0.0338927,10.4696,-21.729,2.54275,3.20564,0.0710495,0.0883303,0.00649202,0.105795,-1.96282,0.154332,0.143672,-0.00285584,0.014163,0.0207028,0.197276,-0.159644,0.212174,0.0182695,0.00301993,0,0,0,0,0,0,0,-0.0956386,-32.8481,-0.110155,23.0908,1.11297,1.53435,-0.050247,
0.0901713,0.00538525,0.101306,-1.96245,0.152497,0.148001,-0.00268906,0.112648,-0.000108959,0.112583,-0.219309,0.293764,0.238481,0.00764224,0,0,0,0,0,0,0,10.4605,0.046664,10.4141,-21.311,1.7919,3.14399,0.0728562,0.0883303,0.00649202,0.105795,-1.96282,0.154332,0.143672,-0.00285584,0.014163,0.0207028,0.197276,-0.159644,0.212174,0.0182695,0.00301993,0,0,0,0,0,0,0,-0.0956386,-32.8481,-0.110155,23.0908,1.11297,1.53435,-0.050247,
0.0910782,0.00539514,0.10221,-1.96418,0.154219,0.150013,-0.00262605,0.112792,0.000160262,0.112674,-0.218492,0.278052,0.241079,0.00768916,0,0,0,0,0,0,0,10.4246,0.0279547,10.3797,-20.9031,1.17663,3.09167,0.074088,0.0883303,0.00649202,0.105795,-1.96282,0.154332,0.143672,-0.00285584,0.014163,0.0207028,0.197276,-0.159644,0.212174,0.0182695,0.00301993,0,0,0,0,0,0,0,-0.0956386,-32.8481,-0.110155,23.0908,1.11297,1.53435,-0.050247,
0.0927535,0.00657055,0.110221,-1.97095,0.157567,0.152038,-0.00252373,0.112549,0.000535945,0.112373,-0.214109,0.223553,0.242856,0.00785276,0,0,0,0,0,0,0,10.3996,-0.0681103,10.3504,-20.4625,0.641025,3.07191,0.0764658,0.0890998,0.00731131,0.112811,-1.96825,0.159159,0.143734,-0.00285961,0.0195859,0.0232141,0.190814,-0.159034,0.0981645,0.00389108,0.0010257,0.67786,0.313912,-0.807854,0.0762146,-14.2512,-1.7973,-0.249279,-0.452694,-33.1218,-0.586229,23.1424,0.831906,1.40893,-0.00996382,
0.0936391,0.00658304,0.111104,-1.97248,0.157415,0.154086,-0.0024558,0.112178,0.000740897,0.111955,-0.209729,0.175028,0.245491,0.00798059,0,0,0,0,0,0,0,10.3755,-0.128457,10.3276,-20.0704,0.229384,3.0309,0.0779885,0.0890998,0.00731131,0.112811,-1.96825,0.159159,0.143734,-0.00285961,0.0195859,0.0232141,0.190814,-0.159034,0.0981645,0.00389108,0.0010257,0,0,0,0,0,0,0,-0.452694,-33.1218,-0.586229,23.1424,0.831906,1.40893,-0.00996382,
0.0945151,0.00659009,0.111976,-1.97399,0.157108,0.15616,-0.00238775,0.111641,0.00076886,0.111378,-0.205391,0.132362,0.248221,0.00808564,0,0,0,0,0,0,0,10.3477,-0.200463,10.3008,-19.684,-0.108928,2.99199,0.0801422,0.0890998,0.00731131,0.112811,-1.96825,0.159159,0.143734,-0.00285961,0.0195859,0.0232141,0.190814,-0.159034,0.0981645,0.00389108,0.0010257,0,0,0,0,0,0,0,-0.452694,-33.1218,-0.586229,23.1424,0.831906,1.40893,-0.00996382,
0.0964582,0.00740992,0.120154,-1.98056,0.156547,0.158096,-0.00228167,0.108022,1.87153e-05,0.107715,-0.194847,0.0951591,0.244993,0.00791522,0,0,0,0,0,0,0,9.91749,-0.6565,9.87568,-17.4421,-0.871106,2.79709,0.0842114,0.0890998,0.00731131,0.112811,-1.96825,0.159159,0.143734,-0.00285961,0.0195859,0.0232141,0.190814,-0.159034,0.0981645,0.00389108,0.0010257,0,0,0,0,0,0,0,-0.452694,-33.1218,-0.586229,23.1424,0.831906,1.40893,-0.00996382,
0.0971876,0.00738,0.120879,-1.98175,0.156152,0.159947,-0.00222548,0.104652,-0.000733083,0.104312,-0.185559,0.0662533,0.242269,0.00773673,0,0,0,0,0,0,0,9.79032,-0.775902,9.74596,-17.0463,-0.872403,2.78302,0.0835526,0.0900558,0.00772924,0.118116,-1.9728,0.160156,0.144071,-0.00285973,0.0370949,0.0292463,0.149625,-0.132176,0.0307437,0.0049671,-0.000192899,2.18863,0.754033,-5.14861,3.35723,-8.4276,0.134503,-0.152324,-1.82141,-33.0742,-1.81212,25.011,0.788876,1.44189,0.0101778,
0.0978985,0.00734478,0.121586,-1.98291,0.155796,0.161785,-0.00217098,0.101496,-0.00146702,0.101131,-0.177297,0.0440803,0.239772,0.00755197,0,0,0,0,0,0,0,9.65752,-0.830604,9.61379,-16.6794,-0.854382,2.75082,0.0829121,0.0900558,0.00772924,0.118116,-1.9728,0.160156,0.144071,-0.00285973,0.0370949,0.0292463,0.149625,-0.132176,0.0307437,0.0049671,-0.000192899,0,0,0,0,0,0,0,-1.82141,-33.0742,-1.81212,25.011,0.788876,1.44189,0.0101778,
0.0985915,0.00730494,0.122276,-1.98403,0.155479,0.163606,-0.00211825,0.0985201,-0.00216941,0.0981363,-0.169874,0.0273429,0.23733,0.00735977,0,0,0,0,0,0,0,9.51285,-0.878762,9.46976,-16.3132,-0.817798,2.71963,0.0817784,0.0900558,0.00772924,0.118116,-1.9728,0.160156,0.144071,-0.00285973,0.0370949,0.0292463,0.149625,-0.132176,0.0307437,0.0049671,-0.000192899,0,0,0,0,0,0,0,-1.82141,-33.0742,-1.81212,25.011,0.788876,1.44189,0.0101778,
0.0951628,0.00785367,0.123209,-1.98143,0.158636,0.154052,-0.00246034,0.0959279,-0.00219916,0.0955232,-0.16382,0.015311,0.232155,0.00716387,0,0,0,0,0,0,0,9.02169,-0.988389,8.98032,-15.2155,-0.662829,2.61896,0.0774964,0.0900558,0.00772924,0.118116,-1.9728,0.160156,0.144071,-0.00285973,0.0370949,0.0292463,0.149625,-0.132176,0.0307437,0.0049671,-0.000192899,0,0,0,0,0,0,0,-1.82141,-33.0742,-1.81212,25.011,0.788876,1.44189,0.0101778,
0.0958288,0.00782735,0.123871,-1.98251,0.158402,0.155753,-0.00241124,0.0933917,-0.00241728,0.0929711,-0.158037,0.00638692,0.228259,0.00695877,0,0,0,0,0,0,0,8.84965,-1.04872,8.80406,-14.8097,-0.595525,2.61033,0.075513,0.0916185,0.0084168,0.123394,-1.97724,0.160312,0.144153,-0.00286562,0.0556975,0.0170192,0.15502,-0.156136,-0.00420433,-0.000780674,-0.000391609,2.32532,-1.52839,0.674404,-2.99497,-4.3685,-0.718472,-0.0248388,4.16523,-31.7015,4.01185,24.8602,1.19812,1.23589,0.0303194,
0.0964765,0.00779426,0.124515,-1.98355,0.158197,0.157453,-0.002364,0.0909053,-0.00276116,0.090473,-0.15251,-1.20931e-05,0.225103,0.00674788,0,0,0,0,0,0,0,8.66397,-1.07071,8.61889,-14.444,-0.536197,2.57401,0.0736383,0.0916185,0.0084168,0.123394,-1.97724,0.160312,0.144153,-0.00286562,0.0556975,0.0170192,0.15502,-0.156136,-0.00420433,-0.000780674,-0.000391609,0,0,0,0,0,0,0,4.16523,-31.7015,4.01185,24.8602,1.19812,1.23589,0.0303194,
0.0971061,0.00775531,0.125141,-1.98456,0.158021,0.159143,-0.00231866,0.0884655,-0.00318256,0.0880251,-0.147221,-0.00440243,0.222338,0.00653191,0,0,0,0,0,0,0,8.47273,-1.08876,8.42816,-14.0784,-0.476573,2.5379,0.0715623,0.0916185,0.0084168,0.123394,-1.97724,0.160312,0.144153,-0.00286562,0.0556975,0.0170192,0.15502,-0.156136,-0.00420433,-0.000780674,-0.000391609,0,0,0,0,0,0,0,4.16523,-31.7015,4.01185,24.8602,1.19812,1.23589,0.0303194,
0.0969956,0.00863619,0.128743,-1.98567,0.159932,0.153435,-0.00253343,0.0850607,-0.00308987,0.0846012,-0.139856,-0.00471248,0.214282,0.0061147,0,0,0,0,0,0,0,7.66856,-1.1332,7.62588,-12.616,-0.275694,2.38525,0.0626742,0.0916185,0.0084168,0.123394,-1.97724,0.160312,0.144153,-0.00286562,0.0556975,0.0170192,0.15502,-0.156136,-0.00420433,-0.000780674,-0.000391609,0,0,0,0,0,0,0,4.16523,-31.7015,4.01185,24.8602,1.19812,1.23589,0.0303194,
0.0975446,0.00860522,0.129287,-1.98652,0.159883,0.154904,-0.00249965,0.0817752,-0.00324593,0.0813026,-0.132991,-0.00498347,0.208133,0.00573615,0,0,0,0,0,0,0,7.46057,-1.13953,7.41833,-12.2505,-0.238017,2.34596,0.0603648,0.0916185,0.0084168,0.123394,-1.97724,0.160312,0.144153,-0.00286562,0.0556975,0.0170192,0.15502,-0.156136,-0.00420433,-0.000780674,-0.000391609,0,0,0,0,0,0,0,4.16523,-31.7015,4.01185,24.8602,1.19812,1.23589,0.0303194,
0.0980725,0.00856646,0.129811,-1.98732,0.159832,0.156374,-0.00246765,0.0786171,-0.00356578,0.0781362,-0.126575,-0.00527806,0.20327,0.00538898,0,0,0,0,0,0,0,7.24516,-1.20437,7.19994,-11.847,-0.20465,2.33084,0.0578751,0.0935175,0.00885942,0.127895,-1.98203,0.160167,0.144084,-0.00286291,0.0644016,0.0211143,0.119832,-0.139727,0.00509841,-0.00334501,-1.56551e-05,1.08801,0.511882,-4.39848,2.05113,1.16284,-0.320543,0.0469942,-1.94836,-35.8196,-1.8875,28.399,1.28326,1.93902,0.0101778,
0.0976009,0.00917195,0.131949,-1.98838,0.160154,0.150961,-0.00264478,0.0752603,-0.0031593,0.0747633,-0.119975,-0.00547092,0.19472,0.00496557,0,0,0,0,0,0,0,6.39386,-1.21893,6.35026,-10.3843,-0.134515,2.18005,0.0484077,0.0935175,0.00885942,0.127895,-1.98203,0.160167,0.144084,-0.00286291,0.0644016,0.0211143,0.119832,-0.139727,0.00509841,-0.00334501,-1.56551e-05,0,0,0,0,0,0,0,-1.94836,-35.8196,-1.8875,28.399,1.28326,1.93902,0.0101778,
0.0980722,0.00914736,0.132416,-1.98909,0.16009,0.152273,-0.00262039,0.0719929,-0.00314217,0.0714853,-0.113645,-0.00599727,0.188568,0.00458225,0,0,0,0,0,0,0,6.17977,-1.22244,6.13655,-10.0183,-0.131593,2.14445,0.046064,0.0935175,0.00885942,0.127895,-1.98203,0.160167,0.144084,-0.00286291,0.0644016,0.0211143,0.119832,-0.139727,0.00509841,-0.00334501,-1.56551e-05,0,0,0,0,0,0,0,-1.94836,-35.8196,-1.8875,28.399,1.28326,1.93902,0.0101778,
0.0985218,0.00911239,0.132861,-1.98976,0.160012,0.153599,-0.00259783,0.0688336,-0.00338797,0.0683197,-0.107595,-0.00674285,0.184003,0.00422984,0,0,0,0,0,0,0,5.96581,-1.22621,5.92297,-9.65222,-0.133269,2.11038,0.0437025,0.0935175,0.00885942,0.127895,-1.98203,0.160167,0.144084,-0.00286291,0.0644016,0.0211143,0.119832,-0.139727,0.00509841,-0.00334501,-1.56551e-05,0,0,0,0,0,0,0,-1.94836,-35.8196,-1.8875,28.399,1.28326,1.93902,0.0101778,
0.0989508,0.0090687,0.133286,-1.99039,0.159924,0.154928,-0.00257713,0.0657907,-0.00380275,0.0652738,-0.101821,-0.00758451,0.180436,0.00390132,0,0,0,0,0,0,0,5.74904,-1.27737,5.70125,-9.25284,-0.138988,2.09481,0.0412823,0.095624,0.00963839,0.13209,-1.98583,0.159704,0.144072,-0.00286551,0.0441277,0.00796582,0.125243,-0.100054,-0.017732,-0.00697199,0.000365334,-2.53423,-1.64355,0.676348,4.9591,-2.85381,-0.453372,0.0476236,-0.603451,-35.7958,-0.562425,28.645,1.5158,2.15142,0.0239107,
0.0996239,0.00948159,0.136051,-1.99118,0.159954,0.152035,-0.00274977,0.0607785,-0.00448242,0.0602529,-0.0918658,-0.00102981,0.169222,0.00324071,0,0,0,0,0,0,0,4.71385,-1.31326,4.6678,-7.41728,-0.195169,1.93685,0.0295467,0.095624,0.00963839,0.13209,-1.98583,0.159704,0.144072,-0.00286551,0.0441277,0.00796582,0.125243,-0.100054,-0.017732,-0.00697199,0.000365334,0,0,0,0,0,0,0,-0.603451,-35.7958,-0.562425,28.645,1.5158,2.15142,0.0239107,
0.0999286,0.00941694,0.136352,-1.99156,0.160287,0.152955,-0.00274761,0.0562396,-0.00520222,0.0557088,-0.082964,0.00751746,0.158363,0.00264649,0,0,0,0,0,0,0,4.51955,-1.32434,4.47383,-7.04945,-0.197136,1.90094,0.0271498,0.095624,0.00963839,0.13209,-1.98583,0.159704,0.144072,-0.00286551,0.0441277,0.00796582,0.125243,-0.100054,-0.017732,-0.00697199,0.000365334,0,0,0,0,0,0,0,-0.603451,-35.7958,-0.562425,28.645,1.5158,2.15142,0.0239107,
0.100213,0.00934602,0.136632,-1.9919,0.160799,0.153768,-0.0027482,0.0521085,-0.00593488,0.0515749,-0.0749265,0.0187969,0.147023,0.00210248,0,0,0,0,0,0,0,4.33246,-1.33697,4.28708,-6.6815,-0.188177,1.86016,0.0246974,0.095624,0.00963839,0.13209,-1.98583,0.159704,0.144072,-0.00286551,0.0441277,0.00796582,0.125243,-0.100054,-0.017732,-0.00697199,0.000365334,0,0,0,0,0,0,0,-0.603451,-35.7958,-0.562425,28.645,1.5158,2.15142,0.0239107,
0.0996239,0.00948159,0.136051,-1.99118,0.159954,0.152035,-0.00274977,0.0498328,-0.00618812,0.0492938,-0.0703499,0.0200753,0.142491,0.00180163,0,0,0,0,0,0,0,3.46421,-1.49345,3.41719,-4.46244,0.418273,1.33721,0.00836375,0.0966613,0.0101281,0.135809,-1.98861,0.159056,0.14408,-0.00286634,0.0223362,0.000264379,0.0982714,-0.076266,-0.0208478,0.00323573,-0.000132296,-2.72394,-0.96268,-3.37144,2.97351,-0.389467,1.27597,-0.0622037,-0.373349,-34.2961,-0.288683,26.5781,1.62567,1.9793,0.0303194,
0.0994505,0.00968023,0.138553,-1.99172,0.173689,0.143775,-0.00294696,0.044064,-0.00707099,0.0435132,-0.0591802,0.105046,0.0885742,0.00101143,0,0,0,0,0,0,0,3.38378,-1.5179,3.33714,-4.10161,0.687326,1.15478,0.00529519,0.0966613,0.0101281,0.135809,-1.98861,0.159056,0.14408,-0.00286634,0.0223362,0.000264379,0.0982714,-0.076266,-0.0208478,0.00323573,-0.000132296,0,0,0,0,0,0,0,-0.373349,-34.2961,-0.288683,26.5781,1.62567,1.9793,0.0303194,
0.0995977,0.00959079,0.138695,-1.9918,0.177947,0.142386,-0.00296376,0.0389296,-0.00789287,0.0383709,-0.0494368,0.19047,0.0361473,0.000389208,0,0,0,0,0,0,0,3.32623,-1.54332,3.28,-3.74388,1.03073,0.929578,0.00217634,0.0966613,0.0101281,0.135809,-1.98861,0.159056,0.14408,-0.00286634,0.0223362,0.000264379,0.0982714,-0.076266,-0.0208478,0.00323573,-0.000132296,0,0,0,0,0,0,0,-0.373349,-34.2961,-0.288683,26.5781,1.62567,1.9793,0.0303194,
0.0997235,0.00949868,0.138817,-1.99186,0.182932,0.140623,-0.00297825,0.03429,-0.00861697,0.0337276,-0.040928,0.277006,-0.0151745,-5.10003e-05,0,0,0,0,0,0,0,3.2918,-1.56918,3.24599,-3.39008,1.45951,0.655018,-0.00100645,0.0966613,0.0101281,0.135809,-1.98861,0.159056,0.14408,-0.00286634,0.0223362,0.000264379,0.0982714,-0.076266,-0.0208478,0.00323573,-0.000132296,0,0,0,0,0,0,0,-0.373349,-34.2961,-0.288683,26.5781,1.62567,1.9793,0.0303194,
0.0985528,0.0102281,0.140304,-1.99224,0.163129,0.14407,-0.00290366,0.0336631,-0.00820296,0.0330758,-0.0390826,0.265945,-0.0170456,-0.000364304,0,0,0,0,0,0,0,3.28948,-1.6043,3.24128,-3.3697,1.46079,0.666886,-0.00106805,0.097344,0.0103867,0.139112,-1.99091,0.158751,0.144095,-0.00286372,0.0158448,-0.00248383,0.0906555,-0.0572724,-0.00383368,0.00348581,0.000688592,-0.811428,-0.343526,-0.951995,2.3742,2.12676,0.0312603,0.102611,-1.21045,-34.2961,-1.16149,25.6061,1.46087,1.84655,0.017502,
0.0987749,0.0101664,0.14052,-1.99245,0.165433,0.143637,-0.00291865,0.0324837,-0.00810442,0.0318806,-0.036452,0.270359,-0.0244686,-0.000666083,0,0,0,0,0,0,0,3.27704,-1.62975,3.2293,-3.0206,1.98375,0.337689,-0.00418452,0.097344,0.0103867,0.139112,-1.99091,0.158751,0.144095,-0.00286372,0.0158448,-0.00248383,0.0906555,-0.0572724,-0.00383368,0.00348581,0.000688592,0,0,0,0,0,0,0,-1.21045,-34.2961,-1.16149,25.6061,1.46087,1.84655,0.017502,
0.0989725,0.010096,0.140713,-1.99261,0.168331,0.142913,-0.00293521,0.0309257,-0.00824276,0.030313,-0.0332832,0.28872,-0.0376743,-0.00094684,0,0,0,0,0,0,0,3.28307,-1.65361,3.23584,-2.67716,2.60896,-0.0495998,-0.00721216,0.097344,0.0103867,0.139112,-1.99091,0.158751,0.144095,-0.00286372,0.0158448,-0.00248383,0.0906555,-0.0572724,-0.00383368,0.00348581,0.000688592,0,0,0,0,0,0,0,-1.21045,-34.2961,-1.16149,25.6061,1.46087,1.84655,0.017502,
0.0991469,0.0100181,0.140882,-1.99274,0.171882,0.141857,-0.00295258,0.0291023,-0.0085424,0.028484,-0.0297791,0.319757,-0.056554,-0.00119173,0,0,0,0,0,0,0,3.30122,-1.67423,3.25455,-2.33996,3.33863,-0.495332,-0.00993001,0.097344,0.0103867,0.139112,-1.99091,0.158751,0.144095,-0.00286372,0.0158448,-0.00248383,0.0906555,-0.0572724,-0.00383368,0.00348581,0.000688592,0,0,0,0,0,0,0,-1.21045,-34.2961,-1.16149,25.6061,1.46087,1.84655,0.017502,
0.0977055,0.0103585,0.139474,-1.99132,0.159192,0.144203,-0.00287107,0.0323184,-0.00753841,0.0318232,-0.034137,0.26681,-0.0425257,-0.0011371,0,0,0,0,0,0,0,3.28684,-1.63367,3.23721,-3.3586,1.4597,0.673656,-0.00109893,0.0977489,0.0104951,0.141869,-1.99241,0.158886,0.144101,-0.00286443,0.0148295,-0.00116497,0.0649953,-0.0317676,0.00617685,0.00127324,0.00083309,-0.126914,0.164856,-3.20752,3.18811,1.25132,-0.276572,0.0180623,-0.881161,-34.2723,-0.713182,24.9356,1.38122,1.6671,0.0239107,
0.0980232,0.0103236,0.139785,-1.99168,0.160056,0.144288,-0.00287992,0.0337969,-0.00690363,0.0332483,-0.0362399,0.235063,-0.0319139,-0.00113085,0,0,0,0,0,0,0,3.27439,-1.65912,3.22523,-3.00949,1.98267,0.344459,-0.0042154,0.0977489,0.0104951,0.141869,-1.99241,0.158886,0.144101,-0.00286443,0.0148295,-0.00116497,0.0649953,-0.0317676,0.00617685,0.00127324,0.00083309,0,0,0,0,0,0,0,-0.881161,-34.2723,-0.713182,24.9356,1.38122,1.6671,0.0239107,
0.0983036,0.0102804,0.14006,-1.99198,0.161356,0.144267,-0.00289072,0.0340466,-0.00660187,0.0334638,-0.0365812,0.220534,-0.0260576,-0.00117487,0,0,0,0,0,0,0,3.28043,-1.68298,3.23176,-2.66605,2.60787,-0.0428294,-0.00724304,0.0977489,0.0104951,0.141869,-1.99241,0.158886,0.144101,-0.00286443,0.0148295,-0.00116497,0.0649953,-0.0317676,0.00617685,0.00127324,0.00083309,0,0,0,0,0,0,0,-0.881161,-34.2723,-0.713182,24.9356,1.38122,1.6671,0.0239107,
0.0985528,0.0102281,0.140304,-1.99224,0.163129,0.14407,-0.00290366,0.0334684,-0.00659087,0.0328647,-0.0356052,0.220768,-0.025752,-0.0012634,0,0,0,0,0,0,0,3.29858,-1.7036,3.25047,-2.32885,3.33754,-0.488562,-0.00996089,0.0977489,0.0104951,0.141869,-1.99241,0.158886,0.144101,-0.00286443,0.0148295,-0.00116497,0.0649953,-0.0317676,0.00617685,0.00127324,0.00083309,0,0,0,0,0,0,0,-0.881161,-34.2723,-0.713182,24.9356,1.38122,1.6671,0.0239107,
0.0982676,0.0103761,0.14238,-1.993,0.160646,0.144229,-0.0028852,0.0328916,-0.00689428,0.0322678,-0.0355211,0.205033,-0.0200293,-0.00128576,0,0,0,0,0,0,0,3.27302,-1.68,3.22315,-3.00484,1.981,0.347588,-0.00422765,0.098088,0.0105069,0.143987,-1.9932,0.159231,0.144095,-0.00286372,0.0108203,0.00092483,0.0385732,-0.0152756,0.0100281,0.00129481,0.00140501,-0.501149,0.261225,-3.30276,2.06149,0.481409,0.00269678,0.0714904,-2.04754,-33.4233,-2.01048,24.9594,1.27136,1.58745,0.017502,
0.0984872,0.0103059,0.142594,-1.99324,0.162306,0.144077,-0.00289801,0.031804,-0.00727059,0.0311696,-0.0344155,0.205509,-0.0198401,-0.00134905,0,0,0,0,0,0,0,3.27906,-1.70387,3.22969,-2.6614,2.60621,-0.039701,-0.00725529,0.098088,0.0105069,0.143987,-1.9932,0.159231,0.144095,-0.00286372,0.0108203,0.00092483,0.0385732,-0.0152756,0.0100281,0.00129481,0.00140501,0,0,0,0,0,0,0,-2.04754,-33.4233,-2.01048,24.9594,1.27136,1.58745,0.017502,
0.0986852,0.0102304,0.142787,-1.99343,0.164528,0.143682,-0.0029128,0.0303922,-0.00770406,0.0297534,-0.0324661,0.219958,-0.0257426,-0.00144898,0,0,0,0,0,0,0,3.29721,-1.72448,3.2484,-2.32419,3.33588,-0.485433,-0.00997315,0.098088,0.0105069,0.143987,-1.9932,0.159231,0.144095,-0.00286372,0.0108203,0.00092483,0.0385732,-0.0152756,0.0100281,0.00129481,0.00140501,0,0,0,0,0,0,0,-2.04754,-33.4233,-2.01048,24.9594,1.27136,1.58745,0.017502,
0.0984227,0.0103693,0.144313,-1.99365,0.161436,0.144069,-0.00288824,0.0283342,-0.00807562,0.0276956,-0.0315198,0.211385,-0.0228656,-0.00148013,0,0,0,0,0,0,0,3.27916,-1.70402,3.22979,-2.66122,2.60581,-0.037382,-0.00725292,0.098088,0.0105069,0.143987,-1.9932,0.159231,0.144095,-0.00286372,0.0108203,0.00092483,0.0385732,-0.0152756,0.0100281,0.00129481,0.00140501,0,0,0,0,0,0,0,-2.04754,-33.4233,-2.01048,24.9594,1.27136,1.58745,0.017502,
0.0985723,0.0102874,0.144458,-1.99384,0.163483,0.143731,-0.0029027,0.0264069,-0.00850783,0.0257711,-0.0299168,0.220284,-0.026761,-0.00154545,0,0,0,0,0,0,0,3.2974,-1.73651,3.24823,-2.31954,3.33509,-0.480311,-0.00998451,0.0985379,0.0104952,0.145408,-1.99372,0.15945,0.144099,-0.00286703,0.0163156,0.000434965,0.0480246,-0.0122095,0.000275634,0.000545125,0.000130339,0.686916,-0.0612331,1.18142,0.383269,-1.21906,-0.0937107,-0.159334,-0.349545,-32.8719,-0.360094,24.6619,1.36291,1.5078,0.0440523,
0.098711,0.0102013,0.144592,-1.99399,0.166192,0.143086,-0.00291866,0.0245943,-0.00895726,0.0239626,-0.0276983,0.243951,-0.0375207,-0.00163548,0,0,0,0,0,0,0,3.3171,-1.75151,3.26856,-1.98941,4.16759,-0.978837,-0.012293,0.0985379,0.0104952,0.145408,-1.99372,0.15945,0.144099,-0.00286703,0.0163156,0.000434965,0.0480246,-0.0122095,0.000275634,0.000545125,0.000130339,0,0,0,0,0,0,0,-0.349545,-32.8719,-0.360094,24.6619,1.36291,1.5078,0.0440523,
0.0988382,0.0101113,0.144714,-1.9941,0.169604,0.142095,-0.00293549,0.0228551,-0.00941721,0.0222274,-0.0250293,0.280457,-0.0547882,-0.00172902,0,0,0,0,0,0,0,3.32284,-1.75779,3.27501,-1.66606,5.08999,-1.5191,-0.0138559,0.0985379,0.0104952,0.145408,-1.99372,0.15945,0.144099,-0.00286703,0.0163156,0.000434965,0.0480246,-0.0122095,0.000275634,0.000545125,0.000130339,0,0,0,0,0,0,0,-0.349545,-32.8719,-0.360094,24.6619,1.36291,1.5078,0.0440523,
0.0987552,0.011005,0.145623,-1.99431,0.159343,0.144579,-0.00287559,0.0237165,0.00521157,0.0231558,-0.0346736,0.221693,-0.0318323,-0.00159733,0,0,0,0,0,0,0,0.000581551,28.8534,-0.0610548,-21.6099,-1.52386,-0.716882,-0.00701724,0.0985379,0.0104952,0.145408,-1.99372,0.15945,0.144099,-0.00286703,0.0163156,0.000434965,0.0480246,-0.0122095,0.000275634,0.000545125,0.000130339,0,0,0,0,0,0,0,-0.349545,-32.8719,-0.360094,24.6619,1.36291,1.5078,0.0440523,
0.0989283,0.0113643,0.145789,-1.99478,0.160148,0.144618,-0.00289261,0.0233005,0.0131517,0.0226716,-0.0394796,0.197495,-0.0244871,-0.00170325,0,0,0,0,0,0,0,3.29851,-1.73804,3.24938,-2.31776,3.33091,-0.457157,-0.00995968,0.0985379,0.0104952,0.145408,-1.99372,0.15945,0.144099,-0.00286703,0.0163156,0.000434965,0.0480246,-0.0122095,0.000275634,0.000545125,0.000130339,0,0,0,0,0,0,0,-0.349545,-32.8719,-0.360094,24.6619,1.36291,1.5078,0.0440523,
0.0990728,0.0116103,0.145927,-1.99515,0.161772,0.144272,-0.00290979,0.0222533,0.0166721,0.0215847,-0.0409655,0.198588,-0.0282433,-0.00179224,0,0,0,0,0,0,0,3.31809,-1.76469,3.26911,-1.98506,4.16318,-0.95419,-0.0122759,0.0987727,0.0105088,0.146708,-1.99413,0.159489,0.144087,-0.00286479,0.00893078,0.00197099,0.0371029,-0.0127299,-0.00214708,-0.00107512,0.0017404,-0.923106,0.192004,-1.36521,-0.0650478,-0.302839,-0.202531,0.201258,0.106693,-33.1972,0.211195,24.9832,1.57074,1.4547,0.017502,
0.0991985,0.0117713,0.146046,-1.99545,0.164181,0.143556,-0.00292728,0.0209432,0.0173625,0.0202513,-0.0401717,0.219102,-0.0404934,-0.00187105,0,0,0,0,0,0,0,3.32383,-1.77095,3.27556,-1.66172,5.08541,-1.49464,-0.0138386,0.0987727,0.0105088,0.146708,-1.99413,0.159489,0.144087,-0.00286479,0.00893078,0.00197099,0.0371029,-0.0127299,-0.00214708,-0.00107512,0.0017404,0,0,0,0,0,0,0,0.106693,-33.1972,0.211195,24.9832,1.57074,1.4547,0.017502,
0.0989356,0.011029,0.146869,-1.99472,0.159341,0.144563,-0.00287131,0.0208278,0.0268962,0.0202251,-0.0468678,0.171578,-0.0204851,-0.00165985,0,0,0,0,0,0,0,0.000453875,28.8418,-0.0616478,-21.6073,-1.52392,-0.715203,-0.00702486,0.0987727,0.0105088,0.146708,-1.99413,0.159489,0.144087,-0.00286479,0.00893078,0.00197099,0.0371029,-0.0127299,-0.00214708,-0.00107512,0.0017404,0,0,0,0,0,0,0,0.106693,-33.1972,0.211195,24.9832,1.57074,1.4547,0.017502,
0.0990692,0.0113954,0.146996,-1.9952,0.16009,0.144666,-0.00288679,0.0200003,0.0306768,0.0193519,-0.0495075,0.155988,-0.013812,-0.00171485,0,0,0,0,0,0,0,3.31017,-1.76883,3.26088,-2.29856,3.2963,-0.228944,-0.00973558,0.0987727,0.0105088,0.146708,-1.99413,0.159489,0.144087,-0.00286479,0.00893078,0.00197099,0.0371029,-0.0127299,-0.00214708,-0.00107512,0.0017404,0,0,0,0,0,0,0,0.106693,-33.1972,0.211195,24.9832,1.57074,1.4547,0.017502,
0.0991848,0.011648,0.147105,-1.99559,0.161651,0.144422,-0.00290283,0.0188906,0.0308547,0.0182158,-0.0492487,0.163811,-0.017147,-0.00177279,0,0,0,0,0,0,0,3.32929,-1.78329,3.27823,-1.96158,4.12721,-0.724957,-0.0120573,0.0991235,0.0108616,0.147704,-1.99467,0.159517,0.144118,-0.00286694,0.0133424,0.0243037,0.0246864,-0.0207638,-0.0132663,0.00342906,0.00135235,0.551452,2.79159,-1.55207,-1.00424,-1.38991,0.563022,-0.0485069,-0.476498,-31.1025,-0.33629,23.4161,1.61926,1.11687,0.017502,
0.0993879,0.0109481,0.147959,-1.99531,0.16193,0.145096,-0.00289258,0.0183329,0.0252496,0.0176624,-0.0471547,0.170979,-0.000962162,-0.00174237,0,0,0,0,0,0,0,3.45046,-1.92526,3.40102,-2.18435,3.21321,1.44822,-0.00809543,0.0991235,0.0108616,0.147704,-1.99467,0.159517,0.144118,-0.00286694,0.0133424,0.0243037,0.0246864,-0.0207638,-0.0132663,0.00342906,0.00135235,0,0,0,0,0,0,0,-0.476498,-31.1025,-0.33629,23.4161,1.61926,1.11687,0.017502,
0.0995114,0.0109477,0.148077,-1.99556,0.16428,0.145476,-0.00290658,0.0177537,0.0201898,0.0170879,-0.0440434,0.195543,0.00873929,-0.00174371,0,0,0,0,0,0,0,3.46869,-1.92848,3.4198,-1.854,4.02798,0.934915,-0.0103651,0.0991235,0.0108616,0.147704,-1.99467,0.159517,0.144118,-0.00286694,0.0133424,0.0243037,0.0246864,-0.0207638,-0.0132663,0.00342906,0.00135235,0,0,0,0,0,0,0,-0.476498,-31.1025,-0.33629,23.4161,1.61926,1.11687,0.017502,
0.0996286,0.0109284,0.148189,-1.99576,0.167392,0.145627,-0.00292144,0.0171325,0.0156682,0.0164709,-0.0400921,0.23424,0.0107727,-0.00176649,0,0,0,0,0,0,0,3.47292,-1.92482,3.4247,-1.53074,4.9329,0.379768,-0.0118776,0.0991235,0.0108616,0.147704,-1.99467,0.159517,0.144118,-0.00286694,0.0133424,0.0243037,0.0246864,-0.0207638,-0.0132663,0.00342906,0.00135235,0,0,0,0,0,0,0,-0.476498,-31.1025,-0.33629,23.4161,1.61926,1.11687,0.017502,
0.0997375,0.0108924,0.148293,-1.9959,0.171282,0.145488,-0.00293601,0.0164285,0.0116342,0.0157705,-0.035622,0.284626,0.00513843,-0.00177761,0,0,0,0,0,0,0,3.44167,-1.91019,3.39094,-1.20054,5.90814,-0.185869,-0.012497,0.0993832,0.0113847,0.148484,-1.99589,0.159492,0.14411,-0.00286457,0.00212024,0.0202835,0.0242594,-0.0418977,-0.00386078,-0.00225428,0.00104575,-1.40277,-0.502525,-0.053364,-2.64173,1.1757,-0.710417,-0.0383244,-0.119442,-31.3524,-0.0387439,24.2889,1.72912,1.22948,0.0239107,
0.100778,0.00502394,0.149632,-1.99066,0.258558,0.165353,-0.00381858,0.0133861,0.0061602,0.0128088,-0.0262172,0.274149,0.00272864,-0.00180626,0,0,0,0,0,0,0,0.800867,-1.57123,0.741007,1.36665,1.16497,1.91593,-0.017605,0.0993832,0.0113847,0.148484,-1.99589,0.159492,0.14411,-0.00286457,0.00212024,0.0202835,0.0242594,-0.0418977,-0.00386078,-0.00225428,0.00104575,0,0,0,0,0,0,0,-0.119442,-31.3524,-0.0387439,24.2889,1.72912,1.22948,0.0239107,
0.100787,0.00489787,0.14964,-1.99056,0.260411,0.165298,-0.00383394,0.010952,0.00177648,0.010441,-0.0186992,0.265637,0.000809363,-0.00182903,0,0,0,0,0,0,0,0.779555,-1.56801,0.719643,1.36728,1.17185,1.8615,-0.0176253,0.0993832,0.0113847,0.148484,-1.99589,0.159492,0.14411,-0.00286457,0.00212024,0.0202835,0.0242594,-0.0418977,-0.00386078,-0.00225428,0.00104575,0,0,0,0,0,0,0,-0.119442,-31.3524,-0.0387439,24.2889,1.72912,1.22948,0.0239107,
0.100797,0.00477162,0.149648,-1.99047,0.262258,0.165243,-0.0038493,0.00900472,-0.00173506,0.0085481,-0.0126906,0.258699,-0.000717394,-0.00184711,0,0,0,0,0,0,0,0.758276,-1.56478,0.698315,1.36796,1.18067,1.80732,-0.0176463,0.0993832,0.0113847,0.148484,-1.99589,0.159492,0.14411,-0.00286457,0.00212024,0.0202835,0.0242594,-0.0418977,-0.00386078,-0.00225428,0.00104575,0,0,0,0,0,0,0,-0.119442,-31.3524,-0.0387439,24.2889,1.72912,1.22948,0.0239107,
0.100807,0.00464519,0.149656,-1.99038,0.264101,0.165189,-0.00386465,0.00744677,-0.00454886,0.00703526,-0.00788957,0.25302,-0.00193003,-0.00186143,0,0,0,0,0,0,0,0.737705,-1.56833,0.675047,1.38379,1.19269,1.76205,-0.0177116,0.0996304,0.0117958,0.149141,-1.9973,0.159488,0.144098,-0.0028674,0.013308,0.00317922,0.0248989,-0.0344319,-0.00689481,-0.00422563,-0.000407666,1.39846,-2.13803,0.0799269,0.933222,-0.379254,-0.246419,-0.181677,0.793033,-35.4427,0.961012,26.8042,2.0047,1.53435,0.050461,
0.11087,0.0105216,0.160314,-1.99944,0.186496,0.186316,-0.0031029,0.0173794,-0.0060531,0.0169516,-0.00677466,0.215782,0.0265073,-0.00175844,0,0,0,0,0,0,0,7.32667,-0.458493,7.33436,-0.672934,2.97137,4.48196,-0.0161194,0.0996304,0.0117958,0.149141,-1.9973,0.159488,0.144098,-0.0028674,0.013308,0.00317922,0.0248989,-0.0344319,-0.00689481,-0.00422563,-0.000407666,0,0,0,0,0,0,0,0.793033,-35.4427,0.961012,26.8042,2.0047,1.53435,0.050461,
0.111319,0.0104255,0.16076,-1.99946,0.18698,0.187392,-0.00311362,0.0251354,-0.00724601,0.0246941,-0.00586431,0.184739,0.0481124,-0.00167478,0,0,0,0,0,0,0,7.28344,-0.61072,7.28424,-0.660645,2.8107,4.20486,-0.015724,0.0996304,0.0117958,0.149141,-1.9973,0.159488,0.144098,-0.0028674,0.013308,0.00317922,0.0248989,-0.0344319,-0.00689481,-0.00422563,-0.000407666,0,0,0,0,0,0,0,0.793033,-35.4427,0.961012,26.8042,2.0047,1.53435,0.050461,
0.111761,0.0103297,0.161197,-1.99948,0.187418,0.188425,-0.00312428,0.0311479,-0.00819135,0.0306955,-0.0051164,0.158731,0.0643059,-0.0016065,0,0,0,0,0,0,0,7.23328,-0.763324,7.22715,-0.649783,2.65775,3.93902,-0.015311,0.0996304,0.0117958,0.149141,-1.9973,0.159488,0.144098,-0.0028674,0.013308,0.00317922,0.0248989,-0.0344319,-0.00689481,-0.00422563,-0.000407666,0,0,0,0,0,0,0,0.793033,-35.4427,0.961012,26.8042,2.0047,1.53435,0.050461,
0.112195,0.0102342,0.161627,-1.99949,0.187811,0.189416,-0.0031349,0.0357641,-0.0089399,0.0353026,-0.00449676,0.136828,0.0762217,-0.00155053,0,0,0,0,0,0,0,7.17427,-0.921456,7.16224,-0.645809,2.50046,3.68235,-0.0148251,0.100181,0.011538,0.15016,-1.99708,0.162304,0.144141,-0.00287508,0.0247857,-0.0125573,0.0378503,0.0191667,0.125045,0.00392864,-0.00206868,1.43471,-1.96707,1.61893,6.69983,16.4925,1.01928,-0.207627,2.3125,-37.3152,2.5876,27.0541,2.37732,1.6607,0.0907442,
0.10688,0.00560282,0.156667,-1.99341,0.246703,0.149389,-0.00368516,0.0288946,-0.0105089,0.028466,-0.00118944,0.16479,0.0534033,-0.0016952,0,0,0,0,0,0,0,3.06083,-0.0720062,3.04295,-0.552865,0.0506461,1.38329,-0.00897052,0.100181,0.011538,0.15016,-1.99708,0.162304,0.144141,-0.00287508,0.0247857,-0.0125573,0.0378503,0.0191667,0.125045,0.00392864,-0.00206868,0,0,0,0,0,0,0,2.3125,-37.3152,2.5876,27.0541,2.37732,1.6607,0.0907442,
0.106891,0.00546818,0.156676,-1.99331,0.24891,0.149088,-0.00370335,0.0233984,-0.0117733,0.0229978,0.00145392,0.187,0.0351885,-0.00181088,0,0,0,0,0,0,0,3.03703,-0.0470709,3.01956,-0.476677,0.123631,1.34497,-0.00986514,0.100181,0.011538,0.15016,-1.99708,0.162304,0.144141,-0.00287508,0.0247857,-0.0125573,0.0378503,0.0191667,0.125045,0.00392864,-0.00206868,0,0,0,0,0,0,0,2.3125,-37.3152,2.5876,27.0541,2.37732,1.6607,0.0907442,
0.106902,0.00533318,0.156685,-1.99322,0.25111,0.148788,-0.00372154,0.0190009,-0.0127935,0.0186244,0.00356578,0.20461,0.0206555,-0.00190339,0,0,0,0,0,0,0,3.0239,-0.0292134,3.0068,-0.396821,0.211215,1.3074,-0.0109187,0.100181,0.011538,0.15016,-1.99708,0.162304,0.144141,-0.00287508,0.0247857,-0.0125573,0.0378503,0.0191667,0.125045,0.00392864,-0.00206868,0,0,0,0,0,0,0,2.3125,-37.3152,2.5876,27.0541,2.37732,1.6607,0.0907442,
0.111651,0.0101507,0.161604,-1.99856,0.201709,0.184348,-0.00326897,0.0252701,-0.0126171,0.0248732,0.00251962,0.177757,0.0394633,-0.00185347,0,0,0,0,0,0,0,4.8268,0.766498,4.86549,-1.33497,2.98685,3.88826,-0.0205459,0.101928,0.011365,0.153057,-1.99672,0.164906,0.144308,-0.00286598,0.0585118,-0.0251749,0.0910098,0.00116694,0.0322272,0.00572509,0.000834966,4.21577,-1.5772,6.64493,-2.24997,-11.6022,0.224556,0.362956,4.03827,-33.3241,3.96425,25.983,2.30316,1.72661,0.0376436,
0.112046,0.0100548,0.161995,-1.99858,0.202223,0.18523,-0.00328214,0.0300916,-0.0124907,0.0296777,0.00171768,0.155064,0.0536121,-0.0018119,0,0,0,0,0,0,0,4.9808,0.820047,5.02217,-1.23949,3.0255,3.68986,-0.0231824,0.101928,0.011365,0.153057,-1.99672,0.164906,0.144308,-0.00286598,0.0585118,-0.0251749,0.0910098,0.00116694,0.0322272,0.00572509,0.000834966,0,0,0,0,0,0,0,4.03827,-33.3241,3.96425,25.983,2.30316,1.72661,0.0376436,
0.112434,0.00995841,0.162378,-1.99859,0.202693,0.186077,-0.00329524,0.0337538,-0.0124015,0.0333258,0.00111137,0.13579,0.0640695,-0.00177708,0,0,0,0,0,0,0,5.15981,0.839389,5.20372,-1.13002,3.06273,3.49877,-0.0258891,0.101928,0.011365,0.153057,-1.99672,0.164906,0.144308,-0.00286598,0.0585118,-0.0251749,0.0910098,0.00116694,0.0322272,0.00572509,0.000834966,0,0,0,0,0,0,0,4.03827,-33.3241,3.96425,25.983,2.30316,1.72661,0.0376436,
0.112813,0.00986167,0.162754,-1.99859,0.203121,0.186891,-0.00330828,0.0364875,-0.0123397,0.0360477,0.000662209,0.119341,0.071609,-0.00174769,0,0,0,0,0,0,0,5.36177,0.81171,5.40778,-1.00698,3.08001,3.30728,-0.0284473,0.101928,0.011365,0.153057,-1.99672,0.164906,0.144308,-0.00286598,0.0585118,-0.0251749,0.0910098,0.00116694,0.0322272,0.00572509,0.000834966,0,0,0,0,0,0,0,4.03827,-33.3241,3.96425,25.983,2.30316,1.72661,0.0376436,
0.110905,0.00595515,0.161847,-1.99404,0.241173,0.145526,-0.0037251,0.0295118,-0.0132443,0.0290952,0.00286917,0.159137,0.0421883,-0.0019089,0,0,0,0,0,0,0,3.35852,0.00379675,3.34959,-0.719767,0.0190196,1.43209,-0.0104206,0.104057,0.0103317,0.156001,-1.99636,0.16661,0.144472,-0.00286219,0.077278,-0.0235234,0.108184,0.00222927,0.0170975,0.00931391,0.00160831,2.34576,0.206435,2.14679,0.132791,-1.89122,0.448602,0.096668,2.16175,-30.9755,2.1631,23.8882,2.15118,1.04363,0.00376909,
0.110917,0.00581954,0.161857,-1.99395,0.243712,0.144926,-0.00374553,0.0239304,-0.0139857,0.023534,0.00464077,0.190791,0.0187499,-0.00203802,0,0,0,0,0,0,0,3.33788,0.0350432,3.32949,-0.645872,0.0870863,1.38695,-0.0114128,0.104057,0.0103317,0.156001,-1.99636,0.16661,0.144472,-0.00286219,0.077278,-0.0235234,0.108184,0.00222927,0.0170975,0.00931391,0.00160831,0,0,0,0,0,0,0,2.16175,-30.9755,2.1631,23.8882,2.15118,1.04363,0.00376909,
0.11093,0.00568328,0.161868,-1.99386,0.246244,0.144329,-0.00376597,0.0194645,-0.0145952,0.0190859,0.00606254,0.215931,8.99533e-05,-0.00214144,0,0,0,0,0,0,0,3.32875,0.0602762,3.32088,-0.568381,0.171955,1.34323,-0.0125863,0.104057,0.0103317,0.156001,-1.99636,0.16661,0.144472,-0.00286219,0.077278,-0.0235234,0.108184,0.00222927,0.0170975,0.00931391,0.00160831,0,0,0,0,0,0,0,2.16175,-30.9755,2.1631,23.8882,2.15118,1.04363,0.00376909,
0.11732,0.00830464,0.169214,-1.99782,0.204878,0.178897,-0.00338349,0.0243821,-0.0142155,0.0239971,0.00480301,0.18524,0.0164491,-0.00209218,0,0,0,0,0,0,0,4.53146,0.572733,4.56124,-1.30289,2.32462,3.34285,-0.0185801,0.104057,0.0103317,0.156001,-1.99636,0.16661,0.144472,-0.00286219,0.077278,-0.0235234,0.108184,0.00222927,0.0170975,0.00931391,0.00160831,0,0,0,0,0,0,0,2.16175,-30.9755,2.1631,23.8882,2.15118,1.04363,0.00376909,
0.117665,0.00820269,0.169555,-1.99782,0.205344,0.179527,-0.00339861,0.0281149,-0.0139211,0.0277249,0.00383789,0.159844,0.0289273,-0.00205152,0,0,0,0,0,0,0,4.64431,0.638323,4.67632,-1.21873,2.38311,3.17886,-0.0210297,0.104057,0.0103317,0.156001,-1.99636,0.16661,0.144472,-0.00286219,0.077278,-0.0235234,0.108184,0.00222927,0.0170975,0.00931391,0.00160831,0,0,0,0,0,0,0,2.16175,-30.9755,2.1631,23.8882,2.15118,1.04363,0.00376909,
0.118001,0.0081004,0.169888,-1.99782,0.20578,0.180135,-0.00341367,0.0308996,-0.0136942,0.0305056,0.00310866,0.138764,0.0383225,-0.0020178,0,0,0,0,0,0,0,4.78266,0.642616,4.8198,-1.13431,2.45355,3.0155,-0.0237003,0.106598,0.00970434,0.159466,-1.99615,0.166938,0.14509,-0.0028682,0.059762,-0.0458832,0.0955078,0.00654483,0.0256433,0.00566231,-0.000298634,-2.18949,-2.79497,-1.58453,0.539445,1.06823,-0.45645,-0.238368,-1.79364,-34.8952,-1.61376,27.3001,1.64398,1.77331,0.0577852,
0.118329,0.00799778,0.170213,-1.99782,0.206188,0.180719,-0.00342869,0.032925,-0.0135207,0.032528,0.00256882,0.121211,0.0452719,-0.00198964,0,0,0,0,0,0,0,4.94577,0.652238,4.98498,-1.02429,2.52434,2.8637,-0.0265076,0.106598,0.00970434,0.159466,-1.99615,0.166938,0.14509,-0.0028682,0.059762,-0.0458832,0.0955078,0.00654483,0.0256433,0.00566231,-0.000298634,0,0,0,0,0,0,0,-1.79364,-34.8952,-1.61376,27.3001,1.64398,1.77331,0.0577852,
0.11648,0.00400827,0.169205,-1.99387,0.23571,0.146058,-0.00376318,0.0266315,-0.0142654,0.0262746,0.00419218,0.168425,0.0130108,-0.00214422,0,0,0,0,0,0,0,3.52417,0.111675,3.50805,-0.779353,0.136032,1.51393,-0.0135015,0.106598,0.00970434,0.159466,-1.99615,0.166938,0.14509,-0.0028682,0.059762,-0.0458832,0.0955078,0.00654483,0.0256433,0.00566231,-0.000298634,0,0,0,0,0,0,0,-1.79364,-34.8952,-1.61376,27.3001,1.64398,1.77331,0.0577852,
0.116492,0.00386925,0.169216,-1.99378,0.238561,0.145138,-0.00378533,0.0216127,-0.0148877,0.0212895,0.00551292,0.205998,-0.0125695,-0.00226897,0,0,0,0,0,0,0,3.51697,0.139365,3.50111,-0.705239,0.204999,1.46552,-0.0146518,0.106598,0.00970434,0.159466,-1.99615,0.166938,0.14509,-0.0028682,0.059762,-0.0458832,0.0955078,0.00654483,0.0256433,0.00566231,-0.000298634,0,0,0,0,0,0,0,-1.79364,-34.8952,-1.61376,27.3001,1.64398,1.77331,0.0577852,
0.116505,0.00372919,0.169228,-1.99369,0.241403,0.144227,-0.0038075,0.017609,-0.0154117,0.0173144,0.00658757,0.235863,-0.0328417,-0.00236956,0,0,0,0,0,0,0,3.51733,0.147332,3.50158,-0.635825,0.281179,1.41592,-0.0159284,0.108605,0.00955812,0.163027,-1.99563,0.169161,0.145672,-0.00287186,0.0621744,0.00609607,0.122458,0.00813813,0.0365254,0.0241075,-0.00193986,0.301541,6.49741,3.36873,0.199163,1.36026,2.30565,-0.205154,-0.424923,-33.7962,-0.260912,25.5069,1.95526,1.51513,0.0907442,
0.116518,0.00358813,0.169239,-1.9936,0.244238,0.143322,-0.0038297,0.014414,-0.015856,0.0141441,0.00746204,0.259563,-0.0488926,-0.00245063,0,0,0,0,0,0,0,3.53521,0.156271,3.5196,-0.552464,0.380676,1.37003,-0.0174095,0.108605,0.00955812,0.163027,-1.99563,0.169161,0.145672,-0.00287186,0.0621744,0.00609607,0.122458,0.00813813,0.0365254,0.0241075,-0.00193986,0,0,0,0,0,0,0,-0.424923,-33.7962,-0.260912,25.5069,1.95526,1.51513,0.0907442,
0.121977,0.00770457,0.176309,-1.99707,0.206912,0.175767,-0.00346937,0.0194218,-0.0152452,0.0191136,0.00615179,0.221332,-0.0272383,-0.0023822,0,0,0,0,0,0,0,4.40865,0.532346,4.41268,-1.25528,1.85092,3.01531,-0.0187741,0.108605,0.00955812,0.163027,-1.99563,0.169161,0.145672,-0.00287186,0.0621744,0.00609607,0.122458,0.00813813,0.0365254,0.0241075,-0.00193986,0,0,0,0,0,0,0,-0.424923,-33.7962,-0.260912,25.5069,1.95526,1.51513,0.0907442,
0.122284,0.00760181,0.176613,-1.99706,0.207434,0.176225,-0.0034862,0.0232245,-0.0147653,0.0228862,0.00515019,0.190114,-0.010343,-0.00232663,0,0,0,0,0,0,0,4.49637,0.587392,4.50139,-1.17656,1.90511,2.87497,-0.0209406,0.108605,0.00955812,0.163027,-1.99563,0.169161,0.145672,-0.00287186,0.0621744,0.00609607,0.122458,0.00813813,0.0365254,0.0241075,-0.00193986,0,0,0,0,0,0,0,-0.424923,-33.7962,-0.260912,25.5069,1.95526,1.51513,0.0907442,
0.122583,0.00749868,0.176908,-1.99705,0.207934,0.176667,-0.003503,0.0260627,-0.0143904,0.0257009,0.00439584,0.164579,0.00275613,-0.00228141,0,0,0,0,0,0,0,4.60786,0.576548,4.61679,-1.09988,1.97094,2.73742,-0.0233256,0.109804,0.00890339,0.167555,-1.9952,0.170983,0.145955,-0.00286667,0.00916631,-0.0260947,0.140357,0.0115573,0.106061,0.00640443,0.000135982,-6.62601,-4.02384,2.23742,0.427401,8.69191,-2.21289,0.259481,-0.147213,-33.7962,-0.16173,25.3601,1.72912,1.32287,0.0440523,
0.120224,0.00363722,0.177854,-1.99336,0.235487,0.147307,-0.00379636,0.020878,-0.0150258,0.0205559,0.00548847,0.209959,-0.0288245,-0.00240568,0,0,0,0,0,0,0,3.57982,0.146615,3.56895,-0.805991,0.219778,1.56927,-0.0159116,0.109804,0.00890339,0.167555,-1.9952,0.170983,0.145955,-0.00286667,0.00916631,-0.0260947,0.140357,0.0115573,0.106061,0.00640443,0.000135982,0,0,0,0,0,0,0,-0.147213,-33.7962,-0.16173,25.3601,1.72912,1.32287,0.0440523,
0.120229,0.00349608,0.177858,-1.99328,0.23861,0.146086,-0.00381974,0.0168236,-0.015549,0.0165341,0.00638175,0.246027,-0.0535841,-0.00250901,0,0,0,0,0,0,0,3.5825,0.172589,3.57186,-0.732318,0.289541,1.51877,-0.0171762,0.109804,0.00890339,0.167555,-1.9952,0.170983,0.145955,-0.00286667,0.00916631,-0.0260947,0.140357,0.0115573,0.106061,0.00640443,0.000135982,0,0,0,0,0,0,0,-0.147213,-33.7962,-0.16173,25.3601,1.72912,1.32287,0.0440523,
0.120236,0.00335415,0.177864,-1.9932,0.241724,0.14488,-0.00384324,0.0136466,-0.0159876,0.0133842,0.00712149,0.274683,-0.0730183,-0.00259467,0,0,0,0,0,0,0,3.59796,0.189539,3.58748,-0.654017,0.37519,1.47013,-0.0185937,0.109804,0.00890339,0.167555,-1.9952,0.170983,0.145955,-0.00286667,0.00916631,-0.0260947,0.140357,0.0115573,0.106061,0.00640443,0.000135982,0,0,0,0,0,0,0,-0.147213,-33.7962,-0.16173,25.3601,1.72912,1.32287,0.0440523,
0.120246,0.00321125,0.177873,-1.99312,0.244831,0.143686,-0.00386683,0.0111529,-0.0163626,0.0109137,0.00773662,0.297424,-0.088273,-0.00266535,0,0,0,0,0,0,0,3.62985,0.155878,3.62092,-0.571899,0.467742,1.42111,-0.0201986,0.110567,0.00846409,0.172949,-1.99494,0.173417,0.145898,-0.00286891,0.0378103,-0.0328161,0.158001,0.00562938,0.0246495,-0.00953936,-0.00110518,3.5805,-0.840181,2.20556,-0.740995,-10.1764,-1.99297,-0.155146,-1.59131,-35.1213,-1.53838,27.8754,1.69891,2.01226,0.0641939,
0.12427,0.00529917,0.186575,-1.99583,0.211513,0.170837,-0.00354612,0.0159132,-0.015852,0.0156539,0.00660603,0.253073,-0.0623866,-0.00259112,0,0,0,0,0,0,0,4.3788,0.49604,4.37994,-1.13763,1.56708,2.71854,-0.020701,0.110567,0.00846409,0.172949,-1.99494,0.173417,0.145898,-0.00286891,0.0378103,-0.0328161,0.158001,0.00562938,0.0246495,-0.00953936,-0.00110518,0,0,0,0,0,0,0,-1.59131,-35.1213,-1.53838,27.8754,1.69891,2.01226,0.0641939,
0.124542,0.00518826,0.186844,-1.99581,0.212102,0.171154,-0.00356445,0.0195159,-0.0154544,0.0192414,0.00575008,0.217182,-0.0419832,-0.00253135,0,0,0,0,0,0,0,4.46696,0.534276,4.46868,-1.05603,1.63565,2.59798,-0.0229229,0.110567,0.00846409,0.172949,-1.99494,0.173417,0.145898,-0.00286891,0.0378103,-0.0328161,0.158001,0.00562938,0.0246495,-0.00953936,-0.00110518,0,0,0,0,0,0,0,-1.59131,-35.1213,-1.53838,27.8754,1.69891,2.01226,0.0641939,
0.124805,0.00507688,0.187104,-1.99579,0.212677,0.171459,-0.00358278,0.0221921,-0.0151478,0.0219064,0.00511426,0.188128,-0.0259646,-0.00248322,0,0,0,0,0,0,0,4.5763,0.551908,4.57849,-0.964508,1.71861,2.4837,-0.0253721,0.110567,0.00846409,0.172949,-1.99494,0.173417,0.145898,-0.00286891,0.0378103,-0.0328161,0.158001,0.00562938,0.0246495,-0.00953936,-0.00110518,0,0,0,0,0,0,0,-1.59131,-35.1213,-1.53838,27.8754,1.69891,2.01226,0.0641939,
0.132646,0.00644751,0.194942,-2.00519,0.267964,0.343528,-0.00324624,0.0252583,-0.0107137,0.0249886,0.00104281,0.152747,-0.00196618,-0.00227543,0,0,0,0,0,0,0,3.71923,0.169073,3.69858,-0.86462,0.250302,1.69518,-0.0173077,0.110956,0.0074184,0.17796,-1.9947,0.176215,0.145926,-0.00286738,0.0192733,-0.0383293,0.17197,-0.000700669,0.117769,-0.000616556,-0.000499073,-2.31713,-0.689147,1.74607,-0.791256,11.64,1.11535,0.0757638,1.70551,-32.8005,1.71083,25.856,2.22992,1.41533,0.050461,
0.122907,0.0021115,0.189801,-1.99343,0.231291,0.152063,-0.00382007,0.0202518,-0.0119616,0.0200001,0.003236,0.192077,-0.031787,-0.00235528,0,0,0,0,0,0,0,3.72028,0.194999,3.69952,-0.794954,0.302462,1.63959,-0.018489,0.110956,0.0074184,0.17796,-1.9947,0.176215,0.145926,-0.00286738,0.0192733,-0.0383293,0.17197,-0.000700669,0.117769,-0.000616556,-0.000499073,0,0,0,0,0,0,0,1.70551,-32.8005,1.71083,25.856,2.22992,1.41533,0.050461,
0.1229,0.00197461,0.189793,-1.99334,0.234319,0.150712,-0.00384239,0.0160154,-0.0129916,0.0157804,0.00502572,0.229353,-0.0592072,-0.00244229,0,0,0,0,0,0,0,3.73321,0.21264,3.71228,-0.721292,0.37075,1.58704,-0.0198462,0.110956,0.0074184,0.17796,-1.9947,0.176215,0.145926,-0.00286738,0.0192733,-0.0383293,0.17197,-0.000700669,0.117769,-0.000616556,-0.000499073,0,0,0,0,0,0,0,1.70551,-32.8005,1.71083,25.856,2.22992,1.41533,0.050461,
0.122886,0.00183575,0.189778,-1.99324,0.237544,0.149243,-0.00386577,0.0124741,-0.0138647,0.0122546,0.0064514,0.264096,-0.0841,-0.00253822,0,0,0,0,0,0,0,3.7587,0.219191,3.73754,-0.642713,0.453402,1.53636,-0.0213392,0.110956,0.0074184,0.17796,-1.9947,0.176215,0.145926,-0.00286738,0.0192733,-0.0383293,0.17197,-0.000700669,0.117769,-0.000616556,-0.000499073,0,0,0,0,0,0,0,1.70551,-32.8005,1.71083,25.856,2.22992,1.41533,0.050461,
0.124663,0.00387011,0.191582,-1.99523,0.216125,0.167094,-0.00361107,0.0160516,-0.0139223,0.0158154,0.0058166,0.228903,-0.0621411,-0.00252337,0,0,0,0,0,0,0,4.26123,0.425058,4.24916,-1.07018,1.18367,2.48702,-0.0208875,0.112231,0.0071436,0.184509,-1.99439,0.178331,0.146349,-0.00286372,0.0294105,-0.0148031,0.179654,0.0144701,0.0536319,0.0169738,-0.000144435,1.26715,2.94078,0.960548,1.89634,-8.01719,2.1988,0.0443297,3.55426,-34.5223,3.23823,26.0068,2.04132,1.36864,0.017502,
0.124897,0.00375636,0.191815,-1.99521,0.216821,0.167291,-0.00363079,0.0187066,-0.0139817,0.0184584,0.00535973,0.200533,-0.0448011,-0.00251157,0,0,0,0,0,0,0,4.32722,0.455767,4.3151,-0.993915,1.24292,2.38263,-0.0228263,0.112231,0.0071436,0.184509,-1.99439,0.178331,0.146349,-0.00286372,0.0294105,-0.0148031,0.179654,0.0144701,0.0536319,0.0169738,-0.000144435,0,0,0,0,0,0,0,3.55426,-34.5223,3.23823,26.0068,2.04132,1.36864,0.017502,
0.125123,0.00364204,0.192039,-1.99517,0.217512,0.167477,-0.00365051,0.0206231,-0.0140435,0.0203665,0.00504561,0.1777,-0.0311702,-0.00250233,0,0,0,0,0,0,0,4.41127,0.469518,4.39899,-0.909716,1.31843,2.28421,-0.0249758,0.112231,0.0071436,0.184509,-1.99439,0.178331,0.146349,-0.00286372,0.0294105,-0.0148031,0.179654,0.0144701,0.0536319,0.0169738,-0.000144435,0,0,0,0,0,0,0,3.55426,-34.5223,3.23823,26.0068,2.04132,1.36864,0.017502,
0.125341,0.00352712,0.192254,-1.99514,0.218201,0.167654,-0.00367024,0.021948,-0.0141077,0.0216861,0.00484636,0.159378,-0.0205248,-0.0024952,0,0,0,0,0,0,0,4.51339,0.460364,4.50083,-0.81639,1.40309,2.18832,-0.0272327,0.112231,0.0071436,0.184509,-1.99439,0.178331,0.146349,-0.00286372,0.0294105,-0.0148031,0.179654,0.0144701,0.0536319,0.0169738,-0.000144435,0,0,0,0,0,0,0,3.55426,-34.5223,3.23823,26.0068,2.04132,1.36864,0.017502,
0.124841,0.00249385,0.196995,-1.99364,0.22614,0.156028,-0.00382234,0.0190491,-0.0145736,0.0187924,0.00588294,0.173214,-0.0314155,-0.00253218,0,0,0,0,0,0,0,3.80082,0.234852,3.77511,-0.875301,0.348189,1.77175,-0.0188695,0.112231,0.0071436,0.184509,-1.99439,0.178331,0.146349,-0.00286372,0.0294105,-0.0148031,0.179654,0.0144701,0.0536319,0.0169738,-0.000144435,0,0,0,0,0,0,0,3.55426,-34.5223,3.23823,26.0068,2.04132,1.36864,0.017502,
0.124889,0.00236085,0.19704,-1.99356,0.228154,0.155301,-0.00384393,0.0164265,-0.0149839,0.0161754,0.00680577,0.188909,-0.0432972,-0.00256561,0,0,0,0,0,0,0,3.81591,0.209566,3.79419,-0.81933,0.395595,1.70428,-0.0201323,0.113559,0.00642067,0.189094,-1.99415,0.180028,0.146359,-0.00286596,0.0570187,-0.0175248,0.142264,0.00337584,0.0134947,-0.00404931,-0.000298667,3.45103,-0.340218,-4.67377,-1.38678,-5.01715,-2.62789,-0.019279,-2.91241,-32.8243,-2.78807,25.9314,1.71722,1.48858,0.0376436,
0.124924,0.00222631,0.197074,-1.99347,0.230376,0.154433,-0.0038657,0.0140185,-0.0153507,0.0137736,0.0076346,0.206686,-0.0563494,-0.00259678,0,0,0,0,0,0,0,3.83846,0.225619,3.81643,-0.746088,0.463749,1.6481,-0.0216096,0.113559,0.00642067,0.189094,-1.99415,0.180028,0.146359,-0.00286596,0.0570187,-0.0175248,0.142264,0.00337584,0.0134947,-0.00404931,-0.000298667,0,0,0,0,0,0,0,-2.91241,-32.8243,-2.78807,25.9314,1.71722,1.48858,0.0376436,
0.131613,0.00210698,0.207044,-1.99522,0.185601,0.189531,-0.00370579,0.0153307,-0.0149832,0.0150816,0.0073007,0.167922,-0.0328728,-0.00256177,0,0,0,0,0,0,0,6.23234,1.02721,6.23674,-1.12372,1.24781,3.20283,-0.0362812,0.113559,0.00642067,0.189094,-1.99415,0.180028,0.146359,-0.00286596,0.0570187,-0.0175248,0.142264,0.00337584,0.0134947,-0.00404931,-0.000298667,0,0,0,0,0,0,0,-2.91241,-32.8243,-2.78807,25.9314,1.71722,1.48858,0.0376436,
0.131764,0.0019976,0.207193,-1.99517,0.185817,0.18994,-0.00372534,0.0160327,-0.014721,0.0157814,0.0071427,0.139738,-0.0160672,-0.00253835,0,0,0,0,0,0,0,6.46122,0.830115,6.46384,-0.96743,1.23621,3.06085,-0.0384535,0.113559,0.00642067,0.189094,-1.99415,0.180028,0.146359,-0.00286596,0.0570187,-0.0175248,0.142264,0.00337584,0.0134947,-0.00404931,-0.000298667,0,0,0,0,0,0,0,-2.91241,-32.8243,-2.78807,25.9314,1.71722,1.48858,0.0376436,
0.1319,0.00188682,0.207327,-1.99511,0.186167,0.190256,-0.00374511,0.0162361,-0.0145463,0.0159839,0.00713267,0.120539,-0.00495002,-0.00252479,0,0,0,0,0,0,0,6.68377,0.488129,6.68674,-0.821106,1.16183,2.87927,-0.0390292,0.114955,0.00589721,0.194327,-1.99398,0.180258,0.14636,-0.00286726,0.0246798,-0.0170006,0.146041,0.0056679,0.0156382,0.00213045,-0.00209103,-4.04236,0.0655287,0.472146,0.286507,0.267945,0.772469,-0.224045,-1.49212,-33.6733,-1.56218,26.4035,1.43615,1.62041,0.0779268,
0.132022,0.00177449,0.207446,-1.99505,0.186675,0.190463,-0.0037651,0.0160282,-0.0144452,0.0157762,0.00724904,0.109128,0.00120569,-0.00251958,0,0,0,0,0,0,0,6.88208,0.100806,6.8814,-0.679916,1.03217,2.65924,-0.0375864,0.114955,0.00589721,0.194327,-1.99398,0.180258,0.14636,-0.00286726,0.0246798,-0.0170006,0.146041,0.0056679,0.0156382,0.00213045,-0.00209103,0,0,0,0,0,0,0,-1.49212,-33.6733,-1.56218,26.4035,1.43615,1.62041,0.0779268,
0.127008,0.000355316,0.206292,-1.99348,0.233765,0.149494,-0.00387838,0.0147086,-0.0149507,0.0144871,0.00759613,0.126523,-0.0104763,-0.00258357,0,0,0,0,0,0,0,4.03766,0.202217,4.02306,-0.799252,0.838376,2.06693,-0.0306986,0.114955,0.00589721,0.194327,-1.99398,0.180258,0.14636,-0.00286726,0.0246798,-0.0170006,0.146041,0.0056679,0.0156382,0.00213045,-0.00209103,0,0,0,0,0,0,0,-1.49212,-33.6733,-1.56218,26.4035,1.43615,1.62041,0.0779268,
0.127072,0.000218104,0.206356,-1.99341,0.23548,0.148935,-0.00390124,0.0133776,-0.0153908,0.0131822,0.00796696,0.144098,-0.0223621,-0.00263826,0,0,0,0,0,0,0,4.1511,0.189833,4.13692,-0.666472,1.03371,1.97391,-0.0338466,0.114955,0.00589721,0.194327,-1.99398,0.180258,0.14636,-0.00286726,0.0246798,-0.0170006,0.146041,0.0056679,0.0156382,0.00213045,-0.00209103,0,0,0,0,0,0,0,-1.49212,-33.6733,-1.56218,26.4035,1.43615,1.62041,0.0779268,
0.127125,7.93901e-05,0.206408,-1.99333,0.237365,0.148257,-0.00392424,0.0120263,-0.0157805,0.0118538,0.00835941,0.162414,-0.0348247,-0.00268575,0,0,0,0,0,0,0,4.28982,0.0808125,4.28085,-0.521645,1.19762,1.84985,-0.0367876,0.116307,0.0051226,0.199245,-1.99381,0.181026,0.146539,-0.00286846,0.0643952,-0.0166365,0.137806,0.0146092,0.00234727,0.0110073,-0.000545712,4.96442,0.0455134,-1.02941,1.11766,-1.66137,1.10961,0.193164,-0.119442,-33.9232,-0.0863513,25.257,1.54602,1.72661,0.050461,
