xiao-wang007/linearmpc_panda/paper_data/panda_torque_PD_controller_error_match_to_start/2/trajectory.csv
Commanded Joint 0 Position,Commanded Joint 1 Position,Commanded Joint 2 Position,Commanded Joint 3 Position,Commanded Joint 4 Position,Commanded Joint 5 Position,Commanded Joint 6 Position,Commanded Joint 0 Velocity,Commanded Joint 1 Velocity,Commanded Joint 2 Velocity,Commanded Joint 3 Velocity,Commanded Joint 4 Velocity,Commanded Joint 5 Velocity,Commanded Joint 6 Velocity,Commanded Joint 0 Acceleration,Commanded Joint 1 Acceleration,Commanded Joint 2 Acceleration,Commanded Joint 3 Acceleration,Commanded Joint 4 Acceleration,Commanded Joint 5 Acceleration,Commanded Joint 6 Acceleration,Commanded Joint 0 Torque,Commanded Joint 1 Torque,Commanded Joint 2 Torque,Commanded Joint 3 Torque,Commanded Joint 4 Torque,Commanded Joint 5 Torque,Commanded Joint 6 Torque,Actual Joint 0 Position,Actual Joint 1 Position,Actual Joint 2 Position,Actual Joint 3 Position,Actual Joint 4 Position,Actual Joint 5 Position,Actual Joint 6 Position,Actual Joint 0 Velocity,Actual Joint 1 Velocity,Actual Joint 2 Velocity,Actual Joint 3 Velocity,Actual Joint 4 Velocity,Actual Joint 5 Velocity,Actual Joint 6 Velocity,Actual Joint 0 Acceleration,Actual Joint 1 Acceleration,Actual Joint 2 Acceleration,Actual Joint 3 Acceleration,Actual Joint 4 Acceleration,Actual Joint 5 Acceleration,Actual Joint 6 Acceleration,Actual Joint 0 Torque,Actual Joint 1 Torque,Actual Joint 2 Torque,Actual Joint 3 Torque,Actual Joint 4 Torque,Actual Joint 5 Torque,Actual Joint 6 Torque,
-0.0359974,0.0808489,0.0249709,-1.77033,-0.00847065,0.311791,0.0662767,0.000534057,0.0252576,0.000329926,-0.0318302,-0.00425654,0.0565666,-0.000382721,0.333786,15.786,0.206204,-19.8939,-2.66034,35.3541,-0.239201,0.0603471,27.1026,-0.0787123,-24.4025,-0.559539,1.92908,-0.024674,-0.0360399,0.0788749,0.0249479,-1.76706,-0.00816911,0.30579,0.0663235,0.00103609,8.88809e-05,-0.000578425,-0.000558651,-0.0044525,0.000244754,0.000726483,0,0,0,0,0,0,0,-0.119442,-38.5649,0.0644055,27.3993,0.960079,3.01293,0.104477,
-0.036039,0.078879,0.0249481,-1.76706,-0.00820969,0.305787,0.0663233,0.000422446,0.0202367,0.000257213,-0.0254874,-0.00358895,0.0452163,-0.000308296,-0.0697567,-3.13802,-0.0454458,3.96423,0.41724,-7.09397,0.0465154,0.0545245,27.543,-0.0891057,-24.319,-0.559964,1.6784,-0.023156,-0.0360399,0.0788749,0.0249479,-1.76706,-0.00816911,0.30579,0.0663235,0.00103609,8.88809e-05,-0.000578425,-0.000558651,-0.0044525,0.000244754,0.000726483,0,0,0,0,0,0,0,-0.119442,-38.5649,0.0644055,27.3993,0.960079,3.01293,0.104477,
-0.0360393,0.07888,0.0249477,-1.76706,-0.00821423,0.305785,0.0663232,0.000329711,0.0162151,0.000196651,-0.0204084,-0.00298473,0.0361384,-0.000247743,-0.0579593,-2.51355,-0.0378513,3.17442,0.377636,-5.67369,0.0378456,0.0472489,28.1144,-0.100891,-24.211,-0.559516,1.33107,-0.0211875,-0.0360399,0.0788749,0.0249479,-1.76706,-0.00816911,0.30579,0.0663235,0.00103609,8.88809e-05,-0.000578425,-0.000558651,-0.0044525,0.000244754,0.000726483,0,0,0,0,0,0,0,-0.119442,-38.5649,0.0644055,27.3993,0.960079,3.01293,0.104477,
-0.0360397,0.0788808,0.0249474,-1.76706,-0.00821714,0.305784,0.0663232,0.000254646,0.0129933,0.000147868,-0.0163416,-0.00246067,0.0288795,-0.000198748,-0.0469161,-2.01361,-0.0304894,2.54175,0.327543,-4.53677,0.030622,0.0412203,28.6418,-0.110632,-24.0422,-0.557514,0.947055,-0.0191908,-0.0360377,0.0790125,0.0249494,-1.76711,-0.00817407,0.305787,0.0663212,0.00281516,0.00658926,-0.00218342,-0.00397095,-0.00503204,-0.000149584,-0.000763569,0.222384,0.812548,-0.200625,-0.426538,-0.0724428,-0.0492922,-0.186257,-0.198788,-38.1642,-0.0109729,27.1533,1.03332,3.0468,0.124619,
-0.0360196,0.0795357,0.0249637,-1.76764,-0.00836763,0.306081,0.0663263,0.000656457,0.0234729,0.000476115,-0.0262053,-0.0068075,0.0304657,-3.17089e-05,0.251132,6.54976,0.205154,-6.16482,-2.71677,0.991383,0.1044,-3.08883e-05,33.2671,-0.139103,-23.3052,-0.96334,-2.2649,0.000764294,-0.0360377,0.0790125,0.0249494,-1.76711,-0.00817407,0.305787,0.0663212,0.00281516,0.00658926,-0.00218342,-0.00397095,-0.00503204,-0.000149584,-0.000763569,0,0,0,0,0,0,0,-0.198788,-38.1642,-0.0109729,27.1533,1.03332,3.0468,0.124619,
-0.0360519,0.0800049,0.0249156,-1.76788,-0.00749637,0.305509,0.066307,-0.000282523,0.0305088,-0.000821692,-0.0269701,0.0163354,0.010079,-0.00050782,-0.586863,4.39747,-0.811129,-0.478048,14.4643,-12.7417,-0.297569,0.522339,0.124126,0.52423,-0.26362,3.23063,-1.8134,-0.00186327,-0.0360377,0.0790125,0.0249494,-1.76711,-0.00817407,0.305787,0.0663212,0.00281516,0.00658926,-0.00218342,-0.00397095,-0.00503204,-0.000149584,-0.000763569,0,0,0,0,0,0,0,-0.198788,-38.1642,-0.0109729,27.1533,1.03332,3.0468,0.124619,
-0.0361085,0.0803743,0.024852,-1.76804,-0.00600425,0.304532,0.0662948,-0.00164133,0.0336418,-0.00224826,-0.0256691,0.0503713,-0.0163776,-0.000710571,-0.849256,1.95807,-0.891603,0.813148,21.2724,-16.5354,-0.126719,0.517265,0.121483,0.51952,-0.262015,3.20167,-1.79761,-0.00184953,-0.0360377,0.0790125,0.0249494,-1.76711,-0.00817407,0.305787,0.0663212,0.00281516,0.00658926,-0.00218342,-0.00397095,-0.00503204,-0.000149584,-0.000763569,0,0,0,0,0,0,0,-0.198788,-38.1642,-0.0109729,27.1533,1.03332,3.0468,0.124619,
-0.0361682,0.0806593,0.02479,-1.76817,-0.00415519,0.303334,0.0662879,-0.00280505,0.0340401,-0.0033474,-0.0238377,0.0865236,-0.0430548,-0.000742561,-0.727324,0.248937,-0.686966,1.14463,22.5951,-16.6732,-0.019994,0.51216,0.120308,0.514469,-0.259802,3.17274,-1.78147,-0.00181339,-0.0360377,0.0790125,0.0249494,-1.76711,-0.00817407,0.305787,0.0663212,0.00281516,0.00658926,-0.00218342,-0.00397095,-0.00503204,-0.000149584,-0.000763569,0,0,0,0,0,0,0,-0.198788,-38.1642,-0.0109729,27.1533,1.03332,3.0468,0.124619,
-0.0360271,0.0813154,0.0249601,-1.76959,-0.00850252,0.309704,0.0663225,-0.00147114,0.0585958,-0.0020503,-0.044203,0.0609784,-0.00939887,-0.000451906,0.833693,15.3473,0.810692,-12.7283,-15.9657,21.0349,0.181659,-0.00470695,33.3261,-0.145578,-23.2894,-0.962751,-2.25496,0.000723788,-0.036058,0.0800608,0.024935,-1.76859,-0.0081729,0.308703,0.0663168,0.000789821,0.0927799,0.00169708,-0.156714,-0.0114796,0.264062,-0.000327821,-0.253167,10.7738,0.485062,-19.0928,-0.805948,33.0264,0.0544686,0.134464,-19.8711,0.163588,9.49097,0.502316,1.19652,0.131027,
-0.0361053,0.0823847,0.0248335,-1.76989,-0.00539213,0.307152,0.0662594,-0.00313302,0.073609,-0.00480428,-0.0427405,0.126543,-0.0713389,-0.00193938,-1.03867,9.38324,-1.72124,0.914043,40.9776,-38.7125,-0.929668,4.46736,0.559359,4.38515,-1.799,11.0372,-9.83997,-0.00763478,-0.036058,0.0800608,0.024935,-1.76859,-0.0081729,0.308703,0.0663168,0.000789821,0.0927799,0.00169708,-0.156714,-0.0114796,0.264062,-0.000327821,0,0,0,0,0,0,0,0.134464,-19.8711,0.163588,9.49097,0.502316,1.19652,0.131027,
-0.0362231,0.0831722,0.0246922,-1.77005,-0.000236765,0.302729,0.0662203,-0.00545099,0.0785763,-0.00737737,-0.038416,0.230118,-0.167646,-0.0025289,-1.44873,3.1046,-1.60818,2.70283,64.7348,-60.1917,-0.368452,4.4099,0.643608,4.31774,-1.72586,11.0372,-9.64113,-0.006892,-0.036058,0.0800608,0.024935,-1.76859,-0.0081729,0.308703,0.0663168,0.000789821,0.0927799,0.00169708,-0.156714,-0.0114796,0.264062,-0.000327821,0,0,0,0,0,0,0,0.134464,-19.8711,0.163588,9.49097,0.502316,1.19652,0.131027,
-0.0363238,0.083743,0.0245809,-1.77021,0.00613105,0.297213,0.0661985,-0.00687715,0.0771292,-0.00868269,-0.0346476,0.34329,-0.272002,-0.00256854,-0.89135,-0.90443,-0.815823,2.35522,70.7323,-65.2225,-0.0247727,4.34138,0.696811,4.24396,-1.66367,11.0372,-9.43459,-0.00645175,-0.036058,0.0800608,0.024935,-1.76859,-0.0081729,0.308703,0.0663168,0.000789821,0.0927799,0.00169708,-0.156714,-0.0114796,0.264062,-0.000327821,0,0,0,0,0,0,0,0.134464,-19.8711,0.163588,9.49097,0.502316,1.19652,0.131027,
-0.0359024,0.0867461,0.0251228,-1.77591,-0.00665296,0.312756,0.066337,-0.00336108,0.0967034,-0.00476299,-0.0586787,0.289369,-0.234518,-0.00162812,2.19754,12.2339,2.44981,-15.0194,-33.7005,23.4271,0.587763,-0.0042803,33.5069,-0.155043,-23.2749,-0.962908,-2.22234,0.000429226,-0.035988,0.0853461,0.0250355,-1.77467,-0.00724245,0.313433,0.0663199,0.00336866,0.111117,0.00697449,-0.184457,0.178991,-0.0393097,0.00156844,0.322355,2.29211,0.659677,-3.46796,23.8088,-37.9214,0.237032,-0.0718349,-27.2066,-0.0109729,25.6061,1.74743,2.2503,0.0980684,
-0.035473,0.0877357,0.0255562,-1.77673,-0.00388616,0.308144,0.0663559,0.0080466,0.102103,0.00702559,-0.0675167,0.300665,-0.302914,-0.000829398,7.1298,3.37487,7.36787,-5.52377,7.0602,-42.7473,0.499198,29.8057,-2.21549,29.2316,-11.6334,11.0371,-14.2223,0.0363403,-0.035988,0.0853461,0.0250355,-1.77467,-0.00724245,0.313433,0.0663199,0.00336866,0.111117,0.00697449,-0.184457,0.178991,-0.0393097,0.00156844,0,0,0,0,0,0,0,-0.0718349,-27.2066,-0.0109729,25.6061,1.74743,2.2503,0.0980684,
-0.0347419,0.0884222,0.0262676,-1.77741,0.000420793,0.30115,0.066394,0.0247145,0.0988435,0.0234049,-0.0708831,0.348206,-0.417192,0.000290069,10.4174,-2.03735,10.2371,-2.10394,29.7129,-71.4239,0.699667,28.7732,-0.749871,27.9654,-9.82431,11.0371,-14.2223,0.0514361,-0.035988,0.0853461,0.0250355,-1.77467,-0.00724245,0.313433,0.0663199,0.00336866,0.111117,0.00697449,-0.184457,0.178991,-0.0393097,0.00156844,0,0,0,0,0,0,0,-0.0718349,-27.2066,-0.0109729,25.6061,1.74743,2.2503,0.0980684,
-0.0337699,0.0889001,0.0272056,-1.77802,0.00583456,0.292654,0.0664487,0.0440709,0.0910235,0.0421751,-0.0719131,0.413909,-0.546152,0.00159766,12.0978,-4.8875,11.7314,-0.643756,41.0644,-80.5996,0.817245,27.5786,-0.465565,26.6937,-8.44212,11.0371,-14.2223,0.0666588,-0.035988,0.0853461,0.0250355,-1.77467,-0.00724245,0.313433,0.0663199,0.00336866,0.111117,0.00697449,-0.184457,0.178991,-0.0393097,0.00156844,0,0,0,0,0,0,0,-0.0718349,-27.2066,-0.0109729,25.6061,1.74743,2.2503,0.0980684,
-0.0359024,0.0867461,0.0251228,-1.77591,-0.00665296,0.312756,0.066337,0.0373973,0.107819,0.0359233,-0.0884911,0.345864,-0.453838,0.00170484,-4.17096,10.4971,-3.90742,-10.3613,-42.5279,57.6958,0.0669881,-0.0893038,33.7343,-0.250851,-23.3089,-1.01281,-2.1628,0.000821694,-0.0359982,0.0903085,0.0251932,-1.77666,-0.00183277,0.304031,0.0662994,0.00465215,0.186451,0.0188972,-0.0485916,0.462512,-0.538486,0.00016982,0.160437,9.41681,1.49034,16.9832,35.4401,-62.3971,-0.174827,4.39136,-44.7539,4.21419,22.6663,3.40271,-2.42347,0.23906,
-0.0352311,0.0873796,0.0258164,-1.77733,-0.00435348,0.30856,0.0665595,0.046701,0.102092,0.0460791,-0.106348,0.334179,-0.467993,0.00692638,5.81479,-3.57911,6.34739,-11.1605,-7.30356,-8.84703,3.26346,43.7163,-9.48322,42.7257,-21.2702,10.9872,-14.1628,0.273149,-0.0359982,0.0903085,0.0251932,-1.77666,-0.00183277,0.304031,0.0662994,0.00465215,0.186451,0.0188972,-0.0485916,0.462512,-0.538486,0.00016982,0,0,0,0,0,0,0,4.39136,-44.7539,4.21419,22.6663,3.40271,-2.42347,0.23906,
-0.0341311,0.0876209,0.0268996,-1.77874,-0.000567749,0.301943,0.0666862,0.0648593,0.0877054,0.0639444,-0.120255,0.361986,-0.539808,0.00871026,11.3489,-8.99176,11.1658,-8.69183,17.3796,-44.8842,1.11493,38.9743,-6.90319,37.9054,-19.8736,10.9872,-14.1628,0.14579,-0.0359982,0.0903085,0.0251932,-1.77666,-0.00183277,0.304031,0.0662994,0.00465215,0.186451,0.0188972,-0.0485916,0.462512,-0.538486,0.00016982,0,0,0,0,0,0,0,4.39136,-44.7539,4.21419,22.6663,3.40271,-2.42347,0.23906,
-0.0358414,0.0918719,0.025366,-1.77783,0.000232724,0.301391,0.0663258,0.0558075,0.109249,0.0554745,-0.125489,0.341226,-0.497834,0.00762977,-5.65739,13.4648,-5.29366,-3.27121,-12.9749,26.2337,-0.675308,-0.0893038,33.7343,-0.250851,-23.3089,-1.01281,-2.1628,0.000821694,-0.0359982,0.0903085,0.0251932,-1.77666,-0.00183277,0.304031,0.0662994,0.00465215,0.186451,0.0188972,-0.0485916,0.462512,-0.538486,0.00016982,0,0,0,0,0,0,0,4.39136,-44.7539,4.21419,22.6663,3.40271,-2.42347,0.23906,
-0.0349085,0.0922848,0.0262989,-1.77995,0.00316782,0.296443,0.0666947,0.0679681,0.097721,0.0677025,-0.153406,0.346358,-0.521986,0.0153266,7.6004,-7.20502,7.6425,-17.4484,3.20759,-15.0948,4.81049,52.9731,-14.874,51.1275,-31.159,10.8894,-14.0073,0.435423,-0.03583,0.0961974,0.0253551,-1.77928,0.0246148,0.28102,0.0662943,0.0468015,0.0536415,0.0978331,-0.213621,0.682887,-0.808443,-0.000721441,5.26867,-16.6012,9.86698,-20.6286,27.5468,-33.7446,-0.111408,13.0162,-38.8387,12.9105,19.1553,2.49267,-4.45228,0.191452,
-0.0334873,0.0923116,0.0276812,-1.78209,0.00723291,0.289372,0.0668292,0.0899048,0.0788487,0.0887208,-0.175993,0.378714,-0.594361,0.0156222,13.7104,-11.7952,13.1364,-14.1165,20.2223,-45.2345,0.184767,44.69,-9.54027,43.1357,-28.3548,10.8894,-14.0073,0.136055,-0.03583,0.0961974,0.0253551,-1.77928,0.0246148,0.28102,0.0662943,0.0468015,0.0536415,0.0978331,-0.213621,0.682887,-0.808443,-0.000721441,0,0,0,0,0,0,0,13.0162,-38.8387,12.9105,19.1553,2.49267,-4.45228,0.191452,
-0.0317684,0.0922278,0.0293451,-1.78406,0.0123889,0.280829,0.0668216,0.114896,0.0609827,0.112574,-0.190096,0.431871,-0.68905,0.0123087,15.6198,-11.1663,14.9085,-8.81445,33.2232,-59.1806,-2.0709,39.2415,-5.46665,37.932,-25.7447,10.8894,-14.0073,-0.0254606,-0.03583,0.0961974,0.0253551,-1.77928,0.0246148,0.28102,0.0662943,0.0468015,0.0536415,0.0978331,-0.213621,0.682887,-0.808443,-0.000721441,0,0,0,0,0,0,0,13.0162,-38.8387,12.9105,19.1553,2.49267,-4.45228,0.191452,
-0.0324648,0.0951243,0.0286635,-1.78471,0.0349662,0.265189,0.0668547,0.140032,0.0341361,0.136976,-0.218639,0.480001,-0.765242,0.0125598,15.7097,-16.7791,15.2513,-17.8393,30.0812,-47.6199,0.156914,59.232,-18.9444,56.8022,-39.6856,10.8894,-14.0073,0.509924,-0.03583,0.0961974,0.0253551,-1.77928,0.0246148,0.28102,0.0662943,0.0468015,0.0536415,0.0978331,-0.213621,0.682887,-0.808443,-0.000721441,0,0,0,0,0,0,0,13.0162,-38.8387,12.9105,19.1553,2.49267,-4.45228,0.191452,
-0.0302857,0.0946242,0.0307751,-1.78715,0.0410498,0.255728,0.0667682,0.166503,0.0148052,0.162371,-0.236014,0.53609,-0.848726,0.00788504,16.5442,-12.0818,15.8717,-10.8596,35.0556,-52.1778,-2.92172,48.3503,-10.4298,46.5969,-35.028,10.958,-13.6566,0.0818558,-0.0291461,0.100476,0.0303035,-1.78505,0.0466772,0.240999,0.0663246,0.284864,-0.0577103,0.149563,-0.437312,0.629729,-1.1798,0.000743761,29.7578,-13.919,6.46629,-27.9614,-6.64468,-46.4191,0.18315,27.4453,-32.4236,26.0581,16.041,4.45373,-2.34382,0.151169,
-0.0279786,0.0942271,0.0330042,-1.78944,0.0478317,0.245724,0.0665848,0.19088,0.00191588,0.185624,-0.246027,0.598421,-0.929078,0.00172443,15.2358,-8.05585,14.5331,-6.25809,38.9566,-50.22,-3.85038,41.5414,-5.62364,40.1297,-31.8931,10.958,-13.6566,-0.132507,-0.0291461,0.100476,0.0303035,-1.78505,0.0466772,0.240999,0.0663246,0.284864,-0.0577103,0.149563,-0.437312,0.629729,-1.1798,0.000743761,0,0,0,0,0,0,0,27.4453,-32.4236,26.0581,16.041,4.45373,-2.34382,0.151169,
-0.0256173,0.0939009,0.0352825,-1.79165,0.0552016,0.235413,0.0663859,0.211738,-0.00662246,0.205457,-0.252042,0.662984,-1.00104,-0.00359244,13.036,-5.33646,12.3952,-3.75945,40.3523,-44.9747,-3.32304,37.1321,-3.29863,35.8964,-29.7764,10.958,-13.6566,-0.238043,-0.0291461,0.100476,0.0303035,-1.78505,0.0466772,0.240999,0.0663246,0.284864,-0.0577103,0.149563,-0.437312,0.629729,-1.1798,0.000743761,0,0,0,0,0,0,0,27.4453,-32.4236,26.0581,16.041,4.45373,-2.34382,0.151169,
-0.0225642,0.100026,0.0366494,-1.79283,0.0658419,0.208932,0.0658641,0.226627,-0.00753587,0.219534,-0.261745,0.707135,-1.07295,-0.00780407,9.30554,-0.570882,8.79837,-6.0641,27.5942,-44.9472,-2.63227,41.5414,-5.62364,40.1297,-31.8931,10.958,-13.6566,-0.132507,-0.0291461,0.100476,0.0303035,-1.78505,0.0466772,0.240999,0.0663246,0.284864,-0.0577103,0.149563,-0.437312,0.629729,-1.1798,0.000743761,0,0,0,0,0,0,0,27.4453,-32.4236,26.0581,16.041,4.45373,-2.34382,0.151169,
-0.0202597,0.0999327,0.0388692,-1.79518,0.0734316,0.198033,0.065677,0.238916,-0.00836536,0.231121,-0.26797,0.75545,-1.13084,-0.0109214,7.68074,-0.518431,7.24184,-3.89059,30.1969,-36.1805,-1.94836,37.5516,-2.99336,36.278,-29.4803,11.1403,-13.1668,-0.238602,-0.0186545,0.0981396,0.0413131,-1.80247,0.0680871,0.204694,0.0664559,0.392473,-0.104699,0.451283,-0.468412,0.797388,-1.51689,0.0051622,13.4512,-5.87356,37.715,-3.88749,20.9573,-42.1369,0.552305,21.3594,-36.0933,20.3095,20.1788,4.55078,-2.3841,0.211594,
-0.0179841,0.0998246,0.0410605,-1.79748,0.0814325,0.187147,0.0654748,0.248022,-0.00939548,0.23968,-0.271878,0.804382,-1.17682,-0.0137909,5.69148,-0.643826,5.34977,-2.44272,30.5826,-28.7374,-1.7934,34.4286,-2.30043,33.2647,-28.2255,11.1403,-13.1668,-0.248748,-0.0186545,0.0981396,0.0413131,-1.80247,0.0680871,0.204694,0.0664559,0.392473,-0.104699,0.451283,-0.468412,0.797388,-1.51689,0.0051622,0,0,0,0,0,0,0,21.3594,-36.0933,20.3095,20.1788,4.55078,-2.3841,0.211594,
-0.0202597,0.0999327,0.0388692,-1.79518,0.0734316,0.198033,0.065677,0.256032,-0.00985305,0.247238,-0.276076,0.833248,-1.21394,-0.0157109,5.00629,-0.285979,4.72352,-2.62392,18.041,-23.1969,-1.20001,31.6536,-2.52645,30.5979,-27.6633,11.1403,-13.1668,-0.230458,-0.0186545,0.0981396,0.0413131,-1.80247,0.0680871,0.204694,0.0664559,0.392473,-0.104699,0.451283,-0.468412,0.797388,-1.51689,0.0051622,0,0,0,0,0,0,0,21.3594,-36.0933,20.3095,20.1788,4.55078,-2.3841,0.211594,
-0.00476106,0.097417,0.0546293,-1.81469,0.111201,0.147,0.0653611,0.265426,-0.00929737,0.256018,-0.276769,0.895883,-1.2354,-0.0179613,5.8713,0.347302,5.48741,-0.43298,39.1468,-13.4137,-1.40649,28.9195,-2.60727,27.981,-27.2382,11.1403,-13.1668,-0.247218,-0.0186545,0.0981396,0.0413131,-1.80247,0.0680871,0.204694,0.0664559,0.392473,-0.104699,0.451283,-0.468412,0.797388,-1.51689,0.0051622,0,0,0,0,0,0,0,21.3594,-36.0933,20.3095,20.1788,4.55078,-2.3841,0.211594,
-0.00246515,0.097366,0.0568363,-1.8169,0.120385,0.137193,0.065167,0.269739,-0.00871329,0.25999,-0.276728,0.946323,-1.23348,-0.0192197,2.6954,0.365046,2.48239,0.0257657,31.5252,1.1985,-0.786487,26.6892,-1.83986,25.7918,-26.4359,11.1166,-12.0818,-0.272058,-0.00220801,0.0962964,0.0570917,-1.82187,0.0986354,0.153106,0.0664617,0.402401,0.0715207,0.552658,-0.513691,1.0598,-1.71471,-0.0152758,1.24095,22.0274,12.6718,-5.65989,32.8021,-24.7279,-2.55474,12.8615,-40.2867,12.4384,23.4915,3.13446,-1.29005,0.198776,
-0.000277505,0.0973118,0.0589398,-1.81913,0.129538,0.128539,0.0649978,0.270482,-0.00832572,0.26058,-0.277207,0.985876,-1.20314,-0.0196068,0.464515,0.242236,0.368663,-0.299816,24.7207,18.9655,-0.241944,25.1055,-1.35972,24.262,-25.6475,11.1166,-11.5063,-0.273385,-0.00220801,0.0962964,0.0570917,-1.82187,0.0986354,0.153106,0.0664617,0.402401,0.0715207,0.552658,-0.513691,1.0598,-1.71471,-0.0152758,0,0,0,0,0,0,0,12.8615,-40.2867,12.4384,23.4915,3.13446,-1.29005,0.198776,
0.00975749,0.0986721,0.0685362,-1.83332,0.136719,0.106478,0.0656035,0.281403,0.00418609,0.270707,-0.287372,1.02909,-1.20664,-0.0201128,6.82544,7.81988,6.32973,-6.35305,27.0084,-2.19199,-0.316266,25.1055,-1.35972,24.262,-25.6475,11.1166,-11.5063,-0.273385,-0.00220801,0.0962964,0.0570917,-1.82187,0.0986354,0.153106,0.0664617,0.402401,0.0715207,0.552658,-0.513691,1.0598,-1.71471,-0.0152758,0,0,0,0,0,0,0,12.8615,-40.2867,12.4384,23.4915,3.13446,-1.29005,0.198776,
0.0121777,0.0990065,0.0708545,-1.83587,0.146225,0.0982582,0.0654477,0.285628,0.0117075,0.274523,-0.293706,1.06092,-1.17081,-0.0199857,2.64084,4.70086,2.38489,-3.95833,19.8945,22.3961,0.0794603,23.9483,-1.07257,23.1398,-24.9347,11.1166,-11.0338,-0.256131,-0.00220801,0.0962964,0.0570917,-1.82187,0.0986354,0.153106,0.0664617,0.402401,0.0715207,0.552658,-0.513691,1.0598,-1.71471,-0.0152758,0,0,0,0,0,0,0,12.8615,-40.2867,12.4384,23.4915,3.13446,-1.29005,0.198776,
0.0144472,0.099255,0.0730289,-1.83835,0.155593,0.0915502,0.065313,0.285239,0.0155799,0.273979,-0.296939,1.08292,-1.10435,-0.0193569,-0.243185,2.42025,-0.340132,-2.0207,13.7474,41.5391,0.392975,23.0166,-0.942346,22.2308,-24.2808,11.1166,-9.51384,-0.231404,-0.00220801,0.0962964,0.0570917,-1.82187,0.0986354,0.153106,0.0664617,0.402401,0.0715207,0.552658,-0.513691,1.0598,-1.71471,-0.0152758,0,0,0,0,0,0,0,12.8615,-40.2867,12.4384,23.4915,3.13446,-1.29005,0.198776,
0.016588,0.0994297,0.0750802,-1.84075,0.164815,0.0862607,0.0651948,0.281711,0.0168323,0.270464,-0.297575,1.09689,-1.01572,-0.0184407,-2.2052,0.782741,-2.19693,-0.397929,8.73134,55.3952,0.572609,22.6397,-1.0867,21.7981,-23.1091,11.2655,-6.46003,-0.204744,0.0191768,0.0948849,0.0760681,-1.8427,0.136213,0.0909018,0.0658899,0.599951,-0.00911522,0.646093,-0.483448,1.22373,-1.92408,-0.0193958,24.6937,-10.0795,11.6794,3.78036,20.4909,-26.1702,-0.515002,6.62494,-39.5369,7.16188,20.7501,3.65356,-1.67457,0.171311,
0.0362143,0.0960026,0.0923261,-1.85669,0.189295,0.0511479,0.0651821,0.291932,0.0171399,0.280023,-0.299055,1.13328,-0.914046,-0.0172233,6.38807,0.192257,5.9745,-0.924825,22.7437,63.5431,0.760868,21.8799,-1.29412,21.0608,-22.7105,11.2655,-4.45004,-0.181698,0.0191768,0.0948849,0.0760681,-1.8427,0.136213,0.0909018,0.0658899,0.599951,-0.00911522,0.646093,-0.483448,1.22373,-1.92408,-0.0193958,0,0,0,0,0,0,0,6.62494,-39.5369,7.16188,20.7501,3.65356,-1.67457,0.171311,
0.0386396,0.0960912,0.0946458,-1.85899,0.199219,0.0484448,0.0651014,0.294178,0.0159256,0.282013,-0.29686,1.15471,-0.798816,-0.0157953,1.40405,-0.758947,1.24349,1.37215,13.3987,72.0187,0.892532,21.1829,-1.51894,20.3887,-22.3919,11.2655,-2.73227,-0.157077,0.0191768,0.0948849,0.0760681,-1.8427,0.136213,0.0909018,0.0658899,0.599951,-0.00911522,0.646093,-0.483448,1.22373,-1.92408,-0.0193958,0,0,0,0,0,0,0,6.62494,-39.5369,7.16188,20.7501,3.65356,-1.67457,0.171311,
0.0408684,0.0961273,0.0967776,-1.86117,0.208857,0.046875,0.0650358,0.291061,0.0136446,0.278905,-0.292041,1.16473,-0.678298,-0.0142756,-1.94824,-1.42557,-1.94248,3.01182,6.25778,75.3236,0.94979,20.5389,-1.68316,19.7706,-22.1035,11.2655,-1.27958,-0.137473,0.0191768,0.0948849,0.0760681,-1.8427,0.136213,0.0909018,0.0658899,0.599951,-0.00911522,0.646093,-0.483448,1.22373,-1.92408,-0.0193958,0,0,0,0,0,0,0,6.62494,-39.5369,7.16188,20.7501,3.65356,-1.67457,0.171311,
0.0590078,0.0958883,0.11465,-1.88045,0.250135,-0.000525554,0.0646909,0.290523,0.0137318,0.278177,-0.286515,1.17834,-0.552214,-0.011966,-0.336079,0.0544559,-0.454644,3.45342,8.50705,78.8029,1.44349,18.9116,-2.1216,18.1304,-20.907,11.0615,2.25699,-0.0804381,0.0400612,0.0945969,0.0965447,-1.86407,0.184711,0.0281284,0.0650401,0.549139,-0.0317659,0.669601,-0.570703,1.5041,-1.88156,-0.0103705,-6.35149,-2.83133,2.93854,-10.9069,35.0465,5.31501,1.12816,-1.13507,-33.8954,-0.0863513,19.7543,1.73553,0.268179,-0.0630644,
0.0611047,0.0959447,0.116651,-1.88242,0.259664,-1.37183e-05,0.0646823,0.284841,0.0123946,0.27256,-0.278402,1.1809,-0.428975,-0.00978855,-3.55166,-0.83573,-3.51094,5.07101,1.60316,77.0242,1.36094,18.4296,-1.95321,17.6716,-20.5973,11.0615,2.9315,-0.0640286,0.0400612,0.0945969,0.0965447,-1.86407,0.184711,0.0281284,0.0650401,0.549139,-0.0317659,0.669601,-0.570703,1.5041,-1.88156,-0.0103705,0,0,0,0,0,0,0,-1.13507,-33.8954,-0.0863513,19.7543,1.73553,0.268179,-0.0630644,
0.0630261,0.095953,0.118483,-1.88426,0.268911,0.00118829,0.0646861,0.275909,0.0101227,0.263859,-0.268832,1.17589,-0.31313,-0.00773527,-5.58228,-1.41995,-5.4378,5.98096,-3.13186,72.4032,1.2833,17.9769,-1.73939,17.2412,-20.2808,11.0615,3.46944,-0.0465897,0.0400612,0.0945969,0.0965447,-1.86407,0.184711,0.0281284,0.0650401,0.549139,-0.0317659,0.669601,-0.570703,1.5041,-1.88156,-0.0103705,0,0,0,0,0,0,0,-1.13507,-33.8954,-0.0863513,19.7543,1.73553,0.268179,-0.0630644,
0.0647998,0.0959219,0.120174,-1.886,0.277921,0.00292292,0.0647031,0.265069,0.00732105,0.253353,-0.2586,1.16597,-0.207138,-0.00576295,-6.77504,-1.75102,-6.56613,6.39499,-6.20112,66.2448,1.2327,17.544,-1.50067,16.8296,-19.9607,11.0615,3.89102,-0.031669,0.0400612,0.0945969,0.0965447,-1.86407,0.184711,0.0281284,0.0650401,0.549139,-0.0317659,0.669601,-0.570703,1.5041,-1.88156,-0.0103705,0,0,0,0,0,0,0,-1.13507,-33.8954,-0.0863513,19.7543,1.73553,0.268179,-0.0630644,
0.0786614,0.100244,0.133701,-1.90041,0.304621,-0.0278218,0.0645817,0.264775,0.0115367,0.252711,-0.254339,1.17278,-0.138361,-0.00387567,-0.18341,2.63476,-0.401522,2.66302,4.25426,42.9855,1.17955,16.3177,-2.18547,15.5601,-18.4812,10.5992,4.81032,-0.0108392,0.0608754,0.0967019,0.116763,-1.88526,0.239121,-0.0172503,0.0646201,0.497672,0.116715,0.674661,-0.569845,1.67642,-1.01179,-0.0115037,-6.43333,18.5601,0.632439,0.107283,21.5395,108.721,-0.141658,-3.62256,-40.5843,-2.63732,28.6728,1.08184,3.25829,-0.050247,
0.0805558,0.100381,0.135498,-1.90217,0.313888,-0.0261566,0.0646204,0.25918,0.0126643,0.24709,-0.247464,1.16988,-0.0690582,-0.00213316,-3.49708,0.704764,-3.51306,4.29706,-1.81115,43.3145,1.08907,15.9305,-1.93632,15.192,-18.1646,10.5992,4.99267,0.00314426,0.0608754,0.0967019,0.116763,-1.88526,0.239121,-0.0172503,0.0646201,0.497672,0.116715,0.674661,-0.569845,1.67642,-1.01179,-0.0115037,0,0,0,0,0,0,0,-3.62256,-40.5843,-2.63732,28.6728,1.08184,3.25829,-0.050247,
0.0822682,0.100451,0.137122,-1.90382,0.322883,-0.0240699,0.0646621,0.250155,0.0118674,0.238277,-0.239084,1.16079,-0.00308125,-0.000663931,-5.64068,-0.498073,-5.50837,5.23786,-5.68392,41.2356,0.918269,15.5452,-1.69892,14.8257,-17.8538,10.5992,5.12765,0.0165507,0.0608754,0.0967019,0.116763,-1.88526,0.239121,-0.0172503,0.0646201,0.497672,0.116715,0.674661,-0.569845,1.67642,-1.01179,-0.0115037,0,0,0,0,0,0,0,-3.62256,-40.5843,-2.63732,28.6728,1.08184,3.25829,-0.050247,
0.0838477,0.100468,0.138618,-1.90534,0.331249,-0.0216813,0.0647062,0.239611,0.00992372,0.228014,-0.22938,1.13778,0.05725,0.000571166,-6.5898,-1.21478,-6.41438,6.06493,-14.3798,37.707,0.771936,15.148,-1.47118,14.4477,-17.5496,10.5992,5.22554,0.0313164,0.0608754,0.0967019,0.116763,-1.88526,0.239121,-0.0172503,0.0646201,0.497672,0.116715,0.674661,-0.569845,1.67642,-1.01179,-0.0115037,0,0,0,0,0,0,0,-3.62256,-40.5843,-2.63732,28.6728,1.08184,3.25829,-0.050247,
0.0649496,0.0977008,0.120663,-1.88871,0.251663,-0.0230104,0.0645743,0.293545,0.0329124,0.27991,-0.269612,1.22378,-0.0982029,-0.000688276,33.7087,14.3679,32.4355,-25.1452,53.7544,-97.1581,-0.787151,16.1128,-3.1441,15.27,-17.8942,10.2266,4.94911,-0.0162724,0.081971,0.0992158,0.134866,-1.90729,0.296833,-0.033451,0.0645554,0.608123,0.124449,0.511878,-0.569953,1.68337,-0.280106,-0.00751641,13.8064,0.966835,-20.3479,-0.0134759,0.869077,91.4604,0.498413,-7.19708,-42.9329,-5.36284,33.4058,0.911556,4.98864,0.0239107,
0.068464,0.0985405,0.124009,-1.89161,0.263427,-0.0266467,0.0645459,0.322696,0.0473214,0.307573,-0.288317,1.27312,-0.169469,-0.00126114,18.2192,9.00566,17.2891,-11.6905,30.8368,-44.5413,-0.358042,15.7256,-2.89495,14.9019,-17.5776,10.2266,5.13146,-0.00228898,0.081971,0.0992158,0.134866,-1.90729,0.296833,-0.033451,0.0645554,0.608123,0.124449,0.511878,-0.569953,1.68337,-0.280106,-0.00751641,0,0,0,0,0,0,0,-7.19708,-42.9329,-5.36284,33.4058,0.911556,4.98864,0.0239107,
0.071515,0.0991924,0.126912,-1.89416,0.274512,-0.0285988,0.0645327,0.33443,0.0541566,0.318629,-0.294401,1.29563,-0.184379,-0.00133845,7.33353,4.27198,6.91014,-3.80258,14.0665,-9.31874,-0.0483193,15.3403,-2.65754,14.5356,-17.2668,10.2266,5.26644,0.0111175,0.081971,0.0992158,0.134866,-1.90729,0.296833,-0.033451,0.0645554,0.608123,0.124449,0.511878,-0.569953,1.68337,-0.280106,-0.00751641,0,0,0,0,0,0,0,-7.19708,-42.9329,-5.36284,33.4058,0.911556,4.98864,0.0239107,
0.0741884,0.0996752,0.129454,-1.89644,0.285013,-0.0292532,0.0645356,0.33438,0.0553942,0.318456,-0.292561,1.29902,-0.163861,-0.000998997,-0.0309349,0.773496,-0.108127,1.15004,2.12119,12.8237,0.212161,14.943,-2.4298,14.1577,-16.9626,10.2266,5.36433,0.0258831,0.081971,0.0992158,0.134866,-1.90729,0.296833,-0.033451,0.0645554,0.608123,0.124449,0.511878,-0.569953,1.68337,-0.280106,-0.00751641,0,0,0,0,0,0,0,-7.19708,-42.9329,-5.36284,33.4058,0.911556,4.98864,0.0239107,
0.100247,0.103033,0.152163,-1.92157,0.35993,-0.0306738,0.0647291,0.311038,0.0469586,0.29591,-0.269204,1.17714,-0.0818736,4.53197e-05,-14.5888,-5.27226,-14.0915,14.5977,-76.1759,51.2422,0.652698,13.4992,-2.53567,12.6902,-15.9625,9.91593,5.40779,0.0579428,0.100396,0.100281,0.153772,-1.9262,0.353464,-0.0332073,0.064561,0.758953,-0.0124936,0.247616,-0.516624,1.69053,0.141733,-0.000982822,18.8537,-17.1179,-33.0327,6.66616,0.894562,52.7299,0.816699,-9.58142,-38.6125,-8.18755,25.9314,0.269772,3.76916,0.0907442,
0.101834,0.103067,0.153662,-1.92287,0.364409,-0.0284637,0.0647654,0.288509,0.0384131,0.274197,-0.248001,1.05367,-0.0102459,0.000943584,-14.0809,-5.34094,-13.5702,13.2521,-77.171,44.7673,0.561415,12.9129,-2.29471,12.1506,-15.6827,9.91593,5.35802,0.0590543,0.100396,0.100281,0.153772,-1.9262,0.353464,-0.0332073,0.064561,0.758953,-0.0124936,0.247616,-0.516624,1.69053,0.141733,-0.000982822,0,0,0,0,0,0,0,-9.58142,-38.6125,-8.18755,25.9314,0.269772,3.76916,0.0907442,
0.103295,0.103047,0.15504,-1.9241,0.367946,-0.0260755,0.064805,0.267319,0.0302312,0.253806,-0.22903,0.93136,0.0515083,0.00174429,-13.2435,-5.1137,-12.7445,11.8569,-76.4428,38.5964,0.500439,12.4442,-2.03845,11.5834,-15.3865,8.39102,5.2948,0.0585239,0.100396,0.100281,0.153772,-1.9262,0.353464,-0.0332073,0.064561,0.758953,-0.0124936,0.247616,-0.516624,1.69053,0.141733,-0.000982822,0,0,0,0,0,0,0,-9.58142,-38.6125,-8.18755,25.9314,0.269772,3.76916,0.0907442,
0.127945,0.0973508,0.179409,-1.93903,0.388856,-0.00363765,0.06472,0.216824,0.0211858,0.205209,-0.181913,0.83313,0.0121204,0.00118788,-31.5591,-5.65335,-30.3733,29.4484,-61.3937,-24.6175,-0.347752,7.85642,-1.45913,7.29876,-7.04316,-1.17582,3.42439,0.0439636,0.100396,0.100281,0.153772,-1.9262,0.353464,-0.0332073,0.064561,0.758953,-0.0124936,0.247616,-0.516624,1.69053,0.141733,-0.000982822,0,0,0,0,0,0,0,-9.58142,-38.6125,-8.18755,25.9314,0.269772,3.76916,0.0907442,
0.128043,0.0972335,0.179475,-1.93896,0.392924,-0.00513591,0.0647156,0.175906,0.0140151,0.165828,-0.143775,0.768206,-0.0277602,0.000840626,-25.5739,-4.4817,-24.6133,23.836,-40.5776,-24.9253,-0.217036,7.49897,-1.74319,6.87006,-6.72287,-1.32388,3.43366,0.041551,0.114474,0.10183,0.173773,-1.94327,0.405412,-0.0272007,0.0645774,0.535356,0.0712572,0.451249,-0.455026,1.54213,0.233342,-0.00178304,-27.9497,10.4688,25.4541,7.69975,-18.55,11.451,-0.100027,-5.11822,-35.0697,-5.03752,21.5714,2.32238,0.619742,0.0577852,
0.128118,0.0971177,0.179519,-1.93887,0.397508,-0.00692737,0.0647172,0.142591,0.00831801,0.133763,-0.112871,0.729165,-0.0669948,0.000712721,-20.8221,-3.56068,-20.0403,19.315,-24.4003,-24.5217,-0.0799401,7.30094,-1.73889,6.68016,-6.45965,-1.2779,3.40646,0.0390276,0.114474,0.10183,0.173773,-1.94327,0.405412,-0.0272007,0.0645774,0.535356,0.0712572,0.451249,-0.455026,1.54213,0.233342,-0.00178304,0,0,0,0,0,0,0,-5.11822,-35.0697,-5.03752,21.5714,2.32238,0.619742,0.0577852,
0.128165,0.097003,0.179536,-1.93877,0.402565,-0.0089475,0.0647216,0.11525,0.00378695,0.10744,-0.0878101,0.709735,-0.104099,0.000681321,-17.0879,-2.83191,-16.4517,15.6631,-12.1441,-23.1901,-0.0196253,7.1015,-1.7325,6.48892,-6.19628,-1.23571,3.38107,0.0364566,0.114474,0.10183,0.173773,-1.94327,0.405412,-0.0272007,0.0645774,0.535356,0.0712572,0.451249,-0.455026,1.54213,0.233342,-0.00178304,0,0,0,0,0,0,0,-5.11822,-35.0697,-5.03752,21.5714,2.32238,0.619742,0.0577852,
0.130409,0.0977917,0.187051,-1.94076,0.471202,-0.0103641,0.0635885,0.0923555,-0.00255197,0.0848042,-0.0656821,0.582294,-0.0577987,4.62221e-05,-14.3091,-3.96182,-14.1476,13.83,-79.6508,28.9377,-0.396937,0.2682,-1.19554,0.0340601,2.68256,7.88107,-2.24305,-0.0483399,0.114474,0.10183,0.173773,-1.94327,0.405412,-0.0272007,0.0645774,0.535356,0.0712572,0.451249,-0.455026,1.54213,0.233342,-0.00178304,0,0,0,0,0,0,0,-5.11822,-35.0697,-5.03752,21.5714,2.32238,0.619742,0.0577852,
0.130415,0.0975686,0.187005,-1.94058,0.471781,-0.00934942,0.0635685,0.0740349,-0.00761831,0.0666939,-0.0479974,0.480305,-0.0208719,-0.000461166,-11.4504,-3.16647,-11.3189,11.053,-63.743,23.0792,-0.317117,0.266846,-2.0969,-0.405949,2.62675,4.97868,-0.723465,-0.0332848,0.132683,0.104271,0.187644,-1.95788,0.447865,-0.0155613,0.0646113,0.120352,0.140528,0.801188,-0.268999,0.731204,0.341499,0.000624446,-51.8755,8.65888,43.7424,23.2533,-101.366,13.5197,0.300936,-7.04236,-42.2347,-6.13646,32.2592,-2.12433,-0.507273,0.0101778,
0.130421,0.0973457,0.186959,-1.9404,0.472358,-0.00833934,0.0635486,0.0593743,-0.0116668,0.0522053,-0.0338674,0.39868,0.00855453,-0.000866401,-9.16282,-2.53028,-9.05537,8.83128,-51.0156,18.3915,-0.253272,0.0768305,-2.22735,-0.631601,2.89347,0.91767,1.72109,-0.0292284,0.132683,0.104271,0.187644,-1.95788,0.447865,-0.0155613,0.0646113,0.120352,0.140528,0.801188,-0.268999,0.731204,0.341499,0.000624446,0,0,0,0,0,0,0,-7.04236,-42.2347,-6.13646,32.2592,-2.12433,-0.507273,0.0101778,
0.130426,0.097123,0.186913,-1.94021,0.472934,-0.0073339,0.0635288,0.0476427,-0.014901,0.0406148,-0.0225811,0.333348,0.0319796,-0.00118993,-7.33226,-2.02141,-7.24405,7.05392,-40.8326,14.6407,-0.202204,0.0768305,-2.22735,-0.631601,2.89347,0.91767,1.72109,-0.0292284,0.132683,0.104271,0.187644,-1.95788,0.447865,-0.0155613,0.0646113,0.120352,0.140528,0.801188,-0.268999,0.731204,0.341499,0.000624446,0,0,0,0,0,0,0,-7.04236,-42.2347,-6.13646,32.2592,-2.12433,-0.507273,0.0101778,
0.1442,0.106331,0.198079,-1.9597,0.470711,-0.015543,0.064242,0.0482004,-0.0158083,0.0406249,-0.0158165,0.297542,0.0353111,-0.00160367,0.348573,-0.56705,0.00633293,4.22787,-22.3787,2.0822,-0.258591,0.0768305,-2.22735,-0.631601,2.89347,0.91767,1.72109,-0.0292284,0.132683,0.104271,0.187644,-1.95788,0.447865,-0.0155613,0.0646113,0.120352,0.140528,0.801188,-0.268999,0.731204,0.341499,0.000624446,0,0,0,0,0,0,0,-7.04236,-42.2347,-6.13646,32.2592,-2.12433,-0.507273,0.0101778,
0.14452,0.106153,0.198326,-1.95959,0.47181,-0.0150259,0.0642172,0.0465758,-0.0170992,0.0386633,-0.00980888,0.265514,0.0411746,-0.00190367,-1.01541,-0.806845,-1.22601,3.75475,-20.0173,3.66467,-0.187498,0.0768305,-2.22735,-0.631601,2.89347,0.91767,1.72109,-0.0292284,0.132683,0.104271,0.187644,-1.95788,0.447865,-0.0155613,0.0646113,0.120352,0.140528,0.801188,-0.268999,0.731204,0.341499,0.000624446,0,0,0,0,0,0,0,-7.04236,-42.2347,-6.13646,32.2592,-2.12433,-0.507273,0.0101778,
0.144776,0.105959,0.19851,-1.95945,0.472803,-0.0143998,0.0641933,0.043646,-0.018525,0.0355422,-0.00453992,0.237216,0.0485928,-0.00211978,-1.83115,-0.891087,-1.95072,3.2931,-17.6861,4.63638,-0.135067,0.022531,-2.62428,-0.734682,2.68512,0.820601,1.57323,-0.027313,0.148138,0.106516,0.20055,-1.96296,0.467985,-0.00826572,0.0646076,0.662349,0.0919372,-0.0777594,-0.0207092,0.885053,-0.0493663,0.00173009,67.7497,-6.07388,-109.868,31.0362,19.2312,-48.8582,0.138206,-14.9571,-45.3014,-12.3611,32.8583,3.86139,-0.401071,0.017502,
0.156183,0.106268,0.20768,-1.96273,0.490111,-0.00828609,0.0643332,0.0446381,-0.0204056,0.0362077,-0.000202377,0.222339,0.0507872,-0.00234223,0.620073,-1.1754,0.415938,2.71096,-9.29814,1.37152,-0.13903,0.022531,-2.62428,-0.734682,2.68512,0.820601,1.57323,-0.027313,0.148138,0.106516,0.20055,-1.96296,0.467985,-0.00826572,0.0646076,0.662349,0.0919372,-0.0777594,-0.0207092,0.885053,-0.0493663,0.00173009,0,0,0,0,0,0,0,-14.9571,-45.3014,-12.3611,32.8583,3.86139,-0.401071,0.017502,
0.156493,0.106035,0.207916,-1.96258,0.491248,-0.00769689,0.0643085,0.0434718,-0.0221384,0.0348618,0.00359073,0.206297,0.0553598,-0.00249106,-0.728936,-1.08296,-0.841206,2.37069,-10.0266,2.85785,-0.0930196,0.022531,-2.62428,-0.734682,2.68512,0.820601,1.57323,-0.027313,0.148138,0.106516,0.20055,-1.96296,0.467985,-0.00826572,0.0646076,0.662349,0.0919372,-0.0777594,-0.0207092,0.885053,-0.0493663,0.00173009,0,0,0,0,0,0,0,-14.9571,-45.3014,-12.3611,32.8583,3.86139,-0.401071,0.017502,
0.156741,0.105798,0.208092,-1.96242,0.492256,-0.00701225,0.0642848,0.0409843,-0.0236523,0.0322952,0.00687332,0.190254,0.0614038,-0.00258724,-1.55465,-0.946234,-1.6041,2.05162,-10.0265,3.77754,-0.0601172,0.022531,-2.62428,-0.734682,2.68512,0.820601,1.57323,-0.027313,0.148138,0.106516,0.20055,-1.96296,0.467985,-0.00826572,0.0646076,0.662349,0.0919372,-0.0777594,-0.0207092,0.885053,-0.0493663,0.00173009,0,0,0,0,0,0,0,-14.9571,-45.3014,-12.3611,32.8583,3.86139,-0.401071,0.017502,
0.15694,0.105557,0.208221,-1.96225,0.493165,-0.00624809,0.0642617,0.03776,-0.0249283,0.029059,0.00968935,0.174924,0.0682272,-0.00264613,-2.0152,-0.797461,-2.02263,1.76002,-9.58173,4.26458,-0.0368018,0.0517672,-2.81549,-0.750434,2.60068,0.724992,1.50518,-0.0261707,0.154942,0.106958,0.210363,-1.96368,0.484629,-0.00658128,0.0645925,0.164831,-0.0348444,0.29279,0.00909804,0.447069,0.0727472,-0.00211245,-62.1897,-15.8477,46.3186,3.72591,-54.7481,15.2642,-0.480318,-15.3618,-37.5414,-14.7851,25.3323,0.251461,0.911795,0.110886,
0.160118,0.105049,0.214951,-1.96263,0.497355,-0.0044162,0.0643815,0.0411523,-0.0277082,0.032192,0.0124029,0.174653,0.0681683,-0.00279649,2.12017,-1.73747,1.95815,1.69597,-0.169174,-0.0367748,-0.0939783,0.0517672,-2.81549,-0.750434,2.60068,0.724992,1.50518,-0.0261707,0.154942,0.106958,0.210363,-1.96368,0.484629,-0.00658128,0.0645925,0.164831,-0.0348444,0.29279,0.00909804,0.447069,0.0727472,-0.00211245,0,0,0,0,0,0,0,-15.3618,-37.5414,-14.7851,25.3323,0.251461,0.911795,0.110886,
0.160465,0.104747,0.215222,-1.96245,0.498569,-0.00378467,0.0643559,0.0416147,-0.0297033,0.032542,0.0146089,0.170072,0.070323,-0.00287833,0.289032,-1.24694,0.218747,1.37872,-2.86288,1.34669,-0.051146,0.0517672,-2.81549,-0.750434,2.60068,0.724992,1.50518,-0.0261707,0.154942,0.106958,0.210363,-1.96368,0.484629,-0.00658128,0.0645925,0.164831,-0.0348444,0.29279,0.00909804,0.447069,0.0727472,-0.00211245,0,0,0,0,0,0,0,-15.3618,-37.5414,-14.7851,25.3323,0.251461,0.911795,0.110886,
0.160742,0.104455,0.215426,-1.96226,0.499643,-0.00307468,0.0643314,0.0402154,-0.0310765,0.0311252,0.0163973,0.162904,0.0740082,-0.00291424,-0.874582,-0.858199,-0.885533,1.1178,-4.48036,2.3032,-0.0224462,0.0517672,-2.81549,-0.750434,2.60068,0.724992,1.50518,-0.0261707,0.154942,0.106958,0.210363,-1.96368,0.484629,-0.00658128,0.0645925,0.164831,-0.0348444,0.29279,0.00909804,0.447069,0.0727472,-0.00211245,0,0,0,0,0,0,0,-15.3618,-37.5414,-14.7851,25.3323,0.251461,0.911795,0.110886,
0.163668,0.105174,0.214862,-1.96255,0.501822,-0.00221262,0.0644707,0.0382795,-0.0313591,0.0291943,0.017532,0.156316,0.0775433,-0.00292519,-1.20997,-0.176659,-1.20681,0.709135,-4.11765,2.2095,-0.00684357,0.0662439,-2.91276,-0.739679,2.46305,0.677671,1.42651,-0.025575,0.161676,0.106359,0.213221,-1.96346,0.494641,-0.00492964,0.0646099,-0.0888476,-0.0002757,0.282699,0.0530152,0.261331,0.00820126,0.00306893,-31.7099,4.32108,-1.2613,5.48964,-23.2172,-8.06824,0.647672,-7.09393,-33.4709,-5.50963,27.7246,1.76025,2.85363,-0.0365141,
0.163864,0.104914,0.214987,-1.96237,0.502748,-0.00141417,0.0644477,0.0355216,-0.0315706,0.0264867,0.01852,0.148188,0.081996,-0.00291543,-1.72365,-0.132188,-1.69224,0.617508,-5.07969,2.7829,0.00610234,0.0662439,-2.91276,-0.739679,2.46305,0.677671,1.42651,-0.025575,0.161676,0.106359,0.213221,-1.96346,0.494641,-0.00492964,0.0646099,-0.0888476,-0.0002757,0.282699,0.0530152,0.261331,0.00820126,0.00306893,0,0,0,0,0,0,0,-7.09393,-33.4709,-5.50963,27.7246,1.76025,2.85363,-0.0365141,
0.164021,0.104657,0.215076,-1.96219,0.503585,-0.00056145,0.0644252,0.0323527,-0.0316961,0.0233953,0.0193707,0.139479,0.0869147,-0.002893,-1.98061,-0.0784481,-1.93212,0.531729,-5.44344,3.0742,0.0140139,0.0662439,-2.91276,-0.739679,2.46305,0.677671,1.42651,-0.025575,0.161676,0.106359,0.213221,-1.96346,0.494641,-0.00492964,0.0646099,-0.0888476,-0.0002757,0.282699,0.0530152,0.261331,0.00820126,0.00306893,0,0,0,0,0,0,0,-7.09393,-33.4709,-5.50963,27.7246,1.76025,2.85363,-0.0365141,
0.164148,0.104401,0.215134,-1.96201,0.504353,0.000335916,0.0644033,0.0290503,-0.0317405,0.0201855,0.0200948,0.130797,0.0919659,-0.00286342,-2.06395,-0.0277121,-2.00613,0.452539,-5.42629,3.15701,0.0184931,0.0662439,-2.91276,-0.739679,2.46305,0.677671,1.42651,-0.025575,0.161676,0.106359,0.213221,-1.96346,0.494641,-0.00492964,0.0646099,-0.0888476,-0.0002757,0.282699,0.0530152,0.261331,0.00820126,0.00306893,0,0,0,0,0,0,0,-7.09393,-33.4709,-5.50963,27.7246,1.76025,2.85363,-0.0365141,
0.165756,0.10137,0.215886,-1.96078,0.508723,0.00236958,0.0643968,0.0247294,-0.0321657,0.016057,0.020993,0.120536,0.0985865,-0.00281486,-2.70056,-0.265762,-2.58027,0.561348,-6.41311,4.13788,0.0303459,0.0639585,-2.99127,-0.730982,2.42915,0.657449,1.40342,-0.0254033,0.164398,0.104493,0.215095,-1.96271,0.500882,-0.00458101,0.0645981,-0.0471059,-0.076252,0.133228,0.0215832,0.175282,0.0154909,-0.00120285,5.21771,-9.49703,-18.6839,-3.92899,-10.7561,0.911204,-0.533973,-1.21045,-34.4945,-0.33629,24.8364,2.07153,2.05804,0.0303194,
0.165805,0.101105,0.215872,-1.96058,0.509333,0.00338556,0.064376,0.021005,-0.0323474,0.0124968,0.0216497,0.111675,0.104269,-0.00277136,-2.32776,-0.113562,-2.22513,0.410463,-5.53761,3.55141,0.0271855,0.0639585,-2.99127,-0.730982,2.42915,0.657449,1.40342,-0.0254033,0.164398,0.104493,0.215095,-1.96271,0.500882,-0.00458101,0.0645981,-0.0471059,-0.076252,0.133228,0.0215832,0.175282,0.0154909,-0.00120285,0,0,0,0,0,0,0,-1.21045,-34.4945,-0.33629,24.8364,2.07153,2.05804,0.0303194,
0.165845,0.100845,0.21585,-1.96039,0.509922,0.00441236,0.0643554,0.0178097,-0.0323697,0.0094421,0.0221229,0.104061,0.109085,-0.00273266,-1.99711,-0.0139322,-1.9092,0.295742,-4.75899,3.01006,0.0241886,0.0639585,-2.99127,-0.730982,2.42915,0.657449,1.40342,-0.0254033,0.164398,0.104493,0.215095,-1.96271,0.500882,-0.00458101,0.0645981,-0.0471059,-0.076252,0.133228,0.0215832,0.175282,0.0154909,-0.00120285,0,0,0,0,0,0,0,-1.21045,-34.4945,-0.33629,24.8364,2.07153,2.05804,0.0303194,
0.165879,0.10059,0.215821,-1.9602,0.510493,0.00544646,0.0643349,0.0150796,-0.0322913,0.00683298,0.0224567,0.0975441,0.113121,-0.00269842,-1.7063,0.0489595,-1.6307,0.208608,-4.0731,2.52231,0.0214024,0.0639585,-2.99127,-0.730982,2.42915,0.657449,1.40342,-0.0254033,0.164398,0.104493,0.215095,-1.96271,0.500882,-0.00458101,0.0645981,-0.0471059,-0.076252,0.133228,0.0215832,0.175282,0.0154909,-0.00120285,0,0,0,0,0,0,0,-1.21045,-34.4945,-0.33629,24.8364,2.07153,2.05804,0.0303194,
0.164683,0.103994,0.215333,-1.96248,0.502142,-0.00426798,0.0645731,0.0191885,-0.0383093,0.0114187,0.0237876,0.10955,0.0983221,-0.00278368,2.5681,-3.76123,2.86608,0.831862,7.50386,-9.24902,-0.0532893,0.0738158,-3.01004,-0.707714,2.36965,0.637744,1.37818,-0.025228,0.165618,0.102428,0.21574,-1.96198,0.505361,-0.0019152,0.0646002,0.0720748,-0.0697141,-0.0231884,0.0419195,0.0975021,0.125329,-0.00135977,14.8976,0.817234,-19.5521,2.54204,-9.72253,13.7298,-0.0196147,-0.222592,-33.5741,0.762648,25.2094,2.96966,1.14342,0.0303194,
0.164927,0.103565,0.21551,-1.96224,0.50325,-0.0037542,0.0645497,0.0214423,-0.0413678,0.0135695,0.0249061,0.115332,0.091502,-0.00281001,1.40857,-1.91156,1.34427,0.699026,3.6135,-4.26256,-0.0164524,0.0738158,-3.01004,-0.707714,2.36965,0.637744,1.37818,-0.025228,0.165618,0.102428,0.21574,-1.96198,0.505361,-0.0019152,0.0646002,0.0720748,-0.0697141,-0.0231884,0.0419195,0.0975021,0.125329,-0.00135977,0,0,0,0,0,0,0,-0.222592,-33.5741,0.762648,25.2094,2.96966,1.14342,0.0303194,
0.165127,0.103184,0.215644,-1.96202,0.504239,-0.00309041,0.0645268,0.022164,-0.0426319,0.0142097,0.0256175,0.116996,0.0897965,-0.00282156,0.451105,-0.790083,0.400113,0.444661,1.03981,-1.06593,-0.0072238,0.0738158,-3.01004,-0.707714,2.36965,0.637744,1.37818,-0.025228,0.165618,0.102428,0.21574,-1.96198,0.505361,-0.0019152,0.0646002,0.0720748,-0.0697141,-0.0231884,0.0419195,0.0975021,0.125329,-0.00135977,0,0,0,0,0,0,0,-0.222592,-33.5741,0.762648,25.2094,2.96966,1.14342,0.0303194,
0.166302,0.100187,0.21603,-1.96046,0.509676,0.00435337,0.0644667,0.019226,-0.0416996,0.011312,0.0259574,0.109902,0.0981714,-0.00278759,-1.83627,0.58269,-1.81109,0.212439,-4.43342,5.23428,0.0212318,0.0738158,-3.01004,-0.707714,2.36965,0.637744,1.37818,-0.025228,0.165618,0.102428,0.21574,-1.96198,0.505361,-0.0019152,0.0646002,0.0720748,-0.0697141,-0.0231884,0.0419195,0.0975021,0.125329,-0.00135977,0,0,0,0,0,0,0,-0.222592,-33.5741,0.762648,25.2094,2.96966,1.14342,0.0303194,
0.16635,0.0998966,0.216017,-1.96025,0.510302,0.0054071,0.0644458,0.0165932,-0.0406131,0.00872192,0.0260381,0.103587,0.10488,-0.00275354,-1.64549,0.679107,-1.61878,0.0504072,-3.94688,4.19301,0.0212859,0.079323,-2.97929,-0.697598,2.30479,0.636335,1.33454,-0.0250505,0.16666,0.101785,0.215975,-1.96065,0.50798,0.00525563,0.0646003,-0.0105077,0.0131043,0.0300978,0.0603588,0.0572454,0.22671,0.000740872,-10.3228,10.3523,6.66077,2.3049,-5.0321,12.6726,0.26258,-1.38897,-36.6686,-0.213304,25.6061,2.90832,-0.222544,0.0101778,
0.16639,0.0996169,0.215995,-1.96004,0.510907,0.00646018,0.0644251,0.0142645,-0.0394824,0.00643623,0.0259492,0.0979775,0.110231,-0.00272084,-1.45541,0.706688,-1.42856,-0.0555354,-3.50596,3.34442,0.0204348,0.079323,-2.97929,-0.697598,2.30479,0.636335,1.33454,-0.0250505,0.16666,0.101785,0.215975,-1.96065,0.50798,0.00525563,0.0646003,-0.0105077,0.0131043,0.0300978,0.0603588,0.0572454,0.22671,0.000740872,0,0,0,0,0,0,0,-1.38897,-36.6686,-0.213304,25.6061,2.90832,-0.222544,0.0101778,
0.166422,0.0993453,0.215967,-1.95984,0.511492,0.00751181,0.0644045,0.0122258,-0.0383761,0.0044394,0.0257542,0.0930145,0.114476,-0.00269032,-1.27424,0.691437,-1.24802,-0.121883,-3.10192,2.6528,0.0190782,0.079323,-2.97929,-0.697598,2.30479,0.636335,1.33454,-0.0250505,0.16666,0.101785,0.215975,-1.96065,0.50798,0.00525563,0.0646003,-0.0105077,0.0131043,0.0300978,0.0603588,0.0572454,0.22671,0.000740872,0,0,0,0,0,0,0,-1.38897,-36.6686,-0.213304,25.6061,2.90832,-0.222544,0.0101778,
0.166926,0.0950812,0.214429,-1.95524,0.52342,0.0373103,0.0639982,0.00990482,-0.0365705,0.00223989,0.0247457,0.0867668,0.114966,-0.00263579,-1.45058,1.12847,-1.37469,-0.630297,-3.9048,0.306188,0.0340807,0.079323,-2.97929,-0.697598,2.30479,0.636335,1.33454,-0.0250505,0.16666,0.101785,0.215975,-1.96065,0.50798,0.00525563,0.0646003,-0.0105077,0.0131043,0.0300978,0.0603588,0.0572454,0.22671,0.000740872,0,0,0,0,0,0,0,-1.38897,-36.6686,-0.213304,25.6061,2.90832,-0.222544,0.0101778,
0.166931,0.0948465,0.214377,-1.95508,0.523913,0.0382411,0.0639789,0.0080482,-0.0351232,0.00048465,0.0239216,0.0817519,0.115244,-0.00259159,-1.16039,0.904563,-1.09703,-0.51509,-3.13433,0.173794,0.0276235,0.0785034,-2.96911,-0.683585,2.24327,0.633181,1.29294,-0.0247929,0.167088,0.0999649,0.216158,-1.95959,0.51006,0.0124489,0.0645996,0.0222489,-0.0983514,-0.0153696,0.0148657,0.0593129,0.221555,0.000690732,4.09457,-13.932,-5.68343,-5.68663,0.258446,-0.64435,-0.00626751,0.285221,-35.2681,1.18715,24.5349,3.19488,-0.122751,0.00376909,
0.166936,0.094612,0.214325,-1.95491,0.524406,0.0391674,0.0639596,0.006563,-0.0339626,-0.000915207,0.023245,0.0777232,0.115353,-0.00255566,-0.928249,0.72539,-0.87491,-0.422873,-2.51793,0.0682548,0.0224566,0.0785034,-2.96911,-0.683585,2.24327,0.633181,1.29294,-0.0247929,0.167088,0.0999649,0.216158,-1.95959,0.51006,0.0124489,0.0645996,0.0222489,-0.0983514,-0.0153696,0.0148657,0.0593129,0.221555,0.000690732,0,0,0,0,0,0,0,0.285221,-35.2681,1.18715,24.5349,3.19488,-0.122751,0.00376909,
0.166941,0.0943775,0.214273,-1.95475,0.524898,0.0400893,0.0639403,0.00537492,-0.0330314,-0.00203077,0.0226865,0.0744835,0.115328,-0.00252634,-0.742549,0.582009,-0.697229,-0.34905,-2.0248,-0.0158138,0.0183219,0.0785034,-2.96911,-0.683585,2.24327,0.633181,1.29294,-0.0247929,0.167088,0.0999649,0.216158,-1.95959,0.51006,0.0124489,0.0645996,0.0222489,-0.0983514,-0.0153696,0.0148657,0.0593129,0.221555,0.000690732,0,0,0,0,0,0,0,0.285221,-35.2681,1.18715,24.5349,3.19488,-0.122751,0.00376909,
0.167343,0.0934143,0.215137,-1.95506,0.521761,0.0357821,0.0641625,0.00442716,-0.0324352,-0.00290454,0.0223086,0.0720414,0.115626,-0.00250471,-0.592351,0.372635,-0.546101,-0.236185,-1.52631,0.186527,0.0135183,0.0785034,-2.96911,-0.683585,2.24327,0.633181,1.29294,-0.0247929,0.167088,0.0999649,0.216158,-1.95959,0.51006,0.0124489,0.0645996,0.0222489,-0.0983514,-0.0153696,0.0148657,0.0593129,0.221555,0.000690732,0,0,0,0,0,0,0,0.285221,-35.2681,1.18715,24.5349,3.19488,-0.122751,0.00376909,
0.167348,0.0931743,0.215086,-1.9549,0.522258,0.0367116,0.0641432,0.00366843,-0.0319482,-0.0035999,0.021983,0.0700563,0.115738,-0.00248677,-0.474209,0.304367,-0.434601,-0.203543,-1.24066,0.0696708,0.0112149,0.0785034,-2.96911,-0.683585,2.24327,0.633181,1.29294,-0.0247929,0.167088,0.0999649,0.216158,-1.95959,0.51006,0.0124489,0.0645996,0.0222489,-0.0983514,-0.0153696,0.0148657,0.0593129,0.221555,0.000690732,0,0,0,0,0,0,0,0.285221,-35.2681,1.18715,24.5349,3.19488,-0.122751,0.00376909,
0.167354,0.0929347,0.215035,-1.95473,0.522754,0.0376361,0.0641239,0.00306102,-0.0315502,-0.0041524,0.0217004,0.0684399,0.115703,-0.00247179,-0.379627,0.248717,-0.345313,-0.176589,-1.01028,-0.0217001,0.00936235,0.0843708,-2.96384,-0.658325,2.1687,0.634818,1.24149,-0.0245847,0.167175,0.097837,0.215978,-1.95862,0.512312,0.0207189,0.0646062,-0.00591299,-0.0650821,-0.00610685,0.0226193,0.0839785,0.259036,0.00084884,-3.52023,4.15865,1.15785,0.969194,3.08319,4.68507,0.0197635,0.717655,-34.8952,1.68703,26.106,3.26263,0.314871,-0.0163725,
0.167074,0.0958264,0.215537,-1.9571,0.515819,0.0288305,0.0644871,0.00217206,-0.0324015,-0.00501138,0.0227765,0.0686935,0.120903,-0.00247296,-0.555603,-0.532035,-0.536863,0.672555,0.158502,3.24989,-0.000730193,0.0843708,-2.96384,-0.658325,2.1687,0.634818,1.24149,-0.0245847,0.167175,0.097837,0.215978,-1.95862,0.512312,0.0207189,0.0646062,-0.00591299,-0.0650821,-0.00610685,0.0226193,0.0839785,0.259036,0.00084884,0,0,0,0,0,0,0,0.717655,-34.8952,1.68703,26.106,3.26263,0.314871,-0.0163725,
0.167066,0.0955499,0.215472,-1.95689,0.516366,0.0299219,0.0644674,0.00152474,-0.0328334,-0.00563554,0.0233803,0.0686515,0.124007,-0.00247103,-0.404575,-0.269927,-0.390102,0.377364,-0.0262239,1.94033,0.00120347,0.0843708,-2.96384,-0.658325,2.1687,0.634818,1.24149,-0.0245847,0.167175,0.097837,0.215978,-1.95862,0.512312,0.0207189,0.0646062,-0.00591299,-0.0650821,-0.00610685,0.0226193,0.0839785,0.259036,0.00084884,0,0,0,0,0,0,0,0.717655,-34.8952,1.68703,26.106,3.26263,0.314871,-0.0163725,
0.167059,0.0952813,0.215409,-1.9567,0.516906,0.03098,0.0644477,0.00106376,-0.0329807,-0.00607848,0.0236566,0.0684031,0.125658,-0.00246734,-0.288113,-0.0920953,-0.276834,0.172692,-0.155273,1.03163,0.0023075,0.0843708,-2.96384,-0.658325,2.1687,0.634818,1.24149,-0.0245847,0.167175,0.097837,0.215978,-1.95862,0.512312,0.0207189,0.0646062,-0.00591299,-0.0650821,-0.00610685,0.0226193,0.0839785,0.259036,0.00084884,0,0,0,0,0,0,0,0.717655,-34.8952,1.68703,26.106,3.26263,0.314871,-0.0163725,
0.167055,0.0950191,0.215349,-1.9565,0.517438,0.0320114,0.0644282,0.000744163,-0.0329409,-0.00638356,0.0237108,0.0680205,0.126311,-0.00246272,-0.199745,0.0248596,-0.190678,0.0338929,-0.239118,0.408466,0.00288744,0.0811947,-2.94829,-0.651273,2.11472,0.633817,1.19646,-0.0244073,0.167199,0.0967544,0.215711,-1.95716,0.514599,0.0282522,0.0646005,-0.00377047,0.000933046,-0.00599074,0.058782,0.0792891,0.179378,0.00113847,0.267815,8.2519,0.0145139,4.52034,-0.586177,-9.95719,0.0362038,0.435978,-35.645,1.13954,25.1578,2.78015,0.613333,-0.0026396,
0.167097,0.0953023,0.215205,-1.95577,0.518593,0.0364442,0.0644604,0.000417815,-0.0322172,-0.00671306,0.0233542,0.0673,0.126289,-0.00245312,-0.203968,0.452338,-0.205937,-0.222882,-0.450306,-0.0142295,0.00599839,0.0811947,-2.94829,-0.651273,2.11472,0.633817,1.19646,-0.0244073,0.167199,0.0967544,0.215711,-1.95716,0.514599,0.0282522,0.0646005,-0.00377047,0.000933046,-0.00599074,0.058782,0.0792891,0.179378,0.00113847,0,0,0,0,0,0,0,0.435978,-35.645,1.13954,25.1578,2.78015,0.613333,-0.0026396,
0.167092,0.0950665,0.215143,-1.9556,0.519103,0.0374308,0.0644411,0.00020924,-0.0316671,-0.00692155,0.0230089,0.0665886,0.125696,-0.00244488,-0.130359,0.343803,-0.130308,-0.215845,-0.444621,-0.370306,0.00515251,0.0811947,-2.94829,-0.651273,2.11472,0.633817,1.19646,-0.0244073,0.167199,0.0967544,0.215711,-1.95716,0.514599,0.0282522,0.0646005,-0.00377047,0.000933046,-0.00599074,0.058782,0.0792891,0.179378,0.00113847,0,0,0,0,0,0,0,0.435978,-35.645,1.13954,25.1578,2.78015,0.613333,-0.0026396,
0.167089,0.0948303,0.215083,-1.95543,0.51961,0.0383995,0.0644218,8.70204e-05,-0.0312405,-0.00704102,0.0226811,0.0659302,0.124773,-0.00243781,-0.0763873,0.26663,-0.0746657,-0.204858,-0.411496,-0.57695,0.00441817,0.0811947,-2.94829,-0.651273,2.11472,0.633817,1.19646,-0.0244073,0.167199,0.0967544,0.215711,-1.95716,0.514599,0.0282522,0.0646005,-0.00377047,0.000933046,-0.00599074,0.058782,0.0792891,0.179378,0.00113847,0,0,0,0,0,0,0,0.435978,-35.645,1.13954,25.1578,2.78015,0.613333,-0.0026396,
0.167086,0.0943574,0.214967,-1.95509,0.520616,0.0402961,0.0643833,5.78124e-05,-0.0309027,-0.00706215,0.0223352,0.0653021,0.123378,-0.0024313,-0.018255,0.211125,-0.0132059,-0.216171,-0.392596,-0.871729,0.0040717,0.0750063,-2.95122,-0.638701,2.06224,0.630794,1.15871,-0.0241679,0.167216,0.0947178,0.215453,-1.95632,0.516487,0.0345798,0.0646008,-0.0019714,-0.111384,-0.00473264,-0.00190926,0.0639709,0.184895,0.00104068,0.224883,-14.0396,0.157263,-7.58641,-1.91477,0.689638,-0.0122244,0.182071,-34.5461,0.913405,25.0864,2.80487,0.43389,0.00376909,
0.167283,0.0905237,0.214875,-1.95373,0.522947,0.0465688,0.0643698,0.000168819,-0.0310995,-0.00687232,0.0221294,0.0652972,0.121307,-0.00242483,0.0693792,-0.123007,0.11864,-0.128629,-0.00305511,-1.29452,0.00403902,0.0750063,-2.95122,-0.638701,2.06224,0.630794,1.15871,-0.0241679,0.167216,0.0947178,0.215453,-1.95632,0.516487,0.0345798,0.0646008,-0.0019714,-0.111384,-0.00473264,-0.00190926,0.0639709,0.184895,0.00104068,0,0,0,0,0,0,0,0.182071,-34.5461,0.913405,25.0864,2.80487,0.43389,0.00376909,
0.167288,0.0902722,0.214826,-1.95356,0.523464,0.0474633,0.0643507,0.0002579,-0.0311665,-0.00671753,0.0218823,0.0651648,0.119407,-0.00241848,0.0556755,-0.0418694,0.0967472,-0.154438,-0.0827144,-1.18758,0.00396837,0.0750063,-2.95122,-0.638701,2.06224,0.630794,1.15871,-0.0241679,0.167216,0.0947178,0.215453,-1.95632,0.516487,0.0345798,0.0646008,-0.0019714,-0.111384,-0.00473264,-0.00190926,0.0639709,0.184895,0.00104068,0,0,0,0,0,0,0,0.182071,-34.5461,0.913405,25.0864,2.80487,0.43389,0.00376909,
0.167293,0.0900236,0.214778,-1.9534,0.523977,0.0483491,0.0643316,0.00032943,-0.0311497,-0.00659042,0.0216162,0.0649492,0.117669,-0.00241236,0.0447063,0.0104808,0.0794387,-0.166346,-0.134785,-1.08596,0.00382441,0.0750063,-2.95122,-0.638701,2.06224,0.630794,1.15871,-0.0241679,0.167216,0.0947178,0.215453,-1.95632,0.516487,0.0345798,0.0646008,-0.0019714,-0.111384,-0.00473264,-0.00190926,0.0639709,0.184895,0.00104068,0,0,0,0,0,0,0,0.182071,-34.5461,0.913405,25.0864,2.80487,0.43389,0.00376909,
0.16714,0.0918017,0.214866,-1.95435,0.520934,0.0471877,0.0644986,-8.50779e-05,-0.0311854,-0.00697902,0.0218728,0.0647582,0.119804,-0.00241037,-0.259067,-0.0223166,-0.242876,0.160388,-0.119366,1.33444,0.00124493,0.0797742,-2.94615,-0.618768,1.99944,0.630699,1.11562,-0.0239926,0.167228,0.0930534,0.21523,-1.95537,0.518389,0.041266,0.0645975,-0.00407862,-0.0266424,-0.00543215,0.0373539,0.0557753,0.195784,-0.000447245,-0.263402,10.5926,-0.0874393,4.90789,-1.02445,1.36112,-0.18599,0.0313145,-33.7724,0.937208,25.4593,2.95135,0.413748,0.0303194,
0.167129,0.091553,0.214801,-1.95417,0.521444,0.0481735,0.0644795,-0.000347784,-0.0311653,-0.00721723,0.0219358,0.0645576,0.120488,-0.0024065,-0.164191,0.0126177,-0.148879,0.0393796,-0.125366,0.42732,0.00241833,0.0797742,-2.94615,-0.618768,1.99944,0.630699,1.11562,-0.0239926,0.167228,0.0930534,0.21523,-1.95537,0.518389,0.041266,0.0645975,-0.00407862,-0.0266424,-0.00543215,0.0373539,0.0557753,0.195784,-0.000447245,0,0,0,0,0,0,0,0.0313145,-33.7724,0.937208,25.4593,2.95135,0.413748,0.0303194,
0.167121,0.0913063,0.214738,-1.95399,0.521952,0.0491282,0.0644604,-0.000493696,-0.0311009,-0.00734074,0.0218704,0.0643492,0.120257,-0.0024019,-0.0911954,0.0402281,-0.0771917,-0.0408866,-0.130271,-0.144642,0.00287905,0.0797742,-2.94615,-0.618768,1.99944,0.630699,1.11562,-0.0239926,0.167228,0.0930534,0.21523,-1.95537,0.518389,0.041266,0.0645975,-0.00407862,-0.0266424,-0.00543215,0.0373539,0.0557753,0.195784,-0.000447245,0,0,0,0,0,0,0,0.0313145,-33.7724,0.937208,25.4593,2.95135,0.413748,0.0303194,
0.167114,0.0910613,0.214678,-1.95383,0.522459,0.0500587,0.0644414,-0.000553207,-0.0310049,-0.00737989,0.0217229,0.0641384,0.119468,-0.00239715,-0.0371939,0.0599843,-0.024468,-0.092168,-0.131757,-0.492972,0.00296851,0.0797742,-2.94615,-0.618768,1.99944,0.630699,1.11562,-0.0239926,0.167228,0.0930534,0.21523,-1.95537,0.518389,0.041266,0.0645975,-0.00407862,-0.0266424,-0.00543215,0.0373539,0.0557753,0.195784,-0.000447245,0,0,0,0,0,0,0,0.0313145,-33.7724,0.937208,25.4593,2.95135,0.413748,0.0303194,
0.16714,0.0918017,0.214866,-1.95435,0.520934,0.0471877,0.0644986,-0.000791187,-0.0310696,-0.00761059,0.0219582,0.0641096,0.121243,-0.0023982,-0.148738,-0.0404193,-0.144193,0.147045,-0.0180143,1.10961,-0.000657233,0.0798871,-2.91887,-0.609442,1.94374,0.631019,1.0752,-0.0237874,0.167209,0.0920632,0.214935,-1.95412,0.519955,0.0482736,0.0645936,0.000592255,-0.0275157,-0.0117267,0.0397739,0.0443157,0.20328,-0.000905057,0.583859,-0.109157,-0.786824,0.302508,-1.43245,0.93693,-0.0572265,0.106693,-36.3194,0.711073,24.5111,2.93853,-0.0037325,0.0577852,
0.167129,0.091553,0.214801,-1.95417,0.521444,0.0481735,0.0644795,-0.000912671,-0.0310726,-0.00772249,0.0220041,0.0640387,0.121639,-0.00239676,-0.0759275,-0.00186451,-0.0699325,0.0287055,-0.0442845,0.247456,0.000896596,0.0798871,-2.91887,-0.609442,1.94374,0.631019,1.0752,-0.0237874,0.167209,0.0920632,0.214935,-1.95412,0.519955,0.0482736,0.0645936,0.000592255,-0.0275157,-0.0117267,0.0397739,0.0443157,0.20328,-0.000905057,0,0,0,0,0,0,0,0.106693,-36.3194,0.711073,24.5111,2.93853,-0.0037325,0.0577852,
0.167121,0.0913063,0.214738,-1.95399,0.521952,0.0491282,0.0644604,-0.000945606,-0.0310267,-0.00774494,0.021925,0.063934,0.121178,-0.00239411,-0.0205845,0.0286424,-0.0140347,-0.0494259,-0.0654056,-0.288533,0.00166167,0.0798871,-2.91887,-0.609442,1.94374,0.631019,1.0752,-0.0237874,0.167209,0.0920632,0.214935,-1.95412,0.519955,0.0482736,0.0645936,0.000592255,-0.0275157,-0.0117267,0.0397739,0.0443157,0.20328,-0.000905057,0,0,0,0,0,0,0,0.106693,-36.3194,0.711073,24.5111,2.93853,-0.0037325,0.0577852,
0.167114,0.0910613,0.214678,-1.95383,0.522459,0.0500587,0.0644414,-0.000914735,-0.0309456,-0.00770325,0.0217666,0.0638063,0.120205,-0.00239091,0.0192949,0.0507158,0.0260576,-0.0989994,-0.0798645,-0.608084,0.0019946,0.0798871,-2.91887,-0.609442,1.94374,0.631019,1.0752,-0.0237874,0.167209,0.0920632,0.214935,-1.95412,0.519955,0.0482736,0.0645936,0.000592255,-0.0275157,-0.0117267,0.0397739,0.0443157,0.20328,-0.000905057,0,0,0,0,0,0,0,0.106693,-36.3194,0.711073,24.5111,2.93853,-0.0037325,0.0577852,
0.167055,0.0900512,0.214348,-1.95257,0.523866,0.0570707,0.064438,-0.000963535,-0.0308691,-0.00772146,0.0215782,0.0636334,0.118881,-0.0023841,-0.0304999,0.0478373,-0.0113824,-0.11776,-0.108028,-0.827254,0.00426205,0.0753992,-2.92324,-0.595278,1.89206,0.632262,1.0338,-0.0235623,0.167162,0.090113,0.214579,-1.95359,0.521316,0.0553937,0.0645976,-0.00408965,-0.0962533,-0.00654308,-0.00661007,0.0252548,0.193114,-0.00161246,-0.585239,-8.5922,0.647958,-5.798,-2.38261,-1.27067,-0.0884261,0.336795,-35.1689,1.11177,25.8798,3.28094,0.360647,0.050461,
0.167048,0.0898086,0.214288,-1.9524,0.524369,0.057958,0.0644192,-0.000940016,-0.0307599,-0.00767144,0.0213391,0.0634821,0.117287,-0.00237784,0.0146989,0.0682303,0.0312614,-0.149454,-0.094567,-0.996228,0.00391173,0.0753992,-2.92324,-0.595278,1.89206,0.632262,1.0338,-0.0235623,0.167162,0.090113,0.214579,-1.95359,0.521316,0.0553937,0.0645976,-0.00408965,-0.0962533,-0.00654308,-0.00661007,0.0252548,0.193114,-0.00161246,0,0,0,0,0,0,0,0.336795,-35.1689,1.11177,25.8798,3.28094,0.360647,0.050461,
0.167043,0.0895676,0.214231,-1.95224,0.524871,0.0588281,0.0644004,-0.000868197,-0.030632,-0.00757627,0.0210744,0.063345,0.115582,-0.00237221,0.0448872,0.0799273,0.0594832,-0.165409,-0.0857224,-1.06574,0.00351839,0.0753992,-2.92324,-0.595278,1.89206,0.632262,1.0338,-0.0235623,0.167162,0.090113,0.214579,-1.95359,0.521316,0.0553937,0.0645976,-0.00408965,-0.0962533,-0.00654308,-0.00661007,0.0252548,0.193114,-0.00161246,0,0,0,0,0,0,0,0.336795,-35.1689,1.11177,25.8798,3.28094,0.360647,0.050461,
0.167091,0.0870289,0.214046,-1.9518,0.525395,0.0640656,0.0644282,-0.000739132,-0.0310494,-0.00737604,0.0210372,0.0636623,0.113689,-0.00236787,0.0806652,-0.260884,0.125145,-0.0232884,0.198319,-1.18326,0.00271003,0.0753992,-2.92324,-0.595278,1.89206,0.632262,1.0338,-0.0235623,0.167162,0.090113,0.214579,-1.95359,0.521316,0.0553937,0.0645976,-0.00408965,-0.0962533,-0.00654308,-0.00661007,0.0252548,0.193114,-0.00161246,0,0,0,0,0,0,0,0.336795,-35.1689,1.11177,25.8798,3.28094,0.360647,0.050461,
0.167091,0.0867729,0.213995,-1.95164,0.525913,0.0649,0.0644094,-0.000605315,-0.0312385,-0.0071837,0.0208874,0.0638686,0.111809,-0.00236303,0.0836361,-0.118151,0.120213,-0.0935758,0.128986,-1.17489,0.00302309,0.0777406,-2.91758,-0.580292,1.84458,0.634751,0.997055,-0.023425,0.16712,0.0888314,0.214141,-1.95269,0.522367,0.0611415,0.0646026,-0.00133238,-0.00271256,-0.0124184,0.04811,0.027687,0.15762,0.00114198,0.344659,11.6926,-0.734411,6.84001,0.304024,-4.43682,0.344305,0.539127,-34.5461,1.28633,25.8322,3.39721,0.546499,0.00376909,
0.167091,0.0865214,0.213944,-1.95148,0.526428,0.0657216,0.0643907,-0.000472666,-0.0312792,-0.00700225,0.0206698,0.0639741,0.109989,-0.00235805,0.0829054,-0.0254761,0.113407,-0.136037,0.0659082,-1.13735,0.00311419,0.0777406,-2.91758,-0.580292,1.84458,0.634751,0.997055,-0.023425,0.16712,0.0888314,0.214141,-1.95269,0.522367,0.0611415,0.0646026,-0.00133238,-0.00271256,-0.0124184,0.04811,0.027687,0.15762,0.00114198,0,0,0,0,0,0,0,0.539127,-34.5461,1.28633,25.8322,3.39721,0.546499,0.00376909,
0.167092,0.0862732,0.213895,-1.95132,0.526941,0.0665323,0.0643721,-0.00034534,-0.0312271,-0.00683352,0.0204151,0.063996,0.108258,-0.00235313,0.0795785,0.0325629,0.105456,-0.159151,0.0136663,-1.08166,0.00307802,0.0777406,-2.91758,-0.580292,1.84458,0.634751,0.997055,-0.023425,0.16712,0.0888314,0.214141,-1.95269,0.522367,0.0611415,0.0646026,-0.00133238,-0.00271256,-0.0124184,0.04811,0.027687,0.15762,0.00114198,0,0,0,0,0,0,0,0.539127,-34.5461,1.28633,25.8322,3.39721,0.546499,0.00376909,
0.166967,0.0878764,0.213724,-1.95185,0.524508,0.0663881,0.0645058,-0.000840567,-0.0304552,-0.00732201,0.0201256,0.0628023,0.109401,-0.00234517,-0.309517,0.482443,-0.305311,-0.180968,-0.746029,0.714192,0.00497419,0.0777406,-2.91758,-0.580292,1.84458,0.634751,0.997055,-0.023425,0.16712,0.0888314,0.214141,-1.95269,0.522367,0.0611415,0.0646026,-0.00133238,-0.00271256,-0.0124184,0.04811,0.027687,0.15762,0.00114198,0,0,0,0,0,0,0,0.539127,-34.5461,1.28633,25.8322,3.39721,0.546499,0.00376909,
0.166949,0.0876529,0.213655,-1.9517,0.52498,0.0672637,0.0644874,-0.00112697,-0.0299499,-0.00759776,0.0198544,0.0620434,0.10941,-0.00233787,-0.179004,0.315846,-0.172342,-0.169472,-0.474333,0.00568019,0.00456064,0.0777406,-2.91758,-0.580292,1.84458,0.634751,0.997055,-0.023425,0.16712,0.0888314,0.214141,-1.95269,0.522367,0.0611415,0.0646026,-0.00133238,-0.00271256,-0.0124184,0.04811,0.027687,0.15762,0.00114198,0,0,0,0,0,0,0,0.539127,-34.5461,1.28633,25.8322,3.39721,0.546499,0.00376909,
0.166934,0.0874265,0.213589,-1.95155,0.525458,0.0681122,0.0644689,-0.00125842,-0.0296209,-0.00771672,0.019604,0.0615899,0.108742,-0.00233169,-0.0821529,0.205624,-0.0743466,-0.156547,-0.283411,-0.417615,0.00386377,0.0772873,-2.90587,-0.569117,1.79975,0.634989,0.964607,-0.0232592,0.167064,0.0876204,0.213756,-1.95181,0.52369,0.0665913,0.064604,-0.000872232,-0.0487263,-0.0155153,0.0177057,0.0452787,0.160912,0.00118705,0.0575188,-5.75172,-0.38712,-3.80054,2.19897,0.411581,0.00563387,0.309024,-36.1925,0.961012,24.9594,3.07953,0.34783,0.00376909,
0.166917,0.0856717,0.213258,-1.95057,0.526978,0.0731296,0.064475,-0.00124635,-0.0299723,-0.00765372,0.0196488,0.0618632,0.107578,-0.00232756,0.00754488,-0.219664,0.0393693,0.028004,0.17081,-0.72773,0.00257757,0.0772873,-2.90587,-0.569117,1.79975,0.634989,0.964607,-0.0232592,0.167064,0.0876204,0.213756,-1.95181,0.52369,0.0665913,0.064604,-0.000872232,-0.0487263,-0.0155153,0.0177057,0.0452787,0.160912,0.00118705,0,0,0,0,0,0,0,0.309024,-36.1925,0.961012,24.9594,3.07953,0.34783,0.00376909,
0.16691,0.0854244,0.213202,-1.95041,0.527483,0.0739344,0.0644566,-0.00117061,-0.0301588,-0.00753582,0.0195824,0.0621146,0.106182,-0.00232341,0.0473334,-0.116573,0.0736899,-0.0414891,0.157112,-0.872427,0.00259914,0.0772873,-2.90587,-0.569117,1.79975,0.634989,0.964607,-0.0232592,0.167064,0.0876204,0.213756,-1.95181,0.52369,0.0665913,0.064604,-0.000872232,-0.0487263,-0.0155153,0.0177057,0.0452787,0.160912,0.00118705,0,0,0,0,0,0,0,0.309024,-36.1925,0.961012,24.9594,3.07953,0.34783,0.00376909,
0.166905,0.0851801,0.213148,-1.95026,0.527989,0.0747238,0.0644381,-0.0010549,-0.0302348,-0.00738463,0.0194452,0.0623245,0.10468,-0.00231941,0.0723204,-0.0475065,0.0944952,-0.0857239,0.131212,-0.938698,0.00249754,0.0772873,-2.90587,-0.569117,1.79975,0.634989,0.964607,-0.0232592,0.167064,0.0876204,0.213756,-1.95181,0.52369,0.0665913,0.064604,-0.000872232,-0.0487263,-0.0155153,0.0177057,0.0452787,0.160912,0.00118705,0,0,0,0,0,0,0,0.309024,-36.1925,0.961012,24.9594,3.07953,0.34783,0.00376909,
0.166902,0.0849381,0.213095,-1.95011,0.528494,0.0755002,0.0644197,-0.000916749,-0.0302388,-0.00721601,0.0192658,0.0624877,0.103155,-0.00231565,0.0863446,-0.00249007,0.105389,-0.11211,0.101943,-0.953262,0.00234706,0.0745657,-2.91718,-0.553765,1.75431,0.634933,0.930454,-0.0230745,0.167084,0.0857041,0.213445,-1.95137,0.524842,0.0720766,0.0646062,0.00083241,-0.0801874,-0.00579811,0.000666053,0.0231775,0.164629,0.00362184,0.21308,-3.93263,1.21465,-2.12995,-2.76265,0.464629,0.304349,-0.198788,-34.3199,0.564283,26.4551,3.31115,0.771719,-0.0429228,
0.167072,0.0830903,0.213042,-1.94991,0.528427,0.0790031,0.0644586,-0.000745446,-0.0307366,-0.00698257,0.0193354,0.0629575,0.101827,-0.0023146,0.107064,-0.311075,0.145895,0.043484,0.293641,-0.829686,0.000660126,0.0745657,-2.91718,-0.553765,1.75431,0.634933,0.930454,-0.0230745,0.167084,0.0857041,0.213445,-1.95137,0.524842,0.0720766,0.0646062,0.00083241,-0.0801874,-0.00579811,0.000666053,0.0231775,0.164629,0.00362184,0,0,0,0,0,0,0,-0.198788,-34.3199,0.564283,26.4551,3.31115,0.771719,-0.0429228,
0.167072,0.0828345,0.212995,-1.94976,0.528945,0.0797614,0.0644401,-0.000586066,-0.0309852,-0.00677108,0.0192738,0.0633225,0.10042,-0.00231209,0.0996131,-0.155431,0.132186,-0.0385257,0.228131,-0.879654,0.00156826,0.0745657,-2.91718,-0.553765,1.75431,0.634933,0.930454,-0.0230745,0.167084,0.0857041,0.213445,-1.95137,0.524842,0.0720766,0.0646062,0.00083241,-0.0801874,-0.00579811,0.000666053,0.0231775,0.164629,0.00362184,0,0,0,0,0,0,0,-0.198788,-34.3199,0.564283,26.4551,3.31115,0.771719,-0.0429228,
0.167073,0.0825832,0.212948,-1.94961,0.529462,0.0805078,0.0644218,-0.000438835,-0.0310711,-0.00657961,0.0191288,0.0635766,0.098996,-0.00230879,0.0920193,-0.0536374,0.119664,-0.0906342,0.158798,-0.889852,0.00206158,0.0745657,-2.91718,-0.553765,1.75431,0.634933,0.930454,-0.0230745,0.167084,0.0857041,0.213445,-1.95137,0.524842,0.0720766,0.0646062,0.00083241,-0.0801874,-0.00579811,0.000666053,0.0231775,0.164629,0.00362184,0,0,0,0,0,0,0,-0.198788,-34.3199,0.564283,26.4551,3.31115,0.771719,-0.0429228,
0.167075,0.0823353,0.212903,-1.94947,0.529977,0.0812439,0.0644035,-0.000304103,-0.0310536,-0.00640676,0.0189341,0.0637299,0.0975984,-0.00230511,0.0842074,0.0109244,0.108034,-0.121667,0.0958387,-0.87347,0.00230062,0.0771245,-2.90631,-0.542091,1.71231,0.637394,0.897339,-0.0229491,0.167036,0.0847782,0.213111,-1.9504,0.526003,0.0774174,0.0646009,-0.00228047,0.0124632,-0.00760041,0.050014,0.0336409,0.138029,0.00135059,-0.38911,11.5813,-0.225287,6.16849,1.30792,-3.32508,-0.283906,0.182071,-35.9425,0.738844,25.2847,3.24981,0.360647,0.00376909,
0.166899,0.0838163,0.212673,-1.94957,0.5287,0.0829086,0.0644875,-0.000624109,-0.0300479,-0.00672684,0.0184041,0.0627396,0.0975516,-0.00229507,-0.200004,0.628578,-0.200054,-0.331277,-0.61896,-0.0292366,0.00627717,0.0771245,-2.90631,-0.542091,1.71231,0.637394,0.897339,-0.0229491,0.167036,0.0847782,0.213111,-1.9504,0.526003,0.0774174,0.0646009,-0.00228047,0.0124632,-0.00760041,0.050014,0.0336409,0.138029,0.00135059,0,0,0,0,0,0,0,0.182071,-35.9425,0.738844,25.2847,3.24981,0.360647,0.00376909,
0.166887,0.0836017,0.212613,-1.94943,0.529176,0.0836639,0.0644694,-0.000797269,-0.0294035,-0.00689479,0.0179972,0.0620799,0.0969238,-0.00228709,-0.108225,0.402703,-0.104966,-0.254312,-0.412305,-0.392398,0.0049836,0.0771245,-2.90631,-0.542091,1.71231,0.637394,0.897339,-0.0229491,0.167036,0.0847782,0.213111,-1.9504,0.526003,0.0774174,0.0646009,-0.00228047,0.0124632,-0.00760041,0.050014,0.0336409,0.138029,0.00135059,0,0,0,0,0,0,0,0.182071,-35.9425,0.738844,25.2847,3.24981,0.360647,0.00376909,
0.166878,0.0833825,0.212555,-1.9493,0.529656,0.0844017,0.0644514,-0.000863144,-0.0290024,-0.00695208,0.0176822,0.0616709,0.0959847,-0.00228092,-0.0411723,0.250691,-0.0358039,-0.196856,-0.255643,-0.586945,0.00386013,0.0771245,-2.90631,-0.542091,1.71231,0.637394,0.897339,-0.0229491,0.167036,0.0847782,0.213111,-1.9504,0.526003,0.0774174,0.0646009,-0.00228047,0.0124632,-0.00760041,0.050014,0.0336409,0.138029,0.00135059,0,0,0,0,0,0,0,0.182071,-35.9425,0.738844,25.2847,3.24981,0.360647,0.00376909,
0.166967,0.0793996,0.212307,-1.94794,0.532575,0.0909109,0.0643994,-0.000639199,-0.0295049,-0.0066434,0.0176738,0.062341,0.0940365,-0.00227719,0.139966,-0.314032,0.192921,-0.00524661,0.418874,-1.21764,0.00233106,0.0732565,-2.91131,-0.529879,1.6709,0.636539,0.867285,-0.0227634,0.167004,0.0830536,0.212848,-1.94985,0.527315,0.0824621,0.0645981,-0.00168934,-0.0995282,-0.00879442,-0.00813547,0.030246,0.148515,0.00199431,0.0738912,-13.9989,-0.149252,-7.26868,-0.42436,1.31074,0.080465,0.25745,-35.5934,0.86183,25.7806,3.28735,0.5996,0.017502,
0.166969,0.079151,0.212265,-1.9478,0.533092,0.0915915,0.0643813,-0.00044599,-0.0298189,-0.00637981,0.0175881,0.0627991,0.0922432,-0.00227324,0.120756,-0.196264,0.164744,-0.0535326,0.286287,-1.12079,0.0024656,0.0732565,-2.91131,-0.529879,1.6709,0.636539,0.867285,-0.0227634,0.167004,0.0830536,0.212848,-1.94985,0.527315,0.0824621,0.0645981,-0.00168934,-0.0995282,-0.00879442,-0.00813547,0.030246,0.148515,0.00199431,0,0,0,0,0,0,0,0.25745,-35.5934,0.86183,25.7806,3.28735,0.5996,0.017502,
0.166972,0.0789051,0.212223,-1.94766,0.533606,0.0922637,0.0643633,-0.000279923,-0.0300028,-0.00615453,0.0174543,0.0630922,0.0906006,-0.00226926,0.103792,-0.114935,0.1408,-0.0836609,0.18319,-1.02665,0.00249103,0.0732565,-2.91131,-0.529879,1.6709,0.636539,0.867285,-0.0227634,0.167004,0.0830536,0.212848,-1.94985,0.527315,0.0824621,0.0645981,-0.00168934,-0.0995282,-0.00879442,-0.00813547,0.030246,0.148515,0.00199431,0,0,0,0,0,0,0,0.25745,-35.5934,0.86183,25.7806,3.28735,0.5996,0.017502,
0.166976,0.0786612,0.212181,-1.94753,0.534118,0.0929286,0.0643453,-0.000137686,-0.0300982,-0.00596176,0.0172926,0.0632599,0.0891012,-0.00226533,0.0888979,-0.0596362,0.120484,-0.101028,0.10479,-0.937092,0.00245171,0.0732565,-2.91131,-0.529879,1.6709,0.636539,0.867285,-0.0227634,0.167004,0.0830536,0.212848,-1.94985,0.527315,0.0824621,0.0645981,-0.00168934,-0.0995282,-0.00879442,-0.00813547,0.030246,0.148515,0.00199431,0,0,0,0,0,0,0,0.25745,-35.5934,0.86183,25.7806,3.28735,0.5996,0.017502,
0.166994,0.0825049,0.212791,-1.94967,0.527599,0.0833686,0.0645839,-0.00036426,-0.0377963,-0.0062003,0.0184032,0.0577014,0.093943,-0.00216661,-0.141609,-4.81131,-0.149088,0.694118,-3.47404,3.02611,0.0617017,0.0755996,-2.91958,-0.512021,1.62434,0.63775,0.833914,-0.0226223,0.166986,0.0814025,0.212572,-1.94929,0.528442,0.0874601,0.0646001,0.00153217,-0.0285352,-0.00869772,0.0257641,0.0280898,0.140357,0.000187758,0.402689,8.87412,0.012088,4.23745,-0.269527,-1.01973,-0.225819,0.0551182,-34.5223,0.738844,26.6296,3.50067,0.924612,0.0303194,
0.166985,0.0820624,0.212736,-1.94945,0.527976,0.0842059,0.0645654,-0.000506051,-0.0412989,-0.00632843,0.0201865,0.0556012,0.0960877,-0.00219465,-0.0886195,-2.18911,-0.0800845,1.11457,-1.31262,1.34042,-0.0175272,0.0755996,-2.91958,-0.512021,1.62434,0.63775,0.833914,-0.0226223,0.166986,0.0814025,0.212572,-1.94929,0.528442,0.0874601,0.0646001,0.00153217,-0.0285352,-0.00869772,0.0257641,0.0280898,0.140357,0.000187758,0,0,0,0,0,0,0,0.0551182,-34.5223,0.738844,26.6296,3.50067,0.924612,0.0303194,
0.166978,0.0816797,0.212683,-1.94924,0.528424,0.0850171,0.0645464,-0.000589198,-0.0426072,-0.00639237,0.0214143,0.0556613,0.097149,-0.00223026,-0.0519666,-0.817694,-0.039957,0.767355,0.0375374,0.663313,-0.0222513,0.0755996,-2.91958,-0.512021,1.62434,0.63775,0.833914,-0.0226223,0.166986,0.0814025,0.212572,-1.94929,0.528442,0.0874601,0.0646001,0.00153217,-0.0285352,-0.00869772,0.0257641,0.0280898,0.140357,0.000187758,0,0,0,0,0,0,0,0.0551182,-34.5223,0.738844,26.6296,3.50067,0.924612,0.0303194,
0.166972,0.0813361,0.212631,-1.94904,0.528913,0.0858094,0.0645276,-0.000620028,-0.0426746,-0.00640457,0.0220338,0.0567669,0.0975269,-0.00225549,-0.0192692,-0.0421196,-0.00762815,0.387157,0.691008,0.23618,-0.015774,0.0755996,-2.91958,-0.512021,1.62434,0.63775,0.833914,-0.0226223,0.166986,0.0814025,0.212572,-1.94929,0.528442,0.0874601,0.0646001,0.00153217,-0.0285352,-0.00869772,0.0257641,0.0280898,0.140357,0.000187758,0,0,0,0,0,0,0,0.0551182,-34.5223,0.738844,26.6296,3.50067,0.924612,0.0303194,
0.166919,0.0801915,0.212268,-1.94853,0.530566,0.0917508,0.0645072,-0.000784605,-0.040163,-0.00656101,0.0211612,0.0573785,0.0968471,-0.00225727,-0.102861,1.56974,-0.0977758,-0.545362,0.382228,-0.424831,-0.00111228,0.0734471,-2.9136,-0.504044,1.58671,0.637939,0.805262,-0.0224774,0.166929,0.0803371,0.21232,-1.94848,0.529567,0.0921654,0.0645985,-0.000802435,-0.0332078,-0.00294957,0.0289668,0.00723591,0.113259,0.000950726,-0.291826,-0.58407,0.718518,0.400336,-2.60674,-3.38717,0.095371,0.511356,-36.6924,0.838026,25.011,3.15277,0.546499,0.0440523,
0.166909,0.0799516,0.212213,-1.94839,0.531053,0.092477,0.0644891,-0.00085847,-0.0381281,-0.00662262,0.0203872,0.0580982,0.0956337,-0.00225654,-0.0461656,1.27179,-0.0385048,-0.483763,0.449862,-0.758388,0.000457971,0.0734471,-2.9136,-0.504044,1.58671,0.637939,0.805262,-0.0224774,0.166929,0.0803371,0.21232,-1.94848,0.529567,0.0921654,0.0645985,-0.000802435,-0.0332078,-0.00294957,0.0289668,0.00723591,0.113259,0.000950726,0,0,0,0,0,0,0,0.511356,-36.6924,0.838026,25.011,3.15277,0.546499,0.0440523,
0.166902,0.0797126,0.212161,-1.94826,0.531547,0.0931829,0.0644712,-0.000862275,-0.0364779,-0.00661222,0.0197051,0.0588199,0.0941529,-0.00225462,-0.00237821,1.03143,0.00649753,-0.426274,0.451063,-0.925522,0.00119829,0.0734471,-2.9136,-0.504044,1.58671,0.637939,0.805262,-0.0224774,0.166929,0.0803371,0.21232,-1.94848,0.529567,0.0921654,0.0645985,-0.000802435,-0.0332078,-0.00294957,0.0289668,0.00723591,0.113259,0.000950726,0,0,0,0,0,0,0,0.511356,-36.6924,0.838026,25.011,3.15277,0.546499,0.0440523,
0.166896,0.0790431,0.212054,-1.94772,0.531473,0.0960274,0.0645048,-0.000864266,-0.0353624,-0.0065948,0.0192072,0.0587046,0.092945,-0.00225592,-0.00124408,0.697141,0.010889,-0.311225,-0.0720567,-0.754933,-0.000809835,0.0733569,-2.91377,-0.504149,1.58687,0.633749,0.807999,-0.0224747,0.166929,0.0803371,0.21232,-1.94848,0.529567,0.0921654,0.0645985,-0.000802435,-0.0332078,-0.00294957,0.0289668,0.00723591,0.113259,0.000950726,0,0,0,0,0,0,0,0.511356,-36.6924,0.838026,25.011,3.15277,0.546499,0.0440523,
0.16689,0.0787991,0.212004,-1.94759,0.531953,0.0967135,0.0644868,-0.000828218,-0.0343905,-0.00653682,0.0187355,0.0589649,0.0915088,-0.00225426,0.0225299,0.607488,0.0362362,-0.294815,0.162687,-0.897632,0.00103817,0.0722767,-2.93658,-0.485867,1.55064,0.634338,0.780039,-0.0223228,0.166957,0.0782819,0.212009,-1.94814,0.530491,0.0963249,0.0645944,0.00243679,-0.0943067,-0.00529854,-0.00697435,0.0221693,0.126326,-0.00133489,0.404903,-7.63736,-0.293621,-4.49264,1.86667,1.63328,-0.285702,0.0313145,-34.3953,0.687269,26.6772,3.51257,0.931021,0.0907442,
0.166886,0.0785574,0.211955,-1.94746,0.532441,0.0973848,0.0644689,-0.00076095,-0.0335551,-0.00644709,0.0182979,0.0593911,0.0899899,-0.00225123,0.0420424,0.52213,0.0560805,-0.273489,0.266363,-0.949288,0.00189405,0.0722776,-2.93658,-0.485866,1.55064,0.634375,0.780011,-0.0223228,0.166957,0.0782819,0.212009,-1.94814,0.530491,0.0963249,0.0645944,0.00243679,-0.0943067,-0.00529854,-0.00697435,0.0221693,0.126326,-0.00133489,0,0,0,0,0,0,0,0.0313145,-34.3953,0.687269,26.6772,3.51257,0.931021,0.0907442,
0.166884,0.0783173,0.211908,-1.94733,0.532936,0.0980442,0.064451,-0.000671232,-0.0328445,-0.00633527,0.0178975,0.0598657,0.088476,-0.00224768,0.0560737,0.444082,0.0698914,-0.250207,0.296583,-0.946214,0.00221877,0.0722785,-2.93658,-0.485865,1.55063,0.634412,0.779982,-0.0223229,0.166957,0.0782819,0.212009,-1.94814,0.530491,0.0963249,0.0645944,0.00243679,-0.0943067,-0.00529854,-0.00697435,0.0221693,0.126326,-0.00133489,0,0,0,0,0,0,0,0.0313145,-34.3953,0.687269,26.6772,3.51257,0.931021,0.0907442,
0.167006,0.0754557,0.211714,-1.94679,0.53392,0.101967,0.0644503,-0.000436247,-0.0330312,-0.006024,0.0178899,0.0603262,0.0873335,-0.00224683,0.146866,-0.116669,0.194544,-0.00477001,0.287818,-0.714032,0.00052992,0.0714288,-2.93807,-0.486858,1.5521,0.593858,0.805719,-0.0222984,0.166957,0.0782819,0.212009,-1.94814,0.530491,0.0963249,0.0645944,0.00243679,-0.0943067,-0.00529854,-0.00697435,0.0221693,0.126326,-0.00133489,0,0,0,0,0,0,0,0.0313145,-34.3953,0.687269,26.6772,3.51257,0.931021,0.0907442,
0.16701,0.0751929,0.211676,-1.94666,0.534415,0.102619,0.0644324,-0.00024627,-0.0329956,-0.00577038,0.0177571,0.060651,0.086163,-0.00224421,0.118735,0.0222261,0.158514,-0.0830221,0.203001,-0.731595,0.00163976,0.0714397,-2.93804,-0.486846,1.55208,0.59427,0.805416,-0.0222989,0.166957,0.0782819,0.212009,-1.94814,0.530491,0.0963249,0.0645944,0.00243679,-0.0943067,-0.00529854,-0.00697435,0.0221693,0.126326,-0.00133489,0,0,0,0,0,0,0,0.0313145,-34.3953,0.687269,26.6772,3.51257,0.931021,0.0907442,
0.167014,0.0749356,0.211638,-1.94652,0.534908,0.103262,0.0644146,-9.18841e-05,-0.0328284,-0.00556226,0.0175478,0.0608444,0.0849908,-0.00224059,0.0964914,0.104517,0.130074,-0.130824,0.12089,-0.732583,0.00226187,0.0732611,-2.9474,-0.471769,1.51404,0.595263,0.777778,-0.0221879,0.166923,0.0768855,0.211728,-1.94753,0.531553,0.100158,0.0645948,-0.00010194,5.70101e-05,-0.00354982,0.0425171,0.0131135,0.100157,-0.00172648,-0.317342,11.7955,0.21859,6.18643,-1.13197,-3.27107,-0.0489479,0.360599,-35.3197,0.988783,25.8798,3.48877,0.798269,0.0779268,
0.167018,0.0746825,0.2116,-1.94639,0.535398,0.103895,0.0643968,3.40438e-05,-0.0325898,-0.00539031,0.017296,0.0609256,0.0838388,-0.00223647,0.0787049,0.149121,0.107468,-0.157354,0.0507433,-0.720014,0.00257434,0.0732725,-2.94737,-0.471756,1.51402,0.595679,0.777475,-0.0221884,0.166923,0.0768855,0.211728,-1.94753,0.531553,0.100158,0.0645948,-0.00010194,5.70101e-05,-0.00354982,0.0425171,0.0131135,0.100157,-0.00172648,0,0,0,0,0,0,0,0.360599,-35.3197,0.988783,25.8798,3.48877,0.798269,0.0779268,
0.166964,0.0691619,0.210373,-1.94365,0.541762,0.123398,0.0639991,0.000118032,-0.0320224,-0.00517368,0.0164944,0.0579047,0.0814454,-0.00221824,0.0524929,0.354616,0.135394,-0.501023,-1.88807,-1.49585,0.011391,0.0687773,-2.95486,-0.477167,1.52232,0.316602,0.942717,-0.0220706,0.166923,0.0768855,0.211728,-1.94753,0.531553,0.100158,0.0645948,-0.00010194,5.70101e-05,-0.00354982,0.0425171,0.0131135,0.100157,-0.00172648,0,0,0,0,0,0,0,0.360599,-35.3197,0.988783,25.8798,3.48877,0.798269,0.0779268,
0.166968,0.0689238,0.210339,-1.94355,0.542133,0.123967,0.063982,0.000185566,-0.0315712,-0.00499564,0.0158409,0.0555807,0.0793919,-0.00220329,0.0422084,0.282,0.111277,-0.40839,-1.45247,-1.28349,0.00934851,0.0688849,-2.95463,-0.47704,1.52214,0.321078,0.939793,-0.0220741,0.166923,0.0768855,0.211728,-1.94753,0.531553,0.100158,0.0645948,-0.00010194,5.70101e-05,-0.00354982,0.0425171,0.0131135,0.100157,-0.00172648,0,0,0,0,0,0,0,0.360599,-35.3197,0.988783,25.8798,3.48877,0.798269,0.0779268,
0.166971,0.0686856,0.210305,-1.94344,0.542507,0.124531,0.0639648,0.000239917,-0.031213,-0.00484848,0.0153061,0.0538144,0.0776106,-0.00219094,0.0339694,0.223872,0.0919718,-0.334253,-1.10393,-1.11328,0.00771426,0.0681335,-2.95876,-0.46551,1.48985,0.325063,0.913968,-0.0219525,0.166903,0.0755855,0.211431,-1.94698,0.532643,0.103764,0.0645938,0.00312711,-0.0543475,-0.00431095,0.0112902,0.0295432,0.108035,-0.00104146,0.403632,-6.80057,-0.0951407,-3.90336,2.0537,0.98477,0.085627,0.209842,-35.9425,0.588087,25.2847,3.27453,0.73876,0.0843355,
0.167192,0.0542372,0.208583,-1.93805,0.466743,0.204198,0.0630432,0.000155061,-0.0307489,-0.00455971,0.0139795,0.0606757,0.0638449,-0.00213784,-0.053035,0.2901,0.180479,-0.82914,4.2883,-8.60355,0.0331904,0.0681335,-2.95876,-0.46551,1.48985,0.325063,0.913968,-0.0219525,0.166903,0.0755855,0.211431,-1.94698,0.532643,0.103764,0.0645938,0.00312711,-0.0543475,-0.00431095,0.0112902,0.0295432,0.108035,-0.00104146,0,0,0,0,0,0,0,0.209842,-35.9425,0.588087,25.2847,3.27453,0.73876,0.0843355,
0.167381,0.0511065,0.208599,-1.9372,0.578826,0.149236,0.0629319,0.000251851,-0.0310112,-0.00414604,0.0131297,0.0594729,0.0596924,-0.00211672,0.0604935,-0.163945,0.258547,-0.531109,-0.751784,-2.59533,0.0131981,0.0681335,-2.95876,-0.46551,1.48985,0.325063,0.913968,-0.0219525,0.166903,0.0755855,0.211431,-1.94698,0.532643,0.103764,0.0645938,0.00312711,-0.0543475,-0.00431095,0.0112902,0.0295432,0.108035,-0.00104146,0,0,0,0,0,0,0,0.209842,-35.9425,0.588087,25.2847,3.27453,0.73876,0.0843355,
0.167381,0.0511065,0.208599,-1.9372,0.578826,0.149236,0.0629319,0.000329282,-0.031221,-0.0038151,0.0124499,0.0585106,0.0563704,-0.00209983,0.0483948,-0.131156,0.206838,-0.424887,-0.601427,-2.07626,0.0105585,0.0681335,-2.95876,-0.46551,1.48985,0.325063,0.913968,-0.0219525,0.166903,0.0755855,0.211431,-1.94698,0.532643,0.103764,0.0645938,0.00312711,-0.0543475,-0.00431095,0.0112902,0.0295432,0.108035,-0.00104146,0,0,0,0,0,0,0,0.209842,-35.9425,0.588087,25.2847,3.27453,0.73876,0.0843355,
0.167381,0.0511065,0.208599,-1.9372,0.578826,0.149236,0.0629319,0.000391228,-0.0313889,-0.00355035,0.0119061,0.0577408,0.0537128,-0.00208631,0.0387158,-0.104925,0.16547,-0.33991,-0.481142,-1.66101,0.0084468,0.0691921,-2.97202,-0.446538,1.44344,0.325819,0.882603,-0.0217584,0.166921,0.0736348,0.211256,-1.94683,0.533397,0.108586,0.0645965,0.00306318,-0.0677003,-0.00184489,-0.00350051,-0.0280493,0.186444,-0.000266251,-0.00799133,-1.66909,0.308257,-1.84884,-7.19906,9.80114,0.0969011,-0.119442,-34.7206,0.413527,27.3993,2.61535,2.18438,0.0303194,
0.16695,0.0738207,0.211267,-1.94719,0.533008,0.110041,0.0645788,0.00102383,-0.0204633,-0.00256616,0.000588481,0.0364512,0.079349,-0.00210952,0.395374,6.82849,0.615119,-7.07348,-13.306,16.0226,-0.0145027,0.00182632,30.232,-0.675064,-21.7065,-2.80122,-0.15283,-0.00842876,0.166921,0.0736348,0.211256,-1.94683,0.533397,0.108586,0.0645965,0.00306318,-0.0677003,-0.00184489,-0.00350051,-0.0280493,0.186444,-0.000266251,0,0,0,0,0,0,0,-0.119442,-34.7206,0.413527,27.3993,2.61535,2.18438,0.0303194,
0.167155,0.0739013,0.211474,-1.94733,0.529795,0.113025,0.0645974,0.00593834,-0.0143566,0.00311557,-0.00295855,-0.0511645,0.138084,-0.00122385,3.07157,3.81667,3.55108,-2.21689,-54.7598,36.7092,0.553542,1.25078,-3.21495,0.699954,1.80678,-10.0203,8.11771,-0.0164337,0.166921,0.0736348,0.211256,-1.94683,0.533397,0.108586,0.0645965,0.00306318,-0.0677003,-0.00184489,-0.00350051,-0.0280493,0.186444,-0.000266251,0,0,0,0,0,0,0,-0.119442,-34.7206,0.413527,27.3993,2.61535,2.18438,0.0303194,
0.167446,0.0738825,0.211744,-1.94738,0.524915,0.117008,0.0646024,0.0120251,-0.0119533,0.00923776,-0.00367911,-0.162937,0.210049,-0.000854489,3.8042,1.50212,3.82637,-0.450349,-69.8577,44.9785,0.230851,1.24522,-3.22452,0.696177,1.7909,-9.81785,7.93788,-0.0163867,0.166921,0.0736348,0.211256,-1.94683,0.533397,0.108586,0.0645965,0.00306318,-0.0677003,-0.00184489,-0.00350051,-0.0280493,0.186444,-0.000266251,0,0,0,0,0,0,0,-0.119442,-34.7206,0.413527,27.3993,2.61535,2.18438,0.0303194,
0.167759,0.0737933,0.212023,-1.94739,0.519052,0.121609,0.0645989,0.0174691,-0.0117933,0.0143693,-0.00314901,-0.276916,0.283053,-0.00076969,3.40253,0.0999894,3.20722,0.331311,-71.2373,45.6273,0.0529992,1.23838,-3.22771,0.701322,1.73101,-9.61324,7.72539,-0.0162758,0.166826,0.0724248,0.211132,-1.94638,0.535281,0.115198,0.0645903,-0.00168234,0.0141387,-0.00274962,0.0500545,-0.060825,0.131784,-0.000151296,-0.593191,10.2299,-0.113091,6.69437,-4.09696,-6.83258,0.0143694,0.94379,-33.4471,1.36171,23.2892,2.26654,0.288321,0.0440523,
0.166822,0.0729413,0.21111,-1.94672,0.534826,0.116591,0.0645664,0.0138849,0.00347816,0.010953,-0.0112008,-0.232928,0.261252,-0.0012139,-2.24015,9.54465,-2.13521,-5.03234,27.493,-13.6256,-0.277634,0.00157957,30.2354,-0.664105,-21.7511,-2.79868,-0.188798,-0.00827268,0.166826,0.0724248,0.211132,-1.94638,0.535281,0.115198,0.0645903,-0.00168234,0.0141387,-0.00274962,0.0500545,-0.060825,0.131784,-0.000151296,0,0,0,0,0,0,0,0.94379,-33.4471,1.36171,23.2892,2.26654,0.288321,0.0440523,
0.167069,0.0731146,0.211315,-1.94713,0.530328,0.120653,0.064649,0.017259,0.00711539,0.013885,-0.0192249,-0.298781,0.310567,0.00109571,2.10883,2.27327,1.83253,-5.01512,-41.1582,30.8217,1.44351,-0.17406,-4.34983,-1.52366,-1.61879,-14.7987,11.8112,0.0565358,0.166826,0.0724248,0.211132,-1.94638,0.535281,0.115198,0.0645903,-0.00168234,0.0141387,-0.00274962,0.0500545,-0.060825,0.131784,-0.000151296,0,0,0,0,0,0,0,0.94379,-33.4471,1.36171,23.2892,2.26654,0.288321,0.0440523,
0.167404,0.073224,0.211669,-1.94741,0.523217,0.126338,0.0646896,0.0221825,0.00842803,0.0199636,-0.0222107,-0.416809,0.390561,0.00189054,3.07723,0.820398,3.79912,-1.86612,-73.7675,49.9965,0.496774,0.150528,-0.706858,-0.0657005,-0.686263,-14.7987,11.8112,0.0134435,0.166826,0.0724248,0.211132,-1.94638,0.535281,0.115198,0.0645903,-0.00168234,0.0141387,-0.00274962,0.0500545,-0.060825,0.131784,-0.000151296,0,0,0,0,0,0,0,0.94379,-33.4471,1.36171,23.2892,2.26654,0.288321,0.0440523,
0.168839,0.0710214,0.212974,-1.94699,0.49556,0.154626,0.0648321,0.0286994,-0.00184933,0.0247768,-0.0234481,-0.56139,0.509817,0.00341101,4.07304,-6.42335,3.00821,-0.773373,-90.3634,74.5351,0.950289,0.475021,-7.66937,-0.914697,-3.12983,-14.7453,11.7011,0.0917193,0.167764,0.0718119,0.212129,-1.94634,0.517741,0.133305,0.0645758,0.0192048,0.0464287,0.000579255,0.0396202,-0.271482,0.52099,-0.00396113,2.6109,4.03624,0.416109,-1.30429,-26.3322,48.6508,-0.476229,-2.32922,-26.8099,-1.83592,20.3772,3.28735,-1.44935,0.245468,
0.169324,0.0706698,0.213377,-1.94721,0.485486,0.162957,0.0649012,0.0350779,-0.010269,0.0298817,-0.0243735,-0.700959,0.616113,0.00445688,3.98655,-5.26229,3.19061,-0.578384,-87.2305,66.4348,0.653673,2.19672,-5.76373,0.728968,-2.66318,-14.7453,11.7011,0.0797578,0.167764,0.0718119,0.212129,-1.94634,0.517741,0.133305,0.0645758,0.0192048,0.0464287,0.000579255,0.0396202,-0.271482,0.52099,-0.00396113,0,0,0,0,0,0,0,-2.32922,-26.8099,-1.83592,20.3772,3.28735,-1.44935,0.245468,
0.169847,0.0703273,0.213822,-1.94744,0.47479,0.171575,0.0649645,0.0411335,-0.0167781,0.0350409,-0.0252475,-0.828175,0.708356,0.00514834,3.78477,-4.0682,3.22444,-0.546212,-79.5099,57.6515,0.432158,3.77613,-4.91196,2.43392,-2.59464,-14.7453,11.7011,0.0736569,0.167764,0.0718119,0.212129,-1.94634,0.517741,0.133305,0.0645758,0.0192048,0.0464287,0.000579255,0.0396202,-0.271482,0.52099,-0.00396113,0,0,0,0,0,0,0,-2.32922,-26.8099,-1.83592,20.3772,3.28735,-1.44935,0.245468,
0.170403,0.0700011,0.214307,-1.94768,0.46369,0.180379,0.0650237,0.046811,-0.0215774,0.0401385,-0.0261984,-0.940042,0.786774,0.00559764,3.54843,-2.99956,3.18605,-0.594314,-69.917,49.0117,0.280818,5.15552,-4.44251,3.93761,-2.66148,-14.7453,11.7011,0.0702664,0.167764,0.0718119,0.212129,-1.94634,0.517741,0.133305,0.0645758,0.0192048,0.0464287,0.000579255,0.0396202,-0.271482,0.52099,-0.00396113,0,0,0,0,0,0,0,-2.32922,-26.8099,-1.83592,20.3772,3.28735,-1.44935,0.245468,
0.168489,0.0714912,0.212723,-1.94667,0.504591,0.146797,0.064746,0.0480671,-0.023217,0.0409482,-0.0261313,-0.94431,0.81172,0.0065366,0.785048,-1.02475,0.506058,0.041953,-2.66725,15.5911,0.586845,2.17068,-4.80489,0.68763,-3.67067,-14.889,11.3446,0.0857303,0.169563,0.0708044,0.213338,-1.94863,0.488188,0.16482,0.06467,0.107447,0.0255148,0.0889122,-0.0496676,-1.46027,1.29411,0.000543996,11.0303,-2.61423,11.0416,-11.161,-148.598,96.6397,0.563141,-3.59478,-37.6921,-3.13719,26.7764,-3.5965,4.79638,0.0577852,
0.168992,0.0711948,0.213152,-1.9469,0.495438,0.154757,0.0648196,0.0510176,-0.0259827,0.043465,-0.0264252,-0.984283,0.848376,0.00706958,1.84406,-1.72854,1.573,-0.183732,-24.9834,22.91,0.333113,3.75009,-3.95312,2.39259,-3.60212,-14.889,11.3446,0.0796294,0.169563,0.0708044,0.213338,-1.94863,0.488188,0.16482,0.06467,0.107447,0.0255148,0.0889122,-0.0496676,-1.46027,1.29411,0.000543996,0,0,0,0,0,0,0,-3.59478,-37.6921,-3.13719,26.7764,-3.5965,4.79638,0.0577852,
0.169547,0.0708808,0.213633,-1.94712,0.485335,0.163142,0.0648856,0.0546869,-0.0286364,0.0468121,-0.0268552,-1.03999,0.888342,0.00730514,2.29332,-1.65857,2.09195,-0.268698,-34.8187,24.9788,0.147227,5.12947,-3.48367,3.89627,-3.66896,-14.889,11.3446,0.0762389,0.169563,0.0708044,0.213338,-1.94863,0.488188,0.16482,0.06467,0.107447,0.0255148,0.0889122,-0.0496676,-1.46027,1.29411,0.000543996,0,0,0,0,0,0,0,-3.59478,-37.6921,-3.13719,26.7764,-3.5965,4.79638,0.0577852,
0.17014,0.070568,0.214156,-1.94736,0.474619,0.171799,0.0649462,0.0585732,-0.0307287,0.0505213,-0.0274503,-1.09991,0.927086,0.00735909,2.42891,-1.30769,2.31823,-0.371982,-37.4479,24.2152,0.0337217,6.28207,-3.18458,5.15639,-3.76161,-14.889,11.3446,0.0720787,0.169563,0.0708044,0.213338,-1.94863,0.488188,0.16482,0.06467,0.107447,0.0255148,0.0889122,-0.0496676,-1.46027,1.29411,0.000543996,0,0,0,0,0,0,0,-3.59478,-37.6921,-3.13719,26.7764,-3.5965,4.79638,0.0577852,
0.173074,0.0704644,0.21649,-1.95041,0.429247,0.211702,0.0649113,0.0638845,-0.0283881,0.0561802,-0.030633,-1.17517,0.968741,0.00702547,3.3196,1.46289,3.53679,-1.9892,-47.0405,26.0343,-0.208517,7.07392,-2.59889,6.05439,-4.23384,-14.7585,11.0326,0.0714194,0.172698,0.0698417,0.21658,-1.95157,0.436943,0.215144,0.0647218,0.0595757,-0.0570211,0.118236,-0.122717,-1.54922,1.48761,0.00502237,-5.98392,-10.317,3.66549,-9.1312,-11.1184,24.1884,0.559797,2.11017,-36.2679,2.5638,27.2009,1.08184,3.29857,0.050461,
0.173759,0.0702985,0.217132,-1.95076,0.417454,0.220715,0.0649542,0.068219,-0.0268588,0.0609987,-0.0331788,-1.23498,1.00032,0.00669382,2.70904,0.955785,3.0116,-1.59109,-37.3808,19.7377,-0.207282,7.77861,-2.47074,6.8535,-4.32263,-14.7585,11.0326,0.0681615,0.172698,0.0698417,0.21658,-1.95157,0.436943,0.215144,0.0647218,0.0595757,-0.0570211,0.118236,-0.122717,-1.54922,1.48761,0.00502237,0,0,0,0,0,0,0,2.11017,-36.2679,2.5638,27.2009,1.08184,3.29857,0.050461,
0.174448,0.0701265,0.217786,-1.95111,0.405685,0.22967,0.0649941,0.0718021,-0.0257876,0.065147,-0.0352335,-1.28221,1.02412,0.00635164,2.23942,0.669541,2.59267,-1.28421,-29.5174,14.8761,-0.21386,8.29027,-2.38775,7.46149,-4.41055,-14.7585,11.0326,0.0653429,0.172698,0.0698417,0.21658,-1.95157,0.436943,0.215144,0.0647218,0.0595757,-0.0570211,0.118236,-0.122717,-1.54922,1.48761,0.00502237,0,0,0,0,0,0,0,2.11017,-36.2679,2.5638,27.2009,1.08184,3.29857,0.050461,
0.176742,0.0687285,0.22044,-1.95355,0.365105,0.272433,0.0649294,0.0743312,-0.0247829,0.0685718,-0.0363218,-1.31848,1.0437,0.00574263,1.5807,0.627885,2.1405,-0.68016,-22.6695,12.238,-0.380632,9.01419,-2.15012,8.47535,-4.65517,-14.7585,11.0326,0.0558515,0.172698,0.0698417,0.21658,-1.95157,0.436943,0.215144,0.0647218,0.0595757,-0.0570211,0.118236,-0.122717,-1.54922,1.48761,0.00502237,0,0,0,0,0,0,0,2.11017,-36.2679,2.5638,27.2009,1.08184,3.29857,0.050461,
0.177425,0.0685738,0.221108,-1.95389,0.353456,0.281305,0.0649524,0.076546,-0.0236938,0.0715584,-0.0374056,-1.34601,1.05677,0.00516863,1.38425,0.680715,1.86664,-0.677408,-17.2069,8.16558,-0.358747,9.10176,-2.02507,8.64536,-4.72137,-14.7585,11.0326,0.0519171,0.172698,0.0698417,0.21658,-1.95157,0.436943,0.215144,0.0647218,0.0595757,-0.0570211,0.118236,-0.122717,-1.54922,1.48761,0.00502237,0,0,0,0,0,0,0,2.11017,-36.2679,2.5638,27.2009,1.08184,3.29857,0.050461,
0.178116,0.068432,0.221786,-1.95423,0.341858,0.290092,0.0649723,0.0785168,-0.022501,0.0741853,-0.0384657,-1.36676,1.06508,0.00463416,1.23177,0.745528,1.64177,-0.662538,-12.9656,5.19667,-0.334043,8.85659,-1.25094,8.47079,-5.4108,-14.7143,10.5821,0.0516778,0.177767,0.0689492,0.220636,-1.95495,0.376678,0.270318,0.0648011,0.210798,0.00527993,0.0828274,-0.0983505,-1.84886,1.68081,0.00603593,18.9028,7.78763,-4.42608,3.04584,-37.4555,24.1492,0.126695,1.40003,-36.1687,1.83778,26.5027,0.764157,3.15209,0.00376909,
0.178815,0.0683038,0.222473,-1.95458,0.330306,0.298806,0.06499,0.0802777,-0.0212063,0.0765257,-0.0394934,-1.38221,1.06992,0.00414892,1.10056,0.809144,1.46276,-0.642299,-9.65849,3.02235,-0.303277,8.89689,-1.08758,8.56626,-5.45941,-14.7143,10.5821,0.0474529,0.177767,0.0689492,0.220636,-1.95495,0.376678,0.270318,0.0648011,0.210798,0.00527993,0.0828274,-0.0983505,-1.84886,1.68081,0.00603593,0,0,0,0,0,0,0,1.40003,-36.1687,1.83778,26.5027,0.764157,3.15209,0.00376909,
0.182605,0.0688737,0.225278,-1.95716,0.302727,0.328676,0.0648534,0.0821417,-0.0184018,0.0788016,-0.0402383,-1.39578,1.07356,0.00353348,1.16498,1.7528,1.42245,-0.465567,-8.47782,2.27442,-0.38465,8.9642,-0.749272,8.70685,-5.5423,-14.7143,10.5821,0.0389491,0.177767,0.0689492,0.220636,-1.95495,0.376678,0.270318,0.0648011,0.210798,0.00527993,0.0828274,-0.0983505,-1.84886,1.68081,0.00603593,0,0,0,0,0,0,0,1.40003,-36.1687,1.83778,26.5027,0.764157,3.15209,0.00376909,
0.183313,0.0688225,0.225975,-1.95747,0.291215,0.336896,0.064861,0.0834117,-0.0160022,0.0804806,-0.0397097,-1.40442,1.06433,0.00301789,0.793783,1.49976,1.04941,0.330344,-5.40486,-5.76773,-0.322242,9.00295,-0.584748,8.76752,-5.58117,-14.7143,10.5821,0.0342134,0.177767,0.0689492,0.220636,-1.95495,0.376678,0.270318,0.0648011,0.210798,0.00527993,0.0828274,-0.0983505,-1.84886,1.68081,0.00603593,0,0,0,0,0,0,0,1.40003,-36.1687,1.83778,26.5027,0.764157,3.15209,0.00376909,
0.184012,0.0687726,0.226669,-1.95773,0.279774,0.344534,0.0648682,0.0842223,-0.01405,0.0817372,-0.0382657,-1.40955,1.04243,0.0025939,0.506629,1.22016,0.785353,0.902518,-3.20332,-13.685,-0.264996,8.69871,0.0255709,8.47963,-6.03328,-14.5798,10.1574,0.0328047,0.183253,0.0688148,0.225219,-1.95911,0.307461,0.331003,0.0648336,0.16013,0.015133,0.178963,-0.102882,-2.01191,1.7778,0.00203799,-6.3336,1.23163,12.017,-0.566446,-20.3817,12.1243,-0.499743,1.1977,-37.589,2.48842,27.6254,1.15509,2.81426,-0.0026396,
0.184707,0.0687195,0.227361,-1.95795,0.268397,0.351553,0.064874,0.0847371,-0.0125656,0.0826787,-0.036353,-1.41206,1.00941,0.00221965,0.321719,0.92775,0.588457,1.19545,-1.56692,-20.6422,-0.233903,8.75444,0.184129,8.55974,-6.07159,-14.5798,10.1574,0.0297138,0.183253,0.0688148,0.225219,-1.95911,0.307461,0.331003,0.0648336,0.16013,0.015133,0.178963,-0.102882,-2.01191,1.7778,0.00203799,0,0,0,0,0,0,0,1.1977,-37.589,2.48842,27.6254,1.15509,2.81426,-0.0026396,
0.188727,0.0689237,0.230522,-1.96069,0.225952,0.384022,0.0647323,0.0833261,-0.0115402,0.0814138,-0.0343796,-1.36145,0.92932,0.00149261,-0.881869,0.640848,-0.790592,1.23337,31.6316,-50.0542,-0.454404,8.95368,0.853467,8.80808,-6.03117,-14.5798,8.8333,0.0189185,0.183253,0.0688148,0.225219,-1.95911,0.307461,0.331003,0.0648336,0.16013,0.015133,0.178963,-0.102882,-2.01191,1.7778,0.00203799,0,0,0,0,0,0,0,1.1977,-37.589,2.48842,27.6254,1.15509,2.81426,-0.0026396,
0.189331,0.0688652,0.231116,-1.96091,0.21749,0.388316,0.0647215,0.0817571,-0.0106966,0.0799751,-0.0330116,-1.3007,0.85082,0.000925069,-0.980616,0.527254,-0.899192,0.854997,37.9662,-49.0627,-0.354712,9.00144,1.04724,8.90461,-5.98984,-14.5798,7.86548,0.0185814,0.183253,0.0688148,0.225219,-1.95911,0.307461,0.331003,0.0648336,0.16013,0.015133,0.178963,-0.102882,-2.01191,1.7778,0.00203799,0,0,0,0,0,0,0,1.1977,-37.589,2.48842,27.6254,1.15509,2.81426,-0.0026396,
0.189923,0.0688102,0.231698,-1.96114,0.209804,0.392099,0.0647107,0.0802031,-0.00993249,0.0785346,-0.0320914,-1.23271,0.775224,0.000470199,-0.971223,0.477569,-0.900333,0.575156,42.4921,-47.2474,-0.284294,8.76782,1.3645,8.69771,-6.1087,-14.344,6.60703,0.0182565,0.189684,0.0689777,0.230921,-1.96327,0.234581,0.393337,0.064824,0.0860905,-0.0243783,0.252066,-0.146007,-2.07246,1.74187,-0.00232852,-9.2549,-4.93891,9.13782,-5.39067,-7.56894,-4.49127,-0.545814,0.868412,-36.367,2.01234,26.3797,2.61535,1.6607,0.0440523,
0.190507,0.0687598,0.232272,-1.96137,0.202849,0.395427,0.0646998,0.0787604,-0.00920367,0.0771897,-0.0315009,-1.16004,0.703362,0.000103499,-0.901724,0.455512,-0.840538,0.369053,45.4222,-44.9133,-0.229187,8.78644,1.4754,8.72394,-6.08298,-13.949,5.79502,0.0165068,0.189684,0.0689777,0.230921,-1.96327,0.234581,0.393337,0.064824,0.0860905,-0.0243783,0.252066,-0.146007,-2.07246,1.74187,-0.00232852,0,0,0,0,0,0,0,0.868412,-36.367,2.01234,26.3797,2.61535,1.6607,0.0440523,
0.194349,0.0685581,0.235394,-1.96425,0.176808,0.429853,0.0645926,0.0764965,-0.00966044,0.0750267,-0.0293347,-1.05591,0.628435,-0.000301526,-1.41492,-0.285482,-1.35188,1.35385,65.0781,-46.8298,-0.253141,8.73516,1.71235,8.65047,-5.98584,-10.5466,3.84182,0.0145681,0.189684,0.0689777,0.230921,-1.96327,0.234581,0.393337,0.064824,0.0860905,-0.0243783,0.252066,-0.146007,-2.07246,1.74187,-0.00232852,0,0,0,0,0,0,0,0.868412,-36.367,2.01234,26.3797,2.61535,1.6607,0.0440523,
0.194889,0.0684747,0.235925,-1.96444,0.172286,0.432073,0.0645776,0.0746784,-0.0098135,0.0733097,-0.0280591,-0.957791,0.558264,-0.000616239,-1.13632,-0.0956671,-1.07314,0.79725,61.3263,-43.8565,-0.196696,8.65048,1.76552,8.55514,-5.94617,-9.61032,3.32683,0.0143048,0.189684,0.0689777,0.230921,-1.96327,0.234581,0.393337,0.064824,0.0860905,-0.0243783,0.252066,-0.146007,-2.07246,1.74187,-0.00232852,0,0,0,0,0,0,0,0.868412,-36.367,2.01234,26.3797,2.61535,1.6607,0.0440523,
0.195429,0.0684009,0.236459,-1.96463,0.168288,0.433954,0.0645623,0.0732572,-0.00969456,0.0719795,-0.027428,-0.866186,0.493641,-0.000875882,-0.88825,0.074341,-0.831355,0.394469,57.2532,-40.3894,-0.162277,8.88827,1.17834,8.80186,-5.2782,-8.2276,2.75721,0.0092505,0.194912,0.0702494,0.235626,-1.96619,0.166923,0.442234,0.0648135,0.0753447,0.0849215,0.183071,-0.0388998,-1.77099,1.17011,-0.00619572,-1.34323,13.6625,-8.62438,13.3885,37.6843,-71.4702,-0.483399,3.76056,-36.3194,5.03541,23.7137,3.66546,0.23522,0.104477,
0.19949,0.0709676,0.23999,-1.96804,0.13274,0.463913,0.0644076,0.069984,-0.00814965,0.068824,-0.0275115,-0.719272,0.407556,-0.00118385,-2.04574,0.965568,-1.97216,-0.0521916,91.8213,-53.8033,-0.192478,7.64228,1.25854,7.52797,-4.92281,-3.90142,0.740187,-0.00382258,0.194912,0.0702494,0.235626,-1.96619,0.166923,0.442234,0.0648135,0.0753447,0.0849215,0.183071,-0.0388998,-1.77099,1.17011,-0.00619572,0,0,0,0,0,0,0,3.76056,-36.3194,5.03541,23.7137,3.66546,0.23522,0.104477,
0.199951,0.0709554,0.240446,-1.96827,0.131867,0.464327,0.0643883,0.0675084,-0.00682545,0.0664423,-0.0276974,-0.59723,0.336393,-0.00142968,-1.54728,0.827627,-1.4886,-0.116226,76.2763,-44.4771,-0.153647,7.44875,1.25213,7.33449,-4.86505,-3.48721,0.584138,-0.00573214,0.194912,0.0702494,0.235626,-1.96619,0.166923,0.442234,0.0648135,0.0753447,0.0849215,0.183071,-0.0388998,-1.77099,1.17011,-0.00619572,0,0,0,0,0,0,0,3.76056,-36.3194,5.03541,23.7137,3.66546,0.23522,0.104477,
0.200415,0.0709468,0.240904,-1.9685,0.131151,0.46467,0.064369,0.0656064,-0.00567414,0.0646152,-0.0279238,-0.495691,0.277695,-0.00162816,-1.18872,0.719568,-1.14193,-0.141508,63.4617,-36.686,-0.124049,7.25725,1.24355,7.1436,-4.80563,-3.11635,0.451798,-0.00735479,0.194912,0.0702494,0.235626,-1.96619,0.166923,0.442234,0.0648135,0.0753447,0.0849215,0.183071,-0.0388998,-1.77099,1.17011,-0.00619572,0,0,0,0,0,0,0,3.76056,-36.3194,5.03541,23.7137,3.66546,0.23522,0.104477,
0.20088,0.0709418,0.241363,-1.96873,0.13057,0.464959,0.0643496,0.0641075,-0.00466527,0.0631767,-0.0281448,-0.411072,0.229374,-0.00178655,-0.9368,0.630543,-0.899059,-0.138101,52.8869,-30.2007,-0.0989942,7.58135,0.540869,7.48702,-4.00326,-2.35622,0.460981,-0.0122665,0.19857,0.071001,0.239653,-1.96845,0.12459,0.471033,0.0647966,0.0420256,-0.0298556,0.169074,-0.0815617,-0.81713,0.614729,0.000424733,-4.16488,-14.3471,-1.74961,-5.33275,119.233,-69.4227,0.827557,5.30384,-36.7162,6.2613,23.1186,3.62243,0.0100004,0.131027,
0.204209,0.0702578,0.245178,-1.97037,0.116302,0.481494,0.0644195,0.0607303,-0.00392606,0.0599438,-0.0268232,-0.324241,0.187844,-0.00184233,-2.11078,0.462006,-2.02054,0.826012,54.2691,-25.9558,-0.0348639,6.02943,0.452959,5.96148,-3.40487,-0.563068,0.0650548,-0.0195976,0.19857,0.071001,0.239653,-1.96845,0.12459,0.471033,0.0647966,0.0420256,-0.0298556,0.169074,-0.0815617,-0.81713,0.614729,0.000424733,0,0,0,0,0,0,0,5.30384,-36.7162,6.2613,23.1186,3.62243,0.0100004,0.131027,
