xiao-wang007/linearmpc_panda/paper_data/panda_inverse_dynamics_controller_opt_time_to_start_no_acceleration_ff/1/trajectory.csv
Commanded Joint 0 Position,Commanded Joint 1 Position,Commanded Joint 2 Position,Commanded Joint 3 Position,Commanded Joint 4 Position,Commanded Joint 5 Position,Commanded Joint 6 Position,Commanded Joint 0 Velocity,Commanded Joint 1 Velocity,Commanded Joint 2 Velocity,Commanded Joint 3 Velocity,Commanded Joint 4 Velocity,Commanded Joint 5 Velocity,Commanded Joint 6 Velocity,Commanded Joint 0 Acceleration,Commanded Joint 1 Acceleration,Commanded Joint 2 Acceleration,Commanded Joint 3 Acceleration,Commanded Joint 4 Acceleration,Commanded Joint 5 Acceleration,Commanded Joint 6 Acceleration,Commanded Joint 0 Torque,Commanded Joint 1 Torque,Commanded Joint 2 Torque,Commanded Joint 3 Torque,Commanded Joint 4 Torque,Commanded Joint 5 Torque,Commanded Joint 6 Torque,Actual Joint 0 Position,Actual Joint 1 Position,Actual Joint 2 Position,Actual Joint 3 Position,Actual Joint 4 Position,Actual Joint 5 Position,Actual Joint 6 Position,Actual Joint 0 Velocity,Actual Joint 1 Velocity,Actual Joint 2 Velocity,Actual Joint 3 Velocity,Actual Joint 4 Velocity,Actual Joint 5 Velocity,Actual Joint 6 Velocity,Actual Joint 0 Acceleration,Actual Joint 1 Acceleration,Actual Joint 2 Acceleration,Actual Joint 3 Acceleration,Actual Joint 4 Acceleration,Actual Joint 5 Acceleration,Actual Joint 6 Acceleration,Actual Joint 0 Torque,Actual Joint 1 Torque,Actual Joint 2 Torque,Actual Joint 3 Torque,Actual Joint 4 Torque,Actual Joint 5 Torque,Actual Joint 6 Torque,
0.000289669,0.041607,-0.055492,-1.79707,0.0182829,0.268024,-0.0319869,0.000193209,0.0239278,0.000203571,-0.0323536,-0.00375428,0.0569765,-0.000398854,0,0,0,0,0,0,0,0.0601541,25.7844,0.0841179,-24.262,-0.6346,2.09505,-0.0253948,0.000291816,0.0406634,-0.0554713,-1.79418,0.0184581,0.261983,-0.0319493,-0.00102916,-0.000129161,-0.000257388,-2.4413e-05,0.00263086,-0.00228121,0.00136872,0,0,0,0,0,0,0,0.0313145,-37.1922,-0.185533,27.1533,0.697323,3.07976,0.0376436,
0.000284,0.0406651,-0.0554785,-1.79418,0.0184767,0.261965,-0.0319485,0.000110992,0.0191703,0.000122162,-0.0258828,-0.00294361,0.0455264,-0.000317227,0,0,0,0,0,0,0,0.0543543,26.2248,0.0737445,-24.1784,-0.635029,1.8441,-0.0238768,0.000291816,0.0406634,-0.0554713,-1.79418,0.0184581,0.261983,-0.0319493,-0.00102916,-0.000129161,-0.000257388,-2.4413e-05,0.00263086,-0.00228121,0.00136872,0,0,0,0,0,0,0,0.0313145,-37.1922,-0.185533,27.1533,0.697323,3.07976,0.0376436,
0.000282727,0.0406665,-0.0554797,-1.79418,0.0184776,0.261965,-0.0319484,5.69808e-05,0.0153723,6.81441e-05,-0.0207038,-0.0023321,0.0364234,-0.000252926,0,0,0,0,0,0,0,0.0471117,26.7997,0.0620641,-24.0698,-0.634504,1.49719,-0.0219123,0.000293314,0.0407877,-0.0554709,-1.79421,0.0184519,0.261987,-0.0319549,-0.00193467,0.00524923,-0.00189601,0.000474905,0.00302438,-0.00235807,-0.000551948,-0.113188,0.672299,-0.204828,0.0624147,0.0491891,-0.0096064,-0.240084,0.0551182,-36.8907,-0.16173,27.0026,0.752255,3.08617,0.0843355,
0.000281775,0.0406681,-0.0554806,-1.79418,0.0184778,0.261966,-0.0319484,2.17721e-05,0.0123391,3.25362e-05,-0.0165586,-0.00186045,0.0291796,-0.000202071,0,0,0,0,0,0,0,0.0411276,27.3236,0.0526053,-23.902,-0.632574,1.11198,-0.0199103,0.000293314,0.0407877,-0.0554709,-1.79421,0.0184519,0.261987,-0.0319549,-0.00193467,0.00524923,-0.00189601,0.000474905,0.00302438,-0.00235807,-0.000551948,0,0,0,0,0,0,0,0.0551182,-36.8907,-0.16173,27.0026,0.752255,3.08617,0.0843355,
6.38911e-05,0.0408531,-0.0557059,-1.79405,0.0254673,0.257261,-0.0319838,-0.000744478,0.00981879,-0.000712598,-0.012925,0.0425701,-0.00733799,-0.000199508,0,0,0,0,0,0,0,0.51979,0.170905,0.519745,-0.261323,2.60938,-1.89063,-0.00178855,0.000293314,0.0407877,-0.0554709,-1.79421,0.0184519,0.261987,-0.0319549,-0.00193467,0.00524923,-0.00189601,0.000474905,0.00302438,-0.00235807,-0.000551948,0,0,0,0,0,0,0,0.0551182,-36.8907,-0.16173,27.0026,0.752255,3.08617,0.0843355,
4.50564e-05,0.0408501,-0.0557237,-1.79405,0.0272795,0.25598,-0.0319848,-0.00106645,0.00778103,-0.0010167,-0.0101965,0.0793622,-0.0379044,-0.000185173,0,0,0,0,0,0,0,0.513668,0.170471,0.513732,-0.258432,2.58593,-1.87411,-0.00176533,0.000293314,0.0407877,-0.0554709,-1.79421,0.0184519,0.261987,-0.0319549,-0.00193467,0.00524923,-0.00189601,0.000474905,0.00302438,-0.00235807,-0.000551948,0,0,0,0,0,0,0,0.0551182,-36.8907,-0.16173,27.0026,0.752255,3.08617,0.0843355,
3.67541e-05,0.0408477,-0.0557311,-1.79404,0.0291178,0.254665,-0.0319856,-0.00106072,0.00616463,-0.000998599,-0.0081541,0.109447,-0.0631885,-0.000167993,0,0,0,0,0,0,0,0.508031,0.187661,0.50856,-0.251538,2.56249,-1.85444,-0.00174827,0.000287082,0.0414296,-0.0554687,-1.79427,0.0184481,0.262111,-0.0319524,-0.00145494,0.0452094,8.11913e-05,-0.000182939,0.000273468,0.00348508,0.000434479,0.0599657,4.99502,0.247151,-0.0822305,-0.343863,0.730393,0.123303,0.0551182,-33.2964,-0.237108,23.4161,0.758663,2.16424,0.0641939,
3.75699e-05,0.0408466,-0.0557295,-1.79405,0.0309671,0.253332,-0.0319863,-0.000828179,0.0049036,-0.000759284,-0.00662985,0.13379,-0.0838836,-0.000152049,0,0,0,0,0,0,0,0.502386,0.186379,0.502969,-0.248894,2.53838,-1.83802,-0.0017117,0.000287082,0.0414296,-0.0554687,-1.79427,0.0184481,0.262111,-0.0319524,-0.00145494,0.0452094,8.11913e-05,-0.000182939,0.000273468,0.00348508,0.000434479,0,0,0,0,0,0,0,0.0551182,-33.2964,-0.237108,23.4161,0.758663,2.16424,0.0641939,
-8.73778e-05,0.0420627,-0.0558839,-1.7941,0.0449721,0.245275,-0.0320324,-0.000567398,0.00482969,-0.000542095,-0.00615034,0.272306,-0.175805,-0.00014127,0,0,0,0,0,0,0,4.00675,0.508799,3.96442,-1.46426,10.2321,-6.94088,-0.000153856,0.000287082,0.0414296,-0.0554687,-1.79427,0.0184481,0.262111,-0.0319524,-0.00145494,0.0452094,8.11913e-05,-0.000182939,0.000273468,0.00348508,0.000434479,0,0,0,0,0,0,0,0.0551182,-33.2964,-0.237108,23.4161,0.758663,2.16424,0.0641939,
-3.47869e-05,0.0420874,-0.0558315,-1.79415,0.0517206,0.240783,-0.0320317,0.000860854,0.0044811,0.000874719,-0.00638478,0.386556,-0.252935,-9.57581e-05,0,0,0,0,0,0,0,3.89648,0.485259,3.8588,-1.44005,10.0321,-6.77263,-0.000777425,0.000287082,0.0414296,-0.0554687,-1.79427,0.0184481,0.262111,-0.0319524,-0.00145494,0.0452094,8.11913e-05,-0.000182939,0.000273468,0.00348508,0.000434479,0,0,0,0,0,0,0,0.0551182,-33.2964,-0.237108,23.4161,0.758663,2.16424,0.0641939,
6.13475e-05,0.0421079,-0.0557357,-1.79423,0.0585084,0.236229,-0.0320304,0.00309204,0.00409867,0.00309499,-0.00703234,0.478942,-0.316199,-4.54352e-05,0,0,0,0,0,0,0,3.79673,0.470518,3.77247,-1.41555,9.82538,-6.60436,-0.00133787,0.000303117,0.0417418,-0.0554606,-1.79468,0.0184561,0.261985,-0.0319545,0.00141375,0.00261033,-1.3921e-05,-0.0214234,0.0115017,-0.00531851,-0.000610022,0.358587,-5.32488,-0.011889,-2.65506,1.40353,-1.10045,-0.130563,-0.0440639,-38.1166,-0.237108,28.2483,0.758663,3.16582,0.0843355,
0.000194634,0.0421284,-0.0556032,-1.79432,0.065274,0.231668,-0.0320291,0.0058058,0.00379149,0.00579033,-0.00788906,0.552293,-0.366979,-3.98831e-06,0,0,0,0,0,0,0,3.77958,0.513064,3.62031,-1.34137,9.6153,-6.46621,0.000598645,0.000303117,0.0417418,-0.0554606,-1.79468,0.0184561,0.261985,-0.0319545,0.00141375,0.00261033,-1.3921e-05,-0.0214234,0.0115017,-0.00531851,-0.000610022,0,0,0,0,0,0,0,-0.0440639,-38.1166,-0.237108,28.2483,0.758663,3.16582,0.0843355,
0.00277273,0.0404875,-0.053106,-1.79566,0.0449549,0.227239,-0.0315464,0.0227631,-0.00426552,0.0220288,-0.0151525,0.619191,-0.524224,0.000703838,0,0,0,0,0,0,0,21.8693,-1.55947,21.7058,-9.03405,10.9531,-14.1138,0.375414,0.000303117,0.0417418,-0.0554606,-1.79468,0.0184561,0.261985,-0.0319545,0.00141375,0.00261033,-1.3921e-05,-0.0214234,0.0115017,-0.00531851,-0.000610022,0,0,0,0,0,0,0,-0.0440639,-38.1166,-0.237108,28.2483,0.758663,3.16582,0.0843355,
0.00357376,0.0402198,-0.0523331,-1.79608,0.0524436,0.217514,-0.0315181,0.0382361,-0.0101031,0.0369443,-0.0224276,0.68257,-0.66251,0.00127104,0,0,0,0,0,0,0,17.9706,-2.31762,17.504,-9.81369,10.9531,-14.1138,0.068066,0.000303117,0.0417418,-0.0554606,-1.79468,0.0184561,0.261985,-0.0319545,0.00141375,0.00261033,-1.3921e-05,-0.0214234,0.0115017,-0.00531851,-0.000610022,0,0,0,0,0,0,0,-0.0440639,-38.1166,-0.237108,28.2483,0.758663,3.16582,0.0843355,
0.0044343,0.0399777,-0.0515002,-1.79658,0.0602192,0.207727,-0.031489,0.0521024,-0.0141345,0.0503787,-0.0304815,0.740447,-0.774673,0.0017461,0,0,0,0,0,0,0,16.9715,-1.16776,16.4581,-9.00222,10.9522,-14.1093,0.0410177,0.000338474,0.0423372,-0.0552598,-1.79492,0.0188077,0.261837,-0.031953,0.00334248,0.00978343,0.0108413,-0.0094818,0.0288823,-0.02254,0.000562312,0.241091,0.896637,1.35691,1.4927,2.17257,-2.15269,0.146542,1.40003,-37.8905,1.23872,26.9034,1.25946,2.70165,0.0706026,
0.00533988,0.0397697,-0.0506218,-1.79715,0.068202,0.198128,-0.0314593,0.0643214,-0.016509,0.0622624,-0.0388017,0.791928,-0.859704,0.00213868,0,0,0,0,0,0,0,16.2921,-0.895379,15.8059,-8.66552,10.9522,-14.1093,0.0348064,0.000338474,0.0423372,-0.0552598,-1.79492,0.0188077,0.261837,-0.031953,0.00334248,0.00978343,0.0108413,-0.0094818,0.0288823,-0.02254,0.000562312,0,0,0,0,0,0,0,1.40003,-37.8905,1.23872,26.9034,1.25946,2.70165,0.0706026,
0.00394785,0.0415537,-0.0516563,-1.79749,0.0446769,0.228284,-0.0317926,0.0774074,-0.018134,0.0755349,-0.0504824,0.807222,-0.912979,0.00226699,0,0,0,0,0,0,0,25.4346,3.25173,25.2556,-15.1216,10.9522,-14.1093,0.071918,0.000338474,0.0423372,-0.0552598,-1.79492,0.0188077,0.261837,-0.031953,0.00334248,0.00978343,0.0108413,-0.0094818,0.0288823,-0.02254,0.000562312,0,0,0,0,0,0,0,1.40003,-37.8905,1.23872,26.9034,1.25946,2.70165,0.0706026,
0.00507646,0.0413637,-0.0505393,-1.79839,0.0520642,0.219017,-0.0317721,0.0901412,-0.0192589,0.0883535,-0.0629198,0.830462,-0.96205,0.0023277,0,0,0,0,0,0,0,23.9643,2.57864,23.7587,-14.8648,10.9522,-14.1093,0.0503762,0.000338474,0.0423372,-0.0552598,-1.79492,0.0188077,0.261837,-0.031953,0.00334248,0.00978343,0.0108413,-0.0094818,0.0288823,-0.02254,0.000562312,0,0,0,0,0,0,0,1.40003,-37.8905,1.23872,26.9034,1.25946,2.70165,0.0706026,
0.00627214,0.0411897,-0.0493572,-1.79941,0.0597774,0.209927,-0.0317505,0.102005,-0.0197554,0.100236,-0.0759066,0.857199,-0.996879,0.00240131,0,0,0,0,0,0,0,22.7277,1.91761,22.5021,-14.6283,10.9396,-14.0847,0.0374463,0.000803232,0.0425324,-0.053821,-1.79562,0.0226735,0.258505,-0.0319545,0.0271927,-0.0119073,0.0680334,-0.0428864,0.183156,-0.182314,0.00124759,2.98128,-2.71134,7.14901,-4.17557,19.2843,-19.9718,0.0856602,7.81513,-35.8672,7.31264,25.0348,1.80236,1.83922,0.0843355,
0.00599993,0.0415364,-0.0487335,-1.80014,0.0508053,0.223207,-0.0319432,0.114708,-0.02038,0.112635,-0.0900957,0.865063,-1.02497,0.00182904,0,0,0,0,0,0,0,28.6535,4.34081,28.1293,-20.2138,10.9396,-14.0847,0.0254231,0.000803232,0.0425324,-0.053821,-1.79562,0.0226735,0.258505,-0.0319545,0.0271927,-0.0119073,0.0680334,-0.0428864,0.183156,-0.182314,0.00124759,0,0,0,0,0,0,0,7.81513,-35.8672,7.31264,25.0348,1.80236,1.83922,0.0843355,
0.00739904,0.0413729,-0.0473618,-1.80146,0.0583756,0.214045,-0.0319447,0.126744,-0.0203927,0.124402,-0.105004,0.881306,-1.04904,0.00142588,0,0,0,0,0,0,0,26.9556,3.46853,26.4601,-19.9476,10.9396,-14.0847,0.00595544,0.000803232,0.0425324,-0.053821,-1.79562,0.0226735,0.258505,-0.0319545,0.0271927,-0.0119073,0.0680334,-0.0428864,0.183156,-0.182314,0.00124759,0,0,0,0,0,0,0,7.81513,-35.8672,7.31264,25.0348,1.80236,1.83922,0.0843355,
0.00885115,0.0412403,-0.0459377,-1.80289,0.0662389,0.2052,-0.0319411,0.137698,-0.019628,0.135122,-0.119938,0.901628,-1.06035,0.00123176,0,0,0,0,0,0,0,25.5336,2.63823,25.0627,-19.719,10.9396,-14.0847,-0.00351093,0.000803232,0.0425324,-0.053821,-1.79562,0.0226735,0.258505,-0.0319545,0.0271927,-0.0119073,0.0680334,-0.0428864,0.183156,-0.182314,0.00124759,0,0,0,0,0,0,0,7.81513,-35.8672,7.31264,25.0348,1.80236,1.83922,0.0843355,
0.0103385,0.041146,-0.0444789,-1.80442,0.0743155,0.196885,-0.0319331,0.147343,-0.0180613,0.144569,-0.134002,0.923217,-1.05615,0.00118501,0,0,0,0,0,0,0,24.3199,1.87341,23.8712,-19.525,10.9396,-14.0847,-0.00917252,0.000803232,0.0425324,-0.053821,-1.79562,0.0226735,0.258505,-0.0319545,0.0271927,-0.0119073,0.0680334,-0.0428864,0.183156,-0.182314,0.00124759,0,0,0,0,0,0,0,7.81513,-35.8672,7.31264,25.0348,1.80236,1.83922,0.0843355,
0.00857483,0.0406885,-0.0441705,-1.80501,0.0623592,0.212185,-0.0321514,0.154486,-0.0226995,0.151594,-0.151642,0.925051,-1.05678,0.000150499,0,0,0,0,0,0,0,28.4136,2.017,27.9564,-26.1134,10.9149,-14.0121,-0.0391186,0.00228903,0.0423524,-0.0503429,-1.79777,0.0318958,0.248295,-0.0319552,0.060516,-0.0148919,0.135559,-0.0812468,0.283266,-0.333615,0.00020526,4.16541,-0.373075,8.44066,-4.79505,12.5137,-18.9126,-0.130292,8.85456,-34.5223,8.58613,23.4161,2.75543,0.791861,0.0907442,
0.0100928,0.0403898,-0.0426803,-1.80692,0.0701509,0.204084,-0.0321767,0.161538,-0.0256255,0.158531,-0.168982,0.934835,-1.04797,-0.000510776,0,0,0,0,0,0,0,26.8115,1.07709,26.3678,-25.7974,10.9149,-14.0121,-0.0500701,0.00228903,0.0423524,-0.0503429,-1.79777,0.0318958,0.248295,-0.0319552,0.060516,-0.0148919,0.135559,-0.0812468,0.283266,-0.333615,0.00020526,0,0,0,0,0,0,0,8.85456,-34.5223,8.58613,23.4161,2.75543,0.791861,0.0907442,
0.0116466,0.0401301,-0.0411549,-1.80891,0.0781806,0.196568,-0.0321916,0.168076,-0.0269942,0.16496,-0.185033,0.94861,-1.02626,-0.000782059,0,0,0,0,0,0,0,25.4679,0.208023,25.0378,-25.5157,10.9149,-14.0121,-0.0514195,0.00228903,0.0423524,-0.0503429,-1.79777,0.0318958,0.248295,-0.0319552,0.060516,-0.0148919,0.135559,-0.0812468,0.283266,-0.333615,0.00020526,0,0,0,0,0,0,0,8.85456,-34.5223,8.58613,23.4161,2.75543,0.791861,0.0907442,
0.013221,0.0399093,-0.0396093,-1.81096,0.086381,0.189748,-0.0321998,0.173821,-0.0271144,0.170607,-0.199176,0.963897,-0.991517,-0.000830777,0,0,0,0,0,0,0,24.3185,-0.558996,23.9027,-25.2522,10.9149,-13.4747,-0.0504496,0.00228903,0.0423524,-0.0503429,-1.79777,0.0318958,0.248295,-0.0319552,0.060516,-0.0148919,0.135559,-0.0812468,0.283266,-0.333615,0.00020526,0,0,0,0,0,0,0,8.85456,-34.5223,8.58613,23.4161,2.75543,0.791861,0.0907442,
0.00833113,0.0406641,-0.0443935,-1.80611,0.0627134,0.216899,-0.0321732,0.174282,-0.0286464,0.171173,-0.210336,0.958768,-0.958349,-0.0013126,0,0,0,0,0,0,0,26.9017,2.16154,26.4989,-28.3303,10.911,-13.9098,-0.0622926,0.00490739,0.0421648,-0.0438533,-1.8017,0.0401017,0.235679,-0.0319575,0.0808649,-0.00139292,0.230236,-0.142665,0.256873,-0.409383,-0.00124169,2.54361,1.68738,11.8347,-7.67728,-3.29916,-9.47097,-0.180869,5.51014,-33.4987,5.21394,21.4484,2.19329,0.400931,0.110886,
0.00979404,0.0404449,-0.0429529,-1.80823,0.0705334,0.210765,-0.0321923,0.175999,-0.0283955,0.172953,-0.221385,0.962514,-0.920025,-0.00152748,0,0,0,0,0,0,0,25.5703,1.34015,25.1815,-28.0157,10.911,-13.2785,-0.0622021,0.00490739,0.0421648,-0.0438533,-1.8017,0.0401017,0.235679,-0.0319575,0.0808649,-0.00139292,0.230236,-0.142665,0.256873,-0.409383,-0.00124169,0,0,0,0,0,0,0,5.51014,-33.4987,5.21394,21.4484,2.19329,0.400931,0.110886,
0.0112936,0.0402817,-0.0414764,-1.81041,0.0785777,0.205201,-0.0322027,0.178287,-0.0267983,0.175277,-0.231471,0.971119,-0.875127,-0.00148217,0,0,0,0,0,0,0,24.4284,0.642536,24.0542,-27.7126,10.911,-11.3682,-0.0528861,0.00490739,0.0421648,-0.0438533,-1.8017,0.0401017,0.235679,-0.0319575,0.0808649,-0.00139292,0.230236,-0.142665,0.256873,-0.409383,-0.00124169,0,0,0,0,0,0,0,5.51014,-33.4987,5.21394,21.4484,2.19329,0.400931,0.110886,
0.0121532,0.0408361,-0.0367419,-1.81225,0.0716854,0.202948,-0.0322013,0.181726,-0.0274443,0.178614,-0.246209,0.968768,-0.870606,-0.00193935,0,0,0,0,0,0,0,27.4532,2.14076,27.0157,-32.9396,10.911,-13.9098,-0.0547788,0.00490739,0.0421648,-0.0438533,-1.8017,0.0401017,0.235679,-0.0319575,0.0808649,-0.00139292,0.230236,-0.142665,0.256873,-0.409383,-0.00124169,0,0,0,0,0,0,0,5.51014,-33.4987,5.21394,21.4484,2.19329,0.400931,0.110886,
0.0137479,0.0406372,-0.0351755,-1.81476,0.0796468,0.196581,-0.0322215,0.185249,-0.0269298,0.182051,-0.259738,0.974049,-0.855656,-0.0020562,0,0,0,0,0,0,0,26.0399,1.08605,25.6034,-32.5323,10.8962,-13.0666,-0.0601474,0.00778393,0.0419185,-0.0350329,-1.80746,0.0490642,0.221133,-0.0319516,0.098094,-0.00564783,0.269904,-0.19314,0.262081,-0.451157,0.000441677,2.15363,-0.531863,4.95839,-6.30942,0.650985,-5.22177,0.210421,2.54261,-33.947,2.36146,22.6941,2.23632,0.758902,0.0577852,
0.0153611,0.0404775,-0.0335908,-1.81731,0.0878057,0.190763,-0.0322298,0.18853,-0.0255354,0.185259,-0.271496,0.98321,-0.829979,-0.00185166,0,0,0,0,0,0,0,24.8424,0.254513,24.4203,-32.1983,10.8962,-11.313,-0.0557857,0.00778393,0.0419185,-0.0350329,-1.80746,0.0490642,0.221133,-0.0319516,0.098094,-0.00564783,0.269904,-0.19314,0.262081,-0.451157,0.000441677,0,0,0,0,0,0,0,2.54261,-33.947,2.36146,22.6941,2.23632,0.758902,0.0577852,
0.0169816,0.0403522,-0.031999,-1.81987,0.0961014,0.185532,-0.0322296,0.191334,-0.0235608,0.188004,-0.281216,0.993962,-0.794756,-0.00147723,0,0,0,0,0,0,0,23.8272,-0.397647,23.42,-31.8441,10.8962,-9.76118,-0.050105,0.00778393,0.0419185,-0.0350329,-1.80746,0.0490642,0.221133,-0.0319516,0.098094,-0.00564783,0.269904,-0.19314,0.262081,-0.451157,0.000441677,0,0,0,0,0,0,0,2.54261,-33.947,2.36146,22.6941,2.23632,0.758902,0.0577852,
0.0155398,0.0405848,-0.0274058,-1.8202,0.0812984,0.19483,-0.0322449,0.193575,-0.024273,0.190261,-0.295151,0.989387,-0.760712,-0.00200746,0,0,0,0,0,0,0,26.8816,1.05092,26.5022,-36.8059,10.8962,-11.6884,-0.078495,0.00778393,0.0419185,-0.0350329,-1.80746,0.0490642,0.221133,-0.0319516,0.098094,-0.00564783,0.269904,-0.19314,0.262081,-0.451157,0.000441677,0,0,0,0,0,0,0,2.54261,-33.947,2.36146,22.6941,2.23632,0.758902,0.0577852,
0.0171773,0.0404082,-0.0257941,-1.82305,0.0893328,0.190342,-0.0322664,0.195797,-0.0238313,0.1925,-0.307215,0.99237,-0.720756,-0.00214365,0,0,0,0,0,0,0,25.6222,0.147129,25.2377,-36.2811,10.8714,-9.76294,-0.0752296,0.0109739,0.0416096,-0.0258676,-1.81477,0.0575025,0.206218,-0.0319505,0.0980862,-0.00034042,0.284616,-0.24204,0.271053,-0.429865,0.000154002,-0.000974314,0.663426,1.8391,-6.11239,1.12158,2.66151,-0.0359593,-0.908932,-35.0459,-0.963121,24.9118,1.36291,1.64696,0.0779268,
0.0188216,0.040268,-0.0241757,-1.8259,0.097548,0.186411,-0.0322786,0.197744,-0.0225713,0.194462,-0.317128,0.999276,-0.67488,-0.00202033,0,0,0,0,0,0,0,24.5366,-0.509755,24.1634,-35.8532,10.8714,-8.1707,-0.0636583,0.0109739,0.0416096,-0.0258676,-1.81477,0.0575025,0.206218,-0.0319505,0.0980862,-0.00034042,0.284616,-0.24204,0.271053,-0.429865,0.000154002,0,0,0,0,0,0,0,-0.908932,-35.0459,-0.963121,24.9118,1.36291,1.64696,0.0779268,
0.0187479,0.0404285,-0.0182221,-1.82951,0.0899882,0.187484,-0.0322351,0.198264,-0.0227286,0.194995,-0.331665,0.994059,-0.622067,-0.00241459,0,0,0,0,0,0,0,25.9556,0.11143,25.5929,-40.3151,10.8714,-8.18386,-0.0784455,0.0109739,0.0416096,-0.0258676,-1.81477,0.0575025,0.206218,-0.0319505,0.0980862,-0.00034042,0.284616,-0.24204,0.271053,-0.429865,0.000154002,0,0,0,0,0,0,0,-0.908932,-35.0459,-0.963121,24.9118,1.36291,1.64696,0.0779268,
0.0203631,0.0402736,-0.0166325,-1.83263,0.0980268,0.184655,-0.0322543,0.19899,-0.0220544,0.195737,-0.343468,0.996212,-0.568359,-0.00241221,0,0,0,0,0,0,0,24.7699,-0.563374,24.4143,-39.8221,10.8714,-6.70247,-0.0703956,0.0109739,0.0416096,-0.0258676,-1.81477,0.0575025,0.206218,-0.0319505,0.0980862,-0.00034042,0.284616,-0.24204,0.271053,-0.429865,0.000154002,0,0,0,0,0,0,0,-0.908932,-35.0459,-0.963121,24.9118,1.36291,1.64696,0.0779268,
0.0219822,0.040146,-0.0150388,-1.83575,0.106236,0.18231,-0.0322604,0.19967,-0.0208342,0.196433,-0.352614,1.00219,-0.513331,-0.00208312,0,0,0,0,0,0,0,23.7195,-1.15778,23.3609,-39.2304,10.8243,-5.30325,-0.0613781,0.0142232,0.0415038,-0.016397,-1.8237,0.0692284,0.190723,-0.0319568,0.0970055,0.00447912,0.268147,-0.286701,0.380759,-0.462912,-0.000635212,-0.135086,0.602443,-2.05868,-5.58273,13.7133,-4.13088,-0.0986517,0.868412,-36.8431,0.711073,28.4467,1.67419,2.39037,0.104477,
0.0235967,0.0400405,-0.0134493,-1.83884,0.11456,0.18044,-0.0322556,0.200099,-0.0193042,0.196883,-0.359279,1.00987,-0.457401,-0.00154602,0,0,0,0,0,0,0,22.819,-1.53094,22.4728,-38.7036,10.8243,-4.19573,-0.0517614,0.0142232,0.0415038,-0.016397,-1.8237,0.0692284,0.190723,-0.0319568,0.0970055,0.00447912,0.268147,-0.286701,0.380759,-0.462912,-0.000635212,0,0,0,0,0,0,0,0.868412,-36.8431,0.711073,28.4467,1.67419,2.39037,0.104477,
0.0213456,0.0407499,-0.00939813,-1.83882,0.103165,0.180458,-0.0320295,0.196297,-0.0181364,0.193133,-0.363135,1.00451,-0.397386,-0.000925759,0,0,0,0,0,0,0,22.0449,-1.78486,21.7105,-38.1574,10.8243,-3.22624,-0.0386072,0.0142232,0.0415038,-0.016397,-1.8237,0.0692284,0.190723,-0.0319568,0.0970055,0.00447912,0.268147,-0.286701,0.380759,-0.462912,-0.000635212,0,0,0,0,0,0,0,0.868412,-36.8431,0.711073,28.4467,1.67419,2.39037,0.104477,
0.0228,0.0406608,-0.00796751,-1.84181,0.11124,0.179579,-0.0320091,0.193399,-0.0167372,0.190272,-0.365245,1.00549,-0.339879,-0.00023049,0,0,0,0,0,0,0,21.3613,-1.95417,21.0387,-37.6006,10.8243,-2.37889,-0.0229411,0.0142232,0.0415038,-0.016397,-1.8237,0.0692284,0.190723,-0.0319568,0.0970055,0.00447912,0.268147,-0.286701,0.380759,-0.462912,-0.000635212,0,0,0,0,0,0,0,0.868412,-36.8431,0.711073,28.4467,1.67419,2.39037,0.104477,
0.0242538,0.0405865,-0.00653769,-1.84476,0.119456,0.179061,-0.0319796,0.191063,-0.0152474,0.187963,-0.365819,1.0098,-0.284841,0.000553569,0,0,0,0,0,0,0,20.7317,-2.14896,20.4073,-36.8997,10.7803,-1.49123,-0.00703124,0.0179346,0.0413994,-0.0068903,-1.83407,0.0837351,0.175427,-0.031953,0.120859,-0.00635168,0.300061,-0.309057,0.483586,-0.43733,-0.00471726,2.98172,-1.35385,3.98921,-2.79441,12.8533,3.19774,-0.510256,-0.476498,-36.2679,-0.610033,26.106,1.03332,2.07177,0.0706026,
0.0252672,0.0408239,0.000306396,-1.84882,0.119791,0.170566,-0.0318577,0.188052,-0.013657,0.184984,-0.364422,1.01037,-0.228781,0.00142534,0,0,0,0,0,0,0,19.4676,-2.18278,19.1689,-35.7801,10.7803,-0.325052,0.0170186,0.0179346,0.0413994,-0.0068903,-1.83407,0.0837351,0.175427,-0.031953,0.120859,-0.00635168,0.300061,-0.309057,0.483586,-0.43733,-0.00471726,0,0,0,0,0,0,0,-0.476498,-36.2679,-0.610033,26.106,1.03332,2.07177,0.0706026,
0.0266556,0.0407796,0.00167373,-1.85163,0.128042,0.17086,-0.0318127,0.185152,-0.012032,0.18217,-0.361863,1.01457,-0.175666,0.00226513,0,0,0,0,0,0,0,18.8965,-2.12726,18.6023,-35.2089,10.7803,0.139914,0.0270303,0.0179346,0.0413994,-0.0068903,-1.83407,0.0837351,0.175427,-0.031953,0.120859,-0.00635168,0.300061,-0.309057,0.483586,-0.43733,-0.00471726,0,0,0,0,0,0,0,-0.476498,-36.2679,-0.610033,26.106,1.03332,2.07177,0.0706026,
0.0280238,0.0407452,0.00302225,-1.85439,0.136386,0.171447,-0.0317613,0.182327,-0.0104858,0.179449,-0.358399,1.02026,-0.125859,0.00309561,0,0,0,0,0,0,0,18.363,-2.04473,18.076,-34.6377,10.7803,0.554969,0.0388777,0.0179346,0.0413994,-0.0068903,-1.83407,0.0837351,0.175427,-0.031953,0.120859,-0.00635168,0.300061,-0.309057,0.483586,-0.43733,-0.00471726,0,0,0,0,0,0,0,-0.476498,-36.2679,-0.610033,26.106,1.03332,2.07177,0.0706026,
0.0293696,0.0407182,0.00434895,-1.85709,0.144787,0.172288,-0.0317075,0.179506,-0.00906462,0.176727,-0.354222,1.02625,-0.0796575,0.00382271,0,0,0,0,0,0,0,17.8139,-2.12764,17.5219,-33.9375,10.7016,1.01817,0.0473307,0.0215227,0.0413924,0.00328962,-1.84541,0.101902,0.16327,-0.0319538,0.104606,-0.00827103,0.2994,-0.336915,0.516453,-0.288072,0.000571839,-2.03166,-0.239919,-0.0826272,-3.48234,4.10842,18.6572,0.661137,0.0551182,-35.4704,0.0644055,26.4789,1.57074,2.23107,0.0779268,
0.0283233,0.0412012,0.00996915,-1.85954,0.1382,0.163115,-0.0317469,0.175728,-0.00711555,0.172891,-0.350799,1.02335,-0.0432083,0.00437762,0,0,0,0,0,0,0,17.2738,-2.01572,17.0106,-33.3807,10.7016,1.3259,0.0528104,0.0215227,0.0413924,0.00328962,-1.84541,0.101902,0.16327,-0.0319538,0.104606,-0.00827103,0.2994,-0.336915,0.516453,-0.288072,0.000571839,0,0,0,0,0,0,0,0.0551182,-35.4704,0.0644055,26.4789,1.57074,2.23107,0.0779268,
0.0295861,0.0412148,0.0112057,-1.86217,0.146429,0.164207,-0.0316927,0.172152,-0.00535324,0.169226,-0.346377,1.02442,-0.00726755,0.00485761,0,0,0,0,0,0,0,16.7699,-1.88688,16.5364,-32.821,10.7016,1.59656,0.059605,0.0215227,0.0413924,0.00328962,-1.84541,0.101902,0.16327,-0.0319538,0.104606,-0.00827103,0.2994,-0.336915,0.516453,-0.288072,0.000571839,0,0,0,0,0,0,0,0.0551182,-35.4704,0.0644055,26.4789,1.57074,2.23107,0.0779268,
0.0308295,0.0412335,0.0124229,-1.86473,0.154701,0.165529,-0.0316373,0.168806,-0.00381466,0.165811,-0.341204,1.02632,0.0272215,0.00527227,0,0,0,0,0,0,0,16.2902,-1.74678,16.0763,-32.2664,10.7016,1.84796,0.0675712,0.0215227,0.0413924,0.00328962,-1.84541,0.101902,0.16327,-0.0319538,0.104606,-0.00827103,0.2994,-0.336915,0.516453,-0.288072,0.000571839,0,0,0,0,0,0,0,0.0551182,-35.4704,0.0644055,26.4789,1.57074,2.23107,0.0779268,
0.0320743,0.0412524,0.0136452,-1.86722,0.16258,0.16704,-0.0315759,0.166165,-0.00258067,0.163205,-0.335175,1.01804,0.0595644,0.00575221,0,0,0,0,0,0,0,15.7909,-1.6023,15.5891,-31.7206,10.7016,2.05286,0.0707813,0.0215227,0.0413924,0.00328962,-1.84541,0.101902,0.16327,-0.0319538,0.104606,-0.00827103,0.2994,-0.336915,0.516453,-0.288072,0.000571839,0,0,0,0,0,0,0,0.0551182,-35.4704,0.0644055,26.4789,1.57074,2.23107,0.0779268,
0.0315014,0.0418656,0.0198179,-1.87096,0.153865,0.159372,-0.0317071,0.163702,-0.00053644,0.160765,-0.330306,0.988492,0.0823038,0.00611548,0,0,0,0,0,0,0,15.3462,-1.5866,15.0775,-31.0433,10.6303,2.33433,0.0699545,0.0250847,0.0416706,0.013543,-1.85762,0.119415,0.156078,-0.0319538,0.102188,-0.00725265,0.288694,-0.354459,0.509867,-0.145724,0.000942086,-0.302271,0.127298,-1.33821,-2.19293,-0.823186,17.7935,0.0462808,0.285221,-37.8151,0.26277,27.1533,1.6925,2.3565,0.0779268,
0.0327351,0.0419171,0.0210302,-1.87337,0.160281,0.160974,-0.0316459,0.161804,0.000859278,0.15892,-0.324383,0.951196,0.105905,0.00642345,0,0,0,0,0,0,0,14.9445,-1.40476,14.651,-30.4742,10.6303,2.49687,0.0712192,0.0250847,0.0416706,0.013543,-1.85762,0.119415,0.156078,-0.0319538,0.102188,-0.00725265,0.288694,-0.354459,0.509867,-0.145724,0.000942086,0,0,0,0,0,0,0,0.285221,-37.8151,0.26277,27.1533,1.6925,2.3565,0.0779268,
0.0339698,0.0419561,0.0222443,-1.8757,0.16609,0.162748,-0.0315851,0.160312,0.001663,0.157486,-0.31782,0.90619,0.129077,0.00665763,0,0,0,0,0,0,0,14.576,-1.23061,14.2791,-29.9018,10.4984,2.64995,0.0719467,0.0250847,0.0416706,0.013543,-1.85762,0.119415,0.156078,-0.0319538,0.102188,-0.00725265,0.288694,-0.354459,0.509867,-0.145724,0.000942086,0,0,0,0,0,0,0,0.285221,-37.8151,0.26277,27.1533,1.6925,2.3565,0.0779268,
0.0352023,0.041982,0.0234563,-1.87796,0.171278,0.164657,-0.0315241,0.159061,0.00197628,0.156289,-0.310906,0.854663,0.15099,0.00685045,0,0,0,0,0,0,0,14.2405,-1.0803,13.9486,-29.3301,9.09557,2.78151,0.0740603,0.0250847,0.0416706,0.013543,-1.85762,0.119415,0.156078,-0.0319538,0.102188,-0.00725265,0.288694,-0.354459,0.509867,-0.145724,0.000942086,0,0,0,0,0,0,0,0.285221,-37.8151,0.26277,27.1533,1.6925,2.3565,0.0779268,
0.031649,0.0420527,0.0199838,-1.87012,0.144248,0.15993,-0.0316871,0.158367,0.00365094,0.155614,-0.306389,0.79377,0.158988,0.0069606,0,0,0,0,0,0,0,13.9181,-1.08595,13.619,-28.6706,7.85368,2.94315,0.0722176,0.0287682,0.0419139,0.0230968,-1.86929,0.136808,0.154517,-0.0319545,0.115061,0.00374204,0.274758,-0.337548,0.500184,0.00822803,0.000372312,1.6091,1.37434,-1.74203,2.11382,-1.21043,19.244,-0.0712217,-2.32922,-36.3194,-2.23662,25.8798,1.65588,1.96557,0.0843355,
0.032876,0.0421209,0.0211903,-1.87235,0.14818,0.161658,-0.0316267,0.157367,0.00462688,0.154654,-0.300894,0.733317,0.170391,0.0070787,0,0,0,0,0,0,0,13.6558,-0.989876,13.3655,-28.1147,6.81633,3.0094,0.0717058,0.0287682,0.0419139,0.0230968,-1.86929,0.136808,0.154517,-0.0319545,0.115061,0.00374204,0.274758,-0.337548,0.500184,0.00822803,0.000372312,0,0,0,0,0,0,0,-2.32922,-36.3194,-2.23662,25.8798,1.65588,1.96557,0.0843355,
0.0340859,0.0421734,0.0223803,-1.87451,0.151648,0.163535,-0.0315658,0.156141,0.0050136,0.153475,-0.294804,0.673345,0.183232,0.00718694,0,0,0,0,0,0,0,13.4387,-0.917675,13.1581,-27.5672,5.91125,3.06187,0.0707958,0.0287682,0.0419139,0.0230968,-1.86929,0.136808,0.154517,-0.0319545,0.115061,0.00374204,0.274758,-0.337548,0.500184,0.00822803,0.000372312,0,0,0,0,0,0,0,-2.32922,-36.3194,-2.23662,25.8798,1.65588,1.96557,0.0843355,
0.0354519,0.042386,0.0296682,-1.88068,0.153655,0.160861,-0.0316728,0.155971,0.0057338,0.153298,-0.288477,0.605012,0.19114,0.00725764,0,0,0,0,0,0,0,13.1094,-0.834809,12.8475,-26.4917,4.38435,3.12745,0.0714525,0.0287682,0.0419139,0.0230968,-1.86929,0.136808,0.154517,-0.0319545,0.115061,0.00374204,0.274758,-0.337548,0.500184,0.00822803,0.000372312,0,0,0,0,0,0,0,-2.32922,-36.3194,-2.23662,25.8798,1.65588,1.96557,0.0843355,
0.0366605,0.0424366,0.0308561,-1.88272,0.155949,0.162773,-0.0316116,0.154994,0.00585287,0.152337,-0.281756,0.541351,0.2007,0.00733567,0,0,0,0,0,0,0,12.9552,-0.937787,12.6864,-25.9214,3.67849,3.17658,0.0725998,0.0316687,0.0424098,0.0325024,-1.8802,0.152735,0.154529,-0.0319538,0.057805,0.014333,0.26351,-0.304626,0.427239,0.015538,0.000529624,-7.15694,1.32387,-1.406,4.11532,-9.11817,0.91375,0.0196641,-5.03888,-39.8384,-4.93834,30.2914,1.29608,2.81426,0.0779268,
0.0378385,0.0424703,0.032014,-1.8847,0.157913,0.164775,-0.0315501,0.153445,0.00552411,0.150817,-0.274863,0.482186,0.210621,0.00740555,0,0,0,0,0,0,0,12.8323,-0.931052,12.5723,-25.3981,3.12664,3.18438,0.0732857,0.0316687,0.0424098,0.0325024,-1.8802,0.152735,0.154529,-0.0319538,0.057805,0.014333,0.26351,-0.304626,0.427239,0.015538,0.000529624,0,0,0,0,0,0,0,-5.03888,-39.8384,-4.93834,30.2914,1.29608,2.81426,0.0779268,
0.0389881,0.0424888,0.033144,-1.88662,0.15958,0.166838,-0.0314884,0.151495,0.0048832,0.148904,-0.267943,0.42743,0.22008,0.00746832,0,0,0,0,0,0,0,12.7147,-0.933323,12.4629,-24.8791,2.63724,3.18196,0.0744443,0.0316687,0.0424098,0.0325024,-1.8802,0.152735,0.154529,-0.0319538,0.057805,0.014333,0.26351,-0.304626,0.427239,0.015538,0.000529624,0,0,0,0,0,0,0,-5.03888,-39.8384,-4.93834,30.2914,1.29608,2.81426,0.0779268,
0.0376723,0.0429053,0.0384235,-1.89067,0.163299,0.161243,-0.0316437,0.1498,0.00540511,0.147229,-0.262704,0.377883,0.221244,0.0075172,0,0,0,0,0,0,0,12.5962,-0.941391,12.3526,-24.3641,2.21785,3.1724,0.0750786,0.0316687,0.0424098,0.0325024,-1.8802,0.152735,0.154529,-0.0319538,0.057805,0.014333,0.26351,-0.304626,0.427239,0.015538,0.000529624,0,0,0,0,0,0,0,-5.03888,-39.8384,-4.93834,30.2914,1.29608,2.81426,0.0779268,
0.0387879,0.042946,0.0395196,-1.89254,0.164493,0.163154,-0.0315823,0.147731,0.00534291,0.145184,-0.256925,0.33215,0.224758,0.00754678,0,0,0,0,0,0,0,12.4479,-1.04515,12.1967,-23.7989,1.79722,3.18499,0.0760542,0.0332025,0.0432682,0.0411564,-1.88834,0.16454,0.155284,-0.0319575,0.0549099,0.0417192,0.255619,-0.216682,0.291343,0.0532845,-0.00119711,-0.361886,3.42327,-0.986272,10.9929,-16.987,4.71831,-0.215842,-2.88464,-36.4424,-2.88725,26.3043,1.32629,1.74676,0.110886,
0.039876,0.0429697,0.0405885,-1.89436,0.165479,0.165132,-0.0315217,0.145387,0.00486656,0.142871,-0.25084,0.290364,0.229251,0.00755475,0,0,0,0,0,0,0,12.321,-1.06011,12.0773,-23.2899,1.48485,3.16115,0.0763602,0.0332025,0.0432682,0.0411564,-1.88834,0.16454,0.155284,-0.0319575,0.0549099,0.0417192,0.255619,-0.216682,0.291343,0.0532845,-0.00119711,0,0,0,0,0,0,0,-2.88464,-36.4424,-2.88725,26.3043,1.32629,1.74676,0.110886,
0.0389023,0.0436796,0.0467764,-1.8976,0.170915,0.163287,-0.0316588,0.143214,0.00459625,0.14071,-0.244154,0.251383,0.230482,0.00751906,0,0,0,0,0,0,0,12.0466,-1.09362,11.817,-22.2783,0.984932,3.09569,0.0766083,0.0332025,0.0432682,0.0411564,-1.88834,0.16454,0.155284,-0.0319575,0.0549099,0.0417192,0.255619,-0.216682,0.291343,0.0532845,-0.00119711,0,0,0,0,0,0,0,-2.88464,-36.4424,-2.88725,26.3043,1.32629,1.74676,0.110886,
0.0399475,0.0436913,0.0478024,-1.89928,0.171518,0.165218,-0.0316007,0.140702,0.00396888,0.138218,-0.237406,0.216182,0.232671,0.00746731,0,0,0,0,0,0,0,11.898,-1.1105,11.675,-21.7751,0.788092,3.05581,0.0764622,0.0332025,0.0432682,0.0411564,-1.88834,0.16454,0.155284,-0.0319575,0.0549099,0.0417192,0.255619,-0.216682,0.291343,0.0532845,-0.00119711,0,0,0,0,0,0,0,-2.88464,-36.4424,-2.88725,26.3043,1.32629,1.74676,0.110886,
0.0409634,0.0436891,0.0487994,-1.90091,0.17199,0.167176,-0.0315437,0.137958,0.00312107,0.1355,-0.230694,0.184746,0.235072,0.00739922,0,0,0,0,0,0,0,11.7343,-1.19228,11.5034,-21.2447,0.595805,3.03251,0.0760009,0.0344457,0.0440217,0.0495917,-1.89512,0.172111,0.15656,-0.031958,0.0341384,0.0319089,0.247241,-0.188385,0.192186,0.0290131,-6.3991e-06,-2.59644,-1.22629,-1.04726,3.53721,-12.3946,-3.03392,0.148839,-0.908932,-36.1925,-0.887743,27.9745,1.10016,1.97198,0.0779268,
0.0419516,0.0436754,0.0497692,-1.90249,0.172354,0.169143,-0.0314877,0.135071,0.00215357,0.132645,-0.224077,0.15689,0.237233,0.00731888,0,0,0,0,0,0,0,11.5698,-1.20736,11.3451,-20.7437,0.45548,2.98665,0.0753998,0.0344457,0.0440217,0.0495917,-1.89512,0.172111,0.15656,-0.031958,0.0341384,0.0319089,0.247241,-0.188385,0.192186,0.0290131,-6.3991e-06,0,0,0,0,0,0,0,-0.908932,-36.1925,-0.887743,27.9745,1.10016,1.97198,0.0779268,
0.0396676,0.0442104,0.0547408,-1.90347,0.175736,0.163986,-0.0316733,0.132791,0.00176875,0.130379,-0.218472,0.134455,0.234114,0.0072282,0,0,0,0,0,0,0,11.3974,-1.22098,11.1787,-20.2435,0.339727,2.93964,0.0744586,0.0344457,0.0440217,0.0495917,-1.89512,0.172111,0.15656,-0.031958,0.0341384,0.0319089,0.247241,-0.188385,0.192186,0.0290131,-6.3991e-06,0,0,0,0,0,0,0,-0.908932,-36.1925,-0.887743,27.9745,1.10016,1.97198,0.0779268,
0.0406283,0.044201,0.055683,-1.90499,0.17599,0.165805,-0.0316197,0.13025,0.00117887,0.127858,-0.212652,0.113913,0.232769,0.00712222,0,0,0,0,0,0,0,11.218,-1.23348,11.0052,-19.744,0.240481,2.89087,0.0734872,0.0344457,0.0440217,0.0495917,-1.89512,0.172111,0.15656,-0.031958,0.0341384,0.0319089,0.247241,-0.188385,0.192186,0.0290131,-6.3991e-06,0,0,0,0,0,0,0,-0.908932,-36.1925,-0.887743,27.9745,1.10016,1.97198,0.0779268,
0.0415615,0.0441816,0.0565981,-1.90645,0.176161,0.167649,-0.0315675,0.127531,0.000459349,0.125163,-0.206731,0.0954072,0.23231,0.00700343,0,0,0,0,0,0,0,11.03,-1.29117,10.8082,-19.2108,0.146041,2.86205,0.0722782,0.0355429,0.0450115,0.0578334,-1.90133,0.176132,0.157779,-0.0319556,0.0471493,0.0160449,0.232645,-0.173752,0.0525729,0.0261481,-0.000343454,1.62636,-1.983,-1.82455,1.82912,-17.4517,-0.358121,-0.0421319,-3.64636,-38.6125,-3.56169,30.6128,1.19812,2.84081,0.0843355,
0.0404754,0.0449911,0.0626837,-1.90885,0.177371,0.164659,-0.0317034,0.124949,-0.000105375,0.122585,-0.200437,0.0786088,0.227366,0.00683336,0,0,0,0,0,0,0,10.6388,-1.30945,10.428,-18.2129,0.0155488,2.76613,0.0695461,0.0355429,0.0450115,0.0578334,-1.90133,0.176132,0.157779,-0.0319556,0.0471493,0.0160449,0.232645,-0.173752,0.0525729,0.0261481,-0.000343454,0,0,0,0,0,0,0,-3.64636,-38.6125,-3.56169,30.6128,1.19812,2.84081,0.0843355,
0.0413622,0.0449654,0.0635522,-1.9102,0.177403,0.166371,-0.0316554,0.122128,-0.000727356,0.119779,-0.194099,0.0636694,0.224673,0.00666685,0,0,0,0,0,0,0,10.4349,-1.317,10.2294,-17.7138,-0.037971,2.72021,0.0680964,0.0355429,0.0450115,0.0578334,-1.90133,0.176132,0.157779,-0.0319556,0.0471493,0.0160449,0.232645,-0.173752,0.0525729,0.0261481,-0.000343454,0,0,0,0,0,0,0,-3.64636,-38.6125,-3.56169,30.6128,1.19812,2.84081,0.0843355,
0.0422208,0.044933,0.064393,-1.9115,0.17738,0.168113,-0.0316086,0.119169,-0.00139222,0.116845,-0.187789,0.0503755,0.223289,0.00650218,0,0,0,0,0,0,0,10.2258,-1.32346,10.0256,-17.2143,-0.0846161,2.67712,0.0664894,0.0355429,0.0450115,0.0578334,-1.90133,0.176132,0.157779,-0.0319556,0.0471493,0.0160449,0.232645,-0.173752,0.0525729,0.0261481,-0.000343454,0,0,0,0,0,0,0,-3.64636,-38.6125,-3.56169,30.6128,1.19812,2.84081,0.0843355,
0.0430532,0.0448943,0.0652081,-1.91275,0.177308,0.169872,-0.031563,0.116144,-0.00207971,0.113852,-0.181552,0.0385007,0.222618,0.00634107,0,0,0,0,0,0,0,10.0096,-1.38535,9.80058,-16.6824,-0.130926,2.65565,0.0648554,0.0365468,0.0459067,0.0658461,-1.90698,0.176409,0.15851,-0.0319546,0.0263704,0.00398823,0.230956,-0.146788,-0.00307219,0.015878,0.000142579,-2.59736,-1.50708,-0.211091,3.37044,-6.95563,-1.28377,0.0607541,-1.15887,-36.8431,-1.0385,26.2805,1.25305,2.50939,0.0843355,
0.04104,0.0456424,0.0702618,-1.91356,0.176458,0.165084,-0.0317293,0.113758,-0.00284879,0.111472,-0.175901,0.0287151,0.21825,0.00617403,0,0,0,0,0,0,0,9.79235,-1.39054,9.58838,-16.1816,-0.172329,2.61892,0.0631814,0.0365468,0.0459067,0.0658461,-1.90698,0.176409,0.15851,-0.0319546,0.0263704,0.00398823,0.230956,-0.146788,-0.00307219,0.015878,0.000142579,0,0,0,0,0,0,0,-1.15887,-36.8431,-1.0385,26.2805,1.25305,2.50939,0.0843355,
0.0418456,0.0455937,0.0710498,-1.91474,0.176326,0.166745,-0.0316864,0.111145,-0.00349621,0.108876,-0.170149,0.0196626,0.216129,0.00601294,0,0,0,0,0,0,0,9.57213,-1.39554,9.37312,-15.68,-0.21455,2.58566,0.0615781,0.0365468,0.0459067,0.0658461,-1.90698,0.176409,0.15851,-0.0319546,0.0263704,0.00398823,0.230956,-0.146788,-0.00307219,0.015878,0.000142579,0,0,0,0,0,0,0,-1.15887,-36.8431,-1.0385,26.2805,1.25305,2.50939,0.0843355,
0.0426248,0.0455425,0.071812,-1.91587,0.176146,0.168442,-0.0316445,0.108398,-0.00407654,0.106156,-0.16436,0.0112366,0.215323,0.00585702,0,0,0,0,0,0,0,9.34934,-1.40026,9.15525,-15.1773,-0.25599,2.55678,0.0599046,0.0365468,0.0459067,0.0658461,-1.90698,0.176409,0.15851,-0.0319546,0.0263704,0.00398823,0.230956,-0.146788,-0.00307219,0.015878,0.000142579,0,0,0,0,0,0,0,-1.15887,-36.8431,-1.0385,26.2805,1.25305,2.50939,0.0843355,
0.0433795,0.0454883,0.07255,-1.91695,0.175921,0.170161,-0.0316036,0.105584,-0.00461637,0.103376,-0.158577,0.00335448,0.215226,0.00570755,0,0,0,0,0,0,0,9.12517,-1.40517,8.93593,-14.6734,-0.299763,2.53162,0.0583236,0.0365468,0.0459067,0.0658461,-1.90698,0.176409,0.15851,-0.0319546,0.0263704,0.00398823,0.230956,-0.146788,-0.00307219,0.015878,0.000142579,0,0,0,0,0,0,0,-1.15887,-36.8431,-1.0385,26.2805,1.25305,2.50939,0.0843355,
0.0420388,0.0468751,0.0775099,-1.91747,0.175789,0.165084,-0.0317579,0.103797,-0.00441713,0.101578,-0.153756,-0.00247276,0.210745,0.00554999,0,0,0,0,0,0,0,8.89632,-1.44752,8.69779,-14.1316,-0.343188,2.53535,0.0565925,0.0378103,0.0469386,0.0733627,-1.91159,0.176234,0.158777,-0.0319574,0.0371326,0.0156941,0.210574,-0.132862,-0.00591614,0.0205399,0.000308028,1.34528,1.46323,-2.54776,1.74072,-0.355494,0.582742,0.0206811,-0.119442,-34.3953,-0.0109729,21.8729,1.49749,1.58745,0.0779268,
0.0427818,0.0468394,0.0782355,-1.91849,0.175531,0.166684,-0.0317193,0.101615,-0.00442493,0.0994028,-0.14859,-0.00843067,0.208581,0.00540481,0,0,0,0,0,0,0,8.67217,-1.45307,8.47844,-13.625,-0.389259,2.51711,0.0551003,0.0378103,0.0469386,0.0733627,-1.91159,0.176234,0.158777,-0.0319574,0.0371326,0.0156941,0.210574,-0.132862,-0.00591614,0.0205399,0.000308028,0,0,0,0,0,0,0,-0.119442,-34.3953,-0.0109729,21.8729,1.49749,1.58745,0.0779268,
0.0434973,0.0467973,0.078934,-1.91947,0.175228,0.168318,-0.0316814,0.0991779,-0.00459295,0.0969852,-0.143199,-0.0143237,0.207729,0.00527246,0,0,0,0,0,0,0,8.44977,-1.45901,8.26084,-13.117,-0.434709,2.50123,0.0536308,0.0378103,0.0469386,0.0733627,-1.91159,0.176234,0.158777,-0.0319574,0.0371326,0.0156941,0.210574,-0.132862,-0.00591614,0.0205399,0.000308028,0,0,0,0,0,0,0,-0.119442,-34.3953,-0.0109729,21.8729,1.49749,1.58745,0.0779268,
0.0418778,0.0469969,0.0773515,-1.9168,0.175455,0.164484,-0.0317781,0.0975008,-0.00402636,0.0953185,-0.137669,-0.0182902,0.201595,0.0051256,0,0,0,0,0,0,0,8.01623,-1.4727,7.83696,-12.0973,-0.521615,2.46916,0.0510222,0.0378103,0.0469386,0.0733627,-1.91159,0.176234,0.158777,-0.0319574,0.0371326,0.0156941,0.210574,-0.132862,-0.00591614,0.0205399,0.000308028,0,0,0,0,0,0,0,-0.119442,-34.3953,-0.0109729,21.8729,1.49749,1.58745,0.0779268,
0.0425698,0.0469725,0.0780271,-1.91767,0.175149,0.165944,-0.0317418,0.0953014,-0.00382889,0.0931462,-0.131837,-0.0222832,0.197784,0.00500729,0,0,0,0,0,0,0,7.80637,-1.51482,7.61982,-11.5513,-0.555012,2.47301,0.0497964,0.0391687,0.0478218,0.0797153,-1.9161,0.175765,0.158885,-0.0319604,0.0429152,0.0333065,0.188708,-0.13371,-0.0148582,0.0129013,-0.000299603,0.722822,2.20156,-2.73333,-0.105931,-1.11776,-0.954829,-0.0759539,0.463749,-33.8716,0.488905,21.123,1.54052,1.23589,0.0980684,
0.0432309,0.046939,0.0786725,-1.91848,0.174828,0.167418,-0.0317057,0.0927692,-0.00390159,0.0906524,-0.125828,-0.0258477,0.195067,0.00490932,0,0,0,0,0,0,0,7.60588,-1.5226,7.42432,-11.0394,-0.583338,2.44596,0.0488646,0.0391687,0.0478218,0.0797153,-1.9161,0.175765,0.158885,-0.0319604,0.0429152,0.0333065,0.188708,-0.13371,-0.0148582,0.0129013,-0.000299603,0,0,0,0,0,0,0,0.463749,-33.8716,0.488905,21.123,1.54052,1.23589,0.0980684,
0.0438642,0.0468973,0.0792907,-1.91924,0.174508,0.168879,-0.0316691,0.0900473,-0.00416331,0.0879765,-0.11973,-0.0286697,0.192581,0.00484158,0,0,0,0,0,0,0,7.41437,-1.5304,7.23793,-10.5276,-0.599933,2.40906,0.0481084,0.0391687,0.0478218,0.0797153,-1.9161,0.175765,0.158885,-0.0319604,0.0429152,0.0333065,0.188708,-0.13371,-0.0148582,0.0129013,-0.000299603,0,0,0,0,0,0,0,0.463749,-33.8716,0.488905,21.123,1.54052,1.23589,0.0980684,
0.0429187,0.0482823,0.0833843,-1.92075,0.174765,0.163565,-0.0317865,0.0885764,-0.00257575,0.086496,-0.115419,-0.028794,0.182963,0.00480471,0,0,0,0,0,0,0,7.23288,-1.53763,7.06166,-10.0162,-0.601781,2.35905,0.0476871,0.0391687,0.0478218,0.0797153,-1.9161,0.175765,0.158885,-0.0319604,0.0429152,0.0333065,0.188708,-0.13371,-0.0148582,0.0129013,-0.000299603,0,0,0,0,0,0,0,0.463749,-33.8716,0.488905,21.123,1.54052,1.23589,0.0980684,
0.0435452,0.0482917,0.0839947,-1.92148,0.174563,0.164728,-0.0317482,0.0865259,-0.00182595,0.0844582,-0.110382,-0.0280905,0.17545,0.00480222,0,0,0,0,0,0,0,7.05618,-1.59781,6.88114,-9.47948,-0.582688,2.3093,0.0474001,0.0405407,0.048333,0.0849483,-1.92011,0.175154,0.158877,-0.0319607,0.0411445,0.0362629,0.147891,-0.108619,-0.0165475,-0.00149828,-0.000775483,-0.22133,0.369554,-5.10212,3.1364,-0.211161,-1.79994,-0.059485,-0.67883,-36.9661,-0.387865,26.2289,1.61377,1.73394,0.0980684,
0.0441398,0.0482835,0.0845738,-1.92214,0.174417,0.165867,-0.0317124,0.0840841,-0.0016661,0.0820439,-0.104896,-0.026128,0.168839,0.00473776,0,0,0,0,0,0,0,6.89336,-1.60261,6.72391,-8.97176,-0.541039,2.22345,0.0471375,0.0405407,0.048333,0.0849483,-1.92011,0.175154,0.158877,-0.0319607,0.0411445,0.0362629,0.147891,-0.108619,-0.0165475,-0.00149828,-0.000775483,0,0,0,0,0,0,0,-0.67883,-36.9661,-0.387865,26.2289,1.61377,1.73394,0.0980684,
0.0447078,0.0482608,0.085127,-1.92275,0.174304,0.166976,-0.0316758,0.0814677,-0.00190133,0.0794648,-0.0991675,-0.0237175,0.162798,0.00470496,0,0,0,0,0,0,0,6.74421,-1.60484,6.57994,-8.46645,-0.486398,2.12209,0.0476032,0.0405407,0.048333,0.0849483,-1.92011,0.175154,0.158877,-0.0319607,0.0411445,0.0362629,0.147891,-0.108619,-0.0165475,-0.00149828,-0.000775483,0,0,0,0,0,0,0,-0.67883,-36.9661,-0.387865,26.2289,1.61377,1.73394,0.0980684,
0.0437126,0.0488006,0.0880467,-1.9239,0.174672,0.162377,-0.0317706,0.0794027,-0.00083962,0.077416,-0.094837,-0.0203772,0.151616,0.00489788,0,0,0,0,0,0,0,6.60061,-1.60514,6.44228,-7.96587,-0.399391,1.99553,0.0494835,0.0405407,0.048333,0.0849483,-1.92011,0.175154,0.158877,-0.0319607,0.0411445,0.0362629,0.147891,-0.108619,-0.0165475,-0.00149828,-0.000775483,0,0,0,0,0,0,0,-0.67883,-36.9661,-0.387865,26.2289,1.61377,1.73394,0.0980684,
0.0442496,0.0488065,0.0885693,-1.92446,0.174697,0.16324,-0.0317211,0.0769472,-0.000523077,0.0749969,-0.0899813,-0.0156824,0.14287,0.00515458,0,0,0,0,0,0,0,6.43395,-1.63005,6.27306,-7.44591,-0.278726,1.86499,0.0507462,0.0419964,0.049194,0.0891898,-1.92282,0.174712,0.159023,-0.0319552,0.0443423,0.0411598,0.112437,-0.0737289,-0.00357884,-0.000855061,0.000753732,0.399718,0.612105,-4.43165,4.36121,1.62108,0.0804024,0.191152,-0.881161,-38.0135,-0.685411,29.0457,1.35101,2.04522,0.050461,
0.0447501,0.0487935,0.0890564,-1.92498,0.174853,0.164089,-0.0316969,0.0740713,-0.000742801,0.0721742,-0.084871,-0.0086527,0.135522,0.00472909,0,0,0,0,0,0,0,6.25018,-1.62512,6.09572,-6.96182,-0.141805,1.71563,0.0474938,0.0419964,0.049194,0.0891898,-1.92282,0.174712,0.159023,-0.0319552,0.0443423,0.0411598,0.112437,-0.0737289,-0.00357884,-0.000855061,0.000753732,0,0,0,0,0,0,0,-0.881161,-38.0135,-0.685411,29.0457,1.35101,2.04522,0.050461,
0.044649,0.0496246,0.0917743,-1.92571,0.175028,0.162031,-0.0317859,0.0712432,-0.000186868,0.0693765,-0.079549,-0.00682023,0.127762,0.00458234,0,0,0,0,0,0,0,5.92719,-1.58639,5.77728,-6.02618,-0.0789475,1.53321,0.0593081,0.0419964,0.049194,0.0891898,-1.92282,0.174712,0.159023,-0.0319552,0.0443423,0.0411598,0.112437,-0.0737289,-0.00357884,-0.000855061,0.000753732,0,0,0,0,0,0,0,-0.881161,-38.0135,-0.685411,29.0457,1.35101,2.04522,0.050461,
0.045097,0.0496201,0.0922095,-1.92613,0.175146,0.162778,-0.0317548,0.0681956,-0.000260234,0.066381,-0.0739933,-0.00252601,0.120892,0.00444215,0,0,0,0,0,0,0,5.58312,-1.55972,5.45147,-5.58283,0.136373,1.4337,0.0650854,0.0419964,0.049194,0.0891898,-1.92282,0.174712,0.159023,-0.0319552,0.0443423,0.0411598,0.112437,-0.0737289,-0.00357884,-0.000855061,0.000753732,0,0,0,0,0,0,0,-0.881161,-38.0135,-0.685411,29.0457,1.35101,2.04522,0.050461,
0.0455165,0.0495973,0.0926168,-1.9265,0.175384,0.163495,-0.031735,0.0650431,-0.000778974,0.0632881,-0.0684567,0.00394453,0.114643,0.00404851,0,0,0,0,0,0,0,5.11165,-1.63312,4.99308,-5.1333,0.391608,1.34004,0.0329914,0.0431009,0.049614,0.0926424,-1.925,0.174723,0.159079,-0.0319593,0.0318576,0.00506433,0.0956805,-0.0613391,0.00213285,-0.014396,-0.000773162,-1.56058,-4.51193,-2.09461,1.54874,0.71396,-1.69262,-0.190862,-0.349545,-37.4898,-0.137926,30.0931,1.27136,2.29058,0.0843355,
0.0459229,0.0495606,0.093011,-1.92683,0.17556,0.164258,-0.0317181,0.062196,-0.00154113,0.0604857,-0.0630459,0.00755257,0.110783,0.00366225,0,0,0,0,0,0,0,4.97078,-1.58053,4.80936,-4.60912,-0.325917,1.6351,0.0263107,0.0431009,0.049614,0.0926424,-1.925,0.174723,0.159079,-0.0319593,0.0318576,0.00506433,0.0956805,-0.0613391,0.00213285,-0.014396,-0.000773162,0,0,0,0,0,0,0,-0.349545,-37.4898,-0.137926,30.0931,1.27136,2.29058,0.0843355,
0.0452916,0.0495151,0.0947755,-1.92702,0.175534,0.161354,-0.0318357,0.0596674,-0.0022451,0.0580024,-0.0582037,0.0119495,0.103546,0.0035447,0,0,0,0,0,0,0,4.91408,-1.59899,4.77266,-4.24426,-0.119991,1.41794,0.0416079,0.0431009,0.049614,0.0926424,-1.925,0.174723,0.159079,-0.0319593,0.0318576,0.00506433,0.0956805,-0.0613391,0.00213285,-0.014396,-0.000773162,0,0,0,0,0,0,0,-0.349545,-37.4898,-0.137926,30.0931,1.27136,2.29058,0.0843355,
0.0456597,0.0494657,0.0951332,-1.92729,0.175952,0.16188,-0.0318127,0.0569358,-0.00302992,0.0553436,-0.0532829,0.0200158,0.0959921,0.0034117,0,0,0,0,0,0,0,4.63258,-1.59059,4.52411,-3.88448,0.334885,1.16845,0.0421684,0.0431009,0.049614,0.0926424,-1.925,0.174723,0.159079,-0.0319593,0.0318576,0.00506433,0.0956805,-0.0613391,0.00213285,-0.014396,-0.000773162,0,0,0,0,0,0,0,-0.349545,-37.4898,-0.137926,30.0931,1.27136,2.29058,0.0843355,
0.0460023,0.049407,0.0954667,-1.92752,0.176541,0.162317,-0.0317991,0.0541146,-0.00389078,0.052613,-0.0484307,0.0307383,0.0877144,0.00306794,0,0,0,0,0,0,0,4.41402,-1.62747,4.30308,-3.50913,0.510019,1.09029,0.027437,0.0440488,0.0502657,0.096141,-1.92653,0.174747,0.159049,-0.0319571,0.0201632,0.00690274,0.0918572,-0.0343016,0.00510969,-0.011752,0.000485514,-1.4618,0.229802,-0.477907,3.37969,0.372106,0.330509,0.157334,-1.18664,-37.2676,-0.93535,28.0975,1.06353,2.48925,0.0641939,
0.046335,0.0493414,0.0957888,-1.92771,0.177104,0.162707,-0.0317867,0.0516094,-0.00475447,0.0501418,-0.0436311,0.0386697,0.0799155,0.00276531,0,0,0,0,0,0,0,4.29939,-1.57534,4.15681,-3.08492,0.0435036,1.31649,0.0211652,0.0440488,0.0502657,0.096141,-1.92653,0.174747,0.159049,-0.0319571,0.0201632,0.00690274,0.0918572,-0.0343016,0.00510969,-0.011752,0.000485514,0,0,0,0,0,0,0,-1.18664,-37.2676,-0.93535,28.0975,1.06353,2.48925,0.0641939,
0.0458792,0.0501026,0.0979206,-1.92784,0.177138,0.160224,-0.0318688,0.049386,-0.005134,0.0479368,-0.0395336,0.0479421,0.0687627,0.00266085,0,0,0,0,0,0,0,4.24951,-1.58887,4.12982,-2.80986,0.378278,1.03575,0.0328977,0.0440488,0.0502657,0.096141,-1.92653,0.174747,0.159049,-0.0319571,0.0201632,0.00690274,0.0918572,-0.0343016,0.00510969,-0.011752,0.000485514,0,0,0,0,0,0,0,-1.18664,-37.2676,-0.93535,28.0975,1.06353,2.48925,0.0641939,
0.0461745,0.0500421,0.0982063,-1.92799,0.178076,0.160299,-0.0318523,0.0468904,-0.00561881,0.0454904,-0.0354608,0.0618044,0.0568973,0.0025433,0,0,0,0,0,0,0,3.99711,-1.57209,3.91263,-2.53432,0.880397,0.711934,0.0325544,0.0440488,0.0502657,0.096141,-1.92653,0.174747,0.159049,-0.0319571,0.0201632,0.00690274,0.0918572,-0.0343016,0.00510969,-0.011752,0.000485514,0,0,0,0,0,0,0,-1.18664,-37.2676,-0.93535,28.0975,1.06353,2.48925,0.0641939,
0.0464444,0.0499739,0.098468,-1.92812,0.179272,0.160271,-0.0318437,0.0442619,-0.00620168,0.0429352,-0.0316089,0.0793265,0.0448116,0.00224841,0,0,0,0,0,0,0,3.78439,-1.58558,3.70409,-2.23889,1.07539,0.527616,0.0200264,0.0446275,0.050853,0.0993132,-1.92742,0.174762,0.159088,-0.0319647,0.0111566,0.0139483,0.0888096,-0.00968706,0.00260024,0.000290888,-0.00121345,-1.12582,0.880696,-0.380962,3.07681,-0.313681,1.50536,-0.212371,-0.908932,-36.4186,-0.538622,25.1578,1.04522,2.11846,0.104477,
0.0467027,0.0498999,0.0987173,-1.92823,0.18057,0.160223,-0.0318385,0.0418654,-0.00680956,0.0405802,-0.0280572,0.0959104,0.0346534,0.00192874,0,0,0,0,0,0,0,3.65575,-1.52254,3.5267,-1.88131,0.624323,0.563611,0.0160288,0.0446275,0.050853,0.0993132,-1.92742,0.174762,0.159088,-0.0319647,0.0111566,0.0139483,0.0888096,-0.00968706,0.00260024,0.000290888,-0.00121345,0,0,0,0,0,0,0,-0.908932,-36.4186,-0.538622,25.1578,1.04522,2.11846,0.104477,
0.0460858,0.0507176,0.100723,-1.92818,0.179631,0.159244,-0.0319191,0.0395959,-0.0068187,0.0383385,-0.0250635,0.113233,0.0255077,0.0016879,0,0,0,0,0,0,0,3.58419,-1.50977,3.47951,-1.62584,1.06136,0.399835,0.0256263,0.0446275,0.050853,0.0993132,-1.92742,0.174762,0.159088,-0.0319647,0.0111566,0.0139483,0.0888096,-0.00968706,0.00260024,0.000290888,-0.00121345,0,0,0,0,0,0,0,-0.908932,-36.4186,-0.538622,25.1578,1.04522,2.11846,0.104477,
0.046304,0.0506569,0.100934,-1.92826,0.181435,0.159002,-0.0319158,0.0371314,-0.00697135,0.0359418,-0.0219886,0.135676,0.0143715,0.0014345,0,0,0,0,0,0,0,3.34356,-1.48104,3.27274,-1.38977,1.67254,0.0954592,0.0255215,0.0446275,0.050853,0.0993132,-1.92742,0.174762,0.159088,-0.0319647,0.0111566,0.0139483,0.0888096,-0.00968706,0.00260024,0.000290888,-0.00121345,0,0,0,0,0,0,0,-0.908932,-36.4186,-0.538622,25.1578,1.04522,2.11846,0.104477,
0.0464989,0.0505909,0.101124,-1.92831,0.18357,0.158594,-0.0319177,0.0345775,-0.00722654,0.0334936,-0.0189379,0.161909,0.00129493,0.00110011,0,0,0,0,0,0,0,3.16363,-1.49301,3.10502,-1.16623,2.00577,-0.0316513,0.0148543,0.0446275,0.050853,0.0993132,-1.92742,0.174762,0.159088,-0.0319647,0.0111566,0.0139483,0.0888096,-0.00968706,0.00260024,0.000290888,-0.00121345,0,0,0,0,0,0,0,-0.908932,-36.4186,-0.538622,25.1578,1.04522,2.11846,0.104477,
0.0460723,0.0511695,0.10326,-1.92828,0.18288,0.159931,-0.0319591,0.0320959,-0.00689394,0.030959,-0.016153,0.188413,0.000653216,0.000951163,0,0,0,0,0,0,0,3.13278,-1.51539,3.05664,-0.703195,2.18841,0.875363,0.0123528,0.0449404,0.0513178,0.102176,-1.92779,0.174782,0.159071,-0.0319611,0.00695202,0.00926313,0.0794803,-0.0023891,0.00679437,0.000161131,-0.000642824,-0.525572,-0.585647,-1.16615,0.912245,0.524266,-0.0162195,0.0713283,-0.198788,-35.6688,0.112013,24.7372,1.05804,2.01867,0.0907442,
0.0462213,0.0511225,0.103399,-1.9283,0.185658,0.159754,-0.0319572,0.029401,-0.00668958,0.0282423,-0.0133193,0.220188,-0.00392613,0.000808389,0,0,0,0,0,0,0,2.94408,-1.45951,2.90052,-0.54833,2.80345,0.50757,0.0103903,0.0449404,0.0513178,0.102176,-1.92779,0.174782,0.159071,-0.0319611,0.00695202,0.00926313,0.0794803,-0.0023891,0.00679437,0.000161131,-0.000642824,0,0,0,0,0,0,0,-0.198788,-35.6688,0.112013,24.7372,1.05804,2.01867,0.0907442,
0.0463474,0.0510723,0.103514,-1.9283,0.188805,0.159447,-0.0319619,0.0266748,-0.00660744,0.0254609,-0.0106639,0.254826,-0.0108134,0.000530128,0,0,0,0,0,0,0,2.75027,-1.42292,2.72767,-0.388546,3.18737,0.231577,0.00334992,0.0449404,0.0513178,0.102176,-1.92779,0.174782,0.159071,-0.0319611,0.00695202,0.00926313,0.0794803,-0.0023891,0.00679437,0.000161131,-0.000642824,0,0,0,0,0,0,0,-0.198788,-35.6688,0.112013,24.7372,1.05804,2.01867,0.0907442,
0.0464602,0.0510211,0.103618,-1.92828,0.19213,0.159098,-0.0319701,0.0241587,-0.00656659,0.0229683,-0.00822315,0.286978,-0.0173696,0.000217861,0,0,0,0,0,0,0,2.57289,-1.33067,2.48429,-0.177529,3.14159,0.093213,0.00306051,0.0449404,0.0513178,0.102176,-1.92779,0.174782,0.159071,-0.0319611,0.00695202,0.00926313,0.0794803,-0.0023891,0.00679437,0.000161131,-0.000642824,0,0,0,0,0,0,0,-0.198788,-35.6688,0.112013,24.7372,1.05804,2.01867,0.0907442,
0.0461955,0.0516503,0.105574,-1.92877,0.188867,0.166591,-0.0319694,0.0241612,-0.00485739,0.022977,-0.00874137,0.324261,0.0310485,-8.17581e-06,0,0,0,0,0,0,0,4.28736,-1.47111,4.17852,-0.268721,4.72957,3.32601,0.0127197,0.0451505,0.0516135,0.104591,-1.92792,0.174829,0.159066,-0.0319566,-0.000651705,0.00904678,0.0721364,0.0010435,0.00493714,0.00229123,0.00108495,-0.950466,-0.0270444,-0.917998,0.429075,-0.232154,0.266262,0.215971,0.590702,-35.518,0.889601,25.5069,1.27136,1.9262,0.050461,
0.0463781,0.0516623,0.105749,-1.92882,0.193015,0.168349,-0.031983,0.0238935,-0.00358723,0.0227659,-0.00820293,0.363113,0.0687992,-0.000345105,0,0,0,0,0,0,0,3.94256,-1.31871,3.85564,-0.107869,5.29411,2.96508,0.0123766,0.0451505,0.0516135,0.104591,-1.92792,0.174829,0.159066,-0.0319566,-0.000651705,0.00904678,0.0721364,0.0010435,0.00493714,0.00229123,0.00108495,0,0,0,0,0,0,0,0.590702,-35.518,0.889601,25.5069,1.27136,1.9262,0.050461,
0.0465573,0.0516636,0.105923,-1.92884,0.197361,0.170076,-0.0320017,0.0235935,-0.00283694,0.0225693,-0.0071219,0.399146,0.0982201,-0.000742928,0,0,0,0,0,0,0,3.66285,-1.23573,3.55653,0.0332561,5.5349,2.79474,0.00271612,0.0451505,0.0516135,0.104591,-1.92792,0.174829,0.159066,-0.0319566,-0.000651705,0.00904678,0.0721364,0.0010435,0.00493714,0.00229123,0.00108495,0,0,0,0,0,0,0,0.590702,-35.518,0.889601,25.5069,1.27136,1.9262,0.050461,
0.0467498,0.0516514,0.106106,-1.92885,0.201618,0.171847,-0.0320182,0.0236892,-0.00257316,0.0226287,-0.00579806,0.42573,0.122833,-0.00100714,0,0,0,0,0,0,0,3.36526,-1.10688,3.25945,0.229088,5.23076,2.90109,-0.00468522,0.0451505,0.0516135,0.104591,-1.92792,0.174829,0.159066,-0.0319566,-0.000651705,0.00904678,0.0721364,0.0010435,0.00493714,0.00229123,0.00108495,0,0,0,0,0,0,0,0.590702,-35.518,0.889601,25.5069,1.27136,1.9262,0.050461,
0.0474732,0.0521171,0.108869,-1.93111,0.198242,0.185547,-0.0317436,0.0327179,0.00178136,0.0321933,-0.0155047,0.479402,0.255018,6.33903e-06,0,0,0,0,0,0,0,10.9301,-2.56262,10.9596,-3.65195,9.40575,11.0972,0.0849854,0.045312,0.051888,0.106704,-1.92787,0.175171,0.159116,-0.0319613,0.0036071,0.0122381,0.0605734,-0.00116024,0.025803,0.00514754,0.000804995,0.532351,0.398919,-1.44536,-0.275468,2.60824,0.357039,-0.0349939,0.892215,-35.2205,1.13954,25.4077,1.44897,1.60119,0.0641939,
0.0480608,0.0522923,0.109472,-1.93146,0.203811,0.191761,-0.0317194,0.0408646,0.00580599,0.0408301,-0.02099,0.522752,0.359366,0.000610916,0,0,0,0,0,0,0,10.2974,-1.84752,10.2608,-3.64656,9.49151,10.3993,0.0667758,0.045312,0.051888,0.106704,-1.92787,0.175171,0.159116,-0.0319613,0.0036071,0.0122381,0.0605734,-0.00116024,0.025803,0.00514754,0.000804995,0,0,0,0,0,0,0,0.892215,-35.2205,1.13954,25.4077,1.44897,1.60119,0.0641939,
0.0486785,0.0524779,0.110122,-1.93173,0.209155,0.197863,-0.0316975,0.0481323,0.00928385,0.0489128,-0.023694,0.551783,0.440031,0.0010371,0,0,0,0,0,0,0,9.87184,-1.08204,9.69643,-3.54634,9.10889,9.68452,0.045235,0.045312,0.051888,0.106704,-1.92787,0.175171,0.159116,-0.0319613,0.0036071,0.0122381,0.0605734,-0.00116024,0.025803,0.00514754,0.000804995,0,0,0,0,0,0,0,0.892215,-35.2205,1.13954,25.4077,1.44897,1.60119,0.0641939,
0.0493431,0.0526665,0.11081,-1.93196,0.213974,0.203877,-0.0316747,0.0551209,0.0121434,0.0563339,-0.0246775,0.561902,0.502389,0.00139854,0,0,0,0,0,0,0,9.4048,-0.292514,9.43975,-3.36231,7.97274,9.31282,0.0392559,0.045312,0.051888,0.106704,-1.92787,0.175171,0.159116,-0.0319613,0.0036071,0.0122381,0.0605734,-0.00116024,0.025803,0.00514754,0.000804995,0,0,0,0,0,0,0,0.892215,-35.2205,1.13954,25.4077,1.44897,1.60119,0.0641939,
0.0479638,0.0514759,0.109238,-1.93235,0.196302,0.187668,-0.0317252,0.0617571,0.00943231,0.0621325,-0.0372579,0.565745,0.572497,0.001988,0,0,0,0,0,0,0,12.6705,-3.89943,12.3675,-6.93218,9.65996,11.1007,0.083418,0.0457447,0.052318,0.109006,-1.92776,0.176596,0.159435,-0.0319652,0.0235933,0.019609,0.0794081,-0.00131957,0.0589916,0.034937,-0.000417651,2.49827,0.92136,2.35433,-0.0199156,4.14857,3.72368,-0.152831,4.08985,-34.7444,4.26179,25.8322,1.96167,1.9793,0.0980684,
0.0487243,0.0514607,0.109975,-1.93296,0.200727,0.194374,-0.0316949,0.0684182,0.00716556,0.0681257,-0.0449664,0.563203,0.625645,0.00234986,0,0,0,0,0,0,0,12.0521,-3.34738,11.7358,-6.85041,9.1101,11.1007,0.0661699,0.0457447,0.052318,0.109006,-1.92776,0.176596,0.159435,-0.0319652,0.0235933,0.019609,0.0794081,-0.00131957,0.0589916,0.034937,-0.000417651,0,0,0,0,0,0,0,4.08985,-34.7444,4.26179,25.8322,1.96167,1.9793,0.0980684,
0.0495258,0.0514325,0.110753,-1.93349,0.204859,0.200826,-0.0316672,0.0747724,0.00502729,0.0739497,-0.0493295,0.553872,0.661816,0.00257057,0,0,0,0,0,0,0,11.6802,-2.8963,11.2593,-6.74595,8.13993,10.7023,0.0508822,0.0457447,0.052318,0.109006,-1.92776,0.176596,0.159435,-0.0319652,0.0235933,0.019609,0.0794081,-0.00131957,0.0589916,0.034937,-0.000417651,0,0,0,0,0,0,0,4.08985,-34.7444,4.26179,25.8322,1.96167,1.9793,0.0980684,
0.0491453,0.0518816,0.112371,-1.93366,0.199288,0.190283,-0.0316848,0.0812469,0.004225,0.0803768,-0.0661266,0.570347,0.721249,0.003183,0,0,0,0,0,0,0,14.6366,-3.36256,14.5096,-11.0617,10.0365,11.1007,0.0929151,0.0457447,0.052318,0.109006,-1.92776,0.176596,0.159435,-0.0319652,0.0235933,0.019609,0.0794081,-0.00131957,0.0589916,0.034937,-0.000417651,0,0,0,0,0,0,0,4.08985,-34.7444,4.26179,25.8322,1.96167,1.9793,0.0980684,
0.0500581,0.0519103,0.113273,-1.93463,0.20416,0.198012,-0.0316452,0.0878156,0.00409675,0.086864,-0.0769955,0.578077,0.770226,0.00353825,0,0,0,0,0,0,0,14.0485,-2.8197,13.8923,-11.0179,9.12565,11.091,0.07748,0.0467421,0.0530007,0.111981,-1.92774,0.17889,0.162855,-0.0319569,0.0350633,0.0166999,0.0991387,-0.00332005,0.0641171,0.144209,0.00115022,1.43375,-0.363634,2.46633,-0.25006,0.640688,13.659,0.195984,2.87189,-35.2959,3.06367,26.106,1.88842,2.28417,0.0577852,
0.0510105,0.0519433,0.114214,-1.9355,0.20872,0.205551,-0.0316094,0.0940632,0.00410226,0.0930126,-0.0834063,0.576463,0.804649,0.00372366,0,0,0,0,0,0,0,13.5956,-2.27821,13.4245,-10.9089,8.27893,11.091,0.0646037,0.0467421,0.0530007,0.111981,-1.92774,0.17889,0.162855,-0.0319569,0.0350633,0.0166999,0.0991387,-0.00332005,0.0641171,0.144209,0.00115022,0,0,0,0,0,0,0,2.87189,-35.2959,3.06367,26.106,1.88842,2.28417,0.0577852,
0.0519906,0.0519691,0.115182,-1.9363,0.212912,0.212759,-0.0315759,0.099753,0.00392697,0.0985981,-0.0867444,0.565988,0.823926,0.00381678,0,0,0,0,0,0,0,13.2531,-1.77794,13.0708,-10.7753,7.46644,11.091,0.0548989,0.0467421,0.0530007,0.111981,-1.92774,0.17889,0.162855,-0.0319569,0.0350633,0.0166999,0.0991387,-0.00332005,0.0641171,0.144209,0.00115022,0,0,0,0,0,0,0,2.87189,-35.2959,3.06367,26.106,1.88842,2.28417,0.0577852,
0.0506561,0.0521837,0.115798,-1.93464,0.201034,0.195821,-0.0316691,0.103525,0.00146349,0.10216,-0.102014,0.573016,0.856168,0.00423026,0,0,0,0,0,0,0,15.6985,-3.3569,15.3586,-14.7028,9.91585,11.091,0.0968938,0.0467421,0.0530007,0.111981,-1.92774,0.17889,0.162855,-0.0319569,0.0350633,0.0166999,0.0991387,-0.00332005,0.0641171,0.144209,0.00115022,0,0,0,0,0,0,0,2.87189,-35.2959,3.06367,26.106,1.88842,2.28417,0.0577852,
0.0516569,0.0521413,0.11678,-1.93586,0.205559,0.20379,-0.0316271,0.107838,0.000112209,0.106291,-0.11216,0.571532,0.884152,0.00443257,0,0,0,0,0,0,0,15.0326,-2.99871,14.6941,-14.6923,8.82778,11.0729,0.0810186,0.048577,0.0539532,0.116348,-1.9279,0.180382,0.169073,-0.0319642,0.0607987,0.0267491,0.142591,-0.0114551,0.0397071,0.217476,-0.000509085,3.21693,1.25615,5.43153,-1.01689,-3.05126,9.1583,-0.207413,3.83594,-35.1213,3.98805,26.0306,2.15667,2.4096,0.0980684,
0.0526927,0.0521119,0.117797,-1.93699,0.209718,0.211549,-0.0315894,0.112165,-0.000645022,0.110457,-0.118019,0.561218,0.901295,0.00448977,0,0,0,0,0,0,0,14.5138,-2.5884,14.1856,-14.596,7.84512,11.0729,0.0677117,0.048577,0.0539532,0.116348,-1.9279,0.180382,0.169073,-0.0319642,0.0607987,0.0267491,0.142591,-0.0114551,0.0397071,0.217476,-0.000509085,0,0,0,0,0,0,0,3.83594,-35.1213,3.98805,26.0306,2.15667,2.4096,0.0980684,
0.053751,0.0520829,0.118836,-1.93805,0.213469,0.218941,-0.0315537,0.116192,-0.00124121,0.11435,-0.120852,0.542748,0.905849,0.00448462,0,0,0,0,0,0,0,14.1118,-2.14752,13.7914,-14.451,6.93508,11.0729,0.0578019,0.048577,0.0539532,0.116348,-1.9279,0.180382,0.169073,-0.0319642,0.0607987,0.0267491,0.142591,-0.0114551,0.0397071,0.217476,-0.000509085,0,0,0,0,0,0,0,3.83594,-35.1213,3.98805,26.0306,2.15667,2.4096,0.0980684,
0.0531159,0.053153,0.120788,-1.93591,0.202251,0.2033,-0.0317278,0.118423,-0.00281255,0.116527,-0.135417,0.552061,0.924086,0.00461035,0,0,0,0,0,0,0,15.654,-2.80848,15.3738,-18.2088,9.63745,11.0729,0.0885767,0.048577,0.0539532,0.116348,-1.9279,0.180382,0.169073,-0.0319642,0.0607987,0.0267491,0.142591,-0.0114551,0.0397071,0.217476,-0.000509085,0,0,0,0,0,0,0,3.83594,-35.1213,3.98805,26.0306,2.15667,2.4096,0.0980684,
0.0541736,0.0531027,0.121828,-1.9374,0.206658,0.211423,-0.0316905,0.121183,-0.00350805,0.119233,-0.145424,0.55183,0.942336,0.00462074,0,0,0,0,0,0,0,15.004,-2.56455,14.7069,-18.1595,8.54201,11.0453,0.0728475,0.050914,0.0551768,0.121586,-1.92849,0.181209,0.177365,-0.031959,0.080111,0.038521,0.157321,-0.0267284,0.0218943,0.259108,0.000709732,2.41404,1.47149,1.84132,-1.90916,-2.2266,5.20407,0.152352,2.18555,-34.8714,2.41304,24.2136,1.8637,1.82,0.0706026,
0.0552562,0.0530668,0.122892,-1.93879,0.210685,0.219364,-0.0316567,0.124009,-0.00370351,0.121993,-0.151221,0.542146,0.952393,0.00454165,0,0,0,0,0,0,0,14.504,-2.27467,14.2132,-18.0315,7.5474,11.0453,0.0599243,0.050914,0.0551768,0.121586,-1.92849,0.181209,0.177365,-0.031959,0.080111,0.038521,0.157321,-0.0267284,0.0218943,0.259108,0.000709732,0,0,0,0,0,0,0,2.18555,-34.8714,2.41304,24.2136,1.8637,1.82,0.0706026,
0.0546737,0.0530126,0.122367,-1.93885,0.214135,0.212353,-0.0314214,0.127744,-0.00533573,0.125659,-0.165894,0.59481,0.968745,0.00500911,0,0,0,0,0,0,0,15.4646,-2.39677,15.1729,-21.2092,8.85694,11.0453,0.0774932,0.050914,0.0551768,0.121586,-1.92849,0.181209,0.177365,-0.031959,0.080111,0.038521,0.157321,-0.0267284,0.0218943,0.259108,0.000709732,0,0,0,0,0,0,0,2.18555,-34.8714,2.41304,24.2136,1.8637,1.82,0.0706026,
0.0568831,0.054472,0.127425,-1.93923,0.205241,0.220319,-0.0317269,0.12942,-0.00518157,0.127296,-0.174938,0.57453,0.97672,0.00486321,0,0,0,0,0,0,0,14.8965,-2.24355,14.5991,-21.08,7.78451,11.0453,0.0634972,0.050914,0.0551768,0.121586,-1.92849,0.181209,0.177365,-0.031959,0.080111,0.038521,0.157321,-0.0267284,0.0218943,0.259108,0.000709732,0,0,0,0,0,0,0,2.18555,-34.8714,2.41304,24.2136,1.8637,1.82,0.0706026,
0.0579904,0.0544474,0.128513,-1.94083,0.208807,0.22816,-0.031695,0.131218,-0.00476229,0.129048,-0.179966,0.54877,0.977388,0.00468626,0,0,0,0,0,0,0,14.4595,-2.01277,14.1732,-20.9139,6.81117,11.0453,0.0522727,0.050914,0.0551768,0.121586,-1.92849,0.181209,0.177365,-0.031959,0.080111,0.038521,0.157321,-0.0267284,0.0218943,0.259108,0.000709732,0,0,0,0,0,0,0,2.18555,-34.8714,2.41304,24.2136,1.8637,1.82,0.0706026,
0.059107,0.0544226,0.129611,-1.94235,0.211966,0.235629,-0.0316638,0.132891,-0.00442879,0.130683,-0.182135,0.517996,0.968637,0.00452909,0,0,0,0,0,0,0,14.1297,-1.66358,13.8335,-20.7195,5.91814,11.0136,0.0452835,0.0544592,0.0564347,0.127101,-1.92981,0.181557,0.1872,-0.0319586,0.102258,0.0399727,0.160406,-0.0533978,0.0107055,0.314421,0.000222225,2.7684,0.181454,0.385581,-3.33367,-1.39859,6.91404,-0.0609384,-0.702633,-34.7444,-0.312487,25.2847,1.56433,2.04522,0.0779268,
0.0595503,0.0558187,0.132075,-1.93946,0.198406,0.222388,-0.0318154,0.132984,-0.00494093,0.130739,-0.192318,0.502878,0.971367,0.00438004,0,0,0,0,0,0,0,14.6578,-2.33069,14.3771,-23.0531,7.34536,11.0136,0.0572767,0.0544592,0.0564347,0.127101,-1.92981,0.181557,0.1872,-0.0319586,0.102258,0.0399727,0.160406,-0.0533978,0.0107055,0.314421,0.000222225,0,0,0,0,0,0,0,-0.702633,-34.7444,-0.312487,25.2847,1.56433,2.04522,0.0779268,
0.0606337,0.0557778,0.133139,-1.94123,0.201658,0.230064,-0.0317862,0.13347,-0.00497513,0.131195,-0.198129,0.483592,0.968995,0.00423232,0,0,0,0,0,0,0,14.2557,-2.13911,13.9732,-22.8405,6.42321,11.0136,0.0477805,0.0544592,0.0564347,0.127101,-1.92981,0.181557,0.1872,-0.0319586,0.102258,0.0399727,0.160406,-0.0533978,0.0107055,0.314421,0.000222225,0,0,0,0,0,0,0,-0.702633,-34.7444,-0.312487,25.2847,1.56433,2.04522,0.0779268,
0.0617262,0.0557379,0.134213,-1.94293,0.204577,0.237415,-0.0317579,0.134089,-0.00497856,0.131793,-0.200831,0.459866,0.958955,0.00409555,0,0,0,0,0,0,0,13.9505,-1.90562,13.6748,-22.5961,5.59307,11.0136,0.0404691,0.0544592,0.0564347,0.127101,-1.92981,0.181557,0.1872,-0.0319586,0.102258,0.0399727,0.160406,-0.0533978,0.0107055,0.314421,0.000222225,0,0,0,0,0,0,0,-0.702633,-34.7444,-0.312487,25.2847,1.56433,2.04522,0.0779268,
0.0628223,0.0556909,0.13529,-1.94456,0.207149,0.244367,-0.0317293,0.134675,-0.00515697,0.132366,-0.201456,0.432192,0.940962,0.00399152,0,0,0,0,0,0,0,13.7219,-1.59754,13.4332,-22.3496,4.83853,10.9764,0.0364494,0.0579882,0.0575573,0.133483,-1.93255,0.182341,0.200162,-0.0319586,0.0864828,0.0211496,0.208759,-0.0990172,0.0236818,0.399166,0.000613009,-1.97192,-2.35288,6.04409,-5.70243,1.62203,10.5932,0.0488479,0.967594,-35.0459,1.36171,25.6339,1.65039,2.10473,0.0779268,
0.0633617,0.0566916,0.138739,-1.94315,0.200525,0.236287,-0.0318366,0.135171,-0.00643603,0.132838,-0.212841,0.442316,0.954267,0.00388,0,0,0,0,0,0,0,14.7098,-2.59571,14.4484,-25.6792,7.58534,10.9764,0.0547751,0.0579882,0.0575573,0.133483,-1.93255,0.182341,0.200162,-0.0319586,0.0864828,0.0211496,0.208759,-0.0990172,0.0236818,0.399166,0.000613009,0,0,0,0,0,0,0,0.967594,-35.0459,1.36171,25.6339,1.65039,2.10473,0.0779268,
0.064469,0.0566226,0.139827,-1.94513,0.204112,0.244252,-0.0318105,0.135821,-0.0068736,0.133466,-0.219684,0.443536,0.962543,0.00375802,0,0,0,0,0,0,0,14.2881,-2.40868,14.0238,-25.4324,6.70259,10.9764,0.0454251,0.0579882,0.0575573,0.133483,-1.93255,0.182341,0.200162,-0.0319586,0.0864828,0.0211496,0.208759,-0.0990172,0.0236818,0.399166,0.000613009,0,0,0,0,0,0,0,0.967594,-35.0459,1.36171,25.6339,1.65039,2.10473,0.0779268,
0.06558,0.056562,0.140918,-1.94703,0.207375,0.251946,-0.0317852,0.136431,-0.00701532,0.134062,-0.223104,0.436412,0.962376,0.00363839,0,0,0,0,0,0,0,13.9625,-2.14051,13.6971,-25.129,5.91154,10.9764,0.0381675,0.0579882,0.0575573,0.133483,-1.93255,0.182341,0.200162,-0.0319586,0.0864828,0.0211496,0.208759,-0.0990172,0.0236818,0.399166,0.000613009,0,0,0,0,0,0,0,0.967594,-35.0459,1.36171,25.6339,1.65039,2.10473,0.0779268,
0.0633853,0.0566363,0.138773,-1.94369,0.198878,0.236415,-0.0318494,0.13662,-0.00793131,0.134264,-0.23268,0.434755,0.967432,0.00354537,0,0,0,0,0,0,0,14.5283,-2.12577,14.2792,-27.6511,6.91907,10.9764,0.0493688,0.0579882,0.0575573,0.133483,-1.93255,0.182341,0.200162,-0.0319586,0.0864828,0.0211496,0.208759,-0.0990172,0.0236818,0.399166,0.000613009,0,0,0,0,0,0,0,0.967594,-35.0459,1.36171,25.6339,1.65039,2.10473,0.0779268,
0.0644915,0.0565653,0.139861,-1.94577,0.202008,0.244087,-0.0318244,0.136952,-0.00812089,0.13461,-0.238078,0.426052,0.96576,0.00346027,0,0,0,0,0,0,0,14.1448,-2.02455,13.8947,-27.3828,6.04974,10.9764,0.0407418,0.0579882,0.0575573,0.133483,-1.93255,0.182341,0.200162,-0.0319586,0.0864828,0.0211496,0.208759,-0.0990172,0.0236818,0.399166,0.000613009,0,0,0,0,0,0,0,0.967594,-35.0459,1.36171,25.6339,1.65039,2.10473,0.0779268,
0.0656,0.0565014,0.140951,-1.94777,0.204802,0.251409,-0.0317996,0.137273,-0.00809398,0.134947,-0.240498,0.410688,0.955659,0.0033882,0,0,0,0,0,0,0,13.8548,-1.82438,13.6047,-27.0587,5.26584,10.9764,0.0343546,0.0579882,0.0575573,0.133483,-1.93255,0.182341,0.200162,-0.0319586,0.0864828,0.0211496,0.208759,-0.0990172,0.0236818,0.399166,0.000613009,0,0,0,0,0,0,0,0.967594,-35.0459,1.36171,25.6339,1.65039,2.10473,0.0779268,
0.0667067,0.0564363,0.14204,-1.94971,0.207246,0.258321,-0.0317743,0.137485,-0.00810182,0.135179,-0.240897,0.389662,0.937316,0.00334433,0,0,0,0,0,0,0,13.6332,-1.58532,13.3837,-26.6962,4.55056,10.9764,0.0307438,0.0579882,0.0575573,0.133483,-1.93255,0.182341,0.200162,-0.0319586,0.0864828,0.0211496,0.208759,-0.0990172,0.0236818,0.399166,0.000613009,0,0,0,0,0,0,0,0.967594,-35.0459,1.36171,25.6339,1.65039,2.10473,0.0779268,
0.0633368,0.0565581,0.138731,-1.94393,0.19733,0.236165,-0.0318753,0.136935,-0.00917991,0.134647,-0.24791,0.388995,0.941465,0.00322371,0,0,0,0,0,0,0,13.9759,-2.04296,13.722,-28.7781,6.14477,10.9273,0.0386027,0.0610832,0.0588389,0.140734,-1.93622,0.182538,0.215176,-0.0319627,0.0859561,0.030648,0.203788,-0.11738,0.00640335,0.443629,-0.0004155,-0.065837,1.1873,-0.621339,-2.29537,-2.1598,5.55784,-0.128564,0.360599,-34.2207,0.786451,23.3923,1.67419,1.7138,0.110886,
0.0644177,0.0564667,0.139795,-1.94606,0.20016,0.243562,-0.0318531,0.136571,-0.00962792,0.134308,-0.251515,0.381947,0.938104,0.00313471,0,0,0,0,0,0,0,13.6796,-1.91866,13.4236,-28.4314,5.38111,10.9273,0.0329301,0.0610832,0.0588389,0.140734,-1.93622,0.182538,0.215176,-0.0319627,0.0859561,0.030648,0.203788,-0.11738,0.00640335,0.443629,-0.0004155,0,0,0,0,0,0,0,0.360599,-34.2207,0.786451,23.3923,1.67419,1.7138,0.110886,
0.065498,0.0563793,0.140858,-1.94812,0.202696,0.250612,-0.0318307,0.136265,-0.00988762,0.134033,-0.252754,0.368957,0.926735,0.00306892,0,0,0,0,0,0,0,13.4482,-1.74459,13.1924,-28.0468,4.69914,10.9273,0.0286717,0.0610832,0.0588389,0.140734,-1.93622,0.182538,0.215176,-0.0319627,0.0859561,0.030648,0.203788,-0.11738,0.00640335,0.443629,-0.0004155,0,0,0,0,0,0,0,0.360599,-34.2207,0.786451,23.3923,1.67419,1.7138,0.110886,
0.0665748,0.0562892,0.141919,-1.95013,0.204929,0.257278,-0.0318076,0.135932,-0.0101622,0.13373,-0.252398,0.350984,0.908037,0.00303109,0,0,0,0,0,0,0,13.264,-1.56624,13.0101,-27.6418,4.08086,10.4483,0.0263964,0.0610832,0.0588389,0.140734,-1.93622,0.182538,0.215176,-0.0319627,0.0859561,0.030648,0.203788,-0.11738,0.00640335,0.443629,-0.0004155,0,0,0,0,0,0,0,0.360599,-34.2207,0.786451,23.3923,1.67419,1.7138,0.110886,
0.0663275,0.0580193,0.145864,-1.9484,0.199263,0.252225,-0.0318803,0.135443,-0.0103078,0.133193,-0.261696,0.369867,0.928026,0.0029827,0,0,0,0,0,0,0,14.2355,-1.93468,13.9659,-30.5494,6.90173,10.884,0.0423228,0.0640659,0.0598521,0.14778,-1.94089,0.18259,0.230368,-0.0319608,0.085101,0.0266271,0.214984,-0.154131,-0.00489587,0.437437,0.000167649,-0.106883,-0.502616,1.39952,-4.59391,-1.4124,-0.773928,0.0728937,0.233646,-34.796,0.738844,23.4161,1.52221,1.73394,0.0980684,
0.0674037,0.057952,0.146921,-1.9507,0.202578,0.260136,-0.0318584,0.13526,-0.00992852,0.132973,-0.266933,0.378766,0.94019,0.00293153,0,0,0,0,0,0,0,13.8806,-1.8675,13.6032,-30.1789,6.12586,10.884,0.0354447,0.0640659,0.0598521,0.14778,-1.94089,0.18259,0.230368,-0.0319608,0.085101,0.0266271,0.214984,-0.154131,-0.00489587,0.437437,0.000167649,0,0,0,0,0,0,0,0.233646,-34.796,0.738844,23.4161,1.52221,1.73394,0.0980684,
0.0684829,0.0578902,0.147981,-1.95293,0.2056,0.267761,-0.0318369,0.135186,-0.00948793,0.132873,-0.269164,0.37856,0.942789,0.00288471,0,0,0,0,0,0,0,13.5995,-1.72524,13.319,-29.7627,5.42625,10.884,0.0301873,0.0640659,0.0598521,0.14778,-1.94089,0.18259,0.230368,-0.0319608,0.085101,0.0266271,0.214984,-0.154131,-0.00489587,0.437437,0.000167649,0,0,0,0,0,0,0,0.233646,-34.796,0.738844,23.4161,1.52221,1.73394,0.0980684,
0.0695607,0.0578252,0.149039,-1.95509,0.208311,0.275034,-0.0318149,0.135094,-0.00921657,0.132764,-0.269302,0.370629,0.936046,0.00285806,0,0,0,0,0,0,0,13.3744,-1.56375,13.0941,-29.3221,4.78493,10.884,0.0271184,0.0640659,0.0598521,0.14778,-1.94089,0.18259,0.230368,-0.0319608,0.085101,0.0266271,0.214984,-0.154131,-0.00489587,0.437437,0.000167649,0,0,0,0,0,0,0,0.233646,-34.796,0.738844,23.4161,1.52221,1.73394,0.0980684,
0.0705396,0.0590867,0.154125,-1.95576,0.198423,0.272578,-0.0318622,0.135047,-0.00895349,0.132717,-0.273319,0.358835,0.922872,0.0028562,0,0,0,0,0,0,0,13.9213,-1.97725,13.6574,-31.5714,5.59681,10.8289,0.0365398,0.0669631,0.0604265,0.153583,-1.94635,0.18259,0.246605,-0.0319641,0.0831957,0.0172107,0.162252,-0.165225,0.00276023,0.47158,0.000350288,-0.238161,-1.17705,-6.59154,-1.38673,0.957013,4.26785,0.0228299,-0.984311,-35.2205,-0.387865,24.1144,1.46728,1.54168,0.0980684,
0.0716167,0.0590225,0.155184,-1.95801,0.200628,0.279175,-0.0318386,0.134965,-0.0087677,0.132647,-0.274812,0.342198,0.903241,0.00287591,0,0,0,0,0,0,0,13.6408,-1.82977,13.3759,-31.1358,4.89027,10.8289,0.031045,0.0669631,0.0604265,0.153583,-1.94635,0.18259,0.246605,-0.0319641,0.0831957,0.0172107,0.162252,-0.165225,0.00276023,0.47158,0.000350288,0,0,0,0,0,0,0,-0.984311,-35.2205,-0.387865,24.1144,1.46728,1.54168,0.0980684,
0.0726895,0.0589532,0.156239,-1.96019,0.202539,0.285389,-0.0318144,0.134792,-0.00874651,0.132492,-0.27457,0.321525,0.877933,0.00290432,0,0,0,0,0,0,0,13.4209,-1.64034,13.1569,-30.6661,4.2437,10.5906,0.0278919,0.0669631,0.0604265,0.153583,-1.94635,0.18259,0.246605,-0.0319641,0.0831957,0.0172107,0.162252,-0.165225,0.00276023,0.47158,0.000350288,0,0,0,0,0,0,0,-0.984311,-35.2205,-0.387865,24.1144,1.46728,1.54168,0.0980684,
0.0717849,0.0595783,0.158312,-1.95892,0.194999,0.281569,-0.0318862,0.132785,-0.00956901,0.130521,-0.279718,0.321893,0.878149,0.00286655,0,0,0,0,0,0,0,13.5784,-2.1717,13.3494,-32.0116,5.24328,10.8289,0.0323775,0.0669631,0.0604265,0.153583,-1.94635,0.18259,0.246605,-0.0319641,0.0831957,0.0172107,0.162252,-0.165225,0.00276023,0.47158,0.000350288,0,0,0,0,0,0,0,-0.984311,-35.2205,-0.387865,24.1144,1.46728,1.54168,0.0980684,
0.0727932,0.0594817,0.159303,-1.96125,0.197376,0.288292,-0.0318641,0.131437,-0.0100691,0.12921,-0.282012,0.316955,0.870604,0.00284572,0,0,0,0,0,0,0,13.325,-2.02409,13.0794,-31.5551,4.63632,10.771,0.0282902,0.0695327,0.0608586,0.158306,-1.95199,0.182579,0.262661,-0.0319639,0.0675975,0.0262871,0.142928,-0.169746,0.000679031,0.45421,0.000693978,-1.94977,1.13455,-2.41549,-0.565135,-0.26015,-2.17124,0.0429613,0.919986,-35.4704,1.41328,26.4035,1.65039,1.83282,0.0843355,
0.0738073,0.0593841,0.160301,-1.96352,0.199514,0.294672,-0.0318416,0.130501,-0.0104962,0.12831,-0.282301,0.307014,0.855968,0.0028394,0,0,0,0,0,0,0,13.1143,-1.86446,12.8672,-31.0472,4.07121,9.88248,0.0255766,0.0695327,0.0608586,0.158306,-1.95199,0.182579,0.262661,-0.0319639,0.0675975,0.0262871,0.142928,-0.169746,0.000679031,0.45421,0.000693978,0,0,0,0,0,0,0,0.919986,-35.4704,1.41328,26.4035,1.65039,1.83282,0.0843355,
0.074823,0.059282,0.161301,-1.96573,0.201405,0.300698,-0.0318188,0.129793,-0.0109494,0.127634,-0.281206,0.292882,0.835422,0.00284084,0,0,0,0,0,0,0,12.94,-1.71859,12.6951,-30.5261,3.54428,9.10662,0.0243746,0.0695327,0.0608586,0.158306,-1.95199,0.182579,0.262661,-0.0319639,0.0675975,0.0262871,0.142928,-0.169746,0.000679031,0.45421,0.000693978,0,0,0,0,0,0,0,0.919986,-35.4704,1.41328,26.4035,1.65039,1.83282,0.0843355,
0.0740603,0.0602253,0.162746,-1.9649,0.195424,0.296947,-0.0318574,0.128104,-0.0105125,0.12595,-0.286635,0.302441,0.839436,0.00289164,0,0,0,0,0,0,0,14.0732,-1.84806,13.8328,-32.9114,5.50618,10.7784,0.0423599,0.0695327,0.0608586,0.158306,-1.95199,0.182579,0.262661,-0.0319639,0.0675975,0.0262871,0.142928,-0.169746,0.000679031,0.45421,0.000693978,0,0,0,0,0,0,0,0.919986,-35.4704,1.41328,26.4035,1.65039,1.83282,0.0843355,
0.0750499,0.0601588,0.163719,-1.96729,0.197952,0.303474,-0.0318329,0.127223,-0.0100738,0.125076,-0.2891,0.305144,0.834725,0.00292584,0,0,0,0,0,0,0,13.7181,-1.74513,13.4701,-32.4038,4.91128,10.4913,0.0353761,0.0695327,0.0608586,0.158306,-1.95199,0.182579,0.262661,-0.0319639,0.0675975,0.0262871,0.142928,-0.169746,0.000679031,0.45421,0.000693978,0,0,0,0,0,0,0,0.919986,-35.4704,1.41328,26.4035,1.65039,1.83282,0.0843355,
0.0760517,0.0600892,0.164704,-1.96962,0.200245,0.309654,-0.0318085,0.126823,-0.00979775,0.124684,-0.289464,0.301448,0.822283,0.00294882,0,0,0,0,0,0,0,13.435,-1.60361,13.1733,-31.8835,4.36555,9.57727,0.030931,0.0717736,0.0613406,0.163338,-1.95804,0.182568,0.277772,-0.031966,0.0687724,0.0188975,0.15624,-0.17757,-0.00188759,0.442311,-0.00024085,0.146858,-0.923697,1.664,-0.978016,-0.320828,-1.48745,-0.116854,1.30085,-36.3948,1.68703,27.6492,1.8518,2.29699,0.104477,
0.0770601,0.0600139,0.165695,-1.97189,0.202291,0.315481,-0.0317842,0.126669,-0.00972048,0.124538,-0.28836,0.292294,0.803491,0.00296739,0,0,0,0,0,0,0,13.2012,-1.46931,12.9418,-31.3304,3.8342,8.81382,0.0284576,0.0717736,0.0613406,0.163338,-1.95804,0.182568,0.277772,-0.031966,0.0687724,0.0188975,0.15624,-0.17757,-0.00188759,0.442311,-0.00024085,0,0,0,0,0,0,0,1.30085,-36.3948,1.68703,27.6492,1.8518,2.29699,0.104477,
0.0764893,0.0598783,0.165172,-1.97145,0.209493,0.31525,-0.0316287,0.128473,-0.0101634,0.126357,-0.295752,0.329016,0.829824,0.00311576,0,0,0,0,0,0,0,13.7586,-2.10461,13.5281,-33.2237,4.85838,9.57074,0.0381479,0.0717736,0.0613406,0.163338,-1.95804,0.182568,0.277772,-0.031966,0.0687724,0.0188975,0.15624,-0.17757,-0.00188759,0.442311,-0.00024085,0,0,0,0,0,0,0,1.30085,-36.3948,1.68703,27.6492,1.8518,2.29699,0.104477,
0.0783742,0.0602816,0.169827,-1.9755,0.198142,0.319,-0.0318191,0.127609,-0.0108336,0.125543,-0.294804,0.312458,0.7965,0.00311255,0,0,0,0,0,0,0,13.4343,-1.95348,13.2032,-32.6422,4.30224,8.77275,0.0330229,0.0717736,0.0613406,0.163338,-1.95804,0.182568,0.277772,-0.031966,0.0687724,0.0188975,0.15624,-0.17757,-0.00188759,0.442311,-0.00024085,0,0,0,0,0,0,0,1.30085,-36.3948,1.68703,27.6492,1.8518,2.29699,0.104477,
0.0793709,0.0601717,0.170809,-1.97778,0.199884,0.324006,-0.0317942,0.127006,-0.0114147,0.124982,-0.292752,0.29351,0.76235,0.00311043,0,0,0,0,0,0,0,13.1727,-1.81381,12.9311,-32.0576,3.78856,8.0402,0.0303309,0.0743121,0.0619524,0.168603,-1.96415,0.182536,0.292455,-0.0319615,0.0767519,0.00279128,0.148399,-0.188213,0.000735199,0.420081,0.00128381,0.997436,-2.01328,-0.980075,-1.33032,0.327849,-2.77877,0.190582,-0.119442,-36.2163,0.564283,26.6534,1.8637,2.42974,0.0641939,
0.0803673,0.0600591,0.171791,-1.98001,0.201401,0.328724,-0.0317692,0.126515,-0.011947,0.124527,-0.289924,0.272742,0.727819,0.00311479,0,0,0,0,0,0,0,12.9433,-1.6927,12.7066,-31.456,3.30118,7.43509,0.0285217,0.0743121,0.0619524,0.168603,-1.96415,0.182536,0.292455,-0.0319615,0.0767519,0.00279128,0.148399,-0.188213,0.000735199,0.420081,0.00128381,0,0,0,0,0,0,0,-0.119442,-36.2163,0.564283,26.6534,1.8637,2.42974,0.0641939,
0.0789462,0.0609615,0.173147,-1.97704,0.19501,0.322286,-0.0318555,0.125525,-0.0126955,0.123515,-0.293993,0.284448,0.728851,0.00313394,0,0,0,0,0,0,0,13.91,-1.85138,13.6696,-33.6428,5.1953,9.4449,0.0433251,0.0743121,0.0619524,0.168603,-1.96415,0.182536,0.292455,-0.0319615,0.0767519,0.00279128,0.148399,-0.188213,0.000735199,0.420081,0.00128381,0,0,0,0,0,0,0,-0.119442,-36.2163,0.564283,26.6534,1.8637,2.42974,0.0641939,
0.0799319,0.0608458,0.174116,-1.97946,0.197475,0.327885,-0.03183,0.125061,-0.0130477,0.123039,-0.295601,0.289175,0.723058,0.00314595,0,0,0,0,0,0,0,13.5289,-1.80772,13.2838,-33.0542,4.65184,8.68801,0.0367481,0.0743121,0.0619524,0.168603,-1.96415,0.182536,0.292455,-0.0319615,0.0767519,0.00279128,0.148399,-0.188213,0.000735199,0.420081,0.00128381,0,0,0,0,0,0,0,-0.119442,-36.2163,0.564283,26.6534,1.8637,2.42974,0.0641939,
0.0809252,0.0607333,0.175093,-1.98182,0.19972,0.333204,-0.0318043,0.124882,-0.0132525,0.122854,-0.295414,0.287477,0.71141,0.00315787,0,0,0,0,0,0,0,13.2226,-1.75184,12.9655,-32.4455,4.14685,8.00222,0.0328276,0.077019,0.0624938,0.17364,-1.97075,0.182548,0.306189,-0.0319629,0.0854006,-0.00659166,0.135132,-0.199674,0.00059898,0.395796,0.000286724,1.08108,-1.17287,-1.65848,-1.4326,-0.0170274,-3.03562,-0.124635,-0.500302,-35.1213,0.139784,24.1382,1.72912,2.15142,0.0843355,
0.0819216,0.0606204,0.176073,-1.98412,0.201735,0.338242,-0.0317784,0.124816,-0.0134226,0.122784,-0.293922,0.280351,0.695082,0.00317331,0,0,0,0,0,0,0,12.9591,-1.67917,12.7056,-31.8224,3.66192,7.43257,0.0303191,0.077019,0.0624938,0.17364,-1.97075,0.182548,0.306189,-0.0319629,0.0854006,-0.00659166,0.135132,-0.199674,0.00059898,0.395796,0.000286724,0,0,0,0,0,0,0,-0.500302,-35.1213,0.139784,24.1382,1.72912,2.15142,0.0843355,
0.0816213,0.0614486,0.178159,-1.98358,0.194119,0.333588,-0.0318434,0.124042,-0.0139987,0.122036,-0.296994,0.284865,0.689769,0.00325632,0,0,0,0,0,0,0,13.8461,-1.6178,13.6223,-33.7575,4.8847,8.59283,0.0454859,0.077019,0.0624938,0.17364,-1.97075,0.182548,0.306189,-0.0319629,0.0854006,-0.00659166,0.135132,-0.199674,0.00059898,0.395796,0.000286724,0,0,0,0,0,0,0,-0.500302,-35.1213,0.139784,24.1382,1.72912,2.15142,0.0843355,
0.082602,0.0613301,0.179125,-1.98599,0.196348,0.338682,-0.0318144,0.123752,-0.0141627,0.121771,-0.297858,0.283615,0.679149,0.0033299,0,0,0,0,0,0,0,13.4611,-1.6347,13.2324,-33.1504,4.33671,7.88883,0.0392334,0.077019,0.0624938,0.17364,-1.97075,0.182548,0.306189,-0.0319629,0.0854006,-0.00659166,0.135132,-0.199674,0.00059898,0.395796,0.000286724,0,0,0,0,0,0,0,-0.500302,-35.1213,0.139784,24.1382,1.72912,2.15142,0.0843355,
0.0835904,0.0612166,0.180098,-1.98834,0.198352,0.343509,-0.031785,0.123711,-0.0141682,0.121752,-0.297101,0.276994,0.664006,0.00340087,0,0,0,0,0,0,0,13.1503,-1.61913,12.9117,-32.5067,3.83368,7.25968,0.0354948,0.0804351,0.0628543,0.178122,-1.97801,0.182543,0.31968,-0.0319648,0.0971505,0.00240677,0.135351,-0.218025,-0.00130775,0.36394,0.000331181,1.46875,1.1248,0.0273872,-2.29388,-0.238342,-3.98196,0.00555722,-0.528073,-35.1213,0.187391,24.4635,1.72912,2.03881,0.0907442,
0.0851174,0.0620206,0.182713,-1.99107,0.193978,0.345438,-0.0318402,0.12318,-0.0141564,0.121214,-0.300236,0.281608,0.658252,0.00350366,0,0,0,0,0,0,0,13.6041,-1.73291,13.3812,-33.7671,4.77883,8.18727,0.046373,0.0804351,0.0628543,0.178122,-1.97801,0.182543,0.31968,-0.0319648,0.0971505,0.00240677,0.135351,-0.218025,-0.00130775,0.36394,0.000331181,0,0,0,0,0,0,0,-0.528073,-35.1213,0.187391,24.4635,1.72912,2.03881,0.0907442,
0.0860948,0.0619124,0.183675,-1.9935,0.196188,0.350309,-0.0318078,0.122979,-0.0140298,0.121016,-0.301019,0.280521,0.648371,0.00361273,0,0,0,0,0,0,0,13.2224,-1.79111,12.9961,-33.1319,4.25171,7.55386,0.0408284,0.0804351,0.0628543,0.178122,-1.97801,0.182543,0.31968,-0.0319648,0.0971505,0.00240677,0.135351,-0.218025,-0.00130775,0.36394,0.000331181,0,0,0,0,0,0,0,-0.528073,-35.1213,0.187391,24.4635,1.72912,2.03881,0.0907442,
0.0870766,0.0618037,0.184641,-1.99587,0.198175,0.354957,-0.0317742,0.122928,-0.0139406,0.120972,-0.300072,0.274104,0.634913,0.00373037,0,0,0,0,0,0,0,12.908,-1.79467,12.6831,-32.4692,3.75408,7.01416,0.0375601,0.0804351,0.0628543,0.178122,-1.97801,0.182543,0.31968,-0.0319648,0.0971505,0.00240677,0.135351,-0.218025,-0.00130775,0.36394,0.000331181,0,0,0,0,0,0,0,-0.528073,-35.1213,0.187391,24.4635,1.72912,2.03881,0.0907442,
0.0880588,0.0616923,0.185608,-1.99818,0.199929,0.359386,-0.031739,0.122899,-0.0139376,0.120953,-0.297859,0.263126,0.618633,0.003864,0,0,0,0,0,0,0,12.641,-1.80496,12.4097,-31.7808,3.30088,6.52784,0.0362757,0.0837237,0.0632985,0.182503,-1.98548,0.182558,0.331777,-0.031964,0.086491,0.0203569,0.131847,-0.215476,-0.00226689,0.334517,0.00016903,-1.33245,2.24376,-0.437933,0.318642,-0.119892,-3.67782,-0.0202689,-0.829586,-36.0417,-0.137926,24.8364,1.64398,2.02508,0.0843355,
0.0882413,0.0626968,0.186936,-1.9985,0.19295,0.356133,-0.0318125,0.12195,-0.0134378,0.120012,-0.300441,0.263948,0.615503,0.00405443,0,0,0,0,0,0,0,13.3594,-2.02331,13.1493,-33.4496,4.43395,7.73938,0.0489393,0.0837237,0.0632985,0.182503,-1.98548,0.182558,0.331777,-0.031964,0.086491,0.0203569,0.131847,-0.215476,-0.00226689,0.334517,0.00016903,0,0,0,0,0,0,0,-0.829586,-36.0417,-0.137926,24.8364,1.64398,2.02508,0.0843355,
0.089198,0.0626062,0.187878,-2.00092,0.19489,0.360772,-0.0317721,0.121477,-0.0130149,0.11955,-0.300668,0.259657,0.608359,0.0042539,0,0,0,0,0,0,0,13.0016,-2.00355,12.7864,-32.7695,3.91526,7.17443,0.0451158,0.0837237,0.0632985,0.182503,-1.98548,0.182558,0.331777,-0.031964,0.086491,0.0203569,0.131847,-0.215476,-0.00226689,0.334517,0.00016903,0,0,0,0,0,0,0,-0.829586,-36.0417,-0.137926,24.8364,1.64398,2.02508,0.0843355,
0.0901611,0.062513,0.188826,-2.00326,0.196604,0.365214,-0.0317297,0.121259,-0.012742,0.119343,-0.29917,0.250574,0.597734,0.00446324,0,0,0,0,0,0,0,12.7028,-1.94606,12.4878,-32.0678,3.42585,6.69277,0.043261,0.0837237,0.0632985,0.182503,-1.98548,0.182558,0.331777,-0.031964,0.086491,0.0203569,0.131847,-0.215476,-0.00226689,0.334517,0.00016903,0,0,0,0,0,0,0,-0.829586,-36.0417,-0.137926,24.8364,1.64398,2.02508,0.0843355,
0.0911263,0.0624159,0.189776,-2.00555,0.198082,0.369459,-0.0316849,0.121138,-0.0126203,0.119234,-0.296415,0.237403,0.584316,0.00468924,0,0,0,0,0,0,0,12.4527,-1.91665,12.2279,-31.3326,2.97646,6.26642,0.0432452,0.0863754,0.0638435,0.187558,-1.99231,0.182556,0.341335,-0.031967,0.0805667,0.0246207,0.155427,-0.201093,-0.00461919,0.255013,-0.00100132,-0.740529,0.532983,2.94751,1.79788,-0.294037,-9.93805,-0.146294,0.892215,-34.5976,1.43709,24.7095,1.6687,1.79986,0.124619,
0.0910355,0.0631444,0.192137,-2.00528,0.192703,0.364623,-0.0317819,0.120809,-0.0128838,0.118914,-0.298862,0.241388,0.585956,0.0049378,0,0,0,0,0,0,0,13.0911,-2.58654,12.8963,-33.0547,4.22634,7.66719,0.0566835,0.0863754,0.0638435,0.187558,-1.99231,0.182556,0.341335,-0.031967,0.0805667,0.0246207,0.155427,-0.201093,-0.00461919,0.255013,-0.00100132,0,0,0,0,0,0,0,0.892215,-34.5976,1.43709,24.7095,1.6687,1.79986,0.124619,
0.0919969,0.0630344,0.193084,-2.00767,0.194564,0.369215,-0.0317322,0.120681,-0.0130585,0.118803,-0.298854,0.239615,0.583566,0.00519201,0,0,0,0,0,0,0,12.7336,-2.49768,12.5347,-32.3338,3.72787,7.15295,0.0539177,0.0863754,0.0638435,0.187558,-1.99231,0.182556,0.341335,-0.031967,0.0805667,0.0246207,0.155427,-0.201093,-0.00461919,0.255013,-0.00100132,0,0,0,0,0,0,0,0.892215,-34.5976,1.43709,24.7095,1.6687,1.79986,0.124619,
0.0929598,0.062922,0.194033,-2.00999,0.196205,0.373639,-0.0316803,0.120618,-0.0132574,0.118758,-0.297056,0.232724,0.577448,0.00545161,0,0,0,0,0,0,0,12.4364,-2.39214,12.2379,-31.5998,3.25439,6.71176,0.0530061,0.0863754,0.0638435,0.187558,-1.99231,0.182556,0.341335,-0.031967,0.0805667,0.0246207,0.155427,-0.201093,-0.00461919,0.255013,-0.00100132,0,0,0,0,0,0,0,0.892215,-34.5976,1.43709,24.7095,1.6687,1.79986,0.124619,
0.0939211,0.0628057,0.19498,-2.01224,0.197626,0.377886,-0.0316257,0.120527,-0.0135113,0.118687,-0.293962,0.221712,0.568127,0.00572685,0,0,0,0,0,0,0,12.1929,-2.35335,11.9864,-30.8312,2.81733,6.32301,0.0538506,0.0889801,0.0640897,0.19273,-1.99983,0.182563,0.349483,-0.0319641,0.0742333,0.00963653,0.152145,-0.220597,-0.00370494,0.244325,-0.000170608,-0.791681,-1.87302,-0.410305,-2.43799,0.114281,-1.33601,0.103839,-0.222592,-34.8714,0.361952,26.3797,1.60095,2.31713,0.0843355,
0.0935591,0.0633705,0.19723,-2.01259,0.191528,0.372267,-0.0317248,0.120014,-0.0133695,0.118161,-0.295381,0.222482,0.571722,0.00603343,0,0,0,0,0,0,0,12.8002,-2.58212,12.6024,-32.2308,3.82309,7.69522,0.0661791,0.0889801,0.0640897,0.19273,-1.99983,0.182563,0.349483,-0.0319641,0.0742333,0.00963653,0.152145,-0.220597,-0.00370494,0.244325,-0.000170608,0,0,0,0,0,0,0,-0.222592,-34.8714,0.361952,26.3797,1.60095,2.31713,0.0843355,
0.0945083,0.063271,0.198164,-2.01491,0.19317,0.376809,-0.0316658,0.119741,-0.013185,0.117883,-0.29447,0.219024,0.570915,0.00630132,0,0,0,0,0,0,0,12.4912,-2.47058,12.2887,-31.4963,3.33385,7.18478,0.0647164,0.0889801,0.0640897,0.19273,-1.99983,0.182563,0.349483,-0.0319641,0.0742333,0.00963653,0.152145,-0.220597,-0.00370494,0.244325,-0.000170608,0,0,0,0,0,0,0,-0.222592,-34.8714,0.361952,26.3797,1.60095,2.31713,0.0843355,
0.0954593,0.0631699,0.1991,-2.01716,0.194639,0.381173,-0.0316064,0.119566,-0.0130755,0.117708,-0.291874,0.211948,0.565831,0.00652724,0,0,0,0,0,0,0,12.2441,-2.34433,12.0415,-30.7512,2.88159,6.73795,0.0648195,0.0889801,0.0640897,0.19273,-1.99983,0.182563,0.349483,-0.0319641,0.0742333,0.00963653,0.152145,-0.220597,-0.00370494,0.244325,-0.000170608,0,0,0,0,0,0,0,-0.222592,-34.8714,0.361952,26.3797,1.60095,2.31713,0.0843355,
0.0935287,0.0633785,0.197213,-2.01238,0.191381,0.372684,-0.0316845,0.118977,-0.0130939,0.117173,-0.292356,0.215478,0.572062,0.00683543,0,0,0,0,0,0,0,12.5508,-2.8087,12.3916,-31.4477,3.63704,7.99746,0.0783414,0.0889801,0.0640897,0.19273,-1.99983,0.182563,0.349483,-0.0319641,0.0742333,0.00963653,0.152145,-0.220597,-0.00370494,0.244325,-0.000170608,0,0,0,0,0,0,0,-0.222592,-34.8714,0.361952,26.3797,1.60095,2.31713,0.0843355,
0.0944645,0.0632742,0.198136,-2.01465,0.193089,0.377301,-0.0316163,0.118577,-0.0130843,0.116825,-0.290574,0.215073,0.573062,0.0071721,0,0,0,0,0,0,0,12.3004,-2.75174,12.1273,-30.6628,3.25578,7.4482,0.0757354,0.0920374,0.0644947,0.197662,-2.00788,0.182546,0.357391,-0.031967,0.102653,0.00322556,0.139282,-0.242549,-0.00446627,0.219234,-0.000887539,3.55241,-0.801372,-1.60786,-2.74399,-0.0951661,-3.1364,-0.0896164,0.209842,-36.2441,0.889601,27.2009,1.70532,2.60918,0.110886,
0.0953966,0.0631664,0.199056,-2.01684,0.194691,0.381717,-0.031563,0.118164,-0.0131609,0.116453,-0.2872,0.212102,0.568858,0.00706996,0,0,0,0,0,0,0,12.1013,-2.6233,11.9288,-29.9107,2.89881,6.95126,0.0734817,0.0920374,0.0644947,0.197662,-2.00788,0.182546,0.357391,-0.031967,0.102653,0.00322556,0.139282,-0.242549,-0.00446627,0.219234,-0.000887539,0,0,0,0,0,0,0,0.209842,-36.2441,0.889601,27.2009,1.70532,2.60918,0.110886,
0.0963361,0.0630539,0.199984,-2.01896,0.195987,0.385976,-0.0314652,0.118018,-0.013343,0.116349,-0.282741,0.202087,0.561565,0.00810168,0,0,0,0,0,0,0,11.9525,-2.49895,11.7802,-29.1508,2.53306,6.51384,0.0769643,0.0920374,0.0644947,0.197662,-2.00788,0.182546,0.357391,-0.031967,0.102653,0.00322556,0.139282,-0.242549,-0.00446627,0.219234,-0.000887539,0,0,0,0,0,0,0,0.209842,-36.2441,0.889601,27.2009,1.70532,2.60918,0.110886,
0.0967806,0.0639227,0.202314,-2.02026,0.191298,0.37918,-0.0316297,0.118235,-0.0126085,0.116488,-0.283506,0.206915,0.562759,0.00829981,0,0,0,0,0,0,0,12.6729,-2.7774,12.4819,-30.4679,3.64145,7.83364,0.0884549,0.0920374,0.0644947,0.197662,-2.00788,0.182546,0.357391,-0.031967,0.102653,0.00322556,0.139282,-0.242549,-0.00446627,0.219234,-0.000887539,0,0,0,0,0,0,0,0.209842,-36.2441,0.889601,27.2009,1.70532,2.60918,0.110886,
0.0977333,0.0638437,0.20325,-2.02246,0.19284,0.383628,-0.0315614,0.118406,-0.0120605,0.116607,-0.281878,0.20409,0.561397,0.00834721,0,0,0,0,0,0,0,12.3564,-2.68637,12.1523,-29.6653,3.26124,7.25961,0.0914413,0.0955578,0.0650872,0.202011,-2.01541,0.182537,0.364038,-0.0319636,0.0981884,0.0174809,0.11839,-0.2051,-0.00349611,0.177653,-0.000107647,-0.55802,1.78192,-2.61156,4.6811,0.121269,-5.19755,0.0974864,-0.147213,-35.7442,0.488905,25.134,1.63208,2.4627,0.0907442,
0.0986817,0.0637593,0.204183,-2.02458,0.194168,0.387912,-0.0314966,0.118434,-0.0117586,0.116598,-0.278509,0.196481,0.556212,0.00829708,0,0,0,0,0,0,0,12.0361,-2.5138,11.8387,-28.9036,3.07438,6.68689,0.0661403,0.0955578,0.0650872,0.202011,-2.01541,0.182537,0.364038,-0.0319636,0.0981884,0.0174809,0.11839,-0.2051,-0.00349611,0.177653,-0.000107647,0,0,0,0,0,0,0,-0.147213,-35.7442,0.488905,25.134,1.63208,2.4627,0.0907442,
0.0996297,0.0636686,0.205115,-2.02663,0.195232,0.392028,-0.0314081,0.118449,-0.0116747,0.116595,-0.273956,0.183768,0.547869,0.00885133,0,0,0,0,0,0,0,12.071,-2.39766,11.8388,-28.1579,2.17446,6.42609,0.12188,0.0955578,0.0650872,0.202011,-2.01541,0.182537,0.364038,-0.0319636,0.0981884,0.0174809,0.11839,-0.2051,-0.00349611,0.177653,-0.000107647,0,0,0,0,0,0,0,-0.147213,-35.7442,0.488905,25.134,1.63208,2.4627,0.0907442,
0.0999628,0.0645452,0.206343,-2.02709,0.189522,0.385131,-0.0316229,0.117341,-0.0114999,0.115516,-0.27344,0.180986,0.549246,0.00895298,0,0,0,0,0,0,0,11.82,-2.97253,11.674,-28.8525,3.28965,7.46722,0.0928755,0.0955578,0.0650872,0.202011,-2.01541,0.182537,0.364038,-0.0319636,0.0981884,0.0174809,0.11839,-0.2051,-0.00349611,0.177653,-0.000107647,0,0,0,0,0,0,0,-0.147213,-35.7442,0.488905,25.134,1.63208,2.4627,0.0907442,
0.100868,0.0644556,0.207235,-2.02918,0.190735,0.389471,-0.0315544,0.11651,-0.0114379,0.114713,-0.270909,0.175114,0.547918,0.0088752,0,0,0,0,0,0,0,11.5398,-2.90144,11.352,-28.0462,2.45442,7.16197,0.0823412,0.0985916,0.0655093,0.2059,-2.02202,0.182529,0.36984,-0.0319646,0.0846202,0.00584105,0.108373,-0.194617,-0.00227469,0.155495,-0.000883301,-1.69602,-1.45499,-1.25209,1.31038,0.152678,-2.76972,-0.0969567,-1.38897,-35.3435,-0.538622,25.011,1.47918,2.49566,0.11821,
0.101772,0.0643596,0.208125,-2.03119,0.191832,0.393649,-0.031492,0.115802,-0.0115502,0.114027,-0.266912,0.167508,0.542775,0.0086583,0,0,0,0,0,0,0,11.4781,-2.73179,11.2983,-27.3135,2.21626,6.61169,0.0764864,0.0985916,0.0655093,0.2059,-2.02202,0.182529,0.36984,-0.0319646,0.0846202,0.00584105,0.108373,-0.194617,-0.00227469,0.155495,-0.000883301,0,0,0,0,0,0,0,-1.38897,-35.3435,-0.538622,25.011,1.47918,2.49566,0.11821,
0.102681,0.0642568,0.20902,-2.03313,0.192701,0.397679,-0.0313941,0.115359,-0.0118122,0.113609,-0.261961,0.155725,0.534962,0.00937518,0,0,0,0,0,0,0,11.5426,-2.57588,11.3515,-26.5813,1.70181,6.2478,0.106751,0.0985916,0.0655093,0.2059,-2.02202,0.182529,0.36984,-0.0319646,0.0846202,0.00584105,0.108373,-0.194617,-0.00227469,0.155495,-0.000883301,0,0,0,0,0,0,0,-1.38897,-35.3435,-0.538622,25.011,1.47918,2.49566,0.11821,
0.102804,0.0648058,0.21005,-2.03343,0.19002,0.392791,-0.0315947,0.114305,-0.0119025,0.112585,-0.262238,0.163688,0.550664,0.00943752,0,0,0,0,0,0,0,11.9585,-3.30814,11.8123,-27.8101,3.23796,8.41386,0.100158,0.0985916,0.0655093,0.2059,-2.02202,0.182529,0.36984,-0.0319646,0.0846202,0.00584105,0.108373,-0.194617,-0.00227469,0.155495,-0.000883301,0,0,0,0,0,0,0,-1.38897,-35.3435,-0.538622,25.011,1.47918,2.49566,0.11821,
0.10369,0.0647071,0.210924,-2.03545,0.191421,0.3976,-0.0315279,0.1136,-0.0119883,0.111905,-0.260232,0.165974,0.560744,0.00921972,0,0,0,0,0,0,0,11.6984,-3.17247,11.5305,-27.025,2.77166,7.96168,0.0887173,0.101384,0.065721,0.209712,-2.0283,0.182522,0.374308,-0.0319626,0.0816693,0.00398458,0.116709,-0.181664,-0.0111214,0.114424,0.000894145,-0.368865,-0.232058,1.04204,1.61915,-1.10583,-5.13393,0.222181,1.01917,-34.8198,1.68703,25.1855,1.57714,2.21734,0.0706026,
0.104578,0.0646032,0.211799,-2.03738,0.19268,0.40223,-0.0314641,0.113077,-0.0121887,0.111399,-0.256581,0.16427,0.564362,0.00897159,0,0,0,0,0,0,0,11.5767,-2.96662,11.4124,-26.3291,2.59914,7.33528,0.0761593,0.101384,0.065721,0.209712,-2.0283,0.182522,0.374308,-0.0319626,0.0816693,0.00398458,0.116709,-0.181664,-0.0111214,0.114424,0.000894145,0,0,0,0,0,0,0,1.01917,-34.8198,1.68703,25.1855,1.57714,2.21734,0.0706026,
0.105666,0.0650425,0.213932,-2.03933,0.189388,0.397126,-0.0315861,0.112691,-0.0118943,0.111018,-0.25588,0.166217,0.574142,0.00908269,0,0,0,0,0,0,0,11.9295,-3.16268,11.7891,-26.6713,3.14537,8.68116,0.106633,0.101384,0.065721,0.209712,-2.0283,0.182522,0.374308,-0.0319626,0.0816693,0.00398458,0.116709,-0.181664,-0.0111214,0.114424,0.000894145,0,0,0,0,0,0,0,1.01917,-34.8198,1.68703,25.1855,1.57714,2.21734,0.0706026,
0.106558,0.0649565,0.214811,-2.04126,0.190601,0.401906,-0.0315196,0.112459,-0.0116663,0.110792,-0.253027,0.163298,0.57881,0.00892948,0,0,0,0,0,0,0,11.5933,-2.96882,11.4302,-25.9737,2.52082,8.16788,0.0877515,0.101384,0.065721,0.209712,-2.0283,0.182522,0.374308,-0.0319626,0.0816693,0.00398458,0.116709,-0.181664,-0.0111214,0.114424,0.000894145,0,0,0,0,0,0,0,1.01917,-34.8198,1.68703,25.1855,1.57714,2.21734,0.0706026,
0.107449,0.064865,0.215689,-2.04312,0.191672,0.406485,-0.0314568,0.112246,-0.011622,0.110582,-0.248712,0.157419,0.577527,0.00871302,0,0,0,0,0,0,0,11.5182,-2.80719,11.3476,-25.2718,2.3136,7.48127,0.0794894,0.104145,0.0661037,0.213451,-2.03427,0.182515,0.377264,-0.0319616,0.0913245,0.0251529,0.104398,-0.170431,-0.00157804,0.0852914,-0.000591836,1.20689,2.64604,-1.53884,1.40409,1.19292,-3.64158,-0.185748,-0.67883,-35.4427,0.0644055,25.4831,1.55883,2.29699,0.0907442,
0.108344,0.0647666,0.216571,-2.0449,0.192517,0.410869,-0.0313613,0.11217,-0.0117555,0.110517,-0.243519,0.147051,0.571612,0.00935956,0,0,0,0,0,0,0,11.5845,-2.5906,11.3952,-24.6167,1.72594,7.02288,0.120692,0.104145,0.0661037,0.213451,-2.03427,0.182515,0.377264,-0.0319616,0.0913245,0.0251529,0.104398,-0.170431,-0.00157804,0.0852914,-0.000591836,0,0,0,0,0,0,0,-0.67883,-35.4427,0.0644055,25.4831,1.55883,2.29699,0.0907442,
0.108355,0.0657615,0.217598,-2.04486,0.188358,0.398577,-0.0316022,0.11147,-0.0107528,0.109818,-0.24326,0.146492,0.572947,0.00928865,0,0,0,0,0,0,0,11.4884,-3.06136,11.3554,-25.1712,2.70417,8.28118,0.0984864,0.104145,0.0661037,0.213451,-2.03427,0.182515,0.377264,-0.0319616,0.0913245,0.0251529,0.104398,-0.170431,-0.00157804,0.0852914,-0.000591836,0,0,0,0,0,0,0,-0.67883,-35.4427,0.0644055,25.4831,1.55883,2.29699,0.0907442,
0.109227,0.0656985,0.218457,-2.04671,0.18934,0.403119,-0.0315381,0.11097,-0.0101775,0.109319,-0.24085,0.141742,0.5719,0.00903448,0,0,0,0,0,0,0,11.2081,-2.87619,11.0525,-24.4993,2.08159,7.7802,0.0823256,0.104145,0.0661037,0.213451,-2.03427,0.182515,0.377264,-0.0319616,0.0913245,0.0251529,0.104398,-0.170431,-0.00157804,0.0852914,-0.000591836,0,0,0,0,0,0,0,-0.67883,-35.4427,0.0644055,25.4831,1.55883,2.29699,0.0907442,
0.110097,0.0656235,0.219314,-2.04848,0.190188,0.407496,-0.0314789,0.110523,-0.0100149,0.108875,-0.236919,0.13459,0.566931,0.00870831,0,0,0,0,0,0,0,11.1587,-2.71861,10.9952,-23.821,1.9192,7.1379,0.0754724,0.107503,0.066803,0.217083,-2.03952,0.182496,0.379978,-0.0319671,0.0990999,0.0235744,0.11579,-0.148379,-0.00480925,0.0772332,-0.00125177,0.971928,-0.197316,1.42398,2.75643,-0.403901,-1.00727,-0.0824919,0.384403,-35.0935,1.01259,25.7568,1.55243,2.34368,0.110886,
0.110967,0.0655372,0.220171,-2.05018,0.190847,0.411693,-0.0313971,0.110171,-0.0101711,0.108535,-0.232,0.124141,0.558478,0.00901096,0,0,0,0,0,0,0,11.2374,-2.5295,11.0571,-23.204,1.39107,6.71951,0.1176,0.107503,0.066803,0.217083,-2.03952,0.182496,0.379978,-0.0319671,0.0990999,0.0235744,0.11579,-0.148379,-0.00480925,0.0772332,-0.00125177,0,0,0,0,0,0,0,0.384403,-35.0935,1.01259,25.7568,1.55243,2.34368,0.110886,
0.11185,0.0663181,0.221366,-2.04959,0.18816,0.401913,-0.0316451,0.110018,-0.0100477,0.108377,-0.231581,0.126782,0.566785,0.00880004,0,0,0,0,0,0,0,11.1581,-3.35409,11.0363,-23.8089,2.53293,8.48449,0.0929355,0.107503,0.066803,0.217083,-2.03952,0.182496,0.379978,-0.0319671,0.0990999,0.0235744,0.11579,-0.148379,-0.00480925,0.0772332,-0.00125177,0,0,0,0,0,0,0,0.384403,-35.0935,1.01259,25.7568,1.55243,2.34368,0.110886,
0.112722,0.0662355,0.222224,-2.05134,0.189066,0.406633,-0.0315876,0.109795,-0.010105,0.108156,-0.229031,0.124083,0.571408,0.00847541,0,0,0,0,0,0,0,10.929,-3.13061,10.7808,-23.1766,1.91647,8.0507,0.0788211,0.107503,0.066803,0.217083,-2.03952,0.182496,0.379978,-0.0319671,0.0990999,0.0235744,0.11579,-0.148379,-0.00480925,0.0772332,-0.00125177,0,0,0,0,0,0,0,0.384403,-35.0935,1.01259,25.7568,1.55243,2.34368,0.110886,
0.113586,0.0661432,0.223076,-2.05302,0.189826,0.411194,-0.0315311,0.109452,-0.0103899,0.107819,-0.225022,0.118251,0.571152,0.00819381,0,0,0,0,0,0,0,10.8813,-2.89068,10.7379,-22.5778,1.75329,7.40818,0.0713414,0.107503,0.066803,0.217083,-2.03952,0.182496,0.379978,-0.0319671,0.0990999,0.0235744,0.11579,-0.148379,-0.00480925,0.0772332,-0.00125177,0,0,0,0,0,0,0,0.384403,-35.0935,1.01259,25.7568,1.55243,2.34368,0.110886,
0.112897,0.0660086,0.222407,-2.05278,0.193665,0.416921,-0.0315232,0.110465,-0.0109404,0.108847,-0.229066,0.138584,0.634311,0.00810859,0,0,0,0,0,0,0,10.9181,-3.66399,10.8048,-22.9478,2.55364,10.1215,0.0843582,0.110188,0.0674373,0.22116,-2.04447,0.182454,0.382047,-0.0319663,0.0675329,0.0146497,0.128674,-0.147534,-0.00159718,0.0626508,-0.000522279,-3.94588,-1.11559,1.61048,0.105713,0.401509,-1.8228,0.0911866,0.0313145,-34.919,0.711073,25.4315,1.45446,2.4096,0.104477,
0.115218,0.0668421,0.226125,-2.05619,0.188965,0.412805,-0.0316011,0.109728,-0.0105781,0.108115,-0.225713,0.134405,0.644377,0.00795033,0,0,0,0,0,0,0,10.6935,-3.3818,10.5521,-22.3483,1.90754,9.5145,0.0714085,0.110188,0.0674373,0.22116,-2.04447,0.182454,0.382047,-0.0319663,0.0675329,0.0146497,0.128674,-0.147534,-0.00159718,0.0626508,-0.000522279,0,0,0,0,0,0,0,0.0313145,-34.919,0.711073,25.4315,1.45446,2.4096,0.104477,
