xiao-wang007/linearmpc_panda/paper_data/panda_torque_PD_controller_error_match_to_start_torque_rate_limiter/3/trajectory.csv
Commanded Joint 0 Position,Commanded Joint 1 Position,Commanded Joint 2 Position,Commanded Joint 3 Position,Commanded Joint 4 Position,Commanded Joint 5 Position,Commanded Joint 6 Position,Commanded Joint 0 Velocity,Commanded Joint 1 Velocity,Commanded Joint 2 Velocity,Commanded Joint 3 Velocity,Commanded Joint 4 Velocity,Commanded Joint 5 Velocity,Commanded Joint 6 Velocity,Commanded Joint 0 Acceleration,Commanded Joint 1 Acceleration,Commanded Joint 2 Acceleration,Commanded Joint 3 Acceleration,Commanded Joint 4 Acceleration,Commanded Joint 5 Acceleration,Commanded Joint 6 Acceleration,Commanded Joint 0 Torque,Commanded Joint 1 Torque,Commanded Joint 2 Torque,Commanded Joint 3 Torque,Commanded Joint 4 Torque,Commanded Joint 5 Torque,Commanded Joint 6 Torque,Actual Joint 0 Position,Actual Joint 1 Position,Actual Joint 2 Position,Actual Joint 3 Position,Actual Joint 4 Position,Actual Joint 5 Position,Actual Joint 6 Position,Actual Joint 0 Velocity,Actual Joint 1 Velocity,Actual Joint 2 Velocity,Actual Joint 3 Velocity,Actual Joint 4 Velocity,Actual Joint 5 Velocity,Actual Joint 6 Velocity,Actual Joint 0 Acceleration,Actual Joint 1 Acceleration,Actual Joint 2 Acceleration,Actual Joint 3 Acceleration,Actual Joint 4 Acceleration,Actual Joint 5 Acceleration,Actual Joint 6 Acceleration,Actual Joint 0 Torque,Actual Joint 1 Torque,Actual Joint 2 Torque,Actual Joint 3 Torque,Actual Joint 4 Torque,Actual Joint 5 Torque,Actual Joint 6 Torque,
0.0166677,0.00432393,-0.0225576,-1.74902,-0.0305814,0.215959,0.0268508,0.000362318,0.0220285,0.000323563,-0.0327613,-0.00297072,0.0530766,-0.000373115,0.226448,13.7678,0.202227,-20.4758,-1.8567,33.1729,-0.233197,0.0593894,24.6209,0.0570405,-24.313,-0.446773,1.93476,-0.0246531,0.0166385,0.00307446,-0.0225569,-1.74578,-0.0304118,0.210318,0.0268922,0.00218821,0.004993,0.000767115,-0.00378191,-0.014844,0.00199416,-0.00107493,0,0,0,0,0,0,0,-0.119442,-35.8434,-0.260912,27.1771,0.911556,2.93328,0.00376909,
0.016649,0.00315767,-0.0225468,-1.74583,-0.0305462,0.210296,0.02689,0.000320916,0.0181715,0.000288887,-0.0265063,-0.0029881,0.0421739,-0.000307154,-0.0258758,-2.4106,-0.0216725,3.90939,-0.0108655,-6.81414,0.0412255,0.0536213,25.0614,0.0466769,-24.2294,-0.447447,1.68396,-0.0231351,0.0166385,0.00307446,-0.0225569,-1.74578,-0.0304118,0.210318,0.0268922,0.00218821,0.004993,0.000767115,-0.00378191,-0.014844,0.00199416,-0.00107493,0,0,0,0,0,0,0,-0.119442,-35.8434,-0.260912,27.1771,0.911556,2.93328,0.00376909,
0.0166493,0.00317534,-0.0225465,-1.74584,-0.0305613,0.210284,0.0268898,0.000265176,0.0149789,0.000239037,-0.0214465,-0.00276597,0.0334426,-0.000250878,-0.0348374,-1.99537,-0.0311563,3.16239,0.138829,-5.45709,0.0351724,0.0463715,25.6329,0.0349106,-24.1214,-0.447256,1.3365,-0.0211669,0.0166385,0.00307446,-0.0225569,-1.74578,-0.0304118,0.210318,0.0268922,0.00218821,0.004993,0.000767115,-0.00378191,-0.014844,0.00199416,-0.00107493,0,0,0,0,0,0,0,-0.119442,-35.8434,-0.260912,27.1771,0.911556,2.93328,0.00376909,
0.0166492,0.00318965,-0.0225466,-1.74585,-0.0305707,0.210273,0.0268897,0.000209245,0.012341,0.00018807,-0.0173538,-0.00244946,0.0264755,-0.000203855,-0.0349568,-1.64867,-0.0318547,2.5579,0.197818,-4.35442,0.0293893,0.0404015,26.166,0.0253909,-23.9524,-0.445442,0.953435,-0.0191773,0.0166375,0.00339649,-0.0225536,-1.7459,-0.0304164,0.210309,0.026893,0.000946191,0.00867611,-0.000127069,-0.000561415,-0.0109885,0.00150595,-0.000164823,-0.155253,0.460388,-0.111773,0.402562,0.481945,-0.0610267,0.113763,-0.0956386,-36.3194,-0.260912,27.4271,0.911556,3.02025,-0.0026396,
0.0166489,0.00320134,-0.022547,-1.74585,-0.0305768,0.210263,0.0268896,0.00015928,0.0101651,0.00014219,-0.0140432,-0.00211282,0.0209335,-0.000165092,-0.0312286,-1.35997,-0.0286745,2.06914,0.210403,-3.46376,0.0242271,0.0381044,26.4888,0.021139,-23.688,-0.44099,0.580706,-0.0174558,0.0166375,0.00339649,-0.0225536,-1.7459,-0.0304164,0.210309,0.026893,0.000946191,0.00867611,-0.000127069,-0.000561415,-0.0109885,0.00150595,-0.000164823,0,0,0,0,0,0,0,-0.0956386,-36.3194,-0.260912,27.4271,0.911556,3.02025,-0.0026396,
0.0166506,0.00386128,-0.0225418,-1.74646,-0.0306227,0.210556,0.0268983,0.000453897,0.0197517,0.000409391,-0.0252349,-0.00684691,0.0229185,2.57962e-06,0.184136,5.99164,0.167001,-6.9948,-2.9588,1.24062,0.104795,-1.76042e-05,30.7874,-0.00071147,-23.2163,-0.887139,-2.27047,0.000735412,0.0166375,0.00339649,-0.0225536,-1.7459,-0.0304164,0.210309,0.026893,0.000946191,0.00867611,-0.000127069,-0.000561415,-0.0109885,0.00150595,-0.000164823,0,0,0,0,0,0,0,-0.0956386,-36.3194,-0.260912,27.4271,0.911556,3.02025,-0.0026396,
0.0166084,0.00430482,-0.0225858,-1.7467,-0.0298326,0.210017,0.0268835,-0.000692188,0.02689,-0.000772749,-0.0264005,0.0142732,0.00487768,-0.000368251,-0.716303,4.46141,-0.738838,-0.728507,13.2001,-11.2755,-0.231769,0.515196,0.152751,0.515058,-0.253658,3.14886,-1.60758,-0.00142663,0.0166375,0.00339649,-0.0225536,-1.7459,-0.0304164,0.210309,0.026893,0.000946191,0.00867611,-0.000127069,-0.000561415,-0.0109885,0.00150595,-0.000164823,0,0,0,0,0,0,0,-0.0956386,-36.3194,-0.260912,27.4271,0.911556,3.02025,-0.0026396,
0.0165464,0.00466179,-0.0226482,-1.74687,-0.0284478,0.209129,0.0268742,-0.00210322,0.0304363,-0.0021788,-0.0252801,0.0460383,-0.0183004,-0.000527699,-0.881898,2.21644,-0.878784,0.700251,19.8531,-14.4863,-0.0996554,0.509034,0.178724,0.508795,-0.253346,3.12088,-1.59379,-0.00138844,0.0166336,0.00394032,-0.0225537,-1.74656,-0.0304466,0.212085,0.0268937,0.0022441,0.0403672,0.000177309,-0.0616251,-0.00428537,0.159417,-0.000286113,0.162238,3.96139,0.0380473,-7.63297,0.837886,19.7389,-0.0151612,0.00751081,-29.9281,-0.213304,21.7459,0.599362,3.00011,-0.00996382,
0.0164841,0.00494087,-0.0227103,-1.747,-0.0267107,0.208054,0.0268689,-0.00323949,0.0313259,-0.00329586,-0.0235541,0.0802591,-0.0415118,-0.000554037,-0.710168,0.556017,-0.698158,1.07872,21.388,-14.5071,-0.0164612,0.503715,0.177373,0.503476,-0.250784,3.0928,-1.57941,-0.00136258,0.0166336,0.00394032,-0.0225537,-1.74656,-0.0304466,0.212085,0.0268937,0.0022441,0.0403672,0.000177309,-0.0616251,-0.00428537,0.159417,-0.000286113,0,0,0,0,0,0,0,0.00751081,-29.9281,-0.213304,21.7459,0.599362,3.00011,-0.00996382,
0.0166568,0.00468666,-0.0225318,-1.74729,-0.0306554,0.212904,0.0268987,-0.00201168,0.0437191,-0.00208954,-0.0370003,0.0589889,-0.0127306,-0.000318744,0.767383,7.74576,0.753949,-8.40387,-13.2939,17.9882,0.147058,-0.000873324,30.8146,-0.0016767,-23.2186,-0.887055,-2.27095,0.000744321,0.0166336,0.00394032,-0.0225537,-1.74656,-0.0304466,0.212085,0.0268937,0.0022441,0.0403672,0.000177309,-0.0616251,-0.00428537,0.159417,-0.000286113,0,0,0,0,0,0,0,0.00751081,-29.9281,-0.213304,21.7459,0.599362,3.00011,-0.00996382,
0.0165499,0.00537336,-0.0226438,-1.74745,-0.0275846,0.210921,0.0268518,-0.00428182,0.0521427,-0.00447084,-0.0337597,0.12396,-0.0597521,-0.00142777,-1.41884,5.26474,-1.48831,2.0254,40.6071,-29.3884,-0.69314,4.26347,0.656044,4.25853,-1.84965,11.1129,-8.15197,-0.00513311,0.0166336,0.00394032,-0.0225537,-1.74656,-0.0304466,0.212085,0.0268937,0.0022441,0.0403672,0.000177309,-0.0616251,-0.00428537,0.159417,-0.000286113,0,0,0,0,0,0,0,0.00751081,-29.9281,-0.213304,21.7459,0.599362,3.00011,-0.00996382,
0.016415,0.00588613,-0.02278,-1.74753,-0.0225283,0.207428,0.0268241,-0.00679798,0.0545336,-0.0069818,-0.0290625,0.225577,-0.135119,-0.00183545,-1.5726,1.49429,-1.56935,2.93572,63.5105,-47.1044,-0.254802,4.20494,0.85993,4.19824,-1.78335,11.1176,-7.97427,-0.0042996,0.016657,0.00593197,-0.0225296,-1.75248,-0.0308549,0.216632,0.0268955,0.00310303,0.0873849,0.00193957,-0.210397,-0.0130732,-0.00476673,0.000557534,0.107366,5.87721,0.220282,-18.5965,-1.09848,-20.5229,0.105456,-0.246395,-20.6447,-0.411669,18.3578,0.850216,1.30273,-0.0163725,
0.01669,0.0071881,-0.0224983,-1.75379,-0.0311582,0.215997,0.0269025,-0.00461276,0.0750303,-0.00480197,-0.0560426,0.172879,-0.123972,-0.00129465,1.36576,12.8105,1.3624,-16.8626,-32.9365,6.96672,0.338004,-0.00129929,30.9378,-0.00249344,-23.2154,-0.882432,-2.24111,0.000642097,0.016657,0.00593197,-0.0225296,-1.75248,-0.0308549,0.216632,0.0268955,0.00310303,0.0873849,0.00193957,-0.210397,-0.0130732,-0.00476673,0.000557534,0,0,0,0,0,0,0,-0.246395,-20.6447,-0.411669,18.3578,0.850216,1.30273,-0.0163725,
0.0170833,0.00819831,-0.0220947,-1.75459,-0.0291353,0.211441,0.0269608,0.0061419,0.0852793,0.0062492,-0.0647512,0.188877,-0.21309,0.000422722,6.72166,6.40565,6.90698,-5.44285,9.99896,-55.6985,1.07335,29.2015,1.36672,29.1634,-12.0319,11.1176,-14.2411,0.0768206,0.016657,0.00593197,-0.0225296,-1.75248,-0.0308549,0.216632,0.0268955,0.00310303,0.0873849,0.00193957,-0.210397,-0.0130732,-0.00476673,0.000557534,0,0,0,0,0,0,0,-0.246395,-20.6447,-0.411669,18.3578,0.850216,1.30273,-0.0163725,
0.0177773,0.00898004,-0.0213947,-1.75524,-0.0254107,0.204537,0.0270334,0.0222632,0.0877667,0.0224995,-0.0679442,0.244215,-0.343056,0.0021533,10.0758,1.55462,10.1564,-1.99563,34.5865,-81.2288,1.08161,27.9296,2.60026,27.8579,-10.2461,11.1176,-14.2411,0.0877646,0.016657,0.00593197,-0.0225296,-1.75248,-0.0308549,0.216632,0.0268955,0.00310303,0.0873849,0.00193957,-0.210397,-0.0130732,-0.00476673,0.000557534,0,0,0,0,0,0,0,-0.246395,-20.6447,-0.411669,18.3578,0.850216,1.30273,-0.0163725,
0.0187086,0.00959333,-0.0204603,-1.75583,-0.0204319,0.196144,0.0271143,0.0410932,0.0855457,0.0413597,-0.0691677,0.319842,-0.484268,0.0037453,11.7687,-1.38816,11.7876,-0.764716,47.267,-88.2578,0.995003,26.6272,2.77842,26.5456,-8.83484,11.1077,-14.1774,0.0950504,0.0166101,0.0100273,-0.0224924,-1.75857,-0.0268609,0.213883,0.0268923,0.0111596,0.18511,0.0115465,-0.139352,-0.00463418,-0.145127,-0.00122215,1.00707,12.2157,1.20086,8.88067,1.05488,-17.545,-0.22246,1.04694,-28.5317,0.711073,21.4722,1.44897,0.341421,0.00376909,
0.0166928,0.0116823,-0.0224107,-1.7599,-0.0270641,0.212866,0.0268944,0.0349429,0.109812,0.0351308,-0.0886323,0.250794,-0.412835,0.00304723,-3.84395,15.1665,-3.89308,-12.1654,-43.1555,44.6462,-0.436291,-0.000653304,31.056,-0.00279653,-23.1747,-0.892322,-2.17743,0.000370725,0.0166101,0.0100273,-0.0224924,-1.75857,-0.0268609,0.213883,0.0268923,0.0111596,0.18511,0.0115465,-0.139352,-0.00463418,-0.145127,-0.00122215,0,0,0,0,0,0,0,1.04694,-28.5317,0.711073,21.4722,1.44897,0.341421,0.00376909,
0.0174021,0.0126112,-0.021684,-1.76146,-0.0254837,0.208541,0.0271273,0.0456861,0.111071,0.0462726,-0.109897,0.240145,-0.438382,0.00826034,6.71453,0.786735,6.96363,-13.2906,-6.65503,-15.967,3.25819,43.5067,-4.7956,43.3482,-22.864,11.1077,-14.1774,0.274954,0.0166101,0.0100273,-0.0224924,-1.75857,-0.0268609,0.213883,0.0268923,0.0111596,0.18511,0.0115465,-0.139352,-0.00463418,-0.145127,-0.00122215,0,0,0,0,0,0,0,1.04694,-28.5317,0.711073,21.4722,1.44897,0.341421,0.00376909,
0.0185443,0.0131658,-0.0205376,-1.76302,-0.0222979,0.201888,0.0272721,0.0651022,0.102722,0.065678,-0.12686,0.271762,-0.517032,0.0102283,12.1351,-5.21789,12.1284,-10.6015,19.7601,-49.1566,1.22997,38.9327,-2.9665,38.7295,-21.4015,11.1077,-14.1774,0.160654,0.0166101,0.0100273,-0.0224924,-1.75857,-0.0268609,0.213883,0.0268923,0.0111596,0.18511,0.0115465,-0.139352,-0.00463418,-0.145127,-0.00122215,0,0,0,0,0,0,0,1.04694,-28.5317,0.711073,21.4722,1.44897,0.341421,0.00376909,
0.0199735,0.013535,-0.0191122,-1.76451,-0.0177599,0.193668,0.0273383,0.0878123,0.0914087,0.0881772,-0.138664,0.330859,-0.61914,0.00983721,14.1938,-7.07091,14.062,-7.37757,36.9358,-63.8175,-0.244427,35.2263,-1.3048,35.0108,-19.7387,11.1077,-14.1774,0.0693578,0.0166101,0.0100273,-0.0224924,-1.75857,-0.0268609,0.213883,0.0268923,0.0111596,0.18511,0.0115465,-0.139352,-0.00463418,-0.145127,-0.00122215,0,0,0,0,0,0,0,1.04694,-28.5317,0.711073,21.4722,1.44897,0.341421,0.00376909,
0.0171538,0.0214028,-0.0219907,-1.75982,-0.0169125,0.188222,0.0269203,0.0754003,0.119995,0.0758687,-0.144814,0.328297,-0.614508,0.00838942,-7.75749,17.8666,-7.69282,-3.8437,-1.60102,2.89491,-0.904867,-0.161686,31.636,-0.165893,-23.3251,-0.974458,-2.05366,0.00154876,0.0169478,0.0195281,-0.0222038,-1.75847,-0.0194569,0.192989,0.0268995,0.0161765,0.285287,0.0201193,0.0283199,0.52664,-1.00945,0.000238727,0.627114,12.5221,1.07161,20.959,66.4093,-108.041,0.182609,4.89917,-31.9515,4.51173,18.5562,2.82318,-2.02613,0.0239107,
0.0182157,0.0221279,-0.0209109,-1.76227,-0.0139327,0.181983,0.0272958,0.0868656,0.114122,0.0876888,-0.177079,0.337132,-0.647582,0.016099,7.16583,-3.67068,7.38757,-20.1656,5.52199,-20.6708,4.81846,53.4607,-10.347,52.9547,-33.7804,11.0255,-14.0537,0.423764,0.0169478,0.0195281,-0.0222038,-1.75847,-0.0194569,0.192989,0.0268995,0.0161765,0.285287,0.0201193,0.0283199,0.52664,-1.00945,0.000238727,0,0,0,0,0,0,0,4.89917,-31.9515,4.51173,18.5562,2.82318,-2.02613,0.0239107,
0.019788,0.0224693,-0.0193407,-1.76477,-0.00998111,0.174106,0.0274434,0.1088,0.0998349,0.109406,-0.204105,0.368496,-0.714988,0.0165689,13.7088,-8.92958,13.5735,-16.8917,19.6023,-42.129,0.293711,45.3333,-6.33113,44.8952,-31.3094,11.0255,-14.0537,0.141604,0.0169478,0.0195281,-0.0222038,-1.75847,-0.0194569,0.192989,0.0268995,0.0161765,0.285287,0.0201193,0.0283199,0.52664,-1.00945,0.000238727,0,0,0,0,0,0,0,4.89917,-31.9515,4.51173,18.5562,2.82318,-2.02613,0.0239107,
0.0216529,0.022689,-0.0174866,-1.76711,-0.0049633,0.165048,0.0274411,0.133664,0.0853599,0.133877,-0.221866,0.420242,-0.798433,0.013198,15.5404,-9.04685,15.2943,-11.1003,32.3413,-52.1529,-2.1068,39.7125,-3.08611,39.351,-28.849,11.0255,-14.0537,-0.0248234,0.0169478,0.0195281,-0.0222038,-1.75847,-0.0194569,0.192989,0.0268995,0.0161765,0.285287,0.0201193,0.0283199,0.52664,-1.00945,0.000238727,0,0,0,0,0,0,0,4.89917,-31.9515,4.51173,18.5562,2.82318,-2.02613,0.0239107,
0.0213888,0.0247412,-0.0178328,-1.77211,0.0175741,0.135471,0.0276374,0.155631,0.0651107,0.155303,-0.263464,0.454756,-0.885924,0.0128992,13.7294,-12.6557,13.3912,-25.9987,21.5709,-54.6822,-0.18675,59.2891,-15.9799,58.314,-43.6824,10.9519,-13.7796,0.472167,0.017999,0.0248986,-0.0211955,-1.76494,0.00862469,0.154347,0.0271033,0.0583142,0.0685136,0.058352,-0.43989,0.596862,-1.0047,0.0164155,5.26721,-27.0967,4.77908,-58.5262,8.77775,0.59417,2.02209,9.39014,-36.0417,8.91145,14.1724,1.04522,-2.15888,0.0376436,
0.0235893,0.0246448,-0.0156578,-1.77527,0.0231694,0.125147,0.0275305,0.179518,0.0496784,0.178615,-0.28968,0.503688,-0.966844,0.00764549,14.9293,-9.64523,14.57,-16.385,30.5826,-50.5751,-3.28357,48.2108,-9.39438,47.5293,-39.6997,10.9519,-13.7796,0.055942,0.017999,0.0248986,-0.0211955,-1.76494,0.00862469,0.154347,0.0271033,0.0583142,0.0685136,0.058352,-0.43989,0.596862,-1.0047,0.0164155,0,0,0,0,0,0,0,9.39014,-36.0417,8.91145,14.1724,1.04522,-2.15888,0.0376436,
0.0259099,0.0245922,-0.0133655,-1.77825,0.0295938,0.11491,0.0273352,0.201629,0.0384275,0.2002,-0.306279,0.56356,-1.02941,0.00123316,13.8194,-7.03176,13.4905,-10.3746,37.4203,-39.1027,-4.00771,41.2245,-5.2275,40.7051,-36.6563,10.9519,-13.3643,-0.163055,0.017999,0.0248986,-0.0211955,-1.76494,0.00862469,0.154347,0.0271033,0.0583142,0.0685136,0.058352,-0.43989,0.596862,-1.0047,0.0164155,0,0,0,0,0,0,0,9.39014,-36.0417,8.91145,14.1724,1.04522,-2.15888,0.0376436,
0.0282774,0.02456,-0.0110273,-1.78113,0.0367081,0.10503,0.027145,0.220491,0.0299368,0.218616,-0.317147,0.628706,-1.07053,-0.00376851,11.7886,-5.30674,11.5103,-6.79255,40.7163,-25.7038,-3.12604,36.7742,-3.16255,36.3384,-34.4734,10.9519,-12.274,-0.256688,0.017999,0.0248986,-0.0211955,-1.76494,0.00862469,0.154347,0.0271033,0.0583142,0.0685136,0.058352,-0.43989,0.596862,-1.0047,0.0164155,0,0,0,0,0,0,0,9.39014,-36.0417,8.91145,14.1724,1.04522,-2.15888,0.0376436,
0.0184863,0.0264313,-0.0207085,-1.76729,0.0115,0.147625,0.0271345,0.188574,0.0622685,0.187067,-0.312342,0.574849,-1.02448,-0.00223436,-19.948,20.2073,-19.7182,3.00307,-33.661,28.7866,0.958843,0.119763,32.4328,0.10568,-23.3053,-0.961411,-1.37621,7.38689e-05,0.0217911,0.0254625,-0.0163012,-1.78647,0.027232,0.113334,0.0274762,0.154328,-0.00632958,0.202767,-0.646134,0.631408,-1.45383,0.0103227,12.0017,-9.3554,18.0519,-25.7805,4.31828,-56.1415,-0.761597,17.1502,-34.2207,16.9095,22.9163,5.4425,-1.07124,0.0440523,
0.019688,0.026947,-0.0195074,-1.77086,0.0149946,0.141094,0.0271485,0.180902,0.0627072,0.179682,-0.339173,0.547243,-0.982857,-0.00143664,-4.79542,0.274223,-4.61571,-16.7695,-17.2534,26.0121,0.498576,49.3102,-8.55856,48.6128,-45.804,11.0386,-10.291,-0.0377128,0.0217911,0.0254625,-0.0163012,-1.78647,0.027232,0.113334,0.0274762,0.154328,-0.00632958,0.202767,-0.646134,0.631408,-1.45383,0.0103227,0,0,0,0,0,0,0,17.1502,-34.2207,16.9095,22.9163,5.4425,-1.07124,0.0440523,
0.0212971,0.0272048,-0.0179089,-1.77448,0.0194508,0.134183,0.026946,0.184948,0.0566097,0.183707,-0.36195,0.5492,-0.959073,-0.00621377,2.52912,-3.81098,2.51574,-14.2355,1.22289,14.8646,-2.98571,41.4464,-4.66568,40.945,-42.755,11.0386,-9.24828,-0.29309,0.0217911,0.0254625,-0.0163012,-1.78647,0.027232,0.113334,0.0274762,0.154328,-0.00632958,0.202767,-0.646134,0.631408,-1.45383,0.0103227,0,0,0,0,0,0,0,17.1502,-34.2207,16.9095,22.9163,5.4425,-1.07124,0.0440523,
0.0231386,0.0273784,-0.0160838,-1.77802,0.024882,0.127352,0.0266389,0.193998,0.0496275,0.192593,-0.377934,0.575139,-0.938017,-0.0126471,5.65623,-4.36383,5.55379,-9.99006,16.2118,13.1603,-4.02085,36.5801,-2.83581,36.1745,-40.5993,11.0386,-7.64374,-0.404253,0.0217911,0.0254625,-0.0163012,-1.78647,0.027232,0.113334,0.0274762,0.154328,-0.00632958,0.202767,-0.646134,0.631408,-1.45383,0.0103227,0,0,0,0,0,0,0,17.1502,-34.2207,16.9095,22.9163,5.4425,-1.07124,0.0440523,
0.027991,0.0256515,-0.0101704,-1.80006,0.0454939,0.0856391,0.026491,0.21054,0.0422556,0.208719,-0.410177,0.628934,-0.946599,-0.0199048,10.3384,-4.60746,10.0782,-20.152,33.6218,-5.36392,-4.53603,44.663,-6.48678,44.0181,-49.5102,11.4156,-8.1122,-0.343144,0.0327828,0.0247337,-0.00334731,-1.80987,0.0554297,0.0577937,0.0276518,0.455568,-0.0588773,0.491068,-0.768409,0.950672,-1.69112,-0.00934567,37.6551,-6.56846,36.0376,-15.2844,39.908,-29.6619,-2.45854,24.9578,-32.0744,23.884,19.2068,4.34936,-1.89338,0.0577852,
0.0302361,0.0257479,-0.00795401,-1.80423,0.0528191,0.0790527,0.0261152,0.224558,0.0362152,0.222385,-0.432362,0.686277,-0.921941,-0.0253208,8.76115,-3.77525,8.54163,-13.8656,35.8394,15.4118,-3.38501,38.6255,-3.90096,38.1191,-46.957,11.4156,-6.05959,-0.498936,0.0327828,0.0247337,-0.00334731,-1.80987,0.0554297,0.0577937,0.0276518,0.455568,-0.0588773,0.491068,-0.768409,0.950672,-1.69112,-0.00934567,0,0,0,0,0,0,0,24.9578,-32.0744,23.884,19.2068,4.34936,-1.89338,0.0577852,
0.0324592,0.0258328,-0.00575915,-1.80827,0.0606144,0.0736584,0.0257308,0.235224,0.0310942,0.23278,-0.446996,0.743904,-0.872409,-0.0298646,6.66675,-3.20061,6.49646,-9.14629,36.0172,30.9571,-2.83984,34.8008,-2.98018,34.3679,-45.3867,11.4156,-4.48854,-0.503909,0.0327828,0.0247337,-0.00334731,-1.80987,0.0554297,0.0577937,0.0276518,0.455568,-0.0588773,0.491068,-0.768409,0.950672,-1.69112,-0.00934567,0,0,0,0,0,0,0,24.9578,-32.0744,23.884,19.2068,4.34936,-1.89338,0.0577852,
0.0346335,0.0259152,-0.00361241,-1.8122,0.0687641,0.0694506,0.0253416,0.242536,0.0269341,0.239892,-0.455729,0.798866,-0.803123,-0.0336218,4.57003,-2.60011,4.44536,-5.45777,34.3512,43.3036,-2.34828,31.6658,-2.83351,31.2893,-44.5271,11.4156,-3.49772,-0.473663,0.0327828,0.0247337,-0.00334731,-1.80987,0.0554297,0.0577937,0.0276518,0.455568,-0.0588773,0.491068,-0.768409,0.950672,-1.69112,-0.00934567,0,0,0,0,0,0,0,24.9578,-32.0744,23.884,19.2068,4.34936,-1.89338,0.0577852,
0.0471602,0.0253623,0.0108389,-1.83398,0.101931,0.0382573,0.0255214,0.255006,0.0257051,0.252145,-0.47301,0.876351,-0.62293,-0.0361483,7.7935,-0.768097,7.65775,-10.8007,48.4284,112.621,-1.57906,28.4322,-5.02119,28.1435,-47.0884,11.3707,2.58637,-0.566126,0.0505728,0.0243713,0.0109522,-1.83718,0.0841992,0.00715984,0.0274655,0.522394,-0.0662985,0.528264,-0.911204,0.880388,-1.26529,-0.0227604,8.35319,-0.92765,4.64949,-17.8493,-8.78549,53.2297,-1.67684,20.2922,-29.9281,19.9365,18.9569,3.93463,1.28258,-0.0026396,
0.0494525,0.025491,0.0131037,-1.83814,0.111321,0.0405929,0.0251859,0.261311,0.0237836,0.258334,-0.482509,0.93582,-0.439956,-0.037306,3.94053,-1.20092,3.86867,-5.93713,37.168,114.359,-0.723596,26.2914,-4.24703,26.035,-46.0223,11.3707,3.82312,-0.563045,0.0505728,0.0243713,0.0109522,-1.83718,0.0841992,0.00715984,0.0274655,0.522394,-0.0662985,0.528264,-0.911204,0.880388,-1.26529,-0.0227604,0,0,0,0,0,0,0,20.2922,-29.9281,19.9365,18.9569,3.93463,1.28258,-0.0026396,
0.0516188,0.0255795,0.0152444,-1.84214,0.120592,0.0441341,0.0248826,0.263206,0.0212374,0.260185,-0.486061,0.980444,-0.263435,-0.0374284,1.18454,-1.59139,1.15671,-2.21989,27.8899,110.326,-0.0764472,24.8516,-3.66742,24.6121,-45.0517,11.3707,5.19458,-0.53409,0.0505728,0.0243713,0.0109522,-1.83718,0.0841992,0.00715984,0.0274655,0.522394,-0.0662985,0.528264,-0.911204,0.880388,-1.26529,-0.0227604,0,0,0,0,0,0,0,20.2922,-29.9281,19.9365,18.9569,3.93463,1.28258,-0.0026396,
0.0648304,0.0252167,0.0250163,-1.86328,0.130639,0.0104856,0.0255626,0.267763,0.0211239,0.264703,-0.501056,1.02128,-0.0878623,-0.0373596,2.84773,-0.0709348,2.82336,-9.37184,25.5253,109.733,0.0429568,21.073,-6.14344,20.932,-48.8268,11.3707,11.8861,-0.560781,0.0505728,0.0243713,0.0109522,-1.83718,0.0841992,0.00715984,0.0274655,0.522394,-0.0662985,0.528264,-0.911204,0.880388,-1.26529,-0.0227604,0,0,0,0,0,0,0,20.2922,-29.9281,19.9365,18.9569,3.93463,1.28258,-0.0026396,
0.0669505,0.0253331,0.0271137,-1.86753,0.139985,0.0164569,0.0253019,0.267211,0.0198077,0.264195,-0.507243,1.05069,0.078995,-0.036403,-0.344795,-0.822652,-0.317012,-3.86707,18.3757,104.286,0.597888,20.9616,-5.53263,20.8002,-47.1786,11.4237,12.6752,-0.507099,0.0708655,0.0241054,0.0340688,-1.87136,0.119305,-0.0279442,0.0260955,0.647451,0.00309759,0.725886,-1.06834,1.19809,-0.84006,-0.0403872,15.6321,8.67451,24.7028,-19.6416,39.7121,53.1534,-2.20334,6.44641,-35.5934,6.33668,25.3601,2.37091,2.37023,-0.117081,
0.0689333,0.025405,0.0290761,-1.87159,0.14919,0.023197,0.0250737,0.26334,0.0176447,0.260417,-0.507352,1.07068,0.231696,-0.0348281,-2.41902,-1.35185,-2.36126,-0.068143,12.4955,95.4384,0.984314,20.6309,-4.91892,20.4723,-46.4821,11.4237,12.6752,-0.451623,0.0708655,0.0241054,0.0340688,-1.87136,0.119305,-0.0279442,0.0260955,0.647451,0.00309759,0.725886,-1.06834,1.19809,-0.84006,-0.0403872,0,0,0,0,0,0,0,6.44641,-35.5934,6.33668,25.3601,2.37091,2.37023,-0.117081,
0.0708022,0.0254403,0.0309263,-1.87549,0.15826,0.0304984,0.0248763,0.257395,0.0149973,0.25459,-0.503375,1.08329,0.367892,-0.0327979,-3.71601,-1.65466,-3.64237,2.4861,7.8841,85.1225,1.26887,20.2788,-4.27073,20.1246,-45.7789,11.4237,12.6752,-0.401456,0.0708655,0.0241054,0.0340688,-1.87136,0.119305,-0.0279442,0.0260955,0.647451,0.00309759,0.725886,-1.06834,1.19809,-0.84006,-0.0403872,0,0,0,0,0,0,0,6.44641,-35.5934,6.33668,25.3601,2.37091,2.37023,-0.117081,
0.0940843,0.029058,0.0569539,-1.90752,0.201346,-0.00114605,0.0250024,0.25258,0.0187163,0.249744,-0.489987,1.10128,0.467481,-0.0274609,-3.00932,2.32443,-3.02852,8.36745,11.2389,62.2431,3.33565,18.7783,-1.85015,18.6449,-42.9402,11.4237,12.6752,-0.238167,0.0708655,0.0241054,0.0340688,-1.87136,0.119305,-0.0279442,0.0260955,0.647451,0.00309759,0.725886,-1.06834,1.19809,-0.84006,-0.0403872,0,0,0,0,0,0,0,6.44641,-35.5934,6.33668,25.3601,2.37091,2.37023,-0.117081,
0.0958073,0.0292534,0.0586555,-1.91086,0.210508,0.00583098,0.0249736,0.245141,0.0198574,0.242333,-0.475425,1.11007,0.548411,-0.0226892,-4.64939,0.713176,-4.63178,9.10123,5.49591,50.5809,2.98231,18.4017,-1.36921,18.2733,-42.2481,11.4237,12.6752,-0.205137,0.0708655,0.0241054,0.0340688,-1.87136,0.119305,-0.0279442,0.0260955,0.647451,0.00309759,0.725886,-1.06834,1.19809,-0.84006,-0.0403872,0,0,0,0,0,0,0,6.44641,-35.5934,6.33668,25.3601,2.37091,2.37023,-0.117081,
0.0974113,0.0293868,0.0602396,-1.91407,0.219482,0.0127452,0.0249659,0.236213,0.0192224,0.233471,-0.460622,1.11241,0.611583,-0.0183437,-5.58008,-0.396898,-5.53898,9.25173,1.46087,39.4828,2.7159,17.7007,-1.88825,17.5499,-40.5443,10.9509,13.0558,-0.1829,0.0934141,0.0245327,0.0595227,-1.91186,0.166584,-0.034394,0.0242514,0.660142,0.0549752,0.742822,-1.20329,1.45092,0.429817,-0.0568833,1.5863,6.4847,2.11697,-16.8691,31.6039,158.735,-2.06202,-4.68579,-39.763,-4.56145,35.3735,2.20611,7.5219,-0.163772,
0.0989144,0.0294691,0.0617243,-1.91718,0.228301,0.0195271,0.0249774,0.226547,0.0174351,0.223894,-0.446172,1.1104,0.658814,-0.0143856,-6.04126,-1.11707,-5.98558,9.03109,-1.25312,29.5194,2.47382,17.3361,-1.52911,17.1898,-39.8793,10.9509,13.0558,-0.154251,0.0934141,0.0245327,0.0595227,-1.91186,0.166584,-0.034394,0.0242514,0.660142,0.0549752,0.742822,-1.20329,1.45092,0.429817,-0.0568833,0,0,0,0,0,0,0,-4.68579,-39.763,-4.56145,35.3735,2.20611,7.5219,-0.163772,
0.116805,0.0288483,0.081847,-1.91566,0.399449,-0.0593309,0.0223373,0.181581,0.0112834,0.17919,-0.353576,0.942494,0.531284,-0.0121226,-28.1033,-3.8448,-27.9401,57.8728,-104.942,-79.7068,1.4144,4.61015,0.567298,4.61841,-2.3776,1.47119,2.63487,-0.0237151,0.0934141,0.0245327,0.0595227,-1.91186,0.166584,-0.034394,0.0242514,0.660142,0.0549752,0.742822,-1.20329,1.45092,0.429817,-0.0568833,0,0,0,0,0,0,0,-4.68579,-39.763,-4.56145,35.3735,2.20611,7.5219,-0.163772,
0.116818,0.0287417,0.08185,-1.91553,0.401609,-0.0591621,0.0223127,0.145609,0.00636273,0.143426,-0.279508,0.808008,0.429248,-0.0103118,-22.4828,-3.07541,-22.3519,46.2926,-84.0538,-63.7722,1.13172,4.74814,0.572749,4.76071,-1.90597,2.3397,2.02454,-0.0249597,0.0934141,0.0245327,0.0595227,-1.91186,0.166584,-0.034394,0.0242514,0.660142,0.0549752,0.742822,-1.20329,1.45092,0.429817,-0.0568833,0,0,0,0,0,0,0,-4.68579,-39.763,-4.56145,35.3735,2.20611,7.5219,-0.163772,
0.116832,0.0286352,0.081853,-1.91539,0.403763,-0.0589936,0.0222882,0.116831,0.00242688,0.114816,-0.220262,0.700259,0.347609,-0.00886293,-17.9864,-2.45991,-17.8813,37.0284,-67.3426,-51.0245,0.90557,4.78399,-0.320396,4.77202,-1.56731,2.90198,1.08554,-0.0280802,0.114949,0.0254745,0.0816373,-1.95149,0.220099,0.000220063,0.0231907,0.586827,0.0192383,0.604548,-1.05167,1.67558,1.20168,-0.0127621,-9.16434,-4.46711,-17.2842,18.9527,28.0824,96.4833,5.51515,-11.1525,-35.9187,-10.6869,30.8905,1.15509,4.49883,-0.0969389,
0.116846,0.0285287,0.0818561,-1.91526,0.405911,-0.0588256,0.0222637,0.0938078,-0.000721141,0.0919287,-0.172875,0.613902,0.282287,-0.00770348,-14.3893,-1.96751,-14.3048,29.6171,-53.9732,-40.8262,0.724651,4.87423,-0.29981,4.8659,-1.12851,4.00183,0.370637,-0.0269748,0.114949,0.0254745,0.0816373,-1.95149,0.220099,0.000220063,0.0231907,0.586827,0.0192383,0.604548,-1.05167,1.67558,1.20168,-0.0127621,0,0,0,0,0,0,0,-11.1525,-35.9187,-10.6869,30.8905,1.15509,4.49883,-0.0969389,
0.133443,0.0263146,0.0989684,-1.94977,0.414313,0.017566,0.0211394,0.0753941,-0.00321187,0.0736208,-0.135324,0.546586,0.225737,-0.00675586,-11.5086,-1.55671,-11.4424,23.4695,-42.0727,-35.3436,0.592268,1.27128,-0.239613,1.16189,2.73284,1.99181,3.35263,-0.0465579,0.114949,0.0254745,0.0816373,-1.95149,0.220099,0.000220063,0.0231907,0.586827,0.0192383,0.604548,-1.05167,1.67558,1.20168,-0.0127621,0,0,0,0,0,0,0,-11.1525,-35.9187,-10.6869,30.8905,1.15509,4.49883,-0.0969389,
0.133457,0.0262091,0.0989715,-1.94965,0.416525,0.0175629,0.0211157,0.0606629,-0.00520522,0.058975,-0.10529,0.492577,0.180512,-0.00599756,-9.20699,-1.24585,-9.15362,18.7707,-33.7558,-28.2658,0.473937,1.25402,-0.233832,1.14466,2.73096,2.02339,3.2692,-0.0466043,0.114949,0.0254745,0.0816373,-1.95149,0.220099,0.000220063,0.0231907,0.586827,0.0192383,0.604548,-1.05167,1.67558,1.20168,-0.0127621,0,0,0,0,0,0,0,-11.1525,-35.9187,-10.6869,30.8905,1.15509,4.49883,-0.0969389,
0.133471,0.0261037,0.0989747,-1.94953,0.418731,0.0175604,0.021092,0.0488777,-0.00680067,0.0472589,-0.0812716,0.449214,0.144346,-0.00539072,-7.36573,-0.997154,-7.32257,15.0118,-27.1018,-22.6035,0.379271,0.881714,-0.734251,0.743351,2.47519,1.80739,2.81749,-0.0409954,0.134671,0.0286364,0.100369,-1.98468,0.272643,0.0451151,0.0230733,0.50193,0.18955,0.435664,-0.799651,1.3258,1.11255,0.000589382,-10.6122,21.2889,-21.1105,31.5021,-43.7221,-11.1412,1.66894,-18.6824,-43.3058,-18.2089,36.9922,-1.06781,3.13286,-0.0969389,
0.133484,0.0259982,0.0989779,-1.94941,0.420931,0.0175584,0.0210683,0.0394494,-0.00807779,0.0378865,-0.0620643,0.414369,0.115429,-0.00490506,-5.89272,-0.7982,-5.85773,12.0046,-21.7782,-18.0736,0.303539,0.86468,-0.728343,0.726374,2.47309,1.846,2.73083,-0.0410396,0.134671,0.0286364,0.100369,-1.98468,0.272643,0.0451151,0.0230733,0.50193,0.18955,0.435664,-0.799651,1.3258,1.11255,0.000589382,0,0,0,0,0,0,0,-18.6824,-43.3058,-18.2089,36.9922,-1.06781,3.13286,-0.0969389,
0.150572,0.0295086,0.114827,-1.98154,0.475889,0.0378238,0.021008,0.0319368,-0.00926632,0.0303445,-0.0465731,0.389665,0.0897501,-0.00453321,-4.69532,-0.742829,-4.7138,9.68198,-15.4401,-16.0492,0.232404,0.86468,-0.728343,0.726374,2.47309,1.846,2.73083,-0.0410396,0.134671,0.0286364,0.100369,-1.98468,0.272643,0.0451151,0.0230733,0.50193,0.18955,0.435664,-0.799651,1.3258,1.11255,0.000589382,0,0,0,0,0,0,0,-18.6824,-43.3058,-18.2089,36.9922,-1.06781,3.13286,-0.0969389,
0.150572,0.0295086,0.114827,-1.98154,0.475889,0.0378238,0.021008,0.0259268,-0.0102171,0.0243108,-0.0341802,0.369901,0.0692071,-0.00423574,-3.75625,-0.594263,-3.77104,7.74558,-12.3521,-12.8393,0.185923,0.86468,-0.728343,0.726374,2.47309,1.846,2.73083,-0.0410396,0.134671,0.0286364,0.100369,-1.98468,0.272643,0.0451151,0.0230733,0.50193,0.18955,0.435664,-0.799651,1.3258,1.11255,0.000589382,0,0,0,0,0,0,0,-18.6824,-43.3058,-18.2089,36.9922,-1.06781,3.13286,-0.0969389,
0.150572,0.0295086,0.114827,-1.98154,0.475889,0.0378238,0.021008,0.0211188,-0.0109778,0.0194839,-0.0242659,0.354091,0.0527728,-0.00399776,-3.005,-0.475411,-3.01683,6.19646,-9.88165,-10.2715,0.148738,0.441692,-1.18249,0.246221,2.13749,1.56983,2.49256,-0.0305845,0.146071,0.0373561,0.112562,-1.99598,0.309364,0.05147,0.0230648,0.384025,0.265714,0.27425,-0.0343525,0.842799,-0.192361,1.1237e-05,-14.7381,9.52049,-20.1768,95.6623,-60.3749,-163.114,-0.0722682,-20.7136,-52.617,-20.1608,40.1779,-0.994572,2.37023,-0.103348,
0.150572,0.0295086,0.114827,-1.98154,0.475889,0.0378238,0.021008,0.0172724,-0.0115863,0.0156223,-0.0163344,0.341442,0.0396253,-0.00380737,-2.404,-0.380329,-2.41346,4.95717,-7.90532,-8.21717,0.118991,0.441692,-1.18249,0.246221,2.13749,1.56983,2.49256,-0.0305845,0.146071,0.0373561,0.112562,-1.99598,0.309364,0.05147,0.0230648,0.384025,0.265714,0.27425,-0.0343525,0.842799,-0.192361,1.1237e-05,0,0,0,0,0,0,0,-20.7136,-52.617,-20.1608,40.1779,-0.994572,2.37023,-0.103348,
0.167391,0.0372904,0.132931,-1.99367,0.352505,0.0950568,0.0219106,0.0141836,-0.0116087,0.0124253,-0.0100885,0.345553,0.0188391,-0.00365288,-1.93055,-0.0139938,-1.99812,3.90369,2.56954,-12.9914,0.0965581,6.64108,-0.859012,6.59857,1.07515,-0.91144,3.68165,-0.0218199,0.146071,0.0373561,0.112562,-1.99598,0.309364,0.05147,0.0230648,0.384025,0.265714,0.27425,-0.0343525,0.842799,-0.192361,1.1237e-05,0,0,0,0,0,0,0,-20.7136,-52.617,-20.1608,40.1779,-0.994572,2.37023,-0.103348,
0.167406,0.0371963,0.132928,-1.99355,0.355395,0.0945462,0.0218863,0.0117244,-0.01164,0.00987982,-0.00508792,0.348677,0.00230757,-0.00352964,-1.53699,-0.0195418,-1.59095,3.12535,1.95229,-10.3322,0.0770267,6.49538,-0.86547,6.44772,1.09483,-0.938031,3.576,-0.0218513,0.146071,0.0373561,0.112562,-1.99598,0.309364,0.05147,0.0230648,0.384025,0.265714,0.27425,-0.0343525,0.842799,-0.192361,1.1237e-05,0,0,0,0,0,0,0,-20.7136,-52.617,-20.1608,40.1779,-0.994572,2.37023,-0.103348,
0.167422,0.0371017,0.132926,-1.99343,0.358277,0.0940393,0.021862,0.00976622,-0.011677,0.00785283,-0.00108534,0.351004,-0.010827,-0.00343132,-1.22384,-0.023121,-1.26687,2.50161,1.45411,-8.20908,0.0614473,6.51567,-0.964739,6.41028,0.869046,-1.12446,3.31748,-0.022163,0.153769,0.0432227,0.120805,-1.99621,0.339047,0.0565891,0.0230577,0.0869783,0.112803,0.185178,-0.000755726,0.878302,0.345525,0.000139592,-37.1308,-19.1138,-11.1339,4.1996,4.43784,67.2357,0.0160443,-17.0875,-44.9284,-16.4355,26.8518,-1.09803,-0.991587,-0.0429228,
0.167438,0.0370067,0.132924,-1.99331,0.361153,0.0935358,0.0218377,0.00820683,-0.0117173,0.00623863,0.00211749,0.352687,-0.0212487,-0.00335289,-0.974616,-0.0252082,-1.00887,2.00177,1.05211,-6.51359,0.0490173,6.36821,-0.9703,6.25798,0.889898,-1.14748,3.22576,-0.0221887,0.153769,0.0432227,0.120805,-1.99621,0.339047,0.0565891,0.0230577,0.0869783,0.112803,0.185178,-0.000755726,0.878302,0.345525,0.000139592,0,0,0,0,0,0,0,-17.0875,-44.9284,-16.4355,26.8518,-1.09803,-0.991587,-0.0429228,
0.166673,0.0398548,0.132707,-1.99015,0.42287,0.0891218,0.0217868,0.00701028,-0.0115192,0.00494632,0.00453444,0.354951,-0.0326841,-0.00331047,-0.747845,0.123808,-0.807694,1.51059,1.41469,-7.14709,0.0265106,5.71616,-0.890817,5.66699,0.7773,-0.684716,3.02218,-0.0225491,0.153769,0.0432227,0.120805,-1.99621,0.339047,0.0565891,0.0230577,0.0869783,0.112803,0.185178,-0.000755726,0.878302,0.345525,0.000139592,0,0,0,0,0,0,0,-17.0875,-44.9284,-16.4355,26.8518,-1.09803,-0.991587,-0.0429228,
0.166691,0.0397688,0.132706,-1.99003,0.425774,0.0884982,0.0217617,0.00605381,-0.0113665,0.00391349,0.00646509,0.356565,-0.0417374,-0.00327669,-0.597793,0.0954601,-0.645522,1.20666,1.00884,-5.65831,0.0211169,5.57118,-0.89732,5.51465,0.803864,-0.735913,2.95014,-0.0225744,0.153769,0.0432227,0.120805,-1.99621,0.339047,0.0565891,0.0230577,0.0869783,0.112803,0.185178,-0.000755726,0.878302,0.345525,0.000139592,0,0,0,0,0,0,0,-17.0875,-44.9284,-16.4355,26.8518,-1.09803,-0.991587,-0.0429228,
0.166709,0.0396825,0.132704,-1.98992,0.42867,0.0878784,0.0217366,0.00528922,-0.0112498,0.00308806,0.00800656,0.35766,-0.0488853,-0.0032498,-0.47787,0.0729084,-0.515894,0.96342,0.684277,-4.46747,0.0168055,5.35829,-0.905329,5.28772,0.750654,-0.864467,2.80626,-0.0204496,0.157395,0.0435695,0.122715,-1.99592,0.360856,0.0684759,0.0230609,0.1338,0.00842141,-0.0130103,0.0355414,0.263046,0.426407,0.000738602,5.85266,-13.0477,-24.7736,4.53714,-76.907,10.1103,0.0748763,-4.48346,-35.9941,-4.50987,21.5475,-1.56861,-0.242685,-0.0429228,
0.166727,0.039596,0.132702,-1.98981,0.431559,0.0872624,0.0217114,0.00467798,-0.0111619,0.00242841,0.00923656,0.358339,-0.0545093,-0.00322842,-0.382025,0.0549736,-0.412278,0.768749,0.424826,-3.515,0.0133593,5.21236,-0.912414,5.13475,0.777912,-0.907132,2.7427,-0.0204657,0.157395,0.0435695,0.122715,-1.99592,0.360856,0.0684759,0.0230609,0.1338,0.00842141,-0.0130103,0.0355414,0.263046,0.426407,0.000738602,0,0,0,0,0,0,0,-4.48346,-35.9941,-4.50987,21.5475,-1.56861,-0.242685,-0.0429228,
0.168768,0.0388733,0.13333,-1.98942,0.416538,0.109655,0.0219109,0.0041995,-0.0108729,0.00192693,0.00993789,0.365051,-0.0655324,-0.00321661,-0.299048,0.180601,-0.313428,0.43833,4.19486,-6.88943,0.00738384,6.1347,-0.896279,6.17242,0.921138,-0.847106,3.05301,-0.0203776,0.157395,0.0435695,0.122715,-1.99592,0.360856,0.0684759,0.0230609,0.1338,0.00842141,-0.0130103,0.0355414,0.263046,0.426407,0.000738602,0,0,0,0,0,0,0,-4.48346,-35.9941,-4.50987,21.5475,-1.56861,-0.242685,-0.0429228,
0.168786,0.0387952,0.133329,-1.98932,0.419665,0.108783,0.0218855,0.00382177,-0.0106507,0.00153082,0.0104987,0.370217,-0.07423,-0.00320751,-0.236081,0.138879,-0.24757,0.350537,3.22858,-5.43601,0.00568995,5.98858,-0.904851,6.01578,0.94091,-0.886689,2.9807,-0.0204311,0.157395,0.0435695,0.122715,-1.99592,0.360856,0.0684759,0.0230609,0.1338,0.00842141,-0.0130103,0.0355414,0.263046,0.426407,0.000738602,0,0,0,0,0,0,0,-4.48346,-35.9941,-4.50987,21.5475,-1.56861,-0.242685,-0.0429228,
0.168805,0.0387167,0.133329,-1.98922,0.422784,0.107915,0.0218601,0.00352359,-0.0104815,0.00121798,0.010947,0.374144,-0.0810667,-0.00320055,-0.186363,0.105737,-0.195522,0.280181,2.45444,-4.27291,0.00434683,5.842,-0.913528,5.8589,0.960989,-0.923116,2.91286,-0.0204768,0.15929,0.0427009,0.123544,-1.99567,0.372955,0.0790834,0.0230595,0.0117972,-0.0532877,0.060594,-0.00146821,0.532992,0.151546,4.51842e-06,-15.2503,-7.71364,9.20054,-4.6262,33.7432,-34.3577,-0.0917605,3.53046,-30.3526,3.41279,26.5027,1.8637,1.49499,-0.0301054,
0.168824,0.038638,0.133329,-1.98911,0.425895,0.107053,0.0218347,0.00328821,-0.0103544,0.000970959,0.0113051,0.377079,-0.0864142,-0.0031953,-0.14711,0.0794225,-0.15439,0.223792,1.83435,-3.34218,0.00328216,5.72433,-0.89162,5.73346,0.89781,-0.97783,2.7949,-0.0204246,0.15929,0.0427009,0.123544,-1.99567,0.372955,0.0790834,0.0230595,0.0117972,-0.0532877,0.060594,-0.00146821,0.532992,0.151546,4.51842e-06,0,0,0,0,0,0,0,3.53046,-30.3526,3.41279,26.5027,1.8637,1.49499,-0.0301054,
0.171707,0.0376808,0.135416,-1.98981,0.422152,0.117859,0.0220001,0.00307103,-0.0101821,0.000757146,0.01142,0.384673,-0.0955015,-0.00320254,-0.135737,0.107728,-0.133633,0.0718154,4.74659,-5.67959,-0.00452583,6.51405,-0.654476,6.61216,0.793551,-0.707641,2.87745,-0.0199285,0.15929,0.0427009,0.123544,-1.99567,0.372955,0.0790834,0.0230595,0.0117972,-0.0532877,0.060594,-0.00146821,0.532992,0.151546,4.51842e-06,0,0,0,0,0,0,0,3.53046,-30.3526,3.41279,26.5027,1.8637,1.49499,-0.0301054,
0.171725,0.0376044,0.135416,-1.98972,0.425464,0.116809,0.0219743,0.00291242,-0.0100562,0.000601053,0.011513,0.390554,-0.102642,-0.00320892,-0.0991347,0.078667,-0.097558,0.0581078,3.67552,-4.46292,-0.00398391,6.36016,-0.656836,6.44881,0.815614,-0.75574,2.81787,-0.0200477,0.15929,0.0427009,0.123544,-1.99567,0.372955,0.0790834,0.0230595,0.0117972,-0.0532877,0.060594,-0.00146821,0.532992,0.151546,4.51842e-06,0,0,0,0,0,0,0,3.53046,-30.3526,3.41279,26.5027,1.8637,1.49499,-0.0301054,
0.171744,0.0375275,0.135416,-1.98962,0.428769,0.115765,0.0219484,0.00279756,-0.00996694,0.000488103,0.0115883,0.395058,-0.108222,-0.00321455,-0.0717882,0.0557945,-0.0705942,0.047046,2.81465,-3.48762,-0.00351999,6.20775,-0.662862,6.2862,0.837458,-0.800767,2.76177,-0.0201432,0.15929,0.0427009,0.123544,-1.99567,0.372955,0.0790834,0.0230595,0.0117972,-0.0532877,0.060594,-0.00146821,0.532992,0.151546,4.51842e-06,0,0,0,0,0,0,0,3.53046,-30.3526,3.41279,26.5027,1.8637,1.49499,-0.0301054,
0.191823,0.0373576,0.155846,-1.99627,0.254958,0.403632,0.023896,0.0151242,-0.00730464,0.0134465,0.00884877,0.31538,-0.0657437,-0.0028324,7.70415,1.66394,8.09898,-1.71218,-49.7985,26.5492,0.238845,6.02663,-0.707422,6.10018,0.840584,-0.887242,2.70376,-0.0199047,0.161137,0.0411131,0.125512,-1.99504,0.385368,0.0826127,0.0230624,0.0766606,-0.032988,0.0517744,0.0162323,0.372168,0.139279,-4.04397e-05,8.10793,2.53746,-1.10245,2.21257,-20.103,-1.53329,-0.00561976,1.14612,-32.5981,1.28633,24.4873,2.79846,1.6607,-0.0429228,
0.164492,0.0309327,0.127059,-1.98365,0.695861,0.00632711,0.0202971,0.0126287,-0.00851554,0.01087,0.00961665,0.321917,-0.067461,-0.00296615,-1.55967,-0.756814,-1.61027,0.479926,4.08555,-1.07332,-0.0835947,6.02663,-0.707422,6.10018,0.840584,-0.887242,2.70376,-0.0199047,0.161137,0.0411131,0.125512,-1.99504,0.385368,0.0826127,0.0230624,0.0766606,-0.032988,0.0517744,0.0162323,0.372168,0.139279,-4.04397e-05,0,0,0,0,0,0,0,1.14612,-32.5981,1.28633,24.4873,2.79846,1.6607,-0.0429228,
0.164492,0.0309327,0.127059,-1.98365,0.695861,0.00632711,0.0202971,0.0106323,-0.00948427,0.00880888,0.010231,0.327146,-0.0688348,-0.00307315,-1.24774,-0.605452,-1.28822,0.383941,3.26844,-0.858654,-0.0668758,6.02663,-0.707422,6.10018,0.840584,-0.887242,2.70376,-0.0199047,0.161137,0.0411131,0.125512,-1.99504,0.385368,0.0826127,0.0230624,0.0766606,-0.032988,0.0517744,0.0162323,0.372168,0.139279,-4.04397e-05,0,0,0,0,0,0,0,1.14612,-32.5981,1.28633,24.4873,2.79846,1.6607,-0.0429228,
0.164492,0.0309327,0.127059,-1.98365,0.695861,0.00632711,0.0202971,0.00903523,-0.0102592,0.00715996,0.0107224,0.33133,-0.0699339,-0.00315875,-0.998191,-0.484361,-1.03058,0.307152,2.61475,-0.686923,-0.0535006,6.02663,-0.707422,6.10018,0.840584,-0.887242,2.70376,-0.0199047,0.161137,0.0411131,0.125512,-1.99504,0.385368,0.0826127,0.0230624,0.0766606,-0.032988,0.0517744,0.0162323,0.372168,0.139279,-4.04397e-05,0,0,0,0,0,0,0,1.14612,-32.5981,1.28633,24.4873,2.79846,1.6607,-0.0429228,
0.208816,0.042608,0.174016,-1.98654,0.269996,0.413236,0.0217192,0.00640667,-0.00830335,0.00431582,0.00934276,0.368451,-0.113847,-0.00315202,-1.64285,1.22244,-1.77758,-0.86227,23.2006,-27.4457,0.00420567,6.0185,-0.702688,6.08751,0.81116,-0.919236,2.68968,-0.0197706,0.163585,0.041216,0.12782,-1.99479,0.396703,0.0865954,0.0230545,0.11049,0.0145877,0.0120808,7.28724e-05,0.304825,0.0996036,-0.00120556,4.22865,5.94697,-4.9617,-2.01993,-8.41783,-4.95947,-0.14564,0.741459,-36.0417,0.937208,26.5781,3.80005,1.74676,0.017502,
0.166884,0.0324675,0.129198,-1.98435,0.716539,0.00173975,0.0202768,0.00568485,-0.00925697,0.00356676,0.00998345,0.36709,-0.10735,-0.00322736,-0.451138,-0.596014,-0.468165,0.400431,-0.850621,4.06078,-0.0470844,6.0185,-0.702688,6.08751,0.81116,-0.919236,2.68968,-0.0197706,0.163585,0.041216,0.12782,-1.99479,0.396703,0.0865954,0.0230545,0.11049,0.0145877,0.0120808,7.28724e-05,0.304825,0.0996036,-0.00120556,0,0,0,0,0,0,0,0.741459,-36.0417,0.937208,26.5781,3.80005,1.74676,0.017502,
0.166884,0.0324675,0.129198,-1.98435,0.716539,0.00173975,0.0202768,0.00510739,-0.0100199,0.00296751,0.010496,0.366001,-0.102152,-0.00328762,-0.36091,-0.476811,-0.374532,0.320345,-0.680497,3.24862,-0.0376675,6.0185,-0.702688,6.08751,0.81116,-0.919236,2.68968,-0.0197706,0.163585,0.041216,0.12782,-1.99479,0.396703,0.0865954,0.0230545,0.11049,0.0145877,0.0120808,7.28724e-05,0.304825,0.0996036,-0.00120556,0,0,0,0,0,0,0,0.741459,-36.0417,0.937208,26.5781,3.80005,1.74676,0.017502,
0.166884,0.0324675,0.129198,-1.98435,0.716539,0.00173975,0.0202768,0.00464543,-0.0106302,0.00248811,0.010906,0.36513,-0.0979937,-0.00333584,-0.288728,-0.381449,-0.299626,0.256276,-0.544398,2.5989,-0.030134,6.0185,-0.702688,6.08751,0.81116,-0.919236,2.68968,-0.0197706,0.163585,0.041216,0.12782,-1.99479,0.396703,0.0865954,0.0230545,0.11049,0.0145877,0.0120808,7.28724e-05,0.304825,0.0996036,-0.00120556,0,0,0,0,0,0,0,0.741459,-36.0417,0.937208,26.5781,3.80005,1.74676,0.017502,
0.208117,0.041627,0.174283,-1.98688,0.270038,0.413802,0.0218547,0.00282137,-0.00865697,0.000519606,0.00950166,0.398362,-0.13792,-0.00330052,-1.14004,1.23326,-1.23031,-0.877742,20.7697,-24.9539,0.0220707,6.04905,-0.654757,6.11275,0.742156,-0.943225,2.67309,-0.0197815,0.16591,0.04123,0.130402,-1.99489,0.405303,0.0910358,0.0230453,0.103644,-0.0224581,0.00313546,0.00239409,0.581375,0.0107483,7.12584e-05,-0.85573,-4.63072,-1.11817,0.290152,34.5687,-11.1069,0.159603,1.4278,-33.5979,1.66322,25.733,6.42578,0.281912,0.0641939,
0.1696,0.0314414,0.132206,-1.98431,0.739745,-0.0026023,0.0202723,0.00284545,-0.00960476,0.000565675,0.0100262,0.39337,-0.12813,-0.00334902,0.0150526,-0.592372,0.0287931,0.327844,-3.11976,6.11874,-0.0303103,6.04905,-0.654757,6.11275,0.742156,-0.943225,2.67309,-0.0197815,0.16591,0.04123,0.130402,-1.99489,0.405303,0.0910358,0.0230453,0.103644,-0.0224581,0.00313546,0.00239409,0.581375,0.0107483,7.12584e-05,0,0,0,0,0,0,0,1.4278,-33.5979,1.66322,25.733,6.42578,0.281912,0.0641939,
0.1696,0.0314414,0.132206,-1.98431,0.739745,-0.0026023,0.0202723,0.00286472,-0.010363,0.00060253,0.0104459,0.389377,-0.120298,-0.00338782,0.0120421,-0.473897,0.0230345,0.262275,-2.49581,4.89499,-0.0242482,6.04905,-0.654757,6.11275,0.742156,-0.943225,2.67309,-0.0197815,0.16591,0.04123,0.130402,-1.99489,0.405303,0.0910358,0.0230453,0.103644,-0.0224581,0.00313546,0.00239409,0.581375,0.0107483,7.12584e-05,0,0,0,0,0,0,0,1.4278,-33.5979,1.66322,25.733,6.42578,0.281912,0.0641939,
0.1696,0.0314414,0.132206,-1.98431,0.739745,-0.0026023,0.0202723,0.00288013,-0.0109696,0.000632014,0.0107816,0.386182,-0.114032,-0.00341886,0.00963366,-0.379118,0.0184276,0.20982,-1.99665,3.91599,-0.0193986,6.04905,-0.654757,6.11275,0.742156,-0.943225,2.67309,-0.0197815,0.16591,0.04123,0.130402,-1.99489,0.405303,0.0910358,0.0230453,0.103644,-0.0224581,0.00313546,0.00239409,0.581375,0.0107483,7.12584e-05,0,0,0,0,0,0,0,1.4278,-33.5979,1.66322,25.733,6.42578,0.281912,0.0641939,
0.171861,0.0322759,0.133878,-1.98465,0.781653,-0.00566759,0.0202765,0.0029193,-0.0113533,0.000660559,0.0109271,0.385035,-0.109714,-0.0034458,0.024477,-0.23982,0.0178409,0.0909371,-0.71685,2.69931,-0.0168392,6.14386,-0.53967,6.19883,0.592254,-1.03569,2.67146,-0.0205308,0.167687,0.0413634,0.131646,-1.99497,0.435782,0.0917795,0.0230428,0.0598452,0.0186917,0.0392537,0.00669448,0.998,0.0311527,0.000850094,-5.47484,5.14371,4.51478,0.537549,52.0781,2.55055,0.0973544,2.46723,-36.0695,2.5638,26.2805,3.11615,0.34783,0.00376909,
0.171861,0.0322759,0.133878,-1.98465,0.781653,-0.00566759,0.0202765,0.00295063,-0.0116603,0.000683396,0.0110435,0.384117,-0.106258,-0.00346735,0.0195816,-0.191856,0.0142727,0.0727497,-0.57348,2.15945,-0.0134713,6.14386,-0.53967,6.19883,0.592254,-1.03569,2.67146,-0.0205308,0.167687,0.0413634,0.131646,-1.99497,0.435782,0.0917795,0.0230428,0.0598452,0.0186917,0.0392537,0.00669448,0.998,0.0311527,0.000850094,0,0,0,0,0,0,0,2.46723,-36.0695,2.5638,26.2805,3.11615,0.34783,0.00376909,
0.171861,0.0322759,0.133878,-1.98465,0.781653,-0.00566759,0.0202765,0.00297569,-0.0119058,0.000701665,0.0111366,0.383383,-0.103494,-0.0034846,0.0156653,-0.153485,0.0114182,0.0581998,-0.458784,1.72756,-0.0107771,6.14386,-0.53967,6.19883,0.592254,-1.03569,2.67146,-0.0205308,0.167687,0.0413634,0.131646,-1.99497,0.435782,0.0917795,0.0230428,0.0598452,0.0186917,0.0392537,0.00669448,0.998,0.0311527,0.000850094,0,0,0,0,0,0,0,2.46723,-36.0695,2.5638,26.2805,3.11615,0.34783,0.00376909,
0.171861,0.0322759,0.133878,-1.98465,0.781653,-0.00566759,0.0202765,0.00299574,-0.0121023,0.00071628,0.0112111,0.382796,-0.101283,-0.00349839,0.0125322,-0.122788,0.00913455,0.0465598,-0.367027,1.38205,-0.00862165,6.14386,-0.53967,6.19883,0.592254,-1.03569,2.67146,-0.0205308,0.167687,0.0413634,0.131646,-1.99497,0.435782,0.0917795,0.0230428,0.0598452,0.0186917,0.0392537,0.00669448,0.998,0.0311527,0.000850094,0,0,0,0,0,0,0,2.46723,-36.0695,2.5638,26.2805,3.11615,0.34783,0.00376909,
0.171929,0.0322776,0.133945,-1.98472,0.79254,-0.0113502,0.0202682,0.00303848,-0.012275,0.000753739,0.011261,0.384896,-0.100668,-0.00351205,0.0267107,-0.107928,0.0234117,0.0311785,1.3123,0.384565,-0.00853532,6.14158,-0.51153,6.18894,0.539382,-1.14057,2.69497,-0.0202358,0.169806,0.0414677,0.133229,-1.99457,0.469262,0.0932715,0.0230271,0.0547414,-0.00122718,0.0286489,0.0110268,0.986321,-0.00919235,0.000638387,-0.637976,-2.48985,-1.32559,0.541535,-1.45986,-5.04313,-0.0264633,3.07422,-34.796,3.48817,24.1898,3.84308,-0.680307,-0.0301054,
0.171929,0.0322776,0.133945,-1.98472,0.79254,-0.0113502,0.0202682,0.00307267,-0.0124131,0.000783706,0.0113009,0.386576,-0.100175,-0.00352297,0.0213686,-0.0863426,0.0187293,0.0249428,1.04984,0.307652,-0.00682825,6.14158,-0.51153,6.18894,0.539382,-1.14057,2.69497,-0.0202358,0.169806,0.0414677,0.133229,-1.99457,0.469262,0.0932715,0.0230271,0.0547414,-0.00122718,0.0286489,0.0110268,0.986321,-0.00919235,0.000638387,0,0,0,0,0,0,0,3.07422,-34.796,3.48817,24.1898,3.84308,-0.680307,-0.0301054,
0.171929,0.0322776,0.133945,-1.98472,0.79254,-0.0113502,0.0202682,0.00310002,-0.0125237,0.000807679,0.0113328,0.387919,-0.0997817,-0.00353171,0.0170949,-0.0690741,0.0149835,0.0199542,0.839873,0.246122,-0.0054626,6.14158,-0.51153,6.18894,0.539382,-1.14057,2.69497,-0.0202358,0.169806,0.0414677,0.133229,-1.99457,0.469262,0.0932715,0.0230271,0.0547414,-0.00122718,0.0286489,0.0110268,0.986321,-0.00919235,0.000638387,0,0,0,0,0,0,0,3.07422,-34.796,3.48817,24.1898,3.84308,-0.680307,-0.0301054,
0.171929,0.0322776,0.133945,-1.98472,0.79254,-0.0113502,0.0202682,0.0031219,-0.0126121,0.000826858,0.0113583,0.388994,-0.0994667,-0.0035387,0.0136759,-0.0552593,0.0119868,0.0159634,0.671898,0.196897,-0.00437008,6.14158,-0.51153,6.18894,0.539382,-1.14057,2.69497,-0.0202358,0.169806,0.0414677,0.133229,-1.99457,0.469262,0.0932715,0.0230271,0.0547414,-0.00122718,0.0286489,0.0110268,0.986321,-0.00919235,0.000638387,0,0,0,0,0,0,0,3.07422,-34.796,3.48817,24.1898,3.84308,-0.680307,-0.0301054,
0.173936,0.0321915,0.135394,-1.98466,0.830345,-0.0137986,0.020258,0.00316428,-0.0126199,0.000860681,0.0112461,0.39122,-0.0998419,-0.00354424,0.0264879,-0.00491959,0.0211393,-0.0701673,1.39124,-0.234495,-0.00345765,6.15215,-0.479416,6.19164,0.497718,-1.24203,2.74329,-0.0203641,0.172045,0.0415011,0.135113,-1.99422,0.50349,0.0930257,0.0230163,0.0751988,-0.00660594,0.0580452,0.00184243,1.04319,-0.0200603,0.000519885,2.55717,-0.672344,3.67454,-1.14804,7.10898,-1.35849,-0.0148129,0.967594,-34.9706,1.38948,24.9356,2.64557,-0.175852,-0.0163725,
0.173936,0.0321915,0.135394,-1.98466,0.830345,-0.0137986,0.020258,0.00319819,-0.0126262,0.000887739,0.0111563,0.393001,-0.100142,-0.00354866,0.0211903,-0.00393567,0.0169114,-0.0561338,1.11299,-0.187596,-0.00276612,6.15215,-0.479416,6.19164,0.497718,-1.24203,2.74329,-0.0203641,0.172045,0.0415011,0.135113,-1.99422,0.50349,0.0930257,0.0230163,0.0751988,-0.00660594,0.0580452,0.00184243,1.04319,-0.0200603,0.000519885,0,0,0,0,0,0,0,0.967594,-34.9706,1.38948,24.9356,2.64557,-0.175852,-0.0163725,
0.173936,0.0321915,0.135394,-1.98466,0.830345,-0.0137986,0.020258,0.00322531,-0.0126313,0.000909386,0.0110844,0.394426,-0.100382,-0.0035522,0.0169522,-0.00314854,0.0135291,-0.0449071,0.890394,-0.150077,-0.0022129,6.15215,-0.479416,6.19164,0.497718,-1.24203,2.74329,-0.0203641,0.172045,0.0415011,0.135113,-1.99422,0.50349,0.0930257,0.0230163,0.0751988,-0.00660594,0.0580452,0.00184243,1.04319,-0.0200603,0.000519885,0,0,0,0,0,0,0,0.967594,-34.9706,1.38948,24.9356,2.64557,-0.175852,-0.0163725,
0.173936,0.0321915,0.135394,-1.98466,0.830345,-0.0137986,0.020258,0.00324701,-0.0126353,0.000926703,0.0110269,0.395566,-0.100574,-0.00355504,0.0135618,-0.00251883,0.0108233,-0.0359257,0.712315,-0.120061,-0.00177032,6.15215,-0.479416,6.19164,0.497718,-1.24203,2.74329,-0.0203641,0.172045,0.0415011,0.135113,-1.99422,0.50349,0.0930257,0.0230163,0.0751988,-0.00660594,0.0580452,0.00184243,1.04319,-0.0200603,0.000519885,0,0,0,0,0,0,0,0.967594,-34.9706,1.38948,24.9356,2.64557,-0.175852,-0.0163725,
0.176982,0.0322247,0.138024,-1.98477,0.869473,-0.0168297,0.0202381,0.00328632,-0.0125917,0.000952019,0.0108556,0.397624,-0.100968,-0.00355703,0.0245665,0.0272321,0.0158223,-0.10705,1.28622,-0.245819,-0.00124856,6.15215,-0.479416,6.19164,0.497718,-1.24203,2.74329,-0.0203641,0.172045,0.0415011,0.135113,-1.99422,0.50349,0.0930257,0.0230163,0.0751988,-0.00660594,0.0580452,0.00184243,1.04319,-0.0200603,0.000519885,0,0,0,0,0,0,0,0.967594,-34.9706,1.38948,24.9356,2.64557,-0.175852,-0.0163725,
0.176982,0.0322247,0.138024,-1.98477,0.869473,-0.0168297,0.0202381,0.00331776,-0.0125569,0.000972271,0.0107186,0.39927,-0.101282,-0.00355863,0.0196532,0.0217857,0.0126578,-0.0856397,1.02898,-0.196655,-0.000998846,6.16078,-0.46328,6.19429,0.43876,-1.34901,2.78754,-0.0202598,0.17396,0.0411932,0.137504,-1.99407,0.538032,0.0909817,0.023012,0.0487992,-0.00550419,0.0881041,0.0026174,1.08482,-0.0842021,0.00077077,-3.29995,0.137718,3.75736,0.0968713,5.20327,-8.01772,0.0313606,1.2215,-33.225,1.51246,25.6339,2.51098,0.593191,-0.0301054,
0.176982,0.0322247,0.138024,-1.98477,0.869473,-0.0168297,0.0202381,0.00334292,-0.012529,0.000988473,0.010609,0.400587,-0.101534,-0.00355991,0.0157226,0.0174286,0.0101262,-0.0685118,0.823182,-0.157324,-0.000799077,6.16078,-0.46328,6.19429,0.43876,-1.34901,2.78754,-0.0202598,0.17396,0.0411932,0.137504,-1.99407,0.538032,0.0909817,0.023012,0.0487992,-0.00550419,0.0881041,0.0026174,1.08482,-0.0842021,0.00077077,0,0,0,0,0,0,0,1.2215,-33.225,1.51246,25.6339,2.51098,0.593191,-0.0301054,
0.176982,0.0322247,0.138024,-1.98477,0.869473,-0.0168297,0.0202381,0.00336304,-0.0125067,0.00100143,0.0105213,0.401641,-0.101735,-0.00356093,0.0125781,0.0139428,0.008101,-0.0548094,0.658546,-0.125859,-0.000639261,6.16078,-0.46328,6.19429,0.43876,-1.34901,2.78754,-0.0202598,0.17396,0.0411932,0.137504,-1.99407,0.538032,0.0909817,0.023012,0.0487992,-0.00550419,0.0881041,0.0026174,1.08482,-0.0842021,0.00077077,0,0,0,0,0,0,0,1.2215,-33.225,1.51246,25.6339,2.51098,0.593191,-0.0301054,
0.176305,0.0408444,0.140104,-1.99292,0.531329,0.104084,0.023101,0.0228657,-0.0129028,0.0227761,0.0191484,0.179653,0.070355,-0.00249247,12.1891,-0.247574,13.6092,5.39191,-138.743,107.556,0.667792,-1.9158,1.07563,-1.39375,3.62684,-14.7846,11.9795,-0.00266396,0.17396,0.0411932,0.137504,-1.99407,0.538032,0.0909817,0.023012,0.0487992,-0.00550419,0.0881041,0.0026174,1.08482,-0.0842021,0.00077077,0,0,0,0,0,0,0,1.2215,-33.225,1.51246,25.6339,2.51098,0.593191,-0.0301054,
0.177078,0.0407628,0.140945,-1.9925,0.523723,0.111159,0.0231105,0.037624,-0.0123624,0.0392399,0.0257671,-0.0464288,0.233163,-0.00175783,9.22399,0.337728,10.2898,4.13673,-141.301,101.755,0.45915,-0.420303,1.94115,0.187334,3.75647,-14.8885,12.0343,-0.00495575,0.176714,0.0411327,0.140146,-1.99385,0.573913,0.0880313,0.0230106,0.104272,-0.00236814,0.049036,-0.00709318,1.12844,-0.0962491,0.00230665,6.93408,0.392006,-4.88351,-1.21382,5.45306,-1.50589,0.191985,-0.373349,-34.7444,-0.16173,25.7092,2.24823,0.71221,-0.050247,
0.177809,0.0407225,0.141742,-1.9921,0.51481,0.118922,0.0231178,0.0483796,-0.0108985,0.0513174,0.0304664,-0.259962,0.3806,-0.00122336,6.72221,0.914952,7.54844,2.93703,-133.459,92.1484,0.33404,0.985053,2.35995,1.65719,3.84223,-14.8885,12.0343,-0.00289567,0.176714,0.0411327,0.140146,-1.99385,0.573913,0.0880313,0.0230106,0.104272,-0.00236814,0.049036,-0.00709318,1.12844,-0.0962491,0.00230665,0,0,0,0,0,0,0,-0.373349,-34.7444,-0.16173,25.7092,2.24823,0.71221,-0.050247,
0.179475,0.0408499,0.142875,-1.99268,0.567453,0.101049,0.0232128,0.0624698,-0.012131,0.0642892,0.034649,-0.349259,0.456672,0.000419953,8.80637,-0.770289,8.10738,2.61415,-55.8105,47.5447,1.02707,-0.00500825,2.39626,-0.701741,3.61181,-14.8885,12.0343,0.0353726,0.176714,0.0411327,0.140146,-1.99385,0.573913,0.0880313,0.0230106,0.104272,-0.00236814,0.049036,-0.00709318,1.12844,-0.0962491,0.00230665,0,0,0,0,0,0,0,-0.373349,-34.7444,-0.16173,25.7092,2.24823,0.71221,-0.050247,
0.180395,0.040702,0.143767,-1.99231,0.559824,0.10816,0.0232652,0.0729867,-0.0134029,0.0737358,0.0370523,-0.470141,0.543122,0.00164593,6.5731,-0.794975,5.90411,1.50202,-75.551,54.0313,0.766234,1.59382,2.0357,1.03379,3.56406,-14.8885,12.0343,0.043405,0.176714,0.0411327,0.140146,-1.99385,0.573913,0.0880313,0.0230106,0.104272,-0.00236814,0.049036,-0.00709318,1.12844,-0.0962491,0.00230665,0,0,0,0,0,0,0,-0.373349,-34.7444,-0.16173,25.7092,2.24823,0.71221,-0.050247,
0.181274,0.040556,0.144614,-1.99198,0.550862,0.115963,0.0233157,0.0803761,-0.0143716,0.0801563,0.0378857,-0.600156,0.629573,0.00257823,4.61835,-0.605393,4.01283,0.520873,-81.2593,54.0321,0.58269,2.87852,1.38374,2.37264,3.56138,-14.9665,12.1047,0.0496285,0.179167,0.0413752,0.142826,-1.99333,0.604984,0.0867873,0.0230167,0.0916501,0.0294448,0.0574188,0.0443051,0.605205,0.145072,0.00250733,-1.57772,3.97662,1.04785,6.42479,-65.4048,30.1652,0.025085,-5.72522,-34.796,-5.25969,28.0975,0.654293,3.7362,-0.0630644,
0.182113,0.0404183,0.145417,-1.99169,0.540994,0.124233,0.0233647,0.0852774,-0.0149404,0.0842154,0.0375154,-0.726819,0.710406,0.00328785,3.06334,-0.355542,2.53693,-0.231402,-79.1646,50.5203,0.44351,4.08395,0.816294,3.59932,3.41151,-14.9665,12.1047,0.0533288,0.179167,0.0413752,0.142826,-1.99333,0.604984,0.0867873,0.0230167,0.0916501,0.0294448,0.0574188,0.0443051,0.605205,0.145072,0.00250733,0,0,0,0,0,0,0,-5.72522,-34.796,-5.25969,28.0975,0.654293,3.7362,-0.0630644,
0.181437,0.0412322,0.145133,-1.9924,0.593031,0.103219,0.0233515,0.0873446,-0.0146977,0.0867448,0.0367858,-0.751967,0.740202,0.00538866,1.29195,0.15172,1.58087,-0.456037,-15.7172,18.6225,1.31301,-1.12165,2.37391,-1.47406,1.85855,-14.9665,12.1047,0.100979,0.179167,0.0413752,0.142826,-1.99333,0.604984,0.0867873,0.0230167,0.0916501,0.0294448,0.0574188,0.0443051,0.605205,0.145072,0.00250733,0,0,0,0,0,0,0,-5.72522,-34.796,-5.25969,28.0975,0.654293,3.7362,-0.0630644,
0.182175,0.0411086,0.145881,-1.99218,0.584585,0.1109,0.0234622,0.0883397,-0.0148501,0.0880906,0.0349167,-0.812723,0.784168,0.00707877,0.62197,-0.0952359,0.841104,-1.16814,-37.9729,27.4787,1.05631,0.636319,1.91105,0.460896,1.73269,-14.9665,12.1047,0.113553,0.179167,0.0413752,0.142826,-1.99333,0.604984,0.0867873,0.0230167,0.0916501,0.0294448,0.0574188,0.0443051,0.605205,0.145072,0.00250733,0,0,0,0,0,0,0,-5.72522,-34.796,-5.25969,28.0975,0.654293,3.7362,-0.0630644,
0.182883,0.0409864,0.146598,-1.99201,0.575041,0.119121,0.0235722,0.0883704,-0.0149339,0.0883999,0.0321822,-0.888799,0.832862,0.00841335,0.0191437,-0.0523728,0.19334,-1.70908,-47.5476,30.4341,0.834116,2.12524,2.49941,2.04103,0.360335,-15.2368,11.6821,0.129257,0.18419,0.0414474,0.14742,-1.99192,0.585273,0.120562,0.0230573,0.20394,-0.0250805,0.162272,0.0735883,-1.34939,1.35484,0.00670201,14.0362,-6.81567,13.1066,3.6604,-244.325,151.221,0.524336,-4.48346,-32.2768,-4.21233,26.1298,-4.09089,4.06121,-0.083206,
0.183564,0.040873,0.147287,-1.99188,0.564748,0.127704,0.0236825,0.0877094,-0.014783,0.0879439,0.0288838,-0.968356,0.880868,0.00948792,-0.413067,0.0942616,-0.284966,-2.06149,-49.7227,30.0034,0.671605,3.32274,1.96047,3.31165,0.165849,-15.2368,11.6821,0.135057,0.18419,0.0414474,0.14742,-1.99192,0.585273,0.120562,0.0230573,0.20394,-0.0250805,0.162272,0.0735883,-1.34939,1.35484,0.00670201,0,0,0,0,0,0,0,-4.48346,-32.2768,-4.21233,26.1298,-4.09089,4.06121,-0.083206,
0.189553,0.040349,0.152748,-1.99098,0.517888,0.178219,0.0236373,0.0879445,-0.0151105,0.0881244,0.0237115,-1.06341,0.936268,0.0100367,0.146892,-0.20467,0.112795,-3.23272,-59.4082,34.6251,0.343016,5.10318,1.07979,5.15521,-0.1868,-15.2368,11.6821,0.138315,0.18419,0.0414474,0.14742,-1.99192,0.585273,0.120562,0.0230573,0.20394,-0.0250805,0.162272,0.0735883,-1.34939,1.35484,0.00670201,0,0,0,0,0,0,0,-4.48346,-32.2768,-4.21233,26.1298,-4.09089,4.06121,-0.083206,
0.190239,0.0402327,0.153434,-1.99099,0.506267,0.18743,0.0237322,0.0875168,-0.0149967,0.0876465,0.0188589,-1.14124,0.979288,0.0104009,-0.267291,0.071104,-0.298725,-3.03286,-48.6455,26.8878,0.227624,5.76115,0.742848,5.80305,-0.340431,-15.2368,11.6821,0.138135,0.18419,0.0414474,0.14742,-1.99192,0.585273,0.120562,0.0230573,0.20394,-0.0250805,0.162272,0.0735883,-1.34939,1.35484,0.00670201,0,0,0,0,0,0,0,-4.48346,-32.2768,-4.21233,26.1298,-4.09089,4.06121,-0.083206,
0.19091,0.0401282,0.154104,-1.99102,0.494596,0.196597,0.0238229,0.086782,-0.0146093,0.0868566,0.0143852,-1.20477,1.01259,0.0105897,-0.459263,0.242169,-0.493678,-2.79608,-39.7039,20.8125,0.117965,6.16454,0.774756,6.20213,-0.83879,-15.0715,11.3647,0.139317,0.189634,0.0410616,0.153528,-1.99031,0.530245,0.170749,0.0231275,0.21981,0.0131613,0.102473,0.0106135,-1.47334,1.51108,0.00313302,1.98375,4.78022,-7.4748,-7.87186,-15.4937,19.5301,-0.446125,-4.91589,-31.4754,-4.06157,25.4315,1.38122,3.34435,-0.0026396,
0.191572,0.0400325,0.154763,-1.99106,0.482892,0.205721,0.0239085,0.085965,-0.0140804,0.0859759,0.0103073,-1.25642,1.03819,0.010611,-0.510638,0.330519,-0.550428,-2.54866,-32.2799,16.0014,0.0133322,6.58382,0.534201,6.61332,-0.982398,-15.0715,11.3647,0.13646,0.189634,0.0410616,0.153528,-1.99031,0.530245,0.170749,0.0231275,0.21981,0.0131613,0.102473,0.0106135,-1.47334,1.51108,0.00313302,0,0,0,0,0,0,0,-4.91589,-31.4754,-4.06157,25.4315,1.38122,3.34435,-0.0026396,
0.194739,0.0408134,0.158561,-1.99032,0.460414,0.229579,0.0236156,0.086742,-0.0133265,0.0865969,0.00661023,-1.29647,1.0595,0.0103531,0.485617,0.471196,0.388117,-2.31069,-25.0321,13.3191,-0.161204,7.20337,0.187637,7.20897,-1.22369,-15.0715,11.3647,0.128427,0.189634,0.0410616,0.153528,-1.99031,0.530245,0.170749,0.0231275,0.21981,0.0131613,0.102473,0.0106135,-1.47334,1.51108,0.00313302,0,0,0,0,0,0,0,-4.91589,-31.4754,-4.06157,25.4315,1.38122,3.34435,-0.0026396,
0.195444,0.0407255,0.159264,-1.9904,0.448749,0.238642,0.0236883,0.0870309,-0.0128585,0.0868481,0.00319573,-1.32879,1.07419,0.0101014,0.180589,0.292534,0.15701,-2.13406,-20.1992,9.18158,-0.157277,7.44152,0.0545469,7.43257,-1.32403,-15.0715,11.3647,0.123387,0.189634,0.0410616,0.153528,-1.99031,0.530245,0.170749,0.0231275,0.21981,0.0131613,0.102473,0.0106135,-1.47334,1.51108,0.00313302,0,0,0,0,0,0,0,-4.91589,-31.4754,-4.06157,25.4315,1.38122,3.34435,-0.0026396,
0.196144,0.040633,0.159963,-1.9905,0.43708,0.247633,0.0237585,0.0871232,-0.0125995,0.0869594,5.19179e-05,-1.35475,1.08411,0.00983592,0.0576887,0.161884,0.0695437,-1.96488,-16.2274,6.20042,-0.165959,7.48073,0.718512,7.44586,-2.2264,-15.0485,10.8795,0.121056,0.196051,0.041295,0.159804,-1.9905,0.473069,0.227339,0.0233998,0.228887,-0.00824227,0.12513,0.00675079,-1.88383,1.72574,0.00763683,1.13467,-2.67544,2.83203,-0.482837,-51.3113,26.8328,0.562977,-3.2417,-34.3715,-3.1848,23.7137,-0.756534,2.84081,0.178635,
0.196843,0.040537,0.160664,-1.99062,0.425414,0.256562,0.0238269,0.0871836,-0.0124793,0.0870731,-0.00283763,-1.37545,1.09053,0.00957831,0.0377352,0.0750896,0.0710785,-1.80597,-12.9404,4.01272,-0.161004,7.68293,0.595494,7.63226,-2.3078,-15.0485,10.8795,0.113807,0.196051,0.041295,0.159804,-1.9905,0.473069,0.227339,0.0233998,0.228887,-0.00824227,0.12513,0.00675079,-1.88383,1.72574,0.00763683,0,0,0,0,0,0,0,-3.2417,-34.3715,-3.1848,23.7137,-0.756534,2.84081,0.178635,
0.201214,0.0406641,0.164878,-1.99066,0.398606,0.288232,0.0237385,0.0878939,-0.01292,0.0878154,-0.00466124,-1.39367,1.1002,0.0092003,0.443986,-0.27543,0.463971,-1.13976,-11.384,6.04339,-0.236253,8.1558,0.31401,8.07551,-2.45435,-15.0485,10.8795,0.100886,0.196051,0.041295,0.159804,-1.9905,0.473069,0.227339,0.0233998,0.228887,-0.00824227,0.12513,0.00675079,-1.88383,1.72574,0.00763683,0,0,0,0,0,0,0,-3.2417,-34.3715,-3.1848,23.7137,-0.756534,2.84081,0.178635,
0.201934,0.0405565,0.165599,-1.99077,0.386949,0.297188,0.023798,0.0883131,-0.0130279,0.0882706,-0.00648162,-1.40634,1.10407,0.00884597,0.261968,-0.0674201,0.284463,-1.13774,-7.92155,2.41768,-0.221458,8.38388,0.146375,8.33565,-2.53729,-15.0485,10.8795,0.0975314,0.196051,0.041295,0.159804,-1.9905,0.473069,0.227339,0.0233998,0.228887,-0.00824227,0.12513,0.00675079,-1.88383,1.72574,0.00763683,0,0,0,0,0,0,0,-3.2417,-34.3715,-3.1848,23.7137,-0.756534,2.84081,0.178635,
0.202653,0.0404625,0.166319,-1.99089,0.375349,0.306027,0.0238547,0.088629,-0.0127723,0.0886069,-0.0082043,-1.41509,1.10422,0.00849403,0.197467,0.159734,0.210177,-1.07668,-5.46742,0.0933386,-0.219962,8.59388,0.00465911,8.56195,-2.6327,-15.0485,10.8795,0.0935219,0.196051,0.041295,0.159804,-1.9905,0.473069,0.227339,0.0233998,0.228887,-0.00824227,0.12513,0.00675079,-1.88383,1.72574,0.00763683,0,0,0,0,0,0,0,-3.2417,-34.3715,-3.1848,23.7137,-0.756534,2.84081,0.178635,
0.203368,0.0403855,0.167032,-1.99098,0.363788,0.314556,0.0239071,0.0887712,-0.0121423,0.088732,-0.00903488,-1.42109,1.09661,0.00810534,0.0888707,0.393749,0.0782276,-0.519109,-3.75128,-4.75679,-0.242936,8.48352,0.323747,8.46516,-3.12853,-14.8798,10.4566,0.0933618,0.202037,0.0413471,0.165619,-1.99198,0.405798,0.288761,0.0235223,0.232535,0.0219901,0.146017,-0.0533048,-2.0428,1.79969,0.0021773,0.45605,3.77905,2.61096,-7.50695,-19.8711,9.24402,-0.682442,-1.5675,-34.8714,-0.963121,26.7526,0.843807,2.65496,0.050461,
0.207889,0.0416837,0.171337,-1.99264,0.32225,0.350976,0.0237379,0.0868084,-0.0100675,0.0865063,-0.00831576,-1.379,1.03547,0.00723528,-1.22676,1.29674,-1.39105,0.449452,26.3106,-38.2087,-0.543784,8.89366,0.534435,8.88307,-3.35838,-14.8798,10.4566,0.0830627,0.202037,0.0413471,0.165619,-1.99198,0.405798,0.288761,0.0235223,0.232535,0.0219901,0.146017,-0.0533048,-2.0428,1.79969,0.0021773,0,0,0,0,0,0,0,-1.5675,-34.8714,-0.963121,26.7526,0.843807,2.65496,0.050461,
0.208495,0.0416664,0.171932,-1.99268,0.313314,0.356642,0.0237671,0.0845906,-0.00848864,0.0840922,-0.00765589,-1.3266,0.970021,0.00651776,-1.38613,0.9868,-1.50882,0.412417,32.7504,-40.9088,-0.448449,8.97335,0.712806,8.95058,-3.38772,-14.8798,10.4566,0.0786521,0.202037,0.0413471,0.165619,-1.99198,0.405798,0.288761,0.0235223,0.232535,0.0219901,0.146017,-0.0533048,-2.0428,1.79969,0.0021773,0,0,0,0,0,0,0,-1.5675,-34.8714,-0.963121,26.7526,0.843807,2.65496,0.050461,
0.209082,0.0416475,0.172509,-1.99271,0.305097,0.3617,0.0237947,0.0823482,-0.00726122,0.0817049,-0.00708625,-1.26671,0.902472,0.00590593,-1.40151,0.767134,-1.49208,0.356027,37.4283,-42.2181,-0.382399,9.03327,0.900033,8.99724,-3.40397,-14.8798,9.7076,0.0731965,0.202037,0.0413471,0.165619,-1.99198,0.405798,0.288761,0.0235223,0.232535,0.0219901,0.146017,-0.0533048,-2.0428,1.79969,0.0021773,0,0,0,0,0,0,0,-1.5675,-34.8714,-0.963121,26.7526,0.843807,2.65496,0.050461,
0.209656,0.0416282,0.173074,-1.99275,0.29756,0.366202,0.0238208,0.0802149,-0.00629215,0.0794665,-0.00662333,-1.2018,0.834524,0.00537558,-1.33329,0.605672,-1.39898,0.289322,40.5717,-42.4675,-0.331463,8.74579,1.36934,8.68868,-3.63311,-14.223,8.22194,0.070646,0.209088,0.042511,0.172387,-1.99441,0.333742,0.352667,0.0235535,0.221703,0.0469699,0.15278,-0.0755642,-2.12382,1.81464,0.00133302,-1.354,3.12247,0.845385,-2.78242,-10.127,1.86867,-0.105534,-0.95654,-38.6879,-0.586229,28.1253,2.7124,2.46911,0.0706026,
0.213926,0.0433879,0.177033,-1.99463,0.271434,0.39575,0.023583,0.077289,-0.00504404,0.0764284,-0.00578992,-1.1081,0.751986,0.00473015,-1.82874,0.780069,-1.89883,0.520885,58.5579,-51.5861,-0.403396,8.7422,1.80369,8.65072,-3.58636,-11.1462,5.62206,0.0641566,0.209088,0.042511,0.172387,-1.99441,0.333742,0.352667,0.0235535,0.221703,0.0469699,0.15278,-0.0755642,-2.12382,1.81464,0.00133302,0,0,0,0,0,0,0,-0.95654,-38.6879,-0.586229,28.1253,2.7124,2.46911,0.0706026,
0.214445,0.0433784,0.177542,-1.99466,0.26614,0.398649,0.0235992,0.0748147,-0.00427161,0.0738873,-0.00530181,-1.01883,0.674064,0.00418837,-1.54643,0.482768,-1.58816,0.305064,55.7955,-48.7015,-0.338616,8.65401,1.8978,8.55503,-3.56427,-10.2929,4.92835,0.0622956,0.209088,0.042511,0.172387,-1.99441,0.333742,0.352667,0.0235535,0.221703,0.0469699,0.15278,-0.0755642,-2.12382,1.81464,0.00133302,0,0,0,0,0,0,0,-0.95654,-38.6879,-0.586229,28.1253,2.7124,2.46911,0.0706026,
0.214962,0.0433641,0.17805,-1.99469,0.261352,0.401144,0.0236138,0.0727726,-0.00377533,0.0718059,-0.0050885,-0.934758,0.601625,0.00371552,-1.2763,0.310176,-1.30089,0.133321,52.5448,-45.2738,-0.295529,8.52722,1.96875,8.42269,-3.54154,-9.49891,4.30331,0.0595589,0.209088,0.042511,0.172387,-1.99441,0.333742,0.352667,0.0235535,0.221703,0.0469699,0.15278,-0.0755642,-2.12382,1.81464,0.00133302,0,0,0,0,0,0,0,-0.95654,-38.6879,-0.586229,28.1253,2.7124,2.46911,0.0706026,
0.215477,0.0433475,0.178557,-1.99473,0.257016,0.403292,0.0236267,0.0711044,-0.00343448,0.0701153,-0.00508668,-0.856214,0.535004,0.00329549,-1.04264,0.213031,-1.05663,0.00113935,49.09,-41.6387,-0.262517,8.45706,1.58109,8.35465,-3.05848,-8.30862,3.54246,0.0542076,0.214509,0.0434608,0.178009,-1.99694,0.262967,0.411514,0.0235523,0.142076,0.0199591,0.157504,-0.0629965,-1.85264,1.45899,-0.00165766,-9.95345,-3.37635,0.590454,1.57096,33.8971,-44.4566,-0.373836,1.34845,-36.4662,2.11152,25.6577,4.71008,-0.142893,0.11821,
0.219163,0.0434745,0.182474,-1.99663,0.220177,0.439077,0.0233915,0.0674763,-0.00370654,0.0665269,-0.00492164,-0.731828,0.445162,0.00265125,-2.26757,-0.170041,-2.24279,0.10315,77.7413,-56.1511,-0.402651,7.2524,1.63967,7.14257,-2.90673,-5.01962,1.27195,0.03317,0.214509,0.0434608,0.178009,-1.99694,0.262967,0.411514,0.0235523,0.142076,0.0199591,0.157504,-0.0629965,-1.85264,1.45899,-0.00165766,0,0,0,0,0,0,0,1.34845,-36.4662,2.11152,25.6577,4.71008,-0.142893,0.11821,
0.21959,0.0434424,0.182895,-1.99668,0.218486,0.439628,0.0233914,0.0646735,-0.00376743,0.0637546,-0.00505235,-0.627751,0.369897,0.00211844,-1.75169,-0.0380515,-1.73265,-0.081694,65.0483,-47.0404,-0.333005,7.0441,1.62899,6.93445,-2.87903,-4.62765,1.03811,0.0299503,0.214509,0.0434608,0.178009,-1.99694,0.262967,0.411514,0.0235523,0.142076,0.0199591,0.157504,-0.0629965,-1.85264,1.45899,-0.00165766,0,0,0,0,0,0,0,1.34845,-36.4662,2.11152,25.6577,4.71008,-0.142893,0.11821,
0.22002,0.0434164,0.183318,-1.99673,0.216954,0.440069,0.0233906,0.062478,-0.00366516,0.0615816,-0.0053694,-0.540502,0.306957,0.00167406,-1.37224,0.063918,-1.35812,-0.198157,54.5306,-39.3377,-0.277736,6.83904,1.61636,6.72971,-2.85055,-4.27356,0.835663,0.0270166,0.214509,0.0434608,0.178009,-1.99694,0.262967,0.411514,0.0235523,0.142076,0.0199591,0.157504,-0.0629965,-1.85264,1.45899,-0.00165766,0,0,0,0,0,0,0,1.34845,-36.4662,2.11152,25.6577,4.71008,-0.142893,0.11821,
0.222636,0.0450258,0.185695,-1.99824,0.193366,0.459913,0.0233136,0.0580173,-0.00277347,0.0571382,-0.00573231,-0.446225,0.247423,0.0012004,-2.7879,0.557304,-2.77711,-0.22682,58.9232,-37.2088,-0.296042,5.53155,0.668692,5.43891,-1.66652,-1.64048,-0.0159905,0.00372466,0.218447,0.0448308,0.181659,-1.99803,0.214696,0.447611,0.0235218,0.0946654,0.0252413,0.0766368,-0.032158,-1.09828,0.775742,-0.00353831,-5.9263,0.660266,-10.1084,3.85481,94.295,-85.4059,-0.235081,3.91132,-36.1925,4.58711,25.6339,4.66064,0.115286,0.225327,
0.222954,0.0450358,0.186006,-1.9983,0.192849,0.459972,0.0233079,0.0543566,-0.00196738,0.053489,-0.00607259,-0.369927,0.199405,0.000816684,-2.28793,0.503805,-2.28078,-0.212673,47.6864,-30.0112,-0.239821,5.37188,0.666215,5.28012,-1.63554,-1.52652,-0.041923,0.00265817,0.218447,0.0448308,0.181659,-1.99803,0.214696,0.447611,0.0235218,0.0946654,0.0252413,0.0766368,-0.032158,-1.09828,0.775742,-0.00353831,0,0,0,0,0,0,0,3.91132,-36.1925,4.58711,25.6339,4.66064,0.115286,0.225327,
0.223266,0.0450492,0.186312,-1.99836,0.19236,0.460021,0.023302,0.0513055,-0.00124011,0.050445,-0.00637593,-0.308166,0.160741,0.000505477,-1.90697,0.454548,-1.90247,-0.189593,38.6002,-24.1649,-0.194504,5.21513,0.665238,5.12425,-1.60467,-1.42445,-0.061443,0.00171265,0.218447,0.0448308,0.181659,-1.99803,0.214696,0.447611,0.0235218,0.0946654,0.0252413,0.0766368,-0.032158,-1.09828,0.775742,-0.00353831,0,0,0,0,0,0,0,3.91132,-36.1925,4.58711,25.6339,4.66064,0.115286,0.225327,
0.223573,0.0450654,0.186612,-1.99842,0.191894,0.460064,0.0232959,0.048717,-0.000585528,0.0478607,-0.00663434,-0.258169,0.129671,0.00025262,-1.61777,0.409111,-1.61519,-0.161506,31.2482,-19.4186,-0.158036,5.06099,0.66573,4.971,-1.57411,-1.3327,-0.0757559,0.000850883,0.218447,0.0448308,0.181659,-1.99803,0.214696,0.447611,0.0235218,0.0946654,0.0252413,0.0766368,-0.032158,-1.09828,0.775742,-0.00353831,0,0,0,0,0,0,0,3.91132,-36.1925,4.58711,25.6339,4.66064,0.115286,0.225327,
0.223665,0.0453674,0.187113,-1.99816,0.181383,0.469769,0.0233597,0.0448854,-1.74722e-05,0.0440362,-0.00637014,-0.216475,0.106123,3.59693e-05,-2.39475,0.355035,-2.39032,0.165129,26.0588,-14.7179,-0.135407,4.11381,0.416383,4.03337,-1.03054,-0.695947,-0.0501822,-0.00485234,0.22047,0.0453425,0.18402,-1.99807,0.19075,0.463717,0.0235039,0.0476633,0.0109629,0.06588,0.000678924,-0.460749,0.348344,-0.00123926,-5.87527,-1.78479,-1.34459,4.10462,79.6914,-53.4247,0.287381,4.92694,-35.1689,5.41231,23.3923,3.50067,0.566641,0.131027,
0.223895,0.0453893,0.187336,-1.9982,0.180996,0.469857,0.0233529,0.0416551,0.000533124,0.0408081,-0.00619244,-0.182863,0.0870829,-0.000141525,-2.01897,0.344123,-2.01758,0.111061,21.0074,-11.8998,-0.110934,3.97451,0.425681,3.89481,-1.00327,-0.668257,-0.0407083,-0.00517379,0.22047,0.0453425,0.18402,-1.99807,0.19075,0.463717,0.0235039,0.0476633,0.0109629,0.06588,0.000678924,-0.460749,0.348344,-0.00123926,0,0,0,0,0,0,0,4.92694,-35.1689,5.41231,23.3923,3.50067,0.566641,0.131027,
0.224118,0.0454146,0.187552,-1.99825,0.180621,0.469938,0.0233458,0.0388905,0.0010576,0.0380415,-0.00606609,-0.155668,0.0716895,-0.000288627,-1.72788,0.327795,-1.72913,0.0789707,16.9971,-9.62087,-0.0919386,3.83626,0.435497,3.75726,-0.976448,-0.645309,-0.030171,-0.00546836,0.22047,0.0453425,0.18402,-1.99807,0.19075,0.463717,0.0235039,0.0476633,0.0109629,0.06588,0.000678924,-0.460749,0.348344,-0.00123926,0,0,0,0,0,0,0,4.92694,-35.1689,5.41231,23.3923,3.50067,0.566641,0.131027,
0.224333,0.0454427,0.18776,-1.99829,0.180262,0.470012,0.0233386,0.0364859,0.0015501,0.035631,-0.00596553,-0.133499,0.0592149,-0.000413018,-1.50286,0.307815,-1.50655,0.062848,13.8553,-7.7966,-0.0777445,3.69906,0.445735,3.62072,-0.949982,-0.62693,-0.018588,-0.00572921,0.22047,0.0453425,0.18402,-1.99807,0.19075,0.463717,0.0235039,0.0476633,0.0109629,0.06588,0.000678924,-0.460749,0.348344,-0.00123926,0,0,0,0,0,0,0,4.92694,-35.1689,5.41231,23.3923,3.50067,0.566641,0.131027,
0.220766,0.0458939,0.184285,-1.99851,0.188631,0.465919,0.0234562,0.0365927,0.0150243,0.0351243,-0.0158779,-0.159757,0.102424,-0.00152196,0.0667211,8.42136,-0.316693,-6.19525,-16.4113,27.0054,-0.693092,-0.0182101,30.9807,-0.343693,-22.8799,-1.42044,-2.0734,0.000254519,0.222305,0.0452103,0.185825,-1.99812,0.180289,0.471921,0.0235009,0.0370513,-0.00755575,0.0727225,-0.000830498,-0.207577,0.170066,-0.000472997,-1.3265,-2.31484,0.855312,-0.188678,31.6466,-22.2847,0.0957833,3.1258,-32.8243,3.53578,24.2136,2.33429,1.44189,0.0779268,
0.221019,0.0463282,0.184521,-1.99873,0.18707,0.467099,0.0234386,0.0355787,0.0228769,0.0340122,-0.0183258,-0.166853,0.111442,-0.00165853,-0.633737,4.90789,-0.695064,-1.52993,-4.43508,5.63669,-0.0853566,4.0236,0.380891,3.94441,-0.973463,-0.761251,-0.072429,-0.0052427,0.222305,0.0452103,0.185825,-1.99812,0.180289,0.471921,0.0235009,0.0370513,-0.00755575,0.0727225,-0.000830498,-0.207577,0.170066,-0.000472997,0,0,0,0,0,0,0,3.1258,-32.8243,3.53578,24.2136,2.33429,1.44189,0.0779268,
0.221254,0.0466478,0.184745,-1.9989,0.185871,0.467759,0.0234261,0.0343592,0.0262923,0.0328175,-0.0186816,-0.163452,0.105652,-0.0016406,-0.762193,2.1346,-0.746673,-0.222367,2.12593,-3.61866,0.0112106,3.88527,0.390727,3.80672,-0.946437,-0.738533,-0.0606475,-0.00552989,0.222305,0.0452103,0.185825,-1.99812,0.180289,0.471921,0.0235009,0.0370513,-0.00755575,0.0727225,-0.000830498,-0.207577,0.170066,-0.000472997,0,0,0,0,0,0,0,3.1258,-32.8243,3.53578,24.2136,2.33429,1.44189,0.0779268,
0.221487,0.0468832,0.184968,-1.99903,0.184898,0.468129,0.0234167,0.0332895,0.0269182,0.0318204,-0.0183097,-0.155086,0.0937569,-0.00154639,-0.668536,0.391241,-0.623199,0.232461,5.22865,-7.43472,0.0588829,3.74796,0.400888,3.67004,-0.919784,-0.720263,-0.0478708,-0.00579312,0.222305,0.0452103,0.185825,-1.99812,0.180289,0.471921,0.0235009,0.0370513,-0.00755575,0.0727225,-0.000830498,-0.207577,0.170066,-0.000472997,0,0,0,0,0,0,0,3.1258,-32.8243,3.53578,24.2136,2.33429,1.44189,0.0779268,
0.224256,0.044983,0.187729,-1.99804,0.172582,0.474272,0.0234466,0.0335918,0.0210585,0.0322392,-0.0150728,-0.154625,0.078416,-0.00140739,0.188902,-3.66234,0.261738,2.02303,0.28846,-9.58806,0.0868737,3.55353,0.393107,3.47081,-0.915249,-1.61006,-0.144513,-0.00582951,0.224364,0.0453428,0.18712,-1.99842,0.17443,0.474355,0.0235064,0.0413457,0.0126271,0.0714663,-0.0292119,-0.136142,0.0473219,0.00255396,0.536804,2.52285,-0.157028,-3.54768,8.9293,-15.3431,0.378369,1.04694,-33.947,1.43709,25.6339,0.911556,3.01293,0.017502,
0.224522,0.044973,0.187987,-1.99806,0.17136,0.474377,0.0234399,0.0335194,0.0165957,0.0322611,-0.0126874,-0.154272,0.0653628,-0.00129336,-0.0452136,-2.78926,0.0136874,1.4909,0.22069,-8.15828,0.071267,3.41788,0.406193,3.33561,-0.887644,-1.60644,-0.118504,-0.00604225,0.224364,0.0453428,0.18712,-1.99842,0.17443,0.474355,0.0235064,0.0413457,0.0126271,0.0714663,-0.0292119,-0.136142,0.0473219,0.00255396,0,0,0,0,0,0,0,1.04694,-33.947,1.43709,25.6339,0.911556,3.01293,0.017502,
0.224776,0.0449712,0.188234,-1.99809,0.170136,0.474462,0.0234332,0.0331687,0.0132314,0.0319852,-0.0109349,-0.153996,0.0544244,-0.00120256,-0.219225,-2.10264,-0.172458,1.09533,0.17216,-6.83647,0.0567482,3.284,0.418572,3.20212,-0.860511,-1.60574,-0.0923919,-0.00623652,0.224364,0.0453428,0.18712,-1.99842,0.17443,0.474355,0.0235064,0.0413457,0.0126271,0.0714663,-0.0292119,-0.136142,0.0473219,0.00255396,0,0,0,0,0,0,0,1.04694,-33.947,1.43709,25.6339,0.911556,3.01293,0.017502,
0.225019,0.0449767,0.18847,-1.99813,0.168916,0.474535,0.0234264,0.032609,0.0107232,0.0314836,-0.00964779,-0.153713,0.0453575,-0.00113254,-0.349798,-1.56767,-0.313464,0.804413,0.177116,-5.66682,0.0437625,3.15204,0.430436,3.07049,-0.833851,-1.60708,-0.0665524,-0.00641621,0.224364,0.0453428,0.18712,-1.99842,0.17443,0.474355,0.0235064,0.0413457,0.0126271,0.0714663,-0.0292119,-0.136142,0.0473219,0.00255396,0,0,0,0,0,0,0,1.04694,-33.947,1.43709,25.6339,0.911556,3.01293,0.017502,
0.225615,0.0455348,0.18835,-1.99846,0.168784,0.471709,0.0235092,0.0360078,0.00938487,0.0348961,-0.00821513,-0.17485,0.00709796,-0.000979064,2.12428,-0.836441,2.13283,0.895415,-13.2105,-23.9122,0.0959245,4.16355,0.602874,4.06728,-1.33438,-2.95129,-2.25938,-0.00389074,0.226221,0.0461971,0.189559,-1.99937,0.169211,0.475007,0.0235052,0.0342609,0.0326176,0.100175,-0.02792,-0.165817,0.00475268,0.000845705,-0.885608,2.49882,3.58863,0.161491,-3.70934,-5.32116,-0.213531,1.1977,-36.0695,1.3141,27.5262,0.367733,3.48351,0.0239107,
0.225993,0.0455532,0.188719,-1.9985,0.166613,0.470426,0.0235054,0.0382638,0.00796686,0.0371607,-0.00753037,-0.194159,-0.0263816,-0.000877948,1.41,-0.886253,1.41538,0.427974,-12.0685,-20.9247,0.0631976,4.0336,0.597232,3.92868,-1.28126,-2.95353,-2.15577,-0.00405777,0.226221,0.0461971,0.189559,-1.99937,0.169211,0.475007,0.0235052,0.0342609,0.0326176,0.100175,-0.02792,-0.165817,0.00475268,0.000845705,0,0,0,0,0,0,0,1.1977,-36.0695,1.3141,27.5262,0.367733,3.48351,0.0239107,
0.226355,0.0455669,0.189072,-1.99855,0.164377,0.469092,0.0235012,0.0396524,0.00671674,0.0385555,-0.00736457,-0.211241,-0.054467,-0.000806559,0.867874,-0.78133,0.871706,0.103624,-10.6759,-17.5534,0.0446178,3.9,0.585091,3.79546,-1.24415,-2.97566,-2.05419,-0.00417333,0.226221,0.0461971,0.189559,-1.99937,0.169211,0.475007,0.0235052,0.0342609,0.0326176,0.100175,-0.02792,-0.165817,0.00475268,0.000845705,0,0,0,0,0,0,0,1.1977,-36.0695,1.3141,27.5262,0.367733,3.48351,0.0239107,
0.226701,0.0455812,0.18941,-1.99862,0.162093,0.467745,0.0234968,0.0403858,0.00573082,0.0392934,-0.007524,-0.226089,-0.0772357,-0.000755214,0.458342,-0.616196,0.461185,-0.0996427,-9.28007,-14.2304,0.0320907,3.7686,0.57253,3.66456,-1.20803,-2.9998,-1.95364,-0.00430561,0.226221,0.0461971,0.189559,-1.99937,0.169211,0.475007,0.0235052,0.0342609,0.0326176,0.100175,-0.02792,-0.165817,0.00475268,0.000845705,0,0,0,0,0,0,0,1.1977,-36.0695,1.3141,27.5262,0.367733,3.48351,0.0239107,
0.226636,0.0469095,0.189953,-2.00005,0.168451,0.475317,0.0234804,0.0426833,0.0223942,0.0412945,-0.0229607,-0.199867,-0.0540231,-0.00122522,1.43595,10.4146,1.25069,-9.64794,16.3887,14.5079,-0.293757,0.00472073,30.9742,-0.331113,-22.8536,-1.37845,-2.08057,0.000197721,0.226221,0.0461971,0.189559,-1.99937,0.169211,0.475007,0.0235052,0.0342609,0.0326176,0.100175,-0.02792,-0.165817,0.00475268,0.000845705,0,0,0,0,0,0,0,1.1977,-36.0695,1.3141,27.5262,0.367733,3.48351,0.0239107,
0.227101,0.0474261,0.190414,-2.00019,0.166401,0.472544,0.0235405,0.0457753,0.0308301,0.0445534,-0.0219421,-0.211157,-0.112552,0.000524507,1.9325,5.27239,2.03683,0.63661,-7.05639,-36.5807,1.09358,8.26097,0.264477,8.11993,-4.76348,-3.9163,-9.40556,0.0463299,0.22887,0.0471921,0.192401,-1.99989,0.163399,0.471035,0.0234985,0.109275,0.0289216,0.0955773,-0.0120673,-0.249869,-0.202486,-0.00164885,9.37676,-0.462003,-0.574762,1.98159,-10.5066,-25.9048,-0.31182,0.435978,-36.0179,0.512709,25.3601,-0.52399,2.58263,0.0843355,
0.227592,0.0477249,0.190899,-2.00031,0.163916,0.468347,0.0235795,0.0488875,0.0321325,0.0477646,-0.0204666,-0.231045,-0.194973,0.00139236,1.94512,0.814041,2.00698,0.922195,-12.4303,-51.5129,0.54241,7.88084,0.418634,7.76116,-4.53211,-3.60847,-8.68897,0.0392772,0.22887,0.0471921,0.192401,-1.99989,0.163399,0.471035,0.0234985,0.109275,0.0289216,0.0955773,-0.0120673,-0.249869,-0.202486,-0.00164885,0,0,0,0,0,0,0,0.435978,-36.0179,0.512709,25.3601,-0.52399,2.58263,0.0843355,
0.230523,0.0468075,0.194032,-2.00023,0.157383,0.461249,0.0236848,0.0594466,0.0188531,0.0582315,-0.0223211,-0.259591,-0.293756,0.00285719,6.59947,-8.29967,6.54181,-1.15908,-17.8407,-61.7394,0.915517,11.6935,-4.26023,11.5003,-9.27356,-5.36696,-12.1453,0.13599,0.22887,0.0471921,0.192401,-1.99989,0.163399,0.471035,0.0234985,0.109275,0.0289216,0.0955773,-0.0120673,-0.249869,-0.202486,-0.00164885,0,0,0,0,0,0,0,0.435978,-36.0179,0.512709,25.3601,-0.52399,2.58263,0.0843355,
0.231302,0.0465006,0.194797,-2.00059,0.154776,0.455272,0.0237241,0.0670278,0.00740864,0.0657206,-0.0268479,-0.272866,-0.384426,0.00326704,4.73825,-7.15276,4.68071,-2.82923,-8.29727,-56.6686,0.256153,10.3732,-2.75258,10.2158,-8.635,-3.90851,-10.6551,0.0946834,0.22887,0.0471921,0.192401,-1.99989,0.163399,0.471035,0.0234985,0.109275,0.0289216,0.0955773,-0.0120673,-0.249869,-0.202486,-0.00164885,0,0,0,0,0,0,0,0.435978,-36.0179,0.512709,25.3601,-0.52399,2.58263,0.0843355,
0.232051,0.0462238,0.195534,-2.00104,0.152576,0.44929,0.0237513,0.0723576,-0.000991755,0.0710002,-0.0328153,-0.273272,-0.457108,0.00329361,3.3311,-5.25025,3.29973,-3.72966,-0.253403,-45.4268,0.01661,9.59885,-1.61202,9.453,-7.98198,-2.85021,-9.25701,0.0627418,0.232358,0.0477845,0.195394,-2.00114,0.154495,0.462775,0.0235112,0.0738949,-0.00133863,0.166262,-0.0376094,-0.353996,-0.453317,-0.000609284,-4.42251,-3.78252,8.83559,-3.19277,-13.0158,-31.3539,0.129946,3.42731,-33.1972,3.63893,23.4637,-0.475467,-0.680307,0.017502,
0.232778,0.0459976,0.19625,-2.00157,0.150718,0.443572,0.0237743,0.0760582,-0.00644967,0.0746843,-0.0394123,-0.265078,-0.508641,0.00321099,2.31285,-3.4112,2.3026,-4.12309,5.12108,-32.208,-0.0516397,9.04011,-0.991222,8.90598,-7.50376,-2.26517,-8.00801,0.0466191,0.232358,0.0477845,0.195394,-2.00114,0.154495,0.462775,0.0235112,0.0738949,-0.00133863,0.166262,-0.0376094,-0.353996,-0.453317,-0.000609284,0,0,0,0,0,0,0,3.42731,-33.1972,3.63893,23.4637,-0.475467,-0.680307,0.017502,
0.233092,0.0483334,0.196098,-2.00204,0.153095,0.460724,0.023465,0.0792145,0.00856505,0.0773307,-0.0539619,-0.24706,-0.458176,0.00141439,1.97272,9.3842,1.65395,-9.09353,11.2615,31.5405,-1.12287,0.157368,30.992,-0.196299,-22.8001,-1.28995,-2.03372,-0.000555143,0.232358,0.0477845,0.195394,-2.00114,0.154495,0.462775,0.0235112,0.0738949,-0.00133863,0.166262,-0.0376094,-0.353996,-0.453317,-0.000609284,0,0,0,0,0,0,0,3.42731,-33.1972,3.63893,23.4637,-0.475467,-0.680307,0.017502,
0.233842,0.0487164,0.196836,-2.00256,0.150975,0.455928,0.023534,0.0821259,0.0164261,0.0803173,-0.0562714,-0.250668,-0.486434,0.00285727,1.81964,4.91316,1.86668,-1.44341,-2.25499,-17.6607,0.901801,11.2351,1.1006,11.0512,-10.8073,-3.36939,-11.8036,0.0771713,0.232358,0.0477845,0.195394,-2.00114,0.154495,0.462775,0.0235112,0.0738949,-0.00133863,0.166262,-0.0376094,-0.353996,-0.453317,-0.000609284,0,0,0,0,0,0,0,3.42731,-33.1972,3.63893,23.4637,-0.475467,-0.680307,0.017502,
0.234591,0.0489671,0.197573,-2.00311,0.148868,0.450152,0.0235808,0.0844019,0.0194077,0.0826788,-0.058842,-0.253203,-0.533544,0.00345533,1.4225,1.86348,1.47592,-1.60666,-1.58447,-29.444,0.373784,10.5217,2.08158,10.3854,-9.84048,-2.51303,-9.74016,0.0608643,0.236836,0.0473535,0.200123,-2.0024,0.142607,0.431921,0.0235166,0.0976951,0.00967941,0.169201,-0.100164,-0.253518,-0.877887,-0.00915986,2.97503,1.37725,0.36736,-7.81926,12.5597,-53.0713,-1.06882,2.38788,-33.9986,2.48842,21.9205,0.495907,1.21667,0.0980684,
0.235332,0.0491519,0.198303,-2.00376,0.14698,0.444199,0.0236169,0.0860607,0.0201459,0.0843878,-0.0632564,-0.249767,-0.575679,0.00366723,1.0367,0.461388,1.06814,-2.75895,2.14721,-26.3343,0.132437,9.92506,2.16191,9.7972,-9.30831,-1.99564,-8.14489,0.0514423,0.236836,0.0473535,0.200123,-2.0024,0.142607,0.431921,0.0235166,0.0976951,0.00967941,0.169201,-0.100164,-0.253518,-0.877887,-0.00915986,0,0,0,0,0,0,0,2.38788,-33.9986,2.48842,21.9205,0.495907,1.21667,0.0980684,
0.237686,0.0480621,0.20094,-2.0037,0.14164,0.427444,0.0234798,0.0901047,0.0338333,0.0879277,-0.0829792,-0.223993,-0.572452,0.00201492,2.52753,8.5546,2.21241,-12.3268,16.1089,2.01671,-1.03269,0.264374,30.9849,-0.0916411,-22.7302,-1.22697,-1.88208,-0.00101051,0.236836,0.0473535,0.200123,-2.0024,0.142607,0.431921,0.0235166,0.0976951,0.00967941,0.169201,-0.100164,-0.253518,-0.877887,-0.00915986,0,0,0,0,0,0,0,2.38788,-33.9986,2.48842,21.9205,0.495907,1.21667,0.0980684,
0.238545,0.0485005,0.201787,-2.00472,0.139939,0.420997,0.0235518,0.0935537,0.0380271,0.091509,-0.0919483,-0.221718,-0.619146,0.00341135,2.15563,2.62118,2.23832,-5.60573,1.4216,-29.1835,0.872771,11.7393,-2.05233,11.5848,-13.3686,-2.981,-11.857,0.0814157,0.236836,0.0473535,0.200123,-2.0024,0.142607,0.431921,0.0235166,0.0976951,0.00967941,0.169201,-0.100164,-0.253518,-0.877887,-0.00915986,0,0,0,0,0,0,0,2.38788,-33.9986,2.48842,21.9205,0.495907,1.21667,0.0980684,
0.23939,0.0487767,0.202619,-2.00574,0.138272,0.414089,0.0235974,0.095967,0.0373268,0.0940091,-0.0990945,-0.219051,-0.668022,0.00387019,1.50831,-0.437687,1.56259,-4.46635,1.66702,-30.5476,0.286772,10.7955,-0.568022,10.6771,-12.0401,-1.92627,-9.44097,0.0587665,0.241988,0.0473834,0.205519,-2.0085,0.131969,0.407351,0.0235296,0.246519,0.0053145,0.0928431,-0.125941,-0.232273,-0.931404,-0.00470738,18.603,-0.545614,-9.54472,-3.22218,2.65565,-6.68961,0.55656,0.562931,-31.0271,0.937208,23.912,1.48559,-0.12916,0.0239107,
0.240214,0.0489712,0.203429,-2.00681,0.136856,0.40742,0.0236301,0.097363,0.0347227,0.0954748,-0.105975,-0.210645,-0.70113,0.00391157,0.872483,-1.62761,0.91605,-4.30055,5.2542,-20.6926,0.0258649,10.0966,-0.138498,9.99677,-11.3605,-1.31534,-7.5666,0.0465932,0.241988,0.0473834,0.205519,-2.0085,0.131969,0.407351,0.0235296,0.246519,0.0053145,0.0928431,-0.125941,-0.232273,-0.931404,-0.00470738,0,0,0,0,0,0,0,0.562931,-31.0271,0.937208,23.912,1.48559,-0.12916,0.0239107,
0.243085,0.0481044,0.206555,-2.0099,0.131145,0.402486,0.0234925,0.105316,0.0458039,0.102265,-0.119815,-0.189109,-0.682516,0.00220252,4.97089,6.92578,4.24394,-8.64974,13.4598,11.6338,-1.06816,0.317446,30.8429,-0.0439903,-22.5621,-1.17654,-1.73663,-0.00179328,0.241988,0.0473834,0.205519,-2.0085,0.131969,0.407351,0.0235296,0.246519,0.0053145,0.0928431,-0.125941,-0.232273,-0.931404,-0.00470738,0,0,0,0,0,0,0,0.562931,-31.0271,0.937208,23.912,1.48559,-0.12916,0.0239107,
0.244105,0.0484252,0.207553,-2.01131,0.130184,0.396714,0.0235371,0.109747,0.0446622,0.106763,-0.131239,-0.175299,-0.690315,0.00287587,2.76936,-0.713567,2.8112,-7.14017,8.63109,-4.8746,0.420846,11.4422,-5.65395,11.287,-15.6723,-1.50526,-8.85363,0.0663031,0.241988,0.0473834,0.205519,-2.0085,0.131969,0.407351,0.0235296,0.246519,0.0053145,0.0928431,-0.125941,-0.232273,-0.931404,-0.00470738,0,0,0,0,0,0,0,0.562931,-31.0271,0.937208,23.912,1.48559,-0.12916,0.0239107,
0.245061,0.048583,0.20849,-2.01272,0.12952,0.391026,0.0235617,0.111696,0.0396744,0.108839,-0.140294,-0.156838,-0.694444,0.00291616,1.21775,-3.11735,1.29744,-5.6594,11.538,-2.58075,0.0251808,10.3721,-3.36634,10.2645,-14.0643,-0.389438,-6.20716,0.0407612,0.24778,0.0473695,0.210226,-2.01458,0.121238,0.370813,0.0235273,0.0917789,-0.00495569,0.218939,-0.276426,-0.19068,-0.959131,-0.000594469,-19.3426,-1.28377,15.762,-18.8106,5.19916,-3.46592,0.514114,2.87189,-28.98,3.16286,19.0085,2.24273,1.10406,0.0440523,
0.245961,0.0486738,0.209373,-2.01413,0.129219,0.385942,0.0235775,0.11186,0.0340099,0.109164,-0.14749,-0.132997,-0.682667,0.00272964,0.102421,-3.54036,0.203328,-4.49715,14.9011,7.36086,-0.116579,9.66685,-2.45746,9.5817,-13.2409,0.203197,-4.24081,0.0291066,0.24778,0.0473695,0.210226,-2.01458,0.121238,0.370813,0.0235273,0.0917789,-0.00495569,0.218939,-0.276426,-0.19068,-0.959131,-0.000594469,0,0,0,0,0,0,0,2.87189,-28.98,3.16286,19.0085,2.24273,1.10406,0.0440523,
0.254888,0.0474552,0.214897,-2.01658,0.585018,0.14673,0.0202637,0.0904289,0.0249476,0.0874511,-0.116287,0.0305344,-0.598547,0.00108534,-13.3942,-5.66393,-13.5707,19.5015,102.207,52.5748,-1.02768,9.66685,-2.45746,9.5817,-13.2409,0.203197,-4.24081,0.0291066,0.24778,0.0473695,0.210226,-2.01458,0.121238,0.370813,0.0235273,0.0917789,-0.00495569,0.218939,-0.276426,-0.19068,-0.959131,-0.000594469,0,0,0,0,0,0,0,2.87189,-28.98,3.16286,19.0085,2.24273,1.10406,0.0440523,
0.254888,0.0474552,0.214897,-2.01658,0.585018,0.14673,0.0202637,0.0732842,0.0176977,0.0700806,-0.0913255,0.161359,-0.531252,-0.00023009,-10.7154,-4.53114,-10.8566,15.6012,81.7655,42.0598,-0.822146,9.66685,-2.45746,9.5817,-13.2409,0.203197,-4.24081,0.0291066,0.24778,0.0473695,0.210226,-2.01458,0.121238,0.370813,0.0235273,0.0917789,-0.00495569,0.218939,-0.276426,-0.19068,-0.959131,-0.000594469,0,0,0,0,0,0,0,2.87189,-28.98,3.16286,19.0085,2.24273,1.10406,0.0440523,
0.254888,0.0474552,0.214897,-2.01658,0.585018,0.14673,0.0202637,0.0595685,0.0118979,0.0561842,-0.071356,0.266019,-0.477415,-0.00128244,-8.57232,-3.62491,-8.68525,12.4809,65.4124,33.6479,-0.657717,9.59682,-2.69324,9.50679,-12.9863,0.19395,-4.013,0.0284678,0.253027,0.0472511,0.215912,-2.02671,0.116656,0.341044,0.0235093,0.195518,0.0256337,0.133812,-0.326002,0.0234308,-0.953231,-0.00543067,12.9674,3.82368,-10.6409,-6.19702,26.7638,0.737558,-0.604525,3.96289,-35.7442,4.46412,27.4509,3.64715,1.48125,0.124619,
0.254888,0.0474552,0.214897,-2.01658,0.585018,0.14673,0.0202637,0.048596,0.00725799,0.0450671,-0.0553804,0.349747,-0.434346,-0.00212431,-6.85786,-2.89993,-6.9482,9.98475,52.3299,26.9183,-0.526173,9.59682,-2.69324,9.50679,-12.9863,0.19395,-4.013,0.0284678,0.253027,0.0472511,0.215912,-2.02671,0.116656,0.341044,0.0235093,0.195518,0.0256337,0.133812,-0.326002,0.0234308,-0.953231,-0.00543067,0,0,0,0,0,0,0,3.96289,-35.7442,4.46412,27.4509,3.64715,1.48125,0.124619,
0.260771,0.0500183,0.223484,-2.03389,0.138752,0.335197,0.0234609,0.0519533,0.00680188,0.0552258,-0.0499828,0.335065,-0.313064,-0.00212069,2.09835,-0.285068,6.34921,3.37349,-9.17635,75.8013,0.00226727,8.03261,-5.27338,8.01221,-1.07818,3.46707,4.68056,-0.0123619,0.253027,0.0472511,0.215912,-2.02671,0.116656,0.341044,0.0235093,0.195518,0.0256337,0.133812,-0.326002,0.0234308,-0.953231,-0.00543067,0,0,0,0,0,0,0,3.96289,-35.7442,4.46412,27.4509,3.64715,1.48125,0.124619,
0.2612,0.0500281,0.224253,-2.03405,0.14093,0.336683,0.023433,0.0523032,0.00568547,0.0633993,-0.044118,0.322494,-0.213293,-0.00239359,0.218657,-0.697759,5.1084,3.66548,-7.85653,62.3568,-0.170563,8.39236,-4.53683,8.36505,-1.06739,4.04114,4.08608,-0.00660907,0.253027,0.0472511,0.215912,-2.02671,0.116656,0.341044,0.0235093,0.195518,0.0256337,0.133812,-0.326002,0.0234308,-0.953231,-0.00543067,0,0,0,0,0,0,0,3.96289,-35.7442,4.46412,27.4509,3.64715,1.48125,0.124619,
0.261579,0.0500293,0.224996,-2.03416,0.143073,0.338243,0.0234007,0.0513129,0.0045773,0.0693104,-0.0379538,0.311585,-0.131648,-0.00272214,-0.618928,-0.692604,3.69446,3.85265,-6.81836,51.028,-0.205344,8.63835,-3.56289,8.54458,-0.980108,4.47949,3.79411,-0.00785544,0.253027,0.0472511,0.215912,-2.02671,0.116656,0.341044,0.0235093,0.195518,0.0256337,0.133812,-0.326002,0.0234308,-0.953231,-0.00543067,0,0,0,0,0,0,0,3.96289,-35.7442,4.46412,27.4509,3.64715,1.48125,0.124619,
0.261934,0.0500309,0.225706,-2.03422,0.145154,0.339853,0.0233678,0.0499182,0.00370231,0.0731786,-0.0318123,0.301279,-0.0650667,-0.00299998,-0.87167,-0.546871,2.41761,3.83842,-6.44155,41.6134,-0.173648,8.64663,-2.13973,8.60397,-0.47526,4.4238,3.67574,0.0210003,0.253027,0.0472511,0.215912,-2.02671,0.116656,0.341044,0.0235093,0.195518,0.0256337,0.133812,-0.326002,0.0234308,-0.953231,-0.00543067,0,0,0,0,0,0,0,3.96289,-35.7442,4.46412,27.4509,3.64715,1.48125,0.124619,
0.260576,0.0474253,0.221538,-2.02821,0.485809,0.159186,0.0204812,0.0408739,0.000431076,0.0586784,-0.023464,0.387626,-0.109281,-0.00353737,-5.65271,-2.04452,-9.0626,5.21771,53.9672,-27.6338,-0.335869,1.8061,0.892895,2.002,0.171311,-0.561914,0.646757,-0.0355223,0.253027,0.0472511,0.215912,-2.02671,0.116656,0.341044,0.0235093,0.195518,0.0256337,0.133812,-0.326002,0.0234308,-0.953231,-0.00543067,0,0,0,0,0,0,0,3.96289,-35.7442,4.46412,27.4509,3.64715,1.48125,0.124619,
0.260613,0.0473232,0.221543,-2.02813,0.491658,0.15691,0.0204357,0.0336402,-0.00220863,0.0470801,-0.0167783,0.456329,-0.144313,-0.0039683,-4.52102,-1.64982,-7.24897,4.17852,42.9392,-21.8954,-0.269332,1.82383,0.901779,2.04431,0.221478,-0.419643,0.684307,-0.0379901,0.253027,0.0472511,0.215912,-2.02671,0.116656,0.341044,0.0235093,0.195518,0.0256337,0.133812,-0.326002,0.0234308,-0.953231,-0.00543067,0,0,0,0,0,0,0,3.96289,-35.7442,4.46412,27.4509,3.64715,1.48125,0.124619,
0.260651,0.0472201,0.221549,-2.02805,0.497492,0.154648,0.0203901,0.0278551,-0.00434288,0.0378031,-0.0114231,0.510917,-0.172002,-0.00431405,-3.61571,-1.33391,-5.79808,3.34702,34.1179,-17.3054,-0.216095,1.86108,0.89257,2.10852,0.2829,-0.27738,0.715559,-0.0410676,0.253027,0.0472511,0.215912,-2.02671,0.116656,0.341044,0.0235093,0.195518,0.0256337,0.133812,-0.326002,0.0234308,-0.953231,-0.00543067,0,0,0,0,0,0,0,3.96289,-35.7442,4.46412,27.4509,3.64715,1.48125,0.124619,
0.260689,0.0471162,0.221555,-2.02797,0.503311,0.1524,0.0203445,0.0232287,-0.00607253,0.0303833,-0.00713242,0.554217,-0.193817,-0.00459165,-2.8915,-1.08103,-4.63739,2.68166,27.0619,-13.6341,-0.173498,1.49244,0.963132,1.73898,0.0976855,-0.526086,0.887744,-0.0445398,0.257198,0.0482517,0.220075,-2.03638,0.146461,0.299205,0.0234978,0.10411,0.0209372,0.13381,-0.338566,1.553,-1.03406,0.000714522,-11.426,-0.587069,-0.000260955,-1.57045,191.196,-10.1036,0.768149,3.02265,-40.013,4.03566,35.4727,5.83343,5.63225,0.00376909,
0.270375,0.0495105,0.2333,-2.04197,0.199579,0.30042,0.0231896,0.0279489,-0.00584395,0.035204,-0.00361389,0.463953,-0.118841,-0.00447238,2.95015,0.142864,3.01292,2.19908,-56.4148,46.8595,0.0745383,6.01003,-2.90183,6.06986,0.421753,1.81365,3.89453,0.0206994,0.257198,0.0482517,0.220075,-2.03638,0.146461,0.299205,0.0234978,0.10411,0.0209372,0.13381,-0.338566,1.553,-1.03406,0.000714522,0,0,0,0,0,0,0,3.02265,-40.013,4.03566,35.4727,5.83343,5.63225,0.00376909,
0.270738,0.0494707,0.233721,-2.04189,0.200321,0.30185,0.0231575,0.0314358,-0.00566933,0.0387014,-0.000738373,0.389732,-0.0593297,-0.00438016,2.17931,0.109139,2.1859,1.7972,-46.3879,37.1948,0.0576404,5.71392,-3.44951,5.48892,0.244054,2.18663,3.20456,0.0268326,0.257198,0.0482517,0.220075,-2.03638,0.146461,0.299205,0.0234978,0.10411,0.0209372,0.13381,-0.338566,1.553,-1.03406,0.000714522,0,0,0,0,0,0,0,3.02265,-40.013,4.03566,35.4727,5.83343,5.63225,0.00376909,
0.27109,0.0494304,0.234129,-2.0418,0.200988,0.303259,0.0231254,0.0339667,-0.00554354,0.0411678,0.00160419,0.328448,-0.0122347,-0.00430842,1.58182,0.0786163,1.54147,1.4641,-38.3029,29.4344,0.0448382,5.38021,-3.84816,4.96359,0.000589124,2.85354,2.55276,0.0178565,0.257198,0.0482517,0.220075,-2.03638,0.146461,0.299205,0.0234978,0.10411,0.0209372,0.13381,-0.338566,1.553,-1.03406,0.000714522,0,0,0,0,0,0,0,3.02265,-40.013,4.03566,35.4727,5.83343,5.63225,0.00376909,
0.271434,0.0493894,0.234525,-2.04171,0.201582,0.304647,0.0230931,0.0357576,-0.00546005,0.0428329,0.00350738,0.27762,0.0249011,-0.00425253,1.11928,0.0521865,1.04068,1.1895,-31.767,23.2098,0.0349317,5.37808,-4.80788,4.96007,0.541164,3.54956,2.20193,-0.0105178,0.262002,0.0504037,0.224701,-2.04613,0.198307,0.290112,0.0235093,0.16979,0.0959946,0.101525,-0.145885,1.12246,0.00218284,-0.00103363,8.20994,9.38218,-4.03569,24.085,-53.8171,129.53,-0.218519,-1.26202,-39.6877,-1.01073,39.6066,0.550839,7.0971,-0.0905302,
0.27492,0.0521692,0.23727,-2.04672,0.188942,0.320809,0.0224374,0.0304968,-0.00839231,0.0353726,0.00554779,0.261928,0.00117245,-0.00398501,-3.28796,-1.83267,-4.66264,1.27526,-9.80784,-14.8304,0.167196,3.58667,-0.101884,3.41233,-0.178149,-1.2044,2.32956,-0.0320795,0.262002,0.0504037,0.224701,-2.04613,0.198307,0.290112,0.0235093,0.16979,0.0959946,0.101525,-0.145885,1.12246,0.00218284,-0.00103363,0,0,0,0,0,0,0,-1.26202,-39.6877,-1.01073,39.6066,0.550839,7.0971,-0.0905302,
0.274991,0.052005,0.237303,-2.04662,0.190856,0.319894,0.0224103,0.0261593,-0.0108203,0.0291166,0.0069317,0.25739,-0.0219516,-0.00386433,-2.71096,-1.51749,-3.91001,0.864942,-2.83636,-14.4525,0.0754244,3.50847,-0.0734657,3.3454,-0.152183,-1.21765,2.22037,-0.0323519,0.262002,0.0504037,0.224701,-2.04613,0.198307,0.290112,0.0235093,0.16979,0.0959946,0.101525,-0.145885,1.12246,0.00218284,-0.00103363,0,0,0,0,0,0,0,-1.26202,-39.6877,-1.01073,39.6066,0.550839,7.0971,-0.0905302,
0.275063,0.0518429,0.237339,-2.04653,0.192921,0.318912,0.0223843,0.0227443,-0.0127094,0.0242012,0.00776735,0.257545,-0.0421025,-0.00374108,-2.1344,-1.18069,-3.07215,0.522282,0.0969317,-12.5943,0.0770331,3.43073,-0.045079,3.27903,-0.126263,-1.23197,2.11975,-0.0326119,0.262002,0.0504037,0.224701,-2.04613,0.198307,0.290112,0.0235093,0.16979,0.0959946,0.101525,-0.145885,1.12246,0.00218284,-0.00103363,0,0,0,0,0,0,0,-1.26202,-39.6877,-1.01073,39.6066,0.550839,7.0971,-0.0905302,
0.275142,0.0516865,0.237382,-2.04645,0.195061,0.317909,0.0223576,0.0201651,-0.0140769,0.0204367,0.00823117,0.259539,-0.0587506,-0.0036616,-1.61198,-0.854718,-2.35279,0.289888,1.24665,-10.4051,0.0496777,3.20696,-0.0161026,3.0315,-0.083203,-1.40561,2.12241,-0.030382,0.265594,0.0529916,0.228844,-2.04482,0.230879,0.279217,0.0234533,0.104595,0.0401645,0.156669,0.0774571,0.973018,-0.48883,-0.00171175,-8.1494,-6.97876,6.89309,27.9178,-18.6808,-61.3766,-0.0847655,-1.36517,-42.7068,-0.360094,29.5694,1.92505,3.74261,0.0641939,
0.272875,0.0419422,0.232751,-2.03681,0.809318,0.0540905,0.0188304,0.0171303,-0.0149983,0.0165352,0.00872868,0.339166,-0.0890133,-0.00414295,-1.89675,-0.57585,-2.43847,0.310942,49.7669,-18.9142,-0.300844,3.20696,-0.0161026,3.0315,-0.083203,-1.40561,2.12241,-0.030382,0.265594,0.0529916,0.228844,-2.04482,0.230879,0.279217,0.0234533,0.104595,0.0401645,0.156669,0.0774571,0.973018,-0.48883,-0.00171175,0,0,0,0,0,0,0,-1.36517,-42.7068,-0.360094,29.5694,1.92505,3.74261,0.0641939,
0.272875,0.0419422,0.232751,-2.03681,0.809318,0.0540905,0.0188304,0.0147025,-0.0157354,0.0134139,0.00912668,0.402868,-0.113224,-0.00452803,-1.5174,-0.46068,-1.95077,0.248754,39.8135,-15.1314,-0.240675,3.20696,-0.0161026,3.0315,-0.083203,-1.40561,2.12241,-0.030382,0.265594,0.0529916,0.228844,-2.04482,0.230879,0.279217,0.0234533,0.104595,0.0401645,0.156669,0.0774571,0.973018,-0.48883,-0.00171175,0,0,0,0,0,0,0,-1.36517,-42.7068,-0.360094,29.5694,1.92505,3.74261,0.0641939,
0.272875,0.0419422,0.232751,-2.03681,0.809318,0.0540905,0.0188304,0.0127602,-0.0163251,0.0109169,0.00944509,0.453829,-0.132592,-0.00483609,-1.21392,-0.368544,-1.56062,0.199003,31.8508,-12.1051,-0.19254,3.20696,-0.0161026,3.0315,-0.083203,-1.40561,2.12241,-0.030382,0.265594,0.0529916,0.228844,-2.04482,0.230879,0.279217,0.0234533,0.104595,0.0401645,0.156669,0.0774571,0.973018,-0.48883,-0.00171175,0,0,0,0,0,0,0,-1.36517,-42.7068,-0.360094,29.5694,1.92505,3.74261,0.0641939,
0.272875,0.0419422,0.232751,-2.03681,0.809318,0.0540905,0.0188304,0.0112064,-0.0167968,0.00891935,0.00969981,0.494598,-0.148086,-0.00508254,-0.971134,-0.294835,-1.24849,0.159202,25.4806,-9.68409,-0.154032,3.24988,-0.265284,3.05969,0.111613,-1.40343,2.15001,-0.0313207,0.270128,0.0540605,0.234219,-2.04556,0.24245,0.277292,0.0234676,0.0956695,0.0405873,0.160709,-0.0270391,0.205565,0.054974,0.000800744,-1.11563,0.0528485,0.504976,-13.062,-95.9316,67.9755,0.314062,-3.79712,-36.5694,-3.81163,29.5694,-1.55671,3.51006,-0.0227812,
0.275776,0.0437968,0.236264,-2.03776,0.808134,0.0581483,0.0187797,0.00995099,-0.0171436,0.00726191,0.00992764,0.527172,-0.160796,-0.00527976,-0.784626,-0.216719,-1.03591,0.14239,20.3587,-7.94376,-0.123262,3.24988,-0.265284,3.05969,0.111613,-1.40343,2.15001,-0.0313207,0.270128,0.0540605,0.234219,-2.04556,0.24245,0.277292,0.0234676,0.0956695,0.0405873,0.160709,-0.0270391,0.205565,0.054974,0.000800744,0,0,0,0,0,0,0,-3.79712,-36.5694,-3.81163,29.5694,-1.55671,3.51006,-0.0227812,
0.275776,0.0437968,0.236264,-2.03776,0.808134,0.0581483,0.0187797,0.00894667,-0.017421,0.00593595,0.0101099,0.553231,-0.170964,-0.00543754,-0.627701,-0.173375,-0.828725,0.113912,16.2869,-6.35501,-0.0986095,3.24988,-0.265284,3.05969,0.111613,-1.40343,2.15001,-0.0313207,0.270128,0.0540605,0.234219,-2.04556,0.24245,0.277292,0.0234676,0.0956695,0.0405873,0.160709,-0.0270391,0.205565,0.054974,0.000800744,0,0,0,0,0,0,0,-3.79712,-36.5694,-3.81163,29.5694,-1.55671,3.51006,-0.0227812,
0.275776,0.0437968,0.236264,-2.03776,0.808134,0.0581483,0.0187797,0.00814321,-0.0176429,0.00487518,0.0102557,0.574079,-0.179099,-0.00556376,-0.502161,-0.1387,-0.66298,0.0911295,13.0295,-5.08401,-0.0788876,3.24988,-0.265284,3.05969,0.111613,-1.40343,2.15001,-0.0313207,0.270128,0.0540605,0.234219,-2.04556,0.24245,0.277292,0.0234676,0.0956695,0.0405873,0.160709,-0.0270391,0.205565,0.054974,0.000800744,0,0,0,0,0,0,0,-3.79712,-36.5694,-3.81163,29.5694,-1.55671,3.51006,-0.0227812,
