xiao-wang007/linearmpc_panda/paper_data/panda_torque_PD_controller_Start_at_0_torque_rate_limiter_low_pass_filter/2/trajectory.csv
Commanded Joint 0 Position,Commanded Joint 1 Position,Commanded Joint 2 Position,Commanded Joint 3 Position,Commanded Joint 4 Position,Commanded Joint 5 Position,Commanded Joint 6 Position,Commanded Joint 0 Velocity,Commanded Joint 1 Velocity,Commanded Joint 2 Velocity,Commanded Joint 3 Velocity,Commanded Joint 4 Velocity,Commanded Joint 5 Velocity,Commanded Joint 6 Velocity,Commanded Joint 0 Acceleration,Commanded Joint 1 Acceleration,Commanded Joint 2 Acceleration,Commanded Joint 3 Acceleration,Commanded Joint 4 Acceleration,Commanded Joint 5 Acceleration,Commanded Joint 6 Acceleration,Commanded Joint 0 Torque,Commanded Joint 1 Torque,Commanded Joint 2 Torque,Commanded Joint 3 Torque,Commanded Joint 4 Torque,Commanded Joint 5 Torque,Commanded Joint 6 Torque,Actual Joint 0 Position,Actual Joint 1 Position,Actual Joint 2 Position,Actual Joint 3 Position,Actual Joint 4 Position,Actual Joint 5 Position,Actual Joint 6 Position,Actual Joint 0 Velocity,Actual Joint 1 Velocity,Actual Joint 2 Velocity,Actual Joint 3 Velocity,Actual Joint 4 Velocity,Actual Joint 5 Velocity,Actual Joint 6 Velocity,Actual Joint 0 Acceleration,Actual Joint 1 Acceleration,Actual Joint 2 Acceleration,Actual Joint 3 Acceleration,Actual Joint 4 Acceleration,Actual Joint 5 Acceleration,Actual Joint 6 Acceleration,Actual Joint 0 Torque,Actual Joint 1 Torque,Actual Joint 2 Torque,Actual Joint 3 Torque,Actual Joint 4 Torque,Actual Joint 5 Torque,Actual Joint 6 Torque,
-0.0622221,-0.0983387,0.104094,-1.87938,-0.0014451,0.278877,0.0681477,0.000749564,0.0191396,0.00126173,-0.034474,-0.00554373,0.0522472,-0.000351379,0.468477,11.9623,0.788579,-21.5462,-3.46483,32.6545,-0.219612,0.05358,21.1914,0.463001,-24.5135,-0.574726,1.80457,-0.0237279,-0.0622704,-0.0991015,0.10399,-1.87601,-0.0010632,0.273233,0.0681857,-0.000597069,0.00406265,-0.000529784,0.000224345,0.00255544,-0.000475551,-0.000188833,0,0,0,0,0,0,0,0.0551182,-31.4754,-0.387865,27.2287,0.379635,3.21892,0.0980684,
-0.0622773,-0.0990514,0.103982,-1.87603,-0.00104632,0.273228,0.0681858,0.000559886,0.0156235,0.00096381,-0.0277145,-0.00439909,0.0417195,-0.000280138,-0.118549,-2.19755,-0.186198,4.22466,0.715398,-6.57984,0.0445258,0.0478009,21.6321,0.452619,-24.4298,-0.574721,1.55351,-0.0222157,-0.0622704,-0.0991015,0.10399,-1.87601,-0.0010632,0.273233,0.0681857,-0.000597069,0.00406265,-0.000529784,0.000224345,0.00255544,-0.000475551,-0.000188833,0,0,0,0,0,0,0,0.0551182,-31.4754,-0.387865,27.2287,0.379635,3.21892,0.0980684,
-0.0622785,-0.0990414,0.103981,-1.87603,-0.00104654,0.273224,0.0681858,0.000417722,0.0127474,0.000735382,-0.0222835,-0.00352486,0.0332839,-0.000223743,-0.0888528,-1.79757,-0.142768,3.39439,0.54639,-5.27223,0.0352464,0.0405918,22.2038,0.440878,-24.3218,-0.573954,1.20579,-0.0202487,-0.0622704,-0.0991015,0.10399,-1.87601,-0.0010632,0.273233,0.0681857,-0.000597069,0.00406265,-0.000529784,0.000224345,0.00255544,-0.000475551,-0.000188833,0,0,0,0,0,0,0,0.0551182,-31.4754,-0.387865,27.2287,0.379635,3.21892,0.0980684,
-0.0622794,-0.0990333,0.103979,-1.87603,-0.00104752,0.273221,0.0681858,0.000310581,0.0104,0.000559294,-0.0179178,-0.0028445,0.0265388,-0.000178979,-0.0669628,-1.46712,-0.110055,2.72858,0.425225,-4.21571,0.0279779,0.0346658,22.7314,0.431018,-24.1537,-0.5717,0.820809,-0.0182515,-0.0622731,-0.0989904,0.103994,-1.876,-0.00106668,0.273267,0.0681871,-0.000810589,0.00726286,0.000609396,-0.00476277,0.00277684,0.00646981,-0.000148964,-0.02669,0.400025,0.142397,-0.623389,0.0276754,0.86817,0.00498362,0.134464,-31.1263,-0.237108,26.6772,0.288082,3.4771,0.104477,
-0.0623965,-0.0989108,0.103887,-1.87597,0.00143407,0.272185,0.0681618,-0.00141758,0.00911097,-0.00110335,-0.0138108,0.0358401,0.00433273,-0.000375329,-1.0801,-0.805669,-1.03915,2.56683,24.1779,-13.8788,-0.122719,0.458584,0.17762,0.44967,-0.24868,3.12154,-1.57747,-0.00167065,-0.0622731,-0.0989904,0.103994,-1.876,-0.00106668,0.273267,0.0681871,-0.000810589,0.00726286,0.000609396,-0.00476277,0.00277684,0.00646981,-0.000148964,0,0,0,0,0,0,0,0.134464,-31.1263,-0.237108,26.6772,0.288082,3.4771,0.104477,
-0.0624576,-0.0988909,0.103827,-1.87595,0.00327464,0.271338,0.0681568,-0.00266033,0.00778763,-0.00239398,-0.0106313,0.0746864,-0.0177195,-0.000426632,-0.77672,-0.82709,-0.80664,1.98724,24.2789,-13.7827,-0.0320642,0.453862,0.17694,0.444926,-0.246019,3.09451,-1.56328,-0.00164424,-0.0622731,-0.0989904,0.103994,-1.876,-0.00106668,0.273267,0.0681871,-0.000810589,0.00726286,0.000609396,-0.00476277,0.00277684,0.00646981,-0.000148964,0,0,0,0,0,0,0,0.134464,-31.1263,-0.237108,26.6772,0.288082,3.4771,0.104477,
-0.0625068,-0.0988778,0.103776,-1.87594,0.00529746,0.27038,0.068154,-0.00335898,0.00655626,-0.00317771,-0.00824365,0.110319,-0.0381358,-0.000410613,-0.436657,-0.769608,-0.48983,1.49225,22.2707,-12.7602,0.0100119,0.449176,0.176018,0.440216,-0.243399,3.06733,-1.54914,-0.00161654,-0.0622731,-0.0989904,0.103994,-1.876,-0.00106668,0.273267,0.0681871,-0.000810589,0.00726286,0.000609396,-0.00476277,0.00277684,0.00646981,-0.000148964,0,0,0,0,0,0,0,0.134464,-31.1263,-0.237108,26.6772,0.288082,3.4771,0.104477,
-0.0625426,-0.0988683,0.103738,-1.87594,0.00742473,0.26935,0.0681524,-0.00358179,0.00548198,-0.00348726,-0.00648364,0.141437,-0.0562592,-0.000368267,-0.139254,-0.671422,-0.193473,1.10001,19.4486,-11.3271,0.0264662,0.441262,0.252207,0.426859,-0.23926,3.04059,-1.52784,-0.00163259,-0.0622498,-0.0975631,0.104097,-1.87897,-0.00106356,0.277907,0.0681865,0.000198987,0.0485776,0.00169149,-0.166632,0.0073879,0.129683,0.000277303,0.126197,5.16435,0.135262,-20.2337,0.576383,15.4017,0.0532834,-0.0718349,-19.5458,-0.435472,16.8384,0.538937,0.984122,0.0779268,
-0.0625434,-0.0965418,0.103871,-1.8793,0.00741141,0.271161,0.0680988,-0.00677441,0.0158255,-0.00614149,-0.00679094,0.243745,-0.150622,-0.00115914,-1.99539,6.46472,-1.65889,-0.192061,63.9423,-58.9769,-0.494298,3.67635,1.67065,3.69633,-1.80472,11.0417,-9.19988,-0.00828024,-0.0622498,-0.0975631,0.104097,-1.87897,-0.00106356,0.277907,0.0681865,0.000198987,0.0485776,0.00169149,-0.166632,0.0073879,0.129683,0.000277303,0,0,0,0,0,0,0,-0.0718349,-19.5458,-0.435472,16.8384,0.538937,0.984122,0.0779268,
-0.0626732,-0.0961956,0.10375,-1.87934,0.0138267,0.265968,0.0680786,-0.00866558,0.0213154,-0.00792664,-0.00655953,0.355378,-0.250334,-0.00143115,-1.18198,3.43114,-1.11572,0.144628,69.7706,-62.32,-0.170003,3.56216,1.68262,3.60082,-1.76402,11.0417,-9.07469,-0.00748504,-0.0622498,-0.0975631,0.104097,-1.87897,-0.00106356,0.277907,0.0681865,0.000198987,0.0485776,0.00169149,-0.166632,0.0073879,0.129683,0.000277303,0,0,0,0,0,0,0,-0.0718349,-19.5458,-0.435472,16.8384,0.538937,0.984122,0.0779268,
-0.0627584,-0.0959271,0.103668,-1.87941,0.0209682,0.260185,0.0680667,-0.00906158,0.0237634,-0.00839693,-0.00681789,0.46284,-0.344842,-0.00144231,-0.247496,1.53001,-0.293931,-0.161473,67.1641,-59.0674,-0.00697306,3.44601,1.67588,3.49176,-1.73176,11.0417,-8.95299,-0.00745643,-0.0622498,-0.0975631,0.104097,-1.87897,-0.00106356,0.277907,0.0681865,0.000198987,0.0485776,0.00169149,-0.166632,0.0073879,0.129683,0.000277303,0,0,0,0,0,0,0,-0.0718349,-19.5458,-0.435472,16.8384,0.538937,0.984122,0.0779268,
-0.0627952,-0.0957074,0.103631,-1.87949,0.0285622,0.254042,0.0680593,-0.00816937,0.0245053,-0.0076364,-0.00757966,0.560123,-0.429445,-0.00133902,0.557626,0.46373,0.475332,-0.47611,60.8013,-52.877,0.0645513,3.32062,1.69306,3.36677,-1.71375,11.0097,-8.80961,-0.00772677,-0.0623767,-0.0969013,0.103995,-1.88495,0.00603717,0.275672,0.0681847,0.00482235,0.0354202,-0.00355651,-0.148784,0.227916,-0.204783,0.000880613,0.57792,-1.64467,-0.656,2.23104,27.566,-41.8082,0.0754137,2.21332,-32.2014,1.71083,28.1729,1.80236,1.9793,0.0843355,
-0.061345,-0.0961501,0.105112,-1.88581,0.0143271,0.263104,0.0682516,0.00991055,0.0284027,0.0116557,-0.0153103,0.567978,-0.525904,-0.000344793,11.3,2.43584,12.0575,-4.83163,4.90942,-60.2869,0.621394,25.6442,3.19861,26.5788,-11.113,11.0097,-14.3841,0.0405305,-0.0623767,-0.0969013,0.103995,-1.88495,0.00603717,0.275672,0.0681847,0.00482235,0.0354202,-0.00355651,-0.148784,0.227916,-0.204783,0.000880613,0,0,0,0,0,0,0,2.21332,-32.2014,1.71083,28.1729,1.80236,1.9793,0.0843355,
-0.0604603,-0.0958672,0.106053,-1.8862,0.0200903,0.254544,0.068288,0.0300459,0.0297949,0.0328558,-0.0218232,0.598462,-0.634732,0.000634656,12.5846,0.870109,13.2501,-4.07056,19.0529,-68.0176,0.612155,24.53,3.59792,25.6059,-9.67512,11.0097,-14.3841,0.0292645,-0.0623767,-0.0969013,0.103995,-1.88495,0.00603717,0.275672,0.0681847,0.00482235,0.0354202,-0.00355651,-0.148784,0.227916,-0.204783,0.000880613,0,0,0,0,0,0,0,2.21332,-32.2014,1.71083,28.1729,1.80236,1.9793,0.0843355,
-0.059401,-0.0956835,0.107167,-1.88666,0.0265787,0.245164,0.0683622,0.0505193,0.0284287,0.0541252,-0.0289853,0.640979,-0.742287,0.00236228,12.7959,-0.853846,13.2934,-4.47636,26.5727,-67.2218,1.07977,23.6922,2.85529,24.7263,-8.66362,11.0097,-14.3841,0.0387444,-0.0623767,-0.0969013,0.103995,-1.88495,0.00603717,0.275672,0.0681847,0.00482235,0.0354202,-0.00355651,-0.148784,0.227916,-0.204783,0.000880613,0,0,0,0,0,0,0,2.21332,-32.2014,1.71083,28.1729,1.80236,1.9793,0.0843355,
-0.0608731,-0.0933588,0.105653,-1.88683,0.0524469,0.231145,0.0683588,0.0679719,0.027559,0.0711185,-0.0471977,0.707502,-0.825804,0.00340734,10.9079,-0.543594,10.6208,-11.3827,41.5773,-52.1979,0.653162,32.8954,4.08608,33.8865,-19.3735,10.6911,-14.3901,0.089095,-0.0626255,-0.0937925,0.103929,-1.88513,0.0360604,0.249164,0.0681585,-0.0255411,0.0757865,-0.00881518,0.0132986,1.32268,-1.0784,-0.000139116,-3.79543,5.04578,-0.657334,20.2603,136.846,-109.202,-0.127466,6.1687,-34.6214,5.46388,23.4915,5.30883,-1.64161,0.0843355,
-0.0594911,-0.0931655,0.107079,-1.88789,0.0600217,0.221398,0.0683971,0.0889274,0.0268781,0.0925461,-0.0642276,0.755372,-0.904322,0.00368296,13.0972,-0.425504,13.3923,-10.6437,29.9187,-49.0737,0.17226,30.1723,4.78848,31.2133,-18.1473,10.6911,-14.3901,0.019375,-0.0626255,-0.0937925,0.103929,-1.88513,0.0360604,0.249164,0.0681585,-0.0255411,0.0757865,-0.00881518,0.0132986,1.32268,-1.0784,-0.000139116,0,0,0,0,0,0,0,6.1687,-34.6214,5.46388,23.4915,5.30883,-1.64161,0.0843355,
-0.057942,-0.0929968,0.108688,-1.88904,0.067669,0.211319,0.0684389,0.109869,0.0257216,0.11427,-0.0803076,0.795479,-0.97545,0.00399047,13.0884,-0.722833,13.5772,-10.05,25.0669,-44.4553,0.192197,28.2104,4.40095,29.3036,-17.4638,10.6911,-14.3901,0.0180408,-0.0626255,-0.0937925,0.103929,-1.88513,0.0360604,0.249164,0.0681585,-0.0255411,0.0757865,-0.00881518,0.0132986,1.32268,-1.0784,-0.000139116,0,0,0,0,0,0,0,6.1687,-34.6214,5.46388,23.4915,5.30883,-1.64161,0.0843355,
-0.0563079,-0.0928654,0.110386,-1.89029,0.0755126,0.200996,0.0684606,0.128749,0.0238616,0.133853,-0.0953837,0.832475,-1.03841,0.00373466,11.8002,-1.16253,12.2394,-9.4226,23.1221,-39.3525,-0.159885,26.3492,3.14072,27.401,-17.5014,10.6911,-14.3901,0.0388321,-0.0626255,-0.0937925,0.103929,-1.88513,0.0360604,0.249164,0.0681585,-0.0255411,0.0757865,-0.00881518,0.0132986,1.32268,-1.0784,-0.000139116,0,0,0,0,0,0,0,6.1687,-34.6214,5.46388,23.4915,5.30883,-1.64161,0.0843355,
-0.0609398,-0.093617,0.105656,-1.8874,0.0525531,0.231546,0.068269,0.129775,0.020026,0.134693,-0.1087,0.862118,-1.05753,0.0036305,0.641137,-2.39726,0.525415,-8.32295,18.5273,-11.9504,-0.0650988,32.3974,3.37562,33.9901,-23.8102,10.6307,-13.9971,0.0220689,-0.0619627,-0.0913912,0.106248,-1.88619,0.0731283,0.198374,0.0681527,0.0714944,0.0437805,0.151222,-0.158804,1.16995,-1.59649,0.000800792,12.1294,-4.00074,20.0047,-21.5129,-19.0917,-64.7611,0.117489,16.2099,-27.4327,16.5604,14.3469,2.61535,-2.76222,0.164902,
-0.0595956,-0.0936233,0.107052,-1.88886,0.0601971,0.221984,0.0682748,0.137423,0.0158648,0.142633,-0.123417,0.880795,-1.08506,0.00304934,4.78004,-2.60072,4.96231,-9.19767,11.6732,-17.2035,-0.363225,29.6692,3.06512,30.9934,-22.9893,10.6307,-13.9971,-0.020485,-0.0619627,-0.0913912,0.106248,-1.88619,0.0731283,0.198374,0.0681527,0.0714944,0.0437805,0.151222,-0.158804,1.16995,-1.59649,0.000800792,0,0,0,0,0,0,0,16.2099,-27.4327,16.5604,14.3469,2.61535,-2.76222,0.164902,
-0.0581004,-0.0936643,0.108607,-1.89045,0.0679293,0.212171,0.0682512,0.147318,0.0116656,0.152986,-0.138438,0.897939,-1.11338,0.00185,6.18462,-2.62448,6.47073,-9.3883,10.715,-17.7012,-0.749585,27.3702,1.92221,28.5321,-22.8231,10.6307,-13.9971,-0.0189424,-0.0619627,-0.0913912,0.106248,-1.88619,0.0731283,0.198374,0.0681527,0.0714944,0.0437805,0.151222,-0.158804,1.16995,-1.59649,0.000800792,0,0,0,0,0,0,0,16.2099,-27.4327,16.5604,14.3469,2.61535,-2.76222,0.164902,
-0.0565334,-0.0937147,0.110239,-1.89211,0.075852,0.202272,0.0681904,0.157032,0.00807407,0.163196,-0.152399,0.916421,-1.13819,-3.9526e-05,6.07094,-2.24472,6.38101,-8.72563,11.5511,-15.5035,-1.18095,25.0422,0.927433,26.0656,-22.843,10.6307,-13.5282,-0.0412532,-0.0619627,-0.0913912,0.106248,-1.88619,0.0731283,0.198374,0.0681527,0.0714944,0.0437805,0.151222,-0.158804,1.16995,-1.59649,0.000800792,0,0,0,0,0,0,0,16.2099,-27.4327,16.5604,14.3469,2.61535,-2.76222,0.164902,
-0.0589318,-0.0910632,0.109406,-1.89036,0.0893587,0.175615,0.0681696,0.167009,0.0104941,0.173564,-0.176523,0.931674,-1.19016,-0.000596389,6.23574,1.5125,6.47985,-15.0775,9.53299,-32.4832,-0.348039,33.7449,4.77396,35.3905,-29.9713,10.6307,-13.9971,-0.00824789,-0.0619627,-0.0913912,0.106248,-1.88619,0.0731283,0.198374,0.0681527,0.0714944,0.0437805,0.151222,-0.158804,1.16995,-1.59649,0.000800792,0,0,0,0,0,0,0,16.2099,-27.4327,16.5604,14.3469,2.61535,-2.76222,0.164902,
-0.0571451,-0.0908976,0.111264,-1.89262,0.0973036,0.164584,0.068096,0.178274,0.0125338,0.185302,-0.197598,0.943961,-1.22789,-0.00231505,7.04081,1.2748,7.33671,-13.1717,7.67928,-23.5823,-1.07416,30.71,3.82067,32.0675,-29.1404,10.759,-13.4949,-0.0628303,-0.0555829,-0.0916436,0.114578,-1.8965,0.110341,0.141408,0.0681482,0.29074,-0.0176662,0.242477,-0.382768,0.982161,-1.68244,-0.00256639,27.4057,-7.68084,11.4068,-27.9954,-23.4732,-10.744,-0.420898,20.8516,-24.9373,20.7617,20.8493,3.95843,-1.73408,0.205185,
-0.0553146,-0.0907276,0.113168,-1.89489,0.105387,0.153607,0.0679771,0.188383,0.0142765,0.195855,-0.214809,0.957264,-1.25674,-0.00482454,6.31803,1.08919,6.59568,-10.7574,8.31458,-18.0282,-1.56843,27.6959,2.8772,28.8456,-28.8861,10.759,-13.4949,-0.107508,-0.0555829,-0.0916436,0.114578,-1.8965,0.110341,0.141408,0.0681482,0.29074,-0.0176662,0.242477,-0.382768,0.982161,-1.68244,-0.00256639,0,0,0,0,0,0,0,20.8516,-24.9373,20.7617,20.8493,3.95843,-1.73408,0.205185,
-0.0511974,-0.0915636,0.119147,-1.90254,0.126453,0.118628,0.067939,0.205537,0.0132376,0.21387,-0.24695,0.969731,-1.27642,-0.00718107,10.7211,-0.649279,11.2591,-20.0881,7.79208,-12.2999,-1.47283,30.7981,1.65493,32.1692,-34.0163,10.759,-10.767,-0.113835,-0.0555829,-0.0916436,0.114578,-1.8965,0.110341,0.141408,0.0681482,0.29074,-0.0176662,0.242477,-0.382768,0.982161,-1.68244,-0.00256639,0,0,0,0,0,0,0,20.8516,-24.9373,20.7617,20.8493,3.95843,-1.73408,0.205185,
-0.049057,-0.0914656,0.121379,-1.90548,0.134814,0.108586,0.0677612,0.21794,0.01304,0.226891,-0.271151,0.984805,-1.27219,-0.0101918,7.75195,-0.123484,8.138,-15.1254,9.42084,2.64431,-1.88173,27.4627,0.700571,28.6095,-33.6855,10.759,-10.4099,-0.170821,-0.0555829,-0.0916436,0.114578,-1.8965,0.110341,0.141408,0.0681482,0.29074,-0.0176662,0.242477,-0.382768,0.982161,-1.68244,-0.00256639,0,0,0,0,0,0,0,20.8516,-24.9373,20.7617,20.8493,3.95843,-1.73408,0.205185,
-0.046993,-0.0913607,0.123531,-1.90836,0.143331,0.099206,0.0675677,0.225952,0.0130538,0.235312,-0.288743,1.00076,-1.25226,-0.0129892,5.00766,0.00862493,5.26333,-10.9952,9.97189,12.4565,-1.74833,25.2936,0.551397,26.3517,-32.7827,10.9425,-9.44252,-0.221484,-0.0439962,-0.0918013,0.12775,-1.91154,0.150847,0.080952,0.0681268,0.319088,-0.00901595,0.610616,-0.519135,1.15932,-1.81035,-0.00274762,3.54345,1.08128,46.0174,-17.0459,22.1453,-15.9889,-0.0226533,15.3212,-25.3618,15.2353,17.3383,4.11132,-2.23121,0.0706026,
-0.0450094,-0.0912656,0.125599,-1.9112,0.15195,0.090681,0.0673806,0.230352,0.0128213,0.23995,-0.301975,1.0161,-1.21493,-0.0150707,2.74945,-0.145335,2.89893,-8.2696,9.58644,23.3293,-1.30098,23.3893,0.415565,24.3588,-32.1214,10.9425,-8.97209,-0.236218,-0.0439962,-0.0918013,0.12775,-1.91154,0.150847,0.080952,0.0681268,0.319088,-0.00901595,0.610616,-0.519135,1.15932,-1.81035,-0.00274762,0,0,0,0,0,0,0,15.3212,-25.3618,15.2353,17.3383,4.11132,-2.23121,0.0706026,
-0.0377616,-0.0916667,0.134272,-1.91977,0.170311,0.0625628,0.0675919,0.25826,0.0128516,0.26897,-0.342175,1.05793,-1.16889,-0.0191909,17.4427,0.0189312,18.1371,-25.1249,26.1422,28.7776,-2.57511,25.251,-0.641715,26.2592,-38.9597,10.9425,-1.38467,-0.301841,-0.0439962,-0.0918013,0.12775,-1.91154,0.150847,0.080952,0.0681268,0.319088,-0.00901595,0.610616,-0.519135,1.15932,-1.81035,-0.00274762,0,0,0,0,0,0,0,15.3212,-25.3618,15.2353,17.3383,4.11132,-2.23121,0.0706026,
-0.0350861,-0.0915345,0.137057,-1.92358,0.180078,0.0565869,0.0673067,0.273495,0.0135866,0.284789,-0.368996,1.09049,-1.08451,-0.0224817,9.52189,0.459387,9.88717,-16.7636,20.3544,52.7375,-2.05675,22.9732,-1.13023,23.8645,-38.4741,10.9425,-1.1077,-0.333747,-0.0439962,-0.0918013,0.12775,-1.91154,0.150847,0.080952,0.0681268,0.319088,-0.00901595,0.610616,-0.519135,1.15932,-1.81035,-0.00274762,0,0,0,0,0,0,0,15.3212,-25.3618,15.2353,17.3383,4.11132,-2.23121,0.0706026,
-0.0326469,-0.0914107,0.139595,-1.92722,0.189722,0.0522961,0.0670417,0.279775,0.0139658,0.291298,-0.386336,1.1135,-0.974874,-0.0246122,3.92473,0.236972,4.06807,-10.8375,14.3817,68.5198,-1.33155,21.5124,-1.23288,22.4011,-37.3563,10.894,-0.137708,-0.337654,-0.0267926,-0.0913683,0.145817,-1.93383,0.195765,0.0247897,0.0676003,0.656333,0.0540763,0.418908,-0.743153,1.33607,-1.57303,-0.0271743,42.1557,7.88653,-23.9635,-28.0022,22.093,29.6651,-3.05333,6.7519,-31.0509,6.2613,25.1855,2.68219,0.241629,0.0440523,
-0.0304007,-0.0913149,0.141934,-1.93077,0.199207,0.0497943,0.0668011,0.279975,0.013568,0.29149,-0.397686,1.12792,-0.842446,-0.0257036,0.125498,-0.248585,0.119635,-7.0935,9.01305,82.7676,-0.682129,20.3716,-1.12675,21.2234,-36.6248,10.894,1.14853,-0.313902,-0.0267926,-0.0913683,0.145817,-1.93383,0.195765,0.0247897,0.0676003,0.656333,0.0540763,0.418908,-0.743153,1.33607,-1.57303,-0.0271743,0,0,0,0,0,0,0,6.7519,-31.0509,6.2613,25.1855,2.68219,0.241629,0.0440523,
-0.0202043,-0.0905062,0.152656,-1.94457,0.217491,0.0149941,0.0666987,0.299968,0.0214761,0.312392,-0.446533,1.17115,-0.74752,-0.0312854,12.4953,4.94252,13.0643,-30.5292,27.0183,59.3287,-3.48865,15.7128,-3.56927,16.4003,-43.2449,10.894,10.5225,-0.560586,-0.0267926,-0.0913683,0.145817,-1.93383,0.195765,0.0247897,0.0676003,0.656333,0.0540763,0.418908,-0.743153,1.33607,-1.57303,-0.0271743,0,0,0,0,0,0,0,6.7519,-31.0509,6.2613,25.1855,2.68219,0.241629,0.0440523,
-0.0175457,-0.0901379,0.155427,-1.9493,0.227885,0.0150275,0.0663247,0.30644,0.0263886,0.319193,-0.475489,1.19678,-0.597181,-0.0343792,4.04536,3.07031,4.25046,-18.0978,16.015,93.9615,-1.93359,15.7724,-3.46065,16.4571,-42.6047,10.894,10.4141,-0.50136,-0.0267926,-0.0913683,0.145817,-1.93383,0.195765,0.0247897,0.0676003,0.656333,0.0540763,0.418908,-0.743153,1.33607,-1.57303,-0.0271743,0,0,0,0,0,0,0,6.7519,-31.0509,6.2613,25.1855,2.68219,0.241629,0.0440523,
-0.0151844,-0.0898424,0.157889,-1.95369,0.237896,0.0173759,0.0660004,0.304185,0.0284991,0.316909,-0.490215,1.20769,-0.419035,-0.0356101,-1.40956,1.3191,-1.42747,-9.20388,6.82336,111.341,-0.769297,15.9324,-3.75259,16.6925,-40.606,10.7883,11.7481,-0.448118,-0.00482355,-0.0908458,0.166415,-1.96524,0.24644,-0.0106126,0.0666594,0.5613,0.0425426,0.744367,-1.02286,1.50964,-0.618553,-0.0303252,-11.8792,-1.44171,40.6823,-34.9632,21.6961,119.31,-0.393868,-0.274166,-30.3526,-0.610033,26.5781,2.25464,3.14568,-0.0969389,
-0.0130606,-0.0896222,0.160105,-1.95779,0.247548,0.0213928,0.0657197,0.296443,0.0283026,0.308919,-0.494635,1.20745,-0.234806,-0.0355061,-4.83875,-0.122839,-4.99381,-2.7626,-0.154008,115.143,0.0649611,15.8799,-3.27193,16.645,-39.8254,10.7883,12.4141,-0.390094,-0.00482355,-0.0908458,0.166415,-1.96524,0.24644,-0.0106126,0.0666594,0.5613,0.0425426,0.744367,-1.02286,1.50964,-0.618553,-0.0303252,0,0,0,0,0,0,0,-0.274166,-30.3526,-0.610033,26.5781,2.25464,3.14568,-0.0969389,
0.00248823,-0.0898304,0.17408,-1.97728,0.269831,-0.0129305,0.065513,0.319056,0.0337821,0.332692,-0.535555,1.25333,-0.18561,-0.0414283,14.1327,3.42469,14.8579,-25.5747,28.6791,30.7471,-3.70136,7.2787,-9.81228,7.63636,-46.2272,10.7883,12.4141,-0.734478,-0.00482355,-0.0908458,0.166415,-1.96524,0.24644,-0.0106126,0.0666594,0.5613,0.0425426,0.744367,-1.02286,1.50964,-0.618553,-0.0303252,0,0,0,0,0,0,0,-0.274166,-30.3526,-0.610033,26.5781,2.25464,3.14568,-0.0969389,
0.00521049,-0.0895506,0.176919,-1.98231,0.280789,-0.0107978,0.0650912,0.323301,0.0340213,0.337119,-0.55418,1.2766,-0.0951713,-0.0436876,2.6534,0.149504,2.76715,-11.6408,14.5395,56.5244,-1.41206,9.40089,-8.54555,9.82908,-45.2877,10.7883,12.4141,-0.594281,-0.00482355,-0.0908458,0.166415,-1.96524,0.24644,-0.0106126,0.0666594,0.5613,0.0425426,0.744367,-1.02286,1.50964,-0.618553,-0.0303252,0,0,0,0,0,0,0,-0.274166,-30.3526,-0.610033,26.5781,2.25464,3.14568,-0.0969389,
0.00752814,-0.089416,0.179332,-1.98693,0.291195,-0.00706093,0.0647484,0.316582,0.0305798,0.330022,-0.558662,1.28145,0.0172846,-0.043521,-4.19932,-2.15092,-4.43592,-2.80122,3.03059,70.2849,0.104105,10.6644,-8.5514,11.2277,-43.6069,10.4032,12.5116,-0.492716,0.0134238,-0.0916206,0.192531,-2.00332,0.301551,-0.00814643,0.0654745,0.578669,-0.0630889,0.688981,-1.09037,1.58573,0.538694,-0.0361421,2.17112,-13.2039,-6.92322,-8.43894,9.51197,144.656,-0.727111,-7.45099,-27.4089,-8.51287,28.7482,2.05322,5.8117,-0.197647,
0.020599,-0.091234,0.200057,-2.01432,0.32441,-0.00081543,0.0645289,0.333664,0.0290338,0.348144,-0.572153,1.30365,0.113587,-0.0456548,10.6765,-0.966237,11.3264,-8.43192,13.8762,60.1888,-1.33359,9.3077,-9.89693,9.82916,-44.5667,10.4032,12.5116,-0.601584,0.0134238,-0.0916206,0.192531,-2.00332,0.301551,-0.00814643,0.0654745,0.578669,-0.0630889,0.688981,-1.09037,1.58573,0.538694,-0.0361421,0,0,0,0,0,0,0,-7.45099,-27.4089,-8.51287,28.7482,2.05322,5.8117,-0.197647,
0.0232687,-0.0911878,0.202845,-2.01883,0.33501,0.00407952,0.0641755,0.333675,0.0243821,0.348219,-0.570515,1.30792,0.213243,-0.0453586,0.00639357,-2.90735,0.0468205,1.02405,2.66776,62.2853,0.185132,10.6644,-8.5514,11.2277,-43.6069,10.4032,12.5116,-0.492716,0.0134238,-0.0916206,0.192531,-2.00332,0.301551,-0.00814643,0.0654745,0.578669,-0.0630889,0.688981,-1.09037,1.58573,0.538694,-0.0361421,0,0,0,0,0,0,0,-7.45099,-27.4089,-8.51287,28.7482,2.05322,5.8117,-0.197647,
0.0255525,-0.0912611,0.205223,-2.023,0.344849,0.00980867,0.063889,0.324036,0.0176748,0.338026,-0.560679,1.2923,0.313823,-0.0434501,-6.02404,-4.19205,-6.37042,6.14735,-9.75999,62.8626,1.1928,11.5236,-7.39554,12.0969,-42.7715,10.4032,12.5116,-0.405807,0.0134238,-0.0916206,0.192531,-2.00332,0.301551,-0.00814643,0.0654745,0.578669,-0.0630889,0.688981,-1.09037,1.58573,0.538694,-0.0361421,0,0,0,0,0,0,0,-7.45099,-27.4089,-8.51287,28.7482,2.05322,5.8117,-0.197647,
0.0275574,-0.0914193,0.207306,-2.02691,0.35382,0.0162442,0.0636571,0.30935,0.0101852,0.322487,-0.546307,1.25813,0.411947,-0.040556,-9.17869,-4.68102,-9.71195,8.98251,-21.3551,61.3271,1.80882,12.1179,-6.68498,12.7655,-41.9092,9.31422,12.5513,-0.339865,0.032122,-0.0924332,0.212082,-2.04174,0.359718,0.0141076,0.0636472,0.551184,0.00119048,0.659868,-1.17741,1.74756,0.906038,-0.0471362,-3.43562,8.03492,-3.6391,-10.88,20.2289,45.9179,-1.37426,-7.22088,-34.3715,-8.73503,29.4702,1.68701,4.42559,-0.351456,
0.0390954,-0.0911491,0.21941,-2.05292,0.382754,0.0239713,0.062875,0.325952,0.0224376,0.340238,-0.562663,1.28218,0.452803,-0.0413487,10.3761,7.6578,11.0942,-10.2227,15.0314,25.5351,-0.495472,10.7346,-8.90003,11.3704,-43.5139,10.251,12.5513,-0.496963,0.032122,-0.0924332,0.212082,-2.04174,0.359718,0.0141076,0.0636472,0.551184,0.00119048,0.659868,-1.17741,1.74756,0.906038,-0.0471362,0,0,0,0,0,0,0,-7.22088,-34.3715,-8.73503,29.4702,1.68701,4.42559,-0.351456,
0.0417261,-0.0908212,0.222158,-2.05739,0.392827,0.0294376,0.0625837,0.32653,0.0261471,0.340891,-0.561961,1.27757,0.4989,-0.0403618,0.360925,2.31842,0.408511,0.439086,-2.88091,28.8111,0.61682,11.5937,-7.74417,12.2397,-42.6785,10.251,12.5513,-0.410054,0.032122,-0.0924332,0.212082,-2.04174,0.359718,0.0141076,0.0636472,0.551184,0.00119048,0.659868,-1.17741,1.74756,0.906038,-0.0471362,0,0,0,0,0,0,0,-7.22088,-34.3715,-8.73503,29.4702,1.68701,4.42559,-0.351456,
0.043987,-0.0906939,0.224513,-2.06151,0.401922,0.0355245,0.0623482,0.317744,0.0240995,0.331599,-0.552512,1.24944,0.551292,-0.0381768,-5.49078,-1.27975,-5.80792,5.90582,-17.5859,32.7447,1.36564,12.1179,-6.68498,12.7655,-41.9092,9.31422,12.5513,-0.339865,0.032122,-0.0924332,0.212082,-2.04174,0.359718,0.0141076,0.0636472,0.551184,0.00119048,0.659868,-1.17741,1.74756,0.906038,-0.0471362,0,0,0,0,0,0,0,-7.22088,-34.3715,-8.73503,29.4702,1.68701,4.42559,-0.351456,
0.0391609,-0.0910352,0.219469,-2.05277,0.382434,0.0239327,0.0630024,0.333719,0.0351716,0.348468,-0.565547,1.26814,0.563862,-0.0379886,9.98414,6.92008,10.5432,-8.14747,11.6918,7.8566,0.117613,11.7839,-8.61442,12.5015,-42.8772,10.0484,12.2406,-0.409221,0.0511415,-0.0936039,0.231087,-2.08081,0.419581,0.0582343,0.0622131,0.476398,-0.13943,0.523467,-1.09256,1.7129,1.44055,-0.0421963,-9.34816,-17.5776,-17.0502,10.6064,-4.33323,66.8144,0.617486,-3.54321,-26.2346,-4.33531,20.2264,1.47918,0.68566,-0.270889,
0.0418349,-0.0906428,0.222258,-2.05717,0.392076,0.0293926,0.0627589,0.333827,0.0379475,0.348491,-0.562235,1.25557,0.587588,-0.0364789,0.0672947,1.73491,0.0145175,2.07024,-7.85591,14.8282,0.943556,12.3081,-7.55523,13.0273,-42.1079,9.11157,12.2406,-0.339032,0.0511415,-0.0936039,0.231087,-2.08081,0.419581,0.0582343,0.0622131,0.476398,-0.13943,0.523467,-1.09256,1.7129,1.44055,-0.0421963,0,0,0,0,0,0,0,-3.54321,-26.2346,-4.33531,20.2264,1.47918,0.68566,-0.270889,
0.0441309,-0.0904536,0.224647,-2.06121,0.400708,0.0354791,0.0625633,0.324459,0.0350873,0.338535,-0.550961,1.22026,0.622231,-0.0340722,-5.85443,-1.78763,-6.22277,7.04643,-22.0686,21.6521,1.50423,12.6023,-6.57363,13.3168,-41.3712,8.17059,12.2406,-0.280354,0.0511415,-0.0936039,0.231087,-2.08081,0.419581,0.0582343,0.0622131,0.476398,-0.13943,0.523467,-1.09256,1.7129,1.44055,-0.0421963,0,0,0,0,0,0,0,-3.54321,-26.2346,-4.33531,20.2264,1.47918,0.68566,-0.270889,
0.0461395,-0.0904089,0.226736,-2.06501,0.408459,0.0421455,0.0624071,0.309784,0.029188,0.323048,-0.535724,1.16999,0.664445,-0.0311638,-9.17249,-3.68703,-9.67908,9.52301,-31.4227,26.3837,1.81771,12.7485,-5.67289,13.4556,-40.6573,7.45562,12.2406,-0.230392,0.0511415,-0.0936039,0.231087,-2.08081,0.419581,0.0582343,0.0622131,0.476398,-0.13943,0.523467,-1.09256,1.7129,1.44055,-0.0421963,0,0,0,0,0,0,0,-3.54321,-26.2346,-4.33531,20.2264,1.47918,0.68566,-0.270889,
0.0571183,-0.0935637,0.237343,-2.09043,0.440294,0.0732686,0.06171,0.315904,0.0248062,0.329553,-0.535762,1.17708,0.709691,-0.0308308,3.82524,-2.73865,4.06555,-0.0238791,4.43051,28.2789,0.208165,12.3081,-7.55523,13.0273,-42.1079,9.11157,12.2406,-0.339032,0.0511415,-0.0936039,0.231087,-2.08081,0.419581,0.0582343,0.0622131,0.476398,-0.13943,0.523467,-1.09256,1.7129,1.44055,-0.0421963,0,0,0,0,0,0,0,-3.54321,-26.2346,-4.33531,20.2264,1.47918,0.68566,-0.270889,
0.0594389,-0.0936068,0.239763,-2.0943,0.44886,0.0804001,0.0615161,0.310738,0.0187691,0.324125,-0.525222,1.15582,0.746041,-0.0295119,-3.22852,-3.77317,-3.39262,6.58762,-13.2838,22.7186,0.824309,12.4306,-6.77721,13.2038,-41.324,8.10438,12.1861,-0.277718,0.0672581,-0.0953865,0.248609,-2.11739,0.472693,0.106511,0.0612533,0.464317,-0.0204176,0.531958,-1.06995,1.46862,1.41498,-0.0171024,-1.51016,14.8766,1.06135,2.82596,-30.534,-3.19645,3.13673,0.285221,-28.8054,-1.01073,27.1771,1.30798,1.4016,-0.331314,
0.0614564,-0.0937459,0.241865,-2.09793,0.456536,0.0877614,0.0613606,0.299029,0.0115367,0.311844,-0.510988,1.11655,0.780865,-0.0274971,-7.31819,-4.52024,-7.6756,8.89617,-24.5477,21.7651,1.25922,12.5768,-5.87647,13.3426,-40.6101,7.38941,12.1861,-0.227756,0.0672581,-0.0953865,0.248609,-2.11739,0.472693,0.106511,0.0612533,0.464317,-0.0204176,0.531958,-1.06995,1.46862,1.41498,-0.0171024,0,0,0,0,0,0,0,0.285221,-28.8054,-1.01073,27.1771,1.30798,1.4016,-0.331314,
0.0632521,-0.0939469,0.243736,-2.10138,0.463247,0.0953977,0.0612392,0.284115,0.00420384,0.296264,-0.495219,1.06103,0.815599,-0.0250321,-9.32141,-4.58306,-9.73744,9.85543,-34.6996,21.7089,1.54065,12.6073,-5.07704,13.3642,-39.9233,6.89034,12.1861,-0.186263,0.0672581,-0.0953865,0.248609,-2.11739,0.472693,0.106511,0.0612533,0.464317,-0.0204176,0.531958,-1.06995,1.46862,1.41498,-0.0171024,0,0,0,0,0,0,0,0.285221,-28.8054,-1.01073,27.1771,1.30798,1.4016,-0.331314,
0.0731011,-0.0943776,0.254766,-2.12723,0.490073,0.121192,0.0608568,0.293623,0.0147124,0.306708,-0.506468,1.05099,0.825397,-0.024764,5.94286,6.56784,6.52745,-7.03009,-6.27204,6.12338,0.167559,12.4306,-6.77721,13.2038,-41.324,8.10438,12.1861,-0.277718,0.0672581,-0.0953865,0.248609,-2.11739,0.472693,0.106511,0.0612533,0.464317,-0.0204176,0.531958,-1.06995,1.46862,1.41498,-0.0171024,0,0,0,0,0,0,0,0.285221,-28.8054,-1.01073,27.1771,1.30798,1.4016,-0.331314,
0.0753526,-0.0941285,0.257126,-2.13121,0.497324,0.128079,0.0607011,0.291187,0.0179963,0.304379,-0.50449,1.02206,0.832497,-0.0237024,-1.5226,2.05244,-1.45552,1.23603,-18.085,4.43757,0.663466,12.5768,-5.87647,13.3426,-40.6101,7.38941,12.1861,-0.227756,0.0672581,-0.0953865,0.248609,-2.11739,0.472693,0.106511,0.0612533,0.464317,-0.0204176,0.531958,-1.06995,1.46862,1.41498,-0.0171024,0,0,0,0,0,0,0,0.285221,-28.8054,-1.01073,27.1771,1.30798,1.4016,-0.331314,
0.0773138,-0.094044,0.259181,-2.1349,0.503682,0.135189,0.0605797,0.281978,0.0165105,0.294868,-0.496077,0.976601,0.843744,-0.0219965,-5.75554,-0.928645,-5.94446,5.25814,-28.4088,7.02949,1.06623,12.6073,-5.07704,13.3642,-39.9233,6.89034,12.1861,-0.186263,0.0672581,-0.0953865,0.248609,-2.11739,0.472693,0.106511,0.0612533,0.464317,-0.0204176,0.531958,-1.06995,1.46862,1.41498,-0.0171024,0,0,0,0,0,0,0,0.285221,-28.8054,-1.01073,27.1771,1.30798,1.4016,-0.331314,
0.0790609,-0.0940735,0.261011,-2.13841,0.509147,0.142596,0.0604876,0.26926,0.0124708,0.28166,-0.484406,0.917918,0.860176,-0.0198992,-7.94904,-2.52482,-8.25476,7.29419,-36.6769,10.2699,1.31077,12.5631,-4.38009,13.3652,-39.2609,5.72154,12.1861,-0.151125,0.0672581,-0.0953865,0.248609,-2.11739,0.472693,0.106511,0.0612533,0.464317,-0.0204176,0.531958,-1.06995,1.46862,1.41498,-0.0171024,0,0,0,0,0,0,0,0.285221,-28.8054,-1.01073,27.1771,1.30798,1.4016,-0.331314,
0.0731305,-0.0942924,0.254789,-2.1271,0.489579,0.121142,0.0609317,0.282087,0.022488,0.295325,-0.496162,0.929601,0.860533,-0.0198096,8.01715,6.2608,8.54044,-7.34759,7.30134,0.222959,0.0559949,12.5768,-5.87647,13.3426,-40.6101,7.38941,12.1861,-0.227756,0.0672581,-0.0953865,0.248609,-2.11739,0.472693,0.106511,0.0612533,0.464317,-0.0204176,0.531958,-1.06995,1.46862,1.41498,-0.0171024,0,0,0,0,0,0,0,0.285221,-28.8054,-1.01073,27.1771,1.30798,1.4016,-0.331314,
0.0753994,-0.0939962,0.257167,-2.131,0.49633,0.128011,0.060806,0.282391,0.0253957,0.295708,-0.49432,0.91246,0.860156,-0.0189899,0.189888,1.81729,0.239324,1.15167,-10.7128,-0.235465,0.512354,12.6572,-5.48653,13.4769,-39.9981,6.84684,12.044,-0.183931,0.0831774,-0.0971087,0.265884,-2.1522,0.520555,0.157274,0.0608742,0.403977,-0.05977,0.52012,-1.01706,1.34864,1.56709,-0.0031933,-7.54248,-4.91905,-1.47971,6.61082,-14.9982,19.013,1.73864,-1.97216,-25.8617,-3.03801,21.123,1.44256,1.86577,-0.278213,
0.0773751,-0.0938695,0.259236,-2.13463,0.502094,0.135112,0.0607099,0.275307,0.0234835,0.288308,-0.486204,0.874059,0.865645,-0.0175949,-4.42772,-1.19512,-4.62511,5.07224,-24.001,3.43055,0.871825,12.613,-4.78958,13.4779,-39.3357,5.67804,12.044,-0.148793,0.0831774,-0.0971087,0.265884,-2.1522,0.520555,0.157274,0.0608742,0.403977,-0.05977,0.52012,-1.01706,1.34864,1.56709,-0.0031933,0,0,0,0,0,0,0,-1.97216,-25.8617,-3.03801,21.123,1.44256,1.86577,-0.278213,
0.079132,-0.0938617,0.261077,-2.13807,0.50695,0.142516,0.0606398,0.264167,0.018982,0.276666,-0.475041,0.820657,0.877624,-0.0158284,-6.96258,-2.81347,-7.276,6.97673,-33.3761,7.48697,1.10407,12.5611,-4.189,13.4503,-38.6918,4.67042,12.044,-0.118068,0.0831774,-0.0971087,0.265884,-2.1522,0.520555,0.157274,0.0608742,0.403977,-0.05977,0.52012,-1.01706,1.34864,1.56709,-0.0031933,0,0,0,0,0,0,0,-1.97216,-25.8617,-3.03801,21.123,1.44256,1.86577,-0.278213,
0.0886143,-0.0964526,0.271625,-2.16133,0.535331,0.173439,0.0606386,0.273223,0.0230105,0.286475,-0.48206,0.824067,0.890582,-0.01562,5.66016,2.51782,6.13088,-4.38698,2.13166,8.09842,0.130288,12.6572,-5.48653,13.4769,-39.9981,6.84684,12.044,-0.183931,0.0831774,-0.0971087,0.265884,-2.1522,0.520555,0.157274,0.0608742,0.403977,-0.05977,0.52012,-1.01706,1.34864,1.56709,-0.0031933,0,0,0,0,0,0,0,-1.97216,-25.8617,-3.03801,21.123,1.44256,1.86577,-0.278213,
0.0907298,-0.0962962,0.273849,-2.16501,0.540993,0.180787,0.0605435,0.271465,0.0223166,0.284771,-0.477701,0.800816,0.896164,-0.0148743,-1.0986,-0.433701,-1.0655,2.72465,-14.532,3.48909,0.466043,12.6204,-5.05276,13.5473,-39.3384,5.67326,11.9591,-0.146581,0.0989533,-0.0987895,0.282488,-2.18513,0.562413,0.212399,0.0607146,0.429773,-0.0823425,0.524481,-0.953203,1.23571,1.67611,0.00055338,3.22447,-2.82157,0.545087,7.98271,-14.1166,13.6283,0.468335,-4.53503,-26.2584,-5.48583,21.9205,1.70532,2.14501,-0.23793,
0.0925812,-0.096273,0.275794,-2.16847,0.545752,0.18825,0.0604736,0.263459,0.018434,0.27646,-0.468686,0.759616,0.9035,-0.0136464,-5.00396,-2.4266,-5.19437,5.6341,-25.75,4.5848,0.767407,12.5686,-4.45218,13.5197,-38.6945,4.66565,11.9591,-0.115856,0.0989533,-0.0987895,0.282488,-2.18513,0.562413,0.212399,0.0607146,0.429773,-0.0823425,0.524481,-0.953203,1.23571,1.67611,0.00055338,0,0,0,0,0,0,0,-4.53503,-26.2584,-5.48583,21.9205,1.70532,2.14501,-0.23793,
0.0942363,-0.0963411,0.277535,-2.17178,0.549714,0.195929,0.0604281,0.252143,0.0130455,0.264677,-0.457705,0.706751,0.91478,-0.012055,-7.07264,-3.36779,-7.36418,6.86318,-33.0407,7.05007,0.994664,12.5321,-3.94982,13.4909,-38.0706,3.83513,11.9591,-0.0884267,0.0989533,-0.0987895,0.282488,-2.18513,0.562413,0.212399,0.0607146,0.429773,-0.0823425,0.524481,-0.953203,1.23571,1.67611,0.00055338,0,0,0,0,0,0,0,-4.53503,-26.2584,-5.48583,21.9205,1.70532,2.14501,-0.23793,
0.104449,-0.0985009,0.288297,-2.19371,0.575271,0.229534,0.0605371,0.263925,0.0140772,0.277308,-0.462377,0.709347,0.929775,-0.0119407,7.36408,0.644767,7.89442,-2.91981,1.62255,9.37227,0.0714068,12.6204,-5.05276,13.5473,-39.3384,5.67326,11.9591,-0.146581,0.0989533,-0.0987895,0.282488,-2.18513,0.562413,0.212399,0.0607146,0.429773,-0.0823425,0.524481,-0.953203,1.23571,1.67611,0.00055338,0,0,0,0,0,0,0,-4.53503,-26.2584,-5.48583,21.9205,1.70532,2.14501,-0.23793,
0.106561,-0.0984743,0.29052,-2.19722,0.58007,0.237123,0.0604652,0.263932,0.0119272,0.277421,-0.457521,0.687455,0.933553,-0.0113512,0.00401352,-1.34375,0.0708476,3.0351,-13.6828,2.36103,0.368463,12.3271,-4.61913,13.3165,-38.7729,4.64077,11.8751,-0.111939,0.114441,-0.0995382,0.297838,-2.2168,0.596194,0.264484,0.0606658,0.414658,0.00817135,0.463834,-0.926539,0.907431,1.50069,-0.000646033,-1.88943,11.3142,-7.58086,3.33295,-41.0344,-21.9277,-0.149927,-2.30145,-28.4563,-3.51012,27.9745,1.12487,1.72661,-0.230606,
0.1084,-0.0985485,0.292456,-2.20054,0.584065,0.244739,0.0604177,0.257116,0.00768695,0.27034,-0.44912,0.649837,0.937243,-0.010268,-4.26002,-2.65014,-4.42598,5.25041,-23.5111,2.30637,0.676974,12.2906,-4.11676,13.2877,-38.149,3.81025,11.8751,-0.0845098,0.114441,-0.0995382,0.297838,-2.2168,0.596194,0.264484,0.0606658,0.414658,0.00817135,0.463834,-0.926539,0.907431,1.50069,-0.000646033,0,0,0,0,0,0,0,-2.30145,-28.4563,-3.51012,27.9745,1.12487,1.72661,-0.230606,
0.110037,-0.0986888,0.294182,-2.20375,0.587382,0.252514,0.0603931,0.246619,0.00264251,0.259413,-0.439424,0.602808,0.944159,-0.0088283,-6.5606,-3.15278,-6.8295,6.06037,-29.393,4.32224,0.899832,12.2702,-3.71067,13.2643,-37.5464,3.13835,11.8751,-0.0578011,0.114441,-0.0995382,0.297838,-2.2168,0.596194,0.264484,0.0606658,0.414658,0.00817135,0.463834,-0.926539,0.907431,1.50069,-0.000646033,0,0,0,0,0,0,0,-2.30145,-28.4563,-3.51012,27.9745,1.12487,1.72661,-0.230606,
0.119467,-0.0985455,0.30319,-2.22565,0.605173,0.28021,0.0605459,0.254296,0.0130306,0.268086,-0.451727,0.582225,0.938797,-0.00864988,4.79809,6.49254,5.42054,-7.68965,-12.8647,-3.35117,0.111515,12.3271,-4.61913,13.3165,-38.7729,4.64077,11.8751,-0.111939,0.114441,-0.0995382,0.297838,-2.2168,0.596194,0.264484,0.0606658,0.414658,0.00817135,0.463834,-0.926539,0.907431,1.50069,-0.000646033,0,0,0,0,0,0,0,-2.30145,-28.4563,-3.51012,27.9745,1.12487,1.72661,-0.230606,
0.121416,-0.0982946,0.305258,-2.2293,0.60852,0.287367,0.0605004,0.252172,0.0166972,0.266155,-0.452511,0.549443,0.929947,-0.00805708,-1.32712,2.29166,-1.20659,-0.490231,-20.4889,-5.53142,0.370502,12.2307,-4.34714,13.2678,-38.2134,3.84303,11.7749,-0.0823098,0.128481,-0.100298,0.313199,-2.24747,0.623125,0.316604,0.0606758,0.456421,0.019152,0.351391,-0.901519,0.751168,1.54307,0.0090337,5.22048,1.37258,-14.0553,3.1276,-19.5329,5.29793,1.20997,-0.0956386,-28.6308,-1.58599,29.1211,1.52221,2.66137,-0.278213,
0.123128,-0.0981907,0.307072,-2.23274,0.611342,0.294651,0.0604767,0.24453,0.0159553,0.258293,-0.447953,0.510125,0.926064,-0.00703852,-4.7762,-0.463681,-4.91389,2.84932,-24.5736,-2.42665,0.636594,12.2103,-3.94105,13.2444,-37.6108,3.17113,11.7749,-0.0556012,0.128481,-0.100298,0.313199,-2.24747,0.623125,0.316604,0.0606758,0.456421,0.019152,0.351391,-0.901519,0.751168,1.54307,0.0090337,0,0,0,0,0,0,0,-0.0956386,-28.6308,-1.58599,29.1211,1.52221,2.66137,-0.278213,
0.133072,-0.0992778,0.318097,-2.25615,0.629964,0.332802,0.0606129,0.247697,0.0238961,0.262252,-0.456821,0.483071,0.92957,-0.00656202,1.97927,4.96295,2.47425,-5.54285,-16.9087,2.19121,0.297815,12.2307,-4.34714,13.2678,-38.2134,3.84303,11.7749,-0.0823098,0.128481,-0.100298,0.313199,-2.24747,0.623125,0.316604,0.0606758,0.456421,0.019152,0.351391,-0.901519,0.751168,1.54307,0.0090337,0,0,0,0,0,0,0,-0.0956386,-28.6308,-1.58599,29.1211,1.52221,2.66137,-0.278213,
0.134864,-0.0990184,0.320008,-2.25974,0.632483,0.340125,0.0605904,0.242969,0.0256025,0.257578,-0.455282,0.44945,0.926715,-0.00581357,-2.9553,1.06653,-2.92097,0.961994,-21.0131,-1.78413,0.467779,12.2103,-3.94105,13.2444,-37.6108,3.17113,11.7749,-0.0556012,0.128481,-0.100298,0.313199,-2.24747,0.623125,0.316604,0.0606758,0.456421,0.019152,0.351391,-0.901519,0.751168,1.54307,0.0090337,0,0,0,0,0,0,0,-0.0956386,-28.6308,-1.58599,29.1211,1.52221,2.66137,-0.278213,
0.13645,-0.098905,0.321699,-2.26314,0.634638,0.347537,0.0605839,0.234026,0.0233157,0.248321,-0.449102,0.413437,0.92667,-0.0048127,-5.58898,-1.42924,-5.78564,3.86239,-22.5083,-0.0282195,0.625545,12.1169,-3.83626,13.1847,-37.089,2.70544,11.6786,-0.0276529,0.141759,-0.101238,0.328622,-2.27777,0.647163,0.370272,0.0606667,0.434536,0.00446869,0.364949,-0.854764,0.532182,1.52683,0.000136682,-2.73566,-1.83541,1.69476,5.84429,-27.3733,-2.03071,-1.11213,-1.44055,-28.2063,-2.71269,25.5069,0.776974,3.31139,-0.190323,
0.13789,-0.0988929,0.323233,-2.26638,0.636342,0.355141,0.0605938,0.223207,0.018955,0.237016,-0.440349,0.373351,0.93145,-0.00360318,-6.76197,-2.72544,-7.06547,5.47097,-25.0534,2.98737,0.755949,12.056,-3.59181,13.1092,-36.5374,2.31943,11.6786,-0.00854967,0.141759,-0.101238,0.328622,-2.27777,0.647163,0.370272,0.0606667,0.434536,0.00446869,0.364949,-0.854764,0.532182,1.52683,0.000136682,0,0,0,0,0,0,0,-1.44055,-28.2063,-2.71269,25.5069,0.776974,3.31139,-0.190323,
0.146238,-0.100457,0.333419,-2.28621,0.651769,0.386466,0.0606346,0.229246,0.0237177,0.243916,-0.448519,0.350103,0.933982,-0.00339329,3.77414,2.97665,4.31243,-5.10642,-14.5299,1.58248,0.13118,12.1432,-4.15585,13.2234,-37.6679,3.19533,11.6786,-0.0528827,0.141759,-0.101238,0.328622,-2.27777,0.647163,0.370272,0.0606667,0.434536,0.00446869,0.364949,-0.854764,0.532182,1.52683,0.000136682,0,0,0,0,0,0,0,-1.44055,-28.2063,-2.71269,25.5069,0.776974,3.31139,-0.190323,
0.147979,-0.100268,0.335282,-2.28974,0.653597,0.393786,0.0606254,0.226938,0.0237034,0.24171,-0.447058,0.325769,0.930191,-0.00294422,-1.44203,-0.00894156,-1.37895,0.912979,-15.2089,-2.36916,0.280672,12.1169,-3.83626,13.1847,-37.089,2.70544,11.6786,-0.0276529,0.141759,-0.101238,0.328622,-2.27777,0.647163,0.370272,0.0606667,0.434536,0.00446869,0.364949,-0.854764,0.532182,1.52683,0.000136682,0,0,0,0,0,0,0,-1.44055,-28.2063,-2.71269,25.5069,0.776974,3.31139,-0.190323,
0.149525,-0.1002,0.336934,-2.29307,0.65509,0.401181,0.0606331,0.220188,0.0206485,0.234671,-0.440917,0.297948,0.929029,-0.00216259,-4.21885,-1.90926,-4.39912,3.83815,-17.3884,-0.72662,0.48852,12.056,-3.59181,13.1092,-36.5374,2.31943,11.6786,-0.00854967,0.141759,-0.101238,0.328622,-2.27777,0.647163,0.370272,0.0606667,0.434536,0.00446869,0.364949,-0.854764,0.532182,1.52683,0.000136682,0,0,0,0,0,0,0,-1.44055,-28.2063,-2.71269,25.5069,0.776974,3.31139,-0.190323,
0.150931,-0.10022,0.338437,-2.29626,0.656217,0.408765,0.0606556,0.211304,0.0160291,0.225327,-0.432435,0.266544,0.932837,-0.00116709,-5.55251,-2.88717,-5.84013,5.30137,-19.6274,2.38013,0.622188,12.0847,-3.65899,13.1917,-35.9957,1.6577,11.5552,0.00853113,0.15443,-0.10264,0.343495,-2.30732,0.666103,0.424223,0.0606727,0.307683,-0.0433111,0.460631,-0.864885,0.483381,1.59334,-2.98859e-05,-15.8566,-5.97247,11.9602,-1.26507,-6.1001,8.31425,-0.020821,-1.53973,-24.9135,-3.41094,20.6747,1.57714,1.00426,-0.163772,
0.158707,-0.102191,0.348115,-2.31561,0.669582,0.440853,0.0606888,0.21754,0.0181811,0.232391,-0.439971,0.251721,0.93914,-0.00101768,3.89713,1.34506,4.41479,-4.70979,-9.26424,3.93965,0.0933789,12.1955,-4.09464,13.3081,-37.0783,2.80366,11.5552,-0.0263026,0.15443,-0.10264,0.343495,-2.30732,0.666103,0.424223,0.0606727,0.307683,-0.0433111,0.460631,-0.864885,0.483381,1.59334,-2.98859e-05,0,0,0,0,0,0,0,-1.53973,-24.9135,-3.41094,20.6747,1.57714,1.00426,-0.163772,
0.16038,-0.102087,0.34991,-2.31904,0.670856,0.448276,0.060695,0.215851,0.0171423,0.230774,-0.437775,0.233228,0.936883,-0.000659199,-1.0557,-0.649253,-1.01061,1.37221,-11.5579,-1.41104,0.224051,12.1346,-3.85019,13.2325,-36.5268,2.41765,11.5552,-0.0071993,0.15443,-0.10264,0.343495,-2.30732,0.666103,0.424223,0.0606727,0.307683,-0.0433111,0.460631,-0.864885,0.483381,1.59334,-2.98859e-05,0,0,0,0,0,0,0,-1.53973,-24.9135,-3.41094,20.6747,1.57714,1.00426,-0.163772,
0.16187,-0.10208,0.351508,-2.32229,0.67185,0.455746,0.0607156,0.209939,0.0138772,0.224571,-0.431374,0.211444,0.936247,-1.22196e-05,-3.69467,-2.04069,-3.87685,4.00084,-13.6153,-0.397115,0.404362,12.0847,-3.65899,13.1917,-35.9957,1.6577,11.5552,0.00853113,0.15443,-0.10264,0.343495,-2.30732,0.666103,0.424223,0.0606727,0.307683,-0.0433111,0.460631,-0.864885,0.483381,1.59334,-2.98859e-05,0,0,0,0,0,0,0,-1.53973,-24.9135,-3.41094,20.6747,1.57714,1.00426,-0.163772,
0.163233,-0.102145,0.352968,-2.3254,0.672562,0.463384,0.0607508,0.202012,0.00949501,0.216173,-0.42305,0.186962,0.939952,0.000871868,-4.9545,-2.7389,-5.24852,5.20245,-15.3012,2.31506,0.552555,12.1287,-3.71178,13.2664,-35.4335,1.18394,11.432,0.0250752,0.168328,-0.103735,0.356809,-2.33675,0.680336,0.479017,0.0606912,0.299779,-0.0824671,0.479803,-0.866557,0.40287,1.61559,1.1633e-05,-0.988102,-4.89451,2.39658,-0.209018,-10.0639,2.78045,0.00518987,-1.46435,-24.8103,-2.36357,20.9485,1.49749,1.93261,-0.157364,
0.17261,-0.1036,0.36144,-2.34491,0.682616,0.49558,0.060738,0.21007,0.00988081,0.225046,-0.430424,0.173056,0.943247,0.000955048,5.03622,0.241126,5.5455,-4.60872,-8.69132,2.05949,0.0519872,12.177,-4.06705,13.311,-36.4889,2.51569,11.432,-0.00572967,0.168328,-0.103735,0.356809,-2.33675,0.680336,0.479017,0.0606912,0.299779,-0.0824671,0.479803,-0.866557,0.40287,1.61559,1.1633e-05,0,0,0,0,0,0,0,-1.46435,-24.8103,-2.36357,20.9485,1.49749,1.93261,-0.157364,
0.174278,-0.103579,0.36323,-2.34826,0.68338,0.502933,0.0607551,0.209747,0.00843339,0.224791,-0.428264,0.157556,0.938439,0.00119287,-0.201801,-0.90464,-0.159373,1.34999,-9.68745,-3.00475,0.148641,12.1271,-3.87585,13.2702,-35.9578,1.75574,11.432,0.0100008,0.168328,-0.103735,0.356809,-2.33675,0.680336,0.479017,0.0606912,0.299779,-0.0824671,0.479803,-0.866557,0.40287,1.61559,1.1633e-05,0,0,0,0,0,0,0,-1.46435,-24.8103,-2.36357,20.9485,1.49749,1.93261,-0.157364,
0.175763,-0.103629,0.364823,-2.35145,0.683971,0.510338,0.060787,0.204914,0.00548505,0.219649,-0.422182,0.140804,0.935865,0.00175087,-3.02074,-1.84271,-3.21356,3.80118,-10.4699,-1.60871,0.348749,12.1287,-3.71178,13.2664,-35.4335,1.18394,11.432,0.0250752,0.168328,-0.103735,0.356809,-2.33675,0.680336,0.479017,0.0606912,0.299779,-0.0824671,0.479803,-0.866557,0.40287,1.61559,1.1633e-05,0,0,0,0,0,0,0,-1.46435,-24.8103,-2.36357,20.9485,1.49749,1.93261,-0.157364,
0.177119,-0.103733,0.366279,-2.35451,0.684375,0.517912,0.060838,0.197835,0.00180989,0.212111,-0.414322,0.122756,0.938052,0.00267478,-4.42412,-2.29697,-4.71137,4.91258,-11.2803,1.36692,0.577444,12.1622,-3.78457,13.3047,-34.8827,0.872214,11.3102,0.0419738,0.180889,-0.104861,0.369575,-2.36588,0.690553,0.533218,0.0607226,0.353696,-0.0689572,0.38596,-0.863149,0.366493,1.65511,0.00317888,6.7397,1.68875,-11.7305,0.426001,-4.54705,4.94063,0.395905,-2.83307,-23.6162,-4.13695,20.528,1.27136,1.4547,-0.23793,
0.184907,-0.104662,0.373925,-2.37395,0.691863,0.54999,0.0608066,0.203689,0.00427611,0.218759,-0.422431,0.109568,0.943665,0.00278617,3.65834,1.54139,4.15485,-5.06852,-8.24233,3.5078,0.0696154,12.1113,-4.08491,13.2839,-35.9175,1.86951,11.3102,0.0110629,0.180889,-0.104861,0.369575,-2.36588,0.690553,0.533218,0.0607226,0.353696,-0.0689572,0.38596,-0.863149,0.366493,1.65511,0.00317888,0,0,0,0,0,0,0,-2.83307,-23.6162,-4.13695,20.528,1.27136,1.4547,-0.23793,
0.18648,-0.104629,0.37562,-2.37727,0.692216,0.557394,0.0608374,0.202275,0.00425787,0.217387,-0.420923,0.0964818,0.940034,0.00300109,-0.883416,-0.0114033,-0.857335,0.942994,-8.17888,-2.26892,0.134327,12.1129,-3.92084,13.2801,-35.3932,1.29772,11.3102,0.0261373,0.180889,-0.104861,0.369575,-2.36588,0.690553,0.533218,0.0607226,0.353696,-0.0689572,0.38596,-0.863149,0.366493,1.65511,0.00317888,0,0,0,0,0,0,0,-2.83307,-23.6162,-4.13695,20.528,1.27136,1.4547,-0.23793,
0.187891,-0.104671,0.37714,-2.38042,0.692482,0.564828,0.0608865,0.197094,0.00235702,0.2119,-0.415374,0.0838363,0.93787,0.00362686,-3.23789,-1.18803,-3.42963,3.46782,-7.90341,-1.35294,0.391109,12.1622,-3.78457,13.3047,-34.8827,0.872214,11.3102,0.0419738,0.180889,-0.104861,0.369575,-2.36588,0.690553,0.533218,0.0607226,0.353696,-0.0689572,0.38596,-0.863149,0.366493,1.65511,0.00317888,0,0,0,0,0,0,0,-2.83307,-23.6162,-4.13695,20.528,1.27136,1.4547,-0.23793,
0.184917,-0.104637,0.373929,-2.37387,0.691354,0.549941,0.0608377,0.203236,0.00501399,0.218659,-0.422168,0.0714193,0.943009,0.0038997,3.83822,1.66061,4.22487,-4.24642,-7.76064,3.212,0.17052,12.1129,-3.92084,13.2801,-35.3932,1.29772,11.3102,0.0261373,0.180889,-0.104861,0.369575,-2.36588,0.690553,0.533218,0.0607226,0.353696,-0.0689572,0.38596,-0.863149,0.366493,1.65511,0.00317888,0,0,0,0,0,0,0,-2.83307,-23.6162,-4.13695,20.528,1.27136,1.4547,-0.23793,
0.186495,-0.104593,0.375628,-2.37715,0.691439,0.557334,0.0608852,0.202032,0.00513404,0.217389,-0.4197,0.0592529,0.939213,0.00430833,-0.752047,0.0750291,-0.794103,1.54268,-7.60403,-2.37219,0.255394,12.1622,-3.78457,13.3047,-34.8827,0.872214,11.3102,0.0419738,0.180889,-0.104861,0.369575,-2.36588,0.690553,0.533218,0.0607226,0.353696,-0.0689572,0.38596,-0.863149,0.366493,1.65511,0.00317888,0,0,0,0,0,0,0,-2.83307,-23.6162,-4.13695,20.528,1.27136,1.4547,-0.23793,
0.187907,-0.104623,0.377148,-2.38026,0.691497,0.564758,0.0609564,0.196934,0.00334065,0.211908,-0.413509,0.048849,0.936988,0.00522563,-3.18634,-1.12087,-3.42537,3.86918,-6.50241,-1.39066,0.573317,12.2145,-3.64278,13.337,-34.3646,0.553219,11.3102,0.0632123,0.180889,-0.104861,0.369575,-2.36588,0.690553,0.533218,0.0607226,0.353696,-0.0689572,0.38596,-0.863149,0.366493,1.65511,0.00317888,0,0,0,0,0,0,0,-2.83307,-23.6162,-4.13695,20.528,1.27136,1.4547,-0.23793,
0.189196,-0.10471,0.378535,-2.38325,0.691558,0.572324,0.0610357,0.189757,0.000492962,0.204213,-0.405738,0.0406232,0.938736,0.00616326,-4.48592,-1.7798,-4.80938,4.85721,-5.14116,1.09245,0.586014,12.1748,-3.50031,13.2724,-33.8433,0.378349,11.3102,0.0929717,0.180889,-0.104861,0.369575,-2.36588,0.690553,0.533218,0.0607226,0.353696,-0.0689572,0.38596,-0.863149,0.366493,1.65511,0.00317888,0,0,0,0,0,0,0,-2.83307,-23.6162,-4.13695,20.528,1.27136,1.4547,-0.23793,
0.184928,-0.104613,0.373934,-2.37379,0.690966,0.549899,0.0608721,0.197497,0.00383477,0.212588,-0.413425,0.0314978,0.943227,0.00637828,4.83775,2.08863,5.23414,-4.80455,-5.70335,2.80666,0.13439,12.1622,-3.78457,13.3047,-34.8827,0.872214,11.3102,0.0419738,0.180889,-0.104861,0.369575,-2.36588,0.690553,0.533218,0.0607226,0.353696,-0.0689572,0.38596,-0.863149,0.366493,1.65511,0.00317888,0,0,0,0,0,0,0,-2.83307,-23.6162,-4.13695,20.528,1.27136,1.4547,-0.23793,
0.186508,-0.104557,0.375633,-2.37703,0.690872,0.557276,0.0609424,0.197496,0.0044869,0.21255,-0.411767,0.0228394,0.939026,0.00685958,-0.000797187,0.407579,-0.0237084,1.03617,-5.41151,-2.62548,0.300813,12.2145,-3.64278,13.337,-34.3646,0.553219,11.3102,0.0632123,0.180889,-0.104861,0.369575,-2.36588,0.690553,0.533218,0.0607226,0.353696,-0.0689572,0.38596,-0.863149,0.366493,1.65511,0.00317888,0,0,0,0,0,0,0,-2.83307,-23.6162,-4.13695,20.528,1.27136,1.4547,-0.23793,
0.187913,-0.104577,0.377144,-2.38011,0.690819,0.564681,0.0610192,0.193126,0.00306953,0.207819,-0.40637,0.016959,0.936342,0.00740938,-2.73107,-0.885856,-2.9568,3.37332,-3.67524,-1.67741,0.343622,12.1748,-3.50031,13.2724,-33.8433,0.378349,11.3102,0.0929717,0.180889,-0.104861,0.369575,-2.36588,0.690553,0.533218,0.0607226,0.353696,-0.0689572,0.38596,-0.863149,0.366493,1.65511,0.00317888,0,0,0,0,0,0,0,-2.83307,-23.6162,-4.13695,20.528,1.27136,1.4547,-0.23793,
0.189191,-0.104653,0.37852,-2.38304,0.690439,0.572202,0.0611025,0.186465,0.000556263,0.200647,-0.398489,0.00407271,0.937093,0.00800856,-4.16352,-1.57079,-4.48241,4.92572,-8.05393,0.469199,0.374492,11.8527,-3.38242,12.9133,-33.3574,0.329285,11.3102,0.101827,0.180889,-0.104861,0.369575,-2.36588,0.690553,0.533218,0.0607226,0.353696,-0.0689572,0.38596,-0.863149,0.366493,1.65511,0.00317888,0,0,0,0,0,0,0,-2.83307,-23.6162,-4.13695,20.528,1.27136,1.4547,-0.23793,
0.184934,-0.104589,0.373936,-2.37372,0.690692,0.549857,0.0609156,0.194916,0.00420413,0.20974,-0.406691,-0.00123197,0.941404,0.00844891,5.28198,2.27992,5.68295,-5.12634,-3.31543,2.69446,0.275214,12.2145,-3.64278,13.337,-34.3646,0.553219,11.3102,0.0632123,0.180889,-0.104861,0.369575,-2.36588,0.690553,0.533218,0.0607226,0.353696,-0.0689572,0.38596,-0.863149,0.366493,1.65511,0.00317888,0,0,0,0,0,0,0,-2.83307,-23.6162,-4.13695,20.528,1.27136,1.4547,-0.23793,
0.186507,-0.104521,0.375626,-2.37692,0.690508,0.55721,0.0609921,0.195259,0.00504452,0.210055,-0.40556,-0.00558579,0.936959,0.00867085,0.214819,0.525241,0.196683,0.706945,-2.72114,-2.77802,0.138716,12.1748,-3.50031,13.2724,-33.8433,0.378349,11.3102,0.0929717,0.180889,-0.104861,0.369575,-2.36588,0.690553,0.533218,0.0607226,0.353696,-0.0689572,0.38596,-0.863149,0.366493,1.65511,0.00317888,0,0,0,0,0,0,0,-2.83307,-23.6162,-4.13695,20.528,1.27136,1.4547,-0.23793,
0.187903,-0.104531,0.377126,-2.37994,0.690027,0.564567,0.061073,0.191104,0.00380079,0.205537,-0.399842,-0.0164798,0.933497,0.00895914,-2.59711,-0.777333,-2.82329,3.57365,-6.80874,-2.16412,0.180182,11.8527,-3.38242,12.9133,-33.3574,0.329285,11.3102,0.101827,0.180889,-0.104861,0.369575,-2.36588,0.690553,0.533218,0.0607226,0.353696,-0.0689572,0.38596,-0.863149,0.366493,1.65511,0.00317888,0,0,0,0,0,0,0,-2.83307,-23.6162,-4.13695,20.528,1.27136,1.4547,-0.23793,
0.189171,-0.104597,0.37849,-2.38281,0.689026,0.572049,0.0611542,0.184585,0.0013951,0.198525,-0.391616,-0.0382127,0.933842,0.00919775,-4.0743,-1.50355,-4.38273,5.1409,-13.5831,0.216083,0.149132,11.4358,-3.24739,12.5236,-32.8763,-0.681378,11.3102,0.0972135,0.180889,-0.104861,0.369575,-2.36588,0.690553,0.533218,0.0607226,0.353696,-0.0689572,0.38596,-0.863149,0.366493,1.65511,0.00317888,0,0,0,0,0,0,0,-2.83307,-23.6162,-4.13695,20.528,1.27136,1.4547,-0.23793,
0.184928,-0.104566,0.373925,-2.37365,0.69055,0.549805,0.0609477,0.193235,0.00515143,0.207811,-0.400397,-0.0365911,0.938069,0.00957556,5.40603,2.3477,5.8038,-5.48755,1.0135,2.64157,0.236126,12.1748,-3.50031,13.2724,-33.8433,0.378349,11.3102,0.0929717,0.180889,-0.104861,0.369575,-2.36588,0.690553,0.533218,0.0607226,0.353696,-0.0689572,0.38596,-0.863149,0.366493,1.65511,0.00317888,0,0,0,0,0,0,0,-2.83307,-23.6162,-4.13695,20.528,1.27136,1.4547,-0.23793,
0.186492,-0.104487,0.375604,-2.3768,0.689955,0.557107,0.0610284,0.193686,0.00610027,0.208226,-0.398954,-0.0441473,0.933004,0.00967874,0.282073,0.593027,0.259328,0.901883,-4.72261,-3.16583,0.0644923,11.8527,-3.38242,12.9133,-33.3574,0.329285,11.3102,0.101827,0.180889,-0.104861,0.369575,-2.36588,0.690553,0.533218,0.0607226,0.353696,-0.0689572,0.38596,-0.863149,0.366493,1.65511,0.00317888,0,0,0,0,0,0,0,-2.83307,-23.6162,-4.13695,20.528,1.27136,1.4547,-0.23793,
0.187878,-0.104486,0.377092,-2.37975,0.688863,0.564422,0.0611074,0.189592,0.00490507,0.203784,-0.392893,-0.0626003,0.929293,0.0097176,-2.55853,-0.747004,-2.77648,3.7877,-11.5331,-2.31936,0.0242847,11.4358,-3.24739,12.5236,-32.8763,-0.681378,11.3102,0.0972135,0.180889,-0.104861,0.369575,-2.36588,0.690553,0.533218,0.0607226,0.353696,-0.0689572,0.38596,-0.863149,0.366493,1.65511,0.00317888,0,0,0,0,0,0,0,-2.83307,-23.6162,-4.13695,20.528,1.27136,1.4547,-0.23793,
0.184913,-0.104545,0.373905,-2.37357,0.690125,0.54972,0.0609597,0.197029,0.00825938,0.211747,-0.399896,-0.0659698,0.933049,0.0101064,4.64806,2.09645,4.97706,-4.37647,-2.10594,2.34759,0.242994,11.8527,-3.38242,12.9133,-33.3574,0.329285,11.3102,0.101827,0.180889,-0.104861,0.369575,-2.36588,0.690553,0.533218,0.0607226,0.353696,-0.0689572,0.38596,-0.863149,0.366493,1.65511,0.00317888,0,0,0,0,0,0,0,-2.83307,-23.6162,-4.13695,20.528,1.27136,1.4547,-0.23793,
0.186468,-0.104455,0.375573,-2.37665,0.688929,0.556977,0.0610386,0.196486,0.0088544,0.2111,-0.3969,-0.0826876,0.927853,0.010059,-0.339387,0.371885,-0.404523,1.87204,-10.4486,-3.24752,-0.0296067,11.4358,-3.24739,12.5236,-32.8763,-0.681378,11.3102,0.0972135,0.180889,-0.104861,0.369575,-2.36588,0.690553,0.533218,0.0607226,0.353696,-0.0689572,0.38596,-0.863149,0.366493,1.65511,0.00317888,0,0,0,0,0,0,0,-2.83307,-23.6162,-4.13695,20.528,1.27136,1.4547,-0.23793,
0.187844,-0.104444,0.377051,-2.37954,0.68723,0.564271,0.0611132,0.191589,0.00734961,0.20582,-0.389907,-0.108622,0.92462,0.00991069,-3.06113,-0.940493,-3.29971,4.3707,-16.2092,-2.02037,-0.0927061,11.1211,-3.05378,12.2295,-32.3486,-1.74791,11.3102,0.0890194,0.180889,-0.104861,0.369575,-2.36588,0.690553,0.533218,0.0607226,0.353696,-0.0689572,0.38596,-0.863149,0.366493,1.65511,0.00317888,0,0,0,0,0,0,0,-2.83307,-23.6162,-4.13695,20.528,1.27136,1.4547,-0.23793,
0.189092,-0.104492,0.378395,-2.38232,0.685085,0.571729,0.061185,0.184491,0.00470037,0.198246,-0.381288,-0.140529,0.926161,0.00972362,-4.43583,-1.65577,-4.73374,5.38686,-19.9414,0.962931,-0.116918,10.9583,-2.86052,12.0657,-31.7885,-2.53416,11.3102,0.0832624,0.180889,-0.104861,0.369575,-2.36588,0.690553,0.533218,0.0607226,0.353696,-0.0689572,0.38596,-0.863149,0.366493,1.65511,0.00317888,0,0,0,0,0,0,0,-2.83307,-23.6162,-4.13695,20.528,1.27136,1.4547,-0.23793,
