xiao-wang007/linearmpc_panda/paper_data/panda_torque_PD_controller_error_match_to_start_low_pass_filter/3/trajectory.csv
Commanded Joint 0 Position,Commanded Joint 1 Position,Commanded Joint 2 Position,Commanded Joint 3 Position,Commanded Joint 4 Position,Commanded Joint 5 Position,Commanded Joint 6 Position,Commanded Joint 0 Velocity,Commanded Joint 1 Velocity,Commanded Joint 2 Velocity,Commanded Joint 3 Velocity,Commanded Joint 4 Velocity,Commanded Joint 5 Velocity,Commanded Joint 6 Velocity,Commanded Joint 0 Acceleration,Commanded Joint 1 Acceleration,Commanded Joint 2 Acceleration,Commanded Joint 3 Acceleration,Commanded Joint 4 Acceleration,Commanded Joint 5 Acceleration,Commanded Joint 6 Acceleration,Commanded Joint 0 Torque,Commanded Joint 1 Torque,Commanded Joint 2 Torque,Commanded Joint 3 Torque,Commanded Joint 4 Torque,Commanded Joint 5 Torque,Commanded Joint 6 Torque,Actual Joint 0 Position,Actual Joint 1 Position,Actual Joint 2 Position,Actual Joint 3 Position,Actual Joint 4 Position,Actual Joint 5 Position,Actual Joint 6 Position,Actual Joint 0 Velocity,Actual Joint 1 Velocity,Actual Joint 2 Velocity,Actual Joint 3 Velocity,Actual Joint 4 Velocity,Actual Joint 5 Velocity,Actual Joint 6 Velocity,Actual Joint 0 Acceleration,Actual Joint 1 Acceleration,Actual Joint 2 Acceleration,Actual Joint 3 Acceleration,Actual Joint 4 Acceleration,Actual Joint 5 Acceleration,Actual Joint 6 Acceleration,Actual Joint 0 Torque,Actual Joint 1 Torque,Actual Joint 2 Torque,Actual Joint 3 Torque,Actual Joint 4 Torque,Actual Joint 5 Torque,Actual Joint 6 Torque,
0.00789496,-0.0270311,-0.0158513,-1.90089,-0.0427468,0.397258,0.11443,0.00023505,0.0224842,0.000206651,-0.0334393,-0.00332571,0.0541958,-0.000349616,0.146906,14.0526,0.129157,-20.8996,-2.07857,33.8723,-0.21851,0.0611461,23.9424,0.070095,-24.6586,-0.427155,1.6508,-0.0231155,0.00789413,-0.028165,-0.0158584,-1.89785,-0.0425635,0.39138,0.114478,-0.00797865,0.00178902,-0.00161955,0.00155587,-0.00529782,0.000156082,0.00105389,0,0,0,0,0,0,0,0.00751081,-34.4231,0.0128308,27.3279,0.434567,3.43133,-0.117081,
0.00782181,-0.0281485,-0.0159306,-1.89785,-0.0426758,0.391399,0.11448,-0.000277628,0.0180849,-0.00030342,-0.026757,-0.00347517,0.043475,-0.0002727,-0.320424,-2.74957,-0.318794,4.17643,-0.0934108,-6.70046,0.0480725,0.0553101,24.3829,0.0596647,-24.5749,-0.427737,1.40023,-0.0215981,0.00789413,-0.028165,-0.0158584,-1.89785,-0.0425635,0.39138,0.114478,-0.00797865,0.00178902,-0.00161955,0.00155587,-0.00529782,0.000156082,0.00105389,0,0,0,0,0,0,0,0.00751081,-34.4231,0.0128308,27.3279,0.434567,3.43133,-0.117081,
0.00780699,-0.0281453,-0.0159455,-1.89785,-0.042703,0.391402,0.11448,-0.000592494,0.0145479,-0.000615656,-0.0214127,-0.00346121,0.0348674,-0.000213253,-0.196792,-2.21066,-0.195147,3.34019,0.00872173,-5.37979,0.0371549,0.0480225,24.9545,0.0478503,-24.4668,-0.427462,1.05301,-0.019628,0.00789413,-0.028165,-0.0158584,-1.89785,-0.0425635,0.39138,0.114478,-0.00797865,0.00178902,-0.00161955,0.00155587,-0.00529782,0.000156082,0.00105389,0,0,0,0,0,0,0,0.00751081,-34.4231,0.0128308,27.3279,0.434567,3.43133,-0.117081,
0.00779517,-0.0281426,-0.0159574,-1.89785,-0.0427254,0.391405,0.11448,-0.000769501,0.0117066,-0.00079016,-0.0171363,-0.00332761,0.0279632,-0.00016709,-0.110629,-1.77579,-0.109066,2.67272,0.0835048,-4.31512,0.0288517,0.0420046,25.4784,0.0383528,-24.2989,-0.425667,0.668204,-0.0176277,0.00789413,-0.028165,-0.0158584,-1.89785,-0.0425635,0.39138,0.114478,-0.00797865,0.00178902,-0.00161955,0.00155587,-0.00529782,0.000156082,0.00105389,0,0,0,0,0,0,0,0.00751081,-34.4231,0.0128308,27.3279,0.434567,3.43133,-0.117081,
0.00787603,-0.0277257,-0.0158776,-1.8984,-0.0427753,0.391697,0.114486,-0.00106808,0.020348,-0.00111207,-0.0274327,-0.00795713,0.0303098,6.24807e-05,-0.186611,5.40086,-0.201195,-6.43519,-2.89345,1.46666,0.143482,2.91482e-05,30.097,0.0108538,-23.5592,-0.841884,-2.5326,0.0023787,0.00789413,-0.028165,-0.0158584,-1.89785,-0.0425635,0.39138,0.114478,-0.00797865,0.00178902,-0.00161955,0.00155587,-0.00529782,0.000156082,0.00105389,0,0,0,0,0,0,0,0.00751081,-34.4231,0.0128308,27.3279,0.434567,3.43133,-0.117081,
0.00781031,-0.0273196,-0.0159402,-1.89862,-0.0418414,0.391067,0.114463,-0.00249745,0.0264306,-0.00245425,-0.0275175,0.0169825,0.00848241,-0.000528131,-0.893354,3.80166,-0.838861,-0.0530458,15.5873,-13.6421,-0.369132,0.549696,0.159144,0.547303,-0.282594,3.32673,-1.93651,-0.00229174,0.00789812,-0.0280639,-0.0158587,-1.89788,-0.0425611,0.391389,0.114477,-0.00138926,0.0077846,-0.00196708,0.000238268,-0.0011953,-0.00259628,0.000807037,0.823675,0.749447,-0.043442,-0.1647,0.512815,-0.344046,-0.030857,-0.0202602,-34.07,0.0644055,26.8796,0.354916,3.65014,-0.103348,
0.00773443,-0.0270033,-0.0160144,-1.89876,-0.0402559,0.390009,0.114448,-0.00389489,0.0290527,-0.00382015,-0.0254531,0.0532238,-0.0196633,-0.000779952,-0.873404,1.63878,-0.85369,1.29028,22.6508,-17.5911,-0.157388,0.542319,0.158126,0.539912,-0.279807,3.29768,-1.91912,-0.00223902,0.00789812,-0.0280639,-0.0158587,-1.89788,-0.0425611,0.391389,0.114477,-0.00138926,0.0077846,-0.00196708,0.000238268,-0.0011953,-0.00259628,0.000807037,0,0,0,0,0,0,0,-0.0202602,-34.07,0.0644055,26.8796,0.354916,3.65014,-0.103348,
0.00766515,-0.0267641,-0.0160831,-1.89887,-0.0383043,0.388726,0.11444,-0.004848,0.029221,-0.00477234,-0.0230398,0.0913702,-0.0477981,-0.000825863,-0.595694,0.105236,-0.595118,1.50827,23.8415,-17.5842,-0.0286939,0.534846,0.157095,0.53242,-0.277018,3.26918,-1.90162,-0.002213,0.00789812,-0.0280639,-0.0158587,-1.89788,-0.0425611,0.391389,0.114477,-0.00138926,0.0077846,-0.00196708,0.000238268,-0.0011953,-0.00259628,0.000807037,0,0,0,0,0,0,0,-0.0202602,-34.07,0.0644055,26.8796,0.354916,3.65014,-0.103348,
0.00789972,-0.0275908,-0.0158587,-1.89845,-0.042743,0.391688,0.114484,-0.00383841,0.0352036,-0.00381727,-0.0325355,0.0685493,-0.0307753,-0.00047839,0.630998,3.73907,0.596923,-5.93476,-14.263,10.6393,0.217171,1.10291e-05,30.0997,0.0107967,-23.5586,-0.841857,-2.53207,0.00237561,0.00789812,-0.0280639,-0.0158587,-1.89788,-0.0425611,0.391389,0.114477,-0.00138926,0.0077846,-0.00196708,0.000238268,-0.0011953,-0.00259628,0.000807037,0,0,0,0,0,0,0,-0.0202602,-34.07,0.0644055,26.8796,0.354916,3.65014,-0.103348,
0.00777454,-0.0271536,-0.0159746,-1.89841,-0.0392801,0.388747,0.114406,-0.00620021,0.0390934,-0.00595016,-0.0249972,0.14141,-0.0981405,-0.00233902,-1.47613,2.43117,-1.33306,4.71144,45.5378,-42.1033,-1.16289,3.71868,1.0937,3.71253,-1.70779,11.1608,-10.1743,-0.012944,0.00789915,-0.0248398,-0.0158492,-1.90258,-0.0427251,0.397974,0.114477,-0.00182178,0.116624,9.38836e-05,-0.207007,-0.0115025,0.18076,0.000739631,-0.0540656,13.6049,0.257621,-25.9057,-1.2884,22.9196,-0.00842582,-0.119442,-18.5976,-0.16173,22.3688,0.58746,1.614,-0.110672,
0.00763319,-0.0268631,-0.0161112,-1.89829,-0.0337332,0.384089,0.114357,-0.00849399,0.0385363,-0.00817586,-0.0170591,0.2518,-0.194957,-0.00308939,-1.43361,-0.348197,-1.39107,4.96127,68.994,-60.5106,-0.468982,3.66277,1.18177,3.65932,-1.64521,11.1608,-10.0238,-0.0124337,0.00789915,-0.0248398,-0.0158492,-1.90258,-0.0427251,0.397974,0.114477,-0.00182178,0.116624,9.38836e-05,-0.207007,-0.0115025,0.18076,0.000739631,0,0,0,0,0,0,0,-0.119442,-18.5976,-0.16173,22.3688,0.58746,1.614,-0.110672,
0.00791565,-0.0234475,-0.0158341,-1.90387,-0.0430719,0.398284,0.114486,-0.00638271,0.0656382,-0.00616247,-0.0459824,0.192772,-0.148199,-0.00225373,1.31955,16.9387,1.25837,-18.077,-36.8928,29.2237,0.522284,-0.00282396,30.2441,0.00673703,-23.5229,-0.839213,-2.50777,0.00225712,0.00789915,-0.0248398,-0.0158492,-1.90258,-0.0427251,0.397974,0.114477,-0.00182178,0.116624,9.38836e-05,-0.207007,-0.0115025,0.18076,0.000739631,0,0,0,0,0,0,0,-0.119442,-18.5976,-0.16173,22.3688,0.58746,1.614,-0.110672,
0.00825307,-0.0223352,-0.0154809,-1.90449,-0.040578,0.394018,0.114528,0.00332942,0.080318,0.00390039,-0.0522251,0.216564,-0.225214,-0.000750016,6.07008,9.17492,6.28929,-3.90167,14.8704,-48.134,0.939822,26.6047,3.31161,26.7907,-10.8085,11.1608,-14.5078,0.0908034,0.00789915,-0.0248398,-0.0158492,-1.90258,-0.0427251,0.397974,0.114477,-0.00182178,0.116624,9.38836e-05,-0.207007,-0.0115025,0.18076,0.000739631,0,0,0,0,0,0,0,-0.119442,-18.5976,-0.16173,22.3688,0.58746,1.614,-0.110672,
0.00886016,-0.0214897,-0.0148512,-1.90494,-0.0361853,0.38715,0.11457,0.0178406,0.0853923,0.0188621,-0.0530005,0.283068,-0.35187,0.000461657,9.06949,3.17144,9.35104,-0.484651,41.5648,-79.1602,0.757296,25.0825,4.51021,25.358,-9.07964,11.1462,-14.4664,0.0716795,0.00786435,-0.0188926,-0.0158753,-1.9057,-0.0384472,0.394075,0.114484,-0.00671352,0.124739,-0.00807945,-0.0170311,0.0812588,-0.256104,1.8186e-05,-0.611468,1.01441,-1.02167,23.747,11.5952,-54.6081,-0.0901806,0.336795,-34.5461,0.413527,28.5974,0.0381434,3.46429,-0.137222,
0.00968477,-0.0208324,-0.0140026,-1.90534,-0.0305155,0.378676,0.114589,0.0348878,0.0847465,0.0363033,-0.0525305,0.368201,-0.493347,0.000828956,10.6545,-0.403637,10.9008,0.293744,53.2082,-88.4232,0.229562,23.7581,4.4616,24.0542,-7.70093,11.1462,-14.4664,0.0292962,0.00786435,-0.0188926,-0.0158753,-1.9057,-0.0384472,0.394075,0.114484,-0.00671352,0.124739,-0.00807945,-0.0170311,0.0812588,-0.256104,1.8186e-05,0,0,0,0,0,0,0,0.336795,-34.5461,0.413527,28.5974,0.0381434,3.46429,-0.137222,
0.00784194,-0.0177645,-0.0158988,-1.90661,-0.0382713,0.393017,0.114496,0.0273501,0.0960019,0.0284549,-0.0648433,0.298958,-0.421127,0.000962532,-4.71111,7.0346,-4.90525,-7.69551,-43.2772,45.1377,0.0834846,-0.0100945,30.3683,-0.00256079,-23.4957,-0.85384,-2.46638,0.00211948,0.00786435,-0.0188926,-0.0158753,-1.9057,-0.0384472,0.394075,0.114484,-0.00671352,0.124739,-0.00807945,-0.0170311,0.0812588,-0.256104,1.8186e-05,0,0,0,0,0,0,0,0.336795,-34.5461,0.413527,28.5974,0.0381434,3.46429,-0.137222,
0.00844565,-0.0172475,-0.015274,-1.90766,-0.0359976,0.388478,0.114722,0.0369728,0.0897254,0.0383838,-0.0780662,0.29601,-0.450379,0.00643866,6.0142,-3.92277,6.20556,-8.26432,-1.84231,-18.2822,3.42258,41.6748,-3.95979,41.9234,-19.9209,11.1462,-14.4664,0.288211,0.00786435,-0.0188926,-0.0158753,-1.9057,-0.0384472,0.394075,0.114484,-0.00671352,0.124739,-0.00807945,-0.0170311,0.0812588,-0.256104,1.8186e-05,0,0,0,0,0,0,0,0.336795,-34.5461,0.413527,28.5974,0.0381434,3.46429,-0.137222,
0.00948044,-0.0170532,-0.0142245,-1.90876,-0.0320197,0.381637,0.114855,0.0554479,0.0766375,0.0569452,-0.0899256,0.336256,-0.531321,0.00847184,11.547,-8.17996,11.6009,-7.41209,25.1538,-50.5888,1.27074,36.6071,-2.18402,36.7718,-18.9436,11.0303,-14.3887,0.161289,0.00786351,-0.0116765,-0.0160795,-1.90731,-0.0217913,0.37745,0.114478,-0.00468814,0.201838,-0.014682,-0.113718,0.763764,-0.577653,-0.00126101,0.253173,9.63732,-0.825323,-12.0858,85.3131,-40.1936,-0.159899,3.25275,-35.9187,2.98829,14.101,1.91314,-0.507273,-0.083206,
0.0107981,-0.016994,-0.012897,-1.90985,-0.0267091,0.373275,0.114865,0.0773008,0.06279,0.0787433,-0.0991617,0.401768,-0.63412,0.00702865,13.658,-8.65469,13.6238,-5.77257,40.9451,-64.2496,-0.901993,32.6028,-0.553181,32.7102,-17.5637,11.0303,-14.3887,0.0084472,0.00786351,-0.0116765,-0.0160795,-1.90731,-0.0217913,0.37745,0.114478,-0.00468814,0.201838,-0.014682,-0.113718,0.763764,-0.577653,-0.00126101,0,0,0,0,0,0,0,3.25275,-35.9187,2.98829,14.101,1.91314,-0.507273,-0.083206,
0.00795302,-0.00998185,-0.0159925,-1.90876,-0.0185144,0.37429,0.114533,0.0640784,0.0925977,0.0651702,-0.115383,0.403337,-0.586295,0.00701384,-8.26402,18.6298,-8.4832,-10.1381,0.980312,29.8905,-0.00925941,-0.170024,30.7831,-0.164698,-23.5704,-0.969731,-2.38874,0.00209676,0.00786351,-0.0116765,-0.0160795,-1.90731,-0.0217913,0.37745,0.114478,-0.00468814,0.201838,-0.014682,-0.113718,0.763764,-0.577653,-0.00126101,0,0,0,0,0,0,0,3.25275,-35.9187,2.98829,14.101,1.91314,-0.507273,-0.083206,
0.00889472,-0.00924389,-0.0150436,-1.91075,-0.0147701,0.368587,0.1149,0.0748052,0.0925273,0.0758596,-0.142139,0.416277,-0.611605,0.0147718,6.70424,-0.0439848,6.68088,-16.7229,8.08763,-15.8185,4.84875,51.0068,-7.89396,50.9758,-29.2983,11.0303,-14.3887,0.416824,0.00786351,-0.0116765,-0.0160795,-1.90731,-0.0217913,0.37745,0.114478,-0.00468814,0.201838,-0.014682,-0.113718,0.763764,-0.577653,-0.00126101,0,0,0,0,0,0,0,3.25275,-35.9187,2.98829,14.101,1.91314,-0.507273,-0.083206,
0.0103343,-0.00887869,-0.0135967,-1.91274,-0.0100638,0.360905,0.115021,0.0958336,0.0831518,0.09686,-0.16344,0.450678,-0.681331,0.0148531,13.1428,-5.85971,13.1253,-13.3132,21.501,-43.5786,0.0508032,42.8107,-3.65434,42.8232,-26.7587,11.0467,-14.0826,0.117157,0.011576,-0.00475438,-0.0126635,-1.91077,0.000234264,0.340762,0.114541,0.180514,0.200545,0.0738045,-0.231169,0.557913,-0.950009,0.0081174,23.1502,-0.161588,11.0608,-14.6815,-25.7313,-46.5445,1.1723,14.6904,-30.7533,14.3625,10.8121,2.09625,-1.2104,-0.00996382,
0.0155331,-0.00419383,-0.00869913,-1.91655,0.0103662,0.323135,0.115018,0.130803,0.0697084,0.131765,-0.202243,0.497438,-0.779622,0.0131709,21.8559,-8.40214,21.8158,-24.2515,29.2251,-61.4321,-1.05137,57.2772,-14.7486,57.2183,-37.7316,11.0467,-14.0826,0.492474,0.011576,-0.00475438,-0.0126635,-1.91077,0.000234264,0.340762,0.114541,0.180514,0.200545,0.0738045,-0.231169,0.557913,-0.950009,0.0081174,0,0,0,0,0,0,0,14.6904,-30.7533,14.3625,10.8121,2.09625,-1.2104,-0.00996382,
0.0178636,-0.00413074,-0.00636534,-1.9192,0.016753,0.312966,0.114826,0.162904,0.0573441,0.163757,-0.227916,0.557622,-0.877912,0.00574279,20.0632,-7.72763,19.9948,-16.0461,37.6144,-61.4313,-4.64259,45.9456,-8.0332,45.9235,-33.9531,11.0467,-14.0826,0.0282542,0.011576,-0.00475438,-0.0126635,-1.91077,0.000234264,0.340762,0.114541,0.180514,0.200545,0.0738045,-0.231169,0.557913,-0.950009,0.0081174,0,0,0,0,0,0,0,14.6904,-30.7533,14.3625,10.8121,2.09625,-1.2104,-0.00996382,
0.0202548,-0.00406729,-0.00397108,-1.92165,0.0239058,0.302335,0.114495,0.190105,0.0474614,0.190862,-0.243752,0.624919,-0.968106,-0.00367925,17.0006,-6.17672,16.9406,-9.897,42.0606,-56.3713,-5.88877,38.8767,-4.06713,38.877,-31.2748,11.0467,-14.0826,-0.251652,0.011576,-0.00475438,-0.0126635,-1.91077,0.000234264,0.340762,0.114541,0.180514,0.200545,0.0738045,-0.231169,0.557913,-0.950009,0.0081174,0,0,0,0,0,0,0,14.6904,-30.7533,14.3625,10.8121,2.09625,-1.2104,-0.00996382,
0.0226631,-0.00402137,-0.0015595,-1.924,0.0316201,0.291472,0.114221,0.212289,0.0391171,0.212979,-0.253661,0.692791,-1.04607,-0.00978457,13.8652,-5.21517,13.8233,-6.19364,42.4202,-48.729,-3.81583,35.1508,-1.8326,35.1731,-28.9009,11.2256,-13.6839,-0.41583,0.0177248,-0.00446391,-0.00124947,-1.92468,0.0189376,0.300662,0.114766,0.112249,0.00965051,0.529188,-0.473727,0.494601,-1.22114,0.0281165,-8.53303,-23.8618,56.9229,-30.3196,-7.9141,-33.8916,2.49989,19.1536,-33.1972,18.4369,21.1469,3.18298,-0.958628,-0.0163725,
0.0274221,-0.00353682,0.00849549,-1.93516,0.0474352,0.256031,0.113464,0.227659,0.0345614,0.228287,-0.26389,0.759561,-1.11525,-0.0173495,9.60626,-2.84733,9.56767,-6.39304,41.7311,-43.2388,-4.72805,35.1508,-1.8326,35.1731,-28.9009,11.2256,-13.6839,-0.41583,0.0177248,-0.00446391,-0.00124947,-1.92468,0.0189376,0.300662,0.114766,0.112249,0.00965051,0.529188,-0.473727,0.494601,-1.22114,0.0281165,0,0,0,0,0,0,0,19.1536,-33.1972,18.4369,21.1469,3.18298,-0.958628,-0.0163725,
0.0296508,-0.00342924,0.0107276,-1.93751,0.0559693,0.245215,0.113081,0.237846,0.0303386,0.238433,-0.269883,0.821,-1.16261,-0.0234415,6.36693,-2.63926,6.34105,-3.74523,38.3993,-29.5987,-3.80755,32.8705,-1.71479,32.9065,-27.6821,11.2256,-13.6839,-0.333934,0.0177248,-0.00446391,-0.00124947,-1.92468,0.0189376,0.300662,0.114766,0.112249,0.00965051,0.529188,-0.473727,0.494601,-1.22114,0.0281165,0,0,0,0,0,0,0,19.1536,-33.1972,18.4369,21.1469,3.18298,-0.958628,-0.0163725,
0.0318053,-0.00334085,0.0128856,-1.93979,0.0646833,0.234811,0.112717,0.244138,0.0264806,0.244697,-0.272916,0.874652,-1.19017,-0.0278452,3.93231,-2.41125,3.91506,-1.89606,33.5325,-17.225,-2.75228,29.746,-3.18431,29.7881,-28.0251,11.2256,-13.6839,-0.363981,0.0177248,-0.00446391,-0.00124947,-1.92468,0.0189376,0.300662,0.114766,0.112249,0.00965051,0.529188,-0.473727,0.494601,-1.22114,0.0281165,0,0,0,0,0,0,0,19.1536,-33.1972,18.4369,21.1469,3.18298,-0.958628,-0.0163725,
0.0338928,-0.00327123,0.014977,-1.94201,0.0734901,0.224847,0.112378,0.2475,0.022925,0.248041,-0.273749,0.919891,-1.20124,-0.0307608,2.1013,-2.22224,2.08956,-0.520209,28.2747,-6.91486,-1.82227,27.2043,-1.48776,27.262,-26.6973,11.3849,-12.4462,-0.464905,0.0353632,-0.00638421,0.0130598,-1.94379,0.0482577,0.24806,0.114894,0.586777,0.0551681,0.443874,-0.488945,1.00037,-1.77078,-0.0146359,59.316,5.6897,-10.6642,-1.90226,63.2216,-68.7048,-5.34405,16.1107,-30.7533,15.8344,20.1273,4.08111,-0.905527,0.0303194,
0.0501288,-0.00394627,0.0278149,-1.95743,0.0964627,0.190398,0.113117,0.259294,0.0265904,0.259781,-0.279533,0.978502,-1.20045,-0.0320226,7.37135,2.29085,7.33763,-3.61532,36.6319,0.488389,-0.788617,25.8133,-0.819544,25.8755,-25.6838,11.3849,-11.6974,-0.467434,0.0353632,-0.00638421,0.0130598,-1.94379,0.0482577,0.24806,0.114894,0.586777,0.0551681,0.443874,-0.488945,1.00037,-1.77078,-0.0146359,0,0,0,0,0,0,0,16.1107,-30.7533,15.8344,20.1273,4.08111,-0.905527,0.0303194,
0.0524236,-0.00368961,0.0301123,-1.95977,0.106027,0.181926,0.112848,0.264806,0.0276888,0.265259,-0.282296,1.0219,-1.17217,-0.0323575,3.44488,0.686516,3.42397,-1.72664,27.1248,17.6754,-0.209291,24.8693,-0.619116,24.9327,-24.938,11.3849,-11.0471,-0.445566,0.0353632,-0.00638421,0.0130598,-1.94379,0.0482577,0.24806,0.114894,0.586777,0.0551681,0.443874,-0.488945,1.00037,-1.77078,-0.0146359,0,0,0,0,0,0,0,16.1107,-30.7533,15.8344,20.1273,4.08111,-0.905527,0.0303194,
0.054587,-0.00349417,0.0322786,-1.96205,0.115443,0.174535,0.112606,0.265931,0.0270373,0.266364,-0.282639,1.05294,-1.12251,-0.0319395,0.703143,-0.407209,0.690874,-0.214569,19.399,31.04,0.261209,24.0751,-0.583289,24.1387,-24.2998,11.3849,-10.5042,-0.416276,0.0353632,-0.00638421,0.0130598,-1.94379,0.0482577,0.24806,0.114894,0.586777,0.0551681,0.443874,-0.488945,1.00037,-1.77078,-0.0146359,0,0,0,0,0,0,0,16.1107,-30.7533,15.8344,20.1273,4.08111,-0.905527,0.0303194,
0.03896,-0.00577247,0.0166417,-1.94696,0.0574255,0.234593,0.114486,0.302664,0.0369233,0.302639,-0.305512,1.07155,-1.23468,-0.0357636,22.9579,6.1788,22.6719,-14.2953,11.6286,-70.108,-2.39003,25.8133,-0.819544,25.8755,-25.6838,11.3849,-11.6974,-0.467434,0.0353632,-0.00638421,0.0130598,-1.94379,0.0482577,0.24806,0.114894,0.586777,0.0551681,0.443874,-0.488945,1.00037,-1.77078,-0.0146359,0,0,0,0,0,0,0,16.1107,-30.7533,15.8344,20.1273,4.08111,-0.905527,0.0303194,
0.0421497,-0.00519107,0.0198311,-1.94982,0.0671088,0.222113,0.114097,0.321873,0.0440735,0.321847,-0.315892,1.09932,-1.29974,-0.0383299,12.0059,4.46887,12.0045,-6.48779,17.3587,-40.6607,-1.60396,25.1078,-0.487526,25.1753,-24.7215,11.391,-10.5175,-0.446364,0.0524188,-0.00593888,0.0305332,-1.96201,0.0879599,0.187272,0.113943,0.629919,-0.00841396,0.498252,-0.606031,1.27126,-2.01231,-0.0327177,5.39272,-7.94776,6.79717,-14.6358,33.8612,-30.1907,-2.26023,0.0828892,-34.1454,0.163588,23.0908,3.69568,0.380789,-0.0630644,
0.0450331,-0.00468908,0.0227155,-1.95248,0.0769466,0.210561,0.11374,0.329586,0.0478085,0.329587,-0.31919,1.1254,-1.32861,-0.0395799,4.82029,2.33437,4.83801,-2.0614,16.3006,-18.0423,-0.781215,24.3136,-0.451699,24.3813,-24.0833,11.391,-9.97457,-0.417074,0.0524188,-0.00593888,0.0305332,-1.96201,0.0879599,0.187272,0.113943,0.629919,-0.00841396,0.498252,-0.606031,1.27126,-2.01231,-0.0327177,0,0,0,0,0,0,0,0.0828892,-34.1454,0.163588,23.0908,3.69568,0.380789,-0.0630644,
0.047677,-0.00427629,0.025361,-1.95501,0.0867591,0.199977,0.113414,0.329765,0.0485667,0.329807,-0.318462,1.14563,-1.32748,-0.0398233,0.112009,0.473844,0.137441,0.455328,12.6448,0.704676,-0.152125,23.5855,-0.461451,23.6528,-23.4881,11.391,-8.94782,-0.386613,0.0524188,-0.00593888,0.0305332,-1.96201,0.0879599,0.187272,0.113943,0.629919,-0.00841396,0.498252,-0.606031,1.27126,-2.01231,-0.0327177,0,0,0,0,0,0,0,0.0828892,-34.1454,0.163588,23.0908,3.69568,0.380789,-0.0630644,
0.0678986,-0.00356731,0.045995,-1.97656,0.140235,0.135828,0.11265,0.325595,0.0478106,0.325658,-0.316757,1.16786,-1.22777,-0.0368925,-2.60593,-0.472546,-2.59332,1.06546,13.8949,62.3178,1.83175,22.8923,-0.496854,22.9592,-22.9332,11.391,-7.78083,-0.353876,0.0524188,-0.00593888,0.0305332,-1.96201,0.0879599,0.187272,0.113943,0.629919,-0.00841396,0.498252,-0.606031,1.27126,-2.01231,-0.0327177,0,0,0,0,0,0,0,0.0828892,-34.1454,0.163588,23.0908,3.69568,0.380789,-0.0630644,
0.0701744,-0.0032921,0.0482725,-1.97892,0.150025,0.130789,0.11247,0.317372,0.0451288,0.317464,-0.312488,1.17905,-1.1082,-0.0340009,-5.13967,-1.67616,-5.12127,2.66834,6.99103,74.7352,1.80721,22.3675,-1.24071,22.4376,-21.6688,11.2651,-5.71589,-0.328364,0.07483,-0.00525822,0.0526893,-1.98548,0.14252,0.119719,0.11261,0.544521,-0.0368967,0.660774,-0.703012,1.4514,-1.7476,-0.0299367,-10.6748,-3.56034,20.3152,-12.1226,22.5166,33.088,0.34762,-2.04754,-32.9234,-1.23686,26.4789,0.672604,-0.136484,-0.270889,
0.0722881,-0.00309094,0.0503882,-1.98118,0.159574,0.127182,0.112313,0.30674,0.0411318,0.306865,-0.306354,1.18196,-0.976712,-0.0311459,-6.64508,-2.49808,-6.62415,3.83336,1.82022,82.1773,1.78441,21.7222,-1.31663,21.7918,-21.2052,11.2651,-4.50396,-0.295603,0.07483,-0.00525822,0.0526893,-1.98548,0.14252,0.119719,0.11261,0.544521,-0.0368967,0.660774,-0.703012,1.4514,-1.7476,-0.0299367,0,0,0,0,0,0,0,-2.04754,-32.9234,-1.23686,26.4789,0.672604,-0.136484,-0.270889,
0.0742651,-0.00295386,0.0523677,-1.98333,0.168911,0.124839,0.112172,0.294818,0.0363327,0.294978,-0.298848,1.17899,-0.839947,-0.0284255,-7.45115,-2.99948,-7.42968,4.69157,-1.86075,85.4778,1.70026,21.0876,-1.37213,21.1564,-20.7649,11.2651,-3.4532,-0.2671,0.07483,-0.00525822,0.0526893,-1.98548,0.14252,0.119719,0.11261,0.544521,-0.0368967,0.660774,-0.703012,1.4514,-1.7476,-0.0299367,0,0,0,0,0,0,0,-2.04754,-32.9234,-1.23686,26.4789,0.672604,-0.136484,-0.270889,
0.0928799,-0.00267735,0.0707347,-2.00255,0.206705,0.0864433,0.111727,0.290779,0.0353511,0.290921,-0.293595,1.18836,-0.697289,-0.0251399,-2.52411,-0.613446,-2.53561,3.28285,5.86187,89.1617,2.05347,19.8685,-1.45916,19.9353,-19.9706,11.2651,-0.133029,-0.211254,0.07483,-0.00525822,0.0526893,-1.98548,0.14252,0.119719,0.11261,0.544521,-0.0368967,0.660774,-0.703012,1.4514,-1.7476,-0.0299367,0,0,0,0,0,0,0,-2.04754,-32.9234,-1.23686,26.4789,0.672604,-0.136484,-0.270889,
0.0948859,-0.00250392,0.0727417,-2.00457,0.216214,0.0864828,0.111649,0.282771,0.0326165,0.282912,-0.285462,1.18841,-0.556843,-0.022065,-5.00502,-1.70914,-5.00546,5.08316,0.028758,87.7789,1.92182,19.0314,-2.07063,19.093,-19.139,10.9933,1.58179,-0.189637,0.0960061,-0.00315132,0.0720009,-2.0061,0.194828,0.061871,0.111638,0.662963,0.124981,0.554659,-0.606943,1.67329,-1.52608,-0.0257286,14.8053,20.2347,-13.2644,12.0086,27.7365,27.6903,0.526017,-0.424923,-35.9941,0.43733,29.744,1.14318,2.10473,-0.23793,
0.0967331,-0.00239467,0.0745905,-2.00646,0.225471,0.0873551,0.111587,0.272398,0.0288245,0.272548,-0.275556,1.18216,-0.423667,-0.0191884,-6.48343,-2.37,-6.47745,6.19141,-3.90662,83.2348,1.79788,18.4822,-2.06397,18.543,-18.8448,10.9933,2.59917,-0.168867,0.0960061,-0.00315132,0.0720009,-2.0061,0.194828,0.061871,0.111638,0.662963,0.124981,0.554659,-0.606943,1.67329,-1.52608,-0.0257286,0,0,0,0,0,0,0,-0.424923,-35.9941,0.43733,29.744,1.14318,2.10473,-0.23793,
0.113721,0.00116047,0.0896721,-2.02248,0.261157,0.0424837,0.111208,0.269847,0.0317155,0.269901,-0.270015,1.18907,-0.323522,-0.0161078,-1.59408,1.80689,-1.65463,3.46289,4.31881,62.5907,1.9254,17.0379,-1.65277,17.0964,-17.9637,10.9933,4.57644,-0.103602,0.0960061,-0.00315132,0.0720009,-2.0061,0.194828,0.061871,0.111638,0.662963,0.124981,0.554659,-0.606943,1.67329,-1.52608,-0.0257286,0,0,0,0,0,0,0,-0.424923,-35.9941,0.43733,29.744,1.14318,2.10473,-0.23793,
0.115592,0.00140396,0.091542,-2.02429,0.270548,0.0438613,0.111191,0.262672,0.0314598,0.262666,-0.261305,1.18601,-0.224379,-0.0132925,-4.48449,-0.159853,-4.52182,5.44371,-1.91238,61.9643,1.75952,16.5925,-1.43495,16.6502,-17.6717,10.9933,4.96404,-0.0834942,0.0960061,-0.00315132,0.0720009,-2.0061,0.194828,0.061871,0.111638,0.662963,0.124981,0.554659,-0.606943,1.67329,-1.52608,-0.0257286,0,0,0,0,0,0,0,-0.424923,-35.9941,0.43733,29.744,1.14318,2.10473,-0.23793,
0.117296,0.00156544,0.093244,-2.02596,0.279659,0.0458103,0.111189,0.252725,0.0292048,0.252685,-0.250844,1.17659,-0.130777,-0.0107086,-6.21725,-1.40935,-6.23809,6.53826,-5.8868,58.5012,1.61494,15.8492,-2.3941,15.8876,-16.3951,10.6181,5.5378,-0.0724916,0.115956,0.00120597,0.0937236,-2.02733,0.251062,0.0267488,0.111366,0.871264,0.166785,0.339262,-0.57133,1.75635,-0.623967,-0.00116706,26.0377,5.22555,-26.9246,4.45164,10.3823,112.764,3.07019,-6.20923,-39.1878,-6.11266,33.9771,0.557247,4.87603,-0.183914,
0.11886,0.00166262,0.0948073,-2.02752,0.288545,0.0481843,0.111199,0.241284,0.0257932,0.241229,-0.239609,1.16344,-0.045273,-0.00831498,-7.15039,-2.13223,-7.15989,7.02182,-8.22077,53.4399,1.49603,15.423,-2.1355,15.4603,-16.0902,10.6181,5.71877,-0.0563197,0.115956,0.00120597,0.0937236,-2.02733,0.251062,0.0267488,0.111366,0.871264,0.166785,0.339262,-0.57133,1.75635,-0.623967,-0.00116706,0,0,0,0,0,0,0,-6.20923,-39.1878,-6.11266,33.9771,0.557247,4.87603,-0.183914,
0.132833,0.00568234,0.110485,-2.04124,0.317066,0.0232432,0.111271,0.240552,0.0279859,0.240343,-0.23354,1.16958,0.00464097,-0.00609971,-0.457339,1.3704,-0.553907,3.79325,3.8416,31.1963,1.38454,14.6402,-1.64668,14.6751,-15.4899,10.6181,5.87755,-0.0254646,0.115956,0.00120597,0.0937236,-2.02733,0.251062,0.0267488,0.111366,0.871264,0.166785,0.339262,-0.57133,1.75635,-0.623967,-0.00116706,0,0,0,0,0,0,0,-6.20923,-39.1878,-6.11266,33.9771,0.557247,4.87603,-0.183914,
0.134527,0.00587633,0.112173,-2.04278,0.326245,0.0253344,0.111307,0.234785,0.0272385,0.234484,-0.225275,1.16515,0.0559924,-0.00398353,-3.60438,-0.467103,-3.66178,5.16574,-2.7736,32.0946,1.32261,14.2767,-1.4264,14.3104,-15.1976,10.6181,5.88778,-0.0106532,0.115956,0.00120597,0.0937236,-2.02733,0.251062,0.0267488,0.111366,0.871264,0.166785,0.339262,-0.57133,1.75635,-0.623967,-0.00116706,0,0,0,0,0,0,0,-6.20923,-39.1878,-6.11266,33.9771,0.557247,4.87603,-0.183914,
0.136054,0.00599434,0.113695,-2.0442,0.335018,0.0277583,0.11135,0.225994,0.0247411,0.225645,-0.215758,1.15143,0.105393,-0.00210165,-5.49444,-1.56085,-5.52469,5.94797,-8.57075,30.8751,1.17618,13.8384,-2.06477,13.8501,-14.6071,10.2424,5.87261,0.000563044,0.133656,0.00460572,0.116199,-2.04739,0.308756,0.0198191,0.11135,0.425069,0.115183,0.67202,-0.512221,1.70036,0.0236243,-0.000583386,-55.7743,-6.45036,41.5949,7.38863,-6.99863,80.9489,0.0729591,-8.51422,-37.0415,-9.15953,30.3668,1.02691,4.34594,-0.103348,
0.13745,0.00605502,0.115089,-2.04551,0.343194,0.0304086,0.111397,0.215714,0.0213099,0.215349,-0.205404,1.12555,0.150571,-0.000519786,-6.42528,-2.14456,-6.43491,6.47127,-16.1744,28.2368,0.988667,13.4718,-1.87633,13.4823,-14.3266,10.2424,5.82972,0.0151637,0.133656,0.00460572,0.116199,-2.04739,0.308756,0.0198191,0.11135,0.425069,0.115183,0.67202,-0.512221,1.70036,0.0236243,-0.000583386,0,0,0,0,0,0,0,-8.51422,-37.0415,-9.15953,30.3668,1.02691,4.34594,-0.103348,
0.152152,0.000303101,0.134335,-2.04311,0.430302,0.0508949,0.109837,0.172745,0.0128077,0.172418,-0.159604,0.917464,0.150653,-0.000999257,-26.8556,-5.31382,-26.8315,28.6251,-130.056,0.0509511,-0.29967,3.50528,-0.864881,3.4442,-0.0931554,1.3183,2.02786,-0.018987,0.133656,0.00460572,0.116199,-2.04739,0.308756,0.0198191,0.11135,0.425069,0.115183,0.67202,-0.512221,1.70036,0.0236243,-0.000583386,0,0,0,0,0,0,0,-8.51422,-37.0415,-9.15953,30.3668,1.02691,4.34594,-0.103348,
0.152159,0.000133819,0.134341,-2.04292,0.430982,0.0520972,0.109814,0.13837,0.00601417,0.138076,-0.122984,0.750962,0.150581,-0.00138214,-21.4845,-4.24599,-21.4639,22.8877,-104.064,-0.0451956,-0.239301,3.44015,-0.862553,3.3777,0.156019,1.75531,1.75352,-0.0209252,0.133656,0.00460572,0.116199,-2.04739,0.308756,0.0198191,0.11135,0.425069,0.115183,0.67202,-0.512221,1.70036,0.0236243,-0.000583386,0,0,0,0,0,0,0,-8.51422,-37.0415,-9.15953,30.3668,1.02691,4.34594,-0.103348,
0.152166,-3.51402e-05,0.134346,-2.04274,0.43166,0.0532941,0.109791,0.110869,0.000587347,0.110605,-0.0937072,0.617729,0.150386,-0.00168775,-17.1877,-3.39176,-17.1698,18.2978,-83.2702,-0.121709,-0.191008,3.36452,-1.32025,3.28408,0.512984,2.04432,1.41458,-0.0226941,0.153247,0.00667289,0.133241,-2.06409,0.363836,0.0256463,0.111371,0.257528,0.00777238,0.775771,-0.495262,1.53303,0.296614,0.00148257,-20.9427,-13.4263,12.9688,2.11994,-20.9155,34.1237,0.258244,-8.10955,-37.6167,-7.98522,29.2203,2.05963,3.3709,-0.0365141,
0.166831,0.00814483,0.146682,-2.06605,0.422031,0.0151993,0.110934,0.0966151,-0.00389174,0.0962011,-0.0709636,0.532008,0.138662,-0.00206517,-8.90887,-2.79943,-9.00219,14.2148,-53.576,-7.32727,-0.235885,1.92614,-1.08477,1.83964,2.47894,7.6474,-1.29165,-0.0133278,0.153247,0.00667289,0.133241,-2.06409,0.363836,0.0256463,0.111371,0.257528,0.00777238,0.775771,-0.495262,1.53303,0.296614,0.00148257,0,0,0,0,0,0,0,-8.10955,-37.6167,-7.98522,29.2203,2.05963,3.3709,-0.0365141,
0.167083,0.00796318,0.146927,-2.06588,0.423345,0.0160806,0.110906,0.0835897,-0.00765475,0.0830702,-0.0524347,0.458468,0.132963,-0.00234648,-8.14092,-2.35188,-8.20677,11.5805,-45.9623,-3.56216,-0.175822,1.25928,-1.06895,1.17027,2.75833,8.05537,-1.3985,-0.0112696,0.153247,0.00667289,0.133241,-2.06409,0.363836,0.0256463,0.111371,0.257528,0.00777238,0.775771,-0.495262,1.53303,0.296614,0.00148257,0,0,0,0,0,0,0,-8.10955,-37.6167,-7.98522,29.2203,2.05963,3.3709,-0.0365141,
0.167283,0.00777719,0.14712,-2.0657,0.424511,0.0170771,0.110879,0.0718794,-0.0107735,0.0712878,-0.0373568,0.395927,0.131282,-0.00255443,-7.31891,-1.94922,-7.36403,9.42369,-39.0879,-1.05045,-0.129967,0.51873,-1.17853,0.412234,2.9767,8.03602,-1.26512,-0.0613425,0.153247,0.00667289,0.133241,-2.06409,0.363836,0.0256463,0.111371,0.257528,0.00777238,0.775771,-0.495262,1.53303,0.296614,0.00148257,0,0,0,0,0,0,0,-8.10955,-37.6167,-7.98522,29.2203,2.05963,3.3709,-0.0365141,
0.167442,0.00758869,0.147273,-2.0655,0.425566,0.0181635,0.110852,0.0614886,-0.0133313,0.0608496,-0.0251005,0.343102,0.132185,-0.00270675,-6.49426,-1.59859,-6.52387,7.66018,-33.0161,0.564081,-0.0951996,0.387229,-2.03286,0.306285,2.72859,5.06731,-0.12216,-0.038598,0.167613,0.0091547,0.145024,-2.07277,0.399367,0.0316842,0.111404,0.354213,-0.0230535,0.208261,-0.172441,0.823851,0.110308,-0.00116759,12.0857,-3.85324,-70.9388,40.3526,-88.6477,-23.2882,-0.33127,-16.0481,-39.2116,-15.0867,29.2957,-0.56702,0.931021,-0.0301054,
0.17328,0.00899183,0.150594,-2.07304,0.416013,0.0319522,0.111207,0.0652155,-0.0138582,0.064407,-0.0173571,0.328359,0.114769,-0.00301892,2.32934,-0.32937,2.22335,4.83963,-9.21434,-10.8848,-0.195108,0.170686,-2.15848,0.0945121,2.97315,1.03331,1.89314,-0.0323128,0.167613,0.0091547,0.145024,-2.07277,0.399367,0.0316842,0.111404,0.354213,-0.0230535,0.208261,-0.172441,0.823851,0.110308,-0.00116759,0,0,0,0,0,0,0,-16.0481,-39.2116,-15.0867,29.2957,-0.56702,0.931021,-0.0301054,
0.17378,0.00883944,0.151083,-2.0729,0.417842,0.0324897,0.111175,0.0646791,-0.0148966,0.0637695,-0.010542,0.308409,0.105254,-0.003211,-0.335262,-0.648945,-0.398451,4.25947,-12.4685,-5.9467,-0.120052,0.170686,-2.15848,0.0945121,2.97315,1.03331,1.89314,-0.0323128,0.167613,0.0091547,0.145024,-2.07277,0.399367,0.0316842,0.111404,0.354213,-0.0230535,0.208261,-0.172441,0.823851,0.110308,-0.00116759,0,0,0,0,0,0,0,-16.0481,-39.2116,-15.0867,29.2957,-0.56702,0.931021,-0.0301054,
0.174171,0.00867137,0.151465,-2.07275,0.419419,0.0331812,0.111145,0.0615284,-0.0161189,0.0605649,-0.00462163,0.28616,0.101491,-0.00332071,-1.96923,-0.763984,-2.00288,3.70023,-13.9055,-2.35205,-0.0685646,0.170686,-2.15848,0.0945121,2.97315,1.03331,1.89314,-0.0323128,0.167613,0.0091547,0.145024,-2.07277,0.399367,0.0316842,0.111404,0.354213,-0.0230535,0.208261,-0.172441,0.823851,0.110308,-0.00116759,0,0,0,0,0,0,0,-16.0481,-39.2116,-15.0867,29.2957,-0.56702,0.931021,-0.0301054,
0.169387,0.00921491,0.146761,-2.07315,0.404275,0.0316138,0.111363,0.0935601,-0.0113899,0.091876,-0.013223,0.351616,0.0794324,-0.00368428,20.0198,2.95563,19.5695,-5.37583,40.9098,-13.7866,-0.22723,0.170686,-2.15848,0.0945121,2.97315,1.03331,1.89314,-0.0323128,0.167613,0.0091547,0.145024,-2.07277,0.399367,0.0316842,0.111404,0.354213,-0.0230535,0.208261,-0.172441,0.823851,0.110308,-0.00116759,0,0,0,0,0,0,0,-16.0481,-39.2116,-15.0867,29.2957,-0.56702,0.931021,-0.0301054,
0.170755,0.00924533,0.148111,-2.07324,0.408145,0.0314501,0.111319,0.109061,-0.00835135,0.107231,-0.01277,0.378063,0.0594529,-0.00404462,9.68799,1.89911,9.59671,0.283127,16.5294,-12.4872,-0.225212,0.0746992,-2.26772,-0.0157765,2.90623,0.908002,1.87077,-0.0312799,0.176124,0.010674,0.156473,-2.07472,0.427702,0.0327755,0.111423,0.450418,0.0121911,0.00733451,-0.0204835,0.531831,0.0716204,-0.000587717,12.0256,4.40557,-25.1158,18.9946,-36.5025,-4.83597,0.0724847,-17.1867,-35.9425,-16.7847,25.4831,-2.0813,0.93743,-0.0365141,
0.171815,0.0092096,0.149155,-2.07322,0.411279,0.0314243,0.111278,0.113756,-0.00757437,0.111892,-0.00970606,0.38078,0.0469174,-0.00425356,2.93464,0.485617,2.91313,1.91494,1.69799,-7.83467,-0.130591,0.0746992,-2.26772,-0.0157765,2.90623,0.908002,1.87077,-0.0312799,0.176124,0.010674,0.156473,-2.07472,0.427702,0.0327755,0.111423,0.450418,0.0121911,0.00733451,-0.0204835,0.531831,0.0716204,-0.000587717,0,0,0,0,0,0,0,-17.1867,-35.9425,-16.7847,25.4831,-2.0813,0.93743,-0.0365141,
0.172639,0.00911956,0.149964,-2.07315,0.413858,0.0315913,0.111241,0.111589,-0.00831035,0.109755,-0.00590321,0.3691,0.0417105,-0.00433085,-1.35454,-0.459992,-1.33521,2.37678,-7.30022,-3.25436,-0.0483062,0.0746992,-2.26772,-0.0157765,2.90623,0.908002,1.87077,-0.0312799,0.176124,0.010674,0.156473,-2.07472,0.427702,0.0327755,0.111423,0.450418,0.0121911,0.00733451,-0.0204835,0.531831,0.0716204,-0.000587717,0,0,0,0,0,0,0,-17.1867,-35.9425,-16.7847,25.4831,-2.0813,0.93743,-0.0365141,
0.182954,-0.00536223,0.162952,-2.05841,0.498055,0.134912,0.109208,0.08944,-0.0108686,0.0880232,-0.000847229,0.310175,0.0580376,-0.00401714,-13.8431,-1.59892,-13.5826,3.15999,-36.828,10.2044,0.196068,0.0746992,-2.26772,-0.0157765,2.90623,0.908002,1.87077,-0.0312799,0.176124,0.010674,0.156473,-2.07472,0.427702,0.0327755,0.111423,0.450418,0.0121911,0.00733451,-0.0204835,0.531831,0.0716204,-0.000587717,0,0,0,0,0,0,0,-17.1867,-35.9425,-16.7847,25.4831,-2.0813,0.93743,-0.0365141,
0.182954,-0.00536223,0.162952,-2.05841,0.498055,0.134912,0.109208,0.0717207,-0.0129152,0.0706374,0.00319756,0.263035,0.0710992,-0.00376618,-11.0745,-1.27914,-10.8661,2.52799,-29.4624,8.16354,0.156854,0.0946386,-2.32666,0.000510793,2.72517,0.84593,1.76574,-0.0306894,0.179892,0.0108751,0.162466,-2.07387,0.440939,0.0399438,0.111435,0.170897,0.0171165,-0.0056518,0.0404592,0.363913,0.24155,0.000422422,-34.9401,0.61568,-1.62329,7.61783,-20.9898,21.2412,0.126267,-8.31189,-33.7209,-8.58428,20.7263,1.31439,-1.2104,-0.0905302,
0.182954,-0.00536223,0.162952,-2.05841,0.498055,0.134912,0.109208,0.0575454,-0.0145525,0.0567288,0.00643339,0.225323,0.0815486,-0.0035654,-8.85962,-1.02331,-8.69288,2.02239,-23.5699,6.53084,0.125483,0.0946386,-2.32666,0.000510793,2.72517,0.84593,1.76574,-0.0306894,0.179892,0.0108751,0.162466,-2.07387,0.440939,0.0399438,0.111435,0.170897,0.0171165,-0.0056518,0.0404592,0.363913,0.24155,0.000422422,0,0,0,0,0,0,0,-8.31189,-33.7209,-8.58428,20.7263,1.31439,-1.2104,-0.0905302,
0.182954,-0.00536223,0.162952,-2.05841,0.498055,0.134912,0.109208,0.0462051,-0.0158624,0.0456019,0.00902205,0.195154,0.089908,-0.00340478,-7.08769,-0.818647,-6.95431,1.61792,-18.8559,5.22467,0.100387,0.0946386,-2.32666,0.000510793,2.72517,0.84593,1.76574,-0.0306894,0.179892,0.0108751,0.162466,-2.07387,0.440939,0.0399438,0.111435,0.170897,0.0171165,-0.0056518,0.0404592,0.363913,0.24155,0.000422422,0,0,0,0,0,0,0,-8.31189,-33.7209,-8.58428,20.7263,1.31439,-1.2104,-0.0905302,
0.182779,-0.00601281,0.165067,-2.05611,0.50876,0.152222,0.109148,0.0371331,-0.0167441,0.0367117,0.0108434,0.170745,0.0949628,-0.00326757,-5.66999,-0.551082,-5.55642,1.13836,-15.2551,3.15924,0.08576,0.0946386,-2.32666,0.000510793,2.72517,0.84593,1.76574,-0.0306894,0.179892,0.0108751,0.162466,-2.07387,0.440939,0.0399438,0.111435,0.170897,0.0171165,-0.0056518,0.0404592,0.363913,0.24155,0.000422422,0,0,0,0,0,0,0,-8.31189,-33.7209,-8.58428,20.7263,1.31439,-1.2104,-0.0905302,
0.182779,-0.00601281,0.165067,-2.05611,0.50876,0.152222,0.109148,0.0298755,-0.0174495,0.0295994,0.0123005,0.151219,0.0990066,-0.0031578,-4.53599,-0.440866,-4.44514,0.910686,-12.2041,2.52739,0.068608,0.148557,-2.29709,0.0651033,2.63298,0.811705,1.73584,-0.030816,0.183629,0.0092382,0.16452,-2.07345,0.455274,0.0481432,0.111437,0.153838,-0.0878846,0.0227531,-0.031505,0.532013,0.357892,-0.00103855,-2.13237,-13.1251,3.55061,-8.99553,21.0125,14.5428,-0.182621,-0.274166,-31.7491,-0.562425,25.9552,1.63208,1.5545,-0.103348,
0.182779,-0.00601281,0.165067,-2.05611,0.50876,0.152222,0.109148,0.0240694,-0.0180138,0.0239097,0.0134662,0.135598,0.102242,-0.00306998,-3.62879,-0.352693,-3.55611,0.728549,-9.76328,2.02191,0.0548864,0.148557,-2.29709,0.0651033,2.63298,0.811705,1.73584,-0.030816,0.183629,0.0092382,0.16452,-2.07345,0.455274,0.0481432,0.111437,0.153838,-0.0878846,0.0227531,-0.031505,0.532013,0.357892,-0.00103855,0,0,0,0,0,0,0,-0.274166,-31.7491,-0.562425,25.9552,1.63208,1.5545,-0.103348,
0.182779,-0.00601281,0.165067,-2.05611,0.50876,0.152222,0.109148,0.0194246,-0.0184652,0.0193578,0.0143987,0.123101,0.10483,-0.00299972,-2.90303,-0.282154,-2.84489,0.582839,-7.81063,1.61753,0.0439091,0.148557,-2.29709,0.0651033,2.63298,0.811705,1.73584,-0.030816,0.183629,0.0092382,0.16452,-2.07345,0.455274,0.0481432,0.111437,0.153838,-0.0878846,0.0227531,-0.031505,0.532013,0.357892,-0.00103855,0,0,0,0,0,0,0,-0.274166,-31.7491,-0.562425,25.9552,1.63208,1.5545,-0.103348,
0.18686,-0.00941553,0.167657,-2.05575,0.522967,0.158578,0.109173,0.0157075,-0.0189367,0.0157692,0.0149811,0.112402,0.106293,-0.00293937,-2.32317,-0.294642,-2.24287,0.363956,-6.68683,0.914548,0.0377215,0.148557,-2.29709,0.0651033,2.63298,0.811705,1.73584,-0.030816,0.183629,0.0092382,0.16452,-2.07345,0.455274,0.0481432,0.111437,0.153838,-0.0878846,0.0227531,-0.031505,0.532013,0.357892,-0.00103855,0,0,0,0,0,0,0,-0.274166,-31.7491,-0.562425,25.9552,1.63208,1.5545,-0.103348,
0.18686,-0.00941553,0.167657,-2.05575,0.522967,0.158578,0.109173,0.0127338,-0.0193138,0.0128984,0.0154469,0.103843,0.107464,-0.00289108,-1.85854,-0.235714,-1.7943,0.291164,-5.34947,0.731638,0.0301772,0.0959591,-2.3049,0.0232079,2.54602,0.784091,1.66815,-0.030011,0.186349,0.00777612,0.166079,-2.07262,0.464786,0.0587895,0.111434,0.144467,0.0175758,-0.038701,0.0520221,0.224353,0.310591,-0.00102489,-1.17147,13.1826,-7.68176,10.4409,-38.4576,-5.91266,0.00170777,-3.99945,-30.9755,-3.66088,25.6339,3.52539,2.10473,-0.0969389,
0.18686,-0.00941553,0.167657,-2.05575,0.522967,0.158578,0.109173,0.0103549,-0.0196155,0.0106017,0.0158196,0.0969952,0.1084,-0.00285246,-1.48683,-0.188571,-1.43544,0.232932,-4.27957,0.585311,0.0241418,0.0959591,-2.3049,0.0232079,2.54602,0.784091,1.66815,-0.030011,0.186349,0.00777612,0.166079,-2.07262,0.464786,0.0587895,0.111434,0.144467,0.0175758,-0.038701,0.0520221,0.224353,0.310591,-0.00102489,0,0,0,0,0,0,0,-3.99945,-30.9755,-3.66088,25.6339,3.52539,2.10473,-0.0969389,
0.186847,-0.00908222,0.167634,-2.05603,0.521853,0.156779,0.109217,0.00845173,-0.0198649,0.00875904,0.0161486,0.0915473,0.109346,-0.00282262,-1.18949,-0.155832,-1.15165,0.205609,-3.40497,0.591274,0.0186512,0.0959591,-2.3049,0.0232079,2.54602,0.784091,1.66815,-0.030011,0.186349,0.00777612,0.166079,-2.07262,0.464786,0.0587895,0.111434,0.144467,0.0175758,-0.038701,0.0520221,0.224353,0.310591,-0.00102489,0,0,0,0,0,0,0,-3.99945,-30.9755,-3.66088,25.6339,3.52539,2.10473,-0.0969389,
0.188228,-0.00864057,0.167849,-2.05609,0.525305,0.165377,0.109236,0.0069296,-0.0199559,0.00727877,0.0163268,0.0872238,0.109456,-0.00279536,-0.951332,-0.0569004,-0.925167,0.111362,-2.70214,0.0684789,0.0170344,0.0959591,-2.3049,0.0232079,2.54602,0.784091,1.66815,-0.030011,0.186349,0.00777612,0.166079,-2.07262,0.464786,0.0587895,0.111434,0.144467,0.0175758,-0.038701,0.0520221,0.224353,0.310591,-0.00102489,0,0,0,0,0,0,0,-3.99945,-30.9755,-3.66088,25.6339,3.52539,2.10473,-0.0969389,
0.188228,-0.00864057,0.167849,-2.05609,0.525305,0.165377,0.109236,0.0057119,-0.0200287,0.00609456,0.0164693,0.0837651,0.109543,-0.00277356,-0.761065,-0.0455203,-0.740134,0.0890898,-2.16171,0.0547831,0.0136275,0.108966,-2.25744,0.0417853,2.45398,0.776318,1.60878,-0.0296779,0.1879,0.00696482,0.167926,-2.07164,0.470927,0.0705036,0.111429,0.0109952,-0.0411893,0.0749308,0.00027444,0.197199,0.388406,-0.000579504,-16.6839,-7.34564,14.204,-6.46846,-3.39419,9.72682,0.0556728,-3.4956,-34.9468,-3.06182,26.0822,3.17657,1.19652,-0.0767973,
0.188228,-0.00864057,0.167849,-2.05609,0.525305,0.165377,0.109236,0.00473773,-0.020087,0.00514718,0.0165834,0.0809981,0.109614,-0.00275611,-0.608852,-0.0364162,-0.592107,0.0712718,-1.72937,0.0438265,0.010902,0.108966,-2.25744,0.0417853,2.45398,0.776318,1.60878,-0.0296779,0.1879,0.00696482,0.167926,-2.07164,0.470927,0.0705036,0.111429,0.0109952,-0.0411893,0.0749308,0.00027444,0.197199,0.388406,-0.000579504,0,0,0,0,0,0,0,-3.4956,-34.9468,-3.06182,26.0822,3.17657,1.19652,-0.0767973,
0.189478,-0.0100813,0.169503,-2.05541,0.530769,0.174888,0.109239,0.00395858,-0.0201135,0.00441302,0.0165317,0.078689,0.108734,-0.00273714,-0.48697,-0.0165802,-0.458854,-0.0322768,-1.44322,-0.549633,0.0118556,0.108966,-2.25744,0.0417853,2.45398,0.776318,1.60878,-0.0296779,0.1879,0.00696482,0.167926,-2.07164,0.470927,0.0705036,0.111429,0.0109952,-0.0411893,0.0749308,0.00027444,0.197199,0.388406,-0.000579504,0,0,0,0,0,0,0,-3.4956,-34.9468,-3.06182,26.0822,3.17657,1.19652,-0.0767973,
0.189478,-0.0100813,0.169503,-2.05541,0.530769,0.174888,0.109239,0.00333526,-0.0201347,0.00382569,0.0164904,0.0768416,0.108031,-0.00272197,-0.389576,-0.0132642,-0.367083,-0.0258214,-1.15457,-0.439706,0.00948444,0.108966,-2.25744,0.0417853,2.45398,0.776318,1.60878,-0.0296779,0.1879,0.00696482,0.167926,-2.07164,0.470927,0.0705036,0.111429,0.0109952,-0.0411893,0.0749308,0.00027444,0.197199,0.388406,-0.000579504,0,0,0,0,0,0,0,-3.4956,-34.9468,-3.06182,26.0822,3.17657,1.19652,-0.0767973,
0.189478,-0.0100813,0.169503,-2.05541,0.530769,0.174888,0.109239,0.0028366,-0.0201517,0.00335582,0.0164574,0.0753638,0.107468,-0.00270983,-0.311661,-0.0106113,-0.293666,-0.0206571,-0.923659,-0.351765,0.00758755,0.114107,-2.21375,0.0599764,2.34431,0.771272,1.53906,-0.0292081,0.187994,0.00521591,0.16907,-2.07116,0.476316,0.0840193,0.111435,0.00355963,-0.0619632,0.0329169,0.0219063,0.138043,0.432263,0.000961651,-0.929453,-2.59673,-5.25173,2.70399,-7.3945,5.48217,0.192644,0.539127,-30.4042,0.314344,26.1813,3.84308,0.46044,-0.137222,
0.189478,-0.0100813,0.169503,-2.05541,0.530769,0.174888,0.109239,0.00243768,-0.0201653,0.00297993,0.0164309,0.0741815,0.107017,-0.00270012,-0.249329,-0.00848908,-0.234933,-0.0165257,-0.738927,-0.281412,0.00607004,0.114107,-2.21375,0.0599764,2.34431,0.771272,1.53906,-0.0292081,0.187994,0.00521591,0.16907,-2.07116,0.476316,0.0840193,0.111435,0.00355963,-0.0619632,0.0329169,0.0219063,0.138043,0.432263,0.000961651,0,0,0,0,0,0,0,0.539127,-30.4042,0.314344,26.1813,3.84308,0.46044,-0.137222,
0.188704,-0.00930019,0.169812,-2.05746,0.524932,0.170459,0.109659,0.00211858,-0.0202309,0.00266682,0.0165163,0.0735084,0.107188,-0.00269557,-0.199436,-0.0409681,-0.195694,0.0533927,-0.420726,0.106806,0.00284381,0.114107,-2.21375,0.0599764,2.34431,0.771272,1.53906,-0.0292081,0.187994,0.00521591,0.16907,-2.07116,0.476316,0.0840193,0.111435,0.00355963,-0.0619632,0.0329169,0.0219063,0.138043,0.432263,0.000961651,0,0,0,0,0,0,0,0.539127,-30.4042,0.314344,26.1813,3.84308,0.46044,-0.137222,
0.188711,-0.00946398,0.169824,-2.05733,0.525498,0.171318,0.109638,0.00186332,-0.0202796,0.00241894,0.0165698,0.0729545,0.107232,-0.00269142,-0.159537,-0.0304878,-0.154922,0.0333944,-0.34615,0.0271271,0.00259272,0.114107,-2.21375,0.0599764,2.34431,0.771272,1.53906,-0.0292081,0.187994,0.00521591,0.16907,-2.07116,0.476316,0.0840193,0.111435,0.00355963,-0.0619632,0.0329169,0.0219063,0.138043,0.432263,0.000961651,0,0,0,0,0,0,0,0.539127,-30.4042,0.314344,26.1813,3.84308,0.46044,-0.137222,
0.188711,-0.00946398,0.169824,-2.05733,0.525498,0.171318,0.109638,0.00165912,-0.0203187,0.00222064,0.0166125,0.0725114,0.107267,-0.0026881,-0.12763,-0.0243902,-0.123938,0.0267155,-0.27692,0.0217016,0.00207418,0.129428,-2.13582,0.0806869,2.23949,0.77599,1.45882,-0.0289211,0.188532,0.00450732,0.168924,-2.06977,0.482039,0.0998159,0.111425,0.00971452,0.0126623,-0.010438,0.0667944,0.164642,0.443545,-0.0022612,0.769362,9.32819,-5.41937,5.61101,3.32482,1.41017,-0.402856,-1.11126,-34.2207,-0.93535,24.6619,2.73071,-0.394663,-0.050247,
0.188579,-0.00592913,0.168926,-2.05881,0.521481,0.169974,0.110017,0.0014962,-0.0202111,0.00200686,0.0167552,0.0724415,0.107813,-0.00268846,-0.101824,0.0671969,-0.133616,0.0891936,-0.0437398,0.341501,-0.000227203,0.129428,-2.13582,0.0806869,2.23949,0.77599,1.45882,-0.0289211,0.188532,0.00450732,0.168924,-2.06977,0.482039,0.0998159,0.111425,0.00971452,0.0126623,-0.010438,0.0667944,0.164642,0.443545,-0.0022612,0,0,0,0,0,0,0,-1.11126,-34.2207,-0.93535,24.6619,2.73071,-0.394663,-0.050247,
0.188585,-0.00608721,0.168936,-2.05868,0.522057,0.17085,0.109996,0.00136588,-0.0201208,0.00183833,0.0168542,0.0723697,0.108155,-0.00268824,-0.0814474,0.056446,-0.10533,0.0618813,-0.0448233,0.214023,0.000139589,0.129428,-2.13582,0.0806869,2.23949,0.77599,1.45882,-0.0289211,0.188532,0.00450732,0.168924,-2.06977,0.482039,0.0998159,0.111425,0.00971452,0.0126623,-0.010438,0.0667944,0.164642,0.443545,-0.0022612,0,0,0,0,0,0,0,-1.11126,-34.2207,-0.93535,24.6619,2.73071,-0.394663,-0.050247,
0.188592,-0.00624511,0.168945,-2.05854,0.522633,0.171723,0.109974,0.00126165,-0.0200443,0.001706,0.0169183,0.0722967,0.108335,-0.00268755,-0.0651459,0.0478152,-0.0827024,0.0400685,-0.0456609,0.112336,0.000431752,0.129428,-2.13582,0.0806869,2.23949,0.77599,1.45882,-0.0289211,0.188532,0.00450732,0.168924,-2.06977,0.482039,0.0998159,0.111425,0.00971452,0.0126623,-0.010438,0.0667944,0.164642,0.443545,-0.0022612,0,0,0,0,0,0,0,-1.11126,-34.2207,-0.93535,24.6619,2.73071,-0.394663,-0.050247,
0.188599,-0.00640285,0.168955,-2.0584,0.523209,0.172591,0.109953,0.00117828,-0.0199789,0.00160264,0.0169546,0.0722226,0.108385,-0.00268649,-0.0521047,0.0408806,-0.0646012,0.0226552,-0.046302,0.0312806,0.000664216,0.129428,-2.13582,0.0806869,2.23949,0.77599,1.45882,-0.0289211,0.188532,0.00450732,0.168924,-2.06977,0.482039,0.0998159,0.111425,0.00971452,0.0126623,-0.010438,0.0667944,0.164642,0.443545,-0.0022612,0,0,0,0,0,0,0,-1.11126,-34.2207,-0.93535,24.6619,2.73071,-0.394663,-0.050247,
0.18846,-0.007667,0.169453,-2.05845,0.524247,0.175597,0.110153,0.00111162,-0.0199641,0.00153986,0.0169312,0.0721642,0.108057,-0.0026838,-0.0416606,0.00928415,-0.0392383,-0.0146405,-0.0365097,-0.205364,0.00168004,0.120797,-2.0848,0.0827522,2.14456,0.769375,1.38885,-0.0285135,0.188228,0.00310551,0.169187,-2.06851,0.487674,0.114114,0.111434,-0.00217279,-0.0747196,0.00581741,0.0202491,0.170118,0.395553,0.000317051,-1.48591,-10.9227,2.03193,-5.81815,0.684606,-5.99897,0.322281,0.717655,-32.6735,0.488905,24.5627,2.31598,0.0429594,-0.117081,
0.188467,-0.00782609,0.169463,-2.05832,0.524821,0.176447,0.110132,0.00105832,-0.0199483,0.00149217,0.0168976,0.0721018,0.107702,-0.00268115,-0.0333157,0.00984437,-0.0298095,-0.0209637,-0.0390173,-0.221615,0.00165745,0.120797,-2.0848,0.0827522,2.14456,0.769375,1.38885,-0.0285135,0.188228,0.00310551,0.169187,-2.06851,0.487674,0.114114,0.111434,-0.00217279,-0.0747196,0.00581741,0.0202491,0.170118,0.395553,0.000317051,0,0,0,0,0,0,0,0.717655,-32.6735,0.488905,24.5627,2.31598,0.0429594,-0.117081,
0.188474,-0.00798501,0.169474,-2.05819,0.525396,0.177293,0.11011,0.00101569,-0.0199319,0.00145654,0.016856,0.0720362,0.107327,-0.00267853,-0.0266399,0.0102626,-0.0222673,-0.0259861,-0.0409953,-0.23433,0.00163815,0.120797,-2.0848,0.0827522,2.14456,0.769375,1.38885,-0.0285135,0.188228,0.00310551,0.169187,-2.06851,0.487674,0.114114,0.111434,-0.00217279,-0.0747196,0.00581741,0.0202491,0.170118,0.395553,0.000317051,0,0,0,0,0,0,0,0.717655,-32.6735,0.488905,24.5627,2.31598,0.0429594,-0.117081,
0.188318,-0.00428735,0.169258,-2.06141,0.512027,0.156864,0.110606,0.000980415,-0.0200204,0.00136879,0.0171784,0.0723572,0.109251,-0.00268844,-0.0220493,-0.0553087,-0.0548433,0.201485,0.200629,1.20265,-0.00619342,0.120797,-2.0848,0.0827522,2.14456,0.769375,1.38885,-0.0285135,0.188228,0.00310551,0.169187,-2.06851,0.487674,0.114114,0.111434,-0.00217279,-0.0747196,0.00581741,0.0202491,0.170118,0.395553,0.000317051,0,0,0,0,0,0,0,0.717655,-32.6735,0.488905,24.5627,2.31598,0.0429594,-0.117081,
0.188325,-0.00445014,0.169266,-2.06126,0.512616,0.157795,0.110584,0.000952359,-0.020086,0.0013013,0.0174199,0.0725969,0.110688,-0.00269582,-0.0175352,-0.0409839,-0.0421806,0.150943,0.149839,0.897743,-0.00461377,0.115108,-2.05738,0.0877691,2.06435,0.765575,1.32467,-0.0282105,0.188189,0.00171437,0.169108,-2.06738,0.492929,0.126378,0.111433,-0.00392063,-0.0252693,0.0042048,0.042723,0.152666,0.332272,-0.00137476,-0.21848,6.18129,-0.201576,2.80924,-2.18153,-7.91015,-0.211477,0.00751081,-30.7771,0.112013,24.9594,2.38281,0.646292,-0.083206,
0.188332,-0.00461272,0.169275,-2.06112,0.513203,0.158723,0.110563,0.000930051,-0.0201333,0.00124999,0.0175969,0.0727718,0.111735,-0.00270118,-0.013942,-0.0295977,-0.0320697,0.11059,0.109286,0.654281,-0.00335148,0.115108,-2.05738,0.0877691,2.06435,0.765575,1.32467,-0.0282105,0.188189,0.00171437,0.169108,-2.06738,0.492929,0.126378,0.111433,-0.00392063,-0.0252693,0.0042048,0.042723,0.152666,0.332272,-0.00137476,0,0,0,0,0,0,0,0.00751081,-30.7771,0.112013,24.9594,2.38281,0.646292,-0.083206,
0.188339,-0.0047751,0.169283,-2.06097,0.513791,0.159646,0.110541,0.000912321,-0.0201662,0.00121159,0.0177223,0.0728948,0.11247,-0.00270493,-0.0110818,-0.0205536,-0.0239968,0.0783807,0.0769122,0.459943,-0.00234306,0.115108,-2.05738,0.0877691,2.06435,0.765575,1.32467,-0.0282105,0.188189,0.00171437,0.169108,-2.06738,0.492929,0.126378,0.111433,-0.00392063,-0.0252693,0.0042048,0.042723,0.152666,0.332272,-0.00137476,0,0,0,0,0,0,0,0.00751081,-30.7771,0.112013,24.9594,2.38281,0.646292,-0.083206,
0.188226,-0.00480209,0.169141,-2.06084,0.516731,0.166778,0.110613,0.000898131,-0.0201136,0.00118136,0.0177424,0.0730035,0.112464,-0.00270485,-0.00886854,0.0328784,-0.0188971,0.0125708,0.0679332,-0.00378564,5.17083e-05,0.115108,-2.05738,0.0877691,2.06435,0.765575,1.32467,-0.0282105,0.188189,0.00171437,0.169108,-2.06738,0.492929,0.126378,0.111433,-0.00392063,-0.0252693,0.0042048,0.042723,0.152666,0.332272,-0.00137476,0,0,0,0,0,0,0,0.00751081,-30.7771,0.112013,24.9594,2.38281,0.646292,-0.083206,
0.188233,-0.00496112,0.16915,-2.0607,0.517318,0.167673,0.110592,0.000886939,-0.0200667,0.00115982,0.0177427,0.0730739,0.112362,-0.00270425,-0.00699462,0.0293121,-0.0134618,0.000215956,0.0439823,-0.0642801,0.000369374,0.10406,-2.02521,0.0830483,1.99972,0.760993,1.27229,-0.0279015,0.188251,0.000892899,0.169192,-2.06588,0.496954,0.136378,0.111435,-0.00193409,-0.00311899,-0.000234412,0.0576627,0.0986712,0.246961,-0.000263647,0.248318,2.76878,-0.554902,1.86746,-6.74936,-10.6638,0.13889,-0.147213,-32.975,-0.16173,24.1144,2.40112,0.466849,-0.0969389,
0.18824,-0.00511997,0.169158,-2.06056,0.517904,0.168565,0.11057,0.000878119,-0.0200245,0.00114521,0.0177274,0.0731137,0.112182,-0.00270326,-0.00551276,0.0264006,-0.00913201,-0.00960122,0.0248752,-0.112262,0.000622202,0.10406,-2.02521,0.0830483,1.99972,0.760993,1.27229,-0.0279015,0.188251,0.000892899,0.169192,-2.06588,0.496954,0.136378,0.111435,-0.00193409,-0.00311899,-0.000234412,0.0576627,0.0986712,0.246961,-0.000263647,0,0,0,0,0,0,0,-0.147213,-32.975,-0.16173,24.1144,2.40112,0.466849,-0.0969389,
0.188246,-0.00527862,0.169167,-2.06042,0.518489,0.169453,0.110549,0.000871173,-0.019986,0.00113611,0.0176996,0.0731291,0.111941,-0.00270194,-0.00434119,0.0240187,-0.00568318,-0.0173943,0.00963817,-0.150256,0.000823167,0.10406,-2.02521,0.0830483,1.99972,0.760993,1.27229,-0.0279015,0.188251,0.000892899,0.169192,-2.06588,0.496954,0.136378,0.111435,-0.00193409,-0.00311899,-0.000234412,0.0576627,0.0986712,0.246961,-0.000263647,0,0,0,0,0,0,0,-0.147213,-32.975,-0.16173,24.1144,2.40112,0.466849,-0.0969389,
0.18828,-0.00545215,0.169232,-2.05953,0.520969,0.175986,0.110578,0.000865964,-0.0198802,0.00113201,0.0175883,0.073144,0.11111,-0.00269759,-0.0032556,0.066163,-0.00256698,-0.0695016,0.00928132,-0.519619,0.00271888,0.10406,-2.02521,0.0830483,1.99972,0.760993,1.27229,-0.0279015,0.188251,0.000892899,0.169192,-2.06588,0.496954,0.136378,0.111435,-0.00193409,-0.00311899,-0.000234412,0.0576627,0.0986712,0.246961,-0.000263647,0,0,0,0,0,0,0,-0.147213,-32.975,-0.16173,24.1144,2.40112,0.466849,-0.0969389,
0.188287,-0.00560763,0.169241,-2.05939,0.521554,0.176844,0.110556,0.000861895,-0.0197911,0.00113126,0.0174844,0.0731396,0.110352,-0.00269361,-0.00254309,0.0556408,-0.000467394,-0.0649978,-0.00272632,-0.473646,0.00249007,0.102389,-2.00549,0.0924364,1.93589,0.758518,1.22735,-0.0276426,0.188175,-0.000539348,0.169168,-2.06504,0.500279,0.144891,0.111436,0.00133117,-0.0751456,0.000568751,0.0033192,0.0958939,0.259006,-0.000452237,0.408157,-9.00333,0.100395,-6.79294,-0.347164,1.50553,-0.0235738,0.360599,-31.3246,0.338148,25.3323,2.90191,0.639883,-0.103348,
0.188294,-0.00576294,0.169251,-2.05925,0.522138,0.177699,0.110535,0.000858723,-0.0197156,0.00113318,0.0173862,0.0731199,0.109654,-0.00268992,-0.00198285,0.0471834,0.00120154,-0.0613472,-0.0122997,-0.436529,0.00230581,0.102389,-2.00549,0.0924364,1.93589,0.758518,1.22735,-0.0276426,0.188175,-0.000539348,0.169168,-2.06504,0.500279,0.144891,0.111436,0.00133117,-0.0751456,0.000568751,0.0033192,0.0958939,0.259006,-0.000452237,0,0,0,0,0,0,0,0.360599,-31.3246,0.338148,25.3323,2.90191,0.639883,-0.103348,
0.188187,-0.00325543,0.169118,-2.0615,0.51271,0.163563,0.11088,0.00084744,-0.0197376,0.00108676,0.0175632,0.0733723,0.110666,-0.00269522,-0.00705143,-0.0137461,-0.0290117,0.110643,0.157747,0.632595,-0.00331478,0.102389,-2.00549,0.0924364,1.93589,0.758518,1.22735,-0.0276426,0.188175,-0.000539348,0.169168,-2.06504,0.500279,0.144891,0.111436,0.00133117,-0.0751456,0.000568751,0.0033192,0.0958939,0.259006,-0.000452237,0,0,0,0,0,0,0,0.360599,-31.3246,0.338148,25.3323,2.90191,0.639883,-0.103348,
0.188251,-0.0057023,0.169266,-2.06053,0.516522,0.171609,0.110867,0.000842161,-0.0197742,0.00109139,0.017559,0.0735078,0.11049,-0.00269443,-0.00329988,-0.0228363,0.00289357,-0.00261927,0.0847057,-0.109949,0.000495928,0.102389,-2.00549,0.0924364,1.93589,0.758518,1.22735,-0.0276426,0.188175,-0.000539348,0.169168,-2.06504,0.500279,0.144891,0.111436,0.00133117,-0.0751456,0.000568751,0.0033192,0.0958939,0.259006,-0.000452237,0,0,0,0,0,0,0,0.360599,-31.3246,0.338148,25.3323,2.90191,0.639883,-0.103348,
0.188257,-0.00586138,0.169275,-2.06039,0.517113,0.172484,0.110846,0.000838919,-0.0197964,0.00109858,0.0175379,0.0735963,0.110246,-0.00269327,-0.00202572,-0.0139124,0.0044896,-0.0132101,0.0552931,-0.152421,0.000722464,0.10446,-1.97293,0.0993268,1.87726,0.761237,1.18063,-0.0274443,0.188155,-0.00116249,0.169157,-2.06412,0.503106,0.153818,0.111437,-0.00495237,0.0173069,-0.00154793,0.046879,0.0835936,0.247781,-0.000467424,-0.785442,11.5566,-0.264585,5.44497,-1.53753,-1.40303,-0.00189834,0.511356,-32.5505,0.413527,25.4315,2.91473,0.672842,-0.110672,
0.188264,-0.00602021,0.169284,-2.06025,0.517704,0.173354,0.110824,0.00083713,-0.0198079,0.00110762,0.0175038,0.0736479,0.10995,-0.00269183,-0.0011182,-0.00714754,0.00565242,-0.0213179,0.0322136,-0.185016,0.000901331,0.10446,-1.97293,0.0993268,1.87726,0.761237,1.18063,-0.0274443,0.188155,-0.00116249,0.169157,-2.06412,0.503106,0.153818,0.111437,-0.00495237,0.0173069,-0.00154793,0.046879,0.0835936,0.247781,-0.000467424,0,0,0,0,0,0,0,0.511356,-32.5505,0.413527,25.4315,2.91473,0.672842,-0.110672,
0.18827,-0.00617881,0.169294,-2.06011,0.518294,0.17422,0.110803,0.000836357,-0.0198111,0.001118,0.0174598,0.0736704,0.109614,-0.00269016,-0.000483444,-0.00203819,0.00648947,-0.0275068,0.0141096,-0.20993,0.00104233,0.10446,-1.97293,0.0993268,1.87726,0.761237,1.18063,-0.0274443,0.188155,-0.00116249,0.169157,-2.06412,0.503106,0.153818,0.111437,-0.00495237,0.0173069,-0.00154793,0.046879,0.0835936,0.247781,-0.000467424,0,0,0,0,0,0,0,0.511356,-32.5505,0.413527,25.4315,2.91473,0.672842,-0.110672,
0.187935,-0.0023946,0.168938,-2.06239,0.509291,0.165843,0.111216,0.000544649,-0.0197736,0.000777733,0.0177728,0.0738777,0.111691,-0.00269285,-0.182317,0.02344,-0.212669,0.195622,0.129541,1.29796,-0.00168241,0.10446,-1.97293,0.0993268,1.87726,0.761237,1.18063,-0.0274443,0.188155,-0.00116249,0.169157,-2.06412,0.503106,0.153818,0.111437,-0.00495237,0.0173069,-0.00154793,0.046879,0.0835936,0.247781,-0.000467424,0,0,0,0,0,0,0,0.511356,-32.5505,0.413527,25.4315,2.91473,0.672842,-0.110672,
0.187932,-0.00255173,0.168936,-2.06224,0.509889,0.166788,0.111194,0.000367615,-0.0197471,0.000563993,0.0179793,0.0740555,0.11297,-0.00269489,-0.110646,0.0165666,-0.133587,0.129057,0.111134,0.799204,-0.00126988,0.100665,-1.94175,0.101522,1.82258,0.761048,1.1406,-0.0272136,0.18806,-0.00193647,0.169129,-2.06324,0.505441,0.16169,0.111436,-0.00367017,-0.0399237,0.000170504,0.0130473,0.076174,0.228356,-0.000796308,0.160275,-7.15383,0.214804,-4.22896,-0.92745,-2.42816,-0.0411105,0.412174,-33.1972,0.26277,25.1855,2.71881,0.76531,-0.103348,
0.187931,-0.00270877,0.168936,-2.06209,0.510488,0.16772,0.111173,0.000272102,-0.0197236,0.000441319,0.018106,0.0742094,0.113681,-0.00269634,-0.0596957,0.0146894,-0.0766714,0.0792064,0.0961698,0.444367,-0.00090608,0.100665,-1.94175,0.101522,1.82258,0.761048,1.1406,-0.0272136,0.18806,-0.00193647,0.169129,-2.06324,0.505441,0.16169,0.111436,-0.00367017,-0.0399237,0.000170504,0.0130473,0.076174,0.228356,-0.000796308,0,0,0,0,0,0,0,0.412174,-33.1972,0.26277,25.1855,2.71881,0.76531,-0.103348,
0.187932,-0.00286558,0.168937,-2.06194,0.511087,0.168642,0.111151,0.000233213,-0.0196994,0.00038295,0.0181733,0.0743418,0.113989,-0.00269727,-0.0243055,0.0151686,-0.0364804,0.042093,0.0827622,0.192828,-0.000581202,0.100665,-1.94175,0.101522,1.82258,0.761048,1.1406,-0.0272136,0.18806,-0.00193647,0.169129,-2.06324,0.505441,0.16169,0.111436,-0.00367017,-0.0399237,0.000170504,0.0130473,0.076174,0.228356,-0.000796308,0,0,0,0,0,0,0,0.412174,-33.1972,0.26277,25.1855,2.71881,0.76531,-0.103348,
0.187958,-0.00435054,0.169037,-2.061,0.51339,0.175433,0.111154,0.000253886,-0.0197767,0.000410466,0.0181843,0.0746512,0.113463,-0.0026951,0.0129209,-0.0483312,0.0171973,0.00685858,0.193378,-0.329044,0.00135148,0.100665,-1.94175,0.101522,1.82258,0.761048,1.1406,-0.0272136,0.18806,-0.00193647,0.169129,-2.06324,0.505441,0.16169,0.111436,-0.00367017,-0.0399237,0.000170504,0.0130473,0.076174,0.228356,-0.000796308,0,0,0,0,0,0,0,0.412174,-33.1972,0.26277,25.1855,2.71881,0.76531,-0.103348,
0.187962,-0.00450993,0.169042,-2.06086,0.513996,0.176315,0.111132,0.00029,-0.019806,0.000454522,0.0181478,0.0748645,0.112823,-0.00269284,0.0225712,-0.0183168,0.0275347,-0.0228256,0.133324,-0.399969,0.0014143,0.0995976,-1.92904,0.10755,1.77797,0.762908,1.10464,-0.0270441,0.188019,-0.00285336,0.169125,-2.06268,0.507467,0.168466,0.11144,-0.00951374,-0.0266819,-0.00141111,0.0134051,0.0769072,0.189701,0.000714584,-0.730446,1.65523,-0.197701,0.0447239,0.0916436,-4.83192,0.188861,0.309024,-31.6499,0.314344,25.6815,2.55401,1.03722,-0.137222,
0.187966,-0.00466824,0.169048,-2.06071,0.5146,0.17719,0.111111,0.000334826,-0.0198025,0.000508156,0.0180795,0.0750043,0.112119,-0.00269052,0.0280161,0.00215428,0.0335216,-0.0427038,0.0873728,-0.440084,0.00145316,0.0995976,-1.92904,0.10755,1.77797,0.762908,1.10464,-0.0270441,0.188019,-0.00285336,0.169125,-2.06268,0.507467,0.168466,0.11144,-0.00951374,-0.0266819,-0.00141111,0.0134051,0.0769072,0.189701,0.000714584,0,0,0,0,0,0,0,0.309024,-31.6499,0.314344,25.6815,2.55401,1.03722,-0.137222,
0.187971,-0.00482565,0.169055,-2.06057,0.515203,0.178057,0.111089,0.000383626,-0.0197775,0.000566449,0.0179906,0.0750881,0.111384,-0.00268815,0.0304997,0.0156814,0.0364328,-0.0555183,0.0523482,-0.459053,0.00147746,0.0995976,-1.92904,0.10755,1.77797,0.762908,1.10464,-0.0270441,0.188019,-0.00285336,0.169125,-2.06268,0.507467,0.168466,0.11144,-0.00951374,-0.0266819,-0.00141111,0.0134051,0.0769072,0.189701,0.000714584,0,0,0,0,0,0,0,0.309024,-31.6499,0.314344,25.6815,2.55401,1.03722,-0.137222,
0.187866,-0.00404128,0.16898,-2.06152,0.511631,0.175951,0.111291,9.64343e-05,-0.0198999,0.000275697,0.0182174,0.0751294,0.112569,-0.00268648,-0.179494,-0.0765148,-0.18172,0.141752,0.0258169,0.740663,0.00104508,0.0995976,-1.92904,0.10755,1.77797,0.762908,1.10464,-0.0270441,0.188019,-0.00285336,0.169125,-2.06268,0.507467,0.168466,0.11144,-0.00951374,-0.0266819,-0.00141111,0.0134051,0.0769072,0.189701,0.000714584,0,0,0,0,0,0,0,0.309024,-31.6499,0.314344,25.6815,2.55401,1.03722,-0.137222,
0.18786,-0.00420282,0.168976,-2.06137,0.512234,0.17687,0.11127,-6.16884e-05,-0.0199582,0.000117013,0.0183209,0.0751811,0.113025,-0.00268472,-0.0988267,-0.0364743,-0.0991774,0.064659,0.0323477,0.285049,0.00110251,0.0995976,-1.92904,0.10755,1.77797,0.762908,1.10464,-0.0270441,0.188019,-0.00285336,0.169125,-2.06268,0.507467,0.168466,0.11144,-0.00951374,-0.0266819,-0.00141111,0.0134051,0.0769072,0.189701,0.000714584,0,0,0,0,0,0,0,0.309024,-31.6499,0.314344,25.6815,2.55401,1.03722,-0.137222,
0.187857,-0.00436295,0.168974,-2.06123,0.512838,0.177772,0.111248,-0.000129202,-0.0199699,5.13564e-05,0.0183382,0.0752328,0.112991,-0.00268294,-0.0421961,-0.00729337,-0.0410356,0.0108102,0.0322883,-0.0216629,0.00110748,0.0988559,-1.90137,0.110335,1.73398,0.763186,1.07165,-0.0268824,0.187991,-0.00330727,0.169135,-2.0619,0.509673,0.175026,0.111437,-0.00133685,0.0056009,0.000615683,0.0324549,0.0755902,0.181592,-0.00055524,1.02211,4.03535,0.253349,2.38122,-0.164627,-1.01357,-0.158728,0.158268,-33.0504,0.139784,25.8084,2.50549,0.911795,-0.110672,
0.187856,-0.00452186,0.168974,-2.06108,0.513441,0.178662,0.111227,-0.000134985,-0.0199488,4.93823e-05,0.0182966,0.0752783,0.112633,-0.00268119,-0.00361415,0.0132155,-0.0012338,-0.0259732,0.028417,-0.223654,0.00109774,0.0988559,-1.90137,0.110335,1.73398,0.763186,1.07165,-0.0268824,0.187991,-0.00330727,0.169135,-2.0619,0.509673,0.175026,0.111437,-0.00133685,0.0056009,0.000615683,0.0324549,0.0755902,0.181592,-0.00055524,0,0,0,0,0,0,0,0.158268,-33.0504,0.139784,25.8084,2.50549,0.911795,-0.110672,
0.18792,-0.00396799,0.169071,-2.06099,0.513322,0.181484,0.111307,-0.000291496,-0.0195211,-0.000111248,0.0181834,0.0751444,0.113254,-0.00267734,-0.0978195,0.267263,-0.100394,-0.070801,-0.0836839,0.388414,0.00240194,0.0988025,-1.9015,0.110288,1.73411,0.759675,1.07394,-0.0268797,0.187991,-0.00330727,0.169135,-2.0619,0.509673,0.175026,0.111437,-0.00133685,0.0056009,0.000615683,0.0324549,0.0755902,0.181592,-0.00055524,0,0,0,0,0,0,0,0.158268,-33.0504,0.139784,25.8084,2.50549,0.911795,-0.110672,
0.187915,-0.00411384,0.169067,-2.06085,0.513918,0.182385,0.111285,-0.000358498,-0.0192633,-0.000179647,0.0180598,0.0750295,0.113128,-0.00267387,-0.0418763,0.161171,-0.04275,-0.0772144,-0.0717814,-0.0792546,0.00217019,0.0988029,-1.90149,0.110288,1.7341,0.759706,1.07391,-0.0268798,0.187991,-0.00330727,0.169135,-2.0619,0.509673,0.175026,0.111437,-0.00133685,0.0056009,0.000615683,0.0324549,0.0755902,0.181592,-0.00055524,0,0,0,0,0,0,0,0.158268,-33.0504,0.139784,25.8084,2.50549,0.911795,-0.110672,
0.187912,-0.00426177,0.169066,-2.06071,0.514515,0.183268,0.111264,-0.000360559,-0.0191087,-0.000180834,0.0179313,0.0749446,0.11256,-0.00267085,-0.00128821,0.0965944,-0.000741465,-0.0803047,-0.0530552,-0.354431,0.00188965,0.0969121,-1.88871,0.114981,1.69455,0.759238,1.04549,-0.0267167,0.188011,-0.00415538,0.169166,-2.0613,0.511723,0.180434,0.111438,-0.00672038,-0.0409894,-0.00254597,0.00733977,0.0722253,0.156662,0.000255837,-0.672941,-5.82379,-0.395207,-3.13939,-0.420612,-3.1162,0.101385,0.0313145,-32.4989,0.0128308,25.6577,2.61535,1.14342,-0.123489,
0.187912,-0.00583472,0.169085,-2.0599,0.516872,0.188925,0.111249,-0.000286929,-0.0193075,-8.32183e-05,0.0178841,0.0744982,0.111637,-0.0026665,0.0460191,-0.124212,0.0610097,-0.029496,-0.279002,-0.576926,0.00272101,0.096412,-1.88984,0.11454,1.69563,0.725169,1.06675,-0.0266929,0.188011,-0.00415538,0.169166,-2.0613,0.511723,0.180434,0.111438,-0.00672038,-0.0409894,-0.00254597,0.00733977,0.0722253,0.156662,0.000255837,0,0,0,0,0,0,0,0.0313145,-32.4989,0.0128308,25.6577,2.61535,1.14342,-0.123489,
0.187913,-0.00599344,0.169089,-2.05976,0.517453,0.189778,0.111228,-0.000196101,-0.0194138,2.92759e-05,0.0177865,0.0741273,0.110631,-0.00266247,0.0567673,-0.0664566,0.0703088,-0.0610437,-0.231824,-0.628685,0.00251572,0.096418,-1.88982,0.114545,1.69561,0.725512,1.06648,-0.0266934,0.188011,-0.00415538,0.169166,-2.0613,0.511723,0.180434,0.111438,-0.00672038,-0.0409894,-0.00254597,0.00733977,0.0722253,0.156662,0.000255837,0,0,0,0,0,0,0,0.0313145,-32.4989,0.0128308,25.6577,2.61535,1.14342,-0.123489,
0.187916,-0.00615047,0.169094,-2.05962,0.518033,0.190622,0.111207,-9.76203e-05,-0.019457,0.000147542,0.0176577,0.0738149,0.109593,-0.00265875,0.0615504,-0.0269977,0.0739166,-0.080503,-0.195265,-0.649142,0.0023274,0.0964244,-1.8898,0.11455,1.69559,0.725857,1.06621,-0.0266939,0.188011,-0.00415538,0.169166,-2.0613,0.511723,0.180434,0.111438,-0.00672038,-0.0409894,-0.00254597,0.00733977,0.0722253,0.156662,0.000255837,0,0,0,0,0,0,0,0.0313145,-32.4989,0.0128308,25.6577,2.61535,1.14342,-0.123489,
0.187919,-0.00630617,0.1691,-2.05948,0.518613,0.191457,0.111186,2.02603e-06,-0.019458,0.00026545,0.0175113,0.073549,0.108555,-0.00265529,0.0622789,-0.000609627,0.0736925,-0.0914569,-0.166207,-0.648353,0.00216255,0.0971529,-1.87202,0.120209,1.65573,0.727465,1.03666,-0.0265488,0.187988,-0.00479039,0.169153,-2.0608,0.513464,0.186098,0.111436,-0.000581671,-0.00822199,-0.000964031,0.01544,0.0612841,0.176897,-0.000727062,0.767339,4.09593,0.197743,1.01253,-1.36764,2.52927,-0.122862,0.106693,-32.0982,0.163588,26.0822,2.83508,1.20934,-0.0969389,
0.188166,-0.0123991,0.169551,-2.05439,0.541311,0.227963,0.110338,0.000167285,-0.0191598,0.000541411,0.016677,0.0735315,0.103064,-0.002632,0.103287,0.186327,0.172476,-0.521475,-0.0108854,-3.4322,0.0145563,0.0959357,-1.8745,0.119149,1.6588,0.563545,1.12397,-0.0264771,0.187988,-0.00479039,0.169153,-2.0608,0.513464,0.186098,0.111436,-0.000581671,-0.00822199,-0.000964031,0.01544,0.0612841,0.176897,-0.000727062,0,0,0,0,0,0,0,0.106693,-32.0982,0.163588,26.0822,2.83508,1.20934,-0.0969389,
0.188173,-0.0125428,0.169564,-2.05428,0.541899,0.228609,0.110318,0.000300802,-0.0189199,0.000765777,0.0159977,0.0735047,0.0986018,-0.00261298,0.0834483,0.149977,0.140228,-0.424523,-0.016777,-2.78882,0.0118864,0.0960001,-1.87434,0.119204,1.65868,0.567711,1.12145,-0.0264793,0.187988,-0.00479039,0.169153,-2.0608,0.513464,0.186098,0.111436,-0.000581671,-0.00822199,-0.000964031,0.01544,0.0612841,0.176897,-0.000727062,0,0,0,0,0,0,0,0.106693,-32.0982,0.163588,26.0822,2.83508,1.20934,-0.0969389,
0.18818,-0.0126864,0.169578,-2.05418,0.542485,0.229252,0.110298,0.000408694,-0.0187264,0.000948634,0.0154426,0.0734693,0.0949643,-0.00259738,0.0674321,0.120925,0.114286,-0.346954,-0.0221406,-2.27345,0.00974768,0.0960646,-1.87418,0.119259,1.65855,0.571897,1.11894,-0.0264814,0.187988,-0.00479039,0.169153,-2.0608,0.513464,0.186098,0.111436,-0.000581671,-0.00822199,-0.000964031,0.01544,0.0612841,0.176897,-0.000727062,0,0,0,0,0,0,0,0.106693,-32.0982,0.163588,26.0822,2.83508,1.20934,-0.0969389,
0.188507,-0.0183166,0.170277,-2.05025,0.475883,0.297811,0.109554,0.000368757,-0.0181771,0.00104975,0.0143473,0.0777869,0.0835769,-0.00254899,-0.0249605,0.343301,0.0631998,-0.684556,2.69853,-7.11713,0.0302424,0.102761,-1.84421,0.12905,1.61652,0.575085,1.08886,-0.0263689,0.187972,-0.00518667,0.169156,-2.06028,0.515626,0.192276,0.111437,-0.00245313,-0.01012,-0.000535618,0.00461992,0.111609,0.222746,-0.000200533,-0.233933,-0.237249,0.0535516,-1.35251,6.29059,5.73113,0.0658162,0.158268,-33.3717,0.112013,26.9034,3.09143,1.70006,-0.110672,
0.188446,-0.0190584,0.170261,-2.04973,0.572931,0.258272,0.10945,0.000468117,-0.0180495,0.00128402,0.0135924,0.0760208,0.0802174,-0.00252936,0.0621001,0.0797469,0.146417,-0.471833,-1.10385,-2.0997,0.0122736,0.102761,-1.84421,0.12905,1.61652,0.575085,1.08886,-0.0263689,0.187972,-0.00518667,0.169156,-2.06028,0.515626,0.192276,0.111437,-0.00245313,-0.01012,-0.000535618,0.00461992,0.111609,0.222746,-0.000200533,0,0,0,0,0,0,0,0.158268,-33.3717,0.112013,26.9034,3.09143,1.70006,-0.110672,
0.188446,-0.0190584,0.170261,-2.04973,0.572931,0.258272,0.10945,0.000547605,-0.0179474,0.00147144,0.0129884,0.0746078,0.0775298,-0.00251365,0.0496801,0.0637976,0.117134,-0.377466,-0.883077,-1.67976,0.00981886,0.102761,-1.84421,0.12905,1.61652,0.575085,1.08886,-0.0263689,0.187972,-0.00518667,0.169156,-2.06028,0.515626,0.192276,0.111437,-0.00245313,-0.01012,-0.000535618,0.00461992,0.111609,0.222746,-0.000200533,0,0,0,0,0,0,0,0.158268,-33.3717,0.112013,26.9034,3.09143,1.70006,-0.110672,
0.188446,-0.0190584,0.170261,-2.04973,0.572931,0.258272,0.10945,0.000611196,-0.0178658,0.00162137,0.0125053,0.0734775,0.0753797,-0.00250108,0.0397441,0.051038,0.0937071,-0.301973,-0.706461,-1.34381,0.00785509,0.102761,-1.84421,0.12905,1.61652,0.575085,1.08886,-0.0263689,0.187972,-0.00518667,0.169156,-2.06028,0.515626,0.192276,0.111437,-0.00245313,-0.01012,-0.000535618,0.00461992,0.111609,0.222746,-0.000200533,0,0,0,0,0,0,0,0.158268,-33.3717,0.112013,26.9034,3.09143,1.70006,-0.110672,
0.188404,-0.00547848,0.169596,-2.06002,0.510143,0.199374,0.111465,0.00690027,-0.018372,0.00778991,0.0135288,-0.0305968,0.15945,-0.00185085,3.93067,-0.316379,3.85534,0.639728,-65.0464,52.5441,0.40639,1.37967,-2.16749,1.42327,1.79368,-8.34668,7.25474,-0.0193534,0.188037,-0.00591184,0.169256,-2.06009,0.518443,0.201205,0.111438,-0.00522105,-0.0344338,-0.00120226,-0.000633284,0.203986,0.282483,0.00171669,-0.345989,-3.03922,-0.0833297,-0.65665,11.5471,7.46716,0.239652,-0.57568,-33.2964,-0.463243,27.55,3.74511,1.39519,-0.123489,
0.188682,-0.00565834,0.169877,-2.05987,0.505579,0.20383,0.111461,0.0124642,-0.019194,0.0132449,0.0144251,-0.138569,0.238979,-0.00158253,3.47746,-0.513784,3.40935,0.560184,-67.4823,49.7054,0.167703,1.3707,-2.11752,1.41369,1.78883,-8.17224,7.10236,-0.0194405,0.188037,-0.00591184,0.169256,-2.06009,0.518443,0.201205,0.111438,-0.00522105,-0.0344338,-0.00120226,-0.000633284,0.203986,0.282483,0.00171669,0,0,0,0,0,0,0,-0.57568,-33.2964,-0.463243,27.55,3.74511,1.39519,-0.123489,
0.188951,-0.00584277,0.170149,-2.05973,0.500442,0.208559,0.111451,0.0167042,-0.019966,0.0173942,0.0151042,-0.239273,0.309398,-0.00151113,2.65,-0.482451,2.59333,0.42439,-62.9405,44.0119,0.0446242,1.35999,-2.07754,1.40233,1.78383,-7.99924,6.95002,-0.019627,0.188037,-0.00591184,0.169256,-2.06009,0.518443,0.201205,0.111438,-0.00522105,-0.0344338,-0.00120226,-0.000633284,0.203986,0.282483,0.00171669,0,0,0,0,0,0,0,-0.57568,-33.2964,-0.463243,27.55,3.74511,1.39519,-0.123489,
0.189199,-0.00602505,0.170399,-2.05959,0.49499,0.213421,0.111438,0.0195482,-0.0205297,0.0201668,0.015581,-0.327727,0.369075,-0.00153633,1.77753,-0.352368,1.73288,0.298045,-55.2838,37.2983,-0.0157478,1.34819,-2.0475,1.39004,1.77766,-7.83009,6.79924,-0.0197594,0.188037,-0.00591184,0.169256,-2.06009,0.518443,0.201205,0.111438,-0.00522105,-0.0344338,-0.00120226,-0.000633284,0.203986,0.282483,0.00171669,0,0,0,0,0,0,0,-0.57568,-33.2964,-0.463243,27.55,3.74511,1.39519,-0.123489,
0.18951,-0.00608556,0.170918,-2.05965,0.493529,0.230249,0.111547,0.0284072,-0.0120684,0.028582,0.0157188,-0.495932,0.480835,-0.000226288,5.53682,5.28831,5.25952,0.0860821,-105.128,69.8497,0.818774,2.51354,5.0463,2.33657,0.930464,-14.5958,11.4224,0.0443256,0.188511,-0.00634842,0.169948,-2.05991,0.511025,0.216188,0.111448,0.052815,-0.00737134,0.0477656,0.00219725,-0.77517,0.688086,5.66985e-05,7.25451,3.3828,6.12098,0.353816,-122.394,50.7004,-0.207499,-1.66668,-33.2488,-1.56218,28.1729,0.672604,3.37823,-0.143631,
0.190025,-0.00584771,0.171421,-2.05954,0.483406,0.238194,0.111578,0.0355959,-0.00370866,0.0354393,0.0153826,-0.649832,0.583276,0.000592669,4.49293,5.22487,4.28578,-0.210122,-96.187,64.0258,0.511848,3.11415,5.12066,2.97054,0.856562,-14.5958,11.4224,0.0313576,0.188511,-0.00634842,0.169948,-2.05991,0.511025,0.216188,0.111448,0.052815,-0.00737134,0.0477656,0.00219725,-0.77517,0.688086,5.66985e-05,0,0,0,0,0,0,0,-1.66668,-33.2488,-1.56218,28.1729,0.672604,3.37823,-0.143631,
0.19054,-0.00555872,0.171924,-2.05945,0.472775,0.24648,0.111604,0.0413554,0.004258,0.0409377,0.0146052,-0.785639,0.673789,0.00112111,3.5997,4.97916,3.43653,-0.485844,-84.8797,56.5707,0.330273,3.87246,5.18378,3.73873,0.785761,-14.5958,11.4224,0.0266348,0.188511,-0.00634842,0.169948,-2.05991,0.511025,0.216188,0.111448,0.052815,-0.00737134,0.0477656,0.00219725,-0.77517,0.688086,5.66985e-05,0,0,0,0,0,0,0,-1.66668,-33.2488,-1.56218,28.1729,0.672604,3.37823,-0.143631,
0.191058,-0.00522833,0.172431,-2.05937,0.461807,0.25499,0.111627,0.0460469,0.011666,0.0454135,0.0135187,-0.902718,0.751768,0.00147344,2.93221,4.63002,2.79737,-0.679095,-73.174,48.7369,0.22021,4.67133,5.22096,4.53794,0.722177,-14.5958,11.4224,0.0234432,0.188511,-0.00634842,0.169948,-2.05991,0.511025,0.216188,0.111448,0.052815,-0.00737134,0.0477656,0.00219725,-0.77517,0.688086,5.66985e-05,0,0,0,0,0,0,0,-1.66668,-33.2488,-1.56218,28.1729,0.672604,3.37823,-0.143631,
0.188999,-0.00625977,0.17042,-2.05978,0.502879,0.222826,0.111507,0.0490354,0.0115491,0.0481341,0.0139708,-0.925828,0.767374,0.00264051,1.8678,-0.0730922,1.70035,0.282565,-14.4437,9.75374,0.729418,2.51354,5.0463,2.33657,0.930464,-14.5958,11.4224,0.0443256,0.188511,-0.00634842,0.169948,-2.05991,0.511025,0.216188,0.111448,0.052815,-0.00737134,0.0477656,0.00219725,-0.77517,0.688086,5.66985e-05,0,0,0,0,0,0,0,-1.66668,-33.2488,-1.56218,28.1729,0.672604,3.37823,-0.143631,
0.18951,-0.00608556,0.170918,-2.05965,0.493529,0.230249,0.111547,0.0519969,0.0135946,0.0509559,0.0144306,-0.974413,0.799474,0.00311518,1.85093,1.27846,1.76361,0.287365,-30.3656,20.0623,0.296669,3.0145,6.2003,2.87081,-0.286122,-14.7685,10.9856,0.037552,0.190607,-0.00606378,0.17218,-2.05976,0.476405,0.252151,0.111554,0.0977508,-0.00780223,0.11045,-0.0146374,-1.69422,1.37173,0.00841666,5.61697,-0.0538615,7.8356,-2.10433,-114.882,85.4557,1.045,-1.13507,-28.3809,-1.61376,27.2525,-1.72699,4.31298,-0.298355,
0.190025,-0.00584771,0.171421,-2.05954,0.483406,0.238194,0.111578,0.0544676,0.0168218,0.0533384,0.014352,-1.03262,0.838187,0.00326584,1.54422,2.01698,1.48906,-0.0490954,-36.377,24.1959,0.0941645,3.77281,6.26342,3.639,-0.356923,-14.7685,10.9856,0.0328292,0.190607,-0.00606378,0.17218,-2.05976,0.476405,0.252151,0.111554,0.0977508,-0.00780223,0.11045,-0.0146374,-1.69422,1.37173,0.00841666,0,0,0,0,0,0,0,-1.13507,-28.3809,-1.61376,27.2525,-1.72699,4.31298,-0.298355,
0.19054,-0.00555872,0.171924,-2.05945,0.472775,0.24648,0.111604,0.0564528,0.0206824,0.055257,0.0137808,-1.09187,0.877718,0.00325965,1.24073,2.41285,1.19914,-0.357023,-37.0317,24.7068,-0.00387416,4.57168,6.3006,4.43821,-0.420506,-14.7685,10.9856,0.0296376,0.190607,-0.00606378,0.17218,-2.05976,0.476405,0.252151,0.111554,0.0977508,-0.00780223,0.11045,-0.0146374,-1.69422,1.37173,0.00841666,0,0,0,0,0,0,0,-1.13507,-28.3809,-1.61376,27.2525,-1.72699,4.31298,-0.298355,
0.193604,-0.00459359,0.17511,-2.05935,0.415684,0.299376,0.111606,0.0594564,0.0259887,0.0581544,0.0123054,-1.16703,0.928748,0.0029532,1.87724,3.31645,1.81089,-0.922083,-46.979,31.8934,-0.191529,5.35983,6.31025,5.22177,-0.476485,-14.7685,10.9856,0.027541,0.190607,-0.00606378,0.17218,-2.05976,0.476405,0.252151,0.111554,0.0977508,-0.00780223,0.11045,-0.0146374,-1.69422,1.37173,0.00841666,0,0,0,0,0,0,0,-1.13507,-28.3809,-1.61376,27.2525,-1.72699,4.31298,-0.298355,
0.194193,-0.00420233,0.175686,-2.05932,0.404006,0.308349,0.11162,0.0623008,0.0305725,0.0609068,0.01067,-1.22558,0.967328,0.00272636,1.77775,2.86489,1.72023,-1.02215,-36.5935,24.1126,-0.141776,5.91749,6.56786,5.76027,-0.724296,-14.6207,10.6923,0.0270727,0.194333,-0.00459,0.176004,-2.05956,0.425869,0.300608,0.111599,0.105581,0.0528882,0.134535,0.00414873,-1.70258,1.43776,0.00159259,0.978788,7.5863,3.01057,2.34826,-1.04428,8.25294,-0.853009,-0.349545,-28.5793,-0.463243,26.3281,0.569149,3.21252,-0.103348,
0.194804,-0.00380499,0.176283,-2.05931,0.392371,0.317246,0.111635,0.0651177,0.0343913,0.0636454,0.00894866,-1.27132,0.996273,0.00255369,1.76057,2.38677,1.71166,-1.07584,-28.5845,18.0906,-0.107917,6.61442,6.50272,6.45013,-0.763175,-14.6207,10.6923,0.025004,0.194333,-0.00459,0.176004,-2.05956,0.425869,0.300608,0.111599,0.105581,0.0528882,0.134535,0.00414873,-1.70258,1.43776,0.00159259,0,0,0,0,0,0,0,-0.349545,-28.5793,-0.463243,26.3281,0.569149,3.21252,-0.103348,
0.198729,-0.00221703,0.180311,-2.05938,0.353935,0.357076,0.111642,0.0697979,0.0367252,0.0682564,0.00678086,-1.30591,1.01673,0.0023811,2.92514,1.45868,2.88186,-1.35487,-21.6199,12.7844,-0.107869,8.27778,6.05469,8.09973,-0.874605,-14.6207,10.6923,0.0212254,0.194333,-0.00459,0.176004,-2.05956,0.425869,0.300608,0.111599,0.105581,0.0528882,0.134535,0.00414873,-1.70258,1.43776,0.00159259,0,0,0,0,0,0,0,-0.349545,-28.5793,-0.463243,26.3281,0.569149,3.21252,-0.103348,
0.199445,-0.00185749,0.181013,-2.05941,0.342443,0.365752,0.111656,0.0737421,0.0383687,0.0721491,0.00470106,-1.33203,1.0303,0.00225334,2.46512,1.02716,2.43293,-1.29987,-16.3262,8.48126,-0.0798504,8.67229,5.84411,8.49376,-0.919237,-14.6207,10.6923,0.0207293,0.194333,-0.00459,0.176004,-2.05956,0.425869,0.300608,0.111599,0.105581,0.0528882,0.134535,0.00414873,-1.70258,1.43776,0.00159259,0,0,0,0,0,0,0,-0.349545,-28.5793,-0.463243,26.3281,0.569149,3.21252,-0.103348,
0.200168,-0.00150661,0.181721,-2.05945,0.331001,0.374292,0.11167,0.0770696,0.039467,0.0754383,0.00289546,-1.35169,1.03774,0.00214522,2.07968,0.686466,2.05578,-1.1285,-12.2874,4.65154,-0.0675717,8.61934,6.25069,8.41214,-1.44352,-14.5568,10.3008,0.0244493,0.199209,-0.000923568,0.180583,-2.05944,0.365445,0.35453,0.111691,0.181925,0.140695,0.133407,0.00661751,-1.9101,1.65584,0.00438619,9.54293,10.9759,-0.141052,0.308598,-25.9406,27.2601,0.349199,-0.528073,-32.4513,-0.387865,25.257,-0.274051,3.60985,-0.143631,
0.200886,-0.00116524,0.182425,-2.05946,0.319727,0.382496,0.11168,0.0796034,0.0401078,0.077939,0.0018627,-1.36318,1.03528,0.00198209,1.58364,0.400464,1.56294,-0.645473,-7.183,-1.54029,-0.101957,8.8652,6.02778,8.66074,-1.49583,-14.5568,10.3008,0.0242624,0.199209,-0.000923568,0.180583,-2.05944,0.365445,0.35453,0.111691,0.181925,0.140695,0.133407,0.00661751,-1.9101,1.65584,0.00438619,0,0,0,0,0,0,0,-0.528073,-32.4513,-0.387865,25.257,-0.274051,3.60985,-0.143631,
0.204004,0.00237765,0.185268,-2.05961,0.293724,0.41022,0.111663,0.0805521,0.0413931,0.0788039,0.00134376,-1.35232,1.0157,0.00158222,0.59292,0.803311,0.540528,-0.324337,6.79118,-12.233,-0.249919,9.18111,5.60815,8.98447,-1.604,-14.5568,10.3008,0.0239251,0.199209,-0.000923568,0.180583,-2.05944,0.365445,0.35453,0.111691,0.181925,0.140695,0.133407,0.00661751,-1.9101,1.65584,0.00438619,0,0,0,0,0,0,0,-0.528073,-32.4513,-0.387865,25.257,-0.274051,3.60985,-0.143631,
0.204657,0.002718,0.185904,-2.05961,0.283891,0.417131,0.111662,0.0807613,0.0416234,0.0789496,0.00112562,-1.3277,0.985348,0.00124266,0.13079,0.143931,0.0910635,-0.136338,15.3891,-18.9718,-0.212227,9.27024,5.41795,9.07804,-1.65747,-14.5568,10.3008,0.0236593,0.199209,-0.000923568,0.180583,-2.05944,0.365445,0.35453,0.111691,0.181925,0.140695,0.133407,0.00661751,-1.9101,1.65584,0.00438619,0,0,0,0,0,0,0,-0.528073,-32.4513,-0.387865,25.257,-0.274051,3.60985,-0.143631,
0.205294,0.00303413,0.186525,-2.0596,0.274684,0.42349,0.111661,0.0805365,0.0412019,0.0786751,0.00112218,-1.29232,0.947256,0.000959484,-0.140511,-0.263428,-0.171577,-0.00215122,22.1109,-23.8077,-0.176984,9.32502,5.24124,9.13742,-1.70972,-14.5568,10.147,0.0230141,0.199209,-0.000923568,0.180583,-2.05944,0.365445,0.35453,0.111691,0.181925,0.140695,0.133407,0.00661751,-1.9101,1.65584,0.00438619,0,0,0,0,0,0,0,-0.528073,-32.4513,-0.387865,25.257,-0.274051,3.60985,-0.143631,
0.200221,-8.8409e-05,0.181571,-2.05947,0.351802,0.365977,0.111667,0.0897256,0.0538405,0.0876283,0.000184326,-1.37494,1.04398,0.0001812,5.74316,7.89912,5.59574,-0.586156,-51.6361,60.4542,-0.486428,9.18111,5.60815,8.98447,-1.604,-14.5568,10.3008,0.0239251,0.199209,-0.000923568,0.180583,-2.05944,0.365445,0.35453,0.111691,0.181925,0.140695,0.133407,0.00661751,-1.9101,1.65584,0.00438619,0,0,0,0,0,0,0,-0.528073,-32.4513,-0.387865,25.257,-0.274051,3.60985,-0.143631,
0.201089,0.000571815,0.18242,-2.05951,0.339105,0.376274,0.111658,0.0934798,0.059578,0.0913376,-0.0010515,-1.41736,1.09261,-7.79912e-05,2.34641,3.58594,2.31832,-0.772394,-26.5139,30.3952,-0.161994,9.27024,5.41795,9.07804,-1.65747,-14.5568,10.3008,0.0236593,0.199209,-0.000923568,0.180583,-2.05944,0.365445,0.35453,0.111691,0.181925,0.140695,0.133407,0.00661751,-1.9101,1.65584,0.00438619,0,0,0,0,0,0,0,-0.528073,-32.4513,-0.387865,25.257,-0.274051,3.60985,-0.143631,
0.201881,0.00111939,0.183195,-2.05956,0.326967,0.385797,0.111659,0.0946003,0.0613516,0.0924512,-0.00206508,-1.43735,1.11218,-4.60377e-05,0.700307,1.10855,0.696017,-0.633482,-12.4972,12.2258,0.019971,9.32502,5.24124,9.13742,-1.70972,-14.5568,10.147,0.0230141,0.199209,-0.000923568,0.180583,-2.05944,0.365445,0.35453,0.111691,0.181925,0.140695,0.133407,0.00661751,-1.9101,1.65584,0.00438619,0,0,0,0,0,0,0,-0.528073,-32.4513,-0.387865,25.257,-0.274051,3.60985,-0.143631,
0.202625,0.00159075,0.183922,-2.05959,0.315291,0.394594,0.111662,0.0942722,0.0608655,0.0921284,-0.00234032,-1.44177,1.10967,4.4059e-05,-0.205054,-0.303857,-0.20174,-0.172028,-2.7572,-1.56921,0.0563104,8.99578,5.64289,8.77847,-2.14465,-14.0336,8.94079,0.0254534,0.204664,0.00319487,0.185702,-2.06079,0.296305,0.41519,0.111718,0.152689,0.0600347,0.174964,-0.081591,-2.04182,1.80951,0.000758005,-3.65442,-10.0826,5.19462,-11.0261,-16.4651,19.2093,-0.453523,2.61798,-34.796,2.66298,27.3993,1.99188,2.5158,-0.083206,
0.209402,0.00559222,0.190298,-2.06034,0.231844,0.463472,0.111565,0.0897644,0.054711,0.0875974,2.75708e-05,-1.31786,0.997307,-0.000109939,-2.81741,-3.84657,-2.83187,1.47993,77.4434,-70.2238,-0.0962489,8.90608,5.31722,8.6993,-2.26623,-11.5821,6.81483,0.0230641,0.204664,0.00319487,0.185702,-2.06079,0.296305,0.41519,0.111718,0.152689,0.0600347,0.174964,-0.081591,-2.04182,1.80951,0.000758005,0,0,0,0,0,0,0,2.61798,-34.796,2.66298,27.3993,1.99188,2.5158,-0.083206,
0.209978,0.00582727,0.190856,-2.06027,0.225766,0.467387,0.11156,0.0862208,0.049645,0.0840317,0.00171253,-1.20623,0.89572,-0.000218284,-2.21471,-3.16623,-2.22856,1.0531,69.7678,-63.4918,-0.0677154,8.83239,5.26112,8.62722,-2.29388,-10.8714,6.20416,0.0222056,0.204664,0.00319487,0.185702,-2.06079,0.296305,0.41519,0.111718,0.152689,0.0600347,0.174964,-0.081591,-2.04182,1.80951,0.000758005,0,0,0,0,0,0,0,2.61798,-34.796,2.66298,27.3993,1.99188,2.5158,-0.083206,
0.210559,0.00606012,0.191418,-2.06021,0.220136,0.47089,0.111555,0.0834828,0.0455372,0.0812707,0.00286114,-1.10573,0.804143,-0.000303767,-1.7113,-2.56734,-1.72566,0.717884,62.8086,-57.2359,-0.0534268,8.74329,5.22627,8.53865,-2.31393,-10.2045,5.63766,0.0210367,0.204664,0.00319487,0.185702,-2.06079,0.296305,0.41519,0.111718,0.152689,0.0600347,0.174964,-0.081591,-2.04182,1.80951,0.000758005,0,0,0,0,0,0,0,2.61798,-34.796,2.66298,27.3993,1.99188,2.5158,-0.083206,
0.211143,0.00629285,0.191984,-2.06016,0.214911,0.474024,0.111549,0.0813935,0.042248,0.079157,0.0035951,-1.01521,0.72167,-0.000373872,-1.30581,-2.05577,-1.32102,0.458723,56.5765,-51.5456,-0.0438157,8.60655,5.0711,8.36227,-1.98988,-9.23774,4.90685,0.0189217,0.209874,0.00814708,0.191659,-2.06229,0.229022,0.473003,0.11173,0.0892355,0.120621,0.238618,-0.0591457,-1.83163,1.60866,0.00128163,-7.93172,7.57323,7.95676,2.80566,26.2746,-25.1062,0.0654537,3.9867,-34.9944,3.88887,29.3948,2.24273,3.50365,-0.143631,
0.215275,0.0114919,0.196848,-2.06152,0.179641,0.507984,0.111461,0.0788212,0.0396164,0.0764825,0.00417585,-0.892795,0.615612,-0.000484396,-1.60764,-1.64476,-1.67157,0.362971,76.5101,-66.2862,-0.0690777,8.01414,5.05023,7.76251,-1.99619,-6.72866,2.82071,0.0127091,0.209874,0.00814708,0.191659,-2.06229,0.229022,0.473003,0.11173,0.0892355,0.120621,0.238618,-0.0591457,-1.83163,1.60866,0.00128163,0,0,0,0,0,0,0,3.9867,-34.9944,3.88887,29.3948,2.24273,3.50365,-0.143631,
0.215829,0.0117251,0.197379,-2.06148,0.176647,0.509277,0.111454,0.0769003,0.0375219,0.0744759,0.00436107,-0.789078,0.524826,-0.000569257,-1.20058,-1.30905,-1.25413,0.11576,64.8233,-56.7416,-0.053038,7.88849,5.04355,7.63532,-1.99032,-6.33209,2.49538,0.0116455,0.209874,0.00814708,0.191659,-2.06229,0.229022,0.473003,0.11173,0.0892355,0.120621,0.238618,-0.0591457,-1.83163,1.60866,0.00128163,0,0,0,0,0,0,0,3.9867,-34.9944,3.88887,29.3948,2.24273,3.50365,-0.143631,
0.216386,0.0119597,0.197915,-2.06145,0.173861,0.510365,0.111446,0.0754599,0.0358838,0.0729631,0.00426645,-0.700916,0.447059,-0.00063917,-0.900251,-1.02382,-0.945526,-0.0591371,55.1011,-48.6039,-0.043696,7.76245,5.03325,7.50794,-1.98322,-5.96316,2.19647,0.0105228,0.209874,0.00814708,0.191659,-2.06229,0.229022,0.473003,0.11173,0.0892355,0.120621,0.238618,-0.0591457,-1.83163,1.60866,0.00128163,0,0,0,0,0,0,0,3.9867,-34.9944,3.88887,29.3948,2.24273,3.50365,-0.143631,
0.218625,0.0129134,0.200063,-2.06139,0.164442,0.513103,0.111416,0.0743244,0.0347055,0.0717575,0.00352137,-0.613839,0.369579,-0.000709009,-0.709675,-0.736457,-0.753488,-0.465677,54.4228,-48.4251,-0.0436493,6.42397,4.41428,6.13057,-1.47863,-2.83416,-0.117917,0.000810873,0.214567,0.0135109,0.196809,-2.06322,0.16603,0.52504,0.111719,0.139642,0.214556,0.122155,0.0135488,-1.63424,1.32868,-0.00119049,6.30083,11.7419,-14.5578,9.08681,24.6735,-34.9975,-0.309015,3.1496,-35.8434,2.76216,25.3601,3.5437,1.79345,-0.0301054,
0.221664,0.0189421,0.203483,-2.06235,0.13079,0.541198,0.111316,0.0707062,0.0327668,0.0680599,0.00259251,-0.511729,0.28314,-0.000778181,-2.2614,-1.21167,-2.31101,-0.580537,63.8193,-54.0244,-0.0432326,6.30694,4.35718,6.0149,-1.46241,-2.69675,-0.216905,0.000435779,0.214567,0.0135109,0.196809,-2.06322,0.16603,0.52504,0.111719,0.139642,0.214556,0.122155,0.0135488,-1.63424,1.32868,-0.00119049,0,0,0,0,0,0,0,3.1496,-35.8434,2.76216,25.3601,3.5437,1.79345,-0.0301054,
0.222109,0.019139,0.203905,-2.06236,0.130018,0.540661,0.111308,0.0676957,0.0311364,0.0649876,0.00180091,-0.428686,0.213099,-0.00083524,-1.88158,-1.01898,-1.92019,-0.494747,51.9017,-43.7757,-0.0356616,6.19051,4.29784,5.89999,-1.4458,-2.5678,-0.306947,3.27072e-05,0.214567,0.0135109,0.196809,-2.06322,0.16603,0.52504,0.111719,0.139642,0.214556,0.122155,0.0135488,-1.63424,1.32868,-0.00119049,0,0,0,0,0,0,0,3.1496,-35.8434,2.76216,25.3601,3.5437,1.79345,-0.0301054,
0.222549,0.0193323,0.204321,-2.06237,0.129296,0.540094,0.111299,0.0651495,0.0297406,0.0623941,0.00113517,-0.360984,0.156304,-0.000881475,-1.59137,-0.872387,-1.62089,-0.416091,42.3136,-35.497,-0.0288967,6.07459,4.23627,5.78573,-1.42859,-2.44844,-0.389951,-0.00028087,0.214567,0.0135109,0.196809,-2.06322,0.16603,0.52504,0.111719,0.139642,0.214556,0.122155,0.0135488,-1.63424,1.32868,-0.00119049,0,0,0,0,0,0,0,3.1496,-35.8434,2.76216,25.3601,3.5437,1.79345,-0.0301054,
0.215223,0.014617,0.197417,-2.0631,0.158095,0.531808,0.111583,0.0685139,0.0514442,0.0651341,0.00394321,-0.487154,0.294245,-0.00410298,2.10279,13.5647,1.71248,1.75503,-78.8563,86.2134,-2.01344,6.42397,4.41428,6.13057,-1.47863,-2.83416,-0.117917,0.000810873,0.214567,0.0135109,0.196809,-2.06322,0.16603,0.52504,0.111719,0.139642,0.214556,0.122155,0.0135488,-1.63424,1.32868,-0.00119049,0,0,0,0,0,0,0,3.1496,-35.8434,2.76216,25.3601,3.5437,1.79345,-0.0301054,
0.215688,0.0153566,0.197848,-2.06296,0.152955,0.536164,0.111503,0.0664493,0.0596454,0.0628717,0.00657327,-0.518229,0.344296,-0.00528399,-1.29039,5.12575,-1.414,1.64379,-19.4218,31.2817,-0.738137,6.8802,3.92069,6.56042,-0.898214,-2.30217,-0.178913,-0.00304307,0.219143,0.017725,0.200512,-2.06329,0.124001,0.558043,0.111715,0.188779,0.11732,0.0229429,0.000635878,-0.921833,0.76396,0.00052104,6.14205,-12.1545,-12.4015,-1.61411,89.0507,-70.5901,0.213941,3.17737,-34.6452,2.86134,21.25,2.87811,0.0759184,-0.0227812,
0.21608,0.0158744,0.198211,-2.06283,0.149354,0.538996,0.111458,0.0629486,0.060662,0.0593637,0.00860788,-0.504614,0.346227,-0.00536216,-2.18795,0.635403,-2.19251,1.27163,8.5096,1.20689,-0.0488529,6.76377,3.86135,6.44552,-0.881606,-2.17322,-0.268955,-0.00344614,0.219143,0.017725,0.200512,-2.06329,0.124001,0.558043,0.111715,0.188779,0.11732,0.0229429,0.000635878,-0.921833,0.76396,0.00052104,0,0,0,0,0,0,0,3.17737,-34.6452,2.86134,21.25,2.87811,0.0759184,-0.0227812,
0.216453,0.0162592,0.198558,-2.06271,0.146624,0.540844,0.111431,0.0596789,0.0581493,0.0561645,0.00987741,-0.471945,0.323184,-0.00496138,-2.04357,-1.57044,-1.9995,0.793455,20.4176,-14.402,0.250484,6.64785,3.79977,6.33126,-0.864393,-2.05386,-0.351959,-0.00375972,0.219143,0.017725,0.200512,-2.06329,0.124001,0.558043,0.111715,0.188779,0.11732,0.0229429,0.000635878,-0.921833,0.76396,0.00052104,0,0,0,0,0,0,0,3.17737,-34.6452,2.86134,21.25,2.87811,0.0759184,-0.0227812,
0.224285,0.0206197,0.205327,-2.06246,0.108436,0.562825,0.111443,0.0574663,0.0503508,0.0540855,0.00808684,-0.389381,0.242336,-0.00417067,-1.38288,-4.87409,-1.29936,-1.1191,51.603,-50.5301,0.494197,5.72928,3.24385,5.43083,-0.711181,-1.33233,-0.799703,-0.00564022,0.219143,0.017725,0.200512,-2.06329,0.124001,0.558043,0.111715,0.188779,0.11732,0.0229429,0.000635878,-0.921833,0.76396,0.00052104,0,0,0,0,0,0,0,3.17737,-34.6452,2.86134,21.25,2.87811,0.0759184,-0.0227812,
0.224669,0.0207713,0.205688,-2.06246,0.108005,0.562143,0.111435,0.0555574,0.0440704,0.052287,0.0065468,-0.322278,0.176812,-0.00353692,-1.19306,-3.92527,-1.12407,-0.96253,41.9394,-40.9522,0.396092,5.92011,3.02632,5.60933,-0.501755,-1.09347,-0.829382,-0.00722499,0.223046,0.0198616,0.20356,-2.06315,0.103179,0.571789,0.111714,0.140684,0.00151508,0.049985,-0.0252463,-0.488048,0.252924,0.000997015,-6.01185,-14.4756,3.38026,-3.23527,54.2232,-63.8795,0.059497,2.26093,-32.0982,1.98854,23.317,2.08984,0.579458,-0.050247,
0.225046,0.0209206,0.206042,-2.06246,0.107615,0.561434,0.111427,0.0538696,0.0389883,0.0506913,0.00523408,-0.267588,0.123732,-0.00302956,-1.05487,-3.17628,-0.997284,-0.820448,34.1811,-33.175,0.317099,5.80469,2.94904,5.49683,-0.480448,-1.02929,-0.861561,-0.00733181,0.223046,0.0198616,0.20356,-2.06315,0.103179,0.571789,0.111714,0.140684,0.00151508,0.049985,-0.0252463,-0.488048,0.252924,0.000997015,0,0,0,0,0,0,0,2.26093,-32.0982,1.98854,23.317,2.08984,0.579458,-0.050247,
0.227089,0.0207175,0.207372,-2.06265,0.0964968,0.569811,0.111543,0.052224,0.0338867,0.0491414,0.00474179,-0.219986,0.08171,-0.00262639,-1.02846,-3.18851,-0.968701,-0.307682,29.7512,-26.2638,0.251985,5.09872,2.46448,4.81054,-0.346886,-0.70008,-0.992112,-0.00775365,0.223046,0.0198616,0.20356,-2.06315,0.103179,0.571789,0.111714,0.140684,0.00151508,0.049985,-0.0252463,-0.488048,0.252924,0.000997015,0,0,0,0,0,0,0,2.26093,-32.0982,1.98854,23.317,2.08984,0.579458,-0.050247,
0.227443,0.0208262,0.207704,-2.06264,0.0962963,0.569088,0.111535,0.0506211,0.029826,0.0476213,0.00420183,-0.181002,0.0472843,-0.00229904,-1.00181,-2.53793,-0.950101,-0.337474,24.3649,-21.516,0.204589,4.9778,2.38098,4.69326,-0.32387,-0.652037,-1.00531,-0.00778582,0.223046,0.0198616,0.20356,-2.06315,0.103179,0.571789,0.111714,0.140684,0.00151508,0.049985,-0.0252463,-0.488048,0.252924,0.000997015,0,0,0,0,0,0,0,2.26093,-32.0982,1.98854,23.317,2.08984,0.579458,-0.050247,
0.227785,0.0209346,0.208025,-2.06262,0.0961312,0.56834,0.111528,0.0490576,0.0265708,0.04613,0.00365898,-0.148928,0.0191193,-0.00203318,-0.977186,-2.0345,-0.932029,-0.339278,20.046,-17.6031,0.166166,4.82675,2.36084,4.52575,-0.274629,-0.567503,-1.03837,-0.00758888,0.226955,0.0224702,0.206746,-2.0628,0.0877826,0.580841,0.111717,0.189134,0.0906813,0.0391283,0.0146116,-0.396368,0.262933,0.000437664,6.0563,11.1458,-1.35709,4.98224,11.46,1.25115,-0.0699189,1.24927,-32.2014,1.23872,27.3517,1.20453,2.61559,-0.083206,
0.228116,0.0210417,0.208336,-2.06261,0.0960023,0.567572,0.11152,0.0475272,0.0239353,0.0446634,0.00314203,-0.122367,-0.00389298,-0.00181792,-0.956508,-1.64717,-0.916664,-0.323098,16.601,-14.3827,0.134535,4.70329,2.27639,4.4061,-0.251319,-0.5219,-1.04796,-0.00758975,0.226955,0.0224702,0.206746,-2.0628,0.0877826,0.580841,0.111717,0.189134,0.0906813,0.0391283,0.0146116,-0.396368,0.262933,0.000437664,0,0,0,0,0,0,0,1.24927,-32.2014,1.23872,27.3517,1.20453,2.61559,-0.083206,
0.230717,0.0241135,0.210282,-2.06257,0.0848483,0.579043,0.111548,0.04635,0.0217431,0.0434991,0.00285837,-0.0965269,-0.0223437,-0.00165523,-0.735798,-1.37016,-0.727654,-0.177288,16.1499,-11.5317,0.101681,4.19416,1.93704,3.91293,-0.157169,-0.345973,-1.07353,-0.00737353,0.226955,0.0224702,0.206746,-2.0628,0.0877826,0.580841,0.111717,0.189134,0.0906813,0.0391283,0.0146116,-0.396368,0.262933,0.000437664,0,0,0,0,0,0,0,1.24927,-32.2014,1.23872,27.3517,1.20453,2.61559,-0.083206,
0.23103,0.0242114,0.210573,-2.06256,0.0849414,0.578243,0.11154,0.0449212,0.0198421,0.0420896,0.00257296,-0.074893,-0.0378715,-0.00151596,-0.892985,-1.18811,-0.880926,-0.178379,13.5212,-9.70487,0.0870443,4.06261,1.85263,3.78552,-0.133569,-0.30209,-1.07757,-0.00726819,0.226955,0.0224702,0.206746,-2.0628,0.0877826,0.580841,0.111717,0.189134,0.0906813,0.0391283,0.0146116,-0.396368,0.262933,0.000437664,0,0,0,0,0,0,0,1.24927,-32.2014,1.23872,27.3517,1.20453,2.61559,-0.083206,
0.231326,0.0243045,0.210848,-2.06255,0.0850759,0.577422,0.111533,0.0433341,0.0182017,0.0405257,0.00230621,-0.0565527,-0.0508286,-0.00139812,-0.991894,-1.02526,-0.977432,-0.166718,11.4627,-8.09817,0.0736507,3.99763,1.78666,3.70215,-0.0413492,-0.207774,-1.05857,-0.00742629,0.231144,0.0253469,0.209768,-2.06238,0.0797703,0.583435,0.111715,0.179413,0.10378,0.035054,0.00609503,-0.122551,-0.00481657,-0.000998188,-1.21513,1.63736,-0.509275,-1.06457,34.2271,-33.4688,-0.179482,-0.857357,-35.518,-0.288683,25.856,-0.0479162,3.45788,-0.0703886,
0.231606,0.0243934,0.211105,-2.06254,0.0852563,0.576585,0.111525,0.0416502,0.0167828,0.0388671,0.00207052,-0.0407329,-0.0615788,-0.0012999,-1.05246,-0.886826,-1.03663,-0.147305,9.88738,-6.71891,0.0613876,3.8623,1.70362,3.57102,-0.0179035,-0.162015,-1.06142,-0.00729161,0.231144,0.0253469,0.209768,-2.06238,0.0797703,0.583435,0.111715,0.179413,0.10378,0.035054,0.00609503,-0.122551,-0.00481657,-0.000998188,0,0,0,0,0,0,0,-0.857357,-35.518,-0.288683,25.856,-0.0479162,3.45788,-0.0703886,
0.234447,0.0273049,0.212867,-2.06286,0.0809543,0.577768,0.111605,0.0412221,0.0169623,0.0383962,0.000834555,-0.023211,-0.0736714,-0.00124186,-0.267594,0.112185,-0.294312,-0.77248,10.9512,-7.55785,0.036275,3.4445,1.46184,3.16585,0.0514144,-0.0122377,-1.06788,-0.00686145,0.231144,0.0253469,0.209768,-2.06238,0.0797703,0.583435,0.111715,0.179413,0.10378,0.035054,0.00609503,-0.122551,-0.00481657,-0.000998188,0,0,0,0,0,0,0,-0.857357,-35.518,-0.288683,25.856,-0.0479162,3.45788,-0.0703886,
0.234733,0.0274295,0.213131,-2.06289,0.0813803,0.576795,0.111597,0.0401437,0.016683,0.0372945,6.27384e-05,-0.00792092,-0.0832558,-0.00118594,-0.673952,-0.174564,-0.688593,-0.482386,9.55629,-5.99023,0.034951,3.30132,1.38459,3.02682,0.074198,0.043298,-1.07085,-0.00667437,0.231144,0.0253469,0.209768,-2.06238,0.0797703,0.583435,0.111715,0.179413,0.10378,0.035054,0.00609503,-0.122551,-0.00481657,-0.000998188,0,0,0,0,0,0,0,-0.857357,-35.518,-0.288683,25.856,-0.0479162,3.45788,-0.0703886,
0.234994,0.0275406,0.213368,-2.0629,0.0818671,0.575828,0.11159,0.038633,0.0161242,0.0357735,-0.000367571,0.00583392,-0.0907817,-0.00113585,-0.944216,-0.349242,-0.95059,-0.268944,8.59678,-4.70371,0.0313039,3.20153,1.31283,2.91259,0.136669,0.113984,-1.04717,-0.00665611,0.234912,0.0273267,0.213611,-2.06301,0.0778124,0.580892,0.111724,0.0894728,-0.00491023,0.143547,-0.0595754,-0.0276825,-0.086984,0.00088842,-11.2425,-13.5863,13.5617,-8.20881,11.8586,-10.2709,0.235826,-1.86902,-35.8434,-1.23686,28.6728,0.141598,3.67669,-0.110672,
0.237369,0.0277189,0.215953,-2.06335,0.0793054,0.576566,0.111656,0.0427461,0.0154258,0.0397861,-0.00116483,0.017694,-0.0991385,-0.00120234,2.57073,-0.436489,2.50785,-0.498288,7.41256,-5.22298,-0.041553,3.05463,1.24028,2.76968,0.159004,0.178591,-1.05162,-0.00644738,0.234912,0.0273267,0.213611,-2.06301,0.0778124,0.580892,0.111724,0.0894728,-0.00491023,0.143547,-0.0595754,-0.0276825,-0.086984,0.00088842,0,0,0,0,0,0,0,-1.86902,-35.8434,-1.23686,28.6728,0.141598,3.67669,-0.110672,
0.237779,0.0278139,0.216337,-2.06338,0.0798687,0.575535,0.111646,0.0444518,0.0147159,0.0414383,-0.00152318,0.0282383,-0.105081,-0.00121433,1.06601,-0.443681,1.03261,-0.223968,6.5902,-3.7143,-0.00749782,2.90603,1.17063,2.62494,0.181037,0.249457,-1.05666,-0.006252,0.234912,0.0273267,0.213611,-2.06301,0.0778124,0.580892,0.111724,0.0894728,-0.00491023,0.143547,-0.0595754,-0.0276825,-0.086984,0.00088842,0,0,0,0,0,0,0,-1.86902,-35.8434,-1.23686,28.6728,0.141598,3.67669,-0.110672,
0.238137,0.0279027,0.21667,-2.06339,0.0804756,0.574529,0.111637,0.0445112,0.0139925,0.0414747,-0.00159645,0.0377634,-0.109227,-0.00119965,0.0371216,-0.452115,0.0227722,-0.0457923,5.95319,-2.59093,0.00917647,2.75587,1.10415,2.4785,0.202919,0.32701,-1.06362,-0.00602305,0.234912,0.0273267,0.213611,-2.06301,0.0778124,0.580892,0.111724,0.0894728,-0.00491023,0.143547,-0.0595754,-0.0276825,-0.086984,0.00088842,0,0,0,0,0,0,0,-1.86902,-35.8434,-1.23686,28.6728,0.141598,3.67669,-0.110672,
0.238451,0.0279855,0.21696,-2.0634,0.0811355,0.57354,0.111628,0.0434633,0.0132638,0.0404233,-0.00147946,0.0467091,-0.112087,-0.00117279,-0.654931,-0.455424,-0.65711,0.073115,5.59103,-1.78735,0.0167876,2.58638,1.04149,2.29377,0.253706,0.40773,-1.04296,-0.00594236,0.237961,0.029335,0.217608,-2.06355,0.0776585,0.576473,0.111721,0.00638522,0.0993904,0.189423,0.00400586,0.00143429,-0.138503,-0.000769588,-10.3859,13.0376,5.7344,7.94766,3.6396,-6.43986,-0.207251,-1.41278,-36.0417,-1.18529,28.8474,0.361325,3.29857,-0.083206,
0.239142,0.0302385,0.218741,-2.06384,0.0784919,0.574321,0.111681,0.0483317,0.0201812,0.0451212,-0.00490335,0.0490812,-0.117197,-0.00132867,3.04278,4.32338,2.93615,-2.13993,1.48254,-3.19411,-0.097424,2.88808,1.17086,2.58823,0.210208,0.244064,-1.0279,-0.006386,0.237961,0.029335,0.217608,-2.06355,0.0776585,0.576473,0.111721,0.00638522,0.0993904,0.189423,0.00400586,0.00143429,-0.138503,-0.000769588,0,0,0,0,0,0,0,-1.41278,-36.0417,-1.18529,28.8474,0.361325,3.29857,-0.083206,
0.239605,0.0305363,0.219175,-2.06396,0.0790059,0.573192,0.111669,0.0502501,0.0235901,0.0469393,-0.00706897,0.0521138,-0.121994,-0.00135692,1.19897,2.13056,1.13636,-1.35351,1.89543,-2.99796,-0.0176574,2.73792,1.10438,2.44179,0.23209,0.321617,-1.03486,-0.00615705,0.237961,0.029335,0.217608,-2.06355,0.0776585,0.576473,0.111721,0.00638522,0.0993904,0.189423,0.00400586,0.00143429,-0.138503,-0.000769588,0,0,0,0,0,0,0,-1.41278,-36.0417,-1.18529,28.8474,0.361325,3.29857,-0.083206,
0.240006,0.030776,0.219547,-2.06406,0.0795545,0.572062,0.111659,0.0502166,0.0248655,0.0468546,-0.00816833,0.0554063,-0.125825,-0.00133412,-0.0209018,0.797108,-0.0529759,-0.687101,2.05779,-2.39435,0.014252,2.58638,1.04149,2.29377,0.253706,0.40773,-1.04296,-0.00594236,0.237961,0.029335,0.217608,-2.06355,0.0776585,0.576473,0.111721,0.00638522,0.0993904,0.189423,0.00400586,0.00143429,-0.138503,-0.000769588,0,0,0,0,0,0,0,-1.41278,-36.0417,-1.18529,28.8474,0.361325,3.29857,-0.083206,
0.2386,0.0298557,0.21823,-2.06369,0.0780234,0.575422,0.111696,0.0561283,0.0329093,0.0530183,-0.0100555,0.053447,-0.126918,-0.0016957,3.69482,5.0274,3.85235,-1.17946,-1.22456,-0.683462,-0.225991,2.88821,1.1384,2.57223,0.247186,0.239807,-1.00231,-0.00655089,0.240588,0.0310191,0.221088,-2.06375,0.0783041,0.571861,0.111729,0.0240493,0.0227426,0.135981,-0.0188817,0.0374486,-0.11055,0.000889528,2.20801,-9.58098,-6.68025,-2.86094,4.50179,3.49405,0.207389,-0.29797,-35.8949,-0.713182,25.8322,0.740353,2.39037,-0.117081,
0.239142,0.0302385,0.218741,-2.06384,0.0784919,0.574321,0.111681,0.0584638,0.0358977,0.0551972,-0.0117641,0.0544715,-0.129063,-0.001747,1.45965,1.86769,1.36177,-1.06793,0.640303,-1.34013,-0.03206,2.73805,1.07192,2.42578,0.269068,0.31736,-1.00927,-0.00632194,0.240588,0.0310191,0.221088,-2.06375,0.0783041,0.571861,0.111729,0.0240493,0.0227426,0.135981,-0.0188817,0.0374486,-0.11055,0.000889528,0,0,0,0,0,0,0,-0.29797,-35.8949,-0.713182,25.8322,0.740353,2.39037,-0.117081,
