xiao-wang007/linearmpc_panda/paper_data/panda_torque_PD_controller_opt_time_to_start_torque_rate_limiter/2/trajectory.csv
Commanded Joint 0 Position,Commanded Joint 1 Position,Commanded Joint 2 Position,Commanded Joint 3 Position,Commanded Joint 4 Position,Commanded Joint 5 Position,Commanded Joint 6 Position,Commanded Joint 0 Velocity,Commanded Joint 1 Velocity,Commanded Joint 2 Velocity,Commanded Joint 3 Velocity,Commanded Joint 4 Velocity,Commanded Joint 5 Velocity,Commanded Joint 6 Velocity,Commanded Joint 0 Acceleration,Commanded Joint 1 Acceleration,Commanded Joint 2 Acceleration,Commanded Joint 3 Acceleration,Commanded Joint 4 Acceleration,Commanded Joint 5 Acceleration,Commanded Joint 6 Acceleration,Commanded Joint 0 Torque,Commanded Joint 1 Torque,Commanded Joint 2 Torque,Commanded Joint 3 Torque,Commanded Joint 4 Torque,Commanded Joint 5 Torque,Commanded Joint 6 Torque,Actual Joint 0 Position,Actual Joint 1 Position,Actual Joint 2 Position,Actual Joint 3 Position,Actual Joint 4 Position,Actual Joint 5 Position,Actual Joint 6 Position,Actual Joint 0 Velocity,Actual Joint 1 Velocity,Actual Joint 2 Velocity,Actual Joint 3 Velocity,Actual Joint 4 Velocity,Actual Joint 5 Velocity,Actual Joint 6 Velocity,Actual Joint 0 Acceleration,Actual Joint 1 Acceleration,Actual Joint 2 Acceleration,Actual Joint 3 Acceleration,Actual Joint 4 Acceleration,Actual Joint 5 Acceleration,Actual Joint 6 Acceleration,Actual Joint 0 Torque,Actual Joint 1 Torque,Actual Joint 2 Torque,Actual Joint 3 Torque,Actual Joint 4 Torque,Actual Joint 5 Torque,Actual Joint 6 Torque,
0.129163,0.0565766,-0.0896317,-1.71682,0.0116288,0.25452,0.0328822,0.000116175,0.0237641,0.000214017,-0.0320666,-0.00415038,0.0532551,-0.000378204,0.0726092,14.8526,0.133761,-20.0417,-2.59399,33.2844,-0.236377,0.0570511,26.3814,0.149121,-24.4385,-0.650107,1.83412,-0.0241183,0.129159,0.0549974,-0.0896365,-1.71391,0.011912,0.248884,0.0329322,0.00289916,-0.00112328,0.000135752,3.39931e-05,-0.00450573,-0.000433839,-0.000300736,0,0,0,0,0,0,0,-0.0440639,-37.2676,-0.260912,27.2763,0.825497,3.05962,-0.0429228,
0.129178,0.0549852,-0.0896183,-1.71391,0.0118914,0.248885,0.0329312,0.00020598,0.018943,0.000278953,-0.0256141,-0.00331518,0.0426511,-0.000307205,0.0561282,-3.01317,0.0405849,4.03285,0.522,-6.62748,0.0443743,0.0513108,26.8218,0.138808,-24.3549,-0.650208,1.58352,-0.0225996,0.129159,0.0549974,-0.0896365,-1.71391,0.011912,0.248884,0.0329322,0.00289916,-0.00112328,0.000135752,3.39931e-05,-0.00450573,-0.000433839,-0.000300736,0,0,0,0,0,0,0,-0.0440639,-37.2676,-0.260912,27.2763,0.825497,3.05962,-0.0429228,
0.129182,0.0549832,-0.089615,-1.71391,0.0118939,0.248888,0.0329311,0.000249959,0.0151056,0.000304991,-0.0204578,-0.00258919,0.0341856,-0.000248698,0.0274867,-2.39836,0.0162733,3.22267,0.45374,-5.29098,0.0365668,0.0440935,27.3933,0.127083,-24.2469,-0.649452,1.23626,-0.0206296,0.129159,0.0549974,-0.0896365,-1.71391,0.011912,0.248884,0.0329322,0.00289916,-0.00112328,0.000135752,3.39931e-05,-0.00450573,-0.000433839,-0.000300736,0,0,0,0,0,0,0,-0.0440639,-37.2676,-0.260912,27.2763,0.825497,3.05962,-0.0429228,
0.129184,0.0549818,-0.0896125,-1.71391,0.0118972,0.248891,0.032931,0.00026566,0.0120496,0.000307528,-0.0163379,-0.001988,0.0274213,-0.000200911,0.00981317,-1.91004,0.00158595,2.57495,0.375744,-4.22768,0.0298668,0.0381369,27.918,0.117723,-24.0787,-0.647137,0.852101,-0.0186308,0.129154,0.0550392,-0.0896367,-1.71404,0.011913,0.248887,0.0329334,0.000505575,7.14803e-05,0.00152253,-0.00537915,-0.00483583,0.000469821,-2.56218e-05,-0.299198,0.149345,0.173347,-0.676643,-0.0412624,0.112958,0.0343893,0.00751081,-37.0415,-0.260912,27.1771,0.813595,3.07244,-0.050247,
0.128905,0.0550695,-0.0898956,-1.71388,0.0199849,0.244008,0.0328991,-0.000776663,0.00949931,-0.000706109,-0.0127659,0.0493025,-0.00961826,-0.00020642,-0.651452,-1.59392,-0.633523,2.23252,32.0566,-23.1497,-0.00344303,0.471092,0.162532,0.474289,-0.273847,2.99992,-1.94179,-0.00193486,0.129154,0.0550392,-0.0896367,-1.71404,0.011913,0.248887,0.0329334,0.000505575,7.14803e-05,0.00152253,-0.00537915,-0.00483583,0.000469821,-2.56218e-05,0,0,0,0,0,0,0,0.00751081,-37.0415,-0.260912,27.1771,0.813595,3.07244,-0.050247,
0.128878,0.0550635,-0.0899218,-1.71388,0.0220775,0.242691,0.0328978,-0.00131491,0.00744887,-0.00121869,-0.0100897,0.0917572,-0.0406177,-0.000196378,-0.336406,-1.28152,-0.320363,1.67258,26.5342,-19.3746,0.00627591,0.465198,0.161707,0.468461,-0.271018,2.97417,-1.92414,-0.0019151,0.129154,0.0550392,-0.0896367,-1.71404,0.011913,0.248887,0.0329334,0.000505575,7.14803e-05,0.00152253,-0.00537915,-0.00483583,0.000469821,-2.56218e-05,0,0,0,0,0,0,0,0.00751081,-37.0415,-0.260912,27.1771,0.813595,3.07244,-0.050247,
0.128861,0.0550584,-0.089937,-1.71388,0.0241995,0.241341,0.0328968,-0.00147012,0.00583143,-0.00135555,-0.00809076,0.126457,-0.066254,-0.000181564,-0.097007,-1.0109,-0.0855401,1.24935,21.6871,-16.0227,0.00925877,0.459428,0.160782,0.462734,-0.268231,2.94831,-1.90653,-0.00189607,0.129154,0.0550392,-0.0896367,-1.71404,0.011913,0.248887,0.0329334,0.000505575,7.14803e-05,0.00152253,-0.00537915,-0.00483583,0.000469821,-2.56218e-05,0,0,0,0,0,0,0,0.00751081,-37.0415,-0.260912,27.1771,0.813595,3.07244,-0.050247,
0.128854,0.0550549,-0.0899427,-1.71389,0.0263338,0.239972,0.032896,-0.00135135,0.00457742,-0.0012264,-0.00660201,0.154522,-0.0872293,-0.000166964,0.0742361,-0.78376,0.0807204,0.930472,17.5408,-13.1095,0.00912542,0.453201,0.176558,0.456935,-0.269891,2.92256,-1.89153,-0.00185261,0.129156,0.0552337,-0.0896417,-1.71468,0.0119062,0.250679,0.0329321,0.0018289,0.02658,0.00184024,-0.0661895,-0.00526338,0.1651,-0.0015554,0.165415,3.31356,0.039714,-7.6013,-0.0534448,20.5787,-0.191222,0.0313145,-31.1263,-0.185533,21.496,0.54443,2.8875,-0.0429228,
0.128664,0.0560698,-0.090176,-1.71406,0.0392313,0.22677,0.0328246,-0.00170273,0.00515109,-0.00172779,-0.00447624,0.292929,-0.230682,-0.000188469,-0.219616,0.358545,-0.313367,1.32861,86.5043,-89.6582,-0.0134409,3.7114,1.588,3.66758,-1.78872,10.6432,-10.2615,-0.00499033,0.129156,0.0552337,-0.0896417,-1.71468,0.0119062,0.250679,0.0329321,0.0018289,0.02658,0.00184024,-0.0661895,-0.00526338,0.1651,-0.0015554,0,0,0,0,0,0,0,0.0313145,-31.1263,-0.185533,21.496,0.54443,2.8875,-0.0429228,
0.128686,0.0561193,-0.090155,-1.71407,0.0461223,0.220055,0.0328222,-0.000820986,0.00535911,-0.000855603,-0.00388022,0.406618,-0.35242,-0.000211123,0.551091,0.13001,0.545116,0.372515,71.0557,-76.0859,-0.0141589,3.60082,1.55415,3.56022,-1.76451,10.4002,-10.0927,-0.00544653,0.129156,0.0552337,-0.0896417,-1.71468,0.0119062,0.250679,0.0329321,0.0018289,0.02658,0.00184024,-0.0661895,-0.00526338,0.1651,-0.0015554,0,0,0,0,0,0,0,0.0313145,-31.1263,-0.185533,21.496,0.54443,2.8875,-0.0429228,
0.128751,0.0561692,-0.0900896,-1.71412,0.0530258,0.213187,0.0328205,0.000974585,0.00553488,0.000949279,-0.00424621,0.497882,-0.453644,-0.000210703,1.12223,0.109857,1.12805,-0.228744,57.0399,-63.2652,0.00026295,3.50042,1.5141,3.46768,-1.74309,10.1547,-9.92704,-0.00603083,0.129156,0.0552337,-0.0896417,-1.71468,0.0119062,0.250679,0.0329321,0.0018289,0.02658,0.00184024,-0.0661895,-0.00526338,0.1651,-0.0015554,0,0,0,0,0,0,0,0.0313145,-31.1263,-0.185533,21.496,0.54443,2.8875,-0.0429228,
0.128854,0.056225,-0.0899864,-1.71419,0.059875,0.206252,0.0328191,0.00336465,0.00582119,0.00334017,-0.00517849,0.569536,-0.536271,-0.000204377,1.49379,0.178945,1.49431,-0.582675,44.7842,-51.6419,0.00395336,3.40751,1.5464,3.39956,-1.74512,9.87655,-9.74358,-0.00671414,0.129121,0.0561172,-0.0896859,-1.72,0.0142151,0.25362,0.0329305,-0.00353302,0.00146673,-0.00764945,-0.183715,0.273442,-0.0740019,0.000110429,-0.670239,-3.13916,-1.18621,-14.6906,34.8382,-29.8877,0.208228,0.539127,-31.6777,0.413527,25.4315,2.02301,2.10473,-0.0630644,
0.131527,0.0558887,-0.0874884,-1.7226,0.043494,0.214648,0.03323,0.0199233,-0.000709946,0.0187986,-0.0196034,0.637553,-0.674551,1.04806e-05,10.3492,-4.08196,9.66153,-9.01558,42.5107,-86.4246,0.134286,20.3215,1.79655,19.1173,-7.81389,10.9603,-14.3461,0.157225,0.129121,0.0561172,-0.0896859,-1.72,0.0142151,0.25362,0.0329305,-0.00353302,0.00146673,-0.00764945,-0.183715,0.273442,-0.0740019,0.000110429,0,0,0,0,0,0,0,0.539127,-31.6777,0.413527,25.4315,2.02301,2.10473,-0.0630644,
0.132277,0.055663,-0.0867815,-1.72324,0.0511069,0.204401,0.0332365,0.0346903,-0.00620956,0.0327099,-0.0318139,0.700366,-0.795818,0.000171645,9.22934,-3.43726,8.69458,-7.63154,39.2576,-75.7924,0.100728,18.201,-3.18279,17.7939,-10.914,10.9603,-14.3461,0.171867,0.129121,0.0561172,-0.0896859,-1.72,0.0142151,0.25362,0.0329305,-0.00353302,0.00146673,-0.00764945,-0.183715,0.273442,-0.0740019,0.000110429,0,0,0,0,0,0,0,0.539127,-31.6777,0.413527,25.4315,2.02301,2.10473,-0.0630644,
0.133074,0.0554363,-0.0860277,-1.72391,0.0589616,0.193868,0.0332439,0.0476577,-0.0106364,0.0450135,-0.0421063,0.756658,-0.899989,0.000321185,8.10467,-2.76678,7.68973,-6.43278,35.1831,-65.1065,0.0934628,15.931,-2.91531,15.2315,-10.6714,10.9603,-14.3461,0.0370024,0.129121,0.0561172,-0.0896859,-1.72,0.0142151,0.25362,0.0329305,-0.00353302,0.00146673,-0.00764945,-0.183715,0.273442,-0.0740019,0.000110429,0,0,0,0,0,0,0,0.539127,-31.6777,0.413527,25.4315,2.02301,2.10473,-0.0630644,
0.133903,0.0552138,-0.0852396,-1.72459,0.0669917,0.183143,0.0332525,0.0588692,-0.0140711,0.0557118,-0.0507001,0.80608,-0.98812,0.000472508,7.00718,-2.14671,6.6864,-5.37112,30.8884,-55.0822,0.0945763,14.7516,-2.13834,14.0506,-10.3714,10.8205,-14.3095,0.0136651,0.129103,0.0576296,-0.0897124,-1.72287,0.0273718,0.240616,0.0329252,0.00171597,0.089765,-0.00525717,0.0308736,0.7798,-0.872315,-0.00228189,0.656124,11.0373,0.299035,26.8235,63.2947,-99.7891,-0.29904,4.08985,-41.9093,3.78572,27.1255,3.50067,-1.71394,0.0239107,
0.13254,0.0584329,-0.0862842,-1.72675,0.0625609,0.194609,0.0330379,0.070983,-0.0080431,0.0680481,-0.0633851,0.835095,-1.04698,0.000749511,7.57108,3.76753,7.71019,-7.92811,18.1347,-36.7887,0.173127,20.5758,3.81585,20.252,-14.6762,10.8205,-14.3095,0.0261672,0.129103,0.0576296,-0.0897124,-1.72287,0.0273718,0.240616,0.0329252,0.00171597,0.089765,-0.00525717,0.0308736,0.7798,-0.872315,-0.00228189,0,0,0,0,0,0,0,4.08985,-41.9093,3.78572,27.1255,3.50067,-1.71394,0.0239107,
0.133558,0.0585727,-0.0852861,-1.72769,0.0703845,0.184105,0.0330529,0.082233,-0.00293848,0.0793911,-0.0741656,0.863668,-1.10018,0.000974844,7.03128,3.19039,7.08943,-6.73785,17.8579,-33.2481,0.140833,19.5252,3.70506,19.1859,-14.3151,10.8205,-14.3095,0.0170464,0.129103,0.0576296,-0.0897124,-1.72287,0.0273718,0.240616,0.0329252,0.00171597,0.089765,-0.00525717,0.0308736,0.7798,-0.872315,-0.00228189,0,0,0,0,0,0,0,4.08985,-41.9093,3.78572,27.1255,3.50067,-1.71394,0.0239107,
0.134617,0.0587227,-0.0842494,-1.72865,0.0783812,0.173434,0.0330686,0.0922552,0.00139777,0.08943,-0.0832444,0.890851,-1.14691,0.00117422,6.26387,2.71016,6.27429,-5.67424,16.9892,-29.2042,0.124609,18.6133,3.50145,18.2694,-14.0206,10.8205,-14.3095,0.0126568,0.129103,0.0576296,-0.0897124,-1.72287,0.0273718,0.240616,0.0329252,0.00171597,0.089765,-0.00525717,0.0308736,0.7798,-0.872315,-0.00228189,0,0,0,0,0,0,0,4.08985,-41.9093,3.78572,27.1255,3.50067,-1.71394,0.0239107,
0.135702,0.058875,-0.0831875,-1.72968,0.0865198,0.163063,0.0330858,0.100936,0.0049272,0.0980926,-0.0923226,0.916145,-1.17682,0.0013672,5.42527,2.20589,5.4141,-5.67385,15.8088,-18.6965,0.120612,17.8023,3.27381,17.461,-13.7525,10.8205,-14.3095,0.0110214,0.129103,0.0576296,-0.0897124,-1.72287,0.0273718,0.240616,0.0329252,0.00171597,0.089765,-0.00525717,0.0308736,0.7798,-0.872315,-0.00228189,0,0,0,0,0,0,0,4.08985,-41.9093,3.78572,27.1255,3.50067,-1.71394,0.0239107,
0.133917,0.0578279,-0.0850831,-1.72971,0.103734,0.141746,0.0330599,0.111694,0.000917234,0.10829,-0.111376,0.929049,-1.21493,0.00117432,6.72368,-2.50623,6.3734,-11.9081,8.06515,-23.8162,-0.120552,23.2105,2.26018,22.4108,-21.3521,10.5755,-14.1172,0.0113917,0.128973,0.059063,-0.0898734,-1.7226,0.0652319,0.197414,0.0329746,0.0254807,-0.0256745,0.0305415,-0.0509272,1.04658,-1.59719,0.000416037,2.9706,-14.4299,4.47483,-10.2251,33.3481,-90.609,0.337241,11.1397,-39.6123,10.5103,18.457,2.34069,-4.09431,0.0101778,
0.135204,0.0577283,-0.083844,-1.73128,0.111716,0.131278,0.0330644,0.121512,-0.00175626,0.11761,-0.128409,0.942792,-1.23364,0.00105231,6.13649,-1.67093,5.8253,-10.6461,8.58932,-11.6963,-0.0762524,21.8988,1.83995,21.15,-20.9779,10.5755,-14.1172,0.00253149,0.128973,0.059063,-0.0898734,-1.7226,0.0652319,0.197414,0.0329746,0.0254807,-0.0256745,0.0305415,-0.0509272,1.04658,-1.59719,0.000416037,0,0,0,0,0,0,0,11.1397,-39.6123,10.5103,18.457,2.34069,-4.09431,0.0101778,
0.136521,0.0576479,-0.082575,-1.73292,0.119814,0.12157,0.0330728,0.13014,-0.00341605,0.125814,-0.143787,0.956681,-1.22962,0.00105003,5.39269,-1.03737,5.12693,-9.61096,8.68063,2.51115,-0.00142456,20.7664,1.41629,20.0575,-20.6327,10.5755,-14.1172,-0.000962743,0.128973,0.059063,-0.0898734,-1.7226,0.0652319,0.197414,0.0329746,0.0254807,-0.0256745,0.0305415,-0.0509272,1.04658,-1.59719,0.000416037,0,0,0,0,0,0,0,11.1397,-39.6123,10.5103,18.457,2.34069,-4.09431,0.0101778,
0.133867,0.0578343,-0.0850367,-1.7317,0.103982,0.148412,0.0330623,0.135076,-0.00445582,0.130967,-0.166992,0.9626,-1.18048,0.0011278,3.0846,-0.649861,3.22114,-14.5034,3.69978,30.7146,0.0486055,22.8778,4.02754,22.3457,-25.9293,10.5755,-14.1172,0.00258705,0.128973,0.059063,-0.0898734,-1.7226,0.0652319,0.197414,0.0329746,0.0254807,-0.0256745,0.0305415,-0.0509272,1.04658,-1.59719,0.000416037,0,0,0,0,0,0,0,11.1397,-39.6123,10.5103,18.457,2.34069,-4.09431,0.0101778,
0.135159,0.0578314,-0.0837733,-1.73382,0.111993,0.141639,0.0330758,0.140352,-0.0036384,0.136358,-0.186563,0.970357,-1.11369,0.00123828,3.29755,0.510887,3.36918,-12.2318,4.84753,41.744,0.0690498,21.7826,3.55479,21.2679,-25.5788,10.5041,-13.1984,-0.00304093,0.13205,0.0586688,-0.0865959,-1.72799,0.105314,0.138097,0.0329729,0.09901,0.000268055,0.140327,-0.190078,1.10004,-1.84175,-0.00390486,9.19116,3.24282,13.7231,-17.3938,6.68151,-30.5699,-0.540112,17.0232,-31.7769,15.8859,20.8017,4.25781,-2.62306,0.0577852,
0.136483,0.0578802,-0.0824786,-1.73595,0.120107,0.135929,0.0330947,0.145391,-0.00168955,0.141453,-0.202552,0.979125,-1.03371,0.00146423,3.14989,1.21804,3.18452,-9.99286,5.48009,49.9873,0.141219,20.6965,2.93572,20.2061,-25.2727,10.5041,-10.9094,-0.000788089,0.13205,0.0586688,-0.0865959,-1.72799,0.105314,0.138097,0.0329729,0.09901,0.000268055,0.140327,-0.190078,1.10004,-1.84175,-0.00390486,0,0,0,0,0,0,0,17.0232,-31.7769,15.8859,20.8017,4.25781,-2.62306,0.0577852,
0.137825,0.0579686,-0.0811677,-1.73808,0.128303,0.131218,0.0331179,0.149852,0.000857058,0.145936,-0.215172,0.988204,-0.944739,0.00175171,2.78777,1.59163,2.80176,-7.88786,5.67469,55.6065,0.179672,19.7598,2.40829,19.2912,-24.9918,10.5041,-8.89939,0.00142617,0.13205,0.0586688,-0.0865959,-1.72799,0.105314,0.138097,0.0329729,0.09901,0.000268055,0.140327,-0.190078,1.10004,-1.84175,-0.00390486,0,0,0,0,0,0,0,17.0232,-31.7769,15.8859,20.8017,4.25781,-2.62306,0.0577852,
0.139001,0.0584238,-0.0798447,-1.74082,0.146447,0.0896622,0.0330709,0.157532,0.00192731,0.153199,-0.23876,0.995693,-0.932138,0.00185989,4.79988,0.668905,4.53942,-14.7421,4.68065,7.87513,0.0676138,22.851,3.44772,22.0979,-31.0717,10.5041,-12.4731,0.0134553,0.13205,0.0586688,-0.0865959,-1.72799,0.105314,0.138097,0.0329729,0.09901,0.000268055,0.140327,-0.190078,1.10004,-1.84175,-0.00390486,0,0,0,0,0,0,0,17.0232,-31.7769,15.8859,20.8017,4.25781,-2.62306,0.0577852,
0.140514,0.0584978,-0.0783799,-1.74347,0.15469,0.0837149,0.0330938,0.163861,0.00339252,0.159179,-0.257078,1.00264,-0.894394,0.00205918,3.95593,0.915756,3.73737,-11.4486,4.3421,23.5902,0.124557,21.9806,2.54401,21.2449,-30.6975,10.5153,-9.88226,0.00590992,0.138519,0.056774,-0.0800911,-1.73809,0.148513,0.0724069,0.0329854,0.212221,-0.0319654,0.293265,-0.33766,1.25879,-1.96524,-0.00124394,14.1514,-4.02919,19.1173,-18.4479,19.8443,-15.4365,0.332615,12.56,-29.1545,12.0377,21.7221,4.17816,-0.328745,-0.0429228,
0.142022,0.0585862,-0.0769212,-1.74607,0.162967,0.0787673,0.0331211,0.168791,0.00492335,0.163811,-0.270821,1.00904,-0.839204,0.00233065,3.08137,0.95677,2.89494,-8.58963,3.99891,34.4935,0.169667,20.9795,1.7702,20.2772,-30.4593,10.5153,-8.08755,0.00968376,0.138519,0.056774,-0.0800911,-1.73809,0.148513,0.0724069,0.0329854,0.212221,-0.0319654,0.293265,-0.33766,1.25879,-1.96524,-0.00124394,0,0,0,0,0,0,0,12.56,-29.1545,12.0377,21.7221,4.17816,-0.328745,-0.0429228,
0.143516,0.0586825,-0.0754779,-1.74863,0.17127,0.0747151,0.0331527,0.172379,0.00634462,0.16713,-0.280646,1.01479,-0.77267,0.00265311,2.24249,0.888298,2.07474,-6.14093,3.59403,41.584,0.201541,20.1128,1.22537,19.4398,-30.1756,10.5153,-6.52656,0.0131551,0.138519,0.056774,-0.0800911,-1.73809,0.148513,0.0724069,0.0329854,0.212221,-0.0319654,0.293265,-0.33766,1.25879,-1.96524,-0.00124394,0,0,0,0,0,0,0,12.56,-29.1545,12.0377,21.7221,4.17816,-0.328745,-0.0429228,
0.148181,0.0563211,-0.0706599,-1.75471,0.194669,0.0414887,0.0330495,0.183228,0.00627925,0.177859,-0.303403,1.03316,-0.678073,0.00262872,6.78043,-0.040857,6.70509,-14.2229,11.4816,59.1231,-0.0152445,20.9187,0.243174,20.3414,-35.8415,10.5153,-2.74578,0.00372657,0.138519,0.056774,-0.0800911,-1.73809,0.148513,0.0724069,0.0329854,0.212221,-0.0319654,0.293265,-0.33766,1.25879,-1.96524,-0.00124394,0,0,0,0,0,0,0,12.56,-29.1545,12.0377,21.7221,4.17816,-0.328745,-0.0429228,
0.149928,0.0563848,-0.068959,-1.75777,0.203409,0.0402676,0.0330797,0.190239,0.00661547,0.18481,-0.319116,1.04502,-0.572987,0.00285732,4.38198,0.210137,4.34459,-9.82054,7.41365,65.6788,0.142874,20.2833,-0.69402,19.7074,-34.7808,10.4685,-0.861802,0.00177428,0.149201,0.0556253,-0.0701218,-1.75597,0.191754,0.0151614,0.0329947,0.322001,-0.0158863,0.347539,-0.621775,1.29701,-1.37801,-0.000568629,13.7225,2.00988,6.7843,-35.5143,4.77753,73.4035,0.0844141,6.37104,-28.857,6.08674,21.5991,2.79205,2.73461,-0.0301054,
0.151607,0.0564523,-0.0673232,-1.76073,0.212057,0.0400044,0.0331182,0.194185,0.00697984,0.188744,-0.329353,1.05222,-0.464968,0.00324787,2.4659,0.227727,2.45866,-6.39803,4.50045,67.5119,0.244092,19.5094,-0.917735,18.9663,-34.3965,10.4685,0.268819,0.00949195,0.149201,0.0556253,-0.0701218,-1.75597,0.191754,0.0151614,0.0329947,0.322001,-0.0158863,0.347539,-0.621775,1.29701,-1.37801,-0.000568629,0,0,0,0,0,0,0,6.37104,-28.857,6.08674,21.5991,2.79205,2.73461,-0.0301054,
0.160163,0.0569671,-0.059455,-1.77599,0.239127,0.00764133,0.0330889,0.202886,0.0127456,0.197193,-0.352064,1.06661,-0.317109,0.00355298,5.43824,3.60361,5.28103,-14.1946,8.99184,92.4115,0.190697,17.9186,-1.19516,17.392,-39.1412,10.4685,6.38302,-0.00343124,0.149201,0.0556253,-0.0701218,-1.75597,0.191754,0.0151614,0.0329947,0.322001,-0.0158863,0.347539,-0.621775,1.29701,-1.37801,-0.000568629,0,0,0,0,0,0,0,6.37104,-28.857,6.08674,21.5991,2.79205,2.73461,-0.0301054,
0.161946,0.0572222,-0.0577226,-1.77936,0.247954,0.0107634,0.0331333,0.206893,0.0165728,0.201064,-0.366118,1.07398,-0.175635,0.00395453,2.50463,2.39196,2.41926,-8.78349,4.60369,88.4214,0.250969,17.5792,-1.19423,17.0783,-38.6926,10.4685,6.82779,0.0173125,0.149201,0.0556253,-0.0701218,-1.75597,0.191754,0.0151614,0.0329947,0.322001,-0.0158863,0.347539,-0.621775,1.29701,-1.37801,-0.000568629,0,0,0,0,0,0,0,6.37104,-28.857,6.08674,21.5991,2.79205,2.73461,-0.0301054,
0.163623,0.0574457,-0.0560915,-1.7826,0.256621,0.0145496,0.0331836,0.207426,0.0188468,0.20163,-0.373767,1.07585,-0.0458541,0.00441986,0.3332,1.42128,0.353291,-4.78103,1.16973,81.1131,0.290831,17.3437,-1.26829,16.8307,-37.6062,10.3811,7.67498,0.0301009,0.162501,0.0562576,-0.0566248,-1.78068,0.240394,-0.0310685,0.0330058,0.375569,0.00167261,0.467991,-0.814584,1.38665,-0.995648,-0.00240431,6.69602,2.19487,15.0565,-24.1011,11.2055,47.7954,-0.22946,1.93164,-36.4186,1.58784,25.7806,2.87811,4.3322,0.0303194,
0.165209,0.0576395,-0.0545454,-1.7857,0.265025,0.0187969,0.0332356,0.205601,0.0199215,0.199956,-0.376621,1.07078,0.0694992,0.00483538,-1.14089,0.671713,-1.04596,-1.78324,-3.16628,72.0958,0.259702,16.8941,-1.05661,16.4063,-37.1132,10.3811,7.87146,0.0421832,0.162501,0.0562576,-0.0566248,-1.78068,0.240394,-0.0310685,0.0330058,0.375569,0.00167261,0.467991,-0.814584,1.38665,-0.995648,-0.00240431,0,0,0,0,0,0,0,1.93164,-36.4186,1.58784,25.7806,2.87811,4.3322,0.0303194,
0.174893,0.0585852,-0.044563,-1.80274,0.288674,-0.0242598,0.0331611,0.215206,0.0252981,0.209293,-0.394574,1.06715,0.184718,0.00490703,6.00296,3.36035,5.83543,-11.221,-2.26835,72.0118,0.0447817,15.3016,-3.4193,14.869,-40.6425,10.3811,11.8647,0.0266073,0.162501,0.0562576,-0.0566248,-1.78068,0.240394,-0.0310685,0.0330058,0.375569,0.00167261,0.467991,-0.814584,1.38665,-0.995648,-0.00240431,0,0,0,0,0,0,0,1.93164,-36.4186,1.58784,25.7806,2.87811,4.3322,0.0303194,
0.176787,0.0588869,-0.0427209,-1.80624,0.296006,-0.0181295,0.0332021,0.219527,0.0277803,0.213487,-0.40322,1.03701,0.301032,0.00495114,2.70097,1.55135,2.62151,-5.40383,-18.8365,72.6965,0.0275657,15.1001,-2.8527,14.6919,-40.0722,10.3811,11.8647,0.0459951,0.162501,0.0562576,-0.0566248,-1.78068,0.240394,-0.0310685,0.0330058,0.375569,0.00167261,0.467991,-0.814584,1.38665,-0.995648,-0.00240431,0,0,0,0,0,0,0,1.93164,-36.4186,1.58784,25.7806,2.87811,4.3322,0.0303194,
0.178568,0.0591263,-0.0409905,-1.80954,0.302222,-0.0113868,0.0332412,0.220127,0.0282103,0.21405,-0.405105,0.985007,0.409394,0.00493686,0.375102,0.268788,0.352095,-1.17781,-32.504,67.7263,-0.00892391,14.7936,-3.05846,14.3689,-38.7216,10.1322,12.1577,0.0533708,0.177162,0.0563344,-0.0419681,-1.81133,0.290083,-0.0457624,0.033027,0.388656,-0.0571239,0.492042,-0.986852,1.57364,0.083397,-0.000360929,1.63589,-7.34956,3.00641,-21.5335,23.3737,134.881,0.255422,-0.325741,-33.3995,-0.185533,27.0541,1.59546,5.62584,0.0101778,
0.180249,0.0593127,-0.0393566,-1.81267,0.307352,-0.00431212,0.0332814,0.218137,0.0272277,0.212088,-0.402292,0.916279,0.504382,0.00495525,-1.24405,-0.614166,-1.2266,1.75771,-42.9545,59.3669,0.0114898,14.3805,-2.45482,13.9633,-38.1373,9.68403,12.1577,0.0578892,0.177162,0.0563344,-0.0419681,-1.81133,0.290083,-0.0457624,0.033027,0.388656,-0.0571239,0.492042,-0.986852,1.57364,0.083397,-0.000360929,0,0,0,0,0,0,0,-0.325741,-33.3995,-0.185533,27.0541,1.59546,5.62584,0.0101778,
0.189633,0.0577035,-0.0298166,-1.83291,0.324335,-0.0252288,0.0331046,0.224456,0.0247784,0.218325,-0.412274,0.823882,0.562768,0.00471575,3.94913,-1.53078,3.89817,-6.23829,-57.7482,36.4916,-0.149684,10.6411,-6.82625,10.2511,-42.5359,6.42822,12.1577,0.0175402,0.177162,0.0563344,-0.0419681,-1.81133,0.290083,-0.0457624,0.033027,0.388656,-0.0571239,0.492042,-0.986852,1.57364,0.083397,-0.000360929,0,0,0,0,0,0,0,-0.325741,-33.3995,-0.185533,27.0541,1.59546,5.62584,0.0101778,
0.191467,0.0577617,-0.0280301,-1.83635,0.326731,-0.0182063,0.0331435,0.225411,0.021279,0.219321,-0.415817,0.71901,0.625776,0.00474592,0.596829,-2.18716,0.622609,-2.21475,-65.5451,39.3801,0.0188568,10.8775,-5.50743,10.466,-41.7147,4.30698,12.1577,0.0274571,0.177162,0.0563344,-0.0419681,-1.81133,0.290083,-0.0457624,0.033027,0.388656,-0.0571239,0.492042,-0.986852,1.57364,0.083397,-0.000360929,0,0,0,0,0,0,0,-0.325741,-33.3995,-0.185533,27.0541,1.59546,5.62584,0.0101778,
0.193165,0.0577764,-0.0263758,-1.83965,0.328081,-0.0106892,0.0331896,0.222784,0.0173912,0.216815,-0.415107,0.608974,0.688548,0.00494871,-1.64141,-2.42987,-1.5662,0.44373,-68.7727,39.2322,0.126744,11.0947,-4.70929,10.647,-40.5542,2.43248,12.2495,0.0285254,0.193344,0.0570389,-0.0270798,-1.84278,0.340706,-0.0270511,0.0330634,0.48866,-0.0400615,0.443478,-0.967511,1.49939,1.00117,-0.00194198,12.5005,2.13279,-6.07058,2.41767,-9.2823,114.722,-0.197631,-3.69793,-34.2485,-3.161,23.0432,1.47918,5.32097,0.0706026,
0.194751,0.0577618,-0.0248304,-1.84283,0.328558,-0.00279699,0.0332435,0.217888,0.0135469,0.212087,-0.411668,0.499091,0.748144,0.0053063,-3.05994,-2.40264,-2.95494,2.14982,-68.6767,37.2476,0.223495,11.3736,-3.72653,10.9352,-39.7708,1.07052,12.2495,0.0357709,0.193344,0.0570389,-0.0270798,-1.84278,0.340706,-0.0270511,0.0330634,0.48866,-0.0400615,0.443478,-0.967511,1.49939,1.00117,-0.00194198,0,0,0,0,0,0,0,-3.69793,-34.2485,-3.161,23.0432,1.47918,5.32097,0.0706026,
0.206224,0.0585814,-0.0145115,-1.86256,0.355312,0.00676706,0.0331562,0.224328,0.0135126,0.218465,-0.41502,0.382403,0.786977,0.0055235,4.02482,-0.0214533,3.98611,-2.09522,-72.9298,24.2705,0.135747,8.26624,-4.6614,7.92034,-42.5537,-2.331,12.2495,-0.00294512,0.193344,0.0570389,-0.0270798,-1.84278,0.340706,-0.0270511,0.0330634,0.48866,-0.0400615,0.443478,-0.967511,1.49939,1.00117,-0.00194198,0,0,0,0,0,0,0,-3.69793,-34.2485,-3.161,23.0432,1.47918,5.32097,0.0706026,
0.20804,0.0586327,-0.0127398,-1.86588,0.353632,0.0146249,0.0332204,0.224869,0.0120941,0.219064,-0.414996,0.263909,0.826029,0.00602257,0.33831,-0.886601,0.374253,0.0150146,-74.059,24.4074,0.311916,9.33811,-3.43148,8.99469,-41.6441,-3.43798,12.2495,0.0205339,0.193344,0.0570389,-0.0270798,-1.84278,0.340706,-0.0270511,0.0330634,0.48866,-0.0400615,0.443478,-0.967511,1.49939,1.00117,-0.00194198,0,0,0,0,0,0,0,-3.69793,-34.2485,-3.161,23.0432,1.47918,5.32097,0.0706026,
0.209707,0.0586493,-0.0111138,-1.86912,0.351208,0.0227419,0.0332942,0.221571,0.0100903,0.2159,-0.412814,0.150548,0.863746,0.00666418,-2.06141,-1.25235,-1.97719,1.36406,-70.8503,23.5736,0.401008,10.2461,-2.49911,9.90861,-40.8018,-4.21198,12.2495,0.0384027,0.193344,0.0570389,-0.0270798,-1.84278,0.340706,-0.0270511,0.0330634,0.48866,-0.0400615,0.443478,-0.967511,1.49939,1.00117,-0.00194198,0,0,0,0,0,0,0,-3.69793,-34.2485,-3.161,23.0432,1.47918,5.32097,0.0706026,
0.211254,0.0586453,-0.00960553,-1.87228,0.348249,0.0310656,0.0333766,0.215918,0.00796994,0.210428,-0.409271,0.0464649,0.899089,0.00738928,-3.53338,-1.32521,-3.42026,2.21405,-65.0522,22.0892,0.453187,10.7484,-1.99318,10.3853,-40.0368,-4.9402,12.0912,0.0611421,0.208142,0.0578809,-0.010595,-1.87455,0.379004,0.0156265,0.033142,0.48549,-0.00398411,0.388073,-0.919928,0.792647,1.39315,-0.000615635,-0.396282,4.50968,-6.92554,5.9478,-88.3424,48.997,0.165793,-9.75598,-38.8625,-9.53642,27.4509,-1.2024,4.04107,0.0101778,
0.222114,0.060775,0.00301511,-1.89587,0.374499,0.0633039,0.0335996,0.216236,0.0112056,0.210695,-0.405592,-0.0332699,0.923698,0.00816079,0.19886,2.02226,0.167061,2.29922,-49.8342,15.3805,0.482193,11.9346,-1.17873,11.5862,-38.6275,-5.49118,12.0912,0.0854402,0.208142,0.0578809,-0.010595,-1.87455,0.379004,0.0156265,0.033142,0.48549,-0.00398411,0.388073,-0.919928,0.792647,1.39315,-0.000615635,0,0,0,0,0,0,0,-9.75598,-38.8625,-9.53642,27.4509,-1.2024,4.04107,0.0101778,
0.223714,0.0609115,0.00457304,-1.89892,0.37142,0.0716247,0.0336933,0.213,0.0123781,0.207505,-0.40081,-0.103596,0.946979,0.00887093,-2.02239,0.732856,-1.99411,2.98892,-43.9536,14.551,0.443841,12.3705,-0.96614,12.0304,-37.98,-5.55761,12.0912,0.0939428,0.208142,0.0578809,-0.010595,-1.87455,0.379004,0.0156265,0.033142,0.48549,-0.00398411,0.388073,-0.919928,0.792647,1.39315,-0.000615635,0,0,0,0,0,0,0,-9.75598,-38.8625,-9.53642,27.4509,-1.2024,4.04107,0.0101778,
0.225201,0.0610084,0.00602031,-1.90191,0.368203,0.0800688,0.0337891,0.207573,0.0123236,0.202185,-0.395337,-0.163314,0.968685,0.00949165,-3.39201,-0.03405,-3.32462,3.4204,-37.3241,13.5659,0.38795,12.7197,-0.838665,12.3868,-37.3605,-5.54612,12.0912,0.101747,0.208142,0.0578809,-0.010595,-1.87455,0.379004,0.0156265,0.033142,0.48549,-0.00398411,0.388073,-0.919928,0.792647,1.39315,-0.000615635,0,0,0,0,0,0,0,-9.75598,-38.8625,-9.53642,27.4509,-1.2024,4.04107,0.0101778,
0.234228,0.0625896,0.0162962,-1.92531,0.374226,0.110654,0.0336806,0.20983,0.0227964,0.204211,-0.39635,-0.207351,0.974731,0.00988325,1.41065,6.54549,1.2662,-0.632932,-27.523,3.77904,0.244748,12.9377,-0.459393,12.5947,-36.3905,-5.35497,11.9257,0.11921,0.222824,0.0581133,0.00526174,-1.90674,0.387619,0.0693705,0.0332383,0.492435,0.04478,0.369154,-0.988019,-0.0375082,1.66057,1.82199e-05,0.868163,6.09551,-2.36495,-8.51135,-103.769,33.428,0.0792318,-8.54199,-40.136,-8.36211,28.522,-0.285953,2.19811,0.00376909,
0.235824,0.0629825,0.0178451,-1.92841,0.371149,0.118755,0.0337738,0.207768,0.0280597,0.202091,-0.394371,-0.242808,0.982317,0.0102374,-1.28842,3.28953,-1.325,1.23713,-22.1603,4.74091,0.221367,13.0745,-0.455309,12.7388,-35.8187,-5.15869,11.9257,0.121852,0.222824,0.0581133,0.00526174,-1.90674,0.387619,0.0693705,0.0332383,0.492435,0.04478,0.369154,-0.988019,-0.0375082,1.66057,1.82199e-05,0,0,0,0,0,0,0,-8.54199,-40.136,-8.36211,28.522,-0.285953,2.19811,0.00376909,
0.237298,0.0632822,0.0192754,-1.9314,0.368112,0.126973,0.0338677,0.203058,0.0299399,0.197431,-0.390349,-0.27017,0.99129,0.0105372,-2.94399,1.17517,-2.91247,2.5136,-17.1016,5.60817,0.187363,13.16,-0.465276,12.8306,-35.2547,-4.94468,11.9257,0.12393,0.222824,0.0581133,0.00526174,-1.90674,0.387619,0.0693705,0.0332383,0.492435,0.04478,0.369154,-0.988019,-0.0375082,1.66057,1.82199e-05,0,0,0,0,0,0,0,-8.54199,-40.136,-8.36211,28.522,-0.285953,2.19811,0.00376909,
0.238673,0.063512,0.0206109,-1.93431,0.365153,0.1353,0.0339611,0.196843,0.0296986,0.191332,-0.38496,-0.290106,1.00121,0.0107643,-3.88467,-0.150843,-3.81213,3.36793,-12.4597,6.20048,0.141915,13.1988,-0.48097,12.8758,-34.6964,-4.70428,11.9257,0.124538,0.222824,0.0581133,0.00526174,-1.90674,0.387619,0.0693705,0.0332383,0.492435,0.04478,0.369154,-0.988019,-0.0375082,1.66057,1.82199e-05,0,0,0,0,0,0,0,-8.54199,-40.136,-8.36211,28.522,-0.285953,2.19811,0.00376909,
0.247373,0.06242,0.0290941,-1.95438,0.365161,0.175329,0.033969,0.196898,0.0343679,0.191248,-0.381918,-0.299209,1.00845,0.0107644,0.0348136,2.91831,-0.0526363,1.90152,-5.68979,4.52251,6.2854e-05,13.0724,-0.384463,12.7288,-34.5432,-4.51055,11.657,0.128965,0.237106,0.0586926,0.0191691,-1.93751,0.380109,0.130492,0.033543,0.326901,0.0429541,0.475342,-0.84928,-0.364773,1.83262,0.00600209,-20.6918,-0.228244,13.2735,17.3424,-40.9081,21.5066,0.747984,-4.78894,-36.0695,-4.75981,23.5669,-0.450748,0.891653,-0.050247,
0.24882,0.0627411,0.0304964,-1.95724,0.362594,0.183632,0.0340558,0.193689,0.0355217,0.188054,-0.377088,-0.303548,1.01433,0.010783,-2.00576,0.721161,-1.99582,3.01833,-2.71192,3.67644,0.0116543,13.0404,-0.397916,12.7022,-33.9914,-4.25784,11.657,0.127999,0.237106,0.0586926,0.0191691,-1.93751,0.380109,0.130492,0.033543,0.326901,0.0429541,0.475342,-0.84928,-0.364773,1.83262,0.00600209,0,0,0,0,0,0,0,-4.78894,-36.0695,-4.75981,23.5669,-0.450748,0.891653,-0.050247,
0.250165,0.0629857,0.0318018,-1.96002,0.360139,0.191972,0.0341425,0.188589,0.0345315,0.18308,-0.371092,-0.304217,1.01998,0.0107922,-3.18777,-0.618913,-3.10901,3.74758,-0.4178,3.52945,0.00575535,12.9824,-0.406255,12.6492,-33.4416,-4.01106,11.657,0.126579,0.237106,0.0586926,0.0191691,-1.93751,0.380109,0.130492,0.033543,0.326901,0.0429541,0.475342,-0.84928,-0.364773,1.83262,0.00600209,0,0,0,0,0,0,0,-4.78894,-36.0695,-4.75981,23.5669,-0.450748,0.891653,-0.050247,
0.251431,0.063175,0.0330305,-1.96271,0.357798,0.200362,0.034228,0.182511,0.0323568,0.17718,-0.364331,-0.301894,1.02574,0.010773,-3.79819,-1.35915,-3.6875,4.22604,1.4518,3.60186,-0.0120499,12.9033,-0.407172,12.5747,-32.8938,-3.76701,11.657,0.124262,0.237106,0.0586926,0.0191691,-1.93751,0.380109,0.130492,0.033543,0.326901,0.0429541,0.475342,-0.84928,-0.364773,1.83262,0.00600209,0,0,0,0,0,0,0,-4.78894,-36.0695,-4.75981,23.5669,-0.450748,0.891653,-0.050247,
0.247237,0.0626172,0.0289588,-1.95373,0.367409,0.174956,0.0339262,0.184586,0.0373896,0.179131,-0.361542,-0.294717,1.02668,0.0105408,1.29683,3.14545,1.2192,1.74292,4.48546,0.588176,-0.145127,12.7865,-0.346533,12.4392,-32.5617,-3.46855,11.4189,0.123264,0.250369,0.059404,0.0321933,-1.96595,0.365781,0.195127,0.0338144,0.345139,0.0170216,0.409412,-0.805687,-0.47581,1.85615,0.0045621,2.27975,-3.24156,-8.24129,5.44909,-13.8795,2.94089,-0.179999,-2.30145,-35.8949,-2.3358,21.0477,0.452877,0.533682,0.050461,
0.248648,0.062974,0.0303279,-1.95643,0.365405,0.183212,0.034003,0.182959,0.0388316,0.177531,-0.356711,-0.28588,1.02776,0.0103535,-1.0171,0.901277,-0.999541,3.01922,5.5234,0.672006,-0.117052,12.6898,-0.329627,12.347,-32.0207,-3.26945,11.4189,0.120873,0.250369,0.059404,0.0321933,-1.96595,0.365781,0.195127,0.0338144,0.345139,0.0170216,0.409412,-0.805687,-0.47581,1.85615,0.0045621,0,0,0,0,0,0,0,-2.30145,-35.8949,-2.3358,21.0477,0.452877,0.533682,0.050461,
0.249957,0.0632554,0.0315982,-1.95904,0.363512,0.191513,0.0340789,0.179096,0.0381003,0.173782,-0.350525,-0.27603,1.02974,0.0101787,-2.41416,-0.457046,-2.34307,3.86634,6.1561,1.2382,-0.109207,12.5753,-0.301902,12.2468,-31.4899,-3.08279,11.4189,0.118223,0.250369,0.059404,0.0321933,-1.96595,0.365781,0.195127,0.0338144,0.345139,0.0170216,0.409412,-0.805687,-0.47581,1.85615,0.0045621,0,0,0,0,0,0,0,-2.30145,-35.8949,-2.3358,21.0477,0.452877,0.533682,0.050461,
0.247237,0.0626172,0.0289588,-1.95373,0.367409,0.174956,0.0339262,0.181854,0.0419843,0.176413,-0.350498,-0.274026,1.02988,0.0100654,1.72371,2.42751,1.64388,0.0172277,1.25247,0.0884995,-0.0708494,12.313,-0.13475,11.9972,-30.3785,-2.71503,11.4189,0.111989,0.250369,0.059404,0.0321933,-1.96595,0.365781,0.195127,0.0338144,0.345139,0.0170216,0.409412,-0.805687,-0.47581,1.85615,0.0045621,0,0,0,0,0,0,0,-2.30145,-35.8949,-2.3358,21.0477,0.452877,0.533682,0.050461,
0.261074,0.0631903,0.0425135,-1.98351,0.352349,0.247794,0.0342031,0.178198,0.0420543,0.17281,-0.342711,-0.256821,1.02854,0.0096837,-2.28511,0.0436963,-2.25166,4.86651,10.7531,-0.839367,-0.238552,12.1672,-0.0499933,11.8339,-29.8341,-2.40169,11.2347,0.108882,0.262508,0.0610023,0.0444489,-1.99289,0.351277,0.259369,0.0339913,0.338653,0.0428935,0.366857,-0.77741,-0.434256,1.80645,0.00165814,-0.810672,3.23398,-5.3193,3.5346,5.19414,-6.21275,-0.362994,-1.46435,-38.1404,-1.71294,25.0586,1.28326,0.918204,0.0376436,
0.262286,0.0634652,0.0436861,-1.98589,0.350966,0.255794,0.0342668,0.172844,0.0405168,0.167564,-0.333534,-0.240038,1.02283,0.00934042,-3.34611,-0.960895,-3.27887,5.73548,10.4892,-3.56861,-0.21455,12.0154,0.0521562,11.6848,-29.2562,-2.23624,11.2347,0.105254,0.262508,0.0610023,0.0444489,-1.99289,0.351277,0.259369,0.0339913,0.338653,0.0428935,0.366857,-0.77741,-0.434256,1.80645,0.00165814,0,0,0,0,0,0,0,-1.46435,-38.1404,-1.71294,25.0586,1.28326,0.918204,0.0376436,
0.263417,0.0636872,0.0447807,-1.98815,0.34968,0.263513,0.0343289,0.166554,0.0379639,0.161417,-0.323467,-0.224165,1.01122,0.00902437,-3.93122,-1.59555,-3.84172,6.29228,9.92071,-7.25049,-0.197531,11.8578,0.144642,11.5297,-28.676,-2.08087,11.2347,0.101516,0.262508,0.0610023,0.0444489,-1.99289,0.351277,0.259369,0.0339913,0.338653,0.0428935,0.366857,-0.77741,-0.434256,1.80645,0.00165814,0,0,0,0,0,0,0,-1.46435,-38.1404,-1.71294,25.0586,1.28326,0.918204,0.0376436,
0.271266,0.0648053,0.0528616,-2.00703,0.341563,0.300819,0.0342552,0.166196,0.0419239,0.160909,-0.317466,-0.209903,0.984999,0.00856423,-0.22406,2.475,-0.317542,3.75042,8.91385,-16.3908,-0.287586,11.6961,0.223945,11.3705,-28.0959,-1.9359,11.2347,0.0976872,0.262508,0.0610023,0.0444489,-1.99289,0.351277,0.259369,0.0339913,0.338653,0.0428935,0.366857,-0.77741,-0.434256,1.80645,0.00165814,0,0,0,0,0,0,0,-1.46435,-38.1404,-1.71294,25.0586,1.28326,0.918204,0.0376436,
0.272468,0.0651607,0.0540208,-2.00926,0.340478,0.307468,0.0343095,0.162991,0.0424219,0.157708,-0.309683,-0.195039,0.954215,0.00820807,-2.00305,0.311206,-2.00063,4.86421,9.29,-19.2401,-0.2226,11.5649,0.137745,11.2204,-27.4075,-1.63251,11.0927,0.0933041,0.273899,0.0636111,0.0558362,-2.01863,0.33758,0.315911,0.0340313,0.355794,0.0957232,0.289519,-0.721029,-0.357425,1.57559,0.00393232,2.14256,6.60371,-9.66736,7.04774,9.60398,-28.8575,0.284272,-0.95654,-38.6641,-0.76079,27.8992,2.63916,2.74834,0.0303194,
0.273578,0.0654329,0.0550926,-2.01139,0.339489,0.31375,0.0343633,0.158153,0.040744,0.152962,-0.300886,-0.180776,0.920429,0.00791225,-3.02404,-1.04866,-2.96632,5.49842,8.91444,-21.1161,-0.184885,11.3974,0.189788,11.0556,-26.8297,-1.50729,10.3276,0.0894146,0.273899,0.0636111,0.0558362,-2.01863,0.33758,0.315911,0.0340313,0.355794,0.0957232,0.289519,-0.721029,-0.357425,1.57559,0.00393232,0,0,0,0,0,0,0,-0.95654,-38.6641,-0.76079,27.8992,2.63916,2.74834,0.0303194,
0.274616,0.0656406,0.0560948,-2.01342,0.338568,0.319684,0.0344161,0.152474,0.0377882,0.147423,-0.291595,-0.167628,0.884685,0.0076498,-3.54934,-1.84738,-3.46171,5.80673,8.21773,-22.34,-0.164032,11.2261,0.228385,10.8873,-26.2495,-1.40899,9.61628,0.0861381,0.273899,0.0636111,0.0558362,-2.01863,0.33758,0.315911,0.0340313,0.355794,0.0957232,0.289519,-0.721029,-0.357425,1.57559,0.00393232,0,0,0,0,0,0,0,-0.95654,-38.6641,-0.76079,27.8992,2.63916,2.74834,0.0303194,
0.281953,0.0678899,0.063543,-2.03184,0.329917,0.347811,0.0342506,0.152405,0.0424904,0.147205,-0.287667,-0.156951,0.835533,0.00725927,-0.0432068,2.93889,-0.136532,2.4548,6.67265,-30.72,-0.24408,11.0463,0.255287,10.7109,-25.6675,-1.3267,8.95984,0.0830399,0.273899,0.0636111,0.0558362,-2.01863,0.33758,0.315911,0.0340313,0.355794,0.0957232,0.289519,-0.721029,-0.357425,1.57559,0.00393232,0,0,0,0,0,0,0,-0.95654,-38.6641,-0.76079,27.8992,2.63916,2.74834,0.0303194,
0.283065,0.0682635,0.0646139,-2.0339,0.32911,0.352612,0.0342967,0.149739,0.0433307,0.144536,-0.281634,-0.145754,0.788452,0.00695974,-1.66591,0.525138,-1.66806,3.77078,6.99839,-29.4257,-0.187206,10.8229,0.241298,10.4645,-25.1184,-1.16018,8.19409,0.0805259,0.284214,0.0665102,0.0664084,-2.04285,0.326702,0.372112,0.0340368,0.229407,0.138757,0.336051,-0.628826,-0.301224,1.61877,0.000984874,-15.7984,5.37928,5.81652,11.5253,7.02513,5.39728,-0.368431,-1.13507,-38.914,-1.18529,27.3755,2.69409,2.82799,0.0303194,
0.284096,0.0685481,0.0656065,-2.03586,0.328369,0.357144,0.0343425,0.145568,0.0417801,0.140444,-0.27429,-0.135116,0.744057,0.00671196,-2.60718,-0.969097,-2.55707,4.59036,6.64873,-27.747,-0.154864,10.6255,0.250282,10.2709,-24.5321,-1.09798,7.63599,0.0775082,0.284214,0.0665102,0.0664084,-2.04285,0.326702,0.372112,0.0340368,0.229407,0.138757,0.336051,-0.628826,-0.301224,1.61877,0.000984874,0,0,0,0,0,0,0,-1.13507,-38.914,-1.18529,27.3755,2.69409,2.82799,0.0303194,
0.281953,0.0678899,0.063543,-2.03184,0.329917,0.347811,0.0342506,0.14688,0.0456839,0.141622,-0.273823,-0.130942,0.723031,0.006509,0.820053,2.4399,0.735801,0.29161,2.6087,-13.1414,-0.12685,10.2117,0.24928,9.86521,-23.3524,-0.997264,6.64955,0.0715788,0.284214,0.0665102,0.0664084,-2.04285,0.326702,0.372112,0.0340368,0.229407,0.138757,0.336051,-0.628826,-0.301224,1.61877,0.000984874,0,0,0,0,0,0,0,-1.13507,-38.914,-1.18529,27.3755,2.69409,2.82799,0.0303194,
0.29213,0.0710658,0.0739696,-2.05618,0.319823,0.404029,0.0342532,0.141858,0.0446061,0.136658,-0.264522,-0.120959,0.671326,0.00620182,-3.13834,-0.673673,-3.10242,5.81296,6.23918,-32.3152,-0.191987,9.99826,0.241538,9.65604,-22.7588,-0.95812,6.21543,0.0687171,0.284214,0.0665102,0.0664084,-2.04285,0.326702,0.372112,0.0340368,0.229407,0.138757,0.336051,-0.628826,-0.301224,1.61877,0.000984874,0,0,0,0,0,0,0,-1.13507,-38.914,-1.18529,27.3755,2.69409,2.82799,0.0303194,
0.293039,0.0713054,0.0748423,-2.05791,0.319217,0.407487,0.0342931,0.136225,0.0416759,0.131144,-0.254926,-0.111911,0.623522,0.00595852,-3.52063,-1.83135,-3.44638,5.99776,5.65527,-29.8776,-0.152062,9.78226,0.23008,9.44434,-22.1626,-0.926868,5.81632,0.0659832,0.284214,0.0665102,0.0664084,-2.04285,0.326702,0.372112,0.0340368,0.229407,0.138757,0.336051,-0.628826,-0.301224,1.61877,0.000984874,0,0,0,0,0,0,0,-1.13507,-38.914,-1.18529,27.3755,2.69409,2.82799,0.0303194,
0.293897,0.0714841,0.0756655,-2.05957,0.318633,0.410734,0.0343326,0.13043,0.037807,0.125496,-0.245295,-0.104137,0.579977,0.00575454,-3.62205,-2.41809,-3.5299,6.01943,4.85869,-27.2159,-0.127488,9.65551,0.0618416,9.29967,-21.445,-0.761716,5.31863,0.0627574,0.294362,0.0694068,0.0749369,-2.06412,0.318714,0.422032,0.0340313,0.16859,0.135199,0.386774,-0.568581,-0.204826,1.2841,-0.000351932,-7.60218,-0.444755,6.34046,7.53063,12.0497,-41.8341,-0.167101,-0.0202602,-39.5369,0.413527,24.162,2.58422,0.838553,0.0779268,
0.301172,0.0732919,0.0814493,-2.07461,0.314474,0.442064,0.0341769,0.130161,0.0402279,0.125109,-0.239591,-0.0962427,0.533637,0.00544931,-0.168169,1.51311,-0.241743,3.56507,4.93398,-28.9622,-0.190773,9.43676,0.0452522,9.08531,-20.8434,-0.745636,4.98439,0.0603342,0.294362,0.0694068,0.0749369,-2.06412,0.318714,0.422032,0.0340313,0.16859,0.135199,0.386774,-0.568581,-0.204826,1.2841,-0.000351932,0,0,0,0,0,0,0,-0.0202602,-39.5369,0.413527,24.162,2.58422,0.838553,0.0779268,
0.302118,0.073589,0.0823546,-2.07624,0.313979,0.444643,0.034212,0.127767,0.0396087,0.12272,-0.232646,-0.0893635,0.491376,0.00523817,-1.49629,-0.387026,-1.49301,4.34015,4.29946,-26.4135,-0.131963,9.21757,0.0270501,8.87054,-20.2389,-0.736476,4.68003,0.0580622,0.294362,0.0694068,0.0749369,-2.06412,0.318714,0.422032,0.0340313,0.16859,0.135199,0.386774,-0.568581,-0.204826,1.2841,-0.000351932,0,0,0,0,0,0,0,-0.0202602,-39.5369,0.413527,24.162,2.58422,0.838553,0.0779268,
0.302995,0.0738113,0.0831944,-2.0778,0.313482,0.447071,0.0342478,0.124143,0.0372464,0.11917,-0.224949,-0.0839209,0.453792,0.00508432,-2.26523,-1.47646,-2.2189,4.8108,3.40167,-23.49,-0.0961516,8.99877,0.00749175,8.65617,-19.6318,-0.735329,4.40235,0.056006,0.294362,0.0694068,0.0749369,-2.06412,0.318714,0.422032,0.0340313,0.16859,0.135199,0.386774,-0.568581,-0.204826,1.2841,-0.000351932,0,0,0,0,0,0,0,-0.0202602,-39.5369,0.413527,24.162,2.58422,0.838553,0.0779268,
0.303817,0.0739785,0.0839811,-2.07927,0.312969,0.449379,0.0342837,0.119866,0.033976,0.115004,-0.216833,-0.0799529,0.420753,0.00496568,-2.67254,-2.04396,-2.60367,5.07279,2.47997,-20.649,-0.07415,8.8736,-0.219614,8.51547,-18.9456,-0.628048,4.03649,0.0538808,0.303584,0.0720703,0.0825403,-2.08268,0.313488,0.460251,0.0340336,0.387823,0.0674163,0.0868905,-0.511222,-0.116308,0.990549,-0.000415245,27.4042,-8.47289,-37.4855,7.16991,11.0648,-36.6933,-0.00791419,0.463749,-37.9897,0.738844,25.3601,1.09466,0.977713,0.0577852,
0.309723,0.0747513,0.0883599,-2.09176,0.310038,0.474691,0.0341806,0.119407,0.0342254,0.114476,-0.210764,-0.0759599,0.387343,0.00476747,-0.286981,0.155896,-0.330134,3.79322,2.49567,-20.8812,-0.123881,8.65732,-0.240559,8.30363,-18.3336,-0.640699,3.80719,0.0522199,0.303584,0.0720703,0.0825403,-2.08268,0.313488,0.460251,0.0340336,0.387823,0.0674163,0.0868905,-0.511222,-0.116308,0.990549,-0.000415245,0,0,0,0,0,0,0,0.463749,-37.9897,0.738844,25.3601,1.09466,0.977713,0.0577852,
0.310586,0.0749605,0.0891847,-2.09317,0.309553,0.476594,0.0342139,0.117106,0.0326118,0.112201,-0.203788,-0.0729058,0.357438,0.00464715,-1.43847,-1.00854,-1.42167,4.35994,1.90881,-18.6907,-0.0752047,8.44335,-0.261594,8.0941,-17.7194,-0.658636,3.59918,0.0507315,0.303584,0.0720703,0.0825403,-2.08268,0.313488,0.460251,0.0340336,0.387823,0.0674163,0.0868905,-0.511222,-0.116308,0.990549,-0.000415245,0,0,0,0,0,0,0,0.463749,-37.9897,0.738844,25.3601,1.09466,0.977713,0.0577852,
0.311387,0.0751165,0.0899503,-2.0945,0.309046,0.478403,0.0342481,0.113727,0.0299887,0.108902,-0.196266,-0.0709882,0.331193,0.00457348,-2.11194,-1.63942,-2.06225,4.70073,1.1985,-16.4033,-0.046039,8.2327,-0.282662,7.88789,-17.1037,-0.682212,3.4091,0.0494709,0.303584,0.0720703,0.0825403,-2.08268,0.313488,0.460251,0.0340336,0.387823,0.0674163,0.0868905,-0.511222,-0.116308,0.990549,-0.000415245,0,0,0,0,0,0,0,0.463749,-37.9897,0.738844,25.3601,1.09466,0.977713,0.0577852,
0.312139,0.0752328,0.0906675,-2.09576,0.308514,0.480136,0.034283,0.10977,0.0268978,0.105051,-0.188444,-0.0700958,0.308269,0.00453026,-2.47278,-1.93184,-2.40648,4.88926,0.557742,-14.3277,-0.0270143,8.06159,-0.433769,7.6928,-16.3971,-0.641047,3.17658,0.0482739,0.309499,0.0745104,0.0921315,-2.09933,0.310193,0.489486,0.0340313,0.146698,0.0587574,0.309969,-0.445535,-0.0674015,0.743669,-0.00162135,-30.1406,-1.08236,27.8848,8.21089,6.11328,-30.8601,-0.150763,0.233646,-37.6405,0.238966,24.039,0.800778,0.96398,0.0641939,
0.315324,0.0767873,0.0976929,-2.10729,0.307543,0.499283,0.034172,0.110157,0.0275291,0.105336,-0.183015,-0.0675088,0.281006,0.0044151,0.242025,0.394567,0.177819,3.39277,1.61684,-17.039,-0.0719755,7.86052,-0.453823,7.49622,-15.7795,-0.670047,3.01471,0.0474022,0.309499,0.0745104,0.0921315,-2.09933,0.310193,0.489486,0.0340313,0.146698,0.0587574,0.309969,-0.445535,-0.0674015,0.743669,-0.00162135,0,0,0,0,0,0,0,0.233646,-37.6405,0.238966,24.039,0.800778,0.96398,0.0641939,
0.31614,0.0769658,0.0984701,-2.1085,0.30707,0.500584,0.0342051,0.108531,0.0264851,0.103701,-0.17658,-0.0658435,0.257333,0.00435824,-1.01628,-0.652499,-1.02179,4.02212,1.0408,-14.7959,-0.0355397,7.6659,-0.472812,7.3061,-15.1617,-0.698511,2.86252,0.0467293,0.309499,0.0745104,0.0921315,-2.09933,0.310193,0.489486,0.0340313,0.146698,0.0587574,0.309969,-0.445535,-0.0674015,0.743669,-0.00162135,0,0,0,0,0,0,0,0.233646,-37.6405,0.238966,24.039,0.800778,0.96398,0.0641939,
0.316894,0.0770983,0.0991876,-2.10962,0.306576,0.501826,0.0342394,0.105681,0.0245002,0.100897,-0.169502,-0.0650059,0.236909,0.00434445,-1.78139,-1.24058,-1.75259,4.42373,0.523555,-12.7649,-0.00861946,7.47871,-0.490675,7.12349,-14.5447,-0.724663,2.71584,0.0462536,0.309499,0.0745104,0.0921315,-2.09933,0.310193,0.489486,0.0340313,0.146698,0.0587574,0.309969,-0.445535,-0.0674015,0.743669,-0.00162135,0,0,0,0,0,0,0,0.233646,-37.6405,0.238966,24.039,0.800778,0.96398,0.0641939,
0.325329,0.0784056,0.102807,-2.12041,0.306439,0.516073,0.034179,0.106295,0.025289,0.10141,-0.163304,-0.0615848,0.207131,0.00432565,0.383408,0.493052,0.320745,3.8735,2.13814,-18.6114,-0.0117465,7.16021,-0.625189,6.79842,-13.2151,-0.70084,2.39502,0.0460323,0.319576,0.0763148,0.0973204,-2.1134,0.308575,0.510789,0.0340334,0.179686,0.0552175,0.272015,-0.392537,-0.0380335,0.505228,-0.00118835,4.12349,-0.44248,-4.74422,6.62472,3.67099,-29.8051,0.0541249,-0.57568,-37.7397,0.0128308,26.705,0.288082,2.12487,0.017502,
0.326116,0.0785757,0.103554,-2.12143,0.306061,0.516739,0.0342119,0.104699,0.024485,0.0998043,-0.156195,-0.0587154,0.182343,0.00428461,-0.99742,-0.502494,-1.00353,4.44306,1.79341,-15.4924,-0.0256497,6.99589,-0.637235,6.63902,-12.6045,-0.700721,2.24531,0.0458474,0.319576,0.0763148,0.0973204,-2.1134,0.308575,0.510789,0.0340334,0.179686,0.0552175,0.272015,-0.392537,-0.0380335,0.505228,-0.00118835,0,0,0,0,0,0,0,-0.57568,-37.7397,0.0128308,26.705,0.288082,2.12487,0.017502,
0.326836,0.078703,0.104237,-2.12238,0.305653,0.517379,0.0342456,0.101774,0.0227686,0.0969275,-0.148526,-0.0571839,0.161877,0.00427044,-1.82794,-1.07278,-1.79798,4.79312,0.957182,-12.791,-0.00885951,6.84418,-0.646196,6.49154,-11.9967,-0.700609,2.09399,0.0461765,0.319576,0.0763148,0.0973204,-2.1134,0.308575,0.510789,0.0340334,0.179686,0.0552175,0.272015,-0.392537,-0.0380335,0.505228,-0.00118835,0,0,0,0,0,0,0,-0.57568,-37.7397,0.0128308,26.705,0.288082,2.12487,0.017502,
0.327504,0.0787972,0.104869,-2.12325,0.305207,0.518012,0.0342846,0.0981103,0.0205705,0.0933446,-0.140649,-0.056884,0.145323,0.00439087,-2.28985,-1.37382,-2.23935,4.92334,0.187463,-10.3467,0.0752733,6.69898,-0.653755,6.35101,-11.3941,-0.688102,1.93326,0.0479129,0.319576,0.0763148,0.0973204,-2.1134,0.308575,0.510789,0.0340334,0.179686,0.0552175,0.272015,-0.392537,-0.0380335,0.505228,-0.00118835,0,0,0,0,0,0,0,-0.57568,-37.7397,0.0128308,26.705,0.288082,2.12487,0.017502,
0.325167,0.0785154,0.102645,-2.11956,0.306492,0.514027,0.0341922,0.099189,0.0224295,0.0943479,-0.135902,-0.0550232,0.12381,0.00460965,0.674217,1.16189,0.6271,2.96702,1.16294,-13.4455,0.136737,6.53058,-0.790163,6.1647,-10.7154,-0.62045,1.74479,0.049479,0.325558,0.0779373,0.106109,-2.12548,0.306504,0.525308,0.0340333,0.33588,0.0554521,0.0750284,-0.322886,-0.0572582,0.34628,0.00454257,19.5242,0.0293219,-24.6234,8.70634,-2.40308,-19.8685,0.716364,-2.30145,-37.3906,-2.03826,25.1855,0.502316,2.60186,0.017502,
0.325902,0.0786941,0.103341,-2.12042,0.306197,0.514364,0.0342124,0.0977265,0.0224126,0.0928881,-0.130285,-0.051395,0.107471,0.00419204,-0.91407,-0.0105886,-0.912402,3.51022,2.26768,-10.2118,-0.261005,6.34135,-0.792247,5.98168,-10.1281,-0.566773,1.57161,0.0465652,0.325558,0.0779373,0.106109,-2.12548,0.306504,0.525308,0.0340333,0.33588,0.0554521,0.0750284,-0.322886,-0.0572582,0.34628,0.00454257,0,0,0,0,0,0,0,-2.30145,-37.3906,-2.03826,25.1855,0.502316,2.60186,0.017502,
0.326575,0.0788316,0.103978,-2.12122,0.305733,0.514858,0.0342309,0.0949844,0.021366,0.0902276,-0.124083,-0.0526973,0.0983384,0.00381546,-1.71383,-0.654102,-1.66279,3.87654,-0.81393,-5.70785,-0.235367,6.17909,-0.774633,5.81837,-9.53303,-0.625261,1.44924,0.0453649,0.325558,0.0779373,0.106109,-2.12548,0.306504,0.525308,0.0340333,0.33588,0.0554521,0.0750284,-0.322886,-0.0572582,0.34628,0.00454257,0,0,0,0,0,0,0,-2.30145,-37.3906,-2.03826,25.1855,0.502316,2.60186,0.017502,
0.327193,0.0789347,0.104563,-2.12194,0.305187,0.515429,0.0342556,0.0914546,0.0196711,0.0867947,-0.117424,-0.0558069,0.0929451,0.00367122,-2.2061,-1.0593,-2.14557,4.16186,-1.94351,-3.37082,-0.0901496,6.03225,-0.766078,5.67338,-8.96132,-0.658683,1.3781,0.0510261,0.325558,0.0779373,0.106109,-2.12548,0.306504,0.525308,0.0340333,0.33588,0.0554521,0.0750284,-0.322886,-0.0572582,0.34628,0.00454257,0,0,0,0,0,0,0,-2.30145,-37.3906,-2.03826,25.1855,0.502316,2.60186,0.017502,
0.330577,0.0792524,0.110826,-2.12992,0.30266,0.529367,0.0337653,0.0905873,0.0145471,0.085798,-0.106468,-0.065949,0.097187,0.00251666,-0.542101,-3.2025,-0.622965,6.84743,-6.33883,2.6512,-0.721598,5.81259,-0.885994,5.44324,-8.32545,-0.650875,1.38963,0.0615497,0.332542,0.0790354,0.112514,-2.13566,0.304357,0.532805,0.0340348,0.0518328,0.0208312,0.3212,-0.279313,-0.0613,0.127849,-4.14023e-05,-35.5059,-4.32761,30.7715,5.44668,-0.505229,-27.3039,-0.572996,-1.76983,-36.8153,-1.26067,26.5305,1.15509,2.90673,0.00376909,
0.331176,0.079111,0.111385,-2.13032,0.301837,0.530215,0.0337781,0.0874319,0.00810258,0.0826169,-0.0952275,-0.0733324,0.0989357,0.00233249,-1.97214,-4.02784,-1.98814,7.0254,-4.61462,1.09294,-0.115106,5.34365,-0.943631,4.99678,-7.78235,-0.369005,1.35736,0.0318438,0.332542,0.0790354,0.112514,-2.13566,0.304357,0.532805,0.0340348,0.0518328,0.0208312,0.3212,-0.279313,-0.0613,0.127849,-4.14023e-05,0,0,0,0,0,0,0,-1.76983,-36.8153,-1.26067,26.5305,1.15509,2.90673,0.00376909,
0.331707,0.0789064,0.111882,-2.13064,0.301023,0.530979,0.0338168,0.0832226,0.00136805,0.0785098,-0.0841644,-0.0790089,0.0982493,0.0028338,-2.63078,-4.20908,-2.56697,6.91441,-3.54781,-0.428997,0.313317,5.20426,-0.913593,4.82481,-7.16246,-0.920813,1.73605,0.0217468,0.332542,0.0790354,0.112514,-2.13566,0.304357,0.532805,0.0340348,0.0518328,0.0208312,0.3212,-0.279313,-0.0613,0.127849,-4.14023e-05,0,0,0,0,0,0,0,-1.76983,-36.8153,-1.26067,26.5305,1.15509,2.90673,0.00376909,
0.332185,0.0786569,0.112328,-2.13089,0.300229,0.531648,0.0338779,0.0785196,-0.00514295,0.0739506,-0.0736879,-0.0830573,0.0953351,0.00379484,-2.93939,-4.06937,-2.84949,6.54779,-2.53024,-1.82137,0.60065,5.19525,-0.977496,4.83044,-6.72747,-0.854043,1.54701,0.0316094,0.332542,0.0790354,0.112514,-2.13566,0.304357,0.532805,0.0340348,0.0518328,0.0208312,0.3212,-0.279313,-0.0613,0.127849,-4.14023e-05,0,0,0,0,0,0,0,-1.76983,-36.8153,-1.26067,26.5305,1.15509,2.90673,0.00376909,
0.337063,0.0790238,0.116824,-2.13826,0.301568,0.536819,0.0333887,0.0783103,-0.0113063,0.0736946,-0.0622858,-0.0838554,0.0958674,0.00400319,-0.130834,-3.85208,-0.160001,7.12635,-0.498846,0.332696,0.130223,5.01337,-1.11074,4.65579,-6.19331,-0.681848,1.36466,0.0422031,0.340412,0.0802727,0.116008,-2.14406,0.30176,0.535112,0.0340294,0.290998,0.0340275,0.0228749,-0.212993,-0.0783854,0.0645604,0.00100572,29.8956,1.64954,-37.2907,8.28989,-2.13567,-7.91106,0.13089,-1.49212,-37.7913,-0.685411,27.7762,1.05804,3.38463,0.0101778,
0.337584,0.0786461,0.117309,-2.13831,0.300891,0.53745,0.0334802,0.0756732,-0.0184861,0.0710867,-0.0511994,-0.0840146,0.0924697,0.00548978,-1.64814,-4.4874,-1.62992,6.92898,-0.0994683,-2.12361,0.929113,4.81289,-1.09134,4.46151,-5.71736,-0.567028,1.1716,0.0318166,0.340412,0.0802727,0.116008,-2.14406,0.30176,0.535112,0.0340294,0.290998,0.0340275,0.0228749,-0.212993,-0.0783854,0.0645604,0.00100572,0,0,0,0,0,0,0,-1.49212,-37.7913,-0.685411,27.7762,1.05804,3.38463,0.0101778,
0.338039,0.0782089,0.117733,-2.13832,0.300212,0.537976,0.0336311,0.0718969,-0.0257206,0.0674558,-0.0410096,-0.0841825,0.0871188,0.00816472,-2.36023,-4.52152,-2.26934,6.36864,-0.104976,-3.34427,1.67184,4.70989,-1.02629,4.33838,-5.18611,-0.960208,1.13278,0.0165953,0.340412,0.0802727,0.116008,-2.14406,0.30176,0.535112,0.0340294,0.290998,0.0340275,0.0228749,-0.212993,-0.0783854,0.0645604,0.00100572,0,0,0,0,0,0,0,-1.49212,-37.7913,-0.685411,27.7762,1.05804,3.38463,0.0101778,
0.344198,0.0794771,0.119551,-2.14518,0.297732,0.537309,0.0347118,0.0701698,-0.0339028,0.0658213,-0.0288421,-0.0860842,0.0769324,0.0139457,-1.07943,-5.1139,-1.02153,7.60469,-1.18856,-6.36654,3.61309,4.52139,-0.94809,4.17945,-4.30065,-0.990751,0.915291,0.122112,0.340412,0.0802727,0.116008,-2.14406,0.30176,0.535112,0.0340294,0.290998,0.0340275,0.0228749,-0.212993,-0.0783854,0.0645604,0.00100572,0,0,0,0,0,0,0,-1.49212,-37.7913,-0.685411,27.7762,1.05804,3.38463,0.0101778,
0.344619,0.0788501,0.119943,-2.14496,0.297044,0.537497,0.0350909,0.0666805,-0.042798,0.0624479,-0.0174296,-0.0860889,0.0662555,0.0206331,-2.18082,-5.55951,-2.10841,7.13283,-0.00289171,-6.67304,4.17967,4.28444,-0.925678,3.94588,-3.85835,-0.848274,0.848432,0.137994,0.340412,0.0802727,0.116008,-2.14406,0.30176,0.535112,0.0340294,0.290998,0.0340275,0.0228749,-0.212993,-0.0783854,0.0645604,0.00100572,0,0,0,0,0,0,0,-1.49212,-37.7913,-0.685411,27.7762,1.05804,3.38463,0.0101778,
0.344988,0.078172,0.120286,-2.14468,0.296378,0.537605,0.0355502,0.062551,-0.0511902,0.0585276,-0.00710139,-0.0855113,0.0556962,0.0279889,-2.58093,-5.24509,-2.45015,6.45511,0.360973,-6.59959,4.59737,4.12116,-0.995915,3.7367,-3.33543,-1.24727,1.10578,0.160913,0.342976,0.0812657,0.123533,-2.15026,0.297977,0.538101,0.0340285,0.104098,0.0357896,0.17387,-0.146587,-0.0760399,0.0580932,-7.01202e-05,-23.3625,0.220266,18.8744,8.30077,0.293186,-0.808406,-0.13448,-1.92059,-39.886,-1.81212,28.2245,1.03973,3.71606,0.017502,
0.345309,0.0774708,0.120582,-2.14438,0.295753,0.537648,0.0360889,0.0580792,-0.0584829,0.0542415,0.00187727,-0.084033,0.0456536,0.0358588,-2.79485,-4.55793,-2.67881,5.61166,0.923973,-6.27658,4.91866,4.08729,-1.01005,3.7218,-3.00784,-1.00891,0.932133,0.206135,0.342976,0.0812657,0.123533,-2.15026,0.297977,0.538101,0.0340285,0.104098,0.0357896,0.17387,-0.146587,-0.0760399,0.0580932,-7.01202e-05,0,0,0,0,0,0,0,-1.92059,-39.886,-1.81212,28.2245,1.03973,3.71606,0.017502,
0.346816,0.0791362,0.12731,-2.14923,0.294326,0.53876,0.0347188,0.0628846,-0.0674137,0.0597324,0.0157528,-0.0872483,0.039998,0.0436362,3.00339,-5.5818,3.43177,8.67223,-2.00958,-3.53478,4.8609,4.41748,-0.6776,4.0708,-2.3108,-2.64363,0.760153,-1.11475,0.342976,0.0812657,0.123533,-2.15026,0.297977,0.538101,0.0340285,0.104098,0.0357896,0.17387,-0.146587,-0.0760399,0.0580932,-7.01202e-05,0,0,0,0,0,0,0,-1.92059,-39.886,-1.81212,28.2245,1.03973,3.71606,0.017502,
0.347426,0.078238,0.127913,-2.14862,0.293483,0.538848,0.0355262,0.065535,-0.0763857,0.0628669,0.0278788,-0.0908888,0.0342124,0.0550933,1.65648,-5.60749,1.95906,7.57876,-2.27531,-3.61603,7.16068,4.27019,-0.586806,3.93293,-1.89179,-2.65387,0.783742,0.186451,0.342976,0.0812657,0.123533,-2.15026,0.297977,0.538101,0.0340285,0.104098,0.0357896,0.17387,-0.146587,-0.0760399,0.0580932,-7.01202e-05,0,0,0,0,0,0,0,-1.92059,-39.886,-1.81212,28.2245,1.03973,3.71606,0.017502,
0.348001,0.0773167,0.128484,-2.148,0.29256,0.538901,0.0365165,0.066817,-0.0841426,0.0645767,0.037838,-0.0957874,0.028686,0.0688319,0.801244,-4.84803,1.06861,6.22447,-3.06163,-3.45399,8.58659,4.23531,-0.626953,3.87163,-1.46976,-3.29513,1.12001,1.57634,0.348942,0.0812114,0.126441,-2.15412,0.29502,0.53863,0.0341897,0.0326127,-0.018366,0.2105,-0.0805597,-0.0878058,0.00817534,0.0198343,-8.93568,-6.76946,4.57874,8.25343,-1.47074,-6.23973,2.48805,-1.41278,-38.0135,-0.736986,27.0779,0.495907,3.41759,0.0577852,
0.348541,0.0764055,0.129018,-2.14739,0.291574,0.538919,0.0376655,0.0669493,-0.0900928,0.064995,0.0455185,-0.101268,0.023399,0.0837914,0.0827052,-3.71888,0.26147,4.80033,-3.42568,-3.30434,9.3497,4.23212,-0.61162,3.89168,-1.14788,-3.07464,0.884427,1.7873,0.348942,0.0812114,0.126441,-2.15412,0.29502,0.53863,0.0341897,0.0326127,-0.018366,0.2105,-0.0805597,-0.0878058,0.00817534,0.0198343,0,0,0,0,0,0,0,-1.41278,-38.0135,-0.736986,27.0779,0.495907,3.41759,0.0577852,
0.350839,0.0722684,0.128387,-2.14542,0.283329,0.509874,0.0133907,0.0589658,-0.118314,0.0579352,0.0841348,-0.143303,-0.138884,-0.0759846,-4.98973,-17.638,-4.41238,24.1352,-26.2713,-101.427,-99.86,5.75559,2.82912,5.24187,3.16646,-9.40981,-0.198547,-6.19636,0.348942,0.0812114,0.126441,-2.15412,0.29502,0.53863,0.0341897,0.0326127,-0.018366,0.2105,-0.0805597,-0.0878058,0.00817534,0.0198343,0,0,0,0,0,0,0,-1.41278,-38.0135,-0.736986,27.0779,0.495907,3.41759,0.0577852,
0.351329,0.0699671,0.129008,-2.14271,0.283735,0.505491,0.0098771,0.0594283,-0.152184,0.061866,0.134955,-0.104505,-0.220697,-0.148627,0.289066,-21.1689,2.45676,31.7623,24.2487,-51.1332,-45.4018,5.63069,3.49696,5.18206,3.82653,-9.43835,-0.546196,-9.17579,0.348942,0.0812114,0.126441,-2.15412,0.29502,0.53863,0.0341897,0.0326127,-0.018366,0.2105,-0.0805597,-0.0878058,0.00817534,0.0198343,0,0,0,0,0,0,0,-1.41278,-38.0135,-0.736986,27.0779,0.495907,3.41759,0.0577852,
0.352053,0.0675646,0.129809,-2.1397,0.281769,0.509834,0.0129556,0.0656535,-0.18181,0.0695285,0.183295,-0.132765,-0.0679842,-0.0419392,3.89075,-18.5164,4.78907,30.2129,-17.6624,95.4454,66.6802,5.24606,4.10793,4.70862,4.17694,-9.05626,-0.475551,-12.0034,0.353181,0.0804958,0.129774,-2.15523,0.288644,0.538766,0.0357119,0.182729,-0.021804,0.022857,-0.000712944,-0.224969,-0.00111452,0.177751,18.7646,-0.429753,-23.4554,9.98085,-17.1453,-1.16123,19.7396,-0.246395,-38.1642,0.461134,27.0779,0.813595,3.08617,0.178635,
0.352806,0.0654171,0.130618,-2.1368,0.278598,0.516098,0.0193956,0.0713318,-0.199134,0.0758454,0.219087,-0.185487,0.102214,0.127449,3.54893,-10.8278,3.94807,22.3701,-32.9514,106.374,105.867,4.29756,5.801,3.87382,6.08984,-6.52205,-2.92957,-12.0034,0.353181,0.0804958,0.129774,-2.15523,0.288644,0.538766,0.0357119,0.182729,-0.021804,0.022857,-0.000712944,-0.224969,-0.00111452,0.177751,0,0,0,0,0,0,0,-0.246395,-38.1642,0.461134,27.0779,0.813595,3.08617,0.178635,
0.357952,0.0743508,0.134931,-2.1444,0.285343,0.53155,0.0488625,0.0884379,-0.205486,0.0961998,0.240812,-0.137222,0.0663587,0.221382,10.6913,-3.96952,12.7215,13.5778,30.1655,-22.4099,58.7086,5.14524,6.77881,4.76138,8.09669,-8.40052,-4.36781,-2.17114,0.353181,0.0804958,0.129774,-2.15523,0.288644,0.538766,0.0357119,0.182729,-0.021804,0.022857,-0.000712944,-0.224969,-0.00111452,0.177751,0,0,0,0,0,0,0,-0.246395,-38.1642,0.461134,27.0779,0.813595,3.08617,0.178635,
0.359331,0.0725407,0.136408,-2.14184,0.284227,0.533117,0.055875,0.105223,-0.209639,0.113879,0.256673,-0.137689,0.0922517,0.352418,10.4908,-2.59583,11.0498,9.91299,-0.291845,16.1831,81.8974,5.53117,9.30676,4.85257,9.04786,-9.07405,-1.58509,10.7192,0.353181,0.0804958,0.129774,-2.15523,0.288644,0.538766,0.0357119,0.182729,-0.021804,0.022857,-0.000712944,-0.224969,-0.00111452,0.177751,0,0,0,0,0,0,0,-0.246395,-38.1642,0.461134,27.0779,0.813595,3.08617,0.178635,
0.360714,0.0710018,0.137839,-2.13961,0.281403,0.536624,0.0648656,0.118734,-0.206185,0.126874,0.261073,-0.180738,0.161494,0.5067,8.44404,2.15899,8.12188,2.75033,-26.9058,43.2767,96.4261,5.56075,8.95925,5.2418,7.61127,-7.90084,1.64702,1.39701,0.355644,0.0795696,0.134301,-2.15261,0.272062,0.534293,0.0270845,0.167579,-0.0185118,0.0380868,0.193759,-0.716483,-0.305193,-1.22844,-1.89373,0.411528,1.90373,24.309,-61.4393,-38.0098,-175.773,-0.0202602,-42.5084,0.389723,34.2032,0.361325,3.41118,-0.540054,
0.36201,0.0697159,0.139167,-2.13768,0.277449,0.539798,0.0742411,0.127404,-0.197095,0.134697,0.257206,-0.243458,0.208534,0.639747,5.41891,5.6813,4.88909,-2.41701,-39.1995,29.3996,83.1545,5.60051,8.29466,5.55383,7.01325,-9.71839,1.327,6.15926,0.355644,0.0795696,0.134301,-2.15261,0.272062,0.534293,0.0270845,0.167579,-0.0185118,0.0380868,0.193759,-0.716483,-0.305193,-1.22844,0,0,0,0,0,0,0,-0.0202602,-42.5084,0.389723,34.2032,0.361325,3.41118,-0.540054,
0.363341,0.0661095,0.142609,-2.13465,0.272245,0.548105,0.0287893,0.141775,-0.224695,0.148635,0.291043,-0.25594,0.383337,0.724355,8.98172,-17.2503,8.71102,21.1484,-7.80182,109.252,52.88,7.25327,9.55646,6.48414,7.9192,-13.3567,1.56515,1.18245,0.355644,0.0795696,0.134301,-2.15261,0.272062,0.534293,0.0270845,0.167579,-0.0185118,0.0380868,0.193759,-0.716483,-0.305193,-1.22844,0,0,0,0,0,0,0,-0.0202602,-42.5084,0.389723,34.2032,0.361325,3.41118,-0.540054,
0.364738,0.063993,0.144025,-2.1318,0.26689,0.555332,0.0383742,0.148332,-0.232669,0.15432,0.3039,-0.33862,0.487364,0.819107,4.09803,-4.98358,3.5531,8.03542,-51.6749,65.0166,59.2197,6.30397,10.3593,5.67364,7.41037,-13.3567,1.89852,4.81282,0.355644,0.0795696,0.134301,-2.15261,0.272062,0.534293,0.0270845,0.167579,-0.0185118,0.0380868,0.193759,-0.716483,-0.305193,-1.22844,0,0,0,0,0,0,0,-0.0202602,-42.5084,0.389723,34.2032,0.361325,3.41118,-0.540054,
0.365959,0.0622963,0.145241,-2.12955,0.259767,0.561708,0.0439911,0.149203,-0.228553,0.153852,0.299388,-0.448986,0.549282,0.795708,0.544772,2.57226,-0.292524,-2.82018,-68.9784,38.6991,-14.6239,5.64862,9.16742,5.21726,6.26237,-12.5071,3.21782,6.76894,0.359364,0.0792253,0.138849,-2.14342,0.255224,0.528547,-0.0303408,0.0700342,-0.00962973,0.183779,0.276863,-0.686583,0.100088,-1.06581,-12.1932,1.11026,18.2115,10.388,3.73743,50.6601,20.3287,3.50666,-39.1402,3.48817,28.772,0.733944,4.30657,-0.0365141,
0.365826,0.0700941,0.145778,-2.12724,0.2465,0.551261,-0.0286194,0.14881,-0.214187,0.152653,0.299055,-0.502224,0.590369,0.708026,-0.245945,8.97862,-0.749139,-0.208017,-33.2738,25.679,-54.8015,6.45602,13.5534,6.40246,7.77809,-8.37827,3.75747,5.17344,0.359364,0.0792253,0.138849,-2.14342,0.255224,0.528547,-0.0303408,0.0700342,-0.00962973,0.183779,0.276863,-0.686583,0.100088,-1.06581,0,0,0,0,0,0,0,3.50666,-39.1402,3.48817,28.772,0.733944,4.30657,-0.0365141,
0.366849,0.069136,0.146795,-2.12532,0.239017,0.556449,-0.023807,0.144615,-0.195304,0.147558,0.287351,-0.588846,0.601973,0.68673,-2.62157,11.8022,-3.18435,-7.31472,-54.1387,7.253,-13.3096,3.98085,16.9548,3.95865,8.65683,-9.19875,4.09557,2.45361,0.359364,0.0792253,0.138849,-2.14342,0.255224,0.528547,-0.0303408,0.0700342,-0.00962973,0.183779,0.276863,-0.686583,0.100088,-1.06581,0,0,0,0,0,0,0,3.50666,-39.1402,3.48817,28.772,0.733944,4.30657,-0.0365141,
0.367734,0.0684094,0.147672,-2.12367,0.230417,0.560559,-0.0164477,0.13782,-0.174407,0.139959,0.271059,-0.686087,0.584331,0.733367,-4.24708,13.0603,-4.74938,-10.1828,-60.7761,-11.0263,29.1477,3.98519,15.5646,3.49952,7.49951,-13.4205,2.81699,6.70769,0.359364,0.0792253,0.138849,-2.14342,0.255224,0.528547,-0.0303408,0.0700342,-0.00962973,0.183779,0.276863,-0.686583,0.100088,-1.06581,0,0,0,0,0,0,0,3.50666,-39.1402,3.48817,28.772,0.733944,4.30657,-0.0365141,
0.368511,0.067846,0.148438,-2.12229,0.221161,0.563864,-0.00906098,0.129688,-0.15361,0.131113,0.251256,-0.780274,0.550089,0.771361,-5.08231,12.9984,-5.52882,-12.3765,-58.8665,-21.4017,23.7461,2.744,14.464,2.32935,5.71656,-13.5293,2.0175,4.20378,0.36568,0.0783939,0.14367,-2.13353,0.223721,0.544065,0.0209523,0.110392,-0.0504603,0.258189,0.26402,-0.946466,0.666758,3.14015,5.04467,-5.10383,9.30137,-1.60533,-32.4853,70.8337,525.745,3.78437,-39.037,4.11104,29.744,1.12487,5.79796,0.446884,
0.36855,0.067624,0.146652,-2.12343,0.191392,0.487078,0.0700717,0.120312,-0.139654,0.121752,0.217428,-0.836015,0.314557,0.74766,-5.86012,8.72228,-5.85033,-21.1426,-34.8385,-147.207,-14.8126,2.75561,17.9953,2.19457,6.27743,-13.5293,5.81045,3.46742,0.36568,0.0783939,0.14367,-2.13353,0.223721,0.544065,0.0209523,0.110392,-0.0504603,0.258189,0.26402,-0.946466,0.666758,3.14015,0,0,0,0,0,0,0,3.78437,-39.037,4.11104,29.744,1.12487,5.79796,0.446884,
0.369211,0.0673386,0.14731,-2.12297,0.182247,0.483901,0.0729982,0.112785,-0.11886,0.113852,0.185455,-0.897439,0.172226,0.67129,-4.70428,12.9968,-4.93746,-19.9831,-38.39,-88.9567,-47.7312,1.31386,16.4211,0.860394,6.17078,-13.5293,3.44001,6.0073,0.36568,0.0783939,0.14367,-2.13353,0.223721,0.544065,0.0209523,0.110392,-0.0504603,0.258189,0.26402,-0.946466,0.666758,3.14015,0,0,0,0,0,0,0,3.78437,-39.037,4.11104,29.744,1.12487,5.79796,0.446884,
0.369856,0.0672527,0.147958,-2.12267,0.172635,0.481921,0.0753162,0.106338,-0.0972341,0.107274,0.156025,-0.958237,0.0882604,0.594983,-4.02941,13.5159,-4.11146,-18.394,-37.9985,-52.4786,-47.6922,1.05098,14.1546,0.712873,6.52303,-13.5293,0.716026,9.21367,0.36568,0.0783939,0.14367,-2.13353,0.223721,0.544065,0.0209523,0.110392,-0.0504603,0.258189,0.26402,-0.946466,0.666758,3.14015,0,0,0,0,0,0,0,3.78437,-39.037,4.11104,29.744,1.12487,5.79796,0.446884,
0.370466,0.0672808,0.14857,-2.12246,0.163067,0.480699,0.0770627,0.100342,-0.0770864,0.101129,0.129855,-1.0058,0.0400672,0.519649,-3.74776,12.5924,-3.84091,-16.3559,-29.7241,-30.1208,-47.0836,1.3209,12.4337,1.04481,5.40058,-13.452,-0.87263,9.12807,0.372333,0.0793326,0.150155,-2.12175,0.182767,0.563322,0.0698316,0.201372,0.0432497,0.205751,0.389632,-1.69928,0.455919,-0.616848,11.3725,11.7138,-6.55485,15.7015,-94.1013,-26.3548,-469.625,-3.69793,-33.0226,-2.91106,24.9356,-0.231022,3.83507,-0.445755,
0.376297,0.0770304,0.153917,-2.11529,0.135518,0.606577,0.078638,0.09206,-0.0717358,0.0923245,0.118918,-0.988958,0.202607,0.393379,-5.17596,3.34407,-5.50258,-6.83575,10.5233,101.588,-78.9186,0.989697,12.1566,0.642975,4.38258,-12.0283,5.65236,6.6074,0.372333,0.0793326,0.150155,-2.12175,0.182767,0.563322,0.0698316,0.201372,0.0432497,0.205751,0.389632,-1.69928,0.455919,-0.616848,0,0,0,0,0,0,0,-3.69793,-33.0226,-2.91106,24.9356,-0.231022,3.83507,-0.445755,
0.376715,0.0766642,0.154326,-2.11484,0.129043,0.612713,0.0773659,0.0840943,-0.0665441,0.0840687,0.106382,-0.953036,0.315506,0.282901,-4.97861,3.24482,-5.15987,-7.83513,22.4516,70.5616,-69.0487,2.3608,8.07671,2.03151,2.59817,-11.3798,5.14744,3.70795,0.372333,0.0793326,0.150155,-2.12175,0.182767,0.563322,0.0698316,0.201372,0.0432497,0.205751,0.389632,-1.69928,0.455919,-0.616848,0,0,0,0,0,0,0,-3.69793,-33.0226,-2.91106,24.9356,-0.231022,3.83507,-0.445755,
0.377092,0.0763373,0.154698,-2.11453,0.123739,0.618401,0.0761697,0.0767123,-0.0614074,0.0765507,0.0928298,-0.895042,0.394601,0.196416,-4.61376,3.21047,-4.6988,-8.47013,36.2463,49.4342,-54.0536,3.47625,5.02631,3.22107,1.18276,-11.1902,5.07764,3.02646,0.372333,0.0793326,0.150155,-2.12175,0.182767,0.563322,0.0698316,0.201372,0.0432497,0.205751,0.389632,-1.69928,0.455919,-0.616848,0,0,0,0,0,0,0,-3.69793,-33.0226,-2.91106,24.9356,-0.231022,3.83507,-0.445755,
0.377453,0.0760544,0.155053,-2.11426,0.119271,0.623411,0.0738805,0.0703902,-0.0561988,0.0701204,0.0810483,-0.827729,0.440924,0.099902,-3.9513,3.25534,-4.01892,-7.36347,42.0704,28.9521,-60.321,4.11583,3.58921,3.95843,0.413728,-10.2131,5.10623,2.33243,0.372333,0.0793326,0.150155,-2.12175,0.182767,0.563322,0.0698316,0.201372,0.0432497,0.205751,0.389632,-1.69928,0.455919,-0.616848,0,0,0,0,0,0,0,-3.69793,-33.0226,-2.91106,24.9356,-0.231022,3.83507,-0.445755,
0.376411,0.0773845,0.154066,-2.11741,0.150056,0.584251,0.0607287,0.0702568,-0.052287,0.0697107,0.0781194,-0.753002,0.40575,0.0256351,-0.0833628,2.44487,-0.256072,-1.83054,46.7044,-21.9836,-46.4169,6.15563,4.93968,6.13984,0.458992,-8.10631,1.36208,-1.21589,0.378243,0.0799392,0.156845,-2.1096,0.129702,0.56733,0.0206317,0.187237,-3.52805e-05,0.112337,0.260295,-1.56308,0.0386855,-1.12186,-1.76682,-5.41063,-11.6768,-16.1672,17.0242,-52.1542,-63.1269,-6.8916,-28.5079,-6.16026,14.8468,-0.407718,0.639883,0.0101778,
0.376918,0.0771397,0.154564,-2.11692,0.147114,0.58543,0.0587993,0.0688906,-0.0479493,0.0681969,0.0747156,-0.675958,0.354075,-0.0277268,-0.853888,2.71111,-0.946083,-2.12742,48.1527,-32.2973,-33.3512,6.83339,3.62009,6.80322,0.0601029,-6.89415,0.865908,-1.57415,0.378243,0.0799392,0.156845,-2.1096,0.129702,0.56733,0.0206317,0.187237,-3.52805e-05,0.112337,0.260295,-1.56308,0.0386855,-1.12186,0,0,0,0,0,0,0,-6.8916,-28.5079,-6.16026,14.8468,-0.407718,0.639883,0.0101778,
0.377388,0.0769346,0.155025,-2.11645,0.144715,0.585687,0.0578083,0.066872,-0.0434868,0.0660963,0.0715641,-0.600735,0.289681,-0.046957,-1.26161,2.78906,-1.31293,-1.96964,47.0141,-40.2462,-12.0189,7.01706,3.06509,7.02804,-0.182444,-4.94276,1.08735,-1.44702,0.378243,0.0799392,0.156845,-2.1096,0.129702,0.56733,0.0206317,0.187237,-3.52805e-05,0.112337,0.260295,-1.56308,0.0386855,-1.12186,0,0,0,0,0,0,0,-6.8916,-28.5079,-6.16026,14.8468,-0.407718,0.639883,0.0101778,
0.381689,0.0789727,0.160152,-2.10716,0.102569,0.569685,0.01425,0.0669063,-0.0374498,0.0659659,0.0653969,-0.56952,0.219582,-0.045007,0.0214202,3.77311,-0.0814878,-3.8545,19.5091,-43.8115,1.21874,7.0748,4.25314,7.07469,-0.0520834,-5.90168,-0.312706,-2.66718,0.378243,0.0799392,0.156845,-2.1096,0.129702,0.56733,0.0206317,0.187237,-3.52805e-05,0.112337,0.260295,-1.56308,0.0386855,-1.12186,0,0,0,0,0,0,0,-6.8916,-28.5079,-6.16026,14.8468,-0.407718,0.639883,0.0101778,
0.382194,0.0788826,0.160646,-2.10689,0.0994659,0.568929,0.0141701,0.0661504,-0.0322129,0.0651183,0.0591222,-0.533192,0.15678,-0.0380036,-0.472419,3.27305,-0.529743,-3.92168,22.7055,-39.2513,4.3771,6.21526,3.71646,6.16808,0.12097,-5.42539,-1.01181,-2.35364,0.383487,0.0792668,0.1613,-2.10916,0.0893093,0.592511,0.0530765,0.211903,-0.00277945,0.0465254,-0.0882334,-0.855711,1.26352,2.19135,3.0832,-0.343021,-8.2264,-43.566,88.4216,153.104,414.151,-1.92059,-34.1731,-1.23686,26.3043,0.953671,2.17156,0.225327,
0.382674,0.0788014,0.161116,-2.10666,0.0967555,0.567972,0.0144685,0.064916,-0.0277985,0.0638361,0.0530632,-0.494311,0.101504,-0.0229425,-0.771518,2.75903,-0.801388,-3.78691,24.3001,-34.548,9.41322,5.92917,3.1787,5.86341,0.412174,-4.82654,-1.9402,-1.14949,0.383487,0.0792668,0.1613,-2.10916,0.0893093,0.592511,0.0530765,0.211903,-0.00277945,0.0465254,-0.0882334,-0.855711,1.26352,2.19135,0,0,0,0,0,0,0,-1.92059,-34.1731,-1.23686,26.3043,0.953671,2.17156,0.225327,
0.383134,0.0787231,0.161566,-2.10648,0.0943922,0.566936,0.015089,0.0634341,-0.0241984,0.0623318,0.0470946,-0.454531,0.0552904,-0.00284069,-0.926165,2.25006,-0.940144,-3.73038,24.8626,-28.8832,12.5636,5.88302,2.6617,5.78588,0.482978,-4.44055,-2.07204,-0.699899,0.383487,0.0792668,0.1613,-2.10916,0.0893093,0.592511,0.0530765,0.211903,-0.00277945,0.0465254,-0.0882334,-0.855711,1.26352,2.19135,0,0,0,0,0,0,0,-1.92059,-34.1731,-1.23686,26.3043,0.953671,2.17156,0.225327,
0.386553,0.0788962,0.164218,-2.10683,0.07313,0.60239,0.0553328,0.0627009,-0.0241643,0.061558,0.0469314,-0.414229,0.0452815,0.0250695,-0.458288,0.0213185,-0.483657,-0.101961,25.189,-6.25557,17.4438,5.67516,2.12943,5.57402,0.603625,-3.97867,-2.2786,-0.331275,0.383487,0.0792668,0.1613,-2.10916,0.0893093,0.592511,0.0530765,0.211903,-0.00277945,0.0465254,-0.0882334,-0.855711,1.26352,2.19135,0,0,0,0,0,0,0,-1.92059,-34.1731,-1.23686,26.3043,0.953671,2.17156,0.225327,
0.387007,0.0786963,0.164663,-2.10653,0.0714067,0.60215,0.0566238,0.061522,-0.0243286,0.0603864,0.0449962,-0.374465,0.0302226,0.0523314,-0.73677,-0.102694,-0.732232,-1.20951,24.8522,-9.41176,17.0387,6.03884,1.28867,5.94644,0.852523,-3.27676,-2.27801,-0.0719092,0.385923,0.0796829,0.165311,-2.1076,0.066927,0.614184,0.10461,0.122204,0.00385425,0.0762529,0.176129,-0.818413,0.0371792,0.483408,-11.2124,0.829213,3.71594,33.0453,4.66218,-153.292,-213.492,0.412174,-35.5696,0.913405,23.3408,1.36932,-0.488046,-0.0301054,
0.387446,0.0784992,0.165094,-2.10629,0.0699187,0.601753,0.057613,0.060177,-0.0243912,0.0590709,0.0420031,-0.336774,0.0142547,0.0665944,-0.840636,-0.039123,-0.822213,-1.87069,23.5573,-9.97995,8.91443,5.8005,0.788999,5.71367,0.959045,-2.84788,-2.26304,0.406292,0.385923,0.0796829,0.165311,-2.1076,0.066927,0.614184,0.10461,0.122204,0.00385425,0.0762529,0.176129,-0.818413,0.0371792,0.483408,0,0,0,0,0,0,0,0.412174,-35.5696,0.913405,23.3408,1.36932,-0.488046,-0.0301054,
0.387869,0.0783113,0.16551,-2.1061,0.0686452,0.601292,0.0584263,0.0587339,-0.0242101,0.0576662,0.0384274,-0.301256,-0.0001093,0.0736089,-0.901938,0.113152,-0.877927,-2.23481,22.1983,-8.97751,4.38401,5.62819,0.322751,5.54257,1.01105,-2.46979,-2.01778,0.804039,0.385923,0.0796829,0.165311,-2.1076,0.066927,0.614184,0.10461,0.122204,0.00385425,0.0762529,0.176129,-0.818413,0.0371792,0.483408,0,0,0,0,0,0,0,0.412174,-35.5696,0.913405,23.3408,1.36932,-0.488046,-0.0301054,
0.38841,0.0783362,0.1677,-2.10576,0.0561163,0.614312,0.109649,0.0575119,-0.0253224,0.0564539,0.0357763,-0.269884,-0.00605581,0.0799167,-0.763761,-0.695202,-0.757661,-1.65698,19.6076,-3.71657,3.94239,5.47368,-0.0809351,5.39092,1.06433,-2.09858,-1.83588,1.40831,0.385923,0.0796829,0.165311,-2.1076,0.066927,0.614184,0.10461,0.122204,0.00385425,0.0762529,0.176129,-0.818413,0.0371792,0.483408,0,0,0,0,0,0,0,0.412174,-35.5696,0.913405,23.3408,1.36932,-0.488046,-0.0301054,
0.388815,0.0781228,0.168098,-2.10559,0.0551613,0.614032,0.110521,0.0561158,-0.0255941,0.0550916,0.0328686,-0.239782,-0.0118406,0.0857419,-0.87256,-0.169808,-0.851474,-1.81731,18.8137,-3.61548,3.64076,5.43771,-0.519016,5.34579,1.13733,-1.79471,-1.5378,1.63626,0.390074,0.0799032,0.169156,-2.10353,0.0469187,0.612968,0.0393499,0.037487,0.017737,0.160595,0.0483277,-0.482679,-0.00662061,-2.61854,-10.5896,1.73534,10.5427,-15.9751,41.9668,-5.47498,-387.743,1.63013,-35.4942,1.96077,23.3408,2.03491,0.85137,0.124619,
0.389207,0.0779309,0.168483,-2.10544,0.0543593,0.613717,0.112115,0.0546948,-0.0252734,0.0537089,0.0300435,-0.211876,-0.0173637,0.108452,-0.888099,0.200473,-0.864155,-1.76564,17.4417,-3.45197,14.1936,5.36867,-0.800215,5.27736,1.11778,-1.57937,-1.33372,1.23116,0.390074,0.0799032,0.169156,-2.10353,0.0469187,0.612968,0.0393499,0.037487,0.017737,0.160595,0.0483277,-0.482679,-0.00662061,-2.61854,0,0,0,0,0,0,0,1.63013,-35.4942,1.96077,23.3408,2.03491,0.85137,0.124619,
0.392718,0.0795192,0.171719,-2.10302,0.0406985,0.611755,0.0431648,0.0545554,-0.0228611,0.0534964,0.0257489,-0.180952,-0.0216372,0.0875721,-0.0871196,1.50766,-0.132842,-2.68413,19.3274,-2.67089,-13.0498,4.90471,-1.06531,4.82318,1.00908,-1.15153,-0.76685,1.06382,0.390074,0.0799032,0.169156,-2.10353,0.0469187,0.612968,0.0393499,0.037487,0.017737,0.160595,0.0483277,-0.482679,-0.00662061,-2.61854,0,0,0,0,0,0,0,1.63013,-35.4942,1.96077,23.3408,2.03491,0.85137,0.124619,
0.393129,0.0794154,0.17212,-2.10295,0.0403679,0.611454,0.0431485,0.0539004,-0.0208828,0.0528136,0.0223502,-0.153026,-0.0248302,0.0696495,-0.409377,1.23643,-0.426723,-2.12418,17.4536,-1.99567,-11.2016,4.72864,-1.14419,4.65164,0.982634,-0.982233,-0.731194,1.09966,0.390074,0.0799032,0.169156,-2.10353,0.0469187,0.612968,0.0393499,0.037487,0.017737,0.160595,0.0483277,-0.482679,-0.00662061,-2.61854,0,0,0,0,0,0,0,1.63013,-35.4942,1.96077,23.3408,2.03491,0.85137,0.124619,
0.393522,0.0793145,0.172504,-2.10288,0.040108,0.611164,0.043131,0.0529595,-0.0192296,0.0518676,0.0196858,-0.128918,-0.0271212,0.0552832,-0.588094,1.03324,-0.591245,-1.66529,15.0676,-1.43188,-8.97891,4.63965,-1.22286,4.5615,1.02178,-0.796864,-0.683213,2.03446,0.393331,0.0794751,0.171291,-2.10195,0.0364609,0.612166,0.000903089,0.0169382,-0.0168251,0.15641,0.0243083,-0.234463,-0.00323757,0.757174,-2.56861,-4.32027,-0.523135,-3.00242,31.027,0.42288,421.964,2.89569,-35.9425,3.33742,25.4593,1.55243,1.84655,0.62175,
0.393902,0.079217,0.172876,-2.10281,0.0398882,0.610886,0.0431137,0.0518651,-0.017821,0.05078,0.0176029,-0.108631,-0.0286369,0.0437941,-0.684007,0.880416,-0.679753,-1.30177,12.6795,-0.947279,-7.1807,4.72866,-1.2895,4.64981,1.02824,-0.644446,-0.488365,1.7585,0.393331,0.0794751,0.171291,-2.10195,0.0364609,0.612166,0.000903089,0.0169382,-0.0168251,0.15641,0.0243083,-0.234463,-0.00323757,0.757174,0,0,0,0,0,0,0,2.89569,-35.9425,3.33742,25.4593,1.55243,1.84655,0.62175,
0.395736,0.0787579,0.17364,-2.10141,0.034493,0.611524,0.00100747,0.0517872,-0.0173489,0.0506902,0.0165622,-0.090989,-0.0274408,0.0345671,-0.0486625,0.29503,-0.0561166,-0.650457,11.026,0.747534,-5.7669,4.56012,-1.2607,4.49707,1.00876,-0.345602,-0.363892,-0.0158732,0.393331,0.0794751,0.171291,-2.10195,0.0364609,0.612166,0.000903089,0.0169382,-0.0168251,0.15641,0.0243083,-0.234463,-0.00323757,0.757174,0,0,0,0,0,0,0,2.89569,-35.9425,3.33742,25.4593,1.55243,1.84655,0.62175,
0.396127,0.0786434,0.174023,-2.10132,0.0343427,0.611336,0.000989463,0.0512226,-0.0167433,0.0501324,0.015664,-0.0765494,-0.0266352,0.0272034,-0.352907,0.378501,-0.348648,-0.56138,9.02472,0.503496,-4.6023,4.44322,-1.23194,4.3661,0.992538,-0.31022,-0.353152,-0.0171241,0.393331,0.0794751,0.171291,-2.10195,0.0364609,0.612166,0.000903089,0.0169382,-0.0168251,0.15641,0.0243083,-0.234463,-0.00323757,0.757174,0,0,0,0,0,0,0,2.89569,-35.9425,3.33742,25.4593,1.55243,1.84655,0.62175,
0.396502,0.0785371,0.17439,-2.10122,0.0341917,0.611147,0.000971964,0.0503559,-0.0160514,0.0492824,0.0148877,-0.0650127,-0.0260476,0.0213252,-0.541675,0.43248,-0.53128,-0.485205,7.21045,0.367291,-3.67385,4.33451,-1.22726,4.25365,1.00867,-0.268623,-0.325677,-0.0183564,0.396583,0.0787726,0.173959,-2.102,0.0312699,0.611265,0.0805885,0.0479737,-0.0370611,0.136757,-0.00865655,-0.0854663,-0.0639751,2.28422,3.87945,-2.52949,-2.45654,-4.1206,18.6246,-7.59219,190.88,1.1977,-34.2723,1.91316,28.399,0.966488,3.39104,0.0101778,
0.396864,0.0784383,0.174744,-2.10113,0.0340328,0.610957,0.000954861,0.0493112,-0.0153111,0.0482592,0.0142161,-0.055983,-0.0255794,0.0166326,-0.652921,0.462639,-0.639449,-0.419756,5.64357,0.292609,-2.93288,4.22887,-1.16211,4.14648,1.00844,-0.251725,-0.309016,-0.0192599,0.396583,0.0787726,0.173959,-2.102,0.0312699,0.611265,0.0805885,0.0479737,-0.0370611,0.136757,-0.00865655,-0.0854663,-0.0639751,2.28422,0,0,0,0,0,0,0,1.1977,-34.2723,1.91316,28.399,0.966488,3.39104,0.0101778,
0.399132,0.07807,0.176448,-2.10171,0.0310123,0.609408,0.0811927,0.0500898,-0.0146924,0.0490086,0.0133111,-0.0467821,-0.0272844,0.0128581,0.486631,0.386682,0.468348,-0.565633,5.75058,-1.06563,-2.35909,4.13158,-1.09559,4.04858,1.0106,-0.244464,-0.29372,-0.0198468,0.396583,0.0787726,0.173959,-2.102,0.0312699,0.611265,0.0805885,0.0479737,-0.0370611,0.136757,-0.00865655,-0.0854663,-0.0639751,2.28422,0,0,0,0,0,0,0,1.1977,-34.2723,1.91316,28.399,0.966488,3.39104,0.0101778,
0.39953,0.0779811,0.176838,-2.10163,0.0309028,0.609162,0.0811755,0.0500389,-0.0139765,0.0489509,0.0126272,-0.040165,-0.027999,0.00985513,-0.031824,0.447484,-0.0360593,-0.427422,4.13564,-0.446629,-1.87683,4.04143,-1.03189,3.95841,1.01318,-0.244517,-0.279617,-0.020201,0.396583,0.0787726,0.173959,-2.102,0.0312699,0.611265,0.0805885,0.0479737,-0.0370611,0.136757,-0.00865655,-0.0854663,-0.0639751,2.28422,0,0,0,0,0,0,0,1.1977,-34.2723,1.91316,28.399,0.966488,3.39104,0.0101778,
0.399907,0.077899,0.177206,-2.10155,0.0307641,0.608933,0.0811588,0.0494401,-0.0132357,0.0483598,0.0121081,-0.0355995,-0.0281107,0.00746803,-0.374273,0.462995,-0.369416,-0.324437,2.85345,-0.06981,-1.49194,3.94416,-1.00787,3.85645,1.01757,-0.252943,-0.26117,-0.0203103,0.399601,0.0783439,0.177456,-2.10173,0.0302859,0.609655,0.0662774,0.0751473,0.00615545,0.110926,0.00352059,-0.0100437,-0.031755,-2.1692,3.3967,5.40207,-3.22895,1.52214,9.42782,4.02751,-556.677,0.233646,-36.2441,0.988783,25.5347,0.221249,2.98638,-0.324905,
0.400265,0.0778221,0.177555,-2.10147,0.0305981,0.608718,0.0811427,0.0484933,-0.0125095,0.04743,0.0117121,-0.0326274,-0.0278692,0.00557191,-0.591746,0.453834,-0.581152,-0.247468,1.8576,0.150919,-1.18508,3.8644,-0.953296,3.77737,1.01922,-0.26303,-0.251407,-0.0202948,0.399601,0.0783439,0.177456,-2.10173,0.0302859,0.609655,0.0662774,0.0751473,0.00615545,0.110926,0.00352059,-0.0100437,-0.031755,-2.1692,0,0,0,0,0,0,0,0.233646,-36.2441,0.988783,25.5347,0.221249,2.98638,-0.324905,
0.402643,0.0781791,0.180422,-2.10143,0.0295727,0.608057,0.0654766,0.0485598,-0.0111787,0.0474609,0.0109798,-0.029902,-0.0285088,0.00406187,0.0415536,0.831785,0.0193443,-0.457676,1.70337,-0.399735,-0.943774,3.71543,-0.856521,3.63037,1.02074,-0.291137,-0.238332,-0.0198705,0.399601,0.0783439,0.177456,-2.10173,0.0302859,0.609655,0.0662774,0.0751473,0.00615545,0.110926,0.00352059,-0.0100437,-0.031755,-2.1692,0,0,0,0,0,0,0,0.233646,-36.2441,0.988783,25.5347,0.221249,2.98638,-0.324905,
0.403007,0.0781309,0.180777,-2.10136,0.0293882,0.607819,0.0654617,0.0479516,-0.0101483,0.0468429,0.0104911,-0.028533,-0.0287575,0.002876,-0.380079,0.643998,-0.386266,-0.305478,0.855633,-0.155449,-0.741168,3.64498,-0.813166,3.56111,1.02079,-0.307261,-0.234589,-0.0195106,0.399601,0.0783439,0.177456,-2.10173,0.0302859,0.609655,0.0662774,0.0751473,0.00615545,0.110926,0.00352059,-0.0100437,-0.031755,-2.1692,0,0,0,0,0,0,0,0.233646,-36.2441,0.988783,25.5347,0.221249,2.98638,-0.324905,
0.40335,0.0780823,0.181111,-2.10129,0.0291745,0.60759,0.0654475,0.0469206,-0.00933459,0.0458184,0.0101771,-0.0281708,-0.0287277,0.00194672,-0.644367,0.508567,-0.640309,-0.196252,0.226356,0.0186615,-0.580801,3.57661,-0.772346,3.49404,1.02046,-0.32345,-0.231641,-0.0191118,0.399601,0.0783439,0.177456,-2.10173,0.0302859,0.609655,0.0662774,0.0751473,0.00615545,0.110926,0.00352059,-0.0100437,-0.031755,-2.1692,0,0,0,0,0,0,0,0.233646,-36.2441,0.988783,25.5347,0.221249,2.98638,-0.324905,
0.405186,0.0785734,0.183107,-2.10179,0.0296116,0.607308,-0.0101915,0.0477444,-0.00831839,0.0465805,0.00960973,-0.0263096,-0.0295989,0.00117884,0.514829,0.635127,0.476307,-0.354593,1.16327,-0.544504,-0.479922,3.45083,-0.716268,3.36179,1.02793,-0.355492,-0.224707,-0.0181022,0.4026,0.0786511,0.180587,-2.10199,0.0301453,0.608688,-0.00970335,0.0602768,0.00425972,0.126446,-0.0037217,-0.00799785,-0.025109,-1.25199,-1.85882,-0.236966,1.94007,-0.905286,0.255735,0.830743,114.652,-0.119442,-37.343,0.639662,27.4271,0.233151,2.81426,0.198776,
0.405561,0.0785363,0.183471,-2.10172,0.0294239,0.607055,-0.0102054,0.0475643,-0.00758244,0.0463756,0.00928634,-0.0257389,-0.0300061,0.000593826,-0.11254,0.459966,-0.128086,-0.202116,0.356672,-0.254528,-0.365636,3.38675,-0.68105,3.29916,1.02724,-0.370731,-0.225315,-0.0175466,0.4026,0.0786511,0.180587,-2.10199,0.0301453,0.608688,-0.00970335,0.0602768,0.00425972,0.126446,-0.0037217,-0.00799785,-0.025109,-1.25199,0,0,0,0,0,0,0,-0.119442,-37.343,0.639662,27.4271,0.233151,2.81426,0.198776,
0.405908,0.0784975,0.183809,-2.10165,0.0292031,0.606813,-0.0102185,0.0467382,-0.00703581,0.0455482,0.00912919,-0.0261104,-0.0300593,0.000149255,-0.516315,0.341644,-0.517126,-0.0982192,-0.23218,-0.033274,-0.277857,3.32364,-0.647062,3.23754,1.02653,-0.384871,-0.225969,-0.0169878,0.4026,0.0786511,0.180587,-2.10199,0.0301453,0.608688,-0.00970335,0.0602768,0.00425972,0.126446,-0.0037217,-0.00799785,-0.025109,-1.25199,0,0,0,0,0,0,0,-0.119442,-37.343,0.639662,27.4271,0.233151,2.81426,0.198776,
0.406233,0.078458,0.184125,-2.10158,0.0289533,0.60658,-0.0102307,0.0455166,-0.00661643,0.0443401,0.00908426,-0.0271354,-0.0298655,-0.000185268,-0.763506,0.262114,-0.755032,-0.0280836,-0.640627,0.121167,-0.209076,3.26132,-0.614278,3.17669,1.02595,-0.398471,-0.227697,-0.0163777,0.4026,0.0786511,0.180587,-2.10199,0.0301453,0.608688,-0.00970335,0.0602768,0.00425972,0.126446,-0.0037217,-0.00799785,-0.025109,-1.25199,0,0,0,0,0,0,0,-0.119442,-37.343,0.639662,27.4271,0.233151,2.81426,0.198776,
0.4082,0.0785571,0.185925,-2.10169,0.0301166,0.607664,0.0309453,0.0459506,-0.00636551,0.0447436,0.00916903,-0.025984,-0.0292438,-0.000455016,0.271279,0.156824,0.252149,0.0529796,0.719578,0.388537,-0.168593,3.1927,-0.603628,3.10207,1.02695,-0.412922,-0.227585,-0.0158141,0.405807,0.0787274,0.183598,-2.102,0.0301322,0.608596,0.0303146,0.0627943,0.000500757,0.117986,0.00150801,-0.0026995,0.00220142,2.25946,0.314693,-0.469871,-1.0575,0.653714,0.662293,3.4138,438.93,0.0551182,-36.1687,0.762648,26.5027,0.226742,2.39037,0.131027,
0.40855,0.0785138,0.186265,-2.10161,0.0298986,0.607451,0.0309339,0.0455109,-0.00617418,0.0442974,0.00927877,-0.0262358,-0.0287087,-0.000649228,-0.274861,0.119578,-0.278832,0.0685929,-0.157348,0.334436,-0.121382,3.13148,-0.572716,3.04231,1.02668,-0.425046,-0.229759,-0.0151619,0.405807,0.0787274,0.183598,-2.102,0.0301322,0.608596,0.0303146,0.0627943,0.000500757,0.117986,0.00150801,-0.0026995,0.00220142,2.25946,0,0,0,0,0,0,0,0.0551182,-36.1687,0.762648,26.5027,0.226742,2.39037,0.131027,
0.408874,0.0784712,0.18658,-2.10153,0.0296425,0.607241,0.0309233,0.0445123,-0.00600509,0.0433087,0.00939842,-0.0273906,-0.0282065,-0.00078399,-0.624102,0.105683,-0.617934,0.0747817,-0.721761,0.313889,-0.0842263,3.07062,-0.542538,2.9829,1.02658,-0.436359,-0.231294,-0.0145193,0.405807,0.0787274,0.183598,-2.102,0.0301322,0.608596,0.0303146,0.0627943,0.000500757,0.117986,0.00150801,-0.0026995,0.00220142,2.25946,0,0,0,0,0,0,0,0.0551182,-36.1687,0.762648,26.5027,0.226742,2.39037,0.131027,
0.409176,0.0784298,0.186874,-2.10145,0.0293542,0.607035,0.0309136,0.0431782,-0.00583843,0.0419948,0.00951946,-0.0291197,-0.0277171,-0.000871012,-0.833822,0.104165,-0.821183,0.07565,-1.0807,0.305845,-0.0543888,3.00999,-0.513169,2.92367,1.02678,-0.447718,-0.23322,-0.0138313,0.405807,0.0787274,0.183598,-2.102,0.0301322,0.608596,0.0303146,0.0627943,0.000500757,0.117986,0.00150801,-0.0026995,0.00220142,2.25946,0,0,0,0,0,0,0,0.0551182,-36.1687,0.762648,26.5027,0.226742,2.39037,0.131027,
0.411293,0.0786166,0.189014,-2.10147,0.0295006,0.607846,0.0754286,0.0438974,-0.0056594,0.0426687,0.00959519,-0.0285789,-0.0271197,-0.000958338,0.449532,0.11189,0.421162,0.0473259,0.338009,0.37342,-0.0545791,2.9542,-0.503348,2.86187,1.02618,-0.459625,-0.234241,-0.013194,0.408871,0.0787562,0.18666,-2.10184,0.030089,0.608638,0.0755828,0.0689255,0.00342999,0.112957,0.00734193,-0.00582945,0.0028049,-0.261509,0.766393,0.366154,-0.628621,0.72924,-0.391243,0.0754354,-315.121,-0.424923,-36.3432,0.43733,25.1102,0.312802,2.13769,-0.311172,
0.411633,0.0785772,0.189343,-2.10139,0.0292441,0.607647,0.0754194,0.0436161,-0.00551329,0.0423734,0.0096853,-0.0292765,-0.0266667,-0.000997643,-0.175856,0.0913197,-0.184563,0.0563183,-0.435979,0.283128,-0.0245652,2.89374,-0.475324,2.80273,1.02697,-0.471383,-0.23516,-0.0124695,0.408871,0.0787562,0.18666,-2.10184,0.030089,0.608638,0.0755828,0.0689255,0.00342999,0.112957,0.00734193,-0.00582945,0.0028049,-0.261509,0,0,0,0,0,0,0,-0.424923,-36.3432,0.43733,25.1102,0.312802,2.13769,-0.311172,
0.411945,0.0785389,0.189646,-2.10131,0.0289465,0.607451,0.0754112,0.0426946,-0.00536801,0.0414581,0.00977722,-0.0308593,-0.0262426,-0.00100272,-0.575916,0.0908009,-0.572078,0.0574524,-0.989272,0.265019,-0.00317203,2.83323,-0.447859,2.7435,1.02808,-0.483556,-0.23469,-0.0117562,0.408871,0.0787562,0.18666,-2.10184,0.030089,0.608638,0.0755828,0.0689255,0.00342999,0.112957,0.00734193,-0.00582945,0.0028049,-0.261509,0,0,0,0,0,0,0,-0.424923,-36.3432,0.43733,25.1102,0.312802,2.13769,-0.311172,
0.412234,0.0785023,0.189926,-2.10123,0.0286113,0.607259,0.075404,0.0413862,-0.00520889,0.0401682,0.00986489,-0.0330694,-0.0257907,-0.000981666,-0.817771,0.0994468,-0.806174,0.054795,-1.38129,0.282469,0.0131574,2.77262,-0.421066,2.68411,1.02957,-0.497211,-0.233814,-0.0109941,0.408871,0.0787562,0.18666,-2.10184,0.030089,0.608638,0.0755828,0.0689255,0.00342999,0.112957,0.00734193,-0.00582945,0.0028049,-0.261509,0,0,0,0,0,0,0,-0.424923,-36.3432,0.43733,25.1102,0.312802,2.13769,-0.311172,
0.41125,0.0786423,0.188972,-2.10146,0.0293302,0.607875,0.0754412,0.0421485,-0.00498828,0.0408985,0.00989392,-0.0330547,-0.0252681,-0.000978773,0.47647,0.137884,0.456428,0.0181458,0.00919509,0.326603,0.00180818,2.71016,-0.415511,2.61537,1.02715,-0.514067,-0.235171,-0.0101821,0.411466,0.0788013,0.189774,-2.10185,0.0299019,0.608591,0.020709,0.0495774,-0.00522458,0.117499,-0.00553065,-0.0145923,0.000737371,-1.68348,-2.41851,-1.08182,0.567687,-1.60907,-1.09535,-0.258442,-177.746,-0.29797,-35.7442,0.461134,26.705,0.343014,2.64855,0.104477,
0.411576,0.07861,0.189288,-2.10138,0.0290113,0.607693,0.0754348,0.0418728,-0.00479832,0.0406199,0.00994045,-0.0344144,-0.0247733,-0.00094304,-0.172309,0.118723,-0.174095,0.0290775,-0.849827,0.309291,0.0223332,2.64927,-0.38987,2.55558,1.02941,-0.531347,-0.231669,-0.00937798,0.411466,0.0788013,0.189774,-2.10185,0.0299019,0.608591,0.020709,0.0495774,-0.00522458,0.117499,-0.00553065,-0.0145923,0.000737371,-1.68348,0,0,0,0,0,0,0,-0.29797,-35.7442,0.461134,26.705,0.343014,2.64855,0.104477,
0.411873,0.0785791,0.189576,-2.1013,0.0286415,0.607517,0.0754295,0.0409341,-0.00460969,0.0396965,0.00999279,-0.0367767,-0.0242061,-0.00088543,-0.58671,0.117897,-0.577136,0.0327163,-1.47643,0.354456,0.036006,2.58822,-0.364714,2.49561,1.03207,-0.550658,-0.226072,-0.00858305,0.411466,0.0788013,0.189774,-2.10185,0.0299019,0.608591,0.020709,0.0495774,-0.00522458,0.117499,-0.00553065,-0.0145923,0.000737371,-1.68348,0,0,0,0,0,0,0,-0.29797,-35.7442,0.461134,26.705,0.343014,2.64855,0.104477,
0.413694,0.0786761,0.191939,-2.10151,0.0282876,0.607712,0.0201372,0.0411386,-0.00435366,0.0398695,0.00992103,-0.0394345,-0.023797,-0.000826731,0.127809,0.160017,0.108142,-0.0448513,-1.66111,0.255685,0.0366872,2.4656,-0.316561,2.37483,1.03651,-0.62557,-0.219024,-0.00690654,0.411466,0.0788013,0.189774,-2.10185,0.0299019,0.608591,0.020709,0.0495774,-0.00522458,0.117499,-0.00553065,-0.0145923,0.000737371,-1.68348,0,0,0,0,0,0,0,-0.29797,-35.7442,0.461134,26.705,0.343014,2.64855,0.104477,
0.413996,0.0786509,0.19223,-2.10144,0.0278308,0.607548,0.0201339,0.0404592,-0.00411221,0.0391881,0.00990386,-0.0429685,-0.0231519,-0.000742191,-0.424635,0.150908,-0.425899,-0.0107318,-2.20878,0.403205,0.052837,2.40629,-0.311165,2.31007,1.0353,-0.654211,-0.210594,-0.00599897,0.41385,0.078874,0.192356,-2.10181,0.0292427,0.608565,0.0275431,0.0222982,-8.16839e-05,0.118937,0.00053625,-0.0282249,-7.42332e-05,1.50429,-3.4099,0.642862,0.179794,0.758363,-1.70408,-0.101451,398.471,-0.0202602,-35.6688,0.711073,26.1298,0.471188,2.74834,0.305893,
0.414271,0.0786276,0.192495,-2.10136,0.0273204,0.607398,0.0201319,0.0392342,-0.00387178,0.037979,0.00991938,-0.0471336,-0.022277,-0.000643774,-0.765592,0.150268,-0.755679,0.0096973,-2.60314,0.546834,0.061511,2.34616,-0.28794,2.25084,1.03965,-0.685853,-0.197544,-0.00510682,0.41385,0.078874,0.192356,-2.10181,0.0292427,0.608565,0.0275431,0.0222982,-8.16839e-05,0.118937,0.00053625,-0.0282249,-7.42332e-05,1.50429,0,0,0,0,0,0,0,-0.0202602,-35.6688,0.711073,26.1298,0.471188,2.74834,0.305893,
0.414523,0.0786064,0.192739,-2.10127,0.0267609,0.607262,0.020131,0.0376981,-0.00362691,0.0364692,0.00995592,-0.0516945,-0.0212109,-0.000537231,-0.96007,0.153045,-0.943623,0.022841,-2.85061,0.666305,0.0665891,2.28689,-0.265128,2.19244,1.04437,-0.720615,-0.183393,-0.00415463,0.41385,0.078874,0.192356,-2.10181,0.0292427,0.608565,0.0275431,0.0222982,-8.16839e-05,0.118937,0.00053625,-0.0282249,-7.42332e-05,1.50429,0,0,0,0,0,0,0,-0.0202602,-35.6688,0.711073,26.1298,0.471188,2.74834,0.305893,
0.415699,0.078801,0.194153,-2.10146,0.026784,0.607682,0.0280008,0.0374041,-0.00335923,0.0361659,0.00994072,-0.0590767,-0.0213717,-0.00043768,-0.183779,0.167299,-0.189582,-0.00950183,-4.61384,-0.100525,0.0622197,2.22938,-0.248203,2.13498,1.02998,-0.976351,-0.249935,-0.00337697,0.41385,0.078874,0.192356,-2.10181,0.0292427,0.608565,0.0275431,0.0222982,-8.16839e-05,0.118937,0.00053625,-0.0282249,-7.42332e-05,1.50429,0,0,0,0,0,0,0,-0.0202602,-35.6688,0.711073,26.1298,0.471188,2.74834,0.305893,
0.415962,0.0787835,0.194407,-2.10138,0.0260143,0.60752,0.0280013,0.0365037,-0.0031243,0.0352723,0.00994973,-0.0665053,-0.0211614,-0.000336242,-0.562729,0.146831,-0.558498,0.00563409,-4.64287,0.131434,0.0633988,2.17818,-0.240833,2.07914,1.03703,-1.01756,-0.228068,-0.00238255,0.416118,0.0790427,0.194354,-2.10187,0.0279589,0.608453,0.0725523,0.0405269,0.0131293,0.0794551,-0.00140232,-0.0470067,-0.0036517,0.27378,2.27859,1.65138,-4.93525,-0.242322,-2.34772,-0.447184,-153.814,0.134464,-36.4424,0.988783,26.951,0.404354,2.95983,-0.190323,
0.416204,0.0787674,0.194639,-2.1013,0.0251987,0.60737,0.0280026,0.0352362,-0.0029006,0.0340224,0.00998037,-0.073595,-0.0206626,-0.000236321,-0.792153,0.139811,-0.781181,0.0191458,-4.43111,0.311765,0.0624501,2.12614,-0.219168,2.02805,1.04354,-1.06021,-0.206123,-0.0013853,0.416118,0.0790427,0.194354,-2.10187,0.0279589,0.608453,0.0725523,0.0405269,0.0131293,0.0794551,-0.00140232,-0.0470067,-0.0036517,0.27378,0,0,0,0,0,0,0,0.134464,-36.4424,0.988783,26.951,0.404354,2.95983,-0.190323,
0.416427,0.0787531,0.194853,-2.10122,0.0243518,0.607232,0.0280046,0.0337695,-0.00267951,0.03258,0.0100329,-0.0800463,-0.0199886,-0.000140281,-0.916744,0.138179,-0.901498,0.0328453,-4.03205,0.421255,0.0600251,2.07701,-0.19769,1.97998,1.05034,-1.10087,-0.185257,-0.000346991,0.416118,0.0790427,0.194354,-2.10187,0.0279589,0.608453,0.0725523,0.0405269,0.0131293,0.0794551,-0.00140232,-0.0470067,-0.0036517,0.27378,0,0,0,0,0,0,0,0.134464,-36.4424,0.988783,26.951,0.404354,2.95983,-0.190323,
0.417782,0.0791291,0.195966,-2.10149,0.0247832,0.605236,0.0726353,0.0337009,-0.00239537,0.0325166,0.0099831,-0.0835577,-0.0346942,-6.41822e-05,-0.0428736,0.177588,-0.0396161,-0.0311403,-2.1946,-9.19098,0.047562,2.21548,-0.196842,2.12335,0.904528,-1.00189,-1.1332,-0.000763872,0.416118,0.0790427,0.194354,-2.10187,0.0279589,0.608453,0.0725523,0.0405269,0.0131293,0.0794551,-0.00140232,-0.0470067,-0.0036517,0.27378,0,0,0,0,0,0,0,0.134464,-36.4424,0.988783,26.951,0.404354,2.95983,-0.190323,
0.418029,0.0791167,0.196204,-2.10141,0.0239658,0.604488,0.0726377,0.0331279,-0.00222492,0.0319607,0.00991305,-0.0872808,-0.0464606,8.01453e-06,-0.358104,0.106534,-0.347431,-0.0437807,-2.32694,-7.35402,0.045123,2.18515,-0.185892,2.08785,0.918248,-1.05932,-1.08388,0.000583689,0.417992,0.0793703,0.196364,-2.10192,0.0251644,0.608207,0.0338947,0.0282144,0.00528192,0.0825334,-0.00082688,-0.105195,-0.00775105,-1.27134,-1.53907,-0.980925,0.384788,0.0719305,-7.27355,-0.512419,-193.14,0.0551182,-36.3432,0.838026,26.6772,0.312802,2.73461,-0.0026396,
0.418259,0.0791042,0.196425,-2.10133,0.0231286,0.603746,0.0726403,0.0322458,-0.00209425,0.0311023,0.00984755,-0.0907548,-0.0557206,7.15796e-05,-0.551305,0.0816679,-0.536533,-0.0409341,-2.17126,-5.78751,0.0397282,2.15831,-0.168128,2.06249,0.930587,-1.10993,-1.03731,0.0017377,0.417992,0.0793703,0.196364,-2.10192,0.0251644,0.608207,0.0338947,0.0282144,0.00528192,0.0825334,-0.00082688,-0.105195,-0.00775105,-1.27134,0,0,0,0,0,0,0,0.0551182,-36.3432,0.838026,26.6772,0.312802,2.73461,-0.0026396,
0.418474,0.0790924,0.196633,-2.10126,0.0222883,0.603011,0.0726429,0.0311878,-0.0019689,0.0300711,0.00980815,-0.0936101,-0.0629545,0.000122118,-0.661278,0.0783457,-0.644463,-0.0246249,-1.78458,-4.52116,0.0315864,2.13444,-0.150941,2.0404,0.943112,-1.14614,-0.997147,0.00279634,0.417992,0.0793703,0.196364,-2.10192,0.0251644,0.608207,0.0338947,0.0282144,0.00528192,0.0825334,-0.00082688,-0.105195,-0.00775105,-1.27134,0,0,0,0,0,0,0,0.0551182,-36.3432,0.838026,26.6772,0.312802,2.73461,-0.0026396,
0.419538,0.0789466,0.197887,-2.1014,0.0261581,0.60025,0.0334478,0.0315487,-0.0043731,0.0306429,0.00954472,-0.0654954,-0.0956893,9.1552e-05,0.225577,-1.50262,0.357373,-0.164646,17.5717,-20.4592,-0.0191036,2.84687,-1.05477,2.83706,0.302041,0.660961,-3.34837,-0.00192891,0.417992,0.0793703,0.196364,-2.10192,0.0251644,0.608207,0.0338947,0.0282144,0.00528192,0.0825334,-0.00082688,-0.105195,-0.00775105,-1.27134,0,0,0,0,0,0,0,0.0551182,-36.3432,0.838026,26.6772,0.312802,2.73461,-0.0026396,
0.419792,0.0788388,0.198141,-2.10135,0.0265152,0.598486,0.033449,0.0315969,-0.00619392,0.0308748,0.00894272,-0.0434699,-0.120627,0.000103073,0.0301464,-1.13802,0.14494,-0.376252,13.7659,-15.5861,0.00720044,2.82398,-1.02784,2.81828,0.355611,0.571033,-3.07,-0.000585846,0.417992,0.0793703,0.196364,-2.10192,0.0251644,0.608207,0.0338947,0.0282144,0.00528192,0.0825334,-0.00082688,-0.105195,-0.00775105,-1.27134,0,0,0,0,0,0,0,0.0551182,-36.3432,0.838026,26.6772,0.312802,2.73461,-0.0026396,
0.420039,0.0787376,0.198389,-2.10131,0.0268322,0.596806,0.0334527,0.0314545,-0.00748513,0.0308878,0.00816561,-0.0268514,-0.138519,0.000175203,-0.0889982,-0.807004,0.00808834,-0.485692,10.3866,-11.1823,0.0450817,2.80339,-1.0164,2.80161,0.404293,0.500326,-2.81444,0.000414497,0.417992,0.0793703,0.196364,-2.10192,0.0251644,0.608207,0.0338947,0.0282144,0.00528192,0.0825334,-0.00082688,-0.105195,-0.00775105,-1.27134,0,0,0,0,0,0,0,0.0551182,-36.3432,0.838026,26.6772,0.312802,2.73461,-0.0026396,
0.419558,0.0790367,0.197879,-2.1015,0.0289208,0.599898,0.0334355,0.0320473,-0.00814247,0.031447,0.00736576,0.00320318,-0.156645,0.000109351,0.370469,-0.410838,0.349543,-0.499908,18.7841,-11.3292,-0.0411579,3.32212,-0.410444,3.2664,-0.0957232,1.65041,-3.70668,-0.00231783,0.417992,0.0793703,0.196364,-2.10192,0.0251644,0.608207,0.0338947,0.0282144,0.00528192,0.0825334,-0.00082688,-0.105195,-0.00775105,-1.27134,0,0,0,0,0,0,0,0.0551182,-36.3432,0.838026,26.6772,0.312802,2.73461,-0.0026396,
0.419825,0.0789524,0.198141,-2.10149,0.0298343,0.598172,0.0334296,0.0323294,-0.00862276,0.031708,0.00606113,0.0253992,-0.168466,-5.91292e-05,0.176322,-0.300183,0.16309,-0.815393,13.8725,-7.38802,-0.1053,3.27062,-0.493322,3.20744,-0.0514217,1.51753,-3.32728,-0.00103986,0.417992,0.0793703,0.196364,-2.10192,0.0251644,0.608207,0.0338947,0.0282144,0.00528192,0.0825334,-0.00082688,-0.105195,-0.00775105,-1.27134,0,0,0,0,0,0,0,0.0551182,-36.3432,0.838026,26.6772,0.312802,2.73461,-0.0026396,
0.420091,0.0788766,0.198402,-2.1015,0.0305357,0.596612,0.0334264,0.032511,-0.00879234,0.0318723,0.0045793,0.0378555,-0.173771,-0.00012803,0.113493,-0.105983,0.102671,-0.92614,7.78517,-3.31564,-0.0430631,3.2096,-0.565006,3.14131,-0.0117938,1.36612,-2.96912,0.0017061,0.417992,0.0793703,0.196364,-2.10192,0.0251644,0.608207,0.0338947,0.0282144,0.00528192,0.0825334,-0.00082688,-0.105195,-0.00775105,-1.27134,0,0,0,0,0,0,0,0.0551182,-36.3432,0.838026,26.6772,0.312802,2.73461,-0.0026396,
0.420354,0.0788088,0.198658,-2.10152,0.0310697,0.595222,0.0334219,0.0325695,-0.00872882,0.0319148,0.00311105,0.043633,-0.173773,-0.000213468,0.0365773,0.0396991,0.0265791,-0.91766,3.61092,-0.00108741,-0.0533985,3.13181,-0.640453,3.06018,0.0249698,1.27185,-2.62563,0.00372419,0.419664,0.079489,0.198356,-2.10187,0.0215481,0.606341,0.0441213,0.0117029,0.00698301,0.0898554,-0.00122148,-0.104791,-0.0657829,1.18571,-2.06394,0.212636,0.915245,-0.0493253,0.050558,-7.25398,307.131,0.134464,-35.8949,0.663466,25.8798,0.54443,1.93902,0.14476,
0.421056,0.0791456,0.199717,-2.10173,0.0256565,0.597244,0.0444108,0.0326047,-0.00930704,0.0320376,0.001905,0.0543374,-0.185197,-0.000322469,0.0219782,-0.361392,0.0767771,-0.753777,6.69023,-7.14032,-0.0681259,3.35139,-0.438055,3.3271,-0.41006,1.97179,-3.86842,-0.000774586,0.419664,0.079489,0.198356,-2.10187,0.0215481,0.606341,0.0441213,0.0117029,0.00698301,0.0898554,-0.00122148,-0.104791,-0.0657829,1.18571,0,0,0,0,0,0,0,0.134464,-35.8949,0.663466,25.8798,0.54443,1.93902,0.14476,
0.421317,0.0790548,0.199976,-2.10177,0.0262993,0.595528,0.044405,0.0326035,-0.00971705,0.0321143,0.000499151,0.0595397,-0.191045,-0.000400662,-0.000732687,-0.256255,0.0479303,-0.878658,3.25148,-3.65471,-0.0488704,3.16643,-0.71508,3.1366,-0.434397,1.70784,-3.399,-0.00907329,0.419664,0.079489,0.198356,-2.10187,0.0215481,0.606341,0.0441213,0.0117029,0.00698301,0.0898554,-0.00122148,-0.104791,-0.0657829,1.18571,0,0,0,0,0,0,0,0.134464,-35.8949,0.663466,25.8798,0.54443,1.93902,0.14476,
0.421578,0.0789688,0.200236,-2.10182,0.0267867,0.593962,0.0444017,0.0326034,-0.00992261,0.0321772,-0.000882988,0.0598171,-0.192,-0.000404472,-4.86932e-05,-0.128474,0.0392723,-0.863837,0.173367,-0.596697,-0.00238118,3.05349,-0.834588,3.00498,-0.382257,1.1961,-2.87026,-0.010425,0.419664,0.079489,0.198356,-2.10187,0.0215481,0.606341,0.0441213,0.0117029,0.00698301,0.0898554,-0.00122148,-0.104791,-0.0657829,1.18571,0,0,0,0,0,0,0,0.134464,-35.8949,0.663466,25.8798,0.54443,1.93902,0.14476,
0.421838,0.0788881,0.200494,-2.10188,0.0271435,0.592544,0.0444003,0.0325845,-0.00995676,0.0322071,-0.00212259,0.0567742,-0.189052,-0.00035942,-0.0118445,-0.0213444,0.0187215,-0.774753,-1.90179,1.84225,0.0281576,2.98665,-0.990818,2.94432,-0.328948,0.973777,-2.46014,-0.0106606,0.421324,0.0793901,0.200211,-2.1016,0.0226354,0.598054,0.053661,0.0505583,-0.00613381,0.0578247,-0.00613392,0.120315,-0.305149,-0.742416,4.85692,-1.6396,-4.00383,-0.614054,28.1382,-29.9208,-241.015,1.37622,-35.0459,1.63942,24.6103,0.874935,1.67351,-0.123489,
