xiao-wang007/linearmpc_panda/paper_data/panda_inverse_dynamics_controller_error_match_to_start_low_pass_acceleration/3/trajectory.csv
Commanded Joint 0 Position,Commanded Joint 1 Position,Commanded Joint 2 Position,Commanded Joint 3 Position,Commanded Joint 4 Position,Commanded Joint 5 Position,Commanded Joint 6 Position,Commanded Joint 0 Velocity,Commanded Joint 1 Velocity,Commanded Joint 2 Velocity,Commanded Joint 3 Velocity,Commanded Joint 4 Velocity,Commanded Joint 5 Velocity,Commanded Joint 6 Velocity,Commanded Joint 0 Acceleration,Commanded Joint 1 Acceleration,Commanded Joint 2 Acceleration,Commanded Joint 3 Acceleration,Commanded Joint 4 Acceleration,Commanded Joint 5 Acceleration,Commanded Joint 6 Acceleration,Commanded Joint 0 Torque,Commanded Joint 1 Torque,Commanded Joint 2 Torque,Commanded Joint 3 Torque,Commanded Joint 4 Torque,Commanded Joint 5 Torque,Commanded Joint 6 Torque,Actual Joint 0 Position,Actual Joint 1 Position,Actual Joint 2 Position,Actual Joint 3 Position,Actual Joint 4 Position,Actual Joint 5 Position,Actual Joint 6 Position,Actual Joint 0 Velocity,Actual Joint 1 Velocity,Actual Joint 2 Velocity,Actual Joint 3 Velocity,Actual Joint 4 Velocity,Actual Joint 5 Velocity,Actual Joint 6 Velocity,Actual Joint 0 Acceleration,Actual Joint 1 Acceleration,Actual Joint 2 Acceleration,Actual Joint 3 Acceleration,Actual Joint 4 Acceleration,Actual Joint 5 Acceleration,Actual Joint 6 Acceleration,Actual Joint 0 Torque,Actual Joint 1 Torque,Actual Joint 2 Torque,Actual Joint 3 Torque,Actual Joint 4 Torque,Actual Joint 5 Torque,Actual Joint 6 Torque,
-0.0756012,-0.148553,0.0266895,-1.90167,0.0189789,0.245204,-0.0508368,0.000785411,0.0174449,0.00112643,-0.0350956,-0.00554555,0.0507989,-0.000379343,0.490882,10.903,0.704019,-21.9348,-3.46597,31.7493,-0.237089,0.0566812,19.6892,0.334818,-24.4532,-0.654946,1.80409,-0.0237951,-0.0756861,-0.149267,0.026608,-1.89844,0.0193898,0.239685,-0.0507838,-0.00121286,-0.000851648,-0.000698136,-0.000571931,0.00144717,5.52749e-05,0.000711957,0,0,0,0,0,0,0,-0.0440639,-30.1265,-0.463243,27.4271,0.960079,3.10631,-0.0905302,
-0.0756969,-0.149273,0.0265958,-1.89844,0.01939,0.239685,-0.050783,0.000565311,0.0139392,0.000829847,-0.0280547,-0.00448741,0.0406753,-0.000301255,-0.137562,-2.19103,-0.185365,4.40057,0.661336,-6.3273,0.0488049,0.0509967,20.13,0.324513,-24.3695,-0.655263,1.55322,-0.0222775,-0.0756861,-0.149267,0.026608,-1.89844,0.0193898,0.239685,-0.0507838,-0.00121286,-0.000851648,-0.000698136,-0.000571931,0.00144717,5.52749e-05,0.000711957,0,0,0,0,0,0,0,-0.0440639,-30.1265,-0.463243,27.4271,0.960079,3.10631,-0.0905302,
-0.0756988,-0.149273,0.0265937,-1.89844,0.0193876,0.239687,-0.050783,0.000405067,0.0111479,0.000610388,-0.0224248,-0.00365075,0.0325999,-0.000239781,-0.100153,-1.74459,-0.137162,3.51868,0.522914,-5.04709,0.0384214,0.0438263,20.7018,0.312801,-24.2614,-0.654757,1.20568,-0.0203074,-0.0756861,-0.149267,0.026608,-1.89844,0.0193898,0.239685,-0.0507838,-0.00121286,-0.000851648,-0.000698136,-0.000571931,0.00144717,5.52749e-05,0.000711957,0,0,0,0,0,0,0,-0.0440639,-30.1265,-0.463243,27.4271,0.960079,3.10631,-0.0905302,
-0.0757002,-0.149273,0.026592,-1.89844,0.0193852,0.23969,-0.050783,0.000288206,0.00892389,0.000447381,-0.0179238,-0.00297961,0.0261536,-0.000191182,-0.073038,-1.38998,-0.101879,2.81314,0.41946,-4.02895,0.0303742,0.0379169,21.2275,0.303319,-24.0932,-0.652682,0.821095,-0.0183097,-0.075686,-0.14921,0.0266154,-1.89852,0.0193848,0.239687,-0.050786,-0.000279263,0.000370857,0.00121837,-0.00072725,0.000525123,0.000601639,0.00582362,0.116699,0.152813,0.239564,-0.0194148,-0.115256,0.0682955,0.638958,-0.0440639,-30.0789,-0.510851,27.4271,1.01501,3.07976,-0.0703886,
-0.0756651,-0.148874,0.0266399,-1.89913,0.0192055,0.239926,-0.0507794,0.000752421,0.0155453,0.000971449,-0.0297959,-0.00686569,0.0268844,1.35616e-05,0.290134,4.1384,0.327542,-7.4201,-2.4288,0.456737,0.127965,3.80911e-07,25.8404,0.281924,-23.3568,-1.06614,-2.40335,0.0016089,-0.075686,-0.14921,0.0266154,-1.89852,0.0193848,0.239687,-0.050786,-0.000279263,0.000370857,0.00121837,-0.00072725,0.000525123,0.000601639,0.00582362,0,0,0,0,0,0,0,-0.0440639,-30.0789,-0.510851,27.4271,1.01501,3.07976,-0.0703886,
-0.0757175,-0.148517,0.0266126,-1.89938,0.0200663,0.239255,-0.0507954,-0.000706499,0.0213592,9.3758e-05,-0.0300044,0.0160273,0.00473862,-0.000390642,-0.911825,3.63368,-0.548557,-0.130289,14.3081,-13.8411,-0.252627,0.490625,0.205276,0.482895,-0.284639,3.34754,-1.9114,-0.00176131,-0.075686,-0.14921,0.0266154,-1.89852,0.0193848,0.239687,-0.050786,-0.000279263,0.000370857,0.00121837,-0.00072725,0.000525123,0.000601639,0.00582362,0,0,0,0,0,0,0,-0.0440639,-30.0789,-0.510851,27.4271,1.01501,3.07976,-0.0703886,
-0.0757853,-0.148226,0.0265567,-1.89953,0.0215571,0.238192,-0.0508057,-0.00226093,0.024369,-0.00132281,-0.0276868,0.050092,-0.0227722,-0.000568644,-0.971522,1.8811,-0.885353,1.44853,21.2905,-17.1943,-0.111251,0.484365,0.201185,0.476373,-0.282067,3.318,-1.8959,-0.00166842,-0.075686,-0.14921,0.0266154,-1.89852,0.0193848,0.239687,-0.050786,-0.000279263,0.000370857,0.00121837,-0.00072725,0.000525123,0.000601639,0.00582362,0,0,0,0,0,0,0,-0.0440639,-30.0789,-0.510851,27.4271,1.01501,3.07976,-0.0703886,
-0.07585,-0.147999,0.0264962,-1.89964,0.0234231,0.236928,-0.0508115,-0.00342762,0.0251552,-0.00257104,-0.0249363,0.0867228,-0.0498177,-0.000599313,-0.729179,0.491365,-0.780146,1.71906,22.8942,-16.9035,-0.0191681,0.47688,0.225524,0.467051,-0.274203,3.29002,-1.87353,-0.00164624,-0.0756829,-0.148392,0.0266299,-1.89909,0.0193866,0.239985,-0.050786,0.000364818,0.0603552,0.00534923,-0.0326848,-0.0036311,0.022284,0.0013021,0.0805102,7.49805,0.516358,-3.9947,-0.519528,2.71029,-0.56519,-0.0440639,-23.763,-0.463243,21.3968,1.01501,2.11114,-0.0703886,
-0.0756513,-0.147687,0.0266697,-1.89989,0.0191698,0.240217,-0.0507822,-0.00195181,0.037749,-0.00106239,-0.0401016,0.0639576,-0.034041,-0.000382799,0.922379,7.87114,0.942904,-9.47836,-14.2283,9.86048,0.135321,-0.000560447,25.8686,0.279855,-23.3513,-1.06576,-2.39667,0.00157656,-0.0756829,-0.148392,0.0266299,-1.89909,0.0193866,0.239985,-0.050786,0.000364818,0.0603552,0.00534923,-0.0326848,-0.0036311,0.022284,0.0013021,0,0,0,0,0,0,0,-0.0440639,-23.763,-0.463243,21.3968,1.01501,2.11114,-0.0703886,
-0.075789,-0.14702,0.0266032,-1.90005,0.0221818,0.237264,-0.0508332,-0.00500361,0.0468783,-0.00251237,-0.0361376,0.126466,-0.101055,-0.0015826,-1.90737,5.70584,-0.906236,2.47753,39.0676,-41.8838,-0.749876,4.03549,1.291,4.15268,-2.02721,10.9342,-10.0631,-0.00759462,-0.0756829,-0.148392,0.0266299,-1.89909,0.0193866,0.239985,-0.050786,0.000364818,0.0603552,0.00534923,-0.0326848,-0.0036311,0.022284,0.0013021,0,0,0,0,0,0,0,-0.0440639,-23.763,-0.463243,21.3968,1.01501,2.11114,-0.0703886,
-0.0759358,-0.146517,0.0264932,-1.90011,0.0271628,0.232624,-0.050864,-0.00767464,0.0500753,-0.00475875,-0.0302482,0.225698,-0.19685,-0.00203644,-1.66939,1.99807,-1.40399,3.68085,62.02,-59.8717,-0.283652,3.97159,1.3516,4.10822,-1.96416,10.9342,-9.87781,-0.00644362,-0.0756829,-0.148392,0.0266299,-1.89909,0.0193866,0.239985,-0.050786,0.000364818,0.0603552,0.00534923,-0.0326848,-0.0036311,0.022284,0.0013021,0,0,0,0,0,0,0,-0.0440639,-23.763,-0.463243,21.3968,1.01501,2.11114,-0.0703886,
-0.0760468,-0.146148,0.0264003,-1.90017,0.0333463,0.226988,-0.0508807,-0.00891364,0.0492978,-0.00612953,-0.025654,0.335146,-0.298392,-0.00204448,-0.774374,-0.485914,-0.856741,2.87139,68.4054,-63.464,-0.00502249,3.89687,1.4247,4.0408,-1.90215,10.9348,-9.67892,-0.00589556,-0.075677,-0.147463,0.026661,-1.90058,0.0194129,0.240334,-0.0507838,-0.000160129,0.0800088,0.00501827,-0.0466549,-0.00285421,-0.0205881,0.0012911,-0.0656184,2.4567,-0.0413702,-1.74626,0.0971111,-5.35902,-0.00137416,0.00751081,-25.3618,-0.33629,23.8406,0.948178,2.49566,-0.0905302,
-0.0756479,-0.146631,0.0266987,-1.90148,0.0191906,0.240294,-0.0507797,-0.00640358,0.0602211,-0.0039605,-0.043,0.262561,-0.239726,-0.00153397,1.56879,6.82704,1.35564,-10.8413,-45.3661,36.666,0.319069,-0.000833124,25.9013,0.27797,-23.3464,-1.06525,-2.38598,0.00152699,-0.075677,-0.147463,0.026661,-1.90058,0.0194129,0.240334,-0.0507838,-0.000160129,0.0800088,0.00501827,-0.0466549,-0.00285421,-0.0205881,0.0012911,0,0,0,0,0,0,0,0.00751081,-25.3618,-0.33629,23.8406,0.948178,2.49566,-0.0905302,
-0.075234,-0.145988,0.0271503,-1.90202,0.0212717,0.236355,-0.0507282,0.00522272,0.0642445,0.00812149,-0.0479439,0.262075,-0.290243,6.23273e-05,7.26644,2.51463,7.55124,-3.08993,-0.303382,-31.5732,0.997685,28.3539,2.00603,29.6324,-12.7806,10.9348,-14.386,0.0638619,-0.075677,-0.147463,0.026661,-1.90058,0.0194129,0.240334,-0.0507838,-0.000160129,0.0800088,0.00501827,-0.0466549,-0.00285421,-0.0205881,0.0012911,0,0,0,0,0,0,0,0.00751081,-25.3618,-0.33629,23.8406,0.948178,2.49566,-0.0905302,
-0.0745246,-0.1455,0.0279472,-1.90247,0.0250428,0.229997,-0.050666,0.0219152,0.0635994,0.0264213,-0.0497902,0.303938,-0.391156,0.00160398,10.4328,-0.403138,11.4374,-1.15395,26.1643,-63.07,0.963534,26.9263,3.06618,28.7077,-10.9665,10.9348,-14.386,0.0720999,-0.075677,-0.147463,0.026661,-1.90058,0.0194129,0.240334,-0.0507838,-0.000160129,0.0800088,0.00501827,-0.0466549,-0.00285421,-0.0205881,0.0012911,0,0,0,0,0,0,0,0.00751081,-25.3618,-0.33629,23.8406,0.948178,2.49566,-0.0905302,
-0.0735757,-0.145126,0.0290047,-1.90293,0.030056,0.222062,-0.0505961,0.041254,0.0602295,0.0475735,-0.051214,0.368481,-0.511284,0.0030301,12.0868,-2.10619,13.2202,-0.889849,40.3395,-75.0801,0.891323,25.6829,2.84011,27.576,-9.58334,10.9338,-14.3577,0.0801691,-0.0756453,-0.145449,0.0267781,-1.90287,0.020042,0.239687,-0.0507868,0.00685381,0.114776,0.00901574,-0.103996,0.0462558,-0.0373961,-0.000290003,0.876743,4.3459,0.499683,-7.16769,6.13875,-2.101,-0.197638,0.209842,-24.8103,-0.0863513,23.6899,1.49109,2.21093,-0.050247,
-0.0755733,-0.144339,0.0268593,-1.90401,0.0200444,0.239329,-0.0507816,0.0348025,0.0759197,0.0400879,-0.0693818,0.294846,-0.417975,0.00255373,-4.03214,9.80637,-4.67853,-11.3549,-46.022,58.3181,-0.297728,-0.00318305,25.9772,0.272408,-23.3298,-1.06624,-2.35773,0.00136703,-0.0756453,-0.145449,0.0267781,-1.90287,0.020042,0.239687,-0.0507868,0.00685381,0.114776,0.00901574,-0.103996,0.0462558,-0.0373961,-0.000290003,0,0,0,0,0,0,0,0.209842,-24.8103,-0.0863513,23.6899,1.49109,2.21093,-0.050247,
-0.0748556,-0.14372,0.0276027,-1.90528,0.0218569,0.235546,-0.0505162,0.0457852,0.0762141,0.0506555,-0.0873314,0.281188,-0.428976,0.00867723,6.86415,0.183966,6.60476,-11.2185,-8.5364,-6.87581,3.82719,40.3832,-1.13593,42.2201,-23.5455,10.9338,-14.3577,0.312491,-0.0756453,-0.145449,0.0267781,-1.90287,0.020042,0.239687,-0.0507868,0.00685381,0.114776,0.00901574,-0.103996,0.0462558,-0.0373961,-0.000290003,0,0,0,0,0,0,0,0.209842,-24.8103,-0.0863513,23.6899,1.49109,2.21093,-0.050247,
-0.0737292,-0.143303,0.0287775,-1.90655,0.0252886,0.229371,-0.0503878,0.0647859,0.071409,0.0698946,-0.101597,0.310744,-0.497553,0.0101524,11.8755,-3.00318,12.0244,-8.91625,18.473,-42.8604,0.922006,35.6624,1.76106,37.2006,-21.6262,10.9338,-14.3577,0.13716,-0.0756453,-0.145449,0.0267781,-1.90287,0.020042,0.239687,-0.0507868,0.00685381,0.114776,0.00901574,-0.103996,0.0462558,-0.0373961,-0.000290003,0,0,0,0,0,0,0,0.209842,-24.8103,-0.0863513,23.6899,1.49109,2.21093,-0.050247,
-0.0723365,-0.142947,0.030244,-1.90778,0.0300422,0.221573,-0.050342,0.0866479,0.0660299,0.0925766,-0.112102,0.367435,-0.592991,0.00926552,13.6637,-3.3619,14.1763,-6.56509,35.4314,-59.6493,-0.554328,32.4758,3.83269,33.9958,-19.8127,10.907,-14.28,0.0430122,-0.075151,-0.14234,0.0278063,-1.90732,0.0281185,0.231461,-0.0507867,0.0373678,0.0736677,0.0867799,-0.144516,0.332081,-0.315218,0.000111198,3.81425,-5.13853,9.72051,-5.0649,35.7281,-34.7277,0.0501502,10.2748,-31.3246,9.93501,32.4814,2.46246,2.81426,-0.050247,
-0.0723762,-0.142384,0.0307083,-1.91078,0.0361702,0.219797,-0.0502857,0.108729,0.0508173,0.115515,-0.13363,0.408405,-0.644354,0.0107514,13.8009,-9.50793,14.3366,-13.4551,25.6068,-32.1018,0.928677,45.5905,-5.35339,47.8536,-30.9653,10.907,-14.28,0.425359,-0.075151,-0.14234,0.0278063,-1.90732,0.0281185,0.231461,-0.0507867,0.0373678,0.0736677,0.0867799,-0.144516,0.332081,-0.315218,0.000111198,0,0,0,0,0,0,0,10.2748,-31.3246,9.93501,32.4814,2.46246,2.81426,-0.050247,
-0.0705852,-0.14244,0.0326028,-1.9125,0.0417778,0.211632,-0.050284,0.13176,0.039262,0.139776,-0.149842,0.466914,-0.71961,0.00864447,14.3941,-7.22202,15.1629,-10.1326,36.5679,-47.0349,-1.31683,38.5888,-1.39103,40.5325,-28.4571,10.907,-14.28,0.133076,-0.075151,-0.14234,0.0278063,-1.90732,0.0281185,0.231461,-0.0507867,0.0373678,0.0736677,0.0867799,-0.144516,0.332081,-0.315218,0.000111198,0,0,0,0,0,0,0,10.2748,-31.3246,9.93501,32.4814,2.46246,2.81426,-0.050247,
-0.0686699,-0.142453,0.034635,-1.9142,0.0482288,0.202555,-0.0503253,0.153289,0.0310632,0.162625,-0.16237,0.534807,-0.802632,0.00588255,13.456,-5.12426,14.2807,-7.82977,42.4328,-51.8885,-1.7262,34.3365,1.02687,36.1096,-26.3414,10.907,-14.28,-0.0137775,-0.075151,-0.14234,0.0278063,-1.90732,0.0281185,0.231461,-0.0507867,0.0373678,0.0736677,0.0867799,-0.144516,0.332081,-0.315218,0.000111198,0,0,0,0,0,0,0,10.2748,-31.3246,9.93501,32.4814,2.46246,2.81426,-0.050247,
-0.06669,-0.142461,0.0367401,-1.91594,0.0553403,0.192889,-0.0503442,0.172129,0.0246503,0.182729,-0.173321,0.605634,-0.883758,0.00423508,11.7745,-4.00807,12.565,-6.84441,44.2672,-50.704,-1.02967,31.6311,1.66293,33.3333,-24.9179,10.907,-14.28,-0.0574034,-0.075151,-0.14234,0.0278063,-1.90732,0.0281185,0.231461,-0.0507867,0.0373678,0.0736677,0.0867799,-0.144516,0.332081,-0.315218,0.000111198,0,0,0,0,0,0,0,10.2748,-31.3246,9.93501,32.4814,2.46246,2.81426,-0.050247,
-0.0685187,-0.138089,0.0363213,-1.91863,0.0520312,0.195545,-0.0508425,0.177368,0.0253152,0.188631,-0.180859,0.630909,-0.917426,0.00295451,3.27488,0.415583,3.689,-4.71163,15.7966,-21.0426,-0.800358,34.3644,1.09837,36.151,-26.2457,10.8974,-14.1498,-0.0142961,-0.0727301,-0.139181,0.0317978,-1.91376,0.0378852,0.216723,-0.0507777,0.0821881,0.114781,0.141417,-0.16082,0.212583,-0.397539,0.00115374,5.60253,5.13922,6.82959,-2.03803,-14.9372,-10.2902,0.130318,8.55304,-30.4796,8.46315,30.3906,2.59704,2.39037,-0.103348,
-0.0668446,-0.137972,0.0381103,-1.9204,0.0586911,0.186346,-0.0508576,0.183747,0.0231748,0.195631,-0.188973,0.671225,-0.96393,0.0019864,3.98683,-1.33776,4.37493,-5.07096,25.1974,-29.0648,-0.60507,31.659,1.73443,33.3747,-24.8222,10.8974,-14.1498,-0.057922,-0.0727301,-0.139181,0.0317978,-1.91376,0.0378852,0.216723,-0.0507777,0.0821881,0.114781,0.141417,-0.16082,0.212583,-0.397539,0.00115374,0,0,0,0,0,0,0,8.55304,-30.4796,8.46315,30.3906,2.59704,2.39037,-0.103348,
-0.0651382,-0.137915,0.0399311,-1.92222,0.0659724,0.17659,-0.0509044,0.189659,0.0199594,0.202026,-0.196538,0.719013,-1.01504,0.000417246,3.69507,-2.00965,3.99668,-4.72814,29.8674,-31.9461,-0.98072,29.5277,0.965405,31.1892,-24.3084,10.8974,-14.1498,-0.022875,-0.0727301,-0.139181,0.0317978,-1.91376,0.0378852,0.216723,-0.0507777,0.0821881,0.114781,0.141417,-0.16082,0.212583,-0.397539,0.00115374,0,0,0,0,0,0,0,8.55304,-30.4796,8.46315,30.3906,2.59704,2.39037,-0.103348,
-0.0634314,-0.137873,0.0417498,-1.92405,0.0737142,0.166568,-0.0509766,0.194397,0.0170198,0.207088,-0.203005,0.768755,-1.06258,-0.00147007,2.96091,-1.83727,3.16406,-4.04206,31.0894,-29.7126,-1.17957,27.1211,-0.188329,28.6634,-24.3831,10.8974,-14.1498,-0.0177655,-0.0727301,-0.139181,0.0317978,-1.91376,0.0378852,0.216723,-0.0507777,0.0821881,0.114781,0.141417,-0.16082,0.212583,-0.397539,0.00115374,0,0,0,0,0,0,0,8.55304,-30.4796,8.46315,30.3906,2.59704,2.39037,-0.103348,
-0.0598128,-0.139595,0.0492555,-1.9294,0.0693766,0.168846,-0.0509108,0.205143,0.0111587,0.218833,-0.206127,0.800005,-1.08909,-0.00262496,6.71627,-3.66313,7.34056,-1.95116,19.5311,-16.5693,-0.721808,29.7317,1.13959,31.4491,-24.1721,10.9818,-13.8922,-0.0235363,-0.0659725,-0.139266,0.0426128,-1.92413,0.0501917,0.195304,-0.0507846,0.221313,-0.0553272,0.347201,-0.301131,0.426413,-0.736525,0.000814417,17.3907,-21.2636,25.723,-17.5389,26.7287,-42.3732,-0.0424152,19.2528,-36.0933,19.9365,26.0822,4.19647,0.354239,-0.083206,
-0.0578997,-0.139672,0.0512995,-1.93117,0.0773353,0.158991,-0.0509902,0.211942,0.00699334,0.226167,-0.209124,0.838972,-1.11765,-0.00408549,4.24929,-2.60338,4.58354,-1.87305,24.3539,-17.8455,-0.91283,27.325,-0.0141417,28.9233,-24.2468,10.9818,-13.8922,-0.0184268,-0.0659725,-0.139266,0.0426128,-1.92413,0.0501917,0.195304,-0.0507846,0.221313,-0.0553272,0.347201,-0.301131,0.426413,-0.736525,0.000814417,0,0,0,0,0,0,0,19.2528,-36.0933,19.9365,26.0822,4.19647,0.354239,-0.083206,
-0.0560532,-0.139713,0.0532697,-1.93294,0.0856409,0.149038,-0.0510745,0.215716,0.00458287,0.230188,-0.211578,0.878818,-1.14295,-0.00537562,2.35888,-1.50654,2.513,-1.53367,24.9038,-15.8166,-0.80633,24.9236,-0.221253,26.381,-24.0073,10.9818,-13.8922,-0.0573222,-0.0659725,-0.139266,0.0426128,-1.92413,0.0501917,0.195304,-0.0507846,0.221313,-0.0553272,0.347201,-0.301131,0.426413,-0.736525,0.000814417,0,0,0,0,0,0,0,19.2528,-36.0933,19.9365,26.0822,4.19647,0.354239,-0.083206,
-0.0542653,-0.139719,0.0551766,-1.93474,0.0941568,0.139403,-0.0511508,0.21727,0.00351125,0.231822,-0.214421,0.915951,-1.15524,-0.00620779,0.971085,-0.669763,1.02112,-1.77681,23.2085,-7.67961,-0.520108,23.0756,0.2084,24.4285,-23.4023,10.9818,-13.3998,-0.0883288,-0.0659725,-0.139266,0.0426128,-1.92413,0.0501917,0.195304,-0.0507846,0.221313,-0.0553272,0.347201,-0.301131,0.426413,-0.736525,0.000814417,0,0,0,0,0,0,0,19.2528,-36.0933,19.9365,26.0822,4.19647,0.354239,-0.083206,
-0.063855,-0.139397,0.0449163,-1.92592,0.0554375,0.187352,-0.050821,0.226752,-0.000475806,0.243046,-0.216219,0.863906,-1.12301,-0.00587656,5.92672,-2.49191,7.01514,-1.12428,-32.5282,20.142,0.207014,29.8553,1.09147,31.6463,-24.0724,11.0029,-13.6535,-0.024005,-0.056514,-0.140046,0.0567107,-1.93779,0.0665015,0.163082,-0.0507835,0.247148,-0.122389,0.372856,-0.361851,0.479098,-1.05323,0.000399601,3.2293,-8.38273,3.20688,-7.59001,6.58565,-39.5884,-0.051852,0.0828892,-32.376,-0.312487,23.9874,2.62725,0.632559,-0.050247,
-0.0617978,-0.139496,0.047129,-1.92765,0.0619765,0.178407,-0.0508528,0.232834,-0.00286839,0.249755,-0.216185,0.854601,-1.12202,-0.00549665,3.80069,-1.49537,4.19306,0.0213252,-5.81599,0.619567,0.237447,27.4486,-0.0622602,29.1206,-24.1471,11.0029,-13.6535,-0.0188955,-0.056514,-0.140046,0.0567107,-1.93779,0.0665015,0.163082,-0.0507835,0.247148,-0.122389,0.372856,-0.361851,0.479098,-1.05323,0.000399601,0,0,0,0,0,0,0,0.0828892,-32.376,-0.312487,23.9874,2.62725,0.632559,-0.050247,
-0.0598128,-0.139595,0.0492555,-1.9294,0.0693766,0.168846,-0.0509108,0.235892,-0.00475177,0.252966,-0.216671,0.868681,-1.13665,-0.00584623,1.91168,-1.17711,2.00728,-0.303628,8.80049,-9.13941,-0.218485,25.0471,-0.269371,26.5782,-23.9076,11.0029,-13.6535,-0.0577909,-0.056514,-0.140046,0.0567107,-1.93779,0.0665015,0.163082,-0.0507835,0.247148,-0.122389,0.372856,-0.361851,0.479098,-1.05323,0.000399601,0,0,0,0,0,0,0,0.0828892,-32.376,-0.312487,23.9874,2.62725,0.632559,-0.050247,
-0.0578997,-0.139672,0.0512995,-1.93117,0.0773353,0.158991,-0.0509902,0.236541,-0.00573507,0.253473,-0.217559,0.893913,-1.15569,-0.0066625,0.405626,-0.614563,0.316914,-0.555027,15.7694,-11.9016,-0.510171,23.1992,0.160281,24.6258,-23.3025,11.0029,-13.1611,-0.0887975,-0.056514,-0.140046,0.0567107,-1.93779,0.0665015,0.163082,-0.0507835,0.247148,-0.122389,0.372856,-0.361851,0.479098,-1.05323,0.000399601,0,0,0,0,0,0,0,0.0828892,-32.376,-0.312487,23.9874,2.62725,0.632559,-0.050247,
-0.0503975,-0.140866,0.063328,-1.94347,0.0869138,0.13294,-0.0510309,0.237051,-0.00807706,0.254137,-0.219006,0.908438,-1.17867,-0.00759149,0.31844,-1.46374,0.4149,-0.904061,9.07869,-14.3649,-0.580618,25.102,-0.558187,26.7156,-23.6501,10.9798,-13.3891,-0.0589725,-0.0470512,-0.141751,0.0723073,-1.95002,0.0856144,0.125641,-0.0507804,0.251777,-0.146426,0.442168,-0.31376,0.518828,-1.13151,0.0016055,0.578701,-3.00465,8.66406,6.01143,4.96632,-9.78411,0.150737,-9.9107,-32.5505,-10.9607,22.9163,1.60736,1.19652,-0.0227812,
-0.0485715,-0.140937,0.0652847,-1.94529,0.0950987,0.123178,-0.0511108,0.23529,-0.00823915,0.252229,-0.220633,0.931375,-1.18698,-0.00807227,-1.10053,-0.101306,-1.19278,-1.01681,14.3356,-5.19178,-0.300488,23.2541,-0.128534,24.7631,-23.0451,10.9798,-12.8966,-0.0899791,-0.0470512,-0.141751,0.0723073,-1.95002,0.0856144,0.125641,-0.0507804,0.251777,-0.146426,0.442168,-0.31376,0.518828,-1.13151,0.0016055,0,0,0,0,0,0,0,-9.9107,-32.5505,-10.9607,22.9163,1.60736,1.19652,-0.0227812,
-0.0468126,-0.14096,0.0671676,-1.94716,0.103544,0.114246,-0.0511787,0.232203,-0.00716515,0.248856,-0.22332,0.956229,-1.17288,-0.00815404,-1.92921,0.671251,-2.10815,-1.67951,15.5334,8.80917,-0.0511095,21.9613,0.322714,23.4069,-22.3709,10.9798,-12.4554,-0.0986651,-0.0470512,-0.141751,0.0723073,-1.95002,0.0856144,0.125641,-0.0507804,0.251777,-0.146426,0.442168,-0.31376,0.518828,-1.13151,0.0016055,0,0,0,0,0,0,0,-9.9107,-32.5505,-10.9607,22.9163,1.60736,1.19652,-0.0227812,
-0.0451091,-0.140945,0.0689908,-1.94907,0.112127,0.106335,-0.0512345,0.228351,-0.00535269,0.244664,-0.226542,0.979567,-1.13607,-0.00791987,-2.40727,1.13278,-2.6195,-2.01384,14.5862,23.0099,0.146359,21.0051,0.581025,22.4176,-21.7474,10.9798,-11.0221,-0.0910946,-0.0470512,-0.141751,0.0723073,-1.95002,0.0856144,0.125641,-0.0507804,0.251777,-0.146426,0.442168,-0.31376,0.518828,-1.13151,0.0016055,0,0,0,0,0,0,0,-9.9107,-32.5505,-10.9607,22.9163,1.60736,1.19652,-0.0227812,
-0.0389605,-0.143076,0.0810852,-1.9574,0.115671,0.0929581,-0.0510887,0.227599,-0.00770671,0.244048,-0.227729,0.994692,-1.07634,-0.00768464,-0.470122,-1.47126,-0.38551,-0.741651,9.4535,37.3322,0.147019,20.8324,0.0171193,22.3077,-21.5527,10.8216,-10.9073,-0.0922104,-0.0410293,-0.143247,0.0855671,-1.95919,0.0998638,0.0930527,-0.0507637,0.165108,-0.100038,0.377286,-0.19276,0.442932,-0.965464,-0.000149369,-10.8337,5.79857,-8.11031,15.125,-9.48704,20.7552,-0.219358,-3.36865,-33.6733,-5.03752,24.1382,0.758663,2.59545,-0.0566557,
-0.0372522,-0.143153,0.0829206,-1.95927,0.12429,0.0873406,-0.0511303,0.224787,-0.00808527,0.241123,-0.22902,1.01123,-1.00151,-0.0071861,-1.75787,-0.236604,-1.82774,-0.807314,10.3358,46.7686,0.311587,20.0382,0.0386277,21.4889,-21.0416,10.8216,-8.79781,-0.0811028,-0.0410293,-0.143247,0.0855671,-1.95919,0.0998638,0.0930527,-0.0507637,0.165108,-0.100038,0.377286,-0.19276,0.442932,-0.965464,-0.000149369,0,0,0,0,0,0,0,-3.36865,-33.6733,-5.03752,24.1382,0.758663,2.59545,-0.0566557,
-0.0356149,-0.143189,0.0846791,-1.96114,0.132981,0.0827592,-0.0511624,0.220763,-0.00738251,0.236862,-0.229971,1.02626,-0.915741,-0.00655289,-2.51498,0.439227,-2.6633,-0.593902,9.39435,53.6042,0.395756,19.3424,-0.109086,20.7629,-20.644,10.8216,-6.94625,-0.0681367,-0.0410293,-0.143247,0.0855671,-1.95919,0.0998638,0.0930527,-0.0507637,0.165108,-0.100038,0.377286,-0.19276,0.442932,-0.965464,-0.000149369,0,0,0,0,0,0,0,-3.36865,-33.6733,-5.03752,24.1382,0.758663,2.59545,-0.0566557,
-0.0340373,-0.1432,0.0863737,-1.96299,0.141686,0.079145,-0.0511849,0.216051,-0.00616853,0.231852,-0.230295,1.03863,-0.822946,-0.00580426,-2.94456,0.758735,-3.13097,-0.202811,7.72782,57.9965,0.467893,18.7174,-0.317909,20.1038,-20.3131,10.8216,-5.33268,-0.0575428,-0.0410293,-0.143247,0.0855671,-1.95919,0.0998638,0.0930527,-0.0507637,0.165108,-0.100038,0.377286,-0.19276,0.442932,-0.965464,-0.000149369,0,0,0,0,0,0,0,-3.36865,-33.6733,-5.03752,24.1382,0.758663,2.59545,-0.0566557,
-0.0359052,-0.144471,0.0911877,-1.96426,0.119779,0.0749144,-0.0509419,0.212871,-0.0117975,0.228896,-0.227837,1.01941,-0.78617,-0.00575341,-1.98777,-3.51811,-1.84788,1.53598,-12.0115,22.9852,0.0317807,19.1616,-0.263313,20.6378,-20.6767,10.626,-6.77868,-0.0680648,-0.0362208,-0.143763,0.0956321,-1.96534,0.122081,0.0572847,-0.0507756,0.134928,0.0374582,0.238771,-0.139695,0.770279,-1.05307,-0.00237045,-3.7724,17.187,-17.3143,6.63307,40.9183,-10.9509,-0.277636,-5.64984,-26.433,-6.48558,20.6985,0.770565,1.48125,0.050461,
-0.0343678,-0.144662,0.0928501,-1.96603,0.127744,0.0707388,-0.0509751,0.208731,-0.0142139,0.224678,-0.226407,1.01464,-0.733328,-0.0054316,-2.58744,-1.51024,-2.6363,0.893801,-2.98027,33.0266,0.201136,18.5366,-0.472135,19.9786,-20.3458,10.626,-5.16511,-0.0574709,-0.0362208,-0.143763,0.0956321,-1.96534,0.122081,0.0572847,-0.0507756,0.134928,0.0374582,0.238771,-0.139695,0.770279,-1.05307,-0.00237045,0,0,0,0,0,0,0,-5.64984,-26.433,-6.48558,20.6985,0.770565,1.48125,0.050461,
-0.0328781,-0.144795,0.0944585,-1.96779,0.135952,0.067455,-0.0509977,0.204227,-0.0146796,0.219951,-0.22533,1.0169,-0.668757,-0.00490991,-2.815,-0.291037,-2.95418,0.673396,1.4146,40.3568,0.326052,17.9735,-0.669408,19.3785,-20.0497,10.626,-3.75812,-0.0451899,-0.0362208,-0.143763,0.0956321,-1.96534,0.122081,0.0572847,-0.0507756,0.134928,0.0374582,0.238771,-0.139695,0.770279,-1.05307,-0.00237045,0,0,0,0,0,0,0,-5.64984,-26.433,-6.48558,20.6985,0.770565,1.48125,0.050461,
-0.0314276,-0.144886,0.0960235,-1.96955,0.144294,0.0649989,-0.051012,0.199645,-0.0140314,0.215086,-0.224169,1.02209,-0.596408,-0.00428739,-2.86402,0.405116,-3.04074,0.725575,3.24355,45.218,0.38908,17.4555,-0.825368,18.8233,-19.7673,10.626,-2.5408,-0.0351109,-0.0362208,-0.143763,0.0956321,-1.96534,0.122081,0.0572847,-0.0507756,0.134928,0.0374582,0.238771,-0.139695,0.770279,-1.05307,-0.00237045,0,0,0,0,0,0,0,-5.64984,-26.433,-6.48558,20.6985,0.770565,1.48125,0.050461,
-0.0307679,-0.143646,0.101568,-1.97284,0.152563,0.0413609,-0.050842,0.19326,-0.0102984,0.208398,-0.225808,1.01845,-0.533492,-0.00352561,-3.99051,2.33309,-4.17971,-1.02417,-2.27853,39.3226,0.476111,17.4178,-1.18558,18.8374,-19.535,10.4481,-2.37488,-0.0373648,-0.0319274,-0.143771,0.103623,-1.97012,0.153886,0.0280761,-0.0507637,0.113164,0.0986282,0.222844,-0.0945177,1.01315,-0.627887,0.00093518,-2.72052,7.64625,-1.99087,5.64716,30.3591,53.148,0.413204,-1.26202,-28.2301,-2.312,27.0541,0.624081,3.7362,-0.0566557,
-0.0294426,-0.143605,0.103002,-1.97464,0.160711,0.0399538,-0.0508394,0.18774,-0.00723023,0.202583,-0.225693,1.01845,-0.461972,-0.00275658,-3.45009,1.91762,-3.63458,0.0716147,0.000967662,44.6997,0.480644,16.9424,-1.28609,18.3249,-19.2577,10.4481,-1.32409,-0.0258409,-0.0319274,-0.143771,0.103623,-1.97012,0.153886,0.0280761,-0.0507637,0.113164,0.0986282,0.222844,-0.0945177,1.01315,-0.627887,0.00093518,0,0,0,0,0,0,0,-1.26202,-28.2301,-2.312,27.0541,0.624081,3.7362,-0.0566557,
-0.028136,-0.143567,0.104416,-1.97639,0.168931,0.0392713,-0.0508301,0.182857,-0.00482585,0.197417,-0.224162,1.02027,-0.38664,-0.00197101,-3.05194,1.50274,-3.22882,0.957198,1.14007,47.0826,0.490979,16.4963,-1.33664,17.8431,-18.9798,10.4481,-0.425029,-0.0162433,-0.0319274,-0.143771,0.103623,-1.97012,0.153886,0.0280761,-0.0507637,0.113164,0.0986282,0.222844,-0.0945177,1.01315,-0.627887,0.00093518,0,0,0,0,0,0,0,-1.26202,-28.2301,-2.312,27.0541,0.624081,3.7362,-0.0566557,
-0.0268502,-0.143534,0.105808,-1.97807,0.177196,0.0392071,-0.0508148,0.178431,-0.00303,0.192721,-0.221536,1.02283,-0.310917,-0.00119494,-2.76601,1.12241,-2.93466,1.6409,1.59692,47.3269,0.485041,16.0798,-1.34139,17.3916,-18.7012,10.4481,0.341472,-0.00567399,-0.0319274,-0.143771,0.103623,-1.97012,0.153886,0.0280761,-0.0507637,0.113164,0.0986282,0.222844,-0.0945177,1.01315,-0.627887,0.00093518,0,0,0,0,0,0,0,-1.26202,-28.2301,-2.312,27.0541,0.624081,3.7362,-0.0566557,
-0.0255878,-0.143054,0.110498,-1.97865,0.195427,0.0243572,-0.0506867,0.173698,-0.000731801,0.187703,-0.218124,1.02566,-0.231462,-0.000268478,-2.95834,1.43638,-3.13649,2.13234,1.77188,49.6594,0.579042,15.6826,-1.31341,16.9609,-18.4213,10.4481,0.988566,0.00325264,-0.0319274,-0.143771,0.103623,-1.97012,0.153886,0.0280761,-0.0507637,0.113164,0.0986282,0.222844,-0.0945177,1.01315,-0.627887,0.00093518,0,0,0,0,0,0,0,-1.26202,-28.2301,-2.312,27.0541,0.624081,3.7362,-0.0566557,
-0.0243728,-0.143003,0.111815,-1.98022,0.203714,0.0254952,-0.0506535,0.169332,0.000686218,0.183075,-0.213919,1.02769,-0.156722,0.000615628,-2.72821,0.886262,-2.89225,2.62825,1.26612,46.7127,0.552567,15.3206,-1.5886,16.6073,-17.9463,10.3069,1.58716,0.0111995,-0.0289259,-0.143404,0.110084,-1.9739,0.185299,0.0154464,-0.0507652,0.0765032,0.108493,0.176647,-0.091826,0.84076,-0.150697,-0.000301499,-4.58263,1.23306,-5.77468,0.336475,-21.549,59.6488,-0.154585,-4.28112,-27.6827,-5.48583,27.9984,1.10016,4.26629,-0.0429228,
-0.0231829,-0.142967,0.113105,-1.98175,0.21199,0.0270018,-0.0506143,0.165214,0.00146059,0.178707,-0.209215,1.02905,-0.0877109,0.0014712,-2.57409,0.48398,-2.73004,2.93987,0.850505,43.1317,0.534733,14.9564,-1.51883,16.2115,-17.6678,10.3069,2.04012,0.0193607,-0.0289259,-0.143404,0.110084,-1.9739,0.185299,0.0154464,-0.0507652,0.0765032,0.108493,0.176647,-0.091826,0.84076,-0.150697,-0.000301499,0,0,0,0,0,0,0,-4.28112,-27.6827,-5.48583,27.9984,1.10016,4.26629,-0.0429228,
-0.0220197,-0.142942,0.114366,-1.98322,0.220254,0.0288114,-0.0505684,0.161251,0.00178221,0.1745,-0.204236,1.02986,-0.0249293,0.00232591,-2.47682,0.201015,-2.62964,3.11211,0.506202,39.2385,0.534194,14.6056,-1.43739,15.8299,-17.392,10.3069,2.4165,0.0278297,-0.0289259,-0.143404,0.110084,-1.9739,0.185299,0.0154464,-0.0507652,0.0765032,0.108493,0.176647,-0.091826,0.84076,-0.150697,-0.000301499,0,0,0,0,0,0,0,-4.28112,-27.6827,-5.48583,27.9984,1.10016,4.26629,-0.0429228,
-0.0238244,-0.142456,0.115677,-1.98157,0.223465,0.0220753,-0.0505599,0.154876,0.00352523,0.167805,-0.200199,1.02136,0.0309195,0.00318971,-3.98445,1.08939,-4.1845,2.52289,-5.30889,34.9055,0.539875,14.2615,-1.35193,15.4557,-17.1195,10.3069,2.72715,0.0353505,-0.0289259,-0.143404,0.110084,-1.9739,0.185299,0.0154464,-0.0507652,0.0765032,0.108493,0.176647,-0.091826,0.84076,-0.150697,-0.000301499,0,0,0,0,0,0,0,-4.28112,-27.6827,-5.48583,27.9984,1.10016,4.26629,-0.0429228,
-0.0228002,-0.142395,0.116794,-1.98299,0.231433,0.0243109,-0.0505058,0.149507,0.00435575,0.162159,-0.195755,1.01628,0.0806256,0.00390593,-3.35584,0.519076,-3.52861,2.77794,-3.17558,31.0663,0.447639,13.9134,-1.33528,15.1009,-16.7709,10.2115,2.99883,0.043108,-0.0264897,-0.141321,0.115686,-1.9765,0.208405,0.017432,-0.0507614,0.0709331,0.114125,0.168742,-0.0693058,0.587021,0.219891,0.000798336,-0.696264,0.704099,-0.988138,2.81502,-31.7174,46.3236,0.137479,-1.44055,-29.0791,-2.56194,30.0415,2.03491,4.25347,-0.0767973,
-0.0217958,-0.14235,0.117896,-1.98437,0.239451,0.0267024,-0.0504518,0.144715,0.00461476,0.157284,-0.191073,1.01348,0.124287,0.00447381,-2.9948,0.161883,-3.0469,2.92625,-1.75414,27.2884,0.354924,13.5712,-1.24529,14.7286,-16.5074,10.2115,3.21226,0.0510986,-0.0264897,-0.141321,0.115686,-1.9765,0.208405,0.017432,-0.0507614,0.0709331,0.114125,0.168742,-0.0693058,0.587021,0.219891,0.000798336,0,0,0,0,0,0,0,-1.44055,-29.0791,-2.56194,30.0415,2.03491,4.25347,-0.0767973,
-0.0208054,-0.142315,0.118985,-1.9857,0.247378,0.02921,-0.0503976,0.140533,0.00456453,0.153046,-0.186103,1.00897,0.16212,0.00493381,-2.61338,-0.0313973,-2.64859,3.10604,-2.8151,23.6453,0.287496,13.2108,-1.15019,14.3357,-16.2481,10.2115,3.38375,0.0601137,-0.0264897,-0.141321,0.115686,-1.9765,0.208405,0.017432,-0.0507614,0.0709331,0.114125,0.168742,-0.0693058,0.587021,0.219891,0.000798336,0,0,0,0,0,0,0,-1.44055,-29.0791,-2.56194,30.0415,2.03491,4.25347,-0.0767973,
-0.0230057,-0.1404,0.119589,-1.98203,0.235369,0.0280659,-0.0505634,0.134358,0.00656032,0.146811,-0.183502,0.991407,0.197792,0.00532223,-3.8598,1.24737,-3.89724,1.62584,-10.9779,22.2956,0.242765,13.2108,-1.15019,14.3357,-16.2481,10.2115,3.38375,0.0601137,-0.0264897,-0.141321,0.115686,-1.9765,0.208405,0.017432,-0.0507614,0.0709331,0.114125,0.168742,-0.0693058,0.587021,0.219891,0.000798336,0,0,0,0,0,0,0,-1.44055,-29.0791,-2.56194,30.0415,2.03491,4.25347,-0.0767973,
-0.0221213,-0.140312,0.12057,-1.98337,0.242822,0.0308066,-0.0505079,0.129598,0.00746436,0.141982,-0.180225,0.979469,0.226752,0.00564477,-2.97474,0.565027,-3.01795,2.04766,-7.46116,18.0997,0.201587,12.8181,-0.959324,13.9258,-16.0828,10.1477,3.44529,0.0674205,-0.0245546,-0.139066,0.12054,-1.9779,0.225072,0.030347,-0.0507606,0.0530212,0.0368086,0.127133,-0.0610371,0.447222,0.517831,0.00056549,-2.23898,-9.66461,-5.20106,1.03358,-17.4749,37.2424,-0.0291057,-1.3374,-33.5463,-2.56194,36.7184,2.43774,5.06829,-0.083206,
-0.0212152,-0.140243,0.121567,-1.98465,0.249986,0.0335586,-0.0504513,0.12633,0.00768672,0.138499,-0.176137,0.962674,0.2502,0.00593185,-2.04269,0.138975,-2.17654,2.55531,-10.4972,14.6548,0.179425,12.3695,-0.86822,13.4485,-15.8513,10.1477,3.53104,0.069509,-0.0245546,-0.139066,0.12054,-1.9779,0.225072,0.030347,-0.0507606,0.0530212,0.0368086,0.127133,-0.0610371,0.447222,0.517831,0.00056549,0,0,0,0,0,0,0,-1.3374,-33.5463,-2.56194,36.7184,2.43774,5.06829,-0.083206,
-0.0202905,-0.140193,0.122578,-1.98587,0.256666,0.0363169,-0.0503959,0.124182,0.0074114,0.136095,-0.171524,0.937124,0.269118,0.00612992,-1.34253,-0.172075,-1.50274,2.88329,-15.9686,11.8243,0.123795,11.8912,-0.740412,13.0262,-15.6062,10.1477,3.58869,0.0699185,-0.0245546,-0.139066,0.12054,-1.9779,0.225072,0.030347,-0.0507606,0.0530212,0.0368086,0.127133,-0.0610371,0.447222,0.517831,0.00056549,0,0,0,0,0,0,0,-1.3374,-33.5463,-2.56194,36.7184,2.43774,5.06829,-0.083206,
-0.0217858,-0.139082,0.123701,-1.98235,0.248215,0.0453029,-0.0505471,0.118335,0.00543378,0.12995,-0.165424,0.898424,0.299636,0.0063272,-3.65411,-1.23601,-3.84074,3.81198,-24.1875,19.0733,0.1233,11.8912,-0.740412,13.0262,-15.6062,10.1477,3.58869,0.0699185,-0.0245546,-0.139066,0.12054,-1.9779,0.225072,0.030347,-0.0507606,0.0530212,0.0368086,0.127133,-0.0610371,0.447222,0.517831,0.00056549,0,0,0,0,0,0,0,-1.3374,-33.5463,-2.56194,36.7184,2.43774,5.06829,-0.083206,
-0.0209847,-0.139102,0.124582,-1.98345,0.253788,0.0485104,-0.0504909,0.114694,0.00386065,0.126003,-0.159959,0.858074,0.319895,0.00646727,-2.27565,-0.983208,-2.46688,3.41591,-25.2189,12.6624,0.0875458,11.4632,-0.390967,12.6427,-15.4972,9.65222,3.52014,0.0708158,-0.0227357,-0.137404,0.124569,-1.97903,0.237583,0.0536734,-0.0507618,0.0473336,-0.0033209,0.0948171,-0.0481499,0.312124,0.754652,-0.000308035,-0.710958,-5.01619,-4.03953,1.6109,-16.8872,29.6027,-0.109191,-5.70141,-31.8245,-6.58476,32.3584,1.47277,4.00078,-0.0630644,
-0.0201521,-0.139122,0.125494,-1.98453,0.258881,0.051585,-0.0504355,0.112572,0.00258184,0.123603,-0.155019,0.813786,0.332782,0.00655778,-1.32629,-0.799258,-1.50002,3.08762,-27.6803,8.0538,0.0565682,11.0798,-0.238844,12.2595,-15.2152,8.35174,3.52322,0.0706208,-0.0227357,-0.137404,0.124569,-1.97903,0.237583,0.0536734,-0.0507618,0.0473336,-0.0033209,0.0948171,-0.0481499,0.312124,0.754652,-0.000308035,0,0,0,0,0,0,0,-5.70141,-31.8245,-6.58476,32.3584,1.47277,4.00078,-0.0630644,
-0.0192972,-0.139144,0.126428,-1.98559,0.263444,0.0545479,-0.0503802,0.111429,0.00152176,0.122219,-0.150529,0.765086,0.340298,0.0066303,-0.714458,-0.662545,-0.864901,2.80587,-30.4373,4.6977,0.0453219,10.7461,-0.115073,11.9108,-14.9396,7.22139,3.49857,0.0686516,-0.0227357,-0.137404,0.124569,-1.97903,0.237583,0.0536734,-0.0507618,0.0473336,-0.0033209,0.0948171,-0.0481499,0.312124,0.754652,-0.000308035,0,0,0,0,0,0,0,-5.70141,-31.8245,-6.58476,32.3584,1.47277,4.00078,-0.0630644,
-0.020329,-0.137942,0.127319,-1.98253,0.253064,0.0716514,-0.0505513,0.106183,-0.00153941,0.116681,-0.143792,0.707653,0.366114,0.00671703,-3.279,-1.91324,-3.46118,4.21061,-35.8956,16.135,0.0542069,10.7461,-0.115073,11.9108,-14.9396,7.22139,3.49857,0.0686516,-0.0227357,-0.137404,0.124569,-1.97903,0.237583,0.0536734,-0.0507618,0.0473336,-0.0033209,0.0948171,-0.0481499,0.312124,0.754652,-0.000308035,0,0,0,0,0,0,0,-5.70141,-31.8245,-6.58476,32.3584,1.47277,4.00078,-0.0630644,
-0.0196046,-0.138035,0.128116,-1.98347,0.256564,0.0750922,-0.0504942,0.103054,-0.0035521,0.113284,-0.138646,0.653619,0.378911,0.00680153,-1.95516,-1.25793,-2.12348,3.2165,-33.7713,7.99823,0.0528131,10.4713,0.153398,11.6243,-14.8117,6.18214,3.33655,0.0685291,-0.0217037,-0.135765,0.12811,-1.98005,0.246856,0.080634,-0.0507589,0.0292563,0.0121473,0.0684624,-0.0301912,0.204941,0.82425,0.000569264,-2.25966,1.93352,-3.29434,2.24484,-13.3979,8.69981,0.109662,-4.76117,-31.0509,-5.5374,27.3001,1.1615,2.03881,-0.0703886,
-0.0188474,-0.138114,0.128946,-1.98442,0.259682,0.0782849,-0.0504361,0.101375,-0.00480848,0.111376,-0.134636,0.600848,0.382948,0.00689217,-1.04933,-0.785238,-1.19212,2.50654,-32.9817,2.52339,0.0566476,10.2516,0.225996,11.3796,-14.5422,5.26954,3.287,0.0677195,-0.0217037,-0.135765,0.12811,-1.98005,0.246856,0.080634,-0.0507589,0.0292563,0.0121473,0.0684624,-0.0301912,0.204941,0.82425,0.000569264,0,0,0,0,0,0,0,-4.76117,-31.0509,-5.5374,27.3001,1.1615,2.03881,-0.0703886,
-0.0180666,-0.138181,0.1298,-1.98537,0.262401,0.0812778,-0.0503775,0.100619,-0.0055332,0.110434,-0.131447,0.548656,0.381179,0.00697943,-0.472898,-0.452946,-0.588981,1.99275,-32.6202,-1.10561,0.0545391,10.0741,0.274383,11.1761,-14.2752,4.4405,3.22851,0.0681481,-0.0217037,-0.135765,0.12811,-1.98005,0.246856,0.080634,-0.0507589,0.0292563,0.0121473,0.0684624,-0.0301912,0.204941,0.82425,0.000569264,0,0,0,0,0,0,0,-4.76117,-31.0509,-5.5374,27.3001,1.1615,2.03881,-0.0703886,
-0.0196585,-0.136139,0.130445,-1.98311,0.25606,0.0992506,-0.0505355,0.0957151,-0.00680958,0.105241,-0.126384,0.493117,0.39884,0.00708863,-3.0648,-0.797737,-3.24526,3.16448,-34.7118,11.0376,0.0682533,10.0741,0.274383,11.1761,-14.2752,4.4405,3.22851,0.0681481,-0.0217037,-0.135765,0.12811,-1.98005,0.246856,0.080634,-0.0507589,0.0292563,0.0121473,0.0684624,-0.0301912,0.204941,0.82425,0.000569264,0,0,0,0,0,0,0,-4.76117,-31.0509,-5.5374,27.3001,1.1615,2.03881,-0.0703886,
-0.0190031,-0.136224,0.131168,-1.98398,0.25798,0.102626,-0.0504741,0.0929581,-0.0075527,0.102249,-0.122861,0.442489,0.403457,0.00720497,-1.72314,-0.464449,-1.87,2.20213,-31.6428,2.8857,0.0727126,9.89099,0.424549,10.9728,-14.1357,3.70255,3.04421,0.0698038,-0.0214082,-0.134998,0.131054,-1.98127,0.249497,0.108372,-0.0507614,0.0178949,0.0137225,0.0561347,-0.00942467,0.00250376,0.766639,0.000213582,-1.42017,0.196902,-1.54096,2.59582,-25.3046,-7.2014,-0.0444603,-4.02722,-31.1263,-4.81139,24.4635,0.599362,1.6076,-0.0767973,
-0.0183125,-0.136297,0.131925,-1.98487,0.259631,0.105704,-0.0504122,0.0916299,-0.00787558,0.10074,-0.120387,0.395262,0.399709,0.00731234,-0.830132,-0.201801,-0.943572,1.54618,-29.5165,-2.34252,0.0671058,9.76514,0.431949,10.82,-13.8759,3.04331,2.97867,0.0711515,-0.0214082,-0.134998,0.131054,-1.98127,0.249497,0.108372,-0.0507614,0.0178949,0.0137225,0.0561347,-0.00942467,0.00250376,0.766639,0.000213582,0,0,0,0,0,0,0,-4.02722,-31.1263,-4.81139,24.4635,0.599362,1.6076,-0.0767973,
-0.017597,-0.13636,0.132708,-1.98576,0.261011,0.108543,-0.0503496,0.0911927,-0.00788839,0.100165,-0.118608,0.350725,0.390743,0.00741496,-0.273239,-0.00800829,-0.358982,1.11163,-27.8356,-5.60332,0.0641374,9.65222,0.423182,10.6796,-13.6202,2.46908,2.91338,0.0722538,-0.0214082,-0.134998,0.131054,-1.98127,0.249497,0.108372,-0.0507614,0.0178949,0.0137225,0.0561347,-0.00942467,0.00250376,0.766639,0.000213582,0,0,0,0,0,0,0,-4.02722,-31.1263,-4.81139,24.4635,0.599362,1.6076,-0.0767973,
-0.0184043,-0.1356,0.134418,-1.98548,0.251833,0.131258,-0.0503839,0.0883739,-0.00842052,0.0970522,-0.114971,0.286252,0.380465,0.007557,-1.76174,-0.332578,-1.94566,2.27333,-40.2956,-6.42384,0.0887705,9.44212,0.366941,10.4158,-13.117,1.5248,2.77527,0.0749594,-0.0214082,-0.134998,0.131054,-1.98127,0.249497,0.108372,-0.0507614,0.0178949,0.0137225,0.0561347,-0.00942467,0.00250376,0.766639,0.000213582,0,0,0,0,0,0,0,-4.02722,-31.1263,-4.81139,24.4635,0.599362,1.6076,-0.0767973,
-0.0177664,-0.135673,0.135117,-1.98629,0.251967,0.133732,-0.0503194,0.0866467,-0.00856205,0.0951024,-0.112355,0.232347,0.366212,0.007658,-1.07953,-0.0884598,-1.21859,1.63494,-33.6908,-8.90833,0.0631284,9.33709,0.324587,10.2847,-12.869,1.14465,2.70383,0.0763218,-0.0214082,-0.134998,0.131054,-1.98127,0.249497,0.108372,-0.0507614,0.0178949,0.0137225,0.0561347,-0.00942467,0.00250376,0.766639,0.000213582,0,0,0,0,0,0,0,-4.02722,-31.1263,-4.81139,24.4635,0.599362,1.6076,-0.0767973,
-0.0171151,-0.135736,0.135829,-1.98711,0.252016,0.136009,-0.0502554,0.0856009,-0.0084283,0.0938859,-0.110415,0.187097,0.349894,0.00772634,-0.653626,0.0835954,-0.760326,1.2127,-28.281,-10.199,0.0427135,9.21678,0.376709,10.1462,-12.7366,0.845908,2.51649,0.0779075,-0.0213275,-0.134869,0.133614,-1.98218,0.247791,0.133832,-0.05076,0.00777175,0.0114847,0.0512502,-0.0112505,-0.0820447,0.731193,0.00108726,-1.2654,-0.279716,-0.61056,-0.228233,-10.5686,-4.43074,0.109209,-2.68231,-28.73,-3.43474,23.2178,0.263363,1.53435,-0.0905302,
-0.0164566,-0.135791,0.136548,-1.98794,0.251992,0.138123,-0.0501922,0.0849432,-0.00811534,0.0930936,-0.108905,0.149073,0.332775,0.007761,-0.411061,0.195596,-0.49522,0.94321,-23.7651,-10.6994,0.0216618,9.10349,0.323342,10.0079,-12.4925,0.57232,2.4453,0.0788478,-0.0213275,-0.134869,0.133614,-1.98218,0.247791,0.133832,-0.05076,0.00777175,0.0114847,0.0512502,-0.0112505,-0.0820447,0.731193,0.00108726,0,0,0,0,0,0,0,-2.68231,-28.73,-3.43474,23.2178,0.263363,1.53435,-0.0905302,
-0.0171438,-0.13576,0.138242,-1.98771,0.244071,0.159126,-0.0502215,0.0815647,-0.00826487,0.0893673,-0.104498,0.112356,0.307375,0.00755896,-2.11156,-0.0934515,-2.32892,2.75473,-22.9482,-15.8746,-0.126276,8.44845,0.0369216,9.23697,-11.292,-0.195984,2.11266,0.078965,-0.0213275,-0.134869,0.133614,-1.98218,0.247791,0.133832,-0.05076,0.00777175,0.0114847,0.0512502,-0.0112505,-0.0820447,0.731193,0.00108726,0,0,0,0,0,0,0,-2.68231,-28.73,-3.43474,23.2178,0.263363,1.53435,-0.0905302,
-0.0165993,-0.135823,0.138837,-1.9884,0.243833,0.160651,-0.0501693,0.0788632,-0.00818145,0.0863855,-0.100907,0.0839353,0.284022,0.00735128,-1.68841,0.0521364,-1.86362,2.24402,-17.7629,-14.5959,-0.129799,8.30108,-0.0177674,9.06865,-11.0544,-0.26389,2.05079,0.0783579,-0.0213275,-0.134869,0.133614,-1.98218,0.247791,0.133832,-0.05076,0.00777175,0.0114847,0.0512502,-0.0112505,-0.0820447,0.731193,0.00108726,0,0,0,0,0,0,0,-2.68231,-28.73,-3.43474,23.2178,0.263363,1.53435,-0.0905302,
-0.0160577,-0.135879,0.13943,-1.98909,0.243634,0.162075,-0.0501191,0.0766305,-0.00794604,0.0839228,-0.097894,0.0621777,0.262823,0.00713639,-1.39548,0.14713,-1.53917,1.88342,-13.5985,-13.2493,-0.13431,8.13597,-0.0466755,8.8885,-10.8699,-0.277663,1.89666,0.0777681,-0.0211937,-0.134969,0.136007,-1.98376,0.243135,0.154511,-0.0507629,0.00387625,-0.00237652,0.0576473,-0.0495617,-0.193238,0.54204,0.000611632,-0.486938,-1.73266,0.799632,-4.7889,-13.8992,-23.6441,-0.0594529,-1.08349,-26.5599,-1.78832,21.8729,0.379635,1.0244,-0.0969389,
-0.0155212,-0.13593,0.140017,-1.98977,0.243475,0.163415,-0.0500708,0.074717,-0.00762021,0.0818169,-0.0952789,0.0457558,0.243746,0.00691622,-1.19592,0.203645,-1.31622,1.63445,-10.2637,-11.9227,-0.137602,7.98077,-0.0963372,8.71376,-10.6334,-0.3064,1.83937,0.0767088,-0.0211937,-0.134969,0.136007,-1.98376,0.243135,0.154511,-0.0507629,0.00387625,-0.00237652,0.0576473,-0.0495617,-0.193238,0.54204,0.000611632,0,0,0,0,0,0,0,-1.08349,-26.5599,-1.78832,21.8729,0.379635,1.0244,-0.0969389,
-0.0173816,-0.135681,0.14026,-1.98925,0.239061,0.173651,-0.0503262,0.0705327,-0.0073496,0.0772899,-0.0901309,0.0372135,0.222981,0.00639903,-2.61519,0.169133,-2.82937,3.21745,-5.33896,-12.9784,-0.323242,7.01021,-0.328447,7.64034,-9.22414,-0.225084,1.54804,0.0661937,-0.0211937,-0.134969,0.136007,-1.98376,0.243135,0.154511,-0.0507629,0.00387625,-0.00237652,0.0576473,-0.0495617,-0.193238,0.54204,0.000611632,0,0,0,0,0,0,0,-1.08349,-26.5599,-1.78832,21.8729,0.379635,1.0244,-0.0969389,
-0.0169538,-0.135727,0.14073,-1.98979,0.239134,0.174704,-0.0502937,0.0671195,-0.00702481,0.0735971,-0.0857429,0.0316003,0.204711,0.0059326,-2.13323,0.202993,-2.308,2.74255,-3.50825,-11.4188,-0.291519,6.84699,-0.355998,7.46229,-8.99061,-0.187461,1.50773,0.0639273,-0.0211937,-0.134969,0.136007,-1.98376,0.243135,0.154511,-0.0507629,0.00387625,-0.00237652,0.0576473,-0.0495617,-0.193238,0.54204,0.000611632,0,0,0,0,0,0,0,-1.08349,-26.5599,-1.78832,21.8729,0.379635,1.0244,-0.0969389,
-0.0165306,-0.135769,0.141196,-1.99033,0.239251,0.175701,-0.0502632,0.0642763,-0.00667488,0.0705227,-0.0819235,0.0281831,0.188701,0.00550706,-1.77704,0.218704,-1.92153,2.38709,-2.13573,-10.0061,-0.265965,6.69644,-0.397923,7.30264,-8.76708,-0.100136,1.41452,0.0615975,-0.0211543,-0.135129,0.138569,-1.98625,0.235248,0.167076,-0.0507617,0.00720779,0.00537975,0.0615351,-0.0553906,-0.251214,0.253258,0.00048318,0.416443,0.969533,0.485978,-0.728608,-7.24696,-36.0978,-0.0160565,-0.349545,-27.8572,-1.08611,22.9678,0.667111,1.09673,-0.117081,
-0.0161134,-0.135809,0.141656,-1.99085,0.239404,0.176651,-0.0502348,0.0618517,-0.00632082,0.067904,-0.078527,0.026394,0.174699,0.00511579,-1.51534,0.22129,-1.63668,2.1228,-1.11818,-8.7512,-0.244543,6.53475,-0.419705,7.12735,-8.53423,-0.0583254,1.37841,0.0591702,-0.0211543,-0.135129,0.138569,-1.98625,0.235248,0.167076,-0.0507617,0.00720779,0.00537975,0.0615351,-0.0553906,-0.251214,0.253258,0.00048318,0,0,0,0,0,0,0,-0.349545,-27.8572,-1.08611,22.9678,0.667111,1.09673,-0.117081,
-0.018586,-0.135297,0.141481,-1.99048,0.232024,0.177203,-0.0505144,0.0584125,-0.00567053,0.0642311,-0.0750318,0.0236339,0.163052,0.00471684,-2.14951,0.406429,-2.29551,2.18454,-1.72509,-7.27973,-0.249347,5.89891,-0.48209,6.4426,-7.6057,0.104107,1.25194,0.0490844,-0.0211543,-0.135129,0.138569,-1.98625,0.235248,0.167076,-0.0507617,0.00720779,0.00537975,0.0615351,-0.0553906,-0.251214,0.253258,0.00048318,0,0,0,0,0,0,0,-0.349545,-27.8572,-1.08611,22.9678,0.667111,1.09673,-0.117081,
-0.0182287,-0.135321,0.141877,-1.99096,0.232185,0.178086,-0.0504914,0.0556642,-0.00515179,0.0612876,-0.071834,0.0229359,0.1525,0.0043472,-1.71766,0.324213,-1.83974,1.9986,-0.436227,-6.59442,-0.231021,5.7427,-0.492315,6.27526,-7.37413,0.140428,1.22424,0.0465295,-0.0211543,-0.135129,0.138569,-1.98625,0.235248,0.167076,-0.0507617,0.00720779,0.00537975,0.0615351,-0.0553906,-0.251214,0.253258,0.00048318,0,0,0,0,0,0,0,-0.349545,-27.8572,-1.08611,22.9678,0.667111,1.09673,-0.117081,
-0.0178736,-0.135346,0.14227,-1.99141,0.232397,0.178924,-0.0504704,0.0534081,-0.00473717,0.0588656,-0.0688587,0.0236564,0.142963,0.00400238,-1.41008,0.259138,-1.51373,1.85955,0.45032,-5.96083,-0.215513,5.60482,-0.50132,6.12964,-7.14862,0.224405,1.17627,0.0438143,-0.0211847,-0.134932,0.141077,-1.98835,0.225398,0.172296,-0.0507664,-0.00584485,0.00251191,0.0643397,-0.0515931,-0.306979,0.0760256,-0.000866004,-1.63158,-0.35848,0.350575,0.474686,-6.97066,-22.1541,-0.168648,0.309024,-30.4042,-0.713182,25.5347,1.47277,1.5545,-0.0429228,
-0.0175228,-0.13537,0.142659,-1.99185,0.232655,0.179722,-0.0504514,0.051495,-0.00440489,0.0568089,-0.0660485,0.0253671,0.134321,0.00367806,-1.19573,0.207676,-1.28544,1.75642,1.06919,-5.4016,-0.202699,5.4504,-0.507998,5.96465,-6.91727,0.256009,1.15075,0.0412775,-0.0211847,-0.134932,0.141077,-1.98835,0.225398,0.172296,-0.0507664,-0.00584485,0.00251191,0.0643397,-0.0515931,-0.306979,0.0760256,-0.000866004,0,0,0,0,0,0,0,0.309024,-30.4042,-0.713182,25.5347,1.47277,1.5545,-0.0429228,
-0.0192027,-0.134936,0.143379,-1.99202,0.222679,0.178132,-0.0506303,0.048073,-0.00361864,0.0531719,-0.0623167,0.0278633,0.123314,0.00324565,-2.13871,0.491404,-2.27313,2.33234,1.5601,-6.87938,-0.270257,4.8395,-0.520182,5.31233,-5.99108,0.364996,1.05062,0.0313712,-0.0211847,-0.134932,0.141077,-1.98835,0.225398,0.172296,-0.0507664,-0.00584485,0.00251191,0.0643397,-0.0515931,-0.306979,0.0760256,-0.000866004,0,0,0,0,0,0,0,0.309024,-30.4042,-0.713182,25.5347,1.47277,1.5545,-0.0429228,
-0.0189291,-0.134942,0.143686,-1.99238,0.223077,0.178722,-0.0506201,0.0452984,-0.00305929,0.0502109,-0.0587803,0.0322387,0.113407,0.00285277,-1.73415,0.349594,-1.85064,2.21025,2.73467,-6.1919,-0.24555,4.6884,-0.520179,5.15074,-5.75888,0.391149,1.02337,0.0289862,-0.0211847,-0.134932,0.141077,-1.98835,0.225398,0.172296,-0.0507664,-0.00584485,0.00251191,0.0643397,-0.0515931,-0.306979,0.0760256,-0.000866004,0,0,0,0,0,0,0,0.309024,-30.4042,-0.713182,25.5347,1.47277,1.5545,-0.0429228,
-0.0186594,-0.134951,0.143989,-1.99271,0.22357,0.179262,-0.0506117,0.0429794,-0.00267349,0.0477283,-0.0554088,0.0381256,0.104209,0.0024915,-1.44933,0.241123,-1.55162,2.10719,3.67932,-5.74831,-0.225793,4.54031,-0.536745,4.99209,-5.50186,0.456272,0.999926,0.0265533,-0.0212858,-0.134546,0.143074,-1.98979,0.216542,0.172876,-0.0507639,-0.0129728,0.00959193,0.0495636,-0.0346214,-0.219945,0.000943565,0.000276198,-0.890989,0.885002,-1.84701,2.12146,10.8792,-9.38525,0.142775,0.590702,-29.9519,-0.435472,26.2051,1.5094,2.15783,-0.083206,
-0.0183959,-0.134963,0.144284,-1.99302,0.224165,0.179742,-0.0506052,0.0409725,-0.0024169,0.0455753,-0.0521754,0.0453764,0.0953829,0.00215593,-1.25431,0.160371,-1.34561,2.02091,4.5317,-5.51647,-0.209735,4.39111,-0.534864,4.83197,-5.26867,0.487501,0.967187,0.0242616,-0.0212858,-0.134546,0.143074,-1.98979,0.216542,0.172876,-0.0507639,-0.0129728,0.00959193,0.0495636,-0.0346214,-0.219945,0.000943565,0.000276198,0,0,0,0,0,0,0,0.590702,-29.9519,-0.435472,26.2051,1.5094,2.15783,-0.083206,
-0.0199188,-0.134411,0.144706,-1.99248,0.218057,0.175344,-0.050723,0.0374529,-0.00179774,0.0418331,-0.0478485,0.0625683,0.0794629,0.00171717,-2.19976,0.386976,-2.33887,2.70428,10.745,-9.95004,-0.274223,3.81278,-0.520489,4.2065,-4.32952,0.690434,0.781112,0.0155304,-0.0212858,-0.134546,0.143074,-1.98979,0.216542,0.172876,-0.0507639,-0.0129728,0.00959193,0.0495636,-0.0346214,-0.219945,0.000943565,0.000276198,0,0,0,0,0,0,0,0.590702,-29.9519,-0.435472,26.2051,1.5094,2.15783,-0.083206,
-0.0197369,-0.134409,0.144915,-1.9927,0.219345,0.175361,-0.0507251,0.0345091,-0.00138642,0.0386949,-0.0437801,0.0822407,0.064004,0.00132182,-1.83989,0.257073,-1.96139,2.54279,12.2952,-9.66179,-0.247095,3.67555,-0.515521,4.0564,-4.0931,0.775368,0.713659,0.013436,-0.0212858,-0.134546,0.143074,-1.98979,0.216542,0.172876,-0.0507639,-0.0129728,0.00959193,0.0495636,-0.0346214,-0.219945,0.000943565,0.000276198,0,0,0,0,0,0,0,0.590702,-29.9519,-0.435472,26.2051,1.5094,2.15783,-0.083206,
-0.0195626,-0.13441,0.145116,-1.9929,0.220892,0.175253,-0.0507288,0.0319671,-0.00112364,0.0359806,-0.0399403,0.10449,0.0485104,0.000964281,-1.58875,0.16424,-1.69642,2.39984,13.9057,-9.68352,-0.22346,3.53922,-0.52913,3.90698,-3.83654,0.903065,0.642795,0.0113081,-0.0213643,-0.134457,0.144195,-1.99116,0.211,0.172677,-0.0507622,-0.00844867,0.00481657,0.0199085,-0.0375191,-0.123569,-0.018636,0.000372599,0.56551,-0.59692,-3.70688,-0.362206,12.047,-2.44744,0.0120501,0.765262,-29.5552,-0.288683,26.6534,1.63208,2.69524,-0.0703886,
-0.0208709,-0.134345,0.144832,-1.99265,0.212992,0.172946,-0.0507531,0.0287551,-0.000401582,0.0326149,-0.0379731,0.110692,0.0379031,0.000736618,-2.00749,0.451284,-2.10354,1.22954,3.87606,-6.62952,-0.142289,3.28872,-0.516124,3.62806,-3.36153,1.19566,0.441365,0.00725723,-0.0213643,-0.134457,0.144195,-1.99116,0.211,0.172677,-0.0507622,-0.00844867,0.00481657,0.0199085,-0.0375191,-0.123569,-0.018636,0.000372599,0,0,0,0,0,0,0,0.765262,-29.5552,-0.288683,26.6534,1.63208,2.69524,-0.0703886,
-0.02074,-0.134329,0.144988,-1.99287,0.214391,0.172803,-0.0507563,0.0262768,8.10623e-05,0.029999,-0.0357039,0.123535,0.0267508,0.00051094,-1.54892,0.301653,-1.63492,1.41826,8.02745,-6.97021,-0.141049,3.17225,-0.50821,3.49653,-3.12384,1.3914,0.315636,0.00528585,-0.0213643,-0.134457,0.144195,-1.99116,0.211,0.172677,-0.0507622,-0.00844867,0.00481657,0.0199085,-0.0375191,-0.123569,-0.018636,0.000372599,0,0,0,0,0,0,0,0.765262,-29.5552,-0.288683,26.6534,1.63208,2.69524,-0.0703886,
-0.0206096,-0.134316,0.145143,-1.99305,0.216119,0.172533,-0.050761,0.0242823,0.00037507,0.0278796,-0.0332343,0.142022,0.0146334,0.000291457,-1.24658,0.183755,-1.32468,1.54349,11.5541,-7.57335,-0.137177,3.06192,-0.498902,3.37052,-2.88633,1.62667,0.170894,0.0033662,-0.0213643,-0.134457,0.144195,-1.99116,0.211,0.172677,-0.0507622,-0.00844867,0.00481657,0.0199085,-0.0375191,-0.123569,-0.018636,0.000372599,0,0,0,0,0,0,0,0.765262,-29.5552,-0.288683,26.6534,1.63208,2.69524,-0.0703886,
-0.0204831,-0.134307,0.145294,-1.99322,0.218195,0.172116,-0.0507669,0.0225884,0.000532522,0.0260695,-0.0306423,0.165508,0.00130527,8.40936e-05,-1.0587,0.0984076,-1.13128,1.62,14.6788,-8.3301,-0.129602,2.95516,-0.504627,3.24835,-2.63298,1.90959,0.0199411,0.00145956,-0.0214093,-0.134405,0.144759,-1.9923,0.209711,0.17104,-0.0507607,-0.00513233,0.00903316,0.00957956,-0.0278734,0.00953479,-0.0671603,0.00114629,0.414543,0.527074,-1.29112,1.20572,16.638,-6.06554,0.0967115,0.25745,-30.0551,-0.713182,27.1771,1.55883,2.65496,-0.083206,
-0.0211754,-0.134315,0.145065,-1.99314,0.211932,0.170437,-0.0507549,0.0206023,0.00109743,0.0239888,-0.0309938,0.158633,-0.00340114,6.09718e-05,-1.24127,0.353069,-1.30044,-0.219682,-4.2971,-2.94151,-0.0144511,3.0597,-0.515779,3.36917,-2.8701,1.63088,0.184497,0.00329817,-0.0214093,-0.134405,0.144759,-1.9923,0.209711,0.17104,-0.0507607,-0.00513233,0.00903316,0.00957956,-0.0278734,0.00953479,-0.0671603,0.00114629,0,0,0,0,0,0,0,0.25745,-30.0551,-0.713182,27.1771,1.55883,2.65496,-0.083206,
-0.0210631,-0.134291,0.145201,-1.99337,0.213297,0.1702,-0.0507572,0.0192898,0.00148014,0.0226054,-0.0305134,0.16101,-0.00865068,-1.05802e-05,-0.820338,0.239195,-0.864638,0.300222,1.48551,-3.28097,-0.04472,2.95516,-0.504627,3.24835,-2.63298,1.90959,0.0199411,0.00145956,-0.0214093,-0.134405,0.144759,-1.9923,0.209711,0.17104,-0.0507607,-0.00513233,0.00903316,0.00957956,-0.0278734,0.00953479,-0.0671603,0.00114629,0,0,0,0,0,0,0,0.25745,-30.0551,-0.713182,27.1771,1.55883,2.65496,-0.083206,
-0.0209461,-0.134271,0.145342,-1.99357,0.214992,0.169866,-0.0507614,0.0183547,0.00169719,0.0216102,-0.0293995,0.171202,-0.015262,-0.000113342,-0.584452,0.135653,-0.621991,0.696208,6.37025,-4.13208,-0.0642263,2.85535,-0.491045,3.13164,-2.39645,2.23563,-0.165101,-0.000266104,-0.0214093,-0.134405,0.144759,-1.9923,0.209711,0.17104,-0.0507607,-0.00513233,0.00903316,0.00957956,-0.0278734,0.00953479,-0.0671603,0.00114629,0,0,0,0,0,0,0,0.25745,-30.0551,-0.713182,27.1771,1.55883,2.65496,-0.083206,
-0.0208296,-0.134254,0.145483,-1.99374,0.21704,0.169409,-0.0507671,0.0175969,0.00177978,0.0207949,-0.0278253,0.188164,-0.0236512,-0.000231609,-0.473629,0.0516206,-0.509566,0.983869,10.6016,-5.24322,-0.0739165,2.75822,-0.474399,3.01701,-2.16067,2.61069,-0.369588,-0.00182783,-0.0214093,-0.134405,0.144759,-1.9923,0.209711,0.17104,-0.0507607,-0.00513233,0.00903316,0.00957956,-0.0278734,0.00953479,-0.0671603,0.00114629,0,0,0,0,0,0,0,0.25745,-30.0551,-0.713182,27.1771,1.55883,2.65496,-0.083206,
-0.0213076,-0.134321,0.145109,-1.99382,0.214289,0.167244,-0.0507624,0.0158642,0.00166947,0.0189679,-0.0273233,0.1896,-0.0288304,-0.000265293,-1.08292,-0.068948,-1.14185,0.31376,0.897113,-3.23706,-0.0210526,2.85441,-0.506713,3.13122,-2.38093,2.23052,-0.148214,-0.000347859,-0.0214555,-0.134343,0.144899,-1.99315,0.210711,0.168383,-0.0507585,-0.00138314,0.00418686,-0.000944343,-0.0198138,0.0518185,-0.0780375,0.000596533,0.468649,-0.605787,-1.31549,1.00745,5.28546,-1.35965,-0.0687198,0.487552,-29.7298,-0.463243,26.9034,1.41235,2.5158,-0.103348,
-0.021226,-0.13431,0.145213,-1.99399,0.216233,0.166753,-0.0507673,0.0147321,0.00162029,0.0177668,-0.0262479,0.200286,-0.0353398,-0.000334305,-0.707583,-0.0307342,-0.750726,0.672126,6.67885,-4.06833,-0.0431328,2.75728,-0.490066,3.01659,-2.14516,2.60558,-0.352701,-0.00190959,-0.0214555,-0.134343,0.144899,-1.99315,0.210711,0.168383,-0.0507585,-0.00138314,0.00418686,-0.000944343,-0.0198138,0.0518185,-0.0780375,0.000596533,0,0,0,0,0,0,0,0.487552,-29.7298,-0.463243,26.9034,1.41235,2.5158,-0.103348,
-0.0211406,-0.134298,0.14532,-1.99414,0.218574,0.166135,-0.0507734,0.0139189,0.00158296,0.016895,-0.0247375,0.218754,-0.0437115,-0.000418871,-0.508213,-0.0233304,-0.544877,0.94395,11.5424,-5.23231,-0.0528536,2.65938,-0.469659,2.9006,-1.91012,3.02963,-0.574833,-0.00323417,-0.0214555,-0.134343,0.144899,-1.99315,0.210711,0.168383,-0.0507585,-0.00138314,0.00418686,-0.000944343,-0.0198138,0.0518185,-0.0780375,0.000596533,0,0,0,0,0,0,0,0.487552,-29.7298,-0.463243,26.9034,1.41235,2.5158,-0.103348,
-0.0210566,-0.134287,0.145425,-1.99427,0.221326,0.165371,-0.05078,0.013237,0.00154009,0.0161548,-0.0229201,0.243792,-0.0540784,-0.000500175,-0.426229,-0.0267925,-0.462635,1.13592,15.6491,-6.4793,-0.0508151,2.55556,-0.444861,2.77812,-1.67575,3.49877,-0.810147,-0.00422855,-0.0214555,-0.134343,0.144899,-1.99315,0.210711,0.168383,-0.0507585,-0.00138314,0.00418686,-0.000944343,-0.0198138,0.0518185,-0.0780375,0.000596533,0,0,0,0,0,0,0,0.487552,-29.7298,-0.463243,26.9034,1.41235,2.5158,-0.103348,
-0.0213712,-0.13421,0.145157,-1.9944,0.214459,0.165817,-0.0507675,0.0116021,0.00144282,0.0144881,-0.0231864,0.229687,-0.0508543,-0.000490844,-1.02181,-0.0607952,-1.04168,-0.166478,-8.81556,2.01506,0.00583164,2.75792,-0.503111,3.01764,-2.13027,2.60022,-0.337919,-0.00199276,-0.0214295,-0.134225,0.145054,-1.99399,0.212138,0.166353,-0.0507612,-0.00255138,0.00216186,0.00209602,-0.0238624,0.054015,-0.0323346,-0.00133318,-0.14603,-0.253126,0.380045,-0.506079,0.274568,5.71287,-0.241214,0.25745,-29.5552,-0.586229,26.6296,1.21643,2.05163,-0.050247,
-0.0213159,-0.1342,0.145234,-1.99457,0.216279,0.165397,-0.0507725,0.0106655,0.00140264,0.0135206,-0.022787,0.229245,-0.0511676,-0.000516864,-0.58534,-0.0251116,-0.604691,0.249613,-0.276779,-0.195855,-0.0162624,2.66002,-0.482704,2.90165,-1.89523,3.02426,-0.560052,-0.00331734,-0.0214295,-0.134225,0.145054,-1.99399,0.212138,0.166353,-0.0507612,-0.00255138,0.00216186,0.00209602,-0.0238624,0.054015,-0.0323346,-0.00133318,0,0,0,0,0,0,0,0.25745,-29.5552,-0.586229,26.6296,1.21643,2.05163,-0.050247,
-0.0212523,-0.13419,0.14532,-1.99471,0.21853,0.164835,-0.0507785,0.0101218,0.00137891,0.0129436,-0.0218487,0.239679,-0.0549793,-0.000563557,-0.339846,-0.0148362,-0.360624,0.586467,6.52128,-2.38232,-0.0291832,2.55619,-0.457906,2.77918,-1.66086,3.4934,-0.795365,-0.00431172,-0.0214295,-0.134225,0.145054,-1.99399,0.212138,0.166353,-0.0507612,-0.00255138,0.00216186,0.00209602,-0.0238624,0.054015,-0.0323346,-0.00133318,0,0,0,0,0,0,0,0.25745,-29.5552,-0.586229,26.6296,1.21643,2.05163,-0.050247,
-0.021186,-0.13418,0.145407,-1.99483,0.221216,0.164115,-0.050785,0.00975583,0.00135286,0.0125382,-0.0205103,0.258887,-0.0619917,-0.000613257,-0.228707,-0.0162764,-0.253382,0.83652,12.0052,-4.38274,-0.0310623,2.43906,-0.428231,2.64289,-1.42665,3.99949,-1.03817,-0.00485399,-0.0214295,-0.134225,0.145054,-1.99399,0.212138,0.166353,-0.0507612,-0.00255138,0.00216186,0.00209602,-0.0238624,0.054015,-0.0323346,-0.00133318,0,0,0,0,0,0,0,0.25745,-29.5552,-0.586229,26.6296,1.21643,2.05163,-0.050247,
-0.0213158,-0.134102,0.145508,-1.99524,0.220715,0.165039,-0.0507856,0.00851059,0.00143893,0.0112678,-0.0192588,0.269342,-0.0645625,-0.000661651,-0.778277,0.053792,-0.793991,0.782139,6.53471,-1.60671,-0.0302461,2.55725,-0.462573,2.78238,-1.65764,3.48426,-0.789264,-0.00434549,-0.0213724,-0.134155,0.145382,-1.99484,0.214861,0.166214,-0.0507652,-0.00203324,0.00435474,0.00466611,-0.0195505,0.0928303,0.0017437,0.000800156,0.0647677,0.274111,0.321262,0.538986,4.8519,4.25978,0.266667,-0.528073,-29.456,-1.33605,26.106,1.21002,1.95916,-0.0429228,
-0.0212834,-0.134089,0.145561,-1.99534,0.223697,0.16424,-0.050792,0.00761983,0.0014655,0.0103253,-0.0177423,0.290026,-0.0716119,-0.000687192,-0.556725,0.0166028,-0.589046,0.947813,12.9275,-4.4059,-0.0159634,2.44011,-0.432898,2.64608,-1.42343,3.99034,-1.03207,-0.00488776,-0.0213724,-0.134155,0.145382,-1.99484,0.214861,0.166214,-0.0507652,-0.00203324,0.00435474,0.00466611,-0.0195505,0.0928303,0.0017437,0.000800156,0,0,0,0,0,0,0,-0.528073,-29.456,-1.33605,26.106,1.21002,1.95916,-0.0429228,
-0.0212506,-0.134078,0.145612,-1.99541,0.227144,0.163253,-0.0507971,0.00691458,0.001466,0.00954859,-0.0160387,0.318199,-0.0819779,-0.00067738,-0.440778,0.0003129,-0.485442,1.06476,17.6081,-6.47876,0.00613279,2.29982,-0.398165,2.48618,-1.18881,4.51908,-1.27335,-0.00483953,-0.0213724,-0.134155,0.145382,-1.99484,0.214861,0.166214,-0.0507652,-0.00203324,0.00435474,0.00466611,-0.0195505,0.0928303,0.0017437,0.000800156,0,0,0,0,0,0,0,-0.528073,-29.456,-1.33605,26.106,1.21002,1.95916,-0.0429228,
-0.0212211,-0.134066,0.145659,-1.99547,0.231018,0.162092,-0.0508002,0.00626859,0.00146348,0.0088125,-0.0142051,0.351419,-0.0946036,-0.000619611,-0.403749,-0.00157272,-0.460056,1.146,20.7622,-7.89104,0.0361056,2.12373,-0.358719,2.29008,-0.952554,5.04904,-1.50342,-0.00403691,-0.0213724,-0.134155,0.145382,-1.99484,0.214861,0.166214,-0.0507652,-0.00203324,0.00435474,0.00466611,-0.0195505,0.0928303,0.0017437,0.000800156,0,0,0,0,0,0,0,-0.528073,-29.456,-1.33605,26.106,1.21002,1.95916,-0.0429228,
-0.0213641,-0.134133,0.145416,-1.99499,0.216259,0.16603,-0.0507718,0.00522363,0.00171823,0.007903,-0.0152113,0.316087,-0.0802783,-0.000662075,-0.6531,0.159221,-0.56844,-0.628879,-22.0827,8.95331,-0.0265401,2.55761,-0.463213,2.78539,-1.65684,3.47191,-0.784081,-0.00435784,-0.021343,-0.134017,0.145829,-1.99539,0.218371,0.166211,-0.0507612,-0.000561706,0.00674179,0.0126225,-0.0130731,0.118657,-0.000804132,-0.00078465,0.183942,0.298381,0.994553,0.809673,3.22832,-0.318478,-0.198101,0.25745,-29.7536,-0.637804,26.2567,1.52221,2.03881,-0.050247,
-0.021344,-0.134116,0.145459,-1.99513,0.218226,0.165638,-0.0507788,0.00467999,0.00179974,0.00739545,-0.0155479,0.302044,-0.0740365,-0.000703624,-0.339772,0.050942,-0.317217,-0.210315,-8.77678,3.90114,-0.025968,2.44047,-0.433538,2.64909,-1.42262,3.978,-1.02688,-0.00490011,-0.021343,-0.134017,0.145829,-1.99539,0.218371,0.166211,-0.0507612,-0.000561706,0.00674179,0.0126225,-0.0130731,0.118657,-0.000804132,-0.00078465,0,0,0,0,0,0,0,0.25745,-29.7536,-0.637804,26.2567,1.52221,2.03881,-0.050247,
-0.0213158,-0.134102,0.145508,-1.99524,0.220715,0.165039,-0.0507856,0.00444992,0.00179643,0.00715361,-0.0152889,0.303868,-0.0741983,-0.000733944,-0.143797,-0.00206759,-0.151153,0.161837,1.14011,-0.10112,-0.0189502,2.30017,-0.398805,2.48919,-1.188,4.50673,-1.26816,-0.00485189,-0.021343,-0.134017,0.145829,-1.99539,0.218371,0.166211,-0.0507612,-0.000561706,0.00674179,0.0126225,-0.0130731,0.118657,-0.000804132,-0.00078465,0,0,0,0,0,0,0,0.25745,-29.7536,-0.637804,26.2567,1.52221,2.03881,-0.050247,
-0.0212834,-0.134089,0.145561,-1.99534,0.223697,0.16424,-0.050792,0.00437129,0.0017515,0.00703397,-0.0145664,0.317647,-0.0793205,-0.000745027,-0.0491407,-0.0280849,-0.0747752,0.451571,8.6118,-3.20142,-0.00692669,2.12409,-0.359359,2.29309,-0.951745,5.03669,-1.49824,-0.00404927,-0.021343,-0.134017,0.145829,-1.99539,0.218371,0.166211,-0.0507612,-0.000561706,0.00674179,0.0126225,-0.0130731,0.118657,-0.000804132,-0.00078465,0,0,0,0,0,0,0,0.25745,-29.7536,-0.637804,26.2567,1.52221,2.03881,-0.050247,
-0.0213187,-0.133938,0.145932,-1.99567,0.225974,0.164411,-0.0507884,0.00363109,0.00191686,0.00629227,-0.0134647,0.333589,-0.0849768,-0.000757655,-0.462626,0.103354,-0.463557,0.688575,9.9637,-3.53519,-0.00789288,2.30019,-0.400365,2.49241,-1.18803,4.48974,-1.26327,-0.00485086,-0.0212733,-0.133899,0.146232,-1.99586,0.22311,0.166194,-0.0507607,-0.00502283,0.00834056,0.000679656,-0.0134066,0.112513,-0.000360584,0.000239562,-0.55764,0.199846,-1.49286,-0.0416819,-0.767925,0.0554434,0.128027,-1.46435,-29.3529,-2.21282,26.2805,1.5039,2.18438,-0.083206,
-0.0213151,-0.13392,0.145954,-1.99572,0.229669,0.163338,-0.0507921,0.00299531,0.0019919,0.00558674,-0.0121133,0.359242,-0.0948221,-0.000699458,-0.397364,0.0469012,-0.440957,0.844627,16.0335,-6.15332,0.0363732,2.1241,-0.360919,2.29631,-0.951769,5.0197,-1.49334,-0.00404824,-0.0212733,-0.133899,0.146232,-1.99586,0.22311,0.166194,-0.0507607,-0.00502283,0.00834056,0.000679656,-0.0134066,0.112513,-0.000360584,0.000239562,0,0,0,0,0,0,0,-1.46435,-29.3529,-2.21282,26.2805,1.5039,2.18438,-0.083206,
-0.0213147,-0.133903,0.14597,-1.99576,0.233789,0.162087,-0.0507931,0.00240482,0.00201762,0.00488409,-0.0105772,0.390406,-0.107131,-0.000584202,-0.369056,0.016072,-0.43916,0.960034,19.4771,-7.69292,0.0720351,1.89704,-0.317978,2.04899,-0.712709,5.52107,-1.69997,-0.00236762,-0.0212733,-0.133899,0.146232,-1.99586,0.22311,0.166194,-0.0507607,-0.00502283,0.00834056,0.000679656,-0.0134066,0.112513,-0.000360584,0.000239562,0,0,0,0,0,0,0,-1.46435,-29.3529,-2.21282,26.2805,1.5039,2.18438,-0.083206,
-0.021319,-0.133888,0.14598,-1.99577,0.238221,0.160701,-0.0507941,0.00181628,0.00199334,0.00415303,-0.00891829,0.423131,-0.120355,-0.000493134,-0.367836,-0.015173,-0.456908,1.03683,20.4534,-8.26506,0.0569174,1.6019,-0.274559,1.73372,-0.46933,5.95388,-1.87215,0.00017626,-0.0212733,-0.133899,0.146232,-1.99586,0.22311,0.166194,-0.0507607,-0.00502283,0.00834056,0.000679656,-0.0134066,0.112513,-0.000360584,0.000239562,0,0,0,0,0,0,0,-1.46435,-29.3529,-2.21282,26.2805,1.5039,2.18438,-0.083206,
-0.0214792,-0.133761,0.146104,-1.99605,0.231822,0.163873,-0.0507822,-0.000276585,0.00256418,0.00206503,-0.00814787,0.42942,-0.122896,-0.000455297,-1.30804,0.356775,-1.305,0.481511,3.93032,-1.58838,0.0236485,1.89614,-0.32203,2.05028,-0.709409,5.51377,-1.69577,-0.00235904,-0.0212889,-0.133839,0.146652,-1.99619,0.225242,0.166193,-0.0507637,0.00205217,0.0032707,0.0163645,-0.00749663,0.0642584,-0.00364954,1.20046e-06,0.884375,-0.633733,1.9606,0.738742,-6.03189,-0.41112,-0.0297952,0.106693,-29.3807,-0.713182,26.6058,1.80877,2.21093,-0.0566557,
-0.0215445,-0.133728,0.146053,-1.99607,0.235921,0.162616,-0.0507837,-0.00185356,0.00287292,0.000391651,-0.007061,0.445999,-0.129734,-0.000402432,-0.985611,0.192963,-1.04586,0.679293,10.3621,-4.27337,0.0330407,1.60099,-0.278611,1.735,-0.466031,5.94658,-1.86795,0.000184839,-0.0212889,-0.133839,0.146652,-1.99619,0.225242,0.166193,-0.0507637,0.00205217,0.0032707,0.0163645,-0.00749663,0.0642584,-0.00364954,1.20046e-06,0,0,0,0,0,0,0,0.106693,-29.3807,-0.713182,26.6058,1.80877,2.21093,-0.0566557,
-0.0216012,-0.133704,0.14601,-1.99608,0.240231,0.161265,-0.0508029,-0.00290178,0.00290856,-0.00077499,-0.00583928,0.464563,-0.137568,-0.000800486,-0.655133,0.0222749,-0.72915,0.763577,11.6023,-4.89669,-0.248784,1.22158,-0.242001,1.33698,-0.219151,6.25825,-1.99215,0.00292674,-0.0212889,-0.133839,0.146652,-1.99619,0.225242,0.166193,-0.0507637,0.00205217,0.0032707,0.0163645,-0.00749663,0.0642584,-0.00364954,1.20046e-06,0,0,0,0,0,0,0,0.106693,-29.3807,-0.713182,26.6058,1.80877,2.21093,-0.0566557,
-0.0216131,-0.133696,0.146024,-1.99608,0.244081,0.160109,-0.0508013,-0.00261738,0.00252019,-0.000268768,-0.00483665,0.467897,-0.13896,-0.000601658,0.177747,-0.242731,0.316388,0.626643,2.08428,-0.869893,0.124267,0.754316,-0.231314,0.855893,0.0224361,6.37004,-2.0447,0.00185502,-0.0212889,-0.133839,0.146652,-1.99619,0.225242,0.166193,-0.0507637,0.00205217,0.0032707,0.0163645,-0.00749663,0.0642584,-0.00364954,1.20046e-06,0,0,0,0,0,0,0,0.106693,-29.3807,-0.713182,26.6058,1.80877,2.21093,-0.0566557,
-0.0213712,-0.133796,0.146644,-1.99629,0.230319,0.164795,-0.0507875,-0.00349092,0.00255772,-0.000874094,-0.00479357,0.450647,-0.13316,-0.000680207,-0.545964,0.0234516,-0.378329,0.0269234,-10.7817,3.62501,-0.0490936,1.6027,-0.279538,1.74038,-0.470292,5.93159,-1.86489,0.000159769,-0.0212229,-0.133816,0.147053,-1.99667,0.229437,0.16616,-0.050757,-0.00181125,0.00748436,-0.00140712,-0.016939,0.148964,-0.00162682,0.000506617,-0.482928,0.526708,-2.22145,-1.18029,10.5881,0.252841,0.063177,0.134464,-29.5274,-0.685411,26.7288,1.87011,2.09191,-0.083206,
-0.0214387,-0.133775,0.146597,-1.9963,0.234056,0.16366,-0.050792,-0.00448156,0.00257745,-0.00187187,-0.00428717,0.453952,-0.1349,-0.000658249,-0.61915,0.0123354,-0.623607,0.316497,2.06568,-1.08725,0.0137236,1.22328,-0.242929,1.34235,-0.223412,6.24326,-1.98909,0.00290167,-0.0212229,-0.133816,0.147053,-1.99667,0.229437,0.16616,-0.050757,-0.00181125,0.00748436,-0.00140712,-0.016939,0.148964,-0.00162682,0.000506617,0,0,0,0,0,0,0,0.134464,-29.5274,-0.685411,26.7288,1.87011,2.09191,-0.083206,
-0.0215046,-0.133759,0.146547,-1.99631,0.23814,0.16239,-0.0508128,-0.00523263,0.00247722,-0.00273783,-0.00353054,0.465259,-0.139661,-0.00104562,-0.469418,-0.0626446,-0.541225,0.472894,7.06714,-2.97593,-0.242107,0.756019,-0.232242,0.861267,0.0181748,6.35505,-2.04165,0.00182995,-0.0212229,-0.133816,0.147053,-1.99667,0.229437,0.16616,-0.050757,-0.00181125,0.00748436,-0.00140712,-0.016939,0.148964,-0.00162682,0.000506617,0,0,0,0,0,0,0,0.134464,-29.5274,-0.685411,26.7288,1.87011,2.09191,-0.083206,
-0.0215124,-0.13366,0.146861,-1.99676,0.238499,0.163729,-0.0507962,-0.00607786,0.00282334,-0.00327377,-0.00316595,0.452152,-0.133795,-0.000876365,-0.528264,0.216321,-0.334963,0.227868,-8.19201,3.66663,0.105785,0.756019,-0.232242,0.861267,0.0181748,6.35505,-2.04165,0.00182995,-0.0212229,-0.133816,0.147053,-1.99667,0.229437,0.16616,-0.050757,-0.00181125,0.00748436,-0.00140712,-0.016939,0.148964,-0.00162682,0.000506617,0,0,0,0,0,0,0,0.134464,-29.5274,-0.685411,26.7288,1.87011,2.09191,-0.083206,
-0.021503,-0.133647,0.146889,-1.99677,0.240791,0.163199,-0.0507898,-0.00462655,0.00256852,-0.00190198,-0.0026709,0.419027,-0.120301,-0.00054083,0.907069,-0.159258,0.857367,0.309409,-20.7034,8.43384,0.20971,0.276928,-0.298422,0.411755,0.224222,6.0322,-1.9105,-0.0238323,-0.0212229,-0.133816,0.147053,-1.99667,0.229437,0.16616,-0.050757,-0.00181125,0.00748436,-0.00140712,-0.016939,0.148964,-0.00162682,0.000506617,0,0,0,0,0,0,0,0.134464,-29.5274,-0.685411,26.7288,1.87011,2.09191,-0.083206,
-0.0214627,-0.133651,0.14696,-1.99676,0.242538,0.162897,-0.0507888,-0.00269449,0.00195844,0.000238215,-0.00208929,0.378892,-0.103787,-0.000405762,1.20754,-0.381305,1.33762,0.363509,-25.0838,10.3212,0.0844176,0.236817,-0.534103,0.731995,0.354557,3.97236,-0.967188,-0.00609362,-0.0211351,-0.133799,0.147223,-1.99708,0.234354,0.166164,-0.0507619,0.000489661,0.000344042,0.00129319,-0.00584991,0.112656,-0.000940807,0.000529413,0.287614,-0.89254,0.337538,1.38613,-4.53849,0.0857513,0.00284958,-0.984311,-29.5552,-1.96288,26.4035,1.61377,2.03148,-0.0630644,
-0.0214115,-0.133667,0.147047,-1.99676,0.243951,0.162746,-0.050791,-0.000876205,0.00117145,0.00238135,-0.00144826,0.338437,-0.086799,-0.000380371,1.13643,-0.491866,1.33946,0.400641,-25.2848,10.6172,0.015869,0.073273,-0.642947,0.599568,0.551166,1.04737,0.245915,-0.00738298,-0.0211351,-0.133799,0.147223,-1.99708,0.234354,0.166164,-0.0507619,0.000489661,0.000344042,0.00129319,-0.00584991,0.112656,-0.000940807,0.000529413,0,0,0,0,0,0,0,-0.984311,-29.5552,-1.96288,26.4035,1.61377,2.03148,-0.0630644,
-0.0215124,-0.13366,0.146861,-1.99676,0.238499,0.163729,-0.0507962,-0.00259271,0.00177872,0.000821575,-0.00150013,0.350694,-0.0915049,-0.000344166,-1.07282,0.379542,-0.97486,-0.032417,7.66079,-2.94116,0.0226286,0.236817,-0.534103,0.731995,0.354557,3.97236,-0.967188,-0.00609362,-0.0211351,-0.133799,0.147223,-1.99708,0.234354,0.166164,-0.0507619,0.000489661,0.000344042,0.00129319,-0.00584991,0.112656,-0.000940807,0.000529413,0,0,0,0,0,0,0,-0.984311,-29.5552,-1.96288,26.4035,1.61377,2.03148,-0.0630644,
-0.0211968,-0.133835,0.147328,-1.99706,0.239581,0.165711,-0.0507822,-0.00178358,0.00086858,0.00194293,-0.00076066,0.306137,-0.0725315,-0.000378324,0.505707,-0.568836,0.700848,0.462167,-27.848,11.8583,-0.0213492,0.073273,-0.642947,0.599568,0.551166,1.04737,0.245915,-0.00738298,-0.0211351,-0.133799,0.147223,-1.99708,0.234354,0.166164,-0.0507619,0.000489661,0.000344042,0.00129319,-0.00584991,0.112656,-0.000940807,0.000529413,0,0,0,0,0,0,0,-0.984311,-29.5552,-1.96288,26.4035,1.61377,2.03148,-0.0630644,
-0.021182,-0.133864,0.147384,-1.99704,0.240529,0.165785,-0.0507871,-0.00105851,-1.72649e-05,0.00295452,-4.38887e-05,0.268613,-0.0561736,-0.000425819,0.453171,-0.553653,0.632241,0.447982,-23.4526,10.2237,-0.0296843,0.0722818,-0.643459,0.599025,0.553012,1.0421,0.247689,-0.00736589,-0.0211974,-0.133742,0.147265,-1.99721,0.235879,0.16633,-0.0507621,-0.00800165,0.00098862,-0.00287963,0.00216968,-7.97406e-06,0.0172434,-0.000296214,-1.06141,0.0805722,-0.521602,1.00245,-14.0829,2.27303,-0.103203,0.00751081,-29.5036,-0.93535,26.8518,1.55243,2.19811,-0.0703886,
-0.0211667,-0.133897,0.147442,-1.99701,0.24143,0.165892,-0.0507925,-0.000462168,-0.000849981,0.00380022,0.000632638,0.237429,-0.0422655,-0.00047506,0.372713,-0.520448,0.528562,0.422829,-19.4898,8.69251,-0.0307754,0.0722818,-0.643459,0.599025,0.553012,1.0421,0.247689,-0.00736589,-0.0211974,-0.133742,0.147265,-1.99721,0.235879,0.16633,-0.0507621,-0.00800165,0.00098862,-0.00287963,0.00216968,-7.97406e-06,0.0172434,-0.000296214,0,0,0,0,0,0,0,0.00751081,-29.5036,-0.93535,26.8518,1.55243,2.19811,-0.0703886,
-0.021316,-0.133762,0.147236,-1.99719,0.236593,0.166662,-0.0507757,-0.001745,-0.0010126,0.00275925,0.000757276,0.201014,-0.0295672,-0.000537878,-0.801772,-0.101635,-0.650603,0.0778991,-22.7597,7.93643,-0.039261,0.0722818,-0.643459,0.599025,0.553012,1.0421,0.247689,-0.00736589,-0.0211974,-0.133742,0.147265,-1.99721,0.235879,0.16633,-0.0507621,-0.00800165,0.00098862,-0.00287963,0.00216968,-7.97406e-06,0.0172434,-0.000296214,0,0,0,0,0,0,0,0.00751081,-29.5036,-0.93535,26.8518,1.55243,2.19811,-0.0703886,
-0.0213615,-0.133781,0.147233,-1.99717,0.237148,0.166836,-0.0507815,-0.00253386,-0.00127808,0.00213819,0.00101228,0.174682,-0.0192956,-0.000575614,-0.493036,-0.165928,-0.388165,0.159376,-16.4573,6.41979,-0.0235855,0.0722818,-0.643459,0.599025,0.553012,1.0421,0.247689,-0.00736589,-0.0211974,-0.133742,0.147265,-1.99721,0.235879,0.16633,-0.0507621,-0.00800165,0.00098862,-0.00287963,0.00216968,-7.97406e-06,0.0172434,-0.000296214,0,0,0,0,0,0,0,0.00751081,-29.5036,-0.93535,26.8518,1.55243,2.19811,-0.0703886,
-0.0213981,-0.133804,0.147239,-1.99715,0.237778,0.167014,-0.0507871,-0.00294065,-0.00161379,0.00185327,0.00135402,0.155499,-0.0109831,-0.000600517,-0.254242,-0.209819,-0.178076,0.213588,-11.9894,5.19529,-0.0155645,0.0716985,-0.63353,0.597843,0.544669,1.04562,0.240331,-0.00731923,-0.0212912,-0.133732,0.147215,-1.99722,0.235036,0.167822,-0.0507621,-0.0107485,-0.000570459,-0.00180414,-0.000708988,-0.0675825,0.0724019,5.87572e-05,-0.343357,-0.194885,0.134436,-0.359834,-8.44682,6.89481,0.0443714,-0.627255,-29.6306,-1.53838,26.9034,1.20453,2.44988,-0.0703886,
-0.0214267,-0.133832,0.147253,-1.99713,0.23846,0.167195,-0.0507926,-0.0030681,-0.00199444,0.00181822,0.00173881,0.141444,-0.00425162,-0.000618651,-0.0796551,-0.237907,-0.0219056,0.240497,-8.78455,4.20719,-0.0113337,0.0716985,-0.63353,0.597843,0.544669,1.04562,0.240331,-0.00731923,-0.0212912,-0.133732,0.147215,-1.99722,0.235036,0.167822,-0.0507621,-0.0107485,-0.000570459,-0.00180414,-0.000708988,-0.0675825,0.0724019,5.87572e-05,0,0,0,0,0,0,0,-0.627255,-29.6306,-1.53838,26.9034,1.20453,2.44988,-0.0703886,
-0.0213753,-0.13374,0.147181,-1.99721,0.234956,0.168262,-0.0507713,-0.00455716,-0.00178422,0.000618802,0.00167848,0.111149,0.00759371,-0.000724245,-0.930665,0.131392,-0.749635,-0.0377078,-18.9344,7.40333,-0.0659961,0.0716985,-0.63353,0.597843,0.544669,1.04562,0.240331,-0.00731923,-0.0212912,-0.133732,0.147215,-1.99722,0.235036,0.167822,-0.0507621,-0.0107485,-0.000570459,-0.00180414,-0.000708988,-0.0675825,0.0724019,5.87572e-05,0,0,0,0,0,0,0,-0.627255,-29.6306,-1.53838,26.9034,1.20453,2.44988,-0.0703886,
-0.0214534,-0.133753,0.147149,-1.99719,0.23517,0.168617,-0.0507789,-0.00559997,-0.00175922,-0.000309789,0.00185482,0.0942527,0.0149578,-0.000769085,-0.651755,0.0156234,-0.580369,0.110209,-10.56,4.60253,-0.0280252,0.0716985,-0.63353,0.597843,0.544669,1.04562,0.240331,-0.00731923,-0.0212912,-0.133732,0.147215,-1.99722,0.235036,0.167822,-0.0507621,-0.0107485,-0.000570459,-0.00180414,-0.000708988,-0.0675825,0.0724019,5.87572e-05,0,0,0,0,0,0,0,-0.627255,-29.6306,-1.53838,26.9034,1.20453,2.44988,-0.0703886,
-0.0215214,-0.133772,0.147125,-1.99716,0.235573,0.168919,-0.0507854,-0.0061798,-0.00188657,-0.000858098,0.00213674,0.0854825,0.0195149,-0.000776662,-0.362394,-0.0795933,-0.342693,0.176205,-5.48138,2.8482,-0.00473532,0.070713,-0.60951,0.594394,0.524918,1.0619,0.220309,-0.00721274,-0.0216425,-0.133749,0.147034,-1.99722,0.230928,0.171596,-0.0507592,-0.0133476,0.000976587,-0.0116281,1.70884e-06,-0.133792,0.12087,3.02477e-05,-0.324887,0.193381,-1.228,0.0888371,-8.27615,6.05849,-0.0035637,-1.00811,-29.3529,-1.93511,26.7288,0.923458,2.65496,-0.0969389,
-0.0215782,-0.133797,0.14711,-1.99713,0.236101,0.169186,-0.0507912,-0.006362,-0.00212237,-0.00104538,0.00245959,0.0815939,0.0222906,-0.000767952,-0.113878,-0.147378,-0.117049,0.201781,-2.43035,1.73481,0.00544349,0.070713,-0.60951,0.594394,0.524918,1.0619,0.220309,-0.00721274,-0.0216425,-0.133749,0.147034,-1.99722,0.230928,0.171596,-0.0507592,-0.0133476,0.000976587,-0.0116281,1.70884e-06,-0.133792,0.12087,3.02477e-05,0,0,0,0,0,0,0,-1.00811,-29.3529,-1.93511,26.7288,0.923458,2.65496,-0.0969389,
-0.0220097,-0.133768,0.146808,-1.99713,0.230721,0.173253,-0.0507846,-0.00778078,-0.00206062,-0.00244806,0.00284532,0.071355,0.0284532,-0.000779157,-0.886737,0.0385969,-0.876679,0.24108,-6.39932,3.8516,-0.007003,0.070713,-0.60951,0.594394,0.524918,1.0619,0.220309,-0.00721274,-0.0216425,-0.133749,0.147034,-1.99722,0.230928,0.171596,-0.0507592,-0.0133476,0.000976587,-0.0116281,1.70884e-06,-0.133792,0.12087,3.02477e-05,0,0,0,0,0,0,0,-1.00811,-29.3529,-1.93511,26.7288,0.923458,2.65496,-0.0969389,
-0.0220996,-0.133789,0.14676,-1.99709,0.231139,0.173605,-0.0507904,-0.00847054,-0.0021805,-0.00316483,0.00320431,0.0675373,0.0315593,-0.000767411,-0.431096,-0.0749247,-0.447983,0.224372,-2.38605,1.94132,0.00734129,0.070713,-0.60951,0.594394,0.524918,1.0619,0.220309,-0.00721274,-0.0216425,-0.133749,0.147034,-1.99722,0.230928,0.171596,-0.0507592,-0.0133476,0.000976587,-0.0116281,1.70884e-06,-0.133792,0.12087,3.02477e-05,0,0,0,0,0,0,0,-1.00811,-29.3529,-1.93511,26.7288,0.923458,2.65496,-0.0969389,
-0.0221727,-0.133816,0.146727,-1.99705,0.231675,0.173906,-0.0507958,-0.00860461,-0.00241368,-0.00333796,0.00352069,0.0674369,0.0327849,-0.000748325,-0.0837944,-0.145738,-0.108204,0.197733,-0.0627796,0.766005,0.0119287,0.072024,-0.597756,0.592655,0.516738,1.07662,0.204747,-0.00717169,-0.0220309,-0.133774,0.146679,-1.99721,0.227612,0.174643,-0.0507637,-0.0154609,-0.00173093,-0.0201423,-0.000830914,-0.0833207,0.0741322,-0.000590088,-0.26416,-0.33844,-1.06427,-0.104078,6.30888,-5.8422,-0.077542,-0.119442,-28.9562,-1.0623,26.5781,1.11847,2.58904,-0.0566557,
-0.0222311,-0.133847,0.14671,-1.99701,0.232293,0.174172,-0.050801,-0.00834395,-0.00271027,-0.003114,0.0037916,0.0693927,0.0328767,-0.000729323,0.16291,-0.18537,0.139977,0.169321,1.2224,0.0573756,0.0118763,0.072024,-0.597756,0.592655,0.516738,1.07662,0.204747,-0.00717169,-0.0220309,-0.133774,0.146679,-1.99721,0.227612,0.174643,-0.0507637,-0.0154609,-0.00173093,-0.0201423,-0.000830914,-0.0833207,0.0741322,-0.000590088,0,0,0,0,0,0,0,-0.119442,-28.9562,-1.0623,26.5781,1.11847,2.58904,-0.0566557,
-0.0225114,-0.133838,0.146367,-1.99711,0.228383,0.176032,-0.0507887,-0.00888146,-0.00271899,-0.00368734,0.00380587,0.0675563,0.0329939,-0.000712337,-0.335942,-0.00544659,-0.358342,0.00891789,-1.14775,0.0732697,0.010616,0.072024,-0.597756,0.592655,0.516738,1.07662,0.204747,-0.00717169,-0.0220309,-0.133774,0.146679,-1.99721,0.227612,0.174643,-0.0507637,-0.0154609,-0.00173093,-0.0201423,-0.000830914,-0.0833207,0.0741322,-0.000590088,0,0,0,0,0,0,0,-0.119442,-28.9562,-1.0623,26.5781,1.11847,2.58904,-0.0566557,
-0.0225818,-0.133864,0.146337,-1.99708,0.228963,0.176272,-0.0507938,-0.00886647,-0.00282957,-0.00370603,0.00386928,0.0685413,0.0323883,-0.000695537,0.00936818,-0.0691179,-0.0116758,0.0396337,0.615622,-0.378512,0.0104999,0.072024,-0.597756,0.592655,0.516738,1.07662,0.204747,-0.00717169,-0.0220309,-0.133774,0.146679,-1.99721,0.227612,0.174643,-0.0507637,-0.0154609,-0.00173093,-0.0201423,-0.000830914,-0.0833207,0.0741322,-0.000590088,0,0,0,0,0,0,0,-0.119442,-28.9562,-1.0623,26.5781,1.11847,2.58904,-0.0566557,
-0.0226373,-0.133894,0.146322,-1.99705,0.229612,0.176491,-0.0507988,-0.00847989,-0.0030097,-0.00334503,0.00395817,0.0710606,0.0313934,-0.000682038,0.241613,-0.112577,0.225622,0.0555558,1.57455,-0.621794,0.00843701,0.0725777,-0.589603,0.590238,0.512101,1.08224,0.196605,-0.00715127,-0.022533,-0.133748,0.14614,-1.9972,0.226258,0.176104,-0.0507599,-0.0131279,0.00216911,-0.0159513,0.00177171,0.00501343,0.0214241,0.000888515,0.291617,0.487506,0.523871,0.325328,11.0418,-6.58851,0.184825,0.233646,-29.456,-0.736986,26.5305,1.22833,2.49566,-0.0905302,
-0.0226804,-0.133927,0.146319,-1.99701,0.23031,0.176695,-0.0508039,-0.00786169,-0.00323261,-0.00274302,0.00405798,0.0743169,0.0302174,-0.000672619,0.386375,-0.139322,0.376257,0.0623825,2.03517,-0.734992,0.0058873,0.0725777,-0.589603,0.590238,0.512101,1.08224,0.196605,-0.00715127,-0.022533,-0.133748,0.14614,-1.9972,0.226258,0.176104,-0.0507599,-0.0131279,0.00216911,-0.0159513,0.00177171,0.00501343,0.0214241,0.000888515,0,0,0,0,0,0,0,0.233646,-29.456,-0.736986,26.5305,1.22833,2.49566,-0.0905302,
-0.022875,-0.133779,0.14596,-1.99714,0.228162,0.176796,-0.05078,-0.00775817,-0.00301831,-0.00265665,0.00378461,0.0751632,0.0283582,-0.000661255,0.0646984,0.133941,0.0539786,-0.170858,0.528957,-1.16204,0.00710239,0.0725777,-0.589603,0.590238,0.512101,1.08224,0.196605,-0.00715127,-0.022533,-0.133748,0.14614,-1.9972,0.226258,0.176104,-0.0507599,-0.0131279,0.00216911,-0.0159513,0.00177171,0.00501343,0.0214241,0.000888515,0,0,0,0,0,0,0,0.233646,-29.456,-0.736986,26.5305,1.22833,2.49566,-0.0905302,
-0.0229207,-0.133801,0.145954,-1.99712,0.228846,0.17696,-0.050785,-0.00734851,-0.00297299,-0.00225755,0.00365937,0.0772279,0.0267988,-0.000654064,0.256039,0.0283227,0.249442,-0.0782735,1.29045,-0.974599,0.00449397,0.0725777,-0.589603,0.590238,0.512101,1.08224,0.196605,-0.00715127,-0.022533,-0.133748,0.14614,-1.9972,0.226258,0.176104,-0.0507599,-0.0131279,0.00216911,-0.0159513,0.00177171,0.00501343,0.0214241,0.000888515,0,0,0,0,0,0,0,0.233646,-29.456,-0.736986,26.5305,1.22833,2.49566,-0.0905302,
-0.0229557,-0.133828,0.14596,-1.99709,0.22957,0.177122,-0.0507901,-0.00675554,-0.00304544,-0.00166859,0.00363358,0.07989,0.0254929,-0.000650657,0.370604,-0.0452775,0.368094,-0.016119,1.66379,-0.816187,0.00212964,0.0721485,-0.587039,0.588233,0.511681,1.08164,0.196309,-0.00714866,-0.0228533,-0.133737,0.145744,-1.99722,0.226306,0.176177,-0.0507614,-0.005393,0.000378381,-0.0113412,-0.00208284,0.00612693,-0.000338587,-0.000751529,0.966868,-0.223842,0.576262,-0.481819,0.139187,-2.72034,-0.205006,0.892215,-29.4798,0.0128308,26.6296,1.48559,2.37664,-0.0767973,
-0.0229823,-0.133858,0.145974,-1.99706,0.230324,0.177283,-0.0507953,-0.00606779,-0.00319559,-0.000979312,0.0036719,0.0827619,0.0243998,-0.000650239,0.429843,-0.0938465,0.430802,0.0239472,1.79494,-0.683166,0.000260973,0.0721485,-0.587039,0.588233,0.511681,1.08164,0.196309,-0.00714866,-0.0228533,-0.133737,0.145744,-1.99722,0.226306,0.176177,-0.0507614,-0.005393,0.000378381,-0.0113412,-0.00208284,0.00612693,-0.000338587,-0.000751529,0,0,0,0,0,0,0,0.892215,-29.4798,0.0128308,26.6296,1.48559,2.37664,-0.0767973,
-0.0229977,-0.133745,0.145684,-1.99723,0.227079,0.176292,-0.0507736,-0.00650084,-0.00270934,-0.00137978,0.002885,0.0779115,0.0213315,-0.000660971,-0.270656,0.303906,-0.250292,-0.491809,-3.03148,-1.91769,-0.00670754,0.0721485,-0.587039,0.588233,0.511681,1.08164,0.196309,-0.00714866,-0.0228533,-0.133737,0.145744,-1.99722,0.226306,0.176177,-0.0507614,-0.005393,0.000378381,-0.0113412,-0.00208284,0.00612693,-0.000338587,-0.000751529,0,0,0,0,0,0,0,0.892215,-29.4798,0.0128308,26.6296,1.48559,2.37664,-0.0767973,
-0.0230509,-0.133756,0.145672,-1.99722,0.227656,0.176386,-0.0507789,-0.00653117,-0.00243482,-0.00140038,0.00246696,0.0767609,0.0194084,-0.000661916,-0.0189547,0.171578,-0.0128732,-0.261278,-0.719162,-1.20195,-0.000590345,0.0721485,-0.587039,0.588233,0.511681,1.08164,0.196309,-0.00714866,-0.0228533,-0.133737,0.145744,-1.99722,0.226306,0.176177,-0.0507614,-0.005393,0.000378381,-0.0113412,-0.00208284,0.00612693,-0.000338587,-0.000751529,0,0,0,0,0,0,0,0.892215,-29.4798,0.0128308,26.6296,1.48559,2.37664,-0.0767973,
-0.023093,-0.133771,0.145671,-1.99721,0.228308,0.176496,-0.0507841,-0.0062777,-0.00233661,-0.00114635,0.00230538,0.077712,0.0182599,-0.000660282,0.158419,0.0613754,0.158766,-0.100989,0.594498,-0.717833,0.00102133,0.0721485,-0.587039,0.588233,0.511681,1.08164,0.196309,-0.00714866,-0.0228533,-0.133737,0.145744,-1.99722,0.226306,0.176177,-0.0507614,-0.005393,0.000378381,-0.0113412,-0.00208284,0.00612693,-0.000338587,-0.000751529,0,0,0,0,0,0,0,0.892215,-29.4798,0.0128308,26.6296,1.48559,2.37664,-0.0767973,
-0.0231257,-0.133791,0.145679,-1.99719,0.229013,0.176616,-0.0507894,-0.00583992,-0.00237604,-0.000710209,0.00231384,0.0797799,0.0176286,-0.000658935,0.273611,-0.0246395,0.272589,0.00528711,1.29243,-0.394553,0.000841495,0.0721603,-0.586124,0.587902,0.511325,1.08199,0.195876,-0.00714657,-0.0229131,-0.133728,0.145682,-1.99721,0.226211,0.176259,-0.0507614,-0.00471999,0.00167341,-0.00341898,-0.00111529,-0.00661062,9.15013e-05,0.000782563,0.0841268,0.161879,0.990278,0.120944,-1.59219,0.0537611,0.191762,0.285221,-29.0553,-0.76079,25.9552,2.0285,1.84655,-0.0767973,
-0.0229703,-0.133726,0.14567,-1.99722,0.226465,0.176305,-0.0507687,-0.00610173,-0.00184253,-0.00086033,0.001527,0.0701742,0.0152416,-0.000709367,-0.163628,0.333441,-0.0938254,-0.491775,-6.00357,-1.49187,-0.0315198,0.0721603,-0.586124,0.587902,0.511325,1.08199,0.195876,-0.00714657,-0.0229131,-0.133728,0.145682,-1.99721,0.226211,0.176259,-0.0507614,-0.00471999,0.00167341,-0.00341898,-0.00111529,-0.00661062,9.15013e-05,0.000782563,0,0,0,0,0,0,0,0.285221,-29.0553,-0.76079,25.9552,2.0285,1.84655,-0.0767973,
-0.0230214,-0.133729,0.145663,-1.99723,0.22691,0.176376,-0.0507751,-0.00615695,-0.0015618,-0.00087169,0.00109882,0.0672599,0.0139676,-0.000728261,-0.0345149,0.175458,-0.00709972,-0.267607,-1.82146,-0.796231,-0.0118089,0.0721603,-0.586124,0.587902,0.511325,1.08199,0.195876,-0.00714657,-0.0229131,-0.133728,0.145682,-1.99721,0.226211,0.176259,-0.0507614,-0.00471999,0.00167341,-0.00341898,-0.00111529,-0.00661062,9.15013e-05,0.000782563,0,0,0,0,0,0,0,0.285221,-29.0553,-0.76079,25.9552,2.0285,1.84655,-0.0767973,
-0.0230642,-0.133738,0.145662,-1.99722,0.227478,0.176465,-0.050781,-0.00599743,-0.00147153,-0.000709524,0.0009762,0.0680219,0.0134108,-0.000727985,0.0997012,0.0564149,0.101354,-0.0766399,0.476245,-0.348004,0.000172586,0.0721603,-0.586124,0.587902,0.511325,1.08199,0.195876,-0.00714657,-0.0229131,-0.133728,0.145682,-1.99721,0.226211,0.176259,-0.0507614,-0.00471999,0.00167341,-0.00341898,-0.00111529,-0.00661062,9.15013e-05,0.000782563,0,0,0,0,0,0,0,0.285221,-29.0553,-0.76079,25.9552,2.0285,1.84655,-0.0767973,
-0.023099,-0.133752,0.145669,-1.99721,0.228129,0.176569,-0.0507865,-0.00566651,-0.0015321,-0.00039319,0.00106399,0.0706872,0.0133273,-0.000720667,0.206826,-0.0378552,0.197709,0.05487,1.66581,-0.0522073,0.00457408,0.0721603,-0.586124,0.587902,0.511325,1.08199,0.195876,-0.00714657,-0.0229131,-0.133728,0.145682,-1.99721,0.226211,0.176259,-0.0507614,-0.00471999,0.00167341,-0.00341898,-0.00111529,-0.00661062,9.15013e-05,0.000782563,0,0,0,0,0,0,0,0.285221,-29.0553,-0.76079,25.9552,2.0285,1.84655,-0.0767973,
-0.0229703,-0.133726,0.14567,-1.99722,0.226465,0.176305,-0.0507687,-0.005963,-0.00116738,-0.000606715,0.00052712,0.0629,0.0118006,-0.000758752,-0.185305,0.227949,-0.133453,-0.335545,-4.86698,-0.954208,-0.0238034,0.0721603,-0.586124,0.587902,0.511325,1.08199,0.195876,-0.00714657,-0.0229131,-0.133728,0.145682,-1.99721,0.226211,0.176259,-0.0507614,-0.00471999,0.00167341,-0.00341898,-0.00111529,-0.00661062,9.15013e-05,0.000782563,0,0,0,0,0,0,0,0.285221,-29.0553,-0.76079,25.9552,2.0285,1.84655,-0.0767973,
-0.0230214,-0.133729,0.145663,-1.99723,0.22691,0.176376,-0.0507751,-0.00604597,-0.00102168,-0.000668797,0.000298924,0.0614405,0.0112148,-0.00076777,-0.0518562,0.0910648,-0.0388016,-0.142623,-0.91218,-0.366101,-0.00563577,0.0721603,-0.586124,0.587902,0.511325,1.08199,0.195876,-0.00714657,-0.0229131,-0.133728,0.145682,-1.99721,0.226211,0.176259,-0.0507614,-0.00471999,0.00167341,-0.00341898,-0.00111529,-0.00661062,9.15013e-05,0.000782563,0,0,0,0,0,0,0,0.285221,-29.0553,-0.76079,25.9552,2.0285,1.84655,-0.0767973,
-0.0230642,-0.133738,0.145662,-1.99722,0.227478,0.176465,-0.050781,-0.00590864,-0.00103944,-0.00054721,0.00033628,0.0633664,0.0112086,-0.000759592,0.0858281,-0.0110999,0.0759921,0.0233476,1.20367,-0.00390012,0.00511109,0.0721603,-0.586124,0.587902,0.511325,1.08199,0.195876,-0.00714657,-0.0229131,-0.133728,0.145682,-1.99721,0.226211,0.176259,-0.0507614,-0.00471999,0.00167341,-0.00341898,-0.00111529,-0.00661062,9.15013e-05,0.000782563,0,0,0,0,0,0,0,0.285221,-29.0553,-0.76079,25.9552,2.0285,1.84655,-0.0767973,
-0.023099,-0.133752,0.145669,-1.99721,0.228129,0.176569,-0.0507865,-0.00559548,-0.00118643,-0.000263339,0.000552056,0.0669628,0.0115655,-0.000745952,0.195727,-0.091867,0.177419,0.13486,2.24775,0.223076,0.00852489,0.0721533,-0.584875,0.58741,0.512242,1.08196,0.196799,-0.00715158,-0.0229445,-0.133665,0.145658,-1.99732,0.226229,0.176237,-0.0507608,0.00206462,0.00110515,-0.0039536,-0.00471752,0.00373919,0.00203863,3.46955e-05,0.848076,-0.0710336,-0.0668269,-0.450279,1.29373,0.243391,-0.0934835,-0.246395,-29.0791,-1.16149,25.856,1.63757,2.01226,-0.083206,
-0.0229822,-0.133661,0.145665,-1.99734,0.226543,0.176274,-0.0507684,-0.00541959,-0.000844739,-2.39589e-05,-0.000100036,0.061411,0.0101831,-0.000788367,0.109932,0.213555,0.149613,-0.407557,-3.46987,-0.863979,-0.0265095,0.0721533,-0.584875,0.58741,0.512242,1.08196,0.196799,-0.00715158,-0.0229445,-0.133665,0.145658,-1.99732,0.226229,0.176237,-0.0507608,0.00206462,0.00110515,-0.0039536,-0.00471752,0.00373919,0.00203863,3.46955e-05,0,0,0,0,0,0,0,-0.246395,-29.0791,-1.16149,25.856,1.63757,2.01226,-0.083206,
-0.0230182,-0.133662,0.145674,-1.99735,0.227032,0.176333,-0.050775,-0.00523589,-0.00070444,0.000186551,-0.000293724,0.0613498,0.00961448,-0.000795937,0.114812,0.0876866,0.131568,-0.121055,-0.0382658,-0.355408,-0.00473141,0.0721533,-0.584875,0.58741,0.512242,1.08196,0.196799,-0.00715158,-0.0229445,-0.133665,0.145658,-1.99732,0.226229,0.176237,-0.0507608,0.00206462,0.00110515,-0.0039536,-0.00471752,0.00373919,0.00203863,3.46955e-05,0,0,0,0,0,0,0,-0.246395,-29.0791,-1.16149,25.856,1.63757,2.01226,-0.083206,
-0.0230493,-0.133669,0.145685,-1.99735,0.227633,0.176411,-0.050781,-0.00496515,-0.000740613,0.000443804,-0.000190321,0.0641272,0.00963769,-0.000786414,0.169215,-0.022608,0.160783,0.064627,1.73592,0.0145073,0.00595218,0.0721533,-0.584875,0.58741,0.512242,1.08196,0.196799,-0.00715158,-0.0229445,-0.133665,0.145658,-1.99732,0.226229,0.176237,-0.0507608,0.00206462,0.00110515,-0.0039536,-0.00471752,0.00373919,0.00203863,3.46955e-05,0,0,0,0,0,0,0,-0.246395,-29.0791,-1.16149,25.856,1.63757,2.01226,-0.083206,
-0.0230747,-0.133682,0.145702,-1.99734,0.22831,0.176505,-0.0507867,-0.00460838,-0.000916644,0.000770648,9.44491e-05,0.0682088,0.0100596,-0.000771046,0.222978,-0.11002,0.204277,0.177981,2.55098,0.263691,0.00960464,0.0721176,-0.583452,0.586679,0.513653,1.08205,0.198165,-0.00715881,-0.0230072,-0.133594,0.145599,-1.99751,0.226223,0.176212,-0.0507632,0.00213712,0.00793396,0.000212086,-0.00445052,0.00294239,0.000166137,0.000507054,0.00906309,0.853602,0.520711,0.0333742,-0.0996002,-0.234062,0.0590448,0.487552,-28.8292,-0.538622,25.7806,1.72363,2.19811,-0.0703886,
-0.0230341,-0.133555,0.14562,-1.99754,0.226538,0.176241,-0.0507713,-0.00435924,0.000227441,0.00112438,-0.000747028,0.06246,0.00877481,-0.000819238,0.155712,0.715053,0.221085,-0.525923,-3.59302,-0.802991,-0.0301194,0.0721176,-0.583452,0.586679,0.513653,1.08205,0.198165,-0.00715881,-0.0230072,-0.133594,0.145599,-1.99751,0.226223,0.176212,-0.0507632,0.00213712,0.00793396,0.000212086,-0.00445052,0.00294239,0.000166137,0.000507054,0,0,0,0,0,0,0,0.487552,-28.8292,-0.538622,25.7806,1.72363,2.19811,-0.0703886,
-0.0230623,-0.133532,0.145637,-1.99756,0.227031,0.176289,-0.0507782,-0.00419183,0.000749911,0.00132594,-0.00110659,0.0622927,0.00822022,-0.000828646,0.104634,0.326544,0.125974,-0.224723,-0.104543,-0.34662,-0.00588026,0.0721176,-0.583452,0.586679,0.513653,1.08205,0.198165,-0.00715881,-0.0230072,-0.133594,0.145599,-1.99751,0.226223,0.176212,-0.0507632,0.00213712,0.00793396,0.000212086,-0.00445052,0.00294239,0.000166137,0.000507054,0,0,0,0,0,0,0,0.487552,-28.8292,-0.538622,25.7806,1.72363,2.19811,-0.0703886,
-0.0230877,-0.133522,0.145655,-1.99757,0.227637,0.176354,-0.0507844,-0.00398829,0.000858514,0.00151349,-0.00109039,0.0649811,0.00820787,-0.000817186,0.127211,0.0678771,0.117215,0.0101198,1.68023,-0.00771691,0.0071623,0.0721176,-0.583452,0.586679,0.513653,1.08205,0.198165,-0.00715881,-0.0230072,-0.133594,0.145599,-1.99751,0.226223,0.176212,-0.0507632,0.00213712,0.00793396,0.000212086,-0.00445052,0.00294239,0.000166137,0.000507054,0,0,0,0,0,0,0,0.487552,-28.8292,-0.538622,25.7806,1.72363,2.19811,-0.0703886,
-0.023109,-0.133522,0.145676,-1.99757,0.228317,0.176435,-0.0507902,-0.00372291,0.00068804,0.00174154,-0.000826475,0.0689733,0.00859584,-0.000798529,0.165861,-0.106546,0.142533,0.164949,2.49516,0.24248,0.0116608,0.0721564,-0.581794,0.586125,0.515598,1.08194,0.200168,-0.0071691,-0.0229701,-0.133479,0.145627,-1.99777,0.226289,0.176166,-0.0507652,0.000247751,0.000945103,0.000896235,-0.010143,-0.00071641,0.000494432,-0.00108218,-0.236171,-0.873608,0.0855185,-0.711554,-0.45735,0.0410369,-0.198654,-0.325741,-29.5274,-1.26067,26.3281,1.46728,2.43615,-0.0429228,
-0.0229995,-0.133467,0.145644,-1.99781,0.226576,0.176173,-0.0507732,-0.00371288,0.000848595,0.00183921,-0.00166884,0.0623387,0.00706165,-0.000839492,0.00626663,0.100347,0.061044,-0.52648,-4.14663,-0.958865,-0.0256019,0.0721564,-0.581794,0.586125,0.515598,1.08194,0.200168,-0.0071691,-0.0229701,-0.133479,0.145627,-1.99777,0.226289,0.176166,-0.0507652,0.000247751,0.000945103,0.000896235,-0.010143,-0.00071641,0.000494432,-0.00108218,0,0,0,0,0,0,0,-0.325741,-29.5274,-1.26067,26.3281,1.46728,2.43615,-0.0429228,
-0.0230294,-0.13346,0.14566,-1.99783,0.227048,0.176204,-0.05078,-0.00371641,0.000859784,0.00185073,-0.00182491,0.0616769,0.0064038,-0.000842318,-0.00220023,0.00699269,0.00720088,-0.0975437,-0.413649,-0.411158,-0.00176628,0.0721564,-0.581794,0.586125,0.515598,1.08194,0.200168,-0.0071691,-0.0229701,-0.133479,0.145627,-1.99777,0.226289,0.176166,-0.0507652,0.000247751,0.000945103,0.000896235,-0.010143,-0.00071641,0.000494432,-0.00108218,0,0,0,0,0,0,0,-0.325741,-29.5274,-1.26067,26.3281,1.46728,2.43615,-0.0429228,
-0.023056,-0.133459,0.145676,-1.99783,0.22764,0.176258,-0.0507862,-0.00364015,0.000695102,0.00189683,-0.00161097,0.064148,0.00648016,-0.000827663,0.0476621,-0.102926,0.0288135,0.133717,1.54442,0.0477245,0.00915932,0.0721564,-0.581794,0.586125,0.515598,1.08194,0.200168,-0.0071691,-0.0229701,-0.133479,0.145627,-1.99777,0.226289,0.176166,-0.0507652,0.000247751,0.000945103,0.000896235,-0.010143,-0.00071641,0.000494432,-0.00108218,0,0,0,0,0,0,0,-0.325741,-29.5274,-1.26067,26.3281,1.46728,2.43615,-0.0429228,
-0.0230783,-0.133466,0.145696,-1.99783,0.228311,0.176333,-0.050792,-0.00346956,0.000386199,0.00201957,-0.00119036,0.0680888,0.0070707,-0.000806917,0.106617,-0.193065,0.0767128,0.262879,2.46301,0.369089,0.0129665,0.072137,-0.579601,0.585629,0.517502,1.08183,0.202077,-0.00717888,-0.0229479,-0.133342,0.14572,-1.99801,0.226371,0.176156,-0.0507621,0.00179642,0.00836413,0.00826739,-0.00450552,1.62768e-05,0.000777863,0.000337033,0.193584,0.927379,0.921394,0.70468,0.0915858,0.0354289,0.177402,-0.222592,-28.9324,-1.21306,25.9552,1.52771,2.38305,-0.0703886,
-0.0229537,-0.133301,0.145764,-1.99804,0.226681,0.176186,-0.050771,-0.00291924,0.00131898,0.00272522,-0.00182242,0.0622367,0.00640056,-0.00086813,0.343949,0.582988,0.441029,-0.395039,-3.65757,-0.418836,-0.0382582,0.072137,-0.579601,0.585629,0.517502,1.08183,0.202077,-0.00717888,-0.0229479,-0.133342,0.14572,-1.99801,0.226371,0.176156,-0.0507621,0.00179642,0.00836413,0.00826739,-0.00450552,1.62768e-05,0.000777863,0.000337033,0,0,0,0,0,0,0,-0.222592,-28.9324,-1.21306,25.9552,1.52771,2.38305,-0.0703886,
-0.0229662,-0.133278,0.145798,-1.99806,0.22718,0.176231,-0.0507786,-0.00264753,0.00165238,0.00302832,-0.00200843,0.0622489,0.00626176,-0.000882659,0.169821,0.208374,0.189436,-0.116253,0.00767237,-0.086754,-0.00908069,0.072137,-0.579601,0.585629,0.517502,1.08183,0.202077,-0.00717888,-0.0229479,-0.133342,0.14572,-1.99801,0.226371,0.176156,-0.0507621,0.00179642,0.00836413,0.00826739,-0.00450552,1.62768e-05,0.000777863,0.000337033,0,0,0,0,0,0,0,-0.222592,-28.9324,-1.21306,25.9552,1.52771,2.38305,-0.0703886,
-0.02298,-0.133266,0.145828,-1.99807,0.227795,0.176293,-0.0507851,-0.00246396,0.00159957,0.00318276,-0.00184236,0.0651858,0.00655361,-0.000870201,0.114729,-0.0330012,0.0965246,0.10379,1.83556,0.182407,0.00778599,0.072137,-0.579601,0.585629,0.517502,1.08183,0.202077,-0.00717888,-0.0229479,-0.133342,0.14572,-1.99801,0.226371,0.176156,-0.0507621,0.00179642,0.00836413,0.00826739,-0.00450552,1.62768e-05,0.000777863,0.000337033,0,0,0,0,0,0,0,-0.222592,-28.9324,-1.21306,25.9552,1.52771,2.38305,-0.0703886,
-0.0229927,-0.133266,0.145859,-1.99807,0.228485,0.176371,-0.0507912,-0.00228771,0.00129416,0.00330461,-0.00144913,0.0694015,0.007185,-0.000847541,0.110159,-0.190882,0.0761562,0.245772,2.6348,0.394621,0.0141629,0.072137,-0.579601,0.585629,0.517502,1.08183,0.202077,-0.00717888,-0.0229479,-0.133342,0.14572,-1.99801,0.226371,0.176156,-0.0507621,0.00179642,0.00836413,0.00826739,-0.00450552,1.62768e-05,0.000777863,0.000337033,0,0,0,0,0,0,0,-0.222592,-28.9324,-1.21306,25.9552,1.52771,2.38305,-0.0703886,
-0.0229266,-0.133244,0.145906,-1.99831,0.226719,0.176153,-0.0507713,-0.00242994,0.00105956,0.00324037,-0.00214552,0.0625466,0.00587809,-0.000869965,-0.0888936,-0.146628,-0.0401461,-0.435248,-4.28434,-0.816817,-0.014015,0.072183,-0.579255,0.585702,0.519241,1.08181,0.203833,-0.00718817,-0.0229026,-0.133245,0.145882,-1.99827,0.226438,0.176147,-0.0507637,-0.000205447,-0.00146014,0.00317826,-0.0109864,-0.00195502,0.000832883,0.000331914,-0.250234,-1.22803,-0.636141,-0.810111,-0.246412,0.00687741,-0.000639813,-0.325741,-29.3529,-1.28844,26.6296,1.52771,2.42974,-0.0566557,
-0.0229523,-0.133244,0.145925,-1.99833,0.22719,0.176181,-0.0507783,-0.002587,0.0008474,0.00307901,-0.00215099,0.0618172,0.00542556,-0.000869748,-0.0981623,-0.132599,-0.100853,-0.003417,-0.455845,-0.282836,0.000135183,0.072183,-0.579255,0.585702,0.519241,1.08181,0.203833,-0.00718817,-0.0229026,-0.133245,0.145882,-1.99827,0.226438,0.176147,-0.0507637,-0.000205447,-0.00146014,0.00317826,-0.0109864,-0.00195502,0.000832883,0.000331914,0,0,0,0,0,0,0,-0.325741,-29.3529,-1.28844,26.6296,1.52771,2.42974,-0.0566557,
-0.0229759,-0.133249,0.145945,-1.99833,0.227783,0.176236,-0.0507846,-0.00265956,0.000557738,0.0029589,-0.00181736,0.0642943,0.00570576,-0.000852364,-0.0453533,-0.181039,-0.0750685,0.208518,1.54817,0.175129,0.0108652,0.072183,-0.579255,0.585702,0.519241,1.08181,0.203833,-0.00718817,-0.0229026,-0.133245,0.145882,-1.99827,0.226438,0.176147,-0.0507637,-0.000205447,-0.00146014,0.00317826,-0.0109864,-0.00195502,0.000832883,0.000331914,0,0,0,0,0,0,0,-0.325741,-29.3529,-1.28844,26.6296,1.52771,2.42974,-0.0566557,
-0.0229958,-0.133259,0.145968,-1.99833,0.228457,0.176313,-0.0507904,-0.0026268,0.000184191,0.00292885,-0.00130825,0.0682668,0.00648968,-0.000828742,0.0204778,-0.233467,-0.0187827,0.318197,2.4828,0.489945,0.014764,0.072183,-0.579255,0.585702,0.519241,1.08181,0.203833,-0.00718817,-0.0229026,-0.133245,0.145882,-1.99827,0.226438,0.176147,-0.0507637,-0.000205447,-0.00146014,0.00317826,-0.0109864,-0.00195502,0.000832883,0.000331914,0,0,0,0,0,0,0,-0.325741,-29.3529,-1.28844,26.6296,1.52771,2.42974,-0.0566557,
-0.0229266,-0.133244,0.145906,-1.99831,0.226719,0.176153,-0.0507713,-0.00270121,0.000171581,0.00293977,-0.00203282,0.0616388,0.00532183,-0.000854926,-0.0465074,-0.00788131,0.00682398,-0.452858,-4.14249,-0.729901,-0.0163648,0.0721344,-0.575484,0.585193,0.521121,1.08177,0.205725,-0.00719766,-0.0228692,-0.133049,0.146073,-1.99846,0.226517,0.17616,-0.0507659,0.00425285,0.0087355,0.0107684,-0.00674794,-0.00363414,0.00118556,-0.000553969,0.557288,1.27446,0.948768,0.529809,-0.209891,0.0440844,-0.110735,-0.274166,-29.1545,-1.16149,26.4313,1.59546,2.31072,-0.0365141,
-0.0229523,-0.133244,0.145925,-1.99833,0.22719,0.176181,-0.0507783,-0.00280401,0.000137018,0.00283852,-0.00206083,0.061091,0.00498055,-0.000857717,-0.0642533,-0.0216016,-0.063277,-0.017505,-0.34237,-0.213303,-0.00174472,0.0721344,-0.575484,0.585193,0.521121,1.08177,0.205725,-0.00719766,-0.0228692,-0.133049,0.146073,-1.99846,0.226517,0.17616,-0.0507659,0.00425285,0.0087355,0.0107684,-0.00674794,-0.00363414,0.00118556,-0.000553969,0,0,0,0,0,0,0,-0.274166,-29.1545,-1.16149,26.4313,1.59546,2.31072,-0.0365141,
