xiao-wang007/linearmpc_panda/paper_data/panda_inverse_dynamics_controller_Start_at_0_no_acceleration_ff/2/trajectory.csv
Commanded Joint 0 Position,Commanded Joint 1 Position,Commanded Joint 2 Position,Commanded Joint 3 Position,Commanded Joint 4 Position,Commanded Joint 5 Position,Commanded Joint 6 Position,Commanded Joint 0 Velocity,Commanded Joint 1 Velocity,Commanded Joint 2 Velocity,Commanded Joint 3 Velocity,Commanded Joint 4 Velocity,Commanded Joint 5 Velocity,Commanded Joint 6 Velocity,Commanded Joint 0 Acceleration,Commanded Joint 1 Acceleration,Commanded Joint 2 Acceleration,Commanded Joint 3 Acceleration,Commanded Joint 4 Acceleration,Commanded Joint 5 Acceleration,Commanded Joint 6 Acceleration,Commanded Joint 0 Torque,Commanded Joint 1 Torque,Commanded Joint 2 Torque,Commanded Joint 3 Torque,Commanded Joint 4 Torque,Commanded Joint 5 Torque,Commanded Joint 6 Torque,Actual Joint 0 Position,Actual Joint 1 Position,Actual Joint 2 Position,Actual Joint 3 Position,Actual Joint 4 Position,Actual Joint 5 Position,Actual Joint 6 Position,Actual Joint 0 Velocity,Actual Joint 1 Velocity,Actual Joint 2 Velocity,Actual Joint 3 Velocity,Actual Joint 4 Velocity,Actual Joint 5 Velocity,Actual Joint 6 Velocity,Actual Joint 0 Acceleration,Actual Joint 1 Acceleration,Actual Joint 2 Acceleration,Actual Joint 3 Acceleration,Actual Joint 4 Acceleration,Actual Joint 5 Acceleration,Actual Joint 6 Acceleration,Actual Joint 0 Torque,Actual Joint 1 Torque,Actual Joint 2 Torque,Actual Joint 3 Torque,Actual Joint 4 Torque,Actual Joint 5 Torque,Actual Joint 6 Torque,
-0.0358517,-0.0223686,0.0455836,-1.85607,0.00827412,0.314039,0.00958985,0.000735224,0.022176,0.000771831,-0.0334076,-0.00541562,0.0547043,-0.000376455,0,0,0,0,0,0,0,0.0564291,23.8369,0.11216,-24.4887,-0.641407,1.86065,-0.0241456,-0.0359273,-0.0235507,0.0455057,-1.85297,0.00865852,0.308168,0.0096215,-0.00127039,0.00764283,-0.000424861,6.76201e-05,-0.00114258,-0.000319806,-0.000894015,0,0,0,0,0,0,0,0.134464,-34.6452,0.0644055,27.3001,0.550839,3.09899,0.124619,
-0.0359412,-0.0234566,0.0454917,-1.85301,0.00863202,0.308156,0.00962112,0.000495483,0.0183193,0.000522801,-0.0270056,-0.00454766,0.0435547,-0.000301156,0,0,0,0,0,0,0,0.0506728,24.2775,0.101809,-24.405,-0.641468,1.60977,-0.0226297,-0.0359273,-0.0235507,0.0455057,-1.85297,0.00865852,0.308168,0.0096215,-0.00127039,0.00764283,-0.000424861,6.76201e-05,-0.00114258,-0.000319806,-0.000894015,0,0,0,0,0,0,0,0.134464,-34.6452,0.0644055,27.3001,0.550839,3.09899,0.124619,
-0.0359443,-0.0234384,0.0454886,-1.85302,0.0086243,0.308146,0.00962112,0.00032075,0.0151093,0.000340313,-0.021836,-0.00383118,0.0345955,-0.000240946,0,0,0,0,0,0,0,0.0434611,24.8491,0.0900719,-24.297,-0.640705,1.26223,-0.020661,-0.0359273,-0.0235507,0.0455057,-1.85297,0.00865852,0.308168,0.0096215,-0.00127039,0.00764283,-0.000424861,6.76201e-05,-0.00114258,-0.000319806,-0.000894015,0,0,0,0,0,0,0,0.134464,-34.6452,0.0644055,27.3001,0.550839,3.09899,0.124619,
-0.0359468,-0.023424,0.045486,-1.85302,0.00861763,0.308136,0.00962111,0.000194592,0.0124489,0.000207709,-0.0176582,-0.00323177,0.0274274,-0.00019285,0,0,0,0,0,0,0,0.0375216,25.373,0.0806514,-24.1292,-0.63844,0.877087,-0.0186601,-0.0359273,-0.0235507,0.0455057,-1.85297,0.00865852,0.308168,0.0096215,-0.00127039,0.00764283,-0.000424861,6.76201e-05,-0.00114258,-0.000319806,-0.000894015,0,0,0,0,0,0,0,0.134464,-34.6452,0.0644055,27.3001,0.550839,3.09899,0.124619,
-0.0360406,-0.0228854,0.0453991,-1.85314,0.0112145,0.30689,0.00959386,-0.00146944,0.0119584,-0.0014387,-0.0140441,0.0363686,0.000675911,-0.000417558,0,0,0,0,0,0,0,0.483808,0.182769,0.478881,-0.267333,3.16557,-1.85321,-0.00185284,-0.035924,-0.0230778,0.0455128,-1.85313,0.00866259,0.308279,0.00962222,-0.000480659,0.017319,0.000242517,-0.00952443,0.000622653,-3.35802e-05,-9.41569e-06,0.0987166,1.20953,0.0834223,-1.19901,0.220654,0.0357783,0.110575,0.182071,-32.9988,0.0644055,25.8084,0.514218,2.68792,0.11821,
-0.0361021,-0.0228296,0.0453378,-1.85314,0.0130943,0.305845,0.00958805,-0.00271122,0.0109602,-0.00268407,-0.0112003,0.0760912,-0.0255862,-0.000479104,0,0,0,0,0,0,0,0.478807,0.182298,0.473909,-0.264458,3.13839,-1.83701,-0.00182349,-0.035924,-0.0230778,0.0455128,-1.85313,0.00866259,0.308279,0.00962222,-0.000480659,0.017319,0.000242517,-0.00952443,0.000622653,-3.35802e-05,-9.41569e-06,0,0,0,0,0,0,0,0.182071,-32.9988,0.0644055,25.8084,0.514218,2.68792,0.11821,
-0.0361527,-0.02279,0.0452869,-1.85314,0.0151574,0.304676,0.00958483,-0.00343493,0.00975824,-0.00341977,-0.00902969,0.11245,-0.0496811,-0.000463976,0,0,0,0,0,0,0,0.473837,0.181563,0.468953,-0.261636,3.11106,-1.8208,-0.00179314,-0.035924,-0.0230778,0.0455128,-1.85313,0.00866259,0.308279,0.00962222,-0.000480659,0.017319,0.000242517,-0.00952443,0.000622653,-3.35802e-05,-9.41569e-06,0,0,0,0,0,0,0,0.182071,-32.9988,0.0644055,25.8084,0.514218,2.68792,0.11821,
-0.0361903,-0.0227607,0.0452488,-1.85315,0.017324,0.30343,0.00958295,-0.00368886,0.00854037,-0.00368767,-0.00739544,0.144125,-0.0708957,-0.000418169,0,0,0,0,0,0,0,0.468882,0.180592,0.46402,-0.258878,3.08362,-1.8046,-0.00176343,-0.035924,-0.0230778,0.0455128,-1.85313,0.00866259,0.308279,0.00962222,-0.000480659,0.017319,0.000242517,-0.00952443,0.000622653,-3.35802e-05,-9.41569e-06,0,0,0,0,0,0,0,0.182071,-32.9988,0.0644055,25.8084,0.514218,2.68792,0.11821,
-0.0361997,-0.0228861,0.0452491,-1.85265,0.0173347,0.301129,0.00952938,-0.00662523,0.00830311,-0.00652105,8.77384e-05,0.248345,-0.165904,-0.00119703,0,0,0,0,0,0,0,4.08517,1.19507,4.09323,-1.78408,10.9838,-10.0751,-0.0061251,-0.0359229,-0.0228474,0.0455067,-1.85358,0.00867702,0.30826,0.0096195,-0.00148198,0.00787708,0.0011831,-0.0113484,0.00719941,0.000831342,-0.000762013,-0.125165,-1.18025,0.117573,-0.227995,0.822094,0.108115,-0.0940747,0.106693,-34.6214,0.0644055,27.4747,0.465695,3.17864,0.138352,
-0.0363169,-0.0228764,0.0451338,-1.85247,0.0238217,0.295776,0.00951056,-0.00823241,0.0068865,-0.00809778,0.00445468,0.360852,-0.266553,-0.00142811,0,0,0,0,0,0,0,3.98845,1.22422,3.99861,-1.73388,10.9838,-9.89391,-0.00554099,-0.0359229,-0.0228474,0.0455067,-1.85358,0.00867702,0.30826,0.0096195,-0.00148198,0.00787708,0.0011831,-0.0113484,0.00719941,0.000831342,-0.000762013,0,0,0,0,0,0,0,0.106693,-34.6214,0.0644055,27.4747,0.465695,3.17864,0.138352,
-0.0363864,-0.0228869,0.0450654,-1.85236,0.0310094,0.289796,0.00950005,-0.00832217,0.00524587,-0.00818964,0.00629844,0.468374,-0.362752,-0.00140523,0,0,0,0,0,0,0,3.88572,1.23567,3.89641,-1.68905,10.9838,-9.71494,-0.00572082,-0.0359229,-0.0228474,0.0455067,-1.85358,0.00867702,0.30826,0.0096195,-0.00148198,0.00787708,0.0011831,-0.0113484,0.00719941,0.000831342,-0.000762013,0,0,0,0,0,0,0,0.106693,-34.6214,0.0644055,27.4747,0.465695,3.17864,0.138352,
-0.0353001,-0.0230192,0.046185,-1.85358,0.0159487,0.298655,0.00978243,0.00357744,0.000536541,0.00440345,0.00355147,0.488074,-0.4388,0.000463621,0,0,0,0,0,0,0,21.6884,1.28157,22.0219,-9.96477,10.9838,-14.3455,0.157608,-0.0359229,-0.0228474,0.0455067,-1.85358,0.00867702,0.30826,0.0096195,-0.00148198,0.00787708,0.0011831,-0.0113484,0.00719941,0.000831342,-0.000762013,0,0,0,0,0,0,0,0.106693,-34.6214,0.0644055,27.4747,0.465695,3.17864,0.138352,
-0.0347261,-0.0232554,0.0467889,-1.8538,0.0216912,0.291188,0.00981658,0.0172106,-0.00547692,0.0186188,-0.00277664,0.53402,-0.537729,0.00122452,0,0,0,0,0,0,0,19.9476,0.533085,20.3163,-9.92922,10.9836,-14.3418,0.0922838,-0.0359314,-0.0223723,0.0455071,-1.8539,0.00875752,0.308231,0.00962303,-0.00158772,0.00478153,0.000363661,-0.0125754,0.014845,-0.00260409,0.000642095,-0.0132182,-0.386943,-0.10243,-0.153372,0.955698,-0.42943,0.175514,0.360599,-35.7958,0.26277,27.3279,0.679012,2.94701,0.110886,
-0.0340132,-0.0235526,0.0475296,-1.85419,0.0282477,0.282673,0.00993439,0.0315921,-0.0118113,0.033412,-0.0117687,0.591129,-0.64306,0.003925,0,0,0,0,0,0,0,18.6784,-0.407749,19.0654,-10.1473,10.9836,-14.3418,0.0470332,-0.0359314,-0.0223723,0.0455071,-1.8539,0.00875752,0.308231,0.00962303,-0.00158772,0.00478153,0.000363661,-0.0125754,0.014845,-0.00260409,0.000642095,0,0,0,0,0,0,0,0.360599,-35.7958,0.26277,27.3279,0.679012,2.94701,0.110886,
-0.0332127,-0.0237992,0.0483532,-1.85458,0.0354068,0.27334,0.00996109,0.0452868,-0.0156141,0.0473197,-0.019169,0.651881,-0.747762,0.00380749,0,0,0,0,0,0,0,17.9304,-1.3804,18.2908,-10.4973,10.9836,-14.3418,0.151679,-0.0359314,-0.0223723,0.0455071,-1.8539,0.00875752,0.308231,0.00962303,-0.00158772,0.00478153,0.000363661,-0.0125754,0.014845,-0.00260409,0.000642095,0,0,0,0,0,0,0,0.360599,-35.7958,0.26277,27.3279,0.679012,2.94701,0.110886,
-0.0347147,-0.0223922,0.0467006,-1.85447,0.0152816,0.299241,0.00985723,0.0555003,-0.0130464,0.0569132,-0.0248141,0.624263,-0.738417,0.00513045,0,0,0,0,0,0,0,32.704,6.90906,32.5735,-17.1771,10.9836,-14.3418,0.195848,-0.0359314,-0.0223723,0.0455071,-1.8539,0.00875752,0.308231,0.00962303,-0.00158772,0.00478153,0.000363661,-0.0125754,0.014845,-0.00260409,0.000642095,0,0,0,0,0,0,0,0.360599,-35.7958,0.26277,27.3279,0.679012,2.94701,0.110886,
-0.0337001,-0.0224255,0.0477152,-1.85505,0.0206224,0.292106,0.010008,0.0697654,-0.0112691,0.070895,-0.0344141,0.632931,-0.769108,0.00787248,0,0,0,0,0,0,0,29.7386,6.45569,29.6789,-16.773,10.978,-14.331,0.100165,-0.0355447,-0.0223333,0.0466166,-1.85484,0.0108959,0.307426,0.00962222,0.0201763,-0.00496833,0.0531019,-0.0431794,0.0954118,-0.0706869,0.00080176,2.7205,-1.21873,6.59228,-3.8255,10.0708,-8.51035,0.0199582,6.1687,-34.3199,6.03914,25.2847,1.52221,2.01867,0.11821,
-0.0325321,-0.0223839,0.0488885,-1.85571,0.0269083,0.283828,0.0100359,0.0850119,-0.0079741,0.0860484,-0.0440099,0.663491,-0.822237,0.00699653,0,0,0,0,0,0,0,27.7399,5.44782,27.7778,-16.7898,10.978,-14.331,0.189232,-0.0355447,-0.0223333,0.0466166,-1.85484,0.0108959,0.307426,0.00962222,0.0201763,-0.00496833,0.0531019,-0.0431794,0.0954118,-0.0706869,0.00080176,0,0,0,0,0,0,0,6.1687,-34.3199,6.03914,25.2847,1.52221,2.01867,0.11821,
-0.0312539,-0.0223145,0.0501749,-1.8565,0.0338756,0.274791,0.0100417,0.099964,-0.00464667,0.100999,-0.0549405,0.704974,-0.883714,0.00574221,0,0,0,0,0,0,0,24.6316,6.29848,24.7232,-15.4243,10.978,-14.331,0.0283776,-0.0355447,-0.0223333,0.0466166,-1.85484,0.0108959,0.307426,0.00962222,0.0201763,-0.00496833,0.0531019,-0.0431794,0.0954118,-0.0706869,0.00080176,0,0,0,0,0,0,0,6.1687,-34.3199,6.03914,25.2847,1.52221,2.01867,0.11821,
-0.0336834,-0.0226855,0.0485169,-1.85644,0.0180194,0.298233,0.00989781,0.107504,-0.00877199,0.108731,-0.067432,0.67246,-0.848114,0.00836287,0,0,0,0,0,0,0,37.3525,5.74761,37.6748,-24.4121,10.978,-14.331,0.154872,-0.0355447,-0.0223333,0.0466166,-1.85484,0.0108959,0.307426,0.00962222,0.0201763,-0.00496833,0.0531019,-0.0431794,0.0954118,-0.0706869,0.00080176,0,0,0,0,0,0,0,6.1687,-34.3199,6.03914,25.2847,1.52221,2.01867,0.11821,
-0.032372,-0.0228501,0.0498428,-1.85753,0.0235824,0.291044,0.00989308,0.118788,-0.0111339,0.120131,-0.0809928,0.677042,-0.85821,0.00657206,0,0,0,0,0,0,0,33.8358,4.36527,34.0832,-24.1903,10.978,-14.331,0.186172,-0.0355447,-0.0223333,0.0466166,-1.85484,0.0108959,0.307426,0.00962222,0.0201763,-0.00496833,0.0531019,-0.0431794,0.0954118,-0.0706869,0.00080176,0,0,0,0,0,0,0,6.1687,-34.3199,6.03914,25.2847,1.52221,2.01867,0.11821,
-0.0309174,-0.0230081,0.0513113,-1.85878,0.0300456,0.282799,0.00984644,0.131395,-0.0128557,0.132817,-0.096108,0.703213,-0.892691,0.00409166,0,0,0,0,0,0,0,29.6704,4.47814,29.8842,-22.9005,10.9724,-14.2924,-0.0128478,-0.0343439,-0.0225468,0.0496502,-1.857,0.014992,0.303368,0.00961551,0.0454493,-0.00920647,0.126102,-0.0890559,0.161544,-0.17837,-0.00127891,3.15913,-0.529768,9.125,-5.73457,8.26656,-13.4604,-0.260084,7.8429,-31.1501,7.58638,22.7933,1.54052,1.62774,0.138352,
-0.0293674,-0.0231535,0.0528739,-1.86016,0.0371622,0.273785,0.009777,0.143868,-0.0139214,0.145318,-0.111405,0.740486,-0.939505,0.00153732,0,0,0,0,0,0,0,27.5257,2.87529,27.7204,-22.8776,10.9724,-14.2924,-0.0593984,-0.0343439,-0.0225468,0.0496502,-1.857,0.014992,0.303368,0.00961551,0.0454493,-0.00920647,0.126102,-0.0890559,0.161544,-0.17837,-0.00127891,0,0,0,0,0,0,0,7.8429,-31.1501,7.58638,22.7933,1.54052,1.62774,0.138352,
-0.0321298,-0.0228174,0.0519039,-1.85887,0.0233194,0.292797,0.00974177,0.145461,-0.0144818,0.147003,-0.114127,0.715964,-0.908497,0.000966625,0,0,0,0,0,0,0,33.8483,4.36066,34.0986,-24.1637,10.9724,-14.2924,0.18604,-0.0343439,-0.0225468,0.0496502,-1.857,0.014992,0.303368,0.00961551,0.0454493,-0.00920647,0.126102,-0.0890559,0.161544,-0.17837,-0.00127891,0,0,0,0,0,0,0,7.8429,-31.1501,7.58638,22.7933,1.54052,1.62774,0.138352,
-0.0307629,-0.0229703,0.0532851,-1.86005,0.0293675,0.285185,0.00969212,0.150542,-0.0154082,0.152132,-0.120828,0.723975,-0.917112,-0.000467996,0,0,0,0,0,0,0,29.6704,4.47814,29.8842,-22.9005,10.9724,-14.2924,-0.0128478,-0.0343439,-0.0225468,0.0496502,-1.857,0.014992,0.303368,0.00961551,0.0454493,-0.00920647,0.126102,-0.0890559,0.161544,-0.17837,-0.00127891,0,0,0,0,0,0,0,7.8429,-31.1501,7.58638,22.7933,1.54052,1.62774,0.138352,
-0.0292888,-0.0231262,0.0547718,-1.86137,0.0361966,0.276615,0.00962122,0.157285,-0.0162241,0.158873,-0.129704,0.749908,-0.947939,-0.00214677,0,0,0,0,0,0,0,27.5542,2.86132,27.7536,-22.8246,10.9728,-14.2247,-0.0596779,-0.0320233,-0.0227433,0.0550967,-1.86044,0.0201352,0.295266,0.00961944,0.0791053,-0.00758051,0.191167,-0.128938,0.152762,-0.269353,-0.000818752,4.20699,0.203246,8.13315,-4.98528,-1.09774,-11.3729,0.0575203,3.93512,-31.527,3.68654,22.8171,1.67419,1.35583,0.138352,
-0.0294712,-0.0228838,0.057693,-1.86255,0.0290377,0.283554,0.00952731,0.159307,-0.0153774,0.160979,-0.132062,0.731453,-0.926981,-0.00321948,0,0,0,0,0,0,0,29.6989,4.46417,29.9174,-22.8476,10.9728,-14.2247,-0.0131273,-0.0320233,-0.0227433,0.0550967,-1.86044,0.0201352,0.295266,0.00961944,0.0791053,-0.00758051,0.191167,-0.128938,0.152762,-0.269353,-0.000818752,0,0,0,0,0,0,0,3.93512,-31.527,3.68654,22.8171,1.67419,1.35583,0.138352,
-0.0280364,-0.0230111,0.0591414,-1.86383,0.0353797,0.275578,0.00945068,0.163315,-0.0154847,0.164993,-0.137489,0.743713,-0.940986,-0.00449121,0,0,0,0,0,0,0,27.5542,2.86132,27.7536,-22.8246,10.9728,-14.2247,-0.0596779,-0.0320233,-0.0227433,0.0550967,-1.86044,0.0201352,0.295266,0.00961944,0.0791053,-0.00758051,0.191167,-0.128938,0.152762,-0.269353,-0.000818752,0,0,0,0,0,0,0,3.93512,-31.527,3.68654,22.8171,1.67419,1.35583,0.138352,
-0.0265326,-0.0231511,0.0606582,-1.86521,0.0424528,0.266731,0.00936385,0.168247,-0.0158876,0.169914,-0.144599,0.771799,-0.973979,-0.00576376,0,0,0,0,0,0,0,25.8331,1.81516,26.0056,-22.5725,10.9728,-14.2247,-0.0875083,-0.0320233,-0.0227433,0.0550967,-1.86044,0.0201352,0.295266,0.00961944,0.0791053,-0.00758051,0.191167,-0.128938,0.152762,-0.269353,-0.000818752,0,0,0,0,0,0,0,3.93512,-31.527,3.68654,22.8171,1.67419,1.35583,0.138352,
-0.0249827,-0.0232924,0.0622212,-1.86668,0.0500262,0.25726,0.00927478,0.173347,-0.0162433,0.175007,-0.152311,0.806773,-1.01595,-0.00683779,0,0,0,0,0,0,0,24.4139,0.974604,24.5773,-22.2846,10.9728,-14.2247,-0.104245,-0.0320233,-0.0227433,0.0550967,-1.86044,0.0201352,0.295266,0.00961944,0.0791053,-0.00758051,0.191167,-0.128938,0.152762,-0.269353,-0.000818752,0,0,0,0,0,0,0,3.93512,-31.527,3.68654,22.8171,1.67419,1.35583,0.138352,
-0.0295799,-0.022979,0.0575821,-1.86259,0.0292045,0.283529,0.00946202,0.170534,-0.0166372,0.172222,-0.150332,0.779114,-0.982052,-0.00759065,0,0,0,0,0,0,0,27.5542,2.86132,27.7536,-22.8246,10.9728,-14.2247,-0.0596779,-0.0320233,-0.0227433,0.0550967,-1.86044,0.0201352,0.295266,0.00961944,0.0791053,-0.00758051,0.191167,-0.128938,0.152762,-0.269353,-0.000818752,0,0,0,0,0,0,0,3.93512,-31.527,3.68654,22.8171,1.67419,1.35583,0.138352,
-0.0282206,-0.0231568,0.0589545,-1.86386,0.0356166,0.275518,0.00937102,0.17041,-0.0177548,0.172086,-0.151952,0.783594,-0.985927,-0.00834732,0,0,0,0,0,0,0,25.8331,1.81516,26.0056,-22.5725,10.9728,-14.2247,-0.0875083,-0.0320233,-0.0227433,0.0550967,-1.86044,0.0201352,0.295266,0.00961944,0.0791053,-0.00758051,0.191167,-0.128938,0.152762,-0.269353,-0.000818752,0,0,0,0,0,0,0,3.93512,-31.527,3.68654,22.8171,1.67419,1.35583,0.138352,
-0.0267954,-0.0233455,0.0603926,-1.86523,0.0427366,0.266635,0.00928015,0.171958,-0.0189206,0.173621,-0.155785,0.804874,-1.01083,-0.00894965,0,0,0,0,0,0,0,24.4139,0.974604,24.5773,-22.2846,10.9728,-14.2247,-0.104245,-0.0320233,-0.0227433,0.0550967,-1.86044,0.0201352,0.295266,0.00961944,0.0791053,-0.00758051,0.191167,-0.128938,0.152762,-0.269353,-0.000818752,0,0,0,0,0,0,0,3.93512,-31.527,3.68654,22.8171,1.67419,1.35583,0.138352,
-0.0253234,-0.0235319,0.0618774,-1.86667,0.0503357,0.257131,0.00919356,0.174368,-0.0197974,0.176018,-0.160703,0.833878,-1.04624,-0.00932457,0,0,0,0,0,0,0,23.2609,0.240267,23.4276,-21.9023,10.9739,-14.1573,-0.109333,-0.0290751,-0.0229089,0.0619981,-1.86528,0.0235957,0.286474,0.00961372,0.102276,0.000698221,0.21805,-0.163022,0.0864135,-0.256888,-0.000584156,2.89634,1.03484,3.36033,-4.26048,-8.29361,1.5582,0.0293245,-0.349545,-33.6733,-0.360094,25.8798,1.24664,2.07177,0.151169,
-0.0264801,-0.0230156,0.0646374,-1.86764,0.0324156,0.274569,0.00940467,0.172514,-0.0180951,0.174225,-0.158945,0.799674,-1.00883,-0.0100822,0,0,0,0,0,0,0,25.854,1.76141,26.032,-22.5079,10.9739,-14.1573,-0.0879164,-0.0290751,-0.0229089,0.0619981,-1.86528,0.0235957,0.286474,0.00961372,0.102276,0.000698221,0.21805,-0.163022,0.0864135,-0.256888,-0.000584156,0,0,0,0,0,0,0,-0.349545,-33.6733,-0.360094,25.8798,1.24664,2.07177,0.151169,
-0.0251098,-0.0231561,0.0660219,-1.86895,0.0388494,0.266458,0.00930595,0.17227,-0.0179882,0.173994,-0.159999,0.800584,-1.00982,-0.0105338,0,0,0,0,0,0,0,24.4348,0.92086,24.6037,-22.22,10.9739,-14.1573,-0.104653,-0.0290751,-0.0229089,0.0619981,-1.86528,0.0235957,0.286474,0.00961372,0.102276,0.000698221,0.21805,-0.163022,0.0864135,-0.256888,-0.000584156,0,0,0,0,0,0,0,-0.349545,-33.6733,-0.360094,25.8798,1.24664,2.07177,0.151169,
-0.0236953,-0.0233213,0.06745,-1.87034,0.046012,0.25749,0.00921514,0.173178,-0.0185199,0.174898,-0.162866,0.819532,-1.03207,-0.0106972,0,0,0,0,0,0,0,23.2609,0.240267,23.4276,-21.9023,10.9739,-14.1573,-0.109333,-0.0290751,-0.0229089,0.0619981,-1.86528,0.0235957,0.286474,0.00961372,0.102276,0.000698221,0.21805,-0.163022,0.0864135,-0.256888,-0.000584156,0,0,0,0,0,0,0,-0.349545,-33.6733,-0.360094,25.8798,1.24664,2.07177,0.151169,
-0.0231185,-0.0234303,0.072037,-1.87341,0.0355441,0.264386,0.00938774,0.169221,-0.0192161,0.170993,-0.160457,0.787302,-1.00108,-0.0112563,0,0,0,0,0,0,0,24.4398,0.813629,24.6149,-22.1596,10.9651,-14.0927,-0.104999,-0.0255265,-0.0231265,0.0695876,-1.87105,0.0267894,0.276655,0.00961165,0.106372,-0.0189285,0.191176,-0.170107,0.0835759,-0.295107,-0.00109876,0.511997,-2.45334,-3.35917,-0.885652,-0.354696,-4.77744,-0.0643256,-6.23303,-37.9143,-6.18804,31.2634,0.905148,2.97356,0.171311,
-0.021838,-0.0236394,0.0733319,-1.87471,0.0419375,0.256189,0.00929197,0.167389,-0.0206002,0.169167,-0.160733,0.789678,-1.00578,-0.0113991,0,0,0,0,0,0,0,23.2659,0.133036,23.4388,-21.8419,10.9651,-14.0927,-0.109679,-0.0255265,-0.0231265,0.0695876,-1.87105,0.0267894,0.276655,0.00961165,0.106372,-0.0189285,0.191176,-0.170107,0.0835759,-0.295107,-0.00109876,0,0,0,0,0,0,0,-6.23303,-37.9143,-6.18804,31.2634,0.905148,2.97356,0.171311,
-0.0205085,-0.0238607,0.0746752,-1.87607,0.0490572,0.247175,0.00920957,0.167149,-0.022013,0.168916,-0.16279,0.809734,-1.02997,-0.0111794,0,0,0,0,0,0,0,22.2582,-0.412875,22.4286,-21.494,10.9651,-14.0927,-0.106741,-0.0255265,-0.0231265,0.0695876,-1.87105,0.0267894,0.276655,0.00961165,0.106372,-0.0189285,0.191176,-0.170107,0.0835759,-0.295107,-0.00109876,0,0,0,0,0,0,0,-6.23303,-37.9143,-6.18804,31.2634,0.905148,2.97356,0.171311,
-0.0191412,-0.0240826,0.0760559,-1.8775,0.056657,0.237589,0.00913834,0.167901,-0.0231566,0.16965,-0.165827,0.837783,-1.06363,-0.0107242,0,0,0,0,0,0,0,21.368,-0.851353,21.5348,-21.1086,10.9651,-14.0927,-0.0967936,-0.0255265,-0.0231265,0.0695876,-1.87105,0.0267894,0.276655,0.00961165,0.106372,-0.0189285,0.191176,-0.170107,0.0835759,-0.295107,-0.00109876,0,0,0,0,0,0,0,-6.23303,-37.9143,-6.18804,31.2634,0.905148,2.97356,0.171311,
-0.0231799,-0.0234655,0.071976,-1.8734,0.0356334,0.264351,0.00938262,0.164066,-0.0234365,0.165863,-0.162557,0.803108,-1.02688,-0.0112555,0,0,0,0,0,0,0,23.276,0.0405112,23.4557,-21.7677,10.9645,-14.0128,-0.110082,-0.0220462,-0.0235096,0.0771032,-1.87695,0.0294065,0.265922,0.00961695,0.100208,-0.0173702,0.22422,-0.161284,0.0977748,-0.342866,-0.00111048,-0.7705,0.194793,4.13051,1.10292,1.77487,-5.96987,-0.00146494,-2.70611,-36.9423,-2.91106,29.494,0.434567,2.80785,0.151169,
-0.0219442,-0.0236967,0.0732261,-1.87467,0.0420689,0.256128,0.00929405,0.162146,-0.0245282,0.163942,-0.161947,0.803373,-1.02708,-0.0112185,0,0,0,0,0,0,0,22.2684,-0.5054,22.4455,-21.4198,10.9645,-14.0128,-0.107144,-0.0220462,-0.0235096,0.0771032,-1.87695,0.0294065,0.265922,0.00961695,0.100208,-0.0173702,0.22422,-0.161284,0.0977748,-0.342866,-0.00111048,0,0,0,0,0,0,0,-2.70611,-36.9423,-2.91106,29.494,0.434567,2.80785,0.151169,
-0.020664,-0.023942,0.0745198,-1.87602,0.0492219,0.247089,0.00921978,0.161721,-0.0257542,0.163496,-0.163214,0.821524,-1.04762,-0.0108315,0,0,0,0,0,0,0,21.3782,-0.943878,21.5516,-21.0344,10.9645,-14.0128,-0.097197,-0.0220462,-0.0235096,0.0771032,-1.87695,0.0294065,0.265922,0.00961695,0.100208,-0.0173702,0.22422,-0.161284,0.0977748,-0.342866,-0.00111048,0,0,0,0,0,0,0,-2.70611,-36.9423,-2.91106,29.494,0.434567,2.80785,0.151169,
-0.019347,-0.0241942,0.0758499,-1.87751,0.0568568,0.238051,0.00915836,0.162302,-0.0269104,0.164049,-0.167719,0.848092,-1.06406,-0.0102007,0,0,0,0,0,0,0,20.5439,-1.34924,20.7127,-20.6604,10.9645,-14.0128,-0.0866619,-0.0220462,-0.0235096,0.0771032,-1.87695,0.0294065,0.265922,0.00961695,0.100208,-0.0173702,0.22422,-0.161284,0.0977748,-0.342866,-0.00111048,0,0,0,0,0,0,0,-2.70611,-36.9423,-2.91106,29.494,0.434567,2.80785,0.151169,
-0.0196051,-0.0238901,0.0795921,-1.87929,0.0385191,0.253298,0.00939325,0.160422,-0.0269968,0.162241,-0.163996,0.814614,-1.03025,-0.0106875,0,0,0,0,0,0,0,22.2454,-0.626304,22.4298,-21.3586,10.9336,-13.9249,-0.107392,-0.0198666,-0.0238073,0.0852389,-1.88245,0.0357609,0.251367,0.00961668,0.0438546,-0.0230869,0.22877,-0.140862,0.219906,-0.471841,0.000780806,-7.04417,-0.714586,0.568657,2.5527,15.2664,-16.1218,0.236411,2.11017,-33.6495,1.83778,25.0586,1.18621,2.03881,0.124619,
-0.0183572,-0.0241441,0.0808549,-1.88056,0.0450682,0.245002,0.0093118,0.159535,-0.0279462,0.161363,-0.162899,0.815418,-1.0316,-0.0105863,0,0,0,0,0,0,0,21.3552,-1.06478,21.536,-20.9731,10.9336,-13.9249,-0.0974451,-0.0198666,-0.0238073,0.0852389,-1.88245,0.0357609,0.251367,0.00961668,0.0438546,-0.0230869,0.22877,-0.140862,0.219906,-0.471841,0.000780806,0,0,0,0,0,0,0,2.11017,-33.6495,1.83778,25.0586,1.18621,2.03881,0.124619,
-0.0170788,-0.0244181,0.0821473,-1.88198,0.0523265,0.236493,0.00924643,0.159587,-0.0292077,0.161399,-0.165792,0.833792,-1.03801,-0.0101033,0,0,0,0,0,0,0,20.5209,-1.47015,20.6971,-20.5992,10.9336,-13.9249,-0.08691,-0.0198666,-0.0238073,0.0852389,-1.88245,0.0357609,0.251367,0.00961668,0.0438546,-0.0230869,0.22877,-0.140862,0.219906,-0.471841,0.000780806,0,0,0,0,0,0,0,2.11017,-33.6495,1.83778,25.0586,1.18621,2.03881,0.124619,
-0.0176929,-0.0243156,0.087464,-1.88475,0.0456473,0.237826,0.00942707,0.155365,-0.0302902,0.157217,-0.162202,0.809591,-1.01805,-0.0102291,0,0,0,0,0,0,0,21.3552,-1.06478,21.536,-20.9731,10.9336,-13.9249,-0.0974451,-0.0198666,-0.0238073,0.0852389,-1.88245,0.0357609,0.251367,0.00961668,0.0438546,-0.0230869,0.22877,-0.140862,0.219906,-0.471841,0.000780806,0,0,0,0,0,0,0,2.11017,-33.6495,1.83778,25.0586,1.18621,2.03881,0.124619,
-0.0165383,-0.0246208,0.0886331,-1.88609,0.0523211,0.229887,0.00935946,0.153157,-0.031861,0.155002,-0.163381,0.814519,-1.0129,-0.00987349,0,0,0,0,0,0,0,20.5209,-1.47015,20.6971,-20.5992,10.9336,-13.9249,-0.08691,-0.0198666,-0.0238073,0.0852389,-1.88245,0.0357609,0.251367,0.00961668,0.0438546,-0.0230869,0.22877,-0.140862,0.219906,-0.471841,0.000780806,0,0,0,0,0,0,0,2.11017,-33.6495,1.83778,25.0586,1.18621,2.03881,0.124619,
-0.0153375,-0.024924,0.0898478,-1.88759,0.0596222,0.22214,0.00930577,0.152546,-0.0330698,0.154369,-0.168068,0.834141,-1.00401,-0.00924117,0,0,0,0,0,0,0,19.7372,-1.97381,19.9166,-20.1573,10.9017,-11.8158,-0.0762719,-0.0181389,-0.0241453,0.0926126,-1.88711,0.0438469,0.234292,0.0096148,0.0458432,-0.0110346,0.224836,-0.126766,0.27774,-0.519658,8.0455e-05,0.24858,1.50654,-0.491741,1.76205,7.22932,-5.97716,-0.0875439,0.209842,-33.6217,-0.288683,23.2178,0.819088,1.74035,0.14476,
-0.0140977,-0.0252059,0.0911012,-1.88919,0.0673339,0.214926,0.00926285,0.153031,-0.0335038,0.154831,-0.174573,0.860106,-0.983537,-0.00846595,0,0,0,0,0,0,0,19.0257,-2.35121,19.201,-19.8526,10.9017,-9.81848,-0.0656712,-0.0181389,-0.0241453,0.0926126,-1.88711,0.0438469,0.234292,0.0096148,0.0458432,-0.0110346,0.224836,-0.126766,0.27774,-0.519658,8.0455e-05,0,0,0,0,0,0,0,0.209842,-33.6217,-0.288683,23.2178,0.819088,1.74035,0.14476,
-0.0159959,-0.0246126,0.0948071,-1.88948,0.0542075,0.221055,0.00944621,0.149687,-0.0335338,0.151536,-0.171417,0.835287,-0.962562,-0.00864113,0,0,0,0,0,0,0,20.5117,-1.59028,20.6951,-20.5147,10.9017,-13.8227,-0.0873392,-0.0181389,-0.0241453,0.0926126,-1.88711,0.0438469,0.234292,0.0096148,0.0458432,-0.0110346,0.224836,-0.126766,0.27774,-0.519658,8.0455e-05,0,0,0,0,0,0,0,0.209842,-33.6217,-0.288683,23.2178,0.819088,1.74035,0.14476,
-0.0148612,-0.0249065,0.0959566,-1.89091,0.0609914,0.213954,0.00938857,0.148117,-0.0341735,0.149968,-0.172923,0.837826,-0.947586,-0.00835394,0,0,0,0,0,0,0,19.7372,-1.97381,19.9166,-20.1573,10.9017,-11.8158,-0.0762719,-0.0181389,-0.0241453,0.0926126,-1.88711,0.0438469,0.234292,0.0096148,0.0458432,-0.0110346,0.224836,-0.126766,0.27774,-0.519658,8.0455e-05,0,0,0,0,0,0,0,0.209842,-33.6217,-0.288683,23.2178,0.819088,1.74035,0.14476,
-0.0136827,-0.0251946,0.0971494,-1.89246,0.0683519,0.207207,0.00934359,0.147955,-0.034542,0.149792,-0.177143,0.854274,-0.926738,-0.00780773,0,0,0,0,0,0,0,19.0136,-2.49955,19.1961,-19.7643,10.8587,-9.72452,-0.0662107,-0.0168218,-0.0244285,0.0998335,-1.8917,0.0534267,0.217356,0.0096182,0.0309608,0.002112,0.204324,-0.135128,0.285356,-0.495876,0.000618387,-1.8603,1.64332,-2.564,-1.04532,0.951905,2.97279,0.0672415,0.689884,-32.8719,0.314344,23.5669,0.874935,1.44189,0.110886,
-0.0124676,-0.0254625,0.0983785,-1.8941,0.0760913,0.201059,0.00930891,0.148743,-0.0343316,0.150563,-0.182563,0.876904,-0.895092,-0.00711318,0,0,0,0,0,0,0,18.3644,-2.82743,18.5427,-19.488,10.8587,-7.97218,-0.0559206,-0.0168218,-0.0244285,0.0998335,-1.8917,0.0534267,0.217356,0.0096182,0.0309608,0.002112,0.204324,-0.135128,0.285356,-0.495876,0.000618387,0,0,0,0,0,0,0,0.689884,-32.8719,0.314344,23.5669,0.874935,1.44189,0.110886,
-0.0148967,-0.0247592,0.10181,-1.89428,0.0636766,0.205751,0.00947415,0.143752,-0.0326329,0.145621,-0.180336,0.846741,-0.867887,-0.00727379,0,0,0,0,0,0,0,19.7252,-2.12215,19.9117,-20.069,10.8587,-11.7218,-0.0768115,-0.0168218,-0.0244285,0.0998335,-1.8917,0.0534267,0.217356,0.0096182,0.0309608,0.002112,0.204324,-0.135128,0.285356,-0.495876,0.000618387,0,0,0,0,0,0,0,0.689884,-32.8719,0.314344,23.5669,0.874935,1.44189,0.110886,
-0.0138487,-0.0249996,0.102873,-1.89578,0.0703604,0.199725,0.00942626,0.141201,-0.0321153,0.143074,-0.18176,0.84449,-0.844965,-0.00701645,0,0,0,0,0,0,0,19.0136,-2.49955,19.1961,-19.7643,10.8587,-9.72452,-0.0662107,-0.0168218,-0.0244285,0.0998335,-1.8917,0.0534267,0.217356,0.0096182,0.0309608,0.002112,0.204324,-0.135128,0.285356,-0.495876,0.000618387,0,0,0,0,0,0,0,0.689884,-32.8719,0.314344,23.5669,0.874935,1.44189,0.110886,
-0.0127466,-0.0252449,0.10399,-1.89737,0.0776168,0.19409,0.00939031,0.140514,-0.0318234,0.142374,-0.185158,0.857,-0.81685,-0.00651184,0,0,0,0,0,0,0,18.3666,-2.95436,18.5521,-19.4007,10.8264,-7.88014,-0.0564202,-0.0159847,-0.0248152,0.106357,-1.896,0.0623855,0.20235,0.00961373,0.0239746,0.0109248,0.215202,-0.142505,0.288989,-0.484871,0.000163539,-0.873277,1.1016,1.35982,-0.92211,0.454206,1.37558,-0.056856,2.49103,-33.1734,2.06392,24.5865,1.71081,1.42174,0.151169,
-0.0140692,-0.0250589,0.108327,-1.89879,0.072666,0.192189,0.00948683,0.136939,-0.0295763,0.138859,-0.184653,0.83101,-0.784305,-0.00658039,0,0,0,0,0,0,0,19.0158,-2.62648,19.2054,-19.677,10.8264,-9.63247,-0.0667103,-0.0159847,-0.0248152,0.106357,-1.896,0.0623855,0.20235,0.00961373,0.0239746,0.0109248,0.215202,-0.142505,0.288989,-0.484871,0.000163539,0,0,0,0,0,0,0,2.49103,-33.1734,2.06392,24.5865,1.71081,1.42174,0.151169,
-0.013037,-0.0252612,0.109375,-1.90034,0.0793457,0.18711,0.00944715,0.135356,-0.0287197,0.137284,-0.186648,0.831802,-0.75444,-0.0062564,0,0,0,0,0,0,0,18.3666,-2.95436,18.5521,-19.4007,10.8264,-7.88014,-0.0564202,-0.0159847,-0.0248152,0.106357,-1.896,0.0623855,0.20235,0.00961373,0.0239746,0.0109248,0.215202,-0.142505,0.288989,-0.484871,0.000163539,0,0,0,0,0,0,0,2.49103,-33.1734,2.06392,24.5865,1.71081,1.42174,0.151169,
-0.0119554,-0.0254747,0.110472,-1.90196,0.0865895,0.182448,0.00941895,0.135325,-0.0283112,0.137242,-0.189766,0.846536,-0.720096,-0.00571003,0,0,0,0,0,0,0,17.7743,-3.20693,17.9551,-19.137,10.8264,-6.32585,-0.0458609,-0.0159847,-0.0248152,0.106357,-1.896,0.0623855,0.20235,0.00961373,0.0239746,0.0109248,0.215202,-0.142505,0.288989,-0.484871,0.000163539,0,0,0,0,0,0,0,2.49103,-33.1734,2.06392,24.5865,1.71081,1.42174,0.151169,
-0.0108322,-0.0256858,0.11161,-1.90361,0.0942103,0.178351,0.00940042,0.136342,-0.0279281,0.138242,-0.193098,0.867748,-0.678503,-0.00503136,0,0,0,0,0,0,0,17.2388,-3.54998,17.4228,-18.7547,10.7908,-4.868,-0.0361386,-0.0147247,-0.0250338,0.114173,-1.90134,0.0724974,0.185013,0.00961372,0.0409467,0.00346789,0.201656,-0.149931,0.248705,-0.437464,-0.000512534,2.12151,-0.932114,-1.69334,-0.928173,-5.03549,5.92589,-0.0845091,-1.08349,-35.2959,-1.41142,29.7162,1.48559,2.4627,0.151169,
-0.0128315,-0.0253381,0.116119,-1.90423,0.0824293,0.176465,0.00950207,0.133171,-0.0269918,0.135139,-0.192018,0.836061,-0.651427,-0.00519667,0,0,0,0,0,0,0,18.3734,-3.12654,18.5664,-19.2819,10.7908,-7.77292,-0.0570788,-0.0147247,-0.0250338,0.114173,-1.90134,0.0724974,0.185013,0.00961372,0.0409467,0.00346789,0.201656,-0.149931,0.248705,-0.437464,-0.000512534,0,0,0,0,0,0,0,-1.08349,-35.2959,-1.41142,29.7162,1.48559,2.4627,0.151169,
-0.011823,-0.0255515,0.117144,-1.9058,0.0890065,0.172333,0.00947007,0.131748,-0.0269293,0.133729,-0.192902,0.83328,-0.624435,-0.00495722,0,0,0,0,0,0,0,17.7811,-3.37912,17.9694,-19.0183,10.7908,-6.21863,-0.0465195,-0.0147247,-0.0250338,0.114173,-1.90134,0.0724974,0.185013,0.00961372,0.0409467,0.00346789,0.201656,-0.149931,0.248705,-0.437464,-0.000512534,0,0,0,0,0,0,0,-1.08349,-35.2959,-1.41142,29.7162,1.48559,2.4627,0.151169,
-0.0107689,-0.0257719,0.118213,-1.90741,0.0961726,0.168625,0.00944964,0.131751,-0.0270531,0.133723,-0.194625,0.845775,-0.592247,-0.0044765,0,0,0,0,0,0,0,17.2388,-3.54998,17.4228,-18.7547,10.7908,-4.868,-0.0361386,-0.0147247,-0.0250338,0.114173,-1.90134,0.0724974,0.185013,0.00961372,0.0409467,0.00346789,0.201656,-0.149931,0.248705,-0.437464,-0.000512534,0,0,0,0,0,0,0,-1.08349,-35.2959,-1.41142,29.7162,1.48559,2.4627,0.151169,
-0.00967528,-0.025989,0.119322,-1.90904,0.103731,0.165447,0.00943859,0.132741,-0.02707,0.134698,-0.196439,0.865585,-0.553235,-0.00385757,0,0,0,0,0,0,0,16.7417,-3.79164,16.9272,-18.389,10.7626,-3.58553,-0.0260302,-0.0133208,-0.0250886,0.121137,-1.90609,0.0801383,0.170243,0.0096182,0.0480165,0.0014436,0.196973,-0.137592,0.215336,-0.418974,0.00113379,0.883728,-0.253036,-0.585349,1.54238,-4.17111,2.31119,0.205791,-1.3136,-34.7444,-1.76055,28.1253,1.43615,2.39678,0.110886,
-0.0114531,-0.025466,0.123058,-1.90901,0.0898111,0.163058,0.00952239,0.129855,-0.0270803,0.131879,-0.195084,0.831728,-0.532013,-0.0040569,0,0,0,0,0,0,0,17.7836,-3.52523,17.978,-18.9178,10.7626,-6.12609,-0.0470447,-0.0133208,-0.0250886,0.121137,-1.90609,0.0801383,0.170243,0.0096182,0.0480165,0.0014436,0.196973,-0.137592,0.215336,-0.418974,0.00113379,0,0,0,0,0,0,0,-1.3136,-34.7444,-1.76055,28.1253,1.43615,2.39678,0.110886,
-0.0104672,-0.0256994,0.12406,-1.91058,0.0963133,0.159759,0.00949851,0.128531,-0.0274987,0.130566,-0.195364,0.827937,-0.508076,-0.00384272,0,0,0,0,0,0,0,17.2413,-3.69608,17.4313,-18.6542,10.7626,-4.77546,-0.0366638,-0.0133208,-0.0250886,0.121137,-1.90609,0.0801383,0.170243,0.0096182,0.0480165,0.0014436,0.196973,-0.137592,0.215336,-0.418974,0.00113379,0,0,0,0,0,0,0,-1.3136,-34.7444,-1.76055,28.1253,1.43615,2.39678,0.110886,
-0.00943883,-0.0259329,0.125104,-1.91218,0.103422,0.156886,0.00948579,0.128533,-0.0278365,0.130558,-0.196203,0.840074,-0.478273,-0.00339202,0,0,0,0,0,0,0,16.7417,-3.79164,16.9272,-18.389,10.7626,-3.58553,-0.0260302,-0.0133208,-0.0250886,0.121137,-1.90609,0.0801383,0.170243,0.0096182,0.0480165,0.0014436,0.196973,-0.137592,0.215336,-0.418974,0.00113379,0,0,0,0,0,0,0,-1.3136,-34.7444,-1.76055,28.1253,1.43615,2.39678,0.110886,
-0.0097338,-0.0255223,0.129406,-1.91365,0.0974381,0.151442,0.00954234,0.125738,-0.0283901,0.127816,-0.194875,0.811577,-0.452754,-0.00344604,0,0,0,0,0,0,0,17.2352,-3.83828,17.4304,-18.5593,10.729,-4.69051,-0.0371617,-0.0115401,-0.0250752,0.127548,-1.91073,0.0877095,0.157185,0.00961856,0.0514731,-0.00486096,0.18446,-0.135927,0.228292,-0.365275,0.00147875,0.432071,-0.788071,-1.56415,0.208043,1.61948,6.71247,0.0431196,-0.452694,-33.7962,-0.76079,27.2525,1.41784,2.27685,0.110886,
-0.00877707,-0.0257738,0.13038,-1.91521,0.103932,0.148938,0.00952701,0.124509,-0.0289993,0.126589,-0.194815,0.811608,-0.424799,-0.00314013,0,0,0,0,0,0,0,16.7356,-3.93384,16.9263,-18.2941,10.729,-3.50059,-0.0265281,-0.0115401,-0.0250752,0.127548,-1.91073,0.0877095,0.157185,0.00961856,0.0514731,-0.00486096,0.18446,-0.135927,0.228292,-0.365275,0.00147875,0,0,0,0,0,0,0,-0.452694,-33.7962,-0.76079,27.2525,1.41784,2.27685,0.110886,
-0.00777766,-0.02602,0.131395,-1.91678,0.111024,0.146846,0.00952243,0.124592,-0.0293558,0.126657,-0.195105,0.826579,-0.392128,-0.00262653,0,0,0,0,0,0,0,16.2714,-3.96481,16.458,-18.0246,10.729,-2.47775,-0.0162064,-0.0115401,-0.0250752,0.127548,-1.91073,0.0877095,0.157185,0.00961856,0.0514731,-0.00486096,0.18446,-0.135927,0.228292,-0.365275,0.00147875,0,0,0,0,0,0,0,-0.452694,-33.7962,-0.76079,27.2525,1.41784,2.27685,0.110886,
-0.00674079,-0.026257,0.132448,-1.91835,0.118516,0.145217,0.00952665,0.125596,-0.0294083,0.127638,-0.19527,0.848561,-0.354431,-0.0019956,0,0,0,0,0,0,0,15.8363,-3.94483,16.0188,-17.7537,10.729,-1.5823,-0.00584722,-0.0115401,-0.0250752,0.127548,-1.91073,0.0877095,0.157185,0.00961856,0.0514731,-0.00486096,0.18446,-0.135927,0.228292,-0.365275,0.00147875,0,0,0,0,0,0,0,-0.452694,-33.7962,-0.76079,27.2525,1.41784,2.27685,0.110886,
-0.0097558,-0.0255204,0.129384,-1.91372,0.0974799,0.152222,0.00955859,0.123046,-0.0295071,0.125134,-0.194801,0.818899,-0.34216,-0.00212309,0,0,0,0,0,0,0,16.7308,-4.07331,16.928,-18.2021,10.689,-3.41784,-0.0270502,-0.00967082,-0.0252446,0.134016,-1.91621,0.0971883,0.14632,0.00961739,0.0518669,-0.0134772,0.184067,-0.152988,0.287005,-0.273946,0.00117409,0.0492308,-1.07704,-0.0491337,-2.13263,7.33903,11.416,-0.0380827,1.4278,-33.1496,1.06416,25.9076,1.55243,1.96557,0.11821,
-0.00881667,-0.0257597,0.130339,-1.91529,0.103992,0.150241,0.00955141,0.121916,-0.0295879,0.123999,-0.19503,0.817929,-0.323252,-0.00187808,0,0,0,0,0,0,0,16.2666,-4.10428,16.4596,-17.9326,10.689,-2.39501,-0.0167286,-0.00967082,-0.0252446,0.134016,-1.91621,0.0971883,0.14632,0.00961739,0.0518669,-0.0134772,0.184067,-0.152988,0.287005,-0.273946,0.00117409,0,0,0,0,0,0,0,1.4278,-33.1496,1.06416,25.9076,1.55243,1.96557,0.11821,
-0.00783793,-0.0259907,0.131334,-1.91685,0.111099,0.148684,0.0095546,0.122001,-0.0294437,0.124062,-0.195197,0.83202,-0.297536,-0.00142267,0,0,0,0,0,0,0,15.8315,-4.0843,16.0204,-17.6617,10.689,-1.49956,-0.00636938,-0.00967082,-0.0252446,0.134016,-1.91621,0.0971883,0.14632,0.00961739,0.0518669,-0.0134772,0.184067,-0.152988,0.287005,-0.273946,0.00117409,0,0,0,0,0,0,0,1.4278,-33.1496,1.06416,25.9076,1.55243,1.96557,0.11821,
-0.00682411,-0.0262118,0.132363,-1.91841,0.118604,0.147576,0.00956657,0.122946,-0.0290831,0.124981,-0.19502,0.853229,-0.265716,-0.000838701,0,0,0,0,0,0,0,15.4191,-4.02469,15.6042,-17.3897,10.689,-0.736523,0.00364418,-0.00967082,-0.0252446,0.134016,-1.91621,0.0971883,0.14632,0.00961739,0.0518669,-0.0134772,0.184067,-0.152988,0.287005,-0.273946,0.00117409,0,0,0,0,0,0,0,1.4278,-33.1496,1.06416,25.9076,1.55243,1.96557,0.11821,
-0.00787687,-0.025711,0.135861,-1.91923,0.107392,0.142742,0.00957722,0.121025,-0.0293478,0.12311,-0.194475,0.826714,-0.253895,-0.000969,0,0,0,0,0,0,0,16.2608,-4.22522,16.4603,-17.8614,10.6454,-2.32807,-0.0171746,-0.00819248,-0.025377,0.140638,-1.92176,0.107689,0.138578,0.00961739,0.030683,-0.00150037,0.200555,-0.154528,0.324563,-0.188885,0.000977288,-2.648,1.49711,2.06109,-0.192416,4.6948,10.6326,-0.0245999,1.63013,-33.3479,1.23872,25.5347,1.74194,1.74035,0.11821,
-0.00693784,-0.0259511,0.136816,-1.92078,0.114005,0.141432,0.009578,0.120296,-0.0294802,0.122384,-0.194249,0.826692,-0.235866,-0.000755567,0,0,0,0,0,0,0,15.8257,-4.20524,16.0211,-17.5905,10.6454,-1.43262,-0.00681541,-0.00819248,-0.025377,0.140638,-1.92176,0.107689,0.138578,0.00961739,0.030683,-0.00150037,0.200555,-0.154528,0.324563,-0.188885,0.000977288,0,0,0,0,0,0,0,1.63013,-33.3479,1.23872,25.5347,1.74194,1.74035,0.11821,
-0.0059637,-0.0261828,0.137807,-1.92231,0.121174,0.140513,0.00958879,0.12059,-0.0293769,0.122663,-0.193843,0.840573,-0.21167,-0.000334651,0,0,0,0,0,0,0,15.4133,-4.14563,15.6049,-17.3184,10.6454,-0.66958,0.00319814,-0.00819248,-0.025377,0.140638,-1.92176,0.107689,0.138578,0.00961739,0.030683,-0.00150037,0.200555,-0.154528,0.324563,-0.188885,0.000977288,0,0,0,0,0,0,0,1.63013,-33.3479,1.23872,25.5347,1.74194,1.74035,0.11821,
-0.00642969,-0.0257268,0.142456,-1.92479,0.11816,0.136363,0.00959454,0.118777,-0.028344,0.120902,-0.19354,0.818965,-0.193991,-0.000358286,0,0,0,0,0,0,0,15.8257,-4.20524,16.0211,-17.5905,10.6454,-1.43262,-0.00681541,-0.00819248,-0.025377,0.140638,-1.92176,0.107689,0.138578,0.00961739,0.030683,-0.00150037,0.200555,-0.154528,0.324563,-0.188885,0.000977288,0,0,0,0,0,0,0,1.63013,-33.3479,1.23872,25.5347,1.74194,1.74035,0.11821,
-0.00550638,-0.0259301,0.143396,-1.92632,0.124822,0.135679,0.0096032,0.118104,-0.0277565,0.120233,-0.193241,0.821723,-0.172291,-6.99034e-05,0,0,0,0,0,0,0,15.4133,-4.14563,15.6049,-17.3184,10.6454,-0.66958,0.00319814,-0.00819248,-0.025377,0.140638,-1.92176,0.107689,0.138578,0.00961739,0.030683,-0.00150037,0.200555,-0.154528,0.324563,-0.188885,0.000977288,0,0,0,0,0,0,0,1.63013,-33.3479,1.23872,25.5347,1.74194,1.74035,0.11821,
-0.00454983,-0.0261346,0.144369,-1.92784,0.132012,0.135336,0.00962179,0.118397,-0.0273175,0.120511,-0.192557,0.837133,-0.146412,0.000408594,0,0,0,0,0,0,0,15.0117,-4.16497,15.2047,-16.9928,10.6043,0.0418971,0.012967,-0.00703444,-0.0253483,0.146553,-1.92664,0.117549,0.134009,0.00961291,0.0339271,0.00529319,0.183943,-0.1446,0.289009,-0.0906507,-7.54355e-05,0.405517,0.849195,-2.07647,1.24089,-4.44428,12.2793,-0.13159,-0.551876,-34.3477,-1.01073,27.0779,1.59546,1.85296,0.158493,
-0.00356476,-0.0263375,0.145371,-1.92934,0.139558,0.135348,0.00965013,0.119344,-0.0269286,0.121438,-0.191415,0.85836,-0.116831,0.00103555,0,0,0,0,0,0,0,14.625,-4.05474,14.8145,-16.7259,10.6043,0.60905,0.0232246,-0.00703444,-0.0253483,0.146553,-1.92664,0.117549,0.134009,0.00961291,0.0339271,0.00529319,0.183943,-0.1446,0.289009,-0.0906507,-7.54355e-05,0,0,0,0,0,0,0,-0.551876,-34.3477,-1.01073,27.0779,1.59546,1.85296,0.158493,
-0.00537722,-0.0256604,0.148264,-1.9296,0.12767,0.133275,0.0096042,0.11648,-0.0260355,0.118628,-0.190782,0.829439,-0.100342,0.000928157,0,0,0,0,0,0,0,15.4073,-4.25321,15.6039,-17.2626,10.6043,-0.625086,0.00289773,-0.00703444,-0.0253483,0.146553,-1.92664,0.117549,0.134009,0.00961291,0.0339271,0.00529319,0.183943,-0.1446,0.289009,-0.0906507,-7.54355e-05,0,0,0,0,0,0,0,-0.551876,-34.3477,-1.01073,27.0779,1.59546,1.85296,0.158493,
-0.0045029,-0.0258542,0.149156,-1.9311,0.134215,0.133232,0.00962075,0.115042,-0.0256732,0.117195,-0.190161,0.827177,-0.0813666,0.0011562,0,0,0,0,0,0,0,15.0117,-4.16497,15.2047,-16.9928,10.6043,0.0418971,0.012967,-0.00703444,-0.0253483,0.146553,-1.92664,0.117549,0.134009,0.00961291,0.0339271,0.00529319,0.183943,-0.1446,0.289009,-0.0906507,-7.54355e-05,0,0,0,0,0,0,0,-0.551876,-34.3477,-1.01073,27.0779,1.59546,1.85296,0.158493,
-0.00359261,-0.0260523,0.150083,-1.93258,0.141312,0.133462,0.00964834,0.114791,-0.02549,0.116929,-0.189174,0.839176,-0.0593262,0.0016149,0,0,0,0,0,0,0,14.6225,-4.14047,14.8169,-16.6909,10.5683,0.639352,0.0230464,-0.00593848,-0.0253187,0.152346,-1.93117,0.126716,0.132136,0.00961149,0.0359692,-0.00493531,0.167721,-0.139818,0.282342,-0.0306645,-0.000729121,0.255256,-1.27856,-2.02783,0.597804,-0.833348,7.49828,-0.0817107,0.360599,-33.4987,0.0644055,26.2567,1.63208,1.64055,0.171311,
-0.0026523,-0.0262507,0.15104,-1.93404,0.148784,0.133979,0.0096837,0.115341,-0.0253528,0.117458,-0.187739,0.858142,-0.0345568,0.00217583,0,0,0,0,0,0,0,14.2313,-4.01314,14.4224,-16.4289,10.5683,1.13493,0.0347576,-0.00593848,-0.0253187,0.152346,-1.93117,0.126716,0.132136,0.00961149,0.0359692,-0.00493531,0.167721,-0.139818,0.282342,-0.0306645,-0.000729121,0,0,0,0,0,0,0,0.360599,-33.4987,0.0644055,26.2567,1.63208,1.64055,0.171311,
-0.00437213,-0.0257243,0.153964,-1.93405,0.136731,0.132424,0.00961974,0.112198,-0.0257232,0.114364,-0.186772,0.827981,-0.0218065,0.00205544,0,0,0,0,0,0,0,15.0092,-4.25071,15.207,-16.9578,10.5683,0.072199,0.0127888,-0.00593848,-0.0253187,0.152346,-1.93117,0.126716,0.132136,0.00961149,0.0359692,-0.00493531,0.167721,-0.139818,0.282342,-0.0306645,-0.000729121,0,0,0,0,0,0,0,0.360599,-33.4987,0.0644055,26.2567,1.63208,1.64055,0.171311,
-0.00353758,-0.0259444,0.154816,-1.93551,0.14323,0.132867,0.00964572,0.110622,-0.0260817,0.11279,-0.185877,0.824858,-0.00636481,0.00229386,0,0,0,0,0,0,0,14.6225,-4.14047,14.8169,-16.6909,10.5683,0.639352,0.0230464,-0.00593848,-0.0253187,0.152346,-1.93117,0.126716,0.132136,0.00961149,0.0359692,-0.00493531,0.167721,-0.139818,0.282342,-0.0306645,-0.000729121,0,0,0,0,0,0,0,0.360599,-33.4987,0.0644055,26.2567,1.63208,1.64055,0.171311,
-0.00266573,-0.0261608,0.155705,-1.93694,0.150288,0.133544,0.00968055,0.110294,-0.0262741,0.112447,-0.184657,0.836333,0.0118393,0.00270596,0,0,0,0,0,0,0,14.2287,-4.08115,14.4249,-16.4081,10.5301,1.15795,0.0346393,-0.0048962,-0.0253294,0.157913,-1.93549,0.136833,0.131972,0.00961561,0.0317098,-0.00338767,0.162308,-0.126999,0.296035,0.00125663,0.000705274,-0.532414,0.193454,-0.676544,1.60236,1.7117,3.99014,0.179299,-0.119442,-33.2964,-0.33629,26.5027,1.62567,1.614,0.131027,
-0.00339298,-0.0257495,0.159468,-1.93829,0.146952,0.133028,0.00964204,0.107414,-0.0266328,0.109608,-0.183552,0.811418,0.0252329,0.00271955,0,0,0,0,0,0,0,14.6199,-4.20848,14.8194,-16.6701,10.5301,0.662379,0.0229281,-0.0048962,-0.0253294,0.157913,-1.93549,0.136833,0.131972,0.00961561,0.0317098,-0.00338767,0.162308,-0.126999,0.296035,0.00125663,0.000705274,0,0,0,0,0,0,0,-0.119442,-33.2964,-0.33629,26.5027,1.62567,1.614,0.131027,
-0.00258762,-0.0259731,0.160291,-1.93972,0.153466,0.133853,0.00967538,0.106065,-0.026896,0.108259,-0.182538,0.81198,0.0407923,0.00300929,0,0,0,0,0,0,0,14.2287,-4.08115,14.4249,-16.4081,10.5301,1.15795,0.0346393,-0.0048962,-0.0253294,0.157913,-1.93549,0.136833,0.131972,0.00961561,0.0317098,-0.00338767,0.162308,-0.126999,0.296035,0.00125663,0.000705274,0,0,0,0,0,0,0,-0.119442,-33.2964,-0.33629,26.5027,1.62567,1.614,0.131027,
-0.00174532,-0.0261907,0.161149,-1.94113,0.160527,0.134885,0.00971742,0.105909,-0.0269566,0.108074,-0.181209,0.826105,0.0584295,0.00345848,0,0,0,0,0,0,0,13.7983,-3.93543,13.9914,-16.1502,10.5301,1.56117,0.0437718,-0.0048962,-0.0253294,0.157913,-1.93549,0.136833,0.131972,0.00961561,0.0317098,-0.00338767,0.162308,-0.126999,0.296035,0.00125663,0.000705274,0,0,0,0,0,0,0,-0.119442,-33.2964,-0.33629,26.5027,1.62567,1.614,0.131027,
-0.000874217,-0.0264024,0.162036,-1.94251,0.167963,0.136124,0.00976196,0.106505,-0.0268583,0.108624,-0.179536,0.846772,0.0777405,0.00388017,0,0,0,0,0,0,0,13.3492,-3.83961,13.5373,-15.8818,10.4938,1.93342,0.0529244,-0.00371576,-0.0253341,0.163655,-1.93962,0.147316,0.132009,0.0096122,0.0424629,0.00436021,0.166897,-0.123239,0.300324,0.00192283,-0.000812564,1.34413,0.968486,0.573565,0.469965,0.536014,0.0832747,-0.18973,-1.00811,-33.0504,-1.18529,26.1813,1.60736,1.59386,0.164902,
-0.00214988,-0.0256893,0.165273,-1.94244,0.157542,0.133413,0.00965128,0.104959,-0.026372,0.107141,-0.179662,0.821049,0.0829083,0.00380992,0,0,0,0,0,0,0,14.2286,-4.13883,14.43,-16.3854,10.4938,1.18447,0.0345359,-0.00371576,-0.0253341,0.163655,-1.93962,0.147316,0.132009,0.0096122,0.0424629,0.00436021,0.166897,-0.123239,0.300324,0.00192283,-0.000812564,0,0,0,0,0,0,0,-1.00811,-33.0504,-1.18529,26.1813,1.60736,1.59386,0.164902,
-0.00133404,-0.0258876,0.166107,-1.94387,0.164098,0.134453,0.00969099,0.104364,-0.0260543,0.106545,-0.179451,0.820753,0.092319,0.00404069,0,0,0,0,0,0,0,13.7982,-3.99311,13.9965,-16.1275,10.4938,1.58768,0.0436683,-0.00371576,-0.0253341,0.163655,-1.93962,0.147316,0.132009,0.0096122,0.0424629,0.00436021,0.166897,-0.123239,0.300324,0.00192283,-0.000812564,0,0,0,0,0,0,0,-1.00811,-33.0504,-1.18529,26.1813,1.60736,1.59386,0.164902,
-0.00049222,-0.0260834,0.166965,-1.94527,0.171193,0.135698,0.00973447,0.104536,-0.0257389,0.106687,-0.178604,0.83398,0.10497,0.00431951,0,0,0,0,0,0,0,13.3492,-3.83961,13.5373,-15.8818,10.4938,1.93342,0.0529244,-0.00371576,-0.0253341,0.163655,-1.93962,0.147316,0.132009,0.0096122,0.0424629,0.00436021,0.166897,-0.123239,0.300324,0.00192283,-0.000812564,0,0,0,0,0,0,0,-1.00811,-33.0504,-1.18529,26.1813,1.60736,1.59386,0.164902,
0.000369869,-0.0262746,0.167843,-1.94664,0.178653,0.137138,0.0097795,0.105181,-0.025371,0.107315,-0.177133,0.853669,0.11999,0.00458126,0,0,0,0,0,0,0,12.8549,-3.74775,13.0374,-15.6397,10.4583,2.23293,0.055603,-0.00259688,-0.0252628,0.169427,-1.94364,0.157115,0.132392,0.00961291,0.0384218,0.00362764,0.163206,-0.113198,0.263569,0.0166951,-0.000218041,-0.505135,-0.091572,-0.461338,1.2552,-4.59437,1.84653,0.0743154,0.209842,-33.4709,0.0128308,25.9314,1.78405,1.42815,0.158493,
-0.00110514,-0.0256419,0.170971,-1.94641,0.167027,0.134276,0.00966489,0.102953,-0.0254137,0.105138,-0.17719,0.823387,0.123062,0.0045424,0,0,0,0,0,0,0,13.7952,-4.06018,13.9981,-16.1085,10.4583,1.60648,0.0436323,-0.00259688,-0.0252628,0.169427,-1.94364,0.157115,0.132392,0.00961291,0.0384218,0.00362764,0.163206,-0.113198,0.263569,0.0166951,-0.000218041,0,0,0,0,0,0,0,0.209842,-33.4709,0.0128308,25.9314,1.78405,1.42815,0.158493,
-0.000328824,-0.0258441,0.171765,-1.94782,0.173494,0.135567,0.00970658,0.10177,-0.0253847,0.103947,-0.176925,0.82037,0.13072,0.00467598,0,0,0,0,0,0,0,13.3462,-3.90669,13.5389,-15.8628,10.4583,1.95222,0.0528883,-0.00259688,-0.0252628,0.169427,-1.94364,0.157115,0.132392,0.00961291,0.0384218,0.00362764,0.163206,-0.113198,0.263569,0.0166951,-0.000218041,0,0,0,0,0,0,0,0.209842,-33.4709,0.0128308,25.9314,1.78405,1.42815,0.158493,
0.000472629,-0.0260381,0.172583,-1.9492,0.180521,0.137047,0.00975101,0.101452,-0.0251587,0.103621,-0.175951,0.831974,0.141572,0.0048517,0,0,0,0,0,0,0,12.8549,-3.74775,13.0374,-15.6397,10.4583,2.23293,0.055603,-0.00259688,-0.0252628,0.169427,-1.94364,0.157115,0.132392,0.00961291,0.0384218,0.00362764,0.163206,-0.113198,0.263569,0.0166951,-0.000218041,0,0,0,0,0,0,0,0.209842,-33.4709,0.0128308,25.9314,1.78405,1.42815,0.158493,
0.00129533,-0.0262228,0.173423,-1.95054,0.187925,0.138699,0.00979675,0.101729,-0.0247438,0.103894,-0.17428,0.850693,0.154565,0.00502477,0,0,0,0,0,0,0,12.3789,-3.59309,12.5719,-15.3777,10.4275,2.48807,0.0569551,-0.00114035,-0.025244,0.174732,-1.94755,0.166147,0.13319,0.00961515,0.057587,-0.000307502,0.147282,-0.110964,0.261146,0.0192572,0.000406779,2.39565,-0.491893,-1.9905,0.279227,-0.302783,0.320264,0.0781025,0.463749,-33.1496,0.187391,26.1575,1.8637,1.5609,0.138352,
0.000349718,-0.0256535,0.17627,-1.9503,0.176071,0.135328,0.00967523,0.100041,-0.0251694,0.102242,-0.174586,0.821239,0.154375,0.00493923,0,0,0,0,0,0,0,13.3462,-3.96409,13.5435,-15.8458,10.4275,1.97126,0.0528279,-0.00114035,-0.025244,0.174732,-1.94755,0.166147,0.13319,0.00961515,0.057587,-0.000307502,0.147282,-0.110964,0.261146,0.0192572,0.000406779,0,0,0,0,0,0,0,0.463749,-33.1496,0.187391,26.1575,1.8637,1.5609,0.138352,
0.00111308,-0.0258574,0.177052,-1.95168,0.182546,0.136778,0.0097176,0.0991169,-0.0252347,0.101329,-0.174393,0.818871,0.159751,0.00501059,0,0,0,0,0,0,0,12.8549,-3.80516,13.042,-15.6227,10.4275,2.25197,0.0555427,-0.00114035,-0.025244,0.174732,-1.94755,0.166147,0.13319,0.00961515,0.057587,-0.000307502,0.147282,-0.110964,0.261146,0.0192572,0.000406779,0,0,0,0,0,0,0,0.463749,-33.1496,0.187391,26.1575,1.8637,1.5609,0.138352,
0.0018974,-0.0260468,0.177854,-1.95304,0.189578,0.138414,0.00976249,0.0989015,-0.0249226,0.101117,-0.173338,0.830895,0.168704,0.00513085,0,0,0,0,0,0,0,12.3789,-3.59309,12.5719,-15.3777,10.4275,2.48807,0.0569551,-0.00114035,-0.025244,0.174732,-1.94755,0.166147,0.13319,0.00961515,0.057587,-0.000307502,0.147282,-0.110964,0.261146,0.0192572,0.000406779,0,0,0,0,0,0,0,0.463749,-33.1496,0.187391,26.1575,1.8637,1.5609,0.138352,
0.000349718,-0.0256535,0.17627,-1.9503,0.176071,0.135328,0.00967523,0.0977789,-0.0253124,0.10002,-0.173832,0.8054,0.165686,0.00502409,0,0,0,0,0,0,0,12.8549,-3.80516,13.042,-15.6227,10.4275,2.25197,0.0555427,-0.00114035,-0.025244,0.174732,-1.94755,0.166147,0.13319,0.00961515,0.057587,-0.000307502,0.147282,-0.110964,0.261146,0.0192572,0.000406779,0,0,0,0,0,0,0,0.463749,-33.1496,0.187391,26.1575,1.8637,1.5609,0.138352,
0.00106878,-0.0258227,0.177008,-1.95166,0.182596,0.137044,0.0097205,0.096813,-0.0249277,0.0990651,-0.173415,0.806641,0.171425,0.0050927,0,0,0,0,0,0,0,12.3769,-3.64528,12.5733,-15.3617,10.398,2.50764,0.0569076,0.000896022,-0.0251104,0.179639,-1.9511,0.174713,0.133394,0.00961148,0.06401,0.00817696,0.137593,-0.104091,0.248648,0.00453629,-0.00146133,0.80287,1.06056,-1.21112,0.859133,-1.56233,-1.84011,-0.233514,-0.424923,-33.0504,-0.586229,26.0544,1.78405,1.72661,0.171311,
0.00183468,-0.0259931,0.177791,-1.95299,0.189577,0.138785,0.00976719,0.096598,-0.0242023,0.0988426,-0.172006,0.819827,0.180679,0.00524156,0,0,0,0,0,0,0,11.9411,-3.39652,12.1406,-15.087,10.398,2.69575,0.0579034,0.000896022,-0.0251104,0.179639,-1.9511,0.174713,0.133394,0.00961148,0.06401,0.00817696,0.137593,-0.104091,0.248648,0.00453629,-0.00146133,0,0,0,0,0,0,0,-0.424923,-33.0504,-0.586229,26.0544,1.78405,1.72661,0.171311,
0.00264056,-0.0261509,0.178613,-1.95426,0.196506,0.14068,0.00981895,0.0974254,-0.0233067,0.0996293,-0.169438,0.829094,0.191903,0.0054872,0,0,0,0,0,0,0,11.5482,-3.15659,11.7491,-14.802,10.1673,2.85345,0.0596028,0.000896022,-0.0251104,0.179639,-1.9511,0.174713,0.133394,0.00961148,0.06401,0.00817696,0.137593,-0.104091,0.248648,0.00453629,-0.00146133,0,0,0,0,0,0,0,-0.424923,-33.0504,-0.586229,26.0544,1.78405,1.72661,0.171311,
0.00231824,-0.0254301,0.18111,-1.95383,0.184577,0.135762,0.00967377,0.095618,-0.0228893,0.0978812,-0.170489,0.80344,0.188068,0.00534028,0,0,0,0,0,0,0,12.3769,-3.64528,12.5733,-15.3617,10.398,2.50764,0.0569076,0.000896022,-0.0251104,0.179639,-1.9511,0.174713,0.133394,0.00961148,0.06401,0.00817696,0.137593,-0.104091,0.248648,0.00453629,-0.00146133,0,0,0,0,0,0,0,-0.424923,-33.0504,-0.586229,26.0544,1.78405,1.72661,0.171311,
0.00304082,-0.0255865,0.181851,-1.9552,0.19097,0.137393,0.00971853,0.0945587,-0.0222204,0.0968351,-0.170519,0.802574,0.191219,0.00539124,0,0,0,0,0,0,0,11.9397,-3.45366,12.1419,-15.0722,10.3689,2.71239,0.057874,0.00289647,-0.0249153,0.184302,-1.9545,0.182915,0.133385,0.00961216,0.0554855,0.004766,0.125224,-0.101494,0.21816,0.00077362,-0.00104971,-1.06556,-0.426371,-1.54611,0.324558,-3.81103,-0.470333,0.0514525,-1.21045,-33.3241,-1.38762,26.4789,1.81518,1.84655,0.164902,
0.00380404,-0.0257293,0.182631,-1.9565,0.197499,0.139211,0.00976954,0.0947275,-0.0213458,0.0969713,-0.168993,0.805296,0.198415,0.00558828,0,0,0,0,0,0,0,11.5468,-3.21373,11.7503,-14.7872,10.1382,2.87009,0.0595735,0.00289647,-0.0249153,0.184302,-1.9545,0.182915,0.133385,0.00961216,0.0554855,0.004766,0.125224,-0.101494,0.21816,0.00077362,-0.00104971,0,0,0,0,0,0,0,-1.21045,-33.3241,-1.38762,26.4789,1.81518,1.84655,0.164902,
0.00461025,-0.0258674,0.183453,-1.95775,0.203811,0.141181,0.00982242,0.0959373,-0.0205286,0.0981317,-0.166299,0.802033,0.207984,0.00579277,0,0,0,0,0,0,0,11.1903,-3.00402,11.3933,-14.5038,8.81825,2.99087,0.0609699,0.00289647,-0.0249153,0.184302,-1.9545,0.182915,0.133385,0.00961216,0.0554855,0.004766,0.125224,-0.101494,0.21816,0.00077362,-0.00104971,0,0,0,0,0,0,0,-1.21045,-33.3241,-1.38762,26.4789,1.81518,1.84655,0.164902,
0.00418735,-0.025246,0.185641,-1.95719,0.192388,0.135869,0.00967859,0.0929493,-0.0206613,0.0952049,-0.167426,0.776569,0.202811,0.00564985,0,0,0,0,0,0,0,11.9397,-3.45366,12.1419,-15.0722,10.3689,2.71239,0.057874,0.00289647,-0.0249153,0.184302,-1.9545,0.182915,0.133385,0.00961216,0.0554855,0.004766,0.125224,-0.101494,0.21816,0.00077362,-0.00104971,0,0,0,0,0,0,0,-1.21045,-33.3241,-1.38762,26.4789,1.81518,1.84655,0.164902,
0.00487737,-0.0253959,0.186349,-1.95852,0.198247,0.137585,0.00972823,0.0916099,-0.0202766,0.093856,-0.167111,0.76774,0.205132,0.00576084,0,0,0,0,0,0,0,11.543,-3.2639,11.7487,-14.7726,10.1111,2.88667,0.0595413,0.0042325,-0.0246942,0.188767,-1.95741,0.190337,0.13339,0.00961561,0.0413675,0.0109831,0.131537,-0.0789132,0.196397,0.00269488,0.000708398,-1.76475,0.777142,0.78907,2.82266,-2.72028,0.240157,0.219764,-2.47998,-32.6259,-2.56194,25.4593,1.60095,1.79345,0.131027,
0.00561751,-0.0255338,0.187106,-1.95978,0.204097,0.139491,0.00978079,0.0917913,-0.019668,0.0939989,-0.165335,0.760434,0.211761,0.00592265,0,0,0,0,0,0,0,11.1865,-3.05419,11.3917,-14.4892,8.79117,3.00745,0.0609377,0.0042325,-0.0246942,0.188767,-1.95741,0.190337,0.13339,0.00961561,0.0413675,0.0109831,0.131537,-0.0789132,0.196397,0.00269488,0.000708398,0,0,0,0,0,0,0,-2.47998,-32.6259,-2.56194,25.4593,1.60095,1.79345,0.131027,
0.0064034,-0.0256689,0.187907,-1.96099,0.209675,0.141543,0.00983392,0.0930803,-0.0191133,0.0952401,-0.162523,0.747798,0.220719,0.00606633,0,0,0,0,0,0,0,10.8649,-2.88272,11.0679,-14.2178,7.64258,3.0859,0.0607384,0.0042325,-0.0246942,0.188767,-1.95741,0.190337,0.13339,0.00961561,0.0413675,0.0109831,0.131537,-0.0789132,0.196397,0.00269488,0.000708398,0,0,0,0,0,0,0,-2.47998,-32.6259,-2.56194,25.4593,1.60095,1.79345,0.131027,
0.00547826,-0.0250194,0.190063,-1.95997,0.199169,0.136158,0.00968681,0.0903527,-0.019533,0.0925571,-0.162917,0.721135,0.216677,0.00596669,0,0,0,0,0,0,0,11.543,-3.2639,11.7487,-14.7726,10.1111,2.88667,0.0595413,0.0042325,-0.0246942,0.188767,-1.95741,0.190337,0.13339,0.00961561,0.0413675,0.0109831,0.131537,-0.0789132,0.196397,0.00269488,0.000708398,0,0,0,0,0,0,0,-2.47998,-32.6259,-2.56194,25.4593,1.60095,1.79345,0.131027,
0.00616061,-0.0251729,0.190762,-1.96125,0.204393,0.13801,0.00973748,0.0893409,-0.0194644,0.0915333,-0.162254,0.707518,0.219647,0.00604023,0,0,0,0,0,0,0,11.1866,-3.10626,11.3943,-14.4779,8.76713,3.02208,0.0608891,0.00492093,-0.0244868,0.193588,-1.96001,0.197214,0.133382,0.0096149,0.0130755,0.00260138,0.142702,-0.0749013,0.207942,0.000604569,0.000572389,-3.53649,-1.04772,1.39568,0.501496,1.44306,-0.261288,-0.0170011,-0.730404,-32.4236,-0.887743,25.856,1.70532,1.83282,0.131027,
0.00689242,-0.0253158,0.19151,-1.96247,0.209546,0.140034,0.00978996,0.0897681,-0.0191456,0.0919263,-0.160371,0.694836,0.226312,0.00614419,0,0,0,0,0,0,0,10.865,-2.93479,11.0705,-14.2065,7.61854,3.10053,0.0606898,0.00492093,-0.0244868,0.193588,-1.96001,0.197214,0.133382,0.0096149,0.0130755,0.00260138,0.142702,-0.0749013,0.207942,0.000604569,0.000572389,0,0,0,0,0,0,0,-0.730404,-32.4236,-0.887743,25.856,1.70532,1.83282,0.131027,
0.00611643,-0.0248765,0.194835,-1.96247,0.205153,0.13623,0.00969446,0.0872714,-0.0202281,0.0894545,-0.159888,0.664977,0.222507,0.00608507,0,0,0,0,0,0,0,11.1866,-3.10626,11.3943,-14.4779,8.76713,3.02208,0.0608891,0.00492093,-0.0244868,0.193588,-1.96001,0.197214,0.133382,0.0096149,0.0130755,0.00260138,0.142702,-0.0749013,0.207942,0.000604569,0.000572389,0,0,0,0,0,0,0,-0.730404,-32.4236,-0.887743,25.856,1.70532,1.83282,0.131027,
0.00678594,-0.0250505,0.195521,-1.9637,0.209731,0.138147,0.00974572,0.0865549,-0.0205316,0.0887195,-0.158685,0.646434,0.225917,0.00614951,0,0,0,0,0,0,0,10.865,-2.93479,11.0705,-14.2065,7.61854,3.10053,0.0606898,0.00492093,-0.0244868,0.193588,-1.96001,0.197214,0.133382,0.0096149,0.0130755,0.00260138,0.142702,-0.0749013,0.207942,0.000604569,0.000572389,0,0,0,0,0,0,0,-0.730404,-32.4236,-0.887743,25.856,1.70532,1.83282,0.131027,
0.00750544,-0.0252094,0.196256,-1.96488,0.214206,0.140234,0.00979874,0.0872312,-0.0203991,0.0893625,-0.156517,0.629002,0.232931,0.0062452,0,0,0,0,0,0,0,10.5941,-2.83925,10.7991,-13.9275,6.57648,3.16313,0.0601679,0.00518097,-0.0242504,0.198537,-1.96247,0.20382,0.133421,0.00961738,0.0201091,0.0090208,0.14077,-0.0735179,0.179393,0.00295093,0.00117279,0.879198,0.802427,-0.241505,0.17292,-3.56854,0.293295,0.0750498,-0.781979,-32.2768,-0.911547,25.0864,1.80236,1.59386,0.11821,
0.0082673,-0.0253626,0.197034,-1.96602,0.218401,0.142442,0.00985257,0.0888315,-0.0201496,0.0909264,-0.153645,0.608082,0.241529,0.00634171,0,0,0,0,0,0,0,10.3748,-2.72113,10.577,-13.6683,5.656,3.19305,0.0604923,0.00518097,-0.0242504,0.198537,-1.96247,0.20382,0.133421,0.00961738,0.0201091,0.0090208,0.14077,-0.0735179,0.179393,0.00295093,0.00117279,0,0,0,0,0,0,0,-0.781979,-32.2768,-0.911547,25.0864,1.80236,1.59386,0.11821,
0.00641756,-0.0245759,0.199823,-1.96489,0.210718,0.136323,0.00969802,0.0869733,-0.0203643,0.0891012,-0.154066,0.581102,0.235364,0.00624038,0,0,0,0,0,0,0,10.864,-2.98182,11.0717,-14.192,7.59647,3.1168,0.0606461,0.00518097,-0.0242504,0.198537,-1.96247,0.20382,0.133421,0.00961738,0.0201091,0.0090208,0.14077,-0.0735179,0.179393,0.00295093,0.00117279,0,0,0,0,0,0,0,-0.781979,-32.2768,-0.911547,25.0864,1.80236,1.59386,0.11821,
0.00709878,-0.024731,0.200521,-1.9661,0.214668,0.138265,0.00974934,0.0866091,-0.0201689,0.0887289,-0.153586,0.563643,0.236839,0.00627514,0,0,0,0,0,0,0,10.5941,-2.83925,10.7991,-13.9275,6.57648,3.16313,0.0601679,0.00518097,-0.0242504,0.198537,-1.96247,0.20382,0.133421,0.00961738,0.0201091,0.0090208,0.14077,-0.0735179,0.179393,0.00295093,0.00117279,0,0,0,0,0,0,0,-0.781979,-32.2768,-0.911547,25.0864,1.80236,1.59386,0.11821,
0.00782356,-0.0248765,0.201262,-1.96727,0.218508,0.140373,0.00980252,0.0874068,-0.0197737,0.0895035,-0.151997,0.546911,0.242178,0.00634973,0,0,0,0,0,0,0,10.3749,-2.77251,10.5792,-13.6524,5.63911,3.20787,0.060449,0.00543117,-0.0239978,0.203786,-1.965,0.209118,0.133584,0.00960608,0.00948634,0.00609458,0.154341,-0.0797862,0.141236,0.0149365,-0.00154482,-1.32785,-0.365776,1.69633,-0.783533,-4.76964,1.4982,-0.339701,-0.325741,-32.0982,-0.387865,24.8602,1.71722,1.47484,0.178635,
0.00669423,-0.0243165,0.2051,-1.96739,0.214949,0.136548,0.00968759,0.0861357,-0.0199433,0.088261,-0.152226,0.517818,0.236522,0.00625969,0,0,0,0,0,0,0,10.5942,-2.89062,10.8012,-13.9116,6.55959,3.17795,0.0601245,0.00543117,-0.0239978,0.203786,-1.965,0.209118,0.133584,0.00960608,0.00948634,0.00609458,0.154341,-0.0797862,0.141236,0.0149365,-0.00154482,0,0,0,0,0,0,0,-0.325741,-32.0982,-0.387865,24.8602,1.71722,1.47484,0.178635,
0.00738231,-0.0244679,0.205805,-1.96858,0.218301,0.13851,0.00973926,0.0861106,-0.0197396,0.0882276,-0.151556,0.498053,0.238287,0.00629951,0,0,0,0,0,0,0,10.3749,-2.77251,10.5792,-13.6524,5.63911,3.20787,0.060449,0.00543117,-0.0239978,0.203786,-1.965,0.209118,0.133584,0.00960608,0.00948634,0.00609458,0.154341,-0.0797862,0.141236,0.0149365,-0.00154482,0,0,0,0,0,0,0,-0.325741,-32.0982,-0.387865,24.8602,1.71722,1.47484,0.178635,
0.0081088,-0.0246111,0.206548,-1.96973,0.221549,0.140636,0.00979317,0.0870508,-0.019373,0.0891465,-0.149835,0.479633,0.243759,0.00638725,0,0,0,0,0,0,0,10.1958,-2.67552,10.3973,-13.3977,4.81528,3.22024,0.0611494,0.00543117,-0.0239978,0.203786,-1.965,0.209118,0.133584,0.00960608,0.00948634,0.00609458,0.154341,-0.0797862,0.141236,0.0149365,-0.00154482,0,0,0,0,0,0,0,-0.325741,-32.0982,-0.387865,24.8602,1.71722,1.47484,0.178635,
0.00886746,-0.0247535,0.207322,-1.97083,0.224561,0.14287,0.00984837,0.0886069,-0.0190584,0.0906778,-0.147352,0.459008,0.250859,0.00648994,0,0,0,0,0,0,0,10.0479,-2.6535,10.2501,-13.1339,4.0663,3.23329,0.0625119,0.00555947,-0.0239269,0.209177,-1.96784,0.21247,0.13426,0.0096123,-0.00274905,0.00587406,0.165045,-0.090344,0.0685159,0.0285976,0.000418106,-1.52942,-0.0275654,1.338,-1.31973,-9.09006,1.70764,0.245365,0.511356,-32.0744,0.338148,25.134,1.73553,1.57464,0.131027,
0.00681083,-0.0242018,0.210482,-1.97024,0.216987,0.13726,0.00969622,0.0869343,-0.0188282,0.0890441,-0.148401,0.431002,0.243672,0.00638722,0,0,0,0,0,0,0,10.3749,-2.82918,10.5825,-13.6391,5.62965,3.21814,0.0604329,0.00555947,-0.0239269,0.209177,-1.96784,0.21247,0.13426,0.0096123,-0.00274905,0.00587406,0.165045,-0.090344,0.0685159,0.0285976,0.000418106,0,0,0,0,0,0,0,0.511356,-32.0744,0.338148,25.134,1.73553,1.57464,0.131027,
0.00748965,-0.0243357,0.211178,-1.97143,0.219702,0.139225,0.00974875,0.0865179,-0.0184099,0.0886282,-0.148264,0.412661,0.244051,0.00642294,0,0,0,0,0,0,0,10.1958,-2.73219,10.4006,-13.3844,4.80583,3.23051,0.0611334,0.00555947,-0.0239269,0.209177,-1.96784,0.21247,0.13426,0.0096123,-0.00274905,0.00587406,0.165045,-0.090344,0.0685159,0.0285976,0.000418106,0,0,0,0,0,0,0,0.511356,-32.0744,0.338148,25.134,1.73553,1.57464,0.131027,
0.00820421,-0.0244654,0.211909,-1.97256,0.22235,0.141347,0.00980351,0.0870783,-0.0179724,0.0891744,-0.146922,0.396339,0.2483,0.00650744,0,0,0,0,0,0,0,10.0479,-2.6535,10.2501,-13.1339,4.0663,3.23329,0.0625119,0.00555947,-0.0239269,0.209177,-1.96784,0.21247,0.13426,0.0096123,-0.00274905,0.00587406,0.165045,-0.090344,0.0685159,0.0285976,0.000418106,0,0,0,0,0,0,0,0.511356,-32.0744,0.338148,25.134,1.73553,1.57464,0.131027,
0.0089488,-0.0245976,0.212669,-1.97364,0.224809,0.143575,0.00985979,0.0882774,-0.0176817,0.0903545,-0.144717,0.378537,0.25433,0.00661297,0,0,0,0,0,0,0,9.92064,-2.5902,10.1204,-12.8873,3.41184,3.22418,0.0639913,0.00555947,-0.0239269,0.209177,-1.96784,0.21247,0.13426,0.0096123,-0.00274905,0.00587406,0.165045,-0.090344,0.0685159,0.0285976,0.000418106,0,0,0,0,0,0,0,0.511356,-32.0744,0.338148,25.134,1.73553,1.57464,0.131027,
0.00691141,-0.0242375,0.216089,-1.97319,0.217464,0.137956,0.00969894,0.0870247,-0.0181042,0.0891405,-0.14581,0.353945,0.244895,0.0065125,0,0,0,0,0,0,0,10.1976,-2.79158,10.4062,-13.3702,4.80448,3.24013,0.0611033,0.00562702,-0.0239228,0.214751,-1.97082,0.21393,0.135105,0.00961262,-0.0013226,-0.000583871,0.168672,-0.0931848,0.0205478,0.0164482,0.00068195,0.178307,-0.807241,0.45342,-0.355095,-5.99601,-1.51868,0.0329805,0.336795,-31.9237,0.112013,25.3601,1.72912,1.72661,0.11821,
0.0075988,-0.0243819,0.216794,-1.97435,0.219675,0.139876,0.00975232,0.0868045,-0.0180929,0.0889237,-0.145695,0.338421,0.243917,0.00654459,0,0,0,0,0,0,0,10.0497,-2.71288,10.2557,-13.1197,4.06495,3.24291,0.0624818,0.00562702,-0.0239228,0.214751,-1.97082,0.21393,0.135105,0.00961262,-0.0013226,-0.000583871,0.168672,-0.0931848,0.0205478,0.0164482,0.00068195,0,0,0,0,0,0,0,0.336795,-31.9237,0.112013,25.3601,1.72912,1.72661,0.11821,
0.00831672,-0.0245194,0.217528,-1.97546,0.221841,0.141965,0.00980807,0.0873914,-0.0179131,0.0895008,-0.144388,0.324897,0.247359,0.00662933,0,0,0,0,0,0,0,9.92244,-2.64958,10.126,-12.8731,3.41049,3.23379,0.0639613,0.00562702,-0.0239228,0.214751,-1.97082,0.21393,0.135105,0.00961262,-0.0013226,-0.000583871,0.168672,-0.0931848,0.0205478,0.0164482,0.00068195,0,0,0,0,0,0,0,0.336795,-31.9237,0.112013,25.3601,1.72912,1.72661,0.11821,
0.00693013,-0.0242258,0.216107,-1.97314,0.216939,0.137927,0.00970374,0.0865588,-0.018163,0.0886889,-0.144912,0.303163,0.238962,0.00657231,0,0,0,0,0,0,0,10.0497,-2.71288,10.2557,-13.1197,4.06495,3.24291,0.0624818,0.00562702,-0.0239228,0.214751,-1.97082,0.21393,0.135105,0.00961262,-0.0013226,-0.000583871,0.168672,-0.0931848,0.0205478,0.0164482,0.00068195,0,0,0,0,0,0,0,0.336795,-31.9237,0.112013,25.3601,1.72912,1.72661,0.11821,
0.00762482,-0.0243672,0.216818,-1.97428,0.21879,0.139833,0.00975863,0.0866144,-0.0180646,0.0887379,-0.144386,0.288807,0.23882,0.00663024,0,0,0,0,0,0,0,9.92279,-2.71156,10.13,-12.8557,3.413,3.24589,0.0639028,0.00572858,-0.0239016,0.220463,-1.97375,0.214071,0.13549,0.00960896,0.00198932,0.00295392,0.170941,-0.0846627,0.00217018,0.00469806,-0.000742562,0.413989,0.442223,0.283571,1.06526,-2.2972,-1.46877,-0.178064,0.158268,-32.0268,-0.0863513,25.5347,1.65039,1.82,0.151169,
0.0083464,-0.024503,0.217556,-1.97537,0.220588,0.141906,0.00981551,0.0873311,-0.0178475,0.0894396,-0.1428,0.276004,0.242874,0.00672612,0,0,0,0,0,0,0,9.80977,-2.66094,10.0147,-12.6126,2.83376,3.23015,0.065674,0.00572858,-0.0239016,0.220463,-1.97375,0.214071,0.13549,0.00960896,0.00198932,0.00295392,0.170941,-0.0846627,0.00217018,0.00469806,-0.000742562,0,0,0,0,0,0,0,0.158268,-32.0268,-0.0863513,25.5347,1.65039,1.82,0.151169,
0.00908968,-0.0246401,0.218316,-1.97642,0.222242,0.144087,0.00987366,0.0884469,-0.0177045,0.0905384,-0.140463,0.262152,0.248815,0.00683476,0,0,0,0,0,0,0,9.70387,-2.62038,9.90666,-12.3726,2.32898,3.20604,0.0673156,0.00572858,-0.0239016,0.220463,-1.97375,0.214071,0.13549,0.00960896,0.00198932,0.00295392,0.170941,-0.0846627,0.00217018,0.00469806,-0.000742562,0,0,0,0,0,0,0,0.158268,-32.0268,-0.0863513,25.5347,1.65039,1.82,0.151169,
0.00706806,-0.0241968,0.221855,-1.976,0.216503,0.138245,0.00970214,0.0878061,-0.0179841,0.0899223,-0.141132,0.245036,0.239485,0.00676888,0,0,0,0,0,0,0,9.92279,-2.71156,10.13,-12.8557,3.413,3.24589,0.0639028,0.00572858,-0.0239016,0.220463,-1.97375,0.214071,0.13549,0.00960896,0.00198932,0.00295392,0.170941,-0.0846627,0.00217018,0.00469806,-0.000742562,0,0,0,0,0,0,0,0.158268,-32.0268,-0.0863513,25.5347,1.65039,1.82,0.151169,
0.00777383,-0.0243404,0.222577,-1.97712,0.218017,0.14013,0.00975805,0.087889,-0.0179773,0.0900048,-0.14081,0.233885,0.238712,0.0068127,0,0,0,0,0,0,0,9.80691,-2.72836,10.0145,-12.5959,2.83435,3.24212,0.0656149,0.00589302,-0.0238048,0.225827,-1.9766,0.214062,0.135564,0.00961379,0.0134279,0.0052568,0.127616,-0.0738198,0.00943997,0.000167793,0.00046041,1.42982,0.28786,-5.41555,1.35537,0.908723,-0.566284,0.150371,-2.30145,-32.7727,-2.41118,27.0264,1.52221,2.18438,0.110886,
0.00850148,-0.0244796,0.223322,-1.97819,0.219483,0.142183,0.00981584,0.0885025,-0.0178628,0.0906099,-0.139432,0.223742,0.242287,0.00689497,0,0,0,0,0,0,0,9.70101,-2.6878,9.90645,-12.356,2.32957,3.21801,0.0672565,0.00589302,-0.0238048,0.225827,-1.9766,0.214062,0.135564,0.00961379,0.0134279,0.0052568,0.127616,-0.0738198,0.00943997,0.000167793,0.00046041,0,0,0,0,0,0,0,-2.30145,-32.7727,-2.41118,27.0264,1.52221,2.18438,0.110886,
0.00924622,-0.0246205,0.224083,-1.97922,0.220823,0.144343,0.00987465,0.0894205,-0.017813,0.0915174,-0.137289,0.212486,0.247816,0.00698616,0,0,0,0,0,0,0,9.59871,-2.65496,9.8022,-12.1187,1.89025,3.18931,0.0689178,0.00589302,-0.0238048,0.225827,-1.9766,0.214062,0.135564,0.00961379,0.0134279,0.0052568,0.127616,-0.0738198,0.00943997,0.000167793,0.00046041,0,0,0,0,0,0,0,-2.30145,-32.7727,-2.41118,27.0264,1.52221,2.18438,0.110886,
0.00708521,-0.0241003,0.227064,-1.97877,0.216066,0.138369,0.00971605,0.0870219,-0.0181369,0.0891267,-0.137552,0.198553,0.239492,0.0069827,0,0,0,0,0,0,0,9.80691,-2.72836,10.0145,-12.5959,2.83435,3.24212,0.0656149,0.00589302,-0.0238048,0.225827,-1.9766,0.214062,0.135564,0.00961379,0.0134279,0.0052568,0.127616,-0.0738198,0.00943997,0.000167793,0.00046041,0,0,0,0,0,0,0,-2.30145,-32.7727,-2.41118,27.0264,1.52221,2.18438,0.110886,
0.00774371,-0.0242483,0.227739,-1.97985,0.217264,0.140286,0.00977464,0.0860801,-0.01821,0.08818,-0.137089,0.188808,0.239515,0.00705093,0,0,0,0,0,0,0,9.70128,-2.74261,9.90908,-12.3378,2.33208,3.23065,0.0671919,0.00625159,-0.0237146,0.230653,-1.97916,0.214042,0.135606,0.00961262,0.00941806,0.00704037,0.134761,-0.06982,0.00143703,-0.00587522,-0.000116347,-0.501228,0.222946,0.893107,0.499967,-1.00037,-0.755376,-0.0720947,-0.95654,-32.8005,-1.16149,26.3797,1.60095,2.01226,0.11821,
0.00843355,-0.0243925,0.228445,-1.98089,0.218408,0.142364,0.00983426,0.0861101,-0.0181724,0.0882025,-0.135718,0.179635,0.243563,0.00713123,0,0,0,0,0,0,0,9.59898,-2.70977,9.80483,-12.1006,1.89275,3.20194,0.0688532,0.00625159,-0.0237146,0.230653,-1.97916,0.214042,0.135606,0.00961262,0.00941806,0.00704037,0.134761,-0.06982,0.00143703,-0.00587522,-0.000116347,0,0,0,0,0,0,0,-0.95654,-32.8005,-1.16149,26.3797,1.60095,2.01226,0.11821,
0.00746727,-0.0240024,0.231914,-1.98128,0.215644,0.138351,0.00971782,0.084642,-0.018385,0.0867424,-0.135734,0.166587,0.235422,0.00713269,0,0,0,0,0,0,0,9.70128,-2.74261,9.90908,-12.3378,2.33208,3.23065,0.0671919,0.00625159,-0.0237146,0.230653,-1.97916,0.214042,0.135606,0.00961262,0.00941806,0.00704037,0.134761,-0.06982,0.00143703,-0.00587522,-0.000116347,0,0,0,0,0,0,0,-0.95654,-32.8005,-1.16149,26.3797,1.60095,2.01226,0.11821,
0.0081327,-0.0241513,0.232597,-1.98234,0.216598,0.140243,0.00977729,0.0843495,-0.0184308,0.0864473,-0.13512,0.157109,0.235635,0.00719301,0,0,0,0,0,0,0,9.59898,-2.70977,9.80483,-12.1006,1.89275,3.20194,0.0688532,0.00625159,-0.0237146,0.230653,-1.97916,0.214042,0.135606,0.00961262,0.00941806,0.00704037,0.134761,-0.06982,0.00143703,-0.00587522,-0.000116347,0,0,0,0,0,0,0,-0.95654,-32.8005,-1.16149,26.3797,1.60095,2.01226,0.11821,
0.00882547,-0.0242977,0.233306,-1.98336,0.217499,0.142296,0.00983755,0.0847989,-0.0184042,0.0868927,-0.133657,0.148225,0.239836,0.00726089,0,0,0,0,0,0,0,9.49383,-2.7411,9.70024,-11.8509,1.51699,3.17744,0.0701857,0.00637793,-0.0236591,0.235139,-1.98147,0.214013,0.135619,0.00960586,-0.00256275,0.00373487,0.120354,-0.0609478,0.0029247,0.0023355,-0.00168731,-1.4976,-0.413187,-1.80087,1.10904,0.185959,1.02634,-0.19637,0.463749,-31.7015,0.26277,25.134,1.60095,1.84655,0.164902,
0.00953758,-0.0244463,0.234035,-1.98435,0.218306,0.144447,0.00989801,0.0856418,-0.0184391,0.0877322,-0.131549,0.138739,0.24564,0.00732011,0,0,0,0,0,0,0,9.38896,-2.71765,9.59371,-11.618,1.196,3.14026,0.0714157,0.00637793,-0.0236591,0.235139,-1.98147,0.214013,0.135619,0.00960586,-0.00256275,0.00373487,0.120354,-0.0609478,0.0029247,0.0023355,-0.00168731,0,0,0,0,0,0,0,0.463749,-31.7015,0.26277,25.134,1.60095,1.84655,0.164902,
0.00746682,-0.0239896,0.236272,-1.98348,0.215249,0.138497,0.00971769,0.0829238,-0.0190945,0.0850107,-0.131177,0.128375,0.238653,0.00735552,0,0,0,0,0,0,0,9.59671,-2.76835,9.80494,-12.0859,1.89315,3.21172,0.0688034,0.00637793,-0.0236591,0.235139,-1.98147,0.214013,0.135619,0.00960586,-0.00256275,0.00373487,0.120354,-0.0609478,0.0029247,0.0023355,-0.00168731,0,0,0,0,0,0,0,0.463749,-31.7015,0.26277,25.134,1.60095,1.84655,0.164902,
0.00809058,-0.0241555,0.236913,-1.9845,0.215958,0.14044,0.00977913,0.0819331,-0.0194241,0.0840146,-0.130449,0.120409,0.239498,0.00742042,0,0,0,0,0,0,0,9.49383,-2.7411,9.70024,-11.8509,1.51699,3.17744,0.0701857,0.00637793,-0.0236591,0.235139,-1.98147,0.214013,0.135619,0.00960586,-0.00256275,0.00373487,0.120354,-0.0609478,0.0029247,0.0023355,-0.00168731,0,0,0,0,0,0,0,0.463749,-31.7015,0.26277,25.134,1.60095,1.84655,0.164902,
0.00874926,-0.0243163,0.237588,-1.98548,0.216616,0.142531,0.00984061,0.0820134,-0.0195592,0.0840925,-0.12904,0.11279,0.243872,0.00747327,0,0,0,0,0,0,0,9.38966,-2.76695,9.59652,-11.5993,1.19888,3.15296,0.0713482,0.0066947,-0.0235755,0.239573,-1.98376,0.213976,0.135622,0.00960779,0.0107709,0.00452734,0.126059,-0.0598014,0.0024792,0.0011265,8.5415e-05,1.66671,0.0990593,0.713051,0.143299,-0.0556874,-0.151125,0.22159,0.336795,-31.6023,0.187391,24.9118,1.58905,1.82,0.11821,
0.00943219,-0.024477,0.238287,-1.98644,0.217197,0.144707,0.00990182,0.082684,-0.019665,0.0847636,-0.127084,0.10474,0.249501,0.00750882,0,0,0,0,0,0,0,9.28059,-2.74577,9.4859,-11.368,0.929889,3.11252,0.0722347,0.0066947,-0.0235755,0.239573,-1.98376,0.213976,0.135622,0.00960779,0.0107709,0.00452734,0.126059,-0.0598014,0.0024792,0.0011265,8.5415e-05,0,0,0,0,0,0,0,0.336795,-31.6023,0.187391,24.9118,1.58905,1.82,0.11821,
0.00788741,-0.023904,0.240809,-1.98573,0.215019,0.138436,0.00972032,0.081668,-0.0200947,0.0837496,-0.127141,0.0982851,0.240858,0.0075072,0,0,0,0,0,0,0,9.49453,-2.7904,9.70305,-11.8323,1.51987,3.19014,0.0701182,0.0066947,-0.0235755,0.239573,-1.98376,0.213976,0.135622,0.00960779,0.0107709,0.00452734,0.126059,-0.0598014,0.0024792,0.0011265,8.5415e-05,0,0,0,0,0,0,0,0.336795,-31.6023,0.187391,24.9118,1.58905,1.82,0.11821,
0.00854331,-0.0240729,0.241482,-1.98673,0.215597,0.140341,0.00978157,0.0817317,-0.0203001,0.0838133,-0.126758,0.0930771,0.240308,0.00753697,0,0,0,0,0,0,0,9.38966,-2.76695,9.59652,-11.5993,1.19888,3.15296,0.0713482,0.0066947,-0.0235755,0.239573,-1.98376,0.213976,0.135622,0.00960779,0.0107709,0.00452734,0.126059,-0.0598014,0.0024792,0.0011265,8.5415e-05,0,0,0,0,0,0,0,0.336795,-31.6023,0.187391,24.9118,1.58905,1.82,0.11821,
0.00922409,-0.0242379,0.242179,-1.9877,0.216124,0.142393,0.00984277,0.0824048,-0.0203646,0.0844887,-0.125633,0.0876404,0.243548,0.00755958,0,0,0,0,0,0,0,9.28053,-2.7983,9.48799,-11.3511,0.932165,3.12387,0.0721754,0.00721065,-0.0235108,0.243894,-1.98607,0.213898,0.135654,0.00960562,0.011,0.00401083,0.124791,-0.0591153,0.00159396,0.00148495,0.00086645,0.0286406,-0.0645648,-0.158448,0.0857593,-0.110656,0.0448065,0.0976293,0.487552,-31.4754,0.211195,24.761,1.59546,1.64696,0.0980684,
0.00840243,-0.0238405,0.245129,-1.988,0.21471,0.138434,0.00972098,0.0814304,-0.0206821,0.0835148,-0.125433,0.0812395,0.235617,0.00757039,0,0,0,0,0,0,0,9.38959,-2.81948,9.59862,-11.5824,1.20116,3.16432,0.0712889,0.00721065,-0.0235108,0.243894,-1.98607,0.213898,0.135654,0.00960562,0.011,0.00401083,0.124791,-0.0591153,0.00159396,0.00148495,0.00086645,0,0,0,0,0,0,0,0.487552,-31.4754,0.211195,24.761,1.59546,1.64696,0.0980684,
0.00905615,-0.0240118,0.245799,-1.98898,0.215142,0.140318,0.00978266,0.0814875,-0.020827,0.0835728,-0.124865,0.075789,0.235583,0.00759827,0,0,0,0,0,0,0,9.28053,-2.7983,9.48799,-11.3511,0.932165,3.12387,0.0721754,0.00721065,-0.0235108,0.243894,-1.98607,0.213898,0.135654,0.00960562,0.011,0.00401083,0.124791,-0.0591153,0.00159396,0.00148495,0.00086645,0,0,0,0,0,0,0,0.487552,-31.4754,0.211195,24.761,1.59546,1.64696,0.0980684,
0.00973265,-0.0241797,0.246493,-1.98993,0.215527,0.142347,0.0098439,0.0821025,-0.0208598,0.0841921,-0.123617,0.0702615,0.239187,0.00760959,0,0,0,0,0,0,0,9.16715,-2.77818,9.3732,-11.121,0.708379,3.08192,0.0728259,0.00721065,-0.0235108,0.243894,-1.98607,0.213898,0.135654,0.00960562,0.011,0.00401083,0.124791,-0.0591153,0.00159396,0.00148495,0.00086645,0,0,0,0,0,0,0,0.487552,-31.4754,0.211195,24.761,1.59546,1.64696,0.0980684,
0.0104232,-0.0243482,0.2472,-1.99084,0.215854,0.144459,0.00990444,0.0829456,-0.0209002,0.085042,-0.121815,0.0643835,0.244167,0.00760123,0,0,0,0,0,0,0,9.04848,-2.75814,9.2532,-10.8919,0.526265,3.03857,0.0731388,0.00721065,-0.0235108,0.243894,-1.98607,0.213898,0.135654,0.00960562,0.011,0.00401083,0.124791,-0.0591153,0.00159396,0.00148495,0.00086645,0,0,0,0,0,0,0,0.487552,-31.4754,0.211195,24.761,1.59546,1.64696,0.0980684,
0.00888093,-0.0236772,0.249411,-1.99009,0.214398,0.138337,0.0097207,0.0819316,-0.0208815,0.0840271,-0.122211,0.0596879,0.234592,0.00762124,0,0,0,0,0,0,0,9.28144,-2.84657,9.4903,-11.3347,0.934918,3.13487,0.0721174,0.00768235,-0.0233649,0.248168,-1.98816,0.21379,0.135676,0.00960302,0.00973495,0.00256616,0.126394,-0.0669207,0.00168305,0.000243082,0.00041638,-0.158135,-0.180584,0.200307,-0.975676,0.0111369,-0.155233,-0.0562587,1.27307,-31.3524,1.11177,24.7095,1.58264,1.5545,0.11821,
0.00953477,-0.0238415,0.250081,-1.99106,0.214706,0.140165,0.00978249,0.0818912,-0.0208135,0.0839875,-0.122023,0.0554451,0.23336,0.00764185,0,0,0,0,0,0,0,9.16806,-2.82646,9.3755,-11.1046,0.711132,3.09292,0.0727678,0.00768235,-0.0233649,0.248168,-1.98816,0.21379,0.135676,0.00960302,0.00973495,0.00256616,0.126394,-0.0669207,0.00168305,0.000243082,0.00041638,0,0,0,0,0,0,0,1.27307,-31.3524,1.11177,24.7095,1.58264,1.5545,0.11821,
0.0102086,-0.0240047,0.250772,-1.992,0.214973,0.142143,0.00984352,0.0823594,-0.0207302,0.0844603,-0.121039,0.0510381,0.236138,0.00763919,0,0,0,0,0,0,0,9.0494,-2.80641,9.25551,-10.8756,0.529019,3.04957,0.0730807,0.00768235,-0.0233649,0.248168,-1.98816,0.21379,0.135676,0.00960302,0.00973495,0.00256616,0.126394,-0.0669207,0.00168305,0.000243082,0.00041638,0,0,0,0,0,0,0,1.27307,-31.3524,1.11177,24.7095,1.58264,1.5545,0.11821,
0.010894,-0.02417,0.251474,-1.9929,0.215195,0.144209,0.00990356,0.0830221,-0.0207182,0.0851301,-0.119421,0.0463742,0.240571,0.00761228,0,0,0,0,0,0,0,8.92603,-2.78576,9.13092,-10.6473,0.383016,3.00581,0.073118,0.00768235,-0.0233649,0.248168,-1.98816,0.21379,0.135676,0.00960302,0.00973495,0.00256616,0.126394,-0.0669207,0.00168305,0.000243082,0.00041638,0,0,0,0,0,0,0,1.27307,-31.3524,1.11177,24.7095,1.58264,1.5545,0.11821,
0.00888194,-0.0236692,0.249411,-1.99005,0.214244,0.138285,0.00972202,0.0819873,-0.0206453,0.0840886,-0.119833,0.0430404,0.230971,0.00763792,0,0,0,0,0,0,0,9.16878,-2.8767,9.3781,-11.0872,0.713907,3.10482,0.0727058,0.00827584,-0.0232792,0.252421,-1.99039,0.213729,0.135673,0.00960014,0.0181224,0.00412479,0.123636,-0.0701056,0.00265017,-0.00390515,0.00136821,1.04843,0.19483,-0.344653,-0.398107,0.12089,-0.518529,0.118979,0.590702,-31.4516,0.361952,25.5585,1.57714,1.6671,0.0980684,
0.00953337,-0.023831,0.250079,-1.99101,0.214456,0.140079,0.00978372,0.0818758,-0.0205609,0.0839744,-0.119662,0.0397386,0.229645,0.00765292,0,0,0,0,0,0,0,9.05011,-2.85665,9.25811,-10.8582,0.531793,3.06146,0.0730187,0.00827584,-0.0232792,0.252421,-1.99039,0.213729,0.135673,0.00960014,0.0181224,0.00412479,0.123636,-0.0701056,0.00265017,-0.00390515,0.00136821,0,0,0,0,0,0,0,0.590702,-31.4516,0.361952,25.5585,1.57714,1.6671,0.0980684,
0.0102026,-0.0239922,0.250765,-1.99192,0.214633,0.142023,0.00984433,0.0822303,-0.0204809,0.0843315,-0.118702,0.0362067,0.232305,0.00763745,0,0,0,0,0,0,0,8.92674,-2.836,9.13352,-10.6299,0.38579,3.0177,0.073056,0.00827584,-0.0232792,0.252421,-1.99039,0.213729,0.135673,0.00960014,0.0181224,0.00412479,0.123636,-0.0701056,0.00265017,-0.00390515,0.00136821,0,0,0,0,0,0,0,0.590702,-31.4516,0.361952,25.5585,1.57714,1.6671,0.0980684,
0.00950447,-0.0235575,0.253692,-1.99228,0.214082,0.138167,0.00971938,0.0816393,-0.0201755,0.0837391,-0.119071,0.0334132,0.22291,0.00765143,0,0,0,0,0,0,0,9.05011,-2.85665,9.25811,-10.8582,0.531793,3.06146,0.0730187,0.00827584,-0.0232792,0.252421,-1.99039,0.213729,0.135673,0.00960014,0.0181224,0.00412479,0.123636,-0.0701056,0.00265017,-0.00390515,0.00136821,0,0,0,0,0,0,0,0.590702,-31.4516,0.361952,25.5585,1.57714,1.6671,0.0980684,
0.0101622,-0.0237117,0.254366,-1.99322,0.214231,0.139907,0.00978047,0.0817538,-0.0199949,0.0838554,-0.118793,0.0304509,0.221831,0.00764832,0,0,0,0,0,0,0,8.92525,-2.89098,9.13411,-10.614,0.387147,3.02831,0.0730027,0.00908281,-0.0232371,0.256437,-1.99276,0.213642,0.135701,0.00959206,0.0264212,0.00509411,0.0972541,-0.0693383,0.00186514,0.00240664,4.74308e-05,1.03735,0.121165,-3.29779,0.0959104,-0.0981296,0.788974,-0.165097,-2.60693,-32.0982,-2.7365,26.3281,1.22284,1.98571,0.131027,
0.0108332,-0.0238681,0.255055,-1.99413,0.214349,0.141801,0.00984024,0.0821801,-0.0199045,0.0842879,-0.117708,0.0272966,0.224795,0.007613,0,0,0,0,0,0,0,8.7969,-2.86921,9.00463,-10.3862,0.273677,2.98457,0.0727049,0.00908281,-0.0232371,0.256437,-1.99276,0.213642,0.135701,0.00959206,0.0264212,0.00509411,0.0972541,-0.0693383,0.00186514,0.00240664,4.74308e-05,0,0,0,0,0,0,0,-2.60693,-32.0982,-2.7365,26.3281,1.22284,1.98571,0.131027,
0.0115102,-0.0240287,0.255749,-1.995,0.21444,0.143786,0.0098986,0.082669,-0.0199393,0.0847851,-0.115991,0.0241088,0.229462,0.00754936,0,0,0,0,0,0,0,8.66448,-2.84604,8.87117,-10.1589,0.188288,2.94127,0.0721305,0.00908281,-0.0232371,0.256437,-1.99276,0.213642,0.135701,0.00959206,0.0264212,0.00509411,0.0972541,-0.0693383,0.00186514,0.00240664,4.74308e-05,0,0,0,0,0,0,0,-2.60693,-32.0982,-2.7365,26.3281,1.22284,1.98571,0.131027,
0.0102162,-0.0234994,0.25761,-1.9946,0.213833,0.13823,0.00971327,0.0809247,-0.0195716,0.0830341,-0.116353,0.0214136,0.220929,0.00759884,0,0,0,0,0,0,0,8.92525,-2.89098,9.13411,-10.614,0.387147,3.02831,0.0730027,0.00908281,-0.0232371,0.256437,-1.99276,0.213642,0.135701,0.00959206,0.0264212,0.00509411,0.0972541,-0.0693383,0.00186514,0.00240664,4.74308e-05,0,0,0,0,0,0,0,-2.60693,-32.0982,-2.7365,26.3281,1.22284,1.98571,0.131027,
0.0108389,-0.0236492,0.258249,-1.99552,0.213887,0.139974,0.00977444,0.0803059,-0.019402,0.082416,-0.116092,0.0184776,0.220338,0.0076083,0,0,0,0,0,0,0,8.79718,-2.92154,9.00749,-10.3702,0.276014,2.99472,0.0726507,0.00983424,-0.0232676,0.260179,-1.99496,0.213541,0.13575,0.00958789,0.0126883,-0.000222687,0.107054,-0.0671285,0.00598964,-0.0023655,-0.000844989,-1.71661,-0.6646,1.22496,0.27622,0.515563,-0.596517,-0.111553,-0.325741,-31.6499,-0.463243,25.3601,1.46728,1.79345,0.158493,
0.0114801,-0.0238029,0.258908,-1.99641,0.213918,0.141865,0.00983383,0.0802754,-0.0193644,0.0823915,-0.115042,0.0155606,0.223538,0.00757148,0,0,0,0,0,0,0,8.66476,-2.89837,8.87403,-10.1429,0.190625,2.95142,0.0720763,0.00983424,-0.0232676,0.260179,-1.99496,0.213541,0.13575,0.00958789,0.0126883,-0.000222687,0.107054,-0.0671285,0.00598964,-0.0023655,-0.000844989,0,0,0,0,0,0,0,-0.325741,-31.6499,-0.463243,25.3601,1.46728,1.79345,0.158493,
0.0121309,-0.023962,0.259576,-1.99726,0.213937,0.143842,0.00989146,0.0804902,-0.0194703,0.0826152,-0.113371,0.0129025,0.228273,0.00749795,0,0,0,0,0,0,0,8.52832,-2.87367,8.73662,-9.91588,0.129879,2.90917,0.0712253,0.00983424,-0.0232676,0.260179,-1.99496,0.213541,0.13575,0.00958789,0.0126883,-0.000222687,0.107054,-0.0671285,0.00598964,-0.0023655,-0.000844989,0,0,0,0,0,0,0,-0.325741,-31.6499,-0.463243,25.3601,1.46728,1.79345,0.158493,
0.0109464,-0.0235755,0.261333,-1.99674,0.213686,0.138212,0.00970907,0.078947,-0.0196769,0.0810638,-0.11355,0.0116547,0.219219,0.00755167,0,0,0,0,0,0,0,8.79718,-2.92154,9.00749,-10.3702,0.276014,2.99472,0.0726507,0.00983424,-0.0232676,0.260179,-1.99496,0.213541,0.13575,0.00958789,0.0126883,-0.000222687,0.107054,-0.0671285,0.00598964,-0.0023655,-0.000844989,0,0,0,0,0,0,0,-0.325741,-31.6499,-0.463243,25.3601,1.46728,1.79345,0.158493,
0.0115597,-0.02374,0.261963,-1.99764,0.213704,0.13993,0.00976957,0.0784916,-0.0198549,0.0806096,-0.113192,0.00978943,0.218333,0.00755384,0,0,0,0,0,0,0,8.66466,-2.95089,8.87673,-10.127,0.192576,2.96158,0.0720232,0.0102562,-0.0233248,0.263868,-1.99718,0.213521,0.135792,0.00958407,0.011909,-0.00305882,0.105421,-0.0647566,0.00498499,-0.00291147,0.000228038,-0.0974126,-0.354517,-0.204036,0.296495,-0.125581,-0.0682458,0.134128,0.816837,-30.9041,0.663466,24.761,1.46087,1.6607,0.11821,
0.0121912,-0.0239053,0.262612,-1.9985,0.213704,0.141798,0.00982799,0.07858,-0.0200161,0.0807059,-0.112112,0.00782026,0.221366,0.00750369,0,0,0,0,0,0,0,8.52822,-2.92619,8.73933,-9.90001,0.13183,2.91933,0.0711722,0.0102562,-0.0233248,0.263868,-1.99718,0.213521,0.135792,0.00958407,0.011909,-0.00305882,0.105421,-0.0647566,0.00498499,-0.00291147,0.000228038,0,0,0,0,0,0,0,0.816837,-30.9041,0.663466,24.761,1.46087,1.6607,0.11821,
0.0128316,-0.0240737,0.26327,-1.99933,0.213698,0.143755,0.00988442,0.0788738,-0.0202215,0.0810111,-0.110453,0.00609906,0.226006,0.00741375,0,0,0,0,0,0,0,8.38874,-2.90001,8.59896,-9.67312,0.0922181,2.87809,0.0700619,0.0102562,-0.0233248,0.263868,-1.99718,0.213521,0.135792,0.00958407,0.011909,-0.00305882,0.105421,-0.0647566,0.00498499,-0.00291147,0.000228038,0,0,0,0,0,0,0,0.816837,-30.9041,0.663466,24.761,1.46087,1.6607,0.11821,
0.0113511,-0.0236588,0.265004,-1.99891,0.213603,0.138225,0.00970464,0.0774356,-0.0205603,0.0795646,-0.110585,0.00537398,0.217008,0.00746731,0,0,0,0,0,0,0,8.66466,-2.95089,8.87673,-10.127,0.192576,2.96158,0.0720232,0.0102562,-0.0233248,0.263868,-1.99718,0.213521,0.135792,0.00958407,0.011909,-0.00305882,0.105421,-0.0647566,0.00498499,-0.00291147,0.000228038,0,0,0,0,0,0,0,0.816837,-30.9041,0.663466,24.761,1.46087,1.6607,0.11821,
0.0119551,-0.0238325,0.265626,-1.99978,0.213592,0.139927,0.00976415,0.0770474,-0.0207897,0.0791788,-0.110225,0.00400191,0.216143,0.00746161,0,0,0,0,0,0,0,8.52849,-2.97253,8.74146,-9.88285,0.134304,2.9305,0.0711142,0.0109207,-0.0232855,0.26749,-1.99934,0.213465,0.135831,0.00958658,0.0265992,-0.000211413,0.103943,-0.0629245,-0.00138162,-0.000314423,0.00200157,1.83628,0.355926,-0.184844,0.229003,-0.795827,0.32463,0.221692,0.435978,-31.4992,0.139784,25.257,1.58264,1.6607,0.0843355,
0.0125763,-0.0240052,0.266264,-2.00062,0.213567,0.141777,0.00982137,0.07717,-0.020951,0.0793111,-0.109175,0.00259516,0.219174,0.00739958,0,0,0,0,0,0,0,8.38901,-2.94636,8.60109,-9.65596,0.0946929,2.88926,0.0700038,0.0109207,-0.0232855,0.26749,-1.99934,0.213465,0.135831,0.00958658,0.0265992,-0.000211413,0.103943,-0.0629245,-0.00138162,-0.000314423,0.00200157,0,0,0,0,0,0,0,0.435978,-31.4992,0.139784,25.257,1.58264,1.6607,0.0843355,
0.0120731,-0.0236013,0.268683,-2.00105,0.213513,0.138242,0.00970342,0.0766257,-0.0209858,0.0787649,-0.109218,0.00231897,0.211081,0.00740598,0,0,0,0,0,0,0,8.52849,-2.97253,8.74146,-9.88285,0.134304,2.9305,0.0711142,0.0109207,-0.0232855,0.26749,-1.99934,0.213465,0.135831,0.00958658,0.0265992,-0.000211413,0.103943,-0.0629245,-0.00138162,-0.000314423,0.00200157,0,0,0,0,0,0,0,0.435978,-31.4992,0.139784,25.257,1.58264,1.6607,0.0843355,
0.0126902,-0.0237718,0.269317,-2.0019,0.213501,0.139917,0.00976104,0.0767281,-0.0210532,0.0788734,-0.108761,0.00155377,0.210746,0.00736542,0,0,0,0,0,0,0,8.38901,-2.94636,8.60109,-9.65596,0.0946929,2.88926,0.0700038,0.0109207,-0.0232855,0.26749,-1.99934,0.213465,0.135831,0.00958658,0.0265992,-0.000211413,0.103943,-0.0629245,-0.00138162,-0.000314423,0.00200157,0,0,0,0,0,0,0,0.435978,-31.4992,0.139784,25.257,1.58264,1.6607,0.0843355,
0.0133181,-0.0239435,0.269963,-2.00273,0.213484,0.141738,0.00981641,0.0770791,-0.021133,0.0792362,-0.107613,0.000820215,0.214119,0.0072764,0,0,0,0,0,0,0,8.24668,-2.91883,8.4579,-9.42919,0.0730167,2.84973,0.0686541,0.0109207,-0.0232855,0.26749,-1.99934,0.213465,0.135831,0.00958658,0.0265992,-0.000211413,0.103943,-0.0629245,-0.00138162,-0.000314423,0.00200157,0,0,0,0,0,0,0,0.435978,-31.4992,0.139784,25.257,1.58264,1.6607,0.0843355,
0.0139493,-0.024118,0.270612,-2.00352,0.213476,0.143646,0.00986959,0.077444,-0.0212693,0.0796155,-0.105909,0.000445221,0.219005,0.00715081,0,0,0,0,0,0,0,8.10142,-2.93982,8.31396,-9.18808,0.0679504,2.8207,0.0670355,0.0117039,-0.023285,0.270959,-2.00135,0.213401,0.135861,0.00957505,0.0219505,-0.00200058,0.0986582,-0.056977,0.000791633,0.000691724,-0.000505902,-0.581099,-0.223646,-0.660552,0.743436,0.271657,0.125768,-0.313435,1.09455,-31.3762,0.86183,24.9356,1.65039,1.53435,0.14476,
0.0127986,-0.0236258,0.272094,-2.00299,0.21343,0.138294,0.0096901,0.07619,-0.021529,0.0783524,-0.10582,0.000248418,0.211187,0.00718862,0,0,0,0,0,0,0,8.38808,-2.99595,8.60226,-9.64158,0.0960815,2.89838,0.0699571,0.0117039,-0.023285,0.270959,-2.00135,0.213401,0.135861,0.00957505,0.0219505,-0.00200058,0.0986582,-0.056977,0.000791633,0.000691724,-0.000505902,0,0,0,0,0,0,0,1.09455,-31.3762,0.86183,24.9356,1.65039,1.53435,0.14476,
0.013393,-0.0238059,0.272706,-2.00381,0.213404,0.139974,0.00974668,0.0758133,-0.0217247,0.0779781,-0.105343,-0.000454943,0.210962,0.00716535,0,0,0,0,0,0,0,8.24575,-2.96842,8.45908,-9.41482,0.0744053,2.85885,0.0686074,0.0117039,-0.023285,0.270959,-2.00135,0.213401,0.135861,0.00957505,0.0219505,-0.00200058,0.0986582,-0.056977,0.000791633,0.000691724,-0.000505902,0,0,0,0,0,0,0,1.09455,-31.3762,0.86183,24.9356,1.65039,1.53435,0.14476,
0.0140007,-0.0239853,0.273331,-2.00461,0.213377,0.141796,0.00980075,0.0758416,-0.0218634,0.0780162,-0.104238,-0.0010301,0.214318,0.00708392,0,0,0,0,0,0,0,8.10142,-2.93982,8.31396,-9.18808,0.0679504,2.8207,0.0670355,0.0117039,-0.023285,0.270959,-2.00135,0.213401,0.135861,0.00957505,0.0219505,-0.00200058,0.0986582,-0.056977,0.000791633,0.000691724,-0.000505902,0,0,0,0,0,0,0,1.09455,-31.3762,0.86183,24.9356,1.65039,1.53435,0.14476,
0.0146134,-0.0241661,0.273962,-2.00538,0.213365,0.143702,0.00985243,0.075991,-0.0220112,0.0781793,-0.102611,-0.00111966,0.219099,0.00695912,0,0,0,0,0,0,0,7.95561,-2.95409,8.16919,-8.94612,0.0761141,2.79462,0.0652265,0.0127021,-0.0232614,0.274268,-2.00327,0.213335,0.135859,0.00957208,0.0335849,0.000299084,0.0942489,-0.0586493,-0.00185371,0.000372657,0.00121363,1.45431,0.287458,-0.551173,-0.209034,-0.330668,-0.0398834,0.214941,0.967594,-31.6023,0.762648,25.3839,1.66229,1.58745,0.0980684,
0.0138248,-0.0235753,0.27543,-2.0049,0.213357,0.138224,0.00968384,0.0752698,-0.0218379,0.0774522,-0.102988,-0.000956027,0.210312,0.00698728,0,0,0,0,0,0,0,8.24612,-3.01207,8.46124,-9.39955,0.0767238,2.86884,0.0685556,0.0127021,-0.0232614,0.274268,-2.00327,0.213335,0.135859,0.00957208,0.0335849,0.000299084,0.0942489,-0.0586493,-0.00185371,0.000372657,0.00121363,0,0,0,0,0,0,0,0.967594,-31.6023,0.762648,25.3839,1.66229,1.58745,0.0980684,
0.0144232,-0.0237474,0.276046,-2.00572,0.213341,0.139865,0.0097385,0.0751742,-0.0217738,0.0773605,-0.102814,-0.00116957,0.209275,0.00695629,0,0,0,0,0,0,0,8.10179,-2.98347,8.31612,-9.17281,0.0702689,2.83068,0.0669837,0.0127021,-0.0232614,0.274268,-2.00327,0.213335,0.135859,0.00957208,0.0335849,0.000299084,0.0942489,-0.0586493,-0.00185371,0.000372657,0.00121363,0,0,0,0,0,0,0,0.967594,-31.6023,0.762648,25.3839,1.66229,1.58745,0.0980684,
0.0150304,-0.0239214,0.276671,-2.00651,0.213331,0.141649,0.00979062,0.0753217,-0.0217673,0.0775179,-0.101904,-0.00119426,0.212015,0.00686814,0,0,0,0,0,0,0,7.95561,-2.95409,8.16919,-8.94612,0.0761141,2.79462,0.0652265,0.0127021,-0.0232614,0.274268,-2.00327,0.213335,0.135859,0.00957208,0.0335849,0.000299084,0.0942489,-0.0586493,-0.00185371,0.000372657,0.00121363,0,0,0,0,0,0,0,0.967594,-31.6023,0.762648,25.3839,1.66229,1.58745,0.0980684,
0.0151377,-0.0235941,0.278586,-2.00672,0.213371,0.138197,0.00967676,0.0750353,-0.0218678,0.0772272,-0.101793,1.13898e-05,0.20439,0.00686043,0,0,0,0,0,0,0,8.10163,-3.02688,8.31787,-9.15745,0.0722687,2.84043,0.0669324,0.0139823,-0.0232628,0.277392,-2.00514,0.213269,0.135849,0.00957028,0.0431595,5.10551e-05,0.0926219,-0.0531068,0.00186247,-0.000558081,-0.00140482,1.19682,-0.0310036,-0.203365,0.692811,0.464523,-0.116342,-0.327306,-0.730404,-31.5508,-0.887743,25.6577,1.57714,1.68084,0.110886,
0.0157422,-0.0237744,0.279208,-2.00751,0.213396,0.139825,0.00972934,0.0751403,-0.0220029,0.0773374,-0.101275,0.000634813,0.204189,0.00680297,0,0,0,0,0,0,0,7.95545,-2.9975,8.17094,-8.93077,0.0781139,2.80436,0.0651752,0.0139823,-0.0232628,0.277392,-2.00514,0.213269,0.135849,0.00957028,0.0431595,5.10551e-05,0.0926219,-0.0531068,0.00186247,-0.000558081,-0.00140482,0,0,0,0,0,0,0,-0.730404,-31.5508,-0.887743,25.6577,1.57714,1.68084,0.110886,
0.0163512,-0.0239555,0.279835,-2.00828,0.213427,0.141592,0.00977942,0.0753384,-0.0221297,0.0775466,-0.100118,0.00127335,0.207548,0.00669424,0,0,0,0,0,0,0,7.80811,-2.96774,8.02289,-8.70408,0.09421,2.76984,0.0632289,0.0139823,-0.0232628,0.277392,-2.00514,0.213269,0.135849,0.00957028,0.0431595,5.10551e-05,0.0926219,-0.0531068,0.00186247,-0.000558081,-0.00140482,0,0,0,0,0,0,0,-0.730404,-31.5508,-0.887743,25.6577,1.57714,1.68084,0.110886,
0.016959,-0.0241389,0.280461,-2.00901,0.213477,0.143446,0.00982707,0.0754635,-0.0222872,0.0776859,-0.0984343,0.00227244,0.212378,0.00654663,0,0,0,0,0,0,0,7.65965,-2.93795,7.87374,-8.47746,0.11796,2.73753,0.0611484,0.0139823,-0.0232628,0.277392,-2.00514,0.213269,0.135849,0.00957028,0.0431595,5.10551e-05,0.0926219,-0.0531068,0.00186247,-0.000558081,-0.00140482,0,0,0,0,0,0,0,-0.730404,-31.5508,-0.887743,25.6577,1.57714,1.68084,0.110886,
0.0151291,-0.023586,0.278578,-2.00669,0.213382,0.138151,0.0096735,0.0750098,-0.0221801,0.0772225,-0.0986353,0.00299448,0.204019,0.00655938,0,0,0,0,0,0,0,7.95549,-3.0396,8.17301,-8.91719,0.0800654,2.81309,0.0651304,0.0157253,-0.0232958,0.280224,-2.007,0.213192,0.135859,0.00956106,0.0566716,0.000601698,0.0764431,-0.0548205,0.000506102,-0.00105576,0.00103196,1.68902,0.0688304,-2.02236,-0.214208,-0.169546,-0.0622102,0.304597,0.384403,-31.1263,0.238966,25.4831,1.72363,1.58745,0.110886,
0.0157262,-0.0237626,0.279192,-2.00747,0.213421,0.13975,0.00972426,0.0749337,-0.0221597,0.077147,-0.0983438,0.00337306,0.203188,0.00651634,0,0,0,0,0,0,0,7.80815,-3.00983,8.02496,-8.69051,0.0961615,2.77856,0.0631841,0.0157253,-0.0232958,0.280224,-2.007,0.213192,0.135859,0.00956106,0.0566716,0.000601698,0.0764431,-0.0548205,0.000506102,-0.00105576,0.00103196,0,0,0,0,0,0,0,0.384403,-31.1263,0.238966,25.4831,1.72363,1.58745,0.110886,
0.0163264,-0.0239403,0.279811,-2.00822,0.213471,0.141489,0.00977242,0.0749527,-0.0221716,0.0771733,-0.0973592,0.00393786,0.206041,0.00641728,0,0,0,0,0,0,0,7.65969,-2.98005,7.8758,-8.46389,0.119911,2.74626,0.0611035,0.0157253,-0.0232958,0.280224,-2.007,0.213192,0.135859,0.00956106,0.0566716,0.000601698,0.0764431,-0.0548205,0.000506102,-0.00105576,0.00103196,0,0,0,0,0,0,0,0.384403,-31.1263,0.238966,25.4831,1.72363,1.58745,0.110886,
0.0169243,-0.0241206,0.280427,-2.00893,0.213543,0.143316,0.00981813,0.0749105,-0.0222441,0.0771417,-0.0958084,0.00497335,0.21049,0.00627655,0,0,0,0,0,0,0,7.51059,-2.95066,7.72603,-8.23731,0.14982,2.71548,0.0588778,0.0157253,-0.0232958,0.280224,-2.007,0.213192,0.135859,0.00956106,0.0566716,0.000601698,0.0764431,-0.0548205,0.000506102,-0.00105576,0.00103196,0,0,0,0,0,0,0,0.384403,-31.1263,0.238966,25.4831,1.72363,1.58745,0.110886,
0.01685,-0.0236033,0.281385,-2.00853,0.213302,0.138106,0.00966183,0.0742681,-0.0219616,0.076492,-0.0962566,0.0051997,0.20177,0.00630071,0,0,0,0,0,0,0,7.80661,-3.04934,8.02453,-8.67923,0.0965886,2.78577,0.0631493,0.0174135,-0.023259,0.282735,-2.00866,0.213185,0.135841,0.00955621,0.0411781,0.000443669,0.0726821,-0.0398489,-0.000129442,-0.00904333,-0.000420541,-1.93669,-0.0197536,-0.470118,1.87144,-0.0794431,-0.998445,-0.181563,-0.95654,-31.6499,-1.08611,25.983,1.47918,1.75316,0.151169,
0.0174347,-0.0237742,0.281987,-2.00929,0.21335,0.139676,0.00971072,0.0740306,-0.0218432,0.0762571,-0.096108,0.00536554,0.20067,0.0062628,0,0,0,0,0,0,0,7.65815,-3.01955,7.87538,-8.45261,0.120339,2.75346,0.0610687,0.0174135,-0.023259,0.282735,-2.00866,0.213185,0.135841,0.00955621,0.0411781,0.000443669,0.0726821,-0.0398489,-0.000129442,-0.00904333,-0.000420541,0,0,0,0,0,0,0,-0.95654,-31.6499,-1.08611,25.983,1.47918,1.75316,0.151169,
0.0180223,-0.0239478,0.282593,-2.01002,0.213415,0.141389,0.00975696,0.0739146,-0.0218141,0.0761495,-0.0952071,0.00591104,0.20336,0.00616639,0,0,0,0,0,0,0,7.50904,-2.99016,7.72561,-8.22603,0.150247,2.72269,0.0588429,0.0174135,-0.023259,0.282735,-2.00866,0.213185,0.135841,0.00955621,0.0411781,0.000443669,0.0726821,-0.0398489,-0.000129442,-0.00904333,-0.000420541,0,0,0,0,0,0,0,-0.95654,-31.6499,-1.08611,25.983,1.47918,1.75316,0.151169,
0.0184274,-0.0236013,0.283786,-2.01008,0.213288,0.138118,0.00965454,0.0722465,-0.0220429,0.0744679,-0.0947431,0.00584383,0.196637,0.00618697,0,0,0,0,0,0,0,7.65815,-3.01955,7.87538,-8.45261,0.120339,2.75346,0.0610687,0.0174135,-0.023259,0.282735,-2.00866,0.213185,0.135841,0.00955621,0.0411781,0.000443669,0.0726821,-0.0398489,-0.000129442,-0.00904333,-0.000420541,0,0,0,0,0,0,0,-0.95654,-31.6499,-1.08611,25.983,1.47918,1.75316,0.151169,
0.0189722,-0.0237858,0.284349,-2.01081,0.213333,0.139711,0.00970218,0.0714162,-0.0222468,0.0736375,-0.0940516,0.00579873,0.197145,0.00614073,0,0,0,0,0,0,0,7.50853,-3.0296,7.72709,-8.21491,0.15139,2.72935,0.0588079,0.0186772,-0.0232882,0.285529,-2.01006,0.21313,0.135861,0.00955592,0.0298774,-0.00321234,0.0850895,-0.0363745,-0.000595568,0.000354061,-0.00121408,-1.41259,-0.457002,1.55092,0.434303,-0.0582657,1.17467,-0.0991931,0.539127,-31.1025,0.413527,24.9832,1.75384,1.57464,0.110886,
0.0195266,-0.0239697,0.284921,-2.01152,0.213398,0.141443,0.00974693,0.0709929,-0.0223959,0.0732222,-0.0928188,0.00626644,0.201028,0.00603122,0,0,0,0,0,0,0,7.35869,-3.00097,7.57659,-7.98844,0.185194,2.70073,0.0564963,0.0186772,-0.0232882,0.285529,-2.01006,0.21313,0.135861,0.00955592,0.0298774,-0.00321234,0.0850895,-0.0363745,-0.000595568,0.000354061,-0.00121408,0,0,0,0,0,0,0,0.539127,-31.1025,0.413527,24.9832,1.75384,1.57464,0.110886,
0.0200835,-0.0241549,0.285496,-2.01219,0.213496,0.14326,0.00978898,0.0707178,-0.0225472,0.072959,-0.0911159,0.00745754,0.206244,0.00587624,0,0,0,0,0,0,0,7.20839,-2.97346,7.42564,-7.7621,0.221894,2.67353,0.0540813,0.0186772,-0.0232882,0.285529,-2.01006,0.21313,0.135861,0.00955592,0.0298774,-0.00321234,0.0850895,-0.0363745,-0.000595568,0.000354061,-0.00121408,0,0,0,0,0,0,0,0.539127,-31.1025,0.413527,24.9832,1.75384,1.57464,0.110886,
0.0196855,-0.0236667,0.286576,-2.01143,0.213268,0.138208,0.00964958,0.0695887,-0.0230255,0.0718181,-0.0907169,0.00766594,0.19961,0.0058986,0,0,0,0,0,0,0,7.50853,-3.0296,7.72709,-8.21491,0.15139,2.72935,0.0588079,0.0186772,-0.0232882,0.285529,-2.01006,0.21313,0.135861,0.00955592,0.0298774,-0.00321234,0.0850895,-0.0363745,-0.000595568,0.000354061,-0.00121408,0,0,0,0,0,0,0,0.539127,-31.1025,0.413527,24.9832,1.75384,1.57464,0.110886,
0.0202239,-0.0238639,0.287132,-2.01213,0.213343,0.139817,0.00969502,0.0691301,-0.02335,0.0713604,-0.0901305,0.00801102,0.199912,0.0058547,0,0,0,0,0,0,0,7.35839,-3.03953,7.57789,-7.97922,0.18619,2.70679,0.0564665,0.0195325,-0.0232794,0.288325,-2.0114,0.21313,0.135859,0.00954793,0.0212518,-0.00053488,0.0812984,-0.0380248,-0.00256816,-0.000128284,0.000826896,-1.0782,0.334683,-0.473885,-0.206289,-0.246574,-0.0602931,0.255123,0.614505,-30.9041,0.461134,24.8602,1.74194,1.54809,0.110886,
0.0207703,-0.0240581,0.287697,-2.01281,0.213442,0.141558,0.0097376,0.0689638,-0.0235358,0.0712031,-0.0890304,0.00887957,0.203442,0.00574827,0,0,0,0,0,0,0,7.20808,-3.01203,7.42694,-7.75287,0.222891,2.67959,0.0540515,0.0195325,-0.0232794,0.288325,-2.0114,0.21313,0.135859,0.00954793,0.0212518,-0.00053488,0.0812984,-0.0380248,-0.00256816,-0.000128284,0.000826896,0,0,0,0,0,0,0,0.614505,-30.9041,0.461134,24.8602,1.74194,1.54809,0.110886,
0.0196855,-0.0236667,0.286576,-2.01143,0.213268,0.138208,0.00964958,0.0681856,-0.0238163,0.0704134,-0.0890485,0.00880356,0.197369,0.00579623,0,0,0,0,0,0,0,7.35839,-3.03953,7.57789,-7.97922,0.18619,2.70679,0.0564665,0.0195325,-0.0232794,0.288325,-2.0114,0.21313,0.135859,0.00954793,0.0212518,-0.00053488,0.0812984,-0.0380248,-0.00256816,-0.000128284,0.000826896,0,0,0,0,0,0,0,0.614505,-30.9041,0.461134,24.8602,1.74194,1.54809,0.110886,
0.0209756,-0.0238034,0.289826,-2.01344,0.213302,0.139754,0.00968359,0.0672814,-0.0236495,0.0695132,-0.0885281,0.00873416,0.19759,0.00573173,0,0,0,0,0,0,0,7.20808,-3.01203,7.42694,-7.75287,0.222891,2.67959,0.0540515,0.0195325,-0.0232794,0.288325,-2.0114,0.21313,0.135859,0.00954793,0.0212518,-0.00053488,0.0812984,-0.0380248,-0.00256816,-0.000128284,0.000826896,0,0,0,0,0,0,0,0.614505,-30.9041,0.461134,24.8602,1.74194,1.54809,0.110886,
0.0214967,-0.0239875,0.290365,-2.01411,0.2134,0.141474,0.00972438,0.066851,-0.023521,0.0690939,-0.0874398,0.00943789,0.201085,0.00560522,0,0,0,0,0,0,0,7.05712,-2.98593,7.27532,-7.52673,0.260564,2.6543,0.0515915,0.0195325,-0.0232794,0.288325,-2.0114,0.21313,0.135859,0.00954793,0.0212518,-0.00053488,0.0812984,-0.0380248,-0.00256816,-0.000128284,0.000826896,0,0,0,0,0,0,0,0.614505,-30.9041,0.461134,24.8602,1.74194,1.54809,0.110886,
0.022022,-0.0241734,0.290909,-2.01474,0.213538,0.143275,0.00976243,0.0666142,-0.023466,0.0688712,-0.0858611,0.0109961,0.205897,0.00543533,0,0,0,0,0,0,0,6.90543,-2.99698,7.12456,-7.2906,0.300042,2.63659,0.0490369,0.0204536,-0.0232605,0.291219,-2.01255,0.213101,0.135862,0.00954479,0.029527,0.00219562,0.0873187,-0.0321892,-0.00336956,-0.000678227,0.000161098,1.03441,0.341312,0.752534,0.72945,-0.100174,-0.0687429,-0.0832248,-0.0440639,-31.1263,-0.185533,25.5823,1.80877,1.5609,0.124619,
0.0214472,-0.0235962,0.292253,-2.01386,0.213299,0.138158,0.00962937,0.066039,-0.0233397,0.0682907,-0.0858403,0.0115174,0.198553,0.00543023,0,0,0,0,0,0,0,7.20789,-3.04751,7.42834,-7.74269,0.22429,2.68598,0.0540181,0.0204536,-0.0232605,0.291219,-2.01255,0.213101,0.135862,0.00954479,0.029527,0.00219562,0.0873187,-0.0321892,-0.00336956,-0.000678227,0.000161098,0,0,0,0,0,0,0,-0.0440639,-31.1263,-0.185533,25.5823,1.80877,1.5609,0.124619,
