xiao-wang007/linearmpc_panda/paper_data/panda_inverse_dynamics_controller_opt_time_to_start/3/trajectory.csv
Commanded Joint 0 Position,Commanded Joint 1 Position,Commanded Joint 2 Position,Commanded Joint 3 Position,Commanded Joint 4 Position,Commanded Joint 5 Position,Commanded Joint 6 Position,Commanded Joint 0 Velocity,Commanded Joint 1 Velocity,Commanded Joint 2 Velocity,Commanded Joint 3 Velocity,Commanded Joint 4 Velocity,Commanded Joint 5 Velocity,Commanded Joint 6 Velocity,Commanded Joint 0 Acceleration,Commanded Joint 1 Acceleration,Commanded Joint 2 Acceleration,Commanded Joint 3 Acceleration,Commanded Joint 4 Acceleration,Commanded Joint 5 Acceleration,Commanded Joint 6 Acceleration,Commanded Joint 0 Torque,Commanded Joint 1 Torque,Commanded Joint 2 Torque,Commanded Joint 3 Torque,Commanded Joint 4 Torque,Commanded Joint 5 Torque,Commanded Joint 6 Torque,Actual Joint 0 Position,Actual Joint 1 Position,Actual Joint 2 Position,Actual Joint 3 Position,Actual Joint 4 Position,Actual Joint 5 Position,Actual Joint 6 Position,Actual Joint 0 Velocity,Actual Joint 1 Velocity,Actual Joint 2 Velocity,Actual Joint 3 Velocity,Actual Joint 4 Velocity,Actual Joint 5 Velocity,Actual Joint 6 Velocity,Actual Joint 0 Acceleration,Actual Joint 1 Acceleration,Actual Joint 2 Acceleration,Actual Joint 3 Acceleration,Actual Joint 4 Acceleration,Actual Joint 5 Acceleration,Actual Joint 6 Acceleration,Actual Joint 0 Torque,Actual Joint 1 Torque,Actual Joint 2 Torque,Actual Joint 3 Torque,Actual Joint 4 Torque,Actual Joint 5 Torque,Actual Joint 6 Torque,
0.0423792,-0.0872483,-0.0573034,-1.82661,-0.0670596,0.215379,0.05521,-0.000229439,0.0193824,-0.000421765,-0.0343004,-0.00149095,0.0511409,-0.000348221,-0.143399,12.114,-0.263603,-21.4378,-0.931845,31.9631,-0.217638,0.0597235,21.6457,-0.0300964,-24.3352,-0.287429,1.90138,-0.0243527,0.0424277,-0.0877079,-0.0572308,-1.82367,-0.0670565,0.209877,0.0552435,0.00118326,-0.000555321,0.000559905,0.000540177,-0.0048104,-0.000379527,-0.00126395,0,0,0,0,0,0,0,0.0551182,-32.9234,0.0882092,27.6016,0.410763,3.32512,0.0376436,
0.0424353,-0.0877132,-0.0572221,-1.82366,-0.06709,0.20989,0.0552424,-0.00014738,0.0154889,-0.000295403,-0.0273991,-0.00130134,0.0410598,-0.000282033,0.0512869,-2.43342,0.0789765,4.31335,0.11851,-6.30069,0.0413677,0.0538352,22.0899,-0.0404851,-24.2511,-0.288272,1.65133,-0.0228445,0.0424304,-0.0875885,-0.0572276,-1.82376,-0.0670513,0.209876,0.0552462,0.00539916,0.00560811,0.000118364,-0.00158757,-0.00991029,-0.00117146,-0.00128751,0.526988,0.770428,-0.0551926,-0.265968,-0.637486,-0.0989918,-0.00294588,0.0313145,-32.0982,0.0366345,27.3001,0.367733,3.33153,0.0101778,
0.0424362,-0.0877132,-0.057221,-1.82366,-0.0670916,0.209897,0.0552423,-9.43255e-05,0.0123917,-0.00020843,-0.0218843,-0.0010809,0.0330058,-0.000227841,0.0331591,-1.93576,0.0543582,3.44675,0.137774,-5.03375,0.0338698,0.0465371,22.6616,-0.0523179,-24.143,-0.288366,1.30367,-0.0208779,0.0424304,-0.0875885,-0.0572276,-1.82376,-0.0670513,0.209876,0.0552462,0.00539916,0.00560811,0.000118364,-0.00158757,-0.00991029,-0.00117146,-0.00128751,0,0,0,0,0,0,0,0.0313145,-32.0982,0.0366345,27.3001,0.367733,3.33153,0.0101778,
0.0424368,-0.0877126,-0.0572202,-1.82366,-0.0670918,0.209903,0.0552422,-5.94599e-05,0.00992671,-0.000147276,-0.0174776,-0.00086973,0.0265652,-0.000183814,0.021791,-1.54063,0.0382207,2.75416,0.131979,-4.02543,0.0275171,0.0405258,23.1857,-0.0618218,-23.9752,-0.286972,0.918411,-0.0188787,0.0424304,-0.0875885,-0.0572276,-1.82376,-0.0670513,0.209876,0.0552462,0.00539916,0.00560811,0.000118364,-0.00158757,-0.00991029,-0.00117146,-0.00128751,0,0,0,0,0,0,0,0.0313145,-32.0982,0.0366345,27.3001,0.367733,3.33153,0.0101778,
0.0421878,-0.087485,-0.0574532,-1.82367,-0.0583187,0.206211,0.0552144,-0.000901385,0.00809563,-0.000996184,-0.0138688,0.0548954,-0.0027521,-0.000178287,-0.526203,-1.14443,-0.530567,2.25553,34.8532,-18.3233,0.00345462,0.500893,0.175851,0.502091,-0.247667,3.30549,-1.47129,-0.0013092,0.0424304,-0.0875885,-0.0572276,-1.82376,-0.0670513,0.209876,0.0552462,0.00539916,0.00560811,0.000118364,-0.00158757,-0.00991029,-0.00117146,-0.00128751,0,0,0,0,0,0,0,0.0313145,-32.0982,0.0366345,27.3001,0.367733,3.33153,0.0101778,
0.0421663,-0.0874804,-0.0574758,-1.82367,-0.0560271,0.205207,0.0552137,-0.00125838,0.00659083,-0.0013639,-0.0111189,0.101206,-0.0273127,-0.000160264,-0.223123,-0.940497,-0.229821,1.71865,28.9443,-15.3503,0.0112643,0.494038,0.172846,0.494623,-0.245162,3.27708,-1.45822,-0.0013271,0.0424304,-0.0875885,-0.0572276,-1.82376,-0.0670513,0.209876,0.0552462,0.00539916,0.00560811,0.000118364,-0.00158757,-0.00991029,-0.00117146,-0.00128751,0,0,0,0,0,0,0,0.0313145,-32.0982,0.0366345,27.3001,0.367733,3.33153,0.0101778,
0.0421563,-0.0874761,-0.057487,-1.82367,-0.0536992,0.204176,0.0552132,-0.0012578,0.00538031,-0.00137054,-0.00902659,0.139162,-0.0476374,-0.000139779,0.000363412,-0.756579,-0.00415161,1.30771,23.7221,-12.703,0.0128032,0.488693,0.192996,0.489553,-0.234721,3.24824,-1.43266,-0.00138184,0.042421,-0.0868903,-0.0572393,-1.82423,-0.0670228,0.208699,0.0552456,0.00172857,0.0508437,0.00371929,-0.0479303,-0.0063684,-0.0366775,3.32335e-05,-0.458824,5.65445,0.450116,-5.79284,0.442736,-4.43825,0.165093,0.182071,-23.3663,0.163588,18.6078,0.19653,1.70739,-0.0227812,
0.0421561,-0.0874713,-0.0574882,-1.82368,-0.0513552,0.203129,0.0552129,-0.00101098,0.00442374,-0.00112523,-0.0074357,0.169929,-0.0642722,-0.000121256,0.154265,-0.597855,0.153319,0.994303,19.2295,-10.3967,0.0115765,0.48318,0.190406,0.48384,-0.232452,3.21788,-1.41943,-0.00136271,0.042421,-0.0868903,-0.0572393,-1.82423,-0.0670228,0.208699,0.0552456,0.00172857,0.0508437,0.00371929,-0.0479303,-0.0063684,-0.0366775,3.32335e-05,0,0,0,0,0,0,0,0.182071,-23.3663,0.163588,18.6078,0.19653,1.70739,-0.0227812,
0.0419283,-0.0856579,-0.0576598,-1.82443,-0.0373561,0.190199,0.0551494,-0.0013884,0.00708671,-0.00137588,-0.00793901,0.327068,-0.16759,-0.000231317,-0.235892,1.66435,-0.156652,-0.314565,98.212,-64.5739,-0.0687882,3.78946,1.33171,3.87179,-1.66613,11.237,-6.97623,-0.00516798,0.042421,-0.0868903,-0.0572393,-1.82423,-0.0670228,0.208699,0.0552456,0.00172857,0.0508437,0.00371929,-0.0479303,-0.0063684,-0.0366775,3.32335e-05,0,0,0,0,0,0,0,0.182071,-23.3663,0.163588,18.6078,0.19653,1.70739,-0.0227812,
0.0419512,-0.0855326,-0.0576336,-1.82453,-0.029396,0.185392,0.0551451,-0.000537938,0.00880132,-0.000444967,-0.0087998,0.460657,-0.254249,-0.000292354,0.531542,1.07163,0.581818,-0.537996,83.4928,-54.1617,-0.0381481,3.67803,1.32168,3.75764,-1.64427,11.237,-6.88254,-0.00504903,0.042421,-0.0868903,-0.0572393,-1.82423,-0.0670228,0.208699,0.0552456,0.00172857,0.0508437,0.00371929,-0.0479303,-0.0063684,-0.0366775,3.32335e-05,0,0,0,0,0,0,0,0.182071,-23.3663,0.163588,18.6078,0.19653,1.70739,-0.0227812,
0.0420142,-0.0854155,-0.0575671,-1.82464,-0.0212253,0.180496,0.0551413,0.00114379,0.00996724,0.00130476,-0.00983188,0.572794,-0.325792,-0.000328973,1.05108,0.728699,1.09358,-0.645049,70.0858,-44.7143,-0.0228865,3.58133,1.31345,3.65535,-1.62648,11.2276,-6.78054,-0.00469922,0.042625,-0.0871839,-0.0567836,-1.82578,-0.0648232,0.207941,0.0552441,0.0137548,0.032115,0.0239688,-0.0402442,0.188434,-0.0897479,-0.0013537,1.50327,-2.34109,2.53119,0.960758,24.3503,-6.63381,-0.173367,3.32813,-31.3008,3.38899,21.2738,1.55883,1.85296,0.0577852,
0.0463736,-0.0882424,-0.0528273,-1.82794,-0.0363323,0.172131,0.0556454,0.0247418,-0.0022379,0.0260628,-0.0260055,0.643023,-0.48018,8.58933e-05,14.7488,-7.62821,15.4738,-10.1085,43.8932,-96.4922,0.259291,23.2831,0.587275,24.2429,-8.95845,11.2276,-14.3006,0.166298,0.042625,-0.0871839,-0.0567836,-1.82578,-0.0648232,0.207941,0.0552441,0.0137548,0.032115,0.0239688,-0.0402442,0.188434,-0.0897479,-0.0013537,0,0,0,0,0,0,0,3.32813,-31.3008,3.38899,21.2738,1.55883,1.85296,0.0577852,
0.0473676,-0.0886332,-0.0517842,-1.82873,-0.0285192,0.16337,0.0556509,0.0446439,-0.011559,0.0469265,-0.0405463,0.709745,-0.603181,0.000206808,12.4388,-5.82568,13.0398,-9.08799,41.701,-76.8756,0.0755714,21.7193,-2.94064,22.3917,-10.558,11.2276,-14.3006,0.183316,0.042625,-0.0871839,-0.0567836,-1.82578,-0.0648232,0.207941,0.0552441,0.0137548,0.032115,0.0239688,-0.0402442,0.188434,-0.0897479,-0.0013537,0,0,0,0,0,0,0,3.32813,-31.3008,3.38899,21.2738,1.55883,1.85296,0.0577852,
0.048389,-0.0889913,-0.0507135,-1.82957,-0.0204081,0.154826,0.0556536,0.0612503,-0.0181998,0.0643103,-0.0533251,0.770574,-0.696133,0.000233406,10.379,-4.15054,10.8648,-7.98672,38.018,-58.095,0.0166239,19.3613,-4.51248,19.9865,-11.4402,11.2276,-14.3006,0.100032,0.042625,-0.0871839,-0.0567836,-1.82578,-0.0648232,0.207941,0.0552441,0.0137548,0.032115,0.0239688,-0.0402442,0.188434,-0.0897479,-0.0013537,0,0,0,0,0,0,0,3.32813,-31.3008,3.38899,21.2738,1.55883,1.85296,0.0577852,
0.0494272,-0.0893118,-0.0496261,-1.83043,-0.0120873,0.146625,0.0556561,0.0749566,-0.0225744,0.0786332,-0.0643438,0.82448,-0.76194,0.000248842,8.56644,-2.73408,8.95186,-6.88669,33.6918,-41.1297,0.00964753,17.4736,-4.03184,18.128,-11.6141,11.107,-13.1599,0.0422974,0.0434766,-0.0862252,-0.0552244,-1.82701,-0.0473199,0.197276,0.0552505,0.0502121,0.0476148,0.108213,-0.0905838,1.03396,-0.702443,-0.00611497,4.55716,1.93748,10.5305,-6.29245,105.69,-76.5869,-0.595159,12.4569,-22.5411,12.4106,15.0967,3.70208,-2.98103,0.211594,
0.049546,-0.0854081,-0.0489149,-1.83202,-0.00723956,0.155025,0.0552036,0.0941661,-0.014256,0.0985927,-0.0813874,0.867329,-0.822512,-0.000298819,12.0059,5.19899,12.4746,-10.6522,26.7804,-37.8575,-0.342288,23.4627,3.22012,24.3169,-16.3803,11.107,-14.2544,-0.00814041,0.0434766,-0.0862252,-0.0552244,-1.82701,-0.0473199,0.197276,0.0552505,0.0502121,0.0476148,0.108213,-0.0905838,1.03396,-0.702443,-0.00611497,0,0,0,0,0,0,0,12.4569,-22.5411,12.4106,15.0967,3.70208,-2.98103,0.211594,
0.0509304,-0.0852289,-0.0474697,-1.83327,0.00121212,0.146997,0.0551849,0.109943,-0.00692694,0.115002,-0.0963548,0.905155,-0.858716,-0.000706689,9.86048,4.58065,10.2559,-9.35466,23.6413,-22.6277,-0.254919,22.0919,3.32203,22.9262,-15.9964,11.107,-14.2544,-0.0242418,0.0434766,-0.0862252,-0.0552244,-1.82701,-0.0473199,0.197276,0.0552505,0.0502121,0.0476148,0.108213,-0.0905838,1.03396,-0.702443,-0.00611497,0,0,0,0,0,0,0,12.4569,-22.5411,12.4106,15.0967,3.70208,-2.98103,0.211594,
0.052317,-0.0850213,-0.0460223,-1.83455,0.00977475,0.139532,0.0551679,0.122619,-0.000349373,0.128189,-0.10909,0.93819,-0.873587,-0.000990785,7.92237,4.11098,8.24164,-7.95968,20.6467,-9.29442,-0.17756,20.9663,3.29086,21.7814,-15.6924,11.107,-12.8734,-0.0308826,0.0434766,-0.0862252,-0.0552244,-1.82701,-0.0473199,0.197276,0.0552505,0.0502121,0.0476148,0.108213,-0.0905838,1.03396,-0.702443,-0.00611497,0,0,0,0,0,0,0,12.4569,-22.5411,12.4106,15.0967,3.70208,-2.98103,0.211594,
0.0536958,-0.0847873,-0.0445828,-1.83584,0.018419,0.132661,0.0551524,0.132564,0.00556832,0.138536,-0.119611,0.966658,-0.870649,-0.00117984,6.21595,3.69856,6.46739,-6.57519,17.7924,1.83671,-0.118157,20.0472,4.1598,20.865,-15.6844,11.0048,-11.0133,-0.030321,0.0469629,-0.0874315,-0.0502047,-1.83207,0.00246468,0.156511,0.0552318,0.266617,0.00144316,0.344159,-0.240643,1.66339,-1.4302,-0.000822361,27.0506,-5.77145,29.4932,-18.7574,78.6787,-90.9691,0.661577,22.3473,-29.5036,22.7097,25.6577,4.31915,0.871512,0.0101778,
0.0582333,-0.086714,-0.0385919,-1.84202,0.0554608,0.110279,0.0548512,0.157955,0.0089996,0.16446,-0.146584,1.0175,-0.881849,-0.00277616,15.8694,2.14455,16.2023,-16.8581,31.7794,-7.00012,-0.997704,25.0184,3.49266,25.8271,-23.8359,11.0048,-12.5474,-0.101735,0.0469629,-0.0874315,-0.0502047,-1.83207,0.00246468,0.156511,0.0552318,0.266617,0.00144316,0.344159,-0.240643,1.66339,-1.4302,-0.000822361,0,0,0,0,0,0,0,22.3473,-29.5036,22.7097,25.6577,4.31915,0.871512,0.0101778,
0.0602223,-0.0865264,-0.0365353,-1.84404,0.065021,0.103748,0.0547838,0.176089,0.0118882,0.182983,-0.167856,1.05301,-0.868739,-0.00390742,11.3335,1.80539,11.5768,-13.2952,22.1895,8.19348,-0.707036,23.8182,3.04138,24.5883,-23.5504,11.0048,-10.7781,-0.101823,0.0469629,-0.0874315,-0.0502047,-1.83207,0.00246468,0.156511,0.0552318,0.266617,0.00144316,0.344159,-0.240643,1.66339,-1.4302,-0.000822361,0,0,0,0,0,0,0,22.3473,-29.5036,22.7097,25.6577,4.31915,0.871512,0.0101778,
0.0621304,-0.0863385,-0.0345612,-1.84604,0.0744146,0.0980464,0.0547243,0.188575,0.0142074,0.195737,-0.184291,1.07725,-0.837536,-0.00461162,7.80381,1.44951,7.97132,-10.2717,15.1503,19.502,-0.440126,22.7811,2.65505,23.5184,-23.2738,11.0048,-9.25284,-0.0969521,0.0469629,-0.0874315,-0.0502047,-1.83207,0.00246468,0.156511,0.0552318,0.266617,0.00144316,0.344159,-0.240643,1.66339,-1.4302,-0.000822361,0,0,0,0,0,0,0,22.3473,-29.5036,22.7097,25.6577,4.31915,0.871512,0.0101778,
0.0639641,-0.0861545,-0.0326635,-1.84801,0.0836699,0.0931103,0.0546722,0.196701,0.0159676,0.204034,-0.196649,1.09318,-0.79343,-0.004994,5.07877,1.1001,5.18528,-7.72425,9.95683,27.5661,-0.238983,22.0303,1.47993,22.7889,-22.4436,10.8333,-7.74054,-0.0977253,0.0537794,-0.0876565,-0.0410725,-1.84437,0.0516653,0.114818,0.0552454,0.202247,0.0741234,0.264391,-0.378605,1.26827,-0.805363,0.00328172,-8.04628,9.08503,-9.97099,-17.2452,-49.3889,78.1041,0.51301,10.5049,-29.1307,10.2603,35.5957,4.09942,4.83025,-0.110672,
0.0626374,-0.0851154,-0.0319126,-1.85524,0.0973906,0.0873685,0.0549691,0.199499,0.0216699,0.206858,-0.207873,1.09645,-0.740286,-0.00506238,1.74879,3.56391,1.76513,-7.01452,2.04572,33.2152,-0.0427401,21.2336,1.2233,21.9653,-22.1672,10.8333,-6.56715,-0.0886613,0.0537794,-0.0876565,-0.0410725,-1.84437,0.0516653,0.114818,0.0552454,0.202247,0.0741234,0.264391,-0.378605,1.26827,-0.805363,0.00328172,0,0,0,0,0,0,0,10.5049,-29.1307,10.2603,35.5957,4.09942,4.83025,-0.110672,
0.0642765,-0.0848104,-0.0302149,-1.85721,0.106201,0.083757,0.0549336,0.200576,0.0249604,0.207929,-0.215395,1.09742,-0.682515,-0.00493728,0.673193,2.05659,0.669666,-4.70122,0.603762,36.1067,0.0781883,20.5161,1.02316,21.2226,-21.8861,10.8333,-5.53951,-0.0804596,0.0537794,-0.0876565,-0.0410725,-1.84437,0.0516653,0.114818,0.0552454,0.202247,0.0741234,0.264391,-0.378605,1.26827,-0.805363,0.00328172,0,0,0,0,0,0,0,10.5049,-29.1307,10.2603,35.5957,4.09942,4.83025,-0.110672,
0.0658701,-0.084547,-0.0285638,-1.85912,0.114956,0.08071,0.0549059,0.200301,0.026553,0.20762,-0.22,1.09681,-0.622188,-0.00464136,-0.1719,0.995368,-0.193435,-2.8784,-0.381235,37.7045,0.184949,19.8657,0.875583,20.5476,-21.6021,10.8333,-4.63265,-0.069759,0.0537794,-0.0876565,-0.0410725,-1.84437,0.0516653,0.114818,0.0552454,0.202247,0.0741234,0.264391,-0.378605,1.26827,-0.805363,0.00328172,0,0,0,0,0,0,0,10.5049,-29.1307,10.2603,35.5957,4.09942,4.83025,-0.110672,
0.0752825,-0.0854654,-0.0134923,-1.86641,0.140369,0.077007,0.0550267,0.205779,0.0254607,0.213398,-0.220173,1.10773,-0.545863,-0.00426794,3.42388,-0.682707,3.61156,-0.108343,6.82375,47.703,0.233391,18.8636,0.41714,19.5606,-20.3678,10.765,-2.7754,-0.0523446,0.064237,-0.0865546,-0.0250202,-1.857,0.0952409,0.0905136,0.0552685,0.317395,0.0131713,0.501656,-0.306874,0.905355,-0.414979,0.000904438,14.3935,-7.61901,29.6581,8.96643,-45.365,48.7981,-0.29716,2.26093,-34.6452,3.26204,39.1345,0.795284,6.07628,-0.0227812,
0.0769896,-0.0853194,-0.0117195,-1.86813,0.149483,0.075449,0.0550134,0.207302,0.0240195,0.215039,-0.219211,1.11402,-0.47564,-0.00374758,0.951653,-0.900716,1.02566,0.601367,3.93283,43.8895,0.325224,18.3331,0.370006,19.0076,-20.0726,10.765,-2.17336,-0.0428466,0.064237,-0.0865546,-0.0250202,-1.857,0.0952409,0.0905136,0.0552685,0.317395,0.0131713,0.501656,-0.306874,0.905355,-0.414979,0.000904438,0,0,0,0,0,0,0,2.26093,-34.6452,3.26204,39.1345,0.795284,6.07628,-0.0227812,
0.0786023,-0.0851929,-0.0100447,-1.86981,0.158486,0.0742295,0.0550082,0.20616,0.0223778,0.213901,-0.21739,1.11629,-0.411,-0.00312824,-0.714013,-1.02607,-0.711721,1.13832,1.41975,40.4003,0.387087,17.8308,0.342801,18.4833,-19.7768,10.765,-1.64343,-0.0325915,0.064237,-0.0865546,-0.0250202,-1.857,0.0952409,0.0905136,0.0552685,0.317395,0.0131713,0.501656,-0.306874,0.905355,-0.414979,0.000904438,0,0,0,0,0,0,0,2.26093,-34.6452,3.26204,39.1345,0.795284,6.07628,-0.0227812,
0.0801352,-0.0850833,-0.00845268,-1.87145,0.167379,0.0733178,0.0550099,0.203248,0.0206423,0.210921,-0.214924,1.11537,-0.351593,-0.00245913,-1.81945,-1.08466,-1.86215,1.54141,-0.574145,37.129,0.418189,17.3492,0.326424,17.9801,-19.4794,10.765,-1.18778,-0.0235918,0.064237,-0.0865546,-0.0250202,-1.857,0.0952409,0.0905136,0.0552685,0.317395,0.0131713,0.501656,-0.306874,0.905355,-0.414979,0.000904438,0,0,0,0,0,0,0,2.26093,-34.6452,3.26204,39.1345,0.795284,6.07628,-0.0227812,
0.0748986,-0.0853561,-0.0138954,-1.86627,0.140729,0.0808274,0.0551584,0.205543,0.0213519,0.213315,-0.214354,1.12392,-0.307666,-0.00191754,1.43435,0.443479,1.49605,0.355814,5.34505,27.4546,0.338495,16.7087,-0.141024,17.356,-19.181,10.5656,-0.950538,-0.0142475,0.0710113,-0.0823459,-0.0116676,-1.86522,0.11004,0.0902441,0.0553002,0.145329,0.0702516,0.363474,-0.153389,0.537292,0.0877262,-0.00337348,-21.5083,7.13504,-17.2727,19.1856,-46.0078,62.8381,-0.53474,-9.40289,-43.7065,-10.0125,44.9387,2.13836,8.3706,0.0980684,
0.076496,-0.0851905,-0.0122379,-1.86792,0.149883,0.0801037,0.0551682,0.204368,0.021221,0.21209,-0.212528,1.12799,-0.264227,-0.00128923,-0.734464,-0.0817867,-0.765422,1.14165,2.54123,27.1495,0.392697,16.2631,-0.146831,16.8899,-18.8844,10.5656,-0.604869,-0.00603974,0.0710113,-0.0823459,-0.0116676,-1.86522,0.11004,0.0902441,0.0553002,0.145329,0.0702516,0.363474,-0.153389,0.537292,0.0877262,-0.00337348,0,0,0,0,0,0,0,-9.40289,-43.7065,-10.0125,44.9387,2.13836,8.3706,0.0980684,
0.0779949,-0.0850502,-0.0106826,-1.86951,0.158915,0.0796715,0.055185,0.200968,0.0204851,0.208554,-0.209847,1.1282,-0.222185,-0.000610387,-2.12513,-0.459998,-2.20982,1.67526,0.128804,26.2758,0.424275,15.8337,-0.151097,16.4405,-18.5899,10.5656,-0.296219,0.00224199,0.0710113,-0.0823459,-0.0116676,-1.86522,0.11004,0.0902441,0.0553002,0.145329,0.0702516,0.363474,-0.153389,0.537292,0.0877262,-0.00337348,0,0,0,0,0,0,0,-9.40289,-43.7065,-10.0125,44.9387,2.13836,8.3706,0.0980684,
0.0794115,-0.0849321,-0.00921267,-1.87106,0.167829,0.0794966,0.0552083,0.196189,0.0193393,0.203592,-0.206607,1.1254,-0.18212,9.26446e-05,-2.98707,-0.716073,-3.10176,2.02532,-1.74845,25.0407,0.439395,15.417,-0.158393,16.0042,-18.2971,10.5656,-0.028742,0.00962943,0.0710113,-0.0823459,-0.0116676,-1.86522,0.11004,0.0902441,0.0553002,0.145329,0.0702516,0.363474,-0.153389,0.537292,0.0877262,-0.00337348,0,0,0,0,0,0,0,-9.40289,-43.7065,-10.0125,44.9387,2.13836,8.3706,0.0980684,
0.0780901,-0.0813277,-0.00423084,-1.87277,0.147417,0.092682,0.0553398,0.187798,0.018379,0.194979,-0.202161,1.10676,-0.13398,0.000805444,-5.244,-0.600187,-5.38302,2.77874,-11.6521,30.0874,0.445499,15.0138,-0.16755,15.5818,-18.008,10.5656,0.215124,0.0170022,0.0710113,-0.0823459,-0.0116676,-1.86522,0.11004,0.0902441,0.0553002,0.145329,0.0702516,0.363474,-0.153389,0.537292,0.0877262,-0.00337348,0,0,0,0,0,0,0,-9.40289,-43.7065,-10.0125,44.9387,2.13836,8.3706,0.0980684,
0.079276,-0.0812331,-0.00299795,-1.87422,0.155766,0.0932304,0.0553754,0.179885,0.0170676,0.186805,-0.197929,1.09413,-0.0934746,0.00153322,-4.94604,-0.819638,-5.10832,2.64498,-7.88855,25.3162,0.454862,14.609,-0.0890028,15.1975,-17.7527,10.49,0.441571,0.0238426,0.0774564,-0.0781567,0.00439942,-1.86902,0.128031,0.0941424,0.0553224,0.113299,0.0727606,0.353319,-0.0447478,0.644367,0.00150242,-0.00027829,-4.00374,0.313616,-1.26937,13.5801,13.3843,-10.778,0.386899,-12.1919,-49.9193,-12.012,38.0634,-2.98584,7.33605,0.00376909,
0.0804214,-0.0811548,-0.00180968,-1.87564,0.164159,0.0938768,0.0554166,0.172544,0.0156125,0.179151,-0.193889,1.08512,-0.0586215,0.00225636,-4.58788,-0.909419,-4.78406,2.52488,-5.63215,21.7831,0.451963,14.2261,-0.10414,14.7959,-17.4737,10.49,0.643357,0.0305858,0.0774564,-0.0781567,0.00439942,-1.86902,0.128031,0.0941424,0.0553224,0.113299,0.0727606,0.353319,-0.0447478,0.644367,0.00150242,-0.00027829,0,0,0,0,0,0,0,-12.1919,-49.9193,-12.012,38.0634,-2.98584,7.33605,0.00376909,
0.0839685,-0.0777602,0.0112293,-1.87564,0.166911,0.0986364,0.0554633,0.166141,0.0135725,0.172538,-0.18881,1.07714,-0.0222746,0.00286756,-4.00218,-1.27505,-4.13282,3.17422,-4.98767,22.7168,0.381995,13.4699,-0.133881,14.0021,-16.9379,10.49,1.00453,0.0446596,0.0774564,-0.0781567,0.00439942,-1.86902,0.128031,0.0941424,0.0553224,0.113299,0.0727606,0.353319,-0.0447478,0.644367,0.00150242,-0.00027829,0,0,0,0,0,0,0,-12.1919,-49.9193,-12.012,38.0634,-2.98584,7.33605,0.00376909,
0.0850374,-0.0777152,0.0123442,-1.87697,0.175327,0.0996799,0.055507,0.159634,0.0119832,0.165904,-0.18416,1.07212,0.0082697,0.00338703,-4.06659,-0.993289,-4.14641,2.90621,-3.1402,19.0902,0.324671,13.0686,-0.139783,13.5793,-16.6843,10.49,1.16644,0.05068,0.0774564,-0.0781567,0.00439942,-1.86902,0.128031,0.0941424,0.0553224,0.113299,0.0727606,0.353319,-0.0447478,0.644367,0.00150242,-0.00027829,0,0,0,0,0,0,0,-12.1919,-49.9193,-12.012,38.0634,-2.98584,7.33605,0.00376909,
0.0860595,-0.0776659,0.0134124,-1.87827,0.183759,0.100787,0.0555513,0.153259,0.0108188,0.159428,-0.1798,1.06849,0.0342916,0.00381635,-3.9845,-0.727756,-4.04747,2.72535,-2.26428,16.2637,0.268327,12.6803,-0.194606,13.172,-16.553,10.3683,1.23947,0.0573304,0.0798099,-0.0769952,0.0120015,-1.87075,0.155373,0.0955266,0.0553211,0.0141207,-0.0980852,0.150622,0.0540126,0.622848,0.155993,0.00127656,-12.3973,-21.3557,-25.3371,12.345,-2.68987,19.3113,0.194356,-11.7357,-35.4427,-12.9086,22.9678,-0.242924,1.56823,0.0303194,
0.0870556,-0.0776133,0.0144514,-1.87953,0.191955,0.101954,0.0555984,0.14751,0.00997027,0.153516,-0.175437,1.05971,0.0566091,0.00423237,-3.59269,-0.53032,-3.69496,2.72649,-5.49088,13.9484,0.260009,12.2434,-0.167238,12.6865,-16.3179,10.3683,1.38327,0.0611403,0.0798099,-0.0769952,0.0120015,-1.87075,0.155373,0.0955266,0.0553211,0.0141207,-0.0980852,0.150622,0.0540126,0.622848,0.155993,0.00127656,0,0,0,0,0,0,0,-11.7357,-35.4427,-12.9086,22.9678,-0.242924,1.56823,0.0303194,
0.0832972,-0.079836,0.0156851,-1.87485,0.190717,0.105725,0.0555567,0.137199,0.000165718,0.14282,-0.164676,1.02748,0.0928388,0.0046816,-6.44437,-6.12785,-6.68537,6.72602,-20.1428,22.6435,0.28077,11.7617,-0.0942639,12.2171,-16.0712,10.3683,1.51256,0.0617001,0.0798099,-0.0769952,0.0120015,-1.87075,0.155373,0.0955266,0.0553211,0.0141207,-0.0980852,0.150622,0.0540126,0.622848,0.155993,0.00127656,0,0,0,0,0,0,0,-11.7357,-35.4427,-12.9086,22.9678,-0.242924,1.56823,0.0303194,
0.0841008,-0.080074,0.0165203,-1.87584,0.197426,0.107552,0.0556081,0.129849,-0.00581633,0.135135,-0.156429,0.989713,0.119952,0.00503011,-4.5939,-3.73878,-4.80321,5.15389,-23.6051,16.946,0.217822,11.2912,0.0269454,11.7819,-15.7916,10.3683,1.6147,0.0616397,0.0798099,-0.0769952,0.0120015,-1.87075,0.155373,0.0955266,0.0553211,0.0141207,-0.0980852,0.150622,0.0540126,0.622848,0.155993,0.00127656,0,0,0,0,0,0,0,-11.7357,-35.4427,-12.9086,22.9678,-0.242924,1.56823,0.0303194,
0.0849312,-0.0802569,0.017382,-1.87683,0.20357,0.109316,0.0556583,0.124641,-0.00922735,0.12965,-0.150022,0.945369,0.140068,0.00527938,-3.25492,-2.13188,-3.42789,4.00493,-27.7148,12.5722,0.155789,10.8579,0.130095,11.3757,-15.5275,10.3171,1.65042,0.0617078,0.0807908,-0.0771388,0.0186134,-1.87032,0.169331,0.104923,0.0553219,0.00894533,-0.0730883,0.124284,-0.000734129,0.33278,0.304274,-9.36692e-05,-0.646919,3.12461,-3.29222,-6.84334,-36.2585,18.5351,-0.171278,-4.70959,-24.4612,-4.33531,18.6832,0.532528,1.12328,0.0239107,
0.0857798,-0.080399,0.0182616,-1.87783,0.209114,0.111026,0.055708,0.120926,-0.0109323,0.12571,-0.144947,0.894886,0.154788,0.0054659,-2.32193,-1.06561,-2.4622,3.17193,-31.552,9.19996,0.116579,10.4814,0.238698,10.9944,-15.2256,9.52007,1.72259,0.0623134,0.0807908,-0.0771388,0.0186134,-1.87032,0.169331,0.104923,0.0553219,0.00894533,-0.0730883,0.124284,-0.000734129,0.33278,0.304274,-9.36692e-05,0,0,0,0,0,0,0,-4.70959,-24.4612,-4.33531,18.6832,0.532528,1.12328,0.0239107,
0.0837246,-0.079105,0.0217284,-1.87438,0.191885,0.116614,0.0555546,0.113778,-0.0142407,0.118304,-0.138781,0.823464,0.174048,0.00563749,-4.46795,-2.06772,-4.62871,3.85316,-44.6389,12.0379,0.107242,10.1397,0.31532,10.6398,-14.9327,8.34471,1.77884,0.0613576,0.0807908,-0.0771388,0.0186134,-1.87032,0.169331,0.104923,0.0553219,0.00894533,-0.0730883,0.124284,-0.000734129,0.33278,0.304274,-9.36692e-05,0,0,0,0,0,0,0,-4.70959,-24.4612,-4.33531,18.6832,0.532528,1.12328,0.0239107,
0.0844405,-0.0792746,0.0224721,-1.87531,0.195796,0.118506,0.0556057,0.10892,-0.015633,0.113236,-0.134187,0.756545,0.186519,0.00578641,-3.0358,-0.870183,-3.16789,2.87161,-41.8242,7.79409,0.0930741,9.84277,0.363832,10.3266,-14.6476,7.2998,1.80772,0.0601253,0.0807908,-0.0771388,0.0186134,-1.87032,0.169331,0.104923,0.0553219,0.00894533,-0.0730883,0.124284,-0.000734129,0.33278,0.304274,-9.36692e-05,0,0,0,0,0,0,0,-4.70959,-24.4612,-4.33531,18.6832,0.532528,1.12328,0.0239107,
0.0851817,-0.0794062,0.023241,-1.87624,0.19929,0.120301,0.0556569,0.105665,-0.015797,0.109813,-0.1307,0.692589,0.194095,0.00590961,-2.03427,-0.102533,-2.13952,2.17903,-39.9726,4.73501,0.0770036,9.59213,0.386937,10.0693,-14.4418,6.33644,1.76328,0.0593822,0.0805622,-0.0791084,0.0203744,-1.8716,0.179375,0.11783,0.0553051,0.00363631,-0.104112,0.0446605,0.0303231,0.178038,0.311632,0.000374677,-0.663627,-3.87796,-9.95299,3.88216,-19.3427,0.919727,0.0585432,5.96637,-30.8009,5.46388,22.1188,1.38122,1.48858,0.0101778,
0.0827349,-0.0817525,0.0226613,-1.87478,0.191173,0.130191,0.0555635,0.09887,-0.0202561,0.102738,-0.124061,0.608363,0.208058,0.00609075,-4.24715,-2.7869,-4.42194,4.14935,-52.6408,8.72719,0.11321,9.22992,0.398798,9.6725,-13.8935,4.72731,1.78389,0.059021,0.0805622,-0.0791084,0.0203744,-1.8716,0.179375,0.11783,0.0553051,0.00363631,-0.104112,0.0446605,0.0303231,0.178038,0.311632,0.000374677,0,0,0,0,0,0,0,5.96637,-30.8009,5.46388,22.1188,1.38122,1.48858,0.0101778,
0.0833503,-0.0819908,0.0232995,-1.87558,0.193106,0.132154,0.0556183,0.0944815,-0.0221635,0.098145,-0.119454,0.535019,0.215529,0.0062419,-2.7428,-1.19214,-2.87032,2.87967,-45.8405,4.66914,0.0944709,9.09439,0.386796,9.52057,-13.6239,4.03812,1.78529,0.0597836,0.0805622,-0.0791084,0.0203744,-1.8716,0.179375,0.11783,0.0553051,0.00363631,-0.104112,0.0446605,0.0303231,0.178038,0.311632,0.000374677,0,0,0,0,0,0,0,5.96637,-30.8009,5.46388,22.1188,1.38122,1.48858,0.0101778,
0.0839962,-0.082178,0.0239688,-1.87641,0.194794,0.133991,0.055673,0.0917313,-0.0224113,0.0952488,-0.116252,0.470208,0.218349,0.00636102,-1.71886,-0.154861,-1.81011,2.00095,-40.5065,1.76251,0.0744473,8.97736,0.366007,9.38747,-13.3582,3.42954,1.78686,0.0604366,0.0805622,-0.0791084,0.0203744,-1.8716,0.179375,0.11783,0.0553051,0.00363631,-0.104112,0.0446605,0.0303231,0.178038,0.311632,0.000374677,0,0,0,0,0,0,0,5.96637,-30.8009,5.46388,22.1188,1.38122,1.48858,0.0101778,
0.084663,-0.0823256,0.0246596,-1.87725,0.196242,0.13572,0.0557278,0.0900553,-0.0216185,0.0934688,-0.113995,0.412367,0.217894,0.00645783,-1.04755,0.495502,-1.1125,1.41098,-36.1505,-0.284217,0.0605078,8.8286,0.401162,9.22765,-13.1837,2.88201,1.70592,0.0623063,0.0816338,-0.0791151,0.0229131,-1.87094,0.175082,0.129159,0.0552956,0.00880264,-0.0167413,0.0849391,0.025426,-0.270739,0.377684,0.000349858,0.645791,10.9213,5.03481,-0.612134,-56.0971,8.25659,-0.00310231,1.17389,-27.6311,0.588087,16.1679,0.111386,0.09606,0.00376909,
0.0837796,-0.0802602,0.0251996,-1.87445,0.176147,0.141635,0.0555393,0.0850142,-0.0208284,0.0882803,-0.111286,0.345524,0.223501,0.00654634,-3.15066,0.493778,-3.24282,1.69305,-41.7769,3.50394,0.0553186,8.73048,0.368496,9.11461,-12.9236,2.40632,1.70084,0.0631811,0.0816338,-0.0791151,0.0229131,-1.87094,0.175082,0.129159,0.0552956,0.00880264,-0.0167413,0.0849391,0.025426,-0.270739,0.377684,0.000349858,0,0,0,0,0,0,0,1.17389,-27.6311,0.588087,16.1679,0.111386,0.09606,0.00376909,
0.0843325,-0.0803707,0.0257738,-1.87527,0.176742,0.143435,0.0555947,0.0818336,-0.0194252,0.0849785,-0.109406,0.291312,0.223801,0.00662414,-1.98784,0.876993,-2.0636,1.17522,-33.883,0.187698,0.0486224,8.63549,0.332493,9.00541,-12.6654,1.98458,1.69005,0.0643218,0.0816338,-0.0791151,0.0229131,-1.87094,0.175082,0.129159,0.0552956,0.00880264,-0.0167413,0.0849391,0.025426,-0.270739,0.377684,0.000349858,0,0,0,0,0,0,0,1.17389,-27.6311,0.588087,16.1679,0.111386,0.09606,0.00376909,
0.0849113,-0.0804569,0.026374,-1.87609,0.177278,0.145102,0.0556499,0.0799387,-0.0176948,0.0829887,-0.108044,0.246434,0.220706,0.00667907,-1.18437,1.08154,-1.24368,0.851211,-28.0486,-1.93416,0.0343338,8.54012,0.294939,8.89616,-12.4099,1.6227,1.67978,0.0650561,0.0816338,-0.0791151,0.0229131,-1.87094,0.175082,0.129159,0.0552956,0.00880264,-0.0167413,0.0849391,0.025426,-0.270739,0.377684,0.000349858,0,0,0,0,0,0,0,1.17389,-27.6311,0.588087,16.1679,0.111386,0.09606,0.00376909,
0.0827994,-0.0790643,0.0257458,-1.8757,0.156834,0.146525,0.0555576,0.0736099,-0.0127495,0.0764678,-0.108463,0.188355,0.213671,0.00675931,-3.95547,3.09077,-4.07553,-0.261886,-36.299,-4.39692,0.0501512,8.37235,0.20741,8.70266,-11.9164,1.11193,1.60786,0.0662903,0.0816303,-0.0795438,0.0244797,-1.87139,0.161742,0.13795,0.0552853,-0.0272433,0.0686796,0.0227572,0.0015834,-0.415045,0.167295,0.00155874,-4.50575,10.6776,-7.77274,-2.98033,-18.0383,-26.2987,0.15111,1.78089,-25.3618,1.21095,14.9976,0.166317,0.606009,0.017502,
0.0832348,-0.0790148,0.0261982,-1.87656,0.156595,0.147924,0.0556132,0.069773,-0.00896155,0.0724864,-0.108371,0.144698,0.205913,0.00679777,-2.39809,2.36749,-2.48841,0.0572904,-27.2857,-4.84868,0.0240373,8.26716,0.171672,8.58512,-11.6655,0.881462,1.59035,0.0666918,0.0816303,-0.0795438,0.0244797,-1.87139,0.161742,0.13795,0.0552853,-0.0272433,0.0686796,0.0227572,0.0015834,-0.415045,0.167295,0.00155874,0,0,0,0,0,0,0,1.78089,-25.3618,1.21095,14.9976,0.166317,0.606009,0.017502,
0.0837076,-0.078971,0.0266884,-1.87741,0.15643,0.149254,0.0556675,0.0676366,-0.00607287,0.0702435,-0.107858,0.111622,0.19799,0.00679547,-1.33523,1.80542,-1.40178,0.320513,-20.6728,-4.95209,-0.00143657,8.15691,0.138221,8.46287,-11.416,0.690912,1.57381,0.0666752,0.0816303,-0.0795438,0.0244797,-1.87139,0.161742,0.13795,0.0552853,-0.0272433,0.0686796,0.0227572,0.0015834,-0.415045,0.167295,0.00155874,0,0,0,0,0,0,0,1.78089,-25.3618,1.21095,14.9976,0.166317,0.606009,0.017502,
0.0842078,-0.0789318,0.0272064,-1.87824,0.156314,0.150528,0.0557204,0.0666146,-0.00387954,0.0691434,-0.106999,0.0863984,0.190234,0.00675998,-0.638731,1.37083,-0.687546,0.537076,-15.7646,-4.84737,-0.0221833,8.04193,0.107355,8.33643,-11.1672,0.529582,1.55473,0.066612,0.0816303,-0.0795438,0.0244797,-1.87139,0.161742,0.13795,0.0552853,-0.0272433,0.0686796,0.0227572,0.0015834,-0.415045,0.167295,0.00155874,0,0,0,0,0,0,0,1.78089,-25.3618,1.21095,14.9976,0.166317,0.606009,0.017502,
0.0827518,-0.0790402,0.0256829,-1.87535,0.155481,0.146142,0.05555,0.0623161,-0.00170625,0.0647037,-0.105806,0.0537229,0.187318,0.00673569,-2.68658,1.3583,-2.77485,0.745387,-20.4222,-1.82241,-0.0151838,7.95181,0.157616,8.23292,-10.9844,0.482903,1.50685,0.0659387,0.0815292,-0.0793884,0.0258128,-1.87315,0.142337,0.140928,0.0552768,0.00365701,0.0520052,0.0143961,-0.0788337,-0.682894,0.0306318,0.000700685,3.86254,-2.08429,-1.04513,-10.0521,-33.4811,-17.0829,-0.107257,-8.13336,-20.3948,-7.58452,13.7003,-0.285953,0.533682,0.050461,
0.0831552,-0.0789917,0.0261014,-1.87615,0.155015,0.147463,0.0556015,0.0599393,-0.000152373,0.0622246,-0.104416,0.0313264,0.182895,0.00667596,-1.48547,0.971175,-1.54945,0.868818,-13.9978,-2.76462,-0.0373292,7.82734,0.132727,8.09793,-10.7371,0.37575,1.48704,0.0654218,0.0815292,-0.0793884,0.0258128,-1.87315,0.142337,0.140928,0.0552768,0.00365701,0.0520052,0.0143961,-0.0788337,-0.682894,0.0306318,0.000700685,0,0,0,0,0,0,0,-8.13336,-20.3948,-7.58452,13.7003,-0.285953,0.533682,0.050461,
0.0835907,-0.078949,0.0265522,-1.87692,0.154662,0.148718,0.0556512,0.0588382,0.000944458,0.0610513,-0.102855,0.0162486,0.177682,0.00658345,-0.688227,0.685519,-0.733297,0.976025,-9.42358,-3.25817,-0.0578215,7.69844,0.110942,7.95896,-10.4906,0.293,1.46837,0.0645706,0.0815292,-0.0793884,0.0258128,-1.87315,0.142337,0.140928,0.0552768,0.00365701,0.0520052,0.0143961,-0.0788337,-0.682894,0.0306318,0.000700685,0,0,0,0,0,0,0,-8.13336,-20.3948,-7.58452,13.7003,-0.285953,0.533682,0.050461,
0.0840495,-0.078911,0.0270267,-1.87767,0.154398,0.149918,0.0556992,0.0585398,0.00170593,0.0607029,-0.101147,0.00639478,0.172142,0.00646492,-0.186497,0.475917,-0.217716,1.0675,-6.15866,-3.46222,-0.074078,7.5659,0.0920248,7.81687,-10.2443,0.227266,1.44846,0.0636307,0.0815292,-0.0793884,0.0258128,-1.87315,0.142337,0.140928,0.0552768,0.00365701,0.0520052,0.0143961,-0.0788337,-0.682894,0.0306318,0.000700685,0,0,0,0,0,0,0,-8.13336,-20.3948,-7.58452,13.7003,-0.285953,0.533682,0.050461,
0.0824861,-0.0784406,0.0268611,-1.87762,0.132293,0.145345,0.0555068,0.0543741,0.00489458,0.056445,-0.101556,-0.0175103,0.161684,0.00635405,-2.60355,1.99291,-2.66123,-0.255922,-14.9407,-6.53626,-0.0692937,7.42982,0.0758708,7.67175,-9.99853,0.179925,1.42966,0.0624055,0.0815292,-0.0793884,0.0258128,-1.87315,0.142337,0.140928,0.0552768,0.00365701,0.0520052,0.0143961,-0.0788337,-0.682894,0.0306318,0.000700685,0,0,0,0,0,0,0,-8.13336,-20.3948,-7.58452,13.7003,-0.285953,0.533682,0.050461,
0.0828284,-0.0783185,0.0272169,-1.8784,0.131642,0.146312,0.0555524,0.0520564,0.00696935,0.054051,-0.100975,-0.0302736,0.153511,0.00622354,-1.44855,1.29673,-1.49626,0.363237,-7.97704,-5.10821,-0.0815661,7.2858,0.00466556,7.51476,-9.68399,0.218068,1.43009,0.0609973,0.0816788,-0.0787227,0.0273284,-1.87578,0.125394,0.14069,0.0552746,0.0136038,0.00932449,0.0320282,-0.0849457,-0.449895,-0.0318015,0.00830031,1.24335,-5.33509,2.20402,-0.764004,29.1249,-7.80416,0.949953,-3.95184,-29.9281,-3.91081,27.55,0.971981,4.03466,-0.0026396,
0.0832024,-0.0782133,0.0276046,-1.87916,0.131182,0.147281,0.055596,0.050997,0.00820538,0.0529334,-0.0996816,-0.035733,0.147038,0.00607061,-0.662152,0.772519,-0.69845,0.808331,-3.41214,-4.04605,-0.0955839,7.14434,-0.0069743,7.36533,-9.43863,0.196433,1.41148,0.0594675,0.0816788,-0.0787227,0.0273284,-1.87578,0.125394,0.14069,0.0552746,0.0136038,0.00932449,0.0320282,-0.0849457,-0.449895,-0.0318015,0.00830031,0,0,0,0,0,0,0,-3.95184,-29.9281,-3.91081,27.55,0.971981,4.03466,-0.0026396,
0.0830338,-0.0784039,0.0287622,-1.87968,0.119,0.143796,0.0554839,0.0493569,0.00836129,0.0512337,-0.0976677,-0.0413706,0.138478,0.00585929,-1.02506,0.0974421,-1.06237,1.25866,-3.52352,-5.34983,-0.132075,6.85568,-0.0255871,7.06247,-8.94818,0.179303,1.37404,0.0560955,0.0816788,-0.0787227,0.0273284,-1.87578,0.125394,0.14069,0.0552746,0.0136038,0.00932449,0.0320282,-0.0849457,-0.449895,-0.0318015,0.00830031,0,0,0,0,0,0,0,-3.95184,-29.9281,-3.91081,27.55,0.971981,4.03466,-0.0026396,
0.0834002,-0.0783366,0.0291418,-1.88036,0.118672,0.144667,0.0555221,0.0486463,0.00837187,0.0504768,-0.095283,-0.0412747,0.132549,0.00564214,-0.444118,0.00661433,-0.473014,1.49047,0.0599818,-3.70546,-0.135718,6.70916,-0.0333419,6.90969,-8.70303,0.180668,1.35537,0.0542663,0.0816788,-0.0787227,0.0273284,-1.87578,0.125394,0.14069,0.0552746,0.0136038,0.00932449,0.0320282,-0.0849457,-0.449895,-0.0318015,0.00830031,0,0,0,0,0,0,0,-3.95184,-29.9281,-3.91081,27.55,0.971981,4.03466,-0.0026396,
0.0837845,-0.0782752,0.0295394,-1.88102,0.118485,0.145559,0.0555583,0.048524,0.00823252,0.0503219,-0.0926563,-0.037705,0.128338,0.00541753,-0.0764255,-0.0870927,-0.0968561,1.64163,2.23105,-2.63177,-0.140381,6.54759,-0.0259678,6.73738,-8.40337,0.232188,1.36421,0.0522732,0.0820457,-0.0766678,0.0290287,-1.87707,0.114129,0.140275,0.0552737,0.00137922,0.0674318,0.0212821,-0.0391053,-0.255922,-0.04176,-0.00114178,-1.52808,7.26341,-1.34327,5.73005,24.2466,-1.2448,-1.18026,-2.55536,-30.6026,-2.58574,27.7484,0.129696,2.95342,0.0641939,
0.0841812,-0.0782201,0.0299496,-1.88165,0.118406,0.146461,0.0555924,0.0487364,0.0079635,0.050513,-0.0898799,-0.0321363,0.125229,0.00518745,0.132722,-0.168142,0.119452,1.73526,3.4804,-1.94345,-0.143804,6.39904,-0.0330709,6.58368,-8.15823,0.242526,1.34588,0.0502842,0.0820457,-0.0766678,0.0290287,-1.87707,0.114129,0.140275,0.0552737,0.00137922,0.0674318,0.0212821,-0.0391053,-0.255922,-0.04176,-0.00114178,0,0,0,0,0,0,0,-2.55536,-30.6026,-2.58574,27.7484,0.129696,2.95342,0.0641939,
0.0832518,-0.0757259,0.0302938,-1.88062,0.110419,0.143521,0.0554555,0.0469266,0.00948631,0.0486397,-0.0883004,-0.0324462,0.120126,0.00498311,-1.13113,0.951755,-1.17078,0.987224,-0.193638,-3.18924,-0.127711,6.2497,-0.0403489,6.42971,-7.91309,0.25661,1.32792,0.0481934,0.0820457,-0.0766678,0.0290287,-1.87707,0.114129,0.140275,0.0552737,0.00137922,0.0674318,0.0212821,-0.0391053,-0.255922,-0.04176,-0.00114178,0,0,0,0,0,0,0,-2.55536,-30.6026,-2.58574,27.7484,0.129696,2.95342,0.0641939,
0.0835901,-0.0756199,0.0306442,-1.88124,0.110285,0.144341,0.0554866,0.0460011,0.0102397,0.0476724,-0.0861742,-0.0293137,0.116604,0.00476546,-0.578404,0.470841,-0.604594,1.32889,1.95778,-2.20115,-0.136033,6.09986,-0.0481757,6.27572,-7.66777,0.27187,1.30955,0.0460991,0.0820457,-0.0766678,0.0290287,-1.87707,0.114129,0.140275,0.0552737,0.00137922,0.0674318,0.0212821,-0.0391053,-0.255922,-0.04176,-0.00114178,0,0,0,0,0,0,0,-2.55536,-30.6026,-2.58574,27.7484,0.129696,2.95342,0.0641939,
0.0839431,-0.0755297,0.0310095,-1.88183,0.11026,0.145174,0.0555157,0.0456235,0.010446,0.0472688,-0.0836771,-0.0240851,0.114101,0.00453853,-0.236017,0.128998,-0.252226,1.56065,3.26789,-1.56453,-0.141831,5.94579,-0.0673084,6.11925,-7.39641,0.299842,1.30618,0.0438691,0.0825919,-0.0759141,0.030843,-1.8784,0.111781,0.139749,0.0552929,0.0102485,-0.01724,0.0520649,-0.0552199,0.00138699,-0.0373963,0.00395878,1.10866,-10.584,3.84785,-2.01432,32.1636,0.545455,0.637569,2.2887,-36.1925,2.03615,33.0051,1.52771,4.09417,-0.00996382,
0.0843052,-0.075453,0.0313842,-1.88239,0.110324,0.146011,0.0555427,0.0455533,0.0102743,0.047184,-0.0809387,-0.0176707,0.112219,0.00430667,-0.0438786,-0.107373,-0.0530426,1.71152,4.00902,-1.1759,-0.144908,5.79513,-0.0769229,5.96527,-7.15069,0.317621,1.28719,0.0417312,0.0825919,-0.0759141,0.030843,-1.8784,0.111781,0.139749,0.0552929,0.0102485,-0.01724,0.0520649,-0.0552199,0.00138699,-0.0373963,0.00395878,0,0,0,0,0,0,0,2.2887,-36.1925,2.03615,33.0051,1.52771,4.09417,-0.00996382,
0.0843262,-0.0761999,0.0326335,-1.88107,0.112337,0.142604,0.0554469,0.0458064,0.00792495,0.0474229,-0.0772746,-0.00905209,0.109306,0.00408389,0.158208,-1.46831,0.149363,2.29004,5.3866,-1.82084,-0.139241,5.64415,-0.087697,5.81129,-6.90469,0.336939,1.26768,0.0395611,0.0825919,-0.0759141,0.030843,-1.8784,0.111781,0.139749,0.0552929,0.0102485,-0.01724,0.0520649,-0.0552199,0.00138699,-0.0373963,0.00395878,0,0,0,0,0,0,0,2.2887,-36.1925,2.03615,33.0051,1.52771,4.09417,-0.00996382,
0.0847022,-0.0762027,0.0330224,-1.88155,0.112587,0.143411,0.0554704,0.0460438,0.00626976,0.0476594,-0.0738291,-0.00100164,0.107601,0.00385402,0.148399,-1.03449,0.14777,2.15345,5.03153,-1.06539,-0.143666,5.49303,-0.0998192,5.65743,-6.65823,0.356551,1.24708,0.0374272,0.0825919,-0.0759141,0.030843,-1.8784,0.111781,0.139749,0.0552929,0.0102485,-0.01724,0.0520649,-0.0552199,0.00138699,-0.0373963,0.00395878,0,0,0,0,0,0,0,2.2887,-36.1925,2.03615,33.0051,1.52771,4.09417,-0.00996382,
0.0850762,-0.0762002,0.0334095,-1.88201,0.112881,0.144224,0.055492,0.0461849,0.00507856,0.047806,-0.0705574,0.00655939,0.106408,0.00362249,0.0881806,-0.7445,0.0916707,2.04481,4.72564,-0.746034,-0.144706,5.33991,-0.108833,5.50441,-6.40203,0.376023,1.23552,0.035228,0.0829772,-0.0753955,0.0325139,-1.87963,0.11221,0.139566,0.0552831,0.0143363,-0.0215191,0.0572599,-0.0311481,0.0567351,0.0099568,0.000891213,0.510973,-0.534891,0.649374,3.00896,6.91851,5.91914,-0.383446,0.487552,-31.4516,0.43733,28.7958,0.0198328,3.07244,0.0239107,
0.0846992,-0.0758921,0.0342933,-1.88165,0.114077,0.143059,0.055399,0.0457821,0.00289198,0.0473898,-0.0662154,0.0153155,0.104962,0.00336571,-0.251784,-1.36661,-0.260128,2.71375,5.47254,-0.903709,-0.160492,5.03769,-0.140415,5.19731,-5.90607,0.424303,1.18567,0.0310622,0.0829772,-0.0753955,0.0325139,-1.87963,0.11221,0.139566,0.0552831,0.0143363,-0.0215191,0.0572599,-0.0311481,0.0567351,0.0099568,0.000891213,0,0,0,0,0,0,0,0.487552,-31.4516,0.43733,28.7958,0.0198328,3.07244,0.0239107,
0.0850477,-0.0759259,0.0346545,-1.88203,0.114519,0.143839,0.0554159,0.0453386,0.00146755,0.0469428,-0.0623522,0.0233035,0.103483,0.00311579,-0.277195,-0.89027,-0.279389,2.4145,4.99254,-0.924263,-0.156201,4.88702,-0.15853,5.04415,-5.65686,0.453042,1.15652,0.0290545,0.0829772,-0.0753955,0.0325139,-1.87963,0.11221,0.139566,0.0552831,0.0143363,-0.0215191,0.0572599,-0.0311481,0.0567351,0.0099568,0.000891213,0,0,0,0,0,0,0,0.487552,-31.4516,0.43733,28.7958,0.0198328,3.07244,0.0239107,
0.085389,-0.0759509,0.0350087,-1.88239,0.115009,0.144592,0.0554312,0.0448047,0.000550473,0.0464094,-0.0588411,0.0308804,0.101615,0.00287551,-0.333654,-0.573172,-0.333368,2.19446,4.73553,-1.16756,-0.15017,4.73685,-0.178178,4.89136,-5.40674,0.487056,1.12346,0.0270867,0.0829772,-0.0753955,0.0325139,-1.87963,0.11221,0.139566,0.0552831,0.0143363,-0.0215191,0.0572599,-0.0311481,0.0567351,0.0099568,0.000891213,0,0,0,0,0,0,0,0.487552,-31.4516,0.43733,28.7958,0.0198328,3.07244,0.0239107,
0.0857215,-0.0759699,0.0353541,-1.88273,0.115554,0.145306,0.055445,0.044156,-3.48117e-05,0.0457616,-0.0555861,0.0383377,0.0991421,0.00264652,-0.405466,-0.365803,-0.40492,2.03438,4.66082,-1.54554,-0.143123,4.58533,-0.214292,4.74398,-5.15688,0.520129,1.08496,0.0252115,0.0833949,-0.0757401,0.0350007,-1.87977,0.113935,0.13969,0.0552965,0.00267338,-0.0248318,0.0754745,0.00542251,0.0417736,0.00796822,-0.000770793,-1.45787,-0.414088,2.27683,4.57133,-1.87019,-0.248573,-0.207751,0.614505,-32.7489,0.361952,27.2525,0.526119,2.74102,-0.0163725,
0.0849981,-0.0764985,0.0366695,-1.88116,0.116446,0.14309,0.0553755,0.043175,-0.00216544,0.0447687,-0.0515661,0.0460308,0.0966873,0.00243853,-0.613137,-1.33164,-0.620538,2.51245,4.8082,-1.53425,-0.129992,4.43689,-0.237004,4.59246,-4.90471,0.568576,1.04111,0.0233802,0.0833949,-0.0757401,0.0350007,-1.87977,0.113935,0.13969,0.0552965,0.00267338,-0.0248318,0.0754745,0.00542251,0.0417736,0.00796822,-0.000770793,0,0,0,0,0,0,0,0.614505,-32.7489,0.361952,27.2525,0.526119,2.74102,-0.0163725,
0.0853032,-0.0765658,0.036987,-1.88144,0.117136,0.143732,0.055387,0.0421665,-0.00341479,0.043753,-0.0480491,0.0540762,0.0933774,0.00223843,-0.630264,-0.780844,-0.6348,2.19811,5.02837,-2.06864,-0.125061,4.28967,-0.26121,4.44186,-4.65151,0.626747,0.990144,0.021634,0.0833949,-0.0757401,0.0350007,-1.87977,0.113935,0.13969,0.0552965,0.00267338,-0.0248318,0.0754745,0.00542251,0.0417736,0.00796822,-0.000770793,0,0,0,0,0,0,0,0.614505,-32.7489,0.361952,27.2525,0.526119,2.74102,-0.0163725,
0.0855978,-0.0766201,0.037294,-1.88169,0.117914,0.144303,0.0553973,0.0410976,-0.00408939,0.0426779,-0.0448806,0.062721,0.0889914,0.00204874,-0.668053,-0.421622,-0.671965,1.98035,5.40303,-2.7413,-0.118557,4.14387,-0.286815,4.29231,-4.39738,0.697426,0.930387,0.0199711,0.0833949,-0.0757401,0.0350007,-1.87977,0.113935,0.13969,0.0552965,0.00267338,-0.0248318,0.0754745,0.00542251,0.0417736,0.00796822,-0.000770793,0,0,0,0,0,0,0,0.614505,-32.7489,0.361952,27.2525,0.526119,2.74102,-0.0163725,
0.0858807,-0.0766652,0.0375893,-1.88193,0.118795,0.144791,0.0554066,0.0399502,-0.00440084,0.041523,-0.0419487,0.0721968,0.083401,0.0018713,-0.717175,-0.194658,-0.721805,1.83241,5.92235,-3.49395,-0.110903,3.99903,-0.336557,4.15178,-4.14604,0.777966,0.856288,0.0184397,0.0836445,-0.0763143,0.037908,-1.87947,0.115163,0.139742,0.0552884,0.000919868,-0.0401398,0.0670907,0.0197612,0.0264768,-0.000226571,0.000465986,-0.219189,-1.91349,-1.04797,1.79233,-1.9121,-1.02435,0.154597,-1.97216,-31.527,-2.08586,25.9552,0.477596,2.38305,-0.00996382,
0.0849609,-0.0773698,0.0392883,-1.8803,0.118669,0.14225,0.0553419,0.0382852,-0.00660906,0.0398349,-0.0380378,0.0819401,0.0775676,0.00171806,-1.04063,-1.38014,-1.05504,2.4443,6.08959,-3.64591,-0.0957695,3.85643,-0.364682,4.00466,-3.89062,0.879735,0.774283,0.0169922,0.0836445,-0.0763143,0.037908,-1.87947,0.115163,0.139742,0.0552884,0.000919868,-0.0401398,0.0670907,0.0197612,0.0264768,-0.000226571,0.000465986,0,0,0,0,0,0,0,-1.97216,-31.527,-2.08586,25.9552,0.477596,2.38305,-0.00996382,
0.0852042,-0.0774697,0.0395433,-1.88047,0.119781,0.142581,0.05535,0.0367106,-0.00778627,0.0382423,-0.0346773,0.0933468,0.070335,0.00157569,-0.984131,-0.735751,-0.995378,2.10033,7.12916,-4.52035,-0.088983,3.71537,-0.393817,3.85869,-3.63504,1.00015,0.678747,0.0156731,0.0836445,-0.0763143,0.037908,-1.87947,0.115163,0.139742,0.0552884,0.000919868,-0.0401398,0.0670907,0.0197612,0.0264768,-0.000226571,0.000465986,0,0,0,0,0,0,0,-1.97216,-31.527,-2.08586,25.9552,0.477596,2.38305,-0.00996382,
0.0854362,-0.0775526,0.039787,-1.88063,0.12105,0.142792,0.0553574,0.0351699,-0.00830222,0.036686,-0.0316984,0.106396,0.0615549,0.00144627,-0.962905,-0.322472,-0.972681,1.86184,8.156,-5.4876,-0.0808908,3.57552,-0.423597,3.71356,-3.37987,1.14149,0.567761,0.014504,0.0836445,-0.0763143,0.037908,-1.87947,0.115163,0.139742,0.0552884,0.000919868,-0.0401398,0.0670907,0.0197612,0.0264768,-0.000226571,0.000465986,0,0,0,0,0,0,0,-1.97216,-31.527,-2.08586,25.9552,0.477596,2.38305,-0.00996382,
0.0847377,-0.0773301,0.0390657,-1.87991,0.120776,0.140592,0.0553225,0.0330089,-0.00973111,0.0344876,-0.02777,0.124663,0.0486188,0.00133576,-1.35066,-0.893057,-1.37399,2.45521,11.4168,-8.08506,-0.0690638,3.2974,-0.51651,3.43214,-2.87717,1.48799,0.290277,0.0127193,0.0836992,-0.0772253,0.0402788,-1.8791,0.116227,0.13967,0.0552928,0.0070828,-0.0651032,0.0447946,0.0105432,0.0276018,-0.00548222,0.0033764,0.770367,-3.12043,-2.78701,-1.15225,0.140631,-0.656956,0.363802,-1.71826,-31.3246,-1.8637,26.9272,0.654293,2.80785,-0.0163725,
0.0849195,-0.0774318,0.0392579,-1.88,0.122574,0.140423,0.0553291,0.0309504,-0.0103266,0.0323958,-0.0244272,0.144678,0.0346644,0.00123377,-1.28651,-0.372185,-1.30738,2.08931,12.5092,-8.72147,-0.0637444,3.15552,-0.544158,3.2842,-2.62862,1.69716,0.129056,0.0120953,0.0836992,-0.0772253,0.0402788,-1.8791,0.116227,0.13967,0.0552928,0.0070828,-0.0651032,0.0447946,0.0105432,0.0276018,-0.00548222,0.0033764,0,0,0,0,0,0,0,-1.71826,-31.3246,-1.8637,26.9272,0.654293,2.80785,-0.0163725,
0.0850878,-0.0775171,0.0394366,-1.88008,0.124576,0.140111,0.0553356,0.0289691,-0.0103947,0.0303838,-0.0215497,0.165796,0.0199461,0.00114847,-1.23833,-0.0425262,-1.25752,1.7984,13.1989,-9.19897,-0.0533176,3.00936,-0.568402,3.13196,-2.38531,1.92708,-0.046644,0.0116406,0.0836992,-0.0772253,0.0402788,-1.8791,0.116227,0.13967,0.0552928,0.0070828,-0.0651032,0.0447946,0.0105432,0.0276018,-0.00548222,0.0033764,0,0,0,0,0,0,0,-1.71826,-31.3246,-1.8637,26.9272,0.654293,2.80785,-0.0163725,
0.0852428,-0.0775884,0.0396017,-1.88015,0.126761,0.13967,0.0553429,0.0270499,-0.0100993,0.0284333,-0.019016,0.187262,0.00493124,0.00110142,-1.19948,0.184602,-1.21906,1.58357,13.4163,-9.38426,-0.0294012,2.85675,-0.585778,2.97353,-2.14841,2.17207,-0.231521,0.0116184,0.0836992,-0.0772253,0.0402788,-1.8791,0.116227,0.13967,0.0552928,0.0070828,-0.0651032,0.0447946,0.0105432,0.0276018,-0.00548222,0.0033764,0,0,0,0,0,0,0,-1.71826,-31.3246,-1.8637,26.9272,0.654293,2.80785,-0.0163725,
0.0843773,-0.0785141,0.0410168,-1.87908,0.124498,0.138424,0.0553238,0.0244042,-0.0117904,0.0257509,-0.0155378,0.20688,-0.00791519,0.00110343,-1.65356,-1.05693,-1.67648,2.17388,12.2607,-8.02902,0.00125294,2.69142,-0.593206,2.80179,-1.92081,2.44798,-0.42796,0.0118585,0.0836992,-0.0772253,0.0402788,-1.8791,0.116227,0.13967,0.0552928,0.0070828,-0.0651032,0.0447946,0.0105432,0.0276018,-0.00548222,0.0033764,0,0,0,0,0,0,0,-1.71826,-31.3246,-1.8637,26.9272,0.654293,2.80785,-0.0163725,
0.0844723,-0.0786299,0.0411215,-1.8791,0.127039,0.137858,0.0553307,0.0218981,-0.0123272,0.0232194,-0.0128298,0.229035,-0.0204766,0.00105332,-1.56631,-0.335539,-1.58222,1.6925,13.8474,-7.8509,-0.0313193,2.50171,-0.607294,2.61302,-1.71028,2.7158,-0.624893,0.0113488,0.0837561,-0.0779902,0.0419947,-1.87853,0.118727,0.139135,0.0552849,-0.00475412,-0.0114888,0.0369052,0.0345623,0.127842,-0.0375965,-0.000307837,-1.47962,6.70179,-0.986172,3.00239,12.53,-4.01428,-0.46053,-0.500302,-27.4327,-0.788561,20.8255,0.825497,1.36223,0.050461,
0.0845552,-0.0787241,0.0412147,-1.87912,0.129749,0.137266,0.0553284,0.0195904,-0.0122169,0.0209048,-0.0108987,0.250979,-0.0311856,0.000787187,-1.44234,0.0689577,-1.44661,1.20693,13.7146,-6.69312,-0.166331,2.29358,-0.58601,2.40101,-1.51035,2.9516,-0.786821,0.0111453,0.0837561,-0.0779902,0.0419947,-1.87853,0.118727,0.139135,0.0552849,-0.00475412,-0.0114888,0.0369052,0.0345623,0.127842,-0.0375965,-0.000307837,0,0,0,0,0,0,0,-0.500302,-27.4327,-0.788561,20.8255,0.825497,1.36223,0.050461,
0.084641,-0.0787965,0.0413075,-1.87915,0.132407,0.136743,0.0553233,0.0178179,-0.0115815,0.0190427,-0.0093883,0.26724,-0.0380132,0.000500331,-1.10784,0.397153,-1.16382,0.944018,10.1631,-4.26722,-0.179285,2.05233,-0.513402,2.15571,-1.30081,3.13633,-0.904684,0.0120728,0.0837561,-0.0779902,0.0419947,-1.87853,0.118727,0.139135,0.0552849,-0.00475412,-0.0114888,0.0369052,0.0345623,0.127842,-0.0375965,-0.000307837,0,0,0,0,0,0,0,-0.500302,-27.4327,-0.788561,20.8255,0.825497,1.36223,0.050461,
0.0840575,-0.0785038,0.0423507,-1.87847,0.130149,0.137113,0.0552773,0.0154999,-0.0107695,0.0166408,-0.0076836,0.279094,-0.0418576,0.000232477,-1.44871,0.507485,-1.50122,1.06544,7.40917,-2.40277,-0.167409,1.77638,-0.424002,1.87037,-1.10902,3.44445,-0.993416,0.0144503,0.0837561,-0.0779902,0.0419947,-1.87853,0.118727,0.139135,0.0552849,-0.00475412,-0.0114888,0.0369052,0.0345623,0.127842,-0.0375965,-0.000307837,0,0,0,0,0,0,0,-0.500302,-27.4327,-0.788561,20.8255,0.825497,1.36223,0.050461,
0.0840977,-0.0785481,0.0423967,-1.87847,0.132899,0.136594,0.0552658,0.0134048,-0.00972404,0.0144613,-0.00614453,0.292028,-0.0464775,-0.000101821,-1.30945,0.653401,-1.36214,0.961921,8.08351,-2.88741,-0.208937,1.43297,-0.344413,1.52864,-0.91874,3.71156,-1.0245,0.0118191,0.0836402,-0.078765,0.0427333,-1.87826,0.125434,0.137683,0.0552929,-0.00463931,-0.00127656,0.00978148,0.0226893,0.254603,-0.0357209,-0.000518377,0.0143516,1.27653,-3.39047,-1.48413,15.8452,0.234444,-0.0263175,-0.0202602,-28.1825,-0.387865,21.5991,0.91705,1.40893,0.017502,
0.084139,-0.078583,0.0424404,-1.87846,0.135655,0.136035,0.0552572,0.0117554,-0.00865076,0.0126616,-0.00478017,0.302525,-0.0511403,-0.00029612,-1.03086,0.670798,-1.12484,0.852727,6.56056,-2.91429,-0.121437,1.11178,-0.381065,1.2219,-0.777975,3.72842,-0.880844,-0.00087674,0.0836402,-0.078765,0.0427333,-1.87826,0.125434,0.137683,0.0552929,-0.00463931,-0.00127656,0.00978148,0.0226893,0.254603,-0.0357209,-0.000518377,0,0,0,0,0,0,0,-0.0202602,-28.1825,-0.387865,21.5991,0.91705,1.40893,0.017502,
0.0837004,-0.0789767,0.0428232,-1.87809,0.137891,0.1356,0.055246,0.00993347,-0.00769321,0.0108356,-0.00302378,0.303144,-0.054454,-0.000471433,-1.13873,0.598474,-1.14124,1.09774,0.386829,-2.07105,-0.10957,0.752279,-0.171327,0.821325,-0.364834,3.52195,-0.672773,-0.00711781,0.0836402,-0.078765,0.0427333,-1.87826,0.125434,0.137683,0.0552929,-0.00463931,-0.00127656,0.00978148,0.0226893,0.254603,-0.0357209,-0.000518377,0,0,0,0,0,0,0,-0.0202602,-28.1825,-0.387865,21.5991,0.91705,1.40893,0.017502,
0.0837234,-0.0790041,0.0428531,-1.87806,0.140257,0.135033,0.0552335,0.00852091,-0.00684178,0.00941598,-0.00160607,0.301676,-0.0577596,-0.00069117,-0.882846,0.532143,-0.887259,0.88607,-0.917294,-2.06602,-0.137336,0.574279,-0.149224,0.625816,-0.251912,3.74354,-0.820291,-0.0126406,0.0836402,-0.078765,0.0427333,-1.87826,0.125434,0.137683,0.0552929,-0.00463931,-0.00127656,0.00978148,0.0226893,0.254603,-0.0357209,-0.000518377,0,0,0,0,0,0,0,-0.0202602,-28.1825,-0.387865,21.5991,0.91705,1.40893,0.017502,
0.0837556,-0.0790311,0.0429056,-1.87803,0.142349,0.134526,0.0552303,0.00762282,-0.00614721,0.0088465,-0.000550727,0.293647,-0.058878,-0.000632324,-0.561312,0.434106,-0.35593,0.659588,-5.01831,-0.698987,0.0367791,0.527115,-0.160039,0.559868,-0.149591,3.45052,-0.811628,-0.0104436,0.0834533,-0.0788628,0.0429707,-1.87789,0.134309,0.137374,0.0552871,-0.00510558,0.00294448,-0.00386098,0.00601443,0.26379,0.000410458,-0.000667801,-0.0582843,0.52763,-1.70531,-2.08436,1.14844,4.51642,-0.018678,-0.0202602,-29.0791,-0.312487,23.5391,0.697323,1.74035,0.0303194,
0.0838118,-0.0790597,0.0429811,-1.87801,0.143985,0.13417,0.0552291,0.00750348,-0.00563334,0.00896394,0.000134307,0.275806,-0.0559899,-0.000534633,-0.0745828,0.321165,0.0734005,0.428147,-11.1507,1.80508,0.0610568,0.343131,-0.131186,0.439164,-0.00276627,2.88398,-0.778042,-0.0118322,0.0834533,-0.0788628,0.0429707,-1.87789,0.134309,0.137374,0.0552871,-0.00510558,0.00294448,-0.00386098,0.00601443,0.26379,0.000410458,-0.000667801,0,0,0,0,0,0,0,-0.0202602,-29.0791,-0.312487,23.5391,0.697323,1.74035,0.0303194,
0.0834476,-0.0789051,0.0430391,-1.8777,0.143402,0.136069,0.0552571,0.00686187,-0.00501235,0.00856683,0.000814159,0.252473,-0.0493048,-0.000503633,-0.401006,0.388118,-0.248191,0.424907,-14.5833,4.17817,0.0193749,0.221799,-0.115443,0.319649,0.0879671,2.92887,-0.839637,-0.0123278,0.0834533,-0.0788628,0.0429707,-1.87789,0.134309,0.137374,0.0552871,-0.00510558,0.00294448,-0.00386098,0.00601443,0.26379,0.000410458,-0.000667801,0,0,0,0,0,0,0,-0.0202602,-29.0791,-0.312487,23.5391,0.697323,1.74035,0.0303194,
0.0834846,-0.0789257,0.0430992,-1.87767,0.144516,0.135929,0.0552528,0.00641441,-0.00452519,0.00835422,0.0013421,0.22983,-0.0429578,-0.000511096,-0.279668,0.304477,-0.132878,0.329961,-14.1516,3.9669,-0.00466458,0.12112,-0.118764,0.215341,0.171244,2.77955,-0.803077,-0.0164742,0.0834533,-0.0788628,0.0429707,-1.87789,0.134309,0.137374,0.0552871,-0.00510558,0.00294448,-0.00386098,0.00601443,0.26379,0.000410458,-0.000667801,0,0,0,0,0,0,0,-0.0202602,-29.0791,-0.312487,23.5391,0.697323,1.74035,0.0303194,
0.0835201,-0.078946,0.0431586,-1.87764,0.145529,0.135815,0.0552478,0.0060193,-0.00412788,0.00816829,0.00176,0.209192,-0.0372178,-0.000534706,-0.246938,0.248321,-0.116209,0.26119,-12.8989,3.58748,-0.014756,0.113215,-0.157636,0.410052,0.268907,2.00865,-0.502956,-0.00693634,0.0832873,-0.0790809,0.0428771,-1.87756,0.139239,0.137407,0.05529,-0.00492762,0.00924397,-0.00177753,0.011439,0.0497676,0.00369796,-0.000160178,0.0222454,0.787436,0.260431,0.678077,-26.7529,0.410937,0.0634529,-0.325741,-29.6306,-0.637804,24.8087,0.532528,2.17797,0.00376909,
0.0835524,-0.0789658,0.0432152,-1.87761,0.146477,0.135719,0.0552424,0.00562199,-0.0037966,0.00794953,0.00209345,0.191034,-0.0321767,-0.00056285,-0.248323,0.207049,-0.136727,0.208405,-11.3483,3.15069,-0.0175904,0.0622286,-0.191945,0.364496,0.336064,1.01915,-0.0758645,-0.00692289,0.0832873,-0.0790809,0.0428771,-1.87756,0.139239,0.137407,0.05529,-0.00492762,0.00924397,-0.00177753,0.011439,0.0497676,0.00369796,-0.000160178,0,0,0,0,0,0,0,-0.325741,-29.6306,-0.637804,24.8087,0.532528,2.17797,0.00376909,
0.0831491,-0.079027,0.0428597,-1.87744,0.142501,0.137394,0.0552615,0.00406642,-0.0030936,0.00652565,0.00222854,0.171069,-0.0266556,-0.000583412,-0.972228,0.439373,-0.889922,0.0844355,-12.4783,3.45068,-0.012851,0.0622286,-0.191945,0.364496,0.336064,1.01915,-0.0758645,-0.00692289,0.0832873,-0.0790809,0.0428771,-1.87756,0.139239,0.137407,0.05529,-0.00492762,0.00924397,-0.00177753,0.011439,0.0497676,0.00369796,-0.000160178,0,0,0,0,0,0,0,-0.325741,-29.6306,-0.637804,24.8087,0.532528,2.17797,0.00376909,
0.083136,-0.0790322,0.0428706,-1.87742,0.143247,0.137349,0.0552561,0.00292658,-0.00260495,0.00549214,0.00235622,0.155515,-0.0224321,-0.000599806,-0.712403,0.305404,-0.645945,0.0797974,-9.7214,2.63969,-0.010246,0.0622286,-0.191945,0.364496,0.336064,1.01915,-0.0758645,-0.00692289,0.0832873,-0.0790809,0.0428771,-1.87756,0.139239,0.137407,0.05529,-0.00492762,0.00924397,-0.00177753,0.011439,0.0497676,0.00369796,-0.000160178,0,0,0,0,0,0,0,-0.325741,-29.6306,-0.637804,24.8087,0.532528,2.17797,0.00376909,
0.0831264,-0.0790396,0.042885,-1.87739,0.144005,0.1373,0.0552508,0.0021026,-0.00226973,0.00475465,0.00247483,0.143366,-0.0191809,-0.000613311,-0.514987,0.209516,-0.460928,0.0741301,-7.59286,2.032,-0.00844101,0.0619825,-0.181154,0.363197,0.330619,1.02211,-0.0822201,-0.00688216,0.0830799,-0.0789579,0.0426799,-1.87705,0.138518,0.138424,0.0552873,-0.00615479,0.0123918,-0.0103299,0.00749655,-0.0438909,0.0322447,-0.000675183,-0.153397,0.393475,-1.06904,-0.492811,-11.7073,3.56834,-0.0643756,-1.66668,-30.1265,-2.01048,25.0586,0.477596,2.33727,0.017502,
0.0827408,-0.0788091,0.0424631,-1.87697,0.14043,0.138759,0.0552557,0.000496836,-0.00156467,0.0032036,0.00241902,0.129944,-0.0156625,-0.000619358,-1.0036,0.440664,-0.969407,-0.03488,-8.38899,2.19904,-0.00377916,0.0619825,-0.181154,0.363197,0.330619,1.02211,-0.0822201,-0.00688216,0.0830799,-0.0789579,0.0426799,-1.87705,0.138518,0.138424,0.0552873,-0.00615479,0.0123918,-0.0103299,0.00749655,-0.0438909,0.0322447,-0.000675183,0,0,0,0,0,0,0,-1.66668,-30.1265,-2.01048,25.0586,0.477596,2.33727,0.017502,
0.0827028,-0.0788043,0.0424484,-1.87695,0.141089,0.138729,0.0552506,-0.000553554,-0.00113041,0.00219671,0.00241204,0.120423,-0.0132718,-0.000622708,-0.656494,0.271412,-0.629309,-0.00436356,-5.95044,1.49416,-0.00209408,0.0619825,-0.181154,0.363197,0.330619,1.02211,-0.0822201,-0.00688216,0.0830799,-0.0789579,0.0426799,-1.87705,0.138518,0.138424,0.0552873,-0.00615479,0.0123918,-0.0103299,0.00749655,-0.0438909,0.0322447,-0.000675183,0,0,0,0,0,0,0,-1.66668,-30.1265,-2.01048,25.0586,0.477596,2.33727,0.017502,
0.0826728,-0.0788034,0.0424419,-1.87693,0.141782,0.138688,0.0552455,-0.00119297,-0.00088301,0.00159361,0.00243748,0.113672,-0.0116448,-0.000625544,-0.399632,0.154623,-0.376938,0.0159038,-4.21946,1.01686,-0.00177248,0.0619825,-0.181154,0.363197,0.330619,1.02211,-0.0822201,-0.00688216,0.0830799,-0.0789579,0.0426799,-1.87705,0.138518,0.138424,0.0552873,-0.00615479,0.0123918,-0.0103299,0.00749655,-0.0438909,0.0322447,-0.000675183,0,0,0,0,0,0,0,-1.66668,-30.1265,-2.01048,25.0586,0.477596,2.33727,0.017502,
0.0826495,-0.0788057,0.0424422,-1.87691,0.142501,0.138639,0.0552403,-0.00153606,-0.000762587,0.00128184,0.00248335,0.108896,-0.0105358,-0.000628714,-0.214431,0.0752643,-0.194857,0.0286658,-2.98496,0.693162,-0.00198091,0.0619825,-0.181154,0.363197,0.330619,1.02211,-0.0822201,-0.00688216,0.0830799,-0.0789579,0.0426799,-1.87705,0.138518,0.138424,0.0552873,-0.00615479,0.0123918,-0.0103299,0.00749655,-0.0438909,0.0322447,-0.000675183,0,0,0,0,0,0,0,-1.66668,-30.1265,-2.01048,25.0586,0.477596,2.33727,0.017502,
0.0827408,-0.0788091,0.0424631,-1.87697,0.14043,0.138759,0.0552557,-0.00241409,-0.000358954,0.000425349,0.00242584,0.102368,-0.00874634,-0.00063168,-0.54877,0.252271,-0.535304,-0.0359452,-4.08022,1.1184,-0.00185383,0.0619825,-0.181154,0.363197,0.330619,1.02211,-0.0822201,-0.00688216,0.0830799,-0.0789579,0.0426799,-1.87705,0.138518,0.138424,0.0552873,-0.00615479,0.0123918,-0.0103299,0.00749655,-0.0438909,0.0322447,-0.000675183,0,0,0,0,0,0,0,-1.66668,-30.1265,-2.01048,25.0586,0.477596,2.33727,0.017502,
0.0827028,-0.0788043,0.0424484,-1.87695,0.141089,0.138729,0.0552506,-0.00288229,-0.000165837,-2.58943e-05,0.00241749,0.0983623,-0.00773891,-0.000632566,-0.292628,0.120698,-0.282027,-0.00521574,-2.50342,0.629641,-0.000553818,0.0619825,-0.181154,0.363197,0.330619,1.02211,-0.0822201,-0.00688216,0.0830799,-0.0789579,0.0426799,-1.87705,0.138518,0.138424,0.0552873,-0.00615479,0.0123918,-0.0103299,0.00749655,-0.0438909,0.0322447,-0.000675183,0,0,0,0,0,0,0,-1.66668,-30.1265,-2.01048,25.0586,0.477596,2.33727,0.017502,
0.0826728,-0.0788034,0.0424419,-1.87693,0.141782,0.138688,0.0552455,-0.00305596,-0.000111354,-0.000184475,0.00244185,0.0960233,-0.00721852,-0.000633431,-0.10854,0.0340518,-0.099113,0.0152221,-1.46184,0.325245,-0.000540273,0.0619825,-0.181154,0.363197,0.330619,1.02211,-0.0822201,-0.00688216,0.0830799,-0.0789579,0.0426799,-1.87705,0.138518,0.138424,0.0552873,-0.00615479,0.0123918,-0.0103299,0.00749655,-0.0438909,0.0322447,-0.000675183,0,0,0,0,0,0,0,-1.66668,-30.1265,-2.01048,25.0586,0.477596,2.33727,0.017502,
0.0826495,-0.0788057,0.0424422,-1.87691,0.142501,0.138639,0.0552403,-0.00302645,-0.000145262,-0.00014063,0.00248684,0.0947771,-0.00699473,-0.000635023,0.0184429,-0.0211927,0.0274029,0.0281204,-0.778868,0.139872,-0.000995147,0.0619825,-0.181154,0.363197,0.330619,1.02211,-0.0822201,-0.00688216,0.0830799,-0.0789579,0.0426799,-1.87705,0.138518,0.138424,0.0552873,-0.00615479,0.0123918,-0.0103299,0.00749655,-0.0438909,0.0322447,-0.000675183,0,0,0,0,0,0,0,-1.66668,-30.1265,-2.01048,25.0586,0.477596,2.33727,0.017502,
0.0821231,-0.0789554,0.041856,-1.87662,0.139719,0.139139,0.0552625,-0.00371006,-0.000275187,-0.00083055,0.00258696,0.091555,-0.00644977,-0.000627873,-0.427259,-0.081203,-0.4312,0.0625716,-2.01385,0.340595,0.00446845,0.0620251,-0.174533,0.361576,0.326905,1.02635,-0.0872846,-0.00686121,0.0825326,-0.0789334,0.0421512,-1.87675,0.137451,0.13917,0.0552878,-0.0146166,0.00121577,-0.0154151,0.00748613,-0.00829577,0.0037318,-0.000144371,-1.05772,-1.397,-0.635657,-0.00130288,4.4494,-3.56411,0.0663515,0.0551182,-30.0551,-0.185533,25.257,0.862118,2.38305,0.0239107,
0.0820825,-0.0789627,0.0418383,-1.8766,0.14039,0.139097,0.0552576,-0.00398372,-0.000403569,-0.00110515,0.00267244,0.0900188,-0.00621523,-0.000624029,-0.171038,-0.0802388,-0.171627,0.0534279,-0.960088,0.146588,0.00240269,0.0620251,-0.174533,0.361576,0.326905,1.02635,-0.0872846,-0.00686121,0.0825326,-0.0789334,0.0421512,-1.87675,0.137451,0.13917,0.0552878,-0.0146166,0.00121577,-0.0154151,0.00748613,-0.00829577,0.0037318,-0.000144371,0,0,0,0,0,0,0,0.0551182,-30.0551,-0.185533,25.257,0.862118,2.38305,0.0239107,
0.0820509,-0.078971,0.0418299,-1.87657,0.141091,0.139048,0.0552527,-0.00397786,-0.000529776,-0.00109583,0.0027459,0.0895547,-0.00618056,-0.000623114,0.0036675,-0.0788793,0.00582757,0.0459109,-0.29008,0.0216707,0.000572051,0.0620251,-0.174533,0.361576,0.326905,1.02635,-0.0872846,-0.00686121,0.0825326,-0.0789334,0.0421512,-1.87675,0.137451,0.13917,0.0552878,-0.0146166,0.00121577,-0.0154151,0.00748613,-0.00829577,0.0037318,-0.000144371,0,0,0,0,0,0,0,0.0551182,-30.0551,-0.185533,25.257,0.862118,2.38305,0.0239107,
0.0821231,-0.0789554,0.041856,-1.87662,0.139719,0.139139,0.0552625,-0.00447119,-0.000582798,-0.00159471,0.0027942,0.087377,-0.00579844,-0.000618346,-0.308333,-0.0331387,-0.3118,0.0301895,-1.36104,0.238824,0.00297981,0.0620251,-0.174533,0.361576,0.326905,1.02635,-0.0872846,-0.00686121,0.0825326,-0.0789334,0.0421512,-1.87675,0.137451,0.13917,0.0552878,-0.0146166,0.00121577,-0.0154151,0.00748613,-0.00829577,0.0037318,-0.000144371,0,0,0,0,0,0,0,0.0551182,-30.0551,-0.185533,25.257,0.862118,2.38305,0.0239107,
0.0820825,-0.0789627,0.0418383,-1.8766,0.14039,0.139097,0.0552576,-0.00459263,-0.000649658,-0.00171648,0.00283824,0.0866765,-0.00569417,-0.000616407,-0.0758972,-0.0417875,-0.0761072,0.0275223,-0.437846,0.0651712,0.00121178,0.0618701,-0.172766,0.360404,0.325359,1.02574,-0.0890117,-0.00685167,0.0821359,-0.078959,0.0416782,-1.87649,0.137522,0.139202,0.0552889,-0.00976812,-0.00398189,-0.01838,0.00650693,0.0201226,-0.00428889,9.98779e-05,0.606056,-0.649708,-0.370613,-0.122399,3.5523,-1.00259,0.0305311,0.967594,-29.829,0.738844,25.011,0.60577,2.3565,0.00376909,
0.0820509,-0.078971,0.0418299,-1.87657,0.141091,0.139048,0.0552527,-0.00446498,-0.000726647,-0.00158489,0.00287853,0.0868808,-0.00576371,-0.000617016,0.0797801,-0.0481182,0.0822435,0.0251864,0.127714,-0.0434625,-0.000380677,0.0618701,-0.172766,0.360404,0.325359,1.02574,-0.0890117,-0.00685167,0.0821359,-0.078959,0.0416782,-1.87649,0.137522,0.139202,0.0552889,-0.00976812,-0.00398189,-0.01838,0.00650693,0.0201226,-0.00428889,9.98779e-05,0,0,0,0,0,0,0,0.967594,-29.829,0.738844,25.011,0.60577,2.3565,0.00376909,
0.0820266,-0.0789801,0.0418289,-1.87655,0.141816,0.138995,0.0552477,-0.00417964,-0.000809794,-0.00129244,0.00291541,0.087611,-0.00593573,-0.000619605,0.178337,-0.0519671,0.182781,0.0230468,0.456367,-0.107515,-0.00161775,0.0618701,-0.172766,0.360404,0.325359,1.02574,-0.0890117,-0.00685167,0.0821359,-0.078959,0.0416782,-1.87649,0.137522,0.139202,0.0552889,-0.00976812,-0.00398189,-0.01838,0.00650693,0.0201226,-0.00428889,9.98779e-05,0,0,0,0,0,0,0,0.967594,-29.829,0.738844,25.011,0.60577,2.3565,0.00376909,
0.0817781,-0.0790607,0.0414319,-1.87634,0.140193,0.139045,0.0552651,-0.00442861,-0.00102069,-0.0015485,0.00302739,0.0867161,-0.00579998,-0.000615741,-0.155606,-0.13181,-0.160033,0.0699901,-0.559296,0.0848449,0.00241502,0.0618701,-0.172766,0.360404,0.325359,1.02574,-0.0890117,-0.00685167,0.0821359,-0.078959,0.0416782,-1.87649,0.137522,0.139202,0.0552889,-0.00976812,-0.00398189,-0.01838,0.00650693,0.0201226,-0.00428889,9.98779e-05,0,0,0,0,0,0,0,0.967594,-29.829,0.738844,25.011,0.60577,2.3565,0.00376909,
0.0817443,-0.0790747,0.0414211,-1.87631,0.14089,0.138998,0.0552602,-0.00438786,-0.00116667,-0.00150849,0.00310361,0.0868065,-0.00581278,-0.000615189,0.0254671,-0.0912377,0.0250023,0.0476349,0.0564893,-0.00799885,0.000344616,0.0618724,-0.171334,0.359946,0.32402,1.02476,-0.0905,-0.00684199,0.0819496,-0.0789607,0.0414514,-1.87616,0.137719,0.139189,0.0552888,-0.00734971,-0.00465507,-0.00194981,0.0119981,0.0283626,-0.00224067,0.00123049,0.3023,-0.0841479,2.05378,0.6864,1.03,0.256029,0.141327,0.562931,-30.4796,0.238966,25.4077,0.581051,2.4096,-0.0227812,
0.0817183,-0.0790882,0.0414183,-1.87629,0.141611,0.138947,0.0552552,-0.00416027,-0.00127107,-0.00127698,0.00315438,0.0874755,-0.00592727,-0.000617131,0.142246,-0.0652507,0.144692,0.0317294,0.418115,-0.0715542,-0.00121382,0.0618724,-0.171334,0.359946,0.32402,1.02476,-0.0905,-0.00684199,0.0819496,-0.0789607,0.0414514,-1.87616,0.137719,0.139189,0.0552888,-0.00734971,-0.00465507,-0.00194981,0.0119981,0.0283626,-0.00224067,0.00123049,0,0,0,0,0,0,0,0.562931,-30.4796,0.238966,25.4077,0.581051,2.4096,-0.0227812,
0.0816986,-0.0791015,0.041422,-1.87626,0.14235,0.138892,0.0552502,-0.00382064,-0.00134868,-0.000930241,0.00318723,0.0884543,-0.0061064,-0.000620786,0.212265,-0.0485076,0.216714,0.0205304,0.611763,-0.11196,-0.00228402,0.0618724,-0.171334,0.359946,0.32402,1.02476,-0.0905,-0.00684199,0.0819496,-0.0789607,0.0414514,-1.87616,0.137719,0.139189,0.0552888,-0.00734971,-0.00465507,-0.00194981,0.0119981,0.0283626,-0.00224067,0.00123049,0,0,0,0,0,0,0,0.562931,-30.4796,0.238966,25.4077,0.581051,2.4096,-0.0227812,
0.0817687,-0.0791177,0.0413892,-1.87596,0.140723,0.139111,0.0552609,-0.00363855,-0.00165139,-0.000742317,0.00337579,0.0886266,-0.00577604,-0.000626621,0.113805,-0.189193,0.117453,0.117853,0.107687,0.206478,-0.00364709,0.0618724,-0.171334,0.359946,0.32402,1.02476,-0.0905,-0.00684199,0.0819496,-0.0789607,0.0414514,-1.87616,0.137719,0.139189,0.0552888,-0.00734971,-0.00465507,-0.00194981,0.0119981,0.0283626,-0.00224067,0.00123049,0,0,0,0,0,0,0,0.562931,-30.4796,0.238966,25.4077,0.581051,2.4096,-0.0227812,
0.0817508,-0.0791383,0.0413947,-1.87593,0.141461,0.139068,0.0552558,-0.0033599,-0.00183685,-0.000457228,0.00348834,0.0893474,-0.00568978,-0.000631233,0.17416,-0.115911,0.178181,0.0703445,0.450481,0.0539099,-0.0028827,0.0617781,-0.172058,0.360271,0.322911,1.02393,-0.0919695,-0.006833,0.0818926,-0.0790039,0.0415523,-1.87585,0.137897,0.13917,0.0552915,-0.00529597,-0.00575851,0.00555186,0.00830612,0.0258867,-0.00623845,0.000386384,0.256718,-0.137929,0.937709,-0.461501,-0.309485,-0.499724,-0.105514,0.816837,-30.0789,0.536512,25.6061,0.727535,2.52221,-0.00996382,
0.0817373,-0.0791573,0.0414047,-1.8759,0.142215,0.139019,0.0552505,-0.00302503,-0.00194424,-0.00011495,0.00354787,0.0903264,-0.00576417,-0.00063546,0.209294,-0.0671202,0.213923,0.0372028,0.611893,-0.0464921,-0.00264133,0.0617781,-0.172058,0.360271,0.322911,1.02393,-0.0919695,-0.006833,0.0818926,-0.0790039,0.0415523,-1.87585,0.137897,0.13917,0.0552915,-0.00529597,-0.00575851,0.00555186,0.00830612,0.0258867,-0.00623845,0.000386384,0,0,0,0,0,0,0,0.816837,-30.0789,0.536512,25.6061,0.727535,2.52221,-0.00996382,
0.0817275,-0.0791751,0.0414186,-1.87587,0.14298,0.138966,0.0552453,-0.00266454,-0.00200035,0.000253816,0.00357111,0.091389,-0.00593872,-0.000639595,0.225307,-0.0350676,0.230479,0.0145244,0.664136,-0.109094,-0.00258468,0.0617781,-0.172058,0.360271,0.322911,1.02393,-0.0919695,-0.006833,0.0818926,-0.0790039,0.0415523,-1.87585,0.137897,0.13917,0.0552915,-0.00529597,-0.00575851,0.00555186,0.00830612,0.0258867,-0.00623845,0.000386384,0,0,0,0,0,0,0,0.816837,-30.0789,0.536512,25.6061,0.727535,2.52221,-0.00996382,
0.0817963,-0.0791532,0.041579,-1.87567,0.140958,0.138952,0.0552613,-0.00248447,-0.00212701,0.000443256,0.00360777,0.0913421,-0.00607128,-0.000646436,0.112539,-0.0791631,0.1184,0.0229145,-0.0293599,-0.0828523,-0.00427547,0.0617781,-0.172058,0.360271,0.322911,1.02393,-0.0919695,-0.006833,0.0818926,-0.0790039,0.0415523,-1.87585,0.137897,0.13917,0.0552915,-0.00529597,-0.00575851,0.00555186,0.00830612,0.0258867,-0.00623845,0.000386384,0,0,0,0,0,0,0,0.816837,-30.0789,0.536512,25.6061,0.727535,2.52221,-0.00996382,
0.0817854,-0.0791723,0.0415919,-1.87565,0.141708,0.138895,0.0552559,-0.00225815,-0.00217838,0.000676807,0.00361451,0.0918401,-0.00626468,-0.000650497,0.14145,-0.0321045,0.145969,0.00421306,0.311285,-0.120876,-0.00253837,0.0618529,-0.173376,0.360766,0.321384,1.02315,-0.0938336,-0.00682264,0.0818527,-0.0790836,0.0416077,-1.87554,0.138075,0.139194,0.0552918,-0.0032418,-0.000363597,0.0019408,0.0127184,0.0178265,-0.00165158,0.000516155,0.256771,0.674364,-0.451383,0.551541,-1.00752,0.573359,0.0162213,0.995365,-29.7536,0.687269,25.0348,0.868527,2.29058,-0.0163725,
0.0817775,-0.07919,0.0416078,-1.87562,0.142473,0.138836,0.0552506,-0.0020038,-0.00218505,0.000937782,0.00360167,0.0925894,-0.00649157,-0.000653363,0.15897,-0.00417062,0.16311,-0.0080273,0.468279,-0.141803,-0.0017913,0.0618529,-0.173376,0.360766,0.321384,1.02315,-0.0938336,-0.00682264,0.0818527,-0.0790836,0.0416077,-1.87554,0.138075,0.139194,0.0552918,-0.0032418,-0.000363597,0.0019408,0.0127184,0.0178265,-0.00165158,0.000516155,0,0,0,0,0,0,0,0.995365,-29.7536,0.687269,25.0348,0.868527,2.29058,-0.0163725,
0.0817722,-0.0792067,0.0416262,-1.87559,0.143247,0.138775,0.0552453,-0.00173752,-0.00216653,0.0012107,0.00357669,0.093419,-0.00673227,-0.000655771,0.166429,0.0115784,0.170575,-0.0156094,0.518531,-0.15044,-0.00150495,0.0618529,-0.173376,0.360766,0.321384,1.02315,-0.0938336,-0.00682264,0.0818527,-0.0790836,0.0416077,-1.87554,0.138075,0.139194,0.0552918,-0.0032418,-0.000363597,0.0019408,0.0127184,0.0178265,-0.00165158,0.000516155,0,0,0,0,0,0,0,0.995365,-29.7536,0.687269,25.0348,0.868527,2.29058,-0.0163725,
0.0817293,-0.0791787,0.041607,-1.87537,0.141017,0.139098,0.0552611,-0.00183771,-0.00214429,0.00111317,0.00358062,0.0926427,-0.00648747,-0.000658589,-0.0626235,0.0138948,-0.0609593,0.00245475,-0.485183,0.153,-0.00176119,0.0618529,-0.173376,0.360766,0.321384,1.02315,-0.0938336,-0.00682264,0.0818527,-0.0790836,0.0416077,-1.87554,0.138075,0.139194,0.0552918,-0.0032418,-0.000363597,0.0019408,0.0127184,0.0178265,-0.00165158,0.000516155,0,0,0,0,0,0,0,0.995365,-29.7536,0.687269,25.0348,0.868527,2.29058,-0.0163725,
0.0817154,-0.0791943,0.0416167,-1.87534,0.141757,0.139047,0.0552558,-0.00181854,-0.00210693,0.00113417,0.0035658,0.0926245,-0.00646982,-0.000659334,0.0119872,0.0233554,0.0131259,-0.00926143,-0.0113743,0.011035,-0.000465783,0.0618429,-0.175469,0.361471,0.319844,1.02233,-0.0956699,-0.00681195,0.0819363,-0.0791795,0.0417679,-1.87522,0.138259,0.13919,0.0552919,-0.00128203,0.000518835,0.00390644,0.0128091,0.0264593,-0.00261092,0.00130378,0.244971,0.110304,0.245705,0.0113355,1.0791,-0.119916,0.0984534,0.0551182,-29.9519,-0.213304,24.9832,0.660702,2.32354,-0.0163725,
0.081705,-0.0792095,0.04163,-1.87531,0.142514,0.13899,0.0552506,-0.0017155,-0.00206419,0.00123956,0.00353977,0.0930128,-0.00658802,-0.000659552,0.0643993,0.0267113,0.0658687,-0.0162692,0.242667,-0.0738767,-0.000135881,0.0618429,-0.175469,0.361471,0.319844,1.02233,-0.0956699,-0.00681195,0.0819363,-0.0791795,0.0417679,-1.87522,0.138259,0.13919,0.0552919,-0.00128203,0.000518835,0.00390644,0.0128091,0.0264593,-0.00261092,0.00130378,0,0,0,0,0,0,0,0.0551182,-29.9519,-0.213304,24.9832,0.660702,2.32354,-0.0163725,
0.0816975,-0.0792243,0.0416464,-1.87528,0.143281,0.13893,0.0552453,-0.00155829,-0.00202163,0.00140008,0.00350766,0.0935945,-0.00678144,-0.000659892,0.0982554,0.0265995,0.100323,-0.0200704,0.363544,-0.120889,-0.000212529,0.0618429,-0.175469,0.361471,0.319844,1.02233,-0.0956699,-0.00681195,0.0819363,-0.0791795,0.0417679,-1.87522,0.138259,0.13919,0.0552919,-0.00128203,0.000518835,0.00390644,0.0128091,0.0264593,-0.00261092,0.00130378,0,0,0,0,0,0,0,0.0551182,-29.9519,-0.213304,24.9832,0.660702,2.32354,-0.0163725,
0.0818574,-0.0792648,0.0418129,-1.87506,0.141354,0.139066,0.055261,-0.00155497,-0.002013,0.00140897,0.00350821,0.0931817,-0.00664836,-0.000663676,0.00207534,0.00539482,0.00555671,0.000346099,-0.257968,0.0831773,-0.00236507,0.0618429,-0.175469,0.361471,0.319844,1.02233,-0.0956699,-0.00681195,0.0819363,-0.0791795,0.0417679,-1.87522,0.138259,0.13919,0.0552919,-0.00128203,0.000518835,0.00390644,0.0128091,0.0264593,-0.00261092,0.00130378,0,0,0,0,0,0,0,0.0551182,-29.9519,-0.213304,24.9832,0.660702,2.32354,-0.0163725,
0.0818479,-0.0792801,0.0418273,-1.87503,0.142106,0.139011,0.0552556,-0.00148055,-0.0019931,0.00148698,0.00349387,0.0933589,-0.00670752,-0.000664859,0.0465077,0.0124384,0.0487564,-0.00896367,0.110712,-0.0369743,-0.000739733,0.0618691,-0.175885,0.362095,0.318536,1.02181,-0.0974198,-0.00680244,0.0819489,-0.079211,0.0419662,-1.87488,0.138381,0.13919,0.0552899,-0.00420251,-0.000287687,-0.00164033,0.00721003,0.0157646,-0.00287153,0.000187354,-0.36506,-0.100815,-0.693346,-0.699888,-1.33684,-0.0325762,-0.139553,0.158268,-29.5552,-0.0387439,24.8602,0.782467,2.32354,0.00376909,
0.0818411,-0.0792951,0.0418444,-1.875,0.142872,0.13895,0.0552503,-0.00135563,-0.00196877,0.00161519,0.00347074,0.0938306,-0.00687507,-0.000665131,0.0780751,0.0152044,0.0801358,-0.0144551,0.294855,-0.10472,-0.00016983,0.0618691,-0.175885,0.362095,0.318536,1.02181,-0.0974198,-0.00680244,0.0819489,-0.079211,0.0419662,-1.87488,0.138381,0.13919,0.0552899,-0.00420251,-0.000287687,-0.00164033,0.00721003,0.0157646,-0.00287153,0.000187354,0,0,0,0,0,0,0,0.158268,-29.5552,-0.0387439,24.8602,0.782467,2.32354,0.00376909,
0.0817837,-0.0792655,0.0419228,-1.87476,0.141221,0.138987,0.0552605,-0.00165129,-0.0018431,0.00131745,0.00337934,0.0925893,-0.00695255,-0.000663212,-0.184786,0.0785413,-0.186091,-0.0571256,-0.775828,-0.0484255,0.00119929,0.0618691,-0.175885,0.362095,0.318536,1.02181,-0.0974198,-0.00680244,0.0819489,-0.079211,0.0419662,-1.87488,0.138381,0.13919,0.0552899,-0.00420251,-0.000287687,-0.00164033,0.00721003,0.0157646,-0.00287153,0.000187354,0,0,0,0,0,0,0,0.158268,-29.5552,-0.0387439,24.8602,0.782467,2.32354,0.00376909,
0.081766,-0.0792765,0.0419288,-1.87473,0.141949,0.138924,0.0552553,-0.00176348,-0.00174969,0.00120386,0.00331013,0.0922632,-0.00712776,-0.000660819,-0.070118,0.0583847,-0.0709933,-0.0432589,-0.203812,-0.109509,0.00149593,0.0618691,-0.175885,0.362095,0.318536,1.02181,-0.0974198,-0.00680244,0.0819489,-0.079211,0.0419662,-1.87488,0.138381,0.13919,0.0552899,-0.00420251,-0.000287687,-0.00164033,0.00721003,0.0157646,-0.00287153,0.000187354,0,0,0,0,0,0,0,0.158268,-29.5552,-0.0387439,24.8602,0.782467,2.32354,0.00376909,
0.0817526,-0.0792879,0.0419391,-1.87471,0.142695,0.138858,0.0552501,-0.00174606,-0.00168413,0.00122145,0.00325811,0.0924603,-0.00734989,-0.000658988,0.0108862,0.0409756,0.0109934,-0.0325079,0.123162,-0.138827,0.00114408,0.0618691,-0.175885,0.362095,0.318536,1.02181,-0.0974198,-0.00680244,0.0819489,-0.079211,0.0419662,-1.87488,0.138381,0.13919,0.0552899,-0.00420251,-0.000287687,-0.00164033,0.00721003,0.0157646,-0.00287153,0.000187354,0,0,0,0,0,0,0,0.158268,-29.5552,-0.0387439,24.8602,0.782467,2.32354,0.00376909,
0.0817428,-0.0792996,0.0419531,-1.87468,0.143454,0.13879,0.0552449,-0.00164207,-0.00164137,0.00132729,0.00321937,0.0929353,-0.00758717,-0.00065803,0.0649947,0.0267242,0.0661487,-0.024214,0.296878,-0.148301,0.000599183,0.061871,-0.175,0.362288,0.317534,1.02145,-0.0987312,-0.00679505,0.0820045,-0.0792071,0.04204,-1.87459,0.138452,0.139183,0.0552878,-0.00316384,0.000166382,-0.000473737,0.00651594,0.013593,-0.00109682,-0.000782647,0.129833,0.0567587,0.145824,-0.0867606,-0.271451,0.221838,-0.12125,0.0313145,-29.9281,-0.213304,25.2847,0.837399,2.39037,0.0239107,
0.0818561,-0.0792501,0.0420143,-1.87447,0.141283,0.138985,0.0552575,-0.00184013,-0.00154933,0.00112966,0.00315938,0.0919058,-0.00756054,-0.000658621,-0.123786,0.0575226,-0.123517,-0.037493,-0.643403,0.0166423,-0.000369323,0.061871,-0.175,0.362288,0.317534,1.02145,-0.0987312,-0.00679505,0.0820045,-0.0792071,0.04204,-1.87459,0.138452,0.139183,0.0552878,-0.00316384,0.000166382,-0.000473737,0.00651594,0.013593,-0.00109682,-0.000782647,0,0,0,0,0,0,0,0.0313145,-29.9281,-0.213304,25.2847,0.837399,2.39037,0.0239107,
0.0818397,-0.0792601,0.0420216,-1.87444,0.142012,0.13892,0.0552522,-0.00188409,-0.00149004,0.00108576,0.00311877,0.0917505,-0.00765808,-0.000657833,-0.0274746,0.0370594,-0.027436,-0.0253836,-0.0970566,-0.0609647,0.00049225,0.061871,-0.175,0.362288,0.317534,1.02145,-0.0987312,-0.00679505,0.0820045,-0.0792071,0.04204,-1.87459,0.138452,0.139183,0.0552878,-0.00316384,0.000166382,-0.000473737,0.00651594,0.013593,-0.00109682,-0.000782647,0,0,0,0,0,0,0,0.0313145,-29.9281,-0.213304,25.2847,0.837399,2.39037,0.0239107,
0.0818272,-0.0792707,0.0420329,-1.87442,0.142759,0.138853,0.055247,-0.00181926,-0.00145713,0.00115157,0.00309237,0.0920811,-0.00781954,-0.00065703,0.0405174,0.0205666,0.0411279,-0.0164961,0.206624,-0.100913,0.000501932,0.061871,-0.175,0.362288,0.317534,1.02145,-0.0987312,-0.00679505,0.0820045,-0.0792071,0.04204,-1.87459,0.138452,0.139183,0.0552878,-0.00316384,0.000166382,-0.000473737,0.00651594,0.013593,-0.00109682,-0.000782647,0,0,0,0,0,0,0,0.0313145,-29.9281,-0.213304,25.2847,0.837399,2.39037,0.0239107,
0.0818181,-0.0792819,0.0420477,-1.87439,0.143519,0.138783,0.0552418,-0.00168266,-0.00144449,0.00129041,0.0030763,0.0926581,-0.00800753,-0.000656725,0.0853752,0.00790173,0.0867779,-0.0100437,0.360638,-0.117488,0.000190389,0.0618519,-0.174243,0.362375,0.316648,1.02111,-0.0998748,-0.00678831,0.0820505,-0.0792086,0.0420727,-1.87434,0.138516,0.139185,0.0552884,-0.00258338,0.00122566,0.00169568,0.00999135,0.0118952,-0.00303054,-0.00103013,0.0725584,0.132409,0.271177,0.434426,-0.212224,-0.241715,-0.0309359,-0.119442,-29.9519,-0.435472,25.3085,0.752255,2.37023,0.017502,
0.0819242,-0.0792588,0.0420704,-1.8742,0.141365,0.139004,0.0552571,-0.00181437,-0.00142599,0.00116047,0.00306993,0.0918026,-0.00785104,-0.000658892,-0.0823159,0.0115605,-0.0812115,-0.00398591,-0.534719,0.0978064,-0.0013543,0.0618519,-0.174243,0.362375,0.316648,1.02111,-0.0998748,-0.00678831,0.0820505,-0.0792086,0.0420727,-1.87434,0.138516,0.139185,0.0552884,-0.00258338,0.00122566,0.00169568,0.00999135,0.0118952,-0.00303054,-0.00103013,0,0,0,0,0,0,0,-0.119442,-29.9519,-0.435472,25.3085,0.752255,2.37023,0.017502,
0.0819095,-0.0792699,0.0420795,-1.87418,0.142099,0.138941,0.0552518,-0.0018183,-0.00141947,0.00115718,0.00306693,0.0917701,-0.00786303,-0.000658933,-0.00245814,0.00407706,-0.00205491,-0.00187494,-0.0203284,-0.00749911,-2.5803e-05,0.0618519,-0.174243,0.362375,0.316648,1.02111,-0.0998748,-0.00678831,0.0820505,-0.0792086,0.0420727,-1.87434,0.138516,0.139185,0.0552884,-0.00258338,0.00122566,0.00169568,0.00999135,0.0118952,-0.00303054,-0.00103013,0,0,0,0,0,0,0,-0.119442,-29.9519,-0.435472,25.3085,0.752255,2.37023,0.017502,
0.0818984,-0.0792814,0.0420923,-1.87415,0.142849,0.138874,0.0552465,-0.00173131,-0.00142366,0.0012453,0.00306645,0.0921818,-0.0079694,-0.000658508,0.0543677,-0.00261858,0.0550697,-0.000295226,0.257341,-0.0664816,0.000266001,0.0618519,-0.174243,0.362375,0.316648,1.02111,-0.0998748,-0.00678831,0.0820505,-0.0792086,0.0420727,-1.87434,0.138516,0.139185,0.0552884,-0.00258338,0.00122566,0.00169568,0.00999135,0.0118952,-0.00303054,-0.00103013,0,0,0,0,0,0,0,-0.119442,-29.9519,-0.435472,25.3085,0.752255,2.37023,0.017502,
0.0818904,-0.0792933,0.0421082,-1.87413,0.143612,0.138804,0.0552413,-0.00158453,-0.00143642,0.00139422,0.00306775,0.0928078,-0.00812309,-0.000658309,0.0917368,-0.0079766,0.0930771,0.000812691,0.391266,-0.0960559,0.000123974,0.0618766,-0.172734,0.362347,0.31579,1.02084,-0.100903,-0.00678247,0.0820217,-0.0791903,0.0420633,-1.8741,0.138567,0.139187,0.0552903,-0.00206832,0.000545711,-0.00139094,0.010999,0.0198719,-0.00267574,-0.000128873,0.0643821,-0.0849932,-0.385827,0.125957,0.997086,0.0443503,0.112658,0.285221,-30.1781,0.0128308,25.3085,0.813595,2.35009,-0.0026396,
0.0818812,-0.0792594,0.0420448,-1.87395,0.141499,0.139033,0.0552602,-0.001759,-0.00148087,0.00121799,0.00311197,0.0920218,-0.00784169,-0.000658607,-0.109045,-0.0277819,-0.110142,0.0276347,-0.491304,0.175876,-0.000186264,0.0618766,-0.172734,0.362347,0.31579,1.02084,-0.100903,-0.00678247,0.0820217,-0.0791903,0.0420633,-1.8741,0.138567,0.139187,0.0552903,-0.00206832,0.000545711,-0.00139094,0.010999,0.0198719,-0.00267574,-0.000128873,0,0,0,0,0,0,0,0.285221,-30.1781,0.0128308,25.3085,0.813595,2.35009,-0.0026396,
0.0818659,-0.0792725,0.0420533,-1.87392,0.142234,0.138973,0.055255,-0.0017892,-0.00151267,0.00118648,0.00313924,0.0920002,-0.0077743,-0.000657732,-0.0188695,-0.0198769,-0.019698,0.017043,-0.0134563,0.0421174,0.000547448,0.0618766,-0.172734,0.362347,0.31579,1.02084,-0.100903,-0.00678247,0.0820217,-0.0791903,0.0420633,-1.8741,0.138567,0.139187,0.0552903,-0.00206832,0.000545711,-0.00139094,0.010999,0.0198719,-0.00267574,-0.000128873,0,0,0,0,0,0,0,0.285221,-30.1781,0.0128308,25.3085,0.813595,2.35009,-0.0026396,
0.0818544,-0.0792856,0.0420656,-1.8739,0.142986,0.138909,0.0552498,-0.00171822,-0.00153767,0.00125752,0.00315485,0.0923948,-0.00783566,-0.000656908,0.0443607,-0.0156242,0.0444039,0.00975831,0.246582,-0.0383451,0.000514762,0.0618766,-0.172734,0.362347,0.31579,1.02084,-0.100903,-0.00678247,0.0820217,-0.0791903,0.0420633,-1.8741,0.138567,0.139187,0.0552903,-0.00206832,0.000545711,-0.00139094,0.010999,0.0198719,-0.00267574,-0.000128873,0,0,0,0,0,0,0,0.285221,-30.1781,0.0128308,25.3085,0.813595,2.35009,-0.0026396,
0.0818697,-0.0793058,0.0420261,-1.87371,0.141475,0.139027,0.0552589,-0.00194685,-0.00162733,0.00102519,0.00321816,0.0915028,-0.00756594,-0.000655776,-0.142895,-0.0560388,-0.145205,0.0395677,-0.557481,0.168575,0.000707222,0.0618745,-0.172545,0.362442,0.31495,1.02062,-0.102027,-0.00677605,0.0820383,-0.0792104,0.0420739,-1.87387,0.138603,0.139181,0.0552885,-0.00255536,-0.00120004,-0.00379874,0.0110327,0.0174201,-0.00326571,-0.00100145,-0.0608803,-0.218219,-0.300975,0.00421462,-0.306475,-0.073746,-0.109072,0.209842,-29.9281,0.0128308,25.257,0.807186,2.4096,0.017502,
0.0818519,-0.0793209,0.0420319,-1.87368,0.142204,0.138969,0.0552537,-0.00200316,-0.00167944,0.000966619,0.00325301,0.0914348,-0.00751009,-0.000654141,-0.0351948,-0.0325638,-0.0366087,0.0217823,-0.0425042,0.0349031,0.00102211,0.0618745,-0.172545,0.362442,0.31495,1.02062,-0.102027,-0.00677605,0.0820383,-0.0792104,0.0420739,-1.87387,0.138603,0.139181,0.0552885,-0.00255536,-0.00120004,-0.00379874,0.0110327,0.0174201,-0.00326571,-0.00100145,0,0,0,0,0,0,0,0.209842,-29.9281,0.0128308,25.257,0.807186,2.4096,0.017502,
0.0818384,-0.0793355,0.0420422,-1.87365,0.142951,0.138906,0.0552485,-0.00193965,-0.00170898,0.00102992,0.00326851,0.091823,-0.00758676,-0.00065299,0.0396959,-0.0184677,0.0395612,0.00968393,0.242663,-0.047919,0.000719553,0.0618745,-0.172545,0.362442,0.31495,1.02062,-0.102027,-0.00677605,0.0820383,-0.0792104,0.0420739,-1.87387,0.138603,0.139181,0.0552885,-0.00255536,-0.00120004,-0.00379874,0.0110327,0.0174201,-0.00326571,-0.00100145,0,0,0,0,0,0,0,0.209842,-29.9281,0.0128308,25.257,0.807186,2.4096,0.017502,
0.0818285,-0.0793498,0.0420562,-1.87363,0.14371,0.138839,0.0552433,-0.00179792,-0.00172534,0.0011734,0.00327113,0.0924398,-0.00774048,-0.000652613,0.0885799,-0.0102239,0.0896776,0.00163683,0.385464,-0.0960731,0.000235144,0.0618745,-0.172545,0.362442,0.31495,1.02062,-0.102027,-0.00677605,0.0820383,-0.0792104,0.0420739,-1.87387,0.138603,0.139181,0.0552885,-0.00255536,-0.00120004,-0.00379874,0.0110327,0.0174201,-0.00326571,-0.00100145,0,0,0,0,0,0,0,0.209842,-29.9281,0.0128308,25.257,0.807186,2.4096,0.017502,
0.0818697,-0.0793058,0.0420261,-1.87371,0.141475,0.139027,0.0552589,-0.00201061,-0.00177747,0.000957897,0.00331118,0.0915388,-0.00748979,-0.000652341,-0.132932,-0.03258,-0.13469,0.0250336,-0.56311,0.156678,0.000170415,0.06188,-0.171409,0.362557,0.313817,1.02038,-0.103486,-0.00676791,0.0820476,-0.0792056,0.0421187,-1.87355,0.138638,0.139181,0.0552878,-0.000674004,-0.000564677,-0.00294949,0.0112814,0.0211073,-0.00237314,-0.000489396,0.23517,0.0794208,0.106156,0.0310853,0.460908,0.111571,0.0640071,0.209842,-30.1781,-0.0387439,25.3601,0.782467,2.41692,0.0239107,
0.0818519,-0.0793209,0.0420319,-1.87368,0.142204,0.138969,0.0552537,-0.00205417,-0.00179955,0.000912782,0.00332743,0.0914636,-0.00744918,-0.000651392,-0.0272246,-0.0137967,-0.0281967,0.0101549,-0.0470067,0.0253853,0.000592669,0.06188,-0.171409,0.362557,0.313817,1.02038,-0.103486,-0.00676791,0.0820476,-0.0792056,0.0421187,-1.87355,0.138638,0.139181,0.0552878,-0.000674004,-0.000564677,-0.00294949,0.0112814,0.0211073,-0.00237314,-0.000489396,0,0,0,0,0,0,0,0.209842,-30.1781,-0.0387439,25.3601,0.782467,2.41692,0.0239107,
0.0818384,-0.0793355,0.0420422,-1.87365,0.142951,0.138906,0.0552485,-0.00198046,-0.00180507,0.000986847,0.00332804,0.0918461,-0.00753803,-0.000650791,0.0460721,-0.00345406,0.0462908,0.000382075,0.239061,-0.0555332,0.000375996,0.06188,-0.171409,0.362557,0.313817,1.02038,-0.103486,-0.00676791,0.0820476,-0.0792056,0.0421187,-1.87355,0.138638,0.139181,0.0552878,-0.000674004,-0.000564677,-0.00294949,0.0112814,0.0211073,-0.00237314,-0.000489396,0,0,0,0,0,0,0,0.209842,-30.1781,-0.0387439,25.3601,0.782467,2.41692,0.0239107,
0.0818285,-0.0793498,0.0420562,-1.87363,0.14371,0.138839,0.0552433,-0.00183057,-0.00180221,0.00113895,0.00331875,0.0924582,-0.00770149,-0.000650854,0.0936809,0.001787,0.0950613,-0.00580465,0.382582,-0.102165,-3.97012e-05,0.06188,-0.171409,0.362557,0.313817,1.02038,-0.103486,-0.00676791,0.0820476,-0.0792056,0.0421187,-1.87355,0.138638,0.139181,0.0552878,-0.000674004,-0.000564677,-0.00294949,0.0112814,0.0211073,-0.00237314,-0.000489396,0,0,0,0,0,0,0,0.209842,-30.1781,-0.0387439,25.3601,0.782467,2.41692,0.0239107,
0.0819068,-0.0792945,0.0420994,-1.87339,0.141587,0.139033,0.0552578,-0.00195385,-0.00182906,0.00101571,0.0033466,0.0917789,-0.00748541,-0.000652216,-0.0770545,-0.0167807,-0.0770195,0.0174035,-0.424569,0.135049,-0.00085102,0.0618986,-0.171268,0.362725,0.312525,1.02022,-0.105187,-0.00675887,0.0820579,-0.0792365,0.0421404,-1.87324,0.138652,0.13919,0.0552857,-0.00224066,0.000603808,-0.00233179,0.00863664,0.0229916,-0.00171169,-0.000997355,-0.195832,0.146061,0.077212,-0.330595,0.235532,0.0826818,-0.0634949,0.233646,-29.9043,0.0366345,25.134,0.874935,2.32995,0.0303194,
0.0818916,-0.0793094,0.042108,-1.87336,0.142324,0.138974,0.0552526,-0.00194291,-0.00183472,0.00102696,0.00335335,0.0918316,-0.00748019,-0.00065226,0.00684013,-0.00353768,0.0070269,0.00422282,0.0329582,0.00326591,-2.77201e-05,0.0618986,-0.171268,0.362725,0.312525,1.02022,-0.105187,-0.00675887,0.0820579,-0.0792365,0.0421404,-1.87324,0.138652,0.13919,0.0552857,-0.00224066,0.000603808,-0.00233179,0.00863664,0.0229916,-0.00171169,-0.000997355,0,0,0,0,0,0,0,0.233646,-29.9043,0.0366345,25.134,0.874935,2.32995,0.0303194,
0.0818802,-0.0793238,0.0421204,-1.87334,0.143076,0.138909,0.0552474,-0.00183909,-0.00182943,0.00113227,0.00334657,0.0922775,-0.00760089,-0.00065221,0.0648891,0.00330633,0.06582,-0.00423791,0.278652,-0.0754374,3.16662e-05,0.0618986,-0.171268,0.362725,0.312525,1.02022,-0.105187,-0.00675887,0.0820579,-0.0792365,0.0421404,-1.87324,0.138652,0.13919,0.0552857,-0.00224066,0.000603808,-0.00233179,0.00863664,0.0229916,-0.00171169,-0.000997355,0,0,0,0,0,0,0,0.233646,-29.9043,0.0366345,25.134,0.874935,2.32995,0.0303194,
0.081911,-0.079289,0.0421152,-1.8731,0.141601,0.139003,0.055256,-0.00197486,-0.00174158,0.000996392,0.00329613,0.091581,-0.00757735,-0.000652679,-0.0848559,0.0549098,-0.0849236,-0.0315278,-0.4353,0.014711,-0.000293344,0.0618986,-0.171268,0.362725,0.312525,1.02022,-0.105187,-0.00675887,0.0820579,-0.0792365,0.0421404,-1.87324,0.138652,0.13919,0.0552857,-0.00224066,0.000603808,-0.00233179,0.00863664,0.0229916,-0.00171169,-0.000997355,0,0,0,0,0,0,0,0.233646,-29.9043,0.0366345,25.134,0.874935,2.32995,0.0303194,
0.0818954,-0.0793004,0.0421234,-1.87307,0.142336,0.138937,0.0552508,-0.0019707,-0.00167821,0.00100074,0.00325411,0.0916217,-0.0077034,-0.000652168,0.00259954,0.0396034,0.00271962,-0.0262625,0.0254552,-0.0787802,0.000319243,0.0618777,-0.170944,0.362785,0.311599,1.02015,-0.106507,-0.00675163,0.0820565,-0.0792526,0.0421548,-1.87298,0.138648,0.139198,0.055285,-0.00193396,-0.000239748,-0.00271681,0.00470861,0.0153498,-0.000812543,-0.00014731,0.0383381,-0.105445,-0.0481266,-0.491004,-0.955227,0.112393,0.106256,0.309024,-29.8052,0.112013,25.1855,1.13678,2.26403,0.017502,
0.0818836,-0.0793121,0.0421355,-1.87305,0.143086,0.138867,0.0552456,-0.00186997,-0.00163534,0.00110286,0.00321944,0.0920626,-0.0079084,-0.000651773,0.0629526,0.0267933,0.0638209,-0.021665,0.275541,-0.128124,0.000247223,0.0618777,-0.170944,0.362785,0.311599,1.02015,-0.106507,-0.00675163,0.0820565,-0.0792526,0.0421548,-1.87298,0.138648,0.139198,0.055285,-0.00193396,-0.000239748,-0.00271681,0.00470861,0.0153498,-0.000812543,-0.00014731,0,0,0,0,0,0,0,0.309024,-29.8052,0.112013,25.1855,1.13678,2.26403,0.017502,
0.0818752,-0.0793241,0.0421509,-1.87303,0.143848,0.138794,0.0552404,-0.00170744,-0.00160888,0.00126813,0.00319106,0.0926962,-0.00814757,-0.000651878,0.101585,0.0165385,0.103297,-0.0177398,0.396005,-0.149485,-6.5586e-05,0.0618777,-0.170944,0.362785,0.311599,1.02015,-0.106507,-0.00675163,0.0820565,-0.0792526,0.0421548,-1.87298,0.138648,0.139198,0.055285,-0.00193396,-0.000239748,-0.00271681,0.00470861,0.0153498,-0.000812543,-0.00014731,0,0,0,0,0,0,0,0.309024,-29.8052,0.112013,25.1855,1.13678,2.26403,0.017502,
0.0819009,-0.0792894,0.0421214,-1.87287,0.141482,0.138959,0.0552555,-0.00190947,-0.0014965,0.00106551,0.00311179,0.09167,-0.00819771,-0.000652257,-0.126267,0.0702402,-0.126637,-0.0495409,-0.64141,-0.0313331,-0.000236856,0.0618777,-0.170944,0.362785,0.311599,1.02015,-0.106507,-0.00675163,0.0820565,-0.0792526,0.0421548,-1.87298,0.138648,0.139198,0.055285,-0.00193396,-0.000239748,-0.00271681,0.00470861,0.0153498,-0.000812543,-0.00014731,0,0,0,0,0,0,0,0.309024,-29.8052,0.112013,25.1855,1.13678,2.26403,0.017502,
0.081884,-0.0792985,0.0421282,-1.87284,0.142209,0.138887,0.0552503,-0.00195243,-0.0014245,0.00102202,0.0030584,0.0915141,-0.00834758,-0.000651504,-0.0268526,0.0449943,-0.0271833,-0.0333736,-0.0974245,-0.0936737,0.00047029,0.0618777,-0.170944,0.362785,0.311599,1.02015,-0.106507,-0.00675163,0.0820565,-0.0792526,0.0421548,-1.87298,0.138648,0.139198,0.055285,-0.00193396,-0.000239748,-0.00271681,0.00470861,0.0153498,-0.000812543,-0.00014731,0,0,0,0,0,0,0,0.309024,-29.8052,0.112013,25.1855,1.13678,2.26403,0.017502,
0.0818711,-0.0793083,0.0421391,-1.87282,0.142955,0.138813,0.0552451,-0.00188381,-0.00138433,0.00109128,0.00302388,0.0918445,-0.0085439,-0.000650858,0.0428852,0.0251063,0.0432879,-0.0215759,0.206505,-0.1227,0.000404137,0.0618724,-0.171273,0.362934,0.310598,1.01975,-0.107807,-0.00674406,0.082075,-0.0792925,0.0421601,-1.87273,0.138724,0.139197,0.0552919,-0.000493912,0.000213128,-0.00294342,0.00736905,0.0139701,-0.00137159,0.00087672,0.180006,0.0566095,-0.0283269,0.332555,-0.172464,-0.0698804,0.128004,-0.119442,-29.8805,-0.312487,25.1578,0.837399,2.29699,-0.0163725,
0.0818617,-0.0793187,0.0421536,-1.8728,0.143713,0.138736,0.0552399,-0.00174198,-0.00136822,0.00123518,0.00300301,0.0924232,-0.00875429,-0.000650762,0.0886442,0.0100747,0.089936,-0.0130391,0.361697,-0.13149,5.99188e-05,0.0618724,-0.171273,0.362934,0.310598,1.01975,-0.107807,-0.00674406,0.082075,-0.0792925,0.0421601,-1.87273,0.138724,0.139197,0.0552919,-0.000493912,0.000213128,-0.00294342,0.00736905,0.0139701,-0.00137159,0.00087672,0,0,0,0,0,0,0,-0.119442,-29.8805,-0.312487,25.1578,0.837399,2.29699,-0.0163725,
0.0819278,-0.0793409,0.0421354,-1.8726,0.141563,0.138986,0.0552622,-0.00191632,-0.00134867,0.00106078,0.00299421,0.0914982,-0.00860448,-0.000651837,-0.108963,0.0122161,-0.108998,-0.00550353,-0.578114,0.0936316,-0.000671767,0.0618724,-0.171273,0.362934,0.310598,1.01975,-0.107807,-0.00674406,0.082075,-0.0792925,0.0421601,-1.87273,0.138724,0.139197,0.0552919,-0.000493912,0.000213128,-0.00294342,0.00736905,0.0139701,-0.00137159,0.00087672,0,0,0,0,0,0,0,-0.119442,-29.8805,-0.312487,25.1578,0.837399,2.29699,-0.0163725,
0.0819115,-0.0793514,0.0421428,-1.87258,0.142292,0.138917,0.055257,-0.00194194,-0.00134299,0.00103491,0.00299021,0.0914174,-0.0086189,-0.000651437,-0.0160085,0.00355012,-0.0161715,-0.00249886,-0.0505322,-0.00901526,0.000249854,0.0618724,-0.171273,0.362934,0.310598,1.01975,-0.107807,-0.00674406,0.082075,-0.0792925,0.0421601,-1.87273,0.138724,0.139197,0.0552919,-0.000493912,0.000213128,-0.00294342,0.00736905,0.0139701,-0.00137159,0.00087672,0,0,0,0,0,0,0,-0.119442,-29.8805,-0.312487,25.1578,0.837399,2.29699,-0.0163725,
0.0818991,-0.0793624,0.0421543,-1.87255,0.143039,0.138844,0.0552518,-0.00186299,-0.0013493,0.00111462,0.00298967,0.0918009,-0.00872569,-0.000650941,0.0493401,-0.0039415,0.0498196,-0.000338683,0.239695,-0.0667412,0.000309765,0.0618891,-0.170948,0.363074,0.309928,1.01955,-0.10866,-0.00673904,0.0820765,-0.0793026,0.0421933,-1.87255,0.138766,0.139193,0.0552854,-0.0030887,-0.000990842,-0.00406639,0.0104018,0.0150899,-0.00128879,7.76282e-05,-0.324348,-0.150496,-0.140371,0.379095,0.139983,0.0103499,-0.0998865,-0.0956386,-29.9281,-0.360094,25.1578,0.800778,2.32995,0.017502,
0.0818901,-0.0793738,0.0421692,-1.87253,0.143798,0.138768,0.0552466,-0.00171558,-0.00136497,0.00126414,0.00299153,0.0924153,-0.00887898,-0.000650878,0.0921331,-0.00979617,0.0934535,0.00116659,0.38403,-0.0958065,3.92574e-05,0.0618891,-0.170948,0.363074,0.309928,1.01955,-0.10866,-0.00673904,0.0820765,-0.0793026,0.0421933,-1.87255,0.138766,0.139193,0.0552854,-0.0030887,-0.000990842,-0.00406639,0.0104018,0.0150899,-0.00128879,7.76282e-05,0,0,0,0,0,0,0,-0.0956386,-29.9281,-0.360094,25.1578,0.800778,2.32995,0.017502,
0.0818975,-0.0793903,0.0421353,-1.87239,0.141593,0.139043,0.0552563,-0.00197918,-0.00146722,0.000996522,0.00307393,0.0913887,-0.00847482,-0.000649885,-0.164752,-0.0639072,-0.167263,0.0515002,-0.641651,0.252599,0.000620606,0.0618891,-0.170948,0.363074,0.309928,1.01955,-0.10866,-0.00673904,0.0820765,-0.0793026,0.0421933,-1.87255,0.138766,0.139193,0.0552854,-0.0030887,-0.000990842,-0.00406639,0.0104018,0.0150899,-0.00128879,7.76282e-05,0,0,0,0,0,0,0,-0.0956386,-29.9281,-0.360094,25.1578,0.800778,2.32995,0.017502,
0.0818786,-0.0794047,0.0421401,-1.87236,0.142318,0.138981,0.0552511,-0.0020571,-0.00153401,0.000916144,0.00312463,0.0912375,-0.00832928,-0.000648378,-0.0486976,-0.0417447,-0.0502362,0.0316876,-0.0944739,0.0909658,0.000942368,0.0618891,-0.170948,0.363074,0.309928,1.01955,-0.10866,-0.00673904,0.0820765,-0.0793026,0.0421933,-1.87255,0.138766,0.139193,0.0552854,-0.0030887,-0.000990842,-0.00406639,0.0104018,0.0150899,-0.00128879,7.76282e-05,0,0,0,0,0,0,0,-0.0956386,-29.9281,-0.360094,25.1578,0.800778,2.32995,0.017502,
0.0818642,-0.0794188,0.0421495,-1.87234,0.143061,0.138914,0.055246,-0.00200557,-0.00157866,0.000967375,0.00315328,0.091578,-0.00834625,-0.000647362,0.032209,-0.0279068,0.0320191,0.0179064,0.212812,-0.0106119,0.00063476,0.0618627,-0.170884,0.36318,0.309386,1.01934,-0.109392,-0.00673494,0.0820946,-0.0793116,0.0422322,-1.87239,0.138804,0.139183,0.0552905,-0.00078478,-0.00285543,-0.00223698,0.00623593,0.0164526,-0.00164469,0.000496102,0.28799,-0.233073,0.228677,-0.520735,0.170332,-0.0444877,0.0523092,0.0551182,-30.1027,-0.137926,25.4315,0.782467,2.39037,-0.00996382,
0.0818536,-0.0794326,0.0421627,-1.87231,0.143818,0.138842,0.0552408,-0.00186905,-0.00160955,0.00110564,0.00316684,0.0921711,-0.00846038,-0.000647134,0.0853197,-0.0193071,0.086418,0.00847294,0.370658,-0.0713289,0.00014263,0.0618627,-0.170884,0.36318,0.309386,1.01934,-0.109392,-0.00673494,0.0820946,-0.0793116,0.0422322,-1.87239,0.138804,0.139183,0.0552905,-0.00078478,-0.00285543,-0.00223698,0.00623593,0.0164526,-0.00164469,0.000496102,0,0,0,0,0,0,0,0.0551182,-30.1027,-0.137926,25.4315,0.782467,2.39037,-0.00996382,
0.0819398,-0.0794147,0.0422236,-1.87222,0.142413,0.138885,0.0552557,-0.00188106,-0.00163291,0.00109458,0.00317025,0.0920419,-0.00850302,-0.000647675,-0.00750337,-0.0145999,-0.00691741,0.00213049,-0.0807397,-0.0266506,-0.000338244,0.0618627,-0.170884,0.36318,0.309386,1.01934,-0.109392,-0.00673494,0.0820946,-0.0793116,0.0422322,-1.87239,0.138804,0.139183,0.0552905,-0.00078478,-0.00285543,-0.00223698,0.00623593,0.0164526,-0.00164469,0.000496102,0,0,0,0,0,0,0,0.0551182,-30.1027,-0.137926,25.4315,0.782467,2.39037,-0.00996382,
0.0819282,-0.0794283,0.0422359,-1.8722,0.143163,0.138812,0.0552505,-0.00179533,-0.00164469,0.00118212,0.00316707,0.0923679,-0.0086287,-0.000647932,0.0535815,-0.00735981,0.0547119,-0.00198548,0.20377,-0.0785493,-0.000160883,0.0618627,-0.170884,0.36318,0.309386,1.01934,-0.109392,-0.00673494,0.0820946,-0.0793116,0.0422322,-1.87239,0.138804,0.139183,0.0552905,-0.00078478,-0.00285543,-0.00223698,0.00623593,0.0164526,-0.00164469,0.000496102,0,0,0,0,0,0,0,0.0551182,-30.1027,-0.137926,25.4315,0.782467,2.39037,-0.00996382,
0.0819198,-0.0794417,0.0422514,-1.87217,0.143924,0.138736,0.0552453,-0.00164594,-0.00165127,0.00133451,0.00315988,0.0929212,-0.0087978,-0.000648457,0.0933704,-0.00411294,0.0952439,-0.00449284,0.345769,-0.105688,-0.00032773,0.0618752,-0.17052,0.363312,0.308562,1.01915,-0.110448,-0.00672871,0.0820865,-0.0793263,0.0422592,-1.87217,0.138836,0.139182,0.0552911,-0.00323699,-0.00142402,-0.00300714,0.0127441,0.0177459,-0.00281938,0.000293982,-0.306526,0.178926,-0.0962698,0.813516,0.161669,-0.146837,-0.025265,0.182071,-30.1265,-0.0625476,25.4315,0.807186,2.42974,-0.00996382,
0.0819187,-0.0794376,0.0422126,-1.87199,0.141717,0.139043,0.055262,-0.00188606,-0.00177201,0.0010911,0.00325635,0.0919397,-0.00835801,-0.000648179,-0.15008,-0.0754622,-0.152126,0.0602906,-0.613394,0.274866,0.000173381,0.0618752,-0.17052,0.363312,0.308562,1.01915,-0.110448,-0.00672871,0.0820865,-0.0793263,0.0422592,-1.87217,0.138836,0.139182,0.0552911,-0.00323699,-0.00142402,-0.00300714,0.0127441,0.0177459,-0.00281938,0.000293982,0,0,0,0,0,0,0,0.182071,-30.1265,-0.0625476,25.4315,0.807186,2.42974,-0.00996382,
0.081901,-0.0794544,0.0422187,-1.87197,0.142447,0.138983,0.0552568,-0.0019521,-0.00183846,0.00102324,0.00330838,0.0917907,-0.00819791,-0.000647195,-0.0412734,-0.0415324,-0.0424134,0.0325209,-0.0931513,0.100064,0.000615212,0.0618752,-0.17052,0.363312,0.308562,1.01915,-0.110448,-0.00672871,0.0820865,-0.0793263,0.0422592,-1.87217,0.138836,0.139182,0.0552911,-0.00323699,-0.00142402,-0.00300714,0.0127441,0.0177459,-0.00281938,0.000293982,0,0,0,0,0,0,0,0.182071,-30.1265,-0.0625476,25.4315,0.807186,2.42974,-0.00996382,
0.0818876,-0.0794704,0.0422291,-1.87194,0.143194,0.138917,0.0552517,-0.0018968,-0.00187085,0.00107876,0.00333016,0.0921066,-0.00821602,-0.000646542,0.0345609,-0.0202394,0.0346978,0.0136099,0.197477,-0.0113205,0.000408202,0.0618752,-0.17052,0.363312,0.308562,1.01915,-0.110448,-0.00672871,0.0820865,-0.0793263,0.0422592,-1.87217,0.138836,0.139182,0.0552911,-0.00323699,-0.00142402,-0.00300714,0.0127441,0.0177459,-0.00281938,0.000293982,0,0,0,0,0,0,0,0.182071,-30.1265,-0.0625476,25.4315,0.807186,2.42974,-0.00996382,
0.0818778,-0.0794858,0.0422432,-1.87191,0.143952,0.138846,0.0552465,-0.00176201,-0.0018824,0.00121573,0.00333182,0.0926596,-0.00834233,-0.000646547,0.0842479,-0.00722396,0.0856061,0.00103654,0.345621,-0.0789426,-3.50423e-06,0.0618585,-0.170393,0.363416,0.307729,1.0189,-0.111614,-0.00672244,0.0820935,-0.0793425,0.0422838,-1.87194,0.138878,0.139181,0.0552912,-0.00465278,-0.000852066,-0.00187289,0.00815973,0.0119656,-0.0034355,0.000965978,-0.176974,0.0714942,0.141781,-0.573041,-0.722535,-0.0770152,0.0839995,0.360599,-30.0035,0.112013,25.3323,0.813595,2.43615,-0.0163725,
