xiao-wang007/linearmpc_panda/paper_data/panda_inverse_dynamics_controller_opt_time_to_start/1/trajectory.csv
Commanded Joint 0 Position,Commanded Joint 1 Position,Commanded Joint 2 Position,Commanded Joint 3 Position,Commanded Joint 4 Position,Commanded Joint 5 Position,Commanded Joint 6 Position,Commanded Joint 0 Velocity,Commanded Joint 1 Velocity,Commanded Joint 2 Velocity,Commanded Joint 3 Velocity,Commanded Joint 4 Velocity,Commanded Joint 5 Velocity,Commanded Joint 6 Velocity,Commanded Joint 0 Acceleration,Commanded Joint 1 Acceleration,Commanded Joint 2 Acceleration,Commanded Joint 3 Acceleration,Commanded Joint 4 Acceleration,Commanded Joint 5 Acceleration,Commanded Joint 6 Acceleration,Commanded Joint 0 Torque,Commanded Joint 1 Torque,Commanded Joint 2 Torque,Commanded Joint 3 Torque,Commanded Joint 4 Torque,Commanded Joint 5 Torque,Commanded Joint 6 Torque,Actual Joint 0 Position,Actual Joint 1 Position,Actual Joint 2 Position,Actual Joint 3 Position,Actual Joint 4 Position,Actual Joint 5 Position,Actual Joint 6 Position,Actual Joint 0 Velocity,Actual Joint 1 Velocity,Actual Joint 2 Velocity,Actual Joint 3 Velocity,Actual Joint 4 Velocity,Actual Joint 5 Velocity,Actual Joint 6 Velocity,Actual Joint 0 Acceleration,Actual Joint 1 Acceleration,Actual Joint 2 Acceleration,Actual Joint 3 Acceleration,Actual Joint 4 Acceleration,Actual Joint 5 Acceleration,Actual Joint 6 Acceleration,Actual Joint 0 Torque,Actual Joint 1 Torque,Actual Joint 2 Torque,Actual Joint 3 Torque,Actual Joint 4 Torque,Actual Joint 5 Torque,Actual Joint 6 Torque,
-0.0630946,-0.123591,0.0247547,-1.87474,-0.0495619,0.242458,0.0814863,0.000269157,0.0181316,0.000472932,-0.0346765,-0.00279813,0.0511446,-0.000348841,0.168223,11.3323,0.295583,-21.6728,-1.74883,31.9654,-0.218026,0.0596961,20.4897,0.251993,-24.4338,-0.337304,1.81469,-0.023905,-0.0630984,-0.124902,0.0247307,-1.87115,-0.0494007,0.236919,0.0815284,-0.000656849,-5.92632e-05,-0.00157209,0.00122994,0.00109175,-0.00115824,-5.36605e-05,0,0,0,0,0,0,0,0.00751081,-31.1778,-0.312487,27.4271,0.60577,3.36449,0.0239107,
-0.0631124,-0.124909,0.0247154,-1.87115,-0.0494043,0.236919,0.0815289,0.000131155,0.0144607,0.000287863,-0.0277093,-0.00232405,0.040946,-0.000276112,-0.0862511,-2.29429,-0.115668,4.35449,0.296303,-6.37416,0.0454553,0.0538587,20.9304,0.241543,-24.3501,-0.33813,1.56379,-0.0223907,-0.0630984,-0.124902,0.0247307,-1.87115,-0.0494007,0.236919,0.0815284,-0.000656849,-5.92632e-05,-0.00157209,0.00122994,0.00109175,-0.00115824,-5.36605e-05,0,0,0,0,0,0,0,0.00751081,-31.1778,-0.312487,27.4271,0.60577,3.36449,0.0239107,
-0.0631149,-0.12491,0.0247127,-1.87115,-0.0494081,0.236921,0.081529,4.12096e-05,0.0115337,0.000162243,-0.0221435,-0.00195336,0.0327888,-0.000218964,-0.0562161,-1.82942,-0.0785127,3.47862,0.231679,-5.09824,0.0357176,0.0465765,21.5021,0.22973,-24.242,-0.338159,1.21622,-0.0204232,-0.0630984,-0.124902,0.0247307,-1.87115,-0.0494007,0.236919,0.0815284,-0.000656849,-5.92632e-05,-0.00157209,0.00122994,0.00109175,-0.00115824,-5.36605e-05,0,0,0,0,0,0,0,0.00751081,-31.1778,-0.312487,27.4271,0.60577,3.36449,0.0239107,
-0.0631169,-0.124911,0.0247106,-1.87115,-0.0494116,0.236922,0.0815291,-1.59048e-05,0.00919978,7.78627e-05,-0.0176962,-0.00165188,0.0262613,-0.000173888,-0.0356965,-1.45868,-0.0527377,2.77957,0.188424,-4.07971,0.0281726,0.0405798,22.0262,0.220244,-24.0741,-0.336688,0.831046,-0.0184241,-0.0630984,-0.124902,0.0247307,-1.87115,-0.0494007,0.236919,0.0815284,-0.000656849,-5.92632e-05,-0.00157209,0.00122994,0.00109175,-0.00115824,-5.36605e-05,0,0,0,0,0,0,0,0.00751081,-31.1778,-0.312487,27.4271,0.60577,3.36449,0.0239107,
-0.0633798,-0.124919,0.0244822,-1.87112,-0.0403043,0.233158,0.0815005,-0.000919252,0.00705473,-0.000897708,-0.013805,0.0560339,-0.00351652,-0.000173951,-0.564592,-1.34065,-0.609732,2.43199,36.0536,-18.6111,-3.90759e-05,0.504844,0.139792,0.500982,-0.250996,3.3916,-1.52135,-0.00153888,-0.0630989,-0.12486,0.024742,-1.87127,-0.0494046,0.236922,0.0815328,-0.0011534,-0.00314582,0.001652,-0.00197315,0.000381408,-0.000285321,0.00108569,-0.0620688,-0.385819,0.403012,-0.400387,-0.0887927,0.109115,0.142419,0.0313145,-31.0271,-0.411669,27.3279,0.642391,3.33794,-0.0163725,
-0.0634023,-0.124929,0.0244573,-1.87111,-0.037943,0.232132,0.0814997,-0.00129814,0.00539382,-0.00133943,-0.0108739,0.103859,-0.0284631,-0.000160602,-0.236805,-1.03807,-0.276079,1.83194,29.8904,-15.5916,0.00834307,0.497991,0.137516,0.493942,-0.248627,3.36143,-1.50725,-0.00153075,-0.0630989,-0.12486,0.024742,-1.87127,-0.0494046,0.236922,0.0815328,-0.0011534,-0.00314582,0.001652,-0.00197315,0.000381408,-0.000285321,0.00108569,0,0,0,0,0,0,0,0.0313145,-31.0271,-0.411669,27.3279,0.642391,3.33794,-0.0163725,
-0.0634127,-0.124936,0.0244448,-1.87111,-0.0355462,0.231078,0.081499,-0.00129774,0.00412925,-0.00138547,-0.00867559,0.143007,-0.0491239,-0.000144164,0.000248074,-0.790357,-0.0287707,1.37396,24.4677,-12.913,0.0102733,0.491351,0.135358,0.487149,-0.246261,3.33118,-1.49318,-0.0015235,-0.0630989,-0.12486,0.024742,-1.87127,-0.0494046,0.236922,0.0815328,-0.0011534,-0.00314582,0.001652,-0.00197315,0.000381408,-0.000285321,0.00108569,0,0,0,0,0,0,0,0.0313145,-31.0271,-0.411669,27.3279,0.642391,3.33794,-0.0163725,
-0.0634128,-0.124941,0.0244428,-1.87111,-0.0331339,0.230007,0.0814985,-0.00104051,0.00318203,-0.00115775,-0.0070328,0.174712,-0.0660598,-0.000129181,0.160771,-0.592015,0.142324,1.02674,19.816,-10.5849,0.00936448,0.48493,0.133335,0.480599,-0.243887,3.3008,-1.47912,-0.0015151,-0.0630989,-0.12486,0.024742,-1.87127,-0.0494046,0.236922,0.0815328,-0.0011534,-0.00314582,0.001652,-0.00197315,0.000381408,-0.000285321,0.00108569,0,0,0,0,0,0,0,0.0313145,-31.0271,-0.411669,27.3279,0.642391,3.33794,-0.0163725,
-0.0636357,-0.123233,0.0242929,-1.87169,-0.0196419,0.215421,0.0814054,-0.0015589,0.00523953,-0.00162215,-0.00622437,0.331187,-0.18542,-0.000332489,-0.323996,1.28594,-0.290252,0.505273,97.7964,-74.6,-0.127067,3.58615,1.67723,3.65298,-1.73805,11.1959,-8.03479,-0.00889202,-0.0630894,-0.124175,0.0247534,-1.87185,-0.0494169,0.235979,0.0815295,-0.000505153,0.0368271,0.00285116,-0.0455106,-0.00714495,0.00839074,0.000316129,0.0810307,4.99661,0.149895,-5.44218,-0.940794,1.08451,-0.0961948,-0.119442,-26.8099,-0.538622,25.0864,0.727535,2.32354,0.0101778,
-0.0636182,-0.123132,0.0243109,-1.87174,-0.0116788,0.209899,0.0813975,-0.000809735,0.00671528,-0.00084692,-0.00632111,0.464028,-0.286388,-0.000464783,0.46823,0.922341,0.484521,-0.0604627,83.0257,-63.1053,-0.0826838,3.47722,1.63254,3.54109,-1.71855,11.1959,-7.95788,-0.00871984,-0.0630894,-0.124175,0.0247534,-1.87185,-0.0494169,0.235979,0.0815295,-0.000505153,0.0368271,0.00285116,-0.0455106,-0.00714495,0.00839074,0.000316129,0,0,0,0,0,0,0,-0.119442,-26.8099,-0.538622,25.0864,0.727535,2.32354,0.0101778,
-0.0635607,-0.123031,0.0243694,-1.87182,-0.00351243,0.204242,0.0813901,0.000790557,0.0078951,0.000784004,-0.00698892,0.575382,-0.370519,-0.000556261,1.00018,0.737389,1.01933,-0.417383,69.5962,-52.5816,-0.0571738,3.39934,1.56855,3.45359,-1.70962,11.1959,-7.89385,-0.00926137,-0.0630894,-0.124175,0.0247534,-1.87185,-0.0494169,0.235979,0.0815295,-0.000505153,0.0368271,0.00285116,-0.0455106,-0.00714495,0.00839074,0.000316129,0,0,0,0,0,0,0,-0.119442,-26.8099,-0.538622,25.0864,0.727535,2.32354,0.0101778,
-0.06347,-0.122927,0.0244619,-1.87192,0.00479063,0.198509,0.0813829,0.00290044,0.00892568,0.00294103,-0.00797692,0.667882,-0.439744,-0.000625488,1.31868,0.644115,1.34814,-0.617501,57.8126,-43.2658,-0.0432665,3.39537,1.53891,3.42255,-1.70845,11.1959,-7.8128,-0.00987773,-0.0630894,-0.124175,0.0247534,-1.87185,-0.0494169,0.235979,0.0815295,-0.000505153,0.0368271,0.00285116,-0.0455106,-0.00714495,0.00839074,0.000316129,0,0,0,0,0,0,0,-0.119442,-26.8099,-0.538622,25.0864,0.727535,2.32354,0.0101778,
-0.0598806,-0.125215,0.0283414,-1.87376,-0.0236345,0.200183,0.0818226,0.0245561,-0.00434986,0.0268381,-0.0222357,0.7125,-0.589016,-0.000565286,13.5348,-8.29722,14.9357,-8.91174,27.8863,-93.2948,0.037626,23.2318,1.1193,24.572,-8.58699,11.1823,-14.3804,0.129867,-0.0629111,-0.124612,0.0251542,-1.87276,-0.0462452,0.234607,0.0815225,0.00975342,0.0149173,0.00755636,-0.0353252,0.209558,-0.0815677,-0.00188935,1.28232,-2.73872,0.58815,1.27317,27.0878,-11.2448,-0.275684,3.05042,-33.7724,2.78596,29.9661,2.15667,3.35168,0.0907442,
-0.0589281,-0.125686,0.0293838,-1.87445,-0.0160355,0.190292,0.0818151,0.043458,-0.0152702,0.0475304,-0.0351373,0.759975,-0.718496,-0.000640227,11.8136,-6.82524,12.9327,-8.06352,29.6717,-80.9251,-0.0468382,21.9293,-3.33374,23.0609,-10.4584,11.1823,-14.3804,0.173298,-0.0629111,-0.124612,0.0251542,-1.87276,-0.0462452,0.234607,0.0815225,0.00975342,0.0149173,0.00755636,-0.0353252,0.209558,-0.0815677,-0.00188935,0,0,0,0,0,0,0,3.05042,-33.7724,2.78596,29.9661,2.15667,3.35168,0.0907442,
-0.0579307,-0.126153,0.0304703,-1.87522,-0.00809745,0.180432,0.0818077,0.0597029,-0.0238807,0.0651878,-0.0473671,0.806432,-0.821301,-0.000697693,10.1531,-5.38154,11.0359,-7.64363,29.0355,-64.2531,-0.0359162,19.3899,-5.35466,20.6491,-11.4247,11.1823,-14.3804,0.0738049,-0.0629111,-0.124612,0.0251542,-1.87276,-0.0462452,0.234607,0.0815225,0.00975342,0.0149173,0.00755636,-0.0353252,0.209558,-0.0815677,-0.00188935,0,0,0,0,0,0,0,3.05042,-33.7724,2.78596,29.9661,2.15667,3.35168,0.0907442,
-0.058869,-0.124995,0.0294981,-1.87572,-0.0180007,0.199181,0.0813554,0.0756223,-0.0211751,0.0818622,-0.0595925,0.825998,-0.881438,-0.00142908,9.94957,1.69103,10.4215,-7.64084,12.2289,-37.5854,-0.457118,24.1703,2.43993,25.3913,-15.9659,11.1823,-14.3804,-0.0341569,-0.0629111,-0.124612,0.0251542,-1.87276,-0.0462452,0.234607,0.0815225,0.00975342,0.0149173,0.00755636,-0.0353252,0.209558,-0.0815677,-0.00188935,0,0,0,0,0,0,0,3.05042,-33.7724,2.78596,29.9661,2.15667,3.35168,0.0907442,
-0.0576793,-0.12504,0.0307655,-1.87671,-0.0103426,0.190302,0.0813226,0.0902401,-0.0180663,0.0971742,-0.0725608,0.85225,-0.927124,-0.00196551,9.13616,1.943,9.57004,-8.10521,16.4075,-28.5541,-0.335269,22.6819,2.91405,23.9057,-15.8266,11.0288,-14.3431,-0.0445597,-0.0618488,-0.124135,0.026788,-1.87405,-0.0267411,0.221359,0.08153,0.0549394,-0.0173408,0.0738848,-0.09325,1.05395,-0.836756,-0.00689114,5.64824,-4.03227,8.29106,-7.24059,105.549,-94.3985,-0.625225,8.35071,-23.2155,8.28859,17.9611,5.16143,-2.23853,0.14476,
-0.0564379,-0.125039,0.0320871,-1.8778,-0.00237093,0.18176,0.0812934,0.103228,-0.0144227,0.11078,-0.085284,0.881092,-0.955258,-0.00230035,8.11742,2.27726,8.50347,-7.95196,18.0264,-17.584,-0.209272,21.6161,2.86528,22.822,-15.4909,11.0288,-14.3431,-0.0480365,-0.0618488,-0.124135,0.026788,-1.87405,-0.0267411,0.221359,0.08153,0.0549394,-0.0173408,0.0738848,-0.09325,1.05395,-0.836756,-0.00689114,0,0,0,0,0,0,0,8.35071,-23.2155,8.28859,17.9611,5.16143,-2.23853,0.14476,
-0.0551632,-0.124991,0.0334438,-1.87895,0.00583162,0.173694,0.0812679,0.114451,-0.0103368,0.122541,-0.0970831,0.909937,-0.965835,-0.00247984,7.01427,2.55364,7.35087,-7.37447,18.0283,-6.61018,-0.11218,20.6838,2.734,21.8663,-15.2215,11.0288,-14.3431,-0.0495649,-0.0618488,-0.124135,0.026788,-1.87405,-0.0267411,0.221359,0.08153,0.0549394,-0.0173408,0.0738848,-0.09325,1.05395,-0.836756,-0.00689114,0,0,0,0,0,0,0,8.35071,-23.2155,8.28859,17.9611,5.16143,-2.23853,0.14476,
-0.0552243,-0.124701,0.0336861,-1.88083,0.0125517,0.176426,0.0811627,0.130413,-0.00974585,0.138922,-0.11844,0.931524,-1.00667,-0.00404568,9.97624,0.369361,10.2378,-13.3481,13.4918,-25.5193,-0.978651,27.0088,4.33986,28.2752,-23.1047,11.0288,-14.3431,-0.1038,-0.0618488,-0.124135,0.026788,-1.87405,-0.0267411,0.221359,0.08153,0.0549394,-0.0173408,0.0738848,-0.09325,1.05395,-0.836756,-0.00689114,0,0,0,0,0,0,0,8.35071,-23.2155,8.28859,17.9611,5.16143,-2.23853,0.14476,
-0.0536364,-0.124729,0.0353595,-1.88256,0.0208646,0.167561,0.0810859,0.144029,-0.00849996,0.152972,-0.138029,0.95304,-1.02695,-0.00515891,8.50983,0.778684,8.78142,-12.2431,13.4476,-12.6784,-0.695773,25.7025,4.18701,26.9888,-22.9032,10.9895,-13.9082,-0.113323,-0.0586179,-0.127351,0.030743,-1.88041,0.0180302,0.181,0.0815218,0.256058,-0.195219,0.316562,-0.340118,1.51497,-1.49793,0.000775432,25.1399,-22.2348,30.3346,-30.8585,57.6277,-82.6469,0.958322,22.4227,-31.4516,23.2334,25.2332,5.18615,-1.72126,-0.0026396,
-0.0520337,-0.124726,0.0370499,-1.88435,0.0293133,0.159328,0.081018,0.155291,-0.00672801,0.164636,-0.155343,0.973651,-1.02739,-0.00582268,7.03882,1.10747,7.29011,-10.8212,12.8816,-0.272874,-0.414855,24.4724,3.44385,25.7271,-22.6652,10.9895,-13.9082,-0.115658,-0.0586179,-0.127351,0.030743,-1.88041,0.0180302,0.181,0.0815218,0.256058,-0.195219,0.316562,-0.340118,1.51497,-1.49793,0.000775432,0,0,0,0,0,0,0,22.4227,-31.4516,23.2334,25.2332,5.18615,-1.72126,-0.0026396,
-0.0518774,-0.124325,0.0372978,-1.88497,0.0195447,0.166916,0.0809068,0.171868,-0.0034724,0.18204,-0.178018,0.985936,-1.06883,-0.00854227,10.361,2.03476,10.8776,-14.1719,7.67806,-25.9029,-1.69974,26.6874,4.50958,28.165,-29.3409,10.9895,-13.9082,-0.195498,-0.0586179,-0.127351,0.030743,-1.88041,0.0180302,0.181,0.0815218,0.256058,-0.195219,0.316562,-0.340118,1.51497,-1.49793,0.000775432,0,0,0,0,0,0,0,22.4227,-31.4516,23.2334,25.2332,5.18615,-1.72126,-0.0026396,
-0.0454899,-0.12924,0.044532,-1.8938,0.0776241,0.123011,0.0807242,0.188122,-0.0028729,0.199086,-0.201565,1.02282,-1.03322,-0.00975942,10.1584,0.374685,10.6538,-14.7166,23.0517,22.2583,-0.760715,25.4293,3.73754,26.8333,-29.0442,10.9895,-12.6622,-0.191795,-0.0586179,-0.127351,0.030743,-1.88041,0.0180302,0.181,0.0815218,0.256058,-0.195219,0.316562,-0.340118,1.51497,-1.49793,0.000775432,0,0,0,0,0,0,0,22.4227,-31.4516,23.2334,25.2332,5.18615,-1.72126,-0.0026396,
-0.0435336,-0.129192,0.0465995,-1.89616,0.0868722,0.116834,0.0806193,0.199404,-0.00108679,0.210956,-0.220461,1.04946,-0.980998,-0.0104289,7.05172,1.11632,7.41844,-11.8106,16.6491,32.6383,-0.418454,24.4623,2.29593,25.8517,-28.2142,10.8743,-10.5802,-0.18315,-0.0510399,-0.126969,0.0392251,-1.89018,0.056597,0.138891,0.0815275,0.237686,-0.06849,0.266511,-0.275017,1.05398,-1.01514,0.000822144,-2.29651,15.8411,-6.25629,8.13767,-57.6236,60.3487,0.00583902,13.8018,-30.8009,13.0374,34.1516,3.76983,2.53594,-0.050247,
-0.0416429,-0.129106,0.0485993,-1.89852,0.0960198,0.111536,0.0805252,0.206791,0.00127326,0.218759,-0.235202,1.06826,-0.917254,-0.0106977,4.61655,1.47503,4.87686,-9.21284,11.7493,39.8397,-0.167957,23.4908,1.8137,24.8262,-27.9049,10.8743,-8.92354,-0.171899,-0.0510399,-0.126969,0.0392251,-1.89018,0.056597,0.138891,0.0815275,0.237686,-0.06849,0.266511,-0.275017,1.05398,-1.01514,0.000822144,0,0,0,0,0,0,0,13.8018,-30.8009,13.0374,34.1516,3.76983,2.53594,-0.050247,
-0.0418674,-0.127622,0.0489271,-1.90133,0.100371,0.109929,0.0810123,0.209145,0.00142846,0.221265,-0.244343,1.07493,-0.839691,-0.0105803,1.47146,0.0970039,1.56636,-5.71291,4.17353,48.4767,0.0733601,22.6236,1.47416,23.9093,-27.5755,10.8743,-7.47631,-0.156366,-0.0510399,-0.126969,0.0392251,-1.89018,0.056597,0.138891,0.0815275,0.237686,-0.06849,0.266511,-0.275017,1.05398,-1.01514,0.000822144,0,0,0,0,0,0,0,13.8018,-30.8009,13.0374,34.1516,3.76983,2.53594,-0.050247,
-0.0401616,-0.127567,0.050733,-1.90355,0.109167,0.10637,0.0809421,0.20996,0.00251027,0.222159,-0.251153,1.07983,-0.760741,-0.0102194,0.509232,0.676128,0.558553,-4.25622,3.06145,49.344,0.225577,21.8397,1.24573,23.0804,-27.2288,10.8743,-6.2098,-0.14316,-0.0510399,-0.126969,0.0392251,-1.89018,0.056597,0.138891,0.0815275,0.237686,-0.06849,0.266511,-0.275017,1.05398,-1.01514,0.000822144,0,0,0,0,0,0,0,13.8018,-30.8009,13.0374,34.1516,3.76983,2.53594,-0.050247,
-0.0384981,-0.127484,0.0524949,-1.90575,0.117935,0.103426,0.0808835,0.209556,0.00408283,0.221775,-0.255876,1.08307,-0.682182,-0.00964211,-0.252319,0.982852,-0.240129,-2.9523,2.02618,49.0996,0.360795,21.3213,1.13715,22.5705,-26.5319,10.9353,-4.75946,-0.128921,-0.042254,-0.126491,0.051443,-1.89938,0.0829707,0.102873,0.0815187,0.278357,0.0689613,0.474308,-0.278576,0.724517,-1.03335,-0.00222592,5.08378,17.1814,25.9746,-0.444839,-41.1833,-2.27602,-0.381009,11.9252,-21.6167,10.7126,17.612,2.90191,-0.427622,0.0779268,
-0.0368762,-0.12738,0.0542134,-1.90792,0.126671,0.101038,0.0808349,0.208192,0.0058589,0.220383,-0.258776,1.08486,-0.605445,-0.00892792,-0.852404,1.11005,-0.869976,-1.81221,1.11403,47.9605,0.446365,20.6714,1.07169,21.8812,-26.1627,10.9353,-3.79924,-0.114768,-0.042254,-0.126491,0.051443,-1.89938,0.0829707,0.102873,0.0815187,0.278357,0.0689613,0.474308,-0.278576,0.724517,-1.03335,-0.00222592,0,0,0,0,0,0,0,11.9252,-21.6167,10.7126,17.612,2.90191,-0.427622,0.0779268,
-0.0318412,-0.124851,0.0625913,-1.91166,0.125097,0.0817304,0.0811433,0.211014,0.0119141,0.223552,-0.264391,1.09013,-0.547037,-0.00823728,1.76369,3.78449,1.98103,-3.50923,3.29292,36.5047,0.431647,20.0736,1.06441,21.2458,-25.7869,10.9353,-2.9639,-0.0985871,-0.042254,-0.126491,0.051443,-1.89938,0.0829707,0.102873,0.0815187,0.278357,0.0689613,0.474308,-0.278576,0.724517,-1.03335,-0.00222592,0,0,0,0,0,0,0,11.9252,-21.6167,10.7126,17.612,2.90191,-0.427622,0.0779268,
-0.0301524,-0.124582,0.064385,-1.91387,0.13397,0.0798265,0.0811105,0.211031,0.0162656,0.223683,-0.266898,1.09393,-0.485226,-0.00740917,0.0105137,2.71973,0.0819729,-1.56699,2.37606,38.632,0.517573,19.5122,1.09606,20.6485,-25.4055,10.9353,-2.24283,-0.0846139,-0.042254,-0.126491,0.051443,-1.89938,0.0829707,0.102873,0.0815187,0.278357,0.0689613,0.474308,-0.278576,0.724517,-1.03335,-0.00222592,0,0,0,0,0,0,0,11.9252,-21.6167,10.7126,17.612,2.90191,-0.427622,0.0779268,
-0.0285385,-0.124331,0.0660988,-1.91601,0.142797,0.0784402,0.0810883,0.209171,0.0192788,0.221791,-0.267093,1.09583,-0.42284,-0.00648115,-1.1626,1.88321,-1.1828,-0.121913,1.18882,38.9915,0.580014,18.9862,1.15976,20.0878,-25.0216,10.9353,-1.61714,-0.0695168,-0.042254,-0.126491,0.051443,-1.89938,0.0829707,0.102873,0.0815187,0.278357,0.0689613,0.474308,-0.278576,0.724517,-1.03335,-0.00222592,0,0,0,0,0,0,0,11.9252,-21.6167,10.7126,17.612,2.90191,-0.427622,0.0779268,
-0.0269893,-0.124098,0.067744,-1.91809,0.151568,0.0774981,0.0810756,0.206069,0.0212649,0.218565,-0.265592,1.09592,-0.361823,-0.00550428,-1.9388,1.2413,-2.0164,0.938023,0.0555379,38.1354,0.610544,18.2542,0.255109,19.3864,-24.3304,10.6554,-1.14956,-0.0588199,-0.0329552,-0.126245,0.0660063,-1.91128,0.101768,0.0866467,0.0815345,0.147796,0.0680906,0.263354,-0.233321,0.317539,-0.0490545,-0.0120909,-16.3201,-0.108836,-26.3692,5.65683,-50.8722,123.037,-1.23312,-12.5212,-38.5887,-13.2855,36.5915,-0.200809,7.22985,0.319626,
-0.0264682,-0.124939,0.0730504,-1.92141,0.134596,0.0854531,0.0813967,0.19605,0.0220299,0.208249,-0.261361,1.0703,-0.28953,-0.0044388,-6.26207,0.478116,-6.44713,2.64409,-16.0092,45.183,0.665926,17.7787,0.35058,18.8783,-23.9451,10.6554,-0.683964,-0.0451505,-0.0329552,-0.126245,0.0660063,-1.91128,0.101768,0.0866467,0.0815345,0.147796,0.0680906,0.263354,-0.233321,0.317539,-0.0490545,-0.0120909,0,0,0,0,0,0,0,-12.5212,-38.5887,-13.2855,36.5915,-0.200809,7.22985,0.319626,
-0.0252293,-0.124751,0.074374,-1.92333,0.142555,0.0856241,0.0814052,0.187811,0.0223311,0.19969,-0.256941,1.05521,-0.227349,-0.00333811,-5.14935,0.188296,-5.34937,2.763,-9.43111,38.8632,0.687926,17.3215,0.449876,18.3894,-23.561,10.6554,-0.285644,-0.0331234,-0.0329552,-0.126245,0.0660063,-1.91128,0.101768,0.0866467,0.0815345,0.147796,0.0680906,0.263354,-0.233321,0.317539,-0.0490545,-0.0120909,0,0,0,0,0,0,0,-12.5212,-38.5887,-13.2855,36.5915,-0.200809,7.22985,0.319626,
-0.0240015,-0.124571,0.0756846,-1.9252,0.150656,0.0859684,0.0814225,0.180944,0.0223502,0.192517,-0.252394,1.0467,-0.173272,-0.00223841,-4.29137,0.0119242,-4.4834,2.84171,-5.32363,33.798,0.687312,16.8836,0.552167,17.9206,-23.1794,10.6554,0.0613635,-0.0208327,-0.0329552,-0.126245,0.0660063,-1.91128,0.101768,0.0866467,0.0815345,0.147796,0.0680906,0.263354,-0.233321,0.317539,-0.0490545,-0.0120909,0,0,0,0,0,0,0,-12.5212,-38.5887,-13.2855,36.5915,-0.200809,7.22985,0.319626,
-0.0185779,-0.122033,0.0861879,-1.92736,0.15909,0.0906868,0.0815877,0.17784,0.0216911,0.189381,-0.24651,1.04628,-0.119657,-0.00115463,-1.94017,-0.411968,-1.95977,3.67713,-0.258946,33.5095,0.677365,16.0524,0.86381,17.0738,-22.3422,10.5875,0.746187,0.00102055,-0.0261805,-0.122893,0.0779867,-1.91817,0.120836,0.0876293,0.0815777,0.190534,0.0458881,0.357827,-0.2012,0.588942,0.0446874,0.000514205,5.34226,-2.77532,11.8092,4.01506,33.9254,11.7177,1.57564,-12.1919,-31.6261,-13.587,21.123,-0.139469,3.71606,0.050461,
-0.0173093,-0.121881,0.0875391,-1.92911,0.167523,0.0915462,0.0816187,0.173987,0.0211551,0.185287,-0.240936,1.04785,-0.0742409,-0.000149635,-2.40839,-0.334971,-2.55888,3.48387,0.978064,28.3852,0.628122,15.6389,0.9543,16.6305,-21.9735,10.5875,0.976298,0.0127846,-0.0261805,-0.122893,0.0779867,-1.91817,0.120836,0.0876293,0.0815777,0.190534,0.0458881,0.357827,-0.2012,0.588942,0.0446874,0.000514205,0,0,0,0,0,0,0,-12.1919,-31.6261,-13.587,21.123,-0.139469,3.71606,0.050461,
-0.0160885,-0.121727,0.0888367,-1.93082,0.175986,0.0925058,0.0816546,0.169711,0.0207768,0.180668,-0.235605,1.04986,-0.0354038,0.000779481,-2.67229,-0.23643,-2.8869,3.33187,1.25628,24.2732,0.580697,15.2028,1.04313,16.167,-21.6109,10.5875,1.17451,0.0236576,-0.0261805,-0.122893,0.0779867,-1.91817,0.120836,0.0876293,0.0815777,0.190534,0.0458881,0.357827,-0.2012,0.588942,0.0446874,0.000514205,0,0,0,0,0,0,0,-12.1919,-31.6261,-13.587,21.123,-0.139469,3.71606,0.050461,
-0.014911,-0.121569,0.0900865,-1.9325,0.184453,0.0935593,0.0816967,0.165206,0.0205567,0.17578,-0.230481,1.05157,-0.00198395,0.00167467,-2.81543,-0.137557,-3.05513,3.20246,1.07202,20.8874,0.559494,14.7425,1.12151,15.6903,-21.262,10.5875,1.34637,0.0340853,-0.0261805,-0.122893,0.0779867,-1.91817,0.120836,0.0876293,0.0815777,0.190534,0.0458881,0.357827,-0.2012,0.588942,0.0446874,0.000514205,0,0,0,0,0,0,0,-12.1919,-31.6261,-13.587,21.123,-0.139469,3.71606,0.050461,
-0.0189661,-0.121844,0.0857497,-1.92698,0.159446,0.0918934,0.0816944,0.162558,0.0213415,0.172897,-0.226463,1.05185,0.0243845,0.00237922,-1.65515,0.490515,-1.80164,2.51153,0.172066,16.4803,0.440344,14.2473,1.05797,15.186,-21.0808,10.4594,1.38219,0.0408715,-0.0221761,-0.119285,0.0857772,-1.92214,0.144052,0.0885397,0.0815657,0.0585054,-0.0222304,0.0674114,-0.0920519,0.604298,0.0423507,-0.00214318,-16.5036,-8.5148,-36.302,13.6436,1.9195,-0.29208,-0.332173,-20.182,-34.2207,-20.7599,28.4705,-1.81855,5.51964,0.131027,
-0.0178189,-0.12165,0.0869734,-1.92862,0.167935,0.0930143,0.081738,0.158726,0.0219382,0.168911,-0.222232,1.0537,0.0475305,0.00299503,-2.39493,0.372918,-2.49138,2.6445,1.15917,14.4662,0.384882,13.7943,1.16794,14.6549,-20.7365,10.4594,1.50649,0.0460733,-0.0221761,-0.119285,0.0857772,-1.92214,0.144052,0.0885397,0.0815657,0.0585054,-0.0222304,0.0674114,-0.0920519,0.604298,0.0423507,-0.00214318,0,0,0,0,0,0,0,-20.182,-34.2207,-20.7599,28.4705,-1.81855,5.51964,0.131027,
-0.0167304,-0.121455,0.0881425,-1.93023,0.176444,0.0942117,0.0817825,0.154192,0.0224228,0.164355,-0.217894,1.05567,0.0679603,0.00350679,-2.83356,0.302853,-2.84762,2.71085,1.23082,12.7686,0.319849,13.3513,1.29551,14.1528,-20.3809,10.4594,1.61823,0.0513413,-0.0221761,-0.119285,0.0857772,-1.92214,0.144052,0.0885397,0.0815657,0.0585054,-0.0222304,0.0674114,-0.0920519,0.604298,0.0423507,-0.00214318,0,0,0,0,0,0,0,-20.182,-34.2207,-20.7599,28.4705,-1.81855,5.51964,0.131027,
-0.0188511,-0.11968,0.089382,-1.92909,0.177885,0.0958375,0.0818262,0.142896,0.0193211,0.152478,-0.209507,1.01554,0.0944926,0.00417768,-7.06028,-1.93857,-7.42311,5.24188,-25.0844,16.5827,0.419305,12.449,1.52428,13.1623,-19.6851,10.4594,1.78467,0.0620063,-0.0221761,-0.119285,0.0857772,-1.92214,0.144052,0.0885397,0.0815657,0.0585054,-0.0222304,0.0674114,-0.0920519,0.604298,0.0423507,-0.00214318,0,0,0,0,0,0,0,-20.182,-34.2207,-20.7599,28.4705,-1.81855,5.51964,0.131027,
-0.0180224,-0.11959,0.0902687,-1.93048,0.184218,0.0974544,0.0818804,0.135035,0.0177091,0.14415,-0.202165,0.970747,0.116018,0.00469681,-4.91341,-1.00747,-5.20499,4.58904,-27.993,13.4531,0.324459,11.9422,1.73872,12.735,-19.3694,10.3521,1.87579,0.062029,-0.0201622,-0.117544,0.0905426,-1.92385,0.171902,0.0907029,0.0815687,0.0635902,0.103633,0.151453,-0.0454588,0.804048,0.0371656,0.000445219,0.635598,15.7329,10.5052,5.82414,24.9687,-0.648137,0.32355,-1.59131,-28.73,-1.98668,23.3923,1.14959,2.92687,0.050461,
-0.0171594,-0.119476,0.09119,-1.93183,0.189962,0.0990764,0.0819332,0.129601,0.0170124,0.138353,-0.195658,0.9202,0.133362,0.00507786,-3.39607,-0.435471,-3.62318,4.0671,-31.5919,10.8405,0.238158,11.4666,1.85875,12.3333,-19.0236,10.3521,1.93388,0.0617058,-0.0201622,-0.117544,0.0905426,-1.92385,0.171902,0.0907029,0.0815687,0.0635902,0.103633,0.151453,-0.0454588,0.804048,0.0371656,0.000445219,0,0,0,0,0,0,0,-1.59131,-28.73,-1.98668,23.3923,1.14959,2.92687,0.050461,
-0.0162735,-0.119346,0.0921346,-1.93316,0.195085,0.100697,0.0819858,0.125829,0.016864,0.134299,-0.189819,0.864236,0.147214,0.00537741,-2.35716,-0.0927069,-2.53371,3.64906,-34.9774,8.65729,0.187215,11.0636,1.98301,11.9561,-18.6677,9.2516,1.98578,0.0629583,-0.0201622,-0.117544,0.0905426,-1.92385,0.171902,0.0907029,0.0815687,0.0635902,0.103633,0.151453,-0.0454588,0.804048,0.0371656,0.000445219,0,0,0,0,0,0,0,-1.59131,-28.73,-1.98668,23.3923,1.14959,2.92687,0.050461,
-0.0158052,-0.116271,0.0952261,-1.9306,0.199802,0.0983074,0.0818155,0.123275,0.0186439,0.131557,-0.185418,0.80306,0.157176,0.00559618,-1.59664,1.11239,-1.71387,2.75079,-38.235,6.22607,0.13673,10.7091,2.10093,11.6008,-18.3103,7.97562,2.02234,0.061829,-0.0201622,-0.117544,0.0905426,-1.92385,0.171902,0.0907029,0.0815687,0.0635902,0.103633,0.151453,-0.0454588,0.804048,0.0371656,0.000445219,0,0,0,0,0,0,0,-1.59131,-28.73,-1.98668,23.3923,1.14959,2.92687,0.050461,
-0.0148971,-0.116071,0.0961939,-1.93191,0.203686,0.0998807,0.0818681,0.121323,0.0199254,0.129439,-0.181121,0.739542,0.165074,0.00579238,-1.21976,0.800983,-1.32328,2.68526,-39.6986,4.93619,0.122628,10.4393,2.20918,11.3419,-18.0102,6.73053,2.01742,0.0609674,-0.0185159,-0.116368,0.09433,-1.92624,0.201645,0.0912362,0.0815584,0.0271443,0.0945028,0.0617879,-0.0699364,0.844403,0.0408115,0.00124548,-4.55573,-1.14122,-11.2082,-3.0597,5.04437,0.455732,0.100033,-3.82489,-28.1548,-4.13695,24.0628,0.0381434,3.28484,0.0706026,
-0.0139906,-0.115875,0.0971594,-1.93319,0.20702,0.101451,0.0819212,0.119721,0.0208364,0.127688,-0.176961,0.675006,0.171324,0.00596154,-1.0016,0.56933,-1.0944,2.60026,-40.3353,3.90624,0.105722,10.204,2.2932,11.0875,-17.6536,5.73921,2.02944,0.0599018,-0.0185159,-0.116368,0.09433,-1.92624,0.201645,0.0912362,0.0815584,0.0271443,0.0945028,0.0617879,-0.0699364,0.844403,0.0408115,0.00124548,0,0,0,0,0,0,0,-3.82489,-28.1548,-4.13695,24.0628,0.0381434,3.28484,0.0706026,
-0.0130898,-0.115683,0.0981184,-1.93445,0.209846,0.103017,0.0819754,0.118297,0.021473,0.126127,-0.172947,0.610634,0.176205,0.00612278,-0.890044,0.397897,-0.975917,2.50894,-40.2322,3.05071,0.100779,10.02,2.35587,10.882,-17.2987,4.84113,2.03286,0.0604108,-0.0185159,-0.116368,0.09433,-1.92624,0.201645,0.0912362,0.0815584,0.0271443,0.0945028,0.0617879,-0.0699364,0.844403,0.0408115,0.00124548,0,0,0,0,0,0,0,-3.82489,-28.1548,-4.13695,24.0628,0.0381434,3.28484,0.0706026,
-0.014986,-0.114993,0.0980643,-1.93244,0.220167,0.0986937,0.0818589,0.114794,0.0225476,0.12234,-0.169148,0.546788,0.180783,0.00633628,-2.18911,0.671643,-2.36688,2.37393,-39.9035,2.8612,0.133436,9.87376,2.39839,10.7121,-16.9484,4.05362,2.03712,0.0607585,-0.0185159,-0.116368,0.09433,-1.92624,0.201645,0.0912362,0.0815584,0.0271443,0.0945028,0.0617879,-0.0699364,0.844403,0.0408115,0.00124548,0,0,0,0,0,0,0,-3.82489,-28.1548,-4.13695,24.0628,0.0381434,3.28484,0.0706026,
-0.0141684,-0.114788,0.0989344,-1.93364,0.222045,0.100279,0.0819163,0.112277,0.0231767,0.119625,-0.165486,0.484387,0.184263,0.00650365,-1.57318,0.393189,-1.69675,2.28903,-39.0007,2.17539,0.104607,9.64894,2.38178,10.4675,-16.4834,3.28892,2.06567,0.0635698,-0.0179639,-0.115434,0.0972029,-1.92957,0.211865,0.0969811,0.081559,0.0621701,0.121883,0.171688,-0.0923306,-0.04866,0.393632,-0.000752636,4.37822,3.42251,13.7375,-2.79927,-111.633,44.1025,-0.249765,-7.50256,-28.4325,-8.43749,23.5153,0.898739,0.507132,0.0101778,
-0.0133481,-0.114589,0.0998075,-1.93483,0.223541,0.101851,0.0819734,0.110328,0.0235086,0.117526,-0.161949,0.424898,0.186707,0.00663053,-1.21834,0.207445,-1.31206,2.21065,-37.1811,1.52729,0.0793017,9.54693,2.38825,10.3406,-16.1415,2.67581,2.06226,0.064619,-0.0179639,-0.115434,0.0972029,-1.92957,0.211865,0.0969811,0.081559,0.0621701,0.121883,0.171688,-0.0923306,-0.04866,0.393632,-0.000752636,0,0,0,0,0,0,0,-7.50256,-28.4325,-8.43749,23.5153,0.898739,0.507132,0.0101778,
-0.0125311,-0.114396,0.100677,-1.93599,0.224709,0.103404,0.0820306,0.108687,0.0236424,0.115759,-0.158522,0.369114,0.188194,0.0067335,-1.02558,0.0836263,-1.10419,2.14164,-34.8644,0.929257,0.0643559,9.45519,2.37996,10.2244,-15.8032,2.13083,2.05184,0.0663327,-0.0179639,-0.115434,0.0972029,-1.92957,0.211865,0.0969811,0.081559,0.0621701,0.121883,0.171688,-0.0923306,-0.04866,0.393632,-0.000752636,0,0,0,0,0,0,0,-7.50256,-28.4325,-8.43749,23.5153,0.898739,0.507132,0.0101778,
-0.0141766,-0.113392,0.101329,-1.93553,0.214527,0.108315,0.0818085,0.105455,0.0259898,0.112447,-0.155831,0.307648,0.195268,0.00679103,-2.01978,1.4671,-2.06975,1.6821,-38.4164,4.42134,0.0359535,9.36714,2.36009,10.1115,-15.4694,1.66672,2.03956,0.067421,-0.0179639,-0.115434,0.0972029,-1.92957,0.211865,0.0969811,0.081559,0.0621701,0.121883,0.171688,-0.0923306,-0.04866,0.393632,-0.000752636,0,0,0,0,0,0,0,-7.50256,-28.4325,-8.43749,23.5153,0.898739,0.507132,0.0101778,
-0.0134381,-0.113136,0.102119,-1.93666,0.214901,0.109985,0.0818651,0.102829,0.0271933,0.109701,-0.152987,0.255468,0.197963,0.00684823,-1.64147,0.752219,-1.71685,1.77733,-32.6126,1.68445,0.0357521,9.28812,2.43029,10.0109,-15.2463,1.29473,1.94975,0.0696358,-0.0175884,-0.113576,0.101165,-1.93256,0.20478,0.11183,0.0815535,0.00721433,0.0621144,0.0558875,-0.102561,-0.306026,0.485873,-0.00204331,-6.86947,-7.47106,-14.475,-1.27877,-32.1707,11.5302,-0.161335,-2.83307,-29.5552,-2.81188,27.1255,0.690914,1.16997,0.0577852,
-0.0127024,-0.1129,0.102904,-1.93776,0.215154,0.111566,0.0819215,0.100654,0.0276582,0.107386,-0.150049,0.210712,0.197887,0.00688683,-1.35908,0.290545,-1.44627,1.83635,-27.9726,-0.0478962,0.0241274,9.19734,2.3934,9.89588,-14.9196,0.953939,1.92844,0.0703571,-0.0175884,-0.113576,0.101165,-1.93256,0.20478,0.11183,0.0815535,0.00721433,0.0621144,0.0558875,-0.102561,-0.306026,0.485873,-0.00204331,0,0,0,0,0,0,0,-2.83307,-29.5552,-2.81188,27.1255,0.690914,1.16997,0.0577852,
-0.0119714,-0.112679,0.103683,-1.93884,0.215295,0.113076,0.0819773,0.0987981,0.0276556,0.105383,-0.147054,0.172073,0.196048,0.00690537,-1.15996,-0.00165624,-1.25224,1.8721,-24.1491,-1.14904,0.0115838,9.10221,2.35066,9.77737,-14.5955,0.659272,1.90111,0.0711844,-0.0175884,-0.113576,0.101165,-1.93256,0.20478,0.11183,0.0815535,0.00721433,0.0621144,0.0558875,-0.102561,-0.306026,0.485873,-0.00204331,0,0,0,0,0,0,0,-2.83307,-29.5552,-2.81188,27.1255,0.690914,1.16997,0.0577852,
-0.0155371,-0.112244,0.103441,-1.93766,0.199879,0.124309,0.0818378,0.0919278,0.0274884,0.0981927,-0.142979,0.123288,0.203888,0.00695956,-4.29399,-0.104463,-4.49384,2.5469,-30.491,4.89969,0.0338698,9.00097,2.30411,9.6528,-14.2745,0.4173,1.87152,0.0713485,-0.0175884,-0.113576,0.101165,-1.93256,0.20478,0.11183,0.0815535,0.00721433,0.0621144,0.0558875,-0.102561,-0.306026,0.485873,-0.00204331,0,0,0,0,0,0,0,-2.83307,-29.5552,-2.81188,27.1255,0.690914,1.16997,0.0577852,
-0.0149888,-0.11204,0.104028,-1.93866,0.199372,0.126019,0.0818939,0.0872491,0.0270845,0.0932456,-0.139353,0.0859395,0.205858,0.00697039,-2.92416,-0.252438,-3.09199,2.26624,-23.3427,1.23168,0.00676829,8.8936,2.25459,9.52295,-13.9557,0.211399,1.83688,0.0714975,-0.0175884,-0.113576,0.101165,-1.93256,0.20478,0.11183,0.0815535,0.00721433,0.0621144,0.0558875,-0.102561,-0.306026,0.485873,-0.00204331,0,0,0,0,0,0,0,-2.83307,-29.5552,-2.81188,27.1255,0.690914,1.16997,0.0577852,
-0.0144166,-0.111844,0.104639,-1.93964,0.198907,0.127592,0.0819483,0.084104,0.0265617,0.089874,-0.13604,0.0571309,0.204026,0.00693721,-1.96568,-0.326765,-2.10725,2.07012,-18.0054,-1.14544,-0.0207345,8.75068,2.35121,9.35365,-13.7349,0.0818473,1.72531,0.0716506,-0.0173075,-0.112026,0.103578,-1.93559,0.19342,0.128908,0.0815511,0.0435428,0.0487564,0.0880541,-0.119672,-0.403064,0.558874,-0.00118295,4.54105,-1.66975,4.02082,-2.13893,-12.1297,9.12502,0.107545,-4.86432,-32.7489,-5.41045,31.7355,0.800778,2.13128,0.0376436,
-0.013828,-0.111655,0.105267,-1.94061,0.198469,0.129055,0.082001,0.0820006,0.0259901,0.0875763,-0.132941,0.0347699,0.199778,0.00686731,-1.31462,-0.357253,-1.43604,1.93735,-13.9756,-2.65471,-0.0436918,8.63027,2.29914,9.21169,-13.4204,-0.056198,1.68483,0.0711041,-0.0173075,-0.112026,0.103578,-1.93559,0.19342,0.128908,0.0815511,0.0435428,0.0487564,0.0880541,-0.119672,-0.403064,0.558874,-0.00118295,0,0,0,0,0,0,0,-4.86432,-32.7489,-5.41045,31.7355,0.800778,2.13128,0.0376436,
-0.0148635,-0.110786,0.106257,-1.94024,0.186907,0.141144,0.0817966,0.0787431,0.0257469,0.0841343,-0.12921,0.00962792,0.202648,0.00675177,-2.03596,-0.151995,-2.15124,2.33137,-15.7138,1.79346,-0.0722107,8.50355,2.24703,9.06359,-13.1078,-0.163898,1.64296,0.0700474,-0.0173075,-0.112026,0.103578,-1.93559,0.19342,0.128908,0.0815511,0.0435428,0.0487564,0.0880541,-0.119672,-0.403064,0.558874,-0.00118295,0,0,0,0,0,0,0,-4.86432,-32.7489,-5.41045,31.7355,0.800778,2.13128,0.0376436,
-0.0143218,-0.110598,0.106835,-1.94115,0.186291,0.142667,0.0818455,0.0765374,0.0252981,0.0817429,-0.125895,-0.00770743,0.200199,0.00662438,-1.37855,-0.280528,-1.49466,2.072,-10.8346,-1.5301,-0.0796213,8.37126,2.19508,8.91063,-12.7966,-0.251983,1.59825,0.0688861,-0.0173075,-0.112026,0.103578,-1.93559,0.19342,0.128908,0.0815511,0.0435428,0.0487564,0.0880541,-0.119672,-0.403064,0.558874,-0.00118295,0,0,0,0,0,0,0,-4.86432,-32.7489,-5.41045,31.7355,0.800778,2.13128,0.0376436,
-0.0137684,-0.110417,0.107423,-1.94203,0.185752,0.144043,0.0818926,0.0750651,0.0247654,0.080093,-0.122861,-0.0196431,0.194562,0.00647731,-0.920184,-0.332901,-1.03116,1.89669,-7.4598,-3.52349,-0.091919,8.26228,2.19154,8.78021,-12.5338,-0.238892,1.49395,0.0673398,-0.0168884,-0.111009,0.106824,-1.93971,0.178988,0.14504,0.081558,-0.00344537,-0.0121058,0.0361968,-0.110835,-0.482292,0.412891,-0.000294815,-5.87352,-7.60778,-6.48216,1.10468,-9.9035,-18.2478,0.111017,-7.87945,-34.2961,-8.01299,34.0009,0.386044,4.06762,0.017502,
-0.0154239,-0.110631,0.108447,-1.94371,0.170432,0.154871,0.0817933,0.069958,0.0228181,0.074666,-0.118191,-0.0399093,0.192078,0.00630112,-3.19194,-1.21708,-3.3919,2.91865,-12.6664,-1.55211,-0.110118,7.97322,2.09237,8.45156,-11.9174,-0.330087,1.39912,0.0636868,-0.0168884,-0.111009,0.106824,-1.93971,0.178988,0.14504,0.081558,-0.00344537,-0.0121058,0.0361968,-0.110835,-0.482292,0.412891,-0.000294815,0,0,0,0,0,0,0,-7.87945,-34.2961,-8.01299,34.0009,0.386044,4.06762,0.017502,
-0.0149946,-0.110501,0.108904,-1.9445,0.169638,0.156174,0.0818359,0.0666981,0.0215111,0.0711399,-0.114255,-0.0517757,0.186248,0.00610643,-2.03744,-0.816877,-2.20377,2.45955,-7.41644,-3.6439,-0.121683,7.82268,2.04466,8.28184,-11.6103,-0.360029,1.35072,0.0616295,-0.0168884,-0.111009,0.106824,-1.93971,0.178988,0.14504,0.081558,-0.00344537,-0.0121058,0.0361968,-0.110835,-0.482292,0.412891,-0.000294815,0,0,0,0,0,0,0,-7.87945,-34.2961,-8.01299,34.0009,0.386044,4.06762,0.017502,
-0.0145408,-0.110363,0.109384,-1.94528,0.168972,0.157351,0.0818762,0.0647045,0.0206442,0.068924,-0.110826,-0.0580675,0.17842,0.00589354,-1.24601,-0.54183,-1.38492,2.1437,-3.93238,-4.89263,-0.133052,7.6686,1.9985,8.10869,-11.3036,-0.380502,1.30256,0.0593533,-0.0168884,-0.111009,0.106824,-1.93971,0.178988,0.14504,0.081558,-0.00344537,-0.0121058,0.0361968,-0.110835,-0.482292,0.412891,-0.000294815,0,0,0,0,0,0,0,-7.87945,-34.2961,-8.01299,34.0009,0.386044,4.06762,0.017502,
-0.0140696,-0.110221,0.109881,-1.94604,0.168402,0.158422,0.0819143,0.0635429,0.0200754,0.0675738,-0.107731,-0.0607123,0.169507,0.00566681,-0.726004,-0.355473,-0.843876,1.93386,-1.65303,-5.57047,-0.141708,7.53927,1.94263,7.95672,-10.967,-0.3253,1.23056,0.0566857,-0.0168552,-0.110079,0.109144,-1.94311,0.166427,0.154314,0.0815602,0.0134644,0.00652377,0.056598,-0.0734359,-0.318294,0.167741,0.00151494,2.11373,2.3287,2.55016,4.67486,20.4997,-30.6438,0.226219,-4.81274,-35.2205,-5.18828,29.3948,0.97839,3.27202,-0.0026396,
-0.0149808,-0.10962,0.111157,-1.94686,0.160675,0.160249,0.0817559,0.0616546,0.0192659,0.0654885,-0.104651,-0.0656232,0.160616,0.00543807,-1.18018,-0.505964,-1.30337,1.92512,-3.06933,-5.5569,-0.142963,7.37918,1.89944,7.77816,-10.6604,-0.335863,1.18286,0.0542476,-0.0168552,-0.110079,0.109144,-1.94311,0.166427,0.154314,0.0815602,0.0134644,0.00652377,0.056598,-0.0734359,-0.318294,0.167741,0.00151494,0,0,0,0,0,0,0,-4.81274,-35.2205,-5.18828,29.3948,0.97839,3.27202,-0.0026396,
-0.0145324,-0.109484,0.111629,-1.94758,0.160103,0.161172,0.08179,0.0605339,0.0188259,0.0641949,-0.101778,-0.0667933,0.151554,0.00520235,-0.700454,-0.274983,-0.808485,1.79557,-0.731269,-5.66375,-0.147322,7.21652,1.85765,7.59745,-10.3534,-0.344764,1.13556,0.0518192,-0.0168552,-0.110079,0.109144,-1.94311,0.166427,0.154314,0.0815602,0.0134644,0.00652377,0.056598,-0.0734359,-0.318294,0.167741,0.00151494,0,0,0,0,0,0,0,-4.81274,-35.2205,-5.18828,29.3948,0.97839,3.27202,-0.0026396,
-0.0140739,-0.109342,0.112111,-1.94829,0.159613,0.162024,0.081822,0.0598886,0.0186059,0.0633952,-0.099025,-0.0656981,0.142555,0.00496114,-0.403327,-0.137483,-0.499765,1.72078,0.684471,-5.62483,-0.150756,7.0515,1.81737,7.41448,-10.046,-0.350815,1.08905,0.0493236,-0.0168552,-0.110079,0.109144,-1.94311,0.166427,0.154314,0.0815602,0.0134644,0.00652377,0.056598,-0.0734359,-0.318294,0.167741,0.00151494,0,0,0,0,0,0,0,-4.81274,-35.2205,-5.18828,29.3948,0.97839,3.27202,-0.0026396,
-0.0136101,-0.109197,0.112597,-1.94897,0.159183,0.162813,0.0818519,0.0595072,0.0185089,0.0628728,-0.0963301,-0.0633115,0.133773,0.00471786,-0.238367,-0.060602,-0.326515,1.68433,1.49162,-5.4882,-0.152052,6.90192,1.75342,7.24758,-9.70815,-0.309925,1.05311,0.0466145,-0.0168441,-0.109645,0.111329,-1.94578,0.157403,0.155309,0.0815524,-0.00987619,-0.0308473,0.0712673,-0.0667735,-0.233953,-0.0117762,-0.00173115,-2.91758,-4.67139,1.83365,0.83279,10.5426,-22.4397,-0.405761,5.20465,-29.9797,4.33717,21.7697,1.76574,2.01867,0.0641939,
-0.0150293,-0.109721,0.11325,-1.94907,0.152886,0.158193,0.0817171,0.057912,0.016793,0.0610891,-0.0931096,-0.0645967,0.123927,0.00449633,-0.997002,-1.07249,-1.11482,2.01277,-0.803231,-6.15369,-0.138453,6.73293,1.71575,7.06113,-9.3988,-0.314663,1.00813,0.0441562,-0.0168441,-0.109645,0.111329,-1.94578,0.157403,0.155309,0.0815524,-0.00987619,-0.0308473,0.0712673,-0.0667735,-0.233953,-0.0117762,-0.00173115,0,0,0,0,0,0,0,5.20465,-29.9797,4.33717,21.7697,1.76574,2.01867,0.0641939,
-0.0146073,-0.109622,0.113691,-1.9497,0.152412,0.158853,0.081744,0.0568794,0.0159215,0.0598975,-0.0900911,-0.0635106,0.115631,0.00426849,-0.645337,-0.544653,-0.744737,1.88659,0.678823,-5.18542,-0.142403,6.56233,1.67918,6.87342,-9.08819,-0.320108,0.963931,0.0417782,-0.0168441,-0.109645,0.111329,-1.94578,0.157403,0.155309,0.0815524,-0.00987619,-0.0308473,0.0712673,-0.0667735,-0.233953,-0.0117762,-0.00173115,0,0,0,0,0,0,0,5.20465,-29.9797,4.33717,21.7697,1.76574,2.01867,0.0641939,
-0.0141805,-0.109509,0.114137,-1.9503,0.152003,0.159484,0.0817689,0.0561724,0.0155534,0.0590506,-0.0871899,-0.0610496,0.108286,0.00403892,-0.44187,-0.230055,-0.529361,1.81323,1.53809,-4.59062,-0.143478,6.39046,1.6437,6.68451,-8.77617,-0.324683,0.920379,0.0394322,-0.0168441,-0.109645,0.111329,-1.94578,0.157403,0.155309,0.0815524,-0.00987619,-0.0308473,0.0712673,-0.0667735,-0.233953,-0.0117762,-0.00173115,0,0,0,0,0,0,0,5.20465,-29.9797,4.33717,21.7697,1.76574,2.01867,0.0641939,
-0.0150293,-0.109721,0.11325,-1.94907,0.152886,0.158193,0.0817171,0.0552442,0.0144286,0.0580313,-0.0857975,-0.0627872,0.103537,0.00395319,-0.58016,-0.703048,-0.637037,0.870254,-1.08597,-2.96775,-0.0535865,6.03636,1.56477,6.29908,-8.1091,-0.312752,0.864518,0.0349373,-0.0165551,-0.109129,0.113652,-1.94909,0.152613,0.154528,0.0815524,0.013827,0.0481704,0.0678061,-0.0886492,-0.06116,0.00911964,-0.000863155,2.9629,9.87721,-0.43264,-2.73446,21.5992,2.61198,0.108499,2.13398,-27.3811,1.51246,21.1746,1.91864,1.22307,0.0577852,
-0.0141738,-0.107679,0.116145,-1.95313,0.150149,0.156832,0.081703,0.0544439,0.0163983,0.0570802,-0.0832552,-0.0582305,0.0930295,0.00367106,-0.500165,1.23112,-0.594452,1.58892,2.8479,-6.56746,-0.176331,5.86294,1.53147,6.10915,-7.79197,-0.315185,0.821675,0.0328773,-0.0165551,-0.109129,0.113652,-1.94909,0.152613,0.154528,0.0815524,0.013827,0.0481704,0.0678061,-0.0886492,-0.06116,0.00911964,-0.000863155,0,0,0,0,0,0,0,2.13398,-27.3811,1.51246,21.1746,1.91864,1.22307,0.0577852,
-0.0137686,-0.107497,0.116565,-1.95368,0.149868,0.157221,0.0817219,0.0536855,0.0176811,0.0561753,-0.0803852,-0.0536021,0.0841639,0.00340851,-0.474032,0.801715,-0.565563,1.79377,2.89279,-5.541,-0.164092,5.69006,1.49867,5.91971,-7.47302,-0.314293,0.778134,0.0309072,-0.0165551,-0.109129,0.113652,-1.94909,0.152613,0.154528,0.0815524,0.013827,0.0481704,0.0678061,-0.0886492,-0.06116,0.00911964,-0.000863155,0,0,0,0,0,0,0,2.13398,-27.3811,1.51246,21.1746,1.91864,1.22307,0.0577852,
-0.0133703,-0.107324,0.116978,-1.9542,0.14963,0.157585,0.0817394,0.0529049,0.018458,0.05525,-0.0772835,-0.04884,0.0764288,0.00316526,-0.487834,0.485566,-0.578307,1.93859,2.97629,-4.83441,-0.15203,5.51826,1.4661,5.73145,-7.15221,-0.309697,0.733439,0.0290565,-0.0165551,-0.109129,0.113652,-1.94909,0.152613,0.154528,0.0815524,0.013827,0.0481704,0.0678061,-0.0886492,-0.06116,0.00911964,-0.000863155,0,0,0,0,0,0,0,2.13398,-27.3811,1.51246,21.1746,1.91864,1.22307,0.0577852,
-0.0147425,-0.107831,0.115542,-1.95211,0.150719,0.155674,0.0816523,0.0515061,0.0199799,0.0537001,-0.0748808,-0.0457679,0.0671356,0.00295408,-0.874266,0.951177,-0.968701,1.50168,1.92006,-5.80825,-0.131987,5.34514,1.42192,5.5449,-6.81478,-0.292108,0.698278,0.0272454,-0.0161995,-0.108705,0.115637,-1.9514,0.151057,0.1547,0.0815573,0.0153383,0.0620502,0.0632033,-0.0681997,-0.0487256,0.0372412,-0.000333105,0.188916,1.73497,-0.575358,2.55619,1.5543,3.5152,0.0662562,0.793033,-31.5508,-0.137926,26.2805,2.05963,1.36864,0.0239107,
-0.0143805,-0.107639,0.115916,-1.9526,0.150519,0.155892,0.0816679,0.050256,0.020787,0.0523006,-0.0720281,-0.0416049,0.0591436,0.00275489,-0.781323,0.504464,-0.874661,1.78291,2.60188,-4.99499,-0.124494,5.17773,1.38946,5.36088,-6.4905,-0.273263,0.648468,0.0256253,-0.0161995,-0.108705,0.115637,-1.9514,0.151057,0.1547,0.0815573,0.0153383,0.0620502,0.0632033,-0.0681997,-0.0487256,0.0372412,-0.000333105,0,0,0,0,0,0,0,0.793033,-31.5508,-0.137926,26.2805,2.05963,1.36864,0.0239107,
-0.0140259,-0.107461,0.116281,-1.95305,0.150397,0.156076,0.0816826,0.0490706,0.0210911,0.0509655,-0.0688622,-0.0363342,0.0519085,0.0025697,-0.740843,0.190067,-0.834419,1.97873,3.29419,-4.52194,-0.115747,5.01376,1.35687,5.18003,-6.16471,-0.243412,0.594335,0.0241305,-0.0161995,-0.108705,0.115637,-1.9514,0.151057,0.1547,0.0815573,0.0153383,0.0620502,0.0632033,-0.0681997,-0.0487256,0.0372412,-0.000333105,0,0,0,0,0,0,0,0.793033,-31.5508,-0.137926,26.2805,2.05963,1.36864,0.0239107,
-0.0136803,-0.107294,0.116636,-1.95346,0.150365,0.156214,0.0816963,0.0478946,0.0210467,0.0496384,-0.0654838,-0.0298732,0.0449976,0.00239875,-0.735015,-0.0277447,-0.829464,2.11148,4.03813,-4.3193,-0.106839,4.85391,1.32387,5.00315,-5.83764,-0.200294,0.534657,0.0227557,-0.0161995,-0.108705,0.115637,-1.9514,0.151057,0.1547,0.0815573,0.0153383,0.0620502,0.0632033,-0.0681997,-0.0487256,0.0372412,-0.000333105,0,0,0,0,0,0,0,0.793033,-31.5508,-0.137926,26.2805,2.05963,1.36864,0.0239107,
-0.0145931,-0.107302,0.117303,-1.95386,0.15017,0.155618,0.0816323,0.0462239,0.0220189,0.0478208,-0.0626719,-0.0234553,0.0375569,0.00225055,-1.04418,0.607607,-1.13601,1.7574,4.01115,-4.65048,-0.0926263,4.69905,1.29041,4.83089,-5.50959,-0.14043,0.467729,0.021524,-0.0161995,-0.108705,0.115637,-1.9514,0.151057,0.1547,0.0815573,0.0153383,0.0620502,0.0632033,-0.0681997,-0.0487256,0.0372412,-0.000333105,0,0,0,0,0,0,0,0.793033,-31.5508,-0.137926,26.2805,2.05963,1.36864,0.0239107,
-0.0142845,-0.107115,0.117618,-1.95423,0.150318,0.15561,0.0816449,0.0446933,0.0222838,0.0461382,-0.059496,-0.0150628,0.0298511,0.00211465,-0.956669,0.165566,-1.05161,1.98495,5.24535,-4.81609,-0.0849394,4.55074,1.27414,4.66482,-5.16889,-0.056666,0.404761,0.0203227,-0.0157748,-0.107389,0.117872,-1.95322,0.150684,0.155132,0.0815474,0.0315392,0.0476812,0.046809,-0.0635465,-0.00734831,0.00391416,-0.00146167,2.02512,-1.79612,-2.04929,0.581648,5.17216,-4.16589,-0.141071,-2.04754,-32.0268,-2.68492,29.7678,1.65039,1.99853,0.0843355,
-0.0139854,-0.106945,0.117922,-1.95457,0.150615,0.155524,0.0816569,0.0432339,0.0220846,0.044522,-0.0560814,-0.00463278,0.0217273,0.00199219,-0.912126,-0.124516,-1.01013,2.13415,6.51875,-5.07736,-0.0765398,4.40739,1.23911,4.50328,-4.84024,0.0459652,0.318433,0.0193791,-0.0157748,-0.107389,0.117872,-1.95322,0.150684,0.155132,0.0815474,0.0315392,0.0476812,0.046809,-0.0635465,-0.00734831,0.00391416,-0.00146167,0,0,0,0,0,0,0,-2.04754,-32.0268,-2.68492,29.7678,1.65039,1.99853,0.0843355,
-0.0143141,-0.106188,0.119364,-1.95513,0.152213,0.154324,0.0816091,0.0414202,0.0222313,0.0425206,-0.0523576,0.0122088,0.00939125,0.00189501,-1.13354,0.0916775,-1.25085,2.32737,10.526,-7.71006,-0.0607376,4.13798,1.16601,4.19609,-4.18581,0.33204,0.108471,0.0179483,-0.0157748,-0.107389,0.117872,-1.95322,0.150684,0.155132,0.0815474,0.0315392,0.0476812,0.046809,-0.0635465,-0.00734831,0.00391416,-0.00146167,0,0,0,0,0,0,0,-2.04754,-32.0268,-2.68492,29.7678,1.65039,1.99853,0.0843355,
-0.0140535,-0.106023,0.119626,-1.95539,0.153062,0.153907,0.0816205,0.039651,0.0219187,0.0405569,-0.0485039,0.0309826,-0.00291989,0.00180224,-1.10577,-0.195355,-1.22731,2.40855,11.7336,-7.69446,-0.0579755,4.01018,1.12804,4.04862,-3.86206,0.519991,-0.0165973,0.0174505,-0.0157748,-0.107389,0.117872,-1.95322,0.150684,0.155132,0.0815474,0.0315392,0.0476812,0.046809,-0.0635465,-0.00734831,0.00391416,-0.00146167,0,0,0,0,0,0,0,-2.04754,-32.0268,-2.68492,29.7678,1.65039,1.99853,0.0843355,
-0.0138061,-0.105872,0.119873,-1.95563,0.154128,0.153393,0.0816321,0.0379059,0.0213022,0.0386152,-0.0446559,0.0514352,-0.0151818,0.00173211,-1.09065,-0.385321,-1.21358,2.40498,12.7829,-7.66371,-0.0438319,3.88532,1.09512,3.90386,-3.53435,0.737306,-0.146782,0.0170626,-0.0154671,-0.106504,0.11941,-1.95436,0.150847,0.155167,0.0815535,0.0234022,0.0302222,0.0405517,-0.03188,-0.00217235,-0.00276672,-0.00114246,-1.01712,-2.18237,-0.782158,3.95831,0.646995,-0.835111,0.0399015,-1.76983,-32.5227,-2.43498,29.0695,1.38122,1.98571,0.0577852,
-0.0135724,-0.105732,0.120105,-1.95583,0.155407,0.152789,0.0816453,0.0361686,0.0205398,0.0366927,-0.0408517,0.0731137,-0.0272597,0.00171492,-1.08582,-0.476517,-1.20157,2.37762,13.5491,-7.54865,-0.0107445,3.76014,1.05759,3.75872,-3.22014,0.980908,-0.293198,0.0171763,-0.0154671,-0.106504,0.11941,-1.95436,0.150847,0.155167,0.0815535,0.0234022,0.0302222,0.0405517,-0.03188,-0.00217235,-0.00276672,-0.00114246,0,0,0,0,0,0,0,-1.76983,-32.5227,-2.43498,29.0695,1.38122,1.98571,0.0577852,
-0.0143748,-0.105725,0.120504,-1.95548,0.155404,0.153169,0.0816143,0.0338589,0.0196928,0.0341824,-0.0370391,0.095064,-0.0376173,0.00177251,-1.44357,-0.529342,-1.56894,2.38286,13.7189,-6.47351,0.0359955,3.62857,1.02303,3.60403,-2.91264,1.26796,-0.455776,0.017715,-0.0154671,-0.106504,0.11941,-1.95436,0.150847,0.155167,0.0815535,0.0234022,0.0302222,0.0405517,-0.03188,-0.00217235,-0.00276672,-0.00114246,0,0,0,0,0,0,0,-1.76983,-32.5227,-2.43498,29.0695,1.38122,1.98571,0.0577852,
-0.0141948,-0.1056,0.120677,-1.95563,0.15718,0.152455,0.0816278,0.031587,0.0188923,0.0316645,-0.0334424,0.120444,-0.0479523,0.0017546,-1.41991,-0.500346,-1.57368,2.24797,15.8624,-6.45938,-0.0111972,3.47622,0.996363,3.42694,-2.60954,1.5764,-0.625953,0.0172939,-0.0154671,-0.106504,0.11941,-1.95436,0.150847,0.155167,0.0815535,0.0234022,0.0302222,0.0405517,-0.03188,-0.00217235,-0.00276672,-0.00114246,0,0,0,0,0,0,0,-1.76983,-32.5227,-2.43498,29.0695,1.38122,1.98571,0.0577852,
-0.0140309,-0.105485,0.120831,-1.95577,0.159223,0.15173,0.0816312,0.0293675,0.0179831,0.0291915,-0.0303647,0.147426,-0.056487,0.00148828,-1.38722,-0.56825,-1.54564,1.92355,16.8639,-5.33416,-0.166447,3.30949,0.97194,3.24041,-2.32602,1.85209,-0.759368,0.0175957,-0.0149849,-0.105531,0.120837,-1.95503,0.152176,0.154883,0.0815535,0.0146797,-0.000954584,0.0335569,-0.029559,0.0780983,-0.0162606,-0.000933606,-1.09031,-3.8971,-0.87435,0.290123,10.0338,-1.68674,0.0261071,0.00751081,-32.6735,-0.610033,29.1449,1.61926,2.55608,0.0577852,
-0.0138752,-0.105375,0.120983,-1.95591,0.161349,0.151093,0.0816295,0.0273868,0.0171343,0.0271539,-0.0275919,0.171095,-0.0611262,0.00114841,-1.23796,-0.530502,-1.2735,1.733,14.793,-2.89952,-0.212422,3.10694,0.979616,3.02568,-2.03516,2.10491,-0.872963,0.0195831,-0.0149849,-0.105531,0.120837,-1.95503,0.152176,0.154883,0.0815535,0.0146797,-0.000954584,0.0335569,-0.029559,0.0780983,-0.0162606,-0.000933606,0,0,0,0,0,0,0,0.00751081,-32.6735,-0.610033,29.1449,1.61926,2.55608,0.0577852,
-0.0142557,-0.105184,0.121541,-1.9556,0.160991,0.152252,0.0815783,0.0250013,0.0157639,0.0246924,-0.0243586,0.19368,-0.0626768,0.000850657,-1.49092,-0.856459,-1.53844,2.02082,14.1158,-0.969153,-0.186094,2.87118,0.998529,2.75799,-1.75148,2.50431,-0.954968,0.0237401,-0.0149849,-0.105531,0.120837,-1.95503,0.152176,0.154883,0.0815535,0.0146797,-0.000954584,0.0335569,-0.029559,0.0780983,-0.0162606,-0.000933606,0,0,0,0,0,0,0,0.00751081,-32.6735,-0.610033,29.1449,1.61926,2.55608,0.0577852,
-0.014148,-0.105099,0.121642,-1.95568,0.163568,0.151645,0.0815698,0.0226923,0.0147297,0.0222606,-0.0213103,0.219371,-0.0653182,0.000466935,-1.44312,-0.646399,-1.5199,1.90521,16.0565,-1.65088,-0.239826,2.55298,1.01705,2.3852,-1.44424,2.95041,-1.016,0.0209216,-0.0149849,-0.105531,0.120837,-1.95503,0.152176,0.154883,0.0815535,0.0146797,-0.000954584,0.0335569,-0.029559,0.0780983,-0.0162606,-0.000933606,0,0,0,0,0,0,0,0.00751081,-32.6735,-0.610033,29.1449,1.61926,2.55608,0.0577852,
-0.0140522,-0.105017,0.121733,-1.95573,0.166357,0.150989,0.0815612,0.0205493,0.0138266,0.0201063,-0.0184782,0.245238,-0.0686478,0.000160426,-1.33934,-0.564435,-1.34638,1.77003,16.1674,-2.08095,-0.191568,2.23193,0.835863,2.04503,-1.24306,3.15682,-0.862565,0.0073614,-0.014427,-0.105042,0.121603,-1.95544,0.156615,0.153498,0.0815643,0.0197462,0.00361008,0.0189115,-0.00312342,0.184479,-0.0545966,0.000206079,0.633311,0.570584,-1.83068,3.30445,13.2976,-4.792,0.142461,0.0313145,-32.126,-0.788561,28.3237,1.6925,2.86095,0.00376909,
-0.0139565,-0.104798,0.122057,-1.95561,0.169326,0.150581,0.0815248,0.0182692,0.0124341,0.0178399,-0.0149927,0.269883,-0.0729017,-4.28061e-05,-1.42508,-0.870289,-1.41654,2.17842,15.4028,-2.65871,-0.12702,1.82717,0.79204,1.71189,-0.720833,3.4229,-0.643844,-0.000584354,-0.014427,-0.105042,0.121603,-1.95544,0.156615,0.153498,0.0815643,0.0197462,0.00361008,0.0189115,-0.00312342,0.184479,-0.0545966,0.000206079,0,0,0,0,0,0,0,0.0313145,-32.126,-0.788561,28.3237,1.6925,2.86095,0.00376909,
-0.0138969,-0.104745,0.122112,-1.9556,0.172468,0.149789,0.0815123,0.0161034,0.0112803,0.0156631,-0.011899,0.294444,-0.0781383,-0.000345686,-1.35362,-0.721144,-1.36046,1.93361,15.351,-3.27288,-0.1893,1.64322,0.745118,1.47937,-0.517699,3.93648,-0.828395,-0.00703734,-0.014427,-0.105042,0.121603,-1.95544,0.156615,0.153498,0.0815643,0.0197462,0.00361008,0.0189115,-0.00312342,0.184479,-0.0545966,0.000206079,0,0,0,0,0,0,0,0.0313145,-32.126,-0.788561,28.3237,1.6925,2.86095,0.00376909,
-0.0138372,-0.104699,0.122168,-1.9556,0.175613,0.149005,0.0815072,0.0143757,0.0101562,0.0139294,-0.0093424,0.314177,-0.082095,-0.000405517,-1.07982,-0.702547,-1.08356,1.59786,12.333,-2.47291,-0.0373944,1.49343,0.611614,1.39471,-0.348734,4.02037,-0.884086,-0.00804303,-0.014427,-0.105042,0.121603,-1.95544,0.156615,0.153498,0.0815643,0.0197462,0.00361008,0.0189115,-0.00312342,0.184479,-0.0545966,0.000206079,0,0,0,0,0,0,0,0.0313145,-32.126,-0.788561,28.3237,1.6925,2.86095,0.00376909,
-0.0137723,-0.104664,0.122236,-1.95559,0.17856,0.148314,0.0815011,0.0131223,0.00901642,0.0128446,-0.00725756,0.325032,-0.0829542,-0.000475326,-0.783378,-0.712376,-0.678052,1.30302,6.78398,-0.537044,-0.0436309,1.28457,0.537764,1.2261,-0.141805,3.71784,-0.920771,-0.00851332,-0.0138738,-0.104769,0.122015,-1.95554,0.164612,0.152572,0.0815568,0.0177362,-0.00217537,-0.00114584,0.011174,0.276941,-0.0146041,-0.00264273,-0.251259,-0.723182,-2.50716,1.78718,11.5578,4.99907,-0.356101,-0.222592,-31.4754,-0.986925,27.5262,1.8518,2.73461,0.0706026,
-0.0136844,-0.104788,0.122201,-1.95527,0.178822,0.150169,0.0815122,0.0115012,0.00715067,0.011402,-0.00476812,0.330262,-0.0790368,-0.000600523,-1.01318,-1.16609,-0.901593,1.5559,3.26913,2.44838,-0.0782476,1.09837,0.477339,1.01826,0.0325163,4.10109,-1.0431,-0.00606142,-0.0138738,-0.104769,0.122015,-1.95554,0.164612,0.152572,0.0815568,0.0177362,-0.00217537,-0.00114584,0.011174,0.276941,-0.0146041,-0.00264273,0,0,0,0,0,0,0,-0.222592,-31.4754,-0.986925,27.5262,1.8518,2.73461,0.0706026,
-0.0136461,-0.104792,0.122244,-1.95523,0.181579,0.149683,0.0814995,0.0101579,0.00561785,0.0102083,-0.00282567,0.333116,-0.0753621,-0.000797945,-0.839561,-0.958009,-0.74605,1.21403,1.78379,2.29673,-0.123389,0.854013,0.422909,0.753666,0.217857,4.37736,-1.13725,-0.0129528,-0.0138738,-0.104769,0.122015,-1.95554,0.164612,0.152572,0.0815568,0.0177362,-0.00217537,-0.00114584,0.011174,0.276941,-0.0146041,-0.00264273,0,0,0,0,0,0,0,-0.222592,-31.4754,-0.986925,27.5262,1.8518,2.73461,0.0706026,
-0.0136061,-0.104805,0.122307,-1.9552,0.184107,0.149296,0.0814915,0.00912733,0.00415326,0.00973247,-0.0015361,0.329697,-0.0699793,-0.000839452,-0.644123,-0.91537,-0.297411,0.805981,-2.13714,3.36422,-0.0259418,0.774629,0.23491,0.719253,0.323648,3.98627,-0.938183,-0.00608467,-0.0138738,-0.104769,0.122015,-1.95554,0.164612,0.152572,0.0815568,0.0177362,-0.00217537,-0.00114584,0.011174,0.276941,-0.0146041,-0.00264273,0,0,0,0,0,0,0,-0.222592,-31.4754,-0.986925,27.5262,1.8518,2.73461,0.0706026,
-0.0135449,-0.104825,0.122389,-1.95517,0.186191,0.149047,0.0814864,0.00883113,0.00284248,0.00983263,-0.000473435,0.315877,-0.0622129,-0.000798706,-0.185124,-0.819235,0.0625971,0.664168,-8.63729,4.85398,0.025466,0.494959,0.0947874,0.56676,0.436295,3.25008,-0.601756,-0.0100537,-0.0134272,-0.104864,0.122095,-1.95544,0.17404,0.152352,0.0815636,0.0123973,-0.00264513,-0.00294466,0.0115669,0.244025,0.000227238,-5.66593e-05,-0.667355,-0.0587202,-0.224852,0.0491148,-4.11452,1.85392,0.323259,-0.349545,-31.0271,-1.0385,27.0264,1.65588,2.49566,0.0101778,
-0.0133367,-0.105001,0.122269,-1.95515,0.184589,0.151608,0.0815145,0.00801327,0.00144846,0.00940983,0.000775822,0.295206,-0.0513156,-0.000818827,-0.511159,-0.871266,-0.264248,0.780786,-12.9196,6.81086,-0.0125752,0.358167,0.0162567,0.425822,0.479083,3.3968,-0.606306,-0.0114841,-0.0134272,-0.104864,0.122095,-1.95544,0.17404,0.152352,0.0815636,0.0123973,-0.00264513,-0.00294466,0.0115669,0.244025,0.000227238,-5.66593e-05,0,0,0,0,0,0,0,-0.349545,-31.0271,-1.0385,27.0264,1.65588,2.49566,0.0101778,
-0.013298,-0.105034,0.122334,-1.95511,0.186148,0.151581,0.0815062,0.00737767,0.000321725,0.00913573,0.00173784,0.275126,-0.0417262,-0.000862345,-0.397256,-0.704208,-0.171312,0.60126,-12.5499,5.99337,-0.027199,0.243533,-0.0608187,0.30905,0.522071,3.31971,-0.554762,-0.0162994,-0.0134272,-0.104864,0.122095,-1.95544,0.17404,0.152352,0.0815636,0.0123973,-0.00264513,-0.00294466,0.0115669,0.244025,0.000227238,-5.66593e-05,0,0,0,0,0,0,0,-0.349545,-31.0271,-1.0385,27.0264,1.65588,2.49566,0.0101778,
-0.0132617,-0.105068,0.122397,-1.95506,0.187615,0.151577,0.0814973,0.00681178,-0.000577237,0.00888431,0.0024841,0.256774,-0.0334862,-0.000912089,-0.353679,-0.561851,-0.157142,0.466413,-11.4702,5.15001,-0.0310901,0.160705,-0.298671,0.485273,0.46106,2.66383,-0.258012,-0.0125857,-0.0134272,-0.104864,0.122095,-1.95544,0.17404,0.152352,0.0815636,0.0123973,-0.00264513,-0.00294466,0.0115669,0.244025,0.000227238,-5.66593e-05,0,0,0,0,0,0,0,-0.349545,-31.0271,-1.0385,27.0264,1.65588,2.49566,0.0101778,
-0.0132672,-0.10505,0.122381,-1.95516,0.181694,0.15258,0.0815203,0.00612897,-0.0013841,0.00846153,0.00322231,0.240239,-0.0255782,-0.000963192,-0.426756,-0.504287,-0.264238,0.46138,-10.3343,4.94248,-0.0319393,0.096744,-0.349464,0.434003,0.520762,1.61425,0.0525835,-0.0116605,-0.0133385,-0.105019,0.122114,-1.95513,0.179289,0.152698,0.0815565,0.00449875,-0.00154771,0.00168118,0.0143746,0.0583207,0.0296462,-0.00189192,-0.987322,0.137178,0.578229,0.35096,-23.213,3.67737,-0.229407,-1.28582,-30.6026,-2.06206,26.9788,0.960079,2.60186,0.0440523,
-0.0132431,-0.105086,0.122432,-1.95511,0.183057,0.152628,0.0815109,0.00550522,-0.00200181,0.00805077,0.00377158,0.226253,-0.0192746,-0.0010057,-0.389846,-0.386074,-0.256725,0.343293,-8.74113,3.93975,-0.0265685,0.096744,-0.349464,0.434003,0.520762,1.61425,0.0525835,-0.0116605,-0.0133385,-0.105019,0.122114,-1.95513,0.179289,0.152698,0.0815565,0.00449875,-0.00154771,0.00168118,0.0143746,0.0583207,0.0296462,-0.00189192,0,0,0,0,0,0,0,-1.28582,-30.6026,-2.06206,26.9788,0.960079,2.60186,0.0440523,
-0.0132218,-0.105121,0.122481,-1.95507,0.184397,0.152674,0.0815014,0.00493689,-0.00246912,0.0076559,0.00417824,0.214508,-0.0142539,-0.00104023,-0.355203,-0.292067,-0.246793,0.254167,-7.34078,3.1379,-0.0215801,0.096744,-0.349464,0.434003,0.520762,1.61425,0.0525835,-0.0116605,-0.0133385,-0.105019,0.122114,-1.95513,0.179289,0.152698,0.0815565,0.00449875,-0.00154771,0.00168118,0.0143746,0.0583207,0.0296462,-0.00189192,0,0,0,0,0,0,0,-1.28582,-30.6026,-2.06206,26.9788,0.960079,2.60186,0.0440523,
-0.0132029,-0.105154,0.122527,-1.95502,0.18572,0.15272,0.081492,0.00442275,-0.00281855,0.00728258,0.00447721,0.204688,-0.0102567,-0.00106781,-0.32134,-0.218395,-0.233322,0.186857,-6.13741,2.49825,-0.0172396,0.096744,-0.349464,0.434003,0.520762,1.61425,0.0525835,-0.0116605,-0.0133385,-0.105019,0.122114,-1.95513,0.179289,0.152698,0.0815565,0.00449875,-0.00154771,0.00168118,0.0143746,0.0583207,0.0296462,-0.00189192,0,0,0,0,0,0,0,-1.28582,-30.6026,-2.06206,26.9788,0.960079,2.60186,0.0440523,
-0.0134134,-0.105179,0.122182,-1.95487,0.184419,0.153405,0.0815025,0.00322993,-0.00301411,0.00619524,0.00472669,0.193268,-0.00596758,-0.0010895,-0.74551,-0.12222,-0.679592,0.155924,-7.13776,2.68072,-0.0135561,0.0963359,-0.339753,0.434326,0.507191,1.61518,0.0395138,-0.0115796,-0.0132496,-0.105134,0.122144,-1.95482,0.179247,0.155038,0.081561,0.00261573,-0.00161343,-0.0028751,0.00411411,-0.00176471,0.0789328,0.000632529,-0.235378,-0.00821427,-0.569534,-1.28256,-7.51067,6.16083,0.315556,-0.984311,-29.6028,-1.71294,25.8798,0.953671,2.25762,-0.00996382,
-0.0134224,-0.105208,0.1222,-1.95482,0.185627,0.153482,0.0814933,0.0023585,-0.0031538,0.00540564,0.00490129,0.184803,-0.00285476,-0.00110354,-0.544642,-0.08731,-0.4935,0.109124,-5.29029,1.94551,-0.00877321,0.0963359,-0.339753,0.434326,0.507191,1.61518,0.0395138,-0.0115796,-0.0132496,-0.105134,0.122144,-1.95482,0.179247,0.155038,0.081561,0.00261573,-0.00161343,-0.0028751,0.00411411,-0.00176471,0.0789328,0.000632529,0,0,0,0,0,0,0,-0.984311,-29.6028,-1.71294,25.8798,0.953671,2.25762,-0.00996382,
-0.0134284,-0.105238,0.122221,-1.95478,0.186852,0.153549,0.0814841,0.00173829,-0.00325409,0.00485098,0.00501999,0.178458,-0.000595661,-0.00111326,-0.387633,-0.0626779,-0.346662,0.0741889,-3.96603,1.41194,-0.00607275,0.0963359,-0.339753,0.434326,0.507191,1.61518,0.0395138,-0.0115796,-0.0132496,-0.105134,0.122144,-1.95482,0.179247,0.155038,0.081561,0.00261573,-0.00161343,-0.0028751,0.00411411,-0.00176471,0.0789328,0.000632529,0,0,0,0,0,0,0,-0.984311,-29.6028,-1.71294,25.8798,0.953671,2.25762,-0.00996382,
-0.0134579,-0.105225,0.122082,-1.95458,0.183481,0.156278,0.0815059,0.000579743,-0.00316377,0.00374286,0.00514774,0.170324,0.00266802,-0.00112374,-0.724091,0.0564465,-0.69257,0.0798384,-5.08328,2.0398,-0.00655328,0.0963359,-0.339753,0.434326,0.507191,1.61518,0.0395138,-0.0115796,-0.0132496,-0.105134,0.122144,-1.95482,0.179247,0.155038,0.081561,0.00261573,-0.00161343,-0.0028751,0.00411411,-0.00176471,0.0789328,0.000632529,0,0,0,0,0,0,0,-0.984311,-29.6028,-1.71294,25.8798,0.953671,2.25762,-0.00996382,
-0.0134835,-0.105249,0.122083,-1.95454,0.184631,0.156377,0.0814968,-0.000176865,-0.00312048,0.0030219,0.00522245,0.165025,0.00461328,-0.00112723,-0.47288,0.0270572,-0.450604,0.0466977,-3.31202,1.21579,-0.00218237,0.0963359,-0.339753,0.434326,0.507191,1.61518,0.0395138,-0.0115796,-0.0132496,-0.105134,0.122144,-1.95482,0.179247,0.155038,0.081561,0.00261573,-0.00161343,-0.0028751,0.00411411,-0.00176471,0.0789328,0.000632529,0,0,0,0,0,0,0,-0.984311,-29.6028,-1.71294,25.8798,0.953671,2.25762,-0.00996382,
-0.013503,-0.105273,0.122091,-1.9545,0.185814,0.156457,0.0814877,-0.000628797,-0.00310686,0.00259799,0.00525822,0.161591,0.00569682,-0.00112794,-0.282457,0.00851027,-0.264941,0.0223537,-2.14659,0.677214,-0.000443748,0.0964835,-0.328809,0.433639,0.497839,1.61622,0.0294246,-0.0115286,-0.0132612,-0.105119,0.121899,-1.95472,0.179218,0.157104,0.0815625,0.000884251,0.00115549,-0.0088053,0.00537333,0.000555891,0.049933,0.00168873,-0.216434,0.346114,-0.741275,0.157401,0.290076,-3.62497,0.132026,-0.67883,-30.1027,-1.36382,26.0306,0.893246,2.25762,-0.0227812,
-0.0135172,-0.105298,0.122103,-1.95445,0.187019,0.156524,0.0814787,-0.000858188,-0.00311132,0.00239265,0.00526651,0.159385,0.00622318,-0.0011279,-0.14337,-0.00278669,-0.128337,0.00518123,-1.37876,0.328978,2.57674e-05,0.0964835,-0.328809,0.433639,0.497839,1.61622,0.0294246,-0.0115286,-0.0132612,-0.105119,0.121899,-1.95472,0.179218,0.157104,0.0815625,0.000884251,0.00115549,-0.0088053,0.00537333,0.000555891,0.049933,0.00168873,0,0,0,0,0,0,0,-0.67883,-30.1027,-1.36382,26.0306,0.893246,2.25762,-0.0227812,
-0.0135278,-0.105163,0.121775,-1.95454,0.183412,0.157934,0.0815102,-0.00163466,-0.00285932,0.00163232,0.00514118,0.154759,0.00711417,-0.00112964,-0.485292,0.1575,-0.47521,-0.0783291,-2.89067,0.556866,-0.00108751,0.0964835,-0.328809,0.433639,0.497839,1.61622,0.0294246,-0.0115286,-0.0132612,-0.105119,0.121899,-1.95472,0.179218,0.157104,0.0815625,0.000884251,0.00115549,-0.0088053,0.00537333,0.000555891,0.049933,0.00168873,0,0,0,0,0,0,0,-0.67883,-30.1027,-1.36382,26.0306,0.893246,2.25762,-0.0227812,
-0.0135576,-0.10518,0.121772,-1.95451,0.184551,0.158002,0.0815012,-0.00205105,-0.00270887,0.00122591,0.00505,0.152303,0.00738776,-0.00112776,-0.260246,0.0940326,-0.254006,-0.0569897,-1.53531,0.170994,0.00117858,0.0964835,-0.328809,0.433639,0.497839,1.61622,0.0294246,-0.0115286,-0.0132612,-0.105119,0.121899,-1.95472,0.179218,0.157104,0.0815625,0.000884251,0.00115549,-0.0088053,0.00537333,0.000555891,0.049933,0.00168873,0,0,0,0,0,0,0,-0.67883,-30.1027,-1.36382,26.0306,0.893246,2.25762,-0.0227812,
-0.0135802,-0.105198,0.121776,-1.95447,0.185725,0.158057,0.0814923,-0.00220599,-0.00263088,0.00107946,0.00498291,0.151185,0.00729649,-0.00112522,-0.0968393,0.0487447,-0.0915298,-0.0419326,-0.698934,-0.0570444,0.00158496,0.0962119,-0.320084,0.432118,0.493408,1.61678,0.0245539,-0.0115037,-0.013376,-0.105019,0.121673,-1.95474,0.17915,0.158253,0.0815618,-0.000495409,-0.000103468,-0.00281135,0.00270872,-0.000727625,0.0137647,0.000666738,-0.172458,-0.157369,0.749244,-0.333076,-0.16044,-4.52104,-0.12775,0.868412,-31.0509,0.0644055,26.8796,1.41235,2.29699,-0.0163725,
-0.0135968,-0.105218,0.121786,-1.95443,0.186922,0.158104,0.0814834,-0.00217962,-0.00260337,0.00111479,0.00493311,0.150873,0.00700122,-0.00112328,0.0164795,0.0171907,0.0220821,-0.0311233,-0.195027,-0.184546,0.00121155,0.0962119,-0.320084,0.432118,0.493408,1.61678,0.0245539,-0.0115037,-0.013376,-0.105019,0.121673,-1.95474,0.17915,0.158253,0.0815618,-0.000495409,-0.000103468,-0.00281135,0.00270872,-0.000727625,0.0137647,0.000666738,0,0,0,0,0,0,0,0.868412,-31.0509,0.0644055,26.8796,1.41235,2.29699,-0.0163725,
-0.0135914,-0.105052,0.121603,-1.95464,0.183364,0.158494,0.0815089,-0.00253409,-0.00232943,0.000773252,0.00463835,0.148104,0.00629571,-0.00112684,-0.22154,0.171216,-0.213464,-0.184222,-1.73038,-0.440944,-0.00222145,0.0962119,-0.320084,0.432118,0.493408,1.61678,0.0245539,-0.0115037,-0.013376,-0.105019,0.121673,-1.95474,0.17915,0.158253,0.0815618,-0.000495409,-0.000103468,-0.00281135,0.00270872,-0.000727625,0.0137647,0.000666738,0,0,0,0,0,0,0,0.868412,-31.0509,0.0644055,26.8796,1.41235,2.29699,-0.0163725,
-0.0136161,-0.105064,0.121605,-1.95461,0.184509,0.158518,0.0815,-0.00264491,-0.00216442,0.000668481,0.0044589,0.147118,0.00565422,-0.0011263,-0.0692603,0.103129,-0.0654818,-0.112155,-0.616132,-0.400932,0.000336086,0.0962119,-0.320084,0.432118,0.493408,1.61678,0.0245539,-0.0115037,-0.013376,-0.105019,0.121673,-1.95474,0.17915,0.158253,0.0815618,-0.000495409,-0.000103468,-0.00281135,0.00270872,-0.000727625,0.0137647,0.000666738,0,0,0,0,0,0,0,0.868412,-31.0509,0.0644055,26.8796,1.41235,2.29699,-0.0163725,
-0.0136347,-0.105078,0.121613,-1.95458,0.185688,0.158541,0.081491,-0.00258111,-0.00208378,0.000736448,0.00435902,0.147159,0.0050952,-0.00112473,0.039874,0.0504028,0.0424795,-0.0624274,0.0251906,-0.349385,0.000979869,0.096172,-0.314125,0.430599,0.494235,1.61685,0.0253373,-0.011508,-0.0134052,-0.104841,0.121501,-1.95475,0.179112,0.158275,0.0815567,-0.000250373,0.00589009,-0.00230779,0.000525534,0.000197888,-0.00587701,-0.000660725,0.0306295,0.749195,0.0629439,-0.272898,0.115689,-2.45522,-0.165933,0.919986,-30.8763,0.163588,27.0026,1.58264,2.57531,0.0303194,
-0.0136482,-0.105094,0.121626,-1.95454,0.186889,0.158563,0.0814821,-0.00240034,-0.00206569,0.000921725,0.00431321,0.147755,0.00462037,-0.00112346,0.11298,0.0113051,0.115798,-0.028632,0.372858,-0.296766,0.000795462,0.096172,-0.314125,0.430599,0.494235,1.61685,0.0253373,-0.011508,-0.0134052,-0.104841,0.121501,-1.95475,0.179112,0.158275,0.0815567,-0.000250373,0.00589009,-0.00230779,0.000525534,0.000197888,-0.00587701,-0.000660725,0,0,0,0,0,0,0,0.919986,-30.8763,0.163588,27.0026,1.58264,2.57531,0.0303194,
-0.0136339,-0.104763,0.121445,-1.95472,0.184467,0.158173,0.0814947,-0.00250948,-0.00167198,0.000816689,0.00397272,0.146769,0.00359485,-0.00112356,-0.0682139,0.246069,-0.0656477,-0.212804,-0.616612,-0.640953,-6.4667e-05,0.096172,-0.314125,0.430599,0.494235,1.61685,0.0253373,-0.011508,-0.0134052,-0.104841,0.121501,-1.95475,0.179112,0.158275,0.0815567,-0.000250373,0.00589009,-0.00230779,0.000525534,0.000197888,-0.00587701,-0.000660725,0,0,0,0,0,0,0,0.919986,-30.8763,0.163588,27.0026,1.58264,2.57531,0.0303194,
-0.0136516,-0.104768,0.121454,-1.95469,0.185642,0.158174,0.0814857,-0.00245025,-0.00146062,0.000877515,0.00379095,0.146814,0.0028966,-0.00112267,0.0370206,0.132099,0.0380161,-0.11361,0.0283999,-0.436406,0.000554912,0.096172,-0.314125,0.430599,0.494235,1.61685,0.0253373,-0.011508,-0.0134052,-0.104841,0.121501,-1.95475,0.179112,0.158275,0.0815567,-0.000250373,0.00589009,-0.00230779,0.000525534,0.000197888,-0.00587701,-0.000660725,0,0,0,0,0,0,0,0.919986,-30.8763,0.163588,27.0026,1.58264,2.57531,0.0303194,
-0.0136644,-0.104777,0.121468,-1.95467,0.186841,0.158179,0.0814768,-0.00227798,-0.00138003,0.00105136,0.00371723,0.147422,0.00244265,-0.00112205,0.107669,0.0503667,0.108653,-0.0460763,0.380093,-0.283719,0.000390284,0.0961726,-0.310694,0.429789,0.495212,1.61733,0.0262405,-0.0115134,-0.0133943,-0.104714,0.121473,-1.95482,0.17899,0.158267,0.0815621,0.00274952,0.00317641,0.00165028,9.53973e-05,0.00840354,-0.000592972,0.000587366,0.374986,-0.339211,0.49476,-0.053767,1.02571,0.660505,0.156011,0.94379,-31.0509,0.163588,27.0541,1.63757,2.48284,-0.0163725,
-0.0136729,-0.104788,0.121486,-1.95464,0.188056,0.158188,0.0814678,-0.00203616,-0.00139014,0.00129575,0.00371511,0.148302,0.00216716,-0.00112211,0.151139,-0.00631543,0.152744,-0.0013229,0.549642,-0.172184,-3.56886e-05,0.0961726,-0.310694,0.429789,0.495212,1.61733,0.0262405,-0.0115134,-0.0133943,-0.104714,0.121473,-1.95482,0.17899,0.158267,0.0815621,0.00274952,0.00317641,0.00165028,9.53973e-05,0.00840354,-0.000592972,0.000587366,0,0,0,0,0,0,0,0.94379,-31.0509,0.163588,27.0541,1.63757,2.48284,-0.0163725,
-0.0135301,-0.104679,0.121486,-1.95478,0.183385,0.158229,0.0815082,-0.0021834,-0.00114551,0.00115989,0.00347304,0.146558,0.00164386,-0.00112926,-0.092026,0.152895,-0.0849108,-0.151294,-1.0899,-0.327059,-0.00447288,0.0961726,-0.310694,0.429789,0.495212,1.61733,0.0262405,-0.0115134,-0.0133943,-0.104714,0.121473,-1.95482,0.17899,0.158267,0.0815621,0.00274952,0.00317641,0.00165028,9.53973e-05,0.00840354,-0.000592972,0.000587366,0,0,0,0,0,0,0,0.94379,-31.0509,0.163588,27.0541,1.63757,2.48284,-0.0163725,
-0.0135474,-0.104684,0.121495,-1.95476,0.184546,0.15823,0.0814991,-0.00217809,-0.00104305,0.00116786,0.0033764,0.146278,0.00133026,-0.00113102,0.00331662,0.0640335,0.00497843,-0.0603986,-0.17504,-0.195999,-0.00109918,0.0961726,-0.310694,0.429789,0.495212,1.61733,0.0262405,-0.0115134,-0.0133943,-0.104714,0.121473,-1.95482,0.17899,0.158267,0.0815621,0.00274952,0.00317641,0.00165028,9.53973e-05,0.00840354,-0.000592972,0.000587366,0,0,0,0,0,0,0,0.94379,-31.0509,0.163588,27.0541,1.63757,2.48284,-0.0163725,
-0.0135601,-0.104693,0.121509,-1.95473,0.185737,0.158234,0.0814901,-0.00206066,-0.00104371,0.00128501,0.00337518,0.146794,0.00117746,-0.00113082,0.073395,-0.000411291,0.0732193,-0.000764593,0.32264,-0.0955014,0.000126594,0.0961723,-0.307153,0.429041,0.496411,1.61794,0.0273139,-0.0115195,-0.0133778,-0.104569,0.121501,-1.9549,0.178838,0.158254,0.081555,0.000361065,0.00336811,0.00617816,0.00157135,0.00276102,-0.000293894,-0.000930627,-0.298557,0.0239622,0.565985,0.184493,-0.705315,0.0373846,-0.189749,0.94379,-30.9279,0.0644055,26.9788,1.71081,2.50939,0.0440523,
-0.0135689,-0.104704,0.121527,-1.9547,0.186948,0.158242,0.0814811,-0.00186801,-0.00111565,0.00147721,0.00343411,0.147702,0.00114142,-0.00113026,0.120408,-0.0449609,0.120127,0.0368338,0.567637,-0.0225233,0.000349372,0.0961723,-0.307153,0.429041,0.496411,1.61794,0.0273139,-0.0115195,-0.0133778,-0.104569,0.121501,-1.9549,0.178838,0.158254,0.081555,0.000361065,0.00336811,0.00617816,0.00157135,0.00276102,-0.000293894,-0.000930627,0,0,0,0,0,0,0,0.94379,-30.9279,0.0644055,26.9788,1.71081,2.50939,0.0440523,
-0.0135006,-0.10454,0.121528,-1.95485,0.183186,0.158241,0.0814997,-0.00202416,-0.000942143,0.00133015,0.00326478,0.146062,0.000892296,-0.00113721,-0.0975951,0.108441,-0.0919101,-0.105834,-1.02533,-0.155704,-0.00434497,0.0961723,-0.307153,0.429041,0.496411,1.61794,0.0273139,-0.0115195,-0.0133778,-0.104569,0.121501,-1.9549,0.178838,0.158254,0.081555,0.000361065,0.00336811,0.00617816,0.00157135,0.00276102,-0.000293894,-0.000930627,0,0,0,0,0,0,0,0.94379,-30.9279,0.0644055,26.9788,1.71081,2.50939,0.0440523,
-0.0135171,-0.104545,0.121539,-1.95483,0.184348,0.158243,0.0814906,-0.00203344,-0.000891667,0.00132099,0.00322368,0.145889,0.000783825,-0.0011383,-0.00580013,0.0315474,-0.00573034,-0.0256865,-0.107939,-0.0677941,-0.000679005,0.0961723,-0.307153,0.429041,0.496411,1.61794,0.0273139,-0.0115195,-0.0133778,-0.104569,0.121501,-1.9549,0.178838,0.158254,0.081555,0.000361065,0.00336811,0.00617816,0.00157135,0.00276102,-0.000293894,-0.000930627,0,0,0,0,0,0,0,0.94379,-30.9279,0.0644055,26.9788,1.71081,2.50939,0.0440523,
-0.0135294,-0.104554,0.121553,-1.9548,0.18554,0.15825,0.0814815,-0.0019326,-0.000930085,0.00141909,0.00326469,0.146503,0.000785294,-0.00113725,0.0630271,-0.0240115,0.0613165,0.0256355,0.383864,0.000918139,0.000652265,0.0961695,-0.302413,0.428198,0.497275,1.61811,0.0281812,-0.0115246,-0.013314,-0.104394,0.121535,-1.95492,0.178803,0.158265,0.0815671,0.00317376,0.00538954,-0.000118595,0.00178409,0.0127013,0.000592422,0.00101521,0.351587,0.252679,-0.787094,0.0265932,1.24254,0.11079,0.24323,0.816837,-31.4278,-0.0387439,26.951,1.42425,2.41692,-0.0227812,
-0.0135378,-0.104566,0.121571,-1.95477,0.186751,0.158259,0.0814725,-0.00175654,-0.00102925,0.00159249,0.0033556,0.147495,0.000865709,-0.00113584,0.110034,-0.061979,0.108372,0.0568153,0.619866,0.0502588,0.000884801,0.0961695,-0.302413,0.428198,0.497275,1.61811,0.0281812,-0.0115246,-0.013314,-0.104394,0.121535,-1.95492,0.178803,0.158265,0.0815671,0.00317376,0.00538954,-0.000118595,0.00178409,0.0127013,0.000592422,0.00101521,0,0,0,0,0,0,0,0.816837,-31.4278,-0.0387439,26.951,1.42425,2.41692,-0.0227812,
-0.0134768,-0.104339,0.121545,-1.95486,0.18441,0.158279,0.0815045,-0.00185034,-0.000907091,0.00149608,0.00328342,0.14706,0.000802822,-0.00113602,-0.0586241,0.0763503,-0.0602563,-0.0451089,-0.271802,-0.0393042,-0.000114324,0.0961695,-0.302413,0.428198,0.497275,1.61811,0.0281812,-0.0115246,-0.013314,-0.104394,0.121535,-1.95492,0.178803,0.158265,0.0815671,0.00317376,0.00538954,-0.000118595,0.00178409,0.0127013,0.000592422,0.00101521,0,0,0,0,0,0,0,0.816837,-31.4278,-0.0387439,26.951,1.42425,2.41692,-0.0227812,
-0.0134899,-0.104346,0.121559,-1.95483,0.185601,0.158286,0.0814955,-0.00180861,-0.000899457,0.00153355,0.00330219,0.147438,0.000831079,-0.00113473,0.0260796,0.00477144,0.0234203,0.0117278,0.23645,0.0176607,0.00080731,0.0961695,-0.302413,0.428198,0.497275,1.61811,0.0281812,-0.0115246,-0.013314,-0.104394,0.121535,-1.95492,0.178803,0.158265,0.0815671,0.00317376,0.00538954,-0.000118595,0.00178409,0.0127013,0.000592422,0.00101521,0,0,0,0,0,0,0,0.816837,-31.4278,-0.0387439,26.951,1.42425,2.41692,-0.0227812,
-0.013499,-0.104356,0.121576,-1.9548,0.186813,0.158297,0.0814865,-0.00167401,-0.000969797,0.00166465,0.00337751,0.148229,0.000926735,-0.0011334,0.0841245,-0.0439626,0.08194,0.0470784,0.494186,0.0597852,0.000829607,0.0961798,-0.29901,0.427754,0.497748,1.61805,0.0286935,-0.0115269,-0.0132499,-0.104266,0.121603,-1.95491,0.178825,0.158278,0.0815595,0.00271,-0.000200703,-0.000990851,0.00445238,0.00668807,-0.00027015,-0.000336187,-0.0579699,-0.69878,-0.109032,0.333536,-0.75166,-0.107821,-0.168925,0.463749,-30.6026,-0.387865,26.5781,1.28326,2.33727,0.017502,
-0.0135046,-0.104369,0.121597,-1.95477,0.188037,0.15831,0.0814774,-0.00148111,-0.00109017,0.00185575,0.00348545,0.149189,0.00106777,-0.00113259,0.120562,-0.0752339,0.119434,0.0674573,0.600262,0.0881464,0.000506951,0.0961798,-0.29901,0.427754,0.497748,1.61805,0.0286935,-0.0115269,-0.0132499,-0.104266,0.121603,-1.95491,0.178825,0.158278,0.0815595,0.00271,-0.000200703,-0.000990851,0.00445238,0.00668807,-0.00027015,-0.000336187,0,0,0,0,0,0,0,0.463749,-30.6026,-0.387865,26.5781,1.28326,2.33727,0.017502,
-0.0134097,-0.104307,0.121588,-1.95481,0.183201,0.158341,0.0815057,-0.00180328,-0.00110823,0.00153446,0.00345484,0.14723,0.00119376,-0.0011367,-0.201356,-0.0112889,-0.200803,-0.0191266,-1.22483,0.0787434,-0.00256971,0.0961798,-0.29901,0.427754,0.497748,1.61805,0.0286935,-0.0115269,-0.0132499,-0.104266,0.121603,-1.95491,0.178825,0.158278,0.0815595,0.00271,-0.000200703,-0.000990851,0.00445238,0.00668807,-0.00027015,-0.000336187,0,0,0,0,0,0,0,0.463749,-30.6026,-0.387865,26.5781,1.28326,2.33727,0.017502,
-0.0134289,-0.104318,0.121595,-1.95479,0.184361,0.158356,0.0814966,-0.00192283,-0.00116583,0.00141068,0.00349422,0.146793,0.0013374,-0.00113636,-0.0747141,-0.0359956,-0.0773668,0.0246083,-0.27312,0.0897769,0.000217145,0.0961798,-0.29901,0.427754,0.497748,1.61805,0.0286935,-0.0115269,-0.0132499,-0.104266,0.121603,-1.95491,0.178825,0.158278,0.0815595,0.00271,-0.000200703,-0.000990851,0.00445238,0.00668807,-0.00027015,-0.000336187,0,0,0,0,0,0,0,0.463749,-30.6026,-0.387865,26.5781,1.28326,2.33727,0.017502,
-0.0134431,-0.104331,0.121608,-1.95475,0.185552,0.158373,0.0814876,-0.0018939,-0.00125628,0.00143491,0.00357545,0.147195,0.00149318,-0.00113469,0.0180813,-0.0565346,0.0151449,0.0507687,0.251561,0.0973609,0.00104097,0.0961798,-0.29901,0.427754,0.497748,1.61805,0.0286935,-0.0115269,-0.0132499,-0.104266,0.121603,-1.95491,0.178825,0.158278,0.0815595,0.00271,-0.000200703,-0.000990851,0.00445238,0.00668807,-0.00027015,-0.000336187,0,0,0,0,0,0,0,0.463749,-30.6026,-0.387865,26.5781,1.28326,2.33727,0.017502,
-0.0133091,-0.104058,0.121693,-1.95492,0.183215,0.15815,0.081511,-0.00210979,-0.000818546,0.00122703,0.00322477,0.145518,0.000797336,-0.00113855,-0.134934,0.273585,-0.129926,-0.219172,-1.04815,-0.434902,-0.00240975,0.0961538,-0.296342,0.427458,0.498157,1.618,0.0291442,-0.0115296,-0.0131585,-0.10416,0.121697,-1.95491,0.178852,0.158288,0.0815639,0.00368973,0.00503254,-0.00113276,-0.00500987,0.00925157,-0.00207272,0.00140759,0.122466,0.654155,-0.0177387,-1.18278,0.320437,-0.225321,0.217972,0.309024,-30.7018,-0.435472,26.5781,1.22833,2.32995,-0.0227812,
-0.0133276,-0.104056,0.121701,-1.9549,0.184371,0.158142,0.0815019,-0.00215075,-0.000600383,0.00118581,0.00307035,0.145316,0.000420961,-0.00113801,-0.0255973,0.136352,-0.0257614,-0.0965123,-0.12614,-0.235234,0.000337355,0.0961538,-0.296342,0.427458,0.498157,1.618,0.0291442,-0.0115296,-0.0131585,-0.10416,0.121697,-1.95491,0.178852,0.158288,0.0815639,0.00368973,0.00503254,-0.00113276,-0.00500987,0.00925157,-0.00207272,0.00140759,0,0,0,0,0,0,0,0.309024,-30.7018,-0.435472,26.5781,1.22833,2.32995,-0.0227812,
-0.0133413,-0.104058,0.121714,-1.95488,0.185558,0.158139,0.0814929,-0.0020637,-0.000539053,0.00126998,0.0030461,0.145919,0.000279409,-0.0011362,0.0544009,0.0383311,0.052604,-0.015159,0.376503,-0.0884703,0.00113123,0.0961538,-0.296342,0.427458,0.498157,1.618,0.0291442,-0.0115296,-0.0131585,-0.10416,0.121697,-1.95491,0.178852,0.158288,0.0815639,0.00368973,0.00503254,-0.00113276,-0.00500987,0.00925157,-0.00207272,0.00140759,0,0,0,0,0,0,0,0.309024,-30.7018,-0.435472,26.5781,1.22833,2.32995,-0.0227812,
-0.0133509,-0.104064,0.121731,-1.95485,0.186765,0.158143,0.0814838,-0.00189023,-0.000585543,0.00144067,0.00310517,0.146917,0.000302342,-0.00113452,0.10842,-0.0290562,0.106686,0.0369205,0.623912,0.014333,0.00105073,0.0961538,-0.296342,0.427458,0.498157,1.618,0.0291442,-0.0115296,-0.0131585,-0.10416,0.121697,-1.95491,0.178852,0.158288,0.0815639,0.00368973,0.00503254,-0.00113276,-0.00500987,0.00925157,-0.00207272,0.00140759,0,0,0,0,0,0,0,0.309024,-30.7018,-0.435472,26.5781,1.22833,2.32995,-0.0227812,
-0.0132597,-0.103727,0.121736,-1.95496,0.183257,0.15822,0.0815074,-0.00209375,6.64125e-05,0.00124676,0.00268404,0.145321,-0.0001734,-0.00113915,-0.127202,0.407472,-0.121197,-0.263209,-0.997444,-0.297338,-0.00289463,0.0960844,-0.291341,0.426516,0.499191,1.61801,0.0300694,-0.0115348,-0.0131165,-0.103977,0.12173,-1.9549,0.178854,0.158287,0.0815615,0.00243341,0.0169626,0.00164911,-0.000234462,0.0113259,-6.18161e-05,0.000785133,-0.15704,1.49126,0.347734,0.596926,0.259289,0.251363,-0.0778074,0.233646,-29.9797,-0.610033,25.9552,1.19171,2.29058,-0.00996382,
-0.0132779,-0.103714,0.121744,-1.95494,0.184413,0.158209,0.0814983,-0.00212958,0.000371944,0.00121057,0.00250653,0.145154,-0.000427946,-0.00113898,-0.0223897,0.190957,-0.0226151,-0.110942,-0.104204,-0.159091,0.000106725,0.0960844,-0.291341,0.426516,0.499191,1.61801,0.0300694,-0.0115348,-0.0131165,-0.103977,0.12173,-1.9549,0.178854,0.158287,0.0815615,0.00243341,0.0169626,0.00164911,-0.000234462,0.0113259,-6.18161e-05,0.000785133,0,0,0,0,0,0,0,0.233646,-29.9797,-0.610033,25.9552,1.19171,2.29058,-0.00996382,
-0.0132914,-0.103708,0.121757,-1.95492,0.185599,0.158202,0.0814893,-0.00204162,0.00044239,0.00129454,0.00249077,0.145769,-0.000493284,-0.00113731,0.0549712,0.0440287,0.0524813,-0.00984805,0.384299,-0.0408364,0.00103849,0.0960844,-0.291341,0.426516,0.499191,1.61801,0.0300694,-0.0115348,-0.0131165,-0.103977,0.12173,-1.9549,0.178854,0.158287,0.0815615,0.00243341,0.0169626,0.00164911,-0.000234462,0.0113259,-6.18161e-05,0.000785133,0,0,0,0,0,0,0,0.233646,-29.9797,-0.610033,25.9552,1.19171,2.29058,-0.00996382,
-0.0133009,-0.103708,0.121774,-1.9549,0.186805,0.158202,0.0814802,-0.00186954,0.000358723,0.00146219,0.00257828,0.14677,-0.000411562,-0.00113566,0.107554,-0.052292,0.104778,0.0546906,0.625754,0.0510763,0.00103124,0.0960844,-0.291341,0.426516,0.499191,1.61801,0.0300694,-0.0115348,-0.0131165,-0.103977,0.12173,-1.9549,0.178854,0.158287,0.0815615,0.00243341,0.0169626,0.00164911,-0.000234462,0.0113259,-6.18161e-05,0.000785133,0,0,0,0,0,0,0,0.233646,-29.9797,-0.610033,25.9552,1.19171,2.29058,-0.00996382,
-0.0132597,-0.103727,0.121736,-1.95496,0.183257,0.15822,0.0815074,-0.0020772,0.000821826,0.00126397,0.00226252,0.145204,-0.000744522,-0.00114007,-0.129788,0.289439,-0.123887,-0.197347,-0.979125,-0.2081,-0.00275099,0.0961625,-0.285955,0.425602,0.500507,1.61804,0.0315416,-0.0115424,-0.0130741,-0.103762,0.121775,-1.95498,0.178851,0.158253,0.0815606,-0.00108911,0.00584884,-0.00162563,-0.00368467,0.00662224,-0.00391213,0.00044613,-0.440314,-1.38922,-0.409343,-0.431276,-0.587955,-0.481289,-0.0423754,0.233646,-30.428,-0.586229,26.4313,1.25946,2.52221,-0.0026396,
-0.0132779,-0.103714,0.121744,-1.95494,0.184413,0.158209,0.0814983,-0.00211633,0.000976275,0.00122434,0.00216932,0.145061,-0.000884844,-0.00113971,-0.0244591,0.0965308,-0.0247666,-0.0582527,-0.0895489,-0.0877009,0.000221632,0.0961625,-0.285955,0.425602,0.500507,1.61804,0.0315416,-0.0115424,-0.0130741,-0.103762,0.121775,-1.95498,0.178851,0.158253,0.0815606,-0.00108911,0.00584884,-0.00162563,-0.00368467,0.00662224,-0.00391213,0.00044613,0,0,0,0,0,0,0,0.233646,-30.428,-0.586229,26.4313,1.25946,2.52221,-0.0026396,
-0.0132914,-0.103708,0.121757,-1.95492,0.185599,0.158202,0.0814893,-0.00203103,0.000925855,0.00130556,0.002221,0.145694,-0.000858802,-0.0011379,0.0533157,-0.0315126,0.0507601,0.0323034,0.396023,0.0162759,0.00113042,0.0961625,-0.285955,0.425602,0.500507,1.61804,0.0315416,-0.0115424,-0.0130741,-0.103762,0.121775,-1.95498,0.178851,0.158253,0.0815606,-0.00108911,0.00584884,-0.00162563,-0.00368467,0.00662224,-0.00391213,0.00044613,0,0,0,0,0,0,0,0.233646,-30.428,-0.586229,26.4313,1.25946,2.52221,-0.0026396,
-0.0132724,-0.10365,0.121721,-1.95499,0.183129,0.15813,0.0815084,-0.00235123,0.000969348,0.000983157,0.00214056,0.144013,-0.000982348,-0.00113881,-0.200127,0.027183,-0.201503,-0.0502742,-1.05066,-0.0772162,-0.000567043,0.0961625,-0.285955,0.425602,0.500507,1.61804,0.0315416,-0.0115424,-0.0130741,-0.103762,0.121775,-1.95498,0.178851,0.158253,0.0815606,-0.00108911,0.00584884,-0.00162563,-0.00368467,0.00662224,-0.00391213,0.00044613,0,0,0,0,0,0,0,0.233646,-30.428,-0.586229,26.4313,1.25946,2.52221,-0.0026396,
-0.013295,-0.103646,0.121725,-1.95497,0.184275,0.158125,0.0814994,-0.00244667,0.000869551,0.000880418,0.00220274,0.143865,-0.000907035,-0.00113658,-0.0596461,-0.0623726,-0.0642116,0.0388618,-0.0925971,0.0470707,0.00139141,0.0962075,-0.279172,0.424435,0.502281,1.6181,0.0333005,-0.0115525,-0.0129653,-0.103492,0.121849,-1.95508,0.178861,0.158251,0.0815656,-0.00158747,0.011247,-0.00233554,0.00119377,0.0135452,-0.000799324,0.00098247,-0.0622957,0.674774,-0.0887383,0.609805,0.865366,0.389101,0.0670425,-0.0202602,-30.9041,-0.788561,26.5781,1.24115,2.44256,-0.00996382,
-0.013312,-0.103647,0.121734,-1.95495,0.185454,0.158126,0.0814904,-0.00238089,0.000674096,0.000938466,0.00235232,0.144559,-0.000694421,-0.0011339,0.0411072,-0.12216,0.0362797,0.0934864,0.433855,0.132884,0.00167714,0.0962075,-0.279172,0.424435,0.502281,1.6181,0.0333005,-0.0115525,-0.0129653,-0.103492,0.121849,-1.95508,0.178861,0.158251,0.0815656,-0.00158747,0.011247,-0.00233554,0.00119377,0.0135452,-0.000799324,0.00098247,0,0,0,0,0,0,0,-0.0202602,-30.9041,-0.788561,26.5781,1.24115,2.44256,-0.00996382,
-0.0133241,-0.103652,0.121749,-1.95492,0.186655,0.158133,0.0814814,-0.00220714,0.000419979,0.00110612,0.00255103,0.145672,-0.000395222,-0.00113186,0.108597,-0.158823,0.104786,0.124192,0.695309,0.186999,0.00127336,0.0962075,-0.279172,0.424435,0.502281,1.6181,0.0333005,-0.0115525,-0.0129653,-0.103492,0.121849,-1.95508,0.178861,0.158251,0.0815656,-0.00158747,0.011247,-0.00233554,0.00119377,0.0135452,-0.000799324,0.00098247,0,0,0,0,0,0,0,-0.0202602,-30.9041,-0.788561,26.5781,1.24115,2.44256,-0.00996382,
-0.0131716,-0.10333,0.121785,-1.95508,0.18323,0.158245,0.0815137,-0.0025062,0.0006569,0.000805716,0.00240691,0.144118,-0.00034335,-0.00113347,-0.186911,0.148076,-0.187754,-0.0900765,-0.970827,0.0324194,-0.00100513,0.0962075,-0.279172,0.424435,0.502281,1.6181,0.0333005,-0.0115525,-0.0129653,-0.103492,0.121849,-1.95508,0.178861,0.158251,0.0815656,-0.00158747,0.011247,-0.00233554,0.00119377,0.0135452,-0.000799324,0.00098247,0,0,0,0,0,0,0,-0.0202602,-30.9041,-0.788561,26.5781,1.24115,2.44256,-0.00996382,
-0.0131946,-0.103324,0.121789,-1.95506,0.184379,0.158248,0.0815047,-0.00258035,0.000686873,0.000725339,0.00241762,0.144018,-0.000207201,-0.00113209,-0.0463458,0.018733,-0.0502355,0.00669723,-0.0626637,0.0850932,0.000865578,0.0961621,-0.277453,0.424044,0.503379,1.61819,0.0344227,-0.0115578,-0.0128755,-0.103397,0.121907,-1.95519,0.178852,0.158221,0.0815646,-0.000892858,-0.00705327,-0.000841308,-0.00161964,0.00770649,-0.00307176,0.000770814,0.0868267,-2.28754,0.186779,-0.351676,-0.729836,-0.284055,-0.026457,0.182071,-31.3762,-0.661608,27.6016,1.37573,2.68151,-0.00996382,
-0.0132118,-0.103323,0.121798,-1.95503,0.185559,0.158255,0.0814957,-0.00249478,0.000578842,0.000804249,0.00252597,0.144718,6.42979e-07,-0.00113024,0.0534792,-0.0675192,0.0493191,0.0677155,0.437674,0.129903,0.0011565,0.0961621,-0.277453,0.424044,0.503379,1.61819,0.0344227,-0.0115578,-0.0128755,-0.103397,0.121907,-1.95519,0.178852,0.158221,0.0815646,-0.000892858,-0.00705327,-0.000841308,-0.00161964,0.00770649,-0.00307176,0.000770814,0,0,0,0,0,0,0,0.182071,-31.3762,-0.661608,27.6016,1.37573,2.68151,-0.00996382,
-0.0132241,-0.103326,0.121811,-1.95501,0.186761,0.158265,0.0814867,-0.00230337,0.000383856,0.000990517,0.00269175,0.145817,0.000260251,-0.00112895,0.119635,-0.121866,0.116417,0.103614,0.686521,0.162255,0.00080141,0.0961621,-0.277453,0.424044,0.503379,1.61819,0.0344227,-0.0115578,-0.0128755,-0.103397,0.121907,-1.95519,0.178852,0.158221,0.0815646,-0.000892858,-0.00705327,-0.000841308,-0.00161964,0.00770649,-0.00307176,0.000770814,0,0,0,0,0,0,0,0.182071,-31.3762,-0.661608,27.6016,1.37573,2.68151,-0.00996382,
-0.0130565,-0.103492,0.121867,-1.95509,0.18319,0.158188,0.0815126,-0.00250926,-6.62815e-07,0.000783602,0.00285876,0.144409,0.000460649,-0.00113276,-0.128682,-0.240324,-0.129322,0.104379,-0.879946,0.125249,-0.00237878,0.0961621,-0.277453,0.424044,0.503379,1.61819,0.0344227,-0.0115578,-0.0128755,-0.103397,0.121907,-1.95519,0.178852,0.158221,0.0815646,-0.000892858,-0.00705327,-0.000841308,-0.00161964,0.00770649,-0.00307176,0.000770814,0,0,0,0,0,0,0,0.182071,-31.3762,-0.661608,27.6016,1.37573,2.68151,-0.00996382,
-0.0130772,-0.103504,0.121873,-1.95506,0.184347,0.158203,0.0815035,-0.00252337,-0.000317214,0.000764836,0.00305089,0.144445,0.000749716,-0.00113274,-0.00881902,-0.197844,-0.0117289,0.120084,0.0223839,0.180667,1.23642e-05,0.0961834,-0.271841,0.423131,0.50413,1.61823,0.0352571,-0.0115627,-0.0128202,-0.103197,0.121947,-1.9552,0.178848,0.158246,0.0815587,-0.00248233,-0.00213929,0.00051975,-0.00258644,0.0168961,-0.00291123,-0.00079241,-0.198684,0.614249,0.170132,-0.12085,1.14871,0.020067,-0.195403,0.793033,-31.2254,-0.0387439,27.2525,1.44897,2.49566,0.0239107,
-0.0130924,-0.103518,0.121883,-1.95503,0.185535,0.158222,0.0814945,-0.00240115,-0.000591639,0.000882754,0.00324984,0.145249,0.00107514,-0.0011317,0.0763892,-0.171516,0.0736993,0.124341,0.503028,0.203391,0.000652701,0.0961834,-0.271841,0.423131,0.50413,1.61823,0.0352571,-0.0115627,-0.0128202,-0.103197,0.121947,-1.9552,0.178848,0.158246,0.0815587,-0.00248233,-0.00213929,0.00051975,-0.00258644,0.0168961,-0.00291123,-0.00079241,0,0,0,0,0,0,0,0.793033,-31.2254,-0.0387439,27.2525,1.44897,2.49566,0.0239107,
-0.0129956,-0.103211,0.121913,-1.95514,0.183288,0.158187,0.0815067,-0.00255968,-0.000572354,0.000725077,0.00319244,0.144099,0.000944763,-0.00113473,-0.0990826,0.0120534,-0.0985482,-0.0358737,-0.719339,-0.0814871,-0.00189645,0.0961834,-0.271841,0.423131,0.50413,1.61823,0.0352571,-0.0115627,-0.0128202,-0.103197,0.121947,-1.9552,0.178848,0.158246,0.0815587,-0.00248233,-0.00213929,0.00051975,-0.00258644,0.0168961,-0.00291123,-0.00079241,0,0,0,0,0,0,0,0.793033,-31.2254,-0.0387439,27.2525,1.44897,2.49566,0.0239107,
-0.0130153,-0.103217,0.12192,-1.95511,0.184448,0.158196,0.0814976,-0.0025405,-0.000613003,0.000740802,0.00322818,0.14428,0.000985818,-0.00113435,0.0119873,-0.0254058,0.00982763,0.0223392,0.113343,0.0256594,0.000240243,0.0961834,-0.271841,0.423131,0.50413,1.61823,0.0352571,-0.0115627,-0.0128202,-0.103197,0.121947,-1.9552,0.178848,0.158246,0.0815587,-0.00248233,-0.00213929,0.00051975,-0.00258644,0.0168961,-0.00291123,-0.00079241,0,0,0,0,0,0,0,0.793033,-31.2254,-0.0387439,27.2525,1.44897,2.49566,0.0239107,
-0.0130298,-0.103226,0.121931,-1.95508,0.185638,0.15821,0.0814886,-0.00239595,-0.000701441,0.000881643,0.00332064,0.145165,0.00113438,-0.00113313,0.0903446,-0.0552741,0.088026,0.057787,0.552906,0.0928515,0.000756987,0.0962189,-0.27153,0.423155,0.50401,1.61832,0.0350844,-0.0115615,-0.0127714,-0.103192,0.121953,-1.95517,0.178832,0.158268,0.0815568,-0.00136202,0.00185648,-0.00405323,0.00751018,0.00590464,7.62327e-05,-0.000436737,0.14004,0.499471,-0.571622,1.26208,-1.37394,0.373433,0.0444592,0.285221,-30.5034,-0.463243,26.5305,1.46728,2.29058,0.0376436,
-0.01304,-0.103236,0.121947,-1.95505,0.186848,0.158227,0.0814796,-0.00217017,-0.000824202,0.00110516,0.00344486,0.146372,0.00134405,-0.00113221,0.141109,-0.0767253,0.139701,0.0776364,0.754717,0.131045,0.000579063,0.0962189,-0.27153,0.423155,0.50401,1.61832,0.0350844,-0.0115615,-0.0127714,-0.103192,0.121953,-1.95517,0.178832,0.158268,0.0815568,-0.00136202,0.00185648,-0.00405323,0.00751018,0.00590464,7.62327e-05,-0.000436737,0,0,0,0,0,0,0,0.285221,-30.5034,-0.463243,26.5305,1.46728,2.29058,0.0376436,
-0.0129948,-0.103211,0.121869,-1.95506,0.183135,0.158417,0.0815042,-0.00252723,-0.000820737,0.000744885,0.0034518,0.14465,0.00174549,-0.00113358,-0.223162,0.00216573,-0.225175,0.00433613,-1.07639,0.250899,-0.000855312,0.0962189,-0.27153,0.423155,0.50401,1.61832,0.0350844,-0.0115615,-0.0127714,-0.103192,0.121953,-1.95517,0.178832,0.158268,0.0815568,-0.00136202,0.00185648,-0.00405323,0.00751018,0.00590464,7.62327e-05,-0.000436737,0,0,0,0,0,0,0,0.285221,-30.5034,-0.463243,26.5305,1.46728,2.29058,0.0376436,
-0.0130193,-0.10322,0.12187,-1.95503,0.184285,0.158444,0.0814952,-0.00263612,-0.000865429,0.000630174,0.00351667,0.144454,0.00206467,-0.00113199,-0.0680577,-0.0279325,-0.0716943,0.0405457,-0.12218,0.199485,0.000989633,0.0962189,-0.27153,0.423155,0.50401,1.61832,0.0350844,-0.0115615,-0.0127714,-0.103192,0.121953,-1.95517,0.178832,0.158268,0.0815568,-0.00136202,0.00185648,-0.00405323,0.00751018,0.00590464,7.62327e-05,-0.000436737,0,0,0,0,0,0,0,0.285221,-30.5034,-0.463243,26.5305,1.46728,2.29058,0.0376436,
-0.0130378,-0.10323,0.121878,-1.955,0.185466,0.158471,0.0814862,-0.00256921,-0.000948481,0.000692284,0.00361504,0.145099,0.0023248,-0.00113,0.0418196,-0.051908,0.0388184,0.0614826,0.40296,0.162583,0.00124618,0.0962189,-0.27153,0.423155,0.50401,1.61832,0.0350844,-0.0115615,-0.0127714,-0.103192,0.121953,-1.95517,0.178832,0.158268,0.0815568,-0.00136202,0.00185648,-0.00405323,0.00751018,0.00590464,7.62327e-05,-0.000436737,0,0,0,0,0,0,0,0.285221,-30.5034,-0.463243,26.5305,1.46728,2.29058,0.0376436,
-0.013051,-0.103242,0.121891,-1.95496,0.186669,0.158498,0.0814773,-0.00238564,-0.001059,0.000873413,0.00373022,0.146162,0.00253984,-0.00112862,0.114733,-0.0690711,0.113206,0.0719886,0.664581,0.134399,0.000861727,0.0961589,-0.271102,0.423098,0.504179,1.61842,0.0352288,-0.0115624,-0.0127056,-0.103166,0.122004,-1.95517,0.178802,0.158264,0.0815646,-8.23796e-05,-0.000387133,-0.0059575,-0.00085882,0.0036441,-0.00609101,0.000373178,0.159955,-0.280451,-0.238034,-1.04612,-0.282567,-0.770905,0.101239,-0.246395,-30.6542,-0.986925,26.6534,1.57074,2.38305,-0.00996382,
-0.0129323,-0.10316,0.121917,-1.95512,0.183036,0.158193,0.081513,-0.00270929,-0.000880642,0.000551843,0.00353611,0.144298,0.00211117,-0.00113019,-0.202278,0.111471,-0.200981,-0.121323,-1.16507,-0.267917,-0.000979792,0.0961589,-0.271102,0.423098,0.504179,1.61842,0.0352288,-0.0115624,-0.0127056,-0.103166,0.122004,-1.95517,0.178802,0.158264,0.0815646,-8.23796e-05,-0.000387133,-0.0059575,-0.00085882,0.0036441,-0.00609101,0.000373178,0,0,0,0,0,0,0,-0.246395,-30.6542,-0.986925,26.6534,1.57074,2.38305,-0.00996382,
-0.0129572,-0.103164,0.121918,-1.9551,0.18418,0.158202,0.081504,-0.00278958,-0.000803989,0.000469486,0.00347018,0.144035,0.00191692,-0.00112895,-0.0501819,0.0479082,-0.0514729,-0.041203,-0.164393,-0.121406,0.000774031,0.0961589,-0.271102,0.423098,0.504179,1.61842,0.0352288,-0.0115624,-0.0127056,-0.103166,0.122004,-1.95517,0.178802,0.158264,0.0815646,-8.23796e-05,-0.000387133,-0.0059575,-0.00085882,0.0036441,-0.00609101,0.000373178,0,0,0,0,0,0,0,-0.246395,-30.6542,-0.986925,26.6534,1.57074,2.38305,-0.00996382,
-0.0129759,-0.103171,0.121926,-1.95507,0.185357,0.158216,0.081495,-0.0026983,-0.000807278,0.000558565,0.00348765,0.14466,0.001879,-0.00112736,0.0570506,-0.00205564,0.0556743,0.0109151,0.390332,-0.0237025,0.000992477,0.0961589,-0.271102,0.423098,0.504179,1.61842,0.0352288,-0.0115624,-0.0127056,-0.103166,0.122004,-1.95517,0.178802,0.158264,0.0815646,-8.23796e-05,-0.000387133,-0.0059575,-0.00085882,0.0036441,-0.00609101,0.000373178,0,0,0,0,0,0,0,-0.246395,-30.6542,-0.986925,26.6534,1.57074,2.38305,-0.00996382,
-0.0129893,-0.10318,0.121938,-1.95504,0.186557,0.158234,0.0814861,-0.00249404,-0.000869385,0.000762128,0.00355702,0.145732,0.00194036,-0.0011264,0.127662,-0.0388168,0.127227,0.0433613,0.670221,0.0383495,0.000597866,0.0961741,-0.270463,0.422965,0.504273,1.61846,0.0353137,-0.011563,-0.0126814,-0.103145,0.121994,-1.95517,0.178792,0.158264,0.0815566,0.00177818,0.00277497,-0.00529801,-0.000101208,0.00821903,-0.00254255,-0.000178718,0.23257,0.395262,0.0824366,0.0947014,0.571865,0.443557,-0.0689869,-0.171017,-30.5788,-0.887743,26.5305,1.60095,2.38305,0.0303194,
-0.0128846,-0.1031,0.121931,-1.95513,0.18311,0.158241,0.0815042,-0.00272936,-0.000646564,0.000531976,0.00336651,0.144159,0.00166825,-0.00112964,-0.147076,0.139263,-0.143845,-0.119071,-0.983322,-0.170068,-0.00202009,0.0961741,-0.270463,0.422965,0.504273,1.61846,0.0353137,-0.011563,-0.0126814,-0.103145,0.121994,-1.95517,0.178792,0.158264,0.0815566,0.00177818,0.00277497,-0.00529801,-0.000101208,0.00821903,-0.00254255,-0.000178718,0,0,0,0,0,0,0,-0.171017,-30.5788,-0.887743,26.5305,1.60095,2.38305,0.0303194,
-0.0129074,-0.103101,0.121935,-1.95511,0.18426,0.15825,0.0814952,-0.00275356,-0.000557536,0.00050747,0.0033099,0.144075,0.0015675,-0.00112943,-0.0151291,0.0556431,-0.0153161,-0.0353801,-0.0523503,-0.062967,0.000126242,0.0961741,-0.270463,0.422965,0.504273,1.61846,0.0353137,-0.011563,-0.0126814,-0.103145,0.121994,-1.95517,0.178792,0.158264,0.0815566,0.00177818,0.00277497,-0.00529801,-0.000101208,0.00821903,-0.00254255,-0.000178718,0,0,0,0,0,0,0,-0.171017,-30.5788,-0.887743,26.5305,1.60095,2.38305,0.0303194,
-0.0129245,-0.103106,0.121944,-1.95508,0.185442,0.158264,0.0814862,-0.00262876,-0.000566917,0.000630952,0.00333998,0.144804,0.00158772,-0.00112846,0.0780057,-0.00586366,0.0771761,0.0187964,0.455554,0.0126387,0.000610988,0.0961741,-0.270463,0.422965,0.504273,1.61846,0.0353137,-0.011563,-0.0126814,-0.103145,0.121994,-1.95517,0.178792,0.158264,0.0815566,0.00177818,0.00277497,-0.00529801,-0.000101208,0.00821903,-0.00254255,-0.000178718,0,0,0,0,0,0,0,-0.171017,-30.5788,-0.887743,26.5305,1.60095,2.38305,0.0303194,
-0.0128846,-0.1031,0.121931,-1.95513,0.18311,0.158241,0.0815042,-0.00283713,-0.00040459,0.000427035,0.00319287,0.143416,0.00138614,-0.00113128,-0.130236,0.101454,-0.127448,-0.0919402,-0.867298,-0.125988,-0.00176352,0.0961741,-0.270463,0.422965,0.504273,1.61846,0.0353137,-0.011563,-0.0126814,-0.103145,0.121994,-1.95517,0.178792,0.158264,0.0815566,0.00177818,0.00277497,-0.00529801,-0.000101208,0.00821903,-0.00254255,-0.000178718,0,0,0,0,0,0,0,-0.171017,-30.5788,-0.887743,26.5305,1.60095,2.38305,0.0303194,
-0.0129074,-0.103101,0.121935,-1.95511,0.18426,0.15825,0.0814952,-0.00283978,-0.000363956,0.000423517,0.00317099,0.143481,0.00134182,-0.00113075,-0.00165715,0.0253963,-0.00219848,-0.0136753,0.0404685,-0.0277037,0.0003315,0.0961741,-0.270463,0.422965,0.504273,1.61846,0.0353137,-0.011563,-0.0126814,-0.103145,0.121994,-1.95517,0.178792,0.158264,0.0815566,0.00177818,0.00277497,-0.00529801,-0.000101208,0.00821903,-0.00254255,-0.000178718,0,0,0,0,0,0,0,-0.171017,-30.5788,-0.887743,26.5305,1.60095,2.38305,0.0303194,
-0.0129245,-0.103106,0.121944,-1.95508,0.185442,0.158264,0.0814862,-0.00269773,-0.000412054,0.00056379,0.00322885,0.144329,0.00140718,-0.00112951,0.0887832,-0.0300611,0.0876702,0.0361602,0.52981,0.0408494,0.000775195,0.0961741,-0.270463,0.422965,0.504273,1.61846,0.0353137,-0.011563,-0.0126814,-0.103145,0.121994,-1.95517,0.178792,0.158264,0.0815566,0.00177818,0.00277497,-0.00529801,-0.000101208,0.00821903,-0.00254255,-0.000178718,0,0,0,0,0,0,0,-0.171017,-30.5788,-0.887743,26.5305,1.60095,2.38305,0.0303194,
-0.0129366,-0.103114,0.121958,-1.95505,0.186645,0.15828,0.0814772,-0.00246169,-0.000521124,0.000799062,0.00333464,0.145551,0.00154361,-0.00112867,0.147526,-0.0681684,0.147045,0.0661173,0.763782,0.0852735,0.000526456,0.0961741,-0.270463,0.422965,0.504273,1.61846,0.0353137,-0.011563,-0.0126814,-0.103145,0.121994,-1.95517,0.178792,0.158264,0.0815566,0.00177818,0.00277497,-0.00529801,-0.000101208,0.00821903,-0.00254255,-0.000178718,0,0,0,0,0,0,0,-0.171017,-30.5788,-0.887743,26.5305,1.60095,2.38305,0.0303194,
-0.0128626,-0.102947,0.121963,-1.95517,0.183086,0.158254,0.0815053,-0.00265239,-0.000130803,0.000617637,0.00305434,0.144003,0.00121573,-0.00113342,-0.119187,0.24395,-0.113391,-0.175186,-0.96708,-0.204925,-0.00297168,0.0961877,-0.268873,0.422689,0.504601,1.61847,0.0356056,-0.0115645,-0.0126832,-0.103088,0.121997,-1.95517,0.178792,0.158265,0.0815588,-0.00166624,0.00942096,0.00171308,0.000549192,0.00475709,-0.000397905,0.000427047,-0.430552,0.830749,0.876386,0.0813,-0.432742,0.268081,0.0757206,0.285221,-30.428,-0.487047,26.4035,1.62567,2.36382,0.0101778,
-0.0128839,-0.102942,0.121967,-1.95515,0.184236,0.158258,0.0814962,-0.0026554,3.62326e-05,0.000615709,0.00295358,0.143947,0.00106025,-0.00113373,-0.00188173,0.104397,-0.00120481,-0.0629749,-0.0352627,-0.097176,-0.00019206,0.0961877,-0.268873,0.422689,0.504601,1.61847,0.0356056,-0.0115645,-0.0126832,-0.103088,0.121997,-1.95517,0.178792,0.158265,0.0815588,-0.00166624,0.00942096,0.00171308,0.000549192,0.00475709,-0.000397905,0.000427047,0,0,0,0,0,0,0,0.285221,-30.428,-0.487047,26.4035,1.62567,2.36382,0.0101778,
-0.0128999,-0.102941,0.121978,-1.95512,0.185418,0.158265,0.0814872,-0.00252368,4.8033e-05,0.000745893,0.00297044,0.1447,0.00104337,-0.00113273,0.0823223,0.00737528,0.0813648,0.0105368,0.470549,-0.0105516,0.000625122,0.0961877,-0.268873,0.422689,0.504601,1.61847,0.0356056,-0.0115645,-0.0126832,-0.103088,0.121997,-1.95517,0.178792,0.158265,0.0815588,-0.00166624,0.00942096,0.00171308,0.000549192,0.00475709,-0.000397905,0.000427047,0,0,0,0,0,0,0,0.285221,-30.428,-0.487047,26.4035,1.62567,2.36382,0.0101778,
-0.0129113,-0.102944,0.121992,-1.9551,0.186621,0.158277,0.0814782,-0.00230299,-4.37627e-05,0.000965096,0.00306103,0.145846,0.00112901,-0.00113181,0.137935,-0.0573724,0.137002,0.0566225,0.716577,0.0535275,0.000571426,0.0961877,-0.268873,0.422689,0.504601,1.61847,0.0356056,-0.0115645,-0.0126832,-0.103088,0.121997,-1.95517,0.178792,0.158265,0.0815588,-0.00166624,0.00942096,0.00171308,0.000549192,0.00475709,-0.000397905,0.000427047,0,0,0,0,0,0,0,0.285221,-30.428,-0.487047,26.4035,1.62567,2.36382,0.0101778,
-0.0128626,-0.102947,0.121963,-1.95517,0.183086,0.158254,0.0815053,-0.00252543,0.000251085,0.000750464,0.00283546,0.14424,0.000884054,-0.00113594,-0.139024,0.18428,-0.134145,-0.140986,-1.00404,-0.1531,-0.00257824,0.0961739,-0.267262,0.422332,0.505118,1.6185,0.0361603,-0.0115675,-0.0126856,-0.103024,0.121998,-1.95522,0.178785,0.158254,0.081559,-0.00257134,0.00379848,-0.00266209,-0.0029227,0.00231148,-0.00162772,-0.000726931,-0.113138,-0.70281,-0.546897,-0.433986,-0.3057,-0.153727,-0.144247,0.360599,-30.9041,-0.435472,26.951,1.71722,2.45629,0.0376436,
