xiao-wang007/linearmpc_panda/paper_data/panda_torque_PD_controller_Start_at_0_no_torque_ff/0/trajectory.csv
Commanded Joint 0 Position,Commanded Joint 1 Position,Commanded Joint 2 Position,Commanded Joint 3 Position,Commanded Joint 4 Position,Commanded Joint 5 Position,Commanded Joint 6 Position,Commanded Joint 0 Velocity,Commanded Joint 1 Velocity,Commanded Joint 2 Velocity,Commanded Joint 3 Velocity,Commanded Joint 4 Velocity,Commanded Joint 5 Velocity,Commanded Joint 6 Velocity,Commanded Joint 0 Acceleration,Commanded Joint 1 Acceleration,Commanded Joint 2 Acceleration,Commanded Joint 3 Acceleration,Commanded Joint 4 Acceleration,Commanded Joint 5 Acceleration,Commanded Joint 6 Acceleration,Commanded Joint 0 Torque,Commanded Joint 1 Torque,Commanded Joint 2 Torque,Commanded Joint 3 Torque,Commanded Joint 4 Torque,Commanded Joint 5 Torque,Commanded Joint 6 Torque,Actual Joint 0 Position,Actual Joint 1 Position,Actual Joint 2 Position,Actual Joint 3 Position,Actual Joint 4 Position,Actual Joint 5 Position,Actual Joint 6 Position,Actual Joint 0 Velocity,Actual Joint 1 Velocity,Actual Joint 2 Velocity,Actual Joint 3 Velocity,Actual Joint 4 Velocity,Actual Joint 5 Velocity,Actual Joint 6 Velocity,Actual Joint 0 Acceleration,Actual Joint 1 Acceleration,Actual Joint 2 Acceleration,Actual Joint 3 Acceleration,Actual Joint 4 Acceleration,Actual Joint 5 Acceleration,Actual Joint 6 Acceleration,Actual Joint 0 Torque,Actual Joint 1 Torque,Actual Joint 2 Torque,Actual Joint 3 Torque,Actual Joint 4 Torque,Actual Joint 5 Torque,Actual Joint 6 Torque,
0.0289613,0.0519181,-0.001086,-1.85031,0.0235297,0.37076,-0.0263873,0.00014235,0.0249141,6.04151e-05,-0.0322165,-0.00559848,0.0578331,-0.000376957,0.088969,15.5713,0.0377594,-20.1353,-3.49905,36.1457,-0.235598,0,0,0,0,0,0,0,0.0289797,0.0509768,-0.00106209,-1.84759,0.0238956,0.364593,-0.0263321,-0.00130191,0.00304953,-0.000635244,-0.000448508,0.00326866,-0.000672499,3.4882e-05,0,0,0,0,0,0,0,0.209842,-36.9939,0.187391,27.2763,0.654293,3.15941,-0.083206,
0.0289673,0.0510194,-0.00107404,-1.84761,0.0239103,0.364581,-0.0263314,4.14339e-05,0.020209,-2.34823e-05,-0.0258869,-0.00448275,0.0461728,-0.000299136,-0.0630728,-2.94068,-0.0524359,3.95598,0.697328,-7.28767,0.0486378,0,0,0,0,0,0,0,0.0289797,0.0509768,-0.00106209,-1.84759,0.0238956,0.364593,-0.0263321,-0.00130191,0.00304953,-0.000635244,-0.000448508,0.00326866,-0.000672499,3.4882e-05,0,0,0,0,0,0,0,0.209842,-36.9939,0.187391,27.2763,0.654293,3.15941,-0.083206,
0.0289651,0.0510286,-0.00107626,-1.84761,0.0239085,0.364578,-0.0263314,-2.18851e-05,0.016396,-7.43174e-05,-0.0208013,-0.00363033,0.0368614,-0.000238219,-0.0395744,-2.38314,-0.031772,3.17851,0.532766,-5.81964,0.0380732,0,0,0,0,0,0,0,0.0289797,0.0509768,-0.00106209,-1.84759,0.0238956,0.364593,-0.0263321,-0.00130191,0.00304953,-0.000635244,-0.000448508,0.00326866,-0.000672499,3.4882e-05,0,0,0,0,0,0,0,0.209842,-36.9939,0.187391,27.2763,0.654293,3.15941,-0.083206,
0.0289634,0.0510362,-0.00107802,-1.84762,0.0239062,0.364576,-0.0263314,-6.02629e-05,0.0133087,-0.000103391,-0.0167138,-0.00296175,0.0294356,-0.000190243,-0.0239861,-1.92958,-0.0181707,2.5547,0.417857,-4.64112,0.0299853,0,0,0,0,0,0,0,0.0289797,0.0509768,-0.00106209,-1.84759,0.0238956,0.364593,-0.0263321,-0.00130191,0.00304953,-0.000635244,-0.000448508,0.00326866,-0.000672499,3.4882e-05,0,0,0,0,0,0,0,0.209842,-36.9939,0.187391,27.2763,0.654293,3.15941,-0.083206,
0.0289621,0.0510428,-0.00107944,-1.84762,0.0239039,0.364575,-0.0263314,-8.19718e-05,0.0108105,-0.000118084,-0.0134278,-0.00242739,0.0235207,-0.000152295,-0.013568,-1.56137,-0.00918332,2.05377,0.333981,-3.69684,0.0237173,0,0,0,0,0,0,0,0.0289797,0.0509768,-0.00106209,-1.84759,0.0238956,0.364593,-0.0263321,-0.00130191,0.00304953,-0.000635244,-0.000448508,0.00326866,-0.000672499,3.4882e-05,0,0,0,0,0,0,0,0.209842,-36.9939,0.187391,27.2763,0.654293,3.15941,-0.083206,
0.0288764,0.0510069,-0.00117579,-1.84748,0.0263118,0.363103,-0.0263614,-0.00151578,0.00883014,-0.00161576,-0.00934956,0.0347304,-0.00398394,-0.000396119,-0.896128,-1.23771,-0.936049,2.54888,23.2236,-17.1904,-0.15239,0,0,0,0,0,0,0,0.0289797,0.0509768,-0.00106209,-1.84759,0.0238956,0.364593,-0.0263321,-0.00130191,0.00304953,-0.000635244,-0.000448508,0.00326866,-0.000672499,3.4882e-05,0,0,0,0,0,0,0,0.209842,-36.9939,0.187391,27.2763,0.654293,3.15941,-0.083206,
0.0288214,0.051003,-0.00123114,-1.84744,0.0280675,0.361978,-0.0263676,-0.00258583,0.00696765,-0.0026762,-0.0063855,0.071679,-0.0313012,-0.00047082,-0.668781,-1.16405,-0.662773,1.85254,23.0929,-17.0733,-0.0466883,0,0,0,0,0,0,0,0.0289797,0.0509768,-0.00106209,-1.84759,0.0238956,0.364593,-0.0263321,-0.00130191,0.00304953,-0.000635244,-0.000448508,0.00326866,-0.000672499,3.4882e-05,0,0,0,0,0,0,0,0.209842,-36.9939,0.187391,27.2763,0.654293,3.15941,-0.083206,
0.0287763,0.0509936,-0.00127555,-1.8474,0.0299838,0.360715,-0.0263711,-0.0031962,0.00533823,-0.00325133,-0.00432,0.105249,-0.0566249,-0.000465114,-0.381483,-1.01839,-0.359453,1.29094,20.9813,-15.8274,0.00356671,0,0,0,0,0,0,0,0.0289797,0.0509768,-0.00106209,-1.84759,0.0238956,0.364593,-0.0263321,-0.00130191,0.00304953,-0.000635244,-0.000448508,0.00326866,-0.000672499,3.4882e-05,0,0,0,0,0,0,0,0.209842,-36.9939,0.187391,27.2763,0.654293,3.15941,-0.083206,
0.0287607,0.0515621,-0.00131969,-1.84746,0.0319761,0.358427,-0.0264266,-0.00547129,0.00613618,-0.00578254,0.00266935,0.207108,-0.151451,-0.00119927,-1.42193,0.498724,-1.58201,4.36834,63.6615,-59.2664,-0.458846,0,0,0,0,0,0,0,0.028979,0.0513251,-0.00106499,-1.84793,0.0238903,0.365278,-0.026335,-0.00154042,0.0186837,-0.00147741,-0.0250106,0.00442104,0.0484956,-0.000709452,-0.0298132,1.95427,-0.105271,-3.07026,0.144047,6.14602,-0.0930418,0.233646,-35.4942,0.238966,26.2289,0.6488,3.10631,-0.0566557,
0.0286761,0.0515723,-0.00140746,-1.84727,0.037834,0.353183,-0.026443,-0.00649182,0.00516201,-0.00682028,0.00673196,0.312136,-0.252278,-0.00136963,-0.637834,-0.60886,-0.648586,2.53914,65.6427,-63.017,-0.106477,0,0,0,0,0,0,0,0.028979,0.0513251,-0.00106499,-1.84793,0.0238903,0.365278,-0.026335,-0.00154042,0.0186837,-0.00147741,-0.0250106,0.00442104,0.0484956,-0.000709452,0,0,0,0,0,0,0,0.233646,-35.4942,0.238966,26.2289,0.6488,3.10631,-0.0566557,
0.028641,0.0515498,-0.00144238,-1.84716,0.0441761,0.347317,-0.0264506,-0.00607039,0.00356874,-0.00632915,0.00834688,0.40826,-0.34847,-0.00128373,0.263394,-0.995792,0.306955,1.00932,60.0777,-60.1195,0.0536874,0,0,0,0,0,0,0,0.028979,0.0513251,-0.00106499,-1.84793,0.0238903,0.365278,-0.026335,-0.00154042,0.0186837,-0.00147741,-0.0250106,0.00442104,0.0484956,-0.000709452,0,0,0,0,0,0,0,0.233646,-35.4942,0.238966,26.2289,0.6488,3.10631,-0.0566557,
0.0286584,0.0515172,-0.00142348,-1.84709,0.0507407,0.341074,-0.0264536,-0.00442143,0.00203925,-0.00459078,0.00822523,0.490724,-0.434841,-0.00110179,1.0306,-0.955934,1.08648,-0.0760257,51.5398,-53.9819,0.113711,0,0,0,0,0,0,0,0.028979,0.0513251,-0.00106499,-1.84793,0.0238903,0.365278,-0.026335,-0.00154042,0.0186837,-0.00147741,-0.0250106,0.00442104,0.0484956,-0.000709452,0,0,0,0,0,0,0,0.233646,-35.4942,0.238966,26.2289,0.6488,3.10631,-0.0566557,
0.0296049,0.0517723,-0.000517258,-1.84825,0.0315909,0.355837,-0.0262008,0.00669782,-0.000369183,0.00551345,0.00591827,0.510654,-0.496855,0.000223489,6.94953,-1.50527,6.31514,-1.44185,12.4564,-38.759,0.828302,0,0,0,0,0,0,0,0.028979,0.0518065,-0.00106137,-1.84832,0.023959,0.365495,-0.0263335,-0.00192878,0.0175771,-0.00205959,-0.0102902,0.0152501,-0.00250189,-0.000988545,-0.048545,-0.13832,-0.0727729,1.84004,1.35363,-6.37469,-0.0348866,0.158268,-37.3906,0.112013,27.2525,0.831906,3.07976,-0.0365141,
0.0301703,0.0516002,3.10921e-05,-1.84845,0.0374904,0.348383,-0.0261487,0.019493,-0.00459806,0.0181195,-0.000192865,0.556011,-0.58384,0.0014815,7.99698,-2.64305,7.87878,-3.81946,28.3481,-54.3652,0.78626,0,0,0,0,0,0,0,0.028979,0.0518065,-0.00106137,-1.84832,0.023959,0.365495,-0.0263335,-0.00192878,0.0175771,-0.00205959,-0.0102902,0.0152501,-0.00250189,-0.000988545,0,0,0,0,0,0,0,0.158268,-37.3906,0.112013,27.2525,0.831906,3.07976,-0.0365141,
0.0308893,0.0515344,0.000704874,-1.84856,0.0441553,0.339736,-0.0259768,0.0335691,-0.0053235,0.0313402,-0.0029033,0.611431,-0.683239,0.00548114,8.79756,-0.453399,8.26291,-1.69402,34.6373,-62.125,2.49977,0,0,0,0,0,0,0,0.028979,0.0518065,-0.00106137,-1.84832,0.023959,0.365495,-0.0263335,-0.00192878,0.0175771,-0.00205959,-0.0102902,0.0152501,-0.00250189,-0.000988545,0,0,0,0,0,0,0,0.158268,-37.3906,0.112013,27.2525,0.831906,3.07976,-0.0365141,
0.0316966,0.0514477,0.00145085,-1.84879,0.0514163,0.330409,-0.0259219,0.0470365,-0.00642698,0.0437215,-0.0081232,0.670669,-0.779772,0.00575845,8.41712,-0.689678,7.73833,-3.26244,37.0238,-60.3329,0.173315,0,0,0,0,0,0,0,0.028979,0.0518065,-0.00106137,-1.84832,0.023959,0.365495,-0.0263335,-0.00192878,0.0175771,-0.00205959,-0.0102902,0.0152501,-0.00250189,-0.000988545,0,0,0,0,0,0,0,0.158268,-37.3906,0.112013,27.2525,0.831906,3.07976,-0.0365141,
0.029884,0.0522451,-0.00013185,-1.84879,0.0398752,0.352552,-0.0260403,0.0557889,-0.00876241,0.0534483,-0.0157759,0.669205,-0.777953,0.00787613,5.47027,-1.45964,6.07924,-4.78291,-0.915152,1.13671,1.32355,0,0,0,0,0,0,0,0.0288097,0.0524662,-0.00128976,-1.84827,0.0302792,0.362973,-0.0263331,-0.0111676,0.0116456,-0.014399,0.017886,0.384199,-0.190069,0.000887695,-1.15485,-0.741433,-1.54243,3.52203,46.1187,-23.4459,0.23453,0.868412,-37.589,0.937208,26.3797,1.99188,1.59386,-0.0703886,
0.0308556,0.0522025,0.000864416,-1.84917,0.045984,0.344925,-0.0258424,0.0689198,-0.00807472,0.0676653,-0.0221179,0.688085,-0.813055,0.0112478,8.20682,0.429804,8.88563,-3.9638,11.8,-21.9387,2.10728,0,0,0,0,0,0,0,0.0288097,0.0524662,-0.00128976,-1.84827,0.0302792,0.362973,-0.0263331,-0.0111676,0.0116456,-0.014399,0.017886,0.384199,-0.190069,0.000887695,0,0,0,0,0,0,0,0.868412,-37.589,0.937208,26.3797,1.99188,1.59386,-0.0703886,
0.0319763,0.0521699,0.00201451,-1.84971,0.052787,0.336382,-0.0257844,0.0831534,-0.00727585,0.0828845,-0.031141,0.720542,-0.864011,0.0104478,8.89599,0.499294,9.51198,-5.63943,20.2857,-31.8471,-0.499991,0,0,0,0,0,0,0,0.0288097,0.0524662,-0.00128976,-1.84827,0.0302792,0.362973,-0.0263331,-0.0111676,0.0116456,-0.014399,0.017886,0.384199,-0.190069,0.000887695,0,0,0,0,0,0,0,0.868412,-37.589,0.937208,26.3797,1.99188,1.59386,-0.0703886,
0.0332104,0.052144,0.00326022,-1.85038,0.0600997,0.327179,-0.0257631,0.0973769,-0.00646797,0.0974504,-0.0417067,0.759253,-0.921291,0.00889207,8.88965,0.504926,9.10374,-6.60352,24.1945,-35.8003,-0.972319,0,0,0,0,0,0,0,0.0288097,0.0524662,-0.00128976,-1.84827,0.0302792,0.362973,-0.0263331,-0.0111676,0.0116456,-0.014399,0.017886,0.384199,-0.190069,0.000887695,0,0,0,0,0,0,0,0.868412,-37.589,0.937208,26.3797,1.99188,1.59386,-0.0703886,
0.0300361,0.0523102,-0.00012336,-1.84928,0.0566763,0.338395,-0.0259049,0.101894,-0.00957829,0.101076,-0.0518938,0.748072,-0.910955,0.0126729,2.82309,-1.94395,2.26624,-6.36693,-6.98815,6.4598,2.36305,0,0,0,0,0,0,0,0.028523,0.0527119,-0.00158827,-1.84795,0.0460848,0.350776,-0.0263339,-0.00471028,-0.00120298,-0.00560627,0.00154319,0.552988,-0.464427,-0.000401647,0.807162,-1.60608,1.09909,-2.04286,21.0986,-34.2947,-0.161168,3.22498,-37.3668,3.11128,25.733,2.04681,0.96398,-0.0227812,
0.0312412,0.0521333,0.00103565,-1.85023,0.0630085,0.330389,-0.0258567,0.11164,-0.012085,0.109836,-0.0651394,0.756761,-0.928907,0.011344,6.09154,-1.56667,5.47498,-8.27855,5.43083,-11.2198,-0.83058,0,0,0,0,0,0,0,0.028523,0.0527119,-0.00158827,-1.84795,0.0460848,0.350776,-0.0263339,-0.00471028,-0.00120298,-0.00560627,0.00154319,0.552988,-0.464427,-0.000401647,0,0,0,0,0,0,0,3.22498,-37.3668,3.11128,25.733,2.04681,0.96398,-0.0227812,
0.0326031,0.0519617,0.00235537,-1.85133,0.0699209,0.321602,-0.0258664,0.12336,-0.0139577,0.120862,-0.0795742,0.778218,-0.962797,0.00883156,7.32465,-1.17049,6.89114,-9.02172,13.4106,-21.1809,-1.57029,0,0,0,0,0,0,0,0.028523,0.0527119,-0.00158827,-1.84795,0.0460848,0.350776,-0.0263339,-0.00471028,-0.00120298,-0.00560627,0.00154319,0.552988,-0.464427,-0.000401647,0,0,0,0,0,0,0,3.22498,-37.3668,3.11128,25.733,2.04681,0.96398,-0.0227812,
0.0340628,0.0518029,0.00378449,-1.85253,0.077287,0.312228,-0.0259094,0.135182,-0.0151384,0.132418,-0.0937786,0.806728,-1.00458,0.00599122,7.38862,-0.737883,7.22219,-8.87774,17.8187,-26.1171,-1.77521,0,0,0,0,0,0,0,0.028523,0.0527119,-0.00158827,-1.84795,0.0460848,0.350776,-0.0263339,-0.00471028,-0.00120298,-0.00560627,0.00154319,0.552988,-0.464427,-0.000401647,0,0,0,0,0,0,0,3.22498,-37.3668,3.11128,25.733,2.04681,0.96398,-0.0227812,
0.0298368,0.052332,-0.000329317,-1.84917,0.0569954,0.338292,-0.0260604,0.128843,-0.0176709,0.125763,-0.0940752,0.790988,-0.977395,0.00612243,-3.9616,-1.58285,-4.1589,-0.185389,-9.83753,16.9932,0.0820055,0,0,0,0,0,0,0,0.0286061,0.0526451,-0.0014001,-1.84788,0.0658232,0.330542,-0.0261838,0.00975852,-0.00140229,0.0219936,-0.00775566,0.664568,-0.635909,0.00662476,1.8086,-0.024914,3.44999,-1.16236,13.9475,-21.4352,0.8783,5.60932,-35.9425,5.56306,24.9118,2.15667,0.944754,-0.0163725,
0.030897,0.0520924,0.000697329,-1.85013,0.0634565,0.330272,-0.0260661,0.129579,-0.0201269,0.126277,-0.0992705,0.794319,-0.982426,0.00475447,0.460129,-1.53497,0.320899,-3.24709,2.08202,-3.14417,-0.854973,0,0,0,0,0,0,0,0.0286061,0.0526451,-0.0014001,-1.84788,0.0658232,0.330542,-0.0261838,0.00975852,-0.00140229,0.0219936,-0.00775566,0.664568,-0.635909,0.00662476,0,0,0,0,0,0,0,5.60932,-35.9425,5.56306,24.9118,2.15667,0.944754,-0.0163725,
0.0321144,0.0518599,0.00189084,-1.85123,0.0704367,0.321453,-0.026106,0.134098,-0.0219146,0.130859,-0.106805,0.809959,-1.00641,0.00280682,2.82424,-1.11736,2.86401,-4.70891,9.77474,-14.9879,-1.21728,0,0,0,0,0,0,0,0.0286061,0.0526451,-0.0014001,-1.84788,0.0658232,0.330542,-0.0261838,0.00975852,-0.00140229,0.0219936,-0.00775566,0.664568,-0.635909,0.00662476,0,0,0,0,0,0,0,5.60932,-35.9425,5.56306,24.9118,2.15667,0.944754,-0.0163725,
0.0334464,0.0516433,0.00319388,-1.85242,0.0778242,0.312046,-0.0261608,0.140577,-0.0229452,0.137263,-0.115226,0.832656,-1.04031,0.00087583,4.04945,-0.644068,4.00252,-5.26316,14.1856,-21.1885,-1.20687,0,0,0,0,0,0,0,0.0286061,0.0526451,-0.0014001,-1.84788,0.0658232,0.330542,-0.0261838,0.00975852,-0.00140229,0.0219936,-0.00775566,0.664568,-0.635909,0.00662476,0,0,0,0,0,0,0,5.60932,-35.9425,5.56306,24.9118,2.15667,0.944754,-0.0163725,
0.0300171,0.0521802,-3.74497e-05,-1.84937,0.0779634,0.316575,-0.0261294,0.1338,-0.0248099,0.130499,-0.114183,0.824264,-1.02129,0.000694982,-4.23563,-1.16544,-4.22791,0.65177,-5.24499,11.886,-0.11303,0,0,0,0,0,0,0,0.0298525,0.0522978,-0.000148971,-1.84896,0.0881055,0.306131,-0.0260213,0.060282,-0.0161002,0.0489171,-0.0621686,0.753309,-0.762684,0.00168397,6.31543,-1.83724,3.36544,-6.80162,11.0926,-15.8469,-0.617598,5.43079,-35.0221,5.36073,24.3365,2.0166,1.21667,-0.0365141,
0.0310737,0.0519196,0.00100051,-1.85041,0.084757,0.308121,-0.0261656,0.133456,-0.0263631,0.130348,-0.117303,0.829253,-1.02838,-0.00034754,-0.21523,-0.970784,-0.0942084,-1.94969,3.11803,-4.43313,-0.651576,0,0,0,0,0,0,0,0.0298525,0.0522978,-0.000148971,-1.84896,0.0881055,0.306131,-0.0260213,0.060282,-0.0161002,0.0489171,-0.0621686,0.753309,-0.762684,0.00168397,0,0,0,0,0,0,0,5.43079,-35.0221,5.36073,24.3365,2.0166,1.21667,-0.0365141,
0.0322791,0.0516731,0.00218072,-1.85156,0.0919476,0.299002,-0.0262179,0.136899,-0.0272524,0.133784,-0.122499,0.843165,-1.05067,-0.00158734,2.1522,-0.555808,2.14725,-3.24805,8.69548,-13.9308,-0.774877,0,0,0,0,0,0,0,0.0298525,0.0522978,-0.000148971,-1.84896,0.0881055,0.306131,-0.0260213,0.060282,-0.0161002,0.0489171,-0.0621686,0.753309,-0.762684,0.00168397,0,0,0,0,0,0,0,5.43079,-35.0221,5.36073,24.3365,2.0166,1.21667,-0.0365141,
0.0335874,0.0514462,0.00346,-1.85278,0.0994596,0.289392,-0.026276,0.142228,-0.0274752,0.139009,-0.128538,0.862333,-1.08078,-0.00272174,3.33034,-0.139253,3.26579,-3.77386,11.9798,-18.8173,-0.709,0,0,0,0,0,0,0,0.0298525,0.0522978,-0.000148971,-1.84896,0.0881055,0.306131,-0.0260213,0.060282,-0.0161002,0.0489171,-0.0621686,0.753309,-0.762684,0.00168397,0,0,0,0,0,0,0,5.43079,-35.0221,5.36073,24.3365,2.0166,1.21667,-0.0365141,
0.0316232,0.0518173,0.00158225,-1.85081,0.101272,0.290666,-0.026054,0.138713,-0.0282391,0.135728,-0.128163,0.859297,-1.06971,-0.00303115,-2.19702,-0.477405,-2.05083,0.233935,-1.89753,6.91796,-0.193381,0,0,0,0,0,0,0,0.0321036,0.0519772,0.00237885,-1.85163,0.110747,0.278891,-0.0260046,0.0764465,-0.00472944,0.0900316,-0.0934876,0.736841,-0.830304,0.000117001,2.02057,1.42135,5.1393,-3.91487,-2.05844,-8.45259,-0.195871,3.83594,-35.8434,3.83729,25.5069,1.82708,1.59386,-0.00996382,
0.0327837,0.0515729,0.00271892,-1.85194,0.108406,0.281752,-0.0261052,0.139981,-0.0286999,0.136999,-0.130731,0.865804,-1.07861,-0.0037051,0.793048,-0.28805,0.794496,-1.60467,4.06696,-5.56016,-0.421216,0,0,0,0,0,0,0,0.0321036,0.0519772,0.00237885,-1.85163,0.110747,0.278891,-0.0260046,0.0764465,-0.00472944,0.0900316,-0.0934876,0.736841,-0.830304,0.000117001,0,0,0,0,0,0,0,3.83594,-35.8434,3.83729,25.5069,1.82708,1.59386,-0.00996382,
0.0340574,0.0513438,0.00396446,-1.85314,0.115845,0.272312,-0.0261627,0.143829,-0.0286888,0.140737,-0.134749,0.878619,-1.09888,-0.00440048,2.40457,0.00698272,2.33673,-2.51164,8.00897,-12.6715,-0.434612,0,0,0,0,0,0,0,0.0321036,0.0519772,0.00237885,-1.85163,0.110747,0.278891,-0.0260046,0.0764465,-0.00472944,0.0900316,-0.0934876,0.736841,-0.830304,0.000117001,0,0,0,0,0,0,0,3.83594,-35.8434,3.83729,25.5069,1.82708,1.59386,-0.00996382,
0.0341015,0.0516669,0.00433923,-1.85375,0.124025,0.262639,-0.0260929,0.142245,-0.0272504,0.139194,-0.135892,0.874328,-1.09269,-0.0048215,-0.990001,0.898986,-0.964947,-0.714046,-2.6813,3.87191,-0.263141,0,0,0,0,0,0,0,0.0321036,0.0519772,0.00237885,-1.85163,0.110747,0.278891,-0.0260046,0.0764465,-0.00472944,0.0900316,-0.0934876,0.736841,-0.830304,0.000117001,0,0,0,0,0,0,0,3.83594,-35.8434,3.83729,25.5069,1.82708,1.59386,-0.00996382,
0.035314,0.051486,0.0055241,-1.85496,0.13124,0.253477,-0.0261507,0.144107,-0.0263231,0.140977,-0.138837,0.87984,-1.10319,-0.00530214,1.16406,0.579572,1.11447,-1.84056,3.44459,-6.56381,-0.300398,0,0,0,0,0,0,0,0.0321036,0.0519772,0.00237885,-1.85163,0.110747,0.278891,-0.0260046,0.0764465,-0.00472944,0.0900316,-0.0934876,0.736841,-0.830304,0.000117001,0,0,0,0,0,0,0,3.83594,-35.8434,3.83729,25.5069,1.82708,1.59386,-0.00996382,
0.0366135,0.0513063,0.00679347,-1.85622,0.138742,0.243864,-0.0262081,0.147774,-0.0255504,0.144516,-0.14253,0.891403,-1.12288,-0.00567555,2.29155,0.482949,2.21179,-2.30855,7.22678,-12.3073,-0.23338,0,0,0,0,0,0,0,0.0353311,0.0520014,0.00580366,-1.85514,0.134707,0.249527,-0.0260025,0.111437,0.00429424,0.101708,-0.10568,0.768178,-0.892249,0.00211214,4.37379,1.12796,1.45956,-1.52408,3.91709,-7.74303,0.249392,2.43946,-36.9939,2.46461,26.106,1.62567,1.70006,-0.0703886,
0.0379711,0.0511317,0.00811956,-1.85751,0.146467,0.233922,-0.0262598,0.152158,-0.0248045,0.148765,-0.14632,0.906256,-1.14685,-0.0058324,2.74039,0.466147,2.65567,-2.36879,9.28331,-14.9779,-0.0980353,0,0,0,0,0,0,0,0.0353311,0.0520014,0.00580366,-1.85514,0.134707,0.249527,-0.0260025,0.111437,0.00429424,0.101708,-0.10568,0.768178,-0.892249,0.00211214,0,0,0,0,0,0,0,2.43946,-36.9939,2.46461,26.106,1.62567,1.70006,-0.0703886,
0.0375465,0.0517827,0.00796748,-1.8574,0.148408,0.232704,-0.026113,0.151057,-0.0231476,0.147652,-0.146657,0.901212,-1.13687,-0.00613169,-0.688146,1.0356,-0.695571,-0.210599,-3.15266,6.23687,-0.187057,0,0,0,0,0,0,0,0.0353311,0.0520014,0.00580366,-1.85514,0.134707,0.249527,-0.0260025,0.111437,0.00429424,0.101708,-0.10568,0.768178,-0.892249,0.00211214,0,0,0,0,0,0,0,2.43946,-36.9939,2.46461,26.106,1.62567,1.70006,-0.0703886,
0.0388129,0.0516318,0.00920369,-1.85864,0.155767,0.22339,-0.0261709,0.152506,-0.0222904,0.149027,-0.148426,0.904941,-1.14236,-0.00635228,0.905692,0.53569,0.859416,-1.10509,2.33067,-3.43287,-0.137868,0,0,0,0,0,0,0,0.0353311,0.0520014,0.00580366,-1.85514,0.134707,0.249527,-0.0260025,0.111437,0.00429424,0.101708,-0.10568,0.768178,-0.892249,0.00211214,0,0,0,0,0,0,0,2.43946,-36.9939,2.46461,26.106,1.62567,1.70006,-0.0703886,
0.040143,0.0514735,0.0105022,-1.85992,0.163368,0.213684,-0.026223,0.155257,-0.021788,0.151683,-0.150735,0.91398,-1.15652,-0.00638329,1.71899,0.314034,1.66012,-1.44338,5.64966,-8.85287,-0.0193802,0,0,0,0,0,0,0,0.0392359,0.0519623,0.00951058,-1.85928,0.15945,0.219428,-0.0260142,0.126001,-0.00221947,0.108167,-0.12384,0.732749,-0.889606,-0.000310439,1.82052,-0.814215,0.807394,-2.26993,-4.42854,0.330271,-0.302822,1.1977,-36.7162,1.3141,25.4593,1.8399,1.26977,-0.00996382,
0.0415133,0.0513112,0.0118401,-1.86122,0.171157,0.203699,-0.026268,0.158465,-0.0214893,0.154795,-0.153121,0.925898,-1.17485,-0.00623118,2.00521,0.186657,1.94502,-1.49143,7.4487,-11.4527,0.0950668,0,0,0,0,0,0,0,0.0392359,0.0519623,0.00951058,-1.85928,0.15945,0.219428,-0.0260142,0.126001,-0.00221947,0.108167,-0.12384,0.732749,-0.889606,-0.000310439,0,0,0,0,0,0,0,1.1977,-36.7162,1.3141,25.4593,1.8399,1.26977,-0.00996382,
0.0415077,0.0517225,0.0117216,-1.86161,0.172908,0.202564,-0.0261336,0.156431,-0.02067,0.152732,-0.152511,0.914718,-1.15956,-0.00647379,-1.2716,0.512096,-1.28963,0.381684,-6.98731,9.55217,-0.15163,0,0,0,0,0,0,0,0.0392359,0.0519623,0.00951058,-1.85928,0.15945,0.219428,-0.0260142,0.126001,-0.00221947,0.108167,-0.12384,0.732749,-0.889606,-0.000310439,0,0,0,0,0,0,0,1.1977,-36.7162,1.3141,25.4593,1.8399,1.26977,-0.00996382,
0.0427681,0.0515645,0.0129506,-1.86285,0.180207,0.193264,-0.0261866,0.156655,-0.0204859,0.152909,-0.153113,0.914262,-1.16016,-0.00650272,0.140164,0.115046,0.110693,-0.376239,-0.285526,-0.374881,-0.0180776,0,0,0,0,0,0,0,0.0392359,0.0519623,0.00951058,-1.85928,0.15945,0.219428,-0.0260142,0.126001,-0.00221947,0.108167,-0.12384,0.732749,-0.889606,-0.000310439,0,0,0,0,0,0,0,1.1977,-36.7162,1.3141,25.4593,1.8399,1.26977,-0.00996382,
0.0440794,0.0513955,0.0142297,-1.86412,0.187759,0.183598,-0.026232,0.158107,-0.0206127,0.154305,-0.154275,0.920208,-1.16979,-0.00633811,0.907456,-0.0792382,0.872921,-0.726558,3.71654,-6.01686,0.102882,0,0,0,0,0,0,0,0.0430837,0.051949,0.0138075,-1.86383,0.185379,0.188372,-0.0260123,0.0899638,0.0102779,0.162886,-0.139276,0.747781,-0.907011,0.00191912,-4.50465,1.56217,6.8399,-1.9296,1.879,-2.17555,0.278695,1.24927,-36.2917,1.16334,25.733,2.03491,1.44829,-0.0703886,
0.0454239,0.0512173,0.0155411,-1.86542,0.195501,0.17376,-0.0262696,0.160098,-0.0209452,0.156229,-0.155909,0.929701,-1.18176,-0.00600971,1.24459,-0.207818,1.20244,-1.02146,5.93277,-7.48319,0.205248,0,0,0,0,0,0,0,0.0430837,0.051949,0.0138075,-1.86383,0.185379,0.188372,-0.0260123,0.0899638,0.0102779,0.162886,-0.139276,0.747781,-0.907011,0.00191912,0,0,0,0,0,0,0,1.24927,-36.2917,1.16334,25.733,2.03491,1.44829,-0.0703886,
0.0454104,0.0518561,0.0160778,-1.86628,0.198979,0.171312,-0.0261255,0.158208,-0.0186436,0.154316,-0.155859,0.91901,-1.16705,-0.00615598,-1.18101,1.43851,-1.19598,0.0312874,-6.68138,9.19447,-0.0914169,0,0,0,0,0,0,0,0.0430837,0.051949,0.0138075,-1.86383,0.185379,0.188372,-0.0260123,0.0899638,0.0102779,0.162886,-0.139276,0.747781,-0.907011,0.00191912,0,0,0,0,0,0,0,1.24927,-36.2917,1.16334,25.733,2.03491,1.44829,-0.0703886,
0.0466739,0.051743,0.0173088,-1.86755,0.206297,0.161973,-0.0261715,0.158154,-0.0177424,0.154228,-0.156481,0.918148,-1.16711,-0.00607572,-0.0337842,0.563223,-0.054643,-0.388567,-0.539125,-0.0366096,0.0501622,0,0,0,0,0,0,0,0.0430837,0.051949,0.0138075,-1.86383,0.185379,0.188372,-0.0260123,0.0899638,0.0102779,0.162886,-0.139276,0.747781,-0.907011,0.00191912,0,0,0,0,0,0,0,1.24927,-36.2917,1.16334,25.733,2.03491,1.44829,-0.0703886,
0.047978,0.051602,0.0185796,-1.86885,0.213843,0.152391,-0.0262094,0.159127,-0.0177184,0.155153,-0.157648,0.923178,-1.17325,-0.00580901,0.607756,0.0150282,0.577725,-0.729081,3.14362,-3.83377,0.16669,0,0,0,0,0,0,0,0.0475273,0.0520269,0.0179621,-1.86867,0.211748,0.15638,-0.0260276,0.163782,0.0108604,0.0886206,-0.135095,0.751547,-0.953445,-0.00104033,9.22727,0.0728172,-9.28322,0.522666,0.470723,-5.8043,-0.369932,0.765262,-37.1169,0.889601,26.1813,2.27935,1.4547,0.0239107,
0.0493152,0.0514318,0.0198838,-1.87024,0.221565,0.14322,-0.0262383,0.160733,-0.0184295,0.156727,-0.160878,0.931592,-1.16786,-0.00536814,1.00366,-0.444436,0.983645,-2.01886,5.2591,3.364,0.275544,0,0,0,0,0,0,0,0.0475273,0.0520269,0.0179621,-1.86867,0.211748,0.15638,-0.0260276,0.163782,0.0108604,0.0886206,-0.135095,0.751547,-0.953445,-0.00104033,0,0,0,0,0,0,0,0.765262,-37.1169,0.889601,26.1813,2.27935,1.4547,0.0239107,
0.049842,0.0519093,0.0202054,-1.87112,0.22531,0.139056,-0.0261271,0.158349,-0.0169701,0.154331,-0.159895,0.9199,-1.15799,-0.00545895,-1.4898,0.912116,-1.49747,0.614082,-7.30772,6.17212,-0.056757,0,0,0,0,0,0,0,0.0475273,0.0520269,0.0179621,-1.86867,0.211748,0.15638,-0.0260276,0.163782,0.0108604,0.0886206,-0.135095,0.751547,-0.953445,-0.00104033,0,0,0,0,0,0,0,0.765262,-37.1169,0.889601,26.1813,2.27935,1.4547,0.0239107,
0.0510845,0.05178,0.0214147,-1.8724,0.232591,0.129786,-0.0261653,0.157741,-0.0168088,0.153697,-0.159914,0.917945,-1.15812,-0.00532156,-0.379913,0.100814,-0.396127,-0.0117629,-1.22165,-0.0834618,0.0858728,0,0,0,0,0,0,0,0.0475273,0.0520269,0.0179621,-1.86867,0.211748,0.15638,-0.0260276,0.163782,0.0108604,0.0886206,-0.135095,0.751547,-0.953445,-0.00104033,0,0,0,0,0,0,0,0.765262,-37.1169,0.889601,26.1813,2.27935,1.4547,0.0239107,
0.0523712,0.051613,0.0226685,-1.87377,0.240095,0.12087,-0.0261942,0.15836,-0.0176229,0.154304,-0.162256,0.921951,-1.1494,-0.00498008,0.386911,-0.508822,0.379359,-1.46398,2.50373,5.45091,0.213423,0,0,0,0,0,0,0,0.052297,0.0520224,0.0220454,-1.87377,0.238149,0.123218,-0.026025,0.13347,0.00205122,0.151712,-0.150689,0.757818,-0.974849,-0.000363366,-3.78898,-1.10115,7.88642,-1.94919,0.783828,-2.67553,0.084621,0.638309,-36.4424,1.13954,26.2051,2.30957,1.27617,-0.0026396,
0.0536921,0.0514259,0.0239564,-1.87522,0.247757,0.112648,-0.026215,0.159712,-0.0187748,0.155641,-0.16599,0.929104,-1.12508,-0.00450307,0.844769,-0.719946,0.836062,-2.33321,4.4703,15.1979,0.298133,0,0,0,0,0,0,0,0.052297,0.0520224,0.0220454,-1.87377,0.238149,0.123218,-0.026025,0.13347,0.00205122,0.151712,-0.150689,0.757818,-0.974849,-0.000363366,0,0,0,0,0,0,0,0.638309,-36.4424,1.13954,26.2051,2.30957,1.27617,-0.0026396,
0.0547507,0.0518577,0.0244293,-1.87628,0.251833,0.105738,-0.026113,0.158967,-0.0177301,0.154819,-0.16454,0.9193,-1.12383,-0.00460541,-0.465712,0.652964,-0.513726,0.905656,-6.1274,0.786088,-0.0639674,0,0,0,0,0,0,0,0.052297,0.0520224,0.0220454,-1.87377,0.238149,0.123218,-0.026025,0.13347,0.00205122,0.151712,-0.150689,0.757818,-0.974849,-0.000363366,0,0,0,0,0,0,0,0.638309,-36.4424,1.13954,26.2051,2.30957,1.27617,-0.0026396,
0.0560379,0.0517015,0.025682,-1.87765,0.259158,0.0970731,-0.0261432,0.159352,-0.0180893,0.155173,-0.16567,0.918566,-1.11567,-0.00444006,0.240494,-0.224535,0.220765,-0.706095,-0.458384,5.09567,0.103348,0,0,0,0,0,0,0,0.052297,0.0520224,0.0220454,-1.87377,0.238149,0.123218,-0.026025,0.13347,0.00205122,0.151712,-0.150689,0.757818,-0.974849,-0.000363366,0,0,0,0,0,0,0,0.638309,-36.4424,1.13954,26.2051,2.30957,1.27617,-0.0026396,
0.0573575,0.0515172,0.0269675,-1.87908,0.266679,0.0890571,-0.0261649,0.160472,-0.0190791,0.156275,-0.168403,0.922875,-1.09294,-0.004094,0.70011,-0.618615,0.68908,-1.70826,2.69315,14.2094,0.216287,0,0,0,0,0,0,0,0.0562395,0.052312,0.02746,-1.87917,0.265096,0.0894911,-0.0260244,0.0424462,0.0134801,0.225658,-0.152205,0.781388,-1.00113,0.000934963,-11.378,1.4286,9.24332,-0.189516,2.94629,-3.28488,0.162291,1.07074,-36.9423,1.01259,26.3559,2.3526,1.41533,-0.0365141,
0.0585718,0.052223,0.029742,-1.88181,0.278883,0.0726148,-0.0260927,0.158395,-0.0174064,0.154207,-0.168933,0.914589,-1.08281,-0.00401019,-1.29795,1.04548,-1.29262,-0.330702,-5.17884,6.33224,0.0523812,0,0,0,0,0,0,0,0.0562395,0.052312,0.02746,-1.87917,0.265096,0.0894911,-0.0260244,0.0424462,0.0134801,0.225658,-0.152205,0.781388,-1.00113,0.000934963,0,0,0,0,0,0,0,1.07074,-36.9423,1.01259,26.3559,2.3526,1.41533,-0.0365141,
0.0598229,0.0520855,0.0309596,-1.88325,0.28616,0.0648621,-0.0261137,0.157993,-0.0173618,0.153806,-0.171094,0.913608,-1.06006,-0.00373419,-0.250935,0.0278514,-0.250627,-1.35084,-0.613143,14.2139,0.1725,0,0,0,0,0,0,0,0.0562395,0.052312,0.02746,-1.87917,0.265096,0.0894911,-0.0260244,0.0424462,0.0134801,0.225658,-0.152205,0.781388,-1.00113,0.000934963,0,0,0,0,0,0,0,1.07074,-36.9423,1.01259,26.3559,2.3526,1.41533,-0.0365141,
0.0611116,0.051916,0.0322145,-1.88473,0.2936,0.0579048,-0.0261273,0.158613,-0.018128,0.154417,-0.173851,0.91688,-1.02198,-0.00332618,0.387454,-0.478864,0.382041,-1.72344,2.04483,23.8004,0.255002,0,0,0,0,0,0,0,0.0562395,0.052312,0.02746,-1.87917,0.265096,0.0894911,-0.0260244,0.0424462,0.0134801,0.225658,-0.152205,0.781388,-1.00113,0.000934963,0,0,0,0,0,0,0,1.07074,-36.9423,1.01259,26.3559,2.3526,1.41533,-0.0365141,
0.0624253,0.0517259,0.033494,-1.88622,0.301157,0.0518399,-0.0261339,0.159733,-0.0192541,0.15552,-0.176459,0.922419,-0.969208,-0.00282731,0.700054,-0.70381,0.689193,-1.62982,3.46191,32.9845,0.311798,0,0,0,0,0,0,0,0.0562395,0.052312,0.02746,-1.87917,0.265096,0.0894911,-0.0260244,0.0424462,0.0134801,0.225658,-0.152205,0.781388,-1.00113,0.000934963,0,0,0,0,0,0,0,1.07074,-36.9423,1.01259,26.3559,2.3526,1.41533,-0.0365141,
0.0638764,0.0522717,0.0345084,-1.88743,0.305887,0.0417686,-0.0260827,0.159334,-0.018721,0.155054,-0.176237,0.913162,-0.956797,-0.00284877,-0.249729,0.333139,-0.29123,0.139078,-5.78566,7.75658,-0.0134138,0,0,0,0,0,0,0,0.0613981,0.0524758,0.0320823,-1.88469,0.292214,0.056685,-0.026026,0.0286941,0.000814491,0.27012,-0.161662,0.762127,-0.94074,0.000481484,-1.71902,-1.5832,5.55775,-1.18222,-2.40763,7.54857,-0.0566849,1.04694,-36.7677,0.838026,25.2094,2.49908,0.507132,-0.0026396,
0.0651679,0.0520977,0.035764,-1.88887,0.313131,0.0351885,-0.0260979,0.159755,-0.019326,0.155434,-0.177138,0.911644,-0.929939,-0.00265815,0.263468,-0.378117,0.237634,-0.563218,-0.948397,16.7868,0.119136,0,0,0,0,0,0,0,0.0613981,0.0524758,0.0320823,-1.88469,0.292214,0.056685,-0.026026,0.0286941,0.000814491,0.27012,-0.161662,0.762127,-0.94074,0.000481484,0,0,0,0,0,0,0,1.04694,-36.7677,0.838026,25.2094,2.49908,0.507132,-0.0026396,
0.0664806,0.0518965,0.037041,-1.89034,0.320538,0.0294216,-0.0261056,0.160622,-0.0204901,0.156273,-0.178335,0.914482,-0.888125,-0.00232054,0.541531,-0.727543,0.523958,-0.74833,1.77322,26.1333,0.211007,0,0,0,0,0,0,0,0.0613981,0.0524758,0.0320823,-1.88469,0.292214,0.056685,-0.026026,0.0286941,0.000814491,0.27012,-0.161662,0.762127,-0.94074,0.000481484,0,0,0,0,0,0,0,1.04694,-36.7677,0.838026,25.2094,2.49908,0.507132,-0.0026396,
0.0678054,0.0516768,0.0383301,-1.8918,0.328057,0.024524,-0.0261062,0.161616,-0.0218865,0.157245,-0.179291,0.919558,-0.832941,-0.00186988,0.621327,-0.872764,0.607889,-0.597459,3.17276,34.4904,0.281662,0,0,0,0,0,0,0,0.0613981,0.0524758,0.0320823,-1.88469,0.292214,0.056685,-0.026026,0.0286941,0.000814491,0.27012,-0.161662,0.762127,-0.94074,0.000481484,0,0,0,0,0,0,0,1.04694,-36.7677,0.838026,25.2094,2.49908,0.507132,-0.0026396,
0.0685149,0.0522534,0.0396198,-1.89352,0.333688,0.0128913,-0.0260685,0.160831,-0.0200552,0.156423,-0.179705,0.912329,-0.820514,-0.00188341,-0.490542,1.14461,-0.514004,-0.258833,-4.518,7.76677,-0.00845736,0,0,0,0,0,0,0,0.0660349,0.0523857,0.037195,-1.89064,0.319802,0.0257445,-0.0260286,0.0468188,0.00625142,0.25,-0.179952,0.803404,-0.848141,-0.00115086,2.26558,0.679616,-2.51506,-2.28619,5.15959,11.5749,-0.204042,1.09455,-35.0459,0.814222,25.0586,2.83508,0.613333,0.0303194,
0.0698023,0.0520995,0.0408709,-1.89498,0.340933,0.00744004,-0.0260765,0.160851,-0.0198941,0.156415,-0.180341,0.910986,-0.792693,-0.00170756,0.0122311,0.100688,-0.00459321,-0.397644,-0.839711,17.3879,0.109909,0,0,0,0,0,0,0,0.0660349,0.0523857,0.037195,-1.89064,0.319802,0.0257445,-0.0260286,0.0468188,0.00625142,0.25,-0.179952,0.803404,-0.848141,-0.00115086,0,0,0,0,0,0,0,1.09455,-35.0459,0.814222,25.0586,2.83508,0.613333,0.0303194,
0.0711062,0.0519084,0.0421386,-1.89644,0.348305,0.00279368,-0.0260773,0.161279,-0.0206925,0.156824,-0.180759,0.913086,-0.750313,-0.00138514,0.267612,-0.499041,0.255513,-0.261336,1.31246,26.4873,0.20151,0,0,0,0,0,0,0,0.0660349,0.0523857,0.037195,-1.89064,0.319802,0.0257445,-0.0260286,0.0468188,0.00625142,0.25,-0.179952,0.803404,-0.848141,-0.00115086,0,0,0,0,0,0,0,1.09455,-35.0459,0.814222,25.0586,2.83508,0.613333,0.0303194,
0.0724175,0.0516909,0.0434136,-1.89788,0.355768,-0.00102539,-0.0260709,0.161804,-0.0219911,0.157334,-0.180661,0.917038,-0.695728,-0.000949899,0.328249,-0.811607,0.318825,0.0614001,2.46999,34.1161,0.272026,0,0,0,0,0,0,0,0.0660349,0.0523857,0.037195,-1.89064,0.319802,0.0257445,-0.0260286,0.0468188,0.00625142,0.25,-0.179952,0.803404,-0.848141,-0.00115086,0,0,0,0,0,0,0,1.09455,-35.0459,0.814222,25.0586,2.83508,0.613333,0.0303194,
0.0734381,0.0522077,0.0448556,-1.89965,0.361579,-0.0120368,-0.0260508,0.16155,-0.0213955,0.157034,-0.180501,0.911957,-0.683462,-0.000980673,-0.159079,0.37226,-0.187787,0.0999738,-3.17564,7.6663,-0.0192335,0,0,0,0,0,0,0,0.0709005,0.0524569,0.0423772,-1.89677,0.347504,-0.0013097,-0.0260253,0.062154,-0.00684602,0.245169,-0.189896,0.831375,-0.734606,-0.000421481,1.91691,-1.63718,-0.60389,-1.24304,3.49635,14.1918,0.0911717,0.741459,-36.3194,0.361952,26.3281,2.98797,1.09032,0.00376909,
0.0747377,0.0520118,0.0461179,-1.90108,0.368851,-0.0163908,-0.0260522,0.161731,-0.0220142,0.157185,-0.180238,0.911362,-0.65562,-0.000820398,0.113663,-0.386679,0.0943998,0.1643,-0.371484,17.4011,0.100171,0,0,0,0,0,0,0,0.0709005,0.0524569,0.0423772,-1.89677,0.347504,-0.0013097,-0.0260253,0.062154,-0.00684602,0.245169,-0.189896,0.831375,-0.734606,-0.000421481,0,0,0,0,0,0,0,0.741459,-36.3194,0.361952,26.3281,2.98797,1.09032,0.00376909,
0.0760447,0.0517841,0.0473877,-1.9025,0.376223,-0.0199732,-0.0260464,0.162059,-0.0233033,0.157492,-0.179633,0.913372,-0.614054,-0.000511631,0.204446,-0.805685,0.192176,0.378409,1.2559,25.9783,0.19298,0,0,0,0,0,0,0,0.0709005,0.0524569,0.0423772,-1.89677,0.347504,-0.0013097,-0.0260253,0.062154,-0.00684602,0.245169,-0.189896,0.831375,-0.734606,-0.000421481,0,0,0,0,0,0,0,0.741459,-36.3194,0.361952,26.3281,2.98797,1.09032,0.00376909,
0.0773511,0.0515337,0.0486572,-1.9039,0.383665,-0.0227802,-0.026033,0.162308,-0.0249021,0.157731,-0.178534,0.916753,-0.56142,-7.36802e-05,0.1562,-0.999287,0.149313,0.68678,2.11309,32.8967,0.273719,0,0,0,0,0,0,0,0.0709005,0.0524569,0.0423772,-1.89677,0.347504,-0.0013097,-0.0260253,0.062154,-0.00684602,0.245169,-0.189896,0.831375,-0.734606,-0.000421481,0,0,0,0,0,0,0,0.741459,-36.3194,0.361952,26.3281,2.98797,1.09032,0.00376909,
0.0734315,0.052191,0.0448509,-1.89973,0.361606,-0.0110855,-0.026035,0.161832,-0.02384,0.157248,-0.179675,0.912036,-0.561806,-7.72474e-05,-0.298102,0.663836,-0.302051,-0.713079,-2.94806,-0.241091,-0.00222955,0,0,0,0,0,0,0,0.077449,0.052468,0.0457789,-1.90331,0.375044,-0.0244822,-0.0260235,0.00889674,0.00509962,0.31171,-0.19484,0.802737,-0.618255,-0.000540569,-6.65716,1.49321,8.31764,-0.617991,-3.57969,14.5439,-0.014886,0.638309,-35.7204,0.86183,25.7806,3.21319,0.944754,0.017502,
0.0747218,0.0519979,0.0461044,-1.90118,0.368887,-0.0147891,-0.0260286,0.161722,-0.0238997,0.157134,-0.180001,0.911659,-0.542033,9.84664e-05,-0.0683704,-0.0372967,-0.0712965,-0.203499,-0.235556,12.3577,0.109821,0,0,0,0,0,0,0,0.077449,0.052468,0.0457789,-1.90331,0.375044,-0.0244822,-0.0260235,0.00889674,0.00509962,0.31171,-0.19484,0.802737,-0.618255,-0.000540569,0,0,0,0,0,0,0,0.638309,-35.7204,0.86183,25.7806,3.21319,0.944754,0.017502,
0.0760145,0.0517776,0.0473604,-1.9026,0.376266,-0.0176937,-0.0260147,0.161697,-0.0246274,0.157109,-0.179498,0.913804,-0.506243,0.000427376,-0.0159391,-0.454841,-0.0155651,0.31388,1.34049,22.369,0.205569,0,0,0,0,0,0,0,0.077449,0.052468,0.0457789,-1.90331,0.375044,-0.0244822,-0.0260235,0.00889674,0.00509962,0.31171,-0.19484,0.802737,-0.618255,-0.000540569,0,0,0,0,0,0,0,0.638309,-35.7204,0.86183,25.7806,3.21319,0.944754,0.017502,
0.0773021,0.0515373,0.0486115,-1.90399,0.383716,-0.0198345,-0.0259923,0.161546,-0.0257083,0.156965,-0.178198,0.917281,-0.458514,0.000901994,-0.0938845,-0.675561,-0.090192,0.812703,2.17345,29.8307,0.296636,0,0,0,0,0,0,0,0.077449,0.052468,0.0457789,-1.90331,0.375044,-0.0244822,-0.0260235,0.00889674,0.00509962,0.31171,-0.19484,0.802737,-0.618255,-0.000540569,0,0,0,0,0,0,0,0.638309,-35.7204,0.86183,25.7806,3.21319,0.944754,0.017502,
0.0800113,0.0523098,0.048291,-1.90632,0.388852,-0.0323277,-0.0260214,0.1615,-0.0233706,0.156872,-0.179732,0.909073,-0.45548,0.000868025,-0.0287585,1.46106,-0.0580278,-0.958412,-5.12984,1.89608,-0.0212304,0,0,0,0,0,0,0,0.0826914,0.0526694,0.0511233,-1.90966,0.402754,-0.043142,-0.026019,0.0138325,0.00649972,0.297319,-0.187274,0.818204,-0.46901,0.00324239,0.61697,0.175012,-1.79887,0.945839,1.93337,18.6557,0.472869,0.412174,-36.4662,0.687269,26.5543,3.0365,1.13701,-0.00996382,
0.0813018,0.0521479,0.0495434,-1.90777,0.396012,-0.035106,-0.0260077,0.161463,-0.0227437,0.156806,-0.179941,0.906275,-0.43384,0.00103671,-0.0231174,0.391805,-0.0410186,-0.130659,-1.74888,13.5248,0.105428,0,0,0,0,0,0,0,0.0826914,0.0526694,0.0511233,-1.90966,0.402754,-0.043142,-0.026019,0.0138325,0.00649972,0.297319,-0.187274,0.818204,-0.46901,0.00324239,0,0,0,0,0,0,0,0.412174,-36.4662,0.687269,26.5543,3.0365,1.13701,-0.00996382,
0.0825861,0.0519491,0.05079,-1.90917,0.403281,-0.037138,-0.0259855,0.161279,-0.0231673,0.156612,-0.179006,0.906741,-0.397873,0.00138548,-0.115075,-0.264738,-0.121377,0.584063,0.291433,22.4793,0.21798,0,0,0,0,0,0,0,0.0826914,0.0526694,0.0511233,-1.90966,0.402754,-0.043142,-0.026019,0.0138325,0.00649972,0.297319,-0.187274,0.818204,-0.46901,0.00324239,0,0,0,0,0,0,0,0.412174,-36.4662,0.687269,26.5543,3.0365,1.13701,-0.00996382,
0.0800113,0.0523098,0.048291,-1.90632,0.388852,-0.0323277,-0.0260214,0.161287,-0.0213378,0.15659,-0.180378,0.900642,-0.406968,0.00125481,0.00463172,1.14343,-0.0139431,-0.85741,-3.81238,-5.68397,-0.0816659,0,0,0,0,0,0,0,0.0826914,0.0526694,0.0511233,-1.90966,0.402754,-0.043142,-0.026019,0.0138325,0.00649972,0.297319,-0.187274,0.818204,-0.46901,0.00324239,0,0,0,0,0,0,0,0.412174,-36.4662,0.687269,26.5543,3.0365,1.13701,-0.00996382,
0.0864453,0.0523134,0.0547877,-1.91396,0.423739,-0.0505511,-0.0259785,0.160466,-0.021507,0.155754,-0.179123,0.898783,-0.370301,0.00156185,-0.512843,-0.10575,-0.522519,0.784595,-1.16156,22.9169,0.191899,0,0,0,0,0,0,0,0.0880791,0.0525313,0.0563579,-1.91594,0.428485,-0.0564336,-0.0260212,0.0198435,-0.00203077,0.294145,-0.185162,0.751872,-0.329361,-0.000309117,0.751376,-1.06631,-0.396728,0.263892,-8.29148,17.4561,-0.443938,0.638309,-34.5976,0.937208,25.0348,3.01818,0.301138,0.0101778,
0.0876952,0.0520987,0.056,-1.91531,0.430961,-0.0516834,-0.0259495,0.15962,-0.0225716,0.15491,-0.176979,0.899559,-0.324548,0.00197651,-0.529133,-0.665374,-0.5272,1.3397,0.484706,28.5957,0.25916,0,0,0,0,0,0,0,0.0880791,0.0525313,0.0563579,-1.91594,0.428485,-0.0564336,-0.0260212,0.0198435,-0.00203077,0.294145,-0.185162,0.751872,-0.329361,-0.000309117,0,0,0,0,0,0,0,0.638309,-34.5976,0.937208,25.0348,3.01818,0.301138,0.0101778,
0.0889301,0.0518579,0.0571995,-1.91661,0.43825,-0.0522024,-0.0259143,0.158568,-0.0240773,0.153915,-0.174124,0.901877,-0.272611,0.00246048,-0.657129,-0.941071,-0.621782,1.78453,1.44926,32.4601,0.302481,0,0,0,0,0,0,0,0.0880791,0.0525313,0.0563579,-1.91594,0.428485,-0.0564336,-0.0260212,0.0198435,-0.00203077,0.294145,-0.185162,0.751872,-0.329361,-0.000309117,0,0,0,0,0,0,0,0.638309,-34.5976,0.937208,25.0348,3.01818,0.301138,0.0101778,
0.0905517,0.0522775,0.0587734,-1.91877,0.441698,-0.0600945,-0.0259889,0.157832,-0.0231757,0.153103,-0.174154,0.890047,-0.256456,0.00251559,-0.460142,0.563502,-0.507749,-0.0189394,-7.39435,10.0968,0.034445,0,0,0,0,0,0,0,0.0880791,0.0525313,0.0563579,-1.91594,0.428485,-0.0564336,-0.0260212,0.0198435,-0.00203077,0.294145,-0.185162,0.751872,-0.329361,-0.000309117,0,0,0,0,0,0,0,0.638309,-34.5976,0.937208,25.0348,3.01818,0.301138,0.0101778,
0.0917817,0.0520775,0.0599643,-1.92012,0.44863,-0.0610321,-0.0259599,0.157016,-0.0235396,0.152255,-0.173013,0.885326,-0.228605,0.00273825,-0.509802,-0.227412,-0.530112,0.71339,-2.95041,17.407,0.139165,0,0,0,0,0,0,0,0.093192,0.052515,0.0616886,-1.92196,0.453707,-0.0661837,-0.0260224,0.0165173,0.00424202,0.294155,-0.170432,0.696597,-0.249418,-0.000846457,-0.415779,0.784099,0.00121434,1.84129,-6.90945,9.99289,-0.0671675,0.285221,-35.0697,0.611891,25.2332,3.12805,-0.261911,0.0303194,
0.0929976,0.0518464,0.0611437,-1.92142,0.455697,-0.0613964,-0.0259246,0.156011,-0.0246115,0.151289,-0.170933,0.884931,-0.191993,0.00307185,-0.62839,-0.669944,-0.603668,1.29989,-0.246677,22.8827,0.208496,0,0,0,0,0,0,0,0.093192,0.052515,0.0616886,-1.92196,0.453707,-0.0661837,-0.0260224,0.0165173,0.00424202,0.294155,-0.170432,0.696597,-0.249418,-0.000846457,0,0,0,0,0,0,0,0.285221,-35.0697,0.611891,25.2332,3.12805,-0.261911,0.0303194,
0.094195,0.0515933,0.0623066,-1.92268,0.462861,-0.0612245,-0.0258836,0.154742,-0.0260146,0.150104,-0.168146,0.887054,-0.149295,0.00348311,-0.792838,-0.87695,-0.740546,1.74191,1.32649,26.6863,0.257042,0,0,0,0,0,0,0,0.093192,0.052515,0.0616886,-1.92196,0.453707,-0.0661837,-0.0260224,0.0165173,0.00424202,0.294155,-0.170432,0.696597,-0.249418,-0.000846457,0,0,0,0,0,0,0,0.285221,-35.0697,0.611891,25.2332,3.12805,-0.261911,0.0303194,
0.0956137,0.0522769,0.0640514,-1.92473,0.466394,-0.0684128,-0.0259753,0.15406,-0.0246065,0.149323,-0.168772,0.872578,-0.140064,0.00351062,-0.426374,0.880059,-0.488431,-0.391584,-9.04706,5.76916,0.0171923,0,0,0,0,0,0,0,0.093192,0.052515,0.0616886,-1.92196,0.453707,-0.0661837,-0.0260224,0.0165173,0.00424202,0.294155,-0.170432,0.696597,-0.249418,-0.000846457,0,0,0,0,0,0,0,0.285221,-35.0697,0.611891,25.2332,3.12805,-0.261911,0.0303194,
0.0968103,0.0520817,0.0652099,-1.92605,0.47315,-0.0686845,-0.0259397,0.153162,-0.0245648,0.148419,-0.168066,0.866953,-0.118843,0.00369823,-0.561204,0.0260831,-0.564564,0.44135,-3.5155,13.2631,0.117253,0,0,0,0,0,0,0,0.093192,0.052515,0.0616886,-1.92196,0.453707,-0.0661837,-0.0260224,0.0165173,0.00424202,0.294155,-0.170432,0.696597,-0.249418,-0.000846457,0,0,0,0,0,0,0,0.285221,-35.0697,0.611891,25.2332,3.12805,-0.261911,0.0303194,
0.0979899,0.051856,0.0663538,-1.92732,0.480074,-0.068434,-0.0258983,0.152019,-0.0252951,0.147333,-0.166269,0.866657,-0.0888116,0.00399381,-0.714333,-0.456439,-0.67873,1.12327,-0.185069,18.7698,0.184742,0,0,0,0,0,0,0,0.0980698,0.0524753,0.0669909,-1.92807,0.479864,-0.0723683,-0.0260188,0.000430875,-0.00514606,0.301221,-0.181917,0.774935,-0.135963,-0.000285315,-2.0108,-1.17351,0.883297,-1.43558,9.79228,14.1819,0.0701428,0.741459,-35.0935,0.988783,25.5823,3.09143,-0.347971,0.0303194,
0.0991496,0.0516095,0.0674775,-1.92855,0.487118,-0.0677047,-0.0258549,0.150609,-0.026397,0.14596,-0.163643,0.869435,-0.0528176,0.0042792,-0.881492,-0.688685,-0.858215,1.6411,1.73589,22.4963,0.178368,0,0,0,0,0,0,0,0.0980698,0.0524753,0.0669909,-1.92807,0.479864,-0.0723683,-0.0260188,0.000430875,-0.00514606,0.301221,-0.181917,0.774935,-0.135963,-0.000285315,0,0,0,0,0,0,0,0.741459,-35.0935,0.988783,25.5823,3.09143,-0.347971,0.0303194,
0.100439,0.052193,0.0693087,-1.93077,0.493146,-0.0731339,-0.0259567,0.150152,-0.0253338,0.145477,-0.164047,0.86407,-0.0454881,0.0043154,-0.285761,0.66449,-0.301762,-0.252373,-3.35278,4.58091,0.0226218,0,0,0,0,0,0,0,0.0980698,0.0524753,0.0669909,-1.92807,0.479864,-0.0723683,-0.0260188,0.000430875,-0.00514606,0.301221,-0.181917,0.774935,-0.135963,-0.000285315,0,0,0,0,0,0,0,0.741459,-35.0935,0.988783,25.5823,3.09143,-0.347971,0.0303194,
0.101612,0.0519842,0.0704452,-1.93205,0.500033,-0.0727701,-0.0259152,0.149439,-0.025487,0.144794,-0.163059,0.863446,-0.0272959,0.00449044,-0.445361,-0.0957594,-0.427152,0.617617,-0.390241,11.3702,0.109399,0,0,0,0,0,0,0,0.0980698,0.0524753,0.0669909,-1.92807,0.479864,-0.0723683,-0.0260188,0.000430875,-0.00514606,0.301221,-0.181917,0.774935,-0.135963,-0.000285315,0,0,0,0,0,0,0,0.741459,-35.0935,0.988783,25.5823,3.09143,-0.347971,0.0303194,
0.102767,0.0517478,0.0715634,-1.93327,0.50703,-0.0719474,-0.0258717,0.148425,-0.0263012,0.143792,-0.161046,0.865663,-0.00126957,0.00467835,-0.634059,-0.508907,-0.626213,1.25814,1.38571,16.2664,0.117443,0,0,0,0,0,0,0,0.103038,0.0526356,0.0719896,-1.93381,0.505289,-0.0746221,-0.0260144,-0.0188998,0.0125755,0.33014,-0.159404,0.726307,-0.0300411,0.00176308,-2.41633,2.21519,3.61478,2.81413,-6.07845,13.2402,0.25605,0.412174,-35.6212,0.961012,25.4315,3.28735,-0.421213,-0.00996382,
0.103902,0.0514947,0.0726577,-1.93445,0.514106,-0.0707074,-0.0258271,0.147114,-0.0273676,0.14239,-0.15826,0.869428,0.0299857,0.0048592,-0.819208,-0.666461,-0.876169,1.74123,2.35333,19.5345,0.113034,0,0,0,0,0,0,0,0.103038,0.0526356,0.0719896,-1.93381,0.505289,-0.0746221,-0.0260144,-0.0188998,0.0125755,0.33014,-0.159404,0.726307,-0.0300411,0.00176308,0,0,0,0,0,0,0,0.412174,-35.6212,0.961012,25.4315,3.28735,-0.421213,-0.00996382,
0.105404,0.0524573,0.0743061,-1.93643,0.518175,-0.0738646,-0.0259434,0.147129,-0.0251144,0.142372,-0.158967,0.859984,0.0386037,0.00490314,0.00947305,1.40824,-0.0111685,-0.442001,-5.90274,5.3863,0.0274621,0,0,0,0,0,0,0,0.103038,0.0526356,0.0719896,-1.93381,0.505289,-0.0746221,-0.0260144,-0.0188998,0.0125755,0.33014,-0.159404,0.726307,-0.0300411,0.00176308,0,0,0,0,0,0,0,0.412174,-35.6212,0.961012,25.4315,3.28735,-0.421213,-0.00996382,
0.106557,0.0522787,0.0754205,-1.93767,0.524937,-0.0728851,-0.0259002,0.146539,-0.0245566,0.141757,-0.158323,0.857039,0.0553705,0.00500435,-0.368957,0.348632,-0.384273,0.402692,-1.84047,10.4792,0.0632541,0,0,0,0,0,0,0,0.103038,0.0526356,0.0719896,-1.93381,0.505289,-0.0746221,-0.0260144,-0.0188998,0.0125755,0.33014,-0.159404,0.726307,-0.0300411,0.00176308,0,0,0,0,0,0,0,0.412174,-35.6212,0.961012,25.4315,3.28735,-0.421213,-0.00996382,
0.107688,0.0520685,0.0765084,-1.93887,0.53183,-0.0715322,-0.0258554,0.145492,-0.0248997,0.140604,-0.156544,0.857949,0.0781186,0.00512158,-0.654037,-0.214451,-0.721065,1.11163,0.568707,14.2175,0.0732731,0,0,0,0,0,0,0,0.108641,0.0525365,0.0763418,-1.9392,0.530523,-0.0746165,-0.0260184,0.0820611,-0.00760002,0.184967,-0.157981,0.740697,0.0043392,-0.00159608,12.6201,-2.52194,-18.1465,0.17777,1.79876,4.29754,-0.419895,-0.805783,-34.4707,0.211195,24.6381,3.17108,-0.341562,0.0706026,
0.108796,0.0518382,0.0775746,-1.94001,0.538714,-0.0698367,-0.0258095,0.144114,-0.0256774,0.139139,-0.153705,0.858452,0.104883,0.00524543,-0.861655,-0.486076,-0.915366,1.77423,0.314406,16.7276,0.0774015,0,0,0,0,0,0,0,0.108641,0.0525365,0.0763418,-1.9392,0.530523,-0.0746165,-0.0260184,0.0820611,-0.00760002,0.184967,-0.157981,0.740697,0.0043392,-0.00159608,0,0,0,0,0,0,0,-0.805783,-34.4707,0.211195,24.6381,3.17108,-0.341562,0.0706026,
0.110799,0.0521924,0.0784357,-1.94172,0.543365,-0.0730837,-0.0259336,0.142312,-0.0254114,0.1374,-0.154002,0.850268,0.108607,0.00531684,-1.1258,0.166237,-1.08705,-0.185704,-5.11512,2.32778,0.044635,0,0,0,0,0,0,0,0.108641,0.0525365,0.0763418,-1.9392,0.530523,-0.0746165,-0.0260184,0.0820611,-0.00760002,0.184967,-0.157981,0.740697,0.0043392,-0.00159608,0,0,0,0,0,0,0,-0.805783,-34.4707,0.211195,24.6381,3.17108,-0.341562,0.0706026,
0.111874,0.0519711,0.0794693,-1.94291,0.550076,-0.0716991,-0.0258875,0.140729,-0.0258618,0.135761,-0.153039,0.847979,0.121501,0.00540408,-0.989559,-0.281449,-1.02406,0.602215,-1.43041,8.0585,0.0545258,0,0,0,0,0,0,0,0.108641,0.0525365,0.0763418,-1.9392,0.530523,-0.0746165,-0.0260184,0.0820611,-0.00760002,0.184967,-0.157981,0.740697,0.0043392,-0.00159608,0,0,0,0,0,0,0,-0.805783,-34.4707,0.211195,24.6381,3.17108,-0.341562,0.0706026,
0.11294,0.0517333,0.0804937,-1.94405,0.556808,-0.069961,-0.0258406,0.139242,-0.0266338,0.13422,-0.150862,0.846692,0.140655,0.00549621,-0.929358,-0.482517,-0.963468,1.36033,-0.804649,11.9712,0.057581,0,0,0,0,0,0,0,0.113351,0.0524568,0.0813225,-1.94448,0.555785,-0.0736671,-0.0260109,0.139772,-0.00394775,0.134306,-0.150751,0.767387,0.0524039,0.000719748,7.21391,0.456534,-6.33268,0.903825,3.33622,6.00809,0.289478,-0.0956386,-34.0462,1.03639,24.1144,3.19488,-0.109934,0.00376909,
0.114003,0.0514806,0.0815175,-1.94511,0.563211,-0.0679112,-0.0257927,0.137963,-0.0276255,0.13297,-0.147291,0.837441,0.163768,0.00559441,-0.799078,-0.619821,-0.781003,2.23183,-5.7819,14.4461,0.0613706,0,0,0,0,0,0,0,0.113351,0.0524568,0.0813225,-1.94448,0.555785,-0.0736671,-0.0260109,0.139772,-0.00394775,0.134306,-0.150751,0.767387,0.0524039,0.000719748,0,0,0,0,0,0,0,-0.0956386,-34.0462,1.03639,24.1144,3.19488,-0.109934,0.00376909,
0.11555,0.052137,0.0834394,-1.94694,0.568847,-0.0713518,-0.0259228,0.13772,-0.0267009,0.132647,-0.148128,0.835604,0.165192,0.00561784,-0.152123,0.577854,-0.201922,-0.522629,-1.14804,0.889492,0.0146446,0,0,0,0,0,0,0,0.113351,0.0524568,0.0813225,-1.94448,0.555785,-0.0736671,-0.0260109,0.139772,-0.00394775,0.134306,-0.150751,0.767387,0.0524039,0.000719748,0,0,0,0,0,0,0,-0.0956386,-34.0462,1.03639,24.1144,3.19488,-0.109934,0.00376909,
0.116631,0.0519253,0.0844771,-1.94809,0.575505,-0.0696228,-0.0258759,0.137201,-0.0266517,0.132058,-0.147368,0.834928,0.175378,0.00566618,-0.32435,0.0307789,-0.367903,0.475063,-0.422708,6.36678,0.0302145,0,0,0,0,0,0,0,0.113351,0.0524568,0.0813225,-1.94448,0.555785,-0.0736671,-0.0260109,0.139772,-0.00394775,0.134306,-0.150751,0.767387,0.0524039,0.000719748,0,0,0,0,0,0,0,-0.0956386,-34.0462,1.03639,24.1144,3.19488,-0.109934,0.00376909,
0.117705,0.0516914,0.0855107,-1.94917,0.58184,-0.0675768,-0.025828,0.13661,-0.0271689,0.131487,-0.144835,0.826334,0.191451,0.00573093,-0.369694,-0.323251,-0.356889,1.58271,-5.37108,10.0455,0.0404705,0,0,0,0,0,0,0,0.11857,0.052372,0.0851834,-1.94964,0.581029,-0.0705226,-0.0260109,0.21379,-0.00249555,0.0281915,-0.148698,0.761583,0.105031,0.000931061,9.25224,0.181524,-13.2643,0.256615,-0.725536,6.57844,0.0264141,-0.29797,-34.1216,0.639662,24.2889,3.10333,0.0493681,0.00376909,
0.120609,0.0520873,0.0871215,-1.95204,0.593793,-0.0673762,-0.0259158,0.134741,-0.025884,0.129574,-0.145285,0.821682,0.197333,0.00579293,-1.16755,0.803068,-1.1958,-0.281216,-2.90724,3.67612,0.038746,0,0,0,0,0,0,0,0.11857,0.052372,0.0851834,-1.94964,0.581029,-0.0705226,-0.0260109,0.21379,-0.00249555,0.0281915,-0.148698,0.761583,0.105031,0.000931061,0,0,0,0,0,0,0,-0.29797,-34.1216,0.639662,24.2889,3.10333,0.0493681,0.00376909,
0.121634,0.0518882,0.0881062,-1.95314,0.599935,-0.0652861,-0.0258666,0.133409,-0.0256849,0.128277,-0.143659,0.810899,0.210119,0.00586435,-0.832525,0.124447,-0.810567,1.01662,-6.73962,7.99097,0.0446381,0,0,0,0,0,0,0,0.11857,0.052372,0.0851834,-1.94964,0.581029,-0.0705226,-0.0260109,0.21379,-0.00249555,0.0281915,-0.148698,0.761583,0.105031,0.000931061,0,0,0,0,0,0,0,-0.29797,-34.1216,0.639662,24.2889,3.10333,0.0493681,0.00376909,
0.122662,0.0516603,0.0890959,-1.95416,0.605602,-0.0629201,-0.0258185,0.132427,-0.0262462,0.127364,-0.14048,0.790386,0.227246,0.00589461,-0.61408,-0.350799,-0.570505,1.98672,-12.8209,10.7046,0.0189165,0,0,0,0,0,0,0,0.11857,0.052372,0.0851834,-1.94964,0.581029,-0.0705226,-0.0260109,0.21379,-0.00249555,0.0281915,-0.148698,0.761583,0.105031,0.000931061,0,0,0,0,0,0,0,-0.29797,-34.1216,0.639662,24.2889,3.10333,0.0493681,0.00376909,
0.123688,0.0514077,0.0900853,-1.95512,0.610692,-0.0603203,-0.0257711,0.131604,-0.0273106,0.126627,-0.136331,0.75956,0.246792,0.00590019,-0.514185,-0.665253,-0.460865,2.59297,-19.2662,12.2161,0.00348389,0,0,0,0,0,0,0,0.123267,0.0524731,0.0894752,-1.95458,0.605545,-0.0660701,-0.0260065,0.195645,0.00509226,0.0460888,-0.142735,0.745763,0.140408,0.000628999,-2.26819,0.948476,2.23715,0.745382,-1.97751,4.42213,-0.0377577,-1.36517,-35.4189,-0.435472,25.4077,3.16467,0.560232,-0.0026396,
0.125294,0.0522527,0.0914038,-1.95691,0.617631,-0.0623612,-0.0259095,0.130643,-0.0253583,0.125631,-0.137355,0.755996,0.248396,0.00596303,-0.600987,1.22018,-0.622814,-0.640065,-2.22757,1.00275,0.0392785,0,0,0,0,0,0,0,0.123267,0.0524731,0.0894752,-1.95458,0.605545,-0.0660701,-0.0260065,0.195645,0.00509226,0.0460888,-0.142735,0.745763,0.140408,0.000628999,0,0,0,0,0,0,0,-1.36517,-35.4189,-0.435472,25.4077,3.16467,0.560232,-0.0026396,
0.126313,0.052069,0.0923837,-1.95796,0.623131,-0.0600264,-0.0258607,0.129994,-0.0248802,0.125001,-0.136212,0.742291,0.257087,0.00599041,-0.405601,0.298784,-0.39362,0.714276,-8.56555,5.43209,0.0171121,0,0,0,0,0,0,0,0.123267,0.0524731,0.0894752,-1.95458,0.605545,-0.0660701,-0.0260065,0.195645,0.00509226,0.0460888,-0.142735,0.745763,0.140408,0.000628999,0,0,0,0,0,0,0,-1.36517,-35.4189,-0.435472,25.4077,3.16467,0.560232,-0.0026396,
0.127332,0.0518506,0.0933646,-1.95895,0.628084,-0.0574453,-0.0258127,0.129469,-0.0253624,0.124523,-0.133541,0.71766,0.270195,0.00599213,-0.327889,-0.301356,-0.298695,1.66962,-15.3942,8.19259,0.00107254,0,0,0,0,0,0,0,0.123267,0.0524731,0.0894752,-1.95458,0.605545,-0.0660701,-0.0260065,0.195645,0.00509226,0.0460888,-0.142735,0.745763,0.140408,0.000628999,0,0,0,0,0,0,0,-1.36517,-35.4189,-0.435472,25.4077,3.16467,0.560232,-0.0026396,
0.128346,0.0516051,0.0943415,-1.95987,0.632438,-0.0546616,-0.025765,0.128923,-0.0264288,0.12404,-0.12993,0.682996,0.285749,0.0059846,-0.341335,-0.666521,-0.301813,2.25706,-21.6652,9.72115,-0.00470508,0,0,0,0,0,0,0,0.123267,0.0524731,0.0894752,-1.95458,0.605545,-0.0660701,-0.0260065,0.195645,0.00509226,0.0460888,-0.142735,0.745763,0.140408,0.000628999,0,0,0,0,0,0,0,-1.36517,-35.4189,-0.435472,25.4077,3.16467,0.560232,-0.0026396,
0.129525,0.0520647,0.0956245,-1.96156,0.639484,-0.0559811,-0.0259153,0.127895,-0.0258455,0.122969,-0.130615,0.672844,0.286475,0.00601977,-0.642518,0.364568,-0.669278,-0.428606,-6.34461,0.453342,0.0219778,0,0,0,0,0,0,0,0.12755,0.052401,0.0937352,-1.95937,0.629127,-0.0602785,-0.0260121,0.128313,-0.00785504,0.11002,-0.136062,0.648922,0.186869,0.000180594,-8.41646,-1.61841,7.99135,0.834117,-12.1051,5.80752,-0.0560506,-0.424923,-34.4231,0.564283,24.7849,3.07953,0.380789,0.0577852,
0.130518,0.0518477,0.0965786,-1.96256,0.64412,-0.0534049,-0.0258666,0.127145,-0.0261022,0.122228,-0.129459,0.654174,0.293586,0.00603424,-0.468411,-0.160456,-0.463194,0.722823,-11.6686,4.4446,0.0090449,0,0,0,0,0,0,0,0.12755,0.052401,0.0937352,-1.95937,0.629127,-0.0602785,-0.0260121,0.128313,-0.00785504,0.11002,-0.136062,0.648922,0.186869,0.000180594,0,0,0,0,0,0,0,-0.424923,-34.4231,0.564283,24.7849,3.07953,0.380789,0.0577852,
0.131509,0.051607,0.0975324,-1.96349,0.648241,-0.0506178,-0.0258182,0.126506,-0.0268995,0.121627,-0.127013,0.626376,0.304545,0.00603606,-0.399757,-0.498294,-0.375309,1.52899,-17.3741,6.84964,0.00113688,0,0,0,0,0,0,0,0.12755,0.052401,0.0937352,-1.95937,0.629127,-0.0602785,-0.0260121,0.128313,-0.00785504,0.11002,-0.136062,0.648922,0.186869,0.000180594,0,0,0,0,0,0,0,-0.424923,-34.4231,0.564283,24.7849,3.07953,0.380789,0.0577852,
0.132495,0.0513473,0.0984818,-1.96438,0.651806,-0.0476604,-0.0257694,0.125856,-0.028012,0.121036,-0.123782,0.590226,0.317572,0.00604877,-0.405825,-0.695324,-0.369664,2.01915,-22.594,8.14143,0.00794477,0,0,0,0,0,0,0,0.12755,0.052401,0.0937352,-1.95937,0.629127,-0.0602785,-0.0260121,0.128313,-0.00785504,0.11002,-0.136062,0.648922,0.186869,0.000180594,0,0,0,0,0,0,0,-0.424923,-34.4231,0.564283,24.7849,3.07953,0.380789,0.0577852,
0.133809,0.0519641,0.100116,-1.96559,0.659529,-0.0485867,-0.0259134,0.126062,-0.0274995,0.121176,-0.12423,0.582957,0.317376,0.00603944,0.12843,0.320326,0.0876671,-0.280024,-4.54295,-0.122023,-0.00583222,0,0,0,0,0,0,0,0.131776,0.0523281,0.0981575,-1.96354,0.650348,-0.0533594,-0.0260058,0.0692052,-0.00668918,0.186071,-0.120673,0.594101,0.224652,0.000181386,-7.3885,0.145733,9.50641,1.92361,-6.85261,4.72291,9.90314e-05,-0.349545,-33.7724,0.26277,24.0152,2.91473,0.23522,0.00376909,
0.134815,0.0517335,0.101084,-1.96654,0.663505,-0.0458325,-0.0258651,0.126015,-0.0277649,0.121119,-0.123176,0.565754,0.322758,0.00603867,-0.0296147,-0.16588,-0.0360458,0.65848,-10.7516,3.36343,-0.000481761,0,0,0,0,0,0,0,0.131776,0.0523281,0.0981575,-1.96354,0.650348,-0.0533594,-0.0260058,0.0692052,-0.00668918,0.186071,-0.120673,0.594101,0.224652,0.000181386,0,0,0,0,0,0,0,-0.349545,-33.7724,0.26277,24.0152,2.91473,0.23522,0.00376909,
0.135812,0.0514825,0.102042,-1.96744,0.666961,-0.0429013,-0.0258162,0.125722,-0.0284867,0.120853,-0.12103,0.539012,0.331485,0.00605364,-0.182684,-0.451109,-0.16578,1.34128,-16.714,5.45414,0.00936048,0,0,0,0,0,0,0,0.131776,0.0523281,0.0981575,-1.96354,0.650348,-0.0533594,-0.0260058,0.0692052,-0.00668918,0.186071,-0.120673,0.594101,0.224652,0.000181386,0,0,0,0,0,0,0,-0.349545,-33.7724,0.26277,24.0152,2.91473,0.23522,0.00376909,
0.136796,0.0512161,0.102989,-1.9683,0.669878,-0.0398297,-0.0257664,0.125191,-0.0294503,0.120373,-0.118215,0.504121,0.341979,0.00608868,-0.332196,-0.602252,-0.300273,1.75949,-21.8066,6.55886,0.0218955,0,0,0,0,0,0,0,0.131776,0.0523281,0.0981575,-1.96354,0.650348,-0.0533594,-0.0260058,0.0692052,-0.00668918,0.186071,-0.120673,0.594101,0.224652,0.000181386,0,0,0,0,0,0,0,-0.349545,-33.7724,0.26277,24.0152,2.91473,0.23522,0.00376909,
0.133817,0.0519692,0.10013,-1.96552,0.65883,-0.0485179,-0.0259127,0.125637,-0.0286175,0.120806,-0.118862,0.503483,0.338002,0.006076,0.279006,0.520527,0.270832,-0.404202,-0.399186,-2.4856,-0.00792073,0,0,0,0,0,0,0,0.135837,0.0522142,0.102862,-1.96766,0.668869,-0.0443642,-0.0260062,0.0175295,-0.00601515,0.233861,-0.129756,0.535603,0.29121,-0.000874507,-6.45946,0.0842537,5.9738,-1.13543,-7.31224,8.31972,-0.131987,-0.40112,-33.9986,0.112013,23.6899,2.95684,-0.189585,0.0376436,
0.134826,0.0517384,0.101101,-1.96644,0.662307,-0.0457116,-0.0258637,0.125737,-0.0286633,0.12092,-0.118052,0.48971,0.34056,0.00608615,0.0621091,-0.0286618,0.0713908,0.50612,-8.6076,1.5988,0.00634242,0,0,0,0,0,0,0,0.135837,0.0522142,0.102862,-1.96766,0.668869,-0.0443642,-0.0260062,0.0175295,-0.00601515,0.233861,-0.129756,0.535603,0.29121,-0.000874507,0,0,0,0,0,0,0,-0.40112,-33.9986,0.112013,23.6899,2.95684,-0.189585,0.0376436,
0.135822,0.0514874,0.10206,-1.96731,0.665236,-0.04273,-0.0258138,0.125494,-0.029206,0.120716,-0.116216,0.465014,0.346986,0.00611602,-0.151448,-0.33916,-0.127721,1.14753,-15.4354,4.01661,0.0186715,0,0,0,0,0,0,0,0.135837,0.0522142,0.102862,-1.96766,0.668869,-0.0443642,-0.0260062,0.0175295,-0.00601515,0.233861,-0.129756,0.535603,0.29121,-0.000874507,0,0,0,0,0,0,0,-0.40112,-33.9986,0.112013,23.6899,2.95684,-0.189585,0.0376436,
0.136804,0.051222,0.103006,-1.96814,0.667627,-0.0396143,-0.0257626,0.124937,-0.0300005,0.120213,-0.113758,0.431772,0.355482,0.00617391,-0.348355,-0.496595,-0.314554,1.53597,-20.7764,5.30989,0.036177,0,0,0,0,0,0,0,0.135837,0.0522142,0.102862,-1.96766,0.668869,-0.0443642,-0.0260062,0.0175295,-0.00601515,0.233861,-0.129756,0.535603,0.29121,-0.000874507,0,0,0,0,0,0,0,-0.40112,-33.9986,0.112013,23.6899,2.95684,-0.189585,0.0376436,
0.137826,0.0519081,0.104792,-1.96961,0.676128,-0.0389349,-0.0259113,0.124833,-0.0284277,0.120089,-0.114677,0.429729,0.355024,0.00617931,-0.0648839,0.983021,-0.0775243,-0.574123,-1.2765,-0.286235,0.0033794,0,0,0,0,0,0,0,0.139447,0.0521328,0.107403,-1.97161,0.684508,-0.0344181,-0.0260029,0.000529714,0.00708885,0.233165,-0.113869,0.411328,0.295866,-0.000522247,-2.12497,1.638,-0.0870174,1.98596,-15.5344,0.582045,0.0440325,0.614505,-34.4945,0.738844,25.011,2.76733,-0.208811,0.017502,
0.138811,0.0516975,0.105739,-1.9705,0.678966,-0.0359406,-0.0258607,0.124484,-0.0280079,0.119745,-0.114097,0.414741,0.358875,0.00620786,-0.218185,0.262337,-0.215154,0.36276,-9.36763,2.4069,0.01784,0,0,0,0,0,0,0,0.139447,0.0521328,0.107403,-1.97161,0.684508,-0.0344181,-0.0260029,0.000529714,0.00708885,0.233165,-0.113869,0.411328,0.295866,-0.000522247,0,0,0,0,0,0,0,0.614505,-34.4945,0.738844,25.011,2.76733,-0.208811,0.017502,
0.139783,0.0514628,0.106674,-1.97135,0.681277,-0.0328166,-0.0258088,0.123886,-0.0282736,0.119175,-0.112529,0.389555,0.3652,0.00626275,-0.373675,-0.166043,-0.356088,0.979928,-15.7413,3.95309,0.0343065,0,0,0,0,0,0,0,0.139447,0.0521328,0.107403,-1.97161,0.684508,-0.0344181,-0.0260029,0.000529714,0.00708885,0.233165,-0.113869,0.411328,0.295866,-0.000522247,0,0,0,0,0,0,0,0.614505,-34.4945,0.738844,25.011,2.76733,-0.208811,0.017502,
0.140741,0.0512113,0.107596,-1.97217,0.683082,-0.0295951,-0.0257556,0.123054,-0.0289052,0.118388,-0.110374,0.356777,0.372698,0.00634134,-0.520004,-0.39476,-0.491685,1.34696,-20.4859,4.68601,0.0491198,0,0,0,0,0,0,0,0.139447,0.0521328,0.107403,-1.97161,0.684508,-0.0344181,-0.0260029,0.000529714,0.00708885,0.233165,-0.113869,0.411328,0.295866,-0.000522247,0,0,0,0,0,0,0,0.614505,-34.4945,0.738844,25.011,2.76733,-0.208811,0.017502,
0.141318,0.0519141,0.109219,-1.97352,0.69008,-0.0287619,-0.0259051,0.121968,-0.0266542,0.117292,-0.11169,0.349585,0.371667,0.00636293,-0.678813,1.40688,-0.685321,-0.822967,-4.49556,-0.644468,0.0134958,0,0,0,0,0,0,0,0.143212,0.0520625,0.111518,-1.97513,0.696484,-0.0240654,-0.0260084,0.0524475,-0.00523002,0.176419,-0.110728,0.339128,0.327307,-0.000816329,6.48973,-1.53986,-7.09332,0.392543,-9.02497,3.93015,-0.0367603,0.638309,-34.8436,0.588087,25.1855,3.19488,-0.175852,0.0376436,
0.142256,0.0517332,0.11012,-1.97441,0.69218,-0.0256679,-0.025852,0.121012,-0.025846,0.116341,-0.111562,0.332167,0.374683,0.00641799,-0.597765,0.505129,-0.593989,0.0803728,-10.8857,1.88521,0.0344116,0,0,0,0,0,0,0,0.143212,0.0520625,0.111518,-1.97513,0.696484,-0.0240654,-0.0260084,0.0524475,-0.00523002,0.176419,-0.110728,0.339128,0.327307,-0.000816329,0,0,0,0,0,0,0,0.638309,-34.8436,0.588087,25.1855,3.19488,-0.175852,0.0376436,
0.143186,0.0515247,0.111014,-1.97525,0.69382,-0.0224639,-0.0257977,0.120071,-0.0258883,0.115426,-0.110393,0.306722,0.379847,0.00649267,-0.587881,-0.0264,-0.571992,0.730684,-15.9037,3.22758,0.0466735,0,0,0,0,0,0,0,0.143212,0.0520625,0.111518,-1.97513,0.696484,-0.0240654,-0.0260084,0.0524475,-0.00523002,0.176419,-0.110728,0.339128,0.327307,-0.000816329,0,0,0,0,0,0,0,0.638309,-34.8436,0.588087,25.1855,3.19488,-0.175852,0.0376436,
0.145059,0.051747,0.1133,-1.97694,0.70088,-0.0180905,-0.0259071,0.119194,-0.0252062,0.114542,-0.110568,0.295152,0.380768,0.00652257,-0.547943,0.426304,-0.552621,-0.109746,-7.23114,0.575224,0.0186898,0,0,0,0,0,0,0,0.143212,0.0520625,0.111518,-1.97513,0.696484,-0.0240654,-0.0260084,0.0524475,-0.00523002,0.176419,-0.110728,0.339128,0.327307,-0.000816329,0,0,0,0,0,0,0,0.638309,-34.8436,0.588087,25.1855,3.19488,-0.175852,0.0376436,
0.145979,0.0515399,0.114184,-1.97779,0.702441,-0.014897,-0.0258524,0.118371,-0.0253426,0.11373,-0.109721,0.275142,0.384452,0.00658482,-0.51443,-0.0852708,-0.507087,0.529642,-12.5062,2.30253,0.0389072,0,0,0,0,0,0,0,0.147372,0.0519728,0.115074,-1.97866,0.706015,-0.0135354,-0.0259984,0.157669,0.00023101,0.0679493,-0.11033,0.27283,0.313544,0.00149831,13.1526,0.682629,-13.5587,0.0497442,-8.28727,-1.72041,0.289329,-0.551876,-34.4231,-0.435472,25.0348,3.34228,-0.0833834,-0.0227812,
0.146892,0.0513141,0.115061,-1.97861,0.703582,-0.0116219,-0.0257963,0.117522,-0.0259186,0.11291,-0.108161,0.248635,0.389439,0.0066704,-0.530927,-0.360028,-0.51254,0.975115,-16.5664,3.11724,0.0534876,0,0,0,0,0,0,0,0.147372,0.0519728,0.115074,-1.97866,0.706015,-0.0135354,-0.0259984,0.157669,0.00023101,0.0679493,-0.11033,0.27283,0.313544,0.00149831,0,0,0,0,0,0,0,-0.551876,-34.4231,-0.435472,25.0348,3.34228,-0.0833834,-0.0227812,
0.147796,0.0510756,0.115929,-1.97939,0.704327,-0.00829267,-0.0257389,0.1166,-0.0266971,0.112032,-0.106177,0.217526,0.394782,0.00677176,-0.575903,-0.486508,-0.54905,1.23974,-19.4436,3.33903,0.0633492,0,0,0,0,0,0,0,0.147372,0.0519728,0.115074,-1.97866,0.706015,-0.0135354,-0.0259984,0.157669,0.00023101,0.0679493,-0.11033,0.27283,0.313544,0.00149831,0,0,0,0,0,0,0,-0.551876,-34.4231,-0.435472,25.0348,3.34228,-0.0833834,-0.0227812,
0.149229,0.0517202,0.116848,-1.98048,0.709294,-0.00764001,-0.025891,0.116399,-0.0251466,0.111804,-0.107243,0.210098,0.391859,0.00679853,-0.125632,0.969062,-0.142397,-0.666123,-4.64203,-1.82634,0.01673,0,0,0,0,0,0,0,0.147372,0.0519728,0.115074,-1.97866,0.706015,-0.0135354,-0.0259984,0.157669,0.00023101,0.0679493,-0.11033,0.27283,0.313544,0.00149831,0,0,0,0,0,0,0,-0.551876,-34.4231,-0.435472,25.0348,3.34228,-0.0833834,-0.0227812,
0.150147,0.0515371,0.117728,-1.98133,0.710341,-0.00447672,-0.0258343,0.116053,-0.0246947,0.111458,-0.107084,0.194262,0.39257,0.00685805,-0.21625,0.282412,-0.216593,0.0995509,-9.89753,0.443939,0.0371959,0,0,0,0,0,0,0,0.147372,0.0519728,0.115074,-1.97866,0.706015,-0.0135354,-0.0259984,0.157669,0.00023101,0.0679493,-0.11033,0.27283,0.313544,0.00149831,0,0,0,0,0,0,0,-0.551876,-34.4231,-0.435472,25.0348,3.34228,-0.0833834,-0.0227812,
0.151054,0.0513323,0.1186,-1.98214,0.71101,-0.00123228,-0.0257763,0.11553,-0.024875,0.110954,-0.106054,0.172145,0.395167,0.00693622,-0.326965,-0.112716,-0.315026,0.6433,-13.8235,1.62318,0.0488604,0,0,0,0,0,0,0,0.151731,0.0519975,0.118119,-1.98213,0.713129,-0.00210452,-0.0259992,0.203301,-0.00332408,0.00437361,-0.103776,0.187394,0.36511,0.000489117,5.70403,-0.444386,-7.94696,0.81929,-10.6796,6.44572,-0.126149,-1.05969,-34.8198,-0.510851,25.5823,3.24432,0.168387,-0.0026396,
0.15195,0.0511126,0.119461,-1.98293,0.711328,0.00206402,-0.025717,0.114824,-0.0253931,0.110282,-0.104479,0.145665,0.398541,0.00702938,-0.441127,-0.323796,-0.41966,0.984617,-16.55,2.10883,0.058222,0,0,0,0,0,0,0,0.151731,0.0519975,0.118119,-1.98213,0.713129,-0.00210452,-0.0259992,0.203301,-0.00332408,0.00437361,-0.103776,0.187394,0.36511,0.000489117,0,0,0,0,0,0,0,-1.05969,-34.8198,-0.510851,25.5823,3.24432,0.168387,-0.0026396,
0.153482,0.0517218,0.119777,-1.98386,0.715213,0.00433014,-0.0258879,0.113648,-0.0243008,0.109089,-0.104966,0.13853,0.400536,0.007053,-0.735442,0.682689,-0.745533,-0.304619,-4.45921,1.24713,0.0147647,0,0,0,0,0,0,0,0.151731,0.0519975,0.118119,-1.98213,0.713129,-0.00210452,-0.0259992,0.203301,-0.00332408,0.00437361,-0.103776,0.187394,0.36511,0.000489117,0,0,0,0,0,0,0,-1.05969,-34.8198,-0.510851,25.5823,3.24432,0.168387,-0.0026396,
0.154351,0.0515358,0.12061,-1.98469,0.71576,0.0076555,-0.0258293,0.112654,-0.024091,0.108108,-0.104529,0.124503,0.403563,0.00710769,-0.620804,0.131151,-0.613336,0.273038,-8.76671,1.89162,0.0341832,0,0,0,0,0,0,0,0.151731,0.0519975,0.118119,-1.98213,0.713129,-0.00210452,-0.0259992,0.203301,-0.00332408,0.00437361,-0.103776,0.187394,0.36511,0.000489117,0,0,0,0,0,0,0,-1.05969,-34.8198,-0.510851,25.5823,3.24432,0.168387,-0.0026396,
0.155216,0.0513318,0.121439,-1.98548,0.715987,0.0110127,-0.0257694,0.111742,-0.0243747,0.107223,-0.103425,0.105276,0.40678,0.00718176,-0.570406,-0.177318,-0.552741,0.690134,-12.0171,2.01047,0.0462926,0,0,0,0,0,0,0,0.155721,0.0519636,0.121369,-1.98543,0.717339,0.009783,-0.0260036,0.149605,0.0052032,0.0497883,-0.0921129,0.083899,0.349726,-0.00122754,-6.71192,1.06591,5.67684,1.4579,-12.9368,-1.92293,-0.214582,-0.603451,-34.2961,0.512709,25.0348,3.33587,0.161978,0.0376436,
0.156074,0.0511154,0.122263,-1.98624,0.715917,0.0143829,-0.0257086,0.110839,-0.0249086,0.106361,-0.101903,0.0824559,0.409681,0.00726576,-0.564343,-0.333722,-0.538934,0.95153,-14.2625,1.81312,0.0524983,0,0,0,0,0,0,0,0.155721,0.0519636,0.121369,-1.98543,0.717339,0.009783,-0.0260036,0.149605,0.0052032,0.0497883,-0.0921129,0.083899,0.349726,-0.00122754,0,0,0,0,0,0,0,-0.603451,-34.2961,0.512709,25.0348,3.33587,0.161978,0.0376436,
0.157399,0.0517426,0.122965,-1.98714,0.718198,0.0161381,-0.0258906,0.109668,-0.0233282,0.105176,-0.102881,0.0738438,0.408732,0.00728708,-0.731795,0.987792,-0.740994,-0.611245,-5.38254,-0.59298,0.0133253,0,0,0,0,0,0,0,0.155721,0.0519636,0.121369,-1.98543,0.717339,0.009783,-0.0260036,0.149605,0.0052032,0.0497883,-0.0921129,0.083899,0.349726,-0.00122754,0,0,0,0,0,0,0,-0.603451,-34.2961,0.512709,25.0348,3.33587,0.161978,0.0376436,
0.158241,0.0515779,0.12377,-1.98797,0.718256,0.0194383,-0.02583,0.108773,-0.0227804,0.104288,-0.10291,0.0605328,0.409491,0.00734449,-0.559477,0.342344,-0.554821,-0.0179586,-8.3194,0.474623,0.0358816,0,0,0,0,0,0,0,0.155721,0.0519636,0.121369,-1.98543,0.717339,0.009783,-0.0260036,0.149605,0.0052032,0.0497883,-0.0921129,0.083899,0.349726,-0.00122754,0,0,0,0,0,0,0,-0.603451,-34.2961,0.512709,25.0348,3.33587,0.161978,0.0376436,
0.15908,0.051394,0.124575,-1.98876,0.718061,0.0227673,-0.0257685,0.108009,-0.0228221,0.103547,-0.102171,0.0435379,0.410818,0.00741416,-0.477367,-0.0260571,-0.462791,0.461315,-10.6218,0.828915,0.0435435,0,0,0,0,0,0,0,0.159069,0.0519904,0.12533,-1.98848,0.719275,0.0219893,-0.0259951,0.0306097,-0.00262721,0.164628,-0.0917563,0.0245207,0.34132,-0.0031621,-14.8745,-0.978801,14.355,0.0445791,-7.42229,-1.05074,-0.24182,-0.452694,-34.7444,0.314344,24.6381,3.27453,-0.0833834,-0.00996382,
0.159915,0.0511967,0.125376,-1.98953,0.717627,0.0261044,-0.0257061,0.107281,-0.0231908,0.102855,-0.100919,0.0239761,0.412083,0.00748923,-0.455082,-0.230449,-0.432896,0.78292,-12.2261,0.790982,0.0469173,0,0,0,0,0,0,0,0.159069,0.0519904,0.12533,-1.98848,0.719275,0.0219893,-0.0259951,0.0306097,-0.00262721,0.164628,-0.0917563,0.0245207,0.34132,-0.0031621,0,0,0,0,0,0,0,-0.452694,-34.7444,0.314344,24.6381,3.27453,-0.0833834,-0.00996382,
0.160687,0.0517083,0.12689,-1.99015,0.719358,0.0281976,-0.0258803,0.106263,-0.0225375,0.101844,-0.101586,0.0177813,0.409071,0.00751001,-0.636037,0.408308,-0.631841,-0.417291,-3.87176,-1.88237,0.0129859,0,0,0,0,0,0,0,0.159069,0.0519904,0.12533,-1.98848,0.719275,0.0219893,-0.0259951,0.0306097,-0.00262721,0.164628,-0.0917563,0.0245207,0.34132,-0.0031621,0,0,0,0,0,0,0,-0.452694,-34.7444,0.314344,24.6381,3.27453,-0.0833834,-0.00996382,
0.161509,0.0515296,0.127677,-1.99096,0.719083,0.0314448,-0.0258182,0.105572,-0.0224971,0.101164,-0.101436,0.00736244,0.408437,0.00755992,-0.432203,0.0252904,-0.425074,0.0937336,-6.5118,-0.3963,0.0311958,0,0,0,0,0,0,0,0.159069,0.0519904,0.12533,-1.98848,0.719275,0.0219893,-0.0259951,0.0306097,-0.00262721,0.164628,-0.0917563,0.0245207,0.34132,-0.0031621,0,0,0,0,0,0,0,-0.452694,-34.7444,0.314344,24.6381,3.27453,-0.0833834,-0.00996382,
0.162332,0.0513381,0.128465,-1.99174,0.718593,0.0347246,-0.0257554,0.105019,-0.0227841,0.100632,-0.100623,-0.00635482,0.408743,0.00761819,-0.345512,-0.179372,-0.332061,0.508665,-8.57329,0.191356,0.0364181,0,0,0,0,0,0,0,0.161898,0.0519244,0.129509,-1.99166,0.719692,0.0344088,-0.0259858,0.0075227,0.00381462,0.190503,-0.0929359,0.00356845,0.374862,0.000492103,-2.88588,0.805229,3.23436,-0.147445,-2.61903,4.19273,0.456775,0.487552,-33.824,0.611891,24.3365,3.40271,0.0365507,-0.0026396,
0.163508,0.0517124,0.131066,-1.99331,0.719325,0.0408417,-0.0258673,0.104331,-0.0214724,0.0999417,-0.101025,-0.0123051,0.408355,0.00764591,-0.429866,0.819816,-0.431691,-0.251794,-3.71895,-0.242633,0.017329,0,0,0,0,0,0,0,0.161898,0.0519244,0.129509,-1.99166,0.719692,0.0344088,-0.0259858,0.0075227,0.00381462,0.190503,-0.0929359,0.00356845,0.374862,0.000492103,0,0,0,0,0,0,0,0.487552,-33.824,0.611891,24.3365,3.40271,0.0365507,-0.0026396,
0.164323,0.0515554,0.131845,-1.99411,0.718822,0.0441223,-0.0258041,0.103821,-0.0211022,0.0994363,-0.100689,-0.0224407,0.408698,0.00769677,-0.318659,0.231336,-0.315876,0.210149,-6.3347,0.214388,0.0317874,0,0,0,0,0,0,0,0.161898,0.0519244,0.129509,-1.99166,0.719692,0.0344088,-0.0259858,0.0075227,0.00381462,0.190503,-0.0929359,0.00356845,0.374862,0.000492103,0,0,0,0,0,0,0,0.487552,-33.824,0.611891,24.3365,3.40271,0.0365507,-0.0026396,
0.165135,0.0513805,0.132623,-1.99487,0.718118,0.0474042,-0.0257404,0.103359,-0.0212538,0.0989916,-0.0997611,-0.035545,0.409007,0.00774951,-0.288931,-0.0947629,-0.277982,0.580056,-8.1902,0.192803,0.032961,0,0,0,0,0,0,0,0.161898,0.0519244,0.129509,-1.99166,0.719692,0.0344088,-0.0259858,0.0075227,0.00381462,0.190503,-0.0929359,0.00356845,0.374862,0.000492103,0,0,0,0,0,0,0,0.487552,-33.824,0.611891,24.3365,3.40271,0.0365507,-0.0026396,
0.165942,0.0511934,0.133396,-1.99562,0.717235,0.0506722,-0.0256764,0.102866,-0.0216793,0.098527,-0.0984385,-0.0505081,0.408905,0.00779881,-0.308309,-0.265936,-0.290339,0.826636,-9.35192,-0.0636669,0.0308143,0,0,0,0,0,0,0,0.164254,0.0519491,0.133765,-1.99495,0.71943,0.0470626,-0.0259863,0.00464735,-0.000924756,0.179424,-0.0948504,-0.0272399,0.374209,0.00041891,-0.359419,-0.592422,-1.38495,-0.239318,-3.85104,-0.0816794,-0.00914909,1.1977,-34.4945,1.11177,24.8087,3.32397,0.063101,-0.0026396,
0.165786,0.0517137,0.135245,-1.99657,0.718543,0.0534559,-0.0258635,0.101716,-0.0207772,0.0973962,-0.0988423,-0.0539884,0.407953,0.00783414,-0.718194,0.563809,-0.706736,-0.252381,-2.17518,-0.595069,0.0220757,0,0,0,0,0,0,0,0.164254,0.0519491,0.133765,-1.99495,0.71943,0.0470626,-0.0259863,0.00464735,-0.000924756,0.179424,-0.0948504,-0.0272399,0.374209,0.00041891,0,0,0,0,0,0,0,1.1977,-34.4945,1.11177,24.8087,3.32397,0.063101,-0.0026396,
0.16657,0.0515535,0.135995,-1.99735,0.717808,0.0567112,-0.0257991,0.100977,-0.0206262,0.0966703,-0.0985345,-0.0615657,0.407743,0.00787772,-0.462127,0.0944054,-0.453739,0.192407,-4.73586,-0.131099,0.0272425,0,0,0,0,0,0,0,0.164254,0.0519491,0.133765,-1.99495,0.71943,0.0470626,-0.0259863,0.00464735,-0.000924756,0.179424,-0.0948504,-0.0272399,0.374209,0.00041891,0,0,0,0,0,0,0,1.1977,-34.4945,1.11177,24.8087,3.32397,0.063101,-0.0026396,
0.167356,0.0513782,0.136747,-1.99811,0.7169,0.0599622,-0.0257345,0.10043,-0.0208827,0.096142,-0.0976754,-0.0719381,0.40747,0.00791657,-0.341921,-0.160292,-0.330141,0.536879,-6.4827,-0.170867,0.0242786,0,0,0,0,0,0,0,0.164254,0.0519491,0.133765,-1.99495,0.71943,0.0470626,-0.0259863,0.00464735,-0.000924756,0.179424,-0.0948504,-0.0272399,0.374209,0.00041891,0,0,0,0,0,0,0,1.1977,-34.4945,1.11177,24.8087,3.32397,0.063101,-0.0026396,
0.16814,0.0511928,0.137498,-1.99884,0.715842,0.0631928,-0.02567,0.0999395,-0.021342,0.0956778,-0.0964488,-0.083995,0.406742,0.00794653,-0.306523,-0.287101,-0.290124,0.766645,-7.53557,-0.455031,0.0187275,0,0,0,0,0,0,0,0.167791,0.0519884,0.136567,-1.9983,0.718063,0.0599678,-0.0259851,0.0934882,0.00602288,0.0889195,-0.0918977,-0.0692496,0.360848,0.00024493,11.1051,0.868454,-11.313,0.369089,-5.25122,-1.67009,-0.0217475,0.106693,-34.8436,0.211195,25.2094,3.36609,-0.0696505,0.0303194,
0.169331,0.0518197,0.138038,-1.99993,0.716589,0.0662293,-0.0258598,0.0993321,-0.0197804,0.0950617,-0.0973492,-0.0875603,0.404523,0.00797292,-0.379638,0.976029,-0.385074,-0.562717,-2.22831,-1.38638,0.0164909,0,0,0,0,0,0,0,0.167791,0.0519884,0.136567,-1.9983,0.718063,0.0599678,-0.0259851,0.0934882,0.00602288,0.0889195,-0.0918977,-0.0692496,0.360848,0.00024493,0,0,0,0,0,0,0,0.106693,-34.8436,0.211195,25.2094,3.36609,-0.0696505,0.0303194,
0.170111,0.0516836,0.138783,-2.00071,0.715623,0.0694119,-0.0257947,0.0989521,-0.0192291,0.0946808,-0.097416,-0.094213,0.403182,0.00800567,-0.237467,0.344563,-0.238055,-0.0417553,-4.15798,-0.838339,0.0204688,0,0,0,0,0,0,0,0.167791,0.0519884,0.136567,-1.9983,0.718063,0.0599678,-0.0259851,0.0934882,0.00602288,0.0889195,-0.0918977,-0.0692496,0.360848,0.00024493,0,0,0,0,0,0,0,0.106693,-34.8436,0.211195,25.2094,3.36609,-0.0696505,0.0303194,
0.17089,0.0515287,0.139529,-2.00146,0.714521,0.0725867,-0.0257297,0.0986392,-0.0192539,0.0943776,-0.0968166,-0.102922,0.401918,0.00802986,-0.195589,-0.015499,-0.189506,0.374616,-5.44305,-0.790291,0.0151174,0,0,0,0,0,0,0,0.167791,0.0519884,0.136567,-1.9983,0.718063,0.0599678,-0.0259851,0.0934882,0.00602288,0.0889195,-0.0918977,-0.0692496,0.360848,0.00024493,0,0,0,0,0,0,0,0.106693,-34.8436,0.211195,25.2094,3.36609,-0.0696505,0.0303194,
0.171665,0.0513611,0.140271,-2.00219,0.713302,0.0757393,-0.0256649,0.0982967,-0.0195947,0.0940555,-0.0957573,-0.112799,0.400349,0.00804267,-0.21406,-0.213009,-0.201335,0.662073,-6.17305,-0.980338,0.00800615,0,0,0,0,0,0,0,0.167791,0.0519884,0.136567,-1.9983,0.718063,0.0599678,-0.0259851,0.0934882,0.00602288,0.0889195,-0.0918977,-0.0692496,0.360848,0.00024493,0,0,0,0,0,0,0,0.106693,-34.8436,0.211195,25.2094,3.36609,-0.0696505,0.0303194,
0.173163,0.0517351,0.140449,-2.00304,0.713993,0.0787816,-0.0258497,0.0983616,-0.0193059,0.0941015,-0.0958966,-0.113154,0.399523,0.00805305,0.0405771,0.18051,0.0287709,-0.087076,-0.221804,-0.516264,0.0064891,0,0,0,0,0,0,0,0.171579,0.0519961,0.138949,-2.00148,0.71567,0.0724583,-0.0259775,0.179774,-0.00695914,0.00817243,-0.0944348,-0.0728458,0.379166,0.00138804,10.7858,-1.62275,-10.0934,-0.31714,-0.449526,2.28975,0.142889,-1.21045,-34.669,-0.685411,25.134,3.06671,0.46044,0.00376909,
0.173949,0.0515724,0.141201,-2.00378,0.712935,0.0819398,-0.0257848,0.0983449,-0.0195121,0.0940859,-0.0954528,-0.11698,0.398575,0.0080648,-0.010426,-0.128898,-0.0097514,0.277366,-2.39143,-0.592333,0.00734754,0,0,0,0,0,0,0,0.171579,0.0519961,0.138949,-2.00148,0.71567,0.0724583,-0.0259775,0.179774,-0.00695914,0.00817243,-0.0944348,-0.0728458,0.379166,0.00138804,0,0,0,0,0,0,0,-1.21045,-34.669,-0.685411,25.134,3.06671,0.46044,0.00376909,
0.17473,0.0513984,0.141949,-2.00451,0.711754,0.0850729,-0.0257201,0.0981976,-0.0199603,0.093953,-0.0945684,-0.123094,0.397186,0.00806966,-0.0920886,-0.28009,-0.0830625,0.55275,-3.82097,-0.86852,0.00303159,0,0,0,0,0,0,0,0.171579,0.0519961,0.138949,-2.00148,0.71567,0.0724583,-0.0259775,0.179774,-0.00695914,0.00817243,-0.0944348,-0.0728458,0.379166,0.00138804,0,0,0,0,0,0,0,-1.21045,-34.669,-0.685411,25.134,3.06671,0.46044,0.00376909,
0.175504,0.0512171,0.142689,-2.00522,0.710472,0.0881722,-0.0256558,0.0978954,-0.0205004,0.0936771,-0.0933856,-0.130531,0.395231,0.00806364,-0.188838,-0.33759,-0.172467,0.739234,-4.64834,-1.22145,-0.00375868,0,0,0,0,0,0,0,0.171579,0.0519961,0.138949,-2.00148,0.71567,0.0724583,-0.0259775,0.179774,-0.00695914,0.00817243,-0.0944348,-0.0728458,0.379166,0.00138804,0,0,0,0,0,0,0,-1.21045,-34.669,-0.685411,25.134,3.06671,0.46044,0.00376909,
0.176477,0.0518491,0.142936,-2.00604,0.71107,0.0911812,-0.0258476,0.09696,-0.0194012,0.0927722,-0.0936185,-0.128898,0.393952,0.00809779,-0.584654,0.686982,-0.565562,-0.145556,1.02038,-0.799887,0.0213421,0,0,0,0,0,0,0,0.174996,0.0520428,0.141525,-2.00453,0.712841,0.0850068,-0.0259767,0.120681,0.00446751,0.0515264,-0.0826219,-0.0745634,0.357888,0.00121328,-7.38672,1.42833,5.41924,1.47661,-0.214704,-2.65972,-0.0218454,-0.528073,-34.8952,0.361952,25.3601,3.01178,0.413748,-0.0026396,
0.177228,0.0517041,0.143655,-2.00678,0.709936,0.0942894,-0.0257819,0.0963506,-0.0191471,0.0921847,-0.0933426,-0.131463,0.392866,0.00812089,-0.380859,0.158845,-0.36719,0.172466,-1.60317,-0.678647,0.0144351,0,0,0,0,0,0,0,0.174996,0.0520428,0.141525,-2.00453,0.712841,0.0850068,-0.0259767,0.120681,0.00446751,0.0515264,-0.0826219,-0.0745634,0.357888,0.00121328,0,0,0,0,0,0,0,-0.528073,-34.8952,0.361952,25.3601,3.01178,0.413748,-0.0026396,
0.17798,0.0515437,0.144374,-2.00749,0.70868,0.0973734,-0.0257168,0.0958697,-0.019326,0.0917251,-0.0926176,-0.136556,0.391392,0.00812392,-0.300566,-0.111807,-0.287208,0.45314,-3.18293,-0.921304,0.00189472,0,0,0,0,0,0,0,0.174996,0.0520428,0.141525,-2.00453,0.712841,0.0850068,-0.0259767,0.120681,0.00446751,0.0515264,-0.0826219,-0.0745634,0.357888,0.00121328,0,0,0,0,0,0,0,-0.528073,-34.8952,0.361952,25.3601,3.01178,0.413748,-0.0026396,
0.178728,0.0513738,0.14509,-2.00819,0.707332,0.100422,-0.0256525,0.0953991,-0.0197088,0.0912798,-0.0915708,-0.142963,0.389324,0.00810743,-0.294147,-0.239279,-0.278298,0.654208,-4.00439,-1.29233,-0.0103061,0,0,0,0,0,0,0,0.174996,0.0520428,0.141525,-2.00453,0.712841,0.0850068,-0.0259767,0.120681,0.00446751,0.0515264,-0.0826219,-0.0745634,0.357888,0.00121328,0,0,0,0,0,0,0,-0.528073,-34.8952,0.361952,25.3601,3.01178,0.413748,-0.0026396,
0.176472,0.0518555,0.142933,-2.00601,0.710955,0.0911267,-0.0258468,0.0948736,-0.018695,0.0907842,-0.091737,-0.140505,0.388436,0.00813586,-0.328409,0.633614,-0.309803,-0.10386,1.53646,-0.554981,0.0177697,0,0,0,0,0,0,0,0.177463,0.0520523,0.144856,-2.00755,0.709464,0.0974969,-0.0259755,0.0142689,-0.000355215,0.16416,-0.0876622,-0.10347,0.353143,-0.000108383,-13.3015,-0.60284,14.0792,-0.630039,-3.61336,-0.593177,-0.165208,0.765262,-34.9468,1.13954,25.2094,2.97516,0.175711,0.0303194,
0.177218,0.0517128,0.143647,-2.00673,0.709752,0.0941988,-0.0257814,0.0945506,-0.0185241,0.09048,-0.091425,-0.14248,0.38755,0.00814532,-0.201894,0.106811,-0.190124,0.195009,-1.23486,-0.553832,0.00591531,0,0,0,0,0,0,0,0.177463,0.0520523,0.144856,-2.00755,0.709464,0.0974969,-0.0259755,0.0142689,-0.000355215,0.16416,-0.0876622,-0.10347,0.353143,-0.000108383,0,0,0,0,0,0,0,0.765262,-34.9468,1.13954,25.2094,2.97516,0.175711,0.0303194,
0.177963,0.0515546,0.14436,-2.00743,0.708432,0.0972439,-0.0257168,0.0942618,-0.0187732,0.0902084,-0.0906969,-0.146978,0.386168,0.00813129,-0.180508,-0.155684,-0.169719,0.455055,-2.81118,-0.863641,-0.00877041,0,0,0,0,0,0,0,0.177463,0.0520523,0.144856,-2.00755,0.709464,0.0974969,-0.0259755,0.0142689,-0.000355215,0.16416,-0.0876622,-0.10347,0.353143,-0.000108383,0,0,0,0,0,0,0,0.765262,-34.9468,1.13954,25.2094,2.97516,0.175711,0.0303194,
0.178703,0.051387,0.145068,-2.00811,0.707028,0.100252,-0.0256531,0.093913,-0.0192078,0.0898809,-0.0896693,-0.152684,0.384135,0.0080958,-0.217974,-0.271578,-0.204681,0.642227,-3.56574,-1.27075,-0.0221814,0,0,0,0,0,0,0,0.177463,0.0520523,0.144856,-2.00755,0.709464,0.0974969,-0.0259755,0.0142689,-0.000355215,0.16416,-0.0876622,-0.10347,0.353143,-0.000108383,0,0,0,0,0,0,0,0.765262,-34.9468,1.13954,25.2094,2.97516,0.175711,0.0303194,
0.178933,0.0518437,0.146278,-2.00903,0.707295,0.103407,-0.0258473,0.0936897,-0.0184423,0.0896731,-0.0900612,-0.151379,0.381661,0.00812055,-0.139552,0.478426,-0.129858,-0.244935,0.81521,-1.54632,0.01547,0,0,0,0,0,0,0,0.180249,0.0520356,0.147618,-2.01043,0.705579,0.108888,-0.0259721,0.11236,-0.00256231,0.0443157,-0.0803796,-0.121116,0.321573,0.000910082,12.2613,-0.275887,-14.9806,0.910331,-2.2057,-3.94623,0.127308,0.00751081,-34.669,0.211195,24.5111,2.8598,0.248038,0.0101778,
0.179677,0.0516996,0.146989,-2.00974,0.705999,0.106379,-0.0257823,0.0935407,-0.0183554,0.0895283,-0.0898908,-0.153498,0.379619,0.00812202,-0.0931413,0.0543132,-0.0905605,0.106536,-1.32432,-1.27592,0.000918544,0,0,0,0,0,0,0,0.180249,0.0520356,0.147618,-2.01043,0.705579,0.108888,-0.0259721,0.11236,-0.00256231,0.0443157,-0.0803796,-0.121116,0.321573,0.000910082,0,0,0,0,0,0,0,0.00751081,-34.669,0.211195,24.5111,2.8598,0.248038,0.0101778,
0.180417,0.0515427,0.147698,-2.01043,0.704613,0.109328,-0.0257183,0.0933353,-0.0186064,0.0893301,-0.0892663,-0.157445,0.377434,0.00809673,-0.12838,-0.156901,-0.12387,0.390292,-2.46659,-1.36601,-0.0158079,0,0,0,0,0,0,0,0.180249,0.0520356,0.147618,-2.01043,0.705579,0.108888,-0.0259721,0.11236,-0.00256231,0.0443157,-0.0803796,-0.121116,0.321573,0.000910082,0,0,0,0,0,0,0,0.00751081,-34.669,0.211195,24.5111,2.8598,0.248038,0.0101778,
0.18115,0.051378,0.1484,-2.01111,0.703166,0.112245,-0.0256555,0.0930096,-0.0190027,0.0890186,-0.0883158,-0.162145,0.374867,0.00804806,-0.203593,-0.247654,-0.194683,0.594036,-2.93792,-1.60404,-0.0304206,0,0,0,0,0,0,0,0.180249,0.0520356,0.147618,-2.01043,0.705579,0.108888,-0.0259721,0.11236,-0.00256231,0.0443157,-0.0803796,-0.121116,0.321573,0.000910082,0,0,0,0,0,0,0,0.00751081,-34.669,0.211195,24.5111,2.8598,0.248038,0.0101778,
0.18163,0.0518015,0.148934,-2.01187,0.703166,0.114583,-0.0258416,0.0918726,-0.0185275,0.0879237,-0.0885591,-0.161607,0.372026,0.00808749,-0.710605,0.297007,-0.684291,-0.152062,0.336465,-1.77566,0.0246491,0,0,0,0,0,0,0,0.183738,0.0520171,0.149614,-2.01317,0.701596,0.120054,-0.0259699,0.122465,-0.00182904,0.0428329,-0.0740257,-0.134802,0.314468,0.000420321,1.2632,0.0916586,-0.18536,0.794233,-1.7108,-0.888172,-0.0612201,-0.424923,-34.3715,0.361952,24.6619,2.86529,0.194937,0.0239107,
0.182337,0.0516524,0.149611,-2.01257,0.70179,0.117483,-0.0257768,0.0911868,-0.0185495,0.0872591,-0.0883286,-0.163669,0.370142,0.00809127,-0.428628,-0.0137794,-0.415382,0.144074,-1.28871,-1.17768,0.00235822,0,0,0,0,0,0,0,0.183738,0.0520171,0.149614,-2.01317,0.701596,0.120054,-0.0259699,0.122465,-0.00182904,0.0428329,-0.0740257,-0.134802,0.314468,0.000420321,0,0,0,0,0,0,0,-0.424923,-34.3715,0.361952,24.6619,2.86529,0.194937,0.0239107,
0.183047,0.051494,0.15029,-2.01325,0.700348,0.120371,-0.0257133,0.0906916,-0.0187994,0.0867783,-0.0876817,-0.166985,0.3683,0.00806041,-0.309476,-0.156184,-0.300518,0.404344,-2.07279,-1.15128,-0.0192844,0,0,0,0,0,0,0,0.183738,0.0520171,0.149614,-2.01317,0.701596,0.120054,-0.0259699,0.122465,-0.00182904,0.0428329,-0.0740257,-0.134802,0.314468,0.000420321,0,0,0,0,0,0,0,-0.424923,-34.3715,0.361952,24.6619,2.86529,0.194937,0.0239107,
0.183754,0.0513302,0.150966,-2.01391,0.698865,0.123229,-0.0256512,0.0902349,-0.0191357,0.0863373,-0.0867276,-0.17067,0.366107,0.00800106,-0.285429,-0.210166,-0.275613,0.596285,-2.30288,-1.37039,-0.0370954,0,0,0,0,0,0,0,0.183738,0.0520171,0.149614,-2.01317,0.701596,0.120054,-0.0259699,0.122465,-0.00182904,0.0428329,-0.0740257,-0.134802,0.314468,0.000420321,0,0,0,0,0,0,0,-0.424923,-34.3715,0.361952,24.6619,2.86529,0.194937,0.0239107,
0.185155,0.0517781,0.150964,-2.01457,0.699079,0.125616,-0.0258425,0.0899939,-0.0186988,0.0861101,-0.0868692,-0.169401,0.363221,0.00801813,-0.150639,0.273026,-0.142019,-0.0885122,0.79315,-1.80377,0.0106697,0,0,0,0,0,0,0,0.186054,0.0520278,0.152712,-2.01579,0.697107,0.131014,-0.0259685,0.021282,0.00354915,0.139261,-0.076563,-0.134039,0.333167,0.000218056,-12.6479,0.672273,12.0536,-0.317159,0.0954053,2.33739,-0.0252831,0.412174,-34.5223,0.687269,24.6103,2.89001,0.466849,0.0239107,
0.18587,0.0516277,0.151648,-2.01525,0.697683,0.128438,-0.0257788,0.0898607,-0.0187195,0.0859817,-0.0866264,-0.170407,0.36113,0.00800621,-0.083243,-0.0129258,-0.0801923,0.15176,-0.628741,-1.30699,-0.00745394,0,0,0,0,0,0,0,0.186054,0.0520278,0.152712,-2.01579,0.697107,0.131014,-0.0259685,0.021282,0.00354915,0.139261,-0.076563,-0.134039,0.333167,0.000218056,0,0,0,0,0,0,0,0.412174,-34.5223,0.687269,24.6103,2.89001,0.466849,0.0239107,
0.186582,0.0514693,0.152329,-2.01592,0.696236,0.131244,-0.0257165,0.0896882,-0.0189342,0.0858147,-0.0860011,-0.172503,0.35905,0.0079621,-0.107804,-0.134175,-0.104403,0.3908,-1.31029,-1.29984,-0.0275662,0,0,0,0,0,0,0,0.186054,0.0520278,0.152712,-2.01579,0.697107,0.131014,-0.0259685,0.021282,0.00354915,0.139261,-0.076563,-0.134039,0.333167,0.000218056,0,0,0,0,0,0,0,0.412174,-34.5223,0.687269,24.6103,2.89001,0.466849,0.0239107,
0.187403,0.0518487,0.154014,-2.01717,0.694592,0.136633,-0.0258423,0.088846,-0.0178937,0.0850007,-0.0860625,-0.170987,0.357834,0.00797998,-0.52641,0.65027,-0.50872,-0.0383191,0.94803,-0.759807,0.0111727,0,0,0,0,0,0,0,0.186054,0.0520278,0.152712,-2.01579,0.697107,0.131014,-0.0259685,0.021282,0.00354915,0.139261,-0.076563,-0.134039,0.333167,0.000218056,0,0,0,0,0,0,0,0.412174,-34.5223,0.687269,24.6103,2.89001,0.466849,0.0239107,
0.188092,0.0517176,0.154672,-2.01784,0.693191,0.139443,-0.0257792,0.0882967,-0.0175909,0.0844609,-0.0857271,-0.171811,0.356517,0.00796111,-0.343328,0.189255,-0.337399,0.209617,-0.515111,-0.823264,-0.0117934,0,0,0,0,0,0,0,0.186054,0.0520278,0.152712,-2.01579,0.697107,0.131014,-0.0259685,0.021282,0.00354915,0.139261,-0.076563,-0.134039,0.333167,0.000218056,0,0,0,0,0,0,0,0.412174,-34.5223,0.687269,24.6103,2.89001,0.466849,0.0239107,
0.188781,0.0515742,0.15533,-2.0185,0.691744,0.142221,-0.0257178,0.087845,-0.0176579,0.0840167,-0.085018,-0.173633,0.354681,0.0079047,-0.28226,-0.0418358,-0.277638,0.443153,-1.13871,-1.14743,-0.0352539,0,0,0,0,0,0,0,0.188736,0.0520071,0.155253,-2.01857,0.692553,0.141358,-0.0259682,0.124682,-0.00188427,0.0227552,-0.0814737,-0.131902,0.275444,-0.00103866,12.925,-0.679176,-14.5633,-0.613835,0.267138,-7.21529,-0.157089,-0.198788,-34.3199,0.0882092,24.6103,2.79846,0.447622,0.050461,
0.189465,0.0514235,0.155984,-2.01914,0.690276,0.144961,-0.025658,0.0873812,-0.0178952,0.0835643,-0.0840246,-0.175616,0.352236,0.0078178,-0.289903,-0.148344,-0.282746,0.620902,-1.23935,-1.52852,-0.0543144,0,0,0,0,0,0,0,0.188736,0.0520071,0.155253,-2.01857,0.692553,0.141358,-0.0259682,0.124682,-0.00188427,0.0227552,-0.0814737,-0.131902,0.275444,-0.00103866,0,0,0,0,0,0,0,-0.198788,-34.3199,0.0882092,24.6103,2.79846,0.447622,0.050461,
0.190056,0.0518083,0.156508,-2.01997,0.68997,0.14643,-0.0258401,0.0866059,-0.0171715,0.0828297,-0.0846025,-0.174212,0.346526,0.00786301,-0.484559,0.452333,-0.459091,-0.361193,0.877581,-3.56882,0.0282599,0,0,0,0,0,0,0,0.188736,0.0520071,0.155253,-2.01857,0.692553,0.141358,-0.0259682,0.124682,-0.00188427,0.0227552,-0.0814737,-0.131902,0.275444,-0.00103866,0,0,0,0,0,0,0,-0.198788,-34.3199,0.0882092,24.6103,2.79846,0.447622,0.050461,
0.190733,0.0516783,0.157155,-2.02064,0.688554,0.149059,-0.0257777,0.0862036,-0.0169887,0.0824426,-0.0845642,-0.174783,0.342947,0.00785068,-0.251424,0.11422,-0.241953,0.0239116,-0.356896,-2.23662,-0.00770679,0,0,0,0,0,0,0,0.188736,0.0520071,0.155253,-2.01857,0.692553,0.141358,-0.0259682,0.124682,-0.00188427,0.0227552,-0.0814737,-0.131902,0.275444,-0.00103866,0,0,0,0,0,0,0,-0.198788,-34.3199,0.0882092,24.6103,2.79846,0.447622,0.050461,
0.191411,0.0515386,0.157803,-2.0213,0.687105,0.151693,-0.0257173,0.0859157,-0.0170831,0.0821609,-0.084021,-0.176059,0.340207,0.00779114,-0.179949,-0.0589828,-0.176099,0.339504,-0.797994,-1.71226,-0.0372136,0,0,0,0,0,0,0,0.191654,0.0520288,0.157376,-2.02136,0.68758,0.15174,-0.0259637,0.0789793,-0.000876935,0.0788123,-0.0816914,-0.14797,0.311464,0.000907911,-5.71281,0.125916,7.00714,-0.0272145,-2.00848,4.50243,0.243321,-0.373349,-34.5976,0.536512,25.134,2.80487,0.606009,0.0101778,
0.192086,0.0513929,0.158448,-2.02193,0.685647,0.154312,-0.0256588,0.0856009,-0.0173085,0.0818531,-0.0831074,-0.177294,0.337659,0.00769558,-0.196726,-0.140882,-0.192374,0.570992,-0.771885,-1.59266,-0.0597251,0,0,0,0,0,0,0,0.191654,0.0520288,0.157376,-2.02136,0.68758,0.15174,-0.0259637,0.0789793,-0.000876935,0.0788123,-0.0816914,-0.14797,0.311464,0.000907911,0,0,0,0,0,0,0,-0.373349,-34.5976,0.536512,25.134,2.80487,0.606009,0.0101778,
0.192991,0.0518485,0.158654,-2.02272,0.684905,0.156996,-0.0258396,0.0853013,-0.0164912,0.0815581,-0.0834326,-0.176267,0.3362,0.00771684,-0.187285,0.510818,-0.184343,-0.203251,0.642354,-0.911984,0.0132849,0,0,0,0,0,0,0,0.191654,0.0520288,0.157376,-2.02136,0.68758,0.15174,-0.0259637,0.0789793,-0.000876935,0.0788123,-0.0816914,-0.14797,0.311464,0.000907911,0,0,0,0,0,0,0,-0.373349,-34.5976,0.536512,25.134,2.80487,0.606009,0.0101778,
0.193665,0.0517251,0.159299,-2.02338,0.683485,0.159633,-0.025779,0.0851036,-0.016278,0.0813577,-0.0832175,-0.176513,0.334885,0.00768906,-0.123573,0.133245,-0.125269,0.134484,-0.153886,-0.821898,-0.0173599,0,0,0,0,0,0,0,0.191654,0.0520288,0.157376,-2.02136,0.68758,0.15174,-0.0259637,0.0789793,-0.000876935,0.0788123,-0.0816914,-0.14797,0.311464,0.000907911,0,0,0,0,0,0,0,-0.373349,-34.5976,0.536512,25.134,2.80487,0.606009,0.0101778,
0.194337,0.0515908,0.15994,-2.02402,0.682051,0.162248,-0.0257203,0.0848716,-0.0163786,0.0811255,-0.0825603,-0.177079,0.333273,0.00761872,-0.144958,-0.0628392,-0.145106,0.410752,-0.354072,-1.00739,-0.0439644,0,0,0,0,0,0,0,0.193453,0.0520588,0.160414,-2.02413,0.682466,0.161864,-0.0259629,0.0332639,0.00190418,0.115572,-0.0764758,-0.16589,0.287258,0.00138683,-5.71443,0.34764,4.59494,0.651942,-2.24006,-3.02572,0.0598645,0.868412,-34.919,0.937208,25.134,2.78564,0.652701,0.00376909,
0.195002,0.0514498,0.160576,-2.02464,0.68062,0.164832,-0.0256635,0.0845368,-0.0166277,0.0807972,-0.0815757,-0.17742,0.331221,0.00751532,-0.209265,-0.155702,-0.205183,0.615321,-0.212621,-1.28243,-0.0646205,0,0,0,0,0,0,0,0.193453,0.0520588,0.160414,-2.02413,0.682466,0.161864,-0.0259629,0.0332639,0.00190418,0.115572,-0.0764758,-0.16589,0.287258,0.00138683,0,0,0,0,0,0,0,0.868412,-34.919,0.937208,25.134,2.78564,0.652701,0.00376909,
0.194723,0.0518949,0.161635,-2.02548,0.679688,0.166883,-0.0258417,0.0837318,-0.0157621,0.0800158,-0.0820414,-0.177259,0.328497,0.00754536,-0.503114,0.540978,-0.488401,-0.291054,0.100636,-1.70275,0.0187694,0,0,0,0,0,0,0,0.193453,0.0520588,0.160414,-2.02413,0.682466,0.161864,-0.0259629,0.0332639,0.00190418,0.115572,-0.0764758,-0.16589,0.287258,0.00138683,0,0,0,0,0,0,0,0.868412,-34.919,0.937208,25.134,2.78564,0.652701,0.00376909,
0.195373,0.051779,0.162255,-2.02613,0.678255,0.169435,-0.0257822,0.0832342,-0.0155083,0.0795235,-0.0819413,-0.17764,0.326603,0.00752255,-0.311034,0.158618,-0.307656,0.0626054,-0.238745,-1.18335,-0.0142514,0,0,0,0,0,0,0,0.193453,0.0520588,0.160414,-2.02413,0.682466,0.161864,-0.0259629,0.0332639,0.00190418,0.115572,-0.0764758,-0.16589,0.287258,0.00138683,0,0,0,0,0,0,0,0.868412,-34.919,0.937208,25.134,2.78564,0.652701,0.00376909,
0.196023,0.0516522,0.162876,-2.02676,0.676824,0.171975,-0.0257248,0.0828358,-0.0155764,0.0791285,-0.0813506,-0.177886,0.324789,0.00745271,-0.248961,-0.0425522,-0.246891,0.369145,-0.153649,-1.1337,-0.0436508,0,0,0,0,0,0,0,0.19648,0.0520257,0.162264,-2.02689,0.677371,0.1719,-0.0259608,0.144045,-0.00645014,0.0132463,-0.080615,-0.155424,0.299825,0.000374222,13.8477,-1.04429,-12.7907,-0.517397,1.30833,1.57088,-0.126576,0.0313145,-34.4469,0.488905,25.0586,2.60254,0.71221,0.0239107,
0.194723,0.051815,0.163526,-2.0282,0.674668,0.176917,-0.0258419,0.082371,-0.0153586,0.0791702,-0.0813184,-0.176548,0.322722,0.00744404,-0.290492,0.136156,0.0260408,0.0201594,0.836686,-1.29245,-0.00542158,0,0,0,0,0,0,0,0.19648,0.0520257,0.162264,-2.02689,0.677371,0.1719,-0.0259608,0.144045,-0.00645014,0.0132463,-0.080615,-0.155424,0.299825,0.000374222,0,0,0,0,0,0,0,0.0313145,-34.4469,0.488905,25.0586,2.60254,0.71221,0.0239107,
0.198475,0.0516871,0.164158,-2.02884,0.673289,0.179422,-0.0257846,0.0824357,-0.015485,0.0791296,-0.0808223,-0.175718,0.320796,0.00738848,0.0404047,-0.0790256,-0.0253394,0.31007,0.518374,-1.20323,-0.0347221,0,0,0,0,0,0,0,0.19648,0.0520257,0.162264,-2.02689,0.677371,0.1719,-0.0259608,0.144045,-0.00645014,0.0132463,-0.080615,-0.155424,0.299825,0.000374222,0,0,0,0,0,0,0,0.0313145,-34.4469,0.488905,25.0586,2.60254,0.71221,0.0239107,
0.19913,0.0515518,0.164784,-2.02945,0.671919,0.181904,-0.0257292,0.0823325,-0.01577,0.0789477,-0.0799561,-0.174819,0.318693,0.00729376,-0.0645144,-0.178124,-0.113674,0.541357,0.562012,-1.31483,-0.0591991,0,0,0,0,0,0,0,0.19648,0.0520257,0.162264,-2.02689,0.677371,0.1719,-0.0259608,0.144045,-0.00645014,0.0132463,-0.080615,-0.155424,0.299825,0.000374222,0,0,0,0,0,0,0,0.0313145,-34.4469,0.488905,25.0586,2.60254,0.71221,0.0239107,
0.199777,0.0514121,0.165401,-2.03004,0.670571,0.184358,-0.0256759,0.082044,-0.0161101,0.0786049,-0.0788161,-0.173545,0.316303,0.00716858,-0.180324,-0.212583,-0.214296,0.712509,0.796343,-1.49329,-0.078238,0,0,0,0,0,0,0,0.19876,0.0520843,0.1648,-2.0295,0.672251,0.181121,-0.0259634,0.0214175,0.00194633,0.12306,-0.0779638,-0.145149,0.267482,-0.000723023,-15.3285,1.04956,13.7267,0.331406,1.28434,-4.04287,-0.137156,0.285221,-34.919,0.838026,25.0864,2.59063,0.692984,0.0376436,
0.199992,0.0519396,0.165987,-2.03081,0.669704,0.185813,-0.0258468,0.0812711,-0.0150988,0.0778178,-0.0792937,-0.17147,0.312575,0.00720679,-0.483031,0.632108,-0.491941,-0.29854,1.29703,-2.33021,0.0238791,0,0,0,0,0,0,0,0.19876,0.0520843,0.1648,-2.0295,0.672251,0.181121,-0.0259634,0.0214175,0.00194633,0.12306,-0.0779638,-0.145149,0.267482,-0.000723023,0,0,0,0,0,0,0,0.285221,-34.919,0.838026,25.0864,2.59063,0.692984,0.0376436,
0.200623,0.0518329,0.166588,-2.03144,0.668374,0.188216,-0.0257903,0.0807835,-0.0147456,0.0773014,-0.0791581,-0.170424,0.310122,0.00717944,-0.304768,0.220751,-0.322727,0.0847656,0.653615,-1.53302,-0.0170933,0,0,0,0,0,0,0,0.19876,0.0520843,0.1648,-2.0295,0.672251,0.181121,-0.0259634,0.0214175,0.00194633,0.12306,-0.0779638,-0.145149,0.267482,-0.000723023,0,0,0,0,0,0,0,0.285221,-34.919,0.838026,25.0864,2.59063,0.692984,0.0376436,
0.201253,0.0517147,0.167189,-2.03205,0.667047,0.190615,-0.0257361,0.080374,-0.0147528,0.0768656,-0.0785203,-0.169504,0.308081,0.00709858,-0.255953,-0.00454337,-0.27239,0.398631,0.575176,-1.27581,-0.050538,0,0,0,0,0,0,0,0.19876,0.0520843,0.1648,-2.0295,0.672251,0.181121,-0.0259634,0.0214175,0.00194633,0.12306,-0.0779638,-0.145149,0.267482,-0.000723023,0,0,0,0,0,0,0,0.285221,-34.919,0.838026,25.0864,2.59063,0.692984,0.0376436,
0.201878,0.0515888,0.167786,-2.03264,0.665742,0.192998,-0.0256841,0.0799317,-0.0149496,0.0764054,-0.0775107,-0.168239,0.306047,0.00697753,-0.276397,-0.122977,-0.287633,0.631021,0.790319,-1.27134,-0.0756568,0,0,0,0,0,0,0,0.200958,0.0521596,0.167336,-2.03213,0.667195,0.190467,-0.0259627,0.0974603,-0.00333952,0.0374596,-0.0787164,-0.145357,0.276702,-0.00156144,9.50535,-0.660731,-10.7,-0.0940842,-0.0260252,1.15251,-0.104802,0.158268,-34.6452,0.43733,24.8364,2.56591,0.71221,0.0440523,
0.202147,0.0519871,0.168465,-2.0334,0.664635,0.195209,-0.0258481,0.0789725,-0.0144151,0.0754517,-0.077723,-0.167108,0.304626,0.00701317,-0.599532,0.334058,-0.596056,-0.132708,0.707109,-0.887925,0.0222756,0,0,0,0,0,0,0,0.200958,0.0521596,0.167336,-2.03213,0.667195,0.190467,-0.0259627,0.0974603,-0.00333952,0.0374596,-0.0787164,-0.145357,0.276702,-0.00156144,0,0,0,0,0,0,0,0.158268,-34.6452,0.43733,24.8364,2.56591,0.71221,0.0440523,
0.202755,0.0518746,0.169044,-2.03401,0.663327,0.197605,-0.0257933,0.0783674,-0.0143434,0.0748402,-0.0773857,-0.16637,0.303591,0.00698021,-0.378166,0.0448179,-0.382204,0.210848,0.461233,-0.646917,-0.0205985,0,0,0,0,0,0,0,0.200958,0.0521596,0.167336,-2.03213,0.667195,0.190467,-0.0259627,0.0974603,-0.00333952,0.0374596,-0.0787164,-0.145357,0.276702,-0.00156144,0,0,0,0,0,0,0,0.158268,-34.6452,0.43733,24.8364,2.56591,0.71221,0.0440523,
0.203363,0.051753,0.169624,-2.0346,0.662036,0.199986,-0.0257409,0.0779002,-0.0145163,0.0743651,-0.0766167,-0.165379,0.302408,0.00689354,-0.29198,-0.108062,-0.296879,0.480586,0.619131,-0.739442,-0.0541679,0,0,0,0,0,0,0,0.200958,0.0521596,0.167336,-2.03213,0.667195,0.190467,-0.0259627,0.0974603,-0.00333952,0.0374596,-0.0787164,-0.145357,0.276702,-0.00156144,0,0,0,0,0,0,0,0.158268,-34.6452,0.43733,24.8364,2.56591,0.71221,0.0440523,
0.203968,0.0516252,0.170201,-2.03517,0.660774,0.202344,-0.0256908,0.0774471,-0.0148067,0.0739087,-0.0755303,-0.163845,0.300876,0.00676767,-0.283176,-0.181484,-0.285262,0.679018,0.959036,-0.957731,-0.0786736,0,0,0,0,0,0,0,0.200958,0.0521596,0.167336,-2.03213,0.667195,0.190467,-0.0259627,0.0974603,-0.00333952,0.0374596,-0.0787164,-0.145357,0.276702,-0.00156144,0,0,0,0,0,0,0,0.158268,-34.6452,0.43733,24.8364,2.56591,0.71221,0.0440523,
0.202137,0.0519956,0.168455,-2.03338,0.664657,0.195161,-0.0258516,0.0768307,-0.0141868,0.0733047,-0.0758323,-0.1632,0.299788,0.00679834,-0.385308,0.387391,-0.377505,-0.188776,0.402982,-0.679635,0.019174,0,0,0,0,0,0,0,0.200958,0.0521596,0.167336,-2.03213,0.667195,0.190467,-0.0259627,0.0974603,-0.00333952,0.0374596,-0.0787164,-0.145357,0.276702,-0.00156144,0,0,0,0,0,0,0,0.158268,-34.6452,0.43733,24.8364,2.56591,0.71221,0.0440523,
0.202737,0.0518876,0.169027,-2.03398,0.663373,0.197526,-0.0257988,0.0764569,-0.0140511,0.072932,-0.0755483,-0.162684,0.298961,0.00675975,-0.233625,0.0848259,-0.232954,0.177498,0.322312,-0.517013,-0.0241231,0,0,0,0,0,0,0,0.200958,0.0521596,0.167336,-2.03213,0.667195,0.190467,-0.0259627,0.0974603,-0.00333952,0.0374596,-0.0787164,-0.145357,0.276702,-0.00156144,0,0,0,0,0,0,0,0.158268,-34.6452,0.43733,24.8364,2.56591,0.71221,0.0440523,
0.203336,0.05177,0.169598,-2.03455,0.662108,0.199877,-0.0257484,0.0761454,-0.0141802,0.0726198,-0.0748133,-0.161754,0.297944,0.00666836,-0.194647,-0.0806987,-0.195108,0.45938,0.581064,-0.63578,-0.0571144,0,0,0,0,0,0,0,0.200958,0.0521596,0.167336,-2.03213,0.667195,0.190467,-0.0259627,0.0974603,-0.00333952,0.0374596,-0.0787164,-0.145357,0.276702,-0.00156144,0,0,0,0,0,0,0,0.158268,-34.6452,0.43733,24.8364,2.56591,0.71221,0.0440523,
0.203931,0.0516461,0.170165,-2.03511,0.660877,0.202205,-0.0257002,0.0757965,-0.0144431,0.0722738,-0.0737475,-0.160189,0.29657,0.00653782,-0.218049,-0.16427,-0.216293,0.666157,0.978329,-0.85861,-0.0815882,0,0,0,0,0,0,0,0.200958,0.0521596,0.167336,-2.03213,0.667195,0.190467,-0.0259627,0.0974603,-0.00333952,0.0374596,-0.0787164,-0.145357,0.276702,-0.00156144,0,0,0,0,0,0,0,0.158268,-34.6452,0.43733,24.8364,2.56591,0.71221,0.0440523,
0.204773,0.0520515,0.170265,-2.03589,0.659816,0.204218,-0.0258524,0.0752612,-0.0136703,0.0717517,-0.0740516,-0.159356,0.295057,0.0065622,-0.334618,0.483011,-0.326258,-0.190075,0.520618,-0.945482,0.0152352,0,0,0,0,0,0,0,0.203614,0.0521913,0.169161,-2.03468,0.662296,0.199631,-0.0259592,0.0716646,0.00137052,0.0629443,-0.070982,-0.149977,0.267388,0.00121383,-3.22446,0.588755,3.18559,0.966805,-0.577453,-1.16434,0.346908,-0.198788,-34.6214,0.814222,25.0864,2.46887,0.732351,-0.0163725,
