xiao-wang007/linearmpc_panda/paper_data/panda_torque_PD_controller_opt_time_to_start_low_pass_filter/2/trajectory.csv
Commanded Joint 0 Position,Commanded Joint 1 Position,Commanded Joint 2 Position,Commanded Joint 3 Position,Commanded Joint 4 Position,Commanded Joint 5 Position,Commanded Joint 6 Position,Commanded Joint 0 Velocity,Commanded Joint 1 Velocity,Commanded Joint 2 Velocity,Commanded Joint 3 Velocity,Commanded Joint 4 Velocity,Commanded Joint 5 Velocity,Commanded Joint 6 Velocity,Commanded Joint 0 Acceleration,Commanded Joint 1 Acceleration,Commanded Joint 2 Acceleration,Commanded Joint 3 Acceleration,Commanded Joint 4 Acceleration,Commanded Joint 5 Acceleration,Commanded Joint 6 Acceleration,Commanded Joint 0 Torque,Commanded Joint 1 Torque,Commanded Joint 2 Torque,Commanded Joint 3 Torque,Commanded Joint 4 Torque,Commanded Joint 5 Torque,Commanded Joint 6 Torque,Actual Joint 0 Position,Actual Joint 1 Position,Actual Joint 2 Position,Actual Joint 3 Position,Actual Joint 4 Position,Actual Joint 5 Position,Actual Joint 6 Position,Actual Joint 0 Velocity,Actual Joint 1 Velocity,Actual Joint 2 Velocity,Actual Joint 3 Velocity,Actual Joint 4 Velocity,Actual Joint 5 Velocity,Actual Joint 6 Velocity,Actual Joint 0 Acceleration,Actual Joint 1 Acceleration,Actual Joint 2 Acceleration,Actual Joint 3 Acceleration,Actual Joint 4 Acceleration,Actual Joint 5 Acceleration,Actual Joint 6 Acceleration,Actual Joint 0 Torque,Actual Joint 1 Torque,Actual Joint 2 Torque,Actual Joint 3 Torque,Actual Joint 4 Torque,Actual Joint 5 Torque,Actual Joint 6 Torque,
-0.0884337,-0.0819103,0.0163316,-1.84896,0.0209963,0.21972,-0.159774,0.000351707,0.0194422,0.000464017,-0.0340176,-0.00529872,0.0530605,-0.000378153,0.219817,12.1514,0.290011,-21.261,-3.3117,33.1628,-0.236346,0.0586212,21.7687,0.18793,-24.3061,-0.662515,1.98004,-0.0246759,-0.0884241,-0.0826301,0.0163803,-1.84575,0.0213481,0.214047,-0.159724,-0.000732422,0.000280525,-0.00117501,-7.883e-05,0.00396544,-0.000473157,0.00120842,0,0,0,0,0,0,0,-0.0956386,-32.4751,-0.435472,27.0541,0.58746,2.94701,-0.143631,
-0.0884339,-0.0826237,0.0163694,-1.84575,0.021375,0.214046,-0.159723,0.00022862,0.0156054,0.000313057,-0.0272169,-0.00415986,0.0424729,-0.000299742,-0.0769295,-2.39799,-0.0943502,4.25043,0.711783,-6.61728,0.0490069,0.0528071,22.2094,0.177491,-24.2225,-0.662794,1.7291,-0.0231626,-0.0884241,-0.0826301,0.0163803,-1.84575,0.0213481,0.214047,-0.159724,-0.000732422,0.000280525,-0.00117501,-7.883e-05,0.00396544,-0.000473157,0.00120842,0,0,0,0,0,0,0,-0.0956386,-32.4751,-0.435472,27.0541,0.58746,2.94701,-0.143631,
-0.0884354,-0.0826216,0.0163677,-1.84575,0.0213759,0.214047,-0.159723,0.000145704,0.0125347,0.000209258,-0.0217752,-0.00330536,0.034023,-0.00023834,-0.0518221,-1.91916,-0.0648745,3.40106,0.534063,-5.28118,0.0383762,0.045564,22.7848,0.165511,-24.114,-0.66226,1.38223,-0.0211999,-0.0884192,-0.0825021,0.0163825,-1.84578,0.0213446,0.214048,-0.159731,-0.00128055,0.00552287,-0.000124835,0.000228398,0.00236415,-0.000127804,-0.00127372,-0.0685158,0.655293,0.131272,0.0384035,-0.200161,0.0431692,-0.310267,-0.119442,-31.9515,-0.463243,26.9034,0.660702,2.93328,-0.083206,
-0.0884365,-0.0826197,0.0163665,-1.84575,0.0213757,0.21405,-0.159723,8.95996e-05,0.0100773,0.000137279,-0.0174207,-0.00264913,0.0272773,-0.000189981,-0.0350654,-1.53592,-0.0449871,2.72155,0.410143,-4.21608,0.0302244,0.0395978,23.3089,0.15605,-23.9462,-0.660282,0.997014,-0.0191999,-0.0884192,-0.0825021,0.0163825,-1.84578,0.0213446,0.214048,-0.159731,-0.00128055,0.00552287,-0.000124835,0.000228398,0.00236415,-0.000127804,-0.00127372,0,0,0,0,0,0,0,-0.119442,-31.9515,-0.463243,26.9034,0.660702,2.93328,-0.083206,
-0.088709,-0.082418,0.0161052,-1.84563,0.0298102,0.208985,-0.15976,-0.000919528,0.00813563,-0.000917224,-0.0136266,0.0513588,-0.0112687,-0.000178171,-0.630705,-1.21353,-0.659064,2.37132,33.7549,-24.0912,0.00738153,0.482024,0.215615,0.478184,-0.291939,3.17992,-2.04435,-0.00141725,-0.0884192,-0.0825021,0.0163825,-1.84578,0.0213446,0.214048,-0.159731,-0.00128055,0.00552287,-0.000124835,0.000228398,0.00236415,-0.000127804,-0.00127372,0,0,0,0,0,0,0,-0.119442,-31.9515,-0.463243,26.9034,0.660702,2.93328,-0.083206,
-0.0887352,-0.0824157,0.0160774,-1.84562,0.0320141,0.207601,-0.15976,-0.00138935,0.00656602,-0.00142726,-0.0107839,0.096186,-0.0436061,-0.000156178,-0.29364,-0.981005,-0.31877,1.77667,28.017,-20.2108,0.0137454,0.476211,0.214909,0.472213,-0.288806,3.15249,-2.02674,-0.00140224,-0.0884192,-0.0825021,0.0163825,-1.84578,0.0213446,0.214048,-0.159731,-0.00128055,0.00552287,-0.000124835,0.000228398,0.00236415,-0.000127804,-0.00127372,0,0,0,0,0,0,0,-0.119442,-31.9515,-0.463243,26.9034,0.660702,2.93328,-0.083206,
-0.0887492,-0.0824128,0.0160619,-1.84562,0.034253,0.20618,-0.159761,-0.00146274,0.00532562,-0.00153094,-0.00866268,0.132922,-0.0704048,-0.00013325,-0.0458698,-0.775246,-0.0648036,1.32577,22.9601,-16.7492,0.0143301,0.470771,0.213783,0.466669,-0.285745,3.12452,-2.00913,-0.00137769,-0.0884192,-0.0825021,0.0163825,-1.84578,0.0213446,0.214048,-0.159731,-0.00128055,0.00552287,-0.000124835,0.000228398,0.00236415,-0.000127804,-0.00127372,0,0,0,0,0,0,0,-0.119442,-31.9515,-0.463243,26.9034,0.660702,2.93328,-0.083206,
-0.0887529,-0.0824086,0.0160568,-1.84563,0.0365078,0.204738,-0.159761,-0.00126209,0.0043641,-0.00135006,-0.00708532,0.162708,-0.0923737,-0.000113321,0.125408,-0.600954,0.113049,0.985852,18.6159,-13.7305,0.0124556,0.464477,0.256156,0.45893,-0.276313,3.09739,-1.98686,-0.00137373,-0.0884266,-0.0816615,0.0163795,-1.84665,0.0213546,0.216205,-0.159723,-0.000215682,0.0866784,-0.000382626,-0.0949635,0.00299925,0.229763,0.000892473,0.133108,10.1444,-0.0322238,-11.899,0.0793871,28.7363,0.270774,-0.0440639,-19.0736,-0.288683,13.8272,0.318295,2.08459,-0.150955,
-0.0888697,-0.0797186,0.016011,-1.84696,0.0478429,0.197975,-0.159791,-0.000971451,0.00816139,-0.000852318,-0.00784266,0.295824,-0.200581,-2.50899e-05,0.18165,2.37331,0.311091,-0.473342,83.1979,-67.6297,0.0551445,3.91401,1.03344,4.01725,-1.68796,10.5595,-8.12574,0.000382537,-0.0884266,-0.0816615,0.0163795,-1.84665,0.0213546,0.216205,-0.159723,-0.000215682,0.0866784,-0.000382626,-0.0949635,0.00299925,0.229763,0.000892473,0,0,0,0,0,0,0,-0.0440639,-19.0736,-0.288683,13.8272,0.318295,2.08459,-0.150955,
-0.0888165,-0.0795717,0.0160701,-1.84707,0.0546191,0.192701,-0.159789,0.00055197,0.0102009,0.000794653,-0.00895775,0.406064,-0.292315,3.29096e-05,0.952138,1.27468,1.02936,-0.696926,68.9,-57.3334,0.0362497,3.8093,1.00485,3.90711,-1.65187,10.3185,-7.94603,-0.000678114,-0.0884266,-0.0816615,0.0163795,-1.84665,0.0213546,0.216205,-0.159723,-0.000215682,0.0866784,-0.000382626,-0.0949635,0.00299925,0.229763,0.000892473,0,0,0,0,0,0,0,-0.0440639,-19.0736,-0.288683,13.8272,0.318295,2.08459,-0.150955,
-0.0887185,-0.0794489,0.0161736,-1.84719,0.0614419,0.187332,-0.159786,0.00289297,0.0112305,0.00322225,-0.0102079,0.495421,-0.368087,8.28449e-05,1.46312,0.643523,1.51725,-0.781372,55.8478,-47.3575,0.0312096,3.72181,0.979731,3.80688,-1.61119,10.0642,-7.77838,-0.00156128,-0.0884266,-0.0816615,0.0163795,-1.84665,0.0213546,0.216205,-0.159723,-0.000215682,0.0866784,-0.000382626,-0.0949635,0.00299925,0.229763,0.000892473,0,0,0,0,0,0,0,-0.0440639,-19.0736,-0.288683,13.8272,0.318295,2.08459,-0.150955,
-0.0885827,-0.0793407,0.0163149,-1.84733,0.0682435,0.181942,-0.159784,0.00570849,0.011689,0.00611116,-0.0114608,0.566378,-0.429197,0.000120094,1.7597,0.28657,1.80557,-0.783023,44.3484,-38.194,0.0232805,3.64786,1.08892,3.69476,-1.59387,9.75793,-7.61327,0.00190229,-0.0884593,-0.0787284,0.0164147,-1.85232,0.0247039,0.219246,-0.159726,-0.00782041,0.0390809,-0.00709432,-0.105078,0.265716,-0.197861,0.000657076,-0.950591,-5.94968,-0.838962,-1.26432,32.8396,-53.453,-0.0294246,0.638309,-32.5981,0.211195,35.4965,2.14477,3.64281,-0.130813,
-0.0853668,-0.0795772,0.0196858,-1.85535,0.0529334,0.180291,-0.159094,0.0254454,0.00031765,0.0269215,-0.0269444,0.63253,-0.586929,0.000962185,12.3356,-7.10711,13.0065,-9.67724,41.345,-98.5828,0.526307,23.8812,-2.7583,24.7391,-9.49356,10.8979,-14.2095,0.288356,-0.0884593,-0.0787284,0.0164147,-1.85232,0.0247039,0.219246,-0.159726,-0.00782041,0.0390809,-0.00709432,-0.105078,0.265716,-0.197861,0.000657076,0,0,0,0,0,0,0,0.638309,-32.5981,0.211195,35.4965,2.14477,3.64281,-0.130813,
-0.0844806,-0.0799314,0.0206202,-1.8561,0.0604986,0.170351,-0.159066,0.04251,-0.0086003,0.0448994,-0.0402751,0.695156,-0.718067,0.00147796,10.6654,-5.57372,11.2362,-8.33168,39.141,-81.9613,0.322361,21.0219,-5.84213,21.5633,-11.2523,10.8979,-14.2095,0.245058,-0.0884593,-0.0787284,0.0164147,-1.85232,0.0247039,0.219246,-0.159726,-0.00782041,0.0390809,-0.00709432,-0.105078,0.265716,-0.197861,0.000657076,0,0,0,0,0,0,0,0.638309,-32.5981,0.211195,35.4965,2.14477,3.64281,-0.130813,
-0.0835566,-0.0802632,0.0215936,-1.8569,0.0683426,0.160574,-0.159039,0.0571081,-0.015175,0.0602532,-0.0522065,0.752223,-0.818863,0.00185466,9.12384,-4.10919,9.59607,-7.45714,35.6669,-62.9971,0.235438,18.1488,-6.16516,18.6951,-11.6866,10.8979,-14.2095,0.12714,-0.0884593,-0.0787284,0.0164147,-1.85232,0.0247039,0.219246,-0.159726,-0.00782041,0.0390809,-0.00709432,-0.105078,0.265716,-0.197861,0.000657076,0,0,0,0,0,0,0,0.638309,-32.5981,0.211195,35.4965,2.14477,3.64281,-0.130813,
-0.0809821,-0.0784956,0.0241121,-1.85876,0.0578361,0.172206,-0.15864,0.0850222,-0.00952004,0.0888524,-0.071136,0.786734,-0.90273,0.0025995,17.4463,3.53435,17.8745,-11.831,21.5696,-52.4168,0.46552,24.9302,3.73697,25.6454,-18.2124,10.7195,-14.2075,0.0727175,-0.0888204,-0.0756817,0.0161153,-1.85295,0.0442588,0.204817,-0.159732,-0.0211034,0.128149,-0.0165151,0.00113895,1.06065,-0.724506,-0.000127581,-1.66038,11.1335,-1.1776,13.2771,99.3671,-65.8305,-0.0980821,6.22028,-40.612,5.53926,24.4635,4.52057,-0.580515,-0.0767973,
-0.0830073,-0.0739592,0.0220944,-1.85934,0.0893807,0.152692,-0.159396,0.100543,-0.00273338,0.104759,-0.089743,0.825622,-0.951952,0.00287289,9.70028,4.24166,9.94156,-11.6294,24.3047,-30.7642,0.170868,23.4174,3.88151,24.1142,-17.668,10.7195,-14.2075,0.0539691,-0.0888204,-0.0756817,0.0161153,-1.85295,0.0442588,0.204817,-0.159732,-0.0211034,0.128149,-0.0165151,0.00113895,1.06065,-0.724506,-0.000127581,0,0,0,0,0,0,0,6.22028,-40.612,5.53926,24.4635,4.52057,-0.580515,-0.0767973,
-0.081665,-0.0737581,0.0234845,-1.86072,0.0973915,0.144062,-0.159365,0.113992,0.00284219,0.118562,-0.106287,0.860768,-0.977318,0.00308291,8.406,3.48473,8.62678,-10.3398,21.9662,-15.8537,0.131267,22.1637,3.74048,22.8486,-17.2664,10.7195,-14.2075,0.0441654,-0.0888204,-0.0756817,0.0161153,-1.85295,0.0442588,0.204817,-0.159732,-0.0211034,0.128149,-0.0165151,0.00113895,1.06065,-0.724506,-0.000127581,0,0,0,0,0,0,0,6.22028,-40.612,5.53926,24.4635,4.52057,-0.580515,-0.0767973,
-0.0802993,-0.0735462,0.0248992,-1.86214,0.10553,0.136106,-0.159333,0.125337,0.00757022,0.130217,-0.120538,0.892083,-0.980745,0.00325433,7.09028,2.95502,7.28446,-8.90716,19.5721,-2.14151,0.107137,21.0858,3.44648,21.7581,-16.9655,10.7195,-14.2075,0.0371169,-0.0888204,-0.0756817,0.0161153,-1.85295,0.0442588,0.204817,-0.159732,-0.0211034,0.128149,-0.0165151,0.00113895,1.06065,-0.724506,-0.000127581,0,0,0,0,0,0,0,6.22028,-40.612,5.53926,24.4635,4.52057,-0.580515,-0.0767973,
-0.0800701,-0.0769913,0.0256864,-1.86407,0.119333,0.11783,-0.159625,0.141017,0.000321187,0.146176,-0.145817,0.919521,-0.996118,0.00276631,9.80016,-4.53064,9.97451,-15.7994,17.1489,-9.6086,-0.305016,25.5352,0.213056,26.3077,-24.8883,10.6146,-13.9108,0.0177771,-0.0875278,-0.0751889,0.0180212,-1.85522,0.078462,0.167616,-0.159708,0.106741,-0.0543556,0.138665,-0.111216,1.09634,-1.4762,0.0029447,15.9805,-22.813,19.3975,-14.0443,4.46145,-93.9616,0.384036,20.4708,-35.0459,20.2103,16.2433,5.06439,-4.22065,-0.083206,
-0.0784283,-0.0771739,0.0273797,-1.86608,0.127636,0.110326,-0.159617,0.153858,-0.00430953,0.159276,-0.166936,0.943179,-0.984483,0.00241069,8.02575,-2.8942,8.18712,-13.1991,14.7862,7.27231,-0.222259,24.1344,-0.110328,24.8642,-24.4778,10.6146,-13.9108,0.00422007,-0.0875278,-0.0751889,0.0180212,-1.85522,0.078462,0.167616,-0.159708,0.106741,-0.0543556,0.138665,-0.111216,1.09634,-1.4762,0.0029447,0,0,0,0,0,0,0,20.4708,-35.0459,20.2103,16.2433,5.06439,-4.22065,-0.083206,
-0.0767884,-0.0773202,0.029072,-1.8681,0.135991,0.103773,-0.159605,0.164085,-0.00710441,0.169726,-0.184111,0.963431,-0.951404,0.00223486,6.39173,-1.7468,6.53165,-10.7348,12.6573,20.6745,-0.109892,22.9887,-0.477489,23.687,-24.1284,10.6146,-12.0202,0.00143058,-0.0875278,-0.0751889,0.0180212,-1.85522,0.078462,0.167616,-0.159708,0.106741,-0.0543556,0.138665,-0.111216,1.09634,-1.4762,0.0029447,0,0,0,0,0,0,0,20.4708,-35.0459,20.2103,16.2433,5.06439,-4.22065,-0.083206,
-0.07516,-0.0774394,0.0307529,-1.87012,0.144383,0.0981356,-0.159588,0.171977,-0.00866275,0.177804,-0.197667,0.980547,-0.902068,0.00219666,4.93274,-0.973962,5.04834,-8.47225,10.6973,30.8349,-0.0238755,22.0113,-0.815326,22.6829,-23.8124,10.6146,-10.2178,0.000855607,-0.0875278,-0.0751889,0.0180212,-1.85522,0.078462,0.167616,-0.159708,0.106741,-0.0543556,0.138665,-0.111216,1.09634,-1.4762,0.0029447,0,0,0,0,0,0,0,20.4708,-35.0459,20.2103,16.2433,5.06439,-4.22065,-0.083206,
-0.0802683,-0.0767354,0.0255346,-1.86657,0.119802,0.134078,-0.159705,0.177295,-0.00930731,0.183419,-0.218896,0.991293,-0.831408,0.00181261,3.32379,-0.402852,3.50966,-13.268,6.71665,44.1623,-0.240033,23.9954,2.58516,24.9068,-29.8598,10.5117,-8.42574,-0.0226628,-0.0821211,-0.0749414,0.0229057,-1.86334,0.117347,0.114236,-0.159709,0.231048,0.0223601,0.133539,-0.273626,1.25143,-1.69697,-0.000467199,15.5384,9.58946,-0.640737,-20.3013,19.3859,-27.5961,-0.426488,14.0279,-26.3616,14.2355,25.6577,4.08111,-1.23054,-0.0703886,
-0.0786669,-0.0767681,0.0271957,-1.869,0.128124,0.130608,-0.159697,0.181873,-0.00826209,0.188262,-0.235747,1.00109,-0.751871,0.00164163,2.86075,0.653265,3.02668,-10.5323,6.1206,49.7104,-0.106861,22.909,1.93066,23.7785,-29.5905,10.5117,-6.65623,-0.0239656,-0.0821211,-0.0749414,0.0229057,-1.86334,0.117347,0.114236,-0.159709,0.231048,0.0223601,0.133539,-0.273626,1.25143,-1.69697,-0.000467199,0,0,0,0,0,0,0,14.0279,-26.3616,14.2355,25.6577,4.08111,-1.23054,-0.0703886,
-0.0770656,-0.076755,0.0288569,-1.8714,0.136485,0.127959,-0.159681,0.185529,-0.0062816,0.19214,-0.248685,1.0099,-0.667718,0.00170457,2.28513,1.23781,2.42374,-8.08572,5.50705,52.5962,0.0393362,22.0055,1.47257,22.8396,-29.2936,10.5117,-5.12339,-0.0174497,-0.0821211,-0.0749414,0.0229057,-1.86334,0.117347,0.114236,-0.159709,0.231048,0.0223601,0.133539,-0.273626,1.25143,-1.69697,-0.000467199,0,0,0,0,0,0,0,14.0279,-26.3616,14.2355,25.6577,4.08111,-1.23054,-0.0703886,
-0.0754738,-0.0767087,0.0305086,-1.87377,0.144874,0.126038,-0.159658,0.188218,-0.00386777,0.195005,-0.258219,1.01765,-0.582187,0.00194787,1.68097,1.50864,1.79072,-5.95877,4.84218,53.4566,0.152062,21.2292,1.17503,22.033,-28.9707,10.5117,-3.79642,-0.0107807,-0.0821211,-0.0749414,0.0229057,-1.86334,0.117347,0.114236,-0.159709,0.231048,0.0223601,0.133539,-0.273626,1.25143,-1.69697,-0.000467199,0,0,0,0,0,0,0,14.0279,-26.3616,14.2355,25.6577,4.08111,-1.23054,-0.0703886,
-0.0735243,-0.0745999,0.0317413,-1.87862,0.161411,0.0781415,-0.159694,0.19455,-1.28978e-06,0.201389,-0.282025,1.02668,-0.58052,0.00183598,3.9575,2.41655,3.99031,-14.8788,5.64551,1.04217,-0.0699298,23.8585,1.94436,24.6874,-34.7807,10.5613,-6.38085,-0.0241688,-0.0722714,-0.078025,0.0333579,-1.87705,0.160493,0.0582203,-0.159706,0.347014,0.0782465,0.332994,-0.397635,1.30717,-1.4289,0.000202503,14.4958,6.9858,24.9319,-15.5011,6.96683,33.5089,0.0837127,6.1687,-27.6311,6.76118,26.8042,3.5437,1.24962,-0.130813,
-0.0717837,-0.0744734,0.0335385,-1.88158,0.169871,0.0744572,-0.159676,0.199154,0.00316002,0.206042,-0.299446,1.03286,-0.556523,0.00193305,2.87753,1.97582,2.90812,-10.8882,3.86099,14.9979,0.0606655,22.925,1.21979,23.7155,-34.4829,10.5613,-5.05997,-0.0219049,-0.0722714,-0.078025,0.0333579,-1.87705,0.160493,0.0582203,-0.159706,0.347014,0.0782465,0.332994,-0.397635,1.30717,-1.4289,0.000202503,0,0,0,0,0,0,0,6.1687,-27.6311,6.76118,26.8042,3.5437,1.24962,-0.130813,
-0.0700691,-0.0743514,0.0353091,-1.88446,0.178303,0.0715459,-0.159649,0.202188,0.00557878,0.209099,-0.311676,1.03708,-0.518001,0.00220979,1.89577,1.51172,1.91055,-7.64401,2.63939,24.0761,0.172967,22.1515,0.743558,22.9102,-34.1246,10.5613,-3.93387,-0.0124394,-0.0722714,-0.078025,0.0333579,-1.87705,0.160493,0.0582203,-0.159706,0.347014,0.0782465,0.332994,-0.397635,1.30717,-1.4289,0.000202503,0,0,0,0,0,0,0,6.1687,-27.6311,6.76118,26.8042,3.5437,1.24962,-0.130813,
-0.0610609,-0.0769716,0.0449264,-1.89516,0.208268,0.0400567,-0.159717,0.211853,0.00801236,0.219049,-0.333099,1.05551,-0.432962,0.00225889,6.04061,1.52099,6.21838,-13.3894,11.5191,53.1491,0.0306847,21.5626,-1.69566,22.308,-37.977,10.5613,0.613031,-0.0180294,-0.0722714,-0.078025,0.0333579,-1.87705,0.160493,0.0582203,-0.159706,0.347014,0.0782465,0.332994,-0.397635,1.30717,-1.4289,0.000202503,0,0,0,0,0,0,0,6.1687,-27.6311,6.76118,26.8042,3.5437,1.24962,-0.130813,
-0.0591503,-0.0768642,0.0469012,-1.89838,0.21713,0.0401714,-0.159684,0.217245,0.00909583,0.224609,-0.347037,1.06596,-0.343503,0.00264382,3.37048,0.677167,3.47524,-8.71132,6.53013,55.9124,0.240579,21.0887,-2.32259,21.854,-36.6821,10.4844,1.79617,-0.0117973,-0.0578286,-0.079298,0.0472942,-1.89783,0.204095,0.0260434,-0.159709,0.420237,0.0610629,0.468816,-0.58201,1.28266,-0.700333,0.000487332,9.15284,-2.14795,16.9778,-23.0469,-3.06287,91.0704,0.0356037,4.74842,-29.3807,5.18617,29.1687,3.24432,3.21252,-0.103348,
-0.0573239,-0.0767894,0.0487896,-1.90149,0.225852,0.040974,-0.159639,0.219457,0.00914494,0.226898,-0.355365,1.07082,-0.254735,0.00322961,1.38199,0.0306961,1.43056,-5.20457,3.04062,55.4798,0.366122,20.5417,-2.26379,21.2789,-36.1682,10.4844,2.40298,0.0020096,-0.0578286,-0.079298,0.0472942,-1.89783,0.204095,0.0260434,-0.159709,0.420237,0.0610629,0.468816,-0.58201,1.28266,-0.700333,0.000487332,0,0,0,0,0,0,0,4.74842,-29.3807,5.18617,29.1687,3.24432,3.21252,-0.103348,
-0.0555736,-0.0767433,0.0505999,-1.9045,0.23446,0.0423323,-0.159583,0.219323,0.00847032,0.226776,-0.359509,1.07185,-0.169831,0.00399493,-0.0835454,-0.421642,-0.0761929,-2.59008,0.642295,53.0651,0.478326,20.052,-2.14737,20.765,-35.64,10.4844,2.91174,0.0148945,-0.0578286,-0.079298,0.0472942,-1.89783,0.204095,0.0260434,-0.159709,0.420237,0.0610629,0.468816,-0.58201,1.28266,-0.700333,0.000487332,0,0,0,0,0,0,0,4.74842,-29.3807,5.18617,29.1687,3.24432,3.21252,-0.103348,
-0.0451721,-0.0779903,0.0604054,-1.91838,0.25276,0.0347266,-0.159696,0.227904,0.0109499,0.235735,-0.378714,1.08736,-0.0273467,0.00434284,5.3631,1.54975,5.59962,-12.0033,9.69429,89.0525,0.217443,18.9685,-4.09205,19.7007,-41.3092,10.4844,9.41399,-0.0248306,-0.0578286,-0.079298,0.0472942,-1.89783,0.204095,0.0260434,-0.159709,0.420237,0.0610629,0.468816,-0.58201,1.28266,-0.700333,0.000487332,0,0,0,0,0,0,0,4.74842,-29.3807,5.18617,29.1687,3.24432,3.21252,-0.103348,
-0.0432197,-0.0778665,0.0624277,-1.92186,0.261738,0.0396685,-0.159636,0.231131,0.0118557,0.239147,-0.389862,1.09434,0.101672,0.0049611,2.01722,0.566097,2.13241,-6.96729,4.36442,80.6365,0.38641,18.854,-3.51653,19.5633,-40.6503,10.4844,9.47717,0.00379697,-0.0578286,-0.079298,0.0472942,-1.89783,0.204095,0.0260434,-0.159709,0.420237,0.0610629,0.468816,-0.58201,1.28266,-0.700333,0.000487332,0,0,0,0,0,0,0,4.74842,-29.3807,5.18617,29.1687,3.24432,3.21252,-0.103348,
-0.0413918,-0.077779,0.0643216,-1.92519,0.270536,0.0450141,-0.159567,0.230604,0.011671,0.238665,-0.395224,1.09542,0.214976,0.00569893,-0.329519,-0.115395,-0.301588,-3.35116,0.674892,70.8154,0.461146,18.8368,-3.15236,19.5865,-39.6284,10.374,9.83305,0.0222055,-0.0416862,-0.0792434,0.0633312,-1.92397,0.251978,0.00192835,-0.159709,0.593921,-0.0271229,0.384365,-0.844105,1.47847,-0.372064,0.000698476,21.7105,-11.0232,-10.5564,-32.7618,24.4753,41.0336,0.0263929,1.98322,-31.0509,2.26228,29.9899,2.24273,6.03692,-0.117081,
-0.0396715,-0.07772,0.0661041,-1.9284,0.279186,0.0506137,-0.15949,0.227491,0.0108115,0.235495,-0.396466,1.09258,0.311971,0.00648991,-1.94592,-0.537198,-1.98123,-0.776141,-1.77897,60.6214,0.494364,18.5972,-2.6519,19.325,-38.9856,10.374,9.76808,0.0446278,-0.0416862,-0.0792434,0.0633312,-1.92397,0.251978,0.00192835,-0.159709,0.593921,-0.0271229,0.384365,-0.844105,1.47847,-0.372064,0.000698476,0,0,0,0,0,0,0,1.98322,-31.0509,2.26228,29.9899,2.24273,6.03692,-0.117081,
-0.0282898,-0.0772519,0.0771648,-1.94427,0.302531,0.0103287,-0.159432,0.234966,0.0158604,0.243217,-0.4033,1.1073,0.348721,0.00705309,4.6719,3.15556,4.8266,-4.27134,9.2036,22.9689,0.351985,18.2962,-2.19648,19.0018,-38.3534,10.374,9.66134,0.0678851,-0.0416862,-0.0792434,0.0633312,-1.92397,0.251978,0.00192835,-0.159709,0.593921,-0.0271229,0.384365,-0.844105,1.47847,-0.372064,0.000698476,0,0,0,0,0,0,0,1.98322,-31.0509,2.26228,29.9899,2.24273,6.03692,-0.117081,
-0.0263582,-0.0770268,0.0791631,-1.94754,0.311585,0.0148304,-0.159354,0.236263,0.0183174,0.244531,-0.404444,1.11221,0.391521,0.00758639,0.810891,1.53559,0.820974,-0.714925,3.06876,26.7499,0.333311,17.8855,-1.79962,18.5663,-37.7503,10.374,9.49879,0.0826352,-0.0416862,-0.0792434,0.0633312,-1.92397,0.251978,0.00192835,-0.159709,0.593921,-0.0271229,0.384365,-0.844105,1.47847,-0.372064,0.000698476,0,0,0,0,0,0,0,1.98322,-31.0509,2.26228,29.9899,2.24273,6.03692,-0.117081,
-0.0245652,-0.0768555,0.0810207,-1.95065,0.320039,0.0196833,-0.159274,0.233834,0.0189347,0.242064,-0.401251,1.10112,0.434539,0.00805847,-1.51798,0.385814,-1.54178,1.99509,-6.93494,26.8863,0.295054,17.4731,-1.99552,18.195,-36.7124,10.1521,9.48857,0.0874838,-0.0253719,-0.0797845,0.081786,-1.95501,0.303164,0.00287026,-0.159719,0.667881,-0.0591596,0.321837,-0.982202,1.55503,0.510347,-0.00196926,9.24504,-4.00458,-7.816,-17.2621,9.57082,110.301,-0.333467,-4.58264,-26.7345,-4.63683,25.2847,1.27777,6.46081,-0.0227812,
-0.0123039,-0.0772986,0.0952804,-1.97377,0.349182,0.0218012,-0.159384,0.238323,0.0228844,0.246777,-0.39778,1.05875,0.467937,0.00819519,2.8052,2.46855,2.94545,2.16981,-26.4797,20.8739,0.0854481,16.4423,-1.4035,17.0975,-35.5179,9.84829,10.0103,0.102978,-0.0253719,-0.0797845,0.081786,-1.95501,0.303164,0.00287026,-0.159719,0.667881,-0.0591596,0.321837,-0.982202,1.55503,0.510347,-0.00196926,0,0,0,0,0,0,0,-4.58264,-26.7345,-4.63683,25.2847,1.27777,6.46081,-0.0227812,
-0.0104197,-0.07708,0.097234,-1.97667,0.355167,0.026899,-0.159312,0.237763,0.0237736,0.246262,-0.390906,0.996629,0.501796,0.00836673,-0.34963,0.555791,-0.321611,4.29595,-38.8254,21.162,0.107212,15.9539,-1.08461,16.5667,-34.9404,9.83926,9.75413,0.10418,-0.0253719,-0.0797845,0.081786,-1.95501,0.303164,0.00287026,-0.159719,0.667881,-0.0591596,0.321837,-0.982202,1.55503,0.510347,-0.00196926,0,0,0,0,0,0,0,-4.58264,-26.7345,-4.63683,25.2847,1.27777,6.46081,-0.0227812,
-0.0086699,-0.0769328,0.0990489,-1.97945,0.360099,0.0321848,-0.159238,0.233954,0.0226995,0.242383,-0.382112,0.920599,0.533582,0.00854283,-2.38062,-0.671313,-2.42416,5.49659,-47.5187,19.8658,0.110065,15.4582,-0.775846,16.1402,-34.359,8.46798,9.51389,0.101737,-0.0253719,-0.0797845,0.081786,-1.95501,0.303164,0.00287026,-0.159719,0.667881,-0.0591596,0.321837,-0.982202,1.55503,0.510347,-0.00196926,0,0,0,0,0,0,0,-4.58264,-26.7345,-4.63683,25.2847,1.27777,6.46081,-0.0227812,
-0.00702983,-0.0768404,0.100751,-1.98212,0.364066,0.0375829,-0.15916,0.228165,0.0204679,0.236454,-0.372377,0.835659,0.561818,0.0087671,-3.61804,-1.39473,-3.70565,6.08441,-53.0876,17.6475,0.140164,14.9021,-0.585627,15.662,-33.6069,6.67827,9.32408,0.0972005,-0.010109,-0.0788087,0.102405,-1.98681,0.355217,0.0330821,-0.159709,0.665348,0.088377,0.384481,-0.900309,1.55524,0.946215,-0.000485655,-0.316661,18.4421,7.83058,10.2365,0.0262788,54.4836,0.185451,-5.11822,-31.4516,-6.03728,31.2872,1.33819,4.16009,-0.0630644,
0.00343712,-0.0748353,0.116399,-2.00451,0.385047,0.0642748,-0.159412,0.234376,0.0261853,0.242878,-0.371073,0.745322,0.625193,0.00878556,3.88181,3.57336,4.01492,0.814887,-56.4607,39.6094,0.011541,13.8853,-1.03938,14.6382,-33.2368,4.07637,12.0733,0.0859992,-0.010109,-0.0788087,0.102405,-1.98681,0.355217,0.0330821,-0.159709,0.665348,0.088377,0.384481,-0.900309,1.55524,0.946215,-0.000485655,0,0,0,0,0,0,0,-5.11822,-31.4516,-6.03728,31.2872,1.33819,4.16009,-0.0630644,
0.0053197,-0.0745646,0.11835,-2.0073,0.387114,0.0716679,-0.159334,0.234565,0.027717,0.243093,-0.366537,0.647944,0.684983,0.00895888,0.118224,0.957269,0.133907,2.83491,-60.8609,37.3688,0.108321,13.8064,-0.722726,14.5573,-32.6253,2.87256,12.0733,0.0867584,-0.010109,-0.0788087,0.102405,-1.98681,0.355217,0.0330821,-0.159709,0.665348,0.088377,0.384481,-0.900309,1.55524,0.946215,-0.000485655,0,0,0,0,0,0,0,-5.11822,-31.4516,-6.03728,31.2872,1.33819,4.16009,-0.0630644,
0.00704719,-0.0743807,0.120143,-2.00997,0.388347,0.0792938,-0.159253,0.230839,0.0267717,0.239282,-0.359864,0.549168,0.738632,0.0092063,-2.32871,-0.590795,-2.38185,4.17064,-61.7353,33.531,0.154641,13.7757,-0.47708,14.516,-32.0271,1.87812,12.0733,0.086842,-0.010109,-0.0788087,0.102405,-1.98681,0.355217,0.0330821,-0.159709,0.665348,0.088377,0.384481,-0.900309,1.55524,0.946215,-0.000485655,0,0,0,0,0,0,0,-5.11822,-31.4516,-6.03728,31.2872,1.33819,4.16009,-0.0630644,
0.00864833,-0.0742601,0.121805,-2.01253,0.388888,0.0870464,-0.159167,0.2247,0.0244325,0.23299,-0.351933,0.452865,0.784722,0.00951287,-3.83709,-1.46201,-3.93217,4.9565,-60.1893,28.8061,0.191607,13.6552,-0.566195,14.4198,-31.4386,0.833144,11.963,0.0939651,0.00707292,-0.076479,0.120254,-2.01522,0.402255,0.069215,-0.159689,0.190044,0.145379,0.813086,-0.75444,1.17003,1.12812,-0.000534495,-59.413,7.1252,53.5756,18.2336,-48.152,22.7384,-0.00610496,-4.32873,-35.4427,-5.1129,32.7313,1.28326,2.23748,0.017502,
0.0198464,-0.0736699,0.133428,-2.03213,0.404487,0.10445,-0.159373,0.2279,0.0231106,0.235769,-0.35402,0.295535,0.811812,0.00992002,2.00008,-0.82615,1.737,-1.3042,-98.331,16.9315,0.254466,10.0378,-5.41315,10.5403,-34.649,-5.39241,11.963,0.0503044,0.00707292,-0.076479,0.120254,-2.01522,0.402255,0.069215,-0.159689,0.190044,0.145379,0.813086,-0.75444,1.17003,1.12812,-0.000534495,0,0,0,0,0,0,0,-4.32873,-35.4427,-5.1129,32.7313,1.28326,2.23748,0.017502,
0.0215859,-0.0736078,0.135212,-2.03492,0.401086,0.112071,-0.159271,0.225809,0.0200409,0.233222,-0.352949,0.151386,0.839977,0.0104852,-1.30719,-1.9186,-1.59205,0.66933,-90.0935,17.6031,0.353268,10.9339,-4.18636,11.4267,-33.8216,-5.95924,11.963,0.0750194,0.00707292,-0.076479,0.120254,-2.01522,0.402255,0.069215,-0.159689,0.190044,0.145379,0.813086,-0.75444,1.17003,1.12812,-0.000534495,0,0,0,0,0,0,0,-4.32873,-35.4427,-5.1129,32.7313,1.28326,2.23748,0.017502,
0.0231795,-0.0735918,0.136847,-2.03762,0.397196,0.119925,-0.159162,0.220486,0.0164328,0.227442,-0.349872,0.0238672,0.868309,0.0111021,-3.32689,-2.25505,-3.61247,1.92319,-79.6989,17.7073,0.385519,11.648,-3.25645,12.1189,-33.0716,-6.29778,11.963,0.0929972,0.00707292,-0.076479,0.120254,-2.01522,0.402255,0.069215,-0.159689,0.190044,0.145379,0.813086,-0.75444,1.17003,1.12812,-0.000534495,0,0,0,0,0,0,0,-4.32873,-35.4427,-5.1129,32.7313,1.28326,2.23748,0.017502,
0.040494,-0.0718059,0.14476,-2.057,0.417461,0.158685,-0.159174,0.221645,0.0179962,0.228353,-0.346645,-0.0687032,0.891485,0.0116235,0.72461,0.977108,0.56952,2.01706,-57.8565,14.4851,0.325881,12.3506,-1.93789,12.7893,-31.9941,-6.68226,11.7618,0.124856,0.0283918,-0.0744259,0.132352,-2.0418,0.427323,0.117599,-0.159658,0.583427,0.088675,0.403373,-0.719461,0.405874,1.56106,-0.00031053,49.1729,-7.08795,-51.2141,4.37235,-95.5191,54.1167,0.0279956,-4.53503,-33.5979,-4.38689,29.2679,0.281674,2.35009,-0.0566557,
0.0421339,-0.0716826,0.14644,-2.05959,0.413674,0.16666,-0.15906,0.218314,0.0174791,0.224706,-0.342069,-0.149636,0.912564,0.0121437,-2.08195,-0.32314,-2.27965,2.8599,-50.5829,13.1744,0.325157,12.6944,-1.51641,13.1121,-31.3717,-6.63651,11.7618,0.133225,0.0283918,-0.0744259,0.132352,-2.0418,0.427323,0.117599,-0.159658,0.583427,0.088675,0.403373,-0.719461,0.405874,1.56106,-0.00031053,0,0,0,0,0,0,0,-4.53503,-33.5979,-4.38689,29.2679,0.281674,2.35009,-0.0566557,
0.0436415,-0.0716026,0.147986,-2.06212,0.409749,0.174749,-0.158944,0.212341,0.0159828,0.218391,-0.336679,-0.217839,0.932286,0.0126156,-3.73342,-0.935192,-3.94652,3.36884,-42.6269,12.326,0.294939,12.9536,-1.19305,13.3506,-30.7728,-6.50567,11.7618,0.138776,0.0283918,-0.0744259,0.132352,-2.0418,0.427323,0.117599,-0.159658,0.583427,0.088675,0.403373,-0.719461,0.405874,1.56106,-0.00031053,0,0,0,0,0,0,0,-4.53503,-33.5979,-4.38689,29.2679,0.281674,2.35009,-0.0566557,
0.0450453,-0.0715483,0.149424,-2.06457,0.405785,0.182948,-0.158827,0.204967,0.0141434,0.210678,-0.330814,-0.273354,0.950799,0.0130234,-4.60817,-1.14965,-4.82076,3.66568,-34.6968,11.5706,0.254856,13.1432,-0.946005,13.5217,-30.1933,-6.33058,11.7618,0.143231,0.0283918,-0.0744259,0.132352,-2.0418,0.427323,0.117599,-0.159658,0.583427,0.088675,0.403373,-0.719461,0.405874,1.56106,-0.00031053,0,0,0,0,0,0,0,-4.53503,-33.5979,-4.38689,29.2679,0.281674,2.35009,-0.0566557,
0.0405675,-0.0714215,0.144813,-2.0563,0.41942,0.158434,-0.159136,0.20937,0.0178111,0.215007,-0.327767,-0.290234,0.956648,0.0131427,2.75157,2.29229,2.70535,1.90397,-10.5499,3.656,0.0745428,13.2314,-0.740723,13.6464,-30.1288,-6.1518,11.4318,0.15191,0.0378302,-0.0742189,0.155102,-2.06759,0.425148,0.174869,-0.159624,0.598911,-0.011101,0.266661,-0.740403,-0.23022,1.68368,0.00245866,1.9355,-12.472,-17.089,-2.61775,-79.5118,15.3283,0.346148,-6.20923,-33.5225,-7.68767,25.1102,-0.866398,2.77489,-0.0227812,
0.0422068,-0.0712415,0.14649,-2.05875,0.416363,0.166379,-0.159026,0.20848,0.0187494,0.213943,-0.323301,-0.308609,0.963931,0.0132745,-0.555951,0.586443,-0.664585,2.79168,-11.4846,4.55166,0.0824142,13.3101,-0.594652,13.7094,-29.5756,-5.90748,11.4318,0.153605,0.0378302,-0.0742189,0.155102,-2.06759,0.425148,0.174869,-0.159624,0.598911,-0.011101,0.266661,-0.740403,-0.23022,1.68368,0.00245866,0,0,0,0,0,0,0,-6.20923,-33.5225,-7.68767,25.1102,-0.866398,2.77489,-0.0227812,
0.0437082,-0.0711132,0.148026,-2.06112,0.413223,0.174439,-0.158915,0.204319,0.0182069,0.209556,-0.317941,-0.32537,0.972662,0.0133843,-2.60112,-0.339042,-2.74183,3.34959,-10.4754,5.45707,0.0685717,13.3452,-0.480262,13.7298,-29.0311,-5.63809,11.4318,0.153881,0.0378302,-0.0742189,0.155102,-2.06759,0.425148,0.174869,-0.159624,0.598911,-0.011101,0.266661,-0.740403,-0.23022,1.68368,0.00245866,0,0,0,0,0,0,0,-6.20923,-33.5225,-7.68767,25.1102,-0.866398,2.77489,-0.0227812,
0.0451007,-0.071018,0.149451,-2.06342,0.410082,0.182611,-0.158805,0.198267,0.0169436,0.203258,-0.312037,-0.338838,0.982431,0.0134564,-3.78237,-0.789549,-3.93637,3.6905,-8.41793,6.10576,0.0450615,13.3446,-0.390109,13.7161,-28.4938,-5.36342,11.4318,0.153568,0.0378302,-0.0742189,0.155102,-2.06759,0.425148,0.174869,-0.159624,0.598911,-0.011101,0.266661,-0.740403,-0.23022,1.68368,0.00245866,0,0,0,0,0,0,0,-6.20923,-33.5225,-7.68767,25.1102,-0.866398,2.77489,-0.0227812,
0.0482863,-0.0721214,0.165838,-2.08137,0.410608,0.216811,-0.159116,0.197993,0.0191882,0.203044,-0.308804,-0.342739,0.984343,0.0133201,-0.171059,1.40285,-0.134047,2.02037,-2.43798,1.19487,-0.0851516,13.3132,-0.316761,13.6726,-27.9618,-5.07946,11.4318,0.152249,0.0378302,-0.0742189,0.155102,-2.06759,0.425148,0.174869,-0.159624,0.598911,-0.011101,0.266661,-0.740403,-0.23022,1.68368,0.00245866,0,0,0,0,0,0,0,-6.20923,-33.5225,-7.68767,25.1102,-0.866398,2.77489,-0.0227812,
0.0497246,-0.0719544,0.167314,-2.08365,0.407823,0.224817,-0.159014,0.194351,0.0195257,0.199333,-0.304198,-0.343831,0.987616,0.0132143,-2.27653,0.210923,-2.31933,2.87873,-0.682613,2.04529,-0.0661256,13.2061,-0.214762,13.5791,-27.6439,-4.7355,11.1904,0.152717,0.0537282,-0.0741413,0.16888,-2.09242,0.410347,0.233554,-0.159401,0.0918097,0.00640357,0.769752,-0.660138,-0.466702,1.62615,0.00309431,-63.3877,2.18807,62.8864,10.0332,-29.5602,-7.19197,0.079457,-3.51941,-29.456,-4.28771,24.7095,0.392452,2.60918,0.0706026,
0.0510573,-0.0718273,0.168681,-2.08587,0.405137,0.232907,-0.158912,0.188799,0.0187978,0.193644,-0.298719,-0.342215,0.992363,0.0131049,-3.46952,-0.454917,-3.55575,3.42421,1.00994,2.96711,-0.0683704,13.1285,-0.162988,13.4914,-27.1195,-4.45618,11.1904,0.150269,0.0537282,-0.0741413,0.16888,-2.09242,0.410347,0.233554,-0.159401,0.0918097,0.00640357,0.769752,-0.660138,-0.466702,1.62615,0.00309431,0,0,0,0,0,0,0,-3.51941,-29.456,-4.28771,24.7095,0.392452,2.60918,0.0706026,
0.0523075,-0.0717275,0.169963,-2.08802,0.402566,0.241082,-0.158813,0.182294,0.0175331,0.186966,-0.292703,-0.338048,0.998254,0.0129743,-4.06576,-0.790398,-4.17336,3.76041,2.60491,3.68211,-0.0816116,13.0339,-0.118088,13.3875,-26.5978,-4.18602,11.1904,0.147499,0.0537282,-0.0741413,0.16888,-2.09242,0.410347,0.233554,-0.159401,0.0918097,0.00640357,0.769752,-0.660138,-0.466702,1.62615,0.00309431,0,0,0,0,0,0,0,-3.51941,-29.456,-4.28771,24.7095,0.392452,2.60918,0.0706026,
0.0638186,-0.0719851,0.179376,-2.10543,0.395942,0.274818,-0.158972,0.18342,0.0200895,0.188209,-0.289921,-0.327243,0.993174,0.0125962,0.703457,1.59772,0.77667,1.73858,6.75314,-3.17501,-0.236317,12.9248,-0.0774404,13.2698,-26.0783,-3.92253,11.1904,0.144252,0.0537282,-0.0741413,0.16888,-2.09242,0.410347,0.233554,-0.159401,0.0918097,0.00640357,0.769752,-0.660138,-0.466702,1.62615,0.00309431,0,0,0,0,0,0,0,-3.51941,-29.456,-4.28771,24.7095,0.392452,2.60918,0.0706026,
0.0651855,-0.0717994,0.18078,-2.10756,0.393826,0.282571,-0.158883,0.180909,0.0207137,0.185675,-0.285201,-0.314703,0.988365,0.0122945,-1.56951,0.390128,-1.58393,2.95002,7.83745,-3.00563,-0.188588,12.6467,-0.102823,12.9778,-25.6239,-3.54083,11.0322,0.141326,0.0699331,-0.0730541,0.178758,-2.11498,0.394121,0.288173,-0.15926,0.544042,0.115375,0.197707,-0.615215,-0.478747,1.57859,0.00678035,56.529,13.6214,-71.5057,5.61531,-1.50559,-5.94503,0.460754,-2.73388,-31.4278,-3.161,31.3864,1.09466,4.33953,0.0440523,
0.0664437,-0.071656,0.182073,-2.10959,0.39184,0.290174,-0.158795,0.176181,0.0201571,0.18085,-0.278876,-0.301413,0.980749,0.0120245,-2.95494,-0.347867,-3.0152,3.95294,8.30595,-4.76056,-0.168722,12.5166,-0.067999,12.8401,-25.1078,-3.29903,11.0322,0.137523,0.0699331,-0.0730541,0.178758,-2.11498,0.394121,0.288173,-0.15926,0.544042,0.115375,0.197707,-0.615215,-0.478747,1.57859,0.00678035,0,0,0,0,0,0,0,-2.73388,-31.4278,-3.161,31.3864,1.09466,4.33953,0.0440523,
0.078586,-0.0695652,0.187679,-2.12749,0.38186,0.326662,-0.158885,0.173454,0.0252264,0.178144,-0.274583,-0.286246,0.951042,0.0115809,-1.70419,3.16833,-1.69156,2.68294,9.47919,-18.5668,-0.27729,12.2352,-0.00371147,12.5449,-24.0797,-2.8525,11.0322,0.129381,0.0699331,-0.0730541,0.178758,-2.11498,0.394121,0.288173,-0.15926,0.544042,0.115375,0.197707,-0.615215,-0.478747,1.57859,0.00678035,0,0,0,0,0,0,0,-2.73388,-31.4278,-3.161,31.3864,1.09466,4.33953,0.0440523,
0.0797772,-0.0692975,0.188904,-2.12943,0.380216,0.333029,-0.158807,0.168542,0.0268735,0.173125,-0.268243,-0.270104,0.919989,0.0112266,-3.07012,1.02942,-3.13667,3.9625,10.0889,-19.4077,-0.221439,12.0865,0.0264896,12.3897,-23.5675,-2.64795,10.6839,0.125107,0.0699331,-0.0730541,0.178758,-2.11498,0.394121,0.288173,-0.15926,0.544042,0.115375,0.197707,-0.615215,-0.478747,1.57859,0.00678035,0,0,0,0,0,0,0,-2.73388,-31.4278,-3.161,31.3864,1.09466,4.33953,0.0440523,
0.0808846,-0.0691014,0.190041,-2.13127,0.378699,0.339119,-0.158729,0.162518,0.0264019,0.166928,-0.260693,-0.253988,0.88826,0.0109174,-3.76488,-0.294776,-3.87336,4.71923,10.0724,-19.8308,-0.193201,11.9246,-0.00750172,12.238,-23.2052,-2.36267,9.84531,0.122218,0.0773348,-0.0711506,0.196253,-2.13618,0.377704,0.343326,-0.159115,0.491867,0.0811222,0.147873,-0.599037,-0.539073,1.61003,0.0056343,-6.52188,-4.28157,-6.22925,2.02228,-7.54085,3.92998,-0.143256,-1.74603,-33.7724,-3.161,26.7288,3.13446,2.66137,0.0907442,
0.0819262,-0.0689588,0.19111,-2.13303,0.377291,0.344939,-0.158654,0.156056,0.0246876,0.160261,-0.252497,-0.238399,0.856112,0.0106283,-4.03901,-1.07139,-4.16706,5.12202,9.74313,-20.0925,-0.180689,11.7625,0.0199382,12.0701,-22.69,-2.20262,9.25442,0.118614,0.0773348,-0.0711506,0.196253,-2.13618,0.377704,0.343326,-0.159115,0.491867,0.0811222,0.147873,-0.599037,-0.539073,1.61003,0.0056343,0,0,0,0,0,0,0,-1.74603,-33.7724,-3.161,26.7288,3.13446,2.66137,0.0907442,
0.0847096,-0.06824,0.203873,-2.1473,0.366325,0.37665,-0.158799,0.152972,0.0270097,0.157182,-0.247431,-0.226645,0.818095,0.010194,-1.92749,1.4513,-1.92404,3.16652,7.34657,-23.7606,-0.271483,11.5889,0.0460866,11.8905,-22.1728,-2.05867,8.70124,0.115053,0.0773348,-0.0711506,0.196253,-2.13618,0.377704,0.343326,-0.159115,0.491867,0.0811222,0.147873,-0.599037,-0.539073,1.61003,0.0056343,0,0,0,0,0,0,0,-1.74603,-33.7724,-3.161,26.7288,3.13446,2.66137,0.0907442,
0.0857524,-0.068032,0.204945,-2.14902,0.365059,0.381668,-0.158732,0.148447,0.0268098,0.152551,-0.24093,-0.21298,0.779915,0.00985121,-2.82815,-0.124963,-2.89438,4.06312,8.54087,-23.8623,-0.214225,11.404,0.0705268,11.6995,-21.6539,-1.92885,8.18101,0.111456,0.0773348,-0.0711506,0.196253,-2.13618,0.377704,0.343326,-0.159115,0.491867,0.0811222,0.147873,-0.599037,-0.539073,1.61003,0.0056343,0,0,0,0,0,0,0,-1.74603,-33.7724,-3.161,26.7288,3.13446,2.66137,0.0907442,
0.0867327,-0.0678836,0.205952,-2.15065,0.363912,0.386417,-0.158665,0.143266,0.0251567,0.147208,-0.23362,-0.199042,0.742676,0.00955391,-3.23803,-1.03317,-3.33919,4.56898,8.71074,-23.2749,-0.185816,11.3578,-0.0158216,11.6529,-21.0848,-1.66502,7.52437,0.107415,0.0896924,-0.0699876,0.205997,-2.15725,0.363332,0.398128,-0.15905,0.0121574,-0.0403545,0.669869,-0.583624,-0.392003,1.5506,0.00385368,-59.9637,-15.1846,65.2494,1.92657,18.3838,-7.4289,-0.222578,0.793033,-29.9043,-0.0625476,24.4119,2.90832,1.68725,-0.050247,
0.0876641,-0.0677789,0.206908,-2.15221,0.362854,0.390923,-0.158599,0.137896,0.022743,0.141653,-0.225909,-0.185693,0.706778,0.00927832,-3.35607,-1.50854,-3.47209,4.81892,8.34366,-22.4357,-0.172243,11.1547,0.00571639,11.4434,-20.5622,-1.56059,7.06676,0.103703,0.0896924,-0.0699876,0.205997,-2.15725,0.363332,0.398128,-0.15905,0.0121574,-0.0403545,0.669869,-0.583624,-0.392003,1.5506,0.00385368,0,0,0,0,0,0,0,0.793033,-29.9043,-0.0625476,24.4119,2.90832,1.68725,-0.050247,
0.0983595,-0.0687684,0.215013,-2.16777,0.354962,0.428339,-0.158767,0.136026,0.0197769,0.139678,-0.216019,-0.166998,0.656627,0.00876332,-1.16901,-1.85383,-1.2345,6.18156,11.6842,-31.3449,-0.321872,10.73,0.0447977,11.0057,-19.5117,-1.38978,6.23943,0.0962783,0.0896924,-0.0699876,0.205997,-2.15725,0.363332,0.398128,-0.15905,0.0121574,-0.0403545,0.669869,-0.583624,-0.392003,1.5506,0.00385368,0,0,0,0,0,0,0,0.793033,-29.9043,-0.0625476,24.4119,2.90832,1.68725,-0.050247,
0.0993132,-0.0687316,0.21599,-2.16912,0.354252,0.431768,-0.158713,0.132662,0.0167408,0.136167,-0.206604,-0.151344,0.611038,0.00835909,-2.10214,-1.89754,-2.19448,5.88414,9.78343,-28.4931,-0.252645,10.5111,0.0623858,10.7802,-18.9836,-1.32376,5.86743,0.092632,0.0896924,-0.0699876,0.205997,-2.15725,0.363332,0.398128,-0.15905,0.0121574,-0.0403545,0.669869,-0.583624,-0.392003,1.5506,0.00385368,0,0,0,0,0,0,0,0.793033,-29.9043,-0.0625476,24.4119,2.90832,1.68725,-0.050247,
0.100208,-0.0687127,0.216906,-2.17042,0.353543,0.435009,-0.15866,0.128509,0.013864,0.131851,-0.197687,-0.138798,0.569864,0.00802316,-2.59553,-1.79801,-2.69745,5.57336,7.84125,-25.7336,-0.209956,10.2915,-0.112839,10.5309,-18.3695,-1.10547,5.39569,0.0884713,0.1026,-0.0677673,0.212473,-2.17554,0.3522,0.44534,-0.15905,0.442177,0.0451753,0.086921,-0.497751,-0.2649,1.25144,-0.00222469,53.7524,10.6912,-72.8684,10.7341,15.8879,-37.3942,-0.759796,0.0551182,-32.6973,-0.137926,29.6448,2.43225,2.54876,0.0440523,
0.101056,-0.0687061,0.217775,-2.17166,0.352819,0.438081,-0.158607,0.124009,0.0112581,0.127187,-0.189248,-0.129134,0.532685,0.00773267,-2.81246,-1.62867,-2.91475,5.27405,6.04029,-23.2365,-0.181558,10.0675,-0.0978656,10.3006,-17.8374,-1.06622,5.07484,0.0850488,0.1026,-0.0677673,0.212473,-2.17554,0.3522,0.44534,-0.15905,0.442177,0.0451753,0.086921,-0.497751,-0.2649,1.25144,-0.00222469,0,0,0,0,0,0,0,0.0551182,-32.6973,-0.137926,29.6448,2.43225,2.54876,0.0440523,
0.108796,-0.0658392,0.218828,-2.18386,0.346379,0.465575,-0.158832,0.123036,0.0133704,0.126163,-0.185059,-0.122499,0.49892,0.00738945,-0.608257,1.32014,-0.640009,2.61862,4.14677,-21.1037,-0.214511,9.84238,-0.0843004,10.0692,-17.3034,-1.04102,4.77741,0.0818076,0.1026,-0.0677673,0.212473,-2.17554,0.3522,0.44534,-0.15905,0.442177,0.0451753,0.086921,-0.497751,-0.2649,1.25144,-0.00222469,0,0,0,0,0,0,0,0.0551182,-32.6973,-0.137926,29.6448,2.43225,2.54876,0.0440523,
0.10968,-0.0657185,0.219733,-2.18514,0.345637,0.468284,-0.158783,0.12054,0.0137146,0.123552,-0.179897,-0.116567,0.466879,0.00713634,-1.56011,0.215152,-1.63189,3.22602,3.70725,-20.0251,-0.158196,9.61672,-0.0718347,9.83732,-16.767,-1.02815,4.50307,0.0786862,0.1026,-0.0677673,0.212473,-2.17554,0.3522,0.44534,-0.15905,0.442177,0.0451753,0.086921,-0.497751,-0.2649,1.25144,-0.00222469,0,0,0,0,0,0,0,0.0551182,-32.6973,-0.137926,29.6448,2.43225,2.54876,0.0440523,
0.110512,-0.0656348,0.220583,-2.18634,0.344888,0.470838,-0.158734,0.117217,0.0130649,0.120086,-0.174143,-0.111978,0.437345,0.00693405,-2.07712,-0.406097,-2.16644,3.59631,2.86819,-18.4593,-0.126427,9.42681,-0.250047,9.63763,-16.1309,-0.908442,4.15477,0.0753637,0.105746,-0.065519,0.226357,-2.19048,0.34499,0.48263,-0.159045,0.300495,0.105435,0.163634,-0.405165,-0.155848,0.948571,9.22455e-05,-17.7102,7.53244,9.58913,11.5733,13.6314,-37.8589,0.289616,-0.95654,-35.9703,-2.3358,29.1449,1.39404,1.93902,-0.0026396,
0.1113,-0.0655768,0.221389,-2.18749,0.344116,0.47326,-0.158685,0.113496,0.0119014,0.116214,-0.168041,-0.108873,0.410418,0.00676052,-2.32542,-0.727155,-2.41998,3.81359,1.94073,-16.8292,-0.10846,9.2028,-0.239971,9.40755,-15.5899,-0.919912,3.92148,0.0726095,0.105746,-0.065519,0.226357,-2.19048,0.34499,0.48263,-0.159045,0.300495,0.105435,0.163634,-0.405165,-0.155848,0.948571,9.22455e-05,0,0,0,0,0,0,0,-0.95654,-35.9703,-2.3358,29.1449,1.39404,1.93902,-0.0026396,
0.112082,-0.0629514,0.232862,-2.19886,0.339406,0.498378,-0.158804,0.110757,0.0133578,0.11336,-0.16163,-0.107574,0.37292,0.00651179,-1.71155,0.910257,-1.78359,4.00668,0.811796,-23.4359,-0.155454,8.76278,-0.223222,8.95555,-14.5008,-0.973637,3.50652,0.0677488,0.105746,-0.065519,0.226357,-2.19048,0.34499,0.48263,-0.159045,0.300495,0.105435,0.163634,-0.405165,-0.155848,0.948571,9.22455e-05,0,0,0,0,0,0,0,-0.95654,-35.9703,-2.3358,29.1449,1.39404,1.93902,-0.0026396,
0.112832,-0.062841,0.233628,-2.19988,0.338567,0.50006,-0.158759,0.10736,0.0134456,0.109825,-0.154745,-0.10705,0.340397,0.00632265,-2.12317,0.0548703,-2.20947,4.3031,0.327395,-20.3273,-0.118214,8.54914,-0.216328,8.73591,-13.9528,-1.01191,3.32049,0.0656329,0.105746,-0.065519,0.226357,-2.19048,0.34499,0.48263,-0.159045,0.300495,0.105435,0.163634,-0.405165,-0.155848,0.948571,9.22455e-05,0,0,0,0,0,0,0,-0.95654,-35.9703,-2.3358,29.1449,1.39404,1.93902,-0.0026396,
0.113543,-0.0627611,0.234353,-2.20083,0.337711,0.501651,-0.158715,0.103664,0.0127538,0.105984,-0.147616,-0.107025,0.312095,0.0061722,-2.30993,-0.43241,-2.4004,4.45622,0.0160124,-17.6886,-0.0940337,8.45145,-0.376301,8.63542,-13.3384,-0.978927,3.0689,0.0636073,0.113789,-0.064473,0.234747,-2.20351,0.340942,0.509528,-0.159042,0.0439711,-0.0197411,0.431052,-0.369106,-0.087978,0.720174,0.000779,-32.0655,-15.647,33.4273,4.50731,8.48381,-28.5495,0.0858444,1.4278,-31.8245,0.211195,24.1382,0.660702,1.85296,-0.0301054,
0.119506,-0.0637787,0.240638,-2.2093,0.336996,0.519239,-0.158863,0.104642,0.0117572,0.106925,-0.140835,-0.102755,0.283092,0.00591521,0.611085,-0.622835,0.58816,4.23789,2.66872,-18.1266,-0.160617,8.06004,-0.365238,8.23145,-12.2333,-1.06075,2.73964,0.0605236,0.113789,-0.064473,0.234747,-2.20351,0.340942,0.509528,-0.159042,0.0439711,-0.0197411,0.431052,-0.369106,-0.087978,0.720174,0.000779,0,0,0,0,0,0,0,1.4278,-31.8245,0.211195,24.1382,0.660702,1.85296,-0.0301054,
0.1203,-0.0637388,0.241447,-2.21015,0.336306,0.520468,-0.158822,0.103557,0.0104034,0.105764,-0.133881,-0.0994416,0.257206,0.00575898,-0.678375,-0.846122,-0.726095,4.34611,2.07077,-16.1787,-0.097643,7.87889,-0.359776,8.04371,-11.6793,-1.09206,2.57828,0.0593396,0.113789,-0.064473,0.234747,-2.20351,0.340942,0.509528,-0.159042,0.0439711,-0.0197411,0.431052,-0.369106,-0.087978,0.720174,0.000779,0,0,0,0,0,0,0,1.4278,-31.8245,0.211195,24.1382,0.660702,1.85296,-0.0301054,
0.121034,-0.0637141,0.242195,-2.21094,0.335624,0.521597,-0.158778,0.101217,0.00894068,0.103329,-0.126895,-0.0966195,0.233977,0.00569194,-1.46257,-0.914214,-1.52172,4.36649,1.76382,-14.518,-0.0419004,7.7089,-0.353708,7.86691,-11.125,-1.11133,2.41477,0.0585441,0.113789,-0.064473,0.234747,-2.20351,0.340942,0.509528,-0.159042,0.0439711,-0.0197411,0.431052,-0.369106,-0.087978,0.720174,0.000779,0,0,0,0,0,0,0,1.4278,-31.8245,0.211195,24.1382,0.660702,1.85296,-0.0301054,
0.121721,-0.0637,0.242895,-2.21168,0.334972,0.522619,-0.158734,0.0981408,0.00750548,0.100151,-0.119956,-0.093598,0.212731,0.00566457,-1.92243,-0.897001,-1.98639,4.33702,1.88841,-13.2788,-0.0171027,7.5498,-0.346709,7.70059,-10.5717,-1.11168,2.24481,0.0579685,0.113789,-0.064473,0.234747,-2.20351,0.340942,0.509528,-0.159042,0.0439711,-0.0197411,0.431052,-0.369106,-0.087978,0.720174,0.000779,0,0,0,0,0,0,0,1.4278,-31.8245,0.211195,24.1382,0.660702,1.85296,-0.0301054,
0.128554,-0.0630734,0.24633,-2.21986,0.33385,0.532985,-0.158868,0.0989337,0.0085213,0.100926,-0.115566,-0.0873538,0.182692,0.00547728,0.495514,0.634891,0.484641,2.74349,3.90266,-18.7748,-0.117058,7.41849,-0.451986,7.56381,-9.9686,-1.03183,2.02192,0.0573938,0.123153,-0.0640671,0.240769,-2.21472,0.337278,0.528678,-0.159042,0.0291807,0.0119308,0.416531,-0.303641,-0.0978349,0.424673,0.000879566,-1.84879,3.95898,-1.81519,8.18316,-1.23212,-36.9377,0.0125707,-0.603451,-28.3055,-0.911547,26.8042,0.569149,2.87377,-0.0630644,
0.129298,-0.0630006,0.247088,-2.22058,0.333369,0.533435,-0.158828,0.0977519,0.00863644,0.099688,-0.110346,-0.0819235,0.157407,0.00537582,-0.738593,0.0719583,-0.773797,3.26261,3.3939,-15.8027,-0.0634157,7.2842,-0.441562,7.4225,-9.42048,-0.99581,1.83794,0.0574962,0.123153,-0.0640671,0.240769,-2.21472,0.337278,0.528678,-0.159042,0.0291807,0.0119308,0.416531,-0.303641,-0.0978349,0.424673,0.000879566,0,0,0,0,0,0,0,-0.603451,-28.3055,-0.911547,26.8042,0.569149,2.87377,-0.0630644,
0.129985,-0.0629478,0.247788,-2.22124,0.332904,0.533855,-0.158779,0.0953853,0.008228,0.0972463,-0.104711,-0.0771518,0.136431,0.00552326,-1.47914,-0.255271,-1.5261,3.52151,2.98234,-13.1102,0.0921531,7.15714,-0.428642,7.28774,-8.87763,-0.927993,1.64136,0.0592403,0.123153,-0.0640671,0.240769,-2.21472,0.337278,0.528678,-0.159042,0.0291807,0.0119308,0.416531,-0.303641,-0.0978349,0.424673,0.000879566,0,0,0,0,0,0,0,-0.603451,-28.3055,-0.911547,26.8042,0.569149,2.87377,-0.0630644,
0.130622,-0.0629094,0.248436,-2.22184,0.332508,0.534243,-0.158726,0.0922296,0.00754379,0.0939971,-0.0989116,-0.0716207,0.118848,0.00574066,-1.97228,-0.427634,-2.03073,3.62485,3.45695,-10.9896,0.135871,7.01204,-0.410431,7.13361,-8.34013,-0.823479,1.43193,0.0601323,0.123153,-0.0640671,0.240769,-2.21472,0.337278,0.528678,-0.159042,0.0291807,0.0119308,0.416531,-0.303641,-0.0978349,0.424673,0.000879566,0,0,0,0,0,0,0,-0.603451,-28.3055,-0.911547,26.8042,0.569149,2.87377,-0.0630644,
0.128352,-0.0629808,0.246123,-2.21912,0.334758,0.53076,-0.158873,0.0927932,0.00880566,0.0945271,-0.0951056,-0.0627253,0.0963597,0.00525382,0.352214,0.788671,0.331237,2.37876,5.55962,-14.055,-0.304269,6.79384,-0.47823,6.89716,-7.77082,-0.678181,1.21246,0.0565389,0.131282,-0.062453,0.246804,-2.2233,0.333389,0.539544,-0.159042,0.274677,0.0891413,0.124042,-0.204232,-0.11087,0.254082,0.00165552,30.6871,9.65131,-36.5611,12.4261,-1.62944,-21.3239,0.0969938,-0.857357,-33.3995,-0.911547,27.9507,0.837399,3.45055,-0.0703886,
0.129044,-0.0628956,0.246827,-2.21969,0.334342,0.530892,-0.158847,0.0915313,0.00917485,0.0932198,-0.0904458,-0.0605689,0.0803821,0.00485285,-0.788706,0.230743,-0.817019,2.91238,1.34776,-9.986,-0.250607,6.64501,-0.447724,6.74892,-7.25651,-0.680446,1.07646,0.0557795,0.131282,-0.062453,0.246804,-2.2233,0.333389,0.539544,-0.159042,0.274677,0.0891413,0.124042,-0.204232,-0.11087,0.254082,0.00165552,0,0,0,0,0,0,0,-0.857357,-33.3995,-0.911547,27.9507,0.837399,3.45055,-0.0703886,
0.129678,-0.0628314,0.247472,-2.22021,0.333871,0.531058,-0.158811,0.0890679,0.00894255,0.090691,-0.0853575,-0.0602275,0.0684454,0.00478594,-1.5396,-0.145187,-1.58054,3.18015,0.213324,-7.46045,-0.0418192,6.49985,-0.414806,6.60052,-6.77108,-0.626938,0.97505,0.0662391,0.131282,-0.062453,0.246804,-2.2233,0.333389,0.539544,-0.159042,0.274677,0.0891413,0.124042,-0.204232,-0.11087,0.254082,0.00165552,0,0,0,0,0,0,0,-0.857357,-33.3995,-0.911547,27.9507,0.837399,3.45055,-0.0703886,
0.130255,-0.0627842,0.248058,-2.22068,0.333506,0.531187,-0.158778,0.0856867,0.00833478,0.0872114,-0.0800235,-0.0573292,0.0579819,0.00465535,-2.11324,-0.379854,-2.17475,3.33377,1.81145,-6.53972,-0.0816184,6.19563,-0.371195,6.28043,-6.28576,-0.449792,0.860958,0.0718385,0.131282,-0.062453,0.246804,-2.2233,0.333389,0.539544,-0.159042,0.274677,0.0891413,0.124042,-0.204232,-0.11087,0.254082,0.00165552,0,0,0,0,0,0,0,-0.857357,-33.3995,-0.911547,27.9507,0.837399,3.45055,-0.0703886,
0.136404,-0.0606137,0.252019,-2.22721,0.330607,0.53913,-0.158919,0.0833255,0.00970776,0.0847652,-0.0745158,-0.0560016,0.0388339,0.0045023,-1.47573,0.858109,-1.52884,3.44233,0.829749,-11.9675,-0.0956577,5.64979,-0.539335,5.76716,-5.24907,-0.915311,1.00072,0.0322638,0.136936,-0.0619892,0.254493,-2.23071,0.33026,0.545655,-0.159046,0.359312,-0.0537033,-0.009683,-0.227595,-0.0701022,0.093179,0.00120598,10.5794,-17.8556,-16.7156,-2.92037,5.09604,-20.1129,-0.0561917,-2.68231,-30.9041,-3.26018,25.0864,0.984799,2.89391,-0.0365141,
0.136934,-0.0605228,0.252555,-2.22758,0.330372,0.538782,-0.158889,0.0799023,0.0100386,0.0812141,-0.0688006,-0.0506775,0.0223801,0.00434195,-2.13955,0.206768,-2.21946,3.57198,3.32756,-10.2836,-0.100218,5.63407,-0.519971,5.73142,-4.85998,-0.729374,0.813336,0.0484467,0.136936,-0.0619892,0.254493,-2.23071,0.33026,0.545655,-0.159046,0.359312,-0.0537033,-0.009683,-0.227595,-0.0701022,0.093179,0.00120598,0,0,0,0,0,0,0,-2.68231,-30.9041,-3.26018,25.0864,0.984799,2.89391,-0.0365141,
0.137416,-0.0604546,0.253042,-2.2279,0.330264,0.538408,-0.158862,0.0759727,0.00973741,0.077141,-0.0630945,-0.0432575,0.00854805,0.00415271,-2.456,-0.188235,-2.54569,3.5663,4.63752,-8.64504,-0.118274,5.37689,-0.475447,5.439,-4.46895,-0.335437,0.528992,0.0481242,0.136936,-0.0619892,0.254493,-2.23071,0.33026,0.545655,-0.159046,0.359312,-0.0537033,-0.009683,-0.227595,-0.0701022,0.093179,0.00120598,0,0,0,0,0,0,0,-2.68231,-30.9041,-3.26018,25.0864,0.984799,2.89391,-0.0365141,
0.14108,-0.0618727,0.258666,-2.23324,0.328794,0.542435,-0.158942,0.0757582,0.00882611,0.0768989,-0.0583749,-0.0365748,-0.00843949,0.00391215,-0.134019,-0.569562,-0.151311,2.94976,4.17665,-10.6172,-0.150353,5.0004,-0.423654,5.09574,-3.65008,-0.893358,0.448539,0.0293665,0.136936,-0.0619892,0.254493,-2.23071,0.33026,0.545655,-0.159046,0.359312,-0.0537033,-0.009683,-0.227595,-0.0701022,0.093179,0.00120598,0,0,0,0,0,0,0,-2.68231,-30.9041,-3.26018,25.0864,0.984799,2.89391,-0.0365141,
0.141611,-0.0618394,0.259204,-2.23352,0.328836,0.541867,-0.158913,0.0738922,0.00789209,0.0749721,-0.053619,-0.028228,-0.0209486,0.00384376,-1.1663,-0.583766,-1.20424,2.97245,5.21678,-7.81819,-0.0427416,4.91652,-0.479976,4.98892,-3.25546,-0.562029,0.251722,0.0443915,0.141409,-0.0615344,0.261771,-2.23643,0.327963,0.547431,-0.159043,0.297764,0.0244156,-0.00458666,-0.141524,-0.0903152,0.0268162,0.00144862,-7.6936,9.76486,0.637043,10.7589,-2.52663,-8.29535,0.0303296,-2.93621,-29.8052,-3.73625,26.8042,1.19171,3.0468,-0.0630644,
0.142081,-0.0618145,0.259678,-2.23376,0.329128,0.541273,-0.158888,0.0708442,0.00693625,0.0718238,-0.0489191,-0.0152742,-0.0316072,0.00369662,-1.90499,-0.597399,-1.96768,2.93742,8.09615,-6.6616,-0.0919612,4.68077,-0.42062,4.71699,-2.91537,-0.0884254,-0.0174514,0.0459282,0.141409,-0.0615344,0.261771,-2.23643,0.327963,0.547431,-0.159043,0.297764,0.0244156,-0.00458666,-0.141524,-0.0903152,0.0268162,0.00144862,0,0,0,0,0,0,0,-2.93621,-29.8052,-3.73625,26.8042,1.19171,3.0468,-0.0630644,
0.1425,-0.061798,0.260101,-2.23397,0.329612,0.54064,-0.158871,0.0671569,0.00596061,0.0680399,-0.0443136,-0.000112912,-0.0411146,0.00339322,-2.30451,-0.609775,-2.36496,2.87844,9.47578,-5.94214,-0.189625,4.50232,-0.427561,4.53243,-2.60681,0.0284953,-0.102409,0.0405461,0.141409,-0.0615344,0.261771,-2.23643,0.327963,0.547431,-0.159043,0.297764,0.0244156,-0.00458666,-0.141524,-0.0903152,0.0268162,0.00144862,0,0,0,0,0,0,0,-2.93621,-29.8052,-3.73625,26.8042,1.19171,3.0468,-0.0630644,
0.144776,-0.0607749,0.265166,-2.23842,0.328468,0.543369,-0.158963,0.0657554,0.00678542,0.0666205,-0.0414684,0.0105148,-0.0552224,0.00318862,-0.875972,0.515505,-0.887113,1.77826,6.64232,-8.81741,-0.127878,4.30097,-0.408377,4.36332,-2.28271,-0.374306,0.0798557,0.0340704,0.141409,-0.0615344,0.261771,-2.23643,0.327963,0.547431,-0.159043,0.297764,0.0244156,-0.00458666,-0.141524,-0.0903152,0.0268162,0.00144862,0,0,0,0,0,0,0,-2.93621,-29.8052,-3.73625,26.8042,1.19171,3.0468,-0.0630644,
0.1452,-0.0607168,0.265596,-2.23861,0.32904,0.54246,-0.158942,0.0632062,0.00688072,0.0640319,-0.0381549,0.0226991,-0.0668975,0.00308113,-1.59325,0.0595674,-1.61787,2.07091,7.61518,-7.2969,-0.0671774,4.19273,-0.436467,4.2147,-1.98946,0.0927545,-0.111628,0.0444184,0.146193,-0.0598934,0.266893,-2.24009,0.326271,0.547337,-0.159047,0.198056,0.102075,0.0521173,-0.0590489,-0.0297909,-0.0234877,6.92442e-05,-12.4635,9.70744,7.08799,10.3094,7.56554,-6.28799,-0.172422,-1.74603,-32.8719,-2.78807,28.5458,1.35742,3.50365,-0.0365141,
0.14557,-0.0606757,0.265971,-2.23878,0.329888,0.541481,-0.158928,0.0598099,0.00653217,0.060595,-0.0345899,0.0393663,-0.0780006,0.00281543,-2.12269,-0.217846,-2.14807,2.22816,10.417,-6.93945,-0.166066,3.95569,-0.396852,3.94225,-1.75923,0.635703,-0.382339,0.042462,0.146193,-0.0598934,0.266893,-2.24009,0.326271,0.547337,-0.159047,0.198056,0.102075,0.0521173,-0.0590489,-0.0297909,-0.0234877,6.92442e-05,0,0,0,0,0,0,0,-1.74603,-32.8719,-2.78807,28.5458,1.35742,3.50365,-0.0365141,
0.145899,-0.0606454,0.266307,-2.23891,0.330911,0.540453,-0.158917,0.0560853,0.00598446,0.0568879,-0.0309068,0.0570677,-0.0881,0.00252929,-2.32788,-0.342321,-2.31694,2.3019,11.0633,-6.31214,-0.178838,3.74045,-0.428532,3.73036,-1.5476,0.820332,-0.52636,0.0303394,0.146193,-0.0598934,0.266893,-2.24009,0.326271,0.547337,-0.159047,0.198056,0.102075,0.0521173,-0.0590489,-0.0297909,-0.0234877,6.92442e-05,0,0,0,0,0,0,0,-1.74603,-32.8719,-2.78807,28.5458,1.35742,3.50365,-0.0365141,
0.148946,-0.0585014,0.269686,-2.24153,0.329197,0.542343,-0.159006,0.0545929,0.0078677,0.0553498,-0.0291508,0.0665038,-0.0992072,0.0023317,-0.932726,1.17702,-0.961321,1.09749,5.89759,-6.94202,-0.123494,3.54237,-0.407714,3.571,-1.28113,0.165812,-0.375341,0.0272054,0.146193,-0.0598934,0.266893,-2.24009,0.326271,0.547337,-0.159047,0.198056,0.102075,0.0521173,-0.0590489,-0.0297909,-0.0234877,6.92442e-05,0,0,0,0,0,0,0,-1.74603,-32.8719,-2.78807,28.5458,1.35742,3.50365,-0.0365141,
0.149291,-0.0584084,0.270032,-2.24168,0.330174,0.541216,-0.158997,0.0523106,0.00861997,0.0529208,-0.0269493,0.0776338,-0.107537,0.00210755,-1.42646,0.470172,-1.51812,1.37598,6.95622,-5.20607,-0.140092,3.46532,-0.429091,3.47142,-1.04768,0.665848,-0.625289,0.0347822,0.150347,-0.0591508,0.271116,-2.24273,0.326526,0.545873,-0.159054,0.177096,-0.0388633,0.0413765,-0.0932404,0.0337568,-0.0746654,-0.000307073,-2.62005,-17.6173,-1.3426,-4.27393,7.94347,-6.39722,-0.0470396,-1.23822,-31.527,-2.41118,25.257,1.30157,2.53594,-0.00996382,
0.149598,-0.0583332,0.270335,-2.24179,0.331397,0.540093,-0.158993,0.049515,0.00877479,0.0499068,-0.0244787,0.0926806,-0.114109,0.00178329,-1.74724,0.0967595,-1.88374,1.54414,9.40427,-4.10735,-0.202661,3.20934,-0.353002,3.20357,-0.851096,1.2273,-0.926789,0.028642,0.150347,-0.0591508,0.271116,-2.24273,0.326526,0.545873,-0.159054,0.177096,-0.0388633,0.0413765,-0.0932404,0.0337568,-0.0746654,-0.000307073,0,0,0,0,0,0,0,-1.23822,-31.527,-2.41118,25.257,1.30157,2.53594,-0.00996382,
0.149877,-0.0582688,0.270606,-2.24189,0.332797,0.539006,-0.158991,0.0466059,0.00863063,0.0467222,-0.0219051,0.109155,-0.118482,0.00147063,-1.81817,-0.0900981,-1.99034,1.6085,10.2964,-2.73358,-0.195412,3.05614,-0.300234,3.09394,-0.663038,1.32368,-1.0129,0.0211894,0.150347,-0.0591508,0.271116,-2.24273,0.326526,0.545873,-0.159054,0.177096,-0.0388633,0.0413765,-0.0932404,0.0337568,-0.0746654,-0.000307073,0,0,0,0,0,0,0,-1.23822,-31.527,-2.41118,25.257,1.30157,2.53594,-0.00996382,
0.153294,-0.0591971,0.273993,-2.2435,0.328987,0.541014,-0.159044,0.0456436,0.0076723,0.0451592,-0.0185836,0.101464,-0.108469,0.00112956,-0.601452,-0.598954,-0.97691,2.0759,-4.80679,6.25844,-0.213172,2.87396,-0.221419,2.84601,-0.325169,-0.0377309,-0.32128,0.0196409,0.150347,-0.0591508,0.271116,-2.24273,0.326526,0.545873,-0.159054,0.177096,-0.0388633,0.0413765,-0.0932404,0.0337568,-0.0746654,-0.000307073,0,0,0,0,0,0,0,-1.23822,-31.527,-2.41118,25.257,1.30157,2.53594,-0.00996382,
0.153602,-0.0591688,0.274268,-2.24353,0.329484,0.540584,-0.159041,0.0442127,0.00684482,0.0429903,-0.0155921,0.0936102,-0.0975112,0.000982658,-0.894307,-0.517175,-1.35555,1.86969,-4.90855,6.84858,-0.091812,2.75911,-0.0831184,2.67877,-0.169424,0.44619,-0.441544,0.0146566,0.150347,-0.0591508,0.271116,-2.24273,0.326526,0.545873,-0.159054,0.177096,-0.0388633,0.0413765,-0.0932404,0.0337568,-0.0746654,-0.000307073,0,0,0,0,0,0,0,-1.23822,-31.527,-2.41118,25.257,1.30157,2.53594,-0.00996382,
0.153885,-0.0591441,0.274531,-2.24354,0.329702,0.540316,-0.159039,0.0424484,0.00609368,0.0409644,-0.0128279,0.0803272,-0.0847037,0.000827196,-1.10273,-0.469466,-1.26619,1.72763,-8.30187,8.00469,-0.0971643,2.66437,-0.083075,2.54842,-0.0062994,0.578317,-0.361406,0.00927675,0.154072,-0.0586989,0.274395,-2.24454,0.329349,0.542198,-0.159054,0.176085,0.0203334,0.000909946,-0.0409449,0.145377,-0.132506,0.00147646,-0.126305,7.39958,-5.05832,6.53693,13.9525,-7.23013,0.222942,-1.71826,-29.1783,-2.51036,26.7764,1.58264,2.31713,-0.050247,
0.154145,-0.0591276,0.274773,-2.24355,0.329835,0.540149,-0.159044,0.0404454,0.00528788,0.0388316,-0.0104002,0.06759,-0.0719535,0.000546163,-1.25184,-0.503623,-1.33297,1.51729,-7.96075,7.96888,-0.175646,2.58584,-0.0272196,2.40564,0.146633,0.296986,-0.116334,0.00591942,0.154072,-0.0586989,0.274395,-2.24454,0.329349,0.542198,-0.159054,0.176085,0.0203334,0.000909946,-0.0409449,0.145377,-0.132506,0.00147646,0,0,0,0,0,0,0,-1.71826,-29.1783,-2.51036,26.7764,1.58264,2.31713,-0.050247,
0.156771,-0.0582113,0.276979,-2.2451,0.320729,0.542775,-0.158969,0.0428701,0.00540961,0.041295,-0.00984168,-0.0114419,-0.0402065,0.000449041,1.51542,0.0760816,1.53962,0.349093,-49.395,19.8419,-0.0607013,2.92023,-0.3173,2.72744,0.401644,-3.28028,1.53005,0.010516,0.154072,-0.0586989,0.274395,-2.24454,0.329349,0.542198,-0.159054,0.176085,0.0203334,0.000909946,-0.0409449,0.145377,-0.132506,0.00147646,0,0,0,0,0,0,0,-1.71826,-29.1783,-2.51036,26.7764,1.58264,2.31713,-0.050247,
0.157144,-0.058183,0.277343,-2.24514,0.318045,0.543606,-0.158972,0.0436254,0.00503515,0.0421339,-0.00891613,-0.0762626,-0.0113917,0.00028294,0.472086,-0.234037,0.524291,0.578467,-40.5129,18.0092,-0.103813,2.81911,-0.2616,2.58074,0.538996,-3.11588,1.48284,0.00756245,0.154072,-0.0586989,0.274395,-2.24454,0.329349,0.542198,-0.159054,0.176085,0.0203334,0.000909946,-0.0409449,0.145377,-0.132506,0.00147646,0,0,0,0,0,0,0,-1.71826,-29.1783,-2.51036,26.7764,1.58264,2.31713,-0.050247,
0.157477,-0.0581713,0.277669,-2.24517,0.315395,0.544521,-0.158977,0.043222,0.00432025,0.0418478,-0.00772222,-0.12725,0.0137618,0.000117275,-0.252118,-0.446816,-0.178784,0.746194,-31.867,15.721,-0.103541,2.7879,-0.430507,2.44824,0.627406,-3.37527,1.66336,0.00910995,0.157597,-0.057294,0.276872,-2.24515,0.332335,0.538505,-0.159061,0.166152,0.0818031,-0.0162721,0.00509815,0.105217,-0.0694724,0.00030336,-1.24167,7.68371,-2.14776,5.75538,-5.02003,7.87926,-0.146638,-2.37683,-31.7769,-2.93486,25.8798,1.20453,2.37664,-0.0227812,
0.157776,-0.0581751,0.277963,-2.24517,0.312847,0.54548,-0.158981,0.0420412,0.00336148,0.040819,-0.00635362,-0.165508,0.0349758,-2.1323e-05,-0.738035,-0.599232,-0.643009,0.855375,-23.9112,13.2587,-0.0866236,2.58846,-0.518983,2.41311,0.723553,-4.00945,1.93503,0.000358106,0.157597,-0.057294,0.276872,-2.24515,0.332335,0.538505,-0.159061,0.166152,0.0818031,-0.0162721,0.00509815,0.105217,-0.0694724,0.00030336,0,0,0,0,0,0,0,-2.37683,-31.7769,-2.93486,25.8798,1.20453,2.37664,-0.0227812,
0.16084,-0.0564066,0.280091,-2.24556,0.304312,0.548325,-0.158703,0.0475597,0.00430682,0.0467033,-0.00602145,-0.295507,0.0900244,0.000973618,3.4491,0.590839,3.67765,0.207606,-81.2493,34.4054,0.621838,3.90434,-2.26569,4.0368,1.21079,-10.6067,5.2477,0.0433149,0.157597,-0.057294,0.276872,-2.24515,0.332335,0.538505,-0.159061,0.166152,0.0818031,-0.0162721,0.00509815,0.105217,-0.0694724,0.00030336,0,0,0,0,0,0,0,-2.37683,-31.7769,-2.93486,25.8798,1.20453,2.37664,-0.0227812,
0.161354,-0.0563504,0.280608,-2.24557,0.298094,0.550775,-0.15867,0.0509032,0.00484986,0.0502749,-0.00493528,-0.391856,0.133267,0.00159097,2.08966,0.339404,2.23227,0.678855,-60.2184,27.0268,0.385843,4.31888,-1.81645,4.42103,1.22324,-10.06,4.91594,0.0494269,0.157597,-0.057294,0.276872,-2.24515,0.332335,0.538505,-0.159061,0.166152,0.0818031,-0.0162721,0.00509815,0.105217,-0.0694724,0.00030336,0,0,0,0,0,0,0,-2.37683,-31.7769,-2.93486,25.8798,1.20453,2.37664,-0.0227812,
0.161835,-0.056292,0.281087,-2.24554,0.292325,0.553137,-0.158645,0.0527424,0.00534142,0.0521975,-0.003337,-0.457726,0.165658,0.00191879,1.14948,0.307225,1.20162,0.998927,-41.1686,20.2444,0.204891,4.67629,-1.3967,4.7574,1.21588,-9.46324,4.53686,0.0534208,0.160983,-0.0570327,0.279458,-2.24575,0.326176,0.538975,-0.159063,0.121338,-0.0340512,0.0581372,-0.034091,-0.236428,0.0684394,-0.000456805,-5.60171,-14.4818,9.30116,-4.89864,-42.7056,17.239,-0.0950206,-2.6585,-29.8528,-2.68492,26.7288,0.379635,3.45788,-0.0163725,
0.162292,-0.0562232,0.281537,-2.24549,0.28709,0.55538,-0.158626,0.0536178,0.00599256,0.0530214,-0.00142846,-0.497056,0.188606,0.00200128,0.547176,0.406961,0.514951,1.19284,-24.5814,14.3426,0.0515544,4.9524,-0.974635,5.0074,1.21689,-8.82119,4.16327,0.0550983,0.160983,-0.0570327,0.279458,-2.24575,0.326176,0.538975,-0.159063,0.121338,-0.0340512,0.0581372,-0.034091,-0.236428,0.0684394,-0.000456805,0,0,0,0,0,0,0,-2.6585,-29.8528,-2.68492,26.7288,0.379635,3.45788,-0.0163725,
0.164863,-0.057682,0.283368,-2.24597,0.291058,0.553484,-0.15864,0.0598998,0.00177919,0.0600118,-0.000849363,-0.575543,0.232406,0.00269595,3.92626,-2.63336,4.36901,0.361936,-49.0541,27.3749,0.434169,6.0159,-3.1974,6.15914,1.27533,-12.5952,6.64051,0.0792461,0.160983,-0.0570327,0.279458,-2.24575,0.326176,0.538975,-0.159063,0.121338,-0.0340512,0.0581372,-0.034091,-0.236428,0.0684394,-0.000456805,0,0,0,0,0,0,0,-2.6585,-29.8528,-2.68492,26.7288,0.379635,3.45788,-0.0163725,
0.165501,-0.0578052,0.284033,-2.24593,0.284527,0.556598,-0.158607,0.0638727,-0.00165827,0.0646365,0.000291884,-0.623694,0.263767,0.00298635,2.48306,-2.14841,2.8904,0.713279,-30.0943,19.6004,0.181503,6.52842,-2.77407,6.66586,1.34121,-11.5145,6.08194,0.0814033,0.160983,-0.0570327,0.279458,-2.24575,0.326176,0.538975,-0.159063,0.121338,-0.0340512,0.0581372,-0.034091,-0.236428,0.0684394,-0.000456805,0,0,0,0,0,0,0,-2.6585,-29.8528,-2.68492,26.7288,0.379635,3.45788,-0.0163725,
0.166109,-0.0579321,0.284671,-2.24587,0.278617,0.559522,-0.15858,0.0662831,-0.00449719,0.0676451,0.00178566,-0.646709,0.284125,0.00305957,1.50649,-1.77433,1.88039,0.93361,-14.3843,12.7235,0.0457599,6.84545,-2.29833,6.99698,1.17237,-10.4348,5.36203,0.0814568,0.163724,-0.0561131,0.283454,-2.24606,0.297646,0.55027,-0.159071,0.0441694,0.0639824,0.182074,0.0231914,-0.78548,0.398869,-0.00108719,-9.64608,12.2542,15.4921,7.1603,-68.6315,41.3037,-0.0787977,0.66608,-31.8999,0.187391,26.9788,0.740353,3.16582,0.0641939,
0.167668,-0.0553892,0.287371,-2.2459,0.258947,0.568793,-0.158779,0.070442,-0.00225917,0.0713941,0.00315788,-0.693178,0.312436,0.00347435,2.59927,1.39876,2.34315,0.857641,-29.0431,17.695,0.259238,7.47238,-0.674309,7.38339,1.45006,-12.3488,6.29693,0.0801822,0.163724,-0.0561131,0.283454,-2.24606,0.297646,0.55027,-0.159071,0.0441694,0.0639824,0.182074,0.0231914,-0.78548,0.398869,-0.00108719,0,0,0,0,0,0,0,0.66608,-31.8999,0.187391,26.9788,0.740353,3.16582,0.0641939,
0.168332,-0.0553513,0.288029,-2.24581,0.252505,0.571941,-0.158743,0.0729442,-0.000862132,0.0735654,0.00490142,-0.715594,0.32866,0.00369892,1.56393,0.873151,1.35707,1.08971,-14.0103,10.1397,0.140355,7.9774,-0.432615,7.85436,1.46417,-11.0526,5.61598,0.0759124,0.163724,-0.0561131,0.283454,-2.24606,0.297646,0.55027,-0.159071,0.0441694,0.0639824,0.182074,0.0231914,-0.78548,0.398869,-0.00108719,0,0,0,0,0,0,0,0.66608,-31.8999,0.187391,26.9788,0.740353,3.16582,0.0641939,
0.168973,-0.0553293,0.28866,-2.2457,0.246552,0.574858,-0.158708,0.0743792,-0.000139004,0.0746401,0.00665722,-0.721292,0.335852,0.00382837,0.896835,0.451955,0.671676,1.09738,-3.56093,4.49475,0.0809065,8.33398,-0.25307,8.19256,1.46615,-9.90732,5.01613,0.0720734,0.163724,-0.0561131,0.283454,-2.24606,0.297646,0.55027,-0.159071,0.0441694,0.0639824,0.182074,0.0231914,-0.78548,0.398869,-0.00108719,0,0,0,0,0,0,0,0.66608,-31.8999,0.187391,26.9788,0.740353,3.16582,0.0641939,
0.169598,-0.0553141,0.289277,-2.24557,0.240864,0.577564,-0.158681,0.0751473,0.000269288,0.0751469,0.00857795,-0.719239,0.33634,0.00373226,0.480062,0.255182,0.31676,1.20045,1.28307,0.305294,-0.0600669,8.39939,0.12695,8.2674,1.1996,-8.9295,4.30297,0.0696709,0.167311,-0.0559457,0.288545,-2.24645,0.260639,0.569164,-0.15906,0.0486614,-0.0292133,0.244901,-0.017324,-1.12862,0.635923,-0.000855234,0.561497,-11.6495,7.85335,-5.06442,-42.8928,29.6316,0.0289941,2.11017,-31.2532,1.3379,26.8518,0.208431,3.92113,0.0376436,
0.171331,-0.0563724,0.292567,-2.24566,0.229127,0.585579,-0.158966,0.0771297,-0.00120119,0.0769464,0.0115882,-0.70706,0.334135,0.00334039,1.239,-0.919049,1.12469,1.88143,7.61166,-1.37823,-0.244921,8.44155,0.268786,8.31485,1.20234,-8.0358,3.82031,0.0706747,0.167311,-0.0559457,0.288545,-2.24645,0.260639,0.569164,-0.15906,0.0486614,-0.0292133,0.244901,-0.017324,-1.12862,0.635923,-0.000855234,0,0,0,0,0,0,0,2.11017,-31.2532,1.3379,26.8518,0.208431,3.92113,0.0376436,
0.171979,-0.0564204,0.293207,-2.24547,0.224269,0.587915,-0.158955,0.0779004,-0.00216155,0.0775614,0.0139927,-0.68709,0.325696,0.00294777,0.481705,-0.600223,0.384319,1.50276,12.4809,-5.27418,-0.245384,8.31223,0.396334,8.18978,1.21571,-7.27723,3.37693,0.0654765,0.167311,-0.0559457,0.288545,-2.24645,0.260639,0.569164,-0.15906,0.0486614,-0.0292133,0.244901,-0.017324,-1.12862,0.635923,-0.000855234,0,0,0,0,0,0,0,2.11017,-31.2532,1.3379,26.8518,0.208431,3.92113,0.0376436,
0.172602,-0.056461,0.293823,-2.24529,0.2198,0.590001,-0.158946,0.0779018,-0.00274329,0.0774325,0.0158697,-0.661388,0.312707,0.00257531,0.000854422,-0.363591,-0.0805047,1.17318,16.0637,-8.11846,-0.232788,8.12483,0.341645,7.96969,1.12505,-6.84051,3.08723,0.0598318,0.167311,-0.0559457,0.288545,-2.24645,0.260639,0.569164,-0.15906,0.0486614,-0.0292133,0.244901,-0.017324,-1.12862,0.635923,-0.000855234,0,0,0,0,0,0,0,2.11017,-31.2532,1.3379,26.8518,0.208431,3.92113,0.0376436,
0.173207,-0.0564953,0.294419,-2.2451,0.215697,0.591854,-0.15894,0.0774305,-0.00305194,0.0768545,0.0172975,-0.631693,0.296499,0.0022231,-0.294533,-0.192906,-0.361298,0.892334,18.5594,-10.1299,-0.220132,7.84978,0.408981,7.72872,1.21899,-6.73739,2.78495,0.0426638,0.172417,-0.0553104,0.294302,-2.24619,0.22267,0.589937,-0.159057,0.0859943,0.0436885,0.257684,0.0312954,-0.982575,0.560188,-0.000724392,4.66662,9.11273,1.59779,6.07743,18.256,-9.46687,0.0163552,2.03479,-30.1781,0.814222,25.4077,0.886837,2.92687,0.017502,
0.176684,-0.0551308,0.298577,-2.24529,0.19893,0.602186,-0.15911,0.0792064,-0.00295714,0.078554,0.0184054,-0.597574,0.278789,0.00177942,1.10994,0.0592506,1.0622,0.692462,21.3245,-11.0686,-0.2773,7.78383,0.499737,7.6557,1.21736,-6.13885,2.41926,0.0346309,0.172417,-0.0553104,0.294302,-2.24619,0.22267,0.589937,-0.159057,0.0859943,0.0436885,0.257684,0.0312954,-0.982575,0.560188,-0.000724392,0,0,0,0,0,0,0,2.03479,-30.1781,0.814222,25.4077,0.886837,2.92687,0.017502,
0.177336,-0.0551541,0.299221,-2.24511,0.195568,0.603615,-0.15911,0.0796671,-0.00294729,0.0789385,0.0192058,-0.562095,0.258753,0.00141725,0.287893,0.00615715,0.240294,0.50022,22.1748,-12.5226,-0.226355,7.72306,0.563898,7.59362,1.21358,-5.62856,2.1042,0.0296507,0.172417,-0.0553104,0.294302,-2.24619,0.22267,0.589937,-0.159057,0.0859943,0.0436885,0.257684,0.0312954,-0.982575,0.560188,-0.000724392,0,0,0,0,0,0,0,2.03479,-30.1781,0.814222,25.4077,0.886837,2.92687,0.017502,
0.177959,-0.0551768,0.299835,-2.24494,0.192496,0.604845,-0.159112,0.0793111,-0.00292695,0.0785141,0.0197308,-0.526488,0.237733,0.00110369,-0.222462,0.0127142,-0.265232,0.328127,22.2541,-13.1377,-0.195975,7.64622,0.603526,7.51754,1.20675,-5.16822,1.8247,0.0254285,0.172417,-0.0553104,0.294302,-2.24619,0.22267,0.589937,-0.159057,0.0859943,0.0436885,0.257684,0.0312954,-0.982575,0.560188,-0.000724392,0,0,0,0,0,0,0,2.03479,-30.1781,0.814222,25.4077,0.886837,2.92687,0.017502,
0.176455,-0.0551917,0.298358,-2.24521,0.203771,0.599858,-0.159196,0.0796407,-0.00313672,0.0788116,0.0205804,-0.487544,0.218824,0.000653479,0.205972,-0.131108,0.185939,0.531031,24.34,-11.8181,-0.281383,7.51525,0.579241,7.38611,1.24395,-4.25157,1.2831,0.0176494,0.177741,-0.0546997,0.300304,-2.24565,0.191593,0.606589,-0.159056,0.0751217,-0.00385165,0.242787,0.00365703,-0.856266,0.444762,0.000446926,-1.35908,-5.94252,-1.86204,-3.4548,15.7886,-14.4282,0.146415,1.1977,-30.9755,-0.288683,25.856,1.82708,2.26403,-0.0301054,
0.177068,-0.0552242,0.298962,-2.24503,0.201378,0.600797,-0.159204,0.0790382,-0.00331986,0.0781654,0.0210472,-0.449858,0.198537,0.000318886,-0.376516,-0.114465,-0.403865,0.291759,23.5537,-12.6796,-0.20912,7.39748,0.581426,7.27026,1.23438,-3.89919,1.08225,0.0140704,0.177741,-0.0546997,0.300304,-2.24565,0.191593,0.606589,-0.159056,0.0751217,-0.00385165,0.242787,0.00365703,-0.856266,0.444762,0.000446926,0,0,0,0,0,0,0,1.1977,-30.9755,-0.288683,25.856,1.82708,2.26403,-0.0301054,
0.177655,-0.0552541,0.299541,-2.24485,0.199199,0.601573,-0.159213,0.0779101,-0.00340427,0.076994,0.0211989,-0.414355,0.178227,5.15894e-05,-0.705062,-0.052754,-0.732131,0.0948,22.1897,-12.6935,-0.167061,7.27366,0.577917,7.14821,1.22487,-3.57798,0.903602,0.0107329,0.177741,-0.0546997,0.300304,-2.24565,0.191593,0.606589,-0.159056,0.0751217,-0.00385165,0.242787,0.00365703,-0.856266,0.444762,0.000446926,0,0,0,0,0,0,0,1.1977,-30.9755,-0.288683,25.856,1.82708,2.26403,-0.0301054,
0.178222,-0.0552803,0.300099,-2.24469,0.197204,0.602216,-0.159221,0.0765047,-0.00337793,0.0755507,0.021106,-0.381354,0.158652,-0.000174321,-0.878394,0.0164658,-0.902081,-0.058042,20.6252,-12.2345,-0.141194,7.14671,0.570178,7.02291,1.21545,-3.28532,0.746519,0.00760681,0.177741,-0.0546997,0.300304,-2.24565,0.191593,0.606589,-0.159056,0.0751217,-0.00385165,0.242787,0.00365703,-0.856266,0.444762,0.000446926,0,0,0,0,0,0,0,1.1977,-30.9755,-0.288683,25.856,1.82708,2.26403,-0.0301054,
0.181546,-0.055026,0.304119,-2.2447,0.177274,0.613256,-0.159228,0.0766012,-0.00419676,0.0756359,0.0216707,-0.351323,0.14388,-0.000504015,0.0603176,-0.511772,0.0532666,0.352895,18.7697,-9.23211,-0.206058,7.0186,0.559475,6.89622,1.20628,-3.01973,0.608197,0.00475023,0.177741,-0.0546997,0.300304,-2.24565,0.191593,0.606589,-0.159056,0.0751217,-0.00385165,0.242787,0.00365703,-0.856266,0.444762,0.000446926,0,0,0,0,0,0,0,1.1977,-30.9755,-0.288683,25.856,1.82708,2.26403,-0.0301054,
0.18213,-0.0550769,0.304694,-2.24452,0.175618,0.613784,-0.159241,0.0758746,-0.00462987,0.0748869,0.0218378,-0.322443,0.128312,-0.000726423,-0.454152,-0.270693,-0.468097,0.104447,18.0498,-9.7304,-0.139005,6.97193,0.450565,6.84788,1.30559,-2.67971,0.479523,0.00189449,0.183098,-0.0544529,0.304902,-2.2448,0.16925,0.617693,-0.159064,0.0136478,0.0166766,0.27821,0.0380733,-0.558808,0.24861,-0.00121256,-7.68423,2.56603,4.42783,4.30204,37.1822,-24.5191,-0.207435,2.41565,-28.73,1.01259,24.7095,2.25464,1.88592,-0.0026396,
0.182689,-0.0551191,0.305245,-2.24435,0.174113,0.614196,-0.159254,0.0746839,-0.00476107,0.0736735,0.0216932,-0.29559,0.112957,-0.000890398,-0.744191,-0.0819977,-0.758394,-0.090356,16.7832,-9.59708,-0.102484,6.84531,0.436471,6.72233,1.29695,-2.46165,0.374746,-0.000478151,0.183098,-0.0544529,0.304902,-2.2448,0.16925,0.617693,-0.159064,0.0136478,0.0166766,0.27821,0.0380733,-0.558808,0.24861,-0.00121256,0,0,0,0,0,0,0,2.41565,-28.73,1.01259,24.7095,2.25464,1.88592,-0.0026396,
0.183229,-0.0551536,0.305776,-2.24419,0.172731,0.614516,-0.159266,0.0732489,-0.00467077,0.0722196,0.0213223,-0.271012,0.0983626,-0.00102146,-0.896843,0.0564322,-0.908695,-0.231828,15.3612,-9.12121,-0.0819145,6.7205,0.421676,6.59844,1.28855,-2.26425,0.284808,-0.00264362,0.183098,-0.0544529,0.304902,-2.2448,0.16925,0.617693,-0.159064,0.0136478,0.0166766,0.27821,0.0380733,-0.558808,0.24861,-0.00121256,0,0,0,0,0,0,0,2.41565,-28.73,1.01259,24.7095,2.25464,1.88592,-0.0026396,
0.186776,-0.0546001,0.308586,-2.24388,0.16003,0.621374,-0.159222,0.0736285,-0.00477776,0.0725956,0.0211639,-0.247632,0.0864173,-0.00122725,0.237226,-0.0668687,0.235029,-0.0989822,14.6124,-7.46583,-0.128616,6.59775,0.406716,6.47648,1.28052,-2.08606,0.207194,-0.00457597,0.183098,-0.0544529,0.304902,-2.2448,0.16925,0.617693,-0.159064,0.0136478,0.0166766,0.27821,0.0380733,-0.558808,0.24861,-0.00121256,0,0,0,0,0,0,0,2.41565,-28.73,1.01259,24.7095,2.25464,1.88592,-0.0026396,
0.187343,-0.0546359,0.309145,-2.24373,0.158908,0.621589,-0.159237,0.0730922,-0.00471782,0.0720483,0.0208,-0.226162,0.0744952,-0.00135988,-0.335189,0.0374652,-0.342106,-0.227476,13.419,-7.45129,-0.0828987,6.51541,0.348566,6.3961,1.29892,-1.87281,0.12155,-0.00634612,0.187497,-0.0542846,0.309241,-2.24347,0.154002,0.624442,-0.159066,0.0169673,-0.0125465,0.252508,0.0346043,-0.394984,0.143054,-0.000706993,0.414934,-3.65289,-3.21275,-0.43363,20.478,-13.1945,0.0631954,3.53046,-29.456,2.26228,24.6857,1.92505,2.20452,-0.0301054,
0.187885,-0.0546655,0.309678,-2.24358,0.157872,0.621732,-0.159252,0.0720085,-0.0045144,0.070953,0.0202889,-0.206831,0.0631932,-0.00145281,-0.677321,0.127137,-0.684536,-0.319409,12.082,-7.06373,-0.0580802,6.39719,0.334412,6.27843,1.29154,-1.72763,0.0654678,-0.00789707,0.187497,-0.0542846,0.309241,-2.24347,0.154002,0.624442,-0.159066,0.0169673,-0.0125465,0.252508,0.0346043,-0.394984,0.143054,-0.000706993,0,0,0,0,0,0,0,3.53046,-29.456,2.26228,24.6857,1.92505,2.20452,-0.0301054,
0.191018,-0.0547366,0.312757,-2.24254,0.147692,0.626423,-0.159215,0.0720521,-0.00513412,0.070997,0.0202779,-0.186646,0.0538956,-0.00160612,0.0272755,-0.387325,0.0274887,-0.00689107,12.6151,-5.81099,-0.0958168,6.16733,0.308728,6.0495,1.2777,-1.47846,-0.0206096,-0.0105235,0.187497,-0.0542846,0.309241,-2.24347,0.154002,0.624442,-0.159066,0.0169673,-0.0125465,0.252508,0.0346043,-0.394984,0.143054,-0.000706993,0,0,0,0,0,0,0,3.53046,-29.456,2.26228,24.6857,1.92505,2.20452,-0.0301054,
0.191562,-0.0547851,0.313293,-2.24239,0.14691,0.626496,-0.159231,0.0712403,-0.00531766,0.0701826,0.0199957,-0.168869,0.044941,-0.00169858,-0.507375,-0.114713,-0.50902,-0.176383,11.1107,-5.59666,-0.0577884,6.0555,0.297496,5.93804,1.27122,-1.3719,-0.0527189,-0.0116258,0.187497,-0.0542846,0.309241,-2.24347,0.154002,0.624442,-0.159066,0.0169673,-0.0125465,0.252508,0.0346043,-0.394984,0.143054,-0.000706993,0,0,0,0,0,0,0,3.53046,-29.456,2.26228,24.6857,1.92505,2.20452,-0.0301054,
0.192079,-0.054823,0.313801,-2.24225,0.146177,0.626523,-0.159247,0.0699204,-0.00520322,0.068861,0.019529,-0.153415,0.036634,-0.00175734,-0.824917,0.0715261,-0.825987,-0.291659,9.65877,-5.19183,-0.0367263,5.97445,0.232379,5.86351,1.28799,-1.24183,-0.0810034,-0.0125625,0.191439,-0.054515,0.313448,-2.2425,0.144576,0.627212,-0.159069,0.0473343,0.0010913,0.207249,0.0262841,-0.193659,0.0270469,-0.000829163,3.79587,1.70472,-5.65736,-1.04002,25.1656,-14.5009,-0.0152713,3.47889,-27.8056,2.28609,24.6103,0.788876,2.70806,-0.0429228,
0.192574,-0.0548524,0.314288,-2.24212,0.145485,0.626515,-0.159263,0.0683195,-0.0048959,0.0672604,0.0189485,-0.140025,0.0291096,-0.0017973,-1.00061,0.192073,-1.00035,-0.36282,8.3689,-4.70276,-0.0249725,5.86625,0.223558,5.75558,1.28206,-1.15531,-0.102089,-0.0134232,0.191439,-0.054515,0.313448,-2.2425,0.144576,0.627212,-0.159069,0.0473343,0.0010913,0.207249,0.0262841,-0.193659,0.0270469,-0.000829163,0,0,0,0,0,0,0,3.47889,-27.8056,2.28609,24.6103,0.788876,2.70806,-0.0429228,
0.19488,-0.0546674,0.316875,-2.24187,0.140957,0.627134,-0.159193,0.0687237,-0.00449837,0.0676841,0.0180635,-0.126241,0.0208064,-0.00188256,0.252663,0.248459,0.264783,-0.553141,8.61512,-5.18949,-0.0532856,5.75966,0.215957,5.64921,1.27642,-1.07756,-0.119192,-0.0141625,0.191439,-0.054515,0.313448,-2.2425,0.144576,0.627212,-0.159069,0.0473343,0.0010913,0.207249,0.0262841,-0.193659,0.0270469,-0.000829163,0,0,0,0,0,0,0,3.47889,-27.8056,2.28609,24.6103,0.788876,2.70806,-0.0429228,
0.195406,-0.0546854,0.317394,-2.24176,0.14041,0.627021,-0.15921,0.0681422,-0.00404836,0.067115,0.0172665,-0.114676,0.0138314,-0.00192978,-0.363453,0.281258,-0.355648,-0.498127,7.22802,-4.35943,-0.029518,5.65455,0.20958,5.54428,1.27096,-1.0074,-0.132151,-0.0148233,0.191439,-0.054515,0.313448,-2.2425,0.144576,0.627212,-0.159069,0.0473343,0.0010913,0.207249,0.0262841,-0.193659,0.0270469,-0.000829163,0,0,0,0,0,0,0,3.47889,-27.8056,2.28609,24.6103,0.788876,2.70806,-0.0429228,
0.195904,-0.0546988,0.317883,-2.24165,0.13988,0.6269,-0.159226,0.0669518,-0.00357361,0.0659336,0.0165485,-0.10498,0.00804321,-0.00195493,-0.744013,0.296717,-0.738384,-0.448736,6.05969,-3.6176,-0.0157176,5.55664,0.172924,5.44831,1.28086,-0.931169,-0.138002,-0.0153922,0.195769,-0.0541419,0.317773,-2.24168,0.139379,0.627365,-0.159072,0.114137,0.00238979,0.153127,0.0122926,-0.093111,-0.000251353,-0.00164929,8.3504,0.162311,-6.76522,-1.74894,12.5685,-3.41228,-0.102516,0.967594,-30.8525,-0.288683,26.0306,0.0747645,3.19878,-0.0227812,
0.196378,-0.0547084,0.318349,-2.24154,0.139367,0.626774,-0.159243,0.065407,-0.00309724,0.064396,0.0159033,-0.0968082,0.00328354,-0.00196751,-0.965517,0.297731,-0.961023,-0.403227,5.1077,-2.97479,-0.00785806,5.45412,0.168848,5.34591,1.27578,-0.874343,-0.145121,-0.015888,0.195769,-0.0541419,0.317773,-2.24168,0.139379,0.627365,-0.159072,0.114137,0.00238979,0.153127,0.0122926,-0.093111,-0.000251353,-0.00164929,0,0,0,0,0,0,0,0.967594,-30.8525,-0.288683,26.0306,0.0747645,3.19878,-0.0227812,
0.199303,-0.0542098,0.321282,-2.2412,0.137392,0.626514,-0.159192,0.0663555,-0.00278917,0.0653611,0.0151716,-0.0867932,-0.00214767,-0.00203162,0.592849,0.192547,0.603166,-0.457353,6.25935,-3.39451,-0.0400693,5.35271,0.165823,5.24459,1.27089,-0.82342,-0.150412,-0.0162946,0.195769,-0.0541419,0.317773,-2.24168,0.139379,0.627365,-0.159072,0.114137,0.00238979,0.153127,0.0122926,-0.093111,-0.000251353,-0.00164929,0,0,0,0,0,0,0,0.967594,-30.8525,-0.288683,26.0306,0.0747645,3.19878,-0.0227812,
0.199822,-0.0542192,0.321793,-2.2411,0.137011,0.62633,-0.159209,0.0660543,-0.0024675,0.0650694,0.0145723,-0.0789677,-0.00631077,-0.00206082,-0.188253,0.20104,-0.182308,-0.374554,4.89095,-2.60194,-0.0182522,5.25233,0.163813,5.14427,1.2661,-0.777478,-0.153475,-0.0166543,0.195769,-0.0541419,0.317773,-2.24168,0.139379,0.627365,-0.159072,0.114137,0.00238979,0.153127,0.0122926,-0.093111,-0.000251353,-0.00164929,0,0,0,0,0,0,0,0.967594,-30.8525,-0.288683,26.0306,0.0747645,3.19878,-0.0227812,
0.200307,-0.0542259,0.32227,-2.24101,0.136625,0.626154,-0.159226,0.0649666,-0.00214029,0.0639873,0.0140766,-0.0728308,-0.00943539,-0.00206891,-0.67983,0.204508,-0.676272,-0.309794,3.83555,-1.95288,-0.00505534,5.15239,0.122203,5.0494,1.27179,-0.729511,-0.151397,-0.0169581,0.200587,-0.0540123,0.32246,-2.24138,0.136748,0.627239,-0.159071,0.177614,0.0169878,0.108159,0.0107872,-0.0521748,-0.0139704,-0.00026745,7.93452,1.82476,-5.62109,-0.188171,5.11703,-1.71488,0.17273,-1.49212,-29.5036,-2.48656,26.4789,-0.023197,3.29857,-0.0703886,
0.204215,-0.0539112,0.326055,-2.24102,0.135753,0.625996,-0.159194,0.065907,-0.0016807,0.0649517,0.0132858,-0.0643505,-0.0137398,-0.00211986,0.587759,0.287242,0.602732,-0.49429,5.30016,-2.69025,-0.0318459,4.95592,0.12253,4.8529,1.26279,-0.659507,-0.151539,-0.0173799,0.200587,-0.0540123,0.32246,-2.24138,0.136748,0.627239,-0.159071,0.177614,0.0169878,0.108159,0.0107872,-0.0521748,-0.0139704,-0.00026745,0,0,0,0,0,0,0,-1.49212,-29.5036,-2.48656,26.4789,-0.023197,3.29857,-0.0703886,
0.204724,-0.0539108,0.326557,-2.24093,0.135482,0.625767,-0.159212,0.0654507,-0.00133514,0.0645087,0.0127157,-0.0582457,-0.0167154,-0.00213477,-0.285169,0.215977,-0.276903,-0.356263,3.81553,-1.85975,-0.00931513,4.85875,0.123815,4.75568,1.25839,-0.629814,-0.150179,-0.0175295,0.200587,-0.0540123,0.32246,-2.24138,0.136748,0.627239,-0.159071,0.177614,0.0169878,0.108159,0.0107872,-0.0521748,-0.0139704,-0.00026745,0,0,0,0,0,0,0,-1.49212,-29.5036,-2.48656,26.4789,-0.023197,3.29857,-0.0703886,
0.205195,-0.0539104,0.327021,-2.24085,0.135191,0.625557,-0.159229,0.0641256,-0.0010572,0.0631905,0.0123067,-0.0538874,-0.0186338,-0.00212788,-0.828177,0.17371,-0.823862,-0.255624,2.72394,-1.19903,0.00430457,4.76219,0.125725,4.65905,1.25409,-0.603521,-0.148652,-0.017615,0.200587,-0.0540123,0.32246,-2.24138,0.136748,0.627239,-0.159071,0.177614,0.0169878,0.108159,0.0107872,-0.0521748,-0.0139704,-0.00026745,0,0,0,0,0,0,0,-1.49212,-29.5036,-2.48656,26.4789,-0.023197,3.29857,-0.0703886,
0.205634,-0.0539095,0.327453,-2.24076,0.134884,0.625363,-0.159245,0.0622921,-0.000823506,0.06136,0.0120148,-0.0507826,-0.0197425,-0.00210854,-1.14599,0.14606,-1.14404,-0.182474,1.94047,-0.692931,0.0120884,4.66847,0.0849641,4.56667,1.24905,-0.577263,-0.146288,-0.0176878,0.205357,-0.0535502,0.326943,-2.24109,0.13524,0.626845,-0.159072,0.203893,0.00767056,0.0525273,0.00677695,-0.0320186,-0.0177819,-0.000682305,3.28495,-1.16466,-6.9539,-0.501283,2.51952,-0.476441,-0.0518569,-1.46435,-30.3764,-2.48656,26.0306,0.202938,3.03307,-0.0566557,
0.208657,-0.0535418,0.3302,-2.24071,0.134526,0.625635,-0.159187,0.0625664,-0.000789412,0.0616448,0.0117183,-0.0457579,-0.0214224,-0.00213149,0.171456,0.0213087,0.178011,-0.185317,3.14042,-1.04995,-0.0143442,4.57296,0.0879635,4.47103,1.24485,-0.55655,-0.144023,-0.0176974,0.205357,-0.0535502,0.326943,-2.24109,0.13524,0.626845,-0.159072,0.203893,0.00767056,0.0525273,0.00677695,-0.0320186,-0.0177819,-0.000682305,0,0,0,0,0,0,0,-1.46435,-30.3764,-2.48656,26.0306,0.202938,3.03307,-0.0566557,
0.209123,-0.0535461,0.330658,-2.24062,0.134291,0.625429,-0.159204,0.0616927,-0.000740705,0.0607751,0.0115246,-0.0424942,-0.0222913,-0.00212545,-0.546046,0.0304418,-0.543607,-0.121056,2.03982,-0.543043,0.00377444,4.4779,0.0914365,4.3758,1.24066,-0.538059,-0.14112,-0.0176935,0.205357,-0.0535502,0.326943,-2.24109,0.13524,0.626845,-0.159072,0.203893,0.00767056,0.0525273,0.00677695,-0.0320186,-0.0177819,-0.000682305,0,0,0,0,0,0,0,-1.46435,-30.3764,-2.48656,26.0306,0.202938,3.03307,-0.0566557,
0.209554,-0.0535493,0.331082,-2.24053,0.134031,0.62524,-0.15922,0.0601202,-0.000672771,0.0592028,0.0114015,-0.0404869,-0.0225448,-0.0021019,-0.982809,0.0424591,-0.982634,-0.0768953,1.2546,-0.158418,0.014718,4.38322,0.0952791,4.28094,1.23654,-0.52208,-0.138481,-0.0176335,0.205357,-0.0535502,0.326943,-2.24109,0.13524,0.626845,-0.159072,0.203893,0.00767056,0.0525273,0.00677695,-0.0320186,-0.0177819,-0.000682305,0,0,0,0,0,0,0,-1.46435,-30.3764,-2.48656,26.0306,0.202938,3.03307,-0.0566557,
0.209956,-0.0535514,0.331476,-2.24045,0.133753,0.625067,-0.159235,0.058154,-0.000589079,0.0572349,0.0113262,-0.0393467,-0.0223524,-0.00206866,-1.22891,0.0523073,-1.22998,-0.04706,0.712604,0.120267,0.0207731,4.2872,0.0542523,4.18908,1.23221,-0.506144,-0.135469,-0.0175693,0.209771,-0.0533956,0.331277,-2.24096,0.134048,0.626596,-0.159071,0.215122,0.0116571,0.027948,0.0048383,-0.0274637,-0.00594523,0.000110034,1.40356,0.498313,-3.07241,-0.242331,0.569359,1.47959,0.0990423,-1.66668,-29.2061,-2.61351,26.6058,0.452877,2.9937,-0.0767973,
0.212863,-0.0533406,0.334323,-2.2406,0.133488,0.625528,-0.159182,0.0583459,-0.000535438,0.0574394,0.0111066,-0.0360245,-0.0231553,-0.00207877,0.119986,0.0335259,0.127833,-0.137299,2.07639,-0.501855,-0.00631448,4.19314,0.058693,4.09479,1.22816,-0.494784,-0.13255,-0.0174469,0.209771,-0.0533956,0.331277,-2.24096,0.134048,0.626596,-0.159071,0.215122,0.0116571,0.027948,0.0048383,-0.0274637,-0.00594523,0.000110034,0,0,0,0,0,0,0,-1.66668,-29.2061,-2.61351,26.6058,0.452877,2.9937,-0.0767973,
0.213294,-0.0533436,0.334747,-2.24052,0.133272,0.625335,-0.159198,0.0574488,-0.000501786,0.0565473,0.0109834,-0.0342162,-0.0233628,-0.0020612,-0.56068,0.0210326,-0.557569,-0.0769589,1.13018,-0.129706,0.0109817,4.09937,0.0634191,4.00075,1.2241,-0.484499,-0.129212,-0.0173201,0.209771,-0.0533956,0.331277,-2.24096,0.134048,0.626596,-0.159071,0.215122,0.0116571,0.027948,0.0048383,-0.0274637,-0.00594523,0.000110034,0,0,0,0,0,0,0,-1.66668,-29.2061,-2.61351,26.6058,0.452877,2.9937,-0.0767973,
0.213691,-0.0533462,0.335137,-2.24043,0.133028,0.625158,-0.159213,0.0558906,-0.000465988,0.0549898,0.0109236,-0.0334697,-0.023105,-0.00202698,-0.973897,0.0223733,-0.973467,-0.0373703,0.466563,0.161149,0.021388,4.00583,0.0683101,3.90692,1.22011,-0.47624,-0.126236,-0.0171408,0.209771,-0.0533956,0.331277,-2.24096,0.134048,0.626596,-0.159071,0.215122,0.0116571,0.027948,0.0048383,-0.0274637,-0.00594523,0.000110034,0,0,0,0,0,0,0,-1.66668,-29.2061,-2.61351,26.6058,0.452877,2.9937,-0.0767973,
0.214061,-0.0533481,0.3355,-2.24035,0.132762,0.624997,-0.159228,0.0539613,-0.000421348,0.0530587,0.0109039,-0.033437,-0.0225073,-0.00198365,-1.20581,0.0279,-1.20692,-0.0123112,0.0204185,0.373584,0.027079,3.91248,0.0733774,3.81324,1.21612,-0.469392,-0.122726,-0.0169602,0.209771,-0.0533956,0.331277,-2.24096,0.134048,0.626596,-0.159071,0.215122,0.0116571,0.027948,0.0048383,-0.0274637,-0.00594523,0.000110034,0,0,0,0,0,0,0,-1.66668,-29.2061,-2.61351,26.6058,0.452877,2.9937,-0.0767973,
0.212781,-0.0533407,0.334241,-2.24061,0.133582,0.625555,-0.159181,0.0544302,-0.000381913,0.0535334,0.0107335,-0.0310178,-0.0230786,-0.00198886,0.293074,0.0246474,0.296722,-0.106541,1.51199,-0.357076,-0.00325422,3.81898,0.078269,3.71946,1.21223,-0.470818,-0.118167,-0.0167284,0.209771,-0.0533956,0.331277,-2.24096,0.134048,0.626596,-0.159071,0.215122,0.0116571,0.027948,0.0048383,-0.0274637,-0.00594523,0.000110034,0,0,0,0,0,0,0,-1.66668,-29.2061,-2.61351,26.6058,0.452877,2.9937,-0.0767973,
0.213188,-0.0533426,0.33464,-2.24053,0.133372,0.625371,-0.159196,0.0537157,-0.000352859,0.052818,0.0106512,-0.0300805,-0.023063,-0.00196406,-0.446567,0.0181587,-0.447165,-0.0514304,0.585833,0.00975649,0.0154956,3.72596,0.0835295,3.62606,1.20831,-0.467164,-0.114345,-0.0164931,0.209771,-0.0533956,0.331277,-2.24096,0.134048,0.626596,-0.159071,0.215122,0.0116571,0.027948,0.0048383,-0.0274637,-0.00594523,0.000110034,0,0,0,0,0,0,0,-1.66668,-29.2061,-2.61351,26.6058,0.452877,2.9937,-0.0767973,
0.21356,-0.0533439,0.335005,-2.24045,0.133127,0.625205,-0.15921,0.0522742,-0.000315353,0.051372,0.0106247,-0.030175,-0.0225894,-0.00192119,-0.900935,0.0234408,-0.903768,-0.016586,-0.0590497,0.296002,0.026797,3.63305,0.08881,3.53274,1.20447,-0.465307,-0.110781,-0.0162052,0.209771,-0.0533956,0.331277,-2.24096,0.134048,0.626596,-0.159071,0.215122,0.0116571,0.027948,0.0048383,-0.0274637,-0.00594523,0.000110034,0,0,0,0,0,0,0,-1.66668,-29.2061,-2.61351,26.6058,0.452877,2.9937,-0.0767973,
0.212705,-0.0533392,0.334165,-2.24062,0.133402,0.625629,-0.159176,0.0525444,-0.000274987,0.0516445,0.0104662,-0.0297644,-0.0226073,-0.0019077,0.168875,0.0252288,0.170365,-0.0990274,0.256588,-0.0111708,0.00842766,3.44454,0.0965768,3.34399,1.19718,-0.534745,-0.0863082,-0.0155909,0.209771,-0.0533956,0.331277,-2.24096,0.134048,0.626596,-0.159071,0.215122,0.0116571,0.027948,0.0048383,-0.0274637,-0.00594523,0.000110034,0,0,0,0,0,0,0,-1.66668,-29.2061,-2.61351,26.6058,0.452877,2.9937,-0.0767973,
0.213089,-0.05334,0.334541,-2.24054,0.133131,0.625469,-0.15919,0.0516265,-0.000239729,0.0507224,0.0103945,-0.0305995,-0.0220847,-0.00186511,-0.573726,0.0220363,-0.576348,-0.0447995,-0.521897,0.326568,0.0266197,3.3511,0.0729635,3.24907,1.19178,-0.535534,-0.0823749,-0.0152428,0.214102,-0.0528435,0.3349,-2.24069,0.133,0.62654,-0.15907,0.214278,0.0163798,0.00216286,0.00640786,-0.02616,-0.00468537,0.000574178,-0.105422,0.590341,-3.22315,0.196194,0.162969,0.157482,0.0580181,-1.79364,-30.305,-2.63732,26.0822,0.550839,2.89391,-0.0905302,
0.213436,-0.05334,0.334881,-2.24046,0.13282,0.62533,-0.159202,0.0499882,-0.000192787,0.0490766,0.0103773,-0.0322548,-0.0211471,-0.00180528,-1.02388,0.0293389,-1.02863,-0.010777,-1.03456,0.586059,0.0373935,3.25876,0.0782155,3.15621,1.18816,-0.539573,-0.0772703,-0.0148432,0.214102,-0.0528435,0.3349,-2.24069,0.133,0.62654,-0.15907,0.214278,0.0163798,0.00216286,0.00640786,-0.02616,-0.00468537,0.000574178,0,0,0,0,0,0,0,-1.79364,-30.305,-2.63732,26.0822,0.550839,2.89391,-0.0905302,
0.213755,-0.0533391,0.335191,-2.24037,0.132476,0.62521,-0.159214,0.0479469,-0.000131258,0.0470259,0.0103923,-0.0344013,-0.0199154,-0.00173642,-1.27585,0.0384553,-1.28166,0.00941003,-1.34158,0.769786,0.0430359,3.16648,0.0834638,3.06335,1.18455,-0.544532,-0.0713009,-0.0144461,0.214102,-0.0528435,0.3349,-2.24069,0.133,0.62654,-0.15907,0.214278,0.0163798,0.00216286,0.00640786,-0.02616,-0.00468537,0.000574178,0,0,0,0,0,0,0,-1.79364,-30.305,-2.63732,26.0822,0.550839,2.89391,-0.0905302,
0.216753,-0.0527168,0.3375,-2.24036,0.130556,0.625999,-0.159151,0.0480415,3.31766e-05,0.0471248,0.0101491,-0.044041,-0.0178369,-0.00169909,0.0591589,0.102772,0.0618232,-0.152001,-6.02482,1.29906,0.0233332,3.06199,0.0671807,2.96343,1.18196,-1.05472,0.0466773,-0.0141603,0.214102,-0.0528435,0.3349,-2.24069,0.133,0.62654,-0.15907,0.214278,0.0163798,0.00216286,0.00640786,-0.02616,-0.00468537,0.000574178,0,0,0,0,0,0,0,-1.79364,-30.305,-2.63732,26.0822,0.550839,2.89391,-0.0905302,
0.217099,-0.0527129,0.337837,-2.24029,0.12984,0.625949,-0.159163,0.0470667,0.000124224,0.0461478,0.0100207,-0.0531232,-0.0155162,-0.00164197,-0.60929,0.0569045,-0.610618,-0.0802989,-5.67637,1.45042,0.0357017,2.97514,0.0385384,2.87839,1.17273,-1.06563,0.0539562,-0.0136241,0.217819,-0.0526846,0.337901,-2.24061,0.132328,0.626485,-0.159066,0.177204,0.0102816,-0.001407,0.00409109,-0.0155492,-0.010546,0.00193092,-4.63428,-0.762278,-0.446232,-0.289596,1.32635,-0.732585,0.169592,-1.03589,-29.2537,-1.36382,26.6772,0.416256,3.06603,-0.117081,
0.21741,-0.0527095,0.338142,-2.24021,0.12908,0.625924,-0.159173,0.045444,0.000184191,0.0445192,0.00997069,-0.0614867,-0.0130395,-0.00157222,-1.01414,0.0374797,-1.01791,-0.0312353,-5.22717,1.54795,0.0435931,2.88574,0.0434766,2.78832,1.16954,-1.07844,0.063768,-0.0130592,0.217819,-0.0526846,0.337901,-2.24061,0.132328,0.626485,-0.159066,0.177204,0.0102816,-0.001407,0.00409109,-0.0155492,-0.010546,0.00193092,0,0,0,0,0,0,0,-1.03589,-29.2537,-1.36382,26.6772,0.416256,3.06603,-0.117081,
0.217695,-0.0527061,0.338418,-2.24013,0.128286,0.625922,-0.159182,0.0434606,0.000232699,0.0425273,0.00997206,-0.0690475,-0.0104935,-0.00149581,-1.23966,0.0303171,-1.24493,0.000859042,-4.72552,1.59126,0.0477551,2.79608,0.0484051,2.69791,1.16633,-1.09128,0.074288,-0.0125107,0.217819,-0.0526846,0.337901,-2.24061,0.132328,0.626485,-0.159066,0.177204,0.0102816,-0.001407,0.00409109,-0.0155492,-0.010546,0.00193092,0,0,0,0,0,0,0,-1.03589,-29.2537,-1.36382,26.6772,0.416256,3.06603,-0.117081,
0.220143,-0.0525964,0.340176,-2.24025,0.127084,0.62595,-0.159111,0.0435851,0.000240604,0.0426822,0.00984423,-0.0890478,-0.00950617,-0.00141523,0.0778205,0.00494084,0.0968276,-0.0798927,-12.5002,0.617075,0.0503636,2.86698,0.00445635,2.78522,1.14843,-1.82827,0.0152345,-0.01362,0.217819,-0.0526846,0.337901,-2.24061,0.132328,0.626485,-0.159066,0.177204,0.0102816,-0.001407,0.00409109,-0.0155492,-0.010546,0.00193092,0,0,0,0,0,0,0,-1.03589,-29.2537,-1.36382,26.6772,0.416256,3.06603,-0.117081,
0.220461,-0.0525954,0.340488,-2.24017,0.125657,0.62594,-0.159119,0.0428173,0.0002185,0.0419365,0.00976615,-0.106917,-0.00784318,-0.00132958,-0.479883,-0.0138153,-0.466108,-0.0488025,-11.1685,1.03937,0.0535339,2.80226,-0.0144479,2.72028,1.1464,-1.87171,0.0448979,-0.0123833,0.220531,-0.0522999,0.341054,-2.24041,0.131941,0.626471,-0.159072,0.121328,0.0127847,0.0355903,0.00886879,-0.0165724,0.000834164,-1.54755e-05,-6.9845,0.312885,4.62466,0.597212,-0.127902,1.42253,-0.243299,-1.26202,-29.9043,-1.56218,26.106,0.123287,3.03948,-0.0630644,
0.220751,-0.0525945,0.340771,-2.2401,0.124172,0.625963,-0.159126,0.0414984,0.00019578,0.0406327,0.00972898,-0.122655,-0.00570159,-0.00123959,-0.824332,-0.0141995,-0.814834,-0.0232271,-9.83576,1.33849,0.0562416,2.7335,-0.00924553,2.65097,1.14507,-1.91264,0.0735452,-0.0112539,0.220531,-0.0522999,0.341054,-2.24041,0.131941,0.626471,-0.159072,0.121328,0.0127847,0.0355903,0.00886879,-0.0165724,0.000834164,-1.54755e-05,0,0,0,0,0,0,0,-1.26202,-29.9043,-1.56218,26.106,0.123287,3.03948,-0.0630644,
0.221018,-0.0525935,0.341031,-2.24002,0.122643,0.626016,-0.159132,0.0398635,0.000183056,0.0390075,0.00972286,-0.136348,-0.0032503,-0.00114842,-1.02178,-0.00795301,-1.01574,-0.00382655,-8.55853,1.53206,0.0569833,2.66076,-0.00464627,2.57757,1.1435,-1.95064,0.101483,-0.0102509,0.220531,-0.0522999,0.341054,-2.24041,0.131941,0.626471,-0.159072,0.121328,0.0127847,0.0355903,0.00886879,-0.0165724,0.000834164,-1.54755e-05,0,0,0,0,0,0,0,-1.26202,-29.9043,-1.56218,26.106,0.123287,3.03948,-0.0630644,
0.222758,-0.0522817,0.343284,-2.2398,0.126946,0.624061,-0.159086,0.0410094,-0.00032213,0.0404121,0.0104605,-0.140914,-0.0152535,-0.000913367,0.716156,-0.315741,0.877847,0.461018,-2.85376,-7.50201,0.146906,3.32134,-0.141748,3.34257,1.29999,-1.65534,-0.913811,-0.0111337,0.220531,-0.0522999,0.341054,-2.24041,0.131941,0.626471,-0.159072,0.121328,0.0127847,0.0355903,0.00886879,-0.0165724,0.000834164,-1.54755e-05,0,0,0,0,0,0,0,-1.26202,-29.9043,-1.56218,26.106,0.123287,3.03948,-0.0630644,
0.223099,-0.0523001,0.343629,-2.23969,0.125608,0.623591,-0.159084,0.0413163,-0.000717824,0.0409391,0.0109106,-0.146179,-0.0239407,-0.000689627,0.191866,-0.247308,0.329397,0.281343,-3.29068,-5.42948,0.139838,3.33508,-0.1545,3.36362,1.31104,-1.71324,-0.810775,-0.00688586,0.222925,-0.0521132,0.344239,-2.24036,0.130087,0.626466,-0.159069,0.0175737,-0.00115448,0.145368,0.00147885,-0.0706849,0.00085466,0.000795878,-12.9693,-1.74239,13.7222,-0.923742,-6.76406,0.00256192,0.101419,-0.603451,-29.6544,-1.01073,26.4035,-0.0479162,3.12554,-0.0905302,
0.223419,-0.0523169,0.343954,-2.2396,0.124223,0.623164,-0.159081,0.0410662,-0.000994099,0.0408777,0.01117,-0.151578,-0.0298453,-0.000478321,-0.156356,-0.172672,-0.0384218,0.162131,-3.3741,-3.69038,0.132066,3.32111,-0.14868,3.35511,1.31603,-1.76164,-0.716664,-0.00360524,0.222925,-0.0521132,0.344239,-2.24036,0.130087,0.626466,-0.159069,0.0175737,-0.00115448,0.145368,0.00147885,-0.0706849,0.00085466,0.000795878,0,0,0,0,0,0,0,-0.603451,-29.6544,-1.01073,26.4035,-0.0479162,3.12554,-0.0905302,
0.223723,-0.0523317,0.344263,-2.2395,0.122804,0.622779,-0.159077,0.0404555,-0.0011658,0.0404302,0.0113079,-0.156732,-0.0334958,-0.000282358,-0.381667,-0.107311,-0.279647,0.0861837,-3.22151,-2.28154,0.122477,3.2906,-0.147694,3.33015,1.31875,-1.8005,-0.630712,-0.0010411,0.222925,-0.0521132,0.344239,-2.24036,0.130087,0.626466,-0.159069,0.0175737,-0.00115448,0.145368,0.00147885,-0.0706849,0.00085466,0.000795878,0,0,0,0,0,0,0,-0.603451,-29.6544,-1.01073,26.4035,-0.0479162,3.12554,-0.0905302,
0.225282,-0.0521583,0.346618,-2.23974,0.124439,0.624027,-0.159041,0.0422742,-0.00126096,0.0422671,0.01175,-0.157521,-0.0385926,5.67293e-06,1.13671,-0.0594779,1.14803,0.276294,-0.492776,-3.1855,0.18002,3.77409,0.092133,3.80785,1.35098,-1.73504,-0.977447,0.00160015,0.222925,-0.0521132,0.344239,-2.24036,0.130087,0.626466,-0.159069,0.0175737,-0.00115448,0.145368,0.00147885,-0.0706849,0.00085466,0.000795878,0,0,0,0,0,0,0,-0.603451,-29.6544,-1.01073,26.4035,-0.0479162,3.12554,-0.0905302,
0.225656,-0.0521686,0.346992,-2.23964,0.123126,0.623611,-0.15903,0.0431675,-0.00126556,0.0431627,0.0119255,-0.15886,-0.0412655,0.00027205,0.558312,-0.00287664,0.559795,0.109708,-0.8373,-1.67058,0.166485,3.79363,0.0640183,3.81952,1.35835,-1.75717,-0.837172,0.00569848,0.225082,-0.0517597,0.34739,-2.24024,0.124864,0.626478,-0.159072,0.0379547,0.0180064,0.116618,0.0034442,-0.160577,0.00456917,-0.000539611,2.54762,2.39511,-3.59381,0.245668,-11.2365,0.464314,-0.166936,0.309024,-30.1027,-0.986925,26.1813,-0.13306,2.95342,-0.0630644,
0.226012,-0.0521757,0.347347,-2.23955,0.121801,0.623256,-0.159019,0.0434318,-0.00119107,0.0434168,0.011938,-0.160204,-0.0418966,0.000514376,0.165149,0.0465621,0.158766,0.00781383,-0.839566,-0.394448,0.151454,3.79107,0.0440583,3.80924,1.3636,-1.77608,-0.706692,0.00888477,0.225082,-0.0517597,0.34739,-2.24024,0.124864,0.626478,-0.159072,0.0379547,0.0180064,0.116618,0.0034442,-0.160577,0.00456917,-0.000539611,0,0,0,0,0,0,0,0.309024,-30.1027,-0.986925,26.1813,-0.13306,2.95342,-0.0630644,
0.227272,-0.0515645,0.349592,-2.23984,0.118576,0.625123,-0.15903,0.0439614,-0.000686074,0.0439135,0.0116516,-0.159219,-0.0396674,0.000712949,0.33102,0.315619,0.310481,-0.179013,0.615156,1.39326,0.124108,3.75033,0.00218444,3.75326,1.36814,-1.78267,-0.479212,0.0133891,0.225082,-0.0517597,0.34739,-2.24024,0.124864,0.626478,-0.159072,0.0379547,0.0180064,0.116618,0.0034442,-0.160577,0.00456917,-0.000539611,0,0,0,0,0,0,0,0.309024,-30.1027,-0.986925,26.1813,-0.13306,2.95342,-0.0630644,
0.227621,-0.0515571,0.349938,-2.23975,0.117372,0.624923,-0.159017,0.043881,-0.000364355,0.04379,0.0114366,-0.157471,-0.0367494,0.000883904,-0.0502411,0.201074,-0.0772011,-0.134393,1.09289,1.82377,0.106847,3.72221,-0.0129556,3.7175,1.37016,-1.76939,-0.378931,0.0150397,0.225082,-0.0517597,0.34739,-2.24024,0.124864,0.626478,-0.159072,0.0379547,0.0180064,0.116618,0.0034442,-0.160577,0.00456917,-0.000539611,0,0,0,0,0,0,0,0.309024,-30.1027,-0.986925,26.1813,-0.13306,2.95342,-0.0630644,
0.227953,-0.0515515,0.350268,-2.23967,0.116229,0.624763,-0.159005,0.0434132,-0.000151753,0.0432724,0.011305,-0.154556,-0.0333784,0.0010248,-0.292383,0.132876,-0.323485,-0.0822554,1.82174,2.10683,0.0880573,3.70131,-0.0469212,3.68973,1.38297,-1.72842,-0.286859,0.0164037,0.228433,-0.0516435,0.349578,-2.2401,0.118428,0.625415,-0.15907,0.151157,0.000312114,0.00318189,-0.000466618,-0.177059,-0.0333283,0.0008507,14.1503,-2.21179,-14.1795,-0.488852,-2.06027,-4.73718,0.173789,-0.40112,-29.5552,-1.10991,26.3281,0.208431,2.68792,-0.0767973,
0.228272,-0.0515474,0.350584,-2.23958,0.115174,0.624637,-0.158992,0.042708,-1.7538e-05,0.0425126,0.0112593,-0.150021,-0.0298588,0.00113302,-0.440751,0.0838844,-0.474891,-0.0285798,2.83418,2.19977,0.0676414,3.67486,-0.0508845,3.65525,1.38846,-1.68182,-0.206054,0.017486,0.228433,-0.0516435,0.349578,-2.2401,0.118428,0.625415,-0.15907,0.151157,0.000312114,0.00318189,-0.000466618,-0.177059,-0.0333283,0.0008507,0,0,0,0,0,0,0,-0.40112,-29.5552,-1.10991,26.3281,0.208431,2.68792,-0.0767973,
0.230602,-0.051636,0.351724,-2.23975,0.113082,0.624287,-0.159027,0.0431374,-9.27941e-06,0.0428939,0.0111299,-0.142055,-0.0276868,0.00118004,0.268389,0.0051616,0.238293,-0.0808463,4.97926,1.35752,0.029389,3.6527,-0.050714,3.62476,1.39676,-1.61281,-0.138076,0.0182365,0.228433,-0.0516435,0.349578,-2.2401,0.118428,0.625415,-0.15907,0.151157,0.000312114,0.00318189,-0.000466618,-0.177059,-0.0333283,0.0008507,0,0,0,0,0,0,0,-0.40112,-29.5552,-1.10991,26.3281,0.208431,2.68792,-0.0767973,
0.230939,-0.0516374,0.352057,-2.23966,0.112339,0.624148,-0.159017,0.0429404,-4.25519e-05,0.042637,0.0111788,-0.132229,-0.0256296,0.00119411,-0.123124,-0.0207953,-0.160579,0.030549,6.14068,1.28573,0.00879349,3.63739,-0.0534653,3.60112,1.40453,-1.51823,-0.0814077,0.0188097,0.228433,-0.0516435,0.349578,-2.2401,0.118428,0.625415,-0.15907,0.151157,0.000312114,0.00318189,-0.000466618,-0.177059,-0.0333283,0.0008507,0,0,0,0,0,0,0,-0.40112,-29.5552,-1.10991,26.3281,0.208431,2.68792,-0.0767973,
