xiao-wang007/linearmpc_panda/paper_data/panda_torque_PD_controller_error_match_to_start_torque_rate_limiter/0/trajectory.csv
Commanded Joint 0 Position,Commanded Joint 1 Position,Commanded Joint 2 Position,Commanded Joint 3 Position,Commanded Joint 4 Position,Commanded Joint 5 Position,Commanded Joint 6 Position,Commanded Joint 0 Velocity,Commanded Joint 1 Velocity,Commanded Joint 2 Velocity,Commanded Joint 3 Velocity,Commanded Joint 4 Velocity,Commanded Joint 5 Velocity,Commanded Joint 6 Velocity,Commanded Joint 0 Acceleration,Commanded Joint 1 Acceleration,Commanded Joint 2 Acceleration,Commanded Joint 3 Acceleration,Commanded Joint 4 Acceleration,Commanded Joint 5 Acceleration,Commanded Joint 6 Acceleration,Commanded Joint 0 Torque,Commanded Joint 1 Torque,Commanded Joint 2 Torque,Commanded Joint 3 Torque,Commanded Joint 4 Torque,Commanded Joint 5 Torque,Commanded Joint 6 Torque,Actual Joint 0 Position,Actual Joint 1 Position,Actual Joint 2 Position,Actual Joint 3 Position,Actual Joint 4 Position,Actual Joint 5 Position,Actual Joint 6 Position,Actual Joint 0 Velocity,Actual Joint 1 Velocity,Actual Joint 2 Velocity,Actual Joint 3 Velocity,Actual Joint 4 Velocity,Actual Joint 5 Velocity,Actual Joint 6 Velocity,Actual Joint 0 Acceleration,Actual Joint 1 Acceleration,Actual Joint 2 Acceleration,Actual Joint 3 Acceleration,Actual Joint 4 Acceleration,Actual Joint 5 Acceleration,Actual Joint 6 Acceleration,Actual Joint 0 Torque,Actual Joint 1 Torque,Actual Joint 2 Torque,Actual Joint 3 Torque,Actual Joint 4 Torque,Actual Joint 5 Torque,Actual Joint 6 Torque,
0.05576,0.0925226,-0.0595612,-1.70254,0.0311773,0.259895,-0.0966383,0.00057674,0.0250124,0.000627366,-0.0315263,-0.0042895,0.0547606,-0.000397714,0.360462,15.6327,0.392104,-19.7039,-2.68094,34.2254,-0.248571,0.0591961,27.5434,0.122466,-24.4014,-0.713356,1.89963,-0.0244106,0.0556939,0.0913093,-0.0596265,-1.69973,0.0314436,0.254072,-0.0965879,0.000930054,0.000411967,0.0010734,-8.05536e-05,-0.0122315,-0.00117917,-0.000186741,0,0,0,0,0,0,0,-0.147213,-38.7871,-0.237108,27.3993,1.10656,3.21892,0.0706026,
0.0557005,0.0913192,-0.0596215,-1.69974,0.0313393,0.254065,-0.0965894,0.000475734,0.0200926,0.000510369,-0.0252557,-0.00388183,0.0437902,-0.000324414,-0.0631284,-3.07487,-0.0731231,3.91909,0.254797,-6.85653,0.0458126,0.0534787,27.9837,0.112185,-24.3178,-0.713557,1.64913,-0.0228897,0.0556939,0.0913093,-0.0596265,-1.69973,0.0314436,0.254072,-0.0965879,0.000930054,0.000411967,0.0010734,-8.05536e-05,-0.0122315,-0.00117917,-0.000186741,0,0,0,0,0,0,0,-0.147213,-38.7871,-0.237108,27.3993,1.10656,3.21892,0.0706026,
0.0557005,0.0913224,-0.0596217,-1.69974,0.0313288,0.254065,-0.0965895,0.000379638,0.0161529,0.000405158,-0.0202317,-0.00336787,0.0350394,-0.000263127,-0.0600598,-2.46234,-0.0657571,3.14001,0.321222,-5.4692,0.0383046,0.0462695,28.5551,0.100474,-24.2098,-0.712862,1.30197,-0.0209193,0.0556939,0.0913093,-0.0596265,-1.69973,0.0314436,0.254072,-0.0965879,0.000930054,0.000411967,0.0010734,-8.05536e-05,-0.0122315,-0.00117917,-0.000186741,0,0,0,0,0,0,0,-0.147213,-38.7871,-0.237108,27.3993,1.10656,3.21892,0.0706026,
0.0557002,0.0913254,-0.059622,-1.69974,0.0313226,0.254066,-0.0965896,0.000295912,0.0129962,0.0003161,-0.0162062,-0.00284887,0.0280582,-0.000212666,-0.0523289,-1.97294,-0.0556611,2.51596,0.324374,-4.36326,0.0315378,0.0402704,29.0821,0.0910963,-24.0415,-0.710565,0.917924,-0.0189198,0.0556964,0.0914277,-0.0596272,-1.69978,0.0314387,0.254078,-0.0965896,0.0026274,0.0079271,0.00179397,0.000267809,-0.0073747,0.00130911,0.000523224,0.212169,0.939391,0.0900714,0.0435453,0.607101,0.311035,0.0887456,-0.147213,-38.5411,-0.237108,27.2763,1.14959,3.19237,0.0577852,
0.0557171,0.0919414,-0.0596058,-1.70029,0.0312672,0.254354,-0.0965865,0.000753301,0.0232378,0.000787732,-0.0257162,-0.00656639,0.0293464,-9.11009e-05,0.285868,6.401,0.29477,-5.9438,-2.32345,0.805098,0.0759783,-3.59238e-05,33.7088,0.0646199,-23.305,-1.09593,-2.28316,0.000971307,0.0556964,0.0914277,-0.0596272,-1.69978,0.0314387,0.254078,-0.0965896,0.0026274,0.0079271,0.00179397,0.000267809,-0.0073747,0.00130911,0.000523224,0,0,0,0,0,0,0,-0.147213,-38.5411,-0.237108,27.2763,1.14959,3.19237,0.0577852,
0.055689,0.092416,-0.0596482,-1.7005,0.0320495,0.253632,-0.0966028,-0.00010114,0.0304559,-0.00042946,-0.0257918,0.0143035,0.00542087,-0.00047982,-0.534026,4.5113,-0.760744,-0.0472522,13.0437,-14.9534,-0.242949,0.505495,0.221357,0.507505,-0.309588,3.01735,-2.37587,-0.00199403,0.0556964,0.0914277,-0.0596272,-1.69978,0.0314387,0.254078,-0.0965896,0.0026274,0.0079271,0.00179397,0.000267809,-0.0073747,0.00130911,0.000523224,0,0,0,0,0,0,0,-0.147213,-38.5411,-0.237108,27.2763,1.14959,3.19237,0.0577852,
0.0556368,0.0927912,-0.0597057,-1.70064,0.0333986,0.252427,-0.0966132,-0.00138372,0.033744,-0.00178326,-0.0241323,0.0451694,-0.0258002,-0.000645952,-0.80161,2.05507,-0.846122,1.03723,19.2912,-19.5132,-0.103832,0.499426,0.217156,0.502123,-0.307211,2.99259,-2.35688,-0.00201245,0.0556964,0.0914277,-0.0596272,-1.69978,0.0314387,0.254078,-0.0965896,0.0026274,0.0079271,0.00179397,0.000267809,-0.0073747,0.00130911,0.000523224,0,0,0,0,0,0,0,-0.147213,-38.5411,-0.237108,27.2763,1.14959,3.19237,0.0577852,
0.0555812,0.0930809,-0.0597622,-1.70075,0.0350811,0.250947,-0.0966194,-0.00249866,0.034238,-0.00283674,-0.0222048,0.0781991,-0.0576393,-0.000670917,-0.696842,0.308758,-0.658426,1.20464,20.6435,-19.8994,-0.0156035,0.493396,0.241314,0.496917,-0.304339,2.96794,-2.33603,-0.00198923,0.0556845,0.0919913,-0.0596345,-1.70067,0.0313241,0.255918,-0.0965946,-0.000272848,0.0412274,-0.000589849,-0.0831035,-0.0148793,0.148178,-0.000525712,-0.362532,4.16254,-0.297977,-10.4214,-0.938081,18.3586,-0.131117,0.0313145,-29.9281,-0.0863513,19.5282,0.685421,2.44988,0.0706026,
0.055688,0.0928364,-0.0596283,-1.70141,0.0310431,0.256604,-0.0965907,-0.00191172,0.0485198,-0.00211357,-0.0363629,0.0555357,-0.0289519,-0.000436935,0.366839,8.92611,0.451981,-8.84882,-14.1646,17.9296,0.146239,-0.000774885,33.7362,0.0644149,-23.3045,-1.09479,-2.28197,0.000977251,0.0556845,0.0919913,-0.0596345,-1.70067,0.0313241,0.255918,-0.0965946,-0.000272848,0.0412274,-0.000589849,-0.0831035,-0.0148793,0.148178,-0.000525712,0,0,0,0,0,0,0,0.0313145,-29.9281,-0.0863513,19.5282,0.685421,2.44988,0.0706026,
0.0555867,0.0936114,-0.0597767,-1.70152,0.0339331,0.253832,-0.0966412,-0.00406122,0.0581908,-0.0054014,-0.0317666,0.116678,-0.0924597,-0.00161312,-1.34344,6.0444,-2.0549,2.87269,38.214,-39.6924,-0.735114,4.40003,0.792544,4.28824,-1.90052,10.5289,-10.5153,-0.00547918,0.0556845,0.0919913,-0.0596345,-1.70067,0.0313241,0.255918,-0.0965946,-0.000272848,0.0412274,-0.000589849,-0.0831035,-0.0148793,0.148178,-0.000525712,0,0,0,0,0,0,0,0.0313145,-29.9281,-0.0863513,19.5282,0.685421,2.44988,0.0706026,
0.055454,0.0941802,-0.0599298,-1.70155,0.038642,0.249216,-0.0966703,-0.00656603,0.0607724,-0.0081474,-0.0262306,0.211064,-0.189366,-0.0020188,-1.5655,1.61349,-1.71625,3.46005,58.9913,-60.5662,-0.253552,4.34107,0.869844,4.21948,-1.82223,10.2509,-10.2715,-0.00480911,0.0556845,0.0919913,-0.0596345,-1.70067,0.0313241,0.255918,-0.0965946,-0.000272848,0.0412274,-0.000589849,-0.0831035,-0.0148793,0.148178,-0.000525712,0,0,0,0,0,0,0,0.0313145,-29.9281,-0.0863513,19.5282,0.685421,2.44988,0.0706026,
0.0553476,0.0945853,-0.0600428,-1.70161,0.0443664,0.243504,-0.0966845,-0.00791346,0.0587445,-0.00934403,-0.0223278,0.311961,-0.294308,-0.00196891,-0.842146,-1.26742,-0.747892,2.43923,63.0603,-65.5891,0.0311806,4.27154,1.00518,4.14615,-1.74876,9.98098,-9.99109,-0.00460551,0.0557047,0.0934784,-0.0596165,-1.70743,0.0317071,0.258854,-0.0965989,0.00400048,0.036999,-0.00108527,-0.238419,0.116772,-0.0366136,-0.0016597,0.534166,-0.52855,-0.0619276,-19.4144,16.4564,-23.099,-0.141749,-0.119442,-27.9326,-0.0625476,22.8925,1.8518,1.85296,0.0980684,
0.0557447,0.0945719,-0.0595663,-1.70869,0.031991,0.257921,-0.0965845,-0.00533019,0.0743333,-0.00621998,-0.0491778,0.256666,-0.258761,-0.00121352,1.61455,9.74298,1.95253,-16.7812,-34.5592,22.2168,0.472118,-0.00196109,33.8258,0.064409,-23.2983,-1.0933,-2.2487,0.000718914,0.0557047,0.0934784,-0.0596165,-1.70743,0.0317071,0.258854,-0.0965989,0.00400048,0.036999,-0.00108527,-0.238419,0.116772,-0.0366136,-0.0016597,0,0,0,0,0,0,0,-0.119442,-27.9326,-0.0625476,22.8925,1.8518,1.85296,0.0980684,
0.0561174,0.0954438,-0.059195,-1.70944,0.0344281,0.253213,-0.0965112,0.00505314,0.0812631,0.00430588,-0.0582858,0.266261,-0.324711,0.000860494,6.48958,4.33115,6.57866,-5.69255,5.9971,-41.2186,1.29626,29.1351,0.681591,28.3268,-11.5165,10.9067,-14.2487,0.0965098,0.0557047,0.0934784,-0.0596165,-1.70743,0.0317071,0.258854,-0.0965989,0.00400048,0.036999,-0.00108527,-0.238419,0.116772,-0.0366136,-0.0016597,0,0,0,0,0,0,0,-0.119442,-27.9326,-0.0625476,22.8925,1.8518,1.85296,0.0980684,
0.0567818,0.0961061,-0.0585651,-1.71005,0.0384237,0.24624,-0.0964275,0.0206537,0.081567,0.0191929,-0.0618456,0.3129,-0.434088,0.00278149,9.75035,0.18995,9.30437,-2.22487,29.1491,-68.3608,1.20062,27.9101,1.73903,26.7937,-9.6305,10.9067,-14.2487,0.101712,0.0557047,0.0934784,-0.0596165,-1.70743,0.0317071,0.258854,-0.0965989,0.00400048,0.036999,-0.00108527,-0.238419,0.116772,-0.0366136,-0.0016597,0,0,0,0,0,0,0,-0.119442,-27.9326,-0.0625476,22.8925,1.8518,1.85296,0.0980684,
0.0576764,0.0966076,-0.0577203,-1.71061,0.043556,0.237824,-0.0963356,0.0388869,0.0777926,0.0364731,-0.0633609,0.378628,-0.557678,0.00452376,11.3958,-2.35902,10.8001,-0.947048,41.0798,-77.2434,1.08892,26.569,1.61233,25.3886,-8.18145,10.897,-14.1712,0.108925,0.0557405,0.0959802,-0.0594521,-1.71518,0.0355049,0.253749,-0.0966005,0.00548149,0.142567,0.0220564,-0.178581,0.0873244,-0.296756,1.0699e-05,0.185126,13.196,2.89271,7.47977,-3.68091,-32.5178,0.2088,3.25275,-35.5458,2.86134,25.8322,1.53412,-0.0504244,0.0706026,
0.0558518,0.0975355,-0.0593329,-1.71656,0.0357205,0.251774,-0.0965917,0.0338934,0.101115,0.0321601,-0.0852441,0.308293,-0.495531,0.00383787,-3.12093,14.5766,-2.6956,-13.677,-43.9592,38.8419,-0.428678,-0.00308792,33.9289,0.0634981,-23.2679,-1.10305,-2.1712,0.000568616,0.0557405,0.0959802,-0.0594521,-1.71518,0.0355049,0.253749,-0.0966005,0.00548149,0.142567,0.0220564,-0.178581,0.0873244,-0.296756,1.0699e-05,0,0,0,0,0,0,0,3.25275,-35.5458,2.86134,25.8322,1.53412,-0.0504244,0.0706026,
0.0565296,0.0983868,-0.0586402,-1.71816,0.0376435,0.246835,-0.0962809,0.0440579,0.102175,0.0430435,-0.10814,0.29471,-0.519895,0.0108414,6.35277,0.66225,6.80212,-14.3102,-8.48919,-15.2278,4.37723,43.0534,-5.88813,41.7382,-21.6405,10.897,-14.1712,0.378396,0.0557405,0.0959802,-0.0594521,-1.71518,0.0355049,0.253749,-0.0966005,0.00548149,0.142567,0.0220564,-0.178581,0.0873244,-0.296756,1.0699e-05,0,0,0,0,0,0,0,3.25275,-35.5458,2.86134,25.8322,1.53412,-0.0504244,0.0706026,
0.0576053,0.0988886,-0.0575825,-1.71972,0.0410843,0.239776,-0.0960711,0.0621396,0.094286,0.0608787,-0.125614,0.321786,-0.592397,0.0139182,11.3011,-4.93043,11.147,-10.9209,16.9225,-45.3139,1.92297,38.0203,-3.7499,36.8018,-20.2363,10.897,-14.1712,0.242898,0.0557405,0.0959802,-0.0594521,-1.71518,0.0355049,0.253749,-0.0966005,0.00548149,0.142567,0.0220564,-0.178581,0.0873244,-0.296756,1.0699e-05,0,0,0,0,0,0,0,3.25275,-35.5458,2.86134,25.8322,1.53412,-0.0504244,0.0706026,
0.0558518,0.0975355,-0.0593329,-1.71656,0.0357205,0.251774,-0.0965917,0.0524956,0.11431,0.0516846,-0.135047,0.26282,-0.523306,0.0113534,-6.02751,12.5149,-5.7463,-5.89538,-36.8541,43.1819,-1.60298,-0.00308792,33.9289,0.0634981,-23.2679,-1.10305,-2.1712,0.000568616,0.0557405,0.0959802,-0.0594521,-1.71518,0.0355049,0.253749,-0.0966005,0.00548149,0.142567,0.0220564,-0.178581,0.0873244,-0.296756,1.0699e-05,0,0,0,0,0,0,0,3.25275,-35.5458,2.86134,25.8322,1.53412,-0.0504244,0.0706026,
0.056711,0.0979943,-0.058491,-1.71882,0.0373492,0.247301,-0.0961041,0.0634753,0.102918,0.0623951,-0.164504,0.250972,-0.530454,0.0212744,6.86229,-7.11999,6.69408,-18.4107,-7.40488,-4.46746,6.20062,52.0093,-13.2159,49.8074,-32.1004,10.7061,-14.0332,0.593602,0.0557371,0.102724,-0.0597062,-1.71585,0.054628,0.220909,-0.096607,-0.00359428,0.170228,-0.0036613,-0.00789377,0.689727,-1.22834,-0.000709369,-1.13447,3.45765,-3.21472,21.3359,75.3004,-116.448,-0.0900084,6.37104,-39.0648,6.2375,20.5518,3.52539,-2.07191,0.11821,
0.0580297,0.0980694,-0.0572344,-1.72108,0.0404924,0.240592,-0.0958546,0.0837486,0.0842128,0.0813313,-0.188133,0.279359,-0.592097,0.023256,12.6708,-11.6907,11.8351,-14.7685,17.7416,-38.5265,1.2385,43.5018,-8.77623,41.581,-29.6752,10.7061,-14.0332,0.282373,0.0557371,0.102724,-0.0597062,-1.71585,0.054628,0.220909,-0.096607,-0.00359428,0.170228,-0.0036613,-0.00789377,0.689727,-1.22834,-0.000709369,0,0,0,0,0,0,0,6.37104,-39.0648,6.2375,20.5518,3.52539,-2.07191,0.11821,
0.059625,0.0980274,-0.0557182,-1.72317,0.0449837,0.232309,-0.0957621,0.106881,0.0663199,0.102969,-0.202892,0.335769,-0.680764,0.0209184,14.4578,-11.1831,13.5237,-9.22425,35.2565,-55.4169,-1.46099,37.8925,-5.08307,36.2391,-27.09,10.7061,-14.0332,0.100676,0.0557371,0.102724,-0.0597062,-1.71585,0.054628,0.220909,-0.096607,-0.00359428,0.170228,-0.0036613,-0.00789377,0.689727,-1.22834,-0.000709369,0,0,0,0,0,0,0,6.37104,-39.0648,6.2375,20.5518,3.52539,-2.07191,0.11821,
0.0558415,0.104091,-0.0595525,-1.71715,0.0578367,0.214843,-0.0965706,0.0881156,0.0872424,0.0862181,-0.194871,0.348834,-0.696253,0.017645,-11.7283,13.0766,-10.4695,5.01337,8.16545,-9.68092,-2.04588,-0.271117,34.5188,-0.203971,-23.5076,-1.29392,-2.03317,0.00224794,0.0557371,0.102724,-0.0597062,-1.71585,0.054628,0.220909,-0.096607,-0.00359428,0.170228,-0.0036613,-0.00789377,0.689727,-1.22834,-0.000709369,0,0,0,0,0,0,0,6.37104,-39.0648,6.2375,20.5518,3.52539,-2.07191,0.11821,
0.0568972,0.104161,-0.0584858,-1.72005,0.0610816,0.208271,-0.0959581,0.0968861,0.0715432,0.0956403,-0.228443,0.36019,-0.721304,0.0294274,5.48156,-9.81199,5.88885,-20.9826,7.09764,-15.6568,7.36399,58.8819,-15.7339,56.2621,-40.9379,10.7033,-13.7171,0.714845,0.0567504,0.104877,-0.0575728,-1.7253,0.0784647,0.180826,-0.0965257,0.0352105,0.0185155,0.127412,-0.455903,0.647875,-1.16879,0.00142562,4.8506,-18.9641,16.3842,-56.0011,-5.23157,7.4447,0.266873,13.0638,-38.315,12.1884,19.4052,2.74353,-1.91352,0.0577852,
0.0584785,0.104005,-0.0569366,-1.72292,0.0651281,0.200253,-0.0956963,0.117039,0.0533201,0.115242,-0.254434,0.389313,-0.777502,0.030087,12.5958,-11.3894,12.2513,-16.2446,18.2022,-35.1239,0.412245,47.5124,-8.11056,45.6765,-36.56,10.7033,-13.7171,0.270117,0.0567504,0.104877,-0.0575728,-1.7253,0.0784647,0.180826,-0.0965257,0.0352105,0.0185155,0.127412,-0.455903,0.647875,-1.16879,0.00142562,0,0,0,0,0,0,0,13.0638,-38.315,12.1884,19.4052,2.74353,-1.91352,0.0577852,
0.0603519,0.103868,-0.0551229,-1.72556,0.070163,0.191153,-0.0956451,0.140467,0.039243,0.137538,-0.269444,0.437323,-0.849501,0.0253504,14.6423,-8.79818,13.9346,-9.38154,30.0062,-44.9995,-2.96036,40.6203,-3.50586,39.1269,-33.3521,10.7033,-13.7171,0.0351984,0.0567504,0.104877,-0.0575728,-1.7253,0.0784647,0.180826,-0.0965257,0.0352105,0.0185155,0.127412,-0.455903,0.647875,-1.16879,0.00142562,0,0,0,0,0,0,0,13.0638,-38.315,12.1884,19.4052,2.74353,-1.91352,0.0577852,
0.0603428,0.104206,-0.0541149,-1.73275,0.0880283,0.160862,-0.0956354,0.163006,0.0236295,0.158574,-0.303795,0.475068,-0.937182,0.0263608,14.0872,-9.75844,13.1476,-21.4694,23.5907,-54.8004,0.631503,61.0618,-16.9543,57.6119,-46.0029,10.7033,-13.7171,0.745731,0.0567504,0.104877,-0.0575728,-1.7253,0.0784647,0.180826,-0.0965257,0.0352105,0.0185155,0.127412,-0.455903,0.647875,-1.16879,0.00142562,0,0,0,0,0,0,0,13.0638,-38.315,12.1884,19.4052,2.74353,-1.91352,0.0577852,
0.0625829,0.104017,-0.0519721,-1.73594,0.0938149,0.150185,-0.0956336,0.186408,0.0141753,0.18043,-0.322802,0.524717,-1.01667,0.0211355,14.626,-5.90888,13.6601,-11.8788,31.0306,-49.679,-3.26586,48.4859,-8.41495,46.1733,-40.5953,10.8138,-13.3206,0.238757,0.0589335,0.103663,-0.0506872,-1.74394,0.0976608,0.138977,-0.0960687,0.124283,-0.0391298,0.319784,-0.590617,0.581881,-1.33431,-0.00201023,11.1341,-7.20566,24.0465,-16.8393,-8.24918,-20.6903,-0.42948,16.9716,-36.9185,16.0129,25.8798,4.02618,-0.613474,0.124619,
0.0649158,0.103919,-0.0497434,-1.73893,0.10036,0.1395,-0.0957413,0.207449,0.00889057,0.20006,-0.333001,0.583412,-1.08047,0.0142156,13.1503,-3.30295,12.269,-6.37466,36.6841,-39.8745,-4.32489,40.8221,-4.07409,39.0528,-37.344,10.8138,-13.3206,-0.0285503,0.0589335,0.103663,-0.0506872,-1.74394,0.0976608,0.138977,-0.0960687,0.124283,-0.0391298,0.319784,-0.590617,0.581881,-1.33431,-0.00201023,0,0,0,0,0,0,0,16.9716,-36.9185,16.0129,25.8798,4.02618,-0.613474,0.124619,
0.0672732,0.103861,-0.0474928,-1.74183,0.107537,0.129042,-0.0958531,0.224894,0.0056639,0.216315,-0.33878,0.646154,-1.12584,0.0085772,10.9035,-2.01667,10.1591,-3.61161,39.2135,-28.3561,-3.52403,36.0418,-2.22529,34.5347,-35.1659,10.8138,-12.7706,-0.146811,0.0589335,0.103663,-0.0506872,-1.74394,0.0976608,0.138977,-0.0960687,0.124283,-0.0391298,0.319784,-0.590617,0.581881,-1.33431,-0.00201023,0,0,0,0,0,0,0,16.9716,-36.9185,16.0129,25.8798,4.02618,-0.613474,0.124619,
0.0653121,0.103753,-0.044562,-1.75541,0.11633,0.110884,-0.0965559,0.234883,0.00643239,0.225617,-0.361696,0.689766,-1.11153,0.00174589,6.24318,0.480307,5.81372,-14.323,27.2576,8.94167,-4.26957,39.5019,-4.51449,37.7947,-42.2718,10.8138,-9.65732,-0.133463,0.0589335,0.103663,-0.0506872,-1.74394,0.0976608,0.138977,-0.0960687,0.124283,-0.0391298,0.319784,-0.590617,0.581881,-1.33431,-0.00201023,0,0,0,0,0,0,0,16.9716,-36.9185,16.0129,25.8798,4.02618,-0.613474,0.124619,
0.0674995,0.103807,-0.0424706,-1.75894,0.12377,0.103377,-0.0967614,0.242591,0.00649893,0.232779,-0.37776,0.737826,-1.07691,-0.00374099,4.81701,0.0415904,4.47665,-10.0395,30.0375,21.6378,-3.4293,35.0944,-2.95374,33.6178,-39.9158,11.0608,-7.9243,-0.268613,0.0665526,0.10157,-0.0360698,-1.76618,0.120317,0.0889616,-0.0952286,0.394123,-0.146093,0.454747,-0.725607,0.741246,-1.57327,0.028747,33.73,-13.3704,16.8703,-16.8737,19.9205,-29.8697,3.84465,22.4981,-34.9944,20.7855,20.0757,4.20288,-1.30287,0.23906,
0.0696367,0.103845,-0.040427,-1.76237,0.131619,0.0966795,-0.0970013,0.247504,0.00615182,0.237314,-0.387963,0.786479,-1.02896,-0.00899015,3.07118,-0.216943,2.83391,-6.37691,30.4081,29.9659,-3.28073,31.7527,-2.90906,30.4409,-38.7532,11.0608,-6.80227,-0.262122,0.0665526,0.10157,-0.0360698,-1.76618,0.120317,0.0889616,-0.0952286,0.394123,-0.146093,0.454747,-0.725607,0.741246,-1.57327,0.028747,0,0,0,0,0,0,0,22.4981,-34.9944,20.7855,20.0757,4.20288,-1.30287,0.23906,
0.0777195,0.101324,-0.0254534,-1.78132,0.153197,0.0530689,-0.0961847,0.259695,0.00671407,0.248642,-0.395585,0.850463,-0.994592,-0.0132505,7.61891,0.351406,7.08029,-4.764,39.9904,21.4832,-2.66272,28.6667,-3.28943,27.5091,-38.184,11.0608,-5.92454,-0.256561,0.0665526,0.10157,-0.0360698,-1.76618,0.120317,0.0889616,-0.0952286,0.394123,-0.146093,0.454747,-0.725607,0.741246,-1.57327,0.028747,0,0,0,0,0,0,0,22.4981,-34.9944,20.7855,20.0757,4.20288,-1.30287,0.23906,
0.0800324,0.101387,-0.0232477,-1.78462,0.16214,0.047451,-0.0963984,0.265578,0.00694679,0.254056,-0.398848,0.903953,-0.936121,-0.0159418,3.67697,0.145447,3.38368,-2.03908,33.4311,36.544,-1.68208,25.9244,-3.03626,24.903,-37.3855,11.0608,-5.21975,-0.297,0.0665526,0.10157,-0.0360698,-1.76618,0.120317,0.0889616,-0.0952286,0.394123,-0.146093,0.454747,-0.725607,0.741246,-1.57327,0.028747,0,0,0,0,0,0,0,22.4981,-34.9944,20.7855,20.0757,4.20288,-1.30287,0.23906,
0.0822149,0.101429,-0.0211656,-1.78781,0.171089,0.042983,-0.0965814,0.267026,0.00662575,0.255298,-0.398987,0.946896,-0.860596,-0.0173293,0.904932,-0.200647,0.775974,-0.086869,26.8391,47.2032,-0.867163,24.2636,-2.49222,23.265,-36.0765,11.0806,-4.03704,-0.308468,0.0865274,0.0994764,-0.0218361,-1.79254,0.151539,0.0309004,-0.0950936,0.62188,-0.0126788,0.395657,-0.729926,0.992709,-1.6594,-0.00175629,28.4696,16.6768,-7.38625,-0.539846,31.433,-10.7665,-3.81291,18.618,-34.5699,17.6355,23.8882,3.8797,1.33568,0.0303194,
0.0842849,0.101447,-0.0191906,-1.79092,0.18,0.0396156,-0.0967367,0.265371,0.0057473,0.253613,-0.39693,0.980282,-0.772662,-0.0177463,-1.03403,-0.549035,-1.05296,1.28546,20.8665,54.9587,-0.260607,23.0778,-2.22407,22.1226,-35.2496,11.0806,-3.62214,-0.288322,0.0865274,0.0994764,-0.0218361,-1.79254,0.151539,0.0309004,-0.0950936,0.62188,-0.0126788,0.395657,-0.729926,0.992709,-1.6594,-0.00175629,0,0,0,0,0,0,0,18.618,-34.5699,17.6355,23.8882,3.8797,1.33568,0.0303194,
0.101276,0.101669,-0.00785509,-1.8117,0.198165,-0.00149391,-0.0959389,0.27209,0.0124717,0.259809,-0.402257,1.01914,-0.674747,-0.0170746,4.19904,4.20277,3.87253,-3.32928,24.287,61.1972,0.419792,22.1812,-2.07292,21.2489,-34.5039,11.0806,-2.26946,-0.254277,0.0865274,0.0994764,-0.0218361,-1.79254,0.151539,0.0309004,-0.0950936,0.62188,-0.0126788,0.395657,-0.729926,0.992709,-1.6594,-0.00175629,0,0,0,0,0,0,0,18.618,-34.5699,17.6355,23.8882,3.8797,1.33568,0.0303194,
0.10349,0.101901,-0.00574723,-1.81495,0.207414,-0.00203814,-0.0960337,0.273015,0.015768,0.260544,-0.403035,1.04652,-0.553403,-0.0160302,0.57814,2.06019,0.459206,-0.48665,17.113,75.8397,0.652762,21.3968,-2.01835,20.4923,-33.856,11.0806,-1.17601,-0.217377,0.0865274,0.0994764,-0.0218361,-1.79254,0.151539,0.0309004,-0.0950936,0.62188,-0.0126788,0.395657,-0.729926,0.992709,-1.6594,-0.00175629,0,0,0,0,0,0,0,18.618,-34.5699,17.6355,23.8882,3.8797,1.33568,0.0303194,
0.105554,0.102058,-0.0037817,-1.81806,0.216504,-0.00111418,-0.0961084,0.270014,0.0165604,0.257573,-0.400336,1.06447,-0.419624,-0.0146922,-1.87541,0.495238,-1.85665,1.68725,11.2158,83.6121,0.83624,20.717,-2.24252,19.7557,-32.195,11.0565,0.736321,-0.191523,0.105161,0.0989709,0.000509179,-1.82253,0.191162,-0.0116973,-0.0961009,0.478875,0.0208572,0.837216,-0.897138,1.30238,-1.06424,-0.0389918,-17.8757,4.192,55.1949,-20.9016,38.7083,74.3943,-4.65444,7.91828,-38.438,7.83632,29.8431,4.33105,0.858694,0.0303194,
0.12478,0.103055,0.0191532,-1.84513,0.253676,-0.0181883,-0.0965564,0.274756,0.0220329,0.261848,-0.395447,1.0941,-0.260959,-0.0123133,2.96397,3.42028,2.67172,3.05522,18.5221,99.1656,1.48681,18.8089,-2.26066,17.9236,-30.6267,11.0565,6.04509,-0.109307,0.105161,0.0989709,0.000509179,-1.82253,0.191162,-0.0116973,-0.0961009,0.478875,0.0208572,0.837216,-0.897138,1.30238,-1.06424,-0.0389918,0,0,0,0,0,0,0,7.91828,-38.438,7.83632,29.8431,4.33105,0.858694,0.0303194,
0.126913,0.103302,0.0211787,-1.84796,0.263082,-0.0143665,-0.0965604,0.273138,0.0238071,0.260118,-0.38706,1.11043,-0.113222,-0.00995007,-1.01168,1.1089,-1.08118,5.24241,10.2029,92.3353,1.47702,18.2993,-2.25768,17.4458,-30.2319,11.0565,7.08339,-0.0856572,0.105161,0.0989709,0.000509179,-1.82253,0.191162,-0.0116973,-0.0961009,0.478875,0.0208572,0.837216,-0.897138,1.30238,-1.06424,-0.0389918,0,0,0,0,0,0,0,7.91828,-38.438,7.83632,29.8431,4.33105,0.858694,0.0303194,
0.128867,0.103465,0.0230335,-1.85064,0.272232,-0.00993763,-0.0965483,0.267358,0.0231284,0.254463,-0.376533,1.11709,0.020144,-0.00765832,-3.6122,-0.424218,-3.53426,6.57918,4.16436,83.354,1.43235,17.8463,-2.16828,17.0243,-29.835,11.0565,7.84209,-0.0655033,0.105161,0.0989709,0.000509179,-1.82253,0.191162,-0.0116973,-0.0961009,0.478875,0.0208572,0.837216,-0.897138,1.30238,-1.06424,-0.0389918,0,0,0,0,0,0,0,7.91828,-38.438,7.83632,29.8431,4.33105,0.858694,0.0303194,
0.130671,0.103562,0.0247452,-1.85318,0.281165,-0.00507729,-0.0965214,0.258981,0.0209215,0.246364,-0.364872,1.11701,0.137624,-0.00545339,-5.23565,-1.37931,-5.06225,7.28812,-0.0528562,73.4247,1.37808,17.2587,-2.65888,16.3519,-28.6616,10.7845,8.7977,-0.0495929,0.12308,0.099934,0.029714,-1.85289,0.239247,-0.0409297,-0.0968522,0.621514,0.100157,0.772148,-0.870512,1.48017,-0.588355,-0.00694257,17.8299,9.91245,-8.13354,3.32821,22.2248,59.486,4.00615,-0.754208,-40.612,-0.911547,33.5526,2.79846,4.61144,0.0101778,
0.143224,0.105083,0.0488048,-1.87406,0.302921,-0.0357073,-0.0968841,0.265125,0.0268557,0.252036,-0.359791,1.12664,0.203008,-0.00321745,3.83978,3.7089,3.54512,3.17538,6.02152,40.8652,1.39746,16.5654,-2.17749,15.714,-27.8209,10.7845,9.30945,-0.0117517,0.12308,0.099934,0.029714,-1.85289,0.239247,-0.0409297,-0.0968522,0.621514,0.100157,0.772148,-0.870512,1.48017,-0.588355,-0.00694257,0,0,0,0,0,0,0,-0.754208,-40.612,-0.911547,33.5526,2.79846,4.61144,0.0101778,
0.145298,0.105365,0.0507713,-1.8766,0.311673,-0.0315042,-0.096828,0.263949,0.0285184,0.250791,-0.351283,1.12011,0.267482,-0.00117098,-0.734884,1.03918,-0.777872,5.31741,-4.08337,40.2964,1.27905,16.2495,-1.90647,15.424,-27.3958,10.7845,9.37508,0.00744444,0.12308,0.099934,0.029714,-1.85289,0.239247,-0.0409297,-0.0968522,0.621514,0.100157,0.772148,-0.870512,1.48017,-0.588355,-0.00694257,0,0,0,0,0,0,0,-0.754208,-40.612,-0.911547,33.5526,2.79846,4.61144,0.0101778,
0.147175,0.10555,0.0525503,-1.87898,0.319724,-0.0270038,-0.0967712,0.258094,0.0274412,0.245109,-0.340492,1.09737,0.326498,0.000482523,-3.65957,-0.673245,-3.55107,6.74468,-14.2093,36.8847,1.03344,15.9115,-1.63159,15.1132,-26.9744,10.7845,9.34284,0.0244204,0.12308,0.099934,0.029714,-1.85289,0.239247,-0.0409297,-0.0968522,0.621514,0.100157,0.772148,-0.870512,1.48017,-0.588355,-0.00694257,0,0,0,0,0,0,0,-0.754208,-40.612,-0.911547,33.5526,2.79846,4.61144,0.0101778,
0.148903,0.105659,0.0541855,-1.88121,0.326777,-0.0223485,-0.096717,0.249682,0.0246693,0.236967,-0.328082,1.05422,0.377579,0.00174207,-5.25743,-1.73245,-5.08891,7.7562,-26.9697,31.9261,0.787216,15.5655,-1.36278,14.7945,-26.559,10.7845,9.25653,0.0405457,0.12308,0.099934,0.029714,-1.85289,0.239247,-0.0409297,-0.0968522,0.621514,0.100157,0.772148,-0.870512,1.48017,-0.588355,-0.00694257,0,0,0,0,0,0,0,-0.754208,-40.612,-0.911547,33.5526,2.79846,4.61144,0.0101778,
0.169333,0.100937,0.0696371,-1.88165,0.466324,-0.0488631,-0.0983899,0.199949,0.0155795,0.188712,-0.258516,0.876082,0.315083,0.000968165,-31.083,-5.68111,-30.1596,43.4786,-111.337,-39.0604,-0.48369,3.79677,-0.460694,3.65257,-1.64646,1.15461,1.99412,-0.0224299,0.146226,0.102475,0.0500302,-1.88219,0.294252,-0.0380768,-0.097022,0.662334,0.107891,0.597036,-0.835482,1.59327,0.46109,-0.000552888,5.10252,0.966748,-21.889,4.37879,14.137,131.181,0.79871,-10.4185,-42.7306,-8.96117,35.0244,1.57714,6.26855,-0.0301054,
0.169341,0.100771,0.0696026,-1.88149,0.467629,-0.0483447,-0.0984069,0.160163,0.00830979,0.150108,-0.202876,0.733484,0.265026,0.000349546,-24.8665,-4.54357,-24.1272,34.7748,-89.1237,-31.2855,-0.386637,3.82846,-0.470167,3.7005,-1.29522,1.75796,1.53944,-0.0249224,0.146226,0.102475,0.0500302,-1.88219,0.294252,-0.0380768,-0.097022,0.662334,0.107891,0.597036,-0.835482,1.59327,0.46109,-0.000552888,0,0,0,0,0,0,0,-10.4185,-42.7306,-8.96117,35.0244,1.57714,6.26855,-0.0301054,
0.169349,0.100605,0.0695682,-1.88134,0.46893,-0.0478287,-0.0984239,0.128333,0.0024961,0.119226,-0.158378,0.619319,0.224922,-0.000144845,-19.8933,-3.63355,-19.3013,27.8118,-71.3531,-25.0654,-0.308995,3.87711,-0.477495,3.76619,-0.951263,2.47274,1.004,-0.027057,0.146226,0.102475,0.0500302,-1.88219,0.294252,-0.0380768,-0.097022,0.662334,0.107891,0.597036,-0.835482,1.59327,0.46109,-0.000552888,0,0,0,0,0,0,0,-10.4185,-42.7306,-8.96117,35.0244,1.57714,6.26855,-0.0301054,
0.150432,0.104297,0.05403,-1.88483,0.30349,-0.0385987,-0.0970794,0.207824,0.0475391,0.195376,-0.192475,0.72639,0.16689,-0.0015516,49.6816,28.1519,47.5936,-21.311,66.9194,-36.2697,-0.87922,3.79677,-0.460694,3.65257,-1.64646,1.15461,1.99412,-0.0224299,0.146226,0.102475,0.0500302,-1.88219,0.294252,-0.0380768,-0.097022,0.662334,0.107891,0.597036,-0.835482,1.59327,0.46109,-0.000552888,0,0,0,0,0,0,0,-10.4185,-42.7306,-8.96117,35.0244,1.57714,6.26855,-0.0301054,
0.153817,0.105884,0.0572471,-1.88632,0.310839,-0.040111,-0.0971451,0.250877,0.0777232,0.236728,-0.191307,0.764849,0.0957051,-0.00288426,26.9085,18.865,25.8451,0.730114,24.0366,-44.4905,-0.832917,3.77709,-0.923486,3.55057,-1.31595,1.49067,1.41141,-0.0242389,0.166875,0.105387,0.0697264,-1.90919,0.3503,-0.0146718,-0.0970181,0.579027,0.0831462,0.570662,-0.762762,1.51983,0.76622,-5.67019e-05,-10.4134,-3.09308,-3.29679,9.09,-9.17984,38.1413,0.0620232,-11.331,-40.985,-10.5838,32.7551,0.410763,4.31939,0.0303194,
0.156538,0.107092,0.0598297,-1.88737,0.317018,-0.0418805,-0.0972041,0.268735,0.0923676,0.253946,-0.179246,0.766351,0.0323264,-0.0037811,11.1608,9.15276,10.7614,7.53833,0.939222,-39.6117,-0.560522,3.82573,-0.930814,3.61625,-0.97199,2.20545,0.875965,-0.0263735,0.166875,0.105387,0.0697264,-1.90919,0.3503,-0.0146718,-0.0970181,0.579027,0.0831462,0.570662,-0.762762,1.51983,0.76622,-5.67019e-05,0,0,0,0,0,0,0,-11.331,-40.985,-10.5838,32.7551,0.410763,4.31939,0.0303194,
0.158728,0.107974,0.0619047,-1.88816,0.322482,-0.0437635,-0.0972546,0.26975,0.0959557,0.255033,-0.163225,0.749674,-0.0212144,-0.00428685,0.634468,2.24254,0.679221,10.0127,-10.4232,-33.463,-0.316092,3.88038,-0.934663,3.68865,-0.63548,3.03068,0.263681,-0.0279166,0.166875,0.105387,0.0697264,-1.90919,0.3503,-0.0146718,-0.0970181,0.579027,0.0831462,0.570662,-0.762762,1.51983,0.76622,-5.67019e-05,0,0,0,0,0,0,0,-11.331,-40.985,-10.5838,32.7551,0.410763,4.31939,0.0303194,
0.182909,0.111361,0.0845957,-1.91398,0.417622,-0.0346299,-0.097372,0.229318,0.0755738,0.21582,-0.129735,0.668803,-0.0296313,-0.00406924,-25.2698,-12.7387,-24.5084,20.9314,-50.5445,-5.26056,0.136005,2.81312,-0.768393,2.72116,1.383,8.91931,-3.5893,0.00798026,0.166875,0.105387,0.0697264,-1.90919,0.3503,-0.0146718,-0.0970181,0.579027,0.0831462,0.570662,-0.762762,1.51983,0.76622,-5.67019e-05,0,0,0,0,0,0,0,-11.331,-40.985,-10.5838,32.7551,0.410763,4.31939,0.0303194,
0.183348,0.111279,0.0849689,-1.91392,0.420076,-0.0349128,-0.0973962,0.19443,0.0584121,0.181984,-0.102137,0.596393,-0.03078,-0.0038603,-21.8049,-10.726,-21.1472,17.2491,-45.2562,-0.717947,0.130585,1.42433,-1.40595,1.25142,1.35407,9.51176,-4.301,0.0396883,0.179879,0.110391,0.0884954,-1.9226,0.386905,-0.00288267,-0.0970143,0.421179,0.177407,0.368634,-0.110771,0.79872,-0.0170164,-0.000673868,-19.731,11.7826,-25.2536,81.4988,-90.1389,-97.9046,-0.0771457,-16.8058,-47.4754,-15.285,36.6669,-1.65375,2.79412,-0.0429228,
0.183704,0.111172,0.0852616,-1.91382,0.4223,-0.0350182,-0.0974192,0.164439,0.0440694,0.152905,-0.0794339,0.532695,-0.0272573,-0.0036634,-18.7444,-8.96419,-18.1743,14.1892,-39.8111,2.20168,0.123066,0.510358,-1.55166,-0.186911,1.56084,9.68619,-4.2012,-0.0104891,0.179879,0.110391,0.0884954,-1.9226,0.386905,-0.00288267,-0.0970143,0.421179,0.177407,0.368634,-0.110771,0.79872,-0.0170164,-0.000673868,0,0,0,0,0,0,0,-16.8058,-47.4754,-15.285,36.6669,-1.65375,2.79412,-0.0429228,
0.183992,0.111048,0.085489,-1.91371,0.424348,-0.0349819,-0.0974412,0.138753,0.0321547,0.12801,-0.0607884,0.477368,-0.0208981,-0.0034809,-16.0537,-7.44672,-15.5593,11.6534,-34.5793,3.97451,0.11406,-0.242995,-1.28997,-0.285163,2.19134,8.29038,-2.94688,-0.0490744,0.179879,0.110391,0.0884954,-1.9226,0.386905,-0.00288267,-0.0970143,0.421179,0.177407,0.368634,-0.110771,0.79872,-0.0170164,-0.000673868,0,0,0,0,0,0,0,-16.8058,-47.4754,-15.285,36.6669,-1.65375,2.79412,-0.0429228,
0.188139,0.113034,0.0960568,-1.92407,0.408539,-0.00753937,-0.0972521,0.135204,0.0297858,0.124115,-0.0510335,0.462101,-0.0354179,-0.00363082,-2.21842,-1.48058,-2.43444,6.09679,-9.54224,-9.07485,-0.0936979,0.0829078,-1.63536,-0.506178,2.47012,2.91791,0.399995,-0.0255061,0.179879,0.110391,0.0884954,-1.9226,0.386905,-0.00288267,-0.0970143,0.421179,0.177407,0.368634,-0.110771,0.79872,-0.0170164,-0.000673868,0,0,0,0,0,0,0,-16.8058,-47.4754,-15.285,36.6669,-1.65375,2.79412,-0.0429228,
0.188907,0.113106,0.0967351,-1.92411,0.411393,-0.00811447,-0.0972822,0.127356,0.0256355,0.116249,-0.0417911,0.441039,-0.0427119,-0.00365805,-4.90523,-2.59389,-4.91649,5.77648,-13.1638,-4.55875,-0.0170179,0.100994,-1.58052,-0.58386,2.36721,1.93417,0.918078,-0.0242954,0.196752,0.116992,0.0972649,-1.92212,0.414367,-0.00322035,-0.0970262,0.279109,0.126753,0.363248,0.00834244,1.10309,-0.0930681,-0.000582157,-17.7587,-6.3318,-0.673189,14.8892,38.046,-9.50645,0.0114638,-11.6841,-44.254,-9.65941,25.257,2.30316,-3.14674,0.017502,
0.189517,0.113113,0.097264,-1.9241,0.413965,-0.00852212,-0.0973095,0.117144,0.0206882,0.106221,-0.0332591,0.417129,-0.0443606,-0.00360966,-6.38198,-3.09209,-6.26723,5.33251,-14.9435,-1.03044,0.0302434,0.100994,-1.58052,-0.58386,2.36721,1.93417,0.918078,-0.0242954,0.196752,0.116992,0.0972649,-1.92212,0.414367,-0.00322035,-0.0970262,0.279109,0.126753,0.363248,0.00834244,1.10309,-0.0930681,-0.000582157,0,0,0,0,0,0,0,-11.6841,-44.254,-9.65941,25.257,2.30316,-3.14674,0.017502,
0.190004,0.113073,0.0976751,-1.92406,0.416312,-0.00877622,-0.0973347,0.105878,0.015553,0.0952544,-0.025534,0.392379,-0.0418411,-0.00351733,-7.04161,-3.20947,-6.85439,4.82819,-15.4689,1.57468,0.0577061,0.100994,-1.58052,-0.58386,2.36721,1.93417,0.918078,-0.0242954,0.196752,0.116992,0.0972649,-1.92212,0.414367,-0.00322035,-0.0970262,0.279109,0.126753,0.363248,0.00834244,1.10309,-0.0930681,-0.000582157,0,0,0,0,0,0,0,-11.6841,-44.254,-9.65941,25.257,2.30316,-3.14674,0.017502,
0.205459,0.117637,0.105152,-1.92183,0.447194,-0.00683296,-0.0973186,0.0956963,0.00907903,0.0852845,-0.0174017,0.37249,-0.0347393,-0.00342598,-6.3634,-4.04626,-6.23123,5.08269,-12.4306,4.43864,0.057093,0.100994,-1.58052,-0.58386,2.36721,1.93417,0.918078,-0.0242954,0.196752,0.116992,0.0972649,-1.92212,0.414367,-0.00322035,-0.0970262,0.279109,0.126753,0.363248,0.00834244,1.10309,-0.0930681,-0.000582157,0,0,0,0,0,0,0,-11.6841,-44.254,-9.65941,25.257,2.30316,-3.14674,0.017502,
0.205812,0.11749,0.105432,-1.9217,0.449335,-0.0067807,-0.0973416,0.0853869,0.00359598,0.0752373,-0.0106075,0.351516,-0.0264849,-0.00331633,-6.44341,-3.4269,-6.27946,4.24636,-13.109,5.15899,0.068529,0.0650371,-1.83553,-0.676482,2.30434,1.77815,0.819685,-0.0227068,0.203338,0.119684,0.106735,-1.92273,0.449899,-0.00737522,-0.0970257,0.278845,0.0787108,0.116191,0.014755,0.570985,0.0252954,-0.000725534,-0.0329403,-6.00522,-30.8822,0.801573,-66.5129,14.7954,-0.0179221,-9.6806,-40.7866,-8.68743,24.4873,-1.28113,0.115286,0.00376909,
0.206096,0.117336,0.105647,-1.92156,0.451318,-0.00663935,-0.0973634,0.075412,-0.000978153,0.0655466,-0.00494783,0.330783,-0.0176542,-0.00319965,-6.23429,-2.85884,-6.05668,3.53731,-12.958,5.51921,0.072928,0.0650371,-1.83553,-0.676482,2.30434,1.77815,0.819685,-0.0227068,0.203338,0.119684,0.106735,-1.92273,0.449899,-0.00737522,-0.0970257,0.278845,0.0787108,0.116191,0.014755,0.570985,0.0252954,-0.000725534,0,0,0,0,0,0,0,-9.6806,-40.7866,-8.68743,24.4873,-1.28113,0.115286,0.00376909,
0.208994,0.119537,0.111478,-1.92187,0.474222,-0.00641166,-0.0972965,0.0645192,-0.00440638,0.0549077,-0.000258025,0.305782,-0.00585393,-0.00305602,-6.80801,-2.14264,-6.64931,2.93113,-15.6256,7.37514,0.0897655,0.0650371,-1.83553,-0.676482,2.30434,1.77815,0.819685,-0.0227068,0.203338,0.119684,0.106735,-1.92273,0.449899,-0.00737522,-0.0970257,0.278845,0.0787108,0.116191,0.014755,0.570985,0.0252954,-0.000725534,0,0,0,0,0,0,0,-9.6806,-40.7866,-8.68743,24.4873,-1.28113,0.115286,0.00376909,
0.209129,0.119388,0.111546,-1.92172,0.475805,-0.00603472,-0.0973158,0.0550038,-0.00725465,0.0456337,0.00362722,0.28419,0.00474039,-0.00292793,-5.94713,-1.78017,-5.79626,2.42828,-13.495,6.62145,0.0800595,0.0650371,-1.83553,-0.676482,2.30434,1.77815,0.819685,-0.0227068,0.203338,0.119684,0.106735,-1.92273,0.449899,-0.00737522,-0.0970257,0.278845,0.0787108,0.116191,0.014755,0.570985,0.0252954,-0.000725534,0,0,0,0,0,0,0,-9.6806,-40.7866,-8.68743,24.4873,-1.28113,0.115286,0.00376909,
0.209239,0.119236,0.11159,-1.92156,0.477336,-0.00561898,-0.0973347,0.0467534,-0.00960214,0.0376067,0.00683841,0.265643,0.0141859,-0.00281499,-5.15649,-1.46718,-5.01686,2.007,-11.5918,5.90344,0.0705874,0.113453,-1.89623,-0.656237,2.2092,1.72989,0.763794,-0.0221915,0.208275,0.120122,0.111928,-1.92286,0.461291,-0.00476669,-0.0970324,0.108555,-0.00828167,0.0954435,-0.0131454,0.494055,0.0523313,-9.22983e-05,-21.2862,-10.8741,-2.59339,-3.48755,-9.61622,3.37948,0.0791545,-6.86779,-36.9661,-5.63658,26.4035,2.76733,0.394522,0.0303194,
0.209329,0.119082,0.111615,-1.9214,0.478827,-0.00517108,-0.0973533,0.0396442,-0.0115241,0.0307004,0.00948621,0.249782,0.022546,-0.00271629,-4.44324,-1.20126,-4.31645,1.65488,-9.91346,5.22509,0.0616882,0.113453,-1.89623,-0.656237,2.2092,1.72989,0.763794,-0.0221915,0.208275,0.120122,0.111928,-1.92286,0.461291,-0.00476669,-0.0970324,0.108555,-0.00828167,0.0954435,-0.0131454,0.494055,0.0523313,-9.22983e-05,0,0,0,0,0,0,0,-6.86779,-36.9661,-5.63658,26.4035,2.76733,0.394522,0.0303194,
0.210621,0.119532,0.113866,-1.9222,0.473969,-0.00381563,-0.0971544,0.0389153,-0.0131207,0.0299144,0.0115016,0.249839,0.0243263,-0.00272261,-0.45559,-0.99786,-0.491283,1.25963,0.0355801,1.11265,-0.0039537,0.113453,-1.89623,-0.656237,2.2092,1.72989,0.763794,-0.0221915,0.208275,0.120122,0.111928,-1.92286,0.461291,-0.00476669,-0.0970324,0.108555,-0.00828167,0.0954435,-0.0131454,0.494055,0.0523313,-9.22983e-05,0,0,0,0,0,0,0,-6.86779,-36.9661,-5.63658,26.4035,2.76733,0.394522,0.0303194,
0.210853,0.119369,0.114027,-1.92204,0.475822,-0.00351704,-0.0971754,0.0369296,-0.0145519,0.0279423,0.0132028,0.246218,0.0269257,-0.00270341,-1.24105,-0.894464,-1.23256,1.06321,-2.26292,1.62463,0.0120024,0.113453,-1.89623,-0.656237,2.2092,1.72989,0.763794,-0.0221915,0.208275,0.120122,0.111928,-1.92286,0.461291,-0.00476669,-0.0970324,0.108555,-0.00828167,0.0954435,-0.0131454,0.494055,0.0523313,-9.22983e-05,0,0,0,0,0,0,0,-6.86779,-36.9661,-5.63658,26.4035,2.76733,0.394522,0.0303194,
0.21104,0.119204,0.114144,-1.92188,0.477563,-0.0031747,-0.0971956,0.034222,-0.0157716,0.025293,0.0146288,0.240491,0.0300991,-0.00266874,-1.69224,-0.762304,-1.65581,0.891297,-3.57945,1.9834,0.0216663,0.113453,-1.89623,-0.656237,2.2092,1.72989,0.763794,-0.0221915,0.208275,0.120122,0.111928,-1.92286,0.461291,-0.00476669,-0.0970324,0.108555,-0.00828167,0.0954435,-0.0131454,0.494055,0.0523313,-9.22983e-05,0,0,0,0,0,0,0,-6.86779,-36.9661,-5.63658,26.4035,2.76733,0.394522,0.0303194,
0.211191,0.119038,0.114227,-1.92171,0.479216,-0.00279331,-0.0972152,0.0311625,-0.016774,0.0223181,0.0158176,0.233706,0.033614,-0.00262564,-1.9122,-0.626504,-1.85931,0.743004,-4.2405,2.19677,0.0269368,0.103959,-1.93317,-0.672543,2.18102,1.69263,0.760053,-0.0218613,0.212009,0.119301,0.114313,-1.92277,0.471776,-0.00508265,-0.0970295,0.0199088,-0.0109695,0.135323,0.0135789,0.400517,-0.0340592,-0.000583703,-11.0808,-0.335979,4.98487,3.34053,-11.6923,-10.7988,-0.0614256,-3.64636,-35.4189,-2.88725,25.9552,2.25464,2.76757,0.00376909,
0.213575,0.118698,0.115586,-1.92221,0.481126,-0.00502064,-0.0971235,0.0319155,-0.0175872,0.0230184,0.0164289,0.23627,0.0311336,-0.00263807,0.470638,-0.508264,0.437739,0.382035,1.60268,-1.55026,-0.00776296,0.103853,-1.9334,-0.672676,2.1813,1.68891,0.763824,-0.0218588,0.212009,0.119301,0.114313,-1.92277,0.471776,-0.00508265,-0.0970295,0.0199088,-0.0109695,0.135323,0.0135789,0.400517,-0.0340592,-0.000583703,0,0,0,0,0,0,0,-3.64636,-35.4189,-2.88725,25.9552,2.25464,2.76757,0.00376909,
0.213801,0.118529,0.115742,-1.92205,0.482951,-0.00477468,-0.0971442,0.0311961,-0.0183128,0.0223043,0.0170326,0.234624,0.031056,-0.00262766,-0.449641,-0.453496,-0.446319,0.37732,-1.02862,-0.0484925,0.00650175,0.10386,-1.9334,-0.672669,2.1813,1.68893,0.763789,-0.0218588,0.212009,0.119301,0.114313,-1.92277,0.471776,-0.00508265,-0.0970295,0.0199088,-0.0109695,0.135323,0.0135789,0.400517,-0.0340592,-0.000583703,0,0,0,0,0,0,0,-3.64636,-35.4189,-2.88725,25.9552,2.25464,2.76757,0.00376909,
0.213985,0.118358,0.115856,-1.92189,0.484662,-0.00446538,-0.0971642,0.0295524,-0.018917,0.0207049,0.0176015,0.23048,0.0325773,-0.00260263,-1.02731,-0.377614,-0.999645,0.355567,-2.59051,0.950858,0.0156449,0.103865,-1.9334,-0.672664,2.18129,1.68896,0.763753,-0.0218588,0.212009,0.119301,0.114313,-1.92277,0.471776,-0.00508265,-0.0970295,0.0199088,-0.0109695,0.135323,0.0135789,0.400517,-0.0340592,-0.000583703,0,0,0,0,0,0,0,-3.64636,-35.4189,-2.88725,25.9552,2.25464,2.76757,0.00376909,
0.214489,0.118713,0.115703,-1.92182,0.487862,-0.00465523,-0.0971113,0.0262114,-0.0180043,0.0174754,0.0173759,0.221961,0.0356013,-0.00253745,-2.0881,0.57042,-2.01845,-0.141004,-5.32432,1.88999,0.0407369,0.0999615,-1.96277,-0.682045,2.1602,1.61643,0.791498,-0.0216556,0.213948,0.11903,0.115419,-1.9223,0.481177,-0.00568541,-0.0970356,-0.0148925,0.0079248,0.0607853,0.022174,0.257988,-0.0140936,-0.00065287,-4.35017,2.36179,-9.31715,1.0744,-17.8162,2.4957,-0.00864589,-1.26202,-37.8389,-0.213304,26.0068,2.93304,2.05163,0.0303194,
0.214574,0.118586,0.115722,-1.92168,0.489304,-0.00422386,-0.0971294,0.0231085,-0.0175622,0.0144731,0.0174039,0.213629,0.0392654,-0.00248177,-1.93935,0.27633,-1.87642,0.0174868,-5.20716,2.29007,0.0347995,0.100018,-1.96273,-0.681986,2.16017,1.6167,0.791103,-0.0216558,0.213948,0.11903,0.115419,-1.9223,0.481177,-0.00568541,-0.0970356,-0.0148925,0.0079248,0.0607853,0.022174,0.257988,-0.0140936,-0.00065287,0,0,0,0,0,0,0,-1.26202,-37.8389,-0.213304,26.0068,2.93304,2.05163,0.0303194,
0.214646,0.118452,0.115728,-1.92154,0.490703,-0.00375367,-0.0971473,0.0202661,-0.0174138,0.0117235,0.0175893,0.205872,0.043167,-0.00243383,-1.77646,0.0927064,-1.71847,0.115855,-4.84806,2.43847,0.0299612,0.100065,-1.96269,-0.681935,2.16014,1.61699,0.790705,-0.021656,0.213948,0.11903,0.115419,-1.9223,0.481177,-0.00568541,-0.0970356,-0.0148925,0.0079248,0.0607853,0.022174,0.257988,-0.0140936,-0.00065287,0,0,0,0,0,0,0,-1.26202,-37.8389,-0.213304,26.0068,2.93304,2.05163,0.0303194,
0.214705,0.118311,0.115723,-1.92138,0.49207,-0.00325314,-0.0971651,0.0176943,-0.0174432,0.00923766,0.0178629,0.198865,0.0470468,-0.0023923,-1.6074,-0.0183551,-1.55368,0.171009,-4.3795,2.4249,0.0259587,0.100106,-1.96266,-0.68189,2.16011,1.61728,0.790304,-0.0216563,0.213948,0.11903,0.115419,-1.9223,0.481177,-0.00568541,-0.0970356,-0.0148925,0.0079248,0.0607853,0.022174,0.257988,-0.0140936,-0.00065287,0,0,0,0,0,0,0,-1.26202,-37.8389,-0.213304,26.0068,2.93304,2.05163,0.0303194,
0.215856,0.117706,0.116499,-1.92116,0.496451,-0.00177538,-0.0971464,0.0160196,-0.0178378,0.0076133,0.0181758,0.186742,0.0558266,-0.00235993,-1.04669,-0.246646,-1.01523,0.195585,-7.577,5.48733,0.0202314,0.091822,-1.99043,-0.695717,2.17062,1.23028,1.14298,-0.0213486,0.215105,0.118611,0.116153,-1.92197,0.488891,-0.0051488,-0.0970395,0.0447406,-0.0224838,-0.000415665,-0.000152739,0.219218,0.0252475,-0.000818382,7.45414,-3.80108,-7.65013,-2.79085,-4.84615,4.91763,-0.0206889,-1.11126,-36.6408,-0.411669,26.2289,3.07312,0.931021,0.0641939,
0.215917,0.11755,0.116495,-1.921,0.49753,-0.00101669,-0.0971641,0.0143572,-0.018181,0.00600368,0.0185055,0.176357,0.0636284,-0.00233014,-1.03898,-0.21445,-1.00601,0.206038,-6.49067,4.87617,0.0186204,0.0920608,-1.99008,-0.695464,2.17032,1.2332,1.13908,-0.0213528,0.215105,0.118611,0.116153,-1.92197,0.488891,-0.0051488,-0.0970395,0.0447406,-0.0224838,-0.000415665,-0.000152739,0.219218,0.0252475,-0.000818382,0,0,0,0,0,0,0,-1.11126,-36.6408,-0.411669,26.2289,3.07312,0.931021,0.0641939,
0.215969,0.117393,0.116482,-1.92084,0.498588,-0.000235251,-0.0971816,0.0127629,-0.0184742,0.00446276,0.0188278,0.167529,0.0704387,-0.00230284,-0.996447,-0.183297,-0.963072,0.201453,-5.51723,4.25641,0.0170634,0.0922712,-1.98974,-0.695239,2.17001,1.23616,1.13517,-0.0213566,0.215105,0.118611,0.116153,-1.92197,0.488891,-0.0051488,-0.0970395,0.0447406,-0.0224838,-0.000415665,-0.000152739,0.219218,0.0252475,-0.000818382,0,0,0,0,0,0,0,-1.11126,-36.6408,-0.411669,26.2289,3.07312,0.931021,0.0641939,
0.216011,0.117235,0.11646,-1.92068,0.49963,0.000562535,-0.0971991,0.0112717,-0.0187212,0.00302418,0.0191282,0.160071,0.0762956,-0.00227796,-0.93198,-0.154369,-0.899111,0.187752,-4.6616,3.66057,0.0155459,0.0924569,-1.98941,-0.695038,2.16969,1.23917,1.13124,-0.021361,0.215105,0.118611,0.116153,-1.92197,0.488891,-0.0051488,-0.0970395,0.0447406,-0.0224838,-0.000415665,-0.000152739,0.219218,0.0252475,-0.000818382,0,0,0,0,0,0,0,-1.11126,-36.6408,-0.411669,26.2289,3.07312,0.931021,0.0641939,
0.216714,0.104623,0.112163,-1.90853,0.598774,0.0405377,-0.098562,0.00921019,-0.0186761,0.00117045,0.0184586,0.154804,0.0718014,-0.00221467,-1.28847,0.0281749,-1.15858,-0.41852,-3.29145,-2.80884,0.0395566,0.0948664,-1.97075,-0.69329,2.13329,1.21948,1.11757,-0.0212524,0.215699,0.118179,0.116328,-1.9214,0.495758,-0.00205369,-0.0970372,0.00777296,0.00341611,0.010037,0.0406224,0.174712,0.138943,-0.000640453,-4.62095,3.23749,1.30658,5.0969,-5.56327,14.212,0.0222411,-0.424923,-36.2917,0.564283,25.1578,2.99347,-0.0037325,0.0440523,
0.216714,0.104623,0.112163,-1.90853,0.598774,0.0405377,-0.098562,0.00756095,-0.0186401,-0.00031253,0.0179229,0.150591,0.0682061,-0.00216404,-1.03077,0.0225399,-0.926865,-0.334816,-2.63316,-2.24708,0.0316453,0.0948664,-1.97075,-0.69329,2.13329,1.21948,1.11757,-0.0212524,0.215699,0.118179,0.116328,-1.9214,0.495758,-0.00205369,-0.0970372,0.00777296,0.00341611,0.010037,0.0406224,0.174712,0.138943,-0.000640453,0,0,0,0,0,0,0,-0.424923,-36.2917,0.564283,25.1578,2.99347,-0.0037325,0.0440523,
0.216714,0.104623,0.112163,-1.90853,0.598774,0.0405377,-0.098562,0.00624156,-0.0186112,-0.00149892,0.0174943,0.147221,0.0653299,-0.00212353,-0.824619,0.0180319,-0.741492,-0.267853,-2.10653,-1.79766,0.0253162,0.0948664,-1.97075,-0.69329,2.13329,1.21948,1.11757,-0.0212524,0.215699,0.118179,0.116328,-1.9214,0.495758,-0.00205369,-0.0970372,0.00777296,0.00341611,0.010037,0.0406224,0.174712,0.138943,-0.000640453,0,0,0,0,0,0,0,-0.424923,-36.2917,0.564283,25.1578,2.99347,-0.0037325,0.0440523,
0.216714,0.104623,0.112163,-1.90853,0.598774,0.0405377,-0.098562,0.00518604,-0.0185881,-0.00244803,0.0171514,0.144525,0.0630289,-0.00209113,-0.659696,0.0144255,-0.593193,-0.214282,-1.68522,-1.43813,0.020253,0.0948664,-1.97075,-0.69329,2.13329,1.21948,1.11757,-0.0212524,0.215699,0.118179,0.116328,-1.9214,0.495758,-0.00205369,-0.0970372,0.00777296,0.00341611,0.010037,0.0406224,0.174712,0.138943,-0.000640453,0,0,0,0,0,0,0,-0.424923,-36.2917,0.564283,25.1578,2.99347,-0.0037325,0.0440523,
0.216697,0.103695,0.111409,-1.90717,0.611795,0.0466615,-0.0986465,0.00434393,-0.0184933,-0.00319552,0.0167413,0.142102,0.0604909,-0.00206143,-0.52632,0.0592806,-0.467185,-0.256307,-1.51439,-1.58621,0.0185602,0.119348,-1.91072,-0.669948,2.06244,1.20769,1.08252,-0.0211637,0.216139,0.117796,0.116321,-1.92029,0.502417,0.00517485,-0.0970395,0.0109701,-0.0264305,-0.00451333,0.0154401,0.280484,0.269328,-0.00065702,0.399641,-3.73082,-1.81879,-3.14779,13.2215,16.2981,-0.0020709,-0.373349,-37.6405,0.413527,25.5069,3.52539,0.108877,0.050461,
0.216697,0.103695,0.111409,-1.90717,0.611795,0.0466615,-0.0986465,0.00367024,-0.0184174,-0.00379352,0.0164133,0.140163,0.0584606,-0.00203768,-0.421056,0.0474245,-0.373748,-0.205046,-1.21151,-1.26897,0.0148482,0.119348,-1.91072,-0.669948,2.06244,1.20769,1.08252,-0.0211637,0.216139,0.117796,0.116321,-1.92029,0.502417,0.00517485,-0.0970395,0.0109701,-0.0264305,-0.00451333,0.0154401,0.280484,0.269328,-0.00065702,0,0,0,0,0,0,0,-0.373349,-37.6405,0.413527,25.5069,3.52539,0.108877,0.050461,
0.216697,0.103695,0.111409,-1.90717,0.611795,0.0466615,-0.0986465,0.00313129,-0.0183567,-0.00427191,0.0161508,0.138612,0.0568363,-0.00201867,-0.336845,0.0379396,-0.298998,-0.164037,-0.969211,-1.01518,0.0118785,0.119348,-1.91072,-0.669948,2.06244,1.20769,1.08252,-0.0211637,0.216139,0.117796,0.116321,-1.92029,0.502417,0.00517485,-0.0970395,0.0109701,-0.0264305,-0.00451333,0.0154401,0.280484,0.269328,-0.00065702,0,0,0,0,0,0,0,-0.373349,-37.6405,0.413527,25.5069,3.52539,0.108877,0.050461,
0.217094,0.117239,0.11803,-1.91949,0.493688,0.0165269,-0.0970021,0.0190512,-0.0225061,0.0201712,0.0234528,-0.0375212,0.209252,-0.00119025,9.94993,-2.59336,15.277,4.56372,-110.083,95.2595,0.51776,9.30118,-2.2444,13.103,5.46964,-14.7861,12.3565,-0.0292785,0.216139,0.117796,0.116321,-1.92029,0.502417,0.00517485,-0.0970395,0.0109701,-0.0264305,-0.00451333,0.0154401,0.280484,0.269328,-0.00065702,0,0,0,0,0,0,0,-0.373349,-37.6405,0.413527,25.5069,3.52539,0.108877,0.050461,
0.217963,0.116873,0.119057,-1.91909,0.485736,0.0241968,-0.0969888,0.0369516,-0.0271487,0.0418145,0.0289798,-0.228829,0.359149,-0.000619975,11.1878,-2.90162,13.527,3.45443,-119.567,93.6859,0.356424,10.4627,-3.17373,12.6313,5.17791,-14.8136,12.3155,-0.0097148,0.216096,0.117333,0.115875,-1.91946,0.5158,0.0140125,-0.0970509,-0.00245499,-0.00868113,-0.0206695,0.0266141,0.443981,0.24517,0.000537944,-1.67813,2.21867,-2.01952,1.39675,20.4371,-3.01983,0.14937,0.384403,-37.0177,0.937208,25.5585,2.56591,0.619742,0.0239107,
0.218938,0.116475,0.120116,-1.9187,0.476478,0.0325632,-0.0969783,0.0539333,-0.0316609,0.0599343,0.0327594,-0.414492,0.496478,-0.000234622,10.6136,-2.82011,11.3249,2.36223,-116.04,85.8303,0.240845,11.0015,-3.97516,12.1959,4.93167,-14.8136,12.3155,-0.00194661,0.216096,0.117333,0.115875,-1.91946,0.5158,0.0140125,-0.0970509,-0.00245499,-0.00868113,-0.0206695,0.0266141,0.443981,0.24517,0.000537944,0,0,0,0,0,0,0,0.384403,-37.0177,0.937208,25.5585,2.56591,0.619742,0.0239107,
0.219961,0.116062,0.121178,-1.91835,0.466373,0.0413547,-0.0969698,0.0687184,-0.0356644,0.0744984,0.0351355,-0.584232,0.616971,2.48293e-05,9.24069,-2.50218,9.10257,1.48503,-106.087,75.3084,0.162157,11.2467,-4.52048,11.8616,4.72964,-14.8136,12.3155,0.00148738,0.216096,0.117333,0.115875,-1.91946,0.5158,0.0140125,-0.0970509,-0.00245499,-0.00868113,-0.0206695,0.0266141,0.443981,0.24517,0.000537944,0,0,0,0,0,0,0,0.384403,-37.0177,0.937208,25.5585,2.56591,0.619742,0.0239107,
0.217219,0.117072,0.11686,-1.91853,0.508637,0.0251456,-0.0969731,0.0720166,-0.0324687,0.0754757,0.0401186,-0.599709,0.655221,0.000724111,2.0614,1.99727,0.610791,3.11445,-9.67363,23.9061,0.437051,10.0655,0.701269,6.64938,5.2532,-14.8136,12.3155,0.00805202,0.216096,0.117333,0.115875,-1.91946,0.5158,0.0140125,-0.0970509,-0.00245499,-0.00868113,-0.0206695,0.0266141,0.443981,0.24517,0.000537944,0,0,0,0,0,0,0,0.384403,-37.0177,0.937208,25.5585,2.56591,0.619742,0.0239107,
0.218032,0.116884,0.117635,-1.91807,0.50114,0.0327587,-0.0969547,0.0779265,-0.0306813,0.0797481,0.0435562,-0.667194,0.714505,0.0010404,3.69363,1.11712,2.67028,2.14848,-42.1777,37.0528,0.197681,9.37376,0.170576,7.43887,4.79206,-14.8837,12.2546,0.00445854,0.216439,0.116819,0.116642,-1.91808,0.520728,0.0247999,-0.0970394,0.0454898,-0.0348631,0.0991661,0.034155,-0.336438,0.657192,0.000247065,5.9931,-3.27275,14.9795,0.942613,-97.5523,51.5028,-0.0363598,6.70032,-38.4895,6.88814,27.8992,-0.200809,3.90832,-0.0365141,
0.218909,0.116687,0.118473,-1.91764,0.492206,0.0410909,-0.09694,0.0842663,-0.0294732,0.084751,0.0454513,-0.757099,0.779909,0.00119892,3.96242,0.755052,3.12676,1.18446,-56.1911,40.8771,0.0990744,9.27021,-0.352342,8.0004,4.54594,-14.8837,12.2546,0.00573719,0.216439,0.116819,0.116642,-1.91808,0.520728,0.0247999,-0.0970394,0.0454898,-0.0348631,0.0991661,0.034155,-0.336438,0.657192,0.000247065,0,0,0,0,0,0,0,6.70032,-38.4895,6.88814,27.8992,-0.200809,3.90832,-0.0365141,
0.219812,0.116494,0.119334,-1.91725,0.482329,0.0498683,-0.0969262,0.0899889,-0.0283826,0.0893369,0.0460862,-0.852621,0.843361,0.00130438,3.57661,0.681635,2.86622,0.396813,-59.7013,39.658,0.065912,9.34445,-0.718249,8.39714,4.34347,-14.8837,12.2546,0.00816815,0.216439,0.116819,0.116642,-1.91808,0.520728,0.0247999,-0.0970394,0.0454898,-0.0348631,0.0991661,0.034155,-0.336438,0.657192,0.000247065,0,0,0,0,0,0,0,6.70032,-38.4895,6.88814,27.8992,-0.200809,3.90832,-0.0365141,
0.21905,0.116082,0.119196,-1.9168,0.497912,0.0476501,-0.0969802,0.0954386,-0.0286954,0.0941192,0.0471044,-0.910858,0.884279,0.00143358,3.40604,-0.195494,2.98895,0.63641,-36.3977,25.5737,0.0807484,9.27021,-0.352342,8.0004,4.54594,-14.8837,12.2546,0.00573719,0.216439,0.116819,0.116642,-1.91808,0.520728,0.0247999,-0.0970394,0.0454898,-0.0348631,0.0991661,0.034155,-0.336438,0.657192,0.000247065,0,0,0,0,0,0,0,6.70032,-38.4895,6.88814,27.8992,-0.200809,3.90832,-0.0365141,
0.220001,0.115859,0.120108,-1.91643,0.487898,0.0564386,-0.0969654,0.100112,-0.0285356,0.0980965,0.0470954,-0.979021,0.927135,0.00151651,2.92086,0.0998669,2.48577,-0.00565098,-42.602,26.7848,0.0518351,9.34445,-0.718249,8.39714,4.34347,-14.8837,12.2546,0.00816815,0.216439,0.116819,0.116642,-1.91808,0.520728,0.0247999,-0.0970394,0.0454898,-0.0348631,0.0991661,0.034155,-0.336438,0.657192,0.000247065,0,0,0,0,0,0,0,6.70032,-38.4895,6.88814,27.8992,-0.200809,3.90832,-0.0365141,
0.220946,0.115656,0.121011,-1.91608,0.477313,0.0654756,-0.0969504,0.103728,-0.0278935,0.101058,0.0462908,-1.04785,0.967634,0.00158873,2.26015,0.401305,1.85099,-0.50288,-43.0182,25.3121,0.0451377,9.53684,0.422868,8.71359,2.6978,-15.0783,11.6928,0.0170258,0.221651,0.115444,0.122031,-1.91597,0.474946,0.0712722,-0.0970421,0.192585,-0.0464395,0.142814,0.101933,-1.64881,1.4841,0.000960172,18.3869,-1.44705,5.45598,8.47226,-164.047,103.364,0.0891383,1.37622,-34.2961,1.68703,24.039,-0.572513,2.64855,0.0843355,
0.221879,0.115475,0.1219,-1.91577,0.466347,0.0746608,-0.096935,0.106295,-0.026838,0.103048,0.0449225,-1.11242,1.00374,0.0016567,1.60451,0.659713,1.24341,-0.855167,-40.3574,22.564,0.0424823,9.67674,0.253612,8.9464,2.54277,-15.0783,11.6928,0.019344,0.221651,0.115444,0.122031,-1.91597,0.474946,0.0712722,-0.0970421,0.192585,-0.0464395,0.142814,0.101933,-1.64881,1.4841,0.000960172,0,0,0,0,0,0,0,1.37622,-34.2961,1.68703,24.039,-0.572513,2.64855,0.0843355,
0.228472,0.113839,0.128452,-1.91349,0.391632,0.141846,-0.0969745,0.106392,-0.024794,0.102932,0.0416115,-1.18124,1.03945,0.00172355,0.0604446,1.2775,-0.0720699,-2.06939,-43.0129,22.3193,0.0417788,10.026,0.0231861,9.39839,2.14617,-15.0783,11.6928,0.0232404,0.221651,0.115444,0.122031,-1.91597,0.474946,0.0712722,-0.0970421,0.192585,-0.0464395,0.142814,0.101933,-1.64881,1.4841,0.000960172,0,0,0,0,0,0,0,1.37622,-34.2961,1.68703,24.039,-0.572513,2.64855,0.0843355,
0.229315,0.113724,0.129263,-1.91329,0.379999,0.151212,-0.0969589,0.106187,-0.0227047,0.102612,0.0383377,-1.23582,1.06569,0.00176717,-0.127973,1.30581,-0.200347,-2.04614,-34.1094,16.4028,0.0272596,10.1176,-0.00368256,9.50029,2.02903,-15.0783,11.6928,0.0230056,0.221651,0.115444,0.122031,-1.91597,0.474946,0.0712722,-0.0970421,0.192585,-0.0464395,0.142814,0.101933,-1.64881,1.4841,0.000960172,0,0,0,0,0,0,0,1.37622,-34.2961,1.68703,24.039,-0.572513,2.64855,0.0843355,
0.23015,0.113625,0.130067,-1.91311,0.368384,0.160498,-0.0969442,0.105835,-0.0206535,0.102197,0.0351714,-1.27903,1.08472,0.00178236,-0.220217,1.28202,-0.259039,-1.9789,-27.0092,11.8901,0.00949482,9.9095,0.444838,9.29743,1.49582,-14.9966,11.307,0.0252066,0.229224,0.11454,0.129167,-1.91404,0.419914,0.127415,-0.0970282,0.214359,0.00563823,0.272307,0.0602254,-1.68555,1.6645,0.00301114,2.72173,6.50972,16.1867,-5.21346,-4.59277,22.5491,0.256371,-1.08349,-35.8434,-0.137926,24.5349,0.599362,2.02508,-0.0365141,
0.236609,0.114075,0.136132,-1.91255,0.349731,0.188581,-0.0970238,0.108902,-0.0186627,0.104769,0.0317584,-1.29934,1.09983,0.00156335,1.91676,1.24422,1.60739,-2.13316,-12.69,9.44444,-0.136878,10.0821,0.410684,9.59997,1.15753,-14.9966,11.307,0.0271965,0.229224,0.11454,0.129167,-1.91404,0.419914,0.127415,-0.0970282,0.214359,0.00563823,0.272307,0.0602254,-1.68555,1.6645,0.00301114,0,0,0,0,0,0,0,-1.08349,-35.8434,-0.137926,24.5349,0.599362,2.02508,-0.0365141,
0.237523,0.114003,0.136997,-1.91245,0.339185,0.197735,-0.097018,0.109967,-0.0167301,0.10544,0.0281018,-1.30312,1.10872,0.00139632,0.665971,1.2079,0.419549,-2.28537,-2.36594,5.55778,-0.104394,10.1135,0.400324,9.6556,1.04108,-14.9966,11.307,0.0262637,0.229224,0.11454,0.129167,-1.91404,0.419914,0.127415,-0.0970282,0.214359,0.00563823,0.272307,0.0602254,-1.68555,1.6645,0.00301114,0,0,0,0,0,0,0,-1.08349,-35.8434,-0.137926,24.5349,0.599362,2.02508,-0.0365141,
0.238391,0.113947,0.137817,-1.91237,0.3292,0.206795,-0.0970112,0.109695,-0.0147902,0.104867,0.0244477,-1.29213,1.11347,0.0012862,-0.170154,1.21245,-0.358595,-2.28382,6.87265,2.9719,-0.0688286,10.1478,0.39454,9.70297,0.924269,-14.9966,11.307,0.0249845,0.229224,0.11454,0.129167,-1.91404,0.419914,0.127415,-0.0970282,0.214359,0.00563823,0.272307,0.0602254,-1.68555,1.6645,0.00301114,0,0,0,0,0,0,0,-1.08349,-35.8434,-0.137926,24.5349,0.599362,2.02508,-0.0365141,
0.239224,0.113906,0.138603,-1.91231,0.319802,0.215783,-0.0970034,0.108579,-0.0128502,0.103527,0.0209603,-1.26864,1.11548,0.00122498,-0.697275,1.21245,-0.836989,-2.17958,14.6775,1.25188,-0.0382601,9.96067,1.08172,9.50245,0.0742073,-14.9096,10.8105,0.0262388,0.237341,0.114296,0.137683,-1.91285,0.359451,0.187664,-0.0970343,0.188779,-0.0075766,0.276957,0.0214915,-2.05904,1.79456,-0.00371808,-3.19756,-1.65185,0.581153,-4.84173,-46.6862,16.2583,-0.841152,-0.349545,-36.1171,-0.387865,25.6339,-0.963444,2.59545,0.0907442,
0.251307,0.114061,0.150391,-1.90958,0.295327,0.238392,-0.0973939,0.096901,-0.0105432,0.0921585,0.0180754,-1.04097,0.892385,0.000800184,-7.29903,1.44188,-7.10554,-1.80312,142.296,-139.433,-0.265498,8.2654,2.39742,7.74787,-1.3757,-3.81737,3.45827,0.0105981,0.237341,0.114296,0.137683,-1.91285,0.359451,0.187664,-0.0970343,0.188779,-0.0075766,0.276957,0.0214915,-2.05904,1.79456,-0.00371808,0,0,0,0,0,0,0,-0.349545,-36.1171,-0.387865,25.6339,-0.963444,2.59545,0.0907442,
0.251698,0.11405,0.150755,-1.90953,0.294304,0.238377,-0.0974011,0.0873005,-0.00870236,0.0828132,0.015748,-0.858339,0.713516,0.000460616,-6.00032,1.15053,-5.84078,-1.45461,114.143,-111.793,-0.21223,8.08501,2.40493,7.57073,-1.38516,-3.64955,3.02278,0.00959218,0.237341,0.114296,0.137683,-1.91285,0.359451,0.187664,-0.0970343,0.188779,-0.0075766,0.276957,0.0214915,-2.05904,1.79456,-0.00371808,0,0,0,0,0,0,0,-0.349545,-36.1171,-0.387865,25.6339,-0.963444,2.59545,0.0907442,
0.252079,0.114039,0.151108,-1.90948,0.2933,0.238349,-0.0974083,0.0793576,-0.00723555,0.0750824,0.0138723,-0.711764,0.570129,0.000189407,-4.9643,0.916759,-4.83178,-1.17232,91.6096,-89.6166,-0.169506,7.90474,2.40388,7.39399,-1.3937,-3.49771,2.6288,0.00858936,0.237341,0.114296,0.137683,-1.91285,0.359451,0.187664,-0.0970343,0.188779,-0.0075766,0.276957,0.0214915,-2.05904,1.79456,-0.00371808,0,0,0,0,0,0,0,-0.349545,-36.1171,-0.387865,25.6339,-0.963444,2.59545,0.0907442,
0.252449,0.114028,0.151451,-1.90943,0.292315,0.238314,-0.0974154,0.0727367,-0.00606879,0.0686391,0.012363,-0.59404,0.455219,-2.70809e-05,-4.13806,0.729223,-4.02707,-0.943306,73.5772,-71.8189,-0.135305,7.30666,2.65591,6.80033,-1.559,-3.16282,1.93142,0.00974698,0.245682,0.114862,0.145957,-1.913,0.291438,0.252539,-0.0970161,0.222358,0.0462037,0.27346,0.00220813,-1.9715,1.89563,-0.00395284,4.19739,6.72254,-0.437074,-2.41042,10.943,12.6338,-0.0293449,-2.60693,-39.9376,-1.13768,25.6577,2.41943,1.13061,0.00376909,
0.252265,0.114585,0.151289,-1.90905,0.274855,0.273385,-0.0975159,0.0581953,-0.00574651,0.053763,0.011414,-0.405458,0.337359,-0.00026848,-9.0884,0.201425,-9.29755,-0.593133,117.864,-73.6625,-0.150875,3.16914,2.15868,2.79102,-1.39339,-1.98175,-0.572053,0.00278343,0.245682,0.114862,0.145957,-1.913,0.291438,0.252539,-0.0970161,0.222358,0.0462037,0.27346,0.00220813,-1.9715,1.89563,-0.00395284,0,0,0,0,0,0,0,-2.60693,-39.9376,-1.13768,25.6577,2.41943,1.13061,0.00376909,
0.252275,0.114538,0.151238,-1.909,0.277622,0.272363,-0.0975315,0.0468033,-0.005786,0.0417384,0.0103835,-0.255195,0.244326,-0.000604599,-7.12001,-0.0246756,-7.51536,-0.644027,93.9145,-58.1457,-0.210074,3.02346,2.14941,2.65061,-1.3792,-1.9609,-0.564826,0.0028115,0.245682,0.114862,0.145957,-1.913,0.291438,0.252539,-0.0970161,0.222358,0.0462037,0.27346,0.00220813,-1.9715,1.89563,-0.00395284,0,0,0,0,0,0,0,-2.60693,-39.9376,-1.13768,25.6577,2.41943,1.13061,0.00376909,
0.252292,0.114484,0.151196,-1.90895,0.280244,0.271396,-0.0975445,0.0378634,-0.00597633,0.0323357,0.00962587,-0.138612,0.171278,-0.000808889,-5.5874,-0.118961,-5.87671,-0.473537,72.8645,-45.6549,-0.127681,2.87875,2.14072,2.51118,-1.36473,-1.93841,-0.555823,0.00284305,0.245682,0.114862,0.145957,-1.913,0.291438,0.252539,-0.0970161,0.222358,0.0462037,0.27346,0.00220813,-1.9715,1.89563,-0.00395284,0,0,0,0,0,0,0,-2.60693,-39.9376,-1.13768,25.6577,2.41943,1.13061,0.00376909,
0.251542,0.114766,0.150893,-1.90981,0.258752,0.280044,-0.0974502,0.0338075,-0.00502444,0.0289049,0.00931566,-0.108025,0.133576,-0.000854325,-2.53499,0.594933,-2.14425,-0.193881,19.1164,-23.5642,-0.0283973,1.61262,0.163609,1.4026,0.657628,0.379246,-0.330181,-0.00633436,0.252113,0.116115,0.151642,-1.91267,0.248555,0.293625,-0.0970462,0.0964922,0.0401111,0.107082,0.0232519,-0.461875,0.619105,0.000106002,-15.7332,-0.761575,-20.7972,2.63047,188.703,-159.566,0.507355,-1.36517,-37.6167,0.786451,22.345,6.98791,-3.15956,0.110886,
0.254249,0.115563,0.152753,-1.91048,0.281909,0.288401,-0.0973415,0.0275001,-0.00565751,0.0220011,0.00895526,-0.0254655,0.0840919,-0.00105507,-3.94208,-0.395667,-4.31486,-0.225252,51.6,-30.9273,-0.125464,1.50844,0.138975,1.30265,0.683457,0.613223,-0.394079,-0.00621074,0.252113,0.116115,0.151642,-1.91267,0.248555,0.293625,-0.0970462,0.0964922,0.0401111,0.107082,0.0232519,-0.461875,0.619105,0.000106002,0,0,0,0,0,0,0,-1.36517,-37.6167,0.786451,22.345,6.98791,-3.15956,0.110886,
0.254266,0.115497,0.152707,-1.91042,0.284335,0.287497,-0.0973564,0.0224246,-0.00617007,0.0164475,0.0086701,0.0402856,0.0446801,-0.00121646,-3.17217,-0.320353,-3.47097,-0.178223,41.0945,-24.6323,-0.100868,1.40275,0.107364,1.19882,0.708766,0.868359,-0.481114,-0.00575507,0.252113,0.116115,0.151642,-1.91267,0.248555,0.293625,-0.0970462,0.0964922,0.0401111,0.107082,0.0232519,-0.461875,0.619105,0.000106002,0,0,0,0,0,0,0,-1.36517,-37.6167,0.786451,22.345,6.98791,-3.15956,0.110886,
0.254282,0.115431,0.15266,-1.91036,0.286751,0.2866,-0.0973713,0.0183385,-0.0065863,0.0119785,0.00844533,0.0926325,0.0133107,-0.00134602,-2.55384,-0.260146,-2.79318,-0.140484,32.7168,-19.6059,-0.0809763,1.29251,0.0670508,1.08526,0.730996,1.14588,-0.59478,-0.00471518,0.252113,0.116115,0.151642,-1.91267,0.248555,0.293625,-0.0970462,0.0964922,0.0401111,0.107082,0.0232519,-0.461875,0.619105,0.000106002,0,0,0,0,0,0,0,-1.36517,-37.6167,0.786451,22.345,6.98791,-3.15956,0.110886,
0.25346,0.116292,0.152593,-1.91157,0.254657,0.298167,-0.0971888,0.015433,-0.00641672,0.00956607,0.0104024,0.139089,-0.00486209,-0.00127473,-1.81596,0.105989,-1.50774,1.22318,29.0354,-11.358,0.044558,1.16133,-0.163904,0.900417,0.861622,1.89242,-0.91193,-0.000282474,0.254297,0.117213,0.153189,-1.91212,0.245012,0.30322,-0.0970531,0.0355175,0.00808994,0.020087,0.0250727,0.0534748,0.05707,0.00104044,-7.62183,-4.00264,-10.8744,0.227605,64.4187,-70.2544,0.116805,-0.702633,-40.5843,-0.185533,23.4161,0.429074,2.96715,0.0577852,
0.253478,0.116228,0.152562,-1.91145,0.257484,0.297365,-0.0972007,0.0127965,-0.00673054,0.00687662,0.011208,0.181936,-0.0239341,-0.00131823,-1.64777,-0.196139,-1.6809,0.503511,26.7791,-11.92,-0.027189,1.01908,-0.217756,0.693625,0.848618,2.30787,-1.08671,0.00287989,0.254297,0.117213,0.153189,-1.91212,0.245012,0.30322,-0.0970531,0.0355175,0.00808994,0.020087,0.0250727,0.0534748,0.05707,0.00104044,0,0,0,0,0,0,0,-0.702633,-40.5843,-0.185533,23.4161,0.429074,2.96715,0.0577852,
0.253498,0.116154,0.15252,-1.91136,0.26031,0.296515,-0.0972172,0.0107329,-0.00724462,0.00443901,0.0112975,0.216215,-0.040418,-0.00146849,-1.28977,-0.321298,-1.52351,0.0559055,21.4244,-10.3024,-0.0939169,0.857719,-0.248848,0.456541,0.833095,2.79297,-1.25641,0.00374652,0.254297,0.117213,0.153189,-1.91212,0.245012,0.30322,-0.0970531,0.0355175,0.00808994,0.020087,0.0250727,0.0534748,0.05707,0.00104044,0,0,0,0,0,0,0,-0.702633,-40.5843,-0.185533,23.4161,0.429074,2.96715,0.0577852,
0.25352,0.116076,0.152482,-1.91127,0.263001,0.29565,-0.0972306,0.0091425,-0.00773333,0.00261032,0.0112003,0.240228,-0.0539568,-0.00150776,-0.993996,-0.305444,-1.14293,-0.060722,15.008,-8.46173,-0.0245383,0.665466,-0.240043,0.235365,0.844021,3.29449,-1.41248,0.00149274,0.254297,0.117213,0.153189,-1.91212,0.245012,0.30322,-0.0970531,0.0355175,0.00808994,0.020087,0.0250727,0.0534748,0.05707,0.00104044,0,0,0,0,0,0,0,-0.702633,-40.5843,-0.185533,23.4161,0.429074,2.96715,0.0577852,
0.254628,0.117184,0.153362,-1.91175,0.250306,0.3022,-0.0970894,0.0087957,-0.00677758,0.00244752,0.0117373,0.249141,-0.0594365,-0.00147931,-0.216754,0.597347,-0.101753,0.335585,5.57062,-3.42484,0.0177807,0.858683,-0.246085,0.453426,0.81552,2.73785,-1.23775,0.00380472,0.254951,0.117041,0.153316,-1.91195,0.255306,0.301947,-0.097044,0.00543823,-0.0151241,0.00507992,0.0178273,0.231575,-0.082332,-0.000948411,-3.75991,-2.90176,-1.87588,-0.90568,22.2625,-17.4252,-0.248606,1.4516,-34.2961,2.28609,24.6103,1.3327,1.54809,0.0440523,
0.254652,0.117156,0.153356,-1.91164,0.252922,0.30133,-0.097096,0.00765169,-0.00611208,0.00181143,0.0121189,0.264702,-0.0692996,-0.00134738,-0.715004,0.415934,-0.397552,0.238499,9.72609,-6.16441,0.0824536,0.666459,-0.237244,0.232272,0.826451,3.23941,-1.39385,0.00155171,0.254951,0.117041,0.153316,-1.91195,0.255306,0.301947,-0.097044,0.00543823,-0.0151241,0.00507992,0.0178273,0.231575,-0.082332,-0.000948411,0,0,0,0,0,0,0,1.4516,-34.2961,2.28609,24.6103,1.3327,1.54809,0.0440523,
0.254669,0.117112,0.153323,-1.91156,0.255747,0.30035,-0.0971071,0.00652697,-0.00599393,0.000625845,0.0118317,0.282386,-0.0799556,-0.00135551,-0.702954,0.0738479,-0.740992,-0.179464,11.0521,-6.66005,-0.00507823,0.450445,-0.212192,0.0596286,0.879405,3.65284,-1.53008,-0.00170735,0.254951,0.117041,0.153316,-1.91195,0.255306,0.301947,-0.097044,0.00543823,-0.0151241,0.00507992,0.0178273,0.231575,-0.082332,-0.000948411,0,0,0,0,0,0,0,1.4516,-34.2961,2.28609,24.6103,1.3327,1.54809,0.0440523,
0.254689,0.117057,0.15328,-1.91149,0.258563,0.299369,-0.0971231,0.00572594,-0.0061709,-0.000565531,0.0111854,0.296306,-0.0884849,-0.00148495,-0.50064,-0.110609,-0.74461,-0.403946,8.7,-5.33081,-0.0809054,0.206666,-0.244348,-0.0550486,0.957413,3.86271,-1.64156,0.000320568,0.254951,0.117041,0.153316,-1.91195,0.255306,0.301947,-0.097044,0.00543823,-0.0151241,0.00507992,0.0178273,0.231575,-0.082332,-0.000948411,0,0,0,0,0,0,0,1.4516,-34.2961,2.28609,24.6103,1.3327,1.54809,0.0440523,
0.255075,0.116552,0.153133,-1.9115,0.267147,0.29786,-0.0971217,0.00510369,-0.00706363,-0.00149982,0.0108724,0.295242,-0.0912917,-0.00155408,-0.388909,-0.557956,-0.583929,-0.195659,-0.665045,-1.75426,-0.0432032,0.142214,-0.636226,-0.405488,0.78309,3.67341,-1.46355,-0.00853293,0.254951,0.117041,0.153316,-1.91195,0.255306,0.301947,-0.097044,0.00543823,-0.0151241,0.00507992,0.0178273,0.231575,-0.082332,-0.000948411,0,0,0,0,0,0,0,1.4516,-34.2961,2.28609,24.6103,1.3327,1.54809,0.0440523,
0.255095,0.116471,0.153089,-1.91143,0.269455,0.29704,-0.0971364,0.00456935,-0.00767415,-0.0022885,0.0105414,0.2939,-0.0935471,-0.00161136,-0.333962,-0.381573,-0.492928,-0.206815,-0.838556,-1.40962,-0.0358008,0.143171,-0.768688,-0.642966,0.740292,3.22869,-1.15489,-0.0197877,0.255408,0.116314,0.153465,-1.91118,0.2669,0.298309,-0.0970428,0.0199039,-0.0033994,0.00781922,0.0204724,0.374299,-0.091538,-0.000127768,1.80821,1.46559,0.342413,0.330635,17.8405,-1.15075,0.10258,-0.730404,-36.1925,0.163588,24.3604,1.36291,1.11687,0.0376436,
0.255113,0.116393,0.153044,-1.91135,0.271748,0.296219,-0.0971512,0.00410727,-0.00808004,-0.00295692,0.0102124,0.292447,-0.0953569,-0.00165816,-0.288802,-0.253686,-0.417761,-0.205678,-0.908108,-1.13112,-0.0292507,0.121232,-0.780744,-0.669386,0.751844,2.82131,-1.04981,-0.018455,0.255408,0.116314,0.153465,-1.91118,0.2669,0.298309,-0.0970428,0.0199039,-0.0033994,0.00781922,0.0204724,0.374299,-0.091538,-0.000127768,0,0,0,0,0,0,0,-0.730404,-36.1925,0.163588,24.3604,1.36291,1.11687,0.0376436,
0.256247,0.115657,0.1538,-1.91056,0.279209,0.294882,-0.0971427,0.00481498,-0.00848191,-0.00247294,0.00983847,0.263772,-0.0853686,-0.00169392,0.442323,-0.251167,0.302489,-0.233686,-17.9219,6.24268,-0.0223494,0.192027,-0.825087,-0.608375,0.764447,1.34895,-0.416077,-0.0177562,0.255408,0.116314,0.153465,-1.91118,0.2669,0.298309,-0.0970428,0.0199039,-0.0033994,0.00781922,0.0204724,0.374299,-0.091538,-0.000127768,0,0,0,0,0,0,0,-0.730404,-36.1925,0.163588,24.3604,1.36291,1.11687,0.0376436,
0.256299,0.115578,0.153787,-1.91049,0.280377,0.294524,-0.0971574,0.00516321,-0.00876061,-0.00229855,0.00951566,0.240242,-0.0772306,-0.0017222,0.217644,-0.174188,0.108991,-0.201755,-14.7061,5.08627,-0.0176741,0.190658,-0.824783,-0.609528,0.764464,1.35368,-0.418582,-0.017762,0.255408,0.116314,0.153465,-1.91118,0.2669,0.298309,-0.0970428,0.0199039,-0.0033994,0.00781922,0.0204724,0.374299,-0.091538,-0.000127768,0,0,0,0,0,0,0,-0.730404,-36.1925,0.163588,24.3604,1.36291,1.11687,0.0376436,
0.256345,0.115501,0.153768,-1.91043,0.28153,0.294171,-0.097172,0.00526057,-0.00894635,-0.00233505,0.00923899,0.221,-0.0706075,-0.00174402,0.0608465,-0.116083,-0.0228138,-0.172918,-12.0265,4.13945,-0.0136346,0.190168,-0.851303,-0.609858,0.751207,1.30731,-0.398805,-0.0177473,0.255747,0.115346,0.153473,-1.91044,0.282256,0.293684,-0.0970405,0.000763362,-0.0461241,-0.00761464,0.00641586,0.410762,-0.0995691,0.00108312,-2.39257,-5.34058,-1.92923,-1.75706,4.5579,-1.00389,0.151361,0.309024,-34.6968,0.913405,23.4637,1.06353,1.44829,0.017502,
0.256384,0.115425,0.153742,-1.91036,0.28267,0.293822,-0.0971867,0.00518875,-0.00906344,-0.00250907,0.00900315,0.205308,-0.0652234,-0.00176051,-0.0448832,-0.0731848,-0.108763,-0.147398,-9.80713,3.36503,-0.0103104,0.188793,-0.850894,-0.611015,0.751232,1.31257,-0.401453,-0.0177538,0.255747,0.115346,0.153473,-1.91044,0.282256,0.293684,-0.0970405,0.000763362,-0.0461241,-0.00761464,0.00641586,0.410762,-0.0995691,0.00108312,0,0,0,0,0,0,0,0.309024,-34.6968,0.913405,23.4637,1.06353,1.44829,0.017502,
0.256061,0.114849,0.153757,-1.91019,0.283139,0.293845,-0.0970087,0.00899771,-0.0128665,0.00216769,0.0102977,0.159517,-0.0445661,-0.00123623,2.3806,-2.37694,2.92298,0.809067,-28.6197,12.9109,0.327676,1.29949,-0.772138,0.559468,0.564268,-2.87805,1.39095,-0.0160731,0.255747,0.115346,0.153473,-1.91044,0.282256,0.293684,-0.0970405,0.000763362,-0.0461241,-0.00761464,0.00641586,0.410762,-0.0995691,0.00108312,0,0,0,0,0,0,0,0.309024,-34.6968,0.913405,23.4637,1.06353,1.44829,0.017502,
0.256282,0.114657,0.153937,-1.91008,0.282213,0.294427,-0.097012,0.012728,-0.015079,0.00623715,0.0109784,0.104474,-0.0210978,-0.00107078,2.33146,-1.38278,2.54342,0.425456,-34.402,14.6677,0.103407,1.32297,-0.766291,0.605741,0.576032,-2.81932,1.35916,-0.0169123,0.255747,0.115346,0.153473,-1.91044,0.282256,0.293684,-0.0970405,0.000763362,-0.0461241,-0.00761464,0.00641586,0.410762,-0.0995691,0.00108312,0,0,0,0,0,0,0,0.309024,-34.6968,0.913405,23.4637,1.06353,1.44829,0.017502,
0.256506,0.114491,0.154113,-1.90999,0.280852,0.295174,-0.0970206,0.015799,-0.0162126,0.00937997,0.0112019,0.0495554,0.00179727,-0.00107248,1.91932,-0.708503,1.96426,0.139676,-34.324,14.3094,-0.00106615,1.35549,-0.803387,0.649345,0.59916,-2.80138,1.34849,-0.0172513,0.255838,0.115027,0.153388,-1.9098,0.292019,0.29209,-0.0970384,0.00768898,-0.0133075,0.000250966,0.0124266,0.256842,-0.0207346,0.00141419,0.865703,4.10207,0.983201,0.751347,-19.24,9.85432,0.0413833,-0.373349,-36.3948,0.338148,25.0864,1.13678,1.7669,-0.0026396,
0.256723,0.114345,0.154276,-1.9099,0.279232,0.296015,-0.097032,0.0180633,-0.0166262,0.0115846,0.0111301,-0.00085837,0.022446,-0.00114173,1.41523,-0.258477,1.37788,-0.0448822,-31.5086,12.9055,-0.0432774,1.38719,-0.820565,0.683947,0.605726,-2.76595,1.32001,-0.0172501,0.255838,0.115027,0.153388,-1.9098,0.292019,0.29209,-0.0970384,0.00768898,-0.0133075,0.000250966,0.0124266,0.256842,-0.0207346,0.00141419,0,0,0,0,0,0,0,-0.373349,-36.3948,0.338148,25.0864,1.13678,1.7669,-0.0026396,
0.255924,0.115479,0.153473,-1.91019,0.293113,0.292503,-0.0970342,0.0166,-0.00201116,0.011402,-0.00077769,0.0266764,0.0282896,-0.000808112,-0.914572,9.13437,-0.114095,-7.44234,17.2092,3.65227,0.208511,0.00540982,32.7538,-0.762371,-22.2896,-1.90303,-1.24054,-0.00294955,0.255838,0.115027,0.153388,-1.9098,0.292019,0.29209,-0.0970384,0.00768898,-0.0133075,0.000250966,0.0124266,0.256842,-0.0207346,0.00141419,0,0,0,0,0,0,0,-0.373349,-36.3948,0.338148,25.0864,1.13678,1.7669,-0.0026396,
0.256327,0.115968,0.153962,-1.9104,0.289248,0.294585,-0.0968973,0.0233595,0.0106103,0.0213388,-0.00593366,-0.0752875,0.0746746,0.00277473,4.22468,7.88844,6.2105,-3.22248,-63.7274,28.9906,2.23928,6.16617,5.54228,5.64665,-1.16278,-13.903,6.97285,0.0654772,0.255838,0.115027,0.153388,-1.9098,0.292019,0.29209,-0.0970384,0.00768898,-0.0133075,0.000250966,0.0124266,0.256842,-0.0207346,0.00141419,0,0,0,0,0,0,0,-0.373349,-36.3948,0.338148,25.0864,1.13678,1.7669,-0.0026396,
0.256881,0.116434,0.154574,-1.91058,0.28294,0.297555,-0.0968268,0.0325215,0.0201461,0.0323609,-0.00922587,-0.217919,0.133973,0.00398256,5.72625,5.95984,6.88879,-2.05763,-89.1446,37.0616,0.754893,5.64753,4.94428,5.69111,-1.27652,-12.5813,6.06843,0.0336648,0.256502,0.113977,0.153616,-1.90948,0.290923,0.293897,-0.0970329,0.0175318,-0.0611805,-0.00161137,-0.003513,-0.0580217,0.0902149,-0.000402428,1.23035,-5.98413,-0.232792,-1.99246,-39.358,13.8687,-0.227077,0.233646,-35.0221,0.86183,25.6577,0.953671,2.07177,-0.00996382,
0.256578,0.11421,0.153669,-1.90985,0.290467,0.29482,-0.097043,0.0279018,0.021922,0.0271928,-0.0165098,-0.185715,0.130249,0.00293494,-2.88729,1.10996,-3.23004,-4.55244,20.1276,-2.32738,-0.654765,-0.00125408,32.7316,-0.76217,-22.2982,-1.89986,-1.25272,-0.0028446,0.256502,0.113977,0.153616,-1.90948,0.290923,0.293897,-0.0970329,0.0175318,-0.0611805,-0.00161137,-0.003513,-0.0580217,0.0902149,-0.000402428,0,0,0,0,0,0,0,0.233646,-35.0221,0.86183,25.6577,0.953671,2.07177,-0.00996382,
0.257081,0.114219,0.154075,-1.91054,0.285672,0.298491,-0.0968728,0.0349111,0.0177744,0.0319209,-0.0304051,-0.268467,0.195988,0.00660066,4.3808,-2.59227,2.95505,-8.68455,-51.7201,41.0867,2.29108,9.86613,-3.7104,7.02744,-5.85431,-13.8999,10.4673,0.118628,0.256502,0.113977,0.153616,-1.90948,0.290923,0.293897,-0.0970329,0.0175318,-0.0611805,-0.00161137,-0.003513,-0.0580217,0.0902149,-0.000402428,0,0,0,0,0,0,0,0.233646,-35.0221,0.86183,25.6577,0.953671,2.07177,-0.00996382,
0.257753,0.114168,0.154679,-1.91119,0.278294,0.303295,-0.0967803,0.0447188,0.0129334,0.0406336,-0.0407538,-0.399209,0.276876,0.00759453,6.12983,-3.02563,5.44547,-6.46794,-81.714,50.5549,0.621171,8.5998,-3.40563,6.9777,-5.70875,-13.8999,9.05475,0.0521689,0.256502,0.113977,0.153616,-1.90948,0.290923,0.293897,-0.0970329,0.0175318,-0.0611805,-0.00161137,-0.003513,-0.0580217,0.0902149,-0.000402428,0,0,0,0,0,0,0,0.233646,-35.0221,0.86183,25.6577,0.953671,2.07177,-0.00996382,
0.258498,0.114079,0.155368,-1.91179,0.2694,0.308541,-0.0967264,0.0543931,0.00812549,0.0497255,-0.0474152,-0.541735,0.35266,0.00742169,6.04643,-3.00493,5.68238,-4.1634,-89.0787,47.3653,-0.108026,8.41411,-3.1708,7.34109,-5.82704,-13.9062,8.02995,0.0322774,0.25731,0.114418,0.154995,-1.90952,0.280682,0.299713,-0.0970018,0.0401854,0.0415335,0.0693099,-0.0282054,-0.627065,0.372469,0.00181694,2.83171,12.8393,8.86515,-3.08655,-71.1304,35.2818,0.277421,2.99884,-27.032,3.0359,19.5044,-0.93964,2.55608,-0.050247,
0.258702,0.114418,0.156315,-1.9111,0.264432,0.310986,-0.0967711,0.0621564,0.00585515,0.0571641,-0.0580127,-0.65516,0.433983,0.00797749,4.85204,-1.41896,4.64917,-6.62344,-70.8907,50.8268,0.347373,9.05464,-3.10143,7.84992,-8.29971,-13.9062,10.6712,0.141558,0.25731,0.114418,0.154995,-1.90952,0.280682,0.299713,-0.0970018,0.0401854,0.0415335,0.0693099,-0.0282054,-0.627065,0.372469,0.00181694,0,0,0,0,0,0,0,2.99884,-27.032,3.0359,19.5044,-0.93964,2.55608,-0.050247,
0.259476,0.114383,0.157041,-1.91183,0.254659,0.317256,-0.0967214,0.0690635,0.00380309,0.0638699,-0.0647578,-0.768468,0.503953,0.00762447,4.31696,-1.28253,4.19107,-4.21567,-70.8175,43.7311,-0.22064,8.33601,-2.25379,7.30072,-7.96952,-13.9062,9.94469,0.0651645,0.25731,0.114418,0.154995,-1.90952,0.280682,0.299713,-0.0970018,0.0401854,0.0415335,0.0693099,-0.0282054,-0.627065,0.372469,0.00181694,0,0,0,0,0,0,0,2.99884,-27.032,3.0359,19.5044,-0.93964,2.55608,-0.050247,
0.260254,0.11434,0.157776,-1.9125,0.244346,0.323429,-0.0966858,0.0747057,0.00196894,0.0694751,-0.0685444,-0.872582,0.557477,0.00698894,3.52632,-1.14635,3.5033,-2.36667,-65.071,33.4525,-0.397206,8.43313,-1.87627,7.67013,-7.87023,-13.9062,8.79572,0.0408339,0.25731,0.114418,0.154995,-1.90952,0.280682,0.299713,-0.0970018,0.0401854,0.0415335,0.0693099,-0.0282054,-0.627065,0.372469,0.00181694,0,0,0,0,0,0,0,2.99884,-27.032,3.0359,19.5044,-0.93964,2.55608,-0.050247,
0.261032,0.114289,0.158514,-1.91312,0.233712,0.329355,-0.0966538,0.0792098,0.000302147,0.0740433,-0.0703447,-0.963914,0.59412,0.0063898,2.81507,-1.04174,2.85512,-1.12518,-57.0823,22.902,-0.374462,8.46079,-0.796951,7.83888,-8.55649,-14.0239,7.59762,0.036845,0.260834,0.113715,0.158456,-1.91434,0.240525,0.332049,-0.0968981,0.115461,-0.0256165,0.111756,-0.175563,-1.34598,1.23068,0.00986781,9.40943,-8.39376,5.30583,-18.4197,-89.8641,107.276,1.00636,3.80817,-36.4186,4.18641,25.0586,0.502316,3.07244,-0.0301054,
0.264879,0.113328,0.16233,-1.9181,0.186883,0.364192,-0.0967581,0.0822484,-0.00223391,0.0774378,-0.0743438,-1.01932,0.599763,0.00561511,1.89914,-1.58503,2.12154,-2.49943,-34.6302,3.5264,-0.484182,8.91573,-0.599286,8.54665,-11.762,-14.0239,7.41362,0.0430545,0.260834,0.113715,0.158456,-1.91434,0.240525,0.332049,-0.0968981,0.115461,-0.0256165,0.111756,-0.175563,-1.34598,1.23068,0.00986781,0,0,0,0,0,0,0,3.80817,-36.4186,4.18641,25.0586,0.502316,3.07244,-0.0301054,
0.265611,0.113231,0.163036,-1.91883,0.177818,0.36861,-0.0967396,0.084106,-0.00422803,0.0796018,-0.0778216,-1.04208,0.590261,0.00495354,1.16102,-1.24633,1.35249,-2.17359,-14.2233,-5.93842,-0.413477,9.53289,-0.338368,9.12181,-11.6416,-14.0239,6.59171,0.0414075,0.260834,0.113715,0.158456,-1.91434,0.240525,0.332049,-0.0968981,0.115461,-0.0256165,0.111756,-0.175563,-1.34598,1.23068,0.00986781,0,0,0,0,0,0,0,3.80817,-36.4186,4.18641,25.0586,0.502316,3.07244,-0.0301054,
0.266326,0.113137,0.163725,-1.91957,0.169665,0.372524,-0.0967227,0.0851458,-0.00570775,0.0809109,-0.0807961,-1.0375,0.570045,0.00438654,0.649886,-0.924824,0.818182,-1.8591,2.86328,-12.6353,-0.354378,10.0314,-0.134858,9.65167,-11.514,-14.0239,5.85715,0.0429288,0.260834,0.113715,0.158456,-1.91434,0.240525,0.332049,-0.0968981,0.115461,-0.0256165,0.111756,-0.175563,-1.34598,1.23068,0.00986781,0,0,0,0,0,0,0,3.80817,-36.4186,4.18641,25.0586,0.502316,3.07244,-0.0301054,
0.267027,0.11305,0.164402,-1.92032,0.162418,0.375983,-0.0967076,0.0856487,-0.00674875,0.081649,-0.0832883,-1.01115,0.542524,0.00388472,0.314273,-0.650626,0.461315,-1.55759,16.4672,-17.2006,-0.313635,10.1795,0.368875,9.90548,-11.7584,-12.7119,4.82056,0.0449411,0.266063,0.113695,0.163175,-1.91998,0.184227,0.373254,-0.0969061,0.174889,0.0171552,0.182392,-0.201706,-1.71681,1.19651,-0.00221292,7.42848,5.34647,8.8295,-3.26784,-46.3538,-4.27057,-1.51009,1.95942,-36.1171,2.36146,21.373,0.19653,1.72661,0.0577852,
0.272049,0.114161,0.168784,-1.9255,0.138743,0.399202,-0.0969666,0.0860468,-0.00622592,0.0821796,-0.0852187,-0.896664,0.483318,0.0030254,0.248804,0.326767,0.331655,-1.20649,71.5542,-37.0037,-0.537076,10.608,0.500508,10.4039,-11.4589,-8.70249,3.2033,0.0446487,0.266063,0.113695,0.163175,-1.91998,0.184227,0.373254,-0.0969061,0.174889,0.0171552,0.182392,-0.201706,-1.71681,1.19651,-0.00221292,0,0,0,0,0,0,0,1.95942,-36.1171,2.36146,21.373,0.19653,1.72661,0.0577852,
0.272738,0.114121,0.169448,-1.92624,0.13582,0.400909,-0.0969723,0.0860604,-0.00599514,0.0823409,-0.0866777,-0.790413,0.429338,0.00227813,0.00850538,0.144237,0.100773,-0.911916,66.4066,-33.7371,-0.467046,10.5543,0.51367,10.3463,-11.3589,-7.60622,2.77986,0.0417996,0.266063,0.113695,0.163175,-1.91998,0.184227,0.373254,-0.0969061,0.174889,0.0171552,0.182392,-0.201706,-1.71681,1.19651,-0.00221292,0,0,0,0,0,0,0,1.95942,-36.1171,2.36146,21.373,0.19653,1.72661,0.0577852,
0.273418,0.114076,0.170104,-1.92697,0.133403,0.402403,-0.0969807,0.0858429,-0.00591206,0.0822688,-0.0877517,-0.692766,0.380807,0.00161325,-0.135932,0.0519249,-0.0450551,-0.671212,61.0293,-30.332,-0.415546,10.4293,0.523462,10.2154,-11.2548,-6.61189,2.41223,0.0376126,0.266063,0.113695,0.163175,-1.91998,0.184227,0.373254,-0.0969061,0.174889,0.0171552,0.182392,-0.201706,-1.71681,1.19651,-0.00221292,0,0,0,0,0,0,0,1.95942,-36.1171,2.36146,21.373,0.19653,1.72661,0.0577852,
0.27409,0.11403,0.170753,-1.9277,0.131421,0.403721,-0.0969917,0.0854824,-0.00589352,0.0820426,-0.0885011,-0.603752,0.337608,0.00101607,-0.225297,0.0115916,-0.14136,-0.468426,55.6339,-26.9994,-0.37324,10.2522,0.531018,10.0305,-11.1463,-5.71905,2.09019,0.0326807,0.266063,0.113695,0.163175,-1.91998,0.184227,0.373254,-0.0969061,0.174889,0.0171552,0.182392,-0.201706,-1.71681,1.19651,-0.00221292,0,0,0,0,0,0,0,1.95942,-36.1171,2.36146,21.373,0.19653,1.72661,0.0577852,
0.267247,0.113927,0.164246,-1.92093,0.173355,0.379898,-0.096935,0.0979873,0.00108692,0.0924071,-0.0946091,-0.754784,0.436169,8.89395e-05,7.81555,4.36278,6.47783,-3.81746,-94.3951,61.6008,-0.579455,10.608,0.500508,10.4039,-11.4589,-8.70249,3.2033,0.0446487,0.266063,0.113695,0.163175,-1.91998,0.184227,0.373254,-0.0969061,0.174889,0.0171552,0.182392,-0.201706,-1.71681,1.19651,-0.00221292,0,0,0,0,0,0,0,1.95942,-36.1171,2.36146,21.373,0.19653,1.72661,0.0577852,
0.26823,0.114089,0.165152,-1.92173,0.164601,0.384938,-0.0969518,0.102976,0.00491522,0.0965746,-0.0957676,-0.822678,0.474937,-0.000348834,3.11781,2.39268,2.60469,-0.72409,-42.4333,24.2297,-0.273609,10.5543,0.51367,10.3463,-11.3589,-7.60622,2.77986,0.0417996,0.266063,0.113695,0.163175,-1.91998,0.184227,0.373254,-0.0969061,0.174889,0.0171552,0.182392,-0.201706,-1.71681,1.19651,-0.00221292,0,0,0,0,0,0,0,1.95942,-36.1171,2.36146,21.373,0.19653,1.72661,0.0577852,
0.269093,0.114177,0.16596,-1.9225,0.157419,0.38894,-0.096959,0.103942,0.00614558,0.0974503,-0.09577,-0.837705,0.479993,-0.000457957,0.603774,0.768975,0.547298,-0.00147062,-9.39236,3.16023,-0.0682016,10.4293,0.523462,10.2154,-11.2548,-6.61189,2.41223,0.0376126,0.266063,0.113695,0.163175,-1.91998,0.184227,0.373254,-0.0969061,0.174889,0.0171552,0.182392,-0.201706,-1.71681,1.19651,-0.00221292,0,0,0,0,0,0,0,1.95942,-36.1171,2.36146,21.373,0.19653,1.72661,0.0577852,
0.267247,0.113927,0.164246,-1.92093,0.173355,0.379898,-0.096935,0.112755,0.0107182,0.104733,-0.100424,-0.941947,0.550078,-0.00109028,5.50812,2.85789,4.55186,-2.90886,-65.151,43.8026,-0.395202,10.608,0.500508,10.4039,-11.4589,-8.70249,3.2033,0.0446487,0.266063,0.113695,0.163175,-1.91998,0.184227,0.373254,-0.0969061,0.174889,0.0171552,0.182392,-0.201706,-1.71681,1.19651,-0.00221292,0,0,0,0,0,0,0,1.95942,-36.1171,2.36146,21.373,0.19653,1.72661,0.0577852,
0.26823,0.114089,0.165152,-1.92173,0.164601,0.384938,-0.0969518,0.11479,0.0126202,0.106436,-0.10042,-0.972408,0.566063,-0.00129221,1.27187,1.18877,1.06392,0.00279375,-19.038,9.99119,-0.126206,10.942,-0.179557,10.7643,-10.7017,-7.18537,2.85355,0.0388701,0.271569,0.113455,0.168782,-1.92636,0.134437,0.404047,-0.0969186,0.145028,-0.00597905,0.151124,-0.194586,-1.01398,0.687136,-0.00042536,-3.73256,-2.89178,-3.90857,0.88992,87.854,-63.672,0.223445,5.0539,-34.6214,5.73762,24.6381,2.43225,2.01226,0.0843355,
0.269093,0.114177,0.16596,-1.9225,0.157419,0.38894,-0.096959,0.113393,0.0123096,0.105339,-0.0994916,-0.957489,0.552895,-0.00121266,-0.872979,-0.194153,-0.685319,0.580036,9.3239,-8.23058,0.0497204,10.8171,-0.169766,10.6333,-10.5976,-6.19104,2.48593,0.0346831,0.271569,0.113455,0.168782,-1.92636,0.134437,0.404047,-0.0969186,0.145028,-0.00597905,0.151124,-0.194586,-1.01398,0.687136,-0.00042536,0,0,0,0,0,0,0,5.0539,-34.6214,5.73762,24.6381,2.43225,2.01226,0.0843355,
0.269883,0.114213,0.166708,-1.92326,0.151447,0.392207,-0.0969612,0.110466,0.0107441,0.102981,-0.0984641,-0.915294,0.52399,-0.0010245,-1.82961,-0.978443,-1.47383,0.642198,26.372,-18.0652,0.117596,10.6399,-0.16221,10.4485,-10.4891,-5.2982,2.16389,0.0297512,0.271569,0.113455,0.168782,-1.92636,0.134437,0.404047,-0.0969186,0.145028,-0.00597905,0.151124,-0.194586,-1.01398,0.687136,-0.00042536,0,0,0,0,0,0,0,5.0539,-34.6214,5.73762,24.6381,2.43225,2.01226,0.0843355,
0.278539,0.113514,0.175365,-1.93362,0.118758,0.418287,-0.0972472,0.103422,0.00760736,0.096941,-0.0954283,-0.735655,0.436553,-0.00147793,-4.4021,-1.96045,-3.77495,1.89739,112.274,-54.648,-0.283394,9.16083,-0.154203,8.93748,-9.77747,-1.77243,1.04649,-0.00255683,0.271569,0.113455,0.168782,-1.92636,0.134437,0.404047,-0.0969186,0.145028,-0.00597905,0.151124,-0.194586,-1.01398,0.687136,-0.00042536,0,0,0,0,0,0,0,5.0539,-34.6214,5.73762,24.6381,2.43225,2.01226,0.0843355,
0.279134,0.113474,0.175941,-1.93428,0.118691,0.418951,-0.0972741,0.0976146,0.00508621,0.0919449,-0.0927924,-0.590191,0.365837,-0.00185523,-3.62981,-1.57572,-3.12254,1.64743,90.9153,-44.1977,-0.235812,8.9496,-0.123954,8.71551,-9.67203,-1.32419,0.85802,-0.00716204,0.277652,0.113137,0.174572,-1.93305,0.103652,0.422528,-0.0969091,0.223196,-0.00324716,0.19434,-0.211946,-1.08621,0.575684,0.0012167,9.77094,0.341486,5.40204,-2.16997,-9.02916,-13.9315,0.205258,1.67774,-35.0935,1.86159,24.8087,-0.352787,3.36449,-0.0429228,
0.279722,0.113434,0.17651,-1.93493,0.118676,0.419593,-0.0973016,0.0927903,0.00306903,0.0877773,-0.0904672,-0.472546,0.308721,-0.00217061,-3.01517,-1.26073,-2.6048,1.45326,73.5277,-35.6977,-0.197112,8.70778,-0.127638,8.47226,-9.54657,-1.04022,0.785678,-0.0111526,0.277652,0.113137,0.174572,-1.93305,0.103652,0.422528,-0.0969091,0.223196,-0.00324716,0.19434,-0.211946,-1.08621,0.575684,0.0012167,0,0,0,0,0,0,0,1.67774,-35.0935,1.86159,24.8087,-0.352787,3.36449,-0.0429228,
0.280302,0.113395,0.177071,-1.93557,0.118695,0.420219,-0.0973295,0.0887463,0.0014618,0.0842649,-0.0883799,-0.377548,0.26264,-0.00243318,-2.52752,-1.00452,-2.19524,1.30456,59.3738,-28.8003,-0.164104,8.47506,-0.131127,8.2392,-9.42054,-0.803156,0.730643,-0.0148011,0.277652,0.113137,0.174572,-1.93305,0.103652,0.422528,-0.0969091,0.223196,-0.00324716,0.19434,-0.211946,-1.08621,0.575684,0.0012167,0,0,0,0,0,0,0,1.67774,-35.0935,1.86159,24.8087,-0.352787,3.36449,-0.0429228,
0.285334,0.113486,0.181759,-1.94001,0.0948381,0.432472,-0.0974108,0.0849701,0.000569405,0.0809106,-0.0854266,-0.299047,0.22396,-0.00268242,-2.36009,-0.557748,-2.09644,1.8458,49.063,-24.1753,-0.155777,7.28477,-0.134636,7.05843,-8.65218,-0.098774,0.597289,-0.0287095,0.277652,0.113137,0.174572,-1.93305,0.103652,0.422528,-0.0969091,0.223196,-0.00324716,0.19434,-0.211946,-1.08621,0.575684,0.0012167,0,0,0,0,0,0,0,1.67774,-35.0935,1.86159,24.8087,-0.352787,3.36449,-0.0429228,
0.285879,0.11346,0.182285,-1.94058,0.0949452,0.433022,-0.0974399,0.081581,-0.000202934,0.0778767,-0.0827629,-0.236562,0.192928,-0.00287344,-2.11824,-0.482712,-1.89616,1.66484,39.0535,-19.3949,-0.119385,7.08476,-0.226149,6.85462,-8.45275,0.0490391,0.553144,-0.02986,0.284869,0.113043,0.181265,-1.93985,0.0678009,0.443607,-0.0969144,0.217395,0.00281708,0.183578,-0.185493,-0.941019,0.599685,0.000482944,-0.725077,0.758031,-1.34523,3.30661,18.1488,3.00021,-0.0917196,2.11017,-35.2681,3.21443,24.5111,1.28967,2.47643,0.00376909,
0.286409,0.113432,0.182798,-1.94115,0.095035,0.433571,-0.0974687,0.078536,-0.000858392,0.0751301,-0.0803365,-0.187005,0.168066,-0.00301869,-1.90308,-0.409661,-1.71664,1.51645,30.973,-15.5388,-0.0907817,6.9249,-0.221072,6.69817,-8.32301,0.072838,0.552742,-0.0309179,0.284869,0.113043,0.181265,-1.93985,0.0678009,0.443607,-0.0969144,0.217395,0.00281708,0.183578,-0.185493,-0.941019,0.599685,0.000482944,0,0,0,0,0,0,0,2.11017,-35.2681,3.21443,24.5111,1.28967,2.47643,0.00376909,
0.291964,0.113237,0.187909,-1.94553,0.0609808,0.454039,-0.0974106,0.0750431,-0.00144797,0.0719115,-0.0763437,-0.147789,0.147249,-0.00309973,-2.18311,-0.368485,-2.01164,2.49553,24.5099,-13.0109,-0.0506525,5.96312,-0.15561,5.76476,-7.40814,0.0149693,0.566082,-0.0336282,0.284869,0.113043,0.181265,-1.93985,0.0678009,0.443607,-0.0969144,0.217395,0.00281708,0.183578,-0.185493,-0.941019,0.599685,0.000482944,0,0,0,0,0,0,0,2.11017,-35.2681,3.21443,24.5111,1.28967,2.47643,0.00376909,
0.292436,0.113207,0.188366,-1.946,0.061034,0.454535,-0.0974374,0.0718356,-0.0019128,0.0689414,-0.0728991,-0.116901,0.130188,-0.00314852,-2.00464,-0.290523,-1.85631,2.15285,19.3051,-10.6626,-0.0304887,5.8418,-0.143082,5.64794,-7.2769,-0.00758688,0.566956,-0.033599,0.284869,0.113043,0.181265,-1.93985,0.0678009,0.443607,-0.0969144,0.217395,0.00281708,0.183578,-0.185493,-0.941019,0.599685,0.000482944,0,0,0,0,0,0,0,2.11017,-35.2681,3.21443,24.5111,1.28967,2.47643,0.00376909,
0.292893,0.113178,0.188808,-1.94646,0.0610678,0.455017,-0.0974636,0.0689005,-0.00226616,0.0662103,-0.0698919,-0.0926755,0.116216,-0.00317427,-1.83447,-0.220847,-1.7069,1.87951,15.1409,-8.73311,-0.0160956,5.96521,-0.446174,5.77238,-6.81048,0.13904,0.687814,-0.0348891,0.291569,0.113171,0.187555,-1.94574,0.052294,0.456829,-0.0969417,0.206891,-0.00935937,0.178128,-0.185057,-0.0629344,0.26079,0.000989446,-1.31299,-1.52206,-0.681276,0.0545576,109.761,-42.3619,0.0633127,-1.05969,-36.9661,0.211195,23.5153,0.404354,2.48284,-0.0227812,
0.293337,0.113149,0.189237,-1.94692,0.0610833,0.455488,-0.0974893,0.0662161,-0.00252417,0.0637012,-0.0672317,-0.0737546,0.104755,-0.00318208,-1.67773,-0.161258,-1.56821,1.66263,11.8255,-7.16312,-0.00488282,5.84903,-0.432738,5.66077,-6.67906,0.115425,0.686835,-0.0347251,0.291569,0.113171,0.187555,-1.94574,0.052294,0.456829,-0.0969417,0.206891,-0.00935937,0.178128,-0.185057,-0.0629344,0.26079,0.000989446,0,0,0,0,0,0,0,-1.05969,-36.9661,0.211195,23.5153,0.404354,2.48284,-0.0227812,
0.299719,0.113527,0.195338,-1.95122,0.0549561,0.461277,-0.0973005,0.0639958,-0.00232547,0.0615771,-0.0633349,-0.0573294,0.0920747,-0.00311897,-1.38771,0.124187,-1.32754,2.43551,10.2657,-7.92487,0.0394473,5.08066,-0.332894,4.9245,-5.75756,-0.0293548,0.650444,-0.0322463,0.291569,0.113171,0.187555,-1.94574,0.052294,0.456829,-0.0969417,0.206891,-0.00935937,0.178128,-0.185057,-0.0629344,0.26079,0.000989446,0,0,0,0,0,0,0,-1.05969,-36.9661,0.211195,23.5153,0.404354,2.48284,-0.0227812,
0.300135,0.113513,0.195739,-1.95158,0.0549925,0.461608,-0.0973227,0.061588,-0.00219879,0.0592705,-0.0598875,-0.0449543,0.0819269,-0.00304966,-1.50487,0.0791755,-1.44162,2.15462,7.73447,-6.34241,0.0433149,4.97481,-0.318327,4.82324,-5.62588,-0.0445472,0.641918,-0.031785,0.291569,0.113171,0.187555,-1.94574,0.052294,0.456829,-0.0969417,0.206891,-0.00935937,0.178128,-0.185057,-0.0629344,0.26079,0.000989446,0,0,0,0,0,0,0,-1.05969,-36.9661,0.211195,23.5153,0.404354,2.48284,-0.0227812,
0.300529,0.113499,0.196118,-1.95194,0.0550033,0.461937,-0.0973441,0.0591133,-0.00211671,0.0568973,-0.0568125,-0.0356924,0.0737616,-0.00297592,-1.54669,0.0513003,-1.48325,1.92189,5.78869,-5.10329,0.0460873,4.87766,-0.407708,4.70963,-5.47852,-0.0416373,0.6257,-0.0312742,0.297563,0.113178,0.194742,-1.9514,0.0501208,0.461574,-0.0969554,0.285424,0.0147884,0.0425845,-0.138122,-0.0501651,0.116873,0.000435699,9.81663,3.01847,-16.943,5.86683,1.59616,-17.9897,-0.0692184,-2.60693,-36.2163,-1.93511,26.3559,-0.0781286,3.55675,-0.0163725,
0.300903,0.113484,0.196479,-1.95228,0.054993,0.462262,-0.0973649,0.0566513,-0.00206107,0.0545343,-0.0540469,-0.0288133,0.0671494,-0.00289992,-1.53872,0.0347792,-1.47687,1.72849,4.29942,-4.1326,0.0474991,4.77274,-0.393228,4.60925,-5.34686,-0.0539779,0.615755,-0.0307699,0.297563,0.113178,0.194742,-1.9514,0.0501208,0.461574,-0.0969554,0.285424,0.0147884,0.0425845,-0.138122,-0.0501651,0.116873,0.000435699,0,0,0,0,0,0,0,-2.60693,-36.2163,-1.93511,26.3559,-0.0781286,3.55675,-0.0163725,
0.304387,0.113962,0.20121,-1.95595,0.0518853,0.4633,-0.0972443,0.0539934,-0.00152837,0.0519384,-0.0503565,-0.0228434,0.0589676,-0.00275028,-1.66121,0.332932,-1.62245,2.30648,3.73118,-5.11366,0.0935289,4.04259,-0.294963,3.91004,-4.42635,-0.11081,0.531393,-0.0266031,0.297563,0.113178,0.194742,-1.9514,0.0501208,0.461574,-0.0969554,0.285424,0.0147884,0.0425845,-0.138122,-0.0501651,0.116873,0.000435699,0,0,0,0,0,0,0,-2.60693,-36.2163,-1.93511,26.3559,-0.0781286,3.55675,-0.0163725,
0.304711,0.113964,0.20152,-1.95622,0.0518651,0.463517,-0.0972607,0.0512816,-0.00118784,0.0493,-0.0470325,-0.0187785,0.0526003,-0.00261049,-1.6949,0.212836,-1.649,2.07749,2.54056,-3.97957,0.0873674,3.93805,-0.281433,3.80984,-4.29518,-0.115939,0.518736,-0.0259595,0.297563,0.113178,0.194742,-1.9514,0.0501208,0.461574,-0.0969554,0.285424,0.0147884,0.0425845,-0.138122,-0.0501651,0.116873,0.000435699,0,0,0,0,0,0,0,-2.60693,-36.2163,-1.93511,26.3559,-0.0781286,3.55675,-0.0163725,
0.305014,0.113962,0.20181,-1.95648,0.0518204,0.463739,-0.0972764,0.0486013,-0.000979278,0.0466989,-0.0440226,-0.0161397,0.047614,-0.00247933,-1.67519,0.130349,-1.62569,1.88118,1.64925,-3.11643,0.0819772,3.83392,-0.35215,3.69189,-4.14835,-0.119112,0.508342,-0.0253099,0.302385,0.11301,0.200559,-1.95578,0.0494883,0.464985,-0.0969616,0.0618365,-0.00701429,0.248026,-0.113069,0.00861323,0.0809785,0.00125514,-27.9485,-2.72534,25.6802,3.13165,7.34729,-4.4868,0.10243,-2.1745,-36.617,-1.28844,26.106,0.532528,3.4771,-0.0365141,
0.308047,0.113209,0.205978,-1.95874,0.0517961,0.465934,-0.0971716,0.0463936,-0.000894804,0.0445433,-0.0400781,-0.0127583,0.0416313,-0.00230494,-1.37977,0.052796,-1.34726,2.46535,2.11335,-3.73919,0.108988,3.09519,-0.263341,2.98287,-3.23416,-0.160774,0.423674,-0.0203652,0.302385,0.11301,0.200559,-1.95578,0.0494883,0.464985,-0.0969616,0.0618365,-0.00701429,0.248026,-0.113069,0.00861323,0.0809785,0.00125514,0,0,0,0,0,0,0,-2.1745,-36.617,-1.28844,26.106,0.532528,3.4771,-0.0365141,
0.30832,0.113203,0.206239,-1.95892,0.051778,0.466075,-0.0971837,0.0439428,-0.000862379,0.0421611,-0.0365747,-0.0106604,0.0368192,-0.00214652,-1.53179,0.0202659,-1.48891,2.18959,1.31123,-3.00756,0.0990153,2.98932,-0.251275,2.8812,-3.10416,-0.168819,0.41232,-0.0196176,0.302385,0.11301,0.200559,-1.95578,0.0494883,0.464985,-0.0969616,0.0618365,-0.00701429,0.248026,-0.113069,0.00861323,0.0809785,0.00125514,0,0,0,0,0,0,0,-2.1745,-36.617,-1.28844,26.106,0.532528,3.4771,-0.0365141,
0.30857,0.113196,0.206477,-1.95908,0.0517465,0.466209,-0.0971952,0.041392,-0.000859761,0.0396881,-0.0334379,-0.00931396,0.0328052,-0.00200292,-1.59419,0.00163638,-1.54561,1.96049,0.841505,-2.50873,0.0897493,2.88363,-0.239243,2.77975,-2.97439,-0.176912,0.401654,-0.0188879,0.302385,0.11301,0.200559,-1.95578,0.0494883,0.464985,-0.0969616,0.0618365,-0.00701429,0.248026,-0.113069,0.00861323,0.0809785,0.00125514,0,0,0,0,0,0,0,-2.1745,-36.617,-1.28844,26.106,0.532528,3.4771,-0.0365141,
0.308798,0.113189,0.206696,-1.95924,0.0517139,0.46633,-0.097206,0.0388372,-0.000872315,0.037215,-0.0306051,-0.00826775,0.0292841,-0.00187424,-1.5968,-0.00784627,-1.54571,1.77049,0.653878,-2.20067,0.0804251,2.77837,-0.227319,2.67871,-2.84483,-0.185435,0.39038,-0.018135,0.302385,0.11301,0.200559,-1.95578,0.0494883,0.464985,-0.0969616,0.0618365,-0.00701429,0.248026,-0.113069,0.00861323,0.0809785,0.00125514,0,0,0,0,0,0,0,-2.1745,-36.617,-1.28844,26.106,0.532528,3.4771,-0.0365141,
0.31308,0.113328,0.208016,-1.9604,0.0592215,0.462633,-0.0971623,0.0340838,-0.000790538,0.0325942,-0.0245092,0.037681,-0.000427245,-0.00175976,-2.97084,0.0511104,-2.88798,3.80995,28.718,-18.5696,0.0715507,1.90198,-0.170457,1.83286,-1.70073,-0.132127,0.203031,-0.0115871,0.308588,0.113024,0.203743,-1.95883,0.049588,0.467084,-0.0969724,0.0720896,0.00676869,0.168863,-0.066778,0.00232736,0.0372623,-0.00025881,1.28164,1.72287,-9.89534,5.78635,-0.785733,-5.46453,-0.189244,-1.74603,-36.6924,-0.586229,25.1102,0.129696,3.21892,0.017502,
0.313183,0.113322,0.208113,-1.96038,0.061335,0.461482,-0.0971702,0.0298548,-0.000775827,0.0284908,-0.019229,0.0829824,-0.0291159,-0.00160547,-2.64314,0.00919432,-2.56459,3.30015,28.3134,-17.9304,0.0964313,1.82584,-0.152955,1.76169,-1.57792,-0.0804571,0.156292,-0.0109413,0.308588,0.113024,0.203743,-1.95883,0.049588,0.467084,-0.0969724,0.0720896,0.00676869,0.168863,-0.066778,0.00232736,0.0372623,-0.00025881,0,0,0,0,0,0,0,-1.74603,-36.6924,-0.586229,25.1102,0.129696,3.21892,0.017502,
0.31327,0.113314,0.208194,-1.96035,0.0638302,0.460119,-0.0971743,0.026049,-0.000821956,0.0248109,-0.0146342,0.128765,-0.0573883,-0.00138872,-2.37866,-0.0288304,-2.29997,2.87173,28.6139,-17.6702,0.135466,1.75684,-0.133759,1.69789,-1.45653,-0.00854829,0.0989533,-0.010362,0.308588,0.113024,0.203743,-1.95883,0.049588,0.467084,-0.0969724,0.0720896,0.00676869,0.168863,-0.066778,0.00232736,0.0372623,-0.00025881,0,0,0,0,0,0,0,-1.74603,-36.6924,-0.586229,25.1102,0.129696,3.21892,0.017502,
0.313339,0.113304,0.208258,-1.96031,0.0667497,0.458534,-0.0971747,0.0225584,-0.0009157,0.0214485,-0.0106355,0.176,-0.0855189,-0.0011198,-2.18158,-0.0585903,-2.10147,2.49923,29.5222,-17.5817,0.168077,1.69606,-0.112679,1.64244,-1.33664,0.0872255,0.0278863,-0.00980051,0.308588,0.113024,0.203743,-1.95883,0.049588,0.467084,-0.0969724,0.0720896,0.00676869,0.168863,-0.066778,0.00232736,0.0372623,-0.00025881,0,0,0,0,0,0,0,-1.74603,-36.6924,-0.586229,25.1102,0.129696,3.21892,0.017502,
0.314222,0.112958,0.209684,-1.9613,0.0545854,0.465926,-0.0970677,0.024061,-0.000934318,0.0228563,-0.00942145,0.173483,-0.0844986,-0.00123197,0.939127,-0.0116358,0.879835,0.75876,-1.57322,0.637713,-0.0701083,1.59967,-0.121989,1.5457,-1.09914,0.368535,-0.166907,-0.00885057,0.31183,0.112977,0.207438,-1.96073,0.0496285,0.468115,-0.0969674,0.165161,-0.00530541,0.0143716,-0.0380864,0.0116964,0.0156107,0.00107312,11.6339,-1.50926,-19.3114,3.58646,1.17113,-2.70645,0.166491,-2.20227,-36.0417,-0.986925,23.6899,0.0564539,3.14568,-0.0365141,
0.314425,0.112948,0.209877,-1.96132,0.0561465,0.46513,-0.0970804,0.0243343,-0.000984148,0.0230907,-0.00800879,0.177814,-0.0874786,-0.00130382,0.170825,-0.0311439,0.146512,0.882911,2.707,-1.86252,-0.0449052,1.56811,-0.0938076,1.52011,-0.983788,0.567036,-0.292887,-0.00849718,0.31183,0.112977,0.207438,-1.96073,0.0496285,0.468115,-0.0969674,0.165161,-0.00530541,0.0143716,-0.0380864,0.0116964,0.0156107,0.00107312,0,0,0,0,0,0,0,-2.20227,-36.0417,-0.986925,23.6899,0.0564539,3.14568,-0.0365141,
0.314598,0.112938,0.210039,-1.96132,0.0579976,0.464161,-0.0970916,0.0237704,-0.00105576,0.0225265,-0.00644914,0.188529,-0.0942058,-0.00132403,-0.35247,-0.0447595,-0.352613,0.974782,6.69682,-4.20449,-0.0126334,1.54689,-0.0636298,1.50495,-0.869792,0.808818,-0.443028,-0.0081725,0.31183,0.112977,0.207438,-1.96073,0.0496285,0.468115,-0.0969674,0.165161,-0.00530541,0.0143716,-0.0380864,0.0116964,0.0156107,0.00107312,0,0,0,0,0,0,0,-2.20227,-36.0417,-0.986925,23.6899,0.0564539,3.14568,-0.0365141,
0.312459,0.113555,0.207994,-1.96133,0.049659,0.468496,-0.0969777,0.0347348,0.0136199,0.031936,-0.0201667,0.151586,-0.0658513,-0.0013158,6.85273,9.1723,5.88096,-8.5735,-23.0894,17.7215,0.00514593,0.00652541,32.679,-0.839362,-22.4851,-1.09915,-1.96595,-0.00056821,0.31183,0.112977,0.207438,-1.96073,0.0496285,0.468115,-0.0969674,0.165161,-0.00530541,0.0143716,-0.0380864,0.0116964,0.0156107,0.00107312,0,0,0,0,0,0,0,-2.20227,-36.0417,-0.986925,23.6899,0.0564539,3.14568,-0.0365141,
0.312953,0.114016,0.208448,-1.96172,0.0500041,0.468334,-0.0969997,0.0401303,0.0224057,0.0368935,-0.0257147,0.129897,-0.0567253,-0.00160157,3.3722,5.49113,3.09843,-3.46749,-13.5558,5.70376,-0.178604,1.56306,-0.135668,1.50367,-0.98728,0.547337,-0.287959,-0.00849736,0.313856,0.112927,0.21078,-1.96168,0.0520422,0.468242,-0.0969691,0.118096,-0.000777786,0.000420906,-0.0102572,0.161673,-0.014314,-0.000283309,-5.88309,0.565953,-1.74383,3.47865,18.747,-3.74059,-0.169553,-2.35302,-35.4189,-1.63756,24.2889,0.672604,2.76116,0.017502,
0.313352,0.114363,0.208817,-1.962,0.050591,0.467909,-0.0970184,0.0420716,0.0266149,0.0387271,-0.0277706,0.11859,-0.0559957,-0.00174991,1.21334,2.63075,1.14601,-1.2849,-7.06692,0.455993,-0.0927126,1.5419,-0.105487,1.48856,-0.873274,0.789005,-0.438032,-0.00817142,0.313856,0.112927,0.21078,-1.96168,0.0520422,0.468242,-0.0969691,0.118096,-0.000777786,0.000420906,-0.0102572,0.161673,-0.014314,-0.000283309,0,0,0,0,0,0,0,-2.35302,-35.4189,-1.63756,24.2889,0.672604,2.76116,0.017502,
0.313679,0.114624,0.20912,-1.96223,0.0513873,0.467321,-0.0970345,0.0418312,0.0278206,0.0385566,-0.0278778,0.114779,-0.0594969,-0.00180154,-0.150294,0.753573,-0.106618,-0.0670137,-2.3816,-2.18823,-0.0322694,1.53029,-0.0730364,1.4831,-0.759629,1.07802,-0.613843,-0.00789884,0.313856,0.112927,0.21078,-1.96168,0.0520422,0.468242,-0.0969691,0.118096,-0.000777786,0.000420906,-0.0102572,0.161673,-0.014314,-0.000283309,0,0,0,0,0,0,0,-2.35302,-35.4189,-1.63756,24.2889,0.672604,2.76116,0.017502,
0.315358,0.112844,0.212196,-1.96172,0.0604327,0.464704,-0.0970297,0.0384865,0.0216695,0.0355869,-0.0217458,0.146332,-0.0751317,-0.0016716,-2.09039,-3.8445,-1.85603,3.8325,19.7207,-9.77174,0.0812088,1.52703,-0.0464375,1.485,-0.64572,1.3084,-0.778592,-0.00754676,0.313856,0.112927,0.21078,-1.96168,0.0520422,0.468242,-0.0969691,0.118096,-0.000777786,0.000420906,-0.0102572,0.161673,-0.014314,-0.000283309,0,0,0,0,0,0,0,-2.35302,-35.4189,-1.63756,24.2889,0.672604,2.76116,0.017502,
