xiao-wang007/linearmpc_panda/paper_data/panda_torque_PD_controller_Start_at_0_torque_rate_limiter_low_pass_filter/0/trajectory.csv
Commanded Joint 0 Position,Commanded Joint 1 Position,Commanded Joint 2 Position,Commanded Joint 3 Position,Commanded Joint 4 Position,Commanded Joint 5 Position,Commanded Joint 6 Position,Commanded Joint 0 Velocity,Commanded Joint 1 Velocity,Commanded Joint 2 Velocity,Commanded Joint 3 Velocity,Commanded Joint 4 Velocity,Commanded Joint 5 Velocity,Commanded Joint 6 Velocity,Commanded Joint 0 Acceleration,Commanded Joint 1 Acceleration,Commanded Joint 2 Acceleration,Commanded Joint 3 Acceleration,Commanded Joint 4 Acceleration,Commanded Joint 5 Acceleration,Commanded Joint 6 Acceleration,Commanded Joint 0 Torque,Commanded Joint 1 Torque,Commanded Joint 2 Torque,Commanded Joint 3 Torque,Commanded Joint 4 Torque,Commanded Joint 5 Torque,Commanded Joint 6 Torque,Actual Joint 0 Position,Actual Joint 1 Position,Actual Joint 2 Position,Actual Joint 3 Position,Actual Joint 4 Position,Actual Joint 5 Position,Actual Joint 6 Position,Actual Joint 0 Velocity,Actual Joint 1 Velocity,Actual Joint 2 Velocity,Actual Joint 3 Velocity,Actual Joint 4 Velocity,Actual Joint 5 Velocity,Actual Joint 6 Velocity,Actual Joint 0 Acceleration,Actual Joint 1 Acceleration,Actual Joint 2 Acceleration,Actual Joint 3 Acceleration,Actual Joint 4 Acceleration,Actual Joint 5 Acceleration,Actual Joint 6 Acceleration,Actual Joint 0 Torque,Actual Joint 1 Torque,Actual Joint 2 Torque,Actual Joint 3 Torque,Actual Joint 4 Torque,Actual Joint 5 Torque,Actual Joint 6 Torque,
0.0447742,0.0574244,-0.0402701,-1.56963,-0.0174495,0.0790663,-0.0188577,0.000317833,0.0221254,0.000305061,-0.0313618,-0.002671,0.0495036,-0.000368756,0.198646,13.8284,0.190663,-19.6011,-1.66938,30.9397,-0.230472,0.0593984,25.8776,0.0727018,-23.8557,-0.489902,1.96508,-0.0248793,0.0447389,0.0560535,-0.040312,-1.56651,-0.0172838,0.0738642,-0.0188156,-3.83841e-05,0.000592386,-0.00106439,-0.000675829,-0.00471846,0.00522038,0.000500065,0,0,0,0,0,0,0,0.0313145,-36.8431,0.139784,26.6296,0.800778,2.90673,0.050461,
0.0447277,0.0560657,-0.0403232,-1.56651,-0.017344,0.0739188,-0.0188155,0.00017082,0.0177796,0.000162774,-0.0250926,-0.00249116,0.0398993,-0.000295127,-0.0918829,-2.71612,-0.0889296,3.91822,0.112405,-6.0027,0.0460181,0.0536427,26.318,0.062362,-23.7722,-0.490499,1.71445,-0.0233617,0.0447389,0.0560535,-0.040312,-1.56651,-0.0172838,0.0738642,-0.0188156,-3.83841e-05,0.000592386,-0.00106439,-0.000675829,-0.00471846,0.00522038,0.000500065,0,0,0,0,0,0,0,0.0313145,-36.8431,0.139784,26.6296,0.800778,2.90673,0.050461,
0.0447248,0.0560682,-0.040326,-1.56651,-0.0173546,0.0739272,-0.0188155,6.50637e-05,0.0142866,6.08358e-05,-0.0200776,-0.00225957,0.0321276,-0.000235926,-0.0660979,-2.18315,-0.0637113,3.13442,0.144742,-4.85727,0.0370001,0.0463915,26.8915,0.0506315,-23.6642,-0.490262,1.36764,-0.021397,0.0447453,0.0561165,-0.0403123,-1.56656,-0.0172785,0.0738657,-0.0188191,0.000616868,0.000362625,0.000624918,-0.0011982,-0.00751665,0.00219512,-0.000660278,0.0819065,-0.0287202,0.211164,-0.0652962,-0.349774,-0.378159,-0.145043,0.0313145,-36.8153,0.112013,26.6296,0.752255,2.89391,0.0779268,
0.0447224,0.0560703,-0.0403283,-1.56651,-0.0173628,0.0739331,-0.0188155,-8.46459e-06,0.0114804,-9.75939e-06,-0.0160658,-0.00201162,0.0258508,-0.000188439,-0.0459552,-1.75384,-0.044122,2.50735,0.154966,-3.92303,0.0296794,0.0404279,27.4153,0.0411874,-23.4965,-0.48852,0.982709,-0.019395,0.0447453,0.0561165,-0.0403123,-1.56656,-0.0172785,0.0738657,-0.0188191,0.000616868,0.000362625,0.000624918,-0.0011982,-0.00751665,0.00219512,-0.000660278,0,0,0,0,0,0,0,0.0313145,-36.8153,0.112013,26.6296,0.752255,2.89391,0.0779268,
0.0446326,0.0561447,-0.0404372,-1.56648,-0.015047,0.0727542,-0.0188326,-0.00167163,0.00944993,-0.00175301,-0.0119484,0.0329934,0.00347056,-0.00026766,-1.03948,-1.26907,-1.08953,2.57339,21.8781,-13.9876,-0.0495126,0.514532,0.152799,0.510692,-0.260827,3.06846,-1.65049,-0.00115952,0.0447453,0.0561165,-0.0403123,-1.56656,-0.0172785,0.0738657,-0.0188191,0.000616868,0.000362625,0.000624918,-0.0011982,-0.00751665,0.00219512,-0.000660278,0,0,0,0,0,0,0,0.0313145,-36.8153,0.112013,26.6296,0.752255,2.89391,0.0779268,
0.0445657,0.0561486,-0.0405044,-1.56646,-0.0133425,0.07189,-0.0188348,-0.00301005,0.00765732,-0.00308101,-0.00893118,0.0690072,-0.0188278,-0.000269451,-0.836513,-1.12038,-0.83,1.88576,22.5086,-13.9365,-0.00111982,0.508445,0.152397,0.504686,-0.258248,3.04107,-1.63555,-0.00111323,0.0447453,0.0561165,-0.0403123,-1.56656,-0.0172785,0.0738657,-0.0188191,0.000616868,0.000362625,0.000624918,-0.0011982,-0.00751665,0.00219512,-0.000660278,0,0,0,0,0,0,0,0.0313145,-36.8153,0.112013,26.6296,0.752255,2.89391,0.0779268,
0.0445077,0.0561486,-0.0405612,-1.56644,-0.011445,0.0709074,-0.0188357,-0.00385675,0.00612525,-0.00388585,-0.0067666,0.102644,-0.0396281,-0.000238909,-0.529187,-0.957547,-0.503028,1.35286,21.0229,-13.0002,0.0190886,0.501302,0.178172,0.497782,-0.262273,3.01439,-1.62252,-0.00106123,0.0447349,0.0565116,-0.0403105,-1.56717,-0.0172836,0.0757604,-0.0188165,0.000232905,0.0337933,0.00085317,-0.0664787,-0.0066012,0.169714,-0.00019711,-0.0479954,4.17883,0.0285314,-8.16007,0.114432,20.9399,0.057896,0.134464,-30.0551,0.238966,20.8255,0.538937,2.82067,0.0577852,
0.0444622,0.0561469,-0.0406051,-1.56643,-0.00943065,0.0698457,-0.018836,-0.00422263,0.00485936,-0.00420624,-0.00523422,0.132474,-0.0582451,-0.000199157,-0.228676,-0.79118,-0.200244,0.957735,18.6437,-11.6356,0.0248453,0.494725,0.177698,0.491321,-0.259485,2.98811,-1.60765,-0.00104131,0.0447349,0.0565116,-0.0403105,-1.56717,-0.0172836,0.0757604,-0.0188165,0.000232905,0.0337933,0.00085317,-0.0664787,-0.0066012,0.169714,-0.00019711,0,0,0,0,0,0,0,0.134464,-30.0551,0.238966,20.8255,0.538937,2.82067,0.0577852,
0.0444546,0.057179,-0.0406316,-1.56704,-0.00937269,0.0709337,-0.0188524,-0.00735843,0.0111305,-0.00765296,-0.00201988,0.228508,-0.127236,-0.000447441,-1.95987,3.91946,-2.1542,2.00896,60.0214,-43.1191,-0.155177,4.29679,1.40854,4.22121,-1.93537,11.0635,-8.58741,0.00151559,0.0447349,0.0565116,-0.0403105,-1.56717,-0.0172836,0.0757604,-0.0188165,0.000232905,0.0337933,0.00085317,-0.0664787,-0.0066012,0.169714,-0.00019711,0,0,0,0,0,0,0,0.134464,-30.0551,0.238966,20.8255,0.538937,2.82067,0.0577852,
0.0443137,0.0573872,-0.0407766,-1.567,-0.00328936,0.0666861,-0.0188556,-0.00940981,0.0141093,-0.00974922,-0.000615881,0.33489,-0.207979,-0.000438371,-1.28212,1.86177,-1.31017,0.877499,66.4886,-50.4644,0.00566858,4.17835,1.40169,4.08975,-1.89741,11.0635,-8.43917,0.00196622,0.0447349,0.0565116,-0.0403105,-1.56717,-0.0172836,0.0757604,-0.0188165,0.000232905,0.0337933,0.00085317,-0.0664787,-0.0066012,0.169714,-0.00019711,0,0,0,0,0,0,0,0.134464,-30.0551,0.238966,20.8255,0.538937,2.82067,0.0577852,
0.044215,0.0575423,-0.0408759,-1.56701,0.0035498,0.0617771,-0.0188546,-0.00999296,0.0151654,-0.0102802,-0.000721073,0.438891,-0.289109,-0.000325801,-0.36447,0.660068,-0.331839,-0.0657447,65.0006,-50.7064,0.0703562,4.05068,1.45763,3.95774,-1.89736,11.053,-8.27195,0.00150445,0.044703,0.0571065,-0.0403443,-1.57292,-0.0150422,0.0788416,-0.018816,-0.0028397,-0.0162874,-0.0041349,-0.212718,0.247126,-0.0406183,0.000280633,-0.384076,-6.26008,-0.623509,-18.2799,31.7159,-26.2916,0.0597179,0.511356,-30.4796,0.611891,23.7375,1.43066,2.20452,0.050461,
0.0466019,0.0571644,-0.038492,-1.56803,-0.00682781,0.060522,-0.0184319,0.0138191,0.0171138,0.0124694,-0.00817964,0.471793,-0.40983,0.00259677,14.8825,1.21775,14.2185,-4.6616,20.564,-75.451,1.82661,27.1744,5.15691,26.3292,-11.7705,11.053,-14.2144,0.155083,0.044703,0.0571065,-0.0403443,-1.57292,-0.0150422,0.0788416,-0.018816,-0.0028397,-0.0162874,-0.0041349,-0.212718,0.247126,-0.0406183,0.000280633,0,0,0,0,0,0,0,0.511356,-30.4796,0.611891,23.7375,1.43066,2.20452,0.050461,
0.0465746,0.0580289,-0.0385611,-1.57422,-0.00183779,0.0594701,-0.0184466,0.0327088,0.0211985,0.0305306,-0.0161234,0.51278,-0.53077,0.00484397,11.8061,2.5529,11.2883,-4.96487,25.6165,-75.5871,1.4045,25.6106,5.34293,24.6348,-10.2508,11.053,-14.2144,0.128002,0.044703,0.0571065,-0.0403443,-1.57292,-0.0150422,0.0788416,-0.018816,-0.0028397,-0.0162874,-0.0041349,-0.212718,0.247126,-0.0406183,0.000280633,0,0,0,0,0,0,0,0.511356,-30.4796,0.611891,23.7375,1.43066,2.20452,0.050461,
0.0476033,0.0582641,-0.0375706,-1.57468,0.00430922,0.0504494,-0.0182861,0.0518857,0.0228376,0.0491869,-0.0245083,0.563899,-0.650135,0.00788686,11.9856,1.02442,11.6602,-5.24052,31.9496,-74.603,1.90181,24.3817,4.6582,23.4166,-9.04543,11.053,-14.2144,0.122012,0.044703,0.0571065,-0.0403443,-1.57292,-0.0150422,0.0788416,-0.018816,-0.0028397,-0.0162874,-0.0041349,-0.212718,0.247126,-0.0406183,0.000280633,0,0,0,0,0,0,0,0.511356,-30.4796,0.611891,23.7375,1.43066,2.20452,0.050461,
0.0487448,0.0583284,-0.0364668,-1.57539,0.0110615,0.0409101,-0.018068,0.0700447,0.0198766,0.0669441,-0.0372357,0.619927,-0.758589,0.0117636,11.3494,-1.85059,11.0983,-7.95467,35.0177,-67.784,2.42295,23.3196,2.9905,22.5181,-8.81461,10.9558,-14.1681,0.190569,0.0445901,0.0584337,-0.040424,-1.57753,-0.00317387,0.0689876,-0.0188284,-0.00530678,0.118485,-0.0125383,-0.00217739,0.655777,-0.681619,-0.00306488,-0.308385,16.8465,-1.05043,26.3175,51.0815,-80.1251,-0.41819,3.9867,-40.735,4.01185,29.2957,3.62884,-0.480722,0.158493,
0.0462104,0.0591858,-0.0387874,-1.57964,0.00721825,0.0545136,-0.0184601,0.0818817,0.0239955,0.0792015,-0.0586297,0.629832,-0.803719,0.0132024,7.39809,2.57431,7.66091,-13.3712,6.19054,-28.2064,0.899294,37.1259,5.64077,36.0978,-21.4422,10.9558,-14.1681,0.222891,0.0445901,0.0584337,-0.040424,-1.57753,-0.00317387,0.0689876,-0.0188284,-0.00530678,0.118485,-0.0125383,-0.00217739,0.655777,-0.681619,-0.00306488,0,0,0,0,0,0,0,3.9867,-40.735,4.01185,29.2957,3.62884,-0.480722,0.158493,
0.0475462,0.0594741,-0.0374878,-1.58088,0.013081,0.0456994,-0.018302,0.0988999,0.0264058,0.095851,-0.0777862,0.650433,-0.863331,0.0145155,10.6364,1.50644,10.4059,-11.9728,12.8758,-37.257,0.820632,33.9557,5.75683,32.9896,-20.0787,10.9558,-14.1681,0.147742,0.0445901,0.0584337,-0.040424,-1.57753,-0.00317387,0.0689876,-0.0188284,-0.00530678,0.118485,-0.0125383,-0.00217739,0.655777,-0.681619,-0.00306488,0,0,0,0,0,0,0,3.9867,-40.735,4.01185,29.2957,3.62884,-0.480722,0.158493,
0.0490729,0.0596677,-0.0360122,-1.58229,0.0195029,0.0363047,-0.0181035,0.117288,0.0259628,0.11357,-0.0974754,0.680896,-0.925533,0.0165747,11.4927,-0.276881,11.0745,-12.3058,19.0389,-38.8767,1.28704,31.859,4.91685,30.8299,-19.264,10.9558,-14.1681,0.172361,0.0445901,0.0584337,-0.040424,-1.57753,-0.00317387,0.0689876,-0.0188284,-0.00530678,0.118485,-0.0125383,-0.00217739,0.655777,-0.681619,-0.00306488,0,0,0,0,0,0,0,3.9867,-40.735,4.01185,29.2957,3.62884,-0.480722,0.158493,
0.0506774,0.0597878,-0.0344496,-1.58383,0.0265056,0.026494,-0.0179967,0.133942,0.0237746,0.129922,-0.116608,0.719784,-0.985693,0.0159297,10.4084,-1.36761,10.2198,-11.9581,24.3052,-37.6,-0.403121,29.4982,2.88211,28.4881,-20.5823,10.7741,-13.9581,0.237123,0.0445165,0.0620832,-0.0401388,-1.5756,0.0318063,0.027956,-0.0188027,0.0379248,0.0853461,0.0555681,0.0350096,0.927501,-1.43769,0.000429932,5.40394,-4.14236,8.5133,4.64838,33.9655,-94.5095,0.436852,11.8737,-39.287,11.51,20.9763,2.48718,-2.14515,0.14476,
0.0471112,0.0619477,-0.03761,-1.57911,0.0447987,0.00795067,-0.0184436,0.145068,0.016916,0.140701,-0.141362,0.736595,-1.03855,0.016728,6.9538,-4.28663,6.73669,-15.4712,10.5071,-33.035,0.498914,41.453,4.78563,39.6992,-30.3292,10.7741,-13.9581,0.193001,0.0445165,0.0620832,-0.0401388,-1.5756,0.0318063,0.027956,-0.0188027,0.0379248,0.0853461,0.0555681,0.0350096,0.927501,-1.43769,0.000429932,0,0,0,0,0,0,0,11.8737,-39.287,11.51,20.9763,2.48718,-2.14515,0.14476,
0.0488869,0.0618663,-0.0358965,-1.58121,0.0514723,-0.00216495,-0.0182707,0.160448,0.011498,0.155399,-0.165581,0.756116,-1.08373,0.0177036,9.61301,-3.38624,9.18644,-15.1367,12.2006,-28.2379,0.609736,37.5292,4.47912,36.0648,-29.1097,10.7741,-13.9581,0.155621,0.0445165,0.0620832,-0.0401388,-1.5756,0.0318063,0.027956,-0.0188027,0.0379248,0.0853461,0.0555681,0.0350096,0.927501,-1.43769,0.000429932,0,0,0,0,0,0,0,11.8737,-39.287,11.51,20.9763,2.48718,-2.14515,0.14476,
0.0507811,0.0617975,-0.0340769,-1.58341,0.0585766,-0.0124101,-0.0182003,0.175712,0.00747648,0.169809,-0.187615,0.782501,-1.12311,0.0159246,9.53967,-2.51347,9.00627,-13.7714,16.4904,-24.6136,-1.11189,34.24,2.51211,32.9478,-29.6015,10.7741,-13.9581,0.193562,0.0445165,0.0620832,-0.0401388,-1.5756,0.0318063,0.027956,-0.0188027,0.0379248,0.0853461,0.0555681,0.0350096,0.927501,-1.43769,0.000429932,0,0,0,0,0,0,0,11.8737,-39.287,11.51,20.9763,2.48718,-2.14515,0.14476,
0.052714,0.0617891,-0.0322173,-1.58561,0.0661061,-0.0228132,-0.0181952,0.188894,0.0057728,0.182337,-0.205105,0.814238,-1.15857,0.012867,8.23896,-1.0648,7.8303,-10.9312,19.8358,-22.1602,-1.91095,30.1295,1.50179,28.9805,-29.9461,10.7741,-13.9581,0.0742567,0.0445165,0.0620832,-0.0401388,-1.5756,0.0318063,0.027956,-0.0188027,0.0379248,0.0853461,0.0555681,0.0350096,0.927501,-1.43769,0.000429932,0,0,0,0,0,0,0,11.8737,-39.287,11.51,20.9763,2.48718,-2.14515,0.14476,
0.0470785,0.0617408,-0.0376418,-1.57999,0.0449416,0.00902598,-0.0184683,0.188449,-0.000768022,0.18206,-0.226049,0.814384,-1.15886,0.0143456,-0.278556,-4.08801,-0.173202,-13.0898,0.09086,-0.181192,0.924077,41.067,6.67695,39.3395,-36.9544,10.7741,-13.563,0.1587,0.0445165,0.0620832,-0.0401388,-1.5756,0.0318063,0.027956,-0.0188027,0.0379248,0.0853461,0.0555681,0.0350096,0.927501,-1.43769,0.000429932,0,0,0,0,0,0,0,11.8737,-39.287,11.51,20.9763,2.48718,-2.14515,0.14476,
0.048791,0.0615624,-0.0359876,-1.58269,0.0517647,-7.94982e-05,-0.0184231,0.193571,-0.00507445,0.187005,-0.248379,0.822084,-1.15472,0.0126064,3.2018,-2.69152,3.09023,-13.9562,4.81281,2.58407,-1.08696,36.6749,4.43464,35.2443,-37.2629,10.7741,-12.7303,0.162061,0.0445165,0.0620832,-0.0401388,-1.5756,0.0318063,0.027956,-0.0188027,0.0379248,0.0853461,0.0555681,0.0350096,0.927501,-1.43769,0.000429932,0,0,0,0,0,0,0,11.8737,-39.287,11.51,20.9763,2.48718,-2.14515,0.14476,
0.0506116,0.0614736,-0.0342327,-1.58546,0.0589929,-0.00902166,-0.0184509,0.200374,-0.00627842,0.193476,-0.267803,0.838371,-1.14733,0.00938918,4.25133,-0.752485,4.04434,-12.1401,10.1795,4.61918,-2.01078,31.905,3.07711,30.7468,-37.4685,10.7741,-12.0599,0.0307687,0.0445165,0.0620832,-0.0401388,-1.5756,0.0318063,0.027956,-0.0188027,0.0379248,0.0853461,0.0555681,0.0350096,0.927501,-1.43769,0.000429932,0,0,0,0,0,0,0,11.8737,-39.287,11.51,20.9763,2.48718,-2.14515,0.14476,
0.0470217,0.0615709,-0.0376923,-1.58077,0.0451193,0.00916367,-0.0185557,0.196472,-0.0121746,0.189897,-0.286664,0.83678,-1.151,0.00885086,-2.43861,-3.6851,-2.23656,-11.788,-0.994684,-2.29398,-0.336448,40.6997,8.23053,39.0259,-44.6234,10.7741,-13.9581,0.188213,0.0445165,0.0620832,-0.0401388,-1.5756,0.0318063,0.027956,-0.0188027,0.0379248,0.0853461,0.0555681,0.0350096,0.927501,-1.43769,0.000429932,0,0,0,0,0,0,0,11.8737,-39.287,11.51,20.9763,2.48718,-2.14515,0.14476,
0.0486799,0.0613781,-0.0360894,-1.5839,0.0520558,-4.94811e-05,-0.0185949,0.198633,-0.0145592,0.19199,-0.307481,0.842837,-1.15113,0.00610048,1.35069,-1.49036,1.3083,-13.0109,3.78559,-0.080145,-1.71899,35.5421,7.13625,34.1809,-44.6532,11.0093,-12.6571,0.0214567,0.0599201,0.0612748,-0.023172,-1.59785,0.0984553,-0.080063,-0.0186057,0.362199,-0.0566111,0.405893,-0.546542,1.04233,-1.81142,-0.00217826,40.5343,-17.7447,43.7906,-72.6939,14.3536,-46.7151,-0.326024,21.9664,-30.1543,20.7102,20.9485,4.90509,-1.74049,0.171311,
0.0504537,0.0612857,-0.0343782,-1.58714,0.0593598,-0.00901654,-0.0186693,0.20325,-0.0139587,0.196371,-0.327214,0.856868,-1.14508,0.00302073,2.88553,0.375258,2.73806,-12.3331,8.76979,3.78117,-1.92485,31.5837,6.28288,30.4301,-44.0394,11.0093,-11.4428,-0.0761344,0.0599201,0.0612748,-0.023172,-1.59785,0.0984553,-0.080063,-0.0186057,0.362199,-0.0566111,0.405893,-0.546542,1.04233,-1.81142,-0.00217826,0,0,0,0,0,0,0,21.9664,-30.1543,20.7102,20.9485,4.90509,-1.74049,0.171311,
0.0522872,0.0612726,-0.0326111,-1.59049,0.0670078,-0.0175009,-0.0187524,0.208438,-0.0114948,0.201276,-0.345329,0.876694,-1.12817,0.000339455,3.24257,1.53995,3.06541,-11.3217,12.3911,10.5672,-1.67579,29.0322,5.41851,27.9869,-43.5019,11.0093,-10.4208,-0.10799,0.0599201,0.0612748,-0.023172,-1.59785,0.0984553,-0.080063,-0.0186057,0.362199,-0.0566111,0.405893,-0.546542,1.04233,-1.81142,-0.00217826,0,0,0,0,0,0,0,21.9664,-30.1543,20.7102,20.9485,4.90509,-1.74049,0.171311,
0.0660933,0.0614511,-0.0172387,-1.60606,0.115796,-0.105775,-0.0186168,0.242704,-0.00446575,0.234011,-0.378429,0.921614,-1.21231,-0.00127942,21.416,4.39317,20.4596,-20.6879,28.0751,-52.5845,-1.01179,39.6203,10.3983,38.0324,-51.6428,11.0093,-12.91,0.0571227,0.0599201,0.0612748,-0.023172,-1.59785,0.0984553,-0.080063,-0.0186057,0.362199,-0.0566111,0.405893,-0.546542,1.04233,-1.81142,-0.00217826,0,0,0,0,0,0,0,21.9664,-30.1543,20.7102,20.9485,4.90509,-1.74049,0.171311,
0.0689977,0.0617219,-0.0144452,-1.6102,0.12483,-0.117124,-0.0187288,0.266774,0.00319786,0.257048,-0.406339,0.963157,-1.25356,-0.00382377,15.0443,4.78976,14.3977,-17.4437,25.9644,-25.7816,-1.59022,34.6815,8.70281,33.371,-50.7396,11.092,-12.2281,-0.0838092,0.0760086,0.0599112,-0.00648718,-1.62228,0.134409,-0.137905,-0.0185887,0.521681,-0.00468862,0.526628,-0.795502,1.01906,-1.57814,-0.00387261,19.9352,6.49031,15.0919,-31.12,-2.9089,29.1589,-0.211794,13.6232,-27.0082,12.8867,15.8942,3.51257,-2.55622,0.0779268,
0.0717625,0.0620196,-0.011785,-1.6144,0.133997,-0.127296,-0.0188559,0.282537,0.00999913,0.272143,-0.43017,0.999703,-1.25715,-0.00623696,9.85193,4.2508,9.43468,-14.894,22.8408,-2.24512,-1.50825,31.3473,6.93494,30.2062,-50.3828,11.092,-10.7831,-0.137372,0.0760086,0.0599112,-0.00648718,-1.62228,0.134409,-0.137905,-0.0185887,0.521681,-0.00468862,0.526628,-0.795502,1.01906,-1.57814,-0.00387261,0,0,0,0,0,0,0,13.6232,-27.0082,12.8867,15.8942,3.51257,-2.55622,0.0779268,
0.0683718,0.0609167,-0.0150373,-1.61293,0.125843,-0.100065,-0.0191465,0.292116,0.00850684,0.281402,-0.470285,1.03277,-1.10681,-0.0107207,5.9863,-0.932681,5.78676,-25.0722,20.6662,93.9605,-2.80233,27.9018,5.03012,26.9184,-57.3635,11.092,1.24005,-0.254744,0.0760086,0.0599112,-0.00648718,-1.62228,0.134409,-0.137905,-0.0185887,0.521681,-0.00468862,0.526628,-0.795502,1.01906,-1.57814,-0.00387261,0,0,0,0,0,0,0,13.6232,-27.0082,12.8867,15.8942,3.51257,-2.55622,0.0779268,
0.0862152,0.0611724,0.00331046,-1.63892,0.163019,-0.156334,-0.0192852,0.309905,0.0176624,0.298389,-0.510538,1.07102,-0.9704,-0.0145181,11.1183,5.7222,10.6167,-25.1581,23.9094,85.2595,-2.37337,25.5539,2.96364,24.6834,-57.1934,11.092,2.55887,-0.279324,0.0760086,0.0599112,-0.00648718,-1.62228,0.134409,-0.137905,-0.0185887,0.521681,-0.00468862,0.526628,-0.795502,1.01906,-1.57814,-0.00387261,0,0,0,0,0,0,0,13.6232,-27.0082,12.8867,15.8942,3.51257,-2.55622,0.0779268,
0.0889997,0.0615412,0.00598961,-1.64418,0.172768,-0.15728,-0.0195036,0.317537,0.0233504,0.30569,-0.540147,1.10053,-0.799982,-0.0170729,4.76979,3.55503,4.56321,-18.5053,18.4434,106.511,-1.59674,24.1626,2.1648,23.3068,-56.591,11.1676,4.94988,-0.274828,0.0963884,0.0609059,0.0137113,-1.65158,0.17327,-0.190072,-0.0186563,0.654607,0.0568009,0.621927,-0.935547,1.35339,-1.62685,-0.00556247,16.6158,7.68619,11.9123,-17.5056,41.792,-6.08763,-0.211233,9.64405,-29.6544,9.0384,13.129,3.2077,-3.55781,0.0577852,
0.0915679,0.0618333,0.00846199,-1.64935,0.182375,-0.155954,-0.0196997,0.318235,0.0259845,0.306361,-0.561344,1.1206,-0.606844,-0.0185615,0.436195,1.64628,0.419688,-13.2486,12.5392,120.712,-0.930385,22.9375,1.24561,22.1249,-55.9988,11.1676,7.48768,-0.252249,0.0963884,0.0609059,0.0137113,-1.65158,0.17327,-0.190072,-0.0186563,0.654607,0.0568009,0.621927,-0.935547,1.35339,-1.62685,-0.00556247,0,0,0,0,0,0,0,9.64405,-29.6544,9.0384,13.129,3.2077,-3.55781,0.0577852,
0.104473,0.0620006,0.0214836,-1.66527,0.19627,-0.198902,-0.0194459,0.347687,0.0343692,0.334667,-0.614713,1.18371,-0.540161,-0.0242666,18.4077,5.24045,17.6912,-33.3551,39.4453,41.6767,-3.56571,17.6193,-0.187946,17.1571,-63.5598,11.1676,12.5578,-0.483697,0.0963884,0.0609059,0.0137113,-1.65158,0.17327,-0.190072,-0.0186563,0.654607,0.0568009,0.621927,-0.935547,1.35339,-1.62685,-0.00556247,0,0,0,0,0,0,0,9.64405,-29.6544,9.0384,13.129,3.2077,-3.55781,0.0577852,
0.107711,0.0624807,0.0246011,-1.67149,0.20743,-0.197937,-0.0197721,0.35909,0.0394976,0.345671,-0.647415,1.22599,-0.408005,-0.0275692,7.12699,3.20527,6.8774,-20.439,26.4261,82.5971,-2.06412,17.7817,-1.09507,17.2865,-63.1783,11.1676,12.5578,-0.421276,0.0963884,0.0609059,0.0137113,-1.65158,0.17327,-0.190072,-0.0186563,0.654607,0.0568009,0.621927,-0.935547,1.35339,-1.62685,-0.00556247,0,0,0,0,0,0,0,9.64405,-29.6544,9.0384,13.129,3.2077,-3.55781,0.0577852,
0.110568,0.0628703,0.027354,-1.67738,0.218157,-0.194719,-0.0200512,0.358712,0.0413382,0.345358,-0.665198,1.24895,-0.245944,-0.0290327,-0.236021,1.15036,-0.195339,-11.1142,14.3492,101.288,-0.914697,17.8555,-1.65215,17.274,-61.8528,10.9085,13.1824,-0.369683,0.119256,0.0616076,0.0341906,-1.69075,0.22328,-0.242653,-0.0194084,0.629899,-0.0421728,0.629863,-1.38064,1.62155,-1.15769,-0.0293398,-3.08858,-12.3717,0.992084,-55.6366,33.5194,58.644,-2.97217,-2.04754,-28.3809,-1.58599,19.0323,0.941769,1.6607,-0.00996382,
0.113124,0.0631628,0.0298172,-1.683,0.228439,-0.18988,-0.0202884,0.350865,0.0403832,0.337868,-0.672537,1.25621,-0.0757845,-0.0291565,-4.90476,-0.596844,-4.68164,-4.58729,4.53566,106.35,-0.0773555,17.7893,-1.65882,17.2038,-61.1078,10.9085,13.1824,-0.315641,0.119256,0.0616076,0.0341906,-1.69075,0.22328,-0.242653,-0.0194084,0.629899,-0.0421728,0.629863,-1.38064,1.62155,-1.15769,-0.0293398,0,0,0,0,0,0,0,-2.04754,-28.3809,-1.58599,19.0323,0.941769,1.6607,-0.00996382,
0.126837,0.0625806,0.0414754,-1.70654,0.248046,-0.249676,-0.0204674,0.366341,0.0446338,0.352679,-0.722762,1.30782,-0.101406,-0.0353252,9.67277,2.65661,9.25716,-31.3903,32.2583,-16.0137,-3.85544,6.20966,-7.88993,6.12053,-68.7984,10.9085,13.1824,-0.682568,0.119256,0.0616076,0.0341906,-1.69075,0.22328,-0.242653,-0.0194084,0.629899,-0.0421728,0.629863,-1.38064,1.62155,-1.15769,-0.0293398,0,0,0,0,0,0,0,-2.04754,-28.3809,-1.58599,19.0323,0.941769,1.6607,-0.00996382,
0.129725,0.0629345,0.0442582,-1.71334,0.2595,-0.248385,-0.0208538,0.365269,0.0445568,0.351713,-0.748032,1.33262,-0.0488465,-0.0379214,-0.669932,-0.0481646,-0.604175,-15.7942,15.5003,32.8499,-1.62265,8.87664,-7.31224,8.68091,-67.8592,10.9085,13.1824,-0.541377,0.119256,0.0616076,0.0341906,-1.69075,0.22328,-0.242653,-0.0194084,0.629899,-0.0421728,0.629863,-1.38064,1.62155,-1.15769,-0.0293398,0,0,0,0,0,0,0,-2.04754,-28.3809,-1.58599,19.0323,0.941769,1.6607,-0.00996382,
0.132209,0.0631393,0.0466555,-1.71969,0.270296,-0.244926,-0.0211649,0.35433,0.0407648,0.341304,-0.757321,1.33599,0.0474136,-0.0381152,-6.83725,-2.36995,-6.5056,-5.80549,2.10435,60.1626,-0.121093,9.92783,-8.0033,9.62439,-65.4075,10.2133,13.518,-0.447661,0.14076,0.0619918,0.0557954,-1.74283,0.279984,-0.24739,-0.0206556,0.616264,0.0171558,0.63312,-1.56369,1.67984,0.652153,-0.0463665,-1.70432,7.41608,0.407125,-22.8812,7.28592,226.231,-2.12833,-5.29278,-33.1496,-5.5374,26.9788,1.14959,4.45855,0.151169,
0.134386,0.0632186,0.0487582,-1.7257,0.280498,-0.239873,-0.0214136,0.337882,0.0345943,0.32561,-0.756114,1.32385,0.164238,-0.0367097,-10.2796,-3.8566,-9.80857,0.754589,-7.58775,73.0153,0.878403,11.0148,-7.08913,10.6806,-64.4194,10.2133,13.518,-0.362865,0.14076,0.0619918,0.0557954,-1.74283,0.279984,-0.24739,-0.0206556,0.616264,0.0171558,0.63312,-1.56369,1.67984,0.652153,-0.0463665,0,0,0,0,0,0,0,-5.29278,-33.1496,-5.5374,26.9788,1.14959,4.45855,0.151169,
0.147753,0.063766,0.0624905,-1.75899,0.304349,-0.238845,-0.0218508,0.347121,0.0474048,0.334126,-0.791167,1.35451,0.247237,-0.0424491,5.77442,8.00659,5.32279,-21.9079,19.1625,51.874,-3.58711,-2.97181,-15.0706,-2.7147,-70.694,10.2133,13.518,-0.774344,0.14076,0.0619918,0.0557954,-1.74283,0.279984,-0.24739,-0.0206556,0.616264,0.0171558,0.63312,-1.56369,1.67984,0.652153,-0.0463665,0,0,0,0,0,0,0,-5.29278,-33.1496,-5.5374,26.9788,1.14959,4.45855,0.151169,
0.150246,0.0642463,0.064892,-1.76578,0.315093,-0.233258,-0.0222493,0.34002,0.0499325,0.327338,-0.802602,1.3522,0.337464,-0.0439209,-4.43848,1.57982,-4.24283,-7.14721,-1.44095,56.3923,-0.919837,1.44818,-12.8485,1.52838,-69.3048,10.2133,13.518,-0.58401,0.14076,0.0619918,0.0557954,-1.74283,0.279984,-0.24739,-0.0206556,0.616264,0.0171558,0.63312,-1.56369,1.67984,0.652153,-0.0463665,0,0,0,0,0,0,0,-5.29278,-33.1496,-5.5374,26.9788,1.14959,4.45855,0.151169,
0.152338,0.0644726,0.0669149,-1.7721,0.324623,-0.226824,-0.0225553,0.324305,0.0456037,0.312442,-0.80019,1.32,0.430827,-0.0427869,-9.82164,-2.70553,-9.31016,1.50782,-20.1271,58.352,0.708712,4.44149,-11.3317,4.36665,-67.878,8.66226,13.4026,-0.447491,0.160894,0.0614733,0.0754541,-1.79704,0.339738,-0.219531,-0.0225843,0.587352,-0.0297733,0.505407,-1.5933,1.68902,0.929538,-0.046508,-3.61405,-5.86614,-15.9642,-3.7011,1.14739,34.6731,-0.017695,-9.47827,-35.4704,-8.65965,25.6815,0.495907,3.00652,-0.0365141,
0.16734,0.0630509,0.0816338,-1.81277,0.362207,-0.208852,-0.0234821,0.331398,0.0546963,0.319155,-0.819842,1.32146,0.481617,-0.0441741,4.4329,5.68288,4.1958,-12.2825,0.912521,31.7436,-0.867005,1.62608,-13.5618,1.64903,-69.248,9.95402,13.4026,-0.585196,0.160894,0.0614733,0.0754541,-1.79704,0.339738,-0.219531,-0.0225843,0.587352,-0.0297733,0.505407,-1.5933,1.68902,0.929538,-0.046508,0,0,0,0,0,0,0,-9.47827,-35.4704,-8.65965,25.6815,0.495907,3.00652,-0.0365141,
0.169724,0.0635008,0.0839344,-1.81931,0.3716,-0.20267,-0.0237899,0.32472,0.0550044,0.31284,-0.819303,1.29199,0.539851,-0.0430339,-4.1735,0.192579,-3.94706,0.33639,-18.4195,36.3963,0.712669,4.44149,-11.3317,4.36665,-67.878,8.66226,13.4026,-0.447491,0.160894,0.0614733,0.0754541,-1.79704,0.339738,-0.219531,-0.0225843,0.587352,-0.0297733,0.505407,-1.5933,1.68902,0.929538,-0.046508,0,0,0,0,0,0,0,-9.47827,-35.4704,-8.65965,25.6815,0.495907,3.00652,-0.0365141,
0.171759,0.0637144,0.0859024,-1.8254,0.379623,-0.1958,-0.0240264,0.310657,0.0493445,0.29947,-0.807907,1.23417,0.603634,-0.0403394,-8.78959,-3.53743,-8.35579,7.12302,-36.1377,39.8642,1.68405,6.20849,-9.27542,6.07045,-66.5802,7.46216,13.4026,-0.347487,0.160894,0.0614733,0.0754541,-1.79704,0.339738,-0.219531,-0.0225843,0.587352,-0.0297733,0.505407,-1.5933,1.68902,0.929538,-0.046508,0,0,0,0,0,0,0,-9.47827,-35.4704,-8.65965,25.6815,0.495907,3.00652,-0.0365141,
0.173536,0.0637596,0.087622,-1.83117,0.386348,-0.18834,-0.0242106,0.292943,0.0406056,0.282566,-0.790536,1.15547,0.669391,-0.0368785,-11.0709,-5.46186,-10.5652,10.8564,-49.1819,41.0982,2.16308,7.36086,-7.41873,7.13914,-65.3419,5.75536,13.4026,-0.269605,0.160894,0.0614733,0.0754541,-1.79704,0.339738,-0.219531,-0.0225843,0.587352,-0.0297733,0.505407,-1.5933,1.68902,0.929538,-0.046508,0,0,0,0,0,0,0,-9.47827,-35.4704,-8.65965,25.6815,0.495907,3.00652,-0.0365141,
0.18342,0.0627917,0.0992855,-1.86941,0.419297,-0.16757,-0.0251231,0.29867,0.0577438,0.287977,-0.81081,1.15352,0.697283,-0.036999,3.57936,10.7114,3.38165,-12.6709,-1.21969,17.4323,-0.0753628,4.66711,-11.7719,4.54618,-67.8082,8.52082,13.3099,-0.450589,0.177737,0.0606674,0.0938306,-1.85355,0.39932,-0.18087,-0.0244584,0.504402,-0.0417777,0.407091,-1.74543,1.7203,1.33074,-0.0457669,-10.3687,-1.50055,-12.2895,-19.0159,3.91021,50.1506,0.0926368,-11.4064,-37.5414,-10.9845,24.4635,0.868527,2.70165,-0.103348,
0.185597,0.0634789,0.101384,-1.87583,0.426994,-0.160723,-0.0253566,0.293347,0.063373,0.282855,-0.809352,1.11525,0.728998,-0.0354362,-3.3273,3.51826,-3.20118,0.911142,-23.9203,19.8218,0.976808,6.43412,-9.71559,6.24998,-66.5105,7.32072,13.3099,-0.350585,0.177737,0.0606674,0.0938306,-1.85355,0.39932,-0.18087,-0.0244584,0.504402,-0.0417777,0.407091,-1.74543,1.7203,1.33074,-0.0457669,0,0,0,0,0,0,0,-11.4064,-37.5414,-10.9845,24.4635,0.868527,2.70165,-0.103348,
0.187476,0.0638857,0.103198,-1.88183,0.433384,-0.153385,-0.0255387,0.281658,0.0608693,0.271623,-0.797301,1.05193,0.766656,-0.0329021,-7.30556,-1.56479,-7.01981,7.53157,-39.5727,23.5365,1.58379,7.58649,-7.85891,7.31868,-65.2722,5.61392,13.3099,-0.272703,0.177737,0.0606674,0.0938306,-1.85355,0.39932,-0.18087,-0.0244584,0.504402,-0.0417777,0.407091,-1.74543,1.7203,1.33074,-0.0457669,0,0,0,0,0,0,0,-11.4064,-37.5414,-10.9845,24.4635,0.868527,2.70165,-0.103348,
0.189139,0.0640883,0.104804,-1.88748,0.438399,-0.145587,-0.0256803,0.266907,0.0537616,0.257443,-0.779313,0.966944,0.808259,-0.029861,-9.21944,-4.44235,-8.86225,11.2429,-53.1189,26.0016,1.90068,8.2694,-6.21667,7.95707,-64.0781,4.44476,13.3099,-0.21715,0.177737,0.0606674,0.0938306,-1.85355,0.39932,-0.18087,-0.0244584,0.504402,-0.0417777,0.407091,-1.74543,1.7203,1.33074,-0.0457669,0,0,0,0,0,0,0,-11.4064,-37.5414,-10.9845,24.4635,0.868527,2.70165,-0.103348,
0.198682,0.0626498,0.113298,-1.92576,0.465352,-0.115876,-0.0261642,0.274103,0.069519,0.264094,-0.796281,0.941427,0.830296,-0.0294958,4.49783,9.84838,4.15674,-10.6055,-15.9481,13.7731,0.228257,6.32421,-10.2007,6.11435,-66.3353,7.23606,13.2464,-0.345594,0.193344,0.0604021,0.108173,-1.91043,0.450519,-0.131306,-0.0256731,0.3848,-0.0106321,0.47689,-1.65687,1.32539,1.53121,-0.0309342,-14.9502,3.8932,8.72493,11.0699,-49.3632,25.0587,1.85409,-4.86432,-37.8905,-4.50987,31.1127,0.745846,2.34368,-0.298355,
0.200729,0.0633881,0.115265,-1.93202,0.470959,-0.108422,-0.0263427,0.270477,0.0740731,0.260474,-0.793388,0.893318,0.850588,-0.0280584,-2.26632,2.8463,-2.26266,1.80846,-30.0679,12.683,0.898362,7.47658,-8.34403,7.18304,-65.097,5.52926,13.2464,-0.267713,0.193344,0.0604021,0.108173,-1.91043,0.450519,-0.131306,-0.0256731,0.3848,-0.0106321,0.47689,-1.65687,1.32539,1.53121,-0.0309342,0,0,0,0,0,0,0,-4.86432,-37.8905,-4.50987,31.1127,0.745846,2.34368,-0.298355,
0.202506,0.0638488,0.116974,-1.93785,0.475369,-0.100662,-0.0264813,0.260791,0.0707754,0.251096,-0.780597,0.824904,0.874474,-0.0259137,-6.05413,-2.06103,-5.86138,7.99455,-42.7589,14.9286,1.34041,8.1595,-6.7018,7.82144,-63.9029,4.36011,13.2464,-0.212159,0.193344,0.0604021,0.108173,-1.91043,0.450519,-0.131306,-0.0256731,0.3848,-0.0106321,0.47689,-1.65687,1.32539,1.53121,-0.0309342,0,0,0,0,0,0,0,-4.86432,-37.8905,-4.50987,31.1127,0.745846,2.34368,-0.298355,
0.19878,0.0628032,0.113396,-1.92551,0.464245,-0.115939,-0.0260571,0.270554,0.0852331,0.260326,-0.794116,0.812211,0.882717,-0.0252043,6.10239,9.03607,5.76899,-8.44964,-7.93345,5.15158,0.44343,7.47658,-8.34403,7.18304,-65.097,5.52926,13.2464,-0.267713,0.193344,0.0604021,0.108173,-1.91043,0.450519,-0.131306,-0.0256731,0.3848,-0.0106321,0.47689,-1.65687,1.32539,1.53121,-0.0309342,0,0,0,0,0,0,0,-4.86432,-37.8905,-4.50987,31.1127,0.745846,2.34368,-0.298355,
0.200888,0.0636261,0.115421,-1.93164,0.468981,-0.108495,-0.0262004,0.269141,0.0887581,0.258904,-0.788429,0.768177,0.892295,-0.0237461,-0.883203,2.20313,-0.888559,3.55465,-27.5211,5.98647,0.911356,8.13979,-7.14386,7.78545,-63.8331,4.34759,13.1503,-0.207583,0.207922,0.0592646,0.121139,-1.96619,0.491422,-0.0722724,-0.0264032,0.312481,-0.00782311,0.450893,-1.59162,0.989017,1.81475,-0.0136479,-9.03986,0.351127,-3.24962,8.15637,-42.0469,35.4427,2.16079,-4.70959,-34.7722,-3.96239,26.0544,0.837399,0.427481,-0.197647,
0.202719,0.0641655,0.117183,-1.93736,0.472449,-0.100732,-0.0263103,0.261091,0.0844933,0.251155,-0.773834,0.701224,0.907893,-0.0217429,-5.03152,-2.66555,-4.84363,9.12153,-41.8453,9.74868,1.25198,8.62915,-5.72738,8.21391,-62.6713,2.56,13.1503,-0.163667,0.207922,0.0592646,0.121139,-1.96619,0.491422,-0.0722724,-0.0264032,0.312481,-0.00782311,0.450893,-1.59162,0.989017,1.81475,-0.0136479,0,0,0,0,0,0,0,-4.70959,-34.7722,-3.96239,26.0544,0.837399,0.427481,-0.197647,
0.204341,0.0644931,0.118744,-1.94279,0.474755,-0.0926244,-0.0263905,0.24942,0.0757836,0.239949,-0.754897,0.618645,0.929013,-0.0193993,-7.2944,-5.44352,-7.00325,11.836,-51.6123,13.1997,1.46475,9.00458,-4.56,8.56256,-61.55,1.11994,13.1503,-0.127449,0.207922,0.0592646,0.121139,-1.96619,0.491422,-0.0722724,-0.0264032,0.312481,-0.00782311,0.450893,-1.59162,0.989017,1.81475,-0.0136479,0,0,0,0,0,0,0,-4.70959,-34.7722,-3.96239,26.0544,0.837399,0.427481,-0.197647,
0.212721,0.061604,0.125738,-1.9807,0.500523,-0.0541536,-0.0266731,0.254299,0.0885845,0.244359,-0.767201,0.591115,0.954627,-0.0187875,3.04977,8.00058,2.75603,-7.68997,-17.206,16.0094,0.382392,8.13979,-7.14386,7.78545,-63.8331,4.34759,13.1503,-0.207583,0.207922,0.0592646,0.121139,-1.96619,0.491422,-0.0722724,-0.0264032,0.312481,-0.00782311,0.450893,-1.59162,0.989017,1.81475,-0.0136479,0,0,0,0,0,0,0,-4.70959,-34.7722,-3.96239,26.0544,0.837399,0.427481,-0.197647,
0.214592,0.0624133,0.127531,-1.98662,0.503252,-0.0459067,-0.0267773,0.25022,0.0910994,0.240322,-0.761683,0.541131,0.969873,-0.0176352,-2.54984,1.57181,-2.52319,3.44836,-31.2399,9.52839,0.720206,8.55458,-6.0605,8.12008,-62.6276,2.5548,13.0764,-0.15952,0.221228,0.0590568,0.133907,-2.01956,0.525111,-0.00834326,-0.0269849,0.418153,0.0464963,0.302248,-1.44719,0.751259,1.78795,-0.00792844,13.2089,6.78992,-18.5807,18.0527,-29.7197,-3.35094,0.714937,-2.93621,-36.8907,-2.43498,22.1942,0.392452,-1.49513,-0.143631,
0.216227,0.0629494,0.1291,-1.99218,0.504976,-0.0375659,-0.0268534,0.241055,0.0862819,0.231486,-0.748233,0.476002,0.984419,-0.0160123,-5.72781,-3.01096,-5.52247,8.4064,-40.7057,9.09109,1.01427,8.93001,-4.89312,8.46873,-61.5063,1.11474,13.0764,-0.123302,0.221228,0.0590568,0.133907,-2.01956,0.525111,-0.00834326,-0.0269849,0.418153,0.0464963,0.302248,-1.44719,0.751259,1.78795,-0.00792844,0,0,0,0,0,0,0,-2.93621,-36.8907,-2.43498,22.1942,0.392452,-1.49513,-0.143631,
0.217687,0.0632806,0.130503,-1.99747,0.505793,-0.0290345,-0.0269033,0.229348,0.0773062,0.220251,-0.731025,0.401234,1.00082,-0.0140569,-7.31733,-5.60979,-7.02222,10.7547,-46.7303,10.2506,1.22213,9.25905,-3.97692,8.78831,-60.4397,-0.0320196,13.0764,-0.0917604,0.221228,0.0590568,0.133907,-2.01956,0.525111,-0.00834326,-0.0269849,0.418153,0.0464963,0.302248,-1.44719,0.751259,1.78795,-0.00792844,0,0,0,0,0,0,0,-2.93621,-36.8907,-2.43498,22.1942,0.392452,-1.49513,-0.143631,
0.225769,0.0614784,0.138227,-2.03347,0.530776,0.0102474,-0.0271739,0.235154,0.0899682,0.225542,-0.742873,0.376109,1.01786,-0.0136025,3.62892,7.91375,3.30692,-7.40494,-15.703,10.6491,0.284009,8.55458,-6.0605,8.12008,-62.6276,2.5548,13.0764,-0.15952,0.221228,0.0590568,0.133907,-2.01956,0.525111,-0.00834326,-0.0269849,0.418153,0.0464963,0.302248,-1.44719,0.751259,1.78795,-0.00792844,0,0,0,0,0,0,0,-2.93621,-36.8907,-2.43498,22.1942,0.392452,-1.49513,-0.143631,
0.227538,0.0622865,0.139919,-2.03924,0.532043,0.0186634,-0.0272464,0.232341,0.0921774,0.222734,-0.738589,0.332548,1.02469,-0.012695,-1.75777,1.38072,-1.75455,2.67769,-27.226,4.26846,0.567205,9.02401,-5.01393,8.53609,-61.2995,1.26169,13.0667,-0.121934,0.23317,0.0600329,0.146033,-2.07102,0.545556,0.0560117,-0.0270515,0.418375,0.037904,0.257061,-1.53513,0.63235,1.90028,-0.00312471,0.0277864,-1.07403,-5.64828,-10.9921,-14.8637,14.0417,0.600465,-1.3374,-34.5699,-1.13768,22.8171,1.11297,0.0493681,-0.137222,
0.229089,0.0628246,0.141405,-2.04468,0.532494,0.0271217,-0.027294,0.224646,0.0871952,0.215327,-0.72693,0.277313,1.03121,-0.0113443,-4.80955,-3.11388,-4.62932,7.28672,-34.5218,4.07495,0.844168,9.35305,-4.09772,8.85567,-60.2329,0.114934,13.0667,-0.0903924,0.23317,0.0600329,0.146033,-2.07102,0.545556,0.0560117,-0.0270515,0.418375,0.037904,0.257061,-1.53513,0.63235,1.90028,-0.00312471,0,0,0,0,0,0,0,-1.3374,-34.5699,-1.13768,22.8171,1.11297,0.0493681,-0.137222,
0.23048,0.0631612,0.142738,-2.04989,0.532228,0.0357341,-0.0273178,0.214493,0.0781718,0.205601,-0.711686,0.21522,1.04028,-0.0096708,-6.34562,-5.63957,-6.07898,9.52772,-38.8078,5.6674,1.04594,9.66288,-3.41364,9.16498,-59.222,-0.803357,13.0667,-0.0614394,0.23317,0.0600329,0.146033,-2.07102,0.545556,0.0560117,-0.0270515,0.418375,0.037904,0.257061,-1.53513,0.63235,1.90028,-0.00312471,0,0,0,0,0,0,0,-1.3374,-34.5699,-1.13768,22.8171,1.11297,0.0493681,-0.137222,
0.237471,0.0627098,0.150105,-2.08514,0.548368,0.0747741,-0.0271511,0.220587,0.0940849,0.211106,-0.728159,0.191686,1.04899,-0.00917402,3.80894,9.94564,3.44089,-10.2954,-14.7091,5.44397,0.310491,9.02401,-5.01393,8.53609,-61.2995,1.26169,13.0667,-0.121934,0.23317,0.0600329,0.146033,-2.07102,0.545556,0.0560117,-0.0270515,0.418375,0.037904,0.257061,-1.53513,0.63235,1.90028,-0.00312471,0,0,0,0,0,0,0,-1.3374,-34.5699,-1.13768,22.8171,1.11297,0.0493681,-0.137222,
0.239154,0.0636367,0.151711,-2.0909,0.548352,0.083117,-0.0271936,0.218553,0.0984418,0.209019,-0.726597,0.15295,1.04776,-0.00840042,-1.27168,2.72309,-1.30491,0.975965,-24.2095,-0.765145,0.483497,9.28915,-4.2796,8.7639,-60.0659,0.182803,13.0531,-0.085894,0.244143,0.0608735,0.159254,-2.12193,0.554243,0.119638,-0.0270559,0.316507,0.0391646,0.391787,-1.514,0.275657,1.86925,0.000673627,-12.7335,0.157579,16.8407,2.64141,-44.5867,-3.87814,0.474792,-1.41278,-32.8996,-1.38762,22.5433,1.65588,0.798269,-0.117081,
0.240637,0.0642711,0.153126,-2.09632,0.547702,0.0914926,-0.0272147,0.211915,0.0946138,0.202614,-0.716847,0.106115,1.0476,-0.00724904,-4.14874,-2.39249,-4.0029,6.0936,-29.2723,-0.102833,0.719615,9.59897,-3.59553,9.07322,-59.055,-0.735488,13.0531,-0.056941,0.244143,0.0608735,0.159254,-2.12193,0.554243,0.119638,-0.0270559,0.316507,0.0391646,0.391787,-1.514,0.275657,1.86925,0.000673627,0,0,0,0,0,0,0,-1.41278,-32.8996,-1.38762,22.5433,1.65588,0.798269,-0.117081,
0.241974,0.0646841,0.154404,-2.10151,0.546529,0.100026,-0.0272134,0.202945,0.0860141,0.194023,-0.703045,0.0555569,1.05142,-0.00576586,-5.60633,-5.37482,-5.36958,8.62659,-31.5987,2.38776,0.926986,9.89225,-3.10807,9.36996,-58.0995,-1.4508,13.0531,-0.0300989,0.244143,0.0608735,0.159254,-2.12193,0.554243,0.119638,-0.0270559,0.316507,0.0391646,0.391787,-1.514,0.275657,1.86925,0.000673627,0,0,0,0,0,0,0,-1.41278,-32.8996,-1.38762,22.5433,1.65588,0.798269,-0.117081,
0.248515,0.0635198,0.1634,-2.13599,0.553069,0.1378,-0.0271019,0.211988,0.100183,0.202299,-0.720831,0.0201697,1.05037,-0.005424,5.65228,8.85577,5.17255,-11.1163,-22.117,-0.653514,0.213662,9.28915,-4.2796,8.7639,-60.0659,0.182803,13.0531,-0.085894,0.244143,0.0608735,0.159254,-2.12193,0.554243,0.119638,-0.0270559,0.316507,0.0391646,0.391787,-1.514,0.275657,1.86925,0.000673627,0,0,0,0,0,0,0,-1.41278,-32.8996,-1.38762,22.5433,1.65588,0.798269,-0.117081,
0.250209,0.0644537,0.16501,-2.14174,0.551694,0.145867,-0.0271218,0.211942,0.103496,0.202102,-0.720331,-0.018229,1.04195,-0.0048376,-0.0291854,2.07023,-0.122709,0.312286,-23.9992,-5.26408,0.366501,9.54997,-3.80664,8.99861,-58.9135,-0.660336,12.9957,-0.0536743,0.257537,0.0623938,0.169059,-2.17113,0.560512,0.183094,-0.0270452,0.255369,0.0509785,0.415686,-1.48615,0.0171523,1.90068,0.00125622,-7.64231,1.47673,2.98732,3.48173,-32.3131,3.92848,0.0728243,-2.04754,-34.0978,-1.51061,23.4915,1.19171,0.175711,-0.150955,
0.251694,0.065102,0.166425,-2.14715,0.550008,0.154,-0.0271207,0.206697,0.0990034,0.197048,-0.711384,-0.0567349,1.03689,-0.0038434,-3.27772,-2.80772,-3.1588,5.59207,-24.0662,-3.16204,0.621377,9.84325,-3.31919,9.29535,-57.958,-1.37565,12.9957,-0.0268322,0.257537,0.0623938,0.169059,-2.17113,0.560512,0.183094,-0.0270452,0.255369,0.0509785,0.415686,-1.48615,0.0171523,1.90068,0.00125622,0,0,0,0,0,0,0,-2.04754,-34.0978,-1.51061,23.4915,1.19171,0.175711,-0.150955,
0.261627,0.0650699,0.172926,-2.18506,0.556304,0.201448,-0.0270395,0.211793,0.110831,0.201468,-0.726152,-0.103282,1.04017,-0.00328458,3.18495,7.39229,2.76256,-9.23024,-29.0921,2.04736,0.349261,9.54997,-3.80664,8.99861,-58.9135,-0.660336,12.9957,-0.0536743,0.257537,0.0623938,0.169059,-2.17113,0.560512,0.183094,-0.0270452,0.255369,0.0509785,0.415686,-1.48615,0.0171523,1.90068,0.00125622,0,0,0,0,0,0,0,-2.04754,-34.0978,-1.51061,23.4915,1.19171,0.175711,-0.150955,
0.263216,0.0660136,0.17443,-2.19076,0.553891,0.209527,-0.0270366,0.209155,0.112258,0.198772,-0.723377,-0.142941,1.0341,-0.00255506,-1.64855,0.891839,-1.68547,1.73448,-24.7867,-3.79176,0.455952,9.84325,-3.31919,9.29535,-57.958,-1.37565,12.9957,-0.0268322,0.257537,0.0623938,0.169059,-2.17113,0.560512,0.183094,-0.0270452,0.255369,0.0509785,0.415686,-1.48615,0.0171523,1.90068,0.00125622,0,0,0,0,0,0,0,-2.04754,-34.0978,-1.51061,23.4915,1.19171,0.175711,-0.150955,
0.264616,0.066671,0.175757,-2.19612,0.551461,0.217649,-0.0270164,0.202305,0.106242,0.192188,-0.71272,-0.175112,1.03033,-0.00153947,-4.28165,-3.76012,-4.1149,6.66092,-20.1066,-2.35283,0.634744,10.112,-2.99086,9.57274,-57.0503,-1.8914,12.9957,4.83888e-05,0.257537,0.0623938,0.169059,-2.17113,0.560512,0.183094,-0.0270452,0.255369,0.0509785,0.415686,-1.48615,0.0171523,1.90068,0.00125622,0,0,0,0,0,0,0,-2.04754,-34.0978,-1.51061,23.4915,1.19171,0.175711,-0.150955,
0.26588,0.0671072,0.176957,-2.20123,0.548993,0.225947,-0.0269815,0.193447,0.0958961,0.183752,-0.698081,-0.201771,1.03171,-0.000357462,-5.53626,-6.46606,-5.27231,9.14898,-16.662,0.858174,0.738754,10.2918,-3.04252,9.73676,-55.9043,-2.00322,12.9347,0.0248855,0.267949,0.0646427,0.181257,-2.22007,0.559135,0.247027,-0.0270357,0.464545,0.100943,0.194591,-1.4545,-0.128999,1.85174,0.00101059,26.1471,6.24551,-27.6368,3.95548,-18.2689,-6.11812,-0.0307038,-2.80926,-33.1496,-1.98668,25.9552,1.13128,0.699392,-0.0905302,
0.271993,0.0676305,0.185023,-2.23399,0.553049,0.26488,-0.026982,0.200345,0.111249,0.189836,-0.715755,-0.24001,1.02973,5.14469e-05,4.31162,9.59565,3.80233,-11.0462,-23.8995,-1.23434,0.255568,9.82504,-3.58218,9.24581,-57.6747,-1.24891,12.9347,-0.025182,0.267949,0.0646427,0.181257,-2.22007,0.559135,0.247027,-0.0270357,0.464545,0.100943,0.194591,-1.4545,-0.128999,1.85174,0.00101059,0,0,0,0,0,0,0,-2.80926,-33.1496,-1.98668,25.9552,1.13128,0.699392,-0.0905302,
0.273551,0.0686501,0.186492,-2.23969,0.550048,0.272716,-0.0269611,0.199225,0.11449,0.18858,-0.715228,-0.267046,1.01969,0.000562593,-0.700112,2.0253,-0.784666,0.329482,-16.8978,-6.27699,0.319466,10.0937,-3.25386,9.5232,-56.767,-1.76467,12.9347,0.00169853,0.267949,0.0646427,0.181257,-2.22007,0.559135,0.247027,-0.0270357,0.464545,0.100943,0.194591,-1.4545,-0.128999,1.85174,0.00101059,0,0,0,0,0,0,0,-2.80926,-33.1496,-1.98668,25.9552,1.13128,0.699392,-0.0905302,
0.274925,0.0693584,0.187789,-2.24505,0.54718,0.280611,-0.0269271,0.193732,0.109299,0.183306,-0.70598,-0.28532,1.01312,0.00130106,-3.43339,-3.2443,-3.29635,5.78017,-11.4212,-4.10476,0.461543,10.2918,-3.04252,9.73676,-55.9043,-2.00322,12.9347,0.0248855,0.267949,0.0646427,0.181257,-2.22007,0.559135,0.247027,-0.0270357,0.464545,0.100943,0.194591,-1.4545,-0.128999,1.85174,0.00101059,0,0,0,0,0,0,0,-2.80926,-33.1496,-1.98668,25.9552,1.13128,0.699392,-0.0905302,
0.276171,0.0698271,0.188968,-2.25014,0.544338,0.2887,-0.0268798,0.186148,0.0991575,0.176115,-0.692002,-0.299307,1.01274,0.00222245,-4.73963,-6.33828,-4.49472,8.73614,-8.74143,-0.241501,0.575867,10.4102,-3.26007,9.82681,-54.8624,-2.18035,12.8101,0.0444057,0.278659,0.067256,0.192538,-2.26879,0.551673,0.31245,-0.0269952,0.235813,0.0933406,0.403655,-1.41395,-0.305954,1.89091,0.00132379,-28.5915,-0.95024,26.1329,5.06886,-22.1194,4.89688,0.0391503,-0.730404,-33.6733,-0.435472,23.2178,1.5094,0.619742,-0.0365141,
0.282141,0.0691857,0.19582,-2.28124,0.549868,0.33295,-0.0276371,0.186297,0.0968383,0.176191,-0.687845,-0.246191,1.04465,-0.00733921,0.0926846,-1.44947,0.0476582,2.59831,33.1972,19.948,-5.97604,10.0701,-3.60392,9.46414,-56.5561,-1.67252,12.8101,0.00399853,0.278659,0.067256,0.192538,-2.26879,0.551673,0.31245,-0.0269952,0.235813,0.0933406,0.403655,-1.41395,-0.305954,1.89091,0.00132379,0,0,0,0,0,0,0,-0.730404,-33.6733,-0.435472,23.2178,1.5094,0.619742,-0.0365141,
0.283223,0.0691112,0.196858,-2.28554,0.550423,0.340589,-0.0280429,0.176091,0.0756087,0.1669,-0.657885,-0.183058,1.02671,-0.0160166,-6.37841,-13.2685,-5.80669,18.7247,39.4583,-11.2164,-5.42339,10.2681,-3.39259,9.6777,-55.6934,-1.91106,12.8101,0.0271855,0.278659,0.067256,0.192538,-2.26879,0.551673,0.31245,-0.0269952,0.235813,0.0933406,0.403655,-1.41395,-0.305954,1.89091,0.00132379,0,0,0,0,0,0,0,-0.730404,-33.6733,-0.435472,23.2178,1.5094,0.619742,-0.0365141,
0.283995,0.0682929,0.197619,-2.28912,0.551497,0.346668,-0.0284623,0.160189,0.0400298,0.152538,-0.615762,-0.119618,0.973328,-0.023298,-9.93863,-22.2368,-8.97615,26.3266,39.65,-33.3614,-4.55083,10.4102,-3.26007,9.82681,-54.8624,-2.18035,12.8101,0.0444057,0.278659,0.067256,0.192538,-2.26879,0.551673,0.31245,-0.0269952,0.235813,0.0933406,0.403655,-1.41395,-0.305954,1.89091,0.00132379,0,0,0,0,0,0,0,-0.730404,-33.6733,-0.435472,23.2178,1.5094,0.619742,-0.0365141,
0.284548,0.0668444,0.198184,-2.29218,0.552883,0.351422,-0.0288763,0.141965,-0.00418985,0.136161,-0.569154,-0.0610255,0.897523,-0.0289889,-11.3902,-27.6373,-10.236,29.13,36.6201,-47.3778,-3.55686,10.6983,-4.06104,10.0955,-53.5138,-2.39738,12.6494,0.056016,0.291255,0.069992,0.201512,-2.31525,0.546671,0.369565,-0.0269675,0.318782,0.0572602,0.34446,-1.25116,-0.0081903,1.53136,0.00051726,10.3711,-4.51004,-7.39933,20.3483,37.2205,-44.944,-0.100817,-0.627255,-32.1498,-0.435472,16.3663,-4.83612,5.76501,0.0706026,
0.294676,0.0703893,0.204782,-2.32586,0.549663,0.387074,-0.0275951,0.148042,-0.00917144,0.142116,-0.563506,-0.00152063,0.907181,-0.0321431,3.79814,-3.1135,3.7221,3.53033,37.1906,6.03594,-1.97134,10.4067,-4.27606,9.80134,-55.16,-1.72436,12.6494,0.0245831,0.291255,0.069992,0.201512,-2.31525,0.546671,0.369565,-0.0269675,0.318782,0.0572602,0.34446,-1.25116,-0.0081903,1.53136,0.00051726,0,0,0,0,0,0,0,-0.627255,-32.1498,-0.435472,16.3663,-4.83612,5.76501,0.0706026,
0.29553,0.0691391,0.205631,-2.32899,0.551974,0.392407,-0.0279884,0.13978,-0.0385911,0.134924,-0.52899,0.0565625,0.859065,-0.0355477,-5.16404,-18.3873,-4.49492,21.5726,36.302,-30.0724,-2.12787,10.5488,-4.14355,9.95045,-54.3289,-1.99364,12.6494,0.0418033,0.291255,0.069992,0.201512,-2.31525,0.546671,0.369565,-0.0269675,0.318782,0.0572602,0.34446,-1.25116,-0.0081903,1.53136,0.00051726,0,0,0,0,0,0,0,-0.627255,-32.1498,-0.435472,16.3663,-4.83612,5.76501,0.0706026,
0.296001,0.066988,0.206133,-2.33134,0.55448,0.39583,-0.0283845,0.123605,-0.0846505,0.120492,-0.481926,0.107907,0.772831,-0.0383401,-10.1092,-28.7871,-9.01994,29.4151,32.0902,-53.8964,-1.74528,10.6983,-4.06104,10.0955,-53.5138,-2.39738,12.6494,0.056016,0.291255,0.069992,0.201512,-2.31525,0.546671,0.369565,-0.0269675,0.318782,0.0572602,0.34446,-1.25116,-0.0081903,1.53136,0.00051726,0,0,0,0,0,0,0,-0.627255,-32.1498,-0.435472,16.3663,-4.83612,5.76501,0.0706026,
0.296208,0.0641222,0.206395,-2.33317,0.557043,0.397709,-0.028762,0.104058,-0.139366,0.102946,-0.431316,0.15038,0.665223,-0.0401088,-12.2172,-34.1971,-10.9664,31.6308,26.5455,-67.255,-1.1054,11.0254,-4.7855,10.4139,-52.2985,-2.48274,12.528,0.0719621,0.300804,0.0700205,0.216072,-2.35812,0.549628,0.420256,-0.0270266,0.417751,-0.0408891,0.263112,-1.1891,0.135246,1.54991,-0.00647568,12.3711,-12.2687,-10.1686,7.7576,17.9295,2.31868,-0.874117,-4.3565,-32.9988,-4.43846,19.4568,-2.30744,3.41118,0.0577852,
0.303856,0.0683085,0.219007,-2.36686,0.554497,0.435329,-0.0276626,0.1118,-0.145261,0.110421,-0.428119,0.189531,0.682569,-0.0410769,4.83876,-3.68432,4.672,1.99817,24.4693,10.8415,-0.60506,10.7019,-4.90823,10.0921,-53.9188,-1.85347,12.528,0.0414094,0.300804,0.0700205,0.216072,-2.35812,0.549628,0.420256,-0.0270266,0.417751,-0.0408891,0.263112,-1.1891,0.135246,1.54991,-0.00647568,0,0,0,0,0,0,0,-4.3565,-32.9988,-4.43846,19.4568,-2.30744,3.41118,0.0577852,
0.304415,0.0658445,0.219597,-2.36893,0.557575,0.43864,-0.0280475,0.103415,-0.177808,0.103083,-0.394182,0.228575,0.628829,-0.0424847,-5.24045,-20.3421,-4.58633,21.211,24.4029,-33.5874,-0.87988,10.8515,-4.82571,10.2372,-53.1037,-2.25721,12.528,0.0556221,0.300804,0.0700205,0.216072,-2.35812,0.549628,0.420256,-0.0270266,0.417751,-0.0408891,0.263112,-1.1891,0.135246,1.54991,-0.00647568,0,0,0,0,0,0,0,-4.3565,-32.9988,-4.43846,19.4568,-2.30744,3.41118,0.0577852,
0.304559,0.0624251,0.219807,-2.37021,0.560746,0.439726,-0.028423,0.0863313,-0.227731,0.087711,-0.347352,0.26215,0.53022,-0.0433745,-10.6772,-31.2015,-9.60753,29.2686,20.984,-61.6309,-0.556152,11.0254,-4.7855,10.4139,-52.2985,-2.48274,12.528,0.0719621,0.300804,0.0700205,0.216072,-2.35812,0.549628,0.420256,-0.0270266,0.417751,-0.0408891,0.263112,-1.1891,0.135246,1.54991,-0.00647568,0,0,0,0,0,0,0,-4.3565,-32.9988,-4.43846,19.4568,-2.30744,3.41118,0.0577852,
0.304423,0.0582754,0.219758,-2.37099,0.563883,0.439078,-0.0287668,0.0656605,-0.285927,0.0689347,-0.297404,0.288145,0.407973,-0.0432954,-12.9193,-36.3726,-11.7352,31.2176,16.2472,-76.4041,0.0494656,11.173,-4.78856,10.5678,-51.5169,-2.60671,12.528,0.0888228,0.300804,0.0700205,0.216072,-2.35812,0.549628,0.420256,-0.0270266,0.417751,-0.0408891,0.263112,-1.1891,0.135246,1.54991,-0.00647568,0,0,0,0,0,0,0,-4.3565,-32.9988,-4.43846,19.4568,-2.30744,3.41118,0.0577852,
0.304107,0.0536109,0.219538,-2.37146,0.566916,0.437142,-0.0290639,0.0446232,-0.345355,0.0496474,-0.249789,0.306347,0.277983,-0.0420637,-13.1483,-37.1429,-12.0545,29.7592,11.376,-81.2437,0.769769,11.2488,-4.81076,10.6553,-50.7497,-2.62596,12.528,0.10196,0.300804,0.0700205,0.216072,-2.35812,0.549628,0.420256,-0.0270266,0.417751,-0.0408891,0.263112,-1.1891,0.135246,1.54991,-0.00647568,0,0,0,0,0,0,0,-4.3565,-32.9988,-4.43846,19.4568,-2.30744,3.41118,0.0577852,
0.303889,0.0683534,0.219043,-2.36677,0.554418,0.435318,-0.0276667,0.0647279,-0.30947,0.0682869,-0.281657,0.313185,0.372621,-0.0426754,12.5655,22.4281,11.6497,-19.9175,4.27387,59.1488,-0.382293,10.8515,-4.82571,10.2372,-53.1037,-2.25721,12.528,0.0556221,0.300804,0.0700205,0.216072,-2.35812,0.549628,0.420256,-0.0270266,0.417751,-0.0408891,0.263112,-1.1891,0.135246,1.54991,-0.00647568,0,0,0,0,0,0,0,-4.3565,-32.9988,-4.43846,19.4568,-2.30744,3.41118,0.0577852,
0.304468,0.0659094,0.219654,-2.36878,0.557446,0.43862,-0.0280512,0.0662658,-0.308674,0.0698998,-0.275789,0.326262,0.380653,-0.0437532,0.961173,0.497537,1.00809,3.66779,8.17328,5.01955,-0.673644,11.0254,-4.7855,10.4139,-52.2985,-2.48274,12.528,0.0719621,0.300804,0.0700205,0.216072,-2.35812,0.549628,0.420256,-0.0270266,0.417751,-0.0408891,0.263112,-1.1891,0.135246,1.54991,-0.00647568,0,0,0,0,0,0,0,-4.3565,-32.9988,-4.43846,19.4568,-2.30744,3.41118,0.0577852,
0.30463,0.0625071,0.219882,-2.37002,0.56057,0.439695,-0.0284246,0.0570622,-0.331998,0.0616229,-0.251508,0.339096,0.331395,-0.0443378,-5.75226,-14.5771,-5.17312,15.1755,8.02089,-30.7858,-0.365347,11.173,-4.78856,10.5678,-51.5169,-2.60671,12.528,0.0888228,0.300804,0.0700205,0.216072,-2.35812,0.549628,0.420256,-0.0270266,0.417751,-0.0408891,0.263112,-1.1891,0.135246,1.54991,-0.00647568,0,0,0,0,0,0,0,-4.3565,-32.9988,-4.43846,19.4568,-2.30744,3.41118,0.0577852,
0.304506,0.0583727,0.219845,-2.37076,0.563668,0.439034,-0.0287643,0.0425603,-0.368959,0.0483734,-0.219758,0.348739,0.248585,-0.0439637,-9.06369,-23.1005,-8.2809,19.8438,6.02715,-51.7563,0.233805,11.2488,-4.81076,10.6553,-50.7497,-2.62596,12.528,0.10196,0.300804,0.0700205,0.216072,-2.35812,0.549628,0.420256,-0.0270266,0.417751,-0.0408891,0.263112,-1.1891,0.135246,1.54991,-0.00647568,0,0,0,0,0,0,0,-4.3565,-32.9988,-4.43846,19.4568,-2.30744,3.41118,0.0577852,
0.303916,0.0683943,0.219072,-2.36669,0.554358,0.435312,-0.0276683,0.0634736,-0.327818,0.0676847,-0.256558,0.346247,0.349009,-0.0441992,13.0708,25.7129,12.0696,-23.0001,-1.55767,62.7645,-0.147178,11.0254,-4.7855,10.4139,-52.2985,-2.48274,12.528,0.0719621,0.300804,0.0700205,0.216072,-2.35812,0.549628,0.420256,-0.0270266,0.417751,-0.0408891,0.263112,-1.1891,0.135246,1.54991,-0.00647568,0,0,0,0,0,0,0,-4.3565,-32.9988,-4.43846,19.4568,-2.30744,3.41118,0.0577852,
0.304511,0.0659699,0.219699,-2.36866,0.55735,0.438607,-0.0280515,0.0656448,-0.322863,0.0698105,-0.254653,0.351809,0.361587,-0.0449402,1.357,3.09679,1.32863,1.19024,3.47659,7.86149,-0.463115,11.173,-4.78856,10.5678,-51.5169,-2.60671,12.528,0.0888228,0.300804,0.0700205,0.216072,-2.35812,0.549628,0.420256,-0.0270266,0.417751,-0.0408891,0.263112,-1.1891,0.135246,1.54991,-0.00647568,0,0,0,0,0,0,0,-4.3565,-32.9988,-4.43846,19.4568,-2.30744,3.41118,0.0577852,
0.304683,0.0625853,0.219938,-2.36986,0.560444,0.439672,-0.0284217,0.0568389,-0.342907,0.0618178,-0.233667,0.358802,0.315898,-0.045207,-5.50369,-12.5272,-4.99548,13.1166,4.37028,-28.5559,-0.166797,11.2488,-4.81076,10.6553,-50.7497,-2.62596,12.528,0.10196,0.300804,0.0700205,0.216072,-2.35812,0.549628,0.420256,-0.0270266,0.417751,-0.0408891,0.263112,-1.1891,0.135246,1.54991,-0.00647568,0,0,0,0,0,0,0,-4.3565,-32.9988,-4.43846,19.4568,-2.30744,3.41118,0.0577852,
0.303937,0.0684322,0.219095,-2.36662,0.554313,0.435308,-0.0276689,0.0751855,-0.306468,0.078743,-0.266755,0.35368,0.402775,-0.0451879,11.4666,22.7739,10.5783,-20.6804,-3.20104,54.2986,0.0119495,11.173,-4.78856,10.5678,-51.5169,-2.60671,12.528,0.0888228,0.300804,0.0700205,0.216072,-2.35812,0.549628,0.420256,-0.0270266,0.417751,-0.0408891,0.263112,-1.1891,0.135246,1.54991,-0.00647568,0,0,0,0,0,0,0,-4.3565,-32.9988,-4.43846,19.4568,-2.30744,3.41118,0.0577852,
0.30454,0.0660274,0.21973,-2.36856,0.557285,0.438596,-0.0280501,0.0752324,-0.305293,0.0788684,-0.26194,0.357249,0.404439,-0.0456804,0.0293239,0.734282,0.0783832,3.00971,2.23077,1.03955,-0.307781,11.2488,-4.81076,10.6553,-50.7497,-2.62596,12.528,0.10196,0.300804,0.0700205,0.216072,-2.35812,0.549628,0.420256,-0.0270266,0.417751,-0.0408891,0.263112,-1.1891,0.135246,1.54991,-0.00647568,0,0,0,0,0,0,0,-4.3565,-32.9988,-4.43846,19.4568,-2.30744,3.41118,0.0577852,
0.304721,0.0626645,0.219977,-2.36972,0.560356,0.439652,-0.0284172,0.0646969,-0.328309,0.0692636,-0.238549,0.362569,0.349943,-0.0457224,-6.5847,-14.3845,-6.00298,14.6194,3.32485,-34.0595,-0.0262688,11.2705,-4.82805,10.6941,-49.9839,-2.44636,12.528,0.118737,0.300804,0.0700205,0.216072,-2.35812,0.549628,0.420256,-0.0270266,0.417751,-0.0408891,0.263112,-1.1891,0.135246,1.54991,-0.00647568,0,0,0,0,0,0,0,-4.3565,-32.9988,-4.43846,19.4568,-2.30744,3.41118,0.0577852,
0.304605,0.0585741,0.219949,-2.37038,0.563403,0.438962,-0.0287509,0.0488697,-0.364906,0.0547182,-0.207504,0.366235,0.262705,-0.0449184,-9.89194,-22.8732,-9.09089,19.4028,2.29118,-54.524,0.502486,11.1529,-4.8418,10.5854,-49.2345,-2.51876,12.528,0.14112,0.300804,0.0700205,0.216072,-2.35812,0.549628,0.420256,-0.0270266,0.417751,-0.0408891,0.263112,-1.1891,0.135246,1.54991,-0.00647568,0,0,0,0,0,0,0,-4.3565,-32.9988,-4.43846,19.4568,-2.30744,3.41118,0.0577852,
0.303937,0.0684322,0.219095,-2.36662,0.554313,0.435308,-0.0276689,0.0688101,-0.324068,0.0730634,-0.245825,0.359627,0.360221,-0.044957,12.4627,25.5238,11.4657,-23.9507,-4.13019,60.9477,-0.0241277,11.2488,-4.81076,10.6553,-50.7497,-2.62596,12.528,0.10196,0.300804,0.0700205,0.216072,-2.35812,0.549628,0.420256,-0.0270266,0.417751,-0.0408891,0.263112,-1.1891,0.135246,1.54991,-0.00647568,0,0,0,0,0,0,0,-4.3565,-32.9988,-4.43846,19.4568,-2.30744,3.41118,0.0577852,
0.304558,0.0660874,0.219749,-2.36846,0.557243,0.438585,-0.0280484,0.0702769,-0.318792,0.0744821,-0.244303,0.3616,0.370233,-0.0454524,0.916722,3.29716,0.886724,0.951345,1.23303,6.25719,-0.309594,11.2705,-4.82805,10.6941,-49.9839,-2.44636,12.528,0.118737,0.300804,0.0700205,0.216072,-2.35812,0.549628,0.420256,-0.0270266,0.417751,-0.0408891,0.263112,-1.1891,0.135246,1.54991,-0.00647568,0,0,0,0,0,0,0,-4.3565,-32.9988,-4.43846,19.4568,-2.30744,3.41118,0.0577852,
0.304737,0.0627502,0.219995,-2.36959,0.560299,0.439627,-0.028415,0.0606853,-0.338464,0.0657257,-0.22356,0.365665,0.322219,-0.0455274,-5.99475,-12.2946,-5.47279,12.9648,2.54117,-30.0085,-0.0469089,11.1529,-4.8418,10.5854,-49.2345,-2.51876,12.528,0.14112,0.300804,0.0700205,0.216072,-2.35812,0.549628,0.420256,-0.0270266,0.417751,-0.0408891,0.263112,-1.1891,0.135246,1.54991,-0.00647568,0,0,0,0,0,0,0,-4.3565,-32.9988,-4.43846,19.4568,-2.30744,3.41118,0.0577852,
0.30463,0.0586961,0.219978,-2.3702,0.563297,0.438918,-0.0287518,0.04588,-0.372125,0.0521687,-0.194064,0.367483,0.240065,-0.0448418,-9.25334,-21.0382,-8.47308,18.4347,1.13579,-51.3463,0.428513,10.6953,-4.82316,10.1467,-48.5081,-2.60325,12.528,0.131715,0.300804,0.0700205,0.216072,-2.35812,0.549628,0.420256,-0.0270266,0.417751,-0.0408891,0.263112,-1.1891,0.135246,1.54991,-0.00647568,0,0,0,0,0,0,0,-4.3565,-32.9988,-4.43846,19.4568,-2.30744,3.41118,0.0577852,
0.303956,0.068509,0.219115,-2.36651,0.554275,0.435303,-0.0276673,0.0666702,-0.328751,0.0712854,-0.233527,0.360109,0.341991,-0.0448481,12.9939,27.1088,11.9479,-24.664,-4.60863,63.7038,-0.00393633,11.2705,-4.82805,10.6941,-49.9839,-2.44636,12.528,0.118737,0.300804,0.0700205,0.216072,-2.35812,0.549628,0.420256,-0.0270266,0.417751,-0.0408891,0.263112,-1.1891,0.135246,1.54991,-0.00647568,0,0,0,0,0,0,0,-4.3565,-32.9988,-4.43846,19.4568,-2.30744,3.41118,0.0577852,
0.304562,0.0661546,0.219755,-2.36838,0.557221,0.438575,-0.028047,0.0684979,-0.321859,0.0730102,-0.233637,0.361744,0.355398,-0.0453703,1.14231,4.30694,1.07805,-0.0691107,1.02191,8.37934,-0.326394,11.1529,-4.8418,10.5854,-49.2345,-2.51876,12.528,0.14112,0.300804,0.0700205,0.216072,-2.35812,0.549628,0.420256,-0.0270266,0.417751,-0.0408891,0.263112,-1.1891,0.135246,1.54991,-0.00647568,0,0,0,0,0,0,0,-4.3565,-32.9988,-4.43846,19.4568,-2.30744,3.41118,0.0577852,
0.304749,0.062855,0.220011,-2.36945,0.560232,0.439602,-0.0284175,0.059467,-0.339978,0.0648195,-0.213607,0.364667,0.309975,-0.0455589,-5.64432,-11.3239,-5.11921,12.5191,1.82681,-28.3897,-0.117825,10.6953,-4.82316,10.1467,-48.5081,-2.60325,12.528,0.131715,0.300804,0.0700205,0.216072,-2.35812,0.549628,0.420256,-0.0270266,0.417751,-0.0408891,0.263112,-1.1891,0.135246,1.54991,-0.00647568,0,0,0,0,0,0,0,-4.3565,-32.9988,-4.43846,19.4568,-2.30744,3.41118,0.0577852,
0.304655,0.0588358,0.22001,-2.36999,0.563168,0.438872,-0.0287594,0.0452306,-0.372462,0.0518206,-0.18455,0.365134,0.229746,-0.0449959,-8.89773,-20.3029,-8.12432,18.1606,0.292117,-50.143,0.351857,10.3555,-4.73119,9.78142,-47.7221,-3.58381,12.528,0.117216,0.300804,0.0700205,0.216072,-2.35812,0.549628,0.420256,-0.0270266,0.417751,-0.0408891,0.263112,-1.1891,0.135246,1.54991,-0.00647568,0,0,0,0,0,0,0,-4.3565,-32.9988,-4.43846,19.4568,-2.30744,3.41118,0.0577852,
0.303957,0.0685513,0.219117,-2.36645,0.554251,0.435291,-0.0276698,0.0660799,-0.328404,0.0709531,-0.225128,0.357936,0.333497,-0.0450184,13.0308,27.5367,11.9578,-25.3614,-4.49889,64.8447,-0.0140551,11.1529,-4.8418,10.5854,-49.2345,-2.51876,12.528,0.14112,0.300804,0.0700205,0.216072,-2.35812,0.549628,0.420256,-0.0270266,0.417751,-0.0408891,0.263112,-1.1891,0.135246,1.54991,-0.00647568,0,0,0,0,0,0,0,-4.3565,-32.9988,-4.43846,19.4568,-2.30744,3.41118,0.0577852,
0.304571,0.0662334,0.219768,-2.36826,0.557151,0.438549,-0.0280549,0.0682283,-0.320669,0.0730162,-0.225518,0.358864,0.348245,-0.0456428,1.34274,4.83427,1.28944,-0.243995,0.580247,9.21745,-0.390288,10.6953,-4.82316,10.1467,-48.5081,-2.60325,12.528,0.131715,0.300804,0.0700205,0.216072,-2.35812,0.549628,0.420256,-0.0270266,0.417751,-0.0408891,0.263112,-1.1891,0.135246,1.54991,-0.00647568,0,0,0,0,0,0,0,-4.3565,-32.9988,-4.43846,19.4568,-2.30744,3.41118,0.0577852,
0.304771,0.0629684,0.220039,-2.36927,0.5601,0.439555,-0.028432,0.059577,-0.338161,0.065203,-0.205569,0.360799,0.303749,-0.0459419,-5.40701,-10.9329,-4.8832,12.4686,1.20894,-27.8102,-0.186931,10.3555,-4.73119,9.78142,-47.7221,-3.58381,12.528,0.117216,0.300804,0.0700205,0.216072,-2.35812,0.549628,0.420256,-0.0270266,0.417751,-0.0408891,0.263112,-1.1891,0.135246,1.54991,-0.00647568,0,0,0,0,0,0,0,-4.3565,-32.9988,-4.43846,19.4568,-2.30744,3.41118,0.0577852,
0.304693,0.0589768,0.220055,-2.36976,0.562966,0.438802,-0.0287802,0.0457078,-0.370318,0.0525501,-0.176631,0.3603,0.224165,-0.0454598,-8.6683,-20.0981,-7.90807,18.0859,-0.311794,-49.7399,0.301317,10.1837,-4.63364,9.60346,-46.9038,-4.20206,12.528,0.105293,0.300804,0.0700205,0.216072,-2.35812,0.549628,0.420256,-0.0270266,0.417751,-0.0408891,0.263112,-1.1891,0.135246,1.54991,-0.00647568,0,0,0,0,0,0,0,-4.3565,-32.9988,-4.43846,19.4568,-2.30744,3.41118,0.0577852,
