xiao-wang007/linearmpc_panda/paper_data/panda_torque_PD_controller_Start_at_0_low_pass_filter/2/trajectory.csv
Commanded Joint 0 Position,Commanded Joint 1 Position,Commanded Joint 2 Position,Commanded Joint 3 Position,Commanded Joint 4 Position,Commanded Joint 5 Position,Commanded Joint 6 Position,Commanded Joint 0 Velocity,Commanded Joint 1 Velocity,Commanded Joint 2 Velocity,Commanded Joint 3 Velocity,Commanded Joint 4 Velocity,Commanded Joint 5 Velocity,Commanded Joint 6 Velocity,Commanded Joint 0 Acceleration,Commanded Joint 1 Acceleration,Commanded Joint 2 Acceleration,Commanded Joint 3 Acceleration,Commanded Joint 4 Acceleration,Commanded Joint 5 Acceleration,Commanded Joint 6 Acceleration,Commanded Joint 0 Torque,Commanded Joint 1 Torque,Commanded Joint 2 Torque,Commanded Joint 3 Torque,Commanded Joint 4 Torque,Commanded Joint 5 Torque,Commanded Joint 6 Torque,Actual Joint 0 Position,Actual Joint 1 Position,Actual Joint 2 Position,Actual Joint 3 Position,Actual Joint 4 Position,Actual Joint 5 Position,Actual Joint 6 Position,Actual Joint 0 Velocity,Actual Joint 1 Velocity,Actual Joint 2 Velocity,Actual Joint 3 Velocity,Actual Joint 4 Velocity,Actual Joint 5 Velocity,Actual Joint 6 Velocity,Actual Joint 0 Acceleration,Actual Joint 1 Acceleration,Actual Joint 2 Acceleration,Actual Joint 3 Acceleration,Actual Joint 4 Acceleration,Actual Joint 5 Acceleration,Actual Joint 6 Acceleration,Actual Joint 0 Torque,Actual Joint 1 Torque,Actual Joint 2 Torque,Actual Joint 3 Torque,Actual Joint 4 Torque,Actual Joint 5 Torque,Actual Joint 6 Torque,
0.0463522,-0.0560445,-0.0241369,-1.73712,0.0201979,0.19294,-0.0374284,0.000617103,0.0193643,0.000599576,-0.0332977,-0.00554771,0.0486851,-0.0003681,0.385689,12.1027,0.374735,-20.811,-3.46732,30.4282,-0.230063,0.0558368,22.7026,0.0738573,-24.3437,-0.720217,1.69466,-0.0232774,0.046295,-0.0566861,-0.02414,-1.7342,0.0206136,0.187659,-0.0373772,5.2962e-06,-0.000421851,0.000804434,0.00145929,-0.000129724,-0.000616084,0.00111432,0,0,0,0,0,0,0,-0.147213,-33.6217,-0.288683,27.1771,0.770565,3.3709,0.050461,
0.0463004,-0.0566957,-0.0241345,-1.73419,0.0206216,0.187677,-0.0373771,0.000527393,0.0154369,0.000513781,-0.026577,-0.00436159,0.0391298,-0.000295864,-0.0560689,-2.45463,-0.0536218,4.20039,0.741329,-5.97206,0.045148,0.0501614,23.1432,0.063562,-24.26,-0.720268,1.44415,-0.0217596,0.046295,-0.0566861,-0.02414,-1.7342,0.0206136,0.187659,-0.0373772,5.2962e-06,-0.000421851,0.000804434,0.00145929,-0.000129724,-0.000616084,0.00111432,0,0,0,0,0,0,0,-0.147213,-33.6217,-0.288683,27.1771,0.770565,3.3709,0.050461,
0.0463014,-0.056697,-0.0241334,-1.73419,0.0206244,0.187685,-0.0373772,0.000448486,0.0123163,0.000437758,-0.0212117,-0.00341787,0.0314878,-0.000237831,-0.0493164,-1.95036,-0.0475145,3.35332,0.589822,-4.77623,0.0362705,0.0430161,23.7177,0.0518506,-24.1518,-0.719446,1.09778,-0.0197942,0.0462907,-0.0565929,-0.0241436,-1.73429,0.020608,0.187655,-0.0373795,-0.00552439,0.00342021,-0.000242682,-0.000148889,-0.000905072,-0.00100749,8.42451e-05,-0.691211,0.480258,-0.130889,-0.201022,-0.0969186,-0.0489252,-0.12876,-0.0956386,-32.9234,-0.237108,26.8796,0.782467,3.39745,0.0706026,
0.0463023,-0.0566976,-0.0241325,-1.73419,0.0206269,0.187692,-0.0373772,0.000379981,0.00983663,0.000371406,-0.0169281,-0.00267108,0.0253707,-0.000191264,-0.0428156,-1.54981,-0.0414701,2.67729,0.466747,-3.82321,0.029104,0.0371101,24.2416,0.0424483,-23.984,-0.717156,0.712968,-0.0177918,0.0462907,-0.0565929,-0.0241436,-1.73429,0.020608,0.187655,-0.0373795,-0.00552439,0.00342021,-0.000242682,-0.000148889,-0.000905072,-0.00100749,8.42451e-05,0,0,0,0,0,0,0,-0.0956386,-32.9234,-0.237108,26.8796,0.782467,3.39745,0.0706026,
0.0461349,-0.0565411,-0.024291,-1.73418,0.0229432,0.18617,-0.0373997,-0.00176134,0.00835081,-0.00171721,-0.0123182,0.0337155,-0.00250206,-0.000340916,-1.33832,-0.928638,-1.30538,2.88119,22.7416,-17.4205,-0.0935322,0.47371,0.236055,0.473298,-0.314611,3.07337,-2.12928,-0.00201475,0.0462907,-0.0565929,-0.0241436,-1.73429,0.020608,0.187655,-0.0373795,-0.00552439,0.00342021,-0.000242682,-0.000148889,-0.000905072,-0.00100749,8.42451e-05,0,0,0,0,0,0,0,-0.0956386,-32.9234,-0.237108,26.8796,0.782467,3.39745,0.0706026,
0.0460588,-0.0565324,-0.024367,-1.73415,0.024691,0.185038,-0.0374038,-0.00331053,0.0068989,-0.00327386,-0.00896332,0.070668,-0.0303037,-0.000375708,-0.968245,-0.907441,-0.972909,2.09678,23.0953,-17.376,-0.0217449,0.469285,0.235946,0.468793,-0.311984,3.04614,-2.11018,-0.0019978,0.0462907,-0.0565929,-0.0241436,-1.73429,0.020608,0.187655,-0.0373795,-0.00552439,0.00342021,-0.000242682,-0.000148889,-0.000905072,-0.00100749,8.42451e-05,0,0,0,0,0,0,0,-0.0956386,-32.9234,-0.237108,26.8796,0.782467,3.39745,0.0706026,
0.0459959,-0.0565295,-0.0244307,-1.73413,0.0266249,0.18376,-0.0374061,-0.0042207,0.00559117,-0.00421243,-0.00659206,0.104881,-0.0561956,-0.000357217,-0.568858,-0.817334,-0.586605,1.48203,21.3833,-16.1825,0.011557,0.464347,0.24187,0.463727,-0.309465,3.01867,-2.08985,-0.0019671,0.0462922,-0.0564668,-0.024139,-1.73446,0.020612,0.187856,-0.0373808,6.9013e-05,0.00777871,-0.000149878,-0.0312218,0.000956832,0.0391418,0.00102313,0.699176,0.544812,0.0116005,-3.88412,0.232738,5.01865,0.117361,-0.0956386,-28.9324,-0.213304,22.5671,0.489498,3.58971,0.0440523,
0.0459479,-0.056529,-0.0244799,-1.73411,0.0286697,0.182385,-0.0374074,-0.00457611,0.00448705,-0.00459857,-0.00495112,0.135026,-0.079321,-0.000318131,-0.22213,-0.690074,-0.241335,1.02559,18.8406,-14.4534,0.0244285,0.458593,0.242591,0.45785,-0.306179,2.99156,-2.07007,-0.00189256,0.0462922,-0.0564668,-0.024139,-1.73446,0.020612,0.187856,-0.0373808,6.9013e-05,0.00777871,-0.000149878,-0.0312218,0.000956832,0.0391418,0.00102313,0,0,0,0,0,0,0,-0.0956386,-28.9324,-0.213304,22.5671,0.489498,3.58971,0.0440523,
0.0459624,-0.0561684,-0.024436,-1.73396,0.0287953,0.180238,-0.0374486,-0.00808732,0.00666157,-0.00783127,0.00224411,0.234081,-0.181157,-0.000885727,-2.19451,1.35907,-2.02044,4.49702,61.9095,-63.6475,-0.354748,3.87173,2.16957,3.92151,-2.20624,10.8942,-11.1538,-0.00551681,0.0462922,-0.0564668,-0.024139,-1.73446,0.020612,0.187856,-0.0373808,6.9013e-05,0.00777871,-0.000149878,-0.0312218,0.000956832,0.0391418,0.00102313,0,0,0,0,0,0,0,-0.0956386,-28.9324,-0.213304,22.5671,0.489498,3.58971,0.0440523,
0.0458118,-0.0560923,-0.0245816,-1.73379,0.034997,0.174402,-0.037462,-0.0102339,0.00722977,-0.00990588,0.00608299,0.342307,-0.290828,-0.0010427,-1.34163,0.355129,-1.29663,2.3993,67.6412,-68.5444,-0.0981097,3.7505,2.16202,3.80827,-2.16121,10.8942,-10.973,-0.00499333,0.0462922,-0.0564668,-0.024139,-1.73446,0.020612,0.187856,-0.0373808,6.9013e-05,0.00777871,-0.000149878,-0.0312218,0.000956832,0.0391418,0.00102313,0,0,0,0,0,0,0,-0.0956386,-28.9324,-0.213304,22.5671,0.489498,3.58971,0.0440523,
0.0457075,-0.0560381,-0.0246838,-1.7337,0.0419194,0.167836,-0.037469,-0.0107956,0.00713951,-0.0104795,0.00723907,0.446907,-0.396818,-0.00101024,-0.351033,-0.0564173,-0.358501,0.722549,65.3746,-66.2436,0.0202913,3.62721,2.31005,3.68657,-2.13713,10.8941,-10.7697,-0.00533933,0.0462768,-0.0531252,-0.0241228,-1.74,0.0212286,0.193695,-0.0373902,-0.00247597,0.0979082,0.0017498,-0.152664,0.110649,-0.0222139,-0.00119919,-0.318122,11.2662,0.23746,-15.1802,13.7115,-7.66945,-0.27779,0.158268,-24.9611,-0.185533,26.2567,2.19329,1.93902,0.124619,
0.0456537,-0.0559869,-0.0247365,-1.73367,0.0493015,0.160801,-0.037473,-0.00998071,0.00699293,-0.00970059,0.00656908,0.542078,-0.493322,-0.000908304,0.509297,-0.0916103,0.486806,-0.418744,59.4822,-60.3154,0.0637082,3.50909,2.27649,3.56845,-2.10107,10.8941,-10.6013,-0.00577211,0.0462768,-0.0531252,-0.0241228,-1.74,0.0212286,0.193695,-0.0373902,-0.00247597,0.0979082,0.0017498,-0.152664,0.110649,-0.0222139,-0.00119919,0,0,0,0,0,0,0,0.158268,-24.9611,-0.185533,26.2567,2.19329,1.93902,0.124619,
0.0470156,-0.0516097,-0.0232856,-1.74107,0.0284477,0.182918,-0.037209,0.00397082,0.022929,0.00561432,-0.0072846,0.542443,-0.558442,0.000933659,8.71971,9.96006,9.57182,-8.65855,0.228241,-40.6997,1.15123,22.9273,6.8637,23.7027,-12.4129,10.8941,-14.4631,0.148204,0.0462768,-0.0531252,-0.0241228,-1.74,0.0212286,0.193695,-0.0373902,-0.00247597,0.0979082,0.0017498,-0.152664,0.110649,-0.0222139,-0.00119919,0,0,0,0,0,0,0,0.158268,-24.9611,-0.185533,26.2567,2.19329,1.93902,0.124619,
0.0476751,-0.0510282,-0.0225627,-1.74159,0.0338693,0.174849,-0.037192,0.0196656,0.0328809,0.0225641,-0.0189739,0.569494,-0.648472,0.00117297,9.80926,6.21991,10.5936,-7.30583,16.9069,-56.2689,0.149569,21.2688,6.47468,22.1743,-11.4327,10.8941,-14.4631,0.0782909,0.0462768,-0.0531252,-0.0241228,-1.74,0.0212286,0.193695,-0.0373902,-0.00247597,0.0979082,0.0017498,-0.152664,0.110649,-0.0222139,-0.00119919,0,0,0,0,0,0,0,0.158268,-24.9611,-0.185533,26.2567,2.19329,1.93902,0.124619,
0.0484952,-0.0505345,-0.021679,-1.74214,0.0400428,0.165742,-0.0371624,0.036234,0.0386463,0.0401442,-0.0288509,0.609933,-0.746472,0.00167728,10.3552,3.60337,10.9875,-6.17311,25.2739,-61.2501,0.315195,20.1616,5.93589,21.1137,-10.5133,10.7969,-14.4495,0.0142442,0.0460664,-0.05103,-0.0241797,-1.74167,0.0313484,0.183529,-0.0374104,-0.0224757,0.107885,-0.000628619,0.00874597,0.728171,-0.561961,-0.00410117,-2.49996,1.24715,-0.297302,20.1762,77.1903,-67.4683,-0.362748,4.49451,-38.2158,4.26179,20.5518,4.67346,-3.56422,0.225327,
0.0475658,-0.0505696,-0.022709,-1.74375,0.0428102,0.170291,-0.0370791,0.0526579,0.0350619,0.0554935,-0.052163,0.634605,-0.781028,0.00388041,10.265,-2.24023,9.59333,-14.5701,15.4203,-21.5972,1.37695,33.344,3.92791,33.717,-23.425,10.7969,-14.4495,0.245287,0.0460664,-0.05103,-0.0241797,-1.74167,0.0313484,0.183529,-0.0374104,-0.0224757,0.107885,-0.000628619,0.00874597,0.728171,-0.561961,-0.00410117,0,0,0,0,0,0,0,4.49451,-38.2158,4.26179,20.5518,4.67346,-3.56422,0.225327,
0.048771,-0.0503928,-0.0215018,-1.74496,0.0491012,0.161792,-0.0370297,0.0722562,0.0324684,0.0745736,-0.0721044,0.66496,-0.837306,0.00433897,12.2489,-1.62094,11.925,-12.4634,18.9716,-35.1739,0.286603,29.8711,4.65983,30.1068,-22.3232,10.7969,-14.4495,0.0882077,0.0460664,-0.05103,-0.0241797,-1.74167,0.0313484,0.183529,-0.0374104,-0.0224757,0.107885,-0.000628619,0.00874597,0.728171,-0.561961,-0.00410117,0,0,0,0,0,0,0,4.49451,-38.2158,4.26179,20.5518,4.67346,-3.56422,0.225327,
0.0501485,-0.0502522,-0.0200923,-1.7463,0.0558252,0.152553,-0.0368412,0.092244,0.0294899,0.0948955,-0.0912361,0.700068,-0.900814,0.00818431,12.4924,-1.86154,12.7012,-11.9573,21.9426,-39.6924,2.40334,27.9685,5.3376,28.2457,-20.7197,10.7969,-14.4495,0.0382002,0.0460664,-0.05103,-0.0241797,-1.74167,0.0313484,0.183529,-0.0374104,-0.0224757,0.107885,-0.000628619,0.00874597,0.728171,-0.561961,-0.00410117,0,0,0,0,0,0,0,4.49451,-38.2158,4.26179,20.5518,4.67346,-3.56422,0.225327,
0.0516067,-0.0501713,-0.018609,-1.74781,0.0630454,0.142823,-0.0367754,0.110248,0.0256161,0.113001,-0.110573,0.740557,-0.963897,0.00819159,11.2526,-2.42117,11.3158,-12.0856,25.3061,-39.4272,0.00455008,26.6364,4.12544,27.2107,-21.1769,10.6149,-14.2473,0.230792,0.0459678,-0.0468976,-0.0240748,-1.74163,0.0625524,0.147369,-0.0374168,0.0293372,0.157537,0.0683253,0.0112452,0.931162,-1.32179,0.000904783,6.4766,6.20647,8.61924,0.312403,25.3739,-94.9789,0.625744,12.8139,-31.4278,12.6883,14.2993,2.94494,-2.60932,0.104477,
0.0482728,-0.0462138,-0.0216939,-1.74543,0.076128,0.12837,-0.0372207,0.121596,0.0276016,0.12472,-0.140064,0.761065,-1.01192,0.00773345,7.0922,1.24094,7.32471,-18.4317,12.8174,-30.0137,-0.286337,34.9406,5.10141,35.8965,-32.3129,10.6149,-14.2473,0.139074,0.0459678,-0.0468976,-0.0240748,-1.74163,0.0625524,0.147369,-0.0374168,0.0293372,0.157537,0.0683253,0.0112452,0.931162,-1.32179,0.000904783,0,0,0,0,0,0,0,12.8139,-31.4278,12.6883,14.2993,2.94494,-2.60932,0.104477,
0.0498456,-0.0459746,-0.0200896,-1.74763,0.0830438,0.118404,-0.037061,0.136594,0.0280611,0.139885,-0.166891,0.781746,-1.0587,0.0101799,9.37409,0.287211,9.47801,-16.7672,12.9253,-29.2391,1.52903,31.6646,5.72548,32.4431,-30.4372,10.6149,-14.2473,0.02027,0.0459678,-0.0468976,-0.0240748,-1.74163,0.0625524,0.147369,-0.0374168,0.0293372,0.157537,0.0683253,0.0112452,0.931162,-1.32179,0.000904783,0,0,0,0,0,0,0,12.8139,-31.4278,12.6883,14.2993,2.94494,-2.60932,0.104477,
0.051511,-0.0457914,-0.018388,-1.74994,0.0903278,0.108182,-0.0370346,0.150912,0.0270301,0.154449,-0.191247,0.807496,-1.10251,0.00880232,8.94841,-0.644362,9.10242,-15.2222,16.0941,-27.3813,-0.860983,29.9301,4.05139,30.5183,-30.197,10.6149,-14.2473,0.185723,0.0459678,-0.0468976,-0.0240748,-1.74163,0.0625524,0.147369,-0.0374168,0.0293372,0.157537,0.0683253,0.0112452,0.931162,-1.32179,0.000904783,0,0,0,0,0,0,0,12.8139,-31.4278,12.6883,14.2993,2.94494,-2.60932,0.104477,
0.0532099,-0.045591,-0.0166532,-1.75223,0.0979572,0.0976948,-0.0370684,0.163201,0.0266331,0.166927,-0.210333,0.836732,-1.14418,0.0061964,7.68093,-0.248166,7.7989,-11.929,18.2727,-26.0414,-1.6287,26.2101,2.74246,26.7396,-30.6343,10.6577,-13.8389,0.020927,0.0511952,-0.0452826,-0.0182408,-1.74842,0.0936505,0.100291,-0.0374072,0.160921,0.0412643,0.248561,-0.324085,0.982135,-1.45528,0.00067291,16.448,-14.5341,22.5294,-41.9163,6.37152,-16.6865,-0.0289841,22.145,-26.9844,22.0352,19.9765,5.02136,-2.49671,0.104477,
0.0551845,-0.0447772,-0.0141629,-1.75433,0.108842,0.0781697,-0.0372455,0.182378,0.0276506,0.18647,-0.242992,0.859836,-1.19001,0.00809304,11.9852,0.635944,12.2145,-20.4115,14.4399,-28.6462,1.1854,35.112,5.37798,35.8163,-38.8104,10.6577,-13.8389,0.0153893,0.0511952,-0.0452826,-0.0182408,-1.74842,0.0936505,0.100291,-0.0374072,0.160921,0.0412643,0.248561,-0.324085,0.982135,-1.45528,0.00067291,0,0,0,0,0,0,0,22.145,-26.9844,22.0352,19.9765,5.02136,-2.49671,0.104477,
0.0572778,-0.0445463,-0.012025,-1.75738,0.116723,0.0672539,-0.0372638,0.198235,0.0278911,0.202623,-0.270544,0.884879,-1.22491,0.00601585,9.91091,0.150317,10.0951,-17.2202,15.652,-21.8088,-1.29825,32.3253,4.17457,33.0064,-38.1496,10.6577,-13.8389,0.146072,0.0511952,-0.0452826,-0.0182408,-1.74842,0.0936505,0.100291,-0.0374072,0.160921,0.0412643,0.248561,-0.324085,0.982135,-1.45528,0.00067291,0,0,0,0,0,0,0,22.145,-26.9844,22.0352,19.9765,5.02136,-2.49671,0.104477,
0.0593395,-0.0442938,-0.00991876,-1.76039,0.124857,0.056464,-0.0373453,0.210131,0.0286254,0.214755,-0.291913,0.911269,-1.24967,0.00277484,7.43527,0.458925,7.58245,-13.3557,16.4936,-15.4783,-2.02563,27.8036,2.76975,28.3621,-38.3056,10.6577,-13.8389,-0.0294903,0.0511952,-0.0452826,-0.0182408,-1.74842,0.0936505,0.100291,-0.0374072,0.160921,0.0412643,0.248561,-0.324085,0.982135,-1.45528,0.00067291,0,0,0,0,0,0,0,22.145,-26.9844,22.0352,19.9765,5.02136,-2.49671,0.104477,
0.0613522,-0.0440294,-0.00786197,-1.7634,0.133185,0.0459987,-0.0374449,0.218422,0.0295113,0.223223,-0.308667,0.937208,-1.26137,-0.000269984,5.18167,0.553711,5.29306,-10.4711,16.2119,-7.3113,-1.90301,25.1649,3.13654,25.6774,-37.2121,10.6577,-13.2928,-0.0998854,0.0511952,-0.0452826,-0.0182408,-1.74842,0.0936505,0.100291,-0.0374072,0.160921,0.0412643,0.248561,-0.324085,0.982135,-1.45528,0.00067291,0,0,0,0,0,0,0,22.145,-26.9844,22.0352,19.9765,5.02136,-2.49671,0.104477,
0.0654918,-0.0453684,-0.00246867,-1.77044,0.145943,0.0222822,-0.0374513,0.241438,0.0289635,0.246621,-0.347693,0.974366,-1.26958,-0.00281831,14.3849,-0.342396,14.6234,-24.3915,23.2237,-5.13144,-1.59271,31.1868,2.54552,31.8154,-45.982,10.7746,-9.95345,0.0492567,0.0599956,-0.0458107,-0.00808879,-1.76241,0.1282,0.0443829,-0.0373812,0.302659,0.0346404,0.437141,-0.468761,1.06564,-1.69095,0.0024727,17.7172,-0.827994,23.5725,-18.0845,10.4386,-29.4581,0.224974,15.3728,-21.942,15.1599,20.6747,4.9234,-1.62788,0.124619,
0.0679894,-0.0451355,7.86978e-05,-1.7744,0.155047,0.0129411,-0.0376094,0.255589,0.0289923,0.260981,-0.377046,1.0071,-1.24919,-0.00620838,8.84442,0.018009,8.97497,-18.3455,20.4557,12.7427,-2.11879,26.6719,1.18679,27.1853,-45.909,10.7746,-9.30357,-0.121638,0.0599956,-0.0458107,-0.00808879,-1.76241,0.1282,0.0443829,-0.0373812,0.302659,0.0346404,0.437141,-0.468761,1.06564,-1.69095,0.0024727,0,0,0,0,0,0,0,15.3728,-21.942,15.1599,20.6747,4.9234,-1.62788,0.124619,
0.0703328,-0.044904,0.00246878,-1.77829,0.16418,0.00469596,-0.0377768,0.263055,0.0289828,0.268537,-0.398873,1.034,-1.20548,-0.00915083,4.6666,-0.00588915,4.72249,-13.642,16.8181,27.3191,-1.83904,24.1224,1.40155,24.5841,-44.7559,10.7746,-8.1744,-0.184156,0.0599956,-0.0458107,-0.00808879,-1.76241,0.1282,0.0443829,-0.0373812,0.302659,0.0346404,0.437141,-0.468761,1.06564,-1.69095,0.0024727,0,0,0,0,0,0,0,15.3728,-21.942,15.1599,20.6747,4.9234,-1.62788,0.124619,
0.0650656,-0.0457515,-0.00289842,-1.77186,0.146761,0.0285804,-0.0378802,0.271061,0.0246331,0.276712,-0.437771,1.06176,-1.12886,-0.0138857,5.00326,-2.71862,5.1096,-24.3111,17.3495,47.8864,-2.95927,21.8529,0.130102,22.3075,-52.5303,10.7746,-1.77118,-0.284404,0.0599956,-0.0458107,-0.00808879,-1.76241,0.1282,0.0443829,-0.0373812,0.302659,0.0346404,0.437141,-0.468761,1.06564,-1.69095,0.0024727,0,0,0,0,0,0,0,15.3728,-21.942,15.1599,20.6747,4.9234,-1.62788,0.124619,
0.0673075,-0.0456306,-0.00061018,-1.77651,0.156146,0.0240671,-0.0381296,0.272896,0.0227276,0.278576,-0.466425,1.08404,-1.01592,-0.0173423,1.1471,-1.19092,1.16468,-17.9086,13.9233,70.5873,-2.16039,20.5875,0.861128,21.0443,-51.2381,10.8606,0.109648,-0.313624,0.0734746,-0.0458477,0.00722766,-1.78314,0.1684,-0.0169843,-0.0373949,0.350074,0.0412372,0.60997,-0.684341,1.20003,-1.84723,-0.00230683,5.92683,0.8246,21.6037,-26.9475,16.7978,-19.5357,-0.597441,9.31079,-30.0789,9.0384,24.4635,4.00787,-1.01814,0.138352,
0.0694003,-0.0454739,0.00152592,-1.78103,0.165439,0.0212172,-0.0383518,0.270636,0.0221002,0.276263,-0.486132,1.09957,-0.883986,-0.0194302,-1.41265,-0.392124,-1.44546,-12.3172,9.70394,82.4608,-1.30495,19.744,0.770854,20.184,-50.3459,10.8606,1.47154,-0.297323,0.0734746,-0.0458477,0.00722766,-1.78314,0.1684,-0.0169843,-0.0373949,0.350074,0.0412372,0.60997,-0.684341,1.20003,-1.84723,-0.00230683,0,0,0,0,0,0,0,9.31079,-30.0789,9.0384,24.4635,4.00787,-1.01814,0.138352,
0.0713683,-0.0453028,0.00353488,-1.78541,0.174603,0.0196895,-0.0385436,0.265709,0.0219567,0.271234,-0.498499,1.10874,-0.745382,-0.0203396,-3.07944,-0.0896552,-3.14284,-7.72935,5.73262,86.6271,-0.56835,19.1775,0.702545,19.6041,-49.5343,10.8606,2.47695,-0.263799,0.0734746,-0.0458477,0.00722766,-1.78314,0.1684,-0.0169843,-0.0373949,0.350074,0.0412372,0.60997,-0.684341,1.20003,-1.84723,-0.00230683,0,0,0,0,0,0,0,9.31079,-30.0789,9.0384,24.4635,4.00787,-1.01814,0.138352,
0.0797248,-0.0450028,0.0136351,-1.79367,0.188622,-0.0348837,-0.0379229,0.28611,0.0286624,0.292081,-0.527517,1.14058,-0.78016,-0.0227961,12.7506,4.19104,13.0291,-18.1363,19.8997,-21.7362,-1.53534,20.5875,0.861128,21.0443,-51.2381,10.8606,0.109648,-0.313624,0.0734746,-0.0458477,0.00722766,-1.78314,0.1684,-0.0169843,-0.0373949,0.350074,0.0412372,0.60997,-0.684341,1.20003,-1.84723,-0.00230683,0,0,0,0,0,0,0,9.31079,-30.0789,9.0384,24.4635,4.00787,-1.01814,0.138352,
0.0823683,-0.0445618,0.0163339,-1.79858,0.19862,-0.0397597,-0.0381554,0.294977,0.0339555,0.301135,-0.544664,1.16242,-0.746029,-0.0240484,5.54171,3.30821,5.65857,-10.7167,13.6495,21.3319,-0.782712,19.9587,0.554352,20.44,-49.7002,10.8051,2.12787,-0.304282,0.0906447,-0.0458109,0.0252591,-1.81395,0.214493,-0.0732861,-0.0375617,0.453452,-0.0444333,0.644679,-1.05363,1.3908,-1.44068,-0.0189119,12.9224,-10.7088,4.33869,-46.1605,23.847,50.8189,-2.07563,-0.500302,-27.8056,-0.685411,24.039,1.6925,2.3034,0.0376436,
0.0847717,-0.0441522,0.0187877,-1.80326,0.208388,-0.0427169,-0.038356,0.296066,0.0374041,0.302253,-0.552692,1.17413,-0.670753,-0.0242536,0.680984,2.15536,0.698884,-5.01769,7.31853,47.0477,-0.128238,19.3923,0.486043,19.8601,-48.8886,10.8051,3.13328,-0.270758,0.0906447,-0.0458109,0.0252591,-1.81395,0.214493,-0.0732861,-0.0375617,0.453452,-0.0444333,0.644679,-1.05363,1.3908,-1.44068,-0.0189119,0,0,0,0,0,0,0,-0.500302,-27.8056,-0.685411,24.039,1.6925,2.3034,0.0376436,
0.0869772,-0.0437861,0.0210398,-1.80772,0.217905,-0.0442216,-0.0385237,0.29199,0.0390744,0.298105,-0.553835,1.17723,-0.574221,-0.0235977,-2.54741,1.04392,-2.59274,-0.714011,1.93614,60.3325,0.409963,18.9091,0.509064,19.3632,-48.1102,10.8051,3.81097,-0.233006,0.0906447,-0.0458109,0.0252591,-1.81395,0.214493,-0.0732861,-0.0375617,0.453452,-0.0444333,0.644679,-1.05363,1.3908,-1.44068,-0.0189119,0,0,0,0,0,0,0,-0.500302,-27.8056,-0.685411,24.039,1.6925,2.3034,0.0376436,
0.0976959,-0.044543,0.0324751,-1.82553,0.235948,-0.0893227,-0.0380629,0.315844,0.0487553,0.322474,-0.578254,1.20716,-0.625278,-0.0249293,14.9084,6.05059,15.2312,-15.2619,18.7085,-31.9107,-0.832265,19.9587,0.554352,20.44,-49.7002,10.8051,2.12787,-0.304282,0.0906447,-0.0458109,0.0252591,-1.81395,0.214493,-0.0732861,-0.0375617,0.453452,-0.0444333,0.644679,-1.05363,1.3908,-1.44068,-0.0189119,0,0,0,0,0,0,0,-0.500302,-27.8056,-0.685411,24.039,1.6925,2.3034,0.0376436,
0.100603,-0.0438956,0.0354441,-1.83053,0.246257,-0.0935961,-0.0382734,0.325358,0.0551885,0.332204,-0.587556,1.22347,-0.607058,-0.025206,5.94623,4.02074,6.08094,-5.81393,10.1952,11.3877,-0.17292,19.0776,-0.391386,19.5787,-47.8622,10.4692,3.63506,-0.279526,0.11131,-0.0447801,0.0470606,-1.85801,0.269533,-0.100537,-0.0385093,0.628179,0.0893057,0.565225,-1.09556,1.47646,-0.561875,-0.0197736,21.8408,16.7174,-9.93175,-5.24177,10.7069,109.851,-0.107718,-4.40808,-30.6026,-5.08513,25.4593,1.8637,1.52794,-0.0301054,
0.103202,-0.0433402,0.0380983,-1.83522,0.256225,-0.0960345,-0.0384499,0.325254,0.0580353,0.332118,-0.587368,1.22797,-0.546604,-0.0245762,-0.065105,1.77928,-0.0534693,0.117351,2.81139,37.7836,0.393579,18.5944,-0.368365,19.0818,-47.0838,10.4692,4.31275,-0.241774,0.11131,-0.0447801,0.0470606,-1.85801,0.269533,-0.100537,-0.0385093,0.628179,0.0893057,0.565225,-1.09556,1.47646,-0.561875,-0.0197736,0,0,0,0,0,0,0,-4.40808,-30.6026,-5.08513,25.4593,1.8637,1.52794,-0.0301054,
0.118771,-0.0422012,0.0546768,-1.86953,0.291294,-0.10816,-0.0389859,0.346317,0.0771495,0.35368,-0.603264,1.24883,-0.51553,-0.0252935,13.1646,11.9464,13.4762,-9.93488,13.0392,19.4212,-0.448266,19.0776,-0.391386,19.5787,-47.8622,10.4692,3.63506,-0.279526,0.11131,-0.0447801,0.0470606,-1.85801,0.269533,-0.100537,-0.0385093,0.628179,0.0893057,0.565225,-1.09556,1.47646,-0.561875,-0.0197736,0,0,0,0,0,0,0,-4.40808,-30.6026,-5.08513,25.4593,1.8637,1.52794,-0.0301054,
0.121769,-0.0412094,0.0577392,-1.87442,0.301527,-0.109919,-0.0391744,0.35199,0.086514,0.359503,-0.604853,1.25489,-0.456405,-0.0249483,3.54598,5.85281,3.63936,-0.993035,3.78726,36.9534,0.21574,18.5944,-0.368365,19.0818,-47.0838,10.4692,4.31275,-0.241774,0.11131,-0.0447801,0.0470606,-1.85801,0.269533,-0.100537,-0.0385093,0.628179,0.0893057,0.565225,-1.09556,1.47646,-0.561875,-0.0197736,0,0,0,0,0,0,0,-4.40808,-30.6026,-5.08513,25.4593,1.8637,1.52794,-0.0301054,
0.124415,-0.0404392,0.0604421,-1.87901,0.311352,-0.110417,-0.0393294,0.347735,0.0884672,0.355177,-0.598559,1.24954,-0.37757,-0.0238325,-2.65966,1.22074,-2.70417,3.9338,-3.34653,49.2717,0.69738,18.2246,-0.943499,18.7303,-46.0353,10.2102,4.83302,-0.204555,0.130798,-0.0427358,0.0662075,-1.89768,0.322016,-0.113338,-0.0391937,0.655532,-0.0165366,0.45755,-1.1352,1.58388,-0.392525,-0.0171837,3.41917,-13.2303,-13.4594,-4.9549,13.4276,21.1687,0.323738,-0.476498,-31.1501,-0.610033,19.7305,1.3446,-0.414804,-0.083206,
0.126787,-0.0398544,0.0628655,-1.88339,0.320806,-0.109508,-0.0394538,0.337487,0.0853917,0.344726,-0.588345,1.23597,-0.279326,-0.0221763,-6.40504,-1.92217,-6.53141,6.38381,-8.48166,61.4027,1.03509,17.7105,-0.703075,18.2021,-45.2199,10.2102,5.50297,-0.170053,0.130798,-0.0427358,0.0662075,-1.89768,0.322016,-0.113338,-0.0391937,0.655532,-0.0165366,0.45755,-1.1352,1.58388,-0.392525,-0.0171837,0,0,0,0,0,0,0,-0.476498,-31.1501,-0.610033,19.7305,1.3446,-0.414804,-0.083206,
0.137909,-0.0410421,0.0734425,-1.90884,0.343894,-0.119329,-0.0395914,0.352351,0.0897247,0.359846,-0.59824,1.25326,-0.2836,-0.022438,9.29006,2.70811,9.44964,-6.18445,10.8105,-2.67166,-0.163543,18.6958,-1.0695,19.2166,-46.8125,10.2102,4.47068,-0.243948,0.130798,-0.0427358,0.0662075,-1.89768,0.322016,-0.113338,-0.0391937,0.655532,-0.0165366,0.45755,-1.1352,1.58388,-0.392525,-0.0171837,0,0,0,0,0,0,0,-0.476498,-31.1501,-0.610033,19.7305,1.3446,-0.414804,-0.083206,
0.140791,-0.0403447,0.0763854,-1.91351,0.353936,-0.120353,-0.0397487,0.353933,0.0892158,0.361449,-0.595242,1.25366,-0.252486,-0.021882,0.989066,-0.318082,1.00209,1.8734,0.248416,19.4466,0.347513,18.2246,-0.943499,18.7303,-46.0353,10.2102,4.83302,-0.204555,0.130798,-0.0427358,0.0662075,-1.89768,0.322016,-0.113338,-0.0391937,0.655532,-0.0165366,0.45755,-1.1352,1.58388,-0.392525,-0.0171837,0,0,0,0,0,0,0,-0.476498,-31.1501,-0.610033,19.7305,1.3446,-0.414804,-0.083206,
0.14335,-0.0398162,0.0789993,-1.91793,0.363526,-0.11982,-0.0398757,0.34713,0.0845854,0.354507,-0.586567,1.24269,-0.188661,-0.020681,-4.25246,-2.89397,-4.33903,5.42244,-6.85855,39.8904,0.750587,17.6229,-1.01384,18.1312,-44.7919,9.99873,5.76563,-0.174409,0.150064,-0.0400564,0.0852184,-1.93869,0.377081,-0.117818,-0.0398141,0.76292,0.0539453,0.355458,-1.23487,1.60511,0.00158493,-0.0123988,13.4235,8.81024,-12.7615,-12.4585,2.65425,49.2637,0.598123,-0.0956386,-33.3995,-0.360094,23.19,1.67419,0.0823271,-0.110672,
0.157162,-0.0374402,0.0924191,-1.95022,0.398235,-0.120466,-0.0401494,0.359546,0.0990007,0.367117,-0.599387,1.24776,-0.175941,-0.0205301,7.76042,9.00958,7.88176,-8.01275,3.17162,7.95025,0.0943329,18.137,-1.25427,18.6594,-45.6073,9.99873,5.09568,-0.208912,0.150064,-0.0400564,0.0852184,-1.93869,0.377081,-0.117818,-0.0398141,0.76292,0.0539453,0.355458,-1.23487,1.60511,0.00158493,-0.0123988,0,0,0,0,0,0,0,-0.0956386,-33.3995,-0.360094,23.19,1.67419,0.0823271,-0.110672,
0.160017,-0.036465,0.0953334,-1.95496,0.407811,-0.120101,-0.0402804,0.359022,0.103582,0.36655,-0.597827,1.2376,-0.131627,-0.0197005,-0.327614,2.86341,-0.354476,0.974843,-6.35426,27.6965,0.51849,17.6229,-1.01384,18.1312,-44.7919,9.99873,5.76563,-0.174409,0.150064,-0.0400564,0.0852184,-1.93869,0.377081,-0.117818,-0.0398141,0.76292,0.0539453,0.355458,-1.23487,1.60511,0.00158493,-0.0123988,0,0,0,0,0,0,0,-0.0956386,-33.3995,-0.360094,23.19,1.67419,0.0823271,-0.110672,
0.162547,-0.0357455,0.0979154,-1.95941,0.416944,-0.11816,-0.0403856,0.350455,0.100852,0.35779,-0.589634,1.21841,-0.0567769,-0.0183901,-5.35467,-1.70644,-5.47499,5.12088,-11.9935,46.781,0.818992,17.096,-0.688942,17.5945,-43.8964,9.99873,7.50696,-0.143441,0.150064,-0.0400564,0.0852184,-1.93869,0.377081,-0.117818,-0.0398141,0.76292,0.0539453,0.355458,-1.23487,1.60511,0.00158493,-0.0123988,0,0,0,0,0,0,0,-0.0956386,-33.3995,-0.360094,23.19,1.67419,0.0823271,-0.110672,
0.164818,-0.0352279,0.100234,-1.96365,0.425718,-0.11471,-0.0404689,0.337143,0.093622,0.34421,-0.577762,1.19407,0.040822,-0.0167942,-8.31958,-4.51868,-8.48785,7.41971,-15.2079,60.9993,0.997436,16.5555,-0.973883,17.0565,-42.6645,9.8381,9.5136,-0.119375,0.16692,-0.0365469,0.108293,-1.97871,0.430383,-0.112777,-0.0401751,0.448437,0.0984797,0.746187,-1.14122,1.55395,0.258584,-0.00452028,-39.3104,5.5668,48.8412,11.7061,-6.3952,32.1248,0.98481,0.435978,-32.6259,-0.562425,27.6016,3.18939,-0.308603,-0.163772,
0.174307,-0.0338663,0.115849,-1.98978,0.450911,-0.11182,-0.0404645,0.354671,0.10588,0.361969,-0.588296,1.20185,0.0516176,-0.0168835,10.9549,7.6614,11.0997,-6.58336,4.8585,6.74727,-0.0557579,17.5896,-1.45859,18.1107,-44.343,9.8381,5.97353,-0.175865,0.16692,-0.0365469,0.108293,-1.97871,0.430383,-0.112777,-0.0401751,0.448437,0.0984797,0.746187,-1.14122,1.55395,0.258584,-0.00452028,0,0,0,0,0,0,0,0.435978,-32.6259,-0.562425,27.6016,3.18939,-0.308603,-0.163772,
0.17724,-0.0329377,0.118839,-1.99439,0.46024,-0.109784,-0.0405769,0.357071,0.10792,0.364326,-0.58597,1.19471,0.0921768,-0.0163159,1.49981,1.27455,1.47321,1.45348,-4.46219,25.3495,0.354732,17.0628,-1.13369,17.574,-43.4475,9.8381,7.71486,-0.144898,0.16692,-0.0365469,0.108293,-1.97871,0.430383,-0.112777,-0.0401751,0.448437,0.0984797,0.746187,-1.14122,1.55395,0.258584,-0.00452028,0,0,0,0,0,0,0,0.435978,-32.6259,-0.562425,27.6016,3.18939,-0.308603,-0.163772,
0.179813,-0.0322751,0.121463,-1.99873,0.46915,-0.10636,-0.0406657,0.349993,0.1029,0.357058,-0.577311,1.1785,0.159353,-0.0152732,-4.4238,-3.13709,-4.54264,5.4119,-10.1303,41.9852,0.651666,16.5555,-0.973883,17.0565,-42.6645,9.8381,9.5136,-0.119375,0.16692,-0.0365469,0.108293,-1.97871,0.430383,-0.112777,-0.0401751,0.448437,0.0984797,0.746187,-1.14122,1.55395,0.258584,-0.00452028,0,0,0,0,0,0,0,0.435978,-32.6259,-0.562425,27.6016,3.18939,-0.308603,-0.163772,
0.182105,-0.0318162,0.123801,-2.00286,0.47771,-0.101637,-0.040734,0.337284,0.0937927,0.344085,-0.565049,1.1568,0.245541,-0.0139261,-7.94269,-5.69215,-8.10794,7.66384,-13.5625,53.8676,0.841981,16.1029,-0.945557,16.5916,-42.0077,9.8381,10.8402,-0.0973421,0.16692,-0.0365469,0.108293,-1.97871,0.430383,-0.112777,-0.0401751,0.448437,0.0984797,0.746187,-1.14122,1.55395,0.258584,-0.00452028,0,0,0,0,0,0,0,0.435978,-32.6259,-0.562425,27.6016,3.18939,-0.308603,-0.163772,
0.198079,-0.0284354,0.132355,-2.02856,0.501272,-0.0914877,-0.0407046,0.354433,0.113029,0.361395,-0.57668,1.15406,0.277488,-0.0140972,10.718,12.0225,10.8188,-7.26945,-1.71481,19.967,-0.106974,16.8829,-1.4316,17.3828,-43.0403,9.6676,7.86681,-0.146027,0.19068,-0.0318717,0.124775,-2.0177,0.482321,-0.0978729,-0.040455,0.359053,0.212225,0.869782,-1.06808,1.41841,0.677804,-0.00412702,-11.173,14.2181,15.4494,9.14249,-16.9429,52.4025,0.0491575,-3.2893,-37.1169,-3.33556,31.8585,3.36609,1.42815,-0.0767973,
0.20097,-0.0273315,0.135298,-2.03313,0.509989,-0.0874322,-0.0407989,0.355835,0.118021,0.362687,-0.575378,1.14117,0.323378,-0.0136352,0.876045,3.11986,0.80739,0.813581,-8.051,28.6811,0.288773,16.3756,-1.27179,16.8653,-42.2572,9.6676,9.66555,-0.120505,0.19068,-0.0318717,0.124775,-2.0177,0.482321,-0.0978729,-0.040455,0.359053,0.212225,0.869782,-1.06808,1.41841,0.677804,-0.00412702,0,0,0,0,0,0,0,-3.2893,-37.1169,-3.33556,31.8585,3.36609,1.42815,-0.0767973,
0.203488,-0.0265575,0.137861,-2.03741,0.518369,-0.0823876,-0.0408709,0.347618,0.113767,0.354229,-0.567296,1.12245,0.384818,-0.0127078,-5.13558,-2.65858,-5.28635,5.05111,-11.6993,38.4001,0.579579,15.923,-1.24346,16.4004,-41.6005,9.6676,10.9921,-0.0984714,0.19068,-0.0318717,0.124775,-2.0177,0.482321,-0.0978729,-0.040455,0.359053,0.212225,0.869782,-1.06808,1.41841,0.677804,-0.00412702,0,0,0,0,0,0,0,-3.2893,-37.1169,-3.33556,31.8585,3.36609,1.42815,-0.0767973,
0.198087,-0.0284237,0.132361,-2.02858,0.501272,-0.0904224,-0.0406657,0.362757,0.129236,0.369543,-0.578458,1.12653,0.404334,-0.0126711,9.46211,9.66798,9.57106,-6.9762,2.54575,12.1971,0.0229837,16.3756,-1.27179,16.8653,-42.2572,9.6676,9.66555,-0.120505,0.19068,-0.0318717,0.124775,-2.0177,0.482321,-0.0978729,-0.040455,0.359053,0.212225,0.869782,-1.06808,1.41841,0.677804,-0.00412702,0,0,0,0,0,0,0,-3.2893,-37.1169,-3.33556,31.8585,3.36609,1.42815,-0.0767973,
0.200975,-0.0273069,0.135299,-2.03312,0.509976,-0.085725,-0.0407442,0.362388,0.131308,0.369077,-0.576262,1.11881,0.4409,-0.0120987,-0.230477,1.29511,-0.290892,1.37265,-4.8233,22.8541,0.357708,15.8179,-1.82636,16.2786,-41.4558,9.55528,10.9532,-0.0991427,0.209842,-0.0274373,0.145105,-2.05504,0.533335,-0.0713485,-0.0405752,0.982693,0.169007,0.155936,-1.03033,1.40489,1.00576,-0.00335693,77.9549,-5.40221,-89.2308,4.71803,-1.68922,40.9946,0.096261,-3.39245,-33.9708,-3.76006,29.0219,2.45605,2.18438,-0.0767973,
0.203489,-0.0265193,0.137856,-2.03735,0.518146,-0.0801081,-0.0408016,0.352756,0.124736,0.359199,-0.566647,1.09931,0.493143,-0.0111142,-6.01997,-4.10724,-6.1738,6.00966,-12.1866,32.6515,0.615336,15.4273,-1.81043,15.8752,-40.8613,9.52156,11.9187,-0.0792511,0.209842,-0.0274373,0.145105,-2.05504,0.533335,-0.0713485,-0.0405752,0.982693,0.169007,0.155936,-1.03033,1.40489,1.00576,-0.00335693,0,0,0,0,0,0,0,-3.39245,-33.9708,-3.76006,29.0219,2.45605,2.18438,-0.0767973,
0.205717,-0.0259784,0.140123,-2.04132,0.525757,-0.0736485,-0.0408413,0.337906,0.113313,0.344039,-0.552693,1.06972,0.556005,-0.00988371,-9.28129,-7.13962,-9.475,8.72095,-18.4961,39.2887,0.76906,15.0917,-1.75149,15.527,-40.2902,8.75638,12.537,-0.06052,0.209842,-0.0274373,0.145105,-2.05504,0.533335,-0.0713485,-0.0405752,0.982693,0.169007,0.155936,-1.03033,1.40489,1.00576,-0.00335693,0,0,0,0,0,0,0,-3.39245,-33.9708,-3.76006,29.0219,2.45605,2.18438,-0.0767973,
0.216761,-0.0245388,0.152054,-2.06537,0.551712,-0.0600078,-0.04074,0.348834,0.122735,0.354971,-0.56029,1.07612,0.585089,-0.00985098,6.83,5.88918,6.83231,-4.74789,4.00007,18.1777,0.0204581,15.8179,-1.82636,16.2786,-41.4558,9.55528,10.9532,-0.0991427,0.209842,-0.0274373,0.145105,-2.05504,0.533335,-0.0713485,-0.0405752,0.982693,0.169007,0.155936,-1.03033,1.40489,1.00576,-0.00335693,0,0,0,0,0,0,0,-3.39245,-33.9708,-3.76006,29.0219,2.45605,2.18438,-0.0767973,
0.219453,-0.02362,0.15479,-2.06967,0.559888,-0.0539102,-0.0407988,0.346378,0.121158,0.352358,-0.555567,1.06529,0.62051,-0.00934986,-1.53507,-0.985998,-1.63286,2.95198,-6.77047,22.1382,0.313197,15.71,-1.90368,16.1487,-40.6779,9.51619,11.9833,-0.0783008,0.228753,-0.02314,0.166355,-2.09259,0.582202,-0.0368641,-0.0405888,0.108848,0.136366,1.07686,-1.08066,1.31749,1.03007,-0.000594641,-109.231,-4.08016,115.115,-6.29071,-10.9255,3.0391,0.345286,-1.38897,-33.947,-1.8637,26.6058,2.57873,1.95916,-0.123489,
0.221808,-0.0229926,0.157182,-2.07367,0.56746,-0.0471936,-0.0408395,0.335969,0.112612,0.341703,-0.544629,1.04154,0.664324,-0.00849794,-6.50566,-5.34134,-6.6594,6.83586,-14.8419,27.3838,0.532447,15.3744,-1.84473,15.8005,-40.1068,8.75101,12.6016,-0.0595697,0.228753,-0.02314,0.166355,-2.09259,0.582202,-0.0368641,-0.0405888,0.108848,0.136366,1.07686,-1.08066,1.31749,1.03007,-0.000594641,0,0,0,0,0,0,0,-1.38897,-33.947,-1.8637,26.6058,2.57873,1.95916,-0.123489,
0.223903,-0.022579,0.159312,-2.07746,0.574468,-0.0399034,-0.0408638,0.321148,0.100429,0.326604,-0.530297,1.00841,0.713714,-0.00740521,-9.26309,-7.61432,-9.43725,8.95779,-20.7057,30.8689,0.682957,15.0816,-1.72973,15.4955,-39.5421,8.10522,12.9623,-0.043191,0.228753,-0.02314,0.166355,-2.09259,0.582202,-0.0368641,-0.0405888,0.108848,0.136366,1.07686,-1.08066,1.31749,1.03007,-0.000594641,0,0,0,0,0,0,0,-1.38897,-33.947,-1.8637,26.6058,2.57873,1.95916,-0.123489,
0.23586,-0.0203781,0.173646,-2.1031,0.598868,-0.0252899,-0.0407026,0.338288,0.111282,0.343754,-0.543179,1.00495,0.713617,-0.00736036,10.7126,6.78319,10.7188,-8.0512,-2.16034,-0.0605182,0.0280365,15.71,-1.90368,16.1487,-40.6779,9.51619,11.9833,-0.0783008,0.228753,-0.02314,0.166355,-2.09259,0.582202,-0.0368641,-0.0405888,0.108848,0.136366,1.07686,-1.08066,1.31749,1.03007,-0.000594641,0,0,0,0,0,0,0,-1.38897,-33.947,-1.8637,26.6058,2.57873,1.95916,-0.123489,
0.238632,-0.0194891,0.176456,-2.10739,0.606203,-0.0191268,-0.0407453,0.339928,0.11125,0.34523,-0.541618,0.987343,0.724973,-0.00695612,1.02467,-0.0201952,0.922729,0.975407,-11.006,7.09714,0.252647,15.5424,-2.33608,15.9481,-40.0025,8.75639,12.5298,-0.059983,0.251769,-0.0196604,0.181425,-2.12922,0.629057,0.00379132,-0.0405823,0.986576,-0.00718852,0.156013,-1.07244,1.39543,1.28935,0.000740609,109.716,-17.9443,-115.106,1.0268,9.74261,32.4091,0.166906,-3.57098,-30.1027,-3.21257,22.7417,2.1997,0.924612,-0.143631,
0.241038,-0.0188825,0.178895,-2.11136,0.613011,-0.0123908,-0.0407714,0.332087,0.104164,0.337162,-0.532687,0.960067,0.748378,-0.0062177,-4.9004,-4.42848,-5.04288,5.582,-17.0476,14.6282,0.461512,15.2496,-2.22108,15.6431,-39.4379,8.1106,12.8906,-0.0436043,0.251769,-0.0196604,0.181425,-2.12922,0.629057,0.00379132,-0.0405823,0.986576,-0.00718852,0.156013,-1.07244,1.39543,1.28935,0.000740609,0,0,0,0,0,0,0,-3.57098,-30.1027,-3.21257,22.7417,2.1997,0.924612,-0.143631,
0.243163,-0.0184836,0.18105,-2.11511,0.619339,-0.0051258,-0.0407811,0.31879,0.093304,0.323616,-0.519709,0.926267,0.780327,-0.00521717,-8.31085,-6.78755,-8.46587,8.11134,-21.1253,19.9681,0.625334,15.005,-2.0569,15.3871,-38.8747,7.55837,13.0089,-0.027862,0.251769,-0.0196604,0.181425,-2.12922,0.629057,0.00379132,-0.0405823,0.986576,-0.00718852,0.156013,-1.07244,1.39543,1.28935,0.000740609,0,0,0,0,0,0,0,-3.57098,-30.1027,-3.21257,22.7417,2.1997,0.924612,-0.143631,
0.258712,-0.0181887,0.188362,-2.13899,0.645622,0.0177613,-0.0406546,0.333619,0.0922345,0.338321,-0.525278,0.934965,0.792468,-0.00517049,9.26794,-0.66844,9.19053,-3.48096,5.43657,7.58835,0.029171,15.5424,-2.33608,15.9481,-40.0025,8.75639,12.5298,-0.059983,0.251769,-0.0196604,0.181425,-2.12922,0.629057,0.00379132,-0.0405823,0.986576,-0.00718852,0.156013,-1.07244,1.39543,1.28935,0.000740609,0,0,0,0,0,0,0,-3.57098,-30.1027,-3.21257,22.7417,2.1997,0.924612,-0.143631,
0.261388,-0.0176913,0.19107,-2.14295,0.652694,0.0246857,-0.0406828,0.333799,0.0862224,0.338346,-0.519041,0.924785,0.807085,-0.00484212,0.112888,-3.75751,0.0153528,3.89856,-6.36283,9.13527,0.205232,15.3022,-2.45002,15.6764,-39.3229,8.17117,12.8493,-0.0432404,0.263885,-0.0161526,0.207833,-2.16446,0.673025,0.0533686,-0.0405883,0.227963,0.0497754,0.888455,-1.06552,1.35263,1.48787,-0.00010538,-94.8265,7.12049,91.5553,0.865377,-5.34961,24.815,-0.105749,-4.07879,-32.5743,-5.06133,25.3839,1.57074,0.82482,-0.0703886,
0.263711,-0.0173757,0.193422,-2.14665,0.659211,0.031976,-0.0406948,0.325109,0.0768668,0.329475,-0.507752,0.902748,0.827924,-0.00417514,-5.43123,-5.84728,-5.54393,7.05506,-13.7732,13.0246,0.416864,15.0576,-2.28585,15.4204,-38.7598,7.61893,12.9676,-0.0274981,0.263885,-0.0161526,0.207833,-2.16446,0.673025,0.0533686,-0.0405883,0.227963,0.0497754,0.888455,-1.06552,1.35263,1.48787,-0.00010538,0,0,0,0,0,0,0,-4.07879,-32.5743,-5.06133,25.3839,1.57074,0.82482,-0.0703886,
0.270524,-0.0142202,0.214594,-2.17421,0.688138,0.069202,-0.0406169,0.335733,0.0835329,0.33997,-0.515326,0.89714,0.848919,-0.00385495,6.63957,4.16631,6.55908,-4.73342,-3.50449,13.122,0.200117,15.3022,-2.45002,15.6764,-39.3229,8.17117,12.8493,-0.0432404,0.263885,-0.0161526,0.207833,-2.16446,0.673025,0.0533686,-0.0405883,0.227963,0.0497754,0.888455,-1.06552,1.35263,1.48787,-0.00010538,0,0,0,0,0,0,0,-4.07879,-32.5743,-5.06133,25.3839,1.57074,0.82482,-0.0703886,
0.273092,-0.0136065,0.217188,-2.17813,0.694478,0.0765798,-0.0406274,0.332777,0.0821689,0.336832,-0.510421,0.876206,0.86358,-0.00334605,-1.84727,-0.852504,-1.96152,3.06552,-13.0839,9.16331,0.318061,15.0576,-2.28585,15.4204,-38.7598,7.61893,12.9676,-0.0274981,0.263885,-0.0161526,0.207833,-2.16446,0.673025,0.0533686,-0.0405883,0.227963,0.0497754,0.888455,-1.06552,1.35263,1.48787,-0.00010538,0,0,0,0,0,0,0,-4.07879,-32.5743,-5.06133,25.3839,1.57074,0.82482,-0.0703886,
0.275316,-0.0132119,0.219437,-2.1818,0.700344,0.0841111,-0.0406232,0.321824,0.075599,0.325689,-0.500029,0.847616,0.879148,-0.00257151,-6.84541,-4.10616,-6.96408,6.49496,-17.8687,9.72972,0.484089,14.6766,-2.20053,15.0002,-38.1555,7.19703,12.8861,-0.00859553,0.290107,-0.0129914,0.217337,-2.1991,0.713318,0.107473,-0.0405804,0.679975,0.13307,0.367844,-1.00305,1.13351,1.66654,-0.00294413,56.5015,10.4118,-65.0764,7.80849,-27.3907,22.3342,-0.354844,-4.02722,-33.0504,-3.161,27.5024,2.90191,-0.633615,-0.0566557,
0.277281,-0.0129746,0.221426,-2.18527,0.705698,0.091832,-0.0406041,0.306572,0.0664141,0.310281,-0.486678,0.811956,0.89634,-0.00157878,-9.53283,-5.74058,-9.6301,8.34475,-22.2877,10.7449,0.620456,14.4718,-1.97741,14.7851,-37.5961,6.85589,12.7122,0.00725132,0.290107,-0.0129914,0.217337,-2.1991,0.713318,0.107473,-0.0405804,0.679975,0.13307,0.367844,-1.00305,1.13351,1.66654,-0.00294413,0,0,0,0,0,0,0,-4.02722,-33.0504,-3.161,27.5024,2.90191,-0.633615,-0.0566557,
0.296278,-0.0105442,0.223529,-2.20868,0.725873,0.125255,-0.0405745,0.314871,0.0800272,0.318425,-0.497368,0.795362,0.923699,-0.00131027,5.18708,8.50821,5.09017,-6.68168,-10.371,17.0994,0.167821,14.8844,-2.40034,15.2187,-38.7199,7.66191,12.9111,-0.0248352,0.290107,-0.0129914,0.217337,-2.1991,0.713318,0.107473,-0.0405804,0.679975,0.13307,0.367844,-1.00305,1.13351,1.66654,-0.00294413,0,0,0,0,0,0,0,-4.02722,-33.0504,-3.161,27.5024,2.90191,-0.633615,-0.0566557,
0.298638,-0.00979615,0.225911,-2.21257,0.731256,0.133143,-0.0405675,0.31089,0.0827228,0.314278,-0.495338,0.770873,0.936165,-0.000873653,-2.48843,1.68475,-2.592,1.26893,-15.3055,7.79145,0.272885,14.6766,-2.20053,15.0002,-38.1555,7.19703,12.8861,-0.00859553,0.290107,-0.0129914,0.217337,-2.1991,0.713318,0.107473,-0.0405804,0.679975,0.13307,0.367844,-1.00305,1.13351,1.66654,-0.00294413,0,0,0,0,0,0,0,-4.02722,-33.0504,-3.161,27.5024,2.90191,-0.633615,-0.0566557,
0.300688,-0.0093019,0.227982,-2.2162,0.736205,0.140962,-0.0405465,0.29996,0.0785345,0.303209,-0.4869,0.740432,0.944404,-0.000175301,-6.83105,-2.6177,-6.91801,5.27356,-19.026,5.14896,0.43647,14.4718,-1.97741,14.7851,-37.5961,6.85589,12.7122,0.00725132,0.290107,-0.0129914,0.217337,-2.1991,0.713318,0.107473,-0.0405804,0.679975,0.13307,0.367844,-1.00305,1.13351,1.66654,-0.00294413,0,0,0,0,0,0,0,-4.02722,-33.0504,-3.161,27.5024,2.90191,-0.633615,-0.0566557,
0.302505,-0.00898863,0.22982,-2.21962,0.740734,0.1488,-0.0405154,0.28539,0.0706594,0.288518,-0.475051,0.705571,0.951477,0.00063879,-9.10602,-4.92193,-9.18204,7.4055,-21.7878,4.42076,0.508807,14.1855,-2.04335,14.4833,-37.0921,6.09502,12.3777,0.0252971,0.297955,-0.00991166,0.244799,-2.23225,0.750092,0.166252,-0.0405606,0.524388,0.134976,0.456764,-0.923648,0.930549,1.71236,0.000523487,-19.4484,0.238301,11.115,9.92569,-25.3698,5.72758,0.433452,-3.44403,-32.4236,-4.91057,27.8,1.6687,0.493399,-0.123489,
0.303666,-0.0076835,0.250543,-2.24143,0.760548,0.184772,-0.0405237,0.292753,0.0807012,0.295725,-0.4845,0.687733,0.97546,0.000838992,4.60155,6.27611,4.50434,-5.9054,-11.1489,14.9894,0.125127,14.6232,-2.51055,14.9245,-38.213,7.22012,12.7982,-0.00518503,0.297955,-0.00991166,0.244799,-2.23225,0.750092,0.166252,-0.0405606,0.524388,0.134976,0.456764,-0.923648,0.930549,1.71236,0.000523487,0,0,0,0,0,0,0,-3.44403,-32.4236,-4.91057,27.8,1.6687,0.493399,-0.123489,
0.305854,-0.0070199,0.25275,-2.24521,0.765103,0.192826,-0.0405016,0.288904,0.081151,0.291757,-0.482051,0.664065,0.981721,0.0012248,-2.40521,0.281117,-2.47975,1.53053,-14.7923,3.91319,0.241129,14.4183,-2.28743,14.7095,-37.6536,6.87898,12.6243,0.0106618,0.297955,-0.00991166,0.244799,-2.23225,0.750092,0.166252,-0.0405606,0.524388,0.134976,0.456764,-0.923648,0.930549,1.71236,0.000523487,0,0,0,0,0,0,0,-3.44403,-32.4236,-4.91057,27.8,1.6687,0.493399,-0.123489,
0.30776,-0.00658827,0.254675,-2.24874,0.769327,0.200689,-0.0404699,0.278775,0.0757114,0.281527,-0.473732,0.636843,0.981931,0.00177128,-6.33104,-3.39973,-6.39388,5.1998,-17.0138,0.131376,0.34155,14.1855,-2.04335,14.4833,-37.0921,6.09502,12.3777,0.0252971,0.297955,-0.00991166,0.244799,-2.23225,0.750092,0.166252,-0.0405606,0.524388,0.134976,0.456764,-0.923648,0.930549,1.71236,0.000523487,0,0,0,0,0,0,0,-3.44403,-32.4236,-4.91057,27.8,1.6687,0.493399,-0.123489,
0.328427,-0.00652003,0.258134,-2.27303,0.791159,0.245254,-0.0404812,0.285522,0.0770185,0.288132,-0.478436,0.610402,1.00154,0.00202951,4.21692,0.81694,4.12841,-2.94015,-16.5256,12.2563,0.161393,14.5099,-2.40955,14.783,-37.697,6.93306,12.5215,0.0137319,0.322894,-0.00797292,0.252528,-2.26426,0.782665,0.226437,-0.0405414,0.24798,0.0450212,0.719837,-0.895733,0.755454,1.77504,-0.00441476,-34.551,-11.2444,32.8841,3.48942,-21.8868,7.83476,-0.617281,-1.76983,-31.8761,-1.58599,24.9832,2.12005,-0.733408,0.00376909,
0.330541,-0.00606396,0.260265,-2.27664,0.794997,0.253265,-0.040452,0.281275,0.0730164,0.283783,-0.473017,0.584263,1.0015,0.00235328,-2.65409,-2.50128,-2.71844,3.38668,-16.3371,-0.0231617,0.20236,14.2771,-2.16546,14.5569,-37.1354,6.14909,12.2748,0.0283672,0.322894,-0.00797292,0.252528,-2.26426,0.782665,0.226437,-0.0405414,0.24798,0.0450212,0.719837,-0.895733,0.755454,1.77504,-0.00441476,0,0,0,0,0,0,0,-1.76983,-31.8761,-1.58599,24.9832,2.12005,-0.733408,0.00376909,
0.33238,-0.00577222,0.262121,-2.28001,0.798528,0.261002,-0.0404114,0.270989,0.0657067,0.273434,-0.462794,0.55567,0.994629,0.00289814,-6.42871,-4.5686,-6.468,6.38947,-17.8705,-4.29721,0.340537,14.0088,-1.91246,14.2877,-36.5815,5.5137,11.9318,0.0385863,0.322894,-0.00797292,0.252528,-2.26426,0.782665,0.226437,-0.0405414,0.24798,0.0450212,0.719837,-0.895733,0.755454,1.77504,-0.00441476,0,0,0,0,0,0,0,-1.76983,-31.8761,-1.58599,24.9832,2.12005,-0.733408,0.00376909,
0.334015,-0.0056,0.263774,-2.28321,0.801623,0.268596,-0.0403564,0.257666,0.0568708,0.260065,-0.450074,0.521935,0.985562,0.00369231,-8.32724,-5.52243,-8.35543,7.94987,-21.0848,-5.66688,0.496355,13.7339,-1.65076,14.0164,-36.0254,4.58442,11.5697,0.0491282,0.322894,-0.00797292,0.252528,-2.26426,0.782665,0.226437,-0.0405414,0.24798,0.0450212,0.719837,-0.895733,0.755454,1.77504,-0.00441476,0,0,0,0,0,0,0,-1.76983,-31.8761,-1.58599,24.9832,2.12005,-0.733408,0.00376909,
0.337428,-0.00573643,0.281109,-2.30549,0.819346,0.305536,-0.0404034,0.266464,0.0572915,0.268716,-0.459582,0.502418,0.990794,0.00398538,5.49872,0.262951,5.4068,-5.94257,-12.1979,3.27008,0.183171,14.5098,-2.50441,14.7792,-37.0234,6.31959,12.148,0.0290756,0.332043,-0.00664554,0.275763,-2.29654,0.812046,0.287772,-0.0405203,0.804145,-0.0545117,0.122093,-0.998799,0.776529,1.7616,0.00150781,69.5206,-12.4416,-74.718,-12.8833,2.63431,-1.68014,0.740321,-3.34088,-27.8572,-3.98619,21.9958,1.96808,0.99053,-0.050247,
0.339475,-0.00538904,0.283171,-2.30905,0.822485,0.313038,-0.0403615,0.264334,0.0545178,0.266536,-0.456627,0.480415,0.980184,0.00423394,-1.33116,-1.73359,-1.36265,1.84685,-13.752,-6.63139,0.155344,14.2415,-2.25141,14.51,-36.4695,5.6842,11.8049,0.0392947,0.332043,-0.00664554,0.275763,-2.29654,0.812046,0.287772,-0.0405203,0.804145,-0.0545117,0.122093,-0.998799,0.776529,1.7616,0.00150781,0,0,0,0,0,0,0,-3.34088,-27.8572,-3.98619,21.9958,1.96808,0.99053,-0.050247,
0.341258,-0.00516661,0.284971,-2.31236,0.825294,0.320301,-0.0403071,0.256046,0.049175,0.258226,-0.448032,0.454544,0.965734,0.00474787,-5.17977,-3.33922,-5.1939,5.37187,-16.1691,-9.0308,0.321209,13.9666,-1.9897,14.2387,-35.9135,4.75492,11.4428,0.0498366,0.332043,-0.00664554,0.275763,-2.29654,0.812046,0.287772,-0.0405203,0.804145,-0.0545117,0.122093,-0.998799,0.776529,1.7616,0.00150781,0,0,0,0,0,0,0,-3.34088,-27.8572,-3.98619,21.9958,1.96808,0.99053,-0.050247,
0.34284,-0.00504053,0.286569,-2.3155,0.82782,0.327434,-0.0402524,0.244387,0.0424921,0.246525,-0.436973,0.426791,0.950912,0.00516652,-7.28676,-4.17682,-7.31278,6.91185,-17.3455,-9.26403,0.261659,13.6657,-1.72634,13.9359,-35.3609,3.77952,11.0385,0.0639123,0.332043,-0.00664554,0.275763,-2.29654,0.812046,0.287772,-0.0405203,0.804145,-0.0545117,0.122093,-0.998799,0.776529,1.7616,0.00150781,0,0,0,0,0,0,0,-3.34088,-27.8572,-3.98619,21.9958,1.96808,0.99053,-0.050247,
0.337404,-0.00570912,0.281084,-2.30536,0.818706,0.305199,-0.0403815,0.255461,0.0461173,0.257504,-0.44719,0.415749,0.958011,0.00544021,6.921,2.26577,6.86174,-6.38511,-6.90151,4.4371,0.171052,14.185,-2.33449,14.4347,-36.2877,5.83685,11.7431,0.0399124,0.352354,-0.0048742,0.287508,-2.32782,0.837232,0.349435,-0.0404809,0.0624006,0.0444803,0.916864,-0.929236,0.782255,1.82276,3.27062e-05,-92.7181,12.374,99.3464,8.69538,0.715764,7.64526,-0.184388,0.285221,-29.3291,0.43733,21.123,2.39563,-0.315012,-0.0163725,
0.33943,-0.005352,0.283126,-2.30884,0.821291,0.312454,-0.040327,0.255039,0.0458221,0.257064,-0.444782,0.397223,0.947787,0.00571424,-0.26365,-0.184526,-0.274813,1.50493,-11.5785,-6.38991,0.171269,13.9101,-2.07278,14.1634,-35.7316,4.90756,11.3809,0.0504544,0.352354,-0.0048742,0.287508,-2.32782,0.837232,0.349435,-0.0404809,0.0624006,0.0444803,0.916864,-0.929236,0.782255,1.82276,3.27062e-05,0,0,0,0,0,0,0,0.285221,-29.3291,0.43733,21.123,2.39563,-0.315012,-0.0163725,
0.341186,-0.00512096,0.284897,-2.31209,0.823625,0.319429,-0.0402741,0.247918,0.0424334,0.249915,-0.437129,0.37614,0.932592,0.00589476,-4.45084,-2.11791,-4.46859,4.78324,-13.1774,-9.49719,0.112825,13.6092,-1.80943,13.8606,-35.1791,3.93217,10.9766,0.0645301,0.352354,-0.0048742,0.287508,-2.32782,0.837232,0.349435,-0.0404809,0.0624006,0.0444803,0.916864,-0.929236,0.782255,1.82276,3.27062e-05,0,0,0,0,0,0,0,0.285221,-29.3291,0.43733,21.123,2.39563,-0.315012,-0.0163725,
0.357724,-0.00336076,0.292971,-2.33638,0.843219,0.366897,-0.0403214,0.258549,0.0510276,0.260414,-0.44539,0.36416,0.940568,0.00636213,6.64458,5.37138,6.56176,-5.16341,-7.48751,4.98513,0.292106,13.9101,-2.07278,14.1634,-35.7316,4.90756,11.3809,0.0504544,0.352354,-0.0048742,0.287508,-2.32782,0.837232,0.349435,-0.0404809,0.0624006,0.0444803,0.916864,-0.929236,0.782255,1.82276,3.27062e-05,0,0,0,0,0,0,0,0.285221,-29.3291,0.43733,21.123,2.39563,-0.315012,-0.0163725,
0.359731,-0.00288993,0.294988,-2.33982,0.845394,0.37387,-0.0402668,0.257019,0.0525926,0.258777,-0.442442,0.345718,0.926786,0.00645425,-0.956453,0.978122,-1.0226,1.84262,-11.5259,-8.61386,0.057579,13.3979,-2.15466,13.6272,-35.1554,4.02267,10.8656,0.0660298,0.365754,-0.00283085,0.30471,-2.35773,0.857586,0.408095,-0.0404256,0.806578,0.0958406,0.0432781,-0.848476,0.685021,1.6366,0.000686705,93.0222,6.42003,-109.198,10.095,-12.1542,-23.2692,0.0817499,-1.46435,-31.2254,-1.51061,23.067,1.53412,0.175711,-0.0365141,
0.361453,-0.00258659,0.296723,-2.34301,0.847028,0.380436,-0.0402122,0.248664,0.0496577,0.250391,-0.433697,0.317415,0.905572,0.00652663,-5.22191,-1.83432,-5.24146,5.46551,-17.6894,-13.2584,0.0452352,12.9698,-1.8903,13.1802,-34.6154,3.55603,10.3783,0.065802,0.365754,-0.00283085,0.30471,-2.35773,0.857586,0.408095,-0.0404256,0.806578,0.0958406,0.0432781,-0.848476,0.685021,1.6366,0.000686705,0,0,0,0,0,0,0,-1.46435,-31.2254,-1.51061,23.067,1.53412,0.175711,-0.0365141,
0.362967,-0.00240348,0.298251,-2.34601,0.847982,0.386766,-0.0401584,0.236778,0.0443039,0.238511,-0.42182,0.277791,0.882695,0.00656762,-7.42873,-3.34613,-7.42489,7.42328,-24.7653,-14.2985,0.0256177,12.5622,-1.59093,12.7845,-34.04,2.14521,9.85602,0.0601904,0.365754,-0.00283085,0.30471,-2.35773,0.857586,0.408095,-0.0404256,0.806578,0.0958406,0.0432781,-0.848476,0.685021,1.6366,0.000686705,0,0,0,0,0,0,0,-1.46435,-31.2254,-1.51061,23.067,1.53412,0.175711,-0.0365141,
0.370542,-0.00114586,0.309438,-2.36603,0.862427,0.424353,-0.0402462,0.242563,0.0537387,0.244098,-0.431408,0.273001,0.888822,0.00698748,3.61591,5.89674,3.4919,-5.99288,-2.99363,3.82953,0.262417,13.3979,-2.15466,13.6272,-35.1554,4.02267,10.8656,0.0660298,0.365754,-0.00283085,0.30471,-2.35773,0.857586,0.408095,-0.0404256,0.806578,0.0958406,0.0432781,-0.848476,0.685021,1.6366,0.000686705,0,0,0,0,0,0,0,-1.46435,-31.2254,-1.51061,23.067,1.53412,0.175711,-0.0365141,
0.37233,-0.000647026,0.311236,-2.3694,0.863846,0.430921,-0.0401866,0.238749,0.0554619,0.240225,-0.429293,0.253886,0.875259,0.00708166,-2.38382,1.077,-2.42106,1.3218,-11.947,-8.47716,0.0588623,13.0601,-2.15976,13.2608,-34.6051,3.62926,10.261,0.0682152,0.376589,-0.00188841,0.32431,-2.38711,0.873756,0.463968,-0.0403835,0.093346,0.00668201,0.765173,-0.854419,0.491754,1.60791,-4.54064e-05,-89.154,-11.1448,90.2369,-0.742845,-24.1584,-3.58695,-0.091514,-0.603451,-30.1781,-1.10991,24.4635,1.56433,-0.261911,-0.0301054,
0.373882,-0.000326719,0.312799,-2.37251,0.864608,0.437122,-0.04013,0.229804,0.0523772,0.231275,-0.421256,0.222169,0.855232,0.00707845,-5.5905,-1.92794,-5.5934,5.0236,-19.8226,-12.5164,-0.00200904,12.6525,-1.8604,12.8651,-34.0297,2.21844,9.73868,0.0626036,0.376589,-0.00188841,0.32431,-2.38711,0.873756,0.463968,-0.0403835,0.093346,0.00668201,0.765173,-0.854419,0.491754,1.60791,-4.54064e-05,0,0,0,0,0,0,0,-0.603451,-30.1781,-1.10991,24.4635,1.56433,-0.261911,-0.0301054,
0.375264,-0.000132969,0.314194,-2.37544,0.864714,0.443112,-0.0400766,0.218397,0.0467455,0.21988,-0.41022,0.180381,0.833924,0.00699767,-7.12935,-3.51981,-7.12212,6.89753,-26.1176,-13.3176,-0.0504881,12.3551,-1.56258,12.5725,-33.4225,0.901068,9.22206,0.0570255,0.376589,-0.00188841,0.32431,-2.38711,0.873756,0.463968,-0.0403835,0.093346,0.00668201,0.765173,-0.854419,0.491754,1.60791,-4.54064e-05,0,0,0,0,0,0,0,-0.603451,-30.1781,-1.10991,24.4635,1.56433,-0.261911,-0.0301054,
0.381255,-0.000878508,0.32904,-2.39523,0.87629,0.479317,-0.0402133,0.226971,0.0492467,0.228321,-0.419223,0.166541,0.837664,0.00722479,5.35837,1.56326,5.27594,-5.62678,-8.64985,2.33765,0.141954,13.0601,-2.15976,13.2608,-34.6051,3.62926,10.261,0.0682152,0.376589,-0.00188841,0.32431,-2.38711,0.873756,0.463968,-0.0403835,0.093346,0.00668201,0.765173,-0.854419,0.491754,1.60791,-4.54064e-05,0,0,0,0,0,0,0,-0.603451,-30.1781,-1.10991,24.4635,1.56433,-0.261911,-0.0301054,
0.383006,-0.000546825,0.330801,-2.39848,0.87665,0.485402,-0.0401593,0.225366,0.0476894,0.226685,-0.416602,0.142234,0.822259,0.00712989,-1.00312,-0.973299,-1.02254,1.63761,-15.192,-9.6283,-0.059313,12.5186,-2.02016,12.7218,-34.0133,2.28628,9.64529,0.0644088,0.397432,-0.00107922,0.330884,-2.41541,0.884731,0.515152,-0.0402906,0.548692,0.0366999,0.249429,-0.805303,0.257343,1.46352,0.00830973,56.9183,3.75224,-64.468,6.13951,-29.3014,-18.0488,1.04439,-1.66668,-27.0082,-0.661608,23.4161,1.32629,-0.0632418,-0.157364,
0.384525,-0.000338704,0.332331,-2.4015,0.876494,0.491141,-0.0401087,0.218261,0.0433546,0.219594,-0.408618,0.10988,0.80128,0.00696777,-4.44042,-2.70928,-4.43226,4.9902,-20.2216,-13.112,-0.101328,12.2212,-1.72235,12.4292,-33.4061,0.968911,9.12867,0.0588307,0.397432,-0.00107922,0.330884,-2.41541,0.884731,0.515152,-0.0402906,0.548692,0.0366999,0.249429,-0.805303,0.257343,1.46352,0.00830973,0,0,0,0,0,0,0,-1.66668,-27.0082,-0.661608,23.4161,1.32629,-0.0632418,-0.157364,
0.385879,-0.000222582,0.333697,-2.40434,0.875817,0.496696,-0.0400581,0.208463,0.0375867,0.209821,-0.39808,0.0709738,0.779902,0.0068392,-6.12394,-3.60492,-6.10775,6.58629,-24.3161,-13.361,-0.0803539,12.0455,-1.47119,12.2497,-32.7885,-0.085489,8.62118,0.0540143,0.397432,-0.00107922,0.330884,-2.41541,0.884731,0.515152,-0.0402906,0.548692,0.0366999,0.249429,-0.805303,0.257343,1.46352,0.00830973,0,0,0,0,0,0,0,-1.66668,-27.0082,-0.661608,23.4161,1.32629,-0.0632418,-0.157364,
0.40176,-9.22431e-05,0.335188,-2.42316,0.885863,0.52949,-0.0402482,0.214015,0.0393668,0.215216,-0.402614,0.079582,0.78699,0.00409156,3.46996,1.11258,3.37192,-2.83371,5.38016,4.42993,-1.71727,12.5186,-2.02016,12.7218,-34.0133,2.28628,9.64529,0.0644088,0.397432,-0.00107922,0.330884,-2.41541,0.884731,0.515152,-0.0402906,0.548692,0.0366999,0.249429,-0.805303,0.257343,1.46352,0.00830973,0,0,0,0,0,0,0,-1.66668,-27.0082,-0.661608,23.4161,1.32629,-0.0632418,-0.157364,
0.403261,-5.06876e-05,0.336697,-2.42589,0.88722,0.535359,-0.0401969,0.208747,0.0325324,0.2099,-0.390482,0.0976044,0.77631,0.00455411,-3.29256,-4.27155,-3.32257,7.58226,11.264,-6.67515,0.289091,12.2212,-1.72235,12.4292,-33.4061,0.968911,9.12867,0.0588307,0.397432,-0.00107922,0.330884,-2.41541,0.884731,0.515152,-0.0402906,0.548692,0.0366999,0.249429,-0.805303,0.257343,1.46352,0.00830973,0,0,0,0,0,0,0,-1.66668,-27.0082,-0.661608,23.4161,1.32629,-0.0632418,-0.157364,
0.404478,-0.000314979,0.337923,-2.42818,0.888833,0.540678,-0.0399773,0.197409,0.0194186,0.198566,-0.369644,0.118408,0.754033,0.00913493,-7.08614,-8.1961,-7.08405,13.0239,13.002,-13.9228,2.86301,11.938,-1.9906,12.1277,-32.629,0.00844251,8.54352,0.0540495,0.401563,0.000155975,0.353125,-2.44277,0.893513,0.559429,-0.0402799,0.334714,0.0411042,0.363557,-0.743271,0.201558,1.08469,0.000678035,-26.7473,0.550538,14.2659,7.75406,-6.97316,-47.3536,-0.953962,-2.12292,-27.9088,-3.51012,20.6985,-1.03669,3.80211,-0.0566557,
0.405484,-0.000839661,0.33894,-2.43014,0.890566,0.545435,-0.0395944,0.18309,0.00241784,0.184272,-0.344588,0.138042,0.722154,0.0168786,-8.94956,-10.6255,-8.93325,15.66,12.2714,-19.9244,4.8398,11.8678,-1.80895,12.0506,-32.0129,-0.870159,8.08112,0.0527924,0.401563,0.000155975,0.353125,-2.44277,0.893513,0.559429,-0.0402799,0.334714,0.0411042,0.363557,-0.743271,0.201558,1.08469,0.000678035,0,0,0,0,0,0,0,-2.12292,-27.9088,-3.51012,20.6985,-1.03669,3.80211,-0.0566557,
0.405214,0.00036673,0.356783,-2.44924,0.89826,0.572135,-0.0406574,0.185393,-0.000715836,0.186442,-0.342202,0.174134,0.721359,0.00951129,1.43988,-1.95855,1.35574,1.49111,22.5575,-0.49675,-4.60458,12.1136,-2.24176,12.3072,-33.2466,1.06284,9.05102,0.0588659,0.401563,0.000155975,0.353125,-2.44277,0.893513,0.559429,-0.0402799,0.334714,0.0411042,0.363557,-0.743271,0.201558,1.08469,0.000678035,0,0,0,0,0,0,0,-2.12292,-27.9088,-3.51012,20.6985,-1.03669,3.80211,-0.0566557,
0.406369,-0.000216127,0.357945,-2.45119,0.90095,0.576705,-0.0407355,0.177184,-0.0151441,0.1782,-0.322469,0.20656,0.691317,0.00565478,-5.13077,-9.01765,-5.15095,12.3333,20.2664,-18.7765,-2.41031,11.938,-1.9906,12.1277,-32.629,0.00844251,8.54352,0.0540495,0.401563,0.000155975,0.353125,-2.44277,0.893513,0.559429,-0.0402799,0.334714,0.0411042,0.363557,-0.743271,0.201558,1.08469,0.000678035,0,0,0,0,0,0,0,-2.12292,-27.9088,-3.51012,20.6985,-1.03669,3.80211,-0.0566557,
0.407235,-0.00121781,0.35882,-2.45266,0.903636,0.580225,-0.0407215,0.163404,-0.0371572,0.16444,-0.294745,0.232409,0.641065,0.00487511,-8.61247,-13.7582,-8.60001,17.3271,16.1556,-31.4076,-0.487299,11.9019,-2.24298,12.0936,-31.7527,-0.780133,8.00513,0.0527095,0.418708,-0.000591089,0.360508,-2.4672,0.902212,0.592921,-0.0402894,0.0994841,-0.0441438,0.655837,-0.647549,0.189326,0.794988,7.24842e-05,-29.4037,-10.656,36.535,11.9652,-1.529,-36.2128,-0.0756939,-1.28582,-24.9889,-0.963121,17.5128,-3.67524,6.58715,0.0577852,
0.407901,-0.00255479,0.359495,-2.4538,0.906224,0.58286,-0.0406093,0.147369,-0.0631503,0.148438,-0.264233,0.250618,0.578712,0.00670462,-10.0217,-16.2457,-10.0014,19.0702,11.3806,-38.9708,1.14344,11.8999,-2.13753,12.0826,-31.1495,-1.47091,7.57084,0.0522917,0.418708,-0.000591089,0.360508,-2.4672,0.902212,0.592921,-0.0402894,0.0994841,-0.0441438,0.655837,-0.647549,0.189326,0.794988,7.24842e-05,0,0,0,0,0,0,0,-1.28582,-24.9889,-0.963121,17.5128,-3.67524,6.58715,0.0577852,
0.422497,-0.00164731,0.364348,-2.47246,0.907734,0.60268,-0.0406216,0.156681,-0.0702954,0.157569,-0.261949,0.272711,0.568132,0.00195234,5.81977,-4.4657,5.70685,1.42762,13.8079,-6.61241,-2.97017,11.9721,-2.42463,12.1708,-32.3687,0.0984684,8.46753,0.0539666,0.418708,-0.000591089,0.360508,-2.4672,0.902212,0.592921,-0.0402894,0.0994841,-0.0441438,0.655837,-0.647549,0.189326,0.794988,7.24842e-05,0,0,0,0,0,0,0,-1.28582,-24.9889,-0.963121,17.5128,-3.67524,6.58715,0.0577852,
0.423533,-0.00298229,0.365388,-2.47375,0.910677,0.605591,-0.040674,0.151243,-0.0896109,0.152054,-0.241723,0.291745,0.527273,0.00025038,-3.39898,-12.0721,-3.44654,12.6411,11.8967,-25.5366,-1.06372,11.9019,-2.24298,12.0936,-31.7527,-0.780133,8.00513,0.0527095,0.418708,-0.000591089,0.360508,-2.4672,0.902212,0.592921,-0.0402894,0.0994841,-0.0441438,0.655837,-0.647549,0.189326,0.794988,7.24842e-05,0,0,0,0,0,0,0,-1.28582,-24.9889,-0.963121,17.5128,-3.67524,6.58715,0.0577852,
0.424211,-0.00477076,0.366071,-2.47456,0.91354,0.607376,-0.0406288,0.137938,-0.1164,0.13872,-0.213702,0.304974,0.466451,0.00133122,-8.31547,-16.7435,-8.33401,17.5134,8.26819,-38.0136,0.675524,11.8396,-2.6305,12.0533,-31.0313,-1.41965,7.54223,0.0522139,0.430814,-0.00313461,0.374281,-2.48818,0.914933,0.620474,-0.0402934,0.695416,-0.122092,0.00768873,-0.535873,0.316993,0.764047,-1.15424e-05,74.4915,-9.74358,-81.0186,13.9595,15.9583,-3.86763,-0.0105033,-5.14203,-25.9847,-4.93834,17.0883,-5.01282,3.3709,0.017502,
0.424648,-0.00690382,0.366512,-2.47506,0.916242,0.608241,-0.0404781,0.121275,-0.146447,0.122017,-0.183509,0.311517,0.394774,0.00483141,-10.4145,-18.779,-10.4395,18.8703,4.0889,-44.7981,2.18762,11.8833,-2.59361,12.0872,-30.4415,-1.97354,7.15489,0.0542634,0.430814,-0.00313461,0.374281,-2.48818,0.914933,0.620474,-0.0402934,0.695416,-0.122092,0.00768873,-0.535873,0.316993,0.764047,-1.15424e-05,0,0,0,0,0,0,0,-5.14203,-25.9847,-4.93834,17.0883,-5.01282,3.3709,0.017502,
0.433551,-0.00651868,0.376946,-2.49145,0.919549,0.626123,-0.0401267,0.122716,-0.164868,0.123286,-0.17548,0.310147,0.368446,0.00679148,0.900922,-11.5131,0.793125,5.01844,-0.855847,-16.455,1.22504,11.8416,-2.73595,12.0643,-31.6345,-0.728877,7.97653,0.0526317,0.430814,-0.00313461,0.374281,-2.48818,0.914933,0.620474,-0.0402934,0.695416,-0.122092,0.00768873,-0.535873,0.316993,0.764047,-1.15424e-05,0,0,0,0,0,0,0,-5.14203,-25.9847,-4.93834,17.0883,-5.01282,3.3709,0.017502,
0.434133,-0.0088497,0.377528,-2.49202,0.922063,0.626977,-0.039923,0.112723,-0.19017,0.113182,-0.154637,0.310984,0.316085,0.0105279,-6.24591,-15.8137,-6.31461,13.027,0.522737,-32.726,2.33529,11.8396,-2.6305,12.0533,-31.0313,-1.41965,7.54223,0.0522139,0.430814,-0.00313461,0.374281,-2.48818,0.914933,0.620474,-0.0402934,0.695416,-0.122092,0.00768873,-0.535873,0.316993,0.764047,-1.15424e-05,0,0,0,0,0,0,0,-5.14203,-25.9847,-4.93834,17.0883,-5.01282,3.3709,0.017502,
0.434419,-0.0115187,0.377813,-2.49223,0.924525,0.626808,-0.0396217,0.0973348,-0.21886,0.0976537,-0.128998,0.310328,0.248663,0.0159534,-9.61741,-17.9316,-9.70532,16.024,-0.40977,-42.1385,3.39091,11.788,-3.13341,12.0637,-30.3783,-1.9065,7.06622,0.0547249,0.438761,-0.00898567,0.390621,-2.50472,0.927835,0.649456,-0.0402833,0.0381431,-0.20574,0.608551,-0.459776,0.194948,0.613424,0.000573164,-82.1591,-10.456,75.1078,9.51214,-15.2556,-18.8278,0.0730884,-3.0354,-24.2867,-3.76006,16.517,-2.04468,2.42974,-0.0301054,
0.441542,-0.012708,0.393448,-2.50753,0.933161,0.655413,-0.0402088,0.103835,-0.228149,0.103971,-0.124751,0.316944,0.251314,0.0145801,4.06264,-5.80526,3.94832,2.65443,4.13527,1.65668,-0.858341,11.7443,-3.1703,12.0298,-30.9681,-1.35261,7.45355,0.0526755,0.438761,-0.00898567,0.390621,-2.50472,0.927835,0.649456,-0.0402833,0.0381431,-0.20574,0.608551,-0.459776,0.194948,0.613424,0.000573164,0,0,0,0,0,0,0,-3.0354,-24.2867,-3.76006,16.517,-2.04468,2.42974,-0.0301054,
0.442077,-0.0153377,0.393975,-2.50776,0.935903,0.655986,-0.0400401,0.0964475,-0.248262,0.0963423,-0.105641,0.32212,0.215372,0.0158808,-4.61721,-12.5708,-4.76795,11.9438,3.23453,-22.4636,0.812963,11.788,-3.13341,12.0637,-30.3783,-1.9065,7.06622,0.0547249,0.438761,-0.00898567,0.390621,-2.50472,0.927835,0.649456,-0.0402833,0.0381431,-0.20574,0.608551,-0.459776,0.194948,0.613424,0.000573164,0,0,0,0,0,0,0,-3.0354,-24.2867,-3.76006,16.517,-2.04468,2.42974,-0.0301054,
0.442281,-0.018367,0.394164,-2.50762,0.938526,0.655339,-0.0397614,0.0822394,-0.274343,0.0818121,-0.0808786,0.32326,0.156127,0.0196725,-8.88007,-16.3007,-9.08141,15.4766,0.712672,-37.0281,2.36981,11.8494,-3.15555,12.1146,-29.8047,-2.30681,6.70774,0.0566047,0.438761,-0.00898567,0.390621,-2.50472,0.927835,0.649456,-0.0402833,0.0381431,-0.20574,0.608551,-0.459776,0.194948,0.613424,0.000573164,0,0,0,0,0,0,0,-3.0354,-24.2867,-3.76006,16.517,-2.04468,2.42974,-0.0301054,
0.442275,-0.0216763,0.394139,-2.50725,0.940963,0.653769,-0.039365,0.0656588,-0.302206,0.0648149,-0.0554854,0.319536,0.0856481,0.0256469,-10.3628,-17.4145,-10.6233,15.8707,-2.32767,-44.0493,3.734,11.7884,-3.59551,12.1551,-29.3577,-2.58483,6.35595,0.06008,0.45293,-0.018147,0.394184,-2.51965,0.938248,0.6699,-0.0402208,0.206207,-0.320517,0.227569,-0.369763,0.312606,0.582859,0.00162199,21.008,-14.3471,-47.6228,11.2515,14.7072,-3.82059,0.131103,-2.24987,-20.0694,-1.76055,12.3553,-1.28113,2.4627,0.0376436,
0.454406,-0.0236415,0.395634,-2.52107,0.943495,0.673344,-0.0400037,0.0644486,-0.314827,0.0633289,-0.0508264,0.321302,0.0891025,0.0243934,-0.756393,-7.8881,-0.928694,2.91193,1.10394,2.15898,-0.783455,11.6595,-3.5064,12.0474,-30.4921,-1.89195,7.03105,0.0549792,0.45293,-0.018147,0.394184,-2.51965,0.938248,0.6699,-0.0402208,0.206207,-0.320517,0.227569,-0.369763,0.312606,0.582859,0.00162199,0,0,0,0,0,0,0,-2.24987,-20.0694,-1.76055,12.3553,-1.28113,2.4627,0.0376436,
0.454536,-0.0269281,0.395737,-2.52084,0.946026,0.672726,-0.0397342,0.054805,-0.334027,0.0532386,-0.0347751,0.320308,0.0558461,0.0262515,-6.02727,-11.9997,-6.30644,10.032,-0.621097,-20.7852,1.16132,11.721,-3.52854,12.0982,-29.9185,-2.29226,6.67257,0.056859,0.45293,-0.018147,0.394184,-2.51965,0.938248,0.6699,-0.0402208,0.206207,-0.320517,0.227569,-0.369763,0.312606,0.582859,0.00162199,0,0,0,0,0,0,0,-2.24987,-20.0694,-1.76055,12.3553,-1.28113,2.4627,0.0376436,
0.454449,-0.0304965,0.395614,-2.52033,0.948389,0.67102,-0.0393395,0.0416702,-0.356431,0.0395108,-0.0151436,0.315333,0.00201591,0.0308691,-8.20922,-14.0023,-8.57989,12.2697,-3.10954,-33.6439,2.88603,11.7884,-3.59551,12.1551,-29.3577,-2.58483,6.35595,0.06008,0.45293,-0.018147,0.394184,-2.51965,0.938248,0.6699,-0.0402208,0.206207,-0.320517,0.227569,-0.369763,0.312606,0.582859,0.00162199,0,0,0,0,0,0,0,-2.24987,-20.0694,-1.76055,12.3553,-1.28113,2.4627,0.0376436,
0.454238,-0.0342466,0.395358,-2.51968,0.950548,0.668539,-0.0388149,0.0280575,-0.378898,0.0251985,0.00405002,0.306247,-0.0604205,0.0378099,-8.50793,-14.0421,-8.94517,11.996,-5.67864,-39.0227,4.33802,11.8116,-4.09818,12.3403,-28.9711,-2.76187,6.01473,0.063073,0.456112,-0.0315786,0.403143,-2.53121,0.947972,0.686723,-0.0397264,0.413122,-0.459401,-0.0932995,-0.354162,0.315274,0.363431,0.0140826,25.8643,-17.3605,-40.1085,1.95014,0.333538,-27.4285,1.55758,-0.0718349,-20.371,-0.510851,11.6571,-0.652164,2.44256,0.0641939,
0.456949,-0.0386574,0.403856,-2.53195,0.952273,0.686927,-0.0392466,0.0277936,-0.392683,0.0243944,0.00470542,0.298253,-0.0634954,0.0376411,-0.164974,-8.61578,-0.502581,0.409631,-4.99616,-1.92181,-0.105541,11.6869,-3.93027,12.237,-30.0798,-2.295,6.62106,0.057336,0.456112,-0.0315786,0.403143,-2.53121,0.947972,0.686723,-0.0397264,0.413122,-0.459401,-0.0932995,-0.354162,0.315274,0.363431,0.0140826,0,0,0,0,0,0,0,-0.0718349,-20.371,-0.510851,11.6571,-0.652164,2.44256,0.0641939,
0.456915,-0.0424195,0.403765,-2.53148,0.954316,0.685216,-0.0388211,0.0213937,-0.408201,0.0172542,0.0155462,0.289689,-0.0935669,0.0407516,-3.99993,-9.6987,-4.46264,6.7755,-5.3525,-18.7947,1.94406,11.7544,-3.99724,12.2939,-29.519,-2.58758,6.30443,0.0605569,0.456112,-0.0315786,0.403143,-2.53121,0.947972,0.686723,-0.0397264,0.413122,-0.459401,-0.0932995,-0.354162,0.315274,0.363431,0.0140826,0,0,0,0,0,0,0,-0.0718349,-20.371,-0.510851,11.6571,-0.652164,2.44256,0.0641939,
0.456736,-0.0463271,0.403518,-2.53081,0.956227,0.682702,-0.0382587,0.0126253,-0.424249,0.0076076,0.0291786,0.27952,-0.137698,0.0466602,-5.48027,-10.0299,-6.02912,8.52024,-6.35611,-27.5817,3.69289,11.8116,-4.09818,12.3403,-28.9711,-2.76187,6.01473,0.063073,0.456112,-0.0315786,0.403143,-2.53121,0.947972,0.686723,-0.0397264,0.413122,-0.459401,-0.0932995,-0.354162,0.315274,0.363431,0.0140826,0,0,0,0,0,0,0,-0.0718349,-20.371,-0.510851,11.6571,-0.652164,2.44256,0.0641939,
0.456481,-0.0503126,0.403185,-2.53006,0.957981,0.67965,-0.0375585,0.00373399,-0.439039,-0.00221934,0.0420552,0.267467,-0.186455,0.0548333,-5.55705,-9.24376,-6.14184,8.04787,-7.53288,-30.4736,5.10821,11.8545,-4.22068,12.3727,-28.4322,-2.85756,5.76093,0.0662325,0.456112,-0.0315786,0.403143,-2.53121,0.947972,0.686723,-0.0397264,0.413122,-0.459401,-0.0932995,-0.354162,0.315274,0.363431,0.0140826,0,0,0,0,0,0,0,-0.0718349,-20.371,-0.510851,11.6571,-0.652164,2.44256,0.0641939,
0.460815,-0.0555253,0.410496,-2.54206,0.958682,0.696723,-0.0382249,0.0102747,-0.443133,0.00387186,0.0369693,0.258333,-0.161911,0.0549429,4.08798,-2.55858,3.807,-3.17867,-5.70889,15.3401,0.0684562,11.6439,-4.58962,12.3804,-29.4896,-2.54394,6.23151,0.0607377,0.459855,-0.0481841,0.409627,-2.54154,0.955141,0.696392,-0.0389949,0.032814,-0.533332,0.259742,-0.28976,0.220905,0.288343,0.0309564,-47.5385,-9.24133,44.1302,8.05034,-11.7962,-9.3861,2.10923,0.384403,-18.7721,-0.213304,13.4265,0.343014,1.6076,0.0907442,
0.460858,-0.0593275,0.410458,-2.54156,0.960416,0.695162,-0.0376492,0.00930895,-0.449559,0.00213524,0.0421119,0.250027,-0.168569,0.0583472,-0.603624,-4.01655,-1.08538,3.21408,-5.1909,-4.161,2.12772,11.7012,-4.69056,12.4268,-28.9418,-2.71824,5.9418,0.0632538,0.459855,-0.0481841,0.409627,-2.54154,0.955141,0.696392,-0.0389949,0.032814,-0.533332,0.259742,-0.28976,0.220905,0.288343,0.0309564,0,0,0,0,0,0,0,0.384403,-18.7721,-0.213304,13.4265,0.343014,1.6076,0.0907442,
0.460755,-0.0632367,0.41026,-2.54089,0.962064,0.692839,-0.0369351,0.00487149,-0.457378,-0.00323978,0.050413,0.241226,-0.192916,0.0645314,-2.77341,-4.88682,-3.35939,5.18818,-5.5005,-15.2168,3.86513,11.7441,-4.81306,12.4592,-28.4029,-2.81393,5.688,0.0664133,0.459855,-0.0481841,0.409627,-2.54154,0.955141,0.696392,-0.0389949,0.032814,-0.533332,0.259742,-0.28976,0.220905,0.288343,0.0309564,0,0,0,0,0,0,0,0.384403,-18.7721,-0.213304,13.4265,0.343014,1.6076,0.0907442,
0.460576,-0.0671972,0.409976,-2.54016,0.963598,0.69001,-0.0360824,-0.000579762,-0.464914,-0.00967465,0.0585128,0.231332,-0.225067,0.072941,-3.40703,-4.71017,-4.02179,5.06243,-6.184,-20.0946,5.25598,11.7642,-4.94899,12.4689,-27.8724,-2.82534,5.45845,0.068712,0.459855,-0.0481841,0.409627,-2.54154,0.955141,0.696392,-0.0389949,0.032814,-0.533332,0.259742,-0.28976,0.220905,0.288343,0.0309564,0,0,0,0,0,0,0,0.384403,-18.7721,-0.213304,13.4265,0.343014,1.6076,0.0907442,
0.46082,-0.0554984,0.410502,-2.542,0.958609,0.696705,-0.0382281,0.00689545,-0.463494,-0.00201274,0.0510088,0.228355,-0.19311,0.0693872,4.67201,0.887851,4.78869,-4.69004,-1.86094,19.9732,-2.22115,11.6727,-5.0799,12.6112,-29.1294,-2.7187,5.87226,0.0635805,0.46468,-0.0654667,0.413253,-2.55048,0.959506,0.703437,-0.0379547,0.00211673,-0.471546,0.284559,-0.238406,0.138296,0.256048,0.0239865,-3.83716,7.72323,3.10221,6.41921,-10.3261,-4.03676,-0.871241,3.68122,-20.2202,2.5876,17.5128,0.532528,1.16997,0.205185,
0.460865,-0.0592897,0.410465,-2.54146,0.960299,0.695126,-0.0376537,0.00663238,-0.465578,-0.00252875,0.0541415,0.224932,-0.193953,0.0698701,-0.164418,-1.30288,-0.322507,1.95794,-2.13912,-0.527091,0.301836,11.7156,-5.20239,12.6436,-28.5905,-2.81439,5.61846,0.06674,0.46468,-0.0654667,0.413253,-2.55048,0.959506,0.703437,-0.0379547,0.00211673,-0.471546,0.284559,-0.238406,0.138296,0.256048,0.0239865,0,0,0,0,0,0,0,3.68122,-20.2202,2.5876,17.5128,0.532528,1.16997,0.205185,
0.460761,-0.0631903,0.410268,-2.54077,0.961905,0.692784,-0.0369403,0.00270697,-0.469978,-0.00697079,0.0607183,0.220114,-0.213718,0.0737317,-2.45339,-2.74957,-2.77628,4.11049,-3.01094,-12.3531,2.41352,11.7357,-5.33832,12.6533,-28.06,-2.8258,5.38891,0.0690387,0.46468,-0.0654667,0.413253,-2.55048,0.959506,0.703437,-0.0379547,0.00211673,-0.471546,0.284559,-0.238406,0.138296,0.256048,0.0239865,0,0,0,0,0,0,0,3.68122,-20.2202,2.5876,17.5128,0.532528,1.16997,0.205185,
0.465686,-0.0723733,0.414152,-2.55088,0.961987,0.703595,-0.0372093,0.0104259,-0.463594,0.000682217,0.0519336,0.20877,-0.18402,0.0699861,4.82436,3.99012,4.78313,-5.49041,-7.09048,18.5613,-2.34103,11.7156,-5.20239,12.6436,-28.5905,-2.81439,5.61846,0.06674,0.46468,-0.0654667,0.413253,-2.55048,0.959506,0.703437,-0.0379547,0.00211673,-0.471546,0.284559,-0.238406,0.138296,0.256048,0.0239865,0,0,0,0,0,0,0,3.68122,-20.2202,2.5876,17.5128,0.532528,1.16997,0.205185,
0.465787,-0.0760369,0.414153,-2.55042,0.963349,0.702136,-0.0366229,0.0108665,-0.462463,0.000585423,0.0531054,0.201056,-0.183697,0.070649,0.275325,0.706344,-0.0604959,0.732389,-4.82084,0.201889,0.41431,11.7442,-5.78207,12.8831,-28.2167,-2.82604,5.30914,0.0693679,0.469034,-0.0833066,0.417693,-2.5592,0.961989,0.709342,-0.0365318,0.00571027,-0.465464,0.274072,-0.243999,0.0584143,0.212854,0.041429,0.449193,0.76033,-1.31097,-0.69918,-9.98523,-5.3993,2.18031,3.60584,-19.6727,2.26228,17.2867,0.868527,0.560232,0.272019,
0.465752,-0.0798194,0.414005,-2.54981,0.9647,0.699998,-0.0358872,0.00781503,-0.464532,-0.00324145,0.0578496,0.194636,-0.200424,0.0749124,-1.90715,-1.29316,-2.3918,2.9651,-4.01301,-10.4541,2.66464,11.7416,-5.92274,12.8707,-27.6913,-2.78507,5.10948,0.0719005,0.469034,-0.0833066,0.417693,-2.5592,0.961989,0.709342,-0.0365318,0.00571027,-0.465464,0.274072,-0.243999,0.0584143,0.212854,0.041429,0,0,0,0,0,0,0,3.60584,-19.6727,2.26228,17.2867,0.868527,0.560232,0.272019,
0.465645,-0.0836577,0.413776,-2.54914,0.966002,0.697406,-0.035004,0.00357805,-0.467583,-0.00832426,0.0629662,0.188241,-0.225124,0.0820087,-2.64811,-1.90685,-3.17675,3.1979,-3.99682,-15.4379,4.43521,11.7128,-6.06329,12.8323,-27.1705,-2.68925,4.93102,0.0736081,0.469034,-0.0833066,0.417693,-2.5592,0.961989,0.709342,-0.0365318,0.00571027,-0.465464,0.274072,-0.243999,0.0584143,0.212854,0.041429,0,0,0,0,0,0,0,3.60584,-19.6727,2.26228,17.2867,0.868527,0.560232,0.272019,
0.470069,-0.0900858,0.418602,-2.55979,0.96341,0.709256,-0.0354864,0.0118178,-0.459823,-6.28008e-07,0.0511322,0.171558,-0.194098,0.0803796,5.14983,4.85053,5.20227,-7.39625,-10.4264,19.3916,-1.01821,11.7442,-5.78207,12.8831,-28.2167,-2.82604,5.30914,0.0693679,0.469034,-0.0833066,0.417693,-2.5592,0.961989,0.709342,-0.0365318,0.00571027,-0.465464,0.274072,-0.243999,0.0584143,0.212854,0.041429,0,0,0,0,0,0,0,3.60584,-19.6727,2.26228,17.2867,0.868527,0.560232,0.272019,
0.470215,-0.0936566,0.418635,-2.55944,0.964404,0.707881,-0.0347498,0.0131169,-0.457128,0.000817724,0.049736,0.162087,-0.189649,0.0827196,0.811961,1.68423,0.51147,-0.872633,-5.91978,2.78027,1.46251,11.7301,-6.40682,13.0895,-27.7941,-2.78213,5.03564,0.0722085,0.473393,-0.101764,0.422555,-2.56748,0.963414,0.715655,-0.0352405,0.0399838,-0.543267,0.240059,-0.235574,0.0315499,0.137047,0.0475428,4.28419,-9.72543,-4.25155,1.05322,-3.35806,-9.47593,0.764229,1.88404,-19.7719,0.361952,16.9376,0.948178,1.21667,0.359909,
0.470236,-0.0973331,0.418527,-2.55893,0.965468,0.705912,-0.033866,0.0110213,-0.457615,-0.00203411,0.0524572,0.156267,-0.200949,0.0882705,-1.30977,-0.304721,-1.7824,1.70072,-3.63705,-7.06241,3.46931,11.7013,-6.54736,13.0512,-27.2733,-2.6863,4.85719,0.0739161,0.473393,-0.101764,0.422555,-2.56748,0.963414,0.715655,-0.0352405,0.0399838,-0.543267,0.240059,-0.235574,0.0315499,0.137047,0.0475428,0,0,0,0,0,0,0,1.88404,-19.7719,0.361952,16.9376,0.948178,1.21667,0.359909,
0.470191,-0.101058,0.418344,-2.55837,0.966546,0.703545,-0.032838,0.00768137,-0.459211,-0.00620011,0.0560501,0.151978,-0.219917,0.0963164,-2.08744,-0.997097,-2.60375,2.24557,-2.68096,-11.8547,5.02868,11.6484,-6.68259,12.9894,-26.7547,-2.55955,4.70285,0.0756179,0.473393,-0.101764,0.422555,-2.56748,0.963414,0.715655,-0.0352405,0.0399838,-0.543267,0.240059,-0.235574,0.0315499,0.137047,0.0475428,0,0,0,0,0,0,0,1.88404,-19.7719,0.361952,16.9376,0.948178,1.21667,0.359909,
0.474541,-0.10907,0.423527,-2.56794,0.96425,0.715049,-0.0340559,0.0168221,-0.45746,0.00289834,0.0466889,0.135276,-0.193682,0.0937236,5.71298,1.09444,5.68653,-5.85072,-10.4385,16.3967,-1.62051,11.7301,-6.40682,13.0895,-27.7941,-2.78213,5.03564,0.0722085,0.473393,-0.101764,0.422555,-2.56748,0.963414,0.715655,-0.0352405,0.0399838,-0.543267,0.240059,-0.235574,0.0315499,0.137047,0.0475428,0,0,0,0,0,0,0,1.88404,-19.7719,0.361952,16.9376,0.948178,1.21667,0.359909,
0.474774,-0.112696,0.423628,-2.5676,0.96498,0.713698,-0.0332336,0.0192887,-0.456625,0.00483896,0.0460518,0.126471,-0.188711,0.0955369,1.54163,0.521418,1.21289,-0.398221,-5.50327,3.10662,1.13335,11.7013,-6.54736,13.0512,-27.2733,-2.6863,4.85719,0.0739161,0.473393,-0.101764,0.422555,-2.56748,0.963414,0.715655,-0.0352405,0.0399838,-0.543267,0.240059,-0.235574,0.0315499,0.137047,0.0475428,0,0,0,0,0,0,0,1.88404,-19.7719,0.361952,16.9376,0.948178,1.21667,0.359909,
0.474893,-0.116348,0.423602,-2.56713,0.965817,0.711887,-0.0322572,0.0183877,-0.456595,0.00321256,0.0483781,0.122102,-0.196248,0.10084,-0.56314,0.0189788,-1.0165,1.45395,-2.73091,-4.71025,3.31415,11.6484,-6.68259,12.9894,-26.7547,-2.55955,4.70285,0.0756179,0.473393,-0.101764,0.422555,-2.56748,0.963414,0.715655,-0.0352405,0.0399838,-0.543267,0.240059,-0.235574,0.0315499,0.137047,0.0475428,0,0,0,0,0,0,0,1.88404,-19.7719,0.361952,16.9376,0.948178,1.21667,0.359909,
0.47495,-0.119993,0.423508,-2.56664,0.966713,0.709774,-0.0311368,0.0161358,-0.456417,0.00022726,0.0509695,0.12006,-0.20982,0.108681,-1.40744,0.110906,-1.86581,1.61962,-1.27595,-8.48286,4.90106,11.5708,-6.81024,12.9031,-26.2381,-2.40137,4.56641,0.0766073,0.473393,-0.101764,0.422555,-2.56748,0.963414,0.715655,-0.0352405,0.0399838,-0.543267,0.240059,-0.235574,0.0315499,0.137047,0.0475428,0,0,0,0,0,0,0,1.88404,-19.7719,0.361952,16.9376,0.948178,1.21667,0.359909,
0.474532,-0.109052,0.423523,-2.56792,0.964239,0.715034,-0.0340568,0.0234453,-0.454983,0.00796733,0.0429707,0.109604,-0.18585,0.103604,4.56842,0.896713,4.83754,-4.99923,-6.53512,14.9816,-3.17301,11.7013,-6.54736,13.0512,-27.2733,-2.6863,4.85719,0.0739161,0.473393,-0.101764,0.422555,-2.56748,0.963414,0.715655,-0.0352405,0.0399838,-0.543267,0.240059,-0.235574,0.0315499,0.137047,0.0475428,0,0,0,0,0,0,0,1.88404,-19.7719,0.361952,16.9376,0.948178,1.21667,0.359909,
0.474757,-0.112668,0.423619,-2.56756,0.964967,0.71367,-0.0332347,0.0243859,-0.454389,0.00876578,0.0433955,0.105878,-0.182784,0.103436,0.587865,0.37087,0.49903,0.265506,-2.32854,1.91589,-0.105572,11.6484,-6.68259,12.9894,-26.7547,-2.55955,4.70285,0.0756179,0.473393,-0.101764,0.422555,-2.56748,0.963414,0.715655,-0.0352405,0.0399838,-0.543267,0.240059,-0.235574,0.0315499,0.137047,0.0475428,0,0,0,0,0,0,0,1.88404,-19.7719,0.361952,16.9376,0.948178,1.21667,0.359909,
0.474866,-0.116309,0.423586,-2.56708,0.965806,0.711842,-0.0322583,0.0222147,-0.454538,0.00617879,0.0465346,0.105671,-0.191911,0.107158,-1.35701,-0.0928682,-1.61687,1.96195,-0.129667,-5.70448,2.3266,11.5708,-6.81024,12.9031,-26.2381,-2.40137,4.56641,0.0766073,0.473393,-0.101764,0.422555,-2.56748,0.963414,0.715655,-0.0352405,0.0399838,-0.543267,0.240059,-0.235574,0.0315499,0.137047,0.0475428,0,0,0,0,0,0,0,1.88404,-19.7719,0.361952,16.9376,0.948178,1.21667,0.359909,
0.474911,-0.119944,0.423483,-2.56658,0.966708,0.709711,-0.0311385,0.0189033,-0.454487,0.002384,0.0497423,0.107087,-0.206818,0.113723,-2.0696,0.0315771,-2.37174,2.00477,0.884943,-9.3166,4.10314,11.4713,-6.92776,12.7956,-25.722,-2.22856,4.44869,0.0774665,0.473393,-0.101764,0.422555,-2.56748,0.963414,0.715655,-0.0352405,0.0399838,-0.543267,0.240059,-0.235574,0.0315499,0.137047,0.0475428,0,0,0,0,0,0,0,1.88404,-19.7719,0.361952,16.9376,0.948178,1.21667,0.359909,
0.474521,-0.109035,0.423518,-2.5679,0.964237,0.71502,-0.0340574,0.0254863,-0.453197,0.00959093,0.0422675,0.0992213,-0.183684,0.107631,4.11438,0.806415,4.50433,-4.67174,-4.91587,14.4586,-3.80769,11.6484,-6.68259,12.9894,-26.7547,-2.55955,4.70285,0.0756179,0.473393,-0.101764,0.422555,-2.56748,0.963414,0.715655,-0.0352405,0.0399838,-0.543267,0.240059,-0.235574,0.0315499,0.137047,0.0475428,0,0,0,0,0,0,0,1.88404,-19.7719,0.361952,16.9376,0.948178,1.21667,0.359909,
0.474737,-0.112641,0.423607,-2.56753,0.964968,0.713643,-0.0332355,0.0257872,-0.452692,0.00990658,0.0431006,0.0976536,-0.181379,0.106653,0.18808,0.315735,0.197278,0.520731,-0.979833,1.44106,-0.610851,11.5708,-6.81024,12.9031,-26.2381,-2.40137,4.56641,0.0766073,0.473393,-0.101764,0.422555,-2.56748,0.963414,0.715655,-0.0352405,0.0399838,-0.543267,0.240059,-0.235574,0.0315499,0.137047,0.0475428,0,0,0,0,0,0,0,1.88404,-19.7719,0.361952,16.9376,0.948178,1.21667,0.359909,
0.474834,-0.11627,0.423566,-2.56704,0.965814,0.711799,-0.0322591,0.0230539,-0.45289,0.00688559,0.0465384,0.0992725,-0.191182,0.109733,-1.70835,-0.123714,-1.88812,2.14859,1.01184,-6.12709,1.9249,11.4713,-6.92776,12.7956,-25.722,-2.22856,4.44869,0.0774665,0.473393,-0.101764,0.422555,-2.56748,0.963414,0.715655,-0.0352405,0.0399838,-0.543267,0.240059,-0.235574,0.0315499,0.137047,0.0475428,0,0,0,0,0,0,0,1.88404,-19.7719,0.361952,16.9376,0.948178,1.21667,0.359909,
0.474867,-0.119892,0.423454,-2.56653,0.966727,0.70965,-0.0311397,0.0192557,-0.452856,0.00270678,0.0499701,0.102255,-0.206691,0.11577,-2.37387,0.0211985,-2.61176,2.14482,1.86381,-9.69351,3.77312,11.3508,-7.03459,12.6674,-25.2064,-2.04175,4.34556,0.0777816,0.473393,-0.101764,0.422555,-2.56748,0.963414,0.715655,-0.0352405,0.0399838,-0.543267,0.240059,-0.235574,0.0315499,0.137047,0.0475428,0,0,0,0,0,0,0,1.88404,-19.7719,0.361952,16.9376,0.948178,1.21667,0.359909,
0.474508,-0.109018,0.423511,-2.56788,0.964241,0.715006,-0.0340579,0.025571,-0.451643,0.00972366,0.0426855,0.0954493,-0.183813,0.109263,3.94707,0.758249,4.38555,-4.55286,-4.25334,14.299,-4.06679,11.5708,-6.81024,12.9031,-26.2381,-2.40137,4.56641,0.0766073,0.473393,-0.101764,0.422555,-2.56748,0.963414,0.715655,-0.0352405,0.0399838,-0.543267,0.240059,-0.235574,0.0315499,0.137047,0.0475428,0,0,0,0,0,0,0,1.88404,-19.7719,0.361952,16.9376,0.948178,1.21667,0.359909,
0.474714,-0.112612,0.423593,-2.5675,0.96498,0.713616,-0.033236,0.0255959,-0.451163,0.00982767,0.0436638,0.094827,-0.181802,0.107957,0.0155627,0.299571,0.0650115,0.611452,-0.388919,1.25692,-0.816376,11.4713,-6.92776,12.7956,-25.722,-2.22856,4.44869,0.0774665,0.473393,-0.101764,0.422555,-2.56748,0.963414,0.715655,-0.0352405,0.0399838,-0.543267,0.240059,-0.235574,0.0315499,0.137047,0.0475428,0,0,0,0,0,0,0,1.88404,-19.7719,0.361952,16.9376,0.948178,1.21667,0.359909,
0.474799,-0.116229,0.423542,-2.56701,0.965838,0.711757,-0.0322602,0.0225964,-0.451355,0.00659215,0.0472108,0.0973057,-0.191921,0.110761,-1.87466,-0.119826,-2.0222,2.21687,1.54922,-6.32469,1.75254,11.3508,-7.03459,12.6674,-25.2064,-2.04175,4.34556,0.0777816,0.473393,-0.101764,0.422555,-2.56748,0.963414,0.715655,-0.0352405,0.0399838,-0.543267,0.240059,-0.235574,0.0315499,0.137047,0.0475428,0,0,0,0,0,0,0,1.88404,-19.7719,0.361952,16.9376,0.948178,1.21667,0.359909,
0.474818,-0.119837,0.423419,-2.56649,0.966767,0.709588,-0.031142,0.0185515,-0.451291,0.00220815,0.0507237,0.101062,-0.207743,0.116564,-2.52806,0.0403012,-2.74,2.19555,2.3477,-9.88852,3.62692,11.2124,-7.12997,12.5218,-24.6906,-1.85181,4.25628,0.0778903,0.473393,-0.101764,0.422555,-2.56748,0.963414,0.715655,-0.0352405,0.0399838,-0.543267,0.240059,-0.235574,0.0315499,0.137047,0.0475428,0,0,0,0,0,0,0,1.88404,-19.7719,0.361952,16.9376,0.948178,1.21667,0.359909,
0.474494,-0.109001,0.423502,-2.56787,0.96425,0.714992,-0.0340582,0.0247901,-0.450133,0.00917973,0.0434931,0.0946594,-0.18488,0.109895,3.8991,0.723755,4.35723,-4.51914,-4.00165,14.2893,-4.16844,11.4713,-6.92776,12.7956,-25.722,-2.22856,4.44869,0.0774665,0.473393,-0.101764,0.422555,-2.56748,0.963414,0.715655,-0.0352405,0.0399838,-0.543267,0.240059,-0.235574,0.0315499,0.137047,0.0475428,0,0,0,0,0,0,0,1.88404,-19.7719,0.361952,16.9376,0.948178,1.21667,0.359909,
0.474689,-0.112582,0.423576,-2.56748,0.964999,0.713589,-0.0332364,0.0246936,-0.449652,0.00918782,0.04452,0.0944524,-0.182971,0.10846,-0.0603185,0.300254,0.00506066,0.641797,-0.129387,1.19324,-0.896564,11.3508,-7.03459,12.6674,-25.2064,-2.04175,4.34556,0.0777816,0.473393,-0.101764,0.422555,-2.56748,0.963414,0.715655,-0.0352405,0.0399838,-0.543267,0.240059,-0.235574,0.0315499,0.137047,0.0475428,0,0,0,0,0,0,0,1.88404,-19.7719,0.361952,16.9376,0.948178,1.21667,0.359909,
0.474761,-0.116186,0.423515,-2.56698,0.965872,0.711714,-0.0322613,0.0215524,-0.449813,0.00583073,0.0481062,0.0973635,-0.193255,0.111146,-1.96323,-0.100279,-2.09818,2.24141,1.81941,-6.4277,1.67872,11.2124,-7.12997,12.5218,-24.6906,-1.85181,4.25628,0.0778903,0.473393,-0.101764,0.422555,-2.56748,0.963414,0.715655,-0.0352405,0.0399838,-0.543267,0.240059,-0.235574,0.0315499,0.137047,0.0475428,0,0,0,0,0,0,0,1.88404,-19.7719,0.361952,16.9376,0.948178,1.21667,0.359909,
0.474766,-0.11978,0.423382,-2.56645,0.966817,0.709528,-0.0311444,0.0173646,-0.449695,0.00131928,0.0516558,0.101533,-0.209268,0.116841,-2.61739,0.0735955,-2.81966,2.21851,2.60615,-10.0082,3.5593,11.0576,-7.21429,12.3601,-24.1745,-1.66001,4.17834,0.0775734,0.473393,-0.101764,0.422555,-2.56748,0.963414,0.715655,-0.0352405,0.0399838,-0.543267,0.240059,-0.235574,0.0315499,0.137047,0.0475428,0,0,0,0,0,0,0,1.88404,-19.7719,0.361952,16.9376,0.948178,1.21667,0.359909,
0.474479,-0.108982,0.423493,-2.56785,0.964263,0.714979,-0.0340585,0.0236087,-0.448585,0.0083084,0.0444289,0.0952451,-0.186324,0.110113,3.9026,0.693556,4.3682,-4.51683,-3.93012,14.3405,-4.20541,11.3508,-7.03459,12.6674,-25.2064,-2.04175,4.34556,0.0777816,0.473393,-0.101764,0.422555,-2.56748,0.963414,0.715655,-0.0352405,0.0399838,-0.543267,0.240059,-0.235574,0.0315499,0.137047,0.0475428,0,0,0,0,0,0,0,1.88404,-19.7719,0.361952,16.9376,0.948178,1.21667,0.359909,
0.474662,-0.112551,0.423558,-2.56745,0.965024,0.713563,-0.0332369,0.0234557,-0.448093,0.00826962,0.0454686,0.0952233,-0.184439,0.108632,-0.0956516,0.307464,-0.0242341,0.649802,-0.0136119,1.1778,-0.925618,11.2124,-7.12997,12.5218,-24.6906,-1.85181,4.25628,0.0778903,0.473393,-0.101764,0.422555,-2.56748,0.963414,0.715655,-0.0352405,0.0399838,-0.543267,0.240059,-0.235574,0.0315499,0.137047,0.0475428,0,0,0,0,0,0,0,1.88404,-19.7719,0.361952,16.9376,0.948178,1.21667,0.359909,
0.47472,-0.116141,0.423486,-2.56695,0.965912,0.711672,-0.0322625,0.0202279,-0.44821,0.00483245,0.049076,0.0983687,-0.194827,0.111264,-2.01738,-0.0731376,-2.14823,2.25463,1.96583,-6.49241,1.64554,11.0576,-7.21429,12.3601,-24.1745,-1.66001,4.17834,0.0775734,0.473393,-0.101764,0.422555,-2.56748,0.963414,0.715655,-0.0352405,0.0399838,-0.543267,0.240059,-0.235574,0.0315499,0.137047,0.0475428,0,0,0,0,0,0,0,1.88404,-19.7719,0.361952,16.9376,0.948178,1.21667,0.359909,
0.474711,-0.119719,0.423341,-2.56641,0.966875,0.709467,-0.0311469,0.0159439,-0.44803,0.000229054,0.0526541,0.10278,-0.210984,0.116903,-2.67749,0.112992,-2.87712,2.2363,2.75724,-10.0981,3.52394,10.8892,-7.28783,12.1852,-23.6581,-1.4725,4.11001,0.0770268,0.473393,-0.101764,0.422555,-2.56748,0.963414,0.715655,-0.0352405,0.0399838,-0.543267,0.240059,-0.235574,0.0315499,0.137047,0.0475428,0,0,0,0,0,0,0,1.88404,-19.7719,0.361952,16.9376,0.948178,1.21667,0.359909,
