xiao-wang007/linearmpc_panda/paper_data/panda_inverse_dynamics_controller_opt_time_to_start/2/trajectory.csv
Commanded Joint 0 Position,Commanded Joint 1 Position,Commanded Joint 2 Position,Commanded Joint 3 Position,Commanded Joint 4 Position,Commanded Joint 5 Position,Commanded Joint 6 Position,Commanded Joint 0 Velocity,Commanded Joint 1 Velocity,Commanded Joint 2 Velocity,Commanded Joint 3 Velocity,Commanded Joint 4 Velocity,Commanded Joint 5 Velocity,Commanded Joint 6 Velocity,Commanded Joint 0 Acceleration,Commanded Joint 1 Acceleration,Commanded Joint 2 Acceleration,Commanded Joint 3 Acceleration,Commanded Joint 4 Acceleration,Commanded Joint 5 Acceleration,Commanded Joint 6 Acceleration,Commanded Joint 0 Torque,Commanded Joint 1 Torque,Commanded Joint 2 Torque,Commanded Joint 3 Torque,Commanded Joint 4 Torque,Commanded Joint 5 Torque,Commanded Joint 6 Torque,Actual Joint 0 Position,Actual Joint 1 Position,Actual Joint 2 Position,Actual Joint 3 Position,Actual Joint 4 Position,Actual Joint 5 Position,Actual Joint 6 Position,Actual Joint 0 Velocity,Actual Joint 1 Velocity,Actual Joint 2 Velocity,Actual Joint 3 Velocity,Actual Joint 4 Velocity,Actual Joint 5 Velocity,Actual Joint 6 Velocity,Actual Joint 0 Acceleration,Actual Joint 1 Acceleration,Actual Joint 2 Acceleration,Actual Joint 3 Acceleration,Actual Joint 4 Acceleration,Actual Joint 5 Acceleration,Actual Joint 6 Acceleration,Actual Joint 0 Torque,Actual Joint 1 Torque,Actual Joint 2 Torque,Actual Joint 3 Torque,Actual Joint 4 Torque,Actual Joint 5 Torque,Actual Joint 6 Torque,
0.0883679,-0.0845373,-0.0782367,-1.87166,0.0188253,0.28958,0.0497395,0.000226766,0.0198224,9.92298e-06,-0.0342315,-0.00550364,0.0519276,-0.000377435,0.141729,12.389,0.00620186,-21.3947,-3.43977,32.4548,-0.235897,0.0555866,21.9446,-0.0578461,-24.5481,-0.719453,1.76343,-0.0235997,0.0883452,-0.0850752,-0.0782408,-1.86893,0.0192317,0.28396,0.0497968,0.000520858,0.00266122,0.000108053,-0.00449633,-0.00534543,0.00232196,-6.98022e-05,0,0,0,0,0,0,0,0.106693,-32.6735,0.286573,27.4271,0.782467,3.27202,-0.0429228,
0.0883459,-0.0850176,-0.0782395,-1.86897,0.019175,0.283936,0.0497962,0.000175331,0.0162549,5.66172e-06,-0.027599,-0.00469198,0.0412984,-0.000305591,-0.0321464,-2.22971,-0.00266329,4.14531,0.507289,-6.64329,0.0449028,0.0498879,22.3852,-0.0681734,-24.4644,-0.719453,1.51265,-0.0220824,0.0883452,-0.0850752,-0.0782408,-1.86893,0.0192317,0.28396,0.0497968,0.000520858,0.00266122,0.000108053,-0.00449633,-0.00534543,0.00232196,-6.98022e-05,0,0,0,0,0,0,0,0.106693,-32.6735,0.286573,27.4271,0.782467,3.27202,-0.0429228,
0.0883456,-0.0850045,-0.0782397,-1.86898,0.0191672,0.283927,0.0497961,0.000130776,0.0133308,-1.9308e-06,-0.0222487,-0.00394805,0.0328273,-0.000246948,-0.0278474,-1.82756,-0.00474533,3.34394,0.464951,-5.29439,0.0366515,0.042712,22.9569,-0.0798931,-24.3564,-0.718639,1.16521,-0.0201116,0.0883452,-0.0850752,-0.0782408,-1.86893,0.0192317,0.28396,0.0497968,0.000520858,0.00266122,0.000108053,-0.00449633,-0.00534543,0.00232196,-6.98022e-05,0,0,0,0,0,0,0,0.106693,-32.6735,0.286573,27.4271,0.782467,3.27202,-0.0429228,
0.0883451,-0.0849936,-0.07824,-1.86898,0.0191619,0.28392,0.049796,9.4366e-05,0.0109361,-9.15805e-06,-0.0179346,-0.00329262,0.0260935,-0.000199351,-0.0227559,-1.49671,-0.00451703,2.69636,0.409643,-4.20864,0.0297483,0.0367922,23.4809,-0.0893062,-24.1885,-0.716302,0.780158,-0.0181093,0.0883452,-0.0850752,-0.0782408,-1.86893,0.0192317,0.28396,0.0497968,0.000520858,0.00266122,0.000108053,-0.00449633,-0.00534543,0.00232196,-6.98022e-05,0,0,0,0,0,0,0,0.106693,-32.6735,0.286573,27.4271,0.782467,3.27202,-0.0429228,
0.0880998,-0.0843326,-0.0784908,-1.86929,0.0271355,0.277151,0.049762,-0.000750573,0.0100762,-0.000859801,-0.015091,0.0474844,-0.0146037,-0.000209296,-0.528087,-0.53744,-0.531652,1.7772,31.7356,-25.4357,-0.00621567,0.457169,0.218212,0.4548,-0.281585,2.96371,-1.97121,-0.00214369,0.0883458,-0.0848054,-0.0782585,-1.86913,0.0192038,0.283316,0.0497984,6.38766e-05,0.02382,0.00105598,-0.0082882,-0.00726723,-0.0722878,0.000942904,-0.0571227,2.64484,0.118491,-0.473984,-0.240225,-9.32622,0.126588,0.360599,-26.2108,0.512709,19.1315,0.532528,1.77331,-0.0566557,
0.0880788,-0.0842893,-0.0785129,-1.86932,0.0291975,0.275706,0.0497606,-0.00112435,0.00914218,-0.00124187,-0.012803,0.0895385,-0.0478095,-0.000202595,-0.233608,-0.583731,-0.238792,1.43005,26.2838,-20.7537,0.00418837,0.45242,0.216106,0.450003,-0.278722,2.93728,-1.95384,-0.00210521,0.0883458,-0.0848054,-0.0782585,-1.86913,0.0192038,0.283316,0.0497984,6.38766e-05,0.02382,0.00105598,-0.0082882,-0.00726723,-0.0722878,0.000942904,0,0,0,0,0,0,0,0.360599,-26.2108,0.512709,19.1315,0.532528,1.77331,-0.0566557,
0.0880686,-0.084253,-0.0785242,-1.86934,0.0312896,0.27425,0.0497595,-0.00115356,0.00822206,-0.00127615,-0.0109565,0.123931,-0.0746418,-0.000190408,-0.018259,-0.575078,-0.0214242,1.15403,21.4954,-16.7702,0.00761677,0.447671,0.213918,0.445207,-0.275898,2.91074,-1.93645,-0.00206624,0.0883458,-0.0848054,-0.0782585,-1.86913,0.0192038,0.283316,0.0497984,6.38766e-05,0.02382,0.00105598,-0.0082882,-0.00726723,-0.0722878,0.000942904,0,0,0,0,0,0,0,0.360599,-26.2108,0.512709,19.1315,0.532528,1.77331,-0.0566557,
0.0880677,-0.0842216,-0.0785261,-1.86937,0.0333943,0.272794,0.0497585,-0.000946325,0.00736334,-0.00106907,-0.00946134,0.151764,-0.0961217,-0.000177948,0.129522,-0.536701,0.129427,0.93448,17.3956,-13.425,0.00778743,0.44292,0.211688,0.440407,-0.273101,2.88412,-1.91903,-0.00202827,0.0883458,-0.0848054,-0.0782585,-1.86913,0.0192038,0.283316,0.0497984,6.38766e-05,0.02382,0.00105598,-0.0082882,-0.00726723,-0.0722878,0.000942904,0,0,0,0,0,0,0,0.360599,-26.2108,0.512709,19.1315,0.532528,1.77331,-0.0566557,
0.0878244,-0.0843186,-0.07871,-1.86848,0.0473916,0.25775,0.049688,-0.00106152,0.00676048,-0.00111833,-0.00704206,0.295145,-0.237191,-0.000175119,-0.0719961,-0.376786,-0.0307917,1.51205,89.6133,-88.1685,0.00176826,3.59389,1.64716,3.67092,-1.7931,10.8992,-9.93051,-0.00729568,0.0884393,-0.0849845,-0.0779995,-1.86982,0.0203483,0.282119,0.0497958,-9.73809e-05,0.0415462,0.0297445,-0.018754,0.151045,-0.141605,-0.000531741,-0.0201572,2.21578,3.58606,-1.30823,19.7891,-8.6647,-0.184331,4.16523,-28.0556,4.2856,16.4893,1.37573,1.11046,0.0101778,
0.0878624,-0.0842837,-0.0786703,-1.8685,0.0544542,0.251123,0.0496873,9.90456e-05,0.00628045,9.92578e-05,-0.00617699,0.41268,-0.355435,-0.00015685,0.725353,-0.300017,0.760994,0.540672,73.4594,-73.9023,0.0114183,3.51106,1.62704,3.5865,-1.75268,10.6282,-9.77628,-0.00667282,0.0884393,-0.0849845,-0.0779995,-1.86982,0.0203483,0.282119,0.0497958,-9.73809e-05,0.0415462,0.0297445,-0.018754,0.151045,-0.141605,-0.000531741,0,0,0,0,0,0,0,4.16523,-28.0556,4.2856,16.4893,1.37573,1.11046,0.0101778,
0.087943,-0.0842416,-0.0785872,-1.86856,0.0615369,0.244383,0.0496863,0.00209571,0.00607882,0.00215531,-0.00629988,0.507212,-0.452853,-0.00015148,1.24792,-0.126018,1.28503,-0.076804,59.0821,-60.8861,0.00335602,3.43402,1.58438,3.50779,-1.72456,10.3318,-9.63118,-0.00513056,0.0884393,-0.0849845,-0.0779995,-1.86982,0.0203483,0.282119,0.0497958,-9.73809e-05,0.0415462,0.0297445,-0.018754,0.151045,-0.141605,-0.000531741,0,0,0,0,0,0,0,4.16523,-28.0556,4.2856,16.4893,1.37573,1.11046,0.0101778,
0.0880593,-0.0841888,-0.078468,-1.86864,0.0685774,0.237601,0.0496847,0.00458325,0.00618233,0.00470602,-0.00701029,0.581783,-0.531818,-0.000159491,1.55471,0.06469,1.59419,-0.444011,46.6068,-49.3533,-0.00500659,3.35306,1.51479,3.42742,-1.71919,10.0454,-9.48442,-0.0033716,0.0884393,-0.0849845,-0.0779995,-1.86982,0.0203483,0.282119,0.0497958,-9.73809e-05,0.0415462,0.0297445,-0.018754,0.151045,-0.141605,-0.000531741,0,0,0,0,0,0,0,4.16523,-28.0556,4.2856,16.4893,1.37573,1.11046,0.0101778,
0.0909884,-0.0855914,-0.0752082,-1.87159,0.0491712,0.244771,0.0500475,0.0210487,-0.00160517,0.0223845,-0.019406,0.648472,-0.66567,2.96135e-05,10.2909,-4.86718,11.0491,-7.74732,41.6806,-83.6574,0.11819,18.9321,2.20733,19.8674,-8.94276,10.8149,-14.3819,0.265337,0.0890037,-0.0844431,-0.0771117,-1.87105,0.0316494,0.272113,0.0498327,0.0463648,0.0594018,0.0819703,-0.0614165,0.747736,-0.676658,0.00383137,5.80777,2.23194,6.52823,-5.33282,74.5863,-66.8815,0.545389,12.3299,-22.5649,12.363,13.252,2.38922,-1.24336,0.050461,
0.0917419,-0.085854,-0.0744046,-1.87219,0.0568276,0.234682,0.0500551,0.0356767,-0.00785017,0.0379973,-0.0306021,0.710188,-0.784746,0.000212665,9.14249,-3.90313,9.75797,-6.99758,38.5728,-74.4225,0.114407,16.1556,-2.184,16.6404,-11.6097,10.8149,-14.3819,0.0668595,0.0890037,-0.0844431,-0.0771117,-1.87105,0.0316494,0.272113,0.0498327,0.0463648,0.0594018,0.0819703,-0.0614165,0.747736,-0.676658,0.00383137,0,0,0,0,0,0,0,12.3299,-22.5649,12.363,13.252,2.38922,-1.24336,0.050461,
0.0925388,-0.086109,-0.0735574,-1.87283,0.0647191,0.224261,0.0500645,0.0484627,-0.0126547,0.0515765,-0.0405291,0.765439,-0.888335,0.000404334,7.99126,-3.00285,8.48702,-6.20435,34.5317,-64.743,0.119793,14.8078,-1.43854,15.4609,-10.9131,10.8149,-14.3819,0.0191421,0.0890037,-0.0844431,-0.0771117,-1.87105,0.0316494,0.272113,0.0498327,0.0463648,0.0594018,0.0819703,-0.0614165,0.747736,-0.676658,0.00383137,0,0,0,0,0,0,0,12.3299,-22.5649,12.363,13.252,2.38922,-1.24336,0.050461,
0.0937403,-0.0831047,-0.0721867,-1.87503,0.0680469,0.227431,0.0499057,0.0663175,-0.00413578,0.0699264,-0.0556947,0.809679,-0.965318,0.000608664,11.1592,5.32434,11.4687,-9.47849,27.6502,-48.1148,0.127706,20.1204,5.88381,20.7184,-15.124,10.8149,-14.3819,0.0220598,0.0890037,-0.0844431,-0.0771117,-1.87105,0.0316494,0.272113,0.0498327,0.0463648,0.0594018,0.0819703,-0.0614165,0.747736,-0.676658,0.00383137,0,0,0,0,0,0,0,12.3299,-22.5649,12.363,13.252,2.38922,-1.24336,0.050461,
0.09487,-0.0828609,-0.0710106,-1.876,0.0761175,0.216959,0.0499177,0.0812967,0.00278705,0.0853436,-0.0687421,0.849509,-1.03406,0.000786808,9.36201,4.32677,9.6357,-8.15463,24.8935,-42.9629,0.11134,19.0907,5.50004,19.6974,-14.8164,10.8149,-14.3819,0.0140756,0.0890037,-0.0844431,-0.0771117,-1.87105,0.0316494,0.272113,0.0498327,0.0463648,0.0594018,0.0819703,-0.0614165,0.747736,-0.676658,0.00383137,0,0,0,0,0,0,0,12.3299,-22.5649,12.363,13.252,2.38922,-1.24336,0.050461,
0.0960142,-0.0826156,-0.0698193,-1.87703,0.0843243,0.206519,0.0499316,0.0936405,0.00836148,0.0980566,-0.0807005,0.884777,-1.08825,0.00097562,7.71491,3.48402,7.94564,-7.474,22.0424,-33.8705,0.118007,18.0596,5.85096,18.6778,-14.9107,10.6358,-14.1356,0.0132623,0.0913648,-0.0849396,-0.0748962,-1.87521,0.06696,0.234443,0.0498754,0.173091,-0.0122888,0.173921,-0.229049,1.3225,-1.44975,0.000475071,15.8407,-8.96132,11.4939,-20.954,71.8457,-96.6366,-0.419537,22.1688,-24.1121,22.4835,14.4461,4.87487,-4.42573,-0.0163725,
0.097164,-0.0823664,-0.0686223,-1.87814,0.0926325,0.196496,0.0499474,0.103658,0.0129201,0.108371,-0.0922735,0.915526,-1.12117,0.0011765,6.26076,2.84916,6.44676,-7.23314,19.2184,-20.5714,0.125548,17.2737,5.46411,17.8865,-14.6507,10.6358,-14.1356,0.0129053,0.0913648,-0.0849396,-0.0748962,-1.87521,0.06696,0.234443,0.0498754,0.173091,-0.0122888,0.173921,-0.229049,1.3225,-1.44975,0.000475071,0,0,0,0,0,0,0,22.1688,-24.1121,22.4835,14.4461,4.87487,-4.42573,-0.0163725,
0.0992605,-0.0845331,-0.0668054,-1.88379,0.112042,0.177868,0.0498493,0.122318,0.012939,0.127261,-0.116829,0.950008,-1.17283,0.000684471,11.6629,0.0117719,11.8061,-15.3469,21.5512,-32.2907,-0.307516,22.0026,3.29229,22.6102,-22.5572,10.6358,-14.1356,-0.0128094,0.0913648,-0.0849396,-0.0748962,-1.87521,0.06696,0.234443,0.0498754,0.173091,-0.0122888,0.173921,-0.229049,1.3225,-1.44975,0.000475071,0,0,0,0,0,0,0,22.1688,-24.1121,22.4835,14.4461,4.87487,-4.42573,-0.0163725,
0.100811,-0.0844432,-0.0652078,-1.88558,0.120712,0.167518,0.0498436,0.13662,0.0125996,0.141749,-0.138149,0.976745,-1.19701,0.000406031,8.93837,-0.212107,9.05496,-13.3251,16.7103,-15.1147,-0.174025,20.8934,2.76991,21.4718,-22.1729,10.6358,-14.1356,-0.017348,0.0913648,-0.0849396,-0.0748962,-1.87521,0.06696,0.234443,0.0498754,0.173091,-0.0122888,0.173921,-0.229049,1.3225,-1.44975,0.000475071,0,0,0,0,0,0,0,22.1688,-24.1121,22.4835,14.4461,4.87487,-4.42573,-0.0163725,
0.102335,-0.0843597,-0.0636378,-1.88742,0.129352,0.158062,0.0498439,0.147381,0.0121675,0.152649,-0.156453,0.997392,-1.19403,0.000332125,6.72583,-0.270071,6.81271,-11.44,12.9048,1.86296,-0.0461913,20.1352,2.24124,20.7254,-21.5657,10.5703,-13.7479,-0.0203546,0.0984922,-0.0866237,-0.0669259,-1.8863,0.10928,0.180309,0.0498794,0.190837,0.0977341,0.231551,-0.413918,1.20956,-1.39854,0.000624314,2.21831,13.7529,7.20371,-23.1087,-14.1175,6.4011,0.0186553,17.1978,-22.914,17.3618,22.4203,3.85498,-0.249094,-0.0630644,
0.103829,-0.0842777,-0.0620972,-1.88928,0.137961,0.149586,0.0498489,0.15527,0.0117837,0.160636,-0.171712,1.01314,-1.16711,0.000391746,4.93051,-0.239874,4.99148,-9.53683,9.84186,16.8304,0.0372635,19.2992,1.76025,19.8743,-21.2171,10.5703,-13.7479,-0.0186063,0.0984922,-0.0866237,-0.0669259,-1.8863,0.10928,0.180309,0.0498794,0.190837,0.0977341,0.231551,-0.413918,1.20956,-1.39854,0.000624314,0,0,0,0,0,0,0,17.1978,-22.914,17.3618,22.4203,3.85498,-0.249094,-0.0630644,
0.106802,-0.0834812,-0.0582914,-1.89949,0.153025,0.131708,0.0497389,0.164564,0.0212639,0.170495,-0.201705,1.02423,-1.11772,-4.21617e-05,5.8091,5.92511,6.16196,-18.7459,6.92994,30.8662,-0.271193,20.5505,3.00815,21.3938,-27.568,10.5703,-13.7479,-0.0603495,0.0984922,-0.0866237,-0.0669259,-1.8863,0.10928,0.180309,0.0498794,0.190837,0.0977341,0.231551,-0.413918,1.20956,-1.39854,0.000624314,0,0,0,0,0,0,0,17.1978,-22.914,17.3618,22.4203,3.85498,-0.249094,-0.0630644,
0.108382,-0.0830534,-0.0566462,-1.90201,0.161531,0.125601,0.0497325,0.171161,0.0277073,0.177526,-0.22447,1.03202,-1.04686,-0.000194562,4.12287,4.02716,4.39418,-14.2279,4.87316,44.287,-0.09525,19.7428,2.65446,20.5552,-27.1212,10.5703,-11.2952,-0.0505846,0.0984922,-0.0866237,-0.0669259,-1.8863,0.10928,0.180309,0.0498794,0.190837,0.0977341,0.231551,-0.413918,1.20956,-1.39854,0.000624314,0,0,0,0,0,0,0,17.1978,-22.914,17.3618,22.4203,3.85498,-0.249094,-0.0630644,
0.109928,-0.0826624,-0.0550371,-1.90448,0.17,0.120673,0.0497355,0.175558,0.0319392,0.182248,-0.241184,1.03735,-0.960682,-8.13103e-05,2.74803,2.64491,2.95126,-10.4466,3.32729,53.8611,0.0707821,19.3464,1.73384,20.1816,-25.9799,10.6141,-8.63868,-0.0425648,0.106866,-0.0867361,-0.0559965,-1.90098,0.147253,0.138667,0.0498848,0.28933,0.0113044,0.389628,-0.447845,0.949799,-1.02247,-0.00282993,12.3116,-10.8037,19.7596,-4.24092,-32.4703,47.0091,-0.431781,2.92347,-31.9753,3.0121,36.4685,2.12646,4.49883,-0.0163725,
0.111436,-0.0823022,-0.0534655,-1.90687,0.178437,0.116831,0.0497455,0.178158,0.0345572,0.18509,-0.252897,1.0408,-0.864601,0.000187123,1.62499,1.63624,1.77639,-7.32049,2.15688,60.0506,0.167771,18.6999,1.45612,19.5114,-25.6137,10.6141,-6.68872,-0.0325877,0.106866,-0.0867361,-0.0559965,-1.90098,0.147253,0.138667,0.0498848,0.28933,0.0113044,0.389628,-0.447845,0.949799,-1.02247,-0.00282993,0,0,0,0,0,0,0,2.92347,-31.9753,3.0121,36.4685,2.12646,4.49883,-0.0163725,
0.117038,-0.0861054,-0.0454547,-1.91684,0.190572,0.120526,0.0497082,0.18675,0.0301337,0.193748,-0.276096,1.0515,-0.717894,-3.41322e-06,5.36986,-2.76466,5.4111,-14.4992,6.68673,91.6924,-0.119085,19.0717,-3.32206,19.7165,-32.6843,10.6141,-2.27461,-0.0588633,0.106866,-0.0867361,-0.0559965,-1.90098,0.147253,0.138667,0.0498848,0.28933,0.0113044,0.389628,-0.447845,0.949799,-1.02247,-0.00282993,0,0,0,0,0,0,0,2.92347,-31.9753,3.0121,36.4685,2.12646,4.49883,-0.0163725,
0.11872,-0.086022,-0.0437185,-1.91969,0.19926,0.120446,0.0497147,0.191441,0.026193,0.198403,-0.29212,1.05841,-0.576309,0.000159195,2.93187,-2.46296,2.90934,-10.0153,4.32061,88.4906,0.10163,18.479,-3.02921,19.0928,-32.1471,10.6141,-0.689124,-0.0450029,0.106866,-0.0867361,-0.0559965,-1.90098,0.147253,0.138667,0.0498848,0.28933,0.0113044,0.389628,-0.447845,0.949799,-1.02247,-0.00282993,0,0,0,0,0,0,0,2.92347,-31.9753,3.0121,36.4685,2.12646,4.49883,-0.0163725,
0.120325,-0.085953,-0.042061,-1.92244,0.207878,0.121186,0.0497315,0.193289,0.0226785,0.20016,-0.302541,1.06216,-0.442539,0.00054862,1.15541,-2.19654,1.09854,-6.51271,2.34573,83.6062,0.24339,17.7849,-3.53065,18.412,-31.1303,10.4144,0.676962,-0.0313404,0.114392,-0.0844079,-0.0439497,-1.91499,0.168524,0.119883,0.0499327,0.173083,0.11965,0.312015,-0.462232,0.47054,-0.0102135,0.00798419,-14.5308,13.5432,-9.70158,-1.7983,-59.9074,126.532,1.35177,-13.8423,-29.5552,-14.3368,38.3133,1.74194,6.76568,-0.0365141,
0.121791,-0.0817436,-0.0362232,-1.92995,0.202787,0.125197,0.0499811,0.188295,0.0258674,0.19502,-0.309928,1.04343,-0.302663,0.00132962,-3.12148,1.99304,-3.21285,-4.61684,-11.7078,87.4221,0.488126,16.8798,-2.9303,17.4507,-30.1393,10.4144,2.61975,-0.0017079,0.114392,-0.0844079,-0.0439497,-1.91499,0.168524,0.119883,0.0499327,0.173083,0.11965,0.312015,-0.462232,0.47054,-0.0102135,0.00798419,0,0,0,0,0,0,0,-13.8423,-29.5552,-14.3368,38.3133,1.74194,6.76568,-0.0365141,
0.1231,-0.0814992,-0.0348685,-1.93256,0.210691,0.127664,0.0500288,0.183342,0.0268048,0.189881,-0.313229,1.03234,-0.180461,0.00225446,-3.09528,0.585918,-3.21172,-2.06314,-6.93465,76.3763,0.578023,16.4641,-2.64219,17.0084,-29.67,10.4144,3.32263,0.0132932,0.114392,-0.0844079,-0.0439497,-1.91499,0.168524,0.119883,0.0499327,0.173083,0.11965,0.312015,-0.462232,0.47054,-0.0102135,0.00798419,0,0,0,0,0,0,0,-13.8423,-29.5552,-14.3368,38.3133,1.74194,6.76568,-0.0365141,
0.124372,-0.0813035,-0.0335532,-1.93508,0.218697,0.130474,0.0500819,0.178477,0.0263344,0.18479,-0.313543,1.02603,-0.0741117,0.00313096,-3.04108,-0.294024,-3.18212,-0.196171,-3.9443,66.4684,0.547811,16.0405,-2.35687,16.5632,-29.2173,10.4144,3.87094,0.025919,0.114392,-0.0844079,-0.0439497,-1.91499,0.168524,0.119883,0.0499327,0.173083,0.11965,0.312015,-0.462232,0.47054,-0.0102135,0.00798419,0,0,0,0,0,0,0,-13.8423,-29.5552,-14.3368,38.3133,1.74194,6.76568,-0.0365141,
0.125606,-0.0811427,-0.0322755,-1.93751,0.226772,0.133556,0.050136,0.173648,0.0250889,0.179774,-0.311651,1.02268,0.0177743,0.00385787,-3.01797,-0.778408,-3.1347,1.18222,-2.08981,57.4287,0.454319,15.5492,-2.21526,16.0934,-28.777,10.2897,4.24264,0.0367743,0.120643,-0.0817712,-0.0318397,-1.92727,0.185607,0.133216,0.050077,0.12571,0.144712,0.236082,-0.273015,0.443232,0.681978,0.0153096,-5.9217,3.13281,-9.49172,23.6521,-3.41352,86.5239,0.915681,-21.1183,-42.5838,-20.7599,45.5099,-2.54547,11.7782,-0.0566557,
0.12638,-0.0797757,-0.0258222,-1.93934,0.218796,0.154851,0.0502859,0.166298,0.024924,0.172267,-0.306703,1.00039,0.112716,0.00449264,-4.59359,-0.103098,-4.692,3.09275,-13.9332,59.3387,0.396735,15.1507,-1.92979,15.6777,-28.3333,10.2897,4.57403,0.0495371,0.120643,-0.0817712,-0.0318397,-1.92727,0.185607,0.133216,0.050077,0.12571,0.144712,0.236082,-0.273015,0.443232,0.681978,0.0153096,0,0,0,0,0,0,0,-21.1183,-42.5838,-20.7599,45.5099,-2.54547,11.7782,-0.0566557,
0.127489,-0.0796267,-0.0246731,-1.94155,0.225611,0.158726,0.0503452,0.160776,0.0236642,0.16654,-0.300681,0.970689,0.187062,0.00507598,-3.45154,-0.787378,-3.57937,3.76344,-18.5618,46.4662,0.364583,14.7297,-1.66341,15.2351,-27.9098,10.2897,4.82247,0.0637607,0.120643,-0.0817712,-0.0318397,-1.92727,0.185607,0.133216,0.050077,0.12571,0.144712,0.236082,-0.273015,0.443232,0.681978,0.0153096,0,0,0,0,0,0,0,-21.1183,-42.5838,-20.7599,45.5099,-2.54547,11.7782,-0.0566557,
0.128613,-0.0795115,-0.0235113,-1.94369,0.23177,0.162555,0.0504041,0.156717,0.0218116,0.162278,-0.29398,0.930522,0.245374,0.00553274,-2.53699,-1.15788,-2.66373,4.18805,-25.1045,36.4449,0.285474,14.2383,-1.40241,14.7077,-27.5131,10.2897,4.98371,0.070208,0.120643,-0.0817712,-0.0318397,-1.92727,0.185607,0.133216,0.050077,0.12571,0.144712,0.236082,-0.273015,0.443232,0.681978,0.0153096,0,0,0,0,0,0,0,-21.1183,-42.5838,-20.7599,45.5099,-2.54547,11.7782,-0.0566557,
0.129747,-0.0794215,-0.0223401,-1.94576,0.237193,0.166342,0.0504633,0.153725,0.0196992,0.159103,-0.286945,0.880002,0.29096,0.00590648,-1.86965,-1.32023,-1.98457,4.39692,-31.5752,28.4911,0.233592,13.7233,-0.603374,14.2093,-27.54,10.2033,4.89747,0.0738015,0.123711,-0.0775011,-0.024714,-1.93262,0.201223,0.168728,0.0503276,0.082315,0.00584892,0.173566,-0.129913,0.247511,1.3191,0.0137385,-5.42436,-17.3579,-7.81451,17.8877,-24.4652,79.6399,-0.196398,-16.429,-36.9661,-16.9116,32.8067,1.12487,5.7055,0.017502,
0.128076,-0.078401,-0.0201094,-1.94087,0.223509,0.202326,0.0505673,0.146214,0.0116487,0.151373,-0.272868,0.80678,0.361119,0.00619703,-4.69437,-5.03158,-4.83124,8.79802,-45.7639,43.8492,0.181594,13.2433,-0.272443,13.7684,-27.096,9.01078,4.93898,0.0733229,0.123711,-0.0775011,-0.024714,-1.93262,0.201223,0.168728,0.0503276,0.082315,0.00584892,0.173566,-0.129913,0.247511,1.3191,0.0137385,0,0,0,0,0,0,0,-16.429,-36.9661,-16.9116,32.8067,1.12487,5.7055,0.017502,
0.129038,-0.0785416,-0.0191143,-1.94261,0.227079,0.207032,0.0506288,0.141023,0.00580446,0.145977,-0.261815,0.73467,0.406567,0.0064971,-3.24452,-3.65264,-3.37194,6.90815,-45.0684,28.4052,0.187542,12.8464,0.0399276,13.3813,-26.6382,7.51404,4.92011,0.072153,0.123711,-0.0775011,-0.024714,-1.93262,0.201223,0.168728,0.0503276,0.082315,0.00584892,0.173566,-0.129913,0.247511,1.3191,0.0137385,0,0,0,0,0,0,0,-16.429,-36.9661,-16.9116,32.8067,1.12487,5.7055,0.017502,
0.130026,-0.0786583,-0.018094,-1.94435,0.230094,0.211405,0.050692,0.137511,0.00172473,0.142289,-0.253043,0.663109,0.434557,0.00677644,-2.19528,-2.54984,-2.30531,5.48243,-44.726,17.494,0.174585,12.5423,0.307824,13.0715,-26.1831,6.24392,4.86351,0.0695754,0.123711,-0.0775011,-0.024714,-1.93262,0.201223,0.168728,0.0503276,0.082315,0.00584892,0.173566,-0.129913,0.247511,1.3191,0.0137385,0,0,0,0,0,0,0,-16.429,-36.9661,-16.9116,32.8067,1.12487,5.7055,0.017502,
0.12832,-0.0782725,-0.0199017,-1.94003,0.212844,0.20115,0.0505979,0.133642,-0.00243791,0.13825,-0.242129,0.575039,0.468952,0.00702699,-2.41801,-2.60165,-2.52428,6.82124,-55.0436,21.4966,0.156594,12.1149,1.08844,12.6267,-25.6277,4.12698,4.46382,0.0721407,0.125561,-0.0747877,-0.0186061,-1.93455,0.203196,0.216559,0.0504027,0.0508505,-0.0305394,0.103927,-0.102847,-0.0811012,1.44381,0.000267273,-3.93306,-4.54854,-8.70478,3.38325,-41.0765,15.5891,-1.6839,-14.6278,-40.3859,-14.2853,38.4125,0.141598,5.02251,-0.0026396,
0.12928,-0.0784048,-0.0189107,-1.94164,0.214259,0.205556,0.0506651,0.130923,-0.00525771,0.135373,-0.233934,0.495391,0.485326,0.0073023,-1.69948,-1.76238,-1.79807,5.1218,-49.78,10.2339,0.172071,12.0281,1.19617,12.5248,-25.1955,3.25501,4.36353,0.0740795,0.125561,-0.0747877,-0.0186061,-1.93455,0.203196,0.216559,0.0504027,0.0508505,-0.0305394,0.103927,-0.102847,-0.0811012,1.44381,0.000267273,0,0,0,0,0,0,0,-14.6278,-40.3859,-14.2853,38.4125,0.141598,5.02251,-0.0026396,
0.130252,-0.0785158,-0.0179093,-1.94326,0.215331,0.209612,0.0507341,0.129022,-0.00698126,0.133335,-0.227709,0.423117,0.489668,0.00756662,-1.18769,-1.07722,-1.27407,3.89068,-45.171,2.71391,0.165201,11.9755,1.2602,12.4554,-24.7743,2.5153,4.26059,0.0756448,0.125561,-0.0747877,-0.0186061,-1.93455,0.203196,0.216559,0.0504027,0.0508505,-0.0305394,0.103927,-0.102847,-0.0811012,1.44381,0.000267273,0,0,0,0,0,0,0,-14.6278,-40.3859,-14.2853,38.4125,0.141598,5.02251,-0.0026396,
0.13123,-0.0786064,-0.0169012,-1.94489,0.216094,0.213386,0.050805,0.127675,-0.00785044,0.131869,-0.222884,0.357579,0.486063,0.00782471,-0.842058,-0.543238,-0.91605,3.01567,-40.9616,-2.25357,0.161304,11.9438,1.28686,12.4079,-24.3614,1.86578,4.1526,0.0785923,0.125561,-0.0747877,-0.0186061,-1.93455,0.203196,0.216559,0.0504027,0.0508505,-0.0305394,0.103927,-0.102847,-0.0811012,1.44381,0.000267273,0,0,0,0,0,0,0,-14.6278,-40.3859,-14.2853,38.4125,0.141598,5.02251,-0.0026396,
0.129017,-0.0762187,-0.0149937,-1.94072,0.203948,0.24979,0.0507224,0.121652,-0.0121956,0.125655,-0.213308,0.288585,0.507164,0.00807609,-3.76453,-2.71571,-3.8839,5.98493,-43.1211,13.1885,0.157114,11.9204,1.28423,12.3681,-23.9578,1.32833,4.04543,0.0807796,0.125561,-0.0747877,-0.0186061,-1.93455,0.203196,0.216559,0.0504027,0.0508505,-0.0305394,0.103927,-0.102847,-0.0811012,1.44381,0.000267273,0,0,0,0,0,0,0,-14.6278,-40.3859,-14.2853,38.4125,0.141598,5.02251,-0.0026396,
0.129831,-0.0764186,-0.0141534,-1.94216,0.203936,0.253998,0.0507967,0.117687,-0.0147554,0.121532,-0.206724,0.230562,0.510928,0.00831875,-2.47773,-1.59991,-2.57684,4.11501,-36.2644,2.35246,0.151664,11.794,1.30661,12.2285,-23.6982,0.889201,3.71191,0.0852594,0.125926,-0.0750839,-0.0153667,-1.93636,0.195041,0.260327,0.0503873,0.0209391,-0.0419885,0.104908,-0.0475118,-0.41699,1.10002,-0.000896169,-3.73892,-1.43114,0.122621,6.91694,-41.9861,-42.9732,-0.14543,0.816837,-31.1778,0.663466,22.3212,0.843807,1.05096,-0.0365141,
0.130672,-0.0765836,-0.0132867,-1.94363,0.203819,0.257795,0.0508717,0.115175,-0.0159282,0.118892,-0.202212,0.181512,0.503667,0.00852885,-1.57012,-0.733009,-1.64987,2.82004,-30.6563,-4.53803,0.131311,11.7662,1.26384,12.1851,-23.3079,0.517398,3.60545,0.0873184,0.125926,-0.0750839,-0.0153667,-1.93636,0.195041,0.260327,0.0503873,0.0209391,-0.0419885,0.104908,-0.0475118,-0.41699,1.10002,-0.000896169,0,0,0,0,0,0,0,0.816837,-31.1778,0.663466,22.3212,0.843807,1.05096,-0.0365141,
0.131533,-0.0767167,-0.0124007,-1.94513,0.203609,0.261263,0.0509472,0.113648,-0.0160698,0.117264,-0.199089,0.139972,0.489641,0.00871038,-0.954199,-0.0884504,-1.01771,1.95181,-25.9622,-8.76638,0.113454,11.7296,1.2087,12.134,-22.922,0.204398,3.49842,0.0898191,0.125926,-0.0750839,-0.0153667,-1.93636,0.195041,0.260327,0.0503873,0.0209391,-0.0419885,0.104908,-0.0475118,-0.41699,1.10002,-0.000896169,0,0,0,0,0,0,0,0.816837,-31.1778,0.663466,22.3212,0.843807,1.05096,-0.0365141,
0.128893,-0.0768796,-0.0122556,-1.94215,0.189071,0.287889,0.0507214,0.108305,-0.0192914,0.111761,-0.192591,0.0946606,0.492044,0.00885455,-3.33974,-2.0135,-3.43912,4.06152,-28.3198,1.50191,0.0901088,11.6808,1.14593,12.0707,-22.5409,-0.0375299,3.39616,0.0914099,0.125926,-0.0750839,-0.0153667,-1.93636,0.195041,0.260327,0.0503873,0.0209391,-0.0419885,0.104908,-0.0475118,-0.41699,1.10002,-0.000896169,0,0,0,0,0,0,0,0.816837,-31.1778,0.663466,22.3212,0.843807,1.05096,-0.0365141,
0.129627,-0.0770897,-0.0114991,-1.94352,0.188449,0.291466,0.0507974,0.104995,-0.0206869,0.108321,-0.188347,0.0601861,0.483057,0.00898499,-2.06852,-0.872188,-2.1501,2.65255,-21.5465,-5.61691,0.081527,11.6423,0.986917,12.0225,-22.1828,-0.137358,3.15174,0.0933268,0.12667,-0.0768649,-0.0119976,-1.941,0.17818,0.291249,0.0504024,0.0249151,-0.154538,0.102117,-0.168838,-0.498735,0.83453,0.0021454,0.497,-14.0687,-0.348978,-15.1658,-10.2182,-33.1868,0.380197,2.18555,-28.4563,2.11152,23.2416,0.679012,1.98571,-0.143631,
0.130391,-0.0772585,-0.0107126,-1.94492,0.187877,0.294696,0.0508732,0.103098,-0.0207694,0.106321,-0.185599,0.033847,0.467198,0.00908277,-1.18582,-0.0515565,-1.25001,1.71738,-16.4619,-9.91195,0.0611066,11.5665,0.917756,11.9333,-21.8077,-0.281417,3.05598,0.0942704,0.12667,-0.0768649,-0.0119976,-1.941,0.17818,0.291249,0.0504024,0.0249151,-0.154538,0.102117,-0.168838,-0.498735,0.83453,0.0021454,0,0,0,0,0,0,0,2.18555,-28.4563,2.11152,23.2416,0.679012,1.98571,-0.143631,
0.12961,-0.0794665,-0.00892788,-1.94692,0.170474,0.311849,0.0507478,0.0993519,-0.0240091,0.102444,-0.1804,0.00684082,0.453573,0.00911273,-2.34125,-2.02481,-2.42291,3.24961,-16.8789,-8.51579,0.0187254,11.3743,0.78127,11.7165,-21.0629,-0.46649,2.87397,0.0955707,0.12667,-0.0768649,-0.0119976,-1.941,0.17818,0.291249,0.0504024,0.0249151,-0.154538,0.102117,-0.168838,-0.498735,0.83453,0.0021454,0,0,0,0,0,0,0,2.18555,-28.4563,2.11152,23.2416,0.679012,1.98571,-0.143631,
0.130317,-0.0796984,-0.00820051,-1.94823,0.169812,0.314749,0.0508213,0.0971535,-0.0250043,0.10014,-0.176949,-0.0110904,0.43537,0.00912944,-1.37397,-0.62206,-1.44047,2.15659,-11.207,-11.3765,0.0104485,11.2591,0.716585,11.5899,-20.6926,-0.517405,2.78824,0.0958578,0.12667,-0.0768649,-0.0119976,-1.941,0.17818,0.291249,0.0504024,0.0249151,-0.154538,0.102117,-0.168838,-0.498735,0.83453,0.0021454,0,0,0,0,0,0,0,2.18555,-28.4563,2.11152,23.2416,0.679012,1.98571,-0.143631,
0.131048,-0.0798793,-0.00744883,-1.94955,0.16926,0.317407,0.0508939,0.0960002,-0.0245252,0.0989037,-0.174641,-0.0226671,0.414735,0.00911821,-0.720829,0.299481,-0.772407,1.44247,-7.23546,-12.8974,-0.00702088,11.2104,0.489743,11.5336,-20.2665,-0.43057,2.64221,0.0949211,0.127202,-0.0788784,-0.0090236,-1.94711,0.163224,0.311111,0.0503863,0.0163649,-0.0999315,0.109005,-0.111045,-0.363365,0.455148,-0.000978248,-1.06878,6.82579,0.861019,7.22413,16.9212,-47.4227,-0.390456,8.98151,-30.0551,8.26082,23.0154,1.32629,1.54809,-0.0429228,
0.131796,-0.0800192,-0.00667974,-1.95088,0.168797,0.31986,0.0509653,0.0955095,-0.0231181,0.0983503,-0.173032,-0.0297136,0.39312,0.00907885,-0.306665,0.879434,-0.345864,1.00565,-4.40408,-13.5094,-0.0245987,11.0731,0.432618,11.3858,-19.8981,-0.439669,2.56471,0.0945524,0.127202,-0.0788784,-0.0090236,-1.94711,0.163224,0.311111,0.0503863,0.0163649,-0.0999315,0.109005,-0.111045,-0.363365,0.455148,-0.000978248,0,0,0,0,0,0,0,8.98151,-30.0551,8.26082,23.0154,1.32629,1.54809,-0.0429228,
0.13024,-0.0808891,-0.00587201,-1.95305,0.157586,0.325858,0.0507274,0.0933798,-0.0240488,0.0961311,-0.169908,-0.0381385,0.376664,0.0090084,-1.33108,-0.581667,-1.38701,1.95232,-5.26553,-10.2849,-0.04403,10.9262,0.379901,11.2287,-19.5305,-0.430339,2.49241,0.0936948,0.127202,-0.0788784,-0.0090236,-1.94711,0.163224,0.311111,0.0503863,0.0163649,-0.0999315,0.109005,-0.111045,-0.363365,0.455148,-0.000978248,0,0,0,0,0,0,0,8.98151,-30.0551,8.26082,23.0154,1.32629,1.54809,-0.0429228,
0.13094,-0.0810597,-0.00515251,-1.95432,0.157142,0.328165,0.0507958,0.0922096,-0.0235029,0.0948923,-0.167682,-0.041608,0.358996,0.00891882,-0.731353,0.341165,-0.774236,1.39166,-2.16846,-11.0422,-0.0559888,10.7711,0.331411,11.064,-19.1635,-0.412272,2.42252,0.0927526,0.127202,-0.0788784,-0.0090236,-1.94711,0.163224,0.311111,0.0503863,0.0163649,-0.0999315,0.109005,-0.111045,-0.363365,0.455148,-0.000978248,0,0,0,0,0,0,0,8.98151,-30.0551,8.26082,23.0154,1.32629,1.54809,-0.0429228,
0.131655,-0.08119,-0.0044181,-1.95559,0.156802,0.330314,0.0508626,0.0916426,-0.0220592,0.0942741,-0.165992,-0.0417835,0.340938,0.00880454,-0.354409,0.902296,-0.386362,1.05614,-0.109694,-11.2863,-0.0714274,10.6643,0.203797,10.9539,-18.7536,-0.310526,2.34034,0.0910763,0.12844,-0.0797613,-0.00532174,-1.95101,0.1535,0.320115,0.0503856,0.0210944,0.0210397,0.0941782,-0.0700645,-0.184885,0.0942993,0.000314813,0.591178,15.1214,-1.85331,5.12254,22.3101,-45.1061,0.161633,6.95423,-26.0838,6.33668,11.185,0.966488,-0.434946,-0.0365141,
0.132379,-0.0812886,-0.00367441,-1.95686,0.156548,0.332327,0.0509276,0.0914181,-0.020113,0.0940115,-0.164582,-0.039774,0.323067,0.00866735,-0.140317,1.21636,-0.16413,0.881143,1.25595,-11.1695,-0.085741,10.4959,0.16387,10.7766,-18.3877,-0.276143,2.27716,0.0896556,0.12844,-0.0797613,-0.00532174,-1.95101,0.1535,0.320115,0.0503856,0.0210944,0.0210397,0.0941782,-0.0700645,-0.184885,0.0942993,0.000314813,0,0,0,0,0,0,0,6.95423,-26.0838,6.33668,11.185,0.966488,-0.434946,-0.0365141,
0.131485,-0.080002,-0.00218148,-1.95753,0.150375,0.328914,0.0507166,0.0899158,-0.0165267,0.092449,-0.164552,-0.0400328,0.301585,0.00853098,-0.938901,2.24149,-0.976557,0.0186619,-0.161769,-13.4263,-0.0852317,10.3221,0.128106,10.5942,-18.0224,-0.234886,2.21773,0.0879184,0.12844,-0.0797613,-0.00532174,-1.95101,0.1535,0.320115,0.0503856,0.0210944,0.0210397,0.0941782,-0.0700645,-0.184885,0.0942993,0.000314813,0,0,0,0,0,0,0,6.95423,-26.0838,6.33668,11.185,0.966488,-0.434946,-0.0365141,
0.132169,-0.0800076,-0.00147866,-1.95882,0.150144,0.330579,0.0507782,0.0890386,-0.013361,0.0915299,-0.164002,-0.0377971,0.282899,0.00836473,-0.548305,1.97857,-0.574482,0.344246,1.39737,-11.6787,-0.103909,10.1441,0.0960702,10.408,-17.6575,-0.192117,2.16021,0.0860919,0.12844,-0.0797613,-0.00532174,-1.95101,0.1535,0.320115,0.0503856,0.0210944,0.0210397,0.0941782,-0.0700645,-0.184885,0.0942993,0.000314813,0,0,0,0,0,0,0,6.95423,-26.0838,6.33668,11.185,0.966488,-0.434946,-0.0365141,
0.13286,-0.0800047,-0.000768535,-1.9601,0.149997,0.332185,0.0508375,0.0885157,-0.0106151,0.0909769,-0.162995,-0.0339065,0.266465,0.00817367,-0.326757,1.71614,-0.345596,0.629238,2.4316,-10.2712,-0.119412,9.976,0.0651603,10.2376,-17.2612,-0.12674,2.13029,0.0838453,0.130054,-0.0794383,-0.00239162,-1.95451,0.151576,0.320911,0.0503872,0.0633741,0.0292229,0.0925854,-0.0965153,0.00304156,-0.0444534,-3.46213e-05,5.28497,1.02289,-0.199097,-3.30634,23.4908,-17.3441,-0.0436792,0.840641,-22.9656,0.889601,16.5646,0.703732,1.58745,-0.0227812,
0.133554,-0.0799956,-5.57817e-05,-1.96134,0.149923,0.333734,0.0508945,0.0881624,-0.00826508,0.0906004,-0.161594,-0.028982,0.251887,0.0079641,-0.220843,1.46878,-0.235346,0.87571,3.0778,-9.11153,-0.130979,9.79154,0.0400607,10.0456,-16.8973,-0.0813107,2.07745,0.0816861,0.130054,-0.0794383,-0.00239162,-1.95451,0.151576,0.320911,0.0503872,0.0633741,0.0292229,0.0925854,-0.0965153,0.00304156,-0.0444534,-3.46213e-05,0,0,0,0,0,0,0,0.840641,-22.9656,0.889601,16.5646,0.703732,1.58745,-0.0227812,
0.133528,-0.0792822,0.00117086,-1.96099,0.151574,0.326329,0.0506887,0.0882054,-0.00565148,0.0906234,-0.160809,-0.0224473,0.233709,0.00775323,0.0268696,1.6335,0.0144055,0.490631,4.08423,-11.3612,-0.131798,9.60468,0.0181188,9.8515,-16.5339,-0.035126,2.02701,0.0793349,0.130054,-0.0794383,-0.00239162,-1.95451,0.151576,0.320911,0.0503872,0.0633741,0.0292229,0.0925854,-0.0965153,0.00304156,-0.0444534,-3.46213e-05,0,0,0,0,0,0,0,0.840641,-22.9656,0.889601,16.5646,0.703732,1.58745,-0.0227812,
0.134229,-0.0792419,0.00189143,-1.96222,0.151639,0.327627,0.0507414,0.0881085,-0.00351214,0.0905129,-0.159353,-0.0163185,0.219424,0.00751979,-0.060572,1.33709,-0.0690491,0.909874,3.8305,-8.92815,-0.145897,9.41613,-0.00111483,9.65604,-16.1709,0.00882656,1.97798,0.0769232,0.130054,-0.0794383,-0.00239162,-1.95451,0.151576,0.320911,0.0503872,0.0633741,0.0292229,0.0925854,-0.0965153,0.00304156,-0.0444534,-3.46213e-05,0,0,0,0,0,0,0,0.840641,-22.9656,0.889601,16.5646,0.703732,1.58745,-0.0227812,
0.134923,-0.0792014,0.00260412,-1.96341,0.151741,0.328921,0.0507916,0.0878353,-0.00179787,0.0902277,-0.157377,-0.0105177,0.207887,0.00727174,-0.170752,1.07142,-0.178293,1.23519,3.62546,-7.21011,-0.155035,9.2363,-0.00544865,9.47798,-15.7674,0.0578642,1.97091,0.0741435,0.131802,-0.0784133,0.00166278,-1.95881,0.152072,0.318745,0.0503867,0.0576704,0.0239337,0.128926,-0.159768,0.0312889,-0.0409506,-0.000260045,-0.712959,-0.661143,4.54254,-7.90654,3.53091,0.437843,-0.028178,0.66608,-27.1074,0.43733,21.9958,0.905148,2.04522,-0.0026396,
0.133528,-0.0792822,0.00117086,-1.96099,0.151574,0.326329,0.0506887,0.0879437,-0.000477714,0.0903252,-0.157435,-0.00767582,0.198509,0.00719933,0.0677606,0.825096,0.0609929,-0.0365086,1.77619,-5.86134,-0.0452522,8.85357,-0.0322861,9.08287,-15.043,0.134262,1.8806,0.0688957,0.131802,-0.0784133,0.00166278,-1.95881,0.152072,0.318745,0.0503867,0.0576704,0.0239337,0.128926,-0.159768,0.0312889,-0.0409506,-0.000260045,0,0,0,0,0,0,0,0.66608,-27.1074,0.43733,21.9958,0.905148,2.04522,-0.0026396,
0.136101,-0.0777406,0.00608264,-1.9664,0.153157,0.323397,0.0506839,0.087402,0.00183253,0.0897783,-0.154766,-0.00106791,0.184879,0.00684428,-0.338578,1.4439,-0.341834,1.66832,4.12995,-8.51859,-0.221906,8.66133,-0.0430184,8.88484,-14.6811,0.166944,1.83731,0.0662056,0.131802,-0.0784133,0.00166278,-1.95881,0.152072,0.318745,0.0503867,0.0576704,0.0239337,0.128926,-0.159768,0.0312889,-0.0409506,-0.000260045,0,0,0,0,0,0,0,0.66608,-27.1074,0.43733,21.9958,0.905148,2.04522,-0.0026396,
0.136767,-0.0776616,0.00676711,-1.96751,0.153374,0.324467,0.0507251,0.0865694,0.00344138,0.0889343,-0.151605,0.00456853,0.17466,0.00650498,-0.520336,1.00553,-0.527497,1.97508,3.52277,-6.38717,-0.212065,8.46867,-0.052222,8.68662,-14.3191,0.196216,1.79525,0.0634658,0.131802,-0.0784133,0.00166278,-1.95881,0.152072,0.318745,0.0503867,0.0576704,0.0239337,0.128926,-0.159768,0.0312889,-0.0409506,-0.000260045,0,0,0,0,0,0,0,0.66608,-27.1074,0.43733,21.9958,0.905148,2.04522,-0.0026396,
0.137417,-0.0775913,0.00743535,-1.96859,0.153602,0.32555,0.0507642,0.0855057,0.00450912,0.0878535,-0.148107,0.00935567,0.16681,0.00618124,-0.664835,0.667336,-0.675488,2.18628,2.99196,-4.90612,-0.202337,8.26818,-0.0745608,8.48999,-13.9219,0.218865,1.78309,0.0605768,0.133386,-0.0775641,0.00614465,-1.96293,0.152714,0.317474,0.050392,0.0508333,0.0570881,0.145026,-0.11924,0.0253882,-0.0211621,0.000556217,-0.854634,4.1443,2.01251,5.06591,-0.737578,2.47357,0.102033,0.463749,-31.0509,0.0882092,25.6577,0.758663,2.54235,-0.0163725,
0.13689,-0.0766724,0.00975787,-1.96875,0.154009,0.321261,0.0505925,0.0848221,0.00658187,0.0871701,-0.145545,0.0139308,0.156777,0.00586652,-0.427252,1.29547,-0.427149,1.6013,2.85943,-6.27079,-0.196702,8.07515,-0.0815858,8.29181,-13.5596,0.239109,1.74307,0.057843,0.133386,-0.0775641,0.00614465,-1.96293,0.152714,0.317474,0.050392,0.0508333,0.0570881,0.145026,-0.11924,0.0253882,-0.0211621,0.000556217,0,0,0,0,0,0,0,0.463749,-31.0509,0.0882092,25.6577,0.758663,2.54235,-0.0163725,
0.137527,-0.0765707,0.0104129,-1.96979,0.154264,0.322225,0.0506274,0.0837751,0.00780926,0.0861121,-0.142379,0.0175205,0.149503,0.00556681,-0.654372,0.767118,-0.661222,1.97885,2.24359,-4.5462,-0.187317,7.8821,-0.087925,8.09378,-13.197,0.253963,1.70403,0.0551674,0.133386,-0.0775641,0.00614465,-1.96293,0.152714,0.317474,0.050392,0.0508333,0.0570881,0.145026,-0.11924,0.0253882,-0.0211621,0.000556217,0,0,0,0,0,0,0,0.463749,-31.0509,0.0882092,25.6577,0.758663,2.54235,-0.0163725,
0.138144,-0.0764834,0.0110485,-1.97079,0.154514,0.323205,0.0506605,0.0824625,0.00843091,0.0847803,-0.138797,0.0202719,0.14412,0.00528095,-0.820352,0.388535,-0.832424,2.23864,1.71964,-3.3641,-0.178662,7.68905,-0.0937128,7.89587,-12.8339,0.264331,1.66584,0.0525122,0.133386,-0.0775641,0.00614465,-1.96293,0.152714,0.317474,0.050392,0.0508333,0.0570881,0.145026,-0.11924,0.0253882,-0.0211621,0.000556217,0,0,0,0,0,0,0,0.463749,-31.0509,0.0882092,25.6577,0.758663,2.54235,-0.0163725,
0.138744,-0.0764081,0.0116656,-1.97174,0.154757,0.324194,0.0506919,0.0809592,0.00862698,0.0832514,-0.134939,0.0222849,0.140011,0.00500883,-0.939564,0.122541,-0.955542,2.4113,1.25808,-2.56846,-0.170075,7.49614,-0.0992677,7.69821,-12.4701,0.269101,1.62856,0.0499296,0.133386,-0.0775641,0.00614465,-1.96293,0.152714,0.317474,0.050392,0.0508333,0.0570881,0.145026,-0.11924,0.0253882,-0.0211621,0.000556217,0,0,0,0,0,0,0,0.463749,-31.0509,0.0882092,25.6577,0.758663,2.54235,-0.0163725,
0.137886,-0.0753794,0.0144273,-1.97112,0.154131,0.321211,0.0505514,0.0797121,0.00907295,0.0819921,-0.131471,0.0239033,0.134285,0.00474187,-0.779455,0.278734,-0.787063,2.16752,1.01155,-3.57882,-0.166848,7.30221,-0.0979695,7.50852,-12.0837,0.269785,1.60892,0.0472971,0.134661,-0.0760087,0.0110914,-1.96608,0.152989,0.31751,0.0503954,0.0299692,0.0465438,0.156569,-0.090424,0.000684387,-0.0240517,0.000402092,-2.60801,-1.31804,1.44292,3.60203,-3.08798,-0.361202,-0.0192655,-0.171017,-33.6733,-0.713182,28.895,0.880428,2.94701,-0.0365141,
0.138464,-0.0753037,0.0150224,-1.97202,0.154361,0.322122,0.0505794,0.0782122,0.00915126,0.0804703,-0.127675,0.0248764,0.130202,0.00449133,-0.937418,0.0489441,-0.951146,2.37278,0.608162,-2.55148,-0.15659,7.10982,-0.10358,7.31153,-11.7181,0.264448,1.57306,0.044863,0.134661,-0.0760087,0.0110914,-1.96608,0.152989,0.31751,0.0503954,0.0299692,0.0465438,0.156569,-0.090424,0.000684387,-0.0240517,0.000402092,0,0,0,0,0,0,0,-0.171017,-33.6733,-0.713182,28.895,0.880428,2.94701,-0.0365141,
0.139023,-0.0752376,0.0155981,-1.97288,0.154575,0.323041,0.0506058,0.07654,0.00897198,0.0787694,-0.123662,0.0252486,0.127148,0.00425518,-1.04514,-0.112052,-1.06302,2.5077,0.232634,-1.90873,-0.147597,6.9179,-0.109481,7.11504,-11.3512,0.254756,1.5376,0.0425042,0.134661,-0.0760087,0.0110914,-1.96608,0.152989,0.31751,0.0503954,0.0299692,0.0465438,0.156569,-0.090424,0.000684387,-0.0240517,0.000402092,0,0,0,0,0,0,0,-0.171017,-33.6733,-0.713182,28.895,0.880428,2.94701,-0.0365141,
0.13773,-0.0752964,0.0142676,-1.97062,0.15402,0.320534,0.0505165,0.0750961,0.00957644,0.077297,-0.119676,0.0252055,0.120419,0.00398857,-0.902415,0.377788,-0.920272,2.49126,-0.0269792,-4.20587,-0.166632,6.53647,-0.123036,6.72449,-10.6135,0.221917,1.46749,0.0381234,0.134661,-0.0760087,0.0110914,-1.96608,0.152989,0.31751,0.0503954,0.0299692,0.0465438,0.156569,-0.090424,0.000684387,-0.0240517,0.000402092,0,0,0,0,0,0,0,-0.171017,-33.6733,-0.713182,28.895,0.880428,2.94701,-0.0365141,
0.138261,-0.0752144,0.014815,-1.97141,0.154199,0.321302,0.0505388,0.0733605,0.00971078,0.0755233,-0.115408,0.0246316,0.115532,0.00374998,-1.08476,0.083961,-1.10856,2.66766,-0.358645,-3.05417,-0.149117,6.3466,-0.158136,6.53983,-10.2288,0.200827,1.44208,0.0360359,0.135211,-0.075514,0.0157557,-1.96893,0.15298,0.317544,0.0503915,0.0244118,-0.000613137,0.133128,-0.0769418,-0.00558424,-0.0249058,-0.00155195,-0.69468,-5.89461,-2.93014,1.68528,-0.783578,-0.106764,-0.244255,-1.44055,-34.0224,-1.81212,31.2119,1.13678,3.85522,-0.0026396,
0.138771,-0.0751444,0.0153406,-1.97215,0.154357,0.322076,0.0505602,0.0714399,0.00951957,0.0735591,-0.110968,0.0236487,0.111788,0.00353467,-1.20038,-0.119503,-1.22764,2.77509,-0.614302,-2.34035,-0.134566,6.1595,-0.167097,6.3481,-9.85613,0.176968,1.40585,0.0341373,0.135211,-0.075514,0.0157557,-1.96893,0.15298,0.317544,0.0503915,0.0244118,-0.000613137,0.133128,-0.0769418,-0.00558424,-0.0249058,-0.00155195,0,0,0,0,0,0,0,-1.44055,-34.0224,-1.81212,31.2119,1.13678,3.85522,-0.0026396,
0.139261,-0.0750846,0.0158459,-1.97286,0.154497,0.322846,0.0505807,0.0694084,0.0091109,0.0714808,-0.106435,0.0224176,0.108669,0.00333946,-1.26972,-0.255423,-1.2989,2.83324,-0.769446,-1.94903,-0.12201,5.97471,-0.177221,6.15864,-9.48192,0.151651,1.36831,0.0323811,0.135211,-0.075514,0.0157557,-1.96893,0.15298,0.317544,0.0503915,0.0244118,-0.000613137,0.133128,-0.0769418,-0.00558424,-0.0249058,-0.00155195,0,0,0,0,0,0,0,-1.44055,-34.0224,-1.81212,31.2119,1.13678,3.85522,-0.0026396,
0.137863,-0.0755404,0.0185027,-1.97253,0.153665,0.320383,0.0504914,0.0676012,0.00766123,0.0696411,-0.101623,0.0215702,0.104555,0.00315611,-1.1295,-0.90604,-1.1498,3.00754,-0.529607,-2.57151,-0.114591,5.79289,-0.188558,5.97207,-9.10618,0.127102,1.32835,0.0307589,0.135211,-0.075514,0.0157557,-1.96893,0.15298,0.317544,0.0503915,0.0244118,-0.000613137,0.133128,-0.0769418,-0.00558424,-0.0249058,-0.00155195,0,0,0,0,0,0,0,-1.44055,-34.0224,-1.81212,31.2119,1.13678,3.85522,-0.0026396,
0.138326,-0.0755233,0.0189805,-1.97316,0.153807,0.321085,0.05051,0.0656538,0.00655674,0.0676571,-0.0968953,0.0208071,0.101193,0.00299204,-1.2171,-0.690307,-1.24005,2.95469,-0.47697,-2.10097,-0.102542,5.61476,-0.201259,5.78912,-8.72905,0.104699,1.28526,0.0292688,0.135211,-0.075514,0.0157557,-1.96893,0.15298,0.317544,0.0503915,0.0244118,-0.000613137,0.133128,-0.0769418,-0.00558424,-0.0249058,-0.00155195,0,0,0,0,0,0,0,-1.44055,-34.0224,-1.81212,31.2119,1.13678,3.85522,-0.0026396,
0.13877,-0.0755061,0.0194389,-1.97375,0.153954,0.321764,0.0505281,0.0636235,0.00567632,0.0655878,-0.0922486,0.0203211,0.0979508,0.00284544,-1.26893,-0.550262,-1.29327,2.90418,-0.303743,-2.02664,-0.0916255,5.44117,-0.215315,5.61062,-8.35067,0.0872357,1.2375,0.0279307,0.135211,-0.075514,0.0157557,-1.96893,0.15298,0.317544,0.0503915,0.0244118,-0.000613137,0.133128,-0.0769418,-0.00558424,-0.0249058,-0.00155195,0,0,0,0,0,0,0,-1.44055,-34.0224,-1.81212,31.2119,1.13678,3.85522,-0.0026396,
0.137863,-0.0755404,0.0185027,-1.97253,0.153665,0.320383,0.0504914,0.0629733,0.00491358,0.0649267,-0.0902738,0.019893,0.0959801,0.0027609,-0.40639,-0.476718,-0.413176,1.23426,-0.267543,-1.23168,-0.0528397,5.1111,-0.247651,5.27044,-7.59131,0.0777625,1.12248,0.0257226,0.135211,-0.075514,0.0157557,-1.96893,0.15298,0.317544,0.0503915,0.0244118,-0.000613137,0.133128,-0.0769418,-0.00558424,-0.0249058,-0.00155195,0,0,0,0,0,0,0,-1.44055,-34.0224,-1.81212,31.2119,1.13678,3.85522,-0.0026396,
0.138132,-0.0754468,0.0187829,-1.97251,0.154099,0.319821,0.0504889,0.0608167,0.00442483,0.0627237,-0.0848216,0.0229936,0.0872857,0.00261717,-1.34786,-0.305463,-1.37689,3.4076,1.93783,-5.43405,-0.0898328,4.95636,-0.265846,5.11047,-7.21108,0.0926012,1.05164,0.0248402,0.135211,-0.075514,0.0157557,-1.96893,0.15298,0.317544,0.0503915,0.0244118,-0.000613137,0.133128,-0.0769418,-0.00558424,-0.0249058,-0.00155195,0,0,0,0,0,0,0,-1.44055,-34.0224,-1.81212,31.2119,1.13678,3.85522,-0.0026396,
0.138528,-0.0754296,0.0191921,-1.97298,0.154449,0.320183,0.050505,0.0585497,0.00397025,0.0604095,-0.0795493,0.0271423,0.0788855,0.00249766,-1.41688,-0.284115,-1.4464,3.29518,2.59294,-5.2501,-0.0746913,4.80239,-0.311279,4.95917,-6.82446,0.123037,0.973716,0.0241268,0.135604,-0.0753398,0.0194248,-1.97086,0.153032,0.317762,0.0503976,0.0114634,-0.012463,0.0944809,-0.0404279,-0.00225507,-0.00748069,-0.00068489,-1.61855,-1.48124,-4.8309,4.56423,0.416146,2.17814,0.108382,-3.0354,-32.2768,-3.26018,27.923,0.800778,3.43773,-0.0566557,
0.138904,-0.0754158,0.0195809,-1.97341,0.154886,0.320467,0.0505214,0.0562342,0.00352237,0.0580475,-0.0744449,0.0326325,0.070206,0.00240647,-1.44718,-0.279926,-1.47624,3.19026,3.43137,-5.42469,-0.0569957,4.66379,-0.331733,4.81515,-6.44531,0.177595,0.877624,0.0235842,0.135604,-0.0753398,0.0194248,-1.97086,0.153032,0.317762,0.0503976,0.0114634,-0.012463,0.0944809,-0.0404279,-0.00225507,-0.00748069,-0.00068489,0,0,0,0,0,0,0,-3.0354,-32.2768,-3.26018,27.923,0.800778,3.43773,-0.0566557,
0.137467,-0.0756641,0.0213608,-1.97297,0.154594,0.319235,0.0504786,0.0535569,0.00199956,0.055321,-0.0689344,0.0393461,0.0614054,0.00235004,-1.67332,-0.951753,-1.70408,3.44408,4.19602,-5.50036,-0.0352683,4.53347,-0.352997,4.67941,-6.0676,0.257014,0.765656,0.0232852,0.135604,-0.0753398,0.0194248,-1.97086,0.153032,0.317762,0.0503976,0.0114634,-0.012463,0.0944809,-0.0404279,-0.00225507,-0.00748069,-0.00068489,0,0,0,0,0,0,0,-3.0354,-32.2768,-3.26018,27.923,0.800778,3.43773,-0.0566557,
0.137794,-0.0756905,0.0217002,-1.97332,0.155268,0.319333,0.0504951,0.0510217,0.00094001,0.0527437,-0.063791,0.0483299,0.0515875,0.00229356,-1.58453,-0.66222,-1.61081,3.21464,5.61487,-6.13622,-0.0352974,4.41069,-0.374942,4.55114,-5.69242,0.365272,0.636639,0.0231164,0.135604,-0.0753398,0.0194248,-1.97086,0.153032,0.317762,0.0503976,0.0114634,-0.012463,0.0944809,-0.0404279,-0.00225507,-0.00748069,-0.00068489,0,0,0,0,0,0,0,-3.0354,-32.2768,-3.26018,27.923,0.800778,3.43773,-0.0566557,
0.138105,-0.0757138,0.0220243,-1.97364,0.156094,0.319308,0.050511,0.0486108,0.000168905,0.0502968,-0.0589776,0.0593123,0.0406475,0.00223208,-1.50682,-0.48194,-1.52932,3.00837,6.86399,-6.83747,-0.0384247,4.29073,-0.410481,4.43268,-5.31994,0.501643,0.490423,0.0230841,0.135605,-0.0754025,0.0223721,-1.97152,0.153013,0.317957,0.0503958,0.0142573,-0.0101645,0.0774973,-0.00390751,-0.00628153,0.00342214,0.000253764,0.349234,0.287312,-2.12295,4.56505,-0.503308,1.36285,0.117332,-0.40112,-30.5034,-0.610033,24.039,0.868527,2.66869,-0.050247,
0.138403,-0.0757351,0.0223343,-1.97393,0.157058,0.319159,0.0505283,0.0463372,-0.000397097,0.0479877,-0.054437,0.0715584,0.0287882,0.0022172,-1.42098,-0.353752,-1.44316,2.83786,7.65381,-7.41209,-0.00930321,4.18011,-0.432011,4.31704,-4.95298,0.663911,0.327241,0.0235595,0.135605,-0.0754025,0.0223721,-1.97152,0.153013,0.317957,0.0503958,0.0142573,-0.0101645,0.0774973,-0.00390751,-0.00628153,0.00342214,0.000253764,0,0,0,0,0,0,0,-0.40112,-30.5034,-0.610033,24.039,0.868527,2.66869,-0.050247,
0.137291,-0.075922,0.0241429,-1.97288,0.158902,0.317362,0.0504807,0.0429523,-0.0016688,0.0445932,-0.0487538,0.0959498,0.0139831,0.00191618,-2.11558,-0.794817,-2.12156,3.55199,15.2446,-9.25321,-0.188136,3.93853,-0.468991,4.06504,-4.24077,1.09845,-0.0592527,0.0244266,0.135605,-0.0754025,0.0223721,-1.97152,0.153013,0.317957,0.0503958,0.0142573,-0.0101645,0.0774973,-0.00390751,-0.00628153,0.00342214,0.000253764,0,0,0,0,0,0,0,-0.40112,-30.5034,-0.610033,24.039,0.868527,2.66869,-0.050247,
0.137522,-0.0759662,0.0243841,-1.97308,0.160464,0.317017,0.0504836,0.0401374,-0.00243928,0.0417023,-0.0439231,0.115794,0.00256758,0.00160422,-1.75926,-0.481547,-1.80683,3.01922,12.4024,-7.13467,-0.194978,3.7982,-0.489964,3.92213,-3.90895,1.30997,-0.250044,0.0237404,0.135605,-0.0754025,0.0223721,-1.97152,0.153013,0.317957,0.0503958,0.0142573,-0.0101645,0.0774973,-0.00390751,-0.00628153,0.00342214,0.000253764,0,0,0,0,0,0,0,-0.40112,-30.5034,-0.610033,24.039,0.868527,2.66869,-0.050247,
0.137739,-0.0760016,0.0246107,-1.97326,0.162177,0.316614,0.0504868,0.0375261,-0.00283612,0.0390291,-0.0395801,0.135472,-0.00803452,0.00136395,-1.63207,-0.248023,-1.67074,2.7144,12.2992,-6.62632,-0.150164,3.64602,-0.496641,3.77299,-3.57375,1.4645,-0.412635,0.025234,0.135579,-0.0757512,0.0241714,-1.97178,0.153124,0.317928,0.0503909,0.00402426,-0.0252088,0.0418967,0.00564552,-0.00411087,-0.0013749,-0.00123243,-1.27913,-1.88054,-4.45007,1.19413,0.271333,-0.599631,-0.185775,-0.805783,-31.7491,-1.23686,26.2051,1.05804,2.85363,0.00376909,
0.137935,-0.0760306,0.0248171,-1.97342,0.164139,0.316103,0.0504856,0.0349243,-0.00299512,0.036381,-0.0356076,0.157411,-0.0191929,0.00106233,-1.62614,-0.0993762,-1.65504,2.48279,13.7117,-6.974,-0.188518,3.46654,-0.48403,3.58695,-3.2643,1.73854,-0.542309,0.030077,0.135579,-0.0757512,0.0241714,-1.97178,0.153124,0.317928,0.0503909,0.00402426,-0.0252088,0.0418967,0.00564552,-0.00411087,-0.0013749,-0.00123243,0,0,0,0,0,0,0,-0.805783,-31.7491,-1.23686,26.2051,1.05804,2.85363,0.00376909,
0.136339,-0.0764226,0.0249908,-1.97238,0.159551,0.317055,0.0504098,0.0315649,-0.00443529,0.0329624,-0.0314199,0.171868,-0.0246134,0.000821126,-2.09965,-0.900105,-2.13666,2.61733,9.03573,-3.38782,-0.15075,3.18657,-0.462446,3.30068,-2.95683,2.07275,-0.637302,0.0310245,0.135579,-0.0757512,0.0241714,-1.97178,0.153124,0.317928,0.0503909,0.00402426,-0.0252088,0.0418967,0.00564552,-0.00411087,-0.0013749,-0.00123243,0,0,0,0,0,0,0,-0.805783,-31.7491,-1.23686,26.2051,1.05804,2.85363,0.00376909,
0.136479,-0.076489,0.0251384,-1.97248,0.161626,0.316547,0.0504078,0.0287451,-0.00520783,0.0300595,-0.0277722,0.189381,-0.0323801,0.000607228,-1.76238,-0.482838,-1.81429,2.2798,10.9454,-4.85419,-0.133686,2.84448,-0.545094,2.96487,-2.69897,2.33027,-0.638984,0.0119386,0.135579,-0.0757512,0.0241714,-1.97178,0.153124,0.317928,0.0503909,0.00402426,-0.0252088,0.0418967,0.00564552,-0.00411087,-0.0013749,-0.00123243,0,0,0,0,0,0,0,-0.805783,-31.7491,-1.23686,26.2051,1.05804,2.85363,0.00376909,
0.136618,-0.0765415,0.0252852,-1.97257,0.163798,0.315907,0.0504071,0.0264688,-0.00547867,0.0277171,-0.0243694,0.205797,-0.0419091,0.000467143,-1.42265,-0.169277,-1.46402,2.12671,10.2602,-5.95564,-0.0875532,2.67212,-0.483675,2.79379,-2.33358,1.9678,-0.355515,0.00403829,0.135555,-0.0763866,0.0256555,-1.97175,0.154103,0.31789,0.0503967,0.00867551,-0.035826,0.0395177,0.000291511,0.0779788,-0.00448635,-0.000147464,0.581406,-1.32714,-0.297383,-0.669251,10.2612,-0.388931,0.135621,-0.222592,-31.6261,-0.463243,26.0544,1.25305,2.58263,-0.00996382,
0.136745,-0.0765818,0.0254207,-1.97264,0.166191,0.315123,0.0504081,0.0243637,-0.00539211,0.0255607,-0.0212854,0.224463,-0.0531285,0.000399317,-1.3157,0.0540976,-1.34776,1.92755,11.6662,-7.0121,-0.042391,2.59907,-0.477039,2.69814,-2.12375,2.42873,-0.600243,0.00779906,0.135555,-0.0763866,0.0256555,-1.97175,0.154103,0.31789,0.0503967,0.00867551,-0.035826,0.0395177,0.000291511,0.0779788,-0.00448635,-0.000147464,0,0,0,0,0,0,0,-0.222592,-31.6261,-0.463243,26.0544,1.25305,2.58263,-0.00996382,
0.136169,-0.0771082,0.0263218,-1.97191,0.164192,0.315379,0.0503766,0.0218873,-0.00630724,0.0230484,-0.0176409,0.245758,-0.0633863,0.000255273,-1.54773,-0.571954,-1.57016,2.27778,13.3091,-6.41113,-0.0900275,2.41587,-0.457667,2.50078,-1.92654,2.92446,-0.857211,0.00429766,0.135555,-0.0763866,0.0256555,-1.97175,0.154103,0.31789,0.0503967,0.00867551,-0.035826,0.0395177,0.000291511,0.0779788,-0.00448635,-0.000147464,0,0,0,0,0,0,0,-0.222592,-31.6261,-0.463243,26.0544,1.25305,2.58263,-0.00996382,
0.136254,-0.0771685,0.0264151,-1.97193,0.167069,0.31443,0.0503753,0.0196168,-0.00655397,0.0207702,-0.014699,0.268534,-0.0744374,0.000171967,-1.41907,-0.154209,-1.42389,1.83871,14.2352,-6.90693,-0.0520661,2.28433,-0.421876,2.35823,-1.71903,3.10204,-1.01129,0.00203091,0.135555,-0.0763866,0.0256555,-1.97175,0.154103,0.31789,0.0503967,0.00867551,-0.035826,0.0395177,0.000291511,0.0779788,-0.00448635,-0.000147464,0,0,0,0,0,0,0,-0.222592,-31.6261,-0.463243,26.0544,1.25305,2.58263,-0.00996382,
0.136336,-0.0772122,0.0265037,-1.97196,0.169997,0.313448,0.0503717,0.0177535,-0.00633536,0.018832,-0.0123356,0.288024,-0.0841007,4.71963e-05,-1.1646,0.13663,-1.21137,1.47712,12.1815,-6.03955,-0.077982,2.07284,-0.309952,2.16259,-1.45015,2.95612,-1.13951,0.000919737,0.135555,-0.0763866,0.0256555,-1.97175,0.154103,0.31789,0.0503967,0.00867551,-0.035826,0.0395177,0.000291511,0.0779788,-0.00448635,-0.000147464,0,0,0,0,0,0,0,-0.222592,-31.6261,-0.463243,26.0544,1.25305,2.58263,-0.00996382,
0.136404,-0.0772403,0.0265778,-1.97197,0.173117,0.312392,0.0503652,0.0159105,-0.00576958,0.0169165,-0.0103366,0.308402,-0.0936709,-0.000125144,-1.15186,0.353615,-1.19721,1.24936,12.736,-5.98137,-0.107712,1.88142,-0.225092,1.95369,-1.24343,3.43999,-1.35755,0.00620258,0.135445,-0.0771518,0.0264362,-1.97167,0.158303,0.317715,0.0503917,0.00166341,-0.0391241,0.0113841,0.0105595,0.1413,-0.00495446,-0.000233452,-0.876512,-0.41226,-3.5167,1.2835,7.91516,-0.0585133,-0.0107485,-2.63073,-31.4754,-2.7603,26.3797,1.15509,2.92687,-0.0026396,
0.135504,-0.0778758,0.026532,-1.9714,0.171505,0.314276,0.0503521,0.012826,-0.00647283,0.0137304,-0.0074217,0.327612,-0.0990636,-0.000416357,-1.92782,-0.439528,-1.99132,1.82182,12.0062,-3.37044,-0.182008,1.57349,-0.134633,1.63132,-1.0402,3.95365,-1.55211,0.00413235,0.135445,-0.0771518,0.0264362,-1.97167,0.158303,0.317715,0.0503917,0.00166341,-0.0391241,0.0113841,0.0105595,0.1413,-0.00495446,-0.000233452,0,0,0,0,0,0,0,-2.63073,-31.4754,-2.7603,26.3797,1.15509,2.92687,-0.0026396,
0.135511,-0.0779329,0.0265389,-1.97138,0.174863,0.313237,0.0503384,0.010454,-0.00660626,0.011156,-0.0053352,0.346035,-0.105233,-0.000675493,-1.48252,-0.0833976,-1.60901,1.30406,11.5143,-3.85617,-0.16196,1.34931,-0.071638,1.43245,-0.849993,4.04792,-1.5473,0.00341246,0.135445,-0.0771518,0.0264362,-1.97167,0.158303,0.317715,0.0503917,0.00166341,-0.0391241,0.0113841,0.0105595,0.1413,-0.00495446,-0.000233452,0,0,0,0,0,0,0,-2.63073,-31.4754,-2.7603,26.3797,1.15509,2.92687,-0.0026396,
0.13553,-0.0779755,0.0265616,-1.97135,0.178075,0.312186,0.0503275,0.00883079,-0.00634834,0.00949229,-0.00369854,0.357139,-0.110455,-0.000811824,-1.01449,0.161201,-1.03979,1.02291,6.93989,-3.26355,-0.0852067,1.06592,0.0195319,1.13567,-0.641476,3.77439,-1.36764,-0.00339769,0.135445,-0.0771518,0.0264362,-1.97167,0.158303,0.317715,0.0503917,0.00166341,-0.0391241,0.0113841,0.0105595,0.1413,-0.00495446,-0.000233452,0,0,0,0,0,0,0,-2.63073,-31.4754,-2.7603,26.3797,1.15509,2.92687,-0.0026396,
0.13545,-0.0784394,0.0271061,-1.97116,0.17927,0.313924,0.0503027,0.00708768,-0.0066719,0.00780657,-0.00156345,0.362543,-0.111921,-0.00111766,-1.08945,-0.202222,-1.05357,1.33443,3.37766,-0.916454,-0.191145,0.659869,0.120091,0.681765,-0.420679,4.63137,-1.67793,-0.0102879,0.135435,-0.0778662,0.027056,-1.97154,0.164702,0.317641,0.0503929,0.00638979,-0.0340758,0.0119079,0.00563536,0.212316,-0.00199774,-0.000392075,0.590798,0.631037,0.0654766,-0.615523,8.87698,0.369589,-0.0198279,-0.476498,-29.8052,-0.685411,25.0348,1.35101,2.48925,-0.00996382,
0.135459,-0.0784914,0.0271346,-1.97112,0.182169,0.313016,0.0502922,0.00589793,-0.00663787,0.00695983,-0.000230352,0.3625,-0.112254,-0.00115659,-0.743593,0.021267,-0.529212,0.833189,-0.0268529,-0.207804,-0.0243313,0.566338,0.0622851,0.549569,-0.347673,4.47971,-1.60831,-0.0150645,0.135435,-0.0778662,0.027056,-1.97154,0.164702,0.317641,0.0503929,0.00638979,-0.0340758,0.0119079,0.00563536,0.212316,-0.00199774,-0.000392075,0,0,0,0,0,0,0,-0.476498,-29.8052,-0.685411,25.0348,1.35101,2.48925,-0.00996382,
0.135491,-0.0785349,0.0271852,-1.97109,0.184684,0.312235,0.0502863,0.00553109,-0.00639751,0.00683147,0.000477953,0.352873,-0.10932,-0.00107195,-0.229272,0.150227,-0.0802282,0.442691,-6.01664,1.83343,0.0529006,0.366593,0.105674,0.445892,-0.191279,3.7971,-1.4246,-0.0168172,0.135435,-0.0778662,0.027056,-1.97154,0.164702,0.317641,0.0503929,0.00638979,-0.0340758,0.0119079,0.00563536,0.212316,-0.00199774,-0.000392075,0,0,0,0,0,0,0,-0.476498,-29.8052,-0.685411,25.0348,1.35101,2.48925,-0.00996382,
0.135531,-0.0785692,0.0272452,-1.97107,0.186973,0.311531,0.0502776,0.00541252,-0.00597444,0.00696525,0.000884976,0.339524,-0.105061,-0.00107435,-0.0741085,0.264418,0.0836122,0.254389,-8.3431,2.662,-0.00150454,0.263878,0.124778,0.353003,-0.113759,3.95209,-1.48963,-0.0180773,0.135435,-0.0778662,0.027056,-1.97154,0.164702,0.317641,0.0503929,0.00638979,-0.0340758,0.0119079,0.00563536,0.212316,-0.00199774,-0.000392075,0,0,0,0,0,0,0,-0.476498,-29.8052,-0.685411,25.0348,1.35101,2.48925,-0.00996382,
0.134998,-0.0788589,0.0270176,-1.97104,0.185116,0.31538,0.0503331,0.00410102,-0.00610038,0.00586808,0.00196485,0.322634,-0.0959315,-0.00111961,-0.819689,-0.0787179,-0.685732,0.674923,-10.5566,5.70611,-0.0282835,0.176679,0.114968,0.274587,-0.0616255,3.8918,-1.46289,-0.0228712,0.135226,-0.0784806,0.0271574,-1.97146,0.173623,0.317519,0.0503951,-0.0114916,-0.0149605,-0.00919923,0.0177383,0.269207,0.00402554,0.000851199,-2.23518,2.38941,-2.63839,1.51287,7.11134,0.75291,0.155409,-1.36517,-30.2019,-1.58599,24.9594,1.09466,2.52221,-0.0301054,
0.134995,-0.0789021,0.0270367,-1.971,0.187106,0.314888,0.0503219,0.00321256,-0.00595919,0.00517048,0.00259842,0.30785,-0.0890317,-0.00117522,-0.555284,0.0882487,-0.436001,0.395978,-9.23962,4.31236,-0.0347607,0.163487,0.0625616,0.442331,-0.0123117,3.31544,-1.1732,-0.0166163,0.135226,-0.0784806,0.0271574,-1.97146,0.173623,0.317519,0.0503951,-0.0114916,-0.0149605,-0.00919923,0.0177383,0.269207,0.00402554,0.000851199,0,0,0,0,0,0,0,-1.36517,-30.2019,-1.58599,24.9594,1.09466,2.52221,-0.0301054,
0.134997,-0.0789371,0.0270602,-1.97096,0.189064,0.314382,0.0503103,0.00260115,-0.00564347,0.00472378,0.00292284,0.295243,-0.0838784,-0.00123059,-0.382135,0.197325,-0.279183,0.202764,-7.87982,3.22084,-0.0346038,0.114779,0.033855,0.398729,0.0442525,2.43424,-0.752565,-0.0152628,0.135226,-0.0784806,0.0271574,-1.97146,0.173623,0.317519,0.0503951,-0.0114916,-0.0149605,-0.00919923,0.0177383,0.269207,0.00402554,0.000851199,0,0,0,0,0,0,0,-1.36517,-30.2019,-1.58599,24.9594,1.09466,2.52221,-0.0301054,
0.135,-0.0789655,0.0270865,-1.97093,0.191003,0.313863,0.0502984,0.00217527,-0.00522367,0.0044375,0.00303668,0.28465,-0.0800694,-0.001281,-0.266176,0.262375,-0.178926,0.0711507,-6.6206,2.38058,-0.0315081,0.114779,0.033855,0.398729,0.0442525,2.43424,-0.752565,-0.0152628,0.135226,-0.0784806,0.0271574,-1.97146,0.173623,0.317519,0.0503951,-0.0114916,-0.0149605,-0.00919923,0.0177383,0.269207,0.00402554,0.000851199,0,0,0,0,0,0,0,-1.36517,-30.2019,-1.58599,24.9594,1.09466,2.52221,-0.0301054,
0.135041,-0.0788622,0.0270761,-1.97104,0.183484,0.31611,0.0503414,0.00133207,-0.00548164,0.00368802,0.00377922,0.275943,-0.0743197,-0.00131824,-0.526995,-0.161232,-0.468428,0.464085,-5.4414,3.59357,-0.0232727,0.11038,0.0218338,0.397273,0.0465269,2.40709,-0.747009,-0.0152212,0.135025,-0.0787637,0.027239,-1.971,0.181837,0.317623,0.0503894,0.000467811,0.00256424,0.00446128,0.020517,0.167817,8.25705e-05,-0.00119044,1.49493,2.19059,1.70756,0.34734,-12.6737,-0.492871,-0.255205,0.233646,-29.8052,0.0366345,23.2892,0.862118,2.17156,0.017502,
0.135031,-0.0789052,0.0270875,-1.971,0.185405,0.315662,0.0503295,0.000796922,-0.00545887,0.00323525,0.00413075,0.268804,-0.0706416,-0.00135135,-0.33447,0.0142301,-0.28298,0.219712,-4.46197,2.29884,-0.020694,0.11038,0.0218338,0.397273,0.0465269,2.40709,-0.747009,-0.0152212,0.135025,-0.0787637,0.027239,-1.971,0.181837,0.317623,0.0503894,0.000467811,0.00256424,0.00446128,0.020517,0.167817,8.25705e-05,-0.00119044,0,0,0,0,0,0,0,0.233646,-29.8052,0.0366345,23.2892,0.862118,2.17156,0.017502,
0.135024,-0.0789404,0.0271034,-1.97096,0.187322,0.315187,0.0503176,0.00047682,-0.00524703,0.00298684,0.00421622,0.262961,-0.0684114,-0.00137996,-0.200064,0.132398,-0.155256,0.0534159,-3.65201,1.39387,-0.0178837,0.11038,0.0218338,0.397273,0.0465269,2.40709,-0.747009,-0.0152212,0.135025,-0.0787637,0.027239,-1.971,0.181837,0.317623,0.0503894,0.000467811,0.00256424,0.00446128,0.020517,0.167817,8.25705e-05,-0.00119044,0,0,0,0,0,0,0,0.233646,-29.8052,0.0366345,23.2892,0.862118,2.17156,0.017502,
0.134966,-0.0788727,0.027299,-1.97074,0.190667,0.316062,0.0503183,0.000152871,-0.00471996,0.00273293,0.00415582,0.256944,-0.0659968,-0.00141513,-0.202468,0.329416,-0.158694,-0.0377481,-3.76041,1.50914,-0.0219788,0.11038,0.0218338,0.397273,0.0465269,2.40709,-0.747009,-0.0152212,0.135025,-0.0787637,0.027239,-1.971,0.181837,0.317623,0.0503894,0.000467811,0.00256424,0.00446128,0.020517,0.167817,8.25705e-05,-0.00119044,0,0,0,0,0,0,0,0.233646,-29.8052,0.0366345,23.2892,0.862118,2.17156,0.017502,
0.13496,-0.0788908,0.0273157,-1.97072,0.192542,0.315578,0.050306,-3.17921e-05,-0.00422816,0.00260387,0.00397178,0.252417,-0.0648991,-0.00143853,-0.115414,0.30738,-0.0806609,-0.115025,-2.82945,0.686028,-0.0146247,0.108305,0.0160157,0.395977,0.0425894,2.40142,-0.751821,-0.0151615,0.13476,-0.0790761,0.0270985,-1.97045,0.183638,0.318462,0.0503909,-0.00956357,-0.00986512,0.000958136,0.0150326,-0.00292425,0.0187781,-0.000862433,-1.25392,-1.55367,-0.437892,-0.685553,-21.3427,2.33694,0.0410013,1.1977,-28.7538,0.838026,23.3923,1.14959,2.2503,0.00376909,
0.134956,-0.0789061,0.0273352,-1.97069,0.194422,0.31507,0.0502938,-0.000110726,-0.00376591,0.00257051,0.00371511,0.24893,-0.0646169,-0.00145494,-0.0493337,0.288902,-0.0208533,-0.160422,-2.17944,0.176413,-0.0102582,0.108305,0.0160157,0.395977,0.0425894,2.40142,-0.751821,-0.0151615,0.13476,-0.0790761,0.0270985,-1.97045,0.183638,0.318462,0.0503909,-0.00956357,-0.00986512,0.000958136,0.0150326,-0.00292425,0.0187781,-0.000862433,0,0,0,0,0,0,0,1.1977,-28.7538,0.838026,23.3923,1.14959,2.2503,0.00376909,
0.134955,-0.0789189,0.0273572,-1.97068,0.196303,0.314545,0.0502817,-0.000113666,-0.00333264,0.0026058,0.00342147,0.246184,-0.0648175,-0.00146707,-0.00183739,0.270797,0.0220606,-0.183522,-1.71611,-0.125432,-0.00758238,0.108305,0.0160157,0.395977,0.0425894,2.40142,-0.751821,-0.0151615,0.13476,-0.0790761,0.0270985,-1.97045,0.183638,0.318462,0.0503909,-0.00956357,-0.00986512,0.000958136,0.0150326,-0.00292425,0.0187781,-0.000862433,0,0,0,0,0,0,0,1.1977,-28.7538,0.838026,23.3923,1.14959,2.2503,0.00376909,
0.134397,-0.0792997,0.0268621,-1.97019,0.190334,0.317165,0.0503062,-0.00144933,-0.00334127,0.00128845,0.00356529,0.239442,-0.0623409,-0.00149001,-0.83479,-0.0053961,-0.823344,0.0898829,-4.21413,1.54791,-0.0143335,0.108305,0.0160157,0.395977,0.0425894,2.40142,-0.751821,-0.0151615,0.13476,-0.0790761,0.0270985,-1.97045,0.183638,0.318462,0.0503909,-0.00956357,-0.00986512,0.000958136,0.0150326,-0.00292425,0.0187781,-0.000862433,0,0,0,0,0,0,0,1.1977,-28.7538,0.838026,23.3923,1.14959,2.2503,0.00376909,
0.134354,-0.0793215,0.0268412,-1.97016,0.192092,0.316706,0.050294,-0.00224051,-0.00321851,0.000509063,0.00353803,0.235513,-0.0613521,-0.00149697,-0.49449,0.0767258,-0.487119,-0.0170327,-2.45576,0.61797,-0.00435093,0.108248,0.0183878,0.395974,0.0363761,2.40141,-0.757767,-0.0151286,0.134659,-0.0791831,0.0270141,-1.96995,0.183635,0.319165,0.0503902,0.00525079,0.000542505,0.00554676,0.00759699,0.000914409,0.00379821,-0.00168052,1.8518,1.30095,0.573578,-0.929449,0.479833,-1.87248,-0.102261,0.66608,-29.6544,0.461134,23.9636,0.93536,2.40319,0.0101778,
0.13432,-0.0793391,0.0268301,-1.97014,0.193888,0.316218,0.050282,-0.00262983,-0.0030163,0.000130231,0.00339905,0.233295,-0.0612933,-0.00149736,-0.24332,0.126384,-0.23677,-0.0868665,-1.38584,0.0367859,-0.000244143,0.108248,0.0183878,0.395974,0.0363761,2.40141,-0.757767,-0.0151286,0.134659,-0.0791831,0.0270141,-1.96995,0.183635,0.319165,0.0503902,0.00525079,0.000542505,0.00554676,0.00759699,0.000914409,0.00379821,-0.00168052,0,0,0,0,0,0,0,0.66608,-29.6544,0.461134,23.9636,0.93536,2.40319,0.0101778,
0.134295,-0.0793534,0.0268274,-1.97012,0.195707,0.315708,0.0502701,-0.00273477,-0.00277018,3.64609e-05,0.00319197,0.232113,-0.0617897,-0.00149572,-0.0655906,0.153821,-0.0586063,-0.129425,-0.738664,-0.31024,0.00102426,0.108248,0.0183878,0.395974,0.0363761,2.40141,-0.757767,-0.0151286,0.134659,-0.0791831,0.0270141,-1.96995,0.183635,0.319165,0.0503902,0.00525079,0.000542505,0.00554676,0.00759699,0.000914409,0.00379821,-0.00168052,0,0,0,0,0,0,0,0.66608,-29.6544,0.461134,23.9636,0.93536,2.40319,0.0101778,
0.134478,-0.0791936,0.0269663,-1.96985,0.190513,0.317399,0.0503016,-0.00302486,-0.00225887,-0.000228945,0.00287686,0.228845,-0.0616332,-0.00152,-0.181304,0.319567,-0.165879,-0.196944,-2.04284,0.0977919,-0.0151766,0.108248,0.0183878,0.395974,0.0363761,2.40141,-0.757767,-0.0151286,0.134659,-0.0791831,0.0270141,-1.96995,0.183635,0.319165,0.0503902,0.00525079,0.000542505,0.00554676,0.00759699,0.000914409,0.00379821,-0.00168052,0,0,0,0,0,0,0,0.66608,-29.6544,0.461134,23.9636,0.93536,2.40319,0.0101778,
0.134451,-0.0791951,0.0269623,-1.96984,0.192292,0.316883,0.0502892,-0.00309067,-0.00184578,-0.000281662,0.00257666,0.227565,-0.0622207,-0.00152601,-0.0411331,0.258183,-0.0329483,-0.18762,-0.799737,-0.367205,-0.00375447,0.108248,0.0183878,0.395974,0.0363761,2.40141,-0.757767,-0.0151286,0.134659,-0.0791831,0.0270141,-1.96995,0.183635,0.319165,0.0503902,0.00525079,0.000542505,0.00554676,0.00759699,0.000914409,0.00379821,-0.00168052,0,0,0,0,0,0,0,0.66608,-29.6544,0.461134,23.9636,0.93536,2.40319,0.0101778,
0.134431,-0.0791964,0.0269646,-1.96983,0.194105,0.316346,0.0502771,-0.00298624,-0.00150991,-0.000168544,0.00229595,0.227357,-0.0631791,-0.00152426,0.0652697,0.209923,0.0706985,-0.175448,-0.12991,-0.599012,0.00109113,0.108272,0.0180241,0.396053,0.0356114,2.40143,-0.758452,-0.0151247,0.134574,-0.0792169,0.0270046,-1.96985,0.183613,0.319181,0.0503916,-0.000731757,-0.00043078,-0.00829511,-0.00610832,-0.00554852,-0.0052888,-0.000593554,-0.747819,-0.121661,-1.73023,-1.71316,-0.807866,-1.13588,0.135871,-0.908932,-30.7771,-1.13768,26.3559,1.22284,2.73461,-0.0026396,
0.134211,-0.0791386,0.0267679,-1.96987,0.190155,0.317105,0.050309,-0.00373905,-0.000891257,-0.000917497,0.0018548,0.223815,-0.0635462,-0.00153292,-0.470504,0.386656,-0.468095,-0.275714,-2.21406,-0.229387,-0.00540769,0.108272,0.0180241,0.396053,0.0356114,2.40143,-0.758452,-0.0151247,0.134574,-0.0792169,0.0270046,-1.96985,0.183613,0.319181,0.0503916,-0.000731757,-0.00043078,-0.00829511,-0.00610832,-0.00554852,-0.0052888,-0.000593554,0,0,0,0,0,0,0,-0.908932,-30.7771,-1.13768,26.3559,1.22284,2.73461,-0.0026396,
0.134168,-0.0791281,0.0267475,-1.96987,0.191895,0.316565,0.0502969,-0.0040635,-0.00044946,-0.00124293,0.00151343,0.222545,-0.0643471,-0.00152921,-0.202787,0.276123,-0.203398,-0.213358,-0.793669,-0.500612,0.00231451,0.108272,0.0180241,0.396053,0.0356114,2.40143,-0.758452,-0.0151247,0.134574,-0.0792169,0.0270046,-1.96985,0.183613,0.319181,0.0503916,-0.000731757,-0.00043078,-0.00829511,-0.00610832,-0.00554852,-0.0052888,-0.000593554,0,0,0,0,0,0,0,-0.908932,-30.7771,-1.13768,26.3559,1.22284,2.73461,-0.0026396,
0.134135,-0.0791193,0.0267369,-1.96987,0.193675,0.316011,0.050285,-0.00407967,-0.00014073,-0.00125988,0.00124767,0.22254,-0.0653265,-0.00152161,-0.0101043,0.192956,-0.0105942,-0.166097,-0.00333196,-0.612088,0.00475325,0.108272,0.0180241,0.396053,0.0356114,2.40143,-0.758452,-0.0151247,0.134574,-0.0792169,0.0270046,-1.96985,0.183613,0.319181,0.0503916,-0.000731757,-0.00043078,-0.00829511,-0.00610832,-0.00554852,-0.0052888,-0.000593554,0,0,0,0,0,0,0,-0.908932,-30.7771,-1.13768,26.3559,1.22284,2.73461,-0.0026396,
0.13411,-0.079112,0.0267346,-1.96987,0.195482,0.315448,0.0502731,-0.00388667,6.97274e-05,-0.00106561,0.00104025,0.223198,-0.0663343,-0.00151397,0.120628,0.131536,0.121422,-0.129641,0.411616,-0.629897,0.00477372,0.108363,0.0160061,0.396526,0.0345984,2.40128,-0.759314,-0.0151198,0.134458,-0.0793,0.0270743,-1.96975,0.18365,0.31918,0.0503902,-6.92763e-05,-0.00397967,0.0042741,-0.00449994,-0.00330282,-0.00352997,-0.00136871,0.0828101,-0.443611,1.57115,0.201047,0.280712,0.219855,-0.0968946,-0.119442,-30.1027,-0.387865,25.0864,1.30798,2.62841,0.0101778,
0.134219,-0.0792916,0.0269666,-1.96973,0.190365,0.317132,0.0503042,-0.00410957,0.000164236,-0.00127607,0.000970997,0.221209,-0.0659962,-0.0015312,-0.139316,0.0590677,-0.131536,-0.0432821,-1.24351,0.21133,-0.0107695,0.108363,0.0160061,0.396526,0.0345984,2.40128,-0.759314,-0.0151198,0.134458,-0.0793,0.0270743,-1.96975,0.18365,0.31918,0.0503902,-6.92763e-05,-0.00397967,0.0042741,-0.00449994,-0.00330282,-0.00352997,-0.00136871,0,0,0,0,0,0,0,-0.119442,-30.1027,-0.387865,25.0864,1.30798,2.62841,0.0101778,
0.134187,-0.0792878,0.0269576,-1.96973,0.192128,0.316594,0.0502919,-0.00408558,0.000227221,-0.00124806,0.000903654,0.221059,-0.0662507,-0.00153247,0.0149943,0.0393658,0.0175062,-0.0420897,-0.093876,-0.159088,-0.000791406,0.108363,0.0160061,0.396526,0.0345984,2.40128,-0.759314,-0.0151198,0.134458,-0.0793,0.0270743,-1.96975,0.18365,0.31918,0.0503902,-6.92763e-05,-0.00397967,0.0042741,-0.00449994,-0.00330282,-0.00352997,-0.00136871,0,0,0,0,0,0,0,-0.119442,-30.1027,-0.387865,25.0864,1.30798,2.62841,0.0101778,
0.134162,-0.0792845,0.0269558,-1.96972,0.193928,0.316042,0.0502798,-0.00388148,0.000264739,-0.00104204,0.00083795,0.221838,-0.0668073,-0.00152756,0.127563,0.0234488,0.12876,-0.0410648,0.48728,-0.347834,0.00306481,0.108363,0.0160061,0.396526,0.0345984,2.40128,-0.759314,-0.0151198,0.134458,-0.0793,0.0270743,-1.96975,0.18365,0.31918,0.0503902,-6.92763e-05,-0.00397967,0.0042741,-0.00449994,-0.00330282,-0.00352997,-0.00136871,0,0,0,0,0,0,0,-0.119442,-30.1027,-0.387865,25.0864,1.30798,2.62841,0.0101778,
0.134144,-0.0792816,0.0269605,-1.96972,0.19575,0.31548,0.0502678,-0.0035579,0.000283415,-0.000715951,0.000774954,0.223029,-0.0674888,-0.0015212,0.202238,0.0116722,0.203806,-0.0393728,0.744485,-0.425928,0.00397636,0.108309,0.0157251,0.396421,0.0347453,2.40084,-0.759032,-0.015121,0.134429,-0.0793071,0.0270315,-1.96978,0.183776,0.319155,0.0503961,-0.00660836,-0.00227528,0.0016705,-0.000510011,0.000599135,-0.00175051,0.00114323,-0.817386,0.213048,-0.325451,0.498742,0.487745,0.222432,0.313992,0.412174,-30.0551,0.163588,25.3085,1.21643,2.76116,-0.0429228,
0.134109,-0.0792998,0.0268407,-1.96973,0.190456,0.317224,0.0503132,-0.00406621,0.000302335,-0.00122282,0.000820018,0.220771,-0.0665412,-0.00153251,-0.317694,0.0118252,-0.316793,0.0281653,-1.41173,0.592222,-0.00706687,0.108309,0.0157251,0.396421,0.0347453,2.40084,-0.759032,-0.015121,0.134429,-0.0793071,0.0270315,-1.96978,0.183776,0.319155,0.0503961,-0.00660836,-0.00227528,0.0016705,-0.000510011,0.000599135,-0.00175051,0.00114323,0,0,0,0,0,0,0,0.412174,-30.0551,0.163588,25.3085,1.21643,2.76116,-0.0429228,
0.13407,-0.0792972,0.0268246,-1.96973,0.192209,0.316698,0.050301,-0.00422246,0.00030747,-0.00138222,0.000831925,0.220439,-0.066387,-0.00153043,-0.0976561,0.00320955,-0.0996253,0.00744198,-0.20729,0.0963793,0.00129817,0.108309,0.0157251,0.396421,0.0347453,2.40084,-0.759032,-0.015121,0.134429,-0.0793071,0.0270315,-1.96978,0.183776,0.319155,0.0503961,-0.00660836,-0.00227528,0.0016705,-0.000510011,0.000599135,-0.00175051,0.00114323,0,0,0,0,0,0,0,0.412174,-30.0551,0.163588,25.3085,1.21643,2.76116,-0.0429228,
0.13404,-0.079295,0.0268173,-1.96972,0.194,0.316155,0.050289,-0.00412567,0.000302241,-0.00128812,0.00081999,0.221113,-0.0666795,-0.00152374,0.0604923,-0.00326834,0.0588103,-0.00745937,0.421404,-0.182842,0.0041798,0.108309,0.0157251,0.396421,0.0347453,2.40084,-0.759032,-0.015121,0.134429,-0.0793071,0.0270315,-1.96978,0.183776,0.319155,0.0503961,-0.00660836,-0.00227528,0.0016705,-0.000510011,0.000599135,-0.00175051,0.00114323,0,0,0,0,0,0,0,0.412174,-30.0551,0.163588,25.3085,1.21643,2.76116,-0.0429228,
0.134018,-0.079293,0.0268176,-1.96971,0.195814,0.315601,0.0502771,-0.00385937,0.000290437,-0.00102219,0.000792283,0.222259,-0.0672001,-0.00151654,0.166439,-0.00737754,0.166206,-0.0173168,0.715954,-0.325335,0.00450281,0.108302,0.0158921,0.396599,0.0342557,2.40055,-0.759371,-0.0151187,0.134429,-0.0793155,0.02709,-1.9697,0.183862,0.319165,0.0503909,0.00622153,0.00161548,0.00533097,0.00353618,-0.00142349,-0.001255,-0.0012433,1.60374,0.486345,0.45756,0.505773,-0.252828,0.0619387,-0.298316,0.25745,-30.4796,0.0644055,25.257,1.12487,2.66137,0.00376909,
0.134255,-0.0792795,0.0270491,-1.96966,0.190696,0.317244,0.0503025,-0.00390788,0.000349719,-0.0010566,0.000811031,0.220846,-0.0664508,-0.00153661,-0.0303169,0.0370513,-0.0215034,0.0117171,-0.882695,0.4683,-0.0125418,0.108302,0.0158921,0.396599,0.0342557,2.40055,-0.759371,-0.0151187,0.134429,-0.0793155,0.02709,-1.9697,0.183862,0.319165,0.0503909,0.00622153,0.00161548,0.00533097,0.00353618,-0.00142349,-0.001255,-0.0012433,0,0,0,0,0,0,0,0.25745,-30.4796,0.0644055,25.257,1.12487,2.66137,0.00376909,
0.134228,-0.0792758,0.0270458,-1.96965,0.192472,0.316712,0.0502901,-0.00378395,0.000372031,-0.00092843,0.000805462,0.221075,-0.0664675,-0.00153918,0.0774579,0.0139454,0.080106,-0.00348028,0.142836,-0.0104183,-0.00160942,0.108302,0.0158921,0.396599,0.0342557,2.40055,-0.759371,-0.0151187,0.134429,-0.0793155,0.02709,-1.9697,0.183862,0.319165,0.0503909,0.00622153,0.00161548,0.00533097,0.00353618,-0.00142349,-0.001255,-0.0012433,0,0,0,0,0,0,0,0.25745,-30.4796,0.0644055,25.257,1.12487,2.66137,0.00376909,
0.134208,-0.0792729,0.0270486,-1.96965,0.194281,0.316163,0.050278,-0.00353039,0.000370989,-0.00067357,0.000782683,0.22209,-0.0668921,-0.00153467,0.158471,-0.000651766,0.159288,-0.014237,0.634554,-0.265385,0.00281875,0.108302,0.0158921,0.396599,0.0342557,2.40055,-0.759371,-0.0151187,0.134429,-0.0793155,0.02709,-1.9697,0.183862,0.319165,0.0503909,0.00622153,0.00161548,0.00533097,0.00353618,-0.00142349,-0.001255,-0.0012433,0,0,0,0,0,0,0,0.25745,-30.4796,0.0644055,25.257,1.12487,2.66137,0.00376909,
0.134061,-0.0793377,0.02697,-1.96961,0.190651,0.317292,0.0503094,-0.00412745,0.000308183,-0.00127445,0.000883109,0.219965,-0.0658645,-0.00154095,-0.37316,-0.0392534,-0.375553,0.0627661,-1.32826,0.642224,-0.00392497,0.108323,0.0155222,0.396921,0.0339386,2.4003,-0.759561,-0.0151174,0.134413,-0.0793267,0.0271954,-1.96967,0.183944,0.319168,0.0503916,-0.00532002,-0.00261302,-0.00364536,0.00119271,0.00564331,-0.000919247,-0.00101551,-1.44269,-0.528562,-1.12204,-0.292933,0.883349,0.0419693,0.0284737,0.511356,-30.4518,0.286573,25.5347,1.1734,2.68151,-0.0026396,
0.134019,-0.0793372,0.0269512,-1.9696,0.192402,0.316772,0.0502973,-0.00433547,0.000259412,-0.00148892,0.000927865,0.219731,-0.0656838,-0.00153565,-0.130012,-0.0304822,-0.134042,0.0279726,-0.146365,0.112939,0.00331117,0.108323,0.0155222,0.396921,0.0339386,2.4003,-0.759561,-0.0151174,0.134413,-0.0793267,0.0271954,-1.96967,0.183944,0.319168,0.0503916,-0.00532002,-0.00261302,-0.00364536,0.00119271,0.00564331,-0.000919247,-0.00101551,0,0,0,0,0,0,0,0.511356,-30.4518,0.286573,25.5347,1.1734,2.68151,-0.0026396,
0.133988,-0.0793367,0.0269419,-1.96959,0.19419,0.316234,0.0502854,-0.00426578,0.000220584,-0.00142395,0.000933033,0.220484,-0.0659875,-0.00152687,0.043557,-0.024267,0.0406076,0.00322981,0.470743,-0.18982,0.00548955,0.108323,0.0155222,0.396921,0.0339386,2.4003,-0.759561,-0.0151174,0.134413,-0.0793267,0.0271954,-1.96967,0.183944,0.319168,0.0503916,-0.00532002,-0.00261302,-0.00364536,0.00119271,0.00564331,-0.000919247,-0.00101551,0,0,0,0,0,0,0,0.511356,-30.4518,0.286573,25.5347,1.1734,2.68151,-0.0026396,
0.133964,-0.0793361,0.0269407,-1.96958,0.196002,0.315684,0.0502735,-0.0040103,0.00018974,-0.00117005,0.000911601,0.221698,-0.0665444,-0.00151829,0.15967,-0.019278,0.158685,-0.0133947,0.758768,-0.348021,0.00536595,0.108323,0.0155222,0.396921,0.0339386,2.4003,-0.759561,-0.0151174,0.134413,-0.0793267,0.0271954,-1.96967,0.183944,0.319168,0.0503916,-0.00532002,-0.00261302,-0.00364536,0.00119271,0.00564331,-0.000919247,-0.00101551,0,0,0,0,0,0,0,0.511356,-30.4518,0.286573,25.5347,1.1734,2.68151,-0.0026396,
0.134061,-0.0793377,0.02697,-1.96961,0.190651,0.317292,0.0503094,-0.00451138,0.000163184,-0.00167164,0.000986243,0.219651,-0.0655864,-0.00152784,-0.313171,-0.0165973,-0.313492,0.0466513,-1.27924,0.59876,-0.00597331,0.108324,0.0153555,0.397438,0.0333686,2.3999,-0.75993,-0.0151148,0.134435,-0.0793356,0.0273867,-1.96958,0.184065,0.319171,0.0503954,0.00394236,-0.000831647,0.00595068,0.00184313,0.00830629,-0.00219291,0.000366525,1.1578,0.222671,1.1995,0.0813023,0.332873,-0.159208,0.172754,0.336795,-30.3288,0.163588,25.257,1.06353,2.65496,-0.0365141,
0.134019,-0.0793372,0.0269512,-1.9696,0.192402,0.316772,0.0502973,-0.00464261,0.000143412,-0.00180667,0.00101037,0.21948,-0.0654613,-0.00152517,-0.0820212,-0.0123573,-0.0843939,0.0150808,-0.107146,0.0781672,0.0016725,0.108324,0.0153555,0.397438,0.0333686,2.3999,-0.75993,-0.0151148,0.134435,-0.0793356,0.0273867,-1.96958,0.184065,0.319171,0.0503954,0.00394236,-0.000831647,0.00595068,0.00184313,0.00830629,-0.00219291,0.000366525,0,0,0,0,0,0,0,0.336795,-30.3288,0.163588,25.257,1.06353,2.65496,-0.0365141,
0.133988,-0.0793367,0.0269419,-1.96959,0.19419,0.316234,0.0502854,-0.00451149,0.000127785,-0.00167815,0.000999039,0.220283,-0.0658095,-0.00151848,0.08195,-0.00976707,0.0803263,-0.00708363,0.502118,-0.217637,0.00417861,0.108324,0.0153555,0.397438,0.0333686,2.3999,-0.75993,-0.0151148,0.134435,-0.0793356,0.0273867,-1.96958,0.184065,0.319171,0.0503954,0.00394236,-0.000831647,0.00595068,0.00184313,0.00830629,-0.00219291,0.000366525,0,0,0,0,0,0,0,0.336795,-30.3288,0.163588,25.257,1.06353,2.65496,-0.0365141,
0.133964,-0.0793361,0.0269407,-1.96958,0.196002,0.315684,0.0502735,-0.00420688,0.0001155,-0.00137341,0.000964406,0.221537,-0.0664019,-0.00151157,0.190385,-0.00767806,0.19046,-0.0216455,0.783868,-0.370274,0.0043172,0.108324,0.0153555,0.397438,0.0333686,2.3999,-0.75993,-0.0151148,0.134435,-0.0793356,0.0273867,-1.96958,0.184065,0.319171,0.0503954,0.00394236,-0.000831647,0.00595068,0.00184313,0.00830629,-0.00219291,0.000366525,0,0,0,0,0,0,0,0.336795,-30.3288,0.163588,25.257,1.06353,2.65496,-0.0365141,
0.134258,-0.0793277,0.0273416,-1.96953,0.190992,0.317221,0.0503091,-0.00417814,0.000140965,-0.0013294,0.000981783,0.220397,-0.0658331,-0.00153116,0.0179626,0.0159154,0.0275069,0.0108605,-0.713043,0.355507,-0.0122447,0.108322,0.0136828,0.397731,0.0326262,2.39952,-0.760459,-0.0151115,0.134407,-0.0794044,0.0274271,-1.96953,0.184172,0.319181,0.0503914,0.00521578,0.00164721,0.00335395,0.000254133,0.00906252,-0.00189462,0.000816179,0.159178,0.309858,-0.324591,-0.198624,0.0945291,0.0372854,0.0562068,0.412174,-30.1027,0.211195,25.1855,1.25946,2.59545,-0.0301054,
0.134232,-0.0793261,0.0273387,-1.96952,0.192771,0.316688,0.0502968,-0.00399137,0.000151842,-0.00113685,0.000968526,0.220794,-0.0659746,-0.00153405,0.11673,0.006798,0.120347,-0.00828533,0.248152,-0.0884405,-0.00180235,0.108322,0.0136828,0.397731,0.0326262,2.39952,-0.760459,-0.0151115,0.134407,-0.0794044,0.0274271,-1.96953,0.184172,0.319181,0.0503914,0.00521578,0.00164721,0.00335395,0.000254133,0.00906252,-0.00189462,0.000816179,0,0,0,0,0,0,0,0.412174,-30.1027,0.211195,25.1855,1.25946,2.59545,-0.0301054,
0.134212,-0.0793248,0.0273419,-1.96951,0.194582,0.31614,0.0502846,-0.00368787,0.000153237,-0.000830451,0.00093419,0.221913,-0.0664897,-0.00153015,0.189687,0.000872365,0.191497,-0.0214602,0.699952,-0.321938,0.00243496,0.108322,0.0136828,0.397731,0.0326262,2.39952,-0.760459,-0.0151115,0.134407,-0.0794044,0.0274271,-1.96953,0.184172,0.319181,0.0503914,0.00521578,0.00164721,0.00335395,0.000254133,0.00906252,-0.00189462,0.000816179,0,0,0,0,0,0,0,0.412174,-30.1027,0.211195,25.1855,1.25946,2.59545,-0.0301054,
0.134218,-0.0793481,0.0273694,-1.9695,0.19108,0.317197,0.0503058,-0.00379659,0.000305299,-0.000928463,0.000868728,0.220581,-0.0660719,-0.00154507,-0.0679521,0.0950384,-0.0612576,-0.0409136,-0.832745,0.261147,-0.00932391,0.108322,0.0136828,0.397731,0.0326262,2.39952,-0.760459,-0.0151115,0.134407,-0.0794044,0.0274271,-1.96953,0.184172,0.319181,0.0503914,0.00521578,0.00164721,0.00335395,0.000254133,0.00906252,-0.00189462,0.000816179,0,0,0,0,0,0,0,0.412174,-30.1027,0.211195,25.1855,1.25946,2.59545,-0.0301054,
0.134191,-0.0793423,0.0273654,-1.9695,0.192855,0.316659,0.0502935,-0.0037125,0.000388261,-0.000842182,0.000805823,0.220839,-0.0663144,-0.0015445,0.0525561,0.0518517,0.0539253,-0.0393157,0.16096,-0.151573,0.000358225,0.108322,0.0136828,0.397731,0.0326262,2.39952,-0.760459,-0.0151115,0.134407,-0.0794044,0.0274271,-1.96953,0.184172,0.319181,0.0503914,0.00521578,0.00164721,0.00335395,0.000254133,0.00906252,-0.00189462,0.000816179,0,0,0,0,0,0,0,0.412174,-30.1027,0.211195,25.1855,1.25946,2.59545,-0.0301054,
0.13417,-0.0793378,0.0273678,-1.9695,0.194663,0.316105,0.0502814,-0.00348552,0.000425001,-0.000615169,0.000745325,0.221861,-0.0668898,-0.00153802,0.141865,0.0229624,0.141884,-0.0378114,0.639291,-0.359598,0.00404869,0.108372,0.0119135,0.398096,0.0317972,2.39922,-0.761107,-0.0151075,0.134392,-0.0794809,0.0274696,-1.96945,0.184251,0.319179,0.0503932,0.0032188,-0.001431,0.00815581,-0.00299425,0.000752115,-0.00158179,4.77482e-05,-0.249623,-0.384777,0.600232,-0.406048,-1.0388,0.0391037,-0.0960538,0.562931,-30.1265,0.338148,25.3601,1.35101,2.622,-0.0163725,
0.134155,-0.0793341,0.0273758,-1.96949,0.196491,0.315542,0.0502694,-0.00316379,0.000432189,-0.000292813,0.000688061,0.223188,-0.0676005,-0.00153025,0.20108,0.00449221,0.201472,-0.0357896,0.828775,-0.444177,0.00485298,0.108372,0.0119135,0.398096,0.0317972,2.39922,-0.761107,-0.0151075,0.134392,-0.0794809,0.0274696,-1.96945,0.184251,0.319179,0.0503932,0.0032188,-0.001431,0.00815581,-0.00299425,0.000752115,-0.00158179,4.77482e-05,0,0,0,0,0,0,0,0.562931,-30.1265,0.338148,25.3601,1.35101,2.622,-0.0163725,
0.134221,-0.0794484,0.0274328,-1.96944,0.19108,0.317147,0.0503061,-0.00333729,0.000490942,-0.00045564,0.00066627,0.22155,-0.0670885,-0.00154712,-0.108436,0.0367209,-0.101767,-0.0136197,-1.02329,0.320001,-0.0105424,0.108372,0.0119135,0.398096,0.0317972,2.39922,-0.761107,-0.0151075,0.134392,-0.0794809,0.0274696,-1.96945,0.184251,0.319179,0.0503932,0.0032188,-0.001431,0.00815581,-0.00299425,0.000752115,-0.00158179,4.77482e-05,0,0,0,0,0,0,0,0.562931,-30.1265,0.338148,25.3601,1.35101,2.622,-0.0163725,
0.134195,-0.0794436,0.0274301,-1.96943,0.192855,0.316605,0.0502937,-0.00331545,0.000510826,-0.000432347,0.00063972,0.221601,-0.0672205,-0.00154728,0.0136453,0.0124274,0.0145581,-0.0165938,0.031959,-0.082558,-9.64357e-05,0.108372,0.0119135,0.398096,0.0317972,2.39922,-0.761107,-0.0151075,0.134392,-0.0794809,0.0274696,-1.96945,0.184251,0.319179,0.0503932,0.0032188,-0.001431,0.00815581,-0.00299425,0.000752115,-0.00158179,4.77482e-05,0,0,0,0,0,0,0,0.562931,-30.1265,0.338148,25.3601,1.35101,2.622,-0.0163725,
0.134175,-0.0794398,0.0274334,-1.96943,0.194662,0.316049,0.0502816,-0.00314553,0.000504374,-0.00026338,0.000609124,0.222477,-0.0676832,-0.00154091,0.106203,-0.00403286,0.105604,-0.019122,0.547059,-0.289146,0.00398153,0.108309,0.011934,0.398215,0.0315501,2.39888,-0.761205,-0.0151067,0.134409,-0.0794832,0.0275315,-1.96941,0.184344,0.319172,0.0503909,0.00443126,-0.00271841,0.00361407,0.0079245,-0.00189692,-0.00256668,-0.00103679,0.151558,-0.160926,-0.567717,1.36484,-0.331129,-0.123111,-0.135567,-0.0440639,-30.2297,-0.237108,25.3323,1.22284,2.68792,0.00376909,
0.134161,-0.0794367,0.0274421,-1.96942,0.196491,0.315483,0.0502695,-0.00287465,0.000481612,7.09241e-06,0.000576311,0.223692,-0.0682868,-0.00153296,0.169297,-0.014226,0.169045,-0.0205083,0.759435,-0.377242,0.00496974,0.108309,0.011934,0.398215,0.0315501,2.39888,-0.761205,-0.0151067,0.134409,-0.0794832,0.0275315,-1.96941,0.184344,0.319172,0.0503909,0.00443126,-0.00271841,0.00361407,0.0079245,-0.00189692,-0.00256668,-0.00103679,0,0,0,0,0,0,0,-0.0440639,-30.2297,-0.237108,25.3323,1.22284,2.68792,0.00376909,
0.134203,-0.0795438,0.0274579,-1.9693,0.191165,0.317337,0.0503032,-0.00320749,0.000222631,-0.000321157,0.000819162,0.221934,-0.0669094,-0.0015481,-0.208024,-0.161863,-0.205156,0.151782,-1.09838,0.860842,-0.00946783,0.108309,0.011934,0.398215,0.0315501,2.39888,-0.761205,-0.0151067,0.134409,-0.0794832,0.0275315,-1.96941,0.184344,0.319172,0.0503909,0.00443126,-0.00271841,0.00361407,0.0079245,-0.00189692,-0.00256668,-0.00103679,0,0,0,0,0,0,0,-0.0440639,-30.2297,-0.237108,25.3323,1.22284,2.68792,0.00376909,
0.134174,-0.079549,0.0274518,-1.96929,0.192939,0.316819,0.0502908,-0.0032917,4.77633e-05,-0.000407765,0.00095732,0.221893,-0.0664851,-0.00154715,-0.052628,-0.109292,-0.0541301,0.0863487,-0.0257885,0.265224,0.000593587,0.108309,0.011934,0.398215,0.0315501,2.39888,-0.761205,-0.0151067,0.134409,-0.0794832,0.0275315,-1.96941,0.184344,0.319172,0.0503909,0.00443126,-0.00271841,0.00361407,0.0079245,-0.00189692,-0.00256668,-0.00103679,0,0,0,0,0,0,0,-0.0440639,-30.2297,-0.237108,25.3323,1.22284,2.68792,0.00376909,
0.134152,-0.0795533,0.0274525,-1.96928,0.194746,0.316282,0.0502787,-0.00318989,-6.69498e-05,-0.000309229,0.00102063,0.222698,-0.0666174,-0.00154009,0.0636322,-0.0716957,0.0615847,0.0395705,0.503155,-0.0827008,0.00441692,0.108328,0.0117503,0.398576,0.0315424,2.39858,-0.761122,-0.0151069,0.134455,-0.0794859,0.0276592,-1.9694,0.18445,0.319163,0.0503954,0.010538,-0.00166601,0.00860991,0.00374455,-0.00181,-0.00218886,0.000582629,0.763348,0.13155,0.62448,-0.522493,0.010864,0.0472277,0.202428,-0.349545,-30.2773,-0.435472,25.3839,1.1615,2.7282,-0.0365141,
0.134351,-0.0795043,0.0276906,-1.96933,0.191361,0.31722,0.0503057,-0.00317717,-8.49983e-05,-0.000282465,0.00106058,0.221552,-0.0660229,-0.00155894,0.0079452,-0.0112803,0.0167275,0.0249691,-0.716467,0.371584,-0.0117849,0.108328,0.0117503,0.398576,0.0315424,2.39858,-0.761122,-0.0151069,0.134455,-0.0794859,0.0276592,-1.9694,0.18445,0.319163,0.0503954,0.010538,-0.00166601,0.00860991,0.00374455,-0.00181,-0.00218886,0.000582629,0,0,0,0,0,0,0,-0.349545,-30.2773,-0.435472,25.3839,1.1615,2.7282,-0.0365141,
0.134331,-0.0795053,0.0276937,-1.96933,0.193149,0.316686,0.0502932,-0.00304625,-9.40398e-05,-0.000148395,0.00105837,0.221931,-0.0661516,-0.00155947,0.0818272,-0.00565095,0.0837937,-0.00138148,0.23704,-0.0804693,-0.000327461,0.108328,0.0117503,0.398576,0.0315424,2.39858,-0.761122,-0.0151069,0.134455,-0.0794859,0.0276592,-1.9694,0.18445,0.319163,0.0503954,0.010538,-0.00166601,0.00860991,0.00374455,-0.00181,-0.00218886,0.000582629,0,0,0,0,0,0,0,-0.349545,-30.2773,-0.435472,25.3839,1.1615,2.7282,-0.0365141,
0.134316,-0.0795062,0.0277016,-1.96932,0.194967,0.316137,0.050281,-0.00281966,-9.71611e-05,7.7919e-05,0.00102708,0.223009,-0.0666603,-0.00155259,0.141621,-0.00195084,0.141446,-0.0195582,0.673447,-0.317907,0.00429499,0.108328,0.0117503,0.398576,0.0315424,2.39858,-0.761122,-0.0151069,0.134455,-0.0794859,0.0276592,-1.9694,0.18445,0.319163,0.0503954,0.010538,-0.00166601,0.00860991,0.00374455,-0.00181,-0.00218886,0.000582629,0,0,0,0,0,0,0,-0.349545,-30.2773,-0.435472,25.3839,1.1615,2.7282,-0.0365141,
0.134305,-0.0795069,0.0277139,-1.96931,0.196804,0.315576,0.050269,-0.00252714,-9.57486e-05,0.000370121,0.000977354,0.224333,-0.0673388,-0.0015437,0.182821,0.000882822,0.182626,-0.0310786,0.827509,-0.42408,0.00555937,0.108344,0.00998331,0.399123,0.0306609,2.39819,-0.761711,-0.0151027,0.134446,-0.0795498,0.0278023,-1.96933,0.184569,0.319161,0.0503954,-0.0043697,-0.00241367,-0.000585628,0.0124072,0.00473457,-0.000233458,0.000426068,-1.86347,-0.0934577,-1.14944,1.08283,0.818072,0.244425,-0.0195701,0.106693,-30.8287,-0.0863513,25.7092,1.14959,2.7813,-0.0365141,
0.134127,-0.0796373,0.0276122,-1.96918,0.191353,0.317476,0.0503117,-0.00323443,-0.000346547,-0.000343732,0.00125301,0.222053,-0.0656243,-0.0015502,-0.442051,-0.156749,-0.446158,0.172286,-1.42499,1.07153,-0.00406234,0.108344,0.00998331,0.399123,0.0306609,2.39819,-0.761711,-0.0151027,0.134446,-0.0795498,0.0278023,-1.96933,0.184569,0.319161,0.0503954,-0.0043697,-0.00241367,-0.000585628,0.0124072,0.00473457,-0.000233458,0.000426068,0,0,0,0,0,0,0,0.106693,-30.8287,-0.0863513,25.7092,1.14959,2.7813,-0.0365141,
0.134088,-0.0796461,0.0275964,-1.96916,0.193113,0.316975,0.0502995,-0.00355092,-0.000497431,-0.000669111,0.00139493,0.221634,-0.0650318,-0.00154436,-0.197809,-0.0943028,-0.203362,0.0886967,-0.261496,0.370356,0.00364915,0.108344,0.00998331,0.399123,0.0306609,2.39819,-0.761711,-0.0151027,0.134446,-0.0795498,0.0278023,-1.96933,0.184569,0.319161,0.0503954,-0.0043697,-0.00241367,-0.000585628,0.0124072,0.00473457,-0.000233458,0.000426068,0,0,0,0,0,0,0,0.106693,-30.8287,-0.0863513,25.7092,1.14959,2.7813,-0.0365141,
0.134059,-0.0796533,0.0275895,-1.96915,0.194908,0.316451,0.0502876,-0.00358354,-0.000577978,-0.000708504,0.00144326,0.222188,-0.0651148,-0.00153467,-0.0203887,-0.0503414,-0.0246205,0.0302073,0.346157,-0.0519054,0.0060585,0.108344,0.00998331,0.399123,0.0306609,2.39819,-0.761711,-0.0151027,0.134446,-0.0795498,0.0278023,-1.96933,0.184569,0.319161,0.0503954,-0.0043697,-0.00241367,-0.000585628,0.0124072,0.00473457,-0.000233458,0.000426068,0,0,0,0,0,0,0,0.106693,-30.8287,-0.0863513,25.7092,1.14959,2.7813,-0.0365141,
0.134036,-0.0796592,0.0275902,-1.96914,0.196726,0.315912,0.0502757,-0.0034219,-0.000609321,-0.00055011,0.00142837,0.223199,-0.0655814,-0.00152502,0.101025,-0.0195896,0.0989961,-0.00930287,0.631892,-0.291639,0.00603088,0.108305,0.00880408,0.399529,0.029578,2.39789,-0.762607,-0.0150974,0.13448,-0.0796054,0.0279215,-1.96919,0.184635,0.319175,0.0503909,-0.00128285,-0.00148151,0.00655994,0.00490191,0.0110448,-0.00198707,-0.00135377,0.385856,0.11652,0.893196,-0.938159,0.788781,-0.219201,-0.22248,0.562931,-30.1265,0.389723,25.1102,1.15509,2.63482,0.00376909,
0.134263,-0.0796302,0.027837,-1.96911,0.191555,0.317293,0.0503054,-0.00365483,-0.000552182,-0.000774985,0.00143082,0.221596,-0.064934,-0.00153937,-0.145578,0.035712,-0.140547,0.00152698,-1.00187,0.404624,-0.00896742,0.108305,0.00880408,0.399529,0.029578,2.39789,-0.762607,-0.0150974,0.13448,-0.0796054,0.0279215,-1.96919,0.184635,0.319175,0.0503909,-0.00128285,-0.00148151,0.00655994,0.00490191,0.0110448,-0.00198707,-0.00135377,0,0,0,0,0,0,0,0.562931,-30.1265,0.389723,25.1102,1.15509,2.63482,0.00376909,
0.134234,-0.0796324,0.0278309,-1.9691,0.193329,0.316768,0.0502931,-0.00365416,-0.00049692,-0.000773354,0.00138905,0.221629,-0.0650653,-0.00153877,0.000417846,0.0345388,0.00101895,-0.026102,0.0206038,-0.0820687,0.000374387,0.108305,0.00880408,0.399529,0.029578,2.39789,-0.762607,-0.0150974,0.13448,-0.0796054,0.0279215,-1.96919,0.184635,0.319175,0.0503909,-0.00128285,-0.00148151,0.00655994,0.00490191,0.0110448,-0.00198707,-0.00135377,0,0,0,0,0,0,0,0.562931,-30.1265,0.389723,25.1102,1.15509,2.63482,0.00376909,
0.134212,-0.0796343,0.0278316,-1.96909,0.195136,0.316226,0.050281,-0.00348186,-0.000444664,-0.000601349,0.00131859,0.222469,-0.0656177,-0.00153253,0.107685,0.0326601,0.107504,-0.044041,0.524638,-0.345201,0.00389807,0.108305,0.00880408,0.399529,0.029578,2.39789,-0.762607,-0.0150974,0.13448,-0.0796054,0.0279215,-1.96919,0.184635,0.319175,0.0503909,-0.00128285,-0.00148151,0.00655994,0.00490191,0.0110448,-0.00198707,-0.00135377,0,0,0,0,0,0,0,0.562931,-30.1265,0.389723,25.1102,1.15509,2.63482,0.00376909,
0.134263,-0.0796302,0.027837,-1.96911,0.191555,0.317293,0.0503054,-0.0037028,-0.000420456,-0.000815976,0.00134299,0.221012,-0.064963,-0.00154538,-0.138083,0.0151298,-0.134142,0.0152502,-0.910546,0.409153,-0.00802842,0.108281,0.00580971,0.399968,0.0281924,2.39759,-0.763765,-0.0150907,0.134475,-0.0797334,0.0279738,-1.96907,0.184692,0.319181,0.0503894,0.000636803,0.00478202,0.00608373,0.00917229,0.00209179,-0.000246315,-0.000915119,0.239957,0.782941,-0.0595259,0.533797,-1.11913,0.217594,0.0548315,1.14612,-30.1265,0.913405,24.884,1.24664,2.58263,0.017502,
0.134234,-0.0796324,0.0278309,-1.9691,0.193329,0.316768,0.0502931,-0.00369253,-0.000391539,-0.000806147,0.00131879,0.221162,-0.0650885,-0.00154357,0.0064139,0.018073,0.0061428,-0.0151234,0.0936646,-0.0784455,0.00112558,0.108281,0.00580971,0.399968,0.0281924,2.39759,-0.763765,-0.0150907,0.134475,-0.0797334,0.0279738,-1.96907,0.184692,0.319181,0.0503894,0.000636803,0.00478202,0.00608373,0.00917229,0.00209179,-0.000246315,-0.000915119,0,0,0,0,0,0,0,1.14612,-30.1265,0.913405,24.884,1.24664,2.58263,0.017502,
0.134212,-0.0796343,0.0278316,-1.96909,0.195136,0.316226,0.050281,-0.00351256,-0.000360359,-0.000627583,0.00126238,0.222094,-0.0656362,-0.00153638,0.112482,0.0194875,0.111603,-0.0352582,0.583087,-0.342302,0.00449902,0.108281,0.00580971,0.399968,0.0281924,2.39759,-0.763765,-0.0150907,0.134475,-0.0797334,0.0279738,-1.96907,0.184692,0.319181,0.0503894,0.000636803,0.00478202,0.00608373,0.00917229,0.00209179,-0.000246315,-0.000915119,0,0,0,0,0,0,0,1.14612,-30.1265,0.913405,24.884,1.24664,2.58263,0.017502,
0.134195,-0.0796358,0.0278383,-1.96909,0.196963,0.315671,0.0502691,-0.00321923,-0.000328023,-0.000334268,0.00118654,0.223347,-0.0663828,-0.00152819,0.183336,0.0202097,0.183322,-0.047396,0.782733,-0.46659,0.00511353,0.108281,0.00580971,0.399968,0.0281924,2.39759,-0.763765,-0.0150907,0.134475,-0.0797334,0.0279738,-1.96907,0.184692,0.319181,0.0503894,0.000636803,0.00478202,0.00608373,0.00917229,0.00209179,-0.000246315,-0.000915119,0,0,0,0,0,0,0,1.14612,-30.1265,0.913405,24.884,1.24664,2.58263,0.017502,
0.134259,-0.0796908,0.0278912,-1.96899,0.191526,0.317363,0.0503023,-0.00350954,-0.000178481,-0.000617036,0.00116623,0.221554,-0.0655422,-0.00154292,-0.181446,0.0934638,-0.17673,-0.012695,-1.12079,0.525364,-0.00920165,0.108334,0.0037607,0.400423,0.0274729,2.3974,-0.764321,-0.0150874,0.13454,-0.0798099,0.0280554,-1.969,0.184742,0.319168,0.0503954,0.00580396,-0.000262028,-0.000684603,0.00198973,0.00255011,-0.00378171,0.000407653,0.645895,-0.630506,-0.846042,-0.897821,0.0572896,-0.441925,0.165346,-0.325741,-30.2535,-0.562425,25.5823,1.08184,2.76757,-0.0365141,
0.134229,-0.0796885,0.0278844,-1.96899,0.193295,0.316837,0.05029,-0.00355423,-8.73842e-05,-0.00066185,0.00111874,0.221478,-0.0655702,-0.00154201,-0.0279346,0.0569357,-0.0280087,-0.0296794,-0.0474762,-0.0175105,0.000569123,0.108334,0.0037607,0.400423,0.0274729,2.3974,-0.764321,-0.0150874,0.13454,-0.0798099,0.0280554,-1.969,0.184742,0.319168,0.0503954,0.00580396,-0.000262028,-0.000684603,0.00198973,0.00255011,-0.00378171,0.000407653,0,0,0,0,0,0,0,-0.325741,-30.2535,-0.562425,25.5823,1.08184,2.76757,-0.0365141,
0.134206,-0.0796871,0.0278846,-1.96898,0.195098,0.316293,0.0502779,-0.0034166,-3.38679e-05,-0.000525763,0.00105414,0.222259,-0.0660668,-0.0015352,0.0860238,0.0334477,0.0850544,-0.0403781,0.488496,-0.310391,0.00425321,0.108334,0.0037607,0.400423,0.0274729,2.3974,-0.764321,-0.0150874,0.13454,-0.0798099,0.0280554,-1.969,0.184742,0.319168,0.0503954,0.00580396,-0.000262028,-0.000684603,0.00198973,0.00255011,-0.00378171,0.000407653,0,0,0,0,0,0,0,-0.325741,-30.2535,-0.562425,25.5823,1.08184,2.76757,-0.0365141,
0.134189,-0.0796862,0.0278908,-1.96897,0.196922,0.315736,0.050266,-0.00315512,-3.66805e-06,-0.000264663,0.000980328,0.223411,-0.0667848,-0.00152717,0.163422,0.0188749,0.163188,-0.0461322,0.720007,-0.44876,0.00501829,0.108334,0.0037607,0.400423,0.0274729,2.3974,-0.764321,-0.0150874,0.13454,-0.0798099,0.0280554,-1.969,0.184742,0.319168,0.0503954,0.00580396,-0.000262028,-0.000684603,0.00198973,0.00255011,-0.00378171,0.000407653,0,0,0,0,0,0,0,-0.325741,-30.2535,-0.562425,25.5823,1.08184,2.76757,-0.0365141,
0.134312,-0.0797947,0.0279592,-1.96896,0.191548,0.317199,0.0503099,-0.0034862,6.29204e-05,-0.000589362,0.000958105,0.221508,-0.066205,-0.00154097,-0.206925,0.0416178,-0.202937,-0.0138894,-1.18954,0.362393,-0.00862135,0.108334,0.0037607,0.400423,0.0274729,2.3974,-0.764321,-0.0150874,0.13454,-0.0798099,0.0280554,-1.969,0.184742,0.319168,0.0503954,0.00580396,-0.000262028,-0.000684603,0.00198973,0.00255011,-0.00378171,0.000407653,0,0,0,0,0,0,0,-0.325741,-30.2535,-0.562425,25.5823,1.08184,2.76757,-0.0365141,
0.134281,-0.0797927,0.0279517,-1.96895,0.193314,0.316664,0.0502976,-0.00355603,9.99888e-05,-0.000659904,0.000918047,0.221365,-0.0663376,-0.0015397,-0.0436419,0.0231678,-0.0440885,-0.0250365,-0.0894275,-0.0828916,0.000790996,0.108337,0.00271395,0.40077,0.026849,2.39731,-0.764854,-0.0150844,0.134548,-0.0798558,0.028147,-1.96895,0.184766,0.319187,0.0503979,0.00576975,-0.00202366,0.0045328,0.0025518,-0.00299769,-0.000869951,0.000164741,-0.00427684,-0.220205,0.652175,0.0702589,-0.693476,0.36397,-0.030364,-0.198788,-30.2297,-0.435472,25.0864,1.22284,2.54876,-0.0301054,
0.134258,-0.0797913,0.0279512,-1.96895,0.195115,0.316113,0.0502856,-0.00343316,0.000116554,-0.000538853,0.000866219,0.222109,-0.066847,-0.00153285,0.0767908,0.0103534,0.075657,-0.0323922,0.465031,-0.318362,0.00427832,0.108337,0.00271395,0.40077,0.026849,2.39731,-0.764854,-0.0150844,0.134548,-0.0798558,0.028147,-1.96895,0.184766,0.319187,0.0503979,0.00576975,-0.00202366,0.0045328,0.0025518,-0.00299769,-0.000869951,0.000164741,0,0,0,0,0,0,0,-0.198788,-30.2297,-0.435472,25.0864,1.22284,2.54876,-0.0301054,
0.134362,-0.0798727,0.0280946,-1.96888,0.191566,0.317262,0.0503103,-0.00360366,6.53396e-05,-0.000699831,0.000925405,0.220623,-0.0661504,-0.00154858,-0.106561,-0.0320092,-0.100611,0.0369912,-0.928564,0.435408,-0.00982509,0.108337,0.00271395,0.40077,0.026849,2.39731,-0.764854,-0.0150844,0.134548,-0.0798558,0.028147,-1.96895,0.184766,0.319187,0.0503979,0.00576975,-0.00202366,0.0045328,0.0025518,-0.00299769,-0.000869951,0.000164741,0,0,0,0,0,0,0,-0.198788,-30.2297,-0.435472,25.0864,1.22284,2.54876,-0.0301054,
0.134334,-0.0798738,0.0280904,-1.96888,0.193338,0.31673,0.050298,-0.00356943,2.63402e-05,-0.000664733,0.000939182,0.220807,-0.066216,-0.00154775,0.021392,-0.0243746,0.021936,0.00861073,0.114601,-0.041004,0.00051295,0.108337,0.00271395,0.40077,0.026849,2.39731,-0.764854,-0.0150844,0.134548,-0.0798558,0.028147,-1.96895,0.184766,0.319187,0.0503979,0.00576975,-0.00202366,0.0045328,0.0025518,-0.00299769,-0.000869951,0.000164741,0,0,0,0,0,0,0,-0.198788,-30.2297,-0.435472,25.0864,1.22284,2.54876,-0.0301054,
0.134313,-0.0798748,0.0280926,-1.96887,0.195144,0.316181,0.0502859,-0.0033815,-3.7278e-06,-0.00047792,0.000921127,0.221795,-0.0666919,-0.00154059,0.117457,-0.0187925,0.116758,-0.0112848,0.617474,-0.297445,0.00447696,0.108334,0.00217147,0.401102,0.0268812,2.39706,-0.764729,-0.0150848,0.134603,-0.0798588,0.0282743,-1.96895,0.184848,0.319163,0.0503939,0.00321971,-0.000279626,0.00141542,0.000607738,0.00249001,-0.00164587,-6.50852e-05,-0.318754,0.218005,-0.389673,-0.243007,0.685963,-0.0969897,-0.0287283,-0.373349,-30.428,-0.562425,25.6339,1.25946,2.74102,-0.0227812,
0.134298,-0.0798757,0.0281004,-1.96886,0.196971,0.315621,0.0502739,-0.00308971,-2.64243e-05,-0.000186378,0.000882343,0.223104,-0.0673603,-0.00153201,0.182372,-0.0141853,0.182214,-0.02424,0.818509,-0.417754,0.00536357,0.108334,0.00217147,0.401102,0.0268812,2.39706,-0.764729,-0.0150848,0.134603,-0.0798588,0.0282743,-1.96895,0.184848,0.319163,0.0503939,0.00321971,-0.000279626,0.00141542,0.000607738,0.00249001,-0.00164587,-6.50852e-05,0,0,0,0,0,0,0,-0.373349,-30.428,-0.562425,25.6339,1.25946,2.74102,-0.0227812,
0.13437,-0.0798356,0.0281743,-1.96891,0.19164,0.3172,0.0503084,-0.00344756,6.77129e-05,-0.000539221,0.000864187,0.221213,-0.0666796,-0.00154465,-0.223661,0.0588357,-0.220527,-0.0113474,-1.18191,0.425416,-0.00790149,0.108334,0.00217147,0.401102,0.0268812,2.39706,-0.764729,-0.0150848,0.134603,-0.0798588,0.0282743,-1.96895,0.184848,0.319163,0.0503939,0.00321971,-0.000279626,0.00141542,0.000607738,0.00249001,-0.00164587,-6.50852e-05,0,0,0,0,0,0,0,-0.373349,-30.428,-0.562425,25.6339,1.25946,2.74102,-0.0227812,
0.134339,-0.079833,0.0281663,-1.9689,0.193404,0.316665,0.0502961,-0.00353616,0.000120973,-0.000629639,0.000830178,0.221089,-0.0667345,-0.00154248,-0.0553764,0.0332877,-0.0565111,-0.0212559,-0.077788,-0.0343014,0.00135803,0.108334,0.00217147,0.401102,0.0268812,2.39706,-0.764729,-0.0150848,0.134603,-0.0798588,0.0282743,-1.96895,0.184848,0.319163,0.0503939,0.00321971,-0.000279626,0.00141542,0.000607738,0.00249001,-0.00164587,-6.50852e-05,0,0,0,0,0,0,0,-0.373349,-30.428,-0.562425,25.6339,1.25946,2.74102,-0.0227812,
