xiao-wang007/linearmpc_panda/paper_data/panda_torque_PD_controller_Start_at_0_torque_rate_limiter/2/trajectory.csv
Commanded Joint 0 Position,Commanded Joint 1 Position,Commanded Joint 2 Position,Commanded Joint 3 Position,Commanded Joint 4 Position,Commanded Joint 5 Position,Commanded Joint 6 Position,Commanded Joint 0 Velocity,Commanded Joint 1 Velocity,Commanded Joint 2 Velocity,Commanded Joint 3 Velocity,Commanded Joint 4 Velocity,Commanded Joint 5 Velocity,Commanded Joint 6 Velocity,Commanded Joint 0 Acceleration,Commanded Joint 1 Acceleration,Commanded Joint 2 Acceleration,Commanded Joint 3 Acceleration,Commanded Joint 4 Acceleration,Commanded Joint 5 Acceleration,Commanded Joint 6 Acceleration,Commanded Joint 0 Torque,Commanded Joint 1 Torque,Commanded Joint 2 Torque,Commanded Joint 3 Torque,Commanded Joint 4 Torque,Commanded Joint 5 Torque,Commanded Joint 6 Torque,Actual Joint 0 Position,Actual Joint 1 Position,Actual Joint 2 Position,Actual Joint 3 Position,Actual Joint 4 Position,Actual Joint 5 Position,Actual Joint 6 Position,Actual Joint 0 Velocity,Actual Joint 1 Velocity,Actual Joint 2 Velocity,Actual Joint 3 Velocity,Actual Joint 4 Velocity,Actual Joint 5 Velocity,Actual Joint 6 Velocity,Actual Joint 0 Acceleration,Actual Joint 1 Acceleration,Actual Joint 2 Acceleration,Actual Joint 3 Acceleration,Actual Joint 4 Acceleration,Actual Joint 5 Acceleration,Actual Joint 6 Acceleration,Actual Joint 0 Torque,Actual Joint 1 Torque,Actual Joint 2 Torque,Actual Joint 3 Torque,Actual Joint 4 Torque,Actual Joint 5 Torque,Actual Joint 6 Torque,
-0.0364897,-0.105305,0.060577,-1.87632,0.0337325,0.254238,-0.0653123,0.00083941,0.0188417,0.0012114,-0.0344762,-0.00610522,0.0522105,-0.00036927,0.524631,11.776,0.757122,-21.5476,-3.81576,32.6316,-0.230794,0.0524842,21.0294,0.365731,-24.4467,-0.742591,1.86522,-0.023936,-0.0365657,-0.106257,0.0604695,-1.87306,0.0340938,0.248623,-0.0652854,0.000969578,0.00665611,0.000487787,-0.0036255,-0.00607709,0.000349694,0.000868464,0,0,0,0,0,0,0,0.0828892,-31.5746,-0.213304,27.4271,0.953671,3.11272,0.131027,
-0.0365618,-0.106159,0.0604749,-1.87312,0.0340345,0.248577,-0.0652862,0.000679235,0.0157037,0.000982901,-0.0279401,-0.00517983,0.0413123,-0.000300083,-0.10011,-1.9612,-0.14281,4.08509,0.578368,-6.81135,0.043242,0.0467828,21.4701,0.355407,-24.3631,-0.742383,1.61418,-0.0224222,-0.0365657,-0.106257,0.0604695,-1.87306,0.0340938,0.248623,-0.0652854,0.000969578,0.00665611,0.000487787,-0.0036255,-0.00607709,0.000349694,0.000868464,0,0,0,0,0,0,0,0.0828892,-31.5746,-0.213304,27.4271,0.953671,3.11272,0.131027,
-0.0365619,-0.106139,0.0604749,-1.87313,0.0340265,0.248559,-0.0652863,0.000540963,0.0130619,0.000786736,-0.0226421,-0.00434266,0.03261,-0.000242942,-0.0864202,-1.65115,-0.122603,3.31126,0.523234,-5.43894,0.0357131,0.0396293,22.0418,0.343711,-24.255,-0.741404,1.26647,-0.0204542,-0.0365657,-0.106257,0.0604695,-1.87306,0.0340938,0.248623,-0.0652854,0.000969578,0.00665611,0.000487787,-0.0036255,-0.00607709,0.000349694,0.000868464,0,0,0,0,0,0,0,0.0828892,-31.5746,-0.213304,27.4271,0.953671,3.11272,0.131027,
-0.0365622,-0.106123,0.0604746,-1.87314,0.034021,0.248543,-0.0652864,0.0004254,0.0108482,0.00062278,-0.0183479,-0.00361259,0.0256921,-0.000196196,-0.0722266,-1.38357,-0.102473,2.68387,0.456292,-4.32368,0.0292166,0.0337594,22.5707,0.33386,-24.0863,-0.738917,0.88255,-0.0184619,-0.0365661,-0.106085,0.0604772,-1.87321,0.0340997,0.248618,-0.0652859,0.000196996,0.00157932,0.00169519,-0.00453574,-0.0114662,0.00279339,0.000851315,-0.0965727,-0.634599,0.150925,-0.11378,-0.673637,0.305462,-0.00214372,0.134464,-31.3524,-0.288683,27.5262,0.91705,3.12554,0.131027,
-0.0366796,-0.106048,0.0603825,-1.87314,0.0363079,0.247306,-0.0653093,-0.00122311,0.00903104,-0.000932337,-0.0137509,0.0314597,0.000350063,-0.000375888,-1.03032,-1.13571,-0.971948,2.87312,21.9202,-15.8388,-0.112308,0.446616,0.213869,0.440203,-0.276546,2.92761,-1.86286,-0.00169552,-0.0365661,-0.106085,0.0604772,-1.87321,0.0340997,0.248618,-0.0652859,0.000196996,0.00157932,0.00169519,-0.00453574,-0.0114662,0.00279339,0.000851315,0,0,0,0,0,0,0,0.134464,-31.3524,-0.288683,27.5262,0.91705,3.12554,0.131027,
-0.036738,-0.106041,0.0603252,-1.87311,0.0379962,0.246305,-0.0653141,-0.00243729,0.00739001,-0.00217918,-0.0102695,0.0673751,-0.0247478,-0.000420607,-0.758866,-1.02564,-0.779277,2.17586,22.4471,-15.6862,-0.0279498,0.442155,0.212365,0.435726,-0.273657,2.90252,-1.84739,-0.00165993,-0.0365661,-0.106085,0.0604772,-1.87321,0.0340997,0.248618,-0.0652859,0.000196996,0.00157932,0.00169519,-0.00453574,-0.0114662,0.00279339,0.000851315,0,0,0,0,0,0,0,0.134464,-31.3524,-0.288683,27.5262,0.91705,3.12554,0.131027,
-0.0367855,-0.106039,0.0602766,-1.87309,0.0398677,0.245178,-0.0653167,-0.00313948,0.00597603,-0.00295837,-0.00771861,0.100688,-0.0479786,-0.000402247,-0.438866,-0.883739,-0.486996,1.5943,20.8204,-14.5193,0.0114753,0.437677,0.210556,0.431213,-0.270894,2.87734,-1.83184,-0.00162698,-0.0365661,-0.106085,0.0604772,-1.87321,0.0340997,0.248618,-0.0652859,0.000196996,0.00157932,0.00169519,-0.00453574,-0.0114662,0.00279339,0.000851315,0,0,0,0,0,0,0,0.134464,-31.3524,-0.288683,27.5262,0.91705,3.12554,0.131027,
-0.0368204,-0.106037,0.0602398,-1.87308,0.0418455,0.243968,-0.0653182,-0.00338417,0.00481028,-0.00328548,-0.00588822,0.129995,-0.0686269,-0.000359451,-0.152934,-0.728597,-0.204443,1.144,18.3172,-12.9052,0.0267473,0.431765,0.233958,0.423882,-0.269901,2.85256,-1.81686,-0.00158289,-0.0365631,-0.105613,0.0604886,-1.87376,0.034006,0.250274,-0.0652965,0.000690806,0.0418006,0.00564552,-0.0641009,-0.00734283,0.162866,-0.000906815,0.0617263,5.02766,0.493791,-7.44564,0.515419,20.0091,-0.219766,0.106693,-24.8619,-0.213304,21.25,0.562741,3.00011,0.14476,
-0.036844,-0.104972,0.0602814,-1.87358,0.0419903,0.244737,-0.0653702,-0.00637291,0.0105842,-0.00569143,-0.00158697,0.226756,-0.145829,-0.00095323,-1.86796,3.60871,-1.50372,2.68828,60.4755,-48.2513,-0.371112,3.8169,1.56778,3.89483,-1.83678,10.6743,-9.22673,-0.00251669,-0.0365631,-0.105613,0.0604886,-1.87376,0.034006,0.250274,-0.0652965,0.000690806,0.0418006,0.00564552,-0.0641009,-0.00734283,0.162866,-0.000906815,0,0,0,0,0,0,0,0.106693,-24.8619,-0.213304,21.25,0.562741,3.00011,0.14476,
-0.0369557,-0.104788,0.0601801,-1.87349,0.0479473,0.240044,-0.0653831,-0.00789216,0.0130711,-0.00708589,0.000964525,0.33033,-0.233988,-0.00108676,-0.949533,1.55432,-0.87154,1.59468,64.7338,-55.0995,-0.0834551,3.69276,1.55576,3.78908,-1.79716,10.4318,-9.06412,-0.00211264,-0.0365631,-0.105613,0.0604886,-1.87376,0.034006,0.250274,-0.0652965,0.000690806,0.0418006,0.00564552,-0.0641009,-0.00734283,0.162866,-0.000906815,0,0,0,0,0,0,0,0.106693,-24.8619,-0.213304,21.25,0.562741,3.00011,0.14476,
-0.037015,-0.104656,0.0601247,-1.87345,0.0544826,0.234687,-0.0653889,-0.0077963,0.0137469,-0.00705341,0.00178726,0.427648,-0.321116,-0.00101401,0.0599114,0.422386,0.0202991,0.514212,60.8238,-54.4547,0.0454664,3.57309,1.53037,3.67512,-1.76367,10.2064,-8.90083,-0.00258737,-0.0365631,-0.105613,0.0604886,-1.87376,0.034006,0.250274,-0.0652965,0.000690806,0.0418006,0.00564552,-0.0641009,-0.00734283,0.162866,-0.000906815,0,0,0,0,0,0,0,0.106693,-24.8619,-0.213304,21.25,0.562741,3.00011,0.14476,
-0.0370189,-0.104552,0.0601218,-1.87345,0.0613165,0.228916,-0.0653914,-0.00633458,0.0135929,-0.00571611,0.00135891,0.512965,-0.401168,-0.000872483,0.913575,-0.0962637,0.835812,-0.26772,53.3231,-50.0329,0.0884557,3.46194,1.58082,3.55969,-1.7446,9.97538,-8.72984,-0.00365267,-0.0365679,-0.104188,0.0604927,-1.87866,0.0356266,0.253506,-0.0653063,-0.00357833,0.00619988,-0.00291592,-0.200026,0.21004,-0.0459565,0.000165308,-0.533641,-4.45009,-1.07018,-16.9906,27.1729,-26.1028,0.134015,0.336795,-24.1399,-0.0387439,23.5907,1.64398,1.9793,0.104477,
-0.0357003,-0.103413,0.0615013,-1.87946,0.0436291,0.241978,-0.0651327,0.00893263,0.0205039,0.0115246,-0.00642609,0.527192,-0.492913,0.00114877,9.54201,4.31938,10.7754,-4.86563,8.8916,-57.3404,1.26328,24.0258,4.89335,25.2807,-10.5081,10.8861,-14.3486,0.116303,-0.0365679,-0.104188,0.0604927,-1.87866,0.0356266,0.253506,-0.0653063,-0.00357833,0.00619988,-0.00291592,-0.200026,0.21004,-0.0459565,0.000165308,0,0,0,0,0,0,0,0.336795,-24.1399,-0.0387439,23.5907,1.64398,1.9793,0.104477,
-0.0349324,-0.103111,0.0623488,-1.87979,0.0493016,0.233736,-0.0650278,0.026345,0.0239608,0.0304067,-0.0133235,0.563565,-0.600387,0.00354202,10.8828,2.16054,11.8013,-4.3109,22.7335,-67.1711,1.49578,22.4686,4.71392,23.9265,-9.03491,10.8861,-14.3486,0.084301,-0.0365679,-0.104188,0.0604927,-1.87866,0.0356266,0.253506,-0.0653063,-0.00357833,0.00619988,-0.00291592,-0.200026,0.21004,-0.0459565,0.000165308,0,0,0,0,0,0,0,0.336795,-24.1399,-0.0387439,23.5907,1.64398,1.9793,0.104477,
-0.0340046,-0.102989,0.0633315,-1.8803,0.0557347,0.22466,-0.0648137,0.0442699,0.0222287,0.0488926,-0.0234285,0.61168,-0.7072,0.00818656,11.203,-1.08258,11.5536,-6.31563,30.0713,-66.7582,2.90284,21.5264,3.08368,22.8345,-8.20665,10.8861,-14.3486,0.126302,-0.0365679,-0.104188,0.0604927,-1.87866,0.0356266,0.253506,-0.0653063,-0.00357833,0.00619988,-0.00291592,-0.200026,0.21004,-0.0459565,0.000165308,0,0,0,0,0,0,0,0.336795,-24.1399,-0.0387439,23.5907,1.64398,1.9793,0.104477,
-0.0330303,-0.103082,0.0643919,-1.88104,0.062814,0.215041,-0.0646811,0.0597732,0.0154469,0.0656254,-0.0373896,0.666325,-0.806242,0.00986381,9.68953,-4.23862,10.458,-8.72568,34.1533,-61.901,1.04828,20.3018,-0.515762,21.1962,-9.48781,10.764,-14.3087,0.270312,-0.0367255,-0.102529,0.060409,-1.8838,0.0476873,0.242976,-0.0653308,-0.00104323,0.114701,-0.000732292,-0.0114902,0.72682,-0.762196,-0.0018749,0.316887,13.5626,0.272953,23.567,64.5975,-89.5299,-0.255026,3.40351,-36.7915,2.93672,30.5414,3.50067,-0.0366915,0.205185,
-0.0351076,-0.101662,0.0619978,-1.88557,0.0594915,0.227613,-0.0650087,0.0727273,0.0216958,0.077627,-0.0544004,0.684321,-0.850716,0.0113575,8.09631,3.90556,7.50098,-10.6318,11.2478,-27.7967,0.933581,32.4913,4.81763,33.1876,-19.2311,10.764,-14.3087,0.184891,-0.0367255,-0.102529,0.060409,-1.8838,0.0476873,0.242976,-0.0653308,-0.00104323,0.114701,-0.000732292,-0.0114902,0.72682,-0.762196,-0.0018749,0,0,0,0,0,0,0,3.40351,-36.7915,2.93672,30.5414,3.50067,-0.0366915,0.205185,
-0.0338769,-0.101385,0.0632795,-1.8867,0.065985,0.218594,-0.0648105,0.0889483,0.0242791,0.0941448,-0.0717607,0.709794,-0.906043,0.0140407,10.1382,1.6146,10.3237,-10.8502,15.9205,-34.5789,1.67699,29.5829,5.05032,30.4363,-18.0061,10.764,-14.3087,0.138053,-0.0367255,-0.102529,0.060409,-1.8838,0.0476873,0.242976,-0.0653308,-0.00104323,0.114701,-0.000732292,-0.0114902,0.72682,-0.762196,-0.0018749,0,0,0,0,0,0,0,3.40351,-36.7915,2.93672,30.5414,3.50067,-0.0366915,0.205185,
-0.0325152,-0.101209,0.0646842,-1.88798,0.0729931,0.20903,-0.0647027,0.105202,0.0238108,0.110434,-0.0896195,0.743038,-0.963934,0.0139266,10.1585,-0.292667,10.181,-11.1618,20.7773,-36.182,-0.071353,27.1992,3.41432,28.2917,-18.1675,10.764,-14.3087,0.232522,-0.0367255,-0.102529,0.060409,-1.8838,0.0476873,0.242976,-0.0653308,-0.00104323,0.114701,-0.000732292,-0.0114902,0.72682,-0.762196,-0.0018749,0,0,0,0,0,0,0,3.40351,-36.7915,2.93672,30.5414,3.50067,-0.0366915,0.205185,
-0.0310902,-0.101038,0.0661391,-1.8893,0.0804458,0.199001,-0.0646679,0.119787,0.0233358,0.124719,-0.10449,0.780748,-1.02188,0.0120113,9.1159,-0.296897,8.92811,-9.29414,23.5686,-36.2159,-1.19703,23.7879,2.12982,24.5202,-19.2114,10.5797,-14.1207,0.127118,-0.036875,-0.099239,0.0605912,-1.88312,0.0801587,0.205894,-0.0653842,0.0228396,0.103199,0.046997,0.0305394,0.877889,-1.38968,-0.0023696,2.98536,-1.43777,5.96616,5.25369,18.8836,-78.4357,-0.0618371,9.89399,-31.7769,9.76045,16.7392,2.15118,-3.04695,0.285752,
-0.0348121,-0.0989767,0.0627257,-1.8859,0.0935518,0.186079,-0.0650244,0.126112,0.020179,0.131185,-0.12309,0.792464,-1.06521,0.0145188,3.95284,-1.97302,4.04115,-11.6252,7.32258,-27.0844,1.56715,32.8643,2.76881,34.3156,-24.3914,10.5797,-14.1207,0.158915,-0.036875,-0.099239,0.0605912,-1.88312,0.0801587,0.205894,-0.0653842,0.0228396,0.103199,0.046997,0.0305394,0.877889,-1.38968,-0.0023696,0,0,0,0,0,0,0,9.89399,-31.7769,9.76045,16.7392,2.15118,-3.04695,0.285752,
-0.0334152,-0.0989841,0.0641788,-1.88765,0.100572,0.175987,-0.0649374,0.135811,0.0159593,0.141276,-0.142381,0.809487,-1.10448,0.0137903,6.06178,-2.63733,6.30693,-12.0564,10.6396,-24.5426,-0.455267,29.7453,1.73788,30.9977,-24.102,10.5797,-14.1207,0.213897,-0.036875,-0.099239,0.0605912,-1.88312,0.0801587,0.205894,-0.0653842,0.0228396,0.103199,0.046997,0.0305394,0.877889,-1.38968,-0.0023696,0,0,0,0,0,0,0,9.89399,-31.7769,9.76045,16.7392,2.15118,-3.04695,0.285752,
-0.0319291,-0.0989714,0.0657261,-1.88943,0.107945,0.165644,-0.0649328,0.145801,0.0130837,0.151704,-0.158197,0.831904,-1.14215,0.0111477,6.24409,-1.79722,6.51741,-9.88547,14.0102,-23.544,-1.65164,25.8565,0.407991,26.8848,-24.6035,10.5797,-14.1207,0.0901904,-0.036875,-0.099239,0.0605912,-1.88312,0.0801587,0.205894,-0.0653842,0.0228396,0.103199,0.046997,0.0305394,0.877889,-1.38968,-0.0023696,0,0,0,0,0,0,0,9.89399,-31.7769,9.76045,16.7392,2.15118,-3.04695,0.285752,
-0.0304056,-0.0989252,0.0673184,-1.89118,0.115626,0.155114,-0.0649631,0.154729,0.0116234,0.161169,-0.170466,0.857558,-1.17698,0.00816047,5.57977,-0.9127,5.91563,-7.66805,16.034,-21.7668,-1.86702,23.4259,1.33002,24.3516,-23.6123,10.6387,-13.7019,-0.00345464,-0.0334035,-0.0994912,0.0658492,-1.88915,0.114694,0.154747,-0.0652773,0.191758,0.00643969,0.23033,-0.260134,0.907716,-1.55608,0.00334759,21.1148,-12.0949,22.9166,-36.3342,3.72836,-20.7992,0.714648,21.2841,-26.4845,21.46,18.7308,4.33105,-2.42347,0.279343,
-0.0295071,-0.0994386,0.0699239,-1.89406,0.129583,0.132512,-0.065017,0.17355,0.0100122,0.180937,-0.199347,0.875761,-1.2112,0.00816156,11.7634,-1.00699,12.3547,-18.0507,11.3767,-21.386,0.000679207,33.4729,2.22747,35.0328,-30.8222,10.6387,-12.9111,0.224598,-0.0334035,-0.0994912,0.0658492,-1.88915,0.114694,0.154747,-0.0652773,0.191758,0.00643969,0.23033,-0.260134,0.907716,-1.55608,0.00334759,0,0,0,0,0,0,0,21.2841,-26.4845,21.46,18.7308,4.33105,-2.42347,0.279343,
-0.0275191,-0.0993617,0.0720021,-1.89657,0.13748,0.122229,-0.0650469,0.188541,0.00993292,0.196703,-0.222243,0.898022,-1.22605,0.00578193,9.36894,-0.0495442,9.85421,-14.3099,13.9132,-9.282,-1.48727,28.6375,1.11156,29.8842,-30.918,10.6387,-12.2444,0.0683093,-0.0334035,-0.0994912,0.0658492,-1.88915,0.114694,0.154747,-0.0652773,0.191758,0.00643969,0.23033,-0.260134,0.907716,-1.55608,0.00334759,0,0,0,0,0,0,0,21.2841,-26.4845,21.46,18.7308,4.33105,-2.42347,0.279343,
-0.0255691,-0.0992467,0.07404,-1.89905,0.145624,0.11241,-0.0651173,0.199582,0.0108206,0.20831,-0.239751,0.922031,-1.22629,0.00286455,6.9009,0.554819,7.25425,-10.9423,15.006,-0.153423,-1.82336,25.2944,1.54665,26.374,-30.0204,10.6387,-11.6201,-0.0400603,-0.0334035,-0.0994912,0.0658492,-1.88915,0.114694,0.154747,-0.0652773,0.191758,0.00643969,0.23033,-0.260134,0.907716,-1.55608,0.00334759,0,0,0,0,0,0,0,21.2841,-26.4845,21.46,18.7308,4.33105,-2.42347,0.279343,
-0.0236706,-0.0991134,0.076025,-1.90151,0.153944,0.103162,-0.0651951,0.207129,0.0119897,0.216274,-0.253281,0.945614,-1.21223,0.00034671,4.71699,0.730664,4.97709,-8.45624,14.7389,8.78794,-1.57365,23.2442,1.59583,24.2198,-29.3003,10.6387,-11.0465,-0.0841993,-0.0334035,-0.0994912,0.0658492,-1.88915,0.114694,0.154747,-0.0652773,0.191758,0.00643969,0.23033,-0.260134,0.907716,-1.55608,0.00334759,0,0,0,0,0,0,0,21.2841,-26.4845,21.46,18.7308,4.33105,-2.42347,0.279343,
-0.0194112,-0.100243,0.0800321,-1.9079,0.168957,0.0764988,-0.0653458,0.225951,0.0120047,0.235943,-0.289445,0.977957,-1.19991,-0.00238967,11.7633,0.00939871,12.2934,-22.6024,20.2145,7.7021,-1.71024,27.5154,0.306348,28.75,-37.0544,10.6691,-6.3806,-0.0263616,-0.0243431,-0.100366,0.0748578,-1.90091,0.151346,0.0968929,-0.065221,0.212667,0.00302501,0.446173,-0.405311,1.08501,-1.76838,-0.000118213,2.61353,-0.426835,26.9804,-18.1472,22.1622,-26.538,-0.433225,16.2615,-25.7347,16.2628,22.218,4.20929,-2.14515,0.198776,
-0.0171373,-0.100105,0.0824088,-1.91127,0.177864,0.0688028,-0.0654864,0.237608,0.0130699,0.24817,-0.315636,1.00505,-1.15233,-0.00542711,7.28585,0.665703,7.64212,-16.3698,16.9332,29.7391,-1.8984,24.2467,0.397401,25.3135,-36.2116,10.6691,-5.51598,-0.129563,-0.0243431,-0.100366,0.0748578,-1.90091,0.151346,0.0968929,-0.065221,0.212667,0.00302501,0.446173,-0.405311,1.08501,-1.76838,-0.000118213,0,0,0,0,0,0,0,16.2615,-25.7347,16.2628,22.218,4.20929,-2.14515,0.198776,
-0.0149917,-0.0999579,0.0846526,-1.91453,0.186769,0.0624216,-0.065626,0.243724,0.0141262,0.254631,-0.334135,1.02667,-1.08139,-0.00783092,3.82257,0.660203,4.03771,-11.5614,13.5111,44.3345,-1.50238,22.307,0.240421,23.2893,-35.53,10.6691,-4.77147,-0.165743,-0.0243431,-0.100366,0.0748578,-1.90091,0.151346,0.0968929,-0.065221,0.212667,0.00302501,0.446173,-0.405311,1.08501,-1.76838,-0.000118213,0,0,0,0,0,0,0,16.2615,-25.7347,16.2628,22.218,4.20929,-2.14515,0.198776,
-0.0129641,-0.099822,0.0867742,-1.9177,0.195636,0.0571769,-0.0657546,0.245672,0.014697,0.256746,-0.346563,1.043,-0.996232,-0.00947946,1.21716,0.356733,1.32192,-7.76784,10.208,53.2253,-1.03034,21.0241,0.0427084,21.9565,-34.9104,10.6691,-3.72813,-0.16175,-0.0243431,-0.100366,0.0748578,-1.90091,0.151346,0.0968929,-0.065221,0.212667,0.00302501,0.446173,-0.405311,1.08501,-1.76838,-0.000118213,0,0,0,0,0,0,0,16.2615,-25.7347,16.2628,22.218,4.20929,-2.14515,0.198776,
-0.00422877,-0.100868,0.0969218,-1.92752,0.212453,0.0213467,-0.0657346,0.269212,0.0150621,0.28135,-0.388696,1.08941,-0.934697,-0.0137917,14.7127,0.228213,15.3778,-26.3327,29.0056,38.4591,-2.69513,20.3584,-1.05959,21.3413,-41.3314,10.7871,4.11372,-0.2781,-0.0104379,-0.101023,0.0904758,-1.91832,0.191964,0.0357707,-0.065243,0.65883,-0.0178879,0.307939,-0.609451,1.23955,-1.72004,-0.0085347,55.7704,-2.61412,-17.2792,-25.5175,19.3165,6.0423,-1.05206,9.64405,-24.1399,9.36372,17.8104,3.65356,-0.507273,0.158493,
-0.00162482,-0.1007,0.0996441,-1.93171,0.222432,0.0184104,-0.0659595,0.280468,0.0162418,0.293137,-0.415858,1.121,-0.821164,-0.0166572,7.03527,0.737337,7.36656,-16.9767,19.743,70.958,-1.79094,19.2403,-1.297,20.1495,-40.7442,10.7871,4.61858,-0.28433,-0.0104379,-0.101023,0.0904758,-1.91832,0.191964,0.0357707,-0.065243,0.65883,-0.0178879,0.307939,-0.609451,1.23955,-1.72004,-0.0085347,0,0,0,0,0,0,0,9.64405,-24.1399,9.36372,17.8104,3.65356,-0.507273,0.158493,
0.000731157,-0.100538,0.102108,-1.93568,0.232146,0.0174142,-0.0661564,0.283274,0.017049,0.296102,-0.431695,1.13965,-0.681837,-0.0182472,1.75352,0.504459,1.85317,-9.89781,11.6549,87.0796,-0.99375,18.6004,-1.34865,19.4678,-40.1349,10.7871,5.34238,-0.256038,-0.0104379,-0.101023,0.0904758,-1.91832,0.191964,0.0357707,-0.065243,0.65883,-0.0178879,0.307939,-0.609451,1.23955,-1.72004,-0.0085347,0,0,0,0,0,0,0,9.64405,-24.1399,9.36372,17.8104,3.65356,-0.507273,0.158493,
0.00288933,-0.100407,0.104365,-1.93948,0.2416,0.018301,-0.0663249,0.280574,0.0169051,0.293314,-0.44049,1.14808,-0.5233,-0.0188116,-1.68775,-0.089904,-1.74233,-5.4973,5.27131,99.0853,-0.352743,18.0629,-1.27003,18.8946,-39.5162,10.7871,5.81577,-0.222696,-0.0104379,-0.101023,0.0904758,-1.91832,0.191964,0.0357707,-0.065243,0.65883,-0.0178879,0.307939,-0.609451,1.23955,-1.72004,-0.0085347,0,0,0,0,0,0,0,9.64405,-24.1399,9.36372,17.8104,3.65356,-0.507273,0.158493,
0.0182997,-0.100239,0.114964,-1.95501,0.260478,-0.0186165,-0.0663045,0.305051,0.0220782,0.319162,-0.484588,1.19569,-0.448379,-0.0242091,15.2984,3.2332,16.155,-27.5608,29.7585,46.8259,-3.37349,11.6596,-4.3587,12.3497,-44.8679,10.7716,12.1103,-0.502643,0.011228,-0.100878,0.107515,-1.94377,0.238024,-0.0128616,-0.0655084,0.466797,-0.0159321,0.736318,-0.90273,1.42618,-1.09047,-0.0133898,-24.0041,0.244474,53.5474,-36.6598,23.3292,78.6961,-0.606887,5.15308,-25.7863,5.08699,18.1595,2.14477,1.47484,0.0980684,
0.0210465,-0.0999532,0.117841,-1.95984,0.271137,-0.0172523,-0.0666022,0.312711,0.0248021,0.327265,-0.50839,1.22305,-0.324597,-0.0268096,4.78781,1.70242,5.06409,-14.8767,17.0977,77.3639,-1.62527,12.7996,-4.33456,13.5013,-44.313,10.7716,12.1103,-0.410133,0.011228,-0.100878,0.107515,-1.94377,0.238024,-0.0128616,-0.0655084,0.466797,-0.0159321,0.736318,-0.90273,1.42618,-1.09047,-0.0133898,0,0,0,0,0,0,0,5.15308,-25.7863,5.08699,18.1595,2.14477,1.47484,0.0980684,
0.0234311,-0.0997426,0.120339,-1.96431,0.281334,-0.0139917,-0.066843,0.309785,0.0251064,0.324269,-0.518362,1.23336,-0.178164,-0.027468,-1.82918,0.190181,-1.8724,-6.23216,6.44544,91.5207,-0.411514,13.5097,-3.95608,14.2114,-43.6619,10.7716,12.1103,-0.33361,0.011228,-0.100878,0.107515,-1.94377,0.238024,-0.0128616,-0.0655084,0.466797,-0.0159321,0.736318,-0.90273,1.42618,-1.09047,-0.0133898,0,0,0,0,0,0,0,5.15308,-25.7863,5.08699,18.1595,2.14477,1.47484,0.0980684,
0.0255378,-0.0996086,0.122547,-1.96848,0.2911,-0.00931718,-0.0670366,0.300495,0.0234346,0.314599,-0.519168,1.23083,-0.0256671,-0.0268134,-5.80581,-1.04487,-6.04394,-0.503745,-1.58557,95.3103,0.409117,13.888,-3.32495,14.6005,-42.8748,10.7716,12.1103,-0.270947,0.011228,-0.100878,0.107515,-1.94377,0.238024,-0.0128616,-0.0655084,0.466797,-0.0159321,0.736318,-0.90273,1.42618,-1.09047,-0.0133898,0,0,0,0,0,0,0,5.15308,-25.7863,5.08699,18.1595,2.14477,1.47484,0.0980684,
0.0178076,-0.100673,0.114439,-1.95557,0.261121,-0.0185368,-0.0665088,0.313774,0.0214923,0.328472,-0.55466,1.27007,-0.0501717,-0.0323183,8.29934,-1.21393,8.67102,-22.1827,24.5302,-15.3154,-3.44054,2.92481,-9.61207,3.18315,-47.559,10.5622,12.5403,-0.665065,0.0276126,-0.10097,0.134522,-1.97875,0.289756,-0.0321988,-0.0663961,0.605277,-0.0512691,0.719756,-1.16874,1.49628,-0.0673467,-0.0183536,17.31,-4.41712,-2.07026,-33.2513,8.76319,127.891,-0.620475,-1.74603,-25.6593,-2.68492,27.1533,2.58422,4.45855,0.0101778,
0.0202577,-0.100597,0.116991,-1.96063,0.271698,-0.0172275,-0.0668285,0.312272,0.0190933,0.32658,-0.57025,1.28048,-0.00740316,-0.0338467,-0.939186,-1.49941,-1.18229,-9.74378,6.503,26.7304,-0.955255,6.16869,-8.38976,6.56493,-46.7107,10.5622,12.5403,-0.492179,0.0276126,-0.10097,0.134522,-1.97875,0.289756,-0.0321988,-0.0663961,0.605277,-0.0512691,0.719756,-1.16874,1.49628,-0.0673467,-0.0183536,0,0,0,0,0,0,0,-1.74603,-25.6593,-2.68492,27.1533,2.58422,4.45855,0.0101778,
0.0223688,-0.10057,0.119182,-1.96528,0.281191,-0.014035,-0.0670668,0.302595,0.0159398,0.316036,-0.572601,1.26173,0.0738887,-0.0330348,-6.04819,-1.97089,-6.59002,-1.46919,-11.7179,50.8074,0.507413,8.19834,-6.88878,8.66407,-45.7235,9.30578,12.5403,-0.366624,0.0276126,-0.10097,0.134522,-1.97875,0.289756,-0.0321988,-0.0663961,0.605277,-0.0512691,0.719756,-1.16874,1.49628,-0.0673467,-0.0183536,0,0,0,0,0,0,0,-1.74603,-25.6593,-2.68492,27.1533,2.58422,4.45855,0.0101778,
0.0349411,-0.100171,0.142234,-1.99078,0.31202,-0.0307619,-0.0671675,0.323859,0.0230216,0.338589,-0.594892,1.27867,0.0974402,-0.0348997,13.2899,4.42607,14.0951,-13.9316,10.5851,14.7196,-1.16557,6.16869,-8.38976,6.56493,-46.7107,10.5622,12.5403,-0.492179,0.0276126,-0.10097,0.134522,-1.97875,0.289756,-0.0321988,-0.0663961,0.605277,-0.0512691,0.719756,-1.16874,1.49628,-0.0673467,-0.0183536,0,0,0,0,0,0,0,-1.74603,-25.6593,-2.68492,27.1533,2.58422,4.45855,0.0101778,
0.03765,-0.0998858,0.145064,-1.99566,0.321785,-0.027636,-0.0674223,0.326808,0.0255513,0.3416,-0.59802,1.26704,0.156098,-0.0342894,1.84373,1.58109,1.88236,-1.95506,-7.26467,36.6613,0.381456,8.04794,-7.47231,8.58546,-45.37,9.01155,12.6781,-0.372212,0.0512283,-0.100482,0.15523,-2.01832,0.346304,-0.0211602,-0.0675693,0.660295,0.0234206,0.638579,-1.18098,1.67447,0.642705,-0.0157644,6.8773,9.33621,-10.1472,-1.53026,22.2726,88.7565,0.323644,-8.71655,-31.6261,-9.48485,30.589,0.440975,5.42626,-0.0026396,
0.0399571,-0.099729,0.147468,-2.00014,0.330314,-0.0231838,-0.0676138,0.319124,0.0243604,0.333382,-0.590331,1.22687,0.236185,-0.0322171,-4.80274,-0.744316,-5.13651,4.80534,-25.1057,50.0542,1.2952,9.29273,-6.15769,9.86012,-44.4935,7.7925,12.6781,-0.28312,0.0512283,-0.100482,0.15523,-2.01832,0.346304,-0.0211602,-0.0675693,0.660295,0.0234206,0.638579,-1.18098,1.67447,0.642705,-0.0157644,0,0,0,0,0,0,0,-8.71655,-31.6261,-9.48485,30.589,0.440975,5.42626,-0.0026396,
0.041972,-0.0996738,0.149565,-2.00431,0.337533,-0.0176726,-0.0677556,0.305671,0.0208681,0.319138,-0.576417,1.16196,0.326726,-0.0293198,-8.40791,-2.18268,-8.90229,8.6965,-40.5706,56.5882,1.8108,10.0605,-4.98228,10.6876,-43.6893,6.29911,12.6781,-0.217781,0.0512283,-0.100482,0.15523,-2.01832,0.346304,-0.0211602,-0.0675693,0.660295,0.0234206,0.638579,-1.18098,1.67447,0.642705,-0.0157644,0,0,0,0,0,0,0,-8.71655,-31.6261,-9.48485,30.589,0.440975,5.42626,-0.0026396,
0.058522,-0.0989282,0.162884,-2.02988,0.368259,-0.0135591,-0.0681642,0.326112,0.0344383,0.340788,-0.591554,1.18712,0.361786,-0.030073,12.7756,8.4814,13.5307,-9.4611,15.7233,21.9124,-0.470734,8.04794,-7.47231,8.58546,-45.37,9.01155,12.6781,-0.372212,0.0512283,-0.100482,0.15523,-2.01832,0.346304,-0.0211602,-0.0675693,0.660295,0.0234206,0.638579,-1.18098,1.67447,0.642705,-0.0157644,0,0,0,0,0,0,0,-8.71655,-31.6261,-9.48485,30.589,0.440975,5.42626,-0.0026396,
0.0612314,-0.0984586,0.165715,-2.03452,0.377157,-0.00872549,-0.0683647,0.328626,0.0392895,0.343416,-0.589407,1.17213,0.410268,-0.029072,1.57076,3.032,1.64298,1.3424,-9.3675,30.3014,0.625625,9.35381,-7.00955,9.99969,-44.6296,7.5642,12.4385,-0.281877,0.068279,-0.101398,0.175838,-2.05757,0.400709,0.00516743,-0.0690981,0.574148,-0.0455783,0.469637,-1.19561,1.58497,0.894763,-0.0357831,-10.7685,-8.62486,-21.1177,-1.8287,-11.1874,31.5072,-2.50233,-12.2435,-30.8525,-13.8846,25.983,0.862118,2.61559,-0.0227812,
0.0635386,-0.0981916,0.168122,-2.03879,0.384628,-0.00308054,-0.0685131,0.320581,0.038108,0.33492,-0.578303,1.12448,0.469338,-0.0269662,-5.02814,-0.738491,-5.31036,6.9399,-29.7807,36.9188,1.31614,10.1216,-5.83414,10.8271,-43.8254,6.07081,12.4385,-0.216538,0.068279,-0.101398,0.175838,-2.05757,0.400709,0.00516743,-0.0690981,0.574148,-0.0455783,0.469637,-1.19561,1.58497,0.894763,-0.0357831,0,0,0,0,0,0,0,-12.2435,-30.8525,-13.8846,25.983,0.862118,2.61559,-0.0227812,
0.0655473,-0.0980707,0.170217,-2.04279,0.390774,0.00327713,-0.0686182,0.306681,0.0335092,0.3203,-0.562532,1.05323,0.534412,-0.0242019,-8.68712,-2.87424,-9.13714,9.85679,-44.5301,40.6713,1.72766,10.639,-4.77365,11.3911,-43.0533,4.68061,12.4385,-0.164668,0.068279,-0.101398,0.175838,-2.05757,0.400709,0.00516743,-0.0690981,0.574148,-0.0455783,0.469637,-1.19561,1.58497,0.894763,-0.0357831,0,0,0,0,0,0,0,-12.2435,-30.8525,-13.8846,25.983,0.862118,2.61559,-0.0227812,
0.0743931,-0.100305,0.182242,-2.06861,0.419403,0.0149579,-0.0695221,0.314588,0.0400929,0.328841,-0.573465,1.05569,0.551053,-0.0241182,4.94159,4.11486,5.33782,-6.83332,1.53469,10.4004,0.0523261,9.35381,-7.00955,9.99969,-44.6296,7.5642,12.4385,-0.281877,0.068279,-0.101398,0.175838,-2.05757,0.400709,0.00516743,-0.0690981,0.574148,-0.0455783,0.469637,-1.19561,1.58497,0.894763,-0.0357831,0,0,0,0,0,0,0,-12.2435,-30.8525,-13.8846,25.983,0.862118,2.61559,-0.0227812,
0.0767406,-0.0999586,0.1847,-2.07301,0.42649,0.020515,-0.0696663,0.310359,0.0407303,0.324516,-0.568706,1.02174,0.57977,-0.0228995,-2.64323,0.398322,-2.70319,2.97453,-21.2199,17.9479,0.761677,10.0269,-6.29943,10.7813,-43.7337,5.952,12.3629,-0.213842,0.085586,-0.101532,0.193184,-2.09697,0.447195,0.0416831,-0.0699716,0.358559,-0.0130305,0.605915,-1.13444,1.29092,1.19001,-0.0263967,-26.9485,4.06847,17.0348,7.64636,-36.7563,36.9058,1.1733,-6.10608,-33.1972,-7.13622,26.8518,0.27618,1.95916,-0.130813,
0.078774,-0.0997777,0.186827,-2.07708,0.432293,0.0267422,-0.069769,0.299123,0.0371085,0.312798,-0.556656,0.962445,0.619497,-0.0208865,-7.02238,-2.26359,-7.3236,7.5315,-37.0569,24.8296,1.25814,10.5444,-5.23895,11.3453,-42.9616,4.5618,12.3629,-0.161972,0.085586,-0.101532,0.193184,-2.09697,0.447195,0.0416831,-0.0699716,0.358559,-0.0130305,0.605915,-1.13444,1.29092,1.19001,-0.0263967,0,0,0,0,0,0,0,-6.10608,-33.1972,-7.13622,26.8518,0.27618,1.95916,-0.130813,
0.0805697,-0.0997152,0.188706,-2.08091,0.436987,0.0335731,-0.069836,0.284191,0.0312483,0.297205,-0.541181,0.887305,0.666369,-0.0183854,-9.33246,-3.66262,-9.74546,9.67172,-46.9626,29.2952,1.56317,10.9262,-4.30082,11.7454,-42.215,3.50902,12.3629,-0.117768,0.085586,-0.101532,0.193184,-2.09697,0.447195,0.0416831,-0.0699716,0.358559,-0.0130305,0.605915,-1.13444,1.29092,1.19001,-0.0263967,0,0,0,0,0,0,0,-6.10608,-33.1972,-7.13622,26.8518,0.27618,1.95916,-0.130813,
0.0912208,-0.100243,0.199158,-2.10754,0.461484,0.0544812,-0.0702784,0.291344,0.0400476,0.305208,-0.551367,0.870566,0.687716,-0.0182218,4.47061,5.49958,5.0017,-6.36625,-10.4618,13.342,0.102243,10.0269,-6.29943,10.7813,-43.7337,5.952,12.3629,-0.213842,0.085586,-0.101532,0.193184,-2.09697,0.447195,0.0416831,-0.0699716,0.358559,-0.0130305,0.605915,-1.13444,1.29092,1.19001,-0.0263967,0,0,0,0,0,0,0,-6.10608,-33.1972,-7.13622,26.8518,0.27618,1.95916,-0.130813,
0.0933913,-0.0998493,0.201441,-2.11178,0.466757,0.0609194,-0.0703811,0.287339,0.0418727,0.301242,-0.547142,0.828297,0.711128,-0.0171456,-2.50293,1.14067,-2.47843,2.64019,-26.4183,14.6325,0.672634,10.5444,-5.23895,11.3453,-42.9616,4.5618,12.3629,-0.161972,0.085586,-0.101532,0.193184,-2.09697,0.447195,0.0416831,-0.0699716,0.358559,-0.0130305,0.605915,-1.13444,1.29092,1.19001,-0.0263967,0,0,0,0,0,0,0,-6.10608,-33.1972,-7.13622,26.8518,0.27618,1.95916,-0.130813,
0.0952748,-0.0996316,0.20342,-2.11573,0.471043,0.0677786,-0.0704482,0.276958,0.0389423,0.290475,-0.536384,0.769778,0.740384,-0.0153951,-6.48798,-1.83149,-6.72962,6.72408,-36.5744,18.2846,1.09406,10.8967,-4.73812,11.7675,-42.3327,3.41011,12.2216,-0.114757,0.101394,-0.102863,0.20697,-2.13496,0.490445,0.0876744,-0.0705357,0.455758,-0.0528693,0.386197,-1.0539,1.08547,1.47184,-0.0127075,12.1498,-4.97985,-27.4648,10.0678,-25.6802,35.2287,1.71116,-3.01159,-26.5837,-4.03777,23.6145,0.635983,-0.103525,-0.137222,
0.0969457,-0.0995374,0.205176,-2.11946,0.47443,0.0750672,-0.0704869,0.26334,0.0335076,0.276272,-0.522472,0.700498,0.774521,-0.0132825,-8.51161,-3.39673,-8.87678,8.69479,-43.3001,21.3361,1.32036,11.1709,-3.94098,12.0394,-41.616,2.65561,12.2216,-0.0764175,0.101394,-0.102863,0.20697,-2.13496,0.490445,0.0876744,-0.0705357,0.455758,-0.0528693,0.386197,-1.0539,1.08547,1.47184,-0.0127075,0,0,0,0,0,0,0,-3.01159,-26.5837,-4.03777,23.6145,0.635983,-0.103525,-0.137222,
0.106326,-0.102087,0.212181,-2.1447,0.501609,0.103438,-0.0707426,0.266736,0.0362661,0.280287,-0.527372,0.683584,0.806251,-0.0130139,2.12251,1.72407,2.50934,-3.06249,-10.5715,19.8308,0.167896,10.5149,-5.67624,11.3675,-43.0793,4.46289,12.2216,-0.158961,0.101394,-0.102863,0.20697,-2.13496,0.490445,0.0876744,-0.0705357,0.455758,-0.0528693,0.386197,-1.0539,1.08547,1.47184,-0.0127075,0,0,0,0,0,0,0,-3.01159,-26.5837,-4.03777,23.6145,0.635983,-0.103525,-0.137222,
0.108245,-0.101859,0.214206,-2.14866,0.505586,0.110854,-0.070808,0.261368,0.0347219,0.274868,-0.520956,0.646291,0.830391,-0.0120457,-3.355,-0.96514,-3.38671,4.01039,-23.3078,15.0877,0.605128,10.8967,-4.73812,11.7675,-42.3327,3.41011,12.2216,-0.114757,0.101394,-0.102863,0.20697,-2.13496,0.490445,0.0876744,-0.0705357,0.455758,-0.0528693,0.386197,-1.0539,1.08547,1.47184,-0.0127075,0,0,0,0,0,0,0,-3.01159,-26.5837,-4.03777,23.6145,0.635983,-0.103525,-0.137222,
0.10993,-0.10176,0.215984,-2.15239,0.508726,0.11846,-0.0708456,0.251217,0.0302474,0.264323,-0.509881,0.59553,0.854458,-0.0105783,-6.34448,-2.79652,-6.59093,6.92145,-31.7256,15.042,0.917145,10.9886,-4.01148,11.8954,-41.5961,2.63669,12.1933,-0.0736097,0.113588,-0.103064,0.222144,-2.16661,0.521011,0.134535,-0.070779,0.472876,0.0530046,0.379158,-1.00323,0.813411,1.53171,-0.0102998,2.13976,13.2342,-0.879815,6.33326,-34.008,7.48412,0.30096,-2.6585,-31.5746,-3.73625,26.0068,1.8518,1.95275,-0.130813,
0.111447,-0.101751,0.217583,-2.15594,0.511025,0.126318,-0.0708584,0.238891,0.0244258,0.251449,-0.496683,0.533917,0.880024,-0.0087814,-7.70376,-3.63854,-8.04614,8.24923,-38.5082,15.9784,1.12304,11.1669,-3.35243,12.0763,-40.9149,1.85392,12.1933,-0.0436795,0.113588,-0.103064,0.222144,-2.16661,0.521011,0.134535,-0.070779,0.472876,0.0530046,0.379158,-1.00323,0.813411,1.53171,-0.0102998,0,0,0,0,0,0,0,-2.6585,-31.5746,-3.73625,26.0068,1.8518,1.95275,-0.130813,
0.118443,-0.10151,0.227306,-2.17634,0.528931,0.150925,-0.0709186,0.245974,0.0367331,0.259528,-0.507583,0.51365,0.896269,-0.00859492,4.42676,7.69211,5.04909,-6.8126,-12.6673,10.1536,0.116551,10.7144,-4.80862,11.6236,-42.3127,3.3912,12.1933,-0.111949,0.113588,-0.103064,0.222144,-2.16661,0.521011,0.134535,-0.070779,0.472876,0.0530046,0.379158,-1.00323,0.813411,1.53171,-0.0102998,0,0,0,0,0,0,0,-2.6585,-31.5746,-3.73625,26.0068,1.8518,1.95275,-0.130813,
0.120312,-0.101059,0.22929,-2.18034,0.531645,0.158432,-0.070957,0.243504,0.0406571,0.257219,-0.506046,0.47877,0.904694,-0.00783455,-1.54374,2.45247,-1.44311,0.960565,-21.7998,5.26541,0.475234,10.9886,-4.01148,11.8954,-41.5961,2.63669,12.1933,-0.0736097,0.113588,-0.103064,0.222144,-2.16661,0.521011,0.134535,-0.070779,0.472876,0.0530046,0.379158,-1.00323,0.813411,1.53171,-0.0102998,0,0,0,0,0,0,0,-2.6585,-31.5746,-3.73625,26.0068,1.8518,1.95275,-0.130813,
0.121953,-0.100793,0.231029,-2.18409,0.533613,0.166048,-0.0709701,0.235832,0.0391659,0.249264,-0.498477,0.432206,0.914158,-0.00659585,-4.79453,-0.931996,-4.97155,4.73055,-29.1022,5.91484,0.774184,11.2698,-3.61951,12.224,-40.9359,1.89004,12.0667,-0.0407516,0.129293,-0.103098,0.237875,-2.20598,0.551276,0.195381,-0.0708466,0.24302,-0.032087,0.578656,-0.999165,0.62296,1.60169,0.000384307,-28.732,-10.6364,24.9372,0.508494,-23.8063,8.74731,1.33551,0.25745,-29.1783,-1.43523,20.9485,1.41235,1.05736,-0.123489,
0.123431,-0.100657,0.232595,-2.18765,0.534882,0.173877,-0.0709613,0.225618,0.0347297,0.238557,-0.487906,0.377503,0.927047,-0.00505653,-6.38413,-2.7726,-6.69168,6.60691,-34.1898,8.05599,0.962077,11.4149,-3.08142,12.3826,-40.2775,0.904685,12.0667,-0.0146919,0.129293,-0.103098,0.237875,-2.20598,0.551276,0.195381,-0.0708466,0.24302,-0.032087,0.578656,-0.999165,0.62296,1.60169,0.000384307,0,0,0,0,0,0,0,0.25745,-29.1783,-1.43523,20.9485,1.41235,1.05736,-0.123489,
0.133974,-0.102178,0.242909,-2.21539,0.556441,0.212239,-0.0709101,0.233606,0.0388146,0.247449,-0.496427,0.357119,0.938133,-0.00491112,4.99257,2.55305,5.55747,-5.32584,-12.7396,6.92854,0.0908844,11.0915,-4.27856,12.0431,-41.6171,2.67281,12.0667,-0.0706818,0.129293,-0.103098,0.237875,-2.20598,0.551276,0.195381,-0.0708466,0.24302,-0.032087,0.578656,-0.999165,0.62296,1.60169,0.000384307,0,0,0,0,0,0,0,0.25745,-29.1783,-1.43523,20.9485,1.41235,1.05736,-0.123489,
0.135787,-0.101889,0.244836,-2.21924,0.558037,0.219857,-0.0709247,0.232209,0.0382867,0.246143,-0.493385,0.325593,0.94095,-0.00429529,-0.873184,-0.329955,-0.816506,1.90163,-19.7039,1.76049,0.384888,11.2698,-3.61951,12.224,-40.9359,1.89004,12.0667,-0.0407516,0.129293,-0.103098,0.237875,-2.20598,0.551276,0.195381,-0.0708466,0.24302,-0.032087,0.578656,-0.999165,0.62296,1.60169,0.000384307,0,0,0,0,0,0,0,0.25745,-29.1783,-1.43523,20.9485,1.41235,1.05736,-0.123489,
0.137382,-0.101731,0.24653,-2.22286,0.559058,0.227554,-0.0709174,0.225636,0.0345689,0.239254,-0.485333,0.285989,0.945181,-0.00325334,-4.10776,-2.3236,-4.30567,5.03219,-24.7527,2.64446,0.651222,11.4101,-3.20424,12.4097,-40.2707,0.975761,11.9797,-0.0131687,0.144308,-0.103345,0.250771,-2.24065,0.568821,0.251332,-0.0708475,0.50941,-0.0308912,0.302043,-1.0213,0.512045,1.66218,0.000629613,33.2988,0.149471,-34.5766,-2.76726,-13.8645,7.56103,0.0306632,-2.20227,-28.1825,-3.161,24.7849,1.76025,1.56823,-0.110672,
0.138821,-0.101668,0.248058,-2.22633,0.559557,0.235441,-0.0708873,0.216481,0.0292358,0.229597,-0.475032,0.241268,0.953332,-0.00185082,-5.72184,-3.33317,-6.03546,6.43807,-27.9506,5.09444,0.876574,11.5558,-2.77683,12.5516,-39.6343,0.22925,11.9797,0.0102774,0.144308,-0.103345,0.250771,-2.24065,0.568821,0.251332,-0.0708475,0.50941,-0.0308912,0.302043,-1.0213,0.512045,1.66218,0.000629613,0,0,0,0,0,0,0,-2.20227,-28.1825,-3.161,24.7849,1.76025,1.56823,-0.110672,
0.148876,-0.102373,0.255628,-2.25004,0.572206,0.268209,-0.0708563,0.224697,0.0352022,0.23866,-0.485349,0.225226,0.958151,-0.00167712,5.13447,3.72899,5.66408,-6.44814,-10.0264,3.01156,0.108564,11.2649,-3.74233,12.251,-40.9291,1.96112,11.9797,-0.0392284,0.144308,-0.103345,0.250771,-2.24065,0.568821,0.251332,-0.0708475,0.50941,-0.0308912,0.302043,-1.0213,0.512045,1.66218,0.000629613,0,0,0,0,0,0,0,-2.20227,-28.1825,-3.161,24.7849,1.76025,1.56823,-0.110672,
0.150638,-0.102053,0.257505,-2.25385,0.572963,0.275762,-0.0708492,0.223803,0.0361598,0.237847,-0.483638,0.199116,0.955333,-0.00116264,-0.558585,0.598504,-0.507806,1.06958,-16.3183,-1.7607,0.321547,11.4101,-3.20424,12.4097,-40.2707,0.975761,11.9797,-0.0131687,0.144308,-0.103345,0.250771,-2.24065,0.568821,0.251332,-0.0708475,0.50941,-0.0308912,0.302043,-1.0213,0.512045,1.66218,0.000629613,0,0,0,0,0,0,0,-2.20227,-28.1825,-3.161,24.7849,1.76025,1.56823,-0.110672,
0.152191,-0.101868,0.259158,-2.25744,0.573275,0.283389,-0.0708201,0.217885,0.0335549,0.231615,-0.476773,0.167075,0.954951,-0.000201928,-3.69888,-1.62808,-3.89532,4.29066,-20.0258,-0.23898,0.600447,11.4866,-2.93239,12.5076,-39.5867,0.321469,11.8863,0.0116342,0.154537,-0.102792,0.267573,-2.27406,0.579564,0.307664,-0.0708304,0.322112,0.0514148,0.440948,-0.986075,0.422485,1.67398,0.00253412,-23.4122,10.2882,17.3632,4.40347,-11.195,1.47465,0.238064,-2.27765,-29.6028,-4.03777,24.5111,2.20611,1.51513,-0.0969389,
0.153594,-0.101781,0.260651,-2.26089,0.57325,0.291208,-0.0707751,0.209379,0.029018,0.222619,-0.467646,0.133035,0.959428,0.000962545,-5.31583,-2.8356,-5.62227,5.70436,-21.2751,2.7982,0.727796,11.6312,-2.6087,12.6368,-38.9714,-0.210316,11.8863,0.0369644,0.154537,-0.102792,0.267573,-2.27406,0.579564,0.307664,-0.0708304,0.322112,0.0514148,0.440948,-0.986075,0.422485,1.67398,0.00253412,0,0,0,0,0,0,0,-2.27765,-29.6028,-4.03777,24.5111,2.20611,1.51513,-0.0969389,
0.158802,-0.101217,0.272173,-2.28343,0.581219,0.324754,-0.0707852,0.215799,0.0408143,0.229947,-0.479798,0.117567,0.964674,0.00116189,4.01237,7.3727,4.57979,-7.59481,-9.6671,3.27877,0.124592,11.3409,-3.35981,12.3657,-40.2232,1.06798,11.8863,-0.0118119,0.154537,-0.102792,0.267573,-2.27406,0.579564,0.307664,-0.0708304,0.322112,0.0514148,0.440948,-0.986075,0.422485,1.67398,0.00253412,0,0,0,0,0,0,0,-2.27765,-29.6028,-4.03777,24.5111,2.20611,1.51513,-0.0969389,
0.160461,-0.100741,0.273949,-2.28726,0.581243,0.332313,-0.0707548,0.214111,0.0445445,0.228357,-0.479683,0.0946437,0.96071,0.00168989,-1.055,2.33141,-0.993881,0.0713328,-14.3273,-2.47789,0.329997,11.4866,-2.93239,12.5076,-39.5867,0.321469,11.8863,0.0116342,0.154537,-0.102792,0.267573,-2.27406,0.579564,0.307664,-0.0708304,0.322112,0.0514148,0.440948,-0.986075,0.422485,1.67398,0.00253412,0,0,0,0,0,0,0,-2.27765,-29.6028,-4.03777,24.5111,2.20611,1.51513,-0.0969389,
0.16193,-0.100447,0.27552,-2.29087,0.581001,0.339911,-0.0707098,0.208028,0.0429957,0.221966,-0.474086,0.0696645,0.958519,0.00247638,-3.80184,-0.968018,-3.9942,3.49862,-15.612,-1.36881,0.491554,11.6044,-2.72558,12.6244,-38.9982,-0.152312,11.7486,0.0395769,0.169756,-0.102275,0.277802,-2.30746,0.586348,0.366306,-0.0708103,0.303183,0.0272755,0.456475,-0.959937,0.212861,1.71793,-0.000874262,-2.3661,-3.01741,1.94078,3.26734,-26.203,5.4948,-0.426048,-1.08349,-29.8805,-2.312,24.7372,1.30157,1.20293,-0.0767973,
0.173928,-0.100958,0.282315,-2.3166,0.585749,0.383695,-0.0707334,0.213533,0.0493355,0.228237,-0.482549,0.043076,0.966568,0.00278698,3.44057,3.96237,3.91943,-5.28991,-16.6178,5.03023,0.194126,11.4599,-3.04927,12.4953,-39.6135,0.379474,11.7486,0.0142467,0.169756,-0.102275,0.277802,-2.30746,0.586348,0.366306,-0.0708103,0.303183,0.0272755,0.456475,-0.959937,0.212861,1.71793,-0.000874262,0,0,0,0,0,0,0,-1.08349,-29.8805,-2.312,24.7372,1.30157,1.20293,-0.0767973,
0.17554,-0.100554,0.284044,-2.32036,0.585147,0.391308,-0.0706922,0.211132,0.0495753,0.225813,-0.480098,0.0194107,0.963571,0.00326025,-1.5004,0.14986,-1.51506,1.53234,-14.7908,-1.87306,0.295797,11.6044,-2.72558,12.6244,-38.9982,-0.152312,11.7486,0.0395769,0.169756,-0.102275,0.277802,-2.30746,0.586348,0.366306,-0.0708103,0.303183,0.0272755,0.456475,-0.959937,0.212861,1.71793,-0.000874262,0,0,0,0,0,0,0,-1.08349,-29.8805,-2.312,24.7372,1.30157,1.20293,-0.0767973,
0.176972,-0.100306,0.285577,-2.3239,0.584349,0.398917,-0.0706336,0.204694,0.0458587,0.21897,-0.472609,-0.00443768,0.96108,0.00407272,-4.02397,-2.32286,-4.27657,4.68039,-14.9052,-1.55698,0.50779,11.684,-2.4945,12.6744,-38.4134,-0.375126,11.7486,0.0576332,0.169756,-0.102275,0.277802,-2.30746,0.586348,0.366306,-0.0708103,0.303183,0.0272755,0.456475,-0.959937,0.212861,1.71793,-0.000874262,0,0,0,0,0,0,0,-1.08349,-29.8805,-2.312,24.7372,1.30157,1.20293,-0.0767973,
0.178279,-0.100171,0.286975,-2.32729,0.583311,0.406664,-0.0705588,0.196434,0.0400435,0.210146,-0.462695,-0.0294934,0.962557,0.00512771,-5.16225,-3.6345,-5.51527,6.19642,-15.6599,0.923453,0.659374,11.7384,-2.33312,12.7346,-37.8499,-0.998983,11.7486,0.0741438,0.169756,-0.102275,0.277802,-2.30746,0.586348,0.366306,-0.0708103,0.303183,0.0272755,0.456475,-0.959937,0.212861,1.71793,-0.000874262,0,0,0,0,0,0,0,-1.08349,-29.8805,-2.312,24.7372,1.30157,1.20293,-0.0767973,
0.184225,-0.10088,0.296133,-2.34912,0.585463,0.442834,-0.070646,0.199374,0.044778,0.213809,-0.471965,-0.0551057,0.971536,0.00523252,1.83721,2.95904,2.28923,-5.79373,-16.0077,5.61172,0.0655034,11.5106,-2.92592,12.5529,-39.0574,-0.0887322,11.5898,0.0419122,0.180477,-0.101973,0.292101,-2.34011,0.587947,0.425334,-0.0707522,0.469117,0.00798667,0.216349,-0.945818,0.00689255,1.72865,-0.00219046,20.7417,-2.4111,-30.0158,1.76481,-25.746,1.33991,-0.164525,-1.21045,-27.2344,-2.68492,24.0152,1.60736,1.32928,0.00376909,
0.185691,-0.10053,0.297714,-2.35281,0.584213,0.45051,-0.0705896,0.19615,0.0445691,0.210575,-0.469976,-0.0753428,0.969119,0.00559744,-2.01511,-0.13052,-2.02088,1.24275,-12.6482,-1.51043,0.228074,11.5901,-2.69484,12.6029,-38.4726,-0.311547,11.5898,0.0599686,0.180477,-0.101973,0.292101,-2.34011,0.587947,0.425334,-0.0707522,0.469117,0.00798667,0.216349,-0.945818,0.00689255,1.72865,-0.00219046,0,0,0,0,0,0,0,-1.21045,-27.2344,-2.68492,24.0152,1.60736,1.32928,0.00376909,
0.187011,-0.100318,0.299135,-2.35629,0.582897,0.458172,-0.0705169,0.189935,0.0409582,0.203988,-0.462976,-0.0931735,0.966846,0.00629527,-3.88434,-2.25681,-4.11703,4.37532,-11.1441,-1.42109,0.436145,11.6445,-2.53346,12.6631,-37.9091,-0.935403,11.5898,0.0764791,0.180477,-0.101973,0.292101,-2.34011,0.587947,0.425334,-0.0707522,0.469117,0.00798667,0.216349,-0.945818,0.00689255,1.72865,-0.00219046,0,0,0,0,0,0,0,-1.21045,-27.2344,-2.68492,24.0152,1.60736,1.32928,0.00376909,
0.188231,-0.100209,0.300446,-2.35963,0.581525,0.465958,-0.0704338,0.182437,0.0354844,0.195962,-0.453722,-0.108823,0.968117,0.00711235,-4.68635,-3.42116,-5.016,5.78378,-9.7808,0.794661,0.510673,11.6927,-2.4101,12.7025,-37.3516,-1.38921,11.5898,0.0931294,0.180477,-0.101973,0.292101,-2.34011,0.587947,0.425334,-0.0707522,0.469117,0.00798667,0.216349,-0.945818,0.00689255,1.72865,-0.00219046,0,0,0,0,0,0,0,-1.21045,-27.2344,-2.68492,24.0152,1.60736,1.32928,0.00376909,
0.195342,-0.0996701,0.309822,-2.38111,0.583303,0.50326,-0.0705213,0.189547,0.0440651,0.204005,-0.4643,-0.130913,0.974568,0.00704039,4.44378,5.36297,5.02688,-6.61146,-13.8063,4.032,-0.0449749,11.5752,-2.79448,12.6024,-38.3847,-0.20486,11.4465,0.0614371,0.191475,-0.101107,0.305577,-2.37218,0.586874,0.485691,-0.0706451,0.169962,0.0637143,0.559621,-0.906457,-0.0952423,1.75518,0.00110717,-37.3944,6.96595,42.9091,4.92015,-12.7669,3.31529,0.412203,-0.119442,-29.456,-1.56218,26.705,1.55243,1.93902,-0.0163725,
0.196839,-0.0992552,0.311436,-2.38479,0.581665,0.510791,-0.0704546,0.189051,0.0456237,0.203567,-0.463515,-0.14568,0.96795,0.00730069,-0.310044,0.974114,-0.273797,0.490492,-9.22945,-4.13641,0.162688,11.6296,-2.63309,12.6626,-37.8211,-0.828716,11.4465,0.0779476,0.191475,-0.101107,0.305577,-2.37218,0.586874,0.485691,-0.0706451,0.169962,0.0637143,0.559621,-0.906457,-0.0952423,1.75518,0.00110717,0,0,0,0,0,0,0,-0.119442,-29.456,-1.56218,26.705,1.55243,1.93902,-0.0163725,
0.198119,-0.0992223,0.312797,-2.38796,0.580825,0.517834,-0.0701763,0.183237,0.0373225,0.196883,-0.449912,-0.137533,0.950428,0.0127974,-3.6338,-5.18825,-4.1779,8.50199,5.09166,-10.9511,3.43546,11.6778,-2.50973,12.702,-37.2637,-1.28253,11.4465,0.0945979,0.191475,-0.101107,0.305577,-2.37218,0.586874,0.485691,-0.0706451,0.169962,0.0637143,0.559621,-0.906457,-0.0952423,1.75518,0.00110717,0,0,0,0,0,0,0,-0.119442,-29.456,-1.56218,26.705,1.55243,1.93902,-0.0163725,
0.199254,-0.0995258,0.313986,-2.39073,0.580524,0.524412,-0.0696716,0.174976,0.0222703,0.18723,-0.429274,-0.117557,0.924799,0.0228562,-5.16305,-9.40764,-6.03269,12.899,12.4853,-16.0181,6.28674,11.6795,-2.42917,12.6764,-36.723,-1.44264,11.4465,0.105896,0.191475,-0.101107,0.305577,-2.37218,0.586874,0.485691,-0.0706451,0.169962,0.0637143,0.559621,-0.906457,-0.0952423,1.75518,0.00110717,0,0,0,0,0,0,0,-0.119442,-29.456,-1.56218,26.705,1.55243,1.93902,-0.0163725,
0.207804,-0.099261,0.320502,-2.41226,0.582906,0.564724,-0.0708762,0.180145,0.0233154,0.192334,-0.428015,-0.087124,0.960579,0.0156916,3.23051,0.653198,3.18955,0.786573,19.0205,22.3625,-4.47788,11.5748,-2.84133,12.6026,-37.6992,-0.69357,11.2953,0.0788533,0.204195,-0.100112,0.316672,-2.40425,0.583019,0.545756,-0.0704632,0.445736,0.0608919,0.228171,-0.936165,-0.150467,1.74009,0.0141353,34.4717,-0.352798,-41.4312,-3.71353,-6.90309,-1.88561,1.62851,-0.274166,-29.6028,-1.53838,26.6772,1.22833,2.62841,-0.0365141,
0.209122,-0.0996032,0.321869,-2.41488,0.583613,0.57216,-0.0708169,0.177066,0.0100972,0.188038,-0.407865,-0.0520139,0.954364,0.0140348,-1.92429,-8.26138,-2.68489,12.5943,21.9438,-3.88477,-1.03549,11.6229,-2.71798,12.642,-37.1418,-1.14738,11.2953,0.0955036,0.204195,-0.100112,0.316672,-2.40425,0.583019,0.545756,-0.0704632,0.445736,0.0608919,0.228171,-0.936165,-0.150467,1.74009,0.0141353,0,0,0,0,0,0,0,-0.274166,-29.6028,-1.53838,26.6772,1.22833,2.62841,-0.0365141,
0.210248,-0.100461,0.323007,-2.41698,0.584556,0.578388,-0.0705883,0.169825,-0.0133677,0.178895,-0.378886,-0.01804,0.9192,0.016942,-4.52561,-14.6655,-5.71457,18.1114,21.2337,-21.9776,1.81698,11.6247,-2.63741,12.6163,-36.6011,-1.30749,11.2953,0.106801,0.204195,-0.100112,0.316672,-2.40425,0.583019,0.545756,-0.0704632,0.445736,0.0608919,0.228171,-0.936165,-0.150467,1.74009,0.0141353,0,0,0,0,0,0,0,-0.274166,-29.6028,-1.53838,26.6772,1.22833,2.62841,-0.0365141,
0.211247,-0.101743,0.323989,-2.41873,0.585614,0.583612,-0.0701898,0.160815,-0.0427538,0.167671,-0.346927,0.0120269,0.865939,0.0235167,-5.63087,-18.3663,-7.01448,19.9747,18.7918,-33.2877,4.10922,11.6058,-2.58929,12.5965,-36.0747,-1.80568,11.2953,0.124309,0.204195,-0.100112,0.316672,-2.40425,0.583019,0.545756,-0.0704632,0.445736,0.0608919,0.228171,-0.936165,-0.150467,1.74009,0.0141353,0,0,0,0,0,0,0,-0.274166,-29.6028,-1.53838,26.6772,1.22833,2.62841,-0.0365141,
0.21593,-0.100216,0.336246,-2.44253,0.581375,0.619432,-0.0700578,0.168608,-0.045635,0.175447,-0.346306,0.0364105,0.896606,0.0199694,4.87062,-1.80075,4.85991,0.388127,15.2398,19.1664,-2.21705,11.7959,-3.21125,12.8235,-36.8566,-0.980895,11.1283,0.094985,0.212297,-0.0998042,0.332418,-2.4355,0.579738,0.601139,-0.0700483,0.25061,-0.0353254,0.432748,-0.905171,0.000809799,1.59539,0.017764,-24.3907,-12.0272,25.5721,3.8743,18.9096,-18.0875,0.453597,-0.171017,-26.909,-1.38762,20.401,-0.432438,3.17864,0.0907442,
0.217212,-0.10135,0.337526,-2.44438,0.582721,0.625818,-0.069872,0.166926,-0.064844,0.172362,-0.32326,0.0627985,0.876932,0.0206219,-1.05117,-12.0056,-1.92834,14.4034,16.4925,-12.2962,0.407801,11.7976,-3.13069,12.7979,-36.3159,-1.14101,11.1283,0.106283,0.212297,-0.0998042,0.332418,-2.4355,0.579738,0.601139,-0.0700483,0.25061,-0.0353254,0.432748,-0.905171,0.000809799,1.59539,0.017764,0,0,0,0,0,0,0,-0.171017,-26.909,-1.38762,20.401,-0.432438,3.17864,0.0907442,
0.218278,-0.103094,0.338549,-2.44567,0.584192,0.63073,-0.0695297,0.160199,-0.0954883,0.163469,-0.290816,0.0870116,0.824348,0.0250548,-4.20463,-19.1527,-5.55785,20.278,15.1332,-32.8646,2.77057,11.7787,-3.08257,12.7781,-35.7895,-1.6392,11.1283,0.12379,0.212297,-0.0998042,0.332418,-2.4355,0.579738,0.601139,-0.0700483,0.25061,-0.0353254,0.432748,-0.905171,0.000809799,1.59539,0.017764,0,0,0,0,0,0,0,-0.171017,-26.909,-1.38762,20.401,-0.432438,3.17864,0.0907442,
0.219211,-0.105315,0.339407,-2.44659,0.585662,0.634463,-0.0690272,0.151491,-0.131908,0.15223,-0.255643,0.106356,0.752796,0.0326052,-5.44262,-22.762,-7.02457,21.9828,12.0901,-44.7203,4.71896,11.6372,-3.04342,12.6064,-35.2762,-1.80839,11.1283,0.13316,0.212297,-0.0998042,0.332418,-2.4355,0.579738,0.601139,-0.0700483,0.25061,-0.0353254,0.432748,-0.905171,0.000809799,1.59539,0.017764,0,0,0,0,0,0,0,-0.171017,-26.909,-1.38762,20.401,-0.432438,3.17864,0.0907442,
0.21593,-0.100216,0.336246,-2.44253,0.581375,0.619432,-0.0700578,0.161149,-0.116958,0.163094,-0.273279,0.111874,0.806091,0.0272402,6.03618,9.34346,6.79008,-11.0223,3.44864,33.3093,-3.35311,11.8121,-3.50049,12.8268,-36.1431,-1.04734,10.9735,0.106582,0.227701,-0.100833,0.341892,-2.46363,0.581034,0.654788,-0.0695977,0.360587,-0.10267,0.399993,-0.769272,0.0894517,1.57268,0.0209416,13.7471,-8.4181,-4.09443,16.9874,11.0802,-2.83936,0.397196,-1.18664,-27.3335,-1.8875,19.1553,-0.725406,2.59545,-0.0365141,
0.232907,-0.104974,0.347128,-2.46986,0.58549,0.677496,-0.0688936,0.161679,-0.1452,0.161886,-0.244341,0.131422,0.779941,0.0306544,0.33134,-17.6515,-0.754883,18.0863,12.2177,-16.3435,2.13388,11.7932,-3.45236,12.807,-35.6167,-1.54553,10.9735,0.124089,0.227701,-0.100833,0.341892,-2.46363,0.581034,0.654788,-0.0695977,0.360587,-0.10267,0.399993,-0.769272,0.0894517,1.57268,0.0209416,0,0,0,0,0,0,0,-1.18664,-27.3335,-1.8875,19.1553,-0.725406,2.59545,-0.0365141,
0.233978,-0.107653,0.348101,-2.47037,0.587158,0.681265,-0.0683868,0.156126,-0.183134,0.153821,-0.208409,0.146852,0.718167,0.0371942,-3.47068,-23.7086,-5.04095,22.4572,9.64388,-38.6092,4.08738,11.6517,-3.41321,12.6353,-35.1035,-1.71473,10.9735,0.13346,0.227701,-0.100833,0.341892,-2.46363,0.581034,0.654788,-0.0695977,0.360587,-0.10267,0.399993,-0.769272,0.0894517,1.57268,0.0209416,0,0,0,0,0,0,0,-1.18664,-27.3335,-1.8875,19.1553,-0.725406,2.59545,-0.0365141,
0.234916,-0.110785,0.348904,-2.47056,0.58869,0.683773,-0.0677222,0.148331,-0.224801,0.143141,-0.171412,0.155778,0.637249,0.0463699,-4.87197,-26.042,-6.67496,23.123,5.57858,-50.5733,5.73481,11.4134,-3.37577,12.3899,-34.6002,-2.18087,10.9735,0.129303,0.227701,-0.100833,0.341892,-2.46363,0.581034,0.654788,-0.0695977,0.360587,-0.10267,0.399993,-0.769272,0.0894517,1.57268,0.0209416,0,0,0,0,0,0,0,-1.18664,-27.3335,-1.8875,19.1553,-0.725406,2.59545,-0.0365141,
0.235786,-0.114226,0.349615,-2.47055,0.590013,0.685346,-0.0668984,0.140422,-0.26587,0.132287,-0.136742,0.157687,0.549128,0.0576915,-4.9431,-25.6678,-6.78386,21.6689,1.19319,-55.0757,7.07602,11.1507,-3.96356,12.2084,-34.0358,-2.88074,10.8068,0.12178,0.234558,-0.105765,0.358077,-2.4865,0.58369,0.701826,-0.0686668,0.324141,-0.236191,0.267015,-0.633344,0.121272,1.18888,0.0217675,-4.55577,-16.6901,-16.6223,16.9909,3.97752,-47.9739,0.103241,-2.15069,-22.1166,-3.48631,15.6442,-0.646671,5.62584,-0.0301054,
0.23771,-0.11007,0.361149,-2.49002,0.586719,0.714234,-0.0681251,0.146716,-0.273581,0.138455,-0.136739,0.165999,0.567874,0.0542935,3.93413,-4.81949,3.85544,0.00237728,5.19494,11.7163,-2.12377,11.7006,-4.09733,12.7813,-35.57,-1.46345,10.8068,0.124336,0.234558,-0.105765,0.358077,-2.4865,0.58369,0.701826,-0.0686668,0.324141,-0.236191,0.267015,-0.633344,0.121272,1.18888,0.0217675,0,0,0,0,0,0,0,-2.15069,-22.1166,-3.48631,15.6442,-0.646671,5.62584,-0.0301054,
0.238821,-0.113135,0.362135,-2.49037,0.588327,0.717629,-0.0676525,0.145146,-0.295486,0.135417,-0.118355,0.173014,0.539168,0.0552501,-0.981111,-13.6904,-1.89901,11.4897,4.38463,-17.9413,0.597882,11.5591,-4.05818,12.6096,-35.0567,-1.63265,10.8068,0.133707,0.234558,-0.105765,0.358077,-2.4865,0.58369,0.701826,-0.0686668,0.324141,-0.236191,0.267015,-0.633344,0.121272,1.18888,0.0217675,0,0,0,0,0,0,0,-2.15069,-22.1166,-3.48631,15.6442,-0.646671,5.62584,-0.0301054,
0.239782,-0.116705,0.362927,-2.49029,0.589808,0.719659,-0.0670185,0.140123,-0.32565,0.128137,-0.0926719,0.175436,0.482097,0.0600506,-3.13994,-18.8527,-4.54976,16.052,1.51359,-35.6693,3.00033,11.3209,-4.02074,12.3642,-34.5534,-2.09879,10.8068,0.129551,0.234558,-0.105765,0.358077,-2.4865,0.58369,0.701826,-0.0686668,0.324141,-0.236191,0.267015,-0.633344,0.121272,1.18888,0.0217675,0,0,0,0,0,0,0,-2.15069,-22.1166,-3.48631,15.6442,-0.646671,5.62584,-0.0301054,
0.237725,-0.110027,0.361156,-2.48995,0.586657,0.714224,-0.0681292,0.146731,-0.32076,0.135292,-0.100491,0.17904,0.514051,0.0560997,4.13053,3.05664,4.47162,-4.88713,2.25225,19.9711,-2.46931,11.5591,-4.05818,12.6096,-35.0567,-1.63265,10.8068,0.133707,0.249404,-0.116353,0.363446,-2.50534,0.586468,0.737563,-0.0670806,0.273809,-0.347643,0.276113,-0.503644,0.072449,0.831386,0.0397325,-6.29146,-13.9315,1.13729,16.2125,-6.10286,-44.6874,2.24562,-0.829586,-22.0412,-0.788561,20.1511,0.21484,6.75286,0.0843355,
0.238859,-0.113059,0.362161,-2.49025,0.588168,0.717603,-0.0676635,0.145752,-0.33241,0.133347,-0.087893,0.181013,0.495717,0.0565225,-0.612128,-7.28132,-1.21571,7.87398,1.23303,-11.4585,0.264245,11.2382,-4.52595,12.3918,-34.5207,-2.04397,10.6746,0.129962,0.249404,-0.116353,0.363446,-2.50534,0.586468,0.737563,-0.0670806,0.273809,-0.347643,0.276113,-0.503644,0.072449,0.831386,0.0397325,0,0,0,0,0,0,0,-0.829586,-22.0412,-0.788561,20.1511,0.21484,6.75286,0.0843355,
0.239847,-0.116602,0.362976,-2.49012,0.589529,0.719613,-0.0670369,0.141297,-0.354503,0.127061,-0.0668305,0.178839,0.446839,0.060883,-2.78437,-13.8085,-3.92865,13.164,-1.35818,-30.549,2.72532,11.0681,-4.46877,12.2359,-34.0031,-2.82592,10.6746,0.122191,0.249404,-0.116353,0.363446,-2.50534,0.586468,0.737563,-0.0670806,0.273809,-0.347643,0.276113,-0.503644,0.072449,0.831386,0.0397325,0,0,0,0,0,0,0,-0.829586,-22.0412,-0.788561,20.1511,0.21484,6.75286,0.0843355,
0.240758,-0.12051,0.363683,-2.48973,0.590675,0.720607,-0.0662416,0.135817,-0.381286,0.119325,-0.0437737,0.17171,0.382304,0.0685881,-3.4248,-16.7393,-4.83525,14.4105,-4.45585,-40.3341,4.81564,11.0301,-4.40481,12.1915,-33.4698,-3.37899,10.6746,0.117751,0.249404,-0.116353,0.363446,-2.50534,0.586468,0.737563,-0.0670806,0.273809,-0.347643,0.276113,-0.503644,0.072449,0.831386,0.0397325,0,0,0,0,0,0,0,-0.829586,-22.0412,-0.788561,20.1511,0.21484,6.75286,0.0843355,
0.252444,-0.122291,0.366293,-2.50764,0.588255,0.745721,-0.0661881,0.142437,-0.384943,0.125981,-0.0491343,0.160802,0.387169,0.0675283,4.13746,-2.28543,4.16005,-3.35037,-6.81736,3.0403,-0.662372,11.2382,-4.52595,12.3918,-34.5207,-2.04397,10.6746,0.129962,0.249404,-0.116353,0.363446,-2.50534,0.586468,0.737563,-0.0670806,0.273809,-0.347643,0.276113,-0.503644,0.072449,0.831386,0.0397325,0,0,0,0,0,0,0,-0.829586,-22.0412,-0.788561,20.1511,0.21484,6.75286,0.0843355,
0.253583,-0.125989,0.367249,-2.50757,0.589153,0.747624,-0.065529,0.142433,-0.400397,0.124679,-0.0375609,0.151095,0.357314,0.0704992,-0.00266585,-9.65872,-0.813768,7.23333,-6.06724,-18.6591,1.85685,11.0681,-4.46877,12.2359,-34.0031,-2.82592,10.6746,0.122191,0.249404,-0.116353,0.363446,-2.50534,0.586468,0.737563,-0.0670806,0.273809,-0.347643,0.276113,-0.503644,0.072449,0.831386,0.0397325,0,0,0,0,0,0,0,-0.829586,-22.0412,-0.788561,20.1511,0.21484,6.75286,0.0843355,
0.254601,-0.130083,0.368044,-2.50715,0.589921,0.748493,-0.0647027,0.139399,-0.422667,0.119612,-0.0195853,0.140062,0.307576,0.0770572,-1.89606,-13.9189,-3.16681,11.2348,-6.89541,-31.0861,4.09874,11.0301,-4.40481,12.1915,-33.4698,-3.37899,10.6746,0.117751,0.249404,-0.116353,0.363446,-2.50534,0.586468,0.737563,-0.0670806,0.273809,-0.347643,0.276113,-0.503644,0.072449,0.831386,0.0397325,0,0,0,0,0,0,0,-0.829586,-22.0412,-0.788561,20.1511,0.21484,6.75286,0.0843355,
0.255556,-0.134441,0.36875,-2.50655,0.590511,0.748615,-0.0637067,0.135402,-0.447088,0.113327,-0.000720467,0.126806,0.249095,0.0865457,-2.49825,-15.2632,-3.92777,11.7905,-8.28503,-36.5507,5.93032,11.0917,-4.36777,12.2162,-32.9471,-3.73093,10.6746,0.114871,0.249404,-0.116353,0.363446,-2.50534,0.586468,0.737563,-0.0670806,0.273809,-0.347643,0.276113,-0.503644,0.072449,0.831386,0.0397325,0,0,0,0,0,0,0,-0.829586,-22.0412,-0.788561,20.1511,0.21484,6.75286,0.0843355,
0.25249,-0.122236,0.366329,-2.50754,0.588089,0.745709,-0.0661985,0.142766,-0.436873,0.121718,-0.0133353,0.122375,0.280361,0.0817437,4.6022,6.38478,5.24439,-7.88427,-2.76933,19.5413,-3.00127,11.0681,-4.46877,12.2359,-34.0031,-2.82592,10.6746,0.122191,0.249404,-0.116353,0.363446,-2.50534,0.586468,0.737563,-0.0670806,0.273809,-0.347643,0.276113,-0.503644,0.072449,0.831386,0.0397325,0,0,0,0,0,0,0,-0.829586,-22.0412,-0.788561,20.1511,0.21484,6.75286,0.0843355,
0.253656,-0.125912,0.367307,-2.50742,0.588876,0.747599,-0.0655447,0.143366,-0.441395,0.121816,-0.00767562,0.117599,0.271538,0.0817382,0.374918,-2.82659,0.0607604,3.5373,-2.98533,-5.51468,-0.0034231,11.0301,-4.40481,12.1915,-33.4698,-3.37899,10.6746,0.117751,0.249404,-0.116353,0.363446,-2.50534,0.586468,0.737563,-0.0670806,0.273809,-0.347643,0.276113,-0.503644,0.072449,0.831386,0.0397325,0,0,0,0,0,0,0,-0.829586,-22.0412,-0.788561,20.1511,0.21484,6.75286,0.0843355,
0.254698,-0.12999,0.368122,-2.50696,0.589538,0.748454,-0.0647221,0.140721,-0.45507,0.117836,0.00539456,0.110614,0.2386,0.0859579,-1.65311,-8.54709,-2.48735,8.16886,-4.36534,-20.5864,2.63733,11.0917,-4.36777,12.2162,-32.9471,-3.73093,10.6746,0.114871,0.249404,-0.116353,0.363446,-2.50534,0.586468,0.737563,-0.0670806,0.273809,-0.347643,0.276113,-0.503644,0.072449,0.831386,0.0397325,0,0,0,0,0,0,0,-0.829586,-22.0412,-0.788561,20.1511,0.21484,6.75286,0.0843355,
0.25567,-0.134338,0.368844,-2.50633,0.590037,0.748561,-0.0637277,0.136884,-0.472742,0.112322,0.0201235,0.100977,0.193564,0.0936242,-2.39813,-11.0446,-3.44602,9.20557,-6.02336,-28.1471,4.79143,11.2004,-4.33266,12.2965,-32.4182,-3.92878,10.6746,0.114501,0.249404,-0.116353,0.363446,-2.50534,0.586468,0.737563,-0.0670806,0.273809,-0.347643,0.276113,-0.503644,0.072449,0.831386,0.0397325,0,0,0,0,0,0,0,-0.829586,-22.0412,-0.788561,20.1511,0.21484,6.75286,0.0843355,
0.252529,-0.12219,0.366357,-2.50746,0.587961,0.745701,-0.0662051,0.144493,-0.456806,0.121322,0.00442986,0.0998304,0.235776,0.087316,4.75578,9.96013,5.62514,-9.8085,-0.716375,26.3825,-3.94265,11.0301,-4.40481,12.1915,-33.4698,-3.37899,10.6746,0.117751,0.249404,-0.116353,0.363446,-2.50534,0.586468,0.737563,-0.0670806,0.273809,-0.347643,0.276113,-0.503644,0.072449,0.831386,0.0397325,0,0,0,0,0,0,0,-0.829586,-22.0412,-0.788561,20.1511,0.21484,6.75286,0.0843355,
0.253715,-0.125847,0.367352,-2.5073,0.588669,0.747582,-0.065554,0.145254,-0.456866,0.121936,0.00755664,0.0975553,0.235642,0.0861305,0.476004,-0.0376503,0.383628,1.95423,-1.42193,-0.083878,-0.740947,11.0917,-4.36777,12.2162,-32.9471,-3.73093,10.6746,0.114871,0.249404,-0.116353,0.363446,-2.50534,0.586468,0.737563,-0.0670806,0.273809,-0.347643,0.276113,-0.503644,0.072449,0.831386,0.0397325,0,0,0,0,0,0,0,-0.829586,-22.0412,-0.788561,20.1511,0.21484,6.75286,0.0843355,
0.254772,-0.129911,0.368182,-2.50681,0.589258,0.748427,-0.0647321,0.142623,-0.467101,0.118306,0.0184276,0.092773,0.20963,0.0894517,-1.6449,-6.39676,-2.26858,6.79433,-2.98892,-16.2574,2.07576,11.2004,-4.33266,12.2965,-32.4182,-3.92878,10.6746,0.114501,0.249404,-0.116353,0.363446,-2.50534,0.586468,0.737563,-0.0670806,0.273809,-0.347643,0.276113,-0.503644,0.072449,0.831386,0.0397325,0,0,0,0,0,0,0,-0.829586,-22.0412,-0.788561,20.1511,0.21484,6.75286,0.0843355,
0.255755,-0.134248,0.368915,-2.50615,0.5897,0.748524,-0.063737,0.13866,-0.482119,0.112974,0.0312258,0.0852724,0.170132,0.0964389,-2.47687,-9.38655,-3.33258,7.99887,-4.68789,-24.6862,4.36698,11.3279,-4.31127,12.3985,-31.889,-3.97517,10.6746,0.11436,0.249404,-0.116353,0.363446,-2.50534,0.586468,0.737563,-0.0670806,0.273809,-0.347643,0.276113,-0.503644,0.072449,0.831386,0.0397325,0,0,0,0,0,0,0,-0.829586,-22.0412,-0.788561,20.1511,0.21484,6.75286,0.0843355,
0.256695,-0.138739,0.369594,-2.50543,0.589997,0.748114,-0.062578,0.13445,-0.497968,0.107346,0.0428841,0.0756391,0.125844,0.106124,-2.63092,-9.90532,-3.51778,7.28644,-6.0208,-27.6803,6.05345,11.4599,-4.31024,12.5086,-31.3635,-3.91735,10.6746,0.115553,0.249404,-0.116353,0.363446,-2.50534,0.586468,0.737563,-0.0670806,0.273809,-0.347643,0.276113,-0.503644,0.072449,0.831386,0.0397325,0,0,0,0,0,0,0,-0.829586,-22.0412,-0.788561,20.1511,0.21484,6.75286,0.0843355,
0.252559,-0.122151,0.366378,-2.5074,0.587869,0.745697,-0.0662087,0.142949,-0.476481,0.117665,0.0235269,0.0782209,0.181496,0.0972702,5.3118,13.4293,6.44952,-12.0982,1.61361,34.7828,-5.53386,11.0917,-4.36777,12.2162,-32.9471,-3.73093,10.6746,0.114871,0.249404,-0.116353,0.363446,-2.50534,0.586468,0.737563,-0.0670806,0.273809,-0.347643,0.276113,-0.503644,0.072449,0.831386,0.0397325,0,0,0,0,0,0,0,-0.829586,-22.0412,-0.788561,20.1511,0.21484,6.75286,0.0843355,
0.253759,-0.125791,0.367385,-2.5072,0.588525,0.747571,-0.0655581,0.144355,-0.472198,0.119321,0.0236378,0.0789528,0.19206,0.0940804,0.87889,2.67659,1.03494,0.069289,0.457446,6.60209,-1.99361,11.2004,-4.33266,12.2965,-32.4182,-3.92878,10.6746,0.114501,0.249404,-0.116353,0.363446,-2.50534,0.586468,0.737563,-0.0670806,0.273809,-0.347643,0.276113,-0.503644,0.072449,0.831386,0.0397325,0,0,0,0,0,0,0,-0.829586,-22.0412,-0.788561,20.1511,0.21484,6.75286,0.0843355,
0.254825,-0.129843,0.368225,-2.50668,0.58907,0.748409,-0.064735,0.142131,-0.479056,0.116457,0.0319556,0.0768016,0.174583,0.0958434,-1.3899,-4.28636,-1.79012,5.19864,-1.3445,-10.9228,1.10187,11.3279,-4.31127,12.3985,-31.889,-3.97517,10.6746,0.11436,0.249404,-0.116353,0.363446,-2.50534,0.586468,0.737563,-0.0670806,0.273809,-0.347643,0.276113,-0.503644,0.072449,0.831386,0.0397325,0,0,0,0,0,0,0,-0.829586,-22.0412,-0.788561,20.1511,0.21484,6.75286,0.0843355,
0.25581,-0.134172,0.368964,-2.506,0.589486,0.748498,-0.0637374,0.138347,-0.491465,0.111622,0.0425506,0.0718288,0.141897,0.101614,-2.36496,-7.7553,-3.02151,6.6219,-3.10803,-20.4292,3.60645,11.4599,-4.31024,12.5086,-31.3635,-3.91735,10.6746,0.115553,0.249404,-0.116353,0.363446,-2.50534,0.586468,0.737563,-0.0670806,0.273809,-0.347643,0.276113,-0.503644,0.072449,0.831386,0.0397325,0,0,0,0,0,0,0,-0.829586,-22.0412,-0.788561,20.1511,0.21484,6.75286,0.0843355,
0.252579,-0.122118,0.366393,-2.50734,0.587809,0.745694,-0.06621,0.146323,-0.470852,0.121309,0.0239585,0.0743357,0.194269,0.0936527,4.98458,12.8833,6.05414,-11.6201,1.56685,32.7325,-4.97565,11.2004,-4.33266,12.2965,-32.4182,-3.92878,10.6746,0.114501,0.249404,-0.116353,0.363446,-2.50534,0.586468,0.737563,-0.0670806,0.273809,-0.347643,0.276113,-0.503644,0.072449,0.831386,0.0397325,0,0,0,0,0,0,0,-0.829586,-22.0412,-0.788561,20.1511,0.21484,6.75286,0.0843355,
0.253787,-0.125744,0.367409,-2.50713,0.588435,0.747564,-0.0655583,0.14724,-0.46734,0.122429,0.0246107,0.0751064,0.202164,0.0912137,0.573488,2.19472,0.70015,0.407626,0.481678,4.93484,-1.52438,11.3279,-4.31127,12.3985,-31.889,-3.97517,10.6746,0.11436,0.249404,-0.116353,0.363446,-2.50534,0.586468,0.737563,-0.0670806,0.273809,-0.347643,0.276113,-0.503644,0.072449,0.831386,0.0397325,0,0,0,0,0,0,0,-0.829586,-22.0412,-0.788561,20.1511,0.21484,6.75286,0.0843355,
0.254855,-0.129785,0.368253,-2.50659,0.588962,0.748396,-0.0647323,0.144501,-0.474899,0.119047,0.0332233,0.0732838,0.182528,0.0936212,-1.71177,-4.72428,-2.11409,5.38288,-1.13917,-12.2728,1.50471,11.4599,-4.31024,12.5086,-31.3635,-3.91735,10.6746,0.115553,0.249404,-0.116353,0.363446,-2.50534,0.586468,0.737563,-0.0670806,0.273809,-0.347643,0.276113,-0.503644,0.072449,0.831386,0.0397325,0,0,0,0,0,0,0,-0.829586,-22.0412,-0.788561,20.1511,0.21484,6.75286,0.0843355,
0.255838,-0.134105,0.368991,-2.50589,0.589376,0.748479,-0.0637311,0.140176,-0.48793,0.113691,0.0439364,0.0689722,0.148089,0.0999285,-2.70319,-8.14471,-3.34702,6.69569,-2.69473,-21.5244,3.94205,11.5768,-4.32987,12.6041,-30.8448,-3.75646,10.6746,0.11614,0.249404,-0.116353,0.363446,-2.50534,0.586468,0.737563,-0.0670806,0.273809,-0.347643,0.276113,-0.503644,0.072449,0.831386,0.0397325,0,0,0,0,0,0,0,-0.829586,-22.0412,-0.788561,20.1511,0.21484,6.75286,0.0843355,
0.25259,-0.12209,0.366403,-2.5073,0.587778,0.745692,-0.0662095,0.147915,-0.467661,0.123093,0.0256074,0.0716399,0.199171,0.0923217,4.8364,12.6685,5.87612,-11.4557,1.66731,31.9263,-4.75427,11.3279,-4.31127,12.3985,-31.889,-3.97517,10.6746,0.11436,0.249404,-0.116353,0.363446,-2.50534,0.586468,0.737563,-0.0670806,0.273809,-0.347643,0.276113,-0.503644,0.072449,0.831386,0.0397325,0,0,0,0,0,0,0,-0.829586,-22.0412,-0.788561,20.1511,0.21484,6.75286,0.0843355,
0.253799,-0.125704,0.367421,-2.50707,0.588395,0.747558,-0.0655557,0.148547,-0.464486,0.123924,0.0263891,0.0727486,0.205996,0.0902044,0.395083,1.98448,0.519354,0.48861,0.69294,4.26573,-1.32331,11.4599,-4.31024,12.5086,-31.3635,-3.91735,10.6746,0.115553,0.249404,-0.116353,0.363446,-2.50534,0.586468,0.737563,-0.0670806,0.273809,-0.347643,0.276113,-0.503644,0.072449,0.831386,0.0397325,0,0,0,0,0,0,0,-0.829586,-22.0412,-0.788561,20.1511,0.21484,6.75286,0.0843355,
0.254864,-0.129735,0.368264,-2.50651,0.588927,0.748385,-0.0647258,0.145468,-0.472365,0.120224,0.0350047,0.0714932,0.185477,0.0929096,-1.92415,-4.92484,-2.31283,5.38474,-0.78463,-12.8244,1.69076,11.5768,-4.32987,12.6041,-30.8448,-3.75646,10.6746,0.11614,0.249404,-0.116353,0.363446,-2.50534,0.586468,0.737563,-0.0670806,0.273809,-0.347643,0.276113,-0.503644,0.072449,0.831386,0.0397325,0,0,0,0,0,0,0,-0.829586,-22.0412,-0.788561,20.1511,0.21484,6.75286,0.0843355,
