xiao-wang007/linearmpc_panda/paper_data/panda_inverse_dynamics_controller_opt_time_to_start_low_pass_acceleration/3/trajectory.csv
Commanded Joint 0 Position,Commanded Joint 1 Position,Commanded Joint 2 Position,Commanded Joint 3 Position,Commanded Joint 4 Position,Commanded Joint 5 Position,Commanded Joint 6 Position,Commanded Joint 0 Velocity,Commanded Joint 1 Velocity,Commanded Joint 2 Velocity,Commanded Joint 3 Velocity,Commanded Joint 4 Velocity,Commanded Joint 5 Velocity,Commanded Joint 6 Velocity,Commanded Joint 0 Acceleration,Commanded Joint 1 Acceleration,Commanded Joint 2 Acceleration,Commanded Joint 3 Acceleration,Commanded Joint 4 Acceleration,Commanded Joint 5 Acceleration,Commanded Joint 6 Acceleration,Commanded Joint 0 Torque,Commanded Joint 1 Torque,Commanded Joint 2 Torque,Commanded Joint 3 Torque,Commanded Joint 4 Torque,Commanded Joint 5 Torque,Commanded Joint 6 Torque,Actual Joint 0 Position,Actual Joint 1 Position,Actual Joint 2 Position,Actual Joint 3 Position,Actual Joint 4 Position,Actual Joint 5 Position,Actual Joint 6 Position,Actual Joint 0 Velocity,Actual Joint 1 Velocity,Actual Joint 2 Velocity,Actual Joint 3 Velocity,Actual Joint 4 Velocity,Actual Joint 5 Velocity,Actual Joint 6 Velocity,Actual Joint 0 Acceleration,Actual Joint 1 Acceleration,Actual Joint 2 Acceleration,Actual Joint 3 Acceleration,Actual Joint 4 Acceleration,Actual Joint 5 Acceleration,Actual Joint 6 Acceleration,Actual Joint 0 Torque,Actual Joint 1 Torque,Actual Joint 2 Torque,Actual Joint 3 Torque,Actual Joint 4 Torque,Actual Joint 5 Torque,Actual Joint 6 Torque,
0.000945616,-0.0679441,0.0257384,-1.83551,-0.00561394,0.23138,0.0144889,0.00058105,0.0201075,0.00069963,-0.033972,-0.00497247,0.0532093,-0.000376793,0.363157,12.5672,0.437269,-21.2325,-3.10779,33.2558,-0.235495,0.0542702,22.2544,0.173797,-24.3433,-0.579447,1.96322,-0.0245803,0.00090321,-0.0687123,0.0256858,-1.83264,-0.00522837,0.22568,0.0145359,0.00314508,0.00159731,0.00143812,-0.00109523,-0.0151016,0.00327257,-4.69421e-05,0,0,0,0,0,0,0,-0.119442,-33.0226,-0.288683,27.4271,0.733944,2.90673,0.0303194,
0.000922944,-0.0686852,0.025707,-1.83265,-0.00534867,0.225712,0.0145336,0.000554445,0.0162694,0.000655022,-0.0272504,-0.00445389,0.0427243,-0.000311588,-0.0166283,-2.39881,-0.02788,4.20101,0.32411,-6.55312,0.0407531,0.0485424,22.6951,0.163463,-24.2597,-0.57961,1.71205,-0.0230654,0.00090321,-0.0687123,0.0256858,-1.83264,-0.00522837,0.22568,0.0145359,0.00314508,0.00159731,0.00143812,-0.00109523,-0.0151016,0.00327257,-4.69421e-05,0,0,0,0,0,0,0,-0.119442,-33.0226,-0.288683,27.4271,0.733944,2.90673,0.0303194,
0.00092515,-0.0686791,0.0257093,-1.83265,-0.00535866,0.225716,0.0145334,0.0004987,0.0131674,0.000581435,-0.0218559,-0.00381288,0.0342909,-0.000255386,-0.0348408,-1.93877,-0.0459917,3.37154,0.400632,-5.27088,0.0351261,0.0413518,23.2667,0.151742,-24.1517,-0.578963,1.36423,-0.021098,0.00090321,-0.0687123,0.0256858,-1.83264,-0.00522837,0.22568,0.0145359,0.00314508,0.00159731,0.00143812,-0.00109523,-0.0151016,0.00327257,-4.69421e-05,0,0,0,0,0,0,0,-0.119442,-33.0226,-0.288683,27.4271,0.733944,2.90673,0.0303194,
0.000926542,-0.068674,0.0257107,-1.83265,-0.00536373,0.22572,0.0145332,0.000433781,0.0106613,0.000500273,-0.0175274,-0.00317705,0.0275206,-0.000208138,-0.0405745,-1.56626,-0.0507265,2.7053,0.397394,-4.23143,0.0295302,0.0354356,23.7908,0.142338,-23.9839,-0.576816,0.978796,-0.0190977,0.00090321,-0.0687123,0.0256858,-1.83264,-0.00522837,0.22568,0.0145359,0.00314508,0.00159731,0.00143812,-0.00109523,-0.0151016,0.00327257,-4.69421e-05,0,0,0,0,0,0,0,-0.119442,-33.0226,-0.288683,27.4271,0.733944,2.90673,0.0303194,
0.000927447,-0.0686697,0.0257115,-1.83265,-0.00536614,0.225723,0.0145331,0.00036963,0.0086378,0.000421987,-0.0140547,-0.00260198,0.0220939,-0.000169038,-0.0400941,-1.26472,-0.0489286,2.17048,0.359422,-3.39169,0.0244371,0.0321538,24.1381,0.135749,-23.7129,-0.5716,0.612421,-0.0174069,0.000899215,-0.0679892,0.0256827,-1.83319,-0.00521819,0.225947,0.0145311,0.00411074,0.0669644,-0.00183686,-0.0312738,-0.00807731,0.0208152,-0.000133897,0.120708,8.17088,-0.409372,-3.77232,0.878037,2.19283,-0.0108693,-0.0440639,-24.5882,-0.185533,19.0799,0.642391,1.44829,0.0303194,
0.000603665,-0.066571,0.0253993,-1.83384,0.00484589,0.221154,0.0144979,-0.000391007,0.00980923,-0.000377094,-0.0129424,0.0503614,-0.00788639,-0.000154194,-0.475398,0.732146,-0.499426,0.695148,33.1021,-18.7377,0.00927801,0.440322,0.174675,0.434568,-0.215437,3.05766,-1.3259,-0.00115657,0.000899215,-0.0679892,0.0256827,-1.83319,-0.00521819,0.225947,0.0145311,0.00411074,0.0669644,-0.00183686,-0.0312738,-0.00807731,0.0208152,-0.000133897,0,0,0,0,0,0,0,-0.0440639,-24.5882,-0.185533,19.0799,0.642391,1.44829,0.0303194,
0.000587471,-0.0664773,0.025382,-1.83389,0.00697943,0.220123,0.0144974,-0.000717669,0.01019,-0.000736115,-0.0118307,0.0936275,-0.0321038,-0.000135188,-0.204164,0.237955,-0.224388,0.694837,27.0413,-15.1359,0.0118787,0.4355,0.172443,0.429733,-0.213339,3.02995,-1.31382,-0.00113928,0.000899215,-0.0679892,0.0256827,-1.83319,-0.00521819,0.225947,0.0145311,0.00411074,0.0669644,-0.00183686,-0.0312738,-0.00807731,0.0208152,-0.000133897,0,0,0,0,0,0,0,-0.0440639,-24.5882,-0.185533,19.0799,0.642391,1.44829,0.0303194,
0.000581083,-0.0664004,0.0253744,-1.83395,0.00913017,0.219093,0.0144971,-0.000733834,0.0100745,-0.000777126,-0.0107567,0.128671,-0.051423,-0.000117095,-0.0101035,-0.0721848,-0.0256316,0.671259,21.9019,-12.0745,0.0113076,0.430756,0.170489,0.424982,-0.211188,3.0021,-1.30171,-0.00112002,0.000899215,-0.0679892,0.0256827,-1.83319,-0.00521819,0.225947,0.0145311,0.00411074,0.0669644,-0.00183686,-0.0312738,-0.00807731,0.0208152,-0.000133897,0,0,0,0,0,0,0,-0.0440639,-24.5882,-0.185533,19.0799,0.642391,1.44829,0.0303194,
0.000582977,-0.0663364,0.0253753,-1.83399,0.0112858,0.218072,0.0144968,-0.000539717,0.00966135,-0.000600631,-0.00974313,0.156827,-0.0666501,-0.000101941,0.121323,-0.258195,0.110309,0.633468,17.5977,-9.5169,0.00947162,0.426809,0.177408,0.420607,-0.209601,2.97423,-1.28499,-0.00113146,0.000928121,-0.0676842,0.025726,-1.83445,-0.00512355,0.226295,0.0145311,0.00857828,0.0334091,0.00834539,-0.0453946,0.0110983,-0.00922917,0.000771014,0.558442,-4.19441,1.27278,-1.7651,2.39695,-3.75555,0.113114,0.511356,-32.975,0.338148,26.6772,0.898739,3.08617,0.0303194,
0.000679947,-0.0667667,0.0255365,-1.83451,0.0292443,0.201987,0.0144537,0.00112788,0.00954402,0.00111896,-0.00950406,0.296856,-0.179364,-1.89437e-05,1.04225,-0.0733368,1.07475,0.149419,87.5183,-70.4462,0.0518732,3.61261,1.1223,3.6774,-1.5992,10.7785,-7.49879,-0.00329765,0.000928121,-0.0676842,0.025726,-1.83445,-0.00512355,0.226295,0.0145311,0.00857828,0.0334091,0.00834539,-0.0453946,0.0110983,-0.00922917,0.000771014,0,0,0,0,0,0,0,0.511356,-32.975,0.338148,26.6772,0.898739,3.08617,0.0303194,
0.000782691,-0.0667,0.0256414,-1.83459,0.0361027,0.196871,0.014456,0.0034709,0.00930356,0.00351826,-0.00980165,0.408944,-0.271387,4.40606e-05,1.46439,-0.150284,1.49956,-0.185989,70.0551,-57.5145,0.0393776,3.53958,1.09639,3.60394,-1.56577,10.4546,-7.3787,-0.00258413,0.000928121,-0.0676842,0.025726,-1.83445,-0.00512355,0.226295,0.0145311,0.00857828,0.0334091,0.00834539,-0.0453946,0.0110983,-0.00922917,0.000771014,0,0,0,0,0,0,0,0.511356,-32.975,0.338148,26.6772,0.898739,3.08617,0.0303194,
0.000918642,-0.0666347,0.0257803,-1.8347,0.0429073,0.19174,0.0144577,0.00617549,0.00907608,0.0062862,-0.0104023,0.497271,-0.345391,7.73284e-05,1.69037,-0.142177,1.72996,-0.375378,55.2043,-46.2526,0.0207924,3.4645,1.05376,3.52834,-1.54198,10.1336,-7.2619,-0.00165997,0.000928121,-0.0676842,0.025726,-1.83445,-0.00512355,0.226295,0.0145311,0.00857828,0.0334091,0.00834539,-0.0453946,0.0110983,-0.00922917,0.000771014,0,0,0,0,0,0,0,0.511356,-32.975,0.338148,26.6772,0.898739,3.08617,0.0303194,
0.00108134,-0.0665683,0.0259466,-1.83481,0.049621,0.186634,0.0144586,0.00900779,0.00892088,0.00918653,-0.011139,0.565661,-0.403957,8.43974e-05,1.77018,-0.0969956,1.8127,-0.460479,42.7435,-36.6038,0.00441808,3.3838,1.03641,3.44937,-1.53142,9.813,-7.12513,-0.000853501,0.00122408,-0.0670686,0.026392,-1.83612,-0.00126515,0.225158,0.0145306,0.0283895,-0.00188833,0.0574463,-0.0843187,0.243396,-0.149896,-0.00121667,2.47641,-4.41218,6.13762,-4.86552,29.0372,-17.5834,-0.24846,6.93042,-32.5743,6.73738,24.1898,2.37091,1.62774,0.0779268,
0.00447914,-0.0682061,0.0298462,-1.83853,0.0290726,0.189032,0.0148381,0.026718,-7.74991e-05,0.0278795,-0.0256573,0.641096,-0.535322,0.00034691,11.0689,-5.62399,11.6831,-9.07394,47.147,-82.103,0.16407,19.7155,-2.10902,20.2168,-10.2524,11.0099,-14.2448,0.252161,0.00122408,-0.0670686,0.026392,-1.83612,-0.00126515,0.225158,0.0145306,0.0283895,-0.00188833,0.0574463,-0.0843187,0.243396,-0.149896,-0.00121667,0,0,0,0,0,0,0,6.93042,-32.5743,6.73738,24.1898,2.37091,1.62774,0.0779268,
0.00530006,-0.0684641,0.0307074,-1.83927,0.036934,0.180725,0.0148481,0.0418976,-0.00651162,0.0438336,-0.0389801,0.709412,-0.635932,0.000527251,9.48724,-4.02133,9.97135,-8.32676,42.6976,-62.881,0.112714,16.6846,-3.5022,17.2284,-11.2262,11.0099,-14.2448,0.0992344,0.00122408,-0.0670686,0.026392,-1.83612,-0.00126515,0.225158,0.0145306,0.0283895,-0.00188833,0.0574463,-0.0843187,0.243396,-0.149896,-0.00121667,0,0,0,0,0,0,0,6.93042,-32.5743,6.73738,24.1898,2.37091,1.62774,0.0779268,
0.00615078,-0.0686867,0.0315981,-1.84006,0.0450161,0.172764,0.0148577,0.0547859,-0.0107742,0.0573357,-0.0509058,0.769581,-0.707772,0.000661964,8.05518,-2.66413,8.43877,-7.45355,37.6054,-44.9001,0.0841954,15.0833,-2.74887,15.6575,-10.7528,11.0099,-13.6602,0.0367386,0.00122408,-0.0670686,0.026392,-1.83612,-0.00126515,0.225158,0.0145306,0.0283895,-0.00188833,0.0574463,-0.0843187,0.243396,-0.149896,-0.00121667,0,0,0,0,0,0,0,6.93042,-32.5743,6.73738,24.1898,2.37091,1.62774,0.0779268,
0.00702192,-0.0688747,0.0325092,-1.84088,0.0532513,0.165247,0.0148672,0.0656072,-0.0133178,0.0686438,-0.0613144,0.821546,-0.754146,0.000767944,6.76335,-1.58971,7.06758,-6.50536,32.4781,-28.9837,0.0662377,14.1552,-2.0209,14.7309,-10.448,10.9081,-12.3786,0.0187299,0.00278874,-0.0674438,0.0286817,-1.83991,0.020642,0.209325,0.0145272,0.0852665,-0.0561565,0.141765,-0.165661,0.853525,-0.678022,0.000235136,7.10962,-6.78352,10.5399,-10.1677,76.2661,-66.0157,0.181475,18.2888,-30.0035,18.0362,18.6594,5.40039,-1.81373,0.0706026,
0.00850148,-0.0675136,0.034575,-1.8444,0.0595955,0.167741,0.0145993,0.0827214,-0.00885278,0.0861128,-0.076121,0.863859,-0.807835,0.000789025,10.6964,2.79061,10.9181,-9.25412,26.446,-33.5558,0.0131757,19.6923,4.011,20.2137,-14.8307,10.9081,-14.1369,0.0287946,0.00278874,-0.0674438,0.0286817,-1.83991,0.020642,0.209325,0.0145272,0.0852665,-0.0561565,0.141765,-0.165661,0.853525,-0.678022,0.000235136,0,0,0,0,0,0,0,18.2888,-30.0035,18.0362,18.6594,5.40039,-1.81373,0.0706026,
0.00971624,-0.0674048,0.0358288,-1.84554,0.0679786,0.160065,0.0146061,0.096546,-0.00436224,0.100234,-0.0894778,0.900667,-0.838166,0.000800455,8.64037,2.80659,8.82597,-8.348,23.0045,-18.9567,0.00714347,18.6215,3.72535,19.1385,-14.5553,10.9081,-13.612,0.0174424,0.00278874,-0.0674438,0.0286817,-1.83991,0.020642,0.209325,0.0145272,0.0852665,-0.0561565,0.141765,-0.165661,0.853525,-0.678022,0.000235136,0,0,0,0,0,0,0,18.2888,-30.0035,18.0362,18.6594,5.40039,-1.81373,0.0706026,
0.0109284,-0.0672641,0.0370802,-1.84672,0.0764421,0.152961,0.0146142,0.10754,2.84757e-05,0.111472,-0.101123,0.93212,-0.848146,0.00084206,6.87151,2.7442,7.02325,-7.27803,19.6585,-6.23747,0.0260032,17.7178,3.37944,18.2257,-14.3435,10.9081,-12.206,0.0110976,0.00278874,-0.0674438,0.0286817,-1.83991,0.020642,0.209325,0.0145272,0.0852665,-0.0561565,0.141765,-0.165661,0.853525,-0.678022,0.000235136,0,0,0,0,0,0,0,18.2888,-30.0035,18.0362,18.6594,5.40039,-1.81373,0.0706026,
0.0121318,-0.0670971,0.0383229,-1.84793,0.0849575,0.146456,0.0146237,0.116118,0.00419738,0.120245,-0.110954,0.958581,-0.841144,0.000911435,5.36118,2.60556,5.48329,-6.14459,16.5381,4.37598,0.0433593,16.9807,3.45569,17.5072,-14.241,10.825,-10.6211,0.0074336,0.00711754,-0.0688107,0.0365132,-1.84773,0.0559328,0.176326,0.0145274,0.165307,-0.0145261,0.301742,-0.288979,1.22283,-1.09804,-0.00117203,10.0051,5.2038,19.9971,-15.4148,46.1631,-52.502,-0.175896,23.2082,-25.9093,23.0112,16.6916,4.61853,-2.24494,0.0641939,
0.0172686,-0.0680558,0.0469713,-1.85904,0.110559,0.133584,0.0144372,0.131981,0.00636333,0.136459,-0.135531,0.989065,-0.802714,0.000579237,9.91437,1.35372,10.1342,-15.3607,19.0526,24.0189,-0.207624,20.2025,2.04417,20.7912,-21.3975,10.825,-10.1711,-0.0259248,0.00711754,-0.0688107,0.0365132,-1.84773,0.0559328,0.176326,0.0145274,0.165307,-0.0145261,0.301742,-0.288979,1.22283,-1.09804,-0.00117203,0,0,0,0,0,0,0,23.2082,-25.9093,23.0112,16.6916,4.61853,-2.24494,0.0641939,
0.0187849,-0.0679439,0.0485336,-1.86088,0.119384,0.129128,0.0144364,0.143493,0.00788701,0.148227,-0.154529,1.01189,-0.753572,0.000444338,7.19475,0.952299,7.35448,-11.8738,14.2639,30.7138,-0.0843117,19.3832,1.4692,19.9501,-21.1902,10.825,-8.70926,-0.0242815,0.00711754,-0.0688107,0.0365132,-1.84773,0.0559328,0.176326,0.0145274,0.165307,-0.0145261,0.301742,-0.288979,1.22283,-1.09804,-0.00117203,0,0,0,0,0,0,0,23.2082,-25.9093,23.0112,16.6916,4.61853,-2.24494,0.0641939,
0.0202565,-0.0678413,0.0500502,-1.86269,0.128152,0.125358,0.0144418,0.151583,0.00887578,0.156496,-0.168906,1.02869,-0.697111,0.00048929,5.05658,0.617978,5.1682,-8.98568,10.5045,35.2883,0.0280953,18.6644,1.01693,19.2113,-20.9697,10.825,-7.40406,-0.021679,0.00711754,-0.0688107,0.0365132,-1.84773,0.0559328,0.176326,0.0145274,0.165307,-0.0145261,0.301742,-0.288979,1.22283,-1.09804,-0.00117203,0,0,0,0,0,0,0,23.2082,-25.9093,23.0112,16.6916,4.61853,-2.24494,0.0641939,
0.0216855,-0.0677484,0.0515232,-1.86447,0.136865,0.122219,0.0144527,0.156991,0.00942245,0.162021,-0.179484,1.04079,-0.636154,0.000665108,3.37954,0.341672,3.45317,-6.61106,7.56231,38.0978,0.109886,18.0282,0.676879,18.5556,-20.7361,10.825,-6.23892,-0.0158143,0.0141158,-0.0687634,0.0483545,-1.85864,0.0970548,0.140708,0.0145311,0.262119,0.0512154,0.428028,-0.346812,1.1751,-0.899979,-0.000767537,12.1014,8.21768,15.7858,-7.22912,-5.9661,24.7573,0.0505619,14.8412,-24.8857,14.2117,18.9807,4.52697,-0.514597,0.0303194,
0.0262099,-0.0668462,0.0608492,-1.87349,0.153488,0.117382,0.0143558,0.168084,0.013942,0.173441,-0.200891,1.06008,-0.556942,0.000536705,6.93304,2.82471,7.13746,-13.3792,12.0548,49.5079,-0.080252,18.9968,0.894527,19.6036,-26.6304,10.784,-3.861,-0.0529818,0.0141158,-0.0687634,0.0483545,-1.85864,0.0970548,0.140708,0.0145311,0.262119,0.0512154,0.428028,-0.346812,1.1751,-0.899979,-0.000767537,0,0,0,0,0,0,0,14.8412,-24.8857,14.2117,18.9807,4.52697,-0.514597,0.0303194,
0.027828,-0.0666077,0.0625183,-1.87572,0.162459,0.116054,0.0143668,0.174921,0.0171161,0.180482,-0.216363,1.07233,-0.478748,0.000702598,4.27335,1.9838,4.401,-9.67019,7.65535,48.8711,0.103684,18.4542,0.881907,19.0395,-26.2673,10.784,-2.84394,-0.0403513,0.0141158,-0.0687634,0.0483545,-1.85864,0.0970548,0.140708,0.0145311,0.262119,0.0512154,0.428028,-0.346812,1.1751,-0.899979,-0.000767537,0,0,0,0,0,0,0,14.8412,-24.8857,14.2117,18.9807,4.52697,-0.514597,0.0303194,
0.0293749,-0.066384,0.0641143,-1.87788,0.171317,0.115246,0.0143878,0.178608,0.0192855,0.184284,-0.227179,1.07932,-0.403205,0.00108825,2.30455,1.35588,2.37632,-6.75975,4.36944,47.2144,0.241034,17.9538,0.924691,18.5193,-25.8987,10.784,-1.96436,-0.027421,0.0141158,-0.0687634,0.0483545,-1.85864,0.0970548,0.140708,0.0145311,0.262119,0.0512154,0.428028,-0.346812,1.1751,-0.899979,-0.000767537,0,0,0,0,0,0,0,14.8412,-24.8857,14.2117,18.9807,4.52697,-0.514597,0.0303194,
0.0308578,-0.0661726,0.0656449,-1.87999,0.180078,0.114891,0.0144181,0.179959,0.0207128,0.185693,-0.234369,1.08249,-0.331425,0.00162715,0.844134,0.892107,0.880225,-4.49394,1.9787,44.8623,0.336811,17.4853,1.0063,18.0321,-25.5262,10.784,-1.21526,-0.014947,0.0141158,-0.0687634,0.0483545,-1.85864,0.0970548,0.140708,0.0145311,0.262119,0.0512154,0.428028,-0.346812,1.1751,-0.899979,-0.000767537,0,0,0,0,0,0,0,14.8412,-24.8857,14.2117,18.9807,4.52697,-0.514597,0.0303194,
0.024165,-0.066835,0.0587335,-1.87109,0.14473,0.125591,0.0145468,0.186421,0.0252373,0.192315,-0.244206,1.09816,-0.295343,0.00197456,4.03904,2.82779,4.13855,-6.148,9.79773,22.5513,0.217131,17.024,0.705852,17.5873,-24.7362,10.6271,-0.373848,-0.00612271,0.0230116,-0.0670861,0.0634601,-1.8705,0.134148,0.121043,0.0145404,0.268571,0.130009,0.468524,-0.371644,1.02715,-0.333151,-0.000427813,0.806505,9.84915,5.06198,-3.10397,-18.4939,70.8535,0.0424656,-1.28582,-26.9606,-1.63756,27.0026,3.01818,3.70232,-0.00996382,
0.0257584,-0.0665144,0.0603768,-1.87327,0.153869,0.124967,0.0145837,0.188971,0.0282044,0.194934,-0.24991,1.10701,-0.251879,0.0025039,1.59384,1.85445,1.63741,-3.56552,5.53158,27.165,0.330836,16.6036,0.828575,17.15,-24.3645,10.6271,0.172743,0.00594894,0.0230116,-0.0670861,0.0634601,-1.8705,0.134148,0.121043,0.0145404,0.268571,0.130009,0.468524,-0.371644,1.02715,-0.333151,-0.000427813,0,0,0,0,0,0,0,-1.28582,-26.9606,-1.63756,27.0026,3.01818,3.70232,-0.00996382,
0.0272613,-0.0662182,0.061927,-1.87538,0.162877,0.124824,0.0146273,0.188751,0.0299688,0.194703,-0.252574,1.11081,-0.205066,0.00309137,-0.138093,1.10274,-0.144461,-1.6648,2.37204,29.2583,0.367174,16.1981,0.959054,16.7281,-23.9968,10.6271,0.644411,0.0186344,0.0230116,-0.0670861,0.0634601,-1.8705,0.134148,0.121043,0.0145404,0.268571,0.130009,0.468524,-0.371644,1.02715,-0.333151,-0.000427813,0,0,0,0,0,0,0,-1.28582,-26.9606,-1.63756,27.0026,3.01818,3.70232,-0.00996382,
0.0286856,-0.0659423,0.0633943,-1.87741,0.17177,0.125078,0.0146773,0.186607,0.0308725,0.192445,-0.252979,1.11098,-0.157717,0.0037234,-1.33969,0.564809,-1.41142,-0.252848,0.105987,29.593,0.395019,15.788,1.09164,16.3017,-23.6354,10.6271,1.0429,0.0308008,0.0230116,-0.0670861,0.0634601,-1.8705,0.134148,0.121043,0.0145404,0.268571,0.130009,0.468524,-0.371644,1.02715,-0.333151,-0.000427813,0,0,0,0,0,0,0,-1.28582,-26.9606,-1.63756,27.0026,3.01818,3.70232,-0.00996382,
0.0342334,-0.0632423,0.0750761,-1.88441,0.188729,0.117925,0.0147563,0.185563,0.0355153,0.191429,-0.252645,1.10897,-0.111719,0.00432036,-0.65253,2.90173,-0.634718,0.20841,-1.25314,28.7492,0.373099,14.9192,1.35546,15.413,-22.9407,10.6271,1.67426,0.0534186,0.0230116,-0.0670861,0.0634601,-1.8705,0.134148,0.121043,0.0145404,0.268571,0.130009,0.468524,-0.371644,1.02715,-0.333151,-0.000427813,0,0,0,0,0,0,0,-1.28582,-26.9606,-1.63756,27.0026,3.01818,3.70232,-0.00996382,
0.0356124,-0.0628595,0.0764995,-1.88632,0.196872,0.118772,0.0148141,0.182927,0.0379831,0.188729,-0.249862,1.09076,-0.0681943,0.00490032,-1.64728,1.54238,-1.68787,1.73981,-11.3853,27.2028,0.362471,14.446,1.48654,14.9204,-22.6153,10.6271,1.92013,0.0607092,0.0230116,-0.0670861,0.0634601,-1.8705,0.134148,0.121043,0.0145404,0.268571,0.130009,0.468524,-0.371644,1.02715,-0.333151,-0.000427813,0,0,0,0,0,0,0,-1.28582,-26.9606,-1.63756,27.0026,3.01818,3.70232,-0.00996382,
0.0369374,-0.0625193,0.0778665,-1.88814,0.204205,0.11984,0.0148725,0.179467,0.0388895,0.18516,-0.245427,1.05591,-0.0278748,0.00538157,-2.1628,0.566485,-2.23078,2.77159,-21.7772,25.1996,0.300781,13.9851,1.64549,14.4159,-22.2798,10.6271,2.11993,0.068247,0.0230116,-0.0670861,0.0634601,-1.8705,0.134148,0.121043,0.0145404,0.268571,0.130009,0.468524,-0.371644,1.02715,-0.333151,-0.000427813,0,0,0,0,0,0,0,-1.28582,-26.9606,-1.63756,27.0026,3.01818,3.70232,-0.00996382,
0.0382177,-0.0622151,0.0791872,-1.88988,0.210679,0.121084,0.014931,0.175579,0.0387177,0.181145,-0.239975,1.0066,0.00879816,0.00576791,-2.4297,-0.107333,-2.50912,3.40758,-30.8236,22.9206,0.241462,13.5076,1.81689,13.9046,-21.9414,10.6271,2.2821,0.0742301,0.0230116,-0.0670861,0.0634601,-1.8705,0.134148,0.121043,0.0145404,0.268571,0.130009,0.468524,-0.371644,1.02715,-0.333151,-0.000427813,0,0,0,0,0,0,0,-1.28582,-26.9606,-1.63756,27.0026,3.01818,3.70232,-0.00996382,
0.0326211,-0.0634497,0.0734101,-1.88187,0.175683,0.118305,0.0147445,0.179495,0.0442928,0.185152,-0.240945,0.979746,0.0179949,0.00592361,2.44704,3.48444,2.50441,-0.606302,-16.7814,5.74794,0.0973148,12.9202,1.52618,13.3384,-21.4958,10.4465,2.33324,0.0754928,0.0308966,-0.0639657,0.0771444,-1.88213,0.161662,0.119596,0.0145416,0.204273,0.104167,0.363685,-0.313254,0.656521,0.0785845,-0.00896352,-8.03723,-3.23022,-13.1049,7.29866,-46.3286,51.467,-1.06696,-10.4185,-41.3857,-10.56,40.4794,0.141598,6.4544,0.131027,
0.034081,-0.0629878,0.0749145,-1.88372,0.181767,0.119047,0.0147989,0.180092,0.0469822,0.185732,-0.239034,0.935902,0.032934,0.0060967,0.373291,1.68087,0.362621,1.19427,-27.403,9.33695,0.108179,12.4315,1.7063,12.8997,-21.1534,9.76012,2.4347,0.0754051,0.0308966,-0.0639657,0.0771444,-1.88213,0.161662,0.119596,0.0145416,0.204273,0.104167,0.363685,-0.313254,0.656521,0.0785845,-0.00896352,0,0,0,0,0,0,0,-10.4185,-41.3857,-10.56,40.4794,0.141598,6.4544,0.131027,
0.0354579,-0.0625842,0.0763333,-1.88549,0.186985,0.120027,0.014855,0.178496,0.0476752,0.184055,-0.235257,0.879174,0.0508551,0.00628202,-0.99722,0.433124,-1.04802,2.36088,-35.4546,11.2007,0.115829,12.0127,1.88661,12.4998,-20.8017,8.28647,2.50433,0.074842,0.0308966,-0.0639657,0.0771444,-1.88213,0.161662,0.119596,0.0145416,0.204273,0.104167,0.363685,-0.313254,0.656521,0.0785845,-0.00896352,0,0,0,0,0,0,0,-10.4185,-41.3857,-10.56,40.4794,0.141598,6.4544,0.131027,
0.0387167,-0.0610922,0.0852536,-1.89166,0.184961,0.124099,0.0147695,0.175653,0.0485314,0.181152,-0.230533,0.7925,0.0707843,0.00645052,-1.777,0.535123,-1.81433,2.95247,-54.1714,12.4557,0.105309,11.393,2.19691,11.8776,-20.0931,5.89635,2.56356,0.0715848,0.0308966,-0.0639657,0.0771444,-1.88213,0.161662,0.119596,0.0145416,0.204273,0.104167,0.363685,-0.313254,0.656521,0.0785845,-0.00896352,0,0,0,0,0,0,0,-10.4185,-41.3857,-10.56,40.4794,0.141598,6.4544,0.131027,
0.0399597,-0.0607279,0.0865358,-1.89328,0.187922,0.125421,0.0148296,0.171598,0.0479319,0.176978,-0.225026,0.708031,0.0896917,0.00666208,-2.53462,-0.374695,-2.60913,3.44184,-52.7932,11.8171,0.132231,11.1788,2.30068,11.6645,-19.7705,4.78071,2.59755,0.0711588,0.0368747,-0.0591819,0.089983,-1.89054,0.187331,0.121424,0.014557,0.146381,0.122005,0.336674,-0.202577,0.782352,0.0378289,0.0065751,-7.23651,2.22982,-3.3764,13.8347,15.7288,-5.09445,1.94233,-10.24,-44.2778,-10.8615,45.7837,0.507809,8.09868,-0.0301054,
0.0411444,-0.0604046,0.0877576,-1.89485,0.19032,0.126839,0.0148922,0.166896,0.0464296,0.172127,-0.219152,0.626392,0.1072,0.00689444,-2.93874,-0.938921,-3.03197,3.67139,-51.0241,10.9427,0.14522,11.0316,2.38704,11.5063,-19.4229,3.89107,2.59795,0.071778,0.0368747,-0.0591819,0.089983,-1.89054,0.187331,0.121424,0.014557,0.146381,0.122005,0.336674,-0.202577,0.782352,0.0378289,0.0065751,0,0,0,0,0,0,0,-10.24,-44.2778,-10.8615,45.7837,0.507809,8.09868,-0.0301054,
0.0422801,-0.0601138,0.0889286,-1.89636,0.192211,0.128331,0.0149568,0.161909,0.0444132,0.166977,-0.213192,0.548379,0.123068,0.00713215,-3.11696,-1.26028,-3.21878,3.72457,-48.7585,9.9176,0.148571,10.9236,2.44574,11.3859,-19.0808,3.1058,2.59532,0.0730712,0.0368747,-0.0591819,0.089983,-1.89054,0.187331,0.121424,0.014557,0.146381,0.122005,0.336674,-0.202577,0.782352,0.0378289,0.0065751,0,0,0,0,0,0,0,-10.24,-44.2778,-10.8615,45.7837,0.507809,8.09868,-0.0301054,
0.0442672,-0.0567484,0.0976041,-1.89874,0.204216,0.126963,0.0148463,0.161301,0.0439461,0.166276,-0.208536,0.486702,0.132397,0.00729476,-0.379788,-0.29196,-0.437928,2.91,-38.5483,5.83029,0.101628,10.842,2.47896,11.2915,-18.7441,2.41644,2.58355,0.074807,0.0368747,-0.0591819,0.089983,-1.89054,0.187331,0.121424,0.014557,0.146381,0.122005,0.336674,-0.202577,0.782352,0.0378289,0.0065751,0,0,0,0,0,0,0,-10.24,-44.2778,-10.8615,45.7837,0.507809,8.09868,-0.0301054,
0.0454657,-0.0564511,0.0988376,-1.90021,0.205627,0.128395,0.0149118,0.159004,0.0425899,0.163859,-0.203569,0.424625,0.141706,0.00747149,-1.43533,-0.847622,-1.51053,3.10429,-38.7977,5.81823,0.110457,10.7638,2.36035,11.2037,-18.486,1.6894,2.5094,0.0776457,0.0398758,-0.0559372,0.097435,-1.89581,0.213424,0.122548,0.0145532,0.078227,0.0795938,0.166474,-0.0612215,0.702727,0.0143362,-0.00132869,-8.51925,-5.30143,-21.2749,17.6695,-9.95307,-2.93659,-0.987973,-12.3942,-42.1315,-12.7856,38.0396,-0.963444,5.86388,0.00376909,
0.0466028,-0.0561839,0.100008,-1.90164,0.206611,0.129881,0.0149787,0.15563,0.0407502,0.160348,-0.198507,0.364311,0.150532,0.00765046,-2.10917,-1.14979,-2.19415,3.16385,-37.6964,5.51638,0.111854,10.7066,2.35327,11.1333,-18.1599,1.17292,2.48736,0.0796473,0.0398758,-0.0559372,0.097435,-1.89581,0.213424,0.122548,0.0145532,0.078227,0.0795938,0.166474,-0.0612215,0.702727,0.0143362,-0.00132869,0,0,0,0,0,0,0,-12.3942,-42.1315,-12.7856,38.0396,-0.963444,5.86388,0.00376909,
0.0476872,-0.0559402,0.101124,-1.90302,0.207241,0.131407,0.0150467,0.151614,0.0386926,0.156188,-0.193493,0.307206,0.158573,0.00782114,-2.51007,-1.28598,-2.60029,3.13395,-35.6906,5.02531,0.106675,10.6518,2.33142,11.065,-17.8387,0.732842,2.46314,0.0815428,0.0398758,-0.0559372,0.097435,-1.89581,0.213424,0.122548,0.0145532,0.078227,0.0795938,0.166474,-0.0612215,0.702727,0.0143362,-0.00132869,0,0,0,0,0,0,0,-12.3942,-42.1315,-12.7856,38.0396,-0.963444,5.86388,0.00376909,
0.0451312,-0.0550373,0.102822,-1.90213,0.223291,0.130269,0.0149175,0.146823,0.0345633,0.151183,-0.186822,0.260699,0.169319,0.00803061,-2.99432,-2.58081,-3.12796,4.16951,-29.0666,6.71683,0.130921,10.595,2.29754,10.9952,-17.5215,0.360232,2.43258,0.0832842,0.0398758,-0.0559372,0.097435,-1.89581,0.213424,0.122548,0.0145532,0.078227,0.0795938,0.166474,-0.0612215,0.702727,0.0143362,-0.00132869,0,0,0,0,0,0,0,-12.3942,-42.1315,-12.7856,38.0396,-0.963444,5.86388,0.00376909,
0.0461229,-0.0548932,0.103842,-1.9034,0.223541,0.131963,0.0149879,0.142249,0.0312529,0.146436,-0.181056,0.214803,0.177807,0.00818517,-2.85843,-2.06902,-2.96722,3.60377,-28.6851,5.30479,0.0965998,10.5113,2.17529,10.8992,-17.1607,-0.00947824,2.40332,0.0855173,0.0422316,-0.0540871,0.102089,-1.89833,0.228418,0.123112,0.0145428,0.0546972,-0.0269472,0.101992,-0.0315688,0.272794,0.0147012,-0.000966258,-2.94122,-13.3176,-8.06028,3.70659,-53.7417,0.0456229,0.0453043,-8.89508,-34.2485,-8.93736,30.5652,-2.54547,4.55834,-0.0301054,
0.0470849,-0.0547486,0.104831,-1.90464,0.223529,0.133641,0.015058,0.13785,0.0286165,0.141887,-0.17599,0.171557,0.184197,0.00829948,-2.74944,-1.64773,-2.84296,3.16634,-27.0288,3.99355,0.0714473,10.4426,2.1257,10.8179,-16.8504,-0.266718,2.36614,0.0867488,0.0422316,-0.0540871,0.102089,-1.89833,0.228418,0.123112,0.0145428,0.0546972,-0.0269472,0.101992,-0.0315688,0.272794,0.0147012,-0.000966258,0,0,0,0,0,0,0,-8.89508,-34.2485,-8.93736,30.5652,-2.54547,4.55834,-0.0301054,
0.0480185,-0.0546035,0.105792,-1.90587,0.223321,0.135296,0.0151276,0.13362,0.0265224,0.137522,-0.171469,0.132034,0.188728,0.00837953,-2.64377,-1.3088,-2.72782,2.82563,-24.7019,2.83174,0.0500263,10.3658,2.07159,10.7286,-16.5429,-0.475182,2.32788,0.0876363,0.0422316,-0.0540871,0.102089,-1.89833,0.228418,0.123112,0.0145428,0.0546972,-0.0269472,0.101992,-0.0315688,0.272794,0.0147012,-0.000966258,0,0,0,0,0,0,0,-8.89508,-34.2485,-8.93736,30.5652,-2.54547,4.55834,-0.0301054,
0.0462756,-0.0548971,0.106232,-1.90345,0.230166,0.131246,0.0149176,0.127936,0.0204582,0.131634,-0.164591,0.097843,0.195585,0.00848597,-3.55252,-3.79017,-3.68056,4.29857,-21.3695,4.28583,0.0665252,10.2802,2.01437,10.6311,-16.2377,-0.642899,2.28595,0.088255,0.0422316,-0.0540871,0.102089,-1.89833,0.228418,0.123112,0.0145428,0.0546972,-0.0269472,0.101992,-0.0315688,0.272794,0.0147012,-0.000966258,0,0,0,0,0,0,0,-8.89508,-34.2485,-8.93736,30.5652,-2.54547,4.55834,-0.0301054,
0.0471104,-0.0548875,0.10709,-1.90454,0.22971,0.132999,0.0149873,0.123218,0.0166082,0.126761,-0.159158,0.0668802,0.200293,0.00853295,-2.94866,-2.40623,-3.04527,3.39574,-19.3518,2.94236,0.0293652,10.1857,1.95562,10.5247,-15.9346,-0.773346,2.24347,0.0885125,0.0422316,-0.0540871,0.102089,-1.89833,0.228418,0.123112,0.0145428,0.0546972,-0.0269472,0.101992,-0.0315688,0.272794,0.0147012,-0.000966258,0,0,0,0,0,0,0,-8.89508,-34.2485,-8.93736,30.5652,-2.54547,4.55834,-0.0301054,
0.0479344,-0.0548477,0.107937,-1.90564,0.229155,0.134707,0.0150558,0.119175,0.0142797,0.122595,-0.154751,0.0396234,0.202932,0.00853727,-2.52684,-1.45533,-2.60386,2.75435,-17.0355,1.64962,0.00270092,10.0774,1.88855,10.4057,-15.6302,-0.884832,2.19675,0.0886097,0.0439645,-0.0530108,0.105725,-1.90114,0.231688,0.125061,0.0145298,0.0284578,-0.0404557,0.087754,-0.0480297,-0.027332,0.060023,-0.00115,-3.27993,-1.68856,-1.77973,-2.05762,-37.5157,5.66523,-0.0229678,-1.76983,-31.7253,-1.8637,24.3127,-0.164188,2.20452,0.00376909,
0.0487455,-0.0547855,0.108772,-1.90673,0.228533,0.136363,0.0151228,0.115617,0.0129787,0.118933,-0.151065,0.0161435,0.203753,0.00850694,-2.22379,-0.813149,-2.28877,2.30334,-14.6749,0.513069,-0.0189573,9.96568,1.82946,10.2828,-15.3303,-0.957532,2.15163,0.0882693,0.0439645,-0.0530108,0.105725,-1.90114,0.231688,0.125061,0.0145298,0.0284578,-0.0404557,0.087754,-0.0480297,-0.027332,0.060023,-0.00115,0,0,0,0,0,0,0,-1.76983,-31.7253,-1.8637,24.3127,-0.164188,2.20452,0.00376909,
0.0472397,-0.0538151,0.109092,-1.90596,0.228413,0.133062,0.0148886,0.11028,0.00981669,0.11343,-0.146353,-0.00681459,0.205161,0.00849851,-3.33551,-1.97623,-3.43947,2.9451,-14.3488,0.880187,-0.00526881,9.84614,1.77116,10.1527,-15.0316,-1.00888,2.10479,0.087718,0.0439645,-0.0530108,0.105725,-1.90114,0.231688,0.125061,0.0145298,0.0284578,-0.0404557,0.087754,-0.0480297,-0.027332,0.060023,-0.00115,0,0,0,0,0,0,0,-1.76983,-31.7253,-1.8637,24.3127,-0.164188,2.20452,0.00376909,
0.0479565,-0.0537996,0.109829,-1.90698,0.227617,0.134704,0.0149542,0.106146,0.00824156,0.109169,-0.142586,-0.02536,0.205185,0.0084401,-2.58386,-0.984457,-2.66296,2.35476,-11.5909,0.0151061,-0.0365094,9.71933,1.71428,10.0154,-14.734,-1.04031,2.05821,0.0868556,0.0439645,-0.0530108,0.105725,-1.90114,0.231688,0.125061,0.0145298,0.0284578,-0.0404557,0.087754,-0.0480297,-0.027332,0.060023,-0.00115,0,0,0,0,0,0,0,-1.76983,-31.7253,-1.8637,24.3127,-0.164188,2.20452,0.00376909,
0.0486735,-0.0537561,0.110566,-1.90799,0.226826,0.136293,0.015018,0.102841,0.00768065,0.105762,-0.139454,-0.0400574,0.203853,0.00834597,-2.06595,-0.350568,-2.12935,1.95695,-9.18583,-0.832806,-0.0588308,9.57015,1.71321,9.85501,-14.4776,-1.04725,1.98714,0.0860731,0.0448462,-0.0520489,0.108668,-1.90367,0.227575,0.131463,0.014513,0.0167332,-0.00103459,0.0750457,-0.0443127,-0.204808,0.246865,-0.00193808,-1.46556,4.92763,-1.58854,0.464625,-22.1845,23.3553,-0.0985099,-4.22955,-32.2252,-4.46227,19.2545,0.336605,0.692984,0.0641939,
0.0493868,-0.0536921,0.111299,-1.909,0.22605,0.137823,0.0150799,0.100105,0.00774287,0.102941,-0.136741,-0.0514613,0.20134,0.00822329,-1.7097,0.038885,-1.76343,1.6961,-7.12747,-1.57075,-0.0766701,9.43081,1.65996,9.70579,-14.1819,-1.05042,1.94004,0.084753,0.0448462,-0.0520489,0.108668,-1.90367,0.227575,0.131463,0.014513,0.0167332,-0.00103459,0.0750457,-0.0443127,-0.204808,0.246865,-0.00193808,0,0,0,0,0,0,0,-4.22955,-32.2252,-4.46227,19.2545,0.336605,0.692984,0.0641939,
0.0474919,-0.0522313,0.1114,-1.90812,0.22175,0.141451,0.014837,0.0950044,0.00694098,0.0976957,-0.132883,-0.0656794,0.204475,0.00812085,-3.188,-0.501176,-3.27807,2.41091,-8.88629,1.95937,-0.0640292,9.28627,1.60878,9.55174,-13.8869,-1.0445,1.89241,0.0832902,0.0448462,-0.0520489,0.108668,-1.90367,0.227575,0.131463,0.014513,0.0167332,-0.00103459,0.0750457,-0.0443127,-0.204808,0.246865,-0.00193808,0,0,0,0,0,0,0,-4.22955,-32.2252,-4.46227,19.2545,0.336605,0.692984,0.0641939,
0.0481032,-0.0521797,0.112028,-1.90906,0.220841,0.143073,0.0148964,0.0912857,0.00684324,0.093862,-0.129751,-0.0752824,0.204139,0.00798299,-2.32415,-0.0610873,-2.39609,1.95792,-6.00191,-0.209569,-0.0861586,9.13705,1.55983,9.39315,-13.5926,-1.02951,1.84547,0.0815935,0.0448462,-0.0520489,0.108668,-1.90367,0.227575,0.131463,0.014513,0.0167332,-0.00103459,0.0750457,-0.0443127,-0.204808,0.246865,-0.00193808,0,0,0,0,0,0,0,-4.22955,-32.2252,-4.46227,19.2545,0.336605,0.692984,0.0641939,
0.048723,-0.0521116,0.112664,-1.90999,0.219995,0.144595,0.0149537,0.0885236,0.00717656,0.0910044,-0.127087,-0.0813777,0.201364,0.00781898,-1.72635,0.208325,-1.78601,1.66494,-3.80957,-1.73433,-0.10251,8.97214,1.58615,9.218,-13.3588,-0.972781,1.74826,0.0802005,0.0453968,-0.0514077,0.111261,-1.90594,0.217932,0.14307,0.0145083,0.0137808,0.0232152,0.0571675,-0.0417902,-0.315311,0.343792,-0.000684029,-0.369057,3.03122,-2.23477,0.315316,-13.8129,12.1159,0.156756,-1.99597,-32.4751,-2.06206,18.3578,0.63049,0.0493681,0.0641939,
0.0493467,-0.0520312,0.113305,-1.91091,0.219206,0.146029,0.0150089,0.0864101,0.00775209,0.0888083,-0.124712,-0.0848235,0.196934,0.0076339,-1.32095,0.359706,-1.37253,1.48415,-2.15358,-2.76918,-0.115675,8.8154,1.54168,9.05232,-13.0656,-0.947312,1.702,0.078218,0.0453968,-0.0514077,0.111261,-1.90594,0.217932,0.14307,0.0145083,0.0137808,0.0232152,0.0571675,-0.0417902,-0.315311,0.343792,-0.000684029,0,0,0,0,0,0,0,-1.99597,-32.4751,-2.06206,18.3578,0.63049,0.0493681,0.0641939,
0.0475316,-0.0511854,0.113473,-1.91005,0.210853,0.153684,0.014793,0.081691,0.00783518,0.0839631,-0.121291,-0.0934326,0.199197,0.00746912,-2.94939,0.0519322,-3.0283,2.1379,-5.38069,1.41443,-0.102985,8.65569,1.49943,8.88394,-12.7728,-0.919829,1.65594,0.0761696,0.0453968,-0.0514077,0.111261,-1.90594,0.217932,0.14307,0.0145083,0.0137808,0.0232152,0.0571675,-0.0417902,-0.315311,0.343792,-0.000684029,0,0,0,0,0,0,0,-1.99597,-32.4751,-2.06206,18.3578,0.63049,0.0493681,0.0641939,
0.0480548,-0.0511091,0.11401,-1.91091,0.209945,0.1552,0.0148452,0.0784347,0.00817593,0.0806016,-0.11845,-0.0974326,0.197254,0.00728089,-2.03522,0.212966,-2.10091,1.77565,-2.50003,-1.2143,-0.117646,8.49334,1.45936,8.713,-12.4805,-0.889621,1.61079,0.073964,0.0453968,-0.0514077,0.111261,-1.90594,0.217932,0.14307,0.0145083,0.0137808,0.0232152,0.0571675,-0.0417902,-0.315311,0.343792,-0.000684029,0,0,0,0,0,0,0,-1.99597,-32.4751,-2.06206,18.3578,0.63049,0.0493681,0.0641939,
0.0485924,-0.051024,0.114561,-1.91176,0.209132,0.156593,0.0148952,0.0761872,0.0086692,0.0782645,-0.115973,-0.0982817,0.192618,0.00707483,-1.40465,0.308294,-1.46068,1.5482,-0.530655,-2.89764,-0.128787,8.33229,1.49219,8.54256,-12.2593,-0.801332,1.50568,0.0719603,0.0455274,-0.0512361,0.112823,-1.90762,0.203387,0.154159,0.0145089,0.00962735,0.0342753,0.021938,-0.03572,-0.532895,0.300984,-0.00466926,-0.519179,1.38252,-4.40369,0.758776,-27.198,-5.35111,-0.498154,1.09455,-29.456,0.988783,20.4248,2.29126,1.15624,0.0577852,
0.0469156,-0.0507615,0.114278,-1.91154,0.193608,0.163523,0.0147486,0.0704151,0.00946824,0.072358,-0.112866,-0.108443,0.190242,0.00684108,-3.6076,0.499398,-3.69157,1.94221,-6.35099,-1.4848,-0.146096,7.9977,1.42221,8.19152,-11.6757,-0.741621,1.41896,0.067248,0.0455274,-0.0512361,0.112823,-1.90762,0.203387,0.154159,0.0145089,0.00962735,0.0342753,0.021938,-0.03572,-0.532895,0.300984,-0.00466926,0,0,0,0,0,0,0,1.09455,-29.456,0.988783,20.4248,2.29126,1.15624,0.0577852,
0.0473274,-0.0506556,0.114701,-1.91233,0.192605,0.164831,0.0147937,0.0666254,0.0102216,0.0684532,-0.110105,-0.111817,0.184891,0.00659983,-2.36858,0.470882,-2.44052,1.72544,-2.10855,-3.34424,-0.15078,7.82812,1.38996,8.01385,-11.384,-0.713365,1.37698,0.0648064,0.0455274,-0.0512361,0.112823,-1.90762,0.203387,0.154159,0.0145089,0.00962735,0.0342753,0.021938,-0.03572,-0.532895,0.300984,-0.00466926,0,0,0,0,0,0,0,1.09455,-29.456,0.988783,20.4248,2.29126,1.15624,0.0577852,
0.0477641,-0.0505466,0.115148,-1.91311,0.191747,0.166027,0.0148366,0.0642182,0.0109041,0.0659468,-0.107555,-0.110903,0.177799,0.00635176,-1.50447,0.426513,-1.56648,1.59343,0.570913,-4.43246,-0.155039,7.65733,1.35939,7.83509,-11.0922,-0.687939,1.33589,0.0623854,0.0455274,-0.0512361,0.112823,-1.90762,0.203387,0.154159,0.0145089,0.00962735,0.0342753,0.021938,-0.03572,-0.532895,0.300984,-0.00466926,0,0,0,0,0,0,0,1.09455,-29.456,0.988783,20.4248,2.29126,1.15624,0.0577852,
0.0482187,-0.0504354,0.115613,-1.91387,0.191001,0.167129,0.0148773,0.0627412,0.0115027,0.0643827,-0.105124,-0.107385,0.169799,0.00609804,-0.923152,0.374133,-0.977553,1.51995,2.19877,-4.99994,-0.158575,7.5126,1.33709,7.68018,-10.806,-0.576248,1.26188,0.0596862,0.04597,-0.0512553,0.113849,-1.90933,0.184145,0.160658,0.0145089,0.0157366,0.0227109,0.016006,-0.062542,-0.563348,0.12466,-0.00129978,0.763652,-1.44555,-0.741504,-3.35275,-3.80659,-22.0405,0.421184,0.967594,-31.0271,0.889601,26.7526,2.5238,2.39678,0.0577852,
0.0472277,-0.050678,0.115164,-1.91328,0.174388,0.166324,0.0147105,0.0587181,0.0124786,0.0602609,-0.103258,-0.113825,0.161017,0.005866,-2.51445,0.609953,-2.57615,1.16619,-4.02468,-5.4888,-0.145026,7.33972,1.30939,7.49946,-10.5138,-0.555982,1.22292,0.0572479,0.04597,-0.0512553,0.113849,-1.90933,0.184145,0.160658,0.0145089,0.0157366,0.0227109,0.016006,-0.062542,-0.563348,0.12466,-0.00129978,0,0,0,0,0,0,0,0.967594,-31.0271,0.889601,26.7526,2.5238,2.39678,0.0577852,
0.0475986,-0.0505458,0.115544,-1.91403,0.173468,0.167272,0.014748,0.0562462,0.0132878,0.0576989,-0.101198,-0.114064,0.15252,0.00563004,-1.54489,0.505759,-1.60123,1.28713,-0.14951,-5.31108,-0.147476,7.16594,1.28286,7.31784,-10.2212,-0.538011,1.18505,0.0547882,0.04597,-0.0512553,0.113849,-1.90933,0.184145,0.160658,0.0145089,0.0157366,0.0227109,0.016006,-0.062542,-0.563348,0.12466,-0.00129978,0,0,0,0,0,0,0,0.967594,-31.0271,0.889601,26.7526,2.5238,2.39678,0.0577852,
0.0479918,-0.0504145,0.115946,-1.91475,0.172692,0.168167,0.0147835,0.0548286,0.0139135,0.0561992,-0.0989755,-0.110632,0.144394,0.00539035,-0.886038,0.391066,-0.937328,1.3892,2.14501,-5.07871,-0.149809,6.99142,1.25738,7.13557,-9.92806,-0.523776,1.14835,0.0523841,0.04597,-0.0512553,0.113849,-1.90933,0.184145,0.160658,0.0145089,0.0157366,0.0227109,0.016006,-0.062542,-0.563348,0.12466,-0.00129978,0,0,0,0,0,0,0,0.967594,-31.0271,0.889601,26.7526,2.5238,2.39678,0.0577852,
0.0484009,-0.0502852,0.116363,-1.91544,0.172026,0.169014,0.0148169,0.0540906,0.0143641,0.0553857,-0.0966156,-0.105174,0.13669,0.00514813,-0.461203,0.28158,-0.508433,1.47492,3.41159,-4.8148,-0.151388,6.82884,1.22504,6.95917,-9.60244,-0.432751,1.11076,0.0497759,0.046485,-0.0506751,0.11449,-1.91078,0.165714,0.16227,0.0145089,0.017768,0.0359793,0.0177744,-0.0414835,-0.484766,0.0046081,-0.000723981,0.253933,1.65854,0.221056,2.63231,9.8227,-15.0064,0.0719752,-0.57568,-33.0742,-0.586229,27.4509,1.65039,2.46911,0.0577852,
0.0477166,-0.0499763,0.115765,-1.91442,0.157463,0.165872,0.0146744,0.051293,0.0150772,0.0524955,-0.0946768,-0.107723,0.128057,0.00492603,-1.74855,0.445706,-1.8064,1.2118,-1.59312,-5.39547,-0.138812,6.65307,1.20108,6.77571,-9.30787,-0.424669,1.07628,0.0474487,0.046485,-0.0506751,0.11449,-1.91078,0.165714,0.16227,0.0145089,0.017768,0.0359793,0.0177744,-0.0414835,-0.484766,0.0046081,-0.000723981,0,0,0,0,0,0,0,-0.57568,-33.0742,-0.586229,27.4509,1.65039,2.46911,0.0577852,
0.048061,-0.0498348,0.116116,-1.91508,0.156684,0.1666,0.0147049,0.049646,0.0155971,0.0507622,-0.0924255,-0.105654,0.120636,0.00470294,-1.02938,0.324955,-1.08328,1.40701,1.29294,-4.63855,-0.139432,6.47682,1.1776,6.59176,-9.01244,-0.418921,1.04271,0.0451447,0.046485,-0.0506751,0.11449,-1.91078,0.165714,0.16227,0.0145089,0.017768,0.0359793,0.0177744,-0.0414835,-0.484766,0.0046081,-0.000723981,0,0,0,0,0,0,0,-0.57568,-33.0742,-0.586229,27.4509,1.65039,2.46911,0.0577852,
0.0484225,-0.049697,0.116483,-1.91572,0.156026,0.167303,0.0147336,0.0487549,0.0159234,0.0497908,-0.0899385,-0.100974,0.114094,0.0044798,-0.556918,0.203954,-0.607131,1.55438,2.92471,-4.08878,-0.139464,6.30029,1.15446,6.40756,-8.71595,-0.416285,1.0102,0.0429299,0.046485,-0.0506751,0.11449,-1.91078,0.165714,0.16227,0.0145089,0.017768,0.0359793,0.0177744,-0.0414835,-0.484766,0.0046081,-0.000723981,0,0,0,0,0,0,0,-0.57568,-33.0742,-0.586229,27.4509,1.65039,2.46911,0.0577852,
0.0487954,-0.0495635,0.116861,-1.91634,0.155459,0.16798,0.0147606,0.0483257,0.0160764,0.0492859,-0.0872749,-0.0949553,0.108201,0.00425814,-0.268237,0.0956274,-0.315537,1.66476,3.76189,-3.68295,-0.138537,6.11584,1.12095,6.20848,-8.37049,-0.363838,0.995465,0.0407222,0.0469617,-0.0497104,0.115172,-1.91234,0.152435,0.162135,0.0145112,0.00607994,0.0132213,0.016732,-0.0655244,-0.33067,-0.0117718,-0.000169521,-1.46101,-2.84474,-0.130301,-3.0051,19.262,-2.04748,0.0693075,0.892215,-34.4231,0.889601,29.5694,1.49749,2.95983,0.0376436,
0.0481068,-0.0491685,0.116342,-1.91556,0.146225,0.164648,0.0146559,0.0461119,0.0160278,0.0469733,-0.0847215,-0.0948747,0.101379,0.00406649,-1.38367,-0.0303752,-1.44538,1.59587,0.0503622,-4.26357,-0.119779,5.93919,1.09797,6.02418,-8.07158,-0.364947,0.964271,0.038656,0.0469617,-0.0497104,0.115172,-1.91234,0.152435,0.162135,0.0145112,0.00607994,0.0132213,0.016732,-0.0655244,-0.33067,-0.0117718,-0.000169521,0,0,0,0,0,0,0,0.892215,-34.4231,0.889601,29.5694,1.49749,2.95983,0.0376436,
0.0484232,-0.0490418,0.116662,-1.91613,0.145593,0.165236,0.0146806,0.0448003,0.0159911,0.0455729,-0.0819709,-0.0916981,0.095803,0.00387167,-0.819703,-0.022948,-0.875255,1.71912,1.9854,-3.48505,-0.121763,5.76282,1.07484,5.84012,-7.77134,-0.366461,0.933126,0.0366586,0.0469617,-0.0497104,0.115172,-1.91234,0.152435,0.162135,0.0145112,0.00607994,0.0132213,0.016732,-0.0655244,-0.33067,-0.0117718,-0.000169521,0,0,0,0,0,0,0,0.892215,-34.4231,0.889601,29.5694,1.49749,2.95983,0.0376436,
0.0487518,-0.048917,0.116993,-1.91667,0.145058,0.165809,0.0147039,0.044055,0.0159122,0.0447458,-0.0790749,-0.0867237,0.0909696,0.00367784,-0.465853,-0.0493576,-0.516976,1.81006,3.109,-3.0209,-0.121141,5.58707,1.05147,5.65665,-7.46963,-0.368315,0.901988,0.0347777,0.0469617,-0.0497104,0.115172,-1.91234,0.152435,0.162135,0.0145112,0.00607994,0.0132213,0.016732,-0.0655244,-0.33067,-0.0117718,-0.000169521,0,0,0,0,0,0,0,0.892215,-34.4231,0.889601,29.5694,1.49749,2.95983,0.0376436,
0.0490873,-0.0487953,0.117331,-1.91718,0.144603,0.16636,0.0147257,0.0436329,0.0157713,0.0442466,-0.0760719,-0.0807479,0.0865406,0.00348814,-0.263779,-0.0880061,-0.311959,1.87683,3.73487,-2.76815,-0.118566,5.41222,1.02771,5.47404,-7.16648,-0.368515,0.869954,0.0329815,0.0469617,-0.0497104,0.115172,-1.91234,0.152435,0.162135,0.0145112,0.00607994,0.0132213,0.016732,-0.0655244,-0.33067,-0.0117718,-0.000169521,0,0,0,0,0,0,0,0.892215,-34.4231,0.889601,29.5694,1.49749,2.95983,0.0376436,
0.0485683,-0.0483304,0.116935,-1.91771,0.143215,0.164054,0.0146381,0.0424793,0.0155242,0.0429964,-0.0731249,-0.0756121,0.0809171,0.00333126,-0.721008,-0.154493,-0.781393,1.84189,3.20989,-3.51466,-0.0980516,5.2298,0.989606,5.27853,-6.81748,-0.341658,0.858437,0.0312479,0.0473085,-0.0488587,0.115671,-1.91497,0.146087,0.162095,0.0145082,0.00993148,0.00614953,0.0134604,-0.0796962,-0.0883205,0.00376354,-0.00102873,0.481442,-0.883974,-0.408956,-1.77148,30.2937,1.94191,-0.107401,1.04694,-34.4707,0.889601,27.6016,1.36932,2.53594,0.0641939,
0.0488789,-0.0482155,0.117246,-1.91817,0.142845,0.16451,0.0146583,0.041748,0.0152914,0.0421795,-0.0700653,-0.0697429,0.0761207,0.00317025,-0.457072,-0.145463,-0.510588,1.91223,3.66825,-2.99776,-0.100632,5.05809,0.964905,5.09889,-6.51138,-0.334903,0.822836,0.0296804,0.0473085,-0.0488587,0.115671,-1.91497,0.146087,0.162095,0.0145082,0.00993148,0.00614953,0.0134604,-0.0796962,-0.0883205,0.00376354,-0.00102873,0,0,0,0,0,0,0,1.04694,-34.4707,0.889601,27.6016,1.36932,2.53594,0.0641939,
0.0491921,-0.0481032,0.11756,-1.91861,0.142547,0.164939,0.0146773,0.0412275,0.0150411,0.0415792,-0.0669221,-0.0632357,0.0716395,0.00301315,-0.325326,-0.156422,-0.375144,1.96451,4.067,-2.80073,-0.0981876,4.88871,0.939675,4.92147,-6.20387,-0.322242,0.784219,0.0282571,0.0473085,-0.0488587,0.115671,-1.91497,0.146087,0.162095,0.0145082,0.00993148,0.00614953,0.0134604,-0.0796962,-0.0883205,0.00376354,-0.00102873,0,0,0,0,0,0,0,1.04694,-34.4707,0.889601,27.6016,1.36932,2.53594,0.0641939,
0.0495039,-0.0479941,0.117871,-1.91902,0.142327,0.165332,0.0146955,0.0407779,0.0147613,0.0410526,-0.0637171,-0.0560949,0.0671167,0.0028647,-0.280998,-0.174876,-0.329158,2.00313,4.46297,-2.82676,-0.0927802,4.72217,0.913899,4.74672,-5.89518,-0.30068,0.741048,0.0269554,0.0473085,-0.0488587,0.115671,-1.91497,0.146087,0.162095,0.0145082,0.00993148,0.00614953,0.0134604,-0.0796962,-0.0883205,0.00376354,-0.00102873,0,0,0,0,0,0,0,1.04694,-34.4707,0.889601,27.6016,1.36932,2.53594,0.0641939,
0.0484083,-0.0482818,0.116765,-1.91729,0.143712,0.163285,0.0146168,0.0390687,0.0147703,0.0392535,-0.0608833,-0.0515467,0.0604246,0.00275646,-1.06821,0.00558356,-1.12441,1.77112,2.84263,-4.18255,-0.0676498,4.55822,0.88506,4.57208,-5.56836,-0.265591,0.705891,0.0257187,0.0477944,-0.04828,0.116257,-1.91727,0.14564,0.162186,0.0145098,0.0114828,0.0141923,0.0124116,-0.0575946,0.0143125,0.0102412,-0.000681135,0.193916,1.00535,-0.131096,2.7627,12.8291,0.809713,0.0434489,0.765262,-32.9234,0.762648,24.9832,0.911556,1.84655,0.050461,
0.0486702,-0.0481674,0.117025,-1.91766,0.143564,0.163518,0.0146345,0.037801,0.0146765,0.0379013,-0.0578592,-0.0449194,0.0541674,0.0026479,-0.792351,-0.0586149,-0.845111,1.89009,4.14205,-3.91075,-0.0678485,4.39908,0.858286,4.40432,-5.25792,-0.219016,0.649663,0.0247221,0.0477944,-0.04828,0.116257,-1.91727,0.14564,0.162186,0.0145098,0.0114828,0.0141923,0.0124116,-0.0575946,0.0143125,0.0102412,-0.000681135,0,0,0,0,0,0,0,0.765262,-32.9234,0.762648,24.9832,0.911556,1.84655,0.050461,
0.0489317,-0.0480577,0.117284,-1.918,0.143546,0.163698,0.0146519,0.0367797,0.014485,0.0367976,-0.0547021,-0.0363954,0.0478242,0.00255272,-0.638282,-0.119668,-0.689814,1.97318,5.32748,-3.96455,-0.059488,4.24443,0.831065,4.24076,-4.94708,-0.155799,0.584572,0.0239097,0.0477944,-0.04828,0.116257,-1.91727,0.14564,0.162186,0.0145098,0.0114828,0.0141923,0.0124116,-0.0575946,0.0143125,0.0102412,-0.000681135,0,0,0,0,0,0,0,0.765262,-32.9234,0.762648,24.9832,0.911556,1.84655,0.050461,
0.0488157,-0.0477034,0.117256,-1.91899,0.145996,0.162673,0.0146115,0.0350915,0.0142267,0.0349892,-0.0508491,-0.0222374,0.0384126,0.00250791,-1.05516,-0.161426,-1.13029,2.40815,8.84878,-5.88223,-0.0280036,3.94966,0.77543,3.92711,-4.32625,0.0348896,0.420109,0.0228116,0.0477944,-0.04828,0.116257,-1.91727,0.14564,0.162186,0.0145098,0.0114828,0.0141923,0.0124116,-0.0575946,0.0143125,0.0102412,-0.000681135,0,0,0,0,0,0,0,0.765262,-32.9234,0.762648,24.9832,0.911556,1.84655,0.050461,
0.0490392,-0.0476032,0.117474,-1.91924,0.14645,0.162588,0.0146292,0.0336608,0.0138874,0.0334429,-0.0470622,-0.00645537,0.0286114,0.00244936,-0.894145,-0.212095,-0.966445,2.36676,9.86377,-6.12575,-0.0365961,3.81007,0.746862,3.77605,-4.00541,0.168426,0.330014,0.0223989,0.0485136,-0.0478091,0.116985,-1.91918,0.145869,0.162159,0.0145157,0.0195872,0.0190654,0.0227392,-0.0484937,0.0179344,-0.000901204,0.00165449,1.01305,0.609136,1.29095,1.13761,0.452742,-1.39281,0.291954,1.09455,-32.9988,1.11177,25.2094,1.00311,2.21734,-0.0026396,
0.0492563,-0.0475083,0.117685,-1.91947,0.147096,0.162401,0.0146461,0.0323564,0.0134816,0.0320243,-0.0433633,0.0109981,0.018212,0.00238253,-0.815242,-0.253589,-0.886618,2.31181,10.9084,-6.49959,-0.0417686,3.67629,0.718,3.63194,-3.69928,0.325645,0.215146,0.0225889,0.0485136,-0.0478091,0.116985,-1.91918,0.145869,0.162159,0.0145157,0.0195872,0.0190654,0.0227392,-0.0484937,0.0179344,-0.000901204,0.00165449,0,0,0,0,0,0,0,1.09455,-32.9988,1.11177,25.2094,1.00311,2.21734,-0.0026396,
0.0494654,-0.0474181,0.117887,-1.91967,0.147934,0.162109,0.0146634,0.0311128,0.0130406,0.0306702,-0.039756,0.0297506,0.00725513,0.00233733,-0.777252,-0.275643,-0.846319,2.25461,11.7204,-6.84807,-0.0282481,3.54521,0.688024,3.48886,-3.39798,0.528083,0.0790545,0.0232918,0.0485136,-0.0478091,0.116985,-1.91918,0.145869,0.162159,0.0145157,0.0195872,0.0190654,0.0227392,-0.0484937,0.0179344,-0.000901204,0.00165449,0,0,0,0,0,0,0,1.09455,-32.9988,1.11177,25.2094,1.00311,2.21734,-0.0026396,
0.0494722,-0.0471791,0.11791,-1.92045,0.148982,0.160916,0.0146084,0.0295196,0.0130623,0.0289517,-0.0366502,0.0496662,-0.00496695,0.00233984,-0.995768,0.0135844,-1.07403,1.94108,12.4472,-7.6388,0.0015686,3.40777,0.659915,3.33856,-3.10029,0.762176,-0.070923,0.0241849,0.0485136,-0.0478091,0.116985,-1.91918,0.145869,0.162159,0.0145157,0.0195872,0.0190654,0.0227392,-0.0484937,0.0179344,-0.000901204,0.00165449,0,0,0,0,0,0,0,1.09455,-32.9988,1.11177,25.2094,1.00311,2.21734,-0.0026396,
0.0496457,-0.0470813,0.118073,-1.92062,0.150279,0.160398,0.0146287,0.0279521,0.0128942,0.0272441,-0.03361,0.07217,-0.016927,0.00237814,-0.979685,-0.105095,-1.06727,1.90018,14.0649,-7.47502,0.0239335,3.25746,0.629936,3.17376,-2.7972,1.02808,-0.229456,0.0238298,0.0492875,-0.0475644,0.117747,-1.92046,0.146634,0.161943,0.0145157,0.0237492,0.0153166,0.0161125,-0.0382232,0.0295917,-0.00070762,0.000955512,0.520248,-0.468603,-0.828341,1.28381,1.45716,0.024198,-0.0873727,-0.781979,-32.5505,-0.836168,25.8322,0.971981,2.29058,-0.0026396,
0.0498033,-0.0469887,0.118218,-1.92077,0.15187,0.159805,0.0146447,0.0263018,0.01263,0.0254171,-0.0306807,0.097506,-0.0283542,0.0023021,-1.03143,-0.165123,-1.14183,1.83081,15.835,-7.14203,-0.0475244,3.10243,0.602301,3.00549,-2.51561,1.28791,-0.394078,0.0233337,0.0492875,-0.0475644,0.117747,-1.92046,0.146634,0.161943,0.0145157,0.0237492,0.0153166,0.0161125,-0.0382232,0.0295917,-0.00070762,0.000955512,0,0,0,0,0,0,0,-0.781979,-32.5505,-0.836168,25.8322,0.971981,2.29058,-0.0026396,
0.0499462,-0.0469028,0.118345,-1.92091,0.153716,0.159179,0.0146457,0.0246139,0.0122526,0.0234987,-0.0279881,0.12415,-0.0383286,0.00186767,-1.05498,-0.235875,-1.19901,1.68287,16.6527,-6.234,-0.271515,2.93692,0.5929,2.82991,-2.23205,1.51523,-0.540404,0.0239706,0.0492875,-0.0475644,0.117747,-1.92046,0.146634,0.161943,0.0145157,0.0237492,0.0153166,0.0161125,-0.0382232,0.0295917,-0.00070762,0.000955512,0,0,0,0,0,0,0,-0.781979,-32.5505,-0.836168,25.8322,0.971981,2.29058,-0.0026396,
0.0499332,-0.0470104,0.118338,-1.92129,0.153247,0.159642,0.0145692,0.0225678,0.0121354,0.0214414,-0.0255662,0.143995,-0.0438285,0.00150448,-1.27878,-0.0732773,-1.28585,1.51366,12.4028,-3.43745,-0.226995,2.76384,0.581463,2.6361,-1.97149,1.87389,-0.686915,0.0262836,0.0492875,-0.0475644,0.117747,-1.92046,0.146634,0.161943,0.0145157,0.0237492,0.0153166,0.0161125,-0.0382232,0.0295917,-0.00070762,0.000955512,0,0,0,0,0,0,0,-0.781979,-32.5505,-0.836168,25.8322,0.971981,2.29058,-0.0026396,
0.050041,-0.046921,0.118435,-1.9214,0.155219,0.159104,0.0145692,0.0207489,0.011944,0.0195973,-0.0231068,0.164493,-0.0485243,0.00120451,-1.13684,-0.11958,-1.15253,1.53713,12.8117,-2.93484,-0.187481,2.53729,0.577343,2.38615,-1.71364,2.25071,-0.779798,0.0287293,0.0502211,-0.0474219,0.11813,-1.92127,0.147329,0.161462,0.0145127,0.0296077,0.00914964,0.0069421,-0.0241725,0.0309923,-0.0337851,0.000295166,0.732319,-0.770865,-1.1463,1.75635,0.175079,-4.13469,-0.0825432,0.0551182,-33.1218,0.0366345,26.6534,1.14959,2.42974,0.0239107,
0.0501354,-0.0468348,0.118518,-1.92148,0.15745,0.158511,0.0145629,0.0189605,0.0117115,0.0177399,-0.0205962,0.187369,-0.0536492,0.000806425,-1.11774,-0.145308,-1.16086,1.56914,14.2971,-3.20305,-0.248805,2.23604,0.5897,2.04861,-1.45416,2.66873,-0.845307,0.0237781,0.0502211,-0.0474219,0.11813,-1.92127,0.147329,0.161462,0.0145127,0.0296077,0.00914964,0.0069421,-0.0241725,0.0309923,-0.0337851,0.000295166,0,0,0,0,0,0,0,0.0551182,-33.1218,0.0366345,26.6534,1.14959,2.42974,0.0239107,
0.0502207,-0.0467528,0.118594,-1.92155,0.159859,0.157874,0.0145563,0.0172999,0.0114193,0.0160928,-0.018097,0.210121,-0.0588393,0.000480512,-1.03789,-0.182626,-1.02943,1.562,14.2203,-3.2438,-0.203696,1.93706,0.512241,1.7073,-1.22838,2.8965,-0.793558,0.00415324,0.0502211,-0.0474219,0.11813,-1.92127,0.147329,0.161462,0.0145127,0.0296077,0.00914964,0.0069421,-0.0241725,0.0309923,-0.0337851,0.000295166,0,0,0,0,0,0,0,0.0551182,-33.1218,0.0366345,26.6534,1.14959,2.42974,0.0239107,
0.05059,-0.0469871,0.118456,-1.92174,0.155897,0.158935,0.0144814,0.0152529,0.01119,0.0140688,-0.0156425,0.225177,-0.062898,0.000239514,-1.27938,-0.143358,-1.265,1.53406,9.40955,-2.53673,-0.150623,1.72606,0.535505,1.60492,-0.931071,2.45839,-0.435588,0.000420613,0.0502211,-0.0474219,0.11813,-1.92127,0.147329,0.161462,0.0145127,0.0296077,0.00914964,0.0069421,-0.0241725,0.0309923,-0.0337851,0.000295166,0,0,0,0,0,0,0,0.0551182,-33.1218,0.0366345,26.6534,1.14959,2.42974,0.0239107,
0.0506411,-0.0469096,0.118498,-1.92177,0.158367,0.158249,0.0144759,0.0134797,0.0108897,0.0123009,-0.013245,0.241874,-0.0674599,5.27897e-05,-1.10822,-0.187694,-1.105,1.49845,10.4361,-2.85116,-0.116703,1.61434,0.522578,1.47122,-0.747983,2.92981,-0.605843,0.00203502,0.0511288,-0.0472601,0.118143,-1.92167,0.149725,0.160239,0.0145065,0.0182277,0.00492428,0.000600849,-0.0143971,0.0979238,-0.0327454,-0.00198689,-1.4225,-0.52817,-0.792657,1.22192,8.36644,0.129966,-0.285257,0.233646,-33.3717,0.0366345,27.7008,1.44256,2.3565,0.0843355,
0.0506834,-0.0468368,0.118531,-1.92178,0.161037,0.157508,0.0144654,0.0118413,0.0105305,0.0106484,-0.0109349,0.260251,-0.0724981,-0.000220871,-1.02398,-0.224464,-1.03281,1.44382,11.4854,-3.14889,-0.171038,1.43556,0.524995,1.26018,-0.56308,3.41041,-0.790052,-0.00480348,0.0511288,-0.0472601,0.118143,-1.92167,0.149725,0.160239,0.0145065,0.0182277,0.00492428,0.000600849,-0.0143971,0.0979238,-0.0327454,-0.00198689,0,0,0,0,0,0,0,0.233646,-33.3717,0.0366345,27.7008,1.44256,2.3565,0.0843355,
0.05124,-0.0469516,0.118216,-1.92179,0.160253,0.157317,0.0144601,0.0100493,0.00968534,0.00897437,-0.00883907,0.268304,-0.0728593,-0.000334996,-1.12,-0.528233,-1.04624,1.30987,5.03334,-0.225744,-0.0713282,1.16715,0.480595,1.04931,-0.166803,3.20626,-0.814661,-0.00652183,0.0511288,-0.0472601,0.118143,-1.92167,0.149725,0.160239,0.0145065,0.0182277,0.00492428,0.000600849,-0.0143971,0.0979238,-0.0327454,-0.00198689,0,0,0,0,0,0,0,0.233646,-33.3717,0.0366345,27.7008,1.44256,2.3565,0.0843355,
0.0512646,-0.0469093,0.118237,-1.92178,0.162682,0.156756,0.0144522,0.0086539,0.00880428,0.0077057,-0.0070029,0.27536,-0.0723028,-0.000465988,-0.872155,-0.550659,-0.792922,1.14761,4.40987,0.347799,-0.0818698,1.01726,0.468755,0.884841,0.00679606,3.57462,-0.928086,-0.00491392,0.0511288,-0.0472601,0.118143,-1.92167,0.149725,0.160239,0.0145065,0.0182277,0.00492428,0.000600849,-0.0143971,0.0979238,-0.0327454,-0.00198689,0,0,0,0,0,0,0,0.233646,-33.3717,0.0366345,27.7008,1.44256,2.3565,0.0843355,
0.051286,-0.0468747,0.118256,-1.92178,0.165166,0.156214,0.0144433,0.00745633,0.00790995,0.00663428,-0.00537483,0.282388,-0.0713961,-0.000595825,-0.74848,-0.558955,-0.669633,1.01754,4.39228,0.566711,-0.0811485,0.818598,0.435311,0.674678,0.183843,3.83344,-1.00617,-0.0109417,0.0517309,-0.0471712,0.118186,-1.92203,0.15434,0.159745,0.0145091,0.00691293,0.000753091,0.00182962,-0.00915811,0.162756,-0.00156782,-0.000104776,-1.41435,-0.521398,0.153597,0.654875,8.10399,3.8972,0.235264,-0.171017,-33.6217,-0.435472,27.7484,1.5158,2.28417,0.0577852,
0.0513048,-0.0468472,0.118272,-1.92176,0.167671,0.155694,0.0144313,0.00643567,0.00701443,0.00571904,-0.00391923,0.288538,-0.0701155,-0.00077516,-0.637917,-0.559699,-0.57203,0.909755,3.8441,0.800355,-0.112084,0.768375,0.255749,0.626156,0.282214,3.54451,-0.837148,-0.00750896,0.0517309,-0.0471712,0.118186,-1.92203,0.15434,0.159745,0.0145091,0.00691293,0.000753091,0.00182962,-0.00915811,0.162756,-0.00156782,-0.000104776,0,0,0,0,0,0,0,-0.171017,-33.6217,-0.435472,27.7484,1.5158,2.28417,0.0577852,
0.051755,-0.0470735,0.118229,-1.92192,0.16605,0.158105,0.0144471,0.00576727,0.00555468,0.00538234,-0.00246332,0.272794,-0.0602655,-0.000822514,-0.417747,-0.912344,-0.210436,0.909945,-9.84045,6.15625,-0.0295963,0.454828,0.0586603,0.407804,0.446196,3.15137,-0.575177,-0.0101207,0.0517309,-0.0471712,0.118186,-1.92203,0.15434,0.159745,0.0145091,0.00691293,0.000753091,0.00182962,-0.00915811,0.162756,-0.00156782,-0.000104776,0,0,0,0,0,0,0,-0.171017,-33.6217,-0.435472,27.7484,1.5158,2.28417,0.0577852,
0.0517825,-0.0470802,0.118264,-1.92189,0.167613,0.157983,0.014438,0.00530082,0.00427609,0.00519663,-0.00122768,0.257295,-0.0512551,-0.000885706,-0.291535,-0.799119,-0.116068,0.77227,-9.68643,5.63153,-0.0394951,0.321348,0.00154496,0.281972,0.489098,3.2783,-0.594002,-0.0105703,0.0517309,-0.0471712,0.118186,-1.92203,0.15434,0.159745,0.0145091,0.00691293,0.000753091,0.00182962,-0.00915811,0.162756,-0.00156782,-0.000104776,0,0,0,0,0,0,0,-0.171017,-33.6217,-0.435472,27.7484,1.5158,2.28417,0.0577852,
0.0518095,-0.0470902,0.1183,-1.92186,0.169101,0.157893,0.0144284,0.00491689,0.00317039,0.00504588,-0.000175468,0.24305,-0.0432619,-0.000950353,-0.239954,-0.691064,-0.0942168,0.657635,-8.90348,4.99576,-0.0404047,0.196056,-0.049839,0.160572,0.533024,3.22859,-0.56122,-0.0147303,0.0517309,-0.0471712,0.118186,-1.92203,0.15434,0.159745,0.0145091,0.00691293,0.000753091,0.00182962,-0.00915811,0.162756,-0.00156782,-0.000104776,0,0,0,0,0,0,0,-0.171017,-33.6217,-0.435472,27.7484,1.5158,2.28417,0.0577852,
0.0518347,-0.0471027,0.118334,-1.92182,0.170541,0.157825,0.0144184,0.00456336,0.00222264,0.00488366,0.000720936,0.230444,-0.0363106,-0.00100967,-0.220955,-0.592348,-0.10139,0.560252,-7.87863,4.34454,-0.037072,0.137747,-0.226565,0.240262,0.496374,2.65178,-0.321929,-0.0137435,0.0518682,-0.0471601,0.1182,-1.92204,0.159667,0.159789,0.0145174,-0.00241891,0.00131357,-0.00144544,-0.0040438,0.151016,-0.00174909,0.000446621,-1.16648,0.0700595,-0.409383,0.639288,-1.46745,-0.0226592,0.0689247,-0.325741,-32.9234,-0.610033,26.9034,1.46728,2.05163,0.0239107,
0.0518225,-0.047133,0.118198,-1.92193,0.166098,0.159569,0.0144681,0.00356603,0.00167311,0.00403917,0.00136981,0.217232,-0.0299382,-0.00105807,-0.623331,-0.343452,-0.527806,0.405545,-8.25769,3.98274,-0.0302494,0.0846752,-0.262015,0.192089,0.54598,1.70743,-0.017025,-0.0127341,0.0518682,-0.0471601,0.1182,-1.92204,0.159667,0.159789,0.0145174,-0.00241891,0.00131357,-0.00144544,-0.0040438,0.151016,-0.00174909,0.000446621,0,0,0,0,0,0,0,-0.325741,-32.9234,-0.610033,26.9034,1.46728,2.05163,0.0239107,
0.0518212,-0.0471406,0.118205,-1.9219,0.167418,0.159537,0.0144581,0.00282022,0.00115004,0.0034158,0.00194677,0.206803,-0.0247269,-0.00109712,-0.466133,-0.326918,-0.389606,0.360603,-6.51788,3.2571,-0.0244079,0.0846752,-0.262015,0.192089,0.54598,1.70743,-0.017025,-0.0127341,0.0518682,-0.0471601,0.1182,-1.92204,0.159667,0.159789,0.0145174,-0.00241891,0.00131357,-0.00144544,-0.0040438,0.151016,-0.00174909,0.000446621,0,0,0,0,0,0,0,-0.325741,-32.9234,-0.610033,26.9034,1.46728,2.05163,0.0239107,
0.0518217,-0.0471508,0.118214,-1.92186,0.168742,0.15951,0.014448,0.00226668,0.000664493,0.00296059,0.00245423,0.198543,-0.0204598,-0.00112875,-0.345959,-0.303469,-0.284506,0.317159,-5.16232,2.66692,-0.0197665,0.0846752,-0.262015,0.192089,0.54598,1.70743,-0.017025,-0.0127341,0.0518682,-0.0471601,0.1182,-1.92204,0.159667,0.159789,0.0145174,-0.00241891,0.00131357,-0.00144544,-0.0040438,0.151016,-0.00174909,0.000446621,0,0,0,0,0,0,0,-0.325741,-32.9234,-0.610033,26.9034,1.46728,2.05163,0.0239107,
0.0518235,-0.0471632,0.118225,-1.92183,0.170068,0.159487,0.014438,0.00185921,0.000222097,0.00263227,0.00289667,0.191976,-0.0169626,-0.00115442,-0.254673,-0.276498,-0.205199,0.276526,-4.10427,2.1857,-0.0160472,0.0834964,-0.264128,0.191721,0.545777,1.69321,-0.0164545,-0.0126965,0.051844,-0.0472117,0.118112,-1.92189,0.163529,0.160074,0.0145115,-0.00379993,-0.00526404,-0.0047618,0.00636438,0.0604053,0.0144255,0.00051557,-0.172627,-0.822201,-0.414546,1.30102,-11.3264,2.02182,0.00861856,-0.198788,-33.3995,-0.510851,27.2009,1.21002,2.28417,0.0440523,
0.0516573,-0.0473416,0.117971,-1.92167,0.168748,0.160295,0.0144576,0.000842404,-0.00034263,0.00167615,0.00342087,0.183901,-0.0131429,-0.00117305,-0.635501,-0.352954,-0.597578,0.327628,-5.04722,2.38734,-0.011642,0.0834964,-0.264128,0.191721,0.545777,1.69321,-0.0164545,-0.0126965,0.051844,-0.0472117,0.118112,-1.92189,0.163529,0.160074,0.0145115,-0.00379993,-0.00526404,-0.0047618,0.00636438,0.0604053,0.0144255,0.00051557,0,0,0,0,0,0,0,-0.198788,-33.3995,-0.510851,27.2009,1.21002,2.28417,0.0440523,
0.0516374,-0.0473618,0.11796,-1.92162,0.169993,0.160305,0.0144477,0.00017483,-0.000777876,0.00105693,0.00383354,0.178255,-0.010257,-0.00118621,-0.417234,-0.272029,-0.387014,0.257915,-3.52877,1.80372,-0.0082281,0.0834964,-0.264128,0.191721,0.545777,1.69321,-0.0164545,-0.0126965,0.051844,-0.0472117,0.118112,-1.92189,0.163529,0.160074,0.0145115,-0.00379993,-0.00526404,-0.0047618,0.00636438,0.0604053,0.0144255,0.00051557,0,0,0,0,0,0,0,-0.198788,-33.3995,-0.510851,27.2009,1.21002,2.28417,0.0440523,
0.0516225,-0.0473816,0.117953,-1.92158,0.17126,0.16031,0.0144378,-0.000232545,-0.00111889,0.000688851,0.00415732,0.174281,-0.00807656,-0.00119637,-0.254609,-0.213134,-0.230047,0.202363,-2.4838,1.36275,-0.00634557,0.0834964,-0.264128,0.191721,0.545777,1.69321,-0.0164545,-0.0126965,0.051844,-0.0472117,0.118112,-1.92189,0.163529,0.160074,0.0145115,-0.00379993,-0.00526404,-0.0047618,0.00636438,0.0604053,0.0144255,0.00051557,0,0,0,0,0,0,0,-0.198788,-33.3995,-0.510851,27.2009,1.21002,2.28417,0.0440523,
0.0516119,-0.0474014,0.117952,-1.92153,0.172542,0.160311,0.0144279,-0.000451493,-0.00138999,0.000502343,0.00441066,0.171464,-0.00643047,-0.00120476,-0.136842,-0.169437,-0.116567,0.158338,-1.76078,1.0288,-0.00524654,0.0831181,-0.258557,0.19178,0.53736,1.6926,-0.0246928,-0.0126455,0.0517939,-0.0473216,0.117976,-1.92168,0.163818,0.161588,0.0145093,-0.00441074,-0.00423663,-0.00417984,0.00298739,0.00495886,0.0387431,-0.00120077,-0.0763507,0.128426,0.0727448,-0.422124,-6.9308,3.0397,-0.214542,-0.274166,-32.249,-0.661608,26.4789,1.21643,2.37023,0.0577852,
0.0515417,-0.0474088,0.117772,-1.92148,0.168295,0.162083,0.0144515,-0.00130921,-0.00150089,-0.000329602,0.00459377,0.166011,-0.00429758,-0.00121415,-0.536076,-0.0693129,-0.519965,0.114442,-3.4081,1.33306,-0.0058695,0.0831181,-0.258557,0.19178,0.53736,1.6926,-0.0246928,-0.0126455,0.0517939,-0.0473216,0.117976,-1.92168,0.163818,0.161588,0.0145093,-0.00441074,-0.00423663,-0.00417984,0.00298739,0.00495886,0.0387431,-0.00120077,0,0,0,0,0,0,0,-0.274166,-32.249,-0.661608,26.4789,1.21643,2.37023,0.0577852,
0.0515114,-0.0474247,0.11775,-1.92144,0.169499,0.162103,0.0144416,-0.00180496,-0.0015991,-0.000806275,0.00473808,0.162891,-0.00294572,-0.00121791,-0.309844,-0.0613786,-0.297921,0.090194,-1.94997,0.844909,-0.00234766,0.0831181,-0.258557,0.19178,0.53736,1.6926,-0.0246928,-0.0126455,0.0517939,-0.0473216,0.117976,-1.92168,0.163818,0.161588,0.0145093,-0.00441074,-0.00423663,-0.00417984,0.00298739,0.00495886,0.0387431,-0.00120077,0,0,0,0,0,0,0,-0.274166,-32.249,-0.661608,26.4789,1.21643,2.37023,0.0577852,
0.0514879,-0.0474412,0.117735,-1.92139,0.170735,0.162112,0.0144318,-0.0020323,-0.00169011,-0.00101839,0.00485012,0.161229,-0.0021182,-0.00121961,-0.142084,-0.0568839,-0.132571,0.0700289,-1.03822,0.517204,-0.00105986,0.0831181,-0.258557,0.19178,0.53736,1.6926,-0.0246928,-0.0126455,0.0517939,-0.0473216,0.117976,-1.92168,0.163818,0.161588,0.0145093,-0.00441074,-0.00423663,-0.00417984,0.00298739,0.00495886,0.0387431,-0.00120077,0,0,0,0,0,0,0,-0.274166,-32.249,-0.661608,26.4789,1.21643,2.37023,0.0577852,
0.0514702,-0.0474581,0.117726,-1.92135,0.171995,0.162115,0.014422,-0.00206915,-0.00177605,-0.00104235,0.00493616,0.160467,-0.001641,-0.00122089,-0.0230348,-0.0537141,-0.0149738,0.0537737,-0.476538,0.29825,-0.000804342,0.0829866,-0.256586,0.192127,0.531746,1.69281,-0.0303997,-0.0126156,0.0517305,-0.0474527,0.117828,-1.92154,0.163826,0.162521,0.0145121,-0.00528334,-0.0034034,-0.00411113,0.00317454,0.00412106,0.0194319,-0.000485455,-0.109076,0.104154,0.00858937,0.0233938,-0.104724,-2.41391,0.0894139,-0.29797,-32.3006,-0.685411,26.2805,1.13128,2.39037,0.0577852,
0.0514744,-0.0475216,0.11762,-1.92138,0.168285,0.162725,0.0144551,-0.00260521,-0.00171901,-0.00156595,0.00488157,0.157141,-0.00119284,-0.00122548,-0.335033,0.0356489,-0.327253,-0.034122,-2.07859,0.2801,-0.00286656,0.0829866,-0.256586,0.192127,0.531746,1.69281,-0.0303997,-0.0126156,0.0517305,-0.0474527,0.117828,-1.92154,0.163826,0.162521,0.0145121,-0.00528334,-0.0034034,-0.00411113,0.00317454,0.00412106,0.0194319,-0.000485455,0,0,0,0,0,0,0,-0.29797,-32.3006,-0.685411,26.2805,1.13128,2.39037,0.0577852,
0.0514441,-0.0475343,0.117598,-1.92134,0.169486,0.162722,0.0144453,-0.00284158,-0.00169146,-0.00179391,0.00486024,0.155736,-0.00102177,-0.0012258,-0.14773,0.0172195,-0.142476,-0.0133311,-0.878572,0.106919,-0.000201369,0.0829866,-0.256586,0.192127,0.531746,1.69281,-0.0303997,-0.0126156,0.0517305,-0.0474527,0.117828,-1.92154,0.163826,0.162521,0.0145121,-0.00528334,-0.0034034,-0.00411113,0.00317454,0.00412106,0.0194319,-0.000485455,0,0,0,0,0,0,0,-0.29797,-32.3006,-0.685411,26.2805,1.13128,2.39037,0.0577852,
0.0514206,-0.0475478,0.117583,-1.9213,0.170721,0.162714,0.0144355,-0.00286049,-0.0016917,-0.0018062,0.0048596,0.155457,-0.00101753,-0.00122501,-0.0118214,-0.000146439,-0.00767824,-0.000397222,-0.17403,0.00264767,0.000491395,0.0829866,-0.256586,0.192127,0.531746,1.69281,-0.0303997,-0.0126156,0.0517305,-0.0474527,0.117828,-1.92154,0.163826,0.162521,0.0145121,-0.00528334,-0.0034034,-0.00411113,0.00317454,0.00412106,0.0194319,-0.000485455,0,0,0,0,0,0,0,-0.29797,-32.3006,-0.685411,26.2805,1.13128,2.39037,0.0577852,
0.051403,-0.0475623,0.117574,-1.92126,0.171979,0.162703,0.0144257,-0.00273031,-0.00171487,-0.00167007,0.00487146,0.155811,-0.00110986,-0.00122449,0.081365,-0.014482,0.0850825,0.00741359,0.220916,-0.0577042,0.000329224,0.0828991,-0.254979,0.191911,0.530265,1.69288,-0.0319605,-0.0126075,0.0516382,-0.0474845,0.117618,-1.92149,0.163806,0.162769,0.0145127,-0.0104011,-0.00127374,-0.00538885,0.00535008,0.00495062,-0.00130228,0.00134123,-0.639722,0.266207,-0.159715,0.271943,0.103695,-2.59177,0.228335,0.134464,-32.6735,-0.260912,26.5027,1.27777,2.37664,0.0239107,
0.0513289,-0.0475255,0.117356,-1.92135,0.168215,0.162716,0.0144581,-0.00326741,-0.00155768,-0.0022035,0.00470707,0.153123,-0.00133058,-0.00122414,-0.33569,0.098242,-0.333395,-0.102743,-1.67977,-0.137949,0.000216444,0.0828991,-0.254979,0.191911,0.530265,1.69288,-0.0319605,-0.0126075,0.0516382,-0.0474845,0.117618,-1.92149,0.163806,0.162769,0.0145127,-0.0104011,-0.00127374,-0.00538885,0.00535008,0.00495062,-0.00130228,0.00134123,0,0,0,0,0,0,0,0.134464,-32.6735,-0.260912,26.5027,1.27777,2.37664,0.0239107,
0.0512946,-0.0475342,0.11733,-1.92132,0.169406,0.162697,0.0144484,-0.00347312,-0.00146305,-0.0024073,0.00462126,0.152265,-0.00154264,-0.00122181,-0.128571,0.0591431,-0.127377,-0.0536347,-0.53616,-0.132542,0.00145571,0.0828991,-0.254979,0.191911,0.530265,1.69288,-0.0319605,-0.0126075,0.0516382,-0.0474845,0.117618,-1.92149,0.163806,0.162769,0.0145127,-0.0104011,-0.00127374,-0.00538885,0.00535008,0.00495062,-0.00130228,0.00134123,0,0,0,0,0,0,0,0.134464,-32.6735,-0.260912,26.5027,1.27777,2.37664,0.0239107,
0.0512679,-0.0475443,0.117312,-1.92128,0.170632,0.162677,0.0144387,-0.00344427,-0.00142281,-0.00237672,0.00458823,0.152465,-0.00173704,-0.00121977,0.0180305,0.0251529,0.0191114,-0.0206438,0.124787,-0.121495,0.0012789,0.0828991,-0.254979,0.191911,0.530265,1.69288,-0.0319605,-0.0126075,0.0516382,-0.0474845,0.117618,-1.92149,0.163806,0.162769,0.0145127,-0.0104011,-0.00127374,-0.00538885,0.00535008,0.00495062,-0.00130228,0.00134123,0,0,0,0,0,0,0,0.134464,-32.6735,-0.260912,26.5027,1.27777,2.37664,0.0239107,
0.0513289,-0.0475255,0.117356,-1.92135,0.168215,0.162716,0.0144581,-0.00383858,-0.00132403,-0.00276882,0.00448049,0.150446,-0.00183232,-0.00122036,-0.246444,0.0617344,-0.245063,-0.067339,-1.26154,-0.0595521,-0.000373765,0.0828593,-0.254179,0.191591,0.530399,1.69292,-0.0318576,-0.0126081,0.0515551,-0.0474773,0.117447,-1.92151,0.163777,0.162764,0.0145112,-0.00438658,0.000480351,-0.00406579,-0.00120441,0.00288499,-0.00255803,4.17831e-05,0.751818,0.219262,0.165383,-0.819312,-0.258203,-0.156969,-0.16243,0.360599,-32.6735,-0.0387439,26.6534,1.53412,2.39037,0.0376436,
0.051282,-0.0474515,0.117231,-1.92141,0.1694,0.162523,0.0144448,-0.00379716,-0.00110565,-0.00272451,0.00429907,0.150284,-0.00238981,-0.00122153,0.025888,0.136487,0.0276949,-0.113383,-0.101252,-0.34843,-0.000726481,0.0828593,-0.254179,0.191591,0.530399,1.69292,-0.0318576,-0.0126081,0.0515551,-0.0474773,0.117447,-1.92151,0.163777,0.162764,0.0145112,-0.00438658,0.000480351,-0.00406579,-0.00120441,0.00288499,-0.00255803,4.17831e-05,0,0,0,0,0,0,0,0.360599,-32.6735,-0.0387439,26.6534,1.53412,2.39037,0.0376436,
0.0512594,-0.0474561,0.117218,-1.92138,0.170631,0.162488,0.014435,-0.00360031,-0.0010011,-0.00252598,0.00421896,0.151018,-0.00277139,-0.00122156,0.123036,0.0653446,0.124086,-0.0500706,0.458515,-0.238487,-1.79057e-05,0.0828593,-0.254179,0.191591,0.530399,1.69292,-0.0318576,-0.0126081,0.0515551,-0.0474773,0.117447,-1.92151,0.163777,0.162764,0.0145112,-0.00438658,0.000480351,-0.00406579,-0.00120441,0.00288499,-0.00255803,4.17831e-05,0,0,0,0,0,0,0,0.360599,-32.6735,-0.0387439,26.6534,1.53412,2.39037,0.0376436,
0.0512425,-0.0474633,0.117209,-1.92135,0.171887,0.162456,0.0144252,-0.00330275,-0.000980233,-0.00222688,0.00420624,0.152195,-0.00302005,-0.00122177,0.185974,0.013044,0.186934,-0.00794989,0.735912,-0.155412,-0.000136312,0.0828593,-0.254179,0.191591,0.530399,1.69292,-0.0318576,-0.0126081,0.0515551,-0.0474773,0.117447,-1.92151,0.163777,0.162764,0.0145112,-0.00438658,0.000480351,-0.00406579,-0.00120441,0.00288499,-0.00255803,4.17831e-05,0,0,0,0,0,0,0,0.360599,-32.6735,-0.0387439,26.6534,1.53412,2.39037,0.0376436,
0.051311,-0.0474496,0.117252,-1.92144,0.168203,0.162559,0.0144546,-0.00355314,-0.00075544,-0.00247342,0.00399681,0.150409,-0.00340896,-0.00122578,-0.156495,0.140496,-0.154088,-0.130893,-1.11677,-0.243069,-0.00250343,0.0828745,-0.252728,0.191237,0.530841,1.69306,-0.0314798,-0.0126102,0.0515251,-0.0474334,0.11735,-1.92155,0.163744,0.162766,0.0145112,0.00265683,-0.000595203,-0.00173642,0.00099112,0.000792023,-0.000676233,0.000102899,0.880427,-0.134444,0.291171,0.274442,-0.261621,0.235225,0.00763946,0.0313145,-32.7251,-0.288683,26.5027,1.60095,2.31713,0.0376436,
0.051282,-0.0474515,0.117231,-1.92141,0.1694,0.162523,0.0144448,-0.00356881,-0.00065078,-0.00248819,0.00391213,0.150254,-0.00365112,-0.00122586,-0.00979252,0.0654123,-0.00923028,-0.052924,-0.0965329,-0.15135,-4.96548e-05,0.0828745,-0.252728,0.191237,0.530841,1.69306,-0.0314798,-0.0126102,0.0515251,-0.0474334,0.11735,-1.92155,0.163744,0.162766,0.0145112,0.00265683,-0.000595203,-0.00173642,0.00099112,0.000792023,-0.000676233,0.000102899,0,0,0,0,0,0,0,0.0313145,-32.7251,-0.288683,26.5027,1.60095,2.31713,0.0376436,
0.0512594,-0.0474561,0.117218,-1.92138,0.170631,0.162488,0.014435,-0.00341762,-0.000637203,-0.00233692,0.00390941,0.150994,-0.00378043,-0.00122502,0.0944918,0.00848527,0.0945453,-0.00170306,0.46229,-0.0808233,0.000523555,0.0828745,-0.252728,0.191237,0.530841,1.69306,-0.0314798,-0.0126102,0.0515251,-0.0474334,0.11735,-1.92155,0.163744,0.162766,0.0145112,0.00265683,-0.000595203,-0.00173642,0.00099112,0.000792023,-0.000676233,0.000102899,0,0,0,0,0,0,0,0.0313145,-32.7251,-0.288683,26.5027,1.60095,2.31713,0.0376436,
0.0512425,-0.0474633,0.117209,-1.92135,0.171887,0.162456,0.0144252,-0.0031566,-0.000689113,-0.00207564,0.0039586,0.152176,-0.00382728,-0.00122455,0.163138,-0.0324435,0.163301,0.0307441,0.738932,-0.0292811,0.000296857,0.0828745,-0.252728,0.191237,0.530841,1.69306,-0.0314798,-0.0126102,0.0515251,-0.0474334,0.11735,-1.92155,0.163744,0.162766,0.0145112,0.00265683,-0.000595203,-0.00173642,0.00099112,0.000792023,-0.000676233,0.000102899,0,0,0,0,0,0,0,0.0313145,-32.7251,-0.288683,26.5027,1.60095,2.31713,0.0376436,
0.0513629,-0.0474418,0.117238,-1.92146,0.168253,0.162606,0.014452,-0.00321535,-0.000639192,-0.00212927,0.003869,0.150837,-0.00395496,-0.00123309,-0.036719,0.0312005,-0.0335179,-0.0559956,-0.836785,-0.0798,-0.0053381,0.0828745,-0.252728,0.191237,0.530841,1.69306,-0.0314798,-0.0126102,0.0515251,-0.0474334,0.11735,-1.92155,0.163744,0.162766,0.0145112,0.00265683,-0.000595203,-0.00173642,0.00099112,0.000792023,-0.000676233,0.000102899,0,0,0,0,0,0,0,0.0313145,-32.7251,-0.288683,26.5027,1.60095,2.31713,0.0376436,
0.0513407,-0.0474475,0.117224,-1.92143,0.169466,0.162572,0.014442,-0.0031265,-0.000652222,-0.00203917,0.00386727,0.15098,-0.00401509,-0.00123536,0.0555349,-0.00814391,0.0563098,-0.00108665,0.0893121,-0.0375771,-0.00142139,0.0828689,-0.250984,0.190823,0.531418,1.69322,-0.0309918,-0.012613,0.0514741,-0.0473756,0.117277,-1.9216,0.163706,0.162772,0.0145098,-0.000521883,0.00442235,-0.00135206,-0.00161817,0.00161483,0.000637608,9.8866e-05,-0.39734,0.627194,0.048045,-0.326161,0.102851,0.16423,-0.000504091,0.511356,-32.7727,0.0882092,26.4035,1.76025,2.23107,0.050461,
0.0513236,-0.0474552,0.117216,-1.92139,0.17071,0.162539,0.0144322,-0.00292889,-0.00071485,-0.00184164,0.00392023,0.151896,-0.0040175,-0.0012353,0.123505,-0.0391422,0.123458,0.0331054,0.572578,-0.0015096,3.59492e-05,0.0828689,-0.250984,0.190823,0.531418,1.69322,-0.0309918,-0.012613,0.0514741,-0.0473756,0.117277,-1.9216,0.163706,0.162772,0.0145098,-0.000521883,0.00442235,-0.00135206,-0.00161817,0.00161483,0.000637608,9.8866e-05,0,0,0,0,0,0,0,0.511356,-32.7727,0.0882092,26.4035,1.76025,2.23107,0.050461,
0.0513629,-0.0474418,0.117238,-1.92146,0.168253,0.162606,0.014452,-0.00303318,-0.000659782,-0.00194207,0.00383831,0.150613,-0.00410714,-0.00124169,-0.0651833,0.0344176,-0.0627679,-0.0512003,-0.801806,-0.0560227,-0.0039934,0.0828689,-0.250984,0.190823,0.531418,1.69322,-0.0309918,-0.012613,0.0514741,-0.0473756,0.117277,-1.9216,0.163706,0.162772,0.0145098,-0.000521883,0.00442235,-0.00135206,-0.00161817,0.00161483,0.000637608,9.8866e-05,0,0,0,0,0,0,0,0.511356,-32.7727,0.0882092,26.4035,1.76025,2.23107,0.050461,
0.0512607,-0.0472851,0.117122,-1.92154,0.169379,0.162538,0.0144414,-0.00304188,-0.000460355,-0.00195177,0.00371902,0.15061,-0.00432157,-0.00124118,-0.00543741,0.124642,-0.00606748,-0.0745615,-0.00183809,-0.13402,0.000323282,0.0828689,-0.250984,0.190823,0.531418,1.69322,-0.0309918,-0.012613,0.0514741,-0.0473756,0.117277,-1.9216,0.163706,0.162772,0.0145098,-0.000521883,0.00442235,-0.00135206,-0.00161817,0.00161483,0.000637608,9.8866e-05,0,0,0,0,0,0,0,0.511356,-32.7727,0.0882092,26.4035,1.76025,2.23107,0.050461,
0.0512416,-0.0472863,0.117111,-1.92151,0.170617,0.1625,0.0144315,-0.00291012,-0.00039686,-0.0018221,0.00370284,0.151438,-0.00442165,-0.00123916,0.08235,0.0396841,0.0810479,-0.0101092,0.517524,-0.0625461,0.00125838,0.0828743,-0.249785,0.190541,0.531955,1.69325,-0.0304854,-0.0126157,0.0514735,-0.0473259,0.117256,-1.92166,0.163704,0.162774,0.0145127,0.00182694,-0.00019455,-0.00107502,-0.00546346,0.00224714,-0.000406352,0.000958993,0.293603,-0.577113,0.0346298,-0.480662,0.079039,-0.130495,0.107516,0.562931,-32.8005,0.338148,26.5305,1.77215,2.21734,0.0239107,
0.0512274,-0.0472907,0.117106,-1.92148,0.171878,0.162464,0.0144217,-0.00268364,-0.000427878,-0.00159755,0.00375258,0.152662,-0.00443184,-0.00123727,0.14155,-0.0193862,0.14034,0.0310845,0.764751,-0.00637227,0.0011814,0.0828743,-0.249785,0.190541,0.531955,1.69325,-0.0304854,-0.0126157,0.0514735,-0.0473259,0.117256,-1.92166,0.163704,0.162774,0.0145127,0.00182694,-0.00019455,-0.00107502,-0.00546346,0.00224714,-0.000406352,0.000958993,0,0,0,0,0,0,0,0.562931,-32.8005,0.338148,26.5305,1.77215,2.21734,0.0239107,
0.0513128,-0.0472836,0.117145,-1.92162,0.168201,0.162511,0.0144543,-0.00283173,-0.00025985,-0.00174211,0.00357826,0.151161,-0.00478083,-0.00124325,-0.0925559,0.105017,-0.0903498,-0.108946,-0.938378,-0.218119,-0.00373723,0.0828743,-0.249785,0.190541,0.531955,1.69325,-0.0304854,-0.0126157,0.0514735,-0.0473259,0.117256,-1.92166,0.163704,0.162774,0.0145127,0.00182694,-0.00019455,-0.00107502,-0.00546346,0.00224714,-0.000406352,0.000958993,0,0,0,0,0,0,0,0.562931,-32.8005,0.338148,26.5305,1.77215,2.21734,0.0239107,
0.0512908,-0.0472837,0.117131,-1.92159,0.169411,0.162467,0.0144443,-0.0028158,-0.000211068,-0.00172653,0.00353491,0.151184,-0.00494336,-0.00124355,0.00995315,0.0304886,0.00973707,-0.0270978,0.0143462,-0.101582,-0.000184213,0.0828743,-0.249785,0.190541,0.531955,1.69325,-0.0304854,-0.0126157,0.0514735,-0.0473259,0.117256,-1.92166,0.163704,0.162774,0.0145127,0.00182694,-0.00019455,-0.00107502,-0.00546346,0.00224714,-0.000406352,0.000958993,0,0,0,0,0,0,0,0.562931,-32.8005,0.338148,26.5305,1.77215,2.21734,0.0239107,
0.0512738,-0.0472869,0.117123,-1.92156,0.170654,0.162426,0.0144345,-0.00267765,-0.00025031,-0.00158998,0.00357537,0.152013,-0.00496675,-0.00124195,0.0863455,-0.0245258,0.0853435,0.0252915,0.518438,-0.0146174,0.000999142,0.0828671,-0.247913,0.190172,0.532507,1.69323,-0.0299857,-0.0126183,0.0515268,-0.0472472,0.117285,-1.92169,0.163718,0.162776,0.0145127,0.000153797,0.00569819,0.000949135,0.00117574,-0.00209396,-0.000432995,0.00090752,-0.209143,0.736592,0.25302,0.8299,-0.542637,-0.00333037,-0.00643404,0.0313145,-32.4513,-0.0387439,26.2051,1.6925,2.19079,0.0239107,
0.0512613,-0.047293,0.117119,-1.92153,0.171918,0.162389,0.0144246,-0.00245656,-0.000350727,-0.00137048,0.00366699,0.153219,-0.00489273,-0.00124021,0.138184,-0.062761,0.137192,0.0572613,0.753767,0.0462637,0.00108429,0.0828671,-0.247913,0.190172,0.532507,1.69323,-0.0299857,-0.0126183,0.0515268,-0.0472472,0.117285,-1.92169,0.163718,0.162776,0.0145127,0.000153797,0.00569819,0.000949135,0.00117574,-0.00209396,-0.000432995,0.00090752,0,0,0,0,0,0,0,0.0313145,-32.4513,-0.0387439,26.2051,1.6925,2.19079,0.0239107,
0.05136,-0.0471584,0.117168,-1.92164,0.168179,0.162605,0.0144533,-0.00267818,-0.000109705,-0.00158936,0.00349352,0.151522,-0.00495448,-0.00124588,-0.138516,0.150639,-0.136805,-0.108422,-1.06074,-0.0385954,-0.0035421,0.0828671,-0.247913,0.190172,0.532507,1.69323,-0.0299857,-0.0126183,0.0515268,-0.0472472,0.117285,-1.92169,0.163718,0.162776,0.0145127,0.000153797,0.00569819,0.000949135,0.00117574,-0.00209396,-0.000432995,0.00090752,0,0,0,0,0,0,0,0.0313145,-32.4513,-0.0387439,26.2051,1.6925,2.19079,0.0239107,
0.051337,-0.0471559,0.117154,-1.92161,0.169387,0.162566,0.0144434,-0.002717,-2.60025e-05,-0.00162937,0.00345368,0.151405,-0.00495563,-0.00124571,-0.0242613,0.0523138,-0.0250063,-0.0248964,-0.0731623,-0.00071689,0.000104307,0.0828671,-0.247913,0.190172,0.532507,1.69323,-0.0299857,-0.0126183,0.0515268,-0.0472472,0.117285,-1.92169,0.163718,0.162776,0.0145127,0.000153797,0.00569819,0.000949135,0.00117574,-0.00209396,-0.000432995,0.00090752,0,0,0,0,0,0,0,0.0313145,-32.4513,-0.0387439,26.2051,1.6925,2.19079,0.0239107,
0.0513192,-0.0471572,0.117145,-1.92158,0.170627,0.162529,0.0144335,-0.00261878,-5.34643e-05,-0.00153357,0.00349958,0.152135,-0.00489458,-0.00124364,0.0613865,-0.0171636,0.0598785,0.0286847,0.456637,0.0381545,0.00129256,0.0828858,-0.246797,0.189942,0.533099,1.6932,-0.0294011,-0.0126214,0.0515844,-0.0471895,0.117319,-1.92174,0.163734,0.162763,0.0145149,-8.99524e-05,-0.000361353,0.00162553,-0.00285562,-0.00695345,-0.00193856,0.00207469,-0.0304686,-0.757442,0.0845493,-0.503921,-0.607436,-0.188195,0.145896,0.00751081,-32.6973,-0.237108,26.6296,1.61926,2.3034,0.00376909,
0.0513059,-0.0471617,0.11714,-1.92155,0.17189,0.162494,0.0144236,-0.00242619,-0.00015572,-0.00134329,0.00359771,0.153273,-0.00478195,-0.00124149,0.120372,-0.0639096,0.118923,0.061334,0.710979,0.0703941,0.00134627,0.0828858,-0.246797,0.189942,0.533099,1.6932,-0.0294011,-0.0126214,0.0515844,-0.0471895,0.117319,-1.92174,0.163734,0.162763,0.0145149,-8.99524e-05,-0.000361353,0.00162553,-0.00285562,-0.00695345,-0.00193856,0.00207469,0,0,0,0,0,0,0,0.00751081,-32.6973,-0.237108,26.6296,1.61926,2.3034,0.00376909,
0.0514211,-0.0471645,0.117205,-1.92168,0.168131,0.162523,0.014456,-0.00264854,-8.79492e-05,-0.00156261,0.00348723,0.151488,-0.00495825,-0.00124731,-0.138973,0.0423565,-0.137075,-0.0690482,-1.11559,-0.110189,-0.00363517,0.0828858,-0.246797,0.189942,0.533099,1.6932,-0.0294011,-0.0126214,0.0515844,-0.0471895,0.117319,-1.92174,0.163734,0.162763,0.0145149,-8.99524e-05,-0.000361353,0.00162553,-0.00285562,-0.00695345,-0.00193856,0.00207469,0,0,0,0,0,0,0,0.00751081,-32.6973,-0.237108,26.6296,1.61926,2.3034,0.00376909,
0.0513983,-0.047166,0.117191,-1.92166,0.169337,0.162482,0.014446,-0.00268965,-0.000106741,-0.00160457,0.00348887,0.151341,-0.0049967,-0.00124711,-0.0256911,-0.0117446,-0.0262236,0.00102436,-0.0921783,-0.0240291,0.000121105,0.0828858,-0.246797,0.189942,0.533099,1.6932,-0.0294011,-0.0126214,0.0515844,-0.0471895,0.117319,-1.92174,0.163734,0.162763,0.0145149,-8.99524e-05,-0.000361353,0.00162553,-0.00285562,-0.00695345,-0.00193856,0.00207469,0,0,0,0,0,0,0,0.00751081,-32.6973,-0.237108,26.6296,1.61926,2.3034,0.00376909,
0.0513806,-0.0471702,0.117182,-1.92163,0.170576,0.162444,0.0144362,-0.00259423,-0.000190755,-0.00151119,0.00356045,0.15207,-0.00493318,-0.00124494,0.0596362,-0.0525087,0.0583594,0.0447337,0.455684,0.0397031,0.00135719,0.0828681,-0.245063,0.189565,0.533665,1.69314,-0.0288702,-0.0126241,0.0516569,-0.0471195,0.117318,-1.92178,0.163752,0.16276,0.0145134,-0.000585295,0.000635251,-0.00162676,-0.00212297,-0.000319242,-0.00144369,0.00107872,-0.0619178,0.124575,-0.406536,0.0915811,0.829275,0.0618588,-0.124496,0.0551182,-32.7489,-0.0863513,26.5781,1.55883,2.3034,0.017502,
0.0514659,-0.0470834,0.117176,-1.92172,0.168197,0.162547,0.0144554,-0.00284731,-9.30987e-05,-0.00176347,0.00346391,0.150514,-0.00499072,-0.00124802,-0.158173,0.0610349,-0.15767,-0.0603369,-0.972373,-0.0359669,-0.00192151,0.0828681,-0.245063,0.189565,0.533665,1.69314,-0.0288702,-0.0126241,0.0516569,-0.0471195,0.117318,-1.92178,0.163752,0.16276,0.0145134,-0.000585295,0.000635251,-0.00162676,-0.00212297,-0.000319242,-0.00144369,0.00107872,0,0,0,0,0,0,0,0.0551182,-32.7489,-0.0863513,26.5781,1.55883,2.3034,0.017502,
0.0514412,-0.0470842,0.11716,-1.92169,0.169402,0.162509,0.0144455,-0.00289685,-9.36864e-05,-0.00181521,0.00347498,0.150526,-0.00495254,-0.00124635,-0.0309624,-0.000367316,-0.0323374,0.00692042,0.00730625,0.0238669,0.00104262,0.0828681,-0.245063,0.189565,0.533665,1.69314,-0.0288702,-0.0126241,0.0516569,-0.0471195,0.117318,-1.92178,0.163752,0.16276,0.0145134,-0.000585295,0.000635251,-0.00162676,-0.00212297,-0.000319242,-0.00144369,0.00107872,0,0,0,0,0,0,0,0.0551182,-32.7489,-0.0863513,26.5781,1.55883,2.3034,0.017502,
0.051422,-0.0470879,0.117149,-1.92166,0.17064,0.162473,0.0144356,-0.00279661,-0.000166905,-0.00171782,0.00355295,0.151373,-0.00484212,-0.00124345,0.0626473,-0.0457619,0.0608655,0.0487306,0.529935,0.0690125,0.00181399,0.0828681,-0.245063,0.189565,0.533665,1.69314,-0.0288702,-0.0126241,0.0516569,-0.0471195,0.117318,-1.92178,0.163752,0.16276,0.0145134,-0.000585295,0.000635251,-0.00162676,-0.00212297,-0.000319242,-0.00144369,0.00107872,0,0,0,0,0,0,0,0.0551182,-32.7489,-0.0863513,26.5781,1.55883,2.3034,0.017502,
0.0514077,-0.0470941,0.117143,-1.92162,0.171901,0.162441,0.0144258,-0.00259452,-0.000290139,-0.00151814,0.00366981,0.152617,-0.00468288,-0.00124087,0.126307,-0.0770211,0.124799,0.0730375,0.777221,0.0995204,0.00161264,0.0828728,-0.243693,0.189283,0.534181,1.69316,-0.028393,-0.0126266,0.0517204,-0.0470591,0.117336,-1.92181,0.163754,0.162755,0.0145075,0.00363876,0.00102171,-0.00150179,-0.00141517,-0.004452,-0.000694597,-0.000260559,0.528007,0.0483069,0.0156219,0.0884755,-0.516594,0.0936364,-0.167409,-0.222592,-32.8243,-0.33629,26.6772,1.54602,2.33727,0.0706026,
0.0515637,-0.0470234,0.117228,-1.92175,0.168194,0.162553,0.0144477,-0.0027622,-0.000178205,-0.0016827,0.00355319,0.151059,-0.00478773,-0.00124717,-0.104797,0.0699587,-0.102847,-0.0728847,-0.974039,-0.0655308,-0.00394269,0.0828728,-0.243693,0.189283,0.534181,1.69316,-0.028393,-0.0126266,0.0517204,-0.0470591,0.117336,-1.92181,0.163754,0.162755,0.0145075,0.00363876,0.00102171,-0.00150179,-0.00141517,-0.004452,-0.000694597,-0.000260559,0,0,0,0,0,0,0,-0.222592,-32.8243,-0.33629,26.6772,1.54602,2.33727,0.0706026,
0.0515416,-0.0470244,0.117215,-1.92172,0.169402,0.162514,0.0144377,-0.00276355,-0.000166703,-0.00168485,0.00354855,0.151065,-0.00479345,-0.00124734,-0.000846181,0.00718876,-0.00134483,-0.00290486,0.00426074,-0.0035714,-0.000105768,0.0828728,-0.243693,0.189283,0.534181,1.69316,-0.028393,-0.0126266,0.0517204,-0.0470591,0.117336,-1.92181,0.163754,0.162755,0.0145075,0.00363876,0.00102171,-0.00150179,-0.00141517,-0.004452,-0.000694597,-0.000260559,0,0,0,0,0,0,0,-0.222592,-32.8243,-0.33629,26.6772,1.54602,2.33727,0.0706026,
0.0515244,-0.0470282,0.117206,-1.92169,0.170644,0.162479,0.0144278,-0.00263965,-0.00022947,-0.00156297,0.00361407,0.151899,-0.00472014,-0.00124543,0.0774368,-0.0392295,0.0761745,0.0409498,0.521079,0.0458194,0.00119853,0.0828728,-0.243693,0.189283,0.534181,1.69316,-0.028393,-0.0126266,0.0517204,-0.0470591,0.117336,-1.92181,0.163754,0.162755,0.0145075,0.00363876,0.00102171,-0.00150179,-0.00141517,-0.004452,-0.000694597,-0.000260559,0,0,0,0,0,0,0,-0.222592,-32.8243,-0.33629,26.6772,1.54602,2.33727,0.0706026,
0.0516445,-0.0469983,0.117288,-1.92179,0.16822,0.162539,0.0144471,-0.0026958,-0.000123217,-0.00161456,0.00349672,0.15066,-0.00488037,-0.00125317,-0.0350887,0.0664084,-0.0322449,-0.0733443,-0.774234,-0.100147,-0.00484178,0.0828774,-0.243363,0.189201,0.534505,1.69321,-0.028098,-0.0126283,0.0517631,-0.0470371,0.117356,-1.92185,0.163749,0.162751,0.0145082,0.00486997,0.00110199,0.0015659,-0.00197916,-0.00524426,-6.38717e-06,-0.000815036,0.153901,0.0100354,0.38346,-0.0704985,-0.0990333,0.0860263,-0.0693097,0.336795,-32.7251,0.187391,26.6058,1.64398,2.32995,0.0641939,
0.0516255,-0.0469991,0.117278,-1.92176,0.169435,0.162498,0.014437,-0.00263082,-0.000118571,-0.00154967,0.00349456,0.150899,-0.00492181,-0.00125383,0.0406107,0.00290353,0.0405586,-0.0013485,0.149363,-0.0259006,-0.000413968,0.0828774,-0.243363,0.189201,0.534505,1.69321,-0.028098,-0.0126283,0.0517631,-0.0470371,0.117356,-1.92185,0.163749,0.162751,0.0145082,0.00486997,0.00110199,0.0015659,-0.00197916,-0.00524426,-6.38717e-06,-0.000815036,0,0,0,0,0,0,0,0.336795,-32.7251,0.187391,26.6058,1.64398,2.32995,0.0641939,
0.0516109,-0.0470028,0.117271,-1.92173,0.170682,0.162461,0.0144271,-0.00247126,-0.000188398,-0.00139185,0.00356437,0.151894,-0.00486785,-0.00125187,0.0997254,-0.0436417,0.0986365,0.0436324,0.621948,0.0337248,0.00123063,0.0828774,-0.243363,0.189201,0.534505,1.69321,-0.028098,-0.0126283,0.0517631,-0.0470371,0.117356,-1.92185,0.163749,0.162751,0.0145082,0.00486997,0.00110199,0.0015659,-0.00197916,-0.00524426,-6.38717e-06,-0.000815036,0,0,0,0,0,0,0,0.336795,-32.7251,0.187391,26.6058,1.64398,2.32995,0.0641939,
0.0516001,-0.0470092,0.117269,-1.9217,0.17195,0.162427,0.0144172,-0.00224626,-0.000309176,-0.00116878,0.00367643,0.15322,-0.00474481,-0.0012494,0.140622,-0.0754859,0.13942,0.0700401,0.828683,0.0768983,0.00154047,0.0828774,-0.243363,0.189201,0.534505,1.69321,-0.028098,-0.0126283,0.0517631,-0.0470371,0.117356,-1.92185,0.163749,0.162751,0.0145082,0.00486997,0.00110199,0.0015659,-0.00197916,-0.00524426,-6.38717e-06,-0.000815036,0,0,0,0,0,0,0,0.336795,-32.7251,0.187391,26.6058,1.64398,2.32995,0.0641939,
0.0516445,-0.0469983,0.117288,-1.92179,0.16822,0.162539,0.0144471,-0.00238108,-0.000186981,-0.00129921,0.00354661,0.151717,-0.00490011,-0.00125635,-0.0842625,0.0763716,-0.0815189,-0.0811403,-0.939386,-0.0970618,-0.00434485,0.0828774,-0.243363,0.189201,0.534505,1.69321,-0.028098,-0.0126283,0.0517631,-0.0470371,0.117356,-1.92185,0.163749,0.162751,0.0145082,0.00486997,0.00110199,0.0015659,-0.00197916,-0.00524426,-6.38717e-06,-0.000815036,0,0,0,0,0,0,0,0.336795,-32.7251,0.187391,26.6058,1.64398,2.32995,0.0641939,
0.0516255,-0.0469991,0.117278,-1.92176,0.169435,0.162498,0.014437,-0.00237905,-0.000169583,-0.00129739,0.00353447,0.151745,-0.00493761,-0.00125638,0.0012716,0.010874,0.00113931,-0.00758524,0.0172416,-0.0234328,-1.64236e-05,0.0828786,-0.243141,0.189166,0.534559,1.69326,-0.0280554,-0.0126285,0.0518373,-0.0470252,0.117376,-1.92185,0.163737,0.162759,0.0145127,0.00326902,0.000835762,0.000440235,-0.00351394,-0.00794775,0.000818731,0.00138591,-0.200118,-0.0332783,-0.140708,-0.191847,-0.337936,0.10314,0.275118,0.158268,-32.5743,0.0128308,26.4551,1.70532,2.25762,0.0239107,
0.0516109,-0.0470028,0.117271,-1.92173,0.170682,0.162461,0.0144271,-0.00226984,-0.000229207,-0.00119002,0.0035963,0.152571,-0.00488049,-0.0012539,0.0682542,-0.0372653,0.0671011,0.038643,0.516251,0.0356991,0.00154866,0.0828786,-0.243141,0.189166,0.534559,1.69326,-0.0280554,-0.0126285,0.0518373,-0.0470252,0.117376,-1.92185,0.163737,0.162759,0.0145127,0.00326902,0.000835762,0.000440235,-0.00351394,-0.00794775,0.000818731,0.00138591,0,0,0,0,0,0,0,0.158268,-32.5743,0.0128308,26.4551,1.70532,2.25762,0.0239107,
0.0516001,-0.0470092,0.117269,-1.9217,0.17195,0.162427,0.0144172,-0.00208513,-0.000341823,-0.00100732,0.00370198,0.153762,-0.00475492,-0.00125103,0.115445,-0.0703848,0.114192,0.0660486,0.744125,0.0784777,0.0017949,0.0828786,-0.243141,0.189166,0.534559,1.69326,-0.0280554,-0.0126285,0.0518373,-0.0470252,0.117376,-1.92185,0.163737,0.162759,0.0145127,0.00326902,0.000835762,0.000440235,-0.00351394,-0.00794775,0.000818731,0.00138591,0,0,0,0,0,0,0,0.158268,-32.5743,0.0128308,26.4551,1.70532,2.25762,0.0239107,
0.0516915,-0.0469784,0.11728,-1.92181,0.168139,0.162541,0.0144529,-0.00233276,-0.000179593,-0.00125152,0.00354662,0.151934,-0.00492376,-0.00125629,-0.154768,0.101393,-0.152625,-0.0970977,-1.14214,-0.105527,-0.0032884,0.0828786,-0.243141,0.189166,0.534559,1.69326,-0.0280554,-0.0126285,0.0518373,-0.0470252,0.117376,-1.92185,0.163737,0.162759,0.0145127,0.00326902,0.000835762,0.000440235,-0.00351394,-0.00794775,0.000818731,0.00138591,0,0,0,0,0,0,0,0.158268,-32.5743,0.0128308,26.4551,1.70532,2.25762,0.0239107,
0.05167,-0.046978,0.117267,-1.92178,0.169347,0.1625,0.0144429,-0.00240441,-0.00013552,-0.00132402,0.003518,0.151747,-0.00496655,-0.00125527,-0.0447802,0.0275458,-0.0453126,-0.0178895,-0.117001,-0.0267402,0.000637437,0.0828744,-0.24256,0.189051,0.534778,1.69329,-0.0278685,-0.0126295,0.0518899,-0.0469955,0.117408,-1.92187,0.163733,0.162764,0.0145093,-0.003116,0.000245901,0.00237662,-0.000908152,-0.00416871,0.000423265,0.000197033,-0.798129,-0.0737326,0.242048,0.325723,0.472381,-0.0494332,-0.148609,-0.119442,-32.7251,-0.260912,26.4789,1.73553,2.22375,0.0577852,
0.0516533,-0.0469808,0.117259,-1.92175,0.170588,0.162463,0.014433,-0.00234103,-0.00017841,-0.00126291,0.0035698,0.152437,-0.00490994,-0.00125219,0.0396089,-0.026806,0.0381946,0.0323758,0.43137,0.0353795,0.00192621,0.0828744,-0.24256,0.189051,0.534778,1.69329,-0.0278685,-0.0126295,0.0518899,-0.0469955,0.117408,-1.92187,0.163733,0.162764,0.0145093,-0.003116,0.000245901,0.00237662,-0.000908152,-0.00416871,0.000423265,0.000197033,0,0,0,0,0,0,0,-0.119442,-32.7251,-0.260912,26.4789,1.73553,2.22375,0.0577852,
0.0517079,-0.0469732,0.117275,-1.92179,0.168149,0.162598,0.0144503,-0.0026275,-0.000125385,-0.00154826,0.00350914,0.150806,-0.0048373,-0.00125489,-0.179041,0.0331406,-0.178348,-0.0379148,-1.01966,0.0454007,-0.00168597,0.0828744,-0.24256,0.189051,0.534778,1.69329,-0.0278685,-0.0126295,0.0518899,-0.0469955,0.117408,-1.92187,0.163733,0.162764,0.0145093,-0.003116,0.000245901,0.00237662,-0.000908152,-0.00416871,0.000423265,0.000197033,0,0,0,0,0,0,0,-0.119442,-32.7251,-0.260912,26.4789,1.73553,2.22375,0.0577852,
0.0516836,-0.0469753,0.117259,-1.92176,0.169354,0.162564,0.0144403,-0.00270886,-0.000152417,-0.0016317,0.00354191,0.150772,-0.0047229,-0.00125254,-0.0508489,-0.0168953,-0.0521498,0.0204848,-0.021154,0.0715037,0.00146372,0.0828744,-0.24256,0.189051,0.534778,1.69329,-0.0278685,-0.0126295,0.0518899,-0.0469955,0.117408,-1.92187,0.163733,0.162764,0.0145093,-0.003116,0.000245901,0.00237662,-0.000908152,-0.00416871,0.000423265,0.000197033,0,0,0,0,0,0,0,-0.119442,-32.7251,-0.260912,26.4789,1.73553,2.22375,0.0577852,
0.0516648,-0.04698,0.117249,-1.92173,0.170593,0.162532,0.0144305,-0.00263745,-0.000239392,-0.00156311,0.00363156,0.15159,-0.00457263,-0.00124888,0.0446319,-0.054359,0.0428726,0.0560317,0.511173,0.0939131,0.00229206,0.0828691,-0.241994,0.18894,0.534936,1.69331,-0.0277325,-0.0126302,0.0519289,-0.0469738,0.117412,-1.92188,0.16373,0.162768,0.0145105,-0.000288346,0.00512273,0.00206473,-0.00132402,-0.00563507,0.000500855,0.000137059,0.353457,0.609603,-0.0389862,-0.0519837,-0.183296,0.00969867,-0.00749668,0.158268,-32.5981,0.0128308,26.4313,1.75384,2.21734,0.0440523,
0.0516508,-0.0469871,0.117244,-1.9217,0.171854,0.162502,0.0144206,-0.0024607,-0.000367707,-0.00138877,0.00375316,0.152811,-0.00439772,-0.00124555,0.110467,-0.0801969,0.108962,0.0759963,0.763382,0.109324,0.00208236,0.0828691,-0.241994,0.18894,0.534936,1.69331,-0.0277325,-0.0126302,0.0519289,-0.0469738,0.117412,-1.92188,0.16373,0.162768,0.0145105,-0.000288346,0.00512273,0.00206473,-0.00132402,-0.00563507,0.000500855,0.000137059,0,0,0,0,0,0,0,0.158268,-32.5981,0.0128308,26.4313,1.75384,2.21734,0.0440523,
0.0517655,-0.0468749,0.117299,-1.92184,0.168142,0.162575,0.0144506,-0.00267943,-7.60556e-05,-0.00160388,0.00353267,0.151112,-0.00462272,-0.00125085,-0.13671,0.182282,-0.134443,-0.137806,-1.06215,-0.14063,-0.00331446,0.0828691,-0.241994,0.18894,0.534936,1.69331,-0.0277325,-0.0126302,0.0519289,-0.0469738,0.117412,-1.92188,0.16373,0.162768,0.0145105,-0.000288346,0.00512273,0.00206473,-0.00132402,-0.00563507,0.000500855,0.000137059,0,0,0,0,0,0,0,0.158268,-32.5981,0.0128308,26.4313,1.75384,2.21734,0.0440523,
0.0517425,-0.0468708,0.117285,-1.92182,0.169347,0.162533,0.0144406,-0.0027178,4.23434e-05,-0.00164292,0.00346252,0.151022,-0.00473076,-0.00125018,-0.0239769,0.0739993,-0.0244053,-0.0438421,-0.0561735,-0.0675212,0.000417479,0.0828691,-0.241994,0.18894,0.534936,1.69331,-0.0277325,-0.0126302,0.0519289,-0.0469738,0.117412,-1.92188,0.16373,0.162768,0.0145105,-0.000288346,0.00512273,0.00206473,-0.00132402,-0.00563507,0.000500855,0.000137059,0,0,0,0,0,0,0,0.158268,-32.5981,0.0128308,26.4313,1.75384,2.21734,0.0440523,
0.0517247,-0.0468706,0.117275,-1.92179,0.170586,0.162495,0.0144307,-0.00262011,3.75661e-05,-0.00154739,0.00348986,0.151793,-0.00473625,-0.00124759,0.0610536,-0.00298579,0.0597102,0.0170847,0.48184,-0.00343468,0.00161656,0.0828717,-0.241401,0.188827,0.535054,1.69329,-0.0276105,-0.012631,0.051935,-0.0469518,0.11741,-1.92188,0.163735,0.162769,0.0145112,0.0027449,0.000516636,0.00222295,0.000217062,-0.00707422,0.00134641,0.000474437,0.379156,-0.575762,0.0197771,0.192635,-0.179893,0.105695,0.0421722,0.134464,-32.8005,-0.0387439,26.4789,1.71722,2.21093,0.0376436,
0.0517114,-0.0468739,0.117271,-1.92175,0.171848,0.16246,0.0144208,-0.00242831,-5.08563e-05,-0.0013578,0.00357764,0.152975,-0.00466181,-0.00124496,0.119874,-0.055264,0.118493,0.0548677,0.738744,0.0465245,0.00164504,0.0828717,-0.241401,0.188827,0.535054,1.69329,-0.0276105,-0.012631,0.051935,-0.0469518,0.11741,-1.92188,0.163735,0.162769,0.0145112,0.0027449,0.000516636,0.00222295,0.000217062,-0.00707422,0.00134641,0.000474437,0,0,0,0,0,0,0,0.134464,-32.8005,-0.0387439,26.4789,1.71722,2.21093,0.0376436,
0.0518007,-0.0469356,0.117325,-1.9218,0.168178,0.16262,0.0144506,-0.00257292,-4.94837e-05,-0.00149827,0.00352957,0.151447,-0.00462406,-0.00125219,-0.0903797,0.000857887,-0.0877949,-0.0300438,-0.955069,0.023598,-0.00451864,0.0828717,-0.241401,0.188827,0.535054,1.69329,-0.0276105,-0.012631,0.051935,-0.0469518,0.11741,-1.92188,0.163735,0.162769,0.0145112,0.0027449,0.000516636,0.00222295,0.000217062,-0.00707422,0.00134641,0.000474437,0,0,0,0,0,0,0,0.134464,-32.8005,-0.0387439,26.4789,1.71722,2.21093,0.0376436,
0.0517803,-0.0469386,0.117314,-1.92177,0.169391,0.162586,0.0144405,-0.00256901,-0.000113731,-0.00149453,0.00357031,0.151472,-0.00454806,-0.00125257,0.00244422,-0.0401547,0.00233979,0.0254577,0.0157647,0.0474963,-0.000234187,0.0828717,-0.241401,0.188827,0.535054,1.69329,-0.0276105,-0.012631,0.051935,-0.0469518,0.11741,-1.92188,0.163735,0.162769,0.0145112,0.0027449,0.000516636,0.00222295,0.000217062,-0.00707422,0.00134641,0.000474437,0,0,0,0,0,0,0,0.134464,-32.8005,-0.0387439,26.4789,1.71722,2.21093,0.0376436,
0.0517645,-0.046944,0.117306,-1.92174,0.170636,0.162554,0.0144306,-0.00245064,-0.000226815,-0.00137778,0.00366445,0.15231,-0.00443372,-0.00125047,0.0739794,-0.0706775,0.0729695,0.0588426,0.52364,0.071466,0.00131193,0.0828809,-0.239532,0.188472,0.535534,1.69326,-0.0271566,-0.0126333,0.0519449,-0.046879,0.117416,-1.9219,0.163748,0.162762,0.0145098,0.00124565,0.000135364,0.00153817,-0.00244551,-0.00508575,-0.000440532,-0.000545583,-0.187406,-0.047659,-0.0855975,-0.332822,0.248558,-0.223368,-0.127503,0.0828892,-32.4751,-0.0387439,26.4789,1.63757,2.27044,0.050461,
0.0517945,-0.0468487,0.117315,-1.92184,0.168183,0.162551,0.0144497,-0.00263045,-0.000132041,-0.00155511,0.00355227,0.150827,-0.00459977,-0.0012554,-0.112383,0.0592341,-0.110835,-0.070117,-0.926548,-0.103781,-0.00308289,0.0828809,-0.239532,0.188472,0.535534,1.69326,-0.0271566,-0.0126333,0.0519449,-0.046879,0.117416,-1.9219,0.163748,0.162762,0.0145098,0.00124565,0.000135364,0.00153817,-0.00244551,-0.00508575,-0.000440532,-0.000545583,0,0,0,0,0,0,0,0.0828892,-32.4751,-0.0387439,26.4789,1.63757,2.27044,0.050461,
0.0517728,-0.0468497,0.117302,-1.92181,0.169392,0.162512,0.0144397,-0.00264535,-0.000130618,-0.00157138,0.00355125,0.150898,-0.00464347,-0.00125434,-0.00931067,0.000889479,-0.010166,-0.000637101,0.0440247,-0.0273142,0.000659708,0.0828809,-0.239532,0.188472,0.535534,1.69326,-0.0271566,-0.0126333,0.0519449,-0.046879,0.117416,-1.9219,0.163748,0.162762,0.0145098,0.00124565,0.000135364,0.00153817,-0.00244551,-0.00508575,-0.000440532,-0.000545583,0,0,0,0,0,0,0,0.0828892,-32.4751,-0.0387439,26.4789,1.63757,2.27044,0.050461,
0.0517561,-0.0468535,0.117294,-1.92178,0.170635,0.162477,0.0144298,-0.00253514,-0.000198961,-0.00146368,0.00361965,0.151782,-0.00459289,-0.00125136,0.0688809,-0.0427145,0.0673074,0.042749,0.552959,0.0316139,0.00186215,0.0828809,-0.239532,0.188472,0.535534,1.69326,-0.0271566,-0.0126333,0.0519449,-0.046879,0.117416,-1.9219,0.163748,0.162762,0.0145098,0.00124565,0.000135364,0.00153817,-0.00244551,-0.00508575,-0.000440532,-0.000545583,0,0,0,0,0,0,0,0.0828892,-32.4751,-0.0387439,26.4789,1.63757,2.27044,0.050461,
0.0517437,-0.0468597,0.11729,-1.92174,0.171899,0.162445,0.0144199,-0.00233842,-0.000315773,-0.00126933,0.00372878,0.153041,-0.00447604,-0.00124835,0.122952,-0.0730074,0.121472,0.0682106,0.786858,0.0730299,0.00188669,0.0828429,-0.238198,0.188179,0.535867,1.69323,-0.0268541,-0.0126348,0.0519741,-0.0468271,0.117425,-1.92191,0.163757,0.162764,0.014506,0.00368316,0.00387925,0.00157648,0.00204522,-0.00426997,0.00217324,-0.000790934,0.304689,0.467986,0.0047893,0.561341,0.101973,0.326721,-0.0306688,0.0313145,-32.7489,-0.0863513,26.3797,1.56433,2.2503,0.0843355,
0.051843,-0.046772,0.117343,-1.92183,0.168241,0.162648,0.0144448,-0.00248963,-0.000172097,-0.00141722,0.00361771,0.151564,-0.00443554,-0.00125506,-0.0945066,0.0897971,-0.0924307,-0.0694224,-0.923194,0.0253133,-0.0041967,0.0828429,-0.238198,0.188179,0.535867,1.69323,-0.0268541,-0.0126348,0.0519741,-0.0468271,0.117425,-1.92191,0.163757,0.162764,0.014506,0.00368316,0.00387925,0.00157648,0.00204522,-0.00426997,0.00217324,-0.000790934,0,0,0,0,0,0,0,0.0313145,-32.7489,-0.0863513,26.3797,1.56433,2.2503,0.0843355,
0.0518229,-0.0467723,0.117332,-1.92181,0.169455,0.162615,0.0144348,-0.00249318,-0.000143928,-0.0014217,0.00361465,0.151605,-0.00438064,-0.00125504,-0.00221975,0.017606,-0.00279972,-0.00190828,0.025209,0.0343095,1.61892e-05,0.0828429,-0.238198,0.188179,0.535867,1.69323,-0.0268541,-0.0126348,0.0519741,-0.0468271,0.117425,-1.92191,0.163757,0.162764,0.014506,0.00368316,0.00387925,0.00157648,0.00204522,-0.00426997,0.00217324,-0.000790934,0,0,0,0,0,0,0,0.0313145,-32.7489,-0.0863513,26.3797,1.56433,2.2503,0.0843355,
0.0518074,-0.0467756,0.117325,-1.92177,0.170701,0.162583,0.0144248,-0.00238265,-0.000198322,-0.00131349,0.00367924,0.152438,-0.00429555,-0.00125261,0.0690793,-0.0339966,0.0676269,0.040366,0.521159,0.0531815,0.00151467,0.0828429,-0.238198,0.188179,0.535867,1.69323,-0.0268541,-0.0126348,0.0519741,-0.0468271,0.117425,-1.92191,0.163757,0.162764,0.014506,0.00368316,0.00387925,0.00157648,0.00204522,-0.00426997,0.00217324,-0.000790934,0,0,0,0,0,0,0,0.0313145,-32.7489,-0.0863513,26.3797,1.56433,2.2503,0.0843355,
0.0517959,-0.0467816,0.117322,-1.92174,0.171969,0.162553,0.0144149,-0.00219239,-0.000308349,-0.00112555,0.00378359,0.153636,-0.00418061,-0.00124985,0.118918,-0.0687669,0.117466,0.0652164,0.748412,0.0718404,0.00172575,0.0828245,-0.236795,0.18789,0.536346,1.69323,-0.0264048,-0.0126372,0.0520006,-0.0467708,0.117439,-1.92193,0.163761,0.162756,0.0145075,0.00757078,0.00359504,0.00432575,-0.000161911,-0.00461887,0.00258353,-0.000531683,0.485952,-0.0355266,0.343658,-0.275891,-0.0436122,0.051286,0.0324063,0.233646,-32.8005,0.0644055,26.5543,1.55883,2.28417,0.0706026,
