xiao-wang007/linearmpc_panda/paper_data/panda_torque_PD_controller_error_match_to_start/0/trajectory.csv
Commanded Joint 0 Position,Commanded Joint 1 Position,Commanded Joint 2 Position,Commanded Joint 3 Position,Commanded Joint 4 Position,Commanded Joint 5 Position,Commanded Joint 6 Position,Commanded Joint 0 Velocity,Commanded Joint 1 Velocity,Commanded Joint 2 Velocity,Commanded Joint 3 Velocity,Commanded Joint 4 Velocity,Commanded Joint 5 Velocity,Commanded Joint 6 Velocity,Commanded Joint 0 Acceleration,Commanded Joint 1 Acceleration,Commanded Joint 2 Acceleration,Commanded Joint 3 Acceleration,Commanded Joint 4 Acceleration,Commanded Joint 5 Acceleration,Commanded Joint 6 Acceleration,Commanded Joint 0 Torque,Commanded Joint 1 Torque,Commanded Joint 2 Torque,Commanded Joint 3 Torque,Commanded Joint 4 Torque,Commanded Joint 5 Torque,Commanded Joint 6 Torque,Actual Joint 0 Position,Actual Joint 1 Position,Actual Joint 2 Position,Actual Joint 3 Position,Actual Joint 4 Position,Actual Joint 5 Position,Actual Joint 6 Position,Actual Joint 0 Velocity,Actual Joint 1 Velocity,Actual Joint 2 Velocity,Actual Joint 3 Velocity,Actual Joint 4 Velocity,Actual Joint 5 Velocity,Actual Joint 6 Velocity,Actual Joint 0 Acceleration,Actual Joint 1 Acceleration,Actual Joint 2 Acceleration,Actual Joint 3 Acceleration,Actual Joint 4 Acceleration,Actual Joint 5 Acceleration,Actual Joint 6 Acceleration,Actual Joint 0 Torque,Actual Joint 1 Torque,Actual Joint 2 Torque,Actual Joint 3 Torque,Actual Joint 4 Torque,Actual Joint 5 Torque,Actual Joint 6 Torque,
0.0582417,0.0223325,-0.056542,-1.82455,0.00244301,0.340785,0.0217896,0.000152344,0.0233388,0.000143069,-0.032547,-0.00392759,0.0548835,-0.000366427,0.0952149,14.5868,0.0894184,-20.3419,-2.45474,34.3022,-0.229017,0.0592546,25.4507,0.073392,-24.548,-0.607382,1.77911,-0.0238485,0.058258,0.0216004,-0.0565167,-1.82167,0.00260003,0.3349,0.021826,0.0023361,0.00131531,0.000268063,-0.000168847,-0.00276661,-0.000149208,0.00092955,0,0,0,0,0,0,0,-0.0718349,-37.1169,-0.185533,27.5262,0.764157,3.29857,0.0706026,
0.0582752,0.0216216,-0.0564998,-1.82168,0.00259246,0.334902,0.0218254,0.000225368,0.0188213,0.00021743,-0.0260819,-0.00309481,0.0439369,-0.00029792,0.0456402,-2.82344,0.0464754,4.04073,0.520485,-6.84158,0.0428172,0.0534511,25.8911,0.0630075,-24.4643,-0.607585,1.52851,-0.022331,0.058258,0.0216004,-0.0565167,-1.82167,0.00260003,0.3349,0.021826,0.0023361,0.00131531,0.000268063,-0.000168847,-0.00276661,-0.000149208,0.00092955,0,0,0,0,0,0,0,-0.0718349,-37.1169,-0.185533,27.5262,0.764157,3.29857,0.0706026,
0.0582784,0.0216269,-0.0564966,-1.82168,0.00259564,0.334904,0.0218252,0.000259735,0.0151892,0.000253523,-0.0208992,-0.00239643,0.0351902,-0.000241642,0.0214794,-2.27007,0.022558,3.23917,0.436486,-5.4667,0.0351738,0.0461943,26.4626,0.0512325,-24.3563,-0.606942,1.18125,-0.020361,0.058258,0.0216004,-0.0565167,-1.82167,0.00260003,0.3349,0.021826,0.0023361,0.00131531,0.000268063,-0.000168847,-0.00276661,-0.000149208,0.00092955,0,0,0,0,0,0,0,-0.0718349,-37.1169,-0.185533,27.5262,0.764157,3.29857,0.0706026,
0.0582809,0.0216316,-0.0564941,-1.82168,0.00259917,0.334906,0.0218252,0.000269698,0.0122693,0.000265282,-0.0167442,-0.00182893,0.0282051,-0.000195759,0.00622663,-1.82497,0.00734929,2.59686,0.354687,-4.36569,0.0286764,0.0401446,26.9931,0.0418895,-24.1872,-0.604641,0.797665,-0.0183666,0.0582545,0.0218449,-0.0565235,-1.82171,0.00259618,0.3349,0.0218244,0.00528299,0.00840391,0.000938368,0.000490819,-0.00347154,0.000782866,-0.000454779,0.368361,0.886075,0.0837881,0.0824582,-0.0881164,0.116509,-0.173041,0.00751081,-36.1449,-0.16173,27.2763,0.770565,3.33794,0.0980684,
0.0582828,0.0216359,-0.0564921,-1.82168,0.00260261,0.334909,0.0218251,0.000264534,0.00992205,0.00026183,-0.013413,-0.0013771,0.0226297,-0.00015854,-0.00322702,-1.46702,-0.00215757,2.08202,0.282393,-3.48464,0.0232623,0.0378418,27.3159,0.0376297,-23.9227,-0.599753,0.425159,-0.0166431,0.0582545,0.0218449,-0.0565235,-1.82171,0.00259618,0.3349,0.0218244,0.00528299,0.00840391,0.000938368,0.000490819,-0.00347154,0.000782866,-0.000454779,0,0,0,0,0,0,0,0.00751081,-36.1449,-0.16173,27.2763,0.770565,3.33794,0.0980684,
0.0582815,0.0223392,-0.0564978,-1.82226,0.00243917,0.335208,0.0218281,0.0008872,0.0202949,0.000853158,-0.0242832,-0.00502715,0.0258012,-3.33951e-05,0.389166,6.48305,0.36958,-6.79391,-2.28128,1.9822,0.0782154,-6.61545e-05,31.616,0.0157666,-23.4496,-0.990433,-2.40636,0.00159185,0.0582545,0.0218449,-0.0565235,-1.82171,0.00259618,0.3349,0.0218244,0.00528299,0.00840391,0.000938368,0.000490819,-0.00347154,0.000782866,-0.000454779,0,0,0,0,0,0,0,0.00751081,-36.1449,-0.16173,27.2763,0.770565,3.33794,0.0980684,
0.0582534,0.0227938,-0.0565303,-1.82249,0.00333343,0.334571,0.0218078,6.80472e-06,0.0275996,-0.000129056,-0.0251643,0.018335,0.0047157,-0.000533573,-0.550247,4.56539,-0.613883,-0.550647,14.6013,-13.1785,-0.312611,0.513343,0.192597,0.516123,-0.277054,3.19272,-2.00583,-0.00208769,0.0582545,0.0218449,-0.0565235,-1.82171,0.00259618,0.3349,0.0218244,0.00528299,0.00840391,0.000938368,0.000490819,-0.00347154,0.000782866,-0.000454779,0,0,0,0,0,0,0,0.00751081,-36.1449,-0.16173,27.2763,0.770565,3.33794,0.0980684,
0.0582044,0.0231516,-0.0565806,-1.82264,0.00483644,0.333497,0.0217951,-0.00121838,0.0310241,-0.00136095,-0.0238759,0.0522431,-0.0230609,-0.000745205,-0.765743,2.14037,-0.769936,0.805256,21.1926,-17.3604,-0.13227,0.507691,0.240055,0.511338,-0.25784,3.1668,-1.97833,-0.00208085,0.058225,0.0229182,-0.0565537,-1.82278,0.00263243,0.336747,0.0218163,0.00086045,0.0954302,-0.00217772,-0.118402,0.00164316,0.191635,-0.000989275,-0.552818,10.8783,-0.389511,-14.8616,0.639338,23.8565,-0.0668119,0.435978,-18.9229,0.286573,9.78851,0.166317,1.50139,0.11821,
0.0582346,0.0240804,-0.0565438,-1.82374,0.00239111,0.337519,0.0218218,-0.000735309,0.0538744,-0.000842393,-0.0430611,0.0357615,0.000864339,-0.000459029,0.301922,14.2814,0.324101,-11.9908,-10.301,14.9533,0.17886,0.000422293,31.6653,0.0170633,-23.4335,-0.988674,-2.3963,0.00153407,0.058225,0.0229182,-0.0565537,-1.82278,0.00263243,0.336747,0.0218163,0.00086045,0.0954302,-0.00217772,-0.118402,0.00164316,0.191635,-0.000989275,0,0,0,0,0,0,0,0.435978,-18.9229,0.286573,9.78851,0.166317,1.50139,0.11821,
0.0581253,0.0250907,-0.0566661,-1.82395,0.00558253,0.334465,0.0217546,-0.00332165,0.0683569,-0.00373129,-0.0395477,0.108395,-0.0756679,-0.00204826,-1.61646,9.05154,-1.80556,2.19586,45.3956,-47.8326,-0.993269,4.17608,1.07924,4.16727,-1.85877,11.0113,-11.0756,-0.00953466,0.058225,0.0229182,-0.0565537,-1.82278,0.00263243,0.336747,0.0218163,0.00086045,0.0954302,-0.00217772,-0.118402,0.00164316,0.191635,-0.000989275,0,0,0,0,0,0,0,0.435978,-18.9229,0.286573,9.78851,0.166317,1.50139,0.11821,
0.0579907,0.0258306,-0.0568051,-1.82403,0.0108006,0.329402,0.0217126,-0.00602152,0.0731842,-0.00645988,-0.0337292,0.217167,-0.187112,-0.00268673,-1.68742,3.01707,-1.70537,3.63659,67.9827,-69.6525,-0.399043,4.11954,1.1619,4.10726,-1.78624,11.0113,-10.8861,-0.00875096,0.058225,0.0229182,-0.0565537,-1.82278,0.00263243,0.336747,0.0218163,0.00086045,0.0954302,-0.00217772,-0.118402,0.00164316,0.191635,-0.000989275,0,0,0,0,0,0,0,0.435978,-18.9229,0.286573,9.78851,0.166317,1.50139,0.11821,
0.0578815,0.0263615,-0.0569146,-1.82412,0.0172141,0.323158,0.0216888,-0.00754803,0.0718188,-0.00790553,-0.0291379,0.334071,-0.305789,-0.00274673,-0.954069,-0.853395,-0.90353,2.86951,73.0651,-74.1732,-0.0374994,4.05437,1.42378,4.04377,-1.68725,11.0204,-10.6447,-0.00844169,0.0582665,0.0279321,-0.0565149,-1.82954,0.00227266,0.342092,0.0218138,0.00794155,0.180152,0.00285922,-0.211412,-0.0111944,-0.00780361,-0.000469654,0.885137,10.5902,0.629617,-11.6263,-1.6047,-24.9298,0.0649526,-0.198788,-15.1302,-0.288683,14.8984,0.654293,1.25603,0.0779268,
0.0583137,0.0297077,-0.0564674,-1.83101,0.00194135,0.341457,0.0218195,-0.00485971,0.101844,-0.00513804,-0.0599455,0.258974,-0.260529,-0.00205586,1.6802,18.7659,1.72968,-19.2547,-46.9356,28.2876,0.431793,0.0014955,31.8792,0.0219244,-23.3935,-0.979634,-2.34729,0.00136673,0.0582665,0.0279321,-0.0565149,-1.82954,0.00227266,0.342092,0.0218138,0.00794155,0.180152,0.00285922,-0.211412,-0.0111944,-0.00780361,-0.000469654,0,0,0,0,0,0,0,-0.198788,-15.1302,-0.288683,14.8984,0.654293,1.25603,0.0779268,
0.0586889,0.031019,-0.0560829,-1.83198,0.00418918,0.336715,0.0218299,0.00549341,0.114259,0.00550197,-0.0722237,0.263375,-0.326964,-0.00138393,6.4707,7.75945,6.65001,-7.67385,2.75067,-41.5219,0.419953,28.5681,-0.236214,28.4061,-11.9447,11.0204,-14.3473,0.0358164,0.0582665,0.0279321,-0.0565149,-1.82954,0.00227266,0.342092,0.0218138,0.00794155,0.180152,0.00285922,-0.211412,-0.0111944,-0.00780361,-0.000469654,0,0,0,0,0,0,0,-0.198788,-15.1302,-0.288683,14.8984,0.654293,1.25603,0.0779268,
0.0593554,0.031976,-0.0554147,-1.83277,0.00820582,0.329533,0.0218578,0.0210566,0.115332,0.021108,-0.0776123,0.311116,-0.441122,-0.00041108,9.72697,0.670452,9.75376,-3.36792,29.8381,-71.3485,0.608032,27.5237,1.09736,27.2891,-10.1816,11.0204,-14.3473,0.0441262,0.0582665,0.0279321,-0.0565149,-1.82954,0.00227266,0.342092,0.0218138,0.00794155,0.180152,0.00285922,-0.211412,-0.0111944,-0.00780361,-0.000469654,0,0,0,0,0,0,0,-0.198788,-15.1302,-0.288683,14.8984,0.654293,1.25603,0.0779268,
0.0602601,0.0326837,-0.0545134,-1.83348,0.0134569,0.320832,0.0218983,0.039462,0.109957,0.0394172,-0.0798861,0.380169,-0.570412,0.000685621,11.5034,-3.3596,11.4433,-1.42109,43.1582,-80.8063,0.685438,26.374,1.55386,26.1202,-8.78343,11.0017,-14.255,0.0520519,0.0582218,0.0381878,-0.056265,-1.83102,0.00645689,0.334567,0.0217976,0.00417552,0.379377,0.0293572,0.0268518,0.222914,-0.551039,-0.00166054,-0.470753,24.9032,3.31225,29.783,29.2636,-67.9044,-0.14886,3.68122,-30.5034,3.21443,17.0129,2.60894,-3.15315,0.171311,
0.0583706,0.0406201,-0.0561064,-1.83233,0.00739192,0.33223,0.0218055,0.0352895,0.148772,0.035499,-0.0966915,0.327511,-0.514767,0.000744979,-2.60778,24.2598,-2.44891,-10.5034,-32.9113,34.778,0.0370991,-0.0334988,32.2078,-0.00617177,-23.3373,-0.998341,-2.25501,0.00138062,0.0582218,0.0381878,-0.056265,-1.83102,0.00645689,0.334567,0.0217976,0.00417552,0.379377,0.0293572,0.0268518,0.222914,-0.551039,-0.00166054,0,0,0,0,0,0,0,3.68122,-30.5034,3.21443,17.0129,2.60894,-3.15315,0.171311,
0.059117,0.0419567,-0.0553256,-1.83406,0.00991967,0.32694,0.0220444,0.0468924,0.152433,0.0479185,-0.120667,0.325203,-0.544057,0.00657025,7.25182,2.28798,7.76223,-14.9849,-1.44286,-18.3062,3.64079,42.9593,-8.27966,42.6719,-21.1499,11.0017,-14.255,0.293807,0.0582218,0.0381878,-0.056265,-1.83102,0.00645689,0.334567,0.0217976,0.00417552,0.379377,0.0293572,0.0268518,0.222914,-0.551039,-0.00166054,0,0,0,0,0,0,0,3.68122,-30.5034,3.21443,17.0129,2.60894,-3.15315,0.171311,
0.0602821,0.0427293,-0.0541507,-1.83579,0.0138678,0.319475,0.0222079,0.0666414,0.141261,0.0677079,-0.1398,0.358865,-0.621862,0.0093428,12.3431,-6.98243,12.3683,-11.9578,21.0389,-48.6282,1.73284,38.1865,-6.17458,37.8328,-20.033,11.0017,-14.255,0.192725,0.0582218,0.0381878,-0.056265,-1.83102,0.00645689,0.334567,0.0217976,0.00417552,0.379377,0.0293572,0.0268518,0.222914,-0.551039,-0.00166054,0,0,0,0,0,0,0,3.68122,-30.5034,3.21443,17.0129,2.60894,-3.15315,0.171311,
0.0617199,0.0432164,-0.05272,-1.8374,0.0190103,0.310559,0.0222739,0.089257,0.125187,0.0899348,-0.152182,0.415655,-0.720405,0.00912447,14.1348,-10.0466,13.8918,-7.73882,35.4938,-61.5894,-0.136456,34.1809,-3.31501,33.7954,-18.5861,10.9103,-14.0803,0.0745167,0.0581404,0.0459014,-0.0561807,-1.83477,0.0321025,0.309038,0.0216665,0.0458426,0.214939,0.0851596,-0.229544,0.46167,-0.817643,0.00498413,5.20838,-20.5547,6.97531,-32.0494,29.8445,-33.3255,0.830584,10.9612,-44.1032,10.7602,20.8493,2.0047,-3.51753,0.104477,
0.061108,0.0464757,-0.0532295,-1.84013,0.0409703,0.292279,0.0222862,0.113937,0.101627,0.11378,-0.188297,0.453754,-0.802379,0.0121164,15.4252,-14.7249,14.9033,-22.572,23.8121,-51.2338,1.86995,51.8664,-18.1912,50.9562,-31.6164,10.9103,-14.0803,0.498744,0.0581404,0.0459014,-0.0561807,-1.83477,0.0321025,0.309038,0.0216665,0.0458426,0.214939,0.0851596,-0.229544,0.46167,-0.817643,0.00498413,0,0,0,0,0,0,0,10.9612,-44.1032,10.7602,20.8493,2.0047,-3.51753,0.104477,
0.063036,0.0463925,-0.0513407,-1.84255,0.0467367,0.28229,0.0222948,0.139348,0.0792209,0.138242,-0.211224,0.507162,-0.891628,0.009908,15.8817,-14.0037,15.2888,-14.3292,33.3802,-55.7805,-1.38024,43.3087,-13.6496,42.4238,-29.6194,10.9103,-14.0803,0.205979,0.0581404,0.0459014,-0.0561807,-1.83477,0.0321025,0.309038,0.0216665,0.0458426,0.214939,0.0851596,-0.229544,0.46167,-0.817643,0.00498413,0,0,0,0,0,0,0,10.9612,-44.1032,10.7602,20.8493,2.0047,-3.51753,0.104477,
0.0650817,0.0462811,-0.0493377,-1.84475,0.0533026,0.271732,0.0222108,0.162623,0.060592,0.160671,-0.223876,0.569879,-0.977266,0.00582618,14.5468,-11.6431,14.0178,-7.90771,39.1979,-53.5238,-2.55114,37.2957,-9.04814,36.549,-27.0999,10.9103,-14.0803,-0.00594457,0.0581404,0.0459014,-0.0561807,-1.83477,0.0321025,0.309038,0.0216665,0.0458426,0.214939,0.0851596,-0.229544,0.46167,-0.817643,0.00498413,0,0,0,0,0,0,0,10.9612,-44.1032,10.7602,20.8493,2.0047,-3.51753,0.104477,
0.0671839,0.0461604,-0.0472798,-1.84679,0.0605017,0.260878,0.0221081,0.182652,0.0454561,0.179983,-0.230153,0.635879,-1.05316,0.00209221,12.5182,-9.45995,12.07,-3.92326,41.25,-47.4352,-2.33374,33.6501,-5.61416,32.9974,-24.8745,10.9347,-13.7649,-0.110975,0.0646266,0.0530872,-0.0525883,-1.84171,0.0555342,0.267911,0.021683,0.301644,-0.0106203,0.0645746,-0.455422,0.529499,-1.19733,0.000405689,31.9752,-28.1949,-2.57312,-28.2348,8.47854,-47.4611,-0.572305,24.8586,-37.8667,23.5587,17.6358,3.08502,-2.4903,0.11821,
0.0703083,0.0532034,-0.0470425,-1.84911,0.0735228,0.234559,0.0215119,0.195989,0.0372265,0.192815,-0.239024,0.678315,-1.12593,-0.00084218,8.33563,-5.14349,8.02026,-5.54391,26.5226,-45.4812,-1.83399,37.4881,-8.63908,36.736,-27.0149,10.9347,-13.7649,-0.00620209,0.0646266,0.0530872,-0.0525883,-1.84171,0.0555342,0.267911,0.021683,0.301644,-0.0106203,0.0645746,-0.455422,0.529499,-1.19733,0.000405689,0,0,0,0,0,0,0,24.8586,-37.8667,23.5587,17.6358,3.08502,-2.4903,0.11821,
0.0723356,0.0531981,-0.0450586,-1.85119,0.0808723,0.22324,0.0214174,0.207473,0.0296477,0.203849,-0.24318,0.726389,-1.18373,-0.00303739,7.17757,-4.73674,6.89594,-2.59773,30.046,-36.122,-1.37201,33.6501,-5.61416,32.9974,-24.8745,10.9347,-13.7649,-0.110975,0.0646266,0.0530872,-0.0525883,-1.84171,0.0555342,0.267911,0.021683,0.301644,-0.0106203,0.0645746,-0.455422,0.529499,-1.19733,0.000405689,0,0,0,0,0,0,0,24.8586,-37.8667,23.5587,17.6358,3.08502,-2.4903,0.11821,
0.0743544,0.0531497,-0.0430844,-1.85319,0.0886599,0.212,0.0213151,0.216448,0.0225077,0.212434,-0.244604,0.775802,-1.22799,-0.00498632,5.60933,-4.46249,5.36581,-0.890136,30.8831,-27.6666,-1.21808,30.9859,-4.27726,30.3911,-23.5064,10.9347,-13.7649,-0.127835,0.0646266,0.0530872,-0.0525883,-1.84171,0.0555342,0.267911,0.021683,0.301644,-0.0106203,0.0645746,-0.455422,0.529499,-1.19733,0.000405689,0,0,0,0,0,0,0,24.8586,-37.8667,23.5587,17.6358,3.08502,-2.4903,0.11821,
0.0763369,0.053076,-0.0411468,-1.85515,0.096781,0.201061,0.0211893,0.22272,0.0161649,0.218386,-0.244576,0.823668,-1.25587,-0.00713501,3.91982,-3.96425,3.72035,0.0178713,29.9164,-17.423,-1.34293,28.6189,-4.05434,28.0676,-22.8451,10.9347,-13.7649,-0.115699,0.0646266,0.0530872,-0.0525883,-1.84171,0.0555342,0.267911,0.021683,0.301644,-0.0106203,0.0645746,-0.455422,0.529499,-1.19733,0.000405689,0,0,0,0,0,0,0,24.8586,-37.8667,23.5587,17.6358,3.08502,-2.4903,0.11821,
0.0888883,0.0526529,-0.0219163,-1.87324,0.126922,0.156385,0.0211267,0.238844,0.0186167,0.233861,-0.246258,0.897959,-1.27173,-0.00907925,10.0775,1.53234,9.67151,-1.05156,46.4318,-9.91354,-1.21515,26.983,-3.08046,26.4469,-22.0431,11.3066,-12.9588,-0.124191,0.0740662,0.051403,-0.0363474,-1.86122,0.0810007,0.217931,0.0218627,0.47783,-0.0645068,0.549007,-0.581245,0.843898,-1.68297,-0.00049516,22.0233,-6.73581,60.5541,-15.7278,39.2999,-60.7044,-0.112606,23.7676,-35.3713,22.2336,26.7526,4.90509,-1.01173,0.0980684,
0.0911432,0.052837,-0.0197173,-1.87518,0.136394,0.146545,0.0210098,0.247449,0.0194951,0.242063,-0.245521,0.955164,-1.26339,-0.0101882,5.37845,0.549045,5.12619,0.46097,35.7535,5.21619,-0.693071,24.8796,-2.55023,24.3799,-21.4727,11.3066,-12.1398,-0.153358,0.0740662,0.051403,-0.0363474,-1.86122,0.0810007,0.217931,0.0218627,0.47783,-0.0645068,0.549007,-0.581245,0.843898,-1.68297,-0.00049516,0,0,0,0,0,0,0,23.7676,-35.3713,22.2336,26.7526,4.90509,-1.01173,0.0980684,
0.0932585,0.0529753,-0.0176545,-1.8771,0.145749,0.137855,0.0209109,0.250841,0.019053,0.245221,-0.244257,0.998025,-1.22796,-0.0106218,2.11951,-0.276339,1.97377,0.789625,26.7876,22.1408,-0.271049,23.3452,-1.81448,22.8718,-20.7406,11.3066,-11.4444,-0.16892,0.0740662,0.051403,-0.0363474,-1.86122,0.0810007,0.217931,0.0218627,0.47783,-0.0645068,0.549007,-0.581245,0.843898,-1.68297,-0.00049516,0,0,0,0,0,0,0,23.7676,-35.3713,22.2336,26.7526,4.90509,-1.01173,0.0980684,
0.0952571,0.0530741,-0.0157056,-1.87899,0.154977,0.130418,0.0208288,0.250637,0.0177124,0.244898,-0.242656,1.02911,-1.16828,-0.0105507,-0.126949,-0.837898,-0.201645,1.00076,19.4303,37.2986,0.0444719,22.2673,-1.24298,21.8117,-20.0431,11.3066,-10.8604,-0.164318,0.0740662,0.051403,-0.0363474,-1.86122,0.0810007,0.217931,0.0218627,0.47783,-0.0645068,0.549007,-0.581245,0.843898,-1.68297,-0.00049516,0,0,0,0,0,0,0,23.7676,-35.3713,22.2336,26.7526,4.90509,-1.01173,0.0980684,
0.10359,0.053923,-0.00598687,-1.89062,0.167269,0.100327,0.0210919,0.258392,0.024614,0.252292,-0.248551,1.0663,-1.11815,-0.0103597,4.84673,4.31351,4.62098,-3.68446,23.24,31.3319,0.119391,21.2468,-0.852016,20.7731,-19.3754,11.1327,-9.93085,-0.149949,0.0893206,0.0507332,-0.0199016,-1.87816,0.117305,0.154024,0.0216634,0.366116,0.0840858,0.648968,-0.466816,1.17371,-1.94949,-0.0171029,-13.9643,18.5741,12.4951,14.3035,41.2269,-33.3155,-2.07597,13.5479,-37.9659,12.5614,27.3517,3.62243,-0.660166,0.0376436,
0.105732,0.0542403,-0.00390127,-1.89269,0.176772,0.0944744,0.0210292,0.260259,0.0276245,0.253973,-0.250555,1.09061,-1.04084,-0.0098549,1.1665,1.88158,1.05106,-1.25234,15.1963,48.3207,0.315479,20.541,-0.678649,20.0769,-18.8308,11.1327,-8.84855,-0.131064,0.0893206,0.0507332,-0.0199016,-1.87816,0.117305,0.154024,0.0216634,0.366116,0.0840858,0.648968,-0.466816,1.17371,-1.94949,-0.0171029,0,0,0,0,0,0,0,13.5479,-37.9659,12.5614,27.3517,3.62243,-0.660166,0.0376436,
0.107729,0.054469,-0.00195775,-1.89465,0.186071,0.0899605,0.0209777,0.258118,0.0278165,0.251767,-0.249602,1.10499,-0.945519,-0.00917377,-1.33801,0.120013,-1.37912,0.595802,8.98368,59.5749,0.425706,19.9065,-0.645121,19.4488,-18.3427,11.1327,-6.79899,-0.111491,0.0893206,0.0507332,-0.0199016,-1.87816,0.117305,0.154024,0.0216634,0.366116,0.0840858,0.648968,-0.466816,1.17371,-1.94949,-0.0171029,0,0,0,0,0,0,0,13.5479,-37.9659,12.5614,27.3517,3.62243,-0.660166,0.0376436,
0.109602,0.0546207,-0.000134936,-1.89652,0.19519,0.0866394,0.0209376,0.253321,0.0260473,0.246984,-0.246432,1.11194,-0.839442,-0.00833994,-2.99827,-1.10573,-2.98946,1.98086,4.34779,66.2984,0.521143,19.2993,-0.779385,18.8503,-17.977,11.1327,-5.0108,-0.0923829,0.0893206,0.0507332,-0.0199016,-1.87816,0.117305,0.154024,0.0216634,0.366116,0.0840858,0.648968,-0.466816,1.17371,-1.94949,-0.0171029,0,0,0,0,0,0,0,13.5479,-37.9659,12.5614,27.3517,3.62243,-0.660166,0.0376436,
0.125674,0.0547281,0.0149766,-1.90949,0.227604,0.0495264,0.0208299,0.256282,0.0267636,0.249708,-0.244526,1.13285,-0.718782,-0.00719615,1.85117,0.447661,1.70264,1.1914,13.0675,75.4124,0.714871,18.3009,-1.45805,17.8285,-16.8969,11.035,-1.54462,-0.0651612,0.108313,0.0518154,-0.00194566,-1.89493,0.163459,0.0866116,0.0211467,0.360303,0.0554098,0.768511,-0.493061,1.45521,-1.88182,-0.019534,-0.726684,-3.5845,14.9429,-3.28061,35.1876,8.45835,-0.303889,1.27307,-35.8196,1.28633,25.1578,2.63366,1.91887,-0.0566557,
0.127636,0.0548781,0.0168826,-1.91124,0.237035,0.0486741,0.0208194,0.254076,0.0251596,0.247417,-0.239578,1.14205,-0.596332,-0.00601873,-1.37904,-1.0025,-1.43175,3.09239,5.75059,76.5311,0.735887,17.7927,-1.58965,17.3318,-16.6568,11.035,-0.399983,-0.0526844,0.108313,0.0518154,-0.00194566,-1.89493,0.163459,0.0866116,0.0211467,0.360303,0.0554098,0.768511,-0.493061,1.45521,-1.88182,-0.019534,0,0,0,0,0,0,0,1.27307,-35.8196,1.28633,25.1578,2.63366,1.91887,-0.0566557,
0.129445,0.0549546,0.0186392,-1.91289,0.246212,0.0486736,0.0208181,0.248489,0.0220414,0.241849,-0.232686,1.14307,-0.477079,-0.00484739,-3.49214,-1.94889,-3.47994,4.30756,0.636923,74.5334,0.732087,17.3205,-1.65974,16.8711,-16.4209,11.035,0.58292,-0.0390203,0.108313,0.0518154,-0.00194566,-1.89493,0.163459,0.0866116,0.0211467,0.360303,0.0554098,0.768511,-0.493061,1.45521,-1.88182,-0.019534,0,0,0,0,0,0,0,1.27307,-35.8196,1.28633,25.1578,2.63366,1.91887,-0.0566557,
0.131125,0.0549706,0.02027,-1.91443,0.255178,0.0493745,0.0208263,0.240799,0.0180333,0.234248,-0.22466,1.1386,-0.364141,-0.00367351,-4.80601,-2.50504,-4.75058,5.01657,-2.79239,70.5861,0.733673,16.875,-1.67343,16.4369,-16.1832,11.035,1.41269,-0.027699,0.108313,0.0518154,-0.00194566,-1.89493,0.163459,0.0866116,0.0211467,0.360303,0.0554098,0.768511,-0.493061,1.45521,-1.88182,-0.019534,0,0,0,0,0,0,0,1.27307,-35.8196,1.28633,25.1578,2.63366,1.91887,-0.0566557,
0.112186,0.0524907,0.0018582,-1.89808,0.175095,0.0748093,0.0210547,0.289455,0.0313102,0.282495,-0.258383,1.20178,-0.58637,-0.00523998,30.4099,8.29805,30.1543,-21.0773,39.4848,-138.893,-0.979043,18.2238,-2.63046,17.7014,-16.1684,10.6892,-1.22879,-0.0712303,0.128978,0.0532809,0.0147548,-1.91363,0.216532,0.0308022,0.0207751,0.51079,-0.0222862,0.522922,-0.597478,1.5986,-1.27468,-0.0116545,18.8109,-9.71201,-30.6987,-13.0521,17.9234,75.8924,0.984942,-2.4046,-37.1922,-1.23686,29.7678,1.46728,3.99438,-0.083206,
0.115562,0.0531454,0.00514276,-1.90082,0.186409,0.0658671,0.0209828,0.315964,0.0414134,0.30811,-0.27537,1.24428,-0.692653,-0.00598966,16.5681,6.31451,16.0094,-10.6168,26.5631,-66.4268,-0.468549,17.7155,-2.76206,17.2047,-15.9284,10.6892,-0.0841522,-0.0587535,0.128978,0.0532809,0.0147548,-1.91363,0.216532,0.0308022,0.0207751,0.51079,-0.0222862,0.522922,-0.597478,1.5986,-1.27468,-0.0116545,0,0,0,0,0,0,0,-2.4046,-37.1922,-1.23686,29.7678,1.46728,3.99438,-0.083206,
0.118527,0.0537058,0.00802801,-1.90329,0.197312,0.0592677,0.0209263,0.326915,0.0471423,0.318619,-0.28199,1.26798,-0.719107,-0.00620433,6.84444,3.58059,6.56823,-4.1373,14.8133,-16.5338,-0.134168,17.2433,-2.83216,16.7439,-15.6925,10.6892,0.898751,-0.0450893,0.128978,0.0532809,0.0147548,-1.91363,0.216532,0.0308022,0.0207751,0.51079,-0.0222862,0.522922,-0.597478,1.5986,-1.27468,-0.0116545,0,0,0,0,0,0,0,-2.4046,-37.1922,-1.23686,29.7678,1.46728,3.99438,-0.083206,
0.121162,0.0541537,0.0105911,-1.90554,0.20779,0.0545683,0.0208823,0.32741,0.0489118,0.318973,-0.281682,1.27634,-0.692771,-0.00606208,0.3093,1.10591,0.221188,0.192549,5.22451,16.46,0.0889065,16.7979,-2.84584,16.3098,-15.4548,10.6892,1.72853,-0.033768,0.128978,0.0532809,0.0147548,-1.91363,0.216532,0.0308022,0.0207751,0.51079,-0.0222862,0.522922,-0.597478,1.5986,-1.27468,-0.0116545,0,0,0,0,0,0,0,-2.4046,-37.1922,-1.23686,29.7678,1.46728,3.99438,-0.083206,
0.145049,0.0552514,0.0303734,-1.92701,0.280052,0.0120751,0.0207323,0.310822,0.0425229,0.302617,-0.266329,1.25803,-0.544332,-0.00438754,-10.3673,-3.99305,-10.2229,9.59518,-11.4448,92.7745,1.04658,15.7172,-3.61243,15.2029,-14.2414,10.3383,3.25718,-0.0180934,0.147188,0.0556985,0.0340158,-1.93262,0.272676,0.00560025,0.0207543,0.756389,0.0908812,0.272527,-0.555812,1.65116,-0.403665,0.000713675,30.6999,14.1459,-31.2994,5.2082,6.57029,108.877,1.54602,-7.83184,-40.7112,-7.03703,36.9168,0.929867,5.16808,-0.0163725,
0.146823,0.0553158,0.0320945,-1.92852,0.289239,0.013222,0.0207597,0.293013,0.0356289,0.285119,-0.250876,1.2361,-0.406793,-0.00282283,-11.1308,-4.30875,-10.9358,9.6584,-13.7046,85.9615,0.977947,15.3373,-3.51061,14.8338,-14.0014,10.3383,3.74323,-0.00710662,0.147188,0.0556985,0.0340158,-1.93262,0.272676,0.00560025,0.0207543,0.756389,0.0908812,0.272527,-0.555812,1.65116,-0.403665,0.000713675,0,0,0,0,0,0,0,-7.83184,-40.7112,-7.03703,36.9168,0.929867,5.16808,-0.0163725,
0.148443,0.0553218,0.0336656,-1.92993,0.298189,0.0149534,0.0207914,0.274918,0.028652,0.267375,-0.235908,1.21262,-0.282151,-0.00146692,-11.3092,-4.36057,-11.0902,9.35497,-14.6737,77.9016,0.847441,14.9676,-3.39039,14.4747,-13.7638,10.3383,4.1413,0.00259523,0.147188,0.0556985,0.0340158,-1.93262,0.272676,0.00560025,0.0207543,0.756389,0.0908812,0.272527,-0.555812,1.65116,-0.403665,0.000713675,0,0,0,0,0,0,0,-7.83184,-40.7112,-7.03703,36.9168,0.929867,5.16808,-0.0163725,
0.149935,0.0552833,0.0351062,-1.93125,0.306944,0.0171348,0.0208253,0.257225,0.0219603,0.249915,-0.221708,1.18899,-0.171185,-0.000325962,-11.0583,-4.1823,-10.9125,8.87501,-14.7701,69.3538,0.7131,14.6058,-3.25587,14.1236,-13.5309,10.3383,4.47151,0.0130788,0.147188,0.0556985,0.0340158,-1.93262,0.272676,0.00560025,0.0207543,0.756389,0.0908812,0.272527,-0.555812,1.65116,-0.403665,0.000713675,0,0,0,0,0,0,0,-7.83184,-40.7112,-7.03703,36.9168,0.929867,5.16808,-0.0163725,
0.16413,0.0592351,0.0503698,-1.94555,0.340866,0.00682564,0.0209013,0.246607,0.0201601,0.239392,-0.208124,1.13147,-0.0828995,0.000530385,-6.63627,-1.12513,-6.57672,8.48978,-35.9473,55.1782,0.535217,13.3274,-2.95587,12.8376,-12.6325,10.1499,5.34825,0.0424487,0.162634,0.0584161,0.054787,-1.94913,0.325909,-0.0121299,0.0207154,0.604853,0.143566,0.478664,-0.454145,1.63333,-0.461847,0.000821231,-18.9421,6.58555,25.7672,12.7085,-2.229,-7.2727,0.0134445,-3.41626,-40.013,-3.78783,31.2634,0.948178,4.18023,0.0239107,
0.165628,0.0592631,0.0518172,-1.94667,0.347146,0.0092982,0.0209346,0.234734,0.0168263,0.227699,-0.194618,1.06218,-0.00450574,0.00125762,-7.42039,-2.08364,-7.30827,8.4415,-43.3096,48.9961,0.454523,12.8458,-2.77791,12.3762,-12.4391,10.1499,5.46526,0.0457461,0.162634,0.0584161,0.054787,-1.94913,0.325909,-0.0121299,0.0207154,0.604853,0.143566,0.478664,-0.454145,1.63333,-0.461847,0.000821231,0,0,0,0,0,0,0,-3.41626,-40.013,-3.78783,31.2634,0.948178,4.18023,0.0239107,
0.167014,0.0592318,0.0531563,-1.94771,0.352545,0.0120001,0.0209701,0.222446,0.0126802,0.215637,-0.181679,0.984712,0.0639422,0.00189341,-7.67977,-2.59133,-7.53879,8.087,-48.4165,42.78,0.39737,12.4134,-2.54468,11.895,-12.2182,10.1499,5.54087,0.0470162,0.162634,0.0584161,0.054787,-1.94913,0.325909,-0.0121299,0.0207154,0.604853,0.143566,0.478664,-0.454145,1.63333,-0.461847,0.000821231,0,0,0,0,0,0,0,-3.41626,-40.013,-3.78783,31.2634,0.948178,4.18023,0.0239107,
0.197715,0.0521472,0.0826579,-1.97196,0.361786,0.123109,0.0225605,0.184333,0.00743225,0.178536,-0.14798,0.803159,0.0789313,0.00142856,-23.8209,-3.27995,-23.1883,21.062,-113.471,9.36819,-0.290532,3.46388,-0.505236,3.33708,-0.36979,1.45048,2.31401,-0.0109004,0.162634,0.0584161,0.054787,-1.94913,0.325909,-0.0121299,0.0207154,0.604853,0.143566,0.478664,-0.454145,1.63333,-0.461847,0.000821231,0,0,0,0,0,0,0,-3.41626,-40.013,-3.78783,31.2634,0.948178,4.18023,0.0239107,
0.182635,0.0579806,0.0730809,-1.94663,0.417629,0.0122914,0.0196017,0.147566,0.00331206,0.14235,-0.114048,0.648577,0.0928008,0.000737425,-22.9792,-2.57512,-22.6163,21.207,-96.6135,8.66841,-0.43196,3.32632,-1.0952,3.14486,0.0611683,1.42024,2.10851,-0.0140985,0.179786,0.060604,0.0728696,-1.96524,0.380795,-0.0178298,0.0207138,0.406142,0.0153886,0.605646,-0.426418,1.55655,0.0367588,-0.00193013,-24.8389,-16.0221,15.8728,3.46589,-9.59755,62.3257,-0.343921,-6.41156,-41.584,-6.88628,30.3152,0.819088,3.34435,0.0843355,
0.182639,0.0578756,0.0730618,-1.94646,0.417871,0.0134723,0.0195855,0.118153,2.59023e-05,0.113402,-0.0869201,0.524909,0.103761,0.000185175,-18.3834,-2.05385,-18.0924,16.9552,-77.2928,6.85016,-0.345156,3.22764,-1.06833,3.05192,0.256842,1.72698,1.83014,-0.0155073,0.179786,0.060604,0.0728696,-1.96524,0.380795,-0.0178298,0.0207138,0.406142,0.0153886,0.605646,-0.426418,1.55655,0.0367588,-0.00193013,0,0,0,0,0,0,0,-6.41156,-41.584,-6.88628,30.3152,0.819088,3.34435,0.0843355,
0.182643,0.0577711,0.0730427,-1.94629,0.418113,0.0146477,0.0195693,0.0946219,-0.00259309,0.0902443,-0.065234,0.425971,0.112395,-0.000255969,-14.7068,-1.63687,-14.4733,13.5538,-61.8362,5.39593,-0.275715,3.13176,-1.03568,2.96186,0.450168,2.07814,1.51983,-0.0167138,0.179786,0.060604,0.0728696,-1.96524,0.380795,-0.0178298,0.0207138,0.406142,0.0153886,0.605646,-0.426418,1.55655,0.0367588,-0.00193013,0,0,0,0,0,0,0,-6.41156,-41.584,-6.88628,30.3152,0.819088,3.34435,0.0843355,
0.182791,0.0541647,0.0723649,-1.94036,0.426979,0.0545684,0.0189888,0.0757979,-0.00435336,0.0717551,-0.0484501,0.34672,0.114733,-0.000586339,-11.765,-1.10017,-11.5558,10.4899,-49.532,1.46153,-0.206482,3.13176,-1.03568,2.96186,0.450168,2.07814,1.51983,-0.0167138,0.179786,0.060604,0.0728696,-1.96524,0.380795,-0.0178298,0.0207138,0.406142,0.0153886,0.605646,-0.426418,1.55655,0.0367588,-0.00193013,0,0,0,0,0,0,0,-6.41156,-41.584,-6.88628,30.3152,0.819088,3.34435,0.0843355,
0.195959,0.0526617,0.0862034,-1.95217,0.441024,0.0779225,0.0188871,0.0607376,-0.00589465,0.0569317,-0.0351318,0.28304,0.115715,-0.000844969,-9.41266,-0.963306,-9.26462,8.32397,-39.8,0.614018,-0.161644,3.13176,-1.03568,2.96186,0.450168,2.07814,1.51983,-0.0167138,0.179786,0.060604,0.0728696,-1.96524,0.380795,-0.0178298,0.0207138,0.406142,0.0153886,0.605646,-0.426418,1.55655,0.0367588,-0.00193013,0,0,0,0,0,0,0,-6.41156,-41.584,-6.88628,30.3152,0.819088,3.34435,0.0843355,
0.195959,0.0526617,0.0862034,-1.95217,0.441024,0.0779225,0.0188871,0.0486894,-0.00712768,0.045073,-0.0244771,0.232096,0.116501,-0.00105187,-7.53013,-0.770645,-7.4117,6.65918,-31.84,0.491214,-0.129315,2.82383,-1.57466,2.62363,0.34018,1.79138,1.27558,-0.0120963,0.197355,0.0614417,0.0865162,-1.97683,0.423787,-0.00820047,0.0207304,0.224203,0.0315492,0.573564,-0.21397,0.668144,0.233571,-0.00600755,-22.7423,2.02007,-4.01033,26.556,-111.051,24.6015,-0.509677,-16.0203,-39.2632,-15.4358,37.5635,-1.89179,3.23907,0.0303194,
0.195959,0.0526617,0.0862034,-1.95217,0.441024,0.0779225,0.0188871,0.0390508,-0.00811411,0.035586,-0.0159534,0.191341,0.11713,-0.0012174,-6.0241,-0.616516,-5.92936,5.32734,-25.472,0.392971,-0.103452,2.82383,-1.57466,2.62363,0.34018,1.79138,1.27558,-0.0120963,0.197355,0.0614417,0.0865162,-1.97683,0.423787,-0.00820047,0.0207304,0.224203,0.0315492,0.573564,-0.21397,0.668144,0.233571,-0.00600755,0,0,0,0,0,0,0,-16.0203,-39.2632,-15.4358,37.5635,-1.89179,3.23907,0.0303194,
0.209034,0.0522319,0.0952937,-1.96252,0.462219,0.0955355,0.0189674,0.0313382,-0.00896872,0.0279656,-0.00920611,0.157967,0.117413,-0.00134652,-4.8204,-0.53413,-4.76278,4.21704,-20.8583,0.17679,-0.0807039,2.82383,-1.57466,2.62363,0.34018,1.79138,1.27558,-0.0120963,0.197355,0.0614417,0.0865162,-1.97683,0.423787,-0.00820047,0.0207304,0.224203,0.0315492,0.573564,-0.21397,0.668144,0.233571,-0.00600755,0,0,0,0,0,0,0,-16.0203,-39.2632,-15.4358,37.5635,-1.89179,3.23907,0.0303194,
0.209034,0.0522319,0.0952937,-1.96252,0.462219,0.0955355,0.0189674,0.0251681,-0.0096524,0.0218692,-0.0038083,0.131269,0.117639,-0.00144982,-3.85632,-0.427304,-3.81022,3.37363,-16.6866,0.141432,-0.0645631,2.82383,-1.57466,2.62363,0.34018,1.79138,1.27558,-0.0120963,0.197355,0.0614417,0.0865162,-1.97683,0.423787,-0.00820047,0.0207304,0.224203,0.0315492,0.573564,-0.21397,0.668144,0.233571,-0.00600755,0,0,0,0,0,0,0,-16.0203,-39.2632,-15.4358,37.5635,-1.89179,3.23907,0.0303194,
0.209034,0.0522319,0.0952937,-1.96252,0.462219,0.0955355,0.0189674,0.020232,-0.0101994,0.0169921,0.000509945,0.10991,0.11782,-0.00153246,-3.08506,-0.341843,-3.04818,2.6989,-13.3493,0.113146,-0.0516505,2.72795,-1.75801,2.50004,0.120923,1.65047,1.1269,-0.0102286,0.209003,0.0635396,0.0950393,-1.97888,0.441287,-0.00281112,0.0207105,0.157964,0.106494,0.366347,-0.00578489,0.319427,0.266168,-0.00174674,-8.27987,9.36805,-25.9021,26.0231,-43.5896,4.07467,0.532601,-15.5125,-40.1598,-13.8608,28.4229,1.02142,2.54876,0.0706026,
0.209034,0.0522319,0.0952937,-1.96252,0.462219,0.0955355,0.0189674,0.0162831,-0.0106369,0.0130904,0.00396454,0.0928228,0.117965,-0.00159858,-2.46805,-0.273474,-2.43854,2.15912,-10.6794,0.0905166,-0.0413204,2.72795,-1.75801,2.50004,0.120923,1.65047,1.1269,-0.0102286,0.209003,0.0635396,0.0950393,-1.97888,0.441287,-0.00281112,0.0207105,0.157964,0.106494,0.366347,-0.00578489,0.319427,0.266168,-0.00174674,0,0,0,0,0,0,0,-15.5125,-40.1598,-13.8608,28.4229,1.02142,2.54876,0.0706026,
0.216445,0.054879,0.0995002,-1.96364,0.469996,0.105994,0.0190152,0.0131239,-0.0108061,0.00992388,0.00666461,0.0789586,0.117655,-0.00164861,-1.97451,-0.105773,-1.9791,1.68754,-8.66512,-0.193711,-0.0312677,2.72795,-1.75801,2.50004,0.120923,1.65047,1.1269,-0.0102286,0.209003,0.0635396,0.0950393,-1.97888,0.441287,-0.00281112,0.0207105,0.157964,0.106494,0.366347,-0.00578489,0.319427,0.266168,-0.00174674,0,0,0,0,0,0,0,-15.5125,-40.1598,-13.8608,28.4229,1.02142,2.54876,0.0706026,
0.216445,0.054879,0.0995002,-1.96364,0.469996,0.105994,0.0190152,0.0105965,-0.0109415,0.00739062,0.00882466,0.0678672,0.117407,-0.00168863,-1.57961,-0.0846185,-1.58328,1.35003,-6.9321,-0.154969,-0.0250141,2.72795,-1.75801,2.50004,0.120923,1.65047,1.1269,-0.0102286,0.209003,0.0635396,0.0950393,-1.97888,0.441287,-0.00281112,0.0207105,0.157964,0.106494,0.366347,-0.00578489,0.319427,0.266168,-0.00174674,0,0,0,0,0,0,0,-15.5125,-40.1598,-13.8608,28.4229,1.02142,2.54876,0.0706026,
0.216445,0.054879,0.0995002,-1.96364,0.469996,0.105994,0.0190152,0.00857462,-0.0110499,0.00536402,0.0105527,0.0589941,0.117209,-0.00172065,-1.26369,-0.0676948,-1.26663,1.08003,-5.54568,-0.123975,-0.0200113,2.79221,-1.7957,2.54191,-0.0309652,1.60959,1.03541,-0.00961756,0.21799,0.0640634,0.103087,-1.97961,0.45261,0.00962476,0.020689,0.269346,-0.0496081,0.0686715,-0.0130583,0.314979,0.360624,0.000772987,13.9227,-19.5127,-37.2094,-0.909171,-0.556086,11.8069,0.314966,-15.6672,-36.1925,-14.0869,25.733,-0.023197,1.33568,0.050461,
0.216445,0.054879,0.0995002,-1.96364,0.469996,0.105994,0.0190152,0.0069571,-0.0111365,0.00374274,0.0119351,0.0518956,0.11705,-0.00174626,-1.01095,-0.0541559,-1.0133,0.864021,-4.43654,-0.0991801,-0.016009,2.79221,-1.7957,2.54191,-0.0309652,1.60959,1.03541,-0.00961756,0.21799,0.0640634,0.103087,-1.97961,0.45261,0.00962476,0.020689,0.269346,-0.0496081,0.0686715,-0.0130583,0.314979,0.360624,0.000772987,0,0,0,0,0,0,0,-15.6672,-36.1925,-14.0869,25.733,-0.023197,1.33568,0.050461,
0.223108,0.0524293,0.105298,-1.96342,0.478481,0.117545,0.0190683,0.00566286,-0.0112574,0.00245372,0.0128632,0.0458877,0.115781,-0.00176022,-0.8089,-0.0755493,-0.805634,0.580056,-3.75495,-0.793508,-0.00872674,2.79221,-1.7957,2.54191,-0.0309652,1.60959,1.03541,-0.00961756,0.21799,0.0640634,0.103087,-1.97961,0.45261,0.00962476,0.020689,0.269346,-0.0496081,0.0686715,-0.0130583,0.314979,0.360624,0.000772987,0,0,0,0,0,0,0,-15.6672,-36.1925,-14.0869,25.733,-0.023197,1.33568,0.050461,
0.223108,0.0524293,0.105298,-1.96342,0.478481,0.117545,0.0190683,0.00462746,-0.0113541,0.00142251,0.0136057,0.0410814,0.114765,-0.00177139,-0.64712,-0.0604394,-0.644508,0.464045,-3.00396,-0.634806,-0.00698139,2.79221,-1.7957,2.54191,-0.0309652,1.60959,1.03541,-0.00961756,0.21799,0.0640634,0.103087,-1.97961,0.45261,0.00962476,0.020689,0.269346,-0.0496081,0.0686715,-0.0130583,0.314979,0.360624,0.000772987,0,0,0,0,0,0,0,-15.6672,-36.1925,-14.0869,25.733,-0.023197,1.33568,0.050461,
0.223108,0.0524293,0.105298,-1.96342,0.478481,0.117545,0.0190683,0.00379915,-0.0114314,0.000597539,0.0141997,0.0372363,0.113952,-0.00178033,-0.517696,-0.0483515,-0.515606,0.371236,-2.40317,-0.507845,-0.00558511,2.79205,-1.79805,2.5371,-0.165939,1.59925,0.937377,-0.00897315,0.221068,0.0636271,0.107549,-1.97939,0.459856,0.0230754,0.0206766,0.20032,0.00820773,-0.0363827,0.0341274,0.164946,0.369094,-0.00184663,-8.62816,7.22698,-13.1318,5.89821,-18.7541,1.05873,-0.327452,-6.0307,-33.947,-5.23589,26.2567,1.91314,0.560232,0.0303194,
0.223108,0.0524293,0.105298,-1.96342,0.478481,0.117545,0.0190683,0.0031365,-0.0114933,-6.24365e-05,0.0146749,0.0341602,0.113302,-0.00178748,-0.414157,-0.0386812,-0.412485,0.296989,-1.92254,-0.406276,-0.00446809,2.79205,-1.79805,2.5371,-0.165939,1.59925,0.937377,-0.00897315,0.221068,0.0636271,0.107549,-1.97939,0.459856,0.0230754,0.0206766,0.20032,0.00820773,-0.0363827,0.0341274,0.164946,0.369094,-0.00184663,0,0,0,0,0,0,0,-6.0307,-33.947,-5.23589,26.2567,1.91314,0.560232,0.0303194,
0.223624,0.0534796,0.107203,-1.96378,0.481185,0.129489,0.0191186,0.00260699,-0.0113968,-0.000608166,0.0149527,0.0318303,0.111885,-0.00178863,-0.330946,0.0603458,-0.341081,0.173631,-1.45622,-0.885693,-0.000716422,2.79205,-1.79805,2.5371,-0.165939,1.59925,0.937377,-0.00897315,0.221068,0.0636271,0.107549,-1.97939,0.459856,0.0230754,0.0206766,0.20032,0.00820773,-0.0363827,0.0341274,0.164946,0.369094,-0.00184663,0,0,0,0,0,0,0,-6.0307,-33.947,-5.23589,26.2567,1.91314,0.560232,0.0303194,
0.223624,0.0534796,0.107203,-1.96378,0.481185,0.129489,0.0191186,0.00218338,-0.0113195,-0.00104475,0.0151749,0.0299663,0.110751,-0.00178954,-0.264757,0.0482766,-0.272865,0.138905,-1.16498,-0.708554,-0.000573138,2.79205,-1.79805,2.5371,-0.165939,1.59925,0.937377,-0.00897315,0.221068,0.0636271,0.107549,-1.97939,0.459856,0.0230754,0.0206766,0.20032,0.00820773,-0.0363827,0.0341274,0.164946,0.369094,-0.00184663,0,0,0,0,0,0,0,-6.0307,-33.947,-5.23589,26.2567,1.91314,0.560232,0.0303194,
0.223624,0.0534796,0.107203,-1.96378,0.481185,0.129489,0.0191186,0.00184449,-0.0112577,-0.00139402,0.0153527,0.0284752,0.109845,-0.00179028,-0.211805,0.0386213,-0.218292,0.111124,-0.93198,-0.566843,-0.00045851,2.81882,-1.76886,2.56737,-0.257279,1.60183,0.867974,-0.00855098,0.223707,0.0625424,0.108538,-1.97898,0.464239,0.035428,0.0206659,0.126264,-0.0613656,-0.0762007,0.0114165,0.116931,0.316988,0.000339449,-9.257,-8.69667,-4.97725,-2.83886,-6.00186,-6.51321,0.27326,-1.59131,-33.3717,-0.963121,24.4357,2.38922,1.48858,0.0376436,
0.223624,0.0534796,0.107203,-1.96378,0.481185,0.129489,0.0191186,0.00157338,-0.0112083,-0.00167343,0.015495,0.0272822,0.109119,-0.00179086,-0.169444,0.030897,-0.174633,0.088899,-0.745584,-0.453475,-0.000366808,2.81882,-1.76886,2.56737,-0.257279,1.60183,0.867974,-0.00855098,0.223707,0.0625424,0.108538,-1.97898,0.464239,0.035428,0.0206659,0.126264,-0.0613656,-0.0762007,0.0114165,0.116931,0.316988,0.000339449,0,0,0,0,0,0,0,-1.59131,-33.3717,-0.963121,24.4357,2.38922,1.48858,0.0376436,
0.224808,0.0514672,0.106892,-1.96355,0.483678,0.137794,0.0191613,0.00135687,-0.0111718,-0.00187178,0.0154858,0.0263331,0.107609,-0.00178654,-0.135318,0.0228139,-0.123968,-0.00571143,-0.593214,-0.943706,0.00270309,2.81882,-1.76886,2.56737,-0.257279,1.60183,0.867974,-0.00855098,0.223707,0.0625424,0.108538,-1.97898,0.464239,0.035428,0.0206659,0.126264,-0.0613656,-0.0762007,0.0114165,0.116931,0.316988,0.000339449,0,0,0,0,0,0,0,-1.59131,-33.3717,-0.963121,24.4357,2.38922,1.48858,0.0376436,
0.224808,0.0514672,0.106892,-1.96355,0.483678,0.137794,0.0191613,0.00118366,-0.0111426,-0.00203046,0.0154785,0.0255738,0.106401,-0.00178308,-0.108254,0.0182511,-0.0991742,-0.00456915,-0.474571,-0.754965,0.00216247,2.81882,-1.76886,2.56737,-0.257279,1.60183,0.867974,-0.00855098,0.223707,0.0625424,0.108538,-1.97898,0.464239,0.035428,0.0206659,0.126264,-0.0613656,-0.0762007,0.0114165,0.116931,0.316988,0.000339449,0,0,0,0,0,0,0,-1.59131,-33.3717,-0.963121,24.4357,2.38922,1.48858,0.0376436,
0.224808,0.0514672,0.106892,-1.96355,0.483678,0.137794,0.0191613,0.0010451,-0.0111192,-0.0021574,0.0154727,0.0249663,0.105435,-0.00178031,-0.0866033,0.0146009,-0.0793394,-0.00365532,-0.379657,-0.603972,0.00172998,2.80931,-1.74312,2.56243,-0.325715,1.60693,0.80787,-0.00825745,0.224473,0.0616318,0.109516,-1.97859,0.466313,0.0469639,0.0206661,-0.00327852,-0.00691624,0.0455645,0.0118768,0.0510806,0.339823,0.000988555,-16.1928,6.80617,15.2206,0.0575423,-8.23135,2.85437,0.0811382,-0.0202602,-34.4231,0.762648,26.0306,3.51898,0.971304,-0.0026396,
0.224808,0.0514672,0.106892,-1.96355,0.483678,0.137794,0.0191613,0.000934243,-0.0111006,-0.00225895,0.015468,0.0244804,0.104662,-0.0017781,-0.0692826,0.0116807,-0.0634715,-0.00292425,-0.303725,-0.483177,0.00138398,2.80931,-1.74312,2.56243,-0.325715,1.60693,0.80787,-0.00825745,0.224473,0.0616318,0.109516,-1.97859,0.466313,0.0469639,0.0206661,-0.00327852,-0.00691624,0.0455645,0.0118768,0.0510806,0.339823,0.000988555,0,0,0,0,0,0,0,-0.0202602,-34.4231,0.762648,26.0306,3.51898,0.971304,-0.0026396,
0.225245,0.0520518,0.107538,-1.96403,0.484716,0.146326,0.0191802,0.00084613,-0.0109858,-0.00234819,0.0153944,0.0242516,0.103389,-0.00177308,-0.0550711,0.0717375,-0.0557691,-0.0460152,-0.142973,-0.79541,0.00313719,2.80931,-1.74312,2.56243,-0.325715,1.60693,0.80787,-0.00825745,0.224473,0.0616318,0.109516,-1.97859,0.466313,0.0469639,0.0206661,-0.00327852,-0.00691624,0.0455645,0.0118768,0.0510806,0.339823,0.000988555,0,0,0,0,0,0,0,-0.0202602,-34.4231,0.762648,26.0306,3.51898,0.971304,-0.0026396,
0.225245,0.0520518,0.107538,-1.96403,0.484716,0.146326,0.0191802,0.000775638,-0.010894,-0.00241957,0.0153355,0.0240686,0.102371,-0.00176906,-0.0440569,0.05739,-0.0446153,-0.0368121,-0.114378,-0.636328,0.00250975,2.80931,-1.74312,2.56243,-0.325715,1.60693,0.80787,-0.00825745,0.224473,0.0616318,0.109516,-1.97859,0.466313,0.0469639,0.0206661,-0.00327852,-0.00691624,0.0455645,0.0118768,0.0510806,0.339823,0.000988555,0,0,0,0,0,0,0,-0.0202602,-34.4231,0.762648,26.0306,3.51898,0.971304,-0.0026396,
0.225245,0.0520518,0.107538,-1.96403,0.484716,0.146326,0.0191802,0.000719246,-0.0108205,-0.00247668,0.0152883,0.0239222,0.101556,-0.00176585,-0.0352455,0.045912,-0.0356922,-0.0294497,-0.0915028,-0.509063,0.0020078,2.80931,-1.74312,2.56243,-0.325715,1.60693,0.80787,-0.00825745,0.224473,0.0616318,0.109516,-1.97859,0.466313,0.0469639,0.0206661,-0.00327852,-0.00691624,0.0455645,0.0118768,0.0510806,0.339823,0.000988555,0,0,0,0,0,0,0,-0.0202602,-34.4231,0.762648,26.0306,3.51898,0.971304,-0.0026396,
0.225245,0.0520518,0.107538,-1.96403,0.484716,0.146326,0.0191802,0.000674131,-0.0107617,-0.00252236,0.0152506,0.0238051,0.100905,-0.00176328,-0.0281964,0.0367296,-0.0285538,-0.0235598,-0.0732022,-0.40725,0.00160624,2.80934,-1.69628,2.56098,-0.38469,1.61249,0.755314,-0.00801107,0.224953,0.0614949,0.110825,-1.97851,0.468187,0.0586747,0.0206589,0.00954884,-0.0257717,0.0301746,0.00165191,0.0580767,0.317625,0.00059149,1.60342,-2.35694,-1.92374,-1.27812,0.874514,-2.7747,-0.0496332,1.4278,-36.1925,1.41328,25.3839,3.17108,0.466849,0.017502,
0.225751,0.0519008,0.108868,-1.96429,0.487007,0.154321,0.0191913,0.000638441,-0.0106586,-0.00256083,0.0151381,0.0237689,0.099717,-0.00175772,-0.0223068,0.0644256,-0.024039,-0.0703445,-0.0225786,-0.742381,0.00347261,2.80934,-1.69628,2.56098,-0.38469,1.61249,0.755314,-0.00801107,0.224953,0.0614949,0.110825,-1.97851,0.468187,0.0586747,0.0206589,0.00954884,-0.0257717,0.0301746,0.00165191,0.0580767,0.317625,0.00059149,0,0,0,0,0,0,0,1.4278,-36.1925,1.41328,25.3839,3.17108,0.466849,0.017502,
0.225751,0.0519008,0.108868,-1.96429,0.487007,0.154321,0.0191913,0.000609888,-0.0105762,-0.0025916,0.015048,0.02374,0.0987667,-0.00175328,-0.0178454,0.0515404,-0.0192312,-0.0562756,-0.0180629,-0.593905,0.00277808,2.80934,-1.69628,2.56098,-0.38469,1.61249,0.755314,-0.00801107,0.224953,0.0614949,0.110825,-1.97851,0.468187,0.0586747,0.0206589,0.00954884,-0.0257717,0.0301746,0.00165191,0.0580767,0.317625,0.00059149,0,0,0,0,0,0,0,1.4278,-36.1925,1.41328,25.3839,3.17108,0.466849,0.017502,
0.225751,0.0519008,0.108868,-1.96429,0.487007,0.154321,0.0191913,0.000587046,-0.0105102,-0.00261621,0.014976,0.0237169,0.0980065,-0.00174972,-0.0142763,0.0412324,-0.0153849,-0.0450205,-0.0144503,-0.475124,0.00222247,2.80934,-1.69628,2.56098,-0.38469,1.61249,0.755314,-0.00801107,0.224953,0.0614949,0.110825,-1.97851,0.468187,0.0586747,0.0206589,0.00954884,-0.0257717,0.0301746,0.00165191,0.0580767,0.317625,0.00059149,0,0,0,0,0,0,0,1.4278,-36.1925,1.41328,25.3839,3.17108,0.466849,0.017502,
0.225751,0.0519008,0.108868,-1.96429,0.487007,0.154321,0.0191913,0.000568772,-0.0104574,-0.0026359,0.0149184,0.0236984,0.0973984,-0.00174688,-0.0114211,0.0329859,-0.012308,-0.0360164,-0.0115602,-0.380099,0.00177797,2.80995,-1.65296,2.56531,-0.453061,1.61679,0.700573,-0.00773476,0.226239,0.0607535,0.111225,-1.97838,0.469987,0.0701009,0.0206512,0.0308228,-0.00825242,0.0102977,0.0153432,0.0544268,0.341212,-0.000143046,2.65924,2.18991,-2.48461,1.71141,-0.45624,2.94834,-0.091817,-0.0956386,-34.1216,0.639662,25.2094,3.48236,0.632559,0.0440523,
0.226999,0.0516543,0.109241,-1.96455,0.489145,0.162842,0.0191994,0.00055466,-0.0103474,-0.00264927,0.0147838,0.0237686,0.0961849,-0.00174082,-0.00882005,0.0687574,-0.00835306,-0.0841171,0.0438764,-0.758404,0.00378649,2.80995,-1.65296,2.56531,-0.453061,1.61679,0.700573,-0.00773476,0.226239,0.0607535,0.111225,-1.97838,0.469987,0.0701009,0.0206512,0.0308228,-0.00825242,0.0102977,0.0153432,0.0544268,0.341212,-0.000143046,0,0,0,0,0,0,0,-0.0956386,-34.1216,0.639662,25.2094,3.48236,0.632559,0.0440523,
0.226999,0.0516543,0.109241,-1.96455,0.489145,0.162842,0.0191994,0.00054337,-0.0102594,-0.00265996,0.0146761,0.0238248,0.0952142,-0.00173597,-0.00705604,0.0550059,-0.00668245,-0.0672937,0.0351011,-0.606723,0.00302919,2.80995,-1.65296,2.56531,-0.453061,1.61679,0.700573,-0.00773476,0.226239,0.0607535,0.111225,-1.97838,0.469987,0.0701009,0.0206512,0.0308228,-0.00825242,0.0102977,0.0153432,0.0544268,0.341212,-0.000143046,0,0,0,0,0,0,0,-0.0956386,-34.1216,0.639662,25.2094,3.48236,0.632559,0.0440523,
0.226999,0.0516543,0.109241,-1.96455,0.489145,0.162842,0.0191994,0.000534339,-0.010189,-0.00266851,0.01459,0.0238697,0.0944376,-0.00173209,-0.00564483,0.0440048,-0.00534596,-0.0538349,0.0280809,-0.485378,0.00242336,2.80995,-1.65296,2.56531,-0.453061,1.61679,0.700573,-0.00773476,0.226239,0.0607535,0.111225,-1.97838,0.469987,0.0701009,0.0206512,0.0308228,-0.00825242,0.0102977,0.0153432,0.0544268,0.341212,-0.000143046,0,0,0,0,0,0,0,-0.0956386,-34.1216,0.639662,25.2094,3.48236,0.632559,0.0440523,
0.227454,0.0517633,0.10996,-1.96469,0.491832,0.171729,0.0192129,0.000527637,-0.0100454,-0.00267843,0.0144314,0.0239752,0.093095,-0.00172516,-0.00418876,0.0897416,-0.00619797,-0.0991491,0.0659028,-0.839114,0.00433485,2.81294,-1.59741,2.56797,-0.519341,1.62358,0.644134,-0.00747746,0.226799,0.0605694,0.112048,-1.97813,0.472195,0.0824587,0.0206432,0.0139582,-0.0138055,0.0181511,0.00960288,0.0704501,0.34175,-0.000223263,-2.10807,-0.694132,0.98168,-0.717539,2.00291,0.0672115,-0.0100272,0.360599,-36.1925,0.838026,24.4119,2.92022,0.141836,0.0303194,
0.227454,0.0517633,0.10996,-1.96469,0.491832,0.171729,0.0192129,0.000522275,-0.00993054,-0.00268636,0.0143044,0.0240595,0.0920209,-0.00171961,-0.00335101,0.0717932,-0.00495837,-0.0793193,0.0527222,-0.671291,0.00346788,2.81294,-1.59741,2.56797,-0.519341,1.62358,0.644134,-0.00747746,0.226799,0.0605694,0.112048,-1.97813,0.472195,0.0824587,0.0206432,0.0139582,-0.0138055,0.0181511,0.00960288,0.0704501,0.34175,-0.000223263,0,0,0,0,0,0,0,0.360599,-36.1925,0.838026,24.4119,2.92022,0.141836,0.0303194,
0.227454,0.0517633,0.10996,-1.96469,0.491832,0.171729,0.0192129,0.000517986,-0.00983865,-0.00269271,0.0142029,0.024127,0.0911617,-0.00171517,-0.0026808,0.0574346,-0.0039667,-0.0634554,0.0421778,-0.537033,0.0027743,2.81294,-1.59741,2.56797,-0.519341,1.62358,0.644134,-0.00747746,0.226799,0.0605694,0.112048,-1.97813,0.472195,0.0824587,0.0206432,0.0139582,-0.0138055,0.0181511,0.00960288,0.0704501,0.34175,-0.000223263,0,0,0,0,0,0,0,0.360599,-36.1925,0.838026,24.4119,2.92022,0.141836,0.0303194,
0.227454,0.0517633,0.10996,-1.96469,0.491832,0.171729,0.0192129,0.000514554,-0.00976513,-0.00269779,0.0141217,0.024181,0.0904743,-0.00171162,-0.00214464,0.0459477,-0.00317336,-0.0507643,0.0337422,-0.429626,0.00221944,2.81294,-1.59741,2.56797,-0.519341,1.62358,0.644134,-0.00747746,0.226799,0.0605694,0.112048,-1.97813,0.472195,0.0824587,0.0206432,0.0139582,-0.0138055,0.0181511,0.00960288,0.0704501,0.34175,-0.000223263,0,0,0,0,0,0,0,0.360599,-36.1925,0.838026,24.4119,2.92022,0.141836,0.0303194,
0.227454,0.0517633,0.10996,-1.96469,0.491832,0.171729,0.0192129,0.000511809,-0.00970632,-0.00270185,0.0140567,0.0242242,0.0899243,-0.00170878,-0.00171571,0.0367581,-0.00253869,-0.0406115,0.0269938,-0.343701,0.00177555,2.8123,-1.55611,2.56934,-0.578509,1.62684,0.592994,-0.00725551,0.227691,0.0601011,0.112479,-1.97809,0.475036,0.093847,0.0206434,0.0298835,-0.00825344,0.0132614,0.00424568,0.0931947,0.325118,0.000864802,1.99066,0.694004,-0.611215,-0.669651,2.84308,-2.07893,0.136008,0.209842,-34.5461,0.889601,25.6815,2.93304,0.918204,0.0303194,
0.227454,0.0517633,0.10996,-1.96469,0.491832,0.171729,0.0192129,0.000509613,-0.00965927,-0.0027051,0.0140047,0.0242587,0.0894844,-0.00170651,-0.00137257,0.0294065,-0.00203095,-0.0324892,0.021595,-0.274961,0.00142044,2.8123,-1.55611,2.56934,-0.578509,1.62684,0.592994,-0.00725551,0.227691,0.0601011,0.112479,-1.97809,0.475036,0.093847,0.0206434,0.0298835,-0.00825344,0.0132614,0.00424568,0.0931947,0.325118,0.000864802,0,0,0,0,0,0,0,0.209842,-34.5461,0.889601,25.6815,2.93304,0.918204,0.0303194,
0.227454,0.0517633,0.10996,-1.96469,0.491832,0.171729,0.0192129,0.000507856,-0.00962163,-0.0027077,0.0139631,0.0242864,0.0891324,-0.00170469,-0.00109806,0.0235252,-0.00162476,-0.0259913,0.017276,-0.219969,0.00113636,2.8123,-1.55611,2.56934,-0.578509,1.62684,0.592994,-0.00725551,0.227691,0.0601011,0.112479,-1.97809,0.475036,0.093847,0.0206434,0.0298835,-0.00825344,0.0132614,0.00424568,0.0931947,0.325118,0.000864802,0,0,0,0,0,0,0,0.209842,-34.5461,0.889601,25.6815,2.93304,0.918204,0.0303194,
0.227454,0.0517633,0.10996,-1.96469,0.491832,0.171729,0.0192129,0.000506451,-0.00959152,-0.00270978,0.0139299,0.0243085,0.0888509,-0.00170323,-0.000878446,0.0188202,-0.00129981,-0.0207931,0.0138208,-0.175975,0.000909084,2.8123,-1.55611,2.56934,-0.578509,1.62684,0.592994,-0.00725551,0.227691,0.0601011,0.112479,-1.97809,0.475036,0.093847,0.0206434,0.0298835,-0.00825344,0.0132614,0.00424568,0.0931947,0.325118,0.000864802,0,0,0,0,0,0,0,0.209842,-34.5461,0.889601,25.6815,2.93304,0.918204,0.0303194,
0.228547,0.051719,0.110584,-1.96513,0.49517,0.179593,0.0192285,0.000505699,-0.00950029,-0.00271279,0.0138245,0.0243437,0.0880317,-0.00169877,-0.000469933,0.0570186,-0.00188249,-0.0658608,0.0219933,-0.51201,0.00278739,2.81076,-1.51455,2.56833,-0.635149,1.62673,0.547119,-0.00702385,0.228404,0.0597798,0.113138,-1.97785,0.478551,0.104193,0.020643,0.0179503,-0.0153143,0.0252928,0.00519776,0.0983548,0.293192,0.00104695,-1.49165,-0.882602,1.50393,0.119011,0.645012,-3.99078,0.0227684,0.539127,-35.4704,1.01259,24.162,2.48718,0.394522,0.0303194,
0.228547,0.051719,0.110584,-1.96513,0.49517,0.179593,0.0192285,0.000505097,-0.0094273,-0.0027152,0.0137402,0.0243718,0.0873763,-0.00169521,-0.000375947,0.0456149,-0.00150599,-0.0526887,0.0175946,-0.409608,0.00222991,2.81076,-1.51455,2.56833,-0.635149,1.62673,0.547119,-0.00702385,0.228404,0.0597798,0.113138,-1.97785,0.478551,0.104193,0.020643,0.0179503,-0.0153143,0.0252928,0.00519776,0.0983548,0.293192,0.00104695,0,0,0,0,0,0,0,0.539127,-35.4704,1.01259,24.162,2.48718,0.394522,0.0303194,
0.228547,0.051719,0.110584,-1.96513,0.49517,0.179593,0.0192285,0.000504616,-0.00936892,-0.00271713,0.0136728,0.0243943,0.086852,-0.00169235,-0.000300757,0.0364919,-0.00120479,-0.0421509,0.0140757,-0.327687,0.00178393,2.81076,-1.51455,2.56833,-0.635149,1.62673,0.547119,-0.00702385,0.228404,0.0597798,0.113138,-1.97785,0.478551,0.104193,0.020643,0.0179503,-0.0153143,0.0252928,0.00519776,0.0983548,0.293192,0.00104695,0,0,0,0,0,0,0,0.539127,-35.4704,1.01259,24.162,2.48718,0.394522,0.0303194,
0.228547,0.051719,0.110584,-1.96513,0.49517,0.179593,0.0192285,0.000504231,-0.00932221,-0.00271867,0.0136188,0.0244124,0.0864326,-0.00169007,-0.000240606,0.0291935,-0.000963835,-0.0337208,0.0112606,-0.262149,0.00142714,2.81076,-1.51455,2.56833,-0.635149,1.62673,0.547119,-0.00702385,0.228404,0.0597798,0.113138,-1.97785,0.478551,0.104193,0.020643,0.0179503,-0.0153143,0.0252928,0.00519776,0.0983548,0.293192,0.00104695,0,0,0,0,0,0,0,0.539127,-35.4704,1.01259,24.162,2.48718,0.394522,0.0303194,
0.229302,0.0515017,0.111294,-1.96524,0.49878,0.186668,0.0192438,0.000504238,-0.00922927,-0.00271961,0.013496,0.0244024,0.0855346,-0.00168504,4.13977e-06,0.0580849,-0.000590006,-0.0767461,-0.00623161,-0.561222,0.00314226,2.81052,-1.48097,2.56931,-0.686711,1.62748,0.505113,-0.0068227,0.229398,0.0593724,0.113761,-1.97779,0.481878,0.113721,0.0206413,0.03521,-0.00841663,0.0104031,0.00182572,0.108048,0.276604,0.0020218,2.15747,0.862203,-1.86122,-0.421505,1.21167,-2.07353,0.121857,0.0551182,-34.9468,0.611891,25.4831,2.75543,0.971304,0.00376909,
0.229302,0.0515017,0.111294,-1.96524,0.49878,0.186668,0.0192438,0.000504243,-0.00915492,-0.00272037,0.0133978,0.0243944,0.0848162,-0.00168102,3.31182e-06,0.0464679,-0.000472005,-0.0613969,-0.00498528,-0.448978,0.00251381,2.81052,-1.48097,2.56931,-0.686711,1.62748,0.505113,-0.0068227,0.229398,0.0593724,0.113761,-1.97779,0.481878,0.113721,0.0206413,0.03521,-0.00841663,0.0104031,0.00182572,0.108048,0.276604,0.0020218,0,0,0,0,0,0,0,0.0551182,-34.9468,0.611891,25.4831,2.75543,0.971304,0.00376909,
0.229302,0.0515017,0.111294,-1.96524,0.49878,0.186668,0.0192438,0.000504247,-0.00909544,-0.00272097,0.0133192,0.024388,0.0842415,-0.0016778,2.64946e-06,0.0371743,-0.000377604,-0.0491175,-0.00398823,-0.359182,0.00201105,2.81052,-1.48097,2.56931,-0.686711,1.62748,0.505113,-0.0068227,0.229398,0.0593724,0.113761,-1.97779,0.481878,0.113721,0.0206413,0.03521,-0.00841663,0.0104031,0.00182572,0.108048,0.276604,0.0020218,0,0,0,0,0,0,0,0.0551182,-34.9468,0.611891,25.4831,2.75543,0.971304,0.00376909,
0.229302,0.0515017,0.111294,-1.96524,0.49878,0.186668,0.0192438,0.000504251,-0.00904786,-0.00272146,0.0132563,0.0243829,0.0837818,-0.00167523,2.11956e-06,0.0297395,-0.000302083,-0.039294,-0.00319058,-0.287346,0.00160884,2.81052,-1.48097,2.56931,-0.686711,1.62748,0.505113,-0.0068227,0.229398,0.0593724,0.113761,-1.97779,0.481878,0.113721,0.0206413,0.03521,-0.00841663,0.0104031,0.00182572,0.108048,0.276604,0.0020218,0,0,0,0,0,0,0,0.0551182,-34.9468,0.611891,25.4831,2.75543,0.971304,0.00376909,
0.230365,0.0515066,0.111977,-1.96562,0.502157,0.193362,0.0192568,0.000504553,-0.00895178,-0.00272411,0.0131387,0.0243731,0.0829325,-0.0016704,0.00018911,0.0600508,-0.00165903,-0.0735306,-0.00612998,-0.530788,0.00301824,2.81052,-1.48097,2.56931,-0.686711,1.62748,0.505113,-0.0068227,0.229398,0.0593724,0.113761,-1.97779,0.481878,0.113721,0.0206413,0.03521,-0.00841663,0.0104031,0.00182572,0.108048,0.276604,0.0020218,0,0,0,0,0,0,0,0.0551182,-34.9468,0.611891,25.4831,2.75543,0.971304,0.00376909,
0.230365,0.0515066,0.111977,-1.96562,0.502157,0.193362,0.0192568,0.000504795,-0.00887491,-0.00272624,0.0130445,0.0243653,0.0822531,-0.00166653,0.000151288,0.0480406,-0.00132722,-0.0588245,-0.00490398,-0.42463,0.00241459,2.80745,-1.44516,2.56649,-0.735445,1.62752,0.466321,-0.00659675,0.230296,0.0591121,0.114433,-1.97776,0.484865,0.122725,0.0206405,0.025422,-0.0124329,0.0239898,-0.000122421,0.0844612,0.261822,0.00185088,-1.22351,-0.502034,1.69834,-0.243517,-2.94838,-1.84773,-0.0213657,0.182071,-35.518,0.639662,24.9118,3.00628,0.745169,0.0101778,
0.230365,0.0515066,0.111977,-1.96562,0.502157,0.193362,0.0192568,0.000504989,-0.00881342,-0.00272793,0.0129692,0.024359,0.0817096,-0.00166344,0.00012103,0.0384325,-0.00106178,-0.0470596,-0.00392319,-0.339704,0.00193168,2.80745,-1.44516,2.56649,-0.735445,1.62752,0.466321,-0.00659675,0.230296,0.0591121,0.114433,-1.97776,0.484865,0.122725,0.0206405,0.025422,-0.0124329,0.0239898,-0.000122421,0.0844612,0.261822,0.00185088,0,0,0,0,0,0,0,0.182071,-35.518,0.639662,24.9118,3.00628,0.745169,0.0101778,
0.230365,0.0515066,0.111977,-1.96562,0.502157,0.193362,0.0192568,0.000505144,-0.00876423,-0.00272929,0.012909,0.024354,0.0812748,-0.00166097,9.68244e-05,0.030746,-0.000849422,-0.0376477,-0.00313855,-0.271763,0.00154534,2.80745,-1.44516,2.56649,-0.735445,1.62752,0.466321,-0.00659675,0.230296,0.0591121,0.114433,-1.97776,0.484865,0.122725,0.0206405,0.025422,-0.0124329,0.0239898,-0.000122421,0.0844612,0.261822,0.00185088,0,0,0,0,0,0,0,0.182071,-35.518,0.639662,24.9118,3.00628,0.745169,0.0101778,
0.231297,0.0514295,0.112682,-1.96594,0.504921,0.199689,0.0192674,0.000505601,-0.0086748,-0.00273149,0.0127963,0.0243692,0.08045,-0.00165631,0.000286058,0.0558897,-0.0013748,-0.070461,0.00949803,-0.515475,0.00291431,2.80745,-1.44516,2.56649,-0.735445,1.62752,0.466321,-0.00659675,0.230296,0.0591121,0.114433,-1.97776,0.484865,0.122725,0.0206405,0.025422,-0.0124329,0.0239898,-0.000122421,0.0844612,0.261822,0.00185088,0,0,0,0,0,0,0,0.182071,-35.518,0.639662,24.9118,3.00628,0.745169,0.0101778,
0.231297,0.0514295,0.112682,-1.96594,0.504921,0.199689,0.0192674,0.000505968,-0.00860327,-0.00273325,0.0127061,0.0243813,0.0797902,-0.00165258,0.000228846,0.0447118,-0.00109984,-0.0563688,0.00759842,-0.41238,0.00233145,2.80788,-1.41592,2.56811,-0.782899,1.63071,0.42748,-0.00639719,0.231178,0.0587209,0.115133,-1.97782,0.487374,0.131436,0.020633,0.0228972,0.000403288,0.0177649,-0.00235412,0.0757995,0.263451,-0.00090647,-0.315593,1.60452,-0.778112,-0.278962,-1.0827,0.203635,-0.344669,0.158268,-35.0935,0.687269,25.8798,3.31756,1.14342,0.0779268,
0.231297,0.0514295,0.112682,-1.96594,0.504921,0.199689,0.0192674,0.000506261,-0.00854603,-0.00273466,0.0126339,0.0243911,0.0792624,-0.00164959,0.000183077,0.0357694,-0.000879874,-0.045095,0.00607874,-0.329904,0.00186516,2.80788,-1.41592,2.56811,-0.782899,1.63071,0.42748,-0.00639719,0.231178,0.0587209,0.115133,-1.97782,0.487374,0.131436,0.020633,0.0228972,0.000403288,0.0177649,-0.00235412,0.0757995,0.263451,-0.00090647,0,0,0,0,0,0,0,0.158268,-35.0935,0.687269,25.8798,3.31756,1.14342,0.0779268,
0.232036,0.0515772,0.113232,-1.96642,0.507263,0.206147,0.0192745,0.000506886,-0.00843955,-0.00273897,0.0125177,0.0244567,0.0783804,-0.00164466,0.000390627,0.0665551,-0.00269052,-0.0726529,0.0410169,-0.551247,0.00308189,2.80788,-1.41592,2.56811,-0.782899,1.63071,0.42748,-0.00639719,0.231178,0.0587209,0.115133,-1.97782,0.487374,0.131436,0.020633,0.0228972,0.000403288,0.0177649,-0.00235412,0.0757995,0.263451,-0.00090647,0,0,0,0,0,0,0,0.158268,-35.0935,0.687269,25.8798,3.31756,1.14342,0.0779268,
0.232036,0.0515772,0.113232,-1.96642,0.507263,0.206147,0.0192745,0.000507386,-0.00835436,-0.00274241,0.0124247,0.0245092,0.0776748,-0.00164072,0.000312502,0.0532441,-0.00215241,-0.0581223,0.0328135,-0.440997,0.00246551,2.80788,-1.41592,2.56811,-0.782899,1.63071,0.42748,-0.00639719,0.231178,0.0587209,0.115133,-1.97782,0.487374,0.131436,0.020633,0.0228972,0.000403288,0.0177649,-0.00235412,0.0757995,0.263451,-0.00090647,0,0,0,0,0,0,0,0.158268,-35.0935,0.687269,25.8798,3.31756,1.14342,0.0779268,
0.232036,0.0515772,0.113232,-1.96642,0.507263,0.206147,0.0192745,0.000507786,-0.0082862,-0.00274516,0.0123503,0.0245512,0.0771103,-0.00163756,0.000250001,0.0425953,-0.00172193,-0.0464979,0.0262508,-0.352798,0.00197241,2.80725,-1.38072,2.56721,-0.8252,1.63302,0.392444,-0.0062142,0.232015,0.0586139,0.115615,-1.97782,0.489842,0.139696,0.0206368,0.027929,-0.0122434,0.00952005,-0.00397776,0.07887,0.229952,0.000936646,0.628978,-1.58084,-1.0306,-0.202956,0.383805,-4.18735,0.23039,0.463749,-35.7204,1.13954,25.4593,3.27453,0.812002,0.0440523,
0.232036,0.0515772,0.113232,-1.96642,0.507263,0.206147,0.0192745,0.000508106,-0.00823168,-0.00274737,0.0122908,0.0245848,0.0766587,-0.00163504,0.000200001,0.0340762,-0.00137754,-0.0371983,0.0210006,-0.282238,0.00157793,2.80725,-1.38072,2.56721,-0.8252,1.63302,0.392444,-0.0062142,0.232015,0.0586139,0.115615,-1.97782,0.489842,0.139696,0.0206368,0.027929,-0.0122434,0.00952005,-0.00397776,0.07887,0.229952,0.000936646,0,0,0,0,0,0,0,0.463749,-35.7204,1.13954,25.4593,3.27453,0.812002,0.0440523,
0.23289,0.0514475,0.113735,-1.96664,0.509917,0.211792,0.0192917,0.000508673,-0.00814369,-0.00274901,0.0121834,0.0246225,0.0758686,-0.00163057,0.000354631,0.0549942,-0.00102454,-0.0670938,0.0235757,-0.493808,0.0027922,2.80725,-1.38072,2.56721,-0.8252,1.63302,0.392444,-0.0062142,0.232015,0.0586139,0.115615,-1.97782,0.489842,0.139696,0.0206368,0.027929,-0.0122434,0.00952005,-0.00397776,0.07887,0.229952,0.000936646,0,0,0,0,0,0,0,0.463749,-35.7204,1.13954,25.4593,3.27453,0.812002,0.0440523,
0.23289,0.0514475,0.113735,-1.96664,0.509917,0.211792,0.0192917,0.000509127,-0.0080733,-0.00275032,0.0120975,0.0246527,0.0752365,-0.001627,0.000283705,0.0439954,-0.00081963,-0.053675,0.0188605,-0.395046,0.00223376,2.80725,-1.38072,2.56721,-0.8252,1.63302,0.392444,-0.0062142,0.232015,0.0586139,0.115615,-1.97782,0.489842,0.139696,0.0206368,0.027929,-0.0122434,0.00952005,-0.00397776,0.07887,0.229952,0.000936646,0,0,0,0,0,0,0,0.463749,-35.7204,1.13954,25.4593,3.27453,0.812002,0.0440523,
0.23289,0.0514475,0.113735,-1.96664,0.509917,0.211792,0.0192917,0.00050949,-0.00801698,-0.00275137,0.0120288,0.0246768,0.0747309,-0.00162414,0.000226964,0.0351963,-0.000655704,-0.04294,0.0150884,-0.316037,0.00178701,2.80532,-1.34743,2.5649,-0.865658,1.63447,0.359903,-0.00604293,0.232812,0.0585065,0.116168,-1.97786,0.492463,0.147551,0.0206375,0.0229402,0.00258068,0.0200506,0.00264446,0.0734275,0.220871,0.000457953,-0.623601,1.85301,1.31632,0.827778,-0.680306,-1.13515,-0.0598367,0.309024,-35.645,0.913405,25.7568,3.13446,1.01067,0.0376436,
0.23289,0.0514475,0.113735,-1.96664,0.509917,0.211792,0.0192917,0.000509781,-0.00797193,-0.00275221,0.0119739,0.0246961,0.0743264,-0.00162185,0.000181571,0.028157,-0.000524563,-0.034352,0.0120708,-0.252829,0.00142961,2.80532,-1.34743,2.5649,-0.865658,1.63447,0.359903,-0.00604293,0.232812,0.0585065,0.116168,-1.97786,0.492463,0.147551,0.0206375,0.0229402,0.00258068,0.0200506,0.00264446,0.0734275,0.220871,0.000457953,0,0,0,0,0,0,0,0.309024,-35.645,0.913405,25.7568,3.13446,1.01067,0.0376436,
0.233745,0.0518426,0.114323,-1.96703,0.512594,0.217583,0.0193011,0.000510342,-0.00786836,-0.00275947,0.0118796,0.0247415,0.0736311,-0.00161786,0.000350958,0.0647338,-0.0045399,-0.0589344,0.0283735,-0.434506,0.00249122,2.80532,-1.34743,2.5649,-0.865658,1.63447,0.359903,-0.00604293,0.232812,0.0585065,0.116168,-1.97786,0.492463,0.147551,0.0206375,0.0229402,0.00258068,0.0200506,0.00264446,0.0734275,0.220871,0.000457953,0,0,0,0,0,0,0,0.309024,-35.645,0.913405,25.7568,3.13446,1.01067,0.0376436,
0.233745,0.0518426,0.114323,-1.96703,0.512594,0.217583,0.0193011,0.000510791,-0.0077855,-0.00276528,0.0118042,0.0247779,0.073075,-0.00161467,0.000280766,0.0517871,-0.00363192,-0.0471475,0.0226988,-0.347605,0.00199298,2.80532,-1.34743,2.5649,-0.865658,1.63447,0.359903,-0.00604293,0.232812,0.0585065,0.116168,-1.97786,0.492463,0.147551,0.0206375,0.0229402,0.00258068,0.0200506,0.00264446,0.0734275,0.220871,0.000457953,0,0,0,0,0,0,0,0.309024,-35.645,0.913405,25.7568,3.13446,1.01067,0.0376436,
0.233745,0.0518426,0.114323,-1.96703,0.512594,0.217583,0.0193011,0.000511151,-0.00771921,-0.00276993,0.0117438,0.0248069,0.07263,-0.00161212,0.000224613,0.0414297,-0.00290554,-0.037718,0.0181591,-0.278084,0.00159438,2.80589,-1.30938,2.56471,-0.908801,1.63569,0.327281,-0.00586278,0.23362,0.0584442,0.116705,-1.97789,0.495336,0.155523,0.0206352,0.0263607,-0.00439752,0.0173079,-0.00281092,0.0705502,0.2317,-0.000421037,0.427565,-0.872276,-0.342834,-0.681922,-0.359664,1.35358,-0.109874,0.463749,-35.6688,1.01259,25.5347,3.07953,0.96398,0.0577852,
0.233745,0.0518426,0.114323,-1.96703,0.512594,0.217583,0.0193011,0.000511438,-0.00766618,-0.00277365,0.0116955,0.0248302,0.0722741,-0.00161008,0.00017969,0.0331437,-0.00232443,-0.0301744,0.0145273,-0.222467,0.0012755,2.80589,-1.30938,2.56471,-0.908801,1.63569,0.327281,-0.00586278,0.23362,0.0584442,0.116705,-1.97789,0.495336,0.155523,0.0206352,0.0263607,-0.00439752,0.0173079,-0.00281092,0.0705502,0.2317,-0.000421037,0,0,0,0,0,0,0,0.463749,-35.6688,1.01259,25.5347,3.07953,0.96398,0.0577852,
0.23455,0.0519249,0.114851,-1.9673,0.515524,0.223596,0.0193103,0.000512015,-0.00756622,-0.0027792,0.0115972,0.0248662,0.0715643,-0.00160598,0.000360787,0.0624781,-0.00346727,-0.0614652,0.0225413,-0.44364,0.00256397,2.80589,-1.30938,2.56471,-0.908801,1.63569,0.327281,-0.00586278,0.23362,0.0584442,0.116705,-1.97789,0.495336,0.155523,0.0206352,0.0263607,-0.00439752,0.0173079,-0.00281092,0.0705502,0.2317,-0.000421037,0,0,0,0,0,0,0,0.463749,-35.6688,1.01259,25.5347,3.07953,0.96398,0.0577852,
0.23455,0.0519249,0.114851,-1.9673,0.515524,0.223596,0.0193103,0.000512477,-0.00748624,-0.00278364,0.0115185,0.0248951,0.0709964,-0.0016027,0.000288629,0.0499825,-0.00277381,-0.0491721,0.018033,-0.354912,0.00205117,2.80589,-1.30938,2.56471,-0.908801,1.63569,0.327281,-0.00586278,0.23362,0.0584442,0.116705,-1.97789,0.495336,0.155523,0.0206352,0.0263607,-0.00439752,0.0173079,-0.00281092,0.0705502,0.2317,-0.000421037,0,0,0,0,0,0,0,0.463749,-35.6688,1.01259,25.5347,3.07953,0.96398,0.0577852,
0.23455,0.0519249,0.114851,-1.9673,0.515524,0.223596,0.0193103,0.000512847,-0.00742227,-0.00278719,0.0114556,0.0249182,0.0705421,-0.00160007,0.000230903,0.039986,-0.00221905,-0.0393377,0.0144264,-0.28393,0.00164094,2.80429,-1.27666,2.562,-0.945712,1.63594,0.298492,-0.00570768,0.234535,0.0584416,0.11726,-1.9779,0.498346,0.162783,0.0206384,0.0332931,5.69849e-05,0.0130574,0.00294028,0.0714471,0.205377,0.000605006,0.866542,0.556814,-0.531313,0.7189,0.112112,-3.29039,0.128255,0.360599,-35.9187,0.913405,25.6339,3.00628,1.01067,0.0303194,
0.23455,0.0519249,0.114851,-1.9673,0.515524,0.223596,0.0193103,0.000513142,-0.00737109,-0.00279003,0.0114052,0.0249366,0.0701787,-0.00159797,0.000184723,0.0319888,-0.00177524,-0.0314702,0.0115411,-0.227144,0.00131275,2.80429,-1.27666,2.562,-0.945712,1.63594,0.298492,-0.00570768,0.234535,0.0584416,0.11726,-1.9779,0.498346,0.162783,0.0206384,0.0332931,5.69849e-05,0.0130574,0.00294028,0.0714471,0.205377,0.000605006,0,0,0,0,0,0,0,0.360599,-35.9187,0.913405,25.6339,3.00628,1.01067,0.0303194,
0.235533,0.0522003,0.115454,-1.96758,0.518591,0.228795,0.0193228,0.000513641,-0.00727216,-0.00279772,0.0113159,0.0249456,0.0695619,-0.0015943,0.00031145,0.0618298,-0.00480979,-0.0557913,0.00561744,-0.385514,0.00229589,2.80429,-1.27666,2.562,-0.945712,1.63594,0.298492,-0.00570768,0.234535,0.0584416,0.11726,-1.9779,0.498346,0.162783,0.0206384,0.0332931,5.69849e-05,0.0130574,0.00294028,0.0714471,0.205377,0.000605006,0,0,0,0,0,0,0,0.360599,-35.9187,0.913405,25.6339,3.00628,1.01067,0.0303194,
0.235533,0.0522003,0.115454,-1.96758,0.518591,0.228795,0.0193228,0.000514039,-0.00719302,-0.00280388,0.0112445,0.0249528,0.0690684,-0.00159136,0.00024916,0.0494638,-0.00384783,-0.044633,0.00449395,-0.308411,0.00183671,2.80429,-1.27666,2.562,-0.945712,1.63594,0.298492,-0.00570768,0.234535,0.0584416,0.11726,-1.9779,0.498346,0.162783,0.0206384,0.0332931,5.69849e-05,0.0130574,0.00294028,0.0714471,0.205377,0.000605006,0,0,0,0,0,0,0,0.360599,-35.9187,0.913405,25.6339,3.00628,1.01067,0.0303194,
0.235533,0.0522003,0.115454,-1.96758,0.518591,0.228795,0.0193228,0.000514358,-0.0071297,-0.0028088,0.0111874,0.0249586,0.0686736,-0.00158901,0.000199328,0.0395711,-0.00307827,-0.0357064,0.00359516,-0.246729,0.00146937,2.80484,-1.24412,2.56166,-0.983198,1.63653,0.270477,-0.0055635,0.235504,0.0583934,0.117821,-1.97796,0.501385,0.169915,0.020629,0.0291352,-0.000742512,0.0208923,0.000513253,0.0837989,0.204866,-0.00133218,-0.519731,-0.0999371,0.97936,-0.303378,1.54397,-0.0638485,-0.242149,0.0551182,-35.5934,0.639662,25.7568,3.07312,1.19652,0.0706026,
0.235533,0.0522003,0.115454,-1.96758,0.518591,0.228795,0.0193228,0.000514613,-0.00707905,-0.00281274,0.0111417,0.0249632,0.0683578,-0.00158713,0.000159463,0.0316569,-0.00246261,-0.0285651,0.00287613,-0.197383,0.00117549,2.80484,-1.24412,2.56166,-0.983198,1.63653,0.270477,-0.0055635,0.235504,0.0583934,0.117821,-1.97796,0.501385,0.169915,0.020629,0.0291352,-0.000742512,0.0208923,0.000513253,0.0837989,0.204866,-0.00133218,0,0,0,0,0,0,0,0.0551182,-35.5934,0.639662,25.7568,3.07312,1.19652,0.0706026,
0.236566,0.0523583,0.116068,-1.96788,0.52183,0.23413,0.0193229,0.000515085,-0.00698512,-0.00281992,0.011053,0.0249575,0.0677643,-0.00158353,0.000294494,0.0587066,-0.00448636,-0.0554323,-0.00356371,-0.370988,0.00225161,2.80484,-1.24412,2.56166,-0.983198,1.63653,0.270477,-0.0055635,0.235504,0.0583934,0.117821,-1.97796,0.501385,0.169915,0.020629,0.0291352,-0.000742512,0.0208923,0.000513253,0.0837989,0.204866,-0.00133218,0,0,0,0,0,0,0,0.0551182,-35.5934,0.639662,25.7568,3.07312,1.19652,0.0706026,
0.236566,0.0523583,0.116068,-1.96788,0.52183,0.23413,0.0193229,0.000515461,-0.00690998,-0.00282567,0.0109821,0.0249529,0.0672894,-0.00158064,0.000235595,0.0469653,-0.00358908,-0.0443458,-0.00285097,-0.29679,0.00180129,2.80484,-1.24412,2.56166,-0.983198,1.63653,0.270477,-0.0055635,0.235504,0.0583934,0.117821,-1.97796,0.501385,0.169915,0.020629,0.0291352,-0.000742512,0.0208923,0.000513253,0.0837989,0.204866,-0.00133218,0,0,0,0,0,0,0,0.0551182,-35.5934,0.639662,25.7568,3.07312,1.19652,0.0706026,
0.236566,0.0523583,0.116068,-1.96788,0.52183,0.23413,0.0193229,0.000515763,-0.00684986,-0.00283026,0.0109253,0.0249492,0.0669095,-0.00157834,0.000188476,0.0375722,-0.00287127,-0.0354767,-0.00228077,-0.237432,0.00144103,2.80484,-1.24412,2.56166,-0.983198,1.63653,0.270477,-0.0055635,0.235504,0.0583934,0.117821,-1.97796,0.501385,0.169915,0.020629,0.0291352,-0.000742512,0.0208923,0.000513253,0.0837989,0.204866,-0.00133218,0,0,0,0,0,0,0,0.0551182,-35.5934,0.639662,25.7568,3.07312,1.19652,0.0706026,
0.237505,0.0525868,0.116661,-1.96816,0.524547,0.238943,0.0193303,0.000516269,-0.00675043,-0.00283868,0.0108349,0.0249529,0.0663029,-0.00157465,0.000316401,0.0621438,-0.00526195,-0.0565191,0.00228332,-0.379139,0.00230452,2.80342,-1.21414,2.55902,-1.018,1.63679,0.243955,-0.00540812,0.236446,0.0583928,0.118431,-1.97797,0.504276,0.176633,0.0206275,0.0247318,-0.000959725,0.0241853,0.000655914,0.0713552,0.182395,-0.00140056,-0.550424,-0.0271516,0.411625,0.0178327,-1.55547,-2.80883,-0.00854734,0.309024,-35.6926,0.961012,25.4315,3.07953,1.01708,0.0843355,
0.237505,0.0525868,0.116661,-1.96816,0.524547,0.238943,0.0193303,0.000516674,-0.00667089,-0.00284541,0.0107625,0.0249558,0.0658176,-0.0015717,0.000253121,0.049715,-0.00420956,-0.0452153,0.00182665,-0.303311,0.00184362,2.80342,-1.21414,2.55902,-1.018,1.63679,0.243955,-0.00540812,0.236446,0.0583928,0.118431,-1.97797,0.504276,0.176633,0.0206275,0.0247318,-0.000959725,0.0241853,0.000655914,0.0713552,0.182395,-0.00140056,0,0,0,0,0,0,0,0.309024,-35.6926,0.961012,25.4315,3.07953,1.01708,0.0843355,
0.237505,0.0525868,0.116661,-1.96816,0.524547,0.238943,0.0193303,0.000516998,-0.00660725,-0.0028508,0.0107046,0.0249582,0.0654293,-0.00156934,0.000202496,0.039772,-0.00336765,-0.0361723,0.00146132,-0.242649,0.00147489,2.80342,-1.21414,2.55902,-1.018,1.63679,0.243955,-0.00540812,0.236446,0.0583928,0.118431,-1.97797,0.504276,0.176633,0.0206275,0.0247318,-0.000959725,0.0241853,0.000655914,0.0713552,0.182395,-0.00140056,0,0,0,0,0,0,0,0.309024,-35.6926,0.961012,25.4315,3.07953,1.01708,0.0843355,
0.237505,0.0525868,0.116661,-1.96816,0.524547,0.238943,0.0193303,0.000517257,-0.00655634,-0.00285511,0.0106583,0.02496,0.0651188,-0.00156745,0.000161997,0.0318176,-0.00269412,-0.0289378,0.00116906,-0.194119,0.00117991,2.80342,-1.21414,2.55902,-1.018,1.63679,0.243955,-0.00540812,0.236446,0.0583928,0.118431,-1.97797,0.504276,0.176633,0.0206275,0.0247318,-0.000959725,0.0241853,0.000655914,0.0713552,0.182395,-0.00140056,0,0,0,0,0,0,0,0.309024,-35.6926,0.961012,25.4315,3.07953,1.01708,0.0843355,
0.238447,0.0528946,0.117169,-1.96844,0.527601,0.243691,0.0193416,0.000517707,-0.00645954,-0.00286418,0.0105775,0.0249532,0.0645929,-0.00156419,0.000280798,0.0605012,-0.00566903,-0.0505552,-0.00424336,-0.328648,0.00204221,2.8051,-1.18526,2.55944,-1.05002,1.63756,0.22043,-0.00529323,0.237396,0.0584135,0.118965,-1.97803,0.507154,0.182765,0.0206275,0.033736,0.00190273,0.0126967,-0.00258667,0.0915076,0.185575,-0.000573155,1.12552,0.357807,-1.43607,-0.405323,2.51905,0.397464,0.103426,0.0828892,-35.9425,0.762648,25.733,3.13995,1.22307,0.0843355,
0.238447,0.0528946,0.117169,-1.96844,0.527601,0.243691,0.0193416,0.000518066,-0.0063821,-0.00287144,0.0105127,0.0249478,0.0641722,-0.00156157,0.000224639,0.048401,-0.00453523,-0.0404442,-0.00339469,-0.262919,0.00163377,2.8051,-1.18526,2.55944,-1.05002,1.63756,0.22043,-0.00529323,0.237396,0.0584135,0.118965,-1.97803,0.507154,0.182765,0.0206275,0.033736,0.00190273,0.0126967,-0.00258667,0.0915076,0.185575,-0.000573155,0,0,0,0,0,0,0,0.0828892,-35.9425,0.762648,25.733,3.13995,1.22307,0.0843355,
0.238447,0.0528946,0.117169,-1.96844,0.527601,0.243691,0.0193416,0.000518354,-0.00632015,-0.00287724,0.010461,0.0249435,0.0638357,-0.00155948,0.000179711,0.0387208,-0.00362818,-0.0323554,-0.00271575,-0.210335,0.00130701,2.8051,-1.18526,2.55944,-1.05002,1.63756,0.22043,-0.00529323,0.237396,0.0584135,0.118965,-1.97803,0.507154,0.182765,0.0206275,0.033736,0.00190273,0.0126967,-0.00258667,0.0915076,0.185575,-0.000573155,0,0,0,0,0,0,0,0.0828892,-35.9425,0.762648,25.733,3.13995,1.22307,0.0843355,
0.238447,0.0528946,0.117169,-1.96844,0.527601,0.243691,0.0193416,0.000518584,-0.00627058,-0.00288189,0.0104196,0.02494,0.0635665,-0.00155781,0.000143769,0.0309766,-0.00290254,-0.0258843,-0.0021726,-0.168268,0.00104561,2.8051,-1.18526,2.55944,-1.05002,1.63756,0.22043,-0.00529323,0.237396,0.0584135,0.118965,-1.97803,0.507154,0.182765,0.0206275,0.033736,0.00190273,0.0126967,-0.00258667,0.0915076,0.185575,-0.000573155,0,0,0,0,0,0,0,0.0828892,-35.9425,0.762648,25.733,3.13995,1.22307,0.0843355,
0.238447,0.0528946,0.117169,-1.96844,0.527601,0.243691,0.0193416,0.000518768,-0.00623093,-0.0028856,0.0103864,0.0249372,0.0633511,-0.00155647,0.000115015,0.0247813,-0.00232204,-0.0207074,-0.00173808,-0.134614,0.000836489,2.80587,-1.156,2.55915,-1.08359,1.63792,0.196431,-0.00515912,0.238239,0.0583916,0.11953,-1.97814,0.510089,0.189083,0.020629,0.0251375,-0.00278113,0.0216878,-0.00748662,0.0929208,0.194233,-0.000847695,-1.0748,-0.585482,1.12389,-0.612494,0.176646,1.08229,-0.0343175,0.182071,-35.645,0.786451,25.6577,3.12164,1.26244,0.0706026,
0.238447,0.0528946,0.117169,-1.96844,0.527601,0.243691,0.0193416,0.000518915,-0.00619921,-0.00288858,0.0103599,0.024935,0.0631788,-0.0015554,9.2012e-05,0.019825,-0.00185763,-0.0165659,-0.00139047,-0.107691,0.000669191,2.80587,-1.156,2.55915,-1.08359,1.63792,0.196431,-0.00515912,0.238239,0.0583916,0.11953,-1.97814,0.510089,0.189083,0.020629,0.0251375,-0.00278113,0.0216878,-0.00748662,0.0929208,0.194233,-0.000847695,0,0,0,0,0,0,0,0.182071,-35.645,0.786451,25.6577,3.12164,1.26244,0.0706026,
0.238447,0.0528946,0.117169,-1.96844,0.527601,0.243691,0.0193416,0.000519033,-0.00617384,-0.00289095,0.0103387,0.0249332,0.0630409,-0.00155454,7.36096e-05,0.01586,-0.0014861,-0.0132528,-0.00111237,-0.0861532,0.000535353,2.80587,-1.156,2.55915,-1.08359,1.63792,0.196431,-0.00515912,0.238239,0.0583916,0.11953,-1.97814,0.510089,0.189083,0.020629,0.0251375,-0.00278113,0.0216878,-0.00748662,0.0929208,0.194233,-0.000847695,0,0,0,0,0,0,0,0.182071,-35.645,0.786451,25.6577,3.12164,1.26244,0.0706026,
0.238447,0.0528946,0.117169,-1.96844,0.527601,0.243691,0.0193416,0.000519127,-0.00615354,-0.00289286,0.0103218,0.0249318,0.0629307,-0.00155386,5.88877e-05,0.012688,-0.00118888,-0.0106022,-0.000889898,-0.0689225,0.000428282,2.80587,-1.156,2.55915,-1.08359,1.63792,0.196431,-0.00515912,0.238239,0.0583916,0.11953,-1.97814,0.510089,0.189083,0.020629,0.0251375,-0.00278113,0.0216878,-0.00748662,0.0929208,0.194233,-0.000847695,0,0,0,0,0,0,0,0.182071,-35.645,0.786451,25.6577,3.12164,1.26244,0.0706026,
0.239285,0.0530058,0.11772,-1.96875,0.530565,0.248575,0.0193524,0.000519467,-0.00609053,-0.00289759,0.0102606,0.0249307,0.062535,-0.0015514,0.000212457,0.0393784,-0.0029569,-0.0382043,-0.000668604,-0.247306,0.00153325,2.80478,-1.12853,2.55689,-1.11479,1.63882,0.172646,-0.00501775,0.239138,0.0584206,0.120035,-1.97826,0.512883,0.195327,0.0206335,0.0298758,0.000755204,0.00972109,-0.00724804,0.0813898,0.169862,0.00132621,0.592288,0.442042,-1.49584,0.029823,-1.44138,-3.04646,0.271738,0.00751081,-36.0417,0.611891,25.9314,3.06671,1.18279,0.0303194,
0.239285,0.0530058,0.11772,-1.96875,0.530565,0.248575,0.0193524,0.000519739,-0.00604013,-0.00290137,0.0102117,0.0249298,0.0622184,-0.00154944,0.000169966,0.0315028,-0.00236552,-0.0305634,-0.000534883,-0.197845,0.0012266,2.80478,-1.12853,2.55689,-1.11479,1.63882,0.172646,-0.00501775,0.239138,0.0584206,0.120035,-1.97826,0.512883,0.195327,0.0206335,0.0298758,0.000755204,0.00972109,-0.00724804,0.0813898,0.169862,0.00132621,0,0,0,0,0,0,0,0.00751081,-36.0417,0.611891,25.9314,3.06671,1.18279,0.0303194,
0.239285,0.0530058,0.11772,-1.96875,0.530565,0.248575,0.0193524,0.000519956,-0.0059998,-0.0029044,0.0101726,0.0249292,0.0619652,-0.00154787,0.000135972,0.0252022,-0.00189242,-0.0244507,-0.000427906,-0.158276,0.000981278,2.80478,-1.12853,2.55689,-1.11479,1.63882,0.172646,-0.00501775,0.239138,0.0584206,0.120035,-1.97826,0.512883,0.195327,0.0206335,0.0298758,0.000755204,0.00972109,-0.00724804,0.0813898,0.169862,0.00132621,0,0,0,0,0,0,0,0.00751081,-36.0417,0.611891,25.9314,3.06671,1.18279,0.0303194,
0.239285,0.0530058,0.11772,-1.96875,0.530565,0.248575,0.0193524,0.00052013,-0.00596754,-0.00290682,0.0101413,0.0249286,0.0617626,-0.00154661,0.000108778,0.0201618,-0.00151393,-0.0195606,-0.000342325,-0.126621,0.000785023,2.80478,-1.12853,2.55689,-1.11479,1.63882,0.172646,-0.00501775,0.239138,0.0584206,0.120035,-1.97826,0.512883,0.195327,0.0206335,0.0298758,0.000755204,0.00972109,-0.00724804,0.0813898,0.169862,0.00132621,0,0,0,0,0,0,0,0.00751081,-36.0417,0.611891,25.9314,3.06671,1.18279,0.0303194,
0.240105,0.0533544,0.118128,-1.96915,0.533129,0.253151,0.0193674,0.000520537,-0.00588689,-0.00291443,0.0100779,0.024949,0.0613422,-0.00154401,0.000254372,0.0504068,-0.00475291,-0.0396398,0.0127688,-0.262753,0.00162741,2.80429,-1.10367,2.55529,-1.14357,1.63818,0.152819,-0.00490122,0.239868,0.0584127,0.120566,-1.97832,0.515713,0.200716,0.020632,0.0183167,-0.000714121,0.0220794,-0.000330125,0.0842689,0.157535,-0.000145039,-1.4449,-0.183666,1.54479,0.864739,0.359889,-1.54078,-0.183906,-0.0440639,-35.8949,0.588087,25.8798,2.99347,1.31554,0.0440523,
0.240105,0.0533544,0.118128,-1.96915,0.533129,0.253151,0.0193674,0.000520863,-0.00582237,-0.00292051,0.0100271,0.0249654,0.0610059,-0.00154193,0.000203497,0.0403254,-0.00380233,-0.0317119,0.0102151,-0.210203,0.00130192,2.80429,-1.10367,2.55529,-1.14357,1.63818,0.152819,-0.00490122,0.239868,0.0584127,0.120566,-1.97832,0.515713,0.200716,0.020632,0.0183167,-0.000714121,0.0220794,-0.000330125,0.0842689,0.157535,-0.000145039,0,0,0,0,0,0,0,-0.0440639,-35.8949,0.588087,25.8798,2.99347,1.31554,0.0440523,
0.240105,0.0533544,0.118128,-1.96915,0.533129,0.253151,0.0193674,0.000521123,-0.00577076,-0.00292538,0.00998655,0.0249785,0.0607368,-0.00154026,0.000162798,0.0322603,-0.00304186,-0.0253695,0.00817206,-0.168162,0.00104154,2.80429,-1.10367,2.55529,-1.14357,1.63818,0.152819,-0.00490122,0.239868,0.0584127,0.120566,-1.97832,0.515713,0.200716,0.020632,0.0183167,-0.000714121,0.0220794,-0.000330125,0.0842689,0.157535,-0.000145039,0,0,0,0,0,0,0,-0.0440639,-35.8949,0.588087,25.8798,2.99347,1.31554,0.0440523,
0.240105,0.0533544,0.118128,-1.96915,0.533129,0.253151,0.0193674,0.000521332,-0.00572946,-0.00292927,0.00995408,0.0249889,0.0605216,-0.00153893,0.000130238,0.0258083,-0.00243349,-0.0202956,0.00653764,-0.13453,0.000833232,2.80429,-1.10367,2.55529,-1.14357,1.63818,0.152819,-0.00490122,0.239868,0.0584127,0.120566,-1.97832,0.515713,0.200716,0.020632,0.0183167,-0.000714121,0.0220794,-0.000330125,0.0842689,0.157535,-0.000145039,0,0,0,0,0,0,0,-0.0440639,-35.8949,0.588087,25.8798,2.99347,1.31554,0.0440523,
0.240855,0.0534024,0.118675,-1.96933,0.536053,0.257231,0.0193721,0.0005217,-0.0056588,-0.00293493,0.00988555,0.0249763,0.0600975,-0.00153623,0.000229929,0.0441647,-0.0035383,-0.0428278,-0.00789943,-0.265012,0.0016875,2.8044,-1.07824,2.55421,-1.17217,1.638,0.133094,-0.00478566,0.240579,0.0584255,0.121081,-1.97844,0.518592,0.206169,0.0206297,0.0261487,-0.00156316,0.013697,-0.00028484,0.0845776,0.157908,-0.00147659,0.979001,-0.106129,-1.0478,0.0056607,0.0385882,0.0465707,-0.166444,0.134464,-36.0933,0.762648,26.0306,2.8836,1.44829,0.0641939,
0.240855,0.0534024,0.118675,-1.96933,0.536053,0.257231,0.0193721,0.000521994,-0.00560227,-0.00293946,0.00983073,0.0249662,0.0597583,-0.00153407,0.000183943,0.0353317,-0.00283064,-0.0342622,-0.00631955,-0.21201,0.00135,2.8044,-1.07824,2.55421,-1.17217,1.638,0.133094,-0.00478566,0.240579,0.0584255,0.121081,-1.97844,0.518592,0.206169,0.0206297,0.0261487,-0.00156316,0.013697,-0.00028484,0.0845776,0.157908,-0.00147659,0,0,0,0,0,0,0,0.134464,-36.0933,0.762648,26.0306,2.8836,1.44829,0.0641939,
0.240855,0.0534024,0.118675,-1.96933,0.536053,0.257231,0.0193721,0.00052223,-0.00555704,-0.00294308,0.00978688,0.0249581,0.0594869,-0.00153234,0.000147154,0.0282654,-0.00226451,-0.0274098,-0.00505564,-0.169608,0.00108,2.8044,-1.07824,2.55421,-1.17217,1.638,0.133094,-0.00478566,0.240579,0.0584255,0.121081,-1.97844,0.518592,0.206169,0.0206297,0.0261487,-0.00156316,0.013697,-0.00028484,0.0845776,0.157908,-0.00147659,0,0,0,0,0,0,0,0.134464,-36.0933,0.762648,26.0306,2.8836,1.44829,0.0641939,
0.240855,0.0534024,0.118675,-1.96933,0.536053,0.257231,0.0193721,0.000522418,-0.00552086,-0.00294598,0.00975179,0.0249516,0.0592699,-0.00153096,0.000117724,0.0226123,-0.00181161,-0.0219278,-0.00404451,-0.135686,0.000864002,2.8044,-1.07824,2.55421,-1.17217,1.638,0.133094,-0.00478566,0.240579,0.0584255,0.121081,-1.97844,0.518592,0.206169,0.0206297,0.0261487,-0.00156316,0.013697,-0.00028484,0.0845776,0.157908,-0.00147659,0,0,0,0,0,0,0,0.134464,-36.0933,0.762648,26.0306,2.8836,1.44829,0.0641939,
0.24156,0.0535717,0.119171,-1.96962,0.538917,0.261489,0.0193772,0.000522793,-0.00544788,-0.00295216,0.00968327,0.0249411,0.0588503,-0.00152826,0.000234667,0.0456142,-0.00385958,-0.0428276,-0.00656846,-0.262206,0.00168552,2.80454,-1.0537,2.55339,-1.20064,1.63856,0.112846,-0.00466922,0.241275,0.0584226,0.121559,-1.97856,0.521322,0.211652,0.0206349,0.0206204,0.000547389,0.0135658,0.0021498,0.0854152,0.148949,0.000708309,-0.691036,0.263818,-0.0163953,0.30433,0.104701,-1.11991,0.273112,0.463749,-35.9703,1.13954,25.7568,2.94494,1.32287,0.017502,
0.24156,0.0535717,0.119171,-1.96962,0.538917,0.261489,0.0193772,0.000523094,-0.0053895,-0.0029571,0.00962845,0.0249327,0.0585147,-0.0015261,0.000187733,0.0364913,-0.00308767,-0.0342621,-0.00525477,-0.209765,0.00134842,2.80454,-1.0537,2.55339,-1.20064,1.63856,0.112846,-0.00466922,0.241275,0.0584226,0.121559,-1.97856,0.521322,0.211652,0.0206349,0.0206204,0.000547389,0.0135658,0.0021498,0.0854152,0.148949,0.000708309,0,0,0,0,0,0,0,0.463749,-35.9703,1.13954,25.7568,2.94494,1.32287,0.017502,
0.24156,0.0535717,0.119171,-1.96962,0.538917,0.261489,0.0193772,0.000523334,-0.00534279,-0.00296105,0.00958459,0.024926,0.0582462,-0.00152438,0.000150187,0.0291931,-0.00247013,-0.0274096,-0.00420382,-0.167812,0.00107873,2.80454,-1.0537,2.55339,-1.20064,1.63856,0.112846,-0.00466922,0.241275,0.0584226,0.121559,-1.97856,0.521322,0.211652,0.0206349,0.0206204,0.000547389,0.0135658,0.0021498,0.0854152,0.148949,0.000708309,0,0,0,0,0,0,0,0.463749,-35.9703,1.13954,25.7568,2.94494,1.32287,0.017502,
0.24156,0.0535717,0.119171,-1.96962,0.538917,0.261489,0.0193772,0.000523526,-0.00530542,-0.00296421,0.00954951,0.0249206,0.0580314,-0.001523,0.000120149,0.0233545,-0.00197611,-0.0219277,-0.00336305,-0.13425,0.000862987,2.80454,-1.0537,2.55339,-1.20064,1.63856,0.112846,-0.00466922,0.241275,0.0584226,0.121559,-1.97856,0.521322,0.211652,0.0206349,0.0206204,0.000547389,0.0135658,0.0021498,0.0854152,0.148949,0.000708309,0,0,0,0,0,0,0,0.463749,-35.9703,1.13954,25.7568,2.94494,1.32287,0.017502,
0.242183,0.0537775,0.119568,-1.96993,0.541627,0.265726,0.0193921,0.000523922,-0.00522919,-0.00297068,0.00948243,0.0249216,0.0576171,-0.00152034,0.000247263,0.0476429,-0.00404342,-0.0419251,0.000634517,-0.258944,0.00166043,2.80454,-1.0537,2.55339,-1.20064,1.63856,0.112846,-0.00466922,0.241275,0.0584226,0.121559,-1.97856,0.521322,0.211652,0.0206349,0.0206204,0.000547389,0.0135658,0.0021498,0.0854152,0.148949,0.000708309,0,0,0,0,0,0,0,0.463749,-35.9703,1.13954,25.7568,2.94494,1.32287,0.017502,
0.242183,0.0537775,0.119568,-1.96993,0.541627,0.265726,0.0193921,0.000524238,-0.00516821,-0.00297586,0.00942877,0.0249224,0.0572856,-0.00151821,0.000197811,0.0381143,-0.00323474,-0.0335401,0.000507614,-0.207155,0.00132834,2.80386,-1.03148,2.55167,-1.2259,1.63793,0.0957463,-0.00456402,0.241956,0.0584338,0.121992,-1.97867,0.52414,0.21653,0.0206349,0.0196497,-0.000150312,0.0141628,0.00351495,0.0831195,0.132551,7.34983e-05,-0.121338,-0.0872127,0.0746203,0.170644,-0.286956,-2.04967,-0.0793513,0.309024,-36.0933,0.988783,25.733,2.81036,1.34209,0.017502,
0.242183,0.0537775,0.119568,-1.96993,0.541627,0.265726,0.0193921,0.000524492,-0.00511942,-0.00298,0.00938583,0.0249231,0.0570205,-0.00151651,0.000158249,0.0304915,-0.00258779,-0.0268321,0.000406091,-0.165724,0.00106267,2.80386,-1.03148,2.55167,-1.2259,1.63793,0.0957463,-0.00456402,0.241956,0.0584338,0.121992,-1.97867,0.52414,0.21653,0.0206349,0.0196497,-0.000150312,0.0141628,0.00351495,0.0831195,0.132551,7.34983e-05,0,0,0,0,0,0,0,0.309024,-36.0933,0.988783,25.733,2.81036,1.34209,0.017502,
0.242188,0.0537385,0.119544,-1.96986,0.541692,0.266212,0.0193801,0.000524573,-0.00507592,-0.00298282,0.00934492,0.0249316,0.0567571,-0.00151488,5.11907e-05,0.0271884,-0.0017655,-0.0255709,0.00533907,-0.164619,0.00101991,2.80386,-1.03148,2.55167,-1.2259,1.63793,0.0957463,-0.00456402,0.241956,0.0584338,0.121992,-1.97867,0.52414,0.21653,0.0206349,0.0196497,-0.000150312,0.0141628,0.00351495,0.0831195,0.132551,7.34983e-05,0,0,0,0,0,0,0,0.309024,-36.0933,0.988783,25.733,2.81036,1.34209,0.017502,
0.242879,0.0539238,0.120006,-1.97022,0.544371,0.269367,0.0193982,0.000524935,-0.00500814,-0.00298904,0.00928414,0.0249161,0.0564027,-0.00151253,0.000225749,0.0423596,-0.00388332,-0.037986,-0.00967123,-0.221517,0.00147312,2.80386,-1.03148,2.55167,-1.2259,1.63793,0.0957463,-0.00456402,0.241956,0.0584338,0.121992,-1.97867,0.52414,0.21653,0.0206349,0.0196497,-0.000150312,0.0141628,0.00351495,0.0831195,0.132551,7.34983e-05,0,0,0,0,0,0,0,0.309024,-36.0933,0.988783,25.733,2.81036,1.34209,0.017502,
0.242879,0.0539238,0.120006,-1.97022,0.544371,0.269367,0.0193982,0.000525224,-0.00495392,-0.00299401,0.00923552,0.0249038,0.0561191,-0.00151064,0.000180599,0.0338877,-0.00310665,-0.0303888,-0.00773699,-0.177214,0.0011785,2.80353,-1.0115,2.55021,-1.2489,1.63742,0.0803222,-0.00447113,0.24263,0.0584523,0.122467,-1.9788,0.526809,0.221011,0.0206313,0.0206427,0.00147746,0.0135342,0.00164927,0.0821942,0.123104,0.000258331,0.124126,0.203472,-0.0785683,-0.23321,-0.115661,-1.18087,0.0231041,0.412174,-36.2679,1.03639,25.9552,2.8717,1.37505,0.050461,
0.242879,0.0539238,0.120006,-1.97022,0.544371,0.269367,0.0193982,0.000525455,-0.00491055,-0.00299798,0.00919662,0.0248939,0.0558923,-0.00150913,0.000144479,0.0271102,-0.00248532,-0.024311,-0.00618959,-0.141771,0.000942797,2.80353,-1.0115,2.55021,-1.2489,1.63742,0.0803222,-0.00447113,0.24263,0.0584523,0.122467,-1.9788,0.526809,0.221011,0.0206313,0.0206427,0.00147746,0.0135342,0.00164927,0.0821942,0.123104,0.000258331,0,0,0,0,0,0,0,0.412174,-36.2679,1.03639,25.9552,2.8717,1.37505,0.050461,
0.243573,0.0541483,0.120483,-1.97054,0.546942,0.272765,0.0194008,0.000525799,-0.00483839,-0.00300575,0.00913543,0.0248763,0.055544,-0.00150676,0.000215212,0.0451004,-0.00485659,-0.0382432,-0.0110019,-0.217659,0.00147918,2.80353,-1.0115,2.55021,-1.2489,1.63742,0.0803222,-0.00447113,0.24263,0.0584523,0.122467,-1.9788,0.526809,0.221011,0.0206313,0.0206427,0.00147746,0.0135342,0.00164927,0.0821942,0.123104,0.000258331,0,0,0,0,0,0,0,0.412174,-36.2679,1.03639,25.9552,2.8717,1.37505,0.050461,
0.243573,0.0541483,0.120483,-1.97054,0.546942,0.272765,0.0194008,0.000526075,-0.00478066,-0.00301197,0.00908648,0.0248622,0.0552654,-0.00150487,0.000172169,0.0360803,-0.00388527,-0.0305945,-0.00880149,-0.174127,0.00118335,2.80353,-1.0115,2.55021,-1.2489,1.63742,0.0803222,-0.00447113,0.24263,0.0584523,0.122467,-1.9788,0.526809,0.221011,0.0206313,0.0206427,0.00147746,0.0135342,0.00164927,0.0821942,0.123104,0.000258331,0,0,0,0,0,0,0,0.412174,-36.2679,1.03639,25.9552,2.8717,1.37505,0.050461,
0.243573,0.0541483,0.120483,-1.97054,0.546942,0.272765,0.0194008,0.000526295,-0.00473448,-0.00301694,0.00904732,0.0248509,0.0550425,-0.00150336,0.000137736,0.0288643,-0.00310821,-0.0244756,-0.00704119,-0.139302,0.000946678,2.80365,-0.990887,2.54942,-1.27284,1.63674,0.0650646,-0.00437785,0.243318,0.0584365,0.122919,-1.97894,0.529535,0.225506,0.020629,0.0189877,-0.000911012,0.0184912,7.19702e-06,0.0807099,0.133861,-0.00144976,-0.206877,-0.298559,0.619623,-0.205259,-0.185548,1.34456,-0.213512,0.158268,-36.0417,0.786451,25.856,2.95135,1.42815,0.0706026,
0.243573,0.0541483,0.120483,-1.97054,0.546942,0.272765,0.0194008,0.000526471,-0.00469753,-0.00302092,0.00901599,0.0248419,0.0548642,-0.00150214,0.000110188,0.0230914,-0.00248657,-0.0195805,-0.00563295,-0.111441,0.000757342,2.80365,-0.990887,2.54942,-1.27284,1.63674,0.0650646,-0.00437785,0.243318,0.0584365,0.122919,-1.97894,0.529535,0.225506,0.020629,0.0189877,-0.000911012,0.0184912,7.19702e-06,0.0807099,0.133861,-0.00144976,0,0,0,0,0,0,0,0.158268,-36.0417,0.786451,25.856,2.95135,1.42815,0.0706026,
0.244288,0.0542236,0.120954,-1.97081,0.54964,0.276394,0.0194035,0.000526789,-0.00463446,-0.00302675,0.00895532,0.0248206,0.0545194,-0.00149979,0.000198734,0.0394167,-0.00364365,-0.0379227,-0.0133239,-0.215508,0.00146884,2.80365,-0.990887,2.54942,-1.27284,1.63674,0.0650646,-0.00437785,0.243318,0.0584365,0.122919,-1.97894,0.529535,0.225506,0.020629,0.0189877,-0.000911012,0.0184912,7.19702e-06,0.0807099,0.133861,-0.00144976,0,0,0,0,0,0,0,0.158268,-36.0417,0.786451,25.856,2.95135,1.42815,0.0706026,
0.244288,0.0542236,0.120954,-1.97081,0.54964,0.276394,0.0194035,0.000527044,-0.00458401,-0.00303142,0.00890678,0.0248035,0.0542436,-0.00149791,0.000158987,0.0315334,-0.00291492,-0.0303382,-0.0106592,-0.172407,0.00117507,2.80365,-0.990887,2.54942,-1.27284,1.63674,0.0650646,-0.00437785,0.243318,0.0584365,0.122919,-1.97894,0.529535,0.225506,0.020629,0.0189877,-0.000911012,0.0184912,7.19702e-06,0.0807099,0.133861,-0.00144976,0,0,0,0,0,0,0,0.158268,-36.0417,0.786451,25.856,2.95135,1.42815,0.0706026,
0.244288,0.0542236,0.120954,-1.97081,0.54964,0.276394,0.0194035,0.000527247,-0.00454365,-0.00303515,0.00886794,0.0247899,0.0540229,-0.00149641,0.00012719,0.0252267,-0.00233194,-0.0242705,-0.00852733,-0.137925,0.000940058,2.80377,-0.970241,2.54858,-1.2972,1.63614,0.0493725,-0.00427921,0.244047,0.0584331,0.123358,-1.9791,0.532431,0.230125,0.020629,0.020251,-0.00157241,0.0123692,-0.00149084,0.0762155,0.131245,-0.000858989,0.157918,-0.082675,-0.765252,-0.187255,-0.561792,-0.32702,0.0738467,0.285221,-35.9941,0.889601,25.4831,2.8598,1.4547,0.0706026,
0.244288,0.0542236,0.120954,-1.97081,0.54964,0.276394,0.0194035,0.00052741,-0.00451136,-0.00303813,0.00883688,0.024779,0.0538464,-0.00149521,0.000101752,0.0201814,-0.00186555,-0.0194164,-0.00682186,-0.11034,0.000752047,2.80377,-0.970241,2.54858,-1.2972,1.63614,0.0493725,-0.00427921,0.244047,0.0584331,0.123358,-1.9791,0.532431,0.230125,0.020629,0.020251,-0.00157241,0.0123692,-0.00149084,0.0762155,0.131245,-0.000858989,0,0,0,0,0,0,0,0.285221,-35.9941,0.889601,25.4831,2.8598,1.4547,0.0706026,
0.244465,0.0583093,0.12369,-1.97877,0.529984,0.233488,0.0206115,0.00357795,-0.00509208,-4.44048e-05,0.00997539,-0.0107009,0.0724176,-0.00143974,1.90659,-0.362955,1.87108,0.711569,-22.1749,11.6071,0.0346659,0.0859982,-0.685738,-0.309124,1.20524,-2.41234,1.74426,-0.0151796,0.244047,0.0584331,0.123358,-1.9791,0.532431,0.230125,0.020629,0.020251,-0.00157241,0.0123692,-0.00149084,0.0762155,0.131245,-0.000858989,0,0,0,0,0,0,0,0.285221,-35.9941,0.889601,25.4831,2.8598,1.4547,0.0706026,
0.244573,0.0582422,0.123767,-1.97865,0.528559,0.234695,0.0206003,0.00558263,-0.00575044,0.00188794,0.0107791,-0.0441888,0.0880949,-0.00143181,1.25292,-0.41147,1.20771,0.502301,-20.9299,9.79828,0.00495833,0.0888746,-0.683696,-0.305637,1.2056,-2.38952,1.73358,-0.0152025,0.244047,0.0584331,0.123358,-1.9791,0.532431,0.230125,0.020629,0.020251,-0.00157241,0.0123692,-0.00149084,0.0762155,0.131245,-0.000858989,0,0,0,0,0,0,0,0.285221,-35.9941,0.889601,25.4831,2.8598,1.4547,0.0706026,
0.244665,0.0581725,0.123827,-1.97855,0.527009,0.235922,0.0205884,0.00676208,-0.00634317,0.00299679,0.011316,-0.0741057,0.101151,-0.00144376,0.737159,-0.370456,0.693034,0.335611,-18.698,8.1603,-0.00746918,0.0875609,-0.658467,-0.308135,1.17862,-2.36806,1.70549,-0.0150397,0.244854,0.0584726,0.12372,-1.97919,0.534555,0.234691,0.0206346,0.0136417,0.00688848,0.00919993,0.0110069,-0.0539703,0.130556,-0.000977868,-0.826171,1.05761,-0.396155,1.56222,-16.2732,-0.0861301,-0.0148599,-1.21045,-36.1449,-0.510851,26.3043,1.44256,2.03148,0.0303194,
0.244742,0.058103,0.123871,-1.97844,0.525384,0.237161,0.0205761,0.00732118,-0.00681138,0.00349474,0.0116565,-0.099923,0.111897,-0.00146218,0.349437,-0.29263,0.311219,0.21281,-16.1358,6.7158,-0.0115118,0.0897478,-0.658545,-0.306596,1.17827,-2.34551,1.69452,-0.015029,0.244854,0.0584726,0.12372,-1.97919,0.534555,0.234691,0.0206346,0.0136417,0.00688848,0.00919993,0.0110069,-0.0539703,0.130556,-0.000977868,0,0,0,0,0,0,0,-1.21045,-36.1449,-0.510851,26.3043,1.44256,2.03148,0.0303194,
0.24493,0.0590115,0.123781,-1.97964,0.534149,0.235876,0.0206119,0.00777164,0.00802178,0.0043252,-0.00190097,-0.0901002,0.11913,-0.00173545,0.281536,9.27072,0.519037,-8.47344,6.13923,4.52062,-0.170794,-0.00106173,30.9197,-0.383991,-22.1648,-2.58694,-0.633327,-0.00563442,0.244854,0.0584726,0.12372,-1.97919,0.534555,0.234691,0.0206346,0.0136417,0.00688848,0.00919993,0.0110069,-0.0539703,0.130556,-0.000977868,0,0,0,0,0,0,0,-1.21045,-36.1449,-0.510851,26.3043,1.44256,2.03148,0.0303194,
0.245154,0.0593996,0.124014,-1.97977,0.530353,0.237829,0.0206536,0.0118214,0.0161196,0.00926995,-0.00483679,-0.166966,0.144133,-0.00034736,2.53112,5.06115,3.09047,-1.83489,-48.0408,15.6271,0.867555,0.91765,-0.618591,0.562174,1.09463,-11.2364,5.20288,-0.00933342,0.244854,0.0584726,0.12372,-1.97919,0.534555,0.234691,0.0206346,0.0136417,0.00688848,0.00919993,0.0110069,-0.0539703,0.130556,-0.000977868,0,0,0,0,0,0,0,-1.21045,-36.1449,-0.510851,26.3043,1.44256,2.03148,0.0303194,
0.245445,0.059647,0.124295,-1.97982,0.52466,0.240355,0.0206719,0.0167084,0.0190813,0.014442,-0.00495962,-0.275908,0.178449,0.000180388,3.05433,1.85108,3.23252,-0.0767657,-68.089,21.4474,0.329843,0.977648,-0.563737,0.645045,1.11326,-10.9688,5.07474,-0.0110584,0.244854,0.0584726,0.12372,-1.97919,0.534555,0.234691,0.0206346,0.0136417,0.00688848,0.00919993,0.0110069,-0.0539703,0.130556,-0.000977868,0,0,0,0,0,0,0,-1.21045,-36.1449,-0.510851,26.3043,1.44256,2.03148,0.0303194,
0.245746,0.0597989,0.124577,-1.97983,0.517898,0.243245,0.0206764,0.0209124,0.0190636,0.0186241,-0.00424874,-0.389773,0.215025,0.000256759,2.62751,-0.011099,2.61382,0.444297,-71.1658,22.8602,0.047732,1.0529,-0.542024,0.732172,1.12575,-10.7303,4.96531,-0.011799,0.244854,0.0584726,0.12372,-1.97919,0.534555,0.234691,0.0206346,0.0136417,0.00688848,0.00919993,0.0110069,-0.0539703,0.130556,-0.000977868,0,0,0,0,0,0,0,-1.21045,-36.1449,-0.510851,26.3043,1.44256,2.03148,0.0303194,
0.24493,0.0590115,0.123781,-1.97964,0.534149,0.235876,0.0206119,0.0186446,0.0287218,0.0164287,-0.0146252,-0.32198,0.201632,-0.000360299,-1.41736,6.03635,-1.37213,-6.48528,42.3705,-8.37045,-0.385662,-0.00106173,30.9197,-0.383991,-22.1648,-2.58694,-0.633327,-0.00563442,0.244854,0.0584726,0.12372,-1.97919,0.534555,0.234691,0.0206346,0.0136417,0.00688848,0.00919993,0.0110069,-0.0539703,0.130556,-0.000977868,0,0,0,0,0,0,0,-1.21045,-36.1449,-0.510851,26.3043,1.44256,2.03148,0.0303194,
0.245331,0.0590863,0.124171,-1.98019,0.529344,0.239776,0.0208346,0.0249371,0.024848,0.0228879,-0.0254703,-0.37771,0.258799,0.00527706,3.93285,-2.4211,4.03699,-6.77817,-34.8312,35.729,3.52335,4.58486,-9.0473,3.64126,-1.8045,-14.5869,11.3667,0.201922,0.244854,0.0584726,0.12372,-1.97919,0.534555,0.234691,0.0206346,0.0136417,0.00688848,0.00919993,0.0110069,-0.0539703,0.130556,-0.000977868,0,0,0,0,0,0,0,-1.21045,-36.1449,-0.510851,26.3043,1.44256,2.03148,0.0303194,
0.245853,0.0589537,0.124683,-1.98068,0.521893,0.245248,0.0209875,0.0329995,0.0165629,0.0310994,-0.0325772,-0.488439,0.343837,0.00804548,5.03895,-5.1782,5.1322,-4.44184,-69.2053,53.1487,1.73026,2.8324,-7.39008,2.33689,-1.84908,-14.5869,11.3667,0.136835,0.244854,0.0584726,0.12372,-1.97919,0.534555,0.234691,0.0206346,0.0136417,0.00688848,0.00919993,0.0110069,-0.0539703,0.130556,-0.000977868,0,0,0,0,0,0,0,-1.21045,-36.1449,-0.510851,26.3043,1.44256,2.03148,0.0303194,
0.246395,0.0587518,0.125229,-1.98107,0.512844,0.251696,0.0210965,0.0399433,0.0082035,0.0385278,-0.0357728,-0.616958,0.436272,0.00916153,4.33989,-5.22461,4.64274,-1.99726,-80.3244,57.7722,0.697529,2.2505,-5.44982,2.15563,-1.58332,-14.5655,11.3315,0.104412,0.245413,0.0587273,0.124088,-1.97879,0.528349,0.239823,0.0206379,0.0107204,0.0270459,0.000566749,0.0152,-0.217916,0.0999641,0.00070693,-0.365153,2.51968,-1.07915,0.524133,-20.4932,-3.82394,0.2106,-0.829586,-30.1027,-0.260912,19.8297,1.75384,0.48699,0.0303194,
0.246215,0.0581223,0.124869,-1.97982,0.515315,0.249514,0.0210674,0.0435131,-0.00133793,0.04206,-0.0412694,-0.685884,0.490351,0.0119833,2.23113,-5.96339,2.20767,-3.43539,-43.0789,33.7991,1.7636,3.31307,-8.14174,2.43429,-6.29735,-14.5655,11.3315,0.251621,0.245413,0.0587273,0.124088,-1.97879,0.528349,0.239823,0.0206379,0.0107204,0.0270459,0.000566749,0.0152,-0.217916,0.0999641,0.00070693,0,0,0,0,0,0,0,-0.829586,-30.1027,-0.260912,19.8297,1.75384,0.48699,0.0303194,
0.246725,0.0578711,0.125353,-1.98024,0.506168,0.25616,0.0212265,0.0475652,-0.0073503,0.0457696,-0.0436539,-0.777377,0.558438,0.0135646,2.53257,-3.75773,2.31846,-1.49031,-57.1829,42.5548,0.988347,2.38912,-3.86677,1.84651,-4.82568,-14.5655,11.3315,0.185345,0.245413,0.0587273,0.124088,-1.97879,0.528349,0.239823,0.0206379,0.0107204,0.0270459,0.000566749,0.0152,-0.217916,0.0999641,0.00070693,0,0,0,0,0,0,0,-0.829586,-30.1027,-0.260912,19.8297,1.75384,0.48699,0.0303194,
0.247247,0.057692,0.12584,-1.98062,0.496123,0.263467,0.0213741,0.0511005,-0.0103573,0.0487808,-0.0442172,-0.873023,0.629417,0.0145401,2.20955,-1.87937,1.88202,-0.352024,-59.7788,44.3615,0.609692,2.64337,-1.82092,2.13464,-4.15181,-14.5655,11.3315,0.170163,0.245413,0.0587273,0.124088,-1.97879,0.528349,0.239823,0.0206379,0.0107204,0.0270459,0.000566749,0.0152,-0.217916,0.0999641,0.00070693,0,0,0,0,0,0,0,-0.829586,-30.1027,-0.260912,19.8297,1.75384,0.48699,0.0303194,
0.247768,0.0575706,0.126315,-1.98096,0.485517,0.271224,0.0215185,0.0539029,-0.0113218,0.0508877,-0.0440419,-0.963581,0.697456,0.0152425,1.7515,-0.60284,1.3168,0.109541,-56.5987,42.5244,0.438944,3.22117,-0.778244,2.68004,-3.80615,-14.4946,11.251,0.167124,0.246507,0.059683,0.12508,-1.97885,0.506362,0.252327,0.020624,0.0130639,0.0785419,0.0184854,0.0274283,-0.220511,0.201455,0.00660012,0.292936,6.437,2.23984,1.52854,-0.324378,12.6864,0.736649,-1.00811,-27.9326,-0.463243,16.3901,2.25464,-0.222544,0.23906,
0.248614,0.0600457,0.127066,-1.98034,0.474062,0.277191,0.021283,0.0585794,-0.00860485,0.0543744,-0.0451019,-1.02263,0.74532,0.0159123,2.92281,1.69811,2.17921,-0.662482,-36.9042,29.9154,0.418677,3.22117,-0.778244,2.68004,-3.80615,-14.4946,11.251,0.167124,0.246507,0.059683,0.12508,-1.97885,0.506362,0.252327,0.020624,0.0130639,0.0785419,0.0184854,0.0274283,-0.220511,0.201455,0.00660012,0,0,0,0,0,0,0,-1.00811,-27.9326,-0.463243,16.3901,2.25464,-0.222544,0.23906,
0.249247,0.0600462,0.127602,-1.98074,0.463424,0.285064,0.0214232,0.0626779,-0.0068719,0.0568971,-0.0460048,-1.08405,0.793084,0.0162336,2.56155,1.08309,1.57667,-0.564357,-38.39,29.8519,0.200813,3.89442,-0.428059,3.26253,-3.62599,-14.4946,11.251,0.16928,0.246507,0.059683,0.12508,-1.97885,0.506362,0.252327,0.020624,0.0130639,0.0785419,0.0184854,0.0274283,-0.220511,0.201455,0.00660012,0,0,0,0,0,0,0,-1.00811,-27.9326,-0.463243,16.3901,2.25464,-0.222544,0.23906,
0.249891,0.0600324,0.128121,-1.98114,0.45243,0.293184,0.0215553,0.0662495,-0.00584246,0.0584951,-0.0468331,-1.1421,0.837477,0.0162905,2.23229,0.6434,0.998741,-0.517635,-36.2834,27.7462,0.0355365,4.58356,-0.447134,3.79496,-3.56501,-14.4946,11.251,0.16827,0.246507,0.059683,0.12508,-1.97885,0.506362,0.252327,0.020624,0.0130639,0.0785419,0.0184854,0.0274283,-0.220511,0.201455,0.00660012,0,0,0,0,0,0,0,-1.00811,-27.9326,-0.463243,16.3901,2.25464,-0.222544,0.23906,
