xiao-wang007/linearmpc_panda/paper_data/panda_inverse_dynamics_controller_error_match_to_start_no_acceleration_ff/4/trajectory.csv
Commanded Joint 0 Position,Commanded Joint 1 Position,Commanded Joint 2 Position,Commanded Joint 3 Position,Commanded Joint 4 Position,Commanded Joint 5 Position,Commanded Joint 6 Position,Commanded Joint 0 Velocity,Commanded Joint 1 Velocity,Commanded Joint 2 Velocity,Commanded Joint 3 Velocity,Commanded Joint 4 Velocity,Commanded Joint 5 Velocity,Commanded Joint 6 Velocity,Commanded Joint 0 Acceleration,Commanded Joint 1 Acceleration,Commanded Joint 2 Acceleration,Commanded Joint 3 Acceleration,Commanded Joint 4 Acceleration,Commanded Joint 5 Acceleration,Commanded Joint 6 Acceleration,Commanded Joint 0 Torque,Commanded Joint 1 Torque,Commanded Joint 2 Torque,Commanded Joint 3 Torque,Commanded Joint 4 Torque,Commanded Joint 5 Torque,Commanded Joint 6 Torque,Actual Joint 0 Position,Actual Joint 1 Position,Actual Joint 2 Position,Actual Joint 3 Position,Actual Joint 4 Position,Actual Joint 5 Position,Actual Joint 6 Position,Actual Joint 0 Velocity,Actual Joint 1 Velocity,Actual Joint 2 Velocity,Actual Joint 3 Velocity,Actual Joint 4 Velocity,Actual Joint 5 Velocity,Actual Joint 6 Velocity,Actual Joint 0 Acceleration,Actual Joint 1 Acceleration,Actual Joint 2 Acceleration,Actual Joint 3 Acceleration,Actual Joint 4 Acceleration,Actual Joint 5 Acceleration,Actual Joint 6 Acceleration,Actual Joint 0 Torque,Actual Joint 1 Torque,Actual Joint 2 Torque,Actual Joint 3 Torque,Actual Joint 4 Torque,Actual Joint 5 Torque,Actual Joint 6 Torque,
-0.0145674,-0.0943164,0.0249471,-1.82716,0.0187852,0.246061,-0.0199513,0.000716617,0.0190028,0.000906021,-0.0342956,-0.00595953,0.049445,-0.000364305,0,0,0,0,0,0,0,0.0555893,21.5239,0.22958,-24.5029,-0.689452,1.69441,-0.0232491,-0.0146509,-0.095586,0.0248972,-1.82382,0.0192689,0.240697,-0.0199351,-0.00253915,0.00128922,-0.00247737,0.00054945,0.00246668,0.000238254,0.000589588,0,0,0,0,0,0,0,0.25745,-31.6023,-0.260912,27.2525,0.672604,3.45788,0.0706026,
-0.0146829,-0.0955723,0.0248633,-1.82382,0.0192562,0.240706,-0.0199338,0.000379526,0.0152832,0.000520581,-0.0274592,-0.00499239,0.0396082,-0.000285514,0,0,0,0,0,0,0,0.04988,21.9646,0.21925,-24.4193,-0.6895,1.44377,-0.0217328,-0.0146509,-0.095586,0.0248972,-1.82382,0.0192689,0.240697,-0.0199351,-0.00253915,0.00128922,-0.00247737,0.00054945,0.00246668,0.000238254,0.000589588,0,0,0,0,0,0,0,0.25745,-31.6023,-0.260912,27.2525,0.672604,3.45788,0.0706026,
-0.0146888,-0.0955698,0.024857,-1.82382,0.0192467,0.240708,-0.0199336,0.000154823,0.0122896,0.00026026,-0.0219883,-0.00423313,0.0317187,-0.000224592,0,0,0,0,0,0,0,0.0426959,22.5362,0.207531,-24.3112,-0.688745,1.09645,-0.0197632,-0.0146509,-0.095586,0.0248972,-1.82382,0.0192689,0.240697,-0.0199351,-0.00253915,0.00128922,-0.00247737,0.00054945,0.00246668,0.000238254,0.000589588,0,0,0,0,0,0,0,0.25745,-31.6023,-0.260912,27.2525,0.672604,3.45788,0.0706026,
-0.0146935,-0.0955678,0.0248522,-1.82382,0.0192377,0.240708,-0.0199335,8.08704e-06,0.00988201,8.6981e-05,-0.017609,-0.00361083,0.0253942,-0.000177132,0,0,0,0,0,0,0,0.036782,23.0602,0.198122,-24.1433,-0.686478,0.711517,-0.0177618,-0.0146509,-0.095586,0.0248972,-1.82382,0.0192689,0.240697,-0.0199351,-0.00253915,0.00128922,-0.00247737,0.00054945,0.00246668,0.000238254,0.000589588,0,0,0,0,0,0,0,0.25745,-31.6023,-0.260912,27.2525,0.672604,3.45788,0.0706026,
-0.0146515,-0.0947327,0.0249006,-1.82463,0.0190672,0.241079,-0.019936,-3.32826e-05,0.0218754,7.82383e-05,-0.0307038,-0.00800062,0.0272269,-3.93729e-06,0,0,0,0,0,0,0,0.00024648,27.6839,0.176639,-23.4042,-1.07542,-2.497,0.00216792,-0.0146499,-0.0952915,0.0249002,-1.82396,0.0192717,0.240803,-0.0199415,-0.00624093,0.0355714,-0.000351215,-0.00779186,0.000277729,0.0172482,0.000320932,-0.462723,4.28527,0.265769,-1.04266,-0.273619,2.12624,-0.0335819,0.233646,-28.3333,-0.288683,23.2892,0.679012,2.55608,0.0843355,
-0.014714,-0.0942109,0.0248528,-1.82493,0.0198322,0.240379,-0.0199516,-0.00158801,0.0305449,-0.0011327,-0.032009,0.0127242,0.00427818,-0.000393344,0,0,0,0,0,0,0,0.481361,0.209733,0.478041,-0.300235,3.1169,-2.03791,-0.00195058,-0.0146499,-0.0952915,0.0249002,-1.82396,0.0192717,0.240803,-0.0199415,-0.00624093,0.0355714,-0.000351215,-0.00779186,0.000277729,0.0172482,0.000320932,0,0,0,0,0,0,0,0.233646,-28.3333,-0.288683,23.2892,0.679012,2.55608,0.0843355,
-0.0147906,-0.0937948,0.024783,-1.82512,0.0211858,0.239241,-0.0199617,-0.00318516,0.0348399,-0.00264981,-0.0305233,0.0440182,-0.025028,-0.000567861,0,0,0,0,0,0,0,0.475124,0.20814,0.471605,-0.297448,3.09037,-2.02045,-0.00189288,-0.0146499,-0.0952915,0.0249002,-1.82396,0.0192717,0.240803,-0.0199415,-0.00624093,0.0355714,-0.000351215,-0.00779186,0.000277729,0.0172482,0.000320932,0,0,0,0,0,0,0,0.233646,-28.3333,-0.288683,23.2892,0.679012,2.55608,0.0843355,
-0.0148635,-0.0934716,0.0247124,-1.82528,0.0228903,0.237873,-0.0199676,-0.00437091,0.03595,-0.00388543,-0.0283009,0.0778275,-0.0542332,-0.000600482,0,0,0,0,0,0,0,0.468679,0.206636,0.464981,-0.294559,3.06447,-2.00292,-0.00186169,-0.0146499,-0.0952915,0.0249002,-1.82396,0.0192717,0.240803,-0.0199415,-0.00624093,0.0355714,-0.000351215,-0.00779186,0.000277729,0.0172482,0.000320932,0,0,0,0,0,0,0,0.233646,-28.3333,-0.288683,23.2892,0.679012,2.55608,0.0843355,
-0.0146517,-0.0941963,0.0249132,-1.82519,0.0190921,0.240894,-0.0199366,-0.00351369,0.0439998,-0.00310474,-0.040731,0.057494,-0.0398378,-0.000341302,0,0,0,0,0,0,0,-0.000185596,27.6994,0.17532,-23.4019,-1.07537,-2.49206,0.00214002,-0.014651,-0.0948059,0.0249131,-1.82447,0.0192828,0.240752,-0.0199422,-0.00205496,0.0402711,-0.00472327,-0.0230066,0.00471364,0.00334373,-0.00122099,0.523246,0.58747,-0.546507,-1.90184,0.554489,-1.73806,-0.19274,0.158268,-28.5793,-0.435472,24.0628,0.575558,2.93328,0.0907442,
-0.0148129,-0.0935966,0.0247945,-1.82528,0.0221423,0.237724,-0.0199892,-0.00684069,0.0501913,-0.00545228,-0.0346848,0.122251,-0.111125,-0.00158761,0,0,0,0,0,0,0,3.78955,1.38596,3.85231,-2.14904,10.9246,-10.7804,-0.00888582,-0.014651,-0.0948059,0.0249131,-1.82447,0.0192828,0.240752,-0.0199422,-0.00205496,0.0402711,-0.00472327,-0.0230066,0.00471364,0.00334373,-0.00122099,0,0,0,0,0,0,0,0.158268,-28.5793,-0.435472,24.0628,0.575558,2.93328,0.0907442,
-0.0149913,-0.093147,0.0246365,-1.82527,0.0271561,0.232785,-0.0200216,-0.00993435,0.0513948,-0.00831092,-0.0276495,0.223145,-0.212379,-0.00207972,0,0,0,0,0,0,0,3.73297,1.47466,3.80668,-2.07804,10.9246,-10.5918,-0.00793899,-0.014651,-0.0948059,0.0249131,-1.82447,0.0192828,0.240752,-0.0199422,-0.00205496,0.0402711,-0.00472327,-0.0230066,0.00471364,0.00334373,-0.00122099,0,0,0,0,0,0,0,0.158268,-28.5793,-0.435472,24.0628,0.575558,2.93328,0.0907442,
-0.015138,-0.0928189,0.0244984,-1.82529,0.0333588,0.226786,-0.0200395,-0.0116143,0.0493172,-0.0101007,-0.0225251,0.333583,-0.319858,-0.00211046,0,0,0,0,0,0,0,3.66756,1.53307,3.74578,-2.01771,10.9246,-10.402,-0.00732389,-0.014651,-0.0948059,0.0249131,-1.82447,0.0192828,0.240752,-0.0199422,-0.00205496,0.0402711,-0.00472327,-0.0230066,0.00471364,0.00334373,-0.00122099,0,0,0,0,0,0,0,0.158268,-28.5793,-0.435472,24.0628,0.575558,2.93328,0.0907442,
-0.0146517,-0.0941963,0.0249132,-1.82519,0.0190921,0.240894,-0.0199366,-0.00930838,0.0546935,-0.00807699,-0.0361104,0.262099,-0.252338,-0.00154929,0,0,0,0,0,0,0,-0.000325222,27.7366,0.17298,-23.398,-1.07511,-2.4824,0.00208392,-0.0146468,-0.0936213,0.024911,-1.82538,0.01928,0.240706,-0.0199422,-0.00173475,0.0402165,-0.000526141,-0.0389448,0.0105869,-0.00663483,-0.000362612,0.0400267,-0.0068316,0.524641,-1.99227,0.734163,-1.24732,0.107297,0.0551182,-30.1265,-0.487047,26.2805,0.6488,3.27202,0.0907442,
-0.0143152,-0.093696,0.0252701,-1.82562,0.021268,0.237152,-0.0198816,0.00096472,0.0562621,0.00246041,-0.0394597,0.264077,-0.295409,0.000135782,0,0,0,0,0,0,0,26.91,3.83132,27.6677,-13.4529,10.9249,-14.4824,0.0745909,-0.0146468,-0.0936213,0.024911,-1.82538,0.01928,0.240706,-0.0199422,-0.00173475,0.0402165,-0.000526141,-0.0389448,0.0105869,-0.00663483,-0.000362612,0,0,0,0,0,0,0,0.0551182,-30.1265,-0.487047,26.2805,0.6488,3.27202,0.0907442,
-0.0137055,-0.0932848,0.0259329,-1.82599,0.0251363,0.23097,-0.0198239,0.0160152,0.0552888,0.0185388,-0.0408701,0.307967,-0.390885,0.00155194,0,0,0,0,0,0,0,25.5622,5.04178,26.6736,-11.6229,10.9249,-14.4824,0.069542,-0.0146468,-0.0936213,0.024911,-1.82538,0.01928,0.240706,-0.0199422,-0.00173475,0.0402165,-0.000526141,-0.0389448,0.0105869,-0.00663483,-0.000362612,0,0,0,0,0,0,0,0.0551182,-30.1265,-0.487047,26.2805,0.6488,3.27202,0.0907442,
-0.0146322,-0.0929841,0.0249274,-1.82615,0.0191166,0.240731,-0.0199361,0.0131755,0.0601607,0.0152393,-0.0520702,0.24229,-0.312094,0.00139461,0,0,0,0,0,0,0,-0.000325222,27.7366,0.17298,-23.398,-1.07511,-2.4824,0.00208392,-0.0146468,-0.0936213,0.024911,-1.82538,0.01928,0.240706,-0.0199422,-0.00173475,0.0402165,-0.000526141,-0.0389448,0.0105869,-0.00663483,-0.000362612,0,0,0,0,0,0,0,0.0551182,-30.1265,-0.487047,26.2805,0.6488,3.27202,0.0907442,
-0.0140379,-0.092674,0.0255379,-1.82716,0.0209103,0.237356,-0.0196764,0.025398,0.0558815,0.027454,-0.0668704,0.238675,-0.334045,0.0076069,0,0,0,0,0,0,0,38.6235,2.17359,39.7931,-24.2486,10.9254,-14.467,0.313483,-0.0146535,-0.0922901,0.0249942,-1.82679,0.0193395,0.239985,-0.0199425,0.00188145,0.035212,0.0139778,-0.0533736,0.00668769,-0.0308067,0.000743301,0.452025,-0.625555,1.81299,-1.8036,-0.487406,-3.02149,0.138239,1.57856,-32.9234,1.16334,28.7204,0.893246,3.39745,0.0641939,
-0.0130586,-0.0924521,0.0265413,-1.82824,0.0243668,0.231561,-0.0195425,0.0448001,0.050254,0.0470478,-0.0803591,0.27735,-0.412102,0.00943391,0,0,0,0,0,0,0,34.075,4.65011,35.0038,-22.3978,10.9254,-14.467,0.148412,-0.0146535,-0.0922901,0.0249942,-1.82679,0.0193395,0.239985,-0.0199425,0.00188145,0.035212,0.0139778,-0.0533736,0.00668769,-0.0308067,0.000743301,0,0,0,0,0,0,0,1.57856,-32.9234,1.16334,28.7204,0.893246,3.39745,0.0641939,
-0.0118216,-0.0922139,0.0278175,-1.82933,0.0291485,0.224094,-0.0194988,0.0667654,0.0461582,0.0695455,-0.0916854,0.341424,-0.516364,0.00863951,0,0,0,0,0,0,0,30.9543,6.2451,31.8681,-20.6811,10.9254,-14.467,0.0420225,-0.0146535,-0.0922901,0.0249942,-1.82679,0.0193395,0.239985,-0.0199425,0.00188145,0.035212,0.0139778,-0.0533736,0.00668769,-0.0308067,0.000743301,0,0,0,0,0,0,0,1.57856,-32.9234,1.16334,28.7204,0.893246,3.39745,0.0641939,
-0.0145866,-0.0916546,0.0250672,-1.82762,0.0191838,0.239825,-0.0199374,0.0550867,0.0528152,0.0574607,-0.0938727,0.269246,-0.41708,0.00703991,0,0,0,0,0,0,0,7.33766e-05,27.7751,0.171134,-23.3905,-1.07458,-2.46697,0.00199915,-0.0146535,-0.0922901,0.0249942,-1.82679,0.0193395,0.239985,-0.0199425,0.00188145,0.035212,0.0139778,-0.0533736,0.00668769,-0.0308067,0.000743301,0,0,0,0,0,0,0,1.57856,-32.9234,1.16334,28.7204,0.893246,3.39745,0.0641939,
-0.0138096,-0.0915787,0.0258692,-1.8292,0.0207823,0.236757,-0.0195589,0.063494,0.0441481,0.066019,-0.11477,0.255359,-0.410376,0.0150944,0,0,0,0,0,0,0,45.7603,-0.552221,47.2828,-34.4955,10.9294,-14.4414,0.454533,-0.0142105,-0.0905791,0.0261571,-1.82872,0.0195012,0.238386,-0.0199486,0.0327035,0.0222118,0.0637636,-0.0702213,0.0145839,-0.073346,-0.00137497,3.85275,-1.62503,6.22323,-2.10597,0.987028,-5.31741,-0.264783,7.58899,-30.6542,7.33644,24.9356,1.35101,2.48284,0.104477,
-0.0126183,-0.0916042,0.0271142,-1.83094,0.0240528,0.231265,-0.019408,0.0805771,0.0346826,0.0839395,-0.135263,0.28605,-0.465585,0.0158479,0,0,0,0,0,0,0,38.3657,2.58052,39.7335,-31.9473,10.9294,-14.4414,0.161094,-0.0142105,-0.0905791,0.0261571,-1.82872,0.0195012,0.238386,-0.0199486,0.0327035,0.0222118,0.0637636,-0.0702213,0.0145839,-0.073346,-0.00137497,0,0,0,0,0,0,0,7.58899,-30.6542,7.33644,24.9356,1.35101,2.48284,0.104477,
-0.0111689,-0.0916061,0.0286278,-1.83272,0.0287292,0.224048,-0.0194051,0.100696,0.0276974,0.104992,-0.152818,0.345751,-0.552906,0.0127515,0,0,0,0,0,0,0,33.7502,4.02777,34.963,-30.0464,10.9294,-14.4414,-0.0103202,-0.0142105,-0.0905791,0.0261571,-1.82872,0.0195012,0.238386,-0.0199486,0.0327035,0.0222118,0.0637636,-0.0702213,0.0145839,-0.073346,-0.00137497,0,0,0,0,0,0,0,7.58899,-30.6542,7.33644,24.9356,1.35101,2.48284,0.104477,
-0.013908,-0.0899856,0.0264796,-1.82959,0.0195326,0.237936,-0.0199508,0.0881174,0.0369945,0.0920553,-0.144042,0.277385,-0.45358,0.0101442,0,0,0,0,0,0,0,0.00497589,27.8268,0.175964,-23.3765,-1.07059,-2.44143,0.00185974,-0.0142105,-0.0905791,0.0261571,-1.82872,0.0195012,0.238386,-0.0199486,0.0327035,0.0222118,0.0637636,-0.0702213,0.0145839,-0.073346,-0.00137497,0,0,0,0,0,0,0,7.58899,-30.6542,7.33644,24.9356,1.35101,2.48284,0.104477,
-0.0128332,-0.0899768,0.027595,-1.83155,0.0211826,0.234989,-0.0194973,0.0973659,0.0298166,0.101529,-0.164074,0.263159,-0.436539,0.0194537,0,0,0,0,0,0,0,51.5686,2.4496,53.3937,-42.4566,10.9294,-14.4414,0.544605,-0.0142105,-0.0905791,0.0261571,-1.82872,0.0195012,0.238386,-0.0199486,0.0327035,0.0222118,0.0637636,-0.0702213,0.0145839,-0.073346,-0.00137497,0,0,0,0,0,0,0,7.58899,-30.6542,7.33644,24.9356,1.35101,2.48284,0.104477,
-0.011339,-0.089995,0.029144,-1.83371,0.0245156,0.229691,-0.019352,0.115248,0.0233972,0.11995,-0.185264,0.293852,-0.481682,0.0191955,0,0,0,0,0,0,0,42.0052,6.10799,43.3807,-39.2259,10.9383,-14.3964,0.149749,-0.0128637,-0.089169,0.0286366,-1.83207,0.0198993,0.234999,-0.0199504,0.0548306,0.0322761,0.121208,-0.124398,0.028289,-0.118435,6.51849e-05,2.76589,1.25804,7.18054,-6.77209,1.71314,-5.63612,0.180019,9.89399,-27.6311,9.31215,19.2545,1.52771,1.24322,0.0779268,
-0.0123259,-0.0884318,0.0292103,-1.83315,0.0201156,0.234096,-0.0199581,0.105641,0.0371483,0.110301,-0.17507,0.240488,-0.407914,0.0151647,0,0,0,0,0,0,0,0.0163968,27.8811,0.191313,-23.351,-1.06175,-2.39637,0.00163006,-0.0128637,-0.089169,0.0286366,-1.83207,0.0198993,0.234999,-0.0199504,0.0548306,0.0322761,0.121208,-0.124398,0.028289,-0.118435,6.51849e-05,0,0,0,0,0,0,0,9.89399,-27.6311,9.31215,19.2545,1.52771,1.24322,0.0779268,
-0.0110242,-0.0883747,0.0305597,-1.83551,0.0219309,0.231006,-0.0194822,0.117057,0.0311459,0.121978,-0.199125,0.237773,-0.40358,0.0240293,0,0,0,0,0,0,0,53.8499,2.64688,55.7095,-48.0957,10.9383,-14.3964,0.575486,-0.0128637,-0.089169,0.0286366,-1.83207,0.0198993,0.234999,-0.0199504,0.0548306,0.0322761,0.121208,-0.124398,0.028289,-0.118435,6.51849e-05,0,0,0,0,0,0,0,9.89399,-27.6311,9.31215,19.2545,1.52771,1.24322,0.0779268,
-0.00934137,-0.0883666,0.0323071,-1.83812,0.0254465,0.225647,-0.0193695,0.135716,0.0251185,0.141266,-0.224443,0.278109,-0.456844,0.0220388,0,0,0,0,0,0,0,42.8811,6.01658,44.2883,-44.666,10.9383,-14.3964,0.110275,-0.0128637,-0.089169,0.0286366,-1.83207,0.0198993,0.234999,-0.0199504,0.0548306,0.0322761,0.121208,-0.124398,0.028289,-0.118435,6.51849e-05,0,0,0,0,0,0,0,9.89399,-27.6311,9.31215,19.2545,1.52771,1.24322,0.0779268,
-0.00747131,-0.0883063,0.0342506,-1.84082,0.0304403,0.218618,-0.019484,0.155324,0.0216025,0.1616,-0.247209,0.347333,-0.541197,0.0147694,0,0,0,0,0,0,0,36.2271,6.56315,37.4172,-42.707,10.943,-14.3461,-0.153114,-0.0105193,-0.0880563,0.0323543,-1.83735,0.0199821,0.231802,-0.0199586,0.0697859,0.0644699,0.129651,-0.185498,0.00420258,-0.0585884,-0.00185601,1.86941,4.02423,1.05544,-7.63743,-3.01081,7.48082,-0.240149,3.80817,-28.1825,3.08748,21.972,1.38122,1.76049,0.11821,
-0.00991755,-0.0870425,0.0329966,-1.83864,0.0200822,0.230971,-0.0199698,0.139303,0.0426277,0.145336,-0.230033,0.28037,-0.453734,0.0115355,0,0,0,0,0,0,0,0.0141444,27.9111,0.196293,-23.3162,-1.05701,-2.34613,0.00134929,-0.0105193,-0.0880563,0.0323543,-1.83735,0.0199821,0.231802,-0.0199586,0.0697859,0.0644699,0.129651,-0.185498,0.00420258,-0.0585884,-0.00185601,0,0,0,0,0,0,0,3.80817,-28.1825,3.08748,21.972,1.38122,1.76049,0.11821,
-0.00851668,-0.0868509,0.0344459,-1.84149,0.0217856,0.228144,-0.0194925,0.146464,0.0388899,0.152503,-0.255134,0.26688,-0.43368,0.0211603,0,0,0,0,0,0,0,56.5139,3.50466,58.4044,-55.3568,10.943,-14.3461,0.575574,-0.0105193,-0.0880563,0.0323543,-1.83735,0.0199821,0.231802,-0.0199586,0.0697859,0.0644699,0.129651,-0.185498,0.00420258,-0.0585884,-0.00185601,0,0,0,0,0,0,0,3.80817,-28.1825,3.08748,21.972,1.38122,1.76049,0.11821,
-0.00674121,-0.0867424,0.0362862,-1.84462,0.0252467,0.223011,-0.0194462,0.161558,0.0338247,0.168009,-0.282442,0.300032,-0.475265,0.0180864,0,0,0,0,0,0,0,43.9344,6.84839,45.3093,-51.5531,10.943,-14.3461,0.0258779,-0.0105193,-0.0880563,0.0323543,-1.83735,0.0199821,0.231802,-0.0199586,0.0697859,0.0644699,0.129651,-0.185498,0.00420258,-0.0585884,-0.00185601,0,0,0,0,0,0,0,3.80817,-28.1825,3.08748,21.972,1.38122,1.76049,0.11821,
-0.00479783,-0.086609,0.0383017,-1.84788,0.0302457,0.216162,-0.0196599,0.177831,0.0303952,0.184794,-0.307337,0.364999,-0.551433,0.00912597,0,0,0,0,0,0,0,36.5095,6.9113,37.6381,-49.5968,10.9526,-14.289,-0.275662,-0.00774149,-0.0868656,0.0375517,-1.84451,0.0201148,0.229965,-0.0199603,0.0860463,0.0771885,0.1472,-0.244167,0.0178472,-0.0514251,-0.000604074,2.03255,1.58983,2.19353,-7.3337,1.70558,0.895422,0.156491,-0.0956386,-31.4992,-0.288683,29.617,1.26495,2.90673,0.110886,
-0.00703631,-0.0856848,0.0383025,-1.846,0.020307,0.228939,-0.0199728,0.159894,0.0538367,0.166603,-0.283085,0.296805,-0.466794,0.00698879,0,0,0,0,0,0,0,0.0191165,27.9523,0.212076,-23.2821,-1.04743,-2.28902,0.00103716,-0.00774149,-0.0868656,0.0375517,-1.84451,0.0201148,0.229965,-0.0199603,0.0860463,0.0771885,0.1472,-0.244167,0.0178472,-0.0514251,-0.000604074,0,0,0,0,0,0,0,-0.0956386,-31.4992,-0.288683,29.617,1.26495,2.90673,0.110886,
-0.00551979,-0.0854974,0.0398702,-1.84936,0.0220855,0.226223,-0.0195158,0.165829,0.0477523,0.172475,-0.310355,0.281906,-0.441336,0.0170157,0,0,0,0,0,0,0,58.4425,2.27173,60.3484,-62.8635,10.9526,-14.289,0.549678,-0.00774149,-0.0868656,0.0375517,-1.84451,0.0201148,0.229965,-0.0199603,0.0860463,0.0771885,0.1472,-0.244167,0.0178472,-0.0514251,-0.000604074,0,0,0,0,0,0,0,-0.0956386,-31.4992,-0.288683,29.617,1.26495,2.90673,0.110886,
-0.00364657,-0.0854234,0.0418087,-1.85304,0.0256399,0.221209,-0.019554,0.179493,0.0400529,0.186445,-0.340411,0.314387,-0.478411,0.0126588,0,0,0,0,0,0,0,44.4062,5.98643,45.7355,-58.5635,10.9526,-14.289,-0.0803669,-0.00774149,-0.0868656,0.0375517,-1.84451,0.0201148,0.229965,-0.0199603,0.0860463,0.0771885,0.1472,-0.244167,0.0178472,-0.0514251,-0.000604074,0,0,0,0,0,0,0,-0.0956386,-31.4992,-0.288683,29.617,1.26495,2.90673,0.110886,
0.000428731,-0.0856074,0.0490598,-1.86462,0.032552,0.212109,-0.0208314,0.188877,0.0321707,0.196119,-0.365254,0.391713,-0.555229,-0.00178252,0,0,0,0,0,0,0,44.4208,6.00947,45.7639,-58.5214,10.9655,-14.2203,-0.0807383,-0.00458886,-0.0857265,0.0438442,-1.85408,0.0204109,0.227314,-0.0199702,0.104894,0.0651969,0.169108,-0.295399,0.00870013,-0.0626427,-0.00142712,2.35591,-1.49896,2.73853,-6.40395,-1.14339,-1.40221,-0.102881,-3.64636,-33.9232,-3.5855,35.4489,1.05163,4.30657,0.138352,
0.00229492,-0.0856034,0.0509946,-1.86844,0.0391625,0.204031,-0.0213317,0.197756,0.0258367,0.205265,-0.387798,0.478632,-0.646143,-0.0139344,0,0,0,0,0,0,0,36.3567,5.82096,37.4208,-56.5103,10.9655,-14.2203,-0.412547,-0.00458886,-0.0857265,0.0438442,-1.85408,0.0204109,0.227314,-0.0199702,0.104894,0.0651969,0.169108,-0.295399,0.00870013,-0.0626427,-0.00142712,0,0,0,0,0,0,0,-3.64636,-33.9232,-3.5855,35.4489,1.05163,4.30657,0.138352,
0.00418481,-0.0856105,0.0529534,-1.87235,0.0464772,0.195119,-0.0217883,0.205453,0.0204912,0.213182,-0.407933,0.565775,-0.73971,-0.0225639,0,0,0,0,0,0,0,31.6461,4.62162,32.5847,-55.0465,10.9655,-14.2203,-0.592726,-0.00458886,-0.0857265,0.0438442,-1.85408,0.0204109,0.227314,-0.0199702,0.104894,0.0651969,0.169108,-0.295399,0.00870013,-0.0626427,-0.00142712,0,0,0,0,0,0,0,-3.64636,-33.9232,-3.5855,35.4489,1.05163,4.30657,0.138352,
0.00606598,-0.0856292,0.0549026,-1.87634,0.0543061,0.185825,-0.0222217,0.211391,0.0159246,0.219274,-0.426095,0.648342,-0.824115,-0.0288859,0,0,0,0,0,0,0,28.9838,3.17195,29.8725,-53.8571,10.9655,-14.2203,-0.618094,-0.00458886,-0.0857265,0.0438442,-1.85408,0.0204109,0.227314,-0.0199702,0.104894,0.0651969,0.169108,-0.295399,0.00870013,-0.0626427,-0.00142712,0,0,0,0,0,0,0,-3.64636,-33.9232,-3.5855,35.4489,1.05163,4.30657,0.138352,
-0.00309141,-0.0856291,0.0454077,-1.85734,0.022745,0.22427,-0.0200294,0.206549,0.0151753,0.214508,-0.422551,0.577025,-0.735395,-0.0245872,0,0,0,0,0,0,0,44.4949,6.09648,45.8577,-58.4562,11.0086,-14.1051,-0.0813386,-0.000373226,-0.0845116,0.0523227,-1.86578,0.0217507,0.223084,-0.0199798,0.138866,0.0195204,0.269767,-0.380733,0.0948281,-0.192181,-8.77389e-05,4.24651,-5.70956,12.5824,-10.6667,10.766,-16.1923,0.167423,3.32813,-30.8287,3.41279,29.2203,1.35101,2.7282,0.0980684,
-0.00138258,-0.0856125,0.0471813,-1.8609,0.0269438,0.219009,-0.020355,0.20796,0.0125544,0.215945,-0.427037,0.566592,-0.719825,-0.0278096,0,0,0,0,0,0,0,36.4308,5.90797,37.5146,-56.4451,11.0086,-14.1051,-0.413148,-0.000373226,-0.0845116,0.0523227,-1.86578,0.0217507,0.223084,-0.0199798,0.138866,0.0195204,0.269767,-0.380733,0.0948281,-0.192181,-8.77389e-05,0,0,0,0,0,0,0,3.32813,-30.8287,3.41279,29.2203,1.35101,2.7282,0.0980684,
0.000428731,-0.0856074,0.0490598,-1.86462,0.032552,0.212109,-0.0208314,0.211651,0.0101719,0.219719,-0.434555,0.593477,-0.74836,-0.0341572,0,0,0,0,0,0,0,31.7203,4.70863,32.6785,-54.9813,11.0086,-14.1051,-0.593327,-0.000373226,-0.0845116,0.0523227,-1.86578,0.0217507,0.223084,-0.0199798,0.138866,0.0195204,0.269767,-0.380733,0.0948281,-0.192181,-8.77389e-05,0,0,0,0,0,0,0,3.32813,-30.8287,3.41279,29.2203,1.35101,2.7282,0.0980684,
0.00318806,-0.0845168,0.0560506,-1.87282,0.0300734,0.212838,-0.020799,0.214809,0.00760938,0.223137,-0.437947,0.60126,-0.751088,-0.0394275,0,0,0,0,0,0,0,36.4308,5.90797,37.5146,-56.4451,11.0086,-14.1051,-0.413148,-0.000373226,-0.0845116,0.0523227,-1.86578,0.0217507,0.223084,-0.0199798,0.138866,0.0195204,0.269767,-0.380733,0.0948281,-0.192181,-8.77389e-05,0,0,0,0,0,0,0,3.32813,-30.8287,3.41279,29.2203,1.35101,2.7282,0.0980684,
0.0050481,-0.0845501,0.0579834,-1.87655,0.036357,0.205344,-0.0213038,0.218348,0.0052564,0.226831,-0.443836,0.638099,-0.788226,-0.044162,0,0,0,0,0,0,0,31.7323,4.55057,32.7134,-54.8905,10.9992,-14.0214,-0.593874,0.0042459,-0.0842082,0.0608804,-1.88104,0.0246023,0.216489,-0.0199776,0.127672,-0.0512158,0.248984,-0.429694,0.0301251,-0.118228,0.00162362,-1.3992,-8.84203,-2.59793,-6.12014,-8.08787,9.2441,0.21392,-1.74603,-39.5369,-2.51036,35.0006,1.65588,3.43773,0.0641939,
0.006926,-0.0845981,0.0599327,-1.88039,0.0434747,0.196861,-0.021763,0.221626,0.00300351,0.230197,-0.451033,0.68842,-0.842645,-0.0468102,0,0,0,0,0,0,0,29.07,3.1009,30.0012,-53.7012,10.9992,-14.0214,-0.619242,0.0042459,-0.0842082,0.0608804,-1.88104,0.0246023,0.216489,-0.0199776,0.127672,-0.0512158,0.248984,-0.429694,0.0301251,-0.118228,0.00162362,0,0,0,0,0,0,0,-1.74603,-39.5369,-2.51036,35.0006,1.65588,3.43773,0.0641939,
0.00879362,-0.0846575,0.0618698,-1.88433,0.0511834,0.187887,-0.0221979,0.223991,0.000919288,0.232585,-0.459158,0.743454,-0.898461,-0.0483204,0,0,0,0,0,0,0,27.0893,1.54523,27.9773,-52.81,10.9992,-14.0012,-0.562663,0.0042459,-0.0842082,0.0608804,-1.88104,0.0246023,0.216489,-0.0199776,0.127672,-0.0512158,0.248984,-0.429694,0.0301251,-0.118228,0.00162362,0,0,0,0,0,0,0,-1.74603,-39.5369,-2.51036,35.0006,1.65588,3.43773,0.0641939,
0.00740687,-0.0847402,0.0642081,-1.88792,0.0324957,0.206433,-0.0209657,0.219607,-0.00545852,0.228335,-0.454783,0.716973,-0.869534,-0.0513955,0,0,0,0,0,0,0,31.7323,4.55057,32.7134,-54.8905,10.9992,-14.0214,-0.593874,0.0042459,-0.0842082,0.0608804,-1.88104,0.0246023,0.216489,-0.0199776,0.127672,-0.0512158,0.248984,-0.429694,0.0301251,-0.118228,0.00162362,0,0,0,0,0,0,0,-1.74603,-39.5369,-2.51036,35.0006,1.65588,3.43773,0.0641939,
0.00907446,-0.0849754,0.0659458,-1.89155,0.0386448,0.199024,-0.0214272,0.217376,-0.0102471,0.226112,-0.454599,0.727308,-0.880843,-0.0526563,0,0,0,0,0,0,0,29.07,3.1009,30.0012,-53.7012,10.9992,-14.0214,-0.619242,0.0042459,-0.0842082,0.0608804,-1.88104,0.0246023,0.216489,-0.0199776,0.127672,-0.0512158,0.248984,-0.429694,0.0301251,-0.118228,0.00162362,0,0,0,0,0,0,0,-1.74603,-39.5369,-2.51036,35.0006,1.65588,3.43773,0.0641939,
0.0107653,-0.0851984,0.0677041,-1.89531,0.0456658,0.190853,-0.0218628,0.216172,-0.0137721,0.224845,-0.457732,0.757371,-0.908937,-0.0530146,0,0,0,0,0,0,0,27.1186,1.46581,28.0335,-52.713,11.0171,-13.8924,-0.563286,0.00850179,-0.083963,0.0717663,-1.89582,0.0262219,0.211586,-0.0199714,0.121444,-0.0558427,0.318513,-0.403617,0.0939866,-0.180362,0.0024975,-0.778541,-0.578353,8.69117,3.2596,7.98269,-7.76674,0.109235,-0.0718349,-33.9708,-0.586229,26.0544,1.33819,1.6671,0.0376436,
0.0124568,-0.0853892,0.0694609,-1.89917,0.0532891,0.182397,-0.0222876,0.215224,-0.0157878,0.223796,-0.462551,0.796479,-0.938562,-0.0530298,0,0,0,0,0,0,0,25.0024,0.414811,25.8527,-51.8577,11.0171,-13.0993,-0.53545,0.00850179,-0.083963,0.0717663,-1.89582,0.0262219,0.211586,-0.0199714,0.121444,-0.0558427,0.318513,-0.403617,0.0939866,-0.180362,0.0024975,0,0,0,0,0,0,0,-0.0718349,-33.9708,-0.586229,26.0544,1.33819,1.6671,0.0376436,
0.0118774,-0.0847021,0.0753352,-1.90256,0.0351072,0.201178,-0.0209498,0.214519,-0.021654,0.223398,-0.456111,0.77104,-0.904492,-0.0542235,0,0,0,0,0,0,0,29.0992,3.02148,30.0574,-53.6041,11.0171,-13.9126,-0.619864,0.00850179,-0.083963,0.0717663,-1.89582,0.0262219,0.211586,-0.0199714,0.121444,-0.0558427,0.318513,-0.403617,0.0939866,-0.180362,0.0024975,0,0,0,0,0,0,0,-0.0718349,-33.9708,-0.586229,26.0544,1.33819,1.6671,0.0376436,
0.01357,-0.0850451,0.077101,-1.90616,0.0416613,0.193929,-0.0213919,0.213929,-0.0258993,0.222864,-0.454968,0.780683,-0.904805,-0.0544314,0,0,0,0,0,0,0,27.1186,1.46581,28.0335,-52.713,11.0171,-13.8924,-0.563286,0.00850179,-0.083963,0.0717663,-1.89582,0.0262219,0.211586,-0.0199714,0.121444,-0.0558427,0.318513,-0.403617,0.0939866,-0.180362,0.0024975,0,0,0,0,0,0,0,-0.0718349,-33.9708,-0.586229,26.0544,1.33819,1.6671,0.0376436,
0.015252,-0.0853468,0.0788519,-1.90989,0.0490091,0.186157,-0.0218204,0.213194,-0.028262,0.222063,-0.457062,0.808242,-0.918163,-0.054258,0,0,0,0,0,0,0,25.0074,0.25877,25.8855,-51.8029,11.0098,-13.0039,-0.535819,0.0120345,-0.0844193,0.0819039,-1.91113,0.0304699,0.202836,-0.0199849,0.0917755,-0.0877587,0.269329,-0.419268,0.153798,-0.354384,-0.000383025,-3.70853,-3.9895,-6.14808,-1.9564,7.47648,-21.7527,-0.360065,0.995365,-30.4042,0.663466,19.4806,1.1679,0.779043,0.131027,
0.0149361,-0.0854543,0.0849804,-1.91796,0.0396229,0.190995,-0.0208822,0.207347,-0.0347133,0.216282,-0.452857,0.782136,-0.899505,-0.0544786,0,0,0,0,0,0,0,27.1236,1.30977,28.0663,-52.6582,11.0098,-13.797,-0.563655,0.0120345,-0.0844193,0.0819039,-1.91113,0.0304699,0.202836,-0.0199849,0.0917755,-0.0877587,0.269329,-0.419268,0.153798,-0.354384,-0.000383025,0,0,0,0,0,0,0,0.995365,-30.4042,0.663466,19.4806,1.1679,0.779043,0.131027,
0.0164322,-0.0858697,0.0865442,-1.92158,0.046165,0.183714,-0.0213109,0.203278,-0.038155,0.212121,-0.452849,0.789261,-0.90163,-0.0542996,0,0,0,0,0,0,0,25.0074,0.25877,25.8855,-51.8029,11.0098,-13.0039,-0.535819,0.0120345,-0.0844193,0.0819039,-1.91113,0.0304699,0.202836,-0.0199849,0.0917755,-0.0877587,0.269329,-0.419268,0.153798,-0.354384,-0.000383025,0,0,0,0,0,0,0,0.995365,-30.4042,0.663466,19.4806,1.1679,0.779043,0.131027,
0.0179455,-0.0862117,0.0881226,-1.92532,0.0534467,0.176301,-0.0217124,0.200457,-0.039076,0.209154,-0.455606,0.81345,-0.906621,-0.0534773,0,0,0,0,0,0,0,23.1679,-0.190676,23.9912,-50.7446,11.0098,-11.9046,-0.525447,0.0120345,-0.0844193,0.0819039,-1.91113,0.0304699,0.202836,-0.0199849,0.0917755,-0.0877587,0.269329,-0.419268,0.153798,-0.354384,-0.000383025,0,0,0,0,0,0,0,0.995365,-30.4042,0.663466,19.4806,1.1679,0.779043,0.131027,
0.01947,-0.0864834,0.0897106,-1.92912,0.0612132,0.169094,-0.0220751,0.198476,-0.0380527,0.207024,-0.459681,0.844924,-0.905483,-0.0518499,0,0,0,0,0,0,0,21.8674,-0.474231,22.6571,-49.6797,11.0098,-10.4296,-0.495932,0.0120345,-0.0844193,0.0819039,-1.91113,0.0304699,0.202836,-0.0199849,0.0917755,-0.0877587,0.269329,-0.419268,0.153798,-0.354384,-0.000383025,0,0,0,0,0,0,0,0.995365,-30.4042,0.663466,19.4806,1.1679,0.779043,0.131027,
0.0134645,-0.0849701,0.0834352,-1.91447,0.0342012,0.197594,-0.0204394,0.19453,-0.0442121,0.2039,-0.451319,0.769222,-0.855428,-0.0528416,0,0,0,0,0,0,0,27.1236,1.30977,28.0663,-52.6582,11.0098,-13.797,-0.563655,0.0120345,-0.0844193,0.0819039,-1.91113,0.0304699,0.202836,-0.0199849,0.0917755,-0.0877587,0.269329,-0.419268,0.153798,-0.354384,-0.000383025,0,0,0,0,0,0,0,0.995365,-30.4042,0.663466,19.4806,1.1679,0.779043,0.131027,
0.0149361,-0.0854543,0.0849804,-1.91796,0.0396229,0.190995,-0.0208822,0.192415,-0.0474733,0.201751,-0.448263,0.75092,-0.849317,-0.0533455,0,0,0,0,0,0,0,25.0074,0.25877,25.8855,-51.8029,11.0098,-13.0039,-0.535819,0.0120345,-0.0844193,0.0819039,-1.91113,0.0304699,0.202836,-0.0199849,0.0917755,-0.0877587,0.269329,-0.419268,0.153798,-0.354384,-0.000383025,0,0,0,0,0,0,0,0.995365,-30.4042,0.663466,19.4806,1.1679,0.779043,0.131027,
0.0164322,-0.0858697,0.0865442,-1.92158,0.046165,0.183714,-0.0213109,0.191333,-0.0483631,0.200496,-0.449174,0.764288,-0.86148,-0.0533932,0,0,0,0,0,0,0,23.1679,-0.190676,23.9912,-50.7446,11.0098,-11.9046,-0.525447,0.0120345,-0.0844193,0.0819039,-1.91113,0.0304699,0.202836,-0.0199849,0.0917755,-0.0877587,0.269329,-0.419268,0.153798,-0.354384,-0.000383025,0,0,0,0,0,0,0,0.995365,-30.4042,0.663466,19.4806,1.1679,0.779043,0.131027,
0.0179455,-0.0862117,0.0881226,-1.92532,0.0534467,0.176301,-0.0217124,0.190901,-0.0472424,0.199855,-0.452666,0.793471,-0.8745,-0.0527521,0,0,0,0,0,0,0,21.9049,-0.553953,22.7223,-49.5583,11.0187,-10.2856,-0.496688,0.0159383,-0.0846978,0.0918884,-1.92542,0.0366355,0.191371,-0.0199873,0.124619,-0.0609432,0.307658,-0.441564,0.173333,-0.377362,-0.00442463,4.10549,3.35194,4.79122,-2.78698,2.44176,-2.87233,-0.5052,-0.274166,-29.4045,-0.93535,18.334,1.31439,0.413748,0.151169,
0.0190919,-0.0854576,0.0952383,-1.93249,0.0463412,0.179793,-0.0208706,0.191745,-0.0468033,0.200951,-0.451704,0.777413,-0.858536,-0.0531999,0,0,0,0,0,0,0,25.0449,0.179047,25.9507,-51.6815,11.0187,-12.8599,-0.536575,0.0159383,-0.0846978,0.0918884,-1.92542,0.0366355,0.191371,-0.0199873,0.124619,-0.0609432,0.307658,-0.441564,0.173333,-0.377362,-0.00442463,0,0,0,0,0,0,0,-0.274166,-29.4045,-0.93535,18.334,1.31439,0.413748,0.151169,
0.0206347,-0.0857722,0.0968544,-1.93618,0.0531285,0.173024,-0.0212792,0.191966,-0.0453078,0.201162,-0.453603,0.791614,-0.856061,-0.0527754,0,0,0,0,0,0,0,23.2054,-0.270398,24.0563,-50.6232,11.0187,-11.7606,-0.526203,0.0159383,-0.0846978,0.0918884,-1.92542,0.0366355,0.191371,-0.0199873,0.124619,-0.0609432,0.307658,-0.441564,0.173333,-0.377362,-0.00442463,0,0,0,0,0,0,0,-0.274166,-29.4045,-0.93535,18.334,1.31439,0.413748,0.151169,
0.0221696,-0.0860353,0.0984581,-1.93995,0.0606005,0.166276,-0.0216462,0.191946,-0.0428242,0.201024,-0.457093,0.820089,-0.85354,-0.0513939,0,0,0,0,0,0,0,21.9049,-0.553953,22.7223,-49.5583,11.0187,-10.2856,-0.496688,0.0159383,-0.0846978,0.0918884,-1.92542,0.0366355,0.191371,-0.0199873,0.124619,-0.0609432,0.307658,-0.441564,0.173333,-0.377362,-0.00442463,0,0,0,0,0,0,0,-0.274166,-29.4045,-0.93535,18.334,1.31439,0.413748,0.151169,
0.0232266,-0.0862013,0.105821,-1.95227,0.0599094,0.162138,-0.0210886,0.184355,-0.0388612,0.193276,-0.458226,0.819841,-0.811343,-0.0492747,0,0,0,0,0,0,0,21.82,-0.80883,22.6672,-49.4662,10.9549,-10.1711,-0.497248,0.0196521,-0.0857159,0.102007,-1.94151,0.0438253,0.176631,-0.0199843,0.0770991,0.00705606,0.227013,-0.390039,0.192281,-0.381309,0.000683112,-5.94005,8.4999,-10.0807,6.44065,2.3686,-0.493266,0.638467,-8.56579,-34.6452,-9.31029,24.7849,0.245053,1.6076,0.124619,
0.0244981,-0.0863731,0.107156,-1.95606,0.0671253,0.157466,-0.0213715,0.179272,-0.0353852,0.187992,-0.461385,0.836271,-0.765883,-0.046492,0,0,0,0,0,0,0,20.8653,-1.13167,21.6872,-48.4982,10.9549,-8.83185,-0.450983,0.0196521,-0.0857159,0.102007,-1.94151,0.0438253,0.176631,-0.0199843,0.0770991,0.00705606,0.227013,-0.390039,0.192281,-0.381309,0.000683112,0,0,0,0,0,0,0,-8.56579,-34.6452,-9.31029,24.7849,0.245053,1.6076,0.124619,
0.0258015,-0.086525,0.108521,-1.95995,0.0747921,0.15388,-0.0216193,0.176002,-0.0321048,0.184528,-0.466374,0.860685,-0.702347,-0.0433879,0,0,0,0,0,0,0,20.0486,-1.43143,20.8465,-47.5835,10.9549,-7.28505,-0.400585,0.0196521,-0.0857159,0.102007,-1.94151,0.0438253,0.176631,-0.0199843,0.0770991,0.00705606,0.227013,-0.390039,0.192281,-0.381309,0.000683112,0,0,0,0,0,0,0,-8.56579,-34.6452,-9.31029,24.7849,0.245053,1.6076,0.124619,
0.0271269,-0.0866522,0.109908,-1.9639,0.0827621,0.151609,-0.021835,0.173938,-0.0288651,0.182291,-0.471795,0.887798,-0.618651,-0.0401034,0,0,0,0,0,0,0,19.2731,-1.69039,20.048,-46.6932,10.9549,-5.0289,-0.350966,0.0196521,-0.0857159,0.102007,-1.94151,0.0438253,0.176631,-0.0199843,0.0770991,0.00705606,0.227013,-0.390039,0.192281,-0.381309,0.000683112,0,0,0,0,0,0,0,-8.56579,-34.6452,-9.31029,24.7849,0.245053,1.6076,0.124619,
0.0208047,-0.0858395,0.10326,-1.94496,0.0478121,0.172295,-0.0203892,0.167967,-0.0261821,0.177148,-0.463752,0.809907,-0.603323,-0.0422048,0,0,0,0,0,0,0,21.8273,-0.940065,22.7003,-49.3322,10.9444,-10.0374,-0.497966,0.0223588,-0.0859845,0.111343,-1.95379,0.0509639,0.164511,-0.0199858,0.0755073,0.0561874,0.285212,-0.365787,0.218264,-0.368367,0.00106575,-0.198972,6.14142,7.27489,3.03143,3.24786,1.6177,0.0478299,0.209842,-30.9755,-0.562425,22.345,1.21002,0.891653,0.0980684,
0.0219947,-0.0860172,0.104523,-1.94857,0.0533586,0.167279,-0.0207623,0.164122,-0.0253882,0.173285,-0.46113,0.786589,-0.608063,-0.0430907,0,0,0,0,0,0,0,20.8726,-1.26291,21.7203,-48.3642,10.9444,-8.69815,-0.451701,0.0223588,-0.0859845,0.111343,-1.95379,0.0509639,0.164511,-0.0199858,0.0755073,0.0561874,0.285212,-0.365787,0.218264,-0.368367,0.00106575,0,0,0,0,0,0,0,0.209842,-30.9755,-0.562425,22.345,1.21002,0.891653,0.0980684,
0.0232266,-0.0862013,0.105821,-1.95227,0.0599094,0.162138,-0.0210886,0.162096,-0.0249124,0.171085,-0.461456,0.793042,-0.614962,-0.0426321,0,0,0,0,0,0,0,20.056,-1.56266,20.8796,-47.4495,10.9444,-7.15136,-0.401304,0.0223588,-0.0859845,0.111343,-1.95379,0.0509639,0.164511,-0.0199858,0.0755073,0.0561874,0.285212,-0.365787,0.218264,-0.368367,0.00106575,0,0,0,0,0,0,0,0.209842,-30.9755,-0.562425,22.345,1.21002,0.891653,0.0980684,
0.026154,-0.0860176,0.115406,-1.96481,0.0678484,0.155021,-0.0208765,0.161184,-0.0219866,0.170143,-0.464857,0.804221,-0.559288,-0.0404998,0,0,0,0,0,0,0,20.056,-1.56266,20.8796,-47.4495,10.9444,-7.15136,-0.401304,0.0223588,-0.0859845,0.111343,-1.95379,0.0509639,0.164511,-0.0199858,0.0755073,0.0561874,0.285212,-0.365787,0.218264,-0.368367,0.00106575,0,0,0,0,0,0,0,0.209842,-30.9755,-0.562425,22.345,1.21002,0.891653,0.0980684,
0.0274261,-0.0861106,0.116744,-1.96871,0.0752569,0.153376,-0.0210965,0.16075,-0.0199138,0.169569,-0.469356,0.82859,-0.48857,-0.0378982,0,0,0,0,0,0,0,19.257,-1.99679,20.0843,-46.4594,10.8995,-4.76551,-0.352347,0.0245737,-0.0865714,0.119782,-1.96701,0.060382,0.149844,-0.0199869,0.0711179,0.0479752,0.228664,-0.407672,0.330849,-0.405282,0.000830232,-0.548672,-1.02652,-7.06848,-5.23555,14.073,-4.61444,-0.0294399,1.4516,-28.8054,1.03639,26.3797,1.39953,1.79986,0.104477,
0.0287099,-0.0862011,0.118092,-1.97263,0.0830635,0.152885,-0.0212904,0.160694,-0.0181949,0.169338,-0.473509,0.858036,-0.403122,-0.0351661,0,0,0,0,0,0,0,18.509,-2.26905,19.3152,-45.6211,10.8995,-1.69588,-0.311379,0.0245737,-0.0865714,0.119782,-1.96701,0.060382,0.149844,-0.0199869,0.0711179,0.0479752,0.228664,-0.407672,0.330849,-0.405282,0.000830232,0,0,0,0,0,0,0,1.4516,-28.8054,1.03639,26.3797,1.39953,1.79986,0.104477,
0.0300014,-0.0862844,0.119445,-1.97654,0.0911288,0.153513,-0.0214574,0.160842,-0.0166379,0.169303,-0.476353,0.888061,-0.3068,-0.0323086,0,0,0,0,0,0,0,17.8236,-2.66598,18.6039,-44.9619,10.8995,0.736203,-0.271807,0.0245737,-0.0865714,0.119782,-1.96701,0.060382,0.149844,-0.0199869,0.0711179,0.0479752,0.228664,-0.407672,0.330849,-0.405282,0.000830232,0,0,0,0,0,0,0,1.4516,-28.8054,1.03639,26.3797,1.39953,1.79986,0.104477,
0.0279374,-0.086482,0.12339,-1.97862,0.0780589,0.145931,-0.0206635,0.157223,-0.0138703,0.165678,-0.479587,0.882388,-0.252037,-0.0307463,0,0,0,0,0,0,0,18.509,-2.26905,19.3152,-45.6211,10.8995,-1.69588,-0.311379,0.0245737,-0.0865714,0.119782,-1.96701,0.060382,0.149844,-0.0199869,0.0711179,0.0479752,0.228664,-0.407672,0.330849,-0.405282,0.000830232,0,0,0,0,0,0,0,1.4516,-28.8054,1.03639,26.3797,1.39953,1.79986,0.104477,
0.0291048,-0.0865181,0.124621,-1.98254,0.0854735,0.146721,-0.020831,0.154963,-0.0119963,0.163323,-0.481633,0.891276,-0.181875,-0.0287854,0,0,0,0,0,0,0,17.8236,-2.66598,18.6039,-44.9619,10.8995,0.736203,-0.271807,0.0245737,-0.0865714,0.119782,-1.96701,0.060382,0.149844,-0.0199869,0.0711179,0.0479752,0.228664,-0.407672,0.330849,-0.405282,0.000830232,0,0,0,0,0,0,0,1.4516,-28.8054,1.03639,26.3797,1.39953,1.79986,0.104477,
0.0302934,-0.0865599,0.125871,-1.98641,0.0932439,0.14848,-0.0209765,0.153686,-0.0106444,0.161914,-0.481936,0.907281,-0.101516,-0.0266662,0,0,0,0,0,0,0,17.2293,-3.25146,18.0037,-44.2016,10.872,2.75737,-0.242209,0.0273139,-0.0870438,0.126565,-1.97987,0.070419,0.13872,-0.0199773,0.101248,0.0372652,0.245528,-0.383272,0.27098,-0.274756,0.00241461,3.76621,-1.33875,2.108,3.05002,-7.48359,16.3158,0.198047,-0.0718349,-32.5743,-1.26067,30.0931,1.33819,2.50939,0.050461,
0.0314968,-0.0866039,0.127135,-1.9902,0.101253,0.151074,-0.0210989,0.153035,-0.00961498,0.161123,-0.480301,0.926053,-0.0163637,-0.024391,0,0,0,0,0,0,0,16.7056,-3.4443,17.4542,-43.6349,10.872,4.18797,-0.208654,0.0273139,-0.0870438,0.126565,-1.97987,0.070419,0.13872,-0.0199773,0.101248,0.0372652,0.245528,-0.383272,0.27098,-0.274756,0.00241461,0,0,0,0,0,0,0,-0.0718349,-32.5743,-1.26067,30.0931,1.33819,2.50939,0.050461,
0.0308459,-0.0872273,0.130353,-1.99135,0.0878558,0.141029,-0.020514,0.151432,-0.00979133,0.159641,-0.480556,0.912657,0.0327107,-0.0232826,0,0,0,0,0,0,0,17.2293,-3.25146,18.0037,-44.2016,10.872,2.75737,-0.242209,0.0273139,-0.0870438,0.126565,-1.97987,0.070419,0.13872,-0.0199773,0.101248,0.0372652,0.245528,-0.383272,0.27098,-0.274756,0.00241461,0,0,0,0,0,0,0,-0.0718349,-32.5743,-1.26067,30.0931,1.33819,2.50939,0.050461,
0.0320101,-0.0873045,0.131582,-1.99513,0.0952857,0.143693,-0.0206389,0.150248,-0.00976267,0.158434,-0.479018,0.915873,0.0927722,-0.0217494,0,0,0,0,0,0,0,16.7056,-3.4443,17.4542,-43.6349,10.872,4.18797,-0.208654,0.0273139,-0.0870438,0.126565,-1.97987,0.070419,0.13872,-0.0199773,0.101248,0.0372652,0.245528,-0.383272,0.27098,-0.274756,0.00241461,0,0,0,0,0,0,0,-0.0718349,-32.5743,-1.26067,30.0931,1.33819,2.50939,0.050461,
0.0331808,-0.0873746,0.132815,-1.99883,0.103077,0.147041,-0.0207435,0.149467,-0.00956356,0.157562,-0.475625,0.927479,0.157918,-0.0200137,0,0,0,0,0,0,0,16.2188,-3.72428,16.9621,-42.94,10.819,5.32694,-0.182108,0.0298024,-0.0867177,0.133893,-1.99231,0.0789418,0.130459,-0.0199837,0.0580176,9.45526e-05,0.197683,-0.373322,0.253034,-0.18548,0.000547303,-5.40375,-4.64634,-5.98067,1.24373,-2.24321,11.1595,-0.233413,1.55078,-33.0226,0.738844,32.4576,1.61926,3.19237,0.104477,
0.0343566,-0.087439,0.13405,-2.00243,0.111106,0.150922,-0.0208276,0.148968,-0.00926037,0.156943,-0.47056,0.9427,0.223365,-0.0181145,0,0,0,0,0,0,0,15.8195,-3.63041,16.5409,-42.3394,10.819,6.05237,-0.152455,0.0298024,-0.0867177,0.133893,-1.99231,0.0789418,0.130459,-0.0199837,0.0580176,9.45526e-05,0.197683,-0.373322,0.253034,-0.18548,0.000547303,0,0,0,0,0,0,0,1.55078,-33.0226,0.738844,32.4576,1.61926,3.19237,0.104477,
0.0326707,-0.0873053,0.136988,-2.00345,0.0956349,0.136383,-0.020367,0.1438,-0.0114369,0.151759,-0.469037,0.919751,0.254169,-0.0170902,0,0,0,0,0,0,0,16.2188,-3.72428,16.9621,-42.94,10.819,5.32694,-0.182108,0.0298024,-0.0867177,0.133893,-1.99231,0.0789418,0.130459,-0.0199837,0.0580176,9.45526e-05,0.197683,-0.373322,0.253034,-0.18548,0.000547303,0,0,0,0,0,0,0,1.55078,-33.0226,0.738844,32.4576,1.61926,3.19237,0.104477,
0.0336893,-0.0874285,0.138067,-2.00706,0.102844,0.140069,-0.0204498,0.140505,-0.0122283,0.148372,-0.465561,0.916019,0.295505,-0.0157414,0,0,0,0,0,0,0,15.8195,-3.63041,16.5409,-42.3394,10.819,6.05237,-0.152455,0.0298024,-0.0867177,0.133893,-1.99231,0.0789418,0.130459,-0.0199837,0.0580176,9.45526e-05,0.197683,-0.373322,0.253034,-0.18548,0.000547303,0,0,0,0,0,0,0,1.55078,-33.0226,0.738844,32.4576,1.61926,3.19237,0.104477,
0.0347368,-0.0875255,0.139172,-2.01058,0.110446,0.144241,-0.0205153,0.13859,-0.0122095,0.146336,-0.460363,0.92288,0.340693,-0.0142308,0,0,0,0,0,0,0,15.4596,-3.60919,16.1781,-41.6045,10.7793,6.61628,-0.128621,0.0314204,-0.0863527,0.140577,-2.00466,0.0895715,0.126893,-0.0199858,0.0431816,-0.0165125,0.210094,-0.374708,0.325882,-0.0591845,-0.00182525,-1.85451,-2.07588,1.55141,-0.173252,9.10596,15.787,-0.296569,0.840641,-33.3995,-0.0863513,32.3346,1.99829,2.9937,0.0980684,
0.0352308,-0.0870716,0.144665,-2.01871,0.114351,0.139574,-0.020224,0.135557,-0.0122739,0.143202,-0.453282,0.921277,0.377314,-0.0121562,0,0,0,0,0,0,0,15.1389,-3.36646,15.8391,-40.9752,10.7793,6.87718,-0.102969,0.0314204,-0.0863527,0.140577,-2.00466,0.0895715,0.126893,-0.0199858,0.0431816,-0.0165125,0.210094,-0.374708,0.325882,-0.0591845,-0.00182525,0,0,0,0,0,0,0,0.840641,-33.3995,-0.0863513,32.3346,1.99829,2.9937,0.0980684,
0.0362395,-0.0871439,0.14573,-2.02201,0.122029,0.144061,-0.0202376,0.133662,-0.0116271,0.141182,-0.44513,0.928984,0.414039,-0.0100649,0,0,0,0,0,0,0,14.8442,-3.09957,15.5277,-40.3401,10.7793,6.99626,-0.0812024,0.0314204,-0.0863527,0.140577,-2.00466,0.0895715,0.126893,-0.0199858,0.0431816,-0.0165125,0.210094,-0.374708,0.325882,-0.0591845,-0.00182525,0,0,0,0,0,0,0,0.840641,-33.3995,-0.0863513,32.3346,1.99829,2.9937,0.0980684,
0.0372622,-0.0872013,0.146807,-2.02522,0.129955,0.148725,-0.0202361,0.132497,-0.010736,0.139887,-0.43636,0.941336,0.447826,-0.00801445,0,0,0,0,0,0,0,14.5753,-2.82466,15.2434,-39.7045,10.7793,6.99369,-0.0578249,0.0314204,-0.0863527,0.140577,-2.00466,0.0895715,0.126893,-0.0199858,0.0431816,-0.0165125,0.210094,-0.374708,0.325882,-0.0591845,-0.00182525,0,0,0,0,0,0,0,0.840641,-33.3995,-0.0863513,32.3346,1.99829,2.9937,0.0980684,
0.038291,-0.087251,0.14789,-2.02835,0.138054,0.153477,-0.0202162,0.131719,-0.00983097,0.138977,-0.427302,0.955541,0.477059,-0.00591387,0,0,0,0,0,0,0,14.2948,-2.71132,14.9693,-38.9756,10.7338,6.99468,-0.0373058,0.0328235,-0.0859303,0.149198,-2.01831,0.102173,0.126558,-0.0199876,0.0291109,-0.00225509,0.218202,-0.343588,0.350696,0.0201743,-0.000165628,-1.75883,1.78217,1.01354,3.89001,3.10173,9.91985,0.207453,-1.23822,-30.6542,-1.8875,24.3127,1.09466,1.79345,0.110886,
0.0364741,-0.0864261,0.153123,-2.03156,0.127285,0.140223,-0.0200242,0.128769,-0.00941462,0.135981,-0.42208,0.948515,0.487012,-0.00422618,0,0,0,0,0,0,0,14.2948,-2.71132,14.9693,-38.9756,10.7338,6.99468,-0.0373058,0.0328235,-0.0859303,0.149198,-2.01831,0.102173,0.126558,-0.0199876,0.0291109,-0.00225509,0.218202,-0.343588,0.350696,0.0201743,-0.000165628,0,0,0,0,0,0,0,-1.23822,-30.6542,-1.8875,24.3127,1.09466,1.79345,0.110886,
0.0374191,-0.0864676,0.154122,-2.03468,0.135001,0.144626,-0.0199846,0.126641,-0.00856829,0.13376,-0.415603,0.951708,0.499699,-0.00239197,0,0,0,0,0,0,0,14.0093,-2.462,14.6684,-38.3499,10.7338,6.87156,-0.0152819,0.0328235,-0.0859303,0.149198,-2.01831,0.102173,0.126558,-0.0199876,0.0291109,-0.00225509,0.218202,-0.343588,0.350696,0.0201743,-0.000165628,0,0,0,0,0,0,0,-1.23822,-30.6542,-1.8875,24.3127,1.09466,1.79345,0.110886,
0.0383599,-0.0864995,0.155115,-2.03771,0.142968,0.14909,-0.0199457,0.124832,-0.00765383,0.13184,-0.408288,0.960536,0.511359,-0.000941163,0,0,0,0,0,0,0,13.6785,-2.24762,14.3205,-37.747,10.7338,6.73393,0.00423854,0.0328235,-0.0859303,0.149198,-2.01831,0.102173,0.126558,-0.0199876,0.0291109,-0.00225509,0.218202,-0.343588,0.350696,0.0201743,-0.000165628,0,0,0,0,0,0,0,-1.23822,-30.6542,-1.8875,24.3127,1.09466,1.79345,0.110886,
0.0393032,-0.0865247,0.156112,-2.04065,0.150789,0.153521,-0.0199088,0.123448,-0.00675226,0.130394,-0.400109,0.963943,0.519858,0.000171389,0,0,0,0,0,0,0,13.2958,-2.13633,13.9377,-37.0772,10.6925,6.63946,0.0279064,0.0337951,-0.0854367,0.156905,-2.02956,0.114594,0.127883,-0.0199884,0.0262452,0.0337814,0.233282,-0.314689,0.36334,0.0597708,-0.000532551,-0.35822,4.50456,1.88498,3.61235,1.58056,4.94957,-0.0458653,0.435978,-28.8808,-0.33629,23.2178,1.5094,1.46844,0.11821,
0.0373342,-0.0854498,0.160722,-2.04219,0.139796,0.141209,-0.0198763,0.120672,-0.00509052,0.127658,-0.396214,0.949539,0.513387,0.00104314,0,0,0,0,0,0,0,13.2958,-2.13633,13.9377,-37.0772,10.6925,6.63946,0.0279064,0.0337951,-0.0854367,0.156905,-2.02956,0.114594,0.127883,-0.0199884,0.0262452,0.0337814,0.233282,-0.314689,0.36334,0.0597708,-0.000532551,0,0,0,0,0,0,0,0.435978,-28.8808,-0.33629,23.2178,1.5094,1.46844,0.11821,
0.0382346,-0.0854283,0.161676,-2.04511,0.146535,0.145177,-0.0198422,0.119047,-0.00353332,0.125973,-0.390108,0.928093,0.509921,0.00168604,0,0,0,0,0,0,0,12.7812,-1.93532,13.3978,-36.4951,10.6925,6.44499,0.0527823,0.0337951,-0.0854367,0.156905,-2.02956,0.114594,0.127883,-0.0199884,0.0262452,0.0337814,0.233282,-0.314689,0.36334,0.0597708,-0.000532551,0,0,0,0,0,0,0,0.435978,-28.8808,-0.33629,23.2178,1.5094,1.46844,0.11821,
0.0391584,-0.0854058,0.162651,-2.04793,0.152586,0.149141,-0.0198108,0.118333,-0.00226546,0.125159,-0.382545,0.893761,0.507027,0.00213464,0,0,0,0,0,0,0,12.0451,-1.7442,12.6348,-35.9509,10.6925,6.15958,0.052348,0.0337951,-0.0854367,0.156905,-2.02956,0.114594,0.127883,-0.0199884,0.0262452,0.0337814,0.233282,-0.314689,0.36334,0.0597708,-0.000532551,0,0,0,0,0,0,0,0.435978,-28.8808,-0.33629,23.2178,1.5094,1.46844,0.11821,
0.0380167,-0.0841913,0.168461,-2.05247,0.147898,0.143124,-0.0198837,0.116678,-0.000135271,0.123485,-0.376708,0.830597,0.492624,0.00237974,0,0,0,0,0,0,0,11.3248,-1.58208,11.9933,-35.3103,9.5215,5.92405,0.0462958,0.0345761,-0.0845014,0.164747,-2.04062,0.127941,0.130756,-0.0199887,0.0183581,0.045798,0.228019,-0.313417,0.415403,0.119195,0.00105127,-0.985883,1.50207,-0.657939,0.158964,6.50786,7.42805,0.197977,0.765262,-30.2773,-0.0387439,25.1855,1.53412,1.67351,0.0907442,
0.0389137,-0.0841319,0.169409,-2.05519,0.151891,0.146661,-0.0198562,0.115768,0.00137702,0.122502,-0.369584,0.764296,0.482516,0.00259014,0,0,0,0,0,0,0,10.7558,-1.28757,11.4583,-34.6897,7.64233,5.65062,0.0383594,0.0345761,-0.0845014,0.164747,-2.04062,0.127941,0.130756,-0.0199887,0.0183581,0.045798,0.228019,-0.313417,0.415403,0.119195,0.00105127,0,0,0,0,0,0,0,0.765262,-30.2773,-0.0387439,25.1855,1.53412,1.67351,0.0907442,
0.0398222,-0.0840843,0.170368,-2.05784,0.15522,0.150208,-0.0198288,0.115327,0.00229096,0.121966,-0.361802,0.694665,0.474687,0.00275825,0,0,0,0,0,0,0,10.3571,-1.01386,11.0666,-34.0483,6.05934,5.39122,0.0330766,0.0345761,-0.0845014,0.164747,-2.04062,0.127941,0.130756,-0.0199887,0.0183581,0.045798,0.228019,-0.313417,0.415403,0.119195,0.00105127,0,0,0,0,0,0,0,0.765262,-30.2773,-0.0387439,25.1855,1.53412,1.67351,0.0907442,
0.0407375,-0.0840504,0.171332,-2.06041,0.157899,0.153738,-0.019799,0.115142,0.00267853,0.121679,-0.353798,0.622713,0.468008,0.00295192,0,0,0,0,0,0,0,10.1101,-0.795766,10.8115,-33.4068,4.74601,5.15881,0.0283628,0.0345761,-0.0845014,0.164747,-2.04062,0.127941,0.130756,-0.0199887,0.0183581,0.045798,0.228019,-0.313417,0.415403,0.119195,0.00105127,0,0,0,0,0,0,0,0.765262,-30.2773,-0.0387439,25.1855,1.53412,1.67351,0.0907442,
0.0354257,-0.084396,0.165694,-2.04366,0.132846,0.133229,-0.019967,0.113355,0.00477838,0.121021,-0.359067,0.620799,0.436224,0.00290265,0,0,0,0,0,0,0,11.327,-1.67234,12.0122,-35.2536,9.47646,5.96081,0.0461099,0.0353129,-0.0836713,0.172402,-2.05084,0.142634,0.135257,-0.0199876,0.0256576,0.0385722,0.234109,-0.298857,0.430084,0.158385,0.00117172,0.912435,-0.903223,0.761267,1.81997,1.83512,4.89876,0.0150568,-0.0440639,-30.678,-0.887743,27.1533,1.55243,1.87951,0.0980684,
0.0362741,-0.0843272,0.166607,-2.0467,0.138159,0.136298,-0.0199393,0.111894,0.00554187,0.119634,-0.363296,0.629476,0.425701,0.00301476,0,0,0,0,0,0,0,10.7581,-1.37783,11.4771,-34.6331,7.5973,5.68738,0.0381735,0.0353129,-0.0836713,0.172402,-2.05084,0.142634,0.135257,-0.0199876,0.0256576,0.0385722,0.234109,-0.298857,0.430084,0.158385,0.00117172,0,0,0,0,0,0,0,-0.0440639,-30.678,-0.887743,27.1533,1.55243,1.87951,0.0980684,
0.0371362,-0.0842583,0.167527,-2.04964,0.143274,0.139644,-0.0199105,0.111068,0.00615443,0.118698,-0.364077,0.631455,0.424221,0.00313089,0,0,0,0,0,0,0,10.3593,-1.10412,11.0854,-33.9917,6.01431,5.42798,0.0328908,0.0353129,-0.0836713,0.172402,-2.05084,0.142634,0.135257,-0.0199876,0.0256576,0.0385722,0.234109,-0.298857,0.430084,0.158385,0.00117172,0,0,0,0,0,0,0,-0.0440639,-30.678,-0.887743,27.1533,1.55243,1.87951,0.0980684,
0.039047,-0.0834001,0.176388,-2.06176,0.155145,0.146855,-0.0198946,0.111985,0.00611829,0.119388,-0.357048,0.566606,0.419735,0.00321649,0,0,0,0,0,0,0,10.1123,-0.886025,10.8304,-33.3502,4.70098,5.19558,0.0281769,0.0353129,-0.0836713,0.172402,-2.05084,0.142634,0.135257,-0.0199876,0.0256576,0.0385722,0.234109,-0.298857,0.430084,0.158385,0.00117172,0,0,0,0,0,0,0,-0.0440639,-30.678,-0.887743,27.1533,1.55243,1.87951,0.0980684,
0.0399686,-0.0833639,0.17736,-2.06431,0.157091,0.15013,-0.0198642,0.112626,0.00580027,0.119807,-0.349607,0.501929,0.417657,0.00333431,0,0,0,0,0,0,0,9.98566,-0.737054,10.691,-32.7158,3.55899,5.00194,0.0282393,0.0353129,-0.0836713,0.172402,-2.05084,0.142634,0.135257,-0.0199876,0.0256576,0.0385722,0.234109,-0.298857,0.430084,0.158385,0.00117172,0,0,0,0,0,0,0,-0.0440639,-30.678,-0.887743,27.1533,1.55243,1.87951,0.0980684,
0.0408853,-0.0833415,0.178326,-2.06681,0.158558,0.15343,-0.0198304,0.113019,0.00520189,0.119993,-0.342055,0.438236,0.416636,0.00351042,0,0,0,0,0,0,0,9.92627,-0.763956,10.6269,-32.0521,2.58754,4.85486,0.0286124,0.0360888,-0.0826612,0.180025,-2.06072,0.155091,0.139632,-0.0199927,0.0170488,0.00492903,0.198575,-0.290821,0.284282,0.114479,-0.000657383,-1.0761,-4.20539,-4.4417,1.00453,-18.2253,-5.48834,-0.228638,-2.24987,-33.8716,-3.21257,31.9339,1.42425,2.95983,0.124619,
0.0417952,-0.0833336,0.179284,-2.06925,0.159608,0.156734,-0.0197947,0.113162,0.00435769,0.119947,-0.334599,0.376841,0.415903,0.00370283,0,0,0,0,0,0,0,9.93213,-0.73961,10.6145,-31.4462,1.794,4.72052,0.0319858,0.0360888,-0.0826612,0.180025,-2.06072,0.155091,0.139632,-0.0199927,0.0170488,0.00492903,0.198575,-0.290821,0.284282,0.114479,-0.000657383,0,0,0,0,0,0,0,-2.24987,-33.8716,-3.21257,31.9339,1.42425,2.95983,0.124619,
0.0404941,-0.0827642,0.184685,-2.07312,0.160275,0.15268,-0.0198073,0.112616,0.00303117,0.119217,-0.327113,0.310493,0.408048,0.00398578,0,0,0,0,0,0,0,9.96251,-0.761283,10.6241,-30.8557,1.17495,4.60598,0.0343984,0.0360888,-0.0826612,0.180025,-2.06072,0.155091,0.139632,-0.0199927,0.0170488,0.00492903,0.198575,-0.290821,0.284282,0.114479,-0.000657383,0,0,0,0,0,0,0,-2.24987,-33.8716,-3.21257,31.9339,1.42425,2.95983,0.124619,
0.0413695,-0.0827904,0.185607,-2.07545,0.160416,0.155754,-0.0197643,0.111976,0.0017699,0.118419,-0.319803,0.251919,0.4033,0.00426237,0,0,0,0,0,0,0,10.0038,-0.817447,10.646,-30.2767,0.663428,4.5134,0.0387878,0.0360888,-0.0826612,0.180025,-2.06072,0.155091,0.139632,-0.0199927,0.0170488,0.00492903,0.198575,-0.290821,0.284282,0.114479,-0.000657383,0,0,0,0,0,0,0,-2.24987,-33.8716,-3.21257,31.9339,1.42425,2.95983,0.124619,
0.0422344,-0.0828264,0.186518,-2.07772,0.160393,0.158861,-0.0197202,0.111204,0.000514703,0.117506,-0.312714,0.200971,0.400323,0.00451189,0,0,0,0,0,0,0,10.0207,-0.954248,10.6476,-29.6666,0.264932,4.45689,0.0419416,0.0368543,-0.0813474,0.185855,-2.06845,0.161791,0.143298,-0.0199917,0.0269703,0.0356764,0.188853,-0.219565,0.176053,0.0790698,0.000396978,1.24019,3.84342,-1.21523,8.907,-13.5285,-4.42609,0.131795,0.717655,-29.456,-0.0625476,24.3127,1.3446,1.21667,0.104477,
0.0430876,-0.0828728,0.187416,-2.07995,0.160253,0.161982,-0.0196747,0.110293,-0.000747448,0.116469,-0.305855,0.157264,0.398284,0.00474826,0,0,0,0,0,0,0,10.0457,-1.04821,10.6539,-29.1072,-0.0314148,4.3919,0.0460589,0.0368543,-0.0813474,0.185855,-2.06845,0.161791,0.143298,-0.0199917,0.0269703,0.0356764,0.188853,-0.219565,0.176053,0.0790698,0.000396978,0,0,0,0,0,0,0,0.717655,-29.456,-0.0625476,24.3127,1.3446,1.21667,0.104477,
0.0428104,-0.0815453,0.192116,-2.08358,0.162824,0.161483,-0.0196587,0.10841,-0.0023231,0.1144,-0.295437,0.121483,0.392292,0.00497999,0,0,0,0,0,0,0,10.0015,-1.34912,10.5568,-27.4661,-0.44432,4.2473,0.0540691,0.0368543,-0.0813474,0.185855,-2.06845,0.161791,0.143298,-0.0199917,0.0269703,0.0356764,0.188853,-0.219565,0.176053,0.0790698,0.000396978,0,0,0,0,0,0,0,0.717655,-29.456,-0.0625476,24.3127,1.3446,1.21667,0.104477,
0.0435986,-0.0816231,0.192946,-2.08556,0.162661,0.164447,-0.0196117,0.106432,-0.00380333,0.112261,-0.285876,0.0931124,0.387923,0.00515693,0,0,0,0,0,0,0,9.94395,-1.44164,10.4842,-26.9263,-0.48464,4.21,0.0563811,0.0368543,-0.0813474,0.185855,-2.06845,0.161791,0.143298,-0.0199917,0.0269703,0.0356764,0.188853,-0.219565,0.176053,0.0790698,0.000396978,0,0,0,0,0,0,0,0.717655,-29.456,-0.0625476,24.3127,1.3446,1.21667,0.104477,
0.0443682,-0.0817087,0.193757,-2.0875,0.162526,0.167414,-0.0195655,0.104387,-0.00518295,0.110072,-0.277031,0.0710991,0.384531,0.00528202,0,0,0,0,0,0,0,9.87012,-1.60428,10.4037,-26.3409,-0.489568,4.20422,0.0575935,0.0381259,-0.0806336,0.191436,-2.07614,0.166932,0.145249,-0.0199977,0.0451167,-0.000759164,0.158325,-0.236056,0.107781,0.0406684,-0.00042954,2.26829,-4.55444,-3.81596,-2.06132,-8.53407,-4.80018,-0.103315,0.919986,-28.6824,0.238966,24.1898,1.27777,1.5078,0.124619,
0.0610143,-0.0859696,0.211506,-2.12752,0.169276,0.245617,-0.0189395,0.0895724,-0.00763712,0.0947691,-0.23379,0.0660878,0.340785,0.00392043,0,0,0,0,0,0,0,3.00578,-1.9526,3.2077,-5.54126,0.72771,1.78315,-0.0139527,0.0381259,-0.0806336,0.191436,-2.07614,0.166932,0.145249,-0.0199977,0.0451167,-0.000759164,0.158325,-0.236056,0.107781,0.0406684,-0.00042954,0,0,0,0,0,0,0,0.919986,-28.6824,0.238966,24.1898,1.27777,1.5078,0.124619,
0.0437486,-0.0853246,0.198362,-2.07853,0.307754,0.13715,-0.020799,0.072012,-0.0103249,0.0770887,-0.184262,0.110503,0.282152,0.00266997,0,0,0,0,0,0,0,3.00976,-1.96907,3.19957,-5.0289,1.13288,1.52335,-0.0165906,0.0381259,-0.0806336,0.191436,-2.07614,0.166932,0.145249,-0.0199977,0.0451167,-0.000759164,0.158325,-0.236056,0.107781,0.0406684,-0.00042954,0,0,0,0,0,0,0,0.919986,-28.6824,0.238966,24.1898,1.27777,1.5078,0.124619,
0.0437626,-0.0854934,0.198413,-2.07842,0.310053,0.13753,-0.0208176,0.057961,-0.0124787,0.0629461,-0.144651,0.145874,0.235221,0.00167006,0,0,0,0,0,0,0,3.04762,-1.98661,3.22427,-4.5213,1.65909,1.20935,-0.0191906,0.0381259,-0.0806336,0.191436,-2.07614,0.166932,0.145249,-0.0199977,0.0451167,-0.000759164,0.158325,-0.236056,0.107781,0.0406684,-0.00042954,0,0,0,0,0,0,0,0.919986,-28.6824,0.238966,24.1898,1.27777,1.5078,0.124619,
0.0437766,-0.0856623,0.198464,-2.07831,0.312345,0.137909,-0.0208362,0.0467181,-0.0142053,0.0516342,-0.112974,0.174012,0.197649,0.000870582,0,0,0,0,0,0,0,3.11935,-2.05811,3.28741,-3.95966,2.32454,0.872209,-0.021889,0.0398578,-0.079838,0.196689,-2.08404,0.169369,0.146847,-0.0200028,0.0701849,0.0172325,0.161857,-0.242251,0.0166897,0.0439374,-0.000849835,3.13353,2.24896,0.4414,-0.774429,-11.3864,0.408628,-0.0525368,-1.28582,-30.2019,-2.06206,25.7092,1.27777,1.7669,0.11821,
0.0419056,-0.0789668,0.198892,-2.08701,0.176465,0.144581,-0.0201286,0.0462374,-0.00843711,0.050857,-0.102376,0.21016,0.139232,-9.9138e-05,0,0,0,0,0,0,0,3.11935,-2.05811,3.28741,-3.95966,2.32454,0.872209,-0.021889,0.0398578,-0.079838,0.196689,-2.08404,0.169369,0.146847,-0.0200028,0.0701849,0.0172325,0.161857,-0.242251,0.0166897,0.0439374,-0.000849835,0,0,0,0,0,0,0,-1.28582,-30.2019,-2.06206,25.7092,1.27777,1.7669,0.11821,
0.042195,-0.078906,0.199206,-2.08739,0.180095,0.143637,-0.0201594,0.0442243,-0.00522887,0.0485266,-0.0914117,0.258883,0.0877764,-0.000849081,0,0,0,0,0,0,0,3.21584,-2.07527,3.36852,-3.46684,3.13523,0.437343,-0.0241614,0.0398578,-0.079838,0.196689,-2.08404,0.169369,0.146847,-0.0200028,0.0701849,0.0172325,0.161857,-0.242251,0.0166897,0.0439374,-0.000849835,0,0,0,0,0,0,0,-1.28582,-30.2019,-2.06206,25.7092,1.27777,1.7669,0.11821,
0.0424325,-0.0788889,0.199465,-2.08769,0.184585,0.142455,-0.020188,0.0413166,-0.00375586,0.0453071,-0.0805936,0.319366,0.0406847,-0.00139401,0,0,0,0,0,0,0,3.32823,-2.08944,3.46453,-2.98472,4.09889,-0.0546886,-0.0260397,0.0398578,-0.079838,0.196689,-2.08404,0.169369,0.146847,-0.0200028,0.0701849,0.0172325,0.161857,-0.242251,0.0166897,0.0439374,-0.000849835,0,0,0,0,0,0,0,-1.28582,-30.2019,-2.06206,25.7092,1.27777,1.7669,0.11821,
0.0426267,-0.0789044,0.19968,-2.08792,0.18999,0.14101,-0.020212,0.037909,-0.00339113,0.0416058,-0.0702402,0.390606,-0.00358449,-0.00171679,0,0,0,0,0,0,0,3.44001,-2.22877,3.56944,-2.45379,5.1994,-0.570553,-0.0272891,0.0426957,-0.0795645,0.2023,-2.09301,0.171633,0.150844,-0.0200163,0.0883573,-0.0576114,0.0940013,-0.256616,0.134678,0.232072,-0.00265959,2.27155,-9.35549,-8.48192,-1.79557,14.7485,23.5168,-0.226219,-8.94665,-42.1831,-9.26268,40.2533,2.04132,4.78356,0.23906,
0.0440398,-0.0795489,0.203746,-2.09478,0.179419,0.150098,-0.0201116,0.0389458,-0.00244685,0.0426172,-0.0653689,0.399719,-0.0201957,-0.00221622,0,0,0,0,0,0,0,3.32899,-2.22127,3.4753,-2.92348,4.09176,-0.0326702,-0.0262978,0.0426957,-0.0795645,0.2023,-2.09301,0.171633,0.150844,-0.0200163,0.0883573,-0.0576114,0.0940013,-0.256616,0.134678,0.232072,-0.00265959,0,0,0,0,0,0,0,-8.94665,-42.1831,-9.26268,40.2533,2.04132,4.78356,0.23906,
0.0443139,-0.0795698,0.204045,-2.09506,0.183845,0.149081,-0.0201425,0.0380106,-0.00248,0.0415723,-0.0591801,0.430413,-0.0415965,-0.00254422,0,0,0,0,0,0,0,3.44001,-2.22877,3.56944,-2.45379,5.1994,-0.570553,-0.0272891,0.0426957,-0.0795645,0.2023,-2.09301,0.171633,0.150844,-0.0200163,0.0883573,-0.0576114,0.0940013,-0.256616,0.134678,0.232072,-0.00265959,0,0,0,0,0,0,0,-8.94665,-42.1831,-9.26268,40.2533,2.04132,4.78356,0.23906,
0.0445328,-0.079617,0.204287,-2.09526,0.189229,0.147748,-0.0201681,0.0358805,-0.00316271,0.039291,-0.0525512,0.47894,-0.0665841,-0.0026768,0,0,0,0,0,0,0,3.52376,-2.22334,3.63623,-1.99869,6.43078,-1.12947,-0.0271152,0.0426957,-0.0795645,0.2023,-2.09301,0.171633,0.150844,-0.0200163,0.0883573,-0.0576114,0.0940013,-0.256616,0.134678,0.232072,-0.00265959,0,0,0,0,0,0,0,-8.94665,-42.1831,-9.26268,40.2533,2.04132,4.78356,0.23906,
0.0447055,-0.0796819,0.20448,-2.09542,0.195575,0.146111,-0.020184,0.03302,-0.00415263,0.0362619,-0.0458672,0.541798,-0.0941958,-0.00253802,0,0,0,0,0,0,0,3.50962,-2.25276,3.61428,-1.56913,7.72564,-1.69433,-0.0246228,0.0443117,-0.0797705,0.205764,-2.09746,0.174006,0.155894,-0.0200064,0.0356684,-0.00804244,0.114527,-0.0566727,-0.00677997,0.0948614,0.00051457,-6.58612,6.19612,2.56566,24.9929,-17.6822,-17.1513,0.39677,-4.61041,-33.947,-5.61278,33.3066,1.82708,3.13286,0.104477,
0.0450227,-0.0799352,0.206556,-2.09806,0.178318,0.155853,-0.0200868,0.0339992,-0.00558009,0.0374,-0.0432922,0.503737,-0.0816958,-0.00299148,0,0,0,0,0,0,0,3.40532,-2.28535,3.54311,-2.4668,5.18418,-0.586854,-0.0270042,0.0443117,-0.0797705,0.205764,-2.09746,0.174006,0.155894,-0.0200064,0.0356684,-0.00804244,0.114527,-0.0566727,-0.00677997,0.0948614,0.00051457,0,0,0,0,0,0,0,-4.61041,-33.947,-5.61278,33.3066,1.82708,3.13286,0.104477,
0.0452532,-0.0800386,0.206813,-2.09826,0.18231,0.155173,-0.02012,0.0329616,-0.00704881,0.0363536,-0.0396858,0.502784,-0.082354,-0.00322351,0,0,0,0,0,0,0,3.48907,-2.27993,3.60991,-2.0117,6.41556,-1.14577,-0.0268304,0.0443117,-0.0797705,0.205764,-2.09746,0.174006,0.155894,-0.0200064,0.0356684,-0.00804244,0.114527,-0.0566727,-0.00677997,0.0948614,0.00051457,0,0,0,0,0,0,0,-4.61041,-33.947,-5.61278,33.3066,1.82708,3.13286,0.104477,
0.0454315,-0.0801508,0.207015,-2.09842,0.187414,0.154096,-0.0201469,0.0308276,-0.00844411,0.0341274,-0.0355426,0.529823,-0.092805,-0.00325033,0,0,0,0,0,0,0,3.50962,-2.25276,3.61428,-1.56913,7.72564,-1.69433,-0.0246228,0.0443117,-0.0797705,0.205764,-2.09746,0.174006,0.155894,-0.0200064,0.0356684,-0.00804244,0.114527,-0.0566727,-0.00677997,0.0948614,0.00051457,0,0,0,0,0,0,0,-4.61041,-33.947,-5.61278,33.3066,1.82708,3.13286,0.104477,
0.0455688,-0.0802667,0.207173,-2.09852,0.193577,0.152651,-0.0201634,0.0280941,-0.00965354,0.0312624,-0.0311445,0.57795,-0.110363,-0.00301232,0,0,0,0,0,0,0,3.41794,-2.23448,3.513,-1.12729,9.05453,-2.18622,-0.0192285,0.0447258,-0.0796976,0.20866,-2.09877,0.174219,0.155876,-0.0200128,0.00493037,-0.0224376,0.0457265,-0.0077377,0.00457901,-0.0160905,-0.000530362,-3.84225,-1.7994,-8.60001,6.11687,1.41987,-13.869,-0.130617,-1.05969,-28.0556,-1.23686,25.0864,1.76574,2.19079,0.151169,
0.0449148,-0.0800934,0.20891,-2.09909,0.179349,0.154923,-0.0200826,0.0244074,-0.0124924,0.0275823,-0.0287209,0.544957,-0.104419,-0.00321521,0,0,0,0,0,0,0,3.48817,-2.32212,3.61424,-2.00662,6.41689,-1.14253,-0.0268489,0.0447258,-0.0796976,0.20866,-2.09877,0.174219,0.155876,-0.0200128,0.00493037,-0.0224376,0.0457265,-0.0077377,0.00457901,-0.0160905,-0.000530362,0,0,0,0,0,0,0,-1.05969,-28.0556,-1.23686,25.0864,1.76574,2.19079,0.151169,
0.0449713,-0.0802667,0.208988,-2.0992,0.183963,0.15391,-0.0201082,0.0209383,-0.0143267,0.0240354,-0.025969,0.55131,-0.10887,-0.00321129,0,0,0,0,0,0,0,3.50872,-2.29495,3.61861,-1.56405,7.72697,-1.6911,-0.0246413,0.0447258,-0.0796976,0.20866,-2.09877,0.174219,0.155876,-0.0200128,0.00493037,-0.0224376,0.0457265,-0.0077377,0.00457901,-0.0160905,-0.000530362,0,0,0,0,0,0,0,-1.05969,-28.0556,-1.23686,25.0864,1.76574,2.19079,0.151169,
0.0450124,-0.0804245,0.20905,-2.09929,0.189773,0.152535,-0.0201234,0.0177789,-0.0154067,0.0207612,-0.0228969,0.586313,-0.121464,-0.00295079,0,0,0,0,0,0,0,3.41794,-2.23448,3.513,-1.12729,9.05453,-2.18622,-0.0192285,0.0447258,-0.0796976,0.20866,-2.09877,0.174219,0.155876,-0.0200128,0.00493037,-0.0224376,0.0457265,-0.0077377,0.00457901,-0.0160905,-0.000530362,0,0,0,0,0,0,0,-1.05969,-28.0556,-1.23686,25.0864,1.76574,2.19079,0.151169,
0.0450515,-0.0805667,0.209104,-2.09933,0.196411,0.150806,-0.0201205,0.0152001,-0.015879,0.017971,-0.0192279,0.635001,-0.14038,-0.00228734,0,0,0,0,0,0,0,3.15001,-2.13305,3.23157,-0.673927,10.3189,-2.61283,-0.00764968,0.0447258,-0.0796976,0.20866,-2.09877,0.174219,0.155876,-0.0200128,0.00493037,-0.0224376,0.0457265,-0.0077377,0.00457901,-0.0160905,-0.000530362,0,0,0,0,0,0,0,-1.05969,-28.0556,-1.23686,25.0864,1.76574,2.19079,0.151169,
0.0452994,-0.0795265,0.210431,-2.10031,0.175944,0.15628,-0.020027,0.0186844,-0.00233342,0.021473,-0.0299842,0.513013,-0.0975998,-0.00205005,0,0,0,0,0,0,0,-0.000108283,25.3982,0.60552,-21.5297,-1.49329,-0.688396,-0.00710346,0.0450384,-0.0799413,0.210148,-2.09973,0.175744,0.155692,-0.0200182,0.0278775,-0.00631799,0.0506217,-0.0035198,0.0584028,0.010851,-0.00102684,2.86839,2.01495,0.611898,0.527238,6.72797,3.36769,-0.0620599,-0.67883,-28.8808,-1.41142,23.1424,2.16949,1.18279,0.131027,
0.0454315,-0.0792585,0.210608,-2.10074,0.178195,0.156035,-0.0200679,0.0182486,0.00483386,0.0215806,-0.0346776,0.466674,-0.084223,-0.00266303,0,0,0,0,0,0,0,3.50799,-2.31884,3.62336,-1.55604,7.72164,-1.68163,-0.0246653,0.0450384,-0.0799413,0.210148,-2.09973,0.175744,0.155692,-0.0200182,0.0278775,-0.00631799,0.0506217,-0.0035198,0.0584028,0.010851,-0.00102684,0,0,0,0,0,0,0,-0.67883,-28.8808,-1.41142,23.1424,2.16949,1.18279,0.131027,
0.045503,-0.0790979,0.210713,-2.10106,0.182119,0.155166,-0.0200996,0.0163873,0.00788161,0.0199007,-0.0356803,0.471434,-0.0890861,-0.00292355,0,0,0,0,0,0,0,3.41721,-2.25837,3.51776,-1.11928,9.04919,-2.17677,-0.0192524,0.0450384,-0.0799413,0.210148,-2.09973,0.175744,0.155692,-0.0200182,0.0278775,-0.00631799,0.0506217,-0.0035198,0.0584028,0.010851,-0.00102684,0,0,0,0,0,0,0,-0.67883,-28.8808,-1.41142,23.1424,2.16949,1.18279,0.131027,
0.0455394,-0.0790125,0.210777,-2.10129,0.187469,0.153806,-0.0201184,0.0140194,0.00844018,0.017511,-0.0343593,0.510913,-0.105273,-0.00280908,0,0,0,0,0,0,0,3.14927,-2.15695,3.23633,-0.665919,10.3136,-2.60341,-0.00767341,0.0450384,-0.0799413,0.210148,-2.09973,0.175744,0.155692,-0.0200182,0.0278775,-0.00631799,0.0506217,-0.0035198,0.0584028,0.010851,-0.00102684,0,0,0,0,0,0,0,-0.67883,-28.8808,-1.41142,23.1424,2.16949,1.18279,0.131027,
0.0452994,-0.0795265,0.210431,-2.10031,0.175944,0.15628,-0.020027,0.0177399,0.0171219,0.021105,-0.0420894,0.413743,-0.0695144,-0.00246745,0,0,0,0,0,0,0,-0.000533289,25.3906,0.606533,-21.5265,-1.49827,-0.685019,-0.00711581,0.0455506,-0.079525,0.212078,-2.10003,0.177309,0.155711,-0.0200176,0.00967863,0.0106852,0.0499783,0.00456282,0.0660357,0.00748588,-0.00130314,-2.27486,2.1254,-0.0804182,1.01033,0.95411,-0.42064,-0.0345375,-0.984311,-29.9281,-1.4868,24.0866,1.52221,1.27617,0.151169,
0.0454317,-0.0792586,0.210608,-2.10074,0.178193,0.156042,-0.0200678,0.0174986,0.0203961,0.0212911,-0.0443828,0.387213,-0.0615812,-0.00299556,0,0,0,0,0,0,0,3.50841,-2.32837,3.62534,-1.55085,7.71005,-1.65296,-0.0246525,0.0455506,-0.079525,0.212078,-2.10003,0.177309,0.155711,-0.0200176,0.00967863,0.0106852,0.0499783,0.00456282,0.0660357,0.00748588,-0.00130314,0,0,0,0,0,0,0,-0.984311,-29.9281,-1.4868,24.0866,1.52221,1.27617,0.151169,
0.0455035,-0.079098,0.210713,-2.10106,0.182114,0.155184,-0.0200995,0.0157952,0.0203323,0.0196769,-0.0434659,0.407787,-0.0706983,-0.00318838,0,0,0,0,0,0,0,3.41764,-2.2678,3.51975,-1.11411,9.0374,-2.14831,-0.0192371,0.0455506,-0.079525,0.212078,-2.10003,0.177309,0.155711,-0.0200176,0.00967863,0.0106852,0.0499783,0.00456282,0.0660357,0.00748588,-0.00130314,0,0,0,0,0,0,0,-0.984311,-29.9281,-1.4868,24.0866,1.52221,1.27617,0.151169,
0.0455403,-0.0790124,0.210777,-2.10129,0.18746,0.153838,-0.0201183,0.0135543,0.0184039,0.0173406,-0.0406051,0.459897,-0.090225,-0.00301999,0,0,0,0,0,0,0,3.14969,-2.1663,3.23831,-0.660761,10.3016,-2.57517,-0.00765545,0.0455506,-0.079525,0.212078,-2.10003,0.177309,0.155711,-0.0200176,0.00967863,0.0106852,0.0499783,0.00456282,0.0660357,0.00748588,-0.00130314,0,0,0,0,0,0,0,-0.984311,-29.9281,-1.4868,24.0866,1.52221,1.27617,0.151169,
0.0457426,-0.0796717,0.212338,-2.10032,0.183939,0.154841,-0.0200881,0.0126526,0.012384,0.0163907,-0.0360477,0.470678,-0.0884082,-0.00317111,0,0,0,0,0,0,0,3.51797,-2.34588,3.63471,-1.52633,7.64609,-1.40562,-0.0244254,0.045782,-0.0789585,0.213336,-2.10039,0.178721,0.15574,-0.0200218,0.0165095,0.0133762,0.0340087,-0.0116726,0.013416,0.00258801,-0.000876064,0.853858,0.336374,-1.9962,-2.02943,-6.57746,-0.612233,0.0533847,-1.18664,-27.4327,-1.68517,22.8925,1.58264,1.35583,0.131027,
0.0457859,-0.0797777,0.212405,-2.10043,0.18941,0.153772,-0.0201057,0.011205,0.00725702,0.0147913,-0.0315548,0.513317,-0.097463,-0.00297615,0,0,0,0,0,0,0,3.42721,-2.28428,3.52922,-1.08967,8.97139,-1.90298,-0.0189863,0.045782,-0.0789585,0.213336,-2.10039,0.178721,0.15574,-0.0200218,0.0165095,0.0133762,0.0340087,-0.0116726,0.013416,0.00258801,-0.000876064,0,0,0,0,0,0,0,-1.18664,-27.4327,-1.68517,22.8925,1.58264,1.35583,0.131027,
0.0458209,-0.0798845,0.212457,-2.10048,0.195808,0.152308,-0.0201039,0.00983865,0.00313771,0.0131496,-0.0266192,0.570603,-0.114568,-0.0023355,0,0,0,0,0,0,0,3.15916,-2.182,3.2477,-0.636451,10.2338,-2.33189,-0.00737809,0.045782,-0.0789585,0.213336,-2.10039,0.178721,0.15574,-0.0200218,0.0165095,0.0133762,0.0340087,-0.0116726,0.013416,0.00258801,-0.000876064,0,0,0,0,0,0,0,-1.18664,-27.4327,-1.68517,22.8925,1.58264,1.35583,0.131027,
0.0459546,-0.0784301,0.213531,-2.10104,0.178642,0.156273,-0.0200295,0.0121868,0.0157204,0.0154096,-0.0374443,0.454514,-0.0783455,-0.00206206,0,0,0,0,0,0,0,4.28811e-05,25.3917,0.605848,-21.5206,-1.50228,-0.680902,-0.00712868,0.045782,-0.0789585,0.213336,-2.10039,0.178721,0.15574,-0.0200218,0.0165095,0.0133762,0.0340087,-0.0116726,0.013416,0.00258801,-0.000876064,0,0,0,0,0,0,0,-1.18664,-27.4327,-1.68517,22.8925,1.58264,1.35583,0.131027,
0.0460099,-0.0780772,0.213633,-2.10156,0.180944,0.156394,-0.0200649,0.0111308,0.0213996,0.0148614,-0.0431315,0.421165,-0.0596514,-0.00253391,0,0,0,0,0,0,0,3.54533,-2.39351,3.65171,-0.950509,8.67288,-0.109433,-0.0172001,0.0460525,-0.0784492,0.214214,-2.10124,0.178897,0.155763,-0.0200196,0.0183399,0.0159626,0.0258747,-0.032082,0.00439392,-0.00114767,0.000384267,0.228797,0.323296,-1.01675,-2.55117,-1.12775,-0.46696,0.157541,-0.452694,-29.0038,-0.963121,24.3881,1.74743,1.19652,0.0980684,
0.0460166,-0.0778394,0.213675,-2.10197,0.18511,0.156155,-0.0200852,0.00907339,0.023063,0.0129391,-0.0445286,0.441063,-0.053683,-0.00253563,0,0,0,0,0,0,0,3.27633,-2.28766,3.36977,-0.498745,9.91711,-0.555659,-0.0054352,0.0460525,-0.0784492,0.214214,-2.10124,0.178897,0.155763,-0.0200196,0.0183399,0.0159626,0.0258747,-0.032082,0.00439392,-0.00114767,0.000384267,0,0,0,0,0,0,0,-0.452694,-29.0038,-0.963121,24.3881,1.74743,1.19652,0.0980684,
0.0460105,-0.0776811,0.213693,-2.10224,0.190527,0.155597,-0.020084,0.00710542,0.0224084,0.0108196,-0.0425488,0.488279,-0.0569096,-0.00199645,0,0,0,0,0,0,0,2.73466,-2.16282,2.81543,-0.00715404,10.0922,-0.960477,0.0138443,0.0460525,-0.0784492,0.214214,-2.10124,0.178897,0.155763,-0.0200196,0.0183399,0.0159626,0.0258747,-0.032082,0.00439392,-0.00114767,0.000384267,0,0,0,0,0,0,0,-0.452694,-29.0038,-0.963121,24.3881,1.74743,1.19652,0.0980684,
0.0535779,-0.0846681,0.223294,-2.09879,0.309857,0.370668,-0.0207958,0.00718703,0.0151876,0.0111264,-0.0327184,0.413079,-0.0149688,-0.00192298,0,0,0,0,0,0,0,0.784624,-2.05246,1.15705,1.59944,1.37718,2.40048,-0.0215416,0.0460525,-0.0784492,0.214214,-2.10124,0.178897,0.155763,-0.0200196,0.0183399,0.0159626,0.0258747,-0.032082,0.00439392,-0.00114767,0.000384267,0,0,0,0,0,0,0,-0.452694,-29.0038,-0.963121,24.3881,1.74743,1.19652,0.0980684,
0.04768,-0.0876673,0.218098,-2.09531,0.302678,0.196345,-0.0211649,0.00609532,0.00784476,0.0102893,-0.0237562,0.390405,-0.00721086,-0.00198903,0,0,0,0,0,0,0,0.764153,-2.04745,1.1327,1.61279,1.3846,2.35053,-0.0215956,0.0463918,-0.0778408,0.214869,-2.10221,0.179161,0.155776,-0.0200246,0.0128798,0.0427051,0.0233715,-0.0255634,-0.00333659,0.00471324,-0.00118198,-0.682515,3.34281,-0.312909,0.814828,-0.966315,0.732613,-0.195781,0.539127,-28.5793,-0.110155,23.1662,1.6806,0.885245,0.138352,
0.0476938,-0.0878397,0.218154,-2.09521,0.305069,0.196535,-0.021183,0.00522186,0.00196478,0.00962425,-0.0165967,0.372111,-0.00101366,-0.00204156,0,0,0,0,0,0,0,0.745169,-2.04484,1.11321,1.61247,1.39467,2.293,-0.0216103,0.0463918,-0.0778408,0.214869,-2.10221,0.179161,0.155776,-0.0200246,0.0128798,0.0427051,0.0233715,-0.0255634,-0.00333659,0.00471324,-0.00118198,0,0,0,0,0,0,0,0.539127,-28.5793,-0.110155,23.1662,1.6806,0.885245,0.138352,
0.0477076,-0.0880124,0.21821,-2.09511,0.307454,0.196725,-0.021201,0.00452296,-0.00274492,0.00909679,-0.0108795,0.35732,0.00393525,-0.00208327,0,0,0,0,0,0,0,0.726228,-2.04224,1.09375,1.61225,1.4072,2.23597,-0.021627,0.0463918,-0.0778408,0.214869,-2.10221,0.179161,0.155776,-0.0200246,0.0128798,0.0427051,0.0233715,-0.0255634,-0.00333659,0.00471324,-0.00118198,0,0,0,0,0,0,0,0.539127,-28.5793,-0.110155,23.1662,1.6806,0.885245,0.138352,
0.0584906,-0.0785327,0.2273,-2.1031,0.203095,0.20294,-0.0204306,0.0117158,-0.00421907,0.0157702,-0.00778301,0.292349,0.0267006,-0.00199619,0,0,0,0,0,0,0,6.51543,-0.812316,6.55822,-0.0498449,2.32093,3.72806,-0.0184986,0.0463918,-0.0778408,0.214869,-2.10221,0.179161,0.155776,-0.0200246,0.0128798,0.0427051,0.0233715,-0.0255634,-0.00333659,0.00471324,-0.00118198,0,0,0,0,0,0,0,0.539127,-28.5793,-0.110155,23.1662,1.6806,0.885245,0.138352,
0.0588069,-0.0786146,0.227633,-2.10306,0.203338,0.203851,-0.0204437,0.0172797,-0.00542346,0.0209289,-0.00528106,0.23994,0.0441491,-0.00192509,0,0,0,0,0,0,0,6.43511,-0.894222,6.50332,-0.0481894,2.21993,3.50041,-0.0179804,0.0469819,-0.0778321,0.216239,-2.103,0.181777,0.156652,-0.020023,0.0234527,-0.0402612,0.0389018,-0.0123576,0.168244,0.0315453,-0.00146239,1.32162,-10.3708,1.9413,1.65073,21.4476,3.35401,-0.0350509,2.54261,-37.466,1.83778,34.0009,2.99347,3.09899,0.0980684,
0.0591155,-0.0786976,0.227958,-2.10303,0.203565,0.204734,-0.0204568,0.0215392,-0.00641247,0.0248747,-0.00325367,0.197637,0.0573799,-0.00186684,0,0,0,0,0,0,0,6.34294,-0.950134,6.43232,-0.0488522,2.13107,3.2873,-0.0174135,0.0469819,-0.0778321,0.216239,-2.103,0.181777,0.156652,-0.020023,0.0234527,-0.0402612,0.0389018,-0.0123576,0.168244,0.0315453,-0.00146239,0,0,0,0,0,0,0,2.54261,-37.466,1.83778,34.0009,2.99347,3.09899,0.0980684,
0.0594165,-0.0787816,0.228276,-2.10299,0.20378,0.205589,-0.0204698,0.0247542,-0.00722964,0.0278488,-0.00160473,0.163473,0.0672701,-0.00181895,0,0,0,0,0,0,0,6.24286,-0.987188,6.35173,-0.0488281,2.04688,3.09576,-0.0170363,0.0469819,-0.0778321,0.216239,-2.103,0.181777,0.156652,-0.020023,0.0234527,-0.0402612,0.0389018,-0.0123576,0.168244,0.0315453,-0.00146239,0,0,0,0,0,0,0,2.54261,-37.466,1.83778,34.0009,2.99347,3.09899,0.0980684,
0.0548584,-0.0842371,0.225173,-2.09945,0.258581,0.184185,-0.0209129,0.0201794,-0.0100953,0.0236384,0.00128952,0.201048,0.0527986,-0.00197881,0,0,0,0,0,0,0,3.35336,-0.0405586,3.2515,-0.212664,0.409406,1.83192,-0.0164855,0.0469819,-0.0778321,0.216239,-2.103,0.181777,0.156652,-0.020023,0.0234527,-0.0402612,0.0389018,-0.0123576,0.168244,0.0315453,-0.00146239,0,0,0,0,0,0,0,2.54261,-37.466,1.83778,34.0009,2.99347,3.09899,0.0980684,
0.0548736,-0.0844105,0.225228,-2.09935,0.261385,0.184148,-0.0209339,0.0165231,-0.0124112,0.0202783,0.00361258,0.230939,0.041296,-0.00210665,0,0,0,0,0,0,0,3.3775,-0.0403951,3.27019,-0.137767,0.481655,1.78122,-0.0177947,0.0469819,-0.0778321,0.216239,-2.103,0.181777,0.156652,-0.020023,0.0234527,-0.0402612,0.0389018,-0.0123576,0.168244,0.0315453,-0.00146239,0,0,0,0,0,0,0,2.54261,-37.466,1.83778,34.0009,2.99347,3.09899,0.0980684,
0.0548889,-0.0845847,0.225283,-2.09924,0.264182,0.184112,-0.0209548,0.0136006,-0.0142846,0.0175976,0.00547531,0.254679,0.0321537,-0.00220883,0,0,0,0,0,0,0,3.40593,-0.0575495,3.30114,-0.0658126,0.54119,1.72936,-0.0190965,0.0481706,-0.0779496,0.218155,-2.10204,0.187801,0.157195,-0.0200308,0.0576772,0.000525633,0.0779401,0.0212558,0.10564,0.0151709,-0.00108548,4.27805,5.09835,4.87978,4.20167,-7.82547,-2.0468,0.047114,3.22498,-28.3571,2.68678,23.8129,1.97357,1.47484,0.110886,
0.0549043,-0.0847597,0.225338,-2.09914,0.266972,0.184079,-0.0209758,0.0112644,-0.0158016,0.0154596,0.00696707,0.273495,0.0248884,-0.00229042,0,0,0,0,0,0,0,3.45026,-0.0921311,3.34259,0.0176431,0.628826,1.67464,-0.0204704,0.0481706,-0.0779496,0.218155,-2.10204,0.187801,0.157195,-0.0200308,0.0576772,0.000525633,0.0779401,0.0212558,0.10564,0.0151709,-0.00108548,0,0,0,0,0,0,0,3.22498,-28.3571,2.68678,23.8129,1.97357,1.47484,0.110886,
0.0612575,-0.0801894,0.231546,-2.10207,0.224653,0.202381,-0.020622,0.0157496,-0.0150945,0.0195953,0.00657684,0.22745,0.0403639,-0.00222507,0,0,0,0,0,0,0,5.0527,0.531098,4.85455,-0.488716,2.25782,3.43096,-0.0282032,0.0481706,-0.0779496,0.218155,-2.10204,0.187801,0.157195,-0.0200308,0.0576772,0.000525633,0.0779401,0.0212558,0.10564,0.0151709,-0.00108548,0,0,0,0,0,0,0,3.22498,-28.3571,2.68678,23.8129,1.97357,1.47484,0.110886,
0.0615194,-0.0802886,0.231828,-2.10203,0.224982,0.203173,-0.0206377,0.0191465,-0.014555,0.0227241,0.00629637,0.190185,0.0520941,-0.00217155,0,0,0,0,0,0,0,5.20623,0.455411,5.00141,-0.393865,2.26867,3.24653,-0.0298075,0.0481706,-0.0779496,0.218155,-2.10204,0.187801,0.157195,-0.0200308,0.0576772,0.000525633,0.0779401,0.0212558,0.10564,0.0151709,-0.00108548,0,0,0,0,0,0,0,3.22498,-28.3571,2.68678,23.8129,1.97357,1.47484,0.110886,
0.0617735,-0.0803888,0.232102,-2.10199,0.225297,0.20394,-0.0206533,0.0216718,-0.0141501,0.0250463,0.00610447,0.160021,0.0608515,-0.00212757,0,0,0,0,0,0,0,5.36049,0.298858,5.16944,-0.309624,2.25537,3.04782,-0.0307424,0.0501559,-0.0788554,0.221194,-2.10123,0.189873,0.157762,-0.0200386,0.0652239,-0.0367148,0.0944406,0.0313702,0.0674354,0.0175481,-0.0013934,0.943346,-4.65505,2.06257,1.2643,-4.77563,0.297145,-0.0384901,-0.702633,-30.0789,-1.41142,25.733,1.96167,1.47484,0.138352,
0.0702454,-0.0795477,0.240614,-2.1111,0.304981,0.395678,-0.0203591,0.0245997,-0.00964435,0.0272268,0.00255859,0.132676,0.0673188,-0.0020285,0,0,0,0,0,0,0,3.73551,0.102231,3.61633,-0.265199,0.422255,1.84488,-0.01964,0.0501559,-0.0788554,0.221194,-2.10123,0.189873,0.157762,-0.0200386,0.0652239,-0.0367148,0.0944406,0.0313702,0.0674354,0.0175481,-0.0013934,0,0,0,0,0,0,0,-0.702633,-30.0789,-1.41142,25.733,1.96167,1.47484,0.138352,
0.0601907,-0.085308,0.232268,-2.09789,0.260542,0.180929,-0.0210203,0.0200047,-0.012055,0.0231354,0.00439689,0.1833,0.0455785,-0.00219927,0,0,0,0,0,0,0,3.77493,0.0910057,3.65041,-0.187917,0.502219,1.78041,-0.0211246,0.0501559,-0.0788554,0.221194,-2.10123,0.189873,0.157762,-0.0200386,0.0652239,-0.0367148,0.0944406,0.0313702,0.0674354,0.0175481,-0.0013934,0,0,0,0,0,0,0,-0.702633,-30.0789,-1.41142,25.733,1.96167,1.47484,0.138352,
0.0602048,-0.0854831,0.232323,-2.0978,0.263622,0.180608,-0.0210434,0.0163571,-0.0140228,0.0198963,0.00590158,0.223641,0.0284428,-0.00233717,0,0,0,0,0,0,0,3.82497,0.0618196,3.6964,-0.106123,0.591223,1.71478,-0.0226857,0.0501559,-0.0788554,0.221194,-2.10123,0.189873,0.157762,-0.0200386,0.0652239,-0.0367148,0.0944406,0.0313702,0.0674354,0.0175481,-0.0013934,0,0,0,0,0,0,0,-0.702633,-30.0789,-1.41142,25.733,1.96167,1.47484,0.138352,
0.0602197,-0.0856597,0.23238,-2.0977,0.266695,0.180295,-0.0210666,0.0134589,-0.0156336,0.0173304,0.00713162,0.255753,0.0149312,-0.00244829,0,0,0,0,0,0,0,3.88003,-0.00783898,3.76141,-0.0425383,0.677735,1.62831,-0.0240604,0.052368,-0.0793103,0.224715,-2.10061,0.191134,0.159722,-0.0200365,0.0803022,-0.00665099,0.109798,0.00788901,0.00764958,0.0982315,0.000553823,1.88479,3.75798,1.9197,-2.93515,-7.47323,10.0854,0.243402,-1.61908,-27.9326,-2.18505,24.9118,1.57074,1.69366,0.0779268,
0.0658187,-0.0819894,0.238576,-2.10037,0.228007,0.200513,-0.0207505,0.0166732,-0.0151657,0.0203266,0.00686369,0.216005,0.0281831,-0.00240489,0,0,0,0,0,0,0,4.78919,0.48553,4.6139,-0.488337,1.81001,3.06174,-0.0274432,0.052368,-0.0793103,0.224715,-2.10061,0.191134,0.159722,-0.0200365,0.0803022,-0.00665099,0.109798,0.00788901,0.00764958,0.0982315,0.000553823,0,0,0,0,0,0,0,-1.61908,-27.9326,-2.18505,24.9118,1.57074,1.69366,0.0779268,
0.0660471,-0.082097,0.238827,-2.10032,0.228456,0.201142,-0.0207683,0.0190498,-0.0148228,0.0225405,0.00668455,0.184037,0.0382729,-0.00236954,0,0,0,0,0,0,0,4.91893,0.440966,4.73546,-0.40032,1.85516,2.90758,-0.0294084,0.052368,-0.0793103,0.224715,-2.10061,0.191134,0.159722,-0.0200365,0.0803022,-0.00665099,0.109798,0.00788901,0.00764958,0.0982315,0.000553823,0,0,0,0,0,0,0,-1.61908,-27.9326,-2.18505,24.9118,1.57074,1.69366,0.0779268,
0.0662677,-0.0822058,0.239071,-2.10027,0.228902,0.201751,-0.0207861,0.0207549,-0.0145803,0.0241275,0.00657702,0.158376,0.0458443,-0.00234078,0,0,0,0,0,0,0,5.05744,0.358691,4.86937,-0.307292,1.8935,2.75071,-0.0310937,0.052368,-0.0793103,0.224715,-2.10061,0.191134,0.159722,-0.0200365,0.0803022,-0.00665099,0.109798,0.00788901,0.00764958,0.0982315,0.000553823,0,0,0,0,0,0,0,-1.61908,-27.9326,-2.18505,24.9118,1.57074,1.69366,0.0779268,
0.0664805,-0.082316,0.239307,-2.10022,0.229348,0.20234,-0.0208039,0.0219218,-0.0144187,0.0252117,0.00652751,0.137847,0.0514091,-0.0023174,0,0,0,0,0,0,0,5.19239,0.218787,5.02043,-0.24835,1.90866,2.5572,-0.0319145,0.0554815,-0.0800212,0.228289,-2.09991,0.193357,0.164906,-0.0200397,0.093762,-0.01644,0.093733,0.0386063,0.0828076,0.112159,0.000841063,1.68248,-1.22363,-2.00814,3.83967,9.39476,1.74097,0.0359049,-1.21045,-29.8052,-1.83592,23.6661,1.31988,1.03722,0.104477,
0.0663126,-0.085732,0.240078,-2.097,0.255488,0.187814,-0.0210576,0.0172465,-0.0157217,0.0209709,0.00745634,0.193989,0.0229706,-0.00251759,0,0,0,0,0,0,0,3.84948,0.180369,3.73163,-0.313494,0.513429,1.87642,-0.022752,0.0554815,-0.0800212,0.228289,-2.09991,0.193357,0.164906,-0.0200397,0.093762,-0.01644,0.093733,0.0386063,0.0828076,0.112159,0.000841063,0,0,0,0,0,0,0,-1.21045,-29.8052,-1.83592,23.6661,1.31988,1.03722,0.104477,
0.0663101,-0.0859034,0.240117,-2.09692,0.258833,0.187142,-0.0210821,0.013735,-0.0168645,0.0177718,0.0080428,0.238808,0.00157579,-0.00262572,0,0,0,0,0,0,0,3.89631,0.161136,3.7739,-0.23684,0.59074,1.80692,-0.0242929,0.0554815,-0.0800212,0.228289,-2.09991,0.193357,0.164906,-0.0200397,0.093762,-0.01644,0.093733,0.0386063,0.0828076,0.112159,0.000841063,0,0,0,0,0,0,0,-1.21045,-29.8052,-1.83592,23.6661,1.31988,1.03722,0.104477,
0.0663134,-0.0860767,0.240163,-2.09683,0.262173,0.186502,-0.0211066,0.0110707,-0.0178226,0.0153681,0.00852125,0.274555,-0.0147366,-0.00271417,0,0,0,0,0,0,0,3.95329,0.12248,3.82786,-0.155711,0.676538,1.73556,-0.0258913,0.0554815,-0.0800212,0.228289,-2.09991,0.193357,0.164906,-0.0200397,0.093762,-0.01644,0.093733,0.0386063,0.0828076,0.112159,0.000841063,0,0,0,0,0,0,0,-1.21045,-29.8052,-1.83592,23.6661,1.31988,1.03722,0.104477,
0.0663208,-0.0862515,0.240214,-2.09675,0.265509,0.185884,-0.0211313,0.00904131,-0.0186279,0.0135562,0.0089452,0.303048,-0.0272517,-0.00278862,0,0,0,0,0,0,0,4.02026,0.0438539,3.90592,-0.0912688,0.761791,1.63633,-0.0272409,0.0582025,-0.0801463,0.232786,-2.09939,0.195612,0.168714,-0.0200474,0.0641631,-0.0142794,0.152906,0.00898059,0.0247717,0.106525,-0.000570538,-3.69986,0.270073,7.39661,-3.70322,-7.2545,-0.704289,-0.17645,-0.551876,-31.0271,-1.4868,26.9034,1.63757,1.67351,0.131027,
0.0718442,-0.0831309,0.246901,-2.09897,0.234586,0.204024,-0.0208475,0.0126732,-0.0176422,0.0168842,0.00833942,0.257132,-0.00901072,-0.00272277,0,0,0,0,0,0,0,4.60752,0.500125,4.44297,-0.518346,1.47891,2.79799,-0.0273284,0.0582025,-0.0801463,0.232786,-2.09939,0.195612,0.168714,-0.0200474,0.0641631,-0.0142794,0.152906,0.00898059,0.0247717,0.106525,-0.000570538,0,0,0,0,0,0,0,-0.551876,-31.0271,-1.4868,26.9034,1.63757,1.67351,0.131027,
0.0720539,-0.0832419,0.247135,-2.09892,0.235172,0.204519,-0.0208672,0.0153826,-0.0168899,0.0193633,0.00789168,0.220369,0.00516008,-0.00266998,0,0,0,0,0,0,0,4.71827,0.472664,4.54534,-0.436223,1.53715,2.66455,-0.0294255,0.0582025,-0.0801463,0.232786,-2.09939,0.195612,0.168714,-0.0200474,0.0641631,-0.0142794,0.152906,0.00898059,0.0247717,0.106525,-0.000570538,0,0,0,0,0,0,0,-0.551876,-31.0271,-1.4868,26.9034,1.63757,1.67351,0.131027,
0.0722558,-0.0833544,0.247362,-2.09887,0.235761,0.204997,-0.0208869,0.017353,-0.0163246,0.0211619,0.00757086,0.191022,0.0160752,-0.00262781,0,0,0,0,0,0,0,4.84081,0.414823,4.66195,-0.347946,1.59548,2.52941,-0.0313515,0.0582025,-0.0801463,0.232786,-2.09939,0.195612,0.168714,-0.0200474,0.0641631,-0.0142794,0.152906,0.00898059,0.0247717,0.106525,-0.000570538,0,0,0,0,0,0,0,-0.551876,-31.0271,-1.4868,26.9034,1.63757,1.67351,0.131027,
0.0724498,-0.0834684,0.247581,-2.09882,0.236357,0.205458,-0.0209065,0.0187307,-0.0159096,0.0224149,0.00735223,0.167705,0.0243816,-0.00259427,0,0,0,0,0,0,0,4.97658,0.262231,4.81348,-0.287157,1.64509,2.36761,-0.0328699,0.0594439,-0.0810779,0.237118,-2.09887,0.197892,0.171205,-0.020048,0.0207467,-0.0258697,0.118869,0.012379,0.116329,0.0698367,0.000562571,-5.42705,-1.44878,-4.25458,0.424796,11.4446,-4.58603,0.141639,2.41565,-29.0315,1.53627,25.3085,1.47277,1.26244,0.0980684,
0.0704208,-0.0861916,0.248985,-2.09668,0.252632,0.193352,-0.021074,0.0153202,-0.0165945,0.0191517,0.00824069,0.201484,0.0058629,-0.00265447,0,0,0,0,0,0,0,3.8786,0.213817,3.76774,-0.381248,0.475106,1.90252,-0.0235826,0.0594439,-0.0810779,0.237118,-2.09887,0.197892,0.171205,-0.020048,0.0207467,-0.0258697,0.118869,0.012379,0.116329,0.0698367,0.000562571,0,0,0,0,0,0,0,2.41565,-29.0315,1.53627,25.3085,1.47277,1.26244,0.0980684,
0.0704243,-0.0863487,0.249025,-2.09658,0.255585,0.192684,-0.0210979,0.0123437,-0.0172045,0.0163027,0.00899603,0.235028,-0.0120081,-0.0027206,0,0,0,0,0,0,0,3.91905,0.203451,3.80321,-0.309997,0.543117,1.83244,-0.0251109,0.0594439,-0.0810779,0.237118,-2.09887,0.197892,0.171205,-0.020048,0.0207467,-0.0258697,0.118869,0.012379,0.116329,0.0698367,0.000562571,0,0,0,0,0,0,0,2.41565,-29.0315,1.53627,25.3085,1.47277,1.26244,0.0980684,
0.0704199,-0.0865083,0.249056,-2.09649,0.258789,0.1919,-0.0211229,0.00976396,-0.017753,0.0138238,0.00963868,0.268122,-0.0292072,-0.00280202,0,0,0,0,0,0,0,3.97042,0.176877,3.85073,-0.234349,0.622716,1.76229,-0.0267473,0.0594439,-0.0810779,0.237118,-2.09887,0.197892,0.171205,-0.020048,0.0207467,-0.0258697,0.118869,0.012379,0.116329,0.0698367,0.000562571,0,0,0,0,0,0,0,2.41565,-29.0315,1.53627,25.3085,1.47277,1.26244,0.0980684,
0.075275,-0.0815589,0.253113,-2.10442,0.290529,0.371976,-0.020397,0.0162907,-0.0124622,0.0193386,0.00594929,0.236341,0.0165447,-0.00273996,0,0,0,0,0,0,0,4.42518,0.437172,4.28488,-0.529631,1.2233,2.61385,-0.0272946,0.0611054,-0.081772,0.241962,-2.09842,0.200325,0.173899,-0.0200541,0.0440818,-0.0205387,0.144191,0.0157867,0.0348116,0.0817913,-0.000930264,2.91688,0.666373,3.16523,0.425969,-10.1896,1.49432,-0.186604,0.590702,-30.9279,-0.312487,26.7526,1.48559,1.56823,0.138352,
0.07441,-0.0852507,0.255839,-2.09777,0.241735,0.205426,-0.020944,0.0177949,-0.0129356,0.0209082,0.00602016,0.207322,0.0229415,-0.00272847,0,0,0,0,0,0,0,4.51542,0.421061,4.36737,-0.454076,1.28008,2.49508,-0.0292617,0.0611054,-0.081772,0.241962,-2.09842,0.200325,0.173899,-0.0200541,0.0440818,-0.0205387,0.144191,0.0157867,0.0348116,0.0817913,-0.000930264,0,0,0,0,0,0,0,0.590702,-30.9279,-0.312487,26.7526,1.48559,1.56823,0.138352,
0.0745926,-0.085371,0.25605,-2.09772,0.242474,0.205799,-0.0209655,0.0188006,-0.0133548,0.0219796,0.00611542,0.184333,0.0276746,-0.00271991,0,0,0,0,0,0,0,4.61837,0.380677,4.46427,-0.372629,1.34445,2.37749,-0.0312679,0.0611054,-0.081772,0.241962,-2.09842,0.200325,0.173899,-0.0200541,0.0440818,-0.0205387,0.144191,0.0157867,0.0348116,0.0817913,-0.000930264,0,0,0,0,0,0,0,0.590702,-30.9279,-0.312487,26.7526,1.48559,1.56823,0.138352,
0.0747672,-0.0854929,0.256252,-2.09767,0.243227,0.206156,-0.020987,0.019406,-0.0137312,0.0226509,0.00623086,0.166287,0.0310564,-0.00271383,0,0,0,0,0,0,0,4.73106,0.31013,4.57368,-0.285817,1.4091,2.25583,-0.0330725,0.0611054,-0.081772,0.241962,-2.09842,0.200325,0.173899,-0.0200541,0.0440818,-0.0205387,0.144191,0.0157867,0.0348116,0.0817913,-0.000930264,0,0,0,0,0,0,0,0.590702,-30.9279,-0.312487,26.7526,1.48559,1.56823,0.138352,
0.0727211,-0.0866932,0.254451,-2.09643,0.254213,0.194603,-0.0211564,0.0163737,-0.0147618,0.019837,0.00721383,0.191544,0.0147869,-0.00278074,0,0,0,0,0,0,0,3.95407,0.294456,3.82762,-0.350792,0.514306,1.90836,-0.026137,0.0611054,-0.081772,0.241962,-2.09842,0.200325,0.173899,-0.0200541,0.0440818,-0.0205387,0.144191,0.0157867,0.0348116,0.0817913,-0.000930264,0,0,0,0,0,0,0,0.590702,-30.9279,-0.312487,26.7526,1.48559,1.56823,0.138352,
0.0727437,-0.0868471,0.254509,-2.09634,0.256799,0.194078,-0.0211811,0.0136641,-0.0156567,0.0173198,0.00805844,0.217883,-0.00129996,-0.002842,0,0,0,0,0,0,0,3.99777,0.238225,3.88494,-0.307533,0.573717,1.81803,-0.0276079,0.062475,-0.0823863,0.246875,-2.09796,0.203014,0.177475,-0.0200547,0.0389607,-0.02191,0.146166,0.00552781,0.0829004,0.131914,-0.00122035,-0.64013,-0.171407,0.246853,-1.28236,6.0111,6.26535,-0.0362608,2.72113,-29.829,1.66322,26.4035,2.11456,1.62774,0.110886,
0.0727553,-0.0870038,0.254556,-2.09625,0.259648,0.193422,-0.0212063,0.011222,-0.0164411,0.0150467,0.00878699,0.24553,-0.0174344,-0.00290226,0,0,0,0,0,0,0,4.0518,0.201006,3.9365,-0.232592,0.650621,1.74563,-0.0292041,0.062475,-0.0823863,0.246875,-2.09796,0.203014,0.177475,-0.0200547,0.0389607,-0.02191,0.146166,0.00552781,0.0829004,0.131914,-0.00122035,0,0,0,0,0,0,0,2.72113,-29.829,1.66322,26.4035,2.11456,1.62774,0.110886,
0.072757,-0.087163,0.254594,-2.09615,0.262767,0.192633,-0.0212322,0.00901888,-0.017134,0.0129882,0.00941731,0.274412,-0.0336773,-0.00296853,0,0,0,0,0,0,0,4.11431,0.142421,3.99854,-0.153524,0.735138,1.66985,-0.0308149,0.062475,-0.0823863,0.246875,-2.09796,0.203014,0.177475,-0.0200547,0.0389607,-0.02191,0.146166,0.00552781,0.0829004,0.131914,-0.00122035,0,0,0,0,0,0,0,2.72113,-29.829,1.66322,26.4035,2.11456,1.62774,0.110886,
0.0754368,-0.0857056,0.260383,-2.09732,0.246165,0.206774,-0.020973,0.0121176,-0.0166493,0.0159663,0.0087191,0.240463,-0.0186289,-0.00294967,0,0,0,0,0,0,0,4.29549,0.427022,4.16793,-0.546096,1.08866,2.57278,-0.0272897,0.062475,-0.0823863,0.246875,-2.09796,0.203014,0.177475,-0.0200547,0.0389607,-0.02191,0.146166,0.00552781,0.0829004,0.131914,-0.00122035,0,0,0,0,0,0,0,2.72113,-29.829,1.66322,26.4035,2.11456,1.62774,0.110886,
0.0756251,-0.0858249,0.260599,-2.09727,0.247006,0.207094,-0.020996,0.0144017,-0.0163032,0.0181677,0.00819876,0.213393,-0.00691381,-0.0029352,0,0,0,0,0,0,0,4.37422,0.374674,4.25609,-0.500706,1.14154,2.43727,-0.0290749,0.063968,-0.0831064,0.251698,-2.09755,0.203761,0.18025,-0.0200551,0.0376804,-0.0284175,0.129765,0.0164933,0.0280651,0.0448001,0.000205206,-0.160043,-0.81344,-2.05007,1.37069,-6.85441,-10.8892,0.178195,-1.53973,-29.6306,-2.46276,26.4313,1.24115,1.83282,0.110886,
0.0758056,-0.085946,0.260807,-2.09722,0.247855,0.2074,-0.021019,0.0160327,-0.0160684,0.0197466,0.00782115,0.191939,0.00211603,-0.00292447,0,0,0,0,0,0,0,4.46273,0.351447,4.33792,-0.425649,1.20331,2.32705,-0.0310768,0.063968,-0.0831064,0.251698,-2.09755,0.203761,0.18025,-0.0200551,0.0376804,-0.0284175,0.129765,0.0164933,0.0280651,0.0448001,0.000205206,0,0,0,0,0,0,0,-1.53973,-29.6306,-2.46276,26.4313,1.24115,1.83282,0.110886,
0.0759781,-0.0860687,0.261008,-2.09717,0.248717,0.207691,-0.0210421,0.0171397,-0.0159235,0.020826,0.00755834,0.175098,0.00897208,-0.00291689,0,0,0,0,0,0,0,4.56313,0.303671,4.43347,-0.344813,1.27151,2.21586,-0.0330286,0.063968,-0.0831064,0.251698,-2.09755,0.203761,0.18025,-0.0200551,0.0376804,-0.0284175,0.129765,0.0164933,0.0280651,0.0448001,0.000205206,0,0,0,0,0,0,0,-1.53973,-29.6306,-2.46276,26.4313,1.24115,1.83282,0.110886,
0.0755659,-0.088042,0.264188,-2.09588,0.256726,0.198693,-0.0211841,0.0150961,-0.0165403,0.0189406,0.008066,0.19126,-2.55753e-05,-0.00297138,0,0,0,0,0,0,0,3.93277,0.26599,3.82932,-0.418024,0.464686,1.90324,-0.02639,0.063968,-0.0831064,0.251698,-2.09755,0.203761,0.18025,-0.0200551,0.0376804,-0.0284175,0.129765,0.0164933,0.0280651,0.0448001,0.000205206,0,0,0,0,0,0,0,-1.53973,-29.6306,-2.46276,26.4313,1.24115,1.83282,0.110886,
0.07561,-0.088197,0.264269,-2.0958,0.258976,0.198299,-0.0212098,0.0131803,-0.0171073,0.0171717,0.00853713,0.209257,-0.0098571,-0.00302084,0,0,0,0,0,0,0,3.97025,0.214685,3.87758,-0.365641,0.520205,1.82274,-0.0278414,0.0654523,-0.0836408,0.256121,-2.09713,0.20483,0.181378,-0.0200529,0.0528234,-0.00634915,0.127394,0.00830086,0.0149401,0.029796,0.000727264,1.89288,2.75854,-0.296414,-1.02406,-1.64062,-1.87552,0.0652572,-0.829586,-29.4283,-1.73674,25.6577,1.56433,1.70006,0.0843355,
0.0756427,-0.088355,0.264339,-2.09571,0.261454,0.197787,-0.0212359,0.0113608,-0.0176358,0.0154899,0.00897747,0.229374,-0.0206933,-0.00306702,0,0,0,0,0,0,0,4.01627,0.190134,3.9202,-0.295581,0.589412,1.75269,-0.0294607,0.0654523,-0.0836408,0.256121,-2.09713,0.20483,0.181378,-0.0200529,0.0528234,-0.00634915,0.127394,0.00830086,0.0149401,0.029796,0.000727264,0,0,0,0,0,0,0,-0.829586,-29.4283,-1.73674,25.6577,1.56433,1.70006,0.0843355,
0.081707,-0.0870414,0.272946,-2.09685,0.211891,0.228307,-0.0210822,0.0115228,-0.0170885,0.0155079,0.00895235,0.203627,-0.00949131,-0.00306624,0,0,0,0,0,0,0,6.52861,0.685268,6.20159,-0.506616,0.881815,3.01551,-0.0419394,0.0654523,-0.0836408,0.256121,-2.09713,0.20483,0.181378,-0.0200529,0.0528234,-0.00634915,0.127394,0.00830086,0.0149401,0.029796,0.000727264,0,0,0,0,0,0,0,-0.829586,-29.4283,-1.73674,25.6577,1.56433,1.70006,0.0843355,
0.0817895,-0.0871643,0.273057,-2.09678,0.212929,0.228467,-0.0211071,0.0112819,-0.016744,0.0151729,0.00903635,0.188852,-0.003589,-0.00307483,0,0,0,0,0,0,0,6.67365,0.405196,6.37456,-0.405804,0.837729,2.81401,-0.0414278,0.0654523,-0.0836408,0.256121,-2.09713,0.20483,0.181378,-0.0200529,0.0528234,-0.00634915,0.127394,0.00830086,0.0149401,0.029796,0.000727264,0,0,0,0,0,0,0,-0.829586,-29.4283,-1.73674,25.6577,1.56433,1.70006,0.0843355,
0.0818567,-0.0872912,0.273153,-2.0967,0.214236,0.228485,-0.0211324,0.0107043,-0.0165672,0.0145414,0.00921277,0.183755,-0.00241566,-0.00309164,0,0,0,0,0,0,0,6.77528,0.0185713,6.53753,-0.338959,0.774077,2.57432,-0.039027,0.0670914,-0.0843409,0.259849,-2.09673,0.205839,0.182189,-0.0200595,0.044635,-0.01621,0.0979068,0.0154418,0.0549157,0.0122324,-5.58418e-05,-1.02354,-1.2326,-3.6859,0.892614,4.99694,-2.19545,-0.0978882,-0.655026,-29.7536,-1.4868,25.7806,1.3327,1.58745,0.110886,
0.0819079,-0.0874222,0.273234,-2.09661,0.21585,0.228341,-0.0211581,0.00984421,-0.0165293,0.0136595,0.00946607,0.18735,-0.00554114,-0.00311562,0,0,0,0,0,0,0,6.81315,-0.358618,6.64302,-0.285245,0.716576,2.32132,-0.0352173,0.0670914,-0.0843409,0.259849,-2.09673,0.205839,0.182189,-0.0200595,0.044635,-0.01621,0.0979068,0.0154418,0.0549157,0.0122324,-5.58418e-05,0,0,0,0,0,0,0,-0.655026,-29.7536,-1.4868,25.7806,1.3327,1.58745,0.110886,
0.0785313,-0.0893768,0.272246,-2.09565,0.263195,0.196722,-0.0212199,0.0101155,-0.0169033,0.0140366,0.00925584,0.1872,-0.00570424,-0.0031564,0,0,0,0,0,0,0,4.19001,0.287078,4.05557,-0.40101,0.983998,2.16864,-0.0393485,0.0670914,-0.0843409,0.259849,-2.09673,0.205839,0.182189,-0.0200595,0.044635,-0.01621,0.0979068,0.0154418,0.0549157,0.0122324,-5.58418e-05,0,0,0,0,0,0,0,-0.655026,-29.7536,-1.4868,25.7806,1.3327,1.58745,0.110886,
0.0786115,-0.0895265,0.272362,-2.09558,0.264803,0.196611,-0.0212466,0.0100981,-0.0172648,0.0141224,0.00914722,0.189967,-0.00732179,-0.00319351,0,0,0,0,0,0,0,4.34615,0.226758,4.19552,-0.279422,1.15519,2.04125,-0.0423238,0.0670914,-0.0843409,0.259849,-2.09673,0.205839,0.182189,-0.0200595,0.044635,-0.01621,0.0979068,0.0154418,0.0549157,0.0122324,-5.58418e-05,0,0,0,0,0,0,0,-0.655026,-29.7536,-1.4868,25.7806,1.3327,1.58745,0.110886,
0.078682,-0.0896788,0.272468,-2.09551,0.266548,0.19643,-0.0212736,0.00984022,-0.0176191,0.0139661,0.00912266,0.195593,-0.0103839,-0.00322816,0,0,0,0,0,0,0,4.51457,0.0698163,4.36825,-0.158589,1.29626,1.8759,-0.0444469,0.069229,-0.0848757,0.264077,-2.09634,0.206698,0.183477,-0.0200684,0.0616822,-0.0214102,0.13203,0.0117969,0.0159846,0.0459454,-0.000390601,2.13089,-0.650027,4.26534,-0.455609,-4.86638,4.21413,-0.0418448,0.0828892,-30.3764,-0.788561,26.705,1.24115,1.90606,0.104477,
0.0787423,-0.0898338,0.272566,-2.09544,0.268453,0.196166,-0.0213007,0.00937948,-0.0179707,0.0136066,0.00916798,0.204094,-0.0149215,-0.0032612,0,0,0,0,0,0,0,4.68017,-0.133377,4.53481,-0.032775,1.40087,1.67129,-0.0445929,0.069229,-0.0848757,0.264077,-2.09634,0.206698,0.183477,-0.0200684,0.0616822,-0.0214102,0.13203,0.0117969,0.0159846,0.0459454,-0.000390601,0,0,0,0,0,0,0,0.0828892,-30.3764,-0.788561,26.705,1.24115,1.90606,0.104477,
0.0845689,-0.0894649,0.280187,-2.09534,0.223091,0.225426,-0.0212276,0.00829201,-0.0179227,0.01248,0.00957308,0.215009,-0.020993,-0.00331282,0,0,0,0,0,0,0,6.3594,0.435226,6.074,-0.382944,0.610746,2.75527,-0.0422074,0.069229,-0.0848757,0.264077,-2.09634,0.206698,0.183477,-0.0200684,0.0616822,-0.0214102,0.13203,0.0117969,0.0159846,0.0459454,-0.000390601,0,0,0,0,0,0,0,0.0828892,-30.3764,-0.788561,26.705,1.24115,1.90606,0.104477,
0.084584,-0.0896111,0.280235,-2.09525,0.22555,0.224849,-0.0212563,0.00701264,-0.0179939,0.0111886,0.010006,0.233488,-0.0312319,-0.00336806,0,0,0,0,0,0,0,6.46481,0.138656,6.2148,-0.28901,0.584394,2.56517,-0.0412484,0.069229,-0.0848757,0.264077,-2.09634,0.206698,0.183477,-0.0200684,0.0616822,-0.0214102,0.13203,0.0117969,0.0159846,0.0459454,-0.000390601,0,0,0,0,0,0,0,0.0828892,-30.3764,-0.788561,26.705,1.24115,1.90606,0.104477,
0.0845833,-0.0897616,0.280268,-2.09515,0.228428,0.22404,-0.0212858,0.00559189,-0.0181575,0.0097731,0.0104525,0.258749,-0.0452022,-0.00343025,0,0,0,0,0,0,0,6.52786,-0.268953,6.34897,-0.227558,0.55206,2.33501,-0.0386032,0.0707783,-0.0857948,0.268449,-2.09601,0.207667,0.184103,-0.0200691,0.0307418,-0.0309057,0.133442,0.0088468,0.0372155,0.010302,-0.000732164,-3.86755,-1.18694,0.176501,-0.368762,2.65386,-4.45543,-0.0426954,0.412174,-29.829,-0.736986,26.6296,1.73553,1.91247,0.110886,
0.0827212,-0.0906486,0.281288,-2.09533,0.263325,0.198721,-0.0212137,0.00789858,-0.0180716,0.0120844,0.00968238,0.23707,-0.0338595,-0.00342715,0,0,0,0,0,0,0,4.19016,0.325515,4.07165,-0.474382,0.856363,2.41278,-0.0391035,0.0707783,-0.0857948,0.268449,-2.09601,0.207667,0.184103,-0.0200691,0.0307418,-0.0309057,0.133442,0.0088468,0.0372155,0.010302,-0.000732164,0,0,0,0,0,0,0,0.412174,-29.829,-0.736986,26.6296,1.73553,1.91247,0.110886,
0.0828504,-0.0907925,0.281452,-2.09527,0.264564,0.198793,-0.0212411,0.00954869,-0.0180551,0.0137543,0.00911279,0.220631,-0.0252911,-0.00342703,0,0,0,0,0,0,0,4.33172,0.29064,4.19673,-0.364187,1.02862,2.29317,-0.0422911,0.0707783,-0.0857948,0.268449,-2.09601,0.207667,0.184103,-0.0200691,0.0307418,-0.0309057,0.133442,0.0088468,0.0372155,0.010302,-0.000732164,0,0,0,0,0,0,0,0.412174,-29.829,-0.736986,26.6296,1.73553,1.91247,0.110886,
0.0829716,-0.0909385,0.281608,-2.09522,0.265849,0.19884,-0.0212686,0.0106699,-0.0180953,0.0149075,0.00870477,0.20862,-0.0190452,-0.00342976,0,0,0,0,0,0,0,4.49458,0.206905,4.34568,-0.243324,1.18537,2.15205,-0.0450572,0.0707783,-0.0857948,0.268449,-2.09601,0.207667,0.184103,-0.0200691,0.0307418,-0.0309057,0.133442,0.0088468,0.0372155,0.010302,-0.000732164,0,0,0,0,0,0,0,0.412174,-29.829,-0.736986,26.6296,1.73553,1.91247,0.110886,
0.0830847,-0.0910868,0.281757,-2.09516,0.26719,0.198859,-0.0212963,0.0113635,-0.0181823,0.0156434,0.00842754,0.200421,-0.0147829,-0.00343508,0,0,0,0,0,0,0,4.66693,-0.00709892,4.53129,-0.127149,1.31509,1.97011,-0.0467595,0.0722085,-0.0867028,0.273482,-2.09571,0.208071,0.184592,-0.0200654,0.0320882,-0.0361673,0.140875,0.0123664,0.0215043,0.00278125,0.00106575,0.168303,-0.657705,0.929124,0.439954,-1.96389,-0.940089,0.224739,1.75708,-29.2061,0.687269,25.6815,1.45446,1.7669,0.0779268,
0.0859992,-0.0922617,0.288221,-2.09419,0.239774,0.217286,-0.0213665,0.00834614,-0.0187041,0.012642,0.00939376,0.25713,-0.04611,-0.00358955,0,0,0,0,0,0,0,5.88217,0.43114,5.6285,-0.369226,0.341564,2.60539,-0.0423251,0.0722085,-0.0867028,0.273482,-2.09571,0.208071,0.184592,-0.0200654,0.0320882,-0.0361673,0.140875,0.0123664,0.0215043,0.00278125,0.00106575,0,0,0,0,0,0,0,1.75708,-29.2061,0.687269,25.6815,1.45446,1.7669,0.0779268,
0.0859641,-0.0924343,0.288218,-2.09409,0.244016,0.215684,-0.0214004,0.00579837,-0.0192787,0.0100501,0.0101862,0.311765,-0.076928,-0.00371866,0,0,0,0,0,0,0,5.98032,0.185762,5.75294,-0.272253,0.345354,2.45653,-0.0423922,0.0722085,-0.0867028,0.273482,-2.09571,0.208071,0.184592,-0.0200654,0.0320882,-0.0361673,0.140875,0.0123664,0.0215043,0.00278125,0.00106575,0,0,0,0,0,0,0,1.75708,-29.2061,0.687269,25.6815,1.45446,1.7669,0.0779268,
0.0859174,-0.0926279,0.28823,-2.094,0.248524,0.213963,-0.0214361,0.0034719,-0.0202643,0.00832869,0.0102159,0.362123,-0.104563,-0.00386774,0,0,0,0,0,0,0,6.04975,-0.103555,5.86093,-0.185751,0.341436,2.2803,-0.0411656,0.0722085,-0.0867028,0.273482,-2.09571,0.208071,0.184592,-0.0200654,0.0320882,-0.0361673,0.140875,0.0123664,0.0215043,0.00278125,0.00106575,0,0,0,0,0,0,0,1.75708,-29.2061,0.687269,25.6815,1.45446,1.7669,0.0779268,
0.0858847,-0.0928292,0.288253,-2.09393,0.25311,0.212214,-0.0214689,0.00195838,-0.0212437,0.00724598,0.00996888,0.404335,-0.127369,-0.00391392,0,0,0,0,0,0,0,6.077,-0.428763,5.94121,-0.117003,0.343685,2.07661,-0.0387947,0.0722085,-0.0867028,0.273482,-2.09571,0.208071,0.184592,-0.0200654,0.0320882,-0.0361673,0.140875,0.0123664,0.0215043,0.00278125,0.00106575,0,0,0,0,0,0,0,1.75708,-29.2061,0.687269,25.6815,1.45446,1.7669,0.0779268,
0.0891558,-0.0927589,0.294793,-2.09539,0.223111,0.22642,-0.0211978,0.00432695,-0.020179,0.00930923,0.00944446,0.336704,-0.0901416,-0.00382985,0,0,0,0,0,0,0,6.80973,-0.081164,6.53783,-0.312899,0.994291,2.93434,-0.0488108,0.0735836,-0.0879228,0.278389,-2.09544,0.209034,0.184654,-0.0200694,0.0409974,-0.031421,0.148777,0.0118588,0.014756,0.00235441,0.00111728,1.11365,0.593292,0.987832,-0.0634529,-0.843541,-0.0533548,0.00644114,2.3125,-29.829,1.06416,26.2289,1.95526,1.62774,0.0706026,
0.0892532,-0.0928897,0.294921,-2.09533,0.223819,0.226792,-0.0212261,0.00589575,-0.0194134,0.0106548,0.0091216,0.287073,-0.0628054,-0.0037715,0,0,0,0,0,0,0,6.88239,-0.643276,6.7049,-0.258713,0.920485,2.52455,-0.0400325,0.0735836,-0.0879228,0.278389,-2.09544,0.209034,0.184654,-0.0200694,0.0409974,-0.031421,0.148777,0.0118588,0.014756,0.00235441,0.00111728,0,0,0,0,0,0,0,2.3125,-29.829,1.06416,26.2289,1.95526,1.62774,0.0706026,
0.0893369,-0.0930242,0.295037,-2.09526,0.224738,0.227048,-0.0212548,0.00680998,-0.0188931,0.0114121,0.00896726,0.252638,-0.0438394,-0.00373477,0,0,0,0,0,0,0,6.81561,-1.23549,6.7764,-0.275216,0.941791,2.07515,-0.0303925,0.0735836,-0.0879228,0.278389,-2.09544,0.209034,0.184654,-0.0200694,0.0409974,-0.031421,0.148777,0.0118588,0.014756,0.00235441,0.00111728,0,0,0,0,0,0,0,2.3125,-29.829,1.06416,26.2289,1.95526,1.62774,0.0706026,
