xiao-wang007/linearmpc_panda/paper_data/panda_torque_PD_controller_error_match_to_start/3/trajectory.csv
Commanded Joint 0 Position,Commanded Joint 1 Position,Commanded Joint 2 Position,Commanded Joint 3 Position,Commanded Joint 4 Position,Commanded Joint 5 Position,Commanded Joint 6 Position,Commanded Joint 0 Velocity,Commanded Joint 1 Velocity,Commanded Joint 2 Velocity,Commanded Joint 3 Velocity,Commanded Joint 4 Velocity,Commanded Joint 5 Velocity,Commanded Joint 6 Velocity,Commanded Joint 0 Acceleration,Commanded Joint 1 Acceleration,Commanded Joint 2 Acceleration,Commanded Joint 3 Acceleration,Commanded Joint 4 Acceleration,Commanded Joint 5 Acceleration,Commanded Joint 6 Acceleration,Commanded Joint 0 Torque,Commanded Joint 1 Torque,Commanded Joint 2 Torque,Commanded Joint 3 Torque,Commanded Joint 4 Torque,Commanded Joint 5 Torque,Commanded Joint 6 Torque,Actual Joint 0 Position,Actual Joint 1 Position,Actual Joint 2 Position,Actual Joint 3 Position,Actual Joint 4 Position,Actual Joint 5 Position,Actual Joint 6 Position,Actual Joint 0 Velocity,Actual Joint 1 Velocity,Actual Joint 2 Velocity,Actual Joint 3 Velocity,Actual Joint 4 Velocity,Actual Joint 5 Velocity,Actual Joint 6 Velocity,Actual Joint 0 Acceleration,Actual Joint 1 Acceleration,Actual Joint 2 Acceleration,Actual Joint 3 Acceleration,Actual Joint 4 Acceleration,Actual Joint 5 Acceleration,Actual Joint 6 Acceleration,Actual Joint 0 Torque,Actual Joint 1 Torque,Actual Joint 2 Torque,Actual Joint 3 Torque,Actual Joint 4 Torque,Actual Joint 5 Torque,Actual Joint 6 Torque,
0.0671477,0.0119452,-0.0715912,-1.85021,-0.0192589,0.32941,0.0374467,0.000143139,0.0233632,0.000125145,-0.0328645,-0.00333808,0.0562025,-0.000385157,0.0894619,14.602,0.0782156,-20.5403,-2.0863,35.1266,-0.240723,0.0589781,24.9569,0.0711913,-24.4203,-0.502912,1.92336,-0.0245456,0.0671496,0.0109006,-0.071543,-1.84729,-0.0190759,0.323416,0.0375072,0.000661958,0.00168438,0.00075321,0.00272927,-0.00584337,0.000120226,-0.000316759,0,0,0,0,0,0,0,-0.119442,-36.1687,-0.33629,27.3993,0.893246,3.02025,-0.103348,
0.0671557,0.0109109,-0.0715369,-1.84728,-0.0191185,0.323456,0.037506,0.00014148,0.0187459,0.000128189,-0.0262612,-0.00282823,0.045251,-0.000312629,-0.00103683,-2.88579,0.00190226,4.12707,0.318652,-6.84472,0.0453298,0.0532103,25.3974,0.0608374,-24.3367,-0.503418,1.67246,-0.0230264,0.0671496,0.0109006,-0.071543,-1.84729,-0.0190759,0.323416,0.0375072,0.000661958,0.00168438,0.00075321,0.00272927,-0.00584337,0.000120226,-0.000316759,0,0,0,0,0,0,0,-0.119442,-36.1687,-0.33629,27.3993,0.893246,3.02025,-0.103348,
0.0671563,0.0109127,-0.0715362,-1.84728,-0.0191215,0.323466,0.0375059,0.000129694,0.0150436,0.000120522,-0.0209848,-0.00233903,0.0364367,-0.000252867,-0.00736627,-2.31394,-0.00479163,3.29774,0.305751,-5.5089,0.0373517,0.0459699,25.9689,0.0490725,-24.2287,-0.503033,1.32492,-0.0210569,0.0671496,0.0109006,-0.071543,-1.84729,-0.0190759,0.323416,0.0375072,0.000661958,0.00168438,0.00075321,0.00272927,-0.00584337,0.000120226,-0.000316759,0,0,0,0,0,0,0,-0.119442,-36.1687,-0.33629,27.3993,0.893246,3.02025,-0.103348,
0.0671567,0.0109144,-0.0715357,-1.84728,-0.0191229,0.323473,0.0375058,0.000114226,0.0120772,0.000108552,-0.0167666,-0.00190401,0.0293467,-0.000204122,-0.00966736,-1.85403,-0.00748091,2.63635,0.271888,-4.43126,0.0304657,0.0399916,26.4957,0.0397583,-24.06,-0.501038,0.940602,-0.0190602,0.0671503,0.0110139,-0.0715415,-1.84736,-0.0190801,0.323417,0.0375012,0.00112649,0.00286096,0.00100892,-0.0020341,-0.00804359,0.000703677,-0.000875944,0.058066,0.147073,0.0319641,-0.595421,-0.275028,0.0729314,-0.0698981,-0.0956386,-36.1449,-0.312487,27.3001,0.91705,3.01293,-0.0767973,
0.0671619,0.011483,-0.0715309,-1.84791,-0.0192585,0.323733,0.0375053,0.000381293,0.0213893,0.000351307,-0.0270873,-0.00598541,0.0313816,-6.17277e-05,0.166917,5.82011,0.151721,-6.45043,-2.55087,1.27179,0.0889962,-1.97926e-06,31.1199,0.0138394,-23.3246,-0.912464,-2.28902,0.000871296,0.0671503,0.0110139,-0.0715415,-1.84736,-0.0190801,0.323417,0.0375012,0.00112649,0.00286096,0.00100892,-0.0020341,-0.00804359,0.000703677,-0.000875944,0,0,0,0,0,0,0,-0.0956386,-36.1449,-0.312487,27.3001,0.91705,3.01293,-0.0767973,
0.0671234,0.0119182,-0.0715718,-1.84815,-0.0184055,0.32322,0.0374865,-0.000657813,0.0279919,-0.000741289,-0.0277097,0.016538,0.0122751,-0.000518366,-0.649442,4.12663,-0.682872,-0.38897,14.0771,-11.9415,-0.285399,0.517437,0.137939,0.519729,-0.239639,3.13801,-1.58858,-0.00156017,0.0671503,0.0110139,-0.0715415,-1.84736,-0.0190801,0.323417,0.0375012,0.00112649,0.00286096,0.00100892,-0.0020341,-0.00804359,0.000703677,-0.000875944,0,0,0,0,0,0,0,-0.0956386,-36.1449,-0.312487,27.3001,0.91705,3.01293,-0.0767973,
0.0670682,0.0122628,-0.0716274,-1.84831,-0.0169523,0.322337,0.0374749,-0.00190635,0.0310085,-0.00198431,-0.0261461,0.049561,-0.0122487,-0.000705046,-0.780336,1.88537,-0.776888,0.97725,20.6394,-15.3274,-0.116675,0.511082,0.135814,0.513473,-0.236997,3.11077,-1.57473,-0.00151539,0.0671503,0.0110139,-0.0715415,-1.84736,-0.0190801,0.323417,0.0375012,0.00112649,0.00286096,0.00100892,-0.0020341,-0.00804359,0.000703677,-0.000875944,0,0,0,0,0,0,0,-0.0956386,-36.1449,-0.312487,27.3001,0.91705,3.01293,-0.0767973,
0.0670142,0.012528,-0.071681,-1.84844,-0.0151525,0.321261,0.0374683,-0.00287597,0.031436,-0.00292661,-0.0240756,0.0846421,-0.0367039,-0.000728104,-0.606011,0.267185,-0.58894,1.29407,21.9257,-15.2845,-0.0144111,0.505356,0.206101,0.509472,-0.211211,3.0857,-1.54726,-0.00156438,0.0671256,0.0123433,-0.0715696,-1.849,-0.0190346,0.326652,0.0375061,0.000733364,0.114786,-0.00652186,-0.164827,-0.00645976,0.280468,0.000332434,-0.0491403,13.9906,-0.941347,-20.3491,0.197979,34.9706,0.151047,0.25745,-15.4793,0.0882092,7.72156,0.288082,0.951163,-0.103348,
0.0671224,0.013684,-0.0715731,-1.8501,-0.0193357,0.327705,0.0375119,-0.00237995,0.0586648,-0.00242784,-0.0467849,0.0601868,-0.00304082,-0.000438265,0.310014,17.018,0.311732,-14.1933,-15.2845,21.0394,0.18115,0.000431423,31.1927,0.0159644,-23.3011,-0.910416,-2.27545,0.000806172,0.0671256,0.0123433,-0.0715696,-1.849,-0.0190346,0.326652,0.0375061,0.000733364,0.114786,-0.00652186,-0.164827,-0.00645976,0.280468,0.000332434,0,0,0,0,0,0,0,0.25745,-15.4793,0.0882092,7.72156,0.288082,0.951163,-0.103348,
0.0670091,0.0148298,-0.0716935,-1.85047,-0.0161935,0.325366,0.0374483,-0.004737,0.075578,-0.00495325,-0.0465637,0.126705,-0.0609216,-0.00193993,-1.47316,10.5708,-1.57838,0.138253,41.5736,-36.1755,-0.938541,4.29856,0.728261,4.29721,-1.69542,11.0896,-8.94999,-0.00723774,0.0671256,0.0123433,-0.0715696,-1.849,-0.0190346,0.326652,0.0375061,0.000733364,0.114786,-0.00652186,-0.164827,-0.00645976,0.280468,0.000332434,0,0,0,0,0,0,0,0.25745,-15.4793,0.0882092,7.72156,0.288082,0.951163,-0.103348,
0.0668791,0.0156824,-0.0718249,-1.85069,-0.0110078,0.321266,0.0374094,-0.00703848,0.0817768,-0.00724829,-0.04269,0.231006,-0.151236,-0.00252615,-1.43842,3.8743,-1.4344,2.42104,65.1883,-56.4462,-0.366386,4.23544,0.814224,4.23199,-1.62914,11.0896,-8.79989,-0.00646811,0.0671256,0.0123433,-0.0715696,-1.849,-0.0190346,0.326652,0.0375061,0.000733364,0.114786,-0.00652186,-0.164827,-0.00645976,0.280468,0.000332434,0,0,0,0,0,0,0,0.25745,-15.4793,0.0882092,7.72156,0.288082,0.951163,-0.103348,
0.0667794,0.0163057,-0.0719234,-1.85088,-0.00460469,0.316144,0.0373876,-0.00812284,0.0810045,-0.00826124,-0.0389284,0.344882,-0.24903,-0.00256366,-0.677724,-0.482714,-0.633093,2.35099,71.1726,-61.1213,-0.0234456,4.16604,1.04456,4.16807,-1.54419,11.0917,-8.61034,-0.00628665,0.0671606,0.0179194,-0.0715038,-1.85494,-0.0180449,0.331198,0.0375053,0.00308089,0.180279,0.00301335,-0.132039,0.168451,-0.0458937,-0.000340466,0.293441,8.1866,1.1919,4.09847,21.8638,-40.7952,-0.0841126,0.0313145,-24.5882,-0.237108,26.4313,1.6806,2.70165,-0.083206,
0.0672217,0.0195507,-0.0714392,-1.85618,-0.0174756,0.330729,0.0375185,-0.00497069,0.105587,-0.00499451,-0.0622488,0.290139,-0.210938,-0.00172148,1.97009,15.3642,2.04171,-14.5753,-34.2141,23.8073,0.526365,0.00287791,31.3684,0.0253569,-23.2714,-0.908289,-2.2405,0.000517721,0.0671606,0.0179194,-0.0715038,-1.85494,-0.0180449,0.331198,0.0375053,0.00308089,0.180279,0.00301335,-0.132039,0.168451,-0.0458937,-0.000340466,0,0,0,0,0,0,0,0.0313145,-24.5882,-0.237108,26.4313,1.6806,2.70165,-0.083206,
0.0676566,0.0206737,-0.0709915,-1.85703,-0.0147111,0.326199,0.0375361,0.00689685,0.112544,0.0071974,-0.0708172,0.301224,-0.281999,-0.000935673,7.41721,4.34774,7.61994,-5.35528,6.92777,-44.4132,0.491127,29.2488,-1.96017,29.1515,-11.3639,11.0917,-14.2405,0.0346444,0.0671606,0.0179194,-0.0715038,-1.85494,-0.0180449,0.331198,0.0375053,0.00308089,0.180279,0.00301335,-0.132039,0.168451,-0.0458937,-0.000340466,0,0,0,0,0,0,0,0.0313145,-24.5882,-0.237108,26.4313,1.6806,2.70165,-0.083206,
0.068402,0.0214419,-0.0702395,-1.85771,-0.0103777,0.319212,0.037571,0.0241522,0.109242,0.0245585,-0.0738064,0.349314,-0.400291,0.000122483,10.7846,-2.06371,10.8507,-1.86821,30.0561,-73.9326,0.661347,28.1251,-0.390205,27.9901,-9.61061,11.0917,-14.2405,0.0475938,0.0671606,0.0179194,-0.0715038,-1.85494,-0.0180449,0.331198,0.0375053,0.00308089,0.180279,0.00301335,-0.132039,0.168451,-0.0458937,-0.000340466,0,0,0,0,0,0,0,0.0313145,-24.5882,-0.237108,26.4313,1.6806,2.70165,-0.083206,
0.069391,0.0219696,-0.0692485,-1.85833,-0.00490924,0.31069,0.0376223,0.0440458,0.100585,0.0444209,-0.0745156,0.416162,-0.533272,0.00138161,12.4334,-5.41012,12.414,-0.443274,41.7802,-83.113,0.786957,26.8658,0.115195,26.7231,-8.37287,11.0559,-14.1779,0.063509,0.0672236,0.0238628,-0.0713097,-1.85648,-0.0132512,0.322643,0.0374949,0.0098857,0.224517,0.0210491,-0.0489198,0.422486,-0.473651,-0.00145173,0.850602,5.5298,2.25447,10.3899,31.7544,-53.4697,-0.138908,3.55426,-42.0085,3.13905,24.5111,3.33587,-1.87324,-0.0301054,
0.0673988,0.0255859,-0.0711259,-1.85773,-0.011376,0.320353,0.0375178,0.0396151,0.123545,0.0401318,-0.0906597,0.379809,-0.483878,0.00167583,-2.76914,14.3496,-2.6807,-10.09,-22.7205,30.8715,0.183887,-0.0615533,31.6046,-0.0319277,-23.2832,-0.944145,-2.17792,0.000685373,0.0672236,0.0238628,-0.0713097,-1.85648,-0.0132512,0.322643,0.0374949,0.0098857,0.224517,0.0210491,-0.0489198,0.422486,-0.473651,-0.00145173,0,0,0,0,0,0,0,3.55426,-42.0085,3.13905,24.5111,3.33587,-1.87324,-0.0301054,
0.0682081,0.0264131,-0.0702895,-1.85926,-0.00827105,0.315091,0.0377458,0.0519246,0.119517,0.0530154,-0.110831,0.381471,-0.518658,0.00704026,7.6934,-2.51731,8.05225,-12.6073,1.03866,-21.7375,3.35277,42.881,-8.95842,42.6719,-20.7077,11.0559,-14.1779,0.267695,0.0672236,0.0238628,-0.0713097,-1.85648,-0.0132512,0.322643,0.0374949,0.0098857,0.224517,0.0210491,-0.0489198,0.422486,-0.473651,-0.00145173,0,0,0,0,0,0,0,3.55426,-42.0085,3.13905,24.5111,3.33587,-1.87324,-0.0301054,
0.0694451,0.0268137,-0.0690469,-1.86076,-0.00393364,0.307711,0.0378655,0.0724645,0.105628,0.0734764,-0.126111,0.413612,-0.599418,0.0086267,12.8375,-8.68073,12.7882,-9.54991,20.0881,-50.4751,0.991526,38.1359,-6.05217,37.854,-19.2136,11.0559,-14.1779,0.130975,0.0672236,0.0238628,-0.0713097,-1.85648,-0.0132512,0.322643,0.0374949,0.0098857,0.224517,0.0210491,-0.0489198,0.422486,-0.473651,-0.00145173,0,0,0,0,0,0,0,3.55426,-42.0085,3.13905,24.5111,3.33587,-1.87324,-0.0301054,
0.0673988,0.0255859,-0.0711259,-1.85773,-0.011376,0.320353,0.0375178,0.0623501,0.127579,0.0633762,-0.131936,0.377769,-0.536794,0.0074719,-6.32148,13.7193,-6.31264,-3.64057,-22.4018,39.1397,-0.721749,-0.0615533,31.6046,-0.0319277,-23.2832,-0.944145,-2.17792,0.000685373,0.0672236,0.0238628,-0.0713097,-1.85648,-0.0132512,0.322643,0.0374949,0.0098857,0.224517,0.0210491,-0.0489198,0.422486,-0.473651,-0.00145173,0,0,0,0,0,0,0,3.55426,-42.0085,3.13905,24.5111,3.33587,-1.87324,-0.0301054,
0.068377,0.0260565,-0.0701532,-1.85985,-0.00853154,0.315512,0.0378546,0.0743363,0.113829,0.0750171,-0.158701,0.373327,-0.550458,0.0143996,7.49136,-8.59354,7.27554,-16.7282,-2.77649,-8.53949,4.32978,50.9952,-15.6934,50.2312,-30.4156,10.9583,-14.0188,0.394743,0.0671578,0.0290383,-0.0710233,-1.85927,0.0152838,0.296805,0.0375138,0.0317368,0.0269609,0.114932,-0.180389,0.499369,-1.03987,-0.00251352,2.73138,-24.6945,11.7353,-16.4336,9.61035,-70.7777,-0.132724,13.4447,-38.2634,13.2358,18.2111,1.6806,-4.21424,-0.0429228,
0.0698263,0.0260904,-0.0687238,-1.86196,-0.00444084,0.30844,0.0379476,0.0957009,0.0919092,0.0957483,-0.179685,0.400929,-0.617159,0.0138425,13.3528,-13.6999,12.957,-13.1149,17.2513,-41.6883,-0.348174,42.8751,-10.0077,42.2447,-27.5638,10.9583,-14.0188,0.0876748,0.0671578,0.0290383,-0.0710233,-1.85927,0.0152838,0.296805,0.0375138,0.0317368,0.0269609,0.114932,-0.180389,0.499369,-1.03987,-0.00251352,0,0,0,0,0,0,0,13.4447,-38.2634,13.2358,18.2111,1.6806,-4.21424,-0.0429228,
0.0715514,0.025993,-0.0670222,-1.86389,0.0008209,0.299852,0.0378914,0.119689,0.0710938,0.119138,-0.1921,0.452287,-0.708447,0.00967035,14.9928,-13.0096,14.6188,-7.75921,32.0986,-57.0548,-2.60758,37.5283,-5.7247,37.0267,-24.9712,10.9583,-14.0188,-0.0823697,0.0671578,0.0290383,-0.0710233,-1.85927,0.0152838,0.296805,0.0375138,0.0317368,0.0269609,0.114932,-0.180389,0.499369,-1.03987,-0.00251352,0,0,0,0,0,0,0,13.4447,-38.2634,13.2358,18.2111,1.6806,-4.21424,-0.0429228,
0.0702261,0.027967,-0.0679759,-1.86366,0.0247647,0.278492,0.037964,0.139397,0.0423178,0.138397,-0.207728,0.49042,-0.805884,0.01028,12.3174,-17.985,12.0367,-9.76759,23.8331,-60.8986,0.381049,50.9952,-15.6934,50.2312,-30.4156,10.9583,-14.0188,0.394743,0.0671578,0.0290383,-0.0710233,-1.85927,0.0152838,0.296805,0.0375138,0.0317368,0.0269609,0.114932,-0.180389,0.499369,-1.03987,-0.00251352,0,0,0,0,0,0,0,13.4447,-38.2634,13.2358,18.2111,1.6806,-4.21424,-0.0429228,
0.0722006,0.0274736,-0.066028,-1.86562,0.0307757,0.268331,0.037913,0.160881,0.0215207,0.159415,-0.215312,0.542612,-0.898726,0.00694928,13.4271,-12.9982,13.136,-4.73976,32.6205,-58.0259,-2.08172,43.1632,-9.7522,42.5252,-27.3322,11.0256,-13.6473,0.0866051,0.0709152,0.0327939,-0.0620737,-1.86807,0.0419708,0.254411,0.0377194,0.149863,-0.128218,0.312113,-0.462781,0.598984,-1.20619,0.00805269,14.7658,-19.3973,24.6476,-35.299,12.4519,-20.7899,1.32078,25.2632,-33.947,24.6338,24.8364,3.64715,-1.72126,-0.0969389,
0.074299,0.0270919,-0.0639581,-1.86743,0.0375394,0.257825,0.0377933,0.181163,0.00767428,0.179281,-0.217464,0.603181,-0.981629,0.0025664,12.6765,-8.65399,12.4165,-1.34552,37.8556,-51.8145,-2.7393,37.8164,-5.46924,37.3073,-24.7396,11.0256,-13.6473,-0.0834394,0.0709152,0.0327939,-0.0620737,-1.86807,0.0419708,0.254411,0.0377194,0.149863,-0.128218,0.312113,-0.462781,0.598984,-1.20619,0.00805269,0,0,0,0,0,0,0,25.2632,-33.947,24.6338,24.8364,3.64715,-1.72126,-0.0969389,
0.0764577,0.0267888,-0.0618287,-1.86915,0.0449012,0.247148,0.0376667,0.1989,-0.00143983,0.19666,-0.217041,0.66659,-1.05223,-0.00111203,11.0855,-5.69631,10.8616,0.264442,39.6301,-44.124,-2.29902,34.306,-3.18779,33.8682,-22.8606,11.0256,-13.6473,-0.15748,0.0709152,0.0327939,-0.0620737,-1.86807,0.0419708,0.254411,0.0377194,0.149863,-0.128218,0.312113,-0.462781,0.598984,-1.20619,0.00805269,0,0,0,0,0,0,0,25.2632,-33.947,24.6338,24.8364,3.64715,-1.72126,-0.0969389,
0.0773253,0.0319319,-0.0557378,-1.87449,0.0615119,0.220924,0.037422,0.214234,-0.00513573,0.211677,-0.220848,0.714035,-1.12276,-0.00407018,9.58394,-2.30994,9.38585,-2.37947,29.6532,-44.0816,-1.84884,37.8164,-5.46924,37.3073,-24.7396,11.0256,-13.6473,-0.0834394,0.0709152,0.0327939,-0.0620737,-1.86807,0.0419708,0.254411,0.0377194,0.149863,-0.128218,0.312113,-0.462781,0.598984,-1.20619,0.00805269,0,0,0,0,0,0,0,25.2632,-33.947,24.6338,24.8364,3.64715,-1.72126,-0.0969389,
0.0795335,0.0317961,-0.0535607,-1.87632,0.0692445,0.209892,0.0373079,0.226593,-0.00750352,0.22377,-0.22255,0.764542,-1.17401,-0.00610799,7.72419,-1.47987,7.55838,-1.06359,31.5669,-32.0305,-1.27363,34.6272,-2.90573,34.1766,-22.5946,11.1648,-13.1803,-0.158512,0.0832465,0.0309251,-0.0511421,-1.88425,0.0629876,0.210744,0.037978,0.497587,-0.0306428,0.292017,-0.43116,0.710934,-1.50342,0.00457403,43.4654,12.1969,-2.51202,3.95261,13.9938,-37.1535,-0.434833,18.7212,-36.4424,18.6115,23.4161,4.20288,-2.00599,0.0843355,
0.0817099,0.0316601,-0.0514154,-1.87815,0.0773605,0.199226,0.0371925,0.235685,-0.00940142,0.232648,-0.22372,0.814533,-1.20586,-0.00777098,5.6824,-1.18619,5.54817,-0.731232,31.2446,-19.9063,-1.03937,32.0495,-2.18267,31.6385,-21.4991,11.1648,-13.1803,-0.159897,0.0832465,0.0309251,-0.0511421,-1.88425,0.0629876,0.210744,0.037978,0.497587,-0.0306428,0.292017,-0.43116,0.710934,-1.50342,0.00457403,0,0,0,0,0,0,0,18.7212,-36.4424,18.6115,23.4161,4.20288,-2.00599,0.0843355,
0.0937798,0.0315625,-0.0408062,-1.893,0.0954628,0.1651,0.0374146,0.247524,-0.00395372,0.244158,-0.228837,0.872443,-1.22398,-0.0100759,7.39992,3.40481,7.19383,-3.19809,36.1935,-11.3248,-1.4406,29.7027,-2.34648,29.3222,-21.0129,11.1648,-12.7722,-0.139459,0.0832465,0.0309251,-0.0511421,-1.88425,0.0629876,0.210744,0.037978,0.497587,-0.0306428,0.292017,-0.43116,0.710934,-1.50342,0.00457403,0,0,0,0,0,0,0,18.7212,-36.4424,18.6115,23.4161,4.20288,-2.00599,0.0843355,
0.0960026,0.0316846,-0.038618,-1.89496,0.10444,0.155826,0.0372663,0.25359,-0.000110872,0.250029,-0.232038,0.922376,-1.21103,-0.0117697,3.79086,2.40178,3.6697,-2.00052,31.2083,8.09298,-1.05859,27.3455,-2.53332,26.9958,-20.7536,11.1648,-12.0405,-0.139469,0.0832465,0.0309251,-0.0511421,-1.88425,0.0629876,0.210744,0.037978,0.497587,-0.0306428,0.292017,-0.43116,0.710934,-1.50342,0.00457403,0,0,0,0,0,0,0,18.7212,-36.4424,18.6115,23.4161,4.20288,-2.00599,0.0843355,
0.0981104,0.0317898,-0.0365428,-1.89689,0.113463,0.147754,0.0371278,0.255568,0.00254233,0.251904,-0.233796,0.963485,-1.17063,-0.012878,1.2363,1.65825,1.17152,-1.09883,25.6931,25.2492,-0.692714,25.2713,-1.87615,24.9325,-20.137,11.1975,-10.9388,-0.163395,0.0979033,0.0300268,-0.0339044,-1.89976,0.0935891,0.156482,0.0380443,0.594086,0.0717921,0.392194,-0.374311,1.04149,-1.86869,-0.00721086,12.0624,12.8044,12.5222,7.1062,41.3192,-45.6589,-1.47311,9.16004,-34.4469,9.0384,23.2892,3.40271,-1.15089,0.0440523,
0.10012,0.0318771,-0.0345645,-1.89878,0.122475,0.140891,0.0370033,0.25469,0.00421566,0.250981,-0.234311,0.996086,-1.10808,-0.0134149,-0.54872,1.04583,-0.576459,-0.321985,20.3756,39.0916,-0.335575,23.6424,-1.32016,23.323,-19.4865,11.1975,-9.72532,-0.177733,0.0979033,0.0300268,-0.0339044,-1.89976,0.0935891,0.156482,0.0380443,0.594086,0.0717921,0.392194,-0.374311,1.04149,-1.86869,-0.00721086,0,0,0,0,0,0,0,9.16004,-34.4469,9.0384,23.2892,3.40271,-1.15089,0.0440523,
0.111906,0.0324804,-0.020165,-1.91157,0.141848,0.111529,0.0373424,0.260938,0.0118672,0.257016,-0.239521,1.0371,-1.02878,-0.0133906,3.90502,4.78222,3.77185,-3.25596,25.6351,49.5615,0.0151869,22.4635,-0.925229,22.1551,-18.8663,11.1975,-7.7098,-0.173518,0.0979033,0.0300268,-0.0339044,-1.89976,0.0935891,0.156482,0.0380443,0.594086,0.0717921,0.392194,-0.374311,1.04149,-1.86869,-0.00721086,0,0,0,0,0,0,0,9.16004,-34.4469,9.0384,23.2892,3.40271,-1.15089,0.0440523,
0.114032,0.0327425,-0.0180749,-1.91354,0.15129,0.107102,0.0372496,0.261889,0.0160459,0.257863,-0.240919,1.06573,-0.933695,-0.0130322,0.594151,2.61167,0.529371,-0.873706,17.8894,59.4305,0.224057,21.5521,-0.813796,21.2516,-18.394,11.1975,-5.97643,-0.16335,0.0979033,0.0300268,-0.0339044,-1.89976,0.0935891,0.156482,0.0380443,0.594086,0.0717921,0.392194,-0.374311,1.04149,-1.86869,-0.00721086,0,0,0,0,0,0,0,9.16004,-34.4469,9.0384,23.2892,3.40271,-1.15089,0.0440523,
0.116022,0.0329343,-0.0161181,-1.91541,0.160565,0.103783,0.037171,0.259269,0.0176323,0.255212,-0.239505,1.08446,-0.829934,-0.01239,-1.63736,0.991483,-1.65706,0.88366,11.7112,64.8505,0.401325,21.0773,-0.911547,20.755,-17.5397,11.1928,-3.79705,-0.149033,0.119038,0.0299144,-0.0139017,-1.91711,0.138196,0.0869202,0.0378631,0.665079,-0.0241013,0.499937,-0.473752,1.42898,-1.9432,-0.0141096,8.87414,-11.9867,13.4679,-12.4302,48.4368,-9.314,-0.862337,-1.36517,-37.2398,-0.986925,20.5994,2.81677,0.732351,-0.103348,
0.117898,0.0330646,-0.0142744,-1.91719,0.169687,0.101427,0.0371043,0.254303,0.0173621,0.250262,-0.236044,1.09561,-0.72284,-0.0115813,-3.1034,-0.168837,-3.09376,2.16306,6.96447,66.934,0.505439,20.4199,-1.02927,20.104,-17.2425,11.1928,-2.49706,-0.134273,0.119038,0.0299144,-0.0139017,-1.91711,0.138196,0.0869202,0.0378631,0.665079,-0.0241013,0.499937,-0.473752,1.42898,-1.9432,-0.0141096,0,0,0,0,0,0,0,-1.36517,-37.2398,-0.986925,20.5994,2.81677,0.732351,-0.103348,
0.136847,0.0315758,0.00357543,-1.93105,0.202982,0.0516241,0.0373934,0.258181,0.0183636,0.253974,-0.234038,1.12378,-0.619129,-0.0103424,2.42322,0.625911,2.31993,1.25369,17.6079,64.8195,0.77431,19.2808,-1.22109,18.9779,-16.7265,11.1928,-0.396471,-0.101863,0.119038,0.0299144,-0.0139017,-1.91711,0.138196,0.0869202,0.0378631,0.665079,-0.0241013,0.499937,-0.473752,1.42898,-1.9432,-0.0141096,0,0,0,0,0,0,0,-1.36517,-37.2398,-0.986925,20.5994,2.81677,0.732351,-0.103348,
0.138851,0.0316924,0.00554283,-1.93272,0.212564,0.0509248,0.0373612,0.256632,0.0176052,0.252364,-0.229209,1.13857,-0.512786,-0.0090782,-0.967725,-0.473995,-1.0061,3.01797,9.24597,66.4639,0.790147,18.7699,-1.25411,18.4736,-16.4798,11.1928,0.442095,-0.085391,0.119038,0.0299144,-0.0139017,-1.91711,0.138196,0.0869202,0.0378631,0.665079,-0.0241013,0.499937,-0.473752,1.42898,-1.9432,-0.0141096,0,0,0,0,0,0,0,-1.36517,-37.2398,-0.986925,20.5994,2.81677,0.732351,-0.103348,
0.1407,0.0317534,0.00735775,-1.93429,0.221882,0.0509726,0.0373398,0.251524,0.0156099,0.247264,-0.222611,1.14382,-0.409033,-0.00779781,-3.19262,-1.24707,-3.18744,4.12403,3.27778,64.8457,0.800247,18.0385,-2.23057,17.7209,-15.5067,10.8333,1.52478,-0.0779713,0.138845,0.0307292,0.00559139,-1.93519,0.1892,0.0336731,0.0376088,0.53112,0.0582179,0.594618,-0.479137,1.61567,-1.30231,-0.00060591,-16.7448,10.2899,11.8351,-0.67312,23.3353,80.1119,1.68796,-4.9635,-35.2443,-4.41069,28.1253,1.55883,4.01452,-0.143631,
0.136847,0.0315758,0.00357543,-1.93105,0.202982,0.0516241,0.0373934,0.255957,0.0169618,0.251576,-0.223292,1.16235,-0.368083,-0.00731562,2.77064,0.844942,2.69465,-0.425445,11.5815,25.5937,0.301369,16.71,-2.0134,16.412,-14.7625,10.8333,3.05393,-0.0374854,0.138845,0.0307292,0.00559139,-1.93519,0.1892,0.0336731,0.0376088,0.53112,0.0582179,0.594618,-0.479137,1.61567,-1.30231,-0.00060591,0,0,0,0,0,0,0,-4.9635,-35.2443,-4.41069,28.1253,1.55883,4.01452,-0.143631,
0.157586,0.0334986,0.0239867,-1.9496,0.264203,0.016265,0.0374222,0.250802,0.0164176,0.246383,-0.215691,1.16473,-0.273722,-0.00568749,-3.22187,-0.34011,-3.24543,4.75031,1.48777,58.9758,1.01758,16.2983,-1.90654,16.0067,-14.5158,10.8333,3.39312,-0.0261897,0.138845,0.0307292,0.00559139,-1.93519,0.1892,0.0336731,0.0376088,0.53112,0.0582179,0.594618,-0.479137,1.61567,-1.30231,-0.00060591,0,0,0,0,0,0,0,-4.9635,-35.2443,-4.41069,28.1253,1.55883,4.01452,-0.143631,
0.159271,0.0335474,0.0256377,-1.95098,0.273325,0.0176079,0.0374385,0.242768,0.0143544,0.23838,-0.207049,1.15985,-0.185404,-0.00414176,-5.02125,-1.28952,-5.00197,5.4014,-3.04803,55.1987,0.966078,15.9014,-1.7922,15.6161,-14.272,10.8333,3.66955,-0.0145872,0.138845,0.0307292,0.00559139,-1.93519,0.1892,0.0336731,0.0376088,0.53112,0.0582179,0.594618,-0.479137,1.61567,-1.30231,-0.00060591,0,0,0,0,0,0,0,-4.9635,-35.2443,-4.41069,28.1253,1.55883,4.01452,-0.143631,
0.160824,0.0335438,0.0271595,-1.95228,0.282227,0.0193502,0.0374645,0.233059,0.0113939,0.228748,-0.198026,1.15042,-0.104767,-0.00266332,-6.06799,-1.85033,-6.01981,5.63937,-5.89681,50.3984,0.924029,15.2712,-2.52672,14.9598,-13.3869,10.4455,4.08431,-0.0106392,0.157528,0.03322,0.0241622,-1.95226,0.244263,0.00884938,0.0375951,0.417568,0.14635,0.676073,-0.446032,1.63688,-0.478748,0.000529438,-14.1939,11.0165,10.1819,4.13819,2.65201,102.945,0.141918,-4.40808,-40.5843,-4.01,33.2788,1.42425,4.55102,-0.117081,
0.173313,0.036839,0.0396437,-1.96361,0.3084,0.00607576,0.0376092,0.232341,0.014179,0.2279,-0.193581,1.15654,-0.0508971,-0.00138734,-0.448818,1.74069,-0.529934,2.77812,3.82579,33.6685,0.797486,14.5227,-2.30244,14.2237,-12.9211,10.4455,4.38313,0.00904454,0.157528,0.03322,0.0241622,-1.95226,0.244263,0.00884938,0.0375951,0.417568,0.14635,0.676073,-0.446032,1.63688,-0.478748,0.000529438,0,0,0,0,0,0,0,-4.40808,-40.5843,-4.01,33.2788,1.42425,4.55102,-0.117081,
0.174959,0.0369539,0.0412515,-1.96491,0.317539,0.00778575,0.0376427,0.227034,0.0142154,0.222515,-0.187359,1.15373,0.00203206,-0.000272055,-3.31679,0.0227615,-3.3654,3.88891,-1.75628,33.0807,0.697053,14.1553,-2.19549,13.8625,-12.6979,10.4455,4.48509,0.0187619,0.157528,0.03322,0.0241622,-1.95226,0.244263,0.00884938,0.0375951,0.417568,0.14635,0.676073,-0.446032,1.63688,-0.478748,0.000529438,0,0,0,0,0,0,0,-4.40808,-40.5843,-4.01,33.2788,1.42425,4.55102,-0.117081,
0.176456,0.037003,0.0427114,-1.96611,0.326271,0.00979931,0.0376793,0.219047,0.0125983,0.21451,-0.179934,1.14128,0.0519647,0.000698457,-4.99184,-1.01067,-5.00317,4.64019,-7.77841,31.2079,0.60657,13.7821,-2.09147,13.4958,-12.4826,10.4455,4.56333,0.0286762,0.157528,0.03322,0.0241622,-1.95226,0.244263,0.00884938,0.0375951,0.417568,0.14635,0.676073,-0.446032,1.63688,-0.478748,0.000529438,0,0,0,0,0,0,0,-4.40808,-40.5843,-4.01,33.2788,1.42425,4.55102,-0.117081,
0.177842,0.0369996,0.0440637,-1.96722,0.334326,0.012042,0.0377188,0.209876,0.00999518,0.205415,-0.171568,1.11438,0.0976402,0.00154644,-5.73241,-1.62695,-5.68452,5.22898,-16.8124,28.5472,0.529987,13.3855,-1.98304,13.1071,-12.2755,10.4455,4.62433,0.0390065,0.157528,0.03322,0.0241622,-1.95226,0.244263,0.00884938,0.0375951,0.417568,0.14635,0.676073,-0.446032,1.63688,-0.478748,0.000529438,0,0,0,0,0,0,0,-4.40808,-40.5843,-4.01,33.2788,1.42425,4.55102,-0.117081,
0.19067,0.0366059,0.0544805,-1.97739,0.35842,0.00737836,0.0377318,0.209319,0.00837724,0.204801,-0.163879,1.07258,0.124592,0.00204512,-0.348085,-1.01121,-0.38392,4.8055,-26.127,16.8448,0.311678,12.4295,-2.34434,12.1456,-11.7053,10.133,4.67864,0.0502158,0.176547,0.03523,0.0406765,-1.96857,0.300403,0.00229338,0.0376006,0.501182,0.017379,0.482251,-0.427009,1.60523,-0.0173308,-0.000184001,10.4516,-16.1214,-24.2277,2.37782,-3.95631,57.6771,-0.0891799,-6.33221,-39.6639,-5.36284,26.7288,0.538937,3.80852,-0.0767973,
0.192173,0.0365665,0.0559485,-1.97837,0.364665,0.00947077,0.0377662,0.205024,0.00571486,0.20054,-0.155644,1.01418,0.151984,0.00249604,-2.68383,-1.66399,-2.66283,5.14723,-36.5001,17.1199,0.281822,11.9663,-2.17406,11.6624,-11.5028,10.133,4.67965,0.0516339,0.176547,0.03523,0.0406765,-1.96857,0.300403,0.00229338,0.0376006,0.501182,0.017379,0.482251,-0.427009,1.60523,-0.0173308,-0.000184001,0,0,0,0,0,0,0,-6.33221,-39.6639,-5.36284,26.7288,0.538937,3.80852,-0.0767973,
0.19355,0.036485,0.0572937,-1.97928,0.369974,0.0117398,0.0378031,0.198457,0.0025367,0.194062,-0.147377,0.944085,0.178313,0.00291832,-4.10491,-1.98635,-4.04896,5.16652,-43.8087,16.456,0.263926,11.5358,-1.96697,11.2131,-11.2721,9.55011,4.67409,0.0521608,0.176547,0.03523,0.0406765,-1.96857,0.300403,0.00229338,0.0376006,0.501182,0.017379,0.482251,-0.427009,1.60523,-0.0173308,-0.000184001,0,0,0,0,0,0,0,-6.33221,-39.6639,-5.36284,26.7288,0.538937,3.80852,-0.0767973,
0.179874,0.035671,0.0439302,-1.9707,0.312192,0.00193909,0.0376097,0.241932,0.0130563,0.236594,-0.17116,1.04998,0.133794,0.00256369,27.1719,6.57475,26.5822,-14.8644,66.1835,-27.8249,-0.221641,12.4295,-2.34434,12.1456,-11.7053,10.133,4.67864,0.0502158,0.176547,0.03523,0.0406765,-1.96857,0.300403,0.00229338,0.0376006,0.501182,0.017379,0.482251,-0.427009,1.60523,-0.0173308,-0.000184001,0,0,0,0,0,0,0,-6.33221,-39.6639,-5.36284,26.7288,0.538937,3.80852,-0.0767973,
0.182678,0.0360572,0.046672,-1.97239,0.323251,0.00208501,0.0376232,0.26366,0.0201001,0.257818,-0.179202,1.11647,0.110683,0.00238678,13.5803,4.40237,13.265,-5.02614,41.559,-14.4442,-0.110572,11.9655,-2.44832,11.6308,-11.4952,9.89557,4.66441,0.0508011,0.192574,0.036336,0.057052,-1.98244,0.356054,0.00746097,0.0376308,0.676513,-0.016235,0.229338,-0.406739,1.59337,0.253505,0.00321113,21.9165,-4.20174,-31.6142,2.53382,-1.48273,33.8544,0.424392,-9.02203,-35.9941,-8.21135,27.7246,0.984799,3.25188,-0.050247,
0.185077,0.0363332,0.0490148,-1.97385,0.333558,0.00278578,0.0376433,0.270884,0.0229797,0.264825,-0.180003,1.15085,0.106065,0.00241298,4.51492,1.79978,4.37932,-0.500785,21.4867,-2.88586,0.0163752,11.535,-2.24123,11.1815,-11.2645,9.31264,4.65885,0.051328,0.192574,0.036336,0.057052,-1.98244,0.356054,0.00746097,0.0376308,0.676513,-0.016235,0.229338,-0.406739,1.59337,0.253505,0.00321113,0,0,0,0,0,0,0,-9.02203,-35.9941,-8.21135,27.7246,0.984799,3.25188,-0.050247,
0.187165,0.0365055,0.0510559,-1.97515,0.342891,0.00396073,0.0376698,0.268928,0.0226914,0.262889,-0.17649,1.15399,0.114226,0.00259281,-1.22263,-0.180188,-1.20974,2.1956,1.96329,5.10042,0.112396,11.138,-2.03576,10.7812,-11.0195,7.92948,4.62997,0.0513374,0.192574,0.036336,0.057052,-1.98244,0.356054,0.00746097,0.0376308,0.676513,-0.016235,0.229338,-0.406739,1.59337,0.253505,0.00321113,0,0,0,0,0,0,0,-9.02203,-35.9941,-8.21135,27.7246,0.984799,3.25188,-0.050247,
0.222295,0.0295739,0.0852677,-2.00093,0.369939,0.111668,0.0394793,0.221365,0.0151031,0.216315,-0.14374,0.934899,0.120685,0.00208879,-29.7267,-4.74269,-29.109,20.4688,-136.934,4.03695,-0.315015,3.41155,-1.19038,3.31096,-0.381881,1.08036,2.08319,-0.00684474,0.192574,0.036336,0.057052,-1.98244,0.356054,0.00746097,0.0376308,0.676513,-0.016235,0.229338,-0.406739,1.59337,0.253505,0.00321113,0,0,0,0,0,0,0,-9.02203,-35.9941,-8.21135,27.7246,0.984799,3.25188,-0.050247,
0.209266,0.0312096,0.0727716,-1.97792,0.442069,0.036143,0.0365976,0.177197,0.00891103,0.172834,-0.111134,0.752766,0.122802,0.00124753,-27.6051,-3.87007,-27.1751,20.3788,-113.833,1.32296,-0.525787,3.10402,-1.40108,2.97944,-0.234196,1.1566,1.76805,-0.00785896,0.205008,0.0378993,0.0741181,-1.99363,0.404714,0.0207251,0.0376514,0.568937,0.0809446,0.25033,-0.283134,1.32938,0.438003,-0.00206689,-13.4471,12.1474,2.624,15.4506,-32.9985,23.0622,-0.659753,-7.1217,-37.0415,-7.2116,24.5349,1.74194,-0.0568331,0.0239107,
0.20927,0.031083,0.0727629,-1.97777,0.442263,0.0371883,0.0365807,0.141862,0.00396444,0.138051,-0.0850644,0.607059,0.124373,0.000575122,-22.0842,-3.09162,-21.7394,16.2935,-91.0669,0.982003,-0.420254,3.01076,-1.38921,2.88999,-0.046222,1.49151,1.49345,-0.00994849,0.205008,0.0378993,0.0741181,-1.99363,0.404714,0.0207251,0.0376514,0.568937,0.0809446,0.25033,-0.283134,1.32938,0.438003,-0.00206689,0,0,0,0,0,0,0,-7.1217,-37.0415,-7.2116,24.5349,1.74194,-0.0568331,0.0239107,
0.209274,0.0309567,0.0727543,-1.97762,0.442457,0.0382287,0.0365638,0.113594,1.42226e-05,0.110226,-0.0642238,0.490493,0.125508,3.77945e-05,-17.6674,-2.46889,-17.3908,13.0253,-72.8537,0.709533,-0.33583,2.92056,-1.37296,2.80371,0.139974,1.87421,1.18572,-0.011883,0.205008,0.0378993,0.0741181,-1.99363,0.404714,0.0207251,0.0376514,0.568937,0.0809446,0.25033,-0.283134,1.32938,0.438003,-0.00206689,0,0,0,0,0,0,0,-7.1217,-37.0415,-7.2116,24.5349,1.74194,-0.0568331,0.0239107,
0.217664,0.029241,0.0850238,-1.98131,0.456434,0.108684,0.0358328,0.0909818,-0.00268298,0.0879638,-0.0482549,0.397757,0.120307,-0.000361656,-14.1328,-1.68575,-13.9139,9.98059,-57.96,-3.25112,-0.249656,2.92056,-1.37296,2.80371,0.139974,1.87421,1.18572,-0.011883,0.205008,0.0378993,0.0741181,-1.99363,0.404714,0.0207251,0.0376514,0.568937,0.0809446,0.25033,-0.283134,1.32938,0.438003,-0.00206689,0,0,0,0,0,0,0,-7.1217,-37.0415,-7.2116,24.5349,1.74194,-0.0568331,0.0239107,
0.217664,0.029241,0.0850238,-1.98131,0.456434,0.108684,0.0358328,0.0728918,-0.00484074,0.070154,-0.0354797,0.323568,0.116145,-0.000681216,-11.3063,-1.3486,-11.1311,7.98447,-46.368,-2.6009,-0.199725,2.73511,-1.50458,2.5914,0.0457707,1.68873,1.07919,-0.0075574,0.218012,0.0393075,0.0875273,-2.00197,0.444289,0.0365148,0.0376742,0.0785852,0.0827176,0.69184,-0.106548,0.617138,0.346363,-0.000859535,-61.2939,0.221629,55.1887,22.0732,-89.0303,-11.455,0.15092,-5.80059,-42.1831,-5.9619,33.8263,0.312802,0.745169,-0.0767973,
0.217664,0.029241,0.0850238,-1.98131,0.456434,0.108684,0.0358328,0.0584198,-0.00656695,0.0559063,-0.0252596,0.264217,0.112816,-0.000936864,-9.04502,-1.07888,-8.90487,6.38758,-37.0944,-2.08072,-0.15978,2.73511,-1.50458,2.5914,0.0457707,1.68873,1.07919,-0.0075574,0.218012,0.0393075,0.0875273,-2.00197,0.444289,0.0365148,0.0376742,0.0785852,0.0827176,0.69184,-0.106548,0.617138,0.346363,-0.000859535,0,0,0,0,0,0,0,-5.80059,-42.1831,-5.9619,33.8263,0.312802,0.745169,-0.0767973,
0.217664,0.029241,0.0850238,-1.98131,0.456434,0.108684,0.0358328,0.0468421,-0.00794791,0.044508,-0.0170835,0.216736,0.110153,-0.00114138,-7.23601,-0.863104,-7.12389,5.11006,-29.6755,-1.66457,-0.127824,2.73511,-1.50458,2.5914,0.0457707,1.68873,1.07919,-0.0075574,0.218012,0.0393075,0.0875273,-2.00197,0.444289,0.0365148,0.0376742,0.0785852,0.0827176,0.69184,-0.106548,0.617138,0.346363,-0.000859535,0,0,0,0,0,0,0,-5.80059,-42.1831,-5.9619,33.8263,0.312802,0.745169,-0.0767973,
0.228816,0.0295629,0.0965376,-1.98923,0.479905,0.125142,0.0358716,0.0375783,-0.00907843,0.0353608,-0.0106337,0.177863,0.107831,-0.00130166,-5.78988,-0.706573,-5.71703,4.03113,-24.2958,-1.45083,-0.100173,2.73511,-1.50458,2.5914,0.0457707,1.68873,1.07919,-0.0075574,0.218012,0.0393075,0.0875273,-2.00197,0.444289,0.0365148,0.0376742,0.0785852,0.0827176,0.69184,-0.106548,0.617138,0.346363,-0.000859535,0,0,0,0,0,0,0,-5.80059,-42.1831,-5.9619,33.8263,0.312802,0.745169,-0.0767973,
0.228816,0.0295629,0.0965376,-1.98923,0.479905,0.125142,0.0358716,0.0301673,-0.00998284,0.028043,-0.00547385,0.146764,0.105974,-0.00142988,-4.63191,-0.565258,-4.57362,3.22491,-19.4366,-1.16066,-0.0801387,2.76104,-1.68908,2.60492,-0.181685,1.60449,0.920827,-0.00592704,0.231623,0.0399173,0.0939924,-2.00399,0.462955,0.0462037,0.0376653,0.277692,-0.0319284,0.210642,-0.0478714,0.37304,0.326912,-0.000885508,24.8883,-14.3308,-60.1497,7.3346,-30.5123,-2.43134,-0.00324665,-11.2556,-36.8431,-9.71099,26.2805,0.862118,1.13701,-0.083206,
0.228816,0.0295629,0.0965376,-1.98923,0.479905,0.125142,0.0358716,0.0242384,-0.0107064,0.0221888,-0.00134597,0.121885,0.104489,-0.00153246,-3.70552,-0.452206,-3.6589,2.57993,-15.5493,-0.928529,-0.0641109,2.76104,-1.68908,2.60492,-0.181685,1.60449,0.920827,-0.00592704,0.231623,0.0399173,0.0939924,-2.00399,0.462955,0.0462037,0.0376653,0.277692,-0.0319284,0.210642,-0.0478714,0.37304,0.326912,-0.000885508,0,0,0,0,0,0,0,-11.2556,-36.8431,-9.71099,26.2805,0.862118,1.13701,-0.083206,
0.228816,0.0295629,0.0965376,-1.98923,0.479905,0.125142,0.0358716,0.0194954,-0.0112852,0.0175054,0.00195634,0.101982,0.1033,-0.00161452,-2.96442,-0.361765,-2.92712,2.06394,-12.4395,-0.742823,-0.0512887,2.76104,-1.68908,2.60492,-0.181685,1.60449,0.920827,-0.00592704,0.231623,0.0399173,0.0939924,-2.00399,0.462955,0.0462037,0.0376653,0.277692,-0.0319284,0.210642,-0.0478714,0.37304,0.326912,-0.000885508,0,0,0,0,0,0,0,-11.2556,-36.8431,-9.71099,26.2805,0.862118,1.13701,-0.083206,
0.238663,0.0278103,0.0993072,-1.99032,0.490239,0.135654,0.0359485,0.0157006,-0.0117583,0.0137723,0.00445823,0.0856802,0.101554,-0.00167519,-2.37171,-0.295694,-2.33315,1.56368,-10.1886,-1.09153,-0.037919,2.76104,-1.68908,2.60492,-0.181685,1.60449,0.920827,-0.00592704,0.231623,0.0399173,0.0939924,-2.00399,0.462955,0.0462037,0.0376653,0.277692,-0.0319284,0.210642,-0.0478714,0.37304,0.326912,-0.000885508,0,0,0,0,0,0,0,-11.2556,-36.8431,-9.71099,26.2805,0.862118,1.13701,-0.083206,
0.238663,0.0278103,0.0993072,-1.99032,0.490239,0.135654,0.0359485,0.0126648,-0.0121368,0.0107859,0.00645974,0.0726388,0.100157,-0.00172373,-1.89737,-0.236556,-1.86652,1.25094,-8.15088,-0.873224,-0.0303352,2.73435,-1.73743,2.56732,-0.305972,1.57607,0.838113,-0.00526555,0.237561,0.0402218,0.102756,-2.00428,0.473503,0.0566076,0.0376592,0.476756,0.0308884,-0.147742,0.0432066,0.274351,0.214808,-0.00135778,24.8831,7.85211,-44.7979,11.3848,-12.3361,-14.0131,-0.0590344,-11.9658,-34.9468,-11.9366,23.2654,0.960079,1.72021,-0.0429228,
0.238663,0.0278103,0.0993072,-1.99032,0.490239,0.135654,0.0359485,0.0102362,-0.0124396,0.00839673,0.00806095,0.0622056,0.0990388,-0.00176256,-1.5179,-0.189244,-1.49322,1.00076,-6.5207,-0.698579,-0.0242681,2.73435,-1.73743,2.56732,-0.305972,1.57607,0.838113,-0.00526555,0.237561,0.0402218,0.102756,-2.00428,0.473503,0.0566076,0.0376592,0.476756,0.0308884,-0.147742,0.0432066,0.274351,0.214808,-0.00135778,0,0,0,0,0,0,0,-11.9658,-34.9468,-11.9366,23.2654,0.960079,1.72021,-0.0429228,
0.242564,0.0289968,0.105924,-1.99088,0.496637,0.144863,0.035992,0.00829328,-0.012607,0.00645979,0.00926265,0.0537289,0.09763,-0.00179044,-1.21432,-0.104631,-1.21059,0.751067,-5.29795,-0.880549,-0.0174267,2.73435,-1.73743,2.56732,-0.305972,1.57607,0.838113,-0.00526555,0.237561,0.0402218,0.102756,-2.00428,0.473503,0.0566076,0.0376592,0.476756,0.0308884,-0.147742,0.0432066,0.274351,0.214808,-0.00135778,0,0,0,0,0,0,0,-11.9658,-34.9468,-11.9366,23.2654,0.960079,1.72021,-0.0429228,
0.242564,0.0289968,0.105924,-1.99088,0.496637,0.144863,0.035992,0.00673896,-0.0127409,0.00491024,0.010224,0.0469476,0.0965029,-0.00181275,-0.971453,-0.0837045,-0.968468,0.600854,-4.23836,-0.704439,-0.0139413,2.73435,-1.73743,2.56732,-0.305972,1.57607,0.838113,-0.00526555,0.237561,0.0402218,0.102756,-2.00428,0.473503,0.0566076,0.0376592,0.476756,0.0308884,-0.147742,0.0432066,0.274351,0.214808,-0.00135778,0,0,0,0,0,0,0,-11.9658,-34.9468,-11.9366,23.2654,0.960079,1.72021,-0.0429228,
0.242564,0.0289968,0.105924,-1.99088,0.496637,0.144863,0.035992,0.0054955,-0.0128481,0.0036706,0.0109931,0.0415225,0.0956012,-0.00183059,-0.777162,-0.0669636,-0.774775,0.480683,-3.39069,-0.563551,-0.0111531,2.77549,-1.79805,2.60763,-0.395147,1.56365,0.777053,-0.00483529,0.239991,0.0393584,0.107169,-2.00461,0.481004,0.0633612,0.0376604,-0.0763846,-0.0723824,0.224838,-0.0140257,0.152416,0.170814,-0.000742615,-69.1426,-12.9089,46.5724,-7.15404,-15.2419,-5.49921,0.076896,-6.35998,-32.6735,-6.3626,25.9076,1.8518,2.28417,-0.0969389,
0.242564,0.0289968,0.105924,-1.99088,0.496637,0.144863,0.035992,0.00450073,-0.0129338,0.00267889,0.0116084,0.0371824,0.0948798,-0.00184487,-0.62173,-0.0535709,-0.61982,0.384546,-2.71255,-0.450841,-0.00892245,2.77549,-1.79805,2.60763,-0.395147,1.56365,0.777053,-0.00483529,0.239991,0.0393584,0.107169,-2.00461,0.481004,0.0633612,0.0376604,-0.0763846,-0.0723824,0.224838,-0.0140257,0.152416,0.170814,-0.000742615,0,0,0,0,0,0,0,-6.35998,-32.6735,-6.3626,25.9076,1.8518,2.28417,-0.0969389,
0.242475,0.0266294,0.108049,-1.99126,0.499742,0.149817,0.0360546,0.00370491,-0.013094,0.00191017,0.0120129,0.0336134,0.0937276,-0.00185312,-0.497389,-0.100126,-0.48045,0.252814,-2.2306,-0.720162,-0.00515916,2.77549,-1.79805,2.60763,-0.395147,1.56365,0.777053,-0.00483529,0.239991,0.0393584,0.107169,-2.00461,0.481004,0.0633612,0.0376604,-0.0763846,-0.0723824,0.224838,-0.0140257,0.152416,0.170814,-0.000742615,0,0,0,0,0,0,0,-6.35998,-32.6735,-6.3626,25.9076,1.8518,2.28417,-0.0969389,
0.242475,0.0266294,0.108049,-1.99126,0.499742,0.149817,0.0360546,0.00306825,-0.0132221,0.0012952,0.0123365,0.0307583,0.0928058,-0.00185973,-0.397911,-0.0801011,-0.38436,0.202251,-1.78448,-0.576129,-0.00412733,2.77549,-1.79805,2.60763,-0.395147,1.56365,0.777053,-0.00483529,0.239991,0.0393584,0.107169,-2.00461,0.481004,0.0633612,0.0376604,-0.0763846,-0.0723824,0.224838,-0.0140257,0.152416,0.170814,-0.000742615,0,0,0,0,0,0,0,-6.35998,-32.6735,-6.3626,25.9076,1.8518,2.28417,-0.0969389,
0.242475,0.0266294,0.108049,-1.99126,0.499742,0.149817,0.0360546,0.00255893,-0.0133247,0.000803217,0.0125954,0.0284741,0.0920683,-0.00186501,-0.318329,-0.0640809,-0.307488,0.161801,-1.42758,-0.460903,-0.00330186,2.77549,-1.79805,2.60763,-0.395147,1.56365,0.777053,-0.00483529,0.239991,0.0393584,0.107169,-2.00461,0.481004,0.0633612,0.0376604,-0.0763846,-0.0723824,0.224838,-0.0140257,0.152416,0.170814,-0.000742615,0,0,0,0,0,0,0,-6.35998,-32.6735,-6.3626,25.9076,1.8518,2.28417,-0.0969389,
0.242475,0.0266294,0.108049,-1.99126,0.499742,0.149817,0.0360546,0.00215146,-0.0134067,0.000409633,0.0128025,0.0266468,0.0914784,-0.00186923,-0.254663,-0.0512647,-0.24599,0.129441,-1.14207,-0.368723,-0.00264149,2.78692,-1.78382,2.62326,-0.465237,1.55385,0.734944,-0.00457352,0.242996,0.0383892,0.107912,-2.00456,0.485162,0.0704929,0.0376604,-0.0885755,0.00867853,0.166111,0.0211713,0.0831651,0.22936,0.000182741,-1.52387,10.1326,-7.34083,4.39963,-8.65639,7.31823,0.11567,-0.730404,-33.6971,-0.836168,26.0544,2.56591,1.62041,-0.0969389,
0.244319,0.0273741,0.107622,-1.99178,0.501737,0.156901,0.0360819,0.00182594,-0.0133652,8.69233e-05,0.0129137,0.0252725,0.0905336,-0.00187014,-0.203451,0.0259321,-0.201693,0.0695354,-0.858982,-0.590506,-0.000567231,2.78692,-1.78382,2.62326,-0.465237,1.55385,0.734944,-0.00457352,0.242996,0.0383892,0.107912,-2.00456,0.485162,0.0704929,0.0376604,-0.0885755,0.00867853,0.166111,0.0211713,0.0831651,0.22936,0.000182741,0,0,0,0,0,0,0,-0.730404,-33.6971,-0.836168,26.0544,2.56591,1.62041,-0.0969389,
0.244319,0.0273741,0.107622,-1.99178,0.501737,0.156901,0.0360819,0.00156553,-0.013332,-0.000171244,0.0130027,0.024173,0.0897777,-0.00187087,-0.162761,0.0207457,-0.161355,0.0556283,-0.687185,-0.472405,-0.000453785,2.78692,-1.78382,2.62326,-0.465237,1.55385,0.734944,-0.00457352,0.242996,0.0383892,0.107912,-2.00456,0.485162,0.0704929,0.0376604,-0.0885755,0.00867853,0.166111,0.0211713,0.0831651,0.22936,0.000182741,0,0,0,0,0,0,0,-0.730404,-33.6971,-0.836168,26.0544,2.56591,1.62041,-0.0969389,
0.244319,0.0273741,0.107622,-1.99178,0.501737,0.156901,0.0360819,0.00135719,-0.0133055,-0.000377778,0.0130739,0.0232934,0.089173,-0.00187145,-0.130209,0.0165966,-0.129084,0.0445027,-0.549748,-0.377924,-0.000363028,2.78692,-1.78382,2.62326,-0.465237,1.55385,0.734944,-0.00457352,0.242996,0.0383892,0.107912,-2.00456,0.485162,0.0704929,0.0376604,-0.0885755,0.00867853,0.166111,0.0211713,0.0831651,0.22936,0.000182741,0,0,0,0,0,0,0,-0.730404,-33.6971,-0.836168,26.0544,2.56591,1.62041,-0.0969389,
0.245179,0.0260467,0.108319,-1.9917,0.504087,0.16426,0.036102,0.00119093,-0.0132789,-0.000527708,0.0130311,0.0226121,0.0879378,-0.00186797,-0.103912,0.0165888,-0.0937063,-0.0268062,-0.425789,-0.772033,0.00217709,2.79066,-1.74554,2.63012,-0.530752,1.55336,0.689864,-0.00429093,0.244055,0.0376724,0.10877,-2.0044,0.487795,0.0799284,0.0376604,0.0303893,-0.0366276,0.0355322,0.00169127,0.0572564,0.307057,0.000427924,14.8706,-5.66326,-16.3224,-2.435,-3.23858,9.71218,0.0306478,1.37622,-34.6968,1.08797,23.4915,3.22601,0.155569,-0.0969389,
0.245179,0.0260467,0.108319,-1.9917,0.504087,0.16426,0.036102,0.00105793,-0.0132577,-0.000647652,0.0129967,0.0220671,0.0869496,-0.00186518,-0.0831295,0.013271,-0.0749651,-0.021445,-0.340631,-0.617627,0.00174167,2.79066,-1.74554,2.63012,-0.530752,1.55336,0.689864,-0.00429093,0.244055,0.0376724,0.10877,-2.0044,0.487795,0.0799284,0.0376604,0.0303893,-0.0366276,0.0355322,0.00169127,0.0572564,0.307057,0.000427924,0,0,0,0,0,0,0,1.37622,-34.6968,1.08797,23.4915,3.22601,0.155569,-0.0969389,
0.245179,0.0260467,0.108319,-1.9917,0.504087,0.16426,0.036102,0.00095152,-0.0132407,-0.000743608,0.0129693,0.0216311,0.086159,-0.00186295,-0.0665036,0.0106168,-0.0599721,-0.017156,-0.272505,-0.494101,0.00139334,2.79066,-1.74554,2.63012,-0.530752,1.55336,0.689864,-0.00429093,0.244055,0.0376724,0.10877,-2.0044,0.487795,0.0799284,0.0376604,0.0303893,-0.0366276,0.0355322,0.00169127,0.0572564,0.307057,0.000427924,0,0,0,0,0,0,0,1.37622,-34.6968,1.08797,23.4915,3.22601,0.155569,-0.0969389,
0.245179,0.0260467,0.108319,-1.9917,0.504087,0.16426,0.036102,0.000866396,-0.0132271,-0.000820372,0.0129473,0.0212823,0.0855266,-0.00186117,-0.0532029,0.00849346,-0.0479776,-0.0137248,-0.218004,-0.395281,0.00111467,2.79066,-1.74554,2.63012,-0.530752,1.55336,0.689864,-0.00429093,0.244055,0.0376724,0.10877,-2.0044,0.487795,0.0799284,0.0376604,0.0303893,-0.0366276,0.0355322,0.00169127,0.0572564,0.307057,0.000427924,0,0,0,0,0,0,0,1.37622,-34.6968,1.08797,23.4915,3.22601,0.155569,-0.0969389,
0.245179,0.0260467,0.108319,-1.9917,0.504087,0.16426,0.036102,0.000798296,-0.0132162,-0.000881783,0.0129298,0.0210032,0.0850206,-0.00185974,-0.0425623,0.00679477,-0.0383821,-0.0109798,-0.174403,-0.316225,0.000891736,2.79268,-1.69987,2.63505,-0.595393,1.56187,0.635724,-0.00403013,0.24549,0.0371748,0.109001,-2.00435,0.489319,0.0913871,0.0376582,0.0507357,-0.00499472,-0.00149484,0.014293,0.0521341,0.328498,-8.49624e-05,2.5433,3.95411,-4.62838,1.57522,-0.640285,2.68015,-0.0641108,-0.147213,-34.1216,0.413527,25.257,3.48236,0.46044,-0.0767973,
0.245179,0.0260467,0.108319,-1.9917,0.504087,0.16426,0.036102,0.000743817,-0.0132075,-0.000930912,0.0129157,0.02078,0.0846158,-0.0018586,-0.0340498,0.00543582,-0.0307057,-0.00878385,-0.139522,-0.25298,0.000713389,2.79268,-1.69987,2.63505,-0.595393,1.56187,0.635724,-0.00403013,0.24549,0.0371748,0.109001,-2.00435,0.489319,0.0913871,0.0376582,0.0507357,-0.00499472,-0.00149484,0.014293,0.0521341,0.328498,-8.49624e-05,0,0,0,0,0,0,0,-0.147213,-34.1216,0.413527,25.257,3.48236,0.46044,-0.0767973,
0.245179,0.0260467,0.108319,-1.9917,0.504087,0.16426,0.036102,0.000700233,-0.0132006,-0.000970216,0.0129045,0.0206014,0.084292,-0.00185768,-0.0272399,0.00434865,-0.0245646,-0.00702708,-0.111618,-0.202384,0.000570711,2.79268,-1.69987,2.63505,-0.595393,1.56187,0.635724,-0.00403013,0.24549,0.0371748,0.109001,-2.00435,0.489319,0.0913871,0.0376582,0.0507357,-0.00499472,-0.00149484,0.014293,0.0521341,0.328498,-8.49624e-05,0,0,0,0,0,0,0,-0.147213,-34.1216,0.413527,25.257,3.48236,0.46044,-0.0767973,
0.245179,0.0260467,0.108319,-1.9917,0.504087,0.16426,0.036102,0.000665366,-0.013195,-0.00100166,0.0128955,0.0204585,0.084033,-0.00185695,-0.0217919,0.00347892,-0.0196516,-0.00562167,-0.0892943,-0.161907,0.000456569,2.79268,-1.69987,2.63505,-0.595393,1.56187,0.635724,-0.00403013,0.24549,0.0371748,0.109001,-2.00435,0.489319,0.0913871,0.0376582,0.0507357,-0.00499472,-0.00149484,0.014293,0.0521341,0.328498,-8.49624e-05,0,0,0,0,0,0,0,-0.147213,-34.1216,0.413527,25.257,3.48236,0.46044,-0.0767973,
0.246334,0.0264584,0.108261,-1.99215,0.5058,0.173103,0.03612,0.000638122,-0.013086,-0.00103088,0.012811,0.0204903,0.0831477,-0.0018529,-0.0170275,0.0681273,-0.0182611,-0.0527725,0.0198191,-0.553266,0.00253553,2.79219,-1.66315,2.63607,-0.652026,1.56907,0.584467,-0.00380494,0.24587,0.0367547,0.110094,-2.00418,0.491019,0.10255,0.0376627,0.0146787,-0.024052,0.0348398,0.00562835,0.0714447,0.287912,0.00129682,-4.50712,-2.38216,4.54183,-1.08308,2.41382,-5.07325,0.172723,1.24927,-34.5223,1.26253,24.162,3.16467,0.141836,-0.117081,
0.246334,0.0264584,0.108261,-1.99215,0.5058,0.173103,0.03612,0.000616327,-0.0129988,-0.00105425,0.0127435,0.0205156,0.0824396,-0.00184965,-0.013622,0.0545019,-0.0146089,-0.042218,0.0158553,-0.442613,0.00202842,2.79219,-1.66315,2.63607,-0.652026,1.56907,0.584467,-0.00380494,0.24587,0.0367547,0.110094,-2.00418,0.491019,0.10255,0.0376627,0.0146787,-0.024052,0.0348398,0.00562835,0.0714447,0.287912,0.00129682,0,0,0,0,0,0,0,1.24927,-34.5223,1.26253,24.162,3.16467,0.141836,-0.117081,
0.246334,0.0264584,0.108261,-1.99215,0.5058,0.173103,0.03612,0.000598891,-0.012929,-0.00107295,0.0126894,0.0205359,0.081873,-0.00184706,-0.0108976,0.0436015,-0.0116871,-0.0337744,0.0126842,-0.35409,0.00162274,2.79219,-1.66315,2.63607,-0.652026,1.56907,0.584467,-0.00380494,0.24587,0.0367547,0.110094,-2.00418,0.491019,0.10255,0.0376627,0.0146787,-0.024052,0.0348398,0.00562835,0.0714447,0.287912,0.00129682,0,0,0,0,0,0,0,1.24927,-34.5223,1.26253,24.162,3.16467,0.141836,-0.117081,
0.246797,0.0259196,0.109466,-1.99231,0.508182,0.180374,0.0361424,0.000585364,-0.0128404,-0.00108283,0.0125636,0.0205982,0.0807837,-0.00184159,-0.00845414,0.0553868,-0.00617447,-0.0786738,0.0388967,-0.680805,0.00341853,2.79219,-1.66315,2.63607,-0.652026,1.56907,0.584467,-0.00380494,0.24587,0.0367547,0.110094,-2.00418,0.491019,0.10255,0.0376627,0.0146787,-0.024052,0.0348398,0.00562835,0.0714447,0.287912,0.00129682,0,0,0,0,0,0,0,1.24927,-34.5223,1.26253,24.162,3.16467,0.141836,-0.117081,
0.246797,0.0259196,0.109466,-1.99231,0.508182,0.180374,0.0361424,0.000574543,-0.0127695,-0.00109073,0.0124629,0.0206479,0.0799123,-0.00183721,-0.00676331,0.0443094,-0.00493958,-0.062939,0.0311174,-0.544644,0.00273482,2.7926,-1.63474,2.63977,-0.704479,1.57318,0.540423,-0.00359652,0.246701,0.0361359,0.110572,-2.00414,0.493294,0.112025,0.0376585,0.0304597,-0.012183,0.014882,0.00576494,0.0753106,0.275691,-0.00048389,1.97262,1.48362,-2.49473,0.0170737,0.483249,-1.52769,-0.222589,0.511356,-34.2485,0.86183,25.1855,2.72522,0.891653,-0.083206,
0.246797,0.0259196,0.109466,-1.99231,0.508182,0.180374,0.0361424,0.000565886,-0.0127128,-0.00109705,0.0123823,0.0206878,0.0792152,-0.00183371,-0.00541065,0.0354476,-0.00395166,-0.0503512,0.0248939,-0.435715,0.00218786,2.7926,-1.63474,2.63977,-0.704479,1.57318,0.540423,-0.00359652,0.246701,0.0361359,0.110572,-2.00414,0.493294,0.112025,0.0376585,0.0304597,-0.012183,0.014882,0.00576494,0.0753106,0.275691,-0.00048389,0,0,0,0,0,0,0,0.511356,-34.2485,0.86183,25.1855,2.72522,0.891653,-0.083206,
0.246797,0.0259196,0.109466,-1.99231,0.508182,0.180374,0.0361424,0.00055896,-0.0126674,-0.00110211,0.0123179,0.0207196,0.0786574,-0.00183091,-0.00432852,0.028358,-0.00316133,-0.040281,0.0199151,-0.348572,0.00175029,2.7926,-1.63474,2.63977,-0.704479,1.57318,0.540423,-0.00359652,0.246701,0.0361359,0.110572,-2.00414,0.493294,0.112025,0.0376585,0.0304597,-0.012183,0.014882,0.00576494,0.0753106,0.275691,-0.00048389,0,0,0,0,0,0,0,0.511356,-34.2485,0.86183,25.1855,2.72522,0.891653,-0.083206,
0.247588,0.0257558,0.109912,-1.99271,0.510574,0.18706,0.0361536,0.000553816,-0.0125804,-0.00110448,0.012199,0.0207931,0.0776899,-0.00182584,-0.00321475,0.0544245,-0.00148069,-0.0742997,0.0459056,-0.604708,0.00316573,2.7926,-1.63474,2.63977,-0.704479,1.57318,0.540423,-0.00359652,0.246701,0.0361359,0.110572,-2.00414,0.493294,0.112025,0.0376585,0.0304597,-0.012183,0.014882,0.00576494,0.0753106,0.275691,-0.00048389,0,0,0,0,0,0,0,0.511356,-34.2485,0.86183,25.1855,2.72522,0.891653,-0.083206,
0.247588,0.0257558,0.109912,-1.99271,0.510574,0.18706,0.0361536,0.000549701,-0.0125107,-0.00110638,0.0121039,0.0208518,0.0769159,-0.00182179,-0.0025718,0.0435396,-0.00118455,-0.0594397,0.0367245,-0.483766,0.00253258,2.79013,-1.6064,2.6383,-0.7487,1.57487,0.502582,-0.00341437,0.247425,0.0358303,0.111373,-2.00408,0.496081,0.12072,0.037663,0.0168388,-0.00809363,0.0335602,0.00358925,0.0787283,0.233223,0.00653426,-1.7026,0.511173,2.33478,-0.271962,0.427212,-5.30848,0.877269,0.816837,-34.6968,1.01259,24.6381,2.38922,0.771719,-0.117081,
0.247588,0.0257558,0.109912,-1.99271,0.510574,0.18706,0.0361536,0.00054641,-0.012455,-0.00110789,0.0120278,0.0208989,0.0762967,-0.00181855,-0.00205744,0.0348317,-0.00094764,-0.0475518,0.0293796,-0.387013,0.00202607,2.79013,-1.6064,2.6383,-0.7487,1.57487,0.502582,-0.00341437,0.247425,0.0358303,0.111373,-2.00408,0.496081,0.12072,0.037663,0.0168388,-0.00809363,0.0335602,0.00358925,0.0787283,0.233223,0.00653426,0,0,0,0,0,0,0,0.816837,-34.6968,1.01259,24.6381,2.38922,0.771719,-0.117081,
0.247588,0.0257558,0.109912,-1.99271,0.510574,0.18706,0.0361536,0.000543776,-0.0124104,-0.00110911,0.0119669,0.0209365,0.0758013,-0.00181596,-0.00164595,0.0278653,-0.000758112,-0.0380414,0.0235037,-0.30961,0.00162085,2.79013,-1.6064,2.6383,-0.7487,1.57487,0.502582,-0.00341437,0.247425,0.0358303,0.111373,-2.00408,0.496081,0.12072,0.037663,0.0168388,-0.00809363,0.0335602,0.00358925,0.0787283,0.233223,0.00653426,0,0,0,0,0,0,0,0.816837,-34.6968,1.01259,24.6381,2.38922,0.771719,-0.117081,
0.248432,0.0257639,0.110832,-1.99307,0.513441,0.192801,0.0361718,0.00054194,-0.0123292,-0.00111145,0.011861,0.0209682,0.0749968,-0.00181155,-0.00114755,0.0507539,-0.00146525,-0.0662044,0.0198271,-0.502824,0.00275201,2.79013,-1.6064,2.6383,-0.7487,1.57487,0.502582,-0.00341437,0.247425,0.0358303,0.111373,-2.00408,0.496081,0.12072,0.037663,0.0168388,-0.00809363,0.0335602,0.00358925,0.0787283,0.233223,0.00653426,0,0,0,0,0,0,0,0.816837,-34.6968,1.01259,24.6381,2.38922,0.771719,-0.117081,
0.248432,0.0257639,0.110832,-1.99307,0.513441,0.192801,0.0361718,0.000540471,-0.0122642,-0.00111333,0.0117763,0.0209936,0.0743532,-0.00180803,-0.000918043,0.0406032,-0.0011722,-0.0529635,0.0158617,-0.402259,0.00220161,2.79013,-1.6064,2.6383,-0.7487,1.57487,0.502582,-0.00341437,0.247425,0.0358303,0.111373,-2.00408,0.496081,0.12072,0.037663,0.0168388,-0.00809363,0.0335602,0.00358925,0.0787283,0.233223,0.00653426,0,0,0,0,0,0,0,0.816837,-34.6968,1.01259,24.6381,2.38922,0.771719,-0.117081,
0.248432,0.0257639,0.110832,-1.99307,0.513441,0.192801,0.0361718,0.000539296,-0.0122122,-0.00111483,0.0117085,0.0210139,0.0738383,-0.00180521,-0.000734435,0.0324825,-0.000937762,-0.0423708,0.0126894,-0.321807,0.00176129,2.79001,-1.58186,2.64058,-0.795045,1.57503,0.467527,-0.00322497,0.248479,0.0352874,0.112146,-2.00413,0.4989,0.128711,0.0376532,0.0438445,-0.0137013,0.0106472,0.00167643,0.0765594,0.23237,-0.000930007,3.37571,-0.700964,-2.86413,-0.239102,-0.271118,-0.10659,-0.933034,0.309024,-34.3953,0.588087,25.257,2.43225,1.00426,-0.0703886,
0.248432,0.0257639,0.110832,-1.99307,0.513441,0.192801,0.0361718,0.000538356,-0.0121707,-0.00111603,0.0116542,0.0210301,0.0734263,-0.00180296,-0.000587548,0.025986,-0.000750209,-0.0338967,0.0101515,-0.257446,0.00140903,2.79001,-1.58186,2.64058,-0.795045,1.57503,0.467527,-0.00322497,0.248479,0.0352874,0.112146,-2.00413,0.4989,0.128711,0.0376532,0.0438445,-0.0137013,0.0106472,0.00167643,0.0765594,0.23237,-0.000930007,0,0,0,0,0,0,0,0.309024,-34.3953,0.588087,25.257,2.43225,1.00426,-0.0703886,
0.249548,0.025242,0.111683,-1.99339,0.516302,0.198505,0.0361708,0.000537875,-0.0121169,-0.00111173,0.0115453,0.0210368,0.072638,-0.00179855,-0.000300635,0.03363,0.00268372,-0.0680905,0.00418266,-0.492711,0.00275279,2.79001,-1.58186,2.64058,-0.795045,1.57503,0.467527,-0.00322497,0.248479,0.0352874,0.112146,-2.00413,0.4989,0.128711,0.0376532,0.0438445,-0.0137013,0.0106472,0.00167643,0.0765594,0.23237,-0.000930007,0,0,0,0,0,0,0,0.309024,-34.3953,0.588087,25.257,2.43225,1.00426,-0.0703886,
0.249548,0.025242,0.111683,-1.99339,0.516302,0.198505,0.0361708,0.00053749,-0.0120738,-0.0011083,0.0114581,0.0210422,0.0720073,-0.00179503,-0.000240508,0.026904,0.00214697,-0.0544724,0.00334613,-0.394169,0.00220223,2.79001,-1.58186,2.64058,-0.795045,1.57503,0.467527,-0.00322497,0.248479,0.0352874,0.112146,-2.00413,0.4989,0.128711,0.0376532,0.0438445,-0.0137013,0.0106472,0.00167643,0.0765594,0.23237,-0.000930007,0,0,0,0,0,0,0,0.309024,-34.3953,0.588087,25.257,2.43225,1.00426,-0.0703886,
0.249548,0.025242,0.111683,-1.99339,0.516302,0.198505,0.0361708,0.000537182,-0.0120394,-0.00110555,0.0113884,0.0210464,0.0715028,-0.00179221,-0.000192406,0.0215232,0.00171758,-0.0435779,0.0026769,-0.315335,0.00176178,2.78908,-1.554,2.64116,-0.840554,1.577,0.431451,-0.00303462,0.249631,0.0349057,0.11294,-2.0041,0.501402,0.136886,0.0376559,0.0316628,-0.0109343,0.0223165,0.00234644,0.0693014,0.224587,-0.00085401,-1.52272,0.345882,1.45867,0.0837511,-0.907253,-0.97287,0.00949974,0.106693,-34.7722,0.488905,24.9118,2.62725,0.652701,-0.0566557,
0.250685,0.0250997,0.112469,-1.99368,0.518804,0.204364,0.0361856,0.000537275,-0.0119707,-0.0011025,0.011272,0.0210766,0.070653,-0.00178746,5.82192e-05,0.0429259,0.00190895,-0.0727613,0.0188455,-0.531152,0.00296665,2.78908,-1.554,2.64116,-0.840554,1.577,0.431451,-0.00303462,0.249631,0.0349057,0.11294,-2.0041,0.501402,0.136886,0.0376559,0.0316628,-0.0109343,0.0223165,0.00234644,0.0693014,0.224587,-0.00085401,0,0,0,0,0,0,0,0.106693,-34.7722,0.488905,24.9118,2.62725,0.652701,-0.0566557,
0.250685,0.0250997,0.112469,-1.99368,0.518804,0.204364,0.0361856,0.00053735,-0.0119157,-0.00110005,0.0111789,0.0211007,0.0699731,-0.00178367,4.65754e-05,0.0343407,0.00152716,-0.058209,0.0150764,-0.424921,0.00237332,2.78908,-1.554,2.64116,-0.840554,1.577,0.431451,-0.00303462,0.249631,0.0349057,0.11294,-2.0041,0.501402,0.136886,0.0376559,0.0316628,-0.0109343,0.0223165,0.00234644,0.0693014,0.224587,-0.00085401,0,0,0,0,0,0,0,0.106693,-34.7722,0.488905,24.9118,2.62725,0.652701,-0.0566557,
0.250685,0.0250997,0.112469,-1.99368,0.518804,0.204364,0.0361856,0.00053741,-0.0118718,-0.0010981,0.0111043,0.02112,0.0694292,-0.00178063,3.72603e-05,0.0274726,0.00122173,-0.0465672,0.0120611,-0.339937,0.00189866,2.78908,-1.554,2.64116,-0.840554,1.577,0.431451,-0.00303462,0.249631,0.0349057,0.11294,-2.0041,0.501402,0.136886,0.0376559,0.0316628,-0.0109343,0.0223165,0.00234644,0.0693014,0.224587,-0.00085401,0,0,0,0,0,0,0,0.106693,-34.7722,0.488905,24.9118,2.62725,0.652701,-0.0566557,
0.250685,0.0250997,0.112469,-1.99368,0.518804,0.204364,0.0361856,0.000537457,-0.0118366,-0.00109653,0.0110447,0.0211354,0.0689941,-0.0017782,2.98082e-05,0.021978,0.000977384,-0.0372538,0.00964888,-0.27195,0.00151892,2.789,-1.53142,2.64249,-0.882283,1.57963,0.398176,-0.00285949,0.250445,0.0345183,0.113912,-2.00413,0.503577,0.144404,0.0376587,0.0175075,-0.0106778,0.0323019,-0.000432449,0.0626111,0.220902,0.000476399,-1.7694,0.0320567,1.24816,-0.347361,-0.836282,-0.460644,0.166301,0.765262,-34.5699,0.913405,25.3839,2.85339,0.904471,-0.083206,
0.251433,0.0248972,0.113386,-1.99402,0.520963,0.209789,0.0362011,0.000537818,-0.0117776,-0.00109384,0.0109413,0.0211836,0.0682293,-0.00177394,0.000225384,0.0369158,0.00168456,-0.0646638,0.0301103,-0.477949,0.00265971,2.789,-1.53142,2.64249,-0.882283,1.57963,0.398176,-0.00285949,0.250445,0.0345183,0.113912,-2.00413,0.503577,0.144404,0.0376587,0.0175075,-0.0106778,0.0323019,-0.000432449,0.0626111,0.220902,0.000476399,0,0,0,0,0,0,0,0.765262,-34.5699,0.913405,25.3839,2.85339,0.904471,-0.083206,
0.251433,0.0248972,0.113386,-1.99402,0.520963,0.209789,0.0362011,0.000538106,-0.0117303,-0.00109168,0.0108585,0.0212222,0.0676176,-0.00177054,0.000180307,0.0295327,0.00134765,-0.051731,0.0240882,-0.382359,0.00212777,2.789,-1.53142,2.64249,-0.882283,1.57963,0.398176,-0.00285949,0.250445,0.0345183,0.113912,-2.00413,0.503577,0.144404,0.0376587,0.0175075,-0.0106778,0.0323019,-0.000432449,0.0626111,0.220902,0.000476399,0,0,0,0,0,0,0,0.765262,-34.5699,0.913405,25.3839,2.85339,0.904471,-0.083206,
0.251433,0.0248972,0.113386,-1.99402,0.520963,0.209789,0.0362011,0.000538337,-0.0116925,-0.00108996,0.0107923,0.021253,0.0671282,-0.00176782,0.000144246,0.0236261,0.00107812,-0.0413848,0.0192706,-0.305887,0.00170221,2.789,-1.53142,2.64249,-0.882283,1.57963,0.398176,-0.00285949,0.250445,0.0345183,0.113912,-2.00413,0.503577,0.144404,0.0376587,0.0175075,-0.0106778,0.0323019,-0.000432449,0.0626111,0.220902,0.000476399,0,0,0,0,0,0,0,0.765262,-34.5699,0.913405,25.3839,2.85339,0.904471,-0.083206,
0.252474,0.0248361,0.114011,-1.99431,0.523419,0.21543,0.0362145,0.000538869,-0.0116176,-0.00108845,0.0106823,0.0213081,0.0663197,-0.00176329,0.00033243,0.0468376,0.000941519,-0.0687341,0.0344434,-0.505279,0.00283074,2.78987,-1.50277,2.64455,-0.924201,1.58286,0.364716,-0.00269395,0.251477,0.0342227,0.114529,-2.00414,0.505769,0.152119,0.0376597,0.035891,-0.00869221,0.013449,-0.00196198,0.0721768,0.220993,0.000749408,2.29794,0.248204,-2.3566,-0.191191,1.19571,0.0113762,0.0341262,0.336795,-34.8436,0.611891,25.3085,2.80487,0.951163,-0.103348,
0.252474,0.0248361,0.114011,-1.99431,0.523419,0.21543,0.0362145,0.000539295,-0.0115576,-0.00108725,0.0105943,0.0213522,0.065673,-0.00175966,0.000265944,0.0374701,0.000753215,-0.0549873,0.0275547,-0.404223,0.00226459,2.78987,-1.50277,2.64455,-0.924201,1.58286,0.364716,-0.00269395,0.251477,0.0342227,0.114529,-2.00414,0.505769,0.152119,0.0376597,0.035891,-0.00869221,0.013449,-0.00196198,0.0721768,0.220993,0.000749408,0,0,0,0,0,0,0,0.336795,-34.8436,0.611891,25.3085,2.80487,0.951163,-0.103348,
0.252474,0.0248361,0.114011,-1.99431,0.523419,0.21543,0.0362145,0.000539635,-0.0115096,-0.00108628,0.010524,0.0213875,0.0651555,-0.00175676,0.000212755,0.029976,0.000602572,-0.0439898,0.0220438,-0.323378,0.00181167,2.78987,-1.50277,2.64455,-0.924201,1.58286,0.364716,-0.00269395,0.251477,0.0342227,0.114529,-2.00414,0.505769,0.152119,0.0376597,0.035891,-0.00869221,0.013449,-0.00196198,0.0721768,0.220993,0.000749408,0,0,0,0,0,0,0,0.336795,-34.8436,0.611891,25.3085,2.80487,0.951163,-0.103348,
0.252474,0.0248361,0.114011,-1.99431,0.523419,0.21543,0.0362145,0.000539907,-0.0114713,-0.00108551,0.0104676,0.0214157,0.0647416,-0.00175445,0.000170204,0.0239808,0.000482057,-0.0351919,0.017635,-0.258703,0.00144934,2.78987,-1.50277,2.64455,-0.924201,1.58286,0.364716,-0.00269395,0.251477,0.0342227,0.114529,-2.00414,0.505769,0.152119,0.0376597,0.035891,-0.00869221,0.013449,-0.00196198,0.0721768,0.220993,0.000749408,0,0,0,0,0,0,0,0.336795,-34.8436,0.611891,25.3085,2.80487,0.951163,-0.103348,
0.252474,0.0248361,0.114011,-1.99431,0.523419,0.21543,0.0362145,0.000540125,-0.0114406,-0.00108489,0.0104226,0.0214383,0.0644105,-0.00175259,0.000136163,0.0191847,0.000385646,-0.0281535,0.014108,-0.206962,0.00115947,2.79038,-1.48009,2.64584,-0.96222,1.58556,0.334039,-0.00254566,0.252168,0.0339568,0.115411,-2.00415,0.508151,0.159244,0.037658,0.00717317,-0.00436624,0.0332071,0.000173675,0.084072,0.198015,1.22917e-05,-3.58973,0.540746,2.46976,0.266957,1.4869,-2.87227,-0.0921396,0.562931,-34.8714,0.838026,25.3839,2.79205,1.16997,-0.0767973,
0.252474,0.0248361,0.114011,-1.99431,0.523419,0.21543,0.0362145,0.000540299,-0.011416,-0.0010844,0.0103866,0.0214563,0.0641456,-0.00175111,0.000108931,0.0153477,0.000308517,-0.0225228,0.0112864,-0.16557,0.000927577,2.79038,-1.48009,2.64584,-0.96222,1.58556,0.334039,-0.00254566,0.252168,0.0339568,0.115411,-2.00415,0.508151,0.159244,0.037658,0.00717317,-0.00436624,0.0332071,0.000173675,0.084072,0.198015,1.22917e-05,0,0,0,0,0,0,0,0.562931,-34.8714,0.838026,25.3839,2.79205,1.16997,-0.0767973,
0.252474,0.0248361,0.114011,-1.99431,0.523419,0.21543,0.0362145,0.000540439,-0.0113964,-0.001084,0.0103577,0.0214708,0.0639336,-0.00174992,8.71444e-05,0.0122782,0.000246813,-0.0180182,0.00902913,-0.132456,0.000742062,2.79038,-1.48009,2.64584,-0.96222,1.58556,0.334039,-0.00254566,0.252168,0.0339568,0.115411,-2.00415,0.508151,0.159244,0.037658,0.00717317,-0.00436624,0.0332071,0.000173675,0.084072,0.198015,1.22917e-05,0,0,0,0,0,0,0,0.562931,-34.8714,0.838026,25.3839,2.79205,1.16997,-0.0767973,
0.252474,0.0248361,0.114011,-1.99431,0.523419,0.21543,0.0362145,0.00054055,-0.0113807,-0.00108369,0.0103347,0.0214823,0.0637641,-0.00174897,6.97156e-05,0.00982255,0.000197451,-0.0144146,0.00722331,-0.105965,0.00059365,2.79038,-1.48009,2.64584,-0.96222,1.58556,0.334039,-0.00254566,0.252168,0.0339568,0.115411,-2.00415,0.508151,0.159244,0.037658,0.00717317,-0.00436624,0.0332071,0.000173675,0.084072,0.198015,1.22917e-05,0,0,0,0,0,0,0,0.562931,-34.8714,0.838026,25.3839,2.79205,1.16997,-0.0767973,
0.253077,0.0248062,0.114813,-1.99459,0.525952,0.220512,0.0362258,0.000540926,-0.0113294,-0.00108405,0.0102649,0.0215052,0.0632683,-0.00174613,0.000234773,0.0320347,-0.000225097,-0.043605,0.0142969,-0.309889,0.00177685,2.78934,-1.4576,2.64551,-0.997964,1.58667,0.306416,-0.00238943,0.252959,0.0337149,0.116172,-2.00415,0.510555,0.165781,0.0376604,0.0266784,-0.000681624,0.0117378,2.76989e-05,0.0710233,0.186331,0.000402062,2.43815,0.460576,-2.68367,-0.018247,-1.63109,-1.46045,0.0487213,0.336795,-34.796,0.611891,25.2847,2.72522,1.13061,-0.0969389,
0.253077,0.0248062,0.114813,-1.99459,0.525952,0.220512,0.0362258,0.000541227,-0.0112884,-0.00108434,0.0102091,0.0215235,0.0628716,-0.00174385,0.000187819,0.0256278,-0.000180078,-0.034884,0.0114375,-0.247911,0.00142148,2.78934,-1.4576,2.64551,-0.997964,1.58667,0.306416,-0.00238943,0.252959,0.0337149,0.116172,-2.00415,0.510555,0.165781,0.0376604,0.0266784,-0.000681624,0.0117378,2.76989e-05,0.0710233,0.186331,0.000402062,0,0,0,0,0,0,0,0.336795,-34.796,0.611891,25.2847,2.72522,1.13061,-0.0969389,
0.253077,0.0248062,0.114813,-1.99459,0.525952,0.220512,0.0362258,0.000541467,-0.0112556,-0.00108457,0.0101644,0.0215381,0.0625543,-0.00174203,0.000150255,0.0205022,-0.000144062,-0.0279072,0.00914999,-0.198329,0.00113718,2.78934,-1.4576,2.64551,-0.997964,1.58667,0.306416,-0.00238943,0.252959,0.0337149,0.116172,-2.00415,0.510555,0.165781,0.0376604,0.0266784,-0.000681624,0.0117378,2.76989e-05,0.0710233,0.186331,0.000402062,0,0,0,0,0,0,0,0.336795,-34.796,0.611891,25.2847,2.72522,1.13061,-0.0969389,
0.253844,0.02482,0.115544,-1.99489,0.528184,0.225219,0.0362379,0.000541938,-0.0111922,-0.00108578,0.0100827,0.0215723,0.0619722,-0.00173869,0.000294625,0.0396525,-0.000760314,-0.0510855,0.0213507,-0.363799,0.00209126,2.78934,-1.4576,2.64551,-0.997964,1.58667,0.306416,-0.00238943,0.252959,0.0337149,0.116172,-2.00415,0.510555,0.165781,0.0376604,0.0266784,-0.000681624,0.0117378,2.76989e-05,0.0710233,0.186331,0.000402062,0,0,0,0,0,0,0,0.336795,-34.796,0.611891,25.2847,2.72522,1.13061,-0.0969389,
0.253844,0.02482,0.115544,-1.99489,0.528184,0.225219,0.0362379,0.000542315,-0.0111414,-0.00108676,0.0100173,0.0215996,0.0615066,-0.00173601,0.0002357,0.031722,-0.000608251,-0.0408684,0.0170806,-0.291039,0.00167301,2.79047,-1.43647,2.64773,-1.03351,1.58759,0.280217,-0.0022549,0.253836,0.0334111,0.116911,-2.00419,0.513109,0.17207,0.0376548,0.0208631,-0.00827699,0.0168237,-0.00378928,0.0843913,0.185502,-0.00015975,-0.726912,-0.949421,0.635742,-0.477122,1.67101,-0.103697,-0.0702266,0.209842,-34.7206,0.611891,25.6815,2.76184,1.19012,-0.0767973,
0.253844,0.02482,0.115544,-1.99489,0.528184,0.225219,0.0362379,0.000542617,-0.0111008,-0.00108754,0.009965,0.0216215,0.061134,-0.00173387,0.00018856,0.0253776,-0.000486601,-0.0326947,0.0136644,-0.232831,0.00133841,2.79047,-1.43647,2.64773,-1.03351,1.58759,0.280217,-0.0022549,0.253836,0.0334111,0.116911,-2.00419,0.513109,0.17207,0.0376548,0.0208631,-0.00827699,0.0168237,-0.00378928,0.0843913,0.185502,-0.00015975,0,0,0,0,0,0,0,0.209842,-34.7206,0.611891,25.6815,2.76184,1.19012,-0.0767973,
0.253844,0.02482,0.115544,-1.99489,0.528184,0.225219,0.0362379,0.000542859,-0.0110683,-0.00108816,0.00992315,0.021639,0.060836,-0.00173216,0.000150848,0.0203021,-0.000389281,-0.0261558,0.0109316,-0.186265,0.00107072,2.79047,-1.43647,2.64773,-1.03351,1.58759,0.280217,-0.0022549,0.253836,0.0334111,0.116911,-2.00419,0.513109,0.17207,0.0376548,0.0208631,-0.00827699,0.0168237,-0.00378928,0.0843913,0.185502,-0.00015975,0,0,0,0,0,0,0,0.209842,-34.7206,0.611891,25.6815,2.76184,1.19012,-0.0767973,
0.254732,0.024493,0.116308,-1.99511,0.530944,0.229821,0.0362428,0.000543285,-0.0110212,-0.00108558,0.00983695,0.0216389,0.0602545,-0.00172874,0.00026633,0.0294528,0.00161429,-0.0538726,-4.90455e-05,-0.363441,0.00213382,2.79047,-1.43647,2.64773,-1.03351,1.58759,0.280217,-0.0022549,0.253836,0.0334111,0.116911,-2.00419,0.513109,0.17207,0.0376548,0.0208631,-0.00827699,0.0168237,-0.00378928,0.0843913,0.185502,-0.00015975,0,0,0,0,0,0,0,0.209842,-34.7206,0.611891,25.6815,2.76184,1.19012,-0.0767973,
0.254732,0.024493,0.116308,-1.99511,0.530944,0.229821,0.0362428,0.000543626,-0.0109835,-0.00108351,0.009768,0.0216388,0.0597893,-0.00172601,0.000213064,0.0235622,0.00129143,-0.0430981,-3.92364e-05,-0.290753,0.00170706,2.78907,-1.41906,2.6472,-1.0662,1.58766,0.25578,-0.00212157,0.254518,0.0331219,0.11782,-2.00419,0.515684,0.178021,0.0376596,0.0118367,-0.00987864,0.0304811,-0.000210323,0.0897308,0.155718,-0.000262587,-1.1283,-0.200206,1.70717,0.447369,0.667431,-3.72299,-0.0128546,0.741459,-34.796,1.03639,25.4315,2.90832,1.00426,-0.0905302,
0.254732,0.024493,0.116308,-1.99511,0.530944,0.229821,0.0362428,0.000543898,-0.0109533,-0.00108186,0.00971283,0.0216388,0.0594171,-0.00172382,0.000170451,0.0188498,0.00103314,-0.0344785,-3.13891e-05,-0.232602,0.00136565,2.78907,-1.41906,2.6472,-1.0662,1.58766,0.25578,-0.00212157,0.254518,0.0331219,0.11782,-2.00419,0.515684,0.178021,0.0376596,0.0118367,-0.00987864,0.0304811,-0.000210323,0.0897308,0.155718,-0.000262587,0,0,0,0,0,0,0,0.741459,-34.796,1.03639,25.4315,2.90832,1.00426,-0.0905302,
0.254732,0.024493,0.116308,-1.99511,0.530944,0.229821,0.0362428,0.000544116,-0.0109292,-0.00108053,0.0096687,0.0216387,0.0591194,-0.00172208,0.000136361,0.0150798,0.000826515,-0.0275828,-2.51113e-05,-0.186082,0.00109252,2.78907,-1.41906,2.6472,-1.0662,1.58766,0.25578,-0.00212157,0.254518,0.0331219,0.11782,-2.00419,0.515684,0.178021,0.0376596,0.0118367,-0.00987864,0.0304811,-0.000210323,0.0897308,0.155718,-0.000262587,0,0,0,0,0,0,0,0.741459,-34.796,1.03639,25.4315,2.90832,1.00426,-0.0905302,
0.255519,0.0242277,0.117331,-1.99532,0.533648,0.233848,0.0362548,0.000544465,-0.0108947,-0.00107759,0.00958718,0.0216137,0.0585946,-0.00171892,0.000218111,0.0215889,0.00184136,-0.0509504,-0.0156211,-0.327989,0.00197186,2.78907,-1.41906,2.6472,-1.0662,1.58766,0.25578,-0.00212157,0.254518,0.0331219,0.11782,-2.00419,0.515684,0.178021,0.0376596,0.0118367,-0.00987864,0.0304811,-0.000210323,0.0897308,0.155718,-0.000262587,0,0,0,0,0,0,0,0.741459,-34.796,1.03639,25.4315,2.90832,1.00426,-0.0905302,
0.255519,0.0242277,0.117331,-1.99532,0.533648,0.233848,0.0362548,0.000544745,-0.010867,-0.00107523,0.00952196,0.0215938,0.0581748,-0.0017164,0.000174489,0.0172711,0.00147309,-0.0407603,-0.0124968,-0.262391,0.00157749,2.78907,-1.41906,2.6472,-1.0662,1.58766,0.25578,-0.00212157,0.254518,0.0331219,0.11782,-2.00419,0.515684,0.178021,0.0376596,0.0118367,-0.00987864,0.0304811,-0.000210323,0.0897308,0.155718,-0.000262587,0,0,0,0,0,0,0,0.741459,-34.796,1.03639,25.4315,2.90832,1.00426,-0.0905302,
0.255519,0.0242277,0.117331,-1.99532,0.533648,0.233848,0.0362548,0.000544968,-0.0108449,-0.00107335,0.00946979,0.0215778,0.0578389,-0.00171438,0.000139591,0.0138169,0.00117847,-0.0326082,-0.00999748,-0.209913,0.00126199,2.78815,-1.40073,2.64702,-1.09703,1.58745,0.233618,-0.00199221,0.255395,0.032883,0.118539,-2.0042,0.518175,0.183472,0.0376597,0.0375493,-0.00366542,0.00767092,0.00122512,0.0779674,0.154049,-8.04908e-05,3.21408,0.776653,-2.85127,0.17943,-1.47042,-0.208652,0.022762,0.435978,-34.7444,0.838026,25.5585,2.96966,1.11687,-0.0905302,
0.256423,0.0242411,0.118069,-1.99559,0.535965,0.237899,0.0362616,0.000545368,-0.0107962,-0.00107294,0.00938785,0.0215697,0.0573042,-0.00171116,0.000249987,0.030445,0.000250747,-0.0512078,-0.00505594,-0.334209,0.00201067,2.78815,-1.40073,2.64702,-1.09703,1.58745,0.233618,-0.00199221,0.255395,0.032883,0.118539,-2.0042,0.518175,0.183472,0.0376597,0.0375493,-0.00366542,0.00767092,0.00122512,0.0779674,0.154049,-8.04908e-05,0,0,0,0,0,0,0,0.435978,-34.7444,0.838026,25.5585,2.96966,1.11687,-0.0905302,
0.256423,0.0242411,0.118069,-1.99559,0.535965,0.237899,0.0362616,0.000545688,-0.0107572,-0.00107262,0.00932231,0.0215632,0.0568764,-0.00170859,0.00019999,0.024356,0.000200597,-0.0409663,-0.00404475,-0.267367,0.00160854,2.78815,-1.40073,2.64702,-1.09703,1.58745,0.233618,-0.00199221,0.255395,0.032883,0.118539,-2.0042,0.518175,0.183472,0.0376597,0.0375493,-0.00366542,0.00767092,0.00122512,0.0779674,0.154049,-8.04908e-05,0,0,0,0,0,0,0,0.435978,-34.7444,0.838026,25.5585,2.96966,1.11687,-0.0905302,
0.256423,0.0242411,0.118069,-1.99559,0.535965,0.237899,0.0362616,0.000545944,-0.0107261,-0.00107237,0.00926987,0.021558,0.0565342,-0.00170653,0.000159992,0.0194848,0.000160478,-0.032773,-0.0032358,-0.213894,0.00128683,2.78815,-1.40073,2.64702,-1.09703,1.58745,0.233618,-0.00199221,0.255395,0.032883,0.118539,-2.0042,0.518175,0.183472,0.0376597,0.0375493,-0.00366542,0.00767092,0.00122512,0.0779674,0.154049,-8.04908e-05,0,0,0,0,0,0,0,0.435978,-34.7444,0.838026,25.5585,2.96966,1.11687,-0.0905302,
0.256423,0.0242411,0.118069,-1.99559,0.535965,0.237899,0.0362616,0.000546149,-0.0107011,-0.00107216,0.00922792,0.0215539,0.0562604,-0.00170488,0.000127994,0.0155879,0.000128382,-0.0262184,-0.00258864,-0.171115,0.00102946,2.7887,-1.38183,2.64821,-1.12874,1.58795,0.211016,-0.00186857,0.256166,0.0326481,0.119335,-2.00423,0.520677,0.189039,0.037652,0.0152685,-0.00387173,0.0295198,-0.00385591,0.077204,0.166488,-0.000740519,-2.7851,-0.0257884,2.73111,-0.635129,-0.0954168,1.55495,-0.0825036,0.336795,-34.8436,0.687269,25.6061,3.0484,1.20934,-0.0630644,
0.257164,0.0241676,0.118839,-1.99585,0.538425,0.242176,0.0362628,0.000546552,-0.0106522,-0.00107203,0.00915015,0.0215544,0.0557508,-0.00170182,0.000251836,0.0305865,8.26824e-05,-0.0486103,0.000320833,-0.318469,0.0019166,2.7887,-1.38183,2.64821,-1.12874,1.58795,0.211016,-0.00186857,0.256166,0.0326481,0.119335,-2.00423,0.520677,0.189039,0.037652,0.0152685,-0.00387173,0.0295198,-0.00385591,0.077204,0.166488,-0.000740519,0,0,0,0,0,0,0,0.336795,-34.8436,0.687269,25.6061,3.0484,1.20934,-0.0630644,
0.257164,0.0241676,0.118839,-1.99585,0.538425,0.242176,0.0362628,0.000546874,-0.010613,-0.00107192,0.00908792,0.0215548,0.0553432,-0.00169936,0.000201469,0.0244692,6.61459e-05,-0.0388883,0.000256667,-0.254776,0.00153328,2.7887,-1.38183,2.64821,-1.12874,1.58795,0.211016,-0.00186857,0.256166,0.0326481,0.119335,-2.00423,0.520677,0.189039,0.037652,0.0152685,-0.00387173,0.0295198,-0.00385591,0.077204,0.166488,-0.000740519,0,0,0,0,0,0,0,0.336795,-34.8436,0.687269,25.6061,3.0484,1.20934,-0.0630644,
0.257164,0.0241676,0.118839,-1.99585,0.538425,0.242176,0.0362628,0.000547132,-0.0105817,-0.00107184,0.00903815,0.0215551,0.0550171,-0.0016974,0.000161175,0.0195754,5.29167e-05,-0.0311106,0.000205333,-0.20382,0.00122662,2.7887,-1.38183,2.64821,-1.12874,1.58795,0.211016,-0.00186857,0.256166,0.0326481,0.119335,-2.00423,0.520677,0.189039,0.037652,0.0152685,-0.00387173,0.0295198,-0.00385591,0.077204,0.166488,-0.000740519,0,0,0,0,0,0,0,0.336795,-34.8436,0.687269,25.6061,3.0484,1.20934,-0.0630644,
0.258004,0.0241006,0.119548,-1.99607,0.541025,0.246337,0.0362753,0.000547565,-0.010527,-0.00107183,0.00895452,0.0215501,0.0544789,-0.00169413,0.000270482,0.0341784,8.14212e-06,-0.0522656,-0.00313727,-0.336362,0.00204379,2.78904,-1.36241,2.649,-1.15933,1.58824,0.1894,-0.00174891,0.257029,0.0324557,0.120066,-2.00427,0.523244,0.194486,0.0376557,0.0283808,-0.00294122,0.0144404,-0.00212021,0.0805288,0.166588,0.000122379,1.63904,0.116314,-1.88492,0.216963,0.415595,0.0124598,0.107862,0.25745,-34.8714,0.564283,25.5823,2.98797,1.38238,-0.083206,
0.258004,0.0241006,0.119548,-1.99607,0.541025,0.246337,0.0362753,0.000547911,-0.0104833,-0.00107181,0.00888762,0.0215461,0.0540484,-0.00169151,0.000216386,0.0273427,6.5137e-06,-0.0418125,-0.00250982,-0.26909,0.00163503,2.78904,-1.36241,2.649,-1.15933,1.58824,0.1894,-0.00174891,0.257029,0.0324557,0.120066,-2.00427,0.523244,0.194486,0.0376557,0.0283808,-0.00294122,0.0144404,-0.00212021,0.0805288,0.166588,0.000122379,0,0,0,0,0,0,0,0.25745,-34.8714,0.564283,25.5823,2.98797,1.38238,-0.083206,
0.258004,0.0241006,0.119548,-1.99607,0.541025,0.246337,0.0362753,0.000548188,-0.0104483,-0.00107181,0.0088341,0.0215429,0.0537039,-0.00168942,0.000173109,0.0218742,5.21096e-06,-0.03345,-0.00200785,-0.215272,0.00130803,2.78904,-1.36241,2.649,-1.15933,1.58824,0.1894,-0.00174891,0.257029,0.0324557,0.120066,-2.00427,0.523244,0.194486,0.0376557,0.0283808,-0.00294122,0.0144404,-0.00212021,0.0805288,0.166588,0.000122379,0,0,0,0,0,0,0,0.25745,-34.8714,0.564283,25.5823,2.98797,1.38238,-0.083206,
0.258004,0.0241006,0.119548,-1.99607,0.541025,0.246337,0.0362753,0.000548409,-0.0104203,-0.0010718,0.00879129,0.0215403,0.0534284,-0.00168775,0.000138487,0.0174993,4.16877e-06,-0.02676,-0.00160628,-0.172218,0.00104642,2.78904,-1.36241,2.649,-1.15933,1.58824,0.1894,-0.00174891,0.257029,0.0324557,0.120066,-2.00427,0.523244,0.194486,0.0376557,0.0283808,-0.00294122,0.0144404,-0.00212021,0.0805288,0.166588,0.000122379,0,0,0,0,0,0,0,0.25745,-34.8714,0.564283,25.5823,2.98797,1.38238,-0.083206,
0.258004,0.0241006,0.119548,-1.99607,0.541025,0.246337,0.0362753,0.000548587,-0.0103979,-0.00107179,0.00875703,0.0215383,0.0532079,-0.00168641,0.000110789,0.0139995,3.33501e-06,-0.021408,-0.00128503,-0.137774,0.000837137,2.78808,-1.34393,2.64835,-1.18708,1.58795,0.169776,-0.0016327,0.257969,0.0322996,0.120683,-2.00433,0.525822,0.199606,0.0376583,0.0284092,-0.00514558,0.0170471,-0.0016839,0.0759205,0.14932,0.000484521,0.00355125,-0.275546,0.325829,0.0545393,-0.576036,-2.15849,0.0452677,0.158268,-34.8714,0.611891,25.7092,3.02459,1.4016,-0.110672,
0.258004,0.0241006,0.119548,-1.99607,0.541025,0.246337,0.0362753,0.000548728,-0.01038,-0.00107179,0.00872963,0.0215366,0.0530316,-0.00168534,8.86316e-05,0.0111996,2.66801e-06,-0.0171264,-0.00102802,-0.110219,0.00066971,2.78808,-1.34393,2.64835,-1.18708,1.58795,0.169776,-0.0016327,0.257969,0.0322996,0.120683,-2.00433,0.525822,0.199606,0.0376583,0.0284092,-0.00514558,0.0170471,-0.0016839,0.0759205,0.14932,0.000484521,0,0,0,0,0,0,0,0.158268,-34.8714,0.611891,25.7092,3.02459,1.4016,-0.110672,
0.258004,0.0241006,0.119548,-1.99607,0.541025,0.246337,0.0362753,0.000548842,-0.0103656,-0.00107179,0.00870771,0.0215353,0.0528905,-0.00168448,7.09053e-05,0.00895966,2.13441e-06,-0.0137011,-0.000822416,-0.0881754,0.000535768,2.78808,-1.34393,2.64835,-1.18708,1.58795,0.169776,-0.0016327,0.257969,0.0322996,0.120683,-2.00433,0.525822,0.199606,0.0376583,0.0284092,-0.00514558,0.0170471,-0.0016839,0.0759205,0.14932,0.000484521,0,0,0,0,0,0,0,0.158268,-34.8714,0.611891,25.7092,3.02459,1.4016,-0.110672,
0.258004,0.0241006,0.119548,-1.99607,0.541025,0.246337,0.0362753,0.000548933,-0.0103542,-0.00107178,0.00869017,0.0215342,0.0527776,-0.00168379,5.67242e-05,0.00716773,1.70753e-06,-0.0109609,-0.000657933,-0.0705403,0.000428614,2.78808,-1.34393,2.64835,-1.18708,1.58795,0.169776,-0.0016327,0.257969,0.0322996,0.120683,-2.00433,0.525822,0.199606,0.0376583,0.0284092,-0.00514558,0.0170471,-0.0016839,0.0759205,0.14932,0.000484521,0,0,0,0,0,0,0,0.158268,-34.8714,0.611891,25.7092,3.02459,1.4016,-0.110672,
0.258999,0.0240152,0.12022,-1.99632,0.543548,0.249984,0.0362842,0.000549183,-0.0103215,-0.00107161,0.00863764,0.0215191,0.0524555,-0.00168178,0.000156199,0.0204445,0.000111455,-0.0328334,-0.00947884,-0.201366,0.00125851,2.7877,-1.32717,2.64799,-1.21377,1.58787,0.151171,-0.00152095,0.258681,0.0321645,0.121496,-2.00437,0.528235,0.204428,0.0376574,0.0242033,-0.00905149,0.0212532,-0.00436763,0.0674629,0.144295,-0.000224527,-0.525743,-0.488239,0.525763,-0.335466,-1.0572,-0.628107,-0.0886309,0.463749,-34.796,0.738844,25.5585,3.0484,1.27617,-0.083206,
0.258999,0.0240152,0.12022,-1.99632,0.543548,0.249984,0.0362842,0.000549383,-0.0102953,-0.00107146,0.00859561,0.0215069,0.0521977,-0.00168017,0.000124959,0.0163556,8.91642e-05,-0.0262667,-0.00758307,-0.161093,0.00100681,2.7877,-1.32717,2.64799,-1.21377,1.58787,0.151171,-0.00152095,0.258681,0.0321645,0.121496,-2.00437,0.528235,0.204428,0.0376574,0.0242033,-0.00905149,0.0212532,-0.00436763,0.0674629,0.144295,-0.000224527,0,0,0,0,0,0,0,0.463749,-34.796,0.738844,25.5585,3.0484,1.27617,-0.083206,
0.258999,0.0240152,0.12022,-1.99632,0.543548,0.249984,0.0362842,0.000549542,-0.0102743,-0.00107135,0.00856199,0.0214972,0.0519915,-0.00167888,9.99673e-05,0.0130845,7.13314e-05,-0.0210134,-0.00606646,-0.128874,0.000805446,2.7877,-1.32717,2.64799,-1.21377,1.58787,0.151171,-0.00152095,0.258681,0.0321645,0.121496,-2.00437,0.528235,0.204428,0.0376574,0.0242033,-0.00905149,0.0212532,-0.00436763,0.0674629,0.144295,-0.000224527,0,0,0,0,0,0,0,0.463749,-34.796,0.738844,25.5585,3.0484,1.27617,-0.083206,
0.25971,0.0239359,0.121034,-1.99654,0.545833,0.253546,0.0362897,0.000549858,-0.0102363,-0.00107131,0.00849758,0.0214852,0.0515935,-0.0016764,0.00019725,0.0237555,2.35048e-05,-0.0402573,-0.00751044,-0.248775,0.00154901,2.7877,-1.32717,2.64799,-1.21377,1.58787,0.151171,-0.00152095,0.258681,0.0321645,0.121496,-2.00437,0.528235,0.204428,0.0376574,0.0242033,-0.00905149,0.0212532,-0.00436763,0.0674629,0.144295,-0.000224527,0,0,0,0,0,0,0,0.463749,-34.796,0.738844,25.5585,3.0484,1.27617,-0.083206,
0.25971,0.0239359,0.121034,-1.99654,0.545833,0.253546,0.0362897,0.000550111,-0.0102059,-0.00107128,0.00844605,0.0214756,0.051275,-0.00167442,0.0001578,0.0190044,1.88039e-05,-0.0322059,-0.00600836,-0.19902,0.00123921,2.78742,-1.30749,2.64794,-1.24023,1.58789,0.132958,-0.00141969,0.25974,0.0320423,0.12199,-2.00445,0.530768,0.209339,0.0376556,0.0367396,-0.00537885,0.0150095,-0.00300529,0.0728369,0.14369,0.000439899,1.56704,0.45908,-0.780456,0.170292,0.671756,-0.0756642,0.0830532,0.384403,-34.9706,0.762648,25.7806,3.02459,1.28899,-0.083206,
0.25971,0.0239359,0.121034,-1.99654,0.545833,0.253546,0.0362897,0.000550313,-0.0101816,-0.00107126,0.00840483,0.0214679,0.0510203,-0.00167283,0.00012624,0.0152035,1.50431e-05,-0.0257647,-0.00480668,-0.159216,0.000991368,2.78742,-1.30749,2.64794,-1.24023,1.58789,0.132958,-0.00141969,0.25974,0.0320423,0.12199,-2.00445,0.530768,0.209339,0.0376556,0.0367396,-0.00537885,0.0150095,-0.00300529,0.0728369,0.14369,0.000439899,0,0,0,0,0,0,0,0.384403,-34.9706,0.762648,25.7806,3.02459,1.28899,-0.083206,
0.25971,0.0239359,0.121034,-1.99654,0.545833,0.253546,0.0362897,0.000550474,-0.0101621,-0.00107124,0.00837185,0.0214618,0.0508165,-0.00167156,0.000100992,0.0121628,1.20345e-05,-0.0206118,-0.00384535,-0.127373,0.000793094,2.78742,-1.30749,2.64794,-1.24023,1.58789,0.132958,-0.00141969,0.25974,0.0320423,0.12199,-2.00445,0.530768,0.209339,0.0376556,0.0367396,-0.00537885,0.0150095,-0.00300529,0.0728369,0.14369,0.000439899,0,0,0,0,0,0,0,0.384403,-34.9706,0.762648,25.7806,3.02459,1.28899,-0.083206,
0.26086,0.0239955,0.121612,-1.99681,0.548471,0.257272,0.0362937,0.000550794,-0.0101141,-0.00107276,0.00830852,0.0214458,0.0504361,-0.00166914,0.000199632,0.030011,-0.000953989,-0.0395777,-0.00998077,-0.237726,0.00151352,2.78742,-1.30749,2.64794,-1.24023,1.58789,0.132958,-0.00141969,0.25974,0.0320423,0.12199,-2.00445,0.530768,0.209339,0.0376556,0.0367396,-0.00537885,0.0150095,-0.00300529,0.0728369,0.14369,0.000439899,0,0,0,0,0,0,0,0.384403,-34.9706,0.762648,25.7806,3.02459,1.28899,-0.083206,
0.26086,0.0239955,0.121612,-1.99681,0.548471,0.257272,0.0362937,0.000551049,-0.0100757,-0.00107399,0.00825786,0.021433,0.0501318,-0.0016672,0.000159705,0.0240088,-0.000763191,-0.0316621,-0.00798462,-0.190181,0.00121082,2.78742,-1.30749,2.64794,-1.24023,1.58789,0.132958,-0.00141969,0.25974,0.0320423,0.12199,-2.00445,0.530768,0.209339,0.0376556,0.0367396,-0.00537885,0.0150095,-0.00300529,0.0728369,0.14369,0.000439899,0,0,0,0,0,0,0,0.384403,-34.9706,0.762648,25.7806,3.02459,1.28899,-0.083206,
0.26086,0.0239955,0.121612,-1.99681,0.548471,0.257272,0.0362937,0.000551253,-0.010045,-0.00107496,0.00821734,0.0214228,0.0498884,-0.00166565,0.000127764,0.019207,-0.000610553,-0.0253297,-0.00638769,-0.152145,0.000968654,2.78742,-1.30749,2.64794,-1.24023,1.58789,0.132958,-0.00141969,0.25974,0.0320423,0.12199,-2.00445,0.530768,0.209339,0.0376556,0.0367396,-0.00537885,0.0150095,-0.00300529,0.0728369,0.14369,0.000439899,0,0,0,0,0,0,0,0.384403,-34.9706,0.762648,25.7806,3.02459,1.28899,-0.083206,
0.26086,0.0239955,0.121612,-1.99681,0.548471,0.257272,0.0362937,0.000551417,-0.0100204,-0.00107574,0.00818491,0.0214146,0.0496937,-0.00166441,0.000102211,0.0153656,-0.000488442,-0.0202638,-0.00511016,-0.121716,0.000774923,2.78742,-1.30749,2.64794,-1.24023,1.58789,0.132958,-0.00141969,0.25974,0.0320423,0.12199,-2.00445,0.530768,0.209339,0.0376556,0.0367396,-0.00537885,0.0150095,-0.00300529,0.0728369,0.14369,0.000439899,0,0,0,0,0,0,0,0.384403,-34.9706,0.762648,25.7806,3.02459,1.28899,-0.083206,
0.26086,0.0239955,0.121612,-1.99681,0.548471,0.257272,0.0362937,0.000551548,-0.0100007,-0.00107637,0.00815898,0.0214081,0.0495379,-0.00166342,8.17692e-05,0.0122925,-0.000390754,-0.016211,-0.00408812,-0.0973728,0.000619939,2.78742,-1.30749,2.64794,-1.24023,1.58789,0.132958,-0.00141969,0.25974,0.0320423,0.12199,-2.00445,0.530768,0.209339,0.0376556,0.0367396,-0.00537885,0.0150095,-0.00300529,0.0728369,0.14369,0.000439899,0,0,0,0,0,0,0,0.384403,-34.9706,0.762648,25.7806,3.02459,1.28899,-0.083206,
0.26086,0.0239955,0.121612,-1.99681,0.548471,0.257272,0.0362937,0.000551653,-0.00998499,-0.00107687,0.00813823,0.0214028,0.0494132,-0.00166263,6.54153e-05,0.009834,-0.000312603,-0.0129688,-0.0032705,-0.0778982,0.000495951,2.78742,-1.30749,2.64794,-1.24023,1.58789,0.132958,-0.00141969,0.25974,0.0320423,0.12199,-2.00445,0.530768,0.209339,0.0376556,0.0367396,-0.00537885,0.0150095,-0.00300529,0.0728369,0.14369,0.000439899,0,0,0,0,0,0,0,0.384403,-34.9706,0.762648,25.7806,3.02459,1.28899,-0.083206,
0.26086,0.0239955,0.121612,-1.99681,0.548471,0.257272,0.0362937,0.000551736,-0.00997241,-0.00107727,0.00812163,0.0213987,0.0493135,-0.00166199,5.23323e-05,0.0078672,-0.000250082,-0.010375,-0.0026164,-0.0623186,0.000396761,2.78694,-1.29227,2.64765,-1.26585,1.58786,0.115292,-0.00130985,0.260587,0.0318956,0.122722,-2.00453,0.533195,0.21398,0.0376571,0.020405,-0.00914727,0.0259375,-0.00286968,0.0604074,0.131367,-1.42583e-05,-2.04183,-0.471053,1.366,0.0169504,-1.55369,-1.54036,-0.0567697,0.158268,-35.2681,0.461134,25.7806,3.12805,1.33568,-0.0703886,
0.261633,0.0238862,0.122276,-1.99705,0.550696,0.260721,0.0363022,0.000551991,-0.00994248,-0.00107702,0.00807222,0.0213943,0.0490111,-0.0016601,0.000159319,0.018705,0.000152834,-0.0308812,-0.00271533,-0.188994,0.00118599,2.78694,-1.29227,2.64765,-1.26585,1.58786,0.115292,-0.00130985,0.260587,0.0318956,0.122722,-2.00453,0.533195,0.21398,0.0376571,0.020405,-0.00914727,0.0259375,-0.00286968,0.0604074,0.131367,-1.42583e-05,0,0,0,0,0,0,0,0.158268,-35.2681,0.461134,25.7806,3.12805,1.33568,-0.0703886,
0.261633,0.0238862,0.122276,-1.99705,0.550696,0.260721,0.0363022,0.000552195,-0.00991854,-0.00107683,0.00803269,0.0213908,0.0487692,-0.00165858,0.000127455,0.014964,0.000122267,-0.0247049,-0.00217227,-0.151195,0.000948792,2.78694,-1.29227,2.64765,-1.26585,1.58786,0.115292,-0.00130985,0.260587,0.0318956,0.122722,-2.00453,0.533195,0.21398,0.0376571,0.020405,-0.00914727,0.0259375,-0.00286968,0.0604074,0.131367,-1.42583e-05,0,0,0,0,0,0,0,0.158268,-35.2681,0.461134,25.7806,3.12805,1.33568,-0.0703886,
0.261633,0.0238862,0.122276,-1.99705,0.550696,0.260721,0.0363022,0.000552358,-0.00989938,-0.00107667,0.00800107,0.0213881,0.0485757,-0.00165736,0.000101964,0.0119712,9.78135e-05,-0.0197639,-0.00173781,-0.120956,0.000759033,2.78694,-1.29227,2.64765,-1.26585,1.58786,0.115292,-0.00130985,0.260587,0.0318956,0.122722,-2.00453,0.533195,0.21398,0.0376571,0.020405,-0.00914727,0.0259375,-0.00286968,0.0604074,0.131367,-1.42583e-05,0,0,0,0,0,0,0,0.158268,-35.2681,0.461134,25.7806,3.12805,1.33568,-0.0703886,
0.261633,0.0238862,0.122276,-1.99705,0.550696,0.260721,0.0363022,0.000552489,-0.00988406,-0.00107655,0.00797577,0.0213858,0.0484209,-0.00165639,8.15715e-05,0.00957696,7.82508e-05,-0.0158111,-0.00139025,-0.0967651,0.000607227,2.78594,-1.27822,2.64683,-1.28702,1.58698,0.101368,-0.00122776,0.261566,0.0317672,0.123316,-2.00458,0.535582,0.217942,0.0376542,0.0373607,-0.00866349,0.0216599,0.000813858,0.0661082,0.111132,-9.41563e-06,2.11946,0.060473,-0.5347,0.460443,0.712606,-2.52936,0.000605331,0.209842,-34.8198,0.611891,25.5823,3.17108,1.31554,-0.0703886,
0.262824,0.0237921,0.123078,-1.99725,0.55322,0.263435,0.0363013,0.000552678,-0.00985883,-0.00107645,0.00792506,0.0213458,0.0481459,-0.00165454,0.00011798,0.0157686,6.10081e-05,-0.0316919,-0.0250202,-0.171841,0.00115454,2.78594,-1.27822,2.64683,-1.28702,1.58698,0.101368,-0.00122776,0.261566,0.0317672,0.123316,-2.00458,0.535582,0.217942,0.0376542,0.0373607,-0.00866349,0.0216599,0.000813858,0.0661082,0.111132,-9.41563e-06,0,0,0,0,0,0,0,0.209842,-34.8198,0.611891,25.5823,3.17108,1.31554,-0.0703886,
0.262824,0.0237921,0.123078,-1.99725,0.55322,0.263435,0.0363013,0.000552829,-0.00983865,-0.00107637,0.0078845,0.0213138,0.047926,-0.00165307,9.43841e-05,0.0126149,4.88064e-05,-0.0253536,-0.0200162,-0.137473,0.00092363,2.78594,-1.27822,2.64683,-1.28702,1.58698,0.101368,-0.00122776,0.261566,0.0317672,0.123316,-2.00458,0.535582,0.217942,0.0376542,0.0373607,-0.00866349,0.0216599,0.000813858,0.0661082,0.111132,-9.41563e-06,0,0,0,0,0,0,0,0.209842,-34.8198,0.611891,25.5823,3.17108,1.31554,-0.0703886,
0.262824,0.0237921,0.123078,-1.99725,0.55322,0.263435,0.0363013,0.000552949,-0.0098225,-0.00107631,0.00785204,0.0212882,0.04775,-0.00165188,7.55073e-05,0.0100919,3.90452e-05,-0.0202828,-0.0160129,-0.109978,0.000738904,2.78594,-1.27822,2.64683,-1.28702,1.58698,0.101368,-0.00122776,0.261566,0.0317672,0.123316,-2.00458,0.535582,0.217942,0.0376542,0.0373607,-0.00866349,0.0216599,0.000813858,0.0661082,0.111132,-9.41563e-06,0,0,0,0,0,0,0,0.209842,-34.8198,0.611891,25.5823,3.17108,1.31554,-0.0703886,
0.263555,0.0239707,0.123604,-1.9975,0.555414,0.266411,0.0363096,0.000553196,-0.00977861,-0.0010793,0.00779907,0.0212618,0.0474574,-0.00164992,0.000154218,0.0274298,-0.00186962,-0.0331112,-0.0164915,-0.182871,0.00123043,2.78616,-1.26565,2.64701,-1.30854,1.58612,0.0876442,-0.00114584,0.262413,0.0316674,0.123966,-2.00463,0.538051,0.221683,0.0376549,0.034039,-0.0020369,0.0168432,-0.000618076,0.0625791,0.108756,-0.000108144,-0.415203,0.828323,-0.602092,-0.178992,-0.44114,-0.296993,-0.0123411,0.106693,-34.8714,0.564283,25.6577,3.20129,1.43548,-0.050247,
0.263555,0.0239707,0.123604,-1.9975,0.555414,0.266411,0.0363096,0.000553393,-0.0097435,-0.00108169,0.00775668,0.0212407,0.0472233,-0.00164834,0.000123375,0.0219439,-0.0014957,-0.0264889,-0.0131932,-0.146297,0.00098434,2.78616,-1.26565,2.64701,-1.30854,1.58612,0.0876442,-0.00114584,0.262413,0.0316674,0.123966,-2.00463,0.538051,0.221683,0.0376549,0.034039,-0.0020369,0.0168432,-0.000618076,0.0625791,0.108756,-0.000108144,0,0,0,0,0,0,0,0.106693,-34.8714,0.564283,25.6577,3.20129,1.43548,-0.050247,
0.263555,0.0239707,0.123604,-1.9975,0.555414,0.266411,0.0363096,0.000553551,-0.00971541,-0.00108361,0.00772278,0.0212238,0.0470361,-0.00164708,9.86997e-05,0.0175551,-0.00119656,-0.0211911,-0.0105545,-0.117037,0.000787472,2.78616,-1.26565,2.64701,-1.30854,1.58612,0.0876442,-0.00114584,0.262413,0.0316674,0.123966,-2.00463,0.538051,0.221683,0.0376549,0.034039,-0.0020369,0.0168432,-0.000618076,0.0625791,0.108756,-0.000108144,0,0,0,0,0,0,0,0.106693,-34.8714,0.564283,25.6577,3.20129,1.43548,-0.050247,
0.263555,0.0239707,0.123604,-1.9975,0.555414,0.266411,0.0363096,0.000553678,-0.00969294,-0.00108514,0.00769565,0.0212103,0.0468863,-0.00164607,7.89598e-05,0.0140441,-0.000957248,-0.0169529,-0.00844363,-0.0936299,0.000629978,2.78616,-1.26565,2.64701,-1.30854,1.58612,0.0876442,-0.00114584,0.262413,0.0316674,0.123966,-2.00463,0.538051,0.221683,0.0376549,0.034039,-0.0020369,0.0168432,-0.000618076,0.0625791,0.108756,-0.000108144,0,0,0,0,0,0,0,0.106693,-34.8714,0.564283,25.6577,3.20129,1.43548,-0.050247,
0.264441,0.0238062,0.124501,-1.99764,0.557992,0.269091,0.0363093,0.00055386,-0.00966613,-0.00108558,0.00764173,0.0211567,0.0466095,-0.00164415,0.000113805,0.0167578,-0.000277829,-0.0337016,-0.0334891,-0.172958,0.00120235,2.78633,-1.25346,2.64695,-1.32861,1.58493,0.0754358,-0.00107413,0.263198,0.0315714,0.124758,-2.00467,0.54051,0.225277,0.0376505,0.024892,-0.00783307,0.0319046,-0.00221892,0.0735894,0.104968,-0.00106553,-1.14338,-0.724521,1.88268,-0.200105,1.37628,-0.4735,-0.119673,0.511356,-35.0697,0.838026,25.7092,3.21319,1.5078,-0.0365141,
0.264441,0.0238062,0.124501,-1.99764,0.557992,0.269091,0.0363093,0.000554006,-0.00964468,-0.00108594,0.00759859,0.0211138,0.0463881,-0.00164261,9.10439e-05,0.0134063,-0.000222263,-0.0269613,-0.0267913,-0.138367,0.000961883,2.78633,-1.25346,2.64695,-1.32861,1.58493,0.0754358,-0.00107413,0.263198,0.0315714,0.124758,-2.00467,0.54051,0.225277,0.0376505,0.024892,-0.00783307,0.0319046,-0.00221892,0.0735894,0.104968,-0.00106553,0,0,0,0,0,0,0,0.511356,-35.0697,0.838026,25.7092,3.21319,1.5078,-0.0365141,
0.264441,0.0238062,0.124501,-1.99764,0.557992,0.269091,0.0363093,0.000554122,-0.00962752,-0.00108622,0.00756408,0.0210795,0.046211,-0.00164138,7.28351e-05,0.010725,-0.000177811,-0.021569,-0.021433,-0.110693,0.000769507,2.78633,-1.25346,2.64695,-1.32861,1.58493,0.0754358,-0.00107413,0.263198,0.0315714,0.124758,-2.00467,0.54051,0.225277,0.0376505,0.024892,-0.00783307,0.0319046,-0.00221892,0.0735894,0.104968,-0.00106553,0,0,0,0,0,0,0,0.511356,-35.0697,0.838026,25.7092,3.21319,1.5078,-0.0365141,
0.264441,0.0238062,0.124501,-1.99764,0.557992,0.269091,0.0363093,0.000554215,-0.00961379,-0.00108645,0.00753647,0.0210521,0.0460693,-0.00164039,5.82681e-05,0.00858001,-0.000142249,-0.0172552,-0.0171464,-0.0885547,0.000615605,2.78633,-1.25346,2.64695,-1.32861,1.58493,0.0754358,-0.00107413,0.263198,0.0315714,0.124758,-2.00467,0.54051,0.225277,0.0376505,0.024892,-0.00783307,0.0319046,-0.00221892,0.0735894,0.104968,-0.00106553,0,0,0,0,0,0,0,0.511356,-35.0697,0.838026,25.7092,3.21319,1.5078,-0.0365141,
0.264419,0.0241894,0.124545,-1.99794,0.557108,0.267261,0.0363751,0.000554098,-0.00960851,-0.00109191,0.00754437,0.0210253,0.0461545,-0.00164072,-7.34264e-05,0.00329862,-0.00340965,0.00493492,-0.0167182,0.0532557,-0.000203555,2.78629,-1.23916,2.6467,-1.34999,1.58479,0.0614595,-0.000985689,0.26419,0.0315075,0.125347,-2.00476,0.542711,0.22911,0.0376555,0.0320185,-0.00414728,0.0168375,-0.00134525,0.0593554,0.109589,-0.000814665,0.890807,0.460724,-1.88338,0.109209,-1.77925,0.577571,0.031358,0.182071,-35.0459,0.663466,25.6815,3.19488,1.51513,-0.0630644,
0.264419,0.0241894,0.124545,-1.99794,0.557108,0.267261,0.0363751,0.000554004,-0.00960429,-0.00109627,0.00755069,0.0210039,0.0462227,-0.00164098,-5.87411e-05,0.00263889,-0.00272772,0.00394794,-0.0133746,0.0426046,-0.000162844,2.78629,-1.23916,2.6467,-1.34999,1.58479,0.0614595,-0.000985689,0.26419,0.0315075,0.125347,-2.00476,0.542711,0.22911,0.0376555,0.0320185,-0.00414728,0.0168375,-0.00134525,0.0593554,0.109589,-0.000814665,0,0,0,0,0,0,0,0.182071,-35.0459,0.663466,25.6815,3.19488,1.51513,-0.0630644,
0.264419,0.0241894,0.124545,-1.99794,0.557108,0.267261,0.0363751,0.000553929,-0.00960091,-0.00109976,0.00755574,0.0209868,0.0462772,-0.00164119,-4.69929e-05,0.00211112,-0.00218218,0.00315835,-0.0106997,0.0340837,-0.000130275,2.78629,-1.23916,2.6467,-1.34999,1.58479,0.0614595,-0.000985689,0.26419,0.0315075,0.125347,-2.00476,0.542711,0.22911,0.0376555,0.0320185,-0.00414728,0.0168375,-0.00134525,0.0593554,0.109589,-0.000814665,0,0,0,0,0,0,0,0.182071,-35.0459,0.663466,25.6815,3.19488,1.51513,-0.0630644,
0.264565,0.0313849,0.125689,-2.00458,0.541263,0.231133,0.0376442,0.00488163,-0.00951,0.00314243,0.00845319,-0.00812849,0.0635403,-0.00152192,2.70481,0.0568203,2.65137,0.560907,-18.1971,10.7894,0.0745411,0.0549702,-1.06772,-0.163623,1.07658,-2.58284,1.82323,-0.0163133,0.26419,0.0315075,0.125347,-2.00476,0.542711,0.22911,0.0376555,0.0320185,-0.00414728,0.0168375,-0.00134525,0.0593554,0.109589,-0.000814665,0,0,0,0,0,0,0,0.182071,-35.0459,0.663466,25.6815,3.19488,1.51513,-0.0630644,
0.264719,0.0312966,0.125825,-2.00449,0.539934,0.232269,0.0376331,0.00774871,-0.0098161,0.00591651,0.00917511,-0.0397201,0.0792313,-0.00149502,1.79193,-0.191313,1.7338,0.451199,-19.7448,9.80686,0.0168156,0.0587371,-1.05392,-0.159763,1.05656,-2.5551,1.79694,-0.0162632,0.264963,0.031423,0.126221,-2.00492,0.545019,0.232869,0.0376564,0.0140318,-2.11573e-05,0.0281614,-0.00050691,0.0522989,0.108029,-0.000309095,-2.24833,0.515765,1.41548,0.104792,-0.88206,-0.195021,0.0631962,0.233646,-35.0935,0.611891,25.8084,3.11615,1.52154,-0.0703886,
0.264848,0.0312008,0.125937,-2.00439,0.538401,0.233457,0.0376206,0.00944363,-0.0102464,0.00752601,0.00968129,-0.0701105,0.093096,-0.00150732,1.05933,-0.268926,1.00594,0.316366,-18.994,8.66543,-0.00768706,0.0623813,-1.05227,-0.155934,1.05663,-2.5279,1.78409,-0.0162842,0.264963,0.031423,0.126221,-2.00492,0.545019,0.232869,0.0376564,0.0140318,-2.11573e-05,0.0281614,-0.00050691,0.0522989,0.108029,-0.000309095,0,0,0,0,0,0,0,0.233646,-35.0935,0.611891,25.8084,3.11615,1.52154,-0.0703886,
0.264956,0.0311026,0.126026,-2.0043,0.536741,0.234682,0.0376075,0.0102494,-0.0106539,0.00825966,0.0100123,-0.0975749,0.10508,-0.00153405,0.50362,-0.254668,0.458533,0.206852,-17.1653,7.49033,-0.0167076,0.0655526,-1.05172,-0.152768,1.0564,-2.50154,1.7714,-0.0162905,0.264963,0.031423,0.126221,-2.00492,0.545019,0.232869,0.0376564,0.0140318,-2.11573e-05,0.0281614,-0.00050691,0.0522989,0.108029,-0.000309095,0,0,0,0,0,0,0,0.233646,-35.0935,0.611891,25.8084,3.11615,1.52154,-0.0703886,
0.265109,0.0319245,0.12636,-2.0054,0.545138,0.233863,0.0376375,0.0118477,0.00401372,0.0100758,-0.00381518,-0.075074,0.108925,-0.00170022,0.998893,9.16723,1.13508,-8.64215,14.0631,2.40269,-0.103859,0.000604086,30.0405,-0.207866,-22.174,-2.60653,-0.619094,-0.00591617,0.264963,0.031423,0.126221,-2.00492,0.545019,0.232869,0.0376564,0.0140318,-2.11573e-05,0.0281614,-0.00050691,0.0522989,0.108029,-0.000309095,0,0,0,0,0,0,0,0.233646,-35.0935,0.611891,25.8084,3.11615,1.52154,-0.0703886,
0.265407,0.0322734,0.126664,-2.00554,0.541567,0.235821,0.0376812,0.0169207,0.0119342,0.0156677,-0.00667482,-0.149335,0.136093,-0.000267822,3.17063,4.95031,3.49492,-1.78727,-46.4135,16.9798,0.895251,0.705808,-0.901925,0.501823,0.996778,-11.6817,5.78761,-0.0107708,0.265782,0.0313476,0.126906,-2.00498,0.546928,0.236027,0.0376559,0.0222832,-0.000837092,0.0129719,0.00232402,0.00897118,0.0904008,-0.000160651,1.03142,-0.101992,-1.89868,0.353866,-5.41597,-2.20347,0.0185554,-1.00811,-35.0221,-0.586229,25.9314,2.12005,1.91247,-0.0566557,
0.26576,0.032481,0.127012,-2.00559,0.535909,0.238483,0.0377001,0.0223717,0.0147379,0.0212474,-0.00664308,-0.260922,0.17541,0.000258547,3.40689,1.7523,3.48734,0.0198357,-69.7417,24.5737,0.328981,0.783027,-0.851508,0.589234,1.01343,-11.4078,5.6513,-0.0123412,0.265782,0.0313476,0.126906,-2.00498,0.546928,0.236027,0.0376559,0.0222832,-0.000837092,0.0129719,0.00232402,0.00897118,0.0904008,-0.000160651,0,0,0,0,0,0,0,-1.00811,-35.0221,-0.586229,25.9314,2.12005,1.91247,-0.0566557,
0.266114,0.0325939,0.127354,-2.00561,0.529062,0.241597,0.0377044,0.02674,0.0146116,0.0255522,-0.00579293,-0.379924,0.218173,0.000315408,2.73019,-0.0789133,2.69052,0.531342,-74.3761,26.7269,0.0355381,0.870578,-0.833363,0.681647,1.02359,-11.1627,5.53403,-0.0129195,0.265782,0.0313476,0.126906,-2.00498,0.546928,0.236027,0.0376559,0.0222832,-0.000837092,0.0129719,0.00232402,0.00897118,0.0904008,-0.000160651,0,0,0,0,0,0,0,-1.00811,-35.0221,-0.586229,25.9314,2.12005,1.91247,-0.0566557,
0.266696,0.030579,0.127791,-2.00547,0.535718,0.245106,0.0379685,0.0338574,0.00128605,0.0326288,-0.0106012,-0.477854,0.309074,0.00339767,4.44836,-8.32849,4.42289,-3.00519,-61.2063,56.8129,1.92642,1.48441,-7.9149,0.817806,-2.0535,-14.6072,11.3693,0.165722,0.265782,0.0313476,0.126906,-2.00498,0.546928,0.236027,0.0376559,0.0222832,-0.000837092,0.0129719,0.00232402,0.00897118,0.0904008,-0.000160651,0,0,0,0,0,0,0,-1.00811,-35.0221,-0.586229,25.9314,2.12005,1.91247,-0.0566557,
0.267198,0.030203,0.128291,-2.00565,0.527082,0.251542,0.0380618,0.0396465,-0.0083696,0.0386136,-0.0129214,-0.59818,0.408161,0.00505095,3.61822,-6.03478,3.74045,-1.45011,-75.2038,61.9295,1.0333,0.528114,-5.40422,0.177882,-1.68778,-14.6072,11.3693,0.108479,0.265782,0.0313476,0.126906,-2.00498,0.546928,0.236027,0.0376559,0.0222832,-0.000837092,0.0129719,0.00232402,0.00897118,0.0904008,-0.000160651,0,0,0,0,0,0,0,-1.00811,-35.0221,-0.586229,25.9314,2.12005,1.91247,-0.0566557,
0.267674,0.0298993,0.128773,-2.00578,0.517398,0.258683,0.0381414,0.0436051,-0.0142894,0.0429276,-0.0136419,-0.720648,0.505051,0.00603046,2.47411,-3.69989,2.69628,-0.450288,-76.5423,60.556,0.612191,0.564524,-3.33054,0.446575,-1.34481,-14.5893,11.3343,0.0882751,0.266361,0.0313499,0.1275,-2.00474,0.541134,0.240878,0.0376604,0.0130615,0.00936767,0.00937554,-0.00206043,-0.209074,0.118864,0.00029379,-1.15271,1.2756,-0.449549,-0.548057,-27.2556,3.55788,0.0568051,-1.21045,-32.5743,-0.736986,23.2416,2.27935,0.632559,-0.0969389,
0.26756,0.0308995,0.12876,-2.00535,0.518968,0.256692,0.0379699,0.0462692,-0.0149445,0.0462239,-0.015361,-0.804616,0.567555,0.00701496,1.66509,-0.409437,2.06017,-1.07444,-52.4799,39.0651,0.615317,0.564524,-3.33054,0.446575,-1.34481,-14.5893,11.3343,0.0882751,0.266361,0.0313499,0.1275,-2.00474,0.541134,0.240878,0.0376604,0.0130615,0.00936767,0.00937554,-0.00206043,-0.209074,0.118864,0.00029379,0,0,0,0,0,0,0,-1.21045,-32.5743,-0.736986,23.2416,2.27935,0.632559,-0.0969389,
0.268012,0.0308055,0.129236,-2.0055,0.508945,0.263933,0.0380499,0.0483266,-0.0143055,0.0488679,-0.0161293,-0.894263,0.635061,0.00761113,1.28584,0.399365,1.6525,-0.480179,-56.0295,42.1913,0.372606,0.973831,-1.91032,1.00988,-1.12316,-14.5893,11.3343,0.0828427,0.266361,0.0313499,0.1275,-2.00474,0.541134,0.240878,0.0376604,0.0130615,0.00936767,0.00937554,-0.00206043,-0.209074,0.118864,0.00029379,0,0,0,0,0,0,0,-1.21045,-32.5743,-0.736986,23.2416,2.27935,0.632559,-0.0969389,
