xiao-wang007/linearmpc_panda/paper_data/panda_inverse_dynamics_controller_error_match_to_start_low_pass_acceleration/0/trajectory.csv
Commanded Joint 0 Position,Commanded Joint 1 Position,Commanded Joint 2 Position,Commanded Joint 3 Position,Commanded Joint 4 Position,Commanded Joint 5 Position,Commanded Joint 6 Position,Commanded Joint 0 Velocity,Commanded Joint 1 Velocity,Commanded Joint 2 Velocity,Commanded Joint 3 Velocity,Commanded Joint 4 Velocity,Commanded Joint 5 Velocity,Commanded Joint 6 Velocity,Commanded Joint 0 Acceleration,Commanded Joint 1 Acceleration,Commanded Joint 2 Acceleration,Commanded Joint 3 Acceleration,Commanded Joint 4 Acceleration,Commanded Joint 5 Acceleration,Commanded Joint 6 Acceleration,Commanded Joint 0 Torque,Commanded Joint 1 Torque,Commanded Joint 2 Torque,Commanded Joint 3 Torque,Commanded Joint 4 Torque,Commanded Joint 5 Torque,Commanded Joint 6 Torque,Actual Joint 0 Position,Actual Joint 1 Position,Actual Joint 2 Position,Actual Joint 3 Position,Actual Joint 4 Position,Actual Joint 5 Position,Actual Joint 6 Position,Actual Joint 0 Velocity,Actual Joint 1 Velocity,Actual Joint 2 Velocity,Actual Joint 3 Velocity,Actual Joint 4 Velocity,Actual Joint 5 Velocity,Actual Joint 6 Velocity,Actual Joint 0 Acceleration,Actual Joint 1 Acceleration,Actual Joint 2 Acceleration,Actual Joint 3 Acceleration,Actual Joint 4 Acceleration,Actual Joint 5 Acceleration,Actual Joint 6 Acceleration,Actual Joint 0 Torque,Actual Joint 1 Torque,Actual Joint 2 Torque,Actual Joint 3 Torque,Actual Joint 4 Torque,Actual Joint 5 Torque,Actual Joint 6 Torque,
0.0864597,0.00461621,-0.0949456,-1.85237,-0.0227398,0.295637,-0.0114262,-2.71345e-05,0.0231165,-5.53431e-05,-0.0330482,-0.00287847,0.0570792,-0.000395352,-0.0169591,14.4478,-0.0345894,-20.6551,-1.79904,35.6745,-0.247095,0.0581404,24.5487,0.0632882,-24.2924,-0.476292,2.07567,-0.0252585,0.0864611,0.00344441,-0.0949311,-1.84925,-0.0225203,0.289571,-0.0113761,-0.00707442,-0.000339482,-0.000832949,0.00120917,0.00388376,0.000377677,0.000355022,0,0,0,0,0,0,0,0.106693,-35.645,-0.0863513,27.0264,0.379635,3.07976,-0.0365141,
0.0864066,0.00343498,-0.0949842,-1.84924,-0.0225359,0.289592,-0.0113741,-0.000355447,0.0184307,-0.000372709,-0.0263711,-0.00261455,0.0458417,-0.000306514,-0.205195,-2.92867,-0.198354,4.1732,0.164948,-7.02346,0.0555237,0.0523776,24.9893,0.0529383,-24.2088,-0.476913,1.82451,-0.0237399,0.0864611,0.00344441,-0.0949311,-1.84925,-0.0225203,0.289571,-0.0113761,-0.00707442,-0.000339482,-0.000832949,0.00120917,0.00388376,0.000377677,0.000355022,0,0,0,0,0,0,0,0.106693,-35.645,-0.0863513,27.0264,0.379635,3.07976,-0.0365141,
0.0863963,0.00343317,-0.0949944,-1.84924,-0.0225493,0.289599,-0.0113738,-0.000543155,0.0146991,-0.0005525,-0.0210416,-0.00242815,0.0368396,-0.000238927,-0.117318,-2.33221,-0.112369,3.33089,0.116502,-5.62631,0.0422421,0.0451422,25.5624,0.0413078,-24.1002,-0.476597,1.47726,-0.021775,0.0864639,0.00351085,-0.09493,-1.84931,-0.0225197,0.289567,-0.0113739,-0.00158009,0.000148157,-0.000756323,0.000263162,0.00851482,0.000220716,0.00174546,0.686792,0.0609548,0.00957826,-0.118251,0.578882,-0.0196201,0.173805,0.0551182,-35.5934,-0.110155,27.1017,0.373226,3.11272,-0.0566557,
0.0863882,0.00343194,-0.0950023,-1.84924,-0.022562,0.289605,-0.0113736,-0.000637491,0.0117285,-0.000641055,-0.0167874,-0.00225973,0.0296255,-0.00018699,-0.05896,-1.85661,-0.0553471,2.6589,0.105258,-4.50877,0.0324605,0.0391687,26.0864,0.0318562,-23.9325,-0.474823,1.09186,-0.0197741,0.0864639,0.00351085,-0.09493,-1.84931,-0.0225197,0.289567,-0.0113739,-0.00158009,0.000148157,-0.000756323,0.000263162,0.00851482,0.000220716,0.00174546,0,0,0,0,0,0,0,0.0551182,-35.5934,-0.110155,27.1017,0.373226,3.11272,-0.0566557,
0.0864625,0.00395673,-0.0949325,-1.84985,-0.0226159,0.289895,-0.0113683,-0.000545194,0.0205297,-0.000573775,-0.0269581,-0.00421334,0.0318859,-9.26449e-06,0.0576856,5.50075,0.0420499,-6.35669,-1.22101,1.4127,0.111078,4.59991e-06,30.7124,0.00694507,-23.1997,-0.901098,-2.16326,0.000101443,0.0864639,0.00351085,-0.09493,-1.84931,-0.0225197,0.289567,-0.0113739,-0.00158009,0.000148157,-0.000756323,0.000263162,0.00851482,0.000220716,0.00174546,0,0,0,0,0,0,0,0.0551182,-35.5934,-0.110155,27.1017,0.373226,3.11272,-0.0566557,
0.0864211,0.00437607,-0.0949749,-1.85008,-0.0218285,0.289389,-0.0113834,-0.0014723,0.0269075,-0.00151948,-0.0273427,0.0163131,0.0128565,-0.00038652,-0.579438,3.98606,-0.591066,-0.240404,12.8291,-11.8933,-0.235785,0.526256,0.151785,0.528534,-0.244233,2.86656,-1.62101,-0.00160399,0.0864639,0.00351085,-0.09493,-1.84931,-0.0225197,0.289567,-0.0113739,-0.00158009,0.000148157,-0.000756323,0.000263162,0.00851482,0.000220716,0.00174546,0,0,0,0,0,0,0,0.0551182,-35.5934,-0.110155,27.1017,0.373226,3.11272,-0.0566557,
0.0863683,0.00470814,-0.0950274,-1.85023,-0.0205165,0.288511,-0.011393,-0.00249637,0.0298276,-0.00252909,-0.025603,0.0458514,-0.0116646,-0.00054971,-0.640044,1.82507,-0.631007,1.08732,18.4614,-15.3257,-0.101994,0.519369,0.150068,0.521646,-0.24193,2.84084,-1.6075,-0.0015541,0.0864492,0.0039907,-0.0949464,-1.8496,-0.0224984,0.289543,-0.0113784,-0.0046709,0.0539903,-0.00149171,-0.0274968,0.0106421,0.00205465,0.000319545,-0.386351,6.73027,-0.091923,-3.46999,0.265907,0.229242,-0.17824,0.233646,-26.9328,0.0882092,18.0841,0.17181,1.79345,-0.0163725,
0.0863189,0.00496293,-0.0950762,-1.85035,-0.0188947,0.287436,-0.0113986,-0.00323309,0.0302319,-0.00324179,-0.0234285,0.0772253,-0.0361884,-0.000578864,-0.460453,0.252705,-0.445435,1.35909,19.6087,-15.3273,-0.018221,0.513082,0.162878,0.516308,-0.233589,2.81623,-1.58889,-0.0015562,0.0864492,0.0039907,-0.0949464,-1.8496,-0.0224984,0.289543,-0.0113784,-0.0046709,0.0539903,-0.00149171,-0.0274968,0.0106421,0.00205465,0.000319545,0,0,0,0,0,0,0,0.233646,-26.9328,0.0882092,18.0841,0.17181,1.79345,-0.0163725,
0.0864387,0.00476828,-0.094957,-1.85031,-0.022616,0.28977,-0.0113731,-0.00284709,0.0436251,-0.00285833,-0.0365927,0.0588405,-0.0232739,-0.000332807,0.241248,8.37075,0.239663,-8.22766,-11.4905,8.07154,0.153786,0.00076173,30.7271,0.0086503,-23.1936,-0.900593,-2.15822,7.45421e-05,0.0864492,0.0039907,-0.0949464,-1.8496,-0.0224984,0.289543,-0.0113784,-0.0046709,0.0539903,-0.00149171,-0.0274968,0.0106421,0.00205465,0.000319545,0,0,0,0,0,0,0,0.233646,-26.9328,0.0882092,18.0841,0.17181,1.79345,-0.0163725,
0.0863127,0.00544385,-0.095087,-1.85059,-0.0193821,0.287959,-0.0114253,-0.00542874,0.0517893,-0.00553494,-0.0362356,0.127918,-0.0638989,-0.00157022,-1.61353,5.10263,-1.67288,0.223192,43.1734,-25.3906,-0.773381,4.01219,0.0129572,4.01342,-1.53197,11.0994,-6.02141,-0.00315582,0.0864492,0.0039907,-0.0949464,-1.8496,-0.0224984,0.289543,-0.0113784,-0.0046709,0.0539903,-0.00149171,-0.0274968,0.0106421,0.00205465,0.000319545,0,0,0,0,0,0,0,0.233646,-26.9328,0.0882092,18.0841,0.17181,1.79345,-0.0163725,
0.0861696,0.00594872,-0.0952303,-1.85078,-0.0141587,0.285095,-0.0114552,-0.00792047,0.054053,-0.00801288,-0.0337633,0.23292,-0.122718,-0.00200443,-1.55733,1.41484,-1.54871,1.54518,65.6261,-36.7621,-0.271382,3.95065,0.0929433,3.95069,-1.46705,11.0994,-5.82929,-0.00257072,0.0864492,0.0039907,-0.0949464,-1.8496,-0.0224984,0.289543,-0.0113784,-0.0046709,0.0539903,-0.00149171,-0.0274968,0.0106421,0.00205465,0.000319545,0,0,0,0,0,0,0,0.233646,-26.9328,0.0882092,18.0841,0.17181,1.79345,-0.0163725,
0.0860567,0.00631714,-0.095342,-1.85096,-0.00773941,0.281637,-0.0114703,-0.00915965,0.052453,-0.00920036,-0.0314057,0.346819,-0.184623,-0.00197952,-0.774487,-1.00002,-0.742179,1.47354,71.1868,-38.6902,0.0155692,3.88181,0.180591,3.88302,-1.3973,11.1008,-5.62143,-0.00205758,0.086459,0.00505599,-0.0949366,-1.85074,-0.022499,0.289661,-0.0113789,-0.00205364,0.0788226,0.000250976,-0.0531362,0.013823,0.00691239,-0.000876182,0.327157,3.10404,0.217835,-3.20492,0.397617,0.607218,-0.149466,-0.0440639,-27.1828,-0.237108,16.9891,0.21484,1.43548,0.017502,
0.0864636,0.00600933,-0.0949321,-1.85157,-0.0226095,0.289809,-0.0113743,-0.00721162,0.0657959,-0.00724612,-0.0458833,0.274694,-0.143986,-0.00146931,1.21752,8.33929,1.2214,-9.04849,-45.0781,25.398,0.31888,0.00138839,30.7571,0.0113806,-23.1807,-0.899227,-2.14657,1.10988e-05,0.086459,0.00505599,-0.0949366,-1.85074,-0.022499,0.289661,-0.0113789,-0.00205364,0.0788226,0.000250976,-0.0531362,0.013823,0.00691239,-0.000876182,0,0,0,0,0,0,0,-0.0440639,-27.1828,-0.237108,16.9891,0.21484,1.43548,0.017502,
0.0868705,0.00672283,-0.094512,-1.85195,-0.0203772,0.285859,-0.0113105,0.00440287,0.0704741,0.00470583,-0.0460752,0.275562,-0.213931,0.000419164,7.25906,2.92392,7.46997,-0.119957,0.542811,-43.7158,1.18029,30.3895,1.31857,30.3853,-9.44207,11.1008,-14.1466,0.086694,0.086459,0.00505599,-0.0949366,-1.85074,-0.022499,0.289661,-0.0113789,-0.00205364,0.0788226,0.000250976,-0.0531362,0.013823,0.00691239,-0.000876182,0,0,0,0,0,0,0,-0.0440639,-27.1828,-0.237108,16.9891,0.21484,1.43548,0.017502,
0.0876039,0.007244,-0.0937697,-1.8522,-0.0164387,0.27944,-0.0112358,0.0218581,0.0694086,0.0223219,-0.0431394,0.318911,-0.33162,0.00220457,10.9095,-0.665944,11.01,1.83489,27.0932,-73.5558,1.11588,28.8722,2.76872,28.8406,-7.59664,11.1008,-14.1466,0.0926942,0.086459,0.00505599,-0.0949366,-1.85074,-0.022499,0.289661,-0.0113789,-0.00205364,0.0788226,0.000250976,-0.0531362,0.013823,0.00691239,-0.000876182,0,0,0,0,0,0,0,-0.0440639,-27.1828,-0.237108,16.9891,0.21484,1.43548,0.017502,
0.0865044,0.00889328,-0.0948624,-1.85371,-0.0222494,0.288601,-0.0113674,0.0184067,0.0881414,0.0187923,-0.0599369,0.254553,-0.266877,0.00188814,-2.15714,11.708,-2.20598,-10.4985,-40.2239,40.4644,-0.197772,0.00319447,30.8289,0.0181781,-23.1461,-0.896611,-2.11528,-0.000156069,0.0864676,0.0075887,-0.0948998,-1.85269,-0.0222264,0.288664,-0.0113724,0.00257271,0.13598,0.00442627,-0.0809408,0.0332878,-0.0141225,0.001882,0.578295,7.14469,0.521912,-3.47558,2.4331,-2.62936,0.344773,-0.0718349,-27.0598,-0.260912,19.8535,0.581051,1.28899,-0.0301054,
0.0871062,0.00964005,-0.0942482,-1.85466,-0.0202617,0.284733,-0.01119,0.0297698,0.0891823,0.0303896,-0.0717158,0.253335,-0.310203,0.0059469,7.10193,0.65062,7.24831,-7.36181,-0.761135,-27.0783,2.53673,38.8079,-2.84823,38.6801,-16.5312,11.1034,-14.1153,0.21615,0.0864676,0.0075887,-0.0948998,-1.85269,-0.0222264,0.288664,-0.0113724,0.00257271,0.13598,0.00442627,-0.0809408,0.0332878,-0.0141225,0.001882,0,0,0,0,0,0,0,-0.0718349,-27.0598,-0.260912,19.8535,0.581051,1.28899,-0.0301054,
0.0881049,0.0100888,-0.0932475,-1.85555,-0.0166098,0.278377,-0.0110892,0.0487847,0.0825654,0.0493305,-0.0794771,0.293967,-0.407053,0.00727671,11.8843,-4.13559,11.8381,-4.85082,25.3949,-60.5317,0.831131,34.9709,-0.747189,34.7975,-14.6799,11.1034,-14.1153,0.114526,0.0864676,0.0075887,-0.0948998,-1.85269,-0.0222264,0.288664,-0.0113724,0.00257271,0.13598,0.00442627,-0.0809408,0.0332878,-0.0141225,0.001882,0,0,0,0,0,0,0,-0.0718349,-27.0598,-0.260912,19.8535,0.581051,1.28899,-0.0301054,
0.0893763,0.010385,-0.091979,-1.85637,-0.0116436,0.270399,-0.0110398,0.0708132,0.0734578,0.0711757,-0.0842374,0.359329,-0.525097,0.00705711,13.7678,-5.69226,13.6532,-2.9752,40.851,-73.7771,-0.137249,32.0091,0.406981,31.8355,-13.0112,11.1034,-14.1153,0.0543583,0.0864676,0.0075887,-0.0948998,-1.85269,-0.0222264,0.288664,-0.0113724,0.00257271,0.13598,0.00442627,-0.0809408,0.0332878,-0.0141225,0.001882,0,0,0,0,0,0,0,-0.0718349,-27.0598,-0.260912,19.8535,0.581051,1.28899,-0.0301054,
0.0890281,0.0115806,-0.0918122,-1.85899,-0.00827441,0.273643,-0.0109293,0.0939659,0.0624878,0.0942423,-0.1058,0.393811,-0.583512,0.00840624,14.4704,-6.85622,14.4167,-13.4768,21.5513,-36.5095,0.843204,49.7626,-8.18437,49.4502,-25.7845,11.083,-14.058,0.38203,0.0865078,0.0109832,-0.0943446,-1.8559,-0.0156385,0.284421,-0.0113734,0.0167066,0.16816,0.0453031,-0.121784,0.288209,-0.164375,0.00152644,1.76673,4.02244,5.10961,-5.1054,31.8652,-18.7815,-0.0444454,5.71247,-31.6777,5.46388,26.6772,1.54602,2.03148,-0.0163725,
0.0907958,0.0116501,-0.0900497,-1.86042,-0.00291951,0.265553,-0.0109457,0.119366,0.0517289,0.119456,-0.120323,0.448921,-0.669055,0.00631376,15.8749,-6.72436,15.7585,-9.07686,34.444,-53.4645,-1.3078,42.4417,-3.78134,42.188,-23.0848,11.083,-14.058,0.104433,0.0865078,0.0109832,-0.0943446,-1.8559,-0.0156385,0.284421,-0.0113734,0.0167066,0.16816,0.0453031,-0.121784,0.288209,-0.164375,0.00152644,0,0,0,0,0,0,0,5.71247,-31.6777,5.46388,26.6772,1.54602,2.03148,-0.0163725,
0.0927296,0.0116987,-0.0881237,-1.86177,0.00335468,0.256474,-0.0110025,0.143837,0.042597,0.143714,-0.130163,0.515992,-0.762217,0.00363305,15.2947,-5.70742,15.1615,-6.14948,41.919,-58.2263,-1.67545,37.6303,-0.871184,37.4263,-20.7379,11.083,-14.058,-0.0363091,0.0865078,0.0109832,-0.0943446,-1.8559,-0.0156385,0.284421,-0.0113734,0.0167066,0.16816,0.0453031,-0.121784,0.288209,-0.164375,0.00152644,0,0,0,0,0,0,0,5.71247,-31.6777,5.46388,26.6772,1.54602,2.03148,-0.0163725,
0.0947578,0.0117099,-0.0861049,-1.86313,0.0103553,0.246793,-0.0110217,0.165773,0.0343578,0.165441,-0.138136,0.587808,-0.851793,0.00242483,13.7102,-5.14946,13.5793,-4.98337,44.8855,-55.9846,-0.755137,34.3844,0.0918982,34.2074,-19.1363,11.083,-14.058,-0.0765354,0.0865078,0.0109832,-0.0943446,-1.8559,-0.0156385,0.284421,-0.0113734,0.0167066,0.16816,0.0453031,-0.121784,0.288209,-0.164375,0.00152644,0,0,0,0,0,0,0,5.71247,-31.6777,5.46388,26.6772,1.54602,2.03148,-0.0163725,
0.0875355,0.0114317,-0.0933043,-1.85745,-0.0125283,0.28018,-0.0110397,0.15831,0.0387,0.158361,-0.149273,0.548001,-0.787452,0.0102821,-4.66442,2.71387,-4.42501,-6.96058,-24.8795,40.2127,4.9108,49.793,-8.04937,49.4854,-25.6737,11.0834,-13.9268,0.381516,0.0881907,0.0142756,-0.0909946,-1.86207,-0.00627607,0.274423,-0.0113775,0.0851922,0.180201,0.166125,-0.20053,0.274203,-0.257206,0.00140521,8.56071,1.5052,15.1028,-9.84329,-1.75079,-11.6039,-0.0151543,16.9954,-32.2252,16.6358,29.8193,2.83508,1.79986,-0.00996382,
0.0890281,0.0115806,-0.0918122,-1.85899,-0.00827441,0.273643,-0.0109293,0.163964,0.0346816,0.163991,-0.157829,0.544749,-0.793396,0.0109862,3.53326,-2.5115,3.51848,-5.34741,-2.03276,-3.71509,0.44008,42.4721,-3.64633,42.2232,-22.974,11.0834,-13.9268,0.103918,0.0881907,0.0142756,-0.0909946,-1.86207,-0.00627607,0.274423,-0.0113775,0.0851922,0.180201,0.166125,-0.20053,0.274203,-0.257206,0.00140521,0,0,0,0,0,0,0,16.9954,-32.2252,16.6358,29.8193,2.83508,1.79986,-0.00996382,
0.0907958,0.0116501,-0.0900497,-1.86042,-0.00291951,0.265553,-0.0109457,0.175364,0.0294839,0.175254,-0.161946,0.569672,-0.836963,0.00837776,7.12518,-3.24859,7.03991,-2.57332,15.5768,-27.2289,-1.6303,37.6606,-0.736182,37.4615,-20.627,11.0834,-13.9268,-0.0368237,0.0881907,0.0142756,-0.0909946,-1.86207,-0.00627607,0.274423,-0.0113775,0.0851922,0.180201,0.166125,-0.20053,0.274203,-0.257206,0.00140521,0,0,0,0,0,0,0,16.9954,-32.2252,16.6358,29.8193,2.83508,1.79986,-0.00996382,
0.0928912,0.0162972,-0.0862929,-1.86637,0.0087141,0.253486,-0.0114863,0.184047,0.0341784,0.183837,-0.164731,0.608078,-0.882171,0.00617304,5.42707,2.93409,5.36421,-1.74086,24.0039,-28.2552,-1.37795,37.6606,-0.736182,37.4615,-20.627,11.0834,-13.9268,-0.0368237,0.0881907,0.0142756,-0.0909946,-1.86207,-0.00627607,0.274423,-0.0113775,0.0851922,0.180201,0.166125,-0.20053,0.274203,-0.257206,0.00140521,0,0,0,0,0,0,0,16.9954,-32.2252,16.6358,29.8193,2.83508,1.79986,-0.00996382,
0.094722,0.0165247,-0.0844684,-1.86786,0.0155982,0.244276,-0.0114802,0.193009,0.0330306,0.192682,-0.168881,0.658565,-0.936007,0.00508954,5.60125,-0.717403,5.52802,-2.59371,31.5543,-33.6473,-0.677187,34.6929,0.69614,34.5184,-18.8441,11.2229,-13.595,-0.0775075,0.0951831,0.0154946,-0.0805745,-1.87103,0.00582631,0.253268,-0.0113722,0.297024,0.0205563,0.442914,-0.305814,0.459561,-0.793373,0.000453823,26.479,-19.9556,34.5985,-13.1604,23.1698,-67.0208,-0.118923,24.5769,-40.1875,23.9118,31.2634,4.66064,0.871512,-0.0301054,
0.0965689,0.0166276,-0.0826285,-1.86943,0.0231157,0.234927,-0.0115217,0.200579,0.0289968,0.200144,-0.17435,0.714789,-0.982523,0.00303507,4.73106,-2.52111,4.66371,-3.41813,35.1404,-29.0725,-1.28405,32.1142,0.0226995,31.9563,-18.29,11.2229,-13.595,-0.0233167,0.0951831,0.0154946,-0.0805745,-1.87103,0.00582631,0.253268,-0.0113722,0.297024,0.0205563,0.442914,-0.305814,0.459561,-0.793373,0.000453823,0,0,0,0,0,0,0,24.5769,-40.1875,23.9118,31.2634,4.66064,0.871512,-0.0301054,
0.0983972,0.0166944,-0.0808071,-1.87104,0.0311053,0.225947,-0.0116036,0.20617,0.0248681,0.205649,-0.179883,0.771571,-1.01052,0.000380052,3.49434,-2.58044,3.44064,-3.45788,35.4887,-17.5011,-1.65939,29.2312,-1.40446,29.0994,-18.7243,11.2229,-13.3105,0.0125579,0.0951831,0.0154946,-0.0805745,-1.87103,0.00582631,0.253268,-0.0113722,0.297024,0.0205563,0.442914,-0.305814,0.459561,-0.793373,0.000453823,0,0,0,0,0,0,0,24.5769,-40.1875,23.9118,31.2634,4.66064,0.871512,-0.0301054,
0.102925,0.0162258,-0.0728812,-1.87586,0.0268734,0.226204,-0.0115077,0.225323,0.0233804,0.224495,-0.184073,0.818232,-1.04289,-0.00116183,11.9709,-0.929795,11.7786,-2.61895,29.163,-20.2314,-0.963676,32.1142,0.0226995,31.9563,-18.29,11.2229,-13.595,-0.0233167,0.0951831,0.0154946,-0.0805745,-1.87103,0.00582631,0.253268,-0.0113722,0.297024,0.0205563,0.442914,-0.305814,0.459561,-0.793373,0.000453823,0,0,0,0,0,0,0,24.5769,-40.1875,23.9118,31.2634,4.66064,0.871512,-0.0301054,
0.105192,0.0163288,-0.070628,-1.8775,0.0354407,0.217216,-0.0116012,0.236932,0.0212808,0.235925,-0.1882,0.868768,-1.05903,-0.0032666,7.25577,-1.3123,7.14375,-2.5792,31.5848,-10.0855,-1.31548,29.2231,-1.71005,29.0846,-18.6549,11.1721,-13.2291,0.0120414,0.103152,0.0159258,-0.0684302,-1.88042,0.0152369,0.222829,-0.0113644,0.223368,-0.0299749,0.364423,-0.259504,0.266172,-0.931851,0.00120304,-9.20697,-6.31641,-9.81138,5.78878,-24.1737,-17.3097,0.0936517,0.463749,-42.3338,0.663466,33.1558,0.971981,2.44988,-0.0566557,
0.107332,0.0164355,-0.0685002,-1.87915,0.0443045,0.208926,-0.0117035,0.24304,0.0196917,0.241935,-0.191801,0.916608,-1.05446,-0.00516979,3.81743,-0.993142,3.75651,-2.25062,29.9004,2.8577,-1.18949,26.1156,-1.93121,26.0124,-18.7596,11.1721,-12.0092,-0.0491987,0.103152,0.0159258,-0.0684302,-1.88042,0.0152369,0.222829,-0.0113644,0.223368,-0.0299749,0.364423,-0.259504,0.266172,-0.931851,0.00120304,0,0,0,0,0,0,0,0.463749,-42.3338,0.663466,33.1558,0.971981,2.44988,-0.0566557,
0.109364,0.0165576,-0.0664787,-1.8808,0.0533147,0.201481,-0.0118017,0.245238,0.0188048,0.244087,-0.194673,0.958541,-1.0297,-0.00659079,1.37342,-0.554343,1.34481,-1.79486,26.2082,15.4751,-0.888129,23.8473,-1.05822,23.7687,-18.1416,11.1721,-10.1504,-0.10046,0.103152,0.0159258,-0.0684302,-1.88042,0.0152369,0.222829,-0.0113644,0.223368,-0.0299749,0.364423,-0.259504,0.266172,-0.931851,0.00120304,0,0,0,0,0,0,0,0.463749,-42.3338,0.663466,33.1558,0.971981,2.44988,-0.0566557,
0.107427,0.0158182,-0.0641802,-1.88353,0.02624,0.204918,-0.0114501,0.248143,0.0136514,0.24682,-0.194288,0.924767,-1.05093,-0.00680426,1.81574,-3.22088,1.70836,0.240592,-21.1087,-13.2724,-0.133415,29.2231,-1.71005,29.0846,-18.6549,11.1721,-13.2291,0.0120414,0.103152,0.0159258,-0.0684302,-1.88042,0.0152369,0.222829,-0.0113644,0.223368,-0.0299749,0.364423,-0.259504,0.266172,-0.931851,0.00120304,0,0,0,0,0,0,0,0.463749,-42.3338,0.663466,33.1558,0.971981,2.44988,-0.0566557,
0.109403,0.0157757,-0.0622173,-1.8851,0.0335863,0.196174,-0.0115438,0.247901,0.00985955,0.246527,-0.194626,0.923472,-1.05935,-0.00778568,-0.151278,-2.36989,-0.183468,-0.21141,-0.809717,-5.25803,-0.613388,26.1789,-2.02029,26.0679,-18.5144,11.1776,-11.7529,-0.0500872,0.111987,0.0158686,-0.0545288,-1.88893,0.0261881,0.190652,-0.0113701,0.244104,-0.0823257,0.444979,-0.262918,0.410504,-1.02425,-0.000682458,2.592,-6.54384,10.0696,-0.42675,18.0415,-11.5505,-0.235687,1.88404,-35.2681,1.98854,24.162,2.20611,1.16356,0.0376436,
0.111297,0.0157677,-0.0603341,-1.88669,0.0415629,0.188103,-0.0116451,0.245664,0.00768845,0.244301,-0.195388,0.938193,-1.04925,-0.0087609,-1.39816,-1.35694,-1.39114,-0.47616,9.20063,6.30843,-0.609513,23.9106,-1.1473,23.8242,-17.8964,11.1776,-9.89415,-0.101348,0.111987,0.0158686,-0.0545288,-1.88893,0.0261881,0.190652,-0.0113701,0.244104,-0.0823257,0.444979,-0.262918,0.410504,-1.02425,-0.000682458,0,0,0,0,0,0,0,1.88404,-35.2681,1.98854,24.162,2.20611,1.16356,0.0376436,
0.118635,0.015321,-0.0479235,-1.89367,0.0471147,0.167237,-0.0117159,0.247398,0.00421309,0.245937,-0.195015,0.950436,-1.0166,-0.00970113,1.08367,-2.1721,1.02278,0.232996,7.65171,20.4071,-0.587641,23.9106,-1.1473,23.8242,-17.8964,11.1776,-9.89415,-0.101348,0.111987,0.0158686,-0.0545288,-1.88893,0.0261881,0.190652,-0.0113701,0.244104,-0.0823257,0.444979,-0.262918,0.410504,-1.02425,-0.000682458,0,0,0,0,0,0,0,1.88404,-35.2681,1.98854,24.162,2.20611,1.16356,0.0376436,
0.120553,0.0153001,-0.0460179,-1.89522,0.0555593,0.161017,-0.011813,0.245862,0.00284719,0.24439,-0.194759,0.971463,-0.968781,-0.0101882,-0.959954,-0.85369,-0.967151,0.159977,13.1418,29.8889,-0.304406,22.4659,-0.459454,22.3897,-17.2741,11.1776,-8.15299,-0.116925,0.111987,0.0158686,-0.0545288,-1.88893,0.0261881,0.190652,-0.0113701,0.244104,-0.0823257,0.444979,-0.262918,0.410504,-1.02425,-0.000682458,0,0,0,0,0,0,0,1.88404,-35.2681,1.98854,24.162,2.20611,1.16356,0.0376436,
0.122381,0.0153164,-0.0441999,-1.89677,0.0642403,0.155663,-0.0118973,0.242403,0.0026862,0.240961,-0.19445,0.994194,-0.908887,-0.0102572,-2.16205,-0.100619,-2.14297,0.19328,14.2074,37.4337,-0.0431524,21.4416,-0.142503,21.3696,-16.8063,11.1776,-6.677,-0.11489,0.111987,0.0158686,-0.0545288,-1.88893,0.0261881,0.190652,-0.0113701,0.244104,-0.0823257,0.444979,-0.262918,0.410504,-1.02425,-0.000682458,0,0,0,0,0,0,0,1.88404,-35.2681,1.98854,24.162,2.20611,1.16356,0.0376436,
0.124138,0.0153561,-0.0424528,-1.8983,0.0730349,0.151136,-0.0119707,0.23784,0.00314104,0.236448,-0.193888,1.01522,-0.840284,-0.0100419,-2.85171,0.284277,-2.82068,0.350958,13.1423,42.877,0.134583,20.4087,-0.425548,20.3303,-16.3695,10.9683,-5.26201,-0.10897,0.119189,0.0146739,-0.0404909,-1.89751,0.0470062,0.156091,-0.0113636,0.1422,-0.0537787,0.338915,-0.216424,0.686036,-0.991731,4.6067e-05,-12.7381,3.56837,-13.258,5.81168,34.4416,4.06541,0.0910656,1.27307,-34.5223,1.11177,21.1746,1.75384,0.87792,0.0101778,
0.125888,0.0143243,-0.0338187,-1.90377,0.0778161,0.134702,-0.0116825,0.230025,0.0026045,0.228695,-0.193218,1.02024,-0.770473,-0.00956012,-4.88429,-0.335342,-4.84545,0.419214,3.13797,43.6316,0.301105,20.4087,-0.425548,20.3303,-16.3695,10.9683,-5.26201,-0.10897,0.119189,0.0146739,-0.0404909,-1.89751,0.0470062,0.156091,-0.0113636,0.1422,-0.0537787,0.338915,-0.216424,0.686036,-0.991731,4.6067e-05,0,0,0,0,0,0,0,1.27307,-34.5223,1.11177,21.1746,1.75384,0.87792,0.0101778,
0.127441,0.0143511,-0.0322741,-1.90526,0.0862904,0.131555,-0.0117334,0.222838,0.0027539,0.221573,-0.191907,1.02805,-0.69505,-0.00891941,-4.49181,0.0933808,-4.45125,0.818846,4.87972,47.1394,0.400444,19.7477,-0.455928,19.6707,-16.0936,10.9683,-4.15773,-0.0966246,0.119189,0.0146739,-0.0404909,-1.89751,0.0470062,0.156091,-0.0113636,0.1422,-0.0537787,0.338915,-0.216424,0.686036,-0.991731,4.6067e-05,0,0,0,0,0,0,0,1.27307,-34.5223,1.11177,21.1746,1.75384,0.87792,0.0101778,
0.12896,0.0143909,-0.0307625,-1.90672,0.0948484,0.129103,-0.0117736,0.21625,0.00319763,0.215047,-0.189993,1.03639,-0.617332,-0.00814062,-4.11737,0.277329,-4.0791,1.19669,5.21325,48.574,0.486745,19.1627,-0.517476,19.0873,-15.8554,10.9683,-3.20075,-0.0851208,0.119189,0.0146739,-0.0404909,-1.89751,0.0470062,0.156091,-0.0113636,0.1422,-0.0537787,0.338915,-0.216424,0.686036,-0.991731,4.6067e-05,0,0,0,0,0,0,0,1.27307,-34.5223,1.11177,21.1746,1.75384,0.87792,0.0101778,
0.130447,0.0144375,-0.0292827,-1.90814,0.103449,0.127264,-0.0118048,0.210182,0.00372279,0.209034,-0.187523,1.04414,-0.539836,-0.00729224,-3.79243,0.328226,-3.75806,1.54364,4.83992,48.4349,0.530236,18.6061,-0.777764,18.5256,-15.3878,10.8656,-2.15521,-0.0726771,0.125436,0.0146836,-0.0282876,-1.90421,0.0709428,0.125537,-0.0113611,0.171015,0.0308722,0.345781,-0.174515,0.767286,-0.817664,-0.00134963,3.60191,10.5814,0.858211,5.23859,10.1562,21.7584,-0.174462,-6.12988,-37.1407,-6.11266,23.9636,0.159909,1.93902,0.0440523,
0.132284,0.0152538,-0.0214735,-1.91056,0.102957,0.111634,-0.011576,0.207703,0.00629085,0.206542,-0.187873,1.04709,-0.486574,-0.00670208,-1.54969,1.60503,-1.55774,-0.218612,1.84566,33.2887,0.368852,18.6061,-0.777764,18.5256,-15.3878,10.8656,-2.15521,-0.0726771,0.125436,0.0146836,-0.0282876,-1.90421,0.0709428,0.125537,-0.0113611,0.171015,0.0308722,0.345781,-0.174515,0.767286,-0.817664,-0.00134963,0,0,0,0,0,0,0,-6.12988,-37.1407,-6.11266,23.9636,0.159909,1.93902,0.0440523,
0.133809,0.0153756,-0.0199574,-1.91201,0.111521,0.110086,-0.0116003,0.204286,0.00807751,0.203135,-0.186679,1.05179,-0.427951,-0.00596706,-2.13556,1.11666,-2.12927,0.745896,2.93789,36.6393,0.459382,18.1033,-0.789251,18.0252,-15.1676,10.8656,-1.43729,-0.0605997,0.125436,0.0146836,-0.0282876,-1.90421,0.0709428,0.125537,-0.0113611,0.171015,0.0308722,0.345781,-0.174515,0.767286,-0.817664,-0.00134963,0,0,0,0,0,0,0,-6.12988,-37.1407,-6.11266,23.9636,0.159909,1.93902,0.0440523,
0.135284,0.0154855,-0.0184901,-1.91341,0.120128,0.109085,-0.0116156,0.200321,0.00921111,0.199191,-0.184328,1.05658,-0.36738,-0.00515789,-2.47797,0.708502,-2.4646,1.46941,2.99653,37.8569,0.505732,17.6269,-0.762575,17.5513,-14.9465,10.8656,-0.812006,-0.0472782,0.125436,0.0146836,-0.0282876,-1.90421,0.0709428,0.125537,-0.0113611,0.171015,0.0308722,0.345781,-0.174515,0.767286,-0.817664,-0.00134963,0,0,0,0,0,0,0,-6.12988,-37.1407,-6.11266,23.9636,0.159909,1.93902,0.0440523,
0.134956,0.0160473,-0.0127946,-1.91389,0.131585,0.0998255,-0.0114356,0.192753,0.00970234,0.191677,-0.180688,1.05054,-0.302959,-0.00424538,-4.73016,0.307015,-4.6967,2.27498,-3.77571,40.2628,0.570323,17.0839,-1.05671,17.0033,-14.5885,10.6679,-0.224459,-0.0373441,0.129687,0.0154842,-0.0180493,-1.90849,0.0998442,0.104288,-0.0113605,0.0933965,0.0662567,0.248682,-0.095878,0.867814,-0.417539,0.000612488,-9.70232,4.42307,-12.1374,9.82969,12.5661,50.0156,0.245265,-8.71655,-35.4704,-8.7628,28.7204,0.190121,3.72887,0.0376436,
0.13624,0.016129,-0.0115168,-1.91518,0.139877,0.0998289,-0.0114329,0.186318,0.0098047,0.185286,-0.176681,1.04775,-0.242282,-0.00332866,-4.02162,0.0639758,-3.99419,2.50458,-1.74436,37.9232,0.572947,16.6414,-0.972757,16.5635,-14.362,10.6679,0.236302,-0.0252507,0.129687,0.0154842,-0.0180493,-1.90849,0.0998442,0.104288,-0.0113605,0.0933965,0.0662567,0.248682,-0.095878,0.867814,-0.417539,0.000612488,0,0,0,0,0,0,0,-8.71655,-35.4704,-8.7628,28.7204,0.190121,3.72887,0.0376436,
0.137507,0.0162016,-0.0102567,-1.91642,0.148222,0.100148,-0.0114227,0.180729,0.00965795,0.179732,-0.17243,1.04682,-0.185859,-0.0024062,-3.49346,-0.0917193,-3.4711,2.65672,-0.58294,35.2645,0.57654,16.2104,-0.872616,16.1353,-14.1337,10.6679,0.622769,-0.0147181,0.129687,0.0154842,-0.0180493,-1.90849,0.0998442,0.104288,-0.0113605,0.0933965,0.0662567,0.248682,-0.095878,0.867814,-0.417539,0.000612488,0,0,0,0,0,0,0,-8.71655,-35.4704,-8.7628,28.7204,0.190121,3.72887,0.0376436,
0.138754,0.0162669,-0.0090166,-1.91763,0.156598,0.100735,-0.0114053,0.175755,0.00935921,0.174788,-0.16805,1.04687,-0.133989,-0.00148984,-3.10839,-0.186712,-3.09025,2.73773,0.0299044,32.419,0.572723,15.7921,-0.761114,15.7198,-13.9063,10.6679,0.954325,-0.00387019,0.129687,0.0154842,-0.0180493,-1.90849,0.0998442,0.104288,-0.0113605,0.0933965,0.0662567,0.248682,-0.095878,0.867814,-0.417539,0.000612488,0,0,0,0,0,0,0,-8.71655,-35.4704,-8.7628,28.7204,0.190121,3.72887,0.0376436,
0.131019,0.0157052,-0.0167108,-1.9098,0.107403,0.102281,-0.0113949,0.1739,0.0130138,0.173293,-0.167203,1.02647,-0.157372,-0.00205068,-1.15978,2.28413,-0.934204,0.529325,-12.7468,-14.6146,-0.350527,17.1,-1.16771,17.012,-14.4887,10.5447,-0.18145,-0.0386867,0.133015,0.0166205,-0.0097729,-1.91087,0.129192,0.0991013,-0.0113599,0.0915675,0.104017,0.234303,-0.0638251,0.849489,0.013906,-0.000428505,-0.228629,4.72007,-1.79738,4.00661,-2.29069,53.9306,-0.130124,-5.70141,-34.0978,-5.9381,29.4424,0.635983,3.4771,0.0303194,
0.132343,0.0158444,-0.0153933,-1.91119,0.115289,0.100977,-0.0114175,0.172233,0.0138887,0.171572,-0.168546,1.01832,-0.158484,-0.0022059,-1.04204,0.546835,-1.07568,-0.839546,-5.09315,-0.694894,-0.0970089,16.6575,-1.08376,16.5722,-14.2622,10.5447,0.279312,-0.0265933,0.133015,0.0166205,-0.0097729,-1.91087,0.129192,0.0991013,-0.0113599,0.0915675,0.104017,0.234303,-0.0638251,0.849489,0.013906,-0.000428505,0,0,0,0,0,0,0,-5.70141,-34.0978,-5.9381,29.4424,0.635983,3.4771,0.0303194,
0.133656,0.0159539,-0.0140875,-1.91256,0.123374,0.100188,-0.0114309,0.170605,0.0138505,0.169902,-0.169096,1.01677,-0.14653,-0.00209958,-1.01716,-0.0239017,-1.04392,-0.343529,-0.971527,7.471,0.06645,16.2265,-0.983614,16.144,-14.0339,10.5447,0.665779,-0.0160607,0.133015,0.0166205,-0.0097729,-1.91087,0.129192,0.0991013,-0.0113599,0.0915675,0.104017,0.234303,-0.0638251,0.849489,0.013906,-0.000428505,0,0,0,0,0,0,0,-5.70141,-34.0978,-5.9381,29.4424,0.635983,3.4771,0.0303194,
0.139011,0.0177158,-0.00380022,-1.91671,0.168815,0.104105,-0.01129,0.16545,0.0139073,0.164717,-0.163808,1.01886,-0.0872697,-0.000906984,-3.22202,0.0355122,-3.24063,3.30504,1.30993,37.0378,0.745371,15.3984,-0.756939,15.3215,-13.5804,10.5447,1.27079,0.00443048,0.133015,0.0166205,-0.0097729,-1.91087,0.129192,0.0991013,-0.0113599,0.0915675,0.104017,0.234303,-0.0638251,0.849489,0.013906,-0.000428505,0,0,0,0,0,0,0,-5.70141,-34.0978,-5.9381,29.4424,0.635983,3.4771,0.0303194,
0.140149,0.0178103,-0.0026692,-1.91782,0.177086,0.105395,-0.0112541,0.160794,0.0134878,0.160049,-0.158781,1.02186,-0.0375601,0.000173008,-2.91013,-0.262202,-2.91745,3.14193,1.87289,31.0685,0.674995,15.0111,-0.651805,14.9291,-13.3904,10.435,1.47748,0.0145947,0.13516,0.018098,-0.0028778,-1.91216,0.156806,0.101211,-0.0113529,0.0423095,0.0323629,0.192958,-0.0423009,0.758126,0.141684,0.00185612,-6.15725,-8.95679,-5.16806,2.69052,-11.4204,15.9722,0.285578,-3.67016,-37.6643,-3.78783,33.1042,0.831906,4.3789,-0.0301054,
0.141263,0.0178927,-0.00156064,-1.9189,0.185389,0.106769,-0.0112137,0.156499,0.0128505,0.155753,-0.153999,1.02506,0.00429622,0.00114702,-2.68412,-0.398297,-2.68487,2.9888,2.00245,26.1602,0.608758,14.6144,-0.538965,14.5351,-13.172,10.435,1.66653,0.0239018,0.13516,0.018098,-0.0028778,-1.91216,0.156806,0.101211,-0.0113529,0.0423095,0.0323629,0.192958,-0.0423009,0.758126,0.141684,0.00185612,0,0,0,0,0,0,0,-3.67016,-37.6643,-3.78783,33.1042,0.831906,4.3789,-0.0301054,
0.142354,0.0179675,-0.000475961,-1.91995,0.193709,0.108219,-0.0111689,0.152462,0.01215,0.151719,-0.149475,1.02807,0.0396803,0.00203892,-2.52323,-0.437834,-2.521,2.82721,1.87983,22.115,0.557439,14.2161,-0.429707,14.1396,-12.9602,10.435,1.82571,0.0343027,0.13516,0.018098,-0.0028778,-1.91216,0.156806,0.101211,-0.0113529,0.0423095,0.0323629,0.192958,-0.0423009,0.758126,0.141684,0.00185612,0,0,0,0,0,0,0,-3.67016,-37.6643,-3.78783,33.1042,0.831906,4.3789,-0.0301054,
0.139869,0.0181171,0.00181877,-1.91695,0.194601,0.109823,-0.0111529,0.145705,0.0100457,0.144994,-0.143968,1.02236,0.075233,0.00291365,-4.22331,-1.31517,-4.20356,3.44171,-3.57094,22.2205,0.546707,13.7934,-0.327113,13.7205,-12.7593,10.435,1.94635,0.0417328,0.13516,0.018098,-0.0028778,-1.91216,0.156806,0.101211,-0.0113529,0.0423095,0.0323629,0.192958,-0.0423009,0.758126,0.141684,0.00185612,0,0,0,0,0,0,0,-3.67016,-37.6643,-3.78783,33.1042,0.831906,4.3789,-0.0301054,
0.140813,0.0181409,0.00275803,-1.91791,0.202687,0.11157,-0.0110976,0.140163,0.00863171,0.139476,-0.139251,1.02002,0.103851,0.00371381,-3.46332,-0.883758,-3.44824,2.94827,-1.46107,17.8863,0.500095,13.3441,-0.200333,13.2719,-12.5337,10.3582,2.04268,0.0485118,0.136175,0.0198698,0.00269163,-1.91301,0.177508,0.104281,-0.0113626,0.035534,0.0121665,0.191855,-0.057119,0.567163,0.0617472,-0.000108838,-0.846936,-2.52455,-0.137952,-1.85226,-23.8703,-9.99208,-0.245619,0.487552,-37.6167,0.286573,32.8067,2.07153,3.85522,0.017502,
0.141746,0.0181754,0.00368642,-1.91886,0.210833,0.113321,-0.0110412,0.135476,0.00776828,0.134791,-0.13512,1.01966,0.126873,0.00438008,-2.92926,-0.539639,-2.92859,2.58186,-0.225932,14.3888,0.416423,12.9303,-0.0822707,12.8643,-12.3289,10.3582,2.111,0.0540457,0.136175,0.0198698,0.00269163,-1.91301,0.177508,0.104281,-0.0113626,0.035534,0.0121665,0.191855,-0.057119,0.567163,0.0617472,-0.000108838,0,0,0,0,0,0,0,0.487552,-37.6167,0.286573,32.8067,2.07153,3.85522,0.017502,
0.142675,0.0182195,0.00460924,-1.91979,0.21885,0.115075,-0.0109832,0.131603,0.00731662,0.130903,-0.13125,1.01615,0.145336,0.00495463,-2.42119,-0.282286,-2.42975,2.41905,-2.19189,11.5395,0.359092,12.5298,0.0331194,12.4681,-12.129,10.3582,2.1721,0.0597629,0.136175,0.0198698,0.00269163,-1.91301,0.177508,0.104281,-0.0113626,0.035534,0.0121665,0.191855,-0.057119,0.567163,0.0617472,-0.000108838,0,0,0,0,0,0,0,0.487552,-37.6167,0.286573,32.8067,2.07153,3.85522,0.017502,
0.139558,0.0198426,0.00606178,-1.91685,0.204921,0.110137,-0.0111692,0.126328,0.00657578,0.125623,-0.129298,1.00179,0.157151,0.005376,-3.29682,-0.463028,-3.30002,1.21971,-8.97976,7.38425,0.263354,12.5298,0.0331194,12.4681,-12.129,10.3582,2.1721,0.0597629,0.136175,0.0198698,0.00269163,-1.91301,0.177508,0.104281,-0.0113626,0.035534,0.0121665,0.191855,-0.057119,0.567163,0.0617472,-0.000108838,0,0,0,0,0,0,0,0.487552,-37.6167,0.286573,32.8067,2.07153,3.85522,0.017502,
0.140407,0.01989,0.0069049,-1.9178,0.212524,0.111816,-0.0111107,0.122291,0.00644639,0.121577,-0.127082,0.991511,0.167687,0.00576451,-2.5227,-0.0808696,-2.5291,1.38519,-6.42147,6.58512,0.242824,12.1332,0.144337,12.075,-11.9358,10.3582,2.21954,0.0662468,0.136175,0.0198698,0.00269163,-1.91301,0.177508,0.104281,-0.0113626,0.035534,0.0121665,0.191855,-0.057119,0.567163,0.0617472,-0.000108838,0,0,0,0,0,0,0,0.487552,-37.6167,0.286573,32.8067,2.07153,3.85522,0.017502,
0.141275,0.0199483,0.00776771,-1.91871,0.21979,0.113518,-0.0110497,0.119531,0.00661387,0.118831,-0.124379,0.974858,0.176694,0.00613495,-1.725,0.104679,-1.7157,1.68898,-10.4078,5.62912,0.231523,11.7445,0.336014,11.6815,-11.8184,10.2928,2.22361,0.0714858,0.136785,0.0214219,0.00781089,-1.91375,0.195972,0.111874,-0.0113592,0.0290813,-0.000212554,0.123496,-0.0177035,0.529626,0.368504,0.000503788,-0.806581,-1.54738,-8.54486,4.92694,-4.69211,38.3446,0.0765782,-2.68231,-39.164,-2.61351,31.561,1.39404,2.95342,0.0239107,
0.139374,0.021059,0.0103859,-1.9166,0.220503,0.122449,-0.0111377,0.113431,0.00411967,0.112775,-0.118367,0.933097,0.199489,0.00643086,-3.81245,-1.55888,-3.78504,3.75776,-26.1008,14.2471,0.184941,11.3203,0.465905,11.2519,-11.6307,10.2928,2.2427,0.0729814,0.136785,0.0214219,0.00781089,-1.91375,0.195972,0.111874,-0.0113592,0.0290813,-0.000212554,0.123496,-0.0177035,0.529626,0.368504,0.000503788,0,0,0,0,0,0,0,-2.68231,-39.164,-2.61351,31.561,1.39404,2.95342,0.0239107,
0.140128,0.0210356,0.0111361,-1.91735,0.226177,0.12462,-0.0110772,0.109595,0.0027106,0.108975,-0.113394,0.888316,0.213855,0.00665571,-2.39797,-0.880669,-2.37497,3.10826,-27.9879,8.97875,0.140534,10.9241,0.617348,10.8425,-11.4289,9.70437,2.25976,0.0734947,0.136785,0.0214219,0.00781089,-1.91375,0.195972,0.111874,-0.0113592,0.0290813,-0.000212554,0.123496,-0.0177035,0.529626,0.368504,0.000503788,0,0,0,0,0,0,0,-2.68231,-39.164,-2.61351,31.561,1.39404,2.95342,0.0239107,
0.140915,0.0210304,0.011919,-1.91809,0.231306,0.126664,-0.0110177,0.107349,0.00203706,0.106754,-0.109205,0.838874,0.222195,0.00681221,-1.40364,-0.42096,-1.38834,2.61788,-30.9016,5.21212,0.0978099,10.5556,0.772078,10.47,-11.2174,8.38239,2.25509,0.0732963,0.136785,0.0214219,0.00781089,-1.91375,0.195972,0.111874,-0.0113592,0.0290813,-0.000212554,0.123496,-0.0177035,0.529626,0.368504,0.000503788,0,0,0,0,0,0,0,-2.68231,-39.164,-2.61351,31.561,1.39404,2.95342,0.0239107,
0.141726,0.0210395,0.0127258,-1.91882,0.235851,0.128602,-0.0109585,0.106154,0.00185797,0.105572,-0.105621,0.784734,0.22619,0.0069298,-0.746701,-0.111934,-0.738879,2.24028,-33.8377,2.49697,0.0734983,10.2304,1.06132,10.1378,-11.1113,7.17531,2.1588,0.0717208,0.137416,0.022496,0.0125735,-1.91426,0.213355,0.129963,-0.01136,0.0243877,0.0162419,0.127663,-0.00972509,0.427625,0.596069,-0.000241798,-0.586708,2.05681,0.520905,0.997299,-12.7502,28.4456,-0.0931982,-5.44751,-34.9706,-5.33507,23.912,1.65039,1.34209,0.00376909,
0.139959,0.0223489,0.0151019,-1.91655,0.230463,0.143258,-0.0111471,0.102096,0.000732866,0.101525,-0.100407,0.727903,0.246579,0.00700449,-2.5366,-0.70319,-2.5293,3.25839,-35.5188,12.7433,0.0466811,10.2304,1.06132,10.1378,-11.1113,7.17531,2.1588,0.0717208,0.137416,0.022496,0.0125735,-1.91426,0.213355,0.129963,-0.01136,0.0243877,0.0162419,0.127663,-0.00972509,0.427625,0.596069,-0.000241798,0,0,0,0,0,0,0,-5.44751,-34.9706,-5.33507,23.912,1.65039,1.34209,0.00376909,
0.140677,0.0223331,0.0158163,-1.9172,0.234045,0.145593,-0.0110879,0.0996399,0.000191992,0.0990798,-0.0965376,0.671877,0.255638,0.00708242,-1.53482,-0.338046,-1.52824,2.41853,-35.0167,5.66193,0.0487026,9.95848,1.18775,9.86746,-10.8952,6.13537,2.11643,0.0702644,0.137416,0.022496,0.0125735,-1.91426,0.213355,0.129963,-0.01136,0.0243877,0.0162419,0.127663,-0.00972509,0.427625,0.596069,-0.000241798,0,0,0,0,0,0,0,-5.44751,-34.9706,-5.33507,23.912,1.65039,1.34209,0.00376909,
0.141421,0.0223315,0.0165558,-1.91785,0.237166,0.147703,-0.011028,0.0983089,0.000111363,0.097753,-0.0936181,0.615517,0.257252,0.00716493,-0.831876,-0.0503931,-0.829201,1.8247,-35.2248,1.00872,0.0515711,9.74001,1.29184,9.65118,-10.6811,5.19963,2.07262,0.0690473,0.137416,0.022496,0.0125735,-1.91426,0.213355,0.129963,-0.01136,0.0243877,0.0162419,0.127663,-0.00972509,0.427625,0.596069,-0.000241798,0,0,0,0,0,0,0,-5.44751,-34.9706,-5.33507,23.912,1.65039,1.34209,0.00376909,
0.142184,0.0223429,0.0173137,-1.91851,0.239821,0.149634,-0.0109677,0.0977083,0.000374364,0.0971492,-0.0913814,0.558803,0.25408,0.00724037,-0.375369,0.164376,-0.377424,1.39795,-35.4462,-1.98284,0.0471501,9.51677,1.46013,9.4262,-10.5675,4.30983,1.922,0.0702494,0.137594,0.0230003,0.0164379,-1.91478,0.222392,0.150914,-0.0113652,0.0124534,0.0019856,0.103114,-0.0108159,0.124521,0.592015,-0.000840465,-1.49178,-1.78204,-3.06868,-0.136349,-37.8881,-0.506737,-0.0748334,-1.28582,-33.5463,-1.38762,21.5991,1.5094,0.719534,0.0376436,
0.139074,0.0227859,0.0179067,-1.91633,0.229663,0.16132,-0.0112133,0.0915792,-0.00111405,0.0910252,-0.087565,0.511929,0.276108,0.00722594,-3.83064,-0.930258,-3.82749,2.38527,-29.2962,13.7676,-0.00902258,9.69093,1.3799,9.59799,-10.7797,5.16451,1.97373,0.0703123,0.137594,0.0230003,0.0164379,-1.91478,0.222392,0.150914,-0.0113652,0.0124534,0.0019856,0.103114,-0.0108159,0.124521,0.592015,-0.000840465,0,0,0,0,0,0,0,-1.28582,-33.5463,-1.38762,21.5991,1.5094,0.719534,0.0376436,
0.139657,0.0227515,0.0184868,-1.91693,0.232099,0.163845,-0.0111534,0.0878594,-0.00174925,0.0873235,-0.0851345,0.470442,0.284018,0.00727952,-2.32488,-0.396998,-2.31352,1.51906,-25.9293,4.94364,0.0334929,9.51677,1.46013,9.4262,-10.5675,4.30983,1.922,0.0702494,0.137594,0.0230003,0.0164379,-1.91478,0.222392,0.150914,-0.0113652,0.0124534,0.0019856,0.103114,-0.0108159,0.124521,0.592015,-0.000840465,0,0,0,0,0,0,0,-1.28582,-33.5463,-1.38762,21.5991,1.5094,0.719534,0.0376436,
0.140283,0.0227374,0.0191091,-1.91755,0.234269,0.166073,-0.0110922,0.085936,-0.00175313,0.0854152,-0.0836011,0.430613,0.282902,0.00735349,-1.20215,-0.00242689,-1.19272,0.958322,-24.8935,-0.697372,0.0462283,9.37591,1.51815,9.28775,-10.3591,3.54528,1.87156,0.070304,0.137594,0.0230003,0.0164379,-1.91478,0.222392,0.150914,-0.0113652,0.0124534,0.0019856,0.103114,-0.0108159,0.124521,0.592015,-0.000840465,0,0,0,0,0,0,0,-1.28582,-33.5463,-1.38762,21.5991,1.5094,0.719534,0.0376436,
0.139214,0.0231393,0.0205138,-1.91724,0.226023,0.178399,-0.011205,0.0810229,-0.00179261,0.0805086,-0.0819695,0.379091,0.288618,0.00736978,-3.0707,-0.0246761,-3.06661,1.01979,-32.2014,3.57288,0.0101824,9.35617,1.57391,9.26589,-10.4298,3.55239,1.78188,0.0709545,0.137892,0.023243,0.0192012,-1.91557,0.222564,0.169608,-0.0113642,0.00549053,0.00118855,0.0904247,-0.0276454,-0.0363838,0.488725,0.00123383,-0.870362,-0.099632,-1.58612,-2.10369,-20.113,-12.9112,0.259287,1.37622,-34.1216,1.3141,23.7375,1.47277,1.34942,-0.00996382,
0.139755,0.0231442,0.0210519,-1.91786,0.227337,0.180576,-0.011143,0.0783586,-0.00131281,0.0778593,-0.081087,0.336128,0.285321,0.00744544,-1.66516,0.299874,-1.65583,0.551543,-26.8519,-2.06075,0.0472855,9.23964,1.61118,9.15167,-10.2243,2.8602,1.72569,0.0718087,0.137892,0.023243,0.0192012,-1.91557,0.222564,0.169608,-0.0113642,0.00549053,0.00118855,0.0904247,-0.0276454,-0.0363838,0.488725,0.00123383,0,0,0,0,0,0,0,1.37622,-34.1216,1.3141,23.7375,1.47277,1.34942,-0.00996382,
0.140341,0.0231662,0.0216341,-1.91849,0.228484,0.182507,-0.0110799,0.0773299,-0.000500411,0.0768404,-0.0806432,0.297583,0.276529,0.00753372,-0.64295,0.507751,-0.636831,0.277395,-24.0902,-5.49542,0.055178,9.13894,1.63067,9.05317,-10.0225,2.2492,1.67104,0.0724802,0.137892,0.023243,0.0192012,-1.91557,0.222564,0.169608,-0.0113642,0.00549053,0.00118855,0.0904247,-0.0276454,-0.0363838,0.488725,0.00123383,0,0,0,0,0,0,0,1.37622,-34.1216,1.3141,23.7375,1.47277,1.34942,-0.00996382,
0.140963,0.0232024,0.0222518,-1.91913,0.229417,0.184241,-0.0110161,0.077406,0.000504802,0.076917,-0.0804416,0.261396,0.264553,0.00762321,0.0475837,0.628258,0.0479253,0.125997,-22.6172,-7.48473,0.0559263,9.04835,1.63449,8.96465,-9.82334,1.7025,1.61173,0.0736235,0.137892,0.023243,0.0192012,-1.91557,0.222564,0.169608,-0.0113642,0.00549053,0.00118855,0.0904247,-0.0276454,-0.0363838,0.488725,0.00123383,0,0,0,0,0,0,0,1.37622,-34.1216,1.3141,23.7375,1.47277,1.34942,-0.00996382,
0.140176,0.0234367,0.0231487,-1.91929,0.217581,0.194283,-0.0110553,0.0751234,0.00153367,0.0746511,-0.0795611,0.205239,0.250741,0.0077277,-1.42668,0.643044,-1.41622,0.550296,-35.0978,-8.6322,0.0653119,8.96027,1.66253,8.87754,-9.67903,1.25177,1.48394,0.0747628,0.1381,0.0233581,0.0210832,-1.91645,0.218698,0.183999,-0.0113655,0.00120622,0.00855217,0.053801,-0.0245068,-0.159085,0.35953,0.000276212,-0.535539,0.920453,-4.57796,0.39233,-15.3377,-16.1494,-0.119702,-0.67883,-33.9708,-0.685411,23.9398,0.966488,1.5078,-0.0026396,
0.14074,0.023493,0.0237091,-1.9199,0.217343,0.195682,-0.0109903,0.0742034,0.00263545,0.0737326,-0.0789459,0.15823,0.235572,0.00780657,-0.574978,0.68861,-0.574038,0.384525,-29.3811,-9.48071,0.0492918,8.87584,1.64285,8.79493,-9.48515,0.831284,1.42279,0.0757851,0.1381,0.0233581,0.0210832,-1.91645,0.218698,0.183999,-0.0113655,0.00120622,0.00855217,0.053801,-0.0245068,-0.159085,0.35953,0.000276212,0,0,0,0,0,0,0,-0.67883,-33.9708,-0.685411,23.9398,0.966488,1.5078,-0.0026396,
0.141331,0.0235582,0.0242963,-1.92051,0.217011,0.196943,-0.0109259,0.0741453,0.00373778,0.0736641,-0.0784736,0.118301,0.219981,0.00785454,-0.0363235,0.688959,-0.0428029,0.295144,-24.9551,-9.74441,0.0299824,8.78969,1.61485,8.71048,-9.29369,0.470946,1.36385,0.0763652,0.1381,0.0233581,0.0210832,-1.91645,0.218698,0.183999,-0.0113655,0.00120622,0.00855217,0.053801,-0.0245068,-0.159085,0.35953,0.000276212,0,0,0,0,0,0,0,-0.67883,-33.9708,-0.685411,23.9398,0.966488,1.5078,-0.0026396,
0.141942,0.0236303,0.0249023,-1.92112,0.216587,0.198085,-0.0108621,0.0745819,0.00479392,0.0740823,-0.0780547,0.0840323,0.204546,0.00787794,0.272917,0.660088,0.261321,0.261826,-21.4182,-9.64674,0.0146215,8.70043,1.58,8.62282,-9.10373,0.156418,1.30242,0.0770653,0.1381,0.0233581,0.0210832,-1.91645,0.218698,0.183999,-0.0113655,0.00120622,0.00855217,0.053801,-0.0245068,-0.159085,0.35953,0.000276212,0,0,0,0,0,0,0,-0.67883,-33.9708,-0.685411,23.9398,0.966488,1.5078,-0.0026396,
0.140189,0.0234072,0.0231643,-1.91897,0.214717,0.193518,-0.0110475,0.0725327,0.00462839,0.0720467,-0.0761846,0.0484471,0.198264,0.00789738,-1.28075,-0.103456,-1.27225,1.16884,-22.2408,-3.92685,0.0121495,8.60909,1.57392,8.53162,-8.93848,-0.0772635,1.1986,0.0774763,0.138368,0.0238011,0.022444,-1.91774,0.212836,0.194747,-0.0113669,0.00612701,0.0310093,0.0459583,-0.0508271,-0.176007,0.279134,-0.000377655,0.6151,2.80714,-0.980342,-3.29004,-2.11526,-10.0495,-0.0817334,1.07074,-32.3998,0.889601,22.4203,0.660702,0.865103,0.0101778,
0.140731,0.0234498,0.0237028,-1.91952,0.213943,0.194736,-0.0109845,0.071586,0.00476593,0.0710986,-0.074843,0.0194045,0.189049,0.00789088,-0.591724,0.085962,-0.592518,0.838478,-18.1516,-5.75876,-0.00405823,8.50961,1.53022,8.43354,-8.75127,-0.305251,1.13845,0.0777664,0.138368,0.0238011,0.022444,-1.91774,0.212836,0.194747,-0.0113669,0.00612701,0.0310093,0.0459583,-0.0508271,-0.176007,0.279134,-0.000377655,0,0,0,0,0,0,0,1.07074,-32.3998,0.889601,22.4203,0.660702,0.865103,0.0101778,
0.141293,0.0235014,0.0242606,-1.92008,0.213143,0.195815,-0.0109227,0.0713226,0.00510293,0.0708236,-0.0738357,-0.00445912,0.178222,0.00785792,-0.164632,0.210623,-0.1719,0.629561,-14.9148,-6.76718,-0.0206027,8.40389,1.48402,8.32916,-8.56525,-0.493357,1.0815,0.0776412,0.138368,0.0238011,0.022444,-1.91774,0.212836,0.194747,-0.0113669,0.00612701,0.0310093,0.0459583,-0.0508271,-0.176007,0.279134,-0.000377655,0,0,0,0,0,0,0,1.07074,-32.3998,0.889601,22.4203,0.660702,0.865103,0.0101778,
0.141868,0.0235604,0.0248312,-1.92064,0.21232,0.196778,-0.010862,0.0714418,0.00555887,0.0709247,-0.0730205,-0.0241522,0.166656,0.00780487,0.0745499,0.284965,0.0631932,0.50954,-12.3082,-7.22895,-0.0331559,8.29216,1.43594,8.21868,-8.37982,-0.652317,1.02404,0.0775249,0.138368,0.0238011,0.022444,-1.91774,0.212836,0.194747,-0.0113669,0.00612701,0.0310093,0.0459583,-0.0508271,-0.176007,0.279134,-0.000377655,0,0,0,0,0,0,0,1.07074,-32.3998,0.889601,22.4203,0.660702,0.865103,0.0101778,
0.141782,0.0246358,0.0258354,-1.92179,0.203662,0.203325,-0.0109032,0.0696521,0.00647677,0.0691132,-0.0708504,-0.04387,0.148143,0.00756025,-1.11862,0.573682,-1.1322,1.35631,-12.3236,-11.5705,-0.152888,7.79069,1.25389,7.72025,-7.64616,-0.998677,0.79539,0.0749691,0.138805,0.0241874,0.0238763,-1.92027,0.206712,0.201632,-0.0113694,0.01969,0.0245027,0.0462312,-0.0847309,-0.189311,0.174058,0.000829675,1.69537,-0.81332,0.0341148,-4.23797,-1.66295,-13.1345,0.150916,0.0551182,-35.2205,-0.0109729,27.4747,0.966488,1.52794,-0.00996382,
0.142284,0.0247159,0.0263327,-1.92228,0.202719,0.203851,-0.0108521,0.0682838,0.0071837,0.0677218,-0.0688919,-0.0586632,0.131683,0.00732643,-0.855132,0.441833,-0.869639,1.22406,-9.24575,-10.2875,-0.146135,7.64988,1.20557,7.5804,-7.46261,-1.04404,0.750089,0.0739051,0.138805,0.0241874,0.0238763,-1.92027,0.206712,0.201632,-0.0113694,0.01969,0.0245027,0.0462312,-0.0847309,-0.189311,0.174058,0.000829675,0,0,0,0,0,0,0,0.0551182,-35.2205,-0.0109729,27.4747,0.966488,1.52794,-0.00996382,
0.142786,0.024795,0.0268289,-1.92276,0.201814,0.204323,-0.0108025,0.0671692,0.00772436,0.0665838,-0.0670782,-0.0695523,0.117145,0.0071002,-0.696665,0.337913,-0.711214,1.13351,-6.80572,-9.08652,-0.141396,7.50438,1.15799,7.43582,-7.27901,-1.07711,0.705989,0.0728364,0.138805,0.0241874,0.0238763,-1.92027,0.206712,0.201632,-0.0113694,0.01969,0.0245027,0.0462312,-0.0847309,-0.189311,0.174058,0.000829675,0,0,0,0,0,0,0,0.0551182,-35.2205,-0.0109729,27.4747,0.966488,1.52794,-0.00996382,
0.141187,0.0250524,0.026239,-1.92339,0.199522,0.205783,-0.0110502,0.0648559,0.00887685,0.0642671,-0.0656841,-0.0806063,0.10512,0.00690113,-1.44578,0.720309,-1.44792,0.871315,-6.90875,-7.51548,-0.124416,7.04261,1.02133,6.97656,-6.72823,-1.10754,0.591659,0.0688071,0.138805,0.0241874,0.0238763,-1.92027,0.206712,0.201632,-0.0113694,0.01969,0.0245027,0.0462312,-0.0847309,-0.189311,0.174058,0.000829675,0,0,0,0,0,0,0,0.0551182,-35.2205,-0.0109729,27.4747,0.966488,1.52794,-0.00996382,
0.141637,0.0251525,0.0266836,-1.92386,0.198585,0.206189,-0.011003,0.0631279,0.00960544,0.0625298,-0.0642219,-0.0879037,0.094251,0.00669925,-1.08002,0.455366,-1.08586,0.913881,-4.56083,-6.79302,-0.126176,6.88167,0.97782,6.81639,-6.5444,-1.10222,0.558078,0.0673597,0.138805,0.0241874,0.0238763,-1.92027,0.206712,0.201632,-0.0113694,0.01969,0.0245027,0.0462312,-0.0847309,-0.189311,0.174058,0.000829675,0,0,0,0,0,0,0,0.0551182,-35.2205,-0.0109729,27.4747,0.966488,1.52794,-0.00996382,
0.142088,0.0252464,0.0271292,-1.92431,0.197705,0.206554,-0.0109575,0.0617735,0.0100312,0.0611626,-0.0627017,-0.0923408,0.0845354,0.00649686,-0.846524,0.266097,-0.854494,0.95017,-2.77318,-6.07222,-0.126497,6.72725,0.942686,6.66093,-6.35785,-1.05638,0.517651,0.0657108,0.139443,0.0246657,0.0256495,-1.92281,0.199093,0.205166,-0.0113731,0.0261413,0.0238909,0.0540918,-0.0713246,-0.244748,0.0721793,-0.000596777,0.806408,-0.0764713,0.982572,1.67578,-6.92971,-12.7349,-0.178306,0.182071,-35.8434,0.211195,26.1813,1.36291,1.35583,0.0239107,
0.142537,0.025335,0.0275726,-1.92475,0.196876,0.206886,-0.0109137,0.0606415,0.0102399,0.0600162,-0.061133,-0.0946003,0.075922,0.00629355,-0.70746,0.130471,-0.7165,0.980387,-1.41224,-5.38339,-0.127067,6.56081,0.901203,6.4952,-6.17373,-1.04013,0.489138,0.064136,0.139443,0.0246657,0.0256495,-1.92281,0.199093,0.205166,-0.0113731,0.0261413,0.0238909,0.0540918,-0.0713246,-0.244748,0.0721793,-0.000596777,0,0,0,0,0,0,0,0.182071,-35.8434,0.211195,26.1813,1.36291,1.35583,0.0239107,
0.142028,0.0255857,0.0282019,-1.926,0.191425,0.207414,-0.0110791,0.0581089,0.0105856,0.0574753,-0.0588059,-0.0946437,0.0665629,0.00597977,-1.5829,0.216056,-1.58801,1.45447,-0.0270746,-5.84941,-0.196116,6.0492,0.782262,5.98558,-5.62043,-0.968156,0.41892,0.0590117,0.139443,0.0246657,0.0256495,-1.92281,0.199093,0.205166,-0.0113731,0.0261413,0.0238909,0.0540918,-0.0713246,-0.244748,0.0721793,-0.000596777,0,0,0,0,0,0,0,0.182071,-35.8434,0.211195,26.1813,1.36291,1.35583,0.0239107,
0.142409,0.0256738,0.0285772,-1.92638,0.190733,0.207631,-0.011043,0.056006,0.0106707,0.0553627,-0.0565082,-0.0930066,0.0586636,0.00568646,-1.31431,0.0531527,-1.32043,1.43603,1.02315,-4.93711,-0.183314,5.87576,0.744141,5.81277,-5.43561,-0.93965,0.399177,0.0572631,0.139443,0.0246657,0.0256495,-1.92281,0.199093,0.205166,-0.0113731,0.0261413,0.0238909,0.0540918,-0.0713246,-0.244748,0.0721793,-0.000596777,0,0,0,0,0,0,0,0.182071,-35.8434,0.211195,26.1813,1.36291,1.35583,0.0239107,
0.142784,0.0257552,0.0289472,-1.92674,0.190103,0.207832,-0.0110086,0.054194,0.010572,0.05354,-0.054246,-0.0901614,0.0519666,0.00540828,-1.1325,-0.0617058,-1.13918,1.41393,1.77825,-4.1856,-0.173862,5.71309,0.703721,5.64843,-5.23452,-0.869893,0.384745,0.0552811,0.139945,0.0253045,0.0276354,-1.92506,0.189633,0.205756,-0.0113655,0.0161756,0.00831729,0.0548377,-0.06907,-0.291258,-0.0078243,-0.000100918,-1.24571,-1.9467,0.0932446,0.281825,-5.81375,-10.0005,0.0619824,-0.222592,-35.7204,-0.110155,27.4747,1.64398,2.34368,-0.0026396,
0.143153,0.0258308,0.0293102,-1.92708,0.189531,0.208019,-0.010976,0.0525712,0.0103461,0.0519062,-0.0520201,-0.0864273,0.0462401,0.00514226,-1.01423,-0.141153,-1.0211,1.39119,2.33382,-3.57906,-0.166268,5.53816,0.666835,5.47407,-5.04936,-0.837556,0.36815,0.0534684,0.139945,0.0253045,0.0276354,-1.92506,0.189633,0.205756,-0.0113655,0.0161756,0.00831729,0.0548377,-0.06907,-0.291258,-0.0078243,-0.000100918,0,0,0,0,0,0,0,-0.222592,-35.7204,-0.110155,27.4747,1.64398,2.34368,-0.0026396,
0.142011,0.0260052,0.0296662,-1.92778,0.182665,0.206193,-0.0111436,0.049582,0.0103384,0.0489156,-0.0494842,-0.082038,0.0394322,0.00480215,-1.86828,-0.0048459,-1.86915,1.58488,2.74331,-4.25495,-0.212566,5.01351,0.558987,4.95104,-4.4931,-0.726737,0.324073,0.0477683,0.139945,0.0253045,0.0276354,-1.92506,0.189633,0.205756,-0.0113655,0.0161756,0.00831729,0.0548377,-0.06907,-0.291258,-0.0078243,-0.000100918,0,0,0,0,0,0,0,-0.222592,-35.7204,-0.110155,27.4747,1.64398,2.34368,-0.0026396,
0.142309,0.0260804,0.0299579,-1.92807,0.182248,0.206279,-0.011118,0.0470951,0.0101506,0.0464247,-0.0469589,-0.0760409,0.0337084,0.00448124,-1.55433,-0.117317,-1.55678,1.57833,3.74817,-3.57738,-0.20057,4.84013,0.523688,4.77816,-4.30749,-0.684611,0.309027,0.0458256,0.139945,0.0253045,0.0276354,-1.92506,0.189633,0.205756,-0.0113655,0.0161756,0.00831729,0.0548377,-0.06907,-0.291258,-0.0078243,-0.000100918,0,0,0,0,0,0,0,-0.222592,-35.7204,-0.110155,27.4747,1.64398,2.34368,-0.0026396,
0.1426,0.0261489,0.0302437,-1.92835,0.18193,0.206347,-0.0110945,0.0449619,0.00983233,0.0442856,-0.0444614,-0.0687829,0.0286703,0.00417323,-1.33324,-0.198948,-1.33693,1.56097,4.5363,-3.14882,-0.192504,4.66402,0.463668,4.60049,-4.08672,-0.606915,0.306769,0.0437142,0.140231,0.0258294,0.0297077,-1.92731,0.180975,0.205454,-0.0113692,0.00816513,0.0007639,0.0512776,-0.0576423,-0.225009,-0.0119843,-0.000681603,-1.00131,-0.944174,-0.44502,1.42847,8.28113,-0.520003,-0.0725857,-0.0440639,-36.2917,0.0128308,26.9034,1.97998,2.17156,0.0303194,
0.141985,0.026346,0.031418,-1.92939,0.178363,0.204453,-0.0112324,0.0411209,0.00912819,0.0404353,-0.0400495,-0.0444669,0.0164105,0.00358502,-2.40061,-0.440083,-2.40645,2.75741,15.1975,-7.66238,-0.36763,3.84814,0.290969,3.7869,-3.16114,-0.263055,0.174215,0.0330177,0.140231,0.0258294,0.0297077,-1.92731,0.180975,0.205454,-0.0113692,0.00816513,0.0007639,0.0512776,-0.0576423,-0.225009,-0.0119843,-0.000681603,0,0,0,0,0,0,0,-0.0440639,-36.2917,0.0128308,26.9034,1.97998,2.17156,0.0303194,
0.142182,0.0263912,0.0316099,-1.92955,0.179011,0.204102,-0.0112251,0.0378422,0.00843265,0.0371462,-0.0360361,-0.0193559,0.00436004,0.00304931,-2.04915,-0.434712,-2.05572,2.50841,15.6944,-7.53152,-0.33482,3.69845,0.257037,3.63765,-2.9773,-0.156919,0.12786,0.0306735,0.140231,0.0258294,0.0297077,-1.92731,0.180975,0.205454,-0.0113692,0.00816513,0.0007639,0.0512776,-0.0576423,-0.225009,-0.0119843,-0.000681603,0,0,0,0,0,0,0,-0.0440639,-36.2917,0.0128308,26.9034,1.97998,2.17156,0.0303194,
0.142371,0.0264316,0.0317921,-1.92969,0.179911,0.203644,-0.0112205,0.0349791,0.00775717,0.0342716,-0.0323542,0.00700893,-0.00796053,0.00255479,-1.78946,-0.422181,-1.79659,2.30113,16.478,-7.70036,-0.309075,3.55505,0.223456,3.49469,-2.79423,-0.0320816,0.0706442,0.0282708,0.140231,0.0258294,0.0297077,-1.92731,0.180975,0.205454,-0.0113692,0.00816513,0.0007639,0.0512776,-0.0576423,-0.225009,-0.0119843,-0.000681603,0,0,0,0,0,0,0,-0.0440639,-36.2917,0.0128308,26.9034,1.97998,2.17156,0.0303194,
0.142548,0.0264679,0.0319634,-1.92982,0.18109,0.203062,-0.0112185,0.0324181,0.00711231,0.0316986,-0.0289498,0.0350889,-0.0209356,0.00209385,-1.60065,-0.403036,-1.60815,2.12779,17.55,-8.10944,-0.288087,3.41405,0.169997,3.35231,-2.58026,0.136353,0.015814,0.0256876,0.140373,0.0263107,0.031244,-1.92899,0.175164,0.204783,-0.0113685,-0.00119623,0.00560464,0.0401344,-0.0415642,-0.112391,-0.0351687,-0.000480617,-1.17017,0.605092,-1.39289,2.00976,14.0773,-2.89805,0.0251232,-0.274166,-36.1687,-0.16173,26.4313,1.63208,2.25762,0.0239107,
0.141367,0.0267387,0.032199,-1.93019,0.180032,0.200814,-0.011339,0.0291405,0.00681231,0.0284126,-0.025648,0.0719898,-0.0394563,0.00160988,-2.04849,-0.187496,-2.05374,2.06361,23.0631,-11.5754,-0.302482,3.0522,0.0768751,2.99193,-2.04158,0.755543,-0.292531,0.017696,0.140373,0.0263107,0.031244,-1.92899,0.175164,0.204783,-0.0113685,-0.00119623,0.00560464,0.0401344,-0.0415642,-0.112391,-0.0351687,-0.000480617,0,0,0,0,0,0,0,-0.274166,-36.1687,-0.16173,26.4313,1.63208,2.25762,0.0239107,
0.141486,0.0267789,0.032312,-1.93027,0.182179,0.199743,-0.0113437,0.0262913,0.0064546,0.0255538,-0.0225247,0.111259,-0.0583495,0.00117094,-1.78072,-0.22357,-1.78678,1.95204,24.5436,-11.8083,-0.27434,2.94793,0.0491552,2.88822,-1.86514,1.03492,-0.435149,0.0148811,0.140373,0.0263107,0.031244,-1.92899,0.175164,0.204783,-0.0113685,-0.00119623,0.00560464,0.0401344,-0.0415642,-0.112391,-0.0351687,-0.000480617,0,0,0,0,0,0,0,-0.274166,-36.1687,-0.16173,26.4313,1.63208,2.25762,0.0239107,
0.141594,0.0268153,0.0324141,-1.93033,0.184734,0.198499,-0.0113501,0.0237451,0.00607434,0.0229973,-0.0195776,0.152869,-0.0777846,0.000778356,-1.59138,-0.237665,-1.59777,1.84199,26.0062,-12.1469,-0.245363,2.85098,0.0239635,2.79187,-1.69044,1.35711,-0.600413,0.0120344,0.140373,0.0263107,0.031244,-1.92899,0.175164,0.204783,-0.0113685,-0.00119623,0.00560464,0.0401344,-0.0415642,-0.112391,-0.0351687,-0.000480617,0,0,0,0,0,0,0,-0.274166,-36.1687,-0.16173,26.4313,1.63208,2.25762,0.0239107,
0.141691,0.0268489,0.0325041,-1.93037,0.187705,0.197079,-0.0113575,0.0214058,0.0056998,0.0206481,-0.0168057,0.196592,-0.0977252,0.000437613,-1.4621,-0.234084,-1.46828,1.73243,27.3268,-12.4628,-0.212964,2.75593,-0.0109853,2.69593,-1.4983,1.72619,-0.775059,0.00912223,0.14031,0.0266304,0.0322405,-1.92982,0.174515,0.203293,-0.0113678,-0.00433377,0.00314349,0.0302549,-0.00745852,0.0250998,-0.0644069,6.55727e-05,-0.392193,-0.307644,-1.23493,4.26321,17.1864,-3.65478,0.0682737,0.94379,-36.2917,1.06416,25.8798,1.77215,1.93902,0.017502,
0.14057,0.026636,0.0324951,-1.93009,0.175528,0.202498,-0.0113479,0.0205458,0.0046642,0.0198247,-0.0168949,0.172615,-0.0882828,0.000571877,-0.537497,-0.647251,-0.514628,-0.0557571,-14.9861,5.90149,0.083915,2.94419,0.0361798,2.88292,-1.84602,1.03593,-0.42124,0.0148224,0.14031,0.0266304,0.0322405,-1.92982,0.174515,0.203293,-0.0113678,-0.00433377,0.00314349,0.0302549,-0.00745852,0.0250998,-0.0644069,6.55727e-05,0,0,0,0,0,0,0,0.94379,-36.2917,1.06416,25.8798,1.77215,1.93902,0.017502,
0.140712,0.0266455,0.032632,-1.93022,0.176389,0.202023,-0.0113421,0.0199889,0.00396895,0.0192831,-0.0166757,0.159622,-0.0825038,0.000602945,-0.348061,-0.43453,-0.3385,0.136977,-8.12042,3.61188,0.0194175,2.84724,0.0109881,2.78657,-1.67132,1.35813,-0.586504,0.0119756,0.14031,0.0266304,0.0322405,-1.92982,0.174515,0.203293,-0.0113678,-0.00433377,0.00314349,0.0302549,-0.00745852,0.0250998,-0.0644069,6.55727e-05,0,0,0,0,0,0,0,0.94379,-36.2917,1.06416,25.8798,1.77215,1.93902,0.017502,
0.140855,0.0266589,0.0327686,-1.93033,0.177532,0.201442,-0.0113392,0.0195442,0.00351001,0.0188412,-0.0161227,0.156271,-0.0805284,0.000553358,-0.277902,-0.286839,-0.276165,0.345608,-2.09465,1.2346,-0.0309918,2.75593,-0.0109853,2.69593,-1.4983,1.72619,-0.775059,0.00912223,0.14031,0.0266304,0.0322405,-1.92982,0.174515,0.203293,-0.0113678,-0.00433377,0.00314349,0.0302549,-0.00745852,0.0250998,-0.0644069,6.55727e-05,0,0,0,0,0,0,0,0.94379,-36.2917,1.06416,25.8798,1.77215,1.93902,0.017502,
0.140993,0.0266747,0.0329011,-1.93042,0.17899,0.200729,-0.0113392,0.0190926,0.00320137,0.0183847,-0.0152849,0.161467,-0.082247,0.000444244,-0.282253,-0.192903,-0.285313,0.523677,3.24768,-1.07408,-0.0681965,2.66462,-0.0341228,2.60416,-1.3195,2.12596,-0.969702,0.00627374,0.140267,0.0267542,0.0327999,-1.93006,0.177873,0.200276,-0.0113585,-0.00327177,-0.00343915,0.0197514,0.0008801,0.175584,-0.108581,0.00092387,0.132751,-0.82283,-1.31294,1.04233,18.8106,-5.52174,0.107287,1.4516,-35.6688,1.56404,25.6577,2.11456,1.51513,-0.0227812,
0.140731,0.0266692,0.0332406,-1.93027,0.189196,0.19487,-0.0113725,0.0174522,0.00255679,0.0167344,-0.0128453,0.204088,-0.100423,0.000181877,-1.02526,-0.402863,-1.03147,1.52473,26.6383,-11.3599,-0.163979,2.5749,-0.0475316,2.51524,-1.14903,2.58701,-1.20136,0.00359129,0.140267,0.0267542,0.0327999,-1.93006,0.177873,0.200276,-0.0113585,-0.00327177,-0.00343915,0.0197514,0.0008801,0.175584,-0.108581,0.00092387,0,0,0,0,0,0,0,1.4516,-35.6688,1.56404,25.6577,2.11456,1.51513,-0.0227812,
0.140808,0.0266744,0.033311,-1.93029,0.192594,0.193316,-0.0113799,0.0158757,0.00217484,0.0151466,-0.0106193,0.248237,-0.119187,-4.03432e-05,-0.985326,-0.238718,-0.992357,1.39125,27.5932,-11.7274,-0.138888,2.47784,-0.0556646,2.41907,-0.979018,3.08956,-1.44872,0.00111723,0.140267,0.0267542,0.0327999,-1.93006,0.177873,0.200276,-0.0113585,-0.00327177,-0.00343915,0.0197514,0.0008801,0.175584,-0.108581,0.00092387,0,0,0,0,0,0,0,1.4516,-35.6688,1.56404,25.6577,2.11456,1.51513,-0.0227812,
0.140872,0.0266839,0.0333686,-1.93029,0.196377,0.191608,-0.0113869,0.0142972,0.00197826,0.0135583,-0.00858441,0.293157,-0.13804,-0.000204888,-0.986532,-0.122861,-0.992708,1.27181,28.0752,-11.7836,-0.102841,2.36527,-0.0580425,2.30746,-0.808375,3.62444,-1.705,-0.001029,0.140267,0.0267542,0.0327999,-1.93006,0.177873,0.200276,-0.0113585,-0.00327177,-0.00343915,0.0197514,0.0008801,0.175584,-0.108581,0.00092387,0,0,0,0,0,0,0,1.4516,-35.6688,1.56404,25.6577,2.11456,1.51513,-0.0227812,
0.140482,0.0267901,0.0332063,-1.93016,0.188425,0.196122,-0.0113907,0.0125498,0.00185411,0.0117977,-0.00701132,0.302209,-0.138472,-0.000375816,-1.09215,-0.0775933,-1.10035,0.983179,5.6575,-0.269973,-0.10683,2.36816,-0.0728758,2.30974,-0.795665,3.61107,-1.69355,-0.00111098,0.140321,0.0267516,0.033065,-1.93012,0.182004,0.198582,-0.0113648,0.00353586,0.00207369,0.0169326,-0.00489397,0.103929,-0.0122101,-0.00123878,0.850953,0.689105,-0.352354,-0.721759,-8.95695,12.0463,-0.270331,1.17389,-35.1967,1.26253,25.9314,1.61377,1.48125,0.0239107,
0.140519,0.0268009,0.0332373,-1.93016,0.191628,0.194753,-0.0113989,0.0109707,0.00175362,0.0102138,-0.00556876,0.321828,-0.144992,-0.000504462,-0.986925,-0.0628047,-0.989936,0.901605,12.2618,-4.07464,-0.0804036,2.2294,-0.0693609,2.172,-0.623363,4.16342,-1.94769,-0.00280284,0.140321,0.0267516,0.033065,-1.93012,0.182004,0.198582,-0.0113648,0.00353586,0.00207369,0.0169326,-0.00489397,0.103929,-0.0122101,-0.00123878,0,0,0,0,0,0,0,1.17389,-35.1967,1.26253,25.9314,1.61377,1.48125,0.0239107,
0.140549,0.0268127,0.0332606,-1.93015,0.195274,0.193177,-0.011406,0.00950982,0.00169891,0.00875244,-0.0042366,0.348627,-0.155396,-0.000582948,-0.913053,-0.0341961,-0.913359,0.832599,16.7494,-6.50287,-0.0490538,2.05102,-0.0601718,1.99468,-0.447837,4.71081,-2.18633,-0.0038724,0.140321,0.0267516,0.033065,-1.93012,0.182004,0.198582,-0.0113648,0.00353586,0.00207369,0.0169326,-0.00489397,0.103929,-0.0122101,-0.00123878,0,0,0,0,0,0,0,1.17389,-35.1967,1.26253,25.9314,1.61377,1.48125,0.0239107,
0.140569,0.0268261,0.0332745,-1.93013,0.199302,0.191439,-0.0114115,0.00810511,0.0016944,0.00735027,-0.00300936,0.379589,-0.16777,-0.000602651,-0.877943,-0.00281751,-0.876357,0.767025,19.351,-7.73337,-0.0123143,1.81668,-0.046071,1.76146,-0.268025,5.22337,-2.39125,-0.00415946,0.140321,0.0267516,0.033065,-1.93012,0.182004,0.198582,-0.0113648,0.00353586,0.00207369,0.0169326,-0.00489397,0.103929,-0.0122101,-0.00123878,0,0,0,0,0,0,0,1.17389,-35.1967,1.26253,25.9314,1.61377,1.48125,0.0239107,
0.140385,0.0267668,0.0331225,-1.93014,0.183556,0.198079,-0.0113737,0.00808331,0.00173616,0.00731711,-0.00296071,0.342458,-0.146795,-0.000705476,-0.0136241,0.0260989,-0.0207258,0.0304044,-23.207,13.1091,-0.0642657,2.36816,-0.0728758,2.30974,-0.795665,3.61107,-1.69355,-0.00111098,0.140321,0.0267516,0.033065,-1.93012,0.182004,0.198582,-0.0113648,0.00353586,0.00207369,0.0169326,-0.00489397,0.103929,-0.0122101,-0.00123878,0,0,0,0,0,0,0,1.17389,-35.1967,1.26253,25.9314,1.61377,1.48125,0.0239107,
0.140438,0.0267792,0.0331682,-1.93015,0.185718,0.197243,-0.0113822,0.00778195,0.00169812,0.00699707,-0.00270124,0.328028,-0.138331,-0.000778176,-0.188352,-0.023773,-0.200021,0.162167,-9.01881,5.29008,-0.0454373,2.23153,-0.0647479,2.17305,-0.631385,4.14118,-1.94375,-0.00282702,0.140435,0.0267239,0.0336655,-1.93018,0.188246,0.198139,-0.0113615,0.00893296,0.00109437,0.0111166,-0.00596805,0.207672,-0.0164722,-0.000130288,0.674638,-0.122415,-0.727004,-0.134259,12.9679,-0.532771,0.138561,0.209842,-35.0697,0.286573,25.7806,1.97357,1.47484,0.00376909,
0.140482,0.0267901,0.0332063,-1.93016,0.188425,0.196122,-0.0113907,0.00733756,0.00163,0.00654876,-0.00230479,0.330106,-0.138705,-0.000834447,-0.277742,-0.0425762,-0.280198,0.247783,1.29873,-0.233631,-0.0351691,2.05315,-0.0555589,1.99573,-0.455859,4.68856,-2.18239,-0.00389658,0.140435,0.0267239,0.0336655,-1.93018,0.188246,0.198139,-0.0113615,0.00893296,0.00109437,0.0111166,-0.00596805,0.207672,-0.0164722,-0.000130288,0,0,0,0,0,0,0,0.209842,-35.0697,0.286573,25.7806,1.97357,1.47484,0.00376909,
0.140519,0.0268009,0.0332373,-1.93016,0.191628,0.194753,-0.0113989,0.00680092,0.00157434,0.00601465,-0.00180353,0.344145,-0.145178,-0.000871366,-0.335397,-0.034791,-0.333816,0.313288,8.77476,-4.04557,-0.0230748,1.81881,-0.0414581,1.76251,-0.276048,5.20112,-2.38731,-0.00418364,0.140435,0.0267239,0.0336655,-1.93018,0.188246,0.198139,-0.0113615,0.00893296,0.00109437,0.0111166,-0.00596805,0.207672,-0.0164722,-0.000130288,0,0,0,0,0,0,0,0.209842,-35.0697,0.286573,25.7806,1.97357,1.47484,0.00376909,
0.14048,0.0267996,0.0336801,-1.93004,0.201971,0.193128,-0.0114005,0.00509635,0.00160782,0.00431349,-0.000438924,0.379352,-0.15732,-0.000864338,-1.06536,0.0209303,-1.06322,0.852878,22.0045,-7.58865,0.0043925,1.81881,-0.0414581,1.76251,-0.276048,5.20112,-2.38731,-0.00418364,0.140435,0.0267239,0.0336655,-1.93018,0.188246,0.198139,-0.0113615,0.00893296,0.00109437,0.0111166,-0.00596805,0.207672,-0.0164722,-0.000130288,0,0,0,0,0,0,0,0.209842,-35.0697,0.286573,25.7806,1.97357,1.47484,0.00376909,
0.140458,0.0268108,0.0336528,-1.93001,0.206333,0.19141,-0.0114273,0.00353895,0.00156677,0.00276783,0.000566285,0.412532,-0.16881,-0.00135988,-0.973377,-0.0256576,-0.966041,0.628256,20.7376,-7.18133,-0.309714,1.50958,-0.0241869,1.4532,-0.0915389,5.61385,-2.53228,-0.00349403,0.14049,0.0267767,0.0340791,-1.93021,0.196091,0.197637,-0.0113615,0.00187405,0.00246358,0.00970785,-0.000976054,0.183834,-0.000200802,-0.00307726,-0.882365,0.171151,-0.176091,0.623999,-2.97973,2.03393,-0.368372,-1.53973,-35.4942,-1.51061,26.0544,1.49749,1.86577,0.00376909,
0.140473,0.0268133,0.0336651,-1.92998,0.210216,0.18992,-0.0114349,0.00319669,0.00131712,0.00252148,0.00110604,0.427094,-0.172282,-0.0012781,-0.213913,-0.15603,-0.153964,0.337345,9.10099,-2.17038,0.0511144,1.10397,-0.00666146,1.04887,0.0979817,5.94102,-2.60937,-0.00190767,0.14049,0.0267767,0.0340791,-1.93021,0.196091,0.197637,-0.0113615,0.00187405,0.00246358,0.00970785,-0.000976054,0.183834,-0.000200802,-0.00307726,0,0,0,0,0,0,0,-1.53973,-35.4942,-1.51061,26.0544,1.49749,1.86577,0.00376909,
0.140359,0.0268581,0.0339223,-1.93003,0.206113,0.194388,-0.0114205,0.00090773,0.00154402,0.000194861,0.00236338,0.439322,-0.172285,-0.00176552,-1.4306,0.141808,-1.45414,0.785841,7.64239,-0.00141002,-0.304638,1.10397,-0.00666146,1.04887,0.0979817,5.94102,-2.60937,-0.00190767,0.14049,0.0267767,0.0340791,-1.93021,0.196091,0.197637,-0.0113615,0.00187405,0.00246358,0.00970785,-0.000976054,0.183834,-0.000200802,-0.00307726,0,0,0,0,0,0,0,-1.53973,-35.4942,-1.51061,26.0544,1.49749,1.86577,0.00376909,
0.14033,0.0268648,0.0338897,-1.92999,0.209693,0.193136,-0.0114296,-2.2162e-05,0.00140156,-0.000660107,0.00300563,0.440963,-0.169142,-0.00163803,-0.581182,-0.0890342,-0.534355,0.401404,1.02541,1.96402,0.0796817,0.59006,0.00180687,0.535973,0.283947,6.1137,-2.58487,-0.00287285,0.14049,0.0267767,0.0340791,-1.93021,0.196091,0.197637,-0.0113615,0.00187405,0.00246358,0.00970785,-0.000976054,0.183834,-0.000200802,-0.00307726,0,0,0,0,0,0,0,-1.53973,-35.4942,-1.51061,26.0544,1.49749,1.86577,0.00376909,
0.140369,0.0268558,0.0339299,-1.92996,0.212223,0.192344,-0.0114271,0.000965195,0.000897014,0.000476145,0.00307033,0.416023,-0.155105,-0.00124908,0.617098,-0.315343,0.710157,0.0404402,-15.5871,8.7729,0.243093,0.0674589,-0.013133,0.00728092,0.452504,5.92508,-2.35113,-0.0315962,0.14043,0.0267884,0.0344741,-1.93025,0.200933,0.197595,-0.0113644,-0.00343657,0.00141002,0.0121262,-0.00481321,0.16112,0.00038813,0.000735562,-0.663827,-0.131695,0.302295,-0.479644,-2.83921,0.0736165,0.476603,0.717655,-35.0221,0.786451,26.1575,1.95526,1.82,0.0303194,
0.14044,0.0268443,0.0339985,-1.92993,0.214114,0.191842,-0.0114305,0.00255843,0.000429971,0.00209787,0.00319942,0.380093,-0.136623,-0.00108275,0.995772,-0.291902,1.01358,0.0806806,-22.4565,11.5516,0.103954,0.206678,-0.0780143,0.13288,0.645345,3.91586,-1.31568,-0.0172395,0.14043,0.0267884,0.0344741,-1.93025,0.200933,0.197595,-0.0113644,-0.00343657,0.00141002,0.0121262,-0.00481321,0.16112,0.00038813,0.000735562,0,0,0,0,0,0,0,0.717655,-35.0221,0.786451,26.1575,1.95526,1.82,0.0303194,
0.140315,0.0268607,0.0343384,-1.93014,0.206897,0.195754,-0.0114169,0.000137396,0.00118783,-0.000460116,0.00404157,0.388218,-0.137028,-0.00171869,-1.51315,0.473662,-1.59874,0.526342,5.07826,-0.253035,-0.397461,0.589513,0.00166357,0.5346,0.282592,6.09692,-2.58155,-0.00285989,0.14043,0.0267884,0.0344741,-1.93025,0.200933,0.197595,-0.0113644,-0.00343657,0.00141002,0.0121262,-0.00481321,0.16112,0.00038813,0.000735562,0,0,0,0,0,0,0,0.717655,-35.0221,0.786451,26.1575,1.95526,1.82,0.0303194,
0.140265,0.0268792,0.0342845,-1.93009,0.210131,0.194681,-0.0114283,-0.00114259,0.00141285,-0.00171643,0.00442843,0.391428,-0.136459,-0.00166122,-0.799994,0.140637,-0.785194,0.24179,2.00624,0.355487,0.0359217,0.0674589,-0.013133,0.00728092,0.452504,5.92508,-2.35113,-0.0315962,0.14043,0.0267884,0.0344741,-1.93025,0.200933,0.197595,-0.0113644,-0.00343657,0.00141002,0.0121262,-0.00481321,0.16112,0.00038813,0.000735562,0,0,0,0,0,0,0,0.717655,-35.0221,0.786451,26.1575,1.95526,1.82,0.0303194,
0.140281,0.0268793,0.034301,-1.93006,0.212434,0.19401,-0.0114271,-0.000508443,0.00113168,-0.000958691,0.00428946,0.370714,-0.125922,-0.00129774,0.396345,-0.175731,0.473585,-0.0868547,-12.946,6.58561,0.227171,0.206737,-0.075853,0.132237,0.6416,3.89503,-1.31219,-0.0172244,0.14043,0.0267859,0.0346043,-1.93024,0.206951,0.197482,-0.0113641,-0.00154763,-0.000240359,-0.00124284,0.00116963,0.153625,0.00259706,-0.00107323,0.236118,-0.206298,-1.67113,0.747855,-0.936879,0.276116,-0.226098,-0.0202602,-35.0935,0.0644055,26.1813,1.57074,1.74035,0.0239107,
0.140388,0.0268,0.0345456,-1.93008,0.211537,0.196827,-0.0113987,-0.000150106,0.000824793,-0.000622805,0.0047354,0.32676,-0.103126,-0.00122724,0.223961,-0.191805,0.209929,0.278711,-27.4712,14.2472,0.0440622,0.206737,-0.075853,0.132237,0.6416,3.89503,-1.31219,-0.0172244,0.14043,0.0267859,0.0346043,-1.93024,0.206951,0.197482,-0.0113641,-0.00154763,-0.000240359,-0.00124284,0.00116963,0.153625,0.00259706,-0.00107323,0,0,0,0,0,0,0,-0.0202602,-35.0935,0.0644055,26.1813,1.57074,1.74035,0.0239107,
0.140407,0.0267942,0.034559,-1.93003,0.212585,0.196798,-0.011408,0.000352466,0.000515411,-0.000161638,0.0051462,0.287603,-0.083245,-0.00121255,0.314108,-0.193364,0.288229,0.256751,-24.4732,12.4258,0.00918028,0.0613492,-0.152119,-0.0177438,0.822114,0.983707,0.144402,-0.0141586,0.14043,0.0267859,0.0346043,-1.93024,0.206951,0.197482,-0.0113641,-0.00154763,-0.000240359,-0.00124284,0.00116963,0.153625,0.00259706,-0.00107323,0,0,0,0,0,0,0,-0.0202602,-35.0935,0.0644055,26.1813,1.57074,1.74035,0.0239107,
0.140429,0.026787,0.0345749,-1.92997,0.213535,0.196812,-0.0114182,0.000827598,0.000231563,0.000267409,0.00552812,0.253821,-0.0662421,-0.00122508,0.296957,-0.177405,0.268154,0.238698,-21.1137,10.6268,-0.00782745,0.0613492,-0.152119,-0.0177438,0.822114,0.983707,0.144402,-0.0141586,0.14043,0.0267859,0.0346043,-1.93024,0.206951,0.197482,-0.0113641,-0.00154763,-0.000240359,-0.00124284,0.00116963,0.153625,0.00259706,-0.00107323,0,0,0,0,0,0,0,-0.0202602,-35.0935,0.0644055,26.1813,1.57074,1.74035,0.0239107,
0.140451,0.0267788,0.0345905,-1.92991,0.214423,0.196856,-0.0114289,0.00120778,-1.91214e-05,0.000603733,0.00587862,0.225257,-0.0518923,-0.00124874,0.237611,-0.156677,0.210202,0.219066,-17.8527,8.9686,-0.0147916,0.0589653,-0.153598,-0.0203668,0.824046,0.975744,0.146012,-0.0141263,0.14045,0.0267959,0.034619,-1.9302,0.209281,0.19774,-0.0113641,0.000439252,-0.000824297,0.000314687,0.00222894,0.00408853,0.021502,-0.00134703,0.24836,-0.0729922,0.194691,0.132413,-18.6921,2.36312,-0.034226,-1.08349,-35.0697,-0.986925,26.4035,1.32629,1.96557,0.0239107,
0.140428,0.0268049,0.0345817,-1.93012,0.210055,0.197991,-0.0113913,0.000611183,0.000119198,-5.18025e-05,0.00583713,0.191965,-0.0385769,-0.00132416,-0.372871,0.0864495,-0.409709,-0.0259365,-20.8075,8.32215,-0.0471323,0.0589653,-0.153598,-0.0203668,0.824046,0.975744,0.146012,-0.0141263,0.14045,0.0267959,0.034619,-1.9302,0.209281,0.19774,-0.0113641,0.000439252,-0.000824297,0.000314687,0.00222894,0.00408853,0.021502,-0.00134703,0,0,0,0,0,0,0,-1.08349,-35.0697,-0.986925,26.4035,1.32629,1.96557,0.0239107,
0.140413,0.0268094,0.0345595,-1.93007,0.210629,0.198102,-0.0114035,0.000101554,0.000207799,-0.000596637,0.00591821,0.167916,-0.0280792,-0.00136317,-0.318518,0.0553754,-0.340521,0.0506788,-15.0307,6.56102,-0.0243817,0.0589653,-0.153598,-0.0203668,0.824046,0.975744,0.146012,-0.0141263,0.14045,0.0267959,0.034619,-1.9302,0.209281,0.19774,-0.0113641,0.000439252,-0.000824297,0.000314687,0.00222894,0.00408853,0.021502,-0.00134703,0,0,0,0,0,0,0,-1.08349,-35.0697,-0.986925,26.4035,1.32629,1.96557,0.0239107,
0.140398,0.0268121,0.0345386,-1.93002,0.211268,0.198211,-0.0114151,-0.000277669,0.000233767,-0.000997762,0.00606391,0.150295,-0.019739,-0.00138229,-0.237015,0.0162306,-0.250703,0.0910592,-11.0128,5.21263,-0.0119527,0.0589653,-0.153598,-0.0203668,0.824046,0.975744,0.146012,-0.0141263,0.14045,0.0267959,0.034619,-1.9302,0.209281,0.19774,-0.0113641,0.000439252,-0.000824297,0.000314687,0.00222894,0.00408853,0.021502,-0.00134703,0,0,0,0,0,0,0,-1.08349,-35.0697,-0.986925,26.4035,1.32629,1.96557,0.0239107,
0.140386,0.0268127,0.0345201,-1.92996,0.211947,0.198319,-0.0114266,-0.00052661,0.000204131,-0.00126114,0.00624218,0.137227,-0.0130803,-0.00139105,-0.155589,-0.0185227,-0.164614,0.11142,-8.16785,4.16169,-0.00547425,0.0578972,-0.136006,-0.021213,0.808525,0.980222,0.132221,-0.0140362,0.140311,0.0268097,0.0344473,-1.9302,0.20824,0.200494,-0.0113677,-0.00546936,0.000773242,-0.000497617,0.000551113,-0.0653764,0.105987,-0.000908513,-0.738577,0.199692,-0.101538,-0.209728,-8.68311,10.5606,0.0548151,-1.13507,-35.2959,-1.0623,26.705,1.0086,2.28417,0.017502,
0.140269,0.0268292,0.0343959,-1.93015,0.20818,0.201062,-0.0113841,-0.00149123,0.000651402,-0.00229283,0.00639626,0.108285,0.0037272,-0.00152261,-0.60289,0.279544,-0.644802,0.0962993,-18.0889,10.5047,-0.0822281,0.0578972,-0.136006,-0.021213,0.808525,0.980222,0.132221,-0.0140362,0.140311,0.0268097,0.0344473,-1.9302,0.20824,0.200494,-0.0113677,-0.00546936,0.000773242,-0.000497617,0.000551113,-0.0653764,0.105987,-0.000908513,0,0,0,0,0,0,0,-1.13507,-35.2959,-1.0623,26.705,1.0086,2.28417,0.017502,
0.140218,0.0268446,0.0343381,-1.93008,0.208411,0.201474,-0.0113985,-0.00244951,0.000907614,-0.00327956,0.00678303,0.0923994,0.0132832,-0.00157738,-0.598921,0.160132,-0.616709,0.241734,-9.92821,5.97252,-0.0342259,0.0578972,-0.136006,-0.021213,0.808525,0.980222,0.132221,-0.0140362,0.140311,0.0268097,0.0344473,-1.9302,0.20824,0.200494,-0.0113677,-0.00546936,0.000773242,-0.000497617,0.000551113,-0.0653764,0.105987,-0.000908513,0,0,0,0,0,0,0,-1.13507,-35.2959,-1.0623,26.705,1.0086,2.28417,0.017502,
0.140169,0.0268539,0.034282,-1.93001,0.208824,0.201789,-0.0114113,-0.00319396,0.000958382,-0.00402608,0.0071315,0.0842501,0.0184977,-0.00158246,-0.465283,0.0317301,-0.466575,0.217794,-5.09332,3.25907,-0.00317915,0.0578972,-0.136006,-0.021213,0.808525,0.980222,0.132221,-0.0140362,0.140311,0.0268097,0.0344473,-1.9302,0.20824,0.200494,-0.0113677,-0.00546936,0.000773242,-0.000497617,0.000551113,-0.0653764,0.105987,-0.000908513,0,0,0,0,0,0,0,-1.13507,-35.2959,-1.0623,26.705,1.0086,2.28417,0.017502,
0.140169,0.0268539,0.034282,-1.93001,0.208824,0.201789,-0.0114113,-0.00378952,0.000998996,-0.0046233,0.00741028,0.0777307,0.0226694,-0.00158653,-0.372226,0.0253841,-0.37326,0.174235,-4.07465,2.60726,-0.00254332,0.0588219,-0.116811,-0.019644,0.791638,0.99115,0.112689,-0.0139437,0.140043,0.0267996,0.0340331,-1.93017,0.205919,0.20439,-0.011363,-0.00680512,-0.00117452,-0.0185118,-0.000647672,-0.0608312,0.112157,-0.000141143,-0.166969,-0.24347,-2.25177,-0.149848,0.568154,0.771352,0.0959213,-1.53973,-34.6968,-1.51061,26.2805,0.898739,2.46911,0.00376909,
0.140125,0.026858,0.0342312,-1.92994,0.209353,0.202039,-0.0114232,-0.00414334,0.000900524,-0.00496791,0.00762531,0.0754054,0.0244031,-0.00156716,-0.221136,-0.0615455,-0.215381,0.134395,-1.45331,1.08357,0.0121059,0.0588219,-0.116811,-0.019644,0.791638,0.99115,0.112689,-0.0139437,0.140043,0.0267996,0.0340331,-1.93017,0.205919,0.20439,-0.011363,-0.00680512,-0.00117452,-0.0185118,-0.000647672,-0.0608312,0.112157,-0.000141143,0,0,0,0,0,0,0,-1.53973,-34.6968,-1.51061,26.2805,0.898739,2.46911,0.00376909,
0.140087,0.0268581,0.0341871,-1.92988,0.209957,0.202246,-0.0114346,-0.00426642,0.00072271,-0.00507877,0.00778134,0.0754088,0.0247016,-0.0015393,-0.0769243,-0.111133,-0.0692875,0.0975191,0.00214893,0.18656,0.0174148,0.0588219,-0.116811,-0.019644,0.791638,0.99115,0.112689,-0.0139437,0.140043,0.0267996,0.0340331,-1.93017,0.205919,0.20439,-0.011363,-0.00680512,-0.00117452,-0.0185118,-0.000647672,-0.0608312,0.112157,-0.000141143,0,0,0,0,0,0,0,-1.53973,-34.6968,-1.51061,26.2805,0.898739,2.46911,0.00376909,
0.140055,0.0268553,0.0341495,-1.92981,0.210609,0.202424,-0.0114458,-0.00420049,0.000508495,-0.00500127,0.00789052,0.076637,0.0241873,-0.00151062,0.0412054,-0.133885,0.0484343,0.0682393,0.767607,-0.32143,0.0179216,0.0588219,-0.116811,-0.019644,0.791638,0.99115,0.112689,-0.0139437,0.140043,0.0267996,0.0340331,-1.93017,0.205919,0.20439,-0.011363,-0.00680512,-0.00117452,-0.0185118,-0.000647672,-0.0608312,0.112157,-0.000141143,0,0,0,0,0,0,0,-1.53973,-34.6968,-1.51061,26.2805,0.898739,2.46911,0.00376909,
0.139766,0.0268286,0.0337351,-1.92997,0.20645,0.205754,-0.0114023,-0.00543363,0.0005551,-0.00622431,0.00813815,0.0709936,0.0276499,-0.00150754,-0.770715,0.0291285,-0.764398,0.15477,-3.52709,2.16417,0.00192609,0.0588219,-0.116811,-0.019644,0.791638,0.99115,0.112689,-0.0139437,0.140043,0.0267996,0.0340331,-1.93017,0.205919,0.20439,-0.011363,-0.00680512,-0.00117452,-0.0185118,-0.000647672,-0.0608312,0.112157,-0.000141143,0,0,0,0,0,0,0,-1.53973,-34.6968,-1.51061,26.2805,0.898739,2.46911,0.00376909,
0.139695,0.0268302,0.0336589,-1.9299,0.206954,0.206017,-0.0114136,-0.00610889,0.000484216,-0.00688534,0.00830103,0.0693924,0.0286916,-0.00148847,-0.422033,-0.0443028,-0.413147,0.101796,-1.00081,0.651027,0.0119206,0.0594911,-0.0968878,-0.0183556,0.774356,1.00059,0.0921142,-0.0138569,0.139727,0.0268416,0.0334234,-1.9302,0.203942,0.208489,-0.0113636,-0.00610098,0.000520869,-0.00956461,-0.000455334,-0.020886,0.107085,-0.000461242,0.0880178,0.211923,1.1184,0.0240423,4.99314,-0.634042,-0.0400124,0.511356,-35.2959,0.43733,26.5543,1.13678,2.41692,-0.00996382,
0.139637,0.0268286,0.0335948,-1.92983,0.207536,0.206232,-0.0114246,-0.00634681,0.00034691,-0.00711009,0.00839084,0.0700567,0.0283213,-0.00146473,-0.148704,-0.0858165,-0.140465,0.056133,0.415244,-0.231448,0.0148375,0.0594911,-0.0968878,-0.0183556,0.774356,1.00059,0.0921142,-0.0138569,0.139727,0.0268416,0.0334234,-1.9302,0.203942,0.208489,-0.0113636,-0.00610098,0.000520869,-0.00956461,-0.000455334,-0.020886,0.107085,-0.000461242,0,0,0,0,0,0,0,0.511356,-35.2959,0.43733,26.5543,1.13678,2.41692,-0.00996382,
0.13959,0.0268247,0.0335417,-1.92976,0.208171,0.206412,-0.0114354,-0.00626397,0.000180352,-0.00701706,0.00842675,0.0719156,0.0271692,-0.00144197,0.0517786,-0.104099,0.058145,0.0224418,1.16178,-0.720015,0.0142272,0.0594911,-0.0968878,-0.0183556,0.774356,1.00059,0.0921142,-0.0138569,0.139727,0.0268416,0.0334234,-1.9302,0.203942,0.208489,-0.0113636,-0.00610098,0.000520869,-0.00956461,-0.000455334,-0.020886,0.107085,-0.000461242,0,0,0,0,0,0,0,0.511356,-35.2959,0.43733,26.5543,1.13678,2.41692,-0.00996382,
0.139492,0.0268872,0.0331615,-1.92992,0.205546,0.209986,-0.0114136,-0.00623779,0.000215402,-0.00698823,0.00851422,0.0721978,0.0275881,-0.00143708,0.0163577,0.0219062,0.0180183,0.0546711,0.176389,0.2618,0.00305111,0.0594911,-0.0968878,-0.0183556,0.774356,1.00059,0.0921142,-0.0138569,0.139727,0.0268416,0.0334234,-1.9302,0.203942,0.208489,-0.0113636,-0.00610098,0.000520869,-0.00956461,-0.000455334,-0.020886,0.107085,-0.000461242,0,0,0,0,0,0,0,0.511356,-35.2959,0.43733,26.5543,1.13678,2.41692,-0.00996382,
0.139451,0.0268864,0.0331149,-1.92985,0.20619,0.210174,-0.0114247,-0.00600956,0.000151602,-0.00675588,0.00853972,0.0738673,0.0267718,-0.00142536,0.142649,-0.0398748,0.145216,0.0159364,1.04342,-0.510175,0.00732899,0.0600249,-0.0846373,-0.0173359,0.763898,1.00221,0.0803594,-0.0138084,0.13945,0.0268541,0.0328129,-1.93016,0.203979,0.210931,-0.011359,-0.00651788,-0.000918625,-0.0178819,0.00737181,0.00958322,0.0554712,0.000940937,-0.0521126,-0.179937,-1.03966,0.978392,3.80865,-6.45173,0.175272,0.384403,-35.2959,0.314344,26.0822,1.03332,2.16424,-0.0227812,
0.139418,0.0268831,0.0330759,-1.92978,0.206874,0.210329,-0.0114356,-0.00563492,3.97771e-05,-0.00637786,0.00852125,0.0761752,0.0253097,-0.00141221,0.234149,-0.0698905,0.236264,-0.0115449,1.44247,-0.913866,0.00821629,0.0600249,-0.0846373,-0.0173359,0.763898,1.00221,0.0803594,-0.0138084,0.13945,0.0268541,0.0328129,-1.93016,0.203979,0.210931,-0.011359,-0.00651788,-0.000918625,-0.0178819,0.00737181,0.00958322,0.0554712,0.000940937,0,0,0,0,0,0,0,0.384403,-35.2959,0.314344,26.0822,1.03332,2.16424,-0.0227812,
0.139229,0.0268455,0.0325723,-1.92995,0.205294,0.211706,-0.0113932,-0.0060699,-5.88203e-05,-0.0068059,0.00855572,0.0747829,0.0252546,-0.00140622,-0.271867,-0.0616234,-0.267529,0.0215441,-0.870224,-0.0344065,0.00374204,0.0600249,-0.0846373,-0.0173359,0.763898,1.00221,0.0803594,-0.0138084,0.13945,0.0268541,0.0328129,-1.93016,0.203979,0.210931,-0.011359,-0.00651788,-0.000918625,-0.0178819,0.00737181,0.00958322,0.0554712,0.000940937,0,0,0,0,0,0,0,0.384403,-35.2959,0.314344,26.0822,1.03332,2.16424,-0.0227812,
0.139177,0.0268409,0.0325154,-1.92988,0.205913,0.211871,-0.0114041,-0.00613897,-0.000161608,-0.00686849,0.00854332,0.0753123,0.0243239,-0.00139509,-0.0431681,-0.0642424,-0.0391157,-0.00774798,0.330909,-0.581679,0.00695735,0.0600249,-0.0846373,-0.0173359,0.763898,1.00221,0.0803594,-0.0138084,0.13945,0.0268541,0.0328129,-1.93016,0.203979,0.210931,-0.011359,-0.00651788,-0.000918625,-0.0178819,0.00737181,0.00958322,0.0554712,0.000940937,0,0,0,0,0,0,0,0.384403,-35.2959,0.314344,26.0822,1.03332,2.16424,-0.0227812,
0.139136,0.0268356,0.0324683,-1.92982,0.206578,0.21201,-0.0114148,-0.00594635,-0.000261354,-0.0066714,0.00849791,0.0768583,0.0229382,-0.00138353,0.12039,-0.0623414,0.123178,-0.0283857,0.966213,-0.866066,0.00722738,0.0592331,-0.0778835,-0.0178284,0.757358,1.00281,0.0735173,-0.0137724,0.139276,0.0268522,0.0324737,-1.93015,0.203928,0.212341,-0.0113661,-0.00451252,0.00053135,-0.00650144,0.000982538,0.000813353,0.0405355,-0.000453956,0.25067,0.181247,1.42256,-0.798659,-1.09623,-1.86696,-0.174362,0.840641,-35.2681,0.762648,26.0306,1.55883,1.77971,0.00376909,
0.139103,0.0268299,0.0324297,-1.92975,0.207273,0.212131,-0.0114254,-0.00557945,-0.000352772,-0.00630238,0.00843166,0.0788768,0.0213579,-0.00137361,0.22931,-0.0571361,0.23064,-0.0414027,1.26158,-0.987706,0.00620158,0.0592331,-0.0778835,-0.0178284,0.757358,1.00281,0.0735173,-0.0137724,0.139276,0.0268522,0.0324737,-1.93015,0.203928,0.212341,-0.0113661,-0.00451252,0.00053135,-0.00650144,0.000982538,0.000813353,0.0405355,-0.000453956,0,0,0,0,0,0,0,0.840641,-35.2681,0.762648,26.0306,1.55883,1.77971,0.00376909,
0.139186,0.0268815,0.0323698,-1.93006,0.204653,0.212714,-0.0113916,-0.00557275,7.51352e-05,-0.00631451,0.00797454,0.0743236,0.0210478,-0.00140775,0.00418708,0.267442,-0.00758438,-0.285701,-2.84577,-0.193807,-0.0213371,0.0592331,-0.0778835,-0.0178284,0.757358,1.00281,0.0735173,-0.0137724,0.139276,0.0268522,0.0324737,-1.93015,0.203928,0.212341,-0.0113661,-0.00451252,0.00053135,-0.00650144,0.000982538,0.000813353,0.0405355,-0.000453956,0,0,0,0,0,0,0,0.840641,-35.2681,0.762648,26.0306,1.55883,1.77971,0.00376909,
0.139146,0.0268929,0.032324,-1.93001,0.205212,0.212839,-0.0114032,-0.00544925,0.000343653,-0.0061965,0.00769203,0.0734189,0.0199765,-0.00141601,0.0771882,0.167824,0.0737619,-0.176571,-0.565404,-0.669591,-0.00516629,0.0592331,-0.0778835,-0.0178284,0.757358,1.00281,0.0735173,-0.0137724,0.139276,0.0268522,0.0324737,-1.93015,0.203928,0.212341,-0.0113661,-0.00451252,0.00053135,-0.00650144,0.000982538,0.000813353,0.0405355,-0.000453956,0,0,0,0,0,0,0,0.840641,-35.2681,0.762648,26.0306,1.55883,1.77971,0.00376909,
0.139113,0.0269011,0.0322843,-1.92996,0.205841,0.212944,-0.0114144,-0.00520177,0.000482056,-0.00594906,0.00751071,0.0744613,0.0185926,-0.00141182,0.154677,0.0865019,0.154649,-0.113325,0.651484,-0.86489,0.00261803,0.0593596,-0.0689585,-0.0174167,0.749102,1.00383,0.0654257,-0.0137307,0.139015,0.0268446,0.0321701,-1.93015,0.203935,0.214033,-0.0113597,-0.00580664,-0.00243703,-0.00632533,-0.000261016,0.00783039,0.0430761,0.000421796,-0.161765,-0.371047,0.0220136,-0.155444,0.877129,0.31757,0.109469,1.09455,-35.0697,1.01259,25.9076,1.38763,1.76049,-0.0227812,
0.13923,0.0268672,0.0324207,-1.93011,0.204204,0.212555,-0.0113793,-0.00530225,0.000760317,-0.00608474,0.0070149,0.0664899,0.0202272,-0.00145882,-0.0628005,0.173913,-0.0848027,-0.309876,-4.98212,1.02161,-0.0293726,0.0593596,-0.0689585,-0.0174167,0.749102,1.00383,0.0654257,-0.0137307,0.139015,0.0268446,0.0321701,-1.93015,0.203935,0.214033,-0.0113597,-0.00580664,-0.00243703,-0.00632533,-0.000261016,0.00783039,0.0430761,0.000421796,0,0,0,0,0,0,0,1.09455,-35.0697,1.01259,25.9076,1.38763,1.76049,-0.0227812,
0.138921,0.0268512,0.032063,-1.93006,0.204715,0.214413,-0.0113843,-0.00538102,0.000733697,-0.00616714,0.00695966,0.0649426,0.0202052,-0.00146985,-0.0492314,-0.0166376,-0.0514968,-0.0345297,-0.9671,-0.0137538,-0.00689199,0.0593596,-0.0689585,-0.0174167,0.749102,1.00383,0.0654257,-0.0137307,0.139015,0.0268446,0.0321701,-1.93015,0.203935,0.214033,-0.0113597,-0.00580664,-0.00243703,-0.00632533,-0.000261016,0.00783039,0.0430761,0.000421796,0,0,0,0,0,0,0,1.09455,-35.0697,1.01259,25.9076,1.38763,1.76049,-0.0227812,
0.138881,0.0268556,0.0320167,-1.93,0.205288,0.214541,-0.0113958,-0.0053096,0.000697091,-0.00609007,0.00698582,0.0662683,0.0193442,-0.00146243,0.0446381,-0.0228792,0.0481671,0.0163503,0.828571,-0.538119,0.00463603,0.0593596,-0.0689585,-0.0174167,0.749102,1.00383,0.0654257,-0.0137307,0.139015,0.0268446,0.0321701,-1.93015,0.203935,0.214033,-0.0113597,-0.00580664,-0.00243703,-0.00632533,-0.000261016,0.00783039,0.0430761,0.000421796,0,0,0,0,0,0,0,1.09455,-35.0697,1.01259,25.9076,1.38763,1.76049,-0.0227812,
0.138847,0.0268586,0.0319769,-1.92994,0.205927,0.214646,-0.0114069,-0.00509507,0.000632341,-0.00586728,0.00703058,0.0689874,0.0181105,-0.00144689,0.134084,-0.0404684,0.139245,0.0279781,1.69942,-0.771063,0.00971394,0.0589887,-0.0646106,-0.0177104,0.745654,1.00415,0.0616848,-0.0137116,0.138888,0.0268673,0.0320091,-1.93013,0.203925,0.21482,-0.0113632,0.000586104,0.00127456,-0.00639294,-0.000723283,0.00768457,0.00944808,0.000203891,0.799093,0.463949,-0.00845171,-0.0577834,-0.0182274,-4.2035,-0.0272381,0.360599,-34.796,0.338148,25.6339,1.36932,1.93261,-0.0227812,
0.138861,0.0268879,0.031974,-1.93011,0.204244,0.214861,-0.0113761,-0.0047546,0.00101975,-0.00557129,0.0061646,0.0631695,0.0155073,-0.00148016,0.212791,0.242132,0.184992,-0.541238,-3.63614,-1.62703,-0.0207979,0.0589887,-0.0646106,-0.0177104,0.745654,1.00415,0.0616848,-0.0137116,0.138888,0.0268673,0.0320091,-1.93013,0.203925,0.21482,-0.0113632,0.000586104,0.00127456,-0.00639294,-0.000723283,0.00768457,0.00944808,0.000203891,0,0,0,0,0,0,0,0.360599,-34.796,0.338148,25.6339,1.36932,1.93261,-0.0227812,
0.138832,0.0269088,0.0319385,-1.93008,0.204725,0.214893,-0.0113884,-0.00452434,0.00134037,-0.0053447,0.00574143,0.0625667,0.0132021,-0.00149168,0.14391,0.200388,0.141616,-0.264479,-0.376747,-1.44073,-0.00719561,0.0589887,-0.0646106,-0.0177104,0.745654,1.00415,0.0616848,-0.0137116,0.138888,0.0268673,0.0320091,-1.93013,0.203925,0.21482,-0.0113632,0.000586104,0.00127456,-0.00639294,-0.000723283,0.00768457,0.00944808,0.000203891,0,0,0,0,0,0,0,0.360599,-34.796,0.338148,25.6339,1.36932,1.93261,-0.0227812,
0.138806,0.0269274,0.0319056,-1.93004,0.205308,0.214923,-0.0114,-0.00428501,0.00153756,-0.00509848,0.00555571,0.0646348,0.0113308,-0.00148276,0.149585,0.123243,0.15389,-0.116075,1.29257,-1.16953,0.00557393,0.0589887,-0.0646106,-0.0177104,0.745654,1.00415,0.0616848,-0.0137116,0.138888,0.0268673,0.0320091,-1.93013,0.203925,0.21482,-0.0113632,0.000586104,0.00127456,-0.00639294,-0.000723283,0.00768457,0.00944808,0.000203891,0,0,0,0,0,0,0,0.360599,-34.796,0.338148,25.6339,1.36932,1.93261,-0.0227812,
0.138783,0.026943,0.0318766,-1.93,0.205957,0.214956,-0.0114112,-0.00400062,0.00161832,-0.0048039,0.00551484,0.0679164,0.00987082,-0.00146533,0.177742,0.0504711,0.184109,-0.0255477,2.05099,-0.912514,0.0108937,0.0589336,-0.062462,-0.017861,0.746141,1.00406,0.06201,-0.0137128,0.138776,0.0269378,0.0318803,-1.93018,0.203968,0.214868,-0.0113608,-0.00647205,0.00274527,-0.000925467,0.00184758,0.0121989,-0.00698707,0.000547182,-0.882269,0.183839,0.683434,0.321358,0.564297,-2.05439,0.0429114,0.336795,-35.1689,0.26277,26.0822,1.19171,2.19811,-0.0163725,
0.138744,0.0269614,0.031842,-1.93016,0.204312,0.214835,-0.0113734,-0.00399508,0.00188408,-0.00480172,0.00494069,0.0629311,0.00707067,-0.00148748,0.00346438,0.166102,0.00136572,-0.358841,-3.11583,-1.75009,-0.0138462,0.0589336,-0.062462,-0.017861,0.746141,1.00406,0.06201,-0.0137128,0.138776,0.0269378,0.0318803,-1.93018,0.203968,0.214868,-0.0113608,-0.00647205,0.00274527,-0.000925467,0.00184758,0.0121989,-0.00698707,0.000547182,0,0,0,0,0,0,0,0.336795,-35.1689,0.26277,26.0822,1.19171,2.19811,-0.0163725,
0.138713,0.0269842,0.0318045,-1.93013,0.204808,0.21482,-0.0113855,-0.00397027,0.00207685,-0.00477862,0.00465985,0.0627293,0.00526608,-0.00149093,0.0155045,0.120485,0.0144349,-0.175525,-0.126107,-1.12787,-0.00215334,0.0589336,-0.062462,-0.017861,0.746141,1.00406,0.06201,-0.0137128,0.138776,0.0269378,0.0318803,-1.93018,0.203968,0.214868,-0.0113608,-0.00647205,0.00274527,-0.000925467,0.00184758,0.0121989,-0.00698707,0.000547182,0,0,0,0,0,0,0,0.336795,-35.1689,0.26277,26.0822,1.19171,2.19811,-0.0163725,
0.138685,0.0270046,0.0317707,-1.93009,0.205398,0.214818,-0.0113968,-0.00386693,0.00217321,-0.0046689,0.004588,0.0649533,0.0041716,-0.00147765,0.0645908,0.0602208,0.0685751,-0.0449057,1.38999,-0.684048,0.0082951,0.0589336,-0.062462,-0.017861,0.746141,1.00406,0.06201,-0.0137128,0.138776,0.0269378,0.0318803,-1.93018,0.203968,0.214868,-0.0113608,-0.00647205,0.00274527,-0.000925467,0.00184758,0.0121989,-0.00698707,0.000547182,0,0,0,0,0,0,0,0.336795,-35.1689,0.26277,26.0822,1.19171,2.19811,-0.0163725,
0.138744,0.0269614,0.031842,-1.93016,0.204312,0.214835,-0.0113734,-0.00388812,0.00232799,-0.00469372,0.00419922,0.0605606,0.0025113,-0.00149734,-0.0132476,0.0967405,-0.0155094,-0.242987,-2.74544,-1.03769,-0.0123053,0.0589174,-0.0602853,-0.0181916,0.747523,1.00384,0.0631347,-0.0137184,0.138764,0.0270484,0.0318826,-1.93023,0.204053,0.214807,-0.0113667,-0.000540357,0.00484646,-0.00341182,-0.000718806,0.00812642,-0.00448632,-0.000382983,0.741461,0.262648,-0.310794,-0.320798,-0.509066,0.312593,-0.116271,0.106693,-34.4945,0.0882092,25.7806,0.97839,2.32354,0.017502,
0.138713,0.0269842,0.0318045,-1.93013,0.204808,0.21482,-0.0113855,-0.00388471,0.00243199,-0.00469222,0.00406668,0.0608329,0.00161858,-0.00149882,0.00213493,0.0649958,0.000934761,-0.0828414,0.170205,-0.557949,-0.000920634,0.0589174,-0.0602853,-0.0181916,0.747523,1.00384,0.0631347,-0.0137184,0.138764,0.0270484,0.0318826,-1.93023,0.204053,0.214807,-0.0113667,-0.000540357,0.00484646,-0.00341182,-0.000718806,0.00812642,-0.00448632,-0.000382983,0,0,0,0,0,0,0,0.106693,-34.4945,0.0882092,25.7806,0.97839,2.32354,0.017502,
0.138685,0.0270046,0.0317707,-1.93009,0.205398,0.214818,-0.0113968,-0.00379847,0.00245731,-0.00459978,0.00411346,0.0634362,0.0012536,-0.00148397,0.0538952,0.0158294,0.057775,0.0292411,1.62704,-0.22811,0.00928127,0.0589174,-0.0602853,-0.0181916,0.747523,1.00384,0.0631347,-0.0137184,0.138764,0.0270484,0.0318826,-1.93023,0.204053,0.214807,-0.0113667,-0.000540357,0.00484646,-0.00341182,-0.000718806,0.00812642,-0.00448632,-0.000382983,0,0,0,0,0,0,0,0.106693,-34.4945,0.0882092,25.7806,0.97839,2.32354,0.017502,
0.138662,0.0270221,0.0317413,-1.93005,0.206051,0.214827,-0.0114079,-0.0036209,0.0024032,-0.00441357,0.00427473,0.067051,0.00124153,-0.00146354,0.110981,-0.0338212,0.116384,0.100789,2.25926,-0.00754511,0.0127696,0.0589174,-0.0602853,-0.0181916,0.747523,1.00384,0.0631347,-0.0137184,0.138764,0.0270484,0.0318826,-1.93023,0.204053,0.214807,-0.0113667,-0.000540357,0.00484646,-0.00341182,-0.000718806,0.00812642,-0.00448632,-0.000382983,0,0,0,0,0,0,0,0.106693,-34.4945,0.0882092,25.7806,0.97839,2.32354,0.017502,
0.138743,0.0270872,0.0318537,-1.93022,0.204377,0.214776,-0.0113799,-0.00342837,0.00289383,-0.00425455,0.00367366,0.0617514,0.0002205,-0.00150153,0.120332,0.306642,0.0993853,-0.375668,-3.31224,-0.638143,-0.0237464,0.0589174,-0.0602853,-0.0181916,0.747523,1.00384,0.0631347,-0.0137184,0.138764,0.0270484,0.0318826,-1.93023,0.204053,0.214807,-0.0113667,-0.000540357,0.00484646,-0.00341182,-0.000718806,0.00812642,-0.00448632,-0.000382983,0,0,0,0,0,0,0,0.106693,-34.4945,0.0882092,25.7806,0.97839,2.32354,0.017502,
0.138719,0.0271223,0.0318232,-1.93019,0.204862,0.214756,-0.0113923,-0.00333625,0.00319158,-0.00416675,0.00345563,0.0615244,-0.000323707,-0.00150957,0.0575749,0.186097,0.054878,-0.13627,-0.141912,-0.340129,-0.00502676,0.0589323,-0.0569503,-0.0187028,0.749353,1.00377,0.0645665,-0.0137257,0.138816,0.0272151,0.0319585,-1.93027,0.204098,0.21473,-0.0113628,-0.00197598,0.00133249,0.00404227,-0.00172643,0.00658107,-0.00388263,0.000466645,-0.179453,-0.439246,0.931761,-0.125954,-0.193169,0.0754617,0.106203,-0.551876,-35.518,-0.661608,26.4313,0.9967,2.41692,-0.0227812,
0.138697,0.0271524,0.0317944,-1.93017,0.205448,0.214747,-0.0114038,-0.00322872,0.00330539,-0.00405291,0.00347818,0.0638577,-0.000467906,-0.00149735,0.0672057,0.0711275,0.071149,0.0140963,1.45835,-0.0901244,0.00763693,0.0589323,-0.0569503,-0.0187028,0.749353,1.00377,0.0645665,-0.0137257,0.138816,0.0272151,0.0319585,-1.93027,0.204098,0.21473,-0.0113628,-0.00197598,0.00133249,0.00404227,-0.00172643,0.00658107,-0.00388263,0.000466645,0,0,0,0,0,0,0,-0.551876,-35.518,-0.661608,26.4313,0.9967,2.41692,-0.0227812,
0.138677,0.0271774,0.0317688,-1.93013,0.206097,0.21475,-0.011415,-0.00306833,0.00326961,-0.00388266,0.00365049,0.0673275,-0.000315727,-0.00147737,0.100246,-0.022361,0.106404,0.107696,2.16864,0.0951116,0.012489,0.0589323,-0.0569503,-0.0187028,0.749353,1.00377,0.0645665,-0.0137257,0.138816,0.0272151,0.0319585,-1.93027,0.204098,0.21473,-0.0113628,-0.00197598,0.00133249,0.00404227,-0.00172643,0.00658107,-0.00388263,0.000466645,0,0,0,0,0,0,0,-0.551876,-35.518,-0.661608,26.4313,0.9967,2.41692,-0.0227812,
0.138812,0.0272372,0.0319474,-1.93026,0.204425,0.214695,-0.0113762,-0.00254955,0.0031689,-0.00338531,0.00323412,0.0620248,-0.00113926,-0.00151925,0.32424,-0.0629444,0.310842,-0.260232,-3.31423,-0.514711,-0.0261756,0.0589323,-0.0569503,-0.0187028,0.749353,1.00377,0.0645665,-0.0137257,0.138816,0.0272151,0.0319585,-1.93027,0.204098,0.21473,-0.0113628,-0.00197598,0.00133249,0.00404227,-0.00172643,0.00658107,-0.00388263,0.000466645,0,0,0,0,0,0,0,-0.551876,-35.518,-0.661608,26.4313,0.9967,2.41692,-0.0227812,
0.138802,0.0272608,0.03193,-1.93024,0.204919,0.214671,-0.011389,-0.00229614,0.00312513,-0.00314262,0.00320207,0.0619702,-0.00151257,-0.00153317,0.158382,-0.0273514,0.151685,-0.0200318,-0.0341046,-0.233319,-0.00870217,0.0589255,-0.0528815,-0.0193073,0.751042,1.00381,0.0657832,-0.0137321,0.138809,0.0274004,0.0320622,-1.9303,0.204113,0.214694,-0.0113668,-0.000817423,0.00862105,2.03628e-05,-0.000690882,0.00536118,-0.00252803,-0.000421917,0.14482,0.91107,-0.502738,0.129444,-0.152486,0.169325,-0.11107,-0.274166,-35.0459,-0.237108,26.2567,1.1734,2.29699,0.0101778,
0.13879,0.0272826,0.0319113,-1.9302,0.205516,0.21466,-0.0114008,-0.00213869,0.00304399,-0.00298181,0.0033663,0.0645099,-0.00147626,-0.00152308,0.0984049,-0.0507158,0.100506,0.102641,1.58732,0.022697,0.00630745,0.0589255,-0.0528815,-0.0193073,0.751042,1.00381,0.0657832,-0.0137321,0.138809,0.0274004,0.0320622,-1.9303,0.204113,0.214694,-0.0113668,-0.000817423,0.00862105,2.03628e-05,-0.000690882,0.00536118,-0.00252803,-0.000421917,0,0,0,0,0,0,0,-0.274166,-35.0459,-0.237108,26.2567,1.1734,2.29699,0.0101778,
0.138797,0.0274592,0.032042,-1.9303,0.204428,0.214674,-0.0113805,-0.00202496,0.00390512,-0.00289216,0.00280766,0.0594816,-0.00168666,-0.00156147,0.0710832,0.538209,0.056027,-0.349147,-3.14271,-0.131499,-0.0239918,0.0589255,-0.0528815,-0.0193073,0.751042,1.00381,0.0657832,-0.0137321,0.138809,0.0274004,0.0320622,-1.9303,0.204113,0.214694,-0.0113668,-0.000817423,0.00862105,2.03628e-05,-0.000690882,0.00536118,-0.00252803,-0.000421917,0,0,0,0,0,0,0,-0.274166,-35.0459,-0.237108,26.2567,1.1734,2.29699,0.0101778,
0.13878,0.0275087,0.0320175,-1.93028,0.204908,0.214658,-0.0113932,-0.0020542,0.00436108,-0.00292441,0.00261944,0.0596088,-0.00173658,-0.00156441,-0.01828,0.28497,-0.0201533,-0.117641,0.079517,-0.0311991,-0.00183629,0.0589255,-0.0528815,-0.0193073,0.751042,1.00381,0.0657832,-0.0137321,0.138809,0.0274004,0.0320622,-1.9303,0.204113,0.214694,-0.0113668,-0.000817423,0.00862105,2.03628e-05,-0.000690882,0.00536118,-0.00252803,-0.000421917,0,0,0,0,0,0,0,-0.274166,-35.0459,-0.237108,26.2567,1.1734,2.29699,0.0101778,
0.138762,0.0275496,0.0319932,-1.93026,0.205493,0.21465,-0.0114049,-0.00208631,0.00451183,-0.00294785,0.00268758,0.0622917,-0.00158644,-0.00154547,-0.0200682,0.0942239,-0.0146492,0.0425919,1.67677,0.0938362,0.011835,0.0589909,-0.0494883,-0.0196361,0.751766,1.00397,0.0662101,-0.0137346,0.138773,0.0275291,0.0321105,-1.93029,0.20409,0.214727,-0.0113629,-0.00867531,0.00534914,-0.0040998,0.00183389,0.00535706,-0.0024918,0.00112841,-0.982235,-0.408989,-0.51502,0.315597,-0.000515088,0.00452837,0.193791,0.360599,-35.0935,0.413527,26.0306,1.3327,2.03881,-0.0163725,
0.138746,0.027583,0.0319709,-1.93023,0.206142,0.214651,-0.0114162,-0.00206743,0.00444267,-0.00291632,0.00291956,0.0660725,-0.00125201,-0.00151867,0.0118036,-0.043226,0.0197062,0.144987,2.36302,0.209019,0.0167528,0.0589909,-0.0494883,-0.0196361,0.751766,1.00397,0.0662101,-0.0137346,0.138773,0.0275291,0.0321105,-1.93029,0.20409,0.214727,-0.0113629,-0.00867531,0.00534914,-0.0040998,0.00183389,0.00535706,-0.0024918,0.00112841,0,0,0,0,0,0,0,0.360599,-35.0935,0.413527,26.0306,1.3327,2.03881,-0.0163725,
0.138723,0.0275672,0.0320547,-1.93028,0.204391,0.214722,-0.0113752,-0.00288396,0.00450649,-0.00372751,0.00279882,0.060366,-0.00113502,-0.00152179,-0.510331,0.0398825,-0.506997,-0.0754631,-3.56657,0.0731165,-0.0019533,0.0589909,-0.0494883,-0.0196361,0.751766,1.00397,0.0662101,-0.0137346,0.138773,0.0275291,0.0321105,-1.93029,0.20409,0.214727,-0.0113629,-0.00867531,0.00534914,-0.0040998,0.00183389,0.00535706,-0.0024918,0.00112841,0,0,0,0,0,0,0,0.360599,-35.0935,0.413527,26.0306,1.3327,2.03881,-0.0163725,
0.138678,0.0276008,0.0320031,-1.93025,0.204851,0.214727,-0.0113871,-0.00343405,0.00444546,-0.00427109,0.00288096,0.0598009,-0.000792254,-0.00151433,-0.343811,-0.0381411,-0.339736,0.0513367,-0.353204,0.21423,0.00466588,0.0589909,-0.0494883,-0.0196361,0.751766,1.00397,0.0662101,-0.0137346,0.138773,0.0275291,0.0321105,-1.93029,0.20409,0.214727,-0.0113629,-0.00867531,0.00534914,-0.0040998,0.00183389,0.00535706,-0.0024918,0.00112841,0,0,0,0,0,0,0,0.360599,-35.0935,0.413527,26.0306,1.3327,2.03881,-0.0163725,
0.138639,0.0276296,0.0319579,-1.93022,0.205414,0.21474,-0.0113983,-0.00372231,0.0042768,-0.00454716,0.00311092,0.0619055,-0.000304072,-0.00149308,-0.180161,-0.105412,-0.172546,0.143722,1.31543,0.305114,0.0132795,0.0589909,-0.0494883,-0.0196361,0.751766,1.00397,0.0662101,-0.0137346,0.138773,0.0275291,0.0321105,-1.93029,0.20409,0.214727,-0.0113629,-0.00867531,0.00534914,-0.0040998,0.00183389,0.00535706,-0.0024918,0.00112841,0,0,0,0,0,0,0,0.360599,-35.0935,0.413527,26.0306,1.3327,2.03881,-0.0163725,
0.138607,0.0276537,0.0319194,-1.93018,0.206043,0.214761,-0.0114093,-0.00378891,0.00402339,-0.00460102,0.00343047,0.0652606,0.000273327,-0.00146816,-0.0416235,-0.158378,-0.0336628,0.19972,2.09691,0.360874,0.0155729,0.0589909,-0.0494883,-0.0196361,0.751766,1.00397,0.0662101,-0.0137346,0.138773,0.0275291,0.0321105,-1.93029,0.20409,0.214727,-0.0113629,-0.00867531,0.00534914,-0.0040998,0.00183389,0.00535706,-0.0024918,0.00112841,0,0,0,0,0,0,0,0.360599,-35.0935,0.413527,26.0306,1.3327,2.03881,-0.0163725,
0.138723,0.0275672,0.0320547,-1.93028,0.204391,0.214722,-0.0113752,-0.00426114,0.00417106,-0.00507528,0.00320755,0.0597165,8.52464e-05,-0.00148139,-0.295145,0.0922923,-0.296408,-0.139326,-3.46508,-0.11755,-0.00826629,0.0589909,-0.0494883,-0.0196361,0.751766,1.00397,0.0662101,-0.0137346,0.138773,0.0275291,0.0321105,-1.93029,0.20409,0.214727,-0.0113629,-0.00867531,0.00534914,-0.0040998,0.00183389,0.00535706,-0.0024918,0.00112841,0,0,0,0,0,0,0,0.360599,-35.0935,0.413527,26.0306,1.3327,2.03881,-0.0163725,
