xiao-wang007/linearmpc_panda/paper_data/panda_torque_PD_controller_Start_at_0_torque_rate_limiter/4/trajectory.csv
Commanded Joint 0 Position,Commanded Joint 1 Position,Commanded Joint 2 Position,Commanded Joint 3 Position,Commanded Joint 4 Position,Commanded Joint 5 Position,Commanded Joint 6 Position,Commanded Joint 0 Velocity,Commanded Joint 1 Velocity,Commanded Joint 2 Velocity,Commanded Joint 3 Velocity,Commanded Joint 4 Velocity,Commanded Joint 5 Velocity,Commanded Joint 6 Velocity,Commanded Joint 0 Acceleration,Commanded Joint 1 Acceleration,Commanded Joint 2 Acceleration,Commanded Joint 3 Acceleration,Commanded Joint 4 Acceleration,Commanded Joint 5 Acceleration,Commanded Joint 6 Acceleration,Commanded Joint 0 Torque,Commanded Joint 1 Torque,Commanded Joint 2 Torque,Commanded Joint 3 Torque,Commanded Joint 4 Torque,Commanded Joint 5 Torque,Commanded Joint 6 Torque,Actual Joint 0 Position,Actual Joint 1 Position,Actual Joint 2 Position,Actual Joint 3 Position,Actual Joint 4 Position,Actual Joint 5 Position,Actual Joint 6 Position,Actual Joint 0 Velocity,Actual Joint 1 Velocity,Actual Joint 2 Velocity,Actual Joint 3 Velocity,Actual Joint 4 Velocity,Actual Joint 5 Velocity,Actual Joint 6 Velocity,Actual Joint 0 Acceleration,Actual Joint 1 Acceleration,Actual Joint 2 Acceleration,Actual Joint 3 Acceleration,Actual Joint 4 Acceleration,Actual Joint 5 Acceleration,Actual Joint 6 Acceleration,Actual Joint 0 Torque,Actual Joint 1 Torque,Actual Joint 2 Torque,Actual Joint 3 Torque,Actual Joint 4 Torque,Actual Joint 5 Torque,Actual Joint 6 Torque,
0.0440911,-0.0211826,0.0150166,-1.69118,0.00714916,0.203841,0.0019331,0.000628997,0.0203347,0.000632506,-0.032755,-0.00546433,0.0477596,-0.000346893,0.393123,12.7092,0.395317,-20.4719,-3.41521,29.8498,-0.216808,0.0556388,23.8367,0.0875793,-24.3988,-0.667783,1.57773,-0.0227511,0.0440389,-0.0226792,0.0149605,-1.68778,0.00755355,0.198669,0.00198555,-0.0014337,0.000530869,-0.000920919,-0.000193867,0.00211782,-0.000220155,0.000506532,0,0,0,0,0,0,0,0.134464,-35.2205,-0.237108,27.3993,0.788876,3.32512,-0.00996382,
0.0440399,-0.0225652,0.01496,-1.68787,0.00751893,0.198688,0.00197541,0.000484691,0.0163418,0.00048733,-0.0262259,-0.0045091,0.0382843,-0.000278577,-0.0901914,-2.49554,-0.0907354,4.08067,0.597022,-5.92212,0.0426976,0.0499029,24.2804,0.0770852,-24.3151,-0.66771,1.3282,-0.02124,0.0440418,-0.0225786,0.0149618,-1.68787,0.00754584,0.198676,0.00197567,0.000193321,0.00180796,-8.38651e-05,0.00193477,-0.0029294,-0.000846195,0.000264545,0.203377,0.159636,0.104632,0.266079,-0.630903,-0.078255,-0.0302484,0.0828892,-34.7206,-0.260912,27.1017,0.886837,3.29857,0.0376436,
0.0440392,-0.0225629,0.0149593,-1.68787,0.00751509,0.19869,0.00197538,0.000370364,0.0131313,0.000372186,-0.0210008,-0.00370339,0.0306748,-0.000223399,-0.0714546,-2.00657,-0.071965,3.2657,0.503567,-4.75592,0.0344866,0.0426939,24.8519,0.0653597,-24.207,-0.666889,0.981217,-0.0192706,0.0440418,-0.0225786,0.0149618,-1.68787,0.00754584,0.198676,0.00197567,0.000193321,0.00180796,-8.38651e-05,0.00193477,-0.0029294,-0.000846195,0.000264545,0,0,0,0,0,0,0,0.0828892,-34.7206,-0.260912,27.1017,0.886837,3.29857,0.0376436,
0.0440386,-0.0225611,0.0149586,-1.68787,0.0075123,0.198691,0.00197537,0.000280819,0.0105514,0.000281927,-0.0168177,-0.00303228,0.0245684,-0.000178999,-0.0559656,-1.61241,-0.0564116,2.61447,0.419441,-3.8165,0.0277498,0.0367684,25.3758,0.0559432,-24.0392,-0.664562,0.596616,-0.0172688,0.0440418,-0.0225786,0.0149618,-1.68787,0.00754584,0.198676,0.00197567,0.000193321,0.00180796,-8.38651e-05,0.00193477,-0.0029294,-0.000846195,0.000264545,0,0,0,0,0,0,0,0.0828892,-34.7206,-0.260912,27.1017,0.886837,3.29857,0.0376436,
0.0440381,-0.0225596,0.0149581,-1.68787,0.00751023,0.198692,0.00197537,0.000211298,0.00847909,0.000211804,-0.0134683,-0.00247766,0.0196721,-0.00014335,-0.0434501,-1.29522,-0.0438271,2.09334,0.34664,-3.0602,0.0222808,0.0345182,25.6985,0.0517385,-23.7747,-0.659487,0.224347,-0.0155468,0.0440418,-0.0225786,0.0149618,-1.68787,0.00754584,0.198676,0.00197567,0.000193321,0.00180796,-8.38651e-05,0.00193477,-0.0029294,-0.000846195,0.000264545,0,0,0,0,0,0,0,0.0828892,-34.7206,-0.260912,27.1017,0.886837,3.29857,0.0376436,
0.0439184,-0.0225569,0.0148408,-1.68775,0.00988604,0.197163,0.00195367,-0.00156701,0.00689674,-0.00155048,-0.0093225,0.0339644,-0.0075251,-0.000319951,-1.11144,-0.98897,-1.10143,2.59114,22.7763,-16.9982,-0.110376,0.467158,0.25481,0.465068,-0.322122,3.03323,-2.19006,-0.00204841,0.0440435,-0.0218294,0.0149597,-1.68886,0.00751635,0.200988,0.00197943,-0.000687886,0.0574981,-7.85452e-05,-0.0819201,0.000853357,0.141177,6.50044e-05,-0.110151,6.96127,0.000664983,-10.4819,0.472844,17.7529,-0.0249425,0.134464,-25.5602,-0.185533,18.9807,0.526119,2.48925,0.00376909,
0.0438516,-0.0225615,0.0147741,-1.6877,0.0116347,0.196005,0.00194911,-0.00292427,0.00540424,-0.00290994,-0.00637157,0.0708872,-0.0349801,-0.000369779,-0.848287,-0.93281,-0.849663,1.84433,23.0768,-17.1594,-0.0311427,0.462554,0.252903,0.460478,-0.319097,3.00692,-2.17085,-0.00200701,0.0440435,-0.0218294,0.0149597,-1.68886,0.00751635,0.200988,0.00197943,-0.000687886,0.0574981,-7.85452e-05,-0.0819201,0.000853357,0.141177,6.50044e-05,0,0,0,0,0,0,0,0.134464,-25.5602,-0.185533,18.9807,0.526119,2.48925,0.00376909,
0.0437953,-0.0225703,0.0147175,-1.68767,0.0135646,0.194694,0.00194654,-0.00374817,0.00410278,-0.00374264,-0.00435264,0.104959,-0.0607383,-0.000360239,-0.514937,-0.813416,-0.520438,1.26183,21.2949,-16.0989,0.0059624,0.45778,0.251254,0.455708,-0.315939,2.98079,-2.15153,-0.00196745,0.0440435,-0.0218294,0.0149597,-1.68886,0.00751635,0.200988,0.00197943,-0.000687886,0.0574981,-7.85452e-05,-0.0819201,0.000853357,0.141177,6.50044e-05,0,0,0,0,0,0,0,0.134464,-25.5602,-0.185533,18.9807,0.526119,2.48925,0.00376909,
0.0437019,-0.020893,0.0146264,-1.68864,0.0157648,0.193516,0.00189961,-0.00771717,0.0133437,-0.00764448,6.41317e-06,0.211083,-0.167841,-0.00105826,-2.48063,5.7756,-2.43865,2.72441,66.3271,-66.9391,-0.436261,3.57212,2.3864,3.57333,-2.25828,10.953,-11.5823,-0.00884497,0.0440435,-0.0218294,0.0149597,-1.68886,0.00751635,0.200988,0.00197943,-0.000687886,0.0574981,-7.85452e-05,-0.0819201,0.000853357,0.141177,6.50044e-05,0,0,0,0,0,0,0,0.134464,-25.5602,-0.185533,18.9807,0.526119,2.48925,0.00376909,
0.0435321,-0.0206018,0.0144575,-1.68856,0.022013,0.18747,0.00188197,-0.0104207,0.0179558,-0.0103381,0.00217027,0.325071,-0.285421,-0.00128771,-1.68969,2.88253,-1.68353,1.35241,71.2429,-73.4874,-0.14341,3.45606,2.51938,3.45776,-2.24082,10.9467,-11.3738,-0.008298,0.0440303,-0.0197301,0.0149725,-1.69545,0.00876284,0.204156,0.00197943,-0.00472655,0.0489804,-0.00836923,-0.227257,0.178741,-0.0615671,0.00180692,-0.504833,-1.06472,-1.03634,-18.1671,22.2359,-25.343,0.217739,0.336795,-24.612,-0.110155,22.7695,1.72363,2.14501,0.00376909,
0.0434039,-0.02038,0.0143295,-1.68853,0.0289789,0.180609,0.00187157,-0.0115411,0.0199092,-0.0114726,0.00236181,0.434204,-0.399861,-0.00129013,-0.700266,1.22088,-0.709028,0.119716,68.2078,-71.5255,-0.00151275,3.34069,2.49278,3.34376,-2.20585,10.9467,-11.1978,-0.00822045,0.0440303,-0.0197301,0.0149725,-1.69545,0.00876284,0.204156,0.00197943,-0.00472655,0.0489804,-0.00836923,-0.227257,0.178741,-0.0615671,0.00180692,0,0,0,0,0,0,0,0.336795,-24.612,-0.110155,22.7695,1.72363,2.14501,0.00376909,
0.0433237,-0.0201962,0.014249,-1.68856,0.0363992,0.173232,0.00186483,-0.0112371,0.0205231,-0.0111893,0.00120301,0.53287,-0.504332,-0.00120062,0.189982,0.383726,0.177027,-0.724251,61.6667,-65.2941,0.0559472,3.22927,2.45328,3.23277,-2.17431,10.9467,-11.0306,-0.00850536,0.0440303,-0.0197301,0.0149725,-1.69545,0.00876284,0.204156,0.00197943,-0.00472655,0.0489804,-0.00836923,-0.227257,0.178741,-0.0615671,0.00180692,0,0,0,0,0,0,0,0.336795,-24.612,-0.110155,22.7695,1.72363,2.14501,0.00376909,
0.044919,-0.0184084,0.0158859,-1.69676,0.0162139,0.192372,0.00209863,0.00559895,0.0325722,0.00600893,-0.0131235,0.535869,-0.578973,0.000241967,10.5225,7.53068,10.7489,-8.9541,1.87397,-46.6504,0.901615,25.9697,6.82636,26.1777,-13.506,10.9467,-14.5564,0.0780387,0.0440303,-0.0197301,0.0149725,-1.69545,0.00876284,0.204156,0.00197943,-0.00472655,0.0489804,-0.00836923,-0.227257,0.178741,-0.0615671,0.00180692,0,0,0,0,0,0,0,0.336795,-24.612,-0.110155,22.7695,1.72363,2.14501,0.00376909,
0.0457274,-0.0178236,0.0167098,-1.69731,0.0215897,0.183941,0.00212823,0.0246886,0.0406773,0.0254055,-0.0243442,0.56309,-0.673932,0.000933523,11.931,5.06568,12.1228,-7.01294,17.0133,-59.3499,0.432223,24.5124,7.80592,24.7478,-12.367,10.7427,-14.5316,0.051404,0.0438365,-0.0171918,0.0149077,-1.70027,0.0248451,0.188424,0.00196867,-0.00215558,0.137111,-0.0152634,0.0123842,0.99001,-1.06691,0.00137418,0.321372,11.0163,-0.861773,29.9551,101.409,-125.668,-0.0540918,3.22498,-40.4097,2.96449,29.1211,3.40271,-0.368112,0.0577852,
0.046719,-0.0173133,0.0177167,-1.69791,0.0277047,0.174581,0.00216844,0.0445404,0.0452979,0.0454978,-0.0342999,0.603347,-0.773151,0.00175195,12.4073,2.88788,12.5577,-6.22231,25.1604,-62.0118,0.511519,23.6761,7.27017,23.9058,-11.1028,10.7427,-14.5316,0.0282743,0.0438365,-0.0171918,0.0149077,-1.70027,0.0248451,0.188424,0.00196867,-0.00215558,0.137111,-0.0152634,0.0123842,0.99001,-1.06691,0.00137418,0,0,0,0,0,0,0,3.22498,-40.4097,2.96449,29.1211,3.40271,-0.368112,0.0577852,
0.0478545,-0.0169254,0.0188673,-1.6986,0.0343829,0.164622,0.00225534,0.0640202,0.0459365,0.0651629,-0.0448107,0.649631,-0.867491,0.00357413,12.1749,0.399098,12.2907,-6.5692,28.928,-58.9623,1.13886,23.1611,5.7128,23.3781,-10.2306,10.7427,-14.5316,0.0428871,0.0438365,-0.0171918,0.0149077,-1.70027,0.0248451,0.188424,0.00196867,-0.00215558,0.137111,-0.0152634,0.0123842,0.99001,-1.06691,0.00137418,0,0,0,0,0,0,0,3.22498,-40.4097,2.96449,29.1211,3.40271,-0.368112,0.0577852,
0.0454833,-0.0163925,0.0165717,-1.70285,0.0383561,0.170729,0.00223851,0.0771656,0.0453801,0.0783364,-0.0711976,0.685549,-0.923795,0.00504123,8.21588,-0.347715,8.23344,-16.4918,22.4487,-35.19,0.916936,34.258,5.21595,34.4599,-24.2342,10.7427,-14.5316,0.167781,0.0438365,-0.0171918,0.0149077,-1.70027,0.0248451,0.188424,0.00196867,-0.00215558,0.137111,-0.0152634,0.0123842,0.99001,-1.06691,0.00137418,0,0,0,0,0,0,0,3.22498,-40.4097,2.96449,29.1211,3.40271,-0.368112,0.0577852,
0.0467972,-0.0160467,0.0178985,-1.70432,0.0451239,0.160932,0.00227701,0.0945808,0.0449494,0.0958378,-0.0935923,0.717633,-0.983966,0.00499547,10.8845,-0.269198,10.9383,-13.9967,20.0524,-37.6068,-0.0286007,31.1223,6.32076,31.3098,-22.8808,10.6403,-14.2432,0.0635186,0.043403,-0.0115418,0.0155818,-1.69859,0.0590585,0.141432,0.00197272,0.0216841,0.13039,0.0976137,-0.012225,0.862418,-1.52518,0.000639816,2.97996,-0.840175,14.1096,-3.07615,-15.949,-57.2834,-0.0917956,11.6713,-35.9425,11.2879,20.1273,1.80236,-2.34382,0.0641939,
0.0482906,-0.0157099,0.0194065,-1.70583,0.0521684,0.150717,0.0023237,0.113,0.0443774,0.11437,-0.112732,0.750221,-1.04255,0.00516365,11.5118,-0.357489,11.5827,-11.9624,20.3673,-36.6125,0.105109,29.0355,6.38414,29.2295,-21.7257,10.6403,-14.2432,0.0218133,0.043403,-0.0115418,0.0155818,-1.69859,0.0590585,0.141432,0.00197272,0.0216841,0.13039,0.0976137,-0.012225,0.862418,-1.52518,0.000639816,0,0,0,0,0,0,0,11.6713,-35.9425,11.2879,20.1273,1.80236,-2.34382,0.0641939,
0.049889,-0.0154204,0.0210189,-1.70743,0.0595412,0.140239,0.00237273,0.13036,0.0427412,0.131808,-0.130203,0.784495,-1.09599,0.00535674,10.8503,-1.02264,10.8989,-10.9195,21.4214,-33.4031,0.120684,27.4837,5.38521,27.6818,-21.2421,10.6403,-14.2432,0.0453264,0.043403,-0.0115418,0.0155818,-1.69859,0.0590585,0.141432,0.00197272,0.0216841,0.13039,0.0976137,-0.012225,0.862418,-1.52518,0.000639816,0,0,0,0,0,0,0,11.6713,-35.9425,11.2879,20.1273,1.80236,-2.34382,0.0641939,
0.0457738,-0.0111265,0.0179721,-1.70275,0.072202,0.120495,0.00209641,0.138228,0.0382762,0.139517,-0.160227,0.79247,-1.13749,0.0047418,4.91771,-2.79063,4.81782,-18.7648,4.98412,-25.9339,-0.38434,35.327,3.92042,35.4047,-33.0649,10.6403,-14.2432,0.0885463,0.043403,-0.0115418,0.0155818,-1.69859,0.0590585,0.141432,0.00197272,0.0216841,0.13039,0.0976137,-0.012225,0.862418,-1.52518,0.000639816,0,0,0,0,0,0,0,11.6713,-35.9425,11.2879,20.1273,1.80236,-2.34382,0.0641939,
0.0473414,-0.0109593,0.0195442,-1.70507,0.0790553,0.109934,0.00209463,0.149773,0.0347995,0.150915,-0.186074,0.805308,-1.17401,0.00374893,7.21545,-2.17295,7.1238,-16.1544,8.02414,-22.8292,-0.62054,32.0745,4.54664,32.1392,-31.547,10.6711,-13.8107,-0.0138299,0.0466155,-0.00949625,0.0227583,-1.70675,0.0924424,0.088046,0.00198189,0.211346,0.0333979,0.186396,-0.359012,0.945713,-1.61336,-0.000747021,23.7078,-12.124,11.0978,-43.3483,10.4119,-11.0231,-0.173355,21.2325,-26.6591,20.7102,16.6916,4.69726,-2.48298,0.110886,
0.0490257,-0.0108108,0.0212328,-1.70744,0.0862508,0.0992605,0.00208204,0.161925,0.031553,0.162947,-0.20817,0.824135,-1.20605,0.00268442,7.5951,-2.02905,7.52006,-13.81,11.7665,-20.0245,-0.665323,29.6923,3.74057,29.7478,-30.7534,10.6711,-13.8107,-0.0218235,0.0466155,-0.00949625,0.0227583,-1.70675,0.0924424,0.088046,0.00198189,0.211346,0.0333979,0.186396,-0.359012,0.945713,-1.61336,-0.000747021,0,0,0,0,0,0,0,21.2325,-26.6591,20.7102,16.6916,4.69726,-2.48298,0.110886,
0.0504931,-0.0089811,0.0266476,-1.71301,0.107361,0.0643057,0.00195518,0.179723,0.0321311,0.180718,-0.245055,0.847323,-1.25669,0.00121709,11.1232,0.361332,11.1071,-23.0533,14.4924,-31.6514,-0.917076,34.485,4.87415,34.5607,-39.7289,10.6711,-13.8107,-0.0165832,0.0466155,-0.00949625,0.0227583,-1.70675,0.0924424,0.088046,0.00198189,0.211346,0.0333979,0.186396,-0.359012,0.945713,-1.61336,-0.000747021,0,0,0,0,0,0,0,21.2325,-26.6591,20.7102,16.6916,4.69726,-2.48298,0.110886,
0.0525475,-0.00870683,0.028709,-1.71616,0.115118,0.0528882,0.00189311,0.195139,0.0325615,0.196109,-0.274634,0.871786,-1.29079,-0.000577983,9.63557,0.268974,9.61911,-18.4865,15.2898,-21.3123,-1.12192,31.1265,4.13043,31.2103,-38.771,10.6711,-13.8107,-0.0628419,0.0466155,-0.00949625,0.0227583,-1.70675,0.0924424,0.088046,0.00198189,0.211346,0.0333979,0.186396,-0.359012,0.945713,-1.61336,-0.000747021,0,0,0,0,0,0,0,21.2325,-26.6591,20.7102,16.6916,4.69726,-2.48298,0.110886,
0.0545907,-0.00844993,0.030759,-1.71932,0.123133,0.0419036,0.00179708,0.207192,0.0324718,0.208137,-0.298708,0.89781,-1.30725,-0.00286328,7.53302,-0.0560913,7.51729,-15.0464,16.2645,-10.2846,-1.42831,28.2864,2.86945,28.368,-38.408,10.6711,-13.7837,-0.0818483,0.0466155,-0.00949625,0.0227583,-1.70675,0.0924424,0.088046,0.00198189,0.211346,0.0333979,0.186396,-0.359012,0.945713,-1.61336,-0.000747021,0,0,0,0,0,0,0,21.2325,-26.6591,20.7102,16.6916,4.69726,-2.48298,0.110886,
0.0565909,-0.00819858,0.0327656,-1.72246,0.131365,0.0314115,0.00167618,0.215757,0.0322612,0.216676,-0.317463,0.924052,-1.3081,-0.00531301,5.35304,-0.131578,5.33711,-11.7222,16.4014,-0.532488,-1.53108,26.1056,2.96493,26.1919,-37.8902,10.8321,-12.1212,-0.120126,0.0576405,-0.00956519,0.0310215,-1.72387,0.129375,0.0270451,0.00198397,0.284856,0.00936682,0.477293,-0.599731,1.12228,-1.8929,1.09216e-05,9.18871,-3.00388,36.3622,-30.0899,22.0712,-34.9429,0.0947429,20.4708,-25.0881,20.2103,17.4374,5.07629,-1.56837,0.0779268,
0.0632939,-0.00896787,0.0366996,-1.73271,0.147647,0.00284733,0.0017172,0.241334,0.0338204,0.242169,-0.362431,0.968831,-1.32699,-0.00791292,15.9854,0.974468,15.9332,-28.1049,27.9871,-11.807,-1.62494,29.7073,2.25327,29.7582,-46.7699,10.8321,-8.93104,-0.15339,0.0576405,-0.00956519,0.0310215,-1.72387,0.129375,0.0270451,0.00198397,0.284856,0.00936682,0.477293,-0.599731,1.12228,-1.8929,1.09216e-05,0,0,0,0,0,0,0,20.4708,-25.0881,20.2103,17.4374,5.07629,-1.56837,0.0779268,
0.0658695,-0.00866204,0.0392792,-1.73694,0.156884,-0.00675077,0.00154345,0.257457,0.0347021,0.258225,-0.395827,1.00598,-1.30155,-0.010674,10.0773,0.551063,10.0352,-20.8726,23.22,15.9037,-1.72565,26.8378,1.06241,26.8913,-46.2526,10.8321,-8.25933,-0.173148,0.0576405,-0.00956519,0.0310215,-1.72387,0.129375,0.0270451,0.00198397,0.284856,0.00936682,0.477293,-0.599731,1.12228,-1.8929,1.09216e-05,0,0,0,0,0,0,0,20.4708,-25.0881,20.2103,17.4374,5.07629,-1.56837,0.0779268,
0.0682763,-0.00838061,0.0416901,-1.74106,0.166118,-0.0149188,0.00135351,0.266136,0.0347973,0.266851,-0.419625,1.03564,-1.24544,-0.0132877,5.42403,0.0595321,5.39094,-14.8734,18.5365,35.067,-1.63357,24.2996,0.484989,24.3547,-45.5785,10.8321,-6.76042,-0.203569,0.0576405,-0.00956519,0.0310215,-1.72387,0.129375,0.0270451,0.00198397,0.284856,0.00936682,0.477293,-0.599731,1.12228,-1.8929,1.09216e-05,0,0,0,0,0,0,0,20.4708,-25.0881,20.2103,17.4374,5.07629,-1.56837,0.0779268,
0.0705287,-0.00812731,0.0439464,-1.74505,0.1753,-0.021839,0.00116981,0.269217,0.0341703,0.26989,-0.435512,1.05806,-1.16936,-0.0152227,1.92578,-0.391908,1.89911,-9.92942,14.0142,47.552,-1.20941,22.6823,0.658916,22.7466,-44.4011,10.8957,-4.78116,-0.22613,0.0711293,-0.00951282,0.0488529,-1.74912,0.171423,-0.0377558,0.00195502,0.50156,-0.0077159,0.487518,-0.859074,1.37665,-1.83894,-0.000580089,27.088,-2.13534,1.27802,-32.4178,31.7954,6.746,-0.0738763,11.2151,-30.0273,11.1133,23.2654,3.78814,1.13061,-0.0767973,
0.0777389,-0.00877713,0.0554699,-1.7606,0.193034,-0.0557482,0.00136716,0.293115,0.0374112,0.293773,-0.486411,1.11396,-1.11707,-0.0196275,14.9363,2.02559,14.927,-31.8119,34.9331,32.6762,-2.75298,21.2405,-1.14173,21.3177,-52.7627,10.8957,1.58927,-0.354273,0.0711293,-0.00951282,0.0488529,-1.74912,0.171423,-0.0377558,0.00195502,0.50156,-0.0077159,0.487518,-0.859074,1.37665,-1.83894,-0.000580089,0,0,0,0,0,0,0,11.2151,-30.0273,11.1133,23.2654,3.78814,1.13061,-0.0767973,
0.0805215,-0.00839084,0.0582574,-1.76579,0.203441,-0.0602402,0.00107753,0.304057,0.0395862,0.304706,-0.518952,1.15133,-1.00596,-0.0229428,6.83837,1.35937,6.83341,-20.3378,23.3608,69.4472,-2.07208,19.8176,-1.43822,19.8963,-51.9974,10.8957,3.06301,-0.346462,0.0711293,-0.00951282,0.0488529,-1.74912,0.171423,-0.0377558,0.00195502,0.50156,-0.0077159,0.487518,-0.859074,1.37665,-1.83894,-0.000580089,0,0,0,0,0,0,0,11.2151,-30.0273,11.1133,23.2654,3.78814,1.13061,-0.0767973,
0.0830329,-0.00804923,0.0607737,-1.7707,0.213521,-0.0625624,0.000814971,0.30603,0.0402092,0.306672,-0.537863,1.17307,-0.862822,-0.0249181,1.23342,0.389348,1.22894,-11.8196,13.5817,89.4603,-1.23455,18.7417,-1.26012,18.8201,-51.0349,10.8957,4.18377,-0.335127,0.0711293,-0.00951282,0.0488529,-1.74912,0.171423,-0.0377558,0.00195502,0.50156,-0.0077159,0.487518,-0.859074,1.37665,-1.83894,-0.000580089,0,0,0,0,0,0,0,11.2151,-30.0273,11.1133,23.2654,3.78814,1.13061,-0.0767973,
0.0982444,-0.00780888,0.0731131,-1.79845,0.244107,-0.0928811,0.000506586,0.325723,0.0459372,0.326369,-0.591252,1.22453,-0.728283,-0.0308501,12.3079,3.58002,12.3106,-33.3679,32.1681,84.0864,-3.70751,10.9012,-6.54412,11.0146,-57.4772,10.7631,12.2647,-0.577448,0.0911628,-0.00887314,0.0660294,-1.78468,0.220775,-0.0864176,0.00142842,0.617507,-0.0194291,0.536942,-1.18177,1.53342,-1.07608,-0.0329142,14.4934,-1.46415,6.1781,-40.3368,19.5966,95.3571,-4.04177,2.79651,-31.5746,2.53602,20.6985,3.17657,2.24389,-0.050247,
0.101017,-0.00735632,0.0758911,-1.80433,0.255026,-0.0917496,0.000137002,0.329886,0.0480638,0.330546,-0.61996,1.25259,-0.554339,-0.0339197,2.60196,1.32915,2.61036,-17.9427,17.5365,108.715,-1.91848,11.7766,-5.945,11.887,-56.4333,10.7631,12.2647,-0.503068,0.0911628,-0.00887314,0.0660294,-1.78468,0.220775,-0.0864176,0.00142842,0.617507,-0.0194291,0.536942,-1.18177,1.53342,-1.07608,-0.0329142,0,0,0,0,0,0,0,2.79651,-31.5746,2.53602,20.6985,3.17657,2.24389,-0.050247,
0.103432,-0.00702094,0.0783121,-1.80979,0.265419,-0.0886373,-0.000170793,0.324291,0.0468355,0.324963,-0.632353,1.26189,-0.365665,-0.0348306,-3.49702,-0.767697,-3.48933,-7.74556,5.81331,117.921,-0.569333,12.5096,-5.08827,12.618,-55.3135,10.7631,12.2647,-0.424318,0.0911628,-0.00887314,0.0660294,-1.78468,0.220775,-0.0864176,0.00142842,0.617507,-0.0194291,0.536942,-1.18177,1.53342,-1.07608,-0.0329142,0,0,0,0,0,0,0,2.79651,-31.5746,2.53602,20.6985,3.17657,2.24389,-0.050247,
0.105575,-0.00678903,0.0804608,-1.8149,0.275235,-0.0840582,-0.000424571,0.313002,0.0432661,0.313686,-0.633582,1.25492,-0.178053,-0.034209,-7.05539,-2.23091,-7.04813,-0.768453,-4.35747,117.258,0.388552,12.9996,-4.18504,13.1048,-54.2247,10.7631,12.2647,-0.353545,0.0911628,-0.00887314,0.0660294,-1.78468,0.220775,-0.0864176,0.00142842,0.617507,-0.0194291,0.536942,-1.18177,1.53342,-1.07608,-0.0329142,0,0,0,0,0,0,0,2.79651,-31.5746,2.53602,20.6985,3.17657,2.24389,-0.050247,
0.116834,-0.00760866,0.0919141,-1.8461,0.302866,-0.0974126,-0.00118271,0.320526,0.0527804,0.321194,-0.677449,1.29339,-0.0989646,-0.0397917,4.70244,5.94647,4.69233,-27.417,24.0422,49.4302,-3.4892,1.64231,-12.5413,1.75541,-60.8984,10.3722,12.5943,-0.743957,0.110595,-0.00909332,0.0856681,-1.83106,0.278498,-0.0994327,-7.02789e-05,0.540191,-0.0533431,0.525608,-1.54684,1.81874,0.117809,-0.0548508,-9.66444,-4.23925,-1.41683,-45.6334,35.6649,149.236,-2.74208,-7.60174,-31.3246,-7.86223,28.7958,1.79687,6.58715,-0.0767973,
0.119202,-0.00710279,0.0942868,-1.8522,0.313011,-0.0941169,-0.00157096,0.315615,0.0548711,0.316273,-0.694487,1.28835,0.00322007,-0.0415397,-3.06905,1.30667,-3.07526,-10.6484,-3.14961,63.8654,-1.09253,4.82754,-10.5763,4.93369,-59.4826,9.76333,12.5943,-0.579925,0.110595,-0.00909332,0.0856681,-1.83106,0.278498,-0.0994327,-7.02789e-05,0.540191,-0.0533431,0.525608,-1.54684,1.81874,0.117809,-0.0548508,0,0,0,0,0,0,0,-7.60174,-31.3246,-7.86223,28.7958,1.79687,6.58715,-0.0767973,
0.121257,-0.0068002,0.096346,-1.85781,0.321699,-0.089515,-0.00187793,0.30386,0.0514617,0.304499,-0.695725,1.24787,0.117625,-0.040906,-7.34728,-2.13083,-7.35909,-0.773803,-25.2989,71.5032,0.396105,6.90492,-8.58842,7.00749,-58.0978,7.92376,12.5943,-0.454701,0.110595,-0.00909332,0.0856681,-1.83106,0.278498,-0.0994327,-7.02789e-05,0.540191,-0.0533431,0.525608,-1.54684,1.81874,0.117809,-0.0548508,0,0,0,0,0,0,0,-7.60174,-31.3246,-7.86223,28.7958,1.79687,6.58715,-0.0767973,
0.123089,-0.00665279,0.0981825,-1.86303,0.328854,-0.0838729,-0.00211846,0.288893,0.0448545,0.28951,-0.687079,1.17718,0.235153,-0.0387379,-9.35419,-4.12953,-9.36806,5.40368,-44.182,73.4549,1.35501,8.23552,-6.70515,8.33011,-56.7507,6.49519,12.5943,-0.363731,0.110595,-0.00909332,0.0856681,-1.83106,0.278498,-0.0994327,-7.02789e-05,0.540191,-0.0533431,0.525608,-1.54684,1.81874,0.117809,-0.0548508,0,0,0,0,0,0,0,-7.60174,-31.3246,-7.86223,28.7958,1.79687,6.58715,-0.0767973,
0.116656,-0.00810393,0.0917371,-1.8465,0.300169,-0.0973188,-0.00118657,0.298916,0.0473647,0.299543,-0.724433,1.18122,0.231719,-0.0430846,6.26425,1.56888,6.27061,-23.3464,2.52676,-2.146,-2.71664,-4.33595,-19.0351,-4.197,-63.7947,6.69479,12.6241,-0.756556,0.127735,-0.00974134,0.105416,-1.88314,0.340231,-0.0808646,-0.00213211,0.438192,-0.0311531,0.54859,-1.54211,1.88575,0.748258,-0.0757002,-12.7499,2.77374,2.87283,0.59102,8.37701,78.8061,-2.60617,-9.75598,-36.2163,-10.1593,30.6644,0.25787,5.45281,-0.0429228,
0.118916,-0.00784922,0.0940032,-1.8527,0.307388,-0.0940755,-0.00155576,0.29565,0.0442595,0.296289,-0.734776,1.12547,0.266459,-0.0436974,-2.04097,-1.94077,-2.03388,-6.46399,-34.8477,21.7123,-0.383,-0.147857,-15.0666,-0.0203503,-61.8578,3.30025,12.6241,-0.560314,0.127735,-0.00974134,0.105416,-1.88314,0.340231,-0.0808646,-0.00213211,0.438192,-0.0311531,0.54859,-1.54211,1.88575,0.748258,-0.0757002,0,0,0,0,0,0,0,-9.75598,-36.2163,-10.1593,30.6644,0.25787,5.45281,-0.0429228,
0.120857,-0.00776305,0.0959486,-1.85838,0.312372,-0.0895467,-0.00183672,0.285027,0.0375618,0.285666,-0.729588,1.02497,0.326387,-0.0419817,-6.63938,-4.18603,-6.63897,3.24264,-62.8099,37.4551,1.07227,2.536,-11.5014,2.65868,-60.0176,1.26989,12.6241,-0.431699,0.127735,-0.00974134,0.105416,-1.88314,0.340231,-0.0808646,-0.00213211,0.438192,-0.0311531,0.54859,-1.54211,1.88575,0.748258,-0.0757002,0,0,0,0,0,0,0,-9.75598,-36.2163,-10.1593,30.6644,0.25787,5.45281,-0.0429228,
0.133642,-0.00832139,0.111343,-1.89771,0.359094,-0.0731618,-0.00297457,0.294832,0.0463492,0.295496,-0.747603,1.01873,0.361951,-0.0428664,6.12822,5.49213,6.14356,-11.2594,-3.90199,22.2273,-0.552906,-0.147857,-15.0666,-0.0203503,-61.8578,3.30025,12.6241,-0.560314,0.127735,-0.00974134,0.105416,-1.88314,0.340231,-0.0808646,-0.00213211,0.438192,-0.0311531,0.54859,-1.54211,1.88575,0.748258,-0.0757002,0,0,0,0,0,0,0,-9.75598,-36.2163,-10.1593,30.6644,0.25787,5.45281,-0.0429228,
0.135894,-0.00792432,0.113601,-1.90355,0.364514,-0.0682817,-0.00325949,0.292175,0.0470061,0.29284,-0.743949,0.950488,0.411563,-0.041416,-1.66066,0.410545,-1.66018,2.28374,-42.6501,31.0074,0.906481,2.31481,-12.1644,2.44099,-59.6778,1.11485,12.5839,-0.42469,0.148237,-0.00969544,0.118454,-1.93353,0.387029,-0.0488654,-0.00388549,0.56172,-0.0489019,0.363129,-1.51647,1.14747,1.01029,-0.0589247,15.441,-2.2186,-23.1827,3.20481,-92.2858,32.7544,2.09693,-11.0493,-36.5932,-10.7623,24.9118,-1.2024,2.4627,-0.137222,
0.137831,-0.00773318,0.115543,-1.90892,0.367818,-0.0625596,-0.00346974,0.282163,0.0423833,0.282822,-0.729468,0.842975,0.472302,-0.0383892,-6.25804,-2.88924,-6.26091,9.05065,-67.1953,37.9623,1.89179,4.24794,-9.22547,4.36577,-58.0292,-0.871196,12.5839,-0.327035,0.148237,-0.00969544,0.118454,-1.93353,0.387029,-0.0488654,-0.00388549,0.56172,-0.0489019,0.363129,-1.51647,1.14747,1.01029,-0.0589247,0,0,0,0,0,0,0,-11.0493,-36.5932,-10.7623,24.9118,-1.2024,2.4627,-0.137222,
0.139524,-0.00767888,0.117241,-1.91396,0.369434,-0.056107,-0.00362282,0.26804,0.0352643,0.268693,-0.709597,0.714798,0.539157,-0.0345383,-8.82678,-4.44937,-8.83103,12.4188,-80.1107,41.7841,2.40679,5.70931,-6.87553,5.82326,-56.5616,-2.18893,12.5839,-0.244045,0.148237,-0.00969544,0.118454,-1.93353,0.387029,-0.0488654,-0.00388549,0.56172,-0.0489019,0.363129,-1.51647,1.14747,1.01029,-0.0589247,0,0,0,0,0,0,0,-11.0493,-36.5932,-10.7623,24.9118,-1.2024,2.4627,-0.137222,
0.153752,-0.00824072,0.12396,-1.9476,0.396924,-0.0388583,-0.00450902,0.27653,0.0457179,0.277186,-0.72555,0.669081,0.555643,-0.0345853,5.30612,6.53346,5.30852,-9.97022,-28.5736,10.3039,-0.0294081,2.31481,-12.1644,2.44099,-59.6778,1.11485,12.5839,-0.42469,0.148237,-0.00969544,0.118454,-1.93353,0.387029,-0.0488654,-0.00388549,0.56172,-0.0489019,0.363129,-1.51647,1.14747,1.01029,-0.0589247,0,0,0,0,0,0,0,-11.0493,-36.5932,-10.7623,24.9118,-1.2024,2.4627,-0.137222,
0.155835,-0.00776686,0.12605,-1.95324,0.399101,-0.0332977,-0.00471723,0.273323,0.0484208,0.273983,-0.721547,0.589676,0.58353,-0.0328735,-2.00412,1.68932,-2.00212,2.50161,-49.6281,17.4295,1.0699,3.9794,-9.62494,4.10936,-57.9483,-0.979343,12.5555,-0.321147,0.159236,-0.0108079,0.136333,-1.98497,0.417127,-0.00788708,-0.00520271,0.374323,0.0367398,0.422363,-1.44553,0.539381,1.21624,-0.0179424,-23.4247,10.7052,7.40428,8.86681,-76.0109,25.7431,5.12279,-12.7513,-37.3668,-13.1586,31.6364,-1.17768,3.93487,-0.170181,
0.157619,-0.00748501,0.127839,-1.95847,0.399892,-0.027067,-0.00486907,0.263258,0.0457829,0.263914,-0.708007,0.491515,0.62259,-0.0300947,-6.29067,-1.64869,-6.29302,8.46253,-61.3507,24.4125,1.73672,5.44077,-7.275,5.56686,-56.4807,-2.29708,12.5555,-0.238157,0.159236,-0.0108079,0.136333,-1.98497,0.417127,-0.00788708,-0.00520271,0.374323,0.0367398,0.422363,-1.44553,0.539381,1.21624,-0.0179424,0,0,0,0,0,0,0,-12.7513,-37.3668,-13.1586,31.6364,-1.17768,3.93487,-0.170181,
0.159179,-0.00733398,0.129403,-1.9634,0.399511,-0.0202283,-0.00497668,0.249593,0.0404019,0.250245,-0.689579,0.383686,0.669039,-0.0267661,-8.54026,-3.36309,-8.54327,11.5177,-67.3929,29.0304,2.08041,6.47743,-5.42324,6.5989,-55.1552,-3.06263,12.5555,-0.175116,0.159236,-0.0108079,0.136333,-1.98497,0.417127,-0.00788708,-0.00520271,0.374323,0.0367398,0.422363,-1.44553,0.539381,1.21624,-0.0179424,0,0,0,0,0,0,0,-12.7513,-37.3668,-13.1586,31.6364,-1.17768,3.93487,-0.170181,
0.163957,-0.00859575,0.141075,-1.99874,0.419536,0.00447997,-0.00564242,0.252929,0.0580471,0.253655,-0.706949,0.320041,0.684643,-0.026375,2.08479,11.0282,2.13154,-10.8563,-39.7779,9.75271,0.244433,3.9794,-9.62494,4.10936,-57.9483,-0.979343,12.5555,-0.321147,0.159236,-0.0108079,0.136333,-1.98497,0.417127,-0.00788708,-0.00520271,0.374323,0.0367398,0.422363,-1.44553,0.539381,1.21624,-0.0179424,0,0,0,0,0,0,0,-12.7513,-37.3668,-13.1586,31.6364,-1.17768,3.93487,-0.170181,
0.165746,-0.00785147,0.142871,-2.00432,0.419059,0.0107732,-0.00579014,0.247062,0.0650447,0.24782,-0.705074,0.244103,0.705045,-0.0247931,-3.66667,4.37352,-3.64728,1.17167,-47.4613,12.751,0.988718,5.44077,-7.275,5.56686,-56.4807,-2.29708,12.5555,-0.238157,0.159236,-0.0108079,0.136333,-1.98497,0.417127,-0.00788708,-0.00520271,0.374323,0.0367398,0.422363,-1.44553,0.539381,1.21624,-0.0179424,0,0,0,0,0,0,0,-12.7513,-37.3668,-13.1586,31.6364,-1.17768,3.93487,-0.170181,
0.167287,-0.0073414,0.144419,-2.0095,0.417717,0.017539,-0.00589478,0.236186,0.0647875,0.236949,-0.693535,0.161729,0.733181,-0.0224504,-6.7979,-0.160766,-6.79386,7.21166,-51.4839,17.5849,1.46413,6.47743,-5.42324,6.5989,-55.1552,-3.06263,12.5555,-0.175116,0.159236,-0.0108079,0.136333,-1.98497,0.417127,-0.00788708,-0.00520271,0.374323,0.0367398,0.422363,-1.44553,0.539381,1.21624,-0.0179424,0,0,0,0,0,0,0,-12.7513,-37.3668,-13.1586,31.6364,-1.17768,3.93487,-0.170181,
0.168651,-0.00700471,0.145789,-2.01439,0.415566,0.0247788,-0.00596457,0.22305,0.0602472,0.223806,-0.676971,0.0756048,0.767542,-0.0197051,-8.21011,-2.83766,-8.21444,10.3525,-53.8275,21.4755,1.71585,7.25619,-3.95591,7.37407,-53.9029,-3.81242,12.5555,-0.126394,0.159236,-0.0108079,0.136333,-1.98497,0.417127,-0.00788708,-0.00520271,0.374323,0.0367398,0.422363,-1.44553,0.539381,1.21624,-0.0179424,0,0,0,0,0,0,0,-12.7513,-37.3668,-13.1586,31.6364,-1.17768,3.93487,-0.170181,
0.164071,-0.0083983,0.141188,-1.99848,0.418648,0.00441743,-0.00552174,0.233269,0.0765828,0.234065,-0.693554,0.0616215,0.763026,-0.0194245,6.38725,10.2097,6.41154,-10.3644,-8.7396,-2.82249,0.175339,5.44077,-7.275,5.56686,-56.4807,-2.29708,12.5555,-0.238157,0.159236,-0.0108079,0.136333,-1.98497,0.417127,-0.00788708,-0.00520271,0.374323,0.0367398,0.422363,-1.44553,0.539381,1.21624,-0.0179424,0,0,0,0,0,0,0,-12.7513,-37.3668,-13.1586,31.6364,-1.17768,3.93487,-0.170181,
0.165924,-0.00754967,0.143048,-2.00394,0.417661,0.0107116,-0.00562991,0.232936,0.0824821,0.233735,-0.691433,0.0246158,0.767775,-0.0182439,-0.208096,3.68704,-0.206225,1.32559,-23.1285,2.96854,0.737887,6.47743,-5.42324,6.5989,-55.1552,-3.06263,12.5555,-0.175116,0.159236,-0.0108079,0.136333,-1.98497,0.417127,-0.00788708,-0.00520271,0.374323,0.0367398,0.422363,-1.44553,0.539381,1.21624,-0.0179424,0,0,0,0,0,0,0,-12.7513,-37.3668,-13.1586,31.6364,-1.17768,3.93487,-0.170181,
0.167527,-0.00695041,0.144657,-2.00902,0.415772,0.0174899,-0.00570339,0.22643,0.0809672,0.227211,-0.680229,-0.0275419,0.783678,-0.0164323,-4.06625,-0.946821,-4.0775,7.00278,-32.5986,9.93918,1.13227,7.21193,-4.36467,7.3468,-53.9109,-3.82981,12.4686,-0.122653,0.173377,-0.0126933,0.147946,-2.03431,0.431315,0.0422079,-0.00591259,0.294522,0.021887,0.426512,-1.36241,0.212091,1.58781,0.00122139,-9.97514,-1.85659,0.51852,10.3906,-40.9111,46.447,2.39547,-5.47131,-32.8996,-5.91033,27.9507,-0.798649,0.46044,-0.157364,
0.177686,-0.010527,0.152289,-2.04703,0.42909,0.0582036,-0.00612539,0.229922,0.0904821,0.230808,-0.687619,-0.0626073,0.814461,-0.0156918,2.18234,5.94686,2.24844,-4.61898,-21.9158,19.2392,0.462793,6.43318,-5.83199,6.57163,-55.1631,-3.08002,12.4686,-0.171375,0.173377,-0.0126933,0.147946,-2.03431,0.431315,0.0422079,-0.00591259,0.294522,0.021887,0.426512,-1.36241,0.212091,1.58781,0.00122139,0,0,0,0,0,0,0,-5.47131,-32.8996,-5.91033,27.9507,-0.798649,0.46044,-0.157364,
0.179338,-0.00976348,0.15395,-2.05222,0.426714,0.0656174,-0.00619797,0.225244,0.0914737,0.226176,-0.679931,-0.109496,0.836913,-0.0143678,-2.92367,0.619743,-2.89531,4.80555,-29.3052,14.033,0.827485,7.21193,-4.36467,7.3468,-53.9109,-3.82981,12.4686,-0.122653,0.173377,-0.0126933,0.147946,-2.03431,0.431315,0.0422079,-0.00591259,0.294522,0.021887,0.426512,-1.36241,0.212091,1.58781,0.00122139,0,0,0,0,0,0,0,-5.47131,-32.8996,-5.91033,27.9507,-0.798649,0.46044,-0.157364,
0.180776,-0.00923263,0.155396,-2.0571,0.423714,0.0732186,-0.00624189,0.216146,0.0864501,0.217089,-0.665786,-0.16259,0.859562,-0.0125923,-5.68657,-3.13974,-5.67929,8.84027,-33.1838,14.1554,1.10972,7.85738,-3.37487,7.98803,-52.8451,-4.64941,12.4686,-0.0838517,0.173377,-0.0126933,0.147946,-2.03431,0.431315,0.0422079,-0.00591259,0.294522,0.021887,0.426512,-1.36241,0.212091,1.58781,0.00122139,0,0,0,0,0,0,0,-5.47131,-32.8996,-5.91033,27.9507,-0.798649,0.46044,-0.157364,
0.182061,-0.00887745,0.156687,-2.06174,0.420209,0.0810823,-0.00625951,0.205019,0.0780398,0.205956,-0.648832,-0.217687,0.884241,-0.0105143,-6.95393,-5.25644,-6.9579,10.5964,-34.4357,15.4244,1.29873,8.3714,-2.95245,8.50635,-52.0008,-5.17403,12.3376,-0.0475221,0.185174,-0.01329,0.15935,-2.07988,0.432378,0.0984298,-0.00626433,0.340843,0.0140523,0.339879,-1.25569,-0.114052,1.69996,-0.000303641,5.79017,-0.979344,-10.829,13.3402,-40.7679,14.0177,-0.190629,-3.44403,-30.6026,-3.33556,17.9095,0.752255,-0.805734,-0.117081,
0.189184,-0.0114258,0.163383,-2.09193,0.426793,0.115895,-0.00640767,0.209263,0.0846223,0.210289,-0.655875,-0.251494,0.910895,-0.0101441,2.65217,4.11402,2.70813,-4.40184,-21.1297,16.6587,0.231393,7.15422,-4.60971,7.29721,-54.0069,-3.82387,12.3376,-0.118703,0.185174,-0.01329,0.15935,-2.07988,0.432378,0.0984298,-0.00626433,0.340843,0.0140523,0.339879,-1.25569,-0.114052,1.69996,-0.000303641,0,0,0,0,0,0,0,-3.44403,-30.6026,-3.33556,17.9095,0.752255,-0.805734,-0.117081,
0.190718,-0.0107698,0.164927,-2.09693,0.423297,0.123785,-0.00645282,0.205748,0.0840966,0.206814,-0.649696,-0.288585,0.925967,-0.00924411,-2.19693,-0.328551,-2.17228,3.86197,-23.1817,9.41976,0.562488,7.79967,-3.61991,7.93843,-52.9411,-4.64347,12.3376,-0.0799018,0.185174,-0.01329,0.15935,-2.07988,0.432378,0.0984298,-0.00626433,0.340843,0.0140523,0.339879,-1.25569,-0.114052,1.69996,-0.000303641,0,0,0,0,0,0,0,-3.44403,-30.6026,-3.33556,17.9095,0.752255,-0.805734,-0.117081,
0.192059,-0.0103184,0.166276,-2.10166,0.41947,0.131736,-0.00647173,0.198113,0.0785638,0.199187,-0.63787,-0.326546,0.939556,-0.00786794,-4.77153,-3.45796,-4.76645,7.39126,-23.7258,8.49339,0.860106,8.3714,-2.95245,8.50635,-52.0008,-5.17403,12.3376,-0.0475221,0.185174,-0.01329,0.15935,-2.07988,0.432378,0.0984298,-0.00626433,0.340843,0.0140523,0.339879,-1.25569,-0.114052,1.69996,-0.000303641,0,0,0,0,0,0,0,-3.44403,-30.6026,-3.33556,17.9095,0.752255,-0.805734,-0.117081,
0.193264,-0.0100217,0.16749,-2.10619,0.415392,0.139854,-0.00646305,0.188619,0.0702688,0.189685,-0.623545,-0.363201,0.954584,-0.00607737,-5.93389,-5.1844,-5.93878,8.95258,-22.9093,9.39241,1.11911,8.90575,-2.61894,9.03333,-50.992,-5.36566,12.303,-0.017118,0.194739,-0.0124174,0.170706,-2.12486,0.428577,0.155372,-0.00635122,0.362221,0.0325779,0.253142,-1.31855,-0.201627,1.69833,-0.00199072,2.6722,2.3157,-10.8421,-7.85741,-10.9469,-0.203156,-0.210885,-0.0440639,-30.8763,-0.33629,20.9763,0.703732,-0.0696505,-0.0767973,
0.198441,-0.0101572,0.174419,-2.13717,0.421145,0.172196,-0.00641527,0.192867,0.0830719,0.193974,-0.6377,-0.390174,0.958961,-0.00575236,2.65496,8.00195,2.68021,-8.8467,-16.8582,2.73559,0.203132,7.80359,-3.73034,7.93886,-52.7943,-4.52022,12.303,-0.0790307,0.194739,-0.0124174,0.170706,-2.12486,0.428577,0.155372,-0.00635122,0.362221,0.0325779,0.253142,-1.31855,-0.201627,1.69833,-0.00199072,0,0,0,0,0,0,0,-0.0440639,-30.8763,-0.33629,20.9763,0.703732,-0.0696505,-0.0767973,
0.19988,-0.00935055,0.175867,-2.14221,0.416917,0.179802,-0.00643265,0.190264,0.0866246,0.191375,-0.6363,-0.417833,0.957342,-0.00503627,-1.62714,2.22043,-1.62432,0.874846,-17.2869,-1.0121,0.447559,8.37532,-3.06287,8.50678,-51.854,-5.05079,12.303,-0.046651,0.194739,-0.0124174,0.170706,-2.12486,0.428577,0.155372,-0.00635122,0.362221,0.0325779,0.253142,-1.31855,-0.201627,1.69833,-0.00199072,0,0,0,0,0,0,0,-0.0440639,-30.8763,-0.33629,20.9763,0.703732,-0.0696505,-0.0767973,
0.201151,-0.00878116,0.177147,-2.14697,0.412548,0.187519,-0.00642398,0.184001,0.0835344,0.185093,-0.627842,-0.443511,0.958794,-0.00381245,-3.9141,-1.93136,-3.92638,5.28634,-16.049,0.907804,0.764886,8.90575,-2.61894,9.03333,-50.992,-5.36566,12.303,-0.017118,0.194739,-0.0124174,0.170706,-2.12486,0.428577,0.155372,-0.00635122,0.362221,0.0325779,0.253142,-1.31855,-0.201627,1.69833,-0.00199072,0,0,0,0,0,0,0,-0.0440639,-30.8763,-0.33629,20.9763,0.703732,-0.0696505,-0.0767973,
0.202302,-0.00839371,0.178305,-2.15151,0.408171,0.195442,-0.00639641,0.175968,0.0765138,0.177027,-0.615991,-0.464238,0.965111,-0.0023607,-5.0206,-4.38788,-5.04065,7.40691,-12.954,3.94791,0.907345,9.43118,-2.48453,9.54586,-50.0648,-5.35408,12.2078,0.0160936,0.204908,-0.010871,0.181383,-2.16886,0.41588,0.213718,-0.00635422,0.357166,0.00426304,0.247663,-1.34953,-0.340784,1.7275,-0.000147456,-0.631854,-3.53936,-0.68494,-3.87314,-17.3946,3.64566,0.230408,-1.92059,-31.2254,-1.96288,23.6145,0.526119,1.96557,-0.0227812,
0.208547,-0.00874187,0.185027,-2.18118,0.406721,0.230231,-0.00636114,0.182028,0.0870547,0.183076,-0.631027,-0.489481,0.962624,-0.00216208,3.78769,6.58806,3.78058,-9.39747,-15.7771,-1.55405,0.124133,8.41897,-3.21464,8.54097,-51.7314,-4.93379,12.2078,-0.045088,0.204908,-0.010871,0.181383,-2.16886,0.41588,0.213718,-0.00635422,0.357166,0.00426304,0.247663,-1.34953,-0.340784,1.7275,-0.000147456,0,0,0,0,0,0,0,-1.92059,-31.2254,-1.96288,23.6145,0.526119,1.96557,-0.0227812,
0.209963,-0.00795534,0.186451,-2.18619,0.402005,0.237652,-0.00635397,0.181029,0.089307,0.182054,-0.630022,-0.5095,0.95564,-0.00155039,-0.624577,1.40768,-0.639102,0.628292,-12.5118,-4.36488,0.38231,8.9494,-2.77071,9.06752,-50.8694,-5.24866,12.2078,-0.015555,0.204908,-0.010871,0.181383,-2.16886,0.41588,0.213718,-0.00635422,0.357166,0.00426304,0.247663,-1.34953,-0.340784,1.7275,-0.000147456,0,0,0,0,0,0,0,-1.92059,-31.2254,-1.96288,23.6145,0.526119,1.96557,-0.0227812,
0.211213,-0.00739742,0.187708,-2.1909,0.397422,0.245204,-0.00632887,0.176088,0.0853936,0.177077,-0.621937,-0.52216,0.953306,-0.000612768,-3.0883,-2.4459,-3.11079,5.05326,-7.91228,-1.45923,0.586012,9.43118,-2.48453,9.54586,-50.0648,-5.35408,12.2078,0.0160936,0.204908,-0.010871,0.181383,-2.16886,0.41588,0.213718,-0.00635422,0.357166,0.00426304,0.247663,-1.34953,-0.340784,1.7275,-0.000147456,0,0,0,0,0,0,0,-1.92059,-31.2254,-1.96288,23.6145,0.526119,1.96557,-0.0227812,
0.212352,-0.00701741,0.188853,-2.1954,0.392882,0.252975,-0.00628139,0.169334,0.0778151,0.17028,-0.610077,-0.531246,0.956905,0.000696699,-4.22124,-4.73653,-4.24799,7.4124,-5.6786,2.24952,0.818417,9.67769,-2.52343,9.77392,-49.2182,-5.02715,12.0714,0.0408458,0.214952,-0.00885594,0.19138,-2.21304,0.394133,0.271741,-0.00635106,0.329856,0.0407619,0.252014,-1.26845,-0.576029,1.69442,0.00598246,-3.41379,4.56236,0.543948,10.135,-29.4057,-4.13422,0.76624,-2.37683,-30.678,-2.38738,20.3772,2.60894,0.666434,0.0239107,
0.218402,-0.0066672,0.194834,-2.22507,0.383118,0.288271,-0.00632278,0.174536,0.0881726,0.175433,-0.624045,-0.560684,0.956462,0.000787559,3.2512,6.47346,3.22086,-8.72988,-18.3989,-0.276512,0.0567872,8.85526,-2.98201,8.95871,-50.7788,-5.17072,12.0714,-0.0133538,0.214952,-0.00885594,0.19138,-2.21304,0.394133,0.271741,-0.00635106,0.329856,0.0407619,0.252014,-1.26845,-0.576029,1.69442,0.00598246,0,0,0,0,0,0,0,-2.37683,-30.678,-2.38738,20.3772,2.60894,0.666434,0.0239107,
0.219742,-0.00588964,0.196179,-2.23002,0.378073,0.295686,-0.00630132,0.173129,0.0899772,0.173981,-0.622954,-0.574652,0.950544,0.00116651,-0.879067,1.12783,-0.907765,0.681784,-8.7302,-3.69924,0.236845,9.33705,-2.69584,9.43705,-49.9742,-5.27614,12.0714,0.0182948,0.214952,-0.00885594,0.19138,-2.21304,0.394133,0.271741,-0.00635106,0.329856,0.0407619,0.252014,-1.26845,-0.576029,1.69442,0.00598246,0,0,0,0,0,0,0,-2.37683,-30.678,-2.38738,20.3772,2.60894,0.666434,0.0239107,
0.220936,-0.00534282,0.197377,-2.23467,0.373263,0.303202,-0.00625706,0.16833,0.0856523,0.169133,-0.614675,-0.579979,0.948329,0.00203976,-2.99968,-2.70306,-3.02995,5.17455,-3.32897,-1.38408,0.545782,9.67769,-2.52343,9.77392,-49.2182,-5.02715,12.0714,0.0408458,0.214952,-0.00885594,0.19138,-2.21304,0.394133,0.271741,-0.00635106,0.329856,0.0407619,0.252014,-1.26845,-0.576029,1.69442,0.00598246,0,0,0,0,0,0,0,-2.37683,-30.678,-2.38738,20.3772,2.60894,0.666434,0.0239107,
0.218429,-0.0066244,0.19486,-2.22498,0.383091,0.288231,-0.00627884,0.174078,0.0949829,0.174856,-0.626599,-0.59889,0.949179,0.0023005,3.59249,5.83165,3.57675,-7.45286,-11.8193,0.531383,0.162963,9.33705,-2.69584,9.43705,-49.9742,-5.27614,12.0714,0.0182948,0.214952,-0.00885594,0.19138,-2.21304,0.394133,0.271741,-0.00635106,0.329856,0.0407619,0.252014,-1.26845,-0.576029,1.69442,0.00598246,0,0,0,0,0,0,0,-2.37683,-30.678,-2.38738,20.3772,2.60894,0.666434,0.0239107,
0.219788,-0.00582802,0.196224,-2.22988,0.378001,0.295628,-0.0062366,0.173239,0.0958958,0.173988,-0.623642,-0.606352,0.944273,0.00289645,-0.524239,0.570552,-0.542032,1.84803,-4.66385,-3.06656,0.372467,9.62614,-2.71863,9.70268,-48.9356,-4.89067,11.9936,0.0416748,0.224817,-0.00633155,0.200912,-2.25719,0.371093,0.329332,-0.00634404,0.343285,0.0852628,0.217171,-1.27666,-0.662605,1.7,-0.00358719,1.67862,5.56261,-4.35536,-1.02556,-10.8219,0.697775,-1.19621,-1.08349,-33.3479,-1.13768,22.8925,1.5094,1.20293,0.0577852,
0.220995,-0.00526787,0.197436,-2.23448,0.373228,0.303132,-0.00618302,0.16877,0.0907205,0.169484,-0.61407,-0.604412,0.94302,0.00365677,-2.79319,-3.23456,-2.81527,5.9828,1.21228,-0.782812,0.475201,9.91363,-2.61862,9.98698,-48.2105,-5.08579,11.9936,0.0661163,0.224817,-0.00633155,0.200912,-2.25719,0.371093,0.329332,-0.00634404,0.343285,0.0852628,0.217171,-1.27666,-0.662605,1.7,-0.00358719,0,0,0,0,0,0,0,-1.08349,-33.3479,-1.13768,22.8925,1.5094,1.20293,0.0577852,
0.222099,-0.00489186,0.198544,-2.23888,0.368653,0.310839,-0.00612032,0.162605,0.0819764,0.163281,-0.601085,-0.597904,0.947097,0.00449281,-3.85287,-5.46504,-3.87707,8.11524,4.06729,2.54799,0.522524,10.0563,-2.56492,10.1267,-47.5126,-4.87746,11.9936,0.0789029,0.224817,-0.00633155,0.200912,-2.25719,0.371093,0.329332,-0.00634404,0.343285,0.0852628,0.217171,-1.27666,-0.662605,1.7,-0.00358719,0,0,0,0,0,0,0,-1.08349,-33.3479,-1.13768,22.8925,1.5094,1.20293,0.0577852,
0.228028,-0.00442379,0.204111,-2.26828,0.363024,0.348595,-0.00746236,0.165879,0.0841071,0.16643,-0.6004,-0.561324,0.980635,-0.0114158,2.04608,1.33165,1.96849,0.428661,22.8629,20.9609,-9.94289,9.62614,-2.71863,9.70268,-48.9356,-4.89067,11.9936,0.0416748,0.224817,-0.00633155,0.200912,-2.25719,0.371093,0.329332,-0.00634404,0.343285,0.0852628,0.217171,-1.27666,-0.662605,1.7,-0.00358719,0,0,0,0,0,0,0,-1.08349,-33.3479,-1.13768,22.8925,1.5094,1.20293,0.0577852,
0.229187,-0.00435236,0.20527,-2.27216,0.360876,0.356087,-0.00805475,0.161661,0.0690716,0.162104,-0.577243,-0.502769,0.971812,-0.0239422,-2.63639,-9.39719,-2.70372,14.4731,36.5968,-5.51423,-7.82901,9.97213,-2.96552,10.0259,-47.8588,-4.92122,11.8869,0.0659987,0.233227,-0.00389189,0.211239,-2.29975,0.346468,0.385193,-0.00629574,0.352724,0.0901512,0.212128,-1.27161,-0.703898,1.52006,0.000776632,1.18,0.611055,-0.630415,0.63046,-5.16165,-22.4925,0.545477,-1.18664,-32.9472,-1.38762,26.2805,0.679012,4.54461,0.0239107,
0.230158,-0.00493088,0.206241,-2.2754,0.359526,0.362294,-0.00861927,0.153612,0.0407942,0.153971,-0.542961,-0.435966,0.932634,-0.033267,-5.03034,-17.6734,-5.08352,21.4263,41.7517,-24.4865,-5.82799,10.1148,-2.91182,10.1656,-47.1609,-4.71288,11.8869,0.0787852,0.233227,-0.00389189,0.211239,-2.29975,0.346468,0.385193,-0.00629574,0.352724,0.0901512,0.212128,-1.27161,-0.703898,1.52006,0.000776632,0,0,0,0,0,0,0,-1.18664,-32.9472,-1.38762,26.2805,0.679012,4.54461,0.0239107,
0.231012,-0.00606592,0.207095,-2.27819,0.358706,0.367404,-0.00914333,0.144244,0.00425927,0.14453,-0.504044,-0.369258,0.873847,-0.0397149,-5.8549,-22.8343,-5.90045,24.3227,41.6925,-36.7416,-4.02994,10.237,-2.89395,10.2848,-46.4884,-4.77898,11.8869,0.0861607,0.233227,-0.00389189,0.211239,-2.29975,0.346468,0.385193,-0.00629574,0.352724,0.0901512,0.212128,-1.27161,-0.703898,1.52006,0.000776632,0,0,0,0,0,0,0,-1.18664,-32.9472,-1.38762,26.2805,0.679012,4.54461,0.0239107,
0.231789,-0.00765374,0.207871,-2.28064,0.358245,0.371603,-0.00961757,0.134816,-0.036288,0.135025,-0.464536,-0.306948,0.804058,-0.043628,-5.89277,-25.342,-5.94076,24.6928,38.9439,-43.6183,-2.44568,10.4005,-2.88726,10.446,-45.8132,-4.9367,11.8869,0.104415,0.233227,-0.00389189,0.211239,-2.29975,0.346468,0.385193,-0.00629574,0.352724,0.0901512,0.212128,-1.27161,-0.703898,1.52006,0.000776632,0,0,0,0,0,0,0,-1.18664,-32.9472,-1.38762,26.2805,0.679012,4.54461,0.0239107,
0.236354,-0.00268285,0.214344,-2.31005,0.340379,0.40313,-0.00698929,0.141259,-0.024185,0.141329,-0.475481,-0.301791,0.841864,-0.0442573,4.02698,7.56434,3.9405,-6.84058,3.22335,23.6289,-0.393281,10.094,-3.77034,10.1313,-47.4009,-4.75462,11.7772,0.0640475,0.242417,-0.00189933,0.221417,-2.33971,0.325836,0.430226,-0.00626296,0.188176,0.0449745,0.38983,-1.0967,-0.487878,1.25621,0.00176932,-20.5686,-5.64709,22.2127,21.864,27.0025,-32.9818,0.124085,0.360599,-28.9046,-0.0863513,19.0085,-3.28431,4.61785,-0.123489,
0.237362,-0.00351102,0.215351,-2.31297,0.339178,0.409092,-0.00736557,0.138225,-0.0400524,0.138226,-0.453434,-0.271466,0.82254,-0.0448127,-1.89617,-9.91707,-1.9394,13.7794,18.9527,-12.0772,-0.347171,10.2367,-3.71664,10.271,-46.703,-4.54629,11.7772,0.0768341,0.242417,-0.00189933,0.221417,-2.33971,0.325836,0.430226,-0.00626296,0.188176,0.0449745,0.38983,-1.0967,-0.487878,1.25621,0.00176932,0,0,0,0,0,0,0,0.360599,-28.9046,-0.0863513,19.0085,-3.28431,4.61785,-0.123489,
0.238156,-0.00526371,0.216143,-2.31507,0.338643,0.413324,-0.00771485,0.130419,-0.0758592,0.13038,-0.415426,-0.230547,0.763829,-0.0445822,-4.87895,-22.3793,-4.90407,23.7546,25.5745,-36.6946,0.144081,10.3589,-3.69877,10.3902,-46.0306,-4.61238,11.7772,0.0842096,0.242417,-0.00189933,0.221417,-2.33971,0.325836,0.430226,-0.00626296,0.188176,0.0449745,0.38983,-1.0967,-0.487878,1.25621,0.00176932,0,0,0,0,0,0,0,0.360599,-28.9046,-0.0863513,19.0085,-3.28431,4.61785,-0.123489,
0.238809,-0.00776461,0.216793,-2.31664,0.338533,0.41613,-0.00801846,0.120664,-0.12321,0.120566,-0.371394,-0.187188,0.681214,-0.043256,-6.09668,-29.5942,-6.13349,27.52,27.0997,-51.6341,0.828869,10.5224,-3.69208,10.5514,-45.3554,-4.77011,11.7772,0.102464,0.242417,-0.00189933,0.221417,-2.33971,0.325836,0.430226,-0.00626296,0.188176,0.0449745,0.38983,-1.0967,-0.487878,1.25621,0.00176932,0,0,0,0,0,0,0,0.360599,-28.9046,-0.0863513,19.0085,-3.28431,4.61785,-0.123489,
0.245407,-0.00273553,0.224412,-2.34781,0.322691,0.444043,-0.00665102,0.127884,-0.123029,0.127669,-0.372634,-0.17386,0.688087,-0.0400636,4.51224,0.113105,4.43918,-0.775123,8.32991,4.2957,1.99529,10.2233,-4.65881,10.2734,-46.4753,-4.48012,11.5834,0.075879,0.254179,-0.00386453,0.229596,-2.37227,0.316499,0.478131,-0.00631992,0.267022,-0.136483,0.314636,-0.732596,-0.15351,1.17976,-0.00157691,9.85584,-22.6822,-9.39922,45.5131,41.796,-9.55576,-0.418278,-0.274166,-21.5929,-0.260912,13.7241,-4.22547,5.89043,-0.137222,
0.246318,-0.00490325,0.225319,-2.34955,0.322468,0.447567,-0.00686586,0.12508,-0.152616,0.124817,-0.341709,-0.144677,0.638551,-0.0374221,-1.75209,-18.4921,-1.78228,19.3281,18.2393,-30.9603,1.65092,10.3456,-4.64094,10.3927,-45.8029,-4.54621,11.5834,0.0832546,0.254179,-0.00386453,0.229596,-2.37227,0.316499,0.478131,-0.00631992,0.267022,-0.136483,0.314636,-0.732596,-0.15351,1.17976,-0.00157691,0,0,0,0,0,0,0,-0.274166,-21.5929,-0.260912,13.7241,-4.22547,5.89043,-0.137222,
0.246998,-0.00808113,0.225994,-2.35048,0.322696,0.449228,-0.00704611,0.117045,-0.20154,0.116717,-0.296587,-0.110033,0.552379,-0.0344437,-5.02191,-30.5773,-5.06245,28.2013,21.6526,-53.8577,1.86147,10.5091,-4.63425,10.5539,-45.1277,-4.70394,11.5834,0.101509,0.254179,-0.00386453,0.229596,-2.37227,0.316499,0.478131,-0.00631992,0.267022,-0.136483,0.314636,-0.732596,-0.15351,1.17976,-0.00157691,0,0,0,0,0,0,0,-0.274166,-21.5929,-0.260912,13.7241,-4.22547,5.89043,-0.137222,
0.247527,-0.0120293,0.226515,-2.35089,0.323184,0.449405,-0.00717493,0.106881,-0.259937,0.106403,-0.247397,-0.0758289,0.446315,-0.0307755,-6.3528,-36.498,-6.44662,30.7439,21.3773,-66.2898,2.29267,10.5108,-4.64698,10.5538,-44.4775,-4.46612,11.5834,0.115935,0.254179,-0.00386453,0.229596,-2.37227,0.316499,0.478131,-0.00631992,0.267022,-0.136483,0.314636,-0.732596,-0.15351,1.17976,-0.00157691,0,0,0,0,0,0,0,-0.274166,-21.5929,-0.260912,13.7241,-4.22547,5.89043,-0.137222,
0.257066,-0.00836397,0.232469,-2.37671,0.316781,0.488456,-0.00651976,0.115637,-0.278055,0.115037,-0.232939,-0.0498394,0.451524,-0.027191,5.47241,-11.3237,5.39603,9.03609,16.2435,3.25537,2.24026,10.3456,-4.64094,10.3927,-45.8029,-4.54621,11.5834,0.0832546,0.254179,-0.00386453,0.229596,-2.37227,0.316499,0.478131,-0.00631992,0.267022,-0.136483,0.314636,-0.732596,-0.15351,1.17976,-0.00157691,0,0,0,0,0,0,0,-0.274166,-21.5929,-0.260912,13.7241,-4.22547,5.89043,-0.137222,
0.257938,-0.0122302,0.233329,-2.37712,0.31753,0.489891,-0.00658507,0.114307,-0.3191,0.11355,-0.196617,-0.0211492,0.397087,-0.0233856,-0.830864,-25.6533,-0.929287,22.7015,17.9314,-34.0227,2.37838,10.5091,-4.63425,10.5539,-45.1277,-4.70394,11.5834,0.101509,0.254179,-0.00386453,0.229596,-2.37227,0.316499,0.478131,-0.00631992,0.267022,-0.136483,0.314636,-0.732596,-0.15351,1.17976,-0.00157691,0,0,0,0,0,0,0,-0.274166,-21.5929,-0.260912,13.7241,-4.22547,5.89043,-0.137222,
0.258588,-0.0169395,0.233963,-2.37693,0.318427,0.489466,-0.00659025,0.107712,-0.373011,0.106674,-0.152369,0.00550239,0.307043,-0.018838,-4.12185,-33.6947,-4.29744,27.6552,16.6572,-56.2777,2.84227,10.5108,-4.64698,10.5538,-44.4775,-4.46612,11.5834,0.115935,0.254179,-0.00386453,0.229596,-2.37227,0.316499,0.478131,-0.00631992,0.267022,-0.136483,0.314636,-0.732596,-0.15351,1.17976,-0.00157691,0,0,0,0,0,0,0,-0.274166,-21.5929,-0.260912,13.7241,-4.22547,5.89043,-0.137222,
0.259111,-0.0222442,0.234459,-2.37636,0.319342,0.487641,-0.00652503,0.0992335,-0.431026,0.0977336,-0.107684,0.0272815,0.200015,-0.0134399,-5.29927,-36.2594,-5.5876,27.928,13.6119,-66.8924,3.37383,10.331,-4.65998,10.3722,-43.8451,-4.37448,11.5834,0.112434,0.254179,-0.00386453,0.229596,-2.37227,0.316499,0.478131,-0.00631992,0.267022,-0.136483,0.314636,-0.732596,-0.15351,1.17976,-0.00157691,0,0,0,0,0,0,0,-0.274166,-21.5929,-0.260912,13.7241,-4.22547,5.89043,-0.137222,
0.257079,-0.00832326,0.232481,-2.37667,0.316767,0.488458,-0.00651807,0.109602,-0.414403,0.108181,-0.12061,0.0325972,0.254452,-0.013284,6.47999,10.3898,6.52963,-8.07873,3.32231,34.0233,0.0974485,10.5091,-4.63425,10.5539,-45.1277,-4.70394,11.5834,0.101509,0.254179,-0.00386453,0.229596,-2.37227,0.316499,0.478131,-0.00631992,0.267022,-0.136483,0.314636,-0.732596,-0.15351,1.17976,-0.00157691,0,0,0,0,0,0,0,-0.274166,-21.5929,-0.260912,13.7241,-4.22547,5.89043,-0.137222,
0.257948,-0.0121674,0.233339,-2.37706,0.317519,0.489885,-0.00658239,0.109413,-0.427625,0.107997,-0.106148,0.0448628,0.239243,-0.0122352,-0.118015,-8.26358,-0.115288,9.03861,7.66604,-9.50591,0.655482,10.5108,-4.64698,10.5538,-44.4775,-4.46612,11.5834,0.115935,0.254179,-0.00386453,0.229596,-2.37227,0.316499,0.478131,-0.00631992,0.267022,-0.136483,0.314636,-0.732596,-0.15351,1.17976,-0.00157691,0,0,0,0,0,0,0,-0.274166,-21.5929,-0.260912,13.7241,-4.22547,5.89043,-0.137222,
0.258603,-0.0168485,0.233977,-2.37682,0.318398,0.489449,-0.00658869,0.103919,-0.459129,0.102347,-0.0791445,0.0578777,0.180477,-0.00994579,-3.43336,-19.6902,-3.53084,16.8773,8.1343,-36.7285,1.43087,10.331,-4.65998,10.3722,-43.8451,-4.37448,11.5834,0.112434,0.254179,-0.00386453,0.229596,-2.37227,0.316499,0.478131,-0.00631992,0.267022,-0.136483,0.314636,-0.732596,-0.15351,1.17976,-0.00157691,0,0,0,0,0,0,0,-0.274166,-21.5929,-0.260912,13.7241,-4.22547,5.89043,-0.137222,
0.259133,-0.0221264,0.23448,-2.37622,0.319289,0.487608,-0.0065252,0.0963633,-0.49925,0.094435,-0.0482102,0.0685659,0.0983633,-0.0063693,-4.7225,-25.0757,-4.94513,19.3339,6.6801,-51.3213,2.23531,10.1998,-4.64533,10.2394,-43.1943,-4.81194,11.5834,0.104794,0.254179,-0.00386453,0.229596,-2.37227,0.316499,0.478131,-0.00631992,0.267022,-0.136483,0.314636,-0.732596,-0.15351,1.17976,-0.00157691,0,0,0,0,0,0,0,-0.274166,-21.5929,-0.260912,13.7241,-4.22547,5.89043,-0.137222,
0.257071,-0.00828596,0.232473,-2.37664,0.316787,0.488455,-0.00651752,0.107161,-0.468436,0.105394,-0.0725347,0.0659055,0.173032,-0.00763098,6.74848,19.2585,6.84927,-15.2028,-1.66273,46.6682,-0.788551,10.5108,-4.64698,10.5538,-44.4775,-4.46612,11.5834,0.115935,0.254179,-0.00386453,0.229596,-2.37227,0.316499,0.478131,-0.00631992,0.267022,-0.136483,0.314636,-0.732596,-0.15351,1.17976,-0.00157691,0,0,0,0,0,0,0,-0.274166,-21.5929,-0.260912,13.7241,-4.22547,5.89043,-0.137222,
0.257943,-0.0121008,0.233334,-2.37699,0.317528,0.489874,-0.00658416,0.107534,-0.47012,0.105836,-0.0668938,0.0712522,0.173905,-0.00777089,0.232996,-1.05206,0.276159,3.52559,3.3417,0.545062,-0.0874429,10.331,-4.65998,10.3722,-43.8451,-4.37448,11.5834,0.112434,0.254179,-0.00386453,0.229596,-2.37227,0.316499,0.478131,-0.00631992,0.267022,-0.136483,0.314636,-0.732596,-0.15351,1.17976,-0.00157691,0,0,0,0,0,0,0,-0.274166,-21.5929,-0.260912,13.7241,-4.22547,5.89043,-0.137222,
0.258604,-0.0167537,0.233977,-2.37672,0.318388,0.489424,-0.00659338,0.102551,-0.492419,0.100752,-0.0468749,0.0785123,0.127882,-0.00644727,-3.11406,-13.9369,-3.1775,12.5118,4.53754,-28.7638,0.827262,10.1998,-4.64533,10.2394,-43.1943,-4.81194,11.5834,0.104794,0.254179,-0.00386453,0.229596,-2.37227,0.316499,0.478131,-0.00631992,0.267022,-0.136483,0.314636,-0.732596,-0.15351,1.17976,-0.00157691,0,0,0,0,0,0,0,-0.274166,-21.5929,-0.260912,13.7241,-4.22547,5.89043,-0.137222,
0.259138,-0.0220076,0.234485,-2.37609,0.319259,0.487567,-0.00653248,0.0953961,-0.525283,0.0932895,-0.0215674,0.0845716,0.0558685,-0.00363533,-4.47192,-20.5404,-4.66386,15.8172,3.78709,-45.0087,1.75746,10.1645,-4.62372,10.2024,-42.5234,-4.99792,11.5834,0.0984639,0.254179,-0.00386453,0.229596,-2.37227,0.316499,0.478131,-0.00631992,0.267022,-0.136483,0.314636,-0.732596,-0.15351,1.17976,-0.00157691,0,0,0,0,0,0,0,-0.274166,-21.5929,-0.260912,13.7241,-4.22547,5.89043,-0.137222,
0.257072,-0.00824174,0.232473,-2.37659,0.316779,0.488449,-0.00652195,0.106499,-0.488569,0.104586,-0.0504989,0.0783691,0.138921,-0.005527,6.93927,22.9465,7.06012,-18.0822,-3.87656,51.9076,-1.18229,10.331,-4.65998,10.3722,-43.8451,-4.37448,11.5834,0.112434,0.254179,-0.00386453,0.229596,-2.37227,0.316499,0.478131,-0.00631992,0.267022,-0.136483,0.314636,-0.732596,-0.15351,1.17976,-0.00157691,0,0,0,0,0,0,0,-0.274166,-21.5929,-0.260912,13.7241,-4.22547,5.89043,-0.137222,
0.25795,-0.0120284,0.233341,-2.37691,0.317499,0.489858,-0.00659248,0.107168,-0.485522,0.105351,-0.0484354,0.0806904,0.146373,-0.00618485,0.418372,1.90463,0.478275,1.28969,1.4508,4.65792,-0.411155,10.1998,-4.64533,10.2394,-43.1943,-4.81194,11.5834,0.104794,0.254179,-0.00386453,0.229596,-2.37227,0.316499,0.478131,-0.00631992,0.267022,-0.136483,0.314636,-0.732596,-0.15351,1.17976,-0.00157691,0,0,0,0,0,0,0,-0.274166,-21.5929,-0.260912,13.7241,-4.22547,5.89043,-0.137222,
0.258617,-0.016657,0.23399,-2.37662,0.318338,0.489395,-0.0066052,0.102409,-0.504133,0.100515,-0.0312993,0.0855225,0.105508,-0.00526601,-2.97492,-11.6323,-3.02259,10.71,3.02007,-25.5407,0.574277,10.1645,-4.62372,10.2024,-42.5234,-4.99792,11.5834,0.0984639,0.254179,-0.00386453,0.229596,-2.37227,0.316499,0.478131,-0.00631992,0.267022,-0.136483,0.314636,-0.732596,-0.15351,1.17976,-0.00157691,0,0,0,0,0,0,0,-0.274166,-21.5929,-0.260912,13.7241,-4.22547,5.89043,-0.137222,
0.259157,-0.021891,0.234503,-2.37595,0.319189,0.487521,-0.00654685,0.0954201,-0.534155,0.0932441,-0.00835112,0.0896899,0.0375585,-0.0027541,-4.36773,-18.7636,-4.5442,14.3426,2.60459,-42.4686,1.56994,10.2156,-4.63184,10.2517,-41.8587,-4.9986,11.5834,0.0927108,0.254179,-0.00386453,0.229596,-2.37227,0.316499,0.478131,-0.00631992,0.267022,-0.136483,0.314636,-0.732596,-0.15351,1.17976,-0.00157691,0,0,0,0,0,0,0,-0.274166,-21.5929,-0.260912,13.7241,-4.22547,5.89043,-0.137222,
0.257088,-0.00819301,0.23249,-2.37654,0.316739,0.488444,-0.00652808,0.106742,-0.495,0.10477,-0.0391724,0.0818772,0.124151,-0.00490832,7.07602,24.472,7.20341,-19.2633,-4.88289,54.1206,-1.34639,10.1998,-4.64533,10.2394,-43.1943,-4.81194,11.5834,0.104794,0.254179,-0.00386453,0.229596,-2.37227,0.316499,0.478131,-0.00631992,0.267022,-0.136483,0.314636,-0.732596,-0.15351,1.17976,-0.00157691,0,0,0,0,0,0,0,-0.274166,-21.5929,-0.260912,13.7241,-4.22547,5.89043,-0.137222,
0.257975,-0.0119554,0.233365,-2.37683,0.317435,0.489844,-0.00660179,0.107556,-0.49006,0.10569,-0.0386035,0.0829188,0.134316,-0.00576928,0.508687,3.0876,0.57532,0.35558,0.651008,6.35258,-0.538099,10.1645,-4.62372,10.2024,-42.5234,-4.99792,11.5834,0.0984639,0.254179,-0.00386453,0.229596,-2.37227,0.316499,0.478131,-0.00631992,0.267022,-0.136483,0.314636,-0.732596,-0.15351,1.17976,-0.00157691,0,0,0,0,0,0,0,-0.274166,-21.5929,-0.260912,13.7241,-4.22547,5.89043,-0.137222,
