xiao-wang007/linearmpc_panda/paper_data/panda_torque_PD_controller_Start_at_0_no_torque_ff/1/trajectory.csv
Commanded Joint 0 Position,Commanded Joint 1 Position,Commanded Joint 2 Position,Commanded Joint 3 Position,Commanded Joint 4 Position,Commanded Joint 5 Position,Commanded Joint 6 Position,Commanded Joint 0 Velocity,Commanded Joint 1 Velocity,Commanded Joint 2 Velocity,Commanded Joint 3 Velocity,Commanded Joint 4 Velocity,Commanded Joint 5 Velocity,Commanded Joint 6 Velocity,Commanded Joint 0 Acceleration,Commanded Joint 1 Acceleration,Commanded Joint 2 Acceleration,Commanded Joint 3 Acceleration,Commanded Joint 4 Acceleration,Commanded Joint 5 Acceleration,Commanded Joint 6 Acceleration,Commanded Joint 0 Torque,Commanded Joint 1 Torque,Commanded Joint 2 Torque,Commanded Joint 3 Torque,Commanded Joint 4 Torque,Commanded Joint 5 Torque,Commanded Joint 6 Torque,Actual Joint 0 Position,Actual Joint 1 Position,Actual Joint 2 Position,Actual Joint 3 Position,Actual Joint 4 Position,Actual Joint 5 Position,Actual Joint 6 Position,Actual Joint 0 Velocity,Actual Joint 1 Velocity,Actual Joint 2 Velocity,Actual Joint 3 Velocity,Actual Joint 4 Velocity,Actual Joint 5 Velocity,Actual Joint 6 Velocity,Actual Joint 0 Acceleration,Actual Joint 1 Acceleration,Actual Joint 2 Acceleration,Actual Joint 3 Acceleration,Actual Joint 4 Acceleration,Actual Joint 5 Acceleration,Actual Joint 6 Acceleration,Actual Joint 0 Torque,Actual Joint 1 Torque,Actual Joint 2 Torque,Actual Joint 3 Torque,Actual Joint 4 Torque,Actual Joint 5 Torque,Actual Joint 6 Torque,
-0.0369299,0.102992,-0.0185858,-1.68785,-0.000316981,0.242561,-0.0894005,0.000413957,0.0253111,0.000335053,-0.0314073,-0.00348668,0.0547818,-0.000387075,0.258723,15.8194,0.209408,-19.6296,-2.17918,34.2386,-0.241922,0,0,0,0,0,0,0,-0.0369573,0.101148,-0.0186114,-1.6847,-7.44355e-05,0.236777,-0.0893494,0.00212822,0.00203103,-0.000314659,-0.00125098,-0.00653066,0.000970278,0.00150797,0,0,0,0,0,0,0,-0.0440639,-38.5887,-0.16173,26.8796,0.971981,3.22533,0.0843355,
-0.0369473,0.101181,-0.0186031,-1.68472,-0.000130152,0.236772,-0.0893499,0.00037893,0.0204649,0.000308784,-0.0252409,-0.00302125,0.0437301,-0.000314128,-0.0218921,-3.02889,-0.0164183,3.85399,0.290899,-6.9073,0.0455915,0,0,0,0,0,0,0,-0.0369573,0.101148,-0.0186114,-1.6847,-7.44355e-05,0.236777,-0.0893494,0.00212822,0.00203103,-0.000314659,-0.00125098,-0.00653066,0.000970278,0.00150797,0,0,0,0,0,0,0,-0.0440639,-38.5887,-0.16173,26.8796,0.971981,3.22533,0.0843355,
-0.036946,0.101188,-0.0186021,-1.68472,-0.000135346,0.236768,-0.08935,0.000333886,0.0165459,0.000273538,-0.0202872,-0.00254684,0.0348758,-0.000253996,-0.0281523,-2.44936,-0.0220285,3.09606,0.296506,-5.53395,0.0375827,0,0,0,0,0,0,0,-0.0369573,0.101148,-0.0186114,-1.6847,-7.44355e-05,0.236777,-0.0893494,0.00212822,0.00203103,-0.000314659,-0.00125098,-0.00653066,0.000970278,0.00150797,0,0,0,0,0,0,0,-0.0440639,-38.5887,-0.16173,26.8796,0.971981,3.22533,0.0843355,
-0.0369452,0.101193,-0.0186013,-1.68472,-0.000138269,0.236763,-0.0893501,0.000287463,0.0133776,0.000236558,-0.0163075,-0.00211054,0.0277929,-0.000204855,-0.0290143,-1.98015,-0.0231125,2.48736,0.272684,-4.42683,0.0307128,0,0,0,0,0,0,0,-0.0369573,0.101148,-0.0186114,-1.6847,-7.44355e-05,0.236777,-0.0893494,0.00212822,0.00203103,-0.000314659,-0.00125098,-0.00653066,0.000970278,0.00150797,0,0,0,0,0,0,0,-0.0440639,-38.5887,-0.16173,26.8796,0.971981,3.22533,0.0843355,
-0.0370659,0.101181,-0.0187448,-1.6846,0.00258717,0.235402,-0.0893744,-0.00142799,0.0109611,-0.00164137,-0.0119023,0.0393156,0.00105315,-0.000396064,-1.07216,-1.51032,-1.17371,2.75321,25.8913,-16.7123,-0.119506,0,0,0,0,0,0,0,-0.0369573,0.101148,-0.0186114,-1.6847,-7.44355e-05,0.236777,-0.0893494,0.00212822,0.00203103,-0.000314659,-0.00125098,-0.00653066,0.000970278,0.00150797,0,0,0,0,0,0,0,-0.0440639,-38.5887,-0.16173,26.8796,0.971981,3.22533,0.0843355,
-0.037134,0.101181,-0.0188141,-1.68457,0.0045845,0.234347,-0.0893793,-0.00284502,0.00877173,-0.00304477,-0.00867192,0.0813856,-0.0255184,-0.000438892,-0.885643,-1.36838,-0.877122,2.01901,26.2938,-16.6072,-0.0267674,0,0,0,0,0,0,0,-0.0369573,0.101148,-0.0186114,-1.6847,-7.44355e-05,0.236777,-0.0893494,0.00212822,0.00203103,-0.000314659,-0.00125098,-0.00653066,0.000970278,0.00150797,0,0,0,0,0,0,0,-0.0440639,-38.5887,-0.16173,26.8796,0.971981,3.22533,0.0843355,
-0.0371935,0.101176,-0.0188721,-1.68455,0.00678815,0.233155,-0.0893818,-0.00376382,0.00687522,-0.00388517,-0.00637072,0.1202,-0.0502126,-0.000412801,-0.574253,-1.18532,-0.52525,1.43825,24.2588,-15.4339,0.0163068,0,0,0,0,0,0,0,-0.0369573,0.101148,-0.0186114,-1.6847,-7.44355e-05,0.236777,-0.0893494,0.00212822,0.00203103,-0.000314659,-0.00125098,-0.00653066,0.000970278,0.00150797,0,0,0,0,0,0,0,-0.0440639,-38.5887,-0.16173,26.8796,0.971981,3.22533,0.0843355,
-0.0372404,0.101168,-0.0189163,-1.68453,0.00911021,0.231873,-0.089383,-0.00418368,0.00529818,-0.00421518,-0.00476566,0.154211,-0.0722333,-0.000360338,-0.26241,-0.985644,-0.206259,1.00317,21.2573,-13.7629,0.0327896,0,0,0,0,0,0,0,-0.0369652,0.101375,-0.01861,-1.685,-6.83189e-05,0.236905,-0.0893538,0.00178002,0.00763113,0.0012119,-0.0263748,-0.0074971,0.00848954,-0.000145693,-0.0435249,0.700012,0.19082,-3.14047,-0.120805,0.939907,-0.206708,0.00751081,-36.7162,-0.213304,24.3604,0.91705,2.64214,0.124619,
-0.0371781,0.101561,-0.0189003,-1.68453,0.00827506,0.229401,-0.0894236,-0.00646833,0.00568962,-0.0071177,0.00203464,0.252059,-0.172316,-0.000912202,-1.42791,0.244649,-1.81407,4.25018,61.155,-62.5519,-0.344915,0,0,0,0,0,0,0,-0.0369652,0.101375,-0.01861,-1.685,-6.83189e-05,0.236905,-0.0893538,0.00178002,0.00763113,0.0012119,-0.0263748,-0.0074971,0.00848954,-0.000145693,0,0,0,0,0,0,0,0.00751081,-36.7162,-0.213304,24.3604,0.91705,2.64214,0.124619,
-0.0372847,0.101564,-0.0190174,-1.68436,0.0146002,0.223792,-0.0894354,-0.0078386,0.00462986,-0.00862284,0.00568975,0.359776,-0.278075,-0.00102491,-0.856415,-0.66235,-0.94071,2.28445,67.323,-66.0995,-0.0704445,0,0,0,0,0,0,0,-0.0369652,0.101375,-0.01861,-1.685,-6.83189e-05,0.236905,-0.0893538,0.00178002,0.00763113,0.0012119,-0.0263748,-0.0074971,0.00848954,-0.000145693,0,0,0,0,0,0,0,0.00751081,-36.7162,-0.213304,24.3604,0.91705,2.64214,0.124619,
-0.0373491,0.101541,-0.0190857,-1.68427,0.0216421,0.217535,-0.0894401,-0.0078804,0.00311768,-0.00860497,0.006851,0.463868,-0.378893,-0.000937179,-0.0261267,-0.945114,0.0111701,0.725783,65.0571,-63.011,0.0548339,0,0,0,0,0,0,0,-0.0369652,0.101375,-0.01861,-1.685,-6.83189e-05,0.236905,-0.0893538,0.00178002,0.00763113,0.0012119,-0.0263748,-0.0074971,0.00848954,-0.000145693,0,0,0,0,0,0,0,0.00751081,-36.7162,-0.213304,24.3604,0.91705,2.64214,0.124619,
-0.0373601,0.10151,-0.0190964,-1.68424,0.0290485,0.210881,-0.0894402,-0.00657889,0.00174001,-0.0071525,0.0063349,0.556254,-0.469471,-0.000753461,0.813441,-0.861046,0.907788,-0.322567,57.7413,-56.6111,0.114824,0,0,0,0,0,0,0,-0.0369643,0.101805,-0.0186115,-1.68554,0.000112013,0.236868,-0.0893576,0.000876202,0.0178991,0.000640713,-0.0146467,0.0220533,0.00381977,-0.00118498,-0.112977,1.2835,-0.071398,1.466,3.6938,-0.583721,-0.129911,-0.0202602,-39.0132,-0.237108,27.0541,1.18621,2.95983,0.158493,
-0.036105,0.101686,-0.0179552,-1.68574,0.00694494,0.227446,-0.0891645,0.00841247,-0.00185732,0.00509794,0.000718506,0.551378,-0.521892,0.00120537,9.3696,-2.24833,7.65653,-3.51024,-3.04695,-32.7631,1.22427,0,0,0,0,0,0,0,-0.0369643,0.101805,-0.0186115,-1.68554,0.000112013,0.236868,-0.0893576,0.000876202,0.0178991,0.000640713,-0.0146467,0.0220533,0.00381977,-0.00118498,0,0,0,0,0,0,0,-0.0202602,-39.0132,-0.237108,27.0541,1.18621,2.95983,0.158493,
-0.0353712,0.101453,-0.0173372,-1.68609,0.0123729,0.220064,-0.0891244,0.0250732,-0.00730093,0.0195286,-0.00812927,0.576803,-0.602078,0.00196678,10.413,-3.40225,9.01915,-5.52986,15.8904,-50.1164,0.475883,0,0,0,0,0,0,0,-0.0369643,0.101805,-0.0186115,-1.68554,0.000112013,0.236868,-0.0893576,0.000876202,0.0178991,0.000640713,-0.0146467,0.0220533,0.00381977,-0.00118498,0,0,0,0,0,0,0,-0.0202602,-39.0132,-0.237108,27.0541,1.18621,2.95983,0.158493,
-0.034515,0.101193,-0.0165113,-1.68653,0.018603,0.211586,-0.0888966,0.0414639,-0.0123531,0.0362695,-0.0175698,0.617195,-0.693613,0.0072689,10.2442,-3.15763,10.4631,-5.9003,25.2446,-57.2096,3.31382,0,0,0,0,0,0,0,-0.0369643,0.101805,-0.0186115,-1.68554,0.000112013,0.236868,-0.0893576,0.000876202,0.0178991,0.000640713,-0.0146467,0.0220533,0.00381977,-0.00118498,0,0,0,0,0,0,0,-0.0202602,-39.0132,-0.237108,27.0541,1.18621,2.95983,0.158493,
-0.0335249,0.101036,-0.0156531,-1.68689,0.025515,0.202243,-0.0888155,0.0579249,-0.0137864,0.0504707,-0.0229409,0.666554,-0.788454,0.00784274,10.2881,-0.895789,8.87571,-3.35694,30.8494,-59.2755,0.358647,0,0,0,0,0,0,0,-0.0370977,0.102394,-0.0188076,-1.6857,0.00581668,0.234678,-0.0893644,-0.00488762,0.0160454,-0.0106701,0.00264549,0.345573,-0.168626,-0.00101832,-0.720478,-0.231713,-1.41385,2.16153,40.44,-21.5557,0.0208322,0.741459,-39.6123,0.611891,26.6058,2.29126,1.73394,0.178635,
-0.0357955,0.102108,-0.017319,-1.68672,0.0141858,0.224564,-0.0890544,0.0678944,-0.0155591,0.0635279,-0.0341528,0.649858,-0.781965,0.00914674,6.23094,-1.10795,8.1608,-7.00748,-10.4345,4.05596,0.814998,0,0,0,0,0,0,0,-0.0370977,0.102394,-0.0188076,-1.6857,0.00581668,0.234678,-0.0893644,-0.00488762,0.0160454,-0.0106701,0.00264549,0.345573,-0.168626,-0.00101832,0,0,0,0,0,0,0,0.741459,-39.6123,0.611891,26.6058,2.29126,1.73394,0.178635,
-0.0345876,0.101928,-0.0161544,-1.6875,0.0196804,0.217097,-0.0887864,0.0845132,-0.0169587,0.0799379,-0.0468155,0.657251,-0.812236,0.0140188,10.3868,-0.874748,10.2562,-7.91419,4.62064,-18.92,3.04507,0,0,0,0,0,0,0,-0.0370977,0.102394,-0.0188076,-1.6857,0.00581668,0.234678,-0.0893644,-0.00488762,0.0160454,-0.0106701,0.00264549,0.345573,-0.168626,-0.00101832,0,0,0,0,0,0,0,0.741459,-39.6123,0.611891,26.6058,2.29126,1.73394,0.178635,
-0.0332407,0.101859,-0.0147964,-1.68827,0.0259655,0.208552,-0.0887011,0.101284,-0.0152758,0.0979014,-0.0566466,0.682929,-0.863421,0.0133464,10.4818,1.05181,11.2272,-6.14439,16.0483,-31.9906,-0.420249,0,0,0,0,0,0,0,-0.0370977,0.102394,-0.0188076,-1.6857,0.00581668,0.234678,-0.0893644,-0.00488762,0.0160454,-0.0106701,0.00264549,0.345573,-0.168626,-0.00101832,0,0,0,0,0,0,0,0.741459,-39.6123,0.611891,26.6058,2.29126,1.73394,0.178635,
-0.0353736,0.101862,-0.0171948,-1.68752,0.0137666,0.225157,-0.0888943,0.108267,-0.0198666,0.104448,-0.0720327,0.656736,-0.834701,0.0179242,4.36454,-2.86925,4.09158,-9.61633,-16.3706,17.95,2.86106,0,0,0,0,0,0,0,-0.0374338,0.102683,-0.0192273,-1.6855,0.0217379,0.222982,-0.0893553,-0.00253082,0.00265716,-0.000545627,-0.00875575,0.465072,-0.437758,0.00057885,0.2946,-1.67353,1.26556,-1.42516,14.9374,-33.6415,0.199647,3.09803,-39.4893,2.68678,25.7568,2.02301,0.957571,0.124619,
-0.0339868,0.101622,-0.0158965,-1.68868,0.019141,0.217875,-0.0888263,0.121283,-0.0218855,0.116015,-0.0865889,0.659748,-0.849824,0.0160386,8.13445,-1.2618,7.22953,-9.09762,1.88261,-9.45163,-1.17845,0,0,0,0,0,0,0,-0.0374338,0.102683,-0.0192273,-1.6855,0.0217379,0.222982,-0.0893553,-0.00253082,0.00265716,-0.000545627,-0.00875575,0.465072,-0.437758,0.00057885,0,0,0,0,0,0,0,3.09803,-39.4893,2.68678,25.7568,2.02301,0.957571,0.124619,
-0.0324102,0.101382,-0.0144202,-1.69003,0.025328,0.209599,-0.0888383,0.136442,-0.0235186,0.12972,-0.102891,0.682472,-0.886736,0.0125325,9.47496,-1.02068,8.56524,-10.189,14.2028,-23.0699,-2.19136,0,0,0,0,0,0,0,-0.0374338,0.102683,-0.0192273,-1.6855,0.0217379,0.222982,-0.0893553,-0.00253082,0.00265716,-0.000545627,-0.00875575,0.465072,-0.437758,0.00057885,0,0,0,0,0,0,0,3.09803,-39.4893,2.68678,25.7568,2.02301,0.957571,0.124619,
-0.0307159,0.101155,-0.0128102,-1.6915,0.0321557,0.200596,-0.0888791,0.151511,-0.0244938,0.144025,-0.119203,0.716672,-0.934484,0.00900492,9.41765,-0.609521,8.94112,-10.1948,21.3745,-29.8427,-2.20471,0,0,0,0,0,0,0,-0.0374338,0.102683,-0.0192273,-1.6855,0.0217379,0.222982,-0.0893553,-0.00253082,0.00265716,-0.000545627,-0.00875575,0.465072,-0.437758,0.00057885,0,0,0,0,0,0,0,3.09803,-39.4893,2.68678,25.7568,2.02301,0.957571,0.124619,
-0.0358216,0.102117,-0.0176834,-1.68742,0.0310417,0.210991,-0.0889822,0.146466,-0.0264604,0.138926,-0.121832,0.699467,-0.917468,0.00913878,-3.15315,-1.22911,-3.18689,-1.64335,-10.7532,10.6354,0.0836631,0,0,0,0,0,0,0,-0.0374338,0.102683,-0.0192273,-1.6855,0.0217379,0.222982,-0.0893553,-0.00253082,0.00265716,-0.000545627,-0.00875575,0.465072,-0.437758,0.00057885,0,0,0,0,0,0,0,3.09803,-39.4893,2.68678,25.7568,2.02301,0.957571,0.124619,
-0.0345402,0.101832,-0.0164835,-1.6887,0.0368398,0.203093,-0.0889875,0.149206,-0.0282915,0.14114,-0.129395,0.704526,-0.931413,0.00718018,1.71275,-1.14443,1.38322,-4.72657,3.16242,-8.71615,-1.22413,0,0,0,0,0,0,0,-0.0372251,0.102538,-0.0189674,-1.68586,0.0397916,0.203581,-0.0893545,0.0263274,-0.00678879,0.0248057,-0.0391535,0.535956,-0.589274,-0.00172115,3.60728,-1.18074,3.16892,-3.79972,8.86045,-18.9395,-0.2875,5.9386,-37.4898,5.3885,24.8087,2.34619,0.918204,0.211594,
-0.0330805,0.101561,-0.015094,-1.69012,0.0432787,0.194377,-0.0890236,0.155857,-0.0294146,0.147648,-0.139104,0.724593,-0.963045,0.00484106,4.15696,-0.701975,4.06758,-6.06808,12.5416,-19.7697,-1.46195,0,0,0,0,0,0,0,-0.0372251,0.102538,-0.0189674,-1.68586,0.0397916,0.203581,-0.0893545,0.0263274,-0.00678879,0.0248057,-0.0391535,0.535956,-0.589274,-0.00172115,0,0,0,0,0,0,0,5.9386,-37.4898,5.3885,24.8087,2.34619,0.918204,0.211594,
-0.0354893,0.102009,-0.0173356,-1.68794,0.0502151,0.190062,-0.0892822,0.150652,-0.0308639,0.14246,-0.141147,0.718193,-0.954596,0.00386822,-3.25316,-0.905773,-3.24221,-1.27711,-3.99973,5.28072,-0.608023,0,0,0,0,0,0,0,-0.0372251,0.102538,-0.0189674,-1.68586,0.0397916,0.203581,-0.0893545,0.0263274,-0.00678879,0.0248057,-0.0391535,0.535956,-0.589274,-0.00172115,0,0,0,0,0,0,0,5.9386,-37.4898,5.3885,24.8087,2.34619,0.918204,0.211594,
-0.0342204,0.101716,-0.0161251,-1.68931,0.0563665,0.181755,-0.0893144,0.152245,-0.0320293,0.144229,-0.147086,0.728342,-0.971359,0.00228854,0.995325,-0.728367,1.10576,-3.71164,6.34275,-10.4768,-0.987303,0,0,0,0,0,0,0,-0.0372251,0.102538,-0.0189674,-1.68586,0.0397916,0.203581,-0.0893545,0.0263274,-0.00678879,0.0248057,-0.0391535,0.535956,-0.589274,-0.00172115,0,0,0,0,0,0,0,5.9386,-37.4898,5.3885,24.8087,2.34619,0.918204,0.211594,
-0.032783,0.101442,-0.0147547,-1.69079,0.0630502,0.172749,-0.0893685,0.15773,-0.0324623,0.149643,-0.154643,0.749765,-1.00222,0.000478216,3.42857,-0.270673,3.38349,-4.72295,13.3896,-19.2875,-1.13145,0,0,0,0,0,0,0,-0.0357785,0.101897,-0.0172904,-1.68791,0.0578633,0.182006,-0.0893432,0.0506845,-0.0253602,0.0773873,-0.0824931,0.5959,-0.707689,-4.12652e-05,3.04463,-2.32143,6.57269,-5.41745,7.49304,-14.8019,0.209985,6.24408,-36.9185,5.76143,24.6857,2.42584,0.798269,0.158493,
-0.0312258,0.101195,-0.0132747,-1.69234,0.0701748,0.163234,-0.0894311,0.165113,-0.0321578,0.156715,-0.162598,0.777927,-1.03966,-0.00118173,4.61417,0.190353,4.41993,-4.97232,17.6011,-23.4022,-1.03747,0,0,0,0,0,0,0,-0.0357785,0.101897,-0.0172904,-1.68791,0.0578633,0.182006,-0.0893432,0.0506845,-0.0253602,0.0773873,-0.0824931,0.5959,-0.707689,-4.12652e-05,0,0,0,0,0,0,0,6.24408,-36.9185,5.76143,24.6857,2.42584,0.798269,0.158493,
-0.0337164,0.101244,-0.0153341,-1.69032,0.0692464,0.167191,-0.0893747,0.161134,-0.0340203,0.153104,-0.162674,0.772012,-1.02978,-0.00170524,-2.48711,-1.16406,-2.25652,-0.0475809,-3.69698,6.17507,-0.327188,0,0,0,0,0,0,0,-0.0357785,0.101897,-0.0172904,-1.68791,0.0578633,0.182006,-0.0893432,0.0506845,-0.0253602,0.0773873,-0.0824931,0.5959,-0.707689,-4.12652e-05,0,0,0,0,0,0,0,6.24408,-36.9185,5.76143,24.6857,2.42584,0.798269,0.158493,
-0.0323639,0.100932,-0.0140443,-1.69175,0.0757644,0.158491,-0.0894274,0.16272,-0.035018,0.154729,-0.165907,0.78056,-1.04131,-0.00268129,0.991701,-0.623578,1.01522,-2.0205,5.3425,-7.20705,-0.610035,0,0,0,0,0,0,0,-0.0357785,0.101897,-0.0172904,-1.68791,0.0578633,0.182006,-0.0893432,0.0506845,-0.0253602,0.0773873,-0.0824931,0.5959,-0.707689,-4.12652e-05,0,0,0,0,0,0,0,6.24408,-36.9185,5.76143,24.6857,2.42584,0.798269,0.158493,
-0.0308744,0.100649,-0.0126289,-1.69326,0.0827326,0.14922,-0.0894889,0.167412,-0.0351029,0.159167,-0.170633,0.798654,-1.06483,-0.00368423,2.93196,-0.0530881,2.77423,-2.95345,11.3088,-14.6994,-0.626835,0,0,0,0,0,0,0,-0.0329877,0.101113,-0.0145391,-1.69162,0.0776595,0.156285,-0.0893422,0.10568,-0.0284073,0.0878991,-0.120986,0.633999,-0.812001,0.000795331,6.87444,-0.380887,1.31398,-4.81158,4.76227,-13.039,0.104575,3.60584,-37.5414,3.26204,26.106,1.57714,2.19079,0.104477,
-0.0292908,0.100395,-0.0111261,-1.69484,0.0900694,0.139532,-0.0895523,0.173519,-0.0344331,0.164906,-0.175864,0.822343,-1.09407,-0.00453067,3.81727,0.418657,3.58672,-3.26977,14.8055,-18.2744,-0.529024,0,0,0,0,0,0,0,-0.0329877,0.101113,-0.0145391,-1.69162,0.0776595,0.156285,-0.0893422,0.10568,-0.0284073,0.0878991,-0.120986,0.633999,-0.812001,0.000795331,0,0,0,0,0,0,0,3.60584,-37.5414,3.26204,26.106,1.57714,2.19079,0.104477,
-0.0306235,0.100524,-0.0122868,-1.69429,0.0896772,0.140325,-0.0894244,0.170927,-0.0348958,0.162517,-0.175942,0.815264,-1.08537,-0.00493194,-1.62039,-0.289201,-1.49329,-0.0482866,-4.42447,5.43827,-0.250794,0,0,0,0,0,0,0,-0.0329877,0.101113,-0.0145391,-1.69162,0.0776595,0.156285,-0.0893422,0.10568,-0.0284073,0.0878991,-0.120986,0.633999,-0.812001,0.000795331,0,0,0,0,0,0,0,3.60584,-37.5414,3.26204,26.106,1.57714,2.19079,0.104477,
-0.02919,0.100249,-0.0109258,-1.69579,0.0964554,0.131288,-0.0894856,0.172579,-0.0347853,0.164039,-0.178289,0.821667,-1.09422,-0.00547513,1.03273,0.0690933,0.951195,-1.46726,4.00191,-5.53083,-0.339499,0,0,0,0,0,0,0,-0.0329877,0.101113,-0.0145391,-1.69162,0.0776595,0.156285,-0.0893422,0.10568,-0.0284073,0.0878991,-0.120986,0.633999,-0.812001,0.000795331,0,0,0,0,0,0,0,3.60584,-37.5414,3.26204,26.106,1.57714,2.19079,0.104477,
-0.0276521,0.0999983,-0.0094675,-1.69735,0.103628,0.12179,-0.0895486,0.17651,-0.0341,0.167688,-0.181685,0.836659,-1.11284,-0.00595567,2.45663,0.428269,2.28085,-2.12267,9.37032,-11.6405,-0.300337,0,0,0,0,0,0,0,-0.0288955,0.100727,-0.0111469,-1.69633,0.0992554,0.127636,-0.0893523,0.135628,-0.00354957,0.0997273,-0.135042,0.645443,-0.880793,-0.000525372,3.74351,3.10722,1.47852,-1.75709,1.43052,-8.59905,-0.165088,2.11017,-38.2158,2.28609,25.9076,1.87011,2.05804,0.124619,
-0.0263541,0.100394,-0.00873901,-1.69922,0.111564,0.111051,-0.0894658,0.174991,-0.0318209,0.16616,-0.182972,0.830311,-1.10684,-0.00629889,-0.948799,1.42445,-0.955338,-0.804159,-3.96737,3.7503,-0.214509,0,0,0,0,0,0,0,-0.0288955,0.100727,-0.0111469,-1.69633,0.0992554,0.127636,-0.0893523,0.135628,-0.00354957,0.0997273,-0.135042,0.645443,-0.880793,-0.000525372,0,0,0,0,0,0,0,2.11017,-38.2158,2.28609,25.9076,1.87011,2.05804,0.124619,
-0.0248855,0.100208,-0.00734855,-1.70079,0.118459,0.101836,-0.0895288,0.176709,-0.0300944,0.167689,-0.185614,0.836637,-1.11585,-0.00661205,1.07318,1.07908,0.956041,-1.65143,3.95323,-5.62856,-0.195726,0,0,0,0,0,0,0,-0.0288955,0.100727,-0.0111469,-1.69633,0.0992554,0.127636,-0.0893523,0.135628,-0.00354957,0.0997273,-0.135042,0.645443,-0.880793,-0.000525372,0,0,0,0,0,0,0,2.11017,-38.2158,2.28609,25.9076,1.87011,2.05804,0.124619,
-0.0233347,0.100028,-0.00588044,-1.70239,0.125717,0.0922221,-0.0895886,0.180136,-0.0285893,0.170854,-0.188677,0.850748,-1.13303,-0.0067863,2.14211,0.940695,1.9781,-1.91418,8.8196,-10.7399,-0.108904,0,0,0,0,0,0,0,-0.0288955,0.100727,-0.0111469,-1.69633,0.0992554,0.127636,-0.0893523,0.135628,-0.00354957,0.0997273,-0.135042,0.645443,-0.880793,-0.000525372,0,0,0,0,0,0,0,2.11017,-38.2158,2.28609,25.9076,1.87011,2.05804,0.124619,
-0.0217292,0.0998553,-0.00436038,-1.70402,0.133259,0.0823227,-0.0896424,0.184247,-0.0271852,0.174685,-0.191633,0.869151,-1.15391,-0.00677267,2.56952,0.877528,2.39412,-1.84729,11.502,-13.0489,0.00851855,0,0,0,0,0,0,0,-0.0247312,0.100429,-0.00634756,-1.70174,0.122371,0.0975407,-0.0893595,0.10443,-0.0166403,0.181974,-0.154236,0.656949,-0.900131,0.000235537,-3.8997,-1.63635,10.2809,-2.39923,1.43834,-2.41727,0.0951135,1.4278,-38.2158,1.26253,24.9594,1.8399,1.11687,0.0907442,
-0.0219815,0.100021,-0.00374433,-1.70468,0.135047,0.080709,-0.0894867,0.183272,-0.027,0.173618,-0.191157,0.860812,-1.14201,-0.00702255,-0.609317,0.115764,-0.66683,0.297073,-5.2121,7.43529,-0.156175,0,0,0,0,0,0,0,-0.0247312,0.100429,-0.00634756,-1.70174,0.122371,0.0975407,-0.0893595,0.10443,-0.0166403,0.181974,-0.154236,0.656949,-0.900131,0.000235537,0,0,0,0,0,0,0,1.4278,-38.2158,1.26253,24.9594,1.8399,1.11687,0.0907442,
-0.0204621,0.0998137,-0.00230886,-1.70624,0.142095,0.0714572,-0.0895473,0.184603,-0.0267847,0.174781,-0.192007,0.864854,-1.14491,-0.00713227,0.831563,0.13456,0.726881,-0.531203,2.52621,-1.8069,-0.0685799,0,0,0,0,0,0,0,-0.0247312,0.100429,-0.00634756,-1.70174,0.122371,0.0975407,-0.0893595,0.10443,-0.0166403,0.181974,-0.154236,0.656949,-0.900131,0.000235537,0,0,0,0,0,0,0,1.4278,-38.2158,1.26253,24.9594,1.8399,1.11687,0.0907442,
-0.0188844,0.0996143,-0.000817499,-1.70783,0.149471,0.0618492,-0.0896015,0.187126,-0.0264136,0.177109,-0.193383,0.876281,-1.15613,-0.0070602,1.57676,0.231976,1.4549,-0.859861,7.14192,-7.01256,0.0450461,0,0,0,0,0,0,0,-0.0247312,0.100429,-0.00634756,-1.70174,0.122371,0.0975407,-0.0893595,0.10443,-0.0166403,0.181974,-0.154236,0.656949,-0.900131,0.000235537,0,0,0,0,0,0,0,1.4278,-38.2158,1.26253,24.9594,1.8399,1.11687,0.0907442,
-0.0172696,0.0994247,0.000709674,-1.70944,0.157097,0.051987,-0.0896464,0.190071,-0.0258704,0.179866,-0.194774,0.891675,-1.17145,-0.0067719,1.84066,0.339477,1.72347,-0.869222,9.62151,-9.58001,0.18019,0,0,0,0,0,0,0,-0.0196144,0.100275,-0.00167638,-1.70766,0.146438,0.066946,-0.0894065,0.207628,0.00435953,0.0873054,-0.175301,0.715114,-0.910593,-0.00665077,12.8997,2.62499,-11.8336,-2.63312,7.27063,-1.30773,-0.860789,0.412174,-37.6405,0.663466,24.7372,1.96808,0.904471,0.138352,
-0.0167896,0.100122,0.000973618,-1.71076,0.159507,0.0499711,-0.0895299,0.188485,-0.0231448,0.178228,-0.195216,0.882692,-1.15752,-0.00693558,-0.990891,1.70348,-1.02379,-0.27638,-5.61423,8.71134,-0.1023,0,0,0,0,0,0,0,-0.0196144,0.100275,-0.00167638,-1.70766,0.146438,0.066946,-0.0894065,0.207628,0.00435953,0.0873054,-0.175301,0.715114,-0.910593,-0.00665077,0,0,0,0,0,0,0,0.412174,-37.6405,0.663466,24.7372,1.96808,0.904471,0.138352,
-0.0152645,0.100001,0.00241254,-1.71236,0.166649,0.0406908,-0.0895841,0.188915,-0.0215462,0.178556,-0.196224,0.884689,-1.15802,-0.00690472,0.268504,0.999141,0.204564,-0.629908,1.24786,-0.315692,0.0192838,0,0,0,0,0,0,0,-0.0196144,0.100275,-0.00167638,-1.70766,0.146438,0.066946,-0.0894065,0.207628,0.00435953,0.0873054,-0.175301,0.715114,-0.910593,-0.00665077,0,0,0,0,0,0,0,0.412174,-37.6405,0.663466,24.7372,1.96808,0.904471,0.138352,
-0.0136938,0.0998671,0.0038957,-1.71397,0.174072,0.0310816,-0.0896291,0.190401,-0.020578,0.179924,-0.197255,0.893332,-1.16665,-0.00664794,0.928606,0.605122,0.854999,-0.644289,5.40195,-5.39166,0.160491,0,0,0,0,0,0,0,-0.0196144,0.100275,-0.00167638,-1.70766,0.146438,0.066946,-0.0894065,0.207628,0.00435953,0.0873054,-0.175301,0.715114,-0.910593,-0.00665077,0,0,0,0,0,0,0,0.412174,-37.6405,0.663466,24.7372,1.96808,0.904471,0.138352,
-0.0111488,0.100054,0.00527655,-1.7169,0.185576,0.017162,-0.0895834,0.188231,-0.0196864,0.177792,-0.197318,0.888546,-1.15876,-0.00663204,-1.35602,0.557228,-1.33212,-0.0396072,-2.99116,4.93179,0.00993182,0,0,0,0,0,0,0,-0.0139308,0.100287,0.00265983,-1.71376,0.17202,0.0346793,-0.0894743,0.177253,-0.00817625,0.114983,-0.189908,0.774526,-0.970496,-0.00470106,-3.79687,-1.56697,3.4597,-1.8259,7.42645,-7.48785,0.243714,1.12232,-38.5887,1.61165,25.8322,1.71081,1.28899,0.131027,
-0.00964767,0.0999105,0.00669266,-1.71849,0.192817,0.00777892,-0.0896273,0.188114,-0.0193308,0.177637,-0.197643,0.891853,-1.16158,-0.00640294,-0.0732839,0.222273,-0.0973329,-0.203079,2.06695,-1.76557,0.143194,0,0,0,0,0,0,0,-0.0139308,0.100287,0.00265983,-1.71376,0.17202,0.0346793,-0.0894743,0.177253,-0.00817625,0.114983,-0.189908,0.774526,-0.970496,-0.00470106,0,0,0,0,0,0,0,1.12232,-38.5887,1.61165,25.8322,1.71081,1.28899,0.131027,
-0.00810463,0.0997577,0.00814848,-1.72008,0.200285,-0.0018597,-0.0896625,0.189067,-0.0192836,0.178505,-0.197929,0.900181,-1.17023,-0.00600147,0.595765,0.0294999,0.542639,-0.178553,5.20483,-5.4057,0.250913,0,0,0,0,0,0,0,-0.0139308,0.100287,0.00265983,-1.71376,0.17202,0.0346793,-0.0894743,0.177253,-0.00817625,0.114983,-0.189908,0.774526,-0.970496,-0.00470106,0,0,0,0,0,0,0,1.12232,-38.5887,1.61165,25.8322,1.71081,1.28899,0.131027,
-0.00653082,0.0995832,0.00963493,-1.72175,0.207935,-0.0111053,-0.0896876,0.190599,-0.0197893,0.179965,-0.199982,0.911405,-1.16732,-0.00542859,0.957531,-0.316045,0.912583,-1.28328,7.01468,1.81685,0.358055,0,0,0,0,0,0,0,-0.0139308,0.100287,0.00265983,-1.71376,0.17202,0.0346793,-0.0894743,0.177253,-0.00817625,0.114983,-0.189908,0.774526,-0.970496,-0.00470106,0,0,0,0,0,0,0,1.12232,-38.5887,1.61165,25.8322,1.71081,1.28899,0.131027,
-0.011196,0.100051,0.00522999,-1.71687,0.185638,0.017118,-0.0895679,0.187646,-0.0191104,0.177111,-0.198977,0.903877,-1.15993,-0.0054203,-1.84547,0.424291,-1.78368,0.628402,-4.70457,4.62231,0.00517841,0,0,0,0,0,0,0,-0.0139308,0.100287,0.00265983,-1.71376,0.17202,0.0346793,-0.0894743,0.177253,-0.00817625,0.114983,-0.189908,0.774526,-0.970496,-0.00470106,0,0,0,0,0,0,0,1.12232,-38.5887,1.61165,25.8322,1.71081,1.28899,0.131027,
-0.00973266,0.0999026,0.00660988,-1.71843,0.192913,0.00771012,-0.0896022,0.186701,-0.0189901,0.176186,-0.198379,0.904989,-1.16314,-0.00519436,-0.590588,0.0751713,-0.578062,0.373742,0.694849,-2.00675,0.141211,0,0,0,0,0,0,0,-0.00906353,0.100406,0.00849513,-1.72038,0.198198,0.000871593,-0.089545,0.0565544,0.0137723,0.260064,-0.190955,0.803065,-1.02708,-0.00120697,-15.0873,2.74357,18.1352,-0.130887,3.56739,-7.07285,0.436762,1.88404,-38.4657,1.93696,25.134,2.04681,0.865103,0.0907442,
-0.00822568,0.0997291,0.00803282,-1.72008,0.200416,-0.00138072,-0.0896265,0.187036,-0.0195299,0.176522,-0.199889,0.911555,-1.15778,-0.00476149,0.208947,-0.337366,0.21015,-0.943664,4.1036,3.34791,0.270548,0,0,0,0,0,0,0,-0.00906353,0.100406,0.00849513,-1.72038,0.198198,0.000871593,-0.089545,0.0565544,0.0137723,0.260064,-0.190955,0.803065,-1.02708,-0.00120697,0,0,0,0,0,0,0,1.88404,-38.4657,1.93696,25.134,2.04681,0.865103,0.0907442,
-0.00668722,0.0995432,0.00948658,-1.7218,0.208089,-0.00977313,-0.0896419,0.18809,-0.0202722,0.177562,-0.202796,0.921058,-1.13604,-0.00419502,0.659017,-0.463936,0.64969,-1.81738,5.93976,13.5914,0.354039,0,0,0,0,0,0,0,-0.00906353,0.100406,0.00849513,-1.72038,0.198198,0.000871593,-0.089545,0.0565544,0.0137723,0.260064,-0.190955,0.803065,-1.02708,-0.00120697,0,0,0,0,0,0,0,1.88404,-38.4657,1.93696,25.134,2.04681,0.865103,0.0907442,
-0.00628122,0.100369,0.0111348,-1.72357,0.212214,-0.0171071,-0.0896241,0.186208,-0.0173884,0.175701,-0.202242,0.91545,-1.1387,-0.00421368,-1.1761,1.80239,-1.16312,0.346374,-3.50552,-1.66656,-0.0116604,0,0,0,0,0,0,0,-0.00906353,0.100406,0.00849513,-1.72038,0.198198,0.000871593,-0.089545,0.0565544,0.0137723,0.260064,-0.190955,0.803065,-1.02708,-0.00120697,0,0,0,0,0,0,0,1.88404,-38.4657,1.93696,25.134,2.04681,0.865103,0.0907442,
-0.00480009,0.100269,0.0125313,-1.72524,0.219581,-0.0260227,-0.0896483,0.185995,-0.0164071,0.175474,-0.2036,0.916536,-1.13385,-0.00397555,-0.133394,0.613319,-0.141534,-0.848879,0.679165,3.03243,0.148831,0,0,0,0,0,0,0,-0.00406026,0.100772,0.0144753,-1.72696,0.225494,-0.0336009,-0.0895691,0.0606591,0.014371,0.263603,-0.19618,0.818935,-1.01895,0.000264027,0.513089,0.0748309,0.442337,-0.653027,1.9837,1.01545,0.183874,1.95942,-38.8625,1.66322,25.2332,2.02301,0.752493,0.0779268,
-0.00328105,0.100136,0.0139648,-1.72698,0.22712,-0.0342652,-0.0896638,0.186772,-0.016458,0.176217,-0.206191,0.921707,-1.11314,-0.00356693,0.485692,-0.0318455,0.464237,-1.61925,3.23144,12.9414,0.255389,0,0,0,0,0,0,0,-0.00406026,0.100772,0.0144753,-1.72696,0.225494,-0.0336009,-0.0895691,0.0606591,0.014371,0.263603,-0.19618,0.818935,-1.01895,0.000264027,0,0,0,0,0,0,0,1.95942,-38.8625,1.66322,25.2332,2.02301,0.752493,0.0779268,
-0.00173743,0.0999837,0.0154221,-1.72874,0.234789,-0.041632,-0.0896718,0.188008,-0.0169696,0.177404,-0.209105,0.929078,-1.07469,-0.00305461,0.772613,-0.319712,0.74173,-1.82093,4.60744,24.0371,0.320198,0,0,0,0,0,0,0,-0.00406026,0.100772,0.0144753,-1.72696,0.225494,-0.0336009,-0.0895691,0.0606591,0.014371,0.263603,-0.19618,0.818935,-1.01895,0.000264027,0,0,0,0,0,0,0,1.95942,-38.8625,1.66322,25.2332,2.02301,0.752493,0.0779268,
-0.00125372,0.100738,0.0171344,-1.73021,0.239627,-0.0508716,-0.0896294,0.186374,-0.0149735,0.175775,-0.208844,0.922915,-1.07345,-0.00305301,-1.02158,1.24753,-1.01793,0.162636,-3.85239,0.77078,0.00100005,0,0,0,0,0,0,0,-0.00406026,0.100772,0.0144753,-1.72696,0.225494,-0.0336009,-0.0895691,0.0606591,0.014371,0.263603,-0.19618,0.818935,-1.01895,0.000264027,0,0,0,0,0,0,0,1.95942,-38.8625,1.66322,25.2332,2.02301,0.752493,0.0779268,
0.000231288,0.100631,0.0185335,-1.73193,0.246999,-0.0588211,-0.089645,0.186224,-0.0146455,0.175596,-0.210114,0.922644,-1.0575,-0.00283041,-0.0933976,0.205034,-0.11173,-0.793741,-0.169085,9.97148,0.139124,0,0,0,0,0,0,0,0.00149693,0.10073,0.020444,-1.73398,0.2517,-0.0657967,-0.0895856,0.061395,-0.01224,0.284954,-0.218024,0.792997,-0.91703,-0.00081365,0.09198,-3.32637,2.66882,-2.73051,-3.24219,12.7406,-0.13471,0.106693,-37.0415,0.0128308,25.2332,2.12005,0.82482,0.050461,
0.00174799,0.100493,0.0199631,-1.73369,0.254514,-0.0659465,-0.0896531,0.186897,-0.0151723,0.176219,-0.21194,0.925999,-1.02413,-0.00246697,0.420441,-0.32923,0.388842,-1.14092,2.09688,20.852,0.227155,0,0,0,0,0,0,0,0.00149693,0.10073,0.020444,-1.73398,0.2517,-0.0657967,-0.0895856,0.061395,-0.01224,0.284954,-0.218024,0.792997,-0.91703,-0.00081365,0,0,0,0,0,0,0,0.106693,-37.0415,0.0128308,25.2332,2.12005,0.82482,0.050461,
0.00439691,0.100504,0.0231855,-1.73728,0.265626,-0.0808227,-0.0896304,0.186369,-0.01546,0.175576,-0.211245,0.91845,-1.00271,-0.00239777,-0.330075,-0.179861,-0.401357,0.43432,-4.71817,13.3891,0.0432448,0,0,0,0,0,0,0,0.00149693,0.10073,0.020444,-1.73398,0.2517,-0.0657967,-0.0895856,0.061395,-0.01224,0.284954,-0.218024,0.792997,-0.91703,-0.00081365,0,0,0,0,0,0,0,0.106693,-37.0415,0.0128308,25.2332,2.12005,0.82482,0.050461,
0.00589925,0.100339,0.024598,-1.73899,0.27294,-0.0874849,-0.0896395,0.186653,-0.0165127,0.175774,-0.211555,0.917619,-0.968724,-0.00214536,0.177878,-0.657916,0.123746,-0.193793,-0.519309,21.2424,0.157758,0,0,0,0,0,0,0,0.00149693,0.10073,0.020444,-1.73398,0.2517,-0.0657967,-0.0895856,0.061395,-0.01224,0.284954,-0.218024,0.792997,-0.91703,-0.00081365,0,0,0,0,0,0,0,0.106693,-37.0415,0.0128308,25.2332,2.12005,0.82482,0.050461,
0.00741952,0.100151,0.0260286,-1.7407,0.280405,-0.0933149,-0.0896413,0.187329,-0.0179129,0.176384,-0.212192,0.920708,-0.920729,-0.00176206,0.422611,-0.875146,0.381049,-0.398266,1.93035,29.9969,0.239565,0,0,0,0,0,0,0,0.00731464,0.101032,0.0265054,-1.74082,0.278152,-0.0964591,-0.0895938,0.0682844,0.0248542,0.28569,-0.20214,0.772247,-0.860468,0.000369231,0.861172,4.63678,0.0920884,1.98552,-2.59384,7.07032,0.14786,1.37622,-38.9894,1.16334,26.6058,2.34069,0.37438,0.0843355,
0.00894761,0.0999477,0.0274671,-1.74242,0.287977,-0.0982525,-0.0896366,0.188066,-0.0194021,0.177069,-0.212608,0.925863,-0.860025,-0.00129085,0.460245,-0.930722,0.427789,-0.259966,3.22201,37.94,0.294503,0,0,0,0,0,0,0,0.00731464,0.101032,0.0265054,-1.74082,0.278152,-0.0964591,-0.0895938,0.0682844,0.0248542,0.28569,-0.20214,0.772247,-0.860468,0.000369231,0,0,0,0,0,0,0,1.37622,-38.9894,1.16334,26.6058,2.34069,0.37438,0.0843355,
0.0102356,0.101064,0.0292599,-1.74425,0.291856,-0.109427,-0.0896246,0.187407,-0.0162356,0.176276,-0.213366,0.91565,-0.843626,-0.00128346,-0.411684,1.97904,-0.495134,-0.473478,-6.38289,10.2492,0.0046219,0,0,0,0,0,0,0,0.00731464,0.101032,0.0265054,-1.74082,0.278152,-0.0964591,-0.0895938,0.0682844,0.0248542,0.28569,-0.20214,0.772247,-0.860468,0.000369231,0,0,0,0,0,0,0,1.37622,-38.9894,1.16334,26.6058,2.34069,0.37438,0.0843355,
0.0117321,0.100974,0.030664,-1.74599,0.299061,-0.114928,-0.0896269,0.187338,-0.0152329,0.176122,-0.214201,0.912652,-0.812417,-0.0010826,-0.043115,0.626729,-0.0963861,-0.522107,-1.87416,19.5056,0.125534,0,0,0,0,0,0,0,0.00731464,0.101032,0.0265054,-1.74082,0.278152,-0.0964591,-0.0895938,0.0682844,0.0248542,0.28569,-0.20214,0.772247,-0.860468,0.000369231,0,0,0,0,0,0,0,1.37622,-38.9894,1.16334,26.6058,2.34069,0.37438,0.0843355,
0.0132384,0.100841,0.0320785,-1.74772,0.306415,-0.11961,-0.0896223,0.187529,-0.0155093,0.17626,-0.214605,0.913963,-0.766981,-0.000752176,0.119281,-0.172793,0.0861812,-0.252202,0.819809,28.3977,0.206516,0,0,0,0,0,0,0,0.0133033,0.101154,0.0319584,-1.74811,0.304823,-0.125243,-0.0895953,0.0673731,-0.00868184,0.268983,-0.224515,0.780855,-0.809409,0.000137844,-0.113905,-4.19201,-2.08839,-2.79688,1.07602,6.38235,-0.0289234,0.919986,-38.2634,0.86183,27.0541,2.56591,0.752493,0.0843355,
0.0147461,0.100677,0.0334949,-1.74943,0.313876,-0.123444,-0.0896112,0.187716,-0.0165134,0.176419,-0.214325,0.917682,-0.709434,-0.00032275,0.116906,-0.627528,0.099086,0.174667,2.32415,35.9671,0.268392,0,0,0,0,0,0,0,0.0133033,0.101154,0.0319584,-1.74811,0.304823,-0.125243,-0.0895953,0.0673731,-0.00868184,0.268983,-0.224515,0.780855,-0.809409,0.000137844,0,0,0,0,0,0,0,0.919986,-38.2634,0.86183,27.0541,2.56591,0.752493,0.0843355,
0.0161313,0.100925,0.0346251,-1.75156,0.318445,-0.136681,-0.0896061,0.186074,-0.0165956,0.174765,-0.214476,0.907654,-0.701643,-0.000280455,-1.02615,-0.051418,-1.03351,-0.094151,-6.26728,4.8693,0.0264346,0,0,0,0,0,0,0,0.0133033,0.101154,0.0319584,-1.74811,0.304823,-0.125243,-0.0895953,0.0673731,-0.00868184,0.268983,-0.224515,0.780855,-0.809409,0.000137844,0,0,0,0,0,0,0,0.919986,-38.2634,0.86183,27.0541,2.56591,0.752493,0.0843355,
0.0175899,0.100755,0.0359927,-1.75327,0.325576,-0.141227,-0.0896005,0.185325,-0.017518,0.174003,-0.214267,0.904405,-0.674966,-8.61696e-05,-0.468527,-0.576468,-0.476492,0.130607,-2.0309,16.6728,0.121428,0,0,0,0,0,0,0,0.0133033,0.101154,0.0319584,-1.74811,0.304823,-0.125243,-0.0895953,0.0673731,-0.00868184,0.268983,-0.224515,0.780855,-0.809409,0.000137844,0,0,0,0,0,0,0,0.919986,-38.2634,0.86183,27.0541,2.56591,0.752493,0.0843355,
0.01906,0.100559,0.0373719,-1.75495,0.332847,-0.144925,-0.0895887,0.185011,-0.0189118,0.173682,-0.213512,0.905309,-0.632439,0.000226874,-0.196124,-0.871105,-0.200425,0.471827,0.56481,26.5796,0.195652,0,0,0,0,0,0,0,0.0195083,0.101431,0.0374058,-1.7554,0.331809,-0.149499,-0.0895967,0.0863381,0.0166388,0.260934,-0.217349,0.757672,-0.65245,0.000612684,2.37062,3.16509,-1.00621,0.895672,-2.89783,19.6199,0.059355,0.741459,-37.9659,0.536512,25.6061,2.64557,0.613333,0.0779268,
0.0223704,0.101396,0.0400936,-1.75887,0.345168,-0.158364,-0.0895961,0.184091,-0.0165597,0.172647,-0.213988,0.894728,-0.608563,0.000301588,-0.574937,1.47002,-0.646823,-0.297491,-6.61264,14.9225,0.046696,0,0,0,0,0,0,0,0.0195083,0.101431,0.0374058,-1.7554,0.331809,-0.149499,-0.0895967,0.0863381,0.0166388,0.260934,-0.217349,0.757672,-0.65245,0.000612684,0,0,0,0,0,0,0,0.741459,-37.9659,0.536512,25.6061,2.64557,0.613333,0.0779268,
0.023823,0.101281,0.0414521,-1.76057,0.352187,-0.161732,-0.0895845,0.183589,-0.0161326,0.172082,-0.213655,0.891266,-0.571063,0.000530457,-0.313867,0.266968,-0.353041,0.207842,-2.16426,23.4374,0.143043,0,0,0,0,0,0,0,0.0195083,0.101431,0.0374058,-1.7554,0.331809,-0.149499,-0.0895967,0.0863381,0.0166388,0.260934,-0.217349,0.757672,-0.65245,0.000612684,0,0,0,0,0,0,0,0.741459,-37.9659,0.536512,25.6061,2.64557,0.613333,0.0779268,
0.0252775,0.101122,0.0428136,-1.76223,0.359351,-0.164348,-0.0895668,0.183233,-0.0168663,0.171701,-0.21245,0.892115,-0.522252,0.000867219,-0.222109,-0.458602,-0.238147,0.753309,0.530671,30.5069,0.210476,0,0,0,0,0,0,0,0.0195083,0.101431,0.0374058,-1.7554,0.331809,-0.149499,-0.0895967,0.0863381,0.0166388,0.260934,-0.217349,0.757672,-0.65245,0.000612684,0,0,0,0,0,0,0,0.741459,-37.9659,0.536512,25.6061,2.64557,0.613333,0.0779268,
0.0267267,0.100932,0.0441706,-1.76385,0.36662,-0.166231,-0.089543,0.182817,-0.0182546,0.171288,-0.210422,0.895418,-0.464862,0.00128886,-0.26032,-0.867639,-0.258485,1.2677,2.06486,35.8691,0.263528,0,0,0,0,0,0,0,0.0252952,0.101398,0.0431702,-1.76297,0.358495,-0.169208,-0.0895939,0.10873,-0.0075341,0.257006,-0.217563,0.756664,-0.545335,0.000768455,2.79896,-3.02162,-0.490909,-0.0267793,-0.126011,13.3893,0.0194714,0.868412,-36.7162,0.611891,25.5585,2.84149,0.161978,0.0843355,
0.028249,0.101129,0.0459384,-1.76634,0.371855,-0.176217,-0.0895808,0.18321,-0.0185434,0.171512,-0.210081,0.886917,-0.45105,0.00130138,0.245467,-0.180535,0.140252,0.212891,-5.31338,8.63199,0.00782202,0,0,0,0,0,0,0,0.0252952,0.101398,0.0431702,-1.76297,0.358495,-0.169208,-0.0895939,0.10873,-0.0075341,0.257006,-0.217563,0.756664,-0.545335,0.000768455,0,0,0,0,0,0,0,0.868412,-36.7162,0.611891,25.5585,2.84149,0.161978,0.0843355,
0.0297204,0.100935,0.047313,-1.76797,0.378876,-0.178668,-0.0895636,0.183352,-0.0196736,0.171574,-0.208948,0.885054,-0.422105,0.00147101,0.0889012,-0.70639,0.0388009,0.708367,-1.16423,18.0907,0.106018,0,0,0,0,0,0,0,0.0252952,0.101398,0.0431702,-1.76297,0.358495,-0.169208,-0.0895939,0.10873,-0.0075341,0.257006,-0.217563,0.756664,-0.545335,0.000768455,0,0,0,0,0,0,0,0.868412,-36.7162,0.611891,25.5585,2.84149,0.161978,0.0843355,
0.031181,0.100715,0.0486786,-1.76957,0.386034,-0.180409,-0.0895402,0.183197,-0.0212596,0.171399,-0.207057,0.88699,-0.381219,0.00176172,-0.0969685,-0.991216,-0.109079,1.18187,1.20979,25.5543,0.181697,0,0,0,0,0,0,0,0.0252952,0.101398,0.0431702,-1.76297,0.358495,-0.169208,-0.0895939,0.10873,-0.0075341,0.257006,-0.217563,0.756664,-0.545335,0.000768455,0,0,0,0,0,0,0,0.868412,-36.7162,0.611891,25.5585,2.84149,0.161978,0.0843355,
0.0326265,0.100474,0.0500306,-1.77112,0.393287,-0.181478,-0.0895109,0.182695,-0.0230321,0.170919,-0.204474,0.890913,-0.331693,0.0021419,-0.313632,-1.10784,-0.300092,1.61397,2.45172,30.9536,0.237612,0,0,0,0,0,0,0,0.0252952,0.101398,0.0431702,-1.76297,0.358495,-0.169208,-0.0895939,0.10873,-0.0075341,0.257006,-0.217563,0.756664,-0.545335,0.000768455,0,0,0,0,0,0,0,0.868412,-36.7162,0.611891,25.5585,2.84149,0.161978,0.0843355,
0.0341557,0.101461,0.0520608,-1.77383,0.398685,-0.19008,-0.0895754,0.183039,-0.0199473,0.171094,-0.205609,0.884464,-0.318728,0.00212785,0.21483,1.92804,0.108918,-0.708882,-4.03061,8.10298,-0.00878517,0,0,0,0,0,0,0,0.0312007,0.101503,0.0492938,-1.77041,0.385149,-0.18523,-0.0895995,0.10295,0.0129806,0.26606,-0.230638,0.789647,-0.390152,-0.000733242,-0.722496,2.56434,1.13175,-1.63437,4.12294,19.3979,-0.187712,-0.0956386,-37.8905,-0.260912,27.0779,3.07953,0.725943,0.124619,
0.0356169,0.101338,0.0534234,-1.77546,0.4057,-0.191591,-0.0895523,0.182961,-0.0190327,0.17094,-0.205209,0.882954,-0.292748,0.00227932,-0.0484438,0.571606,-0.0961533,0.249621,-0.943451,16.2372,0.0946683,0,0,0,0,0,0,0,0.0312007,0.101503,0.0492938,-1.77041,0.385149,-0.18523,-0.0895995,0.10295,0.0129806,0.26606,-0.230638,0.789647,-0.390152,-0.000733242,0,0,0,0,0,0,0,-0.0956386,-37.8905,-0.260912,27.0779,3.07953,0.725943,0.124619,
0.0370612,0.101168,0.054771,-1.77704,0.41282,-0.192484,-0.0895231,0.182475,-0.0194667,0.170443,-0.203599,0.884363,-0.256534,0.00255181,-0.303909,-0.271269,-0.310653,1.00607,0.880816,22.6339,0.170311,0,0,0,0,0,0,0,0.0312007,0.101503,0.0492938,-1.77041,0.385149,-0.18523,-0.0895995,0.10295,0.0129806,0.26606,-0.230638,0.789647,-0.390152,-0.000733242,0,0,0,0,0,0,0,-0.0956386,-37.8905,-0.260912,27.0779,3.07953,0.725943,0.124619,
0.0341424,0.101458,0.0520512,-1.77386,0.398704,-0.189458,-0.089561,0.182644,-0.0170539,0.170534,-0.205143,0.879476,-0.249281,0.00263564,0.105852,1.50799,0.0573645,-0.964494,-3.05466,4.53344,0.0523944,0,0,0,0,0,0,0,0.0312007,0.101503,0.0492938,-1.77041,0.385149,-0.18523,-0.0895995,0.10295,0.0129806,0.26606,-0.230638,0.789647,-0.390152,-0.000733242,0,0,0,0,0,0,0,-0.0956386,-37.8905,-0.260912,27.0779,3.07953,0.725943,0.124619,
0.0355903,0.101342,0.0534018,-1.77549,0.405729,-0.190543,-0.0895313,0.182311,-0.0165392,0.170193,-0.204769,0.879201,-0.226551,0.00285242,-0.208207,0.32173,-0.213326,0.233702,-0.17164,14.206,0.135484,0,0,0,0,0,0,0,0.036833,0.101591,0.0555029,-1.77776,0.412004,-0.196287,-0.089599,0.00756404,0.00192314,0.344389,-0.211216,0.766127,-0.244162,-0.000381707,-11.9232,-1.38218,9.79113,2.42781,-2.94008,18.2488,0.0439419,0.487552,-37.7675,0.687269,26.2051,3.31756,0.466849,0.131027,
0.0370167,0.101183,0.054733,-1.77705,0.412858,-0.190997,-0.0894956,0.181509,-0.0172104,0.169436,-0.202958,0.881586,-0.19257,0.00317269,-0.501504,-0.419527,-0.473518,1.1318,1.49034,21.2385,0.20017,0,0,0,0,0,0,0,0.036833,0.101591,0.0555029,-1.77776,0.412004,-0.196287,-0.089599,0.00756404,0.00192314,0.344389,-0.211216,0.766127,-0.244162,-0.000381707,0,0,0,0,0,0,0,0.487552,-37.7675,0.687269,26.2051,3.31756,0.466849,0.131027,
0.0384189,0.100991,0.0560419,-1.77856,0.420061,-0.190874,-0.0894541,0.180262,-0.0185621,0.168272,-0.20009,0.885352,-0.150996,0.00357673,-0.779061,-0.84478,-0.727445,1.79261,2.35357,25.9833,0.252525,0,0,0,0,0,0,0,0.036833,0.101591,0.0555029,-1.77776,0.412004,-0.196287,-0.089599,0.00756404,0.00192314,0.344389,-0.211216,0.766127,-0.244162,-0.000381707,0,0,0,0,0,0,0,0.487552,-37.7675,0.687269,26.2051,3.31756,0.466849,0.131027,
0.0396019,0.101387,0.058111,-1.78101,0.42535,-0.19849,-0.0895493,0.178936,-0.0181222,0.166931,-0.199979,0.877702,-0.140822,0.00362283,-0.828891,0.274916,-0.838023,0.069172,-4.78085,6.35925,0.0288102,0,0,0,0,0,0,0,0.036833,0.101591,0.0555029,-1.77776,0.412004,-0.196287,-0.089599,0.00756404,0.00192314,0.344389,-0.211216,0.766127,-0.244162,-0.000381707,0,0,0,0,0,0,0,0.487552,-37.7675,0.687269,26.2051,3.31756,0.466849,0.131027,
0.04098,0.101214,0.059394,-1.78255,0.432275,-0.198716,-0.0895128,0.1776,-0.0188414,0.165621,-0.198539,0.875274,-0.118319,0.00380995,-0.834849,-0.449489,-0.818751,0.900003,-1.51744,14.064,0.11695,0,0,0,0,0,0,0,0.0436893,0.101647,0.0602162,-1.78473,0.438774,-0.202684,-0.0895961,0.0221834,0.00380051,0.316996,-0.199833,0.733721,-0.146221,-0.00028293,1.82742,0.234671,-3.42417,1.42284,-4.05076,12.2426,0.0123471,-0.325741,-36.8669,0.43733,25.5069,2.84698,-0.0632418,0.104477,
0.0423427,0.101008,0.0606634,-1.78404,0.439306,-0.19841,-0.0894705,0.176148,-0.0202089,0.164231,-0.196077,0.875999,-0.0869963,0.00410426,-0.90768,-0.854731,-0.868676,1.53903,0.453047,19.5768,0.183949,0,0,0,0,0,0,0,0.0436893,0.101647,0.0602162,-1.78473,0.438774,-0.202684,-0.0895961,0.0221834,0.00380051,0.316996,-0.199833,0.733721,-0.146221,-0.00028293,0,0,0,0,0,0,0,-0.325741,-36.8669,0.43733,25.5069,2.84698,-0.0632418,0.104477,
0.043686,0.10078,0.061915,-1.78548,0.446414,-0.197617,-0.0894218,0.174501,-0.0218838,0.162676,-0.192878,0.878509,-0.0497686,0.0045016,-1.02918,-1.04678,-0.971882,1.99938,1.56874,23.2673,0.248336,0,0,0,0,0,0,0,0.0436893,0.101647,0.0602162,-1.78473,0.438774,-0.202684,-0.0895961,0.0221834,0.00380051,0.316996,-0.199833,0.733721,-0.146221,-0.00028293,0,0,0,0,0,0,0,-0.325741,-36.8669,0.43733,25.5069,2.84698,-0.0632418,0.104477,
0.0463681,0.101438,0.0627298,-1.78789,0.451736,-0.203404,-0.0895325,0.173172,-0.0208701,0.161301,-0.193161,0.867904,-0.0420118,0.0045326,-0.831016,0.633542,-0.859452,-0.177267,-6.62805,4.848,0.0193741,0,0,0,0,0,0,0,0.0436893,0.101647,0.0602162,-1.78473,0.438774,-0.202684,-0.0895961,0.0221834,0.00380051,0.316996,-0.199833,0.733721,-0.146221,-0.00028293,0,0,0,0,0,0,0,-0.325741,-36.8669,0.43733,25.5069,2.84698,-0.0632418,0.104477,
0.0477003,0.101262,0.0639673,-1.78939,0.458512,-0.202985,-0.0894893,0.171842,-0.0210956,0.159979,-0.192061,0.863746,-0.0231389,0.00470584,-0.830885,-0.140932,-0.82639,0.687663,-2.59891,11.7955,0.108273,0,0,0,0,0,0,0,0.0499541,0.101544,0.0656051,-1.79171,0.464665,-0.205288,-0.0895953,0.0870623,-0.0094301,0.217156,-0.193457,0.732424,-0.0400398,0.000827069,8.10987,-1.65383,-12.48,0.79702,-0.162079,13.2727,0.13875,-0.325741,-35.6688,0.611891,24.9832,3.07953,-0.308603,0.0980684,
0.0490178,0.101056,0.065192,-1.79084,0.465414,-0.202099,-0.0894398,0.17041,-0.0220344,0.158599,-0.189893,0.86354,0.00364826,0.005003,-0.895196,-0.586751,-0.862184,1.3547,-0.128856,16.742,0.185724,0,0,0,0,0,0,0,0.0499541,0.101544,0.0656051,-1.79171,0.464665,-0.205288,-0.0895953,0.0870623,-0.0094301,0.217156,-0.193457,0.732424,-0.0400398,0.000827069,0,0,0,0,0,0,0,-0.325741,-35.6688,0.611891,24.9832,3.07953,-0.308603,0.0980684,
0.0503159,0.100828,0.0663992,-1.79224,0.472407,-0.200792,-0.0893846,0.168781,-0.0233305,0.157061,-0.18695,0.865651,0.0356018,0.00538104,-1.01827,-0.810029,-0.961149,1.83974,1.31946,19.971,0.236281,0,0,0,0,0,0,0,0.0499541,0.101544,0.0656051,-1.79171,0.464665,-0.205288,-0.0895953,0.0870623,-0.0094301,0.217156,-0.193457,0.732424,-0.0400398,0.000827069,0,0,0,0,0,0,0,-0.325741,-35.6688,0.611891,24.9832,3.07953,-0.308603,0.0980684,
0.0524604,0.101217,0.0679375,-1.79473,0.477431,-0.204525,-0.0895143,0.166509,-0.0232674,0.154806,-0.18668,0.855135,0.043789,0.0054211,-1.41994,0.0394339,-1.40962,0.168795,-6.57267,5.11699,0.0250348,0,0,0,0,0,0,0,0.0499541,0.101544,0.0656051,-1.79171,0.464665,-0.205288,-0.0895953,0.0870623,-0.0094301,0.217156,-0.193457,0.732424,-0.0400398,0.000827069,0,0,0,0,0,0,0,-0.325741,-35.6688,0.611891,24.9832,3.07953,-0.308603,0.0980684,
0.053719,0.101004,0.0691043,-1.79616,0.484111,-0.203481,-0.0894634,0.164671,-0.0239368,0.153014,-0.185287,0.851104,0.0611239,0.00560805,-1.14832,-0.418414,-1.11976,0.870409,-2.51913,10.8343,0.116841,0,0,0,0,0,0,0,0.0575766,0.101638,0.069485,-1.79818,0.489766,-0.205392,-0.0895932,0.283639,0.00290478,0.0322525,-0.183103,0.72289,0.0100414,0.000400401,24.572,1.54186,-23.1129,1.29425,-1.19178,6.26014,-0.0533336,-0.781979,-36.9185,0.163588,24.9118,3.2077,-0.421213,0.110886,
0.0549697,0.10077,0.0702648,-1.79756,0.49092,-0.202045,-0.0894072,0.163005,-0.0249869,0.151424,-0.183033,0.851105,0.0848115,0.00589199,-1.04164,-0.656255,-0.994098,1.40871,0.000387591,14.8048,0.177467,0,0,0,0,0,0,0,0.0575766,0.101638,0.069485,-1.79818,0.489766,-0.205392,-0.0895932,0.283639,0.00290478,0.0322525,-0.183103,0.72289,0.0100414,0.000400401,0,0,0,0,0,0,0,-0.781979,-36.9185,0.163588,24.9118,3.2077,-0.421213,0.110886,
0.060221,0.101412,0.0719029,-1.80117,0.502308,-0.203697,-0.0894973,0.163038,-0.0235264,0.151289,-0.183358,0.841217,0.0943337,0.00597793,0.0208899,0.912806,-0.0843385,-0.203254,-6.17987,5.95139,0.0537125,0,0,0,0,0,0,0,0.0575766,0.101638,0.069485,-1.79818,0.489766,-0.205392,-0.0895932,0.283639,0.00290478,0.0322525,-0.183103,0.72289,0.0100414,0.000400401,0,0,0,0,0,0,0,-0.781979,-36.9185,0.163588,24.9118,3.2077,-0.421213,0.110886,
0.0615043,0.101233,0.0730905,-1.8026,0.508919,-0.202255,-0.0894412,0.162514,-0.0232874,0.150723,-0.182366,0.838247,0.111528,0.00618608,-0.327551,0.149323,-0.35349,0.620429,-1.8562,10.7462,0.130093,0,0,0,0,0,0,0,0.0575766,0.101638,0.069485,-1.79818,0.489766,-0.205392,-0.0895932,0.283639,0.00290478,0.0322525,-0.183103,0.72289,0.0100414,0.000400401,0,0,0,0,0,0,0,-0.781979,-36.9185,0.163588,24.9118,3.2077,-0.421213,0.110886,
0.0627628,0.101028,0.0742583,-1.80397,0.51567,-0.200465,-0.0893805,0.161473,-0.0237516,0.149771,-0.18034,0.839384,0.133962,0.00646534,-0.650535,-0.290099,-0.5949,1.26592,0.710705,14.0214,0.174539,0,0,0,0,0,0,0,0.0620855,0.10174,0.0763962,-1.80425,0.514393,-0.204241,-0.0895897,0.336419,-0.000447919,-0.0371546,-0.165766,0.712723,0.0452186,0.00230571,6.59757,-0.419088,-8.67589,2.16712,-1.27082,4.39716,0.238163,-2.45221,-37.2676,-1.83592,24.7849,3.36609,-0.12916,0.0907442,
0.0639929,0.100805,0.0754031,-1.80531,0.522523,-0.198367,-0.0893171,0.15993,-0.024575,0.148438,-0.17758,0.842831,0.159612,0.00675852,-0.964474,-0.514644,-0.833553,1.72542,2.1542,16.0313,0.183236,0,0,0,0,0,0,0,0.0620855,0.10174,0.0763962,-1.80425,0.514393,-0.204241,-0.0895897,0.336419,-0.000447919,-0.0371546,-0.165766,0.712723,0.0452186,0.00230571,0,0,0,0,0,0,0,-2.45221,-37.2676,-1.83592,24.7849,3.36609,-0.12916,0.0907442,
0.0646479,0.101445,0.0787221,-1.80713,0.526769,-0.201779,-0.0894784,0.159507,-0.0239755,0.147852,-0.1778,0.832696,0.163732,0.00683554,-0.26468,0.374706,-0.365962,-0.137696,-6.33426,2.57517,0.0481371,0,0,0,0,0,0,0,0.0620855,0.10174,0.0763962,-1.80425,0.514393,-0.204241,-0.0895897,0.336419,-0.000447919,-0.0371546,-0.165766,0.712723,0.0452186,0.00230571,0,0,0,0,0,0,0,-2.45221,-37.2676,-1.83592,24.7849,3.36609,-0.12916,0.0907442,
0.0658881,0.101244,0.0798696,-1.80852,0.533311,-0.199978,-0.0894169,0.158612,-0.0241958,0.146969,-0.176873,0.829708,0.176008,0.00700659,-0.559349,-0.137669,-0.551905,0.579323,-1.86774,7.6722,0.106906,0,0,0,0,0,0,0,0.0620855,0.10174,0.0763962,-1.80425,0.514393,-0.204241,-0.0895897,0.336419,-0.000447919,-0.0371546,-0.165766,0.712723,0.0452186,0.00230571,0,0,0,0,0,0,0,-2.45221,-37.2676,-1.83592,24.7849,3.36609,-0.12916,0.0907442,
0.0671029,0.101025,0.0809973,-1.80985,0.539998,-0.197864,-0.0893527,0.157259,-0.0248314,0.145769,-0.174986,0.830947,0.193664,0.00720986,-0.845435,-0.397283,-0.750262,1.17948,0.774706,11.035,0.127044,0,0,0,0,0,0,0,0.0620855,0.10174,0.0763962,-1.80425,0.514393,-0.204241,-0.0895897,0.336419,-0.000447919,-0.0371546,-0.165766,0.712723,0.0452186,0.00230571,0,0,0,0,0,0,0,-2.45221,-37.2676,-1.83592,24.7849,3.36609,-0.12916,0.0907442,
0.0682918,0.100795,0.0820984,-1.81115,0.54679,-0.195479,-0.0892889,0.15553,-0.0256227,0.144141,-0.172386,0.834554,0.214553,0.00736371,-1.08066,-0.494547,-1.0175,1.62494,2.25436,13.056,0.0961585,0,0,0,0,0,0,0,0.0670293,0.10162,0.0819893,-1.81036,0.539098,-0.201183,-0.0895928,0.290742,-0.00740749,-0.001703,-0.178472,0.730287,0.109599,0.00111396,-5.70964,-0.869946,4.43145,-1.5883,2.19545,8.04761,-0.148968,-1.69445,-35.7442,-1.28844,24.5865,3.67187,0.20867,0.11821,
0.0694999,0.101318,0.0842382,-1.81321,0.551557,-0.197972,-0.0894704,0.154927,-0.0247544,0.143454,-0.173058,0.82649,0.216506,0.00745517,-0.376966,0.542697,-0.428992,-0.419778,-5.04008,1.22047,0.0571589,0,0,0,0,0,0,0,0.0670293,0.10162,0.0819893,-1.81036,0.539098,-0.201183,-0.0895928,0.290742,-0.00740749,-0.001703,-0.178472,0.730287,0.109599,0.00111396,0,0,0,0,0,0,0,-1.69445,-35.7442,-1.28844,24.5865,3.67187,0.20867,0.11821,
0.0706985,0.101123,0.0853484,-1.81457,0.558088,-0.195855,-0.0894054,0.153906,-0.0246856,0.142518,-0.172379,0.82448,0.226123,0.00758914,-0.637908,0.0429745,-0.585357,0.42431,-1.25602,6.01049,0.0837316,0,0,0,0,0,0,0,0.0670293,0.10162,0.0819893,-1.81036,0.539098,-0.201183,-0.0895928,0.290742,-0.00740749,-0.001703,-0.178472,0.730287,0.109599,0.00111396,0,0,0,0,0,0,0,-1.69445,-35.7442,-1.28844,24.5865,3.67187,0.20867,0.11821,
0.0718746,0.100912,0.0864352,-1.81588,0.564749,-0.193463,-0.0893409,0.152526,-0.0250388,0.141184,-0.170662,0.826099,0.240712,0.00768393,-0.862368,-0.220699,-0.833621,1.07281,1.01138,9.11808,0.0592463,0,0,0,0,0,0,0,0.0670293,0.10162,0.0819893,-1.81036,0.539098,-0.201183,-0.0895928,0.290742,-0.00740749,-0.001703,-0.178472,0.730287,0.109599,0.00111396,0,0,0,0,0,0,0,-1.69445,-35.7442,-1.28844,24.5865,3.67187,0.20867,0.11821,
0.0726747,0.101196,0.0914698,-1.81913,0.576345,-0.192547,-0.0894754,0.152051,-0.0238311,0.140682,-0.171001,0.819828,0.245021,0.00777551,-0.297368,0.754807,-0.313686,-0.211999,-3.91902,2.69347,0.0572343,0,0,0,0,0,0,0,0.0702488,0.10145,0.0892317,-1.81635,0.563863,-0.196393,-0.0895997,0.146834,0.0023348,0.153704,-0.164797,0.717971,0.156242,-0.000280726,-17.9885,1.21779,19.4259,1.70946,-1.53944,5.83034,-0.174336,0.25745,-35.8672,-0.0625476,25.0348,4.11773,0.268179,0.171311,
0.073852,0.101016,0.0925548,-1.82046,0.582865,-0.190165,-0.0894105,0.151071,-0.0235647,0.13967,-0.170113,0.81887,0.25558,0.00784399,-0.612013,0.166458,-0.632441,0.555418,-0.59913,6.59934,0.0428007,0,0,0,0,0,0,0,0.0702488,0.10145,0.0892317,-1.81635,0.563863,-0.196393,-0.0895997,0.146834,0.0023348,0.153704,-0.164797,0.717971,0.156242,-0.000280726,0,0,0,0,0,0,0,0.25745,-35.8672,-0.0625476,25.0348,4.11773,0.268179,0.171311,
0.0750053,0.10082,0.09361,-1.82175,0.589502,-0.187545,-0.0893469,0.149689,-0.0237521,0.138118,-0.168187,0.82101,0.269954,0.00786425,-0.863789,-0.117127,-0.970261,1.20335,1.33778,8.98376,0.0126659,0,0,0,0,0,0,0,0.0702488,0.10145,0.0892317,-1.81635,0.563863,-0.196393,-0.0895997,0.146834,0.0023348,0.153704,-0.164797,0.717971,0.156242,-0.000280726,0,0,0,0,0,0,0,0.25745,-35.8672,-0.0625476,25.0348,4.11773,0.268179,0.171311,
0.0761381,0.100612,0.0946478,-1.82296,0.595976,-0.184727,-0.0892852,0.148073,-0.0242061,0.136437,-0.165025,0.818655,0.286413,0.00783455,-1.01028,-0.283721,-1.05022,1.97626,-1.47188,10.2869,-0.0185626,0,0,0,0,0,0,0,0.0702488,0.10145,0.0892317,-1.81635,0.563863,-0.196393,-0.0895997,0.146834,0.0023348,0.153704,-0.164797,0.717971,0.156242,-0.000280726,0,0,0,0,0,0,0,0.25745,-35.8672,-0.0625476,25.0348,4.11773,0.268179,0.171311,
0.0779188,0.101207,0.0956932,-1.82483,0.600923,-0.186509,-0.0894695,0.147571,-0.0228254,0.135915,-0.166218,0.811753,0.286419,0.00791481,-0.313499,0.862897,-0.326107,-0.745741,-4.3139,0.00379196,0.0501598,0,0,0,0,0,0,0,0.0755793,0.101443,0.0935188,-1.82205,0.588615,-0.190758,-0.0895964,0.0419882,-0.000692565,0.256559,-0.174277,0.698713,0.194841,6.82987e-05,-13.1058,-0.378421,12.8568,-1.18505,-2.40736,4.82481,0.043628,0.638309,-37.0653,0.738844,25.6577,4.21478,0.108877,0.151169,
0.079062,0.101045,0.0967367,-1.82614,0.607364,-0.18395,-0.0894049,0.146637,-0.0223156,0.134817,-0.165834,0.810422,0.293105,0.00794623,-0.584006,0.318657,-0.686259,0.240449,-0.831825,4.17826,0.0196401,0,0,0,0,0,0,0,0.0755793,0.101443,0.0935188,-1.82205,0.588615,-0.190758,-0.0895964,0.0419882,-0.000692565,0.256559,-0.174277,0.698713,0.194841,6.82987e-05,0,0,0,0,0,0,0,0.638309,-37.0653,0.738844,25.6577,4.21478,0.108877,0.151169,
0.0801866,0.100865,0.0977644,-1.82739,0.613679,-0.181173,-0.0893423,0.145424,-0.0223631,0.133549,-0.163753,0.806223,0.303924,0.00792175,-0.758193,-0.0296746,-0.792894,1.3002,-2.6244,6.76211,-0.0153006,0,0,0,0,0,0,0,0.0755793,0.101443,0.0935188,-1.82205,0.588615,-0.190758,-0.0895964,0.0419882,-0.000692565,0.256559,-0.174277,0.698713,0.194841,6.82987e-05,0,0,0,0,0,0,0,0.638309,-37.0653,0.738844,25.6577,4.21478,0.108877,0.151169,
0.0812968,0.100665,0.098783,-1.82856,0.619581,-0.178217,-0.0892829,0.144095,-0.0228746,0.132304,-0.160192,0.792528,0.317037,0.00782138,-0.830197,-0.319706,-0.778317,2.2262,-8.55917,8.19552,-0.0627349,0,0,0,0,0,0,0,0.0755793,0.101443,0.0935188,-1.82205,0.588615,-0.190758,-0.0895964,0.0419882,-0.000692565,0.256559,-0.174277,0.698713,0.194841,6.82987e-05,0,0,0,0,0,0,0,0.638309,-37.0653,0.738844,25.6577,4.21478,0.108877,0.151169,
0.0779021,0.101228,0.0956676,-1.82481,0.600939,-0.186407,-0.0894702,0.144135,-0.021435,0.132181,-0.161982,0.79109,0.312446,0.00788263,0.0246021,0.899729,-0.0763685,-1.11914,-0.89872,-2.86915,0.0382815,0,0,0,0,0,0,0,0.0807619,0.101492,0.098152,-1.82774,0.613366,-0.183031,-0.0895931,0.0387023,0.00283505,0.272101,-0.166496,0.71459,0.261433,0.000666416,-0.410744,0.440951,1.94274,0.97263,1.98466,8.32408,0.0747647,0.511356,-37.1407,0.588087,25.3839,4.12963,-0.0037325,0.131027,
0.0790356,0.101078,0.0967034,-1.82608,0.607144,-0.183778,-0.0894071,0.143646,-0.0208938,0.13164,-0.161496,0.787995,0.315657,0.00788462,-0.305262,0.338251,-0.338174,0.303625,-1.9343,2.00705,0.00124461,0,0,0,0,0,0,0,0.0807619,0.101492,0.098152,-1.82774,0.613366,-0.183031,-0.0895931,0.0387023,0.00283505,0.272101,-0.166496,0.71459,0.261433,0.000666416,0,0,0,0,0,0,0,0.511356,-37.1407,0.588087,25.3839,4.12963,-0.0037325,0.131027,
0.0801532,0.100904,0.0977286,-1.82728,0.612969,-0.180932,-0.0893473,0.142856,-0.0210539,0.130941,-0.159048,0.776016,0.323681,0.00780129,-0.493927,-0.100062,-0.436797,1.5301,-7.48734,5.01495,-0.0520835,0,0,0,0,0,0,0,0.0807619,0.101492,0.098152,-1.82774,0.613366,-0.183031,-0.0895931,0.0387023,0.00283505,0.272101,-0.166496,0.71459,0.261433,0.000666416,0,0,0,0,0,0,0,0.511356,-37.1407,0.588087,25.3839,4.12963,-0.0037325,0.131027,
0.0831315,0.101305,0.100336,-1.83039,0.625614,-0.177979,-0.0894724,0.1436,-0.0197187,0.131502,-0.15953,0.773437,0.325312,0.0077993,0.464999,0.83453,0.350684,-0.301287,-1.6114,1.01925,-0.00124123,0,0,0,0,0,0,0,0.0807619,0.101492,0.098152,-1.82774,0.613366,-0.183031,-0.0895931,0.0387023,0.00283505,0.272101,-0.166496,0.71459,0.261433,0.000666416,0,0,0,0,0,0,0,0.511356,-37.1407,0.588087,25.3839,4.12963,-0.0037325,0.131027,
0.0842775,0.101157,0.101385,-1.8316,0.63136,-0.175122,-0.0894129,0.14353,-0.0194831,0.13144,-0.157853,0.762397,0.331679,0.00772885,-0.0438081,0.147258,-0.038933,1.04799,-6.90035,3.97912,-0.0440329,0,0,0,0,0,0,0,0.0853762,0.101456,0.103103,-1.83297,0.637513,-0.174318,-0.0895895,0.0313335,-0.00325345,0.272529,-0.149146,0.639238,0.266442,0.0011267,-0.921106,-0.761062,0.0535452,2.1688,-9.41903,0.626054,0.0575351,0.741459,-36.1171,0.86183,24.0628,3.75702,-0.553964,0.11821,
0.0854006,0.100979,0.102417,-1.83273,0.636578,-0.172104,-0.0893565,0.142901,-0.0200362,0.13093,-0.154642,0.74038,0.340806,0.00759276,-0.393306,-0.34569,-0.318757,2.00711,-13.7605,5.70441,-0.085053,0,0,0,0,0,0,0,0.0853762,0.101456,0.103103,-1.83297,0.637513,-0.174318,-0.0895895,0.0313335,-0.00325345,0.272529,-0.149146,0.639238,0.266442,0.0011267,0,0,0,0,0,0,0,0.741459,-36.1171,0.86183,24.0628,3.75702,-0.553964,0.11821,
0.0865016,0.100776,0.103429,-1.8338,0.641186,-0.16896,-0.0893025,0.141846,-0.0211108,0.130059,-0.150493,0.707498,0.351226,0.0074226,-0.658968,-0.671644,-0.544609,2.59294,-20.5515,6.51276,-0.10635,0,0,0,0,0,0,0,0.0853762,0.101456,0.103103,-1.83297,0.637513,-0.174318,-0.0895895,0.0313335,-0.00325345,0.272529,-0.149146,0.639238,0.266442,0.0011267,0,0,0,0,0,0,0,0.741459,-36.1171,0.86183,24.0628,3.75702,-0.553964,0.11821,
0.0876932,0.101175,0.105237,-1.83547,0.648356,-0.169076,-0.0894721,0.142166,-0.0208203,0.130228,-0.15095,0.699406,0.349769,0.00744484,0.199699,0.181554,0.105499,-0.285274,-5.05705,-0.910804,0.0138954,0,0,0,0,0,0,0,0.0853762,0.101456,0.103103,-1.83297,0.637513,-0.174318,-0.0895895,0.0313335,-0.00325345,0.272529,-0.149146,0.639238,0.266442,0.0011267,0,0,0,0,0,0,0,0.741459,-36.1171,0.86183,24.0628,3.75702,-0.553964,0.11821,
0.0888144,0.100994,0.106263,-1.83662,0.653283,-0.166132,-0.0894147,0.141762,-0.0211841,0.129837,-0.149539,0.682688,0.353409,0.00739139,-0.25214,-0.227347,-0.244375,0.881535,-10.4488,2.27494,-0.033401,0,0,0,0,0,0,0,0.0900434,0.101321,0.107351,-1.83809,0.659736,-0.165098,-0.0895998,0.0498544,-0.0011654,0.223811,-0.158383,0.614855,0.315223,-0.00201089,2.31512,0.261006,-6.0898,-1.15469,-3.0478,6.09759,-0.392198,0.868412,-35.3197,1.13954,24.3365,3.91632,-0.521005,0.191452,
0.0899118,0.100792,0.107269,-1.83771,0.657677,-0.163043,-0.0893598,0.140845,-0.0219989,0.129035,-0.146791,0.655994,0.359956,0.00728461,-0.573166,-0.509249,-0.501164,1.71766,-16.684,4.09188,-0.0667378,0,0,0,0,0,0,0,0.0900434,0.101321,0.107351,-1.83809,0.659736,-0.165098,-0.0895998,0.0498544,-0.0011654,0.223811,-0.158383,0.614855,0.315223,-0.00201089,0,0,0,0,0,0,0,0.868412,-35.3197,1.13954,24.3365,3.91632,-0.521005,0.191452,
0.0909866,0.100572,0.108257,-1.83874,0.66148,-0.159845,-0.0893065,0.139546,-0.0230973,0.127911,-0.143224,0.619867,0.367913,0.0071615,-0.811947,-0.686501,-0.702624,2.22955,-22.5793,4.97308,-0.076949,0,0,0,0,0,0,0,0.0900434,0.101321,0.107351,-1.83809,0.659736,-0.165098,-0.0895998,0.0498544,-0.0011654,0.223811,-0.158383,0.614855,0.315223,-0.00201089,0,0,0,0,0,0,0,0.868412,-35.3197,1.13954,24.3365,3.91632,-0.521005,0.191452,
0.0922068,0.10111,0.109336,-1.84052,0.669331,-0.159361,-0.0894843,0.138565,-0.0216261,0.126864,-0.14419,0.611813,0.368508,0.00720025,-0.613451,0.919497,-0.653911,-0.604128,-5.034,0.372033,0.0242246,0,0,0,0,0,0,0,0.0900434,0.101321,0.107351,-1.83809,0.659736,-0.165098,-0.0895998,0.0498544,-0.0011654,0.223811,-0.158383,0.614855,0.315223,-0.00201089,0,0,0,0,0,0,0,0.868412,-35.3197,1.13954,24.3365,3.91632,-0.521005,0.191452,
0.0932676,0.100952,0.110305,-1.84164,0.673497,-0.15625,-0.089428,0.137371,-0.0212372,0.125721,-0.143229,0.593593,0.372588,0.00716858,-0.746074,0.243063,-0.714637,0.600769,-11.387,2.54995,-0.0197967,0,0,0,0,0,0,0,0.0946496,0.101385,0.111574,-1.84282,0.680177,-0.154517,-0.0895954,0.103772,0.00739038,0.160896,-0.129007,0.550921,0.307003,0.000365037,6.73972,1.06947,-7.86434,3.67206,-7.99174,-1.02745,0.296991,-0.246395,-36.8153,-0.110155,24.8087,3.9035,-0.488046,0.14476,
0.0943119,0.100769,0.111261,-1.8427,0.677117,-0.153032,-0.0893733,0.136005,-0.0215781,0.124479,-0.140961,0.565387,0.378516,0.00710042,-0.853809,-0.213098,-0.776263,1.41733,-17.6287,3.70479,-0.0426025,0,0,0,0,0,0,0,0.0946496,0.101385,0.111574,-1.84282,0.680177,-0.154517,-0.0895954,0.103772,0.00739038,0.160896,-0.129007,0.550921,0.307003,0.000365037,0,0,0,0,0,0,0,-0.246395,-36.8153,-0.110155,24.8087,3.9035,-0.488046,0.14476,
0.0967771,0.101172,0.113516,-1.8451,0.688452,-0.14864,-0.0894842,0.13521,-0.0205968,0.123645,-0.140958,0.551067,0.378801,0.00709478,-0.496915,0.61336,-0.521136,0.00211768,-8.95041,0.178476,-0.00352525,0,0,0,0,0,0,0,0.0946496,0.101385,0.111574,-1.84282,0.680177,-0.154517,-0.0895954,0.103772,0.00739038,0.160896,-0.129007,0.550921,0.307003,0.000365037,0,0,0,0,0,0,0,-0.246395,-36.8153,-0.110155,24.8087,3.9035,-0.488046,0.14476,
0.0978165,0.101006,0.114465,-1.84618,0.691913,-0.14547,-0.0894289,0.134154,-0.02061,0.122649,-0.139584,0.527361,0.382287,0.00705959,-0.659577,-0.00828911,-0.622346,0.859013,-14.8162,2.17853,-0.0219915,0,0,0,0,0,0,0,0.0946496,0.101385,0.111574,-1.84282,0.680177,-0.154517,-0.0895954,0.103772,0.00739038,0.160896,-0.129007,0.550921,0.307003,0.000365037,0,0,0,0,0,0,0,-0.246395,-36.8153,-0.110155,24.8087,3.9035,-0.488046,0.14476,
0.0988392,0.100817,0.115401,-1.8472,0.694836,-0.142211,-0.0893744,0.13289,-0.0212102,0.121509,-0.137198,0.494979,0.387317,0.00701029,-0.790057,-0.37509,-0.712678,1.49101,-20.2386,3.14383,-0.0308113,0,0,0,0,0,0,0,0.0994031,0.101286,0.115401,-1.84751,0.697511,-0.14343,-0.0895957,0.209797,-0.00413703,0.0478842,-0.131901,0.460213,0.329336,0.000623422,13.2531,-1.44093,-14.1265,-0.361859,-11.3386,2.79159,0.0322981,-1.53973,-35.9187,-0.963121,24.7095,3.75702,-0.0366915,0.14476,
0.0998449,0.100611,0.116322,-1.84817,0.697213,-0.13889,-0.08932,0.131455,-0.0221371,0.120236,-0.134202,0.455412,0.392865,0.00696712,-0.896804,-0.579307,-0.795456,1.87238,-24.7293,3.46781,-0.0269824,0,0,0,0,0,0,0,0.0994031,0.101286,0.115401,-1.84751,0.697511,-0.14343,-0.0895957,0.209797,-0.00413703,0.0478842,-0.131901,0.460213,0.329336,0.000623422,0,0,0,0,0,0,0,-1.53973,-35.9187,-0.963121,24.7095,3.75702,-0.0366915,0.14476,
0.101531,0.101012,0.11732,-1.84973,0.704163,-0.137343,-0.0894839,0.131363,-0.0215821,0.120029,-0.134643,0.443129,0.392274,0.00696995,-0.0578877,0.346828,-0.129586,-0.27515,-7.67722,-0.369558,0.00177182,0,0,0,0,0,0,0,0.0994031,0.101286,0.115401,-1.84751,0.697511,-0.14343,-0.0895957,0.209797,-0.00413703,0.0478842,-0.131901,0.460213,0.329336,0.000623422,0,0,0,0,0,0,0,-1.53973,-35.9187,-0.963121,24.7095,3.75702,-0.0366915,0.14476,
0.102558,0.100835,0.118256,-1.85077,0.706868,-0.134125,-0.0894288,0.130751,-0.0217066,0.119433,-0.133736,0.422127,0.394271,0.00695553,-0.38251,-0.0778196,-0.372271,0.566425,-13.1258,1.24826,-0.00901228,0,0,0,0,0,0,0,0.0994031,0.101286,0.115401,-1.84751,0.697511,-0.14343,-0.0895957,0.209797,-0.00413703,0.0478842,-0.131901,0.460213,0.329336,0.000623422,0,0,0,0,0,0,0,-1.53973,-35.9187,-0.963121,24.7095,3.75702,-0.0366915,0.14476,
0.103564,0.10064,0.119176,-1.85177,0.709086,-0.130839,-0.0893738,0.129772,-0.022242,0.118548,-0.131866,0.393156,0.397565,0.00693964,-0.61208,-0.334619,-0.553294,1.16875,-18.1073,2.05846,-0.00993591,0,0,0,0,0,0,0,0.0994031,0.101286,0.115401,-1.84751,0.697511,-0.14343,-0.0895957,0.209797,-0.00413703,0.0478842,-0.131901,0.460213,0.329336,0.000623422,0,0,0,0,0,0,0,-1.53973,-35.9187,-0.963121,24.7095,3.75702,-0.0366915,0.14476,
0.104553,0.100431,0.120081,-1.85273,0.710812,-0.127509,-0.0893185,0.128524,-0.0230041,0.117442,-0.129406,0.357669,0.401307,0.00693352,-0.779693,-0.476302,-0.690989,1.53791,-22.1795,2.33894,-0.00382116,0,0,0,0,0,0,0,0.104277,0.10134,0.118896,-1.85194,0.712104,-0.132064,-0.089595,0.22918,-0.00362849,0.00899675,-0.116392,0.370035,0.324987,0.000403895,2.42296,0.063568,-4.86094,1.93869,-11.2722,-0.543598,-0.0274408,-1.21045,-36.617,-0.237108,24.4873,3.60412,-0.0568331,0.138352,
0.106296,0.101043,0.120708,-1.85406,0.717315,-0.1259,-0.0894835,0.127737,-0.0225466,0.116597,-0.129798,0.347151,0.400058,0.00694684,-0.491816,0.28592,-0.528222,-0.245426,-6.57347,-0.780527,0.00832172,0,0,0,0,0,0,0,0.104277,0.10134,0.118896,-1.85194,0.712104,-0.132064,-0.089595,0.22918,-0.00362849,0.00899675,-0.116392,0.370035,0.324987,0.000403895,0,0,0,0,0,0,0,-1.21045,-36.617,-0.237108,24.4873,3.60412,-0.0568331,0.138352,
0.107279,0.100859,0.121603,-1.85507,0.719341,-0.122648,-0.0894275,0.126746,-0.0226369,0.115649,-0.129087,0.328375,0.401359,0.00695773,-0.619326,-0.0563882,-0.592835,0.444349,-11.735,0.813032,0.00680787,0,0,0,0,0,0,0,0.104277,0.10134,0.118896,-1.85194,0.712104,-0.132064,-0.089595,0.22918,-0.00362849,0.00899675,-0.116392,0.370035,0.324987,0.000403895,0,0,0,0,0,0,0,-1.21045,-36.617,-0.237108,24.4873,3.60412,-0.0568331,0.138352,
0.108247,0.100662,0.122487,-1.85604,0.720923,-0.119338,-0.0893714,0.125601,-0.0230367,0.114605,-0.127527,0.302263,0.40383,0.00697064,-0.715858,-0.249885,-0.652455,0.974999,-16.3201,1.54441,0.00806536,0,0,0,0,0,0,0,0.104277,0.10134,0.118896,-1.85194,0.712104,-0.132064,-0.089595,0.22918,-0.00362849,0.00899675,-0.116392,0.370035,0.324987,0.000403895,0,0,0,0,0,0,0,-1.21045,-36.617,-0.237108,24.4873,3.60412,-0.0568331,0.138352,
0.106296,0.101043,0.120708,-1.85406,0.717315,-0.1259,-0.0894835,0.125399,-0.0225727,0.114327,-0.128296,0.302826,0.402077,0.00697653,-0.126416,0.289991,-0.173519,-0.480211,0.352243,-1.09591,0.00368273,0,0,0,0,0,0,0,0.109018,0.101257,0.122691,-1.85608,0.72319,-0.119792,-0.0895946,0.196598,-0.00687353,0.0531672,-0.103291,0.263415,0.3663,0.000108318,-4.07281,-0.40563,5.52131,1.63763,-13.3275,5.16412,-0.0369471,-1.79364,-35.5458,-0.463243,24.0152,3.61694,-0.103525,0.14476,
0.112033,0.100711,0.125414,-1.85906,0.728399,-0.10996,-0.0894307,0.124782,-0.0230187,0.113723,-0.127022,0.277521,0.404887,0.00698604,-0.385582,-0.278775,-0.377618,0.796019,-15.8161,1.75606,0.0059426,0,0,0,0,0,0,0,0.109018,0.101257,0.122691,-1.85608,0.72319,-0.119792,-0.0895946,0.196598,-0.00687353,0.0531672,-0.103291,0.263415,0.3663,0.000108318,0,0,0,0,0,0,0,-1.79364,-35.5458,-0.463243,24.0152,3.61694,-0.103525,0.14476,
0.112993,0.100506,0.126289,-1.86001,0.729421,-0.106612,-0.0893738,0.123815,-0.0235581,0.112845,-0.1252,0.24757,0.407609,0.00701026,-0.604306,-0.337093,-0.548513,1.13888,-18.7195,1.70124,0.0151388,0,0,0,0,0,0,0,0.109018,0.101257,0.122691,-1.85608,0.72319,-0.119792,-0.0895946,0.196598,-0.00687353,0.0531672,-0.103291,0.263415,0.3663,0.000108318,0,0,0,0,0,0,0,-1.79364,-35.5458,-0.463243,24.0152,3.61694,-0.103525,0.14476,
0.113935,0.100295,0.127149,-1.86092,0.730055,-0.103258,-0.0893163,0.122614,-0.0241216,0.111779,-0.123032,0.213891,0.409938,0.00704708,-0.750662,-0.352201,-0.666584,1.35483,-21.0492,1.45609,0.0230152,0,0,0,0,0,0,0,0.109018,0.101257,0.122691,-1.85608,0.72319,-0.119792,-0.0895946,0.196598,-0.00687353,0.0531672,-0.103291,0.263415,0.3663,0.000108318,0,0,0,0,0,0,0,-1.79364,-35.5458,-0.463243,24.0152,3.61694,-0.103525,0.14476,
0.114544,0.100832,0.128793,-1.86198,0.734645,-0.10131,-0.0894908,0.121163,-0.0238491,0.11036,-0.123072,0.203441,0.408546,0.00707004,-0.906881,0.17031,-0.886509,-0.024744,-6.53128,-0.870203,0.0143503,0,0,0,0,0,0,0,0.112695,0.101171,0.127117,-1.86,0.731742,-0.107628,-0.0896009,0.116389,-0.00797487,0.104885,-0.107233,0.221299,0.348276,-0.00223432,-10.0261,-0.137668,6.46468,-0.492744,-5.26452,-2.25294,-0.292829,-1.28582,-35.6688,0.0882092,23.2416,3.51257,-0.222544,0.191452,
0.115462,0.10064,0.129627,-1.86293,0.735574,-0.0980211,-0.0894328,0.119874,-0.0238975,0.109147,-0.122367,0.185962,0.409069,0.00710759,-0.805718,-0.0302638,-0.758244,0.440263,-10.9242,0.326593,0.0234659,0,0,0,0,0,0,0,0.112695,0.101171,0.127117,-1.86,0.731742,-0.107628,-0.0896009,0.116389,-0.00797487,0.104885,-0.107233,0.221299,0.348276,-0.00223432,0,0,0,0,0,0,0,-1.28582,-35.6688,0.0882092,23.2416,3.51257,-0.222544,0.191452,
0.116372,0.10044,0.130456,-1.86386,0.736131,-0.0946999,-0.0893742,0.118665,-0.0241043,0.108044,-0.121056,0.162704,0.410285,0.00715005,-0.75523,-0.129214,-0.689558,0.819453,-14.5365,0.760146,0.0265361,0,0,0,0,0,0,0,0.112695,0.101171,0.127117,-1.86,0.731742,-0.107628,-0.0896009,0.116389,-0.00797487,0.104885,-0.107233,0.221299,0.348276,-0.00223432,0,0,0,0,0,0,0,-1.28582,-35.6688,0.0882092,23.2416,3.51257,-0.222544,0.191452,
0.117274,0.100236,0.131278,-1.86476,0.736331,-0.0913686,-0.0893151,0.117483,-0.0243845,0.106984,-0.119354,0.135169,0.411511,0.0071972,-0.73911,-0.175134,-0.662355,1.06391,-17.2092,0.76654,0.0294713,0,0,0,0,0,0,0,0.112695,0.101171,0.127117,-1.86,0.731742,-0.107628,-0.0896009,0.116389,-0.00797487,0.104885,-0.107233,0.221299,0.348276,-0.00223432,0,0,0,0,0,0,0,-1.28582,-35.6688,0.0882092,23.2416,3.51257,-0.222544,0.191452,
0.114545,0.100836,0.128803,-1.86192,0.734208,-0.101349,-0.0894902,0.117082,-0.0240504,0.106631,-0.119327,0.133897,0.40928,0.00719639,-0.250142,0.208801,-0.220427,0.0170948,-0.794846,-1.39447,-0.000507385,0,0,0,0,0,0,0,0.11608,0.100954,0.131348,-1.86413,0.73752,-0.0947891,-0.089595,0.00560599,-0.00887533,0.192682,-0.119304,0.159577,0.340963,0.000303035,-13.8479,-0.112558,10.9747,-1.50883,-7.71521,-0.914209,0.317169,0.892215,-35.2205,1.83778,23.2178,3.76983,-0.593332,0.138352,
0.115463,0.100642,0.129639,-1.86284,0.734835,-0.0980835,-0.0894318,0.116607,-0.024102,0.106223,-0.118648,0.122803,0.409069,0.00721697,-0.297,-0.0322322,-0.255157,0.424082,-6.93354,-0.13214,0.0128654,0,0,0,0,0,0,0,0.11608,0.100954,0.131348,-1.86413,0.73752,-0.0947891,-0.089595,0.00560599,-0.00887533,0.192682,-0.119304,0.159577,0.340963,0.000303035,0,0,0,0,0,0,0,0.892215,-35.2205,1.83778,23.2178,3.76983,-0.593332,0.138352,
0.116372,0.10044,0.130469,-1.86375,0.735083,-0.0947889,-0.0893729,0.116011,-0.0243238,0.10571,-0.117452,0.104442,0.409618,0.00724761,-0.372849,-0.138605,-0.320551,0.747315,-11.4756,0.343179,0.0191468,0,0,0,0,0,0,0,0.11608,0.100954,0.131348,-1.86413,0.73752,-0.0947891,-0.089595,0.00560599,-0.00887533,0.192682,-0.119304,0.159577,0.340963,0.000303035,0,0,0,0,0,0,0,0.892215,-35.2205,1.83778,23.2178,3.76983,-0.593332,0.138352,
0.117754,0.100656,0.132889,-1.86606,0.739025,-0.0886827,-0.0894794,0.114079,-0.0234904,0.103919,-0.117795,0.0973443,0.406011,0.00730214,-1.20741,0.520832,-1.11942,-0.214169,-4.4363,-2.25438,0.0340829,0,0,0,0,0,0,0,0.11608,0.100954,0.131348,-1.86413,0.73752,-0.0947891,-0.089595,0.00560599,-0.00887533,0.192682,-0.119304,0.159577,0.340963,0.000303035,0,0,0,0,0,0,0,0.892215,-35.2205,1.83778,23.2178,3.76983,-0.593332,0.138352,
0.118613,0.100481,0.133672,-1.86699,0.739202,-0.085466,-0.0894188,0.112755,-0.0231648,0.102692,-0.117314,0.0822966,0.405227,0.00735439,-0.827221,0.203495,-0.766892,0.300312,-9.40483,-0.490069,0.0326579,0,0,0,0,0,0,0,0.119408,0.101025,0.135318,-1.86791,0.740491,-0.0820492,-0.0895931,0.02749,0.0165196,0.18684,-0.103596,0.0793088,0.362903,0.000564633,2.73551,3.17436,-0.730251,1.96342,-10.0336,2.74258,0.0326996,0.562931,-37.2676,1.03639,24.8087,3.75702,-0.474314,0.131027,
0.119475,0.100297,0.134456,-1.86788,0.739039,-0.0822102,-0.0893582,0.111746,-0.0231228,0.101765,-0.116253,0.0617727,0.405576,0.0074007,-0.630841,0.026296,-0.57926,0.663351,-12.8274,0.218085,0.0289452,0,0,0,0,0,0,0,0.119408,0.101025,0.135318,-1.86791,0.740491,-0.0820492,-0.0895931,0.02749,0.0165196,0.18684,-0.103596,0.0793088,0.362903,0.000564633,0,0,0,0,0,0,0,0.562931,-37.2676,1.03639,24.8087,3.75702,-0.474314,0.131027,
0.120334,0.100108,0.135238,-1.86876,0.738574,-0.0789444,-0.0892973,0.110874,-0.0232259,0.100973,-0.114826,0.0377974,0.406105,0.00744218,-0.545065,-0.0644723,-0.49539,0.891707,-14.9846,0.331207,0.0259198,0,0,0,0,0,0,0,0.119408,0.101025,0.135318,-1.86791,0.740491,-0.0820492,-0.0895931,0.02749,0.0165196,0.18684,-0.103596,0.0793088,0.362903,0.000564633,0,0,0,0,0,0,0,0.562931,-37.2676,1.03639,24.8087,3.75702,-0.474314,0.131027,
0.121151,0.10092,0.136915,-1.86984,0.740998,-0.0757285,-0.0894789,0.110587,-0.0206357,0.100637,-0.115895,0.032383,0.405022,0.00745766,-0.179016,1.6189,-0.209739,-0.667995,-3.38398,-0.677365,0.00967467,0,0,0,0,0,0,0,0.119408,0.101025,0.135318,-1.86791,0.740491,-0.0820492,-0.0895931,0.02749,0.0165196,0.18684,-0.103596,0.0793088,0.362903,0.000564633,0,0,0,0,0,0,0,0.562931,-37.2676,1.03639,24.8087,3.75702,-0.474314,0.131027,
0.122023,0.100805,0.137707,-1.87077,0.740763,-0.0724916,-0.0894179,0.110279,-0.0193907,0.100308,-0.116051,0.0200412,0.40494,0.00749229,-0.19248,0.778083,-0.205564,-0.0974127,-7.71361,-0.0509469,0.0216483,0,0,0,0,0,0,0,0.122966,0.100889,0.138881,-1.87163,0.741311,-0.0699295,-0.0896001,0.122105,-0.0110328,0.0747105,-0.111635,0.00460442,0.362428,-0.0019367,11.8268,-3.44405,-14.0162,-1.00486,-9.33805,-0.0593905,-0.312667,-0.627255,-36.1171,-0.213304,24.4873,3.54919,-0.249094,0.185044,
0.122889,0.100668,0.138494,-1.87167,0.74024,-0.0692507,-0.0893566,0.109883,-0.0189327,0.0999219,-0.115453,0.00295255,0.404975,0.00752672,-0.247906,0.286257,-0.241521,0.373473,-10.6804,0.0220116,0.0215176,0,0,0,0,0,0,0,0.122966,0.100889,0.138881,-1.87163,0.741311,-0.0699295,-0.0896001,0.122105,-0.0110328,0.0747105,-0.111635,0.00460442,0.362428,-0.0019367,0,0,0,0,0,0,0,-0.627255,-36.1171,-0.213304,24.4873,3.54919,-0.249094,0.185044,
0.123748,0.100517,0.139274,-1.87255,0.739463,-0.0660219,-0.0892951,0.109365,-0.0189308,0.0994416,-0.114336,-0.0170657,0.404699,0.00755717,-0.323395,0.00117042,-0.300184,0.698475,-12.5114,-0.172824,0.0190273,0,0,0,0,0,0,0,0.122966,0.100889,0.138881,-1.87163,0.741311,-0.0699295,-0.0896001,0.122105,-0.0110328,0.0747105,-0.111635,0.00460442,0.362428,-0.0019367,0,0,0,0,0,0,0,-0.627255,-36.1171,-0.213304,24.4873,3.54919,-0.249094,0.185044,
0.124656,0.100596,0.140407,-1.8735,0.740756,-0.0636627,-0.0894808,0.108646,-0.0190113,0.0987101,-0.114607,-0.0234819,0.403027,0.00758056,-0.44975,-0.0503123,-0.457187,-0.169589,-4.01012,-1.04471,0.0146212,0,0,0,0,0,0,0,0.122966,0.100889,0.138881,-1.87163,0.741311,-0.0699295,-0.0896001,0.122105,-0.0110328,0.0747105,-0.111635,0.00460442,0.362428,-0.0019367,0,0,0,0,0,0,0,-0.627255,-36.1171,-0.213304,24.4873,3.54919,-0.249094,0.185044,
0.125502,0.100433,0.141174,-1.8744,0.740131,-0.0604644,-0.089419,0.108062,-0.0192937,0.098141,-0.114205,-0.0344325,0.40238,0.00760835,-0.364549,-0.176483,-0.355691,0.251515,-6.8441,-0.404755,0.0173687,0,0,0,0,0,0,0,0.122966,0.100889,0.138881,-1.87163,0.741311,-0.0699295,-0.0896001,0.122105,-0.0110328,0.0747105,-0.111635,0.00460442,0.362428,-0.0019367,0,0,0,0,0,0,0,-0.627255,-36.1171,-0.213304,24.4873,3.54919,-0.249094,0.185044,
0.126344,0.100264,0.141938,-1.87527,0.739287,-0.0572645,-0.0893572,0.107507,-0.0196608,0.0976221,-0.11329,-0.0486262,0.401901,0.00763201,-0.347188,-0.229449,-0.324311,0.572042,-8.87106,-0.299225,0.0147858,0,0,0,0,0,0,0,0.126949,0.100938,0.141485,-1.87537,0.741188,-0.0576634,-0.0895972,0.180718,0.00645424,-0.00268998,-0.103876,-7.0701e-06,0.348485,-0.0010896,7.32665,2.18589,-9.67506,0.969926,-0.576436,-1.74288,0.105887,-0.603451,-36.5932,0.0644055,24.884,3.47595,-0.216135,0.158493,
0.124656,0.100596,0.140407,-1.8735,0.740756,-0.0636627,-0.0894808,0.107159,-0.0195953,0.0972545,-0.11377,-0.0487303,0.400789,0.00764043,-0.217453,0.0409365,-0.229749,-0.300382,-0.0650638,-0.694968,0.00526608,0,0,0,0,0,0,0,0.126949,0.100938,0.141485,-1.87537,0.741188,-0.0576634,-0.0895972,0.180718,0.00645424,-0.00268998,-0.103876,-7.0701e-06,0.348485,-0.0010896,0,0,0,0,0,0,0,-0.603451,-36.5932,0.0644055,24.884,3.47595,-0.216135,0.158493,
0.129378,0.100671,0.143666,-1.87813,0.739453,-0.0482554,-0.0894113,0.106101,-0.0186711,0.0962532,-0.113497,-0.0597527,0.400047,0.00768067,-0.661215,0.57767,-0.625822,0.17083,-6.88902,-0.463582,0.0251485,0,0,0,0,0,0,0,0.126949,0.100938,0.141485,-1.87537,0.741188,-0.0576634,-0.0895972,0.180718,0.00645424,-0.00268998,-0.103876,-7.0701e-06,0.348485,-0.0010896,0,0,0,0,0,0,0,-0.603451,-36.5932,0.0644055,24.884,3.47595,-0.216135,0.158493,
0.130193,0.100535,0.144406,-1.879,0.738412,-0.0450848,-0.0893488,0.105273,-0.0183259,0.0954809,-0.112654,-0.0738086,0.399304,0.00770661,-0.517769,0.215748,-0.482656,0.526563,-8.78493,-0.464466,0.0162146,0,0,0,0,0,0,0,0.126949,0.100938,0.141485,-1.87537,0.741188,-0.0576634,-0.0895972,0.180718,0.00645424,-0.00268998,-0.103876,-7.0701e-06,0.348485,-0.0010896,0,0,0,0,0,0,0,-0.603451,-36.5932,0.0644055,24.884,3.47595,-0.216135,0.158493,
0.131006,0.100389,0.145143,-1.87985,0.737195,-0.041936,-0.0892867,0.104537,-0.0183135,0.094808,-0.11142,-0.0894741,0.398163,0.0077181,-0.459472,0.00771578,-0.420615,0.771745,-9.79096,-0.712941,0.00717773,0,0,0,0,0,0,0,0.130614,0.100949,0.144188,-1.87896,0.739825,-0.0458722,-0.0895948,0.125308,-0.00445785,0.0673668,-0.106968,-0.0582859,0.350265,-0.00109855,-6.92629,-1.36401,8.7571,-0.386507,-7.28485,0.222436,-0.0011182,0.0313145,-36.6408,1.3141,25.3601,3.53729,0.0228178,0.164902,
0.13227,0.100722,0.145683,-1.88078,0.738282,-0.0398043,-0.0894727,0.104339,-0.0178165,0.0946025,-0.111731,-0.09343,0.395214,0.00773662,-0.123865,0.31067,-0.12842,-0.194672,-2.47242,-1.84349,0.0115764,0,0,0,0,0,0,0,0.130614,0.100949,0.144188,-1.87896,0.739825,-0.0458722,-0.0895948,0.125308,-0.00445785,0.0673668,-0.106968,-0.0582859,0.350265,-0.00109855,0,0,0,0,0,0,0,0.0313145,-36.6408,1.3141,25.3601,3.53729,0.0228178,0.164902,
0.133097,0.100582,0.146432,-1.88166,0.737219,-0.0367172,-0.0894102,0.104144,-0.0177545,0.0944163,-0.111405,-0.101311,0.393348,0.00775198,-0.122067,0.0387501,-0.116384,0.203928,-4.92586,-1.16612,0.00960217,0,0,0,0,0,0,0,0.130614,0.100949,0.144188,-1.87896,0.739825,-0.0458722,-0.0895948,0.125308,-0.00445785,0.0673668,-0.106968,-0.0582859,0.350265,-0.00109855,0,0,0,0,0,0,0,0.0313145,-36.6408,1.3141,25.3601,3.53729,0.0228178,0.164902,
0.133919,0.100433,0.147178,-1.88252,0.735992,-0.0336347,-0.0893481,0.103869,-0.0179165,0.0941685,-0.110573,-0.111719,0.39174,0.00775594,-0.17172,-0.101297,-0.154833,0.51966,-6.50453,-1.00535,0.00247361,0,0,0,0,0,0,0,0.130614,0.100949,0.144188,-1.87896,0.739825,-0.0458722,-0.0895948,0.125308,-0.00445785,0.0673668,-0.106968,-0.0582859,0.350265,-0.00109855,0,0,0,0,0,0,0,0.0313145,-36.6408,1.3141,25.3601,3.53729,0.0228178,0.164902,
0.134734,0.100279,0.147917,-1.88336,0.734627,-0.0305716,-0.0892864,0.103473,-0.0181824,0.0938168,-0.109389,-0.123501,0.389969,0.00774607,-0.247342,-0.166196,-0.219847,0.740137,-7.36387,-1.10661,-0.00616697,0,0,0,0,0,0,0,0.133409,0.101,0.147817,-1.88241,0.737451,-0.0339233,-0.0895909,0.0171712,0.00485467,0.170394,-0.0959894,-0.0828522,0.3483,-0.000380505,-13.5171,1.16406,12.8784,1.37228,-3.07079,-0.245531,0.0897556,0.309024,-36.8907,1.18715,24.761,3.14636,0.0100004,0.131027,
0.134975,0.100817,0.14925,-1.88417,0.73565,-0.0279109,-0.0894707,0.102585,-0.0173051,0.0929808,-0.109591,-0.123994,0.388061,0.00776654,-0.555093,0.548315,-0.522475,-0.126029,-0.308023,-1.19219,0.0127929,0,0,0,0,0,0,0,0.133409,0.101,0.147817,-1.88241,0.737451,-0.0339233,-0.0895909,0.0171712,0.00485467,0.170394,-0.0959894,-0.0828522,0.3483,-0.000380505,0,0,0,0,0,0,0,0.309024,-36.8907,1.18715,24.761,3.14636,0.0100004,0.131027,
0.135771,0.100689,0.149971,-1.88504,0.734456,-0.0248507,-0.0894079,0.101983,-0.0170629,0.0924095,-0.109283,-0.129036,0.386956,0.00778331,-0.376486,0.151427,-0.35706,0.192,-3.1514,-0.69076,0.0104826,0,0,0,0,0,0,0,0.133409,0.101,0.147817,-1.88241,0.737451,-0.0339233,-0.0895909,0.0171712,0.00485467,0.170394,-0.0959894,-0.0828522,0.3483,-0.000380505,0,0,0,0,0,0,0,0.309024,-36.8907,1.18715,24.761,3.14636,0.0100004,0.131027,
0.136567,0.100549,0.150691,-1.88588,0.73311,-0.0218005,-0.0893457,0.101484,-0.0171403,0.0919425,-0.108511,-0.136869,0.385818,0.00778151,-0.311573,-0.0483778,-0.291909,0.482873,-4.89558,-0.711242,-0.00112783,0,0,0,0,0,0,0,0.133409,0.101,0.147817,-1.88241,0.737451,-0.0339233,-0.0895909,0.0171712,0.00485467,0.170394,-0.0959894,-0.0828522,0.3483,-0.000380505,0,0,0,0,0,0,0,0.309024,-36.8907,1.18715,24.761,3.14636,0.0100004,0.131027,
0.134975,0.100817,0.14925,-1.88417,0.73565,-0.0279109,-0.0894707,0.100994,-0.0164714,0.0914814,-0.108888,-0.134688,0.384741,0.00779489,-0.306462,0.418042,-0.288187,-0.235798,1.36298,-0.673352,0.00836335,0,0,0,0,0,0,0,0.136233,0.100898,0.151326,-1.88587,0.734424,-0.0218352,-0.0895914,0.0718595,-0.00981406,0.11039,-0.101232,-0.0973882,0.349985,-0.000953143,6.83604,-1.83359,-7.50056,-0.655264,-1.817,0.210532,-0.0715798,0.158268,-35.645,0.389723,23.8129,2.84149,-0.0632418,0.14476,
0.138582,0.100463,0.153456,-1.88842,0.731,-0.0128798,-0.0894068,0.100512,-0.01705,0.0910338,-0.108034,-0.140501,0.383012,0.00779482,-0.30135,-0.36163,-0.279734,0.534136,-3.63289,-1.08038,-4.29191e-05,0,0,0,0,0,0,0,0.136233,0.100898,0.151326,-1.88587,0.734424,-0.0218352,-0.0895914,0.0718595,-0.00981406,0.11039,-0.101232,-0.0973882,0.349985,-0.000953143,0,0,0,0,0,0,0,0.158268,-35.645,0.389723,23.8129,2.84149,-0.0632418,0.14476,
0.139369,0.100305,0.154169,-1.88924,0.729565,-0.00988543,-0.0893452,0.100083,-0.0175929,0.0906385,-0.106904,-0.148298,0.381269,0.00777535,-0.267991,-0.339333,-0.247064,0.706224,-4.87327,-1.0897,-0.012168,0,0,0,0,0,0,0,0.136233,0.100898,0.151326,-1.88587,0.734424,-0.0218352,-0.0895914,0.0718595,-0.00981406,0.11039,-0.101232,-0.0973882,0.349985,-0.000953143,0,0,0,0,0,0,0,0.158268,-35.645,0.389723,23.8129,2.84149,-0.0632418,0.14476,
0.140151,0.100146,0.154877,-1.89005,0.728031,-0.00691855,-0.0892846,0.0996175,-0.0180581,0.0902123,-0.105575,-0.156967,0.379187,0.00773629,-0.29099,-0.290706,-0.26635,0.830404,-5.41829,-1.30108,-0.0244175,0,0,0,0,0,0,0,0.136233,0.100898,0.151326,-1.88587,0.734424,-0.0218352,-0.0895914,0.0718595,-0.00981406,0.11039,-0.101232,-0.0973882,0.349985,-0.000953143,0,0,0,0,0,0,0,0.158268,-35.645,0.389723,23.8129,2.84149,-0.0632418,0.14476,
0.14138,0.100723,0.154947,-1.89106,0.728531,-0.00468202,-0.089469,0.0985951,-0.017114,0.0892392,-0.105893,-0.157944,0.377346,0.00777102,-0.639024,0.590017,-0.608207,-0.198481,-0.61048,-1.15072,0.0217092,0,0,0,0,0,0,0,0.139875,0.100908,0.153602,-1.88934,0.730939,-0.0105517,-0.0895949,0.160246,-0.00174374,0.00470239,-0.101607,-0.106007,0.337394,-0.000437501,11.0483,1.00879,-13.2109,-0.0469615,-1.07733,-1.57377,0.0644552,-0.57568,-35.9425,0.286573,24.2612,2.60254,0.314871,0.138352,
0.142142,0.100601,0.155636,-1.8919,0.727096,-0.00171777,-0.0894066,0.0979395,-0.0167481,0.0886137,-0.105645,-0.162224,0.375983,0.00777695,-0.409732,0.228723,-0.390911,0.154727,-2.67506,-0.851713,0.00370382,0,0,0,0,0,0,0,0.139875,0.100908,0.153602,-1.88934,0.730939,-0.0105517,-0.0895949,0.160246,-0.00174374,0.00470239,-0.101607,-0.106007,0.337394,-0.000437501,0,0,0,0,0,0,0,-0.57568,-35.9425,0.286573,24.2612,2.60254,0.314871,0.138352,
0.142906,0.100469,0.156326,-1.89271,0.725557,0.00122853,-0.0893453,0.0974404,-0.0166944,0.0881393,-0.104939,-0.168242,0.374444,0.0077537,-0.31195,0.0335631,-0.2965,0.441419,-3.76134,-0.962027,-0.0145286,0,0,0,0,0,0,0,0.139875,0.100908,0.153602,-1.88934,0.730939,-0.0105517,-0.0895949,0.160246,-0.00174374,0.00470239,-0.101607,-0.106007,0.337394,-0.000437501,0,0,0,0,0,0,0,-0.57568,-35.9425,0.286573,24.2612,2.60254,0.314871,0.138352,
0.143666,0.100331,0.157013,-1.89351,0.723945,0.0041448,-0.0892852,0.0969706,-0.0168007,0.087699,-0.103897,-0.174914,0.372462,0.0077055,-0.293643,-0.0664317,-0.275227,0.651017,-4.17014,-1.2388,-0.0301264,0,0,0,0,0,0,0,0.139875,0.100908,0.153602,-1.88934,0.730939,-0.0105517,-0.0895949,0.160246,-0.00174374,0.00470239,-0.101607,-0.106007,0.337394,-0.000437501,0,0,0,0,0,0,0,-0.57568,-35.9425,0.286573,24.2612,2.60254,0.314871,0.138352,
0.141374,0.10073,0.154944,-1.89103,0.728443,-0.00473573,-0.0894697,0.096386,-0.0160321,0.0871702,-0.10409,-0.173547,0.371192,0.00773199,-0.365358,0.480332,-0.330477,-0.120571,0.854534,-0.793818,0.0165584,0,0,0,0,0,0,0,0.142787,0.10092,0.156389,-1.89288,0.726418,0.00156564,-0.0895978,0.0681325,0.000612138,0.0954602,-0.100964,-0.131652,0.34434,-0.0017326,-11.5142,0.294485,11.3447,0.0804126,-3.2056,0.868164,-0.161888,0.614505,-36.0417,1.66322,24.1382,2.77374,0.0164091,0.164902,
0.142131,0.10061,0.155629,-1.89184,0.726959,-0.00180623,-0.0894082,0.0960427,-0.0158276,0.086858,-0.10375,-0.17594,0.370191,0.00772452,-0.214555,0.127817,-0.195148,0.21228,-1.49556,-0.625518,-0.00466929,0,0,0,0,0,0,0,0.142787,0.10092,0.156389,-1.89288,0.726418,0.00156564,-0.0895978,0.0681325,0.000612138,0.0954602,-0.100964,-0.131652,0.34434,-0.0017326,0,0,0,0,0,0,0,0.614505,-36.0417,1.66322,24.1382,2.77374,0.0164091,0.164902,
0.142888,0.10048,0.156314,-1.89264,0.725377,0.00110358,-0.0893479,0.0957594,-0.0159132,0.086598,-0.102987,-0.180286,0.368898,0.00768671,-0.177055,-0.0534617,-0.162518,0.477174,-2.71633,-0.807997,-0.023635,0,0,0,0,0,0,0,0.142787,0.10092,0.156389,-1.89288,0.726418,0.00156564,-0.0895978,0.0681325,0.000612138,0.0954602,-0.100964,-0.131652,0.34434,-0.0017326,0,0,0,0,0,0,0,0.614505,-36.0417,1.66322,24.1382,2.77374,0.0164091,0.164902,
0.143641,0.100344,0.156994,-1.89343,0.723731,0.00398276,-0.089289,0.0954332,-0.0161326,0.0862981,-0.101913,-0.18538,0.367098,0.00762215,-0.203905,-0.137149,-0.187384,0.671085,-3.18342,-1.12508,-0.0403495,0,0,0,0,0,0,0,0.142787,0.10092,0.156389,-1.89288,0.726418,0.00156564,-0.0895978,0.0681325,0.000612138,0.0954602,-0.100964,-0.131652,0.34434,-0.0017326,0,0,0,0,0,0,0,0.614505,-36.0417,1.66322,24.1382,2.77374,0.0164091,0.164902,
0.144222,0.100763,0.157688,-1.89455,0.723721,0.00733104,-0.0894757,0.0945046,-0.0152531,0.085433,-0.102187,-0.184139,0.366138,0.00765236,-0.580333,0.549699,-0.540732,-0.170934,0.775608,-0.59982,0.0188848,0,0,0,0,0,0,0,0.14501,0.100984,0.159663,-1.89628,0.721408,0.0128072,-0.0895972,0.0445507,0.00490003,0.10784,-0.0976323,-0.152266,0.321449,-0.000836638,-2.94772,0.535986,1.5475,0.416455,-2.57683,-2.86133,0.111996,1.01917,-36.6686,1.41328,24.7095,2.73712,0.18212,0.158493,
0.144955,0.100652,0.158351,-1.89535,0.722171,0.0102228,-0.0894148,0.0939503,-0.0149856,0.0849063,-0.101917,-0.186072,0.365205,0.00764526,-0.346427,0.16717,-0.329167,0.168508,-1.2082,-0.58324,-0.00444061,0,0,0,0,0,0,0,0.14501,0.100984,0.159663,-1.89628,0.721408,0.0128072,-0.0895972,0.0445507,0.00490003,0.10784,-0.0976323,-0.152266,0.321449,-0.000836638,0,0,0,0,0,0,0,1.01917,-36.6686,1.41328,24.7095,2.73712,0.18212,0.158493,
0.145691,0.10053,0.159014,-1.89614,0.720545,0.0130895,-0.0893554,0.0935474,-0.0150408,0.0845205,-0.101211,-0.189517,0.363832,0.00760161,-0.251846,-0.0344601,-0.241147,0.441303,-2.15323,-0.858315,-0.027282,0,0,0,0,0,0,0,0.14501,0.100984,0.159663,-1.89628,0.721408,0.0128072,-0.0895972,0.0445507,0.00490003,0.10784,-0.0976323,-0.152266,0.321449,-0.000836638,0,0,0,0,0,0,0,1.01917,-36.6686,1.41328,24.7095,2.73712,0.18212,0.158493,
0.146368,0.100863,0.160893,-1.89793,0.718508,0.0183441,-0.0894758,0.0921566,-0.0139884,0.0832157,-0.101511,-0.189647,0.361059,0.00762861,-0.869264,0.657721,-0.815477,-0.187833,-0.0810909,-1.73321,0.0168762,0,0,0,0,0,0,0,0.14501,0.100984,0.159663,-1.89628,0.721408,0.0128072,-0.0895972,0.0445507,0.00490003,0.10784,-0.0976323,-0.152266,0.321449,-0.000836638,0,0,0,0,0,0,0,1.01917,-36.6686,1.41328,24.7095,2.73712,0.18212,0.158493,
0.147074,0.100765,0.161529,-1.89873,0.716894,0.0211544,-0.0894155,0.0913657,-0.0136336,0.0824567,-0.101239,-0.192073,0.359106,0.00761139,-0.494309,0.221749,-0.474356,0.170292,-1.51648,-1.22063,-0.0107636,0,0,0,0,0,0,0,0.148403,0.101046,0.161762,-1.89956,0.716042,0.0232505,-0.0895886,0.150266,-0.00273118,0.00231037,-0.103891,-0.156741,0.298943,0.000104471,13.2144,-0.953901,-13.1912,-0.782346,-0.559386,-2.8132,0.117639,-0.730404,-36.494,0.211195,25.011,2.67028,0.215079,0.110886,
0.147785,0.100655,0.162169,-1.89951,0.715226,0.0239501,-0.0893569,0.0908673,-0.0136575,0.0819712,-0.100492,-0.195362,0.357176,0.00755352,-0.311467,-0.0149447,-0.303477,0.466677,-2.05567,-1.20582,-0.0361668,0,0,0,0,0,0,0,0.148403,0.101046,0.161762,-1.89956,0.716042,0.0232505,-0.0895886,0.150266,-0.00273118,0.00231037,-0.103891,-0.156741,0.298943,0.000104471,0,0,0,0,0,0,0,-0.730404,-36.494,0.211195,25.011,2.67028,0.215079,0.110886,
0.148496,0.100537,0.16281,-1.90027,0.713532,0.0267179,-0.0893001,0.0904761,-0.0138783,0.0815903,-0.0993937,-0.198629,0.354936,0.00746228,-0.244535,-0.138011,-0.238042,0.686618,-2.04196,-1.40036,-0.0570253,0,0,0,0,0,0,0,0.148403,0.101046,0.161762,-1.89956,0.716042,0.0232505,-0.0895886,0.150266,-0.00273118,0.00231037,-0.103891,-0.156741,0.298943,0.000104471,0,0,0,0,0,0,0,-0.730404,-36.494,0.211195,25.011,2.67028,0.215079,0.110886,
0.149812,0.100897,0.163019,-1.90121,0.712988,0.0285195,-0.089466,0.0901108,-0.0132553,0.0812514,-0.0999335,-0.198421,0.35067,0.0074902,-0.228284,0.389394,-0.211788,-0.337359,0.129963,-2.66592,0.0174508,0,0,0,0,0,0,0,0.148403,0.101046,0.161762,-1.89956,0.716042,0.0232505,-0.0895886,0.150266,-0.00273118,0.00231037,-0.103891,-0.156741,0.298943,0.000104471,0,0,0,0,0,0,0,-0.730404,-36.494,0.211195,25.011,2.67028,0.215079,0.110886,
0.150528,0.100796,0.163664,-1.902,0.711345,0.0312107,-0.0894071,0.0899888,-0.0131215,0.0811307,-0.099768,-0.199821,0.347816,0.00746493,-0.0762743,0.0836083,-0.0754511,0.103411,-0.874987,-1.78414,-0.015796,0,0,0,0,0,0,0,0.148403,0.101046,0.161762,-1.89956,0.716042,0.0232505,-0.0895886,0.150266,-0.00273118,0.00231037,-0.103891,-0.156741,0.298943,0.000104471,0,0,0,0,0,0,0,-0.730404,-36.494,0.211195,25.011,2.67028,0.215079,0.110886,
0.151245,0.100686,0.16431,-1.90277,0.709671,0.0338988,-0.0893501,0.0899088,-0.0132582,0.0810459,-0.0990713,-0.201696,0.345454,0.0073969,-0.0499656,-0.0854175,-0.0530208,0.435457,-1.17144,-1.47591,-0.0425163,0,0,0,0,0,0,0,0.151065,0.101161,0.164399,-1.90278,0.710425,0.0337597,-0.0895929,0.0724087,0.0106464,0.0755088,-0.0886718,-0.16434,0.316619,-0.000852798,-9.73212,1.67219,9.14981,1.90241,-0.949807,2.20948,-0.119659,0.285221,-36.7677,1.43709,25.856,2.80487,0.447622,0.151169,
0.151958,0.100569,0.164952,-1.90352,0.707991,0.0365693,-0.0892949,0.0897603,-0.013533,0.0808985,-0.097988,-0.203378,0.343128,0.00729615,-0.0928326,-0.171762,-0.0920845,0.677058,-1.05168,-1.45389,-0.0629659,0,0,0,0,0,0,0,0.151065,0.101161,0.164399,-1.90278,0.710425,0.0337597,-0.0895929,0.0724087,0.0106464,0.0755088,-0.0886718,-0.16434,0.316619,-0.000852798,0,0,0,0,0,0,0,0.285221,-36.7677,1.43709,25.856,2.80487,0.447622,0.151169,
0.152391,0.101084,0.165591,-1.90437,0.707421,0.0391907,-0.0894759,0.088634,-0.012318,0.0798331,-0.098186,-0.201614,0.342854,0.00732247,-0.703949,0.759377,-0.665894,-0.123735,1.10302,-0.171292,0.0164451,0,0,0,0,0,0,0,0.151065,0.101161,0.164399,-1.90278,0.710425,0.0337597,-0.0895929,0.0724087,0.0106464,0.0755088,-0.0886718,-0.16434,0.316619,-0.000852798,0,0,0,0,0,0,0,0.285221,-36.7677,1.43709,25.856,2.80487,0.447622,0.151169,
0.153074,0.101001,0.166205,-1.90514,0.705801,0.0419172,-0.0894182,0.0879916,-0.0119287,0.0792101,-0.0978767,-0.201789,0.342446,0.00730041,-0.401497,0.243314,-0.389362,0.193312,-0.109928,-0.254947,-0.0137833,0,0,0,0,0,0,0,0.151065,0.101161,0.164399,-1.90278,0.710425,0.0337597,-0.0895929,0.0724087,0.0106464,0.0755088,-0.0886718,-0.16434,0.316619,-0.000852798,0,0,0,0,0,0,0,0.285221,-36.7677,1.43709,25.856,2.80487,0.447622,0.151169,
0.153761,0.100904,0.166822,-1.90589,0.704153,0.0446179,-0.0893625,0.0875734,-0.0119834,0.0787979,-0.0971075,-0.202627,0.341475,0.00723332,-0.261373,-0.0341492,-0.257623,0.480727,-0.523346,-0.606977,-0.0419316,0,0,0,0,0,0,0,0.152998,0.101218,0.167472,-1.90595,0.70436,0.0439321,-0.0895952,0.0287615,-0.00624597,0.116107,-0.102077,-0.180631,0.29257,-0.000641966,-5.45589,-2.11154,5.07473,-1.67565,-2.03637,-3.00623,0.026354,1.32465,-36.7162,1.83778,24.9356,2.7005,0.360647,0.14476,
0.154448,0.100796,0.167439,-1.90663,0.702503,0.0472847,-0.0893088,0.0872222,-0.0122696,0.0784533,-0.0959853,-0.203362,0.33985,0.00712934,-0.219479,-0.178886,-0.215401,0.701347,-0.459317,-1.0155,-0.0649865,0,0,0,0,0,0,0,0.152998,0.101218,0.167472,-1.90595,0.70436,0.0439321,-0.0895952,0.0287615,-0.00624597,0.116107,-0.102077,-0.180631,0.29257,-0.000641966,0,0,0,0,0,0,0,1.32465,-36.7162,1.83778,24.9356,2.7005,0.360647,0.14476,
0.154289,0.101039,0.168642,-1.90753,0.701218,0.0489708,-0.0894793,0.0862788,-0.0122331,0.0775855,-0.0963133,-0.202863,0.335843,0.00716685,-0.58964,0.0227991,-0.542387,-0.204986,0.311494,-2.50462,0.0234402,0,0,0,0,0,0,0,0.152998,0.101218,0.167472,-1.90595,0.70436,0.0439321,-0.0895952,0.0287615,-0.00624597,0.116107,-0.102077,-0.180631,0.29257,-0.000641966,0,0,0,0,0,0,0,1.32465,-36.7162,1.83778,24.9356,2.7005,0.360647,0.14476,
0.154962,0.100933,0.169245,-1.90829,0.69958,0.0515582,-0.0894229,0.085831,-0.0124375,0.0771587,-0.0960022,-0.203234,0.33336,0.00714201,-0.279862,-0.127784,-0.26673,0.194473,-0.231693,-1.5516,-0.0155221,0,0,0,0,0,0,0,0.152998,0.101218,0.167472,-1.90595,0.70436,0.0439321,-0.0895952,0.0287615,-0.00624597,0.116107,-0.102077,-0.180631,0.29257,-0.000641966,0,0,0,0,0,0,0,1.32465,-36.7162,1.83778,24.9356,2.7005,0.360647,0.14476,
0.155639,0.100821,0.169853,-1.90902,0.697939,0.0541464,-0.0893688,0.0855886,-0.012761,0.0769182,-0.0952118,-0.203603,0.331393,0.00706645,-0.151513,-0.202158,-0.150304,0.493964,-0.230362,-1.22912,-0.0472299,0,0,0,0,0,0,0,0.156101,0.101226,0.169328,-1.90902,0.698405,0.0541236,-0.0895946,0.132751,0.00336395,0.00696214,-0.0978354,-0.174136,0.306013,-0.000716739,12.9987,1.20124,-13.6431,0.530208,0.811858,1.68043,-0.00934656,-0.222592,-36.1687,0.838026,24.6857,2.63916,0.380789,0.14476,
0.157398,0.101143,0.170477,-1.91059,0.695257,0.0593083,-0.0894798,0.0848186,-0.0116308,0.0761676,-0.095531,-0.202957,0.330206,0.00707598,-0.481225,0.706389,-0.469165,-0.199488,0.403373,-0.741943,0.00595768,0,0,0,0,0,0,0,0.156101,0.101226,0.169328,-1.90902,0.698405,0.0541236,-0.0895946,0.132751,0.00336395,0.00696214,-0.0978354,-0.174136,0.306013,-0.000716739,0,0,0,0,0,0,0,-0.222592,-36.1687,0.838026,24.6857,2.63916,0.380789,0.14476,
0.15806,0.101066,0.17107,-1.91134,0.693635,0.0619041,-0.0894252,0.0844095,-0.0112191,0.0757568,-0.095192,-0.202915,0.32906,0.00702682,-0.255748,0.25728,-0.256712,0.211871,0.0262958,-0.716666,-0.0307257,0,0,0,0,0,0,0,0.156101,0.101226,0.169328,-1.90902,0.698405,0.0541236,-0.0895946,0.132751,0.00336395,0.00696214,-0.0978354,-0.174136,0.306013,-0.000716739,0,0,0,0,0,0,0,-0.222592,-36.1687,0.838026,24.6857,2.63916,0.380789,0.14476,
0.158725,0.100976,0.171665,-1.91207,0.69202,0.0644777,-0.0893727,0.0841433,-0.0112287,0.0754845,-0.0943457,-0.202705,0.327588,0.00693199,-0.166313,-0.00596953,-0.170177,0.528925,0.13109,-0.919939,-0.0592675,0,0,0,0,0,0,0,0.156101,0.101226,0.169328,-1.90902,0.698405,0.0541236,-0.0895946,0.132751,0.00336395,0.00696214,-0.0978354,-0.174136,0.306013,-0.000716739,0,0,0,0,0,0,0,-0.222592,-36.1687,0.838026,24.6857,2.63916,0.380789,0.14476,
0.159388,0.100876,0.172259,-1.91277,0.690429,0.0670222,-0.0893225,0.0838899,-0.0114759,0.0752304,-0.0931257,-0.201937,0.325681,0.00680176,-0.158382,-0.154503,-0.158847,0.762492,0.480114,-1.1917,-0.0813945,0,0,0,0,0,0,0,0.156101,0.101226,0.169328,-1.90902,0.698405,0.0541236,-0.0895946,0.132751,0.00336395,0.00696214,-0.0978354,-0.174136,0.306013,-0.000716739,0,0,0,0,0,0,0,-0.222592,-36.1687,0.838026,24.6857,2.63916,0.380789,0.14476,
0.157389,0.101151,0.170469,-1.91056,0.69527,0.0592608,-0.089483,0.0833205,-0.0104939,0.0746892,-0.0934957,-0.201375,0.324954,0.00682097,-0.355914,0.613769,-0.338264,-0.231229,0.351446,-0.454428,0.0120069,0,0,0,0,0,0,0,0.156101,0.101226,0.169328,-1.90902,0.698405,0.0541236,-0.0895946,0.132751,0.00336395,0.00696214,-0.0978354,-0.174136,0.306013,-0.000716739,0,0,0,0,0,0,0,-0.222592,-36.1687,0.838026,24.6857,2.63916,0.380789,0.14476,
0.158044,0.101079,0.171055,-1.9113,0.693665,0.0618271,-0.0894301,0.0830276,-0.0102133,0.0744047,-0.0931767,-0.201224,0.32412,0.00677774,-0.183042,0.175359,-0.177791,0.199402,0.0941195,-0.521332,-0.0270193,0,0,0,0,0,0,0,0.156101,0.101226,0.169328,-1.90902,0.698405,0.0541236,-0.0895946,0.132751,0.00336395,0.00696214,-0.0978354,-0.174136,0.306013,-0.000716739,0,0,0,0,0,0,0,-0.222592,-36.1687,0.838026,24.6857,2.63916,0.380789,0.14476,
0.1587,0.100992,0.171643,-1.91201,0.692073,0.0643709,-0.0893796,0.0828219,-0.0103406,0.0742022,-0.0923362,-0.200777,0.322893,0.00668562,-0.12859,-0.0796041,-0.12659,0.525291,0.279233,-0.766713,-0.057573,0,0,0,0,0,0,0,0.156101,0.101226,0.169328,-1.90902,0.698405,0.0541236,-0.0895946,0.132751,0.00336395,0.00696214,-0.0978354,-0.174136,0.306013,-0.000716739,0,0,0,0,0,0,0,-0.222592,-36.1687,0.838026,24.6857,2.63916,0.380789,0.14476,
0.159353,0.100895,0.172227,-1.9127,0.69051,0.0668866,-0.0893312,0.0825923,-0.0106933,0.0739802,-0.0911127,-0.199706,0.321207,0.00655715,-0.143501,-0.220427,-0.138728,0.764704,0.669837,-1.05404,-0.0802959,0,0,0,0,0,0,0,0.158622,0.101275,0.171815,-1.9119,0.692427,0.0638197,-0.0895934,0.0409367,0.00176659,0.103619,-0.0951781,-0.169526,0.279903,0.000148173,-11.4768,-0.19967,12.082,0.332162,0.576185,-3.26369,0.108114,-0.0440639,-36.1925,1.16334,24.8087,2.69409,0.354239,0.124619,
0.159891,0.10117,0.17296,-1.9134,0.689479,0.0686109,-0.0894868,0.0821794,-0.0101926,0.0736259,-0.0914429,-0.197373,0.317625,0.00658365,-0.258059,0.312976,-0.221455,-0.206417,1.4582,-2.2385,0.0165645,0,0,0,0,0,0,0,0.158622,0.101275,0.171815,-1.9119,0.692427,0.0638197,-0.0895934,0.0409367,0.00176659,0.103619,-0.0951781,-0.169526,0.279903,0.000148173,0,0,0,0,0,0,0,-0.0440639,-36.1925,1.16334,24.8087,2.69409,0.354239,0.124619,
0.160541,0.101088,0.173543,-1.91412,0.687956,0.0710577,-0.0894357,0.0820175,-0.0102076,0.0734793,-0.0911063,-0.195974,0.31527,0.00654428,-0.101176,-0.00937894,-0.0916193,0.210416,0.873947,-1.47178,-0.0246045,0,0,0,0,0,0,0,0.158622,0.101275,0.171815,-1.9119,0.692427,0.0638197,-0.0895934,0.0409367,0.00176659,0.103619,-0.0951781,-0.169526,0.279903,0.000148173,0,0,0,0,0,0,0,-0.0440639,-36.1925,1.16334,24.8087,2.69409,0.354239,0.124619,
0.161193,0.100995,0.174127,-1.91482,0.686442,0.073503,-0.089387,0.0819016,-0.0105049,0.0733654,-0.0902556,-0.194636,0.313349,0.00645319,-0.0724096,-0.185846,-0.0711588,0.531682,0.836657,-1.20086,-0.0569362,0,0,0,0,0,0,0,0.158622,0.101275,0.171815,-1.9119,0.692427,0.0638197,-0.0895934,0.0409367,0.00176659,0.103619,-0.0951781,-0.169526,0.279903,0.000148173,0,0,0,0,0,0,0,-0.0440639,-36.1925,1.16334,24.8087,2.69409,0.354239,0.124619,
0.161763,0.101152,0.175882,-1.91647,0.683788,0.0783339,-0.0894906,0.0809101,-0.0101601,0.0724602,-0.0902485,-0.19169,0.310295,0.00646609,-0.619735,0.215547,-0.565734,0.00444139,1.84089,-1.90867,0.00806774,0,0,0,0,0,0,0,0.160558,0.10127,0.174794,-1.915,0.686597,0.0736305,-0.0895946,0.0206476,-0.000347919,0.114844,-0.0949963,-0.158868,0.275521,0.000146644,-2.53613,-0.264314,1.40322,0.0227274,1.33227,-0.547833,-0.000191048,0.614505,-36.0417,1.21095,24.7849,2.76184,0.274588,0.138352,
0.162389,0.101067,0.176442,-1.91716,0.682326,0.080742,-0.0894411,0.0803807,-0.010261,0.0719575,-0.0896452,-0.189881,0.30844,0.00641095,-0.330869,-0.063098,-0.314234,0.37705,1.1306,-1.15937,-0.0344641,0,0,0,0,0,0,0,0.160558,0.10127,0.174794,-1.915,0.686597,0.0736305,-0.0895946,0.0206476,-0.000347919,0.114844,-0.0949963,-0.158868,0.275521,0.000146644,0,0,0,0,0,0,0,0.614505,-36.0417,1.21095,24.7849,2.76184,0.274588,0.138352,
0.163018,0.100971,0.177004,-1.91784,0.680873,0.0831502,-0.0893941,0.0800386,-0.0106039,0.0716195,-0.0885951,-0.188233,0.306955,0.00630319,-0.213777,-0.214305,-0.211256,0.65628,1.02996,-0.928017,-0.0673489,0,0,0,0,0,0,0,0.160558,0.10127,0.174794,-1.915,0.686597,0.0736305,-0.0895946,0.0206476,-0.000347919,0.114844,-0.0949963,-0.158868,0.275521,0.000146644,0,0,0,0,0,0,0,0.614505,-36.0417,1.21095,24.7849,2.76184,0.274588,0.138352,
0.163646,0.100868,0.177564,-1.91849,0.679446,0.0855453,-0.0893495,0.0797262,-0.0110661,0.0713065,-0.0872181,-0.186271,0.305442,0.00615812,-0.195245,-0.288891,-0.195625,0.860633,1.22634,-0.945659,-0.0906689,0,0,0,0,0,0,0,0.160558,0.10127,0.174794,-1.915,0.686597,0.0736305,-0.0895946,0.0206476,-0.000347919,0.114844,-0.0949963,-0.158868,0.275521,0.000146644,0,0,0,0,0,0,0,0.614505,-36.0417,1.21095,24.7849,2.76184,0.274588,0.138352,
