xiao-wang007/linearmpc_panda/paper_data/panda_torque_PD_controller_error_match_to_start_low_pass_filter/4/trajectory.csv
Commanded Joint 0 Position,Commanded Joint 1 Position,Commanded Joint 2 Position,Commanded Joint 3 Position,Commanded Joint 4 Position,Commanded Joint 5 Position,Commanded Joint 6 Position,Commanded Joint 0 Velocity,Commanded Joint 1 Velocity,Commanded Joint 2 Velocity,Commanded Joint 3 Velocity,Commanded Joint 4 Velocity,Commanded Joint 5 Velocity,Commanded Joint 6 Velocity,Commanded Joint 0 Acceleration,Commanded Joint 1 Acceleration,Commanded Joint 2 Acceleration,Commanded Joint 3 Acceleration,Commanded Joint 4 Acceleration,Commanded Joint 5 Acceleration,Commanded Joint 6 Acceleration,Commanded Joint 0 Torque,Commanded Joint 1 Torque,Commanded Joint 2 Torque,Commanded Joint 3 Torque,Commanded Joint 4 Torque,Commanded Joint 5 Torque,Commanded Joint 6 Torque,Actual Joint 0 Position,Actual Joint 1 Position,Actual Joint 2 Position,Actual Joint 3 Position,Actual Joint 4 Position,Actual Joint 5 Position,Actual Joint 6 Position,Actual Joint 0 Velocity,Actual Joint 1 Velocity,Actual Joint 2 Velocity,Actual Joint 3 Velocity,Actual Joint 4 Velocity,Actual Joint 5 Velocity,Actual Joint 6 Velocity,Actual Joint 0 Acceleration,Actual Joint 1 Acceleration,Actual Joint 2 Acceleration,Actual Joint 3 Acceleration,Actual Joint 4 Acceleration,Actual Joint 5 Acceleration,Actual Joint 6 Acceleration,Actual Joint 0 Torque,Actual Joint 1 Torque,Actual Joint 2 Torque,Actual Joint 3 Torque,Actual Joint 4 Torque,Actual Joint 5 Torque,Actual Joint 6 Torque,
0.0406825,0.0268144,-0.0487458,-1.76434,0.0165798,0.266357,0.0609886,0.000278925,0.0230525,0.000264022,-0.0324853,-0.00427089,0.0536733,-0.000377778,0.174328,14.4078,0.165014,-20.3033,-2.66931,33.5458,-0.236111,0.0588837,25.492,0.0682372,-24.4344,-0.66616,1.86211,-0.0243226,0.0406814,0.02612,-0.0487205,-1.76161,0.0167808,0.260641,0.0610293,0.00102185,0.0122402,0.000434782,-0.00454801,-0.0047216,8.68097e-05,-0.000533465,0,0,0,0,0,0,0,0.0551182,-35.9941,-0.260912,26.8796,0.795284,2.98638,0.0779268,
0.0406894,0.0262986,-0.0487125,-1.7617,0.0167268,0.260577,0.0610281,0.000265036,0.0195946,0.00025372,-0.0265911,-0.00371828,0.0422688,-0.000307929,-0.00868047,-2.16114,-0.00643853,3.68393,0.345384,-7.12778,0.0436557,0.0531039,25.9324,0.057876,-24.3508,-0.666353,1.61154,-0.0228047,0.0406814,0.02612,-0.0487205,-1.76161,0.0167808,0.260641,0.0610293,0.00102185,0.0122402,0.000434782,-0.00454801,-0.0047216,8.68097e-05,-0.000533465,0,0,0,0,0,0,0,0.0551182,-35.9941,-0.260912,26.8796,0.795284,2.98638,0.0779268,
0.0406906,0.0263356,-0.0487113,-1.76172,0.0167181,0.260551,0.061028,0.000239924,0.016601,0.000231785,-0.0217681,-0.00319269,0.033149,-0.000250425,-0.0156949,-1.87105,-0.0137094,3.01438,0.328489,-5.69987,0.0359397,0.0458621,26.5039,0.0461212,-24.2428,-0.665711,1.26429,-0.0208347,0.0406814,0.02612,-0.0487205,-1.76161,0.0167808,0.260641,0.0610293,0.00102185,0.0122402,0.000434782,-0.00454801,-0.0047216,8.68097e-05,-0.000533465,0,0,0,0,0,0,0,0.0551182,-35.9941,-0.260912,26.8796,0.795284,2.98638,0.0779268,
0.0406913,0.0263656,-0.0487105,-1.76173,0.0167117,0.260526,0.0610278,0.00021047,0.0140311,0.000205044,-0.0178198,-0.00271446,0.0259084,-0.000203411,-0.0184089,-1.60617,-0.0167136,2.46766,0.298893,-4.52538,0.0293837,0.039894,27.0277,0.0366748,-24.075,-0.663563,0.879436,-0.018832,0.0406814,0.02612,-0.0487205,-1.76161,0.0167808,0.260641,0.0610293,0.00102185,0.0122402,0.000434782,-0.00454801,-0.0047216,8.68097e-05,-0.000533465,0,0,0,0,0,0,0,0.0551182,-35.9941,-0.260912,26.8796,0.795284,2.98638,0.0779268,
0.0406933,0.0268124,-0.0487115,-1.76228,0.0166227,0.26092,0.0610314,0.000469301,0.0236758,0.00044788,-0.0287862,-0.00627771,0.0270062,-5.0744e-05,0.161769,6.02797,0.151773,-6.85401,-2.22703,0.68613,0.0954171,-1.85433e-05,31.6559,0.011096,-23.337,-1.05709,-2.32252,0.00112688,0.0406812,0.0263143,-0.0487228,-1.7617,0.0167869,0.260669,0.0610269,0.00138161,0.00626467,-0.000747572,-0.0153003,-0.000714288,0.0099831,-0.000248046,0.0449699,-0.746945,-0.147794,-1.34404,0.500914,1.23704,0.0356773,0.106693,-35.4427,-0.185533,25.856,0.63049,3.43773,0.0577852,
0.0406512,0.0272856,-0.0487586,-1.76253,0.0174652,0.260217,0.0610143,-0.000676601,0.0307707,-0.000819341,-0.0291616,0.0160397,0.00402572,-0.000467566,-0.716189,4.43427,-0.792014,-0.234623,13.9484,-14.3628,-0.260514,0.496214,0.207554,0.498195,-0.292963,3.20539,-2.11616,-0.00231571,0.0406812,0.0263143,-0.0487228,-1.7617,0.0167869,0.260669,0.0610269,0.00138161,0.00626467,-0.000747572,-0.0153003,-0.000714288,0.0099831,-0.000248046,0,0,0,0,0,0,0,0.106693,-35.4427,-0.185533,25.856,0.63049,3.43773,0.0577852,
0.0405885,0.0276638,-0.0488229,-1.76269,0.0189069,0.259076,0.0610032,-0.00210712,0.0340719,-0.0022621,-0.0273719,0.0488745,-0.0252847,-0.000651032,-0.894074,2.06329,-0.901724,1.11856,20.5218,-18.319,-0.114667,0.491242,0.20714,0.493243,-0.289562,3.17803,-2.09801,-0.00226995,0.0406812,0.0263143,-0.0487228,-1.7617,0.0167869,0.260669,0.0610269,0.00138161,0.00626467,-0.000747572,-0.0153003,-0.000714288,0.0099831,-0.000248046,0,0,0,0,0,0,0,0.106693,-35.4427,-0.185533,25.856,0.63049,3.43773,0.0577852,
0.0405253,0.0279576,-0.0488861,-1.76282,0.020701,0.257699,0.0609967,-0.00326793,0.0346028,-0.00338967,-0.0251577,0.0839527,-0.0546733,-0.000684866,-0.725504,0.33178,-0.704734,1.38386,21.9239,-18.3679,-0.0211458,0.486249,0.206081,0.488252,-0.286392,3.15051,-2.07987,-0.00222625,0.0406812,0.0263143,-0.0487228,-1.7617,0.0167869,0.260669,0.0610269,0.00138161,0.00626467,-0.000747572,-0.0153003,-0.000714288,0.0099831,-0.000248046,0,0,0,0,0,0,0,0.106693,-35.4427,-0.185533,25.856,0.63049,3.43773,0.0577852,
0.0406885,0.0316822,-0.0487112,-1.76786,0.0163318,0.268401,0.0610251,-0.00232886,0.0703419,-0.00239098,-0.0512974,0.0582417,-0.0367872,-0.000471419,0.586914,22.337,0.624183,-16.3373,-16.0694,11.1788,0.133404,0.000347057,31.8221,0.0130713,-23.3029,-1.05086,-2.29342,0.00102178,0.0406771,0.0299758,-0.0487241,-1.76661,0.0166887,0.268123,0.061022,-0.000930631,0.185856,0.000625171,-0.153646,-0.0153115,0.120638,-0.00187527,-0.28903,22.4489,0.171593,-17.2933,-1.82465,13.8319,-0.203403,0.106693,-18.9983,-0.213304,19.9051,0.807186,1.11046,0.0980684,
0.0405771,0.0331376,-0.0488393,-1.76836,0.0192727,0.265138,0.0609682,-0.00464626,0.0926587,-0.0051142,-0.0535049,0.120115,-0.111009,-0.00179974,-1.44838,13.948,-1.70201,-1.37969,38.671,-46.3888,-0.8302,4.30613,1.08904,4.28091,-1.91967,10.9491,-10.4422,-0.00801072,0.0406771,0.0299758,-0.0487241,-1.76661,0.0166887,0.268123,0.061022,-0.000930631,0.185856,0.000625171,-0.153646,-0.0153115,0.120638,-0.00187527,0,0,0,0,0,0,0,0.106693,-18.9983,-0.213304,19.9051,0.807186,1.11046,0.0980684,
0.0404357,0.0342489,-0.0489871,-1.7687,0.0242043,0.260028,0.0609328,-0.00725224,0.10191,-0.00778707,-0.0514245,0.219382,-0.216559,-0.00232328,-1.62874,5.78179,-1.67055,1.30028,62.0414,-65.9688,-0.327213,4.24651,1.17323,4.21722,-1.84323,10.9491,-10.2229,-0.00720949,0.0406771,0.0299758,-0.0487241,-1.76661,0.0166887,0.268123,0.061022,-0.000930631,0.185856,0.000625171,-0.153646,-0.0153115,0.120638,-0.00187527,0,0,0,0,0,0,0,0.106693,-18.9983,-0.213304,19.9051,0.807186,1.11046,0.0980684,
0.040318,0.0350904,-0.049106,-1.76901,0.0303308,0.253853,0.0609132,-0.00874579,0.102565,-0.00920212,-0.048833,0.328669,-0.327615,-0.00235052,-0.933469,0.409432,-0.884407,1.61964,68.3048,-69.4098,-0.0170275,4.17702,1.22472,4.14521,-1.77776,10.918,-9.99979,-0.00673058,0.0406771,0.0299758,-0.0487241,-1.76661,0.0166887,0.268123,0.061022,-0.000930631,0.185856,0.000625171,-0.153646,-0.0153115,0.120638,-0.00187527,0,0,0,0,0,0,0,0.106693,-18.9983,-0.213304,19.9051,0.807186,1.11046,0.0980684,
0.0406885,0.0316822,-0.0487112,-1.76786,0.0163318,0.268401,0.0610251,-0.00671116,0.124711,-0.00704094,-0.0702377,0.254015,-0.255141,-0.00180395,1.27165,13.8417,1.35074,-13.3779,-46.659,45.2965,0.341611,-0.00107981,31.9019,0.0127885,-23.3128,-1.06556,-2.25592,0.000872107,0.0406079,0.033711,-0.0487876,-1.77087,0.0204512,0.263157,0.0610248,-0.00243476,0.103033,-0.00352214,-0.0216921,0.0118942,-0.29881,-0.000792295,-0.188016,-10.3528,-0.518413,16.4943,3.40071,-52.4311,0.135372,0.967594,-40.612,0.663466,29.4186,0.1535,3.76916,0.0440523,
0.0410531,0.032832,-0.0483419,-1.76882,0.0183373,0.264537,0.0610375,0.003747,0.128513,0.00360089,-0.0802044,0.253349,-0.300721,-0.00113379,6.53635,2.37572,6.65114,-6.22921,-0.416457,-28.4877,0.418846,29.6039,-3.07588,29.3131,-13.1231,10.9344,-14.2559,0.0276404,0.0406079,0.033711,-0.0487876,-1.77087,0.0204512,0.263157,0.0610248,-0.00243476,0.103033,-0.00352214,-0.0216921,0.0118942,-0.29881,-0.000792295,0,0,0,0,0,0,0,0.967594,-40.612,0.663466,29.4186,0.1535,3.76916,0.0440523,
0.0417263,0.0336127,-0.0476737,-1.76964,0.0220242,0.258052,0.0610712,0.0198269,0.122328,0.0195853,-0.0847579,0.29485,-0.402698,-6.27787e-05,10.0499,-3.86518,9.99023,-2.84592,25.9386,-63.7357,0.669383,28.629,-1.34485,28.2567,-11.2498,10.9344,-14.2559,0.0448353,0.0406079,0.033711,-0.0487876,-1.77087,0.0204512,0.263157,0.0610248,-0.00243476,0.103033,-0.00352214,-0.0216921,0.0118942,-0.29881,-0.000792295,0,0,0,0,0,0,0,0.967594,-40.612,0.663466,29.4186,0.1535,3.76916,0.0440523,
0.0406031,0.0347393,-0.0487907,-1.77177,0.020329,0.261827,0.06103,0.0157405,0.123569,0.0155904,-0.0902071,0.232826,-0.355397,7.91938e-05,-2.554,0.775232,-2.49676,-3.40574,-38.7652,29.5632,0.0887328,-0.00107981,31.9019,0.0127885,-23.3128,-1.06556,-2.25592,0.000872107,0.0406079,0.033711,-0.0487876,-1.77087,0.0204512,0.263157,0.0610248,-0.00243476,0.103033,-0.00352214,-0.0216921,0.0118942,-0.29881,-0.000792295,0,0,0,0,0,0,0,0.967594,-40.612,0.663466,29.4186,0.1535,3.76916,0.0440523,
0.0412189,0.0350144,-0.0481505,-1.77315,0.0220185,0.25757,0.0612903,0.0279872,0.105734,0.0284757,-0.106767,0.2285,-0.390742,0.00657259,7.6542,-11.1465,8.05328,-10.35,-2.70401,-22.0904,4.05837,43.3581,-8.73126,42.9703,-23.4164,10.7587,-14.1784,0.316498,0.0405341,0.0402737,-0.0489511,-1.77218,0.0407929,0.242486,0.0609937,-0.00765234,0.230549,-0.0267146,-0.031675,0.896111,-0.767052,0.000762144,-0.652197,15.9395,-2.89905,-1.24786,110.527,-58.5302,0.194305,1.60236,-36.8907,1.58784,20.2026,2.80487,2.71447,-0.0365141,
0.0422695,0.0349893,-0.0470974,-1.77459,0.0253022,0.251076,0.0614513,0.0486541,0.0839579,0.0491094,-0.121276,0.264891,-0.47495,0.00928183,12.9168,-13.6102,12.8961,-9.06779,22.7449,-52.6301,1.69328,38.3321,-5.70197,37.91,-22.0771,10.7587,-14.1784,0.184153,0.0405341,0.0402737,-0.0489511,-1.77218,0.0407929,0.242486,0.0609937,-0.00765234,0.230549,-0.0267146,-0.031675,0.896111,-0.767052,0.000762144,0,0,0,0,0,0,0,1.60236,-36.8907,1.58784,20.2026,2.80487,2.71447,-0.0365141,
0.0436108,0.0348916,-0.045766,-1.77594,0.0299088,0.243019,0.0615168,0.0724578,0.0647252,0.0725726,-0.130754,0.327079,-0.581382,0.00906282,14.8773,-12.0205,14.6644,-5.92414,38.8669,-66.52,-0.136881,34.4781,-2.38579,34.062,-20.136,10.7587,-14.1784,0.0699506,0.0405341,0.0402737,-0.0489511,-1.77218,0.0407929,0.242486,0.0609937,-0.00765234,0.230549,-0.0267146,-0.031675,0.896111,-0.767052,0.000762144,0,0,0,0,0,0,0,1.60236,-36.8907,1.58784,20.2026,2.80487,2.71447,-0.0365141,
0.0406026,0.0419757,-0.0488555,-1.77347,0.044879,0.238694,0.0610404,0.0596784,0.0943307,0.0604496,-0.13691,0.363816,-0.559904,0.00841702,-7.98711,18.5034,-7.57683,-3.84769,22.961,13.4236,-0.403623,-0.212891,32.4181,-0.199077,-23.5003,-1.24129,-2.17842,0.00148669,0.0405341,0.0402737,-0.0489511,-1.77218,0.0407929,0.242486,0.0609937,-0.00765234,0.230549,-0.0267146,-0.031675,0.896111,-0.767052,0.000762144,0,0,0,0,0,0,0,1.60236,-36.8907,1.58784,20.2026,2.80487,2.71447,-0.0365141,
0.0414858,0.0426189,-0.0479638,-1.77563,0.0489414,0.233035,0.0614014,0.0698211,0.0915432,0.0706512,-0.163389,0.392614,-0.589387,0.0157583,6.33922,-1.74215,6.37597,-16.549,17.9985,-18.4266,4.58828,48.6903,-10.1695,47.7117,-29.9994,10.8213,-13.8828,0.404944,0.0420612,0.0439019,-0.0454893,-1.78034,0.0575606,0.214271,0.060978,0.064794,0.0584493,0.16591,-0.370641,0.530607,-0.845683,0.00056859,9.0558,-21.5125,24.078,-42.3707,-45.688,-9.82883,-0.0241941,12.7861,-39.7868,12.2598,15.1443,2.77374,-2.88123,0.198776,
0.0428543,0.0429121,-0.0466061,-1.77777,0.0536103,0.22556,0.0615836,0.090069,0.0805667,0.090464,-0.184341,0.430813,-0.658399,0.0171628,12.6549,-6.86034,12.383,-13.0951,23.8748,-43.1327,0.877816,41.6222,-5.53694,40.8664,-27.463,10.8213,-13.8828,0.186506,0.0420612,0.0439019,-0.0454893,-1.78034,0.0575606,0.214271,0.060978,0.064794,0.0584493,0.16591,-0.370641,0.530607,-0.845683,0.00056859,0,0,0,0,0,0,0,12.7861,-39.7868,12.2598,15.1443,2.77374,-2.88123,0.198776,
0.0445101,0.0431014,-0.0449723,-1.77976,0.0590703,0.216801,0.0616294,0.113451,0.0691838,0.113216,-0.197236,0.481149,-0.745686,0.0148761,14.614,-7.11428,14.22,-8.05915,31.4595,-54.5543,-1.42917,36.7016,-2.06364,36.0742,-25.171,10.8213,-13.8828,0.0344122,0.0420612,0.0439019,-0.0454893,-1.78034,0.0575606,0.214271,0.060978,0.064794,0.0584493,0.16591,-0.370641,0.530607,-0.845683,0.00056859,0,0,0,0,0,0,0,12.7861,-39.7868,12.2598,15.1443,2.77374,-2.88123,0.198776,
0.047199,0.044163,-0.0404487,-1.78841,0.0738523,0.186762,0.0610263,0.138846,0.0568974,0.137636,-0.220065,0.5395,-0.84569,0.00932739,15.8717,-7.67904,15.2623,-14.2686,36.4694,-62.5026,-3.46795,44.4468,-8.78399,43.3812,-35.0652,10.8213,-13.8828,0.166446,0.0420612,0.0439019,-0.0454893,-1.78034,0.0575606,0.214271,0.060978,0.064794,0.0584493,0.16591,-0.370641,0.530607,-0.845683,0.00056859,0,0,0,0,0,0,0,12.7861,-39.7868,12.2598,15.1443,2.77374,-2.88123,0.198776,
0.0492113,0.0442238,-0.0384794,-1.79079,0.0806829,0.176415,0.0608925,0.161386,0.0470371,0.159341,-0.235502,0.602367,-0.935211,0.00411586,14.0873,-6.16265,13.5658,-9.64818,39.2918,-55.9503,-3.2572,38.6443,-4.20088,37.8072,-31.9728,11.001,-13.5424,-0.0396702,0.0529164,0.0449334,-0.0401861,-1.79408,0.0702484,0.174342,0.0610581,0.463835,-0.107196,0.0738595,-0.55721,0.239252,-1.14352,-0.00017796,49.8801,-20.7057,-11.5063,-23.3212,-36.4194,-37.2291,-0.0933188,17.8603,-28.6546,17.1594,18.6594,2.43225,-2.70179,0.245468,
0.0512628,0.0442662,-0.0364718,-1.79314,0.0880378,0.166083,0.0607587,0.180395,0.0386889,0.177663,-0.247139,0.665765,-1.00647,-5.32628e-05,11.8811,-5.21765,11.4512,-7.27281,39.624,-44.539,-2.6057,34.6309,-1.96712,33.9213,-29.9702,11.001,-13.5424,-0.143175,0.0529164,0.0449334,-0.0401861,-1.79408,0.0702484,0.174342,0.0610581,0.463835,-0.107196,0.0738595,-0.55721,0.239252,-1.14352,-0.00017796,0,0,0,0,0,0,0,17.8603,-28.6546,17.1594,18.6594,2.43225,-2.70179,0.245468,
0.0594597,0.0448648,-0.0338547,-1.80211,0.0864581,0.141601,0.0606554,0.198064,0.0324906,0.194566,-0.2594,0.698259,-1.07707,-0.0035696,11.043,-3.87391,10.5646,-7.66296,20.3088,-44.1262,-2.19771,34.6309,-1.96712,33.9213,-29.9702,11.001,-13.5424,-0.143175,0.0529164,0.0449334,-0.0401861,-1.79408,0.0702484,0.174342,0.0610581,0.463835,-0.107196,0.0738595,-0.55721,0.239252,-1.14352,-0.00017796,0,0,0,0,0,0,0,17.8603,-28.6546,17.1594,18.6594,2.43225,-2.70179,0.245468,
0.0615725,0.0449222,-0.031791,-1.80454,0.0938015,0.131129,0.0605205,0.211269,0.0274279,0.207247,-0.268227,0.742193,-1.12348,-0.00622714,8.25319,-3.16419,7.92543,-5.51679,27.4584,-29.001,-1.66096,31.8387,-1.18286,31.2021,-28.6972,11.001,-13.5424,-0.173109,0.0529164,0.0449334,-0.0401861,-1.79408,0.0702484,0.174342,0.0610581,0.463835,-0.107196,0.0738595,-0.55721,0.239252,-1.14352,-0.00017796,0,0,0,0,0,0,0,17.8603,-28.6546,17.1594,18.6594,2.43225,-2.70179,0.245468,
0.0636352,0.0449718,-0.0297746,-1.80692,0.101634,0.121104,0.0603843,0.220584,0.023183,0.216207,-0.274285,0.789578,-1.1494,-0.00838735,5.82141,-2.65308,5.59984,-3.78664,29.6162,-16.1999,-1.35013,29.5387,-1.22166,28.9562,-27.9306,11.001,-12.7337,-0.168699,0.0529164,0.0449334,-0.0401861,-1.79408,0.0702484,0.174342,0.0610581,0.463835,-0.107196,0.0738595,-0.55721,0.239252,-1.14352,-0.00017796,0,0,0,0,0,0,0,17.8603,-28.6546,17.1594,18.6594,2.43225,-2.70179,0.245468,
0.0656399,0.0450193,-0.0278142,-1.80926,0.109797,0.111582,0.0602469,0.226584,0.0197349,0.221976,-0.277955,0.835732,-1.15755,-0.0101439,3.75028,-2.15509,3.60594,-2.29359,28.8459,-5.09899,-1.09783,27.6213,-0.79463,27.0653,-27.3343,11.0933,-11.3138,-0.161929,0.0627551,0.042757,-0.0250847,-1.81213,0.0991587,0.122856,0.0610462,0.599921,-0.107031,0.278753,-0.627316,0.981551,-1.61944,-0.0103633,17.0108,0.0206399,25.6117,-8.76322,92.7875,-59.4911,-1.27317,16.9716,-29.6544,16.1121,16.2671,3.70849,-2.62946,0.104477,
0.0761985,0.043655,-0.0119946,-1.82585,0.14495,0.0694157,0.0603674,0.237912,0.0211126,0.232938,-0.283748,0.902576,-1.13154,-0.010879,7.07992,0.861046,6.85101,-3.62081,41.7774,16.2575,-0.459464,25.6377,-0.816286,25.1287,-26.8217,11.0933,-10.6664,-0.164226,0.0627551,0.042757,-0.0250847,-1.81213,0.0991587,0.122856,0.0610462,0.599921,-0.107031,0.278753,-0.627316,0.981551,-1.61944,-0.0103633,0,0,0,0,0,0,0,16.9716,-29.6544,16.1121,16.2671,3.70849,-2.62946,0.104477,
0.0783258,0.0438371,-0.00991547,-1.82826,0.154223,0.0626562,0.0602712,0.243512,0.0214426,0.238329,-0.287364,0.953875,-1.07422,-0.0111067,3.49984,0.206297,3.36937,-2.25998,32.0619,35.8269,-0.142267,23.9882,-0.598939,23.5161,-26.2045,11.0933,-9.90919,-0.165774,0.0627551,0.042757,-0.0250847,-1.81213,0.0991587,0.122856,0.0610462,0.599921,-0.107031,0.278753,-0.627316,0.981551,-1.61944,-0.0103633,0,0,0,0,0,0,0,16.9716,-29.6544,16.1121,16.2671,3.70849,-2.62946,0.104477,
0.0803356,0.0439881,-0.00795108,-1.83063,0.163384,0.0573202,0.0601904,0.245056,0.0209298,0.239773,-0.289081,0.992115,-0.992776,-0.0109078,0.964972,-0.320534,0.902455,-1.07275,23.9,50.9019,0.12427,22.6949,-0.336263,22.2493,-25.5499,11.0933,-9.03243,-0.1572,0.0627551,0.042757,-0.0250847,-1.81213,0.0991587,0.122856,0.0610462,0.599921,-0.107031,0.278753,-0.627316,0.981551,-1.61944,-0.0103633,0,0,0,0,0,0,0,16.9716,-29.6544,16.1121,16.2671,3.70849,-2.62946,0.104477,
0.082244,0.0441085,-0.00608594,-1.83294,0.172425,0.0533176,0.0601219,0.243754,0.0197545,0.238447,-0.289079,1.01973,-0.894287,-0.0104379,-0.813269,-0.734556,-0.828805,0.000723128,17.257,61.5559,0.293723,21.7594,0.260867,21.3067,-24.6849,11.115,-7.47678,-0.144731,0.0791379,0.0434554,-0.00782777,-1.83253,0.137027,0.0620199,0.0607063,0.307455,0.0494956,0.767804,-0.62959,1.24654,-1.78025,-0.0191306,-36.5583,19.5659,61.1314,-0.284289,33.1236,-20.101,-1.09592,9.08466,-35.0221,8.31239,25.0586,4.12323,0.0557768,-0.0026396,
0.0939876,0.0469907,0.00669116,-1.84783,0.188235,0.0215241,0.060213,0.254357,0.028219,0.248663,-0.296702,1.06172,-0.820359,-0.00997195,6.62688,5.29035,6.38511,-4.76402,26.2436,46.205,0.291195,20.8799,0.326594,20.4376,-24.114,11.115,-5.20822,-0.126056,0.0791379,0.0434554,-0.00782777,-1.83253,0.137027,0.0620199,0.0607063,0.307455,0.0494956,0.767804,-0.62959,1.24654,-1.78025,-0.0191306,0,0,0,0,0,0,0,9.08466,-35.0221,8.31239,25.0586,4.12323,0.0557768,-0.0026396,
0.0961687,0.0473823,0.00881902,-1.8503,0.19781,0.0187759,0.0601612,0.258014,0.0323663,0.252127,-0.299088,1.08874,-0.724991,-0.00927244,2.28555,2.59206,2.16495,-1.49114,16.8893,59.6051,0.437197,20.1172,0.224031,19.6867,-23.6726,11.115,-3.27411,-0.110136,0.0791379,0.0434554,-0.00782777,-1.83253,0.137027,0.0620199,0.0607063,0.307455,0.0494956,0.767804,-0.62959,1.24654,-1.78025,-0.0191306,0,0,0,0,0,0,0,9.08466,-35.0221,8.31239,25.0586,4.12323,0.0557768,-0.0026396,
0.0981891,0.0476836,0.0107899,-1.85263,0.207144,0.0172586,0.0601228,0.25692,0.0334265,0.250973,-0.297648,1.10435,-0.617926,-0.00837768,-0.683695,0.662613,-0.721387,0.899742,9.75632,66.9156,0.559219,19.4537,0.0650455,19.0359,-23.3147,11.115,-1.62557,-0.0920031,0.0791379,0.0434554,-0.00782777,-1.83253,0.137027,0.0620199,0.0607063,0.307455,0.0494956,0.767804,-0.62959,1.24654,-1.78025,-0.0191306,0,0,0,0,0,0,0,9.08466,-35.0221,8.31239,25.0586,4.12323,0.0557768,-0.0026396,
0.11846,0.051188,0.0262412,-1.87183,0.248954,-0.0138465,0.0600862,0.259378,0.0385746,0.253194,-0.295103,1.12476,-0.487337,-0.00683971,1.53581,3.21758,1.38835,1.59081,12.7564,81.6181,0.961236,17.7672,-0.654272,17.3522,-21.6619,10.9104,2.4706,-0.0519361,0.100758,0.045808,0.0089837,-1.85409,0.184816,0.00701794,0.0603231,0.47914,0.143106,0.686337,-0.656846,1.50945,-1.37781,-0.00792431,21.4607,11.7013,-10.1834,-3.40703,32.8641,50.3057,1.40079,1.78089,-39.6123,2.06392,33.4534,2.8836,2.97356,-0.137222,
0.120422,0.0515453,0.0281505,-1.87395,0.258294,-0.0127191,0.0600921,0.256543,0.0397915,0.250287,-0.289062,1.13332,-0.361684,-0.00532425,-1.77183,0.76056,-1.817,3.77581,5.34949,78.533,0.947163,17.3209,-0.604379,16.9192,-21.3572,10.9104,3.26325,-0.0367517,0.100758,0.045808,0.0089837,-1.85409,0.184816,0.00701794,0.0603231,0.47914,0.143106,0.686337,-0.656846,1.50945,-1.37781,-0.00792431,0,0,0,0,0,0,0,1.78089,-39.6123,2.06392,33.4534,2.8836,2.97356,-0.137222,
0.122224,0.0518094,0.0299037,-1.87593,0.267375,-0.01092,0.0601106,0.250278,0.0384358,0.244061,-0.280882,1.13368,-0.244368,-0.00379734,-3.91537,-0.847343,-3.89102,5.1125,0.226222,73.3223,0.954314,16.9008,-0.505367,16.5124,-21.048,10.9104,3.90472,-0.0238888,0.100758,0.045808,0.0089837,-1.85409,0.184816,0.00701794,0.0603231,0.47914,0.143106,0.686337,-0.656846,1.50945,-1.37781,-0.00792431,0,0,0,0,0,0,0,1.78089,-39.6123,2.06392,33.4534,2.8836,2.97356,-0.137222,
0.12389,0.0520001,0.0315248,-1.87781,0.276243,-0.00859445,0.06014,0.24188,0.0355163,0.235776,-0.271515,1.12864,-0.137357,-0.0023014,-5.24897,-1.82467,-5.17815,5.85416,-3.1473,66.8823,0.934965,16.506,-0.367611,16.1305,-20.7358,10.9104,4.41348,-0.0104412,0.100758,0.045808,0.0089837,-1.85409,0.184816,0.00701794,0.0603231,0.47914,0.143106,0.686337,-0.656846,1.50945,-1.37781,-0.00792431,0,0,0,0,0,0,0,1.78089,-39.6123,2.06392,33.4534,2.8836,2.97356,-0.137222,
0.104762,0.0471444,0.0129018,-1.85803,0.196596,-0.00145181,0.0602465,0.293603,0.0618211,0.286573,-0.315627,1.19742,-0.321629,-0.0037557,32.3271,16.4405,31.748,-27.57,42.9824,-115.17,-0.908939,17.6065,-1.92073,17.1411,-20.8865,10.4746,2.68075,-0.0598878,0.120743,0.0479238,0.0279239,-1.87679,0.239726,-0.0239924,0.0601854,0.660808,0.0545624,0.416512,-0.71683,1.73048,-0.445486,-0.00281072,22.7086,-11.0679,-33.7281,-7.49797,27.6285,116.54,0.639199,-5.24517,-38.9656,-4.46227,32.7829,1.04522,5.7119,-0.00996382,
0.108225,0.048332,0.0162738,-1.86139,0.207956,-0.00738463,0.060186,0.321438,0.0791482,0.31356,-0.336452,1.24194,-0.405624,-0.00451876,17.3969,10.8294,16.8669,-13.0156,27.8302,-52.4968,-0.476911,17.1601,-1.87083,16.7082,-20.5818,10.4746,3.4734,-0.0447034,0.120743,0.0479238,0.0279239,-1.87679,0.239726,-0.0239924,0.0601854,0.660808,0.0545624,0.416512,-0.71683,1.73048,-0.445486,-0.00281072,0,0,0,0,0,0,0,-5.24517,-38.9656,-4.46227,32.7829,1.04522,5.7119,-0.00996382,
0.111248,0.0493136,0.0192188,-1.86437,0.21885,-0.0112075,0.0601404,0.332742,0.087859,0.324471,-0.343857,1.26591,-0.420071,-0.00475479,7.06496,5.44428,6.81922,-4.62798,14.9791,-9.02961,-0.147521,16.7401,-1.77182,16.3013,-20.2726,10.4746,4.11487,-0.0318404,0.120743,0.0479238,0.0279239,-1.87679,0.239726,-0.0239924,0.0601854,0.660808,0.0545624,0.416512,-0.71683,1.73048,-0.445486,-0.00281072,0,0,0,0,0,0,0,-5.24517,-38.9656,-4.46227,32.7829,1.04522,5.7119,-0.00996382,
0.11392,0.0500992,0.0218207,-1.86708,0.229286,-0.0133395,0.0601096,0.332986,0.0899272,0.324624,-0.342671,1.27362,-0.389356,-0.00457211,0.152621,1.29259,0.0959833,0.740964,4.81709,19.1971,0.114176,16.3453,-1.63407,15.9194,-19.9604,10.4746,4.62363,-0.0183929,0.120743,0.0479238,0.0279239,-1.87679,0.239726,-0.0239924,0.0601854,0.660808,0.0545624,0.416512,-0.71683,1.73048,-0.445486,-0.00281072,0,0,0,0,0,0,0,-5.24517,-38.9656,-4.46227,32.7829,1.04522,5.7119,-0.00996382,
0.137198,0.0519804,0.0439201,-1.89201,0.304073,-0.0253898,0.0602305,0.315577,0.0801203,0.307614,-0.321977,1.24821,-0.261234,-0.00283699,-10.8811,-6.12926,-10.6313,12.9339,-15.8813,80.076,1.08445,15.5497,-1.93169,15.0958,-18.9219,10.2078,5.40452,0.00493633,0.138184,0.0507174,0.047389,-1.89851,0.295429,-0.0284653,0.0601791,0.774599,-0.0291922,0.311181,-0.644745,1.46123,-0.12852,0.000762447,14.2238,-10.4693,-13.1664,9.01062,-33.6566,39.6208,0.446646,-5.92755,-36.617,-5.66039,23.317,0.758663,1.28899,0.017502,
0.138985,0.0522156,0.0456602,-1.89379,0.312565,-0.0229184,0.0602653,0.297127,0.0699744,0.289595,-0.301952,1.21088,-0.147202,-0.0013998,-11.531,-6.34119,-11.2618,12.5154,-23.3298,71.2699,0.898246,15.1882,-1.75107,14.7464,-18.615,10.2078,5.64159,0.0164054,0.138184,0.0507174,0.047389,-1.89851,0.295429,-0.0284653,0.0601791,0.774599,-0.0291922,0.311181,-0.644745,1.46123,-0.12852,0.000762447,0,0,0,0,0,0,0,-5.92755,-36.617,-5.66039,23.317,0.758663,1.28899,0.017502,
0.140634,0.0523773,0.0472647,-1.89543,0.320154,-0.0201144,0.0603011,0.278924,0.060024,0.27179,-0.282704,1.15841,-0.0476611,-0.000225849,-11.377,-6.219,-11.1285,12.0303,-32.7931,62.2133,0.733718,14.8189,-1.56651,14.3897,-18.3149,10.2078,5.8214,0.0300073,0.138184,0.0507174,0.047389,-1.89851,0.295429,-0.0284653,0.0601791,0.774599,-0.0291922,0.311181,-0.644745,1.46123,-0.12852,0.000762447,0,0,0,0,0,0,0,-5.92755,-36.617,-5.66039,23.317,0.758663,1.28899,0.017502,
0.158451,0.0485185,0.0661379,-1.89758,0.410461,-0.019253,0.0590803,0.223278,0.0453003,0.217115,-0.222638,0.941467,-0.016425,-0.000551971,-34.7788,-9.20235,-34.1715,37.5412,-135.591,19.5225,-0.203827,3.67789,-0.236777,3.58766,-1.50031,0.930741,1.7011,-0.00525251,0.138184,0.0507174,0.047389,-1.89851,0.295429,-0.0284653,0.0601791,0.774599,-0.0291922,0.311181,-0.644745,1.46123,-0.12852,0.000762447,0,0,0,0,0,0,0,-5.92755,-36.617,-5.66039,23.317,0.758663,1.28899,0.017502,
0.158457,0.04841,0.0661253,-1.89744,0.411049,-0.0183887,0.0590655,0.178761,0.0335273,0.173377,-0.174598,0.767878,0.00846628,-0.000812344,-27.8231,-7.35814,-27.3367,30.0247,-108.493,15.5571,-0.162733,3.52137,-0.469082,3.38177,-1.2493,1.01728,1.54324,-0.0104517,0.154235,0.0537525,0.0671464,-1.91921,0.351077,-0.0300916,0.0601967,0.33421,0.0482827,0.664825,-0.604269,1.66114,0.0869991,0.00591136,-55.0486,9.68436,44.2055,5.05947,24.9892,26.9398,0.643614,-2.6585,-37.1407,-3.21257,28.9188,1.01501,2.60186,-0.137222,
0.158462,0.0483017,0.0661127,-1.8973,0.411636,-0.0175284,0.0590507,0.143147,0.0241148,0.138386,-0.13618,0.628973,0.0282822,-0.00102012,-22.2585,-5.8828,-21.8689,24.0116,-86.8152,12.3849,-0.129859,3.45909,-0.482817,3.32518,-0.996067,1.44017,1.26498,-0.0130646,0.154235,0.0537525,0.0671464,-1.91921,0.351077,-0.0300916,0.0601967,0.33421,0.0482827,0.664825,-0.604269,1.66114,0.0869991,0.00591136,0,0,0,0,0,0,0,-2.6585,-37.1407,-3.21257,28.9188,1.01501,2.60186,-0.137222,
0.158468,0.0481937,0.0661002,-1.89716,0.412222,-0.0166719,0.0590359,0.114656,0.0165907,0.110395,-0.105458,0.517817,0.0440383,-0.00118582,-17.8069,-4.70256,-17.4946,19.2011,-69.4727,9.84754,-0.103562,3.40444,-0.491596,3.27642,-0.746513,1.92825,0.947012,-0.0155305,0.154235,0.0537525,0.0671464,-1.91921,0.351077,-0.0300916,0.0601967,0.33421,0.0482827,0.664825,-0.604269,1.66114,0.0869991,0.00591136,0,0,0,0,0,0,0,-2.6585,-37.1407,-3.21257,28.9188,1.01501,2.60186,-0.137222,
0.169295,0.0578619,0.081623,-1.92306,0.411319,-0.0477359,0.059819,0.0995094,0.0112513,0.0953195,-0.0819035,0.446729,0.0470426,-0.00146415,-9.46668,-3.33709,-9.42219,14.7215,-44.4299,1.87774,-0.173955,1.86795,-0.194487,1.78674,1.29162,6.97787,-1.80982,-0.00794271,0.154235,0.0537525,0.0671464,-1.91921,0.351077,-0.0300916,0.0601967,0.33421,0.0482827,0.664825,-0.604269,1.66114,0.0869991,0.00591136,0,0,0,0,0,0,0,-2.6585,-37.1407,-3.21257,28.9188,1.01501,2.60186,-0.137222,
0.169545,0.0577692,0.0818436,-1.92295,0.412459,-0.047136,0.0597992,0.0858672,0.00668309,0.0817691,-0.0626701,0.385883,0.0526315,-0.00166404,-8.52635,-2.85516,-8.46899,12.0209,-38.0288,3.49303,-0.124933,0.657805,-0.550116,0.542395,1.77403,7.05291,-1.95005,0.000146708,0.178477,0.0591557,0.0774494,-1.93065,0.389757,-0.0262744,0.0601888,0.494653,0.243863,0.483858,-0.120103,0.776229,0.0400371,-0.000572855,20.0554,24.4475,-22.6209,60.5208,-110.614,-5.87025,-0.810527,-9.75598,-47.773,-9.01274,33.8779,0.624081,1.20934,-0.0026396,
0.169746,0.0576682,0.0820162,-1.92282,0.413477,-0.0464355,0.0597803,0.0737267,0.00282074,0.0697312,-0.046984,0.334153,0.0596187,-0.00180526,-7.58783,-2.41396,-7.5237,9.80381,-32.3312,4.36701,-0.0882628,-0.0279057,-0.613279,-0.128199,1.98605,6.97603,-1.67248,-0.0339726,0.178477,0.0591557,0.0774494,-1.93065,0.389757,-0.0262744,0.0601888,0.494653,0.243863,0.483858,-0.120103,0.776229,0.0400371,-0.000572855,0,0,0,0,0,0,0,-9.75598,-47.773,-9.01274,33.8779,0.624081,1.20934,-0.0026396,
0.188302,0.0629441,0.0868166,-1.93261,0.408953,-0.0289121,0.0599283,0.0870614,0.00968771,0.0823099,-0.0415449,0.332522,0.0379321,-0.00231732,8.33417,4.29186,7.86171,3.39944,-1.01912,-13.5541,-0.320039,-0.0763636,-0.757744,-0.36168,2.56248,0.972929,1.7168,-0.0230116,0.178477,0.0591557,0.0774494,-1.93065,0.389757,-0.0262744,0.0601888,0.494653,0.243863,0.483858,-0.120103,0.776229,0.0400371,-0.000572855,0,0,0,0,0,0,0,-9.75598,-47.773,-9.01274,33.8779,0.624081,1.20934,-0.0026396,
0.189185,0.0631288,0.0876454,-1.93269,0.41115,-0.029113,0.0598978,0.0917254,0.0123675,0.0865682,-0.0354443,0.320955,0.0253234,-0.00261435,2.915,1.6749,2.66141,3.8129,-7.2296,-7.88044,-0.185643,-0.0763636,-0.757744,-0.36168,2.56248,0.972929,1.7168,-0.0230116,0.178477,0.0591557,0.0774494,-1.93065,0.389757,-0.0262744,0.0601888,0.494653,0.243863,0.483858,-0.120103,0.776229,0.0400371,-0.000572855,0,0,0,0,0,0,0,-9.75598,-47.773,-9.01274,33.8779,0.624081,1.20934,-0.0026396,
0.189882,0.0632325,0.0882936,-1.93273,0.413018,-0.0291253,0.0598708,0.0907887,0.0124865,0.085458,-0.0291835,0.303446,0.0199516,-0.00276813,-0.5854,0.074369,-0.693865,3.91299,-10.9432,-3.35739,-0.096112,-0.0763636,-0.757744,-0.36168,2.56248,0.972929,1.7168,-0.0230116,0.178477,0.0591557,0.0774494,-1.93065,0.389757,-0.0262744,0.0601888,0.494653,0.243863,0.483858,-0.120103,0.776229,0.0400371,-0.000572855,0,0,0,0,0,0,0,-9.75598,-47.773,-9.01274,33.8779,0.624081,1.20934,-0.0026396,
0.190432,0.0632778,0.0888005,-1.93272,0.414621,-0.0289623,0.0598462,0.0863947,0.0111223,0.0810406,-0.0230881,0.28284,0.0200363,-0.00282802,-2.74627,-0.852632,-2.76089,3.80957,-12.8788,0.052956,-0.0374323,0.00829085,-1.12643,-0.325986,2.29842,0.803223,1.53716,-0.0213461,0.188916,0.0629842,0.0887307,-1.93353,0.416109,-0.0269983,0.060186,0.529151,0.0968387,0.0721965,-0.0296301,0.688354,-0.0183742,0.000784853,4.31224,-18.378,-51.4576,11.3091,-10.9844,-7.30141,0.169713,-19.2418,-41.6832,-17.8082,24.162,-1.47705,-0.0769747,-0.00996382,
0.198592,0.0551131,0.0954214,-1.92085,0.484038,0.0548722,0.0585619,0.0692491,0.00675672,0.0643315,-0.0154447,0.237892,0.0351577,-0.00261413,-10.716,-2.7285,-10.4432,4.77717,-28.0925,9.45087,0.133682,0.00829085,-1.12643,-0.325986,2.29842,0.803223,1.53716,-0.0213461,0.188916,0.0629842,0.0887307,-1.93353,0.416109,-0.0269983,0.060186,0.529151,0.0968387,0.0721965,-0.0296301,0.688354,-0.0183742,0.000784853,0,0,0,0,0,0,0,-19.2418,-41.6832,-17.8082,24.162,-1.47705,-0.0769747,-0.00996382,
0.198592,0.0551131,0.0954214,-1.92085,0.484038,0.0548722,0.0585619,0.0555327,0.00326424,0.0509642,-0.00932989,0.201933,0.0472548,-0.00244302,-8.57279,-2.1828,-8.35454,3.82174,-22.474,7.56069,0.106945,0.00829085,-1.12643,-0.325986,2.29842,0.803223,1.53716,-0.0213461,0.188916,0.0629842,0.0887307,-1.93353,0.416109,-0.0269983,0.060186,0.529151,0.0968387,0.0721965,-0.0296301,0.688354,-0.0183742,0.000784853,0,0,0,0,0,0,0,-19.2418,-41.6832,-17.8082,24.162,-1.47705,-0.0769747,-0.00996382,
0.198592,0.0551131,0.0954214,-1.92085,0.484038,0.0548722,0.0585619,0.0445595,0.000470247,0.0402704,-0.00443806,0.173167,0.0569325,-0.00230613,-6.85823,-1.74624,-6.68363,3.05739,-17.9792,6.04856,0.0855563,0.00829085,-1.12643,-0.325986,2.29842,0.803223,1.53716,-0.0213461,0.188916,0.0629842,0.0887307,-1.93353,0.416109,-0.0269983,0.060186,0.529151,0.0968387,0.0721965,-0.0296301,0.688354,-0.0183742,0.000784853,0,0,0,0,0,0,0,-19.2418,-41.6832,-17.8082,24.162,-1.47705,-0.0769747,-0.00996382,
0.198592,0.0551131,0.0954214,-1.92085,0.484038,0.0548722,0.0585619,0.035781,-0.00176494,0.0317154,-0.000524604,0.150153,0.0646746,-0.00219662,-5.48659,-1.39699,-5.3469,2.44591,-14.3834,4.83884,0.068445,0.0690968,-1.31781,-0.297594,2.15053,0.711595,1.4163,-0.020272,0.196415,0.0639627,0.0998967,-1.93421,0.429799,-0.0237956,0.0601744,0.309185,-0.0159316,0.0173166,-0.0169586,0.381444,0.0886525,0.000160976,-27.4958,-14.0963,-6.85998,1.58394,-38.3637,13.3783,-0.0779845,-15.084,-37.466,-14.8089,23.4915,0.837399,1.73394,0.0641939,
0.201922,0.0538829,0.102506,-1.92063,0.488317,0.0609029,0.0586344,0.0287579,-0.00362644,0.0248618,0.0025156,0.131545,0.0702662,-0.00210561,-4.38942,-1.16344,-4.28351,1.90013,-11.6303,3.4947,0.0568802,0.0690968,-1.31781,-0.297594,2.15053,0.711595,1.4163,-0.020272,0.196415,0.0639627,0.0998967,-1.93421,0.429799,-0.0237956,0.0601744,0.309185,-0.0159316,0.0173166,-0.0169586,0.381444,0.0886525,0.000160976,0,0,0,0,0,0,0,-15.084,-37.466,-14.8089,23.4915,0.837399,1.73394,0.0641939,
0.201922,0.0538829,0.102506,-1.92063,0.488317,0.0609029,0.0586344,0.0231394,-0.00511564,0.0193789,0.00494777,0.116658,0.0747394,-0.0020328,-3.51153,-0.93075,-3.42681,1.5201,-9.30425,2.79576,0.0455042,0.0690968,-1.31781,-0.297594,2.15053,0.711595,1.4163,-0.020272,0.196415,0.0639627,0.0998967,-1.93421,0.429799,-0.0237956,0.0601744,0.309185,-0.0159316,0.0173166,-0.0169586,0.381444,0.0886525,0.000160976,0,0,0,0,0,0,0,-15.084,-37.466,-14.8089,23.4915,0.837399,1.73394,0.0641939,
0.201922,0.0538829,0.102506,-1.92063,0.488317,0.0609029,0.0586344,0.0186447,-0.006307,0.0149925,0.0068935,0.104749,0.078318,-0.00197455,-2.80923,-0.7446,-2.74145,1.21608,-7.4434,2.23661,0.0364033,0.0690968,-1.31781,-0.297594,2.15053,0.711595,1.4163,-0.020272,0.196415,0.0639627,0.0998967,-1.93421,0.429799,-0.0237956,0.0601744,0.309185,-0.0159316,0.0173166,-0.0169586,0.381444,0.0886525,0.000160976,0,0,0,0,0,0,0,-15.084,-37.466,-14.8089,23.4915,0.837399,1.73394,0.0641939,
0.201922,0.0538829,0.102506,-1.92063,0.488317,0.0609029,0.0586344,0.0150489,-0.00726009,0.0114835,0.00845008,0.0952211,0.0811808,-0.00192796,-2.24738,-0.59568,-2.19316,0.972866,-5.95472,1.78929,0.0291227,0.0604263,-1.3145,-0.315819,2.06629,0.663,1.36919,-0.0199671,0.201161,0.0642414,0.103081,-1.93425,0.441454,-0.0172604,0.0601777,0.00954015,0.0168993,0.214415,0.0242254,0.268795,0.207863,0.000824057,-37.4556,4.10387,24.6373,5.148,-14.0812,14.9013,0.082885,-5.74902,-34.5461,-5.71196,24.4635,1.88202,1.38238,-0.0227812,
0.204813,0.0549909,0.103862,-1.92073,0.495443,0.0690564,0.0586723,0.0121722,-0.00789147,0.00865657,0.00961439,0.087343,0.0829996,-0.00188767,-1.79794,-0.394608,-1.76683,0.727692,-4.92381,1.13672,0.0251777,0.0604263,-1.3145,-0.315819,2.06629,0.663,1.36919,-0.0199671,0.201161,0.0642414,0.103081,-1.93425,0.441454,-0.0172604,0.0601777,0.00954015,0.0168993,0.214415,0.0242254,0.268795,0.207863,0.000824057,0,0,0,0,0,0,0,-5.74902,-34.5461,-5.71196,24.4635,1.88202,1.38238,-0.0227812,
0.204813,0.0549909,0.103862,-1.92073,0.495443,0.0690564,0.0586723,0.00987079,-0.00839656,0.00639503,0.0105458,0.0810405,0.0844546,-0.00185545,-1.43836,-0.315686,-1.41346,0.582153,-3.93905,0.909377,0.0201422,0.0604263,-1.3145,-0.315819,2.06629,0.663,1.36919,-0.0199671,0.201161,0.0642414,0.103081,-1.93425,0.441454,-0.0172604,0.0601777,0.00954015,0.0168993,0.214415,0.0242254,0.268795,0.207863,0.000824057,0,0,0,0,0,0,0,-5.74902,-34.5461,-5.71196,24.4635,1.88202,1.38238,-0.0227812,
0.204813,0.0549909,0.103862,-1.92073,0.495443,0.0690564,0.0586723,0.0080297,-0.00880064,0.0045858,0.011291,0.0759985,0.0856186,-0.00182966,-1.15068,-0.252549,-1.13077,0.465723,-3.15124,0.727502,0.0161137,0.0604263,-1.3145,-0.315819,2.06629,0.663,1.36919,-0.0199671,0.201161,0.0642414,0.103081,-1.93425,0.441454,-0.0172604,0.0601777,0.00954015,0.0168993,0.214415,0.0242254,0.268795,0.207863,0.000824057,0,0,0,0,0,0,0,-5.74902,-34.5461,-5.71196,24.4635,1.88202,1.38238,-0.0227812,
0.204813,0.0549909,0.103862,-1.92073,0.495443,0.0690564,0.0586723,0.00655682,-0.00912391,0.00313842,0.0118871,0.071965,0.0865498,-0.00180904,-0.920547,-0.202039,-0.904615,0.372578,-2.52099,0.582001,0.012891,0.0750707,-1.33868,-0.29863,1.99743,0.651033,1.31607,-0.0195815,0.203565,0.0632988,0.104424,-1.934,0.44841,-0.0111538,0.06017,-0.0599736,-0.0575762,0.0912761,-0.00910265,0.155227,0.198345,0.00139664,-8.68922,-9.30944,-15.3924,-4.16601,-14.1959,-1.18967,0.0715726,-1.86902,-33.1218,-1.78832,24.7372,3.39721,1.82,0.00376909,
0.204813,0.0549909,0.103862,-1.92073,0.495443,0.0690564,0.0586723,0.00537852,-0.00938252,0.00198051,0.012364,0.0687381,0.0872947,-0.00179254,-0.736438,-0.161631,-0.723692,0.298062,-2.01679,0.465601,0.0103128,0.0750707,-1.33868,-0.29863,1.99743,0.651033,1.31607,-0.0195815,0.203565,0.0632988,0.104424,-1.934,0.44841,-0.0111538,0.06017,-0.0599736,-0.0575762,0.0912761,-0.00910265,0.155227,0.198345,0.00139664,0,0,0,0,0,0,0,-1.86902,-33.1218,-1.78832,24.7372,3.39721,1.82,0.00376909,
0.204813,0.0549909,0.103862,-1.92073,0.495443,0.0690564,0.0586723,0.00443588,-0.0095894,0.00105418,0.0127455,0.0661566,0.0878907,-0.00177934,-0.58915,-0.129305,-0.578954,0.23845,-1.61343,0.372481,0.00825023,0.0750707,-1.33868,-0.29863,1.99743,0.651033,1.31607,-0.0195815,0.203565,0.0632988,0.104424,-1.934,0.44841,-0.0111538,0.06017,-0.0599736,-0.0575762,0.0912761,-0.00910265,0.155227,0.198345,0.00139664,0,0,0,0,0,0,0,-1.86902,-33.1218,-1.78832,24.7372,3.39721,1.82,0.00376909,
0.204813,0.0549909,0.103862,-1.92073,0.495443,0.0690564,0.0586723,0.00368177,-0.00975492,0.000313124,0.0130508,0.0640914,0.0883675,-0.00176878,-0.47132,-0.103444,-0.463163,0.19076,-1.29075,0.297985,0.00660018,0.0750707,-1.33868,-0.29863,1.99743,0.651033,1.31607,-0.0195815,0.203565,0.0632988,0.104424,-1.934,0.44841,-0.0111538,0.06017,-0.0599736,-0.0575762,0.0912761,-0.00910265,0.155227,0.198345,0.00139664,0,0,0,0,0,0,0,-1.86902,-33.1218,-1.78832,24.7372,3.39721,1.82,0.00376909,
0.204595,0.053108,0.102766,-1.92046,0.497623,0.0740146,0.0587328,0.00307862,-0.00991186,-0.000254036,0.013211,0.0623787,0.0881287,-0.0017571,-0.376965,-0.0980935,-0.354475,0.100177,-1.07046,-0.149215,0.0072968,0.0867769,-1.27431,-0.285221,1.91735,0.640269,1.26632,-0.0193391,0.204593,0.0627935,0.104261,-1.93306,0.453748,-0.00115391,0.0601682,0.0671216,0.0216422,-0.0345251,0.0287926,0.140201,0.352133,0.00170015,15.8869,9.90231,-15.7251,4.73691,-1.87824,19.2235,0.0379386,-1.08349,-36.6924,-0.93535,24.162,3.21319,0.281912,-0.0227812,
0.204595,0.053108,0.102766,-1.92046,0.497623,0.0740146,0.0587328,0.00259611,-0.0100374,-0.000707764,0.0133393,0.0610085,0.0879378,-0.00174776,-0.301572,-0.0784748,-0.28358,0.0801419,-0.856369,-0.119372,0.00583744,0.0867769,-1.27431,-0.285221,1.91735,0.640269,1.26632,-0.0193391,0.204593,0.0627935,0.104261,-1.93306,0.453748,-0.00115391,0.0601682,0.0671216,0.0216422,-0.0345251,0.0287926,0.140201,0.352133,0.00170015,0,0,0,0,0,0,0,-1.08349,-36.6924,-0.93535,24.162,3.21319,0.281912,-0.0227812,
0.204595,0.053108,0.102766,-1.92046,0.497623,0.0740146,0.0587328,0.00221009,-0.0101379,-0.00107075,0.0134418,0.0599123,0.087785,-0.00174029,-0.241258,-0.0627798,-0.226864,0.0641135,-0.685095,-0.0954975,0.00466995,0.0867769,-1.27431,-0.285221,1.91735,0.640269,1.26632,-0.0193391,0.204593,0.0627935,0.104261,-1.93306,0.453748,-0.00115391,0.0601682,0.0671216,0.0216422,-0.0345251,0.0287926,0.140201,0.352133,0.00170015,0,0,0,0,0,0,0,-1.08349,-36.6924,-0.93535,24.162,3.21319,0.281912,-0.0227812,
0.204595,0.053108,0.102766,-1.92046,0.497623,0.0740146,0.0587328,0.00190128,-0.0102182,-0.00136113,0.0135239,0.0590354,0.0876627,-0.00173431,-0.193006,-0.0502239,-0.181491,0.0512908,-0.548076,-0.076398,0.00373596,0.0867769,-1.27431,-0.285221,1.91735,0.640269,1.26632,-0.0193391,0.204593,0.0627935,0.104261,-1.93306,0.453748,-0.00115391,0.0601682,0.0671216,0.0216422,-0.0345251,0.0287926,0.140201,0.352133,0.00170015,0,0,0,0,0,0,0,-1.08349,-36.6924,-0.93535,24.162,3.21319,0.281912,-0.0227812,
0.205417,0.0544605,0.102319,-1.92007,0.50204,0.0837938,0.0587451,0.00165471,-0.0100993,-0.00160858,0.0134958,0.0582944,0.0868693,-0.00172573,-0.154108,0.0743117,-0.154653,-0.0175517,-0.463101,-0.495886,0.00536578,0.0966645,-1.20099,-0.274189,1.84519,0.639569,1.21205,-0.0190203,0.205247,0.0626798,0.10348,-1.93258,0.457863,0.0105629,0.0601611,0.0399276,-0.0244276,-0.050393,0.00182964,0.118104,0.360337,0.00190845,-3.39924,-5.75874,-1.98349,-3.37037,-2.7622,1.02546,0.0260373,-0.222592,-34.6968,0.43733,26.2051,3.46405,0.115286,-0.0163725,
0.205417,0.0544605,0.102319,-1.92007,0.50204,0.0837938,0.0587451,0.00145745,-0.0100042,-0.00180653,0.0134734,0.0577017,0.0862346,-0.00171886,-0.123286,0.0594494,-0.123722,-0.0140414,-0.370481,-0.396709,0.00429262,0.0966645,-1.20099,-0.274189,1.84519,0.639569,1.21205,-0.0190203,0.205247,0.0626798,0.10348,-1.93258,0.457863,0.0105629,0.0601611,0.0399276,-0.0244276,-0.050393,0.00182964,0.118104,0.360337,0.00190845,0,0,0,0,0,0,0,-0.222592,-34.6968,0.43733,26.2051,3.46405,0.115286,-0.0163725,
0.205417,0.0544605,0.102319,-1.92007,0.50204,0.0837938,0.0587451,0.00129965,-0.00992812,-0.0019649,0.0134554,0.0572274,0.0857268,-0.00171337,-0.098629,0.0475595,-0.0989778,-0.0112331,-0.296385,-0.317367,0.0034341,0.0966645,-1.20099,-0.274189,1.84519,0.639569,1.21205,-0.0190203,0.205247,0.0626798,0.10348,-1.93258,0.457863,0.0105629,0.0601611,0.0399276,-0.0244276,-0.050393,0.00182964,0.118104,0.360337,0.00190845,0,0,0,0,0,0,0,-0.222592,-34.6968,0.43733,26.2051,3.46405,0.115286,-0.0163725,
0.205494,0.0541103,0.101022,-1.91983,0.505245,0.0922257,0.0587699,0.00117385,-0.00977689,-0.00208334,0.0133422,0.0568377,0.084568,-0.00170499,-0.0786221,0.094518,-0.0740251,-0.0707278,-0.243615,-0.724211,0.00523373,0.0966645,-1.20099,-0.274189,1.84519,0.639569,1.21205,-0.0190203,0.205247,0.0626798,0.10348,-1.93258,0.457863,0.0105629,0.0601611,0.0399276,-0.0244276,-0.050393,0.00182964,0.118104,0.360337,0.00190845,0,0,0,0,0,0,0,-0.222592,-34.6968,0.43733,26.2051,3.46405,0.115286,-0.0163725,
0.205494,0.0541103,0.101022,-1.91983,0.505245,0.0922257,0.0587699,0.00107321,-0.00965591,-0.00217809,0.0132517,0.0565258,0.0836411,-0.00169829,-0.0628977,0.0756144,-0.0592201,-0.0565822,-0.194892,-0.579369,0.00418698,0.0979218,-1.13965,-0.271269,1.76377,0.635915,1.15003,-0.0187269,0.204668,0.0621334,0.104004,-1.93165,0.461975,0.0234246,0.0601505,-0.0495729,0.00032717,0.0481301,0.0251313,0.124954,0.384663,0.000906455,-11.1876,3.09435,12.3154,2.91271,0.856268,3.04072,-0.125249,0.689884,-34.8952,0.762648,24.5865,3.2315,-0.467905,0.0101778,
0.205494,0.0541103,0.101022,-1.91983,0.505245,0.0922257,0.0587699,0.000992706,-0.00955912,-0.00225389,0.0131793,0.0562764,0.0828995,-0.00169293,-0.0503181,0.0604915,-0.0473761,-0.0452658,-0.155914,-0.463495,0.00334959,0.0979218,-1.13965,-0.271269,1.76377,0.635915,1.15003,-0.0187269,0.204668,0.0621334,0.104004,-1.93165,0.461975,0.0234246,0.0601505,-0.0495729,0.00032717,0.0481301,0.0251313,0.124954,0.384663,0.000906455,0,0,0,0,0,0,0,0.689884,-34.8952,0.762648,24.5865,3.2315,-0.467905,0.0101778,
0.205494,0.0541103,0.101022,-1.91983,0.505245,0.0922257,0.0587699,0.000928299,-0.00948169,-0.00231453,0.0131213,0.0560768,0.0823062,-0.00168865,-0.0402545,0.0483932,-0.0379009,-0.0362126,-0.124731,-0.370796,0.00267967,0.0979218,-1.13965,-0.271269,1.76377,0.635915,1.15003,-0.0187269,0.204668,0.0621334,0.104004,-1.93165,0.461975,0.0234246,0.0601505,-0.0495729,0.00032717,0.0481301,0.0251313,0.124954,0.384663,0.000906455,0,0,0,0,0,0,0,0.689884,-34.8952,0.762648,24.5865,3.2315,-0.467905,0.0101778,
0.204835,0.0552185,0.101844,-1.92077,0.503276,0.0931142,0.0589607,0.000876989,-0.00938111,-0.00237777,0.013099,0.0560946,0.0819089,-0.0016859,-0.0320682,0.0628608,-0.0395242,-0.0139663,0.0111219,-0.248327,0.00171924,0.0979218,-1.13965,-0.271269,1.76377,0.635915,1.15003,-0.0187269,0.204668,0.0621334,0.104004,-1.93165,0.461975,0.0234246,0.0601505,-0.0495729,0.00032717,0.0481301,0.0251313,0.124954,0.384663,0.000906455,0,0,0,0,0,0,0,0.689884,-34.8952,0.762648,24.5865,3.2315,-0.467905,0.0101778,
0.204835,0.0552185,0.101844,-1.92077,0.503276,0.0931142,0.0589607,0.000835942,-0.00930065,-0.00242836,0.0130811,0.0561088,0.081591,-0.00168369,-0.0256546,0.0502886,-0.0316194,-0.0111731,0.00889753,-0.198662,0.00137539,0.0979218,-1.13965,-0.271269,1.76377,0.635915,1.15003,-0.0187269,0.204668,0.0621334,0.104004,-1.93165,0.461975,0.0234246,0.0601505,-0.0495729,0.00032717,0.0481301,0.0251313,0.124954,0.384663,0.000906455,0,0,0,0,0,0,0,0.689884,-34.8952,0.762648,24.5865,3.2315,-0.467905,0.0101778,
0.204835,0.0552185,0.101844,-1.92077,0.503276,0.0931142,0.0589607,0.000803104,-0.00923628,-0.00246884,0.0130668,0.0561202,0.0813367,-0.00168193,-0.0205237,0.0402309,-0.0252955,-0.00893845,0.00711802,-0.15893,0.00110031,0.0949021,-1.0659,-0.272842,1.69099,0.631753,1.09196,-0.0184021,0.205005,0.062032,0.103216,-1.93034,0.466221,0.0355573,0.0601499,0.0438031,-0.0030517,-0.0489373,0.0304227,0.113179,0.362604,0.00063923,11.672,-0.422359,-12.1334,0.661422,-1.47179,-2.75733,-0.033403,0.360599,-36.0695,0.838026,25.7092,3.28094,0.175711,0.0101778,
0.204792,0.055799,0.102013,-1.92161,0.499663,0.0878997,0.0590683,0.000776696,-0.00922733,-0.00250784,0.0131352,0.05626,0.0816665,-0.00168355,-0.016505,0.00559549,-0.0243778,0.0427175,0.0873446,0.206122,-0.00101199,0.0949021,-1.0659,-0.272842,1.69099,0.631753,1.09196,-0.0184021,0.205005,0.062032,0.103216,-1.93034,0.466221,0.0355573,0.0601499,0.0438031,-0.0030517,-0.0489373,0.0304227,0.113179,0.362604,0.00063923,0,0,0,0,0,0,0,0.360599,-36.0695,0.838026,25.7092,3.28094,0.175711,0.0101778,
0.205137,0.0559296,0.101193,-1.92054,0.503991,0.0975548,0.0590709,0.000756085,-0.00908586,-0.00253826,0.0130713,0.0563091,0.0810583,-0.00168015,-0.0128818,0.0884197,-0.0190111,-0.0398893,0.030683,-0.38016,0.00212989,0.0949021,-1.0659,-0.272842,1.69099,0.631753,1.09196,-0.0184021,0.205005,0.062032,0.103216,-1.93034,0.466221,0.0355573,0.0601499,0.0438031,-0.0030517,-0.0489373,0.0304227,0.113179,0.362604,0.00063923,0,0,0,0,0,0,0,0.360599,-36.0695,0.838026,25.7092,3.28094,0.175711,0.0101778,
0.205142,0.0558616,0.101172,-1.92044,0.504442,0.0981812,0.0590576,0.000739614,-0.00896744,-0.00256182,0.0130107,0.0563321,0.0805084,-0.00167706,-0.0102946,0.0740129,-0.0147262,-0.0379096,0.0143702,-0.343662,0.00193086,0.0949021,-1.0659,-0.272842,1.69099,0.631753,1.09196,-0.0184021,0.205005,0.062032,0.103216,-1.93034,0.466221,0.0355573,0.0601499,0.0438031,-0.0030517,-0.0489373,0.0304227,0.113179,0.362604,0.00063923,0,0,0,0,0,0,0,0.360599,-36.0695,0.838026,25.7092,3.28094,0.175711,0.0101778,
0.205147,0.0557939,0.10115,-1.92034,0.504893,0.0988052,0.0590443,0.000726454,-0.00886748,-0.0025799,0.0129526,0.0563342,0.0800056,-0.00167422,-0.00822484,0.0624727,-0.0112996,-0.0363025,0.00134651,-0.314269,0.00177073,0.0843269,-1.03346,-0.281185,1.64224,0.626929,1.04537,-0.0181583,0.204688,0.0616524,0.103125,-1.92962,0.470119,0.0454397,0.0601401,-0.0195325,-0.0139477,0.0111037,0.0192485,0.0938925,0.257558,-0.00136482,-7.91695,-1.362,7.50514,-1.39678,-2.41087,-13.1308,-0.250506,0.590702,-34.2207,0.86183,25.0864,3.02459,0.666434,0.0577852,
0.204725,0.0573303,0.101678,-1.9228,0.496315,0.0881782,0.0593957,0.000715689,-0.00887121,-0.00261205,0.013087,0.0566972,0.0807703,-0.00167871,-0.00672798,-0.00233255,-0.0200952,0.0840299,0.226885,0.477953,-0.00280191,0.0843269,-1.03346,-0.281185,1.64224,0.626929,1.04537,-0.0181583,0.204688,0.0616524,0.103125,-1.92962,0.470119,0.0454397,0.0601401,-0.0195325,-0.0139477,0.0111037,0.0192485,0.0938925,0.257558,-0.00136482,0,0,0,0,0,0,0,0.590702,-34.2207,0.86183,25.0864,3.02459,0.666434,0.0577852,
0.204731,0.0572594,0.101656,-1.92269,0.49678,0.0888461,0.0593821,0.000707098,-0.00886852,-0.00263697,0.0131844,0.0569705,0.0813138,-0.00168191,-0.00536968,0.00168352,-0.0155748,0.0608313,0.170803,0.339669,-0.00199995,0.0843269,-1.03346,-0.281185,1.64224,0.626929,1.04537,-0.0181583,0.204688,0.0616524,0.103125,-1.92962,0.470119,0.0454397,0.0601401,-0.0195325,-0.0139477,0.0111037,0.0192485,0.0938925,0.257558,-0.00136482,0,0,0,0,0,0,0,0.590702,-34.2207,0.86183,25.0864,3.02459,0.666434,0.0577852,
0.204736,0.0571888,0.101634,-1.92258,0.497244,0.0895113,0.0593686,0.000700244,-0.00886071,-0.00265611,0.013252,0.0571721,0.0816806,-0.00168408,-0.00428351,0.00487996,-0.0119603,0.0422982,0.125967,0.229254,-0.00135934,0.0843269,-1.03346,-0.281185,1.64224,0.626929,1.04537,-0.0181583,0.204688,0.0616524,0.103125,-1.92962,0.470119,0.0454397,0.0601401,-0.0195325,-0.0139477,0.0111037,0.0192485,0.0938925,0.257558,-0.00136482,0,0,0,0,0,0,0,0.590702,-34.2207,0.86183,25.0864,3.02459,0.666434,0.0577852,
0.204741,0.0571184,0.101613,-1.92247,0.497707,0.0901738,0.059355,0.00069478,-0.00884884,-0.00267062,0.013296,0.0573163,0.0819064,-0.00168544,-0.00341496,0.00742089,-0.00907048,0.0274973,0.0901273,0.141132,-0.000847819,0.080511,-0.990568,-0.284169,1.5925,0.622669,1.00538,-0.0179377,0.204784,0.0614798,0.102998,-1.92894,0.473573,0.0541055,0.0601432,-0.00224277,0.00160979,0.00410764,0.0230553,0.0723374,0.239042,-0.00021306,2.16122,1.94469,-0.874513,0.475844,-2.69439,-2.31442,0.14397,-0.147213,-35.1213,0.0366345,25.4593,2.96325,0.62615,0.0303194,
0.204925,0.0578527,0.101721,-1.9228,0.497948,0.093102,0.0594445,0.000690614,-0.00877904,-0.00269091,0.0133167,0.0575028,0.0819314,-0.00168579,-0.00260383,0.0436228,-0.012681,0.0129077,0.116559,0.0156568,-0.000220657,0.080511,-0.990568,-0.284169,1.5925,0.622669,1.00538,-0.0179377,0.204784,0.0614798,0.102998,-1.92894,0.473573,0.0541055,0.0601432,-0.00224277,0.00160979,0.00410764,0.0230553,0.0723374,0.239042,-0.00021306,0,0,0,0,0,0,0,-0.147213,-35.1213,0.0366345,25.4593,2.96325,0.62615,0.0303194,
0.204931,0.057785,0.101699,-1.92269,0.498414,0.0937556,0.059431,0.000687304,-0.00871753,-0.00270637,0.0133232,0.0576349,0.0818852,-0.0016857,-0.00206889,0.0384434,-0.0096641,0.0040648,0.0825644,-0.0289223,5.94561e-05,0.080511,-0.990568,-0.284169,1.5925,0.622669,1.00538,-0.0179377,0.204784,0.0614798,0.102998,-1.92894,0.473573,0.0541055,0.0601432,-0.00224277,0.00160979,0.00410764,0.0230553,0.0723374,0.239042,-0.00021306,0,0,0,0,0,0,0,-0.147213,-35.1213,0.0366345,25.4593,2.96325,0.62615,0.0303194,
0.204936,0.0577174,0.101677,-1.92259,0.498878,0.0944066,0.0594175,0.000684677,-0.00866268,-0.00271798,0.0133184,0.0577235,0.0817822,-0.00168524,-0.00164169,0.0342841,-0.00725272,-0.00298425,0.055398,-0.0643781,0.000282609,0.080511,-0.990568,-0.284169,1.5925,0.622669,1.00538,-0.0179377,0.204784,0.0614798,0.102998,-1.92894,0.473573,0.0541055,0.0601432,-0.00224277,0.00160979,0.00410764,0.0230553,0.0723374,0.239042,-0.00021306,0,0,0,0,0,0,0,-0.147213,-35.1213,0.0366345,25.4593,2.96325,0.62615,0.0303194,
0.204828,0.0591125,0.102126,-1.92479,0.489454,0.0808699,0.0596898,0.000680651,-0.00873761,-0.00274445,0.013523,0.0581438,0.0830891,-0.00169269,-0.00251673,-0.0468299,-0.016548,0.127882,0.262694,0.816828,-0.00465199,0.080511,-0.990568,-0.284169,1.5925,0.622669,1.00538,-0.0179377,0.204784,0.0614798,0.102998,-1.92894,0.473573,0.0541055,0.0601432,-0.00224277,0.00160979,0.00410764,0.0230553,0.0723374,0.239042,-0.00021306,0,0,0,0,0,0,0,-0.147213,-35.1213,0.0366345,25.4593,2.96325,0.62615,0.0303194,
0.204834,0.0590405,0.102103,-1.92468,0.489932,0.0815735,0.059676,0.000677762,-0.00879119,-0.00276452,0.0136757,0.0584622,0.084061,-0.00169824,-0.0018056,-0.0334876,-0.0125443,0.095428,0.199009,0.607429,-0.0034693,0.080511,-0.990568,-0.284169,1.5925,0.622669,1.00538,-0.0179377,0.204784,0.0614798,0.102998,-1.92894,0.473573,0.0541055,0.0601432,-0.00224277,0.00160979,0.00410764,0.0230553,0.0723374,0.239042,-0.00021306,0,0,0,0,0,0,0,-0.147213,-35.1213,0.0366345,25.4593,2.96325,0.62615,0.0303194,
0.204839,0.0589687,0.10208,-1.92456,0.490409,0.0822741,0.0596623,0.000675721,-0.00882776,-0.00277953,0.013787,0.0586991,0.0847654,-0.00170228,-0.00127516,-0.0228595,-0.00938016,0.0695224,0.148076,0.44028,-0.0025239,0.080511,-0.990568,-0.284169,1.5925,0.622669,1.00538,-0.0179377,0.204784,0.0614798,0.102998,-1.92894,0.473573,0.0541055,0.0601432,-0.00224277,0.00160979,0.00410764,0.0230553,0.0723374,0.239042,-0.00021306,0,0,0,0,0,0,0,-0.147213,-35.1213,0.0366345,25.4593,2.96325,0.62615,0.0303194,
0.204844,0.0588972,0.102057,-1.92445,0.490886,0.0829719,0.0596485,0.000674311,-0.0088508,-0.00279054,0.0138651,0.0588709,0.0852565,-0.0017051,-0.000881813,-0.0143968,-0.00688033,0.0488492,0.107347,0.3069,-0.00176837,0.080511,-0.990568,-0.284169,1.5925,0.622669,1.00538,-0.0179377,0.204784,0.0614798,0.102998,-1.92894,0.473573,0.0541055,0.0601432,-0.00224277,0.00160979,0.00410764,0.0230553,0.0723374,0.239042,-0.00021306,0,0,0,0,0,0,0,-0.147213,-35.1213,0.0366345,25.4593,2.96325,0.62615,0.0303194,
0.204796,0.0590206,0.102049,-1.92432,0.492217,0.0871881,0.0596944,0.00067271,-0.00881697,-0.00280142,0.0138829,0.0590174,0.085294,-0.00170551,-0.00100046,0.0211388,-0.0067985,0.0110899,0.0915423,0.0234583,-0.000255759,0.0798446,-0.953721,-0.28367,1.54756,0.620042,0.970064,-0.0177543,0.204743,0.0612481,0.102913,-1.92826,0.476587,0.0615488,0.0601419,0.000560948,-0.0021476,0.000800234,0.010297,0.0683963,0.230888,-0.000689682,0.350465,-0.469674,-0.413425,-1.59478,-0.492637,-1.01924,-0.0595778,0.209842,-34.669,0.512709,25.4315,3.26263,0.474173,0.0440523,
0.204801,0.0589514,0.102027,-1.92421,0.492693,0.0878689,0.0596808,0.000671746,-0.00878378,-0.00280906,0.0138864,0.059117,0.0852535,-0.00170545,-0.000602571,0.0207449,-0.00477345,0.00224423,0.0622547,-0.0253098,3.92924e-05,0.0798446,-0.953721,-0.28367,1.54756,0.620042,0.970064,-0.0177543,0.204743,0.0612481,0.102913,-1.92826,0.476587,0.0615488,0.0601419,0.000560948,-0.0021476,0.000800234,0.010297,0.0683963,0.230888,-0.000689682,0,0,0,0,0,0,0,0.209842,-34.669,0.512709,25.4315,3.26263,0.474173,0.0440523,
0.204807,0.0588825,0.102004,-1.92409,0.493169,0.0885468,0.0596672,0.000671233,-0.00875115,-0.00281416,0.0138788,0.0591791,0.0851511,-0.00170501,-0.000320715,0.0203954,-0.00319027,-0.00478456,0.0388251,-0.0639885,0.000274656,0.0798446,-0.953721,-0.28367,1.54756,0.620042,0.970064,-0.0177543,0.204743,0.0612481,0.102913,-1.92826,0.476587,0.0615488,0.0601419,0.000560948,-0.0021476,0.000800234,0.010297,0.0683963,0.230888,-0.000689682,0,0,0,0,0,0,0,0.209842,-34.669,0.512709,25.4315,3.26263,0.474173,0.0440523,
0.204812,0.0588137,0.101981,-1.92398,0.493643,0.0892219,0.0596535,0.000671033,-0.00871901,-0.00281729,0.0138622,0.0592112,0.0849997,-0.00170427,-0.000124617,0.0200852,-0.0019537,-0.0103643,0.0200878,-0.0946206,0.000462215,0.0798446,-0.953721,-0.28367,1.54756,0.620042,0.970064,-0.0177543,0.204743,0.0612481,0.102913,-1.92826,0.476587,0.0615488,0.0601419,0.000560948,-0.0021476,0.000800234,0.010297,0.0683963,0.230888,-0.000689682,0,0,0,0,0,0,0,0.209842,-34.669,0.512709,25.4315,3.26263,0.474173,0.0440523,
0.204749,0.0596549,0.102256,-1.92534,0.487901,0.0809311,0.0598179,0.000660729,-0.0087712,-0.00283882,0.0139819,0.0594449,0.0857617,-0.00170838,-0.00644034,-0.032619,-0.0134613,0.074809,0.146021,0.476219,-0.00256659,0.0778874,-0.911812,-0.286259,1.50745,0.619071,0.937137,-0.0175777,0.204752,0.0613274,0.102887,-1.92759,0.478989,0.0687339,0.0601424,-0.0014879,0.00320061,-0.000874263,0.0177896,0.0570741,0.200759,-0.000177798,-0.256106,0.668527,-0.209312,0.936565,-1.41527,-3.76613,0.0639855,0.0828892,-36.0179,0.314344,25.8084,3.16467,0.579458,0.0376436,
0.204754,0.0595834,0.102233,-1.92522,0.488383,0.0816383,0.0598041,0.000654582,-0.0088057,-0.00285324,0.0140656,0.0596151,0.0862912,-0.00171127,-0.00384169,-0.0215587,-0.00900971,0.0522827,0.106405,0.330965,-0.0018093,0.0778874,-0.911812,-0.286259,1.50745,0.619071,0.937137,-0.0175777,0.204752,0.0613274,0.102887,-1.92759,0.478989,0.0687339,0.0601424,-0.0014879,0.00320061,-0.000874263,0.0177896,0.0570741,0.200759,-0.000177798,0,0,0,0,0,0,0,0.0828892,-36.0179,0.314344,25.8084,3.16467,0.579458,0.0376436,
0.204759,0.0595121,0.10221,-1.92511,0.488865,0.0823425,0.0597904,0.000651361,-0.00882626,-0.00286235,0.0141207,0.0597344,0.0866367,-0.0017132,-0.00201313,-0.0128492,-0.00569311,0.0344495,0.0745644,0.215917,-0.00120254,0.0778874,-0.911812,-0.286259,1.50745,0.619071,0.937137,-0.0175777,0.204752,0.0613274,0.102887,-1.92759,0.478989,0.0687339,0.0601424,-0.0014879,0.00320061,-0.000874263,0.0177896,0.0570741,0.200759,-0.000177798,0,0,0,0,0,0,0,0.0828892,-36.0179,0.314344,25.8084,3.16467,0.579458,0.0376436,
0.204764,0.0594411,0.102187,-1.92499,0.489346,0.0830436,0.0597766,0.000650156,-0.00883585,-0.00286753,0.0141532,0.0598128,0.0868364,-0.00171434,-0.00075285,-0.00599848,-0.00323807,0.0203387,0.0489735,0.124837,-0.00071654,0.0778874,-0.911812,-0.286259,1.50745,0.619071,0.937137,-0.0175777,0.204752,0.0613274,0.102887,-1.92759,0.478989,0.0687339,0.0601424,-0.0014879,0.00320061,-0.000874263,0.0177896,0.0570741,0.200759,-0.000177798,0,0,0,0,0,0,0,0.0828892,-36.0179,0.314344,25.8084,3.16467,0.579458,0.0376436,
0.204725,0.0597286,0.102139,-1.92455,0.491055,0.0886095,0.0597945,0.000647504,-0.00876299,-0.0028768,0.0141174,0.0598824,0.0865116,-0.00171271,-0.00165743,0.0455423,-0.00579423,-0.0223804,0.043496,-0.203027,0.00102188,0.0762348,-0.876313,-0.286874,1.46779,0.619284,0.905134,-0.0174049,0.204722,0.0611745,0.10274,-1.92704,0.480768,0.0755016,0.0601445,-0.000226446,-0.00506656,0.00307236,0.0113763,0.0456247,0.193184,-0.000337748,0.157682,-1.0334,0.493327,-0.801663,-1.43117,-0.946949,-0.0199938,0.336795,-34.7722,0.611891,25.7806,3.30566,0.779043,0.0303194,
0.20473,0.059661,0.102116,-1.92443,0.491535,0.0892883,0.0597809,0.000646883,-0.00869828,-0.00288202,0.0140778,0.0599218,0.0861784,-0.00171102,-0.000388228,0.0404384,-0.00326366,-0.0247647,0.0246397,-0.208234,0.00105259,0.0762348,-0.876313,-0.286874,1.46779,0.619284,0.905134,-0.0174049,0.204722,0.0611745,0.10274,-1.92704,0.480768,0.0755016,0.0601445,-0.000226446,-0.00506656,0.00307236,0.0113763,0.0456247,0.193184,-0.000337748,0,0,0,0,0,0,0,0.336795,-34.7722,0.611891,25.7806,3.30566,0.779043,0.0303194,
0.204735,0.0595938,0.102093,-1.92432,0.492015,0.0899641,0.0597673,0.0006476,-0.0086402,-0.00288429,0.0140353,0.0599368,0.0858397,-0.0017093,0.000447711,0.0363006,-0.00141531,-0.0265755,0.00936322,-0.211659,0.00107795,0.0762348,-0.876313,-0.286874,1.46779,0.619284,0.905134,-0.0174049,0.204722,0.0611745,0.10274,-1.92704,0.480768,0.0755016,0.0601445,-0.000226446,-0.00506656,0.00307236,0.0113763,0.0456247,0.193184,-0.000337748,0,0,0,0,0,0,0,0.336795,-34.7722,0.611891,25.7806,3.30566,0.779043,0.0303194,
0.204741,0.0595268,0.10207,-1.92421,0.492494,0.0906372,0.0597537,0.000649154,-0.00858749,-0.00288441,0.0139906,0.059932,0.0854977,-0.00170754,0.000971611,0.0329425,-7.90802e-05,-0.0279416,-0.00300779,-0.213766,0.00109871,0.0762348,-0.876313,-0.286874,1.46779,0.619284,0.905134,-0.0174049,0.204722,0.0611745,0.10274,-1.92704,0.480768,0.0755016,0.0601445,-0.000226446,-0.00506656,0.00307236,0.0113763,0.0456247,0.193184,-0.000337748,0,0,0,0,0,0,0,0.336795,-34.7722,0.611891,25.7806,3.30566,0.779043,0.0303194,
0.20474,0.0598634,0.10218,-1.92463,0.49029,0.0912419,0.0598664,0.000636837,-0.00853964,-0.00290108,0.0139727,0.0600325,0.0852705,-0.00170614,-0.00769849,0.0299111,-0.0104191,-0.0111375,0.0628464,-0.142011,0.000875045,0.0762298,-0.876419,-0.286891,1.4679,0.616389,0.907076,-0.0174032,0.204722,0.0611745,0.10274,-1.92704,0.480768,0.0755016,0.0601445,-0.000226446,-0.00506656,0.00307236,0.0113763,0.0456247,0.193184,-0.000337748,0,0,0,0,0,0,0,0.336795,-34.7722,0.611891,25.7806,3.30566,0.779043,0.0303194,
0.204745,0.0597969,0.102157,-1.92451,0.490772,0.0919136,0.0598528,0.000630362,-0.00849399,-0.00291041,0.0139463,0.0600984,0.0850086,-0.00170466,-0.00404649,0.0285304,-0.00583171,-0.0165062,0.0412064,-0.163664,0.000923952,0.0743817,-0.845806,-0.288986,1.43847,0.616556,0.881429,-0.01728,0.204726,0.0612328,0.102645,-1.92644,0.482407,0.0809712,0.0601434,0.00334136,0.0016773,0.00160449,0.0138828,0.0510091,0.148008,-0.00186337,0.445975,0.842984,-0.183484,0.313323,0.673039,-5.64697,-0.190702,0.285221,-35.8434,0.512709,26.3043,3.18298,0.997854,0.0706026,
0.20475,0.0597307,0.102133,-1.9244,0.491255,0.0925822,0.0598393,0.000627923,-0.00845037,-0.0029145,0.0139135,0.0601362,0.0847218,-0.00170312,-0.00152474,0.0272641,-0.00255239,-0.0205459,0.0235723,-0.179282,0.000965151,0.0743819,-0.845805,-0.288986,1.43847,0.616587,0.881405,-0.0172801,0.204726,0.0612328,0.102645,-1.92644,0.482407,0.0809712,0.0601434,0.00334136,0.0016773,0.00160449,0.0138828,0.0510091,0.148008,-0.00186337,0,0,0,0,0,0,0,0.285221,-35.8434,0.512709,26.3043,3.18298,0.997854,0.0706026,
0.204853,0.0599026,0.102105,-1.92386,0.493057,0.0977644,0.0598269,0.000631765,-0.00833922,-0.00291467,0.0138219,0.0597501,0.0842534,-0.00169935,0.0024017,0.0694668,-0.000109981,-0.0572454,-0.241298,-0.292756,0.00235622,0.0743616,-0.846742,-0.289111,1.43939,0.5892,0.89895,-0.0172657,0.204726,0.0612328,0.102645,-1.92644,0.482407,0.0809712,0.0601434,0.00334136,0.0016773,0.00160449,0.0138828,0.0510091,0.148008,-0.00186337,0,0,0,0,0,0,0,0.285221,-35.8434,0.512709,26.3043,3.18298,0.997854,0.0706026,
0.204858,0.0598397,0.102081,-1.92376,0.493523,0.0984205,0.0598134,0.000635504,-0.00824459,-0.00291347,0.0137386,0.0594335,0.0838058,-0.00169597,0.00233684,0.0591446,0.000752651,-0.0520262,-0.19787,-0.279707,0.00211182,0.0743638,-0.846724,-0.289107,1.43937,0.58955,0.898687,-0.017266,0.204726,0.0612328,0.102645,-1.92644,0.482407,0.0809712,0.0601434,0.00334136,0.0016773,0.00160449,0.0138828,0.0510091,0.148008,-0.00186337,0,0,0,0,0,0,0,0.285221,-35.8434,0.512709,26.3043,3.18298,0.997854,0.0706026,
0.204863,0.059777,0.102058,-1.92365,0.493988,0.0990737,0.0598,0.000639038,-0.00816313,-0.00291128,0.0136621,0.0591723,0.0833756,-0.0016929,0.00220829,0.0509139,0.00136606,-0.047836,-0.163261,-0.268889,0.00191642,0.0744407,-0.818368,-0.288715,1.41046,0.589836,0.875442,-0.0171481,0.204727,0.0612007,0.102489,-1.92606,0.484144,0.0860183,0.0601493,0.00388404,0.00286538,-0.00217197,0.00995467,0.0510802,0.142165,-0.000205239,0.0678349,0.14851,-0.472057,-0.491021,0.00889269,-0.730376,0.207266,0.106693,-35.4189,0.461134,26.3797,3.13995,0.984122,0.017502,
0.204869,0.0597145,0.102035,-1.92354,0.494452,0.0997241,0.0597865,0.000642307,-0.00809217,-0.00290841,0.0135909,0.0589552,0.0829598,-0.00169009,0.00204321,0.0443464,0.00179427,-0.0444666,-0.135675,-0.259896,0.00175998,0.074443,-0.818351,-0.288711,1.41045,0.59019,0.875179,-0.0171485,0.204727,0.0612007,0.102489,-1.92606,0.484144,0.0860183,0.0601493,0.00388404,0.00286538,-0.00217197,0.00995467,0.0510802,0.142165,-0.000205239,0,0,0,0,0,0,0,0.106693,-35.4189,0.461134,26.3797,3.13995,0.984122,0.017502,
0.205058,0.0574825,0.100897,-1.91923,0.51487,0.128721,0.0592492,0.000650574,-0.00775055,-0.00287536,0.0131073,0.0585584,0.0795605,-0.00167186,0.00516721,0.213512,0.0206615,-0.302297,-0.247997,-2.12457,0.0113926,0.0754411,-0.820289,-0.287829,1.41252,0.498423,0.926037,-0.0171148,0.204727,0.0612007,0.102489,-1.92606,0.484144,0.0860183,0.0601493,0.00388404,0.00286538,-0.00217197,0.00995467,0.0510802,0.142165,-0.000205239,0,0,0,0,0,0,0,0.106693,-35.4189,0.461134,26.3797,3.13995,0.984122,0.017502,
0.205064,0.0574316,0.100875,-1.91914,0.515325,0.129247,0.0592364,0.000657206,-0.00747235,-0.00284834,0.0127122,0.0582245,0.0767912,-0.00165698,0.00414507,0.173877,0.0168876,-0.246929,-0.208686,-1.73078,0.00930268,0.0754442,-0.82015,-0.287802,1.4124,0.502629,0.923486,-0.0171159,0.204727,0.0612007,0.102489,-1.92606,0.484144,0.0860183,0.0601493,0.00388404,0.00286538,-0.00217197,0.00995467,0.0510802,0.142165,-0.000205239,0,0,0,0,0,0,0,0.106693,-35.4189,0.461134,26.3797,3.13995,0.984122,0.017502,
0.205069,0.0573809,0.100853,-1.91905,0.515779,0.12977,0.0592237,0.00066253,-0.0072449,-0.00282615,0.012388,0.057941,0.0745263,-0.00164477,0.00332708,0.142157,0.0138669,-0.202616,-0.177211,-1.4156,0.00763002,0.0754083,-0.792135,-0.287852,1.3843,0.507076,0.899042,-0.0169977,0.204748,0.0611922,0.102465,-1.9257,0.485645,0.0908348,0.0601469,0.00185562,-0.00416355,-0.00298389,0.00412135,0.0436879,0.143999,0.000339736,-0.253551,-0.878616,-0.10149,-0.729166,-0.924033,0.229294,0.0681218,-0.0440639,-35.3713,0.238966,26.1813,3.0365,1.19012,0.0101778,
0.205075,0.0573304,0.100831,-1.91896,0.516233,0.130292,0.0592109,0.000666806,-0.00705806,-0.00280783,0.0121206,0.0576978,0.072665,-0.0016347,0.00267247,0.116771,0.011449,-0.167146,-0.152005,-1.1633,0.00629116,0.075408,-0.791998,-0.287828,1.38418,0.511309,0.896493,-0.0169987,0.204748,0.0611922,0.102465,-1.9257,0.485645,0.0908348,0.0601469,0.00185562,-0.00416355,-0.00298389,0.00412135,0.0436879,0.143999,0.000339736,0,0,0,0,0,0,0,-0.0440639,-35.3713,0.238966,26.1813,3.0365,1.19012,0.0101778,
0.205197,0.0561197,0.100177,-1.91648,0.530815,0.146556,0.058875,0.000670917,-0.00674244,-0.00277965,0.0116631,0.0570099,0.0697236,-0.00161775,0.0025696,0.197264,0.0176115,-0.285937,-0.429909,-1.83834,0.010597,0.075408,-0.791998,-0.287828,1.38418,0.511309,0.896493,-0.0169987,0.204748,0.0611922,0.102465,-1.9257,0.485645,0.0908348,0.0601469,0.00185562,-0.00416355,-0.00298389,0.00412135,0.0436879,0.143999,0.000339736,0,0,0,0,0,0,0,-0.0440639,-35.3713,0.238966,26.1813,3.0365,1.19012,0.0101778,
0.205197,0.0561197,0.100177,-1.91648,0.530815,0.146556,0.058875,0.000674206,-0.00648994,-0.00275711,0.0112971,0.0564596,0.0673706,-0.00160418,0.00205568,0.157811,0.0140892,-0.22875,-0.343928,-1.47067,0.00847764,0.075408,-0.791998,-0.287828,1.38418,0.511309,0.896493,-0.0169987,0.204748,0.0611922,0.102465,-1.9257,0.485645,0.0908348,0.0601469,0.00185562,-0.00416355,-0.00298389,0.00412135,0.0436879,0.143999,0.000339736,0,0,0,0,0,0,0,-0.0440639,-35.3713,0.238966,26.1813,3.0365,1.19012,0.0101778,
0.205197,0.0561197,0.100177,-1.91648,0.530815,0.146556,0.058875,0.000676837,-0.00628795,-0.00273907,0.0110043,0.0560194,0.0654881,-0.00159333,0.00164454,0.126249,0.0112714,-0.183,-0.275142,-1.17654,0.00678211,0.0789118,-0.759383,-0.284748,1.35367,0.512353,0.873684,-0.0169092,0.204743,0.0612323,0.102452,-1.92541,0.487296,0.0960204,0.0601508,0.00752087,0.00826589,0.000305027,0.012366,0.0882352,0.18278,0.00052702,0.708156,1.55368,0.411114,1.03058,5.56841,4.84765,0.0234106,0.0551182,-35.8949,0.389723,27.0264,3.3789,1.51513,0.00376909,
0.204785,0.0617669,0.102485,-1.92581,0.487564,0.0975043,0.0601338,0.00158963,0.00833507,-0.00137914,-0.00139306,0.0515161,0.0894866,-0.00169902,0.570498,9.13939,0.849956,-7.74832,-2.81454,14.9991,-0.066058,0.00739364,30.8018,-0.355718,-21.8263,-2.68936,-0.320346,-0.00792019,0.204743,0.0612323,0.102452,-1.92541,0.487296,0.0960204,0.0601508,0.00752087,0.00826589,0.000305027,0.012366,0.0882352,0.18278,0.00052702,0,0,0,0,0,0,0,0.0551182,-35.8949,0.389723,27.0264,3.3789,1.51513,0.00376909,
0.204996,0.0621243,0.102684,-1.92604,0.485348,0.100208,0.0601516,0.00654438,0.0156027,0.00388061,-0.0067813,-0.0141805,0.139187,-0.000914074,3.09671,4.54228,3.28735,-3.36765,-41.0604,31.0624,0.490594,1.71537,-1.45767,1.14657,1.50474,-7.91279,6.98127,-0.0114052,0.204743,0.0612323,0.102452,-1.92541,0.487296,0.0960204,0.0601508,0.00752087,0.00826589,0.000305027,0.012366,0.0882352,0.18278,0.00052702,0,0,0,0,0,0,0,0.0551182,-35.8949,0.389723,27.0264,3.3789,1.51513,0.00376909,
0.205285,0.0623501,0.102946,-1.92617,0.481665,0.103705,0.0601581,0.0124595,0.0181267,0.00964578,-0.0087638,-0.103443,0.198768,-0.000569142,3.69696,1.5775,3.60323,-1.23906,-55.7892,37.2385,0.215582,1.70782,-1.42056,1.1631,1.48941,-7.74961,6.83765,-0.0117933,0.204743,0.0612323,0.102452,-1.92541,0.487296,0.0960204,0.0601508,0.00752087,0.00826589,0.000305027,0.012366,0.0882352,0.18278,0.00052702,0,0,0,0,0,0,0,0.0551182,-35.8949,0.389723,27.0264,3.3789,1.51513,0.00376909,
0.205595,0.0624862,0.103221,-1.92625,0.47712,0.107697,0.0601572,0.0177378,0.0179045,0.0146089,-0.00886557,-0.196357,0.258824,-0.000477223,3.29892,-0.13889,3.10192,-0.0636068,-58.0711,37.5351,0.0574496,1.70385,-1.3389,1.18907,1.444,-7.59098,6.67194,-0.0118571,0.204742,0.0612098,0.102404,-1.92522,0.490599,0.102174,0.060142,-0.00194311,-0.0025585,-0.00117424,5.58272e-05,0.147004,0.198302,-0.001094,-1.183,-1.35305,-0.184908,-1.53877,7.34604,1.94024,-0.202628,0.158268,-35.4427,0.314344,26.7526,3.3844,1.56823,0.0440523,
0.204756,0.0617072,0.102412,-1.92563,0.491139,0.103694,0.0601276,0.0145347,0.0267594,0.0118905,-0.0173239,-0.143588,0.245054,-0.000742331,-2.00196,5.5343,-1.69899,-5.28646,32.9809,-8.60662,-0.165693,0.0145679,30.8382,-0.348827,-21.8635,-2.69057,-0.346446,-0.00782974,0.204742,0.0612098,0.102404,-1.92522,0.490599,0.102174,0.060142,-0.00194311,-0.0025585,-0.00117424,5.58272e-05,0.147004,0.198302,-0.001094,0,0,0,0,0,0,0,0.158268,-35.4427,0.314344,26.7526,3.3844,1.56823,0.0440523,
0.20514,0.0617082,0.102818,-1.92615,0.48712,0.10794,0.0603418,0.0212212,0.0214322,0.0196637,-0.0269751,-0.215353,0.302196,0.0047615,4.17911,-3.32951,4.8583,-6.03199,-44.8532,35.7139,3.43989,6.15221,-9.85202,5.48569,-1.72997,-14.6906,11.6536,0.214108,0.204742,0.0612098,0.102404,-1.92522,0.490599,0.102174,0.060142,-0.00194311,-0.0025585,-0.00117424,5.58272e-05,0.147004,0.198302,-0.001094,0,0,0,0,0,0,0,0.158268,-35.4427,0.314344,26.7526,3.3844,1.56823,0.0440523,
0.205672,0.0614907,0.103384,-1.92662,0.480295,0.113763,0.0604806,0.0302928,0.0117072,0.0298774,-0.0332209,-0.342899,0.387323,0.00727845,5.66972,-6.07809,6.38356,-3.90365,-79.7166,53.2042,1.5731,3.87314,-8.00544,3.84273,-2.02829,-14.6906,11.6536,0.132748,0.204742,0.0612098,0.102404,-1.92522,0.490599,0.102174,0.060142,-0.00194311,-0.0025585,-0.00117424,5.58272e-05,0.147004,0.198302,-0.001094,0,0,0,0,0,0,0,0.158268,-35.4427,0.314344,26.7526,3.3844,1.56823,0.0440523,
0.206245,0.0612122,0.104004,-1.92698,0.471729,0.120555,0.0605749,0.0385357,0.00240444,0.0393997,-0.0355858,-0.488463,0.479674,0.00818041,5.15185,-5.81425,5.95138,-1.47804,-90.9777,57.7195,0.563723,3.08482,-5.5055,3.48315,-1.93369,-14.7076,11.5972,0.0948452,0.204979,0.0615233,0.102629,-1.92515,0.486768,0.109548,0.0601598,0.0387931,0.00362676,0.0369623,-0.0375268,-0.510949,0.481272,0.00230048,5.09202,0.773157,4.76706,-4.69782,-82.244,35.3712,0.42431,0.412174,-34.5976,0.163588,28.1729,0.0619471,4.5913,-0.0767973,
0.206179,0.0609652,0.103605,-1.92623,0.471446,0.122275,0.0605114,0.0465647,-0.00494757,0.044874,-0.0409274,-0.604129,0.555611,0.0103304,5.01812,-4.59501,3.42148,-3.33849,-72.2908,47.4604,1.34374,6.38308,-6.88412,4.20089,-6.2644,-14.7076,11.5972,0.225798,0.204979,0.0615233,0.102629,-1.92515,0.486768,0.109548,0.0601598,0.0387931,0.00362676,0.0369623,-0.0375268,-0.510949,0.481272,0.00230048,0,0,0,0,0,0,0,0.412174,-34.5976,0.163588,28.1729,0.0619471,4.5913,-0.0767973,
0.206821,0.0607547,0.104162,-1.92665,0.461818,0.1298,0.0606391,0.0532963,-0.0092216,0.0498172,-0.0430391,-0.724016,0.632615,0.0114559,4.20726,-2.67127,3.08946,-1.31984,-74.9293,48.1279,0.703455,4.88235,-3.04144,3.43217,-4.97309,-14.7076,11.5972,0.16436,0.204979,0.0615233,0.102629,-1.92515,0.486768,0.109548,0.0601598,0.0387931,0.00362676,0.0369623,-0.0375268,-0.510949,0.481272,0.00230048,0,0,0,0,0,0,0,0.412174,-34.5976,0.163588,28.1729,0.0619471,4.5913,-0.0767973,
0.207457,0.0606076,0.104714,-1.92701,0.451495,0.13777,0.0607571,0.058534,-0.0110558,0.0536503,-0.0434925,-0.837282,0.705344,0.0121151,3.27353,-1.14638,2.39572,-0.283354,-70.7912,45.4552,0.411994,4.69917,-1.23081,3.51433,-4.36323,-14.7076,11.5972,0.144763,0.204979,0.0615233,0.102629,-1.92515,0.486768,0.109548,0.0601598,0.0387931,0.00362676,0.0369623,-0.0375268,-0.510949,0.481272,0.00230048,0,0,0,0,0,0,0,0.412174,-34.5976,0.163588,28.1729,0.0619471,4.5913,-0.0767973,
0.208084,0.0605064,0.105251,-1.92735,0.440722,0.146051,0.0608718,0.0625186,-0.0113744,0.0563555,-0.043396,-0.939144,0.771312,0.0125605,2.49036,-0.199107,1.69075,0.0603032,-63.6638,41.2301,0.278357,5.03064,-0.440128,3.92323,-4.00639,-14.7076,11.5972,0.138218,0.204979,0.0615233,0.102629,-1.92515,0.486768,0.109548,0.0601598,0.0387931,0.00362676,0.0369623,-0.0375268,-0.510949,0.481272,0.00230048,0,0,0,0,0,0,0,0.412174,-34.5976,0.163588,28.1729,0.0619471,4.5913,-0.0767973,
0.20828,0.0616946,0.10585,-1.92726,0.44869,0.151855,0.0605844,0.0682575,-0.012226,0.0611672,-0.042428,-0.994433,0.817362,0.0130086,3.58686,-0.532286,3.00732,0.604974,-34.556,28.7811,0.280064,4.67858,-1.00463,3.48792,-4.54407,-14.687,11.489,0.146136,0.206109,0.0621996,0.103908,-1.92616,0.474363,0.129234,0.0602006,0.0687001,-0.0467963,0.0794383,-0.108915,-0.580732,0.799308,0.00542555,3.73838,-6.30288,5.30951,-8.92356,-8.72295,39.7545,0.390634,5.81165,-34.5223,5.98756,25.856,-0.359196,5.18822,-0.117081,
0.209001,0.061589,0.10647,-1.92757,0.438328,0.160162,0.0606969,0.0726345,-0.012421,0.0644468,-0.0417962,-1.05459,0.861557,0.01322,2.73557,-0.12186,2.04973,0.394904,-37.5979,27.6223,0.13212,5.01005,-0.213954,3.89682,-4.18723,-14.687,11.489,0.139591,0.206109,0.0621996,0.103908,-1.92616,0.474363,0.129234,0.0602006,0.0687001,-0.0467963,0.0794383,-0.108915,-0.580732,0.799308,0.00542555,0,0,0,0,0,0,0,5.81165,-34.5223,5.98756,25.856,-0.359196,5.18822,-0.117081,
0.209716,0.0614895,0.107069,-1.92791,0.427542,0.168669,0.0608033,0.075987,-0.0124241,0.0665229,-0.0418034,-1.11332,0.901938,0.0132369,2.09532,-0.00195227,1.29756,-0.00449854,-36.7065,25.2378,0.0106089,5.56225,-0.0732684,4.39886,-4.02186,-14.687,11.489,0.138098,0.206109,0.0621996,0.103908,-1.92616,0.474363,0.129234,0.0602006,0.0687001,-0.0467963,0.0794383,-0.108915,-0.580732,0.799308,0.00542555,0,0,0,0,0,0,0,5.81165,-34.5223,5.98756,25.856,-0.359196,5.18822,-0.117081,
0.206818,0.0619795,0.10455,-1.92661,0.467162,0.136252,0.0603403,0.0785118,-0.0154429,0.0692624,-0.0447809,-1.07069,0.897005,0.0140829,1.57801,-1.88672,1.7122,-1.86096,26.6437,-3.08312,0.528715,4.67858,-1.00463,3.48792,-4.54407,-14.687,11.489,0.146136,0.206109,0.0621996,0.103908,-1.92616,0.474363,0.129234,0.0602006,0.0687001,-0.0467963,0.0794383,-0.108915,-0.580732,0.799308,0.00542555,0,0,0,0,0,0,0,5.81165,-34.5223,5.98756,25.856,-0.359196,5.18822,-0.117081,
0.20755,0.0618197,0.105206,-1.92695,0.458415,0.143842,0.060466,0.0811124,-0.0163492,0.0718228,-0.0442267,-1.07523,0.907368,0.0144076,1.62537,-0.566428,1.60021,0.346378,-2.83423,6.47685,0.202951,4.87754,0.59039,3.76241,-4.97302,-14.7139,11.1508,0.144961,0.209801,0.0611084,0.107043,-1.93052,0.432058,0.172009,0.0604278,0.125647,0.00708097,0.0853646,-0.118587,-1.26254,1.41985,0.00134714,7.11837,6.73465,0.740786,-1.20895,-85.2254,77.5681,-0.509802,-0.171017,-35.1689,0.112013,29.7678,-0.750126,5.06188,0.0303194,
0.20828,0.0616946,0.10585,-1.92726,0.44869,0.151855,0.0605844,0.0831326,-0.0162059,0.073541,-0.0430926,-1.1033,0.926206,0.0144863,1.26263,0.0895638,1.07392,0.708814,-17.5459,11.7741,0.0491722,5.42974,0.731075,4.26446,-4.80765,-14.7139,11.1508,0.143468,0.209801,0.0611084,0.107043,-1.93052,0.432058,0.172009,0.0604278,0.125647,0.00708097,0.0853646,-0.118587,-1.26254,1.41985,0.00134714,0,0,0,0,0,0,0,-0.171017,-35.1689,0.112013,29.7678,-0.750126,5.06188,0.0303194,
0.209001,0.061589,0.10647,-1.92757,0.438328,0.160162,0.0606969,0.0845345,-0.0156049,0.0743458,-0.0423279,-1.14168,0.948633,0.0144021,0.876192,0.37562,0.503005,0.477976,-23.9897,14.0167,-0.0525936,6.0935,0.473376,4.79178,-4.78376,-14.7139,11.1508,0.139413,0.209801,0.0611084,0.107043,-1.93052,0.432058,0.172009,0.0604278,0.125647,0.00708097,0.0853646,-0.118587,-1.26254,1.41985,0.00134714,0,0,0,0,0,0,0,-0.171017,-35.1689,0.112013,29.7678,-0.750126,5.06188,0.0303194,
0.214612,0.0610504,0.110952,-1.93317,0.364414,0.228326,0.0609275,0.0876295,-0.0154681,0.07581,-0.0454213,-1.20227,0.982376,0.0132346,1.93435,0.0854966,0.915084,-1.93339,-37.8681,21.0891,-0.729686,7.59621,-0.52746,5.92647,-5.0413,-14.7139,11.1508,0.124438,0.209801,0.0611084,0.107043,-1.93052,0.432058,0.172009,0.0604278,0.125647,0.00708097,0.0853646,-0.118587,-1.26254,1.41985,0.00134714,0,0,0,0,0,0,0,-0.171017,-35.1689,0.112013,29.7678,-0.750126,5.06188,0.0303194,
0.215427,0.0609131,0.111627,-1.93365,0.352831,0.237187,0.0609888,0.0904973,-0.0158071,0.077513,-0.0481659,-1.25139,1.00744,0.0121192,1.79241,-0.211866,1.0644,-1.71536,-30.6995,15.6643,-0.697153,8.14717,-0.480693,6.32695,-5.77639,-14.6407,10.7622,0.118368,0.214509,0.0612886,0.111294,-1.93394,0.376474,0.222463,0.0605302,0.137793,0.0627228,0.151175,-0.0645134,-1.58489,1.5448,-0.00195792,1.51822,6.95522,8.22635,6.75918,-40.2938,15.6183,-0.413132,-1.36517,-38.6125,-1.18529,29.7678,0.239559,3.74261,0.14476,
0.21626,0.0607647,0.112328,-1.93413,0.341239,0.245983,0.0610445,0.0932127,-0.016357,0.0795414,-0.0505507,-1.29092,1.02586,0.0110899,1.69713,-0.343689,1.26774,-1.49049,-24.7068,11.5109,-0.643301,8.86285,-0.87933,6.95238,-5.98301,-14.6407,10.7622,0.10995,0.214509,0.0612886,0.111294,-1.93394,0.376474,0.222463,0.0605302,0.137793,0.0627228,0.151175,-0.0645134,-1.58489,1.5448,-0.00195792,0,0,0,0,0,0,0,-1.36517,-38.6125,-1.18529,29.7678,0.239559,3.74261,0.14476,
0.21711,0.060608,0.11306,-1.93462,0.32965,0.254723,0.0610976,0.095811,-0.017002,0.0819195,-0.0526505,-1.32246,1.03918,0.0101989,1.62391,-0.403169,1.48634,-1.31242,-19.7122,8.32749,-0.556913,9.50006,-1.16794,7.5613,-6.16728,-14.6407,10.7622,0.102313,0.214509,0.0612886,0.111294,-1.93394,0.376474,0.222463,0.0605302,0.137793,0.0627228,0.151175,-0.0645134,-1.58489,1.5448,-0.00195792,0,0,0,0,0,0,0,-1.36517,-38.6125,-1.18529,29.7678,0.239559,3.74261,0.14476,
0.22027,0.0615735,0.116241,-1.93694,0.305612,0.28013,0.0608313,0.0995369,-0.0162167,0.0857584,-0.0549859,-1.3473,1.05144,0.00941489,2.32869,0.490832,2.39931,-1.45961,-15.5261,7.65953,-0.489978,10.518,-1.4886,8.65061,-6.44236,-14.6407,10.7622,0.0874265,0.214509,0.0612886,0.111294,-1.93394,0.376474,0.222463,0.0605302,0.137793,0.0627228,0.151175,-0.0645134,-1.58489,1.5448,-0.00195792,0,0,0,0,0,0,0,-1.36517,-38.6125,-1.18529,29.7678,0.239559,3.74261,0.14476,
0.221186,0.0614519,0.117052,-1.93742,0.294146,0.28856,0.0608785,0.102513,-0.0160132,0.0888651,-0.0561471,-1.36449,1.0519,0.00871142,1.85982,0.127183,1.94169,-0.725753,-10.7447,0.288744,-0.439668,10.8518,-1.33645,9.05106,-6.81667,-14.4659,10.4257,0.0787477,0.219534,0.0608006,0.115862,-1.93766,0.323544,0.273019,0.0606125,0.151498,-0.0763943,0.129889,-0.13644,-1.71831,1.4855,0.00150936,1.71316,-17.3896,-2.66082,-8.99078,-16.6775,-7.4124,0.43341,1.1977,-35.5934,1.16334,26.3797,-0.407718,4.29925,0.017502,
0.222083,0.0613193,0.117842,-1.93789,0.283161,0.296468,0.060918,0.104434,-0.0161248,0.0908471,-0.056542,-1.36621,1.03922,0.00795673,1.20063,-0.0697519,1.2387,-0.246772,-1.07457,-7.92443,-0.471683,11.2293,-1.37999,9.54565,-6.87484,-14.4659,10.4257,0.0716512,0.219534,0.0608006,0.115862,-1.93766,0.323544,0.273019,0.0606125,0.151498,-0.0763943,0.129889,-0.13644,-1.71831,1.4855,0.00150936,0,0,0,0,0,0,0,1.1977,-35.5934,1.16334,26.3797,-0.407718,4.29925,0.017502,
0.225092,0.0593815,0.120752,-1.94012,0.257687,0.322283,0.0608114,0.104021,-0.0177771,0.0906725,-0.0544154,-1.31445,0.989312,0.00711432,-0.257713,-1.03268,-0.109064,1.32911,32.3532,-31.1911,-0.526505,12.0417,-1.5131,10.699,-7.11495,-14.4659,10.4257,0.0664092,0.219534,0.0608006,0.115862,-1.93766,0.323544,0.273019,0.0606125,0.151498,-0.0763943,0.129889,-0.13644,-1.71831,1.4855,0.00150936,0,0,0,0,0,0,0,1.1977,-35.5934,1.16334,26.3797,-0.407718,4.29925,0.017502,
0.225891,0.0591954,0.121454,-1.94048,0.249643,0.327955,0.0608404,0.103179,-0.0188743,0.0900855,-0.0526262,-1.25268,0.933253,0.0064163,-0.526662,-0.68572,-0.366925,1.11823,38.6065,-35.0371,-0.436265,12.1668,-1.45338,10.8559,-7.17331,-14.2577,9.5488,0.0638468,0.219534,0.0608006,0.115862,-1.93766,0.323544,0.273019,0.0606125,0.151498,-0.0763943,0.129889,-0.13644,-1.71831,1.4855,0.00150936,0,0,0,0,0,0,0,1.1977,-35.5934,1.16334,26.3797,-0.407718,4.29925,0.017502,
0.226674,0.0590173,0.122142,-1.94084,0.242369,0.33303,0.0608678,0.102127,-0.0195504,0.089281,-0.0511369,-1.18397,0.873468,0.0058191,-0.657511,-0.422559,-0.502784,0.930813,42.9392,-37.3654,-0.373249,11.7685,-0.668553,10.4888,-7.80049,-12.9432,8.10138,0.0661428,0.22581,0.0604249,0.120385,-1.94276,0.259244,0.331222,0.0606376,0.215564,-0.0132695,0.125156,-0.153079,-2.00869,1.74221,0.00067606,8.00827,7.89061,-0.591623,-2.07992,-36.2982,32.0882,-0.104162,3.42731,-36.5694,4.13881,25.9552,2.16308,3.09258,0.0376436,
0.227446,0.0588466,0.122821,-1.9412,0.235818,0.337552,0.0608936,0.101004,-0.0199083,0.0883821,-0.0499012,-1.11095,0.811833,0.0052991,-0.701802,-0.223724,-0.561817,0.772291,45.6405,-38.5219,-0.325001,11.7692,-0.498035,10.5317,-7.78378,-11.7936,7.19528,0.0652751,0.22581,0.0604249,0.120385,-1.94276,0.259244,0.331222,0.0606376,0.215564,-0.0132695,0.125156,-0.153079,-2.00869,1.74221,0.00067606,0,0,0,0,0,0,0,3.42731,-36.5694,4.13881,25.9552,2.16308,3.09258,0.0376436,
0.231296,0.060045,0.125072,-1.94511,0.206733,0.371372,0.0606644,0.0977679,-0.0193195,0.0853222,-0.0480054,-0.997998,0.726651,0.00462971,-2.02234,0.368037,-1.91245,1.18488,70.5952,-53.2392,-0.418368,11.435,0.00143838,10.2758,-7.63971,-8.87176,4.92691,0.0610773,0.22581,0.0604249,0.120385,-1.94276,0.259244,0.331222,0.0606376,0.215564,-0.0132695,0.125156,-0.153079,-2.00869,1.74221,0.00067606,0,0,0,0,0,0,0,3.42731,-36.5694,4.13881,25.9552,2.16308,3.09258,0.0376436,
0.231978,0.0599061,0.125661,-1.94544,0.202918,0.374009,0.060679,0.0952632,-0.0189269,0.0829681,-0.0466803,-0.89378,0.647259,0.00406956,-1.56544,0.245329,-1.4713,0.828209,65.1361,-49.6201,-0.350093,11.2463,0.133679,10.095,-7.57897,-8.04297,4.31077,0.0583401,0.22581,0.0604249,0.120385,-1.94276,0.259244,0.331222,0.0606376,0.215564,-0.0132695,0.125156,-0.153079,-2.00869,1.74221,0.00067606,0,0,0,0,0,0,0,3.42731,-36.5694,4.13881,25.9552,2.16308,3.09258,0.0376436,
0.232663,0.0597676,0.126253,-1.94578,0.199581,0.376267,0.0606924,0.0933593,-0.0186039,0.0811852,-0.0457832,-0.798438,0.574252,0.00358919,-1.18996,0.201905,-1.1143,0.560692,59.5886,-45.6294,-0.300233,10.885,0.118932,9.74065,-7.3389,-6.98336,3.51066,0.0551235,0.231968,0.0614145,0.125956,-1.94759,0.191908,0.389887,0.0606312,0.140339,0.0813248,0.213562,-0.0895296,-1.85296,1.60837,0.00193217,-9.40314,11.8243,11.0507,7.94367,19.4661,-16.7293,0.157014,5.45856,-41.1595,5.68605,28.2721,2.45605,2.13769,0.0376436,
0.239677,0.0613852,0.132295,-1.95101,0.162323,0.417967,0.060392,0.0888778,-0.0171827,0.0769441,-0.0443951,-0.645996,0.466562,0.00283093,-2.80094,0.888257,-2.65072,0.867545,95.2762,-67.306,-0.473909,8.5531,0.550048,7.35853,-6.59706,-2.42506,0.491008,0.0242501,0.231968,0.0614145,0.125956,-1.94759,0.191908,0.389887,0.0606312,0.140339,0.0813248,0.213562,-0.0895296,-1.85296,1.60837,0.00193217,0,0,0,0,0,0,0,5.45856,-41.1595,5.68605,28.2721,2.45605,2.13769,0.0376436,
0.240243,0.0612985,0.132774,-1.95132,0.162097,0.418209,0.0603899,0.0852565,-0.0159117,0.0735317,-0.0432832,-0.522445,0.379318,0.00221163,-2.2633,0.794369,-2.13275,0.694936,77.2196,-54.5273,-0.387064,8.34044,0.559768,7.14606,-6.51587,-2.19126,0.367435,0.0220486,0.231968,0.0614145,0.125956,-1.94759,0.191908,0.389887,0.0606312,0.140339,0.0813248,0.213562,-0.0895296,-1.85296,1.60837,0.00193217,0,0,0,0,0,0,0,5.45856,-41.1595,5.68605,28.2721,2.45605,2.13769,0.0376436,
0.240806,0.0612169,0.133251,-1.95163,0.161925,0.418419,0.0603873,0.0822804,-0.0147692,0.070741,-0.0423592,-0.422271,0.308708,0.00170449,-1.8601,0.71406,-1.7442,0.577504,62.6088,-44.1314,-0.316964,8.13334,0.568009,6.94057,-6.43324,-1.98552,0.261386,0.0200926,0.231968,0.0614145,0.125956,-1.94759,0.191908,0.389887,0.0606312,0.140339,0.0813248,0.213562,-0.0895296,-1.85296,1.60837,0.00193217,0,0,0,0,0,0,0,5.45856,-41.1595,5.68605,28.2721,2.45605,2.13769,0.0376436,
0.241364,0.06114,0.133724,-1.95194,0.161797,0.418606,0.0603842,0.0797844,-0.0137397,0.0684131,-0.04156,-0.341013,0.251626,0.00128661,-1.55996,0.643431,-1.45493,0.499519,50.786,-35.6761,-0.261171,8.54442,-0.263172,7.37113,-5.59225,-1.2801,0.199458,0.0135774,0.237661,0.0614017,0.131166,-1.95214,0.141811,0.431948,0.0606057,0.189268,-0.06154,0.0939456,-0.129153,-1.17691,0.97212,-0.000113529,6.11613,-17.8581,-14.952,-4.95292,84.5061,-79.5313,-0.255712,5.45856,-37.216,5.48768,23.9398,3.78814,0.194937,0.138352,
0.244555,0.059452,0.136872,-1.95456,0.13007,0.44711,0.0603459,0.0754433,-0.0129821,0.0644884,-0.03904,-0.269938,0.205231,0.000861443,-2.71321,0.473482,-2.4529,1.57498,44.4223,-28.9971,-0.265731,6.94086,-0.173867,5.83761,-4.81075,-0.391744,-0.0867059,0.00316793,0.237661,0.0614017,0.131166,-1.95214,0.141811,0.431948,0.0606057,0.189268,-0.06154,0.0939456,-0.129153,-1.17691,0.97212,-0.000113529,0,0,0,0,0,0,0,5.45856,-37.216,5.48768,23.9398,3.78814,0.194937,0.138352,
0.245014,0.0593811,0.137257,-1.95479,0.130198,0.447243,0.0603386,0.0718145,-0.0121599,0.0612228,-0.0370057,-0.21274,0.167495,0.000507412,-2.26796,0.513912,-2.041,1.27144,35.7484,-23.585,-0.22127,6.78137,-0.158171,5.68925,-4.72175,-0.347106,-0.0869343,0.00240543,0.237661,0.0614017,0.131166,-1.95214,0.141811,0.431948,0.0606057,0.189268,-0.06154,0.0939456,-0.129153,-1.17691,0.97212,-0.000113529,0,0,0,0,0,0,0,5.45856,-37.216,5.48768,23.9398,3.78814,0.194937,0.138352,
0.245465,0.0593177,0.137637,-1.95502,0.130339,0.447355,0.0603308,0.0687361,-0.0113126,0.0584671,-0.0353264,-0.166685,0.136807,0.000209958,-1.92403,0.529564,-1.72236,1.04957,28.7846,-19.1799,-0.185909,6.62476,-0.141124,5.54427,-4.63228,-0.309734,-0.0853896,0.00171944,0.237661,0.0614017,0.131166,-1.95214,0.141811,0.431948,0.0606057,0.189268,-0.06154,0.0939456,-0.129153,-1.17691,0.97212,-0.000113529,0,0,0,0,0,0,0,5.45856,-37.216,5.48768,23.9398,3.78814,0.194937,0.138352,
0.245909,0.0592609,0.13801,-1.95525,0.13049,0.447451,0.0603223,0.0660816,-0.0104687,0.056105,-0.033905,-0.129555,0.111849,-4.36172e-05,-1.65909,0.527444,-1.47628,0.888387,23.2061,-15.5986,-0.158485,6.47097,-0.122728,5.4025,-4.54276,-0.277664,-0.0809547,0.00103221,0.237661,0.0614017,0.131166,-1.95214,0.141811,0.431948,0.0606057,0.189268,-0.06154,0.0939456,-0.129153,-1.17691,0.97212,-0.000113529,0,0,0,0,0,0,0,5.45856,-37.216,5.48768,23.9398,3.78814,0.194937,0.138352,
0.249164,0.0611004,0.139914,-1.95755,0.118834,0.457843,0.0603839,0.0632607,-0.00917567,0.0537062,-0.032,-0.096726,0.0903265,-0.000333547,-1.76301,0.80812,-1.49926,1.19061,20.5181,-13.4518,-0.181206,5.82091,-0.428668,4.85852,-3.47179,0.112567,0.0262613,-0.00565806,0.243107,0.0612696,0.134741,-1.95516,0.119889,0.452795,0.0605822,0.243419,0.0165415,0.00706563,-0.0550585,-0.408553,0.366568,0.000201053,6.76887,9.76019,-10.86,9.26181,96.045,-75.6941,0.0393227,2.0586,-34.4945,2.6114,21.972,2.25464,0.248038,0.0907442,
0.249566,0.0610719,0.140256,-1.95774,0.119123,0.457862,0.0603714,0.0606746,-0.00805127,0.0515161,-0.030337,-0.0701505,0.0727341,-0.000579173,-1.61631,0.702747,-1.36878,1.03938,16.6097,-10.9952,-0.153516,5.68575,-0.401581,4.73897,-3.38074,0.121821,0.0305473,-0.00632441,0.243107,0.0612696,0.134741,-1.95516,0.119889,0.452795,0.0605822,0.243419,0.0165415,0.00706563,-0.0550585,-0.408553,0.366568,0.000201053,0,0,0,0,0,0,0,2.0586,-34.4945,2.6114,21.972,2.25464,0.248038,0.0907442,
0.249956,0.0610469,0.140588,-1.95792,0.119426,0.457869,0.0603585,0.0582902,-0.00706644,0.0495121,-0.0288562,-0.0485529,0.0583454,-0.000787834,-1.49028,0.615518,-1.2525,0.925472,13.4985,-8.99297,-0.130414,5.55263,-0.373827,4.62215,-3.28928,0.130486,0.0329972,-0.00698314,0.243107,0.0612696,0.134741,-1.95516,0.119889,0.452795,0.0605822,0.243419,0.0165415,0.00706563,-0.0550585,-0.408553,0.366568,0.000201053,0,0,0,0,0,0,0,2.0586,-34.4945,2.6114,21.972,2.25464,0.248038,0.0907442,
0.243975,0.0613616,0.135475,-1.95543,0.118241,0.454558,0.0605346,0.0683128,-0.00335421,0.0579613,-0.0299349,-0.0800556,0.0907416,-0.0018218,6.26414,2.32014,5.28075,-0.674183,-19.6891,20.2477,-0.646231,5.82091,-0.428668,4.85852,-3.47179,0.112567,0.0262613,-0.00565806,0.243107,0.0612696,0.134741,-1.95516,0.119889,0.452795,0.0605822,0.243419,0.0165415,0.00706563,-0.0550585,-0.408553,0.366568,0.000201053,0,0,0,0,0,0,0,2.0586,-34.4945,2.6114,21.972,2.25464,0.248038,0.0907442,
0.244691,0.0613985,0.136096,-1.95566,0.117509,0.455669,0.0605013,0.0725699,-0.00175934,0.0618782,-0.0297347,-0.0823437,0.10038,-0.00228913,2.6607,0.996793,2.44807,0.125161,-1.43009,6.02426,-0.292076,5.75487,-0.470515,4.80304,-3.33534,0.178268,0.024125,-0.00653497,0.247516,0.0615723,0.138041,-1.95691,0.112533,0.461188,0.060554,0.173727,0.0018729,0.0154933,-0.0404421,-0.12003,0.172687,0.00115128,-8.71151,-1.83358,1.05346,1.82705,36.0654,-24.2352,0.118779,2.38788,-37.3906,3.0359,23.8129,1.78405,1.20934,0.0440523,
0.245321,0.0613968,0.136638,-1.95588,0.117259,0.456391,0.0604793,0.0737929,-0.00145013,0.0630755,-0.0292869,-0.0721308,0.0983392,-0.00238091,0.764381,0.193256,0.748311,0.279868,6.38305,-1.27574,-0.0573661,5.62175,-0.442761,4.68623,-3.24388,0.186933,0.0265749,-0.00719371,0.247516,0.0615723,0.138041,-1.95691,0.112533,0.461188,0.060554,0.173727,0.0018729,0.0154933,-0.0404421,-0.12003,0.172687,0.00115128,0,0,0,0,0,0,0,2.38788,-37.3906,3.0359,23.8129,1.78405,1.20934,0.0440523,
0.245894,0.0613719,0.13713,-1.9561,0.117257,0.456869,0.0604635,0.0733491,-0.0017816,0.0627594,-0.0288437,-0.057738,0.0906342,-0.00230003,-0.277384,-0.207164,-0.197621,0.277002,8.99554,-4.81564,0.0505497,5.49067,-0.414456,4.57213,-3.1522,0.19647,0.0282189,-0.00790344,0.247516,0.0615723,0.138041,-1.95691,0.112533,0.461188,0.060554,0.173727,0.0018729,0.0154933,-0.0404421,-0.12003,0.172687,0.00115128,0,0,0,0,0,0,0,2.38788,-37.3906,3.0359,23.8129,1.78405,1.20934,0.0440523,
0.251569,0.0614152,0.141548,-1.95836,0.114158,0.463224,0.060412,0.0685567,-0.00205409,0.0587572,-0.0271469,-0.0365232,0.0726339,-0.00219432,-2.99527,-0.170306,-2.50137,1.06048,13.2592,-11.2502,0.0660718,4.98392,-0.299304,4.14313,-2.78028,0.248005,0.0194088,-0.0109343,0.247516,0.0615723,0.138041,-1.95691,0.112533,0.461188,0.060554,0.173727,0.0018729,0.0154933,-0.0404421,-0.12003,0.172687,0.00115128,0,0,0,0,0,0,0,2.38788,-37.3906,3.0359,23.8129,1.78405,1.20934,0.0440523,
0.251946,0.0613929,0.141875,-1.95852,0.114552,0.46321,0.060398,0.0642712,-0.00219887,0.0551946,-0.0256576,-0.0193665,0.0577502,-0.00210623,-2.67846,-0.0904879,-2.22659,0.930836,10.7229,-9.30232,0.0550532,4.88443,-0.322019,4.06567,-2.67855,0.282899,0.0063968,-0.0117305,0.250948,0.0607011,0.141374,-1.9588,0.110747,0.465197,0.06054,0.058288,-0.0346508,0.133835,-0.0592822,-0.00801093,0.0507396,-0.00231286,-14.4299,-4.56547,14.7928,-2.35502,14.0024,-15.2434,-0.433018,1.32465,-33.2488,2.11152,23.8129,0.635983,2.7813,0.0101778,
0.252306,0.0613735,0.14219,-1.95867,0.114952,0.46318,0.0603843,0.0604248,-0.00224456,0.0520257,-0.0243234,-0.00550304,0.045463,-0.00202665,-2.40395,-0.0285598,-1.98055,0.833873,8.66468,-7.67952,0.0497385,4.76147,-0.294665,3.96714,-2.58309,0.303501,0.00040122,-0.0125488,0.250948,0.0607011,0.141374,-1.9588,0.110747,0.465197,0.06054,0.058288,-0.0346508,0.133835,-0.0592822,-0.00801093,0.0507396,-0.00231286,0,0,0,0,0,0,0,1.32465,-33.2488,2.11152,23.8129,0.635983,2.7813,0.0101778,
0.252651,0.0613566,0.142493,-1.95881,0.115355,0.463138,0.0603713,0.0569514,-0.00221918,0.0492028,-0.023106,0.0056948,0.0353196,-0.00194725,-2.17088,0.0158664,-1.76434,0.760856,6.99865,-6.33963,0.0496276,4.63831,-0.268487,3.87051,-2.48665,0.325587,-0.00676987,-0.0133257,0.250948,0.0607011,0.141374,-1.9588,0.110747,0.465197,0.06054,0.058288,-0.0346508,0.133835,-0.0592822,-0.00801093,0.0507396,-0.00231286,0,0,0,0,0,0,0,1.32465,-33.2488,2.11152,23.8129,0.635983,2.7813,0.0101778,
0.254762,0.0602133,0.144858,-1.95996,0.114622,0.464696,0.0604121,0.0539514,-0.00246424,0.0472354,-0.0213687,0.0176502,0.0254825,-0.00177292,-1.87503,-0.153167,-1.22964,1.0858,7.47211,-6.14821,0.108955,4.1253,-0.183225,3.4918,-2.09318,0.416128,-0.0350584,-0.0156527,0.250948,0.0607011,0.141374,-1.9588,0.110747,0.465197,0.06054,0.058288,-0.0346508,0.133835,-0.0592822,-0.00801093,0.0507396,-0.00231286,0,0,0,0,0,0,0,1.32465,-33.2488,2.11152,23.8129,0.635983,2.7813,0.0101778,
0.255072,0.0601888,0.145153,-1.96007,0.115156,0.464567,0.0604049,0.0508926,-0.00258541,0.0451648,-0.0198305,0.0274588,0.0171407,-0.00159792,-1.91176,-0.0757273,-1.29414,0.961375,6.13039,-5.21363,0.109371,3.98203,-0.174154,3.38117,-1.98049,0.43573,-0.030896,-0.0158168,0.254266,0.0612579,0.145487,-1.96046,0.110488,0.465763,0.0605324,0.0196854,0.0529048,0.18802,-0.0343604,0.0111419,0.0010568,-0.00107753,-4.82532,10.9444,6.77303,3.11523,2.3941,-6.21035,0.154417,1.37622,-38.2912,1.23872,26.5781,0.0500452,3.82226,0.0641939,
0.255356,0.0601665,0.145431,-1.96017,0.115713,0.464412,0.0603987,0.0478358,-0.00262387,0.0430636,-0.0184438,0.0358823,0.00983753,-0.00143522,-1.91049,-0.0240429,-1.31321,0.866722,5.26468,-4.56445,0.10169,3.83577,-0.162933,3.28304,-1.88202,0.448883,-0.037911,-0.015556,0.254266,0.0612579,0.145487,-1.96046,0.110488,0.465763,0.0605324,0.0196854,0.0529048,0.18802,-0.0343604,0.0111419,0.0010568,-0.00107753,0,0,0,0,0,0,0,1.37622,-38.2912,1.23872,26.5781,0.0500452,3.82226,0.0641939,
0.257482,0.0621979,0.148604,-1.96184,0.115244,0.463491,0.060443,0.0456623,-0.000936602,0.0419663,-0.0179632,0.0489753,-0.00275239,-0.00133068,-1.3584,1.05455,-0.685801,0.300327,8.18314,-7.8687,0.0653403,3.17503,-0.145609,2.87004,-1.51247,0.499056,-0.0901491,-0.0102547,0.254266,0.0612579,0.145487,-1.96046,0.110488,0.465763,0.0605324,0.0196854,0.0529048,0.18802,-0.0343604,0.0111419,0.0010568,-0.00107753,0,0,0,0,0,0,0,1.37622,-38.2912,1.23872,26.5781,0.0500452,3.82226,0.0641939,
0.257745,0.0622333,0.148875,-1.96195,0.116126,0.463023,0.0604356,0.0431153,0.000136745,0.0403464,-0.0171362,0.061242,-0.0138908,-0.00124948,-1.59189,0.670842,-1.01245,0.516908,7.66671,-6.9615,0.0507446,2.99743,-0.143438,2.7674,-1.43004,0.531114,-0.118162,-0.00827736,0.254266,0.0612579,0.145487,-1.96046,0.110488,0.465763,0.0605324,0.0196854,0.0529048,0.18802,-0.0343604,0.0111419,0.0010568,-0.00107753,0,0,0,0,0,0,0,1.37622,-38.2912,1.23872,26.5781,0.0500452,3.82226,0.0641939,
0.25798,0.0622606,0.149119,-1.96204,0.117106,0.462498,0.0604281,0.0403791,0.000790957,0.0383668,-0.0160615,0.0734802,-0.0242469,-0.00118874,-1.71012,0.408883,-1.23728,0.671669,7.64883,-6.47259,0.0379623,2.83487,-0.185998,2.67545,-1.32015,0.580615,-0.140123,-0.00660158,0.257898,0.0612966,0.14975,-1.96255,0.111849,0.46556,0.0605283,0.0440896,-0.0311517,0.192292,-0.0745834,0.0639288,-0.00831775,-0.000565445,3.05053,-10.5071,0.533999,-5.02787,6.59837,-1.17182,0.0640102,-1.05969,-36.0695,-1.08611,26.6772,0.299984,3.70232,0.0577852,
0.258191,0.0622818,0.149337,-1.96212,0.118211,0.461899,0.0604203,0.0375689,0.0011621,0.0361418,-0.0148175,0.0864073,-0.0343787,-0.00114527,-1.75639,0.231963,-1.39062,0.777504,8.07945,-6.33233,0.0271737,2.66432,-0.176626,2.58618,-1.24541,0.646898,-0.189788,-0.00537606,0.257898,0.0612966,0.14975,-1.96255,0.111849,0.46556,0.0605283,0.0440896,-0.0311517,0.192292,-0.0745834,0.0639288,-0.00831775,-0.000565445,0,0,0,0,0,0,0,-1.05969,-36.0695,-1.08611,26.6772,0.299984,3.70232,0.0577852,
0.260341,0.0611175,0.152159,-1.96321,0.115485,0.463711,0.0604705,0.04167,0.000405753,0.0405379,-0.0146118,0.0944535,-0.0394321,-0.00118439,2.5632,-0.472716,2.74759,0.128584,5.02888,-3.15837,-0.0244502,2.66432,-0.176626,2.58618,-1.24541,0.646898,-0.189788,-0.00537606,0.257898,0.0612966,0.14975,-1.96255,0.111849,0.46556,0.0605283,0.0440896,-0.0311517,0.192292,-0.0745834,0.0639288,-0.00831775,-0.000565445,0,0,0,0,0,0,0,-1.05969,-36.0695,-1.08611,26.6772,0.299984,3.70232,0.0577852,
0.260739,0.0611003,0.152561,-1.96331,0.11655,0.46321,0.0604607,0.0432715,-0.000105596,0.0424703,-0.0140489,0.102199,-0.0440813,-0.00119141,1.00091,-0.319593,1.20772,0.351817,4.84111,-2.9058,-0.00438933,2.50314,-0.160883,2.50459,-1.17248,0.730671,-0.253289,-0.00475108,0.257898,0.0612966,0.14975,-1.96255,0.111849,0.46556,0.0605283,0.0440896,-0.0311517,0.192292,-0.0745834,0.0639288,-0.00831775,-0.000565445,0,0,0,0,0,0,0,-1.05969,-36.0695,-1.08611,26.6772,0.299984,3.70232,0.0577852,
0.261081,0.0610855,0.152909,-1.96339,0.117688,0.462663,0.0604515,0.043173,-0.000453398,0.0426715,-0.0132417,0.11019,-0.0489341,-0.00118418,-0.0615325,-0.217376,0.125772,0.504482,4.99393,-3.03297,0.00451858,2.3368,-0.153694,2.39757,-1.08854,0.822129,-0.318589,-0.00470993,0.261915,0.0620111,0.153397,-1.96393,0.114536,0.464854,0.0605333,0.0796579,0.0479702,0.136381,-0.0238082,0.104552,-0.0174755,0.00198735,4.44604,9.89025,-6.9888,6.3469,5.07789,-1.14471,0.3191,-2.47998,-37.4144,-2.71269,26.7526,0.581051,3.12554,0.00376909,
0.261377,0.0610725,0.15321,-1.96345,0.118925,0.46205,0.0604425,0.0419358,-0.000687188,0.0416687,-0.0122657,0.119081,-0.0544576,-0.00117234,-0.773251,-0.146119,-0.62679,0.609981,5.55703,-3.45222,0.00739814,2.2,-0.123832,2.31266,-1.01478,0.946054,-0.41522,-0.00478075,0.261915,0.0620111,0.153397,-1.96393,0.114536,0.464854,0.0605333,0.0796579,0.0479702,0.136381,-0.0238082,0.104552,-0.0174755,0.00198735,0,0,0,0,0,0,0,-2.47998,-37.4144,-2.71269,26.7526,0.581051,3.12554,0.00376909,
0.26408,0.062646,0.155551,-1.96459,0.119407,0.462759,0.0604735,0.0436603,0.00166244,0.0434497,-0.0129399,0.129087,-0.0609224,-0.0012189,1.07782,1.46852,1.11312,-0.421343,6.2539,-4.0405,-0.0290957,2.2,-0.123832,2.31266,-1.01478,0.946054,-0.41522,-0.00478075,0.261915,0.0620111,0.153397,-1.96393,0.114536,0.464854,0.0605333,0.0796579,0.0479702,0.136381,-0.0238082,0.104552,-0.0174755,0.00198735,0,0,0,0,0,0,0,-2.47998,-37.4144,-2.71269,26.7526,0.581051,3.12554,0.00376909,
0.264422,0.0627106,0.155892,-1.9647,0.120876,0.461969,0.0604632,0.0434613,0.00294516,0.0432936,-0.0128987,0.139989,-0.0684758,-0.00123343,-0.124381,0.801701,-0.0975339,0.0257542,6.81366,-4.72083,-0.00908431,2.07408,-0.0884594,2.21408,-0.9396,1.09818,-0.531412,-0.00484392,0.261915,0.0620111,0.153397,-1.96393,0.114536,0.464854,0.0605333,0.0796579,0.0479702,0.136381,-0.0238082,0.104552,-0.0174755,0.00198735,0,0,0,0,0,0,0,-2.47998,-37.4144,-2.71269,26.7526,0.581051,3.12554,0.00376909,
0.26471,0.0627584,0.15618,-1.96478,0.122491,0.461081,0.0604535,0.0419843,0.00355059,0.0418335,-0.0123575,0.152372,-0.0769869,-0.0012289,-0.92314,0.378394,-0.912588,0.338244,7.73951,-5.31944,0.00283267,1.96356,-0.0826816,2.098,-0.856357,1.27352,-0.663633,-0.00477782,0.265553,0.0624482,0.156541,-1.96497,0.118218,0.464366,0.060527,0.0959169,-0.0132073,0.0821842,-0.0412573,0.112551,-0.00402207,0.000510443,2.03237,-7.64719,-6.77464,-2.18114,0.999825,1.68167,-0.184614,-1.64288,-37.6405,-1.66136,27.0779,1.26495,2.42974,0.0376436,
0.264954,0.0627943,0.156422,-1.96484,0.124283,0.460087,0.0604445,0.0396865,0.00373798,0.0395203,-0.0114804,0.166699,-0.0864258,-0.00120856,-1.43611,0.117121,-1.44574,0.548141,8.95427,-5.89932,0.0127091,1.84908,-0.0418327,1.9718,-0.779767,1.49654,-0.820202,-0.00456748,0.265553,0.0624482,0.156541,-1.96497,0.118218,0.464366,0.060527,0.0959169,-0.0132073,0.0821842,-0.0412573,0.112551,-0.00402207,0.000510443,0,0,0,0,0,0,0,-1.64288,-37.6405,-1.66136,27.0779,1.26495,2.42974,0.0376436,
0.267322,0.0623677,0.158286,-1.96525,0.124408,0.461569,0.0604685,0.0398057,0.00260624,0.0395693,-0.0100297,0.17994,-0.0920907,-0.00124985,0.07446,-0.707337,0.0306328,0.906722,8.27555,-3.54055,-0.0258057,1.84908,-0.0418327,1.9718,-0.779767,1.49654,-0.820202,-0.00456748,0.265553,0.0624482,0.156541,-1.96497,0.118218,0.464366,0.060527,0.0959169,-0.0132073,0.0821842,-0.0412573,0.112551,-0.00402207,0.000510443,0,0,0,0,0,0,0,-1.64288,-37.6405,-1.66136,27.0779,1.26495,2.42974,0.0376436,
0.267589,0.0623535,0.158548,-1.96527,0.126479,0.460522,0.0604589,0.0385204,0.00172858,0.0382007,-0.00859997,0.195734,-0.0998371,-0.00124145,-0.80327,-0.548538,-0.855372,0.893576,9.87162,-4.84149,0.00524981,1.73602,-0.00036971,1.83966,-0.703595,1.75547,-0.993692,-0.00419127,0.265553,0.0624482,0.156541,-1.96497,0.118218,0.464366,0.060527,0.0959169,-0.0132073,0.0821842,-0.0412573,0.112551,-0.00402207,0.000510443,0,0,0,0,0,0,0,-1.64288,-37.6405,-1.66136,27.0779,1.26495,2.42974,0.0376436,
0.26781,0.0623412,0.158762,-1.96529,0.128773,0.459348,0.0604509,0.0363477,0.00107544,0.0359018,-0.00723082,0.213936,-0.109229,-0.00119304,-1.35795,-0.408218,-1.43679,0.85572,11.3757,-5.86983,0.0302567,1.62306,0.0412383,1.70535,-0.628484,2.04744,-1.17836,-0.00365926,0.265553,0.0624482,0.156541,-1.96497,0.118218,0.464366,0.060527,0.0959169,-0.0132073,0.0821842,-0.0412573,0.112551,-0.00402207,0.000510443,0,0,0,0,0,0,0,-1.64288,-37.6405,-1.66136,27.0779,1.26495,2.42974,0.0376436,
0.267993,0.0623317,0.158933,-1.96529,0.131305,0.458048,0.0604447,0.0336495,0.000623483,0.0330028,-0.00594088,0.234435,-0.11987,-0.00110796,-1.6864,-0.28247,-1.81185,0.806212,12.8119,-6.65069,0.0531742,1.50042,0.0634191,1.5525,-0.553688,2.35271,-1.36343,-0.00288863,0.268603,0.0627749,0.158739,-1.96579,0.122903,0.463529,0.0605299,0.144617,0.0198412,-0.0170595,-0.0153828,0.150333,-0.0339994,0.00122508,6.08748,4.13107,-12.4055,3.23431,4.72278,-3.74717,0.0893301,-1.79364,-36.2441,-1.38762,26.4313,1.99829,2.31713,0.0303194,
