xiao-wang007/linearmpc_panda/paper_data/panda_torque_PD_controller_opt_time_to_start/0/trajectory.csv
Commanded Joint 0 Position,Commanded Joint 1 Position,Commanded Joint 2 Position,Commanded Joint 3 Position,Commanded Joint 4 Position,Commanded Joint 5 Position,Commanded Joint 6 Position,Commanded Joint 0 Velocity,Commanded Joint 1 Velocity,Commanded Joint 2 Velocity,Commanded Joint 3 Velocity,Commanded Joint 4 Velocity,Commanded Joint 5 Velocity,Commanded Joint 6 Velocity,Commanded Joint 0 Acceleration,Commanded Joint 1 Acceleration,Commanded Joint 2 Acceleration,Commanded Joint 3 Acceleration,Commanded Joint 4 Acceleration,Commanded Joint 5 Acceleration,Commanded Joint 6 Acceleration,Commanded Joint 0 Torque,Commanded Joint 1 Torque,Commanded Joint 2 Torque,Commanded Joint 3 Torque,Commanded Joint 4 Torque,Commanded Joint 5 Torque,Commanded Joint 6 Torque,Actual Joint 0 Position,Actual Joint 1 Position,Actual Joint 2 Position,Actual Joint 3 Position,Actual Joint 4 Position,Actual Joint 5 Position,Actual Joint 6 Position,Actual Joint 0 Velocity,Actual Joint 1 Velocity,Actual Joint 2 Velocity,Actual Joint 3 Velocity,Actual Joint 4 Velocity,Actual Joint 5 Velocity,Actual Joint 6 Velocity,Actual Joint 0 Acceleration,Actual Joint 1 Acceleration,Actual Joint 2 Acceleration,Actual Joint 3 Acceleration,Actual Joint 4 Acceleration,Actual Joint 5 Acceleration,Actual Joint 6 Acceleration,Actual Joint 0 Torque,Actual Joint 1 Torque,Actual Joint 2 Torque,Actual Joint 3 Torque,Actual Joint 4 Torque,Actual Joint 5 Torque,Actual Joint 6 Torque,
0.117555,0.0416327,-0.0613982,-1.7314,-0.00274473,0.261719,-0.0788847,0.000216487,0.0232586,0.000233871,-0.0322288,-0.00410126,0.0529912,-0.000369528,0.135305,14.5366,0.146169,-20.143,-2.56329,33.1195,-0.230955,0.0562598,25.9771,0.0905331,-24.4691,-0.604302,1.80778,-0.0239471,0.117526,0.0404286,-0.0614081,-1.72868,-0.00243395,0.256045,-0.078843,-0.00213233,-0.000366663,-0.000388991,-0.00117052,0.0132357,-0.00178224,0.000751842,0,0,0,0,0,0,0,0.0828892,-36.6408,-0.213304,27.4747,0.58746,3.49724,-0.0227812,
0.117517,0.0404308,-0.0614161,-1.72869,-0.00232366,0.256016,-0.0788411,0.00014404,0.0186358,0.000163232,-0.0258005,-0.00281664,0.0422514,-0.000289201,-0.0452793,-2.88923,-0.0441495,4.01764,0.802891,-6.7124,0.0502044,0.0505174,26.4175,0.0802116,-24.3855,-0.604417,1.55711,-0.0224296,0.117526,0.0404286,-0.0614081,-1.72868,-0.00243395,0.256045,-0.078843,-0.00213233,-0.000366663,-0.000388991,-0.00117052,0.0132357,-0.00178224,0.000751842,0,0,0,0,0,0,0,0.0828892,-36.6408,-0.213304,27.4747,0.58746,3.49724,-0.0227812,
0.117516,0.0404321,-0.0614164,-1.72869,-0.00231306,0.256013,-0.078841,0.00010504,0.0149414,0.00012361,-0.0206524,-0.0019883,0.0337312,-0.000228159,-0.0243754,-2.30903,-0.0247639,3.21756,0.517713,-5.32514,0.0381514,0.0433013,26.9889,0.0684838,-24.2775,-0.603682,1.20979,-0.0204608,0.117526,0.0404286,-0.0614081,-1.72868,-0.00243395,0.256045,-0.078843,-0.00213233,-0.000366663,-0.000388991,-0.00117052,0.0132357,-0.00178224,0.000751842,0,0,0,0,0,0,0,0.0828892,-36.6408,-0.213304,27.4747,0.58746,3.49724,-0.0227812,
0.117516,0.0404335,-0.0614163,-1.72869,-0.00230693,0.256013,-0.0788409,8.31636e-05,0.0119881,0.000100128,-0.0165302,-0.00143759,0.0269661,-0.000181081,-0.0136726,-1.84581,-0.014676,2.57643,0.344188,-4.22819,0.0294238,0.0373552,27.5127,0.059061,-24.1097,-0.601439,0.824857,-0.0184592,0.117526,0.0404286,-0.0614081,-1.72868,-0.00243395,0.256045,-0.078843,-0.00213233,-0.000366663,-0.000388991,-0.00117052,0.0132357,-0.00178224,0.000751842,0,0,0,0,0,0,0,0.0828892,-36.6408,-0.213304,27.4747,0.58746,3.49724,-0.0227812,
0.117258,0.040416,-0.061682,-1.72851,0.00577027,0.251561,-0.0788718,-0.000920193,0.00933267,-0.000875575,-0.0128493,0.0496406,-0.00749361,-0.00017255,-0.627098,-1.65964,-0.609815,2.30054,31.9239,-21.5373,0.00533165,0.462128,0.168314,0.464603,-0.261935,2.9834,-1.79783,-0.00134681,0.117526,0.0404286,-0.0614081,-1.72868,-0.00243395,0.256045,-0.078843,-0.00213233,-0.000366663,-0.000388991,-0.00117052,0.0132357,-0.00178224,0.000751842,0,0,0,0,0,0,0,0.0828892,-36.6408,-0.213304,27.4747,0.58746,3.49724,-0.0227812,
0.117231,0.0404065,-0.0617079,-1.7285,0.00785415,0.250347,-0.0788724,-0.00141674,0.00722847,-0.00134909,-0.0100923,0.0918095,-0.0363538,-0.000152888,-0.310341,-1.31512,-0.295945,1.72312,26.3555,-18.0376,0.0122886,0.458926,0.207177,0.462113,-0.251088,2.95806,-1.77367,-0.00135945,0.11751,0.0411914,-0.0614266,-1.72989,-0.00248757,0.257811,-0.0788411,-0.00686845,0.0693424,-0.00321967,-0.121339,0.00442669,0.162999,0.000233574,-0.592015,8.71363,-0.353835,-15.021,-1.10113,20.5976,-0.0647835,0.309024,-20.5931,0.0644055,11.9586,0.116879,1.76049,-0.0163725,
0.117214,0.0403988,-0.0617228,-1.7285,0.00996455,0.249101,-0.0788727,-0.00153417,0.00559004,-0.00145043,-0.00803485,0.126208,-0.0602416,-0.000131424,-0.073393,-1.02402,-0.0633415,1.2859,21.4988,-14.9299,0.0134152,0.454024,0.204953,0.457186,-0.24851,2.93115,-1.7575,-0.00133121,0.11751,0.0411914,-0.0614266,-1.72989,-0.00248757,0.257811,-0.0788411,-0.00686845,0.0693424,-0.00321967,-0.121339,0.00442669,0.162999,0.000233574,0,0,0,0,0,0,0,0.309024,-20.5931,0.0644055,11.9586,0.116879,1.76049,-0.0163725,
0.117208,0.0403933,-0.061728,-1.7285,0.0120853,0.247836,-0.078873,-0.0013841,0.00433518,-0.00129117,-0.00650503,0.153985,-0.0798062,-0.000112248,0.0937894,-0.784282,0.0995417,0.956134,17.3609,-12.2279,0.0119848,0.449084,0.202646,0.452228,-0.246012,2.90424,-1.74136,-0.00130755,0.11751,0.0411914,-0.0614266,-1.72989,-0.00248757,0.257811,-0.0788411,-0.00686845,0.0693424,-0.00321967,-0.121339,0.00442669,0.162999,0.000233574,0,0,0,0,0,0,0,0.309024,-20.5931,0.0644055,11.9586,0.116879,1.76049,-0.0163725,
0.116811,0.0431745,-0.0621496,-1.73002,0.0265627,0.23316,-0.0789494,-0.00268422,0.00872555,-0.00258626,-0.00665347,0.305697,-0.227306,-0.000128034,-0.812572,2.74398,-0.809432,-0.0927735,94.8198,-92.1875,-0.00986614,3.58218,1.71125,3.5547,-1.77635,11.0165,-10.0275,-0.00461977,0.11751,0.0411914,-0.0614266,-1.72989,-0.00248757,0.257811,-0.0788411,-0.00686845,0.0693424,-0.00321967,-0.121339,0.00442669,0.162999,0.000233574,0,0,0,0,0,0,0,0.309024,-20.5931,0.0644055,11.9586,0.116879,1.76049,-0.0163725,
0.1168,0.04335,-0.0621591,-1.7301,0.0340198,0.22636,-0.0789513,-0.00242258,0.0113683,-0.00230752,-0.00743842,0.430983,-0.35184,-0.000150503,0.163524,1.65171,0.174209,-0.490592,78.3042,-77.8334,-0.014043,3.45512,1.81517,3.43296,-1.77522,10.9976,-9.86674,-0.00497705,0.117452,0.04518,-0.0614867,-1.73437,0.00101439,0.259741,-0.078839,-0.00572425,0.0548583,-0.00227855,-0.0516146,0.226383,-0.225649,0.000968623,0.143024,-1.81051,0.117641,8.71551,27.7445,-48.5809,0.0918811,1.09455,-37.0931,0.814222,35.2228,1.89483,4.47228,-0.0365141,
0.116837,0.0435054,-0.0621212,-1.7302,0.0415143,0.21942,-0.0789526,-0.00103057,0.0129798,-0.000897686,-0.00856822,0.532149,-0.454993,-0.000152416,0.870009,1.00718,0.881149,-0.706124,63.2284,-64.4707,-0.0011953,3.36002,1.76505,3.34289,-1.75725,10.9976,-9.73372,-0.00546177,0.117452,0.04518,-0.0614867,-1.73437,0.00101439,0.259741,-0.078839,-0.00572425,0.0548583,-0.00227855,-0.0516146,0.226383,-0.225649,0.000968623,0,0,0,0,0,0,0,1.09455,-37.0931,0.814222,35.2228,1.89483,4.47228,-0.0365141,
0.116914,0.0436499,-0.0620423,-1.73032,0.0489699,0.21242,-0.0789537,0.00111614,0.0139947,0.00125409,-0.00983369,0.612111,-0.538996,-0.000149581,1.34169,0.63435,1.34486,-0.790921,49.9765,-52.5019,0.00177133,3.28651,1.72023,3.28349,-1.74801,10.7416,-9.59361,-0.00579288,0.117452,0.04518,-0.0614867,-1.73437,0.00101439,0.259741,-0.078839,-0.00572425,0.0548583,-0.00227855,-0.0516146,0.226383,-0.225649,0.000968623,0,0,0,0,0,0,0,1.09455,-37.0931,0.814222,35.2228,1.89483,4.47228,-0.0365141,
0.120366,0.04485,-0.0586758,-1.73657,0.0294734,0.220511,-0.0783934,0.0213652,0.00228629,0.0205633,-0.0251705,0.670498,-0.67565,0.000876498,12.6557,-7.31778,12.0683,-9.5855,36.4917,-85.4089,0.6413,22.3684,2.0582,21.903,-8.02502,10.9976,-14.3618,0.0955762,0.117452,0.04518,-0.0614867,-1.73437,0.00101439,0.259741,-0.078839,-0.00572425,0.0548583,-0.00227855,-0.0516146,0.226383,-0.225649,0.000968623,0,0,0,0,0,0,0,1.09455,-37.0931,0.814222,35.2228,1.89483,4.47228,-0.0365141,
0.121229,0.044472,-0.0578506,-1.73728,0.0371064,0.210276,-0.0783728,0.0386708,-0.00762006,0.0370809,-0.0379387,0.727222,-0.796383,0.00121743,10.816,-6.19146,10.3235,-7.98012,35.4526,-75.4577,0.213083,20.8754,-0.32433,20.4797,-9.00434,10.7567,-14.3754,0.163408,0.117191,0.0481575,-0.0617572,-1.73471,0.0225684,0.242312,-0.0788515,-0.0285573,0.102518,-0.0307647,0.00770811,1.14368,-0.954534,0.000117288,-2.85413,5.95744,-3.56077,7.41533,114.663,-91.1107,-0.106417,6.49799,-45.3291,6.16212,21.2222,4.56359,-3.42506,0.0440523,
0.12212,0.0440967,-0.0569972,-1.738,0.0450249,0.199733,-0.07836,0.0532115,-0.015479,0.0509981,-0.0482828,0.77974,-0.900691,0.00129379,9.08793,-4.91182,8.69825,-6.46504,32.8238,-65.193,0.0477269,18.9717,-3.40973,18.5311,-10.4109,10.7567,-14.3754,0.16288,0.117191,0.0481575,-0.0617572,-1.73471,0.0225684,0.242312,-0.0788515,-0.0285573,0.102518,-0.0307647,0.00770811,1.14368,-0.954534,0.000117288,0,0,0,0,0,0,0,6.49799,-45.3291,6.16212,21.2222,4.56359,-3.42506,0.0440523,
0.123028,0.0437335,-0.0561263,-1.73874,0.0531473,0.189129,-0.0783495,0.0652634,-0.0214624,0.0625728,-0.0570839,0.826852,-0.985645,0.0012974,7.53247,-3.73965,7.23417,-5.50071,29.4448,-53.0963,0.00225275,16.8436,-4.63326,16.3254,-11.0646,10.7567,-14.3754,0.0977564,0.117191,0.0481575,-0.0617572,-1.73471,0.0225684,0.242312,-0.0788515,-0.0285573,0.102518,-0.0307647,0.00770811,1.14368,-0.954534,0.000117288,0,0,0,0,0,0,0,6.49799,-45.3291,6.16212,21.2222,4.56359,-3.42506,0.0440523,
0.120639,0.0491597,-0.0582792,-1.73907,0.0612532,0.194606,-0.0786528,0.0771244,-0.0131656,0.0746752,-0.069728,0.856594,-1.04968,0.00143979,7.41311,5.18547,7.56399,-7.90258,18.5888,-40.0187,0.0889956,21.6574,2.7264,21.3288,-15.4036,10.7567,-14.3754,0.0534219,0.117191,0.0481575,-0.0617572,-1.73471,0.0225684,0.242312,-0.0788515,-0.0285573,0.102518,-0.0307647,0.00770811,1.14368,-0.954534,0.000117288,0,0,0,0,0,0,0,6.49799,-45.3291,6.16212,21.2222,4.56359,-3.42506,0.0440523,
0.121695,0.0493308,-0.0572383,-1.74004,0.0692095,0.183962,-0.0786392,0.0880978,-0.00625442,0.085762,-0.0801796,0.884183,-1.10583,0.00149166,6.85835,4.31952,6.92926,-6.53223,17.243,-35.0956,0.0324182,20.196,3.46765,19.8805,-14.9679,10.6911,-14.0078,0.0298288,0.11883,0.0492314,-0.0594096,-1.7368,0.0593838,0.197031,-0.0788457,0.153618,-0.0358299,0.133836,-0.121822,1.14199,-1.63283,0.000102106,22.7719,-17.2935,20.5751,-16.1913,-0.211377,-84.7873,-0.00189783,16.6146,-39.6639,15.513,18.9053,4.20929,-3.45161,0.0779268,
0.122788,0.0495087,-0.0561624,-1.74107,0.0773061,0.173451,-0.0786257,0.0977985,-0.000557195,0.0955068,-0.0897446,0.909763,-1.14745,0.00153048,6.06293,3.56076,6.0905,-5.97815,15.9874,-26.0132,0.0242652,19.0025,3.62927,18.7018,-14.5499,10.6911,-14.0078,0.0181728,0.11883,0.0492314,-0.0594096,-1.7368,0.0593838,0.197031,-0.0788457,0.153618,-0.0358299,0.133836,-0.121822,1.14199,-1.63283,0.000102106,0,0,0,0,0,0,0,16.6146,-39.6639,15.513,18.9053,4.20929,-3.45161,0.0779268,
0.123902,0.0496963,-0.0550659,-1.74216,0.08552,0.163404,-0.0786118,0.1061,0.00424421,0.103818,-0.0989766,0.933159,-1.16912,0.00157266,5.18857,3.00088,5.19438,-5.77001,14.6224,-13.5472,0.0263622,18.0222,3.68016,17.7336,-14.1803,10.6911,-14.0078,0.0141082,0.11883,0.0492314,-0.0594096,-1.7368,0.0593838,0.197031,-0.0788457,0.153618,-0.0358299,0.133836,-0.121822,1.14199,-1.63283,0.000102106,0,0,0,0,0,0,0,16.6146,-39.6639,15.513,18.9053,4.20929,-3.45161,0.0779268,
0.126134,0.0483175,-0.0523259,-1.74453,0.101959,0.140039,-0.0788305,0.122704,0.0013504,0.11968,-0.119641,0.958799,-1.2043,0.0011189,10.3776,-1.80863,9.91392,-12.9154,16.0255,-21.9825,-0.283605,22.9629,1.71943,22.2419,-21.4873,10.6911,-14.0078,0.00659374,0.11883,0.0492314,-0.0594096,-1.7368,0.0593838,0.197031,-0.0788457,0.153618,-0.0358299,0.133836,-0.121822,1.14199,-1.63283,0.000102106,0,0,0,0,0,0,0,16.6146,-39.6639,15.513,18.9053,4.20929,-3.45161,0.0779268,
0.127638,0.0482534,-0.0508693,-1.74621,0.110483,0.130059,-0.0788336,0.135775,-0.000521055,0.13216,-0.137826,0.980133,-1.21293,0.000817775,8.16921,-1.16966,7.79964,-11.3652,13.3335,-5.39877,-0.188201,21.667,1.72229,20.9903,-21.1173,10.5496,-13.6564,-0.00440746,0.122992,0.050503,-0.0559464,-1.74326,0.100257,0.137215,-0.0788444,0.220216,0.0862417,0.0905485,-0.207235,1.16437,-1.87719,-0.000122099,8.32483,15.259,-5.41093,-10.6766,2.79747,-30.5442,-0.0280255,12.4569,-34.8436,12.1607,27.1771,4.78973,-1.62147,0.0376436,
0.129127,0.0482072,-0.0494275,-1.74794,0.119027,0.120999,-0.0788323,0.145853,-0.00157337,0.141772,-0.153475,0.997714,-1.19685,0.000686909,6.29875,-0.657699,6.00774,-9.78106,10.9883,10.0508,-0.0817912,20.5238,1.39383,19.8835,-20.7348,10.5496,-13.6564,-0.00849053,0.122992,0.050503,-0.0559464,-1.74326,0.100257,0.137215,-0.0788444,0.220216,0.0862417,0.0905485,-0.207235,1.16437,-1.87719,-0.000122099,0,0,0,0,0,0,0,12.4569,-34.8436,12.1607,27.1771,4.78973,-1.62147,0.0376436,
0.130597,0.048177,-0.0480053,-1.74969,0.127579,0.11291,-0.0788273,0.153416,-0.00201409,0.148973,-0.166504,1.01197,-1.1597,0.000672855,4.72678,-0.275448,4.50053,-8.1428,8.91226,23.2235,-0.00878334,19.553,1.03046,18.9385,-20.393,10.5496,-13.6564,-0.00972302,0.122992,0.050503,-0.0559464,-1.74326,0.100257,0.137215,-0.0788444,0.220216,0.0862417,0.0905485,-0.207235,1.16437,-1.87719,-0.000122099,0,0,0,0,0,0,0,12.4569,-34.8436,12.1607,27.1771,4.78973,-1.62147,0.0376436,
0.130457,0.0523002,-0.0486144,-1.75523,0.142946,0.0872412,-0.0789054,0.161039,0.00651774,0.15675,-0.1934,1.01965,-1.10503,0.00037683,4.76471,5.33239,4.86061,-16.81,4.80047,34.1673,-0.185016,21.1287,3.3189,20.7042,-26.1034,10.5496,-12.6152,-0.0352075,0.122992,0.050503,-0.0559464,-1.74326,0.100257,0.137215,-0.0788444,0.220216,0.0862417,0.0905485,-0.207235,1.16437,-1.87719,-0.000122099,0,0,0,0,0,0,0,12.4569,-34.8436,12.1607,27.1771,4.78973,-1.62147,0.0376436,
0.131977,0.0526103,-0.0471241,-1.75759,0.151343,0.0814235,-0.0789067,0.166834,0.0129671,0.162656,-0.213793,1.02565,-1.02946,0.000268349,3.62164,4.03083,3.69164,-12.7455,3.74609,47.2276,-0.0678005,20.4778,2.6968,20.0524,-25.4878,10.5359,-9.80636,-0.0330712,0.131201,0.0486159,-0.048854,-1.75426,0.144116,0.0705116,-0.0788456,0.350651,0.00292718,0.175848,-0.302207,1.29517,-1.96975,-0.00123602,16.3044,-10.4143,10.6625,-11.8716,16.35,-11.5705,-0.13924,9.87018,-31.3246,9.83583,20.0519,3.37249,0.0292265,0.0440523,
0.133478,0.0529039,-0.0456532,-1.7599,0.159735,0.076767,-0.0789007,0.170985,0.0177151,0.166897,-0.22874,1.03034,-0.939986,0.000366189,2.59447,2.96751,2.6502,-9.342,2.93135,55.9242,0.0611496,19.6252,2.22955,19.2205,-25.1896,10.5359,-7.79384,-0.0249637,0.131201,0.0486159,-0.048854,-1.75426,0.144116,0.0705116,-0.0788456,0.350651,0.00292718,0.175848,-0.302207,1.29517,-1.96975,-0.00123602,0,0,0,0,0,0,0,9.87018,-31.3246,9.83583,20.0519,3.37249,0.0292265,0.0440523,
0.140846,0.0486837,-0.0394637,-1.76895,0.191045,0.0398906,-0.0788752,0.180993,0.0164254,0.176563,-0.2509,1.04786,-0.808816,0.000499094,6.25469,-0.806048,6.04129,-13.8502,10.9522,81.9812,0.0830659,19.107,-1.24606,18.582,-29.5245,10.5359,-2.32988,-0.0255102,0.131201,0.0486159,-0.048854,-1.75426,0.144116,0.0705116,-0.0788456,0.350651,0.00292718,0.175848,-0.302207,1.29517,-1.96975,-0.00123602,0,0,0,0,0,0,0,9.87018,-31.3246,9.83583,20.0519,3.37249,0.0292265,0.0440523,
0.142539,0.0487738,-0.0378161,-1.77155,0.199853,0.0388142,-0.0788577,0.187108,0.0153934,0.182439,-0.265808,1.05847,-0.673961,0.000835519,3.82203,-0.644984,3.67237,-9.31745,6.6292,84.2842,0.210266,18.4217,-1.26375,17.9213,-29.1513,10.5359,-0.977914,-0.0168862,0.131201,0.0486159,-0.048854,-1.75426,0.144116,0.0705116,-0.0788456,0.350651,0.00292718,0.175848,-0.302207,1.29517,-1.96975,-0.00123602,0,0,0,0,0,0,0,9.87018,-31.3246,9.83583,20.0519,3.37249,0.0292265,0.0440523,
0.144159,0.048856,-0.036239,-1.77405,0.208549,0.0387089,-0.0788315,0.190205,0.0143695,0.18538,-0.275188,1.06417,-0.541802,0.00132319,1.93541,-0.639983,1.83816,-5.86242,3.5653,82.5993,0.304797,18.121,-1.7614,17.6107,-28.007,10.4717,0.685012,-0.0116795,0.142108,0.04783,-0.0382407,-1.77114,0.191945,0.0152407,-0.0788417,0.472609,-0.0395898,0.237739,-0.591682,1.44095,-1.32311,0.00275435,15.2447,-5.31463,7.73626,-36.1844,18.2222,80.8297,0.498796,6.93042,-31.6261,7.1103,21.8213,3.06671,4.09417,-0.0301054,
0.145712,0.0489275,-0.0347283,-1.77646,0.217153,0.0393914,-0.0787983,0.190979,0.0132831,0.186069,-0.280374,1.06644,-0.416379,0.00188885,0.483695,-0.678983,0.431116,-3.24156,1.41761,78.3892,0.353534,17.5934,-1.62663,17.1019,-27.6139,10.4717,1.63029,0.000678433,0.142108,0.04783,-0.0382407,-1.77114,0.191945,0.0152407,-0.0788417,0.472609,-0.0395898,0.237739,-0.591682,1.44095,-1.32311,0.00275435,0,0,0,0,0,0,0,6.93042,-31.6261,7.1103,21.8213,3.06671,4.09417,-0.0301054,
0.153453,0.0488128,-0.0271766,-1.7889,0.241778,0.0114817,-0.0788195,0.200872,0.0166797,0.195818,-0.300823,1.08456,-0.2574,0.00223415,6.18361,2.12287,6.09303,-12.7804,11.3241,99.3619,0.215812,16.6317,-2.03189,16.2257,-32.9879,10.4717,8.01088,-0.0231383,0.142108,0.04783,-0.0382407,-1.77114,0.191945,0.0152407,-0.0788417,0.472609,-0.0395898,0.237739,-0.591682,1.44095,-1.32311,0.00275435,0,0,0,0,0,0,0,6.93042,-31.6261,7.1103,21.8213,3.06671,4.09417,-0.0301054,
0.155244,0.0490305,-0.0254278,-1.79179,0.250803,0.0154224,-0.0787757,0.205473,0.018786,0.200377,-0.313065,1.09328,-0.107401,0.0028814,2.87533,1.31646,2.84905,-7.6509,5.44911,93.7495,0.404532,16.4084,-1.74964,16.0237,-32.566,10.4717,8.32403,-0.00204239,0.142108,0.04783,-0.0382407,-1.77114,0.191945,0.0152407,-0.0788417,0.472609,-0.0395898,0.237739,-0.591682,1.44095,-1.32311,0.00275435,0,0,0,0,0,0,0,6.93042,-31.6261,7.1103,21.8213,3.06671,4.09417,-0.0301054,
0.156916,0.0492212,-0.0237936,-1.79455,0.25962,0.0199946,-0.078722,0.206203,0.0197977,0.201156,-0.319376,1.09506,0.0283841,0.00364955,0.456355,0.632294,0.486985,-3.94443,1.11135,84.8657,0.480093,16.1458,-1.41179,15.7809,-32.133,10.4717,8.50375,0.0176162,0.142108,0.04783,-0.0382407,-1.77114,0.191945,0.0152407,-0.0788417,0.472609,-0.0395898,0.237739,-0.591682,1.44095,-1.32311,0.00275435,0,0,0,0,0,0,0,6.93042,-31.6261,7.1103,21.8213,3.06671,4.09417,-0.0301054,
0.158487,0.0493868,-0.0222574,-1.79718,0.268165,0.0249771,-0.0786667,0.204214,0.0199776,0.19933,-0.321317,1.08966,0.14727,0.00430129,-1.24291,0.112463,-1.1411,-1.21317,-3.37019,74.3036,0.40734,15.9212,-1.87991,15.5386,-30.853,10.2513,8.92205,0.0244653,0.155286,0.04749,-0.0240968,-1.79667,0.243524,-0.00505557,-0.078831,0.536958,-0.0616318,0.256043,-0.795822,1.57473,-0.152827,0.00304358,8.04365,-2.75524,2.28809,-25.5175,16.722,146.286,0.0361543,-0.805783,-35.2205,-0.463243,30.1645,2.28485,7.01104,-0.083206,
0.166984,0.048592,-0.0126969,-1.81552,0.292028,0.0135262,-0.0786949,0.211294,0.0199667,0.206274,-0.336903,1.06613,0.272432,0.00459812,4.42491,-0.00682538,4.33991,-9.74134,-14.709,78.2266,0.185518,13.4783,-4.61594,13.1394,-36.1374,10.2513,11.7213,-0.00189787,0.155286,0.04749,-0.0240968,-1.79667,0.243524,-0.00505557,-0.078831,0.536958,-0.0616318,0.256043,-0.795822,1.57473,-0.152827,0.00304358,0,0,0,0,0,0,0,-0.805783,-35.2205,-0.463243,30.1645,2.28485,7.01104,-0.083206,
0.168774,0.048705,-0.0109491,-1.81853,0.298529,0.0203656,-0.0786489,0.213778,0.0187986,0.208713,-0.344908,1.01542,0.38893,0.00483006,1.55213,-0.730091,1.5246,-5.00309,-31.6911,72.811,0.144963,13.6009,-3.94583,13.2791,-35.6206,9.86986,11.7213,0.0349056,0.155286,0.04749,-0.0240968,-1.79667,0.243524,-0.00505557,-0.078831,0.536958,-0.0616318,0.256043,-0.795822,1.57473,-0.152827,0.00304358,0,0,0,0,0,0,0,-0.805783,-35.2205,-0.463243,30.1645,2.28485,7.01104,-0.083206,
0.170457,0.0487812,-0.00930596,-1.8214,0.30378,0.0276937,-0.0786042,0.213093,0.0169427,0.208049,-0.347654,0.943607,0.494346,0.00498161,-0.42794,-1.15992,-0.415182,-1.71643,-44.8856,65.885,0.0947142,13.456,-3.27773,13.1504,-35.1218,9.09007,11.7213,0.0621303,0.155286,0.04749,-0.0240968,-1.79667,0.243524,-0.00505557,-0.078831,0.536958,-0.0616318,0.256043,-0.795822,1.57473,-0.152827,0.00304358,0,0,0,0,0,0,0,-0.805783,-35.2205,-0.463243,30.1645,2.28485,7.01104,-0.083206,
0.172049,0.04883,-0.00775149,-1.82415,0.307852,0.0353882,-0.0785579,0.21028,0.0147745,0.205301,-0.346863,0.856678,0.587839,0.00514331,-1.7581,-1.35515,-1.71756,0.494455,-54.331,58.4333,0.101066,13.0626,-2.8259,12.7227,-34.2546,8.13332,11.8989,0.0624057,0.170117,0.0479022,-0.00874621,-1.82542,0.297389,0.00690342,-0.0788238,0.628136,0.0178508,0.256319,-0.823564,1.58595,0.645981,0.00154163,11.3973,9.93532,0.0344666,-3.46778,1.40245,99.851,-0.187744,-6.63769,-35.3951,-6.16026,27.1771,1.3446,7.90001,-0.0365141,
0.182672,0.0501749,0.00348723,-1.84388,0.32515,0.0364484,-0.0787369,0.21801,0.0179153,0.212889,-0.356562,0.734726,0.647075,0.00497838,4.83117,1.96303,4.74264,-6.06179,-76.2201,37.0223,-0.103085,10.032,-3.61639,9.70021,-38.2828,3.56649,11.8989,0.0187608,0.170117,0.0479022,-0.00874621,-1.82542,0.297389,0.00690342,-0.0788238,0.628136,0.0178508,0.256319,-0.823564,1.58595,0.645981,0.00154163,0,0,0,0,0,0,0,-6.63769,-35.3951,-6.16026,27.1771,1.3446,7.90001,-0.0365141,
0.184497,0.0503539,0.00527012,-1.84692,0.32585,0.043913,-0.0786926,0.220023,0.0188072,0.214883,-0.361139,0.60527,0.704274,0.00508988,1.25812,0.557424,1.24646,-2.86048,-80.9096,35.7492,0.0696882,10.363,-2.47054,10.0161,-37.5501,1.57967,11.8989,0.0278369,0.170117,0.0479022,-0.00874621,-1.82542,0.297389,0.00690342,-0.0788238,0.628136,0.0178508,0.256319,-0.823564,1.58595,0.645981,0.00154163,0,0,0,0,0,0,0,-6.63769,-35.3951,-6.16026,27.1771,1.3446,7.90001,-0.0365141,
0.186185,0.0504876,0.00692,-1.84985,0.3255,0.0516884,-0.0786408,0.21823,0.0183876,0.213154,-0.362307,0.475477,0.757805,0.00536918,-1.12073,-0.262224,-1.0811,-0.730299,-81.1206,33.4569,0.174563,10.7153,-1.50913,10.3682,-36.8282,0.0388765,11.8989,0.0329959,0.170117,0.0479022,-0.00874621,-1.82542,0.297389,0.00690342,-0.0788238,0.628136,0.0178508,0.256319,-0.823564,1.58595,0.645981,0.00154163,0,0,0,0,0,0,0,-6.63769,-35.3951,-6.16026,27.1771,1.3446,7.90001,-0.0365141,
0.197075,0.0517129,0.0203539,-1.87077,0.345535,0.0837731,-0.0785845,0.222785,0.0232146,0.217551,-0.36337,0.351077,0.80105,0.00578892,2.84733,3.01684,2.74812,-0.664125,-77.7499,27.0286,0.262337,11.2407,-0.36826,10.8742,-35.3834,-2.39637,11.7983,0.05153,0.184697,0.0487583,0.00831454,-1.85401,0.340102,0.0454653,-0.078799,0.583745,0.0139772,0.320075,-0.830678,0.838751,1.32216,2.84368e-05,-5.54892,-0.484199,7.96954,-0.889258,-93.3994,84.5222,-0.189149,-8.49041,-39.886,-8.71123,24.3127,-1.64185,4.89617,0.00376909,
0.198836,0.0519757,0.022073,-1.87362,0.343691,0.0917303,-0.0785162,0.222266,0.0251407,0.217017,-0.36212,0.234756,0.83977,0.00633679,-0.324851,1.20385,-0.333321,0.780952,-72.7007,24.1999,0.34242,11.652,0.0282491,11.2926,-34.774,-3.17236,11.7983,0.0596809,0.184697,0.0487583,0.00831454,-1.85401,0.340102,0.0454653,-0.078799,0.583745,0.0139772,0.320075,-0.830678,0.838751,1.32216,2.84368e-05,0,0,0,0,0,0,0,-8.49041,-39.886,-8.71123,24.3127,-1.64185,4.89617,0.00376909,
0.200464,0.0521847,0.0236615,-1.87641,0.341353,0.099835,-0.0784422,0.218502,0.0253391,0.213328,-0.359364,0.129339,0.874435,0.00692123,-2.35219,0.123986,-2.30558,1.72268,-65.8856,21.6653,0.365275,12.0483,0.289421,11.6982,-34.2037,-3.73376,11.7983,0.0658867,0.184697,0.0487583,0.00831454,-1.85401,0.340102,0.0454653,-0.078799,0.583745,0.0139772,0.320075,-0.830678,0.838751,1.32216,2.84368e-05,0,0,0,0,0,0,0,-8.49041,-39.886,-8.71123,24.3127,-1.64185,4.89617,0.00376909,
0.201983,0.0523572,0.0251447,-1.87914,0.338664,0.108066,-0.0783625,0.21279,0.0245829,0.207742,-0.355636,0.0362605,0.905318,0.0075276,-3.56995,-0.472622,-3.49126,2.32973,-58.1743,19.3018,0.378981,12.4214,0.444028,12.0843,-33.6733,-4.17068,11.7983,0.0743592,0.184697,0.0487583,0.00831454,-1.85401,0.340102,0.0454653,-0.078799,0.583745,0.0139772,0.320075,-0.830678,0.838751,1.32216,2.84368e-05,0,0,0,0,0,0,0,-8.49041,-39.886,-8.71123,24.3127,-1.64185,4.89617,0.00376909,
0.211802,0.0524789,0.0368597,-1.89861,0.342304,0.138089,-0.0784637,0.217002,0.0301027,0.211723,-0.355619,-0.0328099,0.92132,0.00788364,2.63253,3.44986,2.48766,0.0107416,-43.169,10.0017,0.222528,12.4756,0.829033,12.1286,-33.4472,-4.55387,11.5942,0.0877936,0.199486,0.0492099,0.0248856,-1.88239,0.351365,0.0972617,-0.0787667,0.401284,-0.00920662,0.560849,-0.859461,0.0223167,1.61674,0.0012515,-22.8076,-2.89798,30.0967,-3.59781,-102.054,36.8229,0.152883,-6.9154,-34.0978,-7.58452,24.3365,-0.951542,3.93487,0.0577852,
0.213503,0.052815,0.0385167,-1.90138,0.33966,0.146064,-0.0783836,0.216141,0.0324841,0.210805,-0.353568,-0.0923498,0.936424,0.00830946,-0.538081,1.4884,-0.573601,1.28162,-37.2124,9.43986,0.266136,12.757,0.896181,12.4213,-32.9475,-4.70764,11.5942,0.094641,0.199486,0.0492099,0.0248856,-1.88239,0.351365,0.0972617,-0.0787667,0.401284,-0.00920662,0.560849,-0.859461,0.0223167,1.61674,0.0012515,0,0,0,0,0,0,0,-6.9154,-34.0978,-7.58452,24.3365,-0.951542,3.93487,0.0577852,
0.215071,0.0530914,0.0400442,-1.90407,0.336922,0.154139,-0.0783001,0.212116,0.0328972,0.20683,-0.350155,-0.142316,0.951001,0.00873525,-2.51556,0.25817,-2.48435,2.13364,-31.2286,9.11056,0.266115,12.9856,0.942516,12.6599,-32.4514,-4.73027,11.5942,0.0991276,0.199486,0.0492099,0.0248856,-1.88239,0.351365,0.0972617,-0.0787667,0.401284,-0.00920662,0.560849,-0.859461,0.0223167,1.61674,0.0012515,0,0,0,0,0,0,0,-6.9154,-34.0978,-7.58452,24.3365,-0.951542,3.93487,0.0577852,
0.216533,0.0533239,0.0414682,-1.9067,0.334157,0.162308,-0.0782139,0.206239,0.0321312,0.201065,-0.345836,-0.182995,0.965026,0.00914338,-3.67312,-0.478757,-3.60291,2.69932,-25.4244,8.76595,0.255085,13.1675,0.968078,12.8496,-31.9585,-4.68782,11.5942,0.104001,0.199486,0.0492099,0.0248856,-1.88239,0.351365,0.0972617,-0.0787667,0.401284,-0.00920662,0.560849,-0.859461,0.0223167,1.61674,0.0012515,0,0,0,0,0,0,0,-6.9154,-34.0978,-7.58452,24.3365,-0.951542,3.93487,0.0577852,
0.211873,0.0526445,0.0369398,-1.89799,0.343158,0.137693,-0.0784157,0.211828,0.0368057,0.206442,-0.344101,-0.197562,0.964367,0.00925282,3.4928,2.92157,3.36045,1.08423,-9.10438,-0.411965,0.0683968,13.0651,1.25711,12.7307,-31.8062,-4.61572,11.382,0.110644,0.215909,0.0506738,0.0389035,-1.90992,0.346616,0.155459,-0.078687,0.213329,0.12627,0.701707,-0.746042,-0.287097,1.84392,0.00497768,-23.4943,16.9346,17.6072,14.1773,-38.6767,28.3972,0.465773,-3.84869,-36.3432,-3.83544,26.0544,-0.200809,2.13128,0.0303194,
0.213564,0.0530019,0.0385856,-1.90058,0.341046,0.145204,-0.078335,0.211735,0.0383796,0.206301,-0.339967,-0.210849,0.959272,0.0094189,-0.0578177,0.983707,-0.0883013,2.58388,-8.30473,-3.18472,0.103802,13.154,1.2495,12.8259,-31.3219,-4.45454,11.382,0.113614,0.215909,0.0506738,0.0389035,-1.90992,0.346616,0.155459,-0.078687,0.213329,0.12627,0.701707,-0.746042,-0.287097,1.84392,0.00497768,0,0,0,0,0,0,0,-3.84869,-36.3432,-3.83544,26.0544,-0.200809,2.13128,0.0303194,
0.215108,0.0532903,0.0400887,-1.90307,0.338919,0.152478,-0.0782524,0.207992,0.0379148,0.202617,-0.334285,-0.221851,0.949274,0.00959954,-2.33932,-0.290487,-2.30251,3.55105,-6.87585,-6.24857,0.112901,13.1996,1.23107,12.878,-30.8417,-4.24393,11.382,0.114962,0.215909,0.0506738,0.0389035,-1.90992,0.346616,0.155459,-0.078687,0.213329,0.12627,0.701707,-0.746042,-0.287097,1.84392,0.00497768,0,0,0,0,0,0,0,-3.84869,-36.3432,-3.83544,26.0544,-0.200809,2.13128,0.0303194,
0.227135,0.0555742,0.0498104,-1.92463,0.336381,0.195817,-0.0783476,0.20824,0.044327,0.20269,-0.33063,-0.222894,0.923004,0.0095939,0.154601,4.00757,0.0459684,2.28459,-0.652411,-16.4189,-0.00352371,13.1828,1.17439,12.8721,-29.8894,-3.77112,10.8318,0.116301,0.215909,0.0506738,0.0389035,-1.90992,0.346616,0.155459,-0.078687,0.213329,0.12627,0.701707,-0.746042,-0.287097,1.84392,0.00497768,0,0,0,0,0,0,0,-3.84869,-36.3432,-3.83544,26.0544,-0.200809,2.13128,0.0303194,
0.228649,0.056006,0.0512803,-1.92705,0.334637,0.201969,-0.0782687,0.204451,0.0462551,0.1989,-0.325222,-0.221906,0.892207,0.00964609,-2.36827,1.20509,-2.36911,3.37953,0.617426,-19.2482,0.0326168,13.1275,1.14106,12.8218,-29.4134,-3.53639,10.1568,0.116692,0.215909,0.0506738,0.0389035,-1.90992,0.346616,0.155459,-0.078687,0.213329,0.12627,0.701707,-0.746042,-0.287097,1.84392,0.00497768,0,0,0,0,0,0,0,-3.84869,-36.3432,-3.83544,26.0544,-0.200809,2.13128,0.0303194,
0.230039,0.0563416,0.0526296,-1.9294,0.332969,0.207789,-0.078189,0.1983,0.0453952,0.192851,-0.318744,-0.219228,0.859263,0.00970905,-3.84414,-0.537437,-3.78076,4.04914,1.67377,-20.5901,0.039349,13.04,1.10721,12.7395,-28.9355,-3.3037,9.54327,0.116433,0.215909,0.0506738,0.0389035,-1.90992,0.346616,0.155459,-0.078687,0.213329,0.12627,0.701707,-0.746042,-0.287097,1.84392,0.00497768,0,0,0,0,0,0,0,-3.84869,-36.3432,-3.83544,26.0544,-0.200809,2.13128,0.0303194,
0.231329,0.0566049,0.0538829,-1.93166,0.331382,0.213314,-0.0781094,0.190903,0.0428977,0.185612,-0.311659,-0.215073,0.82553,0.0097591,-4.62303,-1.56096,-4.52377,4.42795,2.59734,-21.083,0.0312846,12.923,1.07394,12.6273,-28.4557,-3.08316,8.97791,0.116034,0.215909,0.0506738,0.0389035,-1.90992,0.346616,0.155459,-0.078687,0.213329,0.12627,0.701707,-0.746042,-0.287097,1.84392,0.00497768,0,0,0,0,0,0,0,-3.84869,-36.3432,-3.83544,26.0544,-0.200809,2.13128,0.0303194,
0.226852,0.0556436,0.0495242,-1.92376,0.338641,0.190183,-0.078377,0.192938,0.0481346,0.187493,-0.308489,-0.203258,0.791626,0.00954831,1.27185,3.2731,1.17527,1.98115,7.38433,-21.1898,-0.131747,12.7786,1.0428,12.4879,-27.9737,-2.86699,8.46232,0.114905,0.215909,0.0506738,0.0389035,-1.90992,0.346616,0.155459,-0.078687,0.213329,0.12627,0.701707,-0.746042,-0.287097,1.84392,0.00497768,0,0,0,0,0,0,0,-3.84869,-36.3432,-3.83544,26.0544,-0.200809,2.13128,0.0303194,
0.228302,0.0560656,0.0509321,-1.92603,0.337459,0.195073,-0.0783058,0.190618,0.0490571,0.185193,-0.303618,-0.192147,0.755544,0.00941949,-1.45005,0.576551,-1.43764,3.04457,6.94456,-22.5513,-0.0805113,12.5756,1.05255,12.2672,-27.6793,-2.57281,7.7539,0.115038,0.233459,0.0535845,0.0498402,-1.93477,0.335582,0.218202,-0.0786174,0.402503,0.138986,0.405837,-0.684671,-0.353154,1.85501,0.00481431,23.6467,1.58953,-36.9837,7.67136,-8.25714,1.38652,-0.0204221,-4.76117,-38.7633,-3.63707,23.9636,0.416256,0.26177,0.050461,
0.22963,0.0563909,0.0522214,-1.92822,0.336331,0.199684,-0.0782343,0.185691,0.0473776,0.180386,-0.297666,-0.181919,0.719709,0.00932389,-3.07955,-1.04972,-3.00407,3.72009,6.39249,-22.3966,-0.0597507,12.391,1.02686,12.0874,-27.1935,-2.37992,7.3199,0.113104,0.233459,0.0535845,0.0498402,-1.93477,0.335582,0.218202,-0.0786174,0.402503,0.138986,0.405837,-0.684671,-0.353154,1.85501,0.00481431,0,0,0,0,0,0,0,-4.76117,-38.7633,-3.63707,23.9636,0.416256,0.26177,0.050461,
0.230861,0.0566443,0.0534166,-1.93034,0.335252,0.204065,-0.0781633,0.179318,0.0442366,0.174188,-0.291065,-0.172511,0.685294,0.00923324,-3.98302,-1.96308,-3.87372,4.12523,5.87989,-21.5098,-0.056653,12.1927,1.00397,11.8936,-26.7062,-2.20233,6.91952,0.110936,0.233459,0.0535845,0.0498402,-1.93477,0.335582,0.218202,-0.0786174,0.402503,0.138986,0.405837,-0.684671,-0.353154,1.85501,0.00481431,0,0,0,0,0,0,0,-4.76117,-38.7633,-3.63707,23.9636,0.416256,0.26177,0.050461,
0.243095,0.0583504,0.059119,-1.94739,0.328136,0.249486,-0.0783417,0.178866,0.0481066,0.173615,-0.287131,-0.161397,0.65683,0.00893868,-0.282221,2.41875,-0.358175,2.45909,6.94602,-17.79,-0.184104,11.9835,0.984225,11.689,-26.2172,-2.03788,6.55384,0.108422,0.233459,0.0535845,0.0498402,-1.93477,0.335582,0.218202,-0.0786174,0.402503,0.138986,0.405837,-0.684671,-0.353154,1.85501,0.00481431,0,0,0,0,0,0,0,-4.76117,-38.7633,-3.63707,23.9636,0.416256,0.26177,0.050461,
0.24438,0.0587357,0.0603636,-1.94948,0.327289,0.253463,-0.0782784,0.175222,0.0481171,0.170009,-0.281938,-0.150302,0.6249,0.00873323,-2.27769,0.00656038,-2.25365,3.24579,6.93439,-19.9563,-0.128402,11.7669,0.967112,11.4769,-25.7271,-1.88905,6.21622,0.105732,0.233459,0.0535845,0.0498402,-1.93477,0.335582,0.218202,-0.0786174,0.402503,0.138986,0.405837,-0.684671,-0.353154,1.85501,0.00481431,0,0,0,0,0,0,0,-4.76117,-38.7633,-3.63707,23.9636,0.416256,0.26177,0.050461,
0.245564,0.0590315,0.0615111,-1.95149,0.326499,0.257174,-0.0782152,0.169781,0.0458894,0.164695,-0.275949,-0.139985,0.592689,0.00856724,-3.40066,-1.39233,-3.3215,3.74276,6.44794,-20.1316,-0.103748,11.749,0.772658,11.4303,-25.2806,-1.57689,5.68764,0.102827,0.244434,0.0566565,0.0643112,-1.95784,0.324372,0.277569,-0.0785857,0.62866,0.0313604,0.0622221,-0.688355,-0.312369,1.56778,0.000126394,28.2696,-13.4532,-42.9519,-0.460446,5.09809,-35.9036,-0.585989,-3.51941,-39.7115,-3.01024,23.8882,1.60736,-0.838693,0.110886,
0.253009,0.0598727,0.0724983,-1.96938,0.318245,0.301738,-0.0783347,0.167757,0.0457983,0.162607,-0.269972,-0.127719,0.5578,0.00819644,-1.26499,-0.0569566,-1.30469,3.73553,7.66616,-21.8055,-0.231745,11.2973,0.750432,10.9873,-24.2956,-1.35062,5.13959,0.09669,0.244434,0.0566565,0.0643112,-1.95784,0.324372,0.277569,-0.0785857,0.62866,0.0313604,0.0622221,-0.688355,-0.312369,1.56778,0.000126394,0,0,0,0,0,0,0,-3.51941,-39.7115,-3.01024,23.8882,1.60736,-0.838693,0.110886,
0.254175,0.0601511,0.0736257,-1.97128,0.317692,0.304826,-0.0782801,0.163354,0.0435989,0.158271,-0.263409,-0.116007,0.523439,0.00792191,-2.752,-1.3746,-2.71008,4.10197,7.32052,-21.4756,-0.171582,11.0703,0.742059,10.7648,-23.8024,-1.2573,4.89636,0.0934717,0.244434,0.0566565,0.0643112,-1.95784,0.324372,0.277569,-0.0785857,0.62866,0.0313604,0.0622221,-0.688355,-0.312369,1.56778,0.000126394,0,0,0,0,0,0,0,-3.51941,-39.7115,-3.01024,23.8882,1.60736,-0.838693,0.110886,
0.255254,0.0603679,0.0746702,-1.97311,0.317178,0.307728,-0.0782257,0.157676,0.0402991,0.152729,-0.256541,-0.105659,0.491316,0.00769537,-3.54874,-2.06234,-3.46392,4.29234,6.4673,-20.077,-0.141593,10.844,0.735335,10.5428,-23.3085,-1.17625,4.67221,0.0902221,0.244434,0.0566565,0.0643112,-1.95784,0.324372,0.277569,-0.0785857,0.62866,0.0313604,0.0622221,-0.688355,-0.312369,1.56778,0.000126394,0,0,0,0,0,0,0,-3.51941,-39.7115,-3.01024,23.8882,1.60736,-0.838693,0.110886,
0.256265,0.0605398,0.0756485,-1.97489,0.316683,0.310489,-0.0781725,0.151422,0.0365364,0.146642,-0.249552,-0.0968834,0.462059,0.00748855,-3.90891,-2.35174,-3.80429,4.36817,5.48472,-18.2855,-0.129261,10.6909,0.517976,10.3655,-22.7709,-0.970125,4.33087,0.0866286,0.25269,0.0591715,0.0778867,-1.97873,0.314566,0.321788,-0.0785668,0.180858,0.0454266,0.426432,-0.608925,-0.301701,1.15355,-0.000771597,-55.9753,1.75826,45.5262,9.92867,1.33352,-51.7786,-0.112249,-1.71826,-37.7675,-1.8875,26.8796,3.31115,0.334097,0.110886,
0.260243,0.0622277,0.0851544,-1.98964,0.309625,0.338819,-0.0783574,0.150015,0.0382244,0.145144,-0.245869,-0.0893774,0.430358,0.00714265,-0.879281,1.05501,-0.936483,2.3022,4.69124,-19.8134,-0.216184,10.4678,0.51355,10.1467,-22.2765,-0.910692,4.13786,0.0833539,0.25269,0.0591715,0.0778867,-1.97873,0.314566,0.321788,-0.0785668,0.180858,0.0454266,0.426432,-0.608925,-0.301701,1.15355,-0.000771597,0,0,0,0,0,0,0,-1.71826,-37.7675,-1.8875,26.8796,3.31115,0.334097,0.110886,
0.261304,0.0625093,0.086177,-1.99141,0.309206,0.341106,-0.0783109,0.146525,0.0376205,0.141681,-0.240974,-0.0819806,0.401477,0.00687736,-2.1809,-0.377436,-2.16453,3.05926,4.62301,-18.0505,-0.165809,10.2468,0.509833,9.92996,-21.7821,-0.860559,3.95771,0.0800743,0.25269,0.0591715,0.0778867,-1.97873,0.314566,0.321788,-0.0785668,0.180858,0.0454266,0.426432,-0.608925,-0.301701,1.15355,-0.000771597,0,0,0,0,0,0,0,-1.71826,-37.7675,-1.8875,26.8796,3.31115,0.334097,0.110886,
0.26229,0.062733,0.0871282,-1.99311,0.308809,0.343298,-0.0782648,0.141878,0.0356882,0.137124,-0.235303,-0.0754949,0.375962,0.00665313,-2.90431,-1.20767,-2.84772,3.54411,4.05361,-15.9468,-0.140144,10.0281,0.506875,9.71552,-21.2872,-0.819221,3.79026,0.0768491,0.25269,0.0591715,0.0778867,-1.97873,0.314566,0.321788,-0.0785668,0.180858,0.0454266,0.426432,-0.608925,-0.301701,1.15355,-0.000771597,0,0,0,0,0,0,0,-1.71826,-37.7675,-1.8875,26.8796,3.31115,0.334097,0.110886,
0.263216,0.0629133,0.0880217,-1.99475,0.308418,0.345416,-0.0782198,0.136667,0.0330591,0.132035,-0.229159,-0.0701716,0.353735,0.00644787,-3.25737,-1.64318,-3.18062,3.8405,3.32703,-13.8918,-0.128284,9.85218,0.392324,9.52604,-20.7023,-0.684526,3.57695,0.0731221,0.266235,0.0622648,0.0828355,-1.99803,0.307753,0.354955,-0.0785481,0.0467002,0.124849,0.481449,-0.50141,-0.198453,0.884616,7.88696e-05,-16.7697,9.92776,6.87712,13.4394,12.906,-33.6171,0.106308,0.919986,-37.3152,1.58784,25.3085,2.68219,1.28258,0.0843355,
0.272932,0.0659557,0.08929,-2.00823,0.304394,0.367828,-0.0783687,0.135451,0.0369033,0.130728,-0.226605,-0.0656845,0.328499,0.00614519,-0.759892,2.40264,-0.81701,1.59585,2.80443,-15.7729,-0.189179,9.63815,0.390179,9.31622,-20.2068,-0.658231,3.43074,0.0700113,0.266235,0.0622648,0.0828355,-1.99803,0.307753,0.354955,-0.0785481,0.0467002,0.124849,0.481449,-0.50141,-0.198453,0.884616,7.88696e-05,0,0,0,0,0,0,0,0.919986,-37.3152,1.58784,25.3085,2.68219,1.28258,0.0843355,
0.273895,0.0662842,0.0902159,-2.00988,0.304032,0.369562,-0.0783292,0.132442,0.0377352,0.12773,-0.222431,-0.0616011,0.306156,0.00590546,-1.88058,0.519943,-1.87368,2.60889,2.55213,-13.9644,-0.149829,9.42636,0.388126,9.10861,-19.711,-0.638564,3.29359,0.066976,0.266235,0.0622648,0.0828355,-1.99803,0.307753,0.354955,-0.0785481,0.0467002,0.124849,0.481449,-0.50141,-0.198453,0.884616,7.88696e-05,0,0,0,0,0,0,0,0.919986,-37.3152,1.58784,25.3085,2.68219,1.28258,0.0843355,
0.274793,0.066546,0.0910794,-2.01145,0.303669,0.371247,-0.0782902,0.128415,0.0367344,0.123772,-0.217178,-0.0583429,0.287034,0.0056997,-2.51663,-0.625554,-2.4736,3.28314,2.03637,-11.9509,-0.128601,9.21659,0.386263,8.90301,-19.2144,-0.624976,3.16541,0.0640459,0.266235,0.0622648,0.0828355,-1.99803,0.307753,0.354955,-0.0785481,0.0467002,0.124849,0.481449,-0.50141,-0.198453,0.884616,7.88696e-05,0,0,0,0,0,0,0,0.919986,-37.3152,1.58784,25.3085,2.68219,1.28258,0.0843355,
0.275639,0.0667578,0.0918919,-2.01294,0.303295,0.372899,-0.0782521,0.123873,0.0346824,0.119329,-0.211232,-0.056015,0.27094,0.00551244,-2.83882,-1.28249,-2.77675,3.71612,1.45497,-10.0591,-0.117035,9.12432,0.219588,8.79169,-18.5928,-0.509023,3.012,0.0607313,0.274108,0.06466,0.0921917,-2.01584,0.302659,0.379004,-0.0785422,0.504933,0.0473695,-0.0044958,-0.503598,-0.107849,0.582577,0.000479662,57.2791,-9.68489,-60.7431,-0.273428,11.3256,-37.7548,0.050099,1.67774,-38.5887,2.1393,24.9118,2.0047,1.70739,0.0641939,
0.280802,0.0674039,0.0985541,-2.02531,0.300238,0.386386,-0.0783846,0.124816,0.0363814,0.120145,-0.208265,-0.051574,0.246564,0.00521355,0.589337,1.06187,0.50945,1.85456,2.7756,-15.2349,-0.186808,8.91809,0.217629,8.58957,-18.0945,-0.506608,2.8997,0.0580292,0.274108,0.06466,0.0921917,-2.01584,0.302659,0.379004,-0.0785422,0.504933,0.0473695,-0.0044958,-0.503598,-0.107849,0.582577,0.000479662,0,0,0,0,0,0,0,1.67774,-38.5887,2.1393,24.9118,2.0047,1.70739,0.0641939,
0.281743,0.0676815,0.099457,-2.0268,0.299955,0.3876,-0.0783519,0.12338,0.0360457,0.118688,-0.203737,-0.0483246,0.22762,0.0049871,-0.897471,-0.209799,-0.910379,2.82982,2.03091,-11.8403,-0.141532,8.71338,0.215423,8.38892,-17.5953,-0.509726,2.79464,0.0554699,0.274108,0.06466,0.0921917,-2.01584,0.302659,0.379004,-0.0785422,0.504933,0.0473695,-0.0044958,-0.503598,-0.107849,0.582577,0.000479662,0,0,0,0,0,0,0,1.67774,-38.5887,2.1393,24.9118,2.0047,1.70739,0.0641939,
0.282614,0.0679069,0.100292,-2.0282,0.299643,0.388844,-0.0783194,0.120467,0.0344726,0.115817,-0.198184,-0.0464692,0.213194,0.00480382,-1.82082,-0.983195,-1.79407,3.47077,1.15961,-9.01568,-0.11455,8.50993,0.213099,8.18952,-17.0946,-0.517644,2.69681,0.0530444,0.274108,0.06466,0.0921917,-2.01584,0.302659,0.379004,-0.0785422,0.504933,0.0473695,-0.0044958,-0.503598,-0.107849,0.582577,0.000479662,0,0,0,0,0,0,0,1.67774,-38.5887,2.1393,24.9118,2.0047,1.70739,0.0641939,
0.283426,0.0680919,0.10107,-2.02954,0.299292,0.390116,-0.0782872,0.116686,0.0322027,0.112116,-0.191982,-0.0459398,0.202348,0.00464767,-2.36296,-1.41871,-2.31368,3.87632,0.330851,-6.77891,-0.097595,8.37826,0.082219,8.03253,-16.4879,-0.471909,2.61112,0.0505324,0.279903,0.0662634,0.103605,-2.03309,0.299518,0.396087,-0.0785392,0.282276,0.00837095,0.19616,-0.541728,-0.0636187,0.434277,0.000588309,-27.8321,-4.87482,25.082,-4.76634,5.52878,-18.5376,0.0135809,-0.198788,-36.5178,-0.562425,27.3279,1.54052,2.91405,0.0376436,
0.286255,0.0687867,0.109669,-2.04213,0.297314,0.399612,-0.0783991,0.117755,0.0343134,0.113042,-0.189567,-0.0445677,0.179792,0.00440506,0.668099,1.31925,0.579052,1.50904,0.857544,-14.0977,-0.151631,8.17708,0.079359,7.83532,-15.9842,-0.489776,2.52683,0.0484057,0.279903,0.0662634,0.103605,-2.03309,0.299518,0.396087,-0.0785392,0.282276,0.00837095,0.19616,-0.541728,-0.0636187,0.434277,0.000588309,0,0,0,0,0,0,0,-0.198788,-36.5178,-0.562425,27.3279,1.54052,2.91405,0.0376436,
0.287144,0.0690642,0.110519,-2.04347,0.29697,0.40043,-0.0783708,0.116432,0.0343887,0.111682,-0.1853,-0.0442399,0.164299,0.00423035,-0.826735,0.0470131,-0.849768,2.66748,0.204882,-9.68327,-0.109191,7.97705,0.076109,7.63922,-15.479,-0.512968,2.44893,0.046463,0.279903,0.0662634,0.103605,-2.03309,0.299518,0.396087,-0.0785392,0.282276,0.00837095,0.19616,-0.541728,-0.0636187,0.434277,0.000588309,0,0,0,0,0,0,0,-0.198788,-36.5178,-0.562425,27.3279,1.54052,2.91405,0.0376436,
0.287963,0.0692905,0.1113,-2.04473,0.296582,0.401339,-0.0783423,0.113605,0.0331691,0.108882,-0.179806,-0.0450999,0.154146,0.00409789,-1.7673,-0.762256,-1.75004,3.4335,-0.537455,-6.34543,-0.0827851,7.77819,0.072647,7.44428,-14.972,-0.54035,2.37723,0.0446694,0.279903,0.0662634,0.103605,-2.03309,0.299518,0.396087,-0.0785392,0.282276,0.00837095,0.19616,-0.541728,-0.0636187,0.434277,0.000588309,0,0,0,0,0,0,0,-0.198788,-36.5178,-0.562425,27.3279,1.54052,2.91405,0.0376436,
0.286101,0.0688952,0.109515,-2.04143,0.296895,0.398526,-0.0784206,0.114213,0.0353969,0.109396,-0.176027,-0.0465867,0.135765,0.00388082,0.380099,1.39238,0.321086,2.36196,-0.929252,-11.488,-0.135672,7.33464,0.000680217,6.98387,-13.8309,-0.588079,2.28771,0.0413512,0.289299,0.0688992,0.110203,-2.04863,0.298372,0.407645,-0.0785377,0.0764345,0.112923,0.418969,-0.416163,-0.0359849,0.331505,0.000476707,-25.7302,13.069,27.8512,15.6957,3.45422,-12.8465,-0.0139503,-0.67883,-38.4142,-0.661608,28.645,1.25946,3.08617,0.0239107,
0.286944,0.0691823,0.110319,-2.04262,0.296437,0.399135,-0.0783952,0.112447,0.0354939,0.107634,-0.170615,-0.0487248,0.123848,0.0037403,-1.1039,0.0606362,-1.10107,3.38258,-1.33635,-7.44823,-0.0878231,7.14145,-0.00363051,6.79449,-13.3192,-0.62757,2.23127,0.0400785,0.289299,0.0688992,0.110203,-2.04863,0.298372,0.407645,-0.0785377,0.0764345,0.112923,0.418969,-0.416163,-0.0359849,0.331505,0.000476707,0,0,0,0,0,0,0,-0.67883,-38.4142,-0.661608,28.645,1.25946,3.08617,0.0239107,
0.287714,0.0694161,0.111054,-2.04373,0.295931,0.399841,-0.0783689,0.10921,0.0342395,0.10446,-0.164158,-0.0516275,0.116728,0.00364852,-2.023,-0.784024,-1.98389,4.03526,-1.81415,-4.44977,-0.0573656,6.95126,-0.00797789,6.6081,-12.8063,-0.668839,2.17818,0.038963,0.289299,0.0688992,0.110203,-2.04863,0.298372,0.407645,-0.0785377,0.0764345,0.112923,0.418969,-0.416163,-0.0359849,0.331505,0.000476707,0,0,0,0,0,0,0,-0.67883,-38.4142,-0.661608,28.645,1.25946,3.08617,0.0239107,
0.288424,0.0696076,0.111729,-2.04476,0.295378,0.400624,-0.0783422,0.105119,0.0321792,0.100464,-0.157067,-0.0551326,0.11295,0.00358791,-2.557,-1.28765,-2.49779,4.43222,-2.19073,-2.36153,-0.0378783,6.76494,-0.0124349,6.42555,-12.2926,-0.711446,2.12691,0.0380197,0.289299,0.0688992,0.110203,-2.04863,0.298372,0.407645,-0.0785377,0.0764345,0.112923,0.418969,-0.416163,-0.0359849,0.331505,0.000476707,0,0,0,0,0,0,0,-0.67883,-38.4142,-0.661608,28.645,1.25946,3.08617,0.0239107,
0.295419,0.0723493,0.116065,-2.05607,0.296404,0.409233,-0.0784431,0.106705,0.0359892,0.101879,-0.154251,-0.0551704,0.0976233,0.00344737,0.991736,2.38122,0.884686,1.75986,-0.0236241,-9.57905,-0.0878361,6.5834,-0.0166632,6.24779,-11.7785,-0.752931,2.07584,0.0372419,0.289299,0.0688992,0.110203,-2.04863,0.298372,0.407645,-0.0785377,0.0764345,0.112923,0.418969,-0.416163,-0.0359849,0.331505,0.000476707,0,0,0,0,0,0,0,-0.67883,-38.4142,-0.661608,28.645,1.25946,3.08617,0.0239107,
0.296227,0.0726745,0.116833,-2.05711,0.295914,0.409617,-0.0784185,0.105583,0.0369215,0.100703,-0.149464,-0.0563788,0.0876854,0.00337428,-0.701246,0.582705,-0.735097,2.99154,-0.755219,-6.2112,-0.0456828,6.40676,-0.126382,6.04656,-11.1617,-0.770996,2.04722,0.0364704,0.298178,0.0717796,0.117127,-2.06207,0.297747,0.416134,-0.0785454,0.0346998,0.121869,0.414204,-0.373434,-0.02525,0.23313,-0.000489131,-5.21684,1.11826,-0.595604,5.34104,1.34186,-12.2969,-0.12073,0.00751081,-39.4893,0.26277,28.2483,0.660702,2.52953,0.050461,
0.296959,0.0729347,0.117526,-2.05807,0.295387,0.410079,-0.0783928,0.102753,0.0360411,0.0978907,-0.143379,-0.0582866,0.0816954,0.00333995,-1.76916,-0.550225,-1.75774,3.80349,-1.19236,-3.74374,-0.0214586,6.23773,-0.129697,5.88136,-10.6483,-0.804497,1.98982,0.0360473,0.298178,0.0717796,0.117127,-2.06207,0.297747,0.416134,-0.0785454,0.0346998,0.121869,0.414204,-0.373434,-0.02525,0.23313,-0.000489131,0,0,0,0,0,0,0,0.00751081,-39.4893,0.26277,28.2483,0.660702,2.52953,0.050461,
0.297627,0.0731443,0.118158,-2.05894,0.294833,0.410598,-0.0783661,0.0989065,0.0340743,0.0941066,-0.136474,-0.0604664,0.0783298,0.00333984,-2.40384,-1.22926,-2.36509,4.3153,-1.36242,-2.10347,-6.92529e-05,6.07622,-0.132218,5.7237,-10.1364,-0.830022,1.92541,0.0357727,0.298178,0.0717796,0.117127,-2.06207,0.297747,0.416134,-0.0785454,0.0346998,0.121869,0.414204,-0.373434,-0.02525,0.23313,-0.000489131,0,0,0,0,0,0,0,0.00751081,-39.4893,0.26277,28.2483,0.660702,2.52953,0.050461,
0.303734,0.0752154,0.122434,-2.06866,0.295659,0.416069,-0.0784427,0.09964,0.0373922,0.0946808,-0.133585,-0.0596264,0.0628482,0.00329896,0.458474,2.07365,0.358877,1.80606,0.525044,-9.67605,-0.0255456,5.92274,-0.133445,5.57412,-9.62627,-0.845083,1.85157,0.0357508,0.298178,0.0717796,0.117127,-2.06207,0.297747,0.416134,-0.0785454,0.0346998,0.121869,0.414204,-0.373434,-0.02525,0.23313,-0.000489131,0,0,0,0,0,0,0,0.00751081,-39.4893,0.26277,28.2483,0.660702,2.52953,0.050461,
0.304465,0.0755362,0.123124,-2.06953,0.295209,0.416149,-0.0784161,0.0979983,0.0379338,0.092987,-0.128694,-0.0589657,0.052288,0.00330539,-1.02609,0.338531,-1.05861,3.05697,0.412893,-6.60009,0.00401856,5.79888,-0.338445,5.43353,-9.01332,-0.827222,1.77079,0.0357136,0.306742,0.0734616,0.123344,-2.07382,0.296832,0.423134,-0.078546,0.164199,-0.0101066,0.261856,-0.349016,-0.0198733,0.231806,-0.000919531,16.1874,-16.4969,-19.0435,3.05228,0.67209,-0.165425,-0.0537999,-2.07531,-36.7439,-0.859972,24.3365,0.459286,1.6607,0.0303194,
0.305124,0.0757915,0.123743,-2.07031,0.294769,0.416284,-0.0783901,0.0948661,0.0367292,0.0898703,-0.122518,-0.0581705,0.0451951,0.00329313,-1.95762,-0.752887,-1.94794,3.86,0.497023,-4.4331,-0.00766747,5.66,-0.336308,5.29863,-8.50979,-0.812431,1.67138,0.0357702,0.306742,0.0734616,0.123344,-2.07382,0.296832,0.423134,-0.078546,0.164199,-0.0101066,0.261856,-0.349016,-0.0198733,0.231806,-0.000919531,0,0,0,0,0,0,0,-2.07531,-36.7439,-0.859972,24.3365,0.459286,1.6607,0.0303194,
0.312028,0.0748761,0.128366,-2.07862,0.295449,0.422699,-0.078436,0.0950444,0.0342269,0.0899801,-0.115031,-0.0523986,0.0342648,0.00334651,0.111432,-1.56391,0.0686311,4.67919,3.60744,-6.83138,0.0333676,5.40443,-0.325244,5.05078,-7.51673,-0.743492,1.43143,0.0380371,0.306742,0.0734616,0.123344,-2.07382,0.296832,0.423134,-0.078546,0.164199,-0.0101066,0.261856,-0.349016,-0.0198733,0.231806,-0.000919531,0,0,0,0,0,0,0,-2.07531,-36.7439,-0.859972,24.3365,0.459286,1.6607,0.0303194,
0.312704,0.0750325,0.129002,-2.07923,0.295233,0.422709,-0.0784012,0.0929347,0.0312909,0.0878847,-0.107315,-0.0473305,0.0276568,0.00354695,-1.31856,-1.835,-1.30959,4.82255,3.16752,-4.13003,0.125271,5.26137,-0.312817,4.91251,-7.0265,-0.671528,1.28606,0.038733,0.306742,0.0734616,0.123344,-2.07382,0.296832,0.423134,-0.078546,0.164199,-0.0101066,0.261856,-0.349016,-0.0198733,0.231806,-0.000919531,0,0,0,0,0,0,0,-2.07531,-36.7439,-0.859972,24.3365,0.459286,1.6607,0.0303194,
0.313301,0.0751575,0.129561,-2.07979,0.295092,0.422811,-0.0783841,0.0892874,0.0281579,0.084287,-0.0997558,-0.0413869,0.0246626,0.00326567,-2.27955,-1.95818,-2.2486,4.72435,3.71481,-1.87137,-0.175796,5.05849,-0.397954,4.69146,-6.48219,-0.591644,1.15386,0.0368786,0.313282,0.0753179,0.130173,-2.08351,0.295389,0.429637,-0.078551,0.337957,0.0580615,0.0271856,-0.266528,-0.0539651,0.150413,-0.000668575,21.7197,8.521,-29.3338,10.311,-4.26147,-10.1741,0.0313694,-2.60693,-35.9187,-1.4868,27.9507,0.880428,2.63482,0.0577852,
0.313845,0.0752608,0.130069,-2.08029,0.294827,0.423095,-0.0783696,0.0850259,0.0251083,0.0801394,-0.0924118,-0.0397336,0.026829,0.00297424,-2.66344,-1.90595,-2.59223,4.58999,1.03329,1.35401,-0.182146,4.91608,-0.369742,4.5484,-6.001,-0.613021,1.05055,0.0374507,0.313282,0.0753179,0.130173,-2.08351,0.295389,0.429637,-0.078551,0.337957,0.0580615,0.0271856,-0.266528,-0.0539651,0.150413,-0.000668575,0,0,0,0,0,0,0,-2.60693,-35.9187,-1.4868,27.9507,0.880428,2.63482,0.0577852,
0.317853,0.0773801,0.134438,-2.08767,0.293891,0.428692,-0.0784615,0.0843827,0.0262922,0.0793918,-0.0884883,-0.0374462,0.0203598,0.00276918,-0.401981,0.739936,-0.467285,2.45218,1.42961,-4.04327,-0.128165,4.76649,-0.348919,4.40245,-5.54161,-0.564864,0.987883,0.0438233,0.313282,0.0753179,0.130173,-2.08351,0.295389,0.429637,-0.078551,0.337957,0.0580615,0.0271856,-0.266528,-0.0539651,0.150413,-0.000668575,0,0,0,0,0,0,0,-2.60693,-35.9187,-1.4868,27.9507,0.880428,2.63482,0.0577852,
0.318427,0.0775748,0.13497,-2.08817,0.293758,0.428704,-0.0784457,0.081838,0.0259009,0.076813,-0.0834272,-0.0333002,0.0165791,0.00260831,-1.59045,-0.244584,-1.61172,3.16319,2.59125,-2.36291,-0.100539,4.51841,-0.324211,4.16294,-5.0791,-0.442645,0.968203,0.0506565,0.313282,0.0753179,0.130173,-2.08351,0.295389,0.429637,-0.078551,0.337957,0.0580615,0.0271856,-0.266528,-0.0539651,0.150413,-0.000668575,0,0,0,0,0,0,0,-2.60693,-35.9187,-1.4868,27.9507,0.880428,2.63482,0.0577852,
0.318934,0.0777275,0.135437,-2.08861,0.293711,0.428733,-0.0784359,0.0781436,0.0245388,0.073135,-0.0776076,-0.0278148,0.0139872,0.00233251,-2.30902,-0.851307,-2.29874,3.63728,3.42838,-1.61996,-0.172379,4.08861,-0.461851,3.71639,-4.55834,-0.200693,1.0149,0.0276556,0.318106,0.0779723,0.136678,-2.0909,0.293048,0.432654,-0.0785463,0.33544,0.138285,-0.0141454,-0.166565,-0.0703796,0.0596683,0.000152007,-0.314615,10.0279,-5.16638,12.4954,-2.05182,-11.3431,0.102573,-2.83307,-38.9378,-2.3358,28.5458,1.44897,2.78771,0.0440523,
0.319392,0.0778484,0.135859,-2.08897,0.293601,0.428775,-0.0784242,0.0739853,0.0226527,0.0690576,-0.0712081,-0.0249831,0.0122542,0.00215816,-2.59895,-1.17881,-2.54841,3.99966,1.76984,-1.0831,-0.108969,3.95378,-0.434755,3.56055,-4.06058,-0.649462,1.38554,0.0185081,0.318106,0.0779723,0.136678,-2.0909,0.293048,0.432654,-0.0785463,0.33544,0.138285,-0.0141454,-0.166565,-0.0703796,0.0596683,0.000152007,0,0,0,0,0,0,0,-2.83307,-38.9378,-2.3358,28.5458,1.44897,2.78771,0.0440523,
0.322073,0.0806942,0.140328,-2.09435,0.292147,0.431148,-0.0785044,0.0731578,0.0255018,0.0680893,-0.0683569,-0.0208902,0.000493366,0.00212567,-0.517169,1.78067,-0.605176,1.78202,2.55804,-7.35054,-0.0203015,3.92309,-0.486382,3.54493,-3.73109,-0.465635,1.19143,0.0261734,0.318106,0.0779723,0.136678,-2.0909,0.293048,0.432654,-0.0785463,0.33544,0.138285,-0.0141454,-0.166565,-0.0703796,0.0596683,0.000152007,0,0,0,0,0,0,0,-2.83307,-38.9378,-2.3358,28.5458,1.44897,2.78771,0.0440523,
0.322557,0.0809223,0.140769,-2.09473,0.292272,0.430766,-0.0784875,0.0706355,0.0261031,0.0654972,-0.0641584,-0.0135745,-0.00916575,0.00212418,-1.57646,0.375812,-1.62005,2.62402,4.57234,-6.03695,-0.000933665,3.76661,-0.488423,3.4018,-3.39005,-0.151929,0.951238,0.027059,0.318106,0.0779723,0.136678,-2.0909,0.293048,0.432654,-0.0785463,0.33544,0.138285,-0.0141454,-0.166565,-0.0703796,0.0596683,0.000152007,0,0,0,0,0,0,0,-2.83307,-38.9378,-2.3358,28.5458,1.44897,2.78771,0.0440523,
0.322982,0.0811001,0.141152,-2.09505,0.29254,0.430391,-0.0784758,0.0671201,0.0253269,0.0619691,-0.0591704,-0.00417307,-0.0167024,0.00199104,-2.19712,-0.48511,-2.20507,3.11755,5.87587,-4.71041,-0.0832116,3.68944,-0.580369,3.29729,-2.9646,-0.00514026,0.7759,0.0180192,0.32357,0.0796489,0.141871,-2.09748,0.290998,0.433014,-0.0785469,0.280385,-0.0192426,-0.00316215,-0.202693,-0.0486505,0.00713112,0.000678782,-6.88186,-19.6909,1.3729,-4.51598,2.71614,-6.56715,0.0658469,-2.4046,-37.3152,-2.03826,25.4077,1.41235,2.66137,0.0239107,
0.323365,0.0812397,0.141497,-2.09531,0.292777,0.430108,-0.0784641,0.0632783,0.023751,0.0582025,-0.0538555,0.00259312,-0.0204447,0.00188479,-2.40112,-0.984935,-2.3541,3.3218,4.22887,-2.33893,-0.0664062,3.58832,-0.521983,3.18479,-2.55059,-0.302912,0.691499,0.0160224,0.32357,0.0796489,0.141871,-2.09748,0.290998,0.433014,-0.0785469,0.280385,-0.0192426,-0.00316215,-0.202693,-0.0486505,0.00713112,0.000678782,0,0,0,0,0,0,0,-2.4046,-37.3152,-2.03826,25.4077,1.41235,2.66137,0.0239107,
0.327049,0.0804288,0.145063,-2.09977,0.291103,0.42986,-0.078494,0.0627694,0.0219867,0.0576421,-0.0495864,0.00940557,-0.0273895,0.00179774,-0.31806,-1.10268,-0.350286,2.66816,4.25778,-4.3405,-0.05441,3.49935,-0.501039,3.10943,-2.18401,-0.251653,0.62691,0.0271778,0.32357,0.0796489,0.141871,-2.09748,0.290998,0.433014,-0.0785469,0.280385,-0.0192426,-0.00316215,-0.202693,-0.0486505,0.00713112,0.000678782,0,0,0,0,0,0,0,-2.4046,-37.3152,-2.03826,25.4077,1.41235,2.66137,0.0239107,
0.327464,0.0805242,0.145437,-2.09998,0.291621,0.429445,-0.078483,0.0605961,0.0199743,0.0554542,-0.0448884,0.0204718,-0.0322913,0.00171457,-1.35827,-1.25777,-1.3674,2.93628,6.91639,-3.06362,-0.051979,3.26446,-0.465878,2.88734,-1.83852,0.150905,0.402032,0.0296607,0.32357,0.0796489,0.141871,-2.09748,0.290998,0.433014,-0.0785469,0.280385,-0.0192426,-0.00316215,-0.202693,-0.0486505,0.00713112,0.000678782,0,0,0,0,0,0,0,-2.4046,-37.3152,-2.03826,25.4077,1.41235,2.66137,0.0239107,
0.327822,0.0805979,0.145753,-2.10014,0.292341,0.429029,-0.0784795,0.0574104,0.0178229,0.0522819,-0.0400033,0.0343913,-0.0362244,0.00145757,-1.99107,-1.3446,-1.98269,3.05317,8.6997,-2.45822,-0.160628,3.04065,-0.503457,2.64355,-1.42679,0.32225,0.346849,0.0211161,0.328609,0.0809562,0.145286,-2.10268,0.290005,0.433069,-0.0785506,0.232559,0.0164036,0.0056002,-0.148569,-0.0207503,-0.00192712,-0.000812237,-5.97819,4.45578,1.09529,6.76553,3.48752,-1.13228,-0.186377,-1.92059,-35.8949,-0.836168,26.8518,1.63208,2.47643,0.050461,
0.327636,0.0805237,0.14562,-2.10008,0.286098,0.433115,-0.0784577,0.0568762,0.0166568,0.0517151,-0.037463,0.0121147,-0.0198458,0.00146936,-0.333918,-0.728845,-0.3543,1.58769,-13.9229,10.2366,0.00737308,2.7633,-0.616827,2.37069,-0.789193,-1.08481,1.44606,0.0239469,0.328609,0.0809562,0.145286,-2.10268,0.290005,0.433069,-0.0785506,0.232559,0.0164036,0.0056002,-0.148569,-0.0207503,-0.00192712,-0.000812237,0,0,0,0,0,0,0,-1.92059,-35.8949,-0.836168,26.8518,1.63208,2.47643,0.050461,
0.331983,0.082063,0.14835,-2.10456,0.288486,0.432277,-0.078507,0.0542032,0.0157093,0.0490089,-0.0330057,0.0126929,-0.0160025,0.00122824,-1.67057,-0.592178,-1.69137,2.78584,0.361348,2.40209,-0.150701,2.56735,-0.599294,2.18608,-0.562476,-0.596596,1.2,0.0246711,0.328609,0.0809562,0.145286,-2.10268,0.290005,0.433069,-0.0785506,0.232559,0.0164036,0.0056002,-0.148569,-0.0207503,-0.00192712,-0.000812237,0,0,0,0,0,0,0,-1.92059,-35.8949,-0.836168,26.8518,1.63208,2.47643,0.050461,
0.332276,0.0821342,0.148601,-2.10464,0.288889,0.432239,-0.0785083,0.0506918,0.0143478,0.0454839,-0.0283545,0.0202418,-0.013752,0.000949632,-2.19464,-0.85092,-2.20311,2.90697,4.71808,1.40656,-0.174131,2.39575,-0.623706,2.00563,-0.335942,-0.33951,1.03951,0.0133844,0.328609,0.0809562,0.145286,-2.10268,0.290005,0.433069,-0.0785506,0.232559,0.0164036,0.0056002,-0.148569,-0.0207503,-0.00192712,-0.000812237,0,0,0,0,0,0,0,-1.92059,-35.8949,-0.836168,26.8518,1.63208,2.47643,0.050461,
0.332529,0.0821859,0.148813,-2.10468,0.289476,0.432213,-0.0785081,0.0468814,0.0127705,0.0416913,-0.0237874,0.0308562,-0.0116626,0.00076428,-2.38152,-0.985823,-2.37039,2.85446,6.63402,1.30588,-0.115845,2.23316,-0.615285,1.8174,0.0181309,-0.624719,1.09872,0.00934976,0.332692,0.0832337,0.148691,-2.10591,0.290114,0.432793,-0.0785493,0.138532,0.129881,0.067666,-0.0456302,0.00408728,-0.0273118,9.50159e-05,-11.7534,14.1847,7.75822,12.8673,3.1047,-3.17309,0.113407,-1.71826,-39.1878,-0.685411,28.772,1.08184,2.73461,0.00376909,
0.335623,0.085224,0.151405,-2.10754,0.280532,0.439777,-0.0784771,0.0480354,0.015069,0.0427185,-0.0233182,-0.027428,0.0362687,0.000759309,0.721248,1.43658,0.642028,0.293261,-36.4276,29.957,-0.00310671,2.43634,-1.36626,2.0597,0.464736,-4.24589,4.31353,0.0160874,0.332692,0.0832337,0.148691,-2.10591,0.290114,0.432793,-0.0785493,0.138532,0.129881,0.067666,-0.0456302,0.00408728,-0.0273118,9.50159e-05,0,0,0,0,0,0,0,-1.71826,-39.1878,-0.685411,28.772,1.08184,2.73461,0.00376909,
0.335976,0.0853652,0.151709,-2.10765,0.278724,0.441629,-0.0784759,0.047254,0.0155852,0.041785,-0.0213669,-0.0671442,0.0753134,0.000637061,-0.488397,0.322585,-0.583433,1.21955,-24.8226,24.403,-0.0764049,2.35763,-1.29673,1.99062,0.661167,-3.63745,3.95599,0.0168192,0.332692,0.0832337,0.148691,-2.10591,0.290114,0.432793,-0.0785493,0.138532,0.129881,0.067666,-0.0456302,0.00408728,-0.0273118,9.50159e-05,0,0,0,0,0,0,0,-1.71826,-39.1878,-0.685411,28.772,1.08184,2.73461,0.00376909,
0.336274,0.0854643,0.151957,-2.1077,0.277165,0.443488,-0.0784807,0.0452494,0.0149447,0.0396292,-0.0184631,-0.0926775,0.106718,0.000388457,-1.25286,-0.400273,-1.34738,1.81484,-15.9583,19.6279,-0.155377,2.29709,-1.2193,1.92107,0.870222,-3.20598,3.71589,0.0122475,0.332692,0.0832337,0.148691,-2.10591,0.290114,0.432793,-0.0785493,0.138532,0.129881,0.067666,-0.0456302,0.00408728,-0.0273118,9.50159e-05,0,0,0,0,0,0,0,-1.71826,-39.1878,-0.685411,28.772,1.08184,2.73461,0.00376909,
0.336529,0.085529,0.152175,-2.10772,0.275655,0.445406,-0.0784824,0.0425824,0.0135727,0.0371443,-0.0150544,-0.111902,0.133329,0.000268439,-1.66685,-0.857508,-1.55307,2.13044,-12.0153,16.6319,-0.0750116,2.22854,-1.1666,1.8287,1.0689,-3.10313,3.69239,0.0115511,0.332692,0.0832337,0.148691,-2.10591,0.290114,0.432793,-0.0785493,0.138532,0.129881,0.067666,-0.0456302,0.00408728,-0.0273118,9.50159e-05,0,0,0,0,0,0,0,-1.71826,-39.1878,-0.685411,28.772,1.08184,2.73461,0.00376909,
0.339019,0.0837606,0.155862,-2.10955,0.262191,0.456789,-0.0781867,0.0483032,0.00786834,0.0443046,-0.0146937,-0.250649,0.254707,0.00141591,3.57548,-3.56523,4.47519,0.225462,-86.717,75.8611,0.71717,3.11006,-6.6324,3.27284,1.21902,-10.9559,10.9034,0.0574881,0.335523,0.0844896,0.152202,-2.10799,0.290201,0.432671,-0.078555,0.0161114,-0.0174072,0.161904,-0.0667846,0.00372038,0.0129856,-0.00143595,-15.3025,-18.411,11.7798,-2.6443,-0.0458624,5.03717,-0.191371,-0.932736,-37.9659,-0.33629,25.9314,0.929867,2.21734,0.050461,
0.339502,0.0836564,0.156369,-2.10958,0.256128,0.462673,-0.0781504,0.050725,0.00368917,0.0481098,-0.0125461,-0.352095,0.350862,0.00203962,1.51361,-2.61198,2.37826,1.34228,-63.4035,60.0967,0.38982,3.26114,-5.67525,3.52693,1.34473,-9.98609,10.8333,0.0655916,0.335523,0.0844896,0.152202,-2.10799,0.290201,0.432671,-0.078555,0.0161114,-0.0174072,0.161904,-0.0667846,0.00372038,0.0129856,-0.00143595,0,0,0,0,0,0,0,-0.932736,-37.9659,-0.33629,25.9314,0.929867,2.21734,0.050461,
0.339915,0.0835714,0.156814,-2.10955,0.250516,0.468451,-0.0781306,0.0508884,0.000827426,0.0496258,-0.00938073,-0.421981,0.425149,0.00212748,0.102157,-1.78859,0.947468,1.97833,-43.679,46.4298,0.0549083,3.35899,-4.83739,3.71497,1.43819,-9.22806,9.99169,0.0611652,0.335523,0.0844896,0.152202,-2.10799,0.290201,0.432671,-0.078555,0.0161114,-0.0174072,0.161904,-0.0667846,0.00372038,0.0129856,-0.00143595,0,0,0,0,0,0,0,-0.932736,-37.9659,-0.33629,25.9314,0.929867,2.21734,0.050461,
0.34028,0.0834848,0.157228,-2.10946,0.245459,0.473786,-0.0779714,0.0498418,-0.00150444,0.0500404,-0.00514335,-0.464012,0.473485,0.00568072,-0.654128,-1.45742,0.259136,2.64837,-26.2695,30.2097,2.22078,3.57572,-4.02095,3.81772,1.54344,-8.99656,9.4592,0.061771,0.335523,0.0844896,0.152202,-2.10799,0.290201,0.432671,-0.078555,0.0161114,-0.0174072,0.161904,-0.0667846,0.00372038,0.0129856,-0.00143595,0,0,0,0,0,0,0,-0.932736,-37.9659,-0.33629,25.9314,0.929867,2.21734,0.050461,
0.339492,0.084342,0.156104,-2.10939,0.255317,0.458726,-0.082576,0.0573915,-0.000453594,0.0554309,-0.00794075,-0.567935,0.551655,0.0589728,4.71852,0.65678,3.36905,-1.74838,-64.9519,48.8562,33.3075,3.80427,-3.97084,3.68587,1.51215,-13.5783,10.8663,0.124169,0.338386,0.0853775,0.155093,-2.10952,0.283895,0.43961,-0.0785536,0.0814564,0.048205,0.0893149,-0.0212067,-0.188419,0.306047,-0.000149914,8.16811,8.20152,-9.07366,5.69724,-24.0174,36.6327,0.160755,-1.51593,-36.6924,-1.21306,28.522,0.740353,3.51006,0.0376436,
0.340127,0.0843538,0.156638,-2.10942,0.248297,0.465397,-0.0799334,0.0617803,-6.64213e-05,0.0576971,-0.00711089,-0.629836,0.608101,0.113243,2.74301,0.241983,1.41639,0.518667,-38.6882,35.2786,33.919,4.20241,-3.25465,4.07077,1.522,-12.5865,10.8663,-0.00142933,0.338386,0.0853775,0.155093,-2.10952,0.283895,0.43961,-0.0785536,0.0814564,0.048205,0.0893149,-0.0212067,-0.188419,0.306047,-0.000149914,0,0,0,0,0,0,0,-1.51593,-36.6924,-1.21306,28.522,0.740353,3.51006,0.0376436,
0.340738,0.084334,0.157149,-2.10934,0.242046,0.472268,-0.0760659,0.0646978,-0.000550116,0.0589311,-0.00374751,-0.660142,0.658249,0.187281,1.82348,-0.302309,0.771233,2.10211,-18.9408,31.3424,46.2738,4.32405,-2.6355,4.06133,1.47523,-11.6905,10.8663,-4.74089,0.338386,0.0853775,0.155093,-2.10952,0.283895,0.43961,-0.0785536,0.0814564,0.048205,0.0893149,-0.0212067,-0.188419,0.306047,-0.000149914,0,0,0,0,0,0,0,-1.51593,-36.6924,-1.21306,28.522,0.740353,3.51006,0.0376436,
0.342186,0.0849263,0.159076,-2.10898,0.250656,0.472511,-0.0649123,0.0702095,-0.00573635,0.0656229,0.00569899,-0.694535,0.70476,0.29046,3.44477,-3.2414,4.1824,5.90407,-21.4955,29.0699,64.4864,3.91057,-5.95407,4.20444,3.1832,-13.3644,10.8663,-2.98609,0.338386,0.0853775,0.155093,-2.10952,0.283895,0.43961,-0.0785536,0.0814564,0.048205,0.0893149,-0.0212067,-0.188419,0.306047,-0.000149914,0,0,0,0,0,0,0,-1.51593,-36.6924,-1.21306,28.522,0.740353,3.51006,0.0376436,
0.342917,0.0847127,0.1598,-2.10869,0.244144,0.47922,-0.0594164,0.0744256,-0.00992914,0.070601,0.0118881,-0.71844,0.731535,0.369764,2.63507,-2.6205,3.1113,3.8682,-14.9408,16.7341,49.5653,4.00628,-3.98671,4.40504,2.44471,-12.41,10.6453,-0.390044,0.342309,0.0860204,0.158202,-2.11111,0.260216,0.465257,-0.0785486,0.18851,0.0320194,0.0573928,-0.0107689,-0.82711,0.926281,0.00280747,13.3817,-2.0232,-3.99026,1.30473,-79.8364,77.5293,0.369673,-3.77331,-41.6594,-3.36333,31.188,-0.0534094,5.67162,0.050461,
0.343638,0.0845045,0.160516,-2.10845,0.237711,0.485778,-0.0538742,0.0775696,-0.0131488,0.0743686,0.0154267,-0.735559,0.749179,0.434368,1.96501,-2.0123,2.35477,2.21159,-10.6994,11.0274,40.3773,4.75091,-2.29929,5.03448,2.276,-11.5258,10.4081,7.61162,0.342309,0.0860204,0.158202,-2.11111,0.260216,0.465257,-0.0785486,0.18851,0.0320194,0.0573928,-0.0107689,-0.82711,0.926281,0.00280747,0,0,0,0,0,0,0,-3.77331,-41.6594,-3.36333,31.188,-0.0534094,5.67162,0.050461,
0.344314,0.0841869,0.161183,-2.1082,0.231483,0.490892,-0.050136,0.0789697,-0.0184591,0.076173,0.0187779,-0.744163,0.727207,0.44095,0.875096,-3.31892,1.12774,2.09453,-5.37782,-13.7325,4.11371,5.79114,-0.580546,5.75846,2.53547,-11.4829,10.6453,6.61602,0.342309,0.0860204,0.158202,-2.11111,0.260216,0.465257,-0.0785486,0.18851,0.0320194,0.0573928,-0.0107689,-0.82711,0.926281,0.00280747,0,0,0,0,0,0,0,-3.77331,-41.6594,-3.36333,31.188,-0.0534094,5.67162,0.050461,
0.347025,0.0839576,0.162914,-2.10661,0.225378,0.520876,-0.0513592,0.0835667,-0.0246439,0.0810025,0.029163,-0.804209,0.825704,0.358522,2.87314,-3.86553,3.01841,6.49069,-37.5287,61.561,-51.5171,5.72252,1.55185,5.34465,3.27079,-12.8279,10.6453,10.9874,0.342309,0.0860204,0.158202,-2.11111,0.260216,0.465257,-0.0785486,0.18851,0.0320194,0.0573928,-0.0107689,-0.82711,0.926281,0.00280747,0,0,0,0,0,0,0,-3.77331,-41.6594,-3.36333,31.188,-0.0534094,5.67162,0.050461,
0.34777,0.0835905,0.163646,-2.10613,0.217036,0.529762,-0.0513129,0.0854771,-0.0288938,0.0830787,0.0353949,-0.851923,0.882718,0.287976,1.19399,-2.65616,1.29765,3.89492,-29.8208,35.6337,-44.0912,6.16911,2.22139,5.77083,1.87162,-12.8374,10.3583,9.8056,0.346603,0.0849129,0.162645,-2.1119,0.223845,0.503488,-0.0787881,0.0824967,-0.0667063,0.195907,0.00603823,-1.13269,1.20045,-0.0734953,-13.2517,-12.3407,17.3143,2.10089,-38.198,34.2713,-9.53785,-1.97216,-35.8672,-1.21306,28.645,-0.475467,5.99022,-0.0905302,
0.34845,0.0832469,0.164312,-2.1057,0.209015,0.537688,-0.0512817,0.0853711,-0.0317036,0.0831217,0.0390411,-0.882054,0.904337,0.231161,-0.0662693,-1.75611,0.0268799,2.27891,-18.8323,13.5114,-35.5097,6.57309,1.98174,6.25238,1.37549,-12.3895,10.3583,10.2486,0.346603,0.0849129,0.162645,-2.1119,0.223845,0.503488,-0.0787881,0.0824967,-0.0667063,0.195907,0.00603823,-1.13269,1.20045,-0.0734953,0,0,0,0,0,0,0,-1.97216,-35.8672,-1.21306,28.645,-0.475467,5.99022,-0.0905302,
0.349075,0.0829269,0.164925,-2.10531,0.201475,0.544667,-0.0512561,0.0839254,-0.0333646,0.0818221,0.0409662,-0.894158,0.897935,0.185569,-0.903579,-1.03813,-0.812299,1.20315,-7.56498,-4.00113,-28.4947,6.95909,1.76489,6.73238,1.05912,-12.3343,10.3583,5.70286,0.346603,0.0849129,0.162645,-2.1119,0.223845,0.503488,-0.0787881,0.0824967,-0.0667063,0.195907,0.00603823,-1.13269,1.20045,-0.0734953,0,0,0,0,0,0,0,-1.97216,-35.8672,-1.21306,28.645,-0.475467,5.99022,-0.0905302,
0.351006,0.0826849,0.167044,-2.11007,0.190575,0.533676,-0.0771652,0.0864586,-0.0361908,0.0846608,0.0392901,-0.867318,0.832321,0.149622,1.58329,-1.76642,1.77419,-1.04756,16.7753,-41.0087,-22.4671,7.32242,0.742784,7.1046,0.299041,-11.9074,9.87227,0.0670425,0.346603,0.0849129,0.162645,-2.1119,0.223845,0.503488,-0.0787881,0.0824967,-0.0667063,0.195907,0.00603823,-1.13269,1.20045,-0.0734953,0,0,0,0,0,0,0,-1.97216,-35.8672,-1.21306,28.645,-0.475467,5.99022,-0.0905302,
0.35173,0.0823795,0.167759,-2.10984,0.184718,0.537922,-0.0771403,0.0872607,-0.0365854,0.0855977,0.0372718,-0.840267,0.771999,0.120321,0.501265,-0.246613,0.585572,-1.26144,16.9066,-37.7011,-18.3133,7.10955,0.540508,6.9554,-0.387115,-10.8414,8.03947,0.0626521,0.351064,0.0846095,0.167672,-2.11103,0.182989,0.547911,-0.0434481,0.0201349,0.0388596,0.254712,0.0581201,-1.31924,1.4017,1.35581,-7.79522,13.1957,7.35062,6.51023,-23.318,25.156,178.663,1.98322,-35.9425,2.23848,27.8992,0.800778,5.47936,-0.117081,
0.352406,0.0821291,0.168424,-2.10962,0.179218,0.541745,-0.0771224,0.0867043,-0.0355291,0.0850997,0.0353245,-0.809733,0.713188,0.096703,-0.347745,0.660194,-0.311236,-1.21705,19.0835,-36.7572,-14.7611,7.14475,0.352305,7.03098,-0.580737,-9.91063,6.76636,0.0590534,0.351064,0.0846095,0.167672,-2.11103,0.182989,0.547911,-0.0434481,0.0201349,0.0388596,0.254712,0.0581201,-1.31924,1.4017,1.35581,0,0,0,0,0,0,0,1.98322,-35.9425,2.23848,27.8992,0.800778,5.47936,-0.117081,
0.353039,0.0819184,0.169045,-2.10941,0.174129,0.545112,-0.0771095,0.085187,-0.03369,0.0836118,0.0334914,-0.775002,0.654721,0.0776844,-0.948292,1.14946,-0.929945,-1.14567,21.7071,-36.5419,-11.8866,7.12739,0.371806,7.0286,-0.680921,-9.05209,5.68796,0.0555931,0.351064,0.0846095,0.167672,-2.11103,0.182989,0.547911,-0.0434481,0.0201349,0.0388596,0.254712,0.0581201,-1.31924,1.4017,1.35581,0,0,0,0,0,0,0,1.98322,-35.9425,2.23848,27.8992,0.800778,5.47936,-0.117081,
0.35418,0.0826352,0.170701,-2.10904,0.151361,0.564648,-0.0405391,0.0817718,-0.0332018,0.0802273,0.0323741,-0.740282,0.595357,0.0623196,-2.13448,0.305124,-2.11533,-0.698327,21.7,-37.1023,-9.603,7.05364,0.483193,6.95668,-0.725709,-8.25572,4.7565,0.0515595,0.351064,0.0846095,0.167672,-2.11103,0.182989,0.547911,-0.0434481,0.0201349,0.0388596,0.254712,0.0581201,-1.31924,1.4017,1.35581,0,0,0,0,0,0,0,1.98322,-35.9425,2.23848,27.8992,0.800778,5.47936,-0.117081,
0.354704,0.0824291,0.171214,-2.10883,0.147038,0.5671,-0.040534,0.0785277,-0.0317141,0.0770213,0.0310745,-0.70029,0.53759,0.0499823,-2.02758,0.929795,-2.00371,-0.812237,24.9952,-36.1046,-7.71077,6.8184,0.777508,6.71311,-0.872672,-7.38854,3.69313,0.0480069,0.355429,0.0847234,0.172712,-2.11099,0.135339,0.59867,-0.0239182,0.0263589,-0.0050507,0.264667,0.0119018,-1.33645,1.41658,-0.133352,0.778006,-5.48879,1.2444,-5.77729,-2.15209,1.85942,-186.145,3.22498,-38.0135,3.78572,26.4035,1.96167,2.40319,0.017502,
0.355212,0.0822543,0.171712,-2.10864,0.143146,0.569159,-0.0405309,0.0755196,-0.0297413,0.0740534,0.029623,-0.657548,0.481555,0.0400631,-1.88006,1.23301,-1.85499,-0.907174,26.7135,-35.0214,-6.19949,6.67122,0.898796,6.55842,-0.871978,-6.7162,2.98699,0.0430627,0.355429,0.0847234,0.172712,-2.11099,0.135339,0.59867,-0.0239182,0.0263589,-0.0050507,0.264667,0.0119018,-1.33645,1.41658,-0.133352,0,0,0,0,0,0,0,3.22498,-38.0135,3.78572,26.4035,1.96167,2.40319,0.017502,
0.355706,0.0821024,0.172196,-2.10847,0.139635,0.570855,-0.0405299,0.0727725,-0.0275907,0.0713456,0.0280419,-0.613811,0.427642,0.0320761,-1.71697,1.34414,-1.69232,-0.988224,27.3356,-33.6961,-4.99192,6.50497,0.991618,6.38395,-0.864769,-6.10384,2.37236,0.0379014,0.355429,0.0847234,0.172712,-2.11099,0.135339,0.59867,-0.0239182,0.0263589,-0.0050507,0.264667,0.0119018,-1.33645,1.41658,-0.133352,0,0,0,0,0,0,0,3.22498,-38.0135,3.78572,26.4035,1.96167,2.40319,0.017502,
0.358627,0.0836314,0.175769,-2.1087,0.110897,0.621514,-0.0241162,0.0707992,-0.028643,0.0693458,0.0315806,-0.571164,0.400496,0.0254661,-1.23331,-0.65771,-1.24987,2.21168,26.6546,-16.9662,-4.13121,6.32677,1.05216,6.19794,-0.855505,-5.55238,1.83655,0.0329842,0.355429,0.0847234,0.172712,-2.11099,0.135339,0.59867,-0.0239182,0.0263589,-0.0050507,0.264667,0.0119018,-1.33645,1.41658,-0.133352,0,0,0,0,0,0,0,3.22498,-38.0135,3.78572,26.4035,1.96167,2.40319,0.017502,
0.359109,0.083385,0.17624,-2.10838,0.108074,0.623259,-0.0241224,0.0686921,-0.0290738,0.06727,0.0330648,-0.52751,0.364004,0.0202186,-1.31689,-0.26925,-1.2974,0.92765,27.2836,-22.8072,-3.27969,6.55316,0.750244,6.43039,-0.569313,-4.77181,1.27449,0.0262026,0.359733,0.0851103,0.177275,-2.10961,0.0975356,0.635305,-0.0261438,0.0335591,0.0342246,0.224922,0.076262,-1.01697,0.910305,-0.00440026,0.900015,4.90941,-4.96818,8.04503,39.9354,-63.2838,16.119,3.78437,-38.0888,3.76192,22.3688,1.76025,0.334097,0.11821,
0.359577,0.0831603,0.176699,-2.10812,0.105554,0.624536,-0.0241283,0.0666521,-0.028878,0.0652808,0.033064,-0.485014,0.323137,0.016027,-1.27502,0.122393,-1.24327,-0.000507044,26.5602,-25.5422,-2.61979,6.36894,0.754495,6.24065,-0.560947,-4.32741,0.873499,0.0217653,0.359733,0.0851103,0.177275,-2.10961,0.0975356,0.635305,-0.0261438,0.0335591,0.0342246,0.224922,0.076262,-1.01697,0.910305,-0.00440026,0,0,0,0,0,0,0,3.78437,-38.0888,3.76192,22.3688,1.76025,0.334097,0.11821,
0.362767,0.0843617,0.180188,-2.10766,0.0811899,0.648798,-0.0263251,0.0656807,-0.028385,0.0642823,0.0333321,-0.439858,0.28546,0.0125189,-0.607147,0.308086,-0.624047,0.167534,28.2224,-23.5478,-2.19257,6.0102,0.707297,5.87465,-0.546528,-3.57522,0.236656,0.0137778,0.359733,0.0851103,0.177275,-2.10961,0.0975356,0.635305,-0.0261438,0.0335591,0.0342246,0.224922,0.076262,-1.01697,0.910305,-0.00440026,0,0,0,0,0,0,0,3.78437,-38.0888,3.76192,22.3688,1.76025,0.334097,0.11821,
0.363241,0.084163,0.180651,-2.10743,0.0793528,0.649469,-0.0263355,0.0643908,-0.0276741,0.0630099,0.032397,-0.397813,0.245144,0.00975405,-0.806182,0.444342,-0.79527,-0.584404,26.2782,-25.1975,-1.728,5.83912,0.665879,5.70161,-0.539779,-3.2595,-0.0111093,0.0102785,0.359733,0.0851103,0.177275,-2.10961,0.0975356,0.635305,-0.0261438,0.0335591,0.0342246,0.224922,0.076262,-1.01697,0.910305,-0.00440026,0,0,0,0,0,0,0,3.78437,-38.0888,3.76192,22.3688,1.76025,0.334097,0.11821,
0.3637,0.083982,0.1811,-2.10724,0.0776992,0.649829,-0.0263454,0.0629813,-0.0266644,0.061634,0.0306601,-0.359591,0.205122,0.00755567,-0.880925,0.631074,-0.859927,-1.08555,23.8889,-25.0136,-1.37399,5.6747,0.617985,5.53612,-0.532759,-2.97987,-0.219644,0.00719449,0.359733,0.0851103,0.177275,-2.10961,0.0975356,0.635305,-0.0261438,0.0335591,0.0342246,0.224922,0.076262,-1.01697,0.910305,-0.00440026,0,0,0,0,0,0,0,3.78437,-38.0888,3.76192,22.3688,1.76025,0.334097,0.11821,
0.364147,0.0838201,0.181538,-2.10709,0.0761959,0.649948,-0.0263553,0.0615539,-0.0253798,0.0602436,0.0284283,-0.325256,0.16708,0.00579614,-0.892097,0.802866,-0.869016,-1.39491,21.459,-23.7766,-1.0997,5.78509,0.401727,5.65563,-0.413993,-2.56495,-0.451949,0.00365661,0.363284,0.0845352,0.181125,-2.10794,0.0703078,0.657834,-0.0260688,0.062151,-0.0458329,0.154324,0.0397601,-0.72279,0.564667,0.0087233,3.574,-10.0072,-8.8247,-4.56274,36.7727,-43.2047,1.64044,3.80817,-34.3715,3.71431,22.5433,1.38763,0.785452,0.171311,
0.366098,0.0830254,0.183844,-2.10626,0.0592375,0.664854,-0.0262281,0.0610936,-0.026514,0.0598014,0.0286715,-0.294751,0.142829,0.00428686,-0.287742,-0.708868,-0.276327,0.152021,19.0656,-15.1567,-0.943302,5.6348,0.349699,5.50566,-0.405676,-2.34527,-0.59471,0.00121713,0.363284,0.0845352,0.181125,-2.10794,0.0703078,0.657834,-0.0260688,0.062151,-0.0458329,0.154324,0.0397601,-0.72279,0.564667,0.0087233,0,0,0,0,0,0,0,3.80817,-34.3715,3.71431,22.5433,1.38763,0.785452,0.171311,
0.366553,0.0828076,0.18429,-2.10607,0.0580017,0.664957,-0.0262406,0.0602479,-0.0266562,0.0589947,0.0277873,-0.266696,0.116848,0.00311771,-0.52855,-0.0888813,-0.504187,-0.552632,17.5347,-16.2384,-0.730719,5.4914,0.298718,5.36309,-0.396475,-2.15032,-0.710217,-0.000967411,0.363284,0.0845352,0.181125,-2.10794,0.0703078,0.657834,-0.0260688,0.062151,-0.0458329,0.154324,0.0397601,-0.72279,0.564667,0.0087233,0,0,0,0,0,0,0,3.80817,-34.3715,3.71431,22.5433,1.38763,0.785452,0.171311,
0.366993,0.0826183,0.184722,-2.10591,0.0568757,0.66486,-0.0262524,0.0591955,-0.0260571,0.0579855,0.0261665,-0.241507,0.0910319,0.00219869,-0.657712,0.374418,-0.630769,-1.01299,15.7428,-16.1349,-0.574382,5.35448,0.249992,5.22741,-0.386197,-1.97827,-0.80311,-0.00283898,0.363284,0.0845352,0.181125,-2.10794,0.0703078,0.657834,-0.0260688,0.062151,-0.0458329,0.154324,0.0397601,-0.72279,0.564667,0.0087233,0,0,0,0,0,0,0,3.80817,-34.3715,3.71431,22.5433,1.38763,0.785452,0.171311,
0.36742,0.0824547,0.185141,-2.10578,0.0558381,0.664607,-0.026264,0.0580401,-0.0249374,0.0568707,0.024105,-0.219145,0.0665005,0.00146877,-0.722122,0.699827,-0.696745,-1.28844,13.9764,-15.3321,-0.456205,5.36229,0.118043,5.24516,-0.333514,-1.73554,-0.91316,-0.00474713,0.367341,0.0834222,0.184171,-2.10602,0.0524899,0.671853,-0.026055,0.167809,-0.0205266,0.0551664,0.0809628,-0.415997,0.282974,-0.00068524,13.2072,3.16329,-12.3947,5.15034,38.3491,-35.2117,-1.17607,1.85627,-32.3998,1.96077,21.0992,0.948178,1.03722,0.0980684,
0.370384,0.0821731,0.187115,-2.10462,0.0459291,0.67486,-0.0261912,0.0589532,-0.0252019,0.057769,0.0236728,-0.197564,0.0512649,0.000810631,0.570658,-0.165329,0.561409,-0.270151,13.4886,-9.52229,-0.411334,5.23707,0.0764031,5.12176,-0.321078,-1.60092,-0.969125,-0.00615301,0.367341,0.0834222,0.184171,-2.10602,0.0524899,0.671853,-0.026055,0.167809,-0.0205266,0.0551664,0.0809628,-0.415997,0.282974,-0.00068524,0,0,0,0,0,0,0,1.85627,-32.3998,1.96077,21.0992,0.948178,1.03722,0.0980684,
0.370856,0.0819898,0.187578,-2.10448,0.0451064,0.674609,-0.0262046,0.0589642,-0.0247426,0.05779,0.0224693,-0.178618,0.0347557,0.000313984,0.00690775,0.287081,0.0131217,-0.752173,11.841,-10.3182,-0.310405,5.11698,0.0390223,5.00371,-0.307629,-1.48151,-1.01014,-0.00738528,0.367341,0.0834222,0.184171,-2.10602,0.0524899,0.671853,-0.026055,0.167809,-0.0205266,0.0551664,0.0809628,-0.415997,0.282974,-0.00068524,0,0,0,0,0,0,0,1.85627,-32.3998,1.96077,21.0992,0.948178,1.03722,0.0980684,
0.371305,0.0818314,0.188019,-2.10436,0.0443348,0.67423,-0.0262173,0.0583892,-0.0237561,0.0572363,0.0207959,-0.162186,0.0183175,-6.70941e-05,-0.359416,0.616575,-0.34603,-1.04587,10.27,-10.2739,-0.238174,5.00156,0.00596062,4.89048,-0.293131,-1.37608,-1.03946,-0.00840889,0.367341,0.0834222,0.184171,-2.10602,0.0524899,0.671853,-0.026055,0.167809,-0.0205266,0.0551664,0.0809628,-0.415997,0.282974,-0.00068524,0,0,0,0,0,0,0,1.85627,-32.3998,1.96077,21.0992,0.948178,1.03722,0.0980684,
0.370384,0.0821731,0.187115,-2.10462,0.0459291,0.67486,-0.0261912,0.0592324,-0.0242569,0.0580615,0.0210255,-0.151996,0.0127184,-0.000418057,0.527028,-0.312994,0.515709,0.143488,6.36871,-3.49941,-0.219352,4.85968,-0.10125,4.75642,-0.264526,-1.1536,-1.09107,-0.0100116,0.371574,0.0824159,0.187359,-2.10399,0.0418751,0.6772,-0.0260726,0.186402,-0.0210914,0.0224731,0.0574422,-0.22316,0.0622736,-0.000425377,2.32416,-0.0705923,-4.08666,-2.94008,24.1046,-27.5875,0.0324829,-0.349545,-34.7206,0.361952,21.5991,0.208431,2.09832,0.0843355,
0.375013,0.0813496,0.190698,-2.1031,0.0372378,0.675972,-0.0261932,0.0588617,-0.022574,0.0576944,0.0187222,-0.136419,-0.0031559,-0.000665146,-0.23173,1.05176,-0.229409,-1.43957,9.73587,-9.92147,-0.154431,4.75565,-0.121417,4.65487,-0.247439,-1.07988,-1.09441,-0.0106243,0.371574,0.0824159,0.187359,-2.10399,0.0418751,0.6772,-0.0260726,0.186402,-0.0210914,0.0224731,0.0574422,-0.22316,0.0622736,-0.000425377,0,0,0,0,0,0,0,-0.349545,-34.7206,0.361952,21.5991,0.208431,2.09832,0.0843355,
0.375446,0.0812406,0.191122,-2.10304,0.0366659,0.67538,-0.0262059,0.0579231,-0.0207846,0.0567733,0.0164713,-0.123432,-0.0173304,-0.00084846,-0.586575,1.11843,-0.575715,-1.40679,8.11652,-8.85904,-0.114571,4.65463,-0.137698,4.55639,-0.22959,-1.01454,-1.09266,-0.0111033,0.371574,0.0824159,0.187359,-2.10399,0.0418751,0.6772,-0.0260726,0.186402,-0.0210914,0.0224731,0.0574422,-0.22316,0.0622736,-0.000425377,0,0,0,0,0,0,0,-0.349545,-34.7206,0.361952,21.5991,0.208431,2.09832,0.0843355,
0.375858,0.0811469,0.191526,-2.10299,0.0361125,0.674745,-0.0262181,0.0566346,-0.0189697,0.0555097,0.01434,-0.112581,-0.0297361,-0.000985143,-0.805352,1.13427,-0.789724,-1.33204,6.78182,-7.75359,-0.0854268,4.55632,-0.150261,4.46065,-0.21113,-0.956184,-1.08598,-0.0115021,0.371574,0.0824159,0.187359,-2.10399,0.0418751,0.6772,-0.0260726,0.186402,-0.0210914,0.0224731,0.0574422,-0.22316,0.0622736,-0.000425377,0,0,0,0,0,0,0,-0.349545,-34.7206,0.361952,21.5991,0.208431,2.09832,0.0843355,
0.378212,0.0804072,0.194361,-2.10326,0.0332244,0.674013,-0.0261769,0.0577824,-0.0180963,0.0566204,0.012678,-0.100823,-0.0402875,-0.00113763,0.717378,0.545879,0.69419,-1.03878,7.34887,-6.59459,-0.0953035,4.49459,-0.222973,4.40092,-0.183041,-0.883898,-1.07462,-0.0117795,0.375112,0.0813426,0.191332,-2.10359,0.0356846,0.677002,-0.0260847,0.0999836,-0.0528283,0.121476,-0.00618157,-0.113566,-0.035157,0.000109162,-10.8023,-3.96711,12.3753,-7.95297,13.6993,-12.1788,0.0668173,0.106693,-34.5223,1.16334,25.8798,0.0683558,3.65014,0.050461,
0.378673,0.0803092,0.194812,-2.10322,0.0327946,0.673337,-0.02619,0.0577486,-0.0169268,0.0565802,0.0111003,-0.0914056,-0.0491295,-0.001238,-0.0210994,0.730946,-0.0250935,-0.986024,5.88588,-5.5263,-0.0627302,4.40079,-0.228998,4.30973,-0.163499,-0.837416,-1.06186,-0.012013,0.375112,0.0813426,0.191332,-2.10359,0.0356846,0.677002,-0.0260847,0.0999836,-0.0528283,0.121476,-0.00618157,-0.113566,-0.035157,0.000109162,0,0,0,0,0,0,0,0.106693,-34.5223,1.16334,25.8798,0.0683558,3.65014,0.050461,
0.379102,0.0802262,0.195233,-2.10319,0.0323647,0.67265,-0.0262025,0.0569384,-0.0156171,0.0557831,0.00963722,-0.0838701,-0.0564967,-0.00130222,-0.506371,0.818555,-0.498241,-0.914453,4.70974,-4.60446,-0.0401389,4.30885,-0.232219,4.22041,-0.143475,-0.795989,-1.04767,-0.0121595,0.375112,0.0813426,0.191332,-2.10359,0.0356846,0.677002,-0.0260847,0.0999836,-0.0528283,0.121476,-0.00618157,-0.113566,-0.035157,0.000109162,0,0,0,0,0,0,0,0.106693,-34.5223,1.16334,25.8798,0.0683558,3.65014,0.050461,
0.379506,0.0801552,0.195628,-2.10317,0.0319361,0.671954,-0.0262145,0.0556385,-0.0142682,0.0545082,0.00830713,-0.077811,-0.0625808,-0.00134116,-0.812443,0.843067,-0.796796,-0.831309,3.78689,-3.80258,-0.02434,4.21857,-0.232835,4.13276,-0.123102,-0.758699,-1.03163,-0.0122575,0.375112,0.0813426,0.191332,-2.10359,0.0356846,0.677002,-0.0260847,0.0999836,-0.0528283,0.121476,-0.00618157,-0.113566,-0.035157,0.000109162,0,0,0,0,0,0,0,0.106693,-34.5223,1.16334,25.8798,0.0683558,3.65014,0.050461,
0.378132,0.0804171,0.194282,-2.10325,0.0337038,0.674162,-0.0261811,0.0564624,-0.0142556,0.0553136,0.00795615,-0.0706616,-0.0655399,-0.00141426,0.51492,0.00786568,0.503407,-0.219361,4.46842,-1.84945,-0.045685,4.13397,-0.271232,4.04269,-0.0936406,-0.715999,-0.998837,-0.0123429,0.378193,0.0812104,0.195701,-2.10373,0.0320249,0.673327,-0.026094,0.011681,0.0199301,0.201015,0.01612,-0.058077,-0.149891,0.00038398,-11.0378,9.09479,9.94236,2.7877,6.93611,-14.3417,0.0343523,0.892215,-36.8907,1.21095,26.0822,-0.187992,3.7362,0.017502,
0.378571,0.0803225,0.194712,-2.10321,0.033359,0.67353,-0.0261937,0.056142,-0.0137687,0.0550032,0.00744746,-0.0651491,-0.0682351,-0.00144662,-0.200216,0.304308,-0.194004,-0.31793,3.44526,-1.68447,-0.0202278,4.04641,-0.267512,3.95775,-0.0726482,-0.685911,-0.981473,-0.0123388,0.378193,0.0812104,0.195701,-2.10373,0.0320249,0.673327,-0.026094,0.011681,0.0199301,0.201015,0.01612,-0.058077,-0.149891,0.00038398,0,0,0,0,0,0,0,0.892215,-36.8907,1.21095,26.0822,-0.187992,3.7362,0.017502,
0.378978,0.0802431,0.195111,-2.10317,0.0330056,0.672888,-0.0262055,0.0550824,-0.0130009,0.0539704,0.00685561,-0.0609533,-0.0706378,-0.00145313,-0.662288,0.479922,-0.645491,-0.369909,2.62237,-1.50169,-0.00406656,3.95995,-0.262032,3.87389,-0.0513739,-0.659,-0.964472,-0.0122744,0.378193,0.0812104,0.195701,-2.10373,0.0320249,0.673327,-0.026094,0.011681,0.0199301,0.201015,0.01612,-0.058077,-0.149891,0.00038398,0,0,0,0,0,0,0,0.892215,-36.8907,1.21095,26.0822,-0.187992,3.7362,0.017502,
0.381026,0.0812987,0.198478,-2.10388,0.0308814,0.668943,-0.0261786,0.0552656,-0.0104675,0.0540946,0.00488447,-0.0555918,-0.0767442,-0.00146481,0.114531,1.58336,0.0775784,-1.23196,3.35095,-3.81651,-0.00730118,3.78979,-0.246532,3.70892,-0.00827738,-0.612938,-0.930389,-0.0120419,0.378193,0.0812104,0.195701,-2.10373,0.0320249,0.673327,-0.026094,0.011681,0.0199301,0.201015,0.01612,-0.058077,-0.149891,0.00038398,0,0,0,0,0,0,0,0.892215,-36.8907,1.21095,26.0822,-0.187992,3.7362,0.017502,
0.381435,0.081293,0.198877,-2.1039,0.0305869,0.668161,-0.0261899,0.0544561,-0.00851666,0.0532645,0.00346203,-0.0518357,-0.080945,-0.00145428,-0.505934,1.21926,-0.518821,-0.889025,2.34756,-2.6255,0.00658499,3.71001,-0.304371,3.62401,0.0431423,-0.590195,-0.892482,-0.0120026,0.381812,0.0809993,0.199818,-2.10429,0.0297498,0.668962,-0.0261098,0.0797395,-0.0142151,0.12844,-0.0183777,-0.0364512,-0.126886,-0.000383338,8.50731,-4.26814,-9.07186,-4.31222,2.70322,2.87554,-0.0959147,-0.171017,-36.1449,-0.0109729,26.9034,0.0436365,3.4771,0.0303194,
0.381814,0.0812853,0.199246,-2.10391,0.0302755,0.667405,-0.0262005,0.0530219,-0.00700566,0.0518353,0.00246096,-0.0492548,-0.0836647,-0.00142904,-0.896416,0.944374,-0.893254,-0.62567,1.61308,-1.69984,0.0157699,3.62665,-0.293814,3.5432,0.0650673,-0.572842,-0.876712,-0.0117964,0.381812,0.0809993,0.199818,-2.10429,0.0297498,0.668962,-0.0261098,0.0797395,-0.0142151,0.12844,-0.0183777,-0.0364512,-0.126886,-0.000383338,0,0,0,0,0,0,0,-0.171017,-36.1449,-0.0109729,26.9034,0.0436365,3.4771,0.0303194,
0.382166,0.0812763,0.19959,-2.10392,0.0299508,0.666672,-0.0262105,0.0512206,-0.00582908,0.0500558,0.00178084,-0.0475202,-0.0852418,-0.00139446,-1.12578,0.735362,-1.11217,-0.425073,1.08413,-0.985701,0.0216126,3.54381,-0.2824,3.4629,0.0870573,-0.557319,-0.860913,-0.0115763,0.381812,0.0809993,0.199818,-2.10429,0.0297498,0.668962,-0.0261098,0.0797395,-0.0142151,0.12844,-0.0183777,-0.0364512,-0.126886,-0.000383338,0,0,0,0,0,0,0,-0.171017,-36.1449,-0.0109729,26.9034,0.0436365,3.4771,0.0303194,
0.384599,0.0808166,0.202535,-2.10445,0.0288172,0.664661,-0.0261856,0.0517628,-0.00520027,0.0505571,0.00118837,-0.0437494,-0.0871186,-0.00139721,0.338842,0.393008,0.313302,-0.370291,2.35671,-1.17298,-0.00171487,3.46138,-0.270351,3.38298,0.109177,-0.543845,-0.846167,-0.011313,0.381812,0.0809993,0.199818,-2.10429,0.0297498,0.668962,-0.0261098,0.0797395,-0.0142151,0.12844,-0.0183777,-0.0364512,-0.126886,-0.000383338,0,0,0,0,0,0,0,-0.171017,-36.1449,-0.0109729,26.9034,0.0436365,3.4771,0.0303194,
0.38499,0.0807973,0.202916,-2.10445,0.0285608,0.663938,-0.0261959,0.0511944,-0.00464229,0.0499835,0.00085549,-0.0414075,-0.0877585,-0.00137565,-0.355221,0.348739,-0.358444,-0.208053,1.46368,-0.399933,0.0134732,3.36489,-0.297317,3.27648,0.151809,-0.534149,-0.815182,-0.0111316,0.384928,0.0814298,0.204031,-2.10471,0.0285929,0.665994,-0.0261216,0.0920489,0.0307124,0.10711,-0.000151704,-0.0220638,-0.0848496,-0.000125516,1.53868,5.61594,-2.66625,2.27825,1.79843,5.25461,0.0322277,-0.603451,-38.065,-0.510851,26.1813,0.159909,2.84722,0.050461,
0.385349,0.0807795,0.203266,-2.10445,0.0282809,0.663245,-0.0262054,0.0499171,-0.00415923,0.0487241,0.000709961,-0.0401235,-0.0875467,-0.00133848,-0.798349,0.301915,-0.787131,-0.0909553,0.80252,0.132359,0.023231,3.28305,-0.284319,3.19712,0.174073,-0.52434,-0.801351,-0.0108191,0.384928,0.0814298,0.204031,-2.10471,0.0285929,0.665994,-0.0261216,0.0920489,0.0307124,0.10711,-0.000151704,-0.0220638,-0.0848496,-0.000125516,0,0,0,0,0,0,0,-0.603451,-38.065,-0.510851,26.1813,0.159909,2.84722,0.050461,
0.38568,0.0807627,0.203589,-2.10445,0.0279808,0.662576,-0.0262142,0.0482131,-0.00374626,0.0470526,0.000698366,-0.0396012,-0.0867485,-0.00129168,-1.06499,0.2581,-1.04473,-0.00724696,0.326443,0.498917,0.0292488,3.20144,-0.270979,3.11798,0.196356,-0.51619,-0.78731,-0.0104977,0.384928,0.0814298,0.204031,-2.10471,0.0285929,0.665994,-0.0261216,0.0920489,0.0307124,0.10711,-0.000151704,-0.0220638,-0.0848496,-0.000125516,0,0,0,0,0,0,0,-0.603451,-38.065,-0.510851,26.1813,0.159909,2.84722,0.050461,
0.387544,0.081761,0.20657,-2.1049,0.0278592,0.662405,-0.0261911,0.0485631,-0.00249145,0.0473416,0.000116994,-0.0372216,-0.0870728,-0.001276,0.21876,0.784257,0.180631,-0.363357,1.48726,-0.202709,0.00980165,3.11995,-0.257466,3.03894,0.218736,-0.510038,-0.774074,-0.0101362,0.384928,0.0814298,0.204031,-2.10471,0.0285929,0.665994,-0.0261216,0.0920489,0.0307124,0.10711,-0.000151704,-0.0220638,-0.0848496,-0.000125516,0,0,0,0,0,0,0,-0.603451,-38.065,-0.510851,26.1813,0.159909,2.84722,0.050461,
0.387905,0.0817725,0.20692,-2.10491,0.0276032,0.661721,-0.0261998,0.0478698,-0.00170693,0.0466283,-0.000134914,-0.0361787,-0.0867448,-0.00123886,-0.433313,0.490327,-0.445801,-0.157443,0.651792,0.205008,0.0232136,3.03997,-0.284034,2.95513,0.250617,-0.505933,-0.752931,-0.00983163,0.388746,0.0814315,0.206643,-2.10505,0.0274986,0.66385,-0.0261231,0.165794,-0.00728867,0.00356374,-0.00642441,-0.0268486,-0.0618653,0.00117671,9.21809,-4.75014,-12.9432,-0.784089,-0.598101,2.87303,0.162778,-0.781979,-35.3435,-0.213304,26.106,0.373226,2.76757,0.0239107,
0.388234,0.081778,0.207239,-2.10491,0.0273171,0.661063,-0.0262077,0.0465173,-0.00122813,0.0452829,-0.000153471,-0.0360944,-0.0858567,-0.00118787,-0.845299,0.299248,-0.840903,-0.0115981,0.052725,0.555018,0.0318653,2.95866,-0.270347,2.87622,0.273099,-0.503589,-0.739851,-0.00942556,0.388746,0.0814315,0.206643,-2.10505,0.0274986,0.66385,-0.0261231,0.165794,-0.00728867,0.00356374,-0.00642441,-0.0268486,-0.0618653,0.00117671,0,0,0,0,0,0,0,-0.781979,-35.3435,-0.213304,26.106,0.373226,2.76757,0.0239107,
0.391049,0.0812754,0.208863,-2.10498,0.0264407,0.660937,-0.0261787,0.0460095,-0.001644,0.0447754,0.000482865,-0.035392,-0.0829028,-0.00114532,-0.317379,-0.259917,-0.317139,0.39771,0.438995,1.84624,0.026598,2.7962,-0.243038,2.7185,0.31815,-0.504736,-0.712678,-0.00855692,0.388746,0.0814315,0.206643,-2.10505,0.0274986,0.66385,-0.0261231,0.165794,-0.00728867,0.00356374,-0.00642441,-0.0268486,-0.0618653,0.00117671,0,0,0,0,0,0,0,-0.781979,-35.3435,-0.213304,26.106,0.373226,2.76757,0.0239107,
0.391367,0.0812511,0.209172,-2.10495,0.0261463,0.660383,-0.0261855,0.0447538,-0.00192199,0.0435435,0.00105256,-0.0356722,-0.0801589,-0.00108496,-0.784811,-0.173745,-0.769945,0.356057,-0.175145,1.71494,0.0377208,2.71504,-0.229512,2.63968,0.340716,-0.508308,-0.698345,-0.00809399,0.388746,0.0814315,0.206643,-2.10505,0.0274986,0.66385,-0.0261231,0.165794,-0.00728867,0.00356374,-0.00642441,-0.0268486,-0.0618653,0.00117671,0,0,0,0,0,0,0,-0.781979,-35.3435,-0.213304,26.106,0.373226,2.76757,0.0239107,
0.391657,0.0812289,0.209454,-2.10493,0.0258206,0.659846,-0.0261913,0.0430489,-0.00209172,0.0418763,0.00156263,-0.0366803,-0.0775689,-0.001014,-1.06556,-0.106079,-1.04201,0.318798,-0.630099,1.61875,0.0443543,2.63394,-0.216163,2.5609,0.363348,-0.514155,-0.68412,-0.00758844,0.388746,0.0814315,0.206643,-2.10505,0.0274986,0.66385,-0.0261231,0.165794,-0.00728867,0.00356374,-0.00642441,-0.0268486,-0.0618653,0.00117671,0,0,0,0,0,0,0,-0.781979,-35.3435,-0.213304,26.106,0.373226,2.76757,0.0239107,
0.391923,0.0812088,0.209712,-2.1049,0.0254663,0.659324,-0.0261963,0.0411008,-0.00217808,0.0399736,0.00202041,-0.0382014,-0.0750924,-0.000937435,-1.21756,-0.0539762,-1.18921,0.286112,-0.950634,1.54778,0.0478518,2.54835,-0.228115,2.47177,0.395493,-0.521867,-0.658782,-0.00712827,0.391978,0.0815766,0.208849,-2.10503,0.0267147,0.661573,-0.026125,0.116903,0.00825571,0.0388775,0.00266925,-0.00900065,-0.0638276,0.000683118,-6.11136,1.94305,4.41423,1.13671,2.23099,-0.245284,-0.0616987,-0.29797,-36.5416,0.762648,25.7092,0.312802,2.77489,0.0376436,
0.394069,0.0816047,0.210868,-2.10496,0.0256709,0.658865,-0.0261664,0.0408287,-0.00194876,0.0396885,0.00219831,-0.0381247,-0.0732838,-0.000885873,-0.170079,0.143326,-0.178182,0.111183,0.0479064,1.13039,0.0322262,2.46757,-0.215118,2.39326,0.418152,-0.531792,-0.643448,-0.00657314,0.391978,0.0815766,0.208849,-2.10503,0.0267147,0.661573,-0.026125,0.116903,0.00825571,0.0388775,0.00266925,-0.00900065,-0.0638276,0.000683118,0,0,0,0,0,0,0,-0.29797,-36.5416,0.762648,25.7092,0.312802,2.77489,0.0376436,
0.394355,0.081595,0.211146,-2.10493,0.0253292,0.658354,-0.0261709,0.0398115,-0.0018021,0.0386828,0.00243593,-0.0390422,-0.0714057,-0.000820532,-0.635718,0.0916627,-0.628536,0.148515,-0.573456,1.17381,0.040838,2.38709,-0.202284,2.31507,0.440766,-0.543367,-0.62699,-0.00601462,0.391978,0.0815766,0.208849,-2.10503,0.0267147,0.661573,-0.026125,0.116903,0.00825571,0.0388775,0.00266925,-0.00900065,-0.0638276,0.000683118,0,0,0,0,0,0,0,-0.29797,-36.5416,0.762648,25.7092,0.312802,2.77489,0.0376436,
0.394614,0.0815848,0.211397,-2.1049,0.0249537,0.657861,-0.0261745,0.0383364,-0.00169838,0.0372346,0.00271193,-0.0406217,-0.0694508,-0.000746591,-0.921951,0.0648258,-0.905121,0.172503,-0.987178,1.2218,0.0462134,2.30706,-0.189666,2.2373,0.463376,-0.556759,-0.610558,-0.00541107,0.391978,0.0815766,0.208849,-2.10503,0.0267147,0.661573,-0.026125,0.116903,0.00825571,0.0388775,0.00266925,-0.00900065,-0.0638276,0.000683118,0,0,0,0,0,0,0,-0.29797,-36.5416,0.762648,25.7092,0.312802,2.77489,0.0376436,
0.394851,0.0815745,0.211627,-2.10487,0.0245498,0.657386,-0.0261773,0.0366031,-0.00161564,0.0355375,0.0030106,-0.042594,-0.0674365,-0.000668517,-1.08333,0.0517088,-1.06071,0.186668,-1.23269,1.25895,0.0487961,2.23103,-0.208781,2.15649,0.496437,-0.570236,-0.581419,-0.00487256,0.394235,0.0816478,0.211655,-2.10521,0.0260823,0.658811,-0.0261205,0.0289644,0.0112691,0.116679,-0.0027041,-0.0194286,-0.0867156,0.00661343,-10.9923,0.376672,9.72515,-0.671669,-1.3035,-2.861,0.741289,-0.0202602,-35.9941,0.738844,26.3043,0.123287,3.18596,-0.0026396,
0.396124,0.0817813,0.213493,-2.10522,0.0247977,0.655858,-0.0261492,0.0364241,-0.00106348,0.0353362,0.00279784,-0.0429363,-0.067126,-0.000613286,-0.111863,0.345105,-0.125771,-0.132979,-0.213923,0.194063,0.0345191,2.15252,-0.196478,2.08024,0.518815,-0.586124,-0.564797,-0.00422123,0.394235,0.0816478,0.211655,-2.10521,0.0260823,0.658811,-0.0261205,0.0289644,0.0112691,0.116679,-0.0027041,-0.0194286,-0.0867156,0.00661343,0,0,0,0,0,0,0,-0.0202602,-35.9941,0.738844,26.3043,0.123287,3.18596,-0.0026396,
0.39638,0.0817866,0.213739,-2.1052,0.0244114,0.655359,-0.0261515,0.0355246,-0.000719293,0.0344401,0.00280027,-0.0440066,-0.0661827,-0.000548018,-0.562189,0.215114,-0.560063,0.00152323,-0.668918,0.58956,0.0407927,2.07522,-0.184277,2.00522,0.541064,-0.601245,-0.547428,-0.00357273,0.394235,0.0816478,0.211655,-2.10521,0.0260823,0.658811,-0.0261205,0.0289644,0.0112691,0.116679,-0.0027041,-0.0194286,-0.0867156,0.00661343,0,0,0,0,0,0,0,-0.0202602,-35.9941,0.738844,26.3043,0.123287,3.18596,-0.0026396,
0.39661,0.081789,0.213962,-2.10517,0.0240031,0.654884,-0.026153,0.034178,-0.000514661,0.0331137,0.00295442,-0.0454139,-0.0648351,-0.000477338,-0.841619,0.127895,-0.829053,0.096341,-0.879598,0.842254,0.0441751,1.99947,-0.172188,1.93178,0.563117,-0.615676,-0.531191,-0.00288216,0.394235,0.0816478,0.211655,-2.10521,0.0260823,0.658811,-0.0261205,0.0289644,0.0112691,0.116679,-0.0027041,-0.0194286,-0.0867156,0.00661343,0,0,0,0,0,0,0,-0.0202602,-35.9941,0.738844,26.3043,0.123287,3.18596,-0.0026396,
0.39682,0.0817894,0.214164,-2.10514,0.0235835,0.654427,-0.026154,0.0325756,-0.000403405,0.0315417,0.00321336,-0.0468201,-0.063279,-0.000405901,-1.00154,0.0695349,-0.982467,0.161839,-0.878832,0.972562,0.0446481,1.92513,-0.191255,1.85251,0.600704,-0.627419,-0.502439,-0.00227946,0.396398,0.0818895,0.214095,-2.10535,0.0253039,0.655931,-0.0261241,0.0799481,0.00261859,0.0466744,-0.00465194,-0.0109005,-0.0906432,0.000307434,6.37297,-1.08131,-8.75054,-0.24348,1.06602,-0.490959,-0.788249,-0.67883,-36.9423,-0.185533,26.2805,0.0564539,3.13286,0.0303194,
0.398079,0.0819475,0.215716,-2.10531,0.0238566,0.653089,-0.0261387,0.032342,-0.0002039,0.031293,0.00324509,-0.0463785,-0.0629667,-0.000357029,-0.146004,0.124691,-0.155423,0.0198308,0.276008,0.195168,0.0305451,1.8537,-0.179183,1.78344,0.621609,-0.642459,-0.492291,-0.00156677,0.396398,0.0818895,0.214095,-2.10535,0.0253039,0.655931,-0.0261241,0.0799481,0.00261859,0.0466744,-0.00465194,-0.0109005,-0.0906432,0.000307434,0,0,0,0,0,0,0,-0.67883,-36.9423,-0.185533,26.2805,0.0564539,3.13286,0.0303194,
0.398302,0.0819498,0.215932,-2.10527,0.0234998,0.652614,-0.0261394,0.0314597,-0.000104842,0.0304175,0.00344739,-0.0460226,-0.0622504,-0.000304527,-0.551418,0.0619108,-0.547215,0.126434,0.222405,0.447718,0.0328132,1.78553,-0.166939,1.71776,0.642491,-0.645264,-0.481561,-0.000872218,0.396398,0.0818895,0.214095,-2.10535,0.0253039,0.655931,-0.0261241,0.0799481,0.00261859,0.0466744,-0.00465194,-0.0109005,-0.0906432,0.000307434,0,0,0,0,0,0,0,-0.67883,-36.9423,-0.185533,26.2805,0.0564539,3.13286,0.0303194,
0.398503,0.0819501,0.216124,-2.10523,0.0231617,0.652148,-0.0261398,0.0301758,-7.68033e-05,0.0291545,0.00376894,-0.0452716,-0.0614432,-0.000252498,-0.802405,0.0175245,-0.789398,0.200973,0.469384,0.504509,0.0325183,1.7211,-0.154513,1.65589,0.662751,-0.640585,-0.475337,-0.000151189,0.396398,0.0818895,0.214095,-2.10535,0.0253039,0.655931,-0.0261241,0.0799481,0.00261859,0.0466744,-0.00465194,-0.0109005,-0.0906432,0.000307434,0,0,0,0,0,0,0,-0.67883,-36.9423,-0.185533,26.2805,0.0564539,3.13286,0.0303194,
0.400217,0.0820765,0.217251,-2.10536,0.02302,0.650771,-0.0261343,0.0294861,-7.52201e-05,0.0284635,0.00415305,-0.0421917,-0.0620011,-0.000219686,-0.431103,0.000989511,-0.431845,0.240069,1.92491,-0.348714,0.0205077,1.60224,-0.15456,1.53691,0.709683,-0.66885,-0.490064,0.00112539,0.398779,0.0820453,0.215864,-2.10551,0.0243826,0.6534,-0.0261272,0.0608637,0.00232821,0.0481495,-0.00154213,-0.0202872,-0.071603,-0.000439748,-2.38555,-0.0362981,0.18439,0.388726,-1.17334,2.38003,-0.0933977,-1.05969,-36.2441,0.0366345,26.6296,0.0564539,3.09258,0.0577852,
0.400407,0.082074,0.217433,-2.10531,0.0228538,0.650242,-0.026135,0.0283242,-0.000121601,0.0273149,0.00462415,-0.0379083,-0.0628121,-0.000191757,-0.726152,-0.0289878,-0.717861,0.294437,2.67718,-0.506876,0.0174558,1.55347,-0.140106,1.49108,0.727419,-0.623463,-0.502597,0.00176114,0.398779,0.0820453,0.215864,-2.10551,0.0243826,0.6534,-0.0261272,0.0608637,0.00232821,0.0481495,-0.00154213,-0.0202872,-0.071603,-0.000439748,0,0,0,0,0,0,0,-1.05969,-36.2441,0.0366345,26.6296,0.0564539,3.09258,0.0577852,
0.400576,0.08207,0.217595,-2.10525,0.0227888,0.649689,-0.0261357,0.0268883,-0.000196865,0.0258992,0.00514956,-0.0319496,-0.0640938,-0.000170885,-0.89748,-0.0470402,-0.884824,0.32838,3.72418,-0.801036,0.0130445,1.51126,-0.124589,1.45185,0.743742,-0.557976,-0.525199,0.00238359,0.398779,0.0820453,0.215864,-2.10551,0.0243826,0.6534,-0.0261272,0.0608637,0.00232821,0.0481495,-0.00154213,-0.0202872,-0.071603,-0.000439748,0,0,0,0,0,0,0,-1.05969,-36.2441,0.0366345,26.6296,0.0564539,3.09258,0.0577852,
0.400728,0.0820651,0.21774,-2.10519,0.0228529,0.6491,-0.0261364,0.0253179,-0.000279984,0.0243497,0.00571044,-0.0239583,-0.0659983,-0.000153437,-0.981453,-0.0519497,-0.968433,0.350549,4.99455,-1.19035,0.0109053,1.47627,-0.106686,1.41986,0.759054,-0.468232,-0.558044,0.00293559,0.398779,0.0820453,0.215864,-2.10551,0.0243826,0.6534,-0.0261272,0.0608637,0.00232821,0.0481495,-0.00154213,-0.0202872,-0.071603,-0.000439748,0,0,0,0,0,0,0,-1.05969,-36.2441,0.0366345,26.6296,0.0564539,3.09258,0.0577852,
0.400194,0.0820654,0.217228,-2.10527,0.0228781,0.649849,-0.0261301,0.0253725,-0.000316438,0.0243747,0.00610196,-0.0228259,-0.0722403,-0.000154574,0.0341226,-0.0227833,0.0156466,0.244701,0.70777,-3.90126,-0.000710457,1.44115,-0.113269,1.37538,0.751571,-0.900641,-0.771202,0.00320084,0.400013,0.0824378,0.218145,-2.10545,0.0234442,0.651521,-0.0261241,0.00791645,0.0122066,0.0789492,0.00390859,-0.0240528,-0.0498066,0.00145957,-6.61841,1.2348,3.84995,0.68134,-0.470699,2.72455,0.237415,0.182071,-36.5932,0.512709,25.7092,0.0802576,2.71447,0.0303194,
0.400373,0.0820613,0.217399,-2.1052,0.0228959,0.649023,-0.0261308,0.0247676,-0.000354754,0.023751,0.00657237,-0.0178151,-0.078446,-0.00014189,-0.378106,-0.023948,-0.389855,0.294002,3.13173,-3.87857,0.00792707,1.4228,-0.0888808,1.35959,0.766402,-0.758128,-0.820772,0.00367899,0.400013,0.0824378,0.218145,-2.10545,0.0234442,0.651521,-0.0261241,0.00791645,0.0122066,0.0789492,0.00390859,-0.0240528,-0.0498066,0.00145957,0,0,0,0,0,0,0,0.182071,-36.5932,0.512709,25.7092,0.0802576,2.71447,0.0303194,
0.40053,0.0820565,0.217547,-2.10513,0.0231131,0.648144,-0.0261318,0.0237427,-0.000403845,0.0227047,0.0070414,-0.00882375,-0.0847139,-0.000138987,-0.640518,-0.0306815,-0.653928,0.293147,5.61958,-3.91743,0.00181461,1.41109,-0.0636039,1.34957,0.777908,-0.583299,-0.882675,0.00410851,0.400013,0.0824378,0.218145,-2.10545,0.0234442,0.651521,-0.0261241,0.00791645,0.0122066,0.0789492,0.00390859,-0.0240528,-0.0498066,0.00145957,0,0,0,0,0,0,0,0.182071,-36.5932,0.512709,25.7092,0.0802576,2.71447,0.0303194,
0.4012,0.0824223,0.219292,-2.10487,0.0220878,0.644024,-0.0261205,0.0235338,-0.00100538,0.0224682,0.00820131,-0.00733945,-0.112965,-0.000123482,-0.130566,-0.375961,-0.147806,0.724942,0.927692,-17.657,0.00969062,1.63302,-0.039603,1.56449,0.64444,-0.932376,-2.47668,0.00400094,0.400013,0.0824378,0.218145,-2.10545,0.0234442,0.651521,-0.0261241,0.00791645,0.0122066,0.0789492,0.00390859,-0.0240528,-0.0498066,0.00145957,0,0,0,0,0,0,0,0.182071,-36.5932,0.512709,25.7092,0.0802576,2.71447,0.0303194,
0.401361,0.0824007,0.219445,-2.10476,0.0222816,0.642128,-0.0261195,0.0228645,-0.00134332,0.0217952,0.00914717,-0.00102663,-0.137769,-7.57772e-05,-0.418319,-0.211214,-0.420653,0.591166,3.94551,-15.5025,0.0298155,1.64465,-0.00606096,1.57134,0.684006,-0.703018,-2.50239,0.00558553,0.401854,0.0825929,0.219254,-2.10543,0.0228229,0.649567,-0.026125,0.0702994,0.00181668,0.00761477,0.000310868,-0.0291424,-0.077916,0.0010229,7.79787,-1.29874,-8.9168,-0.449715,-0.636199,-3.51367,-0.0545832,-0.551876,-35.8949,0.389723,25.7806,0.251461,2.47643,0.0376436,
0.401503,0.0823762,0.219581,-2.10467,0.0226985,0.640175,-0.0261278,0.0218294,-0.00168603,0.0208367,0.00959651,0.00959986,-0.159045,-0.000267646,-0.646932,-0.214194,-0.599047,0.280837,6.64156,-13.2972,-0.119918,1.64264,0.0114924,1.56471,0.688389,-0.440196,-2.53511,0.00611533,0.401854,0.0825929,0.219254,-2.10543,0.0228229,0.649567,-0.026125,0.0702994,0.00181668,0.00761477,0.000310868,-0.0291424,-0.077916,0.0010229,0,0,0,0,0,0,0,-0.551876,-35.8949,0.389723,25.7806,0.251461,2.47643,0.0376436,
