xiao-wang007/linearmpc_panda/paper_data/panda_torque_PD_controller_Start_at_0_low_pass_filter/3/trajectory.csv
Commanded Joint 0 Position,Commanded Joint 1 Position,Commanded Joint 2 Position,Commanded Joint 3 Position,Commanded Joint 4 Position,Commanded Joint 5 Position,Commanded Joint 6 Position,Commanded Joint 0 Velocity,Commanded Joint 1 Velocity,Commanded Joint 2 Velocity,Commanded Joint 3 Velocity,Commanded Joint 4 Velocity,Commanded Joint 5 Velocity,Commanded Joint 6 Velocity,Commanded Joint 0 Acceleration,Commanded Joint 1 Acceleration,Commanded Joint 2 Acceleration,Commanded Joint 3 Acceleration,Commanded Joint 4 Acceleration,Commanded Joint 5 Acceleration,Commanded Joint 6 Acceleration,Commanded Joint 0 Torque,Commanded Joint 1 Torque,Commanded Joint 2 Torque,Commanded Joint 3 Torque,Commanded Joint 4 Torque,Commanded Joint 5 Torque,Commanded Joint 6 Torque,Actual Joint 0 Position,Actual Joint 1 Position,Actual Joint 2 Position,Actual Joint 3 Position,Actual Joint 4 Position,Actual Joint 5 Position,Actual Joint 6 Position,Actual Joint 0 Velocity,Actual Joint 1 Velocity,Actual Joint 2 Velocity,Actual Joint 3 Velocity,Actual Joint 4 Velocity,Actual Joint 5 Velocity,Actual Joint 6 Velocity,Actual Joint 0 Acceleration,Actual Joint 1 Acceleration,Actual Joint 2 Acceleration,Actual Joint 3 Acceleration,Actual Joint 4 Acceleration,Actual Joint 5 Acceleration,Actual Joint 6 Acceleration,Actual Joint 0 Torque,Actual Joint 1 Torque,Actual Joint 2 Torque,Actual Joint 3 Torque,Actual Joint 4 Torque,Actual Joint 5 Torque,Actual Joint 6 Torque,
0.040852,-0.00898918,0.00680479,-1.67721,0.0482422,0.195629,0.0546916,0.000829732,0.0205914,0.000808933,-0.0324878,-0.00651977,0.0478655,-0.000362147,0.518583,12.8696,0.505583,-20.3049,-4.07486,29.9159,-0.226342,0.0547786,24.2281,0.0667341,-24.3676,-0.865322,1.60184,-0.0229234,0.040785,-0.0100435,0.00673185,-1.67408,0.04866,0.190467,0.0547401,-0.000388447,0.000747539,-0.0018738,0.000105417,0.00260205,-6.30966e-05,-1.51065e-05,0,0,0,0,0,0,0,-0.0956386,-35.1689,-0.0625476,27.2009,0.941769,3.32512,-0.00996382,
0.0407711,-0.010033,0.00671765,-1.67408,0.048669,0.190472,0.0547406,0.00058149,0.0165453,0.000563527,-0.0260085,-0.00524357,0.0383322,-0.000287204,-0.155151,-2.52879,-0.153379,4.04958,0.797623,-5.95829,0.0468395,0.0490814,24.6725,0.0562599,-24.2838,-0.864889,1.35239,-0.0214112,0.0407865,-0.00992171,0.00672987,-1.67412,0.0486519,0.190464,0.0547428,0.00192354,0.0023117,-0.00239968,-0.00348976,0.0114221,-0.000545739,0.00119818,0.288998,0.19552,-0.0657348,-0.449397,1.10251,-0.0603304,0.15166,-0.147213,-34.7722,-0.0387439,27.1255,0.984799,3.35168,-0.0429228,
0.0407686,-0.0100305,0.0067151,-1.67408,0.0486667,0.190473,0.0547407,0.0004028,0.0132997,0.000387076,-0.0208225,-0.00425271,0.0307072,-0.000228323,-0.111681,-2.0285,-0.110282,3.24128,0.61929,-4.76565,0.036801,0.0419101,25.2439,0.0445744,-24.1758,-0.863717,1.00552,-0.0194402,0.0407865,-0.00992171,0.00672987,-1.67412,0.0486519,0.190464,0.0547428,0.00192354,0.0023117,-0.00239968,-0.00348976,0.0114221,-0.000545739,0.00119818,0,0,0,0,0,0,0,-0.147213,-34.7722,-0.0387439,27.1255,0.984799,3.35168,-0.0429228,
0.0407667,-0.0100282,0.00671311,-1.67408,0.048664,0.190475,0.0547407,0.000273946,0.0106968,0.000259988,-0.0166711,-0.00346767,0.024609,-0.000181852,-0.0805341,-1.62681,-0.07943,2.59459,0.490652,-3.81135,0.0290443,0.0360165,25.7678,0.0351913,-24.0079,-0.861033,0.621039,-0.0174366,0.0407865,-0.00992171,0.00672987,-1.67412,0.0486519,0.190464,0.0547428,0.00192354,0.0023117,-0.00239968,-0.00348976,0.0114221,-0.000545739,0.00119818,0,0,0,0,0,0,0,-0.147213,-34.7722,-0.0387439,27.1255,0.984799,3.35168,-0.0429228,
0.0406802,-0.00987162,0.00662305,-1.67401,0.0508257,0.188724,0.0547233,-0.00127913,0.00900378,-0.00129057,-0.0119155,0.0300372,-0.00691421,-0.00033785,-0.970673,-1.05812,-0.969099,2.97229,20.9405,-19.702,-0.0974991,0.469268,0.258174,0.467741,-0.341765,2.69623,-2.44619,-0.00261366,0.0407865,-0.00992171,0.00672987,-1.67412,0.0486519,0.190464,0.0547428,0.00192354,0.0023117,-0.00239968,-0.00348976,0.0114221,-0.000545739,0.00119818,0,0,0,0,0,0,0,-0.147213,-34.7722,-0.0387439,27.1255,0.984799,3.35168,-0.0429228,
0.0406227,-0.00986572,0.0065655,-1.67397,0.0524015,0.187411,0.0547187,-0.00246122,0.00735065,-0.00247123,-0.00847093,0.063424,-0.0383629,-0.000386281,-0.738807,-1.03321,-0.737911,2.15283,20.8667,-19.6554,-0.0302693,0.461756,0.293362,0.45926,-0.334951,2.67528,-2.41967,-0.00257909,0.0407808,-0.00922595,0.00673153,-1.67488,0.0486479,0.19194,0.0547433,-6.68937e-05,0.0736227,0.000500283,-0.0944417,-0.00353256,0.173821,0.00176407,-0.248804,8.91387,0.362495,-11.369,-1.86933,21.7959,0.0707364,-0.0202602,-21.093,-0.0625476,13.6765,0.440975,2.2503,-0.050247,
0.0405745,-0.00986635,0.00651726,-1.67394,0.0541315,0.185933,0.0547157,-0.00317345,0.00586469,-0.00318304,-0.00606483,0.0939891,-0.0676348,-0.000382606,-0.445142,-0.928724,-0.444884,1.50381,19.1032,-18.295,0.00229697,0.455477,0.291747,0.452987,-0.331604,2.65371,-2.39877,-0.00253773,0.0407808,-0.00922595,0.00673153,-1.67488,0.0486479,0.19194,0.0547433,-6.68937e-05,0.0736227,0.000500283,-0.0944417,-0.00353256,0.173821,0.00176407,0,0,0,0,0,0,0,-0.0202602,-21.093,-0.0625476,13.6765,0.440975,2.2503,-0.050247,
0.040538,-0.00986945,0.00648066,-1.67392,0.0559517,0.184347,0.0547137,-0.00345156,0.00461422,-0.00346133,-0.00442942,0.120697,-0.0937605,-0.000357406,-0.173821,-0.781543,-0.173932,1.02214,16.6922,-16.3286,0.0157503,0.449461,0.290203,0.446961,-0.328153,2.63203,-2.3778,-0.00250127,0.0407808,-0.00922595,0.00673153,-1.67488,0.0486479,0.19194,0.0547433,-6.68937e-05,0.0736227,0.000500283,-0.0944417,-0.00353256,0.173821,0.00176407,0,0,0,0,0,0,0,-0.0202602,-21.093,-0.0625476,13.6765,0.440975,2.2503,-0.050247,
0.0404509,-0.00808207,0.00640256,-1.67473,0.0563916,0.184218,0.05467,-0.00731086,0.0160107,-0.00730052,-0.000744809,0.215593,-0.199382,-0.000987929,-2.41206,7.12277,-2.39949,2.30288,59.31,-66.0131,-0.394077,3.73514,2.28905,3.7352,-2.28743,10.5368,-12.2144,-0.00750123,0.0407808,-0.00922595,0.00673153,-1.67488,0.0486479,0.19194,0.0547433,-6.68937e-05,0.0736227,0.000500283,-0.0944417,-0.00353256,0.173821,0.00176407,0,0,0,0,0,0,0,-0.0202602,-21.093,-0.0625476,13.6765,0.440975,2.2503,-0.050247,
0.0402925,-0.00772366,0.00624484,-1.67466,0.0621753,0.177876,0.0546548,-0.00980874,0.0217688,-0.00978345,0.00098536,0.317066,-0.318044,-0.00116979,-1.56117,3.59882,-1.55183,1.08136,63.421,-74.1642,-0.113662,3.62078,2.28505,3.62113,-2.23681,10.3122,-12.011,-0.0066843,0.0407808,-0.00922595,0.00673153,-1.67488,0.0486479,0.19194,0.0547433,-6.68937e-05,0.0736227,0.000500283,-0.0944417,-0.00353256,0.173821,0.00176407,0,0,0,0,0,0,0,-0.0202602,-21.093,-0.0625476,13.6765,0.440975,2.2503,-0.050247,
0.0401816,-0.00745263,0.00613449,-1.67466,0.0685352,0.170669,0.0546467,-0.0106195,0.0241906,-0.0105854,0.000918231,0.412649,-0.434619,-0.00113836,-0.506727,1.51363,-0.501194,-0.0419559,59.7396,-72.8592,0.0196428,3.49304,2.41718,3.48863,-2.23595,10.0991,-11.7922,-0.00676601,0.0407544,-0.00580352,0.00672482,-1.6805,0.0504578,0.195344,0.054741,-0.00453674,0.047066,-0.00280424,-0.0924843,0.174062,-0.184612,0.00154189,-0.558731,-3.31958,-0.413065,0.244681,22.1993,-44.8041,-0.0277718,0.539127,-31.9753,0.413527,33.4772,2.31598,3.64281,-0.0301054,
0.0424699,-0.00796809,0.00844404,-1.67624,0.0595416,0.176263,0.0549171,0.0115502,0.0283931,0.0117677,-0.0105844,0.453526,-0.530813,0.000455815,13.8561,2.62656,13.9706,-7.18913,25.5479,-60.1213,0.996359,26.038,5.75341,26.1038,-13.3226,10.7767,-14.5282,0.0795848,0.0407544,-0.00580352,0.00672482,-1.6805,0.0504578,0.195344,0.054741,-0.00453674,0.047066,-0.00280424,-0.0924843,0.174062,-0.184612,0.00154189,0,0,0,0,0,0,0,0.539127,-31.9753,0.413527,33.4772,2.31598,3.64281,-0.0301054,
0.0424303,-0.00471716,0.00842716,-1.6818,0.0632893,0.175521,0.05492,0.0291773,0.0308067,0.0295578,-0.0198072,0.496504,-0.629855,0.00171674,11.0169,1.50851,11.1188,-5.76425,26.861,-61.9014,0.788077,24.8695,5.96439,24.9438,-11.7097,10.7767,-14.5282,0.0613469,0.0407544,-0.00580352,0.00672482,-1.6805,0.0504578,0.195344,0.054741,-0.00453674,0.047066,-0.00280424,-0.0924843,0.174062,-0.184612,0.00154189,0,0,0,0,0,0,0,0.539127,-31.9753,0.413527,33.4772,2.31598,3.64281,-0.0301054,
0.0434024,-0.00446688,0.00940722,-1.68235,0.0693625,0.166392,0.0550046,0.0476458,0.0309022,0.0481477,-0.0294417,0.549032,-0.732107,0.00348774,11.5428,0.059705,11.6187,-6.0216,32.8302,-63.9076,1.10687,23.9251,5.05447,23.9932,-10.4835,10.7767,-14.5282,0.0577679,0.0407544,-0.00580352,0.00672482,-1.6805,0.0504578,0.195344,0.054741,-0.00453674,0.047066,-0.00280424,-0.0924843,0.174062,-0.184612,0.00154189,0,0,0,0,0,0,0,0.539127,-31.9753,0.413527,33.4772,2.31598,3.64281,-0.0301054,
0.0444983,-0.00435365,0.0105102,-1.68306,0.0760134,0.156667,0.0551316,0.065513,0.0275525,0.0660919,-0.0412487,0.605497,-0.828834,0.00596484,11.167,-2.0936,11.2151,-7.37934,35.2906,-60.4544,1.54819,22.8559,3.3175,22.9196,-10.2784,10.6157,-14.5155,0.0997092,0.0404703,-0.00255642,0.00645868,-1.68072,0.063941,0.181034,0.0547269,-0.0204374,0.186267,-0.0271298,0.0492041,0.947334,-0.820198,0.00221776,-1.98758,17.4001,-3.04069,17.711,96.659,-79.4483,0.0844836,5.58551,-42.0323,5.36073,22.2934,3.45214,-3.40492,0.0577852,
0.0418815,-0.00124081,0.00789231,-1.68295,0.0769797,0.165912,0.055006,0.07557,0.036482,0.0762746,-0.0643798,0.644588,-0.865727,0.00736403,6.28565,5.58098,6.36418,-14.4569,24.4319,-23.0579,0.874496,33.726,7.89331,33.7167,-23.5203,10.6157,-14.5155,0.16554,0.0404703,-0.00255642,0.00645868,-1.68072,0.063941,0.181034,0.0547269,-0.0204374,0.186267,-0.0271298,0.0492041,0.947334,-0.820198,0.00221776,0,0,0,0,0,0,0,5.58551,-42.0323,5.36073,22.2934,3.45214,-3.40492,0.0577852,
0.0430967,-0.000711478,0.00911498,-1.6843,0.08353,0.156919,0.0550874,0.0908369,0.0424189,0.0915864,-0.0852393,0.679429,-0.917427,0.00792836,9.54183,3.71053,9.56988,-13.0372,21.7754,-32.3126,0.352706,30.8357,8.42433,30.846,-22.0769,10.6157,-14.5155,0.0869896,0.0404703,-0.00255642,0.00645868,-1.68072,0.063941,0.181034,0.0547269,-0.0204374,0.186267,-0.0271298,0.0492041,0.947334,-0.820198,0.00221776,0,0,0,0,0,0,0,5.58551,-42.0323,5.36073,22.2934,3.45214,-3.40492,0.0577852,
0.0444947,-0.000240427,0.0105194,-1.68576,0.0903815,0.147311,0.0551823,0.10762,0.0457114,0.108379,-0.104548,0.71483,-0.974143,0.00871445,10.4894,2.05781,10.4952,-12.0678,22.1258,-35.4473,0.491307,28.8008,7.83458,28.8205,-21.1648,10.6157,-14.5155,0.077143,0.0404703,-0.00255642,0.00645868,-1.68072,0.063941,0.181034,0.0547269,-0.0204374,0.186267,-0.0271298,0.0492041,0.947334,-0.820198,0.00221776,0,0,0,0,0,0,0,5.58551,-42.0323,5.36073,22.2934,3.45214,-3.40492,0.0577852,
0.0459907,0.00016513,0.0120205,-1.68732,0.0975949,0.137273,0.055258,0.123496,0.046708,0.124233,-0.122668,0.752198,-1.03025,0.00886337,9.92268,0.622903,9.90863,-11.325,23.3552,-35.0682,0.0930745,26.9068,6.74343,26.9327,-21.2451,10.581,-14.1644,0.107892,0.042948,0.000764243,0.00933608,-1.68279,0.0923491,0.138188,0.054733,0.170872,0.13116,0.138558,-0.0577029,0.96292,-1.44946,-0.00069064,23.9136,-6.88831,20.711,-13.3634,1.94826,-78.6583,-0.36355,18.618,-37.0177,17.7625,21.3214,4.75311,-1.8531,0.0843355,
0.0463312,0.00150448,0.0127013,-1.68673,0.107184,0.117336,0.0549213,0.14358,0.0455056,0.143949,-0.150249,0.787136,-1.08513,0.00885401,12.5521,-0.751507,12.3228,-17.2382,21.8359,-34.2988,-0.00585322,34.352,5.03253,34.1373,-29.8491,10.581,-14.1644,0.125858,0.042948,0.000764243,0.00933608,-1.68279,0.0923491,0.138188,0.054733,0.170872,0.13116,0.138558,-0.0577029,0.96292,-1.44946,-0.00069064,0,0,0,0,0,0,0,18.618,-37.0177,17.7625,21.3214,4.75311,-1.8531,0.0843355,
0.0482223,0.00179512,0.0145827,-1.68889,0.114766,0.106755,0.0549871,0.162141,0.0436704,0.162194,-0.174158,0.819253,-1.13264,0.00872981,11.6006,-1.14703,11.4029,-14.9429,20.0731,-29.6917,-0.0776201,31.14,4.96594,30.9636,-28.5509,10.581,-14.1644,0.0695936,0.042948,0.000764243,0.00933608,-1.68279,0.0923491,0.138188,0.054733,0.170872,0.13116,0.138558,-0.0577029,0.96292,-1.44946,-0.00069064,0,0,0,0,0,0,0,18.618,-37.0177,17.7625,21.3214,4.75311,-1.8531,0.0843355,
0.0501374,0.00204249,0.0164877,-1.6911,0.122592,0.0960495,0.0550258,0.177591,0.0411206,0.177379,-0.194618,0.851044,-1.17375,0.00795053,9.65653,-1.59363,9.49066,-12.788,19.8697,-25.6939,-0.487054,28.5394,3.70209,28.3857,-28.1767,10.581,-14.1644,0.0762178,0.042948,0.000764243,0.00933608,-1.68279,0.0923491,0.138188,0.054733,0.170872,0.13116,0.138558,-0.0577029,0.96292,-1.44946,-0.00069064,0,0,0,0,0,0,0,18.618,-37.0177,17.7625,21.3214,4.75311,-1.8531,0.0843355,
0.0531572,0.0035033,0.01935,-1.69724,0.140073,0.0626716,0.0547919,0.194652,0.0405787,0.194268,-0.231051,0.877164,-1.23089,0.00645569,10.6633,-0.338663,10.5559,-22.7704,16.3249,-35.7143,-0.934272,31.4311,3.64913,31.2812,-37.3274,10.5777,-13.7699,0.00766536,0.0489921,0.00282926,0.0152041,-1.69132,0.124543,0.0864576,0.0547752,0.260634,0.0849603,0.22166,-0.274379,0.941403,-1.67274,-6.95105e-05,11.2203,-5.77497,10.3876,-27.0845,-2.68962,-27.9097,0.0776412,14.9919,-30.2297,14.2871,25.1578,5.52215,-0.507273,0.0641939,
0.0552388,0.0037711,0.0214226,-1.70026,0.148138,0.0512195,0.0547703,0.20776,0.039158,0.20723,-0.260361,0.903357,-1.27102,0.00462374,8.19209,-0.887932,8.1009,-18.3189,16.3706,-25.0792,-1.14497,28.5079,2.69162,28.3843,-36.6271,10.5777,-13.7699,0.00183624,0.0489921,0.00282926,0.0152041,-1.69132,0.124543,0.0864576,0.0547752,0.260634,0.0849603,0.22166,-0.274379,0.941403,-1.67274,-6.95105e-05,0,0,0,0,0,0,0,14.9919,-30.2297,14.2871,25.1578,5.52215,-0.507273,0.0641939,
0.0572606,0.00401151,0.0234356,-1.70326,0.156399,0.039979,0.0547107,0.216753,0.0373368,0.216108,-0.283095,0.929217,-1.29783,0.00221031,5.62106,-1.13828,5.54921,-14.2088,16.1623,-16.7551,-1.5084,25.6626,1.65432,25.5605,-36.3114,10.5777,-13.7699,-0.0238696,0.0489921,0.00282926,0.0152041,-1.69132,0.124543,0.0864576,0.0547752,0.260634,0.0849603,0.22166,-0.274379,0.941403,-1.67274,-6.95105e-05,0,0,0,0,0,0,0,14.9919,-30.2297,14.2871,25.1578,5.52215,-0.507273,0.0641939,
0.0592111,0.00423547,0.0253776,-1.70622,0.164804,0.0291602,0.0546344,0.222165,0.0354684,0.221438,-0.300561,0.953506,-1.30873,-0.000139179,3.38218,-1.16775,3.3309,-10.9163,15.1808,-6.81603,-1.46843,23.2187,1.31748,23.1339,-35.7177,10.5777,-13.4469,-0.0681184,0.0489921,0.00282926,0.0152041,-1.69132,0.124543,0.0864576,0.0547752,0.260634,0.0849603,0.22166,-0.274379,0.941403,-1.67274,-6.95105e-05,0,0,0,0,0,0,0,14.9919,-30.2297,14.2871,25.1578,5.52215,-0.507273,0.0641939,
0.0657122,0.00149612,0.0318879,-1.71457,0.179678,0.00182639,0.0546638,0.245085,0.0229923,0.244183,-0.33586,1.00086,-1.33026,-0.00248434,14.3251,-7.79756,14.2155,-22.0615,29.5959,-13.4573,-1.46572,26.799,0.795809,26.6845,-44.6083,10.6753,-10.1114,-0.0887564,0.0601195,0.00203763,0.0263258,-1.70695,0.160705,0.026134,0.0548373,0.402911,-0.0510897,0.369675,-0.439744,1.15198,-1.92131,0.00138609,17.7846,-17.0063,18.5019,-20.6706,26.3218,-31.0714,0.18195,8.12061,-27.3335,8.28859,19.1791,4.22119,-0.719675,0.0239107,
0.0682089,0.0013654,0.0343737,-1.71833,0.189188,-0.00817601,0.0545425,0.258486,0.0151257,0.257491,-0.362721,1.03843,-1.31427,-0.00502146,8.37536,-4.91664,8.31745,-16.7886,23.4802,9.99536,-1.5857,24.164,0.0505436,24.0754,-44.0258,10.6753,-9.30684,-0.103389,0.0601195,0.00203763,0.0263258,-1.70695,0.160705,0.026134,0.0548373,0.402911,-0.0510897,0.369675,-0.439744,1.15198,-1.92131,0.00138609,0,0,0,0,0,0,0,8.12061,-27.3335,8.28859,19.1791,4.22119,-0.719675,0.0239107,
0.0705284,0.00129438,0.0366837,-1.72203,0.198622,-0.0168632,0.0544146,0.264777,0.0103251,0.263743,-0.382702,1.06658,-1.2686,-0.00721451,3.93214,-3.00032,3.90772,-12.4877,17.5962,28.5459,-1.37066,21.9411,-0.10904,21.8714,-43.2282,10.6753,-8.3232,-0.135367,0.0601195,0.00203763,0.0263258,-1.70695,0.160705,0.026134,0.0548373,0.402911,-0.0510897,0.369675,-0.439744,1.15198,-1.92131,0.00138609,0,0,0,0,0,0,0,8.12061,-27.3335,8.28859,19.1791,4.22119,-0.719675,0.0239107,
0.0726935,0.001265,0.0388404,-1.72566,0.207934,-0.0243053,0.0542946,0.265949,0.00752551,0.26491,-0.396913,1.08608,-1.20093,-0.00877152,0.732327,-1.74977,0.729657,-8.88222,12.1892,42.293,-0.973128,20.4153,0.0642622,20.3546,-42.2552,10.6753,-6.7193,-0.143168,0.0601195,0.00203763,0.0263258,-1.70695,0.160705,0.026134,0.0548373,0.402911,-0.0510897,0.369675,-0.439744,1.15198,-1.92131,0.00138609,0,0,0,0,0,0,0,8.12061,-27.3335,8.28859,19.1791,4.22119,-0.719675,0.0239107,
0.065324,0.00134539,0.0315102,-1.71582,0.180485,0.00826478,0.0544083,0.27432,-0.000372983,0.273301,-0.429327,1.11736,-1.14548,-0.0123755,5.23228,-4.93656,5.24401,-20.2585,19.5482,34.6528,-2.25249,18.44,2.82142,18.4372,-49.9366,10.6591,-0.846036,-0.256449,0.0741319,0.00153073,0.0408542,-1.73071,0.204893,-0.0384186,0.0548033,0.405226,-0.0427491,0.507373,-0.803486,1.3708,-1.9172,-0.00343063,0.289401,1.04259,17.2123,-45.4678,27.3523,0.513625,-0.60209,9.64405,-28.607,9.43513,15.5688,3.47595,-0.878977,-0.00996382,
0.0675644,0.00124018,0.0337447,-1.72022,0.190319,0.00331188,0.0542108,0.275465,-0.00292868,0.274505,-0.453454,1.13974,-1.04021,-0.0148371,0.715204,-1.59731,0.752732,-15.0796,13.9844,65.7964,-1.53852,17.3835,2.03407,17.3878,-49.2608,10.6591,0.290221,-0.25065,0.0741319,0.00153073,0.0408542,-1.73071,0.204893,-0.0384186,0.0548033,0.405226,-0.0427491,0.507373,-0.803486,1.3708,-1.9172,-0.00343063,0,0,0,0,0,0,0,9.64405,-28.607,9.43513,15.5688,3.47595,-0.878977,-0.00996382,
0.0696253,0.00123535,0.0358012,-1.72451,0.199959,0.000335993,0.0540383,0.271895,-0.00246368,0.271016,-0.470058,1.15279,-0.906564,-0.0161829,-2.23082,0.290625,-2.18065,-10.3771,8.15792,83.5279,-0.841131,16.7435,1.78074,16.7483,-48.3567,10.6591,1.9236,-0.230719,0.0741319,0.00153073,0.0408542,-1.73071,0.204893,-0.0384186,0.0548033,0.405226,-0.0427491,0.507373,-0.803486,1.3708,-1.9172,-0.00343063,0,0,0,0,0,0,0,9.64405,-28.607,9.43513,15.5688,3.47595,-0.878977,-0.00996382,
0.080202,0.00210583,0.0469108,-1.74122,0.226274,-0.0579552,0.054393,0.288901,0.00726331,0.287951,-0.502353,1.18638,-0.926243,-0.0180118,10.6285,6.07937,10.5845,-20.1844,20.997,-12.2992,-1.14306,17.3835,2.03407,17.3878,-49.2608,10.6591,0.290221,-0.25065,0.0741319,0.00153073,0.0408542,-1.73071,0.204893,-0.0384186,0.0548033,0.405226,-0.0427491,0.507373,-0.803486,1.3708,-1.9172,-0.00343063,0,0,0,0,0,0,0,9.64405,-28.607,9.43513,15.5688,3.47595,-0.878977,-0.00996382,
0.0827604,0.00251447,0.049461,-1.74599,0.236514,-0.0631756,0.0542139,0.295081,0.0160268,0.294118,-0.521204,1.20511,-0.871504,-0.0188887,3.86244,5.47716,3.85426,-11.7819,11.7058,34.2117,-0.548071,16.7088,1.08357,16.7107,-47.4904,10.4619,2.53744,-0.239529,0.0904081,0.00193693,0.0585918,-1.76403,0.254259,-0.092697,0.054634,0.444639,0.013099,0.574859,-0.997436,1.51991,-1.26434,-0.0100072,4.92657,6.98101,8.43578,-24.2437,18.6393,81.6084,-0.82207,1.70551,-28.9046,1.16334,20.0281,0.953671,3.7893,-0.110672,
0.0850758,0.00291099,0.0517695,-1.75053,0.246406,-0.0661563,0.0540629,0.29395,0.0227342,0.293007,-0.530423,1.2114,-0.771721,-0.0188855,-0.706952,4.19217,-0.694452,-5.76159,3.92597,62.3646,0.0020481,16.3394,0.917129,16.3409,-46.6332,10.4619,3.80268,-0.20887,0.0904081,0.00193693,0.0585918,-1.76403,0.254259,-0.092697,0.054634,0.444639,0.013099,0.574859,-0.997436,1.51991,-1.26434,-0.0100072,0,0,0,0,0,0,0,1.70551,-28.9046,1.16334,20.0281,0.953671,3.7893,-0.110672,
0.0871904,0.0032732,0.0538781,-1.75486,0.255965,-0.0673938,0.0539405,0.288025,0.0272428,0.287121,-0.532545,1.20809,-0.648314,-0.018168,-3.7032,2.81784,-3.67892,-1.32631,-2.06798,77.1291,0.4484,16.0895,0.819672,16.0899,-45.8341,10.4619,4.73533,-0.174027,0.0904081,0.00193693,0.0585918,-1.76403,0.254259,-0.092697,0.054634,0.444639,0.013099,0.574859,-0.997436,1.51991,-1.26434,-0.0100072,0,0,0,0,0,0,0,1.70551,-28.9046,1.16334,20.0281,0.953671,3.7893,-0.110672,
0.0970689,0.00362962,0.0652346,-1.77509,0.276475,-0.106526,0.0542406,0.308146,0.0433405,0.307096,-0.55544,1.23758,-0.659094,-0.0192782,12.5757,10.0611,12.4842,-14.3097,18.4316,-6.73738,-0.693875,16.7088,1.08357,16.7107,-47.4904,10.4619,2.53744,-0.239529,0.0904081,0.00193693,0.0585918,-1.76403,0.254259,-0.092697,0.054634,0.444639,0.013099,0.574859,-0.997436,1.51991,-1.26434,-0.0100072,0,0,0,0,0,0,0,1.70551,-28.9046,1.16334,20.0281,0.953671,3.7893,-0.110672,
0.099814,0.00438191,0.0679684,-1.77988,0.286835,-0.10986,0.0540795,0.315145,0.0534799,0.314022,-0.564252,1.24907,-0.610625,-0.019449,4.37474,6.33711,4.32899,-5.50728,7.18396,30.2934,-0.106745,16.207,0.309734,16.2036,-45.9291,10.2193,4.21803,-0.215442,0.107634,0.00265709,0.0766451,-1.80343,0.305992,-0.11749,0.0540703,0.511059,0.0877355,0.573591,-1.09435,1.51985,-0.7121,-0.0120443,8.3025,9.32957,-0.158493,-12.1144,-0.00696751,69.0297,-0.254638,-1.61908,-34.9706,-2.26042,29.9185,2.32238,4.29284,-0.0905302,
0.102264,0.00500641,0.0704086,-1.78439,0.296747,-0.111358,0.0539487,0.313369,0.0583964,0.312221,-0.564152,1.24704,-0.525941,-0.0188292,-1.11052,3.07282,-1.12573,0.0626386,-1.26983,52.9272,0.387368,15.9571,0.212277,15.9526,-45.13,10.2193,5.15067,-0.180599,0.107634,0.00265709,0.0766451,-1.80343,0.305992,-0.11749,0.0540703,0.511059,0.0877355,0.573591,-1.09435,1.51985,-0.7121,-0.0120443,0,0,0,0,0,0,0,-1.61908,-34.9706,-2.26042,29.9185,2.32238,4.29284,-0.0905302,
0.114606,0.0053131,0.0835858,-1.81477,0.32759,-0.12606,0.0537139,0.331471,0.0784881,0.330136,-0.582211,1.26019,-0.505411,-0.0192897,11.314,12.5573,11.1971,-11.2874,8.21896,12.8313,-0.287817,16.207,0.309734,16.2036,-45.9291,10.2193,4.21803,-0.215442,0.107634,0.00265709,0.0766451,-1.80343,0.305992,-0.11749,0.0540703,0.511059,0.0877355,0.573591,-1.09435,1.51985,-0.7121,-0.0120443,0,0,0,0,0,0,0,-1.61908,-34.9706,-2.26042,29.9185,2.32238,4.29284,-0.0905302,
0.117425,0.00634682,0.0863909,-1.81956,0.337599,-0.127717,0.0535753,0.335673,0.0886335,0.334237,-0.585481,1.25838,-0.445738,-0.0188965,2.62625,6.34086,2.56322,-2.04345,-1.12862,37.296,0.245804,15.9571,0.212277,15.9526,-45.13,10.2193,5.15067,-0.180599,0.107634,0.00265709,0.0766451,-1.80343,0.305992,-0.11749,0.0540703,0.511059,0.0877355,0.573591,-1.09435,1.51985,-0.7121,-0.0120443,0,0,0,0,0,0,0,-1.61908,-34.9706,-2.26042,29.9185,2.32238,4.29284,-0.0905302,
0.119927,0.00715554,0.0888802,-1.82402,0.346974,-0.127914,0.0534674,0.331087,0.0911248,0.329622,-0.579913,1.24106,-0.361525,-0.0178149,-2.86633,1.55708,-2.88482,3.48015,-10.825,52.6326,0.675991,15.7388,0.195893,15.7338,-44.3639,10.2193,5.76008,-0.145725,0.107634,0.00265709,0.0766451,-1.80343,0.305992,-0.11749,0.0540703,0.511059,0.0877355,0.573591,-1.09435,1.51985,-0.7121,-0.0120443,0,0,0,0,0,0,0,-1.61908,-34.9706,-2.26042,29.9185,2.32238,4.29284,-0.0905302,
0.122181,0.00777338,0.0911233,-1.82822,0.355634,-0.126866,0.0533884,0.321222,0.088346,0.319775,-0.568916,1.20937,-0.263025,-0.0162256,-6.16543,-1.73675,-6.15445,6.8732,-19.8121,61.5628,0.993321,15.4398,-0.507904,15.4178,-43.1101,9.17669,6.47729,-0.116705,0.12459,0.00516041,0.096188,-1.84192,0.360242,-0.129824,0.0536906,0.361658,0.0888432,0.699356,-1.08124,1.59529,-0.240015,-0.00808554,-18.6751,0.13845,15.7206,1.63907,9.42897,59.0106,0.494844,-2.73388,-32.9472,-3.51012,20.8493,0.855709,1.68725,-0.0703886,
0.131403,0.00773321,0.102988,-1.8528,0.381879,-0.1334,0.0533873,0.336022,0.100951,0.334366,-0.580125,1.22776,-0.241237,-0.0165485,9.25011,7.87842,9.11975,-7.00618,11.4968,13.6177,-0.20185,15.8843,-0.565742,15.8633,-44.6291,9.9223,5.37335,-0.185126,0.12459,0.00516041,0.096188,-1.84192,0.360242,-0.129824,0.0536906,0.361658,0.0888432,0.699356,-1.08124,1.59529,-0.240015,-0.00808554,0,0,0,0,0,0,0,-2.73388,-32.9472,-3.51012,20.8493,0.855709,1.68725,-0.0703886,
0.134169,0.00868165,0.105735,-1.85736,0.391499,-0.133388,0.0532742,0.337945,0.104472,0.336187,-0.577967,1.22271,-0.192691,-0.0160666,1.20148,2.20039,1.13799,1.34933,-3.15929,30.3413,0.3012,15.6661,-0.582126,15.6445,-43.8631,9.9223,5.98277,-0.150253,0.12459,0.00516041,0.096188,-1.84192,0.360242,-0.129824,0.0536906,0.361658,0.0888432,0.699356,-1.08124,1.59529,-0.240015,-0.00808554,0,0,0,0,0,0,0,-2.73388,-32.9472,-3.51012,20.8493,0.855709,1.68725,-0.0703886,
0.136624,0.00939146,0.108176,-1.86161,0.400306,-0.132219,0.0531909,0.331742,0.101323,0.329961,-0.568646,1.19836,-0.124933,-0.014936,-3.87643,-1.96813,-3.89122,5.82552,-15.2169,42.3484,0.706597,15.4398,-0.507904,15.4178,-43.1101,9.17669,6.47729,-0.116705,0.12459,0.00516041,0.096188,-1.84192,0.360242,-0.129824,0.0536906,0.361658,0.0888432,0.699356,-1.08124,1.59529,-0.240015,-0.00808554,0,0,0,0,0,0,0,-2.73388,-32.9472,-3.51012,20.8493,0.855709,1.68725,-0.0703886,
0.138831,0.00991099,0.110369,-1.86561,0.408344,-0.130106,0.0531323,0.320559,0.0940467,0.3188,-0.555057,1.15963,-0.0471234,-0.013413,-6.98952,-4.54777,-6.97541,8.49305,-24.2046,48.6311,0.951877,15.1196,-0.738212,15.0732,-41.9604,8.18787,7.27216,-0.0871698,0.144303,0.00833516,0.112612,-1.88172,0.415197,-0.131092,0.0534702,0.326916,0.125284,0.743035,-1.12645,1.47436,0.0737954,-0.00506056,-4.34275,4.55509,5.45977,-5.65122,-15.1153,39.2262,0.378122,-0.829586,-38.438,-0.812364,27.6492,1.56433,1.64696,-0.050247,
0.151102,0.011358,0.11939,-1.8927,0.434825,-0.131679,0.0532261,0.335154,0.110248,0.333095,-0.568911,1.16184,-0.0369568,-0.0135934,9.12155,10.1256,8.93443,-8.65919,1.38224,6.35416,-0.112721,15.5991,-0.960566,15.5539,-43.467,9.71898,6.19212,-0.152634,0.144303,0.00833516,0.112612,-1.88172,0.415197,-0.131092,0.0534702,0.326916,0.125284,0.743035,-1.12645,1.47436,0.0737954,-0.00506056,0,0,0,0,0,0,0,-0.829586,-38.438,-0.812364,27.6492,1.56433,1.64696,-0.050247,
0.153842,0.0124315,0.122108,-1.89721,0.443391,-0.130652,0.0531396,0.336643,0.115036,0.334429,-0.568031,1.14362,-0.00389838,-0.0130376,0.93078,2.99252,0.833584,0.550341,-11.3917,20.6615,0.347392,15.3728,-0.886345,15.3272,-42.714,8.97337,6.68664,-0.119086,0.144303,0.00833516,0.112612,-1.88172,0.415197,-0.131092,0.0534702,0.326916,0.125284,0.743035,-1.12645,1.47436,0.0737954,-0.00506056,0,0,0,0,0,0,0,-0.829586,-38.438,-0.812364,27.6492,1.56433,1.64696,-0.050247,
0.156261,0.0132228,0.124507,-1.90141,0.451211,-0.128711,0.0530783,0.329781,0.111812,0.327511,-0.5592,1.11041,0.0454087,-0.0119614,-4.28839,-2.01505,-4.32393,5.51915,-20.753,30.8169,0.672575,15.1196,-0.738212,15.0732,-41.9604,8.18787,7.27216,-0.0871698,0.144303,0.00833516,0.112612,-1.88172,0.415197,-0.131092,0.0534702,0.326916,0.125284,0.743035,-1.12645,1.47436,0.0737954,-0.00506056,0,0,0,0,0,0,0,-0.829586,-38.438,-0.812364,27.6492,1.56433,1.64696,-0.050247,
0.171863,0.0143539,0.135689,-1.93041,0.483156,-0.118571,0.0531025,0.343564,0.114748,0.34088,-0.563457,1.09468,0.0779295,-0.0118237,8.61419,1.83546,8.35558,-2.66024,-9.82883,20.3255,0.0860792,15.31,-1.50676,15.2327,-42.2868,8.81994,6.80254,-0.119523,0.164902,0.012201,0.128825,-1.9202,0.465947,-0.121735,0.0532956,0.653622,0.0529932,0.454817,-1.05971,1.28272,0.424343,-0.00230168,40.8382,-9.03634,-36.0272,8.34244,-23.9559,43.8185,0.344859,-3.36865,-35.9941,-2.21282,25.3601,2.46887,0.771719,-0.083206,
0.174607,0.0151182,0.138405,-1.93462,0.490791,-0.116327,0.0530363,0.343467,0.110906,0.340602,-0.556185,1.06663,0.11843,-0.0111151,-0.0609559,-2.40143,-0.173342,4.54504,-17.5353,25.3129,0.442905,15.0568,-1.35862,14.9788,-41.5332,8.03444,7.38805,-0.0876063,0.164902,0.012201,0.128825,-1.9202,0.465947,-0.121735,0.0532956,0.653622,0.0529932,0.454817,-1.05971,1.28272,0.424343,-0.00230168,0,0,0,0,0,0,0,-3.36865,-35.9941,-2.21282,25.3601,2.46887,0.771719,-0.083206,
0.177013,0.0156593,0.140787,-1.93859,0.497842,-0.11322,0.0529936,0.334925,0.102252,0.33203,-0.544059,1.02957,0.172429,-0.0099601,-5.33847,-5.40855,-5.35792,7.57832,-23.1608,33.7492,0.721856,14.7447,-1.18897,14.6672,-40.8165,7.41449,7.63187,-0.0612002,0.164902,0.012201,0.128825,-1.9202,0.465947,-0.121735,0.0532956,0.653622,0.0529932,0.454817,-1.05971,1.28272,0.424343,-0.00230168,0,0,0,0,0,0,0,-3.36865,-35.9941,-2.21282,25.3601,2.46887,0.771719,-0.083206,
0.179162,0.0160242,0.142915,-1.94238,0.504354,-0.109035,0.0529693,0.321644,0.0909258,0.318807,-0.530078,0.98644,0.242561,-0.00857406,-8.30079,-7.07916,-8.26396,8.73857,-26.957,43.8326,0.866271,14.3965,-0.927616,14.3175,-40.0314,6.94113,8.73739,-0.0385406,0.164902,0.012201,0.128825,-1.9202,0.465947,-0.121735,0.0532956,0.653622,0.0529932,0.454817,-1.05971,1.28272,0.424343,-0.00230168,0,0,0,0,0,0,0,-3.36865,-35.9941,-2.21282,25.3601,2.46887,0.771719,-0.083206,
0.171877,0.0143756,0.135704,-1.93032,0.482646,-0.118314,0.0531484,0.337185,0.0983564,0.334047,-0.538844,0.988035,0.238927,-0.00858995,9.7136,4.64415,9.52459,-5.4793,0.996893,-2.27108,-0.00992747,15.038,-1.62536,14.922,-41.4036,7.92155,7.4596,-0.0893322,0.180455,0.0160888,0.150167,-1.95744,0.513278,-0.102717,0.0532385,0.781539,0.108108,0.259129,-1.08623,1.34364,0.583195,-0.00103083,15.9897,6.88937,-24.461,-3.31469,7.61513,19.8565,0.158856,-2.04754,-34.9706,-2.06206,21.2976,2.98156,0.155569,-0.0365141,
0.174627,0.0151491,0.138426,-1.9345,0.489967,-0.115701,0.0531008,0.338497,0.0980218,0.33527,-0.535685,0.973431,0.256468,-0.00806347,0.819629,-0.209123,0.764329,1.97441,-9.12766,10.9628,0.329046,14.726,-1.45571,14.6103,-40.6869,7.30161,7.70343,-0.0629261,0.180455,0.0160888,0.150167,-1.95744,0.513278,-0.102717,0.0532385,0.781539,0.108108,0.259129,-1.08623,1.34364,0.583195,-0.00103083,0,0,0,0,0,0,0,-2.04754,-34.9706,-2.06206,21.2976,2.98156,0.155569,-0.0365141,
0.177038,0.0156973,0.140812,-1.93845,0.496713,-0.111969,0.0530723,0.331071,0.0921243,0.327882,-0.52725,0.947396,0.298476,-0.00716406,-4.64127,-3.68593,-4.61753,5.27213,-16.2714,26.2551,0.56213,14.3778,-1.19435,14.2607,-39.9018,6.82825,8.80894,-0.0402665,0.180455,0.0160888,0.150167,-1.95744,0.513278,-0.102717,0.0532385,0.781539,0.108108,0.259129,-1.08623,1.34364,0.583195,-0.00103083,0,0,0,0,0,0,0,-2.04754,-34.9706,-2.06206,21.2976,2.98156,0.155569,-0.0365141,
0.179191,0.0160707,0.142944,-1.94221,0.502792,-0.1071,0.0530593,0.318677,0.0830327,0.315599,-0.515754,0.909911,0.360487,-0.00605386,-7.74632,-5.68227,-7.67692,7.18506,-23.4283,38.757,0.69388,14.0092,-1.02031,13.8899,-39.1756,6.44821,10.2975,-0.0233644,0.180455,0.0160888,0.150167,-1.95744,0.513278,-0.102717,0.0532385,0.781539,0.108108,0.259129,-1.08623,1.34364,0.583195,-0.00103083,0,0,0,0,0,0,0,-2.04754,-34.9706,-2.06206,21.2976,2.98156,0.155569,-0.0365141,
0.187109,0.0188039,0.156686,-1.96767,0.529295,-0.0975075,0.0531469,0.331214,0.0975288,0.327744,-0.528251,0.914828,0.355523,-0.00595224,7.8357,9.06007,7.59088,-7.81076,3.07331,-3.10228,0.0635107,14.6653,-1.69115,14.5016,-40.5393,7.19621,7.76906,-0.0620775,0.196576,0.0204858,0.170267,-1.99351,0.555174,-0.0764787,0.0532277,0.256875,0.178133,0.772598,-1.0087,1.17372,0.78354,-0.00131937,-65.583,8.7531,64.1836,9.69034,-21.2398,25.0431,-0.0360671,-1.26202,-34.6214,-1.83592,20.4764,2.69409,-1.36329,0.017502,
0.189749,0.0197239,0.159292,-1.97187,0.536036,-0.0939016,0.0531181,0.330976,0.101023,0.327357,-0.527784,0.900379,0.374565,-0.00548277,-0.148877,2.18375,-0.241822,0.292195,-9.03114,11.9007,0.293417,14.3171,-1.4298,14.1519,-39.7542,6.72285,8.87457,-0.0394179,0.196576,0.0204858,0.170267,-1.99351,0.555174,-0.0764787,0.0532277,0.256875,0.178133,0.772598,-1.0087,1.17372,0.78354,-0.00131937,0,0,0,0,0,0,0,-1.26202,-34.6214,-1.83592,20.4764,2.69409,-1.36329,0.017502,
0.192076,0.0203709,0.16159,-1.97581,0.542039,-0.0892138,0.0531046,0.322953,0.0969939,0.319328,-0.520637,0.870382,0.416847,-0.00472211,-5.01433,-2.51804,-5.01807,4.46667,-18.748,26.4266,0.475416,13.9486,-1.25576,13.7811,-39.028,6.34281,10.3631,-0.0225157,0.196576,0.0204858,0.170267,-1.99351,0.555174,-0.0764787,0.0532277,0.256875,0.178133,0.772598,-1.0087,1.17372,0.78354,-0.00131937,0,0,0,0,0,0,0,-1.26202,-34.6214,-1.83592,20.4764,2.69409,-1.36329,0.017502,
0.202976,0.0235491,0.176608,-2.0035,0.569214,-0.0681994,0.0531684,0.332045,0.111601,0.327952,-0.530549,0.860225,0.438098,-0.0044673,5.6827,9.12923,5.38967,-6.19532,-6.3483,13.2818,0.159254,14.3171,-1.4298,14.1519,-39.7542,6.72285,8.87457,-0.0394179,0.196576,0.0204858,0.170267,-1.99351,0.555174,-0.0764787,0.0532277,0.256875,0.178133,0.772598,-1.0087,1.17372,0.78354,-0.00131937,0,0,0,0,0,0,0,-1.26202,-34.6214,-1.83592,20.4764,2.69409,-1.36329,0.017502,
0.205523,0.0245348,0.179114,-2.00764,0.575006,-0.0632898,0.0531542,0.329318,0.113923,0.325023,-0.528095,0.832997,0.473218,-0.00392909,-1.70435,1.45138,-1.83042,1.53431,-17.0169,21.9501,0.336381,14.0303,-1.62056,13.8226,-38.8777,6.32844,10.3746,-0.0222101,0.219462,0.0241949,0.18263,-2.02785,0.592249,-0.0468504,0.0532339,0.446261,0.0905654,0.582407,-0.95856,1.17009,0.854385,-0.00155065,23.6733,-10.9459,-23.7738,6.26799,-0.454077,8.85561,-0.0289096,-1.53973,-33.1218,-0.610033,19.2822,1.77215,-0.646433,0.00376909,
0.207763,0.0252195,0.181318,-2.01152,0.580114,-0.05751,0.0531519,0.319454,0.108255,0.315128,-0.519316,0.794101,0.52307,-0.00320045,-6.16503,-3.54239,-6.18424,5.48687,-24.3103,31.1571,0.455399,13.693,-1.56382,13.4801,-38.2646,5.45145,11.4615,-0.00805659,0.219462,0.0241949,0.18263,-2.02785,0.592249,-0.0468504,0.0532339,0.446261,0.0905654,0.582407,-0.95856,1.17009,0.854385,-0.00155065,0,0,0,0,0,0,0,-1.53973,-33.1218,-0.610033,19.2822,1.77215,-0.646433,0.00376909,
0.209763,0.0256808,0.183286,-2.01517,0.584575,-0.0509067,0.0531594,0.305557,0.0981371,0.301302,-0.50692,0.746799,0.583538,-0.00237173,-8.6859,-6.32376,-8.64122,7.74746,-29.5639,37.7927,0.517954,13.3716,-1.52406,13.1578,-37.7169,4.76658,12.2322,0.00234666,0.219462,0.0241949,0.18263,-2.02785,0.592249,-0.0468504,0.0532339,0.446261,0.0905654,0.582407,-0.95856,1.17009,0.854385,-0.00155065,0,0,0,0,0,0,0,-1.53973,-33.1218,-0.610033,19.2822,1.77215,-0.646433,0.00376909,
0.225905,0.0263193,0.188969,-2.03726,0.605778,-0.036936,0.0532068,0.318458,0.102416,0.313751,-0.512868,0.752793,0.592202,-0.00224832,8.0634,2.67407,7.7805,-3.71753,3.74635,5.41524,0.0771274,14.0303,-1.62056,13.8226,-38.8777,6.32844,10.3746,-0.0222101,0.219462,0.0241949,0.18263,-2.02785,0.592249,-0.0468504,0.0532339,0.446261,0.0905654,0.582407,-0.95856,1.17009,0.854385,-0.00155065,0,0,0,0,0,0,0,-1.53973,-33.1218,-0.610033,19.2822,1.77215,-0.646433,0.00376909,
0.228458,0.0269975,0.191478,-2.04118,0.611173,-0.0312537,0.0532018,0.318586,0.0988882,0.313719,-0.508238,0.737113,0.615821,-0.00192313,0.0802034,-2.20463,-0.020261,2.89353,-9.79975,14.7614,0.203247,13.8037,-1.85843,13.5502,-38.0827,5.50673,11.4625,-0.00777571,0.233679,0.0269994,0.203316,-2.06265,0.627776,-0.0110535,0.0532521,0.816533,0.0406239,0.166012,-1.07548,1.0238,1.14534,0.00558492,46.2839,-6.24268,-52.0494,-14.615,-18.286,36.3687,0.891946,-3.2655,-32.9472,-3.06182,24.884,1.12487,1.70739,-0.0767973,
0.230695,0.0274487,0.193677,-2.04485,0.615844,-0.0248139,0.0532068,0.310801,0.0903904,0.305948,-0.498471,0.70646,0.65365,-0.00141204,-4.86613,-5.31111,-4.85659,6.10452,-19.1585,23.6437,0.319431,13.4822,-1.81867,13.2278,-37.535,4.82186,12.2332,0.00262755,0.233679,0.0269994,0.203316,-2.06265,0.627776,-0.0110535,0.0532521,0.816533,0.0406239,0.166012,-1.07548,1.0238,1.14534,0.00558492,0,0,0,0,0,0,0,-3.2655,-32.9472,-3.06182,24.884,1.12487,1.70739,-0.0767973,
0.232687,0.0277325,0.195635,-2.04833,0.619753,-0.0176774,0.0532253,0.298444,0.0794059,0.29372,-0.485733,0.662898,0.701332,-0.000667282,-7.72273,-6.86533,-7.64278,7.96118,-27.2259,29.8012,0.465473,13.1928,-1.74152,12.9384,-37.0189,4.12997,12.7092,0.0112335,0.233679,0.0269994,0.203316,-2.06265,0.627776,-0.0110535,0.0532521,0.816533,0.0406239,0.166012,-1.07548,1.0238,1.14534,0.00558492,0,0,0,0,0,0,0,-3.2655,-32.9472,-3.06182,24.884,1.12487,1.70739,-0.0767973,
0.239926,0.0290657,0.209371,-2.07235,0.638387,0.00140985,0.053277,0.309961,0.0876188,0.304685,-0.497097,0.650891,0.713187,-0.000461405,7.19798,5.1331,6.85325,-7.10256,-7.50451,7.40926,0.128674,13.8037,-1.85843,13.5502,-38.0827,5.50673,11.4625,-0.00777571,0.233679,0.0269994,0.203316,-2.06265,0.627776,-0.0110535,0.0532521,0.816533,0.0406239,0.166012,-1.07548,1.0238,1.14534,0.00558492,0,0,0,0,0,0,0,-3.2655,-32.9472,-3.06182,24.884,1.12487,1.70739,-0.0767973,
0.242372,0.0297648,0.211768,-2.07626,0.642565,0.00789593,0.0532836,0.30913,0.0875725,0.30367,-0.495297,0.625172,0.732701,-0.000204845,-0.519106,-0.0289918,-0.634351,1.12502,-16.0742,12.1965,0.16035,13.4822,-1.81867,13.2278,-37.535,4.82186,12.2332,0.00262755,0.233679,0.0269994,0.203316,-2.06265,0.627776,-0.0110535,0.0532521,0.816533,0.0406239,0.166012,-1.07548,1.0238,1.14534,0.00558492,0,0,0,0,0,0,0,-3.2655,-32.9472,-3.06182,24.884,1.12487,1.70739,-0.0767973,
0.244513,0.0302363,0.213867,-2.07989,0.646085,0.014937,0.0533027,0.300826,0.0818468,0.295395,-0.487034,0.588129,0.762188,0.000313557,-5.19043,-3.57856,-5.17165,5.16426,-23.1519,18.4293,0.324001,12.9895,-1.84819,12.689,-37.0092,4.0876,12.7245,0.014272,0.249179,0.0301409,0.222448,-2.09644,0.657509,0.0340288,0.0532595,0.156316,0.162574,0.825079,-0.93441,0.716841,1.40607,-0.00190388,-82.5271,15.2438,82.3834,17.6338,-38.3695,32.5913,-0.9361,-2.96002,-34.3715,-3.06182,26.0544,2.15118,0.924612,-0.0163725,
0.255079,0.0327927,0.228255,-2.10575,0.665272,0.0498988,0.0532825,0.308035,0.0945261,0.301993,-0.495659,0.559366,0.799145,0.000475948,4.50575,7.92458,4.12342,-5.39033,-17.9773,23.0982,0.101494,13.2789,-1.92534,12.9784,-37.5252,4.77949,12.2485,0.00566609,0.249179,0.0301409,0.222448,-2.09644,0.657509,0.0340288,0.0532595,0.156316,0.162574,0.825079,-0.93441,0.716841,1.40607,-0.00190388,0,0,0,0,0,0,0,-2.96002,-34.3715,-3.06182,26.0544,2.15118,0.924612,-0.0163725,
0.257378,0.0336121,0.230498,-2.10959,0.668276,0.0574727,0.0533019,0.303909,0.0961073,0.297662,-0.492459,0.52258,0.828663,0.000865545,-2.57861,0.988244,-2.70647,1.99975,-22.9908,18.4483,0.243498,12.9895,-1.84819,12.689,-37.0092,4.0876,12.7245,0.014272,0.249179,0.0301409,0.222448,-2.09644,0.657509,0.0340288,0.0532595,0.156316,0.162574,0.825079,-0.93441,0.716841,1.40607,-0.00190388,0,0,0,0,0,0,0,-2.96002,-34.3715,-3.06182,26.0544,2.15118,0.924612,-0.0163725,
0.259378,0.0341649,0.232448,-2.11316,0.670818,0.0652544,0.0533254,0.293109,0.0907053,0.286886,-0.483422,0.481629,0.857475,0.00128118,-6.74987,-3.37624,-6.73534,5.64814,-25.5946,18.0077,0.259774,12.7303,-1.71329,12.4298,-36.5007,3.07483,13.0017,0.0274514,0.249179,0.0301409,0.222448,-2.09644,0.657509,0.0340288,0.0532595,0.156316,0.162574,0.825079,-0.93441,0.716841,1.40607,-0.00190388,0,0,0,0,0,0,0,-2.96002,-34.3715,-3.06182,26.0544,2.15118,0.924612,-0.0163725,
0.261149,0.0345275,0.234176,-2.11652,0.672749,0.0732578,0.05335,0.278763,0.0816288,0.27271,-0.470725,0.433566,0.886064,0.00163909,-8.96624,-5.67281,-8.8599,7.93541,-30.0392,17.8681,0.223693,12.3238,-1.69818,11.9909,-35.9222,2.59491,12.9522,0.0320778,0.272267,0.0332939,0.23335,-2.12892,0.68292,0.0848161,0.053277,0.671054,0.161647,0.304732,-0.87611,0.546598,1.59851,0.00225567,64.3422,-0.115952,-65.0434,7.28751,-21.2804,24.0556,0.519944,-4.32873,-34.9706,-3.21257,27.8754,1.90033,1.62041,-0.0566557,
0.278133,0.0357857,0.23901,-2.13786,0.688494,0.102844,0.0533212,0.289076,0.0923597,0.282329,-0.47871,0.409722,0.920625,0.00180769,6.4457,6.70683,6.01171,-4.99024,-14.9024,21.6005,0.105374,12.9282,-2.02509,12.5916,-36.924,4.15795,12.6673,0.0162931,0.272267,0.0332939,0.23335,-2.12892,0.68292,0.0848161,0.053277,0.671054,0.161647,0.304732,-0.87611,0.546598,1.59851,0.00225567,0,0,0,0,0,0,0,-4.32873,-34.9706,-3.21257,27.8754,1.90033,1.62041,-0.0566557,
0.280363,0.0365421,0.241178,-2.14157,0.690662,0.111001,0.0533428,0.287029,0.0927977,0.280065,-0.475892,0.381978,0.94043,0.00198547,-1.27993,0.273722,-1.41485,1.76133,-17.3402,12.3783,0.111115,12.669,-1.89019,12.3324,-36.4156,3.14518,12.9445,0.0294726,0.272267,0.0332939,0.23335,-2.12892,0.68292,0.0848161,0.053277,0.671054,0.161647,0.304732,-0.87611,0.546598,1.59851,0.00225567,0,0,0,0,0,0,0,-4.32873,-34.9706,-3.21257,27.8754,1.90033,1.62041,-0.0566557,
0.282292,0.0370514,0.243054,-2.14503,0.69232,0.119112,0.0533662,0.277845,0.0869699,0.270952,-0.467085,0.347025,0.955119,0.00217443,-5.73993,-3.64237,-5.69547,5.50436,-21.8456,9.1807,0.1181,12.3238,-1.69818,11.9909,-35.9222,2.59491,12.9522,0.0320778,0.272267,0.0332939,0.23335,-2.12892,0.68292,0.0848161,0.053277,0.671054,0.161647,0.304732,-0.87611,0.546598,1.59851,0.00225567,0,0,0,0,0,0,0,-4.32873,-34.9706,-3.21257,27.8754,1.90033,1.62041,-0.0566557,
0.283996,0.0373844,0.244712,-2.14827,0.693308,0.127247,0.0533897,0.264866,0.0779006,0.258202,-0.45465,0.302325,0.967466,0.00232536,-8.11189,-5.66833,-7.96858,7.77162,-27.9378,7.71687,0.09433,12.2055,-1.70207,11.8223,-35.4793,1.45023,12.6632,0.0321151,0.281874,0.0355911,0.257132,-2.16087,0.701328,0.14288,0.0532939,0.589785,0.0367081,0.355435,-0.894979,0.384049,1.71705,-0.00115478,-10.1586,-15.6173,6.33788,-2.35867,-20.3186,14.8175,-0.426307,-4.3565,-33.8716,-4.93834,24.1382,2.07153,0.779043,-0.0227812,
0.287525,0.037088,0.26258,-2.16949,0.704638,0.161662,0.0533593,0.275425,0.0794951,0.268105,-0.4614,0.280096,0.992502,0.00243422,6.59973,0.996567,6.18928,-4.21891,-13.893,15.6473,0.0680396,12.8692,-2.16439,12.4836,-36.4997,3.20756,12.8112,0.0321211,0.281874,0.0355911,0.257132,-2.16087,0.701328,0.14288,0.0532939,0.589785,0.0367081,0.355435,-0.894979,0.384049,1.71705,-0.00115478,0,0,0,0,0,0,0,-4.3565,-33.8716,-4.93834,24.1382,2.07153,0.779043,-0.0227812,
0.289666,0.0375745,0.264657,-2.17302,0.705855,0.169936,0.0533802,0.273852,0.0757599,0.266399,-0.457389,0.254507,1.00085,0.0024691,-0.983448,-2.33445,-1.06651,2.50729,-15.9927,5.21844,0.0217958,12.524,-1.97238,12.1421,-36.0063,2.65728,12.8189,0.0347263,0.281874,0.0355911,0.257132,-2.16087,0.701328,0.14288,0.0532939,0.589785,0.0367081,0.355435,-0.894979,0.384049,1.71705,-0.00115478,0,0,0,0,0,0,0,-4.3565,-33.8716,-4.93834,24.1382,2.07153,0.779043,-0.0227812,
0.291515,0.0378943,0.266453,-2.1763,0.70656,0.17804,0.0534017,0.265321,0.0686018,0.258018,-0.44795,0.221232,1.00327,0.00251315,-5.33186,-4.47382,-5.23787,5.89911,-20.7971,1.51482,0.0275306,12.2055,-1.70207,11.8223,-35.4793,1.45023,12.6632,0.0321151,0.281874,0.0355911,0.257132,-2.16087,0.701328,0.14288,0.0532939,0.589785,0.0367081,0.355435,-0.894979,0.384049,1.71705,-0.00115478,0,0,0,0,0,0,0,-4.3565,-33.8716,-4.93834,24.1382,2.07153,0.779043,-0.0227812,
0.293149,0.0380915,0.26804,-2.17939,0.706655,0.186076,0.0534246,0.253112,0.0598108,0.246098,-0.435684,0.179368,1.00352,0.00258286,-7.63014,-5.49437,-7.45041,7.66624,-26.1653,0.152869,0.043574,12.1523,-1.4943,11.7395,-34.8999,0.28843,12.2283,0.0291497,0.302139,0.0373458,0.268041,-2.19249,0.715096,0.204254,0.0533135,0.127296,-0.0410491,0.783371,-0.985963,0.320597,1.85993,0.00268012,-57.8111,-9.71965,53.492,-11.3729,-7.93151,17.86,0.479363,-1.69445,-30.9279,-1.10991,20.401,2.14477,-0.0238741,-0.0365141,
0.307463,0.0384589,0.273241,-2.20119,0.716741,0.223334,0.053401,0.262752,0.0619032,0.255157,-0.445073,0.158855,1.02178,0.00277862,6.02439,1.30773,5.66235,-5.86797,-12.8204,11.4137,0.12235,12.6898,-2.0772,12.2799,-35.987,2.80321,12.6911,0.0361096,0.302139,0.0373458,0.268041,-2.19249,0.715096,0.204254,0.0533135,0.127296,-0.0410491,0.783371,-0.985963,0.320597,1.85993,0.00268012,0,0,0,0,0,0,0,-1.69445,-30.9279,-1.10991,20.401,2.14477,-0.0238741,-0.0365141,
0.309495,0.0388769,0.275209,-2.20463,0.716979,0.231494,0.0534225,0.261001,0.0599728,0.253327,-0.442074,0.133035,1.02142,0.0027598,-1.09398,-1.20652,-1.14396,1.87435,-16.1373,-0.223919,-0.0117624,12.3712,-1.80688,11.96,-35.46,1.59616,12.5354,0.0334984,0.302139,0.0373458,0.268041,-2.19249,0.715096,0.204254,0.0533135,0.127296,-0.0410491,0.783371,-0.985963,0.320597,1.85993,0.00268012,0,0,0,0,0,0,0,-1.69445,-30.9279,-1.10991,20.401,2.14477,-0.0238741,-0.0365141,
0.311255,0.0391562,0.276914,-2.20782,0.716749,0.239407,0.0534446,0.252783,0.0549625,0.245293,-0.433483,0.100686,1.01498,0.00276045,-5.13636,-3.13145,-5.02103,5.36916,-20.2183,-4.02977,0.00040476,12.1523,-1.4943,11.7395,-34.8999,0.28843,12.2283,0.0291497,0.302139,0.0373458,0.268041,-2.19249,0.715096,0.204254,0.0533135,0.127296,-0.0410491,0.783371,-0.985963,0.320597,1.85993,0.00268012,0,0,0,0,0,0,0,-1.69445,-30.9279,-1.10991,20.401,2.14477,-0.0238741,-0.0365141,
0.321867,0.0407054,0.287066,-2.23201,0.723782,0.286496,0.0534261,0.255947,0.0609577,0.247961,-0.441579,0.0766489,1.03064,0.00304524,1.97753,3.74703,1.6673,-5.0597,-15.0232,9.79344,0.177991,12.3616,-2.01482,11.9205,-35.4455,1.72903,12.3915,0.0344099,0.317069,0.0392773,0.282522,-2.22349,0.723459,0.267369,0.0533197,0.784972,0.0059235,0.0063644,-0.946169,0.315865,1.83173,-0.00307393,82.2095,5.87158,-97.1258,4.97424,-0.591579,-3.52529,-0.719256,-3.62256,-30.3526,-2.93486,18.5324,1.64398,-0.235361,0.0907442,
0.323692,0.0412003,0.288826,-2.23539,0.723194,0.29457,0.0534513,0.250362,0.0611395,0.242371,-0.437768,0.0466136,1.02636,0.00306683,-3.49076,0.113612,-3.49399,2.3816,-18.7721,-2.67594,0.0134923,12.1427,-1.70225,11.7,-34.8854,0.421306,12.0845,0.0300612,0.317069,0.0392773,0.282522,-2.22349,0.723459,0.267369,0.0533197,0.784972,0.0059235,0.0063644,-0.946169,0.315865,1.83173,-0.00307393,0,0,0,0,0,0,0,-3.62256,-30.3526,-2.93486,18.5324,1.64398,-0.235361,0.0907442,
0.325286,0.0415335,0.290365,-2.23853,0.722172,0.302324,0.0534764,0.240155,0.0572418,0.232385,-0.428675,0.0117487,1.01494,0.00308089,-6.37925,-2.43608,-6.24114,5.68349,-21.7906,-7.13991,0.00879054,12.0425,-1.39948,11.5998,-34.3064,-0.658682,11.7057,0.0279605,0.317069,0.0392773,0.282522,-2.22349,0.723459,0.267369,0.0533197,0.784972,0.0059235,0.0063644,-0.946169,0.315865,1.83173,-0.00307393,0,0,0,0,0,0,0,-3.62256,-30.3526,-2.93486,18.5324,1.64398,-0.235361,0.0907442,
0.326715,0.041746,0.291745,-2.2415,0.720704,0.309889,0.0535044,0.227856,0.0511045,0.220405,-0.417093,-0.0273086,1.00108,0.00316506,-7.68697,-3.8358,-7.48741,7.23846,-24.4108,-8.66249,0.0526072,12.0407,-1.14269,11.5983,-33.7287,-1.53329,11.2552,0.0269969,0.317069,0.0392773,0.282522,-2.22349,0.723459,0.267369,0.0533197,0.784972,0.0059235,0.0063644,-0.946169,0.315865,1.83173,-0.00307393,0,0,0,0,0,0,0,-3.62256,-30.3526,-2.93486,18.5324,1.64398,-0.235361,0.0907442,
0.32186,0.0407343,0.28706,-2.23185,0.722784,0.286173,0.0534285,0.235878,0.0581984,0.227944,-0.426387,-0.0402778,1.01473,0.00337582,5.01415,4.4337,4.71167,-5.80852,-8.10576,8.53002,0.131722,11.9383,-1.69366,11.4487,-35.0055,0.464784,11.9768,0.0329714,0.324705,0.0414632,0.30278,-2.2533,0.726879,0.332203,0.053346,-0.0471641,0.13616,0.840565,-0.850887,0.0778358,1.94176,0.000900417,-104.017,16.2795,104.275,11.9103,-29.7536,13.7543,0.496793,-1.11126,-33.0742,-1.08611,23.5391,1.68701,0.566641,-0.0163725,
0.323677,0.041239,0.288814,-2.23516,0.721577,0.294007,0.0534532,0.234141,0.059175,0.226196,-0.423773,-0.0624041,1.00764,0.00331761,-1.0859,0.610377,-1.09255,1.63364,-13.8289,-4.43089,-0.036379,11.8381,-1.39089,11.3484,-34.4265,-0.615204,11.5981,0.0308706,0.324705,0.0414632,0.30278,-2.2533,0.726879,0.332203,0.053346,-0.0471641,0.13616,0.840565,-0.850887,0.0778358,1.94176,0.000900417,0,0,0,0,0,0,0,-1.11126,-33.0742,-1.08611,23.5391,1.68701,0.566641,-0.0163725,
0.325265,0.04158,0.290347,-2.23824,0.719954,0.30149,0.0534793,0.227019,0.0558652,0.219284,-0.415921,-0.0904898,0.993164,0.00330772,-4.45132,-2.06866,-4.31976,4.90755,-17.5536,-9.04665,-0.00617993,11.8363,-1.1341,11.3469,-33.8488,-1.48982,11.1475,0.029907,0.324705,0.0414632,0.30278,-2.2533,0.726879,0.332203,0.053346,-0.0471641,0.13616,0.840565,-0.850887,0.0778358,1.94176,0.000900417,0,0,0,0,0,0,0,-1.11126,-33.0742,-1.08611,23.5391,1.68701,0.566641,-0.0163725,
0.326689,0.0417991,0.291721,-2.24115,0.717944,0.308753,0.0535083,0.217204,0.0501694,0.209773,-0.405594,-0.122644,0.976121,0.00337019,-6.13413,-3.55988,-5.94457,6.45431,-20.0966,-10.6516,0.0390397,11.9095,-0.93712,11.4203,-33.2776,-2.22033,10.6827,0.031791,0.324705,0.0414632,0.30278,-2.2533,0.726879,0.332203,0.053346,-0.0471641,0.13616,0.840565,-0.850887,0.0778358,1.94176,0.000900417,0,0,0,0,0,0,0,-1.11126,-33.0742,-1.08611,23.5391,1.68701,0.566641,-0.0163725,
0.329152,0.0436275,0.30711,-2.26142,0.724054,0.351648,0.0534319,0.223916,0.0636268,0.215829,-0.415936,-0.140794,0.999254,0.00346005,4.19457,8.41089,3.78531,-6.46357,-11.3436,14.4582,0.0561634,11.7352,-1.66361,11.2261,-34.3578,-0.504956,11.4012,0.0323617,0.344449,0.0437117,0.308794,-2.28143,0.72504,0.392433,0.0533666,0.746206,0.112587,-0.0217414,-0.764903,-0.107643,1.66526,0.00127784,99.1713,-2.94658,-107.788,10.7479,-23.1848,-34.563,0.0471776,-1.74603,-31.3524,-0.859972,24.0152,1.27136,0.413748,-0.0767973,
0.330845,0.04428,0.308733,-2.26471,0.722021,0.359446,0.0534586,0.221467,0.0672148,0.213233,-0.41496,-0.163465,0.994368,0.00343549,-1.53036,2.2425,-1.6225,0.609966,-14.1692,-3.05382,-0.0153503,11.7334,-1.40682,11.2246,-33.78,-1.37957,10.9507,0.0313981,0.344449,0.0437117,0.308794,-2.28143,0.72504,0.392433,0.0533666,0.746206,0.112587,-0.0217414,-0.764903,-0.107643,1.66526,0.00127784,0,0,0,0,0,0,0,-1.74603,-31.3524,-0.859972,24.0152,1.27136,0.413748,-0.0767973,
0.332327,0.0447148,0.310154,-2.26777,0.719713,0.366743,0.0534875,0.214226,0.0646398,0.206114,-0.408533,-0.18846,0.977909,0.00347093,-4.52557,-1.60937,-4.44926,4.0168,-15.6219,-10.2868,0.02215,11.8066,-1.20984,11.298,-33.2088,-2.11008,10.4858,0.0332821,0.344449,0.0437117,0.308794,-2.28143,0.72504,0.392433,0.0533666,0.746206,0.112587,-0.0217414,-0.764903,-0.107643,1.66526,0.00127784,0,0,0,0,0,0,0,-1.74603,-31.3524,-0.859972,24.0152,1.27136,0.413748,-0.0767973,
0.333664,0.0449945,0.311435,-2.27067,0.717149,0.373727,0.0535205,0.204789,0.0587047,0.196925,-0.399305,-0.214863,0.956939,0.00360153,-5.89792,-3.70945,-5.74352,5.76731,-16.5017,-13.1059,0.0816274,11.9197,-1.0759,11.4111,-32.6527,-2.67483,9.99104,0.0355652,0.344449,0.0437117,0.308794,-2.28143,0.72504,0.392433,0.0533666,0.746206,0.112587,-0.0217414,-0.764903,-0.107643,1.66526,0.00127784,0,0,0,0,0,0,0,-1.74603,-31.3524,-0.859972,24.0152,1.27136,0.413748,-0.0767973,
0.334897,0.0451645,0.312617,-2.27344,0.714364,0.380473,0.0535566,0.194659,0.0512145,0.187082,-0.388739,-0.241519,0.934196,0.00378496,-6.33165,-4.68139,-6.1514,6.60367,-16.6602,-14.2146,0.114642,12.0545,-0.99872,11.5459,-32.1089,-3.12057,9.50746,0.0394969,0.344449,0.0437117,0.308794,-2.28143,0.72504,0.392433,0.0533666,0.746206,0.112587,-0.0217414,-0.764903,-0.107643,1.66526,0.00127784,0,0,0,0,0,0,0,-1.74603,-31.3524,-0.859972,24.0152,1.27136,0.413748,-0.0767973,
0.348744,0.0455255,0.312823,-2.2892,0.720284,0.409867,0.0534497,0.203592,0.0606916,0.195378,-0.39951,-0.256133,0.944715,0.0037386,5.58324,5.92321,5.18441,-6.73161,-9.13354,6.57424,-0.0289728,11.8137,-1.60444,11.2616,-33.8412,-1.29506,10.7671,0.0334261,0.349814,0.0454447,0.32802,-2.30924,0.718515,0.449716,0.0533712,0.123921,0.0254645,0.574253,-0.812757,-0.294496,1.68087,0.000836907,-77.7857,-10.8903,74.4993,-5.98165,-23.3567,1.95189,-0.0551164,-1.26202,-32.6973,-1.73674,22.1188,0.953671,0.500723,-0.0703886,
0.350375,0.0460764,0.314383,-2.29241,0.71765,0.416987,0.0534762,0.203637,0.0623264,0.195303,-0.399828,-0.27076,0.933768,0.00365182,0.0279283,1.02175,-0.0464516,-0.198684,-9.14193,-6.84214,-0.0542419,11.8869,-1.40746,11.335,-33.27,-2.02558,10.3022,0.0353101,0.349814,0.0454447,0.32802,-2.30924,0.718515,0.449716,0.0533712,0.123921,0.0254645,0.574253,-0.812757,-0.294496,1.68087,0.000836907,0,0,0,0,0,0,0,-1.26202,-32.6973,-1.73674,22.1188,0.953671,0.500723,-0.0703886,
0.351814,0.0464446,0.315761,-2.29541,0.714893,0.423695,0.053507,0.1989,0.0590662,0.190695,-0.394853,-0.285545,0.914727,0.00369121,-2.96045,-2.0376,-2.87989,3.10948,-9.24042,-11.9003,0.0246234,12,-1.27352,11.4482,-32.7139,-2.59032,9.80745,0.0375931,0.349814,0.0454447,0.32802,-2.30924,0.718515,0.449716,0.0533712,0.123921,0.0254645,0.574253,-0.812757,-0.294496,1.68087,0.000836907,0,0,0,0,0,0,0,-1.26202,-32.6973,-1.73674,22.1188,0.953671,0.500723,-0.0703886,
0.353815,0.0466359,0.331863,-2.31697,0.711761,0.466337,0.0534524,0.204379,0.0611335,0.195644,-0.402903,-0.312477,0.918482,0.00363242,3.42416,1.29205,3.09308,-5.03134,-16.8328,2.34691,-0.036749,11.8869,-1.40746,11.335,-33.27,-2.02558,10.3022,0.0353101,0.349814,0.0454447,0.32802,-2.30924,0.718515,0.449716,0.0533712,0.123921,0.0254645,0.574253,-0.812757,-0.294496,1.68087,0.000836907,0,0,0,0,0,0,0,-1.26202,-32.6973,-1.73674,22.1188,0.953671,0.500723,-0.0703886,
0.35527,0.0468219,0.333255,-2.31979,0.709683,0.472754,0.0535143,0.199878,0.0535566,0.19133,-0.392766,-0.301934,0.89521,0.00445388,-2.81302,-4.73559,-2.69664,6.33536,6.58962,-14.5452,0.513414,12.114,-1.64553,11.5578,-32.3634,-2.39489,9.66365,0.0364433,0.369872,0.0467454,0.330308,-2.33603,0.710159,0.499021,0.0533758,0.406466,-0.055571,0.2564,-0.826867,-0.168631,1.35663,0.000277995,35.3181,-10.1294,-39.7317,-1.76381,15.7332,-40.5306,-0.069864,-3.2893,-27.8334,-1.71294,16.517,-1.01838,2.64855,0.017502,
0.356447,0.0466042,0.334391,-2.32211,0.708512,0.478147,0.0535997,0.189331,0.0374013,0.181459,-0.372261,-0.270811,0.851012,0.00569975,-6.59195,-10.0971,-6.16915,12.8158,19.4517,-27.6237,0.778668,12.2488,-1.56834,11.6926,-31.8195,-2.84064,9.18007,0.0403751,0.369872,0.0467454,0.330308,-2.33603,0.710159,0.499021,0.0533758,0.406466,-0.055571,0.2564,-0.826867,-0.168631,1.35663,0.000277995,0,0,0,0,0,0,0,-3.2893,-27.8334,-1.71294,16.517,-1.01838,2.64855,0.017502,
0.357426,0.0460311,0.335346,-2.32405,0.707962,0.482635,0.0537155,0.175946,0.015595,0.169035,-0.346405,-0.230417,0.792994,0.0074528,-8.3655,-13.6289,-7.76511,16.1595,25.2465,-36.2611,1.09566,12.3822,-1.54089,11.8258,-31.2911,-3.15034,8.69145,0.043891,0.369872,0.0467454,0.330308,-2.33603,0.710159,0.499021,0.0533758,0.406466,-0.055571,0.2564,-0.826867,-0.168631,1.35663,0.000277995,0,0,0,0,0,0,0,-3.2893,-27.8334,-1.71294,16.517,-1.01838,2.64855,0.017502,
0.373561,0.0465098,0.333842,-2.3424,0.70979,0.514532,0.0531385,0.180438,0.00583943,0.173576,-0.34076,-0.179668,0.806448,0.00304778,2.80784,-6.09722,2.83803,3.52835,31.7178,8.40893,-2.75313,12.114,-1.64553,11.5578,-32.3634,-2.39489,9.66365,0.0364433,0.369872,0.0467454,0.330308,-2.33603,0.710159,0.499021,0.0533758,0.406466,-0.055571,0.2564,-0.826867,-0.168631,1.35663,0.000277995,0,0,0,0,0,0,0,-3.2893,-27.8334,-1.71294,16.517,-1.01838,2.64855,0.017502,
0.374754,0.0457606,0.335009,-2.34419,0.710443,0.519814,0.0530578,0.174166,-0.0140573,0.16803,-0.317343,-0.127425,0.777229,0.000421086,-3.92032,-12.4354,-3.46609,14.6356,32.6519,-18.2623,-1.64169,12.1149,-2.00349,11.5393,-31.5722,-2.72151,9.08288,0.0401249,0.375174,0.0475777,0.348556,-2.361,0.703308,0.543259,0.0533843,0.545174,0.0359811,0.147471,-0.664004,-0.131102,1.17006,0.000500778,17.3385,11.444,-13.6161,20.3579,4.69119,-23.3207,0.027848,-4.81274,-28.3571,-5.16051,21.123,-3.02246,3.8424,-0.0163725,
0.37566,0.0445476,0.33591,-2.3455,0.711366,0.523736,0.0530301,0.161995,-0.0415703,0.156953,-0.286446,-0.0788636,0.719819,-0.000356185,-7.60678,-17.1957,-6.92299,19.3109,30.351,-35.8811,-0.485794,12.2482,-1.97603,11.6725,-31.0438,-3.03121,8.59426,0.0436408,0.375174,0.0475777,0.348556,-2.361,0.703308,0.543259,0.0533843,0.545174,0.0359811,0.147471,-0.664004,-0.131102,1.17006,0.000500778,0,0,0,0,0,0,0,-4.81274,-28.3571,-5.16051,21.123,-3.02246,3.8424,-0.0163725,
0.376367,0.0429516,0.336626,-2.34647,0.712425,0.526547,0.053065,0.147276,-0.0731565,0.143459,-0.253506,-0.0366018,0.646124,0.000588748,-9.19972,-19.7414,-8.43365,20.5873,26.4136,-46.0591,0.590583,12.3716,-1.98787,11.7958,-30.5257,-3.24733,8.13109,0.0479409,0.375174,0.0475777,0.348556,-2.361,0.703308,0.543259,0.0533843,0.545174,0.0359811,0.147471,-0.664004,-0.131102,1.17006,0.000500778,0,0,0,0,0,0,0,-4.81274,-28.3571,-5.16051,21.123,-3.02246,3.8424,-0.0163725,
0.378415,0.0463222,0.351655,-2.36562,0.703295,0.554385,0.0533929,0.15041,-0.0831333,0.146589,-0.245676,-0.0192717,0.632102,0.00083737,1.95879,-6.23548,1.95618,4.89386,10.8313,-8.76373,0.155389,12.1149,-2.00349,11.5393,-31.5722,-2.72151,9.08288,0.0401249,0.375174,0.0475777,0.348556,-2.361,0.703308,0.543259,0.0533843,0.545174,0.0359811,0.147471,-0.664004,-0.131102,1.17006,0.000500778,0,0,0,0,0,0,0,-4.81274,-28.3571,-5.16051,21.123,-3.02246,3.8424,-0.0163725,
0.379278,0.0446578,0.352519,-2.3666,0.704203,0.557322,0.0534545,0.141892,-0.108117,0.138866,-0.221015,0.0072771,0.579092,0.00220869,-5.32321,-15.615,-4.82696,15.4128,16.593,-33.1313,0.857074,12.1857,-2.3154,11.6132,-30.8833,-2.94256,8.49803,0.0436524,0.389515,0.0469576,0.358715,-2.38295,0.700948,0.582861,0.0533944,0.0228859,0.0297337,0.704611,-0.544051,-0.0622125,1.11039,0.00259315,-65.286,-0.780926,69.6425,14.994,8.61112,-7.45854,0.261547,-2.68231,-30.7771,-2.08586,25.2847,-0.377506,2.47643,-0.0630644,
0.379838,0.0424416,0.353101,-2.3671,0.705396,0.558877,0.0535781,0.127516,-0.141899,0.125649,-0.189335,0.035661,0.502159,0.00485847,-8.98512,-21.1137,-8.26054,19.7999,17.7399,-48.0831,1.65611,12.3092,-2.32724,11.7365,-30.3652,-3.15868,8.03486,0.0479525,0.389515,0.0469576,0.358715,-2.38295,0.700948,0.582861,0.0533944,0.0228859,0.0297337,0.704611,-0.544051,-0.0622125,1.11039,0.00259315,0,0,0,0,0,0,0,-2.68231,-30.7771,-2.08586,25.2847,-0.377506,2.47643,-0.0630644,
0.380199,0.0398142,0.353496,-2.36729,0.706723,0.559343,0.0537728,0.11104,-0.179203,0.11041,-0.156168,0.0616973,0.413375,0.00875478,-10.2979,-23.3148,-9.52462,20.7295,16.2727,-55.4905,2.43519,12.4096,-2.37036,11.8367,-29.8586,-3.27048,7.58239,0.0514785,0.389515,0.0469576,0.358715,-2.38295,0.700948,0.582861,0.0533944,0.0228859,0.0297337,0.704611,-0.544051,-0.0622125,1.11039,0.00259315,0,0,0,0,0,0,0,-2.68231,-30.7771,-2.08586,25.2847,-0.377506,2.47643,-0.0630644,
0.380435,0.0369015,0.353773,-2.36728,0.708082,0.558984,0.0540434,0.094736,-0.216181,0.0952386,-0.12468,0.083339,0.321728,0.0137681,-10.1898,-23.1113,-9.48203,19.6804,13.5261,-57.2792,3.1333,12.485,-2.43542,11.9119,-29.3586,-3.31446,7.16279,0.0552871,0.389515,0.0469576,0.358715,-2.38295,0.700948,0.582861,0.0533944,0.0228859,0.0297337,0.704611,-0.544051,-0.0622125,1.11039,0.00259315,0,0,0,0,0,0,0,-2.68231,-30.7771,-2.08586,25.2847,-0.377506,2.47643,-0.0630644,
0.393057,0.0454719,0.36224,-2.38662,0.704476,0.595337,0.053219,0.110952,-0.204062,0.11087,-0.128954,0.115986,0.380674,0.00912491,10.1347,7.57429,9.76961,-2.67133,20.4041,36.8414,-2.90197,12.1633,-2.7957,11.6567,-30.9608,-2.90767,8.35486,0.0438033,0.404878,0.0413163,0.364161,-2.39957,0.70116,0.616572,0.0534461,0.685653,-0.21435,-0.160965,-0.376213,0.00296828,0.764235,0.00114685,82.8459,-30.5105,-108.197,20.9798,8.1476,-43.2698,-0.180788,0.562931,-26.1354,0.937208,17.2867,-0.475467,2.35009,0.0101778,
0.393917,0.0433317,0.363116,-2.38697,0.70663,0.598035,0.0532028,0.110258,-0.216755,0.110586,-0.112043,0.146629,0.371984,0.00689548,-0.433678,-7.93297,-0.177384,10.5694,19.1524,-5.43136,-1.39339,12.2867,-2.80754,11.7799,-30.4426,-3.12379,7.89169,0.0481034,0.404878,0.0413163,0.364161,-2.39957,0.70116,0.616572,0.0534461,0.685653,-0.21435,-0.160965,-0.376213,0.00296828,0.764235,0.00114685,0,0,0,0,0,0,0,0.562931,-26.1354,0.937208,17.2867,-0.475467,2.35009,0.0101778,
0.394404,0.0404948,0.363641,-2.38682,0.708813,0.598939,0.0532666,0.100372,-0.244327,0.101601,-0.0857285,0.171875,0.320184,0.00710974,-6.17827,-17.2325,-5.61578,16.4463,15.7783,-32.3752,0.133909,12.3872,-2.85066,11.8802,-29.936,-3.23559,7.43923,0.0516294,0.404878,0.0413163,0.364161,-2.39957,0.70116,0.616572,0.0534461,0.685653,-0.21435,-0.160965,-0.376213,0.00296828,0.764235,0.00114685,0,0,0,0,0,0,0,0.562931,-26.1354,0.937208,17.2867,-0.475467,2.35009,0.0101778,
0.394646,0.0371581,0.363934,-2.38634,0.710927,0.598464,0.0534223,0.0863486,-0.27888,0.088595,-0.0567425,0.190358,0.24426,0.00958114,-8.76489,-21.5957,-8.12867,18.1163,11.552,-47.4523,1.54463,12.4626,-2.91572,11.9554,-29.436,-3.27957,7.01962,0.055438,0.404878,0.0413163,0.364161,-2.39957,0.70116,0.616572,0.0534461,0.685653,-0.21435,-0.160965,-0.376213,0.00296828,0.764235,0.00114685,0,0,0,0,0,0,0,0.562931,-26.1354,0.937208,17.2867,-0.475467,2.35009,0.0101778,
0.406661,0.0354993,0.365876,-2.40055,0.7009,0.619189,0.0537378,0.0842025,-0.303655,0.0865819,-0.0466859,0.158899,0.20535,0.0122798,-1.3413,-15.4848,-1.25819,6.28536,-19.6618,-24.3188,1.68668,12.1578,-3.55809,11.8095,-30.2979,-3.03259,7.79432,0.0481201,0.407435,0.0287606,0.375799,-2.41212,0.703885,0.637836,0.0536734,-0.0343185,-0.467025,0.418662,-0.351673,0.0991291,0.647124,0.0072595,-89.9964,-31.5843,72.4534,3.06754,12.0201,-14.639,0.764081,3.1258,-16.3283,2.51222,13.2758,-0.44434,4.30657,-0.117081,
0.406915,0.0317588,0.366172,-2.40009,0.701665,0.618128,0.0540146,0.0737253,-0.336437,0.0766696,-0.0256447,0.146257,0.137755,0.0167422,-6.54825,-20.4886,-6.19517,13.1508,-7.90126,-42.247,2.78896,12.2582,-3.60121,11.9097,-29.7913,-3.14439,7.34185,0.0516462,0.407435,0.0287606,0.375799,-2.41212,0.703885,0.637836,0.0536734,-0.0343185,-0.467025,0.418662,-0.351673,0.0991291,0.647124,0.0072595,0,0,0,0,0,0,0,3.1258,-16.3283,2.51222,13.2758,-0.44434,4.30657,-0.117081,
0.406951,0.0276465,0.366256,-2.39931,0.702713,0.615954,0.0543908,0.0598677,-0.371956,0.0634316,-0.00108952,0.143214,0.0558645,0.0227994,-8.66103,-22.199,-8.27376,15.347,-1.9022,-51.1813,3.78579,12.3337,-3.66627,11.9849,-29.2913,-3.18837,6.92225,0.0554548,0.407435,0.0287606,0.375799,-2.41212,0.703885,0.637836,0.0536734,-0.0343185,-0.467025,0.418662,-0.351673,0.0991291,0.647124,0.0072595,0,0,0,0,0,0,0,3.1258,-16.3283,2.51222,13.2758,-0.44434,4.30657,-0.117081,
0.409156,0.021981,0.377588,-2.41276,0.70774,0.64285,0.0538461,0.0640937,-0.386046,0.0674536,0.00420436,0.164123,0.0804148,0.0213506,2.64126,-8.80668,2.51372,3.30868,13.0684,15.3439,-0.905546,12.2582,-3.60121,11.9097,-29.7913,-3.14439,7.34185,0.0516462,0.407435,0.0287606,0.375799,-2.41212,0.703885,0.637836,0.0536734,-0.0343185,-0.467025,0.418662,-0.351673,0.0991291,0.647124,0.0072595,0,0,0,0,0,0,0,3.1258,-16.3283,2.51222,13.2758,-0.44434,4.30657,-0.117081,
0.409491,0.0180526,0.377951,-2.41203,0.70972,0.642552,0.0540747,0.059638,-0.407049,0.0630159,0.0216947,0.180792,0.0568939,0.0227937,-2.78478,-13.1266,-2.77358,10.9315,10.4183,-14.7005,0.901952,12.3337,-3.66627,11.9849,-29.2913,-3.18837,6.92225,0.0554548,0.407435,0.0287606,0.375799,-2.41212,0.703885,0.637836,0.0536734,-0.0343185,-0.467025,0.418662,-0.351673,0.0991291,0.647124,0.0072595,0,0,0,0,0,0,0,3.1258,-16.3283,2.51222,13.2758,-0.44434,4.30657,-0.117081,
0.409623,0.013813,0.378111,-2.41103,0.711621,0.640961,0.0544197,0.0510111,-0.431628,0.0544169,0.042378,0.192153,0.00573248,0.0268618,-5.39184,-15.3618,-5.37433,12.927,7.10077,-31.9759,2.54257,12.3777,-3.74702,12.0287,-28.7984,-3.15816,6.52269,0.0583987,0.407435,0.0287606,0.375799,-2.41212,0.703885,0.637836,0.0536734,-0.0343185,-0.467025,0.418662,-0.351673,0.0991291,0.647124,0.0072595,0,0,0,0,0,0,0,3.1258,-16.3283,2.51222,13.2758,-0.44434,4.30657,-0.117081,
0.409634,0.00937685,0.378146,-2.40991,0.713395,0.638454,0.0548858,0.0410959,-0.456207,0.0444142,0.061893,0.198082,-0.0580906,0.0331403,-6.197,-15.3618,-6.25169,12.1969,3.70558,-39.8894,3.92404,12.3919,-3.83664,12.0426,-28.3086,-3.08333,6.15859,0.0613715,0.407435,0.0287606,0.375799,-2.41212,0.703885,0.637836,0.0536734,-0.0343185,-0.467025,0.418662,-0.351673,0.0991291,0.647124,0.0072595,0,0,0,0,0,0,0,3.1258,-16.3283,2.51222,13.2758,-0.44434,4.30657,-0.117081,
0.409158,0.0220163,0.377588,-2.41271,0.707706,0.642822,0.0538412,0.0490688,-0.452978,0.0522085,0.0553365,0.207526,-0.0112261,0.0295499,4.98309,2.01799,4.87141,-4.09785,5.90212,29.2903,-2.24397,12.3337,-3.66627,11.9849,-29.2913,-3.18837,6.92225,0.0554548,0.407435,0.0287606,0.375799,-2.41212,0.703885,0.637836,0.0536734,-0.0343185,-0.467025,0.418662,-0.351673,0.0991291,0.647124,0.0072595,0,0,0,0,0,0,0,3.1258,-16.3283,2.51222,13.2758,-0.44434,4.30657,-0.117081,
0.409489,0.0181053,0.377946,-2.41194,0.709666,0.642497,0.0540664,0.0475346,-0.460157,0.0507155,0.0633307,0.215028,-0.0170986,0.0292691,-0.958892,-4.48723,-0.93309,4.99644,4.68912,-3.6703,-0.17554,12.3777,-3.74702,12.0287,-28.7984,-3.15816,6.52269,0.0583987,0.407435,0.0287606,0.375799,-2.41212,0.703885,0.637836,0.0536734,-0.0343185,-0.467025,0.418662,-0.351673,0.0991291,0.647124,0.0072595,0,0,0,0,0,0,0,3.1258,-16.3283,2.51222,13.2758,-0.44434,4.30657,-0.117081,
0.409614,0.0138816,0.378099,-2.41092,0.711551,0.640873,0.0544078,0.041158,-0.473719,0.0443889,0.0763422,0.219158,-0.054293,0.0319514,-3.9854,-8.4761,-3.95413,8.13214,2.58081,-23.2465,1.67645,12.3919,-3.83664,12.0426,-28.3086,-3.08333,6.15859,0.0613715,0.407435,0.0287606,0.375799,-2.41212,0.703885,0.637836,0.0536734,-0.0343185,-0.467025,0.418662,-0.351673,0.0991291,0.647124,0.0072595,0,0,0,0,0,0,0,3.1258,-16.3283,2.51222,13.2758,-0.44434,4.30657,-0.117081,
0.409616,0.00946032,0.378124,-2.40977,0.713316,0.638329,0.05487,0.0329675,-0.489507,0.036134,0.089643,0.219434,-0.107038,0.0371169,-5.11901,-9.86765,-5.15936,8.31302,0.172579,-32.9658,3.22846,12.3739,-3.93111,12.0244,-27.8224,-2.96027,5.81914,0.0635357,0.407435,0.0287606,0.375799,-2.41212,0.703885,0.637836,0.0536734,-0.0343185,-0.467025,0.418662,-0.351673,0.0991291,0.647124,0.0072595,0,0,0,0,0,0,0,3.1258,-16.3283,2.51222,13.2758,-0.44434,4.30657,-0.117081,
0.409155,0.0220489,0.377584,-2.41266,0.707684,0.642794,0.0538367,0.0425015,-0.479178,0.0454943,0.0781739,0.224309,-0.0508478,0.0326646,5.95872,6.45564,5.8502,-7.16821,3.0467,35.119,-2.78271,12.3777,-3.74702,12.0287,-28.7984,-3.15816,6.52269,0.0583987,0.407435,0.0287606,0.375799,-2.41212,0.703885,0.637836,0.0536734,-0.0343185,-0.467025,0.418662,-0.351673,0.0991291,0.647124,0.0072595,0,0,0,0,0,0,0,3.1258,-16.3283,2.51222,13.2758,-0.44434,4.30657,-0.117081,
0.40948,0.0181548,0.377935,-2.41187,0.709635,0.642443,0.0540587,0.0421288,-0.480695,0.0451695,0.0822196,0.22821,-0.0494573,0.0316821,-0.232966,-0.948,-0.20298,2.52861,2.43862,0.869085,-0.614049,12.3919,-3.83664,12.0426,-28.3086,-3.08333,6.15859,0.0613715,0.407435,0.0287606,0.375799,-2.41212,0.703885,0.637836,0.0536734,-0.0343185,-0.467025,0.418662,-0.351673,0.0991291,0.647124,0.0072595,0,0,0,0,0,0,0,3.1258,-16.3283,2.51222,13.2758,-0.44434,4.30657,-0.117081,
0.409596,0.013947,0.378077,-2.41082,0.711515,0.640787,0.0543967,0.0366022,-0.48975,0.0397035,0.0920189,0.229559,-0.0809802,0.0337957,-3.45411,-5.65955,-3.41623,6.12452,0.842719,-19.7018,1.32102,12.3739,-3.93111,12.0244,-27.8224,-2.96027,5.81914,0.0635357,0.407435,0.0287606,0.375799,-2.41212,0.703885,0.637836,0.0536734,-0.0343185,-0.467025,0.418662,-0.351673,0.0991291,0.647124,0.0072595,0,0,0,0,0,0,0,3.1258,-16.3283,2.51222,13.2758,-0.44434,4.30657,-0.117081,
0.409586,0.00954114,0.378089,-2.40966,0.713279,0.638207,0.0548553,0.029018,-0.501947,0.0320683,0.102684,0.227745,-0.129283,0.0385001,-4.7401,-7.62286,-4.77205,6.66566,-1.13382,-30.1891,2.94021,12.3271,-4.02602,11.9774,-27.3368,-2.81171,5.51447,0.0655847,0.407435,0.0287606,0.375799,-2.41212,0.703885,0.637836,0.0536734,-0.0343185,-0.467025,0.418662,-0.351673,0.0991291,0.647124,0.0072595,0,0,0,0,0,0,0,3.1258,-16.3283,2.51222,13.2758,-0.44434,4.30657,-0.117081,
0.40915,0.0220793,0.377576,-2.41262,0.707673,0.642768,0.0538327,0.0392264,-0.488715,0.0420983,0.0891485,0.230824,-0.0690944,0.0337106,6.38024,8.27031,6.26879,-8.45965,1.92477,37.6177,-2.9934,12.3919,-3.83664,12.0426,-28.3086,-3.08333,6.15859,0.0613715,0.407435,0.0287606,0.375799,-2.41212,0.703885,0.637836,0.0536734,-0.0343185,-0.467025,0.418662,-0.351673,0.0991291,0.647124,0.0072595,0,0,0,0,0,0,0,3.1258,-16.3283,2.51222,13.2758,-0.44434,4.30657,-0.117081,
0.409467,0.0182018,0.377918,-2.41181,0.709622,0.642391,0.0540518,0.0393067,-0.487909,0.0422278,0.0915349,0.233361,-0.0646895,0.0324465,0.050199,0.503482,0.0809336,1.49153,1.58567,2.75309,-0.790073,12.3739,-3.93111,12.0244,-27.8224,-2.96027,5.81914,0.0635357,0.407435,0.0287606,0.375799,-2.41212,0.703885,0.637836,0.0536734,-0.0343185,-0.467025,0.418662,-0.351673,0.0991291,0.647124,0.0072595,0,0,0,0,0,0,0,3.1258,-16.3283,2.51222,13.2758,-0.44434,4.30657,-0.117081,
0.409571,0.0140101,0.378048,-2.41074,0.711503,0.640704,0.0543866,0.0340611,-0.495118,0.0370486,0.0999601,0.233734,-0.0939372,0.0343259,-3.27853,-4.5059,-3.23699,5.26572,0.232773,-18.2798,1.17462,12.3271,-4.02602,11.9774,-27.3368,-2.81171,5.51447,0.0655847,0.407435,0.0287606,0.375799,-2.41212,0.703885,0.637836,0.0536734,-0.0343185,-0.467025,0.418662,-0.351673,0.0991291,0.647124,0.0072595,0,0,0,0,0,0,0,3.1258,-16.3283,2.51222,13.2758,-0.44434,4.30657,-0.117081,
0.409547,0.00962025,0.378046,-2.40956,0.713274,0.638089,0.0548416,0.0266375,-0.505841,0.0295846,0.10948,0.231257,-0.140507,0.0388357,-4.63973,-6.70179,-4.66501,5.94967,-1.54767,-29.1061,2.81863,12.2516,-4.11921,11.9016,-26.8521,-2.63571,5.23571,0.0669491,0.407435,0.0287606,0.375799,-2.41212,0.703885,0.637836,0.0536734,-0.0343185,-0.467025,0.418662,-0.351673,0.0991291,0.647124,0.0072595,0,0,0,0,0,0,0,3.1258,-16.3283,2.51222,13.2758,-0.44434,4.30657,-0.117081,
0.409141,0.0221081,0.377564,-2.41259,0.707672,0.642742,0.053829,0.0371665,-0.491429,0.0399274,0.0950547,0.233634,-0.0785094,0.0339234,6.58061,9.00771,6.46428,-9.01551,1.48514,38.7484,-3.0702,12.3739,-3.93111,12.0244,-27.8224,-2.96027,5.81914,0.0635357,0.407435,0.0287606,0.375799,-2.41212,0.703885,0.637836,0.0536734,-0.0343185,-0.467025,0.418662,-0.351673,0.0991291,0.647124,0.0072595,0,0,0,0,0,0,0,3.1258,-16.3283,2.51222,13.2758,-0.44434,4.30657,-0.117081,
0.409448,0.0182471,0.377896,-2.41176,0.709624,0.64234,0.0540454,0.0374105,-0.489669,0.0402191,0.0967235,0.235708,-0.0728361,0.0325482,0.152519,1.10014,0.182273,1.04296,1.29653,3.54582,-0.859464,12.3271,-4.02602,11.9774,-27.3368,-2.81171,5.51447,0.0655847,0.407435,0.0287606,0.375799,-2.41212,0.703885,0.637836,0.0536734,-0.0343185,-0.467025,0.418662,-0.351673,0.0991291,0.647124,0.0072595,0,0,0,0,0,0,0,3.1258,-16.3283,2.51222,13.2758,-0.44434,4.30657,-0.117081,
0.40954,0.0140719,0.378013,-2.41067,0.711514,0.640623,0.054377,0.0322215,-0.496115,0.0351015,0.104545,0.23582,-0.101196,0.0343294,-3.2431,-4.02865,-3.19851,4.88829,0.0697655,-17.7247,1.11324,12.2516,-4.11921,11.9016,-26.8521,-2.63571,5.23571,0.0669491,0.407435,0.0287606,0.375799,-2.41212,0.703885,0.637836,0.0536734,-0.0343185,-0.467025,0.418662,-0.351673,0.0991291,0.647124,0.0072595,0,0,0,0,0,0,0,3.1258,-16.3283,2.51222,13.2758,-0.44434,4.30657,-0.117081,
0.4095,0.0096986,0.377995,-2.40948,0.713298,0.637976,0.0548286,0.0247822,-0.506224,0.0276312,0.113544,0.233249,-0.147141,0.0387524,-4.64959,-6.31822,-4.66891,5.62431,-1.60661,-28.7158,2.76434,12.1511,-4.20821,11.801,-26.3665,-2.44879,4.98891,0.0681391,0.407435,0.0287606,0.375799,-2.41212,0.703885,0.637836,0.0536734,-0.0343185,-0.467025,0.418662,-0.351673,0.0991291,0.647124,0.0072595,0,0,0,0,0,0,0,3.1258,-16.3283,2.51222,13.2758,-0.44434,4.30657,-0.117081,
0.40913,0.0221358,0.377551,-2.41256,0.707677,0.642716,0.0538256,0.0354932,-0.491346,0.0381462,0.0987148,0.235333,-0.0842375,0.0338054,6.69441,9.29873,6.57187,-9.26801,1.30243,39.3146,-3.09185,12.3271,-4.02602,11.9774,-27.3368,-2.81171,5.51447,0.0655847,0.407435,0.0287606,0.375799,-2.41212,0.703885,0.637836,0.0536734,-0.0343185,-0.467025,0.418662,-0.351673,0.0991291,0.647124,0.0072595,0,0,0,0,0,0,0,3.1258,-16.3283,2.51222,13.2758,-0.44434,4.30657,-0.117081,
0.409426,0.0182912,0.37787,-2.41172,0.709637,0.642292,0.0540395,0.0357924,-0.48919,0.0384913,0.100064,0.23728,-0.0780075,0.03239,0.18701,1.34723,0.215679,0.84354,1.2171,3.89381,-0.884625,12.2516,-4.11921,11.9016,-26.8521,-2.63571,5.23571,0.0669491,0.407435,0.0287606,0.375799,-2.41212,0.703885,0.637836,0.0536734,-0.0343185,-0.467025,0.418662,-0.351673,0.0991291,0.647124,0.0072595,0,0,0,0,0,0,0,3.1258,-16.3283,2.51222,13.2758,-0.44434,4.30657,-0.117081,
0.409504,0.0141328,0.377972,-2.41061,0.71154,0.640546,0.0543681,0.0305734,-0.495312,0.0333481,0.107607,0.237405,-0.106046,0.0341288,-3.26189,-3.82634,-3.21453,4.71398,0.0781985,-17.5239,1.08672,12.1511,-4.20821,11.801,-26.3665,-2.44879,4.98891,0.0681391,0.407435,0.0287606,0.375799,-2.41212,0.703885,0.637836,0.0536734,-0.0343185,-0.467025,0.418662,-0.351673,0.0991291,0.647124,0.0072595,0,0,0,0,0,0,0,3.1258,-16.3283,2.51222,13.2758,-0.44434,4.30657,-0.117081,
0.409118,0.0221627,0.377536,-2.41253,0.707687,0.642692,0.0538225,0.0399127,-0.482233,0.042477,0.0943311,0.238844,-0.0517659,0.0300586,5.83705,8.17473,5.70558,-8.29737,0.899189,33.9248,-2.54384,12.2516,-4.11921,11.9016,-26.8521,-2.63571,5.23571,0.0669491,0.407435,0.0287606,0.375799,-2.41212,0.703885,0.637836,0.0536734,-0.0343185,-0.467025,0.418662,-0.351673,0.0991291,0.647124,0.0072595,0,0,0,0,0,0,0,3.1258,-16.3283,2.51222,13.2758,-0.44434,4.30657,-0.117081,
