xiao-wang007/linearmpc_panda/paper_data/panda_inverse_dynamics_controller_Start_at_0_no_acceleration_ff/1/trajectory.csv
Commanded Joint 0 Position,Commanded Joint 1 Position,Commanded Joint 2 Position,Commanded Joint 3 Position,Commanded Joint 4 Position,Commanded Joint 5 Position,Commanded Joint 6 Position,Commanded Joint 0 Velocity,Commanded Joint 1 Velocity,Commanded Joint 2 Velocity,Commanded Joint 3 Velocity,Commanded Joint 4 Velocity,Commanded Joint 5 Velocity,Commanded Joint 6 Velocity,Commanded Joint 0 Acceleration,Commanded Joint 1 Acceleration,Commanded Joint 2 Acceleration,Commanded Joint 3 Acceleration,Commanded Joint 4 Acceleration,Commanded Joint 5 Acceleration,Commanded Joint 6 Acceleration,Commanded Joint 0 Torque,Commanded Joint 1 Torque,Commanded Joint 2 Torque,Commanded Joint 3 Torque,Commanded Joint 4 Torque,Commanded Joint 5 Torque,Commanded Joint 6 Torque,Actual Joint 0 Position,Actual Joint 1 Position,Actual Joint 2 Position,Actual Joint 3 Position,Actual Joint 4 Position,Actual Joint 5 Position,Actual Joint 6 Position,Actual Joint 0 Velocity,Actual Joint 1 Velocity,Actual Joint 2 Velocity,Actual Joint 3 Velocity,Actual Joint 4 Velocity,Actual Joint 5 Velocity,Actual Joint 6 Velocity,Actual Joint 0 Acceleration,Actual Joint 1 Acceleration,Actual Joint 2 Acceleration,Actual Joint 3 Acceleration,Actual Joint 4 Acceleration,Actual Joint 5 Acceleration,Actual Joint 6 Acceleration,Actual Joint 0 Torque,Actual Joint 1 Torque,Actual Joint 2 Torque,Actual Joint 3 Torque,Actual Joint 4 Torque,Actual Joint 5 Torque,Actual Joint 6 Torque,
0.00252764,-0.0117353,0.00674264,-1.72146,0.013305,0.172501,0.0497069,0.000624173,0.0209308,0.000605973,-0.0327343,-0.00464579,0.0518497,-0.000376542,0,0,0,0,0,0,0,0.0562725,23.9849,0.0705617,-24.2129,-0.668414,1.9362,-0.0245824,0.0024769,-0.0128025,0.00669596,-1.71835,0.0135916,0.166966,0.049754,6.80372e-06,0.00094785,0.000220128,0.000426609,0.00216294,7.37782e-05,0.000250858,0,0,0,0,0,0,0,0.134464,-34.8952,-0.0109729,26.9788,0.514218,3.09258,-0.0026396,
0.00248003,-0.0127913,0.00669896,-1.71836,0.0136159,0.166975,0.049754,0.000523934,0.0168184,0.000508111,-0.0262034,-0.00358498,0.0415496,-0.000301616,0,0,0,0,0,0,0,0.0505436,24.4274,0.0601446,-24.1291,-0.668577,1.68597,-0.0230699,0.00247134,-0.0127345,0.00669426,-1.71842,0.0135968,0.16696,0.049756,-0.00162687,0.000428312,-0.000604836,0.00201474,0.0106389,0.000132213,0.000802944,-0.20421,-0.0649421,-0.10312,0.198516,1.05949,0.00730437,0.0690107,0.182071,-34.6214,0.0128308,27.0026,0.495907,3.14568,-0.0301054,
0.00248088,-0.0127887,0.00669977,-1.71836,0.0136197,0.166978,0.049754,0.000440605,0.0135182,0.000426658,-0.0209758,-0.00277376,0.0333036,-0.000241843,0,0,0,0,0,0,0,0.0433374,24.9989,0.0484208,-24.0211,-0.667932,1.33847,-0.0211015,0.00247134,-0.0127345,0.00669426,-1.71842,0.0135968,0.16696,0.049756,-0.00162687,0.000428312,-0.000604836,0.00201474,0.0106389,0.000132213,0.000802944,0,0,0,0,0,0,0,0.182071,-34.6214,0.0128308,27.0026,0.495907,3.14568,-0.0301054,
0.00248161,-0.0127865,0.00670044,-1.71836,0.0136225,0.16698,0.049754,0.000370681,0.0108706,0.000358214,-0.016791,-0.00214909,0.0267045,-0.000194095,0,0,0,0,0,0,0,0.0374126,25.5229,0.0390086,-23.8533,-0.665791,0.953357,-0.0190997,0.00247134,-0.0127345,0.00669426,-1.71842,0.0135968,0.16696,0.049756,-0.00162687,0.000428312,-0.000604836,0.00201474,0.0106389,0.000132213,0.000802944,0,0,0,0,0,0,0,0.182071,-34.6214,0.0128308,27.0026,0.495907,3.14568,-0.0301054,
0.00233899,-0.0127202,0.00656252,-1.71831,0.0161258,0.165649,0.0497368,-0.00153453,0.00877941,-0.00154075,-0.0121609,0.0365915,0.00114077,-0.00033584,0,0,0,0,0,0,0,0.470146,0.217491,0.468471,-0.288514,3.1992,-1.92585,-0.00201255,0.00247134,-0.0127345,0.00669426,-1.71842,0.0135968,0.16696,0.049756,-0.00162687,0.000428312,-0.000604836,0.00201474,0.0106389,0.000132213,0.000802944,0,0,0,0,0,0,0,0.182071,-34.6214,0.0128308,27.0026,0.495907,3.14568,-0.0301054,
0.00226909,-0.0127229,0.00649262,-1.71827,0.0179744,0.164638,0.0497328,-0.00297502,0.00695549,-0.00298005,-0.0087857,0.0754882,-0.0243625,-0.000368798,0,0,0,0,0,0,0,0.465302,0.215284,0.463585,-0.285207,3.17152,-1.90991,-0.00194606,0.00247134,-0.0127345,0.00669426,-1.71842,0.0135968,0.16696,0.049756,-0.00162687,0.000428312,-0.000604836,0.00201474,0.0106389,0.000132213,0.000802944,0,0,0,0,0,0,0,0.182071,-34.6214,0.0128308,27.0026,0.495907,3.14568,-0.0301054,
0.0022102,-0.0127284,0.00643364,-1.71824,0.0200104,0.163492,0.0497305,-0.00385239,0.00542726,-0.00385854,-0.00639207,0.111291,-0.0481514,-0.000351578,0,0,0,0,0,0,0,0.46003,0.228789,0.457637,-0.280066,3.14436,-1.89087,-0.00191105,0.00246931,-0.0122162,0.00669149,-1.71857,0.0135885,0.167088,0.049754,0.000375831,0.0463033,-0.00195727,-0.0026439,0.00200584,0.00434404,0.000112339,0.250338,5.73438,-0.169055,-0.58233,-1.07913,0.526479,-0.0863257,0.336795,-31.4992,0.187391,23.6383,0.532528,2.21734,-0.0026396,
0.00216482,-0.0127342,0.00638815,-1.71823,0.0221573,0.162255,0.0497292,-0.0042163,0.00419662,-0.00422429,-0.00473145,0.142706,-0.0694416,-0.000315496,0,0,0,0,0,0,0,0.45482,0.225526,0.45244,-0.277366,3.11712,-1.87491,-0.00187088,0.00246931,-0.0122162,0.00669149,-1.71857,0.0135885,0.167088,0.049754,0.000375831,0.0463033,-0.00195727,-0.0026439,0.00200584,0.00434404,0.000112339,0,0,0,0,0,0,0,0.336795,-31.4992,0.187391,23.6383,0.532528,2.21734,-0.0026396,
0.00216775,-0.011695,0.00639449,-1.71827,0.0216549,0.160762,0.0496976,-0.00739504,0.00864853,-0.00735032,-0.00032884,0.23761,-0.153094,-0.000734511,0,0,0,0,0,0,0,4.10705,1.49896,4.11875,-1.91944,10.9314,-9.24757,-0.00151091,0.00246931,-0.0122162,0.00669149,-1.71857,0.0135885,0.167088,0.049754,0.000375831,0.0463033,-0.00195727,-0.0026439,0.00200584,0.00434404,0.000112339,0,0,0,0,0,0,0,0.336795,-31.4992,0.187391,23.6383,0.532528,2.21734,-0.0026396,
0.00203937,-0.0115524,0.00626765,-1.71819,0.0276314,0.155919,0.0496895,-0.00912562,0.0104854,-0.00905108,0.00170147,0.339501,-0.243557,-0.00079058,0,0,0,0,0,0,0,3.98558,1.47481,3.99789,-1.88087,10.6743,-9.07183,-0.0010923,0.00246931,-0.0122162,0.00669149,-1.71857,0.0135885,0.167088,0.049754,0.000375831,0.0463033,-0.00195727,-0.0026439,0.00200584,0.00434404,0.000112339,0,0,0,0,0,0,0,0.336795,-31.4992,0.187391,23.6383,0.532528,2.21734,-0.0026396,
0.00196402,-0.0114497,0.00619355,-1.71816,0.0341913,0.150474,0.049687,-0.00918432,0.0109555,-0.00909335,0.00195312,0.435598,-0.33097,-0.00069475,0,0,0,0,0,0,0,3.86211,1.4456,3.87434,-1.84879,10.4281,-8.8909,-0.00145645,0.00248225,-0.0120517,0.00670292,-1.71893,0.0135886,0.166963,0.0497522,-0.00344316,0.00226763,-0.00103498,-0.0156187,0.00573778,-0.0049855,-0.000561256,-0.477374,-5.50447,0.115287,-1.62184,0.466492,-1.16619,-0.0841993,0.0313145,-35.6926,-0.110155,27.8476,0.562741,3.34435,0.0101778,
0.00194615,-0.0113669,0.00617676,-1.71818,0.0410607,0.144656,0.049687,-0.00779404,0.0108342,-0.00769453,0.00103402,0.520213,-0.410217,-0.000555979,0,0,0,0,0,0,0,3.7445,1.40689,3.75665,-1.81877,10.1855,-8.71706,-0.00215094,0.00248225,-0.0120517,0.00670292,-1.71893,0.0135886,0.166963,0.0497522,-0.00344316,0.00226763,-0.00103498,-0.0156187,0.00573778,-0.0049855,-0.000561256,0,0,0,0,0,0,0,0.0313145,-35.6926,-0.110155,27.8476,0.562741,3.34435,0.0101778,
0.00325035,-0.0119569,0.00750116,-1.71894,0.0199367,0.157517,0.0499371,0.0063471,0.00971757,0.00683607,-7.54341e-05,0.516177,-0.474837,0.00149715,0,0,0,0,0,0,0,24.6646,4.90755,24.8333,-11.0724,10.9313,-14.2669,0.139741,0.00248225,-0.0120517,0.00670292,-1.71893,0.0135886,0.166963,0.0497522,-0.00344316,0.00226763,-0.00103498,-0.0156187,0.00573778,-0.0049855,-0.000561256,0,0,0,0,0,0,0,0.0313145,-35.6926,-0.110155,27.8476,0.562741,3.34435,0.0101778,
0.00395296,-0.0119304,0.0082221,-1.71908,0.0251144,0.150092,0.0500177,0.022643,0.00843562,0.0234922,-0.00337349,0.542382,-0.565506,0.0032126,0,0,0,0,0,0,0,23.06,4.73168,23.2629,-9.68712,10.9313,-14.2669,0.09197,0.00248225,-0.0120517,0.00670292,-1.71893,0.0135886,0.166963,0.0497522,-0.00344316,0.00226763,-0.00103498,-0.0156187,0.00573778,-0.0049855,-0.000561256,0,0,0,0,0,0,0,0.0313145,-35.6926,-0.110155,27.8476,0.562741,3.34435,0.0101778,
0.00482133,-0.01199,0.00910597,-1.7194,0.0311434,0.141641,0.0502192,0.0398235,0.0052598,0.0408905,-0.0107072,0.584631,-0.663674,0.00760726,0,0,0,0,0,0,0,22.0672,3.66208,22.2944,-8.58432,10.9308,-14.2636,0.0942124,0.00247623,-0.0115205,0.00670273,-1.71911,0.0137574,0.166934,0.0497514,0.000510279,0.0102527,0.00341361,-0.00888401,0.0192661,-0.0111565,-0.000652317,0.49418,0.998134,0.556074,0.841831,1.69104,-0.771377,-0.0113827,0.309024,-35.3713,0.139784,26.9788,0.770565,2.91405,0.017502,
0.0038223,-0.0113682,0.0080495,-1.71993,0.0194927,0.158206,0.0500202,0.0531019,0.00650506,0.0539704,-0.0210907,0.558686,-0.667973,0.00876822,0,0,0,0,0,0,0,34.6011,9.54911,34.5961,-19.5671,10.9308,-14.2636,0.188698,0.00247623,-0.0115205,0.00670273,-1.71911,0.0137574,0.166934,0.0497514,0.000510279,0.0102527,0.00341361,-0.00888401,0.0192661,-0.0111565,-0.000652317,0,0,0,0,0,0,0,0.309024,-35.3713,0.139784,26.9788,0.770565,2.91405,0.017502,
0.00493775,-0.0112749,0.00917045,-1.72064,0.0243255,0.151184,0.050212,0.0703678,0.00753745,0.0712003,-0.0347591,0.56777,-0.709938,0.0118103,0,0,0,0,0,0,0,31.9114,9.14991,31.9182,-18.2953,10.9308,-14.2636,0.115385,0.00247623,-0.0115205,0.00670273,-1.71911,0.0137574,0.166934,0.0497514,0.000510279,0.0102527,0.00341361,-0.00888401,0.0192661,-0.0111565,-0.000652317,0,0,0,0,0,0,0,0.309024,-35.3713,0.139784,26.9788,0.770565,2.91405,0.017502,
0.00621187,-0.0112595,0.0104588,-1.72167,0.0301583,0.143146,0.0503509,0.0881472,0.00641336,0.0891685,-0.0534059,0.600035,-0.768904,0.0129208,0,0,0,0,0,0,0,30.1826,7.21373,30.2499,-18.1444,10.9308,-14.2636,0.23105,0.00247623,-0.0115205,0.00670273,-1.71911,0.0137574,0.166934,0.0497514,0.000510279,0.0102527,0.00341361,-0.00888401,0.0192661,-0.0111565,-0.000652317,0,0,0,0,0,0,0,0.309024,-35.3713,0.139784,26.9788,0.770565,2.91405,0.017502,
0.00757612,-0.0112133,0.0118363,-1.7228,0.0367851,0.134268,0.0504037,0.104624,0.00628545,0.105773,-0.0710785,0.645697,-0.837068,0.0116552,0,0,0,0,0,0,0,26.8908,3.98974,27.0635,-19.9522,10.9223,-14.2489,0.165789,0.00269429,-0.011309,0.00746091,-1.7198,0.0162068,0.165224,0.0497517,0.0174933,0.00237105,0.0537365,-0.0241489,0.101343,-0.0847305,-0.00138856,2.12287,-0.985206,6.29036,-1.90811,10.2597,-9.19675,-0.0920297,6.11713,-34.0978,5.96376,25.3601,1.54052,2.13128,0.017502,
0.00466841,-0.0115601,0.00944477,-1.72172,0.0225853,0.15644,0.0500927,0.113009,0.00163916,0.113974,-0.0851041,0.613798,-0.805312,0.0141278,0,0,0,0,0,0,0,39.2727,8.90361,39.3235,-27.5814,10.9223,-14.2489,0.16691,0.00269429,-0.011309,0.00746091,-1.7198,0.0162068,0.165224,0.0497517,0.0174933,0.00237105,0.0537365,-0.0241489,0.101343,-0.0847305,-0.00138856,0,0,0,0,0,0,0,6.11713,-34.0978,5.96376,25.3601,1.54052,2.13128,0.017502,
0.00606619,-0.0117511,0.0108409,-1.7232,0.0276863,0.149564,0.0502095,0.125352,-0.00346558,0.126082,-0.104941,0.618566,-0.816146,0.0142206,0,0,0,0,0,0,0,36.041,6.88977,36.0608,-27.1232,10.9223,-14.2489,0.224119,0.00269429,-0.011309,0.00746091,-1.7198,0.0162068,0.165224,0.0497517,0.0174933,0.00237105,0.0537365,-0.0241489,0.101343,-0.0847305,-0.00138856,0,0,0,0,0,0,0,6.11713,-34.0978,5.96376,25.3601,1.54052,2.13128,0.017502,
0.00759005,-0.0119033,0.0123638,-1.72483,0.0337704,0.141546,0.0502248,0.138378,-0.00657698,0.138939,-0.124679,0.646953,-0.85337,0.0117594,0,0,0,0,0,0,0,31.8414,3.77068,31.8157,-28.3604,10.9223,-14.2489,0.134691,0.00269429,-0.011309,0.00746091,-1.7198,0.0162068,0.165224,0.0497517,0.0174933,0.00237105,0.0537365,-0.0241489,0.101343,-0.0847305,-0.00138856,0,0,0,0,0,0,0,6.11713,-34.0978,5.96376,25.3601,1.54052,2.13128,0.017502,
0.00919138,-0.0119988,0.0139635,-1.72655,0.0405961,0.132692,0.0502073,0.150736,-0.00764877,0.151142,-0.142866,0.688207,-0.904045,0.00897033,0,0,0,0,0,0,0,28.2606,3.64091,28.2489,-27.6302,10.9141,-14.2001,0.011305,0.00381156,-0.0112791,0.0104365,-1.72194,0.0209309,0.160056,0.0497562,0.0489811,-0.00897403,0.134523,-0.0887026,0.195382,-0.209223,-0.00124291,3.93598,-1.41814,10.0984,-8.06922,11.7548,-15.5615,0.0182056,10.1241,-31.3008,9.8636,22.2696,1.8518,1.51513,-0.0227812,
0.00643155,-0.0115528,0.0130795,-1.72483,0.0285886,0.15014,0.0500677,0.156761,-0.00995959,0.157274,-0.155447,0.663595,-0.869386,0.00993019,0,0,0,0,0,0,0,40.249,10.0984,40.3437,-32.3513,10.9141,-14.2001,0.239385,0.00381156,-0.0112791,0.0104365,-1.72194,0.0209309,0.160056,0.0497562,0.0489811,-0.00897403,0.134523,-0.0887026,0.195382,-0.209223,-0.00124291,0,0,0,0,0,0,0,10.1241,-31.3008,9.8636,22.2696,1.8518,1.51513,-0.0227812,
0.00803102,-0.0116504,0.0146864,-1.72668,0.0342467,0.142906,0.0500614,0.165395,-0.0104094,0.16599,-0.170669,0.672328,-0.876373,0.00778577,0,0,0,0,0,0,0,35.1253,6.90513,35.2147,-33.3116,10.9141,-14.2001,0.123828,0.00381156,-0.0112791,0.0104365,-1.72194,0.0209309,0.160056,0.0497562,0.0489811,-0.00897403,0.134523,-0.0887026,0.195382,-0.209223,-0.00124291,0,0,0,0,0,0,0,10.1241,-31.3008,9.8636,22.2696,1.8518,1.51513,-0.0227812,
0.00972176,-0.0116808,0.0163844,-1.72867,0.040772,0.134651,0.0500124,0.174585,-0.00908685,0.175242,-0.186329,0.700994,-0.907453,0.00500382,0,0,0,0,0,0,0,30.9011,6.3593,30.993,-32.5838,10.9141,-14.2001,-0.0165745,0.00381156,-0.0112791,0.0104365,-1.72194,0.0209309,0.160056,0.0497562,0.0489811,-0.00897403,0.134523,-0.0887026,0.195382,-0.209223,-0.00124291,0,0,0,0,0,0,0,10.1241,-31.3008,9.8636,22.2696,1.8518,1.51513,-0.0227812,
0.0114638,-0.0116575,0.0181337,-1.73077,0.0479428,0.125662,0.0499425,0.183218,-0.0066867,0.183926,-0.201641,0.740065,-0.950694,0.00225517,0,0,0,0,0,0,0,28.3693,5.65211,28.4618,-31.9199,10.9093,-14.1262,-0.0645789,0.00611549,-0.0112687,0.0159647,-1.72575,0.0270737,0.151588,0.0497577,0.0846927,-0.00943653,0.199121,-0.140136,0.165885,-0.27875,0.000663741,4.46395,-0.0578123,8.07474,-6.42923,-3.68709,-8.69088,0.238331,5.45856,-31.0271,5.23775,21.1746,2.12005,1.09032,-0.0365141,
0.00918821,-0.0116605,0.0190617,-1.72985,0.0350846,0.141324,0.0498083,0.187322,-0.00975071,0.188064,-0.216729,0.711121,-0.910654,0.000739477,0,0,0,0,0,0,0,39.2478,8.90913,39.3251,-40.9331,10.9093,-14.1262,0.113811,0.00611549,-0.0112687,0.0159647,-1.72575,0.0270737,0.151588,0.0497577,0.0846927,-0.00943653,0.199121,-0.140136,0.165885,-0.27875,0.000663741,0,0,0,0,0,0,0,5.45856,-31.0271,5.23775,21.1746,2.12005,1.09032,-0.0365141,
0.0109274,-0.0117728,0.0208078,-1.73228,0.0409868,0.134005,0.0497078,0.193337,-0.0106079,0.194105,-0.234091,0.716451,-0.91148,-0.00192064,0,0,0,0,0,0,0,34.0027,7.67443,34.0878,-40.2019,10.9093,-14.1262,-0.0610404,0.00611549,-0.0112687,0.0159647,-1.72575,0.0270737,0.151588,0.0497577,0.0846927,-0.00943653,0.199121,-0.140136,0.165885,-0.27875,0.000663741,0,0,0,0,0,0,0,5.45856,-31.0271,5.23775,21.1746,2.12005,1.09032,-0.0365141,
0.0127285,-0.0118327,0.022616,-1.73487,0.0477296,0.125724,0.049578,0.199698,-0.00998498,0.200489,-0.251982,0.741731,-0.936218,-0.00478322,0,0,0,0,0,0,0,30.7549,6.31967,30.8426,-39.6299,10.9093,-14.1262,-0.12765,0.00611549,-0.0112687,0.0159647,-1.72575,0.0270737,0.151588,0.0497577,0.0846927,-0.00943653,0.199121,-0.140136,0.165885,-0.27875,0.000663741,0,0,0,0,0,0,0,5.45856,-31.0271,5.23775,21.1746,2.12005,1.09032,-0.0365141,
0.00893888,-0.0117286,0.0188134,-1.72983,0.0354795,0.141259,0.0496046,0.196966,-0.0135217,0.197781,-0.256711,0.7173,-0.899982,-0.0063786,0,0,0,0,0,0,0,34.0378,7.68844,34.1255,-40.1517,10.9201,-14.0364,-0.0614989,0.00964915,-0.0112527,0.0236491,-1.7316,0.0309206,0.141515,0.049757,0.115791,-0.00855647,0.246113,-0.21813,0.117691,-0.323021,0.000595346,3.8873,0.110008,5.87399,-9.74923,-6.02426,-5.53399,-0.00854934,-0.0440639,-31.1778,-0.0387439,21.8213,1.28326,1.01067,-0.0301054,
0.0105283,-0.0119049,0.0204098,-1.73225,0.041521,0.133904,0.0494749,0.197308,-0.0152242,0.198135,-0.265831,0.724878,-0.903853,-0.00834511,0,0,0,0,0,0,0,30.7899,6.33367,30.8804,-39.5798,10.9201,-14.0364,-0.128109,0.00964915,-0.0112527,0.0236491,-1.7316,0.0309206,0.141515,0.049757,0.115791,-0.00855647,0.246113,-0.21813,0.117691,-0.323021,0.000595346,0,0,0,0,0,0,0,-0.0440639,-31.1778,-0.0387439,21.8213,1.28326,1.01067,-0.0301054,
0.012184,-0.0120352,0.0220725,-1.73482,0.0483424,0.125583,0.0493396,0.199238,-0.0154364,0.200075,-0.276926,0.750436,-0.931113,-0.0100591,0,0,0,0,0,0,0,28.3962,4.93896,28.4857,-39.1532,10.9201,-14.0364,-0.16255,0.00964915,-0.0112527,0.0236491,-1.7316,0.0309206,0.141515,0.049757,0.115791,-0.00855647,0.246113,-0.21813,0.117691,-0.323021,0.000595346,0,0,0,0,0,0,0,-0.0440639,-31.1778,-0.0387439,21.8213,1.28326,1.01067,-0.0301054,
0.0138785,-0.0121248,0.023774,-1.7375,0.0557253,0.116553,0.0492079,0.201755,-0.0145906,0.202597,-0.288495,0.784921,-0.970645,-0.0113384,0,0,0,0,0,0,0,26.57,3.741,26.6587,-38.7104,10.9201,-14.0364,-0.169075,0.00964915,-0.0112527,0.0236491,-1.7316,0.0309206,0.141515,0.049757,0.115791,-0.00855647,0.246113,-0.21813,0.117691,-0.323021,0.000595346,0,0,0,0,0,0,0,-0.0440639,-31.1778,-0.0387439,21.8213,1.28326,1.01067,-0.0301054,
0.0127078,-0.0114964,0.0267353,-1.73609,0.0394398,0.13017,0.049505,0.200456,-0.0146773,0.201324,-0.289819,0.755152,-0.939271,-0.0125181,0,0,0,0,0,0,0,30.7899,6.33367,30.8804,-39.5798,10.9201,-14.0364,-0.128109,0.00964915,-0.0112527,0.0236491,-1.7316,0.0309206,0.141515,0.049757,0.115791,-0.00855647,0.246113,-0.21813,0.117691,-0.323021,0.000595346,0,0,0,0,0,0,0,-0.0440639,-31.1778,-0.0387439,21.8213,1.28326,1.01067,-0.0301054,
0.0143197,-0.0115968,0.0283546,-1.73862,0.0456489,0.122442,0.0493652,0.200663,-0.0142524,0.201541,-0.294972,0.75935,-0.9446,-0.0135093,0,0,0,0,0,0,0,28.3955,4.85642,28.4881,-39.0958,10.9087,-13.9573,-0.16303,0.0134761,-0.0113094,0.0320287,-1.73935,0.0340375,0.130472,0.049758,0.13084,0.0037293,0.212383,-0.239028,0.0641961,-0.312861,-0.00196608,1.88106,1.53572,-4.2163,-2.61224,-6.68685,1.27012,-0.320178,-7.9826,-35.3713,-7.76305,28.772,0.562741,2.54235,0.0440523,
0.0159665,-0.0116732,0.0300087,-1.74126,0.0526265,0.113834,0.0492312,0.201701,-0.0133117,0.202584,-0.302011,0.781921,-0.9709,-0.0141571,0,0,0,0,0,0,0,26.5693,3.65845,26.6611,-38.653,10.9087,-13.9573,-0.169555,0.0134761,-0.0113094,0.0320287,-1.73935,0.0340375,0.130472,0.049758,0.13084,0.0037293,0.212383,-0.239028,0.0641961,-0.312861,-0.00196608,0,0,0,0,0,0,0,-7.9826,-35.3713,-7.76305,28.772,0.562741,2.54235,0.0440523,
0.0162978,-0.0114333,0.0348744,-1.74398,0.0421432,0.119069,0.0494679,0.197263,-0.0125125,0.198171,-0.301964,0.748617,-0.94054,-0.0149584,0,0,0,0,0,0,0,28.3955,4.85642,28.4881,-39.0958,10.9087,-13.9573,-0.16303,0.0134761,-0.0113094,0.0320287,-1.73935,0.0340375,0.130472,0.049758,0.13084,0.0037293,0.212383,-0.239028,0.0641961,-0.312861,-0.00196608,0,0,0,0,0,0,0,-7.9826,-35.3713,-7.76305,28.772,0.562741,2.54235,0.0440523,
0.0177822,-0.0115098,0.0363663,-1.74653,0.0482263,0.111295,0.0493314,0.194919,-0.0119213,0.195836,-0.305403,0.75097,-0.946776,-0.0153796,0,0,0,0,0,0,0,26.5693,3.65845,26.6611,-38.653,10.9087,-13.9573,-0.169555,0.0134761,-0.0113094,0.0320287,-1.73935,0.0340375,0.130472,0.049758,0.13084,0.0037293,0.212383,-0.239028,0.0641961,-0.312861,-0.00196608,0,0,0,0,0,0,0,-7.9826,-35.3713,-7.76305,28.772,0.562741,2.54235,0.0440523,
0.0193052,-0.0115763,0.0378968,-1.74918,0.0550973,0.102645,0.0492065,0.194011,-0.0112012,0.19493,-0.310548,0.772553,-0.97367,-0.0154271,0,0,0,0,0,0,0,25.0654,2.58764,25.1589,-38.1085,10.9073,-13.8551,-0.165085,0.0177154,-0.0114633,0.0403295,-1.74823,0.036855,0.118285,0.0497684,0.117954,-0.00733308,0.235406,-0.258971,0.0916805,-0.365026,-0.000391627,-1.61065,-1.3828,2.87787,-2.49279,3.43555,-6.52072,0.196806,-3.4956,-37.4898,-3.51012,30.3668,1.14959,2.76757,0.0101778,
0.0208562,-0.0116406,0.0394549,-1.75199,0.0625215,0.0940083,0.049096,0.193983,-0.0105661,0.194898,-0.31859,0.803646,-0.994855,-0.0151039,0,0,0,0,0,0,0,23.7507,1.78811,23.8424,-37.5696,10.9073,-13.8551,-0.153713,0.0177154,-0.0114633,0.0403295,-1.74823,0.036855,0.118285,0.0497684,0.117954,-0.00733308,0.235406,-0.258971,0.0916805,-0.365026,-0.000391627,0,0,0,0,0,0,0,-3.4956,-37.4898,-3.51012,30.3668,1.14959,2.76757,0.0101778,
0.0205144,-0.0116789,0.043156,-1.75295,0.0453206,0.106283,0.0494752,0.190519,-0.0113354,0.191457,-0.315898,0.770076,-0.966007,-0.0156469,0,0,0,0,0,0,0,26.5836,3.58511,26.6788,-38.5855,10.9073,-13.8551,-0.170065,0.0177154,-0.0114633,0.0403295,-1.74823,0.036855,0.118285,0.0497684,0.117954,-0.00733308,0.235406,-0.258971,0.0916805,-0.365026,-0.000391627,0,0,0,0,0,0,0,-3.4956,-37.4898,-3.51012,30.3668,1.14959,2.76757,0.0101778,
0.0219605,-0.0117909,0.0446099,-1.75551,0.0515309,0.0983344,0.049347,0.188569,-0.0118701,0.189514,-0.316639,0.771318,-0.971518,-0.0157221,0,0,0,0,0,0,0,25.0654,2.58764,25.1589,-38.1085,10.9073,-13.8551,-0.165085,0.0177154,-0.0114633,0.0403295,-1.74823,0.036855,0.118285,0.0497684,0.117954,-0.00733308,0.235406,-0.258971,0.0916805,-0.365026,-0.000391627,0,0,0,0,0,0,0,-3.4956,-37.4898,-3.51012,30.3668,1.14959,2.76757,0.0101778,
0.023438,-0.0119025,0.0460949,-1.75824,0.0585051,0.0902116,0.049235,0.187793,-0.0122858,0.188736,-0.321579,0.791409,-0.980285,-0.0153791,0,0,0,0,0,0,0,23.7457,1.71093,23.8409,-37.505,10.8871,-13.7365,-0.154155,0.0214126,-0.0115857,0.0487815,-1.75759,0.0420437,0.104309,0.0497742,0.101103,-0.0131734,0.234575,-0.272676,0.242871,-0.460154,0.00136965,-2.10643,-0.730041,-0.103914,-1.71321,18.8989,-11.891,0.220159,-0.857357,-33.7209,-0.859972,24.5627,0.703732,1.64696,-0.0163725,
0.0249409,-0.012002,0.0476051,-1.76114,0.0659996,0.0826093,0.0491375,0.187806,-0.0123145,0.188743,-0.329618,0.820488,-0.974286,-0.0147396,0,0,0,0,0,0,0,22.6022,1.02763,22.6941,-36.9401,10.8871,-11.4116,-0.1392,0.0214126,-0.0115857,0.0487815,-1.75759,0.0420437,0.104309,0.0497742,0.101103,-0.0131734,0.234575,-0.272676,0.242871,-0.460154,0.00136965,0,0,0,0,0,0,0,-0.857357,-33.7209,-0.859972,24.5627,0.703732,1.64696,-0.0163725,
0.0241143,-0.0118545,0.0515122,-1.76239,0.0517509,0.0913838,0.0495023,0.184453,-0.013311,0.185411,-0.325426,0.795618,-0.95902,-0.0150601,0,0,0,0,0,0,0,25.0605,2.51045,25.1574,-38.044,10.8871,-13.7365,-0.165528,0.0214126,-0.0115857,0.0487815,-1.75759,0.0420437,0.104309,0.0497742,0.101103,-0.0131734,0.234575,-0.272676,0.242871,-0.460154,0.00136965,0,0,0,0,0,0,0,-0.857357,-33.7209,-0.859972,24.5627,0.703732,1.64696,-0.0163725,
0.0255187,-0.0119989,0.0529243,-1.76505,0.0582798,0.0838198,0.0493888,0.182672,-0.0142589,0.183633,-0.326801,0.799717,-0.956315,-0.0148843,0,0,0,0,0,0,0,23.7457,1.71093,23.8409,-37.505,10.8871,-13.7365,-0.154155,0.0214126,-0.0115857,0.0487815,-1.75759,0.0420437,0.104309,0.0497742,0.101103,-0.0131734,0.234575,-0.272676,0.242871,-0.460154,0.00136965,0,0,0,0,0,0,0,-0.857357,-33.7209,-0.859972,24.5627,0.703732,1.64696,-0.0163725,
0.0269565,-0.0121338,0.0543697,-1.76789,0.065457,0.076632,0.0492908,0.182084,-0.0147779,0.183042,-0.332316,0.819203,-0.944747,-0.0143589,0,0,0,0,0,0,0,22.6067,0.927784,22.7029,-36.8538,10.8548,-11.2828,-0.139813,0.0247281,-0.0118978,0.0570485,-1.76745,0.051262,0.0882078,0.0497746,0.100739,-0.0104074,0.241409,-0.291606,0.290696,-0.496953,0.000127276,-0.0455051,0.345749,0.854263,-2.36618,5.9781,-4.59987,-0.155297,0.892215,-32.0268,0.711073,22.9163,0.893246,1.49499,-0.0163725,
0.0274229,-0.01212,0.0597734,-1.77245,0.0614278,0.0754846,0.0495238,0.179613,-0.0149412,0.180591,-0.330708,0.799438,-0.924018,-0.0144345,0,0,0,0,0,0,0,23.7502,1.61108,23.8497,-37.4187,10.8548,-13.6077,-0.154768,0.0247281,-0.0118978,0.0570485,-1.76745,0.051262,0.0882078,0.0497746,0.100739,-0.0104074,0.241409,-0.291606,0.290696,-0.496953,0.000127276,0,0,0,0,0,0,0,0.892215,-32.0268,0.711073,22.9163,0.893246,1.49499,-0.0163725,
0.0288081,-0.012252,0.0611666,-1.77523,0.0680881,0.0688964,0.0494232,0.17832,-0.0152536,0.179303,-0.334058,0.806058,-0.903917,-0.0140624,0,0,0,0,0,0,0,22.6067,0.927784,22.7029,-36.8538,10.8548,-11.2828,-0.139813,0.0247281,-0.0118978,0.0570485,-1.76745,0.051262,0.0882078,0.0497746,0.100739,-0.0104074,0.241409,-0.291606,0.290696,-0.496953,0.000127276,0,0,0,0,0,0,0,0.892215,-32.0268,0.711073,22.9163,0.893246,1.49499,-0.0163725,
0.0302209,-0.0123712,0.0625872,-1.77814,0.0753449,0.0629253,0.0493375,0.177976,-0.0151833,0.178957,-0.340087,0.826269,-0.872412,-0.0133934,0,0,0,0,0,0,0,21.6048,0.240719,21.6988,-36.3791,10.8548,-8.64213,-0.124656,0.0247281,-0.0118978,0.0570485,-1.76745,0.051262,0.0882078,0.0497746,0.100739,-0.0104074,0.241409,-0.291606,0.290696,-0.496953,0.000127276,0,0,0,0,0,0,0,0.892215,-32.0268,0.711073,22.9163,0.893246,1.49499,-0.0163725,
0.0316557,-0.0124679,0.0640297,-1.78114,0.0830024,0.0578123,0.0492644,0.178251,-0.0145648,0.179227,-0.346938,0.852453,-0.825755,-0.0125433,0,0,0,0,0,0,0,20.7168,-0.503129,20.8123,-35.8482,10.8073,-6.23513,-0.109904,0.0282793,-0.0120698,0.0651805,-1.77825,0.0619765,0.0709488,0.0497702,0.0985422,0.00485484,0.234771,-0.304377,0.328034,-0.477749,-0.0014207,-0.27459,1.90778,-0.82975,-1.59639,4.66728,2.40056,-0.193497,1.1977,-32.8996,0.889601,22.0712,1.20453,1.10406,0.0239107,
0.0308936,-0.0121471,0.0678251,-1.78351,0.0724261,0.0600863,0.0495456,0.175514,-0.0132147,0.176515,-0.345597,0.82858,-0.800139,-0.0126508,0,0,0,0,0,0,0,22.5986,0.791858,22.6987,-36.7463,10.8073,-11.1462,-0.140573,0.0282793,-0.0120698,0.0651805,-1.77825,0.0619765,0.0709488,0.0497702,0.0985422,0.00485484,0.234771,-0.304377,0.328034,-0.477749,-0.0014207,0,0,0,0,0,0,0,1.1977,-32.8996,0.889601,22.0712,1.20453,1.10406,0.0239107,
0.0322364,-0.0122278,0.0691762,-1.78638,0.079131,0.0548308,0.0494576,0.173981,-0.0125891,0.174988,-0.348055,0.830487,-0.771497,-0.0123215,0,0,0,0,0,0,0,21.5967,0.104793,21.6947,-36.2716,10.8073,-8.50555,-0.125416,0.0282793,-0.0120698,0.0651805,-1.77825,0.0619765,0.0709488,0.0497702,0.0985422,0.00485484,0.234771,-0.304377,0.328034,-0.477749,-0.0014207,0,0,0,0,0,0,0,1.1977,-32.8996,0.889601,22.0712,1.20453,1.10406,0.0239107,
0.0336062,-0.0123069,0.070554,-1.78933,0.0863947,0.0502356,0.0493833,0.173429,-0.0120472,0.174435,-0.352263,0.845983,-0.732079,-0.0117145,0,0,0,0,0,0,0,20.7168,-0.503129,20.8123,-35.8482,10.8073,-6.23513,-0.109904,0.0282793,-0.0120698,0.0651805,-1.77825,0.0619765,0.0709488,0.0497702,0.0985422,0.00485484,0.234771,-0.304377,0.328034,-0.477749,-0.0014207,0,0,0,0,0,0,0,1.1977,-32.8996,0.889601,22.0712,1.20453,1.10406,0.0239107,
0.0349977,-0.0123747,0.0719534,-1.79233,0.0940348,0.0464646,0.0493217,0.173533,-0.011334,0.174533,-0.356768,0.867789,-0.679938,-0.010911,0,0,0,0,0,0,0,19.9489,-1.11649,20.0454,-35.3168,10.767,-4.18442,-0.0957287,0.0317316,-0.0120392,0.0738204,-1.78884,0.0728622,0.0547143,0.0497725,0.0847443,0.0106443,0.264922,-0.317888,0.322841,-0.446266,6.53811e-05,-1.72474,0.723681,3.76891,-1.68888,-0.649109,3.93542,0.18576,0.158268,-32.9234,-0.0625476,23.8644,1.30157,1.19012,0.00376909,
0.0343858,-0.0120601,0.0765095,-1.79434,0.0833354,0.0458439,0.0495707,0.171994,-0.00992354,0.173021,-0.355897,0.841258,-0.655098,-0.0110575,0,0,0,0,0,0,0,21.6029,-0.0308964,21.7044,-36.1521,10.767,-8.36958,-0.126203,0.0317316,-0.0120392,0.0738204,-1.78884,0.0728622,0.0547143,0.0497725,0.0847443,0.0106443,0.264922,-0.317888,0.322841,-0.446266,6.53811e-05,0,0,0,0,0,0,0,0.158268,-32.9234,-0.0625476,23.8644,1.30157,1.19012,0.00376909,
0.0357244,-0.0121147,0.0778565,-1.79725,0.0900521,0.0418273,0.0494935,0.171059,-0.00930271,0.172092,-0.357574,0.840925,-0.624494,-0.0107773,0,0,0,0,0,0,0,20.7229,-0.638819,20.822,-35.7287,10.767,-6.09917,-0.110691,0.0317316,-0.0120392,0.0738204,-1.78884,0.0728622,0.0547143,0.0497725,0.0847443,0.0106443,0.264922,-0.317888,0.322841,-0.446266,6.53811e-05,0,0,0,0,0,0,0,0.158268,-32.9234,-0.0625476,23.8644,1.30157,1.19012,0.00376909,
0.0370801,-0.0121728,0.0792204,-1.80022,0.0973188,0.038478,0.0494303,0.170739,-0.00889562,0.17177,-0.360202,0.854407,-0.583327,-0.0102014,0,0,0,0,0,0,0,19.9489,-1.11649,20.0454,-35.3168,10.767,-4.18442,-0.0957287,0.0317316,-0.0120392,0.0738204,-1.78884,0.0728622,0.0547143,0.0497725,0.0847443,0.0106443,0.264922,-0.317888,0.322841,-0.446266,6.53811e-05,0,0,0,0,0,0,0,0.158268,-32.9234,-0.0625476,23.8644,1.30157,1.19012,0.00376909,
0.0343456,-0.0120947,0.076469,-1.79447,0.0834087,0.0473157,0.0495945,0.169148,-0.00826608,0.170195,-0.360079,0.831467,-0.556166,-0.0101915,0,0,0,0,0,0,0,20.7229,-0.638819,20.822,-35.7287,10.767,-6.09917,-0.110691,0.0317316,-0.0120392,0.0738204,-1.78884,0.0728622,0.0547143,0.0497725,0.0847443,0.0106443,0.264922,-0.317888,0.322841,-0.446266,6.53811e-05,0,0,0,0,0,0,0,0.158268,-32.9234,-0.0625476,23.8644,1.30157,1.19012,0.00376909,
0.0356542,-0.0121509,0.0777858,-1.79741,0.090154,0.0442642,0.0495294,0.168033,-0.00801793,0.169077,-0.361516,0.833808,-0.521219,-0.00977949,0,0,0,0,0,0,0,19.9529,-1.25709,20.0527,-35.2039,10.7258,-4.05677,-0.0964821,0.0342852,-0.011917,0.0830131,-1.80018,0.0832724,0.0401519,0.0497747,0.0694691,0.00542182,0.274047,-0.358146,0.301811,-0.406941,0.000342044,-1.9094,-0.652808,1.14059,-5.03228,-2.62881,4.91555,0.0345828,-0.781979,-35.2959,-1.0385,29.617,1.52221,2.17156,-0.0163725,
0.0369763,-0.0122049,0.079116,-1.80037,0.0974407,0.041883,0.0494778,0.16748,-0.00776461,0.168516,-0.363217,0.849213,-0.476506,-0.00911526,0,0,0,0,0,0,0,19.2687,-1.59125,19.3658,-34.7834,10.7258,-2.43726,-0.0808846,0.0342852,-0.011917,0.0830131,-1.80018,0.0832724,0.0401519,0.0497747,0.0694691,0.00542182,0.274047,-0.358146,0.301811,-0.406941,0.000342044,0,0,0,0,0,0,0,-0.781979,-35.2959,-1.0385,29.617,1.52221,2.17156,-0.0163725,
0.0383115,-0.0122515,0.0804589,-1.80333,0.105087,0.0402216,0.0494384,0.167362,-0.00737671,0.168386,-0.364431,0.870528,-0.422741,-0.00827706,0,0,0,0,0,0,0,18.6587,-1.79498,18.7533,-34.3471,10.7258,-1.10059,-0.0659562,0.0342852,-0.011917,0.0830131,-1.80018,0.0832724,0.0401519,0.0497747,0.0694691,0.00542182,0.274047,-0.358146,0.301811,-0.406941,0.000342044,0,0,0,0,0,0,0,-0.781979,-35.2959,-1.0385,29.617,1.52221,2.17156,-0.0163725,
0.0368354,-0.011909,0.0856003,-1.80607,0.0935432,0.0341096,0.0496233,0.165608,-0.00605629,0.166654,-0.365697,0.841221,-0.408507,-0.00832607,0,0,0,0,0,0,0,19.9529,-1.25709,20.0527,-35.2039,10.7258,-4.05677,-0.0964821,0.0342852,-0.011917,0.0830131,-1.80018,0.0832724,0.0401519,0.0497747,0.0694691,0.00542182,0.274047,-0.358146,0.301811,-0.406941,0.000342044,0,0,0,0,0,0,0,-0.781979,-35.2959,-1.0385,29.617,1.52221,2.17156,-0.0163725,
0.0381077,-0.0119244,0.0868811,-1.80905,0.100182,0.0319014,0.0495701,0.164294,-0.00523004,0.165342,-0.367031,0.838956,-0.382009,-0.00799156,0,0,0,0,0,0,0,19.243,-1.82437,19.3433,-34.6596,10.6631,-2.3422,-0.0815522,0.0363724,-0.0118426,0.0917791,-1.81133,0.0932957,0.028385,0.0497709,0.0558906,0.000323577,0.247329,-0.307955,0.289676,-0.297375,-0.000177471,-1.69731,-0.63728,-3.33975,6.27385,-1.5169,13.6958,-0.0649393,-2.27765,-37.1684,-2.46276,30.1923,1.11847,2.54235,0.017502,
0.0393922,-0.0119424,0.0881738,-1.81202,0.107378,0.0303729,0.04953,0.163547,-0.00463201,0.16459,-0.367805,0.851043,-0.343822,-0.00739436,0,0,0,0,0,0,0,18.633,-2.0281,18.7308,-34.2232,10.6631,-1.00553,-0.0666238,0.0363724,-0.0118426,0.0917791,-1.81133,0.0932957,0.028385,0.0497709,0.0558906,0.000323577,0.247329,-0.307955,0.289676,-0.297375,-0.000177471,0,0,0,0,0,0,0,-2.27765,-37.1684,-2.46276,30.1923,1.11847,2.54235,0.017502,
0.0386747,-0.0120666,0.0941174,-1.81696,0.103353,0.0248108,0.0496467,0.159737,-0.00665548,0.160799,-0.365703,0.822779,-0.314243,-0.00728062,0,0,0,0,0,0,0,19.243,-1.82437,19.3433,-34.6596,10.6631,-2.3422,-0.0815522,0.0363724,-0.0118426,0.0917791,-1.81133,0.0932957,0.028385,0.0497709,0.0558906,0.000323577,0.247329,-0.307955,0.289676,-0.297375,-0.000177471,0,0,0,0,0,0,0,-2.27765,-37.1684,-2.46276,30.1923,1.11847,2.54235,0.017502,
0.0398519,-0.0121742,0.0953031,-1.81984,0.109875,0.0237767,0.0496065,0.157219,-0.00801405,0.158281,-0.364496,0.82127,-0.277246,-0.00682834,0,0,0,0,0,0,0,18.633,-2.0281,18.7308,-34.2232,10.6631,-1.00553,-0.0666238,0.0363724,-0.0118426,0.0917791,-1.81133,0.0932957,0.028385,0.0497709,0.0558906,0.000323577,0.247329,-0.307955,0.289676,-0.297375,-0.000177471,0,0,0,0,0,0,0,-2.27765,-37.1684,-2.46276,30.1923,1.11847,2.54235,0.017502,
0.0410546,-0.0122669,0.0965141,-1.8227,0.116958,0.0233126,0.0495784,0.155843,-0.00872848,0.1569,-0.363232,0.834099,-0.233399,-0.00616603,0,0,0,0,0,0,0,18.0751,-2.27737,18.1737,-33.6773,10.6115,0.19388,-0.0520349,0.0385514,-0.0118049,0.100207,-1.82151,0.103989,0.019913,0.0497717,0.0619705,-0.00460393,0.228801,-0.296239,0.311509,-0.225179,0.000168059,0.75998,-0.615938,-2.31595,1.46454,2.72912,9.02453,0.0431913,-0.222592,-34.9468,-0.487047,28.895,1.54052,2.35009,0.0101778,
0.0422801,-0.0123452,0.0977476,-1.82554,0.124422,0.0234123,0.0495613,0.155312,-0.00894057,0.156359,-0.361483,0.853867,-0.184227,-0.00536076,0,0,0,0,0,0,0,17.5759,-2.28945,17.6721,-33.2111,10.6115,1.08862,-0.0376937,0.0385514,-0.0118049,0.100207,-1.82151,0.103989,0.019913,0.0497717,0.0619705,-0.00460393,0.228801,-0.296239,0.311509,-0.225179,0.000168059,0,0,0,0,0,0,0,-0.222592,-34.9468,-0.487047,28.895,1.54052,2.35009,0.0101778,
0.0407755,-0.0121203,0.102465,-1.82706,0.114193,0.0179739,0.0496727,0.152221,-0.0111124,0.153287,-0.359637,0.826213,-0.165493,-0.00533828,0,0,0,0,0,0,0,18.6238,-2.18254,18.7249,-34.1303,10.6115,-0.916168,-0.067189,0.0385514,-0.0118049,0.100207,-1.82151,0.103989,0.019913,0.0497717,0.0619705,-0.00460393,0.228801,-0.296239,0.311509,-0.225179,0.000168059,0,0,0,0,0,0,0,-0.222592,-34.9468,-0.487047,28.895,1.54052,2.35009,0.0101778,
0.0419184,-0.0122579,0.103616,-1.82989,0.120729,0.017758,0.0496441,0.150349,-0.01233,0.151417,-0.358349,0.824377,-0.137791,-0.00498749,0,0,0,0,0,0,0,18.0751,-2.27737,18.1737,-33.6773,10.6115,0.19388,-0.0520349,0.0385514,-0.0118049,0.100207,-1.82151,0.103989,0.019913,0.0497717,0.0619705,-0.00460393,0.228801,-0.296239,0.311509,-0.225179,0.000168059,0,0,0,0,0,0,0,-0.222592,-34.9468,-0.487047,28.895,1.54052,2.35009,0.0101778,
0.0430884,-0.0123735,0.104795,-1.83269,0.127808,0.0180557,0.049627,0.149529,-0.0127554,0.150593,-0.356805,0.836461,-0.102792,-0.00441725,0,0,0,0,0,0,0,17.5694,-2.41748,17.6679,-33.1289,10.559,1.1745,-0.0382469,0.0406338,-0.0116143,0.10786,-1.83211,0.115554,0.0134046,0.049774,0.0597311,-0.00454402,0.220162,-0.295042,0.347172,-0.155285,0.00058673,-0.279924,0.00748884,-1.07992,0.149651,4.45791,8.73669,0.0523339,1.2215,-34.0978,0.961012,26.2051,1.69891,1.83922,-0.00996382,
0.044282,-0.0124703,0.105996,-1.83546,0.135255,0.0188412,0.0496202,0.149462,-0.0126228,0.150519,-0.354691,0.855345,-0.0625938,-0.00370197,0,0,0,0,0,0,0,17.1106,-2.36964,17.2068,-32.6531,10.559,1.90492,-0.0240356,0.0406338,-0.0116143,0.10786,-1.83211,0.115554,0.0134046,0.049774,0.0597311,-0.00454402,0.220162,-0.295042,0.347172,-0.155285,0.00058673,0,0,0,0,0,0,0,1.2215,-34.0978,0.961012,26.2051,1.69891,1.83922,-0.00996382,
0.0427964,-0.0119304,0.110055,-1.83763,0.126011,0.0128419,0.0496997,0.146832,-0.0140315,0.147905,-0.35358,0.829607,-0.0507391,-0.00371536,0,0,0,0,0,0,0,18.0686,-2.40541,18.1694,-33.595,10.559,0.279755,-0.0525881,0.0406338,-0.0116143,0.10786,-1.83211,0.115554,0.0134046,0.049774,0.0597311,-0.00454402,0.220162,-0.295042,0.347172,-0.155285,0.00058673,0,0,0,0,0,0,0,1.2215,-34.0978,0.961012,26.2051,1.69891,1.83922,-0.00996382,
0.0439131,-0.0120654,0.111181,-1.84041,0.132589,0.0132982,0.0496822,0.145382,-0.0145991,0.146456,-0.352547,0.828147,-0.0291841,-0.00340849,0,0,0,0,0,0,0,17.5694,-2.41748,17.6679,-33.1289,10.559,1.1745,-0.0382469,0.0406338,-0.0116143,0.10786,-1.83211,0.115554,0.0134046,0.049774,0.0597311,-0.00454402,0.220162,-0.295042,0.347172,-0.155285,0.00058673,0,0,0,0,0,0,0,1.2215,-34.0978,0.961012,26.2051,1.69891,1.83922,-0.00996382,
0.0450574,-0.0121783,0.112333,-1.84317,0.139681,0.0142145,0.0496756,0.144913,-0.0145017,0.145983,-0.350957,0.839822,-0.000440289,-0.00289253,0,0,0,0,0,0,0,17.1016,-2.49253,17.2014,-32.5789,10.5032,1.97211,-0.0246011,0.042873,-0.0116999,0.115351,-1.84253,0.127801,0.0111193,0.0497695,0.0601851,0.00629024,0.225149,-0.286315,0.371754,-0.0040578,-0.000667743,0.0567602,1.35428,0.623356,1.09089,3.07281,18.9034,-0.156809,0.793033,-32.7727,0.536512,25.1855,1.78405,1.49499,0.0303194,
0.0450454,-0.0119363,0.117558,-1.84794,0.138489,0.0125661,0.0497136,0.143206,-0.0147735,0.144294,-0.349193,0.819515,0.0223071,-0.00282534,0,0,0,0,0,0,0,17.5604,-2.54037,17.6624,-33.0547,10.5032,1.24169,-0.0388124,0.042873,-0.0116999,0.115351,-1.84253,0.127801,0.0111193,0.0497695,0.0601851,0.00629024,0.225149,-0.286315,0.371754,-0.0040578,-0.000667743,0,0,0,0,0,0,0,0.793033,-32.7727,0.536512,25.1855,1.78405,1.49499,0.0303194,
0.0461557,-0.0120524,0.118677,-1.85067,0.145127,0.0138176,0.0497056,0.142323,-0.0147206,0.143413,-0.347512,0.821572,0.0491347,-0.00245953,0,0,0,0,0,0,0,17.1016,-2.49253,17.2014,-32.5789,10.5032,1.97211,-0.0246011,0.042873,-0.0116999,0.115351,-1.84253,0.127801,0.0111193,0.0497695,0.0601851,0.00629024,0.225149,-0.286315,0.371754,-0.0040578,-0.000667743,0,0,0,0,0,0,0,0.793033,-32.7727,0.536512,25.1855,1.78405,1.49499,0.0303194,
0.0472883,-0.0121544,0.119818,-1.85336,0.152256,0.0154091,0.0497093,0.142174,-0.0143272,0.14326,-0.345342,0.835464,0.0790939,-0.00187702,0,0,0,0,0,0,0,16.6748,-2.40546,16.7723,-32.099,10.5032,2.54879,-0.0110203,0.042873,-0.0116999,0.115351,-1.84253,0.127801,0.0111193,0.0497695,0.0601851,0.00629024,0.225149,-0.286315,0.371754,-0.0040578,-0.000667743,0,0,0,0,0,0,0,0.793033,-32.7727,0.536512,25.1855,1.78405,1.49499,0.0303194,
0.0484397,-0.0122441,0.120978,-1.85601,0.159719,0.0173183,0.0497232,0.142524,-0.0137038,0.143603,-0.34256,0.854943,0.111006,-0.00115313,0,0,0,0,0,0,0,16.2723,-2.37099,16.3702,-31.5702,10.4598,3.07264,0.00305352,0.0447312,-0.0115387,0.123222,-1.8528,0.139964,0.011173,0.0497743,0.054552,0.0086427,0.239096,-0.303984,0.348264,0.00531322,0.00160045,-0.704145,0.294058,1.74348,-2.20861,-2.93625,1.17138,0.283524,0.638309,-34.1454,0.389723,25.733,1.8637,1.28899,-0.0163725,
0.0469244,-0.011684,0.125451,-1.8583,0.150437,0.0130351,0.0497395,0.141416,-0.0129559,0.142514,-0.343151,0.829407,0.117453,-0.00118122,0,0,0,0,0,0,0,17.104,-2.56956,17.2061,-32.5313,10.4598,2.02852,-0.0248569,0.0447312,-0.0115387,0.123222,-1.8528,0.139964,0.011173,0.0497743,0.054552,0.0086427,0.239096,-0.303984,0.348264,0.00531322,0.00160045,0,0,0,0,0,0,0,0.638309,-34.1454,0.389723,25.733,1.8637,1.28899,-0.0163725,
0.0480307,-0.0117566,0.126566,-1.86103,0.157011,0.0145564,0.0497422,0.14079,-0.0121778,0.141891,-0.342794,0.827879,0.131995,-0.000877026,0,0,0,0,0,0,0,16.6771,-2.4825,16.777,-32.0514,10.4598,2.60519,-0.0112762,0.0447312,-0.0115387,0.123222,-1.8528,0.139964,0.011173,0.0497743,0.054552,0.0086427,0.239096,-0.303984,0.348264,0.00531322,0.00160045,0,0,0,0,0,0,0,0.638309,-34.1454,0.389723,25.733,1.8637,1.28899,-0.0163725,
0.0491524,-0.0118208,0.127697,-1.86371,0.16409,0.0164182,0.0497559,0.140674,-0.0113476,0.141771,-0.341294,0.839273,0.152143,-0.000359245,0,0,0,0,0,0,0,16.2723,-2.37099,16.3702,-31.5702,10.4598,3.07264,0.00305352,0.0447312,-0.0115387,0.123222,-1.8528,0.139964,0.011173,0.0497743,0.054552,0.0086427,0.239096,-0.303984,0.348264,0.00531322,0.00160045,0,0,0,0,0,0,0,0.638309,-34.1454,0.389723,25.733,1.8637,1.28899,-0.0163725,
0.0502872,-0.011879,0.12884,-1.86634,0.171513,0.0185848,0.0497789,0.140909,-0.0105338,0.141998,-0.33879,0.856987,0.175878,0.000286581,0,0,0,0,0,0,0,15.8583,-2.34375,15.9562,-31.0503,10.4108,3.48066,0.0163052,0.0465974,-0.0113164,0.131178,-1.86267,0.152034,0.0114348,0.0497725,0.0581215,0.0131254,0.230591,-0.281636,0.344334,0.0269272,0.00022875,0.446185,0.560341,-1.06313,2.79339,-0.491271,2.70175,-0.171462,0.209842,-32.1736,0.0644055,23.8129,1.8399,0.984122,0.00376909,
0.0487448,-0.0114815,0.13336,-1.86805,0.162484,0.0140319,0.0497578,0.139537,-0.0107063,0.140643,-0.338892,0.830715,0.178953,0.000246735,0,0,0,0,0,0,0,16.6723,-2.57998,16.7742,-32.008,10.4108,2.65331,-0.0114947,0.0465974,-0.0113164,0.131178,-1.86267,0.152034,0.0114348,0.0497725,0.0581215,0.0131254,0.230591,-0.281636,0.344334,0.0269272,0.00022875,0,0,0,0,0,0,0,0.209842,-32.1736,0.0644055,23.8129,1.8399,0.984122,0.00376909,
0.0498267,-0.0115623,0.134451,-1.87073,0.169041,0.0159203,0.0497709,0.138677,-0.0105855,0.139784,-0.338158,0.828479,0.190373,0.000526502,0,0,0,0,0,0,0,16.2675,-2.46847,16.3674,-31.5269,10.4108,3.12076,0.00283494,0.0465974,-0.0113164,0.131178,-1.86267,0.152034,0.0114348,0.0497725,0.0581215,0.0131254,0.230591,-0.281636,0.344334,0.0269272,0.00022875,0,0,0,0,0,0,0,0.209842,-32.1736,0.0644055,23.8129,1.8399,0.984122,0.00376909,
0.0509223,-0.0116323,0.135555,-1.87336,0.176099,0.0181173,0.0497939,0.138334,-0.0102165,0.139436,-0.336326,0.839241,0.207223,0.000995869,0,0,0,0,0,0,0,15.8583,-2.34375,15.9562,-31.0503,10.4108,3.48066,0.0163052,0.0465974,-0.0113164,0.131178,-1.86267,0.152034,0.0114348,0.0497725,0.0581215,0.0131254,0.230591,-0.281636,0.344334,0.0269272,0.00022875,0,0,0,0,0,0,0,0.209842,-32.1736,0.0644055,23.8129,1.8399,0.984122,0.00376909,
0.048726,-0.0114612,0.133341,-1.86802,0.162508,0.0142889,0.0497792,0.137171,-0.0101333,0.138283,-0.336479,0.816856,0.207803,0.001078,0,0,0,0,0,0,0,16.2675,-2.46847,16.3674,-31.5269,10.4108,3.12076,0.00283494,0.0465974,-0.0113164,0.131178,-1.86267,0.152034,0.0114348,0.0497725,0.0581215,0.0131254,0.230591,-0.281636,0.344334,0.0269272,0.00022875,0,0,0,0,0,0,0,0.209842,-32.1736,0.0644055,23.8129,1.8399,0.984122,0.00376909,
0.0497907,-0.0115271,0.134414,-1.87068,0.169079,0.0163432,0.0498018,0.136355,-0.00975294,0.137462,-0.335592,0.817771,0.2176,0.00142649,0,0,0,0,0,0,0,15.857,-2.43433,15.9572,-31.0123,10.368,3.52225,0.0161111,0.0485099,-0.0111832,0.139127,-1.87223,0.163394,0.0128972,0.0497725,0.0533533,0.0120897,0.229548,-0.282549,0.332192,0.0511506,-5.34107e-05,-0.596026,-0.129464,-0.130381,-0.114102,-1.5178,3.02792,-0.0352701,0.158268,-32.5505,-0.0387439,25.5823,1.95526,1.26977,0.00376909,
0.0508648,-0.0115818,0.135497,-1.87328,0.176153,0.0187022,0.0498344,0.135938,-0.00916931,0.137037,-0.333507,0.831062,0.233057,0.0019559,0,0,0,0,0,0,0,15.4318,-2.30233,15.5302,-30.5422,10.368,3.80821,0.0281929,0.0485099,-0.0111832,0.139127,-1.87223,0.163394,0.0128972,0.0497725,0.0533533,0.0120897,0.229548,-0.282549,0.332192,0.0511506,-5.34107e-05,0,0,0,0,0,0,0,0.158268,-32.5505,-0.0387439,25.5823,1.95526,1.26977,0.00376909,
0.0519459,-0.01163,0.136586,-1.87583,0.18357,0.0213151,0.0498739,0.135778,-0.00854165,0.136866,-0.330459,0.850278,0.251767,0.00255241,0,0,0,0,0,0,0,14.9928,-2.16923,15.0895,-30.0836,10.368,4.02864,0.040628,0.0485099,-0.0111832,0.139127,-1.87223,0.163394,0.0128972,0.0497725,0.0533533,0.0120897,0.229548,-0.282549,0.332192,0.0511506,-5.34107e-05,0,0,0,0,0,0,0,0.158268,-32.5505,-0.0387439,25.5823,1.95526,1.26977,0.00376909,
0.0505888,-0.0113156,0.141241,-1.87754,0.173727,0.0161843,0.0497988,0.134487,-0.00858859,0.135589,-0.331134,0.824117,0.248916,0.00255891,0,0,0,0,0,0,0,15.857,-2.43433,15.9572,-31.0123,10.368,3.52225,0.0161111,0.0485099,-0.0111832,0.139127,-1.87223,0.163394,0.0128972,0.0497725,0.0533533,0.0120897,0.229548,-0.282549,0.332192,0.0511506,-5.34107e-05,0,0,0,0,0,0,0,0.158268,-32.5505,-0.0387439,25.5823,1.95526,1.26977,0.00376909,
0.0516259,-0.0113726,0.142287,-1.88017,0.180247,0.0184485,0.0498309,0.133518,-0.00829418,0.13462,-0.330515,0.822289,0.255739,0.0028513,0,0,0,0,0,0,0,15.427,-2.39993,15.5263,-30.5076,10.3282,3.84289,0.0281838,0.0502711,-0.0108652,0.146567,-1.88141,0.173724,0.0141697,0.0497709,0.0497475,0.00675513,0.221797,-0.246931,0.276785,0.0247239,-0.000122618,-0.450717,-0.666822,-0.96889,4.45228,-6.92591,-3.30334,-0.00865089,0.309024,-34.8436,0.0128308,27.1771,1.97998,1.6076,0.017502,
0.0526699,-0.0114193,0.14334,-1.88273,0.187278,0.0210015,0.0498706,0.132914,-0.00780395,0.134011,-0.328572,0.833617,0.268415,0.00327135,0,0,0,0,0,0,0,14.988,-2.26684,15.0856,-30.049,10.3282,4.06333,0.0406188,0.0502711,-0.0108652,0.146567,-1.88141,0.173724,0.0141697,0.0497709,0.0497475,0.00675513,0.221797,-0.246931,0.276785,0.0247239,-0.000122618,0,0,0,0,0,0,0,0.309024,-34.8436,0.0128308,27.1771,1.97998,1.6076,0.017502,
0.0505888,-0.0113156,0.141241,-1.87754,0.173727,0.0161843,0.0497988,0.132196,-0.00799843,0.133305,-0.329625,0.810788,0.262234,0.00313406,0,0,0,0,0,0,0,15.427,-2.39993,15.5263,-30.5076,10.3282,3.84289,0.0281838,0.0502711,-0.0108652,0.146567,-1.88141,0.173724,0.0141697,0.0497709,0.0497475,0.00675513,0.221797,-0.246931,0.276785,0.0247239,-0.000122618,0,0,0,0,0,0,0,0.309024,-34.8436,0.0128308,27.1771,1.97998,1.6076,0.017502,
0.0532408,-0.0112517,0.14958,-1.8891,0.189995,0.0200926,0.0498547,0.130493,-0.00907224,0.131599,-0.327755,0.808388,0.270546,0.00349771,0,0,0,0,0,0,0,14.988,-2.26684,15.0856,-30.049,10.3282,4.06333,0.0406188,0.0502711,-0.0108652,0.146567,-1.88141,0.173724,0.0141697,0.0497709,0.0497475,0.00675513,0.221797,-0.246931,0.276785,0.0247239,-0.000122618,0,0,0,0,0,0,0,0.309024,-34.8436,0.0128308,27.1771,1.97998,1.6076,0.017502,
0.0542381,-0.0113335,0.150586,-1.8916,0.196932,0.0228071,0.0499023,0.129328,-0.0093017,0.130427,-0.324895,0.820121,0.2843,0.0039871,0,0,0,0,0,0,0,14.4977,-2.20851,14.5927,-29.5818,10.291,4.26977,0.049691,0.0525179,-0.0103137,0.15317,-1.88901,0.18304,0.0151795,0.0497732,0.0706454,0.0183998,0.182116,-0.220628,0.263659,0.0190098,0.000677756,2.61224,1.45558,-4.9602,3.28787,-1.64068,-0.714261,0.100047,-0.730404,-32.5743,-0.812364,24.761,1.8637,1.38878,-0.0026396,
0.0552397,-0.011398,0.151596,-1.89406,0.204242,0.0257334,0.0499553,0.128502,-0.00905425,0.129592,-0.321187,0.838858,0.300597,0.00451352,0,0,0,0,0,0,0,13.9972,-2.04656,14.0908,-29.1343,10.291,4.39312,0.0596645,0.0525179,-0.0103137,0.15317,-1.88901,0.18304,0.0151795,0.0497732,0.0706454,0.0183998,0.182116,-0.220628,0.263659,0.0190098,0.000677756,0,0,0,0,0,0,0,-0.730404,-32.5743,-0.812364,24.761,1.8637,1.38878,-0.0026396,
0.0543741,-0.0105561,0.155055,-1.89401,0.192793,0.0189648,0.0498341,0.125954,-0.0103908,0.127048,-0.320748,0.808911,0.295655,0.0045624,0,0,0,0,0,0,0,14.981,-2.33923,15.0775,-30.0207,10.291,4.09607,0.0405172,0.0525179,-0.0103137,0.15317,-1.88901,0.18304,0.0151795,0.0497732,0.0706454,0.0183998,0.182116,-0.220628,0.263659,0.0190098,0.000677756,0,0,0,0,0,0,0,-0.730404,-32.5743,-0.812364,24.761,1.8637,1.38878,-0.0026396,
0.0553091,-0.0106535,0.155999,-1.89653,0.199128,0.0215515,0.0498819,0.124137,-0.0107494,0.125227,-0.319636,0.805481,0.301192,0.00484359,0,0,0,0,0,0,0,14.4977,-2.20851,14.5927,-29.5818,10.291,4.26977,0.049691,0.0525179,-0.0103137,0.15317,-1.88901,0.18304,0.0151795,0.0497732,0.0706454,0.0183998,0.182116,-0.220628,0.263659,0.0190098,0.000677756,0,0,0,0,0,0,0,-0.730404,-32.5743,-0.812364,24.761,1.8637,1.38878,-0.0026396,
0.0562544,-0.010726,0.156952,-1.899,0.206014,0.0244011,0.0499355,0.122942,-0.0104118,0.124022,-0.317367,0.816537,0.312193,0.00521426,0,0,0,0,0,0,0,13.995,-2.10346,14.0872,-29.1055,10.2561,4.4302,0.0594806,0.054773,-0.00978175,0.158789,-1.89621,0.192566,0.0158441,0.0497709,0.0795119,0.0291382,0.15728,-0.222111,0.285935,0.012176,-0.00029293,1.10831,1.3423,-3.1045,-0.185318,2.78448,-0.854219,-0.121336,-1.49212,-32.6735,-1.53838,27.0779,1.88202,1.70739,0.017502,
0.0572045,-0.0107815,0.15791,-1.90141,0.213281,0.0274334,0.0499872,0.122107,-0.00971592,0.123173,-0.314108,0.834902,0.325561,0.0054637,0,0,0,0,0,0,0,13.4404,-1.92914,13.5309,-28.6608,10.2561,4.50444,0.0669181,0.054773,-0.00978175,0.158789,-1.89621,0.192566,0.0158441,0.0497709,0.0795119,0.0291382,0.15728,-0.222111,0.285935,0.012176,-0.00029293,0,0,0,0,0,0,0,-1.49212,-32.6735,-1.53838,27.0779,1.88202,1.70739,0.017502,
0.0565364,-0.00990312,0.160578,-1.90122,0.202454,0.0196677,0.0498478,0.119744,-0.00956078,0.120813,-0.314972,0.806763,0.316442,0.0055315,0,0,0,0,0,0,0,14.4955,-2.2654,14.5891,-29.5531,10.2561,4.30685,0.0495072,0.054773,-0.00978175,0.158789,-1.89621,0.192566,0.0158441,0.0497709,0.0795119,0.0291382,0.15728,-0.222111,0.285935,0.012176,-0.00029293,0,0,0,0,0,0,0,-1.49212,-32.6735,-1.53838,27.0779,1.88202,1.70739,0.017502,
0.0574299,-0.00995583,0.16148,-1.90373,0.208799,0.0222944,0.0499016,0.118133,-0.00896639,0.119196,-0.314682,0.804055,0.318821,0.00577129,0,0,0,0,0,0,0,13.995,-2.10346,14.0872,-29.1055,10.2561,4.4302,0.0594806,0.054773,-0.00978175,0.158789,-1.89621,0.192566,0.0158441,0.0497709,0.0795119,0.0291382,0.15728,-0.222111,0.285935,0.012176,-0.00029293,0,0,0,0,0,0,0,-1.49212,-32.6735,-1.53838,27.0779,1.88202,1.70739,0.017502,
0.0583333,-0.00999137,0.162391,-1.90618,0.215682,0.0251772,0.0499539,0.117093,-0.00806167,0.118141,-0.312895,0.815307,0.327127,0.00592473,0,0,0,0,0,0,0,13.4461,-2.00757,13.5358,-28.6199,10.224,4.54554,0.0667656,0.0569208,-0.00936086,0.164754,-1.90395,0.202134,0.0160677,0.0497695,0.0516695,0.00683608,0.185896,-0.225984,0.278676,0.00395333,-0.000697899,-3.48029,-2.78777,3.57704,-0.484163,-0.907442,-1.02784,-0.0506211,-0.0956386,-33.4471,-0.213304,28.5736,2.24823,1.94543,0.0303194,
0.0586695,-0.00964716,0.166532,-1.90887,0.211962,0.0198325,0.0498598,0.115483,-0.00984479,0.11653,-0.312728,0.7906,0.317419,0.00604254,0,0,0,0,0,0,0,14.0007,-2.18189,14.0922,-29.0646,10.224,4.47129,0.0593281,0.0569208,-0.00936086,0.164754,-1.90395,0.202134,0.0160677,0.0497695,0.0516695,0.00683608,0.185896,-0.225984,0.278676,0.00395333,-0.000697899,0,0,0,0,0,0,0,-0.0956386,-33.4471,-0.213304,28.5736,2.24823,1.94543,0.0303194,
0.0595452,-0.00974284,0.167415,-1.91133,0.218302,0.0224672,0.049912,0.11428,-0.0102679,0.115315,-0.311567,0.790972,0.319802,0.00613914,0,0,0,0,0,0,0,13.4461,-2.00757,13.5358,-28.6199,10.224,4.54554,0.0667656,0.0569208,-0.00936086,0.164754,-1.90395,0.202134,0.0160677,0.0497695,0.0516695,0.00683608,0.185896,-0.225984,0.278676,0.00395333,-0.000697899,0,0,0,0,0,0,0,-0.0956386,-33.4471,-0.213304,28.5736,2.24823,1.94543,0.0303194,
0.0604339,-0.00980597,0.168312,-1.91372,0.22504,0.0253661,0.0499626,0.113641,-0.0097926,0.114661,-0.3089,0.801235,0.328315,0.00617524,0,0,0,0,0,0,0,12.8443,-1.82504,12.931,-28.1853,10.224,4.56681,0.0650237,0.0569208,-0.00936086,0.164754,-1.90395,0.202134,0.0160677,0.0497695,0.0516695,0.00683608,0.185896,-0.225984,0.278676,0.00395333,-0.000697899,0,0,0,0,0,0,0,-0.0956386,-33.4471,-0.213304,28.5736,2.24823,1.94543,0.0303194,
0.0613534,-0.00984784,0.169239,-1.91601,0.231606,0.0284377,0.0500123,0.1139,-0.00888084,0.114902,-0.304599,0.805128,0.339442,0.00618177,0,0,0,0,0,0,0,12.301,-1.67721,12.3834,-27.6768,9.67605,4.61376,0.0622359,0.0582335,-0.00862005,0.171728,-1.91132,0.210845,0.016555,0.0497709,0.0352293,0.0102536,0.218346,-0.209903,0.231699,0.0171234,-0.000764798,-2.05503,0.427191,4.05624,2.01015,-5.87206,1.64626,-0.00836238,-0.147213,-32.9234,-0.260912,24.6857,2.10815,1.19012,0.017502,
0.0600136,-0.00891047,0.17354,-1.91613,0.220368,0.0205641,0.0498602,0.11306,-0.0105897,0.114054,-0.304936,0.779772,0.330014,0.00616581,0,0,0,0,0,0,0,13.4437,-2.07914,13.5304,-28.5744,10.1941,4.58676,0.0666373,0.0582335,-0.00862005,0.171728,-1.91132,0.210845,0.016555,0.0497709,0.0352293,0.0102536,0.218346,-0.209903,0.231699,0.0171234,-0.000764798,0,0,0,0,0,0,0,-0.147213,-32.9234,-0.260912,24.6857,2.10815,1.19012,0.017502,
0.0608886,-0.00900661,0.174423,-1.91853,0.226505,0.0232797,0.0499097,0.112323,-0.0108752,0.113302,-0.304034,0.777253,0.331899,0.00617083,0,0,0,0,0,0,0,12.8419,-1.89661,12.9256,-28.1398,10.1941,4.60803,0.0648954,0.0582335,-0.00862005,0.171728,-1.91132,0.210845,0.016555,0.0497709,0.0352293,0.0102536,0.218346,-0.209903,0.231699,0.0171234,-0.000764798,0,0,0,0,0,0,0,-0.147213,-32.9234,-0.260912,24.6857,2.10815,1.19012,0.017502,
0.0617884,-0.00906853,0.17533,-1.92085,0.232667,0.0262328,0.049959,0.112353,-0.0102484,0.113317,-0.301154,0.775845,0.339349,0.00617079,0,0,0,0,0,0,0,12.301,-1.67721,12.3834,-27.6768,9.67605,4.61376,0.0622359,0.0582335,-0.00862005,0.171728,-1.91132,0.210845,0.016555,0.0497709,0.0352293,0.0102536,0.218346,-0.209903,0.231699,0.0171234,-0.000764798,0,0,0,0,0,0,0,-0.147213,-32.9234,-0.260912,24.6857,2.10815,1.19012,0.017502,
0.0627175,-0.00911242,0.176266,-1.92308,0.238486,0.0293429,0.0500058,0.113112,-0.00929575,0.11406,-0.296756,0.766144,0.349231,0.00610622,0,0,0,0,0,0,0,11.8403,-1.52294,11.9196,-27.1513,8.00768,4.63429,0.0591832,0.059305,-0.00789687,0.178978,-1.91864,0.218519,0.0171491,0.049768,0.0360288,0.00629874,0.211951,-0.222928,0.212785,0.0174365,-0.00142745,0.0999298,-0.494359,-0.799393,-1.62814,-2.3643,0.0391356,-0.0828316,-0.476498,-31.1778,-0.510851,22.4203,2.05963,1.0244,0.0440523,
0.0610362,-0.00815672,0.180739,-1.92345,0.227693,0.0210549,0.0498542,0.111865,-0.0104094,0.112802,-0.298206,0.742831,0.336577,0.00606658,0,0,0,0,0,0,0,12.8435,-1.96987,12.924,-28.0998,10.1699,4.64671,0.0647382,0.059305,-0.00789687,0.178978,-1.91864,0.218519,0.0171491,0.049768,0.0360288,0.00629874,0.211951,-0.222928,0.212785,0.0174365,-0.00142745,0,0,0,0,0,0,0,-0.476498,-31.1778,-0.510851,22.4203,2.05963,1.0244,0.0440523,
0.0619067,-0.00823162,0.181617,-1.92581,0.233223,0.0237263,0.0499032,0.111255,-0.0102,0.112179,-0.297516,0.732526,0.336046,0.00607735,0,0,0,0,0,0,0,12.3025,-1.75048,12.3818,-27.6369,9.65177,4.65245,0.0620786,0.059305,-0.00789687,0.178978,-1.91864,0.218519,0.0171491,0.049768,0.0360288,0.00629874,0.211951,-0.222928,0.212785,0.0174365,-0.00142745,0,0,0,0,0,0,0,-0.476498,-31.1778,-0.510851,22.4203,2.05963,1.0244,0.0440523,
0.0628048,-0.00827819,0.182522,-1.92808,0.23861,0.0266458,0.0499501,0.111457,-0.00932436,0.112367,-0.294743,0.720685,0.341826,0.006034,0,0,0,0,0,0,0,11.8403,-1.52294,11.9196,-27.1513,8.00768,4.63429,0.0591832,0.059305,-0.00789687,0.178978,-1.91864,0.218519,0.0171491,0.049768,0.0360288,0.00629874,0.211951,-0.222928,0.212785,0.0174365,-0.00142745,0,0,0,0,0,0,0,-0.476498,-31.1778,-0.510851,22.4203,2.05963,1.0244,0.0440523,
0.0637299,-0.00831181,0.183454,-1.93027,0.243594,0.0297281,0.0499945,0.112291,-0.00830007,0.113187,-0.290487,0.701145,0.350517,0.00593696,0,0,0,0,0,0,0,11.4608,-1.32073,11.5398,-26.6621,6.62051,4.58935,0.0554233,0.059305,-0.00789687,0.178978,-1.91864,0.218519,0.0171491,0.049768,0.0360288,0.00629874,0.211951,-0.222928,0.212785,0.0174365,-0.00142745,0,0,0,0,0,0,0,-0.476498,-31.1778,-0.510851,22.4203,2.05963,1.0244,0.0440523,
0.061044,-0.00812936,0.180747,-1.92337,0.227037,0.0209985,0.0498514,0.111472,-0.00923884,0.112364,-0.291811,0.677731,0.336773,0.0059083,0,0,0,0,0,0,0,12.3025,-1.75048,12.3818,-27.6369,9.65177,4.65245,0.0620786,0.059305,-0.00789687,0.178978,-1.91864,0.218519,0.0171491,0.049768,0.0360288,0.00629874,0.211951,-0.222928,0.212785,0.0174365,-0.00142745,0,0,0,0,0,0,0,-0.476498,-31.1778,-0.510851,22.4203,2.05963,1.0244,0.0440523,
0.0619246,-0.00819344,0.181634,-1.92567,0.231862,0.0236355,0.0498976,0.111193,-0.00899325,0.112076,-0.291036,0.662798,0.335343,0.005883,0,0,0,0,0,0,0,11.8403,-1.52294,11.9196,-27.1513,8.00768,4.63429,0.0591832,0.059305,-0.00789687,0.178978,-1.91864,0.218519,0.0171491,0.049768,0.0360288,0.00629874,0.211951,-0.222928,0.212785,0.0174365,-0.00142745,0,0,0,0,0,0,0,-0.476498,-31.1778,-0.510851,22.4203,2.05963,1.0244,0.0440523,
0.0628281,-0.0082326,0.182544,-1.92789,0.236472,0.0265181,0.049942,0.11154,-0.00817359,0.112414,-0.288314,0.64548,0.340339,0.00581549,0,0,0,0,0,0,0,11.4608,-1.32073,11.5398,-26.6621,6.62051,4.58935,0.0554233,0.059305,-0.00789687,0.178978,-1.91864,0.218519,0.0171491,0.049768,0.0360288,0.00629874,0.211951,-0.222928,0.212785,0.0174365,-0.00142745,0,0,0,0,0,0,0,-0.476498,-31.1778,-0.510851,22.4203,2.05963,1.0244,0.0440523,
0.0610757,-0.00810477,0.180778,-1.92327,0.225945,0.0209258,0.0498482,0.111266,-0.00885943,0.112136,-0.288745,0.616931,0.32766,0.00574422,0,0,0,0,0,0,0,11.8403,-1.52294,11.9196,-27.1513,8.00768,4.63429,0.0591832,0.059305,-0.00789687,0.178978,-1.91864,0.218519,0.0171491,0.049768,0.0360288,0.00629874,0.211951,-0.222928,0.212785,0.0174365,-0.00142745,0,0,0,0,0,0,0,-0.476498,-31.1778,-0.510851,22.4203,2.05963,1.0244,0.0440523,
0.061967,-0.00816112,0.181676,-1.92552,0.230031,0.0235215,0.0498919,0.111296,-0.00849611,0.112157,-0.287344,0.59569,0.327021,0.00568745,0,0,0,0,0,0,0,11.4596,-1.38122,11.5354,-26.6195,6.60062,4.63292,0.0552477,0.0604392,-0.00721797,0.186204,-1.92627,0.225483,0.0180008,0.0497725,0.0396847,0.0303533,0.220167,-0.231147,0.192243,0.0132938,-2.54778e-05,0.456987,3.00683,1.02705,-1.02742,-2.56769,-0.517828,0.175247,-0.424923,-30.9755,-0.487047,22.9916,2.01019,0.997854,0.00376909,
0.0628754,-0.00819493,0.182591,-1.92769,0.233879,0.0263622,0.049935,0.111747,-0.00764233,0.112599,-0.284243,0.572767,0.332635,0.00562679,0,0,0,0,0,0,0,11.1762,-1.2169,11.2515,-26.1321,5.4013,4.57468,0.0522535,0.0604392,-0.00721797,0.186204,-1.92627,0.225483,0.0180008,0.0497725,0.0396847,0.0303533,0.220167,-0.231147,0.192243,0.0132938,-2.54778e-05,0,0,0,0,0,0,0,-0.424923,-30.9755,-0.487047,22.9916,2.01019,0.997854,0.00376909,
0.0638004,-0.00821948,0.183522,-1.9298,0.237333,0.0293634,0.0499777,0.112522,-0.0067276,0.113364,-0.279965,0.544562,0.341137,0.00557065,0,0,0,0,0,0,0,10.9793,-1.09437,11.0539,-25.6496,4.3483,4.51835,0.0509905,0.0604392,-0.00721797,0.186204,-1.92627,0.225483,0.0180008,0.0497725,0.0396847,0.0303533,0.220167,-0.231147,0.192243,0.0132938,-2.54778e-05,0,0,0,0,0,0,0,-0.424923,-30.9755,-0.487047,22.9916,2.01019,0.997854,0.00376909,
0.0622905,-0.00717192,0.188085,-1.93092,0.231793,0.0216217,0.0498469,0.112948,-0.00501439,0.113783,-0.282281,0.520314,0.326224,0.0054717,0,0,0,0,0,0,0,11.4596,-1.38122,11.5354,-26.6195,6.60062,4.63292,0.0552477,0.0604392,-0.00721797,0.186204,-1.92627,0.225483,0.0180008,0.0497725,0.0396847,0.0303533,0.220167,-0.231147,0.192243,0.0132938,-2.54778e-05,0,0,0,0,0,0,0,-0.424923,-30.9755,-0.487047,22.9916,2.01019,0.997854,0.00376909,
0.0632076,-0.00714988,0.189008,-1.93317,0.235179,0.0241359,0.0498888,0.113287,-0.00346048,0.114108,-0.282159,0.500892,0.323836,0.00542542,0,0,0,0,0,0,0,11.1646,-1.3155,11.2354,-26.0977,5.37605,4.60087,0.0522258,0.0615355,-0.00644789,0.192721,-1.93326,0.231029,0.0183759,0.049774,0.0322331,0.0367965,0.18573,-0.179554,0.127307,0.0182755,0.000600783,-0.931448,0.805396,-4.30468,6.44911,-8.11704,0.622707,0.0782827,-1.92059,-33.2726,-2.01048,25.1578,1.80877,1.12328,-0.00996382,
0.0641325,-0.00712671,0.189939,-1.93534,0.238319,0.0269008,0.0499311,0.113752,-0.00218913,0.11456,-0.279923,0.479218,0.32819,0.00539699,0,0,0,0,0,0,0,10.9677,-1.19296,11.0378,-25.6152,4.32305,4.54454,0.0509628,0.0615355,-0.00644789,0.192721,-1.93326,0.231029,0.0183759,0.049774,0.0322331,0.0367965,0.18573,-0.179554,0.127307,0.0182755,0.000600783,0,0,0,0,0,0,0,-1.92059,-33.2726,-2.01048,25.1578,1.80877,1.12328,-0.00996382,
0.0650662,-0.00711002,0.190879,-1.93743,0.241089,0.0298347,0.0499741,0.114344,-0.00133415,0.115139,-0.276222,0.452624,0.335901,0.00539349,0,0,0,0,0,0,0,10.8358,-1.11237,10.9051,-25.1407,3.40823,4.48782,0.050784,0.0615355,-0.00644789,0.192721,-1.93326,0.231029,0.0183759,0.049774,0.0322331,0.0367965,0.18573,-0.179554,0.127307,0.0182755,0.000600783,0,0,0,0,0,0,0,-1.92059,-33.2726,-2.01048,25.1578,1.80877,1.12328,-0.00996382,
0.0631643,-0.00648328,0.194376,-1.9376,0.235924,0.0224058,0.0498479,0.11199,-0.00186768,0.112781,-0.276145,0.428044,0.327159,0.00534372,0,0,0,0,0,0,0,11.1646,-1.3155,11.2354,-26.0977,5.37605,4.60087,0.0522258,0.0615355,-0.00644789,0.192721,-1.93326,0.231029,0.0183759,0.049774,0.0322331,0.0367965,0.18573,-0.179554,0.127307,0.0182755,0.000600783,0,0,0,0,0,0,0,-1.92059,-33.2726,-2.01048,25.1578,1.80877,1.12328,-0.00996382,
0.0640057,-0.00650404,0.195224,-1.93976,0.238544,0.0250923,0.0498909,0.110627,-0.0020132,0.111408,-0.274831,0.40793,0.328889,0.00535112,0,0,0,0,0,0,0,10.9627,-1.26343,11.0277,-25.5883,4.31117,4.56349,0.0509409,0.0625805,-0.00564939,0.198258,-1.93826,0.23387,0.0187094,0.0497725,0.0311914,0.0319716,0.158806,-0.137962,0.055826,0.00975433,6.78203e-05,-0.130209,-0.603111,-3.36545,5.19905,-8.93512,-1.06514,-0.0666204,-0.500302,-33.1972,-0.661608,26.106,1.91864,1.25603,0.00376909,
0.0648695,-0.00651726,0.196093,-1.94185,0.240943,0.0279952,0.0499349,0.110096,-0.00194094,0.110867,-0.27207,0.386315,0.335684,0.00538088,0,0,0,0,0,0,0,10.8308,-1.18284,10.895,-25.1137,3.39634,4.50677,0.0507621,0.0625805,-0.00564939,0.198258,-1.93826,0.23387,0.0187094,0.0497725,0.0311914,0.0319716,0.158806,-0.137962,0.055826,0.00975433,6.78203e-05,0,0,0,0,0,0,0,-0.500302,-33.1972,-0.661608,26.106,1.91864,1.25603,0.00376909,
0.0640612,-0.00583627,0.199762,-1.94231,0.237427,0.0229317,0.0498467,0.106975,-0.00417144,0.107738,-0.269907,0.357837,0.329682,0.00535618,0,0,0,0,0,0,0,10.9627,-1.26343,11.0277,-25.5883,4.31117,4.56349,0.0509409,0.0625805,-0.00564939,0.198258,-1.93826,0.23387,0.0187094,0.0497725,0.0311914,0.0319716,0.158806,-0.137962,0.055826,0.00975433,6.78203e-05,0,0,0,0,0,0,0,-0.500302,-33.1972,-0.661608,26.106,1.91864,1.25603,0.00376909,
0.0648517,-0.00591669,0.200558,-1.94438,0.239367,0.0257177,0.0498914,0.105341,-0.00534764,0.106093,-0.267557,0.334778,0.333396,0.00540279,0,0,0,0,0,0,0,10.8308,-1.18284,10.895,-25.1137,3.39634,4.50677,0.0507621,0.0625805,-0.00564939,0.198258,-1.93826,0.23387,0.0187094,0.0497725,0.0311914,0.0319716,0.158806,-0.137962,0.055826,0.00975433,6.78203e-05,0,0,0,0,0,0,0,-0.500302,-33.1972,-0.661608,26.106,1.91864,1.25603,0.00376909,
0.0656736,-0.00597764,0.201386,-1.94639,0.241124,0.0287036,0.0499372,0.104822,-0.0058017,0.105561,-0.264363,0.311746,0.341365,0.00546699,0,0,0,0,0,0,0,10.7495,-1.19713,10.8086,-24.6172,2.60053,4.4783,0.051697,0.0634827,-0.0050172,0.203093,-1.94292,0.235032,0.0187472,0.049774,0.035413,0.0131772,0.136714,-0.145069,0.0296916,-0.00605028,0.000724766,0.5277,-2.3493,-2.76147,-0.888332,-3.2668,-1.97558,0.0821182,0.66608,-31.8761,0.536512,26.3797,1.8399,1.30273,-0.00996382,
0.0665209,-0.00602959,0.202238,-1.94835,0.242616,0.0318116,0.0499841,0.10504,-0.00594018,0.105767,-0.260486,0.286686,0.350792,0.00554689,0,0,0,0,0,0,0,10.6949,-1.18686,10.753,-24.1599,1.92281,4.42796,0.0532104,0.0634827,-0.0050172,0.203093,-1.94292,0.235032,0.0187472,0.049774,0.035413,0.0131772,0.136714,-0.145069,0.0296916,-0.00605028,0.000724766,0,0,0,0,0,0,0,0.66608,-31.8761,0.536512,26.3797,1.8399,1.30273,-0.00996382,
0.0648989,-0.00532563,0.20453,-1.94687,0.237654,0.0227215,0.0498539,0.102295,-0.00855348,0.103015,-0.259295,0.265403,0.339153,0.00554719,0,0,0,0,0,0,0,10.8336,-1.24018,10.8936,-25.0833,3.39548,4.52979,0.0506626,0.0634827,-0.0050172,0.203093,-1.94292,0.235032,0.0187472,0.049774,0.035413,0.0131772,0.136714,-0.145069,0.0296916,-0.00605028,0.000724766,0,0,0,0,0,0,0,0.66608,-31.8761,0.536512,26.3797,1.8399,1.30273,-0.00996382,
0.065671,-0.00544031,0.205307,-1.94889,0.23907,0.025437,0.0499005,0.10114,-0.00970977,0.10185,-0.257791,0.247705,0.339211,0.00560303,0,0,0,0,0,0,0,10.7495,-1.19713,10.8086,-24.6172,2.60053,4.4783,0.051697,0.0634827,-0.0050172,0.203093,-1.94292,0.235032,0.0187472,0.049774,0.035413,0.0131772,0.136714,-0.145069,0.0296916,-0.00605028,0.000724766,0,0,0,0,0,0,0,0.66608,-31.8761,0.536512,26.3797,1.8399,1.30273,-0.00996382,
0.066478,-0.00552759,0.206119,-1.95085,0.240321,0.0283759,0.0499482,0.101088,-0.00994975,0.101786,-0.255397,0.229449,0.344842,0.00567645,0,0,0,0,0,0,0,10.6957,-1.24022,10.7509,-24.1254,1.92599,4.45307,0.0530945,0.0646767,-0.00457172,0.207481,-1.94782,0.235225,0.0188804,0.0497747,0.0388931,0.0107229,0.135474,-0.152503,9.81127e-05,0.00556561,0.000759357,0.435007,-0.306786,-0.154996,-0.929351,-3.69918,1.45199,0.00432387,0.840641,-32.5505,0.786451,26.4789,1.87011,1.28899,-0.0163725,
0.0673117,-0.00560054,0.206958,-1.95277,0.241347,0.0314511,0.049997,0.10171,-0.00978347,0.102398,-0.252269,0.209217,0.352754,0.00575884,0,0,0,0,0,0,0,10.6591,-1.2563,10.7132,-23.6762,1.34986,4.40695,0.0551874,0.0646767,-0.00457172,0.207481,-1.94782,0.235225,0.0188804,0.0497747,0.0388931,0.0107229,0.135474,-0.152503,9.81127e-05,0.00556561,0.000759357,0,0,0,0,0,0,0,0.840641,-32.5505,0.786451,26.4789,1.87011,1.28899,-0.0163725,
0.0661184,-0.00486468,0.208942,-1.95173,0.237032,0.0228408,0.0498574,0.0999254,-0.0114322,0.100606,-0.251932,0.192594,0.340294,0.00574587,0,0,0,0,0,0,0,10.7504,-1.25049,10.8065,-24.5826,2.60371,4.50341,0.0515811,0.0646767,-0.00457172,0.207481,-1.94782,0.235225,0.0188804,0.0497747,0.0388931,0.0107229,0.135474,-0.152503,9.81127e-05,0.00556561,0.000759357,0,0,0,0,0,0,0,0.840641,-32.5505,0.786451,26.4789,1.87011,1.28899,-0.0163725,
0.0668987,-0.00497539,0.209727,-1.95371,0.23801,0.0255348,0.0499054,0.0994467,-0.0119136,0.100116,-0.251073,0.178531,0.339584,0.00579637,0,0,0,0,0,0,0,10.6957,-1.24022,10.7509,-24.1254,1.92599,4.45307,0.0530945,0.0646767,-0.00457172,0.207481,-1.94782,0.235225,0.0188804,0.0497747,0.0388931,0.0107229,0.135474,-0.152503,9.81127e-05,0.00556561,0.000759357,0,0,0,0,0,0,0,0.840641,-32.5505,0.786451,26.4789,1.87011,1.28899,-0.0163725,
0.0677097,-0.00506219,0.210543,-1.95564,0.238848,0.0284509,0.0499545,0.099833,-0.0117008,0.100491,-0.249216,0.163769,0.344571,0.00586449,0,0,0,0,0,0,0,10.6591,-1.2563,10.7132,-23.6762,1.34986,4.40695,0.0551874,0.0646767,-0.00457172,0.207481,-1.94782,0.235225,0.0188804,0.0497747,0.0388931,0.0107229,0.135474,-0.152503,9.81127e-05,0.00556561,0.000759357,0,0,0,0,0,0,0,0.840641,-32.5505,0.786451,26.4789,1.87011,1.28899,-0.0163725,
0.0674837,-0.004166,0.213387,-1.95702,0.236457,0.0231874,0.0498597,0.0976668,-0.012695,0.0983185,-0.24857,0.148374,0.333282,0.00590238,0,0,0,0,0,0,0,10.6941,-1.29633,10.7444,-24.088,1.92898,4.47997,0.0529655,0.0661175,-0.0038983,0.212004,-1.95318,0.235181,0.0192663,0.0497709,0.0391235,0.0108685,0.116198,-0.154911,0.000764126,0.00693128,-0.000701171,0.0288006,0.018196,-2.40958,-0.301006,0.0832516,0.170708,-0.182566,-1.21045,-33.0504,-1.16149,25.733,1.84539,1.47484,0.017502,
0.0682421,-0.00427103,0.21415,-1.95896,0.237089,0.0258669,0.04991,0.0970917,-0.0127817,0.0977309,-0.247482,0.134498,0.333613,0.00597822,0,0,0,0,0,0,0,10.6575,-1.31241,10.7067,-23.6388,1.35286,4.43385,0.0550584,0.0661175,-0.0038983,0.212004,-1.95318,0.235181,0.0192663,0.0497709,0.0391235,0.0108685,0.116198,-0.154911,0.000764126,0.00693128,-0.000701171,0,0,0,0,0,0,0,-1.21045,-33.0504,-1.16149,25.733,1.84539,1.47484,0.017502,
0.0690355,-0.00435619,0.214948,-1.96086,0.237586,0.0287711,0.0499611,0.0975091,-0.0123544,0.0981341,-0.245486,0.120006,0.339497,0.00606109,0,0,0,0,0,0,0,10.6271,-1.34944,10.6754,-23.1973,0.874101,4.38855,0.0571596,0.0661175,-0.0038983,0.212004,-1.95318,0.235181,0.0192663,0.0497709,0.0391235,0.0108685,0.116198,-0.154911,0.000764126,0.00693128,-0.000701171,0,0,0,0,0,0,0,-1.21045,-33.0504,-1.16149,25.733,1.84539,1.47484,0.017502,
0.0698538,-0.00443241,0.215771,-1.96272,0.23792,0.0318126,0.0500129,0.0984651,-0.0117891,0.099075,-0.242736,0.104359,0.347634,0.0061445,0,0,0,0,0,0,0,10.5971,-1.40163,10.6443,-22.7622,0.47811,4.34613,0.059397,0.0661175,-0.0038983,0.212004,-1.95318,0.235181,0.0192663,0.0497709,0.0391235,0.0108685,0.116198,-0.154911,0.000764126,0.00693128,-0.000701171,0,0,0,0,0,0,0,-1.21045,-33.0504,-1.16149,25.733,1.84539,1.47484,0.017502,
0.0690678,-0.00355566,0.217526,-1.96191,0.235975,0.0239149,0.0498659,0.0971693,-0.0131677,0.0977694,-0.241813,0.095752,0.33721,0.00615102,0,0,0,0,0,0,0,10.6561,-1.36259,10.7006,-23.6014,1.35684,4.45865,0.054935,0.0676479,-0.00326438,0.216091,-1.95821,0.235044,0.0198592,0.0497751,0.0487262,0.0135042,0.115052,-0.138194,-0.00247167,0.0150327,0.000489261,1.20034,0.329471,-0.143257,2.08967,-0.404475,1.01268,0.148804,-0.500302,-32.126,-0.562425,23.3646,1.81518,1.00426,-0.00996382,
0.0698442,-0.00367912,0.218307,-1.9638,0.23638,0.0266355,0.0499173,0.0971455,-0.0136206,0.0977305,-0.240738,0.0867195,0.337783,0.00620662,0,0,0,0,0,0,0,10.6257,-1.39962,10.6692,-23.1599,0.878082,4.41335,0.0570362,0.0676479,-0.00326438,0.216091,-1.95821,0.235044,0.0198592,0.0497751,0.0487262,0.0135042,0.115052,-0.138194,-0.00247167,0.0150327,0.000489261,0,0,0,0,0,0,0,-0.500302,-32.126,-0.562425,23.3646,1.81518,1.00426,-0.00996382,
0.07065,-0.00378283,0.219117,-1.96565,0.236651,0.0295657,0.0499695,0.0978616,-0.0134892,0.0984306,-0.238899,0.0761588,0.343483,0.00626992,0,0,0,0,0,0,0,10.5957,-1.45181,10.6381,-22.7248,0.48209,4.37094,0.0592736,0.0676479,-0.00326438,0.216091,-1.95821,0.235044,0.0198592,0.0497751,0.0487262,0.0135042,0.115052,-0.138194,-0.00247167,0.0150327,0.000489261,0,0,0,0,0,0,0,-0.500302,-32.126,-0.562425,23.3646,1.81518,1.00426,-0.00996382,
0.0714756,-0.00387679,0.219946,-1.96746,0.236777,0.0326218,0.0500223,0.0989292,-0.0131403,0.0994821,-0.236376,0.0640718,0.351188,0.00633714,0,0,0,0,0,0,0,10.5592,-1.51472,10.6007,-22.2955,0.163415,4.32895,0.0612627,0.0676479,-0.00326438,0.216091,-1.95821,0.235044,0.0198592,0.0497751,0.0487262,0.0135042,0.115052,-0.138194,-0.00247167,0.0150327,0.000489261,0,0,0,0,0,0,0,-0.500302,-32.126,-0.562425,23.3646,1.81518,1.00426,-0.00996382,
0.0690817,-0.00354572,0.21754,-1.96184,0.235645,0.0238486,0.0498702,0.0977239,-0.01416,0.0982765,-0.23589,0.058654,0.33916,0.00635348,0,0,0,0,0,0,0,10.6238,-1.44488,10.6625,-23.1249,0.882296,4.43853,0.0569168,0.0692241,-0.00264563,0.219892,-1.96293,0.234753,0.0201606,0.049774,0.0403328,0.0258,0.114244,-0.135216,0.00423962,0.00661833,0.000232295,-1.04918,1.53697,-0.101006,0.372237,0.838912,-1.0518,-0.0321208,0.816837,-30.0273,0.786451,21.7459,1.74194,0.646292,-0.00996382,
0.0698636,-0.00366891,0.218326,-1.9637,0.235838,0.0265326,0.0499231,0.0977265,-0.0144077,0.0982708,-0.235178,0.0517554,0.338426,0.0064061,0,0,0,0,0,0,0,10.5938,-1.49706,10.6314,-22.6898,0.486305,4.39612,0.0591542,0.0692241,-0.00264563,0.219892,-1.96293,0.234753,0.0201606,0.049774,0.0403328,0.0258,0.114244,-0.135216,0.00423962,0.00661833,0.000232295,0,0,0,0,0,0,0,0.816837,-30.0273,0.786451,21.7459,1.74194,0.646292,-0.00996382,
0.0706722,-0.00377461,0.219139,-1.96552,0.235904,0.0294262,0.0499766,0.0983958,-0.0141687,0.0989292,-0.233659,0.0430577,0.343081,0.00646287,0,0,0,0,0,0,0,10.5573,-1.55997,10.594,-22.2605,0.16763,4.35414,0.0611433,0.0692241,-0.00264563,0.219892,-1.96293,0.234753,0.0201606,0.049774,0.0403328,0.0258,0.114244,-0.135216,0.00423962,0.00661833,0.000232295,0,0,0,0,0,0,0,0.816837,-30.0273,0.786451,21.7459,1.74194,0.646292,-0.00996382,
0.0706198,-0.00282077,0.221303,-1.96653,0.235121,0.024064,0.0498736,0.0969192,-0.0139263,0.097451,-0.233288,0.0381088,0.3317,0.00650477,0,0,0,0,0,0,0,10.5938,-1.49706,10.6314,-22.6898,0.486305,4.39612,0.0591542,0.0692241,-0.00264563,0.219892,-1.96293,0.234753,0.0201606,0.049774,0.0403328,0.0258,0.114244,-0.135216,0.00423962,0.00661833,0.000232295,0,0,0,0,0,0,0,0.816837,-30.0273,0.786451,21.7459,1.74194,0.646292,-0.00996382,
0.0713901,-0.00291617,0.222077,-1.96837,0.235141,0.0267132,0.0499282,0.096793,-0.0135262,0.0973118,-0.232621,0.0309975,0.331591,0.00656923,0,0,0,0,0,0,0,10.5617,-1.62002,10.5962,-22.2209,0.174103,4.38085,0.0610062,0.0703464,-0.00234257,0.223972,-1.9681,0.234586,0.0203218,0.0497687,0.0353555,0.0102417,0.124393,-0.157114,-0.000193506,0.00972134,-0.00153589,-0.622162,-1.94479,1.26867,-2.73719,-0.554141,0.387876,-0.221023,1.40003,-31.4,1.3141,24.1382,1.80877,0.871512,0.0376436,
0.0721884,-0.00300406,0.222879,-1.97017,0.235037,0.0295749,0.0499829,0.09739,-0.013018,0.097892,-0.231087,0.022188,0.336814,0.00662454,0,0,0,0,0,0,0,10.5164,-1.68935,10.5499,-21.7962,-0.0801146,4.34072,0.0628952,0.0703464,-0.00234257,0.223972,-1.9681,0.234586,0.0203218,0.0497687,0.0353555,0.0102417,0.124393,-0.157114,-0.000193506,0.00972134,-0.00153589,0,0,0,0,0,0,0,1.40003,-31.4,1.3141,24.1382,1.80877,0.871512,0.0376436,
0.0730035,-0.00309049,0.223697,-1.97193,0.234822,0.0325648,0.0500378,0.0982908,-0.0125751,0.098775,-0.22878,0.0123861,0.344198,0.00667098,0,0,0,0,0,0,0,10.459,-1.76199,10.4915,-21.3756,-0.27561,4.30081,0.0644345,0.0703464,-0.00234257,0.223972,-1.9681,0.234586,0.0203218,0.0497687,0.0353555,0.0102417,0.124393,-0.157114,-0.000193506,0.00972134,-0.00153589,0,0,0,0,0,0,0,1.40003,-31.4,1.3141,24.1382,1.80877,0.871512,0.0376436,
0.0717851,-0.00257825,0.225427,-1.9717,0.23466,0.0240305,0.0498724,0.0973275,-0.0131498,0.0978115,-0.228955,0.0096363,0.330134,0.00671094,0,0,0,0,0,0,0,10.5617,-1.62002,10.5962,-22.2209,0.174103,4.38085,0.0610062,0.0703464,-0.00234257,0.223972,-1.9681,0.234586,0.0203218,0.0497687,0.0353555,0.0102417,0.124393,-0.157114,-0.000193506,0.00972134,-0.00153589,0,0,0,0,0,0,0,1.40003,-31.4,1.3141,24.1382,1.80877,0.871512,0.0376436,
0.0725695,-0.00268787,0.226215,-1.97351,0.23453,0.0265988,0.049928,0.0974717,-0.0132602,0.0979443,-0.228511,0.0044789,0.328315,0.00675701,0,0,0,0,0,0,0,10.5135,-1.75668,10.5456,-21.7625,-0.0777933,4.3612,0.0627944,0.0714309,-0.00214693,0.227768,-1.9731,0.234468,0.0209925,0.0497732,0.0300645,0.00624112,0.111207,-0.145212,0.002137,0.0234005,0.000178437,-0.661374,-0.500075,-1.64822,1.48773,0.291314,1.7099,0.214291,0.638309,-32.4989,0.588087,25.7806,1.65588,1.00426,-0.0026396,
0.0733765,-0.00278794,0.227025,-1.97528,0.234294,0.0293964,0.0499834,0.098152,-0.0131101,0.0986099,-0.227092,-0.00231501,0.332593,0.006791,0,0,0,0,0,0,0,10.4561,-1.82933,10.4872,-21.3418,-0.273288,4.32129,0.0643337,0.0714309,-0.00214693,0.227768,-1.9731,0.234468,0.0209925,0.0497732,0.0300645,0.00624112,0.111207,-0.145212,0.002137,0.0234005,0.000178437,0,0,0,0,0,0,0,0.638309,-32.4989,0.588087,25.7806,1.65588,1.00426,-0.0026396,
0.0727782,-0.00244367,0.229131,-1.97655,0.234362,0.0248811,0.0498822,0.0962392,-0.0143102,0.096704,-0.225982,-0.00485045,0.322886,0.00685822,0,0,0,0,0,0,0,10.5135,-1.75668,10.5456,-21.7625,-0.0777933,4.3612,0.0627944,0.0714309,-0.00214693,0.227768,-1.9731,0.234468,0.0209925,0.0497732,0.0300645,0.00624112,0.111207,-0.145212,0.002137,0.0234005,0.000178437,0,0,0,0,0,0,0,0.638309,-32.4989,0.588087,25.7806,1.65588,1.00426,-0.0026396,
0.073532,-0.00257956,0.229888,-1.97831,0.234114,0.0275134,0.0499392,0.0958342,-0.0148455,0.0962918,-0.224714,-0.0100671,0.324115,0.00691269,0,0,0,0,0,0,0,10.4561,-1.82933,10.4872,-21.3418,-0.273288,4.32129,0.0643337,0.0714309,-0.00214693,0.227768,-1.9731,0.234468,0.0209925,0.0497732,0.0300645,0.00624112,0.111207,-0.145212,0.002137,0.0234005,0.000178437,0,0,0,0,0,0,0,0.638309,-32.4989,0.588087,25.7806,1.65588,1.00426,-0.0026396,
0.0743135,-0.00270296,0.230673,-1.98003,0.233768,0.030359,0.0499957,0.0962062,-0.0149613,0.0966514,-0.222784,-0.0167162,0.330432,0.00694062,0,0,0,0,0,0,0,10.3841,-1.95482,10.4117,-20.8935,-0.417631,4.30199,0.0655455,0.0725933,-0.00180205,0.231358,-1.97755,0.234427,0.0217854,0.0497702,0.0302101,0.0119557,0.104291,-0.131916,0.0122916,0.0183743,-0.00124186,0.0182083,0.714327,-0.864539,1.66198,1.26932,-0.628278,-0.177537,0.689884,-31.9753,0.588087,25.4831,1.54602,1.07018,0.0239107,
0.0751106,-0.00282124,0.231473,-1.98171,0.233349,0.0333324,0.0500515,0.0968932,-0.0149259,0.0973243,-0.220241,-0.0238302,0.338681,0.00694923,0,0,0,0,0,0,0,10.3003,-2.02655,10.327,-20.4786,-0.522367,4.2633,0.0664795,0.0725933,-0.00180205,0.231358,-1.97755,0.234427,0.0217854,0.0497702,0.0302101,0.0119557,0.104291,-0.131916,0.0122916,0.0183743,-0.00124186,0,0,0,0,0,0,0,0.689884,-31.9753,0.588087,25.4831,1.54602,1.07018,0.0239107,
0.0739077,-0.00208478,0.232687,-1.98091,0.234295,0.0256883,0.0498812,0.0948776,-0.0157334,0.0953178,-0.219408,-0.0229143,0.328001,0.00701391,0,0,0,0,0,0,0,10.4542,-1.88169,10.4826,-21.311,-0.270208,4.34082,0.0642377,0.0725933,-0.00180205,0.231358,-1.97755,0.234427,0.0217854,0.0497702,0.0302101,0.0119557,0.104291,-0.131916,0.0122916,0.0183743,-0.00124186,0,0,0,0,0,0,0,0.689884,-31.9753,0.588087,25.4831,1.54602,1.07018,0.0239107,
0.0746496,-0.00222452,0.233432,-1.98263,0.233996,0.0283265,0.049939,0.0944498,-0.0160802,0.0948826,-0.218481,-0.0257913,0.328356,0.00705722,0,0,0,0,0,0,0,10.3841,-1.95482,10.4117,-20.8935,-0.417631,4.30199,0.0655455,0.0725933,-0.00180205,0.231358,-1.97755,0.234427,0.0217854,0.0497702,0.0302101,0.0119557,0.104291,-0.131916,0.0122916,0.0183743,-0.00124186,0,0,0,0,0,0,0,0.689884,-31.9753,0.588087,25.4831,1.54602,1.07018,0.0239107,
0.0754202,-0.00235424,0.234206,-1.98431,0.233597,0.031173,0.0499959,0.0948249,-0.016107,0.0952441,-0.216876,-0.0306068,0.333848,0.00706868,0,0,0,0,0,0,0,10.3008,-2.07613,10.3251,-20.4458,-0.518191,4.28518,0.0663776,0.073774,-0.00150683,0.234602,-1.98188,0.234397,0.0219768,0.0497762,0.0387245,0.0155234,0.0992239,-0.126709,0.00412965,0.00176735,0.00105278,1.0643,0.445956,-0.633364,0.650876,-1.02024,-2.07587,0.286829,0.590702,-31.7769,0.536512,24.9832,1.63208,1.01067,-0.0301054,
0.0762064,-0.00248007,0.234995,-1.98596,0.233134,0.0341428,0.050052,0.095514,-0.0160314,0.0959178,-0.214621,-0.03607,0.341322,0.00705575,0,0,0,0,0,0,0,10.2038,-2.14485,10.2274,-20.033,-0.588596,4.24694,0.0670407,0.073774,-0.00150683,0.234602,-1.98188,0.234397,0.0219768,0.0497762,0.0387245,0.0155234,0.0992239,-0.126709,0.00412965,0.00176735,0.00105278,0,0,0,0,0,0,0,0.590702,-31.7769,0.536512,24.9832,1.63208,1.01067,-0.0301054,
0.0751038,-0.00177233,0.235945,-1.98519,0.234124,0.0257208,0.0498888,0.0939093,-0.0164913,0.0943205,-0.214314,-0.0344466,0.32839,0.00710922,0,0,0,0,0,0,0,10.3847,-2.0044,10.4098,-20.8607,-0.413454,4.32388,0.0654436,0.073774,-0.00150683,0.234602,-1.98188,0.234397,0.0219768,0.0497762,0.0387245,0.0155234,0.0992239,-0.126709,0.00412965,0.00176735,0.00105278,0,0,0,0,0,0,0,0.590702,-31.7769,0.536512,24.9832,1.63208,1.01067,-0.0301054,
0.0758475,-0.00191093,0.236692,-1.98688,0.233765,0.0283032,0.0499468,0.0937205,-0.0166581,0.0941228,-0.213785,-0.0365335,0.327274,0.00713885,0,0,0,0,0,0,0,10.3008,-2.07613,10.3251,-20.4458,-0.518191,4.28518,0.0663776,0.073774,-0.00150683,0.234602,-1.98188,0.234397,0.0219768,0.0497762,0.0387245,0.0155234,0.0992239,-0.126709,0.00412965,0.00176735,0.00105278,0,0,0,0,0,0,0,0.590702,-31.7769,0.536512,24.9832,1.63208,1.01067,-0.0301054,
0.0766167,-0.00204199,0.237464,-1.98854,0.233318,0.0311033,0.0500037,0.0942071,-0.0166029,0.0945947,-0.21246,-0.0403911,0.331821,0.00713304,0,0,0,0,0,0,0,10.2038,-2.14485,10.2274,-20.033,-0.588596,4.24694,0.0670407,0.073774,-0.00150683,0.234602,-1.98188,0.234397,0.0219768,0.0497762,0.0387245,0.0155234,0.0992239,-0.126709,0.00412965,0.00176735,0.00105278,0,0,0,0,0,0,0,0.590702,-31.7769,0.536512,24.9832,1.63208,1.01067,-0.0301054,
0.076378,-0.00141993,0.239467,-1.98928,0.233971,0.0257839,0.0498889,0.0925577,-0.0178762,0.0929499,-0.211129,-0.0387423,0.321128,0.00718388,0,0,0,0,0,0,0,10.3005,-2.13129,10.3212,-20.4112,-0.515146,4.30682,0.066272,0.0750752,-0.00107451,0.23815,-1.9861,0.234307,0.0220213,0.0497754,0.0316915,0.0103577,0.101831,-0.113388,0.00197542,-0.00215336,0.000518852,-0.879129,-0.645714,0.325859,1.66517,-0.269279,-0.490089,-0.0667403,0.511356,-31.9515,0.512709,25.1855,1.54602,1.09032,-0.0227812,
0.0771103,-0.00158953,0.240202,-1.99092,0.233582,0.0283795,0.0499472,0.0923548,-0.0185409,0.0927352,-0.209955,-0.0407168,0.321793,0.00720359,0,0,0,0,0,0,0,10.2035,-2.20002,10.2235,-19.9984,-0.585552,4.26858,0.0669351,0.0750752,-0.00107451,0.23815,-1.9861,0.234307,0.0220213,0.0497754,0.0316915,0.0103577,0.101831,-0.113388,0.00197542,-0.00215336,0.000518852,0,0,0,0,0,0,0,0.511356,-31.9515,0.512709,25.1855,1.54602,1.09032,-0.0227812,
0.0778683,-0.00174643,0.240962,-1.99253,0.233113,0.0311896,0.050004,0.0928328,-0.0187552,0.093196,-0.208223,-0.0442796,0.327685,0.00718324,0,0,0,0,0,0,0,10.0932,-2.26474,10.1126,-19.5873,-0.626379,4.23037,0.0672447,0.0750752,-0.00107451,0.23815,-1.9861,0.234307,0.0220213,0.0497754,0.0316915,0.0103577,0.101831,-0.113388,0.00197542,-0.00215336,0.000518852,0,0,0,0,0,0,0,0.511356,-31.9515,0.512709,25.1855,1.54602,1.09032,-0.0227812,
0.0786388,-0.00189699,0.241735,-1.9941,0.232605,0.0341259,0.0500595,0.0935285,-0.0187683,0.0938739,-0.205906,-0.0481245,0.335557,0.00713317,0,0,0,0,0,0,0,9.97103,-2.32472,9.98982,-19.1775,-0.643881,4.19213,0.0672802,0.0750752,-0.00107451,0.23815,-1.9861,0.234307,0.0220213,0.0497754,0.0316915,0.0103577,0.101831,-0.113388,0.00197542,-0.00215336,0.000518852,0,0,0,0,0,0,0,0.511356,-31.9515,0.512709,25.1855,1.54602,1.09032,-0.0227812,
0.0779477,-0.000952979,0.242898,-1.99324,0.233639,0.0257755,0.0498878,0.0922125,-0.0196029,0.0925591,-0.205396,-0.0461051,0.323036,0.00718063,0,0,0,0,0,0,0,10.2046,-2.24657,10.2206,-19.9639,-0.580844,4.29043,0.0668277,0.0766217,-0.000605072,0.241562,-1.99008,0.234083,0.0220899,0.049774,0.0480453,0.00710574,0.0902867,-0.120241,-0.00498669,0.00091022,0.000204413,2.04423,-0.406491,-1.44301,-0.856719,-0.870264,0.382947,-0.0393049,0.285221,-31.1263,0.26277,23.9636,1.5094,0.944754,-0.00996382,
0.0786828,-0.00112341,0.243636,-1.99486,0.233219,0.0283296,0.0499457,0.0921478,-0.019943,0.0924807,-0.204749,-0.0473762,0.32228,0.00719156,0,0,0,0,0,0,0,10.0944,-2.31129,10.1097,-19.5528,-0.621672,4.25222,0.0671373,0.0766217,-0.000605072,0.241562,-1.99008,0.234083,0.0220899,0.049774,0.0480453,0.00710574,0.0902867,-0.120241,-0.00498669,0.00091022,0.000204413,0,0,0,0,0,0,0,0.285221,-31.1263,0.26277,23.9636,1.5094,0.944754,-0.00996382,
0.0794394,-0.00128258,0.244394,-1.99644,0.232735,0.031102,0.0500019,0.0926347,-0.0199338,0.0929494,-0.203377,-0.0499929,0.327133,0.0071593,0,0,0,0,0,0,0,9.97219,-2.37128,9.98693,-19.143,-0.639174,4.21398,0.0671728,0.0766217,-0.000605072,0.241562,-1.99008,0.234083,0.0220899,0.049774,0.0480453,0.00710574,0.0902867,-0.120241,-0.00498669,0.00091022,0.000204413,0,0,0,0,0,0,0,0.285221,-31.1263,0.26277,23.9636,1.5094,0.944754,-0.00996382,
0.0779477,-0.000952979,0.242898,-1.99324,0.233639,0.0257755,0.0498878,0.0914975,-0.0205353,0.0918194,-0.203373,-0.0475998,0.316297,0.00720154,0,0,0,0,0,0,0,10.0944,-2.31129,10.1097,-19.5528,-0.621672,4.25222,0.0671373,0.0766217,-0.000605072,0.241562,-1.99008,0.234083,0.0220899,0.049774,0.0480453,0.00710574,0.0902867,-0.120241,-0.00498669,0.00091022,0.000204413,0,0,0,0,0,0,0,0.285221,-31.1263,0.26277,23.9636,1.5094,0.944754,-0.00996382,
0.0786718,-0.00111463,0.243624,-1.99478,0.233185,0.0282336,0.0499455,0.0914295,-0.0206562,0.0917406,-0.202435,-0.0487424,0.315988,0.00719919,0,0,0,0,0,0,0,9.97368,-2.42341,9.98623,-19.1066,-0.633668,4.23666,0.0670576,0.0786194,-0.000353662,0.244606,-1.99445,0.233777,0.0222467,0.0497709,0.054713,0.0024796,0.0869099,-0.129862,0.00227225,0.00363344,-0.000837463,0.833459,-0.578268,-0.4221,-1.2026,0.907368,0.340402,-0.130234,0.66608,-31.0033,0.687269,23.4915,1.54602,0.885245,0.017502,
0.0794207,-0.00127383,0.244375,-1.99634,0.232703,0.0309693,0.0500012,0.0918668,-0.0205051,0.0921622,-0.200804,-0.0510551,0.321182,0.00715137,0,0,0,0,0,0,0,9.83996,-2.47827,9.852,-18.6979,-0.631885,4.19838,0.0667831,0.0786194,-0.000353662,0.244606,-1.99445,0.233777,0.0222467,0.0497709,0.054713,0.0024796,0.0869099,-0.129862,0.00227225,0.00363344,-0.000837463,0,0,0,0,0,0,0,0.66608,-31.0033,0.687269,23.4915,1.54602,0.885245,0.017502,
0.0801775,-0.00142872,0.245134,-1.99785,0.232202,0.0338351,0.0500552,0.0924116,-0.0202763,0.0926908,-0.198508,-0.0533599,0.328591,0.00707087,0,0,0,0,0,0,0,9.69616,-2.52785,9.70773,-18.2902,-0.615245,4.15966,0.0662463,0.0786194,-0.000353662,0.244606,-1.99445,0.233777,0.0222467,0.0497709,0.054713,0.0024796,0.0869099,-0.129862,0.00227225,0.00363344,-0.000837463,0,0,0,0,0,0,0,0.66608,-31.0033,0.687269,23.4915,1.54602,0.885245,0.017502,
0.0799576,-0.000699116,0.245952,-1.99754,0.233349,0.0257725,0.0498846,0.0913795,-0.0207326,0.0916629,-0.198376,-0.0501485,0.315274,0.00711759,0,0,0,0,0,0,0,9.97368,-2.42341,9.98623,-19.1066,-0.633668,4.23666,0.0670576,0.0786194,-0.000353662,0.244606,-1.99445,0.233777,0.0222467,0.0497709,0.054713,0.0024796,0.0869099,-0.129862,0.00227225,0.00363344,-0.000837463,0,0,0,0,0,0,0,0.66608,-31.0033,0.687269,23.4915,1.54602,0.885245,0.017502,
0.0806886,-0.000868867,0.246685,-1.9991,0.232944,0.0282412,0.0499414,0.0913788,-0.0208299,0.091652,-0.197827,-0.050233,0.313936,0.00711318,0,0,0,0,0,0,0,9.8384,-2.53146,9.84864,-18.6637,-0.627929,4.21957,0.0666851,0.0806507,-0.000149705,0.247465,-1.99896,0.23358,0.0226166,0.0497761,0.0567898,0.00831731,0.0755706,-0.1296,-0.00233259,0.00415802,0.00121277,0.2596,0.729714,-1.41741,0.0327362,-0.575604,0.0655723,0.256279,-0.119442,-31.8999,-0.16173,25.4831,1.61377,1.12328,-0.0301054,
0.0814357,-0.00103009,0.247434,-2.00063,0.232488,0.0309338,0.0499961,0.09178,-0.0206944,0.0920383,-0.196433,-0.0515793,0.318463,0.00705899,0,0,0,0,0,0,0,9.6946,-2.58104,9.70437,-18.256,-0.61129,4.18086,0.0661483,0.0806507,-0.000149705,0.247465,-1.99896,0.23358,0.0226166,0.0497761,0.0567898,0.00831731,0.0755706,-0.1296,-0.00233259,0.00415802,0.00121277,0,0,0,0,0,0,0,-0.119442,-31.8999,-0.16173,25.4831,1.61377,1.12328,-0.0301054,
0.0821877,-0.00118818,0.248187,-2.00212,0.232019,0.033762,0.050049,0.0922235,-0.0205079,0.0924668,-0.194282,-0.052991,0.325477,0.00696954,0,0,0,0,0,0,0,9.54146,-2.62531,9.55083,-17.849,-0.583152,4.14198,0.0653573,0.0806507,-0.000149705,0.247465,-1.99896,0.23358,0.0226166,0.0497761,0.0567898,0.00831731,0.0755706,-0.1296,-0.00233259,0.00415802,0.00121277,0,0,0,0,0,0,0,-0.119442,-31.8999,-0.16173,25.4831,1.61377,1.12328,-0.0301054,
0.0819311,-0.000437681,0.248753,-2.00202,0.233087,0.0261145,0.0498903,0.0905489,-0.0203301,0.0908019,-0.194542,-0.0505514,0.312353,0.00703104,0,0,0,0,0,0,0,9.8384,-2.53146,9.84864,-18.6637,-0.627929,4.21957,0.0666851,0.0806507,-0.000149705,0.247465,-1.99896,0.23358,0.0226166,0.0497761,0.0567898,0.00831731,0.0755706,-0.1296,-0.00233259,0.00415802,0.00121277,0,0,0,0,0,0,0,-0.119442,-31.8999,-0.16173,25.4831,1.61377,1.12328,-0.0301054,
0.0826378,-0.000591696,0.249461,-2.00356,0.232666,0.0285631,0.0499465,0.0901048,-0.0201144,0.0903509,-0.194213,-0.0509812,0.311096,0.00703087,0,0,0,0,0,0,0,9.69191,-2.63267,9.7001,-18.2246,-0.609072,4.19887,0.0660605,0.082559,2.61185e-05,0.249996,-2.00289,0.233505,0.0229365,0.0497702,0.0522142,0.0114124,0.0771919,-0.107567,0.00402966,0.0122606,-0.000359182,-0.571948,0.386889,0.202659,2.75412,0.795281,1.01282,-0.196494,-1.03589,-31.7015,-0.93535,25.4077,1.52221,1.08391,0.0239107,
0.0833625,-0.00074283,0.250188,-2.00507,0.232204,0.0312341,0.0500005,0.0902027,-0.0198699,0.0904356,-0.192927,-0.0523244,0.315653,0.006974,0,0,0,0,0,0,0,9.53877,-2.67694,9.54656,-17.8176,-0.580935,4.16,0.0652695,0.082559,2.61185e-05,0.249996,-2.00289,0.233505,0.0229365,0.0497702,0.0522142,0.0114124,0.0771919,-0.107567,0.00402966,0.0122606,-0.000359182,0,0,0,0,0,0,0,-1.03589,-31.7015,-0.93535,25.4077,1.52221,1.08391,0.0239107,
0.0838091,-0.000297123,0.251254,-2.0058,0.233137,0.0266238,0.0498813,0.088555,-0.0203523,0.0887972,-0.191836,-0.0485213,0.306662,0.00700779,0,0,0,0,0,0,0,9.69191,-2.63267,9.7001,-18.2246,-0.609072,4.19887,0.0660605,0.082559,2.61185e-05,0.249996,-2.00289,0.233505,0.0229365,0.0497702,0.0522142,0.0114124,0.0771919,-0.107567,0.00402966,0.0122606,-0.000359182,0,0,0,0,0,0,0,-1.03589,-31.7015,-0.93535,25.4077,1.52221,1.08391,0.0239107,
0.0845009,-0.000472165,0.251947,-2.00728,0.232769,0.0291362,0.0499365,0.0881389,-0.0206579,0.0883734,-0.190675,-0.0480046,0.308139,0.00698667,0,0,0,0,0,0,0,9.53877,-2.67694,9.54656,-17.8176,-0.580935,4.16,0.0652695,0.082559,2.61185e-05,0.249996,-2.00289,0.233505,0.0229365,0.0497702,0.0522142,0.0114124,0.0771919,-0.107567,0.00402966,0.0122606,-0.000359182,0,0,0,0,0,0,0,-1.03589,-31.7015,-0.93535,25.4077,1.52221,1.08391,0.0239107,
0.0852109,-0.000642333,0.252659,-2.00874,0.232358,0.0318513,0.0499893,0.0882632,-0.0207805,0.0884839,-0.188852,-0.0486832,0.314388,0.00691047,0,0,0,0,0,0,0,9.379,-2.77232,9.38534,-17.382,-0.540984,4.1379,0.0641525,0.0838218,0.000146758,0.253031,-2.00655,0.23344,0.0229785,0.049774,0.0255944,-0.000692897,0.0930588,-0.107084,0.00533387,-0.00159897,8.22094e-05,-3.32748,-1.51317,1.98337,0.0604648,0.163026,-1.73244,0.0551739,0.463749,-31.3246,0.564283,24.9118,1.61926,1.01708,-0.00996382,
0.0859275,-0.000811247,0.253377,-2.01015,0.231942,0.034686,0.05004,0.0885242,-0.0208473,0.0887304,-0.186387,-0.0493555,0.322379,0.00679486,0,0,0,0,0,0,0,9.21067,-2.80648,9.21671,-16.9764,-0.498566,4.09805,0.0629161,0.0838218,0.000146758,0.253031,-2.00655,0.23344,0.0229785,0.049774,0.0255944,-0.000692897,0.0930588,-0.107084,0.00533387,-0.00159897,8.22094e-05,0,0,0,0,0,0,0,0.463749,-31.3246,0.564283,24.9118,1.61926,1.01708,-0.00996382,
0.0850111,-0.000271561,0.254231,-2.00938,0.233076,0.0265012,0.0498855,0.086553,-0.0220945,0.0867752,-0.185559,-0.0460423,0.31032,0.00685897,0,0,0,0,0,0,0,9.54014,-2.73318,9.54684,-17.7883,-0.577644,4.1775,0.0651837,0.0838218,0.000146758,0.253031,-2.00655,0.23344,0.0229785,0.049774,0.0255944,-0.000692897,0.0930588,-0.107084,0.00533387,-0.00159897,8.22094e-05,0,0,0,0,0,0,0,0.463749,-31.3246,0.564283,24.9118,1.61926,1.01708,-0.00996382,
0.0856803,-0.000474622,0.254902,-2.01083,0.23272,0.028965,0.04994,0.0859727,-0.0227522,0.0861914,-0.184623,-0.0457266,0.30985,0.00685049,0,0,0,0,0,0,0,9.379,-2.77232,9.38534,-17.382,-0.540984,4.1379,0.0641525,0.0838218,0.000146758,0.253031,-2.00655,0.23344,0.0229785,0.049774,0.0255944,-0.000692897,0.0930588,-0.107084,0.00533387,-0.00159897,8.22094e-05,0,0,0,0,0,0,0,0.463749,-31.3246,0.564283,24.9118,1.61926,1.01708,-0.00996382,
0.0863702,-0.000666137,0.255594,-2.01224,0.232328,0.0316445,0.0499919,0.0860248,-0.0229896,0.0862332,-0.183016,-0.0463806,0.314868,0.00677658,0,0,0,0,0,0,0,9.21105,-2.86189,9.21541,-16.9455,-0.495207,4.11646,0.0628257,0.0846421,0.000328395,0.256515,-2.01008,0.233411,0.0229978,0.0497754,0.0200643,-0.00270499,0.106335,-0.101749,0.0038736,-0.000831222,0.000698932,-0.691256,-0.251512,1.6595,0.666833,-0.182533,0.0959688,0.0770903,0.793033,-31.1263,0.86183,24.2374,1.72363,0.885245,-0.0227812,
0.087068,-0.00085188,0.256293,-2.01361,0.231937,0.0344518,0.0500413,0.0862662,-0.0230353,0.0864631,-0.180753,-0.0468823,0.322076,0.00665764,0,0,0,0,0,0,0,9.03669,-2.89145,9.04078,-16.5404,-0.448859,4.07572,0.0613841,0.0846421,0.000328395,0.256515,-2.01008,0.233411,0.0229978,0.0497754,0.0200643,-0.00270499,0.106335,-0.101749,0.0038736,-0.000831222,0.000698932,0,0,0,0,0,0,0,0.793033,-31.1263,0.86183,24.2374,1.72363,0.885245,-0.0227812,
0.0858578,-0.000120095,0.257743,-2.01283,0.233105,0.0265063,0.0498835,0.0849775,-0.0242054,0.0851844,-0.180116,-0.0431255,0.309815,0.00670599,0,0,0,0,0,0,0,9.37938,-2.82773,9.38404,-17.3511,-0.537625,4.15631,0.0640621,0.0846421,0.000328395,0.256515,-2.01008,0.233411,0.0229978,0.0497754,0.0200643,-0.00270499,0.106335,-0.101749,0.0038736,-0.000831222,0.000698932,0,0,0,0,0,0,0,0.793033,-31.1263,0.86183,24.2374,1.72363,0.885245,-0.0227812,
0.08653,-0.000336131,0.258417,-2.01424,0.232795,0.0289551,0.0499363,0.084787,-0.0247653,0.0849867,-0.179349,-0.0422311,0.309074,0.00668584,0,0,0,0,0,0,0,9.21105,-2.86189,9.21541,-16.9455,-0.495207,4.11646,0.0628257,0.0846421,0.000328395,0.256515,-2.01008,0.233411,0.0229978,0.0497754,0.0200643,-0.00270499,0.106335,-0.101749,0.0038736,-0.000831222,0.000698932,0,0,0,0,0,0,0,0.793033,-31.1263,0.86183,24.2374,1.72363,0.885245,-0.0227812,
0.0872183,-0.000539323,0.259106,-2.01562,0.232454,0.0316172,0.0499865,0.0850374,-0.024892,0.0852252,-0.177887,-0.042318,0.313809,0.00660291,0,0,0,0,0,0,0,9.03669,-2.89145,9.04078,-16.5404,-0.448859,4.07572,0.0613841,0.0846421,0.000328395,0.256515,-2.01008,0.233411,0.0229978,0.0497754,0.0200643,-0.00270499,0.106335,-0.101749,0.0038736,-0.000831222,0.000698932,0,0,0,0,0,0,0,0.793033,-31.1263,0.86183,24.2374,1.72363,0.885245,-0.0227812,
0.0879113,-0.000735633,0.2598,-2.01696,0.232115,0.0344052,0.0500343,0.0853541,-0.0248214,0.0855298,-0.175747,-0.0423317,0.320748,0.00647569,0,0,0,0,0,0,0,8.85628,-2.97221,8.85813,-16.1065,-0.398282,4.05237,0.0597066,0.0853561,0.000543676,0.260167,-2.0135,0.233395,0.0230599,0.0497709,0.0189079,0.000162039,0.106027,-0.0988339,0.00435423,0.00386082,-0.000610349,-0.144549,0.358379,-0.0384627,0.364388,0.0600783,0.586505,-0.16366,0.309024,-30.8009,0.361952,23.6661,1.68701,0.71221,0.017502,
0.0865512,0.000117354,0.261374,-2.01619,0.23313,0.0265829,0.0498758,0.0839638,-0.0254341,0.0841488,-0.1754,-0.0388616,0.308758,0.00652422,0,0,0,0,0,0,0,9.21028,-2.91745,9.21261,-16.9161,-0.492615,4.13416,0.062742,0.0853561,0.000543676,0.260167,-2.0135,0.233395,0.0230599,0.0497709,0.0189079,0.000162039,0.106027,-0.0988339,0.00435423,0.00386082,-0.000610349,0,0,0,0,0,0,0,0.309024,-30.8009,0.361952,23.6661,1.68701,0.71221,0.017502,
0.0872106,-9.48662e-05,0.262035,-2.01757,0.232852,0.0290233,0.0499272,0.0836579,-0.0256528,0.0838352,-0.17483,-0.0380593,0.308015,0.00650351,0,0,0,0,0,0,0,9.03592,-2.94701,9.03798,-16.511,-0.446267,4.09341,0.0613005,0.0853561,0.000543676,0.260167,-2.0135,0.233395,0.0230599,0.0497709,0.0189079,0.000162039,0.106027,-0.0988339,0.00435423,0.00386082,-0.000610349,0,0,0,0,0,0,0,0.309024,-30.8009,0.361952,23.6661,1.68701,0.71221,0.017502,
0.0878853,-0.000297096,0.26271,-2.01892,0.232544,0.0316712,0.0499758,0.0837938,-0.025578,0.0839586,-0.173496,-0.0381304,0.31261,0.00641802,0,0,0,0,0,0,0,8.85628,-2.97221,8.85813,-16.1065,-0.398282,4.05237,0.0597066,0.0853561,0.000543676,0.260167,-2.0135,0.233395,0.0230599,0.0497709,0.0189079,0.000162039,0.106027,-0.0988339,0.00435423,0.00386082,-0.000610349,0,0,0,0,0,0,0,0.309024,-30.8009,0.361952,23.6661,1.68701,0.71221,0.017502,
0.0870895,0.000272326,0.265223,-2.01944,0.233069,0.0265897,0.0498773,0.0825202,-0.0258289,0.082692,-0.173137,-0.0354409,0.301171,0.00644055,0,0,0,0,0,0,0,9.03629,-3.00485,9.03702,-16.4834,-0.443062,4.10988,0.0612222,0.0859072,0.000680128,0.264027,-2.01677,0.233348,0.0231468,0.0497747,0.0121881,0.000480695,0.112791,-0.101962,-0.000384412,0.00337843,0.000877323,-0.839981,0.039832,0.845502,-0.391002,-0.59233,-0.0602989,0.185959,0.309024,-30.8763,0.338148,23.4161,1.72363,0.606009,-0.0163725,
0.0877388,6.55768e-05,0.265873,-2.0208,0.232806,0.0289878,0.049927,0.0822473,-0.0258318,0.0824096,-0.172439,-0.0349327,0.300889,0.00639599,0,0,0,0,0,0,0,8.85666,-3.03005,8.85717,-16.0789,-0.395076,4.06884,0.0596283,0.0859072,0.000680128,0.264027,-2.01677,0.233348,0.0231468,0.0497747,0.0121881,0.000480695,0.112791,-0.101962,-0.000384412,0.00337843,0.000877323,0,0,0,0,0,0,0,0.309024,-30.8763,0.338148,23.4161,1.72363,0.606009,-0.0163725,
0.0884016,-0.000133778,0.266537,-2.02212,0.232523,0.0315961,0.0499739,0.0823687,-0.0256493,0.0825176,-0.170931,-0.0350296,0.305919,0.00629016,0,0,0,0,0,0,0,8.67267,-3.05132,8.673,-15.6749,-0.34645,4.02684,0.0578656,0.0859072,0.000680128,0.264027,-2.01677,0.233348,0.0231468,0.0497747,0.0121881,0.000480695,0.112791,-0.101962,-0.000384412,0.00337843,0.000877323,0,0,0,0,0,0,0,0.309024,-30.8763,0.338148,23.4161,1.72363,0.606009,-0.0163725,
0.0890674,-0.000330217,0.267203,-2.02339,0.232249,0.0343297,0.0500183,0.0825399,-0.0254305,0.0826759,-0.168681,-0.0348779,0.313077,0.00614108,0,0,0,0,0,0,0,8.48497,-3.06894,8.48514,-15.2714,-0.299083,3.98455,0.0559843,0.0859072,0.000680128,0.264027,-2.01677,0.233348,0.0231468,0.0497747,0.0121881,0.000480695,0.112791,-0.101962,-0.000384412,0.00337843,0.000877323,0,0,0,0,0,0,0,0.309024,-30.8763,0.338148,23.4161,1.72363,0.606009,-0.0163725,
0.0875531,0.000302502,0.26914,-2.02283,0.233056,0.0267831,0.0498697,0.0815317,-0.0255147,0.081676,-0.168825,-0.0323624,0.300748,0.00617245,0,0,0,0,0,0,0,8.85718,-3.09201,8.8575,-16.0509,-0.391549,4.08497,0.0595501,0.0863634,0.000693606,0.267938,-2.02018,0.233312,0.0233874,0.0497709,0.0110773,3.37554e-05,0.117605,-0.107014,-0.00176427,0.00875766,-0.000466251,-0.138845,-0.0558674,0.601689,-0.631491,-0.172482,0.672404,-0.167947,0.741459,-30.8525,0.687269,23.8129,1.8518,0.5996,0.017502,
0.0881983,0.000100562,0.269787,-2.02416,0.232822,0.029145,0.0499176,0.0813572,-0.0254603,0.0814942,-0.168395,-0.0317408,0.299645,0.00613461,0,0,0,0,0,0,0,8.67319,-3.11329,8.67333,-15.6469,-0.342923,4.04297,0.0577873,0.0863634,0.000693606,0.267938,-2.02018,0.233312,0.0233874,0.0497709,0.0110773,3.37554e-05,0.117605,-0.107014,-0.00176427,0.00875766,-0.000466251,0,0,0,0,0,0,0,0.741459,-30.8525,0.687269,23.8129,1.8518,0.5996,0.017502,
0.088854,-9.67089e-05,0.270443,-2.02545,0.232573,0.0317166,0.0499626,0.0814773,-0.0253,0.0816033,-0.167028,-0.0316067,0.304008,0.00603351,0,0,0,0,0,0,0,8.48549,-3.13091,8.48547,-15.2434,-0.295556,4.00068,0.055906,0.0863634,0.000693606,0.267938,-2.02018,0.233312,0.0233874,0.0497709,0.0110773,3.37554e-05,0.117605,-0.107014,-0.00176427,0.00875766,-0.000466251,0,0,0,0,0,0,0,0.741459,-30.8525,0.687269,23.8129,1.8518,0.5996,0.017502,
0.0875531,0.000302502,0.26914,-2.02283,0.233056,0.0267831,0.0498697,0.0806817,-0.0254103,0.080818,-0.167503,-0.0297455,0.293493,0.0060864,0,0,0,0,0,0,0,8.67319,-3.11329,8.67333,-15.6469,-0.342923,4.04297,0.0577873,0.0863634,0.000693606,0.267938,-2.02018,0.233312,0.0233874,0.0497709,0.0110773,3.37554e-05,0.117605,-0.107014,-0.00176427,0.00875766,-0.000466251,0,0,0,0,0,0,0,0.741459,-30.8525,0.687269,23.8129,1.8518,0.5996,0.017502,
0.0881767,0.000113673,0.269765,-2.02409,0.232885,0.0290423,0.0499125,0.0804298,-0.0252909,0.0805587,-0.166647,-0.0289357,0.292861,0.00602127,0,0,0,0,0,0,0,8.48576,-3.19802,8.48588,-15.2141,-0.292126,4.01723,0.0558256,0.0867617,0.000670537,0.272016,-2.02375,0.233299,0.023641,0.0497762,0.0065882,-0.00161095,0.125353,-0.10949,-0.00286875,0.0160556,0.00182685,-0.56114,-0.205588,0.968508,-0.309573,-0.13806,0.912248,0.286638,1.4278,-30.5034,1.3379,23.6899,1.87652,0.586783,-0.0301054,
0.0888208,-8.12146e-05,0.270409,-2.02535,0.232667,0.031574,0.0499558,0.080448,-0.0251049,0.0805663,-0.164905,-0.0285772,0.297579,0.00589799,0,0,0,0,0,0,0,8.29504,-3.21241,8.29503,-14.8111,-0.246415,3.97404,0.0538019,0.0867617,0.000670537,0.272016,-2.02375,0.233299,0.023641,0.0497762,0.0065882,-0.00161095,0.125353,-0.10949,-0.00286875,0.0160556,0.00182685,0,0,0,0,0,0,0,1.4278,-30.5034,1.3379,23.6899,1.87652,0.586783,-0.0301054,
0.0894646,-0.000276047,0.271054,-2.02657,0.232462,0.0342321,0.0499964,0.0804532,-0.0249547,0.0805617,-0.162395,-0.0279864,0.304516,0.00573391,0,0,0,0,0,0,0,8.10178,-3.22385,8.10166,-14.4086,-0.203989,3.93069,0.0517013,0.0867617,0.000670537,0.272016,-2.02375,0.233299,0.023641,0.0497762,0.0065882,-0.00161095,0.125353,-0.10949,-0.00286875,0.0160556,0.00182685,0,0,0,0,0,0,0,1.4278,-30.5034,1.3379,23.6899,1.87652,0.586783,-0.0301054,
0.0879433,0.000287947,0.273211,-2.02631,0.233107,0.0269614,0.0498686,0.0796515,-0.0250233,0.0797681,-0.162524,-0.0257388,0.292615,0.00575307,0,0,0,0,0,0,0,8.48576,-3.19802,8.48588,-15.2141,-0.292126,4.01723,0.0558256,0.0867617,0.000670537,0.272016,-2.02375,0.233299,0.023641,0.0497762,0.0065882,-0.00161095,0.125353,-0.10949,-0.00286875,0.0160556,0.00182685,0,0,0,0,0,0,0,1.4278,-30.5034,1.3379,23.6899,1.87652,0.586783,-0.0301054,
0.0885735,8.79631e-05,0.273842,-2.02759,0.232932,0.0292615,0.0499126,0.0794779,-0.0250182,0.0795888,-0.161934,-0.024966,0.291595,0.00570354,0,0,0,0,0,0,0,8.29326,-3.27525,8.29247,-14.7841,-0.244219,3.99016,0.0537297,0.0872854,0.000745599,0.275814,-2.02712,0.233305,0.0237317,0.0497655,0.0253679,0.00694408,0.0976211,-0.0938696,-0.000556409,-0.000808449,-0.00108225,2.34746,1.06938,-3.46644,1.95261,0.289042,-2.10801,-0.363637,-1.61908,-31.4992,-1.463,25.2332,1.77215,0.918204,0.0376436,
0.0892097,-0.000109697,0.274479,-2.02882,0.23275,0.0317674,0.0499538,0.0794854,-0.0249561,0.079588,-0.160362,-0.0245416,0.295924,0.00559285,0,0,0,0,0,0,0,8.10001,-3.28669,8.09911,-14.3816,-0.201793,3.9468,0.0516291,0.0872854,0.000745599,0.275814,-2.02712,0.233305,0.0237317,0.0497655,0.0253679,0.00694408,0.0976211,-0.0938696,-0.000556409,-0.000808449,-0.00108225,0,0,0,0,0,0,0,-1.61908,-31.4992,-1.463,25.2332,1.77215,0.918204,0.0376436,
0.0898434,-0.000308283,0.275113,-2.03001,0.23258,0.0343987,0.0499924,0.0794313,-0.0249295,0.0795266,-0.157962,-0.0238841,0.302521,0.00543977,0,0,0,0,0,0,0,7.90471,-3.29559,7.90372,-13.9795,-0.162629,3.90274,0.049424,0.0872854,0.000745599,0.275814,-2.02712,0.233305,0.0237317,0.0497655,0.0253679,0.00694408,0.0976211,-0.0938696,-0.000556409,-0.000808449,-0.00108225,0,0,0,0,0,0,0,-1.61908,-31.4992,-1.463,25.2332,1.77215,0.918204,0.0376436,
0.0884074,0.000395611,0.276946,-2.02959,0.233187,0.0269754,0.0498532,0.0781123,-0.0247683,0.0782187,-0.158083,-0.0215741,0.290323,0.00547519,0,0,0,0,0,0,0,8.29326,-3.27525,8.29247,-14.7841,-0.244219,3.99016,0.0537297,0.0872854,0.000745599,0.275814,-2.02712,0.233305,0.0237317,0.0497655,0.0253679,0.00694408,0.0976211,-0.0938696,-0.000556409,-0.000808449,-0.00108225,0,0,0,0,0,0,0,-1.61908,-31.4992,-1.463,25.2332,1.77215,0.918204,0.0376436,
0.0890121,0.000199588,0.277552,-2.03084,0.233042,0.0292526,0.0498956,0.0776082,-0.0247152,0.0777111,-0.157571,-0.0208607,0.289187,0.00544014,0,0,0,0,0,0,0,8.09978,-3.34619,8.0981,-14.3553,-0.199365,3.96135,0.0515592,0.0879584,0.000819095,0.279336,-2.03018,0.233287,0.0238031,0.0497729,0.0239566,0.00211622,0.0954358,-0.0874877,-0.00338337,-0.00135498,0.00102284,-0.176407,-0.603482,-0.273164,0.79774,-0.353371,-0.0683159,0.263136,-0.881161,-31.4754,-0.788561,25.0586,1.8518,0.871512,-0.00996382,
