xiao-wang007/linearmpc_panda/paper_data/panda_inverse_dynamics_controller_Start_at_0_no_acceleration_ff/4/trajectory.csv
Commanded Joint 0 Position,Commanded Joint 1 Position,Commanded Joint 2 Position,Commanded Joint 3 Position,Commanded Joint 4 Position,Commanded Joint 5 Position,Commanded Joint 6 Position,Commanded Joint 0 Velocity,Commanded Joint 1 Velocity,Commanded Joint 2 Velocity,Commanded Joint 3 Velocity,Commanded Joint 4 Velocity,Commanded Joint 5 Velocity,Commanded Joint 6 Velocity,Commanded Joint 0 Acceleration,Commanded Joint 1 Acceleration,Commanded Joint 2 Acceleration,Commanded Joint 3 Acceleration,Commanded Joint 4 Acceleration,Commanded Joint 5 Acceleration,Commanded Joint 6 Acceleration,Commanded Joint 0 Torque,Commanded Joint 1 Torque,Commanded Joint 2 Torque,Commanded Joint 3 Torque,Commanded Joint 4 Torque,Commanded Joint 5 Torque,Commanded Joint 6 Torque,Actual Joint 0 Position,Actual Joint 1 Position,Actual Joint 2 Position,Actual Joint 3 Position,Actual Joint 4 Position,Actual Joint 5 Position,Actual Joint 6 Position,Actual Joint 0 Velocity,Actual Joint 1 Velocity,Actual Joint 2 Velocity,Actual Joint 3 Velocity,Actual Joint 4 Velocity,Actual Joint 5 Velocity,Actual Joint 6 Velocity,Actual Joint 0 Acceleration,Actual Joint 1 Acceleration,Actual Joint 2 Acceleration,Actual Joint 3 Acceleration,Actual Joint 4 Acceleration,Actual Joint 5 Acceleration,Actual Joint 6 Acceleration,Actual Joint 0 Torque,Actual Joint 1 Torque,Actual Joint 2 Torque,Actual Joint 3 Torque,Actual Joint 4 Torque,Actual Joint 5 Torque,Actual Joint 6 Torque,
0.0232645,-0.022178,-0.0150665,-1.82591,-0.0251113,0.266615,0.0306214,0.000322155,0.0218354,0.000294303,-0.033327,-0.00353325,0.0544564,-0.000373953,0,0,0,0,0,0,0,0.0574465,23.8276,0.0662682,-24.3844,-0.485837,1.95254,-0.0246339,0.0232429,-0.0233913,-0.0150547,-1.82275,-0.0249627,0.260803,0.0306679,0.000721519,-0.000185211,0.000342098,-0.000986617,-0.00576938,0.00206939,-0.000423546,0,0,0,0,0,0,0,-0.0440639,-34.8198,-0.237108,27.2525,0.966488,3.09258,0.017502,
0.0232463,-0.023387,-0.0150513,-1.82275,-0.0250122,0.26082,0.0306671,0.000266612,0.0175069,0.000244453,-0.0266658,-0.00303658,0.0436617,-0.000302548,0,0,0,0,0,0,0,0.051662,24.2699,0.0558656,-24.3004,-0.486265,1.70208,-0.0231206,0.0232472,-0.0233264,-0.0150426,-1.82281,-0.0249646,0.260805,0.0306681,0.00171686,0.00256063,0.00136593,-0.00202341,-0.00739945,0.00301708,0.000310466,0.124418,0.34323,0.127979,-0.129599,-0.203758,0.118461,0.0917515,-0.0440639,-34.6968,-0.213304,27.2525,0.984799,3.10631,0.017502,
0.0232464,-0.0233856,-0.0150512,-1.82275,-0.0250169,0.260823,0.030667,0.000214719,0.0140416,0.000196881,-0.0213338,-0.00254791,0.0350111,-0.000244047,0,0,0,0,0,0,0,0.0444265,24.8414,0.0441052,-24.1924,-0.485886,1.35441,-0.0211527,0.0232472,-0.0233264,-0.0150426,-1.82281,-0.0249646,0.260805,0.0306681,0.00171686,0.00256063,0.00136593,-0.00202341,-0.00739945,0.00301708,0.000310466,0,0,0,0,0,0,0,-0.0440639,-34.6968,-0.213304,27.2525,0.984799,3.10631,0.017502,
0.0232463,-0.0233843,-0.0150513,-1.82275,-0.0250196,0.260826,0.030667,0.000169757,0.0112669,0.000155245,-0.0170666,-0.00210491,0.0280816,-0.000196481,0,0,0,0,0,0,0,0.0384645,25.3654,0.0346606,-24.0246,-0.484006,0.969146,-0.0191522,0.0232472,-0.0233264,-0.0150426,-1.82281,-0.0249646,0.260805,0.0306681,0.00171686,0.00256063,0.00136593,-0.00202341,-0.00739945,0.00301708,0.000310466,0,0,0,0,0,0,0,-0.0440639,-34.6968,-0.213304,27.2525,0.984799,3.10631,0.017502,
0.023149,-0.0232888,-0.0151376,-1.82275,-0.0225574,0.259803,0.0306437,-0.00128502,0.00935793,-0.00127122,-0.0128891,0.0354589,0.00692134,-0.000381502,0,0,0,0,0,0,0,0.500687,0.137625,0.500033,-0.235938,3.09887,-1.46623,-0.00124664,0.0232472,-0.0233264,-0.0150426,-1.82281,-0.0249646,0.260805,0.0306681,0.00171686,0.00256063,0.00136593,-0.00202341,-0.00739945,0.00301708,0.000310466,0,0,0,0,0,0,0,-0.0440639,-34.6968,-0.213304,27.2525,0.984799,3.10631,0.017502,
0.0230942,-0.0232833,-0.015192,-1.82273,-0.0207466,0.259025,0.0306389,-0.00239841,0.00762334,-0.0023782,-0.00973858,0.0736381,-0.0139215,-0.000425491,0,0,0,0,0,0,0,0.494237,0.147362,0.493292,-0.230278,3.07329,-1.45091,-0.00130348,0.0232391,-0.0228737,-0.0150416,-1.82293,-0.0249551,0.260914,0.0306649,0.00102969,0.0494325,0.000799803,-0.00697247,-0.00787719,0.0207457,-0.000240414,-0.085897,5.85898,-0.0707661,-0.618632,-0.059718,2.21608,-0.06886,0.0551182,-30.0035,-0.185533,22.345,0.898739,2.15142,0.017502,
0.023049,-0.0232827,-0.0152372,-1.82271,-0.0187482,0.258143,0.0306364,-0.00304883,0.00611432,-0.00303173,-0.0074209,0.108869,-0.033187,-0.000404002,0,0,0,0,0,0,0,0.48886,0.14446,0.487886,-0.228597,3.04612,-1.43796,-0.00131274,0.0232391,-0.0228737,-0.0150416,-1.82293,-0.0249551,0.260914,0.0306649,0.00102969,0.0494325,0.000799803,-0.00697247,-0.00787719,0.0207457,-0.000240414,0,0,0,0,0,0,0,0.0551182,-30.0035,-0.185533,22.345,0.898739,2.15142,0.017502,
0.0230159,-0.0232842,-0.0152704,-1.8227,-0.0166425,0.257193,0.030635,-0.00326646,0.00485308,-0.00325565,-0.00574174,0.139739,-0.0503042,-0.000357204,0,0,0,0,0,0,0,0.483728,0.142648,0.482743,-0.226554,3.01847,-1.42481,-0.00129653,0.0232391,-0.0228737,-0.0150416,-1.82293,-0.0249551,0.260914,0.0306649,0.00102969,0.0494325,0.000799803,-0.00697247,-0.00787719,0.0207457,-0.000240414,0,0,0,0,0,0,0,0.0551182,-30.0035,-0.185533,22.345,0.898739,2.15142,0.017502,
0.0229787,-0.022362,-0.0152891,-1.82264,-0.0164596,0.255151,0.0305851,-0.00609922,0.00890525,-0.00596846,-0.00110159,0.242683,-0.129796,-0.00101062,0,0,0,0,0,0,0,4.17779,1.19687,4.19421,-1.70933,11.0953,-8.45431,-0.00339818,0.0232391,-0.0228737,-0.0150416,-1.82293,-0.0249551,0.260914,0.0306649,0.00102969,0.0494325,0.000799803,-0.00697247,-0.00787719,0.0207457,-0.000240414,0,0,0,0,0,0,0,0.0551182,-30.0035,-0.185533,22.345,0.898739,2.15142,0.017502,
0.022868,-0.0222366,-0.0153967,-1.82255,-0.0100351,0.250673,0.03057,-0.00764585,0.0102596,-0.00746591,0.00132332,0.354759,-0.215771,-0.00118606,0,0,0,0,0,0,0,4.05867,1.20712,4.07846,-1.67616,11.0953,-8.33872,-0.00294266,0.0232497,-0.0226395,-0.0150301,-1.82337,-0.0249427,0.260773,0.0306711,-0.00090878,0.00115897,-0.00043987,-0.0171445,-0.00364864,-0.00398078,0.000496183,-0.242308,-6.03419,-0.154959,-1.2715,0.528568,-3.09081,0.0920747,-0.0956386,-35.4427,-0.360094,28.0737,0.800778,3.35808,-0.00996382,
0.0228039,-0.022154,-0.0154588,-1.82251,-0.00288044,0.245616,0.0305622,-0.00771965,0.010271,-0.00752443,0.0020032,0.462673,-0.299065,-0.00114329,0,0,0,0,0,0,0,3.93814,1.19932,3.95921,-1.6512,11.0953,-8.22254,-0.00313482,0.0232497,-0.0226395,-0.0150301,-1.82337,-0.0249427,0.260773,0.0306711,-0.00090878,0.00115897,-0.00043987,-0.0171445,-0.00364864,-0.00398078,0.000496183,0,0,0,0,0,0,0,-0.0956386,-35.4427,-0.360094,28.0737,0.800778,3.35808,-0.00996382,
0.0227896,-0.022092,-0.0154716,-1.82252,0.00473375,0.240187,0.0305581,-0.00653439,0.00976667,-0.00633894,0.00148329,0.560493,-0.374968,-0.00101877,0,0,0,0,0,0,0,3.82279,1.18373,3.84414,-1.62925,11.0953,-8.11223,-0.00359228,0.0232497,-0.0226395,-0.0150301,-1.82337,-0.0249427,0.260773,0.0306711,-0.00090878,0.00115897,-0.00043987,-0.0171445,-0.00364864,-0.00398078,0.000496183,0,0,0,0,0,0,0,-0.0956386,-35.4427,-0.360094,28.0737,0.800778,3.35808,-0.00996382,
0.0240513,-0.0226496,-0.0141813,-1.82324,-0.0181997,0.251051,0.03082,0.00779323,0.00724504,0.00862319,0.00243229,0.554655,-0.450306,0.000676381,0,0,0,0,0,0,0,24.5388,3.5584,24.8185,-9.96089,11.0953,-14.2664,0.128496,0.0232497,-0.0226395,-0.0150301,-1.82337,-0.0249427,0.260773,0.0306711,-0.00090878,0.00115897,-0.00043987,-0.0171445,-0.00364864,-0.00398078,0.000496183,0,0,0,0,0,0,0,-0.0956386,-35.4427,-0.360094,28.0737,0.800778,3.35808,-0.00996382,
0.0247707,-0.0226985,-0.0134302,-1.82327,-0.0127296,0.243495,0.0308737,0.0242189,0.00457332,0.0256761,0.000955651,0.580477,-0.549137,0.00188465,0,0,0,0,0,0,0,22.8711,3.63884,23.2325,-8.66466,11.0954,-14.263,0.0776116,0.0232423,-0.0221447,-0.0150267,-1.8236,-0.0249058,0.260756,0.0306703,0.00142891,0.0200715,0.00326108,-0.0103088,-0.00264144,-0.00482879,0.000283891,0.292212,2.36407,0.462618,0.854456,0.125901,-0.106001,-0.0265366,0.0551182,-35.5934,-0.110155,27.2763,0.966488,3.08617,-0.0026396,
0.0256608,-0.0228268,-0.0125144,-1.82348,-0.00641031,0.234928,0.0310559,0.041629,0.000450465,0.0434371,-0.00444823,0.622364,-0.653501,0.00606185,0,0,0,0,0,0,0,21.8215,2.84559,22.2421,-7.63585,11.0954,-14.263,0.0655718,0.0232423,-0.0221447,-0.0150267,-1.8236,-0.0249058,0.260756,0.0306703,0.00142891,0.0200715,0.00326108,-0.0103088,-0.00264144,-0.00482879,0.000283891,0,0,0,0,0,0,0,0.0551182,-35.5934,-0.110155,27.2763,0.966488,3.08617,-0.0026396,
0.0246525,-0.0219513,-0.0136209,-1.82414,-0.0189613,0.251673,0.0308455,0.0555074,0.00264605,0.0569091,-0.0121088,0.593047,-0.664731,0.0061879,0,0,0,0,0,0,0,35.3192,7.97276,35.3534,-17.0628,11.0954,-14.263,0.145701,0.0232423,-0.0221447,-0.0150267,-1.8236,-0.0249058,0.260756,0.0306703,0.00142891,0.0200715,0.00326108,-0.0103088,-0.00264144,-0.00482879,0.000283891,0,0,0,0,0,0,0,0.0551182,-35.5934,-0.110155,27.2763,0.966488,3.08617,-0.0026396,
0.0258153,-0.0218844,-0.0124506,-1.82467,-0.0139074,0.244463,0.0309878,0.073476,0.00378932,0.074784,-0.0230202,0.600786,-0.712052,0.00850855,0,0,0,0,0,0,0,32.4734,7.82593,32.5013,-15.8289,11.0954,-14.263,0.0544511,0.0232423,-0.0221447,-0.0150267,-1.8236,-0.0249058,0.260756,0.0306703,0.00142891,0.0200715,0.00326108,-0.0103088,-0.00264144,-0.00482879,0.000283891,0,0,0,0,0,0,0,0.0551182,-35.5934,-0.110155,27.2763,0.966488,3.08617,-0.0026396,
0.027144,-0.0219205,-0.0111003,-1.82551,-0.00784157,0.23627,0.0310688,0.0919973,0.00212876,0.0935858,-0.0392709,0.632274,-0.77446,0.00883197,0,0,0,0,0,0,0,30.7937,6.11447,30.9258,-15.59,11.0941,-14.2495,0.173826,0.0234126,-0.0218643,-0.0143276,-1.82394,-0.0239513,0.258729,0.0306699,0.0227394,-0.00577395,0.0428017,-0.0256725,0.0434345,-0.10424,-0.00236721,2.66381,-3.23068,4.94257,-1.92046,5.7595,-12.4264,-0.331388,5.78785,-34.4231,5.68605,27.1533,1.72363,2.84081,0.0440523,
0.0285833,-0.0219393,-0.00966105,-1.82644,-0.000993613,0.22727,0.0310711,0.10958,0.00123383,0.11085,-0.0548841,0.677018,-0.84456,0.00712153,0,0,0,0,0,0,0,27.5661,2.72271,27.8541,-17.4573,11.0941,-14.2495,0.0963058,0.0234126,-0.0218643,-0.0143276,-1.82394,-0.0239513,0.258729,0.0306699,0.0227394,-0.00577395,0.0428017,-0.0256725,0.0434345,-0.10424,-0.00236721,0,0,0,0,0,0,0,5.78785,-34.4231,5.68605,27.1533,1.72363,2.84081,0.0440523,
0.025418,-0.0222039,-0.0123002,-1.82544,-0.0177547,0.249307,0.0308487,0.117638,-0.0036105,0.118882,-0.066059,0.638767,-0.819146,0.00842933,0,0,0,0,0,0,0,40.401,7.10082,40.6195,-24.2402,11.0941,-14.2495,0.0709743,0.0234126,-0.0218643,-0.0143276,-1.82394,-0.0239513,0.258729,0.0306699,0.0227394,-0.00577395,0.0428017,-0.0256725,0.0434345,-0.10424,-0.00236721,0,0,0,0,0,0,0,5.78785,-34.4231,5.68605,27.1533,1.72363,2.84081,0.0440523,
0.0268608,-0.0224575,-0.0108516,-1.82665,-0.012563,0.242177,0.030872,0.130181,-0.00922726,0.131322,-0.0831028,0.640805,-0.83356,0.00732396,0,0,0,0,0,0,0,37.0844,5.58319,37.2533,-23.6463,11.0941,-14.2495,0.125518,0.0234126,-0.0218643,-0.0143276,-1.82394,-0.0239513,0.258729,0.0306699,0.0227394,-0.00577395,0.0428017,-0.0256725,0.0434345,-0.10424,-0.00236721,0,0,0,0,0,0,0,5.78785,-34.4231,5.68605,27.1533,1.72363,2.84081,0.0440523,
0.0284427,-0.0226756,-0.00925648,-1.828,-0.0063464,0.233964,0.0308005,0.143693,-0.0128352,0.144934,-0.100265,0.66806,-0.872187,0.00407361,0,0,0,0,0,0,0,32.8651,2.54301,32.9649,-24.9063,11.0941,-14.2495,0.0212044,0.0234126,-0.0218643,-0.0143276,-1.82394,-0.0239513,0.258729,0.0306699,0.0227394,-0.00577395,0.0428017,-0.0256725,0.0434345,-0.10424,-0.00236721,0,0,0,0,0,0,0,5.78785,-34.4231,5.68605,27.1533,1.72363,2.84081,0.0440523,
0.0301147,-0.0228401,-0.00757608,-1.82944,0.000632134,0.224969,0.0306977,0.156755,-0.0143795,0.157957,-0.116321,0.708911,-0.922613,0.000686981,0,0,0,0,0,0,0,29.3609,2.69605,29.5425,-24.0983,11.097,-14.2047,-0.0942049,0.0250498,-0.0217539,-0.0119057,-1.82525,-0.0216953,0.252842,0.030667,0.0704783,-0.00530269,0.11161,-0.0635293,0.10403,-0.211175,-0.00197319,5.96736,0.0589078,8.60099,-4.73211,7.57439,-13.3669,0.0492524,10.9096,-32.0506,10.6848,24.1898,2.10174,1.9262,0.0376436,
0.0274998,-0.0221081,-0.00943515,-1.82713,-0.0142024,0.242263,0.0307834,0.159136,-0.0173059,0.160263,-0.120845,0.681143,-0.892891,0.00100668,0,0,0,0,0,0,0,37.0999,5.59363,37.2706,-23.6143,11.097,-14.2047,0.125351,0.0250498,-0.0217539,-0.0119057,-1.82525,-0.0216953,0.252842,0.030667,0.0704783,-0.00530269,0.11161,-0.0635293,0.10403,-0.211175,-0.00197319,0,0,0,0,0,0,0,10.9096,-32.0506,10.6848,24.1898,2.10174,1.9262,0.0376436,
0.0289976,-0.0223301,-0.00792385,-1.8284,-0.00841591,0.234707,0.0307094,0.164754,-0.0193952,0.165993,-0.12843,0.689576,-0.903215,-0.00104396,0,0,0,0,0,0,0,32.8807,2.55345,32.9821,-24.8743,11.097,-14.2047,0.0210373,0.0250498,-0.0217539,-0.0119057,-1.82525,-0.0216953,0.252842,0.030667,0.0704783,-0.00530269,0.11161,-0.0635293,0.10403,-0.211175,-0.00197319,0,0,0,0,0,0,0,10.9096,-32.0506,10.6848,24.1898,2.10174,1.9262,0.0376436,
0.030597,-0.0225125,-0.00631599,-1.82978,-0.00173908,0.226177,0.0306053,0.171788,-0.020076,0.172991,-0.137208,0.718582,-0.93581,-0.00343788,0,0,0,0,0,0,0,29.3609,2.69605,29.5425,-24.0983,11.097,-14.2047,-0.0942049,0.0250498,-0.0217539,-0.0119057,-1.82525,-0.0216953,0.252842,0.030667,0.0704783,-0.00530269,0.11161,-0.0635293,0.10403,-0.211175,-0.00197319,0,0,0,0,0,0,0,10.9096,-32.0506,10.6848,24.1898,2.10174,1.9262,0.0376436,
0.0312168,-0.0221099,-0.00431964,-1.83055,-0.00909427,0.231879,0.0305868,0.175171,-0.0200438,0.176511,-0.140383,0.70232,-0.91766,-0.00483466,0,0,0,0,0,0,0,32.9164,2.5743,33.0212,-24.8188,11.1063,-14.1274,0.0207162,0.0283106,-0.0218139,-0.00725521,-1.82824,-0.0176013,0.243647,0.0306707,0.125189,-0.00363472,0.182886,-0.111344,0.124133,-0.312084,-0.00146211,6.83879,0.208496,8.90961,-5.9768,2.5129,-12.6136,0.063885,7.25971,-31.8245,7.0865,22.3926,2.12005,1.34209,0.0239107,
0.0328098,-0.0222576,-0.00271719,-1.83188,-0.00283606,0.223899,0.0304773,0.179962,-0.019726,0.18127,-0.145705,0.718312,-0.933626,-0.00660364,0,0,0,0,0,0,0,29.3966,2.7169,29.5815,-24.0428,11.1063,-14.1274,-0.094526,0.0283106,-0.0218139,-0.00725521,-1.82824,-0.0176013,0.243647,0.0306707,0.125189,-0.00363472,0.182886,-0.111344,0.124133,-0.312084,-0.00146211,0,0,0,0,0,0,0,7.25971,-31.8245,7.0865,22.3926,2.12005,1.34209,0.0239107,
0.0344574,-0.0223841,-0.00106015,-1.83331,0.00422079,0.215068,0.0303608,0.185159,-0.0189441,0.186442,-0.152315,0.75107,-0.967683,-0.00819603,0,0,0,0,0,0,0,27.2865,2.46654,27.4012,-23.4476,11.1063,-14.1274,-0.13011,0.0283106,-0.0218139,-0.00725521,-1.82824,-0.0176013,0.243647,0.0306707,0.125189,-0.00363472,0.182886,-0.111344,0.124133,-0.312084,-0.00146211,0,0,0,0,0,0,0,7.25971,-31.8245,7.0865,22.3926,2.12005,1.34209,0.0239107,
0.0361377,-0.022489,0.000629881,-1.83482,0.0118309,0.205636,0.0302457,0.190134,-0.0177788,0.191405,-0.159496,0.79111,-1.00994,-0.00943512,0,0,0,0,0,0,0,25.6822,1.95889,25.797,-23.0069,11.1063,-14.1274,-0.141491,0.0283106,-0.0218139,-0.00725521,-1.82824,-0.0176013,0.243647,0.0306707,0.125189,-0.00363472,0.182886,-0.111344,0.124133,-0.312084,-0.00146211,0,0,0,0,0,0,0,7.25971,-31.8245,7.0865,22.3926,2.12005,1.34209,0.0239107,
0.0350889,-0.0220107,0.00255258,-1.83476,-0.00657917,0.220384,0.0304485,0.189365,-0.0164779,0.190663,-0.159111,0.759828,-0.981582,-0.0105333,0,0,0,0,0,0,0,29.4208,2.67761,29.6106,-23.9812,11.1123,-14.056,-0.0949643,0.0321764,-0.0218602,-0.000400058,-1.83234,-0.0149066,0.232569,0.0306683,0.11259,-0.00226416,0.233163,-0.141633,0.0573053,-0.332394,-0.00160571,-1.5748,0.17132,6.28455,-3.7862,-8.35344,-2.53877,-0.01795,2.51484,-33.1218,2.41304,24.039,1.59546,1.7138,0.0303194,
0.0366334,-0.0221116,0.00410744,-1.83613,-0.000297804,0.212272,0.0303267,0.190104,-0.0157055,0.191401,-0.161387,0.764897,-0.988065,-0.0114722,0,0,0,0,0,0,0,27.3107,2.42724,27.4302,-23.386,11.1123,-14.056,-0.130548,0.0321764,-0.0218602,-0.000400058,-1.83234,-0.0149066,0.232569,0.0306683,0.11259,-0.00226416,0.233163,-0.141633,0.0573053,-0.332394,-0.00160571,0,0,0,0,0,0,0,2.51484,-33.1218,2.41304,24.039,1.59546,1.7138,0.0303194,
0.0382191,-0.0222113,0.0057035,-1.83758,0.00678778,0.203347,0.0302089,0.191728,-0.0150573,0.193023,-0.165385,0.789057,-1.01358,-0.0121218,0,0,0,0,0,0,0,25.7064,1.9196,25.826,-22.9453,11.1123,-14.056,-0.14193,0.0321764,-0.0218602,-0.000400058,-1.83234,-0.0149066,0.232569,0.0306683,0.11259,-0.00226416,0.233163,-0.141633,0.0573053,-0.332394,-0.00160571,0,0,0,0,0,0,0,2.51484,-33.1218,2.41304,24.039,1.59546,1.7138,0.0303194,
0.0398313,-0.0223082,0.00732587,-1.83914,0.0144242,0.194139,0.0300976,0.193686,-0.0144671,0.194978,-0.171361,0.822157,-1.04105,-0.0124809,0,0,0,0,0,0,0,24.3893,1.33895,24.5107,-22.5711,11.1123,-14.056,-0.141569,0.0321764,-0.0218602,-0.000400058,-1.83234,-0.0149066,0.232569,0.0306683,0.11259,-0.00226416,0.233163,-0.141633,0.0573053,-0.332394,-0.00160571,0,0,0,0,0,0,0,2.51484,-33.1218,2.41304,24.039,1.59546,1.7138,0.0303194,
0.0349845,-0.0220186,0.00244372,-1.83472,-0.00641485,0.220344,0.0304054,0.190622,-0.0140876,0.191944,-0.168106,0.786816,-1.00692,-0.0132615,0,0,0,0,0,0,0,27.3319,2.3884,27.4574,-23.3151,11.1197,-13.9614,-0.13097,0.0359799,-0.0219861,0.00814975,-1.83792,-0.0121629,0.220212,0.0306716,0.119856,-0.00231375,0.256669,-0.18407,0.102562,-0.395334,0.000539624,0.908213,-0.00619837,2.93822,-5.30457,5.65702,-7.86753,0.268167,0.25745,-34.1969,0.187391,26.4551,1.43615,1.9793,-0.0026396,
0.0364567,-0.0221407,0.00392663,-1.83607,-6.35516e-05,0.212215,0.0302828,0.189303,-0.0143213,0.190628,-0.168149,0.788235,-1.00876,-0.0136742,0,0,0,0,0,0,0,25.7276,1.88076,25.8532,-22.8744,11.1197,-13.9614,-0.142351,0.0359799,-0.0219861,0.00814975,-1.83792,-0.0121629,0.220212,0.0306716,0.119856,-0.00231375,0.256669,-0.18407,0.102562,-0.395334,0.000539624,0,0,0,0,0,0,0,0.25745,-34.1969,0.187391,26.4551,1.43615,1.9793,-0.0026396,
0.0379668,-0.0222717,0.0054469,-1.83754,0.00707643,0.203563,0.0301692,0.189194,-0.0147331,0.190509,-0.171446,0.809088,-1.02331,-0.0137789,0,0,0,0,0,0,0,24.4104,1.30011,24.5379,-22.5001,11.1197,-13.9614,-0.14199,0.0359799,-0.0219861,0.00814975,-1.83792,-0.0121629,0.220212,0.0306716,0.119856,-0.00231375,0.256669,-0.18407,0.102562,-0.395334,0.000539624,0,0,0,0,0,0,0,0.25745,-34.1969,0.187391,26.4551,1.43615,1.9793,-0.0026396,
0.0388918,-0.0220196,0.0111013,-1.84053,-0.00312899,0.207116,0.0303974,0.187879,-0.0127614,0.189251,-0.170401,0.782444,-1.00222,-0.0143375,0,0,0,0,0,0,0,25.7276,1.88076,25.8532,-22.8744,11.1197,-13.9614,-0.142351,0.0359799,-0.0219861,0.00814975,-1.83792,-0.0121629,0.220212,0.0306716,0.119856,-0.00231375,0.256669,-0.18407,0.102562,-0.395334,0.000539624,0,0,0,0,0,0,0,0.25745,-34.1969,0.187391,26.4551,1.43615,1.9793,-0.0026396,
0.0403725,-0.0220969,0.0125935,-1.84198,0.0034199,0.199,0.030278,0.18732,-0.0121406,0.188705,-0.17262,0.789678,-1.00468,-0.0144548,0,0,0,0,0,0,0,24.4015,1.16447,24.5356,-22.4203,11.1003,-13.8783,-0.14246,0.0398046,-0.0223375,0.0167549,-1.84424,-0.00799724,0.206057,0.0306706,0.118065,-0.0111999,0.218722,-0.182677,0.101682,-0.403672,-0.000478709,-0.223868,-1.11077,-4.74336,0.174129,-0.109946,-1.04222,-0.127292,-7.42321,-38.065,-7.31078,31.8585,1.00311,2.80785,0.0376436,
0.041874,-0.0221945,0.0141059,-1.84359,0.010715,0.19087,0.030171,0.187395,-0.0121533,0.188774,-0.17823,0.81412,-1.007,-0.0142394,0,0,0,0,0,0,0,23.268,0.586879,23.4006,-22.0756,11.1003,-12.844,-0.137559,0.0398046,-0.0223375,0.0167549,-1.84424,-0.00799724,0.206057,0.0306706,0.118065,-0.0111999,0.218722,-0.182677,0.101682,-0.403672,-0.000478709,0,0,0,0,0,0,0,-7.42321,-38.065,-7.31078,31.8585,1.00311,2.80785,0.0376436,
0.043392,-0.0222907,0.0156343,-1.84532,0.0185004,0.183144,0.030075,0.187865,-0.0121272,0.18923,-0.185764,0.845932,-0.998731,-0.013791,0,0,0,0,0,0,0,22.2848,0.00340982,22.4159,-21.7867,11.1003,-10.8708,-0.129378,0.0398046,-0.0223375,0.0167549,-1.84424,-0.00799724,0.206057,0.0306706,0.118065,-0.0111999,0.218722,-0.182677,0.101682,-0.403672,-0.000478709,0,0,0,0,0,0,0,-7.42321,-38.065,-7.31078,31.8585,1.00311,2.80785,0.0376436,
0.0424425,-0.0224877,0.0194298,-1.84685,0.000899465,0.193221,0.0304057,0.183533,-0.0121089,0.184949,-0.182375,0.80998,-0.975323,-0.0141883,0,0,0,0,0,0,0,24.4015,1.16447,24.5356,-22.4203,11.1003,-13.8783,-0.14246,0.0398046,-0.0223375,0.0167549,-1.84424,-0.00799724,0.206057,0.0306706,0.118065,-0.0111999,0.218722,-0.182677,0.101682,-0.403672,-0.000478709,0,0,0,0,0,0,0,-7.42321,-38.065,-7.31078,31.8585,1.00311,2.80785,0.0376436,
0.0438043,-0.0226164,0.0208033,-1.84836,0.00736579,0.185843,0.0302951,0.180871,-0.0129044,0.182296,-0.183714,0.809642,-0.964708,-0.0141157,0,0,0,0,0,0,0,23.2697,0.494736,23.4085,-21.9869,11.0907,-12.7376,-0.137994,0.0439557,-0.0226365,0.0247571,-1.8504,-0.00380376,0.191139,0.0306722,0.118593,-0.0161651,0.231799,-0.177807,0.187693,-0.47013,-0.00139089,0.0659853,-0.620649,1.63464,0.608687,10.7514,-8.30721,-0.114023,-4.05102,-36.4186,-3.98619,29.3433,0.111386,2.87377,0.0239107,
0.0451994,-0.022751,0.0222093,-1.85001,0.0145731,0.178662,0.0301975,0.179573,-0.0136884,0.180987,-0.188209,0.827897,-0.951303,-0.0137313,0,0,0,0,0,0,0,22.2865,-0.0887338,22.4238,-21.698,11.0907,-10.7644,-0.129812,0.0439557,-0.0226365,0.0247571,-1.8504,-0.00380376,0.191139,0.0306722,0.118593,-0.0161651,0.231799,-0.177807,0.187693,-0.47013,-0.00139089,0,0,0,0,0,0,0,-4.05102,-36.4186,-3.98619,29.3433,0.111386,2.87377,0.0239107,
0.0466219,-0.0228747,0.0236423,-1.85176,0.0222704,0.171971,0.030111,0.179221,-0.0140454,0.180617,-0.194233,0.85475,-0.928325,-0.0131483,0,0,0,0,0,0,0,21.4179,-0.615638,21.5522,-21.4426,11.0907,-8.99932,-0.119783,0.0439557,-0.0226365,0.0247571,-1.8504,-0.00380376,0.191139,0.0306722,0.118593,-0.0161651,0.231799,-0.177807,0.187693,-0.47013,-0.00139089,0,0,0,0,0,0,0,-4.05102,-36.4186,-3.98619,29.3433,0.111386,2.87377,0.0239107,
0.046643,-0.0228818,0.0274835,-1.85314,0.00590523,0.178815,0.0304211,0.177031,-0.0147479,0.178483,-0.191296,0.825421,-0.90572,-0.013471,0,0,0,0,0,0,0,23.2697,0.494736,23.4085,-21.9869,11.0907,-12.7376,-0.137994,0.0439557,-0.0226365,0.0247571,-1.8504,-0.00380376,0.191139,0.0306722,0.118593,-0.0161651,0.231799,-0.177807,0.187693,-0.47013,-0.00139089,0,0,0,0,0,0,0,-4.05102,-36.4186,-3.98619,29.3433,0.111386,2.87377,0.0239107,
0.0480087,-0.0230383,0.0288613,-1.85472,0.0126041,0.172243,0.0303191,0.175768,-0.0157122,0.177231,-0.192494,0.827809,-0.888869,-0.0133258,0,0,0,0,0,0,0,22.2607,-0.215717,22.4042,-21.615,11.0498,-10.6638,-0.130208,0.0471304,-0.0227512,0.0325773,-1.85638,0.00416805,0.174379,0.03067,0.0880707,-0.0104253,0.219525,-0.152963,0.26722,-0.523566,-0.00158522,-3.81527,0.717479,-1.5343,3.1056,9.94084,-6.67952,-0.0242919,0.741459,-34.1216,0.512709,25.0348,0.617672,2.06536,0.0440523,
0.049398,-0.0231907,0.0302618,-1.85641,0.0199719,0.165997,0.0302301,0.175345,-0.0163789,0.176798,-0.19615,0.846442,-0.867261,-0.0128853,0,0,0,0,0,0,0,21.3921,-0.742621,21.5326,-21.3597,11.0498,-8.89873,-0.120179,0.0471304,-0.0227512,0.0325773,-1.85638,0.00416805,0.174379,0.03067,0.0880707,-0.0104253,0.219525,-0.152963,0.26722,-0.523566,-0.00158522,0,0,0,0,0,0,0,0.741459,-34.1216,0.512709,25.0348,0.617672,2.06536,0.0440523,
0.046643,-0.0228818,0.0274835,-1.85314,0.00590523,0.178815,0.0304211,0.17393,-0.0166148,0.175429,-0.19283,0.818774,-0.856869,-0.0132606,0,0,0,0,0,0,0,22.2607,-0.215717,22.4042,-21.615,11.0498,-10.6638,-0.130208,0.0471304,-0.0227512,0.0325773,-1.85638,0.00416805,0.174379,0.03067,0.0880707,-0.0104253,0.219525,-0.152963,0.26722,-0.523566,-0.00158522,0,0,0,0,0,0,0,0.741459,-34.1216,0.512709,25.0348,0.617672,2.06536,0.0440523,
0.0508509,-0.023234,0.0363496,-1.86082,0.0211425,0.157522,0.0303543,0.171034,-0.017715,0.17253,-0.194599,0.823954,-0.827272,-0.0128737,0,0,0,0,0,0,0,21.3921,-0.742621,21.5326,-21.3597,11.0498,-8.89873,-0.120179,0.0471304,-0.0227512,0.0325773,-1.85638,0.00416805,0.174379,0.03067,0.0880707,-0.0104253,0.219525,-0.152963,0.26722,-0.523566,-0.00158522,0,0,0,0,0,0,0,0.741459,-34.1216,0.512709,25.0348,0.617672,2.06536,0.0440523,
0.0521623,-0.0234014,0.0376723,-1.86252,0.0285116,0.15224,0.0302761,0.169614,-0.0183553,0.171093,-0.198149,0.843391,-0.793874,-0.0122539,0,0,0,0,0,0,0,20.6151,-1.17775,20.7523,-21.1111,11.0498,-7.34509,-0.109297,0.0471304,-0.0227512,0.0325773,-1.85638,0.00416805,0.174379,0.03067,0.0880707,-0.0104253,0.219525,-0.152963,0.26722,-0.523566,-0.00158522,0,0,0,0,0,0,0,0.741459,-34.1216,0.512709,25.0348,0.617672,2.06536,0.0440523,
0.0535027,-0.0235514,0.0390237,-1.86427,0.0362903,0.1475,0.0302085,0.169201,-0.0184357,0.170658,-0.202295,0.869178,-0.753607,-0.0114926,0,0,0,0,0,0,0,19.9064,-1.63334,20.0458,-20.7533,11.0062,-5.8462,-0.0979925,0.0501215,-0.0228947,0.0401979,-1.86224,0.0151408,0.156946,0.0306767,0.0880514,-0.00941566,0.221259,-0.167816,0.331857,-0.501974,0.000558899,-0.00241394,0.126202,0.216855,-1.85666,8.07964,2.69903,0.268015,0.0313145,-33.1218,-0.288683,23.4161,0.660702,1.83282,-0.0163725,
0.0525619,-0.0231702,0.042679,-1.86525,0.0258839,0.147087,0.0304727,0.166186,-0.0185559,0.167687,-0.201005,0.84608,-0.72826,-0.0115795,0,0,0,0,0,0,0,21.3864,-0.865331,21.5334,-21.2532,11.0062,-8.78392,-0.120778,0.0501215,-0.0228947,0.0401979,-1.86224,0.0151408,0.156946,0.0306767,0.0880514,-0.00941566,0.221259,-0.167816,0.331857,-0.501974,0.000558899,0,0,0,0,0,0,0,0.0313145,-33.1218,-0.288683,23.4161,0.660702,1.83282,-0.0163725,
0.0538263,-0.0233294,0.0439555,-1.86691,0.0327647,0.142277,0.0303917,0.164559,-0.0188251,0.166064,-0.20224,0.848885,-0.702864,-0.011287,0,0,0,0,0,0,0,20.6094,-1.30046,20.7532,-21.0047,11.0062,-7.23027,-0.109896,0.0501215,-0.0228947,0.0401979,-1.86224,0.0151408,0.156946,0.0306767,0.0880514,-0.00941566,0.221259,-0.167816,0.331857,-0.501974,0.000558899,0,0,0,0,0,0,0,0.0313145,-33.1218,-0.288683,23.4161,0.660702,1.83282,-0.0163725,
0.0551215,-0.023482,0.0452623,-1.86863,0.0402062,0.137884,0.0303227,0.164028,-0.0188746,0.165521,-0.204691,0.865145,-0.672128,-0.0107554,0,0,0,0,0,0,0,19.9064,-1.63334,20.0458,-20.7533,11.0062,-5.8462,-0.0979925,0.0501215,-0.0228947,0.0401979,-1.86224,0.0151408,0.156946,0.0306767,0.0880514,-0.00941566,0.221259,-0.167816,0.331857,-0.501974,0.000558899,0,0,0,0,0,0,0,0.0313145,-33.1218,-0.288683,23.4161,0.660702,1.83282,-0.0163725,
0.0564416,-0.0236219,0.0465937,-1.87038,0.0480234,0.134024,0.0302643,0.164225,-0.0185966,0.1657,-0.207461,0.887546,-0.634206,-0.0100639,0,0,0,0,0,0,0,19.2553,-2.00558,19.3974,-20.3864,10.9561,-4.53671,-0.0867123,0.053428,-0.0231917,0.0475081,-1.86862,0.026998,0.14173,0.0306752,0.100855,0.012965,0.20035,-0.18364,0.354017,-0.425636,0.000756863,1.6004,2.79758,-2.61365,-1.97795,2.77003,9.54218,0.0247455,-2.47998,-32.2014,-2.56194,23.8882,0.868527,1.57464,-0.0026396,
0.0557989,-0.0232353,0.0499177,-1.87183,0.0378584,0.133532,0.0304905,0.161301,-0.0161577,0.162828,-0.207207,0.861535,-0.611085,-0.0101913,0,0,0,0,0,0,0,20.6009,-1.43629,20.7514,-20.8997,10.9561,-7.12689,-0.110576,0.053428,-0.0231917,0.0475081,-1.86862,0.026998,0.14173,0.0306752,0.100855,0.012965,0.20035,-0.18364,0.354017,-0.425636,0.000756863,0,0,0,0,0,0,0,-2.47998,-32.2014,-2.56194,23.8882,0.868527,1.57464,-0.0026396,
0.0570262,-0.0233164,0.0511576,-1.87354,0.044736,0.129599,0.0304189,0.159725,-0.0149547,0.161261,-0.20845,0.861169,-0.587192,-0.00994292,0,0,0,0,0,0,0,19.8979,-1.76917,20.0441,-20.6483,10.9561,-5.74281,-0.0986724,0.053428,-0.0231917,0.0475081,-1.86862,0.026998,0.14173,0.0306752,0.100855,0.012965,0.20035,-0.18364,0.354017,-0.425636,0.000756863,0,0,0,0,0,0,0,-2.47998,-32.2014,-2.56194,23.8882,0.868527,1.57464,-0.0026396,
0.0582839,-0.02341,0.0524273,-1.87528,0.0521548,0.126065,0.0303592,0.159222,-0.0143028,0.16075,-0.210264,0.874404,-0.558101,-0.00944569,0,0,0,0,0,0,0,19.2553,-2.00558,19.3974,-20.3864,10.9561,-4.53671,-0.0867123,0.053428,-0.0231917,0.0475081,-1.86862,0.026998,0.14173,0.0306752,0.100855,0.012965,0.20035,-0.18364,0.354017,-0.425636,0.000756863,0,0,0,0,0,0,0,-2.47998,-32.2014,-2.56194,23.8882,0.868527,1.57464,-0.0026396,
0.0595663,-0.0235062,0.0537212,-1.87703,0.0599377,0.123022,0.0303098,0.159438,-0.0138475,0.160949,-0.212004,0.894095,-0.522555,-0.00879202,0,0,0,0,0,0,0,18.6721,-2.28983,18.8164,-20.0039,10.9161,-3.36831,-0.0749788,0.0566825,-0.0233334,0.0550665,-1.87526,0.0383751,0.128339,0.0306738,0.08585,0.00265367,0.233542,-0.204022,0.340304,-0.361536,0.000116088,-1.87557,-1.28891,4.14898,-2.54787,-1.71413,8.0125,-0.0800969,0.106693,-34.1731,-0.0387439,27.8476,0.990292,2.35009,0.0101778,
0.0591111,-0.0234208,0.0575398,-1.87858,0.0491618,0.121523,0.030505,0.157945,-0.012668,0.159519,-0.211677,0.866257,-0.503425,-0.00896943,0,0,0,0,0,0,0,19.9074,-1.90099,20.0604,-20.5364,10.9161,-5.64207,-0.0993169,0.0566825,-0.0233334,0.0550665,-1.87526,0.0383751,0.128339,0.0306738,0.08585,0.00265367,0.233542,-0.204022,0.340304,-0.361536,0.000116088,0,0,0,0,0,0,0,0.106693,-34.1731,-0.0387439,27.8476,0.990292,2.35009,0.0101778,
0.0603423,-0.0235072,0.0587841,-1.8803,0.0560328,0.11836,0.0304421,0.157136,-0.0122935,0.158724,-0.212227,0.864781,-0.481823,-0.00875034,0,0,0,0,0,0,0,19.2648,-2.1374,19.4137,-20.2744,10.9161,-4.43597,-0.0873567,0.0566825,-0.0233334,0.0550665,-1.87526,0.0383751,0.128339,0.0306738,0.08585,0.00265367,0.233542,-0.204022,0.340304,-0.361536,0.000116088,0,0,0,0,0,0,0,0.106693,-34.1731,-0.0387439,27.8476,0.990292,2.35009,0.0101778,
0.0615935,-0.0236036,0.0600477,-1.88203,0.0634485,0.115589,0.0303908,0.156989,-0.0122461,0.158568,-0.213023,0.877216,-0.454727,-0.00828084,0,0,0,0,0,0,0,18.6721,-2.28983,18.8164,-20.0039,10.9161,-3.36831,-0.0749788,0.0566825,-0.0233334,0.0550665,-1.87526,0.0383751,0.128339,0.0306738,0.08585,0.00265367,0.233542,-0.204022,0.340304,-0.361536,0.000116088,0,0,0,0,0,0,0,0.106693,-34.1731,-0.0387439,27.8476,0.990292,2.35009,0.0101778,
0.0591111,-0.0234208,0.0575398,-1.87858,0.0491618,0.121523,0.030505,0.155985,-0.0113868,0.157614,-0.212492,0.852754,-0.449163,-0.00856049,0,0,0,0,0,0,0,19.2593,-2.28124,19.415,-20.1763,10.8683,-4.35287,-0.0878941,0.0587706,-0.0233037,0.063569,-1.88202,0.049407,0.117042,0.0306719,0.0503394,0.00121459,0.257919,-0.198847,0.315102,-0.290687,-0.000785456,-4.43883,-0.179885,3.04712,0.646973,-3.1503,8.85617,-0.112693,-0.984311,-34.6968,-1.21306,27.7246,1.04522,2.27044,0.0303194,
0.0622824,-0.0235322,0.0671453,-1.88703,0.0666953,0.109372,0.0304687,0.154367,-0.0116123,0.156007,-0.212395,0.851516,-0.418874,-0.00818728,0,0,0,0,0,0,0,18.6666,-2.43367,18.8177,-19.9058,10.8683,-3.28521,-0.0755162,0.0587706,-0.0233037,0.063569,-1.88202,0.049407,0.117042,0.0306719,0.0503394,0.00121459,0.257919,-0.198847,0.315102,-0.290687,-0.000785456,0,0,0,0,0,0,0,-0.984311,-34.6968,-1.21306,27.7246,1.04522,2.27044,0.0303194,
0.0634871,-0.0236399,0.0683626,-1.88873,0.0740277,0.107352,0.0304268,0.15361,-0.0119828,0.155238,-0.212431,0.864523,-0.385605,-0.00759806,0,0,0,0,0,0,0,18.1152,-2.51774,18.2619,-19.6258,10.8683,-2.36592,-0.0635107,0.0587706,-0.0233037,0.063569,-1.88202,0.049407,0.117042,0.0306719,0.0503394,0.00121459,0.257919,-0.198847,0.315102,-0.290687,-0.000785456,0,0,0,0,0,0,0,-0.984311,-34.6968,-1.21306,27.7246,1.04522,2.27044,0.0303194,
0.064711,-0.0237493,0.0695987,-1.89042,0.0817337,0.105744,0.0303947,0.153486,-0.0123206,0.155093,-0.212244,0.884269,-0.348671,-0.00688094,0,0,0,0,0,0,0,17.5983,-2.54833,17.7405,-19.3407,10.8683,-1.559,-0.0514995,0.0587706,-0.0233037,0.063569,-1.88202,0.049407,0.117042,0.0306719,0.0503394,0.00121459,0.257919,-0.198847,0.315102,-0.290687,-0.000785456,0,0,0,0,0,0,0,-0.984311,-34.6968,-1.21306,27.7246,1.04522,2.27044,0.0303194,
0.0628643,-0.023465,0.0744541,-1.89185,0.0712003,0.104842,0.0305437,0.152135,-0.0123586,0.153803,-0.211263,0.858362,-0.326207,-0.006965,0,0,0,0,0,0,0,18.6623,-2.55139,18.8203,-19.8194,10.8219,-3.20825,-0.0760241,0.0605108,-0.0232942,0.0720507,-1.88856,0.0603906,0.108669,0.0306745,0.0631378,-0.00243486,0.252477,-0.198513,0.347456,-0.209598,0.00029573,1.5998,-0.456182,-0.680279,0.0417226,4.04427,10.1362,0.135148,-0.857357,-33.824,-0.963121,25.6339,0.758663,1.76049,0.00376909,
0.0640462,-0.0235794,0.0756499,-1.89352,0.0780517,0.103176,0.0304991,0.151257,-0.0127474,0.152935,-0.210731,0.857974,-0.302608,-0.00668876,0,0,0,0,0,0,0,18.1109,-2.63546,18.2645,-19.5394,10.8219,-2.28897,-0.0640186,0.0605108,-0.0232942,0.0720507,-1.88856,0.0603906,0.108669,0.0306745,0.0631378,-0.00243486,0.252477,-0.198513,0.347456,-0.209598,0.00029573,0,0,0,0,0,0,0,-0.857357,-33.824,-0.963121,25.6339,0.758663,1.76049,0.00376909,
0.065243,-0.0236992,0.0768597,-1.89519,0.0854348,0.101829,0.0304655,0.150926,-0.0131931,0.152593,-0.210217,0.870958,-0.275757,-0.00619009,0,0,0,0,0,0,0,17.5941,-2.66605,17.7431,-19.2544,10.8219,-1.48204,-0.0520074,0.0605108,-0.0232942,0.0720507,-1.88856,0.0603906,0.108669,0.0306745,0.0631378,-0.00243486,0.252477,-0.198513,0.347456,-0.209598,0.00029573,0,0,0,0,0,0,0,-0.857357,-33.824,-0.963121,25.6339,0.758663,1.76049,0.00376909,
0.066454,-0.0238198,0.0780831,-1.89684,0.0931713,0.100846,0.0304416,0.151014,-0.0135686,0.15266,-0.209473,0.890178,-0.245197,-0.00555042,0,0,0,0,0,0,0,17.1062,-2.65691,17.2509,-18.9647,10.8219,-0.797165,-0.0405531,0.0605108,-0.0232942,0.0720507,-1.88856,0.0603906,0.108669,0.0306745,0.0631378,-0.00243486,0.252477,-0.198513,0.347456,-0.209598,0.00029573,0,0,0,0,0,0,0,-0.857357,-33.824,-0.963121,25.6339,0.758663,1.76049,0.00376909,
0.0628365,-0.0234633,0.074426,-1.89189,0.0712454,0.10544,0.030562,0.149728,-0.0132482,0.151421,-0.209449,0.86369,-0.234532,-0.0056662,0,0,0,0,0,0,0,18.1054,-2.75359,18.2669,-19.4737,10.7688,-2.22825,-0.0644338,0.0625146,-0.0234654,0.0809288,-1.89572,0.0729016,0.10307,0.030673,0.0447945,-0.00251248,0.258143,-0.203538,0.36676,-0.135615,-0.000709224,-2.29291,-0.00970258,0.708297,-0.628134,2.41307,9.24786,-0.125619,1.88404,-33.3479,1.53627,26.5305,1.06994,2.05804,0.017502,
0.0639967,-0.0235681,0.0755997,-1.89357,0.0781186,0.104175,0.0305262,0.148787,-0.0132205,0.15048,-0.209339,0.862781,-0.219248,-0.00542638,0,0,0,0,0,0,0,17.5886,-2.78418,17.7455,-19.1887,10.7688,-1.42132,-0.0524226,0.0625146,-0.0234654,0.0809288,-1.89572,0.0729016,0.10307,0.030673,0.0447945,-0.00251248,0.258143,-0.203538,0.36676,-0.135615,-0.000709224,0,0,0,0,0,0,0,1.88404,-33.3479,1.53627,26.5305,1.06994,2.05804,0.017502,
0.0651686,-0.0236763,0.0767843,-1.89522,0.0855198,0.10324,0.0305014,0.148327,-0.0132792,0.149999,-0.208895,0.875257,-0.198771,-0.00496267,0,0,0,0,0,0,0,17.1007,-2.77503,17.2533,-18.899,10.7688,-0.736446,-0.0409684,0.0625146,-0.0234654,0.0809288,-1.89572,0.0729016,0.10307,0.030673,0.0447945,-0.00251248,0.258143,-0.203538,0.36676,-0.135615,-0.000709224,0,0,0,0,0,0,0,1.88404,-33.3479,1.53627,26.5305,1.06994,2.05804,0.017502,
0.0663523,-0.0237847,0.0779802,-1.89686,0.0932706,0.102653,0.0304857,0.148255,-0.013335,0.149897,-0.207995,0.893975,-0.173682,-0.00436333,0,0,0,0,0,0,0,16.6375,-2.73745,16.7858,-18.6087,10.7688,-0.141382,-0.0297647,0.0625146,-0.0234654,0.0809288,-1.89572,0.0729016,0.10307,0.030673,0.0447945,-0.00251248,0.258143,-0.203538,0.36676,-0.135615,-0.000709224,0,0,0,0,0,0,0,1.88404,-33.3479,1.53627,26.5305,1.06994,2.05804,0.017502,
0.06476,-0.0236158,0.0832265,-1.89904,0.0838391,0.101014,0.0305804,0.146584,-0.0128169,0.148283,-0.208005,0.86717,-0.162856,-0.0044752,0,0,0,0,0,0,0,17.58,-2.89556,17.7438,-19.1381,10.7134,-1.37864,-0.0527147,0.0642568,-0.0234609,0.089112,-1.9026,0.0855171,0.0999849,0.0306738,0.0475538,-0.00584458,0.230222,-0.19409,0.356939,-0.053311,-0.000202408,0.344902,-0.416512,-3.4902,1.18097,-1.22764,10.288,0.063352,-1.79364,-35.9941,-2.11363,27.3279,0.807186,1.87951,0.0101778,
0.0658851,-0.0237126,0.0843654,-1.9007,0.090704,0.1003,0.0305537,0.145395,-0.0126753,0.1471,-0.207673,0.865359,-0.148125,-0.00424832,0,0,0,0,0,0,0,17.0922,-2.88641,17.2516,-18.8485,10.7134,-0.693761,-0.0412604,0.0642568,-0.0234609,0.089112,-1.9026,0.0855171,0.0999849,0.0306738,0.0475538,-0.00584458,0.230222,-0.19409,0.356939,-0.053311,-0.000202408,0,0,0,0,0,0,0,-1.79364,-35.9941,-2.11363,27.3279,0.807186,1.87951,0.0101778,
0.0670232,-0.0238151,0.0855166,-1.90232,0.0980826,0.0998757,0.0305371,0.144769,-0.012701,0.146459,-0.20687,0.876751,-0.12911,-0.00381294,0,0,0,0,0,0,0,16.629,-2.84883,16.7841,-18.5582,10.7134,-0.0986979,-0.0300568,0.0642568,-0.0234609,0.089112,-1.9026,0.0855171,0.0999849,0.0306738,0.0475538,-0.00584458,0.230222,-0.19409,0.356939,-0.053311,-0.000202408,0,0,0,0,0,0,0,-1.79364,-35.9941,-2.11363,27.3279,0.807186,1.87951,0.0101778,
0.068174,-0.0239204,0.0866799,-1.90393,0.105803,0.0997564,0.0305293,0.144584,-0.012795,0.146249,-0.205579,0.894404,-0.106272,-0.00324618,0,0,0,0,0,0,0,16.1866,-2.79221,16.3376,-18.2675,10.7134,0.398234,-0.0194725,0.0642568,-0.0234609,0.089112,-1.9026,0.0855171,0.0999849,0.0306738,0.0475538,-0.00584458,0.230222,-0.19409,0.356939,-0.053311,-0.000202408,0,0,0,0,0,0,0,-1.79364,-35.9941,-2.11363,27.3279,0.807186,1.87951,0.0101778,
0.0663465,-0.0236645,0.0912511,-1.90583,0.0962684,0.0992085,0.0306011,0.141836,-0.0129887,0.143554,-0.204888,0.865144,-0.0934039,-0.00333811,0,0,0,0,0,0,0,17.0922,-2.88641,17.2516,-18.8485,10.7134,-0.693761,-0.0412604,0.0642568,-0.0234609,0.089112,-1.9026,0.0855171,0.0999849,0.0306738,0.0475538,-0.00584458,0.230222,-0.19409,0.356939,-0.053311,-0.000202408,0,0,0,0,0,0,0,-1.79364,-35.9941,-2.11363,27.3279,0.807186,1.87951,0.0101778,
0.0674083,-0.0237808,0.0923269,-1.90744,0.103042,0.0990613,0.0305832,0.140014,-0.0132994,0.141737,-0.203989,0.861455,-0.0784041,-0.00311637,0,0,0,0,0,0,0,16.6168,-2.92945,16.778,-18.5253,10.664,-0.070681,-0.0301869,0.0661145,-0.0233755,0.096929,-1.90849,0.0969382,0.0995727,0.03067,0.0487889,0.0158218,0.21821,-0.158782,0.318107,0.00406388,-0.00102399,0.154399,2.7083,-1.50145,4.41356,-4.85408,7.17186,-0.102698,-0.0718349,-34.3199,-0.33629,25.9552,0.97839,1.64696,0.0440523,
0.0684901,-0.0238994,0.0934219,-1.90902,0.110336,0.0991477,0.030575,0.139056,-0.0136056,0.140764,-0.202745,0.871511,-0.0605638,-0.00269811,0,0,0,0,0,0,0,16.1744,-2.87283,16.3315,-18.2346,10.664,0.426251,-0.0196026,0.0661145,-0.0233755,0.096929,-1.90849,0.0969382,0.0995727,0.03067,0.0487889,0.0158218,0.21821,-0.158782,0.318107,0.00406388,-0.00102399,0,0,0,0,0,0,0,-0.0718349,-34.3199,-0.33629,25.9552,0.97839,1.64696,0.0440523,
0.0681021,-0.0234927,0.0989658,-1.91159,0.107364,0.0999893,0.0306108,0.136134,-0.0129473,0.137893,-0.20158,0.843418,-0.0423363,-0.00271119,0,0,0,0,0,0,0,16.6168,-2.92945,16.778,-18.5253,10.664,-0.070681,-0.0301869,0.0661145,-0.0233755,0.096929,-1.90849,0.0969382,0.0995727,0.03067,0.0487889,0.0158218,0.21821,-0.158782,0.318107,0.00406388,-0.00102399,0,0,0,0,0,0,0,-0.0718349,-34.3199,-0.33629,25.9552,0.97839,1.64696,0.0440523,
0.0691148,-0.023593,0.0999928,-1.91316,0.114031,0.100359,0.0306007,0.134226,-0.0128643,0.135988,-0.20047,0.841401,-0.0246305,-0.00242133,0,0,0,0,0,0,0,16.1744,-2.87283,16.3315,-18.2346,10.664,0.426251,-0.0196026,0.0661145,-0.0233755,0.096929,-1.90849,0.0969382,0.0995727,0.03067,0.0487889,0.0158218,0.21821,-0.158782,0.318107,0.00406388,-0.00102399,0,0,0,0,0,0,0,-0.0718349,-34.3199,-0.33629,25.9552,0.97839,1.64696,0.0440523,
0.0701501,-0.0237014,0.101041,-1.91471,0.121237,0.100895,0.0306,0.133263,-0.0130036,0.135008,-0.199051,0.853278,-0.00630776,-0.00195567,0,0,0,0,0,0,0,15.7506,-2.86965,15.9092,-17.9303,10.6191,0.877096,-0.00949043,0.0677757,-0.0233315,0.103829,-1.91369,0.10868,0.099627,0.030673,0.0488521,0.00277479,0.195378,-0.156028,0.35688,-0.00352735,-0.000293517,0.00789691,-1.63088,-2.85398,0.344228,4.84669,-0.948905,0.0913092,2.01099,-32.6259,1.61165,25.4315,1.39953,1.24962,0.017502,
0.071206,-0.0238146,0.10211,-1.91623,0.128806,0.101618,0.0306072,0.133008,-0.0132305,0.134727,-0.197275,0.871845,0.0130471,-0.0013841,0,0,0,0,0,0,0,15.3407,-2.79479,15.4954,-17.6449,10.6191,1.22865,0.000177423,0.0677757,-0.0233315,0.103829,-1.91369,0.10868,0.099627,0.030673,0.0488521,0.00277479,0.195378,-0.156028,0.35688,-0.00352735,-0.000293517,0,0,0,0,0,0,0,2.01099,-32.6259,1.61165,25.4315,1.39953,1.24962,0.017502,
0.0696475,-0.0235637,0.105747,-1.91675,0.119356,0.100329,0.030635,0.13002,-0.0137887,0.13178,-0.196534,0.845749,0.0212217,-0.00141,0,0,0,0,0,0,0,16.1751,-2.9381,16.3378,-18.2183,10.6191,0.449683,-0.0197167,0.0677757,-0.0233315,0.103829,-1.91369,0.10868,0.099627,0.030673,0.0488521,0.00277479,0.195378,-0.156028,0.35688,-0.00352735,-0.000293517,0,0,0,0,0,0,0,2.01099,-32.6259,1.61165,25.4315,1.39953,1.24962,0.017502,
0.070618,-0.0236941,0.106732,-1.91829,0.126056,0.100925,0.0306336,0.128277,-0.0142909,0.130037,-0.195688,0.844096,0.0318643,-0.00116166,0,0,0,0,0,0,0,15.7506,-2.86965,15.9092,-17.9303,10.6191,0.877096,-0.00949043,0.0677757,-0.0233315,0.103829,-1.91369,0.10868,0.099627,0.030673,0.0488521,0.00277479,0.195378,-0.156028,0.35688,-0.00352735,-0.000293517,0,0,0,0,0,0,0,2.01099,-32.6259,1.61165,25.4315,1.39953,1.24962,0.017502,
0.0716161,-0.023823,0.107743,-1.9198,0.133267,0.1017,0.0306409,0.127576,-0.0146548,0.12932,-0.194445,0.855555,0.0448794,-0.00074831,0,0,0,0,0,0,0,15.3397,-2.85844,15.5,-17.6156,10.5782,1.25813,7.64365e-05,0.0694756,-0.0233036,0.11083,-1.91909,0.119953,0.0996537,0.0306745,0.0387165,0.00715142,0.210832,-0.153638,0.332666,-6.22936e-05,0.000577036,-1.26696,0.547078,1.93171,0.298747,-3.02683,0.433132,0.108819,0.919986,-32.975,0.611891,25.9076,1.39953,1.30913,0.00376909,
0.0726379,-0.0239503,0.108778,-1.92129,0.140824,0.102658,0.0306555,0.127604,-0.0149068,0.129326,-0.192786,0.87338,0.0598592,-0.000232666,0,0,0,0,0,0,0,14.942,-2.7809,15.0985,-17.3352,10.5782,1.55933,0.00940909,0.0694756,-0.0233036,0.11083,-1.91909,0.119953,0.0996537,0.0306745,0.0387165,0.00715142,0.210832,-0.153638,0.332666,-6.22936e-05,0.000577036,0,0,0,0,0,0,0,0.919986,-32.975,0.611891,25.9076,1.39953,1.30913,0.00376909,
0.0713457,-0.0234957,0.112749,-1.92216,0.130443,0.100682,0.0306499,0.125563,-0.0146601,0.127338,-0.193014,0.84516,0.0632735,-0.000319577,0,0,0,0,0,0,0,15.7496,-2.9333,15.9138,-17.901,10.5782,0.906578,-0.00959141,0.0694756,-0.0233036,0.11083,-1.91909,0.119953,0.0996537,0.0306745,0.0387165,0.00715142,0.210832,-0.153638,0.332666,-6.22936e-05,0.000577036,0,0,0,0,0,0,0,0.919986,-32.975,0.611891,25.9076,1.39953,1.30913,0.00376909,
0.072304,-0.023609,0.113722,-1.92369,0.137092,0.101477,0.0306553,0.124409,-0.0145606,0.126191,-0.192766,0.842355,0.070484,-0.00011945,0,0,0,0,0,0,0,15.3397,-2.85844,15.5,-17.6156,10.5782,1.25813,7.64365e-05,0.0694756,-0.0233036,0.11083,-1.91909,0.119953,0.0996537,0.0306745,0.0387165,0.00715142,0.210832,-0.153638,0.332666,-6.22936e-05,0.000577036,0,0,0,0,0,0,0,0.919986,-32.975,0.611891,25.9076,1.39953,1.30913,0.00376909,
0.0732854,-0.0237229,0.114717,-1.9252,0.144264,0.10245,0.0306692,0.124061,-0.0144963,0.12583,-0.19184,0.853187,0.0807062,0.000252381,0,0,0,0,0,0,0,14.9397,-2.85086,15.1018,-17.312,10.5363,1.58412,0.00932228,0.0706345,-0.0232277,0.118156,-1.92414,0.131029,0.0997862,0.0306738,0.0223332,0.00424457,0.219281,-0.14096,0.327826,0.00784951,-0.000356207,-2.04791,-0.363356,1.05615,1.58479,-0.604881,0.988976,-0.116655,1.07074,-33.824,0.663466,26.4035,1.60736,1.48125,0.0101778,
0.0742869,-0.0238379,0.115732,-1.92667,0.151789,0.103598,0.0306907,0.124288,-0.0144706,0.126037,-0.190327,0.870669,0.0932772,0.000739095,0,0,0,0,0,0,0,14.5507,-2.77274,14.7091,-17.0368,10.5363,1.83111,0.0183155,0.0706345,-0.0232277,0.118156,-1.92414,0.131029,0.0997862,0.0306738,0.0223332,0.00424457,0.219281,-0.14096,0.327826,0.00784951,-0.000356207,0,0,0,0,0,0,0,1.07074,-33.824,0.663466,26.4035,1.60736,1.48125,0.0101778,
0.0724429,-0.0234765,0.120016,-1.92713,0.141468,0.101218,0.0306636,0.122166,-0.0149351,0.123965,-0.19021,0.842361,0.0954979,0.000644721,0,0,0,0,0,0,0,15.3374,-2.92839,15.5033,-17.5924,10.5363,1.28292,-1.03753e-05,0.0706345,-0.0232277,0.118156,-1.92414,0.131029,0.0997862,0.0306738,0.0223332,0.00424457,0.219281,-0.14096,0.327826,0.00784951,-0.000356207,0,0,0,0,0,0,0,1.07074,-33.824,0.663466,26.4035,1.60736,1.48125,0.0101778,
0.0733721,-0.0236076,0.12096,-1.92863,0.148091,0.102235,0.0306762,0.120964,-0.0152276,0.122769,-0.189726,0.839458,0.101839,0.000831497,0,0,0,0,0,0,0,14.9397,-2.85086,15.1018,-17.312,10.5363,1.58412,0.00932228,0.0706345,-0.0232277,0.118156,-1.92414,0.131029,0.0997862,0.0306738,0.0223332,0.00424457,0.219281,-0.14096,0.327826,0.00784951,-0.000356207,0,0,0,0,0,0,0,1.07074,-33.824,0.663466,26.4035,1.60736,1.48125,0.0101778,
0.0743246,-0.0237345,0.121927,-1.93011,0.155236,0.103424,0.0306973,0.120583,-0.015353,0.122375,-0.188628,0.850198,0.111188,0.00119275,0,0,0,0,0,0,0,14.5499,-2.83438,14.7126,-17.0107,10.5008,1.85687,0.0182574,0.0716913,-0.0229156,0.125752,-1.92891,0.141072,0.0999322,0.0306767,0.0250934,0.00160656,0.217414,-0.138169,0.294449,-0.00296837,0.00119203,0.345035,-0.329751,-0.233351,0.348873,-4.17219,-1.35224,0.19353,1.04694,-33.9232,0.687269,26.7526,1.70532,1.64696,-0.0163725,
0.0734761,-0.0231875,0.127589,-1.93188,0.151236,0.101481,0.0306796,0.118819,-0.0158287,0.120659,-0.188679,0.823242,0.111976,0.00117192,0,0,0,0,0,0,0,14.9389,-2.91249,15.1053,-17.2859,10.5008,1.60987,0.00926418,0.0716913,-0.0229156,0.125752,-1.92891,0.141072,0.0999322,0.0306767,0.0250934,0.00160656,0.217414,-0.138169,0.294449,-0.00296837,0.00119203,0,0,0,0,0,0,0,1.04694,-33.9232,0.687269,26.7526,1.70532,1.64696,-0.0163725,
0.0743856,-0.0233208,0.128514,-1.93337,0.157782,0.102613,0.0306991,0.117793,-0.0159949,0.119636,-0.188226,0.822249,0.117894,0.00142447,0,0,0,0,0,0,0,14.5499,-2.83438,14.7126,-17.0107,10.5008,1.85687,0.0182574,0.0716913,-0.0229156,0.125752,-1.92891,0.141072,0.0999322,0.0306767,0.0250934,0.00160656,0.217414,-0.138169,0.294449,-0.00296837,0.00119203,0,0,0,0,0,0,0,1.04694,-33.9232,0.687269,26.7526,1.70532,1.64696,-0.0163725,
0.0753152,-0.0234467,0.129457,-1.93483,0.164871,0.103928,0.0307278,0.117474,-0.0159443,0.119302,-0.187056,0.835026,0.12719,0.0018578,0,0,0,0,0,0,0,14.1652,-2.75621,14.3243,-16.7426,10.5008,2.07249,0.0273516,0.0716913,-0.0229156,0.125752,-1.92891,0.141072,0.0999322,0.0306767,0.0250934,0.00160656,0.217414,-0.138169,0.294449,-0.00296837,0.00119203,0,0,0,0,0,0,0,1.04694,-33.9232,0.687269,26.7526,1.70532,1.64696,-0.0163725,
0.0762619,-0.0235689,0.130418,-1.93626,0.172326,0.105406,0.0307638,0.117646,-0.0158106,0.119452,-0.185291,0.854402,0.138698,0.00238529,0,0,0,0,0,0,0,13.7742,-2.73872,13.9346,-16.4546,10.469,2.27901,0.03726,0.0728378,-0.0227187,0.133025,-1.93348,0.150255,0.0999798,0.0306774,0.0362983,0.00084223,0.212773,-0.139099,0.264212,0.00224579,0.00168085,1.40061,-0.0955417,-0.580215,-0.116342,-3.77967,0.651771,0.0611028,1.14612,-32.6497,0.889601,25.1102,1.71081,1.4016,-0.0227812,
0.0746292,-0.0229867,0.134868,-1.93646,0.160184,0.101721,0.030692,0.116402,-0.0160972,0.118262,-0.1859,0.824351,0.136698,0.00228117,0,0,0,0,0,0,0,14.5496,-2.8969,14.7168,-16.9836,10.469,1.88293,0.018171,0.0728378,-0.0227187,0.133025,-1.93348,0.150255,0.0999798,0.0306774,0.0362983,0.00084223,0.212773,-0.139099,0.264212,0.00224579,0.00168085,0,0,0,0,0,0,0,1.14612,-32.6497,0.889601,25.1102,1.71081,1.4016,-0.0227812,
0.0755282,-0.0231144,0.135782,-1.93794,0.166672,0.102972,0.0307187,0.115596,-0.0160698,0.117462,-0.185759,0.821674,0.14063,0.0024923,0,0,0,0,0,0,0,14.1648,-2.81873,14.3285,-16.7155,10.469,2.09856,0.0272652,0.0728378,-0.0227187,0.133025,-1.93348,0.150255,0.0999798,0.0306774,0.0362983,0.00084223,0.212773,-0.139099,0.264212,0.00224579,0.00168085,0,0,0,0,0,0,0,1.14612,-32.6497,0.889601,25.1102,1.71081,1.4016,-0.0227812,
0.0764411,-0.0232343,0.13671,-1.93938,0.173722,0.104407,0.0307538,0.115299,-0.0158555,0.117153,-0.184742,0.833584,0.148381,0.00287152,0,0,0,0,0,0,0,13.7742,-2.73872,13.9346,-16.4546,10.469,2.27901,0.03726,0.0728378,-0.0227187,0.133025,-1.93348,0.150255,0.0999798,0.0306774,0.0362983,0.00084223,0.212773,-0.139099,0.264212,0.00224579,0.00168085,0,0,0,0,0,0,0,1.14612,-32.6497,0.889601,25.1102,1.71081,1.4016,-0.0227812,
0.0773662,-0.0233507,0.137649,-1.94079,0.18115,0.106,0.0307956,0.115368,-0.0155946,0.117192,-0.183022,0.852558,0.15851,0.00334112,0,0,0,0,0,0,0,13.3512,-2.71769,13.5132,-16.1788,10.4389,2.45756,0.0458551,0.0741485,-0.0226171,0.140214,-1.93788,0.158886,0.0999808,0.0306738,0.0416666,0.0019565,0.208052,-0.137001,0.256779,3.45582e-05,0.000775396,0.671034,0.139284,-0.590101,0.262239,-0.929122,-0.276404,-0.113182,1.09455,-32.0982,0.838026,25.0348,1.8518,1.36223,0.0101778,
0.0759242,-0.0228744,0.142041,-1.94084,0.16876,0.101853,0.0307018,0.114308,-0.0157839,0.116188,-0.183902,0.82232,0.154555,0.0032327,0,0,0,0,0,0,0,14.1644,-2.88403,14.3329,-16.6922,10.4389,2.12327,0.027174,0.0741485,-0.0226171,0.140214,-1.93788,0.158886,0.0999808,0.0306738,0.0416666,0.0019565,0.208052,-0.137001,0.256779,3.45582e-05,0.000775396,0,0,0,0,0,0,0,1.09455,-32.0982,0.838026,25.0348,1.8518,1.36223,0.0101778,
0.0768073,-0.022996,0.142939,-1.94231,0.175231,0.103198,0.0307351,0.113524,-0.0156672,0.115413,-0.183888,0.819645,0.157263,0.00341744,0,0,0,0,0,0,0,13.7738,-2.80402,13.939,-16.4313,10.4389,2.30371,0.0371688,0.0741485,-0.0226171,0.140214,-1.93788,0.158886,0.0999808,0.0306738,0.0416666,0.0019565,0.208052,-0.137001,0.256779,3.45582e-05,0.000775396,0,0,0,0,0,0,0,1.09455,-32.0982,0.838026,25.0348,1.8518,1.36223,0.0101778,
0.0777,-0.0231099,0.143846,-1.94374,0.182268,0.104729,0.0307761,0.113135,-0.0153801,0.115004,-0.182888,0.831644,0.164085,0.00375901,0,0,0,0,0,0,0,13.3512,-2.71769,13.5132,-16.1788,10.4389,2.45756,0.0458551,0.0741485,-0.0226171,0.140214,-1.93788,0.158886,0.0999808,0.0306738,0.0416666,0.0019565,0.208052,-0.137001,0.256779,3.45582e-05,0.000775396,0,0,0,0,0,0,0,1.09455,-32.0982,0.838026,25.0348,1.8518,1.36223,0.0101778,
0.0759033,-0.0228623,0.142019,-1.94082,0.168785,0.101947,0.0307156,0.112181,-0.0154309,0.114093,-0.183537,0.805979,0.160445,0.00373114,0,0,0,0,0,0,0,13.7738,-2.80402,13.939,-16.4313,10.4389,2.30371,0.0371688,0.0741485,-0.0226171,0.140214,-1.93788,0.158886,0.0999808,0.0306738,0.0416666,0.0019565,0.208052,-0.137001,0.256779,3.45582e-05,0.000775396,0,0,0,0,0,0,0,1.09455,-32.0982,0.838026,25.0348,1.8518,1.36223,0.0101778,
0.0767676,-0.0229754,0.142898,-1.94228,0.175275,0.103356,0.0307548,0.111351,-0.0151726,0.113253,-0.183255,0.80702,0.163586,0.00396438,0,0,0,0,0,0,0,13.3517,-2.78339,13.5185,-16.1494,10.4098,2.48613,0.0457422,0.0757299,-0.0225286,0.147297,-1.94251,0.167617,0.100002,0.0306722,0.0499427,0.000761688,0.215057,-0.136635,0.245201,0.00678091,0.000184317,1.03451,-0.149352,0.8757,0.045761,-1.44718,0.843294,-0.0738849,-0.222592,-32.7727,-0.463243,25.8322,1.83349,1.43548,0.0239107,
0.0776366,-0.0230805,0.143781,-1.94369,0.182331,0.104954,0.0307988,0.110807,-0.0147653,0.112666,-0.182001,0.822019,0.170807,0.00427109,0,0,0,0,0,0,0,12.9005,-2.68654,13.0597,-15.9042,10.4098,2.60903,0.0536027,0.0757299,-0.0225286,0.147297,-1.94251,0.167617,0.100002,0.0306722,0.0499427,0.000761688,0.215057,-0.136635,0.245201,0.00678091,0.000184317,0,0,0,0,0,0,0,-0.222592,-32.7727,-0.463243,25.8322,1.83349,1.43548,0.0239107,
0.0785097,-0.0231811,0.144667,-1.94507,0.189766,0.106702,0.0308439,0.110472,-0.0143276,0.112289,-0.179973,0.843491,0.180355,0.00454477,0,0,0,0,0,0,0,12.4138,-2.58182,12.5621,-15.6745,10.4098,2.71438,0.0576486,0.0757299,-0.0225286,0.147297,-1.94251,0.167617,0.100002,0.0306722,0.0499427,0.000761688,0.215057,-0.136635,0.245201,0.00678091,0.000184317,0,0,0,0,0,0,0,-0.222592,-32.7727,-0.463243,25.8322,1.83349,1.43548,0.0239107,
0.0775396,-0.0227807,0.149158,-1.94543,0.177479,0.102111,0.0307233,0.110513,-0.0146358,0.112385,-0.180923,0.815351,0.175303,0.00447844,0,0,0,0,0,0,0,13.3517,-2.78339,13.5185,-16.1494,10.4098,2.48613,0.0457422,0.0757299,-0.0225286,0.147297,-1.94251,0.167617,0.100002,0.0306722,0.0499427,0.000761688,0.215057,-0.136635,0.245201,0.00678091,0.000184317,0,0,0,0,0,0,0,-0.222592,-32.7727,-0.463243,25.8322,1.83349,1.43548,0.0239107,
0.0784085,-0.022894,0.150041,-1.94688,0.183978,0.103596,0.0307646,0.110134,-0.0145423,0.111998,-0.180816,0.814755,0.177368,0.00461636,0,0,0,0,0,0,0,12.9005,-2.68654,13.0597,-15.9042,10.4098,2.60903,0.0536027,0.0757299,-0.0225286,0.147297,-1.94251,0.167617,0.100002,0.0306722,0.0499427,0.000761688,0.215057,-0.136635,0.245201,0.00678091,0.000184317,0,0,0,0,0,0,0,-0.222592,-32.7727,-0.463243,25.8322,1.83349,1.43548,0.0239107,
0.0792717,-0.022997,0.150919,-1.94827,0.191048,0.105265,0.0308084,0.109686,-0.0142083,0.111527,-0.179604,0.828538,0.18364,0.00478838,0,0,0,0,0,0,0,12.4138,-2.58182,12.5621,-15.6745,10.4098,2.71438,0.0576486,0.0757299,-0.0225286,0.147297,-1.94251,0.167617,0.100002,0.0306722,0.0499427,0.000761688,0.215057,-0.136635,0.245201,0.00678091,0.000184317,0,0,0,0,0,0,0,-0.222592,-32.7727,-0.463243,25.8322,1.83349,1.43548,0.0239107,
0.0801318,-0.0230928,0.151793,-1.94963,0.198493,0.10708,0.0308533,0.10925,-0.0137603,0.111072,-0.177504,0.848978,0.192273,0.00495185,0,0,0,0,0,0,0,11.92,-2.43655,12.0677,-15.4322,10.4098,2.79713,0.0583899,0.0757299,-0.0225286,0.147297,-1.94251,0.167617,0.100002,0.0306722,0.0499427,0.000761688,0.215057,-0.136635,0.245201,0.00678091,0.000184317,0,0,0,0,0,0,0,-0.222592,-32.7727,-0.463243,25.8322,1.83349,1.43548,0.0239107,
0.077515,-0.0227682,0.149132,-1.94541,0.17751,0.102166,0.0307316,0.109137,-0.0139995,0.110994,-0.178671,0.820203,0.185701,0.00487459,0,0,0,0,0,0,0,12.9005,-2.68654,13.0597,-15.9042,10.4098,2.60903,0.0536027,0.0757299,-0.0225286,0.147297,-1.94251,0.167617,0.100002,0.0306722,0.0499427,0.000761688,0.215057,-0.136635,0.245201,0.00678091,0.000184317,0,0,0,0,0,0,0,-0.222592,-32.7727,-0.463243,25.8322,1.83349,1.43548,0.0239107,
0.0783622,-0.0228718,0.149994,-1.94684,0.184029,0.10369,0.0307732,0.108489,-0.0137908,0.11034,-0.178638,0.819136,0.186654,0.00494108,0,0,0,0,0,0,0,12.4091,-2.65822,12.5616,-15.6616,10.3782,2.72936,0.057601,0.0776651,-0.0224844,0.153387,-1.94694,0.175662,0.100344,0.0306752,0.0588307,0.000402883,0.166671,-0.127022,0.232358,0.0202058,-0.00371552,1.111,-0.0448506,-6.04826,1.20169,-1.60546,1.67811,-0.487479,-0.528073,-33.0504,-0.788561,26.4789,1.90673,1.51513,-0.0026396,
0.0792,-0.0229624,0.150846,-1.94822,0.191116,0.105397,0.0308172,0.107736,-0.0132969,0.109574,-0.177378,0.832487,0.192007,0.00505057,0,0,0,0,0,0,0,11.9152,-2.51295,12.0672,-15.4194,10.3782,2.8121,0.0583423,0.0776651,-0.0224844,0.153387,-1.94694,0.175662,0.100344,0.0306752,0.0588307,0.000402883,0.166671,-0.127022,0.232358,0.0202058,-0.00371552,0,0,0,0,0,0,0,-0.528073,-33.0504,-0.788561,26.4789,1.90673,1.51513,-0.0026396,
0.0792197,-0.022741,0.154985,-1.94976,0.185329,0.102788,0.0307406,0.105286,-0.0137963,0.107154,-0.177679,0.804182,0.188961,0.00500945,0,0,0,0,0,0,0,12.4091,-2.65822,12.5616,-15.6616,10.3782,2.72936,0.057601,0.0776651,-0.0224844,0.153387,-1.94694,0.175662,0.100344,0.0306752,0.0588307,0.000402883,0.166671,-0.127022,0.232358,0.0202058,-0.00371552,0,0,0,0,0,0,0,-0.528073,-33.0504,-0.788561,26.4789,1.90673,1.51513,-0.0026396,
0.0799779,-0.0228461,0.155758,-1.95116,0.191741,0.104437,0.0307838,0.103183,-0.0136646,0.105054,-0.176985,0.803639,0.192397,0.00508686,0,0,0,0,0,0,0,11.9152,-2.51295,12.0672,-15.4194,10.3782,2.8121,0.0583423,0.0776651,-0.0224844,0.153387,-1.94694,0.175662,0.100344,0.0306752,0.0588307,0.000402883,0.166671,-0.127022,0.232358,0.0202058,-0.00371552,0,0,0,0,0,0,0,-0.528073,-33.0504,-0.788561,26.4789,1.90673,1.51513,-0.0026396,
0.0807425,-0.0229344,0.156538,-1.9525,0.198686,0.106254,0.0308293,0.10166,-0.0131391,0.10352,-0.175163,0.816533,0.199331,0.0052073,0,0,0,0,0,0,0,11.4499,-2.38163,11.6083,-15.1316,10.3502,2.89567,0.0586742,0.0796468,-0.0222769,0.158802,-1.95079,0.183531,0.100706,0.0306722,0.0544395,0.00826431,0.158262,-0.111264,0.229606,-0.00123189,-9.5386e-07,-0.548904,0.982679,-1.05121,1.96966,-0.343926,-2.67971,0.46432,0.638309,-33.1218,0.461134,26.7526,2.0166,1.614,0.0239107,
0.0815353,-0.0230127,0.157344,-1.95378,0.205601,0.108193,0.030879,0.101148,-0.0124705,0.102968,-0.172108,0.826121,0.207937,0.00541008,0,0,0,0,0,0,0,11.0299,-2.19391,11.1902,-14.8421,10.1928,2.94408,0.0591053,0.0796468,-0.0222769,0.158802,-1.95079,0.183531,0.100706,0.0306722,0.0544395,0.00826431,0.158262,-0.111264,0.229606,-0.00123189,-9.5386e-07,0,0,0,0,0,0,0,0.638309,-33.1218,0.461134,26.7526,2.0166,1.614,0.0239107,
0.0811095,-0.0224989,0.160309,-1.95356,0.193174,0.103135,0.0307394,0.0989134,-0.0127877,0.100778,-0.172935,0.798697,0.202039,0.00531094,0,0,0,0,0,0,0,11.9124,-2.56697,12.0672,-15.4042,10.3502,2.83095,0.0582974,0.0796468,-0.0222769,0.158802,-1.95079,0.183531,0.100706,0.0306722,0.0544395,0.00826431,0.158262,-0.111264,0.229606,-0.00123189,-9.5386e-07,0,0,0,0,0,0,0,0.638309,-33.1218,0.461134,26.7526,2.0166,1.614,0.0239107,
0.0818299,-0.0225905,0.161045,-1.95493,0.199519,0.104811,0.0307836,0.0971403,-0.0125211,0.0990131,-0.172638,0.797568,0.203532,0.00535249,0,0,0,0,0,0,0,11.4499,-2.38163,11.6083,-15.1316,10.3502,2.89567,0.0586742,0.0796468,-0.0222769,0.158802,-1.95079,0.183531,0.100706,0.0306722,0.0544395,0.00826431,0.158262,-0.111264,0.229606,-0.00123189,-9.5386e-07,0,0,0,0,0,0,0,0.638309,-33.1218,0.461134,26.7526,2.0166,1.614,0.0239107,
0.0825797,-0.0226663,0.161808,-1.95624,0.206024,0.106656,0.0308329,0.0964575,-0.0119108,0.0983001,-0.170729,0.800697,0.208946,0.00551578,0,0,0,0,0,0,0,11.0268,-2.24933,11.1895,-14.828,10.1641,2.95947,0.0590795,0.0813136,-0.0221162,0.163343,-1.95406,0.191162,0.100745,0.0306707,0.0568357,0.00253212,0.136424,-0.0931869,0.208277,-0.000462348,-0.000765194,0.299525,-0.716524,-2.72965,2.2597,-2.66618,0.0961925,-0.09553,-0.0440639,-32.5743,-0.237108,25.6577,1.97998,1.42174,0.0376436,
0.0833638,-0.0227378,0.162605,-1.95748,0.212325,0.108624,0.030883,0.0967704,-0.0113149,0.098567,-0.167632,0.798065,0.216364,0.00566501,0,0,0,0,0,0,0,10.6479,-2.08646,10.8111,-14.5359,8.80472,2.99891,0.0599266,0.0813136,-0.0221162,0.163343,-1.95406,0.191162,0.100745,0.0306707,0.0568357,0.00253212,0.136424,-0.0931869,0.208277,-0.000462348,-0.000765194,0,0,0,0,0,0,0,-0.0440639,-32.5743,-0.237108,25.6577,1.97998,1.42174,0.0376436,
0.0826494,-0.022425,0.164721,-1.95669,0.200559,0.103361,0.0307389,0.0939506,-0.0127935,0.095796,-0.167881,0.772941,0.211293,0.00554225,0,0,0,0,0,0,0,11.4467,-2.43706,11.6076,-15.1176,10.3214,2.91106,0.0586485,0.0813136,-0.0221162,0.163343,-1.95406,0.191162,0.100745,0.0306707,0.0568357,0.00253212,0.136424,-0.0931869,0.208277,-0.000462348,-0.000765194,0,0,0,0,0,0,0,-0.0440639,-32.5743,-0.237108,25.6577,1.97998,1.42174,0.0376436,
0.0833386,-0.0225429,0.165424,-1.958,0.20642,0.10513,0.0307871,0.0923882,-0.0131829,0.0942239,-0.166949,0.764879,0.213263,0.00563777,0,0,0,0,0,0,0,11.0268,-2.24933,11.1895,-14.828,10.1641,2.95947,0.0590795,0.0813136,-0.0221162,0.163343,-1.95406,0.191162,0.100745,0.0306707,0.0568357,0.00253212,0.136424,-0.0931869,0.208277,-0.000462348,-0.000765194,0,0,0,0,0,0,0,-0.0440639,-32.5743,-0.237108,25.6577,1.97998,1.42174,0.0376436,
0.0840667,-0.0226413,0.166165,-1.95925,0.21228,0.107059,0.0308369,0.0921131,-0.0130065,0.0939139,-0.164717,0.758396,0.218832,0.0057561,0,0,0,0,0,0,0,10.6468,-2.13302,10.8112,-14.5219,8.78109,3.01433,0.0598827,0.0826519,-0.0217742,0.167957,-1.95698,0.197755,0.100731,0.030673,0.0318241,-0.000507888,0.141491,-0.0907176,0.190349,-0.0010057,0.00071354,-3.12645,-0.380001,0.633357,0.308663,-2.241,-0.0679194,0.184842,-0.171017,-32.5505,-0.288683,25.9076,2.02301,1.54809,0.017502,
0.0838847,-0.0220942,0.169233,-1.95955,0.206481,0.103387,0.0307474,0.0893154,-0.0141943,0.0911419,-0.164472,0.728487,0.213881,0.00572087,0,0,0,0,0,0,0,11.0257,-2.29589,11.1896,-14.8139,10.1404,2.97489,0.0590356,0.0826519,-0.0217742,0.167957,-1.95698,0.197755,0.100731,0.030673,0.0318241,-0.000507888,0.141491,-0.0907176,0.190349,-0.0010057,0.00071354,0,0,0,0,0,0,0,-0.171017,-32.5505,-0.288683,25.9076,2.02301,1.54809,0.017502,
0.0845482,-0.0222145,0.169911,-1.96081,0.211676,0.105186,0.0307961,0.0880414,-0.0143629,0.0898485,-0.163199,0.712654,0.216095,0.00579578,0,0,0,0,0,0,0,10.6468,-2.13302,10.8112,-14.5219,8.78109,3.01433,0.0598827,0.0826519,-0.0217742,0.167957,-1.95698,0.197755,0.100731,0.030673,0.0318241,-0.000507888,0.141491,-0.0907176,0.190349,-0.0010057,0.00071354,0,0,0,0,0,0,0,-0.171017,-32.5505,-0.288683,25.9076,2.02301,1.54809,0.017502,
0.0852546,-0.0223163,0.17063,-1.96202,0.216806,0.107146,0.0308458,0.0880917,-0.0140343,0.0898621,-0.16081,0.698374,0.22187,0.00587743,0,0,0,0,0,0,0,10.3045,-2.00611,10.4671,-14.2401,7.61038,3.02116,0.0585824,0.0826519,-0.0217742,0.167957,-1.95698,0.197755,0.100731,0.030673,0.0318241,-0.000507888,0.141491,-0.0907176,0.190349,-0.0010057,0.00071354,0,0,0,0,0,0,0,-0.171017,-32.5505,-0.288683,25.9076,2.02301,1.54809,0.017502,
0.085999,-0.0224115,0.171387,-1.96318,0.221652,0.109214,0.0308953,0.089085,-0.0136076,0.0908136,-0.157641,0.679869,0.229194,0.00594045,0,0,0,0,0,0,0,10.0199,-1.90678,10.1801,-13.9642,6.56665,3.01663,0.0575209,0.0833399,-0.0215583,0.172743,-1.9598,0.204286,0.10073,0.03067,0.0242149,0.00676903,0.140581,-0.0770415,0.180458,0.000405724,-0.000649938,-0.95114,0.909614,-0.113837,1.70951,-1.23633,0.176428,-0.170435,-0.603451,-32.376,-0.76079,25.733,2.15118,1.5545,0.0440523,
0.0845505,-0.0218442,0.173996,-1.96226,0.211982,0.10351,0.0307468,0.0866924,-0.0144231,0.0884508,-0.157681,0.650614,0.223736,0.00586757,0,0,0,0,0,0,0,10.6444,-2.18064,10.8107,-14.5078,8.75759,3.03074,0.0598323,0.0833399,-0.0215583,0.172743,-1.9598,0.204286,0.10073,0.03067,0.0242149,0.00676903,0.140581,-0.0770415,0.180458,0.000405724,-0.000649938,0,0,0,0,0,0,0,-0.603451,-32.376,-0.76079,25.733,2.15118,1.5545,0.0440523,
0.0852062,-0.021961,0.174666,-1.96349,0.216496,0.105362,0.030795,0.0857462,-0.0144592,0.0874932,-0.156837,0.633333,0.225298,0.00589923,0,0,0,0,0,0,0,10.3021,-2.05373,10.4666,-14.226,7.58688,3.03757,0.0585321,0.0833399,-0.0215583,0.172743,-1.9598,0.204286,0.10073,0.03067,0.0242149,0.00676903,0.140581,-0.0770415,0.180458,0.000405724,-0.000649938,0,0,0,0,0,0,0,-0.603451,-32.376,-0.76079,25.733,2.15118,1.5545,0.0440523,
0.0859027,-0.0220626,0.175375,-1.96467,0.220922,0.107363,0.0308442,0.0860094,-0.0141086,0.0877291,-0.154911,0.617334,0.230251,0.0059474,0,0,0,0,0,0,0,10.0175,-1.9544,10.1796,-13.9501,6.54315,3.03304,0.0574706,0.0833399,-0.0215583,0.172743,-1.9598,0.204286,0.10073,0.03067,0.0242149,0.00676903,0.140581,-0.0770415,0.180458,0.000405724,-0.000649938,0,0,0,0,0,0,0,-0.603451,-32.376,-0.76079,25.733,2.15118,1.5545,0.0440523,
0.086635,-0.0221595,0.17612,-1.9658,0.225076,0.109462,0.0308937,0.0871149,-0.0137079,0.0888023,-0.152204,0.597702,0.236667,0.00599696,0,0,0,0,0,0,0,9.7872,-1.87866,9.94676,-13.6786,5.60827,3.01975,0.0568798,0.0833399,-0.0215583,0.172743,-1.9598,0.204286,0.10073,0.03067,0.0242149,0.00676903,0.140581,-0.0770415,0.180458,0.000405724,-0.000649938,0,0,0,0,0,0,0,-0.603451,-32.376,-0.76079,25.733,2.15118,1.5545,0.0440523,
0.085158,-0.0214763,0.179226,-1.96486,0.216397,0.103462,0.0307426,0.0859567,-0.0142136,0.0876788,-0.152964,0.569648,0.228693,0.00588408,0,0,0,0,0,0,0,10.3029,-2.09607,10.4686,-14.2075,7.56954,3.05506,0.0584787,0.0838707,-0.0212149,0.177894,-1.96242,0.209824,0.100763,0.0306674,0.0156471,0.00629168,0.161762,-0.0833322,0.142537,0.000414068,-0.00102215,-1.07098,-0.0596677,2.64764,-0.786342,-4.74013,0.00104303,-0.0465271,-0.0440639,-31.7015,-0.260912,24.884,2.14477,1.29632,0.0577852,
0.0858365,-0.021585,0.179918,-1.96607,0.220267,0.105279,0.0307898,0.0857281,-0.0140878,0.0874446,-0.152635,0.55246,0.228385,0.00588607,0,0,0,0,0,0,0,10.0183,-1.99674,10.1816,-13.9317,6.52581,3.05053,0.0574172,0.0838707,-0.0212149,0.177894,-1.96242,0.209824,0.100763,0.0306674,0.0156471,0.00629168,0.161762,-0.0833322,0.142537,0.000414068,-0.00102215,0,0,0,0,0,0,0,-0.0440639,-31.7015,-0.260912,24.884,2.14477,1.29632,0.0577852,
0.0865466,-0.0216814,0.180641,-1.96723,0.224049,0.10725,0.0308385,0.0863333,-0.0136804,0.0880287,-0.151117,0.536525,0.231997,0.00592638,0,0,0,0,0,0,0,9.78802,-1.921,9.94874,-13.6602,5.59093,3.03723,0.0568263,0.0838707,-0.0212149,0.177894,-1.96242,0.209824,0.100763,0.0306674,0.0156471,0.00629168,0.161762,-0.0833322,0.142537,0.000414068,-0.00102215,0,0,0,0,0,0,0,-0.0440639,-31.7015,-0.260912,24.884,2.14477,1.29632,0.0577852,
0.0851801,-0.0214648,0.179247,-1.9648,0.215669,0.103423,0.0307441,0.085616,-0.0140775,0.0873311,-0.151326,0.509741,0.224482,0.00583422,0,0,0,0,0,0,0,10.0183,-1.99674,10.1816,-13.9317,6.52581,3.05053,0.0574172,0.0838707,-0.0212149,0.177894,-1.96242,0.209824,0.100763,0.0306674,0.0156471,0.00629168,0.161762,-0.0833322,0.142537,0.000414068,-0.00102215,0,0,0,0,0,0,0,-0.0440639,-31.7015,-0.260912,24.884,2.14477,1.29632,0.0577852,
0.0858671,-0.0215716,0.179947,-1.96598,0.21903,0.105224,0.0307915,0.0856683,-0.0139322,0.0873708,-0.150623,0.491803,0.224602,0.00585429,0,0,0,0,0,0,0,9.78668,-1.97094,9.94861,-13.6464,5.57831,3.04984,0.0567938,0.0840956,-0.020907,0.183192,-1.96504,0.21354,0.100809,0.0306738,0.00227596,0.01135,0.159824,-0.0810676,0.0942715,0.00335245,0.0010995,-1.67139,0.632287,-0.242161,0.283081,-6.03318,0.367298,0.265207,0.741459,-31.8761,0.488905,24.4357,2.10174,1.07018,0.0101778,
0.0865815,-0.0216678,0.180674,-1.96711,0.222281,0.107179,0.0308406,0.0863952,-0.0135506,0.0880737,-0.148877,0.474715,0.22857,0.00591073,0,0,0,0,0,0,0,9.60223,-1.91546,9.76177,-13.379,4.73704,3.03467,0.0570451,0.0840956,-0.020907,0.183192,-1.96504,0.21354,0.100809,0.0306738,0.00227596,0.01135,0.159824,-0.0810676,0.0942715,0.00335245,0.0010995,0,0,0,0,0,0,0,0.741459,-31.8761,0.488905,24.4357,2.10174,1.07018,0.0101778,
0.0873199,-0.021762,0.181425,-1.96821,0.225287,0.109237,0.0308908,0.0875773,-0.013197,0.089229,-0.146383,0.454927,0.234304,0.00598326,0,0,0,0,0,0,0,9.45167,-1.87748,9.60891,-13.1154,3.98728,3.01571,0.0577179,0.0840956,-0.020907,0.183192,-1.96504,0.21354,0.100809,0.0306738,0.00227596,0.01135,0.159824,-0.0810676,0.0942715,0.00335245,0.0010995,0,0,0,0,0,0,0,0.741459,-31.8761,0.488905,24.4357,2.10174,1.07018,0.0101778,
0.0853287,-0.0211078,0.184469,-1.96738,0.218256,0.103501,0.0307536,0.0857867,-0.0131911,0.0874609,-0.147022,0.429551,0.226687,0.00590944,0,0,0,0,0,0,0,9.78668,-1.97094,9.94861,-13.6464,5.57831,3.04984,0.0567938,0.0840956,-0.020907,0.183192,-1.96504,0.21354,0.100809,0.0306738,0.00227596,0.01135,0.159824,-0.0810676,0.0942715,0.00335245,0.0010995,0,0,0,0,0,0,0,0.741459,-31.8761,0.488905,24.4357,2.10174,1.07018,0.0101778,
0.0859881,-0.0212011,0.185141,-1.96854,0.221008,0.105312,0.0308021,0.0851128,-0.0128854,0.0867794,-0.146693,0.412441,0.226626,0.00593955,0,0,0,0,0,0,0,9.60293,-1.96619,9.76412,-13.3617,4.73103,3.04818,0.0569948,0.0842132,-0.0206915,0.188448,-1.96784,0.215923,0.101006,0.030673,0.00963153,0.00645029,0.153029,-0.0868962,0.0528292,0.00647323,0.00020839,0.919446,-0.612462,-0.849408,-0.728581,-5.18029,0.390097,-0.111389,-0.274166,-31.8761,-0.463243,24.9832,2.05963,1.26244,0.017502,
0.0866777,-0.0212882,0.185843,-1.96966,0.223668,0.107274,0.0308523,0.0853318,-0.0124873,0.0869806,-0.145276,0.396453,0.230359,0.00600673,0,0,0,0,0,0,0,9.45237,-1.92821,9.61127,-13.0981,3.98128,3.02923,0.0576676,0.0842132,-0.0206915,0.188448,-1.96784,0.215923,0.101006,0.030673,0.00963153,0.00645029,0.153029,-0.0868962,0.0528292,0.00647323,0.00020839,0,0,0,0,0,0,0,-0.274166,-31.8761,-0.463243,24.9832,2.05963,1.26244,0.017502,
0.087393,-0.0213765,0.186571,-1.97073,0.226118,0.109335,0.0309035,0.0861475,-0.0121975,0.0877755,-0.143065,0.378429,0.235812,0.00608587,0,0,0,0,0,0,0,9.3268,-1.90465,9.48366,-12.8383,3.31434,3.00976,0.0588329,0.0842132,-0.0206915,0.188448,-1.96784,0.215923,0.101006,0.030673,0.00963153,0.00645029,0.153029,-0.0868962,0.0528292,0.00647323,0.00020839,0,0,0,0,0,0,0,-0.274166,-31.8761,-0.463243,24.9832,2.05963,1.26244,0.017502,
0.0854576,-0.02091,0.189734,-1.97014,0.219676,0.103649,0.0307545,0.0847569,-0.0125415,0.0864083,-0.143854,0.355735,0.227242,0.00600985,0,0,0,0,0,0,0,9.60293,-1.96619,9.76412,-13.3617,4.73103,3.04818,0.0569948,0.0842132,-0.0206915,0.188448,-1.96784,0.215923,0.101006,0.030673,0.00963153,0.00645029,0.153029,-0.0868962,0.0528292,0.00647323,0.00020839,0,0,0,0,0,0,0,-0.274166,-31.8761,-0.463243,24.9832,2.05963,1.26244,0.017502,
0.0861184,-0.0210082,0.190408,-1.97128,0.221917,0.105438,0.0308038,0.084324,-0.0124891,0.085972,-0.143623,0.340622,0.226535,0.0060393,0,0,0,0,0,0,0,9.45107,-1.98098,9.61202,-13.084,3.97916,3.0391,0.0576293,0.0844472,-0.0205924,0.193241,-1.97054,0.216818,0.101345,0.0306707,0.00504257,0.00578422,0.142838,-0.0815884,0.0180251,0.0130296,-0.000589109,-0.573621,-0.0832589,-1.27391,0.663483,-4.35051,0.819547,-0.0996873,-0.119442,-32.126,-0.312487,25.5347,2.0047,1.32928,0.0376436,
0.0868059,-0.0211001,0.191108,-1.97238,0.224084,0.107383,0.0308547,0.0846484,-0.0122873,0.0862837,-0.142306,0.326683,0.229842,0.00610468,0,0,0,0,0,0,0,9.32549,-1.95742,9.48441,-12.8242,3.31222,3.01963,0.0587945,0.0844472,-0.0205924,0.193241,-1.97054,0.216818,0.101345,0.0306707,0.00504257,0.00578422,0.142838,-0.0815884,0.0180251,0.0130296,-0.000589109,0,0,0,0,0,0,0,-0.119442,-32.126,-0.312487,25.5347,2.0047,1.32928,0.0376436,
0.0875159,-0.0211929,0.191831,-1.97344,0.226073,0.109429,0.0309067,0.0854686,-0.0121501,0.0870884,-0.140202,0.311076,0.235018,0.00618433,0,0,0,0,0,0,0,9.21571,-1.9456,9.37272,-12.5677,2.72633,2.99769,0.0600633,0.0844472,-0.0205924,0.193241,-1.97054,0.216818,0.101345,0.0306707,0.00504257,0.00578422,0.142838,-0.0815884,0.0180251,0.0130296,-0.000589109,0,0,0,0,0,0,0,-0.119442,-32.126,-0.312487,25.5347,2.0047,1.32928,0.0376436,
0.0856204,-0.020824,0.194455,-1.97277,0.219705,0.10407,0.0307561,0.0834462,-0.0126815,0.0850856,-0.140667,0.29036,0.227561,0.0061344,0,0,0,0,0,0,0,9.45107,-1.98098,9.61202,-13.084,3.97916,3.0391,0.0576293,0.0844472,-0.0205924,0.193241,-1.97054,0.216818,0.101345,0.0306707,0.00504257,0.00578422,0.142838,-0.0815884,0.0180251,0.0130296,-0.000589109,0,0,0,0,0,0,0,-0.119442,-32.126,-0.312487,25.5347,2.0047,1.32928,0.0376436,
0.0862559,-0.0209297,0.195104,-1.97388,0.221478,0.10589,0.0308068,0.0826451,-0.0127896,0.0842819,-0.140292,0.276604,0.227549,0.00617493,0,0,0,0,0,0,0,9.32597,-2.00575,9.48662,-12.8082,3.31419,3.03041,0.0587423,0.0846408,-0.0204932,0.197632,-1.97315,0.216919,0.101603,0.0306678,0.00877227,0.00152733,0.132578,-0.0803167,-0.00160357,0.00539265,-0.0012699,0.466213,-0.53211,-1.28249,0.158962,-2.45359,-0.954619,-0.0850991,0.285221,-32.126,0.0644055,26.4313,1.87652,1.52154,0.0641939,
0.0869213,-0.021029,0.195782,-1.97495,0.223193,0.107857,0.030859,0.0827503,-0.0127132,0.0843774,-0.138951,0.264162,0.231223,0.00624534,0,0,0,0,0,0,0,9.21619,-1.99393,9.37493,-12.5518,2.7283,3.00847,0.0600111,0.0846408,-0.0204932,0.197632,-1.97315,0.216919,0.101603,0.0306678,0.00877227,0.00152733,0.132578,-0.0803167,-0.00160357,0.00539265,-0.0012699,0,0,0,0,0,0,0,0.285221,-32.126,0.0644055,26.4313,1.87652,1.52154,0.0641939,
0.0857924,-0.0207594,0.198822,-1.97533,0.219152,0.104244,0.0307571,0.0810542,-0.0135047,0.0826936,-0.138946,0.243908,0.223668,0.00622547,0,0,0,0,0,0,0,9.32597,-2.00575,9.48662,-12.8082,3.31419,3.03041,0.0587423,0.0846408,-0.0204932,0.197632,-1.97315,0.216919,0.101603,0.0306678,0.00877227,0.00152733,0.132578,-0.0803167,-0.00160357,0.00539265,-0.0012699,0,0,0,0,0,0,0,0.285221,-32.126,0.0644055,26.4313,1.87652,1.52154,0.0641939,
0.0864205,-0.0208776,0.199463,-1.97641,0.220552,0.106041,0.0308091,0.0805461,-0.0137569,0.0821815,-0.138254,0.230102,0.223856,0.00628119,0,0,0,0,0,0,0,9.21619,-1.99393,9.37493,-12.5518,2.7283,3.00847,0.0600111,0.0846408,-0.0204932,0.197632,-1.97315,0.216919,0.101603,0.0306678,0.00877227,0.00152733,0.132578,-0.0803167,-0.00160357,0.00539265,-0.0012699,0,0,0,0,0,0,0,0.285221,-32.126,0.0644055,26.4313,1.87652,1.52154,0.0641939,
0.087078,-0.0209873,0.200134,-1.97746,0.221902,0.107991,0.0308623,0.0808742,-0.0137491,0.0825009,-0.136719,0.217847,0.227843,0.00635521,0,0,0,0,0,0,0,9.11662,-2.0379,9.2753,-12.2814,2.2176,2.99811,0.0613723,0.0849394,-0.0203926,0.201924,-1.9756,0.216909,0.10164,0.0306707,0.0150472,0.00260005,0.124006,-0.0781158,-0.00748769,-0.00053839,-0.000605253,0.784372,0.134089,-1.07153,0.275104,-0.735515,-0.74138,0.0830811,-0.325741,-32.1498,-0.562425,25.9076,1.91314,1.4547,0.0376436,
0.0877584,-0.0210961,0.200827,-1.97846,0.223129,0.110039,0.0309162,0.0817087,-0.0137181,0.0833259,-0.134559,0.204951,0.233459,0.00643116,0,0,0,0,0,0,0,9.02129,-2.04164,9.17839,-12.0308,1.77456,2.97402,0.0626725,0.0849394,-0.0203926,0.201924,-1.9756,0.216909,0.10164,0.0306707,0.0150472,0.00260005,0.124006,-0.0781158,-0.00748769,-0.00053839,-0.000605253,0,0,0,0,0,0,0,-0.325741,-32.1498,-0.562425,25.9076,1.91314,1.4547,0.0376436,
0.0860918,-0.0206521,0.203114,-1.97773,0.218682,0.104215,0.0307639,0.0802486,-0.0142712,0.0818762,-0.134864,0.189875,0.224746,0.00641369,0,0,0,0,0,0,0,9.21628,-2.04079,9.37664,-12.5348,2.73047,3.02047,0.0599507,0.0849394,-0.0203926,0.201924,-1.9756,0.216909,0.10164,0.0306707,0.0150472,0.00260005,0.124006,-0.0781158,-0.00748769,-0.00053839,-0.000605253,0,0,0,0,0,0,0,-0.325741,-32.1498,-0.562425,25.9076,1.91314,1.4547,0.0376436,
0.0867202,-0.0207713,0.203755,-1.97879,0.219788,0.105989,0.030817,0.0799093,-0.0143971,0.0815345,-0.134458,0.179554,0.224151,0.00645887,0,0,0,0,0,0,0,9.11662,-2.0379,9.2753,-12.2814,2.2176,2.99811,0.0613723,0.0849394,-0.0203926,0.201924,-1.9756,0.216909,0.10164,0.0306707,0.0150472,0.00260005,0.124006,-0.0781158,-0.00748769,-0.00053839,-0.000605253,0,0,0,0,0,0,0,-0.325741,-32.1498,-0.562425,25.9076,1.91314,1.4547,0.0376436,
0.087376,-0.0208837,0.204424,-1.97982,0.220846,0.10792,0.0308711,0.0803225,-0.0143263,0.0819422,-0.133185,0.170089,0.227593,0.00651819,0,0,0,0,0,0,0,9.02129,-2.04164,9.17839,-12.0308,1.77456,2.97402,0.0626725,0.0849394,-0.0203926,0.201924,-1.9756,0.216909,0.10164,0.0306707,0.0150472,0.00260005,0.124006,-0.0781158,-0.00748769,-0.00053839,-0.000605253,0,0,0,0,0,0,0,-0.325741,-32.1498,-0.562425,25.9076,1.91314,1.4547,0.0376436,
0.0880523,-0.0209958,0.205113,-1.98081,0.221796,0.10995,0.0309255,0.0811656,-0.0142644,0.0827792,-0.131256,0.159822,0.232814,0.00657542,0,0,0,0,0,0,0,8.92631,-2.09663,9.08291,-11.7642,1.39518,2.96209,0.0638447,0.0853414,-0.0202173,0.20604,-1.97807,0.216902,0.101656,0.0306715,0.0187862,0.000497378,0.112775,-0.0715319,-0.00257745,0.00143266,-0.000129527,0.467364,-0.262834,-1.4038,0.822986,0.61378,0.246382,0.0594657,-0.528073,-31.8999,-0.661608,25.4593,1.8399,1.41533,0.0303194,
0.0864688,-0.0205103,0.207202,-1.98011,0.218353,0.104273,0.0307692,0.0795714,-0.0151201,0.081188,-0.131228,0.148736,0.224766,0.00657302,0,0,0,0,0,0,0,9.11559,-2.08476,9.27517,-12.2631,2.21902,3.01059,0.0613084,0.0853414,-0.0202173,0.20604,-1.97807,0.216902,0.101656,0.0306715,0.0187862,0.000497378,0.112775,-0.0715319,-0.00257745,0.00143266,-0.000129527,0,0,0,0,0,0,0,-0.528073,-31.8999,-0.661608,25.4593,1.8399,1.41533,0.0303194,
0.0870897,-0.0206448,0.207836,-1.98114,0.219224,0.106066,0.0308235,0.0791793,-0.0154597,0.0807918,-0.13069,0.140768,0.224622,0.00661704,0,0,0,0,0,0,0,9.02025,-2.08849,9.17826,-12.0125,1.77598,2.9865,0.0626085,0.0853414,-0.0202173,0.20604,-1.97807,0.216902,0.101656,0.0306715,0.0187862,0.000497378,0.112775,-0.0715319,-0.00257745,0.00143266,-0.000129527,0,0,0,0,0,0,0,-0.528073,-31.8999,-0.661608,25.4593,1.8399,1.41533,0.0303194,
0.0877381,-0.020771,0.208497,-1.98213,0.220042,0.10801,0.0308783,0.0795526,-0.0155223,0.0811607,-0.129414,0.133059,0.228304,0.00666439,0,0,0,0,0,0,0,8.92631,-2.09663,9.08291,-11.7642,1.39518,2.96209,0.0638447,0.0853414,-0.0202173,0.20604,-1.97807,0.216902,0.101656,0.0306715,0.0187862,0.000497378,0.112775,-0.0715319,-0.00257745,0.00143266,-0.000129527,0,0,0,0,0,0,0,-0.528073,-31.8999,-0.661608,25.4593,1.8399,1.41533,0.0303194,
0.0868627,-0.0202623,0.211208,-1.98248,0.217911,0.10426,0.0307729,0.0783866,-0.0156972,0.0799977,-0.129398,0.122053,0.220868,0.00666894,0,0,0,0,0,0,0,9.02004,-2.13028,9.17862,-11.9945,1.77817,2.99914,0.0625459,0.0857258,-0.0200138,0.210036,-1.98047,0.216839,0.10166,0.0306727,0.0145383,0.00567916,0.118091,-0.0702093,-0.0115683,0.00204415,0.000581758,-0.530988,0.647723,0.664494,0.165333,-1.12385,0.0764357,0.0889107,-0.147213,-31.9753,-0.237108,25.257,1.89483,1.42174,0.0101778,
0.0874852,-0.0203864,0.211843,-1.9835,0.218559,0.106037,0.0308278,0.078271,-0.015661,0.079879,-0.128863,0.113846,0.221123,0.00670904,0,0,0,0,0,0,0,8.9261,-2.13842,9.08328,-11.7462,1.39737,2.97473,0.0637821,0.0857258,-0.0200138,0.210036,-1.98047,0.216839,0.10166,0.0306727,0.0145383,0.00567916,0.118091,-0.0702093,-0.0115683,0.00204415,0.000581758,0,0,0,0,0,0,0,-0.147213,-31.9753,-0.237108,25.257,1.89483,1.42174,0.0101778,
0.0881322,-0.0205066,0.212503,-1.98448,0.21916,0.107964,0.030883,0.0787932,-0.0155338,0.080398,-0.12758,0.106094,0.225076,0.00674754,0,0,0,0,0,0,0,8.83024,-2.14924,8.98611,-11.4999,1.07474,2.94928,0.0647845,0.0857258,-0.0200138,0.210036,-1.98047,0.216839,0.10166,0.0306727,0.0145383,0.00567916,0.118091,-0.0702093,-0.0115683,0.00204415,0.000581758,0,0,0,0,0,0,0,-0.147213,-31.9753,-0.237108,25.257,1.89483,1.42174,0.0101778,
0.0887962,-0.0206278,0.21318,-1.98542,0.21968,0.109984,0.0309381,0.0796339,-0.0154584,0.0812365,-0.125711,0.0978807,0.230558,0.00677497,0,0,0,0,0,0,0,8.73133,-2.16114,8.88602,-11.2553,0.803471,2.9237,0.0656019,0.0857258,-0.0200138,0.210036,-1.98047,0.216839,0.10166,0.0306727,0.0145383,0.00567916,0.118091,-0.0702093,-0.0115683,0.00204415,0.000581758,0,0,0,0,0,0,0,-0.147213,-31.9753,-0.237108,25.257,1.89483,1.42174,0.0101778,
0.0871311,-0.0201468,0.2153,-1.98463,0.217695,0.104288,0.0307701,0.0785654,-0.0160828,0.0801671,-0.125476,0.0909715,0.22297,0.00678055,0,0,0,0,0,0,0,8.92541,-2.18406,9.08359,-11.7286,1.39913,2.98652,0.0637209,0.0859854,-0.0198644,0.214119,-1.98271,0.216797,0.101667,0.0306679,0.0135183,0.00468978,0.119209,-0.061197,-0.00420463,0.000443329,-0.000325387,-0.1275,-0.123673,0.139679,1.12654,0.920454,-0.200102,-0.113393,0.209842,-32.0268,0.0128308,25.2332,1.88202,1.38878,0.0239107,
0.0877564,-0.0202873,0.215938,-1.98561,0.218199,0.106075,0.0308256,0.0784847,-0.0163792,0.0800829,-0.124904,0.0853677,0.223041,0.00681233,0,0,0,0,0,0,0,8.82955,-2.19487,8.98643,-11.4823,1.0765,2.96107,0.0647233,0.0859854,-0.0198644,0.214119,-1.98271,0.216797,0.101667,0.0306679,0.0135183,0.00468978,0.119209,-0.061197,-0.00420463,0.000443329,-0.000325387,0,0,0,0,0,0,0,0.209842,-32.0268,0.0128308,25.2332,1.88202,1.38878,0.0239107,
0.0884038,-0.0204222,0.216598,-1.98657,0.21865,0.108008,0.0308811,0.0789719,-0.0164757,0.0805686,-0.123685,0.0795599,0.226748,0.0068355,0,0,0,0,0,0,0,8.73064,-2.20677,8.88634,-11.2378,0.805227,2.93549,0.0655407,0.0859854,-0.0198644,0.214119,-1.98271,0.216797,0.101667,0.0306679,0.0135183,0.00468978,0.119209,-0.061197,-0.00420463,0.000443329,-0.000325387,0,0,0,0,0,0,0,0.209842,-32.0268,0.0128308,25.2332,1.88202,1.38878,0.0239107,
0.0871366,-0.0201407,0.215305,-1.9846,0.217472,0.104247,0.0307724,0.0780951,-0.0168386,0.0796882,-0.123368,0.0730198,0.219361,0.00684911,0,0,0,0,0,0,0,8.82955,-2.19487,8.98643,-11.4823,1.0765,2.96107,0.0647233,0.0859854,-0.0198644,0.214119,-1.98271,0.216797,0.101667,0.0306679,0.0135183,0.00468978,0.119209,-0.061197,-0.00420463,0.000443329,-0.000325387,0,0,0,0,0,0,0,0.209842,-32.0268,0.0128308,25.2332,1.88202,1.38878,0.0239107,
0.0877622,-0.0202805,0.215943,-1.98556,0.217831,0.10601,0.0308282,0.0781158,-0.0169639,0.0797047,-0.122737,0.0673965,0.21957,0.00687587,0,0,0,0,0,0,0,8.73112,-2.25151,8.88785,-11.2197,0.807719,2.94783,0.0654768,0.0862062,-0.0197112,0.218352,-1.98495,0.216759,0.101693,0.0306696,0.00854528,0.0053505,0.12998,-0.06587,0.00120244,0.00291235,-0.000499547,-0.621622,0.0825898,1.34646,-0.584133,0.675885,0.308627,-0.0217699,0.840641,-31.6023,0.588087,24.6103,1.79046,1.19652,0.0376436,
0.0884074,-0.0204155,0.216601,-1.98649,0.218141,0.107919,0.0308837,0.0786231,-0.0169463,0.0802108,-0.121486,0.0616453,0.223381,0.0068879,0,0,0,0,0,0,0,8.62743,-2.26334,8.78308,-10.9764,0.583441,2.92189,0.0660134,0.0862062,-0.0197112,0.218352,-1.98495,0.216759,0.101693,0.0306696,0.00854528,0.0053505,0.12998,-0.06587,0.00120244,0.00291235,-0.000499547,0,0,0,0,0,0,0,0.840641,-31.6023,0.588087,24.6103,1.79046,1.19652,0.0376436,
0.0890645,-0.0205501,0.217271,-1.98739,0.218388,0.109917,0.0309386,0.0793268,-0.0169231,0.0809158,-0.119722,0.0554917,0.22865,0.00688186,0,0,0,0,0,0,0,8.51888,-2.27413,8.67357,-10.7343,0.40035,2.89606,0.0663096,0.0862062,-0.0197112,0.218352,-1.98495,0.216759,0.101693,0.0306696,0.00854528,0.0053505,0.12998,-0.06587,0.00120244,0.00291235,-0.000499547,0,0,0,0,0,0,0,0.840641,-31.6023,0.588087,24.6103,1.79046,1.19652,0.0376436,
0.087392,-0.0199651,0.219574,-1.98682,0.217304,0.104218,0.0307752,0.0787568,-0.0169581,0.080345,-0.119939,0.0516503,0.220091,0.00689201,0,0,0,0,0,0,0,8.73112,-2.25151,8.88785,-11.2197,0.807719,2.94783,0.0654768,0.0862062,-0.0197112,0.218352,-1.98495,0.216759,0.101693,0.0306696,0.00854528,0.0053505,0.12998,-0.06587,0.00120244,0.00291235,-0.000499547,0,0,0,0,0,0,0,0.840641,-31.6023,0.588087,24.6103,1.79046,1.19652,0.0376436,
0.0880275,-0.0200993,0.220222,-1.98777,0.217565,0.105949,0.030831,0.0788918,-0.0169196,0.0804783,-0.119665,0.0478455,0.219358,0.00690731,0,0,0,0,0,0,0,8.62666,-2.31231,8.78365,-10.9609,0.58494,2.93223,0.0659615,0.0864553,-0.019608,0.222489,-1.98711,0.216701,0.101686,0.0306737,0.0107649,0.00397259,0.117013,-0.0604142,-0.00149447,0.00154996,0.000129779,0.277457,-0.172238,-1.62092,0.681977,-0.337115,-0.170298,0.0786657,-0.476498,-32.0506,-0.736986,25.6577,1.75384,1.35583,0.0101778,
0.0886778,-0.0202316,0.220885,-1.98869,0.217776,0.107828,0.0308861,0.0793717,-0.0168442,0.0809593,-0.118668,0.0435555,0.222459,0.00690401,0,0,0,0,0,0,0,8.51811,-2.3231,8.67413,-10.7188,0.401849,2.9064,0.0662577,0.0864553,-0.019608,0.222489,-1.98711,0.216701,0.101686,0.0306737,0.0107649,0.00397259,0.117013,-0.0604142,-0.00149447,0.00154996,0.000129779,0,0,0,0,0,0,0,-0.476498,-32.0506,-0.736986,25.6577,1.75384,1.35583,0.0101778,
0.089336,-0.0203655,0.221556,-1.98958,0.217933,0.109798,0.0309404,0.0799523,-0.0168237,0.0815431,-0.117087,0.038767,0.22722,0.00688125,0,0,0,0,0,0,0,8.40399,-2.3322,8.55911,-10.4776,0.255639,2.88078,0.0662784,0.0864553,-0.019608,0.222489,-1.98711,0.216701,0.101686,0.0306737,0.0107649,0.00397259,0.117013,-0.0604142,-0.00149447,0.00154996,0.000129779,0,0,0,0,0,0,0,-0.476498,-32.0506,-0.736986,25.6577,1.75384,1.35583,0.0101778,
0.0875866,-0.019885,0.223655,-1.98892,0.21705,0.104218,0.0307817,0.0786527,-0.0171569,0.0802397,-0.11707,0.0354809,0.219085,0.00691196,0,0,0,0,0,0,0,8.62666,-2.31231,8.78365,-10.9609,0.58494,2.93223,0.0659615,0.0864553,-0.019608,0.222489,-1.98711,0.216701,0.101686,0.0306737,0.0107649,0.00397259,0.117013,-0.0604142,-0.00149447,0.00154996,0.000129779,0,0,0,0,0,0,0,-0.476498,-32.0506,-0.736986,25.6577,1.75384,1.35583,0.0101778,
0.0882018,-0.0200292,0.224283,-1.98984,0.217194,0.105955,0.0308378,0.0783023,-0.0173287,0.0798876,-0.11669,0.0319888,0.218684,0.00693063,0,0,0,0,0,0,0,8.51742,-2.36573,8.67462,-10.7048,0.403342,2.91566,0.0662105,0.0869108,-0.0195177,0.226156,-1.98895,0.216637,0.101697,0.0306681,0.0193167,0.0030479,0.104246,-0.053405,0.00259557,-0.000432727,-0.000322562,1.06897,-0.115587,-1.59585,0.876155,0.511255,-0.247836,-0.0565426,-0.984311,-31.8999,-1.16149,25.1578,1.56433,1.33568,0.0303194,
0.0888341,-0.0201703,0.224928,-1.99074,0.217295,0.107837,0.0308928,0.0784495,-0.0173921,0.0800372,-0.115665,0.0281193,0.222002,0.00692071,0,0,0,0,0,0,0,8.4033,-2.37483,8.55959,-10.4636,0.257132,2.89003,0.0662313,0.0869108,-0.0195177,0.226156,-1.98895,0.216637,0.101697,0.0306681,0.0193167,0.0030479,0.104246,-0.053405,0.00259557,-0.000432727,-0.000322562,0,0,0,0,0,0,0,-0.984311,-31.8999,-1.16149,25.1578,1.56433,1.33568,0.0303194,
0.0894755,-0.020312,0.225582,-1.9916,0.217355,0.109808,0.0309468,0.078795,-0.0174549,0.0803877,-0.114101,0.0239946,0.226879,0.00688517,0,0,0,0,0,0,0,8.28408,-2.38177,8.43958,-10.223,0.143037,2.86472,0.0660042,0.0869108,-0.0195177,0.226156,-1.98895,0.216637,0.101697,0.0306681,0.0193167,0.0030479,0.104246,-0.053405,0.00259557,-0.000432727,-0.000322562,0,0,0,0,0,0,0,-0.984311,-31.8999,-1.16149,25.1578,1.56433,1.33568,0.0303194,
0.0880214,-0.0198204,0.227299,-1.9907,0.216905,0.104235,0.0307768,0.0774828,-0.0179841,0.0790687,-0.113883,0.0222871,0.218924,0.00692032,0,0,0,0,0,0,0,8.51742,-2.36573,8.67462,-10.7048,0.403342,2.91566,0.0662105,0.0869108,-0.0195177,0.226156,-1.98895,0.216637,0.101697,0.0306681,0.0193167,0.0030479,0.104246,-0.053405,0.00259557,-0.000432727,-0.000322562,0,0,0,0,0,0,0,-0.984311,-31.8999,-1.16149,25.1578,1.56433,1.33568,0.0303194,
0.0886274,-0.0199763,0.227917,-1.99159,0.216984,0.105975,0.0308327,0.0771364,-0.0182832,0.0787205,-0.113436,0.0197957,0.218635,0.00693362,0,0,0,0,0,0,0,8.40298,-2.41776,8.56056,-10.4501,0.258484,2.89905,0.0661863,0.0874008,-0.0194566,0.229614,-1.99086,0.216618,0.101694,0.0306694,0.0146232,0.00177685,0.0962846,-0.0540134,0.000761368,-0.000634713,0.00072793,-0.586684,-0.158881,-0.995199,-0.0760556,-0.229275,-0.0252483,0.131312,-0.0718349,-31.4,-0.237108,25.2332,1.5158,1.42174,0.0101778,
0.0892502,-0.0201277,0.228553,-1.99246,0.21702,0.107858,0.0308873,0.07728,-0.0184129,0.0788676,-0.112418,0.0167491,0.221984,0.00691194,0,0,0,0,0,0,0,8.28376,-2.4247,8.44055,-10.2095,0.14439,2.87374,0.0659593,0.0874008,-0.0194566,0.229614,-1.99086,0.216618,0.101694,0.0306694,0.0146232,0.00177685,0.0962846,-0.0540134,0.000761368,-0.000634713,0.00072793,0,0,0,0,0,0,0,-0.0718349,-31.4,-0.237108,25.2332,1.5158,1.42174,0.0101778,
0.088445,-0.0197606,0.23069,-1.99257,0.216729,0.104204,0.0307802,0.0755373,-0.0187525,0.0771187,-0.112059,0.0143011,0.214678,0.00695486,0,0,0,0,0,0,0,8.40298,-2.41776,8.56056,-10.4501,0.258484,2.89905,0.0661863,0.0874008,-0.0194566,0.229614,-1.99086,0.216618,0.101694,0.0306694,0.0146232,0.00177685,0.0962846,-0.0540134,0.000761368,-0.000634713,0.00072793,0,0,0,0,0,0,0,-0.0718349,-31.4,-0.237108,25.2332,1.5158,1.42174,0.0101778,
0.0890264,-0.0199168,0.231284,-1.99344,0.21672,0.105933,0.0308361,0.0749657,-0.0189093,0.0765471,-0.111493,0.0112151,0.214957,0.00696055,0,0,0,0,0,0,0,8.28376,-2.4247,8.44055,-10.2095,0.14439,2.87374,0.0659593,0.0874008,-0.0194566,0.229614,-1.99086,0.216618,0.101694,0.0306694,0.0146232,0.00177685,0.0962846,-0.0540134,0.000761368,-0.000634713,0.00072793,0,0,0,0,0,0,0,-0.0718349,-31.4,-0.237108,25.2332,1.5158,1.42174,0.0101778,
0.0896277,-0.0200692,0.231898,-1.99429,0.216678,0.107806,0.0308903,0.0750046,-0.0189364,0.0765917,-0.110386,0.00791265,0.218788,0.00692335,0,0,0,0,0,0,0,8.15926,-2.42922,8.31532,-9.96952,0.0584187,2.84907,0.0654795,0.0874008,-0.0194566,0.229614,-1.99086,0.216618,0.101694,0.0306694,0.0146232,0.00177685,0.0962846,-0.0540134,0.000761368,-0.000634713,0.00072793,0,0,0,0,0,0,0,-0.0718349,-31.4,-0.237108,25.2332,1.5158,1.42174,0.0101778,
0.0902395,-0.020221,0.232523,-1.99511,0.216614,0.109765,0.0309428,0.0752976,-0.0189437,0.0768937,-0.108804,0.00474043,0.224026,0.00685299,0,0,0,0,0,0,0,8.03022,-2.47386,8.18726,-9.71489,-0.00134593,2.83478,0.064703,0.0878823,-0.0194432,0.232962,-1.99289,0.216586,0.10172,0.0306682,0.0147134,0.00215463,0.0944014,-0.0558741,0.000156144,0.000795725,-0.000464288,0.011263,0.047223,-0.235401,-0.232586,-0.0756529,0.178805,-0.149027,-0.373349,-31.6499,-0.538622,25.0348,1.56433,1.4016,0.017502,
0.0889141,-0.0197336,0.234026,-1.99458,0.216608,0.104197,0.0307785,0.0737879,-0.0190297,0.0753788,-0.108832,0.00345563,0.215823,0.00689808,0,0,0,0,0,0,0,8.28375,-2.46734,8.44217,-10.1946,0.146278,2.88366,0.0659089,0.0878823,-0.0194432,0.232962,-1.99289,0.216586,0.10172,0.0306682,0.0147134,0.00215463,0.0944014,-0.0558741,0.000156144,0.000795725,-0.000464288,0,0,0,0,0,0,0,-0.373349,-31.6499,-0.538622,25.0348,1.56433,1.4016,0.017502,
0.0894879,-0.0198862,0.234613,-1.99544,0.216551,0.105905,0.0308337,0.0733758,-0.0190404,0.0749678,-0.108532,0.00132898,0.215371,0.00689806,0,0,0,0,0,0,0,8.15926,-2.47186,8.31694,-9.95455,0.060307,2.859,0.0654291,0.0878823,-0.0194432,0.232962,-1.99289,0.216586,0.10172,0.0306682,0.0147134,0.00215463,0.0944014,-0.0558741,0.000156144,0.000795725,-0.000464288,0,0,0,0,0,0,0,-0.373349,-31.6499,-0.538622,25.0348,1.56433,1.4016,0.017502,
0.0900804,-0.0200367,0.235218,-1.99627,0.216466,0.107759,0.030887,0.0735136,-0.0189947,0.0751123,-0.107616,-0.001041,0.218637,0.00685104,0,0,0,0,0,0,0,8.03022,-2.47386,8.18726,-9.71489,-0.00134593,2.83478,0.064703,0.0878823,-0.0194432,0.232962,-1.99289,0.216586,0.10172,0.0306682,0.0147134,0.00215463,0.0944014,-0.0558741,0.000156144,0.000795725,-0.000464288,0,0,0,0,0,0,0,-0.373349,-31.6499,-0.538622,25.0348,1.56433,1.4016,0.017502,
0.0892698,-0.0197268,0.237496,-1.99663,0.216515,0.104207,0.0307826,0.0721761,-0.019064,0.0737722,-0.107537,-0.00201519,0.210826,0.00688461,0,0,0,0,0,0,0,8.15951,-2.51656,8.31892,-9.93926,0.0623611,2.86891,0.0653781,0.0882535,-0.0194347,0.236446,-1.99496,0.216551,0.101782,0.0306725,0.00454275,-1.36255e-05,0.102154,-0.0596269,0.00175192,0.00178886,0.00010378,-1.27132,-0.271032,0.969132,-0.469098,0.199473,0.124142,0.0710086,0.614505,-31.7253,0.461134,24.6857,1.60095,1.26244,0.017502,
0.0898354,-0.0198795,0.238074,-1.99747,0.216425,0.10589,0.030837,0.0718817,-0.019069,0.073481,-0.107095,-0.00386108,0.210749,0.00686679,0,0,0,0,0,0,0,8.03047,-2.51856,8.18925,-9.6996,0.000708237,2.84469,0.064652,0.0882535,-0.0194347,0.236446,-1.99496,0.216551,0.101782,0.0306725,0.00454275,-1.36255e-05,0.102154,-0.0596269,0.00175192,0.00178886,0.00010378,0,0,0,0,0,0,0,0.614505,-31.7253,0.461134,24.6857,1.60095,1.26244,0.017502,
0.0904188,-0.0200307,0.238671,-1.99828,0.216315,0.107722,0.0308893,0.0720897,-0.0190336,0.0736978,-0.106044,-0.00585629,0.214387,0.00680009,0,0,0,0,0,0,0,7.89699,-2.51808,8.05518,-9.46022,-0.0402316,2.8214,0.0637059,0.0882535,-0.0194347,0.236446,-1.99496,0.216551,0.101782,0.0306725,0.00454275,-1.36255e-05,0.102154,-0.0596269,0.00175192,0.00178886,0.00010378,0,0,0,0,0,0,0,0.614505,-31.7253,0.461134,24.6857,1.60095,1.26244,0.017502,
0.0910107,-0.0201829,0.239276,-1.99907,0.2162,0.109644,0.0309396,0.0724695,-0.0190331,0.0740891,-0.104479,-0.00755833,0.219567,0.00669804,0,0,0,0,0,0,0,7.75984,-2.51528,7.91752,-9.22103,-0.0634238,2.79864,0.0625472,0.0882535,-0.0194347,0.236446,-1.99496,0.216551,0.101782,0.0306725,0.00454275,-1.36255e-05,0.102154,-0.0596269,0.00175192,0.00178886,0.00010378,0,0,0,0,0,0,0,0.614505,-31.7253,0.461134,24.6857,1.60095,1.26244,0.017502,
0.0896609,-0.0197183,0.241013,-1.99873,0.216421,0.10449,0.0307765,0.0715873,-0.0187979,0.073206,-0.104841,-0.00769122,0.2113,0.00672931,0,0,0,0,0,0,0,8.03069,-2.56204,8.19143,-9.6846,0.00308621,2.85403,0.0646038,0.0886171,-0.019453,0.239935,-1.99707,0.216497,0.102065,0.0306688,0.0109286,0.000902988,0.102341,-0.0650428,0.000250494,0.0110648,-0.000573314,0.798225,0.114577,0.0233798,-0.676984,-0.187679,1.1595,-0.0846368,0.134464,-31.4754,-0.0109729,24.6103,1.58264,1.25603,0.0239107,
0.0902306,-0.019863,0.241595,-1.99956,0.216319,0.106155,0.0308294,0.071514,-0.0186564,0.0731368,-0.104651,-0.00870291,0.210665,0.00670737,0,0,0,0,0,0,0,7.89721,-2.56157,8.05736,-9.44523,-0.0378536,2.83074,0.0636577,0.0886171,-0.019453,0.239935,-1.99707,0.216497,0.102065,0.0306688,0.0109286,0.000902988,0.102341,-0.0650428,0.000250494,0.0110648,-0.000573314,0,0,0,0,0,0,0,0.134464,-31.4754,-0.0109729,24.6103,1.58264,1.25603,0.0239107,
0.0908139,-0.0200092,0.242192,-2.00036,0.216203,0.107965,0.0308802,0.0717916,-0.01858,0.0734231,-0.103751,-0.0098577,0.213796,0.00663639,0,0,0,0,0,0,0,7.76006,-2.55876,7.9197,-9.20603,-0.0610458,2.80798,0.0624991,0.0886171,-0.019453,0.239935,-1.99707,0.216497,0.102065,0.0306688,0.0109286,0.000902988,0.102341,-0.0650428,0.000250494,0.0110648,-0.000573314,0,0,0,0,0,0,0,0.134464,-31.4754,-0.0109729,24.6103,1.58264,1.25603,0.0239107,
0.0914024,-0.0201587,0.242794,-2.00113,0.21609,0.109867,0.0309291,0.0721466,-0.0186008,0.0737891,-0.102272,-0.0107187,0.218566,0.00652935,0,0,0,0,0,0,0,7.61944,-2.55387,7.77861,-8.96696,-0.0696817,2.78629,0.0611668,0.0886171,-0.019453,0.239935,-1.99707,0.216497,0.102065,0.0306688,0.0109286,0.000902988,0.102341,-0.0650428,0.000250494,0.0110648,-0.000573314,0,0,0,0,0,0,0,0.134464,-31.4754,-0.0109729,24.6103,1.58264,1.25603,0.0239107,
0.0896546,-0.0197116,0.241006,-1.9987,0.216399,0.104452,0.0307747,0.071222,-0.0183714,0.0728587,-0.102681,-0.0105064,0.209965,0.00656786,0,0,0,0,0,0,0,7.89699,-2.60658,8.05894,-9.43059,-0.0355565,2.83963,0.0636121,0.0892459,-0.0194549,0.243402,-1.99917,0.216382,0.102327,0.030669,0.0158171,-0.000108788,0.0977826,-0.0586212,-0.00073503,0.00718973,0.000247358,0.611075,-0.126472,-0.569866,0.80269,-0.12319,-0.484389,0.102584,0.741459,-31.4516,0.488905,25.011,1.57074,1.32287,0.0101778,
0.0902181,-0.0198538,0.241583,-1.99952,0.216289,0.106094,0.0308264,0.071066,-0.0182517,0.0727029,-0.102506,-0.0111503,0.209041,0.00654787,0,0,0,0,0,0,0,7.75984,-2.60378,7.92128,-9.19139,-0.0587487,2.81687,0.0624534,0.0892459,-0.0194549,0.243402,-1.99917,0.216382,0.102327,0.030669,0.0158171,-0.000108788,0.0977826,-0.0586212,-0.00073503,0.00718973,0.000247358,0,0,0,0,0,0,0,0.741459,-31.4516,0.488905,25.011,1.57074,1.32287,0.0101778,
0.0907935,-0.019998,0.242172,-2.0003,0.216171,0.107883,0.0308759,0.0712377,-0.018206,0.0728801,-0.101607,-0.0118766,0.211948,0.00647521,0,0,0,0,0,0,0,7.61922,-2.59888,7.78019,-8.95233,-0.0673845,2.79517,0.0611212,0.0892459,-0.0194549,0.243402,-1.99917,0.216382,0.102327,0.030669,0.0158171,-0.000108788,0.0977826,-0.0586212,-0.00073503,0.00718973,0.000247358,0,0,0,0,0,0,0,0.741459,-31.4516,0.488905,25.011,1.57074,1.32287,0.0101778,
0.0902768,-0.0197386,0.244466,-2.00074,0.216287,0.104696,0.0307724,0.0703792,-0.0183587,0.0720178,-0.101475,-0.0113437,0.204511,0.00649145,0,0,0,0,0,0,0,7.75984,-2.60378,7.92128,-9.19139,-0.0587487,2.81687,0.0624534,0.0892459,-0.0194549,0.243402,-1.99917,0.216382,0.102327,0.030669,0.0158171,-0.000108788,0.0977826,-0.0586212,-0.00073503,0.00718973,0.000247358,0,0,0,0,0,0,0,0.741459,-31.4516,0.488905,25.011,1.57074,1.32287,0.0101778,
0.0908339,-0.0198912,0.245036,-2.00153,0.216184,0.106333,0.0308227,0.0702305,-0.0185007,0.0718717,-0.100926,-0.0116318,0.204537,0.00645151,0,0,0,0,0,0,0,7.61913,-2.64197,7.78161,-8.93807,-0.0651454,2.8045,0.0610742,0.0899702,-0.0194392,0.24665,-2.00112,0.216237,0.102356,0.0306743,0.0214315,0.00156306,0.0845095,-0.0581299,0.00228067,-0.000946124,0.000344476,0.701791,0.208981,-1.65913,0.0614207,0.376962,-1.01698,0.0121398,0.134464,-31.7015,-0.110155,25.5069,1.49749,1.4016,0.00376909,
0.0914014,-0.0200441,0.245617,-2.00229,0.216078,0.108116,0.0308707,0.0703717,-0.0186234,0.0720209,-0.0997597,-0.0119675,0.208202,0.00636101,0,0,0,0,0,0,0,7.47574,-2.63529,7.63782,-8.69908,-0.0614802,2.78333,0.0595587,0.0899702,-0.0194392,0.24665,-2.00112,0.216237,0.102356,0.0306743,0.0214315,0.00156306,0.0845095,-0.0581299,0.00228067,-0.000946124,0.000344476,0,0,0,0,0,0,0,0.134464,-31.7015,-0.110155,25.5069,1.49749,1.4016,0.00376909,
0.0919718,-0.0201993,0.246201,-2.00302,0.215984,0.10999,0.0309165,0.0705577,-0.018778,0.0722178,-0.0980826,-0.0119234,0.213411,0.00623375,0,0,0,0,0,0,0,7.32976,-2.62717,7.49148,-8.46017,-0.0482973,2.76325,0.0579063,0.0899702,-0.0194392,0.24665,-2.00112,0.216237,0.102356,0.0306743,0.0214315,0.00156306,0.0845095,-0.0581299,0.00228067,-0.000946124,0.000344476,0,0,0,0,0,0,0,0.134464,-31.7015,-0.110155,25.5069,1.49749,1.4016,0.00376909,
0.0909562,-0.0197037,0.247668,-2.00268,0.216147,0.104633,0.0307763,0.0693094,-0.0186085,0.0709644,-0.0983627,-0.0114028,0.20468,0.00627596,0,0,0,0,0,0,0,7.61913,-2.64197,7.78161,-8.93807,-0.0651454,2.8045,0.0610742,0.0899702,-0.0194392,0.24665,-2.00112,0.216237,0.102356,0.0306743,0.0214315,0.00156306,0.0845095,-0.0581299,0.00228067,-0.000946124,0.000344476,0,0,0,0,0,0,0,0.134464,-31.7015,-0.110155,25.5069,1.49749,1.4016,0.00376909,
0.0914946,-0.0198502,0.24822,-2.00345,0.216044,0.106239,0.0308255,0.068908,-0.0185487,0.0705653,-0.0981041,-0.011696,0.203883,0.00625043,0,0,0,0,0,0,0,7.47527,-2.66885,7.63817,-8.68618,-0.0597698,2.79145,0.0595174,0.0909642,-0.0193901,0.249141,-2.00278,0.216107,0.102385,0.0306705,0.0339666,0.00191112,0.0710834,-0.0525127,0.0029202,-0.0016039,0.000956408,1.56689,0.0435075,-1.67826,0.702147,0.0799415,-0.0822218,0.0764914,-0.373349,-31.4516,-0.538622,25.1102,1.39404,1.28258,-0.0026396,
0.092045,-0.0199988,0.248784,-2.0042,0.21594,0.107996,0.0308722,0.068886,-0.0185543,0.0705511,-0.0971391,-0.0119508,0.207042,0.00616632,0,0,0,0,0,0,0,7.32929,-2.66072,7.49183,-8.44727,-0.0465868,2.77136,0.0578651,0.0909642,-0.0193901,0.249141,-2.00278,0.216107,0.102385,0.0306705,0.0339666,0.00191112,0.0710834,-0.0525127,0.0029202,-0.0016039,0.000956408,0,0,0,0,0,0,0,-0.373349,-31.4516,-0.538622,25.1102,1.39404,1.28258,-0.0026396,
0.0909562,-0.0197037,0.247668,-2.00268,0.216147,0.104633,0.0307763,0.067972,-0.0184296,0.069631,-0.097608,-0.0114247,0.199585,0.00622201,0,0,0,0,0,0,0,7.47527,-2.66885,7.63817,-8.68618,-0.0597698,2.79145,0.0595174,0.0909642,-0.0193901,0.249141,-2.00278,0.216107,0.102385,0.0306705,0.0339666,0.00191112,0.0710834,-0.0525127,0.0029202,-0.0016039,0.000956408,0,0,0,0,0,0,0,-0.373349,-31.4516,-0.538622,25.1102,1.39404,1.28258,-0.0026396,
0.0924663,-0.0198162,0.250686,-2.00503,0.215963,0.106275,0.0308171,0.0676095,-0.0185356,0.0692712,-0.0969222,-0.0112327,0.199815,0.00616745,0,0,0,0,0,0,0,7.32929,-2.66072,7.49183,-8.44727,-0.0465868,2.77136,0.0578651,0.0909642,-0.0193901,0.249141,-2.00278,0.216107,0.102385,0.0306705,0.0339666,0.00191112,0.0710834,-0.0525127,0.0029202,-0.0016039,0.000956408,0,0,0,0,0,0,0,-0.373349,-31.4516,-0.538622,25.1102,1.39404,1.28258,-0.0026396,
0.0930067,-0.0199695,0.25124,-2.00575,0.215881,0.108031,0.0308621,0.0675971,-0.0186606,0.0692669,-0.0956384,-0.0110332,0.203743,0.00605896,0,0,0,0,0,0,0,7.18019,-2.68446,7.34351,-8.19733,-0.0247829,2.75872,0.0560265,0.0922766,-0.0193924,0.251274,-2.00431,0.216054,0.102373,0.0306711,0.038923,0.000749724,0.0536806,-0.0422479,0.00421027,-0.000940752,0.000541057,0.619556,-0.145174,-2.17536,1.2831,0.161258,0.0828934,-0.0519189,0.285221,-31.3246,0.163588,25.0586,1.39404,1.38878,-0.00996382,
0.0935504,-0.0201259,0.251797,-2.00645,0.215819,0.109881,0.0309047,0.0676702,-0.018839,0.0693513,-0.0938557,-0.010386,0.209236,0.00591234,0,0,0,0,0,0,0,7.03032,-2.6746,7.19337,-7.95853,0.00174019,2.74008,0.0541248,0.0922766,-0.0193924,0.251274,-2.00431,0.216054,0.102373,0.0306711,0.038923,0.000749724,0.0536806,-0.0422479,0.00421027,-0.000940752,0.000541057,0,0,0,0,0,0,0,0.285221,-31.3246,0.163588,25.0586,1.39404,1.38878,-0.00996382,
0.0931764,-0.0196998,0.252201,-2.00573,0.216008,0.104725,0.0307681,0.0659647,-0.0191884,0.0676347,-0.0934229,-0.0096177,0.202269,0.00595471,0,0,0,0,0,0,0,7.32818,-2.69363,7.4918,-8.43619,-0.0458293,2.77833,0.0578309,0.0922766,-0.0193924,0.251274,-2.00431,0.216054,0.102373,0.0306711,0.038923,0.000749724,0.0536806,-0.0422479,0.00421027,-0.000940752,0.000541057,0,0,0,0,0,0,0,0.285221,-31.3246,0.163588,25.0586,1.39404,1.38878,-0.00996382,
0.0936775,-0.0198645,0.252715,-2.00645,0.21593,0.10636,0.0308145,0.0652989,-0.0194662,0.0669693,-0.092768,-0.00963254,0.20269,0.00592347,0,0,0,0,0,0,0,7.18019,-2.68446,7.34351,-8.19733,-0.0247829,2.75872,0.0560265,0.0922766,-0.0193924,0.251274,-2.00431,0.216054,0.102373,0.0306711,0.038923,0.000749724,0.0536806,-0.0422479,0.00421027,-0.000940752,0.000541057,0,0,0,0,0,0,0,0.285221,-31.3246,0.163588,25.0586,1.39404,1.38878,-0.00996382,
0.0941935,-0.0200281,0.253245,-2.00714,0.215857,0.108138,0.0308581,0.0651384,-0.019665,0.0668162,-0.0915878,-0.00953263,0.206616,0.00582887,0,0,0,0,0,0,0,7.03032,-2.6746,7.19337,-7.95853,0.00174019,2.74008,0.0541248,0.0922766,-0.0193924,0.251274,-2.00431,0.216054,0.102373,0.0306711,0.038923,0.000749724,0.0536806,-0.0422479,0.00421027,-0.000940752,0.000541057,0,0,0,0,0,0,0,0.285221,-31.3246,0.163588,25.0586,1.39404,1.38878,-0.00996382,
0.0947156,-0.0201929,0.253781,-2.00781,0.215807,0.110005,0.0308992,0.0651628,-0.0198516,0.0668519,-0.0899435,-0.00888187,0.211966,0.00569037,0,0,0,0,0,0,0,6.87978,-2.69079,7.04358,-7.70818,0.0345282,2.72901,0.0520683,0.0938587,-0.0193972,0.253145,-2.00573,0.215988,0.102399,0.0306682,0.0489382,-0.00186089,0.0545281,-0.0445623,0.00155061,-0.001855,-0.000699406,1.2519,-0.326326,0.105938,-0.289297,-0.332457,-0.114281,-0.155058,1.4516,-31.1263,1.23872,24.5627,1.63757,1.15624,0.0303194,
