xiao-wang007/linearmpc_panda/paper_data/panda_torque_PD_controller_Start_at_0_torque_rate_limiter/1/trajectory.csv
Commanded Joint 0 Position,Commanded Joint 1 Position,Commanded Joint 2 Position,Commanded Joint 3 Position,Commanded Joint 4 Position,Commanded Joint 5 Position,Commanded Joint 6 Position,Commanded Joint 0 Velocity,Commanded Joint 1 Velocity,Commanded Joint 2 Velocity,Commanded Joint 3 Velocity,Commanded Joint 4 Velocity,Commanded Joint 5 Velocity,Commanded Joint 6 Velocity,Commanded Joint 0 Acceleration,Commanded Joint 1 Acceleration,Commanded Joint 2 Acceleration,Commanded Joint 3 Acceleration,Commanded Joint 4 Acceleration,Commanded Joint 5 Acceleration,Commanded Joint 6 Acceleration,Commanded Joint 0 Torque,Commanded Joint 1 Torque,Commanded Joint 2 Torque,Commanded Joint 3 Torque,Commanded Joint 4 Torque,Commanded Joint 5 Torque,Commanded Joint 6 Torque,Actual Joint 0 Position,Actual Joint 1 Position,Actual Joint 2 Position,Actual Joint 3 Position,Actual Joint 4 Position,Actual Joint 5 Position,Actual Joint 6 Position,Actual Joint 0 Velocity,Actual Joint 1 Velocity,Actual Joint 2 Velocity,Actual Joint 3 Velocity,Actual Joint 4 Velocity,Actual Joint 5 Velocity,Actual Joint 6 Velocity,Actual Joint 0 Acceleration,Actual Joint 1 Acceleration,Actual Joint 2 Acceleration,Actual Joint 3 Acceleration,Actual Joint 4 Acceleration,Actual Joint 5 Acceleration,Actual Joint 6 Acceleration,Actual Joint 0 Torque,Actual Joint 1 Torque,Actual Joint 2 Torque,Actual Joint 3 Torque,Actual Joint 4 Torque,Actual Joint 5 Torque,Actual Joint 6 Torque,
-0.00763694,-0.0647254,0.0723349,-1.80278,-0.0474624,0.190373,0.0290854,0.000627324,0.0196769,0.000850537,-0.0337993,-0.00296405,0.0532237,-0.000356264,0.392078,12.2981,0.531585,-21.1246,-1.85253,33.2648,-0.222665,0.0532198,22.1414,0.248131,-24.2248,-0.370639,2.04486,-0.02493,-0.00766898,-0.065515,0.0722824,-1.79972,-0.0474105,0.184688,0.0291104,-0.000594828,0.000142923,-0.00234527,2.47006e-05,0.00429582,-0.00196658,-0.000424907,0,0,0,0,0,0,0,-0.0440639,-32.9988,-0.260912,27.2287,0.770565,3.09258,0.14476,
-0.00768567,-0.0655101,0.0722641,-1.79972,-0.0473868,0.18467,0.0291111,0.000406869,0.0157872,0.000577015,-0.0270496,-0.00233624,0.0425116,-0.000281215,-0.137784,-2.4311,-0.170951,4.21857,0.392379,-6.69505,0.0469056,0.0474545,22.582,0.237766,-24.1412,-0.37107,1.79346,-0.0234175,-0.00766898,-0.065515,0.0722824,-1.79972,-0.0474105,0.184688,0.0291104,-0.000594828,0.000142923,-0.00234527,2.47006e-05,0.00429582,-0.00196658,-0.000424907,0,0,0,0,0,0,0,-0.0440639,-32.9988,-0.260912,27.2287,0.770565,3.09258,0.14476,
-0.00768847,-0.0655082,0.0722611,-1.79972,-0.0473877,0.18467,0.0291112,0.000255624,0.0126776,0.000384786,-0.0216483,-0.00189037,0.0339907,-0.000222846,-0.0945285,-1.94349,-0.120143,3.37578,0.278673,-5.3256,0.0364804,0.0402702,23.1564,0.225797,-24.0329,-0.37067,1.44607,-0.0214566,-0.00767237,-0.0654231,0.0722918,-1.79977,-0.0474203,0.18469,0.0291095,-0.00371419,0.00437407,-0.000282352,0.00164385,0.00252419,-0.00112278,0.000564365,-0.38992,0.528894,0.257865,0.202394,-0.221454,0.105475,0.123659,-0.0202602,-32.6259,-0.360094,27.0541,0.825497,3.07244,0.124619,
-0.00769057,-0.0655063,0.0722587,-1.79972,-0.0473894,0.18467,0.0291112,0.000151894,0.0101909,0.000249143,-0.0173255,-0.00155584,0.0272082,-0.000177146,-0.0648309,-1.5542,-0.0847772,2.70176,0.209077,-4.23904,0.0285623,0.0343466,23.6804,0.216388,-23.8651,-0.368825,1.06041,-0.0194583,-0.00767237,-0.0654231,0.0722918,-1.79977,-0.0474203,0.18469,0.0291095,-0.00371419,0.00437407,-0.000282352,0.00164385,0.00252419,-0.00112278,0.000564365,0,0,0,0,0,0,0,-0.0202602,-32.6259,-0.360094,27.0541,0.825497,3.07244,0.124619,
-0.00769218,-0.0655043,0.0722569,-1.79972,-0.0473913,0.184672,0.0291113,8.11714e-05,0.00820162,0.000153417,-0.0138654,-0.00129316,0.0218066,-0.000141189,-0.0442018,-1.24328,-0.0598286,2.16255,0.164179,-3.37598,0.0224735,0.0321149,24.0033,0.212195,-23.6007,-0.364243,0.687093,-0.0177399,-0.00767237,-0.0654231,0.0722918,-1.79977,-0.0474203,0.18469,0.0291095,-0.00371419,0.00437407,-0.000282352,0.00164385,0.00252419,-0.00112278,0.000564365,0,0,0,0,0,0,0,-0.0202602,-32.6259,-0.360094,27.0541,0.825497,3.07244,0.124619,
-0.0078041,-0.0653842,0.0721693,-1.79972,-0.0451456,0.183806,0.0290923,-0.00168218,0.0069169,-0.00156496,-0.0104249,0.0337512,0.00377644,-0.000268307,-1.1021,-0.802946,-1.07398,2.15033,21.9027,-11.2689,-0.0794488,0.474385,0.167694,0.472696,-0.229139,2.96735,-1.29856,-0.00121504,-0.00767237,-0.0654231,0.0722918,-1.79977,-0.0474203,0.18469,0.0291095,-0.00371419,0.00437407,-0.000282352,0.00164385,0.00252419,-0.00112278,0.000564365,0,0,0,0,0,0,0,-0.0202602,-32.6259,-0.360094,27.0541,0.825497,3.07244,0.124619,
-0.00786779,-0.0653766,0.0721058,-1.7997,-0.0434525,0.18312,0.0290891,-0.00293804,0.00572535,-0.00283926,-0.00785132,0.069329,-0.0141338,-0.000294195,-0.78491,-0.744718,-0.796439,1.60848,22.2361,-11.1939,-0.0161799,0.466315,0.18533,0.463207,-0.228182,2.94108,-1.28739,-0.00115439,-0.00766483,-0.0650044,0.0722888,-1.80009,-0.0474763,0.185735,0.0291159,0.000964427,0.0406641,-0.00166977,-0.0399308,-0.0127243,0.129123,0.000636961,0.584827,4.53625,-0.173427,-5.19684,-1.90607,16.2807,0.00907452,-0.0718349,-27.4089,-0.237108,22.345,0.6488,3.3178,0.0843355,
-0.00791946,-0.0653722,0.0720534,-1.79968,-0.041579,0.182341,0.0290876,-0.00364206,0.00468998,-0.00358311,-0.0059736,0.102301,-0.0307896,-0.000274896,-0.440013,-0.647108,-0.464907,1.17357,20.6078,-10.4098,0.0120617,0.459452,0.184073,0.456153,-0.226061,2.91577,-1.27595,-0.00113616,-0.00766483,-0.0650044,0.0722888,-1.80009,-0.0474763,0.185735,0.0291159,0.000964427,0.0406641,-0.00166977,-0.0399308,-0.0127243,0.129123,0.000636961,0,0,0,0,0,0,0,-0.0718349,-27.4089,-0.237108,22.345,0.6488,3.3178,0.0843355,
-0.00795757,-0.0653689,0.0720141,-1.79968,-0.0395976,0.1815,0.0290868,-0.00386645,0.00383347,-0.003849,-0.00463005,0.131377,-0.045653,-0.000239469,-0.140243,-0.535322,-0.166182,0.839717,18.172,-9.28964,0.0221422,0.4529,0.183262,0.449391,-0.22378,2.89052,-1.26439,-0.00112803,-0.00766483,-0.0650044,0.0722888,-1.80009,-0.0474763,0.185735,0.0291159,0.000964427,0.0406641,-0.00166977,-0.0399308,-0.0127243,0.129123,0.000636961,0,0,0,0,0,0,0,-0.0718349,-27.4089,-0.237108,22.345,0.6488,3.3178,0.0843355,
-0.00798362,-0.0644852,0.072011,-1.80009,-0.0392059,0.182819,0.029058,-0.00732405,0.00851437,-0.00696663,-0.00330186,0.233174,-0.0867332,-0.00069778,-2.161,2.92557,-1.94852,0.830122,63.6234,-25.6751,-0.286445,3.79295,0.832149,3.8411,-1.59371,11.2005,-5.51833,3.38961e-05,-0.00766483,-0.0650044,0.0722888,-1.80009,-0.0474763,0.185735,0.0291159,0.000964427,0.0406641,-0.00166977,-0.0399308,-0.0127243,0.129123,0.000636961,0,0,0,0,0,0,0,-0.0718349,-27.4089,-0.237108,22.345,0.6488,3.3178,0.0843355,
-0.00812436,-0.0643319,0.0718766,-1.80009,-0.0328683,0.180128,0.0290489,-0.0093777,0.0106446,-0.00893268,-0.00277256,0.344979,-0.136647,-0.000786503,-1.28353,1.33137,-1.22878,0.330808,69.878,-31.1959,-0.0554517,3.67312,0.826962,3.73044,-1.55739,11.2005,-5.39164,0.000479007,-0.00766483,-0.0650044,0.0722888,-1.80009,-0.0474763,0.185735,0.0291159,0.000964427,0.0406641,-0.00166977,-0.0399308,-0.0127243,0.129123,0.000636961,0,0,0,0,0,0,0,-0.0718349,-27.4089,-0.237108,22.345,0.6488,3.3178,0.0843355,
-0.00821804,-0.0642192,0.0717858,-1.80013,-0.0257684,0.177008,0.0290455,-0.00984423,0.0113333,-0.00941598,-0.00306628,0.45348,-0.187322,-0.000714743,-0.291583,0.430484,-0.302066,-0.183575,67.8132,-31.6718,0.0448504,3.5499,0.93344,3.60395,-1.5223,11.2009,-5.24001,6.82478e-05,-0.00764279,-0.0628219,0.0723461,-1.80508,-0.0474053,0.191037,0.029109,0.000881771,0.072946,-0.000663996,-0.21786,0.0344746,0.106573,0.000627888,-0.0103321,4.03524,0.125722,-22.2412,5.89987,-2.81875,-0.00113409,-0.246395,-18.8713,-0.435472,16.5408,1.38122,0.613333,0.11821,
-0.00826093,-0.0641295,0.0717443,-1.80019,-0.0181784,0.173624,0.0290448,-0.00894765,0.0113084,-0.0085698,-0.00394853,0.552534,-0.234456,-0.000589324,0.560363,-0.0155586,0.528864,-0.551404,61.9088,-29.4592,0.0783863,3.43527,0.913087,3.48893,-1.4934,11.2009,-5.11894,-0.000468914,-0.00764279,-0.0628219,0.0723461,-1.80508,-0.0474053,0.191037,0.029109,0.000881771,0.072946,-0.000663996,-0.21786,0.0344746,0.106573,0.000627888,0,0,0,0,0,0,0,-0.246395,-18.8713,-0.435472,16.5408,1.38122,0.613333,0.11821,
-0.00674895,-0.0612499,0.0733334,-1.80599,-0.0408145,0.180716,0.0292818,0.00701928,0.0275858,0.00871237,-0.0119735,0.545423,-0.34747,0.0013195,9.97933,10.1734,10.8014,-5.01563,-4.4446,-70.6332,1.19301,24.6931,6.04676,25.4458,-10.1523,11.2009,-14.1963,0.127965,-0.00764279,-0.0628219,0.0723461,-1.80508,-0.0474053,0.191037,0.029109,0.000881771,0.072946,-0.000663996,-0.21786,0.0344746,0.106573,0.000627888,0,0,0,0,0,0,0,-0.246395,-18.8713,-0.435472,16.5408,1.38122,0.613333,0.11821,
-0.00598945,-0.0606209,0.0741522,-1.80634,-0.0354523,0.172826,0.0293441,0.0246031,0.037795,0.0274403,-0.0183075,0.570392,-0.475234,0.00261261,10.9899,6.38074,11.7049,-3.95874,15.6055,-79.8531,0.808197,22.9119,6.22449,23.8176,-8.86754,11.2009,-14.0522,0.0863488,-0.00764279,-0.0628219,0.0723461,-1.80508,-0.0474053,0.191037,0.029109,0.000881771,0.072946,-0.000663996,-0.21786,0.0344746,0.106573,0.000627888,0,0,0,0,0,0,0,-0.246395,-18.8713,-0.435472,16.5408,1.38122,0.613333,0.11821,
-0.0050688,-0.0601122,0.075123,-1.80674,-0.0292089,0.163898,0.0294807,0.0426986,0.0429526,0.0462219,-0.0246631,0.612398,-0.603399,0.00550555,11.3097,3.22351,11.7385,-3.97226,26.2542,-80.1031,1.80808,21.7039,5.74569,22.6117,-7.86445,11.1601,-13.8917,0.0731974,-0.00778179,-0.061468,0.0723169,-1.81321,-0.0397559,0.188436,0.0290979,-0.000217733,0.0581529,0.0113697,-0.201243,0.357266,-0.298283,-0.000671417,-0.137438,-1.84915,1.50422,2.07721,40.349,-50.607,-0.162413,2.74494,-35.9187,2.36146,28.772,2.79846,1.53435,0.185044,
-0.00403697,-0.059829,0.0761883,-1.8074,-0.0222762,0.154595,0.0297029,0.0599548,0.0414434,0.0636108,-0.0361507,0.663236,-0.715289,0.00995918,10.7851,-0.943276,10.868,-7.17976,31.7734,-69.9309,2.78352,21.0913,4.05884,21.8505,-7.47328,11.1601,-14.1524,0.168863,-0.00778179,-0.061468,0.0723169,-1.81321,-0.0397559,0.188436,0.0290979,-0.000217733,0.0581529,0.0113697,-0.201243,0.357266,-0.298283,-0.000671417,0,0,0,0,0,0,0,2.74494,-35.9187,2.36146,28.772,2.79846,1.53435,0.185044,
-0.00617044,-0.0606916,0.0739513,-1.81554,-0.0312051,0.175459,0.0292998,0.0727112,0.0414948,0.0760622,-0.0575182,0.650157,-0.757575,0.00955887,7.97275,0.0321249,7.78215,-13.3547,-8.17445,-26.4291,-0.250196,34.2431,1.78675,34.888,-19.9333,11.1601,-14.1524,0.139069,-0.00778179,-0.061468,0.0723169,-1.81321,-0.0397559,0.188436,0.0290979,-0.000217733,0.0581529,0.0113697,-0.201243,0.357266,-0.298283,-0.000671417,0,0,0,0,0,0,0,2.74494,-35.9187,2.36146,28.772,2.79846,1.53435,0.185044,
-0.00493166,-0.060456,0.0752192,-1.81671,-0.0255218,0.166861,0.0293951,0.0891384,0.0390858,0.0925485,-0.0754015,0.662207,-0.821015,0.0100283,10.267,-1.50559,10.3039,-11.1771,7.53162,-39.6494,0.293385,31.1211,1.77892,31.7,-18.7263,11.1601,-14.1524,0.0531941,-0.00778179,-0.061468,0.0723169,-1.81321,-0.0397559,0.188436,0.0290979,-0.000217733,0.0581529,0.0113697,-0.201243,0.357266,-0.298283,-0.000671417,0,0,0,0,0,0,0,2.74494,-35.9187,2.36146,28.772,2.79846,1.53435,0.185044,
-0.00354044,-0.0603827,0.0766494,-1.81807,-0.0190533,0.157703,0.0295542,0.106091,0.0331012,0.109792,-0.0942732,0.691478,-0.885759,0.0120023,10.5956,-3.74036,10.7774,-11.7948,18.2939,-40.4654,1.23379,28.8747,1.42189,29.473,-18.0002,10.9459,-14.0962,0.10678,-0.00816119,-0.056684,0.0721061,-1.81505,-0.00549031,0.168959,0.0290857,-0.00462746,0.17042,0.00025986,0.0306245,0.959672,-0.731201,0.00109453,-0.551215,14.0334,-1.38873,28.9834,75.3008,-54.1147,0.220743,7.25971,-35.1967,6.81276,24.6103,2.71881,-0.335153,0.151169,
-0.00630969,-0.0557796,0.0739794,-1.81751,0.00793568,0.154639,0.0292458,0.113673,0.0347738,0.117132,-0.11023,0.718878,-0.902345,0.011473,4.7386,1.04536,4.58728,-9.9731,17.1251,-10.3659,-0.330859,36.0958,2.54757,36.8709,-24.8387,10.9459,-14.0962,0.0442738,-0.00816119,-0.056684,0.0721061,-1.81505,-0.00549031,0.168959,0.0290857,-0.00462746,0.17042,0.00025986,0.0306245,0.959672,-0.731201,0.00109453,0,0,0,0,0,0,0,7.25971,-35.1967,6.81276,24.6103,2.71881,-0.335153,0.151169,
-0.00488537,-0.0556161,0.0754347,-1.81911,0.0147816,0.146013,0.0293648,0.126546,0.031908,0.13009,-0.128333,0.746251,-0.93752,0.0121541,8.0458,-1.79112,8.09862,-11.3145,17.1085,-21.9848,0.425692,32.9405,2.53624,33.6557,-23.6068,10.9459,-14.0962,0.0521639,-0.00816119,-0.056684,0.0721061,-1.81505,-0.00549031,0.168959,0.0290857,-0.00462746,0.17042,0.00025986,0.0306245,0.959672,-0.731201,0.00109453,0,0,0,0,0,0,0,7.25971,-35.1967,6.81276,24.6103,2.71881,-0.335153,0.151169,
-0.00333708,-0.0555639,0.0770174,-1.82096,0.0220597,0.137552,0.0293553,0.139944,0.0268297,0.143638,-0.148947,0.778952,-0.96156,0.00948556,8.37372,-3.17395,8.46779,-12.8837,20.4378,-15.0249,-1.66782,30.0264,0.581991,30.6782,-24.2368,10.9459,-14.0962,0.129496,-0.00816119,-0.056684,0.0721061,-1.81505,-0.00549031,0.168959,0.0290857,-0.00462746,0.17042,0.00025986,0.0306245,0.959672,-0.731201,0.00109453,0,0,0,0,0,0,0,7.25971,-35.1967,6.81276,24.6103,2.71881,-0.335153,0.151169,
-0.00173431,-0.0555078,0.0786584,-1.82291,0.0297395,0.129626,0.0292822,0.152025,0.0228676,0.155936,-0.167733,0.815157,-0.967393,0.00575996,7.55031,-2.47634,7.68634,-11.7413,22.6282,-3.64545,-2.3285,25.9415,-0.0276715,26.4768,-24.5014,10.9459,-11.1719,-0.0268675,-0.00816119,-0.056684,0.0721061,-1.81505,-0.00549031,0.168959,0.0290857,-0.00462746,0.17042,0.00025986,0.0306245,0.959672,-0.731201,0.00109453,0,0,0,0,0,0,0,7.25971,-35.1967,6.81276,24.6103,2.71881,-0.335153,0.151169,
-0.00627245,-0.0561939,0.0740329,-1.81851,0.00793921,0.155619,0.0292553,0.150899,0.0205312,0.154652,-0.183927,0.818196,-0.952326,0.00680391,-0.703717,-1.46022,-0.802731,-10.1209,1.89961,9.41684,0.652472,37.4771,0.797571,38.4297,-32.2453,10.9459,-13.8961,0.0387994,-0.00816119,-0.056684,0.0721061,-1.81505,-0.00549031,0.168959,0.0290857,-0.00462746,0.17042,0.00025986,0.0306245,0.959672,-0.731201,0.00109453,0,0,0,0,0,0,0,7.25971,-35.1967,6.81276,24.6103,2.71881,-0.335153,0.151169,
-0.00486567,-0.0562292,0.0754723,-1.82082,0.0148867,0.148537,0.0291967,0.155889,0.015543,0.159707,-0.204875,0.828244,-0.93891,0.00397862,3.11866,-3.11762,3.15911,-13.0924,6.28008,8.38516,-1.76581,33.2518,-0.0323196,34.0328,-32.0609,10.9459,-13.2633,0.0703119,-0.00816119,-0.056684,0.0721061,-1.81505,-0.00549031,0.168959,0.0290857,-0.00462746,0.17042,0.00025986,0.0306245,0.959672,-0.731201,0.00109453,0,0,0,0,0,0,0,7.25971,-35.1967,6.81276,24.6103,2.71881,-0.335153,0.151169,
-0.00333306,-0.0562603,0.0770418,-1.82326,0.0222293,0.141969,0.0290657,0.163026,0.0116553,0.167002,-0.225039,0.84616,-0.915338,-9.13719e-05,4.46088,-2.42984,4.55939,-12.6029,11.1973,14.7326,-2.54375,28.4205,-0.196379,29.0607,-31.7786,10.9459,-9.97122,-0.100253,-0.00816119,-0.056684,0.0721061,-1.81505,-0.00549031,0.168959,0.0290857,-0.00462746,0.17042,0.00025986,0.0306245,0.959672,-0.731201,0.00109453,0,0,0,0,0,0,0,7.25971,-35.1967,6.81276,24.6103,2.71881,-0.335153,0.151169,
-0.00173256,-0.0562575,0.0786818,-1.82578,0.0299316,0.136166,0.0289154,0.170433,0.0093942,0.174601,-0.24293,0.869485,-0.877339,-0.00383019,4.6295,-1.41317,4.74961,-11.1819,14.5781,23.7493,-2.33676,25.8489,1.3307,26.4454,-30.7025,10.9736,-6.72137,-0.178402,0.00410634,-0.0529439,0.0848007,-1.82572,0.0594866,0.0737983,0.0291052,0.298105,0.00293467,0.29341,-0.45088,1.15012,-1.5277,0.00590368,37.8416,-20.9357,36.6437,-60.188,23.8057,-99.562,0.601143,19.0743,-27.758,18.8376,19.4568,5.43701,-1.48231,0.191452,
0.0089889,-0.0524399,0.0897959,-1.83177,0.0771151,0.0512631,0.0291016,0.196988,0.013847,0.201748,-0.269335,0.916292,-0.966447,-0.00490989,16.5969,2.783,16.9669,-16.5032,29.2543,-55.6926,-0.674811,33.6114,0.810721,34.4158,-31.976,10.9736,-12.4234,0.0701171,0.00410634,-0.0529439,0.0848007,-1.82572,0.0594866,0.0737983,0.0291052,0.298105,0.00293467,0.29341,-0.45088,1.15012,-1.5277,0.00590368,0,0,0,0,0,0,0,19.0743,-27.758,18.8376,19.4568,5.43701,-1.48231,0.191452,
0.0113336,-0.0521727,0.0921963,-1.83472,0.0860334,0.0422237,0.0289578,0.216208,0.0177569,0.22141,-0.289212,0.955992,-0.999144,-0.00752143,12.0121,2.44369,12.2887,-12.4226,24.8126,-20.4353,-1.63221,28.7802,0.646662,29.4437,-31.6938,10.9736,-9.13131,-0.100448,0.00410634,-0.0529439,0.0848007,-1.82572,0.0594866,0.0737983,0.0291052,0.298105,0.00293467,0.29341,-0.45088,1.15012,-1.5277,0.00590368,0,0,0,0,0,0,0,19.0743,-27.758,18.8376,19.4568,5.43701,-1.48231,0.191452,
0.0135844,-0.0519011,0.0945016,-1.83761,0.0950142,0.034708,0.0287966,0.229237,0.0209942,0.23476,-0.303726,0.989312,-0.987207,-0.0100471,8.14347,2.02334,8.34391,-9.07164,20.8247,7.46054,-1.57855,25.8489,1.3307,26.4454,-30.7025,10.9736,-6.72137,-0.178402,0.00410634,-0.0529439,0.0848007,-1.82572,0.0594866,0.0737983,0.0291052,0.298105,0.00293467,0.29341,-0.45088,1.15012,-1.5277,0.00590368,0,0,0,0,0,0,0,19.0743,-27.758,18.8376,19.4568,5.43701,-1.48231,0.191452,
0.0157408,-0.0516408,0.0967109,-1.84045,0.104018,0.0286376,0.0286356,0.2373,0.0233042,0.24304,-0.313959,1.01655,-0.941525,-0.0120638,5.03926,1.44372,5.17495,-6.39566,17.0269,28.5511,-1.26042,24.5348,1.23286,25.1376,-29.3278,11.1329,-4.24305,-0.200218,0.0170692,-0.0541014,0.0988849,-1.84412,0.0962312,0.0235488,0.0290927,0.46572,-0.0477362,0.510632,-0.637431,1.08094,-1.26814,-0.00172997,20.9519,-6.33386,27.1529,-23.3189,-8.64682,32.4443,-0.954205,11.4412,-27.282,11.3117,23.2892,4.25781,0.771719,0.138352,
0.0236804,-0.0534911,0.10567,-1.85095,0.114876,0.00466858,0.028827,0.268171,0.0277116,0.274774,-0.331449,1.05085,-0.972045,-0.0137833,19.2941,2.75461,19.8333,-10.9308,21.4317,-19.0753,-1.0747,29.0839,0.427161,29.7842,-30.9706,11.1176,-7.66466,-0.105563,0.0170692,-0.0541014,0.0988849,-1.84412,0.0962312,0.0235488,0.0290927,0.46572,-0.0477362,0.510632,-0.637431,1.08094,-1.26814,-0.00172997,0,0,0,0,0,0,0,11.4412,-27.282,11.3117,23.2892,4.25781,0.771719,0.138352,
0.0265267,-0.053132,0.108589,-1.85399,0.124515,-0.00250002,0.0286493,0.285693,0.0311477,0.292785,-0.341181,1.08164,-0.956851,-0.0154682,10.9514,2.14759,11.2569,-6.083,19.2479,9.49643,-1.05306,26.1635,1.1114,26.7971,-29.9798,11.0819,-5.25791,-0.183512,0.0170692,-0.0541014,0.0988849,-1.84412,0.0962312,0.0235488,0.0290927,0.46572,-0.0477362,0.510632,-0.637431,1.08094,-1.26814,-0.00172997,0,0,0,0,0,0,0,11.4412,-27.282,11.3117,23.2892,4.25781,0.771719,0.138352,
0.0291376,-0.0528111,0.111266,-1.85693,0.134131,-0.00813258,0.0284759,0.293828,0.0329412,0.301158,-0.346246,1.10572,-0.906295,-0.0167114,5.08421,1.12092,5.23317,-3.16546,15.0506,31.5976,-0.777012,24.3955,1.16607,24.9968,-29.3308,11.0474,-3.41383,-0.200125,0.0170692,-0.0541014,0.0988849,-1.84412,0.0962312,0.0235488,0.0290927,0.46572,-0.0477362,0.510632,-0.637431,1.08094,-1.26814,-0.00172997,0,0,0,0,0,0,0,11.4412,-27.282,11.3117,23.2892,4.25781,0.771719,0.138352,
0.0315536,-0.0525381,0.113744,-1.85976,0.143637,-0.0123576,0.0283111,0.295462,0.0331777,0.302867,-0.34797,1.12222,-0.830661,-0.0174875,1.02149,0.147798,1.06825,-1.07745,10.3084,47.2713,-0.485064,23.0993,0.962546,23.7131,-28.6792,10.8956,-1.36872,-0.199666,0.0346265,-0.053692,0.115972,-1.86711,0.139894,-0.0176192,0.0288559,0.550081,0.0296907,0.518688,-0.637252,1.40669,-1.32612,-0.0286724,10.5452,9.67836,1.00689,0.022458,40.7179,-7.24736,-3.3678,1.95942,-28.9324,1.71083,22.3926,2.56591,0.546499,0.104477,
0.0416305,-0.0525232,0.123145,-1.8747,0.161848,-0.0317695,0.0284673,0.318573,0.0412804,0.326544,-0.367959,1.16941,-0.810245,-0.0189422,14.4443,5.06418,14.798,-12.493,29.4963,12.7597,-0.909197,24.2445,0.480749,24.8649,-30.1159,11.0135,0.324152,-0.204171,0.0346265,-0.053692,0.115972,-1.86711,0.139894,-0.0176192,0.0288559,0.550081,0.0296907,0.518688,-0.637252,1.40669,-1.32612,-0.0286724,0,0,0,0,0,0,0,1.95942,-28.9324,1.71083,22.3926,2.56591,0.546499,0.104477,
0.0445723,-0.0520075,0.126161,-1.87803,0.172417,-0.0353638,0.0282761,0.328404,0.0459159,0.336627,-0.377584,1.19975,-0.738053,-0.019933,6.14464,2.89722,6.30209,-6.01606,18.9623,45.1204,-0.61925,22.7166,0.577441,23.313,-29.4728,11.0135,2.10138,-0.216889,0.0346265,-0.053692,0.115972,-1.86711,0.139894,-0.0176192,0.0288559,0.550081,0.0296907,0.518688,-0.637252,1.40669,-1.32612,-0.0286724,0,0,0,0,0,0,0,1.95942,-28.9324,1.71083,22.3926,2.56591,0.546499,0.104477,
0.0472321,-0.0515836,0.128888,-1.88117,0.18266,-0.0370483,0.0280965,0.329218,0.0473308,0.337485,-0.38044,1.21587,-0.632554,-0.0204376,0.508262,0.884318,0.536032,-1.78469,10.0764,65.9364,-0.315343,21.6143,0.413968,22.1926,-29.0198,11.0135,3.58421,-0.211171,0.0346265,-0.053692,0.115972,-1.86711,0.139894,-0.0176192,0.0288559,0.550081,0.0296907,0.518688,-0.637252,1.40669,-1.32612,-0.0286724,0,0,0,0,0,0,0,1.95942,-28.9324,1.71083,22.3926,2.56591,0.546499,0.104477,
0.0496608,-0.0512488,0.131379,-1.88414,0.192573,-0.0371299,0.0279313,0.324092,0.0462338,0.332269,-0.378602,1.22052,-0.508084,-0.0204803,-3.20371,-0.685622,-3.2601,1.14861,2.90477,77.794,-0.0266867,20.7234,0.218456,21.2857,-28.6351,11.0135,4.80465,-0.20012,0.0346265,-0.053692,0.115972,-1.86711,0.139894,-0.0176192,0.0288559,0.550081,0.0296907,0.518688,-0.637252,1.40669,-1.32612,-0.0286724,0,0,0,0,0,0,0,1.95942,-28.9324,1.71083,22.3926,2.56591,0.546499,0.104477,
0.0609277,-0.0501084,0.14306,-1.90115,0.213879,-0.0626103,0.0273577,0.339203,0.0514104,0.347625,-0.415049,1.2644,-0.416737,-0.0254992,9.44473,3.23535,9.59764,-22.7794,27.4263,57.0917,-3.13682,12.3896,-5.71752,12.7313,-34.5319,10.848,12.3471,-0.486493,0.0539199,-0.0513825,0.135887,-1.89157,0.190425,-0.0585211,0.0281469,0.593938,0.0905412,0.581502,-0.741564,1.50032,-1.00691,-0.019374,5.4821,7.60632,7.85181,-13.039,11.7044,39.9014,1.16229,-2.12292,-34.9944,-2.3358,28.9188,1.8399,2.87377,0.050461,
0.0636671,-0.0496702,0.145863,-1.90517,0.224871,-0.060601,0.0270504,0.339849,0.052081,0.348178,-0.432654,1.28633,-0.283157,-0.0280825,0.403641,0.419097,0.345936,-11.0028,13.7039,83.4876,-1.61455,13.358,-4.93483,13.7174,-33.8728,10.848,12.3471,-0.407577,0.0539199,-0.0513825,0.135887,-1.89157,0.190425,-0.0585211,0.0281469,0.593938,0.0905412,0.581502,-0.741564,1.50032,-1.00691,-0.019374,0,0,0,0,0,0,0,-2.12292,-34.9944,-2.3358,28.9188,1.8399,2.87377,0.050461,
0.0660581,-0.049361,0.148309,-1.90883,0.23534,-0.0567992,0.0267905,0.331653,0.0493958,0.339697,-0.437706,1.29078,-0.131479,-0.0289627,-5.12243,-1.67824,-5.30101,-3.15749,2.78168,94.7987,-0.550126,13.9304,-4.19607,14.2969,-33.2706,10.848,12.3471,-0.345579,0.0539199,-0.0513825,0.135887,-1.89157,0.190425,-0.0585211,0.0281469,0.593938,0.0905412,0.581502,-0.741564,1.50032,-1.00691,-0.019374,0,0,0,0,0,0,0,-2.12292,-34.9944,-2.3358,28.9188,1.8399,2.87377,0.050461,
0.068179,-0.0491597,0.150479,-1.91221,0.245338,-0.051667,0.0265688,0.318346,0.0445486,0.326017,-0.434603,1.28258,0.0231223,-0.0287121,-8.31674,-3.02951,-8.54947,1.93887,-5.12624,96.626,0.156614,14.2141,-3.50118,14.5781,-32.7043,10.848,12.3471,-0.294078,0.0539199,-0.0513825,0.135887,-1.89157,0.190425,-0.0585211,0.0281469,0.593938,0.0905412,0.581502,-0.741564,1.50032,-1.00691,-0.019374,0,0,0,0,0,0,0,-2.12292,-34.9944,-2.3358,28.9188,1.8399,2.87377,0.050461,
0.0812579,-0.0479968,0.163201,-1.92892,0.269583,-0.0743982,0.0265855,0.327764,0.0424534,0.335622,-0.462645,1.32315,0.0754106,-0.0342405,5.88577,-1.30944,6.00253,-17.5261,25.3593,32.6802,-3.45527,2.7898,-11.7925,2.96827,-38.3032,10.4848,12.6232,-0.65306,0.0746768,-0.0487254,0.156467,-1.91902,0.24518,-0.0770469,0.0276057,0.613558,0.0651106,0.579919,-0.819583,1.6112,-0.206463,-0.0205197,2.45243,-3.17882,-0.197853,-9.75247,13.8594,100.056,-0.143213,-2.63073,-34.1969,-2.61351,32.7075,1.8399,4.13354,-0.0301054,
0.0836675,-0.047885,0.165667,-1.93303,0.280741,-0.0705555,0.0262355,0.322452,0.0367578,0.330136,-0.472944,1.33748,0.156396,-0.0361414,-3.31991,-3.5598,-3.42863,-6.43663,8.95245,50.6159,-1.18801,5.79268,-9.69443,6.03195,-37.3067,10.4848,12.6232,-0.502996,0.0746768,-0.0487254,0.156467,-1.91902,0.24518,-0.0770469,0.0276057,0.613558,0.0651106,0.579919,-0.819583,1.6112,-0.206463,-0.0205197,0,0,0,0,0,0,0,-2.63073,-34.1969,-2.61351,32.7075,1.8399,4.13354,-0.0301054,
0.08573,-0.0478896,0.167774,-1.93676,0.29082,-0.065476,0.0259603,0.309524,0.0292918,0.316783,-0.47159,1.32196,0.252106,-0.0357943,-8.07986,-4.6662,-8.34571,0.846301,-9.69863,59.8184,0.216893,7.66535,-7.84014,7.93896,-36.4175,10.3866,12.6232,-0.394996,0.0746768,-0.0487254,0.156467,-1.91902,0.24518,-0.0770469,0.0276057,0.613558,0.0651106,0.579919,-0.819583,1.6112,-0.206463,-0.0205197,0,0,0,0,0,0,0,-2.63073,-34.1969,-2.61351,32.7075,1.8399,4.13354,-0.0301054,
0.0875421,-0.0479745,0.169624,-1.94019,0.299783,-0.0594255,0.0257421,0.292921,0.0213102,0.299671,-0.463128,1.28165,0.352945,-0.0340896,-10.3765,-4.98852,-10.6945,5.28842,-25.1951,63.0249,1.06543,8.81878,-6.21987,9.10649,-35.6084,8.84179,12.6232,-0.315471,0.0746768,-0.0487254,0.156467,-1.91902,0.24518,-0.0770469,0.0276057,0.613558,0.0651106,0.579919,-0.819583,1.6112,-0.206463,-0.0205197,0,0,0,0,0,0,0,-2.63073,-34.1969,-2.61351,32.7075,1.8399,4.13354,-0.0301054,
0.0814215,-0.0478073,0.163366,-1.92873,0.269365,-0.074419,0.026796,0.309742,0.0265126,0.316887,-0.483126,1.31948,0.339293,-0.0363075,10.5131,3.25148,10.7598,-12.4985,23.6458,-8.5329,-1.38615,5.70528,-10.3117,5.97878,-36.9242,10.122,12.7005,-0.508941,0.0941943,-0.0477842,0.176562,-1.94955,0.302803,-0.0625271,0.0264623,0.605094,0.042848,0.594975,-0.876798,1.66576,0.792062,-0.0138232,-1.05801,-2.78283,1.88193,-7.15179,6.82045,124.816,0.83706,-5.95532,-33.1218,-6.53716,30.9619,1.82708,4.31298,-0.0429228,
0.0839446,-0.0475866,0.165943,-1.93275,0.280043,-0.0705654,0.026511,0.310872,0.0267268,0.31794,-0.486808,1.32252,0.367775,-0.0361718,0.706058,0.133869,0.658339,-2.30122,1.89876,17.8016,0.0848327,7.57796,-8.45737,7.88578,-36.0351,10.0238,12.7005,-0.40094,0.0941943,-0.0477842,0.176562,-1.94955,0.302803,-0.0625271,0.0264623,0.605094,0.042848,0.594975,-0.876798,1.66576,0.792062,-0.0138232,0,0,0,0,0,0,0,-5.95532,-33.1218,-6.53716,30.9619,1.82708,4.31298,-0.0429228,
0.0861087,-0.0474908,0.168152,-1.93639,0.289549,-0.0654667,0.0262852,0.302801,0.0237784,0.309567,-0.480623,1.29567,0.421687,-0.0345836,-5.04459,-1.8427,-5.23355,3.86557,-16.7804,33.6945,0.992601,8.73138,-6.8371,9.05332,-35.226,8.479,12.7005,-0.321416,0.0941943,-0.0477842,0.176562,-1.94955,0.302803,-0.0625271,0.0264623,0.605094,0.042848,0.594975,-0.876798,1.66576,0.792062,-0.0138232,0,0,0,0,0,0,0,-5.95532,-33.1218,-6.53716,30.9619,1.82708,4.31298,-0.0429228,
0.088,-0.0474842,0.170081,-1.93976,0.297981,-0.0593985,0.0261017,0.289522,0.0191857,0.295891,-0.468782,1.24734,0.489055,-0.0322546,-8.29944,-2.87044,-8.54734,7.40051,-30.2082,42.1052,1.45562,9.40961,-5.43852,9.73629,-34.4857,7.41982,12.7005,-0.259123,0.0941943,-0.0477842,0.176562,-1.94955,0.302803,-0.0625271,0.0264623,0.605094,0.042848,0.594975,-0.876798,1.66576,0.792062,-0.0138232,0,0,0,0,0,0,0,-5.95532,-33.1218,-6.53716,30.9619,1.82708,4.31298,-0.0429228,
0.101041,-0.0467144,0.183567,-1.95856,0.326098,-0.0515914,0.0258015,0.308408,0.0265818,0.315232,-0.477405,1.27423,0.531442,-0.0332829,11.8037,4.62254,12.0879,-5.38942,16.8077,26.492,-0.642673,7.62444,-8.96264,7.97028,-36.1562,9.82768,12.4873,-0.400325,0.11186,-0.048518,0.194601,-1.98149,0.361465,-0.0289369,0.0248635,0.475012,0.0363637,0.556651,-0.932723,1.50655,1.10948,-0.0168809,-16.2602,-0.810545,-4.79047,-6.99073,-19.9017,39.6768,-0.382211,-8.18493,-35.6212,-8.88579,32.2592,1.61377,4.11431,-0.123489,
0.103601,-0.0464674,0.186182,-1.96221,0.335925,-0.0454354,0.0255646,0.310729,0.0274385,0.317553,-0.473211,1.26506,0.579052,-0.0325503,1.45077,0.535422,1.45086,2.62147,-5.72898,29.7563,0.457844,8.77786,-7.34238,9.13781,-35.3471,8.28284,12.4873,-0.320801,0.11186,-0.048518,0.194601,-1.98149,0.361465,-0.0289369,0.0248635,0.475012,0.0363637,0.556651,-0.932723,1.50655,1.10948,-0.0168809,0,0,0,0,0,0,0,-8.18493,-35.6212,-8.88579,32.2592,1.61377,4.11431,-0.123489,
0.10578,-0.0463754,0.188406,-1.96557,0.344618,-0.0387243,0.0253734,0.303059,0.0242528,0.30965,-0.462501,1.22937,0.631019,-0.0308197,-4.79334,-1.99106,-4.93951,6.69349,-22.3078,32.4794,1.08163,9.45609,-5.9438,9.82079,-34.6068,7.22365,12.4873,-0.258508,0.11186,-0.048518,0.194601,-1.98149,0.361465,-0.0289369,0.0248635,0.475012,0.0363637,0.556651,-0.932723,1.50655,1.10948,-0.0168809,0,0,0,0,0,0,0,-8.18493,-35.6212,-8.88579,32.2592,1.61377,4.11431,-0.123489,
0.107685,-0.0463869,0.190351,-1.96869,0.351999,-0.0315237,0.0252198,0.290076,0.0191143,0.296346,-0.448059,1.16802,0.684832,-0.0284946,-8.11496,-3.21153,-8.31472,9.02652,-38.3429,33.6327,1.45318,9.80962,-4.75547,10.1712,-33.9318,6.54318,12.4873,-0.214123,0.11186,-0.048518,0.194601,-1.98149,0.361465,-0.0289369,0.0248635,0.475012,0.0363637,0.556651,-0.932723,1.50655,1.10948,-0.0168809,0,0,0,0,0,0,0,-8.18493,-35.6212,-8.88579,32.2592,1.61377,4.11431,-0.123489,
0.117899,-0.0471871,0.2008,-1.99037,0.380989,-0.0157054,0.0243531,0.300258,0.029861,0.306953,-0.458153,1.16359,0.710227,-0.0286468,6.3639,6.71668,6.62927,-6.30874,-2.76593,15.8718,-0.0950875,8.80357,-7.79122,9.19894,-35.5075,8.13597,12.2887,-0.318373,0.127672,-0.0495181,0.210573,-2.01352,0.414532,0.0114588,0.0236964,0.354947,0.0154103,0.525787,-0.887058,1.33946,1.24722,-0.0099964,-15.0081,-2.61917,-3.85797,5.70822,-20.8852,17.2174,0.860566,-4.58264,-33.947,-5.16051,31.7355,1.19812,3.15209,-0.117081,
0.120189,-0.0468276,0.203144,-1.99392,0.389138,-0.0089575,0.0241623,0.297468,0.0328752,0.304174,-0.455349,1.13459,0.736879,-0.0276872,-1.74338,1.88385,-1.73662,1.75238,-18.1259,16.6574,0.59977,9.4818,-6.39265,9.88192,-34.7672,7.07679,12.2887,-0.25608,0.127672,-0.0495181,0.210573,-2.01352,0.414532,0.0114588,0.0236964,0.354947,0.0154103,0.525787,-0.887058,1.33946,1.24722,-0.0099964,0,0,0,0,0,0,0,-4.58264,-33.947,-5.16051,31.7355,1.19812,3.15209,-0.117081,
0.122167,-0.0466422,0.205168,-1.99718,0.396076,-0.00184548,0.0240095,0.287413,0.0309355,0.293932,-0.445713,1.08112,0.767303,-0.0259691,-6.28489,-1.21229,-6.40161,6.02247,-33.4202,19.0154,1.07377,9.83533,-5.20432,10.2323,-34.0922,6.39632,12.2887,-0.211695,0.127672,-0.0495181,0.210573,-2.01352,0.414532,0.0114588,0.0236964,0.354947,0.0154103,0.525787,-0.887058,1.33946,1.24722,-0.0099964,0,0,0,0,0,0,0,-4.58264,-33.947,-5.16051,31.7355,1.19812,3.15209,-0.117081,
0.117899,-0.0471871,0.2008,-1.99037,0.380989,-0.0157054,0.0243531,0.298127,0.039318,0.305021,-0.456276,1.09408,0.776204,-0.0266264,6.69677,5.23903,6.93106,-6.60196,8.09648,5.56286,-0.410778,9.4818,-6.39265,9.88192,-34.7672,7.07679,12.2887,-0.25608,0.127672,-0.0495181,0.210573,-2.01352,0.414532,0.0114588,0.0236964,0.354947,0.0154103,0.525787,-0.887058,1.33946,1.24722,-0.0099964,0,0,0,0,0,0,0,-4.58264,-33.947,-5.16051,31.7355,1.19812,3.15209,-0.117081,
0.13498,-0.0480892,0.218092,-2.02525,0.437633,0.0333423,0.0231536,0.289636,0.0390815,0.296478,-0.449019,1.03932,0.801177,-0.0250683,-5.307,-0.147758,-5.33951,4.53566,-34.2229,15.6085,0.973785,10.0361,-5.45833,10.471,-34.2304,6.3571,12.1411,-0.211573,0.141845,-0.0506059,0.225471,-2.04342,0.460656,0.0597747,0.022952,0.414396,-0.0578445,0.401999,-0.893045,1.36836,1.52935,-0.0151836,7.43106,-9.15685,-15.4736,-0.748395,3.61194,35.2669,-0.648401,-2.78546,-29.2299,-3.21257,23.8882,1.61926,0.911795,-0.163772,
0.136769,-0.0479393,0.219928,-2.02835,0.443008,0.0408064,0.0230317,0.276453,0.035013,0.283085,-0.43679,0.96583,0.827545,-0.0231013,-8.23918,-2.54281,-8.37055,7.64303,-45.9304,16.4799,1.22937,10.2137,-4.44903,10.6816,-33.5986,4.66415,12.1411,-0.174837,0.141845,-0.0506059,0.225471,-2.04342,0.460656,0.0597747,0.022952,0.414396,-0.0578445,0.401999,-0.893045,1.36836,1.52935,-0.0151836,0,0,0,0,0,0,0,-2.78546,-29.2299,-3.21257,23.8882,1.61926,0.911795,-0.163772,
0.138368,-0.0478976,0.221569,-2.03127,0.447238,0.0485589,0.0229349,0.261127,0.0290534,0.267481,-0.422393,0.878422,0.855848,-0.0209021,-9.57904,-3.72476,-9.75263,8.99827,-54.63,17.6892,1.37449,10.3093,-3.59721,10.7937,-33,3.25076,12.1411,-0.146301,0.141845,-0.0506059,0.225471,-2.04342,0.460656,0.0597747,0.022952,0.414396,-0.0578445,0.401999,-0.893045,1.36836,1.52935,-0.0151836,0,0,0,0,0,0,0,-2.78546,-29.2299,-3.21257,23.8882,1.61926,0.911795,-0.163772,
0.146803,-0.0500084,0.230562,-2.05122,0.476081,0.0766638,0.0226477,0.265552,0.0304507,0.272167,-0.42441,0.875962,0.88462,-0.0203684,2.76561,0.87327,2.92894,-1.26057,-1.53759,17.9825,0.333566,10.0361,-5.45833,10.471,-34.2304,6.3571,12.1411,-0.211573,0.141845,-0.0506059,0.225471,-2.04342,0.460656,0.0597747,0.022952,0.414396,-0.0578445,0.401999,-0.893045,1.36836,1.52935,-0.0151836,0,0,0,0,0,0,0,-2.78546,-29.2299,-3.21257,23.8882,1.61926,0.911795,-0.163772,
0.148752,-0.0498589,0.232564,-2.05431,0.481666,0.0845012,0.0225262,0.261166,0.0280985,0.267768,-0.416972,0.840405,0.903632,-0.0193315,-2.74149,-1.47009,-2.7497,4.64887,-22.2231,11.8825,0.648095,10.2137,-4.44903,10.6816,-33.5986,4.66415,12.1411,-0.174837,0.141845,-0.0506059,0.225471,-2.04342,0.460656,0.0597747,0.022952,0.414396,-0.0578445,0.401999,-0.893045,1.36836,1.52935,-0.0151836,0,0,0,0,0,0,0,-2.78546,-29.2299,-3.21257,23.8882,1.61926,0.911795,-0.163772,
0.150465,-0.0498271,0.234323,-2.05721,0.486024,0.0924214,0.0224295,0.25176,0.0232755,0.258207,-0.405934,0.78126,0.92091,-0.0178829,-5.87877,-3.01436,-5.97545,6.89837,-36.966,10.7988,0.90536,10.2854,-3.75218,10.8015,-33.0677,3.21541,12.0317,-0.143847,0.155882,-0.0515524,0.239876,-2.07206,0.502255,0.113487,0.0223286,0.3989,-0.0617177,0.421242,-0.848054,1.21767,1.57947,-0.00687551,-1.93694,-0.484156,2.40542,5.6239,-18.8362,6.2648,1.03851,-1.86902,-28.2063,-2.28819,20.0757,1.57714,0.314871,-0.183914,
0.152,-0.0498744,0.235902,-2.05996,0.489264,0.100505,0.0223547,0.239791,0.0174357,0.246021,-0.393636,0.706015,0.938818,-0.0161763,-7.48018,-3.64988,-7.61633,7.68621,-47.0279,11.1921,1.06664,10.3598,-3.05109,10.8827,-32.4988,2.02867,12.0317,-0.118218,0.155882,-0.0515524,0.239876,-2.07206,0.502255,0.113487,0.0223286,0.3989,-0.0617177,0.421242,-0.848054,1.21767,1.57947,-0.00687551,0,0,0,0,0,0,0,-1.86902,-28.2063,-2.28819,20.0757,1.57714,0.314871,-0.183914,
0.16082,-0.0510722,0.244957,-2.07948,0.514961,0.130793,0.0220916,0.248157,0.0197976,0.254737,-0.397541,0.704262,0.954766,-0.0158833,5.22878,1.47617,5.4472,-2.44067,-1.09565,9.96797,0.183093,10.1899,-4.604,10.6894,-33.6663,4.6288,12.0317,-0.172383,0.155882,-0.0515524,0.239876,-2.07206,0.502255,0.113487,0.0223286,0.3989,-0.0617177,0.421242,-0.848054,1.21767,1.57947,-0.00687551,0,0,0,0,0,0,0,-1.86902,-28.2063,-2.28819,20.0757,1.57714,0.314871,-0.183914,
0.162751,-0.0509614,0.246943,-2.08246,0.519283,0.138704,0.0219945,0.246802,0.0186089,0.253432,-0.392617,0.671448,0.961597,-0.0151339,-0.846879,-0.742966,-0.81538,3.07763,-20.5089,4.26943,0.468414,10.2854,-3.75218,10.8015,-33.0677,3.21541,12.0317,-0.143847,0.155882,-0.0515524,0.239876,-2.07206,0.502255,0.113487,0.0223286,0.3989,-0.0617177,0.421242,-0.848054,1.21767,1.57947,-0.00687551,0,0,0,0,0,0,0,-1.86902,-28.2063,-2.28819,20.0757,1.57714,0.314871,-0.183914,
0.164444,-0.0509539,0.248684,-2.08527,0.522488,0.14665,0.0219193,0.239759,0.015075,0.246281,-0.384308,0.6173,0.967917,-0.0139876,-4.40223,-2.20865,-4.46928,5.19305,-33.8427,3.94968,0.716436,10.2761,-3.07873,10.8222,-32.5784,2.02812,11.9222,-0.114437,0.169604,-0.0517281,0.254473,-2.09995,0.531902,0.170424,0.0220153,0.398437,-0.0555865,0.429556,-0.86844,0.876928,1.7484,-0.00510287,-0.0579394,0.766398,1.03923,-2.54833,-42.5928,21.1162,0.221581,-1.94836,-29.8052,-2.58574,21.25,2.08984,0.32128,-0.110672,
0.165958,-0.0510146,0.250243,-2.08796,0.524697,0.154728,0.0218646,0.229654,0.0105414,0.235998,-0.37473,0.549061,0.976295,-0.0125563,-6.31521,-2.8335,-6.42721,5.98656,-42.6492,5.23611,0.894536,10.3496,-2.51806,10.8963,-32.0381,1.01967,11.9222,-0.0916734,0.169604,-0.0517281,0.254473,-2.09995,0.531902,0.170424,0.0220153,0.398437,-0.0555865,0.429556,-0.86844,0.876928,1.7484,-0.00510287,0,0,0,0,0,0,0,-1.94836,-29.8052,-2.58574,21.25,2.08984,0.32128,-0.110672,
0.174456,-0.0510779,0.259483,-2.10739,0.540233,0.188736,0.0218312,0.238662,0.0163794,0.245488,-0.382293,0.528945,0.99311,-0.0124033,5.62978,3.64872,5.93127,-4.7271,-12.5726,10.5095,0.0956384,10.2018,-3.77983,10.741,-33.1473,3.21486,11.9222,-0.140066,0.169604,-0.0517281,0.254473,-2.09995,0.531902,0.170424,0.0220153,0.398437,-0.0555865,0.429556,-0.86844,0.876928,1.7484,-0.00510287,0,0,0,0,0,0,0,-1.94836,-29.8052,-2.58574,21.25,2.08984,0.32128,-0.110672,
0.176324,-0.0508918,0.26141,-2.11037,0.542906,0.196803,0.0217545,0.23763,0.0177565,0.244561,-0.380241,0.489963,0.996166,-0.0118406,-0.644833,0.860719,-0.579216,1.28275,-24.3635,1.90988,0.351666,10.2761,-3.07873,10.8222,-32.5784,2.02812,11.9222,-0.114437,0.169604,-0.0517281,0.254473,-2.09995,0.531902,0.170424,0.0220153,0.398437,-0.0555865,0.429556,-0.86844,0.876928,1.7484,-0.00510287,0,0,0,0,0,0,0,-1.94836,-29.8052,-2.58574,21.25,2.08984,0.32128,-0.110672,
0.177954,-0.0508177,0.263092,-2.11317,0.544742,0.204805,0.0216987,0.230863,0.0160569,0.237701,-0.374307,0.43788,0.996987,-0.010866,-4.22984,-1.06228,-4.28729,3.70893,-32.5518,0.513466,0.609122,10.2536,-2.61283,10.8177,-32.1682,1.02249,11.7901,-0.0887923,0.183083,-0.0516734,0.268337,-2.12741,0.558846,0.227759,0.0219123,0.411705,-0.0320537,0.377578,-0.816991,0.677547,1.70167,-0.00709254,1.65848,2.94161,-6.49723,6.43119,-24.9227,-5.84118,-0.248709,-1.79364,-30.5788,-2.7365,24.3604,2.16308,1.17638,-0.117081,
0.17941,-0.05082,0.264596,-2.11586,0.545813,0.212884,0.0216621,0.221093,0.0127899,0.227747,-0.366704,0.377088,0.999551,-0.00960946,-6.10613,-2.04186,-6.22137,4.75175,-37.9953,1.60212,0.785359,10.3312,-2.17879,10.8926,-31.6565,0.168702,11.7901,-0.0671108,0.183083,-0.0516734,0.268337,-2.12741,0.558846,0.227759,0.0219123,0.411705,-0.0320537,0.377578,-0.816991,0.677547,1.70167,-0.00709254,0,0,0,0,0,0,0,-1.79364,-30.5788,-2.7365,24.3604,2.16308,1.17638,-0.117081,
0.187682,-0.0509405,0.273087,-2.13465,0.564476,0.245808,0.0217749,0.228931,0.0188947,0.235998,-0.374334,0.359524,1.00912,-0.0094795,4.89874,3.8155,5.1566,-4.7691,-10.9774,5.98104,0.0812266,10.1802,-3.17351,10.7436,-32.7084,2.03095,11.7901,-0.111556,0.183083,-0.0516734,0.268337,-2.12741,0.558846,0.227759,0.0219123,0.411705,-0.0320537,0.377578,-0.816991,0.677547,1.70167,-0.00709254,0,0,0,0,0,0,0,-1.79364,-30.5788,-2.7365,24.3604,2.16308,1.17638,-0.117081,
0.189457,-0.0507284,0.274922,-2.13759,0.566028,0.253791,0.0217191,0.227527,0.0204192,0.234656,-0.373,0.326414,1.00685,-0.00897856,-0.877532,0.952825,-0.83873,0.83388,-20.6937,-1.41811,0.313086,10.2536,-2.61283,10.8177,-32.1682,1.02249,11.7901,-0.0887923,0.183083,-0.0516734,0.268337,-2.12741,0.558846,0.227759,0.0219123,0.411705,-0.0320537,0.377578,-0.816991,0.677547,1.70167,-0.00709254,0,0,0,0,0,0,0,-1.79364,-30.5788,-2.7365,24.3604,2.16308,1.17638,-0.117081,
0.191013,-0.0506275,0.27653,-2.14038,0.566894,0.261717,0.0216821,0.220913,0.0188572,0.227923,-0.367955,0.282779,1.00364,-0.00810814,-4.13343,-0.976274,-4.20764,3.15329,-27.272,-2.00952,0.54401,10.274,-2.23254,10.8492,-31.7541,0.224646,11.662,-0.0653434,0.196203,-0.0514893,0.281931,-2.15362,0.576065,0.28534,0.0219043,0.437723,0.00829342,0.331182,-0.774096,0.573221,1.74568,-6.1508e-05,3.25224,5.04339,-5.79948,5.36188,-13.0407,5.50073,0.878879,-3.13855,-29.0553,-3.91081,23.1186,1.98639,1.18279,-0.103348,
0.200632,-0.0505306,0.286504,-2.16066,0.580006,0.303801,0.0218112,0.22673,0.0257724,0.234078,-0.3736,0.263247,1.0162,-0.00775713,3.63559,4.32202,3.84633,-3.52806,-12.2072,7.85298,0.219382,10.1965,-2.66658,10.7743,-32.2658,1.07844,11.662,-0.0870248,0.196203,-0.0514893,0.281931,-2.15362,0.576065,0.28534,0.0219043,0.437723,0.00829342,0.331182,-0.774096,0.573221,1.74568,-6.1508e-05,0,0,0,0,0,0,0,-3.13855,-29.0553,-3.91081,23.1186,1.98639,1.18279,-0.103348,
0.202337,-0.0502657,0.288269,-2.16356,0.580789,0.311859,0.021774,0.224013,0.027241,0.231366,-0.371291,0.23016,1.0144,-0.00713549,-1.69855,0.917823,-1.695,1.44299,-20.6795,-1.12511,0.388528,10.274,-2.23254,10.8492,-31.7541,0.224646,11.662,-0.0653434,0.196203,-0.0514893,0.281931,-2.15362,0.576065,0.28534,0.0219043,0.437723,0.00829342,0.331182,-0.774096,0.573221,1.74568,-6.1508e-05,0,0,0,0,0,0,0,-3.13855,-29.0553,-3.91081,23.1186,1.98639,1.18279,-0.103348,
0.203834,-0.0501268,0.289818,-2.16631,0.580973,0.31981,0.0217542,0.216632,0.0252669,0.223826,-0.365798,0.188734,1.0103,-0.00620272,-4.61263,-1.23378,-4.71235,3.43294,-25.8913,-2.56581,0.582982,10.3543,-1.90675,10.9242,-31.2673,-0.488438,11.662,-0.045544,0.196203,-0.0514893,0.281931,-2.15362,0.576065,0.28534,0.0219043,0.437723,0.00829342,0.331182,-0.774096,0.573221,1.74568,-6.1508e-05,0,0,0,0,0,0,0,-3.13855,-29.0553,-3.91081,23.1186,1.98639,1.18279,-0.103348,
0.20518,-0.0500728,0.291213,-2.16896,0.580636,0.327808,0.0217504,0.206967,0.0215614,0.213931,-0.358948,0.14257,1.00819,-0.00505929,-6.04062,-2.31593,-6.18403,4.2813,-28.8526,-1.31361,0.714639,10.3111,-1.67742,10.8852,-30.9694,-1.02826,11.5059,-0.023569,0.208036,-0.0509756,0.295833,-2.17932,0.583981,0.344646,0.0219052,0.30821,0.0489155,0.41752,-0.732028,0.320998,1.79701,0.000211122,-16.1891,5.07776,10.7923,5.25849,-31.5279,6.41711,0.0340788,-2.30145,-31.7015,-3.36333,26.2805,2.33429,1.19012,-0.0969389,
0.212133,-0.049771,0.3001,-2.18626,0.585145,0.363678,0.0218426,0.211799,0.0302552,0.219153,-0.365824,0.12057,1.0254,-0.0049325,3.01961,5.43359,3.26348,-4.29752,-13.7499,10.7525,0.0792438,10.1495,-2.23776,10.7356,-31.9196,0.266218,11.5059,-0.0622557,0.208036,-0.0509756,0.295833,-2.17932,0.583981,0.344646,0.0219052,0.30821,0.0489155,0.41752,-0.732028,0.320998,1.79701,0.000211122,0,0,0,0,0,0,0,-2.30145,-31.7015,-3.36333,26.2805,2.33429,1.19012,-0.0969389,
0.21371,-0.0494391,0.301737,-2.18915,0.584961,0.371863,0.0218211,0.208875,0.0325021,0.216255,-0.364881,0.0918482,1.02494,-0.00448552,-1.82722,1.40436,-1.81137,0.589603,-17.9511,-0.286025,0.279363,10.2298,-1.91197,10.8106,-31.4328,-0.446866,11.5059,-0.0424564,0.208036,-0.0509756,0.295833,-2.17932,0.583981,0.344646,0.0219052,0.30821,0.0489155,0.41752,-0.732028,0.320998,1.79701,0.000211122,0,0,0,0,0,0,0,-2.30145,-31.7015,-3.36333,26.2805,2.33429,1.19012,-0.0969389,
0.215101,-0.0492475,0.303181,-2.19189,0.584383,0.379877,0.0218159,0.201876,0.0307911,0.209103,-0.36058,0.0590392,1.0203,-0.00371837,-4.37435,-1.0694,-4.46958,2.68784,-20.5056,-2.90154,0.479471,10.3111,-1.67742,10.8852,-30.9694,-1.02826,11.5059,-0.023569,0.208036,-0.0509756,0.295833,-2.17932,0.583981,0.344646,0.0219052,0.30821,0.0489155,0.41752,-0.732028,0.320998,1.79701,0.000211122,0,0,0,0,0,0,0,-2.30145,-31.7015,-3.36333,26.2805,2.33429,1.19012,-0.0969389,
0.216361,-0.049151,0.304489,-2.19454,0.583458,0.387894,0.0218257,0.19299,0.0270454,0.199989,-0.354707,0.0240859,1.01666,-0.00272749,-5.55406,-2.34104,-5.69655,3.67051,-21.8458,-2.27313,0.619302,10.3131,-1.52331,10.8905,-30.6926,-1.44293,11.3262,-0.00330321,0.220328,-0.0505468,0.308361,-2.20534,0.588405,0.405341,0.0219126,0.269876,0.0185556,0.455376,-0.719759,0.0452026,1.76665,-0.000638934,-4.79182,-3.79499,4.73195,1.53364,-34.4745,-3.79584,-0.106257,-1.53973,-31.1025,-2.36357,26.4789,1.90673,1.99212,-0.0905302,
0.224365,-0.0496136,0.312578,-2.2122,0.586859,0.423941,0.0218684,0.199852,0.0320241,0.207259,-0.361752,-0.00238664,1.02707,-0.0028271,4.28923,3.11166,4.54406,-4.40284,-16.5453,6.50374,-0.062258,10.152,-1.91853,10.7444,-31.6,-0.403711,11.3262,-0.039402,0.220328,-0.0505468,0.308361,-2.20534,0.588405,0.405341,0.0219126,0.269876,0.0185556,0.455376,-0.719759,0.0452026,1.76665,-0.000638934,0,0,0,0,0,0,0,-1.53973,-31.1025,-2.36357,26.4789,1.90673,1.99212,-0.0905302,
0.225913,-0.049344,0.314187,-2.21507,0.585869,0.431947,0.021857,0.198592,0.0323593,0.206031,-0.361104,-0.0266487,1.02181,-0.00254563,-0.787744,0.209496,-0.767658,0.404793,-15.1638,-3.28735,0.175919,10.2334,-1.68398,10.819,-31.1366,-0.985109,11.3262,-0.0205147,0.220328,-0.0505468,0.308361,-2.20534,0.588405,0.405341,0.0219126,0.269876,0.0185556,0.455376,-0.719759,0.0452026,1.76665,-0.000638934,0,0,0,0,0,0,0,-1.53973,-31.1025,-2.36357,26.4789,1.90673,1.99212,-0.0905302,
0.227279,-0.0491879,0.315606,-2.2178,0.584719,0.439803,0.0218627,0.193005,0.0297899,0.200296,-0.357137,-0.0500755,1.01384,-0.00189609,-3.49186,-1.60587,-3.58453,2.47959,-14.6417,-4.9819,0.405962,10.3131,-1.52331,10.8905,-30.6926,-1.44293,11.3262,-0.00330321,0.220328,-0.0505468,0.308361,-2.20534,0.588405,0.405341,0.0219126,0.269876,0.0185556,0.455376,-0.719759,0.0452026,1.76665,-0.000638934,0,0,0,0,0,0,0,-1.53973,-31.1025,-2.36357,26.4789,1.90673,1.99212,-0.0905302,
0.228516,-0.0491107,0.316893,-2.22044,0.583396,0.447676,0.0218832,0.185336,0.0257622,0.192401,-0.351591,-0.073138,1.00789,-0.00100283,-4.79347,-2.51733,-4.93415,3.46647,-14.414,-3.71543,0.55829,10.3795,-1.51224,10.9505,-30.3379,-1.6659,11.1426,0.0143698,0.23256,-0.0499396,0.319925,-2.23066,0.58862,0.466438,0.0219181,0.263683,0.00531694,0.394939,-0.723223,-0.0295133,1.75025,0.00243341,-0.774076,-1.65483,-7.55464,-0.433049,-9.33948,-2.04977,0.384043,-0.655026,-31.0271,-1.38762,22.345,1.59546,1.42174,-0.050247,
0.236243,-0.0490949,0.323775,-2.23747,0.585914,0.484802,0.0219139,0.189892,0.0302339,0.197279,-0.358442,-0.0935155,1.01761,-0.00102735,2.84758,2.79484,3.04834,-4.28235,-12.736,6.07195,-0.0153284,10.2224,-1.7737,10.8104,-31.208,-0.865345,11.1426,-0.0191076,0.23256,-0.0499396,0.319925,-2.23066,0.58862,0.466438,0.0219181,0.263683,0.00531694,0.394939,-0.723223,-0.0295133,1.75025,0.00243341,0,0,0,0,0,0,0,-0.655026,-31.0271,-1.38762,22.345,1.59546,1.42174,-0.050247,
0.237675,-0.0488403,0.325265,-2.2403,0.584504,0.49274,0.0219169,0.187714,0.0305537,0.195092,-0.357678,-0.11007,1.01254,-0.000748346,-1.36112,0.19984,-1.36647,0.477768,-10.3468,-3.16788,0.174378,10.3021,-1.61303,10.882,-30.7639,-1.32316,11.1426,-0.00189605,0.23256,-0.0499396,0.319925,-2.23066,0.58862,0.466438,0.0219181,0.263683,0.00531694,0.394939,-0.723223,-0.0295133,1.75025,0.00243341,0,0,0,0,0,0,0,-0.655026,-31.0271,-1.38762,22.345,1.59546,1.42174,-0.050247,
0.238951,-0.0486905,0.326594,-2.24301,0.583043,0.500541,0.0219352,0.182076,0.028188,0.189289,-0.3537,-0.124582,1.00505,-0.000140567,-3.52384,-1.47853,-3.62672,2.48599,-9.06943,-4.68017,0.379862,10.3795,-1.51224,10.9505,-30.3379,-1.6659,11.1426,0.0143698,0.23256,-0.0499396,0.319925,-2.23066,0.58862,0.466438,0.0219181,0.263683,0.00531694,0.394939,-0.723223,-0.0295133,1.75025,0.00243341,0,0,0,0,0,0,0,-0.655026,-31.0271,-1.38762,22.345,1.59546,1.42174,-0.050247,
0.24012,-0.0486151,0.327811,-2.24562,0.581508,0.50836,0.0219693,0.174869,0.0244329,0.181855,-0.348212,-0.138033,0.999518,0.000739532,-4.50391,-2.34693,-4.64676,3.42999,-8.40723,-3.45721,0.550062,10.4531,-1.45772,11.0148,-29.9262,-1.90518,11.1426,0.0294199,0.23256,-0.0499396,0.319925,-2.23066,0.58862,0.466438,0.0219181,0.263683,0.00531694,0.394939,-0.723223,-0.0295133,1.75025,0.00243341,0,0,0,0,0,0,0,-0.655026,-31.0271,-1.38762,22.345,1.59546,1.42174,-0.050247,
0.24759,-0.048511,0.335026,-2.26268,0.581831,0.544495,0.0219566,0.181325,0.0283876,0.188597,-0.355195,-0.153759,1.00248,0.00064212,4.0347,2.47164,4.21368,-4.36398,-9.82883,1.84863,-0.0608825,10.268,-1.69928,10.8489,-30.7803,-1.20381,10.9647,-0.000697543,0.243916,-0.0492818,0.33121,-2.25593,0.585336,0.526892,0.0219397,0.376455,0.00289955,0.281446,-0.711986,-0.110486,1.6857,-0.000201072,14.0965,-0.302174,-14.1866,1.40467,-10.1216,-8.06792,-0.32931,-1.49212,-31.0271,-2.18505,22.345,1.29608,2.16424,-0.0630644,
0.249018,-0.0482761,0.336511,-2.2655,0.580197,0.552158,0.0219701,0.180747,0.0285828,0.188003,-0.354642,-0.163848,0.993552,0.000851356,-0.361017,0.122015,-0.370711,0.345718,-6.30528,-5.57693,0.130772,10.3454,-1.59849,10.9174,-30.3542,-1.54655,10.9647,0.0155683,0.243916,-0.0492818,0.33121,-2.25593,0.585336,0.526892,0.0219397,0.376455,0.00289955,0.281446,-0.711986,-0.110486,1.6857,-0.000201072,0,0,0,0,0,0,0,-1.49212,-31.0271,-2.18505,22.345,1.29608,2.16424,-0.0630644,
0.250292,-0.0481381,0.337836,-2.26818,0.578603,0.559726,0.0220006,0.176443,0.026315,0.183538,-0.350865,-0.170946,0.984051,0.00144176,-2.69049,-1.41736,-2.79101,2.36014,-4.43636,-5.93843,0.369005,10.419,-1.54398,10.9817,-29.9425,-1.78583,10.9647,0.0306185,0.243916,-0.0492818,0.33121,-2.25593,0.585336,0.526892,0.0219397,0.376455,0.00289955,0.281446,-0.711986,-0.110486,1.6857,-0.000201072,0,0,0,0,0,0,0,-1.49212,-31.0271,-2.18505,22.345,1.29608,2.16424,-0.0630644,
0.251458,-0.0480706,0.33905,-2.27078,0.577013,0.567341,0.0220441,0.170308,0.0227399,0.177182,-0.345558,-0.176494,0.977613,0.00224279,-3.83411,-2.23442,-3.97218,3.31708,-3.46762,-4.02347,0.500644,10.4859,-1.52492,11.0391,-29.5423,-1.94007,10.9647,0.0471304,0.243916,-0.0492818,0.33121,-2.25593,0.585336,0.526892,0.0219397,0.376455,0.00289955,0.281446,-0.711986,-0.110486,1.6857,-0.000201072,0,0,0,0,0,0,0,-1.49212,-31.0271,-2.18505,22.345,1.29608,2.16424,-0.0630644,
0.247602,-0.0484932,0.335035,-2.26261,0.581527,0.544461,0.0219855,0.177825,0.0272384,0.184986,-0.35228,-0.188654,0.984589,0.00216606,4.69817,2.81153,4.87706,-4.20148,-7.60008,4.35991,-0.0479614,10.2942,-1.70843,10.8656,-30.3736,-1.41839,10.7842,0.01681,0.254516,-0.0486322,0.342448,-2.28113,0.579248,0.586543,0.0219647,0.368098,0.0106818,0.225752,-0.704906,-0.180201,1.6795,0.000600602,-1.0447,0.972782,-6.96176,0.884934,-8.71438,-0.77536,0.100209,-2.20227,-31.2254,-2.83568,22.7695,1.02142,2.37023,-0.0429228,
0.249034,-0.0482526,0.336524,-2.26541,0.579747,0.552115,0.0220118,0.178079,0.0278055,0.185231,-0.3516,-0.195418,0.979005,0.00239077,0.158995,0.35441,0.153634,0.425397,-4.22756,-3.48992,0.140449,10.3679,-1.65392,10.9298,-29.962,-1.65767,10.7842,0.0318601,0.254516,-0.0486322,0.342448,-2.28113,0.579248,0.586543,0.0219647,0.368098,0.0106818,0.225752,-0.704906,-0.180201,1.6795,0.000600602,0,0,0,0,0,0,0,-2.20227,-31.2254,-2.83568,22.7695,1.02142,2.37023,-0.0429228,
0.250311,-0.0481114,0.337853,-2.26807,0.578046,0.559675,0.0220517,0.17439,0.0257734,0.181389,-0.347809,-0.198857,0.972223,0.00291058,-2.30578,-1.27003,-2.40144,2.36903,-2.1494,-4.23894,0.324878,10.4348,-1.63486,10.9873,-29.5617,-1.81191,10.7842,0.0483721,0.254516,-0.0486322,0.342448,-2.28113,0.579248,0.586543,0.0219647,0.368098,0.0106818,0.225752,-0.704906,-0.180201,1.6795,0.000600602,0,0,0,0,0,0,0,-2.20227,-31.2254,-2.83568,22.7695,1.02142,2.37023,-0.0429228,
0.257844,-0.0478117,0.345906,-2.28778,0.574776,0.604046,0.0220374,0.177168,0.0299469,0.184383,-0.353676,-0.213028,0.979567,0.0030368,1.73642,2.60843,1.87143,-3.66681,-8.85639,4.59014,0.0788909,10.3679,-1.65392,10.9298,-29.962,-1.65767,10.7842,0.0318601,0.254516,-0.0486322,0.342448,-2.28113,0.579248,0.586543,0.0219647,0.368098,0.0106818,0.225752,-0.704906,-0.180201,1.6795,0.000600602,0,0,0,0,0,0,0,-2.20227,-31.2254,-2.83568,22.7695,1.02142,2.37023,-0.0429228,
0.259156,-0.0475635,0.347273,-2.29056,0.572856,0.611671,0.0220742,0.174524,0.0301638,0.181684,-0.352261,-0.218426,0.97427,0.00334792,-1.65296,0.135585,-1.68699,0.884697,-3.3741,-3.31106,0.194448,10.4046,-1.77599,10.9557,-29.4953,-1.6714,10.6152,0.0491577,0.264399,-0.0480786,0.353299,-2.30603,0.571773,0.644639,0.0219968,0.337003,0.0292252,0.237941,-0.697529,-0.212572,1.617,-0.000185469,-3.88685,2.31792,1.52355,0.922163,-4.04637,-7.81286,-0.0982589,-0.67883,-30.5788,-1.43523,21.6467,1.11847,1.94543,-0.0301054,
0.260339,-0.047417,0.348506,-2.2932,0.571115,0.619196,0.0221237,0.169188,0.0277931,0.176165,-0.347818,-0.218272,0.967537,0.00391622,-3.33487,-1.48171,-3.44973,2.77663,0.096501,-4.20802,0.355189,10.4251,-1.78994,10.9657,-29.1122,-1.74649,10.6152,0.0620496,0.264399,-0.0480786,0.353299,-2.30603,0.571773,0.644639,0.0219968,0.337003,0.0292252,0.237941,-0.697529,-0.212572,1.617,-0.000185469,0,0,0,0,0,0,0,-0.67883,-30.5788,-1.43523,21.6467,1.11847,1.94543,-0.0301054,
0.261432,-0.0473444,0.349645,-2.29575,0.569524,0.626757,0.0221857,0.162676,0.0240487,0.169418,-0.341988,-0.214393,0.963056,0.00468334,-4.07011,-2.34024,-4.21692,3.64413,2.42403,-2.80032,0.479448,10.4257,-1.81514,10.9556,-28.733,-1.74256,10.6152,0.0741232,0.264399,-0.0480786,0.353299,-2.30603,0.571773,0.644639,0.0219968,0.337003,0.0292252,0.237941,-0.697529,-0.212572,1.617,-0.000185469,0,0,0,0,0,0,0,-0.67883,-30.5788,-1.43523,21.6467,1.11847,1.94543,-0.0301054,
0.267617,-0.0471485,0.356649,-2.31271,0.567098,0.661433,0.0220908,0.166637,0.029578,0.17362,-0.349397,-0.226765,0.964231,0.00468801,2.47553,3.45577,2.62665,-4.63085,-7.73244,0.734347,0.00291836,10.4046,-1.77599,10.9557,-29.4953,-1.6714,10.6152,0.0491577,0.264399,-0.0480786,0.353299,-2.30603,0.571773,0.644639,0.0219968,0.337003,0.0292252,0.237941,-0.697529,-0.212572,1.617,-0.000185469,0,0,0,0,0,0,0,-0.67883,-30.5788,-1.43523,21.6467,1.11847,1.94543,-0.0301054,
0.268894,-0.046873,0.35798,-2.31549,0.565205,0.668786,0.0221364,0.165237,0.0305501,0.172189,-0.349066,-0.22872,0.95522,0.00489086,-0.875081,0.607565,-0.894824,0.206752,-1.22189,-5.63219,0.126781,10.4064,-1.92242,10.9478,-29.0542,-1.62683,10.4482,0.0630453,0.273896,-0.047517,0.364393,-2.33046,0.563346,0.699594,0.0220461,0.272831,0.0246073,0.315667,-0.69576,-0.273623,1.59897,-0.0013098,-8.02145,-0.577227,9.71577,0.221105,-7.63145,-2.25298,-0.140541,0.614505,-30.428,-0.463243,24.1144,1.22833,2.03881,0.0376436,
0.270051,-0.0467073,0.359186,-2.31813,0.563569,0.676076,0.0221954,0.161105,0.0285834,0.167893,-0.34532,-0.223875,0.946411,0.00538663,-2.58247,-1.22918,-2.68472,2.34117,3.02823,-5.50567,0.309859,10.407,-1.94762,10.9376,-28.6749,-1.6229,10.4482,0.0751189,0.273896,-0.047517,0.364393,-2.33046,0.563346,0.699594,0.0220461,0.272831,0.0246073,0.315667,-0.69576,-0.273623,1.59897,-0.0013098,0,0,0,0,0,0,0,0.614505,-30.428,-0.463243,24.1144,1.22833,2.03881,0.0376436,
0.271122,-0.0466218,0.360303,-2.32068,0.562189,0.683428,0.0222634,0.155663,0.0250034,0.162233,-0.339955,-0.213611,0.940931,0.00601037,-3.40122,-2.23747,-3.53726,3.35344,6.41484,-3.42463,0.389837,10.3887,-1.97613,10.9078,-28.2956,-1.52663,10.4482,0.0880702,0.273896,-0.047517,0.364393,-2.33046,0.563346,0.699594,0.0220461,0.272831,0.0246073,0.315667,-0.69576,-0.273623,1.59897,-0.0013098,0,0,0,0,0,0,0,0.614505,-30.428,-0.463243,24.1144,1.22833,2.03881,0.0376436,
0.27723,-0.046948,0.367852,-2.33659,0.560517,0.717571,0.021724,0.162333,0.0244299,0.168889,-0.338908,-0.199231,0.962617,0.0027058,4.16908,-0.35842,4.15991,0.654353,8.98788,13.5537,-2.06536,10.4064,-1.92242,10.9478,-29.0542,-1.62683,10.4482,0.0630453,0.273896,-0.047517,0.364393,-2.33046,0.563346,0.699594,0.0220461,0.272831,0.0246073,0.315667,-0.69576,-0.273623,1.59897,-0.0013098,0,0,0,0,0,0,0,0.614505,-30.428,-0.463243,24.1144,1.22833,2.03881,0.0376436,
0.278515,-0.0470927,0.369176,-2.33885,0.559807,0.725175,0.0219069,0.161993,0.0159248,0.168199,-0.327586,-0.177122,0.960186,0.00673743,-0.212302,-5.31571,-0.431364,7.07619,13.8178,-1.5195,2.51977,10.3974,-2.10784,10.9233,-28.5476,-1.48375,10.2947,0.0756749,0.283831,-0.0468352,0.374463,-2.35453,0.554452,0.754355,0.0221121,0.194196,0.0482481,0.386444,-0.687942,-0.252887,1.58465,0.000229518,-9.82936,2.9551,8.84721,0.977272,2.59204,-1.78993,0.192415,1.32465,-31.1501,0.314344,26.7288,0.960079,2.42974,-0.050247,
0.279633,-0.0475385,0.370322,-2.34086,0.559422,0.732074,0.0223388,0.157535,0.00159515,0.16322,-0.312187,-0.151313,0.940623,0.0161882,-2.78654,-8.95603,-3.11189,9.6241,16.1307,-12.2266,5.90673,10.3792,-2.13635,10.8934,-28.1683,-1.38749,10.2947,0.0886262,0.283831,-0.0468352,0.374463,-2.35453,0.554452,0.754355,0.0221121,0.194196,0.0482481,0.386444,-0.687942,-0.252887,1.58465,0.000229518,0,0,0,0,0,0,0,1.32465,-31.1501,0.314344,26.7288,0.960079,2.42974,-0.050247,
0.280639,-0.0482265,0.371349,-2.34268,0.559252,0.738318,0.0229758,0.151176,-0.0159238,0.156251,-0.295432,-0.125311,0.908587,0.0288744,-3.9744,-10.9493,-4.35578,10.4719,16.2517,-20.0228,7.92887,10.3068,-2.17102,10.8072,-27.7989,-1.13599,10.2947,0.098382,0.283831,-0.0468352,0.374463,-2.35453,0.554452,0.754355,0.0221121,0.194196,0.0482481,0.386444,-0.687942,-0.252887,1.58465,0.000229518,0,0,0,0,0,0,0,1.32465,-31.1501,0.314344,26.7288,0.960079,2.42974,-0.050247,
0.28709,-0.0463771,0.377849,-2.36035,0.552089,0.772492,0.0217086,0.157536,-0.0126687,0.162685,-0.297058,-0.122292,0.938295,0.021245,3.97513,2.03445,4.02152,-1.01605,1.88681,18.5676,-4.76839,10.3974,-2.10784,10.9233,-28.5476,-1.48375,10.2947,0.0756749,0.283831,-0.0468352,0.374463,-2.35453,0.554452,0.754355,0.0221121,0.194196,0.0482481,0.386444,-0.687942,-0.252887,1.58465,0.000229518,0,0,0,0,0,0,0,1.32465,-31.1501,0.314344,26.7288,0.960079,2.42974,-0.050247,
0.288304,-0.0468694,0.379092,-2.36226,0.551674,0.780075,0.0219853,0.156391,-0.0224432,0.161204,-0.285446,-0.1082,0.940202,0.0239143,-0.715841,-6.10908,-0.925826,7.25752,8.80704,1.19201,1.66834,10.4758,-2.40517,10.9834,-27.9266,-1.23345,10.1528,0.0884185,0.294674,-0.0463641,0.383454,-2.37812,0.548229,0.807067,0.0222257,0.253405,0.0236624,0.363683,-0.663088,-0.115274,1.4833,0.0104263,7.40111,-3.07321,-2.84512,3.10671,17.2016,-12.6692,1.2746,0.0828892,-31.1025,-0.487047,27.6254,-0.340885,3.52379,-0.0905302,
0.28935,-0.0477703,0.380154,-2.36386,0.551572,0.786849,0.0225736,0.151266,-0.0404764,0.155515,-0.268185,-0.0891284,0.921509,0.0338367,-3.20317,-11.2708,-3.55567,10.7881,11.92,-11.6831,6.20152,10.4034,-2.43984,10.8971,-27.5572,-0.981955,10.1528,0.0981743,0.294674,-0.0463641,0.383454,-2.37812,0.548229,0.807067,0.0222257,0.253405,0.0236624,0.363683,-0.663088,-0.115274,1.4833,0.0104263,0,0,0,0,0,0,0,0.0828892,-31.1025,-0.487047,27.6254,-0.340885,3.52379,-0.0905302,
0.290284,-0.0489842,0.381094,-2.36525,0.551667,0.792855,0.0234087,0.144348,-0.0627274,0.147927,-0.249336,-0.0689122,0.887356,0.0479488,-4.32348,-13.9069,-4.74219,11.7808,12.6351,-21.3461,8.82007,10.2962,-2.47152,10.7881,-27.1949,-1.09716,10.1528,0.108452,0.294674,-0.0463641,0.383454,-2.37812,0.548229,0.807067,0.0222257,0.253405,0.0236624,0.363683,-0.663088,-0.115274,1.4833,0.0104263,0,0,0,0,0,0,0,0.0828892,-31.1025,-0.487047,27.6254,-0.340885,3.52379,-0.0905302,
0.29814,-0.0466839,0.387009,-2.38325,0.547347,0.824063,0.022018,0.154126,-0.061343,0.15771,-0.250661,-0.0611938,0.908302,0.0396247,6.11113,0.86528,6.1141,-0.827927,4.82403,13.0914,-5.20259,10.4758,-2.40517,10.9834,-27.9266,-1.23345,10.1528,0.0884185,0.294674,-0.0463641,0.383454,-2.37812,0.548229,0.807067,0.0222257,0.253405,0.0236624,0.363683,-0.663088,-0.115274,1.4833,0.0104263,0,0,0,0,0,0,0,0.0828892,-31.1025,-0.487047,27.6254,-0.340885,3.52379,-0.0905302,
0.299418,-0.0476901,0.388301,-2.38474,0.5474,0.831172,0.0224605,0.155265,-0.0742283,0.158452,-0.237925,-0.0476291,0.904371,0.0427632,0.711645,-8.05334,0.464122,7.95948,8.47791,-2.45682,1.96159,10.4034,-2.43984,10.8971,-27.5572,-0.981955,10.1528,0.0981743,0.294674,-0.0463641,0.383454,-2.37812,0.548229,0.807067,0.0222257,0.253405,0.0236624,0.363683,-0.663088,-0.115274,1.4833,0.0104263,0,0,0,0,0,0,0,0.0828892,-31.1025,-0.487047,27.6254,-0.340885,3.52379,-0.0905302,
0.30051,-0.0491415,0.389393,-2.38592,0.547648,0.83748,0.0232401,0.151503,-0.095668,0.154085,-0.219765,-0.0318987,0.881191,0.0537013,-2.35108,-13.3998,-2.7295,11.3502,9.83149,-14.4877,6.83629,10.3104,-2.76512,10.82,-27.1142,-0.987681,9.99362,0.108932,0.304036,-0.0474421,0.394071,-2.39924,0.545399,0.858882,0.0229185,0.39805,-0.0485114,0.196705,-0.588706,-0.0316806,1.48379,0.0319546,18.0805,-9.02173,-20.8722,9.29775,10.4492,0.0614456,2.69104,0.0551182,-29.5274,-0.586229,26.6296,-0.46265,3.82867,-0.0429228,
0.301481,-0.0509129,0.390356,-2.3869,0.547984,0.843014,0.0242808,0.14547,-0.120819,0.147342,-0.200378,-0.0171195,0.843294,0.0689781,-3.77064,-15.7195,-4.2145,12.1172,9.237,-23.6852,9.54802,10.1432,-2.78127,10.6467,-26.7571,-1.03519,9.99362,0.116351,0.304036,-0.0474421,0.394071,-2.39924,0.545399,0.858882,0.0229185,0.39805,-0.0485114,0.196705,-0.588706,-0.0316806,1.48379,0.0319546,0,0,0,0,0,0,0,0.0551182,-29.5274,-0.586229,26.6296,-0.46265,3.82867,-0.0429228,
0.307394,-0.0491295,0.397453,-2.40326,0.545623,0.875383,0.0232232,0.153919,-0.124341,0.155706,-0.198834,-0.00870661,0.863986,0.062368,5.28088,-2.20111,5.22753,0.965011,5.25807,12.9323,-4.1313,10.4177,-2.73345,10.929,-27.4765,-0.872473,9.99362,0.0986546,0.304036,-0.0474421,0.394071,-2.39924,0.545399,0.858882,0.0229185,0.39805,-0.0485114,0.196705,-0.588706,-0.0316806,1.48379,0.0319546,0,0,0,0,0,0,0,0.0551182,-29.5274,-0.586229,26.6296,-0.46265,3.82867,-0.0429228,
0.308653,-0.050758,0.398708,-2.40433,0.545954,0.881833,0.0237902,0.154605,-0.140186,0.15594,-0.185755,0.00129817,0.852442,0.0640685,0.428572,-9.90314,0.146002,8.17417,6.25299,-7.21536,1.06281,10.3104,-2.76512,10.82,-27.1142,-0.987681,9.99362,0.108932,0.304036,-0.0474421,0.394071,-2.39924,0.545399,0.858882,0.0229185,0.39805,-0.0485114,0.196705,-0.588706,-0.0316806,1.48379,0.0319546,0,0,0,0,0,0,0,0.0551182,-29.5274,-0.586229,26.6296,-0.46265,3.82867,-0.0429228,
0.309746,-0.0527771,0.399786,-2.40513,0.546301,0.887409,0.0246371,0.150997,-0.162626,0.151695,-0.168736,0.00971279,0.821342,0.0724266,-2.25495,-14.0251,-2.65288,10.6371,5.25913,-19.4375,5.22381,10.1158,-3.10873,10.6583,-26.698,-0.936082,9.83845,0.116974,0.312383,-0.050159,0.405605,-2.4185,0.544556,0.908596,0.0240054,0.256374,-0.112904,0.300637,-0.501383,-0.00113434,1.39905,0.0423969,-17.7095,-8.04912,12.9914,10.9154,3.81828,-10.5926,1.30528,0.590702,-29.2061,-0.637804,24.884,-0.23743,4.66454,0.017502,
0.310729,-0.0550597,0.400746,-2.4058,0.546612,0.892253,0.0257214,0.145371,-0.187166,0.145365,-0.151767,0.0155548,0.77817,0.0850482,-3.51634,-15.3373,-3.95641,10.6055,3.65125,-26.9823,7.88851,9.89629,-3.10239,10.4382,-26.3405,-1.18075,9.83845,0.123666,0.312383,-0.050159,0.405605,-2.4185,0.544556,0.908596,0.0240054,0.256374,-0.112904,0.300637,-0.501383,-0.00113434,1.39905,0.0423969,0,0,0,0,0,0,0,0.590702,-29.2061,-0.637804,24.884,-0.23743,4.66454,0.017502,
0.315562,-0.0527793,0.408812,-2.42185,0.544546,0.924253,0.0246099,0.152054,-0.188876,0.1521,-0.152755,0.0140571,0.80143,0.0789274,4.17662,-1.06863,4.20972,-0.617839,-0.936047,14.5374,-3.82554,10.2831,-3.09258,10.8316,-27.0551,-0.888574,9.83845,0.109556,0.312383,-0.050159,0.405605,-2.4185,0.544556,0.908596,0.0240054,0.256374,-0.112904,0.300637,-0.501383,-0.00113434,1.39905,0.0423969,0,0,0,0,0,0,0,0.590702,-29.2061,-0.637804,24.884,-0.23743,4.66454,0.017502,
0.316769,-0.0548216,0.410005,-2.42267,0.54466,0.930277,0.0253013,0.151831,-0.202158,0.151519,-0.142889,0.0140914,0.791741,0.080427,-0.139072,-8.30137,-0.363469,6.16641,0.021404,-6.05567,0.937243,10.1158,-3.10873,10.6583,-26.698,-0.936082,9.83845,0.116974,0.312383,-0.050159,0.405605,-2.4185,0.544556,0.908596,0.0240054,0.256374,-0.112904,0.300637,-0.501383,-0.00113434,1.39905,0.0423969,0,0,0,0,0,0,0,0.590702,-29.2061,-0.637804,24.884,-0.23743,4.66454,0.017502,
0.317828,-0.0572163,0.411039,-2.42329,0.544754,0.935365,0.0262154,0.147944,-0.221594,0.147059,-0.129623,0.0136383,0.760589,0.0871942,-2.42909,-12.1478,-2.78748,8.29122,-0.283161,-19.4697,4.22949,9.91703,-3.46476,10.5316,-26.2464,-1.08667,9.69031,0.124266,0.323078,-0.055894,0.413784,-2.43622,0.544479,0.954222,0.0258934,0.158341,-0.218906,0.403239,-0.468656,0.0197619,1.26632,0.0710205,-12.2542,-13.2502,12.8252,4.09082,2.61203,-16.5917,3.57796,0.336795,-28.5079,-0.487047,27.8754,-0.304264,5.21477,0.0907442,
0.318814,-0.0598238,0.411989,-2.42378,0.544717,0.939694,0.0273191,0.142997,-0.242463,0.141403,-0.115922,0.00998459,0.716712,0.0973461,-3.09241,-13.0428,-3.53464,8.56354,-2.28357,-27.4236,6.34494,9.62338,-3.43818,10.2338,-25.8945,-1.29723,9.69031,0.118451,0.323078,-0.055894,0.413784,-2.43622,0.544479,0.954222,0.0258934,0.158341,-0.218906,0.403239,-0.468656,0.0197619,1.26632,0.0710205,0,0,0,0,0,0,0,0.336795,-28.5079,-0.487047,27.8754,-0.304264,5.21477,0.0907442,
0.326288,-0.059433,0.417034,-2.43933,0.54377,0.96848,0.0268623,0.150743,-0.242914,0.14937,-0.121436,5.61818e-05,0.735152,0.0922773,4.84151,-0.281667,4.97879,-3.44681,-6.20526,11.525,-3.16798,10.1366,-3.4711,10.7517,-26.6039,-0.842001,9.69031,0.117574,0.323078,-0.055894,0.413784,-2.43622,0.544479,0.954222,0.0258934,0.158341,-0.218906,0.403239,-0.468656,0.0197619,1.26632,0.0710205,0,0,0,0,0,0,0,0.336795,-28.5079,-0.487047,27.8754,-0.304264,5.21477,0.0907442,
0.327521,-0.0617792,0.418245,-2.44009,0.543497,0.973857,0.027621,0.151405,-0.252986,0.149778,-0.116104,-0.00675988,0.722539,0.0927899,0.413661,-6.29514,0.255185,3.33298,-4.26004,-7.88257,0.320395,9.91703,-3.46476,10.5316,-26.2464,-1.08667,9.69031,0.124266,0.323078,-0.055894,0.413784,-2.43622,0.544479,0.954222,0.0258934,0.158341,-0.218906,0.403239,-0.468656,0.0197619,1.26632,0.0710205,0,0,0,0,0,0,0,0.336795,-28.5079,-0.487047,27.8754,-0.304264,5.21477,0.0907442,
0.328628,-0.0644003,0.419317,-2.44063,0.543145,0.978342,0.028549,0.148795,-0.267918,0.146601,-0.106462,-0.0142201,0.690171,0.0974331,-1.63106,-9.33249,-1.98535,6.02635,-4.66266,-20.23,2.902,9.58395,-3.68451,10.3154,-26.0139,-1.23044,9.52038,0.119464,0.332585,-0.0645047,0.42238,-2.45149,0.544469,0.999497,0.0277962,0.363762,-0.289342,0.158009,-0.432044,0.00556012,1.27585,0.0723964,25.6777,-8.80451,-30.6538,4.57657,-1.77522,1.19143,0.171983,0.614505,-26.7821,0.0366345,27.2763,-0.359196,4.35235,0.171311,
0.329668,-0.06719,0.42031,-2.44107,0.542644,0.982118,0.0296231,0.145035,-0.284075,0.142128,-0.0961893,-0.0238865,0.646533,0.104798,-2.35019,-10.0985,-2.79554,6.42016,-6.0415,-27.274,4.60285,9.3602,-3.62207,10.1019,-25.6439,-1.95394,9.52038,0.113022,0.332585,-0.0645047,0.42238,-2.45149,0.544469,0.999497,0.0277962,0.363762,-0.289342,0.158009,-0.432044,0.00556012,1.27585,0.0723964,0,0,0,0,0,0,0,0.614505,-26.7821,0.0366345,27.2763,-0.359196,4.35235,0.171311,
0.335779,-0.0689043,0.425536,-2.45399,0.544429,1.01362,0.0289155,0.152477,-0.284122,0.149761,-0.100304,-0.0218439,0.676731,0.0997315,4.65117,-0.0288724,4.77066,-2.57153,1.27668,18.874,-3.16639,9.8776,-3.71109,10.6131,-26.3658,-1.01988,9.52038,0.125279,0.332585,-0.0645047,0.42238,-2.45149,0.544469,0.999497,0.0277962,0.363762,-0.289342,0.158009,-0.432044,0.00556012,1.27585,0.0723964,0,0,0,0,0,0,0,0.614505,-26.7821,0.0366345,27.2763,-0.359196,4.35235,0.171311,
0.337068,-0.0713775,0.426794,-2.45465,0.544123,1.01891,0.0297041,0.154206,-0.289125,0.151255,-0.0966113,-0.0251237,0.673577,0.0995013,1.081,-3.12711,0.933782,2.30775,-2.04988,-1.9716,-0.143847,9.58395,-3.68451,10.3154,-26.0139,-1.23044,9.52038,0.119464,0.332585,-0.0645047,0.42238,-2.45149,0.544469,0.999497,0.0277962,0.363762,-0.289342,0.158009,-0.432044,0.00556012,1.27585,0.0723964,0,0,0,0,0,0,0,0.614505,-26.7821,0.0366345,27.2763,-0.359196,4.35235,0.171311,
0.338254,-0.0739957,0.427938,-2.45519,0.5436,1.02334,0.0306292,0.153026,-0.296756,0.149612,-0.0909243,-0.0331644,0.649613,0.102728,-0.737654,-4.76965,-1.02709,3.5544,-5.02547,-14.9775,2.01693,9.25567,-3.96689,10.1369,-25.731,-1.88513,9.35341,0.114105,0.339609,-0.0746128,0.433371,-2.46571,0.5432,1.04336,0.0299397,0.272211,-0.300881,0.244756,-0.383887,-0.10073,1.22111,0.0676122,-11.4439,-1.44239,10.8435,6.01958,-13.2862,-6.8423,-0.59802,1.27307,-26.5599,-0.213304,23.9636,0.0134241,3.56316,0.346176,
0.339381,-0.0766874,0.429017,-2.45572,0.542855,1.02711,0.0316675,0.150579,-0.304697,0.146644,-0.0858715,-0.0451713,0.613909,0.10814,-1.52947,-4.96279,-1.85514,3.15801,-7.50432,-22.315,3.38252,9.12562,-3.88238,9.99893,-25.3463,-2.39382,9.35341,0.10774,0.339609,-0.0746128,0.433371,-2.46571,0.5432,1.04336,0.0299397,0.272211,-0.300881,0.244756,-0.383887,-0.10073,1.22111,0.0676122,0,0,0,0,0,0,0,1.27307,-26.5599,-0.213304,23.9636,0.0134241,3.56316,0.346176,
0.342695,-0.0788802,0.436466,-2.46842,0.541273,1.05727,0.0310156,0.155922,-0.297912,0.152646,-0.0956459,-0.0610432,0.648177,0.101415,3.33972,4.2403,3.75134,-6.10903,-9.91992,21.418,-4.20322,9.47942,-4.02933,10.3503,-26.1011,-1.16163,9.35341,0.120548,0.339609,-0.0746128,0.433371,-2.46571,0.5432,1.04336,0.0299397,0.272211,-0.300881,0.244756,-0.383887,-0.10073,1.22111,0.0676122,0,0,0,0,0,0,0,1.27307,-26.5599,-0.213304,23.9636,0.0134241,3.56316,0.346176,
0.343958,-0.0811751,0.437707,-2.46927,0.540201,1.06251,0.0317339,0.156314,-0.295704,0.153149,-0.0978807,-0.0756401,0.649624,0.0990899,0.244936,1.38002,0.314353,-1.39676,-9.12306,0.90415,-1.45339,9.25567,-3.96689,10.1369,-25.731,-1.88513,9.35341,0.114105,0.339609,-0.0746128,0.433371,-2.46571,0.5432,1.04336,0.0299397,0.272211,-0.300881,0.244756,-0.383887,-0.10073,1.22111,0.0676122,0,0,0,0,0,0,0,1.27307,-26.5599,-0.213304,23.9636,0.0134241,3.56316,0.346176,
0.345127,-0.0835616,0.438845,-2.47005,0.53902,1.06695,0.0325623,0.154291,-0.296225,0.150966,-0.097748,-0.0900299,0.630813,0.0999817,-1.26435,-0.325508,-1.3643,0.0829757,-8.99362,-11.7569,0.557394,9.13001,-4.23335,10.1384,-25.3657,-2.31379,9.18131,0.108782,0.349868,-0.0850733,0.441433,-2.48002,0.539902,1.08697,0.0320333,0.127284,-0.292958,0.406975,-0.420263,-0.151947,1.1883,0.0587951,-18.1158,0.990368,20.2774,-4.547,-6.40221,-4.10078,-1.10214,1.17389,-28.1825,-0.288683,26.0544,0.233151,3.98156,0.366318,
0.346242,-0.0859852,0.439923,-2.47082,0.537715,1.07079,0.0334811,0.151289,-0.29757,0.147723,-0.0975921,-0.104663,0.600547,0.102955,-1.87634,-0.84037,-2.02714,0.0974264,-9.14546,-18.9161,1.85824,9.07825,-4.13253,10.0784,-24.9597,-2.67049,9.18131,0.104135,0.349868,-0.0850733,0.441433,-2.48002,0.539902,1.08697,0.0320333,0.127284,-0.292958,0.406975,-0.420263,-0.151947,1.1883,0.0587951,0,0,0,0,0,0,0,1.17389,-28.1825,-0.288683,26.0544,0.233151,3.98156,0.366318,
0.352782,-0.0884933,0.44448,-2.48368,0.535272,1.10103,0.0328653,0.154373,-0.281476,0.152294,-0.116414,-0.138814,0.639914,0.0936459,1.92754,10.0584,2.85734,-11.7636,-21.3448,24.6041,-5.81813,9.26005,-4.31787,10.2763,-25.7504,-1.8051,9.18131,0.115147,0.349868,-0.0850733,0.441433,-2.48002,0.539902,1.08697,0.0320333,0.127284,-0.292958,0.406975,-0.420263,-0.151947,1.1883,0.0587951,0,0,0,0,0,0,0,1.17389,-28.1825,-0.288683,26.0544,0.233151,3.98156,0.366318,
0.353957,-0.0903645,0.445663,-2.48495,0.533247,1.10642,0.0334121,0.152874,-0.271963,0.151411,-0.124722,-0.161661,0.646555,0.0885867,-0.937247,5.94601,-0.551885,-5.19263,-14.2795,4.15055,-3.16199,9.13001,-4.23335,10.1384,-25.3657,-2.31379,9.18131,0.108782,0.349868,-0.0850733,0.441433,-2.48002,0.539902,1.08697,0.0320333,0.127284,-0.292958,0.406975,-0.420263,-0.151947,1.1883,0.0587951,0,0,0,0,0,0,0,1.17389,-28.1825,-0.288683,26.0544,0.233151,3.98156,0.366318,
0.355041,-0.0923409,0.446742,-2.4861,0.531318,1.11104,0.0340534,0.149402,-0.26698,0.1481,-0.128467,-0.177577,0.632895,0.0869016,-2.16955,3.11449,-2.06963,-2.34032,-9.947,-8.53722,-1.0532,9.07825,-4.13253,10.0784,-24.9597,-2.67049,9.18131,0.104135,0.349868,-0.0850733,0.441433,-2.48002,0.539902,1.08697,0.0320333,0.127284,-0.292958,0.406975,-0.420263,-0.151947,1.1883,0.0587951,0,0,0,0,0,0,0,1.17389,-28.1825,-0.288683,26.0544,0.233151,3.98156,0.366318,
0.356074,-0.0943733,0.447764,-2.48721,0.529425,1.11509,0.0347761,0.145359,-0.264393,0.14402,-0.130571,-0.189375,0.607449,0.0875871,-2.52698,1.61644,-2.55024,-1.31517,-7.37375,-15.9038,0.428439,9.07013,-4.33944,10.2208,-24.6794,-2.84223,9.01254,0.101524,0.358988,-0.095873,0.449614,-2.4945,0.533975,1.12733,0.0339053,0.383594,-0.33268,0.104841,-0.426264,-0.209984,1.13352,0.0504773,32.0387,-4.96521,-37.7668,-0.750132,-7.25458,-6.84836,-1.03973,-0.0718349,-25.5879,-1.43523,23.6661,0.0500452,4.39904,0.406601,
0.362303,-0.0999305,0.452896,-2.49737,0.531733,1.14046,0.0348234,0.154768,-0.258919,0.153827,-0.135336,-0.18443,0.636021,0.0826648,5.88075,3.4212,6.12962,-2.97788,3.09064,17.8571,-3.07645,9.11553,-4.52915,10.2826,-25.5005,-2.25795,9.01254,0.109601,0.358988,-0.095873,0.449614,-2.4945,0.533975,1.12733,0.0339053,0.383594,-0.33268,0.104841,-0.426264,-0.209984,1.13352,0.0504773,0,0,0,0,0,0,0,-0.0718349,-25.5879,-1.43523,23.6661,0.0500452,4.39904,0.406601,
0.363684,-0.101731,0.454281,-2.49854,0.530204,1.14563,0.0354133,0.158348,-0.252156,0.157691,-0.13735,-0.185748,0.638108,0.0808771,2.23714,4.22694,2.41519,-1.25915,-0.824284,1.30463,-1.11728,9.06378,-4.42832,10.2227,-25.0945,-2.61465,9.01254,0.104954,0.358988,-0.095873,0.449614,-2.4945,0.533975,1.12733,0.0339053,0.383594,-0.33268,0.104841,-0.426264,-0.209984,1.13352,0.0504773,0,0,0,0,0,0,0,-0.0718349,-25.5879,-1.43523,23.6661,0.0500452,4.39904,0.406601,
0.364952,-0.103476,0.455554,-2.49974,0.528545,1.15018,0.0360712,0.158376,-0.245334,0.157963,-0.139863,-0.190084,0.624338,0.0811508,0.0176414,4.26379,0.169851,-1.57064,-2.70952,-8.60654,0.17104,9.07013,-4.33944,10.2208,-24.6794,-2.84223,9.01254,0.101524,0.358988,-0.095873,0.449614,-2.4945,0.533975,1.12733,0.0339053,0.383594,-0.33268,0.104841,-0.426264,-0.209984,1.13352,0.0504773,0,0,0,0,0,0,0,-0.0718349,-25.5879,-1.43523,23.6661,0.0500452,4.39904,0.406601,
0.366136,-0.105164,0.456746,-2.50101,0.526801,1.15427,0.036777,0.156307,-0.238478,0.156172,-0.143649,-0.195671,0.601771,0.0825654,-1.29317,4.28528,-1.1192,-2.36597,-3.49202,-14.1043,0.884146,9.08633,-4.69689,10.3817,-24.2643,-2.89264,8.84331,0.100497,0.366148,-0.107148,0.460809,-2.51045,0.524549,1.17209,0.0354321,0.200804,-0.316845,0.290485,-0.445202,-0.223933,1.18824,0.0491592,-22.8488,1.97932,23.2056,-2.36724,-1.74363,6.83999,-0.164758,-0.222592,-24.5882,-2.13744,20.9009,0.0564539,4.22692,0.38646,
0.368908,-0.110087,0.46375,-2.51448,0.519358,1.1863,0.0361117,0.156618,-0.224197,0.158364,-0.159688,-0.22021,0.642605,0.0749344,0.194165,8.92527,1.36977,-10.0243,-15.3369,25.5214,-4.76937,9.03509,-4.8466,10.3466,-25.0943,-2.54158,8.84331,0.106155,0.366148,-0.107148,0.460809,-2.51045,0.524549,1.17209,0.0354321,0.200804,-0.316845,0.290485,-0.445202,-0.223933,1.18824,0.0491592,0,0,0,0,0,0,0,-0.222592,-24.5882,-2.13744,20.9009,0.0564539,4.22692,0.38646,
0.370029,-0.111357,0.464929,-2.51612,0.517009,1.19187,0.0365063,0.153322,-0.211112,0.156165,-0.168761,-0.234894,0.653468,0.0698106,-2.06002,8.17826,-1.37442,-5.67082,-9.17745,6.78971,-3.20237,9.04145,-4.75772,10.3448,-24.6792,-2.76916,8.84331,0.102725,0.366148,-0.107148,0.460809,-2.51045,0.524549,1.17209,0.0354321,0.200804,-0.316845,0.290485,-0.445202,-0.223933,1.18824,0.0491592,0,0,0,0,0,0,0,-0.222592,-24.5882,-2.13744,20.9009,0.0564539,4.22692,0.38646,
0.371071,-0.11261,0.466019,-2.51771,0.514839,1.19686,0.0369326,0.148702,-0.200226,0.15218,-0.174772,-0.242163,0.64753,0.0665061,-2.88712,6.80405,-2.49031,-3.75688,-4.54345,-3.7113,-2.06533,9.08633,-4.69689,10.3817,-24.2643,-2.89264,8.84331,0.100497,0.366148,-0.107148,0.460809,-2.51045,0.524549,1.17209,0.0354321,0.200804,-0.316845,0.290485,-0.445202,-0.223933,1.18824,0.0491592,0,0,0,0,0,0,0,-0.222592,-24.5882,-2.13744,20.9009,0.0564539,4.22692,0.38646,
0.372071,-0.113854,0.467062,-2.51928,0.512823,1.20147,0.0373772,0.143958,-0.191283,0.14782,-0.179213,-0.244141,0.633093,0.0643207,-2.96539,5.58924,-2.72513,-2.77588,-1.2358,-9.02342,-1.36587,9.10186,-4.94922,10.5147,-23.8554,-2.87145,8.70983,0.0996559,0.375935,-0.116079,0.467604,-2.52419,0.515726,1.2103,0.0365258,0.192947,-0.305774,0.358317,-0.435903,-0.289765,1.20505,0.0411045,-0.98205,1.38396,8.47897,1.16238,-8.22896,2.10102,-1.00684,0.868412,-24.489,-0.736986,21.0477,-0.151371,3.96142,0.400192,
0.378878,-0.118865,0.47079,-2.52827,0.509455,1.22479,0.0367238,0.148593,-0.183775,0.154138,-0.189212,-0.269135,0.675039,0.0539293,2.89708,4.69214,3.94846,-6.24916,-15.6213,26.2161,-6.49463,8.99079,-5.03923,10.4195,-24.6802,-2.71812,8.70983,0.103557,0.375935,-0.116079,0.467604,-2.52419,0.515726,1.2103,0.0365258,0.192947,-0.305774,0.358317,-0.435903,-0.289765,1.20505,0.0411045,0,0,0,0,0,0,0,0.868412,-24.489,-0.736986,21.0477,-0.151371,3.96142,0.400192,
0.380058,-0.119946,0.47205,-2.52996,0.506918,1.2309,0.0368324,0.148356,-0.174052,0.154811,-0.193464,-0.27874,0.692917,0.0458584,-0.147842,6.07736,0.420687,-2.65737,-6.00324,11.1743,-5.0443,9.03568,-4.9784,10.4565,-24.2653,-2.84159,8.70983,0.101329,0.375935,-0.116079,0.467604,-2.52419,0.515726,1.2103,0.0365258,0.192947,-0.305774,0.358317,-0.435903,-0.289765,1.20505,0.0411045,0,0,0,0,0,0,0,0.868412,-24.489,-0.736986,21.0477,-0.151371,3.96142,0.400192,
0.381144,-0.12093,0.473212,-2.5316,0.504678,1.2367,0.0369819,0.145856,-0.163835,0.152897,-0.195831,-0.278979,0.699218,0.0404239,-1.56278,6.38522,-1.19646,-1.47929,-0.149208,3.93793,-3.39657,9.10186,-4.94922,10.5147,-23.8554,-2.87145,8.70983,0.0996559,0.375935,-0.116079,0.467604,-2.52419,0.515726,1.2103,0.0365258,0.192947,-0.305774,0.358317,-0.435903,-0.289765,1.20505,0.0411045,0,0,0,0,0,0,0,0.868412,-24.489,-0.736986,21.0477,-0.151371,3.96142,0.400192,
0.382179,-0.121722,0.474336,-2.53329,0.502616,1.24283,0.0371253,0.14256,-0.150857,0.150433,-0.198812,-0.274749,0.712505,0.0359252,-2.05976,8.11167,-1.53984,-1.86347,2.64359,8.3043,-2.81165,9.1032,-5.21157,10.6596,-23.5727,-2.76872,8.53342,0.0995962,0.383777,-0.125021,0.479019,-2.54136,0.502959,1.25638,0.0369679,0.399824,-0.250632,0.122753,-0.491889,-0.372698,1.32187,-0.00310286,25.8596,6.89274,-29.4455,-6.99825,-10.3667,14.6035,-5.52592,0.106693,-23.2631,-1.9113,21.496,-0.316166,4.61144,0.312302,
0.38677,-0.127211,0.482211,-2.54553,0.497681,1.27167,0.0374417,0.147738,-0.143728,0.157045,-0.205988,-0.28694,0.750472,0.0307255,3.23617,4.45545,4.13275,-4.48462,-7.61972,23.7291,-3.24983,8.9643,-5.24075,10.5363,-24.3855,-2.78579,8.53342,0.102509,0.383777,-0.125021,0.479019,-2.54136,0.502959,1.25638,0.0369679,0.399824,-0.250632,0.122753,-0.491889,-0.372698,1.32187,-0.00310286,0,0,0,0,0,0,0,0.106693,-23.2631,-1.9113,21.496,-0.316166,4.61144,0.312302,
0.387946,-0.127957,0.483506,-2.5473,0.49517,1.27862,0.0375031,0.147593,-0.13364,0.158005,-0.208946,-0.292324,0.774148,0.0261167,-0.0907466,6.30493,0.600014,-1.849,-3.3645,14.7978,-2.88052,9.03048,-5.21157,10.5945,-23.9756,-2.81565,8.53342,0.100836,0.383777,-0.125021,0.479019,-2.54136,0.502959,1.25638,0.0369679,0.399824,-0.250632,0.122753,-0.491889,-0.372698,1.32187,-0.00310286,0,0,0,0,0,0,0,0.106693,-23.2631,-1.9113,21.496,-0.316166,4.61144,0.312302,
0.389004,-0.128603,0.484684,-2.54904,0.492849,1.28547,0.0375658,0.144524,-0.123076,0.155841,-0.210699,-0.291904,0.790564,0.0224601,-1.91799,6.60274,-1.35236,-1.0955,0.262484,10.2597,-2.28539,9.1032,-5.21157,10.6596,-23.5727,-2.76872,8.53342,0.0995962,0.383777,-0.125021,0.479019,-2.54136,0.502959,1.25638,0.0369679,0.399824,-0.250632,0.122753,-0.491889,-0.372698,1.32187,-0.00310286,0,0,0,0,0,0,0,0.106693,-23.2631,-1.9113,21.496,-0.316166,4.61144,0.312302,
0.389979,-0.129189,0.485779,-2.55078,0.490719,1.29226,0.03763,0.139974,-0.113088,0.152057,-0.212004,-0.286769,0.802385,0.0195719,-2.84366,6.24238,-2.36519,-0.815665,3.20898,7.38866,-1.80509,9.10489,-5.52868,10.7565,-23.1205,-2.59393,8.39053,0.0996069,0.3922,-0.132211,0.489074,-2.55793,0.489826,1.30206,0.0369795,0.111777,-0.154582,0.437305,-0.516696,-0.410526,1.41925,-0.000440226,-36.0059,12.0062,39.319,-3.10087,-4.72851,12.1717,0.332829,0.0551182,-22.9894,-2.06206,21.8967,-0.151371,4.432,0.279343,
0.395064,-0.133612,0.492309,-2.56261,0.483627,1.3167,0.0370855,0.144823,-0.106007,0.158217,-0.221749,-0.300325,0.811042,0.0168346,3.03025,4.42546,3.84963,-6.09087,-8.47199,5.41002,-1.71081,8.96273,-5.50549,10.6293,-23.9193,-2.75458,8.39053,0.102018,0.3922,-0.132211,0.489074,-2.55793,0.489826,1.30206,0.0369795,0.111777,-0.154582,0.437305,-0.516696,-0.410526,1.41925,-0.000440226,0,0,0,0,0,0,0,0.0551182,-22.9894,-2.06206,21.8967,-0.151371,4.432,0.279343,
0.396218,-0.134163,0.4936,-2.56452,0.481162,1.32314,0.0371408,0.144697,-0.0985888,0.158847,-0.225234,-0.301888,0.809648,0.0148501,-0.0785399,4.63634,0.393996,-2.17777,-0.977243,-0.871205,-1.24032,9.03545,-5.50549,10.6944,-23.5164,-2.70765,8.39053,0.100778,0.3922,-0.132211,0.489074,-2.55793,0.489826,1.30206,0.0369795,0.111777,-0.154582,0.437305,-0.516696,-0.410526,1.41925,-0.000440226,0,0,0,0,0,0,0,0.0551182,-22.9894,-2.06206,21.8967,-0.151371,4.432,0.279343,
0.397262,-0.134679,0.494779,-2.56637,0.47897,1.32949,0.0372018,0.141871,-0.0917587,0.156545,-0.226365,-0.29631,0.806489,0.0134043,-1.76628,4.26883,-1.43841,-0.706916,3.48659,-1.97426,-0.903633,9.10489,-5.52868,10.7565,-23.1205,-2.59393,8.39053,0.0996069,0.3922,-0.132211,0.489074,-2.55793,0.489826,1.30206,0.0369795,0.111777,-0.154582,0.437305,-0.516696,-0.410526,1.41925,-0.000440226,0,0,0,0,0,0,0,0.0551182,-22.9894,-2.06206,21.8967,-0.151371,4.432,0.279343,
0.395069,-0.133604,0.492314,-2.56257,0.483733,1.31667,0.0370812,0.146426,-0.088844,0.161894,-0.2327,-0.305995,0.813927,0.0118355,2.84696,1.82169,3.34281,-3.95968,-6.05332,4.64893,-0.980534,9.03545,-5.50549,10.6944,-23.5164,-2.70765,8.39053,0.100778,0.3922,-0.132211,0.489074,-2.55793,0.489826,1.30206,0.0369795,0.111777,-0.154582,0.437305,-0.516696,-0.410526,1.41925,-0.000440226,0,0,0,0,0,0,0,0.0551182,-22.9894,-2.06206,21.8967,-0.151371,4.432,0.279343,
0.396227,-0.134153,0.49361,-2.56446,0.48139,1.32309,0.037134,0.146099,-0.0847994,0.161906,-0.233392,-0.303369,0.811586,0.0107882,-0.204617,2.52791,0.00748201,-0.432224,1.64146,-1.46345,-0.654562,9.10489,-5.52868,10.7565,-23.1205,-2.59393,8.39053,0.0996069,0.3922,-0.132211,0.489074,-2.55793,0.489826,1.30206,0.0369795,0.111777,-0.154582,0.437305,-0.516696,-0.410526,1.41925,-0.000440226,0,0,0,0,0,0,0,0.0551182,-22.9894,-2.06206,21.8967,-0.151371,4.432,0.279343,
0.397277,-0.134668,0.494794,-2.56628,0.479356,1.32943,0.0371925,0.143125,-0.0807122,0.159121,-0.232252,-0.293545,0.807702,0.0100948,-1.85884,2.5545,-1.74049,0.712679,6.13983,-2.4275,-0.433337,9.16324,-5.56874,10.808,-22.7311,-2.42733,8.39053,0.0983996,0.3922,-0.132211,0.489074,-2.55793,0.489826,1.30206,0.0369795,0.111777,-0.154582,0.437305,-0.516696,-0.410526,1.41925,-0.000440226,0,0,0,0,0,0,0,0.0551182,-22.9894,-2.06206,21.8967,-0.151371,4.432,0.279343,
0.398242,-0.135177,0.495892,-2.56805,0.47758,1.33559,0.0372535,0.138626,-0.0773024,0.154767,-0.229902,-0.279247,0.800324,0.0096009,-2.81167,2.13107,-2.72117,1.46841,8.93599,-4.61124,-0.308705,9.20613,-5.61939,10.8445,-22.3468,-2.2178,8.39053,0.0970304,0.3922,-0.132211,0.489074,-2.55793,0.489826,1.30206,0.0369795,0.111777,-0.154582,0.437305,-0.516696,-0.410526,1.41925,-0.000440226,0,0,0,0,0,0,0,0.0551182,-22.9894,-2.06206,21.8967,-0.151371,4.432,0.279343,
0.395075,-0.133598,0.49232,-2.56253,0.483924,1.31664,0.0370753,0.143924,-0.0772099,0.160567,-0.235008,-0.289341,0.808587,0.00872564,3.31116,0.0578375,3.62499,-3.1914,-6.30868,5.16489,-0.547038,9.10489,-5.52868,10.7565,-23.1205,-2.59393,8.39053,0.0996069,0.402202,-0.137878,0.497519,-2.57515,0.476268,1.34905,0.0369739,0.303777,-0.138977,0.220335,-0.507506,-0.426449,1.43338,0.00109691,24,1.9506,-27.1213,1.14875,-1.99036,1.76658,0.192141,-0.198788,-22.8148,-2.06206,21.8729,-0.0167883,4.84948,0.185044,
0.396238,-0.134146,0.49362,-2.5644,0.481739,1.32304,0.0371257,0.144211,-0.0754595,0.160957,-0.234643,-0.286107,0.806917,0.00823952,0.179232,1.09399,0.243369,0.228192,2.02163,-1.04412,-0.303824,9.11078,-5.84141,10.8441,-22.6908,-2.37163,8.25225,0.0990954,0.402202,-0.137878,0.497519,-2.57515,0.476268,1.34905,0.0369739,0.303777,-0.138977,0.220335,-0.507506,-0.426449,1.43338,0.00109691,0,0,0,0,0,0,0,-0.198788,-22.8148,-2.06206,21.8729,-0.0167883,4.84948,0.185044,
0.397284,-0.134673,0.494801,-2.56617,0.479879,1.3292,0.037182,0.141528,-0.0735588,0.158281,-0.232061,-0.275383,0.799417,0.00799919,-1.67696,1.18797,-1.67226,1.61412,6.70229,-4.68765,-0.150204,9.15367,-5.89206,10.8807,-22.3065,-2.16211,8.25225,0.0977262,0.402202,-0.137878,0.497519,-2.57515,0.476268,1.34905,0.0369739,0.303777,-0.138977,0.220335,-0.507506,-0.426449,1.43338,0.00109691,0,0,0,0,0,0,0,-0.198788,-22.8148,-2.06206,21.8729,-0.0167883,4.84948,0.185044,
0.398241,-0.135205,0.495892,-2.56788,0.478291,1.33505,0.037241,0.137157,-0.0721444,0.153889,-0.228258,-0.259994,0.785723,0.00787467,-2.73157,0.883961,-2.7453,2.37651,9.61825,-8.55817,-0.0778273,9.1777,-5.94822,10.8989,-21.9264,-1.9203,7.75778,0.0960907,0.402202,-0.137878,0.497519,-2.57515,0.476268,1.34905,0.0369739,0.303777,-0.138977,0.220335,-0.507506,-0.426449,1.43338,0.00109691,0,0,0,0,0,0,0,-0.198788,-22.8148,-2.06206,21.8729,-0.0167883,4.84948,0.185044,
0.404984,-0.139279,0.500623,-2.57962,0.470773,1.36369,0.0370619,0.141517,-0.0735452,0.158719,-0.232222,-0.268621,0.797489,0.00733131,2.72498,-0.875508,3.01928,-2.47735,-5.39205,7.35346,-0.339596,9.11078,-5.84141,10.8441,-22.6908,-2.37163,8.25225,0.0990954,0.402202,-0.137878,0.497519,-2.57515,0.476268,1.34905,0.0369739,0.303777,-0.138977,0.220335,-0.507506,-0.426449,1.43338,0.00109691,0,0,0,0,0,0,0,-0.198788,-22.8148,-2.06206,21.8729,-0.0167883,4.84948,0.185044,
0.406104,-0.139867,0.501886,-2.58141,0.4688,1.36993,0.0371119,0.141209,-0.0735312,0.158532,-0.230539,-0.26423,0.793959,0.0071152,-0.192812,0.00880395,-0.116934,1.05193,2.7441,-2.20633,-0.135071,9.27156,-6.26424,11.0591,-22.1239,-2.11919,8.13065,0.0980585,0.408701,-0.142279,0.508893,-2.5924,0.463718,1.39435,0.0369477,0.303984,-0.0907868,0.204065,-0.502943,-0.340299,1.26771,0.000111426,0.0258828,6.02377,-2.0338,0.570372,10.7688,-20.7093,-0.123185,0.233646,-24.6358,-2.16124,25.4831,-0.139469,5.04174,0.191452,
0.407114,-0.140447,0.503035,-2.5831,0.46716,1.37576,0.0371676,0.138217,-0.0733453,0.155549,-0.226696,-0.25237,0.781026,0.00708489,-1.86943,0.116151,-1.86469,2.40207,7.41299,-8.08303,-0.0189419,9.2956,-6.3204,11.0773,-21.7437,-1.87739,7.63619,0.096423,0.408701,-0.142279,0.508893,-2.5924,0.463718,1.39435,0.0369477,0.303984,-0.0907868,0.204065,-0.502943,-0.340299,1.26771,0.000111426,0,0,0,0,0,0,0,0.233646,-24.6358,-2.16124,25.4831,-0.139469,5.04174,0.191452,
0.408044,-0.141035,0.504102,-2.58473,0.465805,1.38122,0.0372259,0.133822,-0.0733569,0.151118,-0.222022,-0.235788,0.761311,0.00712651,-2.74699,-0.00725555,-2.76905,2.92114,10.3638,-12.3216,0.026012,9.2992,-6.37798,11.0757,-21.3632,-1.62564,6.96103,0.0950808,0.408701,-0.142279,0.508893,-2.5924,0.463718,1.39435,0.0369477,0.303984,-0.0907868,0.204065,-0.502943,-0.340299,1.26771,0.000111426,0,0,0,0,0,0,0,0.233646,-24.6358,-2.16124,25.4831,-0.139469,5.04174,0.191452,
0.411414,-0.143317,0.511946,-2.59702,0.45884,1.4072,0.0370548,0.138097,-0.071097,0.15603,-0.229027,-0.242848,0.756126,0.00686689,2.6717,1.41247,3.06953,-4.37852,-4.41281,-3.24108,-0.162265,9.27156,-6.26424,11.0591,-22.1239,-2.11919,8.13065,0.0980585,0.408701,-0.142279,0.508893,-2.5924,0.463718,1.39435,0.0369477,0.303984,-0.0907868,0.204065,-0.502943,-0.340299,1.26771,0.000111426,0,0,0,0,0,0,0,0.233646,-24.6358,-2.16124,25.4831,-0.139469,5.04174,0.191452,
0.412512,-0.143823,0.513196,-2.59886,0.457096,1.41256,0.0371068,0.137917,-0.0695268,0.156073,-0.229174,-0.237884,0.73898,0.00679483,-0.112419,0.981331,0.0271306,-0.0915194,3.10234,-10.7164,-0.04504,9.37601,-6.67653,11.22,-21.5575,-1.84738,7.53508,0.0969305,0.416349,-0.146729,0.519009,-2.60931,0.453383,1.43598,0.0369316,0.147882,-0.0881308,0.371529,-0.49672,-0.275583,1.18071,-0.00183411,-19.5127,0.331999,20.9331,0.777926,8.08952,-10.8751,-0.243193,1.12232,-23.6876,-1.4868,23.912,-0.0598181,4.45214,0.151169,
0.413508,-0.144353,0.51434,-2.60058,0.455684,1.41757,0.0371633,0.13524,-0.0688713,0.153447,-0.226402,-0.225605,0.716336,0.0068473,-1.67296,0.4097,-1.64115,1.73229,7.67459,-14.1523,0.0327994,9.37961,-6.73412,11.2183,-21.177,-1.59563,6.85993,0.0955882,0.416349,-0.146729,0.519009,-2.60931,0.453383,1.43598,0.0369316,0.147882,-0.0881308,0.371529,-0.49672,-0.275583,1.18071,-0.00183411,0,0,0,0,0,0,0,1.12232,-23.6876,-1.4868,23.912,-0.0598181,4.45214,0.151169,
0.41443,-0.144908,0.515407,-2.60223,0.454556,1.42226,0.0372219,0.131252,-0.0689839,0.149436,-0.222284,-0.208669,0.690363,0.006943,-2.49263,-0.0703454,-2.50719,2.57362,10.5847,-16.233,0.0598117,9.35755,-6.79133,11.1914,-20.7946,-1.33953,6.24304,0.0942936,0.416349,-0.146729,0.519009,-2.60931,0.453383,1.43598,0.0369316,0.147882,-0.0881308,0.371529,-0.49672,-0.275583,1.18071,-0.00183411,0,0,0,0,0,0,0,1.12232,-23.6876,-1.4868,23.912,-0.0598181,4.45214,0.151169,
0.419082,-0.147747,0.522144,-2.61391,0.448922,1.44753,0.0370446,0.136477,-0.0676334,0.1553,-0.228776,-0.216488,0.682642,0.00674068,3.26559,0.844074,3.66548,-4.05748,-4.8866,-4.82586,-0.126453,9.37601,-6.67653,11.22,-21.5575,-1.84738,7.53508,0.0969305,0.416349,-0.146729,0.519009,-2.60931,0.453383,1.43598,0.0369316,0.147882,-0.0881308,0.371529,-0.49672,-0.275583,1.18071,-0.00183411,0,0,0,0,0,0,0,1.12232,-23.6876,-1.4868,23.912,-0.0598181,4.45214,0.151169,
0.420194,-0.148263,0.523414,-2.61572,0.447366,1.45224,0.037096,0.136986,-0.0670272,0.155997,-0.228383,-0.212088,0.663851,0.00667617,0.317808,0.378853,0.435384,0.245672,2.7498,-11.744,-0.0403139,9.44796,-7.07071,11.3363,-20.9991,-1.57484,6.77234,0.0959866,0.426155,-0.150657,0.526702,-2.62619,0.44384,1.47512,0.0369142,0.207692,-0.126444,0.306766,-0.477077,-0.205117,1.08256,-0.00110191,7.47628,-4.78919,-8.09547,2.4553,8.80823,-12.2686,0.091526,0.0828892,-24.7112,-1.96288,24.2889,-0.109257,4.41186,0.151169,
0.421203,-0.148808,0.524576,-2.61742,0.44615,1.45662,0.0371514,0.1348,-0.0672466,0.15383,-0.225137,-0.200076,0.640717,0.00672756,-1.36569,-0.137155,-1.35422,2.02869,7.50788,-14.4588,0.0321152,9.42591,-7.12792,11.3094,-20.6167,-1.31874,6.15546,0.094692,0.426155,-0.150657,0.526702,-2.62619,0.44384,1.47512,0.0369142,0.207692,-0.126444,0.306766,-0.477077,-0.205117,1.08256,-0.00110191,0,0,0,0,0,0,0,0.0828892,-24.7112,-1.96288,24.2889,-0.109257,4.41186,0.151169,
0.422135,-0.149381,0.525658,-2.61904,0.445225,1.46073,0.0372088,0.13115,-0.0681096,0.150129,-0.220618,-0.183193,0.615276,0.00681555,-2.28179,-0.539375,-2.31306,2.82443,10.5516,-15.9009,0.0549953,9.37634,-7.18339,11.2554,-20.2325,-1.0595,5.59055,0.0933127,0.426155,-0.150657,0.526702,-2.62619,0.44384,1.47512,0.0369142,0.207692,-0.126444,0.306766,-0.477077,-0.205117,1.08256,-0.00110191,0,0,0,0,0,0,0,0.0828892,-24.7112,-1.96288,24.2889,-0.109257,4.41186,0.151169,
0.428888,-0.152009,0.529808,-2.63055,0.439893,1.4857,0.0370382,0.136361,-0.070257,0.155735,-0.224745,-0.19065,0.611878,0.006685,3.25692,-1.34208,3.50328,-2.57929,-4.66043,-2.12332,-0.0815943,9.44796,-7.07071,11.3363,-20.9991,-1.57484,6.77234,0.0959866,0.426155,-0.150657,0.526702,-2.62619,0.44384,1.47512,0.0369142,0.207692,-0.126444,0.306766,-0.477077,-0.205117,1.08256,-0.00110191,0,0,0,0,0,0,0,0.0828892,-24.7112,-1.96288,24.2889,-0.109257,4.41186,0.151169,
0.430001,-0.152621,0.531079,-2.63228,0.438536,1.49002,0.0370892,0.136905,-0.0715056,0.156348,-0.222843,-0.186447,0.597559,0.00662082,0.34012,-0.780367,0.383303,1.18881,2.62704,-8.94948,-0.04011,9.50726,-7.48712,11.4536,-20.4615,-1.30936,6.07492,0.0949904,0.43347,-0.154985,0.536318,-2.64244,0.436132,1.5107,0.0368998,0.332187,-0.143076,0.162838,-0.458798,-0.122304,0.914246,2.09101e-05,15.5619,-2.07893,-17.991,2.28493,10.3516,-21.0388,0.140352,0.94379,-23.9653,-1.68517,25.4077,-0.297855,4.70391,0.205185,
0.43101,-0.153239,0.532242,-2.63389,0.437517,1.49404,0.0371433,0.134753,-0.0726617,0.154158,-0.218683,-0.17464,0.578361,0.00664961,-1.34482,-0.722598,-1.3685,2.59989,7.37914,-11.9988,0.0179903,9.45769,-7.54259,11.3996,-20.0773,-1.05011,5.51002,0.0936111,0.43347,-0.154985,0.536318,-2.64244,0.436132,1.5107,0.0368998,0.332187,-0.143076,0.162838,-0.458798,-0.122304,0.914246,2.09101e-05,0,0,0,0,0,0,0,0.94379,-23.9653,-1.68517,25.4077,-0.297855,4.70391,0.205185,
0.431943,-0.153871,0.533327,-2.63544,0.436788,1.49778,0.0371991,0.13111,-0.07393,0.150445,-0.213669,-0.157935,0.556242,0.00671553,-2.27669,-0.792676,-2.32094,3.1337,10.4403,-13.8246,0.0411994,9.3809,-7.59528,11.3185,-19.6913,-0.7887,4.991,0.0918409,0.43347,-0.154985,0.536318,-2.64244,0.436132,1.5107,0.0368998,0.332187,-0.143076,0.162838,-0.458798,-0.122304,0.914246,2.09101e-05,0,0,0,0,0,0,0,0.94379,-23.9653,-1.68517,25.4077,-0.297855,4.70391,0.205185,
0.436147,-0.156487,0.539322,-2.64668,0.432811,1.51974,0.0370419,0.135577,-0.0762815,0.155253,-0.218078,-0.163865,0.548195,0.00670707,2.79156,-1.46967,3.00517,-2.75552,-3.70593,-5.02926,-0.00528475,9.50726,-7.48712,11.4536,-20.4615,-1.30936,6.07492,0.0949904,0.43347,-0.154985,0.536318,-2.64244,0.436132,1.5107,0.0368998,0.332187,-0.143076,0.162838,-0.458798,-0.122304,0.914246,2.09101e-05,0,0,0,0,0,0,0,0.94379,-23.9653,-1.68517,25.4077,-0.297855,4.70391,0.205185,
0.437239,-0.157135,0.540576,-2.64837,0.431681,1.5235,0.0370937,0.135763,-0.0772181,0.155542,-0.21664,-0.159321,0.532697,0.00666106,0.116279,-0.585398,0.180822,0.8986,2.83987,-9.68605,-0.0287602,9.49597,-7.93338,11.5103,-19.8776,-1.04411,5.45372,0.0940288,0.440192,-0.159787,0.547186,-2.65806,0.429659,1.54232,0.0368937,0.1899,-0.161432,0.342145,-0.437936,-0.0994827,0.843778,0.0010446,-17.786,-2.29449,22.4133,2.60774,2.85268,-8.80842,0.127961,1.67774,-23.1163,-1.08611,22.2458,-0.44434,4.88976,0.164902,
0.438233,-0.15778,0.541729,-2.64995,0.430874,1.52702,0.0371476,0.133466,-0.0779142,0.153258,-0.212912,-0.14763,0.513953,0.00667612,-1.43547,-0.435041,-1.42747,2.33014,7.30687,-11.7151,0.00941273,9.41917,-7.98607,11.4293,-19.4917,-0.782699,4.9347,0.0922587,0.440192,-0.159787,0.547186,-2.65806,0.429659,1.54232,0.0368937,0.1899,-0.161432,0.342145,-0.437936,-0.0994827,0.843778,0.0010446,0,0,0,0,0,0,0,1.67774,-23.1163,-1.08611,22.2458,-0.44434,4.88976,0.164902,
0.443017,-0.161445,0.550398,-2.66214,0.426528,1.55045,0.0370278,0.13926,-0.0812225,0.159408,-0.215595,-0.153274,0.503256,0.00659069,3.62091,-2.06768,3.84355,-1.67689,-3.52729,-6.68575,-0.0533898,9.49597,-7.93338,11.5103,-19.8776,-1.04411,5.45372,0.0940288,0.440192,-0.159787,0.547186,-2.65806,0.429659,1.54232,0.0368937,0.1899,-0.161432,0.342145,-0.437936,-0.0994827,0.843778,0.0010446,0,0,0,0,0,0,0,1.67774,-23.1163,-1.08611,22.2458,-0.44434,4.88976,0.164902,
0.444161,-0.162151,0.551707,-2.66376,0.42551,1.5538,0.0370761,0.140001,-0.0826366,0.160259,-0.212996,-0.148066,0.48612,0.00648086,0.463581,-0.883814,0.531537,1.62449,3.25517,-10.7104,-0.0686475,9.41917,-7.98607,11.4293,-19.4917,-0.782699,4.9347,0.0922587,0.440192,-0.159787,0.547186,-2.65806,0.429659,1.54232,0.0368937,0.1899,-0.161432,0.342145,-0.437936,-0.0994827,0.843778,0.0010446,0,0,0,0,0,0,0,1.67774,-23.1163,-1.08611,22.2458,-0.44434,4.88976,0.164902,
0.445192,-0.162847,0.552901,-2.66529,0.424831,1.5569,0.0371267,0.137766,-0.0835042,0.158056,-0.208518,-0.135422,0.466554,0.00644814,-1.39734,-0.54229,-1.37667,2.79847,7.90247,-12.2285,-0.0204472,9.36507,-8.40096,11.4335,-18.9208,-0.52592,4.41048,0.0906094,0.449331,-0.164593,0.555304,-2.67406,0.424053,1.57002,0.0368815,0.136754,-0.178748,0.395481,-0.431184,-0.0905095,0.711673,-0.00189201,-6.64323,-2.16456,6.66705,0.843979,1.12166,-16.5132,-0.367077,0.868412,-22.1166,-1.63756,21.5475,-0.615543,5.73205,0.185044,
0.446137,-0.163546,0.554009,-2.66675,0.424444,1.5598,0.0371787,0.133844,-0.0842951,0.154143,-0.203404,-0.118029,0.445589,0.00645951,-2.45096,-0.494287,-2.44537,3.19638,10.8703,-13.1034,0.00710551,9.243,-8.44552,11.3077,-18.5308,-0.273613,3.97295,0.0882375,0.449331,-0.164593,0.555304,-2.67406,0.424053,1.57002,0.0368815,0.136754,-0.178748,0.395481,-0.431184,-0.0905095,0.711673,-0.00189201,0,0,0,0,0,0,0,0.868412,-22.1166,-1.63756,21.5475,-0.615543,5.73205,0.185044,
0.452166,-0.166337,0.558551,-2.67812,0.421275,1.57681,0.0370063,0.139762,-0.0870657,0.160443,-0.207651,-0.125283,0.43339,0.00637879,3.69887,-1.73164,3.93761,-2.65423,-4.53385,-7.6241,-0.0504505,9.46575,-8.35211,11.5381,-19.3087,-0.783469,4.88658,0.0925818,0.449331,-0.164593,0.555304,-2.67406,0.424053,1.57002,0.0368815,0.136754,-0.178748,0.395481,-0.431184,-0.0905095,0.711673,-0.00189201,0,0,0,0,0,0,0,0.868412,-22.1166,-1.63756,21.5475,-0.615543,5.73205,0.185044,
0.453314,-0.167062,0.559871,-2.67972,0.420424,1.57962,0.037053,0.140526,-0.0877745,0.161347,-0.206203,-0.121484,0.41694,0.00627204,0.477403,-0.443028,0.564748,0.904729,2.37428,-10.2813,-0.0667188,9.36507,-8.40096,11.4335,-18.9208,-0.52592,4.41048,0.0906094,0.449331,-0.164593,0.555304,-2.67406,0.424053,1.57002,0.0368815,0.136754,-0.178748,0.395481,-0.431184,-0.0905095,0.711673,-0.00189201,0,0,0,0,0,0,0,0.868412,-22.1166,-1.63756,21.5475,-0.615543,5.73205,0.185044,
0.454347,-0.167773,0.561072,-2.68122,0.419909,1.58224,0.037102,0.138227,-0.0879865,0.159113,-0.202561,-0.110067,0.399249,0.0062404,-1.43726,-0.132494,-1.39616,2.27638,7.13607,-11.0568,-0.0197753,9.243,-8.44552,11.3077,-18.5308,-0.273613,3.97295,0.0882375,0.449331,-0.164593,0.555304,-2.67406,0.424053,1.57002,0.0368815,0.136754,-0.178748,0.395481,-0.431184,-0.0905095,0.711673,-0.00189201,0,0,0,0,0,0,0,0.868412,-22.1166,-1.63756,21.5475,-0.615543,5.73205,0.185044,
0.455291,-0.168487,0.562185,-2.68266,0.419682,1.5847,0.0371522,0.134182,-0.0882371,0.155107,-0.198047,-0.0937405,0.380838,0.00624722,-2.52765,-0.156591,-2.50401,2.82137,10.2039,-11.507,0.00426318,9.09534,-8.79428,11.2487,-18.0659,-0.0299265,3.50934,0.0860474,0.457082,-0.169701,0.564891,-2.68948,0.41897,1.59594,0.0368776,0.36865,-0.165835,0.137435,-0.471973,-0.13748,0.707748,-0.000799721,28.987,1.6141,-32.2557,-5.09863,-5.87127,-0.490585,0.136536,1.1977,-21.6921,-1.73674,22.1466,-0.402225,5.30083,0.218918,
0.459821,-0.171419,0.567981,-2.69365,0.416516,1.60189,0.0369887,0.138598,-0.0899786,0.15998,-0.204125,-0.100615,0.370337,0.00611616,2.75953,-1.08843,3.04576,-3.79895,-4.29686,-6.56327,-0.081914,9.35681,-8.70989,11.5173,-18.848,-0.523261,4.34795,0.0908892,0.457082,-0.169701,0.564891,-2.68948,0.41897,1.59594,0.0368776,0.36865,-0.165835,0.137435,-0.471973,-0.13748,0.707748,-0.000799721,0,0,0,0,0,0,0,1.1977,-21.6921,-1.73674,22.1466,-0.402225,5.30083,0.218918,
0.460925,-0.17214,0.569264,-2.69526,0.415877,1.60425,0.0370347,0.138458,-0.0900197,0.16005,-0.203503,-0.0964458,0.355247,0.00604261,-0.0872649,-0.025706,0.043632,0.388967,2.606,-9.43106,-0.0459661,9.23474,-8.75445,11.3915,-18.458,-0.270953,3.91043,0.0885173,0.457082,-0.169701,0.564891,-2.68948,0.41897,1.59594,0.0368776,0.36865,-0.165835,0.137435,-0.471973,-0.13748,0.707748,-0.000799721,0,0,0,0,0,0,0,1.1977,-21.6921,-1.73674,22.1466,-0.402225,5.30083,0.218918,
0.461921,-0.172853,0.570436,-2.69676,0.415562,1.60645,0.037083,0.135664,-0.0898305,0.157361,-0.200205,-0.0850338,0.33921,0.00604108,-1.74624,0.118264,-1.68072,2.06151,7.13252,-10.0228,-0.000958154,9.09534,-8.79428,11.2487,-18.0659,-0.0299265,3.50934,0.0860474,0.457082,-0.169701,0.564891,-2.68948,0.41897,1.59594,0.0368776,0.36865,-0.165835,0.137435,-0.471973,-0.13748,0.707748,-0.000799721,0,0,0,0,0,0,0,1.1977,-21.6921,-1.73674,22.1466,-0.402225,5.30083,0.218918,
0.462835,-0.173573,0.571527,-2.69818,0.415518,1.60851,0.0371325,0.131386,-0.0898676,0.153142,-0.195784,-0.0691256,0.322854,0.00607076,-2.67397,-0.0232243,-2.63679,2.76298,9.94266,-10.2226,0.0185525,8.93836,-9.2764,11.1677,-17.4602,0.195309,3.12188,0.083585,0.464013,-0.175404,0.576279,-2.70432,0.415403,1.61741,0.0368695,0.0920047,-0.164773,0.424549,-0.419624,-0.15459,0.625032,-0.00113736,-34.5806,0.132829,35.8893,6.54361,-2.13881,-10.3395,-0.0422044,0.741459,-20.8193,-1.8875,20.278,-0.0964392,5.22118,0.218918,
0.466773,-0.177137,0.579497,-2.70825,0.41314,1.62268,0.0369576,0.137013,-0.0918854,0.15924,-0.200001,-0.0784254,0.315894,0.00587429,3.51698,-1.26109,3.81166,-2.63578,-5.8124,-4.35004,-0.122795,9.23214,-9.20136,11.4681,-18.2467,-0.275632,3.89132,0.0888125,0.464013,-0.175404,0.576279,-2.70432,0.415403,1.61741,0.0368695,0.0920047,-0.164773,0.424549,-0.419624,-0.15459,0.625032,-0.00113736,0,0,0,0,0,0,0,0.741459,-20.8193,-1.8875,20.278,-0.0964392,5.22118,0.218918,
0.467892,-0.177894,0.580802,-2.70979,0.412612,1.62473,0.0370003,0.137588,-0.0924334,0.160001,-0.198484,-0.0759253,0.304059,0.00576757,0.359775,-0.342496,0.475287,0.948151,1.56258,-7.39734,-0.0666995,9.09274,-9.2412,11.3253,-17.8545,-0.0346046,3.49023,0.0863427,0.464013,-0.175404,0.576279,-2.70432,0.415403,1.61741,0.0368695,0.0920047,-0.164773,0.424549,-0.419624,-0.15459,0.625032,-0.00113736,0,0,0,0,0,0,0,0.741459,-20.8193,-1.8875,20.278,-0.0964392,5.22118,0.218918,
0.468896,-0.178644,0.581988,-2.71123,0.412413,1.62664,0.0370458,0.13516,-0.0927112,0.157669,-0.194753,-0.0657181,0.290949,0.00575077,-1.51799,-0.173621,-1.45774,2.33172,6.37948,-8.19316,-0.0104985,8.93836,-9.2764,11.1677,-17.4602,0.195309,3.12188,0.083585,0.464013,-0.175404,0.576279,-2.70432,0.415403,1.61741,0.0368695,0.0920047,-0.164773,0.424549,-0.419624,-0.15459,0.625032,-0.00113736,0,0,0,0,0,0,0,0.741459,-20.8193,-1.8875,20.278,-0.0964392,5.22118,0.218918,
