xiao-wang007/linearmpc_panda/paper_data/panda_inverse_dynamics_controller_Start_at_0_low_pass_acceleration/1/trajectory.csv
Commanded Joint 0 Position,Commanded Joint 1 Position,Commanded Joint 2 Position,Commanded Joint 3 Position,Commanded Joint 4 Position,Commanded Joint 5 Position,Commanded Joint 6 Position,Commanded Joint 0 Velocity,Commanded Joint 1 Velocity,Commanded Joint 2 Velocity,Commanded Joint 3 Velocity,Commanded Joint 4 Velocity,Commanded Joint 5 Velocity,Commanded Joint 6 Velocity,Commanded Joint 0 Acceleration,Commanded Joint 1 Acceleration,Commanded Joint 2 Acceleration,Commanded Joint 3 Acceleration,Commanded Joint 4 Acceleration,Commanded Joint 5 Acceleration,Commanded Joint 6 Acceleration,Commanded Joint 0 Torque,Commanded Joint 1 Torque,Commanded Joint 2 Torque,Commanded Joint 3 Torque,Commanded Joint 4 Torque,Commanded Joint 5 Torque,Commanded Joint 6 Torque,Actual Joint 0 Position,Actual Joint 1 Position,Actual Joint 2 Position,Actual Joint 3 Position,Actual Joint 4 Position,Actual Joint 5 Position,Actual Joint 6 Position,Actual Joint 0 Velocity,Actual Joint 1 Velocity,Actual Joint 2 Velocity,Actual Joint 3 Velocity,Actual Joint 4 Velocity,Actual Joint 5 Velocity,Actual Joint 6 Velocity,Actual Joint 0 Acceleration,Actual Joint 1 Acceleration,Actual Joint 2 Acceleration,Actual Joint 3 Acceleration,Actual Joint 4 Acceleration,Actual Joint 5 Acceleration,Actual Joint 6 Acceleration,Actual Joint 0 Torque,Actual Joint 1 Torque,Actual Joint 2 Torque,Actual Joint 3 Torque,Actual Joint 4 Torque,Actual Joint 5 Torque,Actual Joint 6 Torque,
0.0551716,-0.0772556,-0.0426849,-1.90445,-0.00084837,0.330606,0.0134757,0.000359948,0.0202753,0.000272146,-0.0340504,-0.00481001,0.0534841,-0.000371723,0.224968,12.672,0.170091,-21.2815,-3.00626,33.4275,-0.232327,0.0561975,22.244,0.030907,-24.5827,-0.617663,1.76245,-0.023586,0.0551304,-0.0777552,-0.042711,-1.90144,-0.000503931,0.324809,0.0135286,-0.00509304,0.00319163,-0.00640193,0.00186973,0.00183605,-0.00633213,-0.000629093,0,0,0,0,0,0,0,0.233646,-32.8481,0.187391,27.3279,0.440975,3.29125,-0.050247,
0.0550528,-0.0777216,-0.0427916,-1.90144,-0.000564815,0.324764,0.0135309,-0.000192537,0.0164362,-0.000278668,-0.0273375,-0.00449591,0.0425593,-0.000284687,-0.345303,-2.39945,-0.344259,4.19555,0.196317,-6.82802,0.0543974,0.0504783,22.6847,0.0205744,-24.499,-0.617828,1.51159,-0.0220688,0.0551304,-0.0777552,-0.042711,-1.90144,-0.000503931,0.324809,0.0135286,-0.00509304,0.00319163,-0.00640193,0.00186973,0.00183605,-0.00633213,-0.000629093,0,0,0,0,0,0,0,0.233646,-32.8481,0.187391,27.3279,0.440975,3.29125,-0.050247,
0.0550379,-0.0777142,-0.0428069,-1.90145,-0.000589501,0.324757,0.0135313,-0.000526752,0.0133336,-0.000606944,-0.021952,-0.00421386,0.033896,-0.00021969,-0.208884,-1.93911,-0.205173,3.36595,0.176281,-5.41452,0.0406231,0.0432865,23.2563,0.00884477,-24.391,-0.617158,1.16406,-0.0200986,0.0551304,-0.0777552,-0.042711,-1.90144,-0.000503931,0.324809,0.0135286,-0.00509304,0.00319163,-0.00640193,0.00186973,0.00183605,-0.00633213,-0.000629093,0,0,0,0,0,0,0,0.233646,-32.8481,0.187391,27.3279,0.440975,3.29125,-0.050247,
0.0550262,-0.0777078,-0.0428189,-1.90145,-0.000611297,0.324754,0.0135315,-0.000713172,0.0108282,-0.00078559,-0.0176278,-0.00391599,0.0270241,-0.000170561,-0.116513,-1.56584,-0.111654,2.70257,0.186167,-4.29496,0.0307055,0.0373522,23.7803,-0.000576068,-24.2231,-0.614963,0.778936,-0.0180975,0.0551304,-0.0777552,-0.042711,-1.90144,-0.000503931,0.324809,0.0135286,-0.00509304,0.00319163,-0.00640193,0.00186973,0.00183605,-0.00633213,-0.000629093,0,0,0,0,0,0,0,0.233646,-32.8481,0.187391,27.3279,0.440975,3.29125,-0.050247,
0.0550181,-0.0775691,-0.0428157,-1.90134,0.00212478,0.323539,0.0135057,-0.00220977,0.00896052,-0.00217296,-0.0129095,0.0365659,0.00200935,-0.00039862,-0.935377,-1.16733,-0.867104,2.94899,25.3012,-15.6342,-0.142537,0.493066,0.186802,0.488422,-0.269769,3.16898,-1.83378,-0.0018744,0.0551403,-0.077607,-0.0427063,-1.90144,-0.000492988,0.324812,0.0135332,0.00134659,0.0037624,-0.00247291,0.00129196,0.00506569,9.42494e-05,0.00378702,0.804953,0.0713465,0.491127,-0.0722212,0.403705,0.803298,0.552014,0.209842,-33.225,0.238966,27.3993,0.379635,3.23907,-0.0905302,
0.0549589,-0.0775674,-0.0428741,-1.90131,0.00402933,0.322563,0.0134999,-0.00324983,0.00721186,-0.00319913,-0.00941826,0.0768664,-0.022782,-0.000463103,-0.650035,-1.09291,-0.641355,2.182,25.1878,-15.4946,-0.0403017,0.486304,0.185742,0.481514,-0.267098,3.1421,-1.81768,-0.00182785,0.0551403,-0.077607,-0.0427063,-1.90144,-0.000492988,0.324812,0.0135332,0.00134659,0.0037624,-0.00247291,0.00129196,0.00506569,9.42494e-05,0.00378702,0,0,0,0,0,0,0,0.209842,-33.225,0.238966,27.3993,0.379635,3.23907,-0.0905302,
0.0549117,-0.077571,-0.0429218,-1.90128,0.00611371,0.321461,0.0134967,-0.00377813,0.00567849,-0.00375106,-0.00690504,0.113603,-0.0457683,-0.000451113,-0.330186,-0.958356,-0.344957,1.57076,22.9602,-14.3664,0.00749352,0.47946,0.184784,0.474549,-0.264351,3.11572,-1.80151,-0.00180854,0.0551403,-0.077607,-0.0427063,-1.90144,-0.000492988,0.324812,0.0135332,0.00134659,0.0037624,-0.00247291,0.00129196,0.00506569,9.42494e-05,0.00378702,0,0,0,0,0,0,0,0.209842,-33.225,0.238966,27.3993,0.379635,3.23907,-0.0905302,
0.0548781,-0.0775765,-0.0429565,-1.90126,0.0082994,0.320277,0.0134948,-0.00386272,0.00440488,-0.00386891,-0.00513237,0.145524,-0.0662291,-0.000408699,-0.0528681,-0.796005,-0.0736557,1.10792,19.9511,-12.788,0.0265089,0.472803,0.183855,0.467803,-0.261558,3.08937,-1.78527,-0.00179683,0.0551403,-0.077607,-0.0427063,-1.90144,-0.000492988,0.324812,0.0135332,0.00134659,0.0037624,-0.00247291,0.00129196,0.00506569,9.42494e-05,0.00378702,0,0,0,0,0,0,0,0.209842,-33.225,0.238966,27.3993,0.379635,3.23907,-0.0905302,
0.0548406,-0.0767375,-0.0429802,-1.90177,0.00831133,0.317701,0.0134358,-0.00692217,0.00371516,-0.00654349,0.00315868,0.251142,-0.166376,-0.0012359,-1.91216,-0.431077,-1.67162,5.18191,66.0111,-62.592,-0.516998,3.91414,1.69449,3.93952,-1.80706,10.9992,-10.3464,-0.00766384,0.0551386,-0.0767853,-0.0427271,-1.90234,-0.00050256,0.325161,0.0135323,0.00262231,-0.00914427,-0.00536104,-0.0247361,0.0103361,0.00289757,0.000295925,0.159465,-1.61333,-0.361016,-3.2535,0.658808,0.350415,-0.436387,-0.0440639,-33.2726,0.0644055,29.3671,0.447384,3.8955,-0.083206,
0.0547219,-0.0767595,-0.0430918,-1.90155,0.0148594,0.312169,0.0134152,-0.00850306,0.00242071,-0.008026,0.00802978,0.364614,-0.271398,-0.00150239,-0.988054,-0.809031,-0.926568,3.04443,70.9202,-65.6384,-0.16656,3.79008,1.6983,3.82966,-1.77084,10.9992,-10.1972,-0.00720323,0.0551386,-0.0767853,-0.0427271,-1.90234,-0.00050256,0.325161,0.0135323,0.00262231,-0.00914427,-0.00536104,-0.0247361,0.0103361,0.00289757,0.000295925,0,0,0,0,0,0,0,-0.0440639,-33.2726,0.0644055,29.3671,0.447384,3.8955,-0.083206,
0.0546524,-0.0767901,-0.0431584,-1.90141,0.0221033,0.305997,0.0134032,-0.00854002,0.00117175,-0.00808556,0.0100407,0.47279,-0.371438,-0.00150301,-0.0231022,-0.780594,-0.0372213,1.25681,67.6094,-62.5249,-0.000387361,3.66788,1.68464,3.71265,-1.74273,10.9992,-10.0464,-0.0073598,0.0551386,-0.0767853,-0.0427271,-1.90234,-0.00050256,0.325161,0.0135323,0.00262231,-0.00914427,-0.00536104,-0.0247361,0.0103361,0.00289757,0.000295925,0,0,0,0,0,0,0,-0.0440639,-33.2726,0.0644055,29.3671,0.447384,3.8955,-0.083206,
0.0546332,-0.0768135,-0.0431766,-1.90133,0.0297747,0.299412,0.0133955,-0.00731287,0.000352822,-0.00692233,0.0100226,0.570017,-0.461758,-0.00139435,0.766971,-0.511833,0.727017,-0.0113099,60.7675,-56.4505,0.067917,3.55208,1.65871,3.5974,-1.71771,10.9992,-9.90282,-0.00768134,0.0551386,-0.0767853,-0.0427271,-1.90234,-0.00050256,0.325161,0.0135323,0.00262231,-0.00914427,-0.00536104,-0.0247361,0.0103361,0.00289757,0.000295925,0,0,0,0,0,0,0,-0.0440639,-33.2726,0.0644055,29.3671,0.447384,3.8955,-0.083206,
0.0557519,-0.0770551,-0.041964,-1.90234,0.0068259,0.3154,0.0136583,0.00439002,-0.00428654,0.00670211,0.00653193,0.570151,-0.519902,1.35298e-05,7.3143,-2.8996,8.51528,-2.18165,0.0833663,-36.34,0.879922,21.4489,2.0938,22.4846,-10.3748,10.9961,-14.4363,0.132282,0.0551023,-0.0763422,-0.0426835,-1.903,0.000366749,0.324795,0.0135307,-0.00762916,0.0172666,0.00636367,-0.00863338,0.0859137,-0.0387782,-0.000694313,-1.28143,3.30135,1.46559,2.01284,9.44719,-5.20947,-0.12378,1.55078,-36.2917,1.51246,26.6772,1.08825,2.25762,-0.0227812,
0.0563354,-0.0773127,-0.0413011,-1.90257,0.0126023,0.307868,0.0136879,0.0180995,-0.00986869,0.0219347,-0.000480355,0.60053,-0.604228,0.000749027,8.56844,-3.48884,9.52036,-4.38268,18.9869,-52.7037,0.459686,19.6981,1.18584,20.8428,-10.448,10.9961,-14.4363,0.0691854,0.0551023,-0.0763422,-0.0426835,-1.903,0.000366749,0.324795,0.0135307,-0.00762916,0.0172666,0.00636367,-0.00863338,0.0859137,-0.0387782,-0.000694313,0,0,0,0,0,0,0,1.55078,-36.2917,1.51246,26.6772,1.08825,2.25762,-0.0227812,
0.0570692,-0.0776034,-0.040503,-1.90294,0.0191937,0.299277,0.0138155,0.0328229,-0.0151635,0.0375002,-0.00949233,0.64521,-0.69815,0.00379092,9.20213,-3.30927,9.72845,-5.63249,27.9249,-58.7008,1.90118,18.5118,0.180801,19.6383,-10.6461,10.9961,-14.4363,0.0419258,0.0551023,-0.0763422,-0.0426835,-1.903,0.000366749,0.324795,0.0135307,-0.00762916,0.0172666,0.00636367,-0.00863338,0.0859137,-0.0387782,-0.000694313,0,0,0,0,0,0,0,1.55078,-36.2917,1.51246,26.6772,1.08825,2.25762,-0.0227812,
0.0564253,-0.0761459,-0.0414274,-1.90357,0.00749935,0.315455,0.0137371,0.0469004,-0.00991259,0.0501443,-0.0172716,0.625165,-0.702389,0.00488099,8.79846,3.28183,7.90258,-4.86204,-12.528,-2.64967,0.681296,32.6849,9.48218,32.5287,-17.563,10.9961,-14.4363,0.167264,0.0551023,-0.0763422,-0.0426835,-1.903,0.000366749,0.324795,0.0135307,-0.00762916,0.0172666,0.00636367,-0.00863338,0.0859137,-0.0387782,-0.000694313,0,0,0,0,0,0,0,1.55078,-36.2917,1.51246,26.6772,1.08825,2.25762,-0.0227812,
0.0574859,-0.0760492,-0.0403543,-1.90415,0.0130273,0.308195,0.0138884,0.0640368,-0.00551104,0.066942,-0.0283481,0.63833,-0.743403,0.00768797,10.7102,2.75097,10.4985,-6.92283,8.22812,-25.6337,1.75436,29.518,8.87818,29.5989,-17.3542,10.9113,-14.3969,0.0875438,0.055326,-0.0765954,-0.0419477,-1.90437,0.0121609,0.313204,0.013571,0.0173464,0.00312063,0.0442696,-0.0369748,0.623497,-0.590626,0.00243748,3.12195,-1.76824,4.73824,-3.54268,67.198,-68.981,0.391474,6.31946,-31.4754,6.56282,21.8213,1.61926,0.526358,-0.083206,
0.0586921,-0.075842,-0.0391314,-1.90477,0.0194723,0.299791,0.013888,0.081383,0.000771249,0.0841268,-0.0382916,0.671789,-0.804817,0.00613895,10.8414,3.92643,10.7405,-6.21465,20.9118,-38.3837,-0.968136,27.3887,8.01026,27.7872,-17.1149,10.9113,-14.3969,0.190565,0.055326,-0.0765954,-0.0419477,-1.90437,0.0121609,0.313204,0.013571,0.0173464,0.00312063,0.0442696,-0.0369748,0.623497,-0.590626,0.00243748,0,0,0,0,0,0,0,6.31946,-31.4754,6.56282,21.8213,1.61926,0.526358,-0.083206,
0.060017,-0.0756283,-0.0378109,-1.90557,0.0265675,0.290675,0.0138605,0.0982282,0.00595764,0.100315,-0.0504976,0.714812,-0.871758,0.00422328,10.5283,3.2415,10.1178,-7.62875,26.8897,-41.838,-1.1973,24.1499,9.28112,24.4862,-15.2021,10.9113,-14.3969,-0.00716887,0.055326,-0.0765954,-0.0419477,-1.90437,0.0121609,0.313204,0.013571,0.0173464,0.00312063,0.0442696,-0.0369748,0.623497,-0.590626,0.00243748,0,0,0,0,0,0,0,6.31946,-31.4754,6.56282,21.8213,1.61926,0.526358,-0.083206,
0.0572768,-0.0767168,-0.039967,-1.90612,0.0235214,0.299333,0.0138493,0.107399,0.00336849,0.10958,-0.0654243,0.721276,-0.886511,0.00730828,5.7317,-1.61822,5.79068,-9.3292,4.03996,-9.22077,1.92813,34.2705,7.88635,35.0161,-22.9234,10.9113,-14.3969,0.113699,0.055326,-0.0765954,-0.0419477,-1.90437,0.0121609,0.313204,0.013571,0.0173464,0.00312063,0.0442696,-0.0369748,0.623497,-0.590626,0.00243748,0,0,0,0,0,0,0,6.31946,-31.4754,6.56282,21.8213,1.61926,0.526358,-0.083206,
0.0586251,-0.0766654,-0.0385883,-1.90719,0.0301509,0.290764,0.0138272,0.119628,0.00398087,0.122131,-0.0791566,0.74276,-0.923436,0.00529267,7.64294,0.382736,7.84415,-8.58268,13.427,-23.078,-1.25976,31.2687,6.78948,31.9518,-22.4706,10.8612,-14.2174,0.17524,0.0569517,-0.0775204,-0.0377871,-1.90758,0.035223,0.286848,0.0135707,0.0726651,0.0113073,0.17608,-0.106787,0.670725,-0.861304,0.000271849,6.91483,1.02333,16.4764,-8.72654,5.9035,-33.8347,-0.270704,13.8018,-26.6075,14.2871,19.9051,2.3526,-0.566782,-0.050247,
0.0601019,-0.076604,-0.0370771,-1.90844,0.0373181,0.281553,0.0137604,0.132621,0.00471906,0.135485,-0.0943795,0.773386,-0.969034,0.00256524,8.12092,0.461372,8.34651,-9.51434,19.1415,-28.4987,-1.70464,27.3024,7.49922,27.9053,-20.6781,10.8612,-14.2174,-0.0453967,0.0569517,-0.0775204,-0.0377871,-1.90758,0.035223,0.286848,0.0135707,0.0726651,0.0113073,0.17608,-0.106787,0.670725,-0.861304,0.000271849,0,0,0,0,0,0,0,13.8018,-26.6075,14.2871,19.9051,2.3526,-0.566782,-0.050247,
0.0616575,-0.0765283,-0.0354795,-1.90979,0.0449002,0.271844,0.0136757,0.144988,0.00566885,0.148328,-0.109338,0.808262,-1.01794,-6.46302e-05,7.72905,0.593617,8.02646,-9.34913,21.7975,-30.5685,-1.64367,25.6457,5.05144,26.2105,-21.1759,10.8612,-14.2174,-0.089323,0.0569517,-0.0775204,-0.0377871,-1.90758,0.035223,0.286848,0.0135707,0.0726651,0.0113073,0.17608,-0.106787,0.670725,-0.861304,0.000271849,0,0,0,0,0,0,0,13.8018,-26.6075,14.2871,19.9051,2.3526,-0.566782,-0.050247,
0.0597077,-0.0772913,-0.0349586,-1.90986,0.0479249,0.270069,0.0136946,0.152516,0.00849954,0.156066,-0.116664,0.813864,-1.03518,-0.000682652,4.70543,1.76918,4.8366,-4.57876,3.50126,-10.7745,-0.386263,31.2687,6.78948,31.9518,-22.4706,10.8612,-14.2174,0.17524,0.0569517,-0.0775204,-0.0377871,-1.90758,0.035223,0.286848,0.0135707,0.0726651,0.0113073,0.17608,-0.106787,0.670725,-0.861304,0.000271849,0,0,0,0,0,0,0,13.8018,-26.6075,14.2871,19.9051,2.3526,-0.566782,-0.050247,
0.0612716,-0.0771395,-0.0333565,-1.91118,0.0551535,0.260674,0.0136258,0.161111,0.0105958,0.164904,-0.126322,0.831806,-1.06304,-0.00226618,5.37187,1.31014,5.52386,-6.03598,11.2141,-17.4078,-0.989707,27.3024,7.49922,27.9053,-20.6781,10.8612,-14.2174,-0.0453967,0.0569517,-0.0775204,-0.0377871,-1.90758,0.035223,0.286848,0.0135707,0.0726651,0.0113073,0.17608,-0.106787,0.670725,-0.861304,0.000271849,0,0,0,0,0,0,0,13.8018,-26.6075,14.2871,19.9051,2.3526,-0.566782,-0.050247,
0.0628953,-0.0769885,-0.0316879,-1.91259,0.0627865,0.25084,0.0135396,0.169479,0.012252,0.173638,-0.136443,0.856272,-1.09628,-0.00396769,5.23006,1.03514,5.45874,-6.32608,15.2908,-20.7808,-1.06344,25.7788,5.09346,26.371,-21.0203,10.8554,-13.9672,-0.0900844,0.0615776,-0.0777926,-0.0290756,-1.91387,0.0589907,0.254008,0.0135724,0.151614,-0.0175662,0.278927,-0.206493,0.666809,-1.01732,0.000679207,9.86866,-3.60919,12.8558,-12.4632,-0.489539,-19.5022,0.0509198,7.64057,-26.1116,7.88789,21.7459,2.18139,0.400931,-0.0703886,
0.0645524,-0.0768363,-0.0299846,-1.91407,0.070718,0.240673,0.0134499,0.177012,0.0136056,0.181494,-0.14603,0.883304,-1.1312,-0.00541731,4.70808,0.845989,4.90979,-5.99176,16.8955,-21.8243,-0.906016,24.3944,4.01325,25.0236,-20.8395,10.8554,-13.9672,-0.10908,0.0615776,-0.0777926,-0.0290756,-1.91387,0.0589907,0.254008,0.0135724,0.151614,-0.0175662,0.278927,-0.206493,0.666809,-1.01732,0.000679207,0,0,0,0,0,0,0,7.64057,-26.1116,7.88789,21.7459,2.18139,0.400931,-0.0703886,
0.0651019,-0.0774789,-0.0254382,-1.91665,0.0725277,0.235109,0.0134549,0.186045,0.0153236,0.190868,-0.152256,0.8854,-1.14733,-0.006259,5.64559,1.07374,5.85857,-3.89085,1.30953,-10.0816,-0.526054,27.4355,7.54124,28.0658,-20.5225,10.8554,-13.9672,-0.0461581,0.0615776,-0.0777926,-0.0290756,-1.91387,0.0589907,0.254008,0.0135724,0.151614,-0.0175662,0.278927,-0.206493,0.666809,-1.01732,0.000679207,0,0,0,0,0,0,0,7.64057,-26.1116,7.88789,21.7459,2.18139,0.400931,-0.0703886,
0.0668849,-0.0772909,-0.0236021,-1.91813,0.0801878,0.22507,0.0133633,0.19341,0.0169581,0.198595,-0.15882,0.899822,-1.16885,-0.00729565,4.60265,1.02162,4.82974,-4.10242,9.01407,-13.4463,-0.647905,25.7788,5.09346,26.371,-21.0203,10.8554,-13.9672,-0.0900844,0.0615776,-0.0777926,-0.0290756,-1.91387,0.0589907,0.254008,0.0135724,0.151614,-0.0175662,0.278927,-0.206493,0.666809,-1.01732,0.000679207,0,0,0,0,0,0,0,7.64057,-26.1116,7.88789,21.7459,2.18139,0.400931,-0.0703886,
0.0686629,-0.0771021,-0.0217717,-1.91965,0.0881864,0.214775,0.01327,0.19918,0.0182871,0.204638,-0.165132,0.919823,-1.19245,-0.00817074,3.60636,0.830582,3.77661,-3.94522,12.5005,-14.7526,-0.546931,24.5503,3.97022,25.2132,-20.6033,10.8737,-13.6952,-0.110635,0.0683003,-0.0777424,-0.017373,-1.92296,0.0801548,0.218488,0.0135717,0.208872,0.00546218,0.365575,-0.274148,0.558649,-1.04271,0.00015398,7.1572,2.87855,10.8311,-8.45682,-13.52,-3.1738,-0.0656534,2.36408,-30.3526,1.96077,23.1424,1.61926,0.606009,-0.050247,
0.0724289,-0.0771184,-0.0130842,-1.92628,0.0933484,0.198916,0.0133734,0.209751,0.0228065,0.215872,-0.172681,0.913696,-1.2049,-0.0091627,6.60739,2.82464,7.02122,-4.71829,-3.82915,-7.77875,-0.619976,25.9347,5.05042,26.5605,-20.7842,10.8737,-13.6952,-0.091639,0.0683003,-0.0777424,-0.017373,-1.92296,0.0801548,0.218488,0.0135717,0.208872,0.00546218,0.365575,-0.274148,0.558649,-1.04271,0.00015398,0,0,0,0,0,0,0,2.36408,-30.3526,1.96077,23.1424,1.61926,0.606009,-0.050247,
0.0743701,-0.0768092,-0.0110792,-1.9279,0.101086,0.188595,0.0132713,0.216332,0.0259744,0.222824,-0.178563,0.9244,-1.22196,-0.00988145,4.11255,1.97995,4.34494,-3.67594,6.69011,-10.6649,-0.449216,24.5503,3.97022,25.2132,-20.6033,10.8737,-13.6952,-0.110635,0.0683003,-0.0777424,-0.017373,-1.92296,0.0801548,0.218488,0.0135717,0.208872,0.00546218,0.365575,-0.274148,0.558649,-1.04271,0.00015398,0,0,0,0,0,0,0,2.36408,-30.3526,1.96077,23.1424,1.61926,0.606009,-0.050247,
0.0762492,-0.0765273,-0.00914007,-1.92951,0.109198,0.17809,0.0131741,0.220042,0.0278284,0.226737,-0.183228,0.942314,-1.24019,-0.0103357,2.31911,1.15872,2.44586,-2.91589,11.1957,-11.3939,-0.28388,23.4334,3.19295,24.0743,-20.3329,10.8737,-13.6952,-0.11347,0.0683003,-0.0777424,-0.017373,-1.92296,0.0801548,0.218488,0.0135717,0.208872,0.00546218,0.365575,-0.274148,0.558649,-1.04271,0.00015398,0,0,0,0,0,0,0,2.36408,-30.3526,1.96077,23.1424,1.61926,0.606009,-0.050247,
0.0780726,-0.0762732,-0.00725912,-1.93112,0.117531,0.167464,0.0130836,0.221619,0.0286154,0.228414,-0.186753,0.962189,-1.2578,-0.010531,0.985817,0.491913,1.0477,-2.20283,12.4222,-11.0045,-0.122071,22.4319,2.44661,23.0886,-19.8566,10.8006,-13.4795,-0.112726,0.0753564,-0.0768587,-0.00487569,-1.93368,0.0992019,0.182635,0.0135717,0.188024,0.0218392,0.348,-0.31568,0.564004,-1.06722,-0.000178063,-2.60594,2.04713,-2.19688,-5.1915,0.669441,-3.06312,-0.0415053,-0.476498,-35.5696,-0.788561,26.2805,1.56433,1.5545,-0.050247,
0.0792265,-0.0760147,-0.000841377,-1.9373,0.112144,0.162636,0.0133633,0.224677,0.0334871,0.231863,-0.192852,0.943759,-1.26197,-0.0110525,1.91093,3.0448,2.15563,-3.81227,-11.5189,-2.60929,-0.325965,24.5478,3.8119,25.2462,-20.4458,10.8006,-13.4795,-0.11176,0.0753564,-0.0768587,-0.00487569,-1.93368,0.0992019,0.182635,0.0135717,0.188024,0.0218392,0.348,-0.31568,0.564004,-1.06722,-0.000178063,0,0,0,0,0,0,0,-0.476498,-35.5696,-0.788561,26.2805,1.56433,1.5545,-0.050247,
0.0810576,-0.0756345,0.00105384,-1.93899,0.119713,0.152183,0.013264,0.225517,0.0362958,0.23287,-0.196548,0.94423,-1.27091,-0.0113254,0.525208,1.75541,0.629955,-2.31002,0.294609,-5.58545,-0.170541,23.4309,3.03464,24.1073,-20.1754,10.8006,-13.4795,-0.114594,0.0753564,-0.0768587,-0.00487569,-1.93368,0.0992019,0.182635,0.0135717,0.188024,0.0218392,0.348,-0.31568,0.564004,-1.06722,-0.000178063,0,0,0,0,0,0,0,-0.476498,-35.5696,-0.788561,26.2805,1.56433,1.5545,-0.050247,
0.082836,-0.0753028,0.00289282,-1.94065,0.127657,0.141605,0.0131722,0.224875,0.0373281,0.232271,-0.198754,0.953983,-1.28118,-0.0113546,-0.401533,0.645187,-0.37472,-1.37853,6.0951,-6.41839,-0.0182425,22.4319,2.44661,23.0886,-19.8566,10.8006,-13.4795,-0.112726,0.0753564,-0.0768587,-0.00487569,-1.93368,0.0992019,0.182635,0.0135717,0.188024,0.0218392,0.348,-0.31568,0.564004,-1.06722,-0.000178063,0,0,0,0,0,0,0,-0.476498,-35.5696,-0.788561,26.2805,1.56433,1.5545,-0.050247,
0.0845673,-0.0750162,0.0046822,-1.94228,0.135831,0.130957,0.0130893,0.223182,0.0370275,0.230551,-0.199776,0.967528,-1.29115,-0.0111554,-1.05804,-0.187851,-1.07476,-0.63856,8.4661,-6.22852,0.124457,21.5464,1.8268,22.2177,-19.3108,10.7319,-13.2236,-0.107609,0.0826393,-0.0755008,0.00750672,-1.94407,0.120022,0.144231,0.0135695,0.207681,0.0211304,0.345648,-0.298897,0.627746,-1.14268,0.000240698,2.45708,-0.0886074,-0.294031,2.09785,7.96775,-9.43291,0.0523451,-3.79712,-33.2964,-3.5855,25.0586,1.12487,1.46203,-0.0301054,
0.0865687,-0.0747693,0.0116026,-1.94767,0.133536,0.123834,0.0133606,0.226391,0.0387868,0.234095,-0.203102,0.953656,-1.2918,-0.0115178,2.00567,1.09959,2.21503,-2.07914,-8.67011,-0.409189,-0.226469,23.4414,2.87936,24.1519,-19.9761,10.7319,-13.2236,-0.115602,0.0826393,-0.0755008,0.00750672,-1.94407,0.120022,0.144231,0.0135695,0.207681,0.0211304,0.345648,-0.298897,0.627746,-1.14268,0.000240698,0,0,0,0,0,0,0,-3.79712,-33.2964,-3.5855,25.0586,1.12487,1.46203,-0.0301054,
0.0884021,-0.0744412,0.0135024,-1.94935,0.141247,0.113344,0.0132656,0.226946,0.0392338,0.234769,-0.204383,0.955696,-1.2957,-0.011591,0.347135,0.27933,0.421203,-0.800308,1.27498,-2.4362,-0.0457626,22.4425,2.29134,23.1333,-19.6574,10.7319,-13.2236,-0.113734,0.0826393,-0.0755008,0.00750672,-1.94407,0.120022,0.144231,0.0135695,0.207681,0.0211304,0.345648,-0.298897,0.627746,-1.14268,0.000240698,0,0,0,0,0,0,0,-3.79712,-33.2964,-3.5855,25.0586,1.12487,1.46203,-0.0301054,
0.0901705,-0.074157,0.0153333,-1.95099,0.149275,0.10279,0.0131803,0.225767,0.0384913,0.233589,-0.204426,0.96526,-1.30039,-0.0114033,-0.737135,-0.464044,-0.737552,-0.0267629,5.97765,-2.93507,0.117286,21.5464,1.8268,22.2177,-19.3108,10.7319,-13.2236,-0.107609,0.0826393,-0.0755008,0.00750672,-1.94407,0.120022,0.144231,0.0135695,0.207681,0.0211304,0.345648,-0.298897,0.627746,-1.14268,0.000240698,0,0,0,0,0,0,0,-3.79712,-33.2964,-3.5855,25.0586,1.12487,1.46203,-0.0301054,
0.09289,-0.0734585,0.0237268,-1.95823,0.159238,0.0816502,0.013387,0.227484,0.0406609,0.235484,-0.208162,0.964481,-1.30762,-0.0114806,1.07303,1.356,1.184,-2.3354,-0.486797,-4.51882,-0.0483086,22.4088,2.17782,23.1344,-19.5304,10.6131,-12.9568,-0.114413,0.0890595,-0.0742636,0.019736,-1.9545,0.144338,0.102925,0.0135763,0.18089,0.0307203,0.345025,-0.310173,0.818102,-1.25006,8.73871e-05,-3.34884,1.19874,-0.077933,-1.40954,23.7944,-13.4218,-0.0191639,-5.2174,-34.7444,-5.75957,28.1491,-0.0350988,2.42974,-0.00996382,
0.0946919,-0.073115,0.0255944,-1.95994,0.167231,0.0709663,0.0133014,0.227036,0.0411185,0.235077,-0.20918,0.971396,-1.3132,-0.0113246,-0.280041,0.286002,-0.253873,-0.635937,4.32163,-3.48287,0.0974981,21.5127,1.71328,22.2188,-19.1838,10.6131,-12.9568,-0.108288,0.0890595,-0.0742636,0.019736,-1.9545,0.144338,0.102925,0.0135763,0.18089,0.0307203,0.345025,-0.310173,0.818102,-1.25006,8.73871e-05,0,0,0,0,0,0,0,-5.2174,-34.7444,-5.75957,28.1491,-0.0350988,2.42974,-0.00996382,
0.0964307,-0.0728259,0.0273961,-1.96158,0.175405,0.0603237,0.013227,0.225098,0.040121,0.233104,-0.208539,0.981463,-1.31662,-0.0109197,-1.21125,-0.623428,-1.23317,0.40018,6.29174,-2.14121,0.253113,20.6979,1.33085,21.3849,-18.816,10.6131,-12.9568,-0.0989536,0.0890595,-0.0742636,0.019736,-1.9545,0.144338,0.102925,0.0135763,0.18089,0.0307203,0.345025,-0.310173,0.818102,-1.25006,8.73871e-05,0,0,0,0,0,0,0,-5.2174,-34.7444,-5.75957,28.1491,-0.0350988,2.42974,-0.00996382,
0.0981176,-0.0725979,0.0291434,-1.96324,0.18369,0.0501753,0.0131636,0.22225,0.0377977,0.230166,-0.208318,0.992309,-1.30701,-0.0103208,-1.77963,-1.45207,-1.83637,0.138189,6.77916,6.00813,0.374274,19.945,1.00111,20.6137,-18.4354,10.6131,-12.9568,-0.0861134,0.0890595,-0.0742636,0.019736,-1.9545,0.144338,0.102925,0.0135763,0.18089,0.0307203,0.345025,-0.310173,0.818102,-1.25006,8.73871e-05,0,0,0,0,0,0,0,-5.2174,-34.7444,-5.75957,28.1491,-0.0350988,2.42974,-0.00996382,
0.0928386,-0.0734791,0.0236755,-1.95821,0.159295,0.081609,0.0133966,0.223883,0.0397945,0.23195,-0.210896,0.986902,-1.31353,-0.010454,1.02045,1.24801,1.11476,-1.61128,-3.37936,-4.07275,-0.0832163,21.4958,1.38608,22.234,-18.9205,10.4846,-12.6976,-0.10957,0.095062,-0.0730769,0.0312482,-1.96401,0.172622,0.0598235,0.0135848,0.166,0.0550045,0.339163,-0.245986,0.819001,-1.23939,0.00363643,-1.86131,3.03552,-0.732778,8.02339,0.112375,1.33297,0.44363,-1.59131,-30.3526,-1.9113,22.1466,0.819088,0.43389,-0.123489,
0.094602,-0.0731505,0.0255039,-1.95989,0.167316,0.0708991,0.0133206,0.223192,0.0400502,0.231268,-0.210862,0.990048,-1.31857,-0.010262,-0.432136,0.159828,-0.426373,0.0217303,1.96604,-3.15161,0.120001,20.681,1.00364,21.4001,-18.5527,10.4846,-12.6976,-0.100236,0.095062,-0.0730769,0.0312482,-1.96401,0.172622,0.0598235,0.0135848,0.166,0.0550045,0.339163,-0.245986,0.819001,-1.23939,0.00363643,0,0,0,0,0,0,0,-1.59131,-30.3526,-1.9113,22.1466,0.819088,0.43389,-0.123489,
0.0963032,-0.0728877,0.0272665,-1.96158,0.17552,0.0606748,0.0132564,0.221083,0.0386113,0.229081,-0.210893,0.997131,-1.31046,-0.00981569,-1.31767,-0.899339,-1.36674,-0.0193709,4.42658,5.06698,0.278925,19.9281,0.673899,20.6289,-18.1721,10.4846,-12.6976,-0.0873953,0.095062,-0.0730769,0.0312482,-1.96401,0.172622,0.0598235,0.0135848,0.166,0.0550045,0.339163,-0.245986,0.819001,-1.23939,0.00363643,0,0,0,0,0,0,0,-1.59131,-30.3526,-1.9113,22.1466,0.819088,0.43389,-0.123489,
0.0979542,-0.0726824,0.0289765,-1.9633,0.183826,0.0513107,0.0132022,0.218142,0.0360205,0.226014,-0.211619,1.00536,-1.28247,-0.00920677,-1.83823,-1.61926,-1.91654,-0.454175,5.14388,17.4944,0.380575,19.1958,0.342593,19.8813,-17.8116,10.4846,-11.0883,-0.0756617,0.095062,-0.0730769,0.0312482,-1.96401,0.172622,0.0598235,0.0135848,0.166,0.0550045,0.339163,-0.245986,0.819001,-1.23939,0.00363643,0,0,0,0,0,0,0,-1.59131,-30.3526,-1.9113,22.1466,0.819088,0.43389,-0.123489,
0.0986867,-0.0723183,0.0350352,-1.96745,0.187515,0.0392676,0.0134217,0.218745,0.0374519,0.226785,-0.211142,0.996023,-1.28427,-0.00931727,0.376532,0.894649,0.481612,0.29819,-5.83588,-1.12661,-0.0690619,20.6132,0.515421,21.361,-18.2742,10.3029,-12.5161,-0.101898,0.0997512,-0.0720397,0.0414826,-1.97243,0.199512,0.0208344,0.0135819,0.116631,0.0415739,0.251006,-0.236103,0.768679,-1.04475,0.000373763,-6.1711,-1.67883,-11.0195,1.23543,-6.29017,24.3307,-0.407833,-6.84002,-33.8478,-7.2592,26.951,0.599362,1.57464,-0.0163725,
0.100387,-0.0720506,0.0368001,-1.96912,0.195461,0.0293469,0.0133558,0.217498,0.0366539,0.225552,-0.210723,0.995471,-1.27544,-0.00910082,-0.778889,-0.498764,-0.77043,0.261949,-0.345564,5.52305,0.135278,19.8603,0.18568,20.5897,-17.8936,10.3029,-12.5161,-0.0890578,0.0997512,-0.0720397,0.0414826,-1.97243,0.199512,0.0208344,0.0135819,0.116631,0.0415739,0.251006,-0.236103,0.768679,-1.04475,0.000373763,0,0,0,0,0,0,0,-6.84002,-33.8478,-7.2592,26.951,0.599362,1.57464,-0.0163725,
0.102034,-0.07185,0.0385091,-1.97082,0.20357,0.0202371,0.0133004,0.215181,0.0343381,0.223165,-0.21102,0.9991,-1.24809,-0.00866493,-1.4482,-1.44737,-1.49172,-0.185935,2.26839,17.0889,0.272433,19.1281,-0.145626,19.8422,-17.533,10.3029,-10.9068,-0.0773242,0.0997512,-0.0720397,0.0414826,-1.97243,0.199512,0.0208344,0.0135819,0.116631,0.0415739,0.251006,-0.236103,0.768679,-1.04475,0.000373763,0,0,0,0,0,0,0,-6.84002,-33.8478,-7.2592,26.951,0.599362,1.57464,-0.0163725,
0.102625,-0.0714576,0.0444968,-1.97566,0.213371,0.00274081,0.0134521,0.208144,0.033789,0.216087,-0.208725,0.97803,-1.2237,-0.00847946,-4.39851,-0.343172,-4.42405,1.43456,-13.1687,15.2443,0.11592,19.8603,0.18568,20.5897,-17.8936,10.3029,-12.5161,-0.0890578,0.0997512,-0.0720397,0.0414826,-1.97243,0.199512,0.0208344,0.0135819,0.116631,0.0415739,0.251006,-0.236103,0.768679,-1.04475,0.000373763,0,0,0,0,0,0,0,-6.84002,-33.8478,-7.2592,26.951,0.599362,1.57464,-0.0163725,
0.104067,-0.0712793,0.0459986,-1.97728,0.220829,-0.00567301,0.0133995,0.202567,0.0314896,0.210413,-0.207615,0.968877,-1.18931,-0.00809847,-3.48526,-1.43715,-3.54592,0.694027,-5.72042,21.4971,0.238116,19.1281,-0.145626,19.8422,-17.533,10.3029,-10.9068,-0.0773242,0.0997512,-0.0720397,0.0414826,-1.97243,0.199512,0.0208344,0.0135819,0.116631,0.0415739,0.251006,-0.236103,0.768679,-1.04475,0.000373763,0,0,0,0,0,0,0,-6.84002,-33.8478,-7.2592,26.951,0.599362,1.57464,-0.0163725,
0.105508,-0.0711578,0.0474982,-1.97893,0.228495,-0.0132413,0.0133552,0.19809,0.0282287,0.205821,-0.207248,0.966758,-1.14065,-0.00758654,-2.79811,-2.03807,-2.87002,0.229357,-1.32469,30.4085,0.319957,18.4432,-0.880784,19.1632,-16.8762,10.2134,-8.71722,-0.0687138,0.103544,-0.070896,0.050363,-1.9792,0.223099,-0.0109406,0.0135843,0.117639,0.0654631,0.272965,-0.187765,0.601037,-0.811313,0.000394407,0.125985,2.98616,2.74489,6.04216,-20.9553,29.1791,0.00258045,-2.57916,-32.6735,-3.21257,26.5543,1.70532,1.42174,-0.0365141,
0.106944,-0.0710792,0.0489914,-1.98058,0.2363,-0.0198462,0.0133184,0.194373,0.0245485,0.201986,-0.207034,0.968526,-1.07764,-0.00698945,-2.32337,-2.30013,-2.39704,0.133818,1.10523,39.3813,0.37318,17.8136,-1.20854,18.5182,-16.6084,10.2134,-6.97334,-0.0587369,0.103544,-0.070896,0.050363,-1.9792,0.223099,-0.0109406,0.0135843,0.117639,0.0654631,0.272965,-0.187765,0.601037,-0.811313,0.000394407,0,0,0,0,0,0,0,-2.57916,-32.6735,-3.21257,26.5543,1.70532,1.42174,-0.0365141,
0.106415,-0.0702803,0.0533924,-1.98223,0.235579,-0.0252532,0.0134601,0.191062,0.0257453,0.198845,-0.204117,0.939885,-1.04019,-0.00703492,-2.06906,0.747995,-1.96323,1.82311,-17.9011,23.4082,-0.0284182,19.1278,-0.528226,19.8624,-17.1801,10.2134,-10.7034,-0.0791671,0.103544,-0.070896,0.050363,-1.9792,0.223099,-0.0109406,0.0135843,0.117639,0.0654631,0.272965,-0.187765,0.601037,-0.811313,0.000394407,0,0,0,0,0,0,0,-2.57916,-32.6735,-3.21257,26.5543,1.70532,1.42174,-0.0365141,
0.107822,-0.0701272,0.0548619,-1.98381,0.242654,-0.0318911,0.0134127,0.188014,0.0244255,0.195813,-0.20267,0.928783,-0.998101,-0.00681126,-1.90521,-0.824834,-1.89496,0.904231,-6.93825,26.3065,0.139788,18.4432,-0.880784,19.1632,-16.8762,10.2134,-8.71722,-0.0687138,0.103544,-0.070896,0.050363,-1.9792,0.223099,-0.0109406,0.0135843,0.117639,0.0654631,0.272965,-0.187765,0.601037,-0.811313,0.000394407,0,0,0,0,0,0,0,-2.57916,-32.6735,-3.21257,26.5543,1.70532,1.42174,-0.0365141,
0.109218,-0.0700385,0.0563188,-1.9854,0.250039,-0.0378129,0.0133742,0.185332,0.0217573,0.193073,-0.201889,0.92763,-0.946526,-0.00641152,-1.67661,-1.66767,-1.71231,0.487886,-0.720669,32.2347,0.249839,17.7755,-1.57252,18.498,-16.3897,10.1081,-6.85862,-0.0597709,0.106527,-0.0702591,0.0580793,-1.98506,0.239446,-0.03616,0.0135865,0.0791671,0.0297914,0.202915,-0.155495,0.407718,-0.631583,0.00113016,-4.80897,-4.45896,-8.75635,4.03383,-24.1649,22.4662,0.0919693,-2.78546,-33.5225,-3.28795,31.9101,1.90033,2.68792,-0.0566557,
0.110606,-0.0699961,0.0577645,-1.98698,0.257625,-0.0429102,0.0133436,0.182949,0.0184664,0.1906,-0.201152,0.931774,-0.884653,-0.00589461,-1.48926,-2.05682,-1.54586,0.460514,2.58995,38.6706,0.323067,17.199,-1.84135,17.9054,-16.141,10.1081,-5.30542,-0.0500188,0.106527,-0.0702591,0.0580793,-1.98506,0.239446,-0.03616,0.0135865,0.0791671,0.0297914,0.202915,-0.155495,0.407718,-0.631583,0.00113016,0,0,0,0,0,0,0,-2.78546,-33.5225,-3.28795,31.9101,1.90033,2.68792,-0.0566557,
0.108761,-0.0700698,0.0604581,-1.98783,0.249872,-0.0471513,0.0134896,0.174745,0.0162136,0.18245,-0.196552,0.888129,-0.844068,-0.00583506,-5.12725,-1.40795,-5.09383,2.87545,-27.2786,25.3655,0.0372206,18.405,-1.24476,19.1429,-16.6575,10.1081,-8.6025,-0.0697478,0.106527,-0.0702591,0.0580793,-1.98506,0.239446,-0.03616,0.0135865,0.0791671,0.0297914,0.202915,-0.155495,0.407718,-0.631583,0.00113016,0,0,0,0,0,0,0,-2.78546,-33.5225,-3.28795,31.9101,1.90033,2.68792,-0.0566557,
0.109932,-0.0700618,0.0616888,-1.98931,0.256251,-0.0521788,0.0134536,0.169077,0.0131723,0.176728,-0.194032,0.869982,-0.800943,-0.00556743,-3.54265,-1.90085,-3.57615,1.57491,-11.3417,26.9529,0.167268,17.7755,-1.57252,18.498,-16.3897,10.1081,-6.85862,-0.0597709,0.106527,-0.0702591,0.0580793,-1.98506,0.239446,-0.03616,0.0135865,0.0791671,0.0297914,0.202915,-0.155495,0.407718,-0.631583,0.00113016,0,0,0,0,0,0,0,-2.78546,-33.5225,-3.28795,31.9101,1.90033,2.68792,-0.0566557,
0.111135,-0.0700872,0.0629487,-1.9908,0.263089,-0.0565925,0.0134254,0.165325,0.00990274,0.172881,-0.192515,0.866948,-0.751096,-0.00516053,-2.34501,-2.04347,-2.40454,0.948073,-1.89605,31.1542,0.254313,17.1668,-2.0825,17.8866,-15.9422,10.0432,-5.21086,-0.0510035,0.108779,-0.0695392,0.0648876,-1.98926,0.251247,-0.051415,0.013585,0.0572378,0.0183139,0.223508,-0.113454,0.282786,-0.300801,0.000265284,-2.74116,-1.4347,2.57422,5.25511,-15.6165,41.3478,-0.10811,-2.55536,-34.0224,-3.01024,31.5848,2.15667,2.81426,-0.0429228,
0.110904,-0.0695844,0.0671687,-1.99169,0.260616,-0.0579377,0.0134974,0.159096,0.00652675,0.166781,-0.185847,0.825776,-0.685023,-0.00511307,-3.89325,-2.10999,-3.81237,4.16781,-25.7325,41.2961,0.0296632,17.7433,-1.81367,18.4791,-16.1909,10.0432,-6.76406,-0.0607556,0.108779,-0.0695392,0.0648876,-1.98926,0.251247,-0.051415,0.013585,0.0572378,0.0183139,0.223508,-0.113454,0.282786,-0.300801,0.000265284,0,0,0,0,0,0,0,-2.55536,-34.0224,-3.01024,31.5848,2.15667,2.81426,-0.0429228,
0.112007,-0.0696749,0.0683317,-1.99303,0.266709,-0.0611463,0.0134676,0.154839,0.00295716,0.162498,-0.182182,0.81295,-0.628234,-0.00483609,-2.66014,-2.23099,-2.67661,2.29003,-8.01671,35.4931,0.173111,17.1668,-2.0825,17.8866,-15.9422,10.0432,-5.21086,-0.0510035,0.108779,-0.0695392,0.0648876,-1.98926,0.251247,-0.051415,0.013585,0.0572378,0.0183139,0.223508,-0.113454,0.282786,-0.300801,0.000265284,0,0,0,0,0,0,0,-2.55536,-34.0224,-3.01024,31.5848,2.15667,2.81426,-0.0429228,
0.11314,-0.0697845,0.0695223,-1.9944,0.273346,-0.0639704,0.0134459,0.152197,-0.000372257,0.159764,-0.180107,0.816287,-0.57319,-0.00441081,-1.65132,-2.08089,-1.70883,1.29696,2.08594,34.4023,0.2658,16.6395,-2.27823,17.3432,-15.6968,10.0432,-3.85795,-0.0412806,0.108779,-0.0695392,0.0648876,-1.98926,0.251247,-0.051415,0.013585,0.0572378,0.0183139,0.223508,-0.113454,0.282786,-0.300801,0.000265284,0,0,0,0,0,0,0,-2.55536,-34.0224,-3.01024,31.5848,2.15667,2.81426,-0.0429228,
0.114298,-0.069904,0.0707367,-1.99579,0.280356,-0.0662889,0.0134315,0.15072,-0.00328574,0.158172,-0.178723,0.828261,-0.516513,-0.00388884,-0.923631,-1.82093,-0.994968,0.86534,7.48387,35.4229,0.32623,16.128,-2.53846,16.8292,-15.3929,9.99013,-2.63059,-0.0318867,0.109993,-0.0692527,0.0714348,-1.99281,0.259348,-0.0562729,0.0135876,0.0167897,-0.0150154,0.187334,-0.0955999,0.213205,-0.048856,0.00157099,-5.056,-4.16616,-4.52181,2.23172,-8.69765,31.4931,0.163213,-1.03589,-32.3006,-1.83592,29.744,2.0166,2.82799,-0.0630644,
0.111675,-0.0696375,0.0732641,-1.99495,0.267894,-0.0593145,0.0135226,0.142434,-0.00768412,0.14994,-0.171455,0.785652,-0.456092,-0.00383106,-5.17866,-2.74899,-5.1454,4.54253,-26.6307,37.7631,0.0361165,17.1404,-2.21758,17.8739,-15.8828,9.99013,-5.18331,-0.0512915,0.109993,-0.0692527,0.0714348,-1.99281,0.259348,-0.0562729,0.0135876,0.0167897,-0.0150154,0.187334,-0.0955999,0.213205,-0.048856,0.00157099,0,0,0,0,0,0,0,-1.03589,-32.3006,-1.83592,29.744,2.0166,2.82799,-0.0630644,
0.112613,-0.0698414,0.0742597,-1.99617,0.273694,-0.0610422,0.0135024,0.137403,-0.0112434,0.144843,-0.167668,0.77352,-0.408067,-0.00356992,-3.14445,-2.22455,-3.18567,2.36692,-7.58255,30.0159,0.163213,16.6131,-2.41331,17.3305,-15.6374,9.99013,-3.8304,-0.0415687,0.109993,-0.0692527,0.0714348,-1.99281,0.259348,-0.0562729,0.0135876,0.0167897,-0.0150154,0.187334,-0.0955999,0.213205,-0.048856,0.00157099,0,0,0,0,0,0,0,-1.03589,-32.3006,-1.83592,29.744,2.0166,2.82799,-0.0630644,
0.113609,-0.070039,0.0753109,-1.99744,0.280097,-0.0625524,0.0134897,0.134821,-0.0139347,0.142154,-0.165798,0.778894,-0.364207,-0.00317489,-1.61373,-1.68206,-1.68063,1.16836,3.35884,27.4122,0.24689,16.128,-2.53846,16.8292,-15.3929,9.99013,-2.63059,-0.0318867,0.109993,-0.0692527,0.0714348,-1.99281,0.259348,-0.0562729,0.0135876,0.0167897,-0.0150154,0.187334,-0.0955999,0.213205,-0.048856,0.00157099,0,0,0,0,0,0,0,-1.03589,-32.3006,-1.83592,29.744,2.0166,2.82799,-0.0630644,
0.111937,-0.0697028,0.0792699,-1.99687,0.272543,-0.0557917,0.0135328,0.127539,-0.0177539,0.134944,-0.15879,0.73934,-0.303296,-0.00307887,-4.551,-2.38703,-4.50598,4.38022,-24.7214,38.0695,0.0600125,16.5979,-2.45795,17.3284,-15.6346,9.96127,-3.82889,-0.0415274,0.110434,-0.0692038,0.0776181,-1.99499,0.264679,-0.0552656,0.0135854,-0.00172973,-0.00795911,0.184102,-0.0393072,0.128147,0.084709,0.000732451,-2.31493,0.882036,-0.403943,7.03659,-10.6322,16.6956,-0.104817,-1.13507,-32.4989,-1.71294,27.2763,2.16949,2.19079,-0.0429228,
0.112795,-0.0699587,0.0801848,-1.99802,0.278151,-0.056387,0.0135202,0.123483,-0.0206001,0.13083,-0.155677,0.731664,-0.25752,-0.00277866,-2.53514,-1.77886,-2.57143,1.9456,-4.79727,28.6099,0.187633,16.1127,-2.5831,16.8272,-15.39,9.96127,-2.62908,-0.0318454,0.110434,-0.0692038,0.0776181,-1.99499,0.264679,-0.0552656,0.0135854,-0.00172973,-0.00795911,0.184102,-0.0393072,0.128147,0.084709,0.000732451,0,0,0,0,0,0,0,-1.13507,-32.4989,-1.71294,27.2763,2.16949,2.19079,-0.0429228,
0.113718,-0.070197,0.0811624,-1.99922,0.284414,-0.0568778,0.0135149,0.121859,-0.0224376,0.129103,-0.154538,0.741918,-0.218285,-0.00235342,-1.01466,-1.14843,-1.07911,0.711696,6.40863,24.5218,0.265772,15.6638,-2.64494,16.3625,-15.1416,9.96127,-1.59497,-0.0222832,0.110434,-0.0692038,0.0776181,-1.99499,0.264679,-0.0552656,0.0135854,-0.00172973,-0.00795911,0.184102,-0.0393072,0.128147,0.084709,0.000732451,0,0,0,0,0,0,0,-1.13507,-32.4989,-1.71294,27.2763,2.16949,2.19079,-0.0429228,
0.114694,-0.0704162,0.0821924,-2.00045,0.291133,-0.0571305,0.0135163,0.1219,-0.0234312,0.129034,-0.154302,0.761505,-0.180947,-0.00184864,0.025506,-0.620992,-0.0435377,0.147629,12.2419,23.3368,0.315489,15.2445,-2.6564,15.9276,-14.8924,9.96127,-0.682943,-0.0128733,0.110434,-0.0692038,0.0776181,-1.99499,0.264679,-0.0552656,0.0135854,-0.00172973,-0.00795911,0.184102,-0.0393072,0.128147,0.084709,0.000732451,0,0,0,0,0,0,0,-1.13507,-32.4989,-1.71294,27.2763,2.16949,2.19079,-0.0429228,
0.111923,-0.0697128,0.0792545,-1.99693,0.27257,-0.055025,0.0135482,0.116976,-0.0253926,0.124198,-0.150182,0.725761,-0.145277,-0.00182384,-3.07735,-1.22586,-3.02196,2.57509,-22.3399,22.2933,0.0155012,16.1046,-2.56959,16.8293,-15.4435,9.94321,-2.66383,-0.0315883,0.110547,-0.0692747,0.082213,-1.99545,0.26776,-0.0489503,0.0135824,0.0156546,0.00266713,0.117311,0.0055805,0.0573282,0.254505,-0.000100783,2.17304,1.32828,-8.34896,5.61096,-8.85231,21.2245,-0.104154,-3.2417,-31.6023,-3.53789,26.7764,1.87652,2.06536,-0.0163725,
0.112768,-0.0699643,0.0801551,-1.99808,0.278189,-0.0550953,0.013543,0.114696,-0.0266027,0.121875,-0.149026,0.721077,-0.117978,-0.00158804,-1.42509,-0.756343,-1.45195,0.722565,-2.92763,17.0622,0.147376,15.6557,-2.63143,16.3646,-15.1951,9.94321,-1.62972,-0.022026,0.110547,-0.0692747,0.082213,-1.99545,0.26776,-0.0489503,0.0135824,0.0156546,0.00266713,0.117311,0.0055805,0.0573282,0.254505,-0.000100783,0,0,0,0,0,0,0,-3.2417,-31.6023,-3.53789,26.7764,1.87652,2.06536,-0.0163725,
0.113673,-0.0701945,0.0811144,-1.99928,0.284461,-0.055045,0.0135449,0.114394,-0.0270353,0.121483,-0.149128,0.73367,-0.0931255,-0.00122233,-0.188991,-0.270355,-0.245384,-0.0640529,7.87088,15.5327,0.228568,15.2363,-2.64289,15.9298,-14.9458,9.94321,-0.717695,-0.0126162,0.110547,-0.0692747,0.082213,-1.99545,0.26776,-0.0489503,0.0135824,0.0156546,0.00266713,0.117311,0.0055805,0.0573282,0.254505,-0.000100783,0,0,0,0,0,0,0,-3.2417,-31.6023,-3.53789,26.7764,1.87652,2.06536,-0.0163725,
0.114629,-0.0704039,0.0821229,-2.0005,0.291187,-0.0547656,0.0135532,0.11541,-0.0268641,0.122398,-0.149665,0.755092,-0.0675146,-0.000770457,0.635199,0.107006,0.572083,-0.335493,13.3886,16.0068,0.28242,14.8413,-2.61404,15.5196,-14.6947,9.94321,0.0604073,-0.00341857,0.110547,-0.0692747,0.082213,-1.99545,0.26776,-0.0489503,0.0135824,0.0156546,0.00266713,0.117311,0.0055805,0.0573282,0.254505,-0.000100783,0,0,0,0,0,0,0,-3.2417,-31.6023,-3.53789,26.7764,1.87652,2.06536,-0.0163725,
0.111719,-0.0698147,0.083519,-1.99714,0.275009,-0.0461514,0.0135596,0.108104,-0.0287271,0.115151,-0.14402,0.713793,-0.0242996,-0.000755648,-4.56643,-1.16438,-4.52931,3.52817,-25.8121,27.0094,0.0092558,15.6554,-2.57648,16.3751,-15.2772,9.93737,-1.69072,-0.0216544,0.111095,-0.0695041,0.0867227,-1.99546,0.269785,-0.0366135,0.0135817,0.029252,-0.0158913,0.100744,-0.00605856,0.0381619,0.385793,-8.206e-05,1.69968,-2.31981,-2.07084,-1.45488,-2.3958,16.411,0.00234042,-5.01507,-29.9797,-5.06133,25.3323,1.6806,1.62774,-0.00996382,
0.112439,-0.0700886,0.0842931,-1.99821,0.280418,-0.0451726,0.0135626,0.104483,-0.0298292,0.111473,-0.14211,0.706243,0.00502979,-0.000528446,-2.26326,-0.688811,-2.299,1.19365,-4.71853,18.3309,0.142001,15.236,-2.58794,15.9402,-15.0279,9.93737,-0.77869,-0.0122445,0.111095,-0.0695041,0.0867227,-1.99546,0.269785,-0.0366135,0.0135817,0.029252,-0.0158913,0.100744,-0.00605856,0.0381619,0.385793,-8.206e-05,0,0,0,0,0,0,0,-5.01507,-29.9797,-5.06133,25.3323,1.6806,1.62774,-0.00996382,
0.113239,-0.0703369,0.0851446,-1.99934,0.286526,-0.0442175,0.0135725,0.103572,-0.0300696,0.110467,-0.141872,0.717715,0.0279028,-0.000175817,-0.569036,-0.150271,-0.628656,0.148874,7.16971,14.2957,0.220393,14.841,-2.55909,15.5301,-14.7768,9.93737,-0.000587796,-0.00304691,0.111095,-0.0695041,0.0867227,-1.99546,0.269785,-0.0366135,0.0135817,0.029252,-0.0158913,0.100744,-0.00605856,0.0381619,0.385793,-8.206e-05,0,0,0,0,0,0,0,-5.01507,-29.9797,-5.06133,25.3323,1.6806,1.62774,-0.00996382,
0.112215,-0.070157,0.0879745,-1.9971,0.27688,-0.0321861,0.0135714,0.0978873,-0.0323276,0.104865,-0.136794,0.682492,0.0710749,-0.000120194,-3.55308,-1.41125,-3.5012,3.17395,-22.0142,26.9825,0.0347639,15.236,-2.58794,15.9402,-15.0279,9.93737,-0.77869,-0.0122445,0.111095,-0.0695041,0.0867227,-1.99546,0.269785,-0.0366135,0.0135817,0.029252,-0.0158913,0.100744,-0.00605856,0.0381619,0.385793,-8.206e-05,0,0,0,0,0,0,0,-5.01507,-29.9797,-5.06133,25.3323,1.6806,1.62774,-0.00996382,
0.112902,-0.0704575,0.0887152,-1.99813,0.28226,-0.0305278,0.0135809,0.0954761,-0.0333742,0.102409,-0.135221,0.68049,0.098318,0.000141719,-1.50698,-0.654117,-1.53478,0.982857,-1.25102,17.027,0.163696,14.841,-2.55909,15.5301,-14.7768,9.93737,-0.000587796,-0.00304691,0.111095,-0.0695041,0.0867227,-1.99546,0.269785,-0.0366135,0.0135817,0.029252,-0.0158913,0.100744,-0.00605856,0.0381619,0.385793,-8.206e-05,0,0,0,0,0,0,0,-5.01507,-29.9797,-5.06133,25.3323,1.6806,1.62774,-0.00996382,
0.113666,-0.0707229,0.0895314,-1.99921,0.288357,-0.0289731,0.0135975,0.0954899,-0.033335,0.102334,-0.135258,0.696807,0.117522,0.000526508,0.00861023,0.0244873,-0.0470851,-0.0231526,10.1977,12.0025,0.240493,14.4635,-2.42022,15.1472,-14.6339,9.93512,0.605972,0.00649062,0.111793,-0.0697046,0.0906847,-1.99588,0.271407,-0.0207006,0.0135787,0.0270693,-0.00417864,0.0918888,-0.00913746,-0.00475109,0.532389,0.00020687,-0.272843,1.46409,-1.10688,-0.384862,-5.36412,18.3246,0.0361162,-3.08697,-30.2297,-3.43474,24.4357,2.50549,1.28258,0.017502,
0.114495,-0.0709566,0.0904113,-2.00032,0.294953,-0.0273922,0.0136207,0.0971167,-0.0325106,0.103864,-0.135991,0.722342,0.133539,0.00100316,1.01672,0.515248,0.956319,-0.458001,15.9595,10.0109,0.297906,14.1,-2.34103,14.7691,-14.3867,9.93512,1.18655,0.0154668,0.111793,-0.0697046,0.0906847,-1.99588,0.271407,-0.0207006,0.0135787,0.0270693,-0.00417864,0.0918888,-0.00913746,-0.00475109,0.532389,0.00020687,0,0,0,0,0,0,0,-3.08697,-30.2297,-3.43474,24.4357,2.50549,1.28258,0.017502,
0.112803,-0.0702268,0.0918284,-1.9975,0.278118,-0.0145042,0.0135795,0.0913162,-0.0328663,0.0981955,-0.131743,0.682307,0.175746,0.000971939,-3.62526,-0.222297,-3.54283,2.65471,-25.0217,26.379,-0.0195119,14.8399,-2.47758,15.5385,-14.8831,9.93512,-0.0781921,-0.00252499,0.111793,-0.0697046,0.0906847,-1.99588,0.271407,-0.0207006,0.0135787,0.0270693,-0.00417864,0.0918888,-0.00913746,-0.00475109,0.532389,0.00020687,0,0,0,0,0,0,0,-3.08697,-30.2297,-3.43474,24.4357,2.50549,1.28258,0.017502,
0.113434,-0.0704838,0.0925137,-1.99851,0.28339,-0.0121686,0.0135954,0.0888308,-0.0327179,0.09569,-0.130674,0.677658,0.198987,0.00117693,-1.55341,0.0927478,-1.56598,0.668445,-2.90583,14.5259,0.128122,14.4635,-2.42022,15.1472,-14.6339,9.93512,0.605972,0.00649062,0.111793,-0.0697046,0.0906847,-1.99588,0.271407,-0.0207006,0.0135787,0.0270693,-0.00417864,0.0918888,-0.00913746,-0.00475109,0.532389,0.00020687,0,0,0,0,0,0,0,-3.08697,-30.2297,-3.43474,24.4357,2.50549,1.28258,0.017502,
0.114145,-0.0707154,0.0932764,-1.99957,0.289412,-0.01004,0.0136191,0.0888397,-0.0319627,0.0956198,-0.131049,0.692665,0.212403,0.0015342,0.00557929,0.471986,-0.0438243,-0.234299,9.3797,8.38473,0.223289,14.1,-2.34103,14.7691,-14.3867,9.93512,1.18655,0.0154668,0.111793,-0.0697046,0.0906847,-1.99588,0.271407,-0.0207006,0.0135787,0.0270693,-0.00417864,0.0918888,-0.00913746,-0.00475109,0.532389,0.00020687,0,0,0,0,0,0,0,-3.08697,-30.2297,-3.43474,24.4357,2.50549,1.28258,0.017502,
0.114923,-0.0709216,0.0941048,-2.00066,0.295955,-0.00797731,0.01365,0.0905201,-0.0307257,0.0972054,-0.132009,0.717718,0.221491,0.00199951,1.05023,0.773147,0.991003,-0.600354,15.6577,5.67995,0.29082,13.741,-2.24688,14.3955,-14.1444,9.93512,1.69869,0.0249263,0.111793,-0.0697046,0.0906847,-1.99588,0.271407,-0.0207006,0.0135787,0.0270693,-0.00417864,0.0918888,-0.00913746,-0.00475109,0.532389,0.00020687,0,0,0,0,0,0,0,-3.08697,-30.2297,-3.43474,24.4357,2.50549,1.28258,0.017502,
0.11279,-0.0702196,0.0918138,-1.99752,0.278138,-0.0140795,0.0135936,0.0858243,-0.0312779,0.0926331,-0.128694,0.678884,0.252427,0.00194756,-2.93487,-0.34513,-2.85772,2.07232,-24.2709,19.3351,-0.0324695,14.4635,-2.42022,15.1472,-14.6339,9.93512,0.605972,0.00649062,0.111793,-0.0697046,0.0906847,-1.99588,0.271407,-0.0207006,0.0135787,0.0270693,-0.00417864,0.0918888,-0.00913746,-0.00475109,0.532389,0.00020687,0,0,0,0,0,0,0,-3.08697,-30.2297,-3.43474,24.4357,2.50549,1.28258,0.017502,
0.113408,-0.0704664,0.0924857,-1.99853,0.283422,-0.0114523,0.013617,0.0841212,-0.0311933,0.0909036,-0.128175,0.675195,0.267621,0.00214288,-1.06442,0.0528927,-1.08094,0.323839,-2.30575,9.49657,0.122075,14.1,-2.34103,14.7691,-14.3867,9.93512,1.18655,0.0154668,0.111793,-0.0697046,0.0906847,-1.99588,0.271407,-0.0207006,0.0135787,0.0270693,-0.00417864,0.0918888,-0.00913746,-0.00475109,0.532389,0.00020687,0,0,0,0,0,0,0,-3.08697,-30.2297,-3.43474,24.4357,2.50549,1.28258,0.017502,
0.114103,-0.0706857,0.0932309,-1.99958,0.289454,-0.00902524,0.0136482,0.0846555,-0.0304361,0.0913526,-0.128812,0.690967,0.274773,0.00249561,0.333901,0.47323,0.280629,-0.398085,9.85764,4.46981,0.220461,13.7379,-2.08079,14.406,-14.3316,9.95446,1.51657,0.0257871,0.113518,-0.069757,0.0974967,-1.99744,0.271816,0.0192094,0.0135824,0.0310454,-0.00335961,0.122806,-0.041775,0.0216989,0.587507,0.000509952,0.497012,0.102378,3.86464,-4.07969,3.30626,6.88972,0.0378853,6.1687,-29.579,5.48768,22.7695,3.20129,0.20867,-0.0163725,
0.11486,-0.0708788,0.0940376,-2.00065,0.296009,-0.00667382,0.0136845,0.0866519,-0.0291767,0.0932482,-0.129854,0.716643,0.278604,0.00290341,1.24779,0.787118,1.18473,-0.651229,16.0474,2.39429,0.254874,13.3663,-1.97138,14.0191,-14.0933,9.95446,1.94597,0.0355342,0.113518,-0.069757,0.0974967,-1.99744,0.271816,0.0192094,0.0135824,0.0310454,-0.00335961,0.122806,-0.041775,0.0216989,0.587507,0.000509952,0,0,0,0,0,0,0,6.1687,-29.579,5.48768,22.7695,3.20129,0.20867,-0.0163725,
0.114667,-0.0701561,0.0987885,-1.99922,0.278923,0.0262986,0.0136027,0.0842324,-0.0285784,0.0910512,-0.128007,0.68261,0.303271,0.00275731,-1.51221,0.373974,-1.37313,1.15446,-21.2707,15.4172,-0.0913161,14.0968,-2.17494,14.7796,-14.5739,9.95446,1.00443,0.0163276,0.113518,-0.069757,0.0974967,-1.99744,0.271816,0.0192094,0.0135824,0.0310454,-0.00335961,0.122806,-0.041775,0.0216989,0.587507,0.000509952,0,0,0,0,0,0,0,6.1687,-29.579,5.48768,22.7695,3.20129,0.20867,-0.0163725,
0.115322,-0.0703521,0.0994984,-2.00024,0.284374,0.0290996,0.0136311,0.0837455,-0.0277626,0.0905895,-0.128132,0.682354,0.312641,0.00291538,-0.304276,0.50985,-0.288514,-0.0777786,-0.159834,5.85573,0.0987919,13.7379,-2.08079,14.406,-14.3316,9.95446,1.51657,0.0257871,0.113518,-0.069757,0.0974967,-1.99744,0.271816,0.0192094,0.0135824,0.0310454,-0.00335961,0.122806,-0.041775,0.0216989,0.587507,0.000509952,0,0,0,0,0,0,0,6.1687,-29.579,5.48768,22.7695,3.20129,0.20867,-0.0163725,
0.116034,-0.0705279,0.100263,-2.0013,0.290554,0.0316728,0.0136662,0.0847977,-0.026606,0.09158,-0.129011,0.700383,0.314442,0.00320979,0.657596,0.722889,0.619032,-0.549689,11.2681,1.12607,0.184009,13.3662,-1.92565,14.0238,-14.1523,9.96972,1.86557,0.0358279,0.114507,-0.0696138,0.100622,-1.99846,0.272317,0.0372148,0.0135854,0.0283827,0.0143506,0.124279,-0.0395938,0.0274382,0.482387,0.00074979,-0.332842,2.21377,0.18416,0.272644,0.717409,-13.14,0.0299797,4.29218,-29.9043,3.48817,23.0154,2.93853,0.00267619,-0.0429228,
0.116795,-0.0706835,0.101075,-2.00238,0.297236,0.0341415,0.0137062,0.0868679,-0.0251739,0.093562,-0.130086,0.727358,0.313272,0.0035697,1.29385,0.895062,1.23875,-0.672068,16.859,-0.731733,0.224944,12.9615,-1.80098,13.6031,-13.9178,9.96972,2.23038,0.0428676,0.114507,-0.0696138,0.100622,-1.99846,0.272317,0.0372148,0.0135854,0.0283827,0.0143506,0.124279,-0.0395938,0.0274382,0.482387,0.00074979,0,0,0,0,0,0,0,4.29218,-29.9043,3.48817,23.0154,2.93853,0.00267619,-0.0429228,
0.115643,-0.0698612,0.1019,-2.00037,0.279544,0.0436572,0.0136187,0.0842234,-0.0236879,0.0911117,-0.129771,0.692556,0.325523,0.00347269,-1.65281,0.928753,-1.53143,0.197438,-21.7511,7.65725,-0.0606335,13.7377,-2.03506,14.4107,-14.3907,9.96972,1.43617,0.0260809,0.114507,-0.0696138,0.100622,-1.99846,0.272317,0.0372148,0.0135854,0.0283827,0.0143506,0.124279,-0.0395938,0.0274382,0.482387,0.00074979,0,0,0,0,0,0,0,4.29218,-29.9043,3.48817,23.0154,2.93853,0.00267619,-0.0429228,
0.116286,-0.0699978,0.102599,-2.00144,0.285038,0.0463578,0.0136526,0.0834687,-0.0223645,0.0903612,-0.130743,0.691399,0.327936,0.00362506,-0.471664,0.827101,-0.469077,-0.607481,-0.722855,1.50783,0.0952328,13.3662,-1.92565,14.0238,-14.1523,9.96972,1.86557,0.0358279,0.114507,-0.0696138,0.100622,-1.99846,0.272317,0.0372148,0.0135854,0.0283827,0.0143506,0.124279,-0.0395938,0.0274382,0.482387,0.00074979,0,0,0,0,0,0,0,4.29218,-29.9043,3.48817,23.0154,2.93853,0.00267619,-0.0429228,
0.116984,-0.0701208,0.103348,-2.00254,0.291253,0.0488992,0.0136925,0.0842043,-0.0209653,0.0910241,-0.13193,0.708485,0.325883,0.00389855,0.459767,0.874518,0.414324,-0.742453,10.6789,-1.28295,0.170934,12.9641,-1.75535,13.612,-13.9637,9.97936,2.1716,0.043022,0.115762,-0.0693319,0.104553,-1.99981,0.273741,0.0524147,0.0135802,0.0369929,0.0182356,0.144523,-0.0538619,0.092203,0.421451,-0.000444597,1.07628,0.485632,2.53051,-1.78351,8.0956,-7.61702,-0.149298,5.73627,-30.0035,5.08699,23.8644,3.05481,0.221487,0.00376909,
0.117054,-0.0694987,0.10599,-2.00183,0.281658,0.0583907,0.0136226,0.0837642,-0.0193102,0.0907719,-0.132411,0.684942,0.331406,0.00383466,-0.275099,1.0344,-0.157621,-0.300518,-14.7147,3.45215,-0.0399352,13.3687,-1.88002,14.0326,-14.1982,9.97936,1.80679,0.0359823,0.115762,-0.0693319,0.104553,-1.99981,0.273741,0.0524147,0.0135802,0.0369929,0.0182356,0.144523,-0.0538619,0.092203,0.421451,-0.000444597,0,0,0,0,0,0,0,5.73627,-30.0035,5.08699,23.8644,3.05481,0.221487,0.00376909,
0.117745,-0.0695974,0.106737,-2.00294,0.287383,0.0610066,0.0136601,0.0842706,-0.0179145,0.09128,-0.133603,0.69108,0.330522,0.00400469,0.316533,0.872311,0.31756,-0.745107,3.83619,-0.552527,0.106273,12.9641,-1.75535,13.612,-13.9637,9.97936,2.1716,0.043022,0.115762,-0.0693319,0.104553,-1.99981,0.273741,0.0524147,0.0135802,0.0369929,0.0182356,0.144523,-0.0538619,0.092203,0.421451,-0.000444597,0,0,0,0,0,0,0,5.73627,-30.0035,5.08699,23.8644,3.05481,0.221487,0.00376909,
0.118472,-0.0696858,0.107517,-2.00405,0.293777,0.0635175,0.0137016,0.0855912,-0.0165421,0.0925326,-0.134682,0.712711,0.32719,0.00424076,0.825331,0.857766,0.782877,-0.674145,13.5196,-2.08276,0.147542,12.5457,-1.62343,13.1806,-13.7377,9.97936,2.47391,0.0492128,0.115762,-0.0693319,0.104553,-1.99981,0.273741,0.0524147,0.0135802,0.0369929,0.0182356,0.144523,-0.0538619,0.092203,0.421451,-0.000444597,0,0,0,0,0,0,0,5.73627,-30.0035,5.08699,23.8644,3.05481,0.221487,0.00376909,
0.119229,-0.0697616,0.108329,-2.00516,0.300627,0.0659926,0.0137447,0.0874054,-0.0151297,0.0943302,-0.135358,0.741401,0.32363,0.00447105,1.13392,0.882788,1.12349,-0.422403,17.9313,-2.22505,0.143929,12.109,-1.43947,12.7403,-13.5639,9.98471,2.68438,0.0526322,0.117391,-0.0686507,0.108265,-2.00143,0.276085,0.0655021,0.0135846,0.0592965,0.0359635,0.118083,-0.0612152,0.0696269,0.35083,0.000441229,2.78795,2.21598,-3.30498,-0.919163,-2.82202,-8.82759,0.110728,0.868412,-30.0035,0.26277,24.884,2.54211,0.37438,-0.0365141,
0.118641,-0.0686283,0.109655,-2.00359,0.283835,0.0709897,0.013636,0.08573,-0.0124876,0.0928251,-0.136845,0.709589,0.325217,0.00440933,-1.04717,1.6513,-0.940663,-0.929244,-19.8827,0.991762,-0.0385713,12.9629,-1.7121,13.6145,-14.0055,9.98471,2.1206,0.0432736,0.117391,-0.0686507,0.108265,-2.00143,0.276085,0.0655021,0.0135846,0.0592965,0.0359635,0.118083,-0.0612152,0.0696269,0.35083,0.000441229,0,0,0,0,0,0,0,0.868412,-30.0035,0.26277,24.884,2.54211,0.37438,-0.0365141,
0.119305,-0.0686529,0.110376,-2.00475,0.289512,0.0735148,0.013676,0.0851942,-0.0106055,0.0922864,-0.138416,0.709608,0.323301,0.00452828,-0.334853,1.17627,-0.336729,-0.981753,0.0120853,-1.19756,0.0743399,12.5445,-1.58018,13.1831,-13.7795,9.98471,2.42291,0.0494644,0.117391,-0.0686507,0.108265,-2.00143,0.276085,0.0655021,0.0135846,0.0592965,0.0359635,0.118083,-0.0612152,0.0696269,0.35083,0.000441229,0,0,0,0,0,0,0,0.868412,-30.0035,0.26277,24.884,2.54211,0.37438,-0.0365141,
0.120003,-0.0686757,0.111131,-2.0059,0.295871,0.0759826,0.0137189,0.0856095,-0.00905605,0.092698,-0.139362,0.726652,0.320335,0.00469402,0.259586,0.968436,0.257283,-0.591773,10.6524,-1.85334,0.10359,12.109,-1.43947,12.7403,-13.5639,9.98471,2.68438,0.0526322,0.117391,-0.0686507,0.108265,-2.00143,0.276085,0.0655021,0.0135846,0.0592965,0.0359635,0.118083,-0.0612152,0.0696269,0.35083,0.000441229,0,0,0,0,0,0,0,0.868412,-30.0035,0.26277,24.884,2.54211,0.37438,-0.0365141,
0.120736,-0.0686937,0.111919,-2.00702,0.302626,0.0784414,0.013764,0.0867968,-0.00769406,0.0938577,-0.139494,0.750213,0.317739,0.00488318,0.742011,0.85124,0.724785,-0.0819723,14.7253,-1.62233,0.118223,11.6747,-1.21907,12.3391,-13.3469,9.98752,2.86379,0.0543326,0.119612,-0.0676133,0.112758,-2.0034,0.27909,0.0756279,0.0135786,0.0682445,0.0376593,0.119911,-0.0705312,0.0905022,0.268211,-0.00147173,1.1185,0.211971,0.228464,-1.1645,2.60941,-10.3274,-0.23912,-1.71826,-31.0033,-1.96288,25.9314,2.30316,1.16356,0.017502,
0.120915,-0.0675376,0.1142,-2.00568,0.287089,0.0804531,0.0136353,0.0857603,-0.00579719,0.0929743,-0.141277,0.719398,0.314238,0.00478887,-0.647804,1.18555,-0.552108,-1.11453,-19.2594,-2.18851,-0.0589443,12.5477,-1.54367,13.1898,-13.8017,9.98752,2.39318,0.0495761,0.119612,-0.0676133,0.112758,-2.0034,0.27909,0.0756279,0.0135786,0.0682445,0.0376593,0.119911,-0.0705312,0.0905022,0.268211,-0.00147173,0,0,0,0,0,0,0,-1.71826,-31.0033,-1.96288,25.9314,2.30316,1.16356,0.017502,
0.121589,-0.0675285,0.114934,-2.00686,0.292852,0.0828276,0.0136762,0.0854598,-0.00440994,0.0927306,-0.142672,0.719603,0.310753,0.00485407,-0.187813,0.867029,-0.1523,-0.871872,0.128098,-2.17807,0.040748,12.1121,-1.40297,12.747,-13.5862,9.98752,2.65465,0.0527439,0.119612,-0.0676133,0.112758,-2.0034,0.27909,0.0756279,0.0135786,0.0682445,0.0376593,0.119911,-0.0705312,0.0905022,0.268211,-0.00147173,0,0,0,0,0,0,0,-1.71826,-31.0033,-1.96288,25.9314,2.30316,1.16356,0.017502,
0.122293,-0.0675166,0.115696,-2.00802,0.29921,0.0852076,0.0137206,0.0859836,-0.00323122,0.0932394,-0.143056,0.734628,0.308103,0.00499344,0.327388,0.7367,0.31796,-0.24033,9.3911,-1.65607,0.0871083,11.6747,-1.21907,12.3391,-13.3469,9.98752,2.86379,0.0543326,0.119612,-0.0676133,0.112758,-2.0034,0.27909,0.0756279,0.0135786,0.0682445,0.0376593,0.119911,-0.0705312,0.0905022,0.268211,-0.00147173,0,0,0,0,0,0,0,-1.71826,-31.0033,-1.96288,25.9314,2.30316,1.16356,0.017502,
0.123044,-0.0675037,0.116499,-2.00913,0.305617,0.0876129,0.0137687,0.0875468,-0.00226102,0.0946725,-0.142099,0.747874,0.306613,0.00519834,0.976991,0.606375,0.895686,0.598124,8.27841,-0.931568,0.128064,11.2775,-1.02051,11.9509,-13.0844,9.7484,3.03424,0.0560804,0.119612,-0.0676133,0.112758,-2.0034,0.27909,0.0756279,0.0135786,0.0682445,0.0376593,0.119911,-0.0705312,0.0905022,0.268211,-0.00147173,0,0,0,0,0,0,0,-1.71826,-31.0033,-1.96288,25.9314,2.30316,1.16356,0.017502,
0.123024,-0.0664609,0.118808,-2.0082,0.291427,0.0861876,0.0136407,0.0867688,-0.00208069,0.0940972,-0.143852,0.720033,0.296858,0.00507247,-0.4862,0.112706,-0.359543,-1.09571,-17.4004,-6.09666,-0.0786693,12.119,-1.38319,12.7571,-13.5924,9.98532,2.64444,0.0527992,0.121682,-0.0664575,0.117322,-2.00588,0.283203,0.0822514,0.0135802,0.0542401,0.0264988,0.140789,-0.0722824,0.10917,0.155496,-0.000809461,-1.75055,-1.39506,2.60974,-0.218895,2.33354,-14.0894,0.0827833,-0.476498,-30.8763,-0.911547,25.1578,2.60894,1.34209,0.00376909,
0.123712,-0.0664581,0.119556,-2.0094,0.297202,0.0883557,0.0136834,0.0866139,-0.00159427,0.0939885,-0.144873,0.720409,0.291687,0.00512529,-0.0968537,0.304012,-0.0679078,-0.638055,0.234725,-3.23164,0.0330135,11.6815,-1.19929,12.3492,-13.3531,9.98532,2.85358,0.0543879,0.121682,-0.0664575,0.117322,-2.00588,0.283203,0.0822514,0.0135802,0.0542401,0.0264988,0.140789,-0.0722824,0.10917,0.155496,-0.000809461,0,0,0,0,0,0,0,-0.476498,-30.8763,-0.911547,25.1578,2.60894,1.34209,0.00376909,
0.124442,-0.0664439,0.120341,-2.01053,0.303222,0.0906087,0.013731,0.0875377,-0.000920741,0.0948025,-0.144354,0.726816,0.289677,0.00528886,0.577356,0.420958,0.50874,0.324871,4.00474,-1.25681,0.102233,11.2843,-1.00073,11.9609,-13.0906,9.7462,3.02404,0.0561357,0.121682,-0.0664575,0.117322,-2.00588,0.283203,0.0822514,0.0135802,0.0542401,0.0264988,0.140789,-0.0722824,0.10917,0.155496,-0.000809461,0,0,0,0,0,0,0,-0.476498,-30.8763,-0.911547,25.1578,2.60894,1.34209,0.00376909,
0.125214,-0.0664281,0.121165,-2.01162,0.309111,0.092941,0.0137798,0.0893471,-0.000339623,0.0964413,-0.142581,0.728673,0.290049,0.00545226,1.1309,0.363199,1.02424,1.10801,1.16042,0.232975,0.102122,10.9248,-0.826918,11.5984,-12.8252,8.46531,3.15135,0.0572554,0.121682,-0.0664575,0.117322,-2.00588,0.283203,0.0822514,0.0135802,0.0542401,0.0264988,0.140789,-0.0722824,0.10917,0.155496,-0.000809461,0,0,0,0,0,0,0,-0.476498,-30.8763,-0.911547,25.1578,2.60894,1.34209,0.00376909,
0.124613,-0.0648909,0.123947,-2.01083,0.295032,0.0882452,0.0136475,0.0877231,0.000288695,0.0950207,-0.145244,0.702303,0.274214,0.00534492,-1.01496,0.392698,-0.887883,-1.66458,-16.4809,-9.89708,-0.0670845,11.6874,-1.18882,12.3569,-13.3463,9.98234,2.86004,0.0544007,0.123321,-0.0649505,0.122508,-2.00842,0.286934,0.0852859,0.013582,0.0425047,0.0323334,0.142887,-0.0703984,0.102402,0.0291369,-0.000158103,-1.46692,0.729323,0.262275,0.235491,-0.845998,-15.7949,0.0814197,-0.67883,-30.1781,-0.986925,22.3212,2.15667,0.997854,-0.00996382,
0.125302,-0.0648539,0.124693,-2.01203,0.300381,0.0901713,0.0136941,0.0873929,0.00115624,0.094659,-0.146285,0.695559,0.267524,0.00544177,-0.206433,0.542213,-0.226044,-0.650564,-4.21512,-4.18141,0.0605264,11.2902,-0.990262,11.9686,-13.0838,9.74322,3.0305,0.0561486,0.123321,-0.0649505,0.122508,-2.00842,0.286934,0.0852859,0.013582,0.0425047,0.0323334,0.142887,-0.0703984,0.102402,0.0291369,-0.000158103,0,0,0,0,0,0,0,-0.67883,-30.1781,-0.986925,22.3212,2.15667,0.997854,-0.00996382,
0.126036,-0.0648106,0.125479,-2.01317,0.305811,0.0922725,0.0137429,0.0882594,0.00200911,0.0953921,-0.145544,0.692189,0.266549,0.00557254,0.541579,0.533048,0.458212,0.463132,-2.10619,-0.609389,0.0817305,10.9306,-0.81645,11.6061,-12.8184,8.46232,3.15781,0.0572683,0.123321,-0.0649505,0.122508,-2.00842,0.286934,0.0852859,0.013582,0.0425047,0.0323334,0.142887,-0.0703984,0.102402,0.0291369,-0.000158103,0,0,0,0,0,0,0,-0.67883,-30.1781,-0.986925,22.3212,2.15667,0.997854,-0.00996382,
0.124618,-0.0648731,0.123949,-2.01078,0.294586,0.0883169,0.0136519,0.0870703,0.00241032,0.0943217,-0.14679,0.663434,0.256445,0.00551535,-0.743167,0.250754,-0.669025,-0.778678,-17.9721,-6.31508,-0.0357418,11.2902,-0.990262,11.9686,-13.0838,9.74322,3.0305,0.0561486,0.123321,-0.0649505,0.122508,-2.00842,0.286934,0.0852859,0.013582,0.0425047,0.0323334,0.142887,-0.0703984,0.102402,0.0291369,-0.000158103,0,0,0,0,0,0,0,-0.67883,-30.1781,-0.986925,22.3212,2.15667,0.997854,-0.00996382,
0.125315,-0.0648302,0.124701,-2.01195,0.299384,0.0902911,0.0136991,0.0870674,0.00300172,0.094249,-0.146684,0.650674,0.25451,0.00559175,-0.00183514,0.369625,-0.0454228,0.0659854,-7.97489,-1.20915,0.047751,10.9298,-0.803403,11.6058,-12.7915,8.4578,3.18124,0.0571888,0.125004,-0.0632778,0.127855,-2.01091,0.290025,0.0856436,0.0135831,0.0588045,0.0575735,0.159764,-0.0731374,0.0560111,0.0124298,-0.0004245,2.03747,3.15502,2.10956,-0.342375,-5.79893,-2.08839,-0.0332995,0.309024,-28.9046,-0.0387439,20.5518,1.96167,0.593191,-0.0227812,
0.126052,-0.0647838,0.12549,-2.01306,0.304187,0.0924373,0.0137475,0.0880873,0.00356127,0.0951193,-0.145099,0.640627,0.257263,0.00568362,0.637424,0.349719,0.543946,0.990703,-6.27969,1.72039,0.0574176,10.6075,-0.66954,11.2745,-12.5374,7.33218,3.26628,0.0569718,0.125004,-0.0632778,0.127855,-2.01091,0.290025,0.0856436,0.0135831,0.0588045,0.0575735,0.159764,-0.0731374,0.0560111,0.0124298,-0.0004245,0,0,0,0,0,0,0,0.309024,-28.9046,-0.0387439,20.5518,1.96167,0.593191,-0.0227812,
0.126825,-0.0647424,0.126312,-2.01412,0.308762,0.0947114,0.0137966,0.0898047,0.00388364,0.0966605,-0.142436,0.62688,0.262663,0.00577462,1.0734,0.201483,0.963193,1.66447,-8.59146,3.37515,0.0568734,10.3372,-0.566751,10.992,-12.2898,6.32707,3.31613,0.0564292,0.125004,-0.0632778,0.127855,-2.01091,0.290025,0.0856436,0.0135831,0.0588045,0.0575735,0.159764,-0.0731374,0.0560111,0.0124298,-0.0004245,0,0,0,0,0,0,0,0.309024,-28.9046,-0.0387439,20.5518,1.96167,0.593191,-0.0227812,
0.126474,-0.062966,0.129473,-2.01333,0.296486,0.0885239,0.0136502,0.0901228,0.0063576,0.0971822,-0.145046,0.59516,0.251683,0.00563268,0.198839,1.54622,0.326081,-1.63128,-19.8251,-6.86221,-0.0887093,10.9298,-0.803403,11.6058,-12.7915,8.4578,3.18124,0.0571888,0.125004,-0.0632778,0.127855,-2.01091,0.290025,0.0856436,0.0135831,0.0588045,0.0575735,0.159764,-0.0731374,0.0560111,0.0124298,-0.0004245,0,0,0,0,0,0,0,0.309024,-28.9046,-0.0387439,20.5518,1.96167,0.593191,-0.0227812,
0.127221,-0.0628506,0.130275,-2.01453,0.300607,0.0904408,0.0136955,0.0907634,0.00796928,0.097813,-0.145808,0.579163,0.249268,0.00564086,0.400368,1.00731,0.394288,-0.476399,-9.99833,-1.50961,0.00511457,10.6109,-0.688985,11.279,-12.5203,7.33231,3.27962,0.0569286,0.126571,-0.0620089,0.132655,-2.01353,0.290714,0.0855328,0.0135817,0.0384674,0.0496341,0.145961,-0.0758621,-0.00969312,-0.00259228,-8.90494e-05,-2.54214,-0.99243,-1.72529,-0.340587,-8.21302,-1.87776,0.0419313,0.765262,-31.7253,0.163588,26.2805,2.04132,1.34209,-0.00996382,
0.127991,-0.0627498,0.131098,-2.01565,0.30473,0.0925377,0.0137432,0.0918655,0.00889582,0.0988055,-0.144723,0.566417,0.251838,0.00570375,0.688795,0.579084,0.620268,0.678372,-7.9661,1.60629,0.0393021,10.3406,-0.586196,10.9965,-12.2727,6.32721,3.32947,0.056386,0.126571,-0.0620089,0.132655,-2.01353,0.290714,0.0855328,0.0135817,0.0384674,0.0496341,0.145961,-0.0758621,-0.00969312,-0.00259228,-8.90494e-05,0,0,0,0,0,0,0,0.765262,-31.7253,0.163588,26.2805,2.04132,1.34209,-0.00996382,
0.128784,-0.062667,0.13194,-2.01671,0.308644,0.0947681,0.013792,0.0933166,0.00918704,0.100105,-0.142304,0.550962,0.25723,0.00578242,0.906915,0.182013,0.811993,1.51193,-9.6593,3.36989,0.0491705,10.12,-0.510584,10.7631,-12.0299,5.41229,3.36182,0.0568111,0.126571,-0.0620089,0.132655,-2.01353,0.290714,0.0855328,0.0135817,0.0384674,0.0496341,0.145961,-0.0758621,-0.00969312,-0.00259228,-8.90494e-05,0,0,0,0,0,0,0,0.765262,-31.7253,0.163588,26.2805,2.04132,1.34209,-0.00996382,
0.127875,-0.0617399,0.134099,-2.01591,0.29571,0.0883374,0.0136544,0.0911467,0.0102358,0.0980737,-0.144291,0.515361,0.246969,0.00568411,-1.35616,0.655501,-1.26935,-1.24182,-22.2509,-6.41287,-0.0614433,10.6109,-0.688985,11.279,-12.5203,7.33231,3.27962,0.0569286,0.126571,-0.0620089,0.132655,-2.01353,0.290714,0.0855328,0.0135817,0.0384674,0.0496341,0.145961,-0.0758621,-0.00969312,-0.00259228,-8.90494e-05,0,0,0,0,0,0,0,0.765262,-31.7253,0.163588,26.2805,2.04132,1.34209,-0.00996382,
0.128565,-0.0616324,0.134842,-2.01708,0.299063,0.0902671,0.0137014,0.090154,0.0108755,0.0970444,-0.144568,0.496113,0.24582,0.00572185,-0.620429,0.399787,-0.643293,-0.173566,-12.0301,-0.718188,0.0235892,10.3429,-0.601341,10.9984,-12.2458,6.33126,3.34821,0.0562807,0.128019,-0.0606447,0.137308,-2.01611,0.290702,0.0854264,0.0135862,0.042288,0.0290978,0.135205,-0.0786544,-0.00500057,-0.0112156,0.00115306,0.477584,-2.56703,-1.34452,-0.34904,0.586568,-1.07792,0.155264,0.638309,-32.6259,0.187391,29.2203,1.88202,2.13769,-0.050247,
0.129287,-0.0615356,0.135615,-2.01818,0.302445,0.0923883,0.0137503,0.0901828,0.0111204,0.0969562,-0.143141,0.481433,0.249685,0.00580031,0.0179879,0.153093,-0.055125,0.892219,-9.17481,2.41536,0.0490358,10.1223,-0.525729,10.765,-12.003,5.41634,3.38056,0.0567058,0.128019,-0.0606447,0.137308,-2.01611,0.290702,0.0854264,0.0135862,0.042288,0.0290978,0.135205,-0.0786544,-0.00500057,-0.0112156,0.00115306,0,0,0,0,0,0,0,0.638309,-32.6259,0.187391,29.2203,1.88202,2.13769,-0.050247,
0.129319,-0.0605374,0.138737,-2.01839,0.295026,0.0881465,0.0136634,0.088649,0.0101333,0.0954843,-0.143571,0.449414,0.240346,0.00573771,-0.958628,-0.616999,-0.919941,-0.268715,-20.0121,-5.83682,-0.0391262,10.3429,-0.601341,10.9984,-12.2458,6.33126,3.34821,0.0562807,0.128019,-0.0606447,0.137308,-2.01611,0.290702,0.0854264,0.0135862,0.042288,0.0290978,0.135205,-0.0786544,-0.00500057,-0.0112156,0.00115306,0,0,0,0,0,0,0,0.638309,-32.6259,0.187391,29.2203,1.88202,2.13769,-0.050247,
0.130009,-0.0604786,0.13948,-2.01951,0.297894,0.0900774,0.0137113,0.0881781,0.00957587,0.0949429,-0.142732,0.431244,0.24055,0.00578718,-0.294313,-0.348363,-0.338386,0.524116,-11.3561,0.127414,0.0309175,10.1223,-0.525729,10.765,-12.003,5.41634,3.38056,0.0567058,0.128019,-0.0606447,0.137308,-2.01611,0.290702,0.0854264,0.0135862,0.042288,0.0290978,0.135205,-0.0786544,-0.00500057,-0.0112156,0.00115306,0,0,0,0,0,0,0,0.638309,-32.6259,0.187391,29.2203,1.88202,2.13769,-0.050247,
0.130731,-0.0604188,0.14025,-2.02056,0.300765,0.0922123,0.0137613,0.0885806,0.00915641,0.0952174,-0.140583,0.41677,0.245813,0.00588118,0.251575,-0.262161,0.171533,1.343,-9.0461,3.28984,0.0587503,9.94194,-0.49877,10.5711,-11.7389,4.59757,3.40972,0.057303,0.129452,-0.0596133,0.141268,-2.01919,0.290504,0.0854226,0.0135806,0.0379132,0.0135982,0.111107,-0.0958552,-0.0126045,-0.00454172,-0.00106297,-0.54686,-1.93745,-3.01222,-2.15009,-0.950493,0.834236,-0.277004,-0.222592,-31.8761,-0.76079,26.6058,1.88202,1.99853,-0.00996382,
0.131479,-0.0603662,0.141045,-2.02157,0.303472,0.0944862,0.0138127,0.0895686,0.00863991,0.0960566,-0.137515,0.401077,0.253498,0.00598887,0.617502,-0.322816,0.524501,1.9179,-9.80832,4.80306,0.0673088,9.79063,-0.468644,10.4067,-11.5047,3.85276,3.4103,0.0588018,0.129452,-0.0596133,0.141268,-2.01919,0.290504,0.0854226,0.0135806,0.0379132,0.0135982,0.111107,-0.0958552,-0.0126045,-0.00454172,-0.00106297,0,0,0,0,0,0,0,-0.222592,-31.8761,-0.76079,26.6058,1.88202,1.99853,-0.00996382,
0.130634,-0.0595748,0.142569,-2.02145,0.293993,0.0881078,0.0136656,0.086936,0.00756864,0.0934576,-0.138401,0.37309,0.243079,0.00596348,-1.64537,-0.66954,-1.62434,-0.553907,-17.4916,-6.51223,-0.0158708,10.1234,-0.55032,10.7661,-11.9772,5.41999,3.39845,0.0566128,0.129452,-0.0596133,0.141268,-2.01919,0.290504,0.0854226,0.0135806,0.0379132,0.0135982,0.111107,-0.0958552,-0.0126045,-0.00454172,-0.00106297,0,0,0,0,0,0,0,-0.222592,-31.8761,-0.76079,26.6058,1.88202,1.99853,-0.00996382,
0.131287,-0.0595312,0.143272,-2.02253,0.29633,0.0900416,0.0137158,0.0858875,0.00714461,0.0923451,-0.137852,0.356906,0.242807,0.00602744,-0.655306,-0.265022,-0.69534,0.342862,-10.1152,-0.169796,0.0399781,9.94194,-0.49877,10.5711,-11.7389,4.59757,3.40972,0.057303,0.129452,-0.0596133,0.141268,-2.01919,0.290504,0.0854226,0.0135806,0.0379132,0.0135982,0.111107,-0.0958552,-0.0126045,-0.00454172,-0.00106297,0,0,0,0,0,0,0,-0.222592,-31.8761,-0.76079,26.6058,1.88202,1.99853,-0.00996382,
0.131979,-0.0594826,0.144011,-2.02356,0.298665,0.0921863,0.0137677,0.0859977,0.00693145,0.0923485,-0.135986,0.343906,0.247863,0.00611795,0.0688562,-0.133221,0.00215579,1.16648,-8.12509,3.15997,0.0565688,9.79063,-0.468644,10.4067,-11.5047,3.85276,3.4103,0.0588018,0.129452,-0.0596133,0.141268,-2.01919,0.290504,0.0854226,0.0135806,0.0379132,0.0135982,0.111107,-0.0958552,-0.0126045,-0.00454172,-0.00106297,0,0,0,0,0,0,0,-0.222592,-31.8761,-0.76079,26.6058,1.88202,1.99853,-0.00996382,
0.132701,-0.0594387,0.144779,-2.02454,0.300855,0.0944711,0.0138208,0.0868521,0.00664122,0.093081,-0.133212,0.32986,0.255412,0.00622284,0.533982,-0.181396,0.45782,1.73401,-8.77877,4.71798,0.0655527,9.65912,-0.457116,10.2618,-11.2743,3.19042,3.39571,0.0603202,0.129452,-0.0596133,0.141268,-2.01919,0.290504,0.0854226,0.0135806,0.0379132,0.0135982,0.111107,-0.0958552,-0.0126045,-0.00454172,-0.00106297,0,0,0,0,0,0,0,-0.222592,-31.8761,-0.76079,26.6058,1.88202,1.99853,-0.00996382,
0.130652,-0.059569,0.142583,-2.0214,0.293419,0.0880851,0.0136693,0.0849988,0.00600941,0.0912663,-0.134297,0.307445,0.244343,0.00619339,-1.15829,-0.394881,-1.13419,-0.678331,-14.0091,-6.91795,-0.0184039,9.94194,-0.49877,10.5711,-11.7389,4.59757,3.40972,0.057303,0.129452,-0.0596133,0.141268,-2.01919,0.290504,0.0854226,0.0135806,0.0379132,0.0135982,0.111107,-0.0958552,-0.0126045,-0.00454172,-0.00106297,0,0,0,0,0,0,0,-0.222592,-31.8761,-0.76079,26.6058,1.88202,1.99853,-0.00996382,
0.131312,-0.0595263,0.143291,-2.02246,0.295354,0.0900072,0.0137208,0.0845059,0.0058753,0.0907272,-0.133954,0.294344,0.243526,0.00624296,-0.30805,-0.0838188,-0.336949,0.214678,-8.18798,-0.5107,0.0309826,9.79063,-0.468644,10.4067,-11.5047,3.85276,3.4103,0.0588018,0.129452,-0.0596133,0.141268,-2.01919,0.290504,0.0854226,0.0135806,0.0379132,0.0135982,0.111107,-0.0958552,-0.0126045,-0.00454172,-0.00106297,0,0,0,0,0,0,0,-0.222592,-31.8761,-0.76079,26.6058,1.88202,1.99853,-0.00996382,
0.132007,-0.0594801,0.144032,-2.02346,0.29727,0.0921376,0.013774,0.0849704,0.0058562,0.0911075,-0.132313,0.283371,0.248081,0.00632506,0.290279,-0.0119371,0.23767,1.02541,-6.85846,2.84695,0.051307,9.65912,-0.457116,10.2618,-11.2743,3.19042,3.39571,0.0603202,0.129452,-0.0596133,0.141268,-2.01919,0.290504,0.0854226,0.0135806,0.0379132,0.0135982,0.111107,-0.0958552,-0.0126045,-0.00454172,-0.00106297,0,0,0,0,0,0,0,-0.222592,-31.8761,-0.76079,26.6058,1.88202,1.99853,-0.00996382,
0.132202,-0.0586459,0.146039,-2.02461,0.291542,0.0884235,0.0136758,0.082726,0.00531569,0.0888669,-0.132583,0.259512,0.240772,0.00632335,-1.40275,-0.337819,-1.40034,-0.16868,-14.912,-4.56835,-0.00106354,9.78822,-0.492369,10.4038,-11.4772,3.85877,3.42774,0.0587156,0.131071,-0.0586905,0.144802,-2.0225,0.289427,0.0855552,0.0135825,0.0458084,0.0155458,0.0890045,-0.0882074,-0.0433984,0.0118453,0.000295353,0.98691,0.243444,-2.76287,0.955974,-3.84924,2.04838,0.16979,-1.94836,-30.678,-2.28819,22.5671,1.44897,1.49499,-0.050247,
0.132837,-0.0586084,0.146721,-2.02564,0.293031,0.0904158,0.0137292,0.0820507,0.00518985,0.0881327,-0.131731,0.244832,0.242423,0.00639342,-0.422047,-0.0786464,-0.458886,0.532387,-9.17462,1.03237,0.043792,9.65671,-0.480841,10.259,-11.2469,3.19643,3.41315,0.060234,0.131071,-0.0586905,0.144802,-2.0225,0.289427,0.0855552,0.0135825,0.0458084,0.0155458,0.0890045,-0.0882074,-0.0433984,0.0118453,0.000295353,0,0,0,0,0,0,0,-1.94836,-30.678,-2.28819,22.5671,1.44897,1.49499,-0.050247,
0.133509,-0.0585685,0.147438,-2.02661,0.294511,0.0925959,0.0137839,0.0824393,0.0051512,0.0884351,-0.129792,0.232857,0.248443,0.00648194,0.242888,-0.0241581,0.188972,1.21195,-7.48432,3.76237,0.0553276,9.5386,-0.485232,10.1281,-11.02,2.60416,3.39101,0.0621715,0.131071,-0.0586905,0.144802,-2.0225,0.289427,0.0855552,0.0135825,0.0458084,0.0155458,0.0890045,-0.0882074,-0.0433984,0.0118453,0.000295353,0,0,0,0,0,0,0,-1.94836,-30.678,-2.28819,22.5671,1.44897,1.49499,-0.050247,
0.13421,-0.0585343,0.148182,-2.02755,0.295876,0.0948942,0.0138396,0.0834614,0.00497582,0.0893611,-0.127098,0.22043,0.256211,0.00657816,0.638801,-0.109616,0.578783,1.6835,-7.76682,4.85483,0.0601364,9.42702,-0.50288,10.0037,-10.7963,2.08466,3.35769,0.0638957,0.131071,-0.0586905,0.144802,-2.0225,0.289427,0.0855552,0.0135825,0.0458084,0.0155458,0.0890045,-0.0882074,-0.0433984,0.0118453,0.000295353,0,0,0,0,0,0,0,-1.94836,-30.678,-2.28819,22.5671,1.44897,1.49499,-0.050247,
0.133473,-0.0579174,0.148891,-2.02738,0.289768,0.0888564,0.0136819,0.0802091,0.00449091,0.0860861,-0.127149,0.201103,0.249184,0.0066002,-2.03267,-0.303067,-2.04687,-0.0315705,-12.0796,-4.39167,0.0137741,9.65357,-0.505694,10.2555,-11.2237,3.20238,3.42728,0.0601601,0.132466,-0.0579652,0.147787,-2.02539,0.288203,0.0858445,0.0135828,0.0417402,0.0221874,0.0668879,-0.0683657,-0.0511531,0.00978691,0.0002251,-0.508526,0.830208,-2.76458,2.48021,-0.969336,-0.257302,-0.00878166,-3.19012,-30.8763,-3.51012,22.9916,1.43615,1.38878,-0.050247,
0.134068,-0.0578885,0.149531,-2.02837,0.290895,0.0909129,0.0137376,0.0790294,0.00431518,0.0848479,-0.126394,0.189053,0.250762,0.00667128,-0.737359,-0.109829,-0.773883,0.471463,-7.53123,0.986204,0.0444216,9.53546,-0.510086,10.1246,-10.9968,2.61011,3.40514,0.0620976,0.132466,-0.0579652,0.147787,-2.02539,0.288203,0.0858445,0.0135828,0.0417402,0.0221874,0.0668879,-0.0683657,-0.0511531,0.00978691,0.0002251,0,0,0,0,0,0,0,-3.19012,-30.8763,-3.51012,22.9916,1.43615,1.38878,-0.050247,
0.134707,-0.057858,0.150213,-2.02931,0.292006,0.0931415,0.0137942,0.0792026,0.00421456,0.0849487,-0.124692,0.179025,0.256323,0.00675307,0.108258,-0.0628884,0.0629946,1.06412,-6.26767,3.47544,0.051121,9.42388,-0.527734,10.0002,-10.7731,2.09061,3.37181,0.0638217,0.132466,-0.0579652,0.147787,-2.02539,0.288203,0.0858445,0.0135828,0.0417402,0.0221874,0.0668879,-0.0683657,-0.0511531,0.00978691,0.0002251,0,0,0,0,0,0,0,-3.19012,-30.8763,-3.51012,22.9916,1.43615,1.38878,-0.050247,
0.135379,-0.0578331,0.150928,-2.03022,0.293019,0.0954715,0.0138514,0.0801682,0.00399453,0.0858373,-0.122297,0.168534,0.26331,0.00683075,0.603519,-0.137518,0.555374,1.49688,-6.55658,4.36671,0.0485494,9.31539,-0.556233,9.87951,-10.5521,1.63262,3.33318,0.0656759,0.132466,-0.0579652,0.147787,-2.02539,0.288203,0.0858445,0.0135828,0.0417402,0.0221874,0.0668879,-0.0683657,-0.0511531,0.00978691,0.0002251,0,0,0,0,0,0,0,-3.19012,-30.8763,-3.51012,22.9916,1.43615,1.38878,-0.050247,
0.133486,-0.0579143,0.148901,-2.02734,0.289358,0.0888136,0.0136862,0.0777344,0.00371322,0.083389,-0.122737,0.153434,0.254263,0.00684498,-1.52113,-0.175822,-1.5302,-0.275005,-9.43779,-5.65423,0.00889459,9.53351,-0.519243,10.1211,-10.9726,2.61784,3.42021,0.0620191,0.133797,-0.0571622,0.150338,-2.02765,0.286851,0.0859826,0.0135795,0.0391208,0.0432956,0.0738033,-0.0635038,-0.0333599,0.005153,-0.00050173,-0.327424,2.63852,0.864419,0.60773,2.22416,-0.579239,-0.0908538,0.00751081,-30.3526,-0.435472,24.1382,1.57074,1.12328,-0.0301054,
0.134085,-0.0578874,0.149543,-2.02831,0.290203,0.090843,0.0137433,0.0771489,0.00364119,0.0827622,-0.122328,0.143877,0.254147,0.00690353,-0.365955,-0.0450159,-0.391763,0.255624,-5.97301,-0.0724259,0.0365912,9.42193,-0.536891,9.99672,-10.749,2.09834,3.38688,0.0637432,0.133797,-0.0571622,0.150338,-2.02765,0.286851,0.0859826,0.0135795,0.0391208,0.0432956,0.0738033,-0.0635038,-0.0333599,0.005153,-0.00050173,0,0,0,0,0,0,0,0.00751081,-30.3526,-0.435472,24.1382,1.57074,1.12328,-0.0301054,
0.134725,-0.0578604,0.150225,-2.02923,0.291026,0.0930403,0.013801,0.0777169,0.0035885,0.0832772,-0.120946,0.135676,0.258249,0.00696467,0.355016,-0.0329346,0.321881,0.863801,-5.12535,2.56359,0.0382141,9.31344,-0.565391,9.87599,-10.528,1.64035,3.34825,0.0655973,0.133797,-0.0571622,0.150338,-2.02765,0.286851,0.0859826,0.0135795,0.0391208,0.0432956,0.0738033,-0.0635038,-0.0333599,0.005153,-0.00050173,0,0,0,0,0,0,0,0.00751081,-30.3526,-0.435472,24.1382,1.57074,1.12328,-0.0301054,
0.135394,-0.0578397,0.150937,-2.03011,0.291759,0.0953352,0.0138591,0.0789189,0.00338996,0.0844212,-0.118846,0.126877,0.263972,0.00702327,0.751258,-0.124088,0.714983,1.31206,-5.49971,3.57724,0.0366258,9.20397,-0.602504,9.75436,-10.3096,1.24448,3.3017,0.0671095,0.133797,-0.0571622,0.150338,-2.02765,0.286851,0.0859826,0.0135795,0.0391208,0.0432956,0.0738033,-0.0635038,-0.0333599,0.005153,-0.00050173,0,0,0,0,0,0,0,0.00751081,-30.3526,-0.435472,24.1382,1.57074,1.12328,-0.0301054,
0.13485,-0.0569439,0.151483,-2.0296,0.287823,0.0889066,0.0136855,0.0771083,0.00487086,0.0826056,-0.120016,0.116499,0.254126,0.00703512,-1.13161,0.925564,-1.13472,-0.730828,-6.48601,-6.15393,0.00740913,9.42307,-0.558628,9.99766,-10.7302,2.10244,3.39849,0.0636714,0.134718,-0.0565821,0.152729,-2.02972,0.286186,0.0860037,0.0135764,0.0148601,0.0241871,0.0727763,-0.0600593,-0.000122852,-0.00754403,-0.00104441,-3.03259,-2.38857,-0.128366,0.430566,4.15463,-1.58713,-0.0678356,0.793033,-31.9991,0.314344,27.1255,1.5158,1.46203,0.00376909,
0.135459,-0.0568735,0.152135,-2.03056,0.28847,0.0908989,0.0137437,0.0769115,0.00565902,0.0823799,-0.120147,0.10938,0.253109,0.00708124,-0.123048,0.492604,-0.141044,-0.0822901,-4.44971,-0.635735,0.0288231,9.31458,-0.587128,9.87693,-10.5092,1.64445,3.35986,0.0655255,0.134718,-0.0565821,0.152729,-2.02972,0.286186,0.0860037,0.0135764,0.0148601,0.0241871,0.0727763,-0.0600593,-0.000122852,-0.00754403,-0.00104441,0,0,0,0,0,0,0,0.793033,-31.9991,0.314344,27.1255,1.5158,1.46203,0.00376909,
0.136105,-0.0568171,0.152823,-2.03148,0.289074,0.093052,0.0138022,0.0776759,0.00593546,0.0831037,-0.119131,0.102598,0.256315,0.00712893,0.477771,0.172773,0.452353,0.635079,-4.23874,2.00374,0.0298074,9.20511,-0.624241,9.7553,-10.2908,1.24858,3.31331,0.0670376,0.134718,-0.0565821,0.152729,-2.02972,0.286186,0.0860037,0.0135764,0.0148601,0.0241871,0.0727763,-0.0600593,-0.000122852,-0.00754403,-0.00104441,0,0,0,0,0,0,0,0.793033,-31.9991,0.314344,27.1255,1.5158,1.46203,0.00376909,
0.135671,-0.0565329,0.153768,-2.03155,0.287067,0.0888265,0.013691,0.0751373,0.00512763,0.0804894,-0.118739,0.0944039,0.247164,0.00720059,-1.58664,-0.504897,-1.63396,0.244874,-5.12124,-5.71935,0.0447875,9.31458,-0.587128,9.87693,-10.5092,1.64445,3.35986,0.0655255,0.134718,-0.0565821,0.152729,-2.02972,0.286186,0.0860037,0.0135764,0.0148601,0.0241871,0.0727763,-0.0600593,-0.000122852,-0.00754403,-0.00104441,0,0,0,0,0,0,0,0.793033,-31.9991,0.314344,27.1255,1.5158,1.46203,0.00376909,
0.136252,-0.0565168,0.15439,-2.03246,0.287548,0.0908052,0.0137513,0.0746384,0.00450541,0.0799319,-0.117827,0.087545,0.2472,0.00726811,-0.311789,-0.388886,-0.348387,0.57016,-4.28677,0.0227063,0.0421951,9.20369,-0.636372,9.75277,-10.2741,1.25033,3.3235,0.0669834,0.135418,-0.05592,0.154897,-2.03129,0.286007,0.0859906,0.0135806,0.01779,0.019348,0.0703857,-0.0321322,-0.00150553,-0.00222333,0.00049778,0.366236,-0.604883,-0.298835,3.49089,-0.172835,0.665087,0.192774,1.37622,-32.4513,0.937208,27.0264,1.46728,1.62774,-0.0429228,
0.136876,-0.0565029,0.155054,-2.03334,0.287964,0.0929523,0.0138112,0.0753122,0.00395224,0.0805579,-0.116173,0.0804212,0.251436,0.00731192,0.421114,-0.345733,0.391247,1.03405,-4.45241,2.64752,0.0273851,9.09189,-0.680119,9.62935,-10.0577,0.906752,3.2735,0.0684448,0.135418,-0.05592,0.154897,-2.03129,0.286007,0.0859906,0.0135806,0.01779,0.019348,0.0703857,-0.0321322,-0.00150553,-0.00222333,0.00049778,0,0,0,0,0,0,0,1.37622,-32.4513,0.937208,27.0264,1.46728,1.62774,-0.0429228,
0.137529,-0.056496,0.155747,-2.03418,0.288288,0.0951932,0.0138707,0.0765705,0.00333372,0.0817734,-0.113956,0.0724422,0.257172,0.00733773,0.786439,-0.386573,0.759648,1.38574,-4.98684,3.58459,0.0161297,8.97559,-0.728722,9.50158,-9.84322,0.614724,3.21831,0.0695316,0.135418,-0.05592,0.154897,-2.03129,0.286007,0.0859906,0.0135806,0.01779,0.019348,0.0703857,-0.0321322,-0.00150553,-0.00222333,0.00049778,0,0,0,0,0,0,0,1.37622,-32.4513,0.937208,27.0264,1.46728,1.62774,-0.0429228,
0.136375,-0.0559979,0.155935,-2.03292,0.286696,0.0890193,0.0136964,0.0742762,0.00150601,0.0794021,-0.112602,0.0672762,0.250315,0.00738579,-1.43392,-1.14232,-1.48205,0.845779,-3.22875,-4.28526,0.0300399,9.20369,-0.636372,9.75277,-10.2741,1.25033,3.3235,0.0669834,0.135418,-0.05592,0.154897,-2.03129,0.286007,0.0859906,0.0135806,0.01779,0.019348,0.0703857,-0.0321322,-0.00150553,-0.00222333,0.00049778,0,0,0,0,0,0,0,1.37622,-32.4513,0.937208,27.0264,1.46728,1.62774,-0.0429228,
0.136955,-0.056034,0.156554,-2.03377,0.287033,0.0910731,0.0137573,0.07392,0.000303276,0.0789963,-0.111364,0.0622389,0.251596,0.0074293,-0.222647,-0.751706,-0.253606,0.773775,-3.1483,0.800473,0.0271913,9.0926,-0.689343,9.62891,-10.043,0.908605,3.2833,0.0683939,0.135778,-0.0551738,0.1574,-2.03261,0.285976,0.0859619,0.0135798,-0.00466043,0.00886002,0.0742918,-0.039282,0.00641168,-0.00929139,0.000104985,-2.80631,-1.311,0.48827,-0.893719,0.989652,-0.883507,-0.0490993,1.50318,-30.6264,1.23872,25.9076,1.43615,1.80627,-0.0227812,
0.137576,-0.0560631,0.157214,-2.03459,0.287297,0.0932717,0.0138176,0.0746485,-0.000484782,0.0796914,-0.109729,0.0563875,0.256243,0.00745111,0.455334,-0.492537,0.43442,1.02181,-3.65713,2.90441,0.01363,8.9763,-0.737945,9.50114,-9.82858,0.616578,3.22811,0.0694807,0.135778,-0.0551738,0.1574,-2.03261,0.285976,0.0859619,0.0135798,-0.00466043,0.00886002,0.0742918,-0.039282,0.00641168,-0.00929139,0.000104985,0,0,0,0,0,0,0,1.50318,-30.6264,1.23872,25.9076,1.43615,1.80627,-0.0227812,
0.138223,-0.0560914,0.1579,-2.03539,0.287474,0.0955437,0.0138772,0.0758916,-0.00109574,0.0809077,-0.107731,0.0495333,0.261795,0.00745204,0.776934,-0.381847,0.760168,1.24926,-4.28388,3.46999,0.000583998,8.85544,-0.789888,9.36931,-9.61562,0.367883,3.17096,0.0704156,0.135778,-0.0551738,0.1574,-2.03261,0.285976,0.0859619,0.0135798,-0.00466043,0.00886002,0.0742918,-0.039282,0.00641168,-0.00929139,0.000104985,0,0,0,0,0,0,0,1.50318,-30.6264,1.23872,25.9076,1.43615,1.80627,-0.0227812,
0.136655,-0.0553131,0.158355,-2.0342,0.286418,0.0888459,0.013702,0.072913,-0.00262354,0.0778372,-0.107038,0.0450873,0.252379,0.00753466,-1.86162,-0.954874,-1.91906,0.432722,-2.77877,-5.88493,0.0516344,9.0926,-0.689343,9.62891,-10.043,0.908605,3.2833,0.0683939,0.135778,-0.0551738,0.1574,-2.03261,0.285976,0.0859619,0.0135798,-0.00466043,0.00886002,0.0742918,-0.039282,0.00641168,-0.00929139,0.000104985,0,0,0,0,0,0,0,1.50318,-30.6264,1.23872,25.9076,1.43615,1.80627,-0.0227812,
0.137209,-0.0553663,0.158947,-2.03503,0.286579,0.0908482,0.0137643,0.0721929,-0.00342884,0.0770694,-0.106311,0.0400871,0.251961,0.00758405,-0.450084,-0.503318,-0.479836,0.454235,-3.12513,-0.261159,0.0308698,8.97623,-0.748583,9.50095,-9.81207,0.618898,3.23906,0.0694261,0.135941,-0.0545412,0.160145,-2.03411,0.285969,0.0860186,0.0135814,-7.73972e-05,0.0177571,0.0864144,-0.0399834,0.00368775,0.00212989,0.00100151,0.572878,1.11214,1.51533,-0.0876801,-0.340492,1.42766,0.112065,1.47541,-31.7769,1.08797,24.5627,1.54052,1.37505,-0.050247,
0.137808,-0.0554089,0.159584,-2.03583,0.286667,0.0930036,0.0138253,0.0727317,-0.00380779,0.0775847,-0.105125,0.0342759,0.255453,0.00759378,0.336734,-0.236839,0.322044,0.741565,-3.63199,2.18261,0.00608099,8.85537,-0.800526,9.36912,-9.5991,0.370204,3.1819,0.070361,0.135941,-0.0545412,0.160145,-2.03411,0.285969,0.0860186,0.0135814,-7.73972e-05,0.0177571,0.0864144,-0.0399834,0.00368775,0.00212989,0.00100151,0,0,0,0,0,0,0,1.47541,-31.7769,1.08797,24.5627,1.54052,1.37505,-0.050247,
0.138436,-0.0554482,0.16025,-2.03661,0.28668,0.0952364,0.0138854,0.0738797,-0.00402924,0.0787192,-0.103527,0.0277394,0.260184,0.00757596,0.717509,-0.138407,0.709047,0.999008,-4.08531,2.9567,-0.0111335,8.72899,-0.85448,9.23195,-9.38757,0.163293,3.12178,0.0709146,0.135941,-0.0545412,0.160145,-2.03411,0.285969,0.0860186,0.0135814,-7.73972e-05,0.0177571,0.0864144,-0.0399834,0.00368775,0.00212989,0.00100151,0,0,0,0,0,0,0,1.47541,-31.7769,1.08797,24.5627,1.54052,1.37505,-0.050247,
0.136899,-0.0546038,0.161182,-2.03569,0.286237,0.0889218,0.0137032,0.0721297,-0.00422416,0.0769165,-0.103533,0.0251438,0.250872,0.00762543,-1.09375,-0.121827,-1.12665,-0.00422969,-1.62225,-5.81978,0.0309187,8.97623,-0.748583,9.50095,-9.81207,0.618898,3.23906,0.0694261,0.135941,-0.0545412,0.160145,-2.03411,0.285969,0.0860186,0.0135814,-7.73972e-05,0.0177571,0.0864144,-0.0399834,0.00368775,0.00212989,0.00100151,0,0,0,0,0,0,0,1.47541,-31.7769,1.08797,24.5627,1.54052,1.37505,-0.050247,
0.137475,-0.0546385,0.161796,-2.03651,0.286288,0.0908938,0.013765,0.0721089,-0.00424735,0.0768741,-0.10331,0.0213857,0.249998,0.00764613,-0.0129613,-0.0144928,-0.0265427,0.139712,-2.34879,-0.546787,0.0129372,8.85537,-0.800526,9.36912,-9.5991,0.370204,3.1819,0.070361,0.135941,-0.0545412,0.160145,-2.03411,0.285969,0.0860186,0.0135814,-7.73972e-05,0.0177571,0.0864144,-0.0399834,0.00368775,0.00212989,0.00100151,0,0,0,0,0,0,0,1.47541,-31.7769,1.08797,24.5627,1.54052,1.37505,-0.050247,
0.138087,-0.0546701,0.162446,-2.0373,0.286267,0.0930068,0.0138256,0.0729893,-0.0041885,0.0777479,-0.102485,0.0165786,0.252822,0.00763317,0.550218,0.0367797,0.546151,0.515224,-3.00444,1.76517,-0.00810423,8.72812,-0.867324,9.23139,-9.37572,0.164448,3.12944,0.0708766,0.136219,-0.0539311,0.163135,-2.03509,0.285979,0.0860342,0.0135813,-0.000700637,0.0200504,0.0859657,-0.024209,0.0065447,-0.000226723,0.00033514,-0.0779049,0.28666,-0.0560876,1.97181,0.357119,-0.294576,-0.0832959,0.412174,-31.3762,0.0644055,24.6103,1.40594,1.40893,-0.050247,
0.137169,-0.054022,0.164162,-2.03657,0.28615,0.0889796,0.0137033,0.0713134,-0.00478213,0.0760068,-0.101642,0.0145532,0.245461,0.00767675,-1.04743,-0.371014,-1.08818,0.527011,-1.2659,-4.60082,0.0272385,8.8545,-0.813371,9.36856,-9.58725,0.371359,3.18956,0.070323,0.136219,-0.0539311,0.163135,-2.03509,0.285979,0.0860342,0.0135813,-0.000700637,0.0200504,0.0859657,-0.024209,0.0065447,-0.000226723,0.00033514,0,0,0,0,0,0,0,0.412174,-31.3762,0.0644055,24.6103,1.40594,1.40893,-0.050247,
0.13774,-0.0540741,0.164769,-2.03735,0.286117,0.0909586,0.0137652,0.0713201,-0.00512839,0.0759873,-0.100948,0.0108108,0.245843,0.00768963,0.00421427,-0.216417,-0.0121902,0.434151,-2.339,0.238909,0.00804951,8.72812,-0.867324,9.23139,-9.37572,0.164448,3.12944,0.0708766,0.136219,-0.0539311,0.163135,-2.03509,0.285979,0.0860342,0.0135813,-0.000700637,0.0200504,0.0859657,-0.024209,0.0065447,-0.000226723,0.00033514,0,0,0,0,0,0,0,0.412174,-31.3762,0.0644055,24.6103,1.40594,1.40893,-0.050247,
0.138345,-0.0541217,0.165412,-2.03812,0.286008,0.0930667,0.0138257,0.0721829,-0.00529247,0.0768434,-0.0998653,0.00591553,0.249376,0.00766315,0.539218,-0.102546,0.535027,0.676413,-3.05954,2.20847,-0.0165485,8.59687,-0.922166,9.08983,-9.16528,-0.00728097,3.06852,0.0712212,0.136219,-0.0539311,0.163135,-2.03509,0.285979,0.0860342,0.0135813,-0.000700637,0.0200504,0.0859657,-0.024209,0.0065447,-0.000226723,0.00033514,0,0,0,0,0,0,0,0.412174,-31.3762,0.0644055,24.6103,1.40594,1.40893,-0.050247,
0.138971,-0.0541692,0.166074,-2.03886,0.285834,0.0952362,0.0138848,0.073383,-0.00542134,0.0780429,-0.0984007,0.000390043,0.253738,0.00760828,0.750082,-0.0805427,0.749705,0.915378,-3.45343,2.7263,-0.0342941,8.46059,-0.988268,8.94434,-8.947,-0.144269,3.0122,0.0711892,0.136423,-0.053433,0.166035,-2.03574,0.285975,0.0860563,0.0135838,0.00508384,0.0198851,0.0845017,-0.0259687,0.00710302,-0.000800652,8.74293e-05,0.723059,-0.0206622,-0.183003,-0.219971,0.0697901,-0.0717411,-0.0309639,0.0828892,-30.0551,-0.411669,23.8129,1.39404,1.20934,-0.0429228,
0.137394,-0.0535202,0.16708,-2.0372,0.286024,0.0889158,0.0137061,0.0718189,-0.00574385,0.0764205,-0.0980298,-0.000227634,0.244996,0.00765731,-0.977543,-0.201573,-1.01397,0.231778,-0.386048,-5.46402,0.0306467,8.72818,-0.878657,9.23232,-9.36678,0.165971,3.13526,0.0708464,0.136423,-0.053433,0.166035,-2.03574,0.285975,0.0860563,0.0135838,0.00508384,0.0198851,0.0845017,-0.0259687,0.00710302,-0.000800652,8.74293e-05,0,0,0,0,0,0,0,0.0828892,-30.0551,-0.411669,23.8129,1.39404,1.20934,-0.0429228,
0.137968,-0.0535734,0.16769,-2.03797,0.28591,0.0908434,0.0137677,0.0718015,-0.00592536,0.0763835,-0.0976867,-0.00301529,0.244186,0.00766635,-0.0109137,-0.113443,-0.0231182,0.214464,-1.74229,-0.506222,0.00564581,8.59693,-0.933498,9.09076,-9.15635,-0.00575831,3.07434,0.071191,0.136423,-0.053433,0.166035,-2.03574,0.285975,0.0860563,0.0135838,0.00508384,0.0198851,0.0845017,-0.0259687,0.00710302,-0.000800652,8.74293e-05,0,0,0,0,0,0,0,0.0828892,-30.0551,-0.411669,23.8129,1.39404,1.20934,-0.0429228,
0.138572,-0.0536235,0.168331,-2.03872,0.285723,0.092899,0.0138277,0.0725489,-0.00599389,0.0771301,-0.0968815,-0.00709314,0.246739,0.00763254,0.467112,-0.0428309,0.466597,0.503226,-2.54865,1.59588,-0.0211274,8.46059,-0.988268,8.94434,-8.947,-0.144269,3.0122,0.0711892,0.136423,-0.053433,0.166035,-2.03574,0.285975,0.0860563,0.0135838,0.00508384,0.0198851,0.0845017,-0.0259687,0.00710302,-0.000800652,8.74293e-05,0,0,0,0,0,0,0,0.0828892,-30.0551,-0.411669,23.8129,1.39404,1.20934,-0.0429228,
0.139193,-0.0536744,0.16899,-2.03945,0.285479,0.0950161,0.0138861,0.0735778,-0.00606773,0.0781631,-0.0956387,-0.0117771,0.250318,0.00756629,0.643095,-0.0461469,0.645635,0.776802,-2.92747,2.23658,-0.0414071,8.32068,-1.06029,8.79672,-8.72732,-0.252676,2.95738,0.0709228,0.136585,-0.0530965,0.168954,-2.03674,0.285987,0.0860348,0.0135841,0.0131213,0.0151374,0.0869803,-0.0303913,0.0112801,-0.00298944,0.00122196,1.00468,-0.593465,0.309824,-0.552825,0.522138,-0.273598,0.141817,0.384403,-30.3288,0.0644055,24.5627,1.36291,1.31554,-0.0703886,
0.137609,-0.0532129,0.170052,-2.03818,0.285983,0.0887636,0.0137061,0.0725177,-0.00656083,0.077053,-0.0954495,-0.0108607,0.24054,0.00761044,-0.662579,-0.30819,-0.693817,0.118214,0.572733,-6.1115,0.0275936,8.59745,-0.951613,9.0932,-9.14519,-0.00371353,3.08157,0.0711522,0.136585,-0.0530965,0.168954,-2.03674,0.285987,0.0860348,0.0135841,0.0131213,0.0151374,0.0869803,-0.0303913,0.0112801,-0.00298944,0.00122196,0,0,0,0,0,0,0,0.384403,-30.3288,0.0644055,24.5627,1.36291,1.31554,-0.0703886,
0.138197,-0.0532764,0.170676,-2.03893,0.285827,0.0906241,0.013767,0.0727055,-0.00683512,0.0772282,-0.0952091,-0.0125876,0.238943,0.00761069,0.117362,-0.171427,0.109506,0.150254,-1.07932,-0.997733,0.000154914,8.46111,-1.00638,8.94678,-8.93584,-0.142224,3.01943,0.0711504,0.136585,-0.0530965,0.168954,-2.03674,0.285987,0.0860348,0.0135841,0.0131213,0.0151374,0.0869803,-0.0303913,0.0112801,-0.00298944,0.00122196,0,0,0,0,0,0,0,0.384403,-30.3288,0.0644055,24.5627,1.36291,1.31554,-0.0703886,
0.138808,-0.0533358,0.171324,-2.03966,0.285598,0.0926159,0.0138261,0.0734584,-0.0069535,0.0779855,-0.0944846,-0.0158034,0.240952,0.00756534,0.47059,-0.0739885,0.473312,0.452851,-2.00984,1.25536,-0.0283435,8.32068,-1.06029,8.79672,-8.72732,-0.252676,2.95738,0.0709228,0.136585,-0.0530965,0.168954,-2.03674,0.285987,0.0860348,0.0135841,0.0131213,0.0151374,0.0869803,-0.0303913,0.0112801,-0.00298944,0.00122196,0,0,0,0,0,0,0,0.384403,-30.3288,0.0644055,24.5627,1.36291,1.31554,-0.0703886,
0.137609,-0.0532129,0.170052,-2.03818,0.285983,0.0887636,0.0137061,0.0724222,-0.00726945,0.0769109,-0.0945262,-0.0140817,0.233047,0.00760968,-0.647653,-0.197469,-0.671618,-0.0260497,1.07602,-4.94073,0.0277126,8.46106,-1.02421,8.94786,-8.92491,-0.140729,3.02637,0.0711152,0.136772,-0.0526151,0.172069,-2.03773,0.28597,0.0860307,0.0135769,0.00725088,0.0117819,0.0889254,-0.0266489,0.00810089,-0.00410708,-0.000949818,-0.733797,-0.419436,0.243135,0.467798,-0.397405,-0.139706,-0.271473,-0.147213,-31.1263,-0.463243,25.2332,1.5094,1.39519,-0.00996382,
0.138346,-0.0528479,0.173752,-2.03983,0.28563,0.0905579,0.0137588,0.072331,-0.00777165,0.076799,-0.0938472,-0.0167348,0.232326,0.00759784,-0.0569602,-0.313878,-0.0699683,0.424399,-1.65815,-0.450379,-0.00740322,8.32064,-1.07811,8.7978,-8.71639,-0.251181,2.96431,0.0708876,0.136772,-0.0526151,0.172069,-2.03773,0.28597,0.0860307,0.0135769,0.00725088,0.0117819,0.0889254,-0.0266489,0.00810089,-0.00410708,-0.000949818,0,0,0,0,0,0,0,-0.147213,-31.1263,-0.463243,25.2332,1.5094,1.39519,-0.00996382,
0.138946,-0.05292,0.174387,-2.04054,0.285344,0.0925214,0.0138171,0.0728519,-0.00801977,0.07732,-0.0928247,-0.0205343,0.234949,0.00753716,0.32555,-0.155075,0.325627,0.639054,-2.37468,1.63962,-0.0379243,8.17629,-1.13047,8.64408,-8.50873,-0.335739,2.90238,0.0703436,0.136772,-0.0526151,0.172069,-2.03773,0.28597,0.0860307,0.0135769,0.00725088,0.0117819,0.0889254,-0.0266489,0.00810089,-0.00410708,-0.000949818,0,0,0,0,0,0,0,-0.147213,-31.1263,-0.463243,25.2332,1.5094,1.39519,-0.00996382,
0.139557,-0.0529903,0.175034,-2.04123,0.285015,0.0945472,0.0138736,0.073564,-0.00817365,0.0780382,-0.0914544,-0.0246563,0.238605,0.0074411,0.445072,-0.0961751,0.448899,0.856428,-2.57626,2.28459,-0.0600357,8.02916,-1.18077,8.48802,-8.30172,-0.398356,2.84118,0.0695617,0.136772,-0.0526151,0.172069,-2.03773,0.28597,0.0860307,0.0135769,0.00725088,0.0117819,0.0889254,-0.0266489,0.00810089,-0.00410708,-0.000949818,0,0,0,0,0,0,0,-0.147213,-31.1263,-0.463243,25.2332,1.5094,1.39519,-0.00996382,
0.138156,-0.0521344,0.176511,-2.03996,0.285781,0.0887185,0.0136986,0.0721563,-0.00828585,0.0765734,-0.0910829,-0.0236286,0.230315,0.00748641,-0.879824,-0.0701249,-0.915482,0.232177,0.642294,-5.18108,0.0283201,8.32002,-1.09312,8.79781,-8.70504,-0.249727,2.97176,0.070851,0.137157,-0.052023,0.175441,-2.03861,0.285962,0.0860352,0.0135783,0.0131095,0.0180613,0.0848596,-0.0231523,0.007351,-0.00103437,0.000205447,0.732327,0.78492,-0.508216,0.437079,-0.0937366,0.384089,0.144408,-0.119442,-31.1501,-0.411669,24.761,1.55243,1.32287,-0.0227812,
0.138727,-0.0522038,0.177116,-2.04068,0.285525,0.0905281,0.0137581,0.0719917,-0.00836485,0.0763927,-0.0907639,-0.0253047,0.22949,0.0074769,-0.102865,-0.0493744,-0.112944,0.199378,-1.04755,-0.515494,-0.00594167,8.17568,-1.14547,8.64409,-8.49738,-0.334286,2.90983,0.070307,0.137157,-0.052023,0.175441,-2.03861,0.285962,0.0860352,0.0135783,0.0131095,0.0180613,0.0848596,-0.0231523,0.007351,-0.00103437,0.000205447,0,0,0,0,0,0,0,-0.119442,-31.1501,-0.411669,24.761,1.55243,1.32287,-0.0227812,
0.139319,-0.0522715,0.177744,-2.04137,0.285205,0.0924577,0.0138154,0.0723974,-0.00838308,0.0768013,-0.0900199,-0.028246,0.231832,0.00741413,0.253566,-0.011394,0.255326,0.465022,-1.83832,1.46374,-0.0392321,8.02855,-1.19577,8.48803,-8.29037,-0.396903,2.84863,0.0695251,0.137157,-0.052023,0.175441,-2.03861,0.285962,0.0860352,0.0135783,0.0131095,0.0180613,0.0848596,-0.0231523,0.007351,-0.00103437,0.000205447,0,0,0,0,0,0,0,-0.119442,-31.1501,-0.411669,24.761,1.55243,1.32287,-0.0227812,
0.139921,-0.0523401,0.178382,-2.04205,0.284848,0.0944451,0.0138707,0.0729745,-0.00842198,0.0773861,-0.0888613,-0.0315299,0.23515,0.00731284,0.360653,-0.0243084,0.365502,0.72415,-2.05242,2.07377,-0.0633054,7.87897,-1.24358,8.32982,-8.08406,-0.439816,2.78855,0.0684808,0.137157,-0.052023,0.175441,-2.03861,0.285962,0.0860352,0.0135783,0.0131095,0.0180613,0.0848596,-0.0231523,0.007351,-0.00103437,0.000205447,0,0,0,0,0,0,0,-0.119442,-31.1501,-0.411669,24.761,1.55243,1.32287,-0.0227812,
0.13815,-0.0521327,0.176503,-2.03994,0.285729,0.0886541,0.0136974,0.0715737,-0.0084815,0.0759261,-0.0886318,-0.029875,0.226609,0.00736479,-0.875483,-0.0372039,-0.912496,0.143407,1.03432,-5.33826,0.0324636,8.17642,-1.16484,8.64652,-8.48568,-0.332042,2.91739,0.0702669,0.137497,-0.0515647,0.17895,-2.03956,0.285952,0.0860609,0.0135769,0.00866924,0.016886,0.0975773,-0.0300652,0.0167373,-0.00323164,-0.000663619,-0.555032,-0.146917,1.5897,-0.864116,1.17329,-0.274659,-0.108633,0.765262,-30.5272,0.338148,24.4873,1.67419,1.12328,-0.00996382,
0.138714,-0.0522034,0.177102,-2.04064,0.285443,0.0904207,0.0137559,0.0713611,-0.00855234,0.0756963,-0.0884154,-0.0310307,0.225453,0.00735484,-0.132847,-0.0442714,-0.1436,0.135224,-0.722326,-0.722753,-0.00621676,8.02929,-1.21514,8.49046,-8.27867,-0.394659,2.85619,0.069485,0.137497,-0.0515647,0.17895,-2.03956,0.285952,0.0860609,0.0135769,0.00866924,0.016886,0.0975773,-0.0300652,0.0167373,-0.00323164,-0.000663619,0,0,0,0,0,0,0,0.765262,-30.5272,0.338148,24.4873,1.67419,1.12328,-0.00996382,
0.139297,-0.0522731,0.17772,-2.04132,0.285099,0.0923049,0.0138121,0.0716852,-0.0085852,0.0760229,-0.0877541,-0.033441,0.227466,0.00728757,0.202507,-0.0205367,0.204094,0.413373,-1.50646,1.25823,-0.0420467,7.87971,-1.26295,8.33225,-8.07236,-0.437572,2.79612,0.0684408,0.137497,-0.0515647,0.17895,-2.03956,0.285952,0.0860609,0.0135769,0.00866924,0.016886,0.0975773,-0.0300652,0.0167373,-0.00323164,-0.000663619,0,0,0,0,0,0,0,0.765262,-30.5272,0.338148,24.4873,1.67419,1.12328,-0.00996382,
0.13989,-0.0523443,0.178348,-2.04198,0.284723,0.0942459,0.013866,0.0721632,-0.00864648,0.0765088,-0.0866641,-0.0361376,0.230499,0.00717857,0.298791,-0.0383056,0.303689,0.681205,-1.68535,1.89559,-0.0681248,7.72879,-1.30795,8.17311,-7.86658,-0.463769,2.73728,0.0671703,0.137497,-0.0515647,0.17895,-2.03956,0.285952,0.0860609,0.0135769,0.00866924,0.016886,0.0975773,-0.0300652,0.0167373,-0.00323164,-0.000663619,0,0,0,0,0,0,0,0.765262,-30.5272,0.338148,24.4873,1.67419,1.12328,-0.00996382,
0.138528,-0.0516637,0.180053,-2.04089,0.285768,0.0885362,0.0136937,0.0713155,-0.00852758,0.0756147,-0.0867778,-0.0331268,0.220984,0.00722518,-0.529817,0.0743155,-0.558791,-0.0710711,1.88172,-5.94699,0.029136,8.02929,-1.21514,8.49046,-8.27867,-0.394659,2.85619,0.069485,0.137497,-0.0515647,0.17895,-2.03956,0.285952,0.0860609,0.0135769,0.00866924,0.016886,0.0975773,-0.0300652,0.0167373,-0.00323164,-0.000663619,0,0,0,0,0,0,0,0.765262,-30.5272,0.338148,24.4873,1.67419,1.12328,-0.00996382,
0.139101,-0.0517313,0.18066,-2.04158,0.285495,0.0902287,0.0137508,0.0713779,-0.00851241,0.0756677,-0.0867271,-0.0333376,0.219099,0.00720672,0.0389716,0.00948063,0.0331188,0.0316817,-0.13171,-1.17788,-0.0115422,7.88024,-1.28508,8.33458,-8.06138,-0.435801,2.80285,0.0684054,0.137792,-0.0511646,0.182312,-2.04054,0.285969,0.0860429,0.0135777,0.00534649,0.00915646,0.103492,-0.0299789,0.00948474,-0.00549342,0.000325398,-0.415344,-0.966187,0.739305,0.0107958,-0.906575,-0.282723,0.123627,0.995365,-31.1263,0.536512,25.733,1.56433,1.27617,-0.0163725,
0.139688,-0.0518,0.181282,-2.04225,0.285161,0.0920436,0.0138054,0.0717918,-0.00852763,0.0760888,-0.0861465,-0.0350205,0.220653,0.00712974,0.258695,-0.00951013,0.263172,0.362892,-1.05185,0.971028,-0.0481121,7.72932,-1.33008,8.17544,-7.85561,-0.461998,2.74401,0.0671349,0.137792,-0.0511646,0.182312,-2.04054,0.285969,0.0860429,0.0135777,0.00534649,0.00915646,0.103492,-0.0299789,0.00948474,-0.00549342,0.000325398,0,0,0,0,0,0,0,0.995365,-31.1263,0.536512,25.733,1.56433,1.27617,-0.0163725,
0.138828,-0.0513288,0.18342,-2.04182,0.28571,0.0884348,0.0136925,0.0710231,-0.00911251,0.0752752,-0.0857547,-0.0329773,0.212031,0.00715181,-0.480409,-0.365552,-0.508456,0.244858,1.27701,-5.38846,0.0137945,7.88024,-1.28508,8.33458,-8.06138,-0.435801,2.80285,0.0684054,0.137792,-0.0511646,0.182312,-2.04054,0.285969,0.0860429,0.0135777,0.00534649,0.00915646,0.103492,-0.0299789,0.00948474,-0.00549342,0.000325398,0,0,0,0,0,0,0,0.995365,-31.1263,0.536512,25.733,1.56433,1.27617,-0.0163725,
0.139398,-0.0514172,0.184024,-2.04249,0.28542,0.0900856,0.013748,0.0710604,-0.0095006,0.075304,-0.0853231,-0.0336325,0.210895,0.00710988,0.0233167,-0.242558,0.0180061,0.269749,-0.409502,-0.709937,-0.0262026,7.72932,-1.33008,8.17544,-7.85561,-0.461998,2.74401,0.0671349,0.137792,-0.0511646,0.182312,-2.04054,0.285969,0.0860429,0.0135777,0.00534649,0.00915646,0.103492,-0.0299789,0.00948474,-0.00549342,0.000325398,0,0,0,0,0,0,0,0.995365,-31.1263,0.536512,25.733,1.56433,1.27617,-0.0163725,
0.13998,-0.0515024,0.18464,-2.04314,0.28508,0.0918606,0.0138009,0.0713896,-0.00972982,0.0756414,-0.0844737,-0.0354059,0.213092,0.00701185,0.20573,-0.143261,0.21085,0.530893,-1.10834,1.37293,-0.061268,7.57673,-1.39664,8.01696,-7.64222,-0.472918,2.69202,0.0656048,0.138079,-0.0508832,0.185268,-2.04148,0.285953,0.0860455,0.0135809,-0.000423258,0.00336384,0.0900508,-0.0250148,0.00599631,-0.00280634,0.000521385,-0.721219,-0.724078,-1.68011,0.620513,-0.436054,0.335885,0.0244984,0.590702,-31.1263,0.139784,25.4315,1.6687,1.26244,-0.0429228,
