xiao-wang007/linearmpc_panda/paper_data/panda_torque_PD_controller_opt_time_to_start_torque_rate_limiter_low_pass_filter/2/trajectory.csv
Commanded Joint 0 Position,Commanded Joint 1 Position,Commanded Joint 2 Position,Commanded Joint 3 Position,Commanded Joint 4 Position,Commanded Joint 5 Position,Commanded Joint 6 Position,Commanded Joint 0 Velocity,Commanded Joint 1 Velocity,Commanded Joint 2 Velocity,Commanded Joint 3 Velocity,Commanded Joint 4 Velocity,Commanded Joint 5 Velocity,Commanded Joint 6 Velocity,Commanded Joint 0 Acceleration,Commanded Joint 1 Acceleration,Commanded Joint 2 Acceleration,Commanded Joint 3 Acceleration,Commanded Joint 4 Acceleration,Commanded Joint 5 Acceleration,Commanded Joint 6 Acceleration,Commanded Joint 0 Torque,Commanded Joint 1 Torque,Commanded Joint 2 Torque,Commanded Joint 3 Torque,Commanded Joint 4 Torque,Commanded Joint 5 Torque,Commanded Joint 6 Torque,Actual Joint 0 Position,Actual Joint 1 Position,Actual Joint 2 Position,Actual Joint 3 Position,Actual Joint 4 Position,Actual Joint 5 Position,Actual Joint 6 Position,Actual Joint 0 Velocity,Actual Joint 1 Velocity,Actual Joint 2 Velocity,Actual Joint 3 Velocity,Actual Joint 4 Velocity,Actual Joint 5 Velocity,Actual Joint 6 Velocity,Actual Joint 0 Acceleration,Actual Joint 1 Acceleration,Actual Joint 2 Acceleration,Actual Joint 3 Acceleration,Actual Joint 4 Acceleration,Actual Joint 5 Acceleration,Actual Joint 6 Acceleration,Actual Joint 0 Torque,Actual Joint 1 Torque,Actual Joint 2 Torque,Actual Joint 3 Torque,Actual Joint 4 Torque,Actual Joint 5 Torque,Actual Joint 6 Torque,
0.0241117,0.00387417,-0.0530448,-1.7409,0.0297414,0.181988,-0.0316248,0.000381927,0.0218463,0.000345746,-0.032716,-0.00488231,0.0535973,-0.000400141,0.238704,13.6539,0.216091,-20.4475,-3.05145,33.4983,-0.250088,0.0575929,24.4805,0.0567043,-24.1907,-0.726398,2.06098,-0.0251106,0.024071,0.00236736,-0.0530808,-1.73796,0.0301058,0.176299,-0.0315508,-0.000902991,0.00163198,0.00158657,-0.00281247,-0.00055062,0.00154068,0.000332526,0,0,0,0,0,0,0,0.0313145,-34.919,0.0366345,26.8518,0.6488,3.13927,-0.0969389,
0.0240755,0.00240227,-0.0530761,-1.73798,0.0300988,0.176285,-0.0315509,0.000333184,0.0177124,0.000304341,-0.0263069,-0.00394172,0.0427273,-0.000321634,-0.0304646,-2.58369,-0.0258781,4.00567,0.58787,-6.79374,0.0490671,0.0518699,24.921,0.0463878,-24.1072,-0.726581,1.81001,-0.0235929,0.024071,0.00236736,-0.0530808,-1.73796,0.0301058,0.176299,-0.0315508,-0.000902991,0.00163198,0.00158657,-0.00281247,-0.00055062,0.00154068,0.000332526,0,0,0,0,0,0,0,0.0313145,-34.919,0.0366345,26.8518,0.6488,3.13927,-0.0969389,
0.0240763,0.00240984,-0.0530753,-1.73798,0.0300979,0.176279,-0.031551,0.000287429,0.0143593,0.000264502,-0.0211532,-0.00317733,0.0340438,-0.000258498,-0.0285964,-2.09569,-0.0248994,3.22104,0.477746,-5.42719,0.0394602,0.044666,25.4926,0.034667,-23.9992,-0.725926,1.46238,-0.0216242,0.024071,0.00236736,-0.0530808,-1.73796,0.0301058,0.176299,-0.0315508,-0.000902991,0.00163198,0.00158657,-0.00281247,-0.00055062,0.00154068,0.000332526,0,0,0,0,0,0,0,0.0313145,-34.919,0.0366345,26.8518,0.6488,3.13927,-0.0969389,
0.024077,0.00241596,-0.0530746,-1.73799,0.0300972,0.176274,-0.031551,0.000245864,0.0116404,0.000227691,-0.0170098,-0.00255853,0.0271172,-0.000207747,-0.0259787,-1.69928,-0.0230069,2.58964,0.386749,-4.32911,0.0317192,0.0386937,26.0183,0.0252169,-23.8323,-0.723677,1.07696,-0.01962,0.0240717,0.00237919,-0.053082,-1.7382,0.0301038,0.176621,-0.0315493,-0.000561917,0.000532135,0.000902902,-0.026768,-0.00133025,0.0566195,-0.000181614,0.0426343,-0.13748,-0.0854581,-2.99444,-0.0974536,6.88485,-0.0642674,0.0313145,-32.3244,0.0882092,23.8882,0.440975,3.49084,-0.110672,
0.0238537,0.00256766,-0.0533007,-1.73812,0.0368486,0.172054,-0.0315744,-0.000591777,0.00965677,-0.000597278,-0.0134171,0.0409991,-0.01019,-0.000202888,-0.523526,-1.23978,-0.515605,2.24546,27.2235,-23.317,0.00303694,0.485985,0.19988,0.486424,-0.287478,2.59248,-2.00272,-0.00185842,0.0240717,0.00237919,-0.053082,-1.7382,0.0301038,0.176621,-0.0315493,-0.000561917,0.000532135,0.000902902,-0.026768,-0.00133025,0.0566195,-0.000181614,0,0,0,0,0,0,0,0.0313145,-32.3244,0.0882092,23.8882,0.440975,3.49084,-0.110672,
0.0238333,0.00257712,-0.0533208,-1.73812,0.0386263,0.170711,-0.0315754,-0.000983921,0.00796197,-0.000979416,-0.0107129,0.0772429,-0.0417403,-0.000188066,-0.24509,-1.05925,-0.238837,1.69012,22.6524,-19.7189,0.00926338,0.48073,0.197316,0.481163,-0.28476,2.56878,-1.98605,-0.00181861,0.0240717,0.00237919,-0.053082,-1.7382,0.0301038,0.176621,-0.0315493,-0.000561917,0.000532135,0.000902902,-0.026768,-0.00133025,0.0566195,-0.000181614,0,0,0,0,0,0,0,0.0313145,-32.3244,0.0882092,23.8882,0.440975,3.49084,-0.110672,
0.0238231,0.00258456,-0.0533307,-1.73812,0.040435,0.169325,-0.0315762,-0.00104151,0.00655566,-0.00102978,-0.00868129,0.107011,-0.068041,-0.000171201,-0.0359922,-0.878943,-0.0314776,1.26975,18.6051,-16.438,0.0105407,0.475478,0.194727,0.475909,-0.282077,2.54506,-1.9693,-0.0017795,0.0240717,0.00237919,-0.053082,-1.7382,0.0301038,0.176621,-0.0315493,-0.000561917,0.000532135,0.000902902,-0.026768,-0.00133025,0.0566195,-0.000181614,0,0,0,0,0,0,0,0.0313145,-32.3244,0.0882092,23.8882,0.440975,3.49084,-0.110672,
0.0238219,0.00259137,-0.0533316,-1.73813,0.0422586,0.167914,-0.031577,-0.000863224,0.00541465,-0.000846727,-0.00715691,0.131198,-0.0896953,-0.000155895,0.111428,-0.713131,0.114409,0.952737,15.1166,-13.5339,0.00956605,0.469993,0.24357,0.470742,-0.287515,2.52129,-1.94435,-0.00182732,0.0240708,0.00305026,-0.0530897,-1.74237,0.0305324,0.180755,-0.0315538,-0.000240397,0.00469433,-0.00112042,-0.170041,0.0831019,0.00777327,-0.000959084,0.04019,0.520275,-0.252916,-17.9091,10.554,-6.10578,-0.0971837,0.134464,-27.5081,0.238966,21.9958,1.61377,1.04363,-0.0703886,
0.0238127,0.00438647,-0.0533478,-1.74316,0.0549991,0.160533,-0.0315908,-3.95615e-05,0.0084277,-2.72656e-06,-0.00903832,0.254509,-0.193339,-6.78831e-05,0.514789,1.88316,0.5275,-1.17588,77.0697,-64.7774,0.0550077,3.87092,0.961767,3.87104,-1.62808,9.48011,-7.29252,-0.000461134,0.0240708,0.00305026,-0.0530897,-1.74237,0.0305324,0.180755,-0.0315538,-0.000240397,0.00469433,-0.00112042,-0.170041,0.0831019,0.00777327,-0.000959084,0,0,0,0,0,0,0,0.134464,-27.5081,0.238966,21.9958,1.61377,1.04363,-0.0703886,
0.0238823,0.00452368,-0.0532772,-1.7433,0.0611163,0.155589,-0.031589,0.00170824,0.0101723,0.00176252,-0.0107608,0.356538,-0.27826,-7.35674e-06,1.09238,1.09038,1.10328,-1.07655,63.7677,-53.0756,0.0378289,3.7697,0.943406,3.77104,-1.58627,9.26262,-7.1278,-0.00106449,0.0240708,0.00305026,-0.0530897,-1.74237,0.0305324,0.180755,-0.0315538,-0.000240397,0.00469433,-0.00112042,-0.170041,0.0831019,0.00777327,-0.000959084,0,0,0,0,0,0,0,0.134464,-27.5081,0.238966,21.9958,1.61377,1.04363,-0.0703886,
0.0239905,0.00464361,-0.053168,-1.74345,0.0672802,0.150634,-0.0315871,0.00407347,0.011136,0.00414031,-0.0122632,0.439327,-0.346482,3.96335e-05,1.47827,0.602331,1.48612,-0.93902,51.7433,-42.6384,0.0293689,3.68244,0.919348,3.68651,-1.54368,9.02626,-6.97821,-0.000671665,0.0240708,0.00305026,-0.0530897,-1.74237,0.0305324,0.180755,-0.0315538,-0.000240397,0.00469433,-0.00112042,-0.170041,0.0831019,0.00777327,-0.000959084,0,0,0,0,0,0,0,0.134464,-27.5081,0.238966,21.9958,1.61377,1.04363,-0.0703886,
0.0241319,0.00475198,-0.0530258,-1.74359,0.073432,0.145715,-0.0315855,0.00679289,0.011618,0.00686672,-0.0135303,0.505257,-0.400175,7.17884e-05,1.69964,0.301257,1.70401,-0.791901,41.2063,-33.5585,0.0200968,3.57346,0.948145,3.57609,-1.57606,8.69232,-6.76977,0.00517148,0.024013,0.00385119,-0.0530405,-1.74627,0.0387243,0.172926,-0.0315531,0.00220067,0.0850933,0.0134002,-0.00507443,0.362853,-0.50557,-0.000966687,0.305133,10.0499,1.81508,20.6208,34.9689,-64.1679,-0.000950361,4.13745,-39.037,4.01185,29.5416,2.34069,0.586783,-0.0767973,
0.0272443,0.0032951,-0.0498241,-1.74947,0.0683647,0.131701,-0.0309876,0.0264436,0.00244353,0.0262981,-0.0300654,0.585322,-0.560589,0.00113258,12.2817,-5.73407,12.1446,-10.3345,50.0405,-100.258,0.662996,22.8526,-3.45459,22.814,-9.93144,10.8183,-14.1039,0.26337,0.024013,0.00385119,-0.0530405,-1.74627,0.0387243,0.172926,-0.0315531,0.00220067,0.0850933,0.0134002,-0.00507443,0.362853,-0.50557,-0.000966687,0,0,0,0,0,0,0,4.13745,-39.037,4.01185,29.5416,2.34069,0.586783,-0.0767973,
0.0281299,0.00303615,-0.0489464,-1.75028,0.0759564,0.122196,-0.0309512,0.0432949,-0.00451884,0.042981,-0.0442928,0.658049,-0.686101,0.00181583,10.5321,-4.35148,10.4268,-8.89207,45.4543,-78.4452,0.42703,19.9325,-5.28563,19.8344,-11.2238,10.8183,-14.1039,0.194214,0.024013,0.00385119,-0.0530405,-1.74627,0.0387243,0.172926,-0.0315531,0.00220067,0.0850933,0.0134002,-0.00507443,0.362853,-0.50557,-0.000966687,0,0,0,0,0,0,0,4.13745,-39.037,4.01185,29.5416,2.34069,0.586783,-0.0767973,
0.029048,0.00280708,-0.0480358,-1.75112,0.0837982,0.113019,-0.0309178,0.0575873,-0.00934179,0.0571483,-0.0564232,0.722486,-0.778285,0.0022873,8.93279,-3.01435,8.85462,-7.58153,40.2733,-57.6153,0.294667,17.5628,-5.0204,17.4306,-11.3255,10.8183,-14.1039,0.111839,0.024013,0.00385119,-0.0530405,-1.74627,0.0387243,0.172926,-0.0315531,0.00220067,0.0850933,0.0134002,-0.00507443,0.362853,-0.50557,-0.000966687,0,0,0,0,0,0,0,4.13745,-39.037,4.01185,29.5416,2.34069,0.586783,-0.0767973,
0.0277768,0.00449029,-0.0492328,-1.75119,0.067976,0.134724,-0.031255,0.0720621,-0.00562858,0.0718377,-0.0762529,0.755577,-0.831961,0.00301068,9.04672,2.32076,9.18084,-12.3935,20.6823,-33.5469,0.452112,23.7904,2.82972,23.8224,-17.8159,10.8183,-14.1039,0.0901689,0.024013,0.00385119,-0.0530405,-1.74627,0.0387243,0.172926,-0.0315531,0.00220067,0.0850933,0.0134002,-0.00507443,0.362853,-0.50557,-0.000966687,0,0,0,0,0,0,0,4.13745,-39.037,4.01185,29.5416,2.34069,0.586783,-0.0767973,
0.0288917,0.00458296,-0.0481137,-1.75252,0.075435,0.126766,-0.0312102,0.0855232,-0.00218612,0.0854464,-0.0941217,0.790939,-0.864529,0.0035287,8.41321,2.15154,8.50542,-11.168,22.1008,-20.3554,0.323766,22.2983,2.89548,22.3289,-17.3254,10.8183,-14.1039,0.0718803,0.024013,0.00385119,-0.0530405,-1.74627,0.0387243,0.172926,-0.0315531,0.00220067,0.0850933,0.0134002,-0.00507443,0.362853,-0.50557,-0.000966687,0,0,0,0,0,0,0,4.13745,-39.037,4.01185,29.5416,2.34069,0.586783,-0.0767973,
0.0300602,0.00469887,-0.0469419,-1.75389,0.0831625,0.119372,-0.0311657,0.0976303,0.00114894,0.0976516,-0.109743,0.825937,-0.876464,0.00393337,7.5669,2.08441,7.62825,-9.76348,21.8742,-7.45909,0.252916,21.0651,2.72328,21.0932,-16.9686,10.8183,-13.7833,0.0609755,0.024013,0.00385119,-0.0530405,-1.74627,0.0387243,0.172926,-0.0315531,0.00220067,0.0850933,0.0134002,-0.00507443,0.362853,-0.50557,-0.000966687,0,0,0,0,0,0,0,4.13745,-39.037,4.01185,29.5416,2.34069,0.586783,-0.0767973,
0.0312648,0.00483732,-0.0457345,-1.7553,0.091091,0.112623,-0.0311214,0.108221,0.00438037,0.108307,-0.123016,0.858962,-0.86991,0.00425407,6.61927,2.01965,6.65933,-8.29572,20.6405,4.09587,0.200436,20.0225,2.44691,20.0492,-16.6902,10.8183,-12.1832,0.0534531,0.024013,0.00385119,-0.0530405,-1.74627,0.0387243,0.172926,-0.0315531,0.00220067,0.0850933,0.0134002,-0.00507443,0.362853,-0.50557,-0.000966687,0,0,0,0,0,0,0,4.13745,-39.037,4.01185,29.5416,2.34069,0.586783,-0.0767973,
0.0282348,0.00371424,-0.048856,-1.75351,0.0676553,0.136936,-0.03133,0.115706,0.00135501,0.115533,-0.142767,0.863138,-0.88919,0.00433892,4.6778,-1.89085,4.51686,-12.3442,2.60983,-12.0496,0.0530311,25.7064,2.61985,25.4935,-24.322,10.5995,-14.0168,0.0639283,0.0237573,0.00535783,-0.0531723,-1.74686,0.070432,0.145775,-0.0313754,0.00624543,-0.0182346,0.0124903,-0.0825631,1.00931,-0.945251,0.0139465,0.505595,-12.916,-0.113746,-9.68608,80.8072,-54.9602,1.86415,8.60065,-38.5411,8.48695,20.401,3.11615,-2.49671,0.0101778,
0.0294842,0.00365377,-0.0476166,-1.75536,0.07506,0.129668,-0.0312927,0.123799,-0.000427633,0.12341,-0.160492,0.875628,-0.893044,0.00440362,5.0582,-1.11415,4.92299,-11.078,7.80601,-2.4087,0.0404407,24.2209,2.04378,24.0256,-24.0171,10.5995,-14.0168,0.0477864,0.0237573,0.00535783,-0.0531723,-1.74686,0.070432,0.145775,-0.0313754,0.00624543,-0.0182346,0.0124903,-0.0825631,1.00931,-0.945251,0.0139465,0,0,0,0,0,0,0,8.60065,-38.5411,8.48695,20.401,3.11615,-2.49671,0.0101778,
0.0307935,0.00362314,-0.0463176,-1.75725,0.0827442,0.122992,-0.0312531,0.131772,-0.00110798,0.131204,-0.175812,0.892609,-0.881344,0.00451187,4.98338,-0.425214,4.87097,-9.5752,10.613,7.31205,0.0676578,22.9936,1.50464,22.8121,-23.7441,10.5995,-12.8676,0.0411348,0.0237573,0.00535783,-0.0531723,-1.74686,0.070432,0.145775,-0.0313754,0.00624543,-0.0182346,0.0124903,-0.0825631,1.00931,-0.945251,0.0139465,0,0,0,0,0,0,0,8.60065,-38.5411,8.48695,20.401,3.11615,-2.49671,0.0101778,
0.0321435,0.00362126,-0.0449781,-1.75917,0.0906404,0.116968,-0.0312113,0.139167,-0.000933268,0.138451,-0.18861,0.91149,-0.855668,0.0046563,4.62191,0.109192,4.52945,-7.99858,11.8012,16.0477,0.0902676,21.9491,1.04738,21.7787,-23.4798,10.5995,-11.1783,0.0372174,0.0237573,0.00535783,-0.0531723,-1.74686,0.070432,0.145775,-0.0313754,0.00624543,-0.0182346,0.0124903,-0.0825631,1.00931,-0.945251,0.0139465,0,0,0,0,0,0,0,8.60065,-38.5411,8.48695,20.401,3.11615,-2.49671,0.0101778,
0.0289828,0.0037774,-0.0479236,-1.75665,0.107395,0.105655,-0.0311436,0.145689,-0.00560946,0.1451,-0.207674,0.920003,-0.870761,0.0045201,4.07587,-2.92262,4.15535,-11.9151,5.32036,-9.4329,-0.085127,26.5595,2.96478,26.5035,-30.5689,10.5995,-14.0168,0.0460623,0.0237573,0.00535783,-0.0531723,-1.74686,0.070432,0.145775,-0.0313754,0.00624543,-0.0182346,0.0124903,-0.0825631,1.00931,-0.945251,0.0139465,0,0,0,0,0,0,0,8.60065,-38.5411,8.48695,20.401,3.11615,-2.49671,0.0101778,
0.0304245,0.00364704,-0.0464834,-1.75899,0.115203,0.0988848,-0.031111,0.152592,-0.00774644,0.152083,-0.224465,0.931204,-0.865867,0.00443036,4.31492,-1.33561,4.36472,-10.4943,7.00084,3.05865,-0.0560884,25.1212,2.74687,25.068,-30.3831,10.4992,-13.2587,0.0332339,0.0253533,0.00390093,-0.0493602,-1.75314,0.108759,0.0968706,-0.0312788,0.104276,-0.0338204,0.148753,-0.268633,1.08799,-1.5801,0.000823909,12.2538,-1.94823,17.0329,-23.2587,9.83514,-79.3556,-1.64033,18.0111,-29.4798,17.3856,17.489,3.80645,-1.3697,-0.0163725,
0.0319077,0.0035716,-0.0450024,-1.76135,0.123161,0.0928361,-0.0310766,0.159155,-0.00808326,0.158693,-0.238682,0.943914,-0.843913,0.0044045,4.10177,-0.210515,4.13121,-8.88534,7.94346,13.7214,-0.0161601,23.8591,2.14396,23.8094,-30.0497,10.4992,-11.3809,0.0288381,0.0253533,0.00390093,-0.0493602,-1.75314,0.108759,0.0968706,-0.0312788,0.104276,-0.0338204,0.148753,-0.268633,1.08799,-1.5801,0.000823909,0,0,0,0,0,0,0,18.0111,-29.4798,17.3856,17.489,3.80645,-1.3697,-0.0163725,
0.0334136,0.00354116,-0.0434992,-1.76372,0.131239,0.087513,-0.0310404,0.164971,-0.00722764,0.164533,-0.250272,0.95709,-0.808206,0.00442896,3.63501,0.53476,3.65023,-7.24387,8.23482,22.3167,0.0152894,22.7877,1.65683,22.7413,-29.7153,10.4992,-9.70741,0.0267863,0.0253533,0.00390093,-0.0493602,-1.75314,0.108759,0.0968706,-0.0312788,0.104276,-0.0338204,0.148753,-0.268633,1.08799,-1.5801,0.000823909,0,0,0,0,0,0,0,18.0111,-29.4798,17.3856,17.489,3.80645,-1.3697,-0.0163725,
0.0329545,0.00354088,-0.0417729,-1.76742,0.149244,0.055248,-0.031103,0.173349,-0.00420703,0.172867,-0.273964,0.968806,-0.795529,0.00417844,5.23616,1.88789,5.20876,-14.8076,7.32302,7.92338,-0.156579,25.6429,4.38492,25.5301,-35.6124,10.4992,-10.8003,0.0385444,0.0253533,0.00390093,-0.0493602,-1.75314,0.108759,0.0968706,-0.0312788,0.104276,-0.0338204,0.148753,-0.268633,1.08799,-1.5801,0.000823909,0,0,0,0,0,0,0,18.0111,-29.4798,17.3856,17.489,3.80645,-1.3697,-0.0163725,
0.0346183,0.00363348,-0.0401145,-1.77036,0.157426,0.0502921,-0.0310741,0.180274,-0.00105065,0.179753,-0.292509,0.97961,-0.760321,0.00406467,4.32834,1.97274,4.30367,-11.5904,6.75213,22.0047,-0.0711057,24.5567,3.05727,24.4581,-34.8937,10.5402,-8.50384,0.0252797,0.0319945,0.000843103,-0.0424715,-1.76684,0.146477,0.0460734,-0.0312094,0.174143,-0.120781,0.342755,-0.479934,1.08318,-1.42155,-8.87775e-06,8.73339,-10.8701,24.2502,-26.4127,-0.601057,19.8183,-0.104098,15.8052,-26.7821,15.2631,22.8409,4.52057,0.400931,-0.0301054,
0.0362771,0.00374326,-0.0384613,-1.77326,0.165655,0.0462503,-0.0310389,0.185689,0.00190418,0.185133,-0.306569,0.989419,-0.709301,0.00413321,3.38383,1.84677,3.36247,-8.78781,6.13071,31.8875,0.0428388,23.3651,2.23265,23.2771,-34.5794,10.5402,-6.90078,0.0225766,0.0319945,0.000843103,-0.0424715,-1.76684,0.146477,0.0460734,-0.0312094,0.174143,-0.120781,0.342755,-0.479934,1.08318,-1.42155,-8.87775e-06,0,0,0,0,0,0,0,15.8052,-26.7821,15.2631,22.8409,4.52057,0.400931,-0.0301054,
0.0417903,-0.000550867,-0.0326907,-1.78481,0.189809,0.023379,-0.0311241,0.19501,-0.0005733,0.194439,-0.331313,1.00669,-0.603308,0.00393441,5.82564,-1.54842,5.81602,-15.4647,10.7958,66.2458,-0.12425,22.9347,-0.143452,22.8663,-40.7009,10.5402,-1.99956,0.00747482,0.0319945,0.000843103,-0.0424715,-1.76684,0.146477,0.0460734,-0.0312094,0.174143,-0.120781,0.342755,-0.479934,1.08318,-1.42155,-8.87775e-06,0,0,0,0,0,0,0,15.8052,-26.7821,15.2631,22.8409,4.52057,0.400931,-0.0301054,
0.0435929,-0.00060435,-0.0308929,-1.78817,0.198369,0.0229408,-0.0310903,0.201071,-0.00179572,0.200498,-0.349076,1.01935,-0.493601,0.00399347,3.78833,-0.764014,3.78687,-11.1021,7.90943,68.5667,0.0369143,21.9938,-0.684556,21.9321,-40.2996,10.5402,-0.754674,0.0109251,0.0319945,0.000843103,-0.0424715,-1.76684,0.146477,0.0460734,-0.0312094,0.174143,-0.120781,0.342755,-0.479934,1.08318,-1.42155,-8.87775e-06,0,0,0,0,0,0,0,15.8052,-26.7821,15.2631,22.8409,4.52057,0.400931,-0.0301054,
0.0453397,-0.000641438,-0.0291503,-1.79145,0.206881,0.0233197,-0.0310493,0.204528,-0.00236377,0.203961,-0.36129,1.02829,-0.385408,0.00421981,2.16043,-0.355027,2.16452,-7.63405,5.5908,67.6209,0.141461,21.5174,-0.965299,21.4619,-39.3729,10.5885,0.874488,0.0170221,0.0452897,-0.000580177,-0.0319236,-1.78454,0.186752,-0.00196376,-0.0311652,0.489937,-0.0823364,0.350233,-0.596255,1.18408,-1.26594,0.000647692,39.4743,4.80558,0.934704,-14.5401,12.6124,19.4518,0.0820712,12.1276,-26.31,11.76,20.3534,3.62884,1.37505,-0.0301054,
0.0470317,-0.000670312,-0.0274625,-1.79466,0.215348,0.0243699,-0.0310027,0.205923,-0.00261286,0.205366,-0.369114,1.03429,-0.282074,0.00454067,0.872317,-0.155682,0.877851,-4.88971,3.7486,64.5839,0.200538,20.7929,-1.14506,20.7425,-38.8926,10.5885,1.75827,0.0243901,0.0452897,-0.000580177,-0.0319236,-1.78454,0.186752,-0.00196376,-0.0311652,0.489937,-0.0823364,0.350233,-0.596255,1.18408,-1.26594,0.000647692,0,0,0,0,0,0,0,12.1276,-26.31,11.76,20.3534,3.62884,1.37505,-0.0301054,
0.0579731,-0.000597015,-0.0192675,-1.80529,0.234611,-0.00826135,-0.031094,0.218253,0.00155192,0.217792,-0.390191,1.05849,-0.172463,0.00452782,7.70578,2.60299,7.76641,-13.1729,15.1243,68.5068,-0.00803234,20.4288,0.383455,20.4638,-44.1619,10.5885,5.88606,0.00624601,0.0452897,-0.000580177,-0.0319236,-1.78454,0.186752,-0.00196376,-0.0311652,0.489937,-0.0823364,0.350233,-0.596255,1.18408,-1.26594,0.000647692,0,0,0,0,0,0,0,12.1276,-26.31,11.76,20.3534,3.62884,1.37505,-0.0301054,
0.0599762,-0.000446227,-0.0172644,-1.80895,0.243661,-0.00527782,-0.0310451,0.224681,0.00501124,0.224312,-0.403671,1.07303,-0.063382,0.00484303,4.0176,2.16208,4.07515,-8.42513,9.08583,68.1754,0.197002,19.9611,0.184537,19.9961,-43.6567,10.5885,6.3149,0.0226086,0.0452897,-0.000580177,-0.0319236,-1.78454,0.186752,-0.00196376,-0.0311652,0.489937,-0.0823364,0.350233,-0.596255,1.18408,-1.26594,0.000647692,0,0,0,0,0,0,0,12.1276,-26.31,11.76,20.3534,3.62884,1.37505,-0.0301054,
0.0618607,-0.000300843,-0.0153795,-1.8125,0.252537,-0.00166959,-0.0309849,0.226857,0.0076436,0.226572,-0.411504,1.08033,0.0395003,0.0053801,1.35986,1.64522,1.41219,-4.89581,4.56752,64.3014,0.335671,19.4831,-0.0121593,19.5182,-42.6625,10.4114,7.04469,0.0310912,0.0598327,-0.000244019,-0.0175584,-1.80853,0.231235,-0.0382428,-0.031147,0.434714,-0.0153682,0.459026,-0.875827,1.35748,-0.753959,-0.000975586,-6.90297,8.37102,13.5992,-34.9465,21.6749,63.9971,-0.20291,2.03479,-30.9041,1.78621,20.0519,2.27295,2.28417,-0.0227812,
0.0636407,-0.000164967,-0.0135989,-1.81593,0.261265,0.00238866,-0.0309136,0.225986,0.00951176,0.225773,-0.41516,1.08245,0.133056,0.00608655,-0.544364,1.1676,-0.499458,-2.2847,1.3205,58.4726,0.441531,19.0381,0.0413154,19.0742,-42.0846,10.4114,7.25128,0.0430406,0.0598327,-0.000244019,-0.0175584,-1.80853,0.231235,-0.0382428,-0.031147,0.434714,-0.0153682,0.459026,-0.875827,1.35748,-0.753959,-0.000975586,0,0,0,0,0,0,0,2.03479,-30.9041,1.78621,20.0519,2.27295,2.28417,-0.0227812,
0.072753,0.00200314,-0.0046617,-1.83229,0.280174,-0.0281772,-0.0309763,0.233347,0.016744,0.233099,-0.435225,1.09536,0.241088,0.00652732,4.60065,4.52017,4.57922,-12.5409,8.07298,67.5195,0.275485,17.1391,-1.86697,17.1725,-45.8219,10.4114,11.8059,0.0137176,0.0598327,-0.000244019,-0.0175584,-1.80853,0.231235,-0.0382428,-0.031147,0.434714,-0.0153682,0.459026,-0.875827,1.35748,-0.753959,-0.000975586,0,0,0,0,0,0,0,2.03479,-30.9041,1.78621,20.0519,2.27295,2.28417,-0.0227812,
0.0746828,0.00230486,-0.00273463,-1.83622,0.289122,-0.0220631,-0.0309064,0.234921,0.0209383,0.234656,-0.446226,1.09997,0.345723,0.00696941,0.983791,2.62142,0.972973,-6.87532,2.87985,65.3972,0.276305,17.1315,-1.70356,17.1619,-45.2057,10.4114,11.8059,0.0401881,0.0598327,-0.000244019,-0.0175584,-1.80853,0.231235,-0.0382428,-0.031147,0.434714,-0.0153682,0.459026,-0.875827,1.35748,-0.753959,-0.000975586,0,0,0,0,0,0,0,2.03479,-30.9041,1.78621,20.0519,2.27295,2.28417,-0.0227812,
0.0764908,0.00254595,-0.000928694,-1.83994,0.297377,-0.0155095,-0.0308362,0.233139,0.022778,0.232873,-0.450099,1.08635,0.440418,0.00732875,-1.11382,1.14979,-1.11422,-2.42103,-8.51074,59.1842,0.224587,16.9866,-2.00143,17.0152,-43.979,10.199,12.0953,0.0555481,0.0760022,-0.000268906,-0.00121943,-1.84287,0.279105,-0.0447356,-0.0311238,0.475456,-0.027701,0.473788,-1.03702,1.4802,0.0612293,-0.00132547,5.09283,-1.5416,1.84522,-20.1493,15.3402,101.899,-0.043736,-0.984311,-32.0982,-1.31224,27.8992,1.85821,4.25988,-0.0301054,
0.088956,0.00162988,0.011701,-1.86731,0.322348,-0.0247012,-0.0308983,0.238263,0.0230159,0.237947,-0.463621,1.02005,0.50834,0.00721869,3.20269,0.148694,3.17091,-8.45078,-41.4428,42.4513,-0.0687882,13.6857,-6.3824,13.7239,-48.3238,9.90077,12.0953,0.0565554,0.0760022,-0.000268906,-0.00121943,-1.84287,0.279105,-0.0447356,-0.0311238,0.475456,-0.027701,0.473788,-1.03702,1.4802,0.0612293,-0.00132547,0,0,0,0,0,0,0,-0.984311,-32.0982,-1.31224,27.8992,1.85821,4.25988,-0.0301054,
0.0908664,0.0017465,0.0136077,-1.87125,0.327048,-0.0178115,-0.0308404,0.238368,0.0213281,0.238026,-0.469229,0.93355,0.578916,0.00722263,0.0658292,-1.05489,0.0495284,-3.50507,-54.0601,44.1102,0.00246154,13.6099,-5.38598,13.6474,-47.5714,9.18501,12.0953,0.076279,0.0760022,-0.000268906,-0.00121943,-1.84287,0.279105,-0.0447356,-0.0311238,0.475456,-0.027701,0.473788,-1.03702,1.4802,0.0612293,-0.00132547,0,0,0,0,0,0,0,-0.984311,-32.0982,-1.31224,27.8992,1.85821,4.25988,-0.0301054,
0.0926451,0.00180824,0.0153834,-1.87501,0.330538,-0.0104251,-0.0307796,0.235164,0.0186061,0.234813,-0.469507,0.834078,0.647793,0.00729754,-2.00239,-1.70124,-2.00784,-0.174,-62.17,43.0479,0.0468211,13.4038,-4.346,13.4265,-46.7683,6.95534,12.0953,0.0805535,0.0760022,-0.000268906,-0.00121943,-1.84287,0.279105,-0.0447356,-0.0311238,0.475456,-0.027701,0.473788,-1.03702,1.4802,0.0612293,-0.00132547,0,0,0,0,0,0,0,-0.984311,-32.0982,-1.31224,27.8992,1.85821,4.25988,-0.0301054,
0.0943156,0.00183135,0.0170513,-1.87864,0.332951,-0.00265868,-0.0307136,0.229894,0.0154626,0.229546,-0.466297,0.727584,0.712394,0.00748862,-3.2941,-1.96467,-3.29193,2.0066,-66.5586,40.3757,0.119423,13.1895,-3.62074,13.2006,-45.6267,4.75958,12.2212,0.0754103,0.0922729,0.000710411,0.0156332,-1.87698,0.330081,-0.030405,-0.0310791,0.504104,0.0510581,0.454323,-1.04511,1.58104,0.753222,0.00151549,3.58092,9.84488,-2.43312,-1.01154,12.6047,86.4991,0.355121,-2.63073,-35.3713,-2.68492,30.9619,1.19171,6.67962,-0.0767973,
0.105638,0.00443246,0.028948,-1.89928,0.357947,-0.000933704,-0.0308266,0.236538,0.0221966,0.236092,-0.46801,0.643876,0.74613,0.00750498,4.15234,4.20875,4.09095,-1.07111,-52.318,21.0847,0.0102256,13.1047,-2.72011,13.1114,-44.7705,3.19837,12.2212,0.072251,0.0922729,0.000710411,0.0156332,-1.87698,0.330081,-0.030405,-0.0310791,0.504104,0.0510581,0.454323,-1.04511,1.58104,0.753222,0.00151549,0,0,0,0,0,0,0,-2.63073,-35.3713,-2.68492,30.9619,1.19171,6.67962,-0.0767973,
0.10756,0.0047121,0.0308637,-1.90292,0.359387,0.00653347,-0.0307588,0.23727,0.0247484,0.236767,-0.465441,0.551096,0.783583,0.00769938,0.457909,1.59487,0.421808,1.60605,-57.9872,23.4084,0.121498,13.1291,-1.96924,13.1332,-43.9257,1.88455,12.2212,0.0731185,0.0922729,0.000710411,0.0156332,-1.87698,0.330081,-0.030405,-0.0310791,0.504104,0.0510581,0.454323,-1.04511,1.58104,0.753222,0.00151549,0,0,0,0,0,0,0,-2.63073,-35.3713,-2.68492,30.9619,1.19171,6.67962,-0.0767973,
0.109332,0.00490828,0.0326309,-1.90643,0.359993,0.0143358,-0.0306857,0.234125,0.0247032,0.233594,-0.460187,0.45603,0.821926,0.00798659,-1.96554,-0.0282622,-1.98327,3.28382,-59.4164,23.9642,0.179506,13.228,-1.3753,13.2307,-43.1068,0.838762,12.2212,0.0733884,0.0922729,0.000710411,0.0156332,-1.87698,0.330081,-0.030405,-0.0310791,0.504104,0.0510581,0.454323,-1.04511,1.58104,0.753222,0.00151549,0,0,0,0,0,0,0,-2.63073,-35.3713,-2.68492,30.9619,1.19171,6.67962,-0.0767973,
0.110983,0.00504345,0.0342773,-1.90984,0.359931,0.0224043,-0.030607,0.228574,0.0231418,0.228034,-0.453322,0.363263,0.859253,0.00835625,-3.46968,-0.975836,-3.47444,4.29009,-57.979,23.3297,0.231041,13.3803,-0.928002,13.3819,-42.3167,-0.0384008,12.2212,0.0771907,0.0922729,0.000710411,0.0156332,-1.87698,0.330081,-0.030405,-0.0310791,0.504104,0.0510581,0.454323,-1.04511,1.58104,0.753222,0.00151549,0,0,0,0,0,0,0,-2.63073,-35.3713,-2.68492,30.9619,1.19171,6.67962,-0.0767973,
0.122679,0.0057641,0.045694,-1.93542,0.393179,0.0460069,-0.0306508,0.234673,0.0299958,0.234038,-0.451394,0.300786,0.875878,0.0085469,3.81226,4.28375,3.75247,1.20511,-39.0487,10.3906,0.119155,13.5186,-0.781257,13.5166,-41.3647,-0.823864,12.2079,0.0805376,0.109284,0.00141392,0.0323496,-1.9146,0.378755,0.00989984,-0.0309794,0.458394,0.041951,0.526872,-1.10537,1.26125,1.34157,0.00329475,-5.71365,-1.13839,9.06866,-7.53269,-39.9735,73.5436,0.222407,-7.34784,-39.2394,-7.56072,27.0026,-0.988163,3.41759,0.017502,
0.124561,0.0060937,0.0475688,-1.93884,0.392927,0.0537985,-0.0305708,0.234788,0.0322367,0.2341,-0.446641,0.234321,0.895491,0.00883922,0.0713392,1.40053,0.0384788,2.97055,-41.5402,12.2582,0.1827,13.6974,-0.565334,13.6947,-40.6322,-1.3639,12.2079,0.0852351,0.109284,0.00141392,0.0323496,-1.9146,0.378755,0.00989984,-0.0309794,0.458394,0.041951,0.526872,-1.10537,1.26125,1.34157,0.00329475,0,0,0,0,0,0,0,-7.34784,-39.2394,-7.56072,27.0026,-0.988163,3.41759,0.017502,
0.126289,0.00632881,0.0492908,-1.94216,0.392192,0.0618109,-0.0304871,0.23104,0.0316671,0.23033,-0.440152,0.169084,0.916704,0.00916401,-2.34245,-0.355957,-2.35605,4.05566,-40.773,13.2578,0.202996,13.862,-0.431444,13.8591,-39.9245,-1.74204,12.2079,0.0882239,0.109284,0.00141392,0.0323496,-1.9146,0.378755,0.00989984,-0.0309794,0.458394,0.041951,0.526872,-1.10537,1.26125,1.34157,0.00329475,0,0,0,0,0,0,0,-7.34784,-39.2394,-7.56072,27.0026,-0.988163,3.41759,0.017502,
0.122679,0.0057641,0.045694,-1.93542,0.393179,0.0460069,-0.0306508,0.236646,0.0368161,0.235875,-0.440858,0.145442,0.921838,0.00919311,3.50403,3.21809,3.46549,-0.441153,-14.7764,3.20925,0.0181851,14.1267,-0.334047,14.1235,-38.5659,-2.19317,12.2079,0.0948221,0.109284,0.00141392,0.0323496,-1.9146,0.378755,0.00989984,-0.0309794,0.458394,0.041951,0.526872,-1.10537,1.26125,1.34157,0.00329475,0,0,0,0,0,0,0,-7.34784,-39.2394,-7.56072,27.0026,-0.988163,3.41759,0.017502,
0.124732,0.00629701,0.047739,-1.93775,0.390571,0.0534257,-0.0305216,0.236592,0.0380904,0.235783,-0.433795,0.106485,0.931286,0.00941205,-0.0336746,0.796434,-0.0577546,4.41467,-24.3483,5.90445,0.136834,14.0062,-0.559248,14.0008,-38.075,-2.44412,12.0032,0.106255,0.12579,0.00169436,0.0491678,-1.94974,0.404346,0.0590055,-0.0308217,0.425132,-0.0290302,0.523322,-1.00284,0.538794,1.54363,0.00237608,-4.15787,-8.87265,-0.443835,12.8171,-90.3073,25.2573,-0.114833,-6.41156,-32.376,-6.4102,24.4635,-0.628361,3.09899,-0.0630644,
0.12646,0.00654455,0.04946,-1.94089,0.389826,0.0614007,-0.0304374,0.232471,0.0366609,0.231651,-0.425472,0.0665779,0.944404,0.00963526,-2.57569,-0.893416,-2.58198,5.20165,-24.9419,8.19914,0.139507,14.0637,-0.583934,14.0583,-37.428,-2.46503,12.0032,0.107677,0.12579,0.00169436,0.0491678,-1.94974,0.404346,0.0590055,-0.0308217,0.425132,-0.0290302,0.523322,-1.00284,0.538794,1.54363,0.00237608,0,0,0,0,0,0,0,-6.41156,-32.376,-6.4102,24.4635,-0.628361,3.09899,-0.0630644,
0.128055,0.00672081,0.0510492,-1.94393,0.388854,0.0695639,-0.0303519,0.22586,0.0337353,0.22505,-0.416476,0.0289609,0.959602,0.00984676,-4.13185,-1.82853,-4.12568,5.62236,-23.5106,9.49858,0.132192,14.092,-0.620243,14.0866,-36.7887,-2.4466,12.0032,0.109316,0.12579,0.00169436,0.0491678,-1.94974,0.404346,0.0590055,-0.0308217,0.425132,-0.0290302,0.523322,-1.00284,0.538794,1.54363,0.00237608,0,0,0,0,0,0,0,-6.41156,-32.376,-6.4102,24.4635,-0.628361,3.09899,-0.0630644,
0.138198,0.00478758,0.0615262,-1.96789,0.406573,0.0981385,-0.0304277,0.22797,0.0354694,0.227131,-0.410972,0.0101877,0.962614,0.00985584,1.31894,1.08381,1.30022,3.44,-11.7333,1.88259,0.0056745,14.0896,-0.660946,14.0843,-36.1556,-2.37553,12.0032,0.10964,0.12579,0.00169436,0.0491678,-1.94974,0.404346,0.0590055,-0.0308217,0.425132,-0.0290302,0.523322,-1.00284,0.538794,1.54363,0.00237608,0,0,0,0,0,0,0,-6.41156,-32.376,-6.4102,24.4635,-0.628361,3.09899,-0.0630644,
0.139909,0.00503192,0.0632305,-1.97088,0.405855,0.106006,-0.0303472,0.225153,0.0344841,0.224312,-0.403569,-0.00978405,0.966775,0.00989523,-1.7612,-0.615807,-1.76157,4.62702,-12.4823,2.60076,0.0246205,13.9074,-0.601589,13.8972,-35.6816,-2.2896,11.8631,0.113907,0.141888,0.00259366,0.0647841,-1.98309,0.41122,0.114213,-0.0306418,0.367061,0.0666889,0.538437,-0.959482,0.173398,1.66876,0.00437605,-7.25885,11.9649,1.88946,5.41949,-45.6745,15.6409,0.249996,-4.3565,-34.3199,-4.21233,29.0933,-0.0112951,3.35168,-0.0429228,
0.141474,0.00520609,0.0647887,-1.97376,0.405014,0.11383,-0.0302665,0.219226,0.0319416,0.218404,-0.394815,-0.0288568,0.96903,0.00993484,-3.70414,-1.58906,-3.69263,5.47134,-11.9205,1.40945,0.0247543,13.8524,-0.639598,13.8423,-35.0561,-2.16652,11.8631,0.11322,0.141888,0.00259366,0.0647841,-1.98309,0.41122,0.114213,-0.0306418,0.367061,0.0666889,0.538437,-0.959482,0.173398,1.66876,0.00437605,0,0,0,0,0,0,0,-4.3565,-34.3199,-4.21233,29.0933,-0.0112951,3.35168,-0.0429228,
0.142918,0.0053261,0.0662277,-1.97654,0.404104,0.121538,-0.0301857,0.21149,0.0285535,0.210699,-0.385284,-0.0458402,0.967928,0.00996706,-4.83522,-2.11755,-4.81557,5.95679,-10.6147,-0.688687,0.020138,13.7757,-0.673084,13.7656,-34.4329,-2.03483,11.8631,0.112447,0.141888,0.00259366,0.0647841,-1.98309,0.41122,0.114213,-0.0306418,0.367061,0.0666889,0.538437,-0.959482,0.173398,1.66876,0.00437605,0,0,0,0,0,0,0,-4.3565,-34.3199,-4.21233,29.0933,-0.0112951,3.35168,-0.0429228,
0.153282,0.00707256,0.0761269,-2.00076,0.408935,0.152859,-0.030265,0.211903,0.0349533,0.211047,-0.382057,-0.0543289,0.947875,0.00983007,0.258628,3.99986,0.217254,2.01711,-5.30543,-12.5334,-0.0856214,13.6782,-0.700176,13.6681,-33.8114,-1.888,11.8631,0.110895,0.141888,0.00259366,0.0647841,-1.98309,0.41122,0.114213,-0.0306418,0.367061,0.0666889,0.538437,-0.959482,0.173398,1.66876,0.00437605,0,0,0,0,0,0,0,-4.3565,-34.3199,-4.21233,29.0933,-0.0112951,3.35168,-0.0429228,
0.154826,0.00742295,0.0776632,-2.00358,0.408196,0.159629,-0.0301898,0.208125,0.0367223,0.207243,-0.376083,-0.0619546,0.927565,0.00974202,-2.36121,1.10562,-2.37706,3.73328,-4.76604,-12.694,-0.0550276,13.4445,-0.673297,13.4234,-33.4229,-1.74032,11.3114,0.112507,0.157245,0.00460535,0.0790859,-2.01305,0.410518,0.172132,-0.0305415,0.41329,0.110198,0.418007,-0.866624,-0.0755949,1.77334,0.00358335,5.77861,5.43858,-15.0538,11.6073,-31.1241,13.0732,-0.0990876,-3.44403,-37.6643,-3.31175,28.3237,0.635983,1.48858,0.0303194,
0.15624,0.00767262,0.0790706,-2.00628,0.407446,0.166235,-0.0301148,0.201862,0.0356196,0.200981,-0.368385,-0.0683109,0.907198,0.00966947,-3.9147,-0.689177,-3.91383,4.81138,-3.97273,-12.7294,-0.0453484,13.3151,-0.687888,13.2941,-32.8018,-1.59793,10.7967,0.11062,0.157245,0.00460535,0.0790859,-2.01305,0.410518,0.172132,-0.0305415,0.41329,0.110198,0.418007,-0.866624,-0.0755949,1.77334,0.00358335,0,0,0,0,0,0,0,-3.44403,-37.6643,-3.31175,28.3237,0.635983,1.48858,0.0303194,
0.157551,0.00784648,0.0803752,-2.00888,0.406704,0.172672,-0.0300405,0.194263,0.0328423,0.1934,-0.359663,-0.0731968,0.88669,0.00959395,-4.74963,-1.73583,-4.73829,5.45157,-3.05367,-12.8173,-0.0471999,13.1704,-0.697259,13.1496,-32.1792,-1.4691,10.3141,0.108893,0.157245,0.00460535,0.0790859,-2.01305,0.410518,0.172132,-0.0305415,0.41329,0.110198,0.418007,-0.866624,-0.0755949,1.77334,0.00358335,0,0,0,0,0,0,0,-3.44403,-37.6643,-3.31175,28.3237,0.635983,1.48858,0.0303194,
0.167352,0.00925345,0.0891185,-2.0293,0.406006,0.208178,-0.0302056,0.19307,0.0382418,0.192135,-0.355817,-0.0754871,0.857948,0.00935732,-0.745172,3.37473,-0.790399,2.40342,-1.4314,-17.9637,-0.147895,13.0088,-0.701105,12.9882,-31.5548,-1.34542,9.86287,0.106831,0.157245,0.00460535,0.0790859,-2.01305,0.410518,0.172132,-0.0305415,0.41329,0.110198,0.418007,-0.866624,-0.0755949,1.77334,0.00358335,0,0,0,0,0,0,0,-3.44403,-37.6643,-3.31175,28.3237,0.635983,1.48858,0.0303194,
0.168721,0.00959644,0.0904783,-2.0319,0.405385,0.213888,-0.0301378,0.188665,0.0391683,0.187702,-0.349588,-0.0758933,0.829103,0.00917937,-2.75305,0.579047,-2.77079,3.89338,-0.253896,-18.0283,-0.111216,12.8399,-0.740715,12.8049,-31.053,-1.1557,9.24508,0.105889,0.170758,0.00700616,0.0935198,-2.041,0.407932,0.232642,-0.0303644,0.489311,0.0896847,0.288468,-0.811969,-0.120132,1.74661,0.00434203,9.50273,-2.56411,-16.1923,6.83192,-5.56713,-3.34161,0.0948345,-3.2893,-37.9421,-3.21257,25.9076,1.06353,0.579458,0.0376436,
0.169982,0.00983904,0.0917317,-2.03438,0.404811,0.219408,-0.0300706,0.182462,0.0373996,0.181497,-0.341856,-0.0750712,0.801296,0.00902485,-3.87735,-1.10545,-3.87794,4.83212,0.513818,-17.3793,-0.0965729,12.6504,-0.735719,12.6156,-30.4259,-1.04678,8.84595,0.103383,0.170758,0.00700616,0.0935198,-2.041,0.407932,0.232642,-0.0303644,0.489311,0.0896847,0.288468,-0.811969,-0.120132,1.74661,0.00434203,0,0,0,0,0,0,0,-3.2893,-37.9421,-3.21257,25.9076,1.06353,0.579458,0.0376436,
0.171158,0.0100071,0.0929009,-2.03677,0.404277,0.224761,-0.0300044,0.175377,0.0341203,0.174428,-0.333232,-0.0734046,0.774857,0.00887465,-4.42817,-2.04957,-4.4185,5.39037,1.04159,-16.5241,-0.0938763,12.4507,-0.72743,12.416,-29.7979,-0.947018,8.46897,0.100749,0.170758,0.00700616,0.0935198,-2.041,0.407932,0.232642,-0.0303644,0.489311,0.0896847,0.288468,-0.811969,-0.120132,1.74661,0.00434203,0,0,0,0,0,0,0,-3.2893,-37.9421,-3.21257,25.9076,1.06353,0.579458,0.0376436,
0.180051,0.0110501,0.10271,-2.05575,0.403975,0.264496,-0.0300736,0.174724,0.0373713,0.173696,-0.328321,-0.0695262,0.744175,0.00856024,-0.407816,2.03186,-0.457565,3.06951,2.42404,-19.1766,-0.196507,12.2426,-0.715864,12.2079,-29.1687,-0.854828,8.11507,0.0979137,0.170758,0.00700616,0.0935198,-2.041,0.407932,0.232642,-0.0303644,0.489311,0.0896847,0.288468,-0.811969,-0.120132,1.74661,0.00434203,0,0,0,0,0,0,0,-3.2893,-37.9421,-3.21257,25.9076,1.06353,0.579458,0.0376436,
0.181304,0.0113341,0.103953,-2.05811,0.403607,0.269234,-0.0300147,0.171094,0.0369974,0.170034,-0.32157,-0.0648207,0.7138,0.0083229,-2.26854,-0.233688,-2.28832,4.21899,2.94092,-18.984,-0.148336,12.0432,-0.884504,11.9947,-28.6369,-0.68965,7.57976,0.0961195,0.18206,0.0090222,0.107369,-2.0673,0.403069,0.288225,-0.0302886,0.255131,0.0718652,0.413275,-0.720359,-0.205274,1.507,-0.00110012,-29.2726,-2.22744,15.6009,11.4512,-10.6427,-29.9514,-0.680268,-1.18664,-35.9187,-1.53838,26.8796,3.34777,1.16997,0.0907442,
0.18246,0.0115314,0.105101,-2.06037,0.40328,0.273797,-0.0299561,0.165793,0.0345283,0.16473,-0.31368,-0.0600448,0.68512,0.00812323,-3.31347,-1.54319,-3.31511,4.9316,2.98492,-17.925,-0.124792,11.8241,-0.868424,11.7757,-28.006,-0.615426,7.26537,0.0931171,0.18206,0.0090222,0.107369,-2.0673,0.403069,0.288225,-0.0302886,0.255131,0.0718652,0.413275,-0.720359,-0.205274,1.507,-0.00110012,0,0,0,0,0,0,0,-1.18664,-35.9187,-1.53838,26.8796,3.34777,1.16997,0.0907442,
0.190071,0.0123708,0.115309,-2.08065,0.39883,0.31468,-0.0300412,0.162841,0.0359253,0.16172,-0.306828,-0.0568087,0.650182,0.00777173,-1.84476,0.87313,-1.88116,4.28211,2.02261,-21.8362,-0.219689,11.377,-0.832019,11.3287,-26.7428,-0.494433,6.68806,0.0870987,0.18206,0.0090222,0.107369,-2.0673,0.403069,0.288225,-0.0302886,0.255131,0.0718652,0.413275,-0.720359,-0.205274,1.507,-0.00110012,0,0,0,0,0,0,0,-1.18664,-35.9187,-1.53838,26.8796,3.34777,1.16997,0.0907442,
0.191178,0.0126037,0.116407,-2.08278,0.398557,0.318577,-0.0299897,0.157971,0.0345615,0.156833,-0.298716,-0.0522749,0.617565,0.00750566,-3.0436,-0.852382,-3.05459,5.0701,2.83362,-20.3857,-0.166293,11.1509,-0.812337,11.1026,-26.1105,-0.447385,6.42307,0.0841179,0.18206,0.0090222,0.107369,-2.0673,0.403069,0.288225,-0.0302886,0.255131,0.0718652,0.413275,-0.720359,-0.205274,1.507,-0.00110012,0,0,0,0,0,0,0,-1.18664,-35.9187,-1.53838,26.8796,3.34777,1.16997,0.0907442,
0.192209,0.012764,0.117429,-2.08481,0.398326,0.322337,-0.0299384,0.152137,0.0316575,0.151005,-0.289885,-0.0475842,0.588063,0.00728521,-3.64627,-1.815,-3.64263,5.51933,2.93166,-18.4386,-0.137783,11.0032,-1.01174,10.9448,-25.3872,-0.270479,6.05709,0.0806664,0.19504,0.0105629,0.116168,-2.09153,0.39875,0.334479,-0.0302488,0.274004,0.0526409,0.32293,-0.690188,-0.117876,1.19738,0.00085981,2.35911,-2.40304,-11.2932,3.77147,10.9246,-38.7023,0.244991,0.0313145,-34.5223,0.286573,25.3601,2.3645,1.6076,0.0440523,
0.193178,0.012871,0.118389,-2.08677,0.398117,0.325987,-0.029888,0.145929,0.0280006,0.144815,-0.280697,-0.0433052,0.561695,0.00708889,-3.88014,-2.28553,-3.86849,5.74256,2.67436,-16.4804,-0.122701,10.7755,-0.990917,10.7171,-24.754,-0.240534,5.82087,0.0777901,0.19504,0.0105629,0.116168,-2.09153,0.39875,0.334479,-0.0302488,0.274004,0.0526409,0.32293,-0.690188,-0.117876,1.19738,0.00085981,0,0,0,0,0,0,0,0.0313145,-34.5223,0.286573,25.3601,2.3645,1.6076,0.0440523,
0.202392,0.013596,0.12344,-2.10397,0.395797,0.354192,-0.0300223,0.144797,0.0302446,0.143625,-0.275787,-0.0403739,0.527501,0.00678645,-0.707586,1.40251,-0.74376,3.06854,1.83206,-21.3712,-0.189021,10.5473,-0.969641,10.489,-24.12,-0.21843,5.59852,0.0749593,0.19504,0.0105629,0.116168,-2.09153,0.39875,0.334479,-0.0302488,0.274004,0.0526409,0.32293,-0.690188,-0.117876,1.19738,0.00085981,0,0,0,0,0,0,0,0.0313145,-34.5223,0.286573,25.3601,2.3645,1.6076,0.0440523,
0.203422,0.0138195,0.12446,-2.10591,0.39561,0.357231,-0.0299772,0.141593,0.0297836,0.140401,-0.269162,-0.0369835,0.49798,0.00655801,-2.00253,-0.288121,-2.01534,4.14077,2.11906,-18.4507,-0.142777,10.3192,-0.948482,10.2609,-23.4856,-0.205175,5.38831,0.0722649,0.19504,0.0105629,0.116168,-2.09153,0.39875,0.334479,-0.0302488,0.274004,0.0526409,0.32293,-0.690188,-0.117876,1.19738,0.00085981,0,0,0,0,0,0,0,0.0313145,-34.5223,0.286573,25.3601,2.3645,1.6076,0.0440523,
0.20438,0.0139762,0.125409,-2.10775,0.395434,0.360213,-0.0299322,0.137225,0.0277426,0.136034,-0.261464,-0.0339844,0.472928,0.00637037,-2.72979,-1.27567,-2.72891,4.81162,1.87439,-15.6575,-0.117277,10.0909,-0.927229,10.0326,-22.8504,-0.199557,5.19081,0.069634,0.19504,0.0105629,0.116168,-2.09153,0.39875,0.334479,-0.0302488,0.274004,0.0526409,0.32293,-0.690188,-0.117876,1.19738,0.00085981,0,0,0,0,0,0,0,0.0313145,-34.5223,0.286573,25.3601,2.3645,1.6076,0.0440523,
0.20528,0.0140829,0.1263,-2.10951,0.395251,0.363148,-0.0298878,0.132276,0.0248611,0.131099,-0.253131,-0.0317694,0.45174,0.00620647,-3.09344,-1.80088,-3.08482,5.20793,1.38442,-13.2425,-0.102433,9.90533,-1.10807,9.83588,-22.138,-0.107536,4.92086,0.0670501,0.203854,0.0120115,0.127085,-2.11385,0.395567,0.371369,-0.0302259,0.369696,0.0317944,0.17245,-0.651229,-0.0722265,0.973885,0.000467743,11.9615,-2.60581,-18.81,4.86985,5.70624,-27.9368,-0.0490085,-0.222592,-35.645,0.0366345,27.6016,2.3526,2.3565,0.0440523,
0.210649,0.0146497,0.133777,-2.12523,0.3931,0.386292,-0.0300216,0.131818,0.0269097,0.130583,-0.248577,-0.0310422,0.422331,0.00594967,-0.285905,1.28036,-0.322415,2.84611,0.454457,-18.3808,-0.160503,9.6774,-1.08747,9.60797,-21.5009,-0.118319,4.74665,0.0646412,0.203854,0.0120115,0.127085,-2.11385,0.395567,0.371369,-0.0302259,0.369696,0.0317944,0.17245,-0.651229,-0.0722265,0.973885,0.000467743,0,0,0,0,0,0,0,-0.222592,-35.645,0.0366345,27.6016,2.3526,2.3565,0.0440523,
0.211603,0.0148505,0.13472,-2.12696,0.392887,0.388712,-0.0299815,0.129305,0.0265467,0.128046,-0.242245,-0.0301777,0.398366,0.00576313,-1.57115,-0.226886,-1.58536,3.95766,0.54036,-14.9776,-0.116585,9.44998,-1.06759,9.38058,-20.8628,-0.138014,4.58327,0.0623989,0.203854,0.0120115,0.127085,-2.11385,0.395567,0.371369,-0.0302259,0.369696,0.0317944,0.17245,-0.651229,-0.0722265,0.973885,0.000467743,0,0,0,0,0,0,0,-0.222592,-35.645,0.0366345,27.6016,2.3526,2.3565,0.0440523,
0.212489,0.0149912,0.135596,-2.1286,0.392657,0.39113,-0.0299412,0.125589,0.0247543,0.12433,-0.234782,-0.0298729,0.379132,0.00561728,-2.32192,-1.12026,-2.3229,4.66404,0.190501,-12.0213,-0.0911562,9.22307,-1.04823,9.15369,-20.2232,-0.164928,4.43101,0.0602444,0.203854,0.0120115,0.127085,-2.11385,0.395567,0.371369,-0.0302259,0.369696,0.0317944,0.17245,-0.651229,-0.0722265,0.973885,0.000467743,0,0,0,0,0,0,0,-0.222592,-35.645,0.0366345,27.6016,2.3526,2.3565,0.0440523,
0.218259,0.0154427,0.143817,-2.1438,0.391796,0.412163,-0.0300526,0.125423,0.025238,0.1241,-0.227852,-0.0298349,0.353028,0.00537153,-0.103878,0.302319,-0.143197,4.33152,0.0236928,-16.3154,-0.153595,8.7826,-1.19423,8.70211,-18.8556,-0.182538,4.10451,0.0564417,0.211639,0.0133333,0.137272,-2.13385,0.393735,0.400187,-0.0302235,0.187897,0.0234326,0.353152,-0.566111,-0.0499352,0.813124,0.00122904,-22.7248,-1.04522,22.5878,10.6398,2.78641,-20.0951,0.0951618,-0.0202602,-34.9468,-0.0863513,26.0306,2.13287,1.84655,0.0376436,
0.219167,0.0155941,0.144714,-2.1453,0.391531,0.414165,-0.0300162,0.123041,0.0239746,0.121694,-0.219789,-0.0304848,0.332478,0.00520755,-1.48865,-0.789613,-1.5043,5.03954,-0.406138,-12.8437,-0.102489,8.56034,-1.17795,8.47986,-18.211,-0.231668,3.98119,0.0547863,0.211639,0.0133333,0.137272,-2.13385,0.393735,0.400187,-0.0302235,0.187897,0.0234326,0.353152,-0.566111,-0.0499352,0.813124,0.00122904,0,0,0,0,0,0,0,-0.0202602,-34.9468,-0.0863513,26.0306,2.13287,1.84655,0.0376436,
0.220004,0.0156959,0.14554,-2.14671,0.391223,0.416187,-0.029979,0.119349,0.0217261,0.117999,-0.211066,-0.0320991,0.316535,0.00509513,-2.30781,-1.40535,-2.30935,5.45156,-1.00896,-9.96438,-0.0702598,8.34089,-1.16272,8.26043,-17.5644,-0.285514,3.86596,0.0532604,0.211639,0.0133333,0.137272,-2.13385,0.393735,0.400187,-0.0302235,0.187897,0.0234326,0.353152,-0.566111,-0.0499352,0.813124,0.00122904,0,0,0,0,0,0,0,-0.0202602,-34.9468,-0.0863513,26.0306,2.13287,1.84655,0.0376436,
0.220782,0.0157603,0.146308,-2.14803,0.390865,0.418223,-0.0299414,0.114942,0.0189896,0.113602,-0.202,-0.0346192,0.304125,0.00501631,-2.75448,-1.7103,-2.74789,5.6662,-1.57505,-7.75615,-0.0492653,8.12534,-1.14889,8.04488,-16.9161,-0.344012,3.75699,0.0519297,0.211639,0.0133333,0.137272,-2.13385,0.393735,0.400187,-0.0302235,0.187897,0.0234326,0.353152,-0.566111,-0.0499352,0.813124,0.00122904,0,0,0,0,0,0,0,-0.0202602,-34.9468,-0.0863513,26.0306,2.13287,1.84655,0.0376436,
0.228236,0.0172125,0.149713,-2.16096,0.390964,0.431635,-0.0300535,0.114779,0.0206772,0.11337,-0.196547,-0.037167,0.282224,0.00487729,-0.101829,1.05476,-0.145308,3.40826,-1.59238,-13.6882,-0.0868838,7.90365,-1.30497,7.81079,-16.1625,-0.348316,3.62829,0.0506543,0.222196,0.0150522,0.143765,-2.15212,0.393079,0.422722,-0.030222,0.251933,0.0463433,0.233453,-0.491861,-0.0152281,0.616109,0.00142798,8.00443,2.86383,-14.9624,9.28118,4.3384,-24.6269,0.0248685,-0.500302,-35.6212,0.0882092,28.5736,1.43615,2.28417,0.0239107,
0.229066,0.0173658,0.15053,-2.16226,0.390558,0.433228,-0.0300173,0.112567,0.0203724,0.111124,-0.189593,-0.0398738,0.26561,0.00480739,-1.38257,-0.190486,-1.40331,4.34608,-1.69174,-10.3837,-0.0436906,7.69906,-1.29358,7.6062,-15.5108,-0.408814,3.52622,0.0497085,0.222196,0.0150522,0.143765,-2.15212,0.393079,0.422722,-0.030222,0.251933,0.0463433,0.233453,-0.491861,-0.0152281,0.616109,0.00142798,0,0,0,0,0,0,0,-0.500302,-35.6212,0.0882092,28.5736,1.43615,2.28417,0.0239107,
0.229829,0.0174689,0.151281,-2.16346,0.390125,0.434848,-0.0299801,0.109126,0.018877,0.107672,-0.18169,-0.0427182,0.252983,0.00477615,-2.15051,-0.934641,-2.15737,4.93929,-1.77776,-7.89191,-0.0195263,7.50176,-1.28306,7.40891,-14.8578,-0.466569,3.42389,0.049009,0.222196,0.0150522,0.143765,-2.15212,0.393079,0.422722,-0.030222,0.251933,0.0463433,0.233453,-0.491861,-0.0152281,0.616109,0.00142798,0,0,0,0,0,0,0,-0.500302,-35.6212,0.0882092,28.5736,1.43615,2.28417,0.0239107,
0.230537,0.0175338,0.151978,-2.16457,0.389669,0.436476,-0.0299417,0.10501,0.0167244,0.103559,-0.173218,-0.04559,0.243095,0.00478146,-2.57256,-1.3454,-2.57089,5.29538,-1.7949,-6.17972,0.00331809,7.31278,-1.27341,7.21993,-14.2044,-0.5187,3.31801,0.0485434,0.222196,0.0150522,0.143765,-2.15212,0.393079,0.422722,-0.030222,0.251933,0.0463433,0.233453,-0.491861,-0.0152281,0.616109,0.00142798,0,0,0,0,0,0,0,-0.500302,-35.6212,0.0882092,28.5736,1.43615,2.28417,0.0239107,
0.228068,0.017351,0.149543,-2.16004,0.390405,0.429862,-0.0300517,0.105686,0.0192703,0.10418,-0.168505,-0.0478745,0.222833,0.00474411,0.422811,1.59121,0.387963,2.94572,-1.42781,-12.6637,-0.0233406,7.10295,-1.41346,6.99597,-13.4689,-0.526238,3.18344,0.0485743,0.22924,0.0167263,0.153193,-2.16754,0.392536,0.442328,-0.0302258,0.316802,0.0693436,0.132666,-0.415652,-0.0286519,0.497335,-0.000175128,8.10866,2.87504,-12.5983,9.52619,-1.67799,-14.8468,-0.200389,-2.24987,-36.4424,-2.11363,28.7482,1.00311,2.48925,0.0577852,
0.228849,0.017517,0.15031,-2.16114,0.389963,0.431006,-0.0300116,0.104067,0.0195667,0.102539,-0.162105,-0.0493508,0.20687,0.00479891,-1.01202,0.185237,-1.02549,3.99968,-0.922658,-9.97704,0.0342498,6.93221,-1.40381,6.82524,-12.8168,-0.556728,3.06092,0.0488066,0.22924,0.0167263,0.153193,-2.16754,0.392536,0.442328,-0.0302258,0.316802,0.0693436,0.132666,-0.415652,-0.0286519,0.497335,-0.000175128,0,0,0,0,0,0,0,-2.24987,-36.4424,-2.11363,28.7482,1.00311,2.48925,0.0577852,
0.22956,0.0176305,0.151009,-2.16214,0.389546,0.432151,-0.0299729,0.101019,0.01849,0.0994883,-0.154653,-0.0498986,0.194106,0.00480637,-1.90526,-0.672909,-1.90665,4.65735,-0.342362,-7.97756,0.0046604,6.76919,-1.39328,6.66222,-12.1673,-0.570427,2.92502,0.0489639,0.22924,0.0167263,0.153193,-2.16754,0.392536,0.442328,-0.0302258,0.316802,0.0693436,0.132666,-0.415652,-0.0286519,0.497335,-0.000175128,0,0,0,0,0,0,0,-2.24987,-36.4424,-2.11363,28.7482,1.00311,2.48925,0.0577852,
0.230215,0.0177046,0.151652,-2.16305,0.389118,0.433297,-0.0299331,0.0972018,0.0166453,0.0956844,-0.146563,-0.050621,0.183951,0.00484024,-2.38552,-1.15296,-2.37747,5.05672,-0.451535,-6.34688,0.0211727,6.61978,-1.38033,6.5127,-11.5208,-0.578974,2.77918,0.0498091,0.22924,0.0167263,0.153193,-2.16754,0.392536,0.442328,-0.0302258,0.316802,0.0693436,0.132666,-0.415652,-0.0286519,0.497335,-0.000175128,0,0,0,0,0,0,0,-2.24987,-36.4424,-2.11363,28.7482,1.00311,2.48925,0.0577852,
0.234649,0.0190333,0.158486,-2.17426,0.389962,0.447057,-0.0300369,0.0975695,0.018987,0.0959816,-0.141917,-0.0513116,0.164415,0.00502468,0.229803,1.46356,0.185756,2.90376,-0.431602,-12.21,0.115271,6.48458,-1.54029,6.36734,-10.8161,-0.563648,2.61043,0.052371,0.235985,0.0177133,0.161232,-2.18049,0.392281,0.457705,-0.0302231,0.127432,0.0189665,0.290372,-0.349443,-0.0105876,0.406489,0.000260198,-23.6712,-6.29713,19.7132,8.27604,2.25804,-11.3558,0.0544158,-1.97216,-35.0221,-2.11363,25.8798,0.575558,1.9262,0.0303194,
0.235359,0.0191919,0.159182,-2.17515,0.389552,0.447799,-0.0299796,0.0957961,0.0191539,0.0941743,-0.13583,-0.0513124,0.150075,0.00544996,-1.10836,0.104299,-1.12953,3.80393,-0.000546124,-8.96206,0.265801,6.32675,-1.51979,6.20976,-10.1825,-0.522219,2.4375,0.0549947,0.235985,0.0177133,0.161232,-2.18049,0.392281,0.457705,-0.0302231,0.127432,0.0189665,0.290372,-0.349443,-0.0105876,0.406489,0.000260198,0,0,0,0,0,0,0,-1.97216,-35.0221,-2.11363,25.8798,0.575558,1.9262,0.0303194,
0.235992,0.0192982,0.159801,-2.17596,0.389256,0.448571,-0.0299512,0.0924673,0.0179799,0.0908203,-0.128936,-0.048442,0.139352,0.00507172,-2.0805,-0.733724,-2.09626,4.30873,1.794,-6.70205,-0.236399,6.13818,-1.49782,6.02125,-9.5651,-0.452111,2.25797,0.0522142,0.235985,0.0177133,0.161232,-2.18049,0.392281,0.457705,-0.0302231,0.127432,0.0189665,0.290372,-0.349443,-0.0105876,0.406489,0.000260198,0,0,0,0,0,0,0,-1.97216,-35.0221,-2.11363,25.8798,0.575558,1.9262,0.0303194,
0.240953,0.0190512,0.166118,-2.18566,0.389533,0.461674,-0.0300352,0.0920182,0.0175363,0.0903336,-0.121571,-0.0556642,0.129806,0.00501933,-0.280714,-0.277227,-0.304226,4.60331,-4.51385,-5.96607,-0.032748,5.82828,-1.43459,5.71003,-8.35469,-0.801404,2.22316,0.0634855,0.235985,0.0177133,0.161232,-2.18049,0.392281,0.457705,-0.0302231,0.127432,0.0189665,0.290372,-0.349443,-0.0105876,0.406489,0.000260198,0,0,0,0,0,0,0,-1.97216,-35.0221,-2.11363,25.8798,0.575558,1.9262,0.0303194,
0.241589,0.0191303,0.166739,-2.18632,0.388922,0.462438,-0.0299967,0.0895089,0.0160064,0.0878019,-0.113765,-0.059802,0.122941,0.00497937,-1.56834,-0.956209,-1.58226,4.8787,-2.58609,-4.29106,-0.0249698,5.54302,-1.53099,5.42063,-7.71614,-0.693969,2.14728,0.0768301,0.244196,0.0183312,0.166877,-2.19117,0.391471,0.468135,-0.0302299,0.148812,-0.00214385,0.241176,-0.303079,-0.0432622,0.237246,-0.00151124,2.67253,-2.63879,-6.14955,5.79554,-4.08433,-21.1554,-0.22143,-1.92059,-33.9232,-1.4868,27.1255,0.990292,2.60186,0.0843355,
0.242153,0.0191746,0.16729,-2.18691,0.388394,0.463213,-0.0299724,0.0857185,0.013913,0.0840021,-0.105756,-0.0610434,0.117731,0.00458955,-2.36896,-1.30838,-2.37491,5.00571,-0.775903,-3.25638,-0.243642,5.03337,-1.55513,4.91194,-7.16176,-0.396285,2.001,0.0409488,0.244196,0.0183312,0.166877,-2.19117,0.391471,0.468135,-0.0302299,0.148812,-0.00214385,0.241176,-0.303079,-0.0432622,0.237246,-0.00151124,0,0,0,0,0,0,0,-1.92059,-33.9232,-1.4868,27.1255,0.990292,2.60186,0.0843355,
0.242672,0.0191955,0.167796,-2.18743,0.387696,0.464061,-0.0299465,0.0815477,0.0116531,0.079859,-0.0975338,-0.0662888,0.115376,0.00432045,-2.60678,-1.41241,-2.58945,5.13888,-3.27836,-1.47141,-0.168186,4.90237,-1.47507,4.77494,-6.50441,-1.15972,2.28303,0.0332594,0.244196,0.0183312,0.166877,-2.19117,0.391471,0.468135,-0.0302299,0.148812,-0.00214385,0.241176,-0.303079,-0.0432622,0.237246,-0.00151124,0,0,0,0,0,0,0,-1.92059,-33.9232,-1.4868,27.1255,0.990292,2.60186,0.0843355,
0.24898,0.0192946,0.171577,-2.19547,0.383243,0.472621,-0.0300532,0.0824659,0.01175,0.0807344,-0.0924963,-0.100521,0.12099,0.00431764,0.573878,0.0605341,0.547168,3.14847,-21.3951,3.50845,-0.00175485,4.82053,-1.59966,4.69629,-5.95154,-2.81708,3.29131,0.0530776,0.244196,0.0183312,0.166877,-2.19117,0.391471,0.468135,-0.0302299,0.148812,-0.00214385,0.241176,-0.303079,-0.0432622,0.237246,-0.00151124,0,0,0,0,0,0,0,-1.92059,-33.9232,-1.4868,27.1255,0.990292,2.60186,0.0843355,
0.249578,0.019353,0.17216,-2.19598,0.38147,0.473825,-0.0300214,0.0809228,0.0108612,0.0791595,-0.0866446,-0.124734,0.126903,0.00424751,-0.964453,-0.555515,-0.984347,3.65729,-15.133,3.6959,-0.0438323,4.51579,-1.70543,4.38646,-5.43462,-2.42763,3.04288,0.0559116,0.250359,0.0192035,0.172712,-2.19962,0.389767,0.47469,-0.0302259,0.284863,0.0335881,0.047892,-0.215822,-0.0830563,0.185276,-0.000775393,17.0063,4.46649,-24.1604,10.9071,-4.97425,-6.49627,0.0919806,-2.04754,-34.1969,-1.73674,26.828,1.17981,2.79412,0.0577852,
0.250101,0.019382,0.172668,-2.19642,0.379837,0.475049,-0.0300018,0.0778192,0.009414,0.0760361,-0.0802731,-0.140621,0.132109,0.00388852,-1.9397,-0.904484,-1.95209,3.98218,-9.92987,3.25391,-0.224367,4.27899,-1.67913,4.14689,-4.94775,-2.26308,2.88477,0.0367278,0.250359,0.0192035,0.172712,-2.19962,0.389767,0.47469,-0.0302259,0.284863,0.0335881,0.047892,-0.215822,-0.0830563,0.185276,-0.000775393,0,0,0,0,0,0,0,-2.04754,-34.1969,-1.73674,26.828,1.17981,2.79412,0.0577852,
0.250575,0.0193902,0.173129,-2.19679,0.378105,0.476338,-0.0299792,0.0741025,0.00773735,0.0723419,-0.0734883,-0.155805,0.137921,0.00367531,-2.32296,-1.04791,-2.3089,4.24054,-9.48971,3.63227,-0.133256,4.20384,-1.59659,4.06765,-4.3919,-2.85859,3.02936,0.0316765,0.250359,0.0192035,0.172712,-2.19962,0.389767,0.47469,-0.0302259,0.284863,0.0335881,0.047892,-0.215822,-0.0830563,0.185276,-0.000775393,0,0,0,0,0,0,0,-2.04754,-34.1969,-1.73674,26.828,1.17981,2.79412,0.0577852,
0.254969,0.0202266,0.177225,-2.20309,0.36856,0.487182,-0.0299914,0.0762712,0.00828123,0.0744806,-0.0700668,-0.248506,0.188116,0.00379786,1.35544,0.339926,1.33669,2.13838,-57.9384,31.3716,0.0765895,4.23401,-2.26875,4.11375,-3.67815,-7.30404,6.34695,0.0503738,0.250359,0.0192035,0.172712,-2.19962,0.389767,0.47469,-0.0302259,0.284863,0.0335881,0.047892,-0.215822,-0.0830563,0.185276,-0.000775393,0,0,0,0,0,0,0,-2.04754,-34.1969,-1.73674,26.828,1.17981,2.79412,0.0577852,
0.255555,0.0202703,0.177796,-2.20347,0.363757,0.490372,-0.0299607,0.0756636,0.00771847,0.0738415,-0.0655215,-0.318885,0.230244,0.00380533,-0.379791,-0.351725,-0.399477,2.84087,-43.9868,26.33,0.00466835,4.08615,-2.1916,3.96834,-3.28803,-6.76526,6.00471,0.0519076,0.250359,0.0192035,0.172712,-2.19962,0.389767,0.47469,-0.0302259,0.284863,0.0335881,0.047892,-0.215822,-0.0830563,0.185276,-0.000775393,0,0,0,0,0,0,0,-2.04754,-34.1969,-1.73674,26.828,1.17981,2.79412,0.0577852,
0.256063,0.0202836,0.178288,-2.20378,0.359152,0.493576,-0.029941,0.0732255,0.00650568,0.0713761,-0.0602144,-0.370228,0.264302,0.00353789,-1.52376,-0.757992,-1.54086,3.3169,-32.089,21.2866,-0.167146,3.94123,-2.18097,3.80994,-2.87774,-6.4919,5.73519,0.0361931,0.254054,0.0199134,0.179652,-2.20625,0.384709,0.481018,-0.030222,0.080405,0.0174707,0.214544,-0.177439,-0.310409,0.244853,-6.37018e-05,-25.5572,-2.01467,20.8315,4.79793,-28.4191,7.44712,0.0889614,-2.4284,-35.3197,-2.51036,26.7526,1.14318,3.18596,0.0239107,
0.25838,0.0167406,0.184061,-2.20695,0.352858,0.474841,-0.0391664,0.0779819,-0.0269649,0.07702,-0.0347584,-0.442844,0.239627,0.0165461,2.97275,-20.9191,3.52742,15.91,-45.3856,-15.4219,8.13014,3.41641,-6.81917,3.42006,-0.270139,-13.6655,10.9034,0.737693,0.254054,0.0199134,0.179652,-2.20625,0.384709,0.481018,-0.030222,0.080405,0.0174707,0.214544,-0.177439,-0.310409,0.244853,-6.37018e-05,0,0,0,0,0,0,0,-2.4284,-35.3197,-2.51036,26.7526,1.14318,3.18596,0.0239107,
0.259091,0.015687,0.184779,-2.20633,0.3471,0.478179,-0.0348833,0.080157,-0.0479116,0.0795625,-0.0121678,-0.498237,0.275144,0.120313,1.35942,-13.0917,1.58909,14.1191,-34.6201,22.1981,64.8542,3.68138,-5.86328,3.70851,-0.118308,-13.6655,9.74858,0.441438,0.254054,0.0199134,0.179652,-2.20625,0.384709,0.481018,-0.030222,0.080405,0.0174707,0.214544,-0.177439,-0.310409,0.244853,-6.37018e-05,0,0,0,0,0,0,0,-2.4284,-35.3197,-2.51036,26.7526,1.14318,3.18596,0.0239107,
0.259707,0.0149083,0.185396,-2.20573,0.341035,0.481607,-0.0263367,0.0795139,-0.057797,0.0790727,0.0051512,-0.550197,0.305813,0.309915,-0.401928,-6.17836,-0.306119,10.8243,-32.4752,19.1681,118.501,3.56933,-5.09458,3.69045,-0.0810202,-13.6655,10.1008,-12.0038,0.254054,0.0199134,0.179652,-2.20625,0.384709,0.481018,-0.030222,0.080405,0.0174707,0.214544,-0.177439,-0.310409,0.244853,-6.37018e-05,0,0,0,0,0,0,0,-2.4284,-35.3197,-2.51036,26.7526,1.14318,3.18596,0.0239107,
0.260267,0.0143158,0.185951,-2.20515,0.334239,0.485128,-0.016772,0.0776254,-0.0610502,0.0771356,0.0185862,-0.610064,0.332693,0.48705,-1.1803,-2.03325,-1.21067,8.3969,-37.417,16.8001,110.71,3.12181,-4.30248,3.2421,0.56294,-13.6954,10.3588,-12.0028,0.260634,0.020159,0.18178,-2.21155,0.371534,0.491784,-0.0302182,0.102282,-0.00813306,0.15351,-0.159527,-0.776678,0.529244,-0.00024615,2.73463,-3.20047,-7.62922,2.23895,-58.2835,35.5489,-0.022806,-2.50378,-33.5979,-1.9113,27.55,0.562741,3.88177,-0.00996382,
0.265088,0.0181982,0.186248,-2.20509,0.341637,0.535019,0.0149299,0.0826653,-0.0603166,0.0825047,0.0459825,-0.631788,0.42389,0.643835,3.14992,0.458474,3.35564,17.1227,-13.5777,56.9978,97.9905,5.11216,3.89854,4.83229,5.44571,-13.6954,7.04315,11.9972,0.260634,0.020159,0.18178,-2.21155,0.371534,0.491784,-0.0302182,0.102282,-0.00813306,0.15351,-0.159527,-0.776678,0.529244,-0.00024615,0,0,0,0,0,0,0,-2.50378,-33.5979,-1.9113,27.55,0.562741,3.88177,-0.00996382,
0.265904,0.0177147,0.187073,-2.20402,0.335012,0.54029,0.02444,0.0865348,-0.0603411,0.0866237,0.0634009,-0.671063,0.470895,0.752819,2.41841,-0.0152951,2.57437,10.8865,-24.5468,29.3786,68.1146,4.35611,7.40596,4.1623,4.95904,-13.6954,8.97346,11.9972,0.260634,0.020159,0.18178,-2.21155,0.371534,0.491784,-0.0302182,0.102282,-0.00813306,0.15351,-0.159527,-0.776678,0.529244,-0.00024615,0,0,0,0,0,0,0,-2.50378,-33.5979,-1.9113,27.55,0.562741,3.88177,-0.00996382,
0.266704,0.0173299,0.187877,-2.20328,0.327069,0.546212,0.0310394,0.0892218,-0.0578922,0.0894041,0.0694093,-0.735427,0.524762,0.76724,1.67941,1.53053,1.73774,3.75519,-40.2274,33.6666,9.01326,4.52606,6.42609,4.47257,4.25111,-13.6954,9.78102,10.9035,0.260634,0.020159,0.18178,-2.21155,0.371534,0.491784,-0.0302182,0.102282,-0.00813306,0.15351,-0.159527,-0.776678,0.529244,-0.00024615,0,0,0,0,0,0,0,-2.50378,-33.5979,-1.9113,27.55,0.562741,3.88177,-0.00996382,
0.267462,0.0170359,0.188636,-2.20267,0.318315,0.552166,0.0367625,0.0903282,-0.0536631,0.0904987,0.0707937,-0.8072,0.568672,0.75687,0.691506,2.64317,0.684145,0.865281,-44.858,27.4439,-6.4814,4.85936,4.88711,4.80837,4.32691,-13.6918,8.9913,11.9983,0.264565,0.020575,0.187235,-2.21468,0.334777,0.515161,-0.0282876,0.261551,-0.0174392,0.0485169,-0.052729,-1.12458,0.711553,0.00736911,19.9086,-1.16327,-13.1242,13.3498,-43.4883,22.7887,0.951908,-2.73388,-39.7115,-2.63732,31.1127,-1.00647,5.7055,-0.170181,
0.269242,0.0175058,0.191896,-2.20805,0.30103,0.55161,0.0101374,0.0933514,-0.0633475,0.0938153,0.0821958,-0.78438,0.502801,0.780032,1.88951,-6.05272,2.07289,7.12634,14.2622,-41.1695,14.4763,4.90965,7.01951,4.76508,6.29019,-12.4047,8.10439,11.9983,0.264565,0.020575,0.187235,-2.21468,0.334777,0.515161,-0.0282876,0.261551,-0.0174392,0.0485169,-0.052729,-1.12458,0.711553,0.00736911,0,0,0,0,0,0,0,-2.73388,-39.7115,-2.63732,31.1127,-1.00647,5.7055,-0.170181,
0.270148,0.0166996,0.192818,-2.20716,0.295689,0.55257,0.0168087,0.097333,-0.0708343,0.0981037,0.0880022,-0.761051,0.426242,0.790807,2.48845,-4.67927,2.68022,3.62895,14.5806,-47.8492,6.73477,5.27244,6.15858,5.13268,5.36505,-13.6918,9.69041,11.9983,0.264565,0.020575,0.187235,-2.21468,0.334777,0.515161,-0.0282876,0.261551,-0.0174392,0.0485169,-0.052729,-1.12458,0.711553,0.00736911,0,0,0,0,0,0,0,-2.73388,-39.7115,-2.63732,31.1127,-1.00647,5.7055,-0.170181,
0.271124,0.0159413,0.19381,-2.20635,0.290391,0.553289,0.0233971,0.102252,-0.0756244,0.103271,0.0907539,-0.741277,0.35897,0.797357,3.07469,-2.99382,3.22941,1.71986,12.3589,-42.0451,4.09373,5.67244,4.73077,5.53621,3.98144,-13.6918,10.4193,8.09487,0.264565,0.020575,0.187235,-2.21468,0.334777,0.515161,-0.0282876,0.261551,-0.0174392,0.0485169,-0.052729,-1.12458,0.711553,0.00736911,0,0,0,0,0,0,0,-2.73388,-39.7115,-2.63732,31.1127,-1.00647,5.7055,-0.170181,
0.272149,0.0152075,0.194848,-2.20557,0.285095,0.553504,0.0297379,0.107419,-0.0788435,0.10858,0.0920988,-0.725434,0.292553,0.796405,3.22886,-2.01194,3.31857,0.840526,9.9021,-41.5109,-0.594935,5.81535,3.6481,5.72352,3.12221,-13.7204,8.90742,7.11466,0.268727,0.0206875,0.193911,-2.21319,0.293914,0.542562,-0.0363296,0.090969,0.0187497,0.228569,0.0920598,-1.29763,1.01706,0.229017,-21.3227,4.52361,22.5065,18.0986,-21.6309,38.1878,27.706,-1.97216,-31.2532,-2.13744,26.6296,-0.206302,6.04333,0.23906,
0.273807,0.0175582,0.198946,-2.2037,0.252105,0.591489,0.0192581,0.105082,-0.0794174,0.10615,0.105964,-0.733978,0.341798,0.889954,-1.46048,-0.358658,-1.51915,8.66566,-5.3402,30.7785,58.468,5.91676,6.58984,5.66418,5.34006,-12.0412,6.30719,12.0003,0.268727,0.0206875,0.193911,-2.21319,0.293914,0.542562,-0.0363296,0.090969,0.0187497,0.228569,0.0920598,-1.29763,1.01706,0.229017,0,0,0,0,0,0,0,-1.97216,-31.2532,-2.13744,26.6296,-0.206302,6.04333,0.23906,
0.274584,0.0167391,0.199731,-2.20256,0.246112,0.592734,0.0283169,0.103489,-0.0840128,0.104546,0.113172,-0.737,0.304577,0.938434,-0.995557,-2.87211,-1.00242,4.50481,-1.88889,-23.2634,30.2998,5.62895,5.65986,5.38807,5.15351,-11.566,5.08181,12.0003,0.268727,0.0206875,0.193911,-2.21319,0.293914,0.542562,-0.0363296,0.090969,0.0187497,0.228569,0.0920598,-1.29763,1.01706,0.229017,0,0,0,0,0,0,0,-1.97216,-31.2532,-2.13744,26.6296,-0.206302,6.04333,0.23906,
0.27535,0.0157826,0.200503,-2.20165,0.239482,0.591899,0.0339538,0.101942,-0.0911234,0.102939,0.1134,-0.755361,0.22277,0.891669,-0.967004,-4.44412,-1.00429,0.142681,-11.4757,-51.1296,-29.2278,5.42342,4.9049,5.1996,5.04288,-11.1803,4.36529,12.0003,0.268727,0.0206875,0.193911,-2.21319,0.293914,0.542562,-0.0363296,0.090969,0.0187497,0.228569,0.0920598,-1.29763,1.01706,0.229017,0,0,0,0,0,0,0,-1.97216,-31.2532,-2.13744,26.6296,-0.206302,6.04333,0.23906,
0.27615,0.0150854,0.201305,-2.20118,0.231976,0.593063,0.0377503,0.101532,-0.0903288,0.102393,0.102535,-0.791934,0.207334,0.808249,-0.255984,0.49664,-0.340991,-6.79041,-22.8575,-9.64703,-52.138,5.43013,4.30206,5.26085,4.73233,-10.7788,3.49355,12.0006,0.275991,0.0204451,0.197672,-2.20935,0.249859,0.576104,0.0384048,0.124426,-0.0375859,0.214813,0.105118,-1.35587,0.967509,3.19067,4.18215,-7.04195,-1.71956,1.63232,-7.27971,-6.1934,370.206,-0.627255,-31.6777,-0.213304,23.8644,0.373226,2.64855,-0.0905302,
0.280888,0.00762792,0.20262,-2.20436,0.21057,0.493192,0.0960459,0.105522,-0.104719,0.106285,0.0740846,-0.812584,-0.0182881,0.752103,2.49387,-8.99409,2.43247,-17.7816,-12.9068,-141.014,-35.091,5.84483,2.98715,5.72491,3.64127,-13.3899,4.52844,12.0006,0.275991,0.0204451,0.197672,-2.20935,0.249859,0.576104,0.0384048,0.124426,-0.0375859,0.214813,0.105118,-1.35587,0.967509,3.19067,0,0,0,0,0,0,0,-0.627255,-31.6777,-0.213304,23.8644,0.373226,2.64855,-0.0905302,
0.281611,0.0064893,0.203338,-2.20455,0.200924,0.488152,0.0976092,0.102493,-0.112241,0.102967,0.0546259,-0.891229,-0.140636,0.640767,-1.89364,-4.70099,-2.07387,-12.1617,-49.1525,-76.4673,-69.5849,6.235,2.03162,6.15017,2.85402,-13.5081,5.10053,9.22431,0.275991,0.0204451,0.197672,-2.20935,0.249859,0.576104,0.0384048,0.124426,-0.0375859,0.214813,0.105118,-1.35587,0.967509,3.19067,0,0,0,0,0,0,0,-0.627255,-31.6777,-0.213304,23.8644,0.373226,2.64855,-0.0905302,
0.282118,0.00546981,0.203839,-2.20466,0.190607,0.484672,0.0978219,0.0946573,-0.11528,0.094898,0.0408637,-0.97089,-0.199487,0.517931,-4.89707,-1.89939,-5.04329,-8.60134,-49.7886,-36.7821,-76.7723,6.56644,1.25933,6.49208,2.23797,-12.7508,4.88175,4.80183,0.275991,0.0204451,0.197672,-2.20935,0.249859,0.576104,0.0384048,0.124426,-0.0375859,0.214813,0.105118,-1.35587,0.967509,3.19067,0,0,0,0,0,0,0,-0.627255,-31.6777,-0.213304,23.8644,0.373226,2.64855,-0.0905302,
0.282565,0.00466033,0.204286,-2.20477,0.182446,0.482246,0.0979877,0.0869113,-0.112461,0.0870976,0.0301486,-0.980751,-0.220254,0.418488,-4.84125,1.76179,-4.87524,-6.69695,-6.16289,-12.9795,-62.1521,7.00397,0.489766,6.9376,2.09245,-11.4008,4.05926,4.63275,0.281252,0.0204547,0.20345,-2.20427,0.206434,0.599523,0.0703526,0.24498,-0.00924435,0.0656479,0.144573,-1.29448,0.509802,-0.438701,15.0693,3.54269,-18.6456,4.93187,7.67322,-57.2134,-453.671,-0.424923,-33.7486,-0.0109729,24.1144,1.57714,1.30273,-0.110672,
0.285316,0.0165175,0.207455,-2.19873,0.169025,0.64033,0.0764061,0.0840405,-0.106521,0.084027,0.0437589,-0.914135,-0.0373742,0.313622,-1.7942,3.71265,-1.91911,8.50641,41.6352,114.3,-65.5413,7.16266,-0.174219,7.07971,2.27276,-10.8609,4.24051,6.84042,0.281252,0.0204547,0.20345,-2.20427,0.206434,0.599523,0.0703526,0.24498,-0.00924435,0.0656479,0.144573,-1.29448,0.509802,-0.438701,0,0,0,0,0,0,0,-0.424923,-33.7486,-0.0109729,24.1144,1.57714,1.30273,-0.110672,
0.285858,0.015936,0.207991,-2.19804,0.164431,0.644892,0.0757751,0.0807707,-0.0997546,0.0806244,0.0523948,-0.846163,0.0841523,0.235121,-2.04364,4.22887,-2.12663,5.39748,42.482,75.954,-49.0633,7.20023,-0.0704969,7.13473,1.82697,-9.75994,4.81479,6.0564,0.281252,0.0204547,0.20345,-2.20427,0.206434,0.599523,0.0703526,0.24498,-0.00924435,0.0656479,0.144573,-1.29448,0.509802,-0.438701,0,0,0,0,0,0,0,-0.424923,-33.7486,-0.0109729,24.1144,1.57714,1.30273,-0.110672,
0.286375,0.0154283,0.208503,-2.19742,0.160312,0.648643,0.0756827,0.077543,-0.092495,0.077298,0.0572022,-0.7799,0.16108,0.185787,-2.01731,4.53722,-2.07897,3.00463,41.4145,48.0799,-30.8333,7.26304,-0.228933,7.21484,1.24014,-7.31706,4.71954,0.958296,0.281252,0.0204547,0.20345,-2.20427,0.206434,0.599523,0.0703526,0.24498,-0.00924435,0.0656479,0.144573,-1.29448,0.509802,-0.438701,0,0,0,0,0,0,0,-0.424923,-33.7486,-0.0109729,24.1144,1.57714,1.30273,-0.110672,
0.286875,0.0149869,0.208998,-2.19689,0.156609,0.651752,0.0756576,0.0745435,-0.0850303,0.0742234,0.0590769,-0.716506,0.206586,0.148003,-1.87472,4.66544,-1.92164,1.17166,39.6211,28.4412,-23.6149,7.43203,-0.708056,7.36534,1.0254,-6.4968,3.67643,-1.15769,0.281252,0.0204547,0.20345,-2.20427,0.206434,0.599523,0.0703526,0.24498,-0.00924435,0.0656479,0.144573,-1.29448,0.509802,-0.438701,0,0,0,0,0,0,0,-0.424923,-33.7486,-0.0109729,24.1144,1.57714,1.30273,-0.110672,
0.287976,0.0173791,0.212505,-2.19871,0.129408,0.610406,0.0661943,0.0735383,-0.0715162,0.0730899,0.0528292,-0.657506,0.173226,0.119284,-0.62823,8.44635,-0.70844,-3.90482,36.8753,-20.8498,-17.9499,7.72987,0.138413,7.66877,1.1329,-5.41925,0.926492,-1.0262,0.284708,0.018614,0.209296,-2.19997,0.154449,0.606574,0.0675821,0.139452,-0.0462531,0.117588,0.108586,-1.40484,0.0642834,0.87224,-13.191,-4.6261,6.49255,-4.49846,-13.7943,-55.6898,163.868,1.17389,-34.5976,1.06416,20.9485,1.09466,-0.295786,0.487168,
0.288511,0.0172612,0.213033,-2.1985,0.126442,0.610511,0.0662366,0.0722092,-0.0601593,0.0716679,0.0476085,-0.600165,0.141214,0.0964852,-0.830692,7.09807,-0.88873,-3.26292,35.838,-20.0077,-14.249,7.53626,0.280632,7.46734,1.08159,-4.94052,0.39332,-0.756621,0.284708,0.018614,0.209296,-2.19997,0.154449,0.606574,0.0675821,0.139452,-0.0462531,0.117588,0.108586,-1.40484,0.0642834,0.87224,0,0,0,0,0,0,0,1.17389,-34.5976,1.06416,20.9485,1.09466,-0.295786,0.487168,
0.28903,0.0171577,0.213544,-2.1983,0.12381,0.610424,0.0662927,0.0707363,-0.0507145,0.0701271,0.0431794,-0.545929,0.110797,0.0785891,-0.920581,5.90296,-0.963038,-2.76822,33.8974,-19.0105,-11.185,7.34773,0.358426,7.27084,1.00372,-4.46452,-0.0641028,-0.0719026,0.284708,0.018614,0.209296,-2.19997,0.154449,0.606574,0.0675821,0.139452,-0.0462531,0.117588,0.108586,-1.40484,0.0642834,0.87224,0,0,0,0,0,0,0,1.17389,-34.5976,1.06416,20.9485,1.09466,-0.295786,0.487168,
0.289536,0.0170641,0.214043,-2.1981,0.121463,0.610168,0.066375,0.0692239,-0.0429133,0.0685645,0.0393701,-0.495423,0.0822476,0.0649307,-0.945245,4.87574,-0.976582,-2.38081,31.5662,-17.8436,-8.53646,7.15752,0.325801,7.07599,1.03579,-4.02374,-0.320654,-0.0138821,0.284708,0.018614,0.209296,-2.19997,0.154449,0.606574,0.0675821,0.139452,-0.0462531,0.117588,0.108586,-1.40484,0.0642834,0.87224,0,0,0,0,0,0,0,1.17389,-34.5976,1.06416,20.9485,1.09466,-0.295786,0.487168,
0.287653,0.0173005,0.212204,-2.19899,0.137996,0.610822,0.0679725,0.067803,-0.0383302,0.0672481,0.0356468,-0.433279,0.0796953,0.0549336,-0.888062,2.86443,-0.822788,-2.32704,38.8402,-1.59519,-6.24819,6.71877,0.0785889,6.74316,0.941736,-2.49245,0.693704,0.064302,0.289822,0.0159499,0.212785,-2.19856,0.117638,0.618684,0.130476,0.028799,-0.0564055,0.219276,0.0169598,-0.878412,0.615642,1.75185,-13.8316,-1.26904,12.7109,-11.4532,65.8032,68.9198,109.951,2.97107,-31.4754,3.06367,29.2203,1.90673,2.85363,0.0907442,
0.288137,0.0171599,0.212688,-2.19883,0.136843,0.611254,0.0681701,0.0663428,-0.0341798,0.0658853,0.0324532,-0.375455,0.0745502,0.048889,-0.912607,2.594,-0.851747,-1.99602,36.14,-3.21567,-3.7779,6.55129,-0.0937731,6.5713,0.911024,-2.14001,0.459047,0.0665905,0.289822,0.0159499,0.212785,-2.19856,0.117638,0.618684,0.130476,0.028799,-0.0564055,0.219276,0.0169598,-0.878412,0.615642,1.75185,0,0,0,0,0,0,0,2.97107,-31.4754,3.06367,29.2203,1.90673,2.85363,0.0907442,
0.288612,0.0170317,0.213162,-2.19868,0.13593,0.611583,0.0684971,0.0649449,-0.0305489,0.0645723,0.0296533,-0.323189,0.0678641,0.047285,-0.873702,2.26934,-0.820626,-1.74991,32.666,-4.17884,-1.00246,6.38839,-0.228695,6.40557,0.889928,-1.83028,0.274377,0.0815853,0.289822,0.0159499,0.212785,-2.19856,0.117638,0.618684,0.130476,0.028799,-0.0564055,0.219276,0.0169598,-0.878412,0.615642,1.75185,0,0,0,0,0,0,0,2.97107,-31.4754,3.06367,29.2203,1.90673,2.85363,0.0907442,
0.292858,0.0146815,0.215807,-2.19674,0.108025,0.628217,0.133144,0.0651115,-0.0293502,0.0647546,0.0315195,-0.277927,0.0783322,0.0635252,0.104144,0.749212,0.113962,1.16638,28.289,6.54259,10.1501,6.83565,0.674178,6.82578,1.37281,-1.46236,0.456134,0.17921,0.289822,0.0159499,0.212785,-2.19856,0.117638,0.618684,0.130476,0.028799,-0.0564055,0.219276,0.0169598,-0.878412,0.615642,1.75185,0,0,0,0,0,0,0,2.97107,-31.4754,3.06367,29.2203,1.90673,2.85363,0.0907442,
0.293369,0.0145057,0.216316,-2.19647,0.107484,0.628959,0.133767,0.0648664,-0.0278767,0.0645321,0.0320862,-0.235874,0.0812148,0.0663947,-0.153175,0.920932,-0.139094,0.354206,26.2829,1.80159,1.79338,6.89517,0.229799,6.8953,1.46508,-1.10643,0.278407,0.271178,0.294722,0.0133774,0.216978,-2.19594,0.0940817,0.627834,0.127532,0.168517,-0.0769493,0.130752,0.0702503,-0.486762,0.066997,-1.37585,17.4647,-2.56799,-11.0655,6.6613,48.9563,-68.5806,-390.962,2.54261,-28.3055,2.71455,21.3968,1.71081,2.44988,-0.378921,
0.293869,0.0143488,0.216814,-2.19622,0.107117,0.629528,0.1337,0.0643759,-0.0262229,0.0640636,0.031844,-0.197885,0.0791882,0.051443,-0.306593,1.03361,-0.292822,-0.15139,23.7432,-1.26659,-9.34479,6.7357,0.0547921,6.73013,1.42253,-0.935382,0.14136,0.431619,0.294722,0.0133774,0.216978,-2.19594,0.0940817,0.627834,0.127532,0.168517,-0.0769493,0.130752,0.0702503,-0.486762,0.066997,-1.37585,0,0,0,0,0,0,0,2.54261,-28.3055,2.71455,21.3968,1.71081,2.44988,-0.378921,
0.29436,0.0142087,0.217304,-2.19599,0.106842,0.62995,0.133607,0.0637884,-0.0244801,0.0634957,0.0311248,-0.165175,0.0739017,0.0388261,-0.367167,1.08924,-0.354885,-0.449517,20.4436,-3.30408,-7.88556,6.59376,-0.0743793,6.58501,1.38851,-0.782407,0.0472589,0.725321,0.294722,0.0133774,0.216978,-2.19594,0.0940817,0.627834,0.127532,0.168517,-0.0769493,0.130752,0.0702503,-0.486762,0.066997,-1.37585,0,0,0,0,0,0,0,2.54261,-28.3055,2.71455,21.3968,1.71081,2.44988,-0.378921,
0.298587,0.0117266,0.220814,-2.19449,0.0901117,0.630246,0.128345,0.0665435,-0.024692,0.066264,0.0307387,-0.135379,0.0661932,0.0280744,1.72195,-0.132395,1.73018,-0.241297,18.6229,-4.8178,-6.71982,6.47253,-0.180045,6.46256,1.35014,-0.63232,-4.1561e-05,1.31973,0.294722,0.0133774,0.216978,-2.19594,0.0940817,0.627834,0.127532,0.168517,-0.0769493,0.130752,0.0702503,-0.486762,0.066997,-1.37585,0,0,0,0,0,0,0,2.54261,-28.3055,2.71455,21.3968,1.71081,2.44988,-0.378921,
0.299169,0.0115541,0.221395,-2.19428,0.0900279,0.630451,0.128234,0.0677883,-0.0240655,0.0675324,0.0298896,-0.110398,0.0580785,0.0196828,0.777965,0.391506,0.792715,-0.530706,15.6131,-5.07169,-5.24475,6.36144,-0.39449,6.36077,1.42146,-0.402425,0.013938,0.768356,0.298828,0.0122177,0.221678,-2.19467,0.0843401,0.628844,0.0880042,0.189234,-0.0303448,0.0657235,0.0231409,-0.203562,0.0211642,-0.133048,2.58956,5.82557,-8.12852,-5.88867,35.4,-5.7291,155.35,1.14612,-31.7253,1.28633,25.8322,0.697323,3.5302,0.305893,
0.299721,0.0114059,0.221946,-2.19408,0.0899567,0.630592,0.128115,0.0680272,-0.0229593,0.0677991,0.028728,-0.0900966,0.0499883,0.0127508,0.149342,0.691424,0.166677,-0.725995,12.6883,-5.05642,-4.33248,6.21515,-0.483339,6.21362,1.47811,-0.261392,-0.0126279,-0.110394,0.298828,0.0122177,0.221678,-2.19467,0.0843401,0.628844,0.0880042,0.189234,-0.0303448,0.0657235,0.0231409,-0.203562,0.0211642,-0.133048,0,0,0,0,0,0,0,1.14612,-31.7253,1.28633,25.8322,0.697323,3.5302,0.305893,
0.300248,0.0112763,0.222473,-2.19391,0.0898817,0.630691,0.128012,0.0676085,-0.0216058,0.0674088,0.0273286,-0.0739527,0.0424793,0.00764745,-0.261718,0.845919,-0.243949,-0.874646,10.0899,-4.69308,-3.18959,6.07954,-0.513533,6.07531,1.44904,-0.222421,-0.0786658,-0.113382,0.298828,0.0122177,0.221678,-2.19467,0.0843401,0.628844,0.0880042,0.189234,-0.0303448,0.0657235,0.0231409,-0.203562,0.0211642,-0.133048,0,0,0,0,0,0,0,1.14612,-31.7253,1.28633,25.8322,0.697323,3.5302,0.305893,
0.302335,0.0114873,0.225156,-2.19392,0.0830912,0.628981,0.0873836,0.0685533,-0.0199135,0.0683546,0.0252358,-0.0602024,0.0335812,0.00415781,0.590545,1.05767,0.591133,-1.30796,8.59394,-5.56134,-2.18103,5.95107,-0.524694,5.94596,1.43133,-0.200769,-0.148834,-0.141567,0.298828,0.0122177,0.221678,-2.19467,0.0843401,0.628844,0.0880042,0.189234,-0.0303448,0.0657235,0.0231409,-0.203562,0.0211642,-0.133048,0,0,0,0,0,0,0,1.14612,-31.7253,1.28633,25.8322,0.697323,3.5302,0.305893,
0.302879,0.011393,0.225699,-2.19379,0.0830423,0.628953,0.0873047,0.0684542,-0.0182894,0.0682659,0.0233996,-0.0493834,0.0261673,0.00135509,-0.0619526,1.01511,-0.055422,-1.14764,6.76189,-4.63366,-1.7517,5.82969,-0.571977,5.82288,1.4008,-0.184535,-0.145437,-0.132959,0.30191,0.012156,0.226611,-2.19379,0.0809531,0.6291,0.131087,0.148831,0.000266119,0.0863823,0.0116556,-0.0782478,0.000174154,1.62544,-5.05031,3.82637,2.58235,-1.43567,15.6642,-2.62375,219.811,0.689884,-33.7962,0.512709,26.5781,0.538937,3.43773,0.158493,
0.303396,0.0113069,0.226215,-2.19366,0.082978,0.628907,0.0871834,0.0676822,-0.0167841,0.0675089,0.0218235,-0.0411148,0.0197942,-0.00194969,-0.482541,0.940804,-0.473144,-0.985086,5.16788,-3.98323,-2.06549,5.71582,-0.579084,5.70875,1.3746,-0.183528,-0.152646,-0.146562,0.30191,0.012156,0.226611,-2.19379,0.0809531,0.6291,0.131087,0.148831,0.000266119,0.0863823,0.0116556,-0.0782478,0.000174154,1.62544,0,0,0,0,0,0,0,0.689884,-33.7962,0.512709,26.5781,0.538937,3.43773,0.158493,
0.30389,0.0112273,0.226708,-2.19355,0.0828916,0.628861,0.0870819,0.0665029,-0.0154177,0.0663461,0.0203951,-0.0350513,0.0146704,-0.00409639,-0.737062,0.853985,-0.726714,-0.892707,3.78966,-3.20238,-1.34169,5.60928,-0.588988,5.60195,1.34211,-0.188293,-0.12198,-0.124283,0.30191,0.012156,0.226611,-2.19379,0.0809531,0.6291,0.131087,0.148831,0.000266119,0.0863823,0.0116556,-0.0782478,0.000174154,1.62544,0,0,0,0,0,0,0,0.689884,-33.7962,0.512709,26.5781,0.538937,3.43773,0.158493,
0.305177,0.011918,0.229856,-2.19338,0.0808987,0.628559,0.131177,0.0668473,-0.0136929,0.0666758,0.0185113,-0.0289911,0.00908339,-0.00363327,0.215285,1.07799,0.206064,-1.17741,3.78765,-3.49186,0.289453,5.50942,-0.601139,5.5021,1.30772,-0.193954,-0.0880879,-0.092007,0.30191,0.012156,0.226611,-2.19379,0.0809531,0.6291,0.131087,0.148831,0.000266119,0.0863823,0.0116556,-0.0782478,0.000174154,1.62544,0,0,0,0,0,0,0,0.689884,-33.7962,0.512709,26.5781,0.538937,3.43773,0.158493,
0.305691,0.0118636,0.230368,-2.19329,0.0808286,0.628458,0.131167,0.0663166,-0.0123148,0.0661408,0.017054,-0.024946,0.00474558,-0.00316405,-0.331688,0.861326,-0.334395,-0.910816,2.52818,-2.71113,0.29326,5.41273,-0.644412,5.40456,1.30905,-0.195939,-0.0920905,-0.0955324,0.306253,0.012074,0.231726,-2.19366,0.080044,0.629078,0.137011,0.0738267,-0.00405576,0.213525,0.00692122,-0.0197368,0.00143801,-1.05652,-9.37555,-0.540235,15.8928,-0.591792,7.31388,0.157982,-335.245,0.25745,-33.1218,0.139784,26.2805,0.392452,3.22533,-0.405472,
0.306178,0.0118095,0.230854,-2.1932,0.0807295,0.628354,0.131157,0.0652346,-0.0112041,0.0650607,0.0159534,-0.0224335,0.00118119,-0.00277099,-0.676263,0.694165,-0.675029,-0.687826,1.57028,-2.22774,0.245664,5.31745,-0.642712,5.30935,1.30144,-0.202358,-0.115705,-0.151618,0.306253,0.012074,0.231726,-2.19366,0.080044,0.629078,0.137011,0.0738267,-0.00405576,0.213525,0.00692122,-0.0197368,0.00143801,-1.05652,0,0,0,0,0,0,0,0.25745,-33.1218,0.139784,26.2805,0.392452,3.22533,-0.405472,
0.310035,0.0117712,0.235499,-2.19324,0.0802595,0.628484,0.136591,0.0669522,-0.0105589,0.0667484,0.0151087,-0.0177441,-0.0029823,-0.00250122,1.07352,0.403272,1.05476,-0.527935,2.93091,-2.60218,0.168602,5.14275,-0.630605,5.13397,1.24442,-0.239527,-0.019838,-0.0108047,0.306253,0.012074,0.231726,-2.19366,0.080044,0.629078,0.137011,0.0738267,-0.00405576,0.213525,0.00692122,-0.0197368,0.00143801,-1.05652,0,0,0,0,0,0,0,0.25745,-33.1218,0.139784,26.2805,0.392452,3.22533,-0.405472,
0.310577,0.0117092,0.236038,-2.19315,0.0802204,0.628317,0.136581,0.0671121,-0.00999585,0.0668955,0.014492,-0.0151731,-0.0065642,-0.00225243,0.0999063,0.351905,0.0919817,-0.385479,1.60683,-2.23869,0.155493,5.05971,-0.619941,5.05137,1.23134,-0.246275,-0.0577915,-0.0106888,0.306253,0.012074,0.231726,-2.19366,0.080044,0.629078,0.137011,0.0738267,-0.00405576,0.213525,0.00692122,-0.0197368,0.00143801,-1.05652,0,0,0,0,0,0,0,0.25745,-33.1218,0.139784,26.2805,0.392452,3.22533,-0.405472,
0.311081,0.0116495,0.23654,-2.19305,0.0801381,0.628139,0.136572,0.0662729,-0.00949117,0.0660546,0.0140371,-0.014196,-0.00968486,-0.00202855,-0.52451,0.315423,-0.525593,-0.284303,0.610704,-1.95041,0.139924,4.97695,-0.624076,4.96713,1.20163,-0.257895,-0.099486,-0.0103121,0.311247,0.0121141,0.235145,-2.19304,0.0800858,0.629167,0.105088,0.0558718,0.00219773,0.187607,0.0204952,0.000258238,-0.00188674,-0.0120299,-2.24436,0.781687,-3.23972,1.69675,2.49938,-0.415594,130.561,0.309024,-33.7962,0.564283,24.9594,0.0683558,2.53594,0.164902,
0.311553,0.0115919,0.237011,-2.19295,0.0800181,0.627951,0.136563,0.0648213,-0.00903218,0.064608,0.0136962,-0.0143567,-0.0124512,-0.00183061,-0.907254,0.286869,-0.90414,-0.21309,-0.100447,-1.72898,0.123715,4.89625,-0.596832,4.88631,1.19586,-0.268509,-0.129084,-0.010007,0.311247,0.0121141,0.235145,-2.19304,0.0800858,0.629167,0.105088,0.0558718,0.00219773,0.187607,0.0204952,0.000258238,-0.00188674,-0.0120299,0,0,0,0,0,0,0,0.309024,-33.7962,0.564283,24.9594,0.0683558,2.53594,0.164902,
0.314534,0.0118424,0.238425,-2.19252,0.0802859,0.628485,0.105015,0.065025,-0.00874812,0.0647957,0.0135047,-0.0129556,-0.0149026,-0.00169095,0.127351,0.177535,0.117351,-0.119661,0.875664,-1.53209,0.0872883,4.81577,-0.568566,4.80567,1.19164,-0.280357,-0.157438,-0.0096257,0.311247,0.0121141,0.235145,-2.19304,0.0800858,0.629167,0.105088,0.0558718,0.00219773,0.187607,0.0204952,0.000258238,-0.00188674,-0.0120299,0,0,0,0,0,0,0,0.309024,-33.7962,0.564283,24.9594,0.0683558,2.53594,0.164902,
0.315021,0.0117833,0.23891,-2.19242,0.0801802,0.62827,0.105007,0.0641995,-0.00847492,0.0639659,0.0133458,-0.0130072,-0.0172909,-0.00155452,-0.515932,0.170751,-0.518611,-0.0993295,-0.03222,-1.49273,0.0852679,4.73538,-0.541415,4.72511,1.18801,-0.292234,-0.183925,-0.00926116,0.311247,0.0121141,0.235145,-2.19304,0.0800858,0.629167,0.105088,0.0558718,0.00219773,0.187607,0.0204952,0.000258238,-0.00188674,-0.0120299,0,0,0,0,0,0,0,0.309024,-33.7962,0.564283,24.9594,0.0683558,2.53594,0.164902,
0.315476,0.0117265,0.239364,-2.19231,0.0800339,0.628041,0.105,0.0627428,-0.00820059,0.0625122,0.0132079,-0.0140623,-0.0195766,-0.00142474,-0.910467,0.171454,-0.908563,-0.0861788,-0.659453,-1.42852,0.081116,4.6551,-0.516434,4.64465,1.18466,-0.30484,-0.209987,-0.00884464,0.311247,0.0121141,0.235145,-2.19304,0.0800858,0.629167,0.105088,0.0558718,0.00219773,0.187607,0.0204952,0.000258238,-0.00188674,-0.0120299,0,0,0,0,0,0,0,0.309024,-33.7962,0.564283,24.9594,0.0683558,2.53594,0.164902,
0.315905,0.011672,0.239792,-2.19221,0.0798529,0.627797,0.104994,0.0609276,-0.00792373,0.0607045,0.0130823,-0.0157752,-0.0217447,-0.001304,-1.13451,0.173043,-1.12986,-0.0784952,-1.07052,-1.3551,0.0754599,4.58116,-0.520739,4.56869,1.18228,-0.316187,-0.233875,-0.00849605,0.316184,0.0121737,0.239117,-2.19271,0.0800847,0.629127,0.129279,0.210686,-0.0049794,0.0421174,0.00201796,0.000224635,-0.00313286,0.420507,19.3517,-0.897141,-18.1862,-2.30966,-0.0042003,-0.155764,54.0671,-0.325741,-33.3479,-0.0387439,26.3043,0.123287,2.86095,0.0376436,
0.31952,0.0119148,0.242417,-2.1923,0.0802282,0.627837,0.129348,0.0617339,-0.00768555,0.0614871,0.0127836,-0.0146821,-0.0249048,-0.00123907,0.50395,0.148858,0.489163,-0.186665,0.683188,-1.97501,0.0405821,4.50108,-0.500248,4.48845,1.17902,-0.32928,-0.257728,-0.00805666,0.316184,0.0121737,0.239117,-2.19271,0.0800847,0.629127,0.129279,0.210686,-0.0049794,0.0421174,0.00201796,0.000224635,-0.00313286,0.420507,0,0,0,0,0,0,0,-0.325741,-33.3479,-0.0387439,26.3043,0.123287,2.86095,0.0376436,
0.319996,0.0118623,0.24289,-2.19221,0.0800932,0.627531,0.129342,0.0612881,-0.00746198,0.0610319,0.0125687,-0.0151211,-0.0275774,-0.00115931,-0.278647,0.139732,-0.284521,-0.134299,-0.274433,-1.6704,0.0498485,4.42109,-0.481653,4.40831,1.17579,-0.342271,-0.279676,-0.00764246,0.316184,0.0121737,0.239117,-2.19271,0.0800847,0.629127,0.129279,0.210686,-0.0049794,0.0421174,0.00201796,0.000224635,-0.00313286,0.420507,0,0,0,0,0,0,0,-0.325741,-33.3479,-0.0387439,26.3043,0.123287,2.86095,0.0376436,
0.320437,0.0118114,0.243329,-2.19211,0.0799119,0.62722,0.129336,0.0600565,-0.00724237,0.0598,0.0124086,-0.016629,-0.0298309,-0.00107203,-0.76972,0.13726,-0.769913,-0.100074,-0.942424,-1.40845,0.0545481,4.34116,-0.464863,4.32823,1.17268,-0.356092,-0.300743,-0.00717764,0.316184,0.0121737,0.239117,-2.19271,0.0800847,0.629127,0.129279,0.210686,-0.0049794,0.0421174,0.00201796,0.000224635,-0.00313286,0.420507,0,0,0,0,0,0,0,-0.325741,-33.3479,-0.0387439,26.3043,0.123287,2.86095,0.0376436,
0.32085,0.0117621,0.24374,-2.19202,0.0796899,0.626906,0.129331,0.0583613,-0.00702416,0.0581101,0.0122831,-0.0188514,-0.0317285,-0.000982661,-1.05952,0.136379,-1.05622,-0.0784614,-1.38895,-1.186,0.0558582,4.25764,-0.499825,4.24379,1.16321,-0.370813,-0.321512,-0.00670278,0.31876,0.0120206,0.245125,-2.19244,0.0800835,0.628945,0.115639,0.143543,0.00347135,0.104611,0.0134672,0.000648737,-0.0120551,-0.241571,-8.39279,1.05634,7.81172,1.43115,0.0530128,-1.11527,-82.7597,-0.95654,-32.0744,-1.28844,25.2094,0.129696,2.79412,-0.0365141,
0.321987,0.0118063,0.248327,-2.19198,0.0799751,0.627531,0.115507,0.0591019,-0.00696008,0.058829,0.0121454,-0.0184392,-0.0337199,-0.000939597,0.462902,0.0400475,0.449343,-0.0860589,0.257607,-1.24462,0.0269148,4.17769,-0.485898,4.16369,1.16043,-0.386034,-0.339082,-0.00620805,0.31876,0.0120206,0.245125,-2.19244,0.0800835,0.628945,0.115639,0.143543,0.00347135,0.104611,0.0134672,0.000648737,-0.0120551,-0.241571,0,0,0,0,0,0,0,-0.95654,-32.0744,-1.28844,25.2094,0.129696,2.79412,-0.0365141,
0.322439,0.0117534,0.248777,-2.19189,0.0797826,0.627193,0.115502,0.0585929,-0.00689051,0.0583123,0.0120395,-0.0195651,-0.0354264,-0.00087403,-0.318124,0.0434874,-0.322951,-0.0661592,-0.703677,-1.06659,0.0409798,4.09765,-0.473102,4.08349,1.15786,-0.40192,-0.354056,-0.00573307,0.31876,0.0120206,0.245125,-2.19244,0.0800835,0.628945,0.115639,0.143543,0.00347135,0.104611,0.0134672,0.000648737,-0.0120551,-0.241571,0,0,0,0,0,0,0,-0.95654,-32.0744,-1.28844,25.2094,0.129696,2.79412,-0.0365141,
0.322856,0.0117019,0.249192,-2.1918,0.0795369,0.626854,0.115498,0.057304,-0.00679971,0.0570244,0.0119511,-0.0217935,-0.0368158,-0.000794998,-0.805593,0.0567475,-0.804916,-0.055251,-1.39279,-0.868327,0.0493946,4.01744,-0.461465,4.00313,1.15556,-0.419615,-0.367364,-0.00520177,0.31876,0.0120206,0.245125,-2.19244,0.0800835,0.628945,0.115639,0.143543,0.00347135,0.104611,0.0134672,0.000648737,-0.0120551,-0.241571,0,0,0,0,0,0,0,-0.95654,-32.0744,-1.28844,25.2094,0.129696,2.79412,-0.0365141,
0.326206,0.0120118,0.251698,-2.19192,0.0794976,0.626239,0.120802,0.0570517,-0.00639562,0.0567542,0.011497,-0.0235684,-0.0392876,-0.000721792,-0.157646,0.252554,-0.168891,-0.283815,-1.1093,-1.54488,0.0457539,3.86257,-0.474642,3.84564,1.14574,-0.459721,-0.386198,-0.00412325,0.323333,0.0121436,0.24883,-2.19224,0.0800608,0.628212,0.120866,0.0201615,0.00154043,0.19861,0.000337266,0.000978171,-0.031477,-0.0820044,-15.4227,-0.241365,11.7499,-1.64124,0.0411792,-2.42774,19.9458,-0.805783,-33.5741,-0.859972,26.3559,0.202938,3.00652,-0.0566557,
0.326615,0.0119723,0.252105,-2.19184,0.0791886,0.625861,0.1208,0.0558867,-0.00610488,0.0555828,0.0111935,-0.0265797,-0.0409018,-0.000633344,-0.728137,0.181715,-0.732134,-0.189693,-1.88207,-1.00886,0.0552802,3.78151,-0.465726,3.7644,1.14436,-0.483568,-0.391037,-0.00356496,0.323333,0.0121436,0.24883,-2.19224,0.0800608,0.628212,0.120866,0.0201615,0.00154043,0.19861,0.000337266,0.000978171,-0.031477,-0.0820044,0,0,0,0,0,0,0,-0.805783,-33.5741,-0.859972,26.3559,0.202938,3.00652,-0.0566557,
0.326994,0.0119323,0.252481,-2.19176,0.0788193,0.625498,0.120799,0.0541789,-0.00588377,0.0538759,0.0109927,-0.0304967,-0.0417875,-0.000535438,-1.06738,0.138193,-1.06681,-0.125546,-2.44809,-0.553606,0.061191,3.7001,-0.457688,3.68278,1.14333,-0.510929,-0.393313,-0.00294102,0.323333,0.0121436,0.24883,-2.19224,0.0800608,0.628212,0.120866,0.0201615,0.00154043,0.19861,0.000337266,0.000978171,-0.031477,-0.0820044,0,0,0,0,0,0,0,-0.805783,-33.5741,-0.859972,26.3559,0.202938,3.00652,-0.0566557,
0.327348,0.0118923,0.252832,-2.19167,0.0783922,0.625153,0.120799,0.0521801,-0.00570632,0.0518824,0.0108599,-0.0350748,-0.0420567,-0.000432957,-1.24924,0.110908,-1.24593,-0.0829791,-2.8613,-0.168262,0.0640504,3.61829,-0.450336,3.60075,1.14265,-0.541407,-0.391831,-0.00233239,0.323333,0.0121436,0.24883,-2.19224,0.0800608,0.628212,0.120866,0.0201615,0.00154043,0.19861,0.000337266,0.000978171,-0.031477,-0.0820044,0,0,0,0,0,0,0,-0.805783,-33.5741,-0.859972,26.3559,0.202938,3.00652,-0.0566557,
0.326148,0.012017,0.251639,-2.19192,0.0790765,0.626291,0.120815,0.0525309,-0.00547852,0.0522153,0.0105872,-0.0372938,-0.0428328,-0.000365848,0.219227,0.142374,0.208082,-0.170412,-1.38692,-0.485048,0.0419437,3.53649,-0.474272,3.51708,1.14367,-0.580139,-0.381918,-0.00167499,0.327742,0.012235,0.251464,-2.19228,0.0798334,0.62681,0.120411,0.0999522,0.00367516,0.093681,-0.00105507,-0.0103364,-0.036564,-0.000219571,9.97384,0.266841,-13.1161,-0.174042,-1.41433,-0.635876,10.2231,-0.373349,-33.3717,-0.110155,26.8042,0.221249,2.97997,-0.0429228,
0.326539,0.0119795,0.252028,-2.19184,0.0786261,0.625947,0.120815,0.0518092,-0.00531899,0.0514876,0.0104186,-0.0410948,-0.0428442,-0.00027882,-0.451052,0.0997043,-0.45487,-0.105394,-2.37563,-0.00710028,0.0543924,3.45401,-0.468235,3.43435,1.14372,-0.619049,-0.373373,-0.00100757,0.327742,0.012235,0.251464,-2.19228,0.0798334,0.62681,0.120411,0.0999522,0.00367516,0.093681,-0.00105507,-0.0103364,-0.036564,-0.000219571,0,0,0,0,0,0,0,-0.373349,-33.3717,-0.110155,26.8042,0.221249,2.97997,-0.0429228,
0.326899,0.011942,0.252385,-2.19176,0.0780988,0.625631,0.120817,0.0504264,-0.00519374,0.050106,0.0103182,-0.0460592,-0.0421925,-0.000178633,-0.864235,0.0782808,-0.863475,-0.0627252,-3.10272,0.407325,0.0626167,3.37133,-0.462812,3.35138,1.14411,-0.663145,-0.361534,-0.00026327,0.327742,0.012235,0.251464,-2.19228,0.0798334,0.62681,0.120411,0.0999522,0.00367516,0.093681,-0.00105507,-0.0103364,-0.036564,-0.000219571,0,0,0,0,0,0,0,-0.373349,-33.3717,-0.110155,26.8042,0.221249,2.97997,-0.0429228,
0.327232,0.0119048,0.252715,-2.19168,0.0774983,0.625342,0.12082,0.0486654,-0.00508478,0.0483505,0.0102613,-0.051859,-0.0409772,-7.15055e-05,-1.10064,0.0681014,-1.09718,-0.035557,-3.62488,0.759543,0.0669546,3.28856,-0.457764,3.26832,1.14486,-0.711664,-0.345545,0.000474887,0.327742,0.012235,0.251464,-2.19228,0.0798334,0.62681,0.120411,0.0999522,0.00367516,0.093681,-0.00105507,-0.0103364,-0.036564,-0.000219571,0,0,0,0,0,0,0,-0.373349,-33.3717,-0.110155,26.8042,0.221249,2.97997,-0.0429228,
0.330278,0.0121688,0.253979,-2.192,0.077797,0.625063,0.120407,0.0486752,-0.00475841,0.0483434,0.00991893,-0.0567646,-0.0402305,1.18771e-05,0.00615923,0.203982,-0.00443105,-0.214008,-3.06602,0.466706,0.0521141,3.20218,-0.490986,3.17991,1.15019,-0.807656,-0.304901,0.00129165,0.330685,0.0122945,0.255176,-2.19226,0.0789197,0.625856,0.120412,0.17257,0.00253423,0.0148403,-0.00103988,-0.0296968,-0.017499,6.23778e-05,9.07726,-0.142616,-9.85509,0.00189848,-2.42005,2.38313,0.0352435,-0.781979,-33.2488,-0.661608,26.5027,0.202938,2.8875,-0.0227812,
0.330632,0.0121391,0.25433,-2.19193,0.0770987,0.624802,0.120411,0.0477867,-0.00454961,0.047448,0.00972139,-0.0628688,-0.0387109,0.000110178,-0.555355,0.130499,-0.559615,-0.123465,-3.81511,0.949707,0.0614381,3.12037,-0.486425,3.09776,1.15163,-0.866044,-0.281383,0.00210645,0.330685,0.0122945,0.255176,-2.19226,0.0789197,0.625856,0.120412,0.17257,0.00253423,0.0148403,-0.00103988,-0.0296968,-0.017499,6.23778e-05,0,0,0,0,0,0,0,-0.781979,-33.2488,-0.661608,26.5027,0.202938,2.8875,-0.0227812,
0.330957,0.0121083,0.254652,-2.19186,0.0763215,0.624577,0.120416,0.046352,-0.0044094,0.0460129,0.00962386,-0.0697237,-0.036577,0.000218028,-0.896677,0.087632,-0.896981,-0.060956,-4.28433,1.33369,0.0674061,3.03947,-0.481933,3.01649,1.1533,-0.928944,-0.254911,0.00300724,0.330685,0.0122945,0.255176,-2.19226,0.0789197,0.625856,0.120412,0.17257,0.00253423,0.0148403,-0.00103988,-0.0296968,-0.017499,6.23778e-05,0,0,0,0,0,0,0,-0.781979,-33.2488,-0.661608,26.5027,0.202938,2.8875,-0.0227812,
0.333142,0.0122132,0.257596,-2.19197,0.0748435,0.625074,0.120431,0.0463577,-0.00426332,0.0459993,0.00941732,-0.0823514,-0.0314355,0.000331241,0.00353998,0.0912969,-0.00846557,-0.129086,-7.89229,3.21344,0.0707583,2.86947,-0.492289,2.84607,1.16624,-1.39226,-0.0528729,0.00501363,0.330685,0.0122945,0.255176,-2.19226,0.0789197,0.625856,0.120412,0.17257,0.00253423,0.0148403,-0.00103988,-0.0296968,-0.017499,6.23778e-05,0,0,0,0,0,0,0,-0.781979,-33.2488,-0.661608,26.5027,0.202938,2.8875,-0.0227812,
0.333477,0.0121821,0.257927,-2.1919,0.0737049,0.625026,0.120438,0.045445,-0.00418784,0.0450775,0.00933502,-0.0943444,-0.0263655,0.000447928,-0.570436,0.0471759,-0.576143,-0.0514354,-7.49562,3.1688,0.0729294,2.79597,-0.523868,2.77064,1.16391,-1.46053,-0.0193029,0.00602127,0.332719,0.012319,0.25899,-2.19224,0.0769744,0.625376,0.120419,0.107773,0.0024375,0.045567,0.0024382,-0.0607608,-0.00515545,0.0011533,-8.09962,-0.012091,3.84083,0.43476,-3.883,1.54294,0.136365,-0.781979,-33.1496,-0.93535,26.2051,0.141598,2.70806,-0.0630644,
0.333781,0.0121503,0.258229,-2.19183,0.0725133,0.62501,0.120446,0.0439734,-0.00414526,0.043603,0.0093454,-0.105265,-0.0214715,0.000564645,-0.919748,0.0266136,-0.92152,0.006484,-6.82561,3.05873,0.0729483,2.72718,-0.516823,2.70137,1.16704,-1.52775,0.016383,0.00710477,0.332719,0.012319,0.25899,-2.19224,0.0769744,0.625376,0.120419,0.107773,0.0024375,0.045567,0.0024382,-0.0607608,-0.00515545,0.0011533,0,0,0,0,0,0,0,-0.781979,-33.1496,-0.93535,26.2051,0.141598,2.70806,-0.0630644,
0.334062,0.0121184,0.258507,-2.19175,0.0712935,0.625022,0.120455,0.0421895,-0.00411559,0.0418198,0.00942801,-0.11471,-0.016885,0.000673916,-1.11492,0.0185443,-1.11451,0.0516334,-5.90262,2.86656,0.0682942,2.6626,-0.508392,2.63631,1.17064,-1.5869,0.0510003,0.00814172,0.332719,0.012319,0.25899,-2.19224,0.0769744,0.625376,0.120419,0.107773,0.0024375,0.045567,0.0024382,-0.0607608,-0.00515545,0.0011533,0,0,0,0,0,0,0,-0.781979,-33.1496,-0.93535,26.2051,0.141598,2.70806,-0.0630644,
0.33483,0.012226,0.261075,-2.19191,0.0709581,0.625146,0.120463,0.0420166,-0.00406914,0.0416297,0.00940046,-0.127223,-0.0132928,0.00078392,-0.108027,0.0290294,-0.118824,-0.0172207,-7.82118,2.2451,0.0687521,2.6859,-0.534244,2.65736,1.15552,-1.90243,0.0498893,0.00811302,0.332719,0.012319,0.25899,-2.19224,0.0769744,0.625376,0.120419,0.107773,0.0024375,0.045567,0.0024382,-0.0607608,-0.00515545,0.0011533,0,0,0,0,0,0,0,-0.781979,-33.1496,-0.93535,26.2051,0.141598,2.70806,-0.0630644,
0.335131,0.0121936,0.261373,-2.19183,0.0695201,0.625175,0.120474,0.0411551,-0.00406578,0.0407578,0.00946761,-0.137729,-0.00990981,0.000892776,-0.538464,0.00209985,-0.544947,0.0419705,-6.56583,2.11439,0.068035,2.6576,-0.538503,2.62724,1.1589,-1.95611,0.0857041,0.00968125,0.33522,0.0123561,0.261656,-2.19223,0.0730827,0.625364,0.120414,0.0398799,-0.000374241,0.111267,-3.08558e-05,-0.135364,-0.00214319,-0.00103738,-8.48668,-0.351468,8.21254,-0.308632,-9.32543,0.376533,-0.273835,0.638309,-33.098,0.413527,26.3043,0.0683558,2.68792,-0.00996382,
0.335409,0.0121606,0.261647,-2.19175,0.0680993,0.625214,0.120485,0.0398729,-0.00407698,0.0394696,0.00962023,-0.145702,-0.00696046,0.00100138,-0.80135,-0.00699631,-0.805148,0.0953845,-4.98313,1.84334,0.0678793,2.62911,-0.522003,2.5981,1.1661,-1.99416,0.117861,0.0112128,0.33522,0.0123561,0.261656,-2.19223,0.0730827,0.625364,0.120414,0.0398799,-0.000374241,0.111267,-3.08558e-05,-0.135364,-0.00214319,-0.00103738,0,0,0,0,0,0,0,0.638309,-33.098,0.413527,26.3043,0.0683558,2.68792,-0.00996382,
0.335668,0.0121276,0.261902,-2.19166,0.0667334,0.625249,0.120497,0.0383512,-0.00408632,0.0379434,0.00985724,-0.150709,-0.00468191,0.00108714,-0.951106,-0.00584161,-0.953878,0.148135,-3.12954,1.4241,0.0535959,2.60359,-0.5034,2.57192,1.17472,-2.0033,0.139731,0.0124911,0.33522,0.0123561,0.261656,-2.19223,0.0730827,0.625364,0.120414,0.0398799,-0.000374241,0.111267,-3.08558e-05,-0.135364,-0.00214319,-0.00103738,0,0,0,0,0,0,0,0.638309,-33.098,0.413527,26.3043,0.0683558,2.68792,-0.00996382,
0.337263,0.012171,0.263687,-2.19178,0.0692153,0.623416,0.12044,0.0390251,-0.00436521,0.0386403,0.01039,-0.137895,-0.0147972,0.00118865,0.421216,-0.174302,0.435599,0.332967,8.00885,-6.32203,0.0634475,3.04298,-0.688571,3.01943,1.24619,-1.10811,-0.611412,0.00745272,0.33522,0.0123561,0.261656,-2.19223,0.0730827,0.625364,0.120414,0.0398799,-0.000374241,0.111267,-3.08558e-05,-0.135364,-0.00214319,-0.00103738,0,0,0,0,0,0,0,0.638309,-33.098,0.413527,26.3043,0.0683558,2.68792,-0.00996382,
0.337576,0.0121294,0.263998,-2.19168,0.0685743,0.622972,0.120456,0.0390394,-0.00453363,0.038681,0.0108531,-0.126342,-0.0229297,0.00135041,0.0089351,-0.105263,0.0253988,0.289416,7.2207,-5.0828,0.101098,3.09621,-0.632529,3.07245,1.26171,-1.11204,-0.573094,0.011456,0.337788,0.0124053,0.263843,-2.19222,0.0668974,0.625439,0.120415,0.016729,0.00119431,0.115201,-0.0008825,-0.182709,0.0023542,-7.75318e-05,-2.89386,0.196068,0.491748,-0.106456,-5.91808,0.562173,0.119981,0.689884,-33.098,0.611891,26.2805,-0.0479162,2.76757,-0.0163725,
0.337871,0.0120912,0.264291,-2.19158,0.0680236,0.622526,0.120473,0.0386018,-0.00458108,0.0382721,0.0112543,-0.11484,-0.0294919,0.001514,-0.273516,-0.0296589,-0.255514,0.250779,7.18837,-4.1014,0.102247,3.13336,-0.563985,3.11078,1.2788,-1.07836,-0.551163,0.0150429,0.337788,0.0124053,0.263843,-2.19222,0.0668974,0.625439,0.120415,0.016729,0.00119431,0.115201,-0.0008825,-0.182709,0.0023542,-7.75318e-05,0,0,0,0,0,0,0,0.689884,-33.098,0.611891,26.2805,-0.0479162,2.76757,-0.0163725,
0.338149,0.0120598,0.264568,-2.19147,0.0675973,0.622068,0.120483,0.0378369,-0.00444871,0.0375415,0.0117159,-0.102531,-0.0350508,0.00145209,-0.478041,0.0827308,-0.456666,0.28852,7.69324,-3.47433,-0.0386954,3.15326,-0.491829,3.13248,1.30036,-0.995259,-0.549567,0.0168773,0.337788,0.0124053,0.263843,-2.19222,0.0668974,0.625439,0.120415,0.016729,0.00119431,0.115201,-0.0008825,-0.182709,0.0023542,-7.75318e-05,0,0,0,0,0,0,0,0.689884,-33.098,0.611891,26.2805,-0.0479162,2.76757,-0.0163725,
0.339614,0.0122589,0.265664,-2.19182,0.0652098,0.623618,0.12044,0.0380892,-0.00459347,0.0378042,0.0116286,-0.083116,-0.0383871,0.00141352,0.157702,-0.090471,0.164237,-0.0545599,12.1345,-2.0852,-0.0241046,3.41714,-0.630488,3.40965,1.26883,-0.331685,-0.597199,0.0146835,0.337788,0.0124053,0.263843,-2.19222,0.0668974,0.625439,0.120415,0.016729,0.00119431,0.115201,-0.0008825,-0.182709,0.0023542,-7.75318e-05,0,0,0,0,0,0,0,0.689884,-33.098,0.611891,26.2805,-0.0479162,2.76757,-0.0163725,
0.339918,0.0122174,0.265966,-2.19173,0.0651013,0.623242,0.120456,0.0380608,-0.00471154,0.0377909,0.0115525,-0.0692068,-0.0401161,0.00151588,-0.0177736,-0.073797,-0.00832384,-0.0475964,8.69329,-1.08063,0.0639753,3.4646,-0.585631,3.45486,1.28311,-0.300328,-0.560857,0.020552,0.337788,0.0124053,0.263843,-2.19222,0.0668974,0.625439,0.120415,0.016729,0.00119431,0.115201,-0.0008825,-0.182709,0.0023542,-7.75318e-05,0,0,0,0,0,0,0,0.689884,-33.098,0.611891,26.2805,-0.0479162,2.76757,-0.0163725,
0.340211,0.0121761,0.266258,-2.19164,0.0650106,0.622889,0.120472,0.0377778,-0.00480237,0.0375221,0.0115028,-0.0576326,-0.0409,0.0016237,-0.176852,-0.056767,-0.168044,-0.0310653,7.23388,-0.489904,0.0673847,3.47074,-0.557884,3.45913,1.30263,-0.1754,-0.54034,0.025799,0.340264,0.0124443,0.266149,-2.19215,0.0626695,0.625385,0.120418,0.0178944,0.00400011,0.120111,0.000375262,-0.111817,-0.0160171,-0.000176753,0.145677,0.350726,0.613774,0.15722,8.86148,-2.29641,-0.0124027,0.360599,-33.1734,0.286573,26.3043,0.135189,2.65496,-0.0026396,
0.342162,0.0123518,0.268039,-2.19181,0.0620533,0.62369,0.120447,0.0381185,-0.00470451,0.0378441,0.0112728,-0.0441451,-0.0416834,0.00146265,0.212893,0.0611615,0.201258,-0.143735,8.42967,-0.489611,-0.100657,3.3581,-0.620407,3.34052,1.26743,-0.0194361,-0.479746,0.0162873,0.340264,0.0124443,0.266149,-2.19215,0.0626695,0.625385,0.120418,0.0178944,0.00400011,0.120111,0.000375262,-0.111817,-0.0160171,-0.000176753,0,0,0,0,0,0,0,0.360599,-33.1734,0.286573,26.3043,0.135189,2.65496,-0.0026396,
0.342463,0.0123161,0.268338,-2.19173,0.0620803,0.623354,0.120458,0.0380238,-0.00465574,0.0377418,0.0111893,-0.0346393,-0.0417593,0.00145184,-0.0591481,0.0304809,-0.0639167,-0.0522149,5.94114,-0.0474575,-0.00675821,3.29721,-0.586077,3.27755,1.28104,-0.256021,-0.363154,0.0184075,0.340264,0.0124443,0.266149,-2.19215,0.0626695,0.625385,0.120418,0.0178944,0.00400011,0.120111,0.000375262,-0.111817,-0.0160171,-0.000176753,0,0,0,0,0,0,0,0.360599,-33.1734,0.286573,26.3043,0.135189,2.65496,-0.0026396,
0.342749,0.01228,0.268621,-2.19164,0.0621454,0.623028,0.120467,0.0375743,-0.00462707,0.0372857,0.0112039,-0.0260854,-0.0415544,0.0013816,-0.280985,0.017919,-0.285047,0.00915446,5.34614,0.128073,-0.0438951,3.2737,-0.546212,3.25659,1.28333,-0.120193,-0.369445,0.0220435,0.340264,0.0124443,0.266149,-2.19215,0.0626695,0.625385,0.120418,0.0178944,0.00400011,0.120111,0.000375262,-0.111817,-0.0160171,-0.000176753,0,0,0,0,0,0,0,0.360599,-33.1734,0.286573,26.3043,0.135189,2.65496,-0.0026396,
0.343021,0.0122465,0.268891,-2.19154,0.0622878,0.622697,0.120468,0.0368713,-0.00453958,0.0365683,0.0114006,-0.0173084,-0.0415197,0.00114284,-0.439363,0.054684,-0.448416,0.122925,5.48565,0.0217093,-0.14923,3.20434,-0.462048,3.18499,1.34906,0.0584526,-0.39424,0.0182661,0.3426,0.0124617,0.268514,-2.19211,0.0615017,0.624969,0.120422,0.0131779,0.000827739,0.121632,0.00625623,-0.00584036,-0.0194799,0.000777331,-0.589566,-0.396547,0.190086,0.735121,13.2471,-0.432853,0.119261,1.47541,-32.7489,1.46089,26.2289,0.27618,2.63482,-0.0301054,
0.344489,0.012307,0.270395,-2.19168,0.0623067,0.623468,0.120436,0.0372792,-0.00467794,0.0369754,0.0114434,-0.00818336,-0.041194,0.000900739,0.254933,-0.0864764,0.254458,0.0267593,5.70316,0.203558,-0.15131,3.13944,-0.612316,3.11507,1.25848,0.117689,-0.396705,0.012491,0.3426,0.0124617,0.268514,-2.19211,0.0615017,0.624969,0.120422,0.0131779,0.000827739,0.121632,0.00625623,-0.00584036,-0.0194799,0.000777331,0,0,0,0,0,0,0,1.47541,-32.7489,1.46089,26.2289,0.27618,2.63482,-0.0301054,
0.344784,0.0122657,0.270688,-2.19159,0.062431,0.623187,0.120439,0.0371965,-0.00477641,0.0369115,0.0114714,-0.00343964,-0.0399781,0.00080716,-0.0516666,-0.0615477,-0.0399228,0.0174803,2.96482,0.759906,-0.0584869,3.07602,-0.552661,3.04932,1.27864,-0.0888786,-0.323501,0.0141226,0.3426,0.0124617,0.268514,-2.19211,0.0615017,0.624969,0.120422,0.0131779,0.000827739,0.121632,0.00625623,-0.00584036,-0.0194799,0.000777331,0,0,0,0,0,0,0,1.47541,-32.7489,1.46089,26.2289,0.27618,2.63482,-0.0301054,
0.345063,0.0122256,0.270966,-2.19149,0.0625288,0.622942,0.12044,0.0367213,-0.00482357,0.0364634,0.0114846,-0.000306297,-0.0381149,0.000671308,-0.297017,-0.0294723,-0.280082,0.00825804,1.95834,1.16452,-0.0849079,3.04193,-0.491954,3.01629,1.29459,0.0837632,-0.349801,0.0133542,0.3426,0.0124617,0.268514,-2.19211,0.0615017,0.624969,0.120422,0.0131779,0.000827739,0.121632,0.00625623,-0.00584036,-0.0194799,0.000777331,0,0,0,0,0,0,0,1.47541,-32.7489,1.46089,26.2289,0.27618,2.63482,-0.0301054,
