xiao-wang007/linearmpc_panda/paper_data/panda_inverse_dynamics_controller_opt_time_to_start_low_pass_acceleration/1/trajectory.csv
Commanded Joint 0 Position,Commanded Joint 1 Position,Commanded Joint 2 Position,Commanded Joint 3 Position,Commanded Joint 4 Position,Commanded Joint 5 Position,Commanded Joint 6 Position,Commanded Joint 0 Velocity,Commanded Joint 1 Velocity,Commanded Joint 2 Velocity,Commanded Joint 3 Velocity,Commanded Joint 4 Velocity,Commanded Joint 5 Velocity,Commanded Joint 6 Velocity,Commanded Joint 0 Acceleration,Commanded Joint 1 Acceleration,Commanded Joint 2 Acceleration,Commanded Joint 3 Acceleration,Commanded Joint 4 Acceleration,Commanded Joint 5 Acceleration,Commanded Joint 6 Acceleration,Commanded Joint 0 Torque,Commanded Joint 1 Torque,Commanded Joint 2 Torque,Commanded Joint 3 Torque,Commanded Joint 4 Torque,Commanded Joint 5 Torque,Commanded Joint 6 Torque,Actual Joint 0 Position,Actual Joint 1 Position,Actual Joint 2 Position,Actual Joint 3 Position,Actual Joint 4 Position,Actual Joint 5 Position,Actual Joint 6 Position,Actual Joint 0 Velocity,Actual Joint 1 Velocity,Actual Joint 2 Velocity,Actual Joint 3 Velocity,Actual Joint 4 Velocity,Actual Joint 5 Velocity,Actual Joint 6 Velocity,Actual Joint 0 Acceleration,Actual Joint 1 Acceleration,Actual Joint 2 Acceleration,Actual Joint 3 Acceleration,Actual Joint 4 Acceleration,Actual Joint 5 Acceleration,Actual Joint 6 Acceleration,Actual Joint 0 Torque,Actual Joint 1 Torque,Actual Joint 2 Torque,Actual Joint 3 Torque,Actual Joint 4 Torque,Actual Joint 5 Torque,Actual Joint 6 Torque,
0.0249715,-0.0644205,-0.0157148,-1.8724,0.0162065,0.256022,0.0155716,0.000823343,0.020623,0.00083373,-0.0339779,-0.00488758,0.0550606,-0.000404717,0.514589,12.8894,0.521081,-21.2362,-3.05474,34.4129,-0.252948,0.0536723,22.3931,0.0904054,-24.3282,-0.676011,2.04212,-0.0249247,0.0248616,-0.0654989,-0.0158166,-1.86916,0.016578,0.250134,0.0156169,-0.00140457,0.00649169,-0.000599098,-0.0002811,0.000338003,0.000133014,-0.000548012,0,0,0,0,0,0,0,0.158268,-33.7486,-0.0387439,27.2763,0.60577,3.07244,0.050461,
0.0248481,-0.065418,-0.0158304,-1.8692,0.0165614,0.250127,0.0156169,0.000575037,0.0169953,0.000580903,-0.027422,-0.00408672,0.0438961,-0.000322953,-0.155191,-2.26728,-0.158017,4.09744,0.500539,-6.97778,0.0511027,0.0480508,22.8337,0.0801787,-24.2446,-0.676176,1.79083,-0.0234057,0.0248616,-0.0654989,-0.0158166,-1.86916,0.016578,0.250134,0.0156169,-0.00140457,0.00649169,-0.000599098,-0.0002811,0.000338003,0.000133014,-0.000548012,0,0,0,0,0,0,0,0.158268,-33.7486,-0.0387439,27.2763,0.60577,3.07244,0.050461,
0.0248455,-0.0654024,-0.0158331,-1.8692,0.0165546,0.250119,0.0156169,0.000394538,0.0139849,0.000397224,-0.0221348,-0.00343964,0.0349303,-0.000257994,-0.112812,-1.88151,-0.114799,3.30453,0.40442,-5.60365,0.0405993,0.0409295,23.4054,0.0685229,-24.1366,-0.675475,1.44289,-0.021436,0.0248616,-0.0654989,-0.0158166,-1.86916,0.016578,0.250134,0.0156169,-0.00140457,0.00649169,-0.000599098,-0.0002811,0.000338003,0.000133014,-0.000548012,0,0,0,0,0,0,0,0.158268,-33.7486,-0.0387439,27.2763,0.60577,3.07244,0.050461,
0.0248434,-0.0653901,-0.0158353,-1.86921,0.0165485,0.250112,0.0156169,0.000263622,0.0114965,0.00026401,-0.0178681,-0.00290343,0.0277555,-0.000206303,-0.0818223,-1.55528,-0.0832588,2.66666,0.335132,-4.48422,0.0323066,0.0346717,23.9585,0.0582163,-23.9593,-0.67251,1.06499,-0.0194697,0.024861,-0.0645915,-0.0158165,-1.86964,0.0165878,0.250417,0.0156056,0.00122412,0.0800085,0.00756738,-0.0272248,-0.00286777,0.022917,-0.00206705,0.328586,9.18961,1.02081,-3.36797,-0.400722,2.84799,-0.18988,0.209842,-24.2391,0.0366345,18.2111,0.507809,1.53435,0.110886,
0.0246947,-0.0631297,-0.0159678,-1.87021,0.0242076,0.245547,0.0155673,-0.000425668,0.0131313,-0.000434484,-0.0162897,0.0459741,-0.0101243,-0.000219574,-0.430807,1.02176,-0.436559,0.986495,30.5485,-23.6749,-0.00829442,0.447613,0.221354,0.443993,-0.253139,2.88052,-1.77139,-0.00188364,0.024861,-0.0645915,-0.0158165,-1.86964,0.0165878,0.250417,0.0156056,0.00122412,0.0800085,0.00756738,-0.0272248,-0.00286777,0.022917,-0.00206705,0,0,0,0,0,0,0,0.209842,-24.2391,0.0366345,18.2111,0.507809,1.53435,0.110886,
0.0246791,-0.0630056,-0.0159841,-1.87028,0.0261984,0.244213,0.0155658,-0.000732204,0.0136053,-0.000755066,-0.0147702,0.086548,-0.0414656,-0.00021324,-0.191585,0.296262,-0.200364,0.949687,25.3587,-19.5883,0.00395876,0.442839,0.219836,0.439172,-0.250478,2.85483,-1.75635,-0.0018483,0.024861,-0.0645915,-0.0158165,-1.86964,0.0165878,0.250417,0.0156056,0.00122412,0.0800085,0.00756738,-0.0272248,-0.00286777,0.022917,-0.00206705,0,0,0,0,0,0,0,0.209842,-24.2391,0.0366345,18.2111,0.507809,1.53435,0.110886,
0.0246725,-0.0629061,-0.0159913,-1.87034,0.028221,0.242861,0.0155646,-0.000749415,0.0133733,-0.000785441,-0.0133404,0.119803,-0.0669637,-0.000199521,-0.0107573,-0.145034,-0.0189844,0.893628,20.7844,-15.9363,0.00857431,0.438082,0.218168,0.434376,-0.247858,2.82903,-1.74126,-0.00181255,0.024861,-0.0645915,-0.0158165,-1.86964,0.0165878,0.250417,0.0156056,0.00122412,0.0800085,0.00756738,-0.0272248,-0.00286777,0.022917,-0.00206705,0,0,0,0,0,0,0,0.209842,-24.2391,0.0366345,18.2111,0.507809,1.53435,0.110886,
0.024674,-0.0628246,-0.0159906,-1.87039,0.0302582,0.241508,0.0155637,-0.000562929,0.0127344,-0.000609,-0.0120171,0.146772,-0.0874027,-0.000184469,0.116554,-0.39928,0.110276,0.827064,16.8558,-12.7744,0.00940791,0.433428,0.243248,0.429382,-0.242124,2.80326,-1.71746,-0.00183127,0.0249269,-0.0637425,-0.0157209,-1.87101,0.0167608,0.250722,0.0156035,0.00423128,0.0623586,0.00806425,-0.0518796,0.0310814,-0.019918,8.29303e-05,0.375895,-2.20624,0.062108,-3.08185,4.24365,-5.35437,0.268747,0.94379,-31.1263,0.838026,23.9398,0.984799,2.50298,0.0907442,
0.0247461,-0.06242,-0.0158476,-1.87143,0.0420721,0.233831,0.01553,0.000606928,0.0135843,0.000638238,-0.0120971,0.272517,-0.175039,-0.000114884,0.731161,0.531188,0.779523,-0.0499706,78.5904,-54.7725,0.0434905,3.74104,0.747514,3.80971,-1.47502,9.79015,-6.432,-0.00288707,0.0249269,-0.0637425,-0.0157209,-1.87101,0.0167608,0.250722,0.0156035,0.00423128,0.0623586,0.00806425,-0.0518796,0.0310814,-0.019918,8.29303e-05,0,0,0,0,0,0,0,0.94379,-31.1263,0.838026,23.9398,0.984799,2.50298,0.0907442,
0.0248326,-0.0623116,-0.0157585,-1.87155,0.0483724,0.229525,0.0155328,0.00264872,0.0135759,0.00273885,-0.0124515,0.375522,-0.247672,-2.04155e-05,1.27612,-0.00526645,1.31288,-0.221501,64.3781,-45.3958,0.0590428,3.66997,0.733762,3.73777,-1.43471,9.52404,-6.27811,-0.00224821,0.0249269,-0.0637425,-0.0157209,-1.87101,0.0167608,0.250722,0.0156035,0.00423128,0.0623586,0.00806425,-0.0518796,0.0310814,-0.019918,8.29303e-05,0,0,0,0,0,0,0,0.94379,-31.1263,0.838026,23.9398,0.984799,2.50298,0.0907442,
0.0249565,-0.0622213,-0.0156316,-1.87167,0.0546891,0.225188,0.0155359,0.00521546,0.0131198,0.00536193,-0.0129524,0.458334,-0.306551,6.04714e-05,1.60421,-0.28507,1.63943,-0.313104,51.7573,-36.7993,0.0505543,3.59684,0.701536,3.664,-1.40346,9.26046,-6.13439,-0.00142919,0.0249269,-0.0637425,-0.0157209,-1.87101,0.0167608,0.250722,0.0156035,0.00423128,0.0623586,0.00806425,-0.0518796,0.0310814,-0.019918,8.29303e-05,0,0,0,0,0,0,0,0.94379,-31.1263,0.838026,23.9398,0.984799,2.50298,0.0907442,
0.0251106,-0.0621424,-0.015474,-1.87179,0.0609738,0.220868,0.0155385,0.00802539,0.0124673,0.00823011,-0.0134991,0.523784,-0.35325,0.000113092,1.75621,-0.407791,1.79261,-0.341654,40.9067,-29.187,0.0328876,3.51988,0.655527,3.58624,-1.38259,9.00605,-5.99666,-0.000527908,0.0249269,-0.0637425,-0.0157209,-1.87101,0.0167608,0.250722,0.0156035,0.00423128,0.0623586,0.00806425,-0.0518796,0.0310814,-0.019918,8.29303e-05,0,0,0,0,0,0,0,0.94379,-31.1263,0.838026,23.9398,0.984799,2.50298,0.0907442,
0.0273351,-0.0642736,-0.0131574,-1.87334,0.0435762,0.21729,0.015974,0.0232952,0.00416089,0.0242647,-0.0267951,0.598308,-0.485785,0.00067123,9.54366,-5.19152,10.0216,-8.31001,46.5771,-82.8346,0.348836,20.1726,-3.61306,20.6035,-9.97287,10.9137,-14.1595,0.248075,0.0254593,-0.0629262,-0.0149205,-1.87313,0.0225753,0.246981,0.0156085,0.036198,0.00467662,0.048471,-0.100451,0.379001,-0.239979,-0.000494204,3.99584,-7.21025,5.05085,-6.07137,43.4899,-27.5076,-0.0721418,6.44641,-33.824,6.31288,28.0499,1.96167,2.31713,0.0843355,
0.0280707,-0.0644771,-0.0123897,-1.87403,0.0511455,0.209282,0.0159952,0.0370258,-0.00175745,0.0386054,-0.0387611,0.66788,-0.588846,0.00106751,8.58162,-3.69896,8.96291,-7.47877,43.4824,-64.4127,0.247677,17.2387,-4.19801,17.6723,-10.6242,10.9137,-14.1595,0.133299,0.0254593,-0.0629262,-0.0149205,-1.87313,0.0225753,0.246981,0.0156085,0.036198,0.00467662,0.048471,-0.100451,0.379001,-0.239979,-0.000494204,0,0,0,0,0,0,0,6.44641,-33.824,6.31288,28.0499,1.96167,2.31713,0.0843355,
0.0288526,-0.0646433,-0.0115755,-1.87476,0.0589933,0.201564,0.016016,0.0491689,-0.00556223,0.0512384,-0.0493288,0.730498,-0.664023,0.00137333,7.58942,-2.37798,7.89564,-6.60476,39.1365,-46.9857,0.191137,15.3984,-3.24666,15.8578,-10.2556,10.9137,-13.1286,0.0638893,0.0254593,-0.0629262,-0.0149205,-1.87313,0.0225753,0.246981,0.0156085,0.036198,0.00467662,0.048471,-0.100451,0.379001,-0.239979,-0.000494204,0,0,0,0,0,0,0,6.44641,-33.824,6.31288,28.0499,1.96167,2.31713,0.0843355,
0.0298021,-0.0627067,-0.0104644,-1.87715,0.0537209,0.211709,0.0157678,0.0665067,-0.00346272,0.0688536,-0.0664165,0.771282,-0.727728,0.00162634,10.8361,1.31219,11.0095,-10.6798,25.4903,-39.8158,0.158128,22.6559,4.21259,23.0275,-16.0598,10.9137,-14.1595,0.0658707,0.0254593,-0.0629262,-0.0149205,-1.87313,0.0225753,0.246981,0.0156085,0.036198,0.00467662,0.048471,-0.100451,0.379001,-0.239979,-0.000494204,0,0,0,0,0,0,0,6.44641,-33.824,6.31288,28.0499,1.96167,2.31713,0.0843355,
0.030944,-0.0626413,-0.00929348,-1.87832,0.0615064,0.204175,0.0157878,0.081751,-0.00113535,0.084355,-0.0823763,0.811663,-0.77053,0.00180145,9.52767,1.45461,9.68837,-9.97487,25.2379,-26.751,0.109444,21.2195,3.84984,21.6109,-15.7232,10.9137,-14.1595,0.0450992,0.0254593,-0.0629262,-0.0149205,-1.87313,0.0225753,0.246981,0.0156085,0.036198,0.00467662,0.048471,-0.100451,0.379001,-0.239979,-0.000494204,0,0,0,0,0,0,0,6.44641,-33.824,6.31288,28.0499,1.96167,2.31713,0.0843355,
0.032123,-0.0625485,-0.00808444,-1.87955,0.0695159,0.197103,0.0158087,0.0948754,0.00141071,0.09771,-0.096708,0.849568,-0.793239,0.00196473,8.20277,1.59129,8.34687,-8.95731,23.6907,-14.1931,0.102053,20.0499,3.35821,20.4496,-15.4856,10.9137,-12.9644,0.0325586,0.0254593,-0.0629262,-0.0149205,-1.87313,0.0225753,0.246981,0.0156085,0.036198,0.00467662,0.048471,-0.100451,0.379001,-0.239979,-0.000494204,0,0,0,0,0,0,0,6.44641,-33.824,6.31288,28.0499,1.96167,2.31713,0.0843355,
0.0333249,-0.0624308,-0.0068517,-1.88082,0.0776864,0.190565,0.0158309,0.105949,0.00407193,0.108986,-0.109151,0.883918,-0.798025,0.00212596,6.92068,1.66326,7.04782,-7.77706,21.4684,-2.99144,0.100765,19.0803,2.85932,19.4826,-15.2973,10.9137,-11.5762,0.0244664,0.0254593,-0.0629262,-0.0149205,-1.87313,0.0225753,0.246981,0.0156085,0.036198,0.00467662,0.048471,-0.100451,0.379001,-0.239979,-0.000494204,0,0,0,0,0,0,0,6.44641,-33.824,6.31288,28.0499,1.96167,2.31713,0.0843355,
0.03008,-0.0635543,-0.0101559,-1.87953,0.0535567,0.216265,0.0155908,0.114093,0.000147588,0.117311,-0.127302,0.892915,-0.80097,0.00161807,5.09017,-2.45271,5.20308,-11.3444,5.62327,-1.84044,-0.317428,23.7969,2.65491,24.3122,-22.0428,10.9137,-14.1595,0.00323918,0.0254593,-0.0629262,-0.0149205,-1.87313,0.0225753,0.246981,0.0156085,0.036198,0.00467662,0.048471,-0.100451,0.379001,-0.239979,-0.000494204,0,0,0,0,0,0,0,6.44641,-33.824,6.31288,28.0499,1.96167,2.31713,0.0843355,
0.0313172,-0.0636446,-0.00888628,-1.8812,0.0613033,0.210183,0.0155902,0.122204,-0.00213901,0.12559,-0.143776,0.907997,-0.792803,0.00128134,5.06941,-1.42912,5.17417,-10.2959,9.4263,5.10384,-0.210455,22.4953,2.12605,23.0086,-21.8472,10.8393,-12.4547,-0.00825619,0.027726,-0.062964,-0.0122577,-1.87677,0.0452352,0.229858,0.0156037,0.127282,-0.0481153,0.176793,-0.173983,0.796877,-0.721326,-0.000798478,11.3855,-6.59898,16.0403,-9.1916,52.2345,-60.1685,-0.0380342,20.4708,-31.4278,20.1587,21.4722,4.72198,-0.719675,0.0843355,
0.0325981,-0.0637008,-0.00757228,-1.88293,0.0692811,0.204624,0.0155945,0.129785,-0.00311691,0.133322,-0.158152,0.925843,-0.77322,0.00113197,4.73849,-0.611187,4.8325,-8.98508,11.154,12.2399,-0.0933582,21.4227,1.4743,21.922,-21.6228,10.8393,-10.8244,-0.0118824,0.027726,-0.062964,-0.0122577,-1.87677,0.0452352,0.229858,0.0156037,0.127282,-0.0481153,0.176793,-0.173983,0.796877,-0.721326,-0.000798478,0,0,0,0,0,0,0,20.4708,-31.4278,20.1587,21.4722,4.72198,-0.719675,0.0843355,
0.035067,-0.0637675,-0.00472141,-1.88582,0.0835922,0.193176,0.0155025,0.142493,-0.00352055,0.146337,-0.178348,0.946005,-0.78895,0.000478433,7.94227,-0.252274,8.13451,-12.6227,12.6012,-9.83136,-0.408461,24.6953,4.177,25.2492,-27.4354,10.8393,-13.8707,-0.0227444,0.027726,-0.062964,-0.0122577,-1.87677,0.0452352,0.229858,0.0156037,0.127282,-0.0481153,0.176793,-0.173983,0.796877,-0.721326,-0.000798478,0,0,0,0,0,0,0,20.4708,-31.4278,20.1587,21.4722,4.72198,-0.719675,0.0843355,
0.0366189,-0.0637578,-0.0031285,-1.88795,0.0919353,0.186947,0.0154923,0.152793,-0.0025739,0.156893,-0.195859,0.965382,-0.78688,0.000127721,6.43775,0.591652,6.5971,-10.9442,12.1107,1.29345,-0.219195,23.352,3.35879,23.8963,-27.1516,10.8393,-12.0656,-0.0317558,0.027726,-0.062964,-0.0122577,-1.87677,0.0452352,0.229858,0.0156037,0.127282,-0.0481153,0.176793,-0.173983,0.796877,-0.721326,-0.000798478,0,0,0,0,0,0,0,20.4708,-31.4278,20.1587,21.4722,4.72198,-0.719675,0.0843355,
0.0381657,-0.0637062,-0.00154061,-1.8901,0.100367,0.181339,0.0154889,0.160905,-0.000768914,0.165211,-0.210546,0.983107,-0.769714,1.68239e-05,5.06964,1.12812,5.19919,-9.17946,11.0778,10.7289,-0.0693109,22.2511,2.9461,22.8062,-26.9023,10.7341,-10.2145,-0.0318268,0.0327356,-0.0632914,-0.00467044,-1.88448,0.0787938,0.196615,0.0155749,0.162191,-0.0117574,0.255174,-0.272831,1.05477,-1.06153,-0.0023913,4.36365,4.54474,9.79761,-12.3559,32.2362,-42.5252,-0.199103,13.0638,-28.2817,12.962,23.067,3.36609,0.12261,0.0843355,
0.0396989,-0.0636212,3.44717e-05,-1.89227,0.108858,0.176352,0.0154908,0.167054,0.00150756,0.171546,-0.222459,0.998742,-0.740432,6.10781e-05,3.84347,1.4228,3.95921,-7.44533,9.77196,18.3012,0.0276589,21.308,2.41759,21.8501,-26.6039,10.7341,-8.79029,-0.0297922,0.0327356,-0.0632914,-0.00467044,-1.88448,0.0787938,0.196615,0.0155749,0.162191,-0.0117574,0.255174,-0.272831,1.05477,-1.06153,-0.0023913,0,0,0,0,0,0,0,13.0638,-28.2817,12.962,23.067,3.36609,0.12261,0.0843355,
0.0412118,-0.0633898,0.00402135,-1.89757,0.121471,0.165529,0.015348,0.175402,0.00211549,0.18003,-0.245366,1.01379,-0.707587,-0.000773029,5.21712,0.379956,5.30273,-14.3168,9.40558,20.528,-0.521317,22.8145,2.35907,23.3645,-32.5306,10.7341,-8.88633,-0.0737716,0.0327356,-0.0632914,-0.00467044,-1.88448,0.0787938,0.196615,0.0155749,0.162191,-0.0117574,0.255174,-0.272831,1.05477,-1.06153,-0.0023913,0,0,0,0,0,0,0,13.0638,-28.2817,12.962,23.067,3.36609,0.12261,0.0843355,
0.0428548,-0.0633403,0.00570519,-1.90025,0.130066,0.161689,0.0153239,0.181396,0.00292826,0.18612,-0.263334,1.02591,-0.662079,-0.00122173,3.74622,0.507982,3.80611,-11.2304,7.57262,28.4429,-0.280436,21.8118,1.5276,22.343,-32.2101,10.7341,-7.29959,-0.0677399,0.0327356,-0.0632914,-0.00467044,-1.88448,0.0787938,0.196615,0.0155749,0.162191,-0.0117574,0.255174,-0.272831,1.05477,-1.06153,-0.0023913,0,0,0,0,0,0,0,13.0638,-28.2817,12.962,23.067,3.36609,0.12261,0.0843355,
0.0444676,-0.0632838,0.00735818,-1.9029,0.138654,0.158572,0.0153111,0.185436,0.00375576,0.190221,-0.277015,1.03542,-0.607581,-0.00129788,2.52518,0.517189,2.56294,-8.55079,5.9476,34.0611,-0.0475976,21.0976,0.517271,21.6385,-31.4301,10.6969,-5.63627,-0.0610014,0.038672,-0.0640259,0.00531065,-1.89474,0.11192,0.164757,0.0155618,0.213432,-0.0186078,0.351737,-0.308993,0.85493,-0.781779,0.000704447,6.40508,-0.856302,12.0704,-4.5202,-24.9796,34.9687,0.386968,2.61798,-30.305,2.1393,24.2889,2.78015,1.09673,0.0303194,
0.0460479,-0.0632249,0.00897804,-1.90552,0.147228,0.156125,0.0153099,0.187858,0.00447738,0.192673,-0.287034,1.04269,-0.547253,-0.00106793,1.51349,0.451009,1.53276,-6.26145,4.543,37.7046,0.143722,20.3289,0.0463757,20.8478,-31.0614,10.6969,-4.424,-0.052589,0.038672,-0.0640259,0.00531065,-1.89474,0.11192,0.164757,0.0155618,0.213432,-0.0186078,0.351737,-0.308993,0.85493,-0.781779,0.000704447,0,0,0,0,0,0,0,2.61798,-30.305,2.1393,24.2889,2.78015,1.09673,0.0303194,
0.047739,-0.0642089,0.0146398,-1.90788,0.15371,0.147812,0.0154552,0.191363,0.00401145,0.196283,-0.293818,1.05023,-0.485646,-0.000732955,2.1911,-0.291206,2.256,-4.24008,4.71351,38.5049,0.209358,19.6627,-0.284322,20.1609,-30.669,10.6969,-3.36446,-0.0407658,0.038672,-0.0640259,0.00531065,-1.89474,0.11192,0.164757,0.0155618,0.213432,-0.0186078,0.351737,-0.308993,0.85493,-0.781779,0.000704447,0,0,0,0,0,0,0,2.61798,-30.305,2.1393,24.2889,2.78015,1.09673,0.0303194,
0.049322,-0.0641842,0.0162644,-1.9104,0.162349,0.146477,0.0154694,0.192665,0.0038265,0.197643,-0.298055,1.05617,-0.421887,-0.000231171,0.813593,-0.115595,0.849718,-2.6484,3.70807,39.8492,0.313615,19.072,-0.511676,19.5517,-30.2604,10.6969,-2.43782,-0.0288282,0.038672,-0.0640259,0.00531065,-1.89474,0.11192,0.164757,0.0155618,0.213432,-0.0186078,0.351737,-0.308993,0.85493,-0.781779,0.000704447,0,0,0,0,0,0,0,2.61798,-30.305,2.1393,24.2889,2.78015,1.09673,0.0303194,
0.0508508,-0.0641563,0.0178339,-1.91287,0.170964,0.145658,0.0154941,0.192352,0.00375783,0.197352,-0.300202,1.06032,-0.357986,0.000432483,-0.195972,-0.0429189,-0.18181,-1.34195,2.59642,39.9378,0.414784,18.5622,-0.908134,19.0546,-29.6052,10.6165,-1.45377,-0.0154046,0.0458304,-0.0636362,0.0180716,-1.90641,0.136773,0.141924,0.0155639,0.198377,0.0142138,0.373778,-0.362155,0.693488,-0.586477,0.000575212,-1.8818,4.10269,2.75507,-6.64524,-20.1802,24.4126,-0.0161544,1.80469,-29.3291,1.36171,22.7417,1.58905,1.72021,0.0239107,
0.0543797,-0.0628824,0.0268977,-1.91974,0.176203,0.132971,0.0156346,0.191433,0.00635716,0.19647,-0.302422,1.05864,-0.296884,0.0012569,-0.574228,1.62459,-0.55105,-1.38716,-1.05144,38.1888,0.51526,17.5231,-1.03978,17.9834,-28.7726,10.6165,-0.144399,0.0118756,0.0458304,-0.0636362,0.0180716,-1.90641,0.136773,0.141924,0.0155639,0.198377,0.0142138,0.373778,-0.362155,0.693488,-0.586477,0.000575212,0,0,0,0,0,0,0,1.80469,-29.3291,1.36171,22.7417,1.58905,1.72021,0.0239107,
0.0558159,-0.0627653,0.0283714,-1.92215,0.18466,0.13303,0.0156785,0.189052,0.0080134,0.194018,-0.302318,1.05833,-0.236028,0.00210249,-1.48777,1.03515,-1.53216,0.0650086,-0.191481,38.0351,0.528492,17.0192,-1.02985,17.4716,-28.349,10.6165,0.37638,0.0229716,0.0458304,-0.0636362,0.0180716,-1.90641,0.136773,0.141924,0.0155639,0.198377,0.0142138,0.373778,-0.362155,0.693488,-0.586477,0.000575212,0,0,0,0,0,0,0,1.80469,-29.3291,1.36171,22.7417,1.58905,1.72021,0.0239107,
0.0571939,-0.0626639,0.029784,-1.9245,0.193125,0.133499,0.0157288,0.185692,0.0089467,0.19053,-0.300514,1.05829,-0.177084,0.0029388,-2.10053,0.58331,-2.1801,1.12747,-0.0270142,36.8401,0.522698,16.539,-0.985913,16.9809,-27.9235,10.6165,0.835462,0.0359127,0.0458304,-0.0636362,0.0180716,-1.90641,0.136773,0.141924,0.0155639,0.198377,0.0142138,0.373778,-0.362155,0.693488,-0.586477,0.000575212,0,0,0,0,0,0,0,1.80469,-29.3291,1.36171,22.7417,1.58905,1.72021,0.0239107,
0.0585174,-0.0625756,0.0311418,-1.92678,0.201581,0.134317,0.0157816,0.181641,0.0093636,0.186369,-0.29747,1.05802,-0.121218,0.00367181,-2.53155,0.260566,-2.60102,1.90252,-0.166764,34.9162,0.458131,16.0461,-0.928515,16.4738,-27.5082,10.6165,1.2272,0.0469065,0.0458304,-0.0636362,0.0180716,-1.90641,0.136773,0.141924,0.0155639,0.198377,0.0142138,0.373778,-0.362155,0.693488,-0.586477,0.000575212,0,0,0,0,0,0,0,1.80469,-29.3291,1.36171,22.7417,1.58905,1.72021,0.0239107,
0.0595768,-0.0608536,0.0375002,-1.93207,0.196294,0.130163,0.0157518,0.177883,0.0127345,0.182693,-0.296118,1.05057,-0.0746477,0.00421058,-2.34888,2.1068,-2.29715,0.844981,-4.65765,29.1066,0.336728,15.4968,-1.16037,15.919,-26.87,10.4941,1.68209,0.0521692,0.0520481,-0.0623443,0.0297138,-1.91937,0.158957,0.129571,0.0155635,0.179577,0.0425716,0.34306,-0.39596,0.596235,-0.12511,-0.00102308,-2.35012,3.54473,-3.83971,-4.22569,-12.1566,57.671,-0.199787,0.0313145,-37.2398,-0.661608,30.2914,2.07794,3.27843,0.0577852,
0.0608191,-0.0606746,0.0387837,-1.93432,0.204544,0.131357,0.0158056,0.173365,0.0146617,0.178242,-0.293036,1.04671,-0.0298863,0.00471272,-2.82383,1.20451,-2.78176,1.92611,-2.41494,27.9759,0.313839,15.0269,-1.05098,15.4111,-26.4568,10.4941,1.98388,0.0604323,0.0520481,-0.0623443,0.0297138,-1.91937,0.158957,0.129571,0.0155635,0.179577,0.0425716,0.34306,-0.39596,0.596235,-0.12511,-0.00102308,0,0,0,0,0,0,0,0.0313145,-37.2398,-0.661608,30.2914,2.07794,3.27843,0.0577852,
0.062028,-0.0605215,0.0400305,-1.93648,0.212558,0.13281,0.0158639,0.168913,0.0155583,0.173765,-0.288492,1.0377,0.0124221,0.00522847,-2.78229,0.560359,-2.79854,2.83986,-5.62608,26.4427,0.322342,14.5511,-0.923452,14.9068,-26.0484,10.4941,2.25476,0.0678237,0.0520481,-0.0623443,0.0297138,-1.91937,0.158957,0.129571,0.0155635,0.179577,0.0425716,0.34306,-0.39596,0.596235,-0.12511,-0.00102308,0,0,0,0,0,0,0,0.0313145,-37.2398,-0.661608,30.2914,2.07794,3.27843,0.0577852,
0.0632213,-0.0603927,0.0412586,-1.93856,0.220042,0.134486,0.015926,0.164963,0.0156653,0.169714,-0.282808,1.01726,0.0518403,0.00573406,-2.46878,0.0668696,-2.53183,3.55282,-12.7753,24.6364,0.315994,14.0472,-0.781587,14.4012,-25.6439,10.4941,2.47741,0.0706041,0.0520481,-0.0623443,0.0297138,-1.91937,0.158957,0.129571,0.0155635,0.179577,0.0425716,0.34306,-0.39596,0.596235,-0.12511,-0.00102308,0,0,0,0,0,0,0,0.0313145,-37.2398,-0.661608,30.2914,2.07794,3.27843,0.0577852,
0.0644772,-0.0590369,0.0473811,-1.94248,0.220134,0.136233,0.0158168,0.162339,0.0171636,0.167017,-0.277819,0.982659,0.0857727,0.00611105,-1.64015,0.936428,-1.68555,3.11805,-21.628,21.2077,0.235622,13.5207,-0.735888,13.943,-25.2121,10.367,2.71149,0.0703351,0.0579106,-0.0605275,0.0405818,-1.93127,0.183178,0.129619,0.0155589,0.137729,0.0789097,0.283843,-0.291954,0.814517,0.0431373,-0.000461213,-5.23092,4.54226,-7.40212,13.0007,27.2852,21.0309,0.0702335,-8.10955,-39.8622,-8.51287,36.2186,0.593868,5.35393,0.0980684,
0.0656704,-0.0588896,0.0486076,-1.94447,0.226225,0.138178,0.0158791,0.159702,0.0174152,0.164276,-0.271931,0.938397,0.117251,0.00644468,-1.64802,0.157257,-1.71322,3.68007,-27.6634,19.6741,0.208516,13.1016,-0.548028,13.5409,-24.7704,10.367,2.88544,0.0723489,0.0579106,-0.0605275,0.0405818,-1.93127,0.183178,0.129619,0.0155589,0.137729,0.0789097,0.283843,-0.291954,0.814517,0.0431373,-0.000461213,0,0,0,0,0,0,0,-8.10955,-39.8622,-8.51287,36.2186,0.593868,5.35393,0.0980684,
0.0668438,-0.0587737,0.0498129,-1.94639,0.231641,0.140274,0.0159418,0.157095,0.0168286,0.161553,-0.265573,0.886118,0.146183,0.00672322,-1.62937,-0.366588,-1.70171,3.97368,-32.6747,18.0821,0.174086,12.737,-0.376697,13.177,-24.3266,9.41807,3.0493,0.0738518,0.0579106,-0.0605275,0.0405818,-1.93127,0.183178,0.129619,0.0155589,0.137729,0.0789097,0.283843,-0.291954,0.814517,0.0431373,-0.000461213,0,0,0,0,0,0,0,-8.10955,-39.8622,-8.51287,36.2186,0.593868,5.35393,0.0980684,
0.0646507,-0.0589164,0.0475268,-1.94178,0.210115,0.136943,0.0158422,0.156275,0.0183676,0.160642,-0.26053,0.815416,0.165697,0.00693992,-0.512148,0.961845,-0.569572,3.15186,-44.1884,12.1965,0.135443,12.1415,-0.127786,12.5627,-23.4597,7.02855,3.27133,0.0740503,0.0579106,-0.0605275,0.0405818,-1.93127,0.183178,0.129619,0.0155589,0.137729,0.0789097,0.283843,-0.291954,0.814517,0.0431373,-0.000461213,0,0,0,0,0,0,0,-8.10955,-39.8622,-8.51287,36.2186,0.593868,5.35393,0.0980684,
0.065834,-0.0587606,0.0487406,-1.94363,0.213813,0.139052,0.0159067,0.154601,0.0185899,0.158858,-0.254791,0.744797,0.185288,0.00716352,-1.04628,0.138941,-1.11511,3.58687,-44.137,12.2445,0.139747,11.9099,-0.122895,12.3349,-23.0691,5.92189,3.33667,0.0746463,0.0612746,-0.0584364,0.0495571,-1.93861,0.211562,0.132772,0.0155622,0.084255,0.0768491,0.237346,-0.157869,0.842416,0.106488,0.001669,-6.68427,-0.257571,-5.81216,16.7606,3.4874,7.91881,0.266277,-10.7954,-38.3666,-11.1114,37.0914,-0.621952,6.43426,0.0303194,
0.0669814,-0.0586373,0.0499173,-1.94543,0.216994,0.14129,0.0159725,0.152366,0.017954,0.156505,-0.248713,0.675361,0.204181,0.00737483,-1.39704,-0.397405,-1.47006,3.79875,-43.3974,11.8081,0.132067,11.7415,-0.0630016,12.1528,-22.6541,5.06659,3.40172,0.0747745,0.0612746,-0.0584364,0.0495571,-1.93861,0.211562,0.132772,0.0155622,0.084255,0.0768491,0.237346,-0.157869,0.842416,0.106488,0.001669,0,0,0,0,0,0,0,-10.7954,-38.3666,-11.1114,37.0914,-0.621952,6.43426,0.0303194,
0.0680966,-0.0585401,0.051061,-1.94717,0.219705,0.14363,0.0160397,0.149775,0.0167942,0.153797,-0.242529,0.608067,0.221837,0.00758087,-1.61969,-0.724877,-1.69297,3.86488,-42.059,11.0349,0.128777,11.6099,-0.0233258,12.0081,-22.2445,4.2993,3.45168,0.076235,0.0612746,-0.0584364,0.0495571,-1.93861,0.211562,0.132772,0.0155622,0.084255,0.0768491,0.237346,-0.157869,0.842416,0.106488,0.001669,0,0,0,0,0,0,0,-10.7954,-38.3666,-11.1114,37.0914,-0.621952,6.43426,0.0303194,
0.0672796,-0.0577331,0.0557155,-1.94728,0.23108,0.143605,0.0158943,0.148158,0.0149487,0.15207,-0.235927,0.550351,0.238282,0.00776788,-1.0103,-1.15345,-1.07946,4.12644,-36.0723,10.2779,0.11688,11.5027,0.000492782,11.8875,-21.8416,3.63587,3.49374,0.0773039,0.0612746,-0.0584364,0.0495571,-1.93861,0.211562,0.132772,0.0155622,0.084255,0.0768491,0.237346,-0.157869,0.842416,0.106488,0.001669,0,0,0,0,0,0,0,-10.7954,-38.3666,-11.1114,37.0914,-0.621952,6.43426,0.0303194,
0.0683787,-0.0576882,0.056842,-1.94891,0.233184,0.146096,0.0159632,0.146006,0.0130822,0.149817,-0.229658,0.492884,0.252903,0.00793574,-1.34534,-1.16659,-1.40767,3.91818,-35.9174,9.13812,0.104915,11.3895,-0.0551987,11.7731,-21.4443,2.94752,3.50893,0.0800806,0.0630338,-0.056553,0.0571273,-1.94302,0.237231,0.137341,0.0155655,0.025466,-0.00178477,0.196259,-0.103347,0.625757,0.133003,0.00159938,-7.34862,-9.82923,-5.13588,6.8153,-27.0824,3.31441,-0.00870285,-4.88812,-34.7206,-5.18828,33.3066,-0.102848,5.50591,-0.0026396,
0.0694455,-0.0576547,0.0579355,-1.95051,0.234911,0.148628,0.0160324,0.143473,0.0113033,0.147192,-0.223721,0.437474,0.265632,0.00807817,-1.58287,-1.11179,-1.64081,3.7102,-34.6309,7.95567,0.0890178,11.3058,-0.0543716,11.6768,-21.0515,2.4447,3.53079,0.0813895,0.0630338,-0.056553,0.0571273,-1.94302,0.237231,0.137341,0.0155655,0.025466,-0.00178477,0.196259,-0.103347,0.625757,0.133003,0.00159938,0,0,0,0,0,0,0,-4.88812,-34.7206,-5.18828,33.3066,-0.102848,5.50591,-0.0026396,
0.070482,-0.0576296,0.0589983,-1.95208,0.23632,0.151187,0.0161019,0.140692,0.00967073,0.144323,-0.2181,0.385204,0.276472,0.00820223,-1.73835,-1.02035,-1.79323,3.51366,-32.6686,6.77535,0.0775372,11.225,-0.0611376,11.5842,-20.6626,2.00328,3.54122,0.0831071,0.0630338,-0.056553,0.0571273,-1.94302,0.237231,0.137341,0.0155655,0.025466,-0.00178477,0.196259,-0.103347,0.625757,0.133003,0.00159938,0,0,0,0,0,0,0,-4.88812,-34.7206,-5.18828,33.3066,-0.102848,5.50591,-0.0026396,
0.0680041,-0.0573076,0.062217,-1.9502,0.249117,0.149724,0.0159332,0.13734,0.00526974,0.140841,-0.210782,0.341289,0.288168,0.00833861,-2.09454,-2.75062,-2.17592,4.57376,-27.4468,7.30986,0.0852341,11.1419,-0.0725136,11.4895,-20.2778,1.63199,3.54516,0.08416,0.0630338,-0.056553,0.0571273,-1.94302,0.237231,0.137341,0.0155655,0.025466,-0.00178477,0.196259,-0.103347,0.625757,0.133003,0.00159938,0,0,0,0,0,0,0,-4.88812,-34.7206,-5.18828,33.3066,-0.102848,5.50591,-0.0026396,
0.0689774,-0.0573854,0.0632143,-1.95163,0.250148,0.152407,0.0160035,0.134204,0.00227051,0.137607,-0.204528,0.298801,0.297606,0.00842959,-1.96057,-1.87452,-2.02149,3.90865,-26.5555,5.89845,0.0568625,11.0097,-0.12225,11.3504,-19.8793,1.26385,3.52569,0.0862435,0.0639071,-0.055144,0.0621971,-1.94667,0.248767,0.142714,0.0155451,0.025828,-0.00803438,0.126342,-0.0928991,0.0964406,0.171216,-0.000682271,0.0452556,-0.781201,-8.73969,1.30596,-66.1645,4.77664,-0.285206,-6.12988,-34.0224,-6.43797,26.2051,-0.316166,3.05321,0.050461,
0.0699305,-0.0574467,0.0641916,-1.95305,0.250947,0.155077,0.016073,0.131191,0.000283847,0.134516,-0.199067,0.259027,0.304831,0.00848174,-1.88274,-1.24166,-1.93159,3.41278,-24.8586,4.51601,0.0325978,10.9157,-0.138203,11.2457,-19.5004,0.996848,3.51435,0.0868247,0.0639071,-0.055144,0.0621971,-1.94667,0.248767,0.142714,0.0155451,0.025828,-0.00803438,0.126342,-0.0928991,0.0964406,0.171216,-0.000682271,0,0,0,0,0,0,0,-6.12988,-34.0224,-6.43797,26.2051,-0.316166,3.05321,0.050461,
0.0676777,-0.0558405,0.066076,-1.95339,0.250907,0.155535,0.0159041,0.124975,-0.0016271,0.128164,-0.193128,0.212611,0.310679,0.00853342,-3.8852,-1.19434,-3.97011,3.71208,-29.0096,3.65486,0.0322958,10.7049,-0.170551,11.015,-18.7489,0.581058,3.47087,0.0874523,0.0639071,-0.055144,0.0621971,-1.94667,0.248767,0.142714,0.0155451,0.025828,-0.00803438,0.126342,-0.0928991,0.0964406,0.171216,-0.000682271,0,0,0,0,0,0,0,-6.12988,-34.0224,-6.43797,26.2051,-0.316166,3.05321,0.050461,
0.0684826,-0.0558943,0.0669022,-1.95473,0.251055,0.15818,0.0159726,0.120103,-0.00264662,0.123187,-0.187907,0.173806,0.314656,0.00853825,-3.04478,-0.637201,-3.11056,3.26329,-24.2535,2.48558,0.00302103,10.5874,-0.185401,10.8882,-18.3757,0.422759,3.4403,0.0874248,0.0639071,-0.055144,0.0621971,-1.94667,0.248767,0.142714,0.0155451,0.025828,-0.00803438,0.126342,-0.0928991,0.0964406,0.171216,-0.000682271,0,0,0,0,0,0,0,-6.12988,-34.0224,-6.43797,26.2051,-0.316166,3.05321,0.050461,
0.0692866,-0.055933,0.0677275,-1.95604,0.251151,0.160785,0.0160395,0.116182,-0.00308652,0.119181,-0.183209,0.141429,0.316851,0.00850364,-2.4508,-0.274938,-2.50379,2.93578,-20.2355,1.37161,-0.0216294,10.4376,-0.116467,10.7318,-18.0706,0.294568,3.36774,0.0874185,0.0646564,-0.0539805,0.0667494,-1.9498,0.246797,0.152891,0.0154733,0.0112497,-0.0100956,0.115503,-0.0691752,-0.105578,0.436928,-0.00146,-1.8223,-0.257655,-1.35478,2.9655,-25.2523,33.214,-0.0972156,-2.68231,-33.1496,-2.86345,21.1746,-0.145878,0.805594,0.050461,
0.070086,-0.0559606,0.068548,-1.95733,0.251203,0.163344,0.016105,0.112931,-0.00315872,0.115859,-0.178891,0.114453,0.317446,0.00843912,-2.03196,-0.0451262,-2.07647,2.69878,-16.8603,0.371852,-0.0403284,10.3042,-0.127908,10.5897,-17.7001,0.188405,3.3286,0.0868305,0.0646564,-0.0539805,0.0667494,-1.9498,0.246797,0.152891,0.0154733,0.0112497,-0.0100956,0.115503,-0.0691752,-0.105578,0.436928,-0.00146,0,0,0,0,0,0,0,-2.68231,-33.1496,-2.86345,21.1746,-0.145878,0.805594,0.050461,
0.0677894,-0.0547883,0.0699852,-1.95549,0.245287,0.169255,0.0158046,0.107427,-0.0050767,0.110237,-0.172649,0.0870707,0.326556,0.00837713,-3.43962,-1.19874,-3.51367,3.90166,-17.1138,5.69409,-0.038742,10.1633,-0.137206,10.4404,-17.3306,0.105031,3.28703,0.0858398,0.0646564,-0.0539805,0.0667494,-1.9498,0.246797,0.152891,0.0154733,0.0112497,-0.0100956,0.115503,-0.0691752,-0.105578,0.436928,-0.00146,0,0,0,0,0,0,0,-2.68231,-33.1496,-2.86345,21.1746,-0.145878,0.805594,0.050461,
0.068485,-0.0548672,0.0706996,-1.95666,0.24513,0.172016,0.0158679,0.103333,-0.00603421,0.106049,-0.167494,0.0657356,0.33027,0.00828493,-2.5589,-0.598442,-2.61733,3.22145,-13.3344,2.32145,-0.0576216,10.0158,-0.14473,10.2849,-16.9619,0.0361853,3.2414,0.0847669,0.0646564,-0.0539805,0.0667494,-1.9498,0.246797,0.152891,0.0154733,0.0112497,-0.0100956,0.115503,-0.0691752,-0.105578,0.436928,-0.00146,0,0,0,0,0,0,0,-2.68231,-33.1496,-2.86345,21.1746,-0.145878,0.805594,0.050461,
0.0691875,-0.0549275,0.0714207,-1.95783,0.24499,0.174653,0.0159294,0.100227,-0.00633541,0.102868,-0.163097,0.0490777,0.330139,0.00816581,-1.94111,-0.188255,-1.98819,2.74838,-10.4112,-0.0819353,-0.074454,9.8444,-0.0294664,10.1083,-16.7053,0.00910445,3.10894,0.0841328,0.0652738,-0.0534862,0.0705185,-1.95258,0.240759,0.172624,0.0153931,0.0220644,0.0183772,0.0764401,-0.0712431,-0.210796,0.60743,0.000300542,1.35184,3.5591,-4.8829,-0.258492,-13.1523,21.3128,0.220067,-4.1264,-31.4278,-4.28771,18.8062,0.0198328,0.168387,0.0440523,
0.0698922,-0.0549729,0.0721441,-1.95898,0.244861,0.17718,0.0159891,0.0978007,-0.00620182,0.100379,-0.159215,0.0360468,0.327302,0.00802563,-1.51668,0.0834981,-1.55571,2.42614,-8.14432,-1.77338,-0.0876081,9.68508,-0.0332805,9.9415,-16.3381,-0.0340439,3.05858,0.0826672,0.0652738,-0.0534862,0.0705185,-1.95258,0.240759,0.172624,0.0153931,0.0220644,0.0183772,0.0764401,-0.0712431,-0.210796,0.60743,0.000300542,0,0,0,0,0,0,0,-4.1264,-31.4278,-4.28771,18.8062,0.0198328,0.168387,0.0440523,
0.067827,-0.0537671,0.073164,-1.95773,0.237299,0.190428,0.0156938,0.0927129,-0.00631011,0.095191,-0.154096,0.0191935,0.33363,0.00789501,-3.17987,-0.0676857,-3.24257,3.1995,-10.5333,3.95518,-0.0816419,9.52057,-0.0352751,9.76965,-15.9713,-0.0663683,3.00714,0.0809529,0.0652738,-0.0534862,0.0705185,-1.95258,0.240759,0.172624,0.0153931,0.0220644,0.0183772,0.0764401,-0.0712431,-0.210796,0.60743,0.000300542,0,0,0,0,0,0,0,-4.1264,-31.4278,-4.28771,18.8062,0.0198328,0.168387,0.0440523,
0.0684251,-0.0538105,0.0737787,-1.95879,0.236986,0.19309,0.015751,0.0891241,-0.00613386,0.0915202,-0.149849,0.00754524,0.33345,0.00774452,-2.243,0.110159,-2.29424,2.65437,-7.28016,-0.112627,-0.0940521,9.35162,-0.0359299,9.59362,-15.6052,-0.0927756,2.9535,0.079189,0.0652738,-0.0534862,0.0705185,-1.95258,0.240759,0.172624,0.0153931,0.0220644,0.0183772,0.0764401,-0.0712431,-0.210796,0.60743,0.000300542,0,0,0,0,0,0,0,-4.1264,-31.4278,-4.28771,18.8062,0.0198328,0.168387,0.0440523,
0.0690363,-0.0538438,0.0744063,-1.95985,0.236729,0.195582,0.0158062,0.0865784,-0.00573863,0.0889071,-0.146185,-0.000402622,0.329056,0.00757526,-1.59105,0.24702,-1.6332,2.29005,-4.96741,-2.74633,-0.105789,9.17849,-0.0351142,9.41358,-15.2394,-0.112358,2.89932,0.0772389,0.0652738,-0.0534862,0.0705185,-1.95258,0.240759,0.172624,0.0153931,0.0220644,0.0183772,0.0764401,-0.0712431,-0.210796,0.60743,0.000300542,0,0,0,0,0,0,0,-4.1264,-31.4278,-4.28771,18.8062,0.0198328,0.168387,0.0440523,
0.0696552,-0.0538677,0.0750416,-1.96089,0.236512,0.197933,0.0158594,0.0847352,-0.00518918,0.0870074,-0.142896,-0.00574151,0.322019,0.00739088,-1.152,0.343404,-1.18732,2.05544,-3.3368,-4.39836,-0.115239,8.99305,0.0443442,9.22271,-14.9636,-0.0834982,2.74818,0.0758277,0.0658816,-0.0533865,0.073034,-1.95523,0.230914,0.192944,0.0153516,0.0132903,0.0107669,0.0555363,-0.0819715,-0.36159,0.552372,0.001018,-1.09676,-0.951278,-2.61296,-1.34105,-18.8493,-6.8822,0.0896827,-2.07531,-31.8523,-2.3358,25.257,1.13678,1.80627,0.0376436,
0.0678768,-0.0535531,0.0751147,-1.96007,0.225256,0.208816,0.0156163,0.0798163,-0.00478712,0.0820023,-0.138894,-0.018862,0.321378,0.00721858,-3.07432,0.251289,-3.12821,2.50127,-8.20029,-0.400554,-0.10769,8.81301,0.0472721,9.03613,-14.5986,-0.0963581,2.69244,0.0737083,0.0658816,-0.0533865,0.073034,-1.95523,0.230914,0.192944,0.0153516,0.0132903,0.0107669,0.0555363,-0.0819715,-0.36159,0.552372,0.001018,0,0,0,0,0,0,0,-2.07531,-31.8523,-2.3358,25.257,1.13678,1.80627,0.0376436,
0.0683838,-0.0535703,0.0756363,-1.96104,0.224811,0.211176,0.0156668,0.0765288,-0.00426059,0.078642,-0.13541,-0.0262194,0.316105,0.00703512,-2.05469,0.329081,-2.10014,2.17761,-4.59838,-3.29512,-0.114662,8.63011,0.0508846,8.84689,-14.234,-0.108518,2.6359,0.0715773,0.0658816,-0.0533865,0.073034,-1.95523,0.230914,0.192944,0.0153516,0.0132903,0.0107669,0.0555363,-0.0819715,-0.36159,0.552372,0.001018,0,0,0,0,0,0,0,-2.07531,-31.8523,-2.3358,25.257,1.13678,1.80627,0.0376436,
0.0689096,-0.05358,0.0761765,-1.962,0.224455,0.213381,0.0157152,0.0743672,-0.00364992,0.0764196,-0.132253,-0.0298709,0.308008,0.00683934,-1.35099,0.38167,-1.38904,1.97324,-2.28223,-5.06063,-0.122362,8.4445,0.055272,8.65507,-13.8695,-0.119328,2.57967,0.0693508,0.0658816,-0.0533865,0.073034,-1.95523,0.230914,0.192944,0.0153516,0.0132903,0.0107669,0.0555363,-0.0819715,-0.36159,0.552372,0.001018,0,0,0,0,0,0,0,-2.07531,-31.8523,-2.3358,25.257,1.13678,1.80627,0.0376436,
0.0694479,-0.0535828,0.0767292,-1.96294,0.224162,0.215457,0.0157617,0.0729512,-0.0029918,0.0749521,-0.129288,-0.0312186,0.298302,0.00663356,-0.884996,0.411323,-0.917163,1.85326,-0.842286,-6.06624,-0.128612,8.26818,0.0879962,8.47205,-13.5468,-0.0649084,2.44888,0.067227,0.0663021,-0.0533911,0.0746641,-1.95743,0.217109,0.208692,0.0153387,0.0121819,0.0144537,0.0305712,-0.0622437,-0.424003,0.404725,-0.000138158,-0.13854,0.46085,-3.12064,2.46597,-7.8016,-18.4559,-0.14452,0.717655,-33.098,0.413527,27.6492,1.74194,2.55608,0.0440523,
0.0682561,-0.0534464,0.0767026,-1.96263,0.210067,0.223561,0.0155993,0.0689452,-0.00224657,0.0708526,-0.124764,-0.0381214,0.288176,0.00635311,-2.50375,0.465768,-2.56219,2.8273,-4.31426,-6.32879,-0.17528,7.88604,0.0986393,8.07819,-12.8188,-0.092412,2.33768,0.0626747,0.0663021,-0.0533911,0.0746641,-1.95743,0.217109,0.208692,0.0153387,0.0121819,0.0144537,0.0305712,-0.0622437,-0.424003,0.404725,-0.000138158,0,0,0,0,0,0,0,0.717655,-33.098,0.413527,27.6492,1.74194,2.55608,0.0440523,
0.0687,-0.053435,0.0771586,-1.96346,0.209632,0.22542,0.0156393,0.0662539,-0.00151185,0.0680836,-0.120655,-0.0413592,0.277,0.0060828,-1.68203,0.459203,-1.73063,2.56827,-2.02364,-6.98532,-0.168941,7.69225,0.104248,7.8787,-12.4549,-0.109389,2.28327,0.0603845,0.0663021,-0.0533911,0.0746641,-1.95743,0.217109,0.208692,0.0153387,0.0121819,0.0144537,0.0305712,-0.0622437,-0.424003,0.404725,-0.000138158,0,0,0,0,0,0,0,0.717655,-33.098,0.413527,27.6492,1.74194,2.55608,0.0440523,
0.0691578,-0.053419,0.0776285,-1.96428,0.209258,0.227174,0.0156775,0.064449,-0.000809537,0.0662134,-0.116831,-0.0424427,0.265454,0.00582019,-1.12809,0.438944,-1.16885,2.38997,-0.677164,-7.21627,-0.164135,7.497,0.109761,7.67787,-12.0909,-0.130003,2.22959,0.0581282,0.0663021,-0.0533911,0.0746641,-1.95743,0.217109,0.208692,0.0153387,0.0121819,0.0144537,0.0305712,-0.0622437,-0.424003,0.404725,-0.000138158,0,0,0,0,0,0,0,0.717655,-33.098,0.413527,27.6492,1.74194,2.55608,0.0440523,
0.069624,-0.0533992,0.0781066,-1.96507,0.208921,0.228838,0.0157138,0.0632142,-0.000152895,0.0649229,-0.113197,-0.0423767,0.253971,0.00556531,-0.771724,0.410401,-0.806598,2.27093,0.0412288,-7.17681,-0.159298,7.32854,0.101572,7.50085,-11.7082,-0.0844954,2.14361,0.0556123,0.0667919,-0.0530205,0.0757494,-1.95931,0.204067,0.217563,0.0153327,0.0120967,0.0238756,0.0202236,-0.0434213,-0.349461,0.164928,0.000772173,-0.0106571,1.17773,-1.29344,2.35281,9.31779,-29.9746,0.113791,0.919986,-33.8716,0.639662,28.2483,1.87011,2.44988,0.0641939,
0.0685485,-0.0528499,0.0775737,-1.96405,0.197782,0.227737,0.0155499,0.0600309,0.000844298,0.0616539,-0.109268,-0.0479288,0.241701,0.00530076,-1.98961,0.623245,-2.04312,2.45584,-3.47004,-7.66883,-0.165343,6.93267,0.111693,7.09419,-10.9791,-0.143176,2.04225,0.0511967,0.0667919,-0.0530205,0.0757494,-1.95931,0.204067,0.217563,0.0153327,0.0120967,0.0238756,0.0202236,-0.0434213,-0.349461,0.164928,0.000772173,0,0,0,0,0,0,0,0.919986,-33.8716,0.639662,28.2483,1.87011,2.44988,0.0641939,
0.0689421,-0.0528096,0.0779773,-1.96477,0.197286,0.229212,0.0155821,0.0578645,0.00168349,0.0594152,-0.105426,-0.0507452,0.230254,0.0050465,-1.354,0.524494,-1.39919,2.4011,-1.76027,-7.15417,-0.158914,6.73404,0.116118,6.89025,-10.6139,-0.178253,1.99334,0.0490663,0.0667919,-0.0530205,0.0757494,-1.95931,0.204067,0.217563,0.0153327,0.0120967,0.0238756,0.0202236,-0.0434213,-0.349461,0.164928,0.000772173,0,0,0,0,0,0,0,0.919986,-33.8716,0.639662,28.2483,1.87011,2.44988,0.0641939,
0.069345,-0.0527685,0.0783901,-1.96546,0.196832,0.230626,0.0156127,0.0563634,0.00237305,0.0578517,-0.101645,-0.0519397,0.219546,0.00480232,-0.938165,0.430976,-0.977151,2.36335,-0.74656,-6.69288,-0.152615,6.53546,0.12008,6.68637,-10.2481,-0.216154,1.94552,0.0469657,0.0667919,-0.0530205,0.0757494,-1.95931,0.204067,0.217563,0.0153327,0.0120967,0.0238756,0.0202236,-0.0434213,-0.349461,0.164928,0.000772173,0,0,0,0,0,0,0,0.919986,-33.8716,0.639662,28.2483,1.87011,2.44988,0.0641939,
0.0687924,-0.0522682,0.0781756,-1.96424,0.189654,0.2252,0.0154887,0.0535327,0.00279933,0.0549398,-0.0982669,-0.0572882,0.207055,0.00459251,-1.76919,0.266424,-1.81994,2.1112,-3.3428,-7.80654,-0.131128,6.15491,0.121159,6.29175,-9.48829,-0.254789,1.8509,0.0427936,0.0674379,-0.0523019,0.0767773,-1.96067,0.194383,0.219518,0.0153283,0.0155996,0.0122988,0.0149566,-0.036991,-0.254425,0.00511052,0.000101503,0.437863,-1.4471,-0.658387,0.803793,11.8794,-19.9772,-0.0838337,0.463749,-33.4233,0.163588,27.6016,1.63757,2.42974,0.0706026,
0.0691452,-0.0522263,0.0785369,-1.96489,0.189096,0.226438,0.015517,0.051645,0.00328644,0.0529846,-0.0947619,-0.0597831,0.19659,0.00438326,-1.17983,0.304444,-1.22201,2.19062,-1.5593,-6.54073,-0.130781,5.96013,0.122862,6.09163,-9.12012,-0.297559,1.80397,0.0409084,0.0674379,-0.0523019,0.0767773,-1.96067,0.194383,0.219518,0.0153283,0.0155996,0.0122988,0.0149566,-0.036991,-0.254425,0.00511052,0.000101503,0,0,0,0,0,0,0,0.463749,-33.4233,0.163588,27.6016,1.63757,2.42974,0.0706026,
0.0695068,-0.0521816,0.0789068,-1.9655,0.188593,0.227642,0.0155439,0.0503547,0.00374706,0.0516361,-0.0911589,-0.0604072,0.187378,0.00417836,-0.80642,0.287889,-0.842803,2.25188,-0.390077,-5.75721,-0.12806,5.76809,0.123741,5.89418,-8.7509,-0.338551,1.75595,0.0390953,0.0674379,-0.0523019,0.0767773,-1.96067,0.194383,0.219518,0.0153283,0.0155996,0.0122988,0.0149566,-0.036991,-0.254425,0.00511052,0.000101503,0,0,0,0,0,0,0,0.463749,-33.4233,0.163588,27.6016,1.63757,2.42974,0.0706026,
0.0698721,-0.0521358,0.0792803,-1.96609,0.188137,0.228802,0.0155694,0.0494168,0.00414137,0.050646,-0.0874818,-0.0597287,0.17889,0.00398023,-0.586211,0.246447,-0.618843,2.29818,0.42407,-5.30539,-0.123831,5.57971,0.123625,5.7003,-8.38065,-0.375971,1.70592,0.0373719,0.0674379,-0.0523019,0.0767773,-1.96067,0.194383,0.219518,0.0153283,0.0155996,0.0122988,0.0149566,-0.036991,-0.254425,0.00511052,0.000101503,0,0,0,0,0,0,0,0.463749,-33.4233,0.163588,27.6016,1.63757,2.42974,0.0706026,
0.0694321,-0.0512613,0.0790218,-1.96511,0.185697,0.224554,0.0154755,0.0474957,0.00462883,0.04865,-0.0840289,-0.0603325,0.169323,0.00381917,-1.20067,0.30466,-1.2475,2.15803,-0.37737,-5.97902,-0.100663,5.39077,0.121024,5.50253,-7.98102,-0.386124,1.66391,0.035715,0.0680922,-0.0515047,0.0776498,-1.96207,0.188811,0.219675,0.0153324,0.0119226,0.0226323,0.0186949,-0.0374211,-0.112871,0.0125782,0.000930972,-0.459628,1.2917,0.467291,-0.0537723,17.6943,0.933459,0.103684,1.17389,-31.9991,0.86183,24.1898,1.44256,1.68725,0.0239107,
0.0697579,-0.0512082,0.0793543,-1.96564,0.185262,0.225563,0.0154995,0.0461405,0.00503095,0.0472321,-0.0804162,-0.0591391,0.160688,0.00365527,-0.847003,0.251323,-0.886175,2.25797,0.745876,-5.39684,-0.102442,5.21264,0.119066,5.3186,-7.60854,-0.407255,1.60563,0.0341926,0.0680922,-0.0515047,0.0776498,-1.96207,0.188811,0.219675,0.0153324,0.0119226,0.0226323,0.0186949,-0.0374211,-0.112871,0.0125782,0.000930972,0,0,0,0,0,0,0,1.17389,-31.9991,0.86183,24.1898,1.44256,1.68725,0.0239107,
0.0700857,-0.0511557,0.0796886,-1.96613,0.184904,0.226515,0.0155225,0.0451075,0.00533575,0.0461437,-0.0766817,-0.056263,0.152332,0.00349763,-0.645629,0.190501,-0.680274,2.33404,1.79756,-5.22263,-0.0985214,5.04116,0.11635,5.14114,-7.23496,-0.415105,1.54051,0.0328152,0.0680922,-0.0515047,0.0776498,-1.96207,0.188811,0.219675,0.0153324,0.0119226,0.0226323,0.0186949,-0.0374211,-0.112871,0.0125782,0.000930972,0,0,0,0,0,0,0,1.17389,-31.9991,0.86183,24.1898,1.44256,1.68725,0.0239107,
0.0704115,-0.0511046,0.0800207,-1.96659,0.184637,0.227392,0.0155445,0.0442318,0.00554745,0.0452167,-0.0728576,-0.0516848,0.143791,0.00334984,-0.547275,0.132315,-0.579346,2.39004,2.86135,-5.33827,-0.0923713,4.8772,0.112919,4.97098,-6.86047,-0.405307,1.46678,0.0315574,0.0680922,-0.0515047,0.0776498,-1.96207,0.188811,0.219675,0.0153324,0.0119226,0.0226323,0.0186949,-0.0374211,-0.112871,0.0125782,0.000930972,0,0,0,0,0,0,0,1.17389,-31.9991,0.86183,24.1898,1.44256,1.68725,0.0239107,
0.0692711,-0.0511764,0.0788545,-1.96458,0.186196,0.223345,0.0154553,0.0421967,0.00598645,0.0431156,-0.0693769,-0.0484155,0.133166,0.0032412,-1.27199,0.274372,-1.31319,2.17544,2.04329,-6.64081,-0.0679002,4.72085,0.119137,4.80536,-6.46703,-0.364702,1.39273,0.0304322,0.0685016,-0.0506037,0.0785206,-1.96334,0.186511,0.219671,0.0153231,0.00551122,0.0322967,0.0267078,-0.0364538,-0.016197,0.0070828,0.000676239,-0.801419,1.20805,1.00161,0.120921,12.0842,-0.686924,-0.0318417,0.840641,-32.5505,0.611891,24.039,1.31988,1.64696,0.0641939,
0.0695469,-0.0511165,0.0791354,-1.96499,0.186062,0.22399,0.0154773,0.0406533,0.00628737,0.0415152,-0.0656936,-0.0420752,0.122645,0.00314446,-0.96459,0.188074,-1.00026,2.30207,3.96272,-6.57552,-0.0604639,4.57396,0.115101,4.6518,-6.09132,-0.306823,1.29476,0.0295223,0.0685016,-0.0506037,0.0785206,-1.96334,0.186511,0.219671,0.0153231,0.00551122,0.0322967,0.0267078,-0.0364538,-0.016197,0.0070828,0.000676239,0,0,0,0,0,0,0,0.840641,-32.5505,0.611891,24.039,1.31988,1.64696,0.0641939,
0.0698215,-0.0510591,0.0794148,-1.96536,0.1861,0.224531,0.0154997,0.0393876,0.00646469,0.0401973,-0.0618716,-0.0327156,0.111646,0.00307455,-0.791041,0.11083,-0.823688,2.38873,5.84977,-6.87426,-0.0436943,4.43595,0.111274,4.5069,-5.7155,-0.219153,1.18103,0.0289002,0.0685016,-0.0506037,0.0785206,-1.96334,0.186511,0.219671,0.0153231,0.00551122,0.0322967,0.0267078,-0.0364538,-0.016197,0.0070828,0.000676239,0,0,0,0,0,0,0,0.840641,-32.5505,0.611891,24.039,1.31988,1.64696,0.0641939,
0.070091,-0.0510044,0.0796888,-1.9657,0.186333,0.224951,0.0155216,0.0382478,0.00653979,0.039007,-0.0579682,-0.0203356,0.0998136,0.00300874,-0.712418,0.046936,-0.743954,2.43966,7.73748,-7.39526,-0.0411259,4.3061,0.107873,4.36994,-5.34037,-0.0963828,1.05001,0.0284348,0.0685016,-0.0506037,0.0785206,-1.96334,0.186511,0.219671,0.0153231,0.00551122,0.0322967,0.0267078,-0.0364538,-0.016197,0.0070828,0.000676239,0,0,0,0,0,0,0,0.840641,-32.5505,0.611891,24.039,1.31988,1.64696,0.0641939,
0.0697587,-0.0499668,0.0797974,-1.96545,0.188436,0.220895,0.0154692,0.0360947,0.0071047,0.0367705,-0.0531278,0.00405529,0.0796154,0.00309171,-1.34567,0.353065,-1.39778,3.02523,15.2443,-12.6238,0.0518531,4.06854,0.105512,4.11752,-4.58416,0.253188,0.744497,0.0285008,0.0686663,-0.0500567,0.079526,-1.96479,0.186459,0.219537,0.0153224,0.0001975,0.0171249,0.026949,-0.0508047,-0.00253893,-0.0066209,0.000677038,-0.664215,-1.89648,0.0301491,-1.79386,1.70726,-1.71296,9.99135e-05,1.17389,-34.1731,0.961012,27.6492,1.47918,2.5158,0.0706026,
0.0699661,-0.0498982,0.0800069,-1.9657,0.189536,0.220774,0.0154944,0.0340599,0.00739946,0.0346524,-0.0485568,0.0307536,0.0606797,0.0031027,-1.27173,0.184229,-1.32386,2.85688,16.6865,-11.8348,0.00687246,3.95223,0.105532,3.99358,-4.21841,0.492954,0.556368,0.0297034,0.0686663,-0.0500567,0.079526,-1.96479,0.186459,0.219537,0.0153224,0.0001975,0.0171249,0.026949,-0.0508047,-0.00253893,-0.0066209,0.000677038,0,0,0,0,0,0,0,1.17389,-34.1731,0.961012,27.6492,1.47918,2.5158,0.0706026,
0.0701563,-0.0498369,0.0802017,-1.96591,0.190912,0.220556,0.0155008,0.0320031,0.00745323,0.0325939,-0.0443099,0.0590127,0.0430882,0.00264292,-1.28554,0.0336025,-1.28653,2.6543,17.6619,-10.9947,-0.287366,3.8193,0.108899,3.8524,-3.85834,0.771556,0.354965,0.0299012,0.0686663,-0.0500567,0.079526,-1.96479,0.186459,0.219537,0.0153224,0.0001975,0.0171249,0.026949,-0.0508047,-0.00253893,-0.0066209,0.000677038,0,0,0,0,0,0,0,1.17389,-34.1731,0.961012,27.6492,1.47918,2.5158,0.0706026,
0.0703471,-0.0497791,0.0803951,-1.96611,0.192318,0.220324,0.0155077,0.030374,0.00740531,0.0309084,-0.0402472,0.0823547,0.0286648,0.0022854,-1.01819,-0.0299468,-1.05347,2.53919,14.5887,-9.01465,-0.223452,3.67141,0.109215,3.69658,-3.51344,1.04807,0.15949,0.0287151,0.0686663,-0.0500567,0.079526,-1.96479,0.186459,0.219537,0.0153224,0.0001975,0.0171249,0.026949,-0.0508047,-0.00253893,-0.0066209,0.000677038,0,0,0,0,0,0,0,1.17389,-34.1731,0.961012,27.6492,1.47918,2.5158,0.0706026,
0.069395,-0.0495347,0.0802704,-1.96619,0.190746,0.218539,0.0154152,0.0281645,0.00801224,0.0286466,-0.0375268,0.0982646,0.0159246,0.00201278,-1.38089,0.379331,-1.41362,1.70028,9.94369,-7.96264,-0.170385,3.51275,0.126711,3.53541,-3.17211,1.2596,0.00536583,0.0304966,0.0686663,-0.0500567,0.079526,-1.96479,0.186459,0.219537,0.0153224,0.0001975,0.0171249,0.026949,-0.0508047,-0.00253893,-0.0066209,0.000677038,0,0,0,0,0,0,0,1.17389,-34.1731,0.961012,27.6492,1.47918,2.5158,0.0706026,
0.0695455,-0.0494583,0.0804225,-1.96638,0.192241,0.218197,0.0154262,0.0262959,0.00831904,0.0267197,-0.0345825,0.115991,0.00417501,0.00188519,-1.16788,0.191749,-1.20433,1.84019,11.079,-7.34346,-0.0797454,3.32114,0.132864,3.33458,-2.8493,1.59746,-0.149692,0.0372527,0.0689224,-0.0498573,0.0804362,-1.96601,0.186591,0.219012,0.0153249,0.00292438,0.00464765,0.0349607,-0.0326698,0.00314382,-0.0272257,0.000638637,0.34086,-1.55965,1.00146,2.26686,0.710345,-2.5756,-0.00480012,0.765262,-34.0462,0.512709,28.3475,1.61926,2.68151,0.0440523,
0.0696804,-0.0493884,0.0805577,-1.96653,0.194058,0.217744,0.0154301,0.0244096,0.00840351,0.0247571,-0.031548,0.138231,-0.00798342,0.00160645,-1.17892,0.0527912,-1.22659,1.89654,13.9002,-7.59902,-0.17421,3.00149,0.15213,2.99856,-2.54378,2.04258,-0.309133,0.0356231,0.0689224,-0.0498573,0.0804362,-1.96601,0.186591,0.219012,0.0153249,0.00292438,0.00464765,0.0349607,-0.0326698,0.00314382,-0.0272257,0.000638637,0,0,0,0,0,0,0,0.765262,-34.0462,0.512709,28.3475,1.61926,2.68151,0.0440523,
0.0698061,-0.0493247,0.0806805,-1.96666,0.196124,0.2172,0.0154308,0.02267,0.00831319,0.022876,-0.0285264,0.162236,-0.0199712,0.00130137,-1.08729,-0.0564477,-1.17571,1.88848,15.0031,-7.49235,-0.190674,2.62531,0.0912764,2.65422,-2.26052,2.34263,-0.405239,0.0115761,0.0689224,-0.0498573,0.0804362,-1.96601,0.186591,0.219012,0.0153249,0.00292438,0.00464765,0.0349607,-0.0326698,0.00314382,-0.0272257,0.000638637,0,0,0,0,0,0,0,0.765262,-34.0462,0.512709,28.3475,1.61926,2.68151,0.0440523,
0.0694673,-0.0495639,0.080992,-1.96683,0.193531,0.21691,0.0153367,0.0205437,0.00810109,0.0207167,-0.0255655,0.179828,-0.0303626,0.00103852,-1.32895,-0.132563,-1.34954,1.85056,10.9946,-6.49462,-0.164281,2.45608,0.148212,2.48047,-1.88763,1.8751,-0.206673,0.00862404,0.0689224,-0.0498573,0.0804362,-1.96601,0.186591,0.219012,0.0153249,0.00292438,0.00464765,0.0349607,-0.0326698,0.00314382,-0.0272257,0.000638637,0,0,0,0,0,0,0,0.765262,-34.0462,0.512709,28.3475,1.61926,2.68151,0.0440523,
0.0695542,-0.0495079,0.0810789,-1.96691,0.195814,0.216245,0.0153368,0.0186073,0.00788258,0.0187445,-0.0226671,0.200922,-0.0409248,0.000833584,-1.2102,-0.136565,-1.23264,1.8115,13.1838,-6.60138,-0.128088,2.33026,0.128113,2.33274,-1.63911,2.38052,-0.449925,0.0162465,0.0690897,-0.0498497,0.081514,-1.9669,0.188163,0.216938,0.0153254,0.00361839,-0.00474261,0.0170654,-0.0259145,0.0663576,-0.0796877,0.000793998,0.0867511,-1.17378,-2.23691,0.844414,7.90172,-6.55775,0.0194202,-0.246395,-33.4987,-0.463243,27.6492,1.72912,2.4627,0.0440523,
0.0696243,-0.0494536,0.0811478,-1.96698,0.198467,0.215462,0.0153286,0.0166381,0.00766158,0.0167183,-0.0198925,0.227075,-0.0523157,0.000461533,-1.23078,-0.13813,-1.26639,1.73416,16.346,-7.11934,-0.232532,2.0583,0.130297,2.03193,-1.41694,3.01435,-0.72392,0.00952913,0.0690897,-0.0498497,0.081514,-1.9669,0.188163,0.216938,0.0153254,0.00361839,-0.00474261,0.0170654,-0.0259145,0.0663576,-0.0796877,0.000793998,0,0,0,0,0,0,0,-0.246395,-33.4987,-0.463243,27.6492,1.72912,2.4627,0.0440523,
0.0696841,-0.0494034,0.0812098,-1.96704,0.201379,0.214603,0.0153181,0.0148079,0.00738463,0.0149249,-0.017326,0.254472,-0.0633298,0.000107552,-1.14387,-0.17309,-1.12083,1.60404,17.1229,-6.88382,-0.221238,1.92963,0.127354,1.87045,-1.18657,3.17984,-0.807243,0.00429846,0.0690897,-0.0498497,0.081514,-1.9669,0.188163,0.216938,0.0153254,0.00361839,-0.00474261,0.0170654,-0.0259145,0.0663576,-0.0796877,0.000793998,0,0,0,0,0,0,0,-0.246395,-33.4987,-0.463243,27.6492,1.72912,2.4627,0.0440523,
0.0692268,-0.0496106,0.0816592,-1.96733,0.203014,0.211567,0.0152592,0.0121464,0.00704049,0.0122127,-0.0144693,0.284795,-0.0760131,-0.000341371,-1.66341,-0.215091,-1.69514,1.78543,18.9521,-7.92702,-0.280577,1.58232,0.192852,1.55742,-0.729832,3.52837,-0.982429,0.00404321,0.0690897,-0.0498497,0.081514,-1.9669,0.188163,0.216938,0.0153254,0.00361839,-0.00474261,0.0170654,-0.0259145,0.0663576,-0.0796877,0.000793998,0,0,0,0,0,0,0,-0.246395,-33.4987,-0.463243,27.6492,1.72912,2.4627,0.0440523,
0.0692422,-0.0495714,0.0816715,-1.96734,0.206372,0.210525,0.0152441,0.0101039,0.00661302,0.0100793,-0.0118929,0.311803,-0.086848,-0.000649596,-1.27656,-0.267168,-1.33338,1.61026,16.8794,-6.77182,-0.192641,1.34899,0.184132,1.3014,-0.538044,4.16174,-1.19552,-0.005046,0.0692772,-0.0498765,0.0821253,-1.96759,0.19143,0.214715,0.0153249,0.00619388,0.00271407,0.0172995,-0.019628,0.112575,-0.0492278,0.000864058,0.321936,0.932085,0.0292607,0.785817,5.77718,3.80749,0.00875749,-0.702633,-32.975,-0.93535,27.1771,1.93145,2.20452,0.0577852,
0.0692682,-0.0495408,0.081699,-1.96734,0.209598,0.209517,0.0152313,0.00873128,0.00605569,0.00874954,-0.00956321,0.330081,-0.0946891,-0.000840368,-0.857907,-0.348329,-0.831103,1.45605,11.4239,-4.90073,-0.119232,1.21769,0.138652,1.22355,-0.366858,4.27083,-1.2049,-0.00965504,0.0692772,-0.0498765,0.0821253,-1.96759,0.19143,0.214715,0.0153249,0.00619388,0.00271407,0.0172995,-0.019628,0.112575,-0.0492278,0.000864058,0,0,0,0,0,0,0,-0.702633,-32.975,-0.93535,27.1771,1.93145,2.20452,0.0577852,
0.0692269,-0.0496106,0.0816593,-1.96733,0.203013,0.211568,0.0152592,0.00728566,0.00597738,0.00727293,-0.00825925,0.345279,-0.101095,-0.00109969,-0.903516,-0.048946,-0.922883,0.814977,9.49859,-4.00374,-0.162078,0.908396,0.108317,0.886447,-0.0399857,4.37869,-1.22351,-0.0106248,0.0692772,-0.0498765,0.0821253,-1.96759,0.19143,0.214715,0.0153249,0.00619388,0.00271407,0.0172995,-0.019628,0.112575,-0.0492278,0.000864058,0,0,0,0,0,0,0,-0.702633,-32.975,-0.93535,27.1771,1.93145,2.20452,0.0577852,
0.0692905,-0.0496092,0.0821561,-1.96774,0.207835,0.209401,0.0152133,0.00582689,0.0054225,0.00590393,-0.00647156,0.353156,-0.10482,-0.00137509,-0.911733,-0.346801,-0.855625,1.11731,4.92366,-2.3281,-0.172124,0.699084,0.0852695,0.661032,0.0861764,4.76071,-1.38982,-0.0179918,0.0692772,-0.0498765,0.0821253,-1.96759,0.19143,0.214715,0.0153249,0.00619388,0.00271407,0.0172995,-0.019628,0.112575,-0.0492278,0.000864058,0,0,0,0,0,0,0,-0.702633,-32.975,-0.93535,27.1771,1.93145,2.20452,0.0577852,
0.0692992,-0.0495956,0.0821757,-1.96773,0.210782,0.208526,0.0151976,0.00487926,0.00467697,0.0052133,-0.00508831,0.356203,-0.105718,-0.00149396,-0.592266,-0.465956,-0.431641,0.86453,1.90404,-0.56097,-0.0742954,0.633762,0.00518724,0.587708,0.187817,4.53024,-1.32889,-0.0179124,0.0693192,-0.0498539,0.0824575,-1.9679,0.196638,0.213563,0.015319,0.00313612,-0.0016568,-0.00150438,-0.00280268,0.195534,-0.024651,-0.000791615,-0.382219,-0.54636,-2.35048,2.10316,10.3698,3.0721,-0.206959,-0.171017,-33.2964,-0.312487,26.5781,2.0285,1.9262,0.110886,
0.0693306,-0.0495918,0.0822169,-1.96773,0.213378,0.207817,0.0151857,0.00468636,0.00383725,0.00520049,-0.00397132,0.349858,-0.102302,-0.0014923,-0.120564,-0.524822,-0.00800487,0.698119,-3.96564,2.13474,0.00104155,0.427321,-0.0662788,0.460019,0.291621,3.84197,-1.13949,-0.0187233,0.0693192,-0.0498539,0.0824575,-1.9679,0.196638,0.213563,0.015319,0.00313612,-0.0016568,-0.00150438,-0.00280268,0.195534,-0.024651,-0.000791615,0,0,0,0,0,0,0,-0.171017,-33.2964,-0.312487,26.5781,2.0285,1.9262,0.110886,
0.0692102,-0.0498697,0.0823942,-1.96777,0.208548,0.210783,0.0152271,0.00384235,0.00275397,0.00453404,-0.00257511,0.335763,-0.0939449,-0.00155097,-0.527508,-0.67705,-0.416531,0.872632,-8.80963,5.22322,-0.036673,0.307956,-0.0971112,0.344125,0.344056,4.02343,-1.19215,-0.0199463,0.0693192,-0.0498539,0.0824575,-1.9679,0.196638,0.213563,0.015319,0.00313612,-0.0016568,-0.00150438,-0.00280268,0.195534,-0.024651,-0.000791615,0,0,0,0,0,0,0,-0.171017,-33.2964,-0.312487,26.5781,2.0285,1.9262,0.110886,
0.0692204,-0.0498845,0.0824162,-1.96775,0.2107,0.210339,0.0152118,0.00332832,0.00183321,0.00417717,-0.00141572,0.322408,-0.0862444,-0.00162297,-0.321264,-0.575476,-0.223048,0.724618,-8.34652,4.81283,-0.0449989,0.192412,-0.127411,0.230889,0.39834,4.02313,-1.16172,-0.024597,0.0693192,-0.0498539,0.0824575,-1.9679,0.196638,0.213563,0.015319,0.00313612,-0.0016568,-0.00150438,-0.00280268,0.195534,-0.024651,-0.000791615,0,0,0,0,0,0,0,-0.171017,-33.2964,-0.312487,26.5781,2.0285,1.9262,0.110886,
0.0692336,-0.0499009,0.0824416,-1.96772,0.2128,0.209924,0.015196,0.00299334,0.00105542,0.00397682,-0.000445431,0.310436,-0.0793906,-0.00169519,-0.209364,-0.486118,-0.125217,0.606433,-7.48252,4.28362,-0.0451341,0.173428,-0.259197,0.32435,0.391949,3.46264,-0.871242,-0.0222136,0.0692818,-0.0498641,0.0824446,-1.96804,0.204511,0.213068,0.015324,0.00058788,-0.0021996,0.00290387,0.00188836,0.227771,-0.00431614,0.000578734,-0.31853,-0.0678498,0.55103,0.586379,4.02961,2.54185,0.171294,0.336795,-33.1972,0.0882092,26.4551,2.21801,1.93261,0.0577852,
0.0692481,-0.0499187,0.0824684,-1.96769,0.214868,0.209527,0.0151798,0.00275586,0.000399543,0.00385243,0.000368653,0.300031,-0.0734187,-0.00176134,-0.148426,-0.409925,-0.0777455,0.508803,-6.50295,3.73243,-0.0413442,0.122727,-0.289872,0.278125,0.446083,2.54673,-0.449433,-0.0207881,0.0692818,-0.0498641,0.0824446,-1.96804,0.204511,0.213068,0.015324,0.00058788,-0.0021996,0.00290387,0.00188836,0.227771,-0.00431614,0.000578734,0,0,0,0,0,0,0,0.336795,-33.1972,0.0882092,26.4551,2.21801,1.93261,0.0577852,
0.0693008,-0.0499839,0.0825401,-1.96779,0.216217,0.211585,0.0152234,0.00234539,-0.000277807,0.00353759,0.00126682,0.2895,-0.0663008,-0.00182276,-0.256543,-0.423344,-0.196776,0.561357,-6.58189,4.44866,-0.0383897,0.146106,-0.289729,0.30202,0.442066,2.5265,-0.42378,-0.0207501,0.0692818,-0.0498641,0.0824446,-1.96804,0.204511,0.213068,0.015324,0.00058788,-0.0021996,0.00290387,0.00188836,0.227771,-0.00431614,0.000578734,0,0,0,0,0,0,0,0.336795,-33.1972,0.0882092,26.4551,2.21801,1.93261,0.0577852,
0.0693076,-0.0500082,0.0825596,-1.96776,0.218195,0.211275,0.0152068,0.00204818,-0.000829758,0.00331764,0.00196568,0.28106,-0.060785,-0.00187129,-0.18576,-0.344969,-0.137465,0.436787,-5.27536,3.44741,-0.0303297,0.145757,-0.289716,0.301681,0.442115,2.52544,-0.423917,-0.0207515,0.0692818,-0.0498641,0.0824446,-1.96804,0.204511,0.213068,0.015324,0.00058788,-0.0021996,0.00290387,0.00188836,0.227771,-0.00431614,0.000578734,0,0,0,0,0,0,0,0.336795,-33.1972,0.0882092,26.4551,2.21801,1.93261,0.0577852,
0.0693156,-0.0500327,0.0825802,-1.96772,0.220172,0.210961,0.0151903,0.00183755,-0.00127644,0.00316982,0.00250883,0.274249,-0.0564871,-0.00190991,-0.13164,-0.279178,-0.0923861,0.339468,-4.25687,2.68614,-0.0241359,0.142582,-0.296937,0.299726,0.445805,2.50358,-0.418799,-0.0207123,0.0692596,-0.0499547,0.0823261,-1.96804,0.210582,0.213118,0.0153202,0.00187297,-0.00497946,-0.00188648,0.00379903,0.111445,0.00805543,-0.000345809,0.160637,-0.347482,-0.598793,0.238834,-14.5407,1.54645,-0.115568,-0.349545,-32.9988,-0.487047,26.6534,1.80877,2.04522,0.0907442,
0.0693245,-0.0500573,0.0826018,-1.96768,0.222144,0.210643,0.0151738,0.00169197,-0.00163612,0.00307558,0.00293051,0.268714,-0.0531196,-0.00194081,-0.0909908,-0.2248,-0.0589051,0.263549,-3.4595,2.10469,-0.0193158,0.142255,-0.296922,0.299396,0.445856,2.50256,-0.418941,-0.0207128,0.0692596,-0.0499547,0.0823261,-1.96804,0.210582,0.213118,0.0153202,0.00187297,-0.00497946,-0.00188648,0.00379903,0.111445,0.00805543,-0.000345809,0,0,0,0,0,0,0,-0.349545,-32.9988,-0.487047,26.6534,1.80877,2.04522,0.0907442,
0.0693341,-0.0500819,0.0826242,-1.96765,0.224112,0.210325,0.0151573,0.00159443,-0.00192476,0.00302024,0.00325754,0.26418,-0.0504653,-0.00196566,-0.060962,-0.180395,-0.0345838,0.204391,-2.8332,1.65893,-0.0155277,0.141932,-0.296908,0.299067,0.445908,2.50156,-0.41909,-0.0207132,0.0692596,-0.0499547,0.0823261,-1.96804,0.210582,0.213118,0.0153202,0.00187297,-0.00497946,-0.00188648,0.00379903,0.111445,0.00805543,-0.000345809,0,0,0,0,0,0,0,-0.349545,-32.9988,-0.487047,26.6534,1.80877,2.04522,0.0907442,
0.0691949,-0.0500977,0.082342,-1.96784,0.220109,0.212457,0.0152157,0.00135074,-0.00207169,0.00281269,0.00343569,0.255448,-0.0444998,-0.00197672,-0.152303,-0.0918341,-0.129723,0.111345,-5.45761,3.72847,-0.00691601,0.382678,-0.28551,0.543792,0.397721,2.38324,-0.253657,-0.0204238,0.0692596,-0.0499547,0.0823261,-1.96804,0.210582,0.213118,0.0153202,0.00187297,-0.00497946,-0.00188648,0.00379903,0.111445,0.00805543,-0.000345809,0,0,0,0,0,0,0,-0.349545,-32.9988,-0.487047,26.6534,1.80877,2.04522,0.0907442,
0.0692031,-0.0501191,0.0823631,-1.96781,0.221888,0.212283,0.0151996,0.00128596,-0.00219364,0.00277706,0.00357298,0.248853,-0.0399472,-0.0019842,-0.0404888,-0.0762202,-0.0222673,0.0858066,-4.12203,2.84538,-0.00467582,0.37752,-0.288351,0.539576,0.39425,2.37018,-0.258556,-0.0203847,0.069266,-0.0501667,0.0823338,-1.96797,0.211459,0.213943,0.0153171,0.00471237,-0.00634374,0.00116219,0.00169666,-0.0098128,0.0394598,-0.00145824,0.354924,-0.170535,0.381084,-0.262795,-15.1573,3.92554,-0.139053,-0.57568,-32.6973,-0.76079,26.4789,1.70532,2.19079,0.11821,
0.0692157,-0.0501408,0.0823886,-1.96778,0.223676,0.212103,0.0151835,0.00134338,-0.00229772,0.00285869,0.00367808,0.243763,-0.0364661,-0.00198997,0.0358878,-0.0650488,0.0510184,0.0656896,-3.18099,2.17569,-0.00360531,0.373933,-0.288347,0.535899,0.394836,2.36028,-0.259508,-0.0203877,0.069266,-0.0501667,0.0823338,-1.96797,0.211459,0.213943,0.0153171,0.00471237,-0.00634374,0.00116219,0.00169666,-0.0098128,0.0394598,-0.00145824,0,0,0,0,0,0,0,-0.57568,-32.6973,-0.76079,26.4789,1.70532,2.19079,0.11821,
0.0692318,-0.0501628,0.0824177,-1.96775,0.225465,0.211918,0.0151674,0.00147874,-0.00238814,0.0030146,0.00375809,0.239744,-0.0338001,-0.00199492,0.0846015,-0.0565124,0.0974435,0.0500071,-2.51214,1.66624,-0.00309574,0.370394,-0.288373,0.532277,0.395413,2.3506,-0.260469,-0.0203906,0.069266,-0.0501667,0.0823338,-1.96797,0.211459,0.213943,0.0153171,0.00471237,-0.00634374,0.00116219,0.00169666,-0.0098128,0.0394598,-0.00145824,0,0,0,0,0,0,0,-0.57568,-32.6973,-0.76079,26.4789,1.70532,2.19079,0.11821,
0.0696153,-0.0501764,0.082732,-1.96808,0.217951,0.215707,0.0152473,0.00402328,-0.00155261,0.00543122,0.00261236,0.233885,-0.0189286,-0.00190777,1.59033,0.522205,1.51039,-0.716081,-3.66205,9.29467,0.0544698,2.70199,0.0559593,2.87482,-0.197024,2.66527,0.403625,-0.014882,0.069266,-0.0501667,0.0823338,-1.96797,0.211459,0.213943,0.0153171,0.00471237,-0.00634374,0.00116219,0.00169666,-0.0098128,0.0394598,-0.00145824,0,0,0,0,0,0,0,-0.57568,-32.6973,-0.76079,26.4789,1.70532,2.19079,0.11821,
0.0697454,-0.0501615,0.0828695,-1.9681,0.219687,0.216014,0.0152348,0.00647183,-0.000868915,0.00778175,0.00175907,0.230522,-0.00747425,-0.0018394,1.53034,0.427312,1.46909,-0.533307,-2.10157,7.15897,0.0427303,2.65229,0.0946286,2.77162,-0.179282,2.62123,0.378268,-0.0149504,0.0692637,-0.050297,0.0823389,-1.96791,0.211502,0.215014,0.0153133,-0.00161746,-0.00298958,0.0032469,0.00519252,-0.00843447,0.0256975,-0.00205768,-0.791228,0.41927,0.260588,0.436982,0.172291,-1.72029,-0.0749302,-0.274166,-32.3998,-0.487047,26.2289,1.37573,2.23748,0.124619,
0.069889,-0.0501472,0.0830206,-1.96811,0.221446,0.216303,0.0152221,0.008766,-0.000338028,0.0100036,0.00112609,0.228386,0.00125815,-0.00178769,1.43386,0.331804,1.38867,-0.395613,-1.33514,5.45775,0.0323226,2.59411,0.104917,2.69268,-0.16621,2.57737,0.356621,-0.0155312,0.0692637,-0.050297,0.0823389,-1.96791,0.211502,0.215014,0.0153133,-0.00161746,-0.00298958,0.0032469,0.00519252,-0.00843447,0.0256975,-0.00205768,0,0,0,0,0,0,0,-0.274166,-32.3998,-0.487047,26.2289,1.37573,2.23748,0.124619,
0.0712073,-0.050461,0.0842104,-1.97006,0.220779,0.222887,0.0156079,0.020763,0.00030283,0.0214914,-0.00961348,0.241546,0.0431089,-0.000178327,7.49813,0.400536,7.17986,-6.71223,8.22503,26.1567,1.00585,11.0514,-0.124609,10.8527,-5.52584,4.35992,2.5266,0.084726,0.0692637,-0.050297,0.0823389,-1.96791,0.211502,0.215014,0.0153133,-0.00161746,-0.00298958,0.0032469,0.00519252,-0.00843447,0.0256975,-0.00205768,0,0,0,0,0,0,0,-0.274166,-32.3998,-0.487047,26.2289,1.37573,2.23748,0.124619,
0.0718019,-0.0504271,0.0847953,-1.97047,0.223154,0.224517,0.0156549,0.0314769,0.00108956,0.0318161,-0.0178405,0.252625,0.0752361,0.00103188,6.69616,0.491709,6.45293,-5.14191,6.9245,20.0795,0.756382,10.5515,-0.0123649,10.403,-5.49058,4.20767,2.34739,0.0747791,0.0692637,-0.050297,0.0823389,-1.96791,0.211502,0.215014,0.0153133,-0.00161746,-0.00298958,0.0032469,0.00519252,-0.00843447,0.0256975,-0.00205768,0,0,0,0,0,0,0,-0.274166,-32.3998,-0.487047,26.2289,1.37573,2.23748,0.124619,
0.0724296,-0.0503867,0.0854136,-1.97086,0.225492,0.22608,0.0156995,0.040872,0.00188252,0.0409109,-0.0241194,0.260547,0.0992621,0.00194016,5.87198,0.495598,5.68424,-3.9243,4.95096,15.0163,0.56767,10.1494,0.123394,10.0268,-5.43322,4.01148,2.19348,0.0674483,0.0692637,-0.050297,0.0823389,-1.96791,0.211502,0.215014,0.0153133,-0.00161746,-0.00298958,0.0032469,0.00519252,-0.00843447,0.0256975,-0.00205768,0,0,0,0,0,0,0,-0.274166,-32.3998,-0.487047,26.2289,1.37573,2.23748,0.124619,
0.073081,-0.0503423,0.0860559,-1.97125,0.22775,0.227571,0.0157423,0.0489825,0.00261609,0.0487867,-0.0288911,0.264884,0.116664,0.00262133,5.06905,0.45848,4.9224,-2.98232,2.71063,10.8764,0.425732,9.81882,0.256913,9.71062,-5.36901,3.78842,2.05733,0.0619537,0.0693708,-0.0503117,0.0826966,-1.9679,0.211503,0.215528,0.0153148,0.00813002,0.000782179,0.0220503,-0.000522154,-0.0148814,0.0179013,-0.00150404,1.21844,0.47147,2.35042,-0.714334,-0.805865,-0.974524,0.0692042,1.70551,-32.3006,1.63942,26.4551,1.8399,2.31713,0.110886,
0.0720291,-0.0506833,0.0855862,-1.97191,0.222629,0.225319,0.015742,0.0573,0.00178228,0.0582701,-0.0433518,0.279257,0.144336,0.00394905,5.1984,-0.521131,5.92713,-9.03794,8.9832,17.2945,0.829824,13.9621,0.0801849,14.6362,-10.7957,5.38968,3.09189,0.124406,0.0693708,-0.0503117,0.0826966,-1.9679,0.211503,0.215528,0.0153148,0.00813002,0.000782179,0.0220503,-0.000522154,-0.0148814,0.0179013,-0.00150404,0,0,0,0,0,0,0,1.70551,-32.3006,1.63942,26.4551,1.8399,2.31713,0.110886,
0.0728062,-0.0506865,0.0864082,-1.9727,0.22527,0.227272,0.0158121,0.0652675,0.00134411,0.0671684,-0.0545234,0.289444,0.164297,0.00491161,4.97969,-0.273854,5.56141,-6.98225,6.36684,12.4759,0.601602,13.3183,0.0217017,13.9648,-10.7262,5.05732,2.81954,0.110166,0.0693708,-0.0503117,0.0826966,-1.9679,0.211503,0.215528,0.0153148,0.00813002,0.000782179,0.0220503,-0.000522154,-0.0148814,0.0179013,-0.00150404,0,0,0,0,0,0,0,1.70551,-32.3006,1.63942,26.4551,1.8399,2.31713,0.110886,
0.0736214,-0.0506864,0.0872684,-1.97348,0.227793,0.22913,0.015879,0.0725953,0.00107735,0.0752398,-0.06312,0.294623,0.177882,0.00560338,4.57991,-0.166725,5.04463,-5.37287,3.23724,8.49088,0.432354,12.7958,0.014181,13.4227,-10.6286,4.68238,2.59735,0.0997571,0.0693708,-0.0503117,0.0826966,-1.9679,0.211503,0.215528,0.0153148,0.00813002,0.000782179,0.0220503,-0.000522154,-0.0148814,0.0179013,-0.00150404,0,0,0,0,0,0,0,1.70551,-32.3006,1.63942,26.4551,1.8399,2.31713,0.110886,
0.0744636,-0.0506862,0.0881555,-1.97425,0.230153,0.230892,0.0159437,0.0791295,0.000867414,0.0823683,-0.0697005,0.294706,0.186354,0.00610028,4.08389,-0.131213,4.45536,-4.11278,0.0514551,5.2947,0.310563,12.3603,0.0503952,12.9744,-10.5077,4.28683,2.41699,0.0921101,0.0703418,-0.0498538,0.0851409,-1.968,0.211955,0.216757,0.0153215,0.0533625,0.0290677,0.11416,-0.006896,0.0302861,0.0620722,-0.0019828,5.65406,3.53569,11.5138,-0.796731,5.64593,5.52137,-0.0598451,7.8429,-31.3762,7.83632,25.3601,2.05963,2.31072,0.0779268,
0.0746746,-0.0498209,0.0894602,-1.97354,0.225415,0.228389,0.0157512,0.0875229,0.0021263,0.0900699,-0.0839462,0.310657,0.207809,0.00682794,5.24582,0.786805,4.8135,-8.90361,9.96947,13.4097,0.454791,15.7035,1.14849,15.6156,-15.117,5.77113,3.50319,0.133861,0.0703418,-0.0498538,0.0851409,-1.968,0.211955,0.216757,0.0153215,0.0533625,0.0290677,0.11416,-0.006896,0.0302861,0.0620722,-0.0019828,0,0,0,0,0,0,0,7.8429,-31.3762,7.83632,25.3601,2.05963,2.31072,0.0779268,
0.0756711,-0.0497532,0.0904557,-1.97465,0.228259,0.230646,0.0158259,0.0949307,0.00339369,0.096942,-0.0948847,0.319628,0.222687,0.007329,4.62988,0.792117,4.29505,-6.83655,5.60724,9.29841,0.313163,14.9643,1.06215,14.9148,-14.9982,5.30949,3.21672,0.118457,0.0703418,-0.0498538,0.0851409,-1.968,0.211955,0.216757,0.0153215,0.0533625,0.0290677,0.11416,-0.006896,0.0302861,0.0620722,-0.0019828,0,0,0,0,0,0,0,7.8429,-31.3762,7.83632,25.3601,2.05963,2.31072,0.0779268,
0.0766864,-0.0496801,0.0914704,-1.97574,0.230895,0.232812,0.0158979,0.101325,0.00454067,0.10292,-0.10323,0.321606,0.232282,0.00766322,3.99641,0.71686,3.73638,-5.21609,1.23575,5.99685,0.208884,14.3765,1.04384,14.3517,-14.8465,4.82177,2.99304,0.10722,0.0703418,-0.0498538,0.0851409,-1.968,0.211955,0.216757,0.0153215,0.0533625,0.0290677,0.11416,-0.006896,0.0302861,0.0620722,-0.0019828,0,0,0,0,0,0,0,7.8429,-31.3762,7.83632,25.3601,2.05963,2.31072,0.0779268,
0.077713,-0.0496046,0.0924968,-1.97682,0.23329,0.234888,0.0159681,0.106727,0.005522,0.107998,-0.10954,0.317176,0.237747,0.00788674,3.37655,0.613331,3.17354,-3.94354,-2.76867,3.41542,0.139704,13.907,1.09904,13.9028,-14.6582,4.33017,2.82164,0.0992883,0.0733842,-0.0489643,0.0908964,-1.96933,0.213289,0.219491,0.0153125,0.105826,0.0199523,0.188913,-0.0660836,-0.0032067,0.0885206,-0.00193088,6.55795,-1.13942,9.34406,-7.39845,-4.1866,3.30604,0.00649056,6.7757,-30.551,6.51124,24.4873,3.2315,1.5545,0.11821,
0.0787655,-0.0492446,0.0964882,-1.97681,0.22693,0.232052,0.0156826,0.112507,0.00413455,0.114423,-0.124863,0.32779,0.255342,0.00815142,3.61218,-0.867154,4.01572,-9.57701,6.63366,10.9969,0.165426,15.2198,0.175748,15.7062,-19.5567,5.7212,3.9393,0.120487,0.0733842,-0.0489643,0.0908964,-1.96933,0.213289,0.219491,0.0153125,0.105826,0.0199523,0.188913,-0.0660836,-0.0032067,0.0885206,-0.00193088,0,0,0,0,0,0,0,6.7757,-30.551,6.51124,24.4873,3.2315,1.5545,0.11821,
0.0798549,-0.0492492,0.0976129,-1.97827,0.229681,0.234605,0.0157549,0.117241,0.0031918,0.119654,-0.136456,0.331013,0.268097,0.00832759,2.95887,-0.589216,3.2694,-7.24547,2.01468,7.97181,0.110105,14.6238,0.0945113,15.1017,-19.3577,5.13278,3.69384,0.108934,0.0733842,-0.0489643,0.0908964,-1.96933,0.213289,0.219491,0.0153125,0.105826,0.0199523,0.188913,-0.0660836,-0.0032067,0.0885206,-0.00193088,0,0,0,0,0,0,0,6.7757,-30.551,6.51124,24.4873,3.2315,1.5545,0.11821,
0.0809454,-0.049252,0.098738,-1.97971,0.232176,0.2371,0.0158257,0.121055,0.0024825,0.123852,-0.145142,0.327173,0.276848,0.00843348,2.38395,-0.443314,2.62373,-5.4288,-2.40034,5.46958,0.0661791,14.148,0.060458,14.6167,-19.1352,4.56019,3.50347,0.100371,0.0733842,-0.0489643,0.0908964,-1.96933,0.213289,0.219491,0.0153125,0.105826,0.0199523,0.188913,-0.0660836,-0.0032067,0.0885206,-0.00193088,0,0,0,0,0,0,0,6.7757,-30.551,6.51124,24.4873,3.2315,1.5545,0.11821,
0.0820338,-0.0492556,0.0998607,-1.98113,0.234393,0.239536,0.0158958,0.124055,0.00189647,0.127148,-0.151558,0.317169,0.282371,0.0084986,1.87488,-0.366267,2.06015,-4.00978,-6.25256,3.4518,0.0407023,13.767,0.0952982,14.2318,-18.8657,4.01831,3.36736,0.0946218,0.0780745,-0.0476839,0.0986866,-1.97287,0.213326,0.223956,0.0153171,0.153509,0.0343083,0.240419,-0.123166,-0.00352934,0.13682,-0.00222678,5.96031,1.7945,6.43822,-7.13534,-0.0403297,6.03749,-0.0369871,0.511356,-30.4042,0.361952,23.5907,2.31598,1.72661,0.11821,
0.0855646,-0.0473946,0.106294,-1.98351,0.226801,0.240533,0.0156791,0.128464,0.00333677,0.131273,-0.164069,0.305906,0.297424,0.0084766,2.75531,0.900184,2.57794,-7.81924,-7.03925,9.40849,-0.013748,14.4056,0.801534,14.5764,-22.6832,4.54189,4.40591,0.0953317,0.0780745,-0.0476839,0.0986866,-1.97287,0.213326,0.223956,0.0153171,0.153509,0.0343083,0.240419,-0.123166,-0.00352934,0.13682,-0.00222678,0,0,0,0,0,0,0,0.511356,-30.4042,0.361952,23.5907,2.31598,1.72661,0.11821,
0.0867169,-0.0473222,0.107459,-1.98519,0.228623,0.243356,0.0157467,0.131578,0.00448009,0.134145,-0.173296,0.290266,0.308516,0.0084692,1.94625,0.714578,1.79531,-5.76692,-9.77472,6.9322,-0.00462983,14.0523,0.787807,14.2244,-22.4027,3.94051,4.21528,0.0901124,0.0780745,-0.0476839,0.0986866,-1.97287,0.213326,0.223956,0.0153171,0.153509,0.0343083,0.240419,-0.123166,-0.00352934,0.13682,-0.00222678,0,0,0,0,0,0,0,0.511356,-30.4042,0.361952,23.5907,2.31598,1.72661,0.11821,
0.0878535,-0.0472517,0.108608,-1.98684,0.230179,0.246134,0.0158142,0.133678,0.00534638,0.136041,-0.179975,0.271106,0.316262,0.00846266,1.31241,0.54143,1.18462,-4.17468,-11.9751,4.8416,-0.00408659,13.7668,0.791534,13.9377,-22.1114,3.37766,4.05194,0.0871265,0.0780745,-0.0476839,0.0986866,-1.97287,0.213326,0.223956,0.0153171,0.153509,0.0343083,0.240419,-0.123166,-0.00352934,0.13682,-0.00222678,0,0,0,0,0,0,0,0.511356,-30.4042,0.361952,23.5907,2.31598,1.72661,0.11821,
0.0889749,-0.0471836,0.109741,-1.98847,0.231479,0.248863,0.0158818,0.134975,0.00597859,0.137165,-0.18467,0.249379,0.321218,0.00846235,0.811124,0.395129,0.702872,-2.93411,-13.5795,3.097,-0.000191046,13.5432,0.789851,13.7166,-21.7979,2.88413,3.92308,0.0847771,0.0831822,-0.0465147,0.107056,-1.97856,0.213223,0.22974,0.0153183,0.136123,0.0279139,0.247265,-0.196178,-0.00424593,0.186285,-0.000599773,-2.17323,-0.799297,0.855749,-9.12644,-0.0895741,6.18311,0.203375,-1.11126,-31.0509,-1.23686,23.5907,2.07153,1.68084,0.104477,
0.0905087,-0.0458048,0.11449,-1.9889,0.219132,0.243617,0.0156763,0.136008,0.00741652,0.13806,-0.188492,0.219562,0.317863,0.00842286,0.64536,0.898709,0.558801,-2.38905,-18.6357,-2.09658,-0.0246807,13.1713,0.799582,13.3349,-21.2036,2.00583,3.70063,0.0829824,0.0831822,-0.0465147,0.107056,-1.97856,0.213223,0.22974,0.0153183,0.136123,0.0279139,0.247265,-0.196178,-0.00424593,0.186285,-0.000599773,0,0,0,0,0,0,0,-1.11126,-31.0509,-1.23686,23.5907,2.07153,1.68084,0.104477,
0.0916066,-0.0457067,0.1156,-1.99049,0.219775,0.246048,0.0157426,0.136255,0.00838449,0.138179,-0.190729,0.191721,0.315066,0.00839666,0.154367,0.604981,0.074677,-1.39792,-17.4004,-1.74786,-0.0163788,13.017,0.797591,13.1749,-20.9077,1.63267,3.60696,0.0829214,0.0831822,-0.0465147,0.107056,-1.97856,0.213223,0.22974,0.0153183,0.136123,0.0279139,0.247265,-0.196178,-0.00424593,0.186285,-0.000599773,0,0,0,0,0,0,0,-1.11126,-31.0509,-1.23686,23.5907,2.07153,1.68084,0.104477,
0.0926838,-0.0456155,0.116688,-1.99206,0.220265,0.248464,0.0158091,0.135934,0.00898927,0.137742,-0.191763,0.165619,0.312449,0.00837881,-0.200845,0.377985,-0.273246,-0.646157,-16.3135,-1.63569,-0.0111543,12.8746,0.79165,13.0263,-20.6136,1.3076,3.52458,0.0826855,0.0831822,-0.0465147,0.107056,-1.97856,0.213223,0.22974,0.0153183,0.136123,0.0279139,0.247265,-0.196178,-0.00424593,0.186285,-0.000599773,0,0,0,0,0,0,0,-1.11126,-31.0509,-1.23686,23.5907,2.07153,1.68084,0.104477,
0.0937418,-0.0455302,0.117756,-1.9936,0.220614,0.250857,0.0158753,0.135196,0.00932336,0.1369,-0.191889,0.141229,0.30979,0.00835891,-0.460752,0.208806,-0.526217,-0.0786703,-15.244,-1.66239,-0.0124393,12.7415,0.777048,12.8911,-20.297,1.03136,3.45581,0.0829,0.0876007,-0.0450177,0.11619,-1.98629,0.212655,0.237335,0.0153143,0.118632,0.0426258,0.260007,-0.238823,-0.0306847,0.226128,-0.000621832,-2.18631,1.83899,1.59278,-5.33066,-3.30485,4.98035,-0.00275746,-1.82141,-31.0509,-1.8637,23.19,1.27777,1.73394,0.104477,
0.09476,-0.0437381,0.123448,-1.99636,0.214096,0.249509,0.0156757,0.135,0.0111116,0.136619,-0.192277,0.116212,0.300946,0.00828949,-0.122604,1.11767,-0.175342,-0.24268,-15.6358,-5.52746,-0.0433872,12.4831,0.753043,12.6199,-19.7164,0.559903,3.3178,0.0830102,0.0876007,-0.0450177,0.11619,-1.98629,0.212655,0.237335,0.0153143,0.118632,0.0426258,0.260007,-0.238823,-0.0306847,0.226128,-0.000621832,0,0,0,0,0,0,0,-1.82141,-31.0509,-1.8637,23.19,1.27777,1.73394,0.104477,
0.0958051,-0.0436089,0.124503,-1.99787,0.214139,0.251642,0.0157397,0.134129,0.0121196,0.135662,-0.191642,0.0940516,0.294088,0.00823234,-0.544344,0.630011,-0.598401,0.396885,-13.8502,-4.28623,-0.0357148,12.3549,0.740148,12.4851,-19.4281,0.371593,3.25493,0.082862,0.0876007,-0.0450177,0.11619,-1.98629,0.212655,0.237335,0.0153143,0.118632,0.0426258,0.260007,-0.238823,-0.0306847,0.226128,-0.000621832,0,0,0,0,0,0,0,-1.82141,-31.0509,-1.8637,23.19,1.27777,1.73394,0.104477,
0.0968253,-0.0434934,0.125532,-1.99935,0.214103,0.253774,0.0158034,0.132808,0.012583,0.134255,-0.190274,0.0743429,0.288574,0.00817665,-0.826093,0.289569,-0.879349,0.855185,-12.3179,-3.44634,-0.0348105,12.2258,0.727357,12.3498,-19.1408,0.206383,3.19321,0.08284,0.0876007,-0.0450177,0.11619,-1.98629,0.212655,0.237335,0.0153143,0.118632,0.0426258,0.260007,-0.238823,-0.0306847,0.226128,-0.000621832,0,0,0,0,0,0,0,-1.82141,-31.0509,-1.8637,23.19,1.27777,1.73394,0.104477,
0.0978231,-0.043389,0.126538,-2.0008,0.213997,0.255897,0.0158665,0.13119,0.012677,0.132556,-0.188383,0.0568059,0.283924,0.00811964,-1.01068,0.0587739,-1.06205,1.18135,-10.9606,-2.90607,-0.035629,12.0856,0.676169,12.2057,-18.8395,0.0780374,3.13548,0.0825487,0.0912907,-0.0436549,0.124349,-1.99436,0.211458,0.244887,0.0153146,0.110744,0.0580456,0.22413,-0.232492,-0.0571755,0.234882,-0.000761414,-0.986055,1.92747,-4.48455,0.791391,-3.31135,1.09421,-0.0174477,-2.91241,-31.8007,-3.11339,23.8644,1.00311,1.7138,0.0980684,
0.0968608,-0.0422842,0.129992,-2.00249,0.210775,0.254425,0.0156137,0.130628,0.0148161,0.131951,-0.188505,0.0418227,0.276014,0.00804716,-0.351572,1.33693,-0.37791,-0.0760601,-9.36451,-4.9435,-0.0453039,11.9523,0.665244,12.0663,-18.5541,-0.0429553,3.07754,0.0822686,0.0912907,-0.0436549,0.124349,-1.99436,0.211458,0.244887,0.0153146,0.110744,0.0580456,0.22413,-0.232492,-0.0571755,0.234882,-0.000761414,0,0,0,0,0,0,0,-2.91241,-31.8007,-3.11339,23.8644,1.00311,1.7138,0.0980684,
0.0978596,-0.0421236,0.130999,-2.00396,0.210589,0.256393,0.0156754,0.129474,0.0158694,0.130742,-0.18752,0.0288049,0.27001,0.00798147,-0.72116,0.658294,-0.755722,0.615537,-8.13613,-3.7524,-0.0410546,11.8162,0.655786,11.924,-18.2696,-0.143773,3.02196,0.0817262,0.0912907,-0.0436549,0.124349,-1.99436,0.211458,0.244887,0.0153146,0.110744,0.0580456,0.22413,-0.232492,-0.0571755,0.234882,-0.000761414,0,0,0,0,0,0,0,-2.91241,-31.8007,-3.11339,23.8644,1.00311,1.7138,0.0980684,
0.0988341,-0.0419837,0.131982,-2.00539,0.210362,0.258366,0.0157367,0.127941,0.0161929,0.129147,-0.185759,0.0173649,0.265322,0.0079161,-0.958067,0.202238,-0.996894,1.1011,-7.14999,-2.93001,-0.0408546,11.6776,0.647601,11.7794,-17.9858,-0.230746,2.9665,0.0811925,0.0912907,-0.0436549,0.124349,-1.99436,0.211458,0.244887,0.0153146,0.110744,0.0580456,0.22413,-0.232492,-0.0571755,0.234882,-0.000761414,0,0,0,0,0,0,0,-2.91241,-31.8007,-3.11339,23.8644,1.00311,1.7138,0.0980684,
0.0967554,-0.0422349,0.129879,-2.00209,0.210153,0.253639,0.0155994,0.127181,0.0177273,0.128338,-0.18426,0.00720542,0.256743,0.00779009,-0.475083,0.958994,-0.505781,0.936601,-6.34969,-5.36238,-0.0787549,11.3922,0.635728,11.4822,-17.42,-0.363739,2.85905,0.0796845,0.0912907,-0.0436549,0.124349,-1.99436,0.211458,0.244887,0.0153146,0.110744,0.0580456,0.22413,-0.232492,-0.0571755,0.234882,-0.000761414,0,0,0,0,0,0,0,-2.91241,-31.8007,-3.11339,23.8644,1.00311,1.7138,0.0980684,
0.0977161,-0.0420715,0.130846,-2.00347,0.209858,0.255431,0.0156572,0.125764,0.0182672,0.126859,-0.181974,-0.00161035,0.250211,0.0076772,-0.88583,0.337422,-0.924158,1.42891,-5.50986,-4.08239,-0.0705588,11.2559,0.57812,11.3406,-17.1089,-0.393374,2.81745,0.0786191,0.0948475,-0.0423463,0.131098,-2.00235,0.210045,0.251048,0.0152993,0.0963225,0.0609039,0.182438,-0.215518,0.00250345,0.124158,-0.0022407,-1.80267,0.357292,-5.21158,2.12169,7.45987,-13.8405,-0.184911,-1.86902,-33.225,-2.11363,26.828,0.0317347,2.76116,0.110886,
0.0986491,-0.0419295,0.131785,-2.00482,0.209536,0.25723,0.0157143,0.123937,0.0181639,0.124965,-0.179166,-0.00932451,0.245139,0.00756964,-1.14188,-0.0645532,-1.18398,1.75473,-4.82135,-3.16956,-0.067224,11.1074,0.575464,11.1865,-16.8274,-0.435582,2.76503,0.0776628,0.0948475,-0.0423463,0.131098,-2.00235,0.210045,0.251048,0.0152993,0.0963225,0.0609039,0.182438,-0.215518,0.00250345,0.124158,-0.0022407,0,0,0,0,0,0,0,-1.86902,-33.225,-2.11363,26.828,0.0317347,2.76116,0.110886,
0.0995578,-0.0418042,0.1327,-2.00612,0.209192,0.259028,0.0157706,0.121867,0.0176634,0.122825,-0.176028,-0.0160765,0.241062,0.00746208,-1.29376,-0.312846,-1.33731,1.96114,-4.21999,-2.54851,-0.0672262,10.9568,0.574078,11.0303,-16.5464,-0.469453,2.71373,0.0765727,0.0948475,-0.0423463,0.131098,-2.00235,0.210045,0.251048,0.0152993,0.0963225,0.0609039,0.182438,-0.215518,0.00250345,0.124158,-0.0022407,0,0,0,0,0,0,0,-1.86902,-33.225,-2.11363,26.828,0.0317347,2.76116,0.110886,
0.0997665,-0.0408952,0.136062,-2.00971,0.208825,0.257942,0.0155824,0.120425,0.0190948,0.12133,-0.174556,-0.0213047,0.231514,0.00734774,-0.90119,0.894655,-0.934335,0.919998,-3.2676,-5.96736,-0.0714624,10.8046,0.573595,10.8726,-16.2659,-0.497668,2.66242,0.0754551,0.0948475,-0.0423463,0.131098,-2.00235,0.210045,0.251048,0.0152993,0.0963225,0.0609039,0.182438,-0.215518,0.00250345,0.124158,-0.0022407,0,0,0,0,0,0,0,-1.86902,-33.225,-2.11363,26.828,0.0317347,2.76116,0.110886,
0.100658,-0.0407246,0.136958,-2.01101,0.208464,0.259529,0.0156365,0.118623,0.0195403,0.119468,-0.172228,-0.0260909,0.224887,0.0072301,-1.12636,0.27846,-1.16376,1.45529,-2.99138,-4.1417,-0.0735265,10.6508,0.500523,10.7127,-15.9596,-0.516919,2.62542,0.0741735,0.097374,-0.0411399,0.136504,-2.00912,0.209846,0.253227,0.0152903,0.0574612,0.0401766,0.144073,-0.169745,-0.00839327,0.044391,-0.00108826,-4.85767,-2.59091,-4.79557,5.72164,-1.36209,-9.97084,0.144055,-3.72174,-36.5416,-3.88701,31.1127,0.984799,3.35168,0.0706026,
0.101526,-0.0405762,0.13783,-2.01228,0.208084,0.261141,0.0156895,0.116598,0.0193415,0.117379,-0.169333,-0.0303597,0.220213,0.00710905,-1.26562,-0.124261,-1.30533,1.80937,-2.66801,-2.92132,-0.0756545,10.4957,0.501702,10.5524,-15.6801,-0.534963,2.57513,0.0729243,0.097374,-0.0411399,0.136504,-2.00912,0.209846,0.253227,0.0152903,0.0574612,0.0401766,0.144073,-0.169745,-0.00839327,0.044391,-0.00108826,0,0,0,0,0,0,0,-3.72174,-36.5416,-3.88701,31.1127,0.984799,3.35168,0.0706026,
0.102373,-0.0404455,0.138681,-2.0135,0.207692,0.262766,0.0157414,0.114447,0.0187412,0.115163,-0.16608,-0.0340863,0.216791,0.00698434,-1.34427,-0.375235,-1.38495,2.03283,-2.3291,-2.13879,-0.0779443,10.3395,0.503627,10.3909,-15.4009,-0.548673,2.52567,0.0716008,0.097374,-0.0411399,0.136504,-2.00912,0.209846,0.253227,0.0152903,0.0574612,0.0401766,0.144073,-0.169745,-0.00839327,0.044391,-0.00108826,0,0,0,0,0,0,0,-3.72174,-36.5416,-3.88701,31.1127,0.984799,3.35168,0.0706026,
0.101471,-0.0401807,0.140627,-2.0157,0.207995,0.259415,0.0155659,0.111706,0.0186802,0.112357,-0.163521,-0.0383282,0.210364,0.00687821,-1.71278,-0.0381215,-1.75386,1.59989,-2.65119,-4.01719,-0.0663285,10.1824,0.505977,10.2287,-15.1223,-0.559373,2.47635,0.0702627,0.097374,-0.0411399,0.136504,-2.00912,0.209846,0.253227,0.0152903,0.0574612,0.0401766,0.144073,-0.169745,-0.00839327,0.044391,-0.00108826,0,0,0,0,0,0,0,-3.72174,-36.5416,-3.88701,31.1127,0.984799,3.35168,0.0706026,
0.102265,-0.0400489,0.141423,-2.01688,0.207549,0.260932,0.015616,0.109205,0.0182405,0.109793,-0.160489,-0.0418186,0.20622,0.00675519,-1.56359,-0.274754,-1.60296,1.89488,-2.18156,-2.58985,-0.0768912,10.02,0.46596,10.0584,-14.8073,-0.565463,2.45101,0.0687475,0.0992866,-0.0398126,0.141031,-2.01391,0.209802,0.253362,0.01529,0.0518458,0.0412821,0.118047,-0.118224,-0.00605487,-0.00596659,-0.000255018,-0.701923,0.138183,-3.25329,6.44011,0.2923,-6.2947,0.104155,-0.655026,-33.5741,-0.788561,28.1967,1.11847,2.81426,0.050461,
0.103045,-0.0399303,0.142206,-2.01803,0.207104,0.262469,0.0156647,0.106876,0.0175576,0.107403,-0.157163,-0.0445788,0.203418,0.00662114,-1.45541,-0.426814,-1.49362,2.07867,-1.72509,-1.75096,-0.0837762,9.86164,0.469029,9.89496,-14.5296,-0.570891,2.40264,0.0673291,0.0992866,-0.0398126,0.141031,-2.01391,0.209802,0.253362,0.01529,0.0518458,0.0412821,0.118047,-0.118224,-0.00605487,-0.00596659,-0.000255018,0,0,0,0,0,0,0,-0.655026,-33.5741,-0.788561,28.1967,1.11847,2.81426,0.050461,
0.103812,-0.0398228,0.142975,-2.01915,0.206663,0.264014,0.015712,0.104678,0.0167339,0.105145,-0.15367,-0.0466839,0.201341,0.00647995,-1.37385,-0.514867,-1.41112,2.18271,-1.31567,-1.29826,-0.0882488,9.70278,0.472404,9.73112,-14.2523,-0.574148,2.35498,0.0658746,0.0992866,-0.0398126,0.141031,-2.01391,0.209802,0.253362,0.01529,0.0518458,0.0412821,0.118047,-0.118224,-0.00605487,-0.00596659,-0.000255018,0,0,0,0,0,0,0,-0.655026,-33.5741,-0.788561,28.1967,1.11847,2.81426,0.050461,
0.102961,-0.0390872,0.144716,-2.01977,0.208007,0.259161,0.0155437,0.10218,0.0163106,0.102579,-0.150744,-0.04848,0.196315,0.00635803,-1.56103,-0.264566,-1.60362,1.82885,-1.12259,-3.1413,-0.0762004,9.5436,0.475835,9.56703,-13.9754,-0.57579,2.30759,0.0643929,0.0992866,-0.0398126,0.141031,-2.01391,0.209802,0.253362,0.01529,0.0518458,0.0412821,0.118047,-0.118224,-0.00605487,-0.00596659,-0.000255018,0,0,0,0,0,0,0,-0.655026,-33.5741,-0.788561,28.1967,1.11847,2.81426,0.050461,
0.10369,-0.0389795,0.145446,-2.02084,0.20756,0.260603,0.015589,0.0999728,0.0157396,0.10031,-0.147543,-0.0499758,0.1931,0.00621794,-1.37959,-0.35683,-1.4182,2.00114,-0.934858,-2.00947,-0.0875529,9.3839,0.441125,9.40042,-13.6663,-0.574075,2.28047,0.0627713,0.100794,-0.0388506,0.14443,-2.0178,0.209618,0.25331,0.0152871,0.0471341,0.0124428,0.0876924,-0.115159,0.00111749,-0.00544491,-0.000675406,-0.588963,-3.60491,-3.7943,0.383152,0.896545,0.06521,-0.0525486,-0.476498,-33.7209,-0.586229,27.3001,1.25946,2.68151,0.0440523,
0.104409,-0.0388802,0.146165,-2.02189,0.207116,0.262058,0.0156327,0.0979541,0.015074,0.0982335,-0.144178,-0.0510738,0.190862,0.00606722,-1.2617,-0.416018,-1.29786,2.10313,-0.686302,-1.39876,-0.0942013,9.22434,0.444608,9.23607,-13.3903,-0.573019,2.23407,0.0612327,0.100794,-0.0388506,0.14443,-2.0178,0.209618,0.25331,0.0152871,0.0471341,0.0124428,0.0876924,-0.115159,0.00111749,-0.00544491,-0.000675406,0,0,0,0,0,0,0,-0.476498,-33.7209,-0.586229,27.3001,1.25946,2.68151,0.0440523,
0.10403,-0.0385002,0.147662,-2.02305,0.207759,0.258752,0.0155222,0.0950424,0.0140503,0.0952439,-0.140289,-0.0521739,0.186165,0.00590714,-1.81978,-0.63978,-1.86845,2.43024,-0.687507,-2.93528,-0.100047,8.90498,0.451404,8.90733,-12.8396,-0.568087,2.14292,0.058123,0.100794,-0.0388506,0.14443,-2.0178,0.209618,0.25331,0.0152871,0.0471341,0.0124428,0.0876924,-0.115159,0.00111749,-0.00544491,-0.000675406,0,0,0,0,0,0,0,-0.476498,-33.7209,-0.586229,27.3001,1.25946,2.68151,0.0440523,
0.104693,-0.0384214,0.148325,-2.02401,0.207309,0.260118,0.0155625,0.0926145,0.0132101,0.0927498,-0.136445,-0.0529887,0.183099,0.00573282,-1.51742,-0.525129,-1.55886,2.40268,-0.509248,-1.91653,-0.108952,8.74528,0.454618,8.74302,-12.5648,-0.564632,2.09817,0.0565586,0.100794,-0.0388506,0.14443,-2.0178,0.209618,0.25331,0.0152871,0.0471341,0.0124428,0.0876924,-0.115159,0.00111749,-0.00544491,-0.000675406,0,0,0,0,0,0,0,-0.476498,-33.7209,-0.586229,27.3001,1.25946,2.68151,0.0440523,
0.10535,-0.0383447,0.14898,-2.02495,0.206867,0.261493,0.0156011,0.0905032,0.0124849,0.0905795,-0.132669,-0.0534434,0.18085,0.00555235,-1.31956,-0.453255,-1.35643,2.35989,-0.284197,-1.40554,-0.112793,8.58377,0.421911,8.57643,-12.2583,-0.557418,2.07338,0.0548646,0.102256,-0.0382539,0.14741,-2.02169,0.209248,0.253334,0.0152816,0.0473909,0.00926535,0.0769582,-0.105224,-0.0158642,0.00425938,-0.00128546,0.0321054,-0.39718,-1.34177,1.24191,-2.12271,1.21304,-0.0762564,-0.730404,-33.225,-0.812364,26.3797,1.39404,2.47643,0.0641939,
0.105998,-0.0382707,0.149626,-2.02587,0.206435,0.262863,0.0156383,0.0885997,0.0118381,0.0886218,-0.128977,-0.053563,0.178936,0.00537043,-1.18972,-0.404245,-1.22357,2.30732,-0.0747967,-1.19642,-0.113701,8.42408,0.424708,8.41226,-11.9843,-0.553265,2.02974,0.053273,0.102256,-0.0382539,0.14741,-2.02169,0.209248,0.253334,0.0152816,0.0473909,0.00926535,0.0769582,-0.105224,-0.0158642,0.00425938,-0.00128546,0,0,0,0,0,0,0,-0.730404,-33.225,-0.812364,26.3797,1.39404,2.47643,0.0641939,
0.105235,-0.0379562,0.150377,-2.02645,0.207257,0.258507,0.0154881,0.086226,0.0112656,0.0861867,-0.125735,-0.0540868,0.17444,0.00521484,-1.48356,-0.357856,-1.52195,2.02637,-0.32735,-2.80974,-0.0972413,8.26443,0.427113,8.24822,-11.7108,-0.549065,1.98748,0.0516559,0.102256,-0.0382539,0.14741,-2.02169,0.209248,0.253334,0.0152816,0.0473909,0.00926535,0.0769582,-0.105224,-0.0158642,0.00425938,-0.00128546,0,0,0,0,0,0,0,-0.730404,-33.225,-0.812364,26.3797,1.39404,2.47643,0.0641939,
0.105845,-0.0378844,0.150985,-2.02732,0.206813,0.25978,0.015523,0.0842341,0.0108078,0.0841417,-0.122443,-0.0543606,0.171381,0.00504564,-1.24495,-0.286092,-1.27811,2.05777,-0.171112,-1.91186,-0.105756,8.10471,0.429381,8.08417,-11.4376,-0.544997,1.94507,0.0500417,0.102256,-0.0382539,0.14741,-2.02169,0.209248,0.253334,0.0152816,0.0473909,0.00926535,0.0769582,-0.105224,-0.0158642,0.00425938,-0.00128546,0,0,0,0,0,0,0,-0.730404,-33.225,-0.812364,26.3797,1.39404,2.47643,0.0641939,
0.106448,-0.037814,0.151586,-2.02817,0.206378,0.261058,0.0155564,0.0824797,0.0104073,0.0823394,-0.119137,-0.0543672,0.169046,0.00486997,-1.09645,-0.250306,-1.12644,2.06578,-0.0041229,-1.45945,-0.109791,7.94128,0.394881,7.91652,-11.1392,-0.538992,1.91846,0.0483333,0.103879,-0.0379379,0.149426,-2.02504,0.208805,0.253402,0.0152823,0.0470078,0.00807975,0.0507438,-0.0808028,-0.00984061,0.00148079,-0.000132564,-0.0478923,-0.148199,-3.2768,3.05263,0.752947,-0.347324,0.144112,0.590702,-33.098,0.488905,26.0068,1.54052,2.22375,0.0440523,
0.107044,-0.0377455,0.152179,-2.02899,0.205951,0.262329,0.0155882,0.0808707,0.0100362,0.0806856,-0.115846,-0.0541612,0.167015,0.00469234,-1.00565,-0.23193,-1.03363,2.057,0.128736,-1.26964,-0.111019,7.78137,0.396569,7.75245,-10.8668,-0.535905,1.87747,0.0467155,0.103879,-0.0379379,0.149426,-2.02504,0.208805,0.253402,0.0152823,0.0470078,0.00807975,0.0507438,-0.0808028,-0.00984061,0.00148079,-0.000132564,0,0,0,0,0,0,0,0.590702,-33.098,0.488905,26.0068,1.54052,2.22375,0.0440523,
0.106979,-0.0376777,0.152498,-2.02987,0.206412,0.259496,0.015487,0.0781544,0.00950932,0.0779049,-0.111518,-0.0547543,0.163186,0.0044683,-1.69769,-0.32933,-1.7379,2.7052,-0.370658,-2.39316,-0.140023,7.46157,0.398242,7.42465,-10.3226,-0.53474,1.80711,0.0434646,0.103879,-0.0379379,0.149426,-2.02504,0.208805,0.253402,0.0152823,0.0470078,0.00807975,0.0507438,-0.0808028,-0.00984061,0.00148079,-0.000132564,0,0,0,0,0,0,0,0.590702,-33.098,0.488905,26.0068,1.54052,2.22375,0.0440523,
0.107513,-0.0376181,0.153028,-2.0306,0.205956,0.260678,0.0155139,0.0758704,0.00909882,0.0755657,-0.107443,-0.0552081,0.160103,0.00424875,-1.42751,-0.256562,-1.46203,2.547,-0.283641,-1.92696,-0.137223,7.30096,0.399002,7.26015,-10.0513,-0.53518,1.76871,0.0418215,0.103879,-0.0379379,0.149426,-2.02504,0.208805,0.253402,0.0152823,0.0470078,0.00807975,0.0507438,-0.0808028,-0.00984061,0.00148079,-0.000132564,0,0,0,0,0,0,0,0.590702,-33.098,0.488905,26.0068,1.54052,2.22375,0.0440523,
0.10804,-0.0375589,0.153551,-2.03131,0.2055,0.26185,0.0155394,0.0738767,0.0087572,0.0735231,-0.103583,-0.0555804,0.157399,0.00403595,-1.24603,-0.213516,-1.27663,2.41224,-0.232701,-1.68988,-0.132996,7.14001,0.399522,7.09543,-9.7803,-0.537638,1.73134,0.0401895,0.103879,-0.0379379,0.149426,-2.02504,0.208805,0.253402,0.0152823,0.0470078,0.00807975,0.0507438,-0.0808028,-0.00984061,0.00148079,-0.000132564,0,0,0,0,0,0,0,0.590702,-33.098,0.488905,26.0068,1.54052,2.22375,0.0440523,
0.108559,-0.0375008,0.154065,-2.03199,0.20504,0.263008,0.0155635,0.0720772,0.00845839,0.0716791,-0.0999074,-0.05596,0.154867,0.00383102,-1.12471,-0.186755,-1.15246,2.29734,-0.237217,-1.58243,-0.128083,6.97638,0.381656,6.92672,-9.48742,-0.540587,1.70876,0.0384755,0.105769,-0.037483,0.150855,-2.02748,0.208711,0.253417,0.0152808,0.0563443,0.0138835,0.0383667,-0.060139,0.00239678,0.000959975,-0.000686632,1.16706,0.725467,-1.54714,2.58298,1.52967,-0.0651019,-0.0692585,0.309024,-32.4989,0.26277,25.5069,1.13128,2.12487,0.0577852,
0.108627,-0.0372072,0.153677,-2.03162,0.206345,0.259349,0.0154445,0.0698365,0.00815907,0.0693836,-0.0959791,-0.0576706,0.152491,0.00361883,-1.4004,-0.187074,-1.4347,2.45515,-1.06915,-1.4851,-0.132618,6.6588,0.373692,6.60282,-8.94219,-0.589189,1.73406,0.0353257,0.105769,-0.037483,0.150855,-2.02748,0.208711,0.253417,0.0152808,0.0563443,0.0138835,0.0383667,-0.060139,0.00239678,0.000959975,-0.000686632,0,0,0,0,0,0,0,0.309024,-32.4989,0.26277,25.5069,1.13128,2.12487,0.0577852,
0.109107,-0.0371513,0.154152,-2.03224,0.205808,0.260494,0.0154651,0.0678777,0.00792475,0.0673778,-0.0922374,-0.0595621,0.15062,0.00341058,-1.2243,-0.146451,-1.25361,2.33858,-1.18217,-1.16895,-0.130157,6.49592,0.373274,6.43665,-8.67237,-0.603667,1.70115,0.0337047,0.105769,-0.037483,0.150855,-2.02748,0.208711,0.253417,0.0152808,0.0563443,0.0138835,0.0383667,-0.060139,0.00239678,0.000959975,-0.000686632,0,0,0,0,0,0,0,0.309024,-32.4989,0.26277,25.5069,1.13128,2.12487,0.0577852,
0.109579,-0.0370959,0.154618,-2.03283,0.205249,0.261633,0.0154843,0.0661018,0.00772373,0.0655606,-0.0886551,-0.0616092,0.148966,0.00320899,-1.10995,-0.125637,-1.13581,2.23897,-1.27945,-1.03404,-0.125994,6.33256,0.372627,6.27012,-8.40283,-0.621789,1.66981,0.0320791,0.105769,-0.037483,0.150855,-2.02748,0.208711,0.253417,0.0152808,0.0563443,0.0138835,0.0383667,-0.060139,0.00239678,0.000959975,-0.000686632,0,0,0,0,0,0,0,0.309024,-32.4989,0.26277,25.5069,1.13128,2.12487,0.0577852,
0.110042,-0.0370415,0.155075,-2.0334,0.204668,0.262761,0.0155022,0.064444,0.00753992,0.0638654,-0.0852101,-0.0638286,0.147371,0.00301442,-1.0361,-0.114881,-1.05947,2.15312,-1.38715,-0.996787,-0.121608,6.16773,0.359888,6.10075,-8.11589,-0.642918,1.65079,0.030415,0.107728,-0.0370639,0.151972,-2.02939,0.208712,0.253417,0.0152774,0.0570188,0.0175599,0.0343655,-0.0486415,0.00147862,-0.0011607,-0.00118081,0.0843136,0.45955,-0.500154,1.4372,-0.11477,-0.265085,-0.061772,-0.655026,-32.8005,-0.713182,26.0544,1.12487,2.17156,0.0779268,
0.110407,-0.03672,0.154609,-2.03301,0.205176,0.26108,0.0154082,0.0627215,0.00756346,0.0621087,-0.0818061,-0.0711436,0.156146,0.00282713,-1.07655,0.0147168,-1.09791,2.1275,-4.57184,5.48447,-0.117057,5.92345,0.296268,5.85683,-7.55287,-0.891818,2.30842,0.027988,0.107728,-0.0370639,0.151972,-2.02939,0.208712,0.253417,0.0152774,0.0570188,0.0175599,0.0343655,-0.0486415,0.00147862,-0.0011607,-0.00118081,0,0,0,0,0,0,0,-0.655026,-32.8005,-0.713182,26.0544,1.12487,2.17156,0.0779268,
0.110844,-0.0366604,0.15504,-2.03353,0.204327,0.262627,0.0154234,0.0611084,0.00754092,0.0604656,-0.0784094,-0.0781333,0.163609,0.00264021,-1.00818,-0.014092,-1.02694,2.1229,-4.3686,4.66399,-0.116822,5.75893,0.295419,5.68965,-7.28406,-0.934556,2.27859,0.026374,0.107728,-0.0370639,0.151972,-2.02939,0.208712,0.253417,0.0152774,0.0570188,0.0175599,0.0343655,-0.0486415,0.00147862,-0.0011607,-0.00118081,0,0,0,0,0,0,0,-0.655026,-32.8005,-0.713182,26.0544,1.12487,2.17156,0.0779268,
0.111271,-0.0366029,0.155461,-2.03402,0.203437,0.26418,0.0154371,0.0595536,0.00746959,0.0588832,-0.0750442,-0.0847503,0.169705,0.0024566,-0.971771,-0.0445788,-0.989038,2.10326,-4.13561,3.81019,-0.11476,5.59504,0.294459,5.52323,-7.0152,-0.981654,2.25006,0.0247891,0.107728,-0.0370639,0.151972,-2.02939,0.208712,0.253417,0.0152774,0.0570188,0.0175599,0.0343655,-0.0486415,0.00147862,-0.0011607,-0.00118081,0,0,0,0,0,0,0,-0.655026,-32.8005,-0.713182,26.0544,1.12487,2.17156,0.0779268,
0.111686,-0.0365477,0.15587,-2.03449,0.20251,0.265729,0.0154497,0.0580285,0.007357,0.057332,-0.0717244,-0.0909786,0.17448,0.00227868,-0.953151,-0.0703723,-0.969473,2.07488,-3.89267,2.98418,-0.111195,5.4312,0.28496,5.35523,-6.73347,-1.03182,2.23097,0.0231606,0.109191,-0.0365902,0.153157,-2.0307,0.208736,0.253381,0.0152822,0.0350247,0.017907,0.0412596,-0.0321423,0.00349207,-0.00318325,-2.40267e-05,-2.74926,0.0433859,0.861767,2.06239,0.251681,-0.252819,0.144598,-0.551876,-33.2964,-0.562425,27.0264,0.948178,2.45629,0.0440523,
0.111391,-0.0363136,0.155336,-2.03379,0.207074,0.265352,0.0153904,0.058136,0.00767404,0.0574943,-0.0711289,-0.0858008,0.213336,0.00224235,0.067184,0.198152,0.101457,0.372201,3.23611,24.2852,-0.0227106,6.2621,-0.0258784,6.22611,-6.67868,-0.364615,4.60973,0.0248104,0.109191,-0.0365902,0.153157,-2.0307,0.208736,0.253381,0.0152822,0.0350247,0.017907,0.0412596,-0.0321423,0.00349207,-0.00318325,-2.40267e-05,0,0,0,0,0,0,0,-0.551876,-33.2964,-0.562425,27.0264,0.948178,2.45629,0.0440523,
0.111857,-0.0362447,0.155799,-2.0343,0.20649,0.268376,0.0154053,0.0581573,0.00786006,0.057559,-0.0696445,-0.0832472,0.246267,0.00216702,0.0132992,0.116261,0.0403831,0.927753,1.59598,20.5819,-0.0470789,6.0959,-0.0215324,6.05749,-6.41037,-0.459947,4.52887,0.0230365,0.109191,-0.0365902,0.153157,-2.0307,0.208736,0.253381,0.0152822,0.0350247,0.017907,0.0412596,-0.0321423,0.00349207,-0.00318325,-2.40267e-05,0,0,0,0,0,0,0,-0.551876,-33.2964,-0.562425,27.0264,0.948178,2.45629,0.0440523,
0.112317,-0.0361809,0.156255,-2.03477,0.205849,0.27143,0.0154188,0.0580267,0.00788374,0.0574605,-0.0675365,-0.0826403,0.273372,0.00207,-0.0816076,0.014805,-0.0615633,1.3175,0.37935,16.9406,-0.06064,5.93445,-0.0166903,5.89381,-6.14097,-0.558605,4.45042,0.0213912,0.109191,-0.0365902,0.153157,-2.0307,0.208736,0.253381,0.0152822,0.0350247,0.017907,0.0412596,-0.0321423,0.00349207,-0.00318325,-2.40267e-05,0,0,0,0,0,0,0,-0.551876,-33.2964,-0.562425,27.0264,0.948178,2.45629,0.0440523,
0.112769,-0.0361229,0.156704,-2.03521,0.205156,0.274485,0.0154309,0.0577227,0.0077575,0.0571786,-0.0650045,-0.0834295,0.295052,0.00196011,-0.190003,-0.0789024,-0.176185,1.58247,-0.493246,13.5504,-0.0686792,5.7766,-0.0122169,5.73151,-5.86336,-0.657325,4.37794,0.0197706,0.109861,-0.035983,0.154611,-2.03121,0.208718,0.253459,0.0152812,0.0093233,0.0196775,0.0479297,-0.0111899,0.00432523,0.00907342,0.00143227,-3.21268,0.221312,0.833754,2.61905,0.104146,1.53208,0.182037,-0.29797,-33.225,-0.312487,27.4271,0.984799,2.86095,0.0101778,
0.113148,-0.0359963,0.158014,-2.03636,0.213691,0.283746,0.0155448,0.0624287,0.00695044,0.0625003,-0.068861,-0.0462607,0.377295,0.0025251,2.94121,-0.504414,3.32606,-2.4103,23.2305,51.4013,0.353123,9.65018,-1.74837,9.89475,-8.74115,2.18029,9.91541,0.0549142,0.109861,-0.035983,0.154611,-2.03121,0.208718,0.253459,0.0152812,0.0093233,0.0196775,0.0479297,-0.0111899,0.00432523,0.00907342,0.00143227,0,0,0,0,0,0,0,-0.29797,-33.225,-0.312487,27.4271,0.984799,2.86095,0.0101778,
0.113807,-0.0359774,0.158694,-2.03697,0.214441,0.289236,0.0155823,0.0664361,0.0060326,0.0670024,-0.0703214,-0.0182619,0.43908,0.00295755,2.50462,-0.573652,2.81386,-0.91273,17.4993,38.6161,0.270276,9.41013,-1.59326,9.65451,-8.45802,1.96212,9.32083,0.050642,0.109861,-0.035983,0.154611,-2.03121,0.208718,0.253459,0.0152812,0.0093233,0.0196775,0.0479297,-0.0111899,0.00432523,0.00907342,0.00143227,0,0,0,0,0,0,0,-0.29797,-33.225,-0.312487,27.4271,0.984799,2.86095,0.0101778,
0.114471,-0.0359711,0.159379,-2.03752,0.215117,0.294505,0.0156197,0.0697438,0.00498346,0.0707063,-0.0701024,0.00229973,0.48298,0.0033009,2.06735,-0.655708,2.31492,0.136876,12.851,27.4376,0.214596,9.20456,-1.437,9.44938,-8.1615,1.73229,8.7636,0.047682,0.109861,-0.035983,0.154611,-2.03121,0.208718,0.253459,0.0152812,0.0093233,0.0196775,0.0479297,-0.0111899,0.00432523,0.00907342,0.00143227,0,0,0,0,0,0,0,-0.29797,-33.225,-0.312487,27.4271,0.984799,2.86095,0.0101778,
0.115135,-0.0359772,0.160063,-2.03803,0.215728,0.299511,0.0156575,0.0723894,0.00383523,0.0736695,-0.0687357,0.0171133,0.511549,0.00358723,1.65349,-0.717646,1.85197,0.85417,9.25849,17.8557,0.178957,9.01687,-1.26215,9.26083,-7.87034,1.50079,8.22654,0.045817,0.110155,-0.0353099,0.156961,-2.03116,0.208814,0.256776,0.0152823,0.0140304,0.0190733,0.0972727,0.00342833,0.0165359,0.189571,0.000242559,0.58839,-0.0755187,6.16787,1.82728,1.52633,22.5622,-0.148714,4.18903,-33.7962,4.21419,29.1449,1.28967,3.51006,0.0101778,
0.113606,-0.0356216,0.160448,-2.0363,0.214108,0.287329,0.0155892,0.0772912,0.00347723,0.0784931,-0.0774761,0.0406004,0.574444,0.00429964,3.06362,-0.223746,3.0148,-5.46274,14.6794,39.309,0.445255,11.3441,-1.81813,11.4229,-11.7481,2.41783,10.7241,0.0824191,0.110155,-0.0353099,0.156961,-2.03116,0.208814,0.256776,0.0152823,0.0140304,0.0190733,0.0972727,0.00342833,0.0165359,0.189571,0.000242559,0,0,0,0,0,0,0,4.18903,-33.7962,4.21419,29.1449,1.28967,3.51006,0.0101778,
0.114394,-0.0355957,0.161243,-2.03712,0.215114,0.293665,0.0156466,0.081518,0.00342912,0.0826589,-0.0824426,0.0576191,0.617975,0.00487314,2.64176,-0.0300728,2.60362,-3.10407,10.6367,27.2071,0.358436,11.0192,-1.49333,11.1009,-11.4441,2.16304,10.7241,0.0747313,0.110155,-0.0353099,0.156961,-2.03116,0.208814,0.256776,0.0152823,0.0140304,0.0190733,0.0972727,0.00342833,0.0165359,0.189571,0.000242559,0,0,0,0,0,0,0,4.18903,-33.7962,4.21419,29.1449,1.28967,3.51006,0.0101778,
