xiao-wang007/linearmpc_panda/paper_data/panda_inverse_dynamics_controller_Start_at_0_low_pass_acceleration/0/trajectory.csv
Commanded Joint 0 Position,Commanded Joint 1 Position,Commanded Joint 2 Position,Commanded Joint 3 Position,Commanded Joint 4 Position,Commanded Joint 5 Position,Commanded Joint 6 Position,Commanded Joint 0 Velocity,Commanded Joint 1 Velocity,Commanded Joint 2 Velocity,Commanded Joint 3 Velocity,Commanded Joint 4 Velocity,Commanded Joint 5 Velocity,Commanded Joint 6 Velocity,Commanded Joint 0 Acceleration,Commanded Joint 1 Acceleration,Commanded Joint 2 Acceleration,Commanded Joint 3 Acceleration,Commanded Joint 4 Acceleration,Commanded Joint 5 Acceleration,Commanded Joint 6 Acceleration,Commanded Joint 0 Torque,Commanded Joint 1 Torque,Commanded Joint 2 Torque,Commanded Joint 3 Torque,Commanded Joint 4 Torque,Commanded Joint 5 Torque,Commanded Joint 6 Torque,Actual Joint 0 Position,Actual Joint 1 Position,Actual Joint 2 Position,Actual Joint 3 Position,Actual Joint 4 Position,Actual Joint 5 Position,Actual Joint 6 Position,Actual Joint 0 Velocity,Actual Joint 1 Velocity,Actual Joint 2 Velocity,Actual Joint 3 Velocity,Actual Joint 4 Velocity,Actual Joint 5 Velocity,Actual Joint 6 Velocity,Actual Joint 0 Acceleration,Actual Joint 1 Acceleration,Actual Joint 2 Acceleration,Actual Joint 3 Acceleration,Actual Joint 4 Acceleration,Actual Joint 5 Acceleration,Actual Joint 6 Acceleration,Actual Joint 0 Torque,Actual Joint 1 Torque,Actual Joint 2 Torque,Actual Joint 3 Torque,Actual Joint 4 Torque,Actual Joint 5 Torque,Actual Joint 6 Torque,
0.00316384,-0.0653518,-0.0388487,-1.81107,-0.0254497,0.195431,-0.0226778,0.000300976,0.0199719,0.000228711,-0.0338453,-0.00324788,0.0529514,-0.000385116,0.18811,12.4824,0.142945,-21.1533,-2.02993,33.0946,-0.240698,0.0585604,22.2816,0.038351,-24.2392,-0.467095,2.01154,-0.0249825,0.00311924,-0.0660119,-0.0388834,-1.80796,-0.0252551,0.189778,-0.0226254,-0.000748638,0.00148281,-0.000663455,0.00030177,0.00259195,0.000727809,-0.000347357,0,0,0,0,0,0,0,0.134464,-32.9472,0.139784,26.9788,0.581051,2.97997,-0.0630644,
0.00311165,-0.0659926,-0.0388914,-1.80796,-0.0252394,0.189794,-0.0226252,0.000199526,0.0161038,0.000140001,-0.0271046,-0.00256456,0.0424691,-0.000306883,-0.0634061,-2.41755,-0.0554439,4.21292,0.427074,-6.55141,0.048896,0.0528238,22.7255,0.0280322,-24.1551,-0.46775,1.76129,-0.0234696,0.00311924,-0.0660119,-0.0388834,-1.80796,-0.0252551,0.189778,-0.0226254,-0.000748638,0.00148281,-0.000663455,0.00030177,0.00259195,0.000727809,-0.000347357,0,0,0,0,0,0,0,0.134464,-32.9472,0.139784,26.9788,0.581051,2.97997,-0.0630644,
0.00311047,-0.0659884,-0.0388926,-1.80796,-0.0252395,0.189798,-0.0226251,0.000130021,0.0129903,8.14409e-05,-0.0217068,-0.00205345,0.034068,-0.000245046,-0.0434406,-1.94596,-0.0366002,3.37364,0.319445,-5.25072,0.0386481,0.0455983,23.2971,0.0162779,-24.0471,-0.46761,1.41359,-0.0215014,0.00311924,-0.0660119,-0.0388834,-1.80796,-0.0252551,0.189778,-0.0226254,-0.000748638,0.00148281,-0.000663455,0.00030177,0.00259195,0.000727809,-0.000347357,0,0,0,0,0,0,0,0.134464,-32.9472,0.139784,26.9788,0.581051,2.97997,-0.0630644,
0.00310959,-0.0659846,-0.0388935,-1.80797,-0.0252402,0.189802,-0.0226251,8.21433e-05,0.0104858,4.27621e-05,-0.0173836,-0.00165992,0.0273396,-0.000196006,-0.0299237,-1.56533,-0.0241743,2.70202,0.245955,-4.20526,0.0306497,0.0396419,23.8211,0.00683106,-23.8793,-0.465961,1.02828,-0.0195007,0.00311924,-0.0660119,-0.0388834,-1.80796,-0.0252551,0.189778,-0.0226254,-0.000748638,0.00148281,-0.000663455,0.00030177,0.00259195,0.000727809,-0.000347357,0,0,0,0,0,0,0,0.134464,-32.9472,0.139784,26.9788,0.581051,2.97997,-0.0630644,
0.00299466,-0.0659857,-0.0389974,-1.80789,-0.0228353,0.188799,-0.022644,-0.00162243,0.00862212,-0.00157645,-0.0130722,0.0356707,0.00672801,-0.000323565,-1.06536,-1.16478,-1.01201,2.69461,23.3316,-12.8822,-0.0797243,0.509716,0.144875,0.510962,-0.243079,3.13854,-1.44361,-0.00108,0.00311924,-0.0660119,-0.0388834,-1.80796,-0.0252551,0.189778,-0.0226254,-0.000748638,0.00148281,-0.000663455,0.00030177,0.00259195,0.000727809,-0.000347357,0,0,0,0,0,0,0,0.134464,-32.9472,0.139784,26.9788,0.581051,2.97997,-0.0630644,
0.00293242,-0.0659827,-0.0390589,-1.80787,-0.0210358,0.18804,-0.0226474,-0.00285416,0.0069741,-0.00279841,-0.00985483,0.0735247,-0.0135878,-0.000343272,-0.769835,-1.03002,-0.763725,2.01087,23.6587,-12.6974,-0.012317,0.504058,0.167457,0.50535,-0.2347,3.1117,-1.42472,-0.00109585,0.00310622,-0.0653378,-0.0388895,-1.80832,-0.0252416,0.190006,-0.0226307,-0.00200388,0.0672824,-0.000717665,-0.0237372,0.00276296,0.0295663,-0.00171399,-0.156905,8.22495,-0.00677629,-3.00487,0.0213757,3.60482,-0.17083,0.360599,-23.9653,0.286573,17.8104,0.459286,1.41533,-0.0026396,
0.00288196,-0.0659831,-0.0391097,-1.80785,-0.0190463,0.187179,-0.022649,-0.00354469,0.00556834,-0.00350873,-0.00750309,0.108558,-0.0324041,-0.000315112,-0.431577,-0.8786,-0.443948,1.46984,21.896,-11.7602,0.0176001,0.498271,0.167541,0.499445,-0.231987,3.08421,-1.41156,-0.00108231,0.00310622,-0.0653378,-0.0388895,-1.80832,-0.0252416,0.190006,-0.0226307,-0.00200388,0.0672824,-0.000717665,-0.0237372,0.00276296,0.0295663,-0.00171399,0,0,0,0,0,0,0,0.360599,-23.9653,0.286573,17.8104,0.459286,1.41533,-0.0026396,
0.00284516,-0.0659849,-0.0391473,-1.80784,-0.016944,0.186249,-0.0226498,-0.0037559,0.00441152,-0.00374685,-0.00580682,0.139403,-0.0491617,-0.000270307,-0.132006,-0.723013,-0.148825,1.06017,19.2781,-10.4735,0.0280029,0.492677,0.167289,0.493755,-0.229319,3.05648,-1.3985,-0.00106578,0.00310622,-0.0653378,-0.0388895,-1.80832,-0.0252416,0.190006,-0.0226307,-0.00200388,0.0672824,-0.000717665,-0.0237372,0.00276296,0.0295663,-0.00171399,0,0,0,0,0,0,0,0.360599,-23.9653,0.286573,17.8104,0.459286,1.41533,-0.0026396,
0.00281773,-0.0645818,-0.0391371,-1.80827,-0.0170027,0.184965,-0.0226873,-0.00671886,0.0114189,-0.0063537,-0.00393925,0.238404,-0.1181,-0.000699137,-1.85185,4.37963,-1.62928,1.16723,61.8758,-43.0863,-0.268019,4.26881,1.1099,4.33818,-1.75373,11.0825,-7.45129,0.000429631,0.00310622,-0.0653378,-0.0388895,-1.80832,-0.0252416,0.190006,-0.0226307,-0.00200388,0.0672824,-0.000717665,-0.0237372,0.00276296,0.0295663,-0.00171399,0,0,0,0,0,0,0,0.360599,-23.9653,0.286573,17.8104,0.459286,1.41533,-0.0026396,
0.00270368,-0.0643576,-0.0392434,-1.80828,-0.010746,0.181016,-0.0226957,-0.0082264,0.0147391,-0.00773899,-0.00331348,0.347142,-0.193202,-0.000770155,-0.942213,2.07511,-0.865805,0.391106,67.9607,-46.9387,-0.0443858,4.1372,1.12256,4.2169,-1.72177,11.0824,-7.31937,0.000710154,0.00314444,-0.0648081,-0.0388594,-1.8093,-0.0251969,0.190345,-0.0226247,-0.000156134,0.026206,-0.00149584,-0.0304956,0.0109875,-0.0126264,-0.000190389,0.230968,-5.13455,-0.0972717,-0.844798,1.02807,-5.27409,0.190451,-0.0440639,-34.0462,0.0644055,25.5585,0.581051,2.75475,-0.0566557,
0.00263969,-0.0641919,-0.0393026,-1.80832,-0.00374306,0.176559,-0.0226986,-0.0081809,0.0159325,-0.00767171,-0.00369382,0.452787,-0.266004,-0.000688378,0.0284323,0.745888,0.0420505,-0.237711,66.0286,-45.5014,0.0511105,4.00863,1.10802,4.09164,-1.6931,11.0824,-7.18723,0.000385735,0.00314444,-0.0648081,-0.0388594,-1.8093,-0.0251969,0.190345,-0.0226247,-0.000156134,0.026206,-0.00149584,-0.0304956,0.0109875,-0.0126264,-0.000190389,0,0,0,0,0,0,0,-0.0440639,-34.0462,0.0644055,25.5585,0.581051,2.75475,-0.0566557,
0.00262786,-0.0640612,-0.0393109,-1.80839,0.00374289,0.171785,-0.0226989,-0.00684048,0.0160135,-0.00634575,-0.00473122,0.549379,-0.332134,-0.000559778,0.837767,0.0506024,0.828725,-0.648376,60.3696,-41.3309,0.0803749,3.88813,1.08652,3.97101,-1.66632,11.0824,-7.061,-0.000215167,0.00314444,-0.0648081,-0.0388594,-1.8093,-0.0251969,0.190345,-0.0226247,-0.000156134,0.026206,-0.00149584,-0.0304956,0.0109875,-0.0126264,-0.000190389,0,0,0,0,0,0,0,-0.0440639,-34.0462,0.0644055,25.5585,0.581051,2.75475,-0.0566557,
0.00415628,-0.0645061,-0.0377551,-1.80939,-0.0189921,0.180562,-0.0224238,0.0108067,0.0159112,0.0125962,-0.00520652,0.537516,-0.416854,0.0019588,11.0295,-0.0639344,11.8387,-0.29706,-7.41445,-52.9503,1.57411,27.6215,3.83868,28.4555,-10.4744,11.0824,-14.2037,0.127315,0.00314444,-0.0648081,-0.0388594,-1.8093,-0.0251969,0.190345,-0.0226247,-0.000156134,0.026206,-0.00149584,-0.0304956,0.0109875,-0.0126264,-0.000190389,0,0,0,0,0,0,0,-0.0440639,-34.0462,0.0644055,25.5585,0.581051,2.75475,-0.0566557,
0.00503974,-0.064443,-0.0368122,-1.80954,-0.0138616,0.172988,-0.0222996,0.030732,0.0143064,0.0336495,-0.00800276,0.558276,-0.52284,0.00467226,12.4533,-1.00296,13.1583,-1.74765,12.9752,-66.241,1.69591,25.9533,3.99385,26.9407,-8.98298,11.0698,-14.1889,0.11076,0.00319066,-0.0640454,-0.0385237,-1.81032,-0.0223716,0.188846,-0.0226142,0.00692986,0.0358753,0.0211815,-0.0610429,0.228552,-0.130076,0.00340328,0.88575,1.20866,2.83466,-3.81841,27.1955,-14.6812,0.449209,2.97107,-31.6499,3.08748,24.5627,1.77856,1.80627,-0.110672,
0.00610497,-0.0645053,-0.0357023,-1.80989,-0.00781877,0.16443,-0.0220928,0.0512162,0.00988616,0.0546672,-0.0151722,0.59769,-0.632211,0.00890887,12.8026,-2.76268,13.1361,-4.4809,24.634,-68.3568,2.64788,24.7786,2.72085,25.747,-8.1756,11.0698,-14.1889,0.147313,0.00319066,-0.0640454,-0.0385237,-1.81032,-0.0223716,0.188846,-0.0226142,0.00692986,0.0358753,0.0211815,-0.0610429,0.228552,-0.130076,0.00340328,0,0,0,0,0,0,0,2.97107,-31.6499,3.08748,24.5627,1.77856,1.80627,-0.110672,
0.00503674,-0.0636891,-0.0366651,-1.81155,-0.0150898,0.178477,-0.0223352,0.0690532,0.0118437,0.0722207,-0.0290592,0.584028,-0.661349,0.0100979,11.1481,1.22343,10.9709,-8.67936,-8.53923,-18.2116,0.743124,37.944,6.43981,38.5327,-18.9842,11.0698,-14.1889,0.165261,0.00319066,-0.0640454,-0.0385237,-1.81032,-0.0223716,0.188846,-0.0226142,0.00692986,0.0358753,0.0211815,-0.0610429,0.228552,-0.130076,0.00340328,0,0,0,0,0,0,0,2.97107,-31.6499,3.08748,24.5627,1.77856,1.80627,-0.110672,
0.00642838,-0.0635952,-0.035234,-1.81242,-0.00981968,0.170878,-0.0221735,0.0900335,0.0118229,0.0935535,-0.0447588,0.598975,-0.719043,0.0121225,13.1127,-0.0129641,13.333,-9.81225,9.34239,-36.0586,1.26537,34.8505,6.16975,35.4835,-17.7871,11.0698,-14.1889,0.121042,0.00319066,-0.0640454,-0.0385237,-1.81032,-0.0223716,0.188846,-0.0226142,0.00692986,0.0358753,0.0211815,-0.0610429,0.228552,-0.130076,0.00340328,0,0,0,0,0,0,0,2.97107,-31.6499,3.08748,24.5627,1.77856,1.80627,-0.110672,
0.00797722,-0.0635964,-0.033633,-1.81351,-0.00364607,0.162373,-0.0220416,0.110748,0.00942767,0.114869,-0.0631229,0.633521,-0.787877,0.012995,12.9465,-1.49703,13.322,-11.4776,21.5907,-43.0212,0.545338,32.3478,4.39237,33.1309,-17.9474,10.9888,-14.0867,0.188909,0.00412717,-0.064031,-0.0360367,-1.81313,-0.00266058,0.17494,-0.0226161,0.0683837,-0.0348318,0.142576,-0.130975,0.725617,-0.594708,0.00740616,7.68173,-8.83838,15.1743,-8.74152,62.1332,-58.079,0.50036,17.9357,-30.9755,18.0124,24.1898,4.88678,-0.308603,-0.0905302,
0.00960843,-0.0636158,-0.0319616,-1.81471,0.00328082,0.15317,-0.0219906,0.129379,0.00705641,0.133681,-0.0806496,0.679989,-0.860357,0.0116707,11.6442,-1.48204,11.7575,-10.9542,29.0425,-45.3003,-0.827663,29.1237,1.89133,29.9299,-19.1667,10.9888,-14.0867,0.157291,0.00412717,-0.064031,-0.0360367,-1.81313,-0.00266058,0.17494,-0.0226161,0.0683837,-0.0348318,0.142576,-0.130975,0.725617,-0.594708,0.00740616,0,0,0,0,0,0,0,17.9357,-30.9755,18.0124,24.1898,4.88678,-0.308603,-0.0905302,
0.00735221,-0.0644077,-0.0327427,-1.81577,0.00917083,0.160726,-0.0223526,0.148259,0.00151408,0.15262,-0.0998306,0.696943,-0.880931,0.0124323,11.8,-3.46396,11.8368,-11.9881,10.5965,-12.8587,0.47596,42.2665,6.39801,43.2822,-26.8278,10.9888,-14.0867,0.119936,0.00412717,-0.064031,-0.0360367,-1.81313,-0.00266058,0.17494,-0.0226161,0.0683837,-0.0348318,0.142576,-0.130975,0.725617,-0.594708,0.00740616,0,0,0,0,0,0,0,17.9357,-30.9755,18.0124,24.1898,4.88678,-0.308603,-0.0905302,
0.00932522,-0.0645722,-0.0307257,-1.81739,0.0158725,0.152209,-0.0222851,0.167932,-0.00290139,0.172522,-0.120596,0.725096,-0.917669,0.0116337,12.2959,-2.75967,12.439,-12.9783,17.5957,-22.9611,-0.499132,38.3181,4.91187,39.1787,-26.4393,10.9888,-14.0867,0.123589,0.00412717,-0.064031,-0.0360367,-1.81313,-0.00266058,0.17494,-0.0226161,0.0683837,-0.0348318,0.142576,-0.130975,0.725617,-0.594708,0.00740616,0,0,0,0,0,0,0,17.9357,-30.9755,18.0124,24.1898,4.88678,-0.308603,-0.0905302,
0.011367,-0.064693,-0.0286318,-1.81914,0.0231608,0.143059,-0.0223099,0.185391,-0.00534194,0.190364,-0.140038,0.762285,-0.9629,0.00868701,10.912,-1.52534,11.151,-12.1511,23.243,-28.2693,-1.84166,34.3914,3.10904,35.1524,-26.9723,11.0274,-13.7663,0.0690582,0.0087558,-0.0646173,-0.0274313,-1.81965,0.0223394,0.147617,-0.0226202,0.203546,-0.0455344,0.364175,-0.261939,0.807139,-0.932594,-0.000671876,16.8952,-1.33782,27.6999,-16.3705,10.1903,-42.2357,-1.00975,23.236,-27.5597,23.3603,21.123,4.70367,-0.719675,-0.0969389,
0.0134243,-0.0647479,-0.0265238,-1.82093,0.0309346,0.133425,-0.0223847,0.199744,-0.00564502,0.204991,-0.156803,0.804172,-1.01116,0.00507713,8.97031,-0.189421,9.14223,-10.4784,26.1797,-30.1643,-2.25617,30.6185,2.85186,31.3431,-26.6161,11.0274,-13.7663,-0.0378515,0.0087558,-0.0646173,-0.0274313,-1.81965,0.0223394,0.147617,-0.0226202,0.203546,-0.0455344,0.364175,-0.261939,0.807139,-0.932594,-0.000671876,0,0,0,0,0,0,0,23.236,-27.5597,23.3603,21.123,4.70367,-0.719675,-0.0969389,
0.013622,-0.0647258,-0.0224342,-1.82325,0.0367253,0.129613,-0.0224576,0.221216,-0.00529826,0.226894,-0.171334,0.830268,-1.04121,0.00547537,13.42,0.216725,13.6895,-9.08157,16.3099,-18.7825,0.248895,38.502,5.22342,39.3844,-26.3217,11.0274,-13.7663,0.123196,0.0087558,-0.0646173,-0.0274313,-1.81965,0.0223394,0.147617,-0.0226202,0.203546,-0.0455344,0.364175,-0.261939,0.807139,-0.932594,-0.000671876,0,0,0,0,0,0,0,23.236,-27.5597,23.3603,21.123,4.70367,-0.719675,-0.0969389,
0.0160409,-0.0647152,-0.0199516,-1.82514,0.0447113,0.119907,-0.0224904,0.237445,-0.00397341,0.243579,-0.184347,0.863864,-1.07562,0.00355962,10.1434,0.828028,10.4278,-8.13347,20.9977,-21.5031,-1.19734,34.3914,3.10904,35.1524,-26.9723,11.0274,-13.7663,0.0690582,0.0087558,-0.0646173,-0.0274313,-1.81965,0.0223394,0.147617,-0.0226202,0.203546,-0.0455344,0.364175,-0.261939,0.807139,-0.932594,-0.000671876,0,0,0,0,0,0,0,23.236,-27.5597,23.3603,21.123,4.70367,-0.719675,-0.0969389,
0.0183942,-0.0646527,-0.0175384,-1.82705,0.0530805,0.109885,-0.0225714,0.248788,-0.00161815,0.255194,-0.195114,0.900323,-1.11105,0.000822709,7.0894,1.47204,7.25986,-6.72907,22.7865,-22.1419,-1.71057,30.7935,2.97341,31.5517,-26.4592,11.0559,-13.4557,-0.038912,0.0166505,-0.0655868,-0.0139004,-1.83043,0.0479718,0.112134,-0.0226209,0.266388,-0.0300646,0.463555,-0.34574,0.756029,-1.11406,0.000316316,7.8553,1.93372,12.4225,-10.4751,-6.38879,-22.6835,0.123524,13.0638,-28.4325,12.5614,17.1637,3.47595,-1.48231,-0.0905302,
0.0221,-0.0653498,-0.00827942,-1.83473,0.0628552,0.0920319,-0.0226188,0.265602,0.00268171,0.272636,-0.208453,0.916137,-1.14436,-0.000373532,10.5083,2.68741,10.9008,-8.3371,9.88368,-20.8193,-0.74765,34.5664,3.23059,35.3609,-26.8155,11.0559,-13.4557,0.0679978,0.0166505,-0.0655868,-0.0139004,-1.83043,0.0479718,0.112134,-0.0226209,0.266388,-0.0300646,0.463555,-0.34574,0.756029,-1.11406,0.000316316,0,0,0,0,0,0,0,13.0638,-28.4325,12.5614,17.1637,3.47595,-1.48231,-0.0905302,
0.0246322,-0.0651499,-0.00567805,-1.83678,0.0712124,0.0816266,-0.0227056,0.275786,0.00714372,0.283143,-0.217952,0.941839,-1.17562,-0.00246983,6.36512,2.78876,6.56704,-5.93687,16.0642,-19.5375,-1.31018,30.7935,2.97341,31.5517,-26.4592,11.0559,-13.4557,-0.038912,0.0166505,-0.0655868,-0.0139004,-1.83043,0.0479718,0.112134,-0.0226209,0.266388,-0.0300646,0.463555,-0.34574,0.756029,-1.11406,0.000316316,0,0,0,0,0,0,0,13.0638,-28.4325,12.5614,17.1637,3.47595,-1.48231,-0.0905302,
0.0270432,-0.0649342,-0.00320054,-1.83883,0.079892,0.0713254,-0.0228054,0.280903,0.0111069,0.288452,-0.225584,0.970461,-1.19802,-0.00447077,3.19805,2.47698,3.31812,-4.77015,17.8888,-14.0044,-1.25059,28.2758,3.11284,28.9484,-25.7631,11.0559,-13.4557,-0.0953196,0.0166505,-0.0655868,-0.0139004,-1.83043,0.0479718,0.112134,-0.0226209,0.266388,-0.0300646,0.463555,-0.34574,0.756029,-1.11406,0.000316316,0,0,0,0,0,0,0,13.0638,-28.4325,12.5614,17.1637,3.47595,-1.48231,-0.0905302,
0.0293475,-0.064725,-0.000831815,-1.84094,0.0887576,0.0616551,-0.0229048,0.282331,0.0141149,0.28998,-0.233296,0.998009,-1.20018,-0.00606069,0.892703,1.88001,0.954861,-4.81959,17.2173,-1.3459,-0.993698,26.5264,2.97958,27.1813,-25.1643,11.0559,-12.6775,-0.112591,0.0166505,-0.0655868,-0.0139004,-1.83043,0.0479718,0.112134,-0.0226209,0.266388,-0.0300646,0.463555,-0.34574,0.756029,-1.11406,0.000316316,0,0,0,0,0,0,0,13.0638,-28.4325,12.5614,17.1637,3.47595,-1.48231,-0.0905302,
0.033329,-0.0651632,0.0104825,-1.84788,0.0882932,0.0536528,-0.0227867,0.299696,0.0210022,0.308058,-0.242204,1.00594,-1.22145,-0.00739208,10.8533,4.30455,11.2986,-5.56797,4.95435,-13.2941,-0.832118,30.95,3.03498,31.7509,-26.1767,11.0888,-13.0869,-0.0408801,0.0271402,-0.0658907,0.00407721,-1.84323,0.0725969,0.0742337,-0.0226247,0.34233,0.00362595,0.5719,-0.396816,0.74652,-1.13536,0.00143647,9.49273,4.21132,13.5431,-6.38443,-1.18862,-2.66253,0.140019,4.01447,-27.7342,4.16261,16.763,2.1997,-0.905527,-0.0566557,
0.0360494,-0.0647908,0.0132839,-1.85005,0.0970991,0.043292,-0.022897,0.307767,0.0261109,0.316481,-0.247901,1.0249,-1.23618,-0.00867077,5.04392,3.19298,5.26475,-3.56032,11.8498,-9.20588,-0.799183,28.4322,3.17441,29.1477,-25.4806,11.0888,-13.0869,-0.0972877,0.0271402,-0.0658907,0.00407721,-1.84323,0.0725969,0.0742337,-0.0226247,0.34233,0.00362595,0.5719,-0.396816,0.74652,-1.13536,0.00143647,0,0,0,0,0,0,0,4.01447,-27.7342,4.16261,16.763,2.1997,-0.905527,-0.0566557,
0.0385853,-0.0644602,0.0158949,-1.85224,0.106159,0.0335781,-0.0230038,0.309611,0.0291561,0.31846,-0.253251,1.04641,-1.23179,-0.00960709,1.15282,1.90321,1.23696,-3.34388,13.4474,2.74267,-0.5852,26.6829,3.04115,27.3805,-24.8818,11.0888,-12.3086,-0.114559,0.0271402,-0.0658907,0.00407721,-1.84323,0.0725969,0.0742337,-0.0226247,0.34233,0.00362595,0.5719,-0.396816,0.74652,-1.13536,0.00143647,0,0,0,0,0,0,0,4.01447,-27.7342,4.16261,16.763,2.1997,-0.905527,-0.0566557,
0.0331998,-0.0651457,0.0103523,-1.84784,0.0884751,0.0537978,-0.0228508,0.319643,0.0331139,0.328975,-0.25806,1.04701,-1.24224,-0.0106358,6.2699,2.47365,6.5717,-3.00551,0.372682,-6.52948,-0.642964,28.4322,3.17441,29.1477,-25.4806,11.0888,-13.0869,-0.0972877,0.0271402,-0.0658907,0.00407721,-1.84323,0.0725969,0.0742337,-0.0226247,0.34233,0.00362595,0.5719,-0.396816,0.74652,-1.13536,0.00143647,0,0,0,0,0,0,0,4.01447,-27.7342,4.16261,16.763,2.1997,-0.905527,-0.0566557,
0.0358418,-0.0647879,0.0130747,-1.85006,0.0973553,0.0441051,-0.0229625,0.321764,0.0354368,0.33124,-0.261995,1.05961,-1.23611,-0.011303,1.32592,1.45177,1.41558,-2.45947,7.87746,3.83073,-0.417001,26.7708,3.07553,27.5141,-24.6751,11.0849,-11.9483,-0.116056,0.0384157,-0.0651336,0.0241954,-1.85794,0.0974932,0.0335073,-0.0226206,0.355781,0.0444986,0.644868,-0.433402,0.812352,-1.24117,0.000771188,1.68142,5.10908,9.12108,-4.57324,8.22892,-13.2261,-0.0831604,6.67652,-31.1025,5.7892,22.1188,1.94336,0.858694,-0.083206,
0.0383009,-0.0644708,0.0156075,-1.85231,0.106457,0.0352903,-0.0230653,0.318889,0.0362747,0.328314,-0.265732,1.07523,-1.20926,-0.0116112,-1.7973,0.523721,-1.82894,-2.33563,9.75887,16.7823,-0.192573,25.426,2.66159,26.1577,-24.2503,11.0849,-9.87873,-0.117971,0.0384157,-0.0651336,0.0241954,-1.85794,0.0974932,0.0335073,-0.0226206,0.355781,0.0444986,0.644868,-0.433402,0.812352,-1.24117,0.000771188,0,0,0,0,0,0,0,6.67652,-31.1025,5.7892,22.1188,1.94336,0.858694,-0.083206,
0.0406133,-0.0641916,0.0179891,-1.85457,0.115627,0.027481,-0.0231587,0.31292,0.0360002,0.32219,-0.268968,1.08943,-1.16264,-0.0116244,-3.73029,-0.171574,-3.82737,-2.02232,8.88026,29.1369,-0.00825981,24.3195,2.15669,25.0361,-23.9263,11.0849,-8.03688,-0.11325,0.0384157,-0.0651336,0.0241954,-1.85794,0.0974932,0.0335073,-0.0226206,0.355781,0.0444986,0.644868,-0.433402,0.812352,-1.24117,0.000771188,0,0,0,0,0,0,0,6.67652,-31.1025,5.7892,22.1188,1.94336,0.858694,-0.083206,
0.0448566,-0.0639325,0.0308797,-1.86304,0.1142,0.0128845,-0.0228717,0.326171,0.0434067,0.336072,-0.276633,1.09078,-1.18107,-0.0124005,8.2816,4.62905,8.67613,-4.79086,0.840867,-11.5179,-0.485074,26.7708,3.07553,27.5141,-24.6751,11.0849,-11.9483,-0.116056,0.0384157,-0.0651336,0.0241954,-1.85794,0.0974932,0.0335073,-0.0226206,0.355781,0.0444986,0.644868,-0.433402,0.812352,-1.24117,0.000771188,0,0,0,0,0,0,0,6.67652,-31.1025,5.7892,22.1188,1.94336,0.858694,-0.083206,
0.0476025,-0.0634285,0.0337127,-1.86545,0.123362,0.00379163,-0.0229835,0.329582,0.0473234,0.339683,-0.281487,1.10166,-1.17217,-0.0127171,2.13223,2.44795,2.25722,-3.03368,6.80087,5.5573,-0.197869,25.2389,1.9429,26.0127,-24.0377,10.8294,-9.76822,-0.119141,0.0484933,-0.0636535,0.0433586,-1.87158,0.122503,-0.00694331,-0.0226071,0.252754,0.0688789,0.540686,-0.373358,0.732538,-1.09967,0.00406843,-12.8784,3.04754,-13.0228,7.50548,-9.97666,17.6871,0.412156,-0.198788,-36.7915,-1.63756,31.7871,0.373226,3.3178,-0.0767973,
0.0501282,-0.0630043,0.0363177,-1.86782,0.13266,-0.00421715,-0.0230837,0.326809,0.0484641,0.33687,-0.284515,1.11379,-1.13796,-0.0126767,-1.73357,0.71293,-1.7584,-1.89239,7.58302,21.3846,0.0252517,24.1323,1.438,24.8911,-23.7137,10.8294,-7.92637,-0.11442,0.0484933,-0.0636535,0.0433586,-1.87158,0.122503,-0.00694331,-0.0226071,0.252754,0.0688789,0.540686,-0.373358,0.732538,-1.09967,0.00406843,0,0,0,0,0,0,0,-0.198788,-36.7915,-1.63756,31.7871,0.373226,3.3178,-0.0767973,
0.05248,-0.0626511,0.038743,-1.87016,0.141958,-0.0111081,-0.0231723,0.320242,0.047603,0.330129,-0.285961,1.12347,-1.08264,-0.0123577,-4.10402,-0.538201,-4.21279,-0.904045,6.04469,34.5744,0.199369,23.1837,0.955863,23.9265,-23.4313,10.8294,-6.30275,-0.106695,0.0484933,-0.0636535,0.0433586,-1.87158,0.122503,-0.00694331,-0.0226071,0.252754,0.0688789,0.540686,-0.373358,0.732538,-1.09967,0.00406843,0,0,0,0,0,0,0,-0.198788,-36.7915,-1.63756,31.7871,0.373226,3.3178,-0.0767973,
0.0537856,-0.0624968,0.0488688,-1.87649,0.137568,-0.0242984,-0.0228296,0.319349,0.0515052,0.329478,-0.288703,1.09696,-1.07543,-0.0126237,-0.558548,2.43891,-0.406841,-1.71336,-16.5628,4.50384,-0.166256,25.2389,1.9429,26.0127,-24.0377,10.8294,-9.76822,-0.119141,0.0484933,-0.0636535,0.0433586,-1.87158,0.122503,-0.00694331,-0.0226071,0.252754,0.0688789,0.540686,-0.373358,0.732538,-1.09967,0.00406843,0,0,0,0,0,0,0,-0.198788,-36.7915,-1.63756,31.7871,0.373226,3.3178,-0.0767973,
0.0561252,-0.0620559,0.0512883,-1.87884,0.145926,-0.0317769,-0.0229278,0.313968,0.0522259,0.32407,-0.289721,1.08652,-1.04731,-0.0125554,-3.36295,0.450416,-3.38043,-0.636198,-6.52934,17.5786,0.042681,23.9748,1.17227,24.7658,-23.5445,10.585,-7.65031,-0.115852,0.0567128,-0.0613016,0.059184,-1.88321,0.155471,-0.0434235,-0.0226025,0.238163,0.134069,0.479914,-0.289834,1.17354,-0.997199,0.00334057,-1.82392,8.14881,-7.5965,10.4404,55.1254,12.8093,-0.0909825,0.94379,-33.1496,-0.435472,29.1449,0.898739,2.95983,-0.117081,
0.0583217,-0.0617001,0.0535588,-1.88115,0.154497,-0.0382564,-0.0230148,0.306087,0.0506765,0.316019,-0.289512,1.08349,-0.999834,-0.0122186,-4.92543,-0.968372,-5.03152,0.1303,-1.88975,29.6713,0.210526,23.0261,0.69013,23.8012,-23.2621,10.585,-6.02669,-0.108127,0.0567128,-0.0613016,0.059184,-1.88321,0.155471,-0.0434235,-0.0226025,0.238163,0.134069,0.479914,-0.289834,1.17354,-0.997199,0.00334057,0,0,0,0,0,0,0,0.94379,-33.1496,-0.435472,29.1449,0.898739,2.95983,-0.117081,
0.0604038,-0.0614158,0.0557108,-1.88341,0.163156,-0.0437219,-0.0230912,0.296922,0.0476489,0.306615,-0.28817,1.08326,-0.936506,-0.0116855,-5.72837,-1.89226,-5.87772,0.838548,-0.144309,39.5798,0.333139,22.1926,0.283766,22.9493,-22.9925,10.585,-4.58367,-0.0980679,0.0567128,-0.0613016,0.059184,-1.88321,0.155471,-0.0434235,-0.0226025,0.238163,0.134069,0.479914,-0.289834,1.17354,-0.997199,0.00334057,0,0,0,0,0,0,0,0.94379,-33.1496,-0.435472,29.1449,0.898739,2.95983,-0.117081,
0.0617351,-0.0599182,0.0643955,-1.88789,0.174117,-0.0577965,-0.0228077,0.298175,0.0529197,0.30793,-0.28871,1.09878,-0.920171,-0.0118616,0.783315,3.29429,0.821721,-0.337142,9.69548,10.2093,-0.110014,23.9748,1.17227,24.7658,-23.5445,10.585,-7.65031,-0.115852,0.0567128,-0.0613016,0.059184,-1.88321,0.155471,-0.0434235,-0.0226025,0.238163,0.134069,0.479914,-0.289834,1.17354,-0.997199,0.00334057,0,0,0,0,0,0,0,0.94379,-33.1496,-0.435472,29.1449,0.898739,2.95983,-0.117081,
0.0640126,-0.0594731,0.0667481,-1.89018,0.18329,-0.0637907,-0.0228972,0.295477,0.053461,0.305157,-0.288216,1.10833,-0.885991,-0.0117288,-1.68613,0.338298,-1.73263,0.308697,5.96867,21.3625,0.0829973,22.9137,0.0316782,23.7126,-23.0634,10.2916,-6.01503,-0.109263,0.0625524,-0.0588006,0.0722713,-1.89241,0.191259,-0.0717287,-0.0226063,0.139657,0.120862,0.303763,-0.269604,0.984269,-0.707063,8.6151e-05,-12.3133,-1.65088,-22.0189,2.52884,-23.6591,36.267,-0.406803,-12.902,-34.2207,-13.2101,35.199,-1.23902,4.87603,-0.050247,
0.0661667,-0.0591396,0.0689737,-1.89242,0.192333,-0.0688805,-0.0229761,0.290233,0.0511081,0.299766,-0.286627,1.11275,-0.836038,-0.0113555,-3.27754,-1.47057,-3.3698,0.992776,2.76771,31.2208,0.233263,22.0802,-0.374686,22.8608,-22.7938,10.2916,-4.57201,-0.099204,0.0625524,-0.0588006,0.0722713,-1.89241,0.191259,-0.0717287,-0.0226063,0.139657,0.120862,0.303763,-0.269604,0.984269,-0.707063,8.6151e-05,0,0,0,0,0,0,0,-12.902,-34.2207,-13.2101,35.199,-1.23902,4.87603,-0.050247,
0.0660754,-0.0576183,0.075943,-1.89681,0.207075,-0.0820624,-0.022768,0.276336,0.0532597,0.285616,-0.284226,1.08848,-0.7918,-0.0110597,-8.68575,1.34474,-8.84387,1.50102,-15.1701,27.6488,0.184904,22.9137,0.0316782,23.7126,-23.0634,10.2916,-6.01503,-0.109263,0.0625524,-0.0588006,0.0722713,-1.89241,0.191259,-0.0717287,-0.0226063,0.139657,0.120862,0.303763,-0.269604,0.984269,-0.707063,8.6151e-05,0,0,0,0,0,0,0,-12.902,-34.2207,-13.2101,35.199,-1.23902,4.87603,-0.050247,
0.0678319,-0.0572611,0.0777644,-1.89898,0.215051,-0.0863327,-0.0228388,0.26498,0.0515391,0.274027,-0.281622,1.07019,-0.740197,-0.0106169,-7.09757,-1.07534,-7.24274,1.62716,-11.4329,32.2519,0.276756,22.0802,-0.374686,22.8608,-22.7938,10.2916,-4.57201,-0.099204,0.0625524,-0.0588006,0.0722713,-1.89241,0.191259,-0.0717287,-0.0226063,0.139657,0.120862,0.303763,-0.269604,0.984269,-0.707063,8.6151e-05,0,0,0,0,0,0,0,-12.902,-34.2207,-13.2101,35.199,-1.23902,4.87603,-0.050247,
0.0695705,-0.0570052,0.0795669,-1.90111,0.223065,-0.0898808,-0.0229006,0.25545,0.0476276,0.264284,-0.278562,1.0565,-0.680862,-0.0100384,-5.95597,-2.44468,-6.08975,1.91272,-8.55792,37.0846,0.361569,21.3093,-1.00765,22.09,-22.2462,10.1239,-3.15805,-0.0901196,0.0675923,-0.056851,0.0833455,-1.90077,0.225729,-0.0906517,-0.0226078,0.151111,0.116911,0.305811,-0.228458,0.969257,-0.363356,-0.000310981,1.43179,-0.493922,0.255997,5.14319,-1.87643,42.9633,-0.0496415,-8.41504,-34.1731,-8.58428,37.3651,1.25946,4.74419,-0.0365141,
0.0712851,-0.0568252,0.0813442,-1.9032,0.231107,-0.0926932,-0.0229535,0.247224,0.0426025,0.255859,-0.274939,1.04625,-0.614999,-0.00935476,-5.14124,-3.14073,-5.26545,2.26468,-6.40699,41.1642,0.427264,20.6304,-1.23326,21.3919,-21.9666,10.1239,-2.05237,-0.0782703,0.0675923,-0.056851,0.0833455,-1.90077,0.225729,-0.0906517,-0.0226078,0.151111,0.116911,0.305811,-0.228458,0.969257,-0.363356,-0.000310981,0,0,0,0,0,0,0,-8.41504,-34.1731,-8.58428,37.3651,1.25946,4.74419,-0.0365141,
0.0711055,-0.0558592,0.0870113,-1.90479,0.241468,-0.0965858,-0.0227638,0.241499,0.0439316,0.2501,-0.27061,1.03449,-0.564417,-0.00934835,-3.57829,0.830724,-3.59906,2.70517,-7.34785,31.6134,0.00400763,22.056,-0.692183,22.8549,-22.5192,10.1239,-4.41702,-0.100968,0.0675923,-0.056851,0.0833455,-1.90077,0.225729,-0.0906517,-0.0226078,0.151111,0.116911,0.305811,-0.228458,0.969257,-0.363356,-0.000310981,0,0,0,0,0,0,0,-8.41504,-34.1731,-8.58428,37.3651,1.25946,4.74419,-0.0365141,
0.0728313,-0.0556004,0.0888025,-1.90681,0.249406,-0.0991323,-0.022828,0.236343,0.0416173,0.244862,-0.267003,1.02604,-0.515196,-0.00908456,-3.22277,-1.44643,-3.27371,2.25439,-5.28315,30.7632,0.164867,21.3093,-1.00765,22.09,-22.2462,10.1239,-3.15805,-0.0901196,0.0675923,-0.056851,0.0833455,-1.90077,0.225729,-0.0906517,-0.0226078,0.151111,0.116911,0.305811,-0.228458,0.969257,-0.363356,-0.000310981,0,0,0,0,0,0,0,-8.41504,-34.1731,-8.58428,37.3651,1.25946,4.74419,-0.0365141,
0.0745316,-0.055435,0.0905669,-1.90881,0.257368,-0.101209,-0.0228825,0.231584,0.0374274,0.239999,-0.263513,1.01989,-0.464069,-0.00863009,-2.97436,-2.61868,-3.03988,2.18123,-3.84046,31.9543,0.284045,20.5962,-1.571,21.3668,-21.841,9.97074,-2.06188,-0.0781819,0.0709782,-0.0547608,0.0918176,-1.90768,0.251567,-0.0978065,-0.022604,0.0652112,0.016053,0.225473,-0.177623,0.680263,-0.0692389,0.00128946,-10.7375,-12.6072,-10.0422,6.35439,-36.1242,36.7647,0.200056,-5.39593,-37.4422,-5.9619,40.7532,1.25305,5.30724,-0.0703886,
0.0762041,-0.0553359,0.0923019,-1.91077,0.265346,-0.102759,-0.0229275,0.227077,0.0324188,0.235373,-0.259872,1.01535,-0.410009,-0.00802726,-2.81643,-3.13039,-2.89088,2.27561,-2.84084,33.7876,0.376766,19.9701,-1.71788,20.7221,-21.5512,9.97074,-1.1146,-0.0664162,0.0709782,-0.0547608,0.0918176,-1.90768,0.251567,-0.0978065,-0.022604,0.0652112,0.016053,0.225473,-0.177623,0.680263,-0.0692389,0.00128946,0,0,0,0,0,0,0,-5.39593,-37.4422,-5.9619,40.7532,1.25305,5.30724,-0.0703886,
0.0735097,-0.0547941,0.0944841,-1.91101,0.264244,-0.0998418,-0.0227224,0.214344,0.0248267,0.222467,-0.250795,0.976719,-0.354695,-0.00783589,-7.95819,-4.7451,-8.06619,5.67305,-24.1417,34.5716,0.119604,21.275,-1.34539,22.065,-22.1206,9.97074,-3.16756,-0.0900312,0.0709782,-0.0547608,0.0918176,-1.90768,0.251567,-0.0978065,-0.022604,0.0652112,0.016053,0.225473,-0.177623,0.680263,-0.0692389,0.00128946,0,0,0,0,0,0,0,-5.39593,-37.4422,-5.9619,40.7532,1.25305,5.30724,-0.0703886,
0.0748742,-0.054866,0.0959073,-1.91278,0.271167,-0.100785,-0.0227706,0.205587,0.0180634,0.213555,-0.244698,0.954455,-0.307334,-0.00747421,-5.47345,-4.22704,-5.57048,3.81078,-13.9152,29.6003,0.226052,20.5962,-1.571,21.3668,-21.841,9.97074,-2.06188,-0.0781819,0.0709782,-0.0547608,0.0918176,-1.90768,0.251567,-0.0978065,-0.022604,0.0652112,0.016053,0.225473,-0.177623,0.680263,-0.0692389,0.00128946,0,0,0,0,0,0,0,-5.39593,-37.4422,-5.9619,40.7532,1.25305,5.30724,-0.0703886,
0.0762784,-0.0549517,0.0973699,-1.91456,0.278343,-0.101465,-0.0228104,0.199574,0.0123079,0.207408,-0.240309,0.942962,-0.262864,-0.00697393,-3.758,-3.59721,-3.84161,2.74302,-7.18301,27.7938,0.312675,19.9701,-1.71788,20.7221,-21.5512,9.97074,-1.1146,-0.0664162,0.0709782,-0.0547608,0.0918176,-1.90768,0.251567,-0.0978065,-0.022604,0.0652112,0.016053,0.225473,-0.177623,0.680263,-0.0692389,0.00128946,0,0,0,0,0,0,0,-5.39593,-37.4422,-5.9619,40.7532,1.25305,5.30724,-0.0703886,
0.0754605,-0.0529527,0.101599,-1.91503,0.279634,-0.0944778,-0.0227012,0.187488,0.00495017,0.195222,-0.230232,0.893766,-0.199751,-0.00675043,-7.55361,-4.59855,-7.61613,6.29809,-30.7474,39.4458,0.139692,20.552,-1.64309,21.3265,-21.7986,9.87996,-2.06023,-0.0777321,0.0733238,-0.0526225,0.0993291,-1.91224,0.269429,-0.0955593,-0.0225978,0.05604,0.0236611,0.191272,-0.0577454,0.388767,0.0997128,0.00126973,-1.1464,0.951016,-4.27515,14.9847,-36.437,21.119,-0.00246624,-4.63421,-38.9378,-4.98595,37.5912,1.99829,3.95501,-0.0969389,
0.0766485,-0.0531475,0.102844,-1.91665,0.285845,-0.0941309,-0.0227385,0.179689,-0.000910005,0.187303,-0.224651,0.870298,-0.151128,-0.00633238,-4.87419,-3.66261,-4.94957,3.48863,-14.6679,30.3892,0.261276,19.9259,-1.78997,20.6817,-21.5087,9.87996,-1.11295,-0.0659664,0.0733238,-0.0526225,0.0993291,-1.91224,0.269429,-0.0955593,-0.0225978,0.05604,0.0236611,0.191272,-0.0577454,0.388767,0.0997128,0.00126973,0,0,0,0,0,0,0,-4.63421,-38.9378,-4.98595,37.5912,1.99829,3.95501,-0.0969389,
0.0778959,-0.053327,0.104148,-1.91831,0.292501,-0.0937123,-0.0227676,0.174938,-0.0052155,0.182438,-0.221297,0.86263,-0.110438,-0.00579292,-2.96979,-2.69094,-3.04087,2.0959,-4.79257,25.4314,0.337164,19.3423,-1.87041,20.0791,-21.2108,9.87996,-0.29264,-0.0539506,0.0733238,-0.0526225,0.0993291,-1.91224,0.269429,-0.0955593,-0.0225978,0.05604,0.0236611,0.191272,-0.0577454,0.388767,0.0997128,0.00126973,0,0,0,0,0,0,0,-4.63421,-38.9378,-4.98595,37.5912,1.99829,3.95501,-0.0969389,
0.0791869,-0.0534892,0.105494,-1.91999,0.299473,-0.0931254,-0.0227888,0.172225,-0.00822789,0.179623,-0.219064,0.864414,-0.0736787,-0.00516622,-1.69573,-1.88274,-1.75934,1.39564,1.11487,22.9746,0.391688,18.7929,-1.89959,19.5114,-20.9047,9.87996,0.398725,-0.0423795,0.0733238,-0.0526225,0.0993291,-1.91224,0.269429,-0.0955593,-0.0225978,0.05604,0.0236611,0.191272,-0.0577454,0.388767,0.0997128,0.00126973,0,0,0,0,0,0,0,-4.63421,-38.9378,-4.98595,37.5912,1.99829,3.95501,-0.0969389,
0.0763573,-0.0530404,0.10567,-1.91626,0.286465,-0.0839054,-0.022682,0.158132,-0.0193793,0.165381,-0.207313,0.808078,-0.0149085,-0.00494828,-8.80818,-6.96965,-8.90088,7.34458,-35.2099,36.7314,0.136212,19.9184,-1.78352,20.6799,-21.5719,9.83431,-1.16141,-0.0654097,0.0748721,-0.0519674,0.104071,-1.914,0.278443,-0.087843,-0.0226062,0.0439772,-0.0473953,0.0985482,-0.00861525,0.16211,0.308522,4.61414e-05,-1.50784,-8.88205,-11.5904,6.14127,-28.3322,26.1011,-0.152949,-7.29626,-37.2676,-7.36235,31.3626,1.6687,3.43773,-0.050247,
0.0772949,-0.0534691,0.10666,-1.91768,0.292008,-0.0823971,-0.0227062,0.149944,-0.02622,0.157055,-0.201452,0.785039,0.0257794,-0.00456393,-5.11747,-4.27543,-5.20404,3.66276,-14.3991,25.43,0.240216,19.3348,-1.86396,20.0773,-21.274,9.83431,-0.341094,-0.0533938,0.0748721,-0.0519674,0.104071,-1.914,0.278443,-0.087843,-0.0226062,0.0439772,-0.0473953,0.0985482,-0.00861525,0.16211,0.308522,4.61414e-05,0,0,0,0,0,0,0,-7.29626,-37.2676,-7.36235,31.3626,1.6687,3.43773,-0.050247,
0.0783326,-0.053822,0.10775,-1.91918,0.298169,-0.0809822,-0.0227231,0.145899,-0.0297994,0.152898,-0.198716,0.78205,0.055996,-0.00407421,-2.5279,-2.23713,-2.59785,1.71035,-1.86829,18.8853,0.306074,18.7853,-1.89314,19.5096,-20.9679,9.83431,0.350271,-0.0418228,0.0748721,-0.0519674,0.104071,-1.914,0.278443,-0.087843,-0.0226062,0.0439772,-0.0473953,0.0985482,-0.00861525,0.16211,0.308522,4.61414e-05,0,0,0,0,0,0,0,-7.29626,-37.2676,-7.36235,31.3626,1.6687,3.43773,-0.050247,
0.0794474,-0.0541129,0.108917,-1.92073,0.30477,-0.079552,-0.0227333,0.144589,-0.0311119,0.151504,-0.197638,0.790683,0.0805527,-0.00351412,-0.818719,-0.820313,-0.871336,0.673459,5.39544,15.348,0.350056,18.2643,-1.88354,18.9705,-20.6571,9.83431,0.94147,-0.0304286,0.0748721,-0.0519674,0.104071,-1.914,0.278443,-0.087843,-0.0226062,0.0439772,-0.0473953,0.0985482,-0.00861525,0.16211,0.308522,4.61414e-05,0,0,0,0,0,0,0,-7.29626,-37.2676,-7.36235,31.3626,1.6687,3.43773,-0.050247,
0.0774918,-0.0540072,0.109291,-1.91707,0.287816,-0.0641501,-0.0226624,0.131802,-0.0430565,0.138614,-0.185535,0.734643,0.142407,-0.0033787,-7.99208,-7.46537,-8.05638,7.56458,-35.0245,38.6592,0.0846436,19.3371,-1.74567,20.0896,-21.4245,9.82062,-0.423914,-0.0525888,0.0763579,-0.0524159,0.10805,-1.91518,0.281218,-0.0711357,-0.022607,0.0321344,-0.107753,0.0619449,0.000246017,0.0089688,0.586878,0.000944839,-1.48035,-7.54468,-4.57542,1.10766,-19.1427,34.7945,0.112337,-9.6806,-35.768,-9.51262,27.5024,1.35101,2.35009,-0.0429228,
0.0782775,-0.0545952,0.110127,-1.91833,0.292962,-0.0615328,-0.0226768,0.125085,-0.0491438,0.13179,-0.179997,0.716377,0.179356,-0.00306327,-4.19812,-3.80453,-4.26507,3.46146,-11.4165,23.0929,0.197139,18.7876,-1.77486,19.5219,-21.1184,9.82062,0.267451,-0.0410178,0.0763579,-0.0524159,0.10805,-1.91518,0.281218,-0.0711357,-0.022607,0.0321344,-0.107753,0.0619449,0.000246017,0.0089688,0.586878,0.000944839,0,0,0,0,0,0,0,-9.6806,-35.768,-9.51262,27.5024,1.35101,2.35009,-0.0429228,
0.0791806,-0.055068,0.111081,-1.91969,0.298848,-0.0592124,-0.0226844,0.122644,-0.0511359,0.129264,-0.178133,0.720245,0.201496,-0.00263845,-1.52558,-1.24509,-1.57869,1.16492,2.41726,13.8374,0.265511,18.2666,-1.76526,18.9827,-20.8075,9.82062,0.858651,-0.0296235,0.0763579,-0.0524159,0.10805,-1.91518,0.281218,-0.0711357,-0.022607,0.0321344,-0.107753,0.0619449,0.000246017,0.0089688,0.586878,0.000944839,0,0,0,0,0,0,0,-9.6806,-35.768,-9.51262,27.5024,1.35101,2.35009,-0.0429228,
0.0801766,-0.0554496,0.112127,-1.92113,0.305257,-0.0570441,-0.0226854,0.123016,-0.0504491,0.129578,-0.178299,0.736418,0.215404,-0.00213762,0.232934,0.429278,0.196303,-0.103829,10.1086,8.69279,0.313025,17.7695,-1.72966,18.4681,-20.4928,9.82062,1.3482,-0.0188095,0.0763579,-0.0524159,0.10805,-1.91518,0.281218,-0.0711357,-0.022607,0.0321344,-0.107753,0.0619449,0.000246017,0.0089688,0.586878,0.000944839,0,0,0,0,0,0,0,-9.6806,-35.768,-9.51262,27.5024,1.35101,2.35009,-0.0429228,
0.0774696,-0.0540059,0.109267,-1.91708,0.287845,-0.0637293,-0.0226448,0.114185,-0.05845,0.12069,-0.170125,0.691636,0.256569,-0.00205417,-5.51958,-5.00059,-5.55517,5.10854,-27.9888,25.728,0.0521559,18.7995,-1.67661,19.5498,-21.2807,9.82715,0.154011,-0.0402712,0.0776239,-0.0545022,0.110346,-1.91611,0.282286,-0.0483685,-0.0226132,0.0314608,-0.145604,0.0298643,0.00784706,0.0030055,0.708298,0.000384843,-0.0842009,-4.73147,-4.01007,0.95013,-0.745413,15.1776,-0.0699996,-5.59826,-34.669,-5.63658,24.7849,1.73553,1.75316,-0.0163725,
0.0782356,-0.054587,0.110083,-1.91833,0.293008,-0.0608296,-0.0226508,0.110498,-0.0612883,0.116933,-0.167475,0.682364,0.277748,-0.00179272,-2.30419,-1.77393,-2.34818,1.65625,-5.79505,13.2369,0.163405,18.2786,-1.66701,19.0106,-20.9699,9.82715,0.74521,-0.028877,0.0776239,-0.0545022,0.110346,-1.91611,0.282286,-0.0483685,-0.0226132,0.0314608,-0.145604,0.0298643,0.00784706,0.0030055,0.708298,0.000384843,0,0,0,0,0,0,0,-5.59826,-34.669,-5.63658,24.7849,1.73553,1.75316,-0.0163725,
0.0791147,-0.0550512,0.111011,-1.91968,0.298908,-0.0582215,-0.0226502,0.110376,-0.060636,0.116753,-0.167728,0.69339,0.287402,-0.00141998,-0.076585,0.407688,-0.112299,-0.158061,6.89144,6.03332,0.232962,17.7815,-1.63141,18.496,-20.6552,9.82715,1.23476,-0.0180629,0.0776239,-0.0545022,0.110346,-1.91611,0.282286,-0.0483685,-0.0226132,0.0314608,-0.145604,0.0298643,0.00784706,0.0030055,0.708298,0.000384843,0,0,0,0,0,0,0,-5.59826,-34.669,-5.63658,24.7849,1.73553,1.75316,-0.0163725,
0.0785294,-0.056433,0.111348,-1.91776,0.28887,-0.0394987,-0.0226341,0.101653,-0.0701687,0.107945,-0.158648,0.6569,0.330967,-0.00126832,-5.45147,-5.95798,-5.50458,5.67511,-22.8067,27.2282,0.0947868,18.2786,-1.66701,19.0106,-20.9699,9.82715,0.74521,-0.028877,0.0776239,-0.0545022,0.110346,-1.91611,0.282286,-0.0483685,-0.0226132,0.0314608,-0.145604,0.0298643,0.00784706,0.0030055,0.708298,0.000384843,0,0,0,0,0,0,0,-5.59826,-34.669,-5.63658,24.7849,1.73553,1.75316,-0.0163725,
0.07921,-0.0571211,0.112076,-1.91891,0.294032,-0.0360283,-0.0226318,0.098337,-0.0733376,0.104547,-0.155622,0.654566,0.351534,-0.000957363,-2.07282,-1.98053,-2.1238,1.89095,-1.45888,12.8548,0.194349,17.7834,-1.60506,18.5134,-20.7753,9.84379,1.10419,-0.0175165,0.0791836,-0.0567644,0.112404,-1.91678,0.282756,-0.0232725,-0.0226063,0.0302873,-0.116238,0.022113,0.00141874,0.00891112,0.684763,0.00140724,-0.146687,3.67086,-0.968917,-0.80354,0.738203,-2.94189,0.127799,-2.30145,-29.8528,-2.21282,19.3814,1.68701,0.619742,-0.050247,
0.0800128,-0.0576665,0.112926,-1.92017,0.299939,-0.0329449,-0.0226233,0.0987405,-0.072305,0.104895,-0.155934,0.671316,0.358313,-0.000553156,0.252181,0.645383,0.217518,-0.194996,10.469,4.23663,0.252629,17.307,-1.55245,18.0196,-20.4597,9.84379,1.51695,-0.00710302,0.0791836,-0.0567644,0.112404,-1.91678,0.282756,-0.0232725,-0.0226063,0.0302873,-0.116238,0.022113,0.00141874,0.00891112,0.684763,0.00140724,0,0,0,0,0,0,0,-2.30145,-29.8528,-2.21282,19.3814,1.68701,0.619742,-0.050247,
0.080913,-0.0581009,0.113875,-1.9215,0.30637,-0.0301134,-0.0226091,0.101497,-0.0687048,0.107625,-0.158024,0.697838,0.357437,-8.71575e-05,1.72263,2.25011,1.70587,-1.30627,16.5762,-0.547736,0.291249,16.8483,-1.49147,17.5441,-20.1438,9.84379,1.85129,0.00274303,0.0791836,-0.0567644,0.112404,-1.91678,0.282756,-0.0232725,-0.0226063,0.0302873,-0.116238,0.022113,0.00141874,0.00891112,0.684763,0.00140724,0,0,0,0,0,0,0,-2.30145,-29.8528,-2.21282,19.3814,1.68701,0.619742,-0.050247,
0.0800126,-0.0584163,0.11333,-1.91857,0.289411,-0.0143898,-0.0226135,0.0935858,-0.0736374,0.0996825,-0.152397,0.661137,0.387976,-1.92872e-05,-4.94426,-3.08288,-4.96398,3.51726,-22.9382,19.087,0.0424189,17.7834,-1.60506,18.5134,-20.7753,9.84379,1.10419,-0.0175165,0.0791836,-0.0567644,0.112404,-1.91678,0.282756,-0.0232725,-0.0226063,0.0302873,-0.116238,0.022113,0.00141874,0.00891112,0.684763,0.00140724,0,0,0,0,0,0,0,-2.30145,-29.8528,-2.21282,19.3814,1.68701,0.619742,-0.050247,
0.0806544,-0.0590117,0.114019,-1.91975,0.294587,-0.0108562,-0.0226037,0.0909124,-0.0737936,0.0969673,-0.15165,0.658322,0.398722,0.000227401,-1.6709,-0.0976305,-1.69697,0.466902,-1.75933,6.7166,0.15418,17.2967,-1.57113,18.0276,-20.5528,9.85371,1.39537,-0.00667938,0.0805054,-0.0596503,0.114101,-1.91795,0.283267,0.000386886,-0.0226158,0.0392791,-0.072303,0.0692269,-0.0460319,0.0377767,0.65335,-0.000865796,1.12397,5.49181,5.88924,-5.93133,3.6082,-3.9267,-0.284129,5.66089,-27.3335,5.23775,12.8275,2.27935,-1.17744,-0.0026396,
0.0814183,-0.0594842,0.11483,-1.92104,0.300501,-0.00770388,-0.0225879,0.0918291,-0.0708473,0.0978582,-0.153397,0.674493,0.397785,0.000578001,0.572939,1.84144,0.556783,-1.09204,10.1071,-0.585881,0.219125,16.838,-1.51014,17.5521,-20.2369,9.85371,1.72971,0.00316668,0.0805054,-0.0596503,0.114101,-1.91795,0.283267,0.000386886,-0.0226158,0.0392791,-0.072303,0.0692269,-0.0460319,0.0377767,0.65335,-0.000865796,0,0,0,0,0,0,0,5.66089,-27.3335,5.23775,12.8275,2.27935,-1.17744,-0.0026396,
0.0822797,-0.0598608,0.11574,-1.92238,0.306935,-0.00481137,-0.0225666,0.094998,-0.0660949,0.101023,-0.156337,0.700443,0.390541,0.000995922,1.98058,2.97028,1.97809,-1.83745,16.219,-4.52765,0.261201,16.3952,-1.44594,17.0927,-19.923,9.85371,2.0069,0.0125263,0.0805054,-0.0596503,0.114101,-1.91795,0.283267,0.000386886,-0.0226158,0.0392791,-0.072303,0.0692269,-0.0460319,0.0377767,0.65335,-0.000865796,0,0,0,0,0,0,0,5.66089,-27.3335,5.23775,12.8275,2.27935,-1.17744,-0.0026396,
0.0815988,-0.0607726,0.115308,-1.92013,0.290284,0.00877826,-0.0226169,0.091114,-0.0657129,0.0972596,-0.155023,0.667446,0.408795,0.000942298,-2.42752,0.23876,-2.35217,0.821261,-20.6233,11.409,-0.0335152,17.2967,-1.57113,18.0276,-20.5528,9.85371,1.39537,-0.00667938,0.0805054,-0.0596503,0.114101,-1.91795,0.283267,0.000386886,-0.0226158,0.0392791,-0.072303,0.0692269,-0.0460319,0.0377767,0.65335,-0.000865796,0,0,0,0,0,0,0,5.66089,-27.3335,5.23775,12.8275,2.27935,-1.17744,-0.0026396,
0.0823143,-0.0611868,0.116074,-1.92144,0.295604,0.0121288,-0.0226025,0.0907779,-0.0629252,0.0969657,-0.156603,0.666955,0.4108,0.00111349,-0.210054,1.74231,-0.183699,-0.987686,-0.306932,1.25275,0.106997,16.8277,-1.50231,17.5563,-20.3232,9.86801,1.61983,0.00363793,0.0821157,-0.0617123,0.116221,-1.91992,0.283707,0.0235475,-0.0226056,0.0455365,-0.0344671,0.0944555,-0.082895,0.0160842,0.599183,0.00133491,0.782175,4.72949,3.15358,-4.60789,-2.71156,-6.77084,0.275088,6.70032,-24.7389,6.31288,13.002,2.87811,-2.00599,-0.0566557,
0.0831258,-0.0615189,0.116936,-1.9228,0.301636,0.0151314,-0.0225815,0.0929101,-0.0586434,0.0991141,-0.159406,0.684365,0.403706,0.00141652,1.3326,2.67608,1.34274,-1.75197,10.8813,-4.43366,0.189392,16.3848,-1.4381,17.0968,-20.0093,9.86801,1.89702,0.0129976,0.0821157,-0.0617123,0.116221,-1.91992,0.283707,0.0235475,-0.0226056,0.0455365,-0.0344671,0.0944555,-0.082895,0.0160842,0.599183,0.00133491,0,0,0,0,0,0,0,6.70032,-24.7389,6.31288,13.002,2.87811,-2.00599,-0.0566557,
0.0840153,-0.0617867,0.117876,-1.9242,0.308166,0.0179003,-0.0225547,0.0965669,-0.05361,0.102782,-0.162601,0.710751,0.392186,0.00180302,2.28554,3.14588,2.29269,-1.99655,16.4912,-7.19988,0.241563,15.9558,-1.3756,16.6516,-19.6978,9.86801,2.11542,0.0218622,0.0821157,-0.0617123,0.116221,-1.91992,0.283707,0.0235475,-0.0226056,0.0455365,-0.0344671,0.0944555,-0.082895,0.0160842,0.599183,0.00133491,0,0,0,0,0,0,0,6.70032,-24.7389,6.31288,13.002,2.87811,-2.00599,-0.0566557,
0.083335,-0.0623823,0.117566,-1.92244,0.290598,0.031294,-0.0225975,0.0935684,-0.0507007,0.0999731,-0.163599,0.674743,0.403008,0.00170801,-1.87409,1.81836,-1.75585,-0.624072,-22.5052,6.76356,-0.0593847,16.8277,-1.50231,17.5563,-20.3232,9.86801,1.61983,0.00363793,0.0821157,-0.0617123,0.116221,-1.91992,0.283707,0.0235475,-0.0226056,0.0455365,-0.0344671,0.0944555,-0.082895,0.0160842,0.599183,0.00133491,0,0,0,0,0,0,0,6.70032,-24.7389,6.31288,13.002,2.87811,-2.00599,-0.0566557,
0.0840766,-0.0626371,0.118361,-1.92384,0.295907,0.0344206,-0.0225777,0.0933953,-0.0469313,0.0998635,-0.166061,0.672517,0.400571,0.0018609,-0.108167,2.35582,-0.0684412,-1.53822,-1.39117,-1.52295,0.095556,16.3848,-1.4381,17.0968,-20.0093,9.86801,1.89702,0.0129976,0.0821157,-0.0617123,0.116221,-1.91992,0.283707,0.0235475,-0.0226056,0.0455365,-0.0344671,0.0944555,-0.082895,0.0160842,0.599183,0.00133491,0,0,0,0,0,0,0,6.70032,-24.7389,6.31288,13.002,2.87811,-2.00599,-0.0566557,
0.0848988,-0.0628432,0.119235,-1.92528,0.301941,0.0372457,-0.022551,0.0952709,-0.0426964,0.10175,-0.168861,0.688875,0.391084,0.00215656,1.17227,2.64683,1.17882,-1.75023,10.2236,-5.92944,0.184793,15.9558,-1.3756,16.6516,-19.6978,9.86801,2.11542,0.0218622,0.0821157,-0.0617123,0.116221,-1.91992,0.283707,0.0235475,-0.0226056,0.0455365,-0.0344671,0.0944555,-0.082895,0.0160842,0.599183,0.00133491,0,0,0,0,0,0,0,6.70032,-24.7389,6.31288,13.002,2.87811,-2.00599,-0.0566557,
0.0833141,-0.0623706,0.117543,-1.92242,0.290622,0.0314379,-0.0225839,0.0921951,-0.0417891,0.0987914,-0.16832,0.657583,0.404256,0.00216023,-1.92243,0.567087,-1.84888,0.338126,-19.5571,8.23251,0.00228959,16.3848,-1.4381,17.0968,-20.0093,9.86801,1.89702,0.0129976,0.0821157,-0.0617123,0.116221,-1.91992,0.283707,0.0235475,-0.0226056,0.0455365,-0.0344671,0.0944555,-0.082895,0.0160842,0.599183,0.00133491,0,0,0,0,0,0,0,6.70032,-24.7389,6.31288,13.002,2.87811,-2.00599,-0.0566557,
0.0840377,-0.0626173,0.11832,-1.92381,0.295945,0.0346601,-0.0225577,0.091846,-0.0395991,0.098446,-0.169436,0.659149,0.403961,0.00238369,-0.218151,1.36875,-0.215885,-0.697833,0.978768,-0.184459,0.139666,15.9558,-1.3756,16.6516,-19.6978,9.86801,2.11542,0.0218622,0.0821157,-0.0617123,0.116221,-1.91992,0.283707,0.0235475,-0.0226056,0.0455365,-0.0344671,0.0944555,-0.082895,0.0160842,0.599183,0.00133491,0,0,0,0,0,0,0,6.70032,-24.7389,6.31288,13.002,2.87811,-2.00599,-0.0566557,
0.0848384,-0.0628154,0.119172,-1.92523,0.301993,0.0375793,-0.0225247,0.0934935,-0.0366315,0.100054,-0.171076,0.678518,0.396149,0.00272997,1.02967,1.85476,1.00508,-1.0248,12.1058,-4.8825,0.216425,15.5388,-1.31693,16.2188,-19.3905,9.86801,2.29357,0.030244,0.0821157,-0.0617123,0.116221,-1.91992,0.283707,0.0235475,-0.0226056,0.0455365,-0.0344671,0.0944555,-0.082895,0.0160842,0.599183,0.00133491,0,0,0,0,0,0,0,6.70032,-24.7389,6.31288,13.002,2.87811,-2.00599,-0.0566557,
0.0857034,-0.0629762,0.120087,-1.92667,0.308544,0.0402913,-0.022486,0.0964197,-0.0333259,0.10293,-0.172754,0.706586,0.384717,0.00315261,1.82887,2.06596,1.79737,-1.04844,17.5419,-7.14451,0.264151,15.1112,-1.22939,15.7851,-19.1331,9.88265,2.35605,0.038526,0.0838703,-0.0625181,0.119626,-1.92266,0.284179,0.0437358,-0.0226119,0.0653123,0.0587455,0.147757,-0.114963,0.0277915,0.529846,-0.000380233,2.47198,11.6516,6.66273,-4.00852,1.46341,-8.66705,-0.214393,4.87537,-24.3144,4.46412,16.0925,3.10974,-1.54182,-0.0026396,
0.0854061,-0.0622555,0.121308,-1.92566,0.291381,0.0507819,-0.0225905,0.0966052,-0.0244623,0.103421,-0.177117,0.675309,0.389213,0.00299427,0.115949,5.53976,0.306807,-2.72687,-19.5478,2.81,-0.0989673,15.935,-1.34086,16.6404,-19.7431,9.88265,2.04095,0.0220952,0.0838703,-0.0625181,0.119626,-1.92266,0.284179,0.0437358,-0.0226119,0.0653123,0.0587455,0.147757,-0.114963,0.0277915,0.529846,-0.000380233,0,0,0,0,0,0,0,4.87537,-24.3144,4.46412,16.0925,3.10974,-1.54182,-0.0026396,
0.0862266,-0.062203,0.122187,-1.92723,0.296827,0.0536482,-0.0225612,0.0977964,-0.0182574,0.104706,-0.180902,0.676383,0.383029,0.00312991,0.744498,3.8781,0.80295,-2.36595,0.671066,-3.8652,0.0847788,15.518,-1.28219,16.2075,-19.4358,9.88265,2.21911,0.0304771,0.0838703,-0.0625181,0.119626,-1.92266,0.284179,0.0437358,-0.0226119,0.0653123,0.0587455,0.147757,-0.114963,0.0277915,0.529846,-0.000380233,0,0,0,0,0,0,0,4.87537,-24.3144,4.46412,16.0925,3.10974,-1.54182,-0.0026396,
0.087093,-0.0621712,0.123108,-1.92879,0.302974,0.056256,-0.0225241,0.0998966,-0.0138105,0.106797,-0.183636,0.694789,0.371619,0.00343113,1.31264,2.7793,1.30698,-1.70884,11.5038,-7.13158,0.188263,15.1112,-1.22939,15.7851,-19.1331,9.88265,2.35605,0.038526,0.0838703,-0.0625181,0.119626,-1.92266,0.284179,0.0437358,-0.0226119,0.0653123,0.0587455,0.147757,-0.114963,0.0277915,0.529846,-0.000380233,0,0,0,0,0,0,0,4.87537,-24.3144,4.46412,16.0925,3.10974,-1.54182,-0.0026396,
0.0880005,-0.0621542,0.124069,-1.93033,0.309603,0.0586985,-0.02248,0.102606,-0.0106218,0.10945,-0.185361,0.72157,0.358357,0.00384565,1.69342,1.9929,1.65841,-1.07806,16.7381,-8.28876,0.259071,14.7072,-1.1459,15.3693,-18.8802,9.90442,2.40968,0.0466807,0.0859236,-0.0621595,0.123472,-1.92646,0.284314,0.0606635,-0.0226145,0.0786759,0.10679,0.098125,-0.132642,-0.00470318,0.463363,-0.000322552,1.67044,6.00552,-6.20404,-2.20987,-4.06183,-8.31038,0.0072101,-4.76117,-29.4798,-4.98595,25.733,2.42584,0.288321,0.0239107,
0.0872402,-0.0614002,0.124927,-1.92973,0.291117,0.0671002,-0.0225786,0.0990358,-0.000882376,0.106103,-0.190237,0.68259,0.361689,0.00374181,-2.23142,6.08717,-2.09199,-3.04714,-24.3626,2.08258,-0.0648983,15.5135,-1.24602,16.2066,-19.4793,9.90442,2.16019,0.0307726,0.0859236,-0.0621595,0.123472,-1.92646,0.284314,0.0606635,-0.0226145,0.0786759,0.10679,0.098125,-0.132642,-0.00470318,0.463363,-0.000322552,0,0,0,0,0,0,0,-4.76117,-29.4798,-4.98595,25.733,2.42584,0.288321,0.0239107,
0.0879756,-0.0611771,0.12572,-1.93139,0.296398,0.0697706,-0.0225417,0.097613,0.00487347,0.104709,-0.193729,0.678103,0.35611,0.00391626,-0.889265,3.5974,-0.87155,-2.18253,-2.80398,-3.48658,0.109032,15.1067,-1.19321,15.7842,-19.1766,9.90442,2.29713,0.0388215,0.0859236,-0.0621595,0.123472,-1.92646,0.284314,0.0606635,-0.0226145,0.0786759,0.10679,0.098125,-0.132642,-0.00470318,0.463363,-0.000322552,0,0,0,0,0,0,0,-4.76117,-29.4798,-4.98595,25.733,2.42584,0.288321,0.0239107,
0.0887685,-0.0610098,0.126567,-1.93302,0.302406,0.0722245,-0.0224969,0.0979142,0.00808136,0.104946,-0.195638,0.69268,0.346234,0.00425352,0.188249,2.00493,0.148667,-1.19337,9.11067,-6.17234,0.210789,14.7072,-1.1459,15.3693,-18.8802,9.90442,2.40968,0.0466807,0.0859236,-0.0621595,0.123472,-1.92646,0.284314,0.0606635,-0.0226145,0.0786759,0.10679,0.098125,-0.132642,-0.00470318,0.463363,-0.000322552,0,0,0,0,0,0,0,-4.76117,-29.4798,-4.98595,25.733,2.42584,0.288321,0.0239107,
0.0896112,-0.0608847,0.127462,-1.93461,0.30892,0.0745439,-0.0224456,0.0993981,0.00959243,0.106327,-0.196243,0.717006,0.334973,0.00468524,0.927444,0.94442,0.862684,-0.378049,15.2034,-7.03835,0.269823,14.3032,-1.03827,14.9478,-18.6055,9.91606,2.47284,0.055098,0.0883764,-0.0605291,0.127774,-1.92994,0.284954,0.0725819,-0.0226113,0.0849201,0.136448,0.135357,-0.121171,0.016856,0.345648,0.000489396,0.780534,3.7073,4.65399,1.43393,2.6949,-14.7144,0.101494,-2.24987,-30.0789,-2.3358,27.1017,2.56591,1.16356,-0.0429228,
0.0899058,-0.0595461,0.12945,-1.93332,0.292175,0.0780473,-0.0225711,0.0987179,0.017615,0.105895,-0.200456,0.683959,0.332979,0.0044948,-0.42511,5.01413,-0.269945,-2.63299,-20.6546,-1.24641,-0.119025,15.1011,-1.12827,15.7762,-19.1914,9.91606,2.27295,0.0388804,0.0883764,-0.0605291,0.127774,-1.92994,0.284954,0.0725819,-0.0226113,0.0849201,0.136448,0.135357,-0.121171,0.016856,0.345648,0.000489396,0,0,0,0,0,0,0,-2.24987,-30.0789,-2.3358,27.1017,2.56591,1.16356,-0.0429228,
0.0907051,-0.0592496,0.130308,-1.93503,0.297627,0.0804206,-0.0225294,0.0989561,0.0215044,0.106164,-0.203122,0.683451,0.325716,0.00463763,0.148882,2.43083,0.168025,-1.66659,-0.317059,-4.53921,0.0892673,14.7015,-1.08096,15.3612,-18.895,9.91606,2.3855,0.0467396,0.0883764,-0.0605291,0.127774,-1.92994,0.284954,0.0725819,-0.0226113,0.0849201,0.136448,0.135357,-0.121171,0.016856,0.345648,0.000489396,0,0,0,0,0,0,0,-2.24987,-30.0789,-2.3358,27.1017,2.56591,1.16356,-0.0429228,
0.0915413,-0.0590228,0.131199,-1.93669,0.303775,0.0826495,-0.0224796,0.100072,0.0228728,0.107204,-0.204031,0.700472,0.316296,0.0049565,0.697552,0.855266,0.650154,-0.567795,10.6383,-5.88772,0.199292,14.3032,-1.03827,14.9478,-18.6055,9.91606,2.47284,0.055098,0.0883764,-0.0605291,0.127774,-1.92994,0.284954,0.0725819,-0.0226113,0.0849201,0.136448,0.135357,-0.121171,0.016856,0.345648,0.000489396,0,0,0,0,0,0,0,-2.24987,-30.0789,-2.3358,27.1017,2.56591,1.16356,-0.0429228,
0.0921375,-0.0570101,0.133361,-1.93744,0.295709,0.0827118,-0.0225458,0.0974783,0.0270377,0.104659,-0.207163,0.676801,0.301282,0.00498542,-1.62121,2.60305,-1.59037,-1.95772,-14.7946,-9.38379,0.0180786,14.7233,-1.03558,15.3746,-18.8979,9.9232,2.38667,0.046622,0.0907877,-0.0578616,0.131884,-1.93401,0.287824,0.0789535,-0.0226092,0.0755114,0.120751,0.0992427,-0.120837,0.105017,0.141761,0.000991101,-1.17609,-1.96215,-4.51428,0.0416732,11.0201,-25.4859,0.0627131,-2.98779,-30.8009,-3.1848,30.4382,2.27295,2.19811,-0.0365141,
0.0928871,-0.0567379,0.134165,-1.93916,0.301299,0.0846505,-0.0224951,0.0967218,0.0284354,0.103825,-0.208787,0.681202,0.289494,0.00525531,-0.472784,0.873555,-0.521395,-1.01498,2.75063,-7.3675,0.168683,14.325,-0.9929,14.9611,-18.6085,9.9232,2.47401,0.0549805,0.0907877,-0.0578616,0.131884,-1.93401,0.287824,0.0789535,-0.0226092,0.0755114,0.120751,0.0992427,-0.120837,0.105017,0.141761,0.000991101,0,0,0,0,0,0,0,-2.98779,-30.8009,-3.1848,30.4382,2.27295,2.19811,-0.0365141,
0.093685,-0.0565203,0.135014,-1.94082,0.307528,0.0865957,-0.0224398,0.0973257,0.0281877,0.104279,-0.208682,0.700671,0.280223,0.00558869,0.377448,-0.154757,0.283544,0.0656561,12.1683,-5.79413,0.208359,13.911,-0.951568,14.5312,-18.3289,9.9232,2.54593,0.0629687,0.0907877,-0.0578616,0.131884,-1.93401,0.287824,0.0789535,-0.0226092,0.0755114,0.120751,0.0992427,-0.120837,0.105017,0.141761,0.000991101,0,0,0,0,0,0,0,-2.98779,-30.8009,-3.1848,30.4382,2.27295,2.19811,-0.0365141,
0.0945226,-0.056346,0.135898,-1.94244,0.314203,0.0885571,-0.0223807,0.0987988,0.0269082,0.105536,-0.207226,0.727423,0.273214,0.00594763,0.920681,-0.799689,0.7856,0.910222,16.7196,-4.3808,0.224338,13.4727,-0.904832,14.0683,-18.0582,9.9232,2.59546,0.0679013,0.0907877,-0.0578616,0.131884,-1.93401,0.287824,0.0789535,-0.0226092,0.0755114,0.120751,0.0992427,-0.120837,0.105017,0.141761,0.000991101,0,0,0,0,0,0,0,-2.98779,-30.8009,-3.1848,30.4382,2.27295,2.19811,-0.0365141,
0.0921163,-0.0569998,0.133339,-1.93741,0.29573,0.0827355,-0.0225339,0.0961169,0.0304057,0.102962,-0.209352,0.698687,0.267207,0.00592766,-1.67622,2.18594,-1.6083,-1.32911,-17.9595,-3.75431,-0.0124827,14.3342,-0.921089,14.9575,-18.5843,9.92021,2.50975,0.0548824,0.0936468,-0.0545654,0.135871,-1.93833,0.291735,0.0804522,-0.0226078,0.0970845,0.101266,0.121283,-0.118865,0.104187,0.0088153,0.000718668,2.69663,-2.43559,2.75506,0.246544,-0.103696,-16.6183,-0.0340541,-0.908932,-33.3479,-1.13768,33.7033,2.65747,3.07976,-0.0365141,
0.0928472,-0.056722,0.134122,-1.93912,0.301336,0.0846913,-0.0224795,0.0951653,0.0312705,0.101961,-0.210112,0.699095,0.262659,0.00610057,-0.594708,0.540447,-0.625813,-0.474799,0.254994,-2.84227,0.108073,13.9202,-0.879757,14.5275,-18.3046,9.92021,2.58167,0.0628707,0.0936468,-0.0545654,0.135871,-1.93833,0.291735,0.0804522,-0.0226078,0.0970845,0.101266,0.121283,-0.118865,0.104187,0.0088153,0.000718668,0,0,0,0,0,0,0,-0.908932,-33.3479,-1.13768,33.7033,2.65747,3.07976,-0.0365141,
0.0936232,-0.0564986,0.134946,-1.94076,0.307579,0.0866549,-0.0224205,0.095533,0.0306012,0.102167,-0.209275,0.715365,0.259218,0.00635641,0.229807,-0.418298,0.128778,0.522877,10.1686,-2.15047,0.1599,13.4819,-0.833022,14.0647,-18.034,9.92021,2.6312,0.0678032,0.0936468,-0.0545654,0.135871,-1.93833,0.291735,0.0804522,-0.0226078,0.0970845,0.101266,0.121283,-0.118865,0.104187,0.0088153,0.000718668,0,0,0,0,0,0,0,-0.908932,-33.3479,-1.13768,33.7033,2.65747,3.07976,-0.0365141,
0.0944356,-0.0563182,0.135803,-1.94235,0.314269,0.0886356,-0.0223564,0.0967352,0.0289909,0.103159,-0.207208,0.739528,0.256891,0.00668696,0.751382,-1.00643,0.619615,1.29232,15.1017,-1.45457,0.206593,13.0535,-0.7693,13.5964,-17.7631,9.92021,2.67676,0.0727118,0.0936468,-0.0545654,0.135871,-1.93833,0.291735,0.0804522,-0.0226078,0.0970845,0.101266,0.121283,-0.118865,0.104187,0.0088153,0.000718668,0,0,0,0,0,0,0,-0.908932,-33.3479,-1.13768,33.7033,2.65747,3.07976,-0.0365141,
0.0952022,-0.0538818,0.137551,-1.94174,0.299834,0.0830338,-0.0225277,0.0968743,0.0303201,0.103433,-0.20945,0.711175,0.241947,0.00656364,0.0869063,0.830787,0.17146,-1.40141,-17.7207,-9.34036,-0.0770774,13.9202,-0.879757,14.5275,-18.3046,9.92021,2.58167,0.0628707,0.0936468,-0.0545654,0.135871,-1.93833,0.291735,0.0804522,-0.0226078,0.0970845,0.101266,0.121283,-0.118865,0.104187,0.0088153,0.000718668,0,0,0,0,0,0,0,-0.908932,-33.3479,-1.13768,33.7033,2.65747,3.07976,-0.0365141,
0.0960032,-0.0536473,0.138402,-1.94344,0.305557,0.0846556,-0.0224711,0.0975228,0.0301199,0.104017,-0.210162,0.712008,0.234104,0.00666534,0.405344,-0.125148,0.36541,-0.445192,0.520503,-4.90187,0.0635608,13.4933,-0.811062,14.0645,-18.0027,9.91059,2.66864,0.0676254,0.0964307,-0.0515516,0.139883,-1.9434,0.295519,0.0803497,-0.0226055,0.0660789,0.06809,0.123023,-0.12096,0.142226,-0.0379725,0.00113493,-3.87569,-4.14703,0.217501,-0.261951,4.75484,-5.84847,0.0520323,3.22498,-37.2914,2.83754,35.6711,3.12164,3.47069,-0.0566557,
0.0968276,-0.0534492,0.139272,-1.94508,0.31191,0.0863931,-0.0224082,0.09863,0.0290491,0.104963,-0.209156,0.728434,0.230719,0.00690453,0.691965,-0.669282,0.590956,0.629137,10.2662,-2.11524,0.149495,13.065,-0.747341,13.5962,-17.7319,9.91059,2.71421,0.0725341,0.0964307,-0.0515516,0.139883,-1.9434,0.295519,0.0803497,-0.0226055,0.0660789,0.06809,0.123023,-0.12096,0.142226,-0.0379725,0.00113493,0,0,0,0,0,0,0,3.22498,-37.2914,2.83754,35.6711,3.12164,3.47069,-0.0566557,
0.0978516,-0.0511381,0.141417,-1.9467,0.303869,0.0825582,-0.0225115,0.0969728,0.0276596,0.10329,-0.209581,0.704591,0.217791,0.00688679,-1.03572,-0.868391,-1.04546,-0.265928,-14.9019,-8.08029,-0.0110863,13.4933,-0.811062,14.0645,-18.0027,9.91059,2.66864,0.0676254,0.0964307,-0.0515516,0.139883,-1.9434,0.295519,0.0803497,-0.0226055,0.0660789,0.06809,0.123023,-0.12096,0.142226,-0.0379725,0.00113493,0,0,0,0,0,0,0,3.22498,-37.2914,2.83754,35.6711,3.12164,3.47069,-0.0566557,
0.0986062,-0.0509782,0.142217,-1.94835,0.309647,0.0841299,-0.0224487,0.096445,0.026124,0.102621,-0.208932,0.708132,0.213524,0.00707997,-0.329867,-0.959771,-0.418512,0.405837,2.21338,-2.66644,0.12074,13.065,-0.747341,13.5962,-17.7319,9.91059,2.71421,0.0725341,0.0964307,-0.0515516,0.139883,-1.9434,0.295519,0.0803497,-0.0226055,0.0660789,0.06809,0.123023,-0.12096,0.142226,-0.0379725,0.00113493,0,0,0,0,0,0,0,3.22498,-37.2914,2.83754,35.6711,3.12164,3.47069,-0.0566557,
0.0993894,-0.0508322,0.143041,-1.94994,0.316037,0.0858635,-0.0223842,0.0967352,0.0245488,0.102709,-0.206975,0.726252,0.21416,0.00727733,0.181381,-0.984475,0.0550362,1.22293,11.3249,0.397308,0.12335,12.6345,-0.695938,13.1268,-17.4281,9.89484,2.78273,0.0790167,0.09853,-0.0494316,0.143281,-1.948,0.299963,0.0799027,-0.0226063,0.0509153,-0.0198432,0.0999393,-0.0890574,0.119251,-0.0273573,-0.000293625,-1.89546,-10.9916,-2.88548,3.98789,-2.87188,1.3269,-0.178569,2.03479,-40.8858,1.41328,35.4211,3.36059,3.76916,-0.050247,
0.100191,-0.0507,0.143887,-1.95148,0.322849,0.0877113,-0.0223203,0.0974326,0.022945,0.103308,-0.203979,0.751302,0.217523,0.00741821,0.435826,-1.00238,0.374369,1.87278,15.6566,2.10152,0.0880476,12.1529,-0.61272,12.616,-17.1751,9.89484,2.80962,0.080362,0.09853,-0.0494316,0.143281,-1.948,0.299963,0.0799027,-0.0226063,0.0509153,-0.0198432,0.0999393,-0.0890574,0.119251,-0.0273573,-0.000293625,0,0,0,0,0,0,0,2.03479,-40.8858,1.41328,35.4211,3.36059,3.76916,-0.050247,
0.0997463,-0.0498733,0.144593,-1.95082,0.308143,0.082489,-0.0225003,0.0937263,0.0137596,0.0995003,-0.199956,0.721458,0.212657,0.00745693,-2.31641,-5.74087,-2.37964,2.51381,-18.6527,-3.04087,0.0241983,13.0708,-0.773176,13.5944,-17.6965,9.89484,2.74237,0.0724387,0.09853,-0.0494316,0.143281,-1.948,0.299963,0.0799027,-0.0226063,0.0509153,-0.0198432,0.0999393,-0.0890574,0.119251,-0.0273573,-0.000293625,0,0,0,0,0,0,0,2.03479,-40.8858,1.41328,35.4211,3.36059,3.76916,-0.050247,
0.100424,-0.0499808,0.145309,-1.95229,0.313903,0.0842967,-0.0224357,0.0919169,0.00831821,0.0975189,-0.196718,0.721148,0.21532,0.00757933,-1.13089,-3.40089,-1.23835,2.02431,-0.193941,1.66412,0.0765033,12.6345,-0.695938,13.1268,-17.4281,9.89484,2.78273,0.0790167,0.09853,-0.0494316,0.143281,-1.948,0.299963,0.0799027,-0.0226063,0.0509153,-0.0198432,0.0999393,-0.0890574,0.119251,-0.0273573,-0.000293625,0,0,0,0,0,0,0,2.03479,-40.8858,1.41328,35.4211,3.36059,3.76916,-0.050247,
0.101138,-0.050033,0.146065,-1.95374,0.320295,0.0862589,-0.0223714,0.0913785,0.00534962,0.0969113,-0.193443,0.736724,0.221311,0.00767228,-0.336517,-1.85537,-0.379776,2.04676,9.73526,3.7446,0.0580902,12.1553,-0.627193,12.6161,-17.1457,9.8853,2.83884,0.0802418,0.100548,-0.0482681,0.146594,-1.95199,0.303824,0.0794816,-0.0226063,0.0528282,-0.030798,0.10039,-0.0960097,0.0963019,-0.036715,0.0028042,0.239117,-1.36935,0.0563264,-0.869042,-2.86858,-1.16971,0.387228,1.27307,-34.2485,0.961012,30.1169,2.84698,2.97356,-0.050247,
0.101891,-0.0500483,0.14686,-1.95513,0.326908,0.0883121,-0.0223062,0.0919346,0.00389769,0.097411,-0.189684,0.754711,0.228377,0.00776618,0.347609,-0.907457,0.312292,2.34914,11.2421,4.41629,0.0586906,11.6531,-0.49638,12.1537,-16.8684,9.8853,2.85347,0.0796243,0.100548,-0.0482681,0.146594,-1.95199,0.303824,0.0794816,-0.0226063,0.0528282,-0.030798,0.10039,-0.0960097,0.0963019,-0.036715,0.0028042,0,0,0,0,0,0,0,1.27307,-34.2485,0.961012,30.1169,2.84698,2.97356,-0.050247,
0.101753,-0.0487708,0.147891,-1.9548,0.311816,0.0819361,-0.0224942,0.0890725,-0.00199952,0.0944796,-0.18819,0.722444,0.220002,0.00774959,-1.78885,-3.68576,-1.83208,0.933877,-20.167,-5.23425,-0.0103666,12.637,-0.710412,13.1269,-17.3987,9.8853,2.81195,0.0788965,0.100548,-0.0482681,0.146594,-1.95199,0.303824,0.0794816,-0.0226063,0.0528282,-0.030798,0.10039,-0.0960097,0.0963019,-0.036715,0.0028042,0,0,0,0,0,0,0,1.27307,-34.2485,0.961012,30.1169,2.84698,2.97356,-0.050247,
0.102411,-0.0488874,0.148591,-1.95626,0.317536,0.0837105,-0.0224306,0.0877045,-0.00451524,0.0930971,-0.186817,0.72094,0.220363,0.00778943,-0.854992,-1.57233,-0.864066,0.858231,-0.93993,0.225564,0.024895,12.1553,-0.627193,12.6161,-17.1457,9.8853,2.83884,0.0802418,0.100548,-0.0482681,0.146594,-1.95199,0.303824,0.0794816,-0.0226063,0.0528282,-0.030798,0.10039,-0.0960097,0.0963019,-0.036715,0.0028042,0,0,0,0,0,0,0,1.27307,-34.2485,0.961012,30.1169,2.84698,2.97356,-0.050247,
0.103114,-0.0489416,0.149336,-1.95766,0.323693,0.0856509,-0.0223654,0.0877286,-0.00496752,0.0930959,-0.184634,0.730697,0.224801,0.00785942,0.0150856,-0.282674,-0.000779812,1.36425,6.09791,2.7736,0.0437493,11.6499,-0.565848,12.158,-16.8439,9.87165,2.87823,0.0795083,0.102871,-0.048596,0.150129,-1.95688,0.307732,0.0789728,-0.0226129,0.0580105,-0.0376383,0.0684408,-0.091292,0.0963956,0.0169939,-0.000261587,0.64779,-0.855037,-3.99364,0.589721,0.011705,6.7136,-0.383223,-2.4046,-31.8007,-2.51036,21.5991,2.49908,1.40893,0.0101778,
0.103866,-0.0489582,0.150129,-1.95901,0.329785,0.08769,-0.0222998,0.0890046,-0.0043879,0.0943021,-0.181442,0.736844,0.230816,0.0079287,0.797495,0.362264,0.753892,1.9951,3.84196,3.75942,0.0432999,11.1952,-0.409249,11.7219,-16.5409,9.11801,2.88388,0.0789908,0.102871,-0.048596,0.150129,-1.95688,0.307732,0.0789728,-0.0226129,0.0580105,-0.0376383,0.0684408,-0.091292,0.0963956,0.0169939,-0.000261587,0,0,0,0,0,0,0,-2.4046,-31.8007,-2.51036,21.5991,2.49908,1.40893,0.0101778,
0.103909,-0.0491568,0.151255,-1.95957,0.315671,0.0819748,-0.0224996,0.0847275,-0.00922679,0.0900625,-0.180116,0.70738,0.227883,0.00788409,-2.67318,-3.02431,-2.64977,0.828332,-18.4152,-1.83301,-0.0278824,12.152,-0.696661,12.6204,-17.1212,9.87165,2.8636,0.0801258,0.102871,-0.048596,0.150129,-1.95688,0.307732,0.0789728,-0.0226129,0.0580105,-0.0376383,0.0684408,-0.091292,0.0963956,0.0169939,-0.000261587,0,0,0,0,0,0,0,-2.4046,-31.8007,-2.51036,21.5991,2.49908,1.40893,0.0101778,
0.104509,-0.049291,0.151898,-1.96095,0.321147,0.0839305,-0.0224344,0.0827852,-0.0107368,0.0881182,-0.178674,0.702804,0.231201,0.0079358,-1.21395,-0.943771,-1.2152,0.901799,-2.85999,2.07337,0.0323157,11.6499,-0.565848,12.158,-16.8439,9.87165,2.87823,0.0795083,0.102871,-0.048596,0.150129,-1.95688,0.307732,0.0789728,-0.0226129,0.0580105,-0.0376383,0.0684408,-0.091292,0.0963956,0.0169939,-0.000261587,0,0,0,0,0,0,0,-2.4046,-31.8007,-2.51036,21.5991,2.49908,1.40893,0.0101778,
0.105175,-0.0493617,0.152604,-1.96229,0.326766,0.0860097,-0.0223682,0.0828813,-0.0103552,0.0881552,-0.176297,0.702731,0.23694,0.00800329,0.060086,0.238529,0.0231696,1.48519,-0.0456607,3.5868,0.0421814,11.1843,-0.437096,11.7158,-16.5292,9.1072,2.89918,0.0789444,0.105486,-0.0486889,0.152992,-1.95958,0.310779,0.0792664,-0.0226159,0.0789867,0.0202753,0.0747215,-0.0390965,0.0657218,0.0391815,-0.0013114,2.62202,7.2392,0.785087,6.52443,-3.83422,2.77346,-0.131226,-3.44403,-30.2297,-3.63707,18.0365,1.88202,0.394522,0.0376436,
0.105899,-0.0493958,0.153367,-1.96357,0.332184,0.0881563,-0.0223038,0.0844045,-0.00913717,0.0895978,-0.173161,0.697621,0.243217,0.00801503,0.951961,0.761259,0.901632,1.95994,-3.19369,3.9231,0.00734176,10.7771,-0.290074,11.3108,-16.2197,7.76352,2.88558,0.0773623,0.105486,-0.0486889,0.152992,-1.95958,0.310779,0.0792664,-0.0226159,0.0789867,0.0202753,0.0747215,-0.0390965,0.0657218,0.0391815,-0.0013114,0,0,0,0,0,0,0,-3.44403,-30.2297,-3.63707,18.0365,1.88202,0.394522,0.0376436,
0.106605,-0.0488999,0.154208,-1.96216,0.318488,0.0828143,-0.0225144,0.0818497,-0.00974922,0.0871713,-0.17276,0.671116,0.243653,0.00788735,-1.59672,-0.382533,-1.51659,0.250974,-16.5655,0.27297,-0.079804,11.639,-0.593695,12.1519,-16.8322,9.86084,2.89352,0.0794619,0.105486,-0.0486889,0.152992,-1.95958,0.310779,0.0792664,-0.0226159,0.0789867,0.0202753,0.0747215,-0.0390965,0.0657218,0.0391815,-0.0013114,0,0,0,0,0,0,0,-3.44403,-30.2297,-3.63707,18.0365,1.88202,0.394522,0.0376436,
0.107233,-0.0489485,0.154879,-1.96352,0.323481,0.0849177,-0.0224504,0.0811898,-0.00901486,0.0865115,-0.172049,0.661726,0.247507,0.00791009,-0.412458,0.458976,-0.412378,0.444135,-5.86865,2.40887,0.0142119,11.1843,-0.437096,11.7158,-16.5292,9.1072,2.89918,0.0789444,0.105486,-0.0486889,0.152992,-1.95958,0.310779,0.0792664,-0.0226159,0.0789867,0.0202753,0.0747215,-0.0390965,0.0657218,0.0391815,-0.0013114,0,0,0,0,0,0,0,-3.44403,-30.2297,-3.63707,18.0365,1.88202,0.394522,0.0376436,
0.107918,-0.0489632,0.155604,-1.96483,0.328477,0.0870834,-0.0223867,0.0820728,-0.00757916,0.0873363,-0.170317,0.654279,0.252147,0.0079212,0.551906,0.89731,0.515536,1.08259,-4.6545,2.89984,0.00694826,10.7776,-0.318188,11.3147,-16.2174,7.75656,2.88996,0.0773671,0.107838,-0.0486129,0.155543,-1.96103,0.312917,0.0794355,-0.0226138,0.0590165,0.0171787,0.0644681,-0.0222652,0.0302798,0.0189377,-0.00121164,-2.49627,-0.38707,-1.28167,2.10391,-4.43026,-2.53048,0.0124695,-1.3374,-30.2297,-1.58599,21.7459,2.08984,0.891653,0.017502,
0.108804,-0.048884,0.156603,-1.96346,0.319571,0.0829391,-0.0225092,0.0784388,-0.00918044,0.0837541,-0.168819,0.620182,0.250731,0.00785129,-2.27126,-1.0008,-2.23893,0.936341,-21.3109,-0.884842,-0.0436994,11.1849,-0.46521,11.7197,-16.5269,9.10024,2.90356,0.0789493,0.107838,-0.0486129,0.155543,-1.96103,0.312917,0.0794355,-0.0226138,0.0590165,0.0171787,0.0644681,-0.0222652,0.0302798,0.0189377,-0.00121164,0,0,0,0,0,0,0,-1.3374,-30.2297,-1.58599,21.7459,2.08984,0.891653,0.017502,
0.109384,-0.0489548,0.157224,-1.96476,0.323809,0.0850547,-0.0224458,0.0772578,-0.00911589,0.0825311,-0.167493,0.602095,0.253477,0.00786528,-0.738127,0.0403468,-0.764348,0.828752,-11.3043,1.71591,0.0087463,10.7776,-0.318188,11.3147,-16.2174,7.75656,2.88996,0.0773671,0.107838,-0.0486129,0.155543,-1.96103,0.312917,0.0794355,-0.0226138,0.0590165,0.0171787,0.0644681,-0.0222652,0.0302798,0.0189377,-0.00121164,0,0,0,0,0,0,0,-1.3374,-30.2297,-1.58599,21.7459,2.08984,0.891653,0.017502,
0.110028,-0.0489872,0.157907,-1.96602,0.328018,0.0872352,-0.0223831,0.0779115,-0.00810134,0.0831034,-0.165489,0.586907,0.257294,0.00786115,0.408523,0.634092,0.357705,1.25272,-9.49246,2.38556,-0.00258302,10.4264,-0.194085,10.9578,-15.9104,6.58576,2.85806,0.0747309,0.107838,-0.0486129,0.155543,-1.96103,0.312917,0.0794355,-0.0226138,0.0590165,0.0171787,0.0644681,-0.0222652,0.0302798,0.0189377,-0.00121164,0,0,0,0,0,0,0,-1.3374,-30.2297,-1.58599,21.7459,2.08984,0.891653,0.017502,
0.110726,-0.0489979,0.158643,-1.96724,0.331974,0.0894391,-0.0223215,0.0797642,-0.00674922,0.0848624,-0.162888,0.568419,0.260933,0.00782899,1.15793,0.845073,1.09937,1.62543,-11.555,2.27421,-0.0200963,10.1438,-0.111666,10.6682,-15.5983,5.54057,2.82627,0.0725697,0.109216,-0.0483894,0.158417,-1.96246,0.313855,0.0795573,-0.0226071,0.0298309,0.0253757,0.0973261,-0.0425106,-0.00289793,0.0108271,0.000226069,-3.6482,1.02463,4.10726,-2.53068,-4.14721,-1.01383,0.179714,-0.805783,-29.6306,-1.0385,23.067,1.99188,0.96398,-0.0429228,
0.110215,-0.0485114,0.159517,-1.96496,0.319236,0.0827874,-0.0225022,0.0769747,-0.0068299,0.0821601,-0.163313,0.534041,0.254364,0.00773842,-1.7434,-0.0504264,-1.68897,-0.26583,-21.4859,-4.10549,-0.0566087,10.7799,-0.335794,11.3196,-16.2098,7.75605,2.89771,0.0773383,0.109216,-0.0483894,0.158417,-1.96246,0.313855,0.0795573,-0.0226071,0.0298309,0.0253757,0.0973261,-0.0425106,-0.00289793,0.0108271,0.000226069,0,0,0,0,0,0,0,-0.805783,-29.6306,-1.0385,23.067,1.99188,0.96398,-0.0429228,
0.110803,-0.04853,0.160146,-1.96627,0.322733,0.0847825,-0.0224407,0.0762866,-0.00593106,0.081455,-0.163259,0.514662,0.253369,0.00772985,-0.43006,0.561778,-0.4407,0.0338678,-12.1124,-0.622023,-0.00535332,10.4287,-0.211692,10.9627,-15.9029,6.58525,2.86581,0.0747021,0.109216,-0.0483894,0.158417,-1.96246,0.313855,0.0795573,-0.0226071,0.0298309,0.0253757,0.0973261,-0.0425106,-0.00289793,0.0108271,0.000226069,0,0,0,0,0,0,0,-0.805783,-29.6306,-1.0385,23.067,1.99188,0.96398,-0.0429228,
0.111449,-0.0485223,0.160831,-1.96753,0.326203,0.0868591,-0.0223792,0.0771695,-0.00455106,0.082275,-0.162141,0.498458,0.254611,0.00771992,0.551806,0.862502,0.512535,0.698668,-10.127,0.776362,-0.00620909,10.1438,-0.111666,10.6682,-15.5983,5.54057,2.82627,0.0725697,0.109216,-0.0483894,0.158417,-1.96246,0.313855,0.0795573,-0.0226071,0.0298309,0.0253757,0.0973261,-0.0425106,-0.00289793,0.0108271,0.000226069,0,0,0,0,0,0,0,-0.805783,-29.6306,-1.0385,23.067,1.99188,0.96398,-0.0429228,
0.112143,-0.0485019,0.161562,-1.96875,0.329444,0.088974,-0.0223183,0.079074,-0.00313132,0.0840977,-0.160165,0.479803,0.25656,0.00769966,1.1903,0.887335,1.13919,1.23528,-11.6594,1.21827,-0.012661,9.91841,-0.0354887,10.4321,-15.2968,4.60327,2.78686,0.0712429,0.109216,-0.0483894,0.158417,-1.96246,0.313855,0.0795573,-0.0226071,0.0298309,0.0253757,0.0973261,-0.0425106,-0.00289793,0.0108271,0.000226069,0,0,0,0,0,0,0,-0.805783,-29.6306,-1.0385,23.067,1.99188,0.96398,-0.0429228,
0.110955,-0.0480341,0.162841,-1.96685,0.318261,0.0830841,-0.0225003,0.0766004,-0.00298994,0.081702,-0.161023,0.449364,0.248983,0.00761517,-1.54597,0.0883619,-1.49729,-0.536186,-19.0246,-4.73575,-0.0528094,10.4302,-0.230731,10.9659,-15.8916,6.58826,2.87503,0.0746564,0.109943,-0.0479918,0.161728,-1.96433,0.313831,0.0799878,-0.0226055,0.0126662,0.0258972,0.112843,-0.0623805,-0.0110719,0.0185067,0.000383026,-2.14559,0.0651796,1.93957,-2.48373,-1.02175,0.959953,0.0196196,1.12232,-30.5272,0.711073,24.5627,2.09625,0.944754,-0.0566557,
0.111547,-0.048024,0.163474,-1.96815,0.321143,0.0850086,-0.0224397,0.0760831,-0.00214061,0.0811678,-0.16114,0.431553,0.2473,0.00760819,-0.323349,0.530832,-0.333936,-0.0735141,-11.1322,-1.05187,-0.00436044,10.1453,-0.130705,10.6714,-15.587,5.54358,2.83549,0.072524,0.109943,-0.0479918,0.161728,-1.96433,0.313831,0.0799878,-0.0226055,0.0126662,0.0258972,0.112843,-0.0623805,-0.0110719,0.0185067,0.000383026,0,0,0,0,0,0,0,1.12232,-30.5272,0.711073,24.5627,2.09625,0.944754,-0.0566557,
0.112192,-0.0479951,0.164157,-1.9694,0.323983,0.0870224,-0.0223787,0.0770031,-0.000988453,0.0820279,-0.160119,0.416241,0.248183,0.00761007,0.575014,0.720098,0.537568,0.638461,-9.56983,0.552187,0.0011755,9.91988,-0.0545281,10.4353,-15.2855,4.60628,2.79608,0.0711973,0.109943,-0.0479918,0.161728,-1.96433,0.313831,0.0799878,-0.0226055,0.0126662,0.0258972,0.112843,-0.0623805,-0.0110719,0.0185067,0.000383026,0,0,0,0,0,0,0,1.12232,-30.5272,0.711073,24.5627,2.09625,0.944754,-0.0566557,
0.112882,-0.0479589,0.164884,-1.9706,0.32661,0.0890819,-0.0223179,0.0788433,0.00011262,0.0837908,-0.158213,0.398676,0.250034,0.00760805,1.15015,0.688171,1.10181,1.19131,-10.978,1.15698,-0.00126495,9.74227,-0.000993128,10.2461,-14.9877,3.76599,2.75667,0.0707276,0.109943,-0.0479918,0.161728,-1.96433,0.313831,0.0799878,-0.0226055,0.0126662,0.0258972,0.112843,-0.0623805,-0.0110719,0.0185067,0.000383026,0,0,0,0,0,0,0,1.12232,-30.5272,0.711073,24.5627,2.09625,0.944754,-0.0566557,
0.110975,-0.0480244,0.162858,-1.96678,0.317535,0.0830201,-0.0225006,0.0766754,-0.000315578,0.0816749,-0.15855,0.373521,0.242927,0.00752971,-1.35497,-0.267624,-1.3224,-0.210791,-15.7218,-4.44189,-0.0489576,10.146,-0.141822,10.6714,-15.5704,5.54849,2.84888,0.0724564,0.110396,-0.0472347,0.165194,-1.96682,0.31354,0.0807144,-0.0226093,0.00663119,0.0338004,0.116594,-0.0849773,-0.00895342,0.021904,-0.000857515,-0.754378,0.987903,0.46895,-2.8246,0.264812,0.424659,-0.155068,1.88404,-31.9237,1.46089,26.4789,2.17498,1.37505,-0.0227812,
0.111575,-0.0480143,0.163496,-1.96804,0.319909,0.0849121,-0.0224403,0.0763307,1.52133e-06,0.0813034,-0.158335,0.358178,0.241642,0.00753162,-0.21542,0.198187,-0.232214,0.134182,-9.5898,-0.803365,0.00118912,9.92063,-0.0656448,10.4353,-15.269,4.6112,2.80947,0.0711297,0.110396,-0.0472347,0.165194,-1.96682,0.31354,0.0807144,-0.0226093,0.00663119,0.0338004,0.116594,-0.0849773,-0.00895342,0.021904,-0.000857515,0,0,0,0,0,0,0,1.88404,-31.9237,1.46089,26.4789,2.17498,1.37505,-0.0227812,
0.112224,-0.0479869,0.164183,-1.96926,0.322219,0.0868944,-0.0223795,0.0772922,0.000686481,0.0822042,-0.157148,0.344288,0.242871,0.00754629,0.600899,0.4281,0.562987,0.741925,-8.68067,0.767915,0.0091709,9.74302,-0.0121098,10.2461,-14.9712,3.77091,2.77006,0.07066,0.110396,-0.0472347,0.165194,-1.96682,0.31354,0.0807144,-0.0226093,0.00663119,0.0338004,0.116594,-0.0849773,-0.00895342,0.021904,-0.000857515,0,0,0,0,0,0,0,1.88404,-31.9237,1.46089,26.4789,2.17498,1.37505,-0.0227812,
0.111439,-0.0471169,0.166333,-1.96934,0.316526,0.0835613,-0.0225021,0.0756064,0.00183794,0.08055,-0.158096,0.319282,0.234721,0.0074963,-1.05363,0.71966,-1.03385,-0.592754,-15.6288,-5.09339,-0.0312433,9.92063,-0.0656448,10.4353,-15.269,4.6112,2.80947,0.0711297,0.110396,-0.0472347,0.165194,-1.96682,0.31354,0.0807144,-0.0226093,0.00663119,0.0338004,0.116594,-0.0849773,-0.00895342,0.021904,-0.000857515,0,0,0,0,0,0,0,1.88404,-31.9237,1.46089,26.4789,2.17498,1.37505,-0.0227812,
0.112044,-0.0470557,0.166975,-1.97061,0.318413,0.0853627,-0.0224415,0.0755998,0.00299932,0.0805087,-0.158098,0.302582,0.232814,0.00751281,-0.00412749,0.725867,-0.0257957,-0.00119997,-10.438,-1.19215,0.0103168,9.74677,-0.0380679,10.2494,-14.9488,3.77885,2.78669,0.0705669,0.110775,-0.0465785,0.168605,-1.9701,0.31269,0.0809272,-0.0226106,0.00450502,0.0122409,0.114762,-0.101028,-0.025031,-0.000512877,4.74262e-05,-0.265772,-2.69493,-0.228985,-2.0064,-2.0097,-2.80211,0.113118,2.82032,-32.1498,2.41304,27.1771,2.38281,1.59386,-0.0429228,
0.112695,-0.0469905,0.167663,-1.97182,0.320221,0.0872657,-0.0223802,0.0767532,0.0040303,0.0815982,-0.156957,0.287279,0.233824,0.00754148,0.720905,0.644362,0.680915,0.713086,-9.56409,0.631488,0.0179188,9.60484,-0.00477866,10.0959,-14.6551,3.03126,2.7495,0.070649,0.110775,-0.0465785,0.168605,-1.9701,0.31269,0.0809272,-0.0226106,0.00450502,0.0122409,0.114762,-0.101028,-0.025031,-0.000512877,4.74262e-05,0,0,0,0,0,0,0,2.82032,-32.1498,2.41304,27.1771,2.38281,1.59386,-0.0429228,
0.113383,-0.0469283,0.168387,-1.973,0.321839,0.0892254,-0.0223188,0.0786009,0.00477898,0.0833701,-0.154962,0.270267,0.236052,0.00756877,1.15478,0.467925,1.10746,1.24729,-10.6324,1.39249,0.0170575,9.48825,0.0109489,9.96764,-14.3654,2.36938,2.71305,0.0712299,0.110775,-0.0465785,0.168605,-1.9701,0.31269,0.0809272,-0.0226106,0.00450502,0.0122409,0.114762,-0.101028,-0.025031,-0.000512877,4.74262e-05,0,0,0,0,0,0,0,2.82032,-32.1498,2.41304,27.1771,2.38281,1.59386,-0.0429228,
0.111826,-0.0465897,0.169746,-1.97259,0.314902,0.0834062,-0.0224991,0.0767887,0.00389711,0.0815735,-0.155636,0.249324,0.225265,0.0075423,-1.13261,-0.551171,-1.12291,-0.421289,-13.0893,-6.74202,-0.0165448,9.74677,-0.0380679,10.2494,-14.9488,3.77885,2.78669,0.0705669,0.110775,-0.0465785,0.168605,-1.9701,0.31269,0.0809272,-0.0226106,0.00450502,0.0122409,0.114762,-0.101028,-0.025031,-0.000512877,4.74262e-05,0,0,0,0,0,0,0,2.82032,-32.1498,2.41304,27.1771,2.38281,1.59386,-0.0429228,
0.112435,-0.046562,0.170393,-1.97382,0.316333,0.0850932,-0.0224378,0.0766643,0.00380855,0.0814154,-0.155364,0.235235,0.222387,0.00756614,-0.0777375,-0.0553474,-0.098809,0.169758,-8.80606,-1.79885,0.014902,9.60271,-0.0377633,10.0941,-14.6322,3.03858,2.76597,0.0705648,0.111263,-0.0461542,0.171495,-1.97359,0.311184,0.0809947,-0.0226077,0.0147488,0.0147938,0.0803749,-0.0999304,-0.0511015,0.00660214,0.000254069,1.28047,0.319114,-4.29844,0.137253,-3.2588,0.889377,0.0258303,-0.0718349,-31.2254,-0.463243,25.011,1.98639,1.54809,-0.050247,
0.113089,-0.0465212,0.171082,-1.97501,0.317692,0.0869148,-0.0223761,0.0776631,0.004067,0.0823596,-0.154062,0.222178,0.223448,0.0075957,0.624249,0.16153,0.590142,0.813599,-8.16021,0.663276,0.0184726,9.48612,-0.0220358,9.96575,-14.3426,2.3767,2.72952,0.0711458,0.111263,-0.0461542,0.171495,-1.97359,0.311184,0.0809947,-0.0226077,0.0147488,0.0147938,0.0803749,-0.0999304,-0.0511015,0.00660214,0.000254069,0,0,0,0,0,0,0,-0.0718349,-31.2254,-0.463243,25.011,1.98639,1.54809,-0.050247,
0.113776,-0.0464773,0.171804,-1.97616,0.318885,0.0888152,-0.0223143,0.0793152,0.0043526,0.0839477,-0.152003,0.207555,0.226271,0.00762344,1.03253,0.1785,0.992555,1.28724,-9.13983,1.76418,0.0173374,9.38615,-0.0208376,9.85448,-14.0568,1.79714,2.69484,0.0718894,0.111263,-0.0461542,0.171495,-1.97359,0.311184,0.0809947,-0.0226077,0.0147488,0.0147938,0.0803749,-0.0999304,-0.0511015,0.00660214,0.000254069,0,0,0,0,0,0,0,-0.0718349,-31.2254,-0.463243,25.011,1.98639,1.54809,-0.050247,
0.112199,-0.0461351,0.172512,-1.97602,0.31258,0.0835381,-0.0224916,0.0761079,0.00385974,0.0807331,-0.152516,0.188034,0.218164,0.00763553,-2.00455,-0.308042,-2.00913,-0.320431,-12.2003,-5.06655,0.00755718,9.60271,-0.0377633,10.0941,-14.6322,3.03858,2.76597,0.0705648,0.111263,-0.0461542,0.171495,-1.97359,0.311184,0.0809947,-0.0226077,0.0147488,0.0147938,0.0803749,-0.0999304,-0.0511015,0.00660214,0.000254069,0,0,0,0,0,0,0,-0.0718349,-31.2254,-0.463243,25.011,1.98639,1.54809,-0.050247,
0.112769,-0.0461001,0.173117,-1.97723,0.313548,0.0852484,-0.0224289,0.0751335,0.00396208,0.0797217,-0.152179,0.174636,0.21729,0.00767618,-0.608991,0.0639635,-0.632093,0.210373,-8.37358,-0.546463,0.0254054,9.48574,-0.0472774,9.96396,-14.3156,2.3852,2.74861,0.0710368,0.111956,-0.0455309,0.174264,-1.97701,0.309763,0.0809849,-0.0226052,0.0314549,0.0133963,0.0620101,-0.102176,-0.0425199,0.00542518,0.000768587,2.08826,-0.174698,-2.29559,-0.280645,1.07269,-0.14712,0.0643148,-0.781979,-30.9517,-0.986925,24.4635,1.68701,1.62774,-0.0630644,
0.113389,-0.0460552,0.173773,-1.9784,0.314458,0.0870871,-0.022366,0.0756218,0.00429325,0.0801602,-0.150889,0.162456,0.219799,0.00771248,0.30517,0.206981,0.274069,0.805976,-7.61255,1.56809,0.0226873,9.38578,-0.0460792,9.85268,-14.0299,1.80564,2.71393,0.0717805,0.111956,-0.0455309,0.174264,-1.97701,0.309763,0.0809849,-0.0226052,0.0314549,0.0133963,0.0620101,-0.102176,-0.0425199,0.00542518,0.000768587,0,0,0,0,0,0,0,-0.781979,-30.9517,-0.986925,24.4635,1.68701,1.62774,-0.0630644,
0.114048,-0.0460091,0.174466,-1.97952,0.315231,0.0889989,-0.0223033,0.0769752,0.00458662,0.0814587,-0.148892,0.149297,0.223633,0.00773793,0.845899,0.183358,0.811511,1.24819,-8.22443,2.39632,0.0159104,9.29585,-0.0565567,9.75145,-13.7477,1.30065,2.67982,0.072685,0.111956,-0.0455309,0.174264,-1.97701,0.309763,0.0809849,-0.0226052,0.0314549,0.0133963,0.0620101,-0.102176,-0.0425199,0.00542518,0.000768587,0,0,0,0,0,0,0,-0.781979,-30.9517,-0.986925,24.4635,1.68701,1.62774,-0.0630644,
0.112903,-0.0455127,0.175285,-1.97939,0.310769,0.083459,-0.0224858,0.0743954,0.00402402,0.0788618,-0.149308,0.135241,0.215231,0.00775623,-1.6124,-0.351623,-1.62302,-0.259947,-8.78519,-5.25124,0.0114323,9.48574,-0.0472774,9.96396,-14.3156,2.3852,2.74861,0.0710368,0.111956,-0.0455309,0.174264,-1.97701,0.309763,0.0809849,-0.0226052,0.0314549,0.0133963,0.0620101,-0.102176,-0.0425199,0.00542518,0.000768587,0,0,0,0,0,0,0,-0.781979,-30.9517,-0.986925,24.4635,1.68701,1.62774,-0.0630644,
0.113479,-0.0454808,0.175895,-1.98057,0.311443,0.0851421,-0.0224223,0.0738959,0.00401847,0.0783287,-0.148923,0.125059,0.214262,0.00779174,-0.312161,-0.00346902,-0.333214,0.240525,-6.36366,-0.605363,0.0221975,9.38528,-0.0747443,9.85153,-14.003,1.81177,2.73339,0.0716725,0.11275,-0.0450501,0.176789,-1.98056,0.308976,0.0809953,-0.0226084,0.0311617,0.0155796,0.0611062,-0.0990546,-0.0287624,0.00368482,0.000888843,-0.0366468,0.272914,-0.112988,0.390127,1.71969,-0.217544,0.015032,-1.66668,-31.4,-1.83592,24.5627,1.63208,1.51513,-0.0703886,
0.114102,-0.0454401,0.176552,-1.98171,0.312049,0.0869577,-0.022359,0.0747012,0.00423109,0.079093,-0.14765,0.115182,0.216801,0.00781619,0.503286,0.132888,0.477719,0.796138,-6.17289,1.58671,0.0152814,9.29535,-0.0852218,9.7503,-13.7209,1.30678,2.69929,0.0725771,0.11275,-0.0450501,0.176789,-1.98056,0.308976,0.0809953,-0.0226084,0.0311617,0.0155796,0.0611062,-0.0990546,-0.0287624,0.00368482,0.000888843,0,0,0,0,0,0,0,-1.66668,-31.4,-1.83592,24.5627,1.63208,1.51513,-0.0703886,
0.114761,-0.0453988,0.177245,-1.98281,0.312527,0.0888491,-0.022296,0.0762362,0.00441708,0.080583,-0.145711,0.104102,0.220724,0.00782926,0.959409,0.116239,0.931206,1.21162,-6.92514,2.45165,0.00816901,9.21018,-0.104654,9.65427,-13.442,0.872521,2.66647,0.0733843,0.11275,-0.0450501,0.176789,-1.98056,0.308976,0.0809953,-0.0226084,0.0311617,0.0155796,0.0611062,-0.0990546,-0.0287624,0.00368482,0.000888843,0,0,0,0,0,0,0,-1.66668,-31.4,-1.83592,24.5627,1.63208,1.51513,-0.0703886,
0.11371,-0.0450187,0.177819,-1.98288,0.309707,0.0834393,-0.0224861,0.0739769,0.0039685,0.0782983,-0.145988,0.0943496,0.212553,0.00785723,-1.41209,-0.280362,-1.42791,-0.173167,-6.09534,-5.10691,0.0174804,9.38528,-0.0747443,9.85153,-14.003,1.81177,2.73339,0.0716725,0.11275,-0.0450501,0.176789,-1.98056,0.308976,0.0809953,-0.0226084,0.0311617,0.0155796,0.0611062,-0.0990546,-0.0287624,0.00368482,0.000888843,0,0,0,0,0,0,0,-1.66668,-31.4,-1.83592,24.5627,1.63208,1.51513,-0.0703886,
0.11429,-0.0449878,0.178433,-1.98403,0.310145,0.0851095,-0.022422,0.0737015,0.00394647,0.0779924,-0.145563,0.0864377,0.211798,0.00788826,-0.172129,-0.0137684,-0.19122,0.265661,-4.94496,-0.47186,0.0193936,9.29397,-0.106404,9.74688,-13.6959,1.31175,2.71724,0.072479,0.113515,-0.0443971,0.17926,-1.98361,0.308313,0.081002,-0.0226064,0.0271916,0.0248825,0.0643638,-0.087473,-0.0148747,0.00407181,0.000948663,-0.496257,1.16287,0.407197,1.4477,1.73597,0.048373,0.00747755,-1.51593,-31.3008,-1.78832,24.6857,1.46087,1.4547,-0.0630644,
0.114917,-0.0449506,0.179092,-1.98514,0.3105,0.0869123,-0.0223583,0.0746223,0.00408732,0.0788798,-0.144317,0.0780297,0.214509,0.00790379,0.575546,0.0880308,0.554619,0.778794,-5.25497,1.69434,0.00970822,9.2088,-0.125835,9.65085,-13.417,0.87749,2.68443,0.0732862,0.113515,-0.0443971,0.17926,-1.98361,0.308313,0.081002,-0.0226064,0.0271916,0.0248825,0.0643638,-0.087473,-0.0148747,0.00407181,0.000948663,0,0,0,0,0,0,0,-1.51593,-31.3008,-1.78832,24.6857,1.46087,1.4547,-0.0630644,
0.115576,-0.0449139,0.179784,-1.98622,0.310734,0.0887906,-0.0222951,0.0761768,0.00418826,0.0803983,-0.142448,0.0682813,0.218564,0.00790317,0.971553,0.063093,0.949096,1.16838,-6.09278,2.53456,-0.00038687,9.12467,-0.15185,9.55599,-13.1409,0.505797,2.65217,0.0740737,0.113515,-0.0443971,0.17926,-1.98361,0.308313,0.081002,-0.0226064,0.0271916,0.0248825,0.0643638,-0.087473,-0.0148747,0.00407181,0.000948663,0,0,0,0,0,0,0,-1.51593,-31.3008,-1.78832,24.6857,1.46087,1.4547,-0.0630644,
0.114482,-0.0443174,0.180295,-1.98585,0.308846,0.0835004,-0.0224824,0.0740435,0.00416651,0.0782312,-0.142531,0.0620582,0.211441,0.00793525,-1.33333,-0.0135964,-1.35447,-0.0523077,-3.88939,-4.45173,0.0200479,9.29397,-0.106404,9.74688,-13.6959,1.31175,2.71724,0.072479,0.113515,-0.0443971,0.17926,-1.98361,0.308313,0.081002,-0.0226064,0.0271916,0.0248825,0.0643638,-0.087473,-0.0148747,0.00407181,0.000948663,0,0,0,0,0,0,0,-1.51593,-31.3008,-1.78832,24.6857,1.46087,1.4547,-0.0630644,
0.115066,-0.0442802,0.180912,-1.98697,0.309094,0.0851853,-0.0224177,0.073837,0.00426272,0.0779939,-0.142084,0.0558314,0.211277,0.00796409,-0.129042,0.0601308,-0.148285,0.279372,-3.89175,-0.10246,0.0180227,9.2088,-0.125835,9.65085,-13.417,0.87749,2.68443,0.0732862,0.113515,-0.0443971,0.17926,-1.98361,0.308313,0.081002,-0.0226064,0.0271916,0.0248825,0.0643638,-0.087473,-0.0148747,0.00407181,0.000948663,0,0,0,0,0,0,0,-1.51593,-31.3008,-1.78832,24.6857,1.46087,1.4547,-0.0630644,
0.115694,-0.0442415,0.181571,-1.98806,0.309243,0.0869944,-0.0223538,0.074755,0.0043779,0.0788825,-0.140892,0.0484089,0.214248,0.00797022,0.573706,0.0719883,0.555394,0.744902,-4.63908,1.85668,0.00383188,9.12452,-0.174015,9.55409,-13.1188,0.509169,2.6682,0.0739869,0.11414,-0.0437845,0.181708,-1.98637,0.308039,0.0809871,-0.022611,0.0193836,0.0239296,0.0668445,-0.0769412,-0.00541076,-0.00220302,0.000118235,-0.976002,-0.119112,0.310093,1.31648,1.18299,-0.784354,-0.103803,-0.198788,-31.4754,-0.510851,25.6815,1.49749,1.57464,-0.050247,
0.116351,-0.0442058,0.182261,-1.98911,0.309276,0.0888725,-0.0222905,0.0762432,0.00439363,0.0803401,-0.139112,0.0395412,0.218351,0.00795816,0.930125,0.00982954,0.91096,1.11299,-5.54234,2.56421,-0.00753495,9.03856,-0.204534,9.45784,-12.8451,0.19612,2.63705,0.0745489,0.11414,-0.0437845,0.181708,-1.98637,0.308039,0.0809871,-0.022611,0.0193836,0.0239296,0.0668445,-0.0769412,-0.00541076,-0.00220302,0.000118235,0,0,0,0,0,0,0,-0.198788,-31.4754,-0.510851,25.6815,1.49749,1.57464,-0.050247,
0.115093,-0.0437411,0.182726,-1.98851,0.30837,0.0834777,-0.0224848,0.0739715,0.00386133,0.0780192,-0.138755,0.0356107,0.211324,0.00800443,-1.41981,-0.332685,-1.45054,0.222609,-2.45656,-4.39173,0.0289145,9.20864,-0.148,9.64895,-13.3949,0.880862,2.70046,0.0731995,0.11414,-0.0437845,0.181708,-1.98637,0.308039,0.0809871,-0.022611,0.0193836,0.0239296,0.0668445,-0.0769412,-0.00541076,-0.00220302,0.000118235,0,0,0,0,0,0,0,-0.198788,-31.4754,-0.510851,25.6815,1.49749,1.57464,-0.050247,
0.115673,-0.0437214,0.183337,-1.98959,0.308446,0.0851674,-0.0224196,0.073682,0.00358112,0.0776961,-0.138126,0.0303899,0.211302,0.00803258,-0.18094,-0.175131,-0.201935,0.393495,-3.26297,-0.0138644,0.0175961,9.12452,-0.174015,9.55409,-13.1188,0.509169,2.6682,0.0739869,0.11414,-0.0437845,0.181708,-1.98637,0.308039,0.0809871,-0.022611,0.0193836,0.0239296,0.0668445,-0.0769412,-0.00541076,-0.00220302,0.000118235,0,0,0,0,0,0,0,-0.198788,-31.4754,-0.510851,25.6815,1.49749,1.57464,-0.050247,
0.116296,-0.0436982,0.183992,-1.99065,0.308416,0.0869801,-0.0223554,0.074521,0.00344532,0.0785091,-0.136901,0.0235681,0.214359,0.00803127,0.524389,-0.0848737,0.508089,0.765327,-4.26362,1.911,-0.000817912,9.03921,-0.228436,9.45735,-12.824,0.199129,2.65215,0.0744672,0.114685,-0.0432287,0.184334,-1.98898,0.307949,0.0809971,-0.0226115,0.0123894,0.015212,0.0725156,-0.0739529,0.00132135,-0.00411411,0.000109189,-0.87428,-1.0897,0.708876,0.37353,0.841514,-0.238885,-0.00113079,-0.222592,-31.7491,-0.387865,25.8798,1.47918,1.52794,-0.0429228,
0.116948,-0.0436759,0.184674,-1.99167,0.308276,0.0888597,-0.0222922,0.0759151,0.00331257,0.0798789,-0.135178,0.0153576,0.218477,0.00800557,0.871308,-0.0829685,0.856123,1.07737,-5.13156,2.57383,-0.0160607,8.94958,-0.261718,9.35761,-12.5524,-0.0631857,2.6217,0.0749089,0.114685,-0.0432287,0.184334,-1.98898,0.307949,0.0809971,-0.0226115,0.0123894,0.015212,0.0725156,-0.0739529,0.00132135,-0.00411411,0.000109189,0,0,0,0,0,0,0,-0.222592,-31.7491,-0.387865,25.8798,1.47918,1.52794,-0.0429228,
0.115643,-0.0432657,0.185355,-1.99103,0.308091,0.0834537,-0.0224829,0.0737962,0.00212515,0.0777036,-0.134539,0.0132072,0.211089,0.0080592,-1.32431,-0.742141,-1.35955,0.399055,-1.34399,-4.61759,0.0335138,9.12517,-0.197918,9.5536,-13.0977,0.512178,2.6833,0.0739052,0.114685,-0.0432287,0.184334,-1.98898,0.307949,0.0809971,-0.0226115,0.0123894,0.015212,0.0725156,-0.0739529,0.00132135,-0.00411411,0.000109189,0,0,0,0,0,0,0,-0.222592,-31.7491,-0.387865,25.8798,1.47918,1.52794,-0.0429228,
0.116225,-0.043274,0.185968,-1.99207,0.308023,0.0851352,-0.0224175,0.0735971,0.00149302,0.0774724,-0.133794,0.00886641,0.210908,0.00808273,-0.124419,-0.395081,-0.144517,0.465664,-2.71302,-0.11332,0.0147093,9.03921,-0.228436,9.45735,-12.824,0.199129,2.65215,0.0744672,0.114685,-0.0432287,0.184334,-1.98898,0.307949,0.0809971,-0.0226115,0.0123894,0.015212,0.0725156,-0.0739529,0.00132135,-0.00411411,0.000109189,0,0,0,0,0,0,0,-0.222592,-31.7491,-0.387865,25.8798,1.47918,1.52794,-0.0429228,
0.116848,-0.0432735,0.186621,-1.9931,0.307847,0.0869421,-0.0223534,0.0744542,0.00120584,0.0783096,-0.132583,0.00269374,0.2139,0.00806899,0.535675,-0.179487,0.523278,0.757161,-3.85792,1.86983,-0.00858808,8.9507,-0.285559,9.35796,-12.53,-0.0595212,2.63757,0.0748242,0.115426,-0.0427021,0.187144,-1.9916,0.307918,0.0809996,-0.0226139,0.0263714,0.00809612,0.0757878,-0.074883,0.000641264,-0.00113715,-0.000614818,1.74775,-0.889484,0.409037,-0.116257,-0.085011,0.37212,-0.0905009,-0.274166,-31.8245,-0.487047,25.856,1.38763,1.72021,-0.0227812,
0.116478,-0.0427987,0.188257,-1.99359,0.307898,0.0834084,-0.0224865,0.073631,-0.000201147,0.0774388,-0.131689,0.000727954,0.206726,0.0080952,-0.514524,-0.879366,-0.54425,0.55815,-1.22861,-4.48337,0.0163795,9.04033,-0.252278,9.4577,-12.8016,0.202793,2.66803,0.0743825,0.115426,-0.0427021,0.187144,-1.9916,0.307918,0.0809996,-0.0226139,0.0263714,0.00809612,0.0757878,-0.074883,0.000641264,-0.00113715,-0.000614818,0,0,0,0,0,0,0,-0.274166,-31.8245,-0.487047,25.856,1.38763,1.72021,-0.0227812,
0.11709,-0.0428281,0.188898,-1.99461,0.307729,0.0850618,-0.0224218,0.0741869,-0.000895197,0.0779708,-0.130772,-0.00365938,0.206716,0.008093,0.347484,-0.433781,0.332511,0.573451,-2.74209,-0.00637138,-0.0013701,8.9507,-0.285559,9.35796,-12.53,-0.0595212,2.63757,0.0748242,0.115426,-0.0427021,0.187144,-1.9916,0.307918,0.0809996,-0.0226139,0.0263714,0.00809612,0.0757878,-0.074883,0.000641264,-0.00113715,-0.000614818,0,0,0,0,0,0,0,-0.274166,-31.8245,-0.487047,25.856,1.38763,1.72021,-0.0227812,
0.117732,-0.0428453,0.189571,-1.9956,0.307453,0.0868425,-0.0223585,0.0754209,-0.00114739,0.0791915,-0.129473,-0.00981838,0.20989,0.00805861,0.771257,-0.157619,0.762937,0.812148,-3.84937,1.98375,-0.0214967,8.85605,-0.320201,9.25363,-12.2601,-0.274713,2.6082,0.0749901,0.115426,-0.0427021,0.187144,-1.9916,0.307918,0.0809996,-0.0226139,0.0263714,0.00809612,0.0757878,-0.074883,0.000641264,-0.00113715,-0.000614818,0,0,0,0,0,0,0,-0.274166,-31.8245,-0.487047,25.856,1.38763,1.72021,-0.0227812,
0.118395,-0.0428566,0.190262,-1.99657,0.307084,0.0886929,-0.0222964,0.0768904,-0.00120033,0.0806499,-0.127817,-0.0170839,0.214173,0.00799945,0.918397,-0.0330895,0.911518,1.03481,-4.54093,2.67699,-0.0369773,8.75563,-0.384924,9.14415,-11.971,-0.447237,2.59431,0.0749249,0.116351,-0.0423655,0.189776,-1.99434,0.307902,0.0810878,-0.0226095,0.022067,0.0052864,0.0774835,-0.0765448,0.00123737,0.00493318,-0.00125904,-0.538049,-0.351214,0.211962,-0.207735,0.0745128,0.758791,-0.0805281,0.614505,-31.5508,0.338148,24.6619,1.46087,1.57464,-0.0227812,
0.117394,-0.0424764,0.190879,-1.99629,0.307696,0.0835042,-0.0224807,0.0754765,-0.00228146,0.0791864,-0.127247,-0.0178284,0.206915,0.00804724,-0.883679,-0.675706,-0.914689,0.356029,-0.465341,-4.53636,0.0298743,8.95067,-0.315412,9.35832,-12.5094,-0.056765,2.65215,0.0747486,0.116351,-0.0423655,0.189776,-1.99434,0.307902,0.0810878,-0.0226095,0.022067,0.0052864,0.0774835,-0.0765448,0.00123737,0.00493318,-0.00125904,0,0,0,0,0,0,0,0.614505,-31.5508,0.338148,24.6619,1.46087,1.57464,-0.0227812,
0.118,-0.042512,0.191514,-1.99728,0.307409,0.0851529,-0.0224161,0.0755424,-0.00271525,0.0792303,-0.126592,-0.0214383,0.206748,0.00805313,0.0412062,-0.271119,0.0274188,0.409647,-2.25618,-0.104338,0.00367751,8.85602,-0.350054,9.25398,-12.2395,-0.271957,2.62278,0.0749145,0.116351,-0.0423655,0.189776,-1.99434,0.307902,0.0810878,-0.0226095,0.022067,0.0052864,0.0774835,-0.0765448,0.00123737,0.00493318,-0.00125904,0,0,0,0,0,0,0,0.614505,-31.5508,0.338148,24.6619,1.46087,1.57464,-0.0227812,
0.118637,-0.0425356,0.19218,-1.99825,0.307021,0.0869269,-0.0223531,0.0763526,-0.00276025,0.0800312,-0.125529,-0.0268491,0.20975,0.00801716,0.50635,-0.0281273,0.500531,0.664293,-3.38178,1.87592,-0.0224799,8.75563,-0.384924,9.14415,-11.971,-0.447237,2.59431,0.0749249,0.116351,-0.0423655,0.189776,-1.99434,0.307902,0.0810878,-0.0226095,0.022067,0.0052864,0.0774835,-0.0765448,0.00123737,0.00493318,-0.00125904,0,0,0,0,0,0,0,0.614505,-31.5508,0.338148,24.6619,1.46087,1.57464,-0.0227812,
0.119292,-0.042553,0.192864,-1.99919,0.306551,0.0887695,-0.0222916,0.0774489,-0.00264275,0.0811209,-0.124086,-0.0332307,0.213864,0.00795278,0.685222,0.0734412,0.681095,0.901713,-3.98849,2.57137,-0.0402396,8.64988,-0.453633,9.03129,-11.683,-0.582128,2.58175,0.0745676,0.117302,-0.0422047,0.19261,-1.9971,0.307887,0.0811302,-0.0226097,0.0273583,0.00476276,0.080626,-0.0809849,0.00737272,0.00160949,-0.000606356,0.66141,-0.0654555,0.392809,-0.555002,0.76692,-0.415461,0.0815858,2.26093,-31.3524,1.93696,24.5349,1.52771,1.40893,-0.0301054,
0.118393,-0.0423057,0.193759,-1.99903,0.307603,0.0834338,-0.0224809,0.0764315,-0.00332705,0.0800633,-0.123967,-0.0321046,0.205262,0.00800165,-0.635909,-0.427691,-0.66102,0.0744862,0.703846,-5.37622,0.0305438,8.85683,-0.384477,9.25674,-12.219,-0.268389,2.63756,0.0748365,0.117302,-0.0422047,0.19261,-1.9971,0.307887,0.0811302,-0.0226097,0.0273583,0.00476276,0.080626,-0.0809849,0.00737272,0.00160949,-0.000606356,0,0,0,0,0,0,0,2.26093,-31.3524,1.93696,24.5349,1.52771,1.40893,-0.0301054,
0.119013,-0.0423395,0.194408,-2.00001,0.307251,0.0850325,-0.022417,0.0766516,-0.00350683,0.0802701,-0.1236,-0.0344805,0.204177,0.00800013,0.137607,-0.112362,0.129257,0.229472,-1.48497,-0.678232,-0.000946705,8.75644,-0.419347,9.14691,-11.9504,-0.443669,2.60909,0.0748469,0.117302,-0.0422047,0.19261,-1.9971,0.307887,0.0811302,-0.0226097,0.0273583,0.00476276,0.080626,-0.0809849,0.00737272,0.00160949,-0.000606356,0,0,0,0,0,0,0,2.26093,-31.3524,1.93696,24.5349,1.52771,1.40893,-0.0301054,
0.119658,-0.0423632,0.195082,-2.00096,0.306798,0.0867633,-0.0223548,0.0774467,-0.00339835,0.0810628,-0.122734,-0.0389024,0.206613,0.00795537,0.496917,0.0678038,0.495458,0.540867,-2.76366,1.52258,-0.0279745,8.64988,-0.453633,9.03129,-11.683,-0.582128,2.58175,0.0745676,0.117302,-0.0422047,0.19261,-1.9971,0.307887,0.0811302,-0.0226097,0.0273583,0.00476276,0.080626,-0.0809849,0.00737272,0.00160949,-0.000606356,0,0,0,0,0,0,0,2.26093,-31.3524,1.93696,24.5349,1.52771,1.40893,-0.0301054,
0.118393,-0.0423057,0.193759,-1.99903,0.307603,0.0834338,-0.0224809,0.0764297,-0.00393153,0.0800168,-0.122886,-0.0366419,0.199461,0.00800372,-0.635632,-0.333241,-0.653759,-0.0944788,1.4128,-4.46985,0.0302193,8.7565,-0.456103,9.14939,-11.9308,-0.44069,2.62283,0.0747762,0.118452,-0.0421247,0.195344,-1.99978,0.307888,0.0811346,-0.0226087,0.033567,0.00543235,0.0834864,-0.0728715,0.00591573,-0.00170003,0.00025995,0.776093,0.0836991,0.357548,1.01417,-0.182125,-0.413689,0.108288,1.17389,-31.2254,0.838026,25.4315,1.5158,1.4547,-0.0703886,
0.120218,-0.0422905,0.197196,-2.00259,0.307133,0.0850072,-0.0224187,0.0769268,-0.00427649,0.0805016,-0.122061,-0.0392619,0.19926,0.00797876,0.310695,-0.215596,0.303012,0.515224,-1.6375,-0.125842,-0.0156028,8.64993,-0.490389,9.03377,-11.6634,-0.579149,2.5955,0.074497,0.118452,-0.0421247,0.195344,-1.99978,0.307888,0.0811346,-0.0226087,0.033567,0.00543235,0.0834864,-0.0728715,0.00591573,-0.00170003,0.00025995,0,0,0,0,0,0,0,1.17389,-31.2254,0.838026,25.4315,1.5158,1.4547,-0.0703886,
0.120869,-0.0423249,0.197875,-2.00352,0.306637,0.0867256,-0.0223575,0.0778112,-0.00428301,0.0813852,-0.120874,-0.0438129,0.202369,0.00791248,0.552741,-0.00407494,0.552237,0.741778,-2.84441,1.94296,-0.0414262,8.53712,-0.523454,8.91215,-11.3968,-0.68712,2.56924,0.0740587,0.118452,-0.0421247,0.195344,-1.99978,0.307888,0.0811346,-0.0226087,0.033567,0.00543235,0.0834864,-0.0728715,0.00591573,-0.00170003,0.00025995,0,0,0,0,0,0,0,1.17389,-31.2254,0.838026,25.4315,1.5158,1.4547,-0.0703886,
0.121529,-0.0423537,0.198564,-2.00442,0.306071,0.0885182,-0.0222979,0.0787463,-0.00414487,0.0823209,-0.119339,-0.0491985,0.20671,0.00781869,0.584448,0.0863319,0.584791,0.959721,-3.36599,2.71367,-0.0586159,8.41811,-0.554926,8.78473,-11.131,-0.76712,2.54413,0.0733555,0.118452,-0.0421247,0.195344,-1.99978,0.307888,0.0811346,-0.0226087,0.033567,0.00543235,0.0834864,-0.0728715,0.00591573,-0.00170003,0.00025995,0,0,0,0,0,0,0,1.17389,-31.2254,0.838026,25.4315,1.5158,1.4547,-0.0703886,
0.119585,-0.0422404,0.196533,-2.0016,0.307437,0.0833761,-0.0224821,0.0778672,-0.00476503,0.0813962,-0.118951,-0.0472917,0.198708,0.0078612,-0.549444,-0.387598,-0.577945,0.242625,1.19178,-5.00127,0.0265678,8.64993,-0.490389,9.03377,-11.6634,-0.579149,2.5955,0.074497,0.118452,-0.0421247,0.195344,-1.99978,0.307888,0.0811346,-0.0226087,0.033567,0.00543235,0.0834864,-0.0728715,0.00591573,-0.00170003,0.00025995,0,0,0,0,0,0,0,1.17389,-31.2254,0.838026,25.4315,1.5158,1.4547,-0.0703886,
0.120213,-0.0422851,0.197188,-2.00253,0.306984,0.0849386,-0.0224197,0.0779847,-0.00493114,0.0814984,-0.118436,-0.0491644,0.198029,0.00784769,0.0734344,-0.10382,0.0639165,0.321644,-1.17048,-0.424549,-0.00844514,8.53679,-0.558522,8.91365,-11.3782,-0.68453,2.58271,0.0739896,0.119875,-0.041968,0.198101,-2.00229,0.307892,0.0810951,-0.0226095,0.0453585,0.00728339,0.068693,-0.0715681,0.0139077,-0.00804866,0.000180525,1.47394,0.23138,-1.84917,0.162921,0.998995,-0.793579,-0.00992815,-1.59131,-31.527,-1.8637,26.3281,1.32629,1.74035,-0.0630644,
0.120858,-0.04232,0.197862,-2.00344,0.306437,0.0866321,-0.0223594,0.0785185,-0.0048164,0.0820299,-0.117496,-0.0529892,0.20076,0.00778717,0.33363,0.0717144,0.332196,0.587595,-2.39048,1.70657,-0.0378236,8.41779,-0.589993,8.78622,-11.1123,-0.76453,2.55761,0.0732863,0.119875,-0.041968,0.198101,-2.00229,0.307892,0.0810951,-0.0226095,0.0453585,0.00728339,0.068693,-0.0715681,0.0139077,-0.00804866,0.000180525,0,0,0,0,0,0,0,-1.59131,-31.527,-1.8637,26.3281,1.32629,1.74035,-0.0630644,
0.12151,-0.0423496,0.198542,-2.00433,0.30583,0.0884004,-0.0223008,0.0791316,-0.00459306,0.0826431,-0.116158,-0.0575772,0.204816,0.00769337,0.383151,0.13959,0.383215,0.836005,-2.86751,2.53536,-0.0586233,8.29285,-0.619599,8.65313,-10.847,-0.821969,2.53368,0.0724403,0.119875,-0.041968,0.198101,-2.00229,0.307892,0.0810951,-0.0226095,0.0453585,0.00728339,0.068693,-0.0715681,0.0139077,-0.00804866,0.000180525,0,0,0,0,0,0,0,-1.59131,-31.527,-1.8637,26.3281,1.32629,1.74035,-0.0630644,
0.120993,-0.042069,0.199271,-2.00409,0.307439,0.0832597,-0.0224833,0.0779852,-0.00499114,0.0814482,-0.115978,-0.0543535,0.196337,0.00775096,-0.716486,-0.248799,-0.746803,0.112512,2.01481,-5.29959,0.0359885,8.53679,-0.558522,8.91365,-11.3782,-0.68453,2.58271,0.0739896,0.119875,-0.041968,0.198101,-2.00229,0.307892,0.0810951,-0.0226095,0.0453585,0.00728339,0.068693,-0.0715681,0.0139077,-0.00804866,0.000180525,0,0,0,0,0,0,0,-1.59131,-31.527,-1.8637,26.3281,1.32629,1.74035,-0.0630644,
