xiao-wang007/linearmpc_panda/paper_data/panda_torque_PD_controller_error_match_to_start_low_pass_filter/1/trajectory.csv
Commanded Joint 0 Position,Commanded Joint 1 Position,Commanded Joint 2 Position,Commanded Joint 3 Position,Commanded Joint 4 Position,Commanded Joint 5 Position,Commanded Joint 6 Position,Commanded Joint 0 Velocity,Commanded Joint 1 Velocity,Commanded Joint 2 Velocity,Commanded Joint 3 Velocity,Commanded Joint 4 Velocity,Commanded Joint 5 Velocity,Commanded Joint 6 Velocity,Commanded Joint 0 Acceleration,Commanded Joint 1 Acceleration,Commanded Joint 2 Acceleration,Commanded Joint 3 Acceleration,Commanded Joint 4 Acceleration,Commanded Joint 5 Acceleration,Commanded Joint 6 Acceleration,Commanded Joint 0 Torque,Commanded Joint 1 Torque,Commanded Joint 2 Torque,Commanded Joint 3 Torque,Commanded Joint 4 Torque,Commanded Joint 5 Torque,Commanded Joint 6 Torque,Actual Joint 0 Position,Actual Joint 1 Position,Actual Joint 2 Position,Actual Joint 3 Position,Actual Joint 4 Position,Actual Joint 5 Position,Actual Joint 6 Position,Actual Joint 0 Velocity,Actual Joint 1 Velocity,Actual Joint 2 Velocity,Actual Joint 3 Velocity,Actual Joint 4 Velocity,Actual Joint 5 Velocity,Actual Joint 6 Velocity,Actual Joint 0 Acceleration,Actual Joint 1 Acceleration,Actual Joint 2 Acceleration,Actual Joint 3 Acceleration,Actual Joint 4 Acceleration,Actual Joint 5 Acceleration,Actual Joint 6 Acceleration,Actual Joint 0 Torque,Actual Joint 1 Torque,Actual Joint 2 Torque,Actual Joint 3 Torque,Actual Joint 4 Torque,Actual Joint 5 Torque,Actual Joint 6 Torque,
0.0100527,0.0588442,-0.0316372,-1.65987,0.0139698,0.17193,-0.0171402,0.000180287,0.0230726,0.000157232,-0.0317337,-0.00419047,0.0523457,-0.000375758,0.112679,14.4204,0.0982701,-19.8336,-2.61904,32.7161,-0.234849,0.0601061,26.274,0.0521141,-24.198,-0.645438,1.95826,-0.0247919,0.0100665,0.0576519,-0.0315596,-1.65712,0.0142266,0.166399,-0.0170936,0.00098554,-0.0014788,0.0027431,-0.00120798,-0.000722003,0.00149077,0.000172089,0,0,0,0,0,0,0,-0.0440639,-37.1169,-0.260912,26.7288,0.575558,3.10631,0.0376436,
0.010093,0.0576417,-0.0315343,-1.65712,0.0142481,0.166409,-0.0170944,0.00031065,0.0184096,0.000284494,-0.0253483,-0.0031163,0.0419717,-0.000305064,0.0814774,-2.91433,0.0795387,3.9909,0.671354,-6.48373,0.0441839,0.0542782,26.7144,0.0417153,-24.1144,-0.64577,1.70766,-0.0232757,0.0100665,0.0576519,-0.0315596,-1.65712,0.0142266,0.166399,-0.0170936,0.00098554,-0.0014788,0.0027431,-0.00120798,-0.000722003,0.00149077,0.000172089,0,0,0,0,0,0,0,-0.0440639,-37.1169,-0.260912,26.7288,0.575558,3.10631,0.0376436,
0.0100982,0.0576405,-0.0315293,-1.65711,0.0142573,0.166413,-0.0170945,0.00037963,0.0146975,0.000352871,-0.0202441,-0.00226112,0.0336854,-0.000247323,0.0431123,-2.32006,0.0427355,3.19011,0.534488,-5.17892,0.036088,0.0469974,27.2858,0.0299367,-24.0064,-0.645292,1.36038,-0.021308,0.0100665,0.0576519,-0.0315596,-1.65712,0.0142266,0.166399,-0.0170936,0.00098554,-0.0014788,0.0027431,-0.00120798,-0.000722003,0.00149077,0.000172089,0,0,0,0,0,0,0,-0.0440639,-37.1169,-0.260912,26.7288,0.575558,3.10631,0.0376436,
0.0101024,0.0576398,-0.0315253,-1.65711,0.0142658,0.166418,-0.0170946,0.000408212,0.0117411,0.000382225,-0.0161654,-0.00159798,0.0270634,-0.00020036,0.0178635,-1.84776,0.0183461,2.54917,0.414466,-4.13876,0.0293517,0.0410086,27.8096,0.0204727,-23.8387,-0.643329,0.975493,-0.0193059,0.0100665,0.0576519,-0.0315596,-1.65712,0.0142266,0.166399,-0.0170936,0.00098554,-0.0014788,0.0027431,-0.00120798,-0.000722003,0.00149077,0.000172089,0,0,0,0,0,0,0,-0.0440639,-37.1169,-0.260912,26.7288,0.575558,3.10631,0.0376436,
0.0100478,0.0589708,-0.031574,-1.65859,0.0140414,0.168437,-0.0170949,0.000326957,0.0316819,0.00033576,-0.0325043,-0.006693,0.04079,-4.50433e-05,-0.0507841,12.463,-0.0290405,-10.2118,-3.18439,8.57912,0.097073,0.000467935,32.4578,-0.00588166,-23.1001,-1.06238,-2.2278,0.00057986,0.0100478,0.0580792,-0.0315752,-1.65781,0.014258,0.167672,-0.0170995,-0.00316534,0.0547535,-0.00156795,-0.0853754,0.00137086,0.170431,-0.000947644,-0.51886,7.02904,-0.538882,-10.5209,0.261608,21.1176,-0.139967,0.209842,-25.211,-0.0387439,15.0452,0.129696,2.41692,0.0577852,
0.00999564,0.0597684,-0.0316361,-1.65897,0.0148111,0.167994,-0.0171097,-0.00104196,0.0452858,-0.00128322,-0.0353781,0.013888,0.0215371,-0.000406968,-0.855573,8.50246,-1.01186,-1.79609,12.8632,-12.0331,-0.226203,0.511647,0.231949,0.511003,-0.303654,3.29808,-2.17804,-0.00211118,0.0100478,0.0580792,-0.0315752,-1.65781,0.014258,0.167672,-0.0170995,-0.00316534,0.0547535,-0.00156795,-0.0853754,0.00137086,0.170431,-0.000947644,0,0,0,0,0,0,0,0.209842,-25.211,-0.0387439,15.0452,0.129696,2.41692,0.0577852,
0.00992052,0.0604029,-0.0317149,-1.65924,0.0161866,0.16697,-0.0171196,-0.00271153,0.052092,-0.0029959,-0.0349758,0.0454976,-0.00836692,-0.000571995,-1.04348,4.25387,-1.07042,0.251392,19.756,-18.69,-0.103142,0.505484,0.231035,0.504978,-0.30078,3.26965,-2.15949,-0.00203949,0.0100478,0.0580792,-0.0315752,-1.65781,0.014258,0.167672,-0.0170995,-0.00316534,0.0547535,-0.00156795,-0.0853754,0.00137086,0.170431,-0.000947644,0,0,0,0,0,0,0,0.209842,-25.211,-0.0387439,15.0452,0.129696,2.41692,0.0577852,
0.00984371,0.0608993,-0.031792,-1.65945,0.0179305,0.16562,-0.0171255,-0.00408949,0.0540836,-0.00432412,-0.0334533,0.0799965,-0.0404405,-0.000605328,-0.86122,1.24474,-0.830137,0.95161,21.5618,-20.046,-0.0208334,0.4989,0.230155,0.498539,-0.29783,3.24205,-2.14089,-0.00199588,0.0100478,0.0580792,-0.0315752,-1.65781,0.014258,0.167672,-0.0170995,-0.00316534,0.0547535,-0.00156795,-0.0853754,0.00137086,0.170431,-0.000947644,0,0,0,0,0,0,0,0.209842,-25.211,-0.0387439,15.0452,0.129696,2.41692,0.0577852,
0.0100478,0.0589708,-0.031574,-1.65859,0.0140414,0.168437,-0.0170949,-0.0032712,0.0655558,-0.00342931,-0.0463346,0.0585826,-0.0132131,-0.000369017,0.511428,7.17015,0.559252,-8.05083,-13.3837,17.0171,0.147694,-0.000439145,32.6812,-0.00724201,-23.0934,-1.05804,-2.18644,0.000370894,0.0100734,0.0630761,-0.0315481,-1.66357,0.0142178,0.173476,-0.0170989,-0.00164501,0.162237,0.000862773,-0.169585,0.0541543,-0.0125043,-0.00107203,0.190042,13.4354,0.303841,-10.5261,6.59793,-22.867,-0.0155476,-0.0202602,-18.2485,-0.260912,16.5408,1.49749,0.951163,0.0706026,
0.00992964,0.0597832,-0.0317244,-1.6588,0.016969,0.166139,-0.0171354,-0.00557042,0.072755,-0.00650213,-0.042191,0.120055,-0.0680278,-0.00130773,-1.43701,4.49948,-1.92051,2.58973,38.42,-34.2591,-0.586697,4.40541,0.630265,4.31391,-2.00064,10.942,-9.1622,-0.00508069,0.0100734,0.0630761,-0.0315481,-1.66357,0.0142178,0.173476,-0.0170989,-0.00164501,0.162237,0.000862773,-0.169585,0.0541543,-0.0125043,-0.00107203,0,0,0,0,0,0,0,-0.0202602,-18.2485,-0.260912,16.5408,1.49749,0.951163,0.0706026,
0.00977623,0.0603954,-0.0318926,-1.65893,0.0218216,0.162187,-0.0171591,-0.00829178,0.0735106,-0.0094064,-0.0369102,0.21736,-0.153216,-0.00164049,-1.70085,0.472242,-1.81516,3.30051,60.8158,-53.2425,-0.20797,4.34784,0.766231,4.25013,-1.90903,10.942,-8.92788,-0.00426241,0.0100734,0.0630761,-0.0315481,-1.66357,0.0142178,0.173476,-0.0170989,-0.00164501,0.162237,0.000862773,-0.169585,0.0541543,-0.0125043,-0.00107203,0,0,0,0,0,0,0,-0.0202602,-18.2485,-0.260912,16.5408,1.49749,0.951163,0.0706026,
0.00964685,0.0608469,-0.0320273,-1.65906,0.0278132,0.157246,-0.0171703,-0.00986777,0.0700937,-0.010894,-0.0328457,0.323679,-0.246106,-0.00159216,-0.984994,-2.13553,-0.92976,2.54031,66.4492,-58.0562,0.0302006,4.28057,0.859022,4.17861,-1.8323,10.7831,-8.69005,-0.0035362,0.0100734,0.0630761,-0.0315481,-1.66357,0.0142178,0.173476,-0.0170989,-0.00164501,0.162237,0.000862773,-0.169585,0.0541543,-0.0125043,-0.00107203,0,0,0,0,0,0,0,-0.0202602,-18.2485,-0.260912,16.5408,1.49749,0.951163,0.0706026,
0.0100974,0.0646974,-0.0315202,-1.66486,0.0142152,0.172988,-0.0170924,-0.00729281,0.0966068,-0.00801622,-0.0583881,0.258879,-0.209083,-0.00110979,1.60935,16.5707,1.79862,-15.964,-40.4997,23.1393,0.301482,-0.000439145,32.6812,-0.00724201,-23.0934,-1.05804,-2.18644,0.000370894,0.0100734,0.0630761,-0.0315481,-1.66357,0.0142178,0.173476,-0.0170989,-0.00164501,0.162237,0.000862773,-0.169585,0.0541543,-0.0125043,-0.00107203,0,0,0,0,0,0,0,-0.0202602,-18.2485,-0.260912,16.5408,1.49749,0.951163,0.0706026,
0.0104895,0.0659461,-0.0311217,-1.66578,0.0162598,0.16869,-0.0170126,0.00396722,0.108503,0.00354806,-0.0697876,0.258217,-0.274733,0.00110496,7.03752,7.43527,7.22768,-7.12467,-0.413705,-41.0312,1.38422,30.4682,1.10895,29.8388,-12.4937,10.9325,-14.1112,0.0962275,0.0100072,0.068846,-0.0315279,-1.66613,0.0176465,0.166633,-0.017103,0.00305664,0.308082,0.018526,-0.00950432,0.0588358,-0.291869,-0.000566606,0.587706,18.2306,2.20791,20.01,0.585191,-34.9205,0.0631774,2.84412,-36.2441,2.41304,17.3859,1.61377,-2.52967,0.0779268,
0.0111957,0.0669146,-0.0304356,-1.66656,0.0198505,0.161996,-0.0169195,0.0208295,0.111015,0.0199901,-0.0752539,0.29634,-0.387124,0.00321244,10.539,1.56982,10.2763,-3.41642,23.827,-70.2445,1.31717,29.1962,2.42676,28.3497,-10.4976,10.9325,-14.1112,0.107588,0.0100072,0.068846,-0.0315279,-1.66613,0.0176465,0.166633,-0.017103,0.00305664,0.308082,0.018526,-0.00950432,0.0588358,-0.291869,-0.000566606,0,0,0,0,0,0,0,2.84412,-36.2441,2.41304,17.3859,1.61377,-2.52967,0.0779268,
0.0100953,0.0709606,-0.0314362,-1.66734,0.0177802,0.165424,-0.0171033,0.0188681,0.141676,0.0182844,-0.0904074,0.240416,-0.339931,0.00256043,-1.22589,19.1631,-1.06608,-9.47096,-34.953,29.4959,-0.407505,-0.00310763,32.839,-0.0112846,-23.042,-1.06753,-2.11119,0.000194696,0.0100072,0.068846,-0.0315279,-1.66613,0.0176465,0.166633,-0.017103,0.00305664,0.308082,0.018526,-0.00950432,0.0588358,-0.291869,-0.000566606,0,0,0,0,0,0,0,2.84412,-36.2441,2.41304,17.3859,1.61377,-2.52967,0.0779268,
0.0108111,0.0720967,-0.0307041,-1.66912,0.0194057,0.161256,-0.0168091,0.0329882,0.141743,0.0329303,-0.116762,0.232971,-0.376155,0.00940349,8.82507,0.0421324,9.1537,-16.4719,-4.6532,-22.6406,4.27691,45.0458,-7.49281,43.8763,-23.8581,10.9325,-14.1112,0.349023,0.0100072,0.068846,-0.0315279,-1.66613,0.0176465,0.166633,-0.017103,0.00305664,0.308082,0.018526,-0.00950432,0.0588358,-0.291869,-0.000566606,0,0,0,0,0,0,0,2.84412,-36.2441,2.41304,17.3859,1.61377,-2.52967,0.0779268,
0.0119647,0.0727672,-0.029569,-1.67092,0.0224688,0.15476,-0.0165909,0.0552309,0.130158,0.0547222,-0.138531,0.262954,-0.463305,0.0129784,13.9017,-7.24072,13.6199,-13.6052,18.7399,-54.4687,2.23432,40.0664,-5.19747,38.9192,-22.4543,10.8267,-13.9714,0.247675,0.00969221,0.0749735,-0.0316175,-1.67037,0.0418337,0.14874,-0.0171002,0.00687377,0.21743,0.0621419,-0.216701,0.382398,-0.43607,0.00107539,0.477141,-11.3315,5.45198,-25.8996,40.4453,-18.0252,0.205249,6.39484,-36.7677,6.13832,17.7112,1.36932,-1.48231,0.0101778,
0.0134031,0.0732018,-0.0281696,-1.67263,0.0268066,0.14665,-0.0164572,0.080146,0.11499,0.0787627,-0.153522,0.318808,-0.573414,0.0137256,15.5719,-9.47984,15.0253,-9.36953,34.9086,-68.818,0.467001,35.9554,-3.28028,34.8794,-20.7574,10.8267,-13.9714,0.149806,0.00969221,0.0749735,-0.0316175,-1.67037,0.0418337,0.14874,-0.0171002,0.00687377,0.21743,0.0621419,-0.216701,0.382398,-0.43607,0.00107539,0,0,0,0,0,0,0,6.39484,-36.7677,6.13832,17.7112,1.36932,-1.48231,0.0101778,
0.012438,0.0757345,-0.0289127,-1.67578,0.0489481,0.136127,-0.0163561,0.104798,0.0965315,0.102486,-0.190265,0.35378,-0.640096,0.0174757,15.4076,-11.5369,14.8272,-22.9647,21.8575,-41.6764,2.34383,55.2749,-15.0291,53.3141,-35.2699,10.8267,-13.9714,0.562059,0.00969221,0.0749735,-0.0316175,-1.67037,0.0418337,0.14874,-0.0171002,0.00687377,0.21743,0.0621419,-0.216701,0.382398,-0.43607,0.00107539,0,0,0,0,0,0,0,6.39484,-36.7677,6.13832,17.7112,1.36932,-1.48231,0.0101778,
0.0143446,0.0757938,-0.0270751,-1.67827,0.0538677,0.127503,-0.0162571,0.131504,0.0787071,0.127929,-0.214563,0.406015,-0.727666,0.0164551,16.6911,-11.1402,15.9017,-15.1857,32.6464,-54.7308,-0.637917,46.4635,-10.398,44.7629,-32.821,10.8267,-13.9714,0.278329,0.00969221,0.0749735,-0.0316175,-1.67037,0.0418337,0.14874,-0.0171002,0.00687377,0.21743,0.0621419,-0.216701,0.382398,-0.43607,0.00107539,0,0,0,0,0,0,0,6.39484,-36.7677,6.13832,17.7112,1.36932,-1.48231,0.0101778,
0.0164063,0.0758198,-0.0250911,-1.68058,0.0596907,0.117997,-0.0162292,0.156744,0.0636148,0.151945,-0.229439,0.470386,-0.81979,0.013862,15.775,-9.43268,15.0099,-9.29805,40.2323,-57.5777,-1.62065,40.5168,-5.60849,39.0497,-30.265,10.8957,-13.6546,0.0986217,0.0112129,0.0798117,-0.0242504,-1.67842,0.0600397,0.117734,-0.017077,0.088768,-0.105306,0.340527,-0.590581,0.628125,-1.08878,0.00472654,10.2368,-40.342,34.7981,-46.735,30.7158,-81.5892,0.456394,26.0765,-38.8149,24.5346,17.8857,4.87487,-2.92793,0.017502,
0.0185478,0.0758164,-0.0230309,-1.6828,0.0662729,0.107967,-0.0161942,0.178934,0.0508076,0.17306,-0.23884,0.540865,-0.906593,0.0119646,13.8687,-8.0045,13.1973,-5.87522,44.0491,-54.2518,-1.18593,36.4496,-3.24203,35.1562,-28.1207,10.8957,-13.6546,0.023103,0.0112129,0.0798117,-0.0242504,-1.67842,0.0600397,0.117734,-0.017077,0.088768,-0.105306,0.340527,-0.590581,0.628125,-1.08878,0.00472654,0,0,0,0,0,0,0,26.0765,-38.8149,24.5346,17.8857,4.87487,-2.92793,0.017502,
0.0157633,0.0789573,-0.0198322,-1.68539,0.0712993,0.0969479,-0.0168052,0.202885,0.0321602,0.196051,-0.272409,0.581656,-0.991871,0.010651,14.9698,-11.6546,14.3691,-20.9805,25.4946,-53.299,-0.820997,49.4181,-10.9934,47.4627,-41.311,10.8957,-13.6546,0.250273,0.0112129,0.0798117,-0.0242504,-1.67842,0.0600397,0.117734,-0.017077,0.088768,-0.105306,0.340527,-0.590581,0.628125,-1.08878,0.00472654,0,0,0,0,0,0,0,26.0765,-38.8149,24.5346,17.8857,4.87487,-2.92793,0.017502,
0.0182411,0.0787414,-0.0174474,-1.68838,0.0779623,0.0860705,-0.0168561,0.224254,0.020332,0.21646,-0.292577,0.631898,-1.06543,0.00724925,13.3551,-7.3926,12.7554,-12.6052,31.4014,-45.9752,-2.12607,42.0774,-6.0906,40.5536,-38.012,10.8957,-13.6546,0.0242419,0.0112129,0.0798117,-0.0242504,-1.67842,0.0600397,0.117734,-0.017077,0.088768,-0.105306,0.340527,-0.590581,0.628125,-1.08878,0.00472654,0,0,0,0,0,0,0,26.0765,-38.8149,24.5346,17.8857,4.87487,-2.92793,0.017502,
0.0207367,0.0785948,-0.0150478,-1.69121,0.0852338,0.0751421,-0.0169094,0.241793,0.0125989,0.233158,-0.305029,0.687308,-1.12556,0.00446572,10.9619,-4.83323,10.4366,-7.78222,34.6307,-37.5786,-1.7397,37.6821,-2.76615,36.3371,-35.6667,11.0171,-13.1532,-0.0756498,0.0245601,0.0781426,-0.0130654,-1.69901,0.0830844,0.072436,-0.0168961,0.258985,-0.0787984,0.449178,-0.665216,0.875915,-1.59012,-0.00736821,21.2772,3.31346,13.5814,-9.3294,30.9738,-62.6671,-1.51184,21.9149,-32.3482,20.2341,23.6899,4.27612,-1.14448,0.104477,
0.0231984,0.0784623,-0.0126813,-1.69402,0.093011,0.0644389,-0.0169532,0.254976,0.00676759,0.245689,-0.314174,0.744276,-1.16803,0.00247727,8.23958,-3.64455,7.83163,-5.71564,35.6054,-26.5423,-1.24278,34.3461,-1.85932,33.1269,-34.2431,11.0171,-13.1532,-0.0672855,0.0245601,0.0781426,-0.0130654,-1.69901,0.0830844,0.072436,-0.0168961,0.258985,-0.0787984,0.449178,-0.665216,0.875915,-1.59012,-0.00736821,0,0,0,0,0,0,0,21.9149,-32.3482,20.2341,23.6899,4.27612,-1.14448,0.104477,
0.0349962,0.078512,-0.00301795,-1.7142,0.116165,0.0321299,-0.0175236,0.264564,0.00922372,0.254806,-0.340096,0.813994,-1.13845,-0.00248105,5.99225,1.53508,5.69805,-16.2017,43.5738,18.4849,-3.09895,32.921,-1.53229,31.7663,-40.4176,11.0171,-9.54495,-0.19407,0.0245601,0.0781426,-0.0130654,-1.69901,0.0830844,0.072436,-0.0168961,0.258985,-0.0787984,0.449178,-0.665216,0.875915,-1.59012,-0.00736821,0,0,0,0,0,0,0,21.9149,-32.3482,20.2341,23.6899,4.27612,-1.14448,0.104477,
0.0373004,0.0786676,-0.000802131,-1.71764,0.125027,0.025178,-0.0176956,0.269255,0.0112689,0.25924,-0.358142,0.872756,-1.08456,-0.00628302,2.93186,1.27824,2.77146,-11.2785,36.726,33.6832,-2.37623,29.9559,-1.79305,28.928,-39.7988,11.0171,-8.40971,-0.164724,0.0245601,0.0781426,-0.0130654,-1.69901,0.0830844,0.072436,-0.0168961,0.258985,-0.0787984,0.449178,-0.665216,0.875915,-1.59012,-0.00736821,0,0,0,0,0,0,0,21.9149,-32.3482,20.2341,23.6899,4.27612,-1.14448,0.104477,
0.0394991,0.078813,0.00131234,-1.721,0.133933,0.0194786,-0.0178483,0.270373,0.0126515,0.260254,-0.370566,0.920834,-1.01013,-0.00884432,0.69895,0.864104,0.633606,-7.76537,30.0488,46.5167,-1.60081,27.2871,-1.10517,26.3534,-38.7743,11.1806,-6.7637,-0.196364,0.0415504,0.0764502,0.00154986,-1.72068,0.115606,0.0164141,-0.0169166,0.674042,0.131491,0.393419,-0.661218,1.04934,-1.66013,-0.000439029,51.8821,26.2862,-6.96999,0.499799,21.6784,-8.75171,0.866147,16.9954,-38.2158,16.2866,25.011,4.52057,-2.40425,0.0843355,
0.0416059,0.078939,0.00333815,-1.72431,0.142831,0.0151583,-0.0179788,0.268966,0.0132707,0.258848,-0.379186,0.959136,-0.916112,-0.0103392,-0.87926,0.387007,-0.878368,-5.38731,23.9391,58.7609,-0.934295,25.1514,-0.518393,24.2971,-37.8057,11.1806,-5.43456,-0.216201,0.0415504,0.0764502,0.00154986,-1.72068,0.115606,0.0164141,-0.0169166,0.674042,0.131491,0.393419,-0.661218,1.04934,-1.66013,-0.000439029,0,0,0,0,0,0,0,16.9954,-38.2158,16.2866,25.011,4.52057,-2.40425,0.0843355,
0.0569648,0.0807692,0.0162686,-1.74077,0.164213,-0.017579,-0.0176572,0.277898,0.0252169,0.267206,-0.393728,1.00931,-0.803276,-0.0107948,5.58238,7.46637,5.22352,-9.08893,31.3556,70.5223,-0.284771,23.7654,-0.133578,22.9526,-36.9167,11.1806,-4.1174,-0.206835,0.0415504,0.0764502,0.00154986,-1.72068,0.115606,0.0164141,-0.0169166,0.674042,0.131491,0.393419,-0.661218,1.04934,-1.66013,-0.000439029,0,0,0,0,0,0,0,16.9954,-38.2158,16.2866,25.011,4.52057,-2.40425,0.0843355,
0.0592916,0.0812339,0.0184996,-1.74423,0.173703,-0.0187946,-0.017738,0.280487,0.0317923,0.26954,-0.401607,1.04468,-0.673011,-0.0106539,1.6181,4.10962,1.45853,-4.92391,22.1061,81.4156,0.0880575,22.7593,0.00859629,21.9723,-36.1673,11.1806,-2.54899,-0.182691,0.0415504,0.0764502,0.00154986,-1.72068,0.115606,0.0164141,-0.0169166,0.674042,0.131491,0.393419,-0.661218,1.04934,-1.66013,-0.000439029,0,0,0,0,0,0,0,16.9954,-38.2158,16.2866,25.011,4.52057,-2.40425,0.0843355,
0.0614651,0.0815968,0.020584,-1.74755,0.183,-0.0186419,-0.0178017,0.278727,0.0345058,0.26774,-0.404366,1.06817,-0.53459,-0.0101166,-1.09976,1.69594,-1.12499,-1.72453,14.6845,86.5131,0.335826,21.9619,-0.31331,21.1309,-34.7313,11.0587,0.0843725,-0.162419,0.0607171,0.0755119,0.0217306,-1.74974,0.159256,-0.031195,-0.0172486,0.802089,0.136789,0.434804,-0.841459,1.37138,-1.19449,-0.0189039,16.0058,0.662264,5.17322,-22.5301,40.2545,58.2056,-2.30811,3.40351,-34.3953,3.41279,32.3584,3.05481,3.09258,-0.0703886,
0.0635078,0.0818747,0.022543,-1.75074,0.192118,-0.0173438,-0.0178485,0.274051,0.034551,0.263167,-0.403228,1.08248,-0.395221,-0.00926396,-2.92249,0.0282625,-2.8577,0.711302,8.94341,87.1059,0.53291,21.2328,-0.415762,20.4236,-34.1823,11.0587,2.02737,-0.13472,0.0607171,0.0755119,0.0217306,-1.74974,0.159256,-0.031195,-0.0172486,0.802089,0.136789,0.434804,-0.841459,1.37138,-1.19449,-0.0189039,0,0,0,0,0,0,0,3.40351,-34.3953,3.41279,32.3584,3.05481,3.09258,-0.0703886,
0.0799804,0.0815063,0.0401117,-1.77357,0.222581,-0.0418211,-0.0176198,0.278295,0.041339,0.267047,-0.403149,1.11023,-0.262637,-0.00783903,2.65258,4.2425,2.42455,0.0493334,17.3463,82.8649,0.890583,19.966,-0.673357,19.2102,-33.3148,11.0587,4.84263,-0.0886147,0.0607171,0.0755119,0.0217306,-1.74974,0.159256,-0.031195,-0.0172486,0.802089,0.136789,0.434804,-0.841459,1.37138,-1.19449,-0.0189039,0,0,0,0,0,0,0,3.40351,-34.3953,3.41279,32.3584,3.05481,3.09258,-0.0703886,
0.0821411,0.0819269,0.0421792,-1.77661,0.23205,-0.0388735,-0.0176219,0.276652,0.043588,0.265325,-0.398457,1.1249,-0.13642,-0.00632259,-1.02712,1.40561,-1.07578,2.93214,9.16437,78.8857,0.947773,19.4166,-0.697513,18.6885,-32.9058,11.0587,5.8065,-0.0691091,0.0607171,0.0755119,0.0217306,-1.74974,0.159256,-0.031195,-0.0172486,0.802089,0.136789,0.434804,-0.841459,1.37138,-1.19449,-0.0189039,0,0,0,0,0,0,0,3.40351,-34.3953,3.41279,32.3584,3.05481,3.09258,-0.0703886,
0.0841339,0.0822446,0.0440859,-1.77949,0.241257,-0.035329,-0.0176105,0.271143,0.0428122,0.259929,-0.39076,1.13011,-0.0205234,-0.00477234,-3.44328,-0.48483,-3.37283,4.81057,3.25811,72.4352,0.968908,18.9171,-0.635132,18.2161,-32.4887,11.0587,6.52681,-0.0491403,0.0607171,0.0755119,0.0217306,-1.74974,0.159256,-0.031195,-0.0172486,0.802089,0.136789,0.434804,-0.841459,1.37138,-1.19449,-0.0189039,0,0,0,0,0,0,0,3.40351,-34.3953,3.41279,32.3584,3.05481,3.09258,-0.0703886,
0.0859858,0.0824799,0.0458575,-1.78224,0.250244,-0.0313538,-0.017585,0.263211,0.0401326,0.252233,-0.381239,1.12875,0.0829624,-0.00318105,-4.95739,-1.6748,-4.80999,5.95112,-0.849006,64.6786,0.994553,18.1809,-1.69781,17.4282,-31.285,10.5907,7.29057,-0.0389786,0.0822137,0.0772702,0.0420276,-1.78006,0.210149,-0.0548889,-0.0175824,0.668056,0.140222,0.515827,-0.844142,1.55216,-0.318644,-0.000160172,-16.7541,0.429166,10.1278,-0.335404,22.598,109.481,2.34297,-5.06665,-37.8905,-4.86296,34.0762,3.03009,6.44799,-0.083206,
0.100344,0.0831607,0.0593286,-1.80145,0.273907,-0.0476856,-0.0175897,0.265029,0.0444788,0.253795,-0.376157,1.14236,0.149945,-0.00164342,1.13606,2.71641,0.976357,3.17625,8.50504,41.8638,0.961021,17.3484,-1.30504,16.6444,-30.4006,10.5907,7.83317,-0.00604595,0.0822137,0.0772702,0.0420276,-1.78006,0.210149,-0.0548889,-0.0175824,0.668056,0.140222,0.515827,-0.844142,1.55216,-0.318644,-0.000160172,0,0,0,0,0,0,0,-5.06665,-37.8905,-4.86296,34.0762,3.03009,6.44799,-0.083206,
0.102324,0.0835315,0.0612207,-1.80414,0.283089,-0.0439525,-0.017541,0.261521,0.0448527,0.25034,-0.368093,1.14344,0.213282,-9.72719e-05,-2.19231,0.233654,-2.15933,5.03952,0.673383,39.5861,0.966342,16.9663,-1.07941,16.2849,-29.9519,10.5907,7.92202,0.00937059,0.0822137,0.0772702,0.0420276,-1.78006,0.210149,-0.0548889,-0.0175824,0.668056,0.140222,0.515827,-0.844142,1.55216,-0.318644,-0.000160172,0,0,0,0,0,0,0,-5.06665,-37.8905,-4.86296,34.0762,3.03009,6.44799,-0.083206,
0.104144,0.083803,0.0629612,-1.80669,0.291821,-0.0399472,-0.0174794,0.2547,0.042668,0.243784,-0.358241,1.13306,0.270759,0.00146338,-4.26285,-1.36542,-4.09762,6.15789,-6.48799,35.9227,0.975407,16.5977,-0.854201,15.9378,-29.5036,10.5907,7.92674,0.0234013,0.0822137,0.0772702,0.0420276,-1.78006,0.210149,-0.0548889,-0.0175824,0.668056,0.140222,0.515827,-0.844142,1.55216,-0.318644,-0.000160172,0,0,0,0,0,0,0,-5.06665,-37.8905,-4.86296,34.0762,3.03009,6.44799,-0.083206,
0.122759,0.0857887,0.0818397,-1.83205,0.328133,-0.0290117,-0.017252,0.245612,0.0386143,0.234915,-0.338745,0.996797,0.298545,0.00236036,-5.68039,-2.53355,-5.54292,12.1847,-85.1619,17.3667,0.560616,14.5186,-0.580473,13.8916,-27.0458,9.38675,7.39746,0.0829014,0.102418,0.0805719,0.0624418,-1.80996,0.265849,-0.0499391,-0.0176087,0.589613,0.0849016,0.529806,-0.810264,1.63612,0.354169,0.00146718,-9.80544,-6.91512,1.74742,4.23471,10.4954,84.1016,0.20342,-6.94317,-41.2587,-7.13622,30.2914,1.62567,5.50591,0.017502,
0.124308,0.0859082,0.0833157,-1.83405,0.330753,-0.0257071,-0.0172027,0.235221,0.0338793,0.224833,-0.320995,0.862919,0.321451,0.00312151,-6.49437,-2.95939,-6.30158,11.0939,-83.674,14.3161,0.475718,13.9954,-0.394587,13.3693,-26.6549,8.66281,7.22399,0.0945668,0.102418,0.0805719,0.0624418,-1.80996,0.265849,-0.0499391,-0.0176087,0.589613,0.0849016,0.529806,-0.810264,1.63612,0.354169,0.00146718,0,0,0,0,0,0,0,-6.94317,-41.2587,-7.13622,30.2914,1.62567,5.50591,0.017502,
0.125754,0.085983,0.0846924,-1.83598,0.332494,-0.0224019,-0.0171507,0.224316,0.0289726,0.214284,-0.305043,0.733864,0.339791,0.0037951,-6.81565,-3.06668,-6.59308,9.97011,-80.659,11.4624,0.420993,13.3519,-0.179223,12.7258,-26.275,8.02716,6.98126,0.0902613,0.102418,0.0805719,0.0624418,-1.80996,0.265849,-0.0499391,-0.0176087,0.589613,0.0849016,0.529806,-0.810264,1.63612,0.354169,0.00146718,0,0,0,0,0,0,0,-6.94317,-41.2587,-7.13622,30.2914,1.62567,5.50591,0.017502,
0.127113,0.0860244,0.0859859,-1.83785,0.333476,-0.0191148,-0.0170965,0.213422,0.024213,0.203764,-0.290851,0.611642,0.35401,0.00439146,-6.80863,-2.97476,-6.57495,8.86991,-76.3889,8.88708,0.372727,12.8088,0.0993131,12.1229,-25.8483,6.18385,6.72439,0.0833272,0.102418,0.0805719,0.0624418,-1.80996,0.265849,-0.0499391,-0.0176087,0.589613,0.0849016,0.529806,-0.810264,1.63612,0.354169,0.00146718,0,0,0,0,0,0,0,-6.94317,-41.2587,-7.13622,30.2914,1.62567,5.50591,0.017502,
0.106316,0.0818267,0.066156,-1.81402,0.277586,-0.04835,-0.017575,0.268182,0.0507418,0.255865,-0.334031,0.782747,0.322935,0.0043555,34.2251,16.5805,32.5631,-26.9876,106.941,-19.4221,-0.0224743,14.3774,-0.948829,13.6657,-26.9322,9.11521,7.33791,0.0852064,0.1203,0.0848442,0.0816315,-1.83674,0.319913,-0.0310776,-0.0175779,0.300342,0.0570463,0.797783,-0.72079,1.27593,0.609027,0.00983709,-36.1588,-3.48191,33.4971,11.1843,-45.0241,31.8572,1.04624,-6.51074,-42.1315,-6.31102,28.2721,-0.127567,3.05321,-0.0969389,
0.10964,0.0829427,0.0693285,-1.81732,0.28831,-0.0464947,-0.017532,0.297654,0.0684936,0.284006,-0.349761,0.89431,0.30473,0.00455916,18.4202,11.0949,17.5884,-9.83126,69.7267,-11.378,0.127282,13.8542,-0.762943,13.1435,-26.5413,8.39127,7.16444,0.0968718,0.1203,0.0848442,0.0816315,-1.83674,0.319913,-0.0310776,-0.0175779,0.300342,0.0570463,0.797783,-0.72079,1.27593,0.609027,0.00983709,0,0,0,0,0,0,0,-6.51074,-42.1315,-6.31102,28.2721,-0.127567,3.05321,-0.0969389,
0.112505,0.0838235,0.0720618,-1.82026,0.298089,-0.044197,-0.0174859,0.309743,0.0768139,0.295536,-0.353462,0.959917,0.301228,0.00479828,7.55548,5.20018,7.20605,-2.31292,41.0046,-2.1886,0.149451,13.2108,-0.54758,12.5,-26.1613,7.75563,6.92171,0.0925662,0.1203,0.0848442,0.0816315,-1.83674,0.319913,-0.0310776,-0.0175779,0.300342,0.0570463,0.797783,-0.72079,1.27593,0.609027,0.00983709,0,0,0,0,0,0,0,-6.51074,-42.1315,-6.31102,28.2721,-0.127567,3.05321,-0.0969389,
0.151237,0.0881481,0.111119,-1.8678,0.331691,0.0125099,-0.0168193,0.261634,0.0596815,0.249384,-0.303302,0.751944,0.29285,0.00438583,-30.0679,-10.7078,-28.8448,31.3498,-129.983,-5.23656,-0.257782,10.7546,-0.12552,10.2543,-17.7483,-1.95841,4.18471,0.0699826,0.1203,0.0848442,0.0816315,-1.83674,0.319913,-0.0310776,-0.0175779,0.300342,0.0570463,0.797783,-0.72079,1.27593,0.609027,0.00983709,0,0,0,0,0,0,0,-6.51074,-42.1315,-6.31102,28.2721,-0.127567,3.05321,-0.0969389,
0.151769,0.0880772,0.111617,-1.86859,0.331036,0.0145612,-0.0167991,0.222621,0.0459721,0.211956,-0.262372,0.585191,0.285562,0.0040142,-24.3832,-8.56838,-23.3924,25.5817,-104.221,-4.55502,-0.232267,10.6644,-0.522564,10.1157,-17.5015,-1.99325,3.98658,0.0691662,0.140992,0.0877146,0.0945294,-1.86011,0.360772,-0.00882285,-0.0175707,0.397863,0.0424957,0.499209,-0.688724,1.29985,0.647114,0.000892577,12.1901,-1.81883,-37.3218,4.00814,2.9899,4.7609,-1.11806,-8.13336,-37.3152,-6.03728,23.9398,2.09625,1.05736,-0.0163725,
0.152282,0.0880062,0.112096,-1.86935,0.330365,0.0165884,-0.0167805,0.190906,0.035003,0.181529,-0.228829,0.451367,0.27913,0.00367513,-19.8218,-6.85572,-19.0174,20.964,-83.6399,-4.02,-0.211922,10.4998,-0.559693,9.96223,-17.1167,-1.87241,3.94739,0.0673149,0.140992,0.0877146,0.0945294,-1.86011,0.360772,-0.00882285,-0.0175707,0.397863,0.0424957,0.499209,-0.688724,1.29985,0.647114,0.000892577,0,0,0,0,0,0,0,-8.13336,-37.3152,-6.03728,23.9398,2.09625,1.05736,-0.0163725,
0.152775,0.0879352,0.112555,-1.87007,0.329675,0.018591,-0.0167636,0.165048,0.0262273,0.156718,-0.201201,0.343852,0.273368,0.0033627,-16.1614,-5.4848,-15.5065,17.2675,-67.197,-3.60118,-0.195269,10.3256,-0.589416,9.79859,-16.7315,-1.75346,3.90869,0.0654079,0.140992,0.0877146,0.0945294,-1.86011,0.360772,-0.00882285,-0.0175707,0.397863,0.0424957,0.499209,-0.688724,1.29985,0.647114,0.000892577,0,0,0,0,0,0,0,-8.13336,-37.3152,-6.03728,23.9398,2.09625,1.05736,-0.0163725,
0.15569,0.0900927,0.10646,-1.85991,0.452163,-0.000996396,-0.0183185,0.13223,0.0191623,0.124543,-0.1583,0.302136,0.228549,0.0024473,-20.5114,-4.41562,-20.1093,26.8131,-26.0723,-28.0119,-0.572125,0.181307,-0.0686841,-0.278247,1.65522,4.50124,-0.590296,-0.0475198,0.140992,0.0877146,0.0945294,-1.86011,0.360772,-0.00882285,-0.0175707,0.397863,0.0424957,0.499209,-0.688724,1.29985,0.647114,0.000892577,0,0,0,0,0,0,0,-8.13336,-37.3152,-6.03728,23.9398,2.09625,1.05736,-0.0163725,
0.155698,0.0900201,0.106427,-1.8598,0.453243,-0.000603607,-0.0183282,0.105975,0.0135138,0.0988035,-0.123988,0.268694,0.192659,0.0017153,-16.4093,-3.53029,-16.0874,21.4451,-20.9014,-22.4313,-0.457496,0.0637191,-0.413777,-0.433017,1.79429,2.57767,0.254912,-0.0158356,0.156617,0.0912021,0.11164,-1.87804,0.38318,0.0131455,-0.0175383,0.728869,0.102105,0.150094,-0.415921,0.426971,0.563648,0.000449775,41.3757,7.45112,-43.6394,34.1005,-109.11,-10.4333,-0.0553502,-10.6962,-39.4139,-9.96092,24.9356,-1.28113,0.719534,0.0706026,
0.155705,0.0899476,0.106393,-1.85969,0.45432,-0.000212207,-0.0183379,0.084971,0.00899859,0.0782117,-0.0965469,0.241871,0.163912,0.00113003,-13.1276,-2.82204,-12.8699,17.1508,-16.7644,-17.9667,-0.365794,0.020154,-0.445701,-0.48335,1.85587,1.70961,0.758741,-0.0155301,0.156617,0.0912021,0.11164,-1.87804,0.38318,0.0131455,-0.0175383,0.728869,0.102105,0.150094,-0.415921,0.426971,0.563648,0.000449775,0,0,0,0,0,0,0,-10.6962,-39.4139,-9.96092,24.9356,-1.28113,0.719534,0.0706026,
0.155713,0.0898752,0.10636,-1.85959,0.455393,0.000177811,-0.0183476,0.0681675,0.00538987,0.0617384,-0.0746024,0.220344,0.14088,0.000662141,-10.5022,-2.25545,-10.2958,13.7153,-13.4546,-14.395,-0.292433,0.020154,-0.445701,-0.48335,1.85587,1.70961,0.758741,-0.0155301,0.156617,0.0912021,0.11164,-1.87804,0.38318,0.0131455,-0.0175383,0.728869,0.102105,0.150094,-0.415921,0.426971,0.563648,0.000449775,0,0,0,0,0,0,0,-10.6962,-39.4139,-9.96092,24.9356,-1.28113,0.719534,0.0706026,
0.165584,0.0950519,0.119799,-1.88093,0.397164,0.0122241,-0.0177357,0.0795125,0.013655,0.0719323,-0.0653085,0.238707,0.0954854,-0.000164846,7.09064,5.16568,6.37118,5.80866,11.4768,-28.3717,-0.516867,0.020154,-0.445701,-0.48335,1.85587,1.70961,0.758741,-0.0155301,0.156617,0.0912021,0.11164,-1.87804,0.38318,0.0131455,-0.0175383,0.728869,0.102105,0.150094,-0.415921,0.426971,0.563648,0.000449775,0,0,0,0,0,0,0,-10.6962,-39.4139,-9.96092,24.9356,-1.28113,0.719534,0.0706026,
0.166368,0.0953089,0.120498,-1.88109,0.399461,0.0116174,-0.017759,0.0832083,0.017349,0.0750231,-0.0560982,0.248404,0.0612218,-0.000714302,2.30986,2.30875,1.93174,5.75641,6.06103,-21.4148,-0.34341,0.076143,-0.835457,-0.495414,1.51763,1.57149,0.551984,-0.0133855,0.166442,0.0960695,0.12259,-1.88473,0.400755,0.0215998,-0.0175361,0.13436,0.119632,0.204173,-0.0782698,0.438792,0.119441,0.000116342,-74.3136,2.19095,6.75985,42.2064,1.47767,-55.5258,-0.0416791,-18.5316,-44.7301,-16.8085,27.8992,0.507809,0.387198,-0.0365141,
0.166986,0.09548,0.121041,-1.88118,0.401575,0.0111249,-0.017779,0.0820306,0.0181564,0.0735922,-0.0473223,0.251572,0.0366656,-0.00107302,-0.736086,0.504663,-0.89432,5.48494,1.97992,-15.3476,-0.224196,0.076143,-0.835457,-0.495414,1.51763,1.57149,0.551984,-0.0133855,0.166442,0.0960695,0.12259,-1.88473,0.400755,0.0215998,-0.0175361,0.13436,0.119632,0.204173,-0.0782698,0.438792,0.119441,0.000116342,0,0,0,0,0,0,0,-18.5316,-44.7301,-16.8085,27.8992,0.507809,0.387198,-0.0365141,
0.170803,0.0982046,0.126352,-1.88553,0.417537,0.0213432,-0.0176864,0.0709452,0.0149989,0.0627462,-0.0369486,0.239682,0.0305096,-0.00118224,-6.92831,-1.97344,-6.77875,6.48358,-7.43158,-3.8475,-0.0682638,0.076143,-0.835457,-0.495414,1.51763,1.57149,0.551984,-0.0133855,0.166442,0.0960695,0.12259,-1.88473,0.400755,0.0215998,-0.0175361,0.13436,0.119632,0.204173,-0.0782698,0.438792,0.119441,0.000116342,0,0,0,0,0,0,0,-18.5316,-44.7301,-16.8085,27.8992,0.507809,0.387198,-0.0365141,
0.170975,0.0982004,0.126467,-1.88547,0.419002,0.0214482,-0.0176987,0.0610392,0.0118946,0.0530822,-0.0282308,0.228379,0.0270333,-0.00125365,-6.1913,-1.94022,-6.04,5.44861,-7.0639,-2.17271,-0.0446346,0.076143,-0.835457,-0.495414,1.51763,1.57149,0.551984,-0.0133855,0.166442,0.0960695,0.12259,-1.88473,0.400755,0.0215998,-0.0175361,0.13436,0.119632,0.204173,-0.0782698,0.438792,0.119441,0.000116342,0,0,0,0,0,0,0,-18.5316,-44.7301,-16.8085,27.8992,0.507809,0.387198,-0.0365141,
0.171113,0.0981792,0.126551,-1.88541,0.420411,0.021605,-0.0177106,0.0522917,0.00898539,0.0445678,-0.0209255,0.217915,0.0255475,-0.00129847,-5.46717,-1.81824,-5.3215,4.56581,-6.54035,-0.928592,-0.0280132,0.0819312,-0.801409,-0.535583,1.51105,1.53088,0.556344,-0.0131459,0.175579,0.098849,0.130508,-1.88611,0.412735,0.0273327,-0.0175592,0.115686,0.0311067,0.243504,-0.0680676,0.372195,0.17732,-0.000251456,-2.33423,-11.0657,4.9164,1.27528,-8.32464,7.23486,-0.0459747,-15.8934,-42.9329,-15.4834,24.5349,0.807186,-0.454172,0.0440523,
0.171225,0.0981454,0.12661,-1.88533,0.421774,0.0218069,-0.017722,0.04464,0.0063432,0.0371333,-0.01482,0.208407,0.0254841,-0.00132474,-4.78233,-1.65137,-4.64651,3.81594,-5.94261,-0.0396681,-0.0164182,0.0819312,-0.801409,-0.535583,1.51105,1.53088,0.556344,-0.0131459,0.175579,0.098849,0.130508,-1.88611,0.412735,0.0273327,-0.0175592,0.115686,0.0311067,0.243504,-0.0680676,0.372195,0.17732,-0.000251456,0,0,0,0,0,0,0,-15.8934,-42.9329,-15.4834,24.5349,0.807186,-0.454172,0.0440523,
0.179607,0.0993738,0.134036,-1.88619,0.425942,0.0280376,-0.0176905,0.0442192,0.00453758,0.0365617,-0.0103957,0.21112,0.0209884,-0.00144599,-0.263003,-1.12851,-0.357273,2.76519,1.696,-2.80979,-0.0757769,0.0819312,-0.801409,-0.535583,1.51105,1.53088,0.556344,-0.0131459,0.175579,0.098849,0.130508,-1.88611,0.412735,0.0273327,-0.0175592,0.115686,0.0311067,0.243504,-0.0680676,0.372195,0.17732,-0.000251456,0,0,0,0,0,0,0,-15.8934,-42.9329,-15.4834,24.5349,0.807186,-0.454172,0.0440523,
0.179879,0.0993353,0.134245,-1.88612,0.427602,0.0281049,-0.0177047,0.0421638,0.00266531,0.034472,-0.00656487,0.210413,0.0184726,-0.00151116,-1.28459,-1.17017,-1.30606,2.39429,-0.442058,-1.57239,-0.0407309,0.0819312,-0.801409,-0.535583,1.51105,1.53088,0.556344,-0.0131459,0.175579,0.098849,0.130508,-1.88611,0.412735,0.0273327,-0.0175592,0.115686,0.0311067,0.243504,-0.0680676,0.372195,0.17732,-0.000251456,0,0,0,0,0,0,0,-15.8934,-42.9329,-15.4834,24.5349,0.807186,-0.454172,0.0440523,
0.180096,0.0992851,0.134403,-1.88604,0.429168,0.028218,-0.0177179,0.0391719,0.00087835,0.0315174,-0.00326977,0.207469,0.0176046,-0.0015394,-1.86997,-1.11685,-1.84664,2.05944,-1.83978,-0.542461,-0.0176544,0.0832418,-0.860048,-0.548155,1.45433,1.49664,0.514041,-0.0125229,0.179596,0.0996343,0.133051,-1.88648,0.420715,0.0286139,-0.0175571,0.0281443,0.043699,0.12666,0.0115245,0.170438,0.0475071,0.000894644,-10.9427,1.57404,-14.6056,9.94901,-25.2196,-16.2266,0.143263,-4.38031,-36.0179,-3.53789,23.1662,4.56909,0.0228178,-0.0227812,
0.180271,0.0992272,0.13452,-1.88596,0.430655,0.028375,-0.0177304,0.0357161,-0.000745513,0.0281407,-0.000451947,0.203164,0.0180096,-0.00154385,-2.15984,-1.01491,-2.11039,1.76114,-2.69116,0.253079,-0.00277718,0.0832418,-0.860048,-0.548155,1.45433,1.49664,0.514041,-0.0125229,0.179596,0.0996343,0.133051,-1.88648,0.420715,0.0286139,-0.0175571,0.0281443,0.043699,0.12666,0.0115245,0.170438,0.0475071,0.000894644,0,0,0,0,0,0,0,-4.38031,-36.0179,-3.53789,23.1662,4.56909,0.0228178,-0.0227812,
0.180979,0.100019,0.134157,-1.8864,0.426677,0.0294099,-0.017626,0.0342884,9.4915e-06,0.0266393,0.000694689,0.198666,0.0184244,-0.00157903,-0.892309,0.471878,-0.938385,0.716647,-2.81125,0.259241,-0.0219904,0.0832418,-0.860048,-0.548155,1.45433,1.49664,0.514041,-0.0125229,0.179596,0.0996343,0.133051,-1.88648,0.420715,0.0286139,-0.0175571,0.0281443,0.043699,0.12666,0.0115245,0.170438,0.0475071,0.000894644,0,0,0,0,0,0,0,-4.38031,-36.0179,-3.53789,23.1662,4.56909,0.0228178,-0.0227812,
0.181159,0.100018,0.134277,-1.88635,0.428081,0.0295857,-0.0176387,0.0319469,-1.20296e-05,0.0243149,0.00197498,0.194011,0.0191332,-0.00158201,-1.46344,-0.0134507,-1.45278,0.800181,-2.90898,0.44303,-0.00186497,0.0832418,-0.860048,-0.548155,1.45433,1.49664,0.514041,-0.0125229,0.179596,0.0996343,0.133051,-1.88648,0.420715,0.0286139,-0.0175571,0.0281443,0.043699,0.12666,0.0115245,0.170438,0.0475071,0.000894644,0,0,0,0,0,0,0,-4.38031,-36.0179,-3.53789,23.1662,4.56909,0.0228178,-0.0227812,
0.181303,0.0999996,0.134362,-1.88628,0.429444,0.0297851,-0.0176508,0.0291538,-0.000480562,0.0215904,0.00329258,0.189304,0.0202921,-0.00156662,-1.74572,-0.292833,-1.70277,0.823501,-2.94221,0.724329,0.00962363,0.0832418,-0.860048,-0.548155,1.45433,1.49664,0.514041,-0.0125229,0.179596,0.0996343,0.133051,-1.88648,0.420715,0.0286139,-0.0175571,0.0281443,0.043699,0.12666,0.0115245,0.170438,0.0475071,0.000894644,0,0,0,0,0,0,0,-4.38031,-36.0179,-3.53789,23.1662,4.56909,0.0228178,-0.0227812,
0.181418,0.0999676,0.134421,-1.8862,0.430773,0.030011,-0.0176623,0.0262072,-0.00118331,0.0187394,0.00458047,0.184664,0.0218819,-0.0015414,-1.84158,-0.439217,-1.78191,0.80493,-2.89988,0.993635,0.0157602,0.0920578,-0.861082,-0.549168,1.44523,1.4793,0.515201,-0.0124644,0.181966,0.100249,0.134289,-1.88703,0.426709,0.0290481,-0.0175682,0.0761795,-0.00680948,0.0068985,-0.0299576,0.186043,-0.0217715,0.000148651,6.0044,-6.31356,-14.9701,-5.18526,1.95063,-8.65982,-0.0932491,-1.41278,-36.8153,-1.36382,27.1771,3.5556,2.68151,0.0376436,
0.182858,0.100218,0.134922,-1.887,0.432149,0.0287897,-0.017616,0.0248276,-0.00151274,0.0173778,0.00496673,0.180819,0.0190615,-0.00153055,-0.862248,-0.205896,-0.850976,0.241416,-2.40328,-1.7628,0.0067827,0.0920188,-0.861285,-0.549227,1.44542,1.47608,0.518093,-0.012462,0.181966,0.100249,0.134289,-1.88703,0.426709,0.0290481,-0.0175682,0.0761795,-0.00680948,0.0068985,-0.0299576,0.186043,-0.0217715,0.000148651,0,0,0,0,0,0,0,-1.41278,-36.8153,-1.36382,27.1771,3.5556,2.68151,0.0376436,
0.182983,0.100186,0.13499,-1.88693,0.433448,0.0289196,-0.0176274,0.0229808,-0.00201997,0.0155856,0.00560518,0.177126,0.0184962,-0.00151129,-1.15426,-0.317015,-1.12014,0.399029,-2.30764,-0.353269,0.0120393,0.0920226,-0.86128,-0.549223,1.44542,1.4761,0.518066,-0.012462,0.181966,0.100249,0.134289,-1.88703,0.426709,0.0290481,-0.0175682,0.0761795,-0.00680948,0.0068985,-0.0299576,0.186043,-0.0217715,0.000148651,0,0,0,0,0,0,0,-1.41278,-36.8153,-1.36382,27.1771,3.5556,2.68151,0.0376436,
0.183084,0.100146,0.135035,-1.88685,0.434724,0.0291048,-0.0176386,0.0209158,-0.0026227,0.0135949,0.00637167,0.173593,0.019429,-0.00148751,-1.29067,-0.376706,-1.24419,0.479056,-2.20861,0.583007,0.0148568,0.0920255,-0.861277,-0.54922,1.44542,1.47612,0.518039,-0.012462,0.181966,0.100249,0.134289,-1.88703,0.426709,0.0290481,-0.0175682,0.0761795,-0.00680948,0.0068985,-0.0299576,0.186043,-0.0217715,0.000148651,0,0,0,0,0,0,0,-1.41278,-36.8153,-1.36382,27.1771,3.5556,2.68151,0.0376436,
0.182291,0.100778,0.134584,-1.8876,0.427494,0.0292815,-0.0175827,0.0248424,0.0111282,0.0182527,-0.0090096,0.158492,0.0213798,-0.00155089,2.45416,8.59428,2.91112,-9.61329,-9.438,1.2192,-0.0396109,0.00469018,31.4657,-0.665814,-21.4234,-2.58863,-0.0649751,-0.00857293,0.181966,0.100249,0.134289,-1.88703,0.426709,0.0290481,-0.0175682,0.0761795,-0.00680948,0.0068985,-0.0299576,0.186043,-0.0217715,0.000148651,0,0,0,0,0,0,0,-1.41278,-36.8153,-1.36382,27.1771,3.5556,2.68151,0.0376436,
0.182558,0.10123,0.134774,-1.88789,0.428334,0.0292706,-0.017594,0.0265571,0.0201864,0.019355,-0.0145051,0.147798,0.0168316,-0.00152462,1.07167,5.66139,0.688925,-3.43468,-6.68382,-2.84262,0.0164183,0.0915828,-0.863342,-0.549865,1.4474,1.44303,0.547572,-0.0124382,0.181966,0.100249,0.134289,-1.88703,0.426709,0.0290481,-0.0175682,0.0761795,-0.00680948,0.0068985,-0.0299576,0.186043,-0.0217715,0.000148651,0,0,0,0,0,0,0,-1.41278,-36.8153,-1.36382,27.1771,3.5556,2.68151,0.0376436,
0.182762,0.101575,0.134907,-1.88807,0.429248,0.0292288,-0.0176058,0.0263444,0.0247746,0.0188028,-0.01609,0.141098,0.0124189,-0.0015143,-0.13294,2.86765,-0.345092,-0.990551,-4.18735,-2.75788,0.0064514,0.091626,-0.863303,-0.549823,1.44738,1.44326,0.547281,-0.0124382,0.181966,0.100249,0.134289,-1.88703,0.426709,0.0290481,-0.0175682,0.0761795,-0.00680948,0.0068985,-0.0299576,0.186043,-0.0217715,0.000148651,0,0,0,0,0,0,0,-1.41278,-36.8153,-1.36382,27.1771,3.5556,2.68151,0.0376436,
0.182919,0.101829,0.134997,-1.88818,0.430221,0.0292197,-0.0176172,0.0250006,0.0261668,0.0173054,-0.0156871,0.137202,0.00970725,-0.00149643,-0.83988,0.870083,-0.935883,0.251774,-2.43503,-1.69481,0.0111669,0.0916604,-0.863264,-0.549788,1.44736,1.44349,0.546986,-0.0124381,0.181966,0.100249,0.134289,-1.88703,0.426709,0.0290481,-0.0175682,0.0761795,-0.00680948,0.0068985,-0.0299576,0.186043,-0.0217715,0.000148651,0,0,0,0,0,0,0,-1.41278,-36.8153,-1.36382,27.1771,3.5556,2.68151,0.0376436,
0.183837,0.0999265,0.13467,-1.88679,0.439476,0.0304599,-0.0176508,0.0214187,0.0198843,0.0139063,-0.0103688,0.133611,0.020577,-0.00145415,-2.2387,-3.92653,-2.12442,3.32398,-2.2442,6.79358,0.0264294,0.0866848,-0.899641,-0.556211,1.46249,1.12327,0.826489,-0.0122102,0.183048,0.0998988,0.134279,-1.88717,0.432218,0.0277849,-0.0175737,0.028527,0.0196311,0.0237447,0.00548385,0.15389,0.00565151,-0.000653805,-5.95656,3.30508,2.10577,4.43018,-4.01916,3.42787,-0.100307,-1.49212,-36.2163,-0.411669,24.3604,3.61053,1.04363,0.0440523,
0.183884,0.0998781,0.134663,-1.88669,0.440418,0.0309949,-0.017661,0.0183069,0.0146972,0.0109534,-0.00596954,0.130434,0.0298375,-0.00141741,-1.94487,-3.24195,-1.84561,2.74952,-1.98598,5.78781,0.0229588,0.0868208,-0.899102,-0.556054,1.46231,1.12566,0.823541,-0.0122121,0.183048,0.0998988,0.134279,-1.88717,0.432218,0.0277849,-0.0175737,0.028527,0.0196311,0.0237447,0.00548385,0.15389,0.00565151,-0.000653805,0,0,0,0,0,0,0,-1.49212,-36.2163,-0.411669,24.3604,3.61053,1.04363,0.0440523,
0.183923,0.0998248,0.134648,-1.8866,0.44135,0.0315475,-0.0176711,0.0156195,0.0104247,0.00840321,-0.00233755,0.127656,0.037685,-0.00138564,-1.67962,-2.67032,-1.59384,2.26999,-1.73631,4.90468,0.0198595,0.0868993,-0.898619,-0.555892,1.46212,1.12811,0.820573,-0.0122168,0.183048,0.0998988,0.134279,-1.88717,0.432218,0.0277849,-0.0175737,0.028527,0.0196311,0.0237447,0.00548385,0.15389,0.00565151,-0.000653805,0,0,0,0,0,0,0,-1.49212,-36.2163,-0.411669,24.3604,3.61053,1.04363,0.0440523,
0.183955,0.0997677,0.134628,-1.8865,0.442275,0.0321135,-0.017681,0.0133104,0.00691309,0.00621226,0.000655254,0.125249,0.0442979,-0.00135823,-1.44315,-2.19475,-1.36934,1.8705,-1.50389,4.13306,0.0171298,0.0869303,-0.898165,-0.555703,1.46192,1.13059,0.817588,-0.0122207,0.183048,0.0998988,0.134279,-1.88717,0.432218,0.0277849,-0.0175737,0.028527,0.0196311,0.0237447,0.00548385,0.15389,0.00565151,-0.000653805,0,0,0,0,0,0,0,-1.49212,-36.2163,-0.411669,24.3604,3.61053,1.04363,0.0440523,
0.184564,0.0949677,0.131309,-1.87878,0.523861,0.0593225,-0.0184075,0.0108348,0.00409605,0.00389744,0.00273469,0.1242,0.0436385,-0.00131144,-1.5473,-1.76065,-1.44677,1.29964,-0.655759,-0.41211,0.0292442,0.0913321,-0.875357,-0.560919,1.45838,1.11718,0.822767,-0.0122816,0.183799,0.100767,0.134985,-1.88732,0.436769,0.0282166,-0.0175778,0.0283173,0.0260599,0.00893384,-0.031404,0.204531,0.023884,0.000517238,-0.0262182,0.803595,-1.85135,-4.61098,6.33011,2.27907,0.14638,-0.655026,-36.617,-0.288683,26.9788,2.76184,0.73876,0.0376436,
0.184564,0.0949677,0.131309,-1.87878,0.523861,0.0593225,-0.0184075,0.00885421,0.00184241,0.00204557,0.00439823,0.123361,0.043111,-0.00127401,-1.23784,-1.40852,-1.15741,1.03972,-0.524607,-0.329688,0.0233953,0.0913321,-0.875357,-0.560919,1.45838,1.11718,0.822767,-0.0122816,0.183799,0.100767,0.134985,-1.88732,0.436769,0.0282166,-0.0175778,0.0283173,0.0260599,0.00893384,-0.031404,0.204531,0.023884,0.000517238,0,0,0,0,0,0,0,-0.655026,-36.617,-0.288683,26.9788,2.76184,0.73876,0.0376436,
0.184564,0.0949677,0.131309,-1.87878,0.523861,0.0593225,-0.0184075,0.00726977,3.94996e-05,0.000564081,0.00572907,0.122689,0.042689,-0.00124406,-0.990273,-1.12682,-0.925932,0.831773,-0.419686,-0.263751,0.0187163,0.0913321,-0.875357,-0.560919,1.45838,1.11718,0.822767,-0.0122816,0.183799,0.100767,0.134985,-1.88732,0.436769,0.0282166,-0.0175778,0.0283173,0.0260599,0.00893384,-0.031404,0.204531,0.023884,0.000517238,0,0,0,0,0,0,0,-0.655026,-36.617,-0.288683,26.9788,2.76184,0.73876,0.0376436,
0.190342,0.0960949,0.136867,-1.8808,0.291944,0.258602,-0.018065,0.00554566,0.00026492,-0.000958316,0.00549112,0.139308,0.0206212,-0.00114965,-1.07757,0.140888,-0.951498,-0.148714,10.3866,-13.7924,0.059008,0.0913321,-0.875357,-0.560919,1.45838,1.11718,0.822767,-0.0122816,0.183799,0.100767,0.134985,-1.88732,0.436769,0.0282166,-0.0175778,0.0283173,0.0260599,0.00893384,-0.031404,0.204531,0.023884,0.000517238,0,0,0,0,0,0,0,-0.655026,-36.617,-0.288683,26.9788,2.76184,0.73876,0.0376436,
0.185286,0.0959136,0.131329,-1.87827,0.54079,0.0622876,-0.0185103,0.00462514,-0.00111043,-0.00186011,0.00653344,0.134991,0.0245607,-0.00114403,-0.575328,-0.859594,-0.563619,0.651445,-2.69809,2.46216,0.00350827,0.0933905,-0.869328,-0.562521,1.45349,1.10153,0.827007,-0.0122725,0.184535,0.10095,0.13513,-1.88782,0.442122,0.0290804,-0.0175791,0.0180725,0.0139675,0.0141888,-0.0155732,0.195328,0.0833314,0.000882313,-1.2806,-1.51155,0.656865,1.97885,-1.15034,7.43091,0.0456344,-1.13507,-36.3432,-0.312487,26.9788,2.99987,0.18212,0.0101778,
0.185286,0.0959136,0.131329,-1.87827,0.54079,0.0622876,-0.0185103,0.00388872,-0.00221071,-0.00258154,0.00736728,0.131537,0.0277122,-0.00113954,-0.460262,-0.687675,-0.450895,0.521156,-2.15847,1.96972,0.00280661,0.0933905,-0.869328,-0.562521,1.45349,1.10153,0.827007,-0.0122725,0.184535,0.10095,0.13513,-1.88782,0.442122,0.0290804,-0.0175791,0.0180725,0.0139675,0.0141888,-0.0155732,0.195328,0.0833314,0.000882313,0,0,0,0,0,0,0,-1.13507,-36.3432,-0.312487,26.9788,2.99987,0.18212,0.0101778,
0.185286,0.0959136,0.131329,-1.87827,0.54079,0.0622876,-0.0185103,0.00329958,-0.00309094,-0.00315869,0.00803436,0.128774,0.0302335,-0.00113595,-0.36821,-0.55014,-0.360716,0.416925,-1.72678,1.57578,0.00224529,0.0933905,-0.869328,-0.562521,1.45349,1.10153,0.827007,-0.0122725,0.184535,0.10095,0.13513,-1.88782,0.442122,0.0290804,-0.0175791,0.0180725,0.0139675,0.0141888,-0.0155732,0.195328,0.0833314,0.000882313,0,0,0,0,0,0,0,-1.13507,-36.3432,-0.312487,26.9788,2.99987,0.18212,0.0101778,
0.184682,0.101572,0.135262,-1.88833,0.442923,0.0299605,-0.017593,0.00629989,0.0130708,0.000769753,-0.00626048,0.123051,0.0461898,-0.00125617,1.87519,10.1011,2.45527,-8.93428,-3.57709,9.97273,-0.0751353,0.0078308,31.478,-0.675403,-21.4349,-2.63841,-0.0482784,-0.0086186,0.184535,0.10095,0.13513,-1.88782,0.442122,0.0290804,-0.0175791,0.0180725,0.0139675,0.0141888,-0.0155732,0.195328,0.0833314,0.000882313,0,0,0,0,0,0,0,-1.13507,-36.3432,-0.312487,26.9788,2.99987,0.18212,0.0101778,
0.185095,0.101693,0.135902,-1.88887,0.439165,0.0337368,-0.017503,0.0153661,0.013487,0.0166119,-0.0186416,0.00447237,0.131359,0.0012441,5.66636,0.260117,9.90132,-7.73823,-74.1116,53.231,1.56267,6.66396,-10.3352,8.09911,0.265972,-14.6629,11.9354,0.0670181,0.185317,0.101378,0.135216,-1.88753,0.451755,0.0345964,-0.0175836,0.0186896,0.00298628,0.00113542,0.025826,0.289785,0.172175,0.000566052,0.0771434,-1.37265,-1.63167,5.17489,11.8071,11.1055,-0.0395327,-1.36517,-37.5652,-0.538622,24.6381,2.77374,0.129019,0.017502,
0.18567,0.101556,0.136778,-1.88933,0.432529,0.0393038,-0.0174533,0.0266732,0.0073649,0.035182,-0.0263628,-0.162304,0.244263,0.00223705,7.06698,-3.82629,11.6064,-4.82573,-104.235,70.5646,0.620592,6.02589,-9.09266,9.01275,-0.244228,-14.6629,11.9354,0.0287862,0.185317,0.101378,0.135216,-1.88753,0.451755,0.0345964,-0.0175836,0.0186896,0.00298628,0.00113542,0.025826,0.289785,0.172175,0.000566052,0,0,0,0,0,0,0,-1.36517,-37.5652,-0.538622,24.6381,2.77374,0.129019,0.017502,
0.18627,0.101302,0.137834,-1.88969,0.42407,0.0460307,-0.0174543,0.0363513,-0.00045517,0.0545506,-0.0299564,-0.341317,0.363584,0.00176591,6.04881,-4.88755,12.1053,-2.246,-111.883,74.5757,-0.294462,5.4702,-7.38389,10.7667,-0.461934,-14.6629,11.9354,-0.0242459,0.185317,0.101378,0.135216,-1.88753,0.451755,0.0345964,-0.0175836,0.0186896,0.00298628,0.00113542,0.025826,0.289785,0.172175,0.000566052,0,0,0,0,0,0,0,-1.36517,-37.5652,-0.538622,24.6381,2.77374,0.129019,0.017502,
0.186696,0.100363,0.136152,-1.88792,0.443492,0.0451615,-0.0174607,0.0486124,-0.0141663,0.058425,-0.0285138,-0.416279,0.44407,0.00237048,7.66316,-8.56948,2.42149,0.901635,-46.8512,50.3037,0.37786,8.96872,-10.6319,4.10688,-2.09259,-14.6629,11.9354,0.065624,0.185317,0.101378,0.135216,-1.88753,0.451755,0.0345964,-0.0175836,0.0186896,0.00298628,0.00113542,0.025826,0.289785,0.172175,0.000566052,0,0,0,0,0,0,0,-1.36517,-37.5652,-0.538622,24.6381,2.77374,0.129019,0.017502,
0.187574,0.0998301,0.136881,-1.88805,0.435704,0.0523618,-0.0174662,0.060837,-0.0246629,0.064985,-0.0259529,-0.527713,0.535264,0.00175886,7.64039,-6.56035,4.10004,1.60054,-69.6464,56.9962,-0.382263,8.69799,-7.17363,5.3671,-1.55466,-14.6623,11.8742,0.0142502,0.185621,0.101334,0.135036,-1.88682,0.456641,0.0440986,-0.017597,-0.0152155,-0.00218751,-0.0239142,0.0131163,0.55907,0.168679,-0.000496817,-4.23815,-0.646724,-3.13121,-1.58871,33.6606,-0.436968,-0.132859,1.50318,-35.8949,2.5638,24.6103,4.4226,-0.235361,0.0376436,
0.188488,0.0993678,0.137713,-1.88812,0.426577,0.0602605,-0.0174985,0.0715171,-0.031288,0.072774,-0.0226268,-0.650343,0.625677,0.000600466,6.67507,-4.14069,4.86812,2.07884,-76.6437,56.508,-0.723998,9.22905,-5.14148,6.8012,-1.4563,-14.6623,11.8742,-0.0297634,0.185621,0.101334,0.135036,-1.88682,0.456641,0.0440986,-0.017597,-0.0152155,-0.00218751,-0.0239142,0.0131163,0.55907,0.168679,-0.000496817,0,0,0,0,0,0,0,1.50318,-35.8949,2.5638,24.6103,4.4226,-0.235361,0.0376436,
0.189407,0.0990041,0.138626,-1.88815,0.41657,0.0686092,-0.0175227,0.0801969,-0.034122,0.0810421,-0.0186443,-0.770458,0.709259,-0.000126926,5.42486,-1.77126,5.16756,2.48909,-75.0723,52.2391,-0.45462,9.82801,-3.41863,8.43602,-1.19195,-14.6623,11.8742,-0.0566027,0.185621,0.101334,0.135036,-1.88682,0.456641,0.0440986,-0.017597,-0.0152155,-0.00218751,-0.0239142,0.0131163,0.55907,0.168679,-0.000496817,0,0,0,0,0,0,0,1.50318,-35.8949,2.5638,24.6103,4.4226,-0.235361,0.0376436,
0.186692,0.100516,0.135907,-1.887,0.450461,0.0546306,-0.0175295,0.0810635,-0.038635,0.0793292,-0.0170123,-0.739657,0.721419,0.000144679,0.541613,-2.8206,-1.07057,1.01998,19.2508,7.59977,0.169753,8.69799,-7.17363,5.3671,-1.55466,-14.6623,11.8742,0.0142502,0.185621,0.101334,0.135036,-1.88682,0.456641,0.0440986,-0.017597,-0.0152155,-0.00218751,-0.0239142,0.0131163,0.55907,0.168679,-0.000496817,0,0,0,0,0,0,0,1.50318,-35.8949,2.5638,24.6103,4.4226,-0.235361,0.0376436,
0.187511,0.100081,0.136674,-1.88704,0.44316,0.0619058,-0.0175523,0.0853266,-0.0417976,0.082643,-0.0146229,-0.774256,0.759013,-0.000454751,2.66447,-1.97664,2.07111,1.49337,-21.624,23.4964,-0.374644,9.22905,-5.14148,6.8012,-1.4563,-14.6623,11.8742,-0.0297634,0.185621,0.101334,0.135036,-1.88682,0.456641,0.0440986,-0.017597,-0.0152155,-0.00218751,-0.0239142,0.0131163,0.55907,0.168679,-0.000496817,0,0,0,0,0,0,0,1.50318,-35.8949,2.5638,24.6103,4.4226,-0.235361,0.0376436,
0.188395,0.0997165,0.13757,-1.88703,0.434324,0.0698796,-0.017571,0.0903733,-0.0425387,0.0885134,-0.0114709,-0.840287,0.806558,-0.000831526,3.15417,-0.46321,3.669,1.96998,-41.2699,29.7152,-0.235484,9.72855,-2.7574,8.31979,-1.86411,-14.7801,11.6591,-0.0516898,0.18683,0.100186,0.138396,-1.88884,0.436279,0.0648165,-0.0176178,0.106477,-0.0364011,0.127561,-0.0772102,-1.12348,1.15084,-0.0102724,15.2116,-4.2767,18.9344,-11.2908,-210.319,122.77,-1.22195,1.63013,-39.4377,0.762648,29.4702,-1.46424,4.17382,0.312302,
0.191778,0.099832,0.143172,-1.88924,0.3819,0.109949,-0.0175481,0.0968895,-0.0359244,0.0944045,-0.0111554,-0.956943,0.87251,-0.000187802,4.07259,4.13393,3.68195,0.197231,-72.9097,41.2202,0.402328,10.7479,-0.389536,10.5261,-0.777158,-14.7801,11.6591,-0.00640136,0.18683,0.100186,0.138396,-1.88884,0.436279,0.0648165,-0.0176178,0.106477,-0.0364011,0.127561,-0.0772102,-1.12348,1.15084,-0.0102724,0,0,0,0,0,0,0,1.63013,-39.4377,0.762648,29.4702,-1.46424,4.17382,0.312302,
0.192752,0.0997495,0.14411,-1.88933,0.370425,0.119034,-0.0175291,0.101863,-0.0308014,0.0989605,-0.0112985,-1.05242,0.92514,0.000325592,3.10832,3.20187,2.84752,-0.089442,-59.6718,32.8939,0.320871,11.2386,-0.258001,10.6666,-0.601478,-14.7801,11.6591,0.0117783,0.18683,0.100186,0.138396,-1.88884,0.436279,0.0648165,-0.0176178,0.106477,-0.0364011,0.127561,-0.0772102,-1.12348,1.15084,-0.0102724,0,0,0,0,0,0,0,1.63013,-39.4377,0.762648,29.4702,-1.46424,4.17382,0.312302,
0.193717,0.0996639,0.145041,-1.88944,0.358901,0.128101,-0.0175106,0.105634,-0.0267824,0.102452,-0.0117265,-1.13002,0.966786,0.000723138,2.35685,2.51192,2.18205,-0.267531,-48.5033,26.0288,0.248467,11.4647,-0.513513,10.8129,-0.670978,-14.7801,11.6591,0.0189799,0.18683,0.100186,0.138396,-1.88884,0.436279,0.0648165,-0.0176178,0.106477,-0.0364011,0.127561,-0.0772102,-1.12348,1.15084,-0.0102724,0,0,0,0,0,0,0,1.63013,-39.4377,0.762648,29.4702,-1.46424,4.17382,0.312302,
0.19467,0.0995792,0.145958,-1.88957,0.347508,0.137144,-0.0174943,0.108332,-0.0235422,0.104888,-0.0125479,-1.18886,0.9995,0.000985304,1.68633,2.02513,1.5228,-0.513398,-36.7735,20.446,0.163853,11.4489,-0.231476,10.8716,-1.43913,-14.7612,11.2971,0.0251109,0.191929,0.0985571,0.141908,-1.89069,0.392997,0.108818,-0.0175978,0.244809,-0.0252716,0.0964225,-0.0390731,-1.46746,1.39375,-0.00299995,17.2914,1.39118,-3.89235,4.76713,-42.9976,30.3635,0.909055,2.54261,-38.0888,2.71455,26.0068,2.6886,2.52953,0.131027,
0.197581,0.0980608,0.14729,-1.89111,0.335892,0.156751,-0.0175349,0.11188,-0.0212857,0.108027,-0.0132274,-1.22433,1.02852,0.00107546,2.21788,1.41028,1.96139,-0.424646,-22.1684,18.1388,0.0563455,11.5165,-0.461799,11.0127,-1.5879,-14.7612,11.2971,0.026251,0.191929,0.0985571,0.141908,-1.89069,0.392997,0.108818,-0.0175978,0.244809,-0.0252716,0.0964225,-0.0390731,-1.46746,1.39375,-0.00299995,0,0,0,0,0,0,0,2.54261,-38.0888,2.71455,26.0068,2.6886,2.52953,0.131027,
0.198547,0.0979741,0.148212,-1.89127,0.3255,0.165811,-0.0175231,0.113667,-0.0191971,0.109464,-0.0144427,-1.23926,1.0493,0.00115415,1.11638,1.30537,0.898627,-0.759573,-9.33419,12.9874,0.0491865,11.5723,-0.595747,11.116,-1.71443,-14.7612,11.2971,0.0261788,0.191929,0.0985571,0.141908,-1.89069,0.392997,0.108818,-0.0175978,0.244809,-0.0252716,0.0964225,-0.0390731,-1.46746,1.39375,-0.00299995,0,0,0,0,0,0,0,2.54261,-38.0888,2.71455,26.0068,2.6886,2.52953,0.131027,
0.199479,0.0979014,0.149098,-1.89144,0.315703,0.174795,-0.0175105,0.114229,-0.0171754,0.109732,-0.0159146,-1.23633,1.06406,0.00123979,0.351572,1.26359,0.167437,-0.919919,1.83697,9.22085,0.053524,11.623,-0.651934,11.195,-1.81866,-14.7612,11.2971,0.025408,0.191929,0.0985571,0.141908,-1.89069,0.392997,0.108818,-0.0175978,0.244809,-0.0252716,0.0964225,-0.0390731,-1.46746,1.39375,-0.00299995,0,0,0,0,0,0,0,2.54261,-38.0888,2.71455,26.0068,2.6886,2.52953,0.131027,
0.200383,0.0978431,0.149956,-1.89163,0.306526,0.183721,-0.0174972,0.113979,-0.015198,0.109233,-0.0174567,-1.21849,1.07438,0.00132466,-0.156186,1.23585,-0.312085,-0.963833,11.1446,6.45441,0.0530445,11.5018,0.0169646,11.0812,-2.60602,-14.2159,10.8607,0.0270702,0.199471,0.0968085,0.147702,-1.89241,0.344215,0.158177,-0.017595,0.353799,-0.100605,0.107193,-0.0753664,-1.79267,1.58243,-0.00575775,13.6237,-9.41671,1.34637,-4.53665,-40.6517,23.5842,-0.344724,0.0828892,-33.9986,0.187391,24.9118,-0.365604,4.04107,0.104477,
0.215818,0.095065,0.162751,-1.89318,0.285454,0.210974,-0.0177541,0.103697,-0.0127301,0.0990326,-0.0157676,-1.00203,0.868526,0.00103193,-6.42642,1.54246,-6.37518,1.05567,135.289,-128.66,-0.18296,9.58584,1.65314,9.03709,-3.14262,-3.44408,3.59689,0.0158322,0.199471,0.0968085,0.147702,-1.89241,0.344215,0.158177,-0.017595,0.353799,-0.100605,0.107193,-0.0753664,-1.79267,1.58243,-0.00575775,0,0,0,0,0,0,0,0.0828892,-33.9986,0.187391,24.9118,-0.365604,4.04107,0.104477,
0.216308,0.0950424,0.163206,-1.89325,0.284381,0.21131,-0.0177552,0.095198,-0.0107489,0.0906074,-0.0143783,-0.828434,0.703225,0.000798449,-5.31188,1.23825,-5.26576,0.868328,108.499,-103.313,-0.145925,9.39955,1.65601,8.85283,-3.12444,-3.29265,3.21839,0.0147979,0.199471,0.0968085,0.147702,-1.89241,0.344215,0.158177,-0.017595,0.353799,-0.100605,0.107193,-0.0753664,-1.79267,1.58243,-0.00575775,0,0,0,0,0,0,0,0.0828892,-33.9986,0.187391,24.9118,-0.365604,4.04107,0.104477,
0.216786,0.09502,0.163651,-1.89332,0.283325,0.211626,-0.0177562,0.0881212,-0.00915871,0.0835983,-0.0132233,-0.689146,0.570467,0.000612665,-4.42303,0.99386,-4.38068,0.721847,87.055,-82.9737,-0.116115,9.21434,1.65321,8.66987,-3.10457,-3.15875,2.8781,0.0138634,0.199471,0.0968085,0.147702,-1.89241,0.344215,0.158177,-0.017595,0.353799,-0.100605,0.107193,-0.0753664,-1.79267,1.58243,-0.00575775,0,0,0,0,0,0,0,0.0828892,-33.9986,0.187391,24.9118,-0.365604,4.04107,0.104477,
0.217213,0.0951194,0.16405,-1.89318,0.244883,0.244769,-0.0178382,0.0744759,-0.00740266,0.0703896,-0.0105189,-0.550374,0.456675,0.000467489,-8.52829,1.09753,-8.25543,1.69027,86.7326,-71.1195,-0.0907349,4.85142,1.71324,4.40746,-2.60419,-1.98514,-0.071098,0.00922113,0.207332,0.0957075,0.155314,-1.89404,0.284205,0.214436,-0.0175798,0.418469,0.00679354,0.0837174,-0.0375576,-1.83803,1.72118,5.26012e-06,8.08385,13.4249,-2.9345,4.72609,-5.6691,17.3438,0.720376,-0.119442,-34.2207,0.988783,26.2805,1.21643,3.70965,-0.0163725,
0.217359,0.0951174,0.164177,-1.89317,0.245067,0.244736,-0.0178393,0.0632295,-0.00597088,0.0595072,-0.00826503,-0.43569,0.364526,0.000346465,-7.02897,0.894859,-6.80148,1.40868,71.6772,-57.5933,-0.0756406,4.69686,1.70861,4.25862,-2.56203,-1.9711,-0.0791494,0.00926394,0.207332,0.0957075,0.155314,-1.89404,0.284205,0.214436,-0.0175798,0.418469,0.00679354,0.0837174,-0.0375576,-1.83803,1.72118,5.26012e-06,0,0,0,0,0,0,0,-0.119442,-34.2207,0.988783,26.2805,1.21643,3.70965,-0.0163725,
0.217492,0.0951165,0.164292,-1.89316,0.245418,0.24465,-0.0178406,0.0538952,-0.00479936,0.0504789,-0.00636541,-0.339792,0.289454,0.000246127,-5.83398,0.7322,-5.64272,1.18726,59.9366,-46.9198,-0.0627111,4.54259,1.70459,4.11022,-2.51966,-1.95719,-0.0845454,0.00931949,0.207332,0.0957075,0.155314,-1.89404,0.284205,0.214436,-0.0175798,0.418469,0.00679354,0.0837174,-0.0375576,-1.83803,1.72118,5.26012e-06,0,0,0,0,0,0,0,-0.119442,-34.2207,0.988783,26.2805,1.21643,3.70965,-0.0163725,
0.21761,0.0951166,0.164394,-1.89315,0.245954,0.244498,-0.0178419,0.0460831,-0.00383736,0.0429259,-0.00474309,-0.258417,0.227778,0.000164631,-4.88254,0.601252,-4.72058,1.01395,50.859,-38.5474,-0.0509347,4.38857,1.70119,3.96222,-2.47713,-1.9431,-0.0879021,0.00937833,0.207332,0.0957075,0.155314,-1.89404,0.284205,0.214436,-0.0175798,0.418469,0.00679354,0.0837174,-0.0375576,-1.83803,1.72118,5.26012e-06,0,0,0,0,0,0,0,-0.119442,-34.2207,0.988783,26.2805,1.21643,3.70965,-0.0163725,
0.208755,0.0958481,0.156481,-1.89389,0.274841,0.223137,-0.0176732,0.072442,0.000445028,0.0635183,0.000113027,-0.440839,0.399744,-0.00220441,16.4743,2.67649,12.8703,3.03507,-114.014,107.478,-1.48065,5.25616,0.500956,4.84452,-1.40963,-1.32687,0.0119146,0.00324034,0.215273,0.0968077,0.164289,-1.89524,0.234388,0.265045,-0.0176074,0.356738,0.0351216,0.0602493,-0.0109297,-0.76359,0.891328,-0.00243961,-7.71637,3.54101,-2.93351,3.32849,134.305,-103.731,-0.305608,-2.91241,-38.438,-1.463,22.6187,7.55005,-3.05335,0.205185,
0.209685,0.0959179,0.157268,-1.89367,0.268871,0.228868,-0.0177403,0.0812052,0.00210051,0.0704954,0.00545632,-0.501928,0.463069,-0.00343895,5.47697,1.03468,4.36066,3.33956,-38.1808,39.5785,-0.771592,5.1016,0.496323,4.69568,-1.36748,-1.31282,0.00386325,0.00328316,0.215273,0.0968077,0.164289,-1.89524,0.234388,0.265045,-0.0176074,0.356738,0.0351216,0.0602493,-0.0109297,-0.76359,0.891328,-0.00243961,0,0,0,0,0,0,0,-2.91241,-38.438,-1.463,22.6187,7.55005,-3.05335,0.205185,
0.210342,0.0959193,0.157832,-1.89348,0.264942,0.232751,-0.0177816,0.0813906,0.00171761,0.0704979,0.00911714,-0.499756,0.467534,-0.00378452,0.115891,-0.23931,0.00157935,2.28802,1.35749,2.79053,-0.215981,4.94732,0.492308,4.54728,-1.32511,-1.29892,-0.00153275,0.00333871,0.215273,0.0968077,0.164289,-1.89524,0.234388,0.265045,-0.0176074,0.356738,0.0351216,0.0602493,-0.0109297,-0.76359,0.891328,-0.00243961,0,0,0,0,0,0,0,-2.91241,-38.438,-1.463,22.6187,7.55005,-3.05335,0.205185,
0.210847,0.0958766,0.158272,-1.89333,0.262228,0.235444,-0.0178062,0.0777228,0.000305195,0.0674034,0.0111052,-0.46765,0.44135,-0.0036428,-2.2924,-0.882762,-1.93412,1.24256,20.0662,-16.3653,0.0885803,4.79331,0.488902,4.39928,-1.28258,-1.28482,-0.00488945,0.00339755,0.215273,0.0968077,0.164289,-1.89524,0.234388,0.265045,-0.0176074,0.356738,0.0351216,0.0602493,-0.0109297,-0.76359,0.891328,-0.00243961,0,0,0,0,0,0,0,-2.91241,-38.438,-1.463,22.6187,7.55005,-3.05335,0.205185,
0.220101,0.096706,0.167736,-1.89356,0.279095,0.258907,-0.01792,0.0625418,6.14674e-06,0.0529849,0.00972263,-0.319744,0.333887,-0.00312835,-9.48814,-0.186905,-9.01156,-0.864131,92.4415,-67.1641,0.32153,1.75417,0.199216,1.53983,-0.0549963,0.367192,-0.234905,0.00272418,0.220248,0.0973822,0.169266,-1.89593,0.217338,0.284068,-0.0175971,0.248874,0.0109851,0.0219594,-0.0399242,-0.275095,0.339443,-0.000316152,-13.4831,-3.01707,-4.78624,-3.62431,61.0619,-68.9856,0.265432,-3.92407,-37.2398,-3.08562,25.4077,4.06829,-0.421213,0.0706026,
0.220115,0.0966964,0.167698,-1.89352,0.281262,0.258145,-0.0179286,0.0503786,-0.000235232,0.0414312,0.00861962,-0.201605,0.248041,-0.0027169,-7.60196,-0.150862,-7.22102,-0.689381,73.8368,-53.6537,0.257155,1.63765,0.206645,1.43387,-0.0144819,0.592632,-0.312581,0.00274257,0.220248,0.0973822,0.169266,-1.89593,0.217338,0.284068,-0.0175971,0.248874,0.0109851,0.0219594,-0.0399242,-0.275095,0.339443,-0.000316152,0,0,0,0,0,0,0,-3.92407,-37.2398,-3.08562,25.4077,4.06829,-0.421213,0.0706026,
0.220128,0.0966866,0.167659,-1.89349,0.283423,0.257387,-0.0179372,0.0406332,-0.000431222,0.0321728,0.00774035,-0.107272,0.179484,-0.00238788,-6.09086,-0.122494,-5.7865,-0.549542,58.9584,-42.8479,0.205636,1.5221,0.214504,1.3291,0.0257461,0.845662,-0.406018,0.00285037,0.220248,0.0973822,0.169266,-1.89593,0.217338,0.284068,-0.0175971,0.248874,0.0109851,0.0219594,-0.0399242,-0.275095,0.339443,-0.000316152,0,0,0,0,0,0,0,-3.92407,-37.2398,-3.08562,25.4077,4.06829,-0.421213,0.0706026,
0.222812,0.0976897,0.171465,-1.8958,0.225521,0.283651,-0.0176924,0.036689,-0.000127976,0.0289352,0.00726539,-0.0199746,0.120948,-0.00203772,-2.46517,0.189529,-2.02354,-0.296852,54.5606,-36.5854,0.218849,1.15972,0.237778,0.992799,0.142044,1.76285,-0.79155,0.00456474,0.220248,0.0973822,0.169266,-1.89593,0.217338,0.284068,-0.0175971,0.248874,0.0109851,0.0219594,-0.0399242,-0.275095,0.339443,-0.000316152,0,0,0,0,0,0,0,-3.92407,-37.2398,-3.08562,25.4077,4.06829,-0.421213,0.0706026,
0.222926,0.0976956,0.171557,-1.89576,0.228377,0.2826,-0.0176942,0.0321895,4.33652e-05,0.025444,0.00695049,0.055411,0.0704909,-0.00167485,-2.81219,0.107088,-2.18198,-0.196812,47.116,-31.5354,0.2268,1.01269,0.306142,0.830753,0.118869,2.17463,-1.02639,0.00665764,0.223903,0.0989893,0.171527,-1.89587,0.202381,0.297638,-0.0176025,0.170324,0.0634336,-0.00258451,0.0452039,-0.326136,0.325636,-0.000759879,-9.81874,6.55605,-3.06799,10.641,-6.3801,-1.72586,-0.0554658,2.41565,-37.7159,2.5876,24.5865,2.46246,1.16356,0.0440523,
0.223026,0.0976927,0.1716,-1.89572,0.231324,0.281495,-0.0177067,0.0282479,-3.70404e-05,0.0214241,0.00643364,0.118011,0.0287631,-0.00165153,-2.46351,-0.0502535,-2.51241,-0.323029,39.1252,-26.0799,0.0145725,0.868805,0.313613,0.659078,0.147888,2.56289,-1.1936,0.00929937,0.223903,0.0989893,0.171527,-1.89587,0.202381,0.297638,-0.0176025,0.170324,0.0634336,-0.00258451,0.0452039,-0.326136,0.325636,-0.000759879,0,0,0,0,0,0,0,2.41565,-37.7159,2.5876,24.5865,2.46246,1.16356,0.0440523,
0.223116,0.0976858,0.171639,-1.89569,0.234048,0.280466,-0.0177132,0.0248545,-0.000201187,0.0181149,0.00586957,0.162499,-0.00271551,-0.00148304,-2.12084,-0.102592,-2.06829,-0.352545,27.8049,-19.6741,0.105307,0.72207,0.323022,0.443406,0.172345,2.98577,-1.35548,0.011374,0.223903,0.0989893,0.171527,-1.89587,0.202381,0.297638,-0.0176025,0.170324,0.0634336,-0.00258451,0.0452039,-0.326136,0.325636,-0.000759879,0,0,0,0,0,0,0,2.41565,-37.7159,2.5876,24.5865,2.46246,1.16356,0.0440523,
0.224677,0.0994032,0.172146,-1.89566,0.202277,0.299889,-0.0176647,0.0273379,0.00361007,0.0204986,0.00679302,0.144,0.0153677,-0.00174985,1.55211,2.38203,1.4898,0.577153,-11.5617,11.302,-0.166757,1.01271,0.306065,0.830761,0.118884,2.17284,-1.02558,0.00665775,0.223903,0.0989893,0.171527,-1.89587,0.202381,0.297638,-0.0176025,0.170324,0.0634336,-0.00258451,0.0452039,-0.326136,0.325636,-0.000759879,0,0,0,0,0,0,0,2.41565,-37.7159,2.5876,24.5865,2.46246,1.16356,0.0440523,
0.22487,0.0994931,0.17229,-1.89559,0.203654,0.299981,-0.0176753,0.026693,0.00513615,0.0200023,0.00723874,0.149628,0.0146015,-0.00166417,-0.403052,0.953801,-0.310193,0.278579,3.5175,-0.478879,0.053548,0.868834,0.31354,0.659094,0.147904,2.5611,-1.19279,0.00929978,0.223903,0.0989893,0.171527,-1.89587,0.202381,0.297638,-0.0176025,0.170324,0.0634336,-0.00258451,0.0452039,-0.326136,0.325636,-0.000759879,0,0,0,0,0,0,0,2.41565,-37.7159,2.5876,24.5865,2.46246,1.16356,0.0440523,
0.224994,0.0995478,0.172367,-1.89552,0.205628,0.299637,-0.0176813,0.0244709,0.00547444,0.0179347,0.00744401,0.169052,0.00307398,-0.00148146,-1.38882,0.21143,-1.29223,0.128293,12.1398,-7.20472,0.114194,0.785582,0.285786,0.510116,0.176386,3.01787,-1.37701,0.0113064,0.226303,0.0982836,0.172128,-1.89491,0.200935,0.304392,-0.0176019,0.0746291,-0.0618965,0.00659277,0.000839107,0.00309544,0.167076,0.000918209,-11.9619,-15.6663,1.14716,-5.54559,41.1539,-19.82,0.209761,0.25745,-34.6452,1.81398,22.8409,3.5675,-0.507273,0.0239107,
0.225068,0.0995827,0.172402,-1.89546,0.208049,0.298973,-0.0176868,0.0214224,0.00525347,0.0152262,0.00753037,0.195787,-0.0141353,-0.00132307,-1.90529,-0.138105,-1.6928,0.0539755,16.7094,-10.7558,0.0989958,0.626437,0.294019,0.265604,0.205234,3.44771,-1.5249,0.00961437,0.226303,0.0982836,0.172128,-1.89491,0.200935,0.304392,-0.0176019,0.0746291,-0.0618965,0.00659277,0.000839107,0.00309544,0.167076,0.000918209,0,0,0,0,0,0,0,0.25745,-34.6452,1.81398,22.8409,3.5675,-0.507273,0.0239107,
0.226716,0.0977312,0.172454,-1.89451,0.203421,0.304884,-0.0176186,0.0212722,-0.00172604,0.0153527,0.0111713,0.196249,-0.0112383,-0.00121797,-0.0939237,-4.36219,0.0790404,2.27556,0.288443,1.81057,0.0656845,0.932861,0.275674,0.726202,0.151965,2.57852,-1.20838,0.00923556,0.226303,0.0982836,0.172128,-1.89491,0.200935,0.304392,-0.0176019,0.0746291,-0.0618965,0.00659277,0.000839107,0.00309544,0.167076,0.000918209,0,0,0,0,0,0,0,0.25745,-34.6452,1.81398,22.8409,3.5675,-0.507273,0.0239107,
0.226827,0.0975441,0.172525,-1.89433,0.205534,0.304542,-0.0176227,0.0197978,-0.00605753,0.0140624,0.0135205,0.209819,-0.0175506,-0.00107688,-0.921466,-2.70718,-0.806429,1.4683,8.48141,-3.94514,0.0881818,0.786173,0.285129,0.51057,0.176437,3.00135,-1.37024,0.0113127,0.226303,0.0982836,0.172128,-1.89491,0.200935,0.304392,-0.0176019,0.0746291,-0.0618965,0.00659277,0.000839107,0.00309544,0.167076,0.000918209,0,0,0,0,0,0,0,0.25745,-34.6452,1.81398,22.8409,3.5675,-0.507273,0.0239107,
0.226895,0.0973962,0.17256,-1.89417,0.208054,0.30393,-0.0176272,0.017542,-0.00854478,0.0121231,0.0148035,0.230856,-0.0293331,-0.000975246,-1.40991,-1.55453,-1.21204,0.801841,13.1484,-7.36405,0.0635233,0.629083,0.287469,0.264019,0.194916,3.41648,-1.5233,0.00961297,0.226587,0.098381,0.17291,-1.89436,0.207174,0.305549,-0.0175881,0.000331018,0.0667548,0.0408536,0.0347712,0.130013,-0.00772825,0.000313097,-9.28726,16.0814,4.2826,4.24151,15.8647,-21.8505,-0.075639,2.23713,-36.2441,2.63917,24.3604,1.45446,2.12487,-0.0566557,
0.226778,0.0991181,0.172918,-1.89433,0.21636,0.302703,-0.0176288,0.0147274,-0.00438294,0.00908312,0.0116231,0.245047,-0.0462252,-0.000936806,-1.75908,2.60115,-1.9,-1.98775,8.86903,-10.5576,0.0240251,0.402819,0.297622,0.0812267,0.25113,3.60034,-1.59441,0.0054553,0.226587,0.098381,0.17291,-1.89436,0.207174,0.305549,-0.0175881,0.000331018,0.0667548,0.0408536,0.0347712,0.130013,-0.00772825,0.000313097,0,0,0,0,0,0,0,2.23713,-36.2441,2.63917,24.3604,1.45446,2.12487,-0.0566557,
0.226805,0.0991908,0.172892,-1.89433,0.218686,0.30178,-0.0176356,0.0124671,-0.00169033,0.00662377,0.00917459,0.254188,-0.0600424,-0.000918291,-1.41271,1.68289,-1.53709,-1.53031,5.71333,-8.63572,0.0115719,0.124435,0.282976,-0.0235384,0.32018,3.7208,-1.6596,0.00632215,0.226587,0.098381,0.17291,-1.89436,0.207174,0.305549,-0.0175881,0.000331018,0.0667548,0.0408536,0.0347712,0.130013,-0.00772825,0.000313097,0,0,0,0,0,0,0,2.23713,-36.2441,2.63917,24.3604,1.45446,2.12487,-0.0566557,
0.226831,0.099246,0.172864,-1.89433,0.220956,0.300854,-0.0176428,0.0106192,2.78424e-05,0.00460641,0.00732795,0.260124,-0.0711897,-0.000915127,-1.15492,1.07386,-1.26085,-1.15415,3.70966,-6.96708,0.00197783,0.167908,0.0985172,-0.477327,0.257094,3.6132,-1.54581,-0.0108976,0.226587,0.098381,0.17291,-1.89436,0.207174,0.305549,-0.0175881,0.000331018,0.0667548,0.0408536,0.0347712,0.130013,-0.00772825,0.000313097,0,0,0,0,0,0,0,2.23713,-36.2441,2.63917,24.3604,1.45446,2.12487,-0.0566557,
0.226855,0.0992889,0.172834,-1.89433,0.223192,0.29993,-0.0176503,0.00909035,0.00109502,0.00293739,0.00595392,0.263989,-0.0800593,-0.000919434,-0.955548,0.666983,-1.04314,-0.858766,2.41568,-5.5435,-0.00269184,0.11525,0.0680358,-0.543916,0.311623,2.73969,-1.1076,-0.0097309,0.227092,0.0988213,0.172882,-1.89468,0.21562,0.302767,-0.0175973,0.00626325,-0.0392974,0.00961614,-0.0407252,0.196555,-0.108099,0.000113372,0.741529,-13.2565,-3.90468,-9.43705,8.31778,-12.5464,-0.0249656,1.75708,-37.589,2.41304,27.2287,1.58905,2.64214,-0.0026396,
0.227444,0.098518,0.172963,-1.89468,0.222554,0.29871,-0.01763,0.00861719,0.000394076,0.00233571,0.00527338,0.245014,-0.0810802,-0.000928615,-0.295722,-0.438087,-0.37605,-0.425341,-11.8594,-0.638052,-0.00573844,0.217743,0.0256187,-0.449589,0.294961,1.62857,-0.734763,-0.00919394,0.227092,0.0988213,0.172882,-1.89468,0.21562,0.302767,-0.0175973,0.00626325,-0.0392974,0.00961614,-0.0407252,0.196555,-0.108099,0.000113372,0,0,0,0,0,0,0,1.75708,-37.589,2.41304,27.2287,1.58905,2.64214,-0.0026396,
0.227492,0.0985052,0.172956,-1.89466,0.223895,0.298063,-0.0176377,0.00807856,-5.14826e-06,0.00169721,0.00475213,0.229536,-0.081054,-0.00093539,-0.336643,-0.249515,-0.399062,-0.325777,-9.67329,0.0163758,-0.00423458,0.216014,0.0270377,-0.450982,0.29579,1.62883,-0.733368,-0.00919621,0.227092,0.0988213,0.172882,-1.89468,0.21562,0.302767,-0.0175973,0.00626325,-0.0392974,0.00961614,-0.0407252,0.196555,-0.108099,0.000113372,0,0,0,0,0,0,0,1.75708,-37.589,2.41304,27.2287,1.58905,2.64214,-0.0026396,
0.227534,0.0984966,0.172944,-1.89463,0.225225,0.297439,-0.0176454,0.00751283,-0.000219278,0.00105444,0.00435226,0.216887,-0.080427,-0.00094011,-0.353585,-0.133831,-0.401729,-0.24992,-7.90586,0.391899,-0.00294967,0.214336,0.0281163,-0.452433,0.296544,1.62928,-0.732135,-0.00919579,0.227092,0.0988213,0.172882,-1.89468,0.21562,0.302767,-0.0175973,0.00626325,-0.0392974,0.00961614,-0.0407252,0.196555,-0.108099,0.000113372,0,0,0,0,0,0,0,1.75708,-37.589,2.41304,27.2287,1.58905,2.64214,-0.0026396,
0.227571,0.0984907,0.172927,-1.89461,0.226546,0.296834,-0.017653,0.00694747,-0.000321776,0.00043006,0.00404614,0.206531,-0.0794799,-0.000943217,-0.353351,-0.0640614,-0.390241,-0.191327,-6.47261,0.591917,-0.0019418,0.204481,0.0500996,-0.473364,0.292798,1.57685,-0.692919,-0.00931971,0.227692,0.0994873,0.173228,-1.89498,0.229543,0.296858,-0.0175995,0.0319509,0.0582886,0.012696,0.0162509,0.382745,-0.192208,-0.00110546,3.21096,12.1983,0.384985,7.12202,23.2737,-10.5136,-0.152354,-2.45221,-37.6921,-1.61376,27.0264,0.63049,2.89391,0.017502,
0.227918,0.100287,0.173449,-1.89555,0.23129,0.296369,-0.0175907,0.0112004,0.0197424,0.00586247,-0.0109412,0.20888,-0.0758036,-0.000533684,2.65808,12.5401,3.39526,-9.36706,1.46819,2.29769,0.255958,-0.0102381,32.4015,-0.714382,-22.5248,-1.7448,-1.46017,-0.00265084,0.227692,0.0994873,0.173228,-1.89498,0.229543,0.296858,-0.0175995,0.0319509,0.0582886,0.012696,0.0162509,0.382745,-0.192208,-0.00110546,0,0,0,0,0,0,0,-2.45221,-37.6921,-1.61376,27.0264,0.63049,2.89391,0.017502,
0.228187,0.100924,0.173674,-1.89591,0.23191,0.295793,-0.017579,0.015705,0.0317035,0.0103115,-0.0178811,0.182603,-0.0750605,-0.000135609,2.81538,7.47568,2.78061,-4.33748,-16.423,0.464412,0.248797,1.57141,0.111713,0.952621,-0.0135413,-1.20889,0.180196,-0.00664519,0.227692,0.0994873,0.173228,-1.89498,0.229543,0.296858,-0.0175995,0.0319509,0.0582886,0.012696,0.0162509,0.382745,-0.192208,-0.00110546,0,0,0,0,0,0,0,-2.45221,-37.6921,-1.61376,27.0264,0.63049,2.89391,0.017502,
0.228455,0.101411,0.173894,-1.89619,0.231905,0.295264,-0.0175767,0.0192579,0.0375352,0.0137445,-0.0213112,0.145959,-0.0732657,-4.85817e-05,2.22057,3.64481,2.14566,-2.1438,-22.9028,1.12179,0.0543922,1.543,0.0738457,0.981152,-0.0126888,-1.17768,0.159268,-0.00766249,0.227692,0.0994873,0.173228,-1.89498,0.229543,0.296858,-0.0175995,0.0319509,0.0582886,0.012696,0.0162509,0.382745,-0.192208,-0.00110546,0,0,0,0,0,0,0,-2.45221,-37.6921,-1.61376,27.0264,0.63049,2.89391,0.017502,
0.228708,0.101782,0.174099,-1.89642,0.23154,0.29481,-0.0175792,0.0217398,0.0393161,0.0161359,-0.0227013,0.107662,-0.0699542,-0.000101376,1.5512,1.11312,1.49462,-0.868826,-23.9354,2.06965,-0.0329967,1.54213,0.0114578,1.01209,0.0210577,-1.19677,0.184432,-0.00846765,0.228404,0.100154,0.17369,-1.89513,0.240807,0.291543,-0.0175962,0.029621,-0.00948274,0.0157733,-0.0253974,0.351306,-0.119004,-0.00031157,-0.291239,-8.47142,0.384665,-5.20605,-3.92983,9.15051,0.0992361,-1.94836,-38.065,-1.31224,26.1298,-0.469059,2.65496,-0.0026396,
0.228635,0.100669,0.173915,-1.89568,0.242344,0.291248,-0.0175855,0.0231572,0.0443402,0.0185452,-0.0320403,0.124538,-0.0633581,0.000186703,0.885849,3.14003,1.50583,-5.83686,10.5473,4.12257,0.18005,0.000981411,32.3738,-0.712936,-22.4897,-1.77849,-1.42128,-0.0028512,0.228404,0.100154,0.17369,-1.89513,0.240807,0.291543,-0.0175962,0.029621,-0.00948274,0.0157733,-0.0253974,0.351306,-0.119004,-0.00031157,0,0,0,0,0,0,0,-1.94836,-38.065,-1.31224,26.1298,-0.469059,2.65496,-0.0026396,
0.229158,0.100841,0.174473,-1.89631,0.240063,0.292006,-0.0174684,0.0315891,0.0397728,0.028791,-0.0413679,0.0426078,-0.0317299,0.00307629,5.26992,-2.85463,6.40363,-5.82974,-51.2061,19.7676,1.80599,9.85134,-7.67101,9.24724,-4.17555,-9.46581,3.61123,0.0651433,0.228404,0.100154,0.17369,-1.89513,0.240807,0.291543,-0.0175962,0.029621,-0.00948274,0.0157733,-0.0253974,0.351306,-0.119004,-0.00031157,0,0,0,0,0,0,0,-1.94836,-38.065,-1.31224,26.1298,-0.469059,2.65496,-0.0026396,
0.229832,0.100812,0.175156,-1.89691,0.235786,0.293285,-0.0173805,0.0421227,0.0310948,0.0400955,-0.0481434,-0.0728411,0.00660288,0.00465794,6.58351,-5.42375,7.06526,-4.2347,-72.1556,23.958,0.988536,9.01449,-7.24785,8.65908,-4.1213,-8.8469,3.31418,0.0644334,0.228404,0.100154,0.17369,-1.89513,0.240807,0.291543,-0.0175962,0.029621,-0.00948274,0.0157733,-0.0253974,0.351306,-0.119004,-0.00031157,0,0,0,0,0,0,0,-1.94836,-38.065,-1.31224,26.1298,-0.469059,2.65496,-0.0026396,
0.229965,0.101762,0.174854,-1.89629,0.245906,0.289052,-0.017589,0.0404782,0.038338,0.0381672,-0.054496,-0.0520944,0.00697675,0.00368512,-1.02779,4.52702,-1.20514,-3.97034,12.9667,0.233664,-0.608017,0.0041174,32.3526,-0.720853,-22.4417,-1.78908,-1.39132,-0.00297033,0.229693,0.101224,0.17461,-1.89565,0.245659,0.288984,-0.0175874,0.0433002,-0.0145186,0.0254358,-0.0548833,0.0883836,-0.0252443,0.00163219,1.7099,-0.629489,1.20781,-3.68573,-32.8653,11.72,0.24297,0.182071,-36.9423,0.913405,29.0695,0.703732,2.60918,-0.050247,
0.230607,0.101873,0.175428,-1.89725,0.241662,0.290821,-0.0174545,0.0484446,0.033448,0.0448918,-0.0676589,-0.147776,0.049811,0.0063113,4.979,-3.05627,4.20285,-8.22681,-59.8008,26.7714,1.64136,10.9202,-7.69567,8.76588,-9.52039,-13.4985,5.75527,0.0774324,0.229693,0.101224,0.17461,-1.89565,0.245659,0.288984,-0.0175874,0.0433002,-0.0145186,0.0254358,-0.0548833,0.0883836,-0.0252443,0.00163219,0,0,0,0,0,0,0,0.182071,-36.9423,0.913405,29.0695,0.703732,2.60918,-0.050247,
0.231384,0.101866,0.176147,-1.89818,0.235387,0.293311,-0.0173837,0.0581881,0.0265917,0.0538821,-0.0772074,-0.275092,0.102092,0.00681846,6.08966,-4.28521,5.61894,-5.96782,-79.5728,32.6754,0.316972,9.87726,-4.8538,8.65636,-8.49829,-11.4773,5.30316,0.0399099,0.229693,0.101224,0.17461,-1.89565,0.245659,0.288984,-0.0175874,0.0433002,-0.0145186,0.0254358,-0.0548833,0.0883836,-0.0252443,0.00163219,0,0,0,0,0,0,0,0.182071,-36.9423,0.913405,29.0695,0.703732,2.60918,-0.050247,
0.232204,0.10183,0.176914,-1.89902,0.228277,0.296175,-0.017337,0.0670328,0.0203738,0.0622929,-0.0828388,-0.397839,0.15327,0.00662252,5.52793,-3.88616,5.25673,-3.51965,-76.7169,31.9867,-0.122461,9.56238,-3.19569,8.7738,-7.95501,-10.3781,5.05186,0.0378953,0.229693,0.101224,0.17461,-1.89565,0.245659,0.288984,-0.0175874,0.0433002,-0.0145186,0.0254358,-0.0548833,0.0883836,-0.0252443,0.00163219,0,0,0,0,0,0,0,0.182071,-36.9423,0.913405,29.0695,0.703732,2.60918,-0.050247,
0.229965,0.101762,0.174854,-1.89629,0.245906,0.289052,-0.017589,0.0604063,0.0297612,0.0559252,-0.0822523,-0.312093,0.124311,0.00525678,-4.14155,5.86715,-3.97982,0.366584,53.5914,-18.0998,-0.853589,0.00296828,32.522,-0.743872,-22.5584,-1.79108,-1.45481,-0.00253696,0.231846,0.102803,0.177017,-1.89739,0.238209,0.292541,-0.0175765,0.102169,-0.0372712,0.117504,-0.145569,-0.643836,0.263098,-0.000535366,7.35864,-2.84407,11.5085,-11.3357,-91.5274,36.0428,-0.270945,7.58899,-39.5131,7.31264,28.1729,0.245053,1.89965,-0.0566557,
0.23057,0.101758,0.17548,-1.89758,0.241653,0.291677,-0.0174491,0.0634709,0.0237015,0.0603934,-0.0980424,-0.356006,0.165062,0.00770302,1.91536,-3.78734,2.79266,-9.86883,-27.4457,25.4693,1.52891,10.1327,-9.05026,9.01473,-13.8112,-13.7911,8.07861,0.0861357,0.231846,0.102803,0.177017,-1.89739,0.238209,0.292541,-0.0175765,0.102169,-0.0372712,0.117504,-0.145569,-0.643836,0.263098,-0.000535366,0,0,0,0,0,0,0,7.58899,-39.5131,7.31264,28.1729,0.245053,1.89965,-0.0566557,
0.231361,0.101668,0.176273,-1.8988,0.234652,0.295262,-0.0173698,0.0705423,0.0167071,0.0681496,-0.108806,-0.459822,0.221683,0.00814565,4.41967,-4.3715,4.84763,-6.72744,-64.8848,35.3886,0.276642,9.41146,-5.20163,8.75702,-12.1538,-13.7796,7.29405,0.0361146,0.231846,0.102803,0.177017,-1.89739,0.238209,0.292541,-0.0175765,0.102169,-0.0372712,0.117504,-0.145569,-0.643836,0.263098,-0.000535366,0,0,0,0,0,0,0,7.58899,-39.5131,7.31264,28.1729,0.245053,1.89965,-0.0566557,
0.232213,0.101569,0.177108,-1.89991,0.226562,0.299309,-0.0173247,0.0777243,0.0108901,0.0753894,-0.114967,-0.570109,0.278525,0.00764427,4.48872,-3.63562,4.52489,-3.85057,-68.9297,35.5259,-0.313361,9.43417,-3.45734,9.01007,-11.4344,-12.1183,6.76045,0.0306107,0.231846,0.102803,0.177017,-1.89739,0.238209,0.292541,-0.0175765,0.102169,-0.0372712,0.117504,-0.145569,-0.643836,0.263098,-0.000535366,0,0,0,0,0,0,0,7.58899,-39.5131,7.31264,28.1729,0.245053,1.89965,-0.0566557,
0.233944,0.101904,0.178897,-1.90038,0.222174,0.301645,-0.0174368,0.0884722,-0.00112876,0.0844297,-0.127384,-0.674162,0.34534,0.00724472,6.71747,-7.51178,5.65017,-7.76052,-65.0328,41.7596,-0.249722,10.1349,-8.79525,7.91458,-17.4472,-13.7911,9.74526,0.0821764,0.231846,0.102803,0.177017,-1.89739,0.238209,0.292541,-0.0175765,0.102169,-0.0372712,0.117504,-0.145569,-0.643836,0.263098,-0.000535366,0,0,0,0,0,0,0,7.58899,-39.5131,7.31264,28.1729,0.245053,1.89965,-0.0566557,
0.234966,0.101613,0.179869,-1.90166,0.212634,0.306829,-0.0174057,0.0963401,-0.00817386,0.0918396,-0.133746,-0.777817,0.405885,0.00657197,4.91739,-4.40319,4.63117,-3.97652,-64.7842,37.8407,-0.420467,9.32368,-4.29464,8.03133,-15.5218,-13.7325,8.53301,0.0265223,0.235624,0.102991,0.179956,-1.90419,0.213174,0.303625,-0.0175733,0.120243,-0.0291693,0.0905767,-0.231165,-0.939005,0.393622,-0.0021255,2.25919,1.01274,-3.36592,-10.6995,-36.8961,16.3155,-0.198767,0.793033,-38.4657,1.16334,23.3646,1.38763,0.579458,0.050461,
0.235938,0.101393,0.180797,-1.90286,0.203096,0.312075,-0.0173823,0.101365,-0.0120424,0.0966638,-0.137038,-0.860697,0.455859,0.0058437,3.14049,-2.41786,3.01516,-2.0569,-51.7999,31.2336,-0.455169,9.40801,-2.62008,8.71742,-14.7623,-13.6397,7.7731,0.0237892,0.235624,0.102991,0.179956,-1.90419,0.213174,0.303625,-0.0175733,0.120243,-0.0291693,0.0905767,-0.231165,-0.939005,0.393622,-0.0021255,0,0,0,0,0,0,0,0.793033,-38.4657,1.16334,23.3646,1.38763,0.579458,0.050461,
0.236855,0.101224,0.181675,-1.90401,0.193937,0.317228,-0.0173538,0.104027,-0.0138512,0.0992764,-0.13851,-0.917535,0.493509,0.00538721,1.66354,-1.13049,1.63285,-0.920084,-35.5244,23.5309,-0.285305,9.78214,-1.79184,9.33805,-14.3711,-12.0833,7.10409,0.0314377,0.235624,0.102991,0.179956,-1.90419,0.213174,0.303625,-0.0175733,0.120243,-0.0291693,0.0905767,-0.231165,-0.939005,0.393622,-0.0021255,0,0,0,0,0,0,0,0.793033,-38.4657,1.16334,23.3646,1.38763,0.579458,0.050461,
0.237725,0.101093,0.182507,-1.90513,0.185343,0.322186,-0.0173177,0.104953,-0.0143602,0.100234,-0.138823,-0.94887,0.518747,0.005212,0.579128,-0.318093,0.598559,-0.196145,-19.5841,15.7741,-0.109507,10.1857,-1.31799,9.84673,-14.1272,-10.8459,6.50153,0.0451873,0.235624,0.102991,0.179956,-1.90419,0.213174,0.303625,-0.0175733,0.120243,-0.0291693,0.0905767,-0.231165,-0.939005,0.393622,-0.0021255,0,0,0,0,0,0,0,0.793033,-38.4657,1.16334,23.3646,1.38763,0.579458,0.050461,
0.247632,0.102637,0.190665,-1.92325,0.136939,0.347122,-0.0172709,0.102507,-0.0110017,0.0973446,-0.136498,-0.833941,0.470939,0.00495996,-1.52909,2.09901,-1.80594,1.4534,71.8309,-29.8799,-0.157527,10.6896,-0.219782,10.3663,-14.0694,-7.7888,4.68047,0.0743622,0.240587,0.102352,0.184143,-1.91374,0.182127,0.322221,-0.0175432,0.223883,-0.0673987,0.106049,-0.337392,-1.45782,0.758713,0.00123494,12.955,-4.77867,1.93404,-13.2784,-64.8522,45.6363,0.420056,-1.15887,-37.9659,-1.08611,21.6705,-0.0415075,3.62359,-0.0301054,
0.248362,0.102649,0.191338,-1.92425,0.134395,0.349179,-0.0172428,0.100257,-0.00850658,0.0947168,-0.134138,-0.730754,0.428172,0.00467116,-1.40603,1.55948,-1.64235,1.47523,64.4916,-26.7296,-0.180496,10.728,-0.0835966,10.3753,-13.9388,-6.89498,4.2135,0.0761122,0.240587,0.102352,0.184143,-1.91374,0.182127,0.322221,-0.0175432,0.223883,-0.0673987,0.106049,-0.337392,-1.45782,0.758713,0.00123494,0,0,0,0,0,0,0,-1.15887,-37.9659,-1.08611,21.6705,-0.0415075,3.62359,-0.0301054,
0.249082,0.102654,0.192002,-1.92523,0.132245,0.351073,-0.0172185,0.0982134,-0.00666648,0.0923511,-0.131817,-0.63836,0.389881,0.00434343,-1.27722,1.15006,-1.47859,1.45071,57.7466,-23.9317,-0.204835,10.7035,0.0276985,10.311,-13.8072,-6.0782,3.78352,0.0758372,0.240587,0.102352,0.184143,-1.91374,0.182127,0.322221,-0.0175432,0.223883,-0.0673987,0.106049,-0.337392,-1.45782,0.758713,0.00123494,0,0,0,0,0,0,0,-1.15887,-37.9659,-1.08611,21.6705,-0.0415075,3.62359,-0.0301054,
0.249794,0.102655,0.192656,-1.92619,0.130437,0.35282,-0.0171977,0.0963651,-0.00531887,0.0902325,-0.129571,-0.5559,0.35559,0.00399382,-1.15519,0.842262,-1.32414,1.4037,51.5372,-21.4318,-0.218504,10.6275,0.11964,10.1899,-13.6745,-5.32136,3.39744,0.0728187,0.240587,0.102352,0.184143,-1.91374,0.182127,0.322221,-0.0175432,0.223883,-0.0673987,0.106049,-0.337392,-1.45782,0.758713,0.00123494,0,0,0,0,0,0,0,-1.15887,-37.9659,-1.08611,21.6705,-0.0415075,3.62359,-0.0301054,
0.241767,0.102307,0.185214,-1.91535,0.172509,0.326605,-0.0175174,0.106597,-0.00538387,0.0989485,-0.143919,-0.685184,0.394083,0.00383934,6.39515,-0.0406255,5.44755,-8.96788,-80.8025,24.058,-0.0965531,10.6166,-0.294015,10.3071,-14.0241,-7.63804,4.56938,0.0747924,0.247097,0.100653,0.189334,-1.92546,0.135956,0.353299,-0.0175516,0.24339,-0.0785522,0.153401,-0.337306,-1.34617,0.798836,0.00115944,2.43835,-1.39419,5.91895,0.0107658,13.957,5.01538,-0.00943758,2.56641,-32.1736,4.06343,23.3646,1.61377,3.15209,0.017502,
0.242785,0.102364,0.186155,-1.91666,0.164587,0.330373,-0.0174888,0.110719,-0.00288936,0.102702,-0.148076,-0.746198,0.409447,0.00378565,2.57602,1.55907,2.34592,-2.5978,-38.1338,9.60249,-0.033553,10.655,-0.15783,10.3161,-13.8935,-6.74423,4.10242,0.0765424,0.247097,0.100653,0.189334,-1.92546,0.135956,0.353299,-0.0175516,0.24339,-0.0785522,0.153401,-0.337306,-1.34617,0.798836,0.00115944,0,0,0,0,0,0,0,2.56641,-32.1736,4.06343,23.3646,1.61377,3.15209,0.017502,
0.2437,0.102434,0.187008,-1.91787,0.157957,0.333785,-0.0174534,0.111462,-0.000547396,0.103474,-0.148641,-0.762692,0.41286,0.00391354,0.464503,1.46373,0.482199,-0.353528,-10.3087,2.13323,0.0799277,10.6305,-0.0465346,10.2518,-13.7618,-5.92745,3.67244,0.0762674,0.247097,0.100653,0.189334,-1.92546,0.135956,0.353299,-0.0175516,0.24339,-0.0785522,0.153401,-0.337306,-1.34617,0.798836,0.00115944,0,0,0,0,0,0,0,2.56641,-32.1736,4.06343,23.3646,1.61377,3.15209,0.017502,
0.24455,0.102498,0.187801,-1.91902,0.152341,0.336917,-0.0174148,0.110408,0.00114764,0.102598,-0.147565,-0.750566,0.408599,0.00409688,-0.658653,1.0594,-0.547208,0.672988,7.57881,-2.66338,0.114592,10.5544,0.0454071,10.1307,-13.6291,-5.1706,3.28635,0.0732489,0.247097,0.100653,0.189334,-1.92546,0.135956,0.353299,-0.0175516,0.24339,-0.0785522,0.153401,-0.337306,-1.34617,0.798836,0.00115944,0,0,0,0,0,0,0,2.56641,-32.1736,4.06343,23.3646,1.61377,3.15209,0.017502,
0.267083,0.10376,0.207793,-1.95266,0.0937269,0.394196,-0.0180283,0.0991688,0.000711161,0.0922096,-0.132348,-0.607345,0.345078,0.00274357,-7.02471,-0.272798,-6.49275,9.5101,89.5132,-39.7004,-0.845818,7.37578,-0.0511839,6.78243,-10.4646,-0.275658,1.0938,-0.00425223,0.253598,0.101306,0.195409,-1.93537,0.104106,0.375045,-0.0175486,0.134501,0.0931108,0.242763,-0.232732,-0.720933,0.508336,0.00121331,-13.6111,21.4579,11.1703,13.0718,78.1541,-36.3126,0.0067333,2.94727,-38.2634,4.31337,23.6899,1.1734,2.5689,-0.00996382,
0.267508,0.103752,0.20819,-1.95322,0.0934484,0.394915,-0.01805,0.0899457,0.00034809,0.0836921,-0.119837,-0.492839,0.294039,0.00165243,-5.76442,-0.226919,-5.32342,7.81943,71.5665,-31.8998,-0.681962,7.22606,-0.053311,6.64682,-10.3073,-0.269195,1.08031,-0.00607941,0.253598,0.101306,0.195409,-1.93537,0.104106,0.375045,-0.0175486,0.134501,0.0931108,0.242763,-0.232732,-0.720933,0.508336,0.00121331,0,0,0,0,0,0,0,2.94727,-38.2634,4.31337,23.6899,1.1734,2.5689,-0.00996382,
0.267923,0.103742,0.208579,-1.95376,0.0931683,0.395624,-0.0180719,0.0823383,4.78468e-05,0.0766735,-0.109493,-0.401274,0.252958,0.000772739,-4.7546,-0.187652,-4.38662,6.46489,57.2278,-25.6753,-0.54981,7.08134,-0.0541977,6.51661,-10.1499,-0.268873,1.06975,-0.00780987,0.253598,0.101306,0.195409,-1.93537,0.104106,0.375045,-0.0175486,0.134501,0.0931108,0.242763,-0.232732,-0.720933,0.508336,0.00121331,0,0,0,0,0,0,0,2.94727,-38.2634,4.31337,23.6899,1.1734,2.5689,-0.00996382,
0.268329,0.103733,0.20896,-1.95429,0.0928877,0.396322,-0.0180941,0.0760256,-0.000198906,0.0708556,-0.100887,-0.328033,0.219826,6.3309e-05,-3.94546,-0.154221,-3.63621,5.37906,45.7758,-20.7079,-0.443394,6.94138,-0.0539385,6.39138,-9.99214,-0.275146,1.06076,-0.00933013,0.253598,0.101306,0.195409,-1.93537,0.104106,0.375045,-0.0175486,0.134501,0.0931108,0.242763,-0.232732,-0.720933,0.508336,0.00121331,0,0,0,0,0,0,0,2.94727,-38.2634,4.31337,23.6899,1.1734,2.5689,-0.00996382,
0.25482,0.101954,0.1965,-1.93668,0.100898,0.377382,-0.0176142,0.0913717,0.0160342,0.0839562,-0.113563,-0.34263,0.234268,-0.00158966,9.59134,10.1457,8.18786,-7.92252,-9.12352,9.02659,-1.03311,7.38582,-0.0911813,6.77888,-10.4242,-0.173542,1.04728,-0.00421222,0.261313,0.102435,0.200761,-1.94533,0.0754446,0.394041,-0.0175571,0.246014,0.0688093,0.112758,-0.242475,-0.705841,0.488247,-0.000154257,13.939,-3.03769,-16.2507,-1.21788,1.8865,-2.51109,-0.170946,2.38788,-38.315,3.8611,25.3085,2.62085,1.62041,0.0239107,
0.25582,0.102446,0.197394,-1.93781,0.0991227,0.378916,-0.0176588,0.0981077,0.0251334,0.0895309,-0.118965,-0.318479,0.225762,-0.00238805,4.20995,5.68697,3.48417,-3.37633,15.0944,-5.31652,-0.498992,7.2361,-0.0933084,6.64327,-10.2669,-0.16708,1.03379,-0.00603939,0.261313,0.102435,0.200761,-1.94533,0.0754446,0.394041,-0.0175571,0.246014,0.0688093,0.112758,-0.242475,-0.705841,0.488247,-0.000154257,0,0,0,0,0,0,0,2.38788,-38.315,3.8611,25.3085,2.62085,1.62041,0.0239107,
0.256678,0.102809,0.19817,-1.93883,0.0981415,0.380034,-0.0176891,0.0999396,0.0291766,0.0910119,-0.1209,-0.279315,0.208565,-0.00266684,1.14496,2.52699,0.925638,-1.20931,24.4777,-10.7479,-0.174246,7.09138,-0.094195,6.51306,-10.1095,-0.166758,1.02324,-0.00776985,0.261313,0.102435,0.200761,-1.94533,0.0754446,0.394041,-0.0175571,0.246014,0.0688093,0.112758,-0.242475,-0.705841,0.488247,-0.000154257,0,0,0,0,0,0,0,2.38788,-38.315,3.8611,25.3085,2.62085,1.62041,0.0239107,
0.262299,0.103763,0.203342,-1.94629,0.0961278,0.386735,-0.0178356,0.0934408,0.0238961,0.0853022,-0.114875,-0.227801,0.185257,-0.00254045,-4.06173,-3.3003,-3.56853,3.76548,32.1964,-14.5676,0.078998,5.95288,-0.0558789,5.509,-8.68764,-0.30177,0.964094,-0.0181938,0.261313,0.102435,0.200761,-1.94533,0.0754446,0.394041,-0.0175571,0.246014,0.0688093,0.112758,-0.242475,-0.705841,0.488247,-0.000154257,0,0,0,0,0,0,0,2.38788,-38.315,3.8611,25.3085,2.62085,1.62041,0.0239107,
0.269471,0.104707,0.208233,-1.95515,0.0671626,0.404606,-0.0179637,0.0855264,0.0195917,0.0783316,-0.106031,-0.187158,0.163635,-0.00258509,-4.94651,-2.69023,-4.35666,5.52755,25.4017,-13.5135,-0.0279028,5.99691,-0.277828,5.55595,-8.35841,-0.214206,0.998617,-0.019928,0.267113,0.102719,0.206418,-1.9539,0.0626659,0.406941,-0.0175696,0.227908,-0.0478147,0.0755495,-0.262536,-0.230464,0.293617,0.000173166,-2.26315,-14.578,-4.651,-2.5076,59.4222,-24.3287,0.0409279,-1.92059,-36.4424,-0.137926,21.8729,1.02142,1.11046,0.0101778,
0.26989,0.104721,0.208626,-1.9557,0.0669617,0.405223,-0.0179859,0.0788877,0.0160231,0.0724769,-0.0985298,-0.154747,0.146336,-0.00262504,-4.14917,-2.23038,-3.65918,4.68838,20.2567,-10.8122,-0.024965,5.88396,-0.269458,5.45753,-8.20047,-0.229972,0.990435,-0.0207045,0.267113,0.102719,0.206418,-1.9539,0.0626659,0.406941,-0.0175696,0.227908,-0.0478147,0.0755495,-0.262536,-0.230464,0.293617,0.000173166,0,0,0,0,0,0,0,-1.92059,-36.4424,-0.137926,21.8729,1.02142,1.11046,0.0101778,
0.270297,0.104731,0.209008,-1.95623,0.0667582,0.405838,-0.0180083,0.0732887,0.0130707,0.0675323,-0.0921225,-0.128886,0.132437,-0.00265956,-3.49941,-1.84524,-3.09034,4.00454,16.1631,-8.68678,-0.0215749,5.77225,-0.260704,5.36024,-8.04268,-0.244091,0.981831,-0.0214678,0.267113,0.102719,0.206418,-1.9539,0.0626659,0.406941,-0.0175696,0.227908,-0.0478147,0.0755495,-0.262536,-0.230464,0.293617,0.000173166,0,0,0,0,0,0,0,-1.92059,-36.4424,-0.137926,21.8729,1.02142,1.11046,0.0101778,
0.274196,0.103192,0.213054,-1.96095,0.0601731,0.41289,-0.0179089,0.0678255,0.010574,0.0627527,-0.0844785,-0.106139,0.118117,-0.00263829,-3.41447,-1.56043,-2.98727,4.77756,14.2169,-8.94971,0.0132921,4.90764,-0.18427,4.60528,-6.7838,-0.301877,0.884209,-0.0260125,0.267113,0.102719,0.206418,-1.9539,0.0626659,0.406941,-0.0175696,0.227908,-0.0478147,0.0755495,-0.262536,-0.230464,0.293617,0.000173166,0,0,0,0,0,0,0,-1.92059,-36.4424,-0.137926,21.8729,1.02142,1.11046,0.0101778,
0.274547,0.103194,0.213387,-1.96136,0.0600396,0.413375,-0.0179284,0.0630317,0.00852131,0.0585333,-0.0779771,-0.0882486,0.106621,-0.00259748,-2.99616,-1.28296,-2.63711,4.06337,11.1817,-7.18537,0.0255085,4.76151,-0.232612,4.45538,-6.57773,-0.274288,0.872492,-0.0264399,0.272597,0.103885,0.21162,-1.96122,0.0565398,0.415391,-0.017575,0.254403,0.0676128,0.00225697,-0.167321,-0.162206,0.191512,-2.665e-05,3.31182,14.4284,-9.16157,11.9018,8.53221,-12.7632,-0.024977,-0.857357,-36.2917,0.488905,25.5823,1.19812,2.32995,-0.0163725,
0.274882,0.103195,0.213706,-1.96176,0.0598951,0.413857,-0.0179468,0.0588145,0.00683696,0.0548011,-0.072404,-0.0742123,0.0973424,-0.00253835,-2.63571,-1.05271,-2.33267,3.48314,8.77268,-5.79904,0.0369517,4.65518,-0.222858,4.36176,-6.42098,-0.273342,0.856804,-0.0267067,0.272597,0.103885,0.21162,-1.96122,0.0565398,0.415391,-0.017575,0.254403,0.0676128,0.00225697,-0.167321,-0.162206,0.191512,-2.665e-05,0,0,0,0,0,0,0,-0.857357,-36.2917,0.488905,25.5823,1.19812,2.32995,-0.0163725,
0.275204,0.103194,0.214012,-1.96215,0.0597404,0.414335,-0.0179641,0.0550913,0.00545771,0.051489,-0.0675861,-0.0632362,0.0898125,-0.00246269,-2.32701,-0.862037,-2.07001,3.01124,6.86006,-4.70617,0.0472863,4.54874,-0.213184,4.26781,-6.26428,-0.271696,0.840383,-0.0268695,0.272597,0.103885,0.21162,-1.96122,0.0565398,0.415391,-0.017575,0.254403,0.0676128,0.00225697,-0.167321,-0.162206,0.191512,-2.665e-05,0,0,0,0,0,0,0,-0.857357,-36.2917,0.488905,25.5823,1.19812,2.32995,-0.0163725,
0.27851,0.106145,0.217147,-1.96734,0.0542877,0.419273,-0.0178044,0.0495562,0.00496724,0.0463943,-0.0602038,-0.0545534,0.080065,-0.00214417,-3.45946,-0.306539,-3.18423,4.61391,5.42674,-6.09217,0.199078,3.45396,-0.123706,3.28411,-4.69842,-0.260901,0.683162,-0.0217029,0.272597,0.103885,0.21162,-1.96122,0.0565398,0.415391,-0.017575,0.254403,0.0676128,0.00225697,-0.167321,-0.162206,0.191512,-2.665e-05,0,0,0,0,0,0,0,-0.857357,-36.2917,0.488905,25.5823,1.19812,2.32995,-0.0163725,
0.278717,0.106165,0.217343,-1.96757,0.0541399,0.419598,-0.0178113,0.044803,0.00447145,0.0420087,-0.0538734,-0.0473399,0.0721655,-0.00188766,-2.97069,-0.309874,-2.74101,3.95647,4.50849,-4.93721,0.160316,3.34069,-0.115788,3.18045,-4.54145,-0.265786,0.67104,-0.0203897,0.272597,0.103885,0.21162,-1.96122,0.0565398,0.415391,-0.017575,0.254403,0.0676128,0.00225697,-0.167321,-0.162206,0.191512,-2.665e-05,0,0,0,0,0,0,0,-0.857357,-36.2917,0.488905,25.5823,1.19812,2.32995,-0.0163725,
0.278911,0.106182,0.217527,-1.96778,0.0540122,0.419912,-0.0178183,0.0407004,0.00399251,0.0382131,-0.0484006,-0.0410625,0.0655873,-0.00168373,-2.56414,-0.299332,-2.37225,3.4205,3.92332,-4.11134,0.127456,3.23614,-0.149049,3.06079,-4.3293,-0.254376,0.675091,-0.0191287,0.276934,0.105574,0.2162,-1.96668,0.0537619,0.420321,-0.0175798,0.229605,0.0833809,0.0221703,-0.120407,-0.0563537,0.0813532,0.00157161,-3.09973,1.97101,2.48916,5.86431,13.2315,-13.7698,0.199783,-1.69445,-40.6874,-0.562425,26.2289,0.392452,2.80144,-0.0301054,
0.281674,0.10791,0.220617,-1.97062,0.0559342,0.420093,-0.01773,0.0367366,0.00417571,0.0344508,-0.0420167,-0.0189287,0.0492622,-0.00156443,-2.47739,0.114498,-2.35144,3.98997,13.8337,-10.2032,0.074565,2.27252,-0.0868998,2.16857,-2.91557,-0.282576,0.575698,-0.00800691,0.276934,0.105574,0.2162,-1.96668,0.0537619,0.420321,-0.0175798,0.229605,0.0833809,0.0221703,-0.120407,-0.0563537,0.0813532,0.00157161,0,0,0,0,0,0,0,-1.69445,-40.6874,-0.562425,26.2289,0.392452,2.80144,-0.0301054,
0.281823,0.107942,0.220755,-1.97073,0.0566771,0.419875,-0.0177388,0.0331241,0.00413023,0.0310145,-0.0363504,0.00342982,0.0339454,-0.00147204,-2.25778,-0.0284232,-2.14766,3.54145,13.9741,-9.57301,0.0577453,2.17985,-0.0796247,2.08217,-2.76017,-0.26758,0.556669,-0.00759792,0.276934,0.105574,0.2162,-1.96668,0.0537619,0.420321,-0.0175798,0.229605,0.0833809,0.0221703,-0.120407,-0.0563537,0.0813532,0.00157161,0,0,0,0,0,0,0,-1.69445,-40.6874,-0.562425,26.2289,0.392452,2.80144,-0.0301054,
0.281957,0.107967,0.220878,-1.97082,0.0576467,0.419541,-0.0177477,0.0298381,0.00393494,0.0278815,-0.0312768,0.0269834,0.0188047,-0.00139954,-2.0538,-0.122058,-1.95811,3.17096,14.721,-9.46294,0.045309,2.09128,-0.071755,1.99957,-2.60555,-0.24387,0.533521,-0.00737487,0.276934,0.105574,0.2162,-1.96668,0.0537619,0.420321,-0.0175798,0.229605,0.0833809,0.0221703,-0.120407,-0.0563537,0.0813532,0.00157161,0,0,0,0,0,0,0,-1.69445,-40.6874,-0.562425,26.2289,0.392452,2.80144,-0.0301054,
0.282076,0.107987,0.220987,-1.97088,0.0588849,0.419065,-0.0177565,0.0268484,0.00364412,0.0250242,-0.0266916,0.0525428,0.003148,-0.00134029,-1.86856,-0.181766,-1.78579,2.86579,15.9746,-9.78542,0.0370316,2.0584,-0.164232,1.95358,-2.41111,-0.203367,0.517009,-0.00735659,0.281022,0.106004,0.220399,-1.97215,0.0534484,0.421896,-0.0175852,0.113847,-0.0679088,0.0961743,-0.173501,-0.00461243,0.0246719,-6.54569e-05,-14.4698,-18.9112,9.25051,-6.63685,6.46766,-7.08516,-0.204634,-3.4956,-36.3948,-2.03826,25.3839,0.202938,3.35808,0.017502,
0.2844,0.105978,0.223578,-1.9739,0.062634,0.416619,-0.0176996,0.0256167,0.00313175,0.0238637,-0.0223789,0.0922366,-0.0203943,-0.00128182,-0.769826,-0.32023,-0.725358,2.6954,24.8086,-14.7139,0.0365437,1.72993,-0.101529,1.65167,-1.66139,0.247736,0.212347,-0.00690976,0.281022,0.106004,0.220399,-1.97215,0.0534484,0.421896,-0.0175852,0.113847,-0.0679088,0.0961743,-0.173501,-0.00461243,0.0246719,-6.54569e-05,0,0,0,0,0,0,0,-3.4956,-36.3948,-2.03826,25.3839,0.202938,3.35808,0.017502,
0.284539,0.105982,0.223706,-1.97392,0.0650016,0.415504,-0.0177056,0.023963,0.00260857,0.0222936,-0.0183603,0.13298,-0.0442017,-0.00117399,-1.03356,-0.326985,-0.981297,2.51164,25.4645,-14.8796,0.067395,1.68939,-0.0835465,1.6167,-1.51637,0.426128,0.1007,-0.00663872,0.281022,0.106004,0.220399,-1.97215,0.0534484,0.421896,-0.0175852,0.113847,-0.0679088,0.0961743,-0.173501,-0.00461243,0.0246719,-6.54569e-05,0,0,0,0,0,0,0,-3.4956,-36.3948,-2.03826,25.3839,0.202938,3.35808,0.017502,
0.284653,0.105981,0.223811,-1.97392,0.0677627,0.414168,-0.0177077,0.0220333,0.0020758,0.0204608,-0.0146335,0.17541,-0.0687597,-0.000992822,-1.20602,-0.332983,-1.14548,2.32923,26.5192,-15.3487,0.11323,1.65936,-0.0633636,1.5925,-1.37325,0.647066,-0.0348573,-0.0063365,0.281022,0.106004,0.220399,-1.97215,0.0534484,0.421896,-0.0175852,0.113847,-0.0679088,0.0961743,-0.173501,-0.00461243,0.0246719,-6.54569e-05,0,0,0,0,0,0,0,-3.4956,-36.3948,-2.03826,25.3839,0.202938,3.35808,0.017502,
0.284744,0.105976,0.223893,-1.9739,0.0709512,0.4126,-0.0177046,0.0199053,0.00153564,0.0184345,-0.0112187,0.22004,-0.0941938,-0.000716442,-1.33004,-0.337596,-1.26645,2.13429,27.8936,-15.8963,0.172738,1.60478,-0.0694076,1.52687,-1.21009,0.90587,-0.179893,-0.00600945,0.283852,0.106867,0.224091,-1.97548,0.0540828,0.421876,-0.0175836,0.000405396,0.0535627,0.181103,-0.0707105,0.0435023,-0.00138194,0.000712943,-14.1802,15.1839,10.6161,12.8489,6.01434,-3.25673,0.0973,-2.96002,-37.4422,-1.78832,27.3517,0.532528,3.27202,0.00376909,
0.285291,0.107659,0.225452,-1.97641,0.0565991,0.420679,-0.0176362,0.0256505,0.00614206,0.0238155,-0.0150169,0.201276,-0.0878236,-0.000923275,3.59077,2.87901,3.3631,-2.37389,-11.7274,3.98138,-0.129271,1.62383,-0.0926946,1.53981,-1.35091,0.627922,-0.00763775,-0.0064213,0.283852,0.106867,0.224091,-1.97548,0.0540828,0.421876,-0.0175836,0.000405396,0.0535627,0.181103,-0.0707105,0.0435023,-0.00138194,0.000712943,0,0,0,0,0,0,0,-2.96002,-37.4422,-1.78832,27.3517,0.532528,3.27202,0.00376909,
0.285612,0.107808,0.225751,-1.9766,0.0578029,0.42009,-0.0176487,0.0285616,0.00865369,0.0265321,-0.0168218,0.191115,-0.0849741,-0.00105012,1.8194,1.56977,1.69792,-1.12805,-6.35061,1.7809,-0.0792783,1.60474,-0.0703476,1.52677,-1.20955,0.895585,-0.171094,-0.00600289,0.283852,0.106867,0.224091,-1.97548,0.0540828,0.421876,-0.0175836,0.000405396,0.0535627,0.181103,-0.0707105,0.0435023,-0.00138194,0.000712943,0,0,0,0,0,0,0,-2.96002,-37.4422,-1.78832,27.3517,0.532528,3.27202,0.00376909,
0.28588,0.107922,0.225999,-1.97675,0.0592381,0.419394,-0.01766,0.029537,0.00977253,0.0274222,-0.0172021,0.188773,-0.085388,-0.0011245,0.609651,0.699275,0.556318,-0.23772,-1.46418,-0.258644,-0.046484,1.59584,-0.0459756,1.52417,-1.06974,1.21549,-0.364897,-0.00553471,0.283852,0.106867,0.224091,-1.97548,0.0540828,0.421876,-0.0175836,0.000405396,0.0535627,0.181103,-0.0707105,0.0435023,-0.00138194,0.000712943,0,0,0,0,0,0,0,-2.96002,-37.4422,-1.78832,27.3517,0.532528,3.27202,0.00376909,
0.286304,0.108078,0.22639,-1.97696,0.0625058,0.417933,-0.0176771,0.0283324,0.00945784,0.0262409,-0.0157414,0.199595,-0.0914478,-0.00111672,-0.752849,-0.196682,-0.738366,0.912946,6.76364,-3.78741,0.00486163,1.59248,0.0125897,1.51645,-0.627879,2.36316,-1.03878,-0.00273539,0.286011,0.108523,0.226734,-1.977,0.0603347,0.420191,-0.0175874,0.0177567,0.0814438,0.105638,-0.0203016,0.259943,-0.088535,-6.3785e-05,2.16891,3.48514,-9.43308,6.30112,27.0551,-10.8941,-0.097091,-1.18664,-40.3105,-0.76079,26.8796,1.24664,2.10473,0.0376436,
0.287663,0.109905,0.228247,-1.97776,0.0812669,0.409957,-0.017608,0.0251884,0.00917067,0.0230702,-0.0128021,0.261725,-0.124689,-0.000803656,-1.96499,-0.179477,-1.98168,1.83706,38.8317,-20.7759,0.195663,1.58534,0.0364369,1.51647,-0.487764,2.8808,-1.36409,-0.000640967,0.286011,0.108523,0.226734,-1.977,0.0603347,0.420191,-0.0175874,0.0177567,0.0814438,0.105638,-0.0203016,0.259943,-0.088535,-6.3785e-05,0,0,0,0,0,0,0,-1.18664,-40.3105,-0.76079,26.8796,1.24664,2.10473,0.0376436,
0.287738,0.109957,0.228299,-1.97774,0.0856525,0.407743,-0.0175858,0.0220149,0.00865282,0.0197402,-0.00971129,0.319019,-0.155101,-8.91331e-05,-1.98346,-0.323661,-2.08122,1.93176,35.8085,-19.0074,0.446576,1.55308,0.0558507,1.49326,-0.346751,3.42975,-1.71161,0.00286907,0.286011,0.108523,0.226734,-1.977,0.0603347,0.420191,-0.0175874,0.0177567,0.0814438,0.105638,-0.0203016,0.259943,-0.088535,-6.3785e-05,0,0,0,0,0,0,0,-1.18664,-40.3105,-0.76079,26.8796,1.24664,2.10473,0.0376436,
