xiao-wang007/linearmpc_panda/paper_data/panda_torque_PD_controller_opt_time_to_start_torque_rate_limiter/0/trajectory.csv
Commanded Joint 0 Position,Commanded Joint 1 Position,Commanded Joint 2 Position,Commanded Joint 3 Position,Commanded Joint 4 Position,Commanded Joint 5 Position,Commanded Joint 6 Position,Commanded Joint 0 Velocity,Commanded Joint 1 Velocity,Commanded Joint 2 Velocity,Commanded Joint 3 Velocity,Commanded Joint 4 Velocity,Commanded Joint 5 Velocity,Commanded Joint 6 Velocity,Commanded Joint 0 Acceleration,Commanded Joint 1 Acceleration,Commanded Joint 2 Acceleration,Commanded Joint 3 Acceleration,Commanded Joint 4 Acceleration,Commanded Joint 5 Acceleration,Commanded Joint 6 Acceleration,Commanded Joint 0 Torque,Commanded Joint 1 Torque,Commanded Joint 2 Torque,Commanded Joint 3 Torque,Commanded Joint 4 Torque,Commanded Joint 5 Torque,Commanded Joint 6 Torque,Actual Joint 0 Position,Actual Joint 1 Position,Actual Joint 2 Position,Actual Joint 3 Position,Actual Joint 4 Position,Actual Joint 5 Position,Actual Joint 6 Position,Actual Joint 0 Velocity,Actual Joint 1 Velocity,Actual Joint 2 Velocity,Actual Joint 3 Velocity,Actual Joint 4 Velocity,Actual Joint 5 Velocity,Actual Joint 6 Velocity,Actual Joint 0 Acceleration,Actual Joint 1 Acceleration,Actual Joint 2 Acceleration,Actual Joint 3 Acceleration,Actual Joint 4 Acceleration,Actual Joint 5 Acceleration,Actual Joint 6 Acceleration,Actual Joint 0 Torque,Actual Joint 1 Torque,Actual Joint 2 Torque,Actual Joint 3 Torque,Actual Joint 4 Torque,Actual Joint 5 Torque,Actual Joint 6 Torque,
0.00494855,-0.0757825,0.0121679,-1.74013,0.0308807,0.166673,-0.0846232,0.000640439,0.018572,0.000742384,-0.033525,-0.00617062,0.0483841,-0.00036386,0.400275,11.6075,0.46399,-20.9531,-3.85664,30.2401,-0.227413,0.0548387,21.8956,0.169043,-24.2431,-0.761876,1.73911,-0.0234026,0.00489862,-0.0771247,0.0121074,-1.73665,0.0313231,0.161439,-0.0845792,0.00127559,3.37258e-05,-0.00044887,0.000900944,0.00147333,0.000400489,-0.00046515,0,0,0,0,0,0,0,0.00751081,-32.8719,0.112013,27.4271,0.507809,3.39104,0.0376436,
0.00490506,-0.0771291,0.0121138,-1.73664,0.0313464,0.161454,-0.0845795,0.000555348,0.0148221,0.000638035,-0.0267891,-0.00478918,0.0388071,-0.000291727,-0.0531823,-2.34369,-0.0652182,4.20994,0.863396,-5.98563,0.0450832,0.0491267,22.3362,0.158702,-24.1595,-0.761765,1.48849,-0.0218879,0.00489862,-0.0771247,0.0121074,-1.73665,0.0313231,0.161439,-0.0845792,0.00127559,3.37258e-05,-0.00044887,0.000900944,0.00147333,0.000400489,-0.00046515,0,0,0,0,0,0,0,0.00751081,-32.8719,0.112013,27.4271,0.507809,3.39104,0.0376436,
0.00490646,-0.0771303,0.0121152,-1.73664,0.031351,0.161457,-0.0845795,0.000479489,0.0118271,0.000546634,-0.0214066,-0.0037161,0.0311237,-0.000233913,-0.0474115,-1.87189,-0.0571254,3.36406,0.670674,-4.8021,0.0361339,0.0419431,22.9078,0.146984,-24.0514,-0.760885,1.14119,-0.0199192,0.00489862,-0.0771247,0.0121074,-1.73665,0.0313231,0.161439,-0.0845792,0.00127559,3.37258e-05,-0.00044887,0.000900944,0.00147333,0.000400489,-0.00046515,0,0,0,0,0,0,0,0.00751081,-32.8719,0.112013,27.4271,0.507809,3.39104,0.0376436,
0.00490761,-0.0771314,0.0121164,-1.73664,0.0313546,0.161459,-0.0845795,0.000412326,0.00943568,0.00046691,-0.0171052,-0.00288217,0.0249601,-0.000187575,-0.041977,-1.49462,-0.0498275,2.68838,0.521207,-3.85226,0.0289613,0.0360397,23.4317,0.137584,-23.8836,-0.75851,0.756287,-0.0179178,0.00489664,-0.0771247,0.0121086,-1.73665,0.0313251,0.161438,-0.0845822,0.000155969,-5.7611e-05,-0.000144679,-0.000644305,0.003068,-0.000268771,-0.00117735,-0.139952,-0.0114171,0.0380239,-0.193156,0.199333,-0.0836574,-0.0890252,0.0313145,-32.8719,0.0882092,27.4747,0.489498,3.40478,0.0641939,
0.00490855,-0.0771322,0.0121174,-1.73664,0.0313575,0.161461,-0.0845795,0.000353254,0.00752664,0.000397676,-0.0136677,-0.00223407,0.0200162,-0.000150428,-0.0369197,-1.19315,-0.0432712,2.14841,0.405062,-3.08994,0.0232171,0.0338111,23.7546,0.133389,-23.6191,-0.753377,0.38369,-0.0161966,0.00489664,-0.0771247,0.0121086,-1.73665,0.0313251,0.161438,-0.0845822,0.000155969,-5.7611e-05,-0.000144679,-0.000644305,0.003068,-0.000268771,-0.00117735,0,0,0,0,0,0,0,0.0313145,-32.8719,0.0882092,27.4747,0.489498,3.40478,0.0641939,
0.00462068,-0.077116,0.011842,-1.73647,0.0390614,0.156362,-0.0846071,-0.000704402,0.00589821,-0.000705296,-0.0105662,0.0470816,-0.0170921,-0.000147278,-0.661035,-1.01777,-0.689358,1.93845,30.8223,-23.1927,0.00196857,0.448183,0.215818,0.448018,-0.306565,2.9234,-2.05597,-0.00164174,0.00489664,-0.0771247,0.0121086,-1.73665,0.0313251,0.161438,-0.0845822,0.000155969,-5.7611e-05,-0.000144679,-0.000644305,0.003068,-0.000268771,-0.00117735,0,0,0,0,0,0,0,0.0313145,-32.8719,0.0882092,27.4747,0.489498,3.40478,0.0641939,
0.00459383,-0.07712,0.0118136,-1.73646,0.0410768,0.154977,-0.0846078,-0.00123494,0.00461985,-0.00127362,-0.00829323,0.0880508,-0.0482957,-0.000135068,-0.331585,-0.798977,-0.355204,1.42059,25.6057,-19.5023,0.00763093,0.442483,0.214336,0.442242,-0.303362,2.8985,-2.03798,-0.00162045,0.00489664,-0.0771247,0.0121086,-1.73665,0.0313251,0.161438,-0.0845822,0.000155969,-5.7611e-05,-0.000144679,-0.000644305,0.003068,-0.000268771,-0.00117735,0,0,0,0,0,0,0,0.0313145,-32.8719,0.0882092,27.4747,0.489498,3.40478,0.0641939,
0.0045784,-0.0771221,0.0117968,-1.73646,0.0431258,0.153555,-0.0846083,-0.00137364,0.00364246,-0.00143921,-0.0066391,0.121666,-0.0742067,-0.000121521,-0.0866907,-0.610865,-0.103491,1.03383,21.0093,-16.1944,0.00846688,0.436975,0.212727,0.436658,-0.300168,2.87341,-2.01996,-0.00159835,0.00489664,-0.0771247,0.0121086,-1.73665,0.0313251,0.161438,-0.0845822,0.000155969,-5.7611e-05,-0.000144679,-0.000644305,0.003068,-0.000268771,-0.00117735,0,0,0,0,0,0,0,0.0313145,-32.8719,0.0882092,27.4747,0.489498,3.40478,0.0641939,
0.00428083,-0.0769116,0.0115428,-1.73574,0.0672046,0.127963,-0.084656,-0.000833999,0.0038499,-0.000885192,-0.00558279,0.284159,-0.237005,-7.87681e-05,0.337278,0.129644,0.34626,0.660195,101.559,-101.749,0.0267208,3.44414,2.06208,3.5334,-2.09535,10.649,-10.192,-0.00332173,0.00489333,-0.077123,0.0121091,-1.73665,0.0313264,0.161438,-0.0845806,-0.00193668,7.84243e-06,-0.000475119,-0.000134787,0.00496466,0.000325813,5.03302e-06,-0.261581,0.00818168,-0.0413051,0.0636897,0.237082,0.0743229,0.147798,0.0828892,-32.8996,0.0882092,27.4747,0.477596,3.39745,0.050461,
0.00423704,-0.0769357,0.0115118,-1.7358,0.065196,0.130092,-0.0846533,-0.000513249,0.00379516,-0.00049286,-0.0047427,0.399386,-0.355987,-7.71015e-05,0.200469,-0.0342068,0.245208,0.52506,72.0165,-74.3638,0.00104162,3.33594,2.02055,3.4219,-2.06691,10.4198,-10.0297,-0.00395225,0.00489333,-0.077123,0.0121091,-1.73665,0.0313264,0.161438,-0.0845806,-0.00193668,7.84243e-06,-0.000475119,-0.000134787,0.00496466,0.000325813,5.03302e-06,0,0,0,0,0,0,0,0.0828892,-32.8996,0.0882092,27.4747,0.477596,3.39745,0.050461,
0.00429033,-0.0768906,0.0115674,-1.73585,0.0721161,0.123291,-0.0846537,0.000921612,0.00416557,0.000995075,-0.00502194,0.492511,-0.454817,-7.20548e-05,0.896788,0.231503,0.929959,-0.174528,58.2035,-61.7685,0.0031542,3.23857,1.97976,3.3168,-2.03856,10.1883,-9.87135,-0.00447166,0.00489333,-0.077123,0.0121091,-1.73665,0.0313264,0.161438,-0.0845806,-0.00193668,7.84243e-06,-0.000475119,-0.000134787,0.00496466,0.000325813,5.03302e-06,0,0,0,0,0,0,0,0.0828892,-32.8996,0.0882092,27.4747,0.477596,3.39745,0.050461,
0.00438348,-0.0768287,0.0116634,-1.73593,0.079006,0.116424,-0.0846543,0.00306598,0.00487895,0.00319693,-0.00598299,0.566256,-0.53551,-7.35342e-05,1.34023,0.445864,1.37616,-0.600658,46.0902,-50.4334,-0.000924648,3.15749,1.93898,3.21245,-2.00784,9.95653,-9.7203,-0.00393202,0.00489333,-0.077123,0.0121091,-1.73665,0.0313264,0.161438,-0.0845806,-0.00193668,7.84243e-06,-0.000475119,-0.000134787,0.00496466,0.000325813,5.03302e-06,0,0,0,0,0,0,0,0.0828892,-32.8996,0.0882092,27.4747,0.477596,3.39745,0.050461,
0.00984201,-0.0774446,0.0175477,-1.73963,0.0705582,0.107423,-0.0838643,0.0278351,-0.000136416,0.0292937,-0.0259492,0.642372,-0.681493,0.00121047,15.4807,-3.1346,16.3105,-12.4789,47.5727,-91.2393,0.8025,18.7278,-1.23369,19.0291,-12.302,10.856,-14.454,0.250974,0.00489315,-0.0771234,0.0121074,-1.73665,0.0313296,0.161439,-0.0845755,-0.00247281,-0.000479224,0.000517708,0.00100373,0.00668305,0.000577471,0.00118482,-0.0670169,-0.0608833,0.124103,0.142315,0.2148,0.0314573,0.147474,0.0551182,-32.8996,0.112013,27.4271,0.477596,3.39104,0.00376909,
0.00813766,-0.0793568,0.0156559,-1.73996,0.0720146,0.106927,-0.0842194,0.0399838,-0.00804812,0.0424591,-0.0387218,0.704667,-0.801282,0.00162792,7.59295,-4.94481,8.22837,-7.98287,38.9343,-74.8681,0.26091,15.4993,-1.96401,16.1974,-12.594,10.856,-14.454,0.0561224,0.00489315,-0.0771234,0.0121074,-1.73665,0.0313296,0.161439,-0.0845755,-0.00247281,-0.000479224,0.000517708,0.00100373,0.00668305,0.000577471,0.00118482,0,0,0,0,0,0,0,0.0551182,-32.8996,0.112013,27.4271,0.477596,3.39104,0.00376909,
0.00888876,-0.0796549,0.0164594,-1.74076,0.0798677,0.0967869,-0.0841911,0.0507646,-0.0138911,0.054055,-0.0511461,0.76006,-0.894523,0.00201034,6.73799,-3.65185,7.24747,-7.76519,34.6209,-58.2756,0.239012,14.5145,-1.80424,15.3085,-12.1935,10.856,-14.454,0.0342744,0.00489315,-0.0771234,0.0121074,-1.73665,0.0313296,0.161439,-0.0845755,-0.00247281,-0.000479224,0.000517708,0.00100373,0.00668305,0.000577471,0.00118482,0,0,0,0,0,0,0,0.0551182,-32.8996,0.112013,27.4271,0.477596,3.39104,0.00376909,
0.00967102,-0.0799261,0.0172942,-1.74164,0.087883,0.0870181,-0.0841618,0.060168,-0.0178936,0.064112,-0.0628947,0.808433,-0.959838,0.00234017,5.87714,-2.50159,6.28563,-7.34287,30.233,-40.8216,0.206144,13.8636,-1.86597,14.6603,-11.9294,10.856,-14.454,0.0280747,0.00489315,-0.0771234,0.0121074,-1.73665,0.0313296,0.161439,-0.0845755,-0.00247281,-0.000479224,0.000517708,0.00100373,0.00668305,0.000577471,0.00118482,0,0,0,0,0,0,0,0.0551182,-32.8996,0.112013,27.4271,0.477596,3.39104,0.00376909,
0.00751349,-0.0769652,0.0148991,-1.73949,0.0564894,0.12822,-0.0843278,0.0679656,-0.0116301,0.0721133,-0.0721494,0.817443,-0.994527,0.0029719,4.87345,3.91471,5.00081,-5.78415,5.63116,-21.6811,0.394829,20.7288,8.00678,21.4294,-17.4918,10.856,-14.454,0.0798508,0.00489315,-0.0771234,0.0121074,-1.73665,0.0313296,0.161439,-0.0845755,-0.00247281,-0.000479224,0.000517708,0.00100373,0.00668305,0.000577471,0.00118482,0,0,0,0,0,0,0,0.0551182,-32.8996,0.112013,27.4271,0.477596,3.39104,0.00376909,
0.00838357,-0.0768137,0.0158113,-1.74045,0.0637637,0.118567,-0.0842867,0.0761245,-0.0055182,0.080495,-0.0818648,0.835811,-1.03694,0.00340744,5.09933,3.81993,5.23853,-6.07216,11.4803,-26.5103,0.272212,19.4635,7.42233,20.1602,-17.1992,10.856,-14.454,0.065064,0.00489315,-0.0771234,0.0121074,-1.73665,0.0313296,0.161439,-0.0845755,-0.00247281,-0.000479224,0.000517708,0.00100373,0.00668305,0.000577471,0.00118482,0,0,0,0,0,0,0,0.0551182,-32.8996,0.112013,27.4271,0.477596,3.39104,0.00376909,
0.0093089,-0.0766247,0.0167803,-1.74151,0.0713696,0.108602,-0.0842468,0.084033,0.000311518,0.088622,-0.0917955,0.858799,-1.07868,0.00372177,4.94281,3.64357,5.07943,-6.20669,14.3671,-26.0837,0.196457,18.3959,6.85726,19.0822,-16.9292,10.856,-14.454,0.0550865,0.00489315,-0.0771234,0.0121074,-1.73665,0.0313296,0.161439,-0.0845755,-0.00247281,-0.000479224,0.000517708,0.00100373,0.00668305,0.000577471,0.00118482,0,0,0,0,0,0,0,0.0551182,-32.8996,0.112013,27.4271,0.477596,3.39104,0.00376909,
0.0102738,-0.0764061,0.0177898,-1.74267,0.079225,0.0988311,-0.0842072,0.0913476,0.00571355,0.0961352,-0.102599,0.883422,-1.10722,0.00396906,4.57161,3.37627,4.6957,-6.75214,15.3894,-17.8382,0.154556,17.4831,6.34698,18.1617,-16.6609,10.856,-14.454,0.0516459,0.00489315,-0.0771234,0.0121074,-1.73665,0.0313296,0.161439,-0.0845755,-0.00247281,-0.000479224,0.000517708,0.00100373,0.00668305,0.000577471,0.00118482,0,0,0,0,0,0,0,0.0551182,-32.8996,0.112013,27.4271,0.477596,3.39104,0.00376909,
0.00810379,-0.0782615,0.0154602,-1.74245,0.055991,0.129577,-0.084415,0.0968957,3.17403e-05,0.101634,-0.120214,0.875052,-1.10844,0.00376011,3.46757,-3.55113,3.43694,-11.0091,-5.23098,-0.763009,-0.130593,23.6814,5.96792,24.3754,-25.957,10.856,-14.454,0.0632166,0.00489334,-0.0771273,0.0121069,-1.73665,0.0313278,0.161438,-0.0845799,-0.00205473,-0.00139812,-0.000892412,0.000733631,0.00835389,0.000472854,0.000213935,0.0522601,-0.114862,-0.176265,-0.0337624,0.208854,-0.0130772,-0.121361,0.0828892,-32.8481,0.0882092,27.4747,0.465695,3.39745,0.0440523,
0.00914522,-0.0784087,0.016541,-1.74407,0.0631842,0.120042,-0.084392,0.103552,-0.00365384,0.108328,-0.136746,0.879872,-1.12512,0.0035825,4.16038,-2.30349,4.18389,-10.3329,3.01233,-10.4245,-0.111006,22.2601,4.79255,22.9442,-25.686,10.856,-14.454,0.0432279,0.00489334,-0.0771273,0.0121069,-1.73665,0.0313278,0.161438,-0.0845799,-0.00205473,-0.00139812,-0.000892412,0.000733631,0.00835389,0.000472854,0.000213935,0,0,0,0,0,0,0,0.0828892,-32.8481,0.0882092,27.4747,0.465695,3.39745,0.0440523,
0.0102528,-0.0785291,0.0176901,-1.7458,0.0707234,0.110281,-0.0843657,0.11053,-0.00593258,0.11539,-0.152587,0.892378,-1.14413,0.00352521,4.36136,-1.42422,4.41364,-9.9007,7.81607,-11.8827,-0.0358055,21.0839,3.78364,21.7535,-25.3918,10.856,-14.454,0.0312554,0.00489334,-0.0771273,0.0121069,-1.73665,0.0313278,0.161438,-0.0845799,-0.00205473,-0.00139812,-0.000892412,0.000733631,0.00835389,0.000472854,0.000213935,0,0,0,0,0,0,0,0.0828892,-32.8481,0.0882092,27.4747,0.465695,3.39745,0.0440523,
0.0114093,-0.0786264,0.0188896,-1.74765,0.0785241,0.100835,-0.0843347,0.117337,-0.00717907,0.1223,-0.168352,0.908918,-1.15145,0.00359472,4.25407,-0.779052,4.31865,-9.85283,10.3375,-4.57681,0.0434442,20.0933,2.92574,20.7515,-25.0734,10.856,-14.454,0.0239377,0.00489334,-0.0771273,0.0121069,-1.73665,0.0313278,0.161438,-0.0845799,-0.00205473,-0.00139812,-0.000892412,0.000733631,0.00835389,0.000472854,0.000213935,0,0,0,0,0,0,0,0.0828892,-32.8481,0.0882092,27.4747,0.465695,3.39745,0.0440523,
0.00809196,-0.0781438,0.0154963,-1.74371,0.0560781,0.130381,-0.0844525,0.117809,-0.0084015,0.122889,-0.179917,0.895707,-1.14081,0.00350792,0.294877,-0.764024,0.368138,-7.22843,-8.25673,6.65001,-0.0542535,23.5381,7.78774,24.3831,-30.3522,10.8561,-14.454,0.0382036,0.00489528,-0.0771301,0.0121091,-1.73665,0.0313216,0.161441,-0.0845747,-0.00210558,-0.00121679,-0.00118657,0.00120536,0.00701576,0.00108258,0.00148038,-0.00635593,0.0226662,-0.0367697,0.058966,-0.167266,0.0762155,0.158305,0.0551182,-32.8243,0.0882092,27.4509,0.520626,3.37823,-0.0026396,
0.0091401,-0.0782006,0.0165913,-1.74567,0.0632886,0.121285,-0.0844261,0.120451,-0.00814098,0.125687,-0.192977,0.896829,-1.14005,0.00346767,1.65112,0.16283,1.74847,-8.16209,0.701245,0.479313,-0.0251559,22.2443,6.61888,23.0651,-30.0383,10.8561,-14.454,0.0246301,0.00489528,-0.0771301,0.0121091,-1.73665,0.0313216,0.161441,-0.0845747,-0.00210558,-0.00121679,-0.00118657,0.00120536,0.00701576,0.00108258,0.00148038,0,0,0,0,0,0,0,0.0551182,-32.8243,0.0882092,27.4509,0.520626,3.37823,-0.0026396,
0.0102555,-0.0782086,0.0177553,-1.74778,0.070851,0.112434,-0.084395,0.124246,-0.0067117,0.129649,-0.207169,0.906523,-1.13332,0.00355001,2.37235,0.893298,2.47623,-8.87013,6.05887,4.20429,0.0514618,21.176,5.64415,21.9739,-29.6923,10.8561,-14.454,0.020797,0.00489528,-0.0771301,0.0121091,-1.73665,0.0313216,0.161441,-0.0845747,-0.00210558,-0.00121679,-0.00118657,0.00120536,0.00701576,0.00108258,0.00148038,0,0,0,0,0,0,0,0.0551182,-32.8243,0.0882092,27.4509,0.520626,3.37823,-0.0026396,
0.0114185,-0.0781628,0.018968,-1.75,0.078675,0.104133,-0.0843605,0.12847,-0.00422535,0.134036,-0.221258,0.920817,-1.11419,0.003704,2.64002,1.55397,2.74188,-8.80581,8.93385,11.9565,0.0962451,20.2506,4.82307,21.0275,-29.33,10.8561,-14.454,0.0216575,0.00489528,-0.0771301,0.0121091,-1.73665,0.0313216,0.161441,-0.0845747,-0.00210558,-0.00121679,-0.00118657,0.00120536,0.00701576,0.00108258,0.00148038,0,0,0,0,0,0,0,0.0551182,-32.8243,0.0882092,27.4509,0.520626,3.37823,-0.0026396,
0.00838204,-0.0786905,0.0157563,-1.74602,0.0559503,0.131584,-0.0844603,0.128425,-0.00867764,0.133897,-0.235349,0.904949,-1.10697,0.0033717,-0.0280955,-2.78269,-0.0868368,-8.80676,-9.9176,4.51019,-0.207689,25.213,8.26865,25.9961,-37.4587,10.8561,-14.454,0.0445623,0.00489333,-0.0771257,0.0121127,-1.73665,0.0313196,0.161439,-0.0845788,-0.00299859,-0.000220522,0.000754576,-0.000818763,0.00734991,0.000839034,0.000232806,-0.111626,0.124533,0.242643,-0.253015,0.041768,-0.0304429,-0.155947,0.0828892,-32.8719,0.0366345,27.5024,0.538937,3.39104,0.0239107,
0.00949747,-0.0788499,0.0169154,-1.74848,0.0631565,0.122428,-0.0844449,0.130626,-0.0109259,0.136095,-0.249965,0.904115,-1.11448,0.00308267,1.37542,-1.40518,1.37363,-9.13512,-0.521603,-4.68862,-0.180638,23.6649,6.70634,24.4336,-37.0787,10.8561,-14.454,0.0253409,0.00489333,-0.0771257,0.0121127,-1.73665,0.0313196,0.161439,-0.0845788,-0.00299859,-0.000220522,0.000754576,-0.000818763,0.00734991,0.000839034,0.000232806,0,0,0,0,0,0,0,0.0828892,-32.8719,0.0366345,27.5024,0.538937,3.39104,0.0239107,
0.010679,-0.078965,0.0181424,-1.75111,0.0707222,0.1134,-0.0844266,0.134039,-0.0116197,0.13955,-0.265553,0.912435,-1.11728,0.00292221,2.13295,-0.433594,2.15963,-9.74252,5.19995,-1.75325,-0.100292,22.392,5.34816,23.1451,-36.6958,10.8561,-14.454,0.0180262,0.00489333,-0.0771257,0.0121127,-1.73665,0.0313196,0.161439,-0.0845788,-0.00299859,-0.000220522,0.000754576,-0.000818763,0.00734991,0.000839034,0.000232806,0,0,0,0,0,0,0,0.0828892,-32.8719,0.0366345,27.5024,0.538937,3.39104,0.0239107,
0.0119078,-0.0790294,0.0194181,-1.75385,0.0785527,0.104854,-0.0844058,0.137952,-0.0109059,0.143531,-0.280893,0.92571,-1.10748,0.00285787,2.44551,0.446123,2.48844,-9.58749,8.29722,6.12382,-0.0402106,21.2986,4.1538,22.0327,-36.3413,10.8561,-14.454,0.0142443,0.00489333,-0.0771257,0.0121127,-1.73665,0.0313196,0.161439,-0.0845788,-0.00299859,-0.000220522,0.000754576,-0.000818763,0.00734991,0.000839034,0.000232806,0,0,0,0,0,0,0,0.0828892,-32.8719,0.0366345,27.5024,0.538937,3.39104,0.0239107,
0.00850766,-0.0787857,0.0159083,-1.74788,0.0559876,0.132591,-0.0845201,0.136823,-0.0134832,0.142402,-0.293317,0.909067,-1.09812,0.00240711,-0.705554,-1.61084,-0.705709,-7.76479,-10.402,5.85274,-0.281726,25.928,9.72621,26.7981,-43.5402,10.8561,-14.454,0.0331174,0.00489482,-0.0771218,0.0121054,-1.73665,0.0313142,0.161436,-0.0845762,-0.00219943,0.000250244,-0.00203038,0.00105762,0.00687587,4.12721e-05,0.000551616,0.099895,0.0588458,-0.348119,0.234548,-0.059255,-0.0997202,0.0398512,0.0313145,-32.9234,0.139784,27.4509,0.58746,3.41759,0.0101778,
0.00965812,-0.0789132,0.017106,-1.7508,0.0632051,0.123747,-0.084512,0.13822,-0.0139753,0.143866,-0.307472,0.907691,-1.09959,0.00213005,0.873139,-0.307516,0.9149,-8.84718,-0.860016,-0.919219,-0.173164,24.2601,7.99897,25.0998,-43.1236,10.8561,-14.454,0.0117058,0.00489482,-0.0771218,0.0121054,-1.73665,0.0313142,0.161436,-0.0845762,-0.00219943,0.000250244,-0.00203038,0.00105762,0.00687587,4.12721e-05,0.000551616,0,0,0,0,0,0,0,0.0313145,-32.9234,0.139784,27.4509,0.58746,3.41759,0.0101778,
0.0108758,-0.0789824,0.018373,-1.75387,0.0707825,0.115135,-0.0844996,0.141017,-0.0129103,0.146766,-0.322834,0.915588,-1.09496,0.00201381,1.74845,0.665607,1.81242,-9.60084,4.93566,2.89362,-0.0726485,22.9048,6.57655,23.72,-42.6425,10.8561,-14.454,0.00288213,0.00489482,-0.0771218,0.0121054,-1.73665,0.0313142,0.161436,-0.0845762,-0.00219943,0.000250244,-0.00203038,0.00105762,0.00687587,4.12721e-05,0.000551616,0,0,0,0,0,0,0,0.0313145,-32.9234,0.139784,27.4509,0.58746,3.41759,0.0101778,
0.0121401,-0.0789899,0.0196888,-1.75706,0.0786258,0.107078,-0.0844825,0.144421,-0.0105136,0.150308,-0.337946,0.928552,-1.07741,0.00203699,2.12744,1.49794,2.21347,-9.44522,8.10274,10.9653,0.0144863,21.7671,5.33079,22.558,-42.1779,10.8561,-14.454,-0.00249587,0.00489482,-0.0771218,0.0121054,-1.73665,0.0313142,0.161436,-0.0845762,-0.00219943,0.000250244,-0.00203038,0.00105762,0.00687587,4.12721e-05,0.000551616,0,0,0,0,0,0,0,0.0313145,-32.9234,0.139784,27.4509,0.58746,3.41759,0.0101778,
0.00848491,-0.079497,0.015858,-1.74987,0.0560867,0.133549,-0.0845707,0.141965,-0.0167614,0.147693,-0.349855,0.911592,-1.07117,0.00156578,-1.53498,-3.90487,-1.63425,-7.44301,-10.6005,3.90517,-0.294506,25.8809,8.84064,26.7064,-49.4953,10.8561,-14.454,0.0149961,0.00489482,-0.0771218,0.0121054,-1.73665,0.0313142,0.161436,-0.0845762,-0.00219943,0.000250244,-0.00203038,0.00105762,0.00687587,4.12721e-05,0.000551616,0,0,0,0,0,0,0,0.0313145,-32.9234,0.139784,27.4509,0.58746,3.41759,0.0101778,
0.00963452,-0.0797694,0.0170517,-1.75326,0.0633178,0.125065,-0.0845717,0.142313,-0.0202187,0.147995,-0.364643,0.91005,-1.06903,0.00122779,0.217137,-2.16084,0.188873,-9.24244,-0.963721,1.3357,-0.211242,24.2647,6.91069,25.0667,-49.0142,10.8561,-14.454,-0.00199997,0.00489695,-0.0771247,0.0121091,-1.73664,0.0313109,0.161435,-0.0845777,-0.00173382,-0.000946944,-0.00118128,0.00211545,0.0104861,-0.000370177,0.000185787,0.0582006,-0.149649,0.106138,0.132228,0.451282,-0.0514312,-0.0457287,0.0313145,-32.8719,0.0882092,27.3993,0.617672,3.424,0.0239107,
0.0108518,-0.0799725,0.0183158,-1.75681,0.0709055,0.11694,-0.0845697,0.144282,-0.0212522,0.149999,-0.380411,0.917732,-1.05837,0.00103326,1.23059,-0.645943,1.2523,-9.85516,4.80154,6.66262,-0.121581,22.9199,5.2854,23.6974,-48.5024,10.8561,-14.454,-0.0101148,0.00489695,-0.0771247,0.0121091,-1.73664,0.0313109,0.161435,-0.0845777,-0.00173382,-0.000946944,-0.00118128,0.00211545,0.0104861,-0.000370177,0.000185787,0,0,0,0,0,0,0,0.0313145,-32.8719,0.0882092,27.3993,0.617672,3.424,0.0239107,
0.0121168,-0.0801051,0.0196297,-1.76046,0.0787548,0.109439,-0.0845641,0.147051,-0.0203154,0.152847,-0.395544,0.930418,-1.03421,0.000967003,1.73095,0.585556,1.77991,-9.45806,7.92844,15.0963,-0.0414109,21.7932,3.90321,22.5415,-47.9846,10.8561,-14.454,-0.0127121,0.00489695,-0.0771247,0.0121091,-1.73664,0.0313109,0.161435,-0.0845777,-0.00173382,-0.000946944,-0.00118128,0.00211545,0.0104861,-0.000370177,0.000185787,0,0,0,0,0,0,0,0.0313145,-32.8719,0.0882092,27.3993,0.617672,3.424,0.0239107,
0.00827347,-0.0797499,0.0156514,-1.75079,0.0564734,0.134909,-0.0845825,0.142788,-0.025276,0.148415,-0.402687,0.914598,-1.01485,0.000790096,-2.66451,-3.10043,-2.76983,-4.46451,-9.88721,12.1042,-0.110567,24.6665,8.38863,25.4908,-52.1209,10.8561,-14.454,0.00927649,0.00489695,-0.0771247,0.0121091,-1.73664,0.0313109,0.161435,-0.0845777,-0.00173382,-0.000946944,-0.00118128,0.00211545,0.0104861,-0.000370177,0.000185787,0,0,0,0,0,0,0,0.0313145,-32.8719,0.0882092,27.3993,0.617672,3.424,0.0239107,
0.0093737,-0.0800134,0.0167938,-1.75443,0.0637443,0.127598,-0.0845786,0.141736,-0.0268072,0.147292,-0.41312,0.913452,-0.99464,0.000729718,-0.657423,-0.956946,-0.701875,-6.52036,-0.716451,12.63,-0.0377363,23.165,6.68048,23.9591,-51.5612,10.8561,-14.454,-0.00446568,0.0049013,-0.0771247,0.0121086,-1.73665,0.0313068,0.161433,-0.0845762,-0.00390315,-0.000240524,-0.00106287,-0.000243591,0.0057742,-0.00149882,0.000829848,-0.271166,0.0883025,0.0148012,-0.29488,-0.588991,-0.141081,0.0805077,-0.0440639,-32.8719,0.0644055,27.5024,0.654293,3.44414,0.0101778,
0.0105426,-0.0801813,0.0180069,-1.75819,0.0713563,0.120774,-0.0845725,0.142612,-0.0256432,0.14816,-0.424581,0.921059,-0.966314,0.00073573,0.547671,0.7275,0.542719,-7.1631,4.75481,17.704,0.00375744,21.9153,5.24488,22.6799,-50.9879,10.8561,-14.454,-0.0110256,0.0049013,-0.0771247,0.0121086,-1.73665,0.0313068,0.161433,-0.0845762,-0.00390315,-0.000240524,-0.00106287,-0.000243591,0.0057742,-0.00149882,0.000829848,0,0,0,0,0,0,0,-0.0440639,-32.8719,0.0644055,27.5024,0.654293,3.44414,0.0101778,
0.0117596,-0.0802621,0.0192695,-1.76203,0.0792194,0.114604,-0.0845636,0.144514,-0.0225342,0.150094,-0.435556,0.933427,-0.927309,0.000810983,1.18869,1.94311,1.20877,-6.85953,7.72963,24.3777,0.0470328,20.8723,4.05946,21.6091,-50.3921,10.8561,-13.9692,-0.0133218,0.0049013,-0.0771247,0.0121086,-1.73665,0.0313068,0.161433,-0.0845762,-0.00390315,-0.000240524,-0.00106287,-0.000243591,0.0057742,-0.00149882,0.000829848,0,0,0,0,0,0,0,-0.0440639,-32.8719,0.0644055,27.5024,0.654293,3.44414,0.0101778,
0.00842831,-0.079771,0.0158006,-1.75213,0.0563138,0.134956,-0.0845432,0.141636,-0.0269492,0.147124,-0.441268,0.916576,-0.941237,0.000567362,-1.79856,-2.75942,-1.85628,-3.57032,-10.5315,-8.70506,-0.152263,25.8095,10.3719,26.6459,-56.6055,10.8561,-14.454,0.0364315,0.0049013,-0.0771247,0.0121086,-1.73665,0.0313068,0.161433,-0.0845762,-0.00390315,-0.000240524,-0.00106287,-0.000243591,0.0057742,-0.00149882,0.000829848,0,0,0,0,0,0,0,-0.0440639,-32.8719,0.0644055,27.5024,0.654293,3.44414,0.0101778,
0.00956303,-0.0800453,0.0169788,-1.75605,0.0635768,0.126909,-0.0845427,0.141677,-0.0284151,0.147155,-0.450974,0.914836,-0.954183,0.000466722,0.0254485,-0.916148,0.019526,-6.06602,-1.08795,-8.09121,-0.0628999,24.034,8.07261,24.8445,-56.092,10.8561,-14.454,0.0109202,0.00490419,-0.0771263,0.0121151,-1.73665,0.0313007,0.16143,-0.0845762,-5.22266e-05,-0.00170145,-0.000296026,0.00103462,0.00410869,-0.00291919,0.00116829,0.481366,-0.182616,0.0958553,0.159777,-0.208188,-0.177546,0.0423051,-0.0718349,-32.8481,0.0128308,27.4747,0.709225,3.47069,0.0101778,
0.0107661,-0.0802351,0.0182273,-1.76012,0.0711877,0.1192,-0.0845398,0.14342,-0.0274767,0.148937,-0.462384,0.92214,-0.956071,0.000445433,1.08899,0.586501,1.11348,-7.13128,4.56543,-1.17951,-0.0133058,22.6056,6.1431,23.3863,-55.5605,10.8561,-14.454,-0.004925,0.00490419,-0.0771263,0.0121151,-1.73665,0.0313007,0.16143,-0.0845762,-5.22266e-05,-0.00170145,-0.000296026,0.00103462,0.00410869,-0.00291919,0.00116829,0,0,0,0,0,0,0,-0.0718349,-32.8481,0.0128308,27.4747,0.709225,3.47069,0.0101778,
0.00852104,-0.0801582,0.0158934,-1.75351,0.0563965,0.135886,-0.0845855,0.14124,-0.0324273,0.14666,-0.470818,0.908006,-0.955934,8.73735e-05,-1.36215,-3.09415,-1.42286,-5.27144,-8.83401,0.085079,-0.223787,26.0439,10.209,26.8768,-60.911,10.8561,-14.454,0.0214216,0.00490419,-0.0771263,0.0121151,-1.73665,0.0313007,0.16143,-0.0845762,-5.22266e-05,-0.00170145,-0.000296026,0.00103462,0.00410869,-0.00291919,0.00116829,0,0,0,0,0,0,0,-0.0718349,-32.8481,0.0128308,27.4747,0.709225,3.47069,0.0101778,
0.00967548,-0.0804801,0.0170907,-1.75775,0.0636754,0.128313,-0.0845921,0.141853,-0.0339888,0.147262,-0.48277,0.908376,-0.954079,-9.47248e-05,0.383166,-0.975932,0.375967,-7.46953,0.230972,1.15946,-0.113811,24.3032,7.88575,25.1091,-60.2869,10.8561,-14.454,0.000414412,0.00490419,-0.0771263,0.0121151,-1.73665,0.0313007,0.16143,-0.0845762,-5.22266e-05,-0.00170145,-0.000296026,0.00103462,0.00410869,-0.00291919,0.00116829,0,0,0,0,0,0,0,-0.0718349,-32.8481,0.0128308,27.4747,0.709225,3.47069,0.0101778,
0.0108986,-0.0807074,0.0183589,-1.76214,0.0712991,0.121185,-0.0845953,0.14406,-0.0328736,0.149514,-0.495869,0.917293,-0.941455,-0.000155757,1.37933,0.697029,1.40775,-8.1868,5.57341,7.89008,-0.0381449,22.8649,5.92821,23.6411,-59.6481,10.8562,-14.4539,-0.0134191,0.00490057,-0.077123,0.0121107,-1.73665,0.0312946,0.16143,-0.0845777,-0.00149395,-0.000745145,-0.000823453,0.000346576,0.00235286,-0.00357755,0.00159952,-0.180215,0.119539,-0.0659283,-0.0860056,-0.21948,-0.0822944,0.0539034,-0.0202602,-32.8996,0.0644055,27.5024,0.764157,3.47069,0.0239107,
0.012169,-0.0808475,0.019677,-1.76661,0.0791761,0.114718,-0.0845938,0.147009,-0.0298002,0.152563,-0.508417,0.93076,-0.914843,-8.6583e-05,1.84299,1.92084,1.90549,-7.84305,8.41682,16.6327,0.0432335,21.6892,4.33296,22.4368,-58.9629,10.8562,-14.4539,-0.0213365,0.00490057,-0.077123,0.0121107,-1.73665,0.0312946,0.16143,-0.0845777,-0.00149395,-0.000745145,-0.000823453,0.000346576,0.00235286,-0.00357755,0.00159952,0,0,0,0,0,0,0,-0.0202602,-32.8996,0.0644055,27.5024,0.764157,3.47069,0.0239107,
0.00932475,-0.0810389,0.0167406,-1.75919,0.0639801,0.131054,-0.0846402,0.144986,-0.0333093,0.150487,-0.519132,0.92705,-0.895226,-0.000264165,-1.26437,-2.19315,-1.29777,-6.69676,-2.3188,12.2603,-0.110988,24.4583,8.49099,25.2888,-63.9114,10.8562,-14.4539,-0.00264721,0.00490057,-0.077123,0.0121107,-1.73665,0.0312946,0.16143,-0.0845777,-0.00149395,-0.000745145,-0.000823453,0.000346576,0.00235286,-0.00357755,0.00159952,0,0,0,0,0,0,0,-0.0202602,-32.8996,0.0644055,27.5024,0.764157,3.47069,0.0239107,
0.0104905,-0.0813029,0.0179514,-1.76379,0.0716099,0.125014,-0.0846444,0.145132,-0.0332477,0.150659,-0.530416,0.932384,-0.867189,-0.000318136,0.0914618,0.0384473,0.108019,-7.05231,3.33398,17.5236,-0.0337324,22.988,6.39225,23.7848,-63.2258,10.8562,-14.4539,-0.0169818,0.00490057,-0.077123,0.0121107,-1.73665,0.0312946,0.16143,-0.0845777,-0.00149395,-0.000745145,-0.000823453,0.000346576,0.00235286,-0.00357755,0.00159952,0,0,0,0,0,0,0,-0.0202602,-32.8996,0.0644055,27.5024,0.764157,3.47069,0.0239107,
0.0117063,-0.0814662,0.0192142,-1.76845,0.0794838,0.119617,-0.084642,0.146502,-0.0306792,0.152098,-0.540836,0.942757,-0.828671,-0.000192207,0.856011,1.60535,0.899257,-6.51267,6.48289,24.0735,0.0787059,21.7943,4.68726,22.5548,-62.489,10.8562,-14.4539,-0.0227672,0.00490057,-0.0771227,0.0121091,-1.73665,0.0312932,0.161431,-0.0845837,-0.00102106,-0.00137058,-0.00191888,-0.000408034,0.0022612,-0.00401107,-0.0016786,0.0591106,-0.0781796,-0.136929,-0.0943264,-0.0114576,-0.0541903,-0.409765,-0.0202602,-32.8996,0.0882092,27.5262,0.776974,3.46429,0.0779268,
0.0129544,-0.0815452,0.0205104,-1.77313,0.0875387,0.114935,-0.0846368,0.148403,-0.0265202,0.154083,-0.549582,0.955578,-0.779984,-2.54592e-05,1.18843,2.59935,1.24068,-5.46598,8.01305,30.4293,0.104217,20.7789,3.34168,21.5046,-61.7002,10.8562,-12.7568,-0.0214346,0.00490057,-0.0771227,0.0121091,-1.73665,0.0312932,0.161431,-0.0845837,-0.00102106,-0.00137058,-0.00191888,-0.000408034,0.0022612,-0.00401107,-0.0016786,0,0,0,0,0,0,0,-0.0202602,-32.8996,0.0882092,27.5262,0.776974,3.46429,0.0779268,
0.0084531,-0.0804051,0.015815,-1.75538,0.0565354,0.13697,-0.0845708,0.144867,-0.032255,0.150366,-0.551232,0.93546,-0.808744,-0.000267823,-2.21011,-3.58425,-2.32327,-1.03163,-12.5737,-17.9746,-0.151478,26.0202,11.1821,26.8496,-66.8885,10.8562,-14.4539,0.0400654,0.00490057,-0.0771227,0.0121091,-1.73665,0.0312932,0.161431,-0.0845837,-0.00102106,-0.00137058,-0.00191888,-0.000408034,0.0022612,-0.00401107,-0.0016786,0,0,0,0,0,0,0,-0.0202602,-32.8996,0.0882092,27.5262,0.776974,3.46429,0.0779268,
0.00959116,-0.080736,0.0169953,-1.76005,0.0638386,0.129654,-0.0845816,0.144345,-0.0340763,0.1498,-0.557633,0.930946,-0.829884,-0.000486066,-0.326094,-1.1383,-0.353531,-4.00022,-2.82116,-13.2126,-0.136402,24.1114,8.63484,24.9027,-66.1765,10.8562,-14.4539,0.00690462,0.00490057,-0.0771227,0.0121091,-1.73665,0.0312932,0.161431,-0.0845837,-0.00102106,-0.00137058,-0.00191888,-0.000408034,0.0022612,-0.00401107,-0.0016786,0,0,0,0,0,0,0,-0.0202602,-32.8996,0.0882092,27.5262,0.776974,3.46429,0.0779268,
0.0107971,-0.0809606,0.0182464,-1.76485,0.0714807,0.122754,-0.0845904,0.145624,-0.0328753,0.151117,-0.566013,0.935811,-0.836414,-0.000608097,0.799076,0.750606,0.822623,-5.23748,3.04076,-4.08166,-0.0762694,22.6394,6.49755,23.3945,-65.4348,10.8562,-14.454,-0.0117705,0.00490586,-0.0771227,0.0121148,-1.73665,0.0312898,0.161433,-0.084577,0.0044888,-0.000613389,-0.00101738,0.000820254,0.000949423,-0.00396303,0.00058339,0.688733,0.0946491,0.112688,0.153536,-0.163972,0.00600462,0.282749,-0.0956386,-32.8996,0.0366345,27.4747,0.807186,3.45055,0.017502,
0.0120509,-0.0810898,0.0195474,-1.76971,0.07937,0.116468,-0.0845957,0.147845,-0.0295315,0.153419,-0.574505,0.945881,-0.826264,-0.000618047,1.38801,2.08986,1.43876,-5.30748,6.29381,6.34427,-0.00621892,21.4731,4.77229,22.198,-64.6397,10.8562,-14.454,-0.0174734,0.00490586,-0.0771227,0.0121148,-1.73665,0.0312898,0.161433,-0.084577,0.0044888,-0.000613389,-0.00101738,0.000820254,0.000949423,-0.00396303,0.00058339,0,0,0,0,0,0,0,-0.0956386,-32.8996,0.0366345,27.4747,0.807186,3.45055,0.017502,
0.00852746,-0.0807639,0.0158975,-1.75643,0.0566413,0.137847,-0.0846166,0.144772,-0.0364084,0.150215,-0.577181,0.928059,-0.838038,-0.000932355,-1.92058,-4.29806,-2.00222,-1.67255,-11.1391,-7.35875,-0.196442,26.0384,10.7151,26.8889,-69.9501,10.8562,-14.454,0.0253427,0.00490586,-0.0771227,0.0121148,-1.73665,0.0312898,0.161433,-0.084577,0.0044888,-0.000613389,-0.00101738,0.000820254,0.000949423,-0.00396303,0.00058339,0,0,0,0,0,0,0,-0.0956386,-32.8996,0.0366345,27.4747,0.807186,3.45055,0.017502,
0.00968075,-0.0811602,0.0170933,-1.76133,0.0639547,0.130924,-0.0846348,0.14465,-0.0390329,0.150068,-0.584379,0.92528,-0.843503,-0.00120238,-0.0764448,-1.6403,-0.0920524,-4.49882,-1.73649,-3.41575,-0.168766,24.187,8.04553,24.9967,-69.188,10.8562,-14.454,-0.00654781,0.00490586,-0.0771227,0.0121148,-1.73665,0.0312898,0.161433,-0.084577,0.0044888,-0.000613389,-0.00101738,0.000820254,0.000949423,-0.00396303,0.00058339,0,0,0,0,0,0,0,-0.0956386,-32.8996,0.0366345,27.4747,0.807186,3.45055,0.017502,
0.0109017,-0.081447,0.0183602,-1.76637,0.0716049,0.124485,-0.0846509,0.146243,-0.0383969,0.151726,-0.593298,0.93148,-0.835775,-0.00136434,0.996051,0.397508,1.03646,-5.57416,3.8749,4.82971,-0.101226,22.7435,5.82815,23.516,-68.3814,10.8562,-14.454,-0.0238415,0.00490586,-0.0771227,0.0121148,-1.73665,0.0312898,0.161433,-0.084577,0.0044888,-0.000613389,-0.00101738,0.000820254,0.000949423,-0.00396303,0.00058339,0,0,0,0,0,0,0,-0.0956386,-32.8996,0.0366345,27.4747,0.807186,3.45055,0.017502,
0.01217,-0.0816364,0.0196768,-1.77146,0.0795012,0.118717,-0.0846639,0.148701,-0.0354516,0.154295,-0.602076,0.942593,-0.81281,-0.00141511,1.53621,1.84084,1.60523,-5.48636,6.94532,14.3532,-0.0317322,21.5929,4.04119,22.3341,-67.517,10.8562,-13.9802,-0.0319953,0.00490419,-0.0771254,0.0121127,-1.73665,0.0312871,0.161435,-0.0845806,-0.00184185,-0.000881805,-0.000670485,0.000970641,-0.00910265,-0.00334435,0.000410028,-0.791332,-0.0335519,0.0433621,0.0187984,-1.25651,0.0773354,-0.0216702,-0.0718349,-32.8719,0.0366345,27.4747,0.831906,3.424,0.050461,
0.00929971,-0.0815637,0.0167003,-1.76216,0.0640473,0.133832,-0.0847186,0.146279,-0.038763,0.151753,-0.607311,0.936869,-0.797452,-0.00170792,-1.51386,-2.06964,-1.58824,-3.27224,-3.577,9.59916,-0.183007,24.4669,8.92128,25.2801,-71.5565,10.8562,-14.454,-0.0112631,0.00490419,-0.0771254,0.0121127,-1.73665,0.0312871,0.161435,-0.0845806,-0.00184185,-0.000881805,-0.000670485,0.000970641,-0.00910265,-0.00334435,0.000410028,0,0,0,0,0,0,0,-0.0718349,-32.8719,0.0366345,27.4747,0.831906,3.424,0.050461,
0.0104636,-0.0818516,0.0179071,-1.76728,0.0716878,0.128445,-0.0847395,0.146121,-0.0382074,0.151573,-0.613861,0.940507,-0.77263,-0.00188998,-0.0986718,0.347252,-0.11288,-4.09372,2.27351,15.5135,-0.113783,22.9467,6.64512,23.7164,-70.6919,10.8562,-14.454,-0.0294636,0.00490419,-0.0771254,0.0121127,-1.73665,0.0312871,0.161435,-0.0845806,-0.00184185,-0.000881805,-0.000670485,0.000970641,-0.00910265,-0.00334435,0.000410028,0,0,0,0,0,0,0,-0.0718349,-32.8719,0.0366345,27.4747,0.831906,3.424,0.050461,
0.0116782,-0.0820291,0.0191666,-1.77244,0.0795693,0.123694,-0.0847539,0.147261,-0.0350049,0.152745,-0.620119,0.949444,-0.736882,-0.0018705,0.712443,2.00152,0.732578,-3.91137,5.5853,22.3421,0.0121716,21.7324,4.81516,22.466,-69.7651,10.8562,-14.1186,-0.0388951,0.00490419,-0.0771254,0.0121127,-1.73665,0.0312871,0.161435,-0.0845806,-0.00184185,-0.000881805,-0.000670485,0.000970641,-0.00910265,-0.00334435,0.000410028,0,0,0,0,0,0,0,-0.0718349,-32.8719,0.0366345,27.4747,0.831906,3.424,0.050461,
0.0129256,-0.0821156,0.02046,-1.77761,0.0876289,0.119641,-0.0847659,0.148993,-0.0301658,0.154533,-0.625145,0.961044,-0.690842,-0.0017958,1.08271,3.02447,1.11732,-3.14124,7.25025,28.7756,0.0466898,20.7195,3.38131,21.419,-68.7725,10.8562,-11.753,-0.0378965,0.00490657,-0.077122,0.0121161,-1.73665,0.0312857,0.161437,-0.0845792,-2.54097e-05,-0.000243388,4.56348e-05,0.000724799,-0.000551032,-0.00313728,0.000432959,0.227055,0.0798021,0.089515,-0.0307302,1.06895,0.0258832,0.00286639,-0.0956386,-32.9234,-0.0109729,27.5262,0.843807,3.41118,0.0376436,
0.00846104,-0.080876,0.0158314,-1.75751,0.0567091,0.138562,-0.08463,0.145311,-0.036901,0.150725,-0.623497,0.940577,-0.726447,-0.00208043,-2.30163,-4.20949,-2.37989,1.03041,-12.792,-22.2534,-0.177892,26.0142,11.3789,26.8654,-73.5647,10.8562,-14.454,0.0315722,0.00490657,-0.077122,0.0121161,-1.73665,0.0312857,0.161437,-0.0845792,-2.54097e-05,-0.000243388,4.56348e-05,0.000724799,-0.000551032,-0.00313728,0.000432959,0,0,0,0,0,0,0,-0.0956386,-32.9234,-0.0109729,27.5262,0.843807,3.41118,0.0376436,
0.00959805,-0.0812623,0.0170117,-1.76264,0.0640347,0.131716,-0.0846568,0.144674,-0.0391771,0.150087,-0.626983,0.935599,-0.752306,-0.00233335,-0.398092,-1.42256,-0.398676,-2.17917,-3.11079,-16.162,-0.158078,24.0407,8.62263,24.8512,-72.6802,10.8562,-14.454,-0.00609056,0.00490657,-0.077122,0.0121161,-1.73665,0.0312857,0.161437,-0.0845792,-2.54097e-05,-0.000243388,4.56348e-05,0.000724799,-0.000551032,-0.00313728,0.000432959,0,0,0,0,0,0,0,-0.0956386,-32.9234,-0.0109729,27.5262,0.843807,3.41118,0.0376436,
0.0108028,-0.0815326,0.0182627,-1.76789,0.0716931,0.125292,-0.0846823,0.145857,-0.0381003,0.151345,-0.632682,0.939941,-0.762448,-0.00250482,0.739734,0.672984,0.786576,-3.56151,2.71354,-6.33892,-0.10717,22.5413,6.3196,23.3135,-71.7618,10.8562,-14.454,-0.0289967,0.00490657,-0.077122,0.0121161,-1.73665,0.0312857,0.161437,-0.0845792,-2.54097e-05,-0.000243388,4.56348e-05,0.000724799,-0.000551032,-0.00313728,0.000432959,0,0,0,0,0,0,0,-0.0956386,-32.9234,-0.0109729,27.5262,0.843807,3.41118,0.0376436,
0.0120554,-0.0817012,0.0195638,-1.77319,0.0795936,0.119475,-0.0847042,0.148001,-0.0346956,0.153602,-0.638646,0.949464,-0.755378,-0.00255012,1.33949,2.12791,1.41035,-3.72765,5.95196,4.41889,-0.0283069,21.374,4.47045,22.115,-70.7759,10.8562,-13.7639,-0.03617,0.00490416,-0.0771194,0.0121143,-1.73665,0.0312837,0.161439,-0.0845799,-0.00168035,0.000336195,5.27842e-05,0.00119134,-0.00148761,-0.00284186,0.00132849,-0.206867,0.0724478,0.000893673,0.058318,-0.117072,0.0369276,0.111941,-0.0718349,-32.9472,0.0128308,27.5024,0.862118,3.39104,0.0440523,
0.00848607,-0.081029,0.0158459,-1.75814,0.0566734,0.139213,-0.0846878,0.14481,-0.0411528,0.150218,-0.637922,0.931105,-0.771725,-0.00288153,-1.9938,-4.03572,-2.115,0.452475,-11.4747,-10.2166,-0.207133,26.1632,11.3398,26.9958,-75.4643,10.8562,-14.454,0.0127599,0.00490416,-0.0771194,0.0121143,-1.73665,0.0312837,0.161439,-0.0845799,-0.00168035,0.000336195,5.27842e-05,0.00119134,-0.00148761,-0.00284186,0.00132849,0,0,0,0,0,0,0,-0.0718349,-32.9472,0.0128308,27.5024,0.862118,3.39104,0.0440523,
0.00963686,-0.081436,0.017037,-1.76341,0.0639917,0.132695,-0.0847221,0.144618,-0.0430967,0.149952,-0.642099,0.92784,-0.780345,-0.00316481,-0.120077,-1.21492,-0.166045,-2.61073,-2.04054,-5.38771,-0.177049,24.2407,8.49565,25.0306,-74.5253,10.8562,-14.454,-0.0220623,0.00490416,-0.0771194,0.0121143,-1.73665,0.0312837,0.161439,-0.0845799,-0.00168035,0.000336195,5.27842e-05,0.00119134,-0.00148761,-0.00284186,0.00132849,0,0,0,0,0,0,0,-0.0718349,-32.9472,0.0128308,27.5024,0.862118,3.39104,0.0440523,
0.0108559,-0.0817239,0.0182998,-1.7688,0.0716449,0.126661,-0.0847546,0.14617,-0.0416749,0.151533,-0.648246,0.933601,-0.775122,-0.00334332,0.969677,0.888575,0.987787,-3.84165,3.60096,3.26454,-0.111572,22.7524,6.14322,23.5024,-73.5343,10.8562,-14.454,-0.0423427,0.00490416,-0.0771194,0.0121143,-1.73665,0.0312837,0.161439,-0.0845799,-0.00168035,0.000336195,5.27842e-05,0.00119134,-0.00148761,-0.00284186,0.00132849,0,0,0,0,0,0,0,-0.0718349,-32.9472,0.0128308,27.5024,0.862118,3.39104,0.0440523,
0.0121226,-0.0819076,0.0196128,-1.77423,0.0795423,0.121288,-0.0847832,0.148604,-0.0379342,0.154051,-0.654426,0.944316,-0.754424,-0.00339099,1.52159,2.33795,1.5741,-3.86246,6.69689,12.9363,-0.0297914,21.5791,4.25631,22.2963,-72.4738,10.8562,-13.3189,-0.0514043,0.00490753,-0.077121,0.012116,-1.73665,0.031281,0.16144,-0.0845777,0.000599028,0.000189523,0.000385959,0.000483977,-0.00986384,-0.00136067,0.00105314,0.284922,-0.018334,0.0416468,-0.0884207,-1.04703,0.185149,-0.0344186,-0.119442,-32.9234,-0.0109729,27.5024,0.886837,3.38463,0.0239107,
0.00852073,-0.0811055,0.0158941,-1.75862,0.0566078,0.139338,-0.0847101,0.145404,-0.0439398,0.150755,-0.652955,0.927015,-0.772406,-0.00367756,-2.00029,-3.75346,-2.06016,0.919217,-10.8133,-11.2388,-0.179106,26.3385,11.5787,27.2118,-77.116,10.8562,-14.454,0.00755319,0.00490753,-0.077121,0.012116,-1.73665,0.031281,0.16144,-0.0845777,0.000599028,0.000189523,0.000385959,0.000483977,-0.00986384,-0.00136067,0.00105314,0,0,0,0,0,0,0,-0.119442,-32.9234,-0.0109729,27.5024,0.886837,3.38463,0.0239107,
0.00967474,-0.0815183,0.0170911,-1.76399,0.0639298,0.132736,-0.0847494,0.145173,-0.0454707,0.150531,-0.656519,0.924663,-0.782991,-0.00392607,-0.144033,-0.956832,-0.13995,-2.22716,-1.47002,-6.61573,-0.155321,24.3648,8.65595,25.1981,-76.1209,10.8562,-14.454,-0.0282523,0.00490753,-0.077121,0.012116,-1.73665,0.031281,0.16144,-0.0845777,0.000599028,0.000189523,0.000385959,0.000483977,-0.00986384,-0.00136067,0.00105314,0,0,0,0,0,0,0,-0.119442,-32.9234,-0.0109729,27.5024,0.886837,3.38463,0.0239107,
0.0108962,-0.0818096,0.0183589,-1.76947,0.0715878,0.126599,-0.0847864,0.146674,-0.0436603,0.15212,-0.662116,0.931179,-0.779822,-0.0040651,0.93789,1.13151,0.99286,-3.49844,4.07222,1.98042,-0.0868947,22.8375,6.24552,23.6258,-75.0696,10.8562,-14.454,-0.048155,0.00490753,-0.077121,0.012116,-1.73665,0.031281,0.16144,-0.0845777,0.000599028,0.000189523,0.000385959,0.000483977,-0.00986384,-0.00136067,0.00105314,0,0,0,0,0,0,0,-0.119442,-32.9234,-0.0109729,27.5024,0.886837,3.38463,0.0239107,
0.0121648,-0.0819947,0.0196763,-1.77499,0.0794896,0.121107,-0.0848199,0.149055,-0.0395539,0.154629,-0.667768,0.942489,-0.761145,-0.00409094,1.48811,2.56646,1.56811,-3.53268,7.06912,11.6735,-0.0161462,21.6325,4.31965,22.3841,-73.9424,10.8562,-13.5321,-0.057348,0.00490586,-0.0771194,0.0121144,-1.73665,0.0312823,0.16144,-0.084584,0.000610776,0.000502047,0.00010096,0.0008088,-0.00279971,-0.00240729,2.26167e-05,0.00146848,0.0390655,-0.0356248,0.0406029,0.883017,-0.130828,-0.128815,-0.0956386,-32.9472,0.0128308,27.5262,0.874935,3.35808,0.0706026,
0.00852526,-0.0812347,0.0158847,-1.75905,0.0567317,0.139836,-0.0847484,0.145812,-0.0457599,0.1512,-0.666035,0.925817,-0.772411,-0.00435869,-2.02691,-3.87872,-2.14293,1.08312,-10.4201,-7.04172,-0.167344,26.3314,11.4007,27.1704,-78.4235,10.8562,-14.454,-0.00129801,0.00490586,-0.0771194,0.0121144,-1.73665,0.0312823,0.16144,-0.084584,0.000610776,0.000502047,0.00010096,0.0008088,-0.00279971,-0.00240729,2.26167e-05,0,0,0,0,0,0,0,-0.0956386,-32.9472,0.0128308,27.5262,0.874935,3.35808,0.0706026,
0.00968213,-0.0816643,0.0170817,-1.76451,0.0640593,0.13349,-0.0847903,0.145571,-0.0473485,0.150883,-0.669213,0.923844,-0.77658,-0.00453465,-0.150511,-0.992863,-0.198072,-1.98575,-1.23289,-2.60569,-0.109977,24.349,8.45528,25.1471,-77.3518,10.8562,-14.454,-0.0368564,0.00490586,-0.0771194,0.0121144,-1.73665,0.0312823,0.16144,-0.084584,0.000610776,0.000502047,0.00010096,0.0008088,-0.00279971,-0.00240729,2.26167e-05,0,0,0,0,0,0,0,-0.0956386,-32.9472,0.0128308,27.5262,0.874935,3.35808,0.0706026,
0.0109067,-0.0819703,0.0183495,-1.77007,0.07172,0.127637,-0.0848291,0.14707,-0.0455296,0.152403,-0.674321,0.930594,-0.767585,-0.00459877,0.937043,1.13678,0.949754,-3.19273,4.21859,5.62196,-0.0400769,22.8162,6.02701,23.5708,-76.2227,10.8562,-14.454,-0.0561189,0.00490586,-0.0771194,0.0121144,-1.73665,0.0312823,0.16144,-0.084584,0.000610776,0.000502047,0.00010096,0.0008088,-0.00279971,-0.00240729,2.26167e-05,0,0,0,0,0,0,0,-0.0956386,-32.9472,0.0128308,27.5262,0.874935,3.35808,0.0706026,
0.0121782,-0.0821689,0.019667,-1.77567,0.0796232,0.122448,-0.0848643,0.149445,-0.0413878,0.154859,-0.679398,0.942054,-0.743805,-0.00455859,1.48389,2.58864,1.53486,-3.17284,7.16241,14.8627,0.0251163,21.6124,4.08493,22.3317,-75.0171,10.8562,-13.0805,-0.0660155,0.00490419,-0.0771225,0.0121127,-1.73665,0.0312823,0.161446,-0.0845784,2.19706e-05,0.00104398,0.000207546,1.02446e-05,-0.00344028,-0.00193304,0.000372486,-0.0736006,0.0677419,0.0133232,-0.0998194,-0.0800703,0.0592813,0.0437337,-0.0718349,-32.9472,0.0366345,27.5262,0.874935,3.33153,0.0303194,
0.00931249,-0.0820987,0.0167202,-1.76468,0.064327,0.136461,-0.0848213,0.146951,-0.0448954,0.152283,-0.679303,0.936878,-0.728323,-0.00447742,-1.55865,-2.19227,-1.60967,0.0591611,-3.23502,9.67626,0.0507323,24.4095,8.7565,25.2456,-78.2073,10.8562,-14.454,-0.0360051,0.00490419,-0.0771225,0.0121127,-1.73665,0.0312823,0.161446,-0.0845784,2.19706e-05,0.00104398,0.000207546,1.02446e-05,-0.00344028,-0.00193304,0.000372486,0,0,0,0,0,0,0,-0.0718349,-32.9472,0.0366345,27.5262,0.874935,3.33153,0.0303194,
0.0104788,-0.0824338,0.0179301,-1.77017,0.0719785,0.131621,-0.0848502,0.14672,-0.0442934,0.152075,-0.680928,0.94079,-0.70367,-0.00430498,-0.144444,0.376269,-0.129891,-1.01551,2.44494,15.4078,0.107774,22.8482,6.28776,23.6393,-77.0139,10.8562,-14.454,-0.0549906,0.00490419,-0.0771225,0.0121127,-1.73665,0.0312823,0.161446,-0.0845784,2.19706e-05,0.00104398,0.000207546,1.02446e-05,-0.00344028,-0.00193304,0.000372486,0,0,0,0,0,0,0,-0.0718349,-32.9472,0.0366345,27.5262,0.874935,3.33153,0.0303194,
0.0116952,-0.0826527,0.0191925,-1.77569,0.079866,0.127394,-0.0848716,0.147784,-0.0409064,0.153219,-0.682546,0.949819,-0.668605,-0.00397789,0.665138,2.11689,0.714912,-1.01156,5.643,21.9157,0.204432,21.6233,4.3197,22.3756,-75.7383,10.8562,-13.2226,-0.0648963,0.00490419,-0.0771225,0.0121127,-1.73665,0.0312823,0.161446,-0.0845784,2.19706e-05,0.00104398,0.000207546,1.02446e-05,-0.00344028,-0.00193304,0.000372486,0,0,0,0,0,0,0,-0.0718349,-32.9472,0.0366345,27.5262,0.874935,3.33153,0.0303194,
0.0189013,-0.0774231,0.0265562,-1.78857,0.0945025,0.0956791,-0.0841548,0.158154,-0.0259337,0.16399,-0.694059,0.970123,-0.741644,-0.00399834,6.48156,9.35791,6.73164,-7.19541,12.6902,-45.6494,-0.0127809,20.6443,2.79626,21.3614,-74.3807,10.8562,-10.8981,-0.0622751,0.00490948,-0.0771175,0.012116,-1.73666,0.0312802,0.161444,-0.0845837,0.00306714,0.00128271,-0.00602612,-0.000675674,-0.00489376,-0.00296031,-0.000413381,0.380647,0.0298407,-0.779208,-0.0857398,-0.181685,-0.128409,-0.0982334,-0.147213,-32.975,-0.0109729,27.5739,0.893246,3.35168,0.0779268,
0.00845129,-0.0810703,0.0158105,-1.75894,0.0567,0.139596,-0.0846608,0.152651,-0.0337698,0.15826,-0.685772,0.947867,-0.760381,-0.00388057,-3.43946,-4.89754,-3.58098,5.17949,-13.9102,-11.7106,0.0736065,26.2285,11.8333,27.0756,-78.4732,10.8562,-14.4539,0.0228211,0.00490948,-0.0771175,0.012116,-1.73666,0.0312802,0.161444,-0.0845837,0.00306714,0.00128271,-0.00602612,-0.000675674,-0.00489376,-0.00296031,-0.000413381,0,0,0,0,0,0,0,-0.147213,-32.975,-0.0109729,27.5739,0.893246,3.35168,0.0779268,
0.00958954,-0.0814541,0.0169898,-1.76433,0.0640246,0.133021,-0.0846863,0.150577,-0.0366111,0.15609,-0.683353,0.941409,-0.7727,-0.00374186,-1.29618,-1.77583,-1.35621,1.51195,-4.03591,-7.69929,0.0866878,24.1607,8.94815,24.9669,-77.2316,10.8562,-14.4539,-0.0140794,0.00490948,-0.0771175,0.012116,-1.73666,0.0312802,0.161444,-0.0845837,0.00306714,0.00128271,-0.00602612,-0.000675674,-0.00489376,-0.00296031,-0.000413381,0,0,0,0,0,0,0,-0.147213,-32.975,-0.0109729,27.5739,0.893246,3.35168,0.0779268,
0.0107954,-0.0817133,0.01824,-1.76981,0.0716805,0.126848,-0.0847082,0.150607,-0.0357674,0.156128,-0.683676,0.944525,-0.772462,-0.00353877,0.0187709,0.527332,0.0237021,-0.202409,1.94714,0.148507,0.126937,22.592,6.53799,23.3522,-75.9554,10.8562,-14.4539,-0.0358657,0.00490948,-0.0771175,0.012116,-1.73666,0.0312802,0.161444,-0.0845837,0.00306714,0.00128271,-0.00602612,-0.000675674,-0.00489376,-0.00296031,-0.000413381,0,0,0,0,0,0,0,-0.147213,-32.975,-0.0109729,27.5739,0.893246,3.35168,0.0779268,
0.00844527,-0.0813497,0.0158072,-1.75922,0.0566929,0.140015,-0.0846763,0.146714,-0.0433742,0.152085,-0.679054,0.927112,-0.779284,-0.00352187,-2.43316,-4.75425,-2.52689,2.88892,-10.8827,-4.2635,0.0105595,26.0543,10.9203,26.9045,-78.9952,10.8562,-14.4539,0.0136069,0.00490948,-0.0771175,0.012116,-1.73666,0.0312802,0.161444,-0.0845837,0.00306714,0.00128271,-0.00602612,-0.000675674,-0.00489376,-0.00296031,-0.000413381,0,0,0,0,0,0,0,-0.147213,-32.975,-0.0109729,27.5739,0.893246,3.35168,0.0779268,
0.00959118,-0.0818038,0.0169945,-1.76466,0.0640026,0.133741,-0.0846986,0.146019,-0.0460513,0.151351,-0.679407,0.924434,-0.780296,-0.003373,-0.434335,-1.67323,-0.458898,-0.220505,-1.67396,-0.632227,0.0930457,24.1163,7.90968,24.9272,-77.7347,10.8562,-14.454,-0.0197961,0.00490753,-0.0771194,0.0121144,-1.73665,0.0312789,0.16145,-0.0845837,0.00161369,0.000625912,-0.00384444,0.000682994,-0.00625684,0.00611897,-0.000583518,-0.181682,-0.0820995,0.27271,0.169833,-0.170385,1.13491,-0.0212672,-0.119442,-32.9472,0.0128308,27.5024,0.905148,3.29125,0.0779268,
0.0108068,-0.0821342,0.0182551,-1.77019,0.0716435,0.127921,-0.0847161,0.147205,-0.0451019,0.152597,-0.681767,0.930569,-0.769721,-0.00313735,0.741009,0.593402,0.7787,-1.47499,3.83455,6.60921,0.147279,22.6307,5.44062,23.3988,-76.4157,10.8562,-14.454,-0.037803,0.00490753,-0.0771194,0.0121144,-1.73665,0.0312789,0.16145,-0.0845837,0.00161369,0.000625912,-0.00384444,0.000682994,-0.00625684,0.00611897,-0.000583518,0,0,0,0,0,0,0,-0.119442,-32.9472,0.0128308,27.5024,0.905148,3.29125,0.0779268,
0.0120707,-0.0823577,0.0195667,-1.77574,0.0795272,0.122717,-0.0847244,0.149364,-0.0416688,0.154866,-0.684211,0.941548,-0.745878,-0.00271632,1.34911,2.14569,1.41798,-1.52734,6.86195,14.9015,0.263143,21.4732,3.48195,22.2068,-75.0196,10.8562,-12.7459,-0.0450767,0.00490753,-0.0771194,0.0121144,-1.73665,0.0312789,0.16145,-0.0845837,0.00161369,0.000625912,-0.00384444,0.000682994,-0.00625684,0.00611897,-0.000583518,0,0,0,0,0,0,0,-0.119442,-32.9472,0.0128308,27.5024,0.905148,3.29125,0.0779268,
0.00822944,-0.0814871,0.0155892,-1.75883,0.0568776,0.141765,-0.0846687,0.144424,-0.0481668,0.149737,-0.676956,0.925407,-0.737603,-0.00300825,-3.08738,-4.06128,-3.20527,4.53396,-10.0883,5.17238,-0.182455,24.7115,8.96715,25.5277,-77.3386,10.8562,-14.454,0.00177489,0.00490753,-0.0771194,0.0121144,-1.73665,0.0312789,0.16145,-0.0845837,0.00161369,0.000625912,-0.00384444,0.000682994,-0.00625684,0.00611897,-0.000583518,0,0,0,0,0,0,0,-0.119442,-32.9472,0.0128308,27.5024,0.905148,3.29125,0.0779268,
0.00932732,-0.0819253,0.0167267,-1.76415,0.0641961,0.136418,-0.0846557,0.142986,-0.049488,0.148225,-0.674531,0.923287,-0.72375,-0.0020816,-0.898697,-0.825709,-0.944769,1.51559,-1.32512,8.65758,0.579156,23.0746,6.55424,23.8557,-75.953,10.8562,-14.454,-0.017254,0.00490418,-0.0771239,0.0121152,-1.73665,0.0312796,0.161449,-0.0845822,0.00148605,0.000950195,0.00114968,-0.000404501,-0.00570589,-0.000992407,-0.000239206,-0.0159547,0.0405354,0.624264,-0.135937,0.0688689,-0.888922,0.0430391,-0.0718349,-32.9234,-0.0109729,27.5262,0.898739,3.29857,0.0641939,
0.0104893,-0.0822293,0.0179303,-1.76953,0.0718519,0.131564,-0.0846672,0.143439,-0.0471914,0.148671,-0.674178,0.930026,-0.700349,-0.00195349,0.283342,1.43533,0.278603,0.221014,4.21197,14.6259,0.080066,21.7434,4.59871,22.4871,-74.5284,10.8562,-13.1043,-0.0274554,0.00490418,-0.0771239,0.0121152,-1.73665,0.0312796,0.161449,-0.0845822,0.00148605,0.000950195,0.00114968,-0.000404501,-0.00570589,-0.000992407,-0.000239206,0,0,0,0,0,0,0,-0.0718349,-32.9234,-0.0109729,27.5262,0.898739,3.29857,0.0641939,
0.0116971,-0.082418,0.0191813,-1.77493,0.0797506,0.127411,-0.0846801,0.144944,-0.0424695,0.150212,-0.674282,0.941487,-0.664115,-0.00188463,0.94068,2.95124,0.963157,-0.0650609,7.16333,22.6461,0.0430412,20.6668,3.07868,21.3772,-73.0458,10.8562,-10.8989,-0.0245365,0.00490418,-0.0771239,0.0121152,-1.73665,0.0312796,0.161449,-0.0845822,0.00148605,0.000950195,0.00114968,-0.000404501,-0.00570589,-0.000992407,-0.000239206,0,0,0,0,0,0,0,-0.0718349,-32.9234,-0.0109729,27.5262,0.898739,3.29857,0.0641939,
0.00846399,-0.0810143,0.0158382,-1.75847,0.0567565,0.139303,-0.0845855,0.141941,-0.0468671,0.147147,-0.667043,0.925321,-0.701006,-0.00208837,-1.877,-2.7485,-1.9161,4.524,-10.1039,-23.0567,-0.127335,26.0122,11.7076,26.8607,-77.234,10.8562,-14.454,0.0239526,0.00490418,-0.0771239,0.0121152,-1.73665,0.0312796,0.161449,-0.0845822,0.00148605,0.000950195,0.00114968,-0.000404501,-0.00570589,-0.000992407,-0.000239206,0,0,0,0,0,0,0,-0.0718349,-32.9234,-0.0109729,27.5262,0.898739,3.29857,0.0641939,
0.00959695,-0.0813982,0.0170136,-1.76374,0.0640882,0.132578,-0.0846139,0.141877,-0.0470919,0.147103,-0.665346,0.923551,-0.728922,-0.00238042,-0.0402602,-0.140506,-0.0275067,1.06086,-1.10666,-17.4475,-0.182532,24.2824,8.84602,25.1105,-75.8699,10.8562,-14.454,0.0424313,0.00490586,-0.0771196,0.0121127,-1.73666,0.0312817,0.161454,-0.0845799,0.0014334,0.000576344,0.000179308,-0.00196341,-0.00756537,0.000953165,-0.000507054,-0.00658116,-0.0467314,-0.121296,-0.194863,-0.232436,0.243196,-0.0334811,-0.0956386,-32.9472,0.0366345,27.6016,0.880428,3.25829,0.0440523,
0.0108024,-0.0816596,0.0182638,-1.7691,0.0717389,0.126234,-0.0846125,0.143639,-0.0442078,0.148937,-0.66616,0.930109,-0.741722,-0.00186936,1.10137,1.80251,1.14632,-0.508874,4.09888,-7.99963,0.319413,22.3272,6.34929,23.0953,-74.5457,10.8562,-14.454,-0.01494,0.00490586,-0.0771196,0.0121127,-1.73666,0.0312817,0.161454,-0.0845799,0.0014334,0.000576344,0.000179308,-0.00196341,-0.00756537,0.000953165,-0.000507054,0,0,0,0,0,0,0,-0.0956386,-32.9472,0.0366345,27.6016,0.880428,3.25829,0.0440523,
0.0120545,-0.0818149,0.0195621,-1.77448,0.079632,0.120415,-0.0846132,0.146213,-0.0392512,0.151609,-0.667392,0.941415,-0.73887,-0.00151318,1.60906,3.09792,1.67007,-0.770088,7.06631,1.78212,0.222608,21.1211,4.45027,21.8597,-73.0464,10.8562,-13.3098,-0.0318924,0.00490586,-0.0771196,0.0121127,-1.73666,0.0312817,0.161454,-0.0845799,0.0014334,0.000576344,0.000179308,-0.00196341,-0.00756537,0.000953165,-0.000507054,0,0,0,0,0,0,0,-0.0956386,-32.9472,0.0366345,27.6016,0.880428,3.25829,0.0440523,
0.00847638,-0.0812546,0.0158383,-1.7587,0.0566792,0.139626,-0.0846427,0.143204,-0.0457637,0.148474,-0.66282,0.924818,-0.756119,-0.00204483,-1.88076,-4.07032,-1.95893,2.85803,-10.3731,-10.7804,-0.332283,25.924,10.7663,26.7492,-77.4946,10.8562,-14.454,0.0176147,0.00490586,-0.0771196,0.0121127,-1.73666,0.0312817,0.161454,-0.0845799,0.0014334,0.000576344,0.000179308,-0.00196341,-0.00756537,0.000953165,-0.000507054,0,0,0,0,0,0,0,-0.0956386,-32.9472,0.0366345,27.6016,0.880428,3.25829,0.0440523,
0.00962148,-0.0816946,0.0170245,-1.76401,0.0639952,0.133191,-0.0846726,0.143191,-0.0476117,0.148435,-0.663174,0.922752,-0.765759,-0.00238382,-0.00833271,-1.15499,-0.0244667,-0.221403,-1.29115,-6.02517,-0.211866,24.0847,7.81701,24.8798,-76.2237,10.8562,-14.454,-0.0254719,0.00490153,-0.0771174,0.0121127,-1.73665,0.0312841,0.161455,-0.0845792,-6.12063e-05,0.00145241,0.00042353,-0.000774529,-0.00815358,0.000987907,0.000518913,-0.186826,0.109509,0.0305278,0.14861,-0.0735253,0.00434275,0.128246,-0.0440639,-32.975,0.0366345,27.55,0.868527,3.25188,0.0376436,
0.0108408,-0.0820113,0.0182877,-1.76942,0.0716324,0.127253,-0.0846611,0.145035,-0.0460082,0.150328,-0.665622,0.929134,-0.761064,-0.00161791,1.1525,1.0022,1.18307,-1.53041,3.98867,2.93426,0.478693,22.8018,5.43183,23.573,-74.8598,10.8562,-14.454,-0.00976321,0.00490153,-0.0771174,0.0121127,-1.73665,0.0312841,0.161455,-0.0845792,-6.12063e-05,0.00145241,0.00042353,-0.000774529,-0.00815358,0.000987907,0.000518913,0,0,0,0,0,0,0,-0.0440639,-32.975,0.0366345,27.55,0.868527,3.25188,0.0376436,
0.0121058,-0.0822233,0.0195989,-1.77485,0.0795186,0.121968,-0.0846564,0.147655,-0.0421048,0.153043,-0.668241,0.940461,-0.740985,-0.00117849,1.63735,2.43961,1.69704,-1.63669,7.07919,12.5495,0.274639,21.4643,3.48634,22.1939,-73.4521,10.8562,-12.9542,-0.0251196,0.00490153,-0.0771174,0.0121127,-1.73665,0.0312841,0.161455,-0.0845792,-6.12063e-05,0.00145241,0.00042353,-0.000774529,-0.00815358,0.000987907,0.000518913,0,0,0,0,0,0,0,-0.0440639,-32.975,0.0366345,27.55,0.868527,3.25188,0.0376436,
0.00822939,-0.0813508,0.0155992,-1.75835,0.0568597,0.141316,-0.0846161,0.143006,-0.0480662,0.148249,-0.661553,0.924583,-0.734687,-0.00128066,-2.90529,-3.72589,-2.99628,4.18,-9.92338,3.93607,-0.0638558,24.4876,8.88611,25.3013,-75.8204,10.8562,-14.454,-0.00545732,0.00490153,-0.0771174,0.0121127,-1.73665,0.0312841,0.161455,-0.0845792,-6.12063e-05,0.00145241,0.00042353,-0.000774529,-0.00815358,0.000987907,0.000518913,0,0,0,0,0,0,0,-0.0440639,-32.975,0.0366345,27.55,0.868527,3.25188,0.0376436,
0.00931862,-0.0817772,0.0167286,-1.76356,0.0641897,0.135908,-0.0846385,0.141636,-0.049115,0.146834,-0.659494,0.922917,-0.722965,-0.00158472,-0.856528,-0.655466,-0.884379,1.287,-1.04139,7.32662,-0.190037,22.994,6.54331,23.7823,-74.4042,10.8562,-14.454,-0.0273669,0.00490586,-0.0771222,0.0121136,-1.73665,0.0312878,0.161454,-0.0845784,0.00128243,0.00125439,0.000395403,-0.00149478,-0.00767891,0.00221563,0.000210814,0.167954,-0.024753,-0.00351597,-0.0900311,0.0593338,0.153465,-0.0385123,-0.0956386,-32.9472,0.0128308,27.5739,0.825497,3.23174,0.0303194,
0.0104825,-0.0820703,0.0179351,-1.76883,0.0718321,0.131,-0.0846276,0.142406,-0.046618,0.14763,-0.659367,0.929394,-0.701069,-0.000994122,0.481538,1.56058,0.496951,0.0791572,4.0483,13.6847,0.369122,21.8901,4.62584,22.6532,-72.9394,10.8562,-13.2527,0.00979594,0.00490586,-0.0771222,0.0121136,-1.73665,0.0312878,0.161454,-0.0845784,0.00128243,0.00125439,0.000395403,-0.00149478,-0.00767891,0.00221563,0.000210814,0,0,0,0,0,0,0,-0.0956386,-32.9472,0.0128308,27.5739,0.825497,3.23174,0.0303194,
0.0116949,-0.0822512,0.0191917,-1.7741,0.0797136,0.126673,-0.0846205,0.144234,-0.0418175,0.149519,-0.659366,0.940553,-0.669036,-0.000619215,1.14229,3.00031,1.18121,0.000793317,6.97433,20.0206,0.234317,20.5781,3.05146,21.2943,-71.4864,10.8562,-11.004,-0.008504,0.00490586,-0.0771222,0.0121136,-1.73665,0.0312878,0.161454,-0.0845784,0.00128243,0.00125439,0.000395403,-0.00149478,-0.00767891,0.00221563,0.000210814,0,0,0,0,0,0,0,-0.0956386,-32.9472,0.0128308,27.5739,0.825497,3.23174,0.0303194,
0.00845136,-0.0809263,0.0158179,-1.75801,0.0566805,0.138836,-0.0845537,0.141398,-0.0461093,0.146599,-0.652371,0.924173,-0.709417,-0.000932698,-1.77271,-2.68234,-1.82525,4.37189,-10.2379,-25.2381,-0.195927,25.8758,11.535,26.7068,-75.6914,10.8562,-14.454,0.0489573,0.00490586,-0.0771222,0.0121136,-1.73665,0.0312878,0.161454,-0.0845784,0.00128243,0.00125439,0.000395403,-0.00149478,-0.00767891,0.00221563,0.000210814,0,0,0,0,0,0,0,-0.0956386,-32.9472,0.0128308,27.5739,0.825497,3.23174,0.0303194,
0.00958516,-0.0813022,0.0169935,-1.76317,0.0640012,0.131923,-0.0845746,0.141463,-0.046285,0.146668,-0.650887,0.922354,-0.740376,-0.00127054,0.0409259,-0.109805,0.0430783,0.92767,-1.13682,-19.3494,-0.211148,23.9296,8.64668,24.7291,-74.4605,10.8562,-14.454,-0.00463153,0.00489844,-0.0771248,0.012116,-1.73666,0.0312905,0.161458,-0.0845806,-0.00013086,0.000119895,0.00107099,-0.00251988,-0.00747602,0.00320874,-0.000498437,-0.176661,-0.141812,0.0844483,-0.128138,0.0253605,0.124139,-0.0886564,-0.0202602,-32.8996,-0.0109729,27.6016,0.800778,3.22533,0.050461,
0.010792,-0.0815564,0.0182443,-1.76842,0.0716434,0.125401,-0.0845558,0.143342,-0.0433815,0.148606,-0.651945,0.928938,-0.755334,-0.000546347,1.17426,1.81466,1.21096,-0.66157,4.11493,-9.34836,0.452618,22.665,6.30056,23.4426,-73.1446,10.8562,-14.454,0.0117762,0.00489844,-0.0771248,0.012116,-1.73666,0.0312905,0.161458,-0.0845806,-0.00013086,0.000119895,0.00107099,-0.00251988,-0.00747602,0.00320874,-0.000498437,0,0,0,0,0,0,0,-0.0202602,-32.8996,-0.0109729,27.6016,0.800778,3.22533,0.050461,
0.0120442,-0.0817057,0.0195421,-1.7737,0.0795334,0.119434,-0.0845443,0.145979,-0.0384395,0.151329,-0.653526,0.940401,-0.753451,-0.000147281,1.6484,3.08876,1.70234,-0.987685,7.16498,1.17665,0.249416,21.3159,4.37455,22.0517,-71.7948,10.8562,-13.7086,-0.00868467,0.00489844,-0.0771248,0.012116,-1.73666,0.0312905,0.161458,-0.0845806,-0.00013086,0.000119895,0.00107099,-0.00251988,-0.00747602,0.00320874,-0.000498437,0,0,0,0,0,0,0,-0.0202602,-32.8996,-0.0109729,27.6016,0.800778,3.22533,0.050461,
0.00846428,-0.0811715,0.0158425,-1.75828,0.056645,0.139354,-0.0845861,0.142987,-0.0448217,0.148249,-0.649522,0.923899,-0.769124,-0.000579687,-1.87007,-3.98888,-1.92498,2.50247,-10.3142,-9.79585,-0.270254,25.9083,10.7163,26.7447,-76.2324,10.8562,-14.454,0.0239485,0.00489844,-0.0771248,0.012116,-1.73666,0.0312905,0.161458,-0.0845806,-0.00013086,0.000119895,0.00107099,-0.00251988,-0.00747602,0.00320874,-0.000498437,0,0,0,0,0,0,0,-0.0202602,-32.8996,-0.0109729,27.6016,0.800778,3.22533,0.050461,
0.00960725,-0.0816042,0.0170277,-1.76351,0.0639597,0.13288,-0.0846128,0.142964,-0.0466757,0.148228,-0.650481,0.921986,-0.777168,-0.00112977,-0.0145186,-1.15873,-0.0131111,-0.599496,-1.19518,-5.02745,-0.343805,24.1049,7.82403,24.914,-74.949,10.8562,-14.454,-0.0165196,0.00489844,-0.0771248,0.012116,-1.73666,0.0312905,0.161458,-0.0845806,-0.00013086,0.000119895,0.00107099,-0.00251988,-0.00747602,0.00320874,-0.000498437,0,0,0,0,0,0,0,-0.0202602,-32.8996,-0.0109729,27.6016,0.800778,3.22533,0.050461,
0.0108269,-0.0819161,0.0182923,-1.76884,0.0715916,0.126915,-0.0845904,0.144863,-0.0451395,0.150198,-0.653532,0.928386,-0.770855,-0.000344109,1.18673,0.960086,1.23094,-1.90717,3.99986,3.94559,0.491041,22.8504,5.46224,23.6372,-73.5904,10.8562,-14.4541,0.0124034,0.00490201,-0.0771268,0.012116,-1.73665,0.0312966,0.161458,-0.0845859,5.67367e-05,-0.000107271,0.00189528,5.91896e-05,-0.0067464,0.00394901,-0.00141845,0.0234496,-0.0283958,0.103036,0.322383,0.091203,0.0925341,-0.115001,-0.0440639,-32.8719,-0.0109729,27.4747,0.745846,3.21892,0.0980684,
0.012093,-0.0821252,0.0196055,-1.77419,0.0794724,0.121582,-0.0845783,0.147544,-0.0413376,0.15299,-0.656647,0.939729,-0.750008,2.76884e-05,1.67555,2.37617,1.74521,-1.9468,7.08942,13.0294,0.232374,21.4386,3.52516,22.18,-72.2245,10.8562,-13.1727,-0.00964068,0.00490201,-0.0771268,0.012116,-1.73665,0.0312966,0.161458,-0.0845859,5.67367e-05,-0.000107271,0.00189528,5.91896e-05,-0.0067464,0.00394901,-0.00141845,0,0,0,0,0,0,0,-0.0440639,-32.8719,-0.0109729,27.4747,0.745846,3.21892,0.0980684,
0.00825029,-0.0813243,0.015622,-1.75799,0.0568838,0.141118,-0.0845876,0.143004,-0.0473732,0.148287,-0.650373,0.924014,-0.744215,-0.000238728,-2.83752,-3.77219,-2.93962,3.92103,-9.82218,3.62098,-0.16651,24.4652,8.87942,25.2729,-74.6627,10.8562,-14.4541,0.0120721,0.00490201,-0.0771268,0.012116,-1.73665,0.0312966,0.161458,-0.0845859,5.67367e-05,-0.000107271,0.00189528,5.91896e-05,-0.0067464,0.00394901,-0.00141845,0,0,0,0,0,0,0,-0.0440639,-32.8719,-0.0109729,27.4747,0.745846,3.21892,0.0980684,
0.00934268,-0.0817486,0.0167543,-1.76312,0.0642146,0.13559,-0.084603,0.141713,-0.0485058,0.146937,-0.648673,0.92248,-0.733587,-0.00057652,-0.806786,-0.707924,-0.843411,1.06262,-0.958668,6.64262,-0.21112,22.9434,6.51724,23.7239,-73.3658,10.8562,-14.4541,-0.0247383,0.00490201,-0.0771268,0.012116,-1.73665,0.0312966,0.161458,-0.0845859,5.67367e-05,-0.000107271,0.00189528,5.91896e-05,-0.0067464,0.00394901,-0.00141845,0,0,0,0,0,0,0,-0.0440639,-32.8719,-0.0109729,27.4747,0.745846,3.21892,0.0980684,
0.0105091,-0.0820397,0.0179631,-1.76832,0.0718589,0.130553,-0.0845758,0.142531,-0.0460823,0.147769,-0.648909,0.929091,-0.712794,0.00021878,0.511734,1.5147,0.519671,-0.147466,4.13199,12.9952,0.497063,21.985,4.62959,22.7483,-71.9777,10.8561,-13.2359,0.0223605,0.00490216,-0.0771228,0.0121126,-1.73665,0.0313007,0.161458,-0.0845862,0.000641759,-0.000602354,0.000944023,-0.000496285,-0.00538877,0.00438922,-0.00177013,0.0731278,-0.0618854,-0.118907,-0.0694343,0.169704,0.0550256,-0.0439604,-0.0440639,-32.8996,0.0366345,27.5024,0.709225,3.21892,0.0907442,
0.0124182,-0.0782664,0.0198429,-1.7639,0.0619161,0.130772,-0.0838168,0.153656,-0.0321181,0.159328,-0.651984,0.926677,-0.782021,0.000239966,6.95267,8.72763,7.22419,-1.92193,-1.50883,-43.2666,0.0132415,25.874,11.5271,26.7125,-74.9026,10.8561,-14.4541,0.0518118,0.00490216,-0.0771228,0.0121126,-1.73665,0.0313007,0.161458,-0.0845862,0.000641759,-0.000602354,0.000944023,-0.000496285,-0.00538877,0.00438922,-0.00177013,0,0,0,0,0,0,0,-0.0440639,-32.8996,0.0366345,27.5024,0.709225,3.21892,0.0907442,
0.00957828,-0.0812709,0.0169929,-1.76283,0.0640396,0.131777,-0.084525,0.151181,-0.0350062,0.156775,-0.649329,0.924537,-0.798726,-0.000147355,-1.54661,-1.80508,-1.59556,1.65955,-1.33729,-10.4404,-0.242076,23.9586,8.69874,24.7674,-73.6668,10.8561,-14.4541,0.00361046,0.00490216,-0.0771228,0.0121126,-1.73665,0.0313007,0.161458,-0.0845862,0.000641759,-0.000602354,0.000944023,-0.000496285,-0.00538877,0.00438922,-0.00177013,0,0,0,0,0,0,0,-0.0440639,-32.8996,0.0366345,27.5024,0.709225,3.21892,0.0907442,
0.0107818,-0.0815231,0.0182409,-1.76803,0.0716864,0.125251,-0.0845049,0.151034,-0.0343078,0.156621,-0.649568,0.930802,-0.80212,0.000382974,-0.0919843,0.436541,-0.0961286,-0.149639,3.91512,-2.12176,0.331456,22.6836,6.37772,23.4699,-72.3582,10.8561,-14.4541,0.0325882,0.00490216,-0.0771228,0.0121126,-1.73665,0.0313007,0.161458,-0.0845862,0.000641759,-0.000602354,0.000944023,-0.000496285,-0.00538877,0.00438922,-0.00177013,0,0,0,0,0,0,0,-0.0440639,-32.8996,0.0366345,27.5024,0.709225,3.21892,0.0907442,
0.0120325,-0.0816711,0.0195377,-1.77327,0.0795764,0.11927,-0.0844937,0.152094,-0.0311482,0.157716,-0.650546,0.94189,-0.791229,0.000586881,0.662437,1.97472,0.684796,-0.61067,6.93054,6.80723,0.127442,21.2385,4.46312,21.9781,-71.0479,10.8561,-13.8848,0.0046902,0.00490586,-0.077121,0.0121127,-1.73665,0.0313061,0.161454,-0.0845806,0.00216485,0.000765334,0.000733543,-0.00172913,-0.00371063,0.00404776,-0.000930424,0.190387,0.170961,-0.02631,-0.154105,0.209768,-0.0426821,0.104963,-0.0956386,-32.9234,0.0366345,27.55,0.660702,3.25829,0.050461,
0.00848673,-0.0811154,0.0158516,-1.75808,0.0567274,0.139231,-0.0845628,0.147966,-0.0388441,0.153436,-0.646162,0.925141,-0.80064,5.13149e-05,-2.57995,-4.80993,-2.67518,2.73949,-10.4687,-5.88208,-0.334729,25.8436,10.7745,26.6699,-75.5385,10.8561,-14.454,0.0420482,0.00490586,-0.077121,0.0121127,-1.73665,0.0313061,0.161454,-0.0845806,0.00216485,0.000765334,0.000733543,-0.00172913,-0.00371063,0.00404776,-0.000930424,0,0,0,0,0,0,0,-0.0956386,-32.9234,0.0366345,27.55,0.660702,3.25829,0.050461,
0.00963377,-0.0815434,0.0170404,-1.76328,0.0640421,0.132686,-0.0845856,0.147049,-0.041777,0.15247,-0.646825,0.92298,-0.804142,-0.0005294,-0.573351,-1.83304,-0.604059,-0.4143,-1.35051,-2.18865,-0.362947,24.0088,7.85732,24.8062,-74.3527,10.8561,-14.454,-0.00721923,0.00490586,-0.077121,0.0121127,-1.73665,0.0313061,0.161454,-0.0845806,0.00216485,0.000765334,0.000733543,-0.00172913,-0.00371063,0.00404776,-0.000930424,0,0,0,0,0,0,0,-0.0956386,-32.9234,0.0366345,27.55,0.660702,3.25829,0.050461,
0.010856,-0.0818519,0.0183072,-1.76857,0.0716766,0.126634,-0.0845664,0.148195,-0.0411317,0.153644,-0.649663,0.929246,-0.794611,5.65457e-05,0.716796,0.403275,0.734015,-1.77343,3.9165,5.95711,0.366216,22.8111,5.502,23.5896,-73.0692,10.8561,-14.454,0.0137178,0.00490586,-0.077121,0.0121127,-1.73665,0.0313061,0.161454,-0.0845806,0.00216485,0.000765334,0.000733543,-0.00172913,-0.00371063,0.00404776,-0.000930424,0,0,0,0,0,0,0,-0.0956386,-32.9234,0.0366345,27.55,0.660702,3.25829,0.050461,
0.0121248,-0.0820577,0.0196226,-1.77389,0.0795595,0.121221,-0.0845518,0.150274,-0.0380525,0.155802,-0.652693,0.940469,-0.770998,0.000409739,1.29935,1.92452,1.34882,-1.89423,7.01401,14.758,0.220746,21.4703,3.56625,22.207,-71.7615,10.8561,-13.2017,-0.0108526,0.00490492,-0.0771247,0.0121127,-1.73665,0.0313115,0.161451,-0.0845807,0.0023002,-0.000116881,0.00316492,-0.001587,-0.0022045,0.00273512,0.000400026,0.0169183,-0.110277,0.303922,0.0177655,0.188266,-0.164079,0.166306,-0.0956386,-32.8719,0.0366345,27.5262,0.612179,3.28484,0.050461,
0.00829683,-0.081279,0.0156654,-1.75786,0.0569807,0.140854,-0.0845691,0.145334,-0.0445951,0.150696,-0.646536,0.924867,-0.762426,0.000297579,-3.0878,-4.0891,-3.19168,3.84854,-9.75065,5.35738,-0.0701001,24.525,8.87093,25.34,-74.2712,10.8561,-14.454,0.0134657,0.00490492,-0.0771247,0.0121127,-1.73665,0.0313115,0.161451,-0.0845807,0.0023002,-0.000116881,0.00316492,-0.001587,-0.0022045,0.00273512,0.000400026,0,0,0,0,0,0,0,-0.0956386,-32.8719,0.0366345,27.5262,0.612179,3.28484,0.050461,
0.00939283,-0.0816993,0.0168018,-1.76297,0.0643228,0.135276,-0.0845856,0.143667,-0.0461842,0.148966,-0.645007,0.923447,-0.749401,-0.000174291,-1.04172,-0.993209,-1.08105,0.955279,-0.888016,8.1406,-0.294919,22.9964,6.53536,23.7833,-72.9627,10.8561,-14.454,-0.0202126,0.00490492,-0.0771247,0.0121127,-1.73665,0.0313115,0.161451,-0.0845807,0.0023002,-0.000116881,0.00316492,-0.001587,-0.0022045,0.00273512,0.000400026,0,0,0,0,0,0,0,-0.0956386,-32.8719,0.0366345,27.5262,0.612179,3.28484,0.050461,
0.0105637,-0.0819873,0.0180154,-1.76815,0.0719736,0.130207,-0.0845527,0.144204,-0.0441471,0.149512,-0.64546,0.930026,-0.726241,0.000682044,0.3357,1.2732,0.341644,-0.283212,4.1119,14.475,0.53521,21.9578,4.64896,22.7231,-71.5811,10.8561,-13.4045,0.0181677,0.00490492,-0.0771247,0.0121127,-1.73665,0.0313115,0.161451,-0.0845807,0.0023002,-0.000116881,0.00316492,-0.001587,-0.0022045,0.00273512,0.000400026,0,0,0,0,0,0,0,-0.0956386,-32.8719,0.0366345,27.5262,0.612179,3.28484,0.050461,
0.0117799,-0.0821647,0.019276,-1.77334,0.079867,0.12573,-0.0845337,0.145768,-0.0397509,0.151124,-0.646096,0.941355,-0.692916,0.00101963,0.977618,2.74763,1.00747,-0.397398,7.08106,20.8283,0.21099,20.6561,3.09846,21.3746,-70.2113,10.8561,-11.1954,0.00312941,0.00490065,-0.0771256,0.0121127,-1.73665,0.0313142,0.161448,-0.0845762,0.000133111,7.74571e-05,0.000751958,-0.000940344,-0.00228892,0.00229051,0.00118251,-0.270886,0.0242923,-0.301621,0.0808326,-0.0105518,-0.0555767,0.0978108,-0.0202602,-32.8719,0.0366345,27.5024,0.58746,3.31139,0.0101778,
0.00844362,-0.0808737,0.0158155,-1.75763,0.0567467,0.138583,-0.0844913,0.142579,-0.0442641,0.147842,-0.639896,0.924943,-0.729843,0.000678564,-1.99321,-2.82075,-2.05122,3.87508,-10.2576,-23.0795,-0.213165,25.8676,11.4889,26.7021,-74.5548,10.8561,-14.454,0.0618322,0.00490065,-0.0771256,0.0121127,-1.73665,0.0313142,0.161448,-0.0845762,0.000133111,7.74571e-05,0.000751958,-0.000940344,-0.00228892,0.00229051,0.00118251,0,0,0,0,0,0,0,-0.0202602,-32.8719,0.0366345,27.5024,0.58746,3.31139,0.0101778,
0.00957426,-0.0812446,0.0169881,-1.76273,0.0640736,0.131629,-0.0845042,0.142329,-0.0446836,0.147587,-0.639207,0.923125,-0.757709,0.000220064,-0.156165,-0.262194,-0.15951,0.430998,-1.13629,-17.416,-0.286563,23.8921,8.65594,24.6931,-73.3692,10.8561,-14.454,0.000650692,0.00490065,-0.0771256,0.0121127,-1.73665,0.0313142,0.161448,-0.0845762,0.000133111,7.74571e-05,0.000751958,-0.000940344,-0.00228892,0.00229051,0.00118251,0,0,0,0,0,0,0,-0.0202602,-32.8719,0.0366345,27.5024,0.58746,3.31139,0.0101778,
0.0107772,-0.0814956,0.018235,-1.76791,0.0717216,0.125077,-0.0844807,0.143937,-0.0420207,0.149244,-0.641033,0.929701,-0.769978,0.000763544,1.00442,1.6643,1.03575,-1.14173,4.1098,-7.66808,0.339675,22.7332,6.35935,23.518,-72.0828,10.8561,-14.454,0.0386709,0.00490065,-0.0771256,0.0121127,-1.73665,0.0313142,0.161448,-0.0845762,0.000133111,7.74571e-05,0.000751958,-0.000940344,-0.00228892,0.00229051,0.00118251,0,0,0,0,0,0,0,-0.0202602,-32.8719,0.0366345,27.5024,0.58746,3.31139,0.0101778,
0.0120246,-0.0816433,0.0195281,-1.77313,0.0796174,0.119082,-0.0844727,0.146334,-0.0373093,0.151722,-0.643351,0.941156,-0.765864,0.000810177,1.49857,2.94466,1.54828,-1.44833,7.15959,2.57124,0.0291456,21.2569,4.4328,21.9926,-70.8039,10.8561,-13.8923,0.00569262,0.00490586,-0.0771227,0.0121091,-1.73665,0.031319,0.161446,-0.0845807,0.00271566,-3.1286e-05,1.83554e-05,0.000213607,-0.000573003,0.00197105,-0.000123908,0.322819,-0.0135929,-0.0917003,0.144244,0.214489,-0.0399323,-0.163303,-0.0956386,-32.8996,0.0882092,27.4747,0.54443,3.32512,0.050461,
0.00848435,-0.0811312,0.0158472,-1.75799,0.0567867,0.139207,-0.0845555,0.143312,-0.0438027,0.148603,-0.640067,0.924715,-0.779802,0.000423968,-1.88863,-4.0584,-1.94891,2.05246,-10.2759,-8.71128,-0.241381,25.8449,10.7389,26.6768,-75.3274,10.8561,-14.454,0.0382841,0.00490586,-0.0771227,0.0121091,-1.73665,0.031319,0.161446,-0.0845807,0.00271566,-3.1286e-05,1.83554e-05,0.000213607,-0.000573003,0.00197105,-0.000123908,0,0,0,0,0,0,0,-0.0956386,-32.8996,0.0882092,27.4747,0.54443,3.32512,0.050461,
0.00962926,-0.0815598,0.0170341,-1.76317,0.0641062,0.132687,-0.0845613,0.143273,-0.0457584,0.148556,-0.641596,0.922761,-0.786862,0.000194818,-0.0248371,-1.22229,-0.0295028,-0.955949,-1.22123,-4.41259,-0.143219,24.0337,7.84964,24.8379,-74.135,10.8561,-14.454,-0.00647022,0.00490586,-0.0771227,0.0121091,-1.73665,0.031319,0.161446,-0.0845807,0.00271566,-3.1286e-05,1.83554e-05,0.000213607,-0.000573003,0.00197105,-0.000123908,0,0,0,0,0,0,0,-0.0956386,-32.8996,0.0882092,27.4747,0.54443,3.32512,0.050461,
0.0108439,-0.0818713,0.0182931,-1.76845,0.0717541,0.126625,-0.0845807,0.144983,-0.0443939,0.15032,-0.645142,0.929406,-0.781019,-0.000330025,1.06891,0.85278,1.10264,-2.21636,4.15315,3.65141,-0.328027,22.788,5.50357,23.5705,-72.8549,10.8561,-14.454,0.0190367,0.00490586,-0.0771227,0.0121091,-1.73665,0.031319,0.161446,-0.0845807,0.00271566,-3.1286e-05,1.83554e-05,0.000213607,-0.000573003,0.00197105,-0.000123908,0,0,0,0,0,0,0,-0.0956386,-32.8996,0.0882092,27.4747,0.54443,3.32512,0.050461,
0.0121139,-0.0820783,0.0196108,-1.77376,0.0796293,0.121233,-0.0845523,0.147738,-0.0406896,0.153198,-0.648823,0.940404,-0.759623,0.00044813,1.72179,2.31518,1.79854,-2.30047,6.87371,13.373,0.486347,21.3553,3.57296,22.0917,-71.5647,10.8561,-13.2325,-0.0142389,0.00490586,-0.0771227,0.0121091,-1.73665,0.031319,0.161446,-0.0845807,0.00271566,-3.1286e-05,1.83554e-05,0.000213607,-0.000573003,0.00197105,-0.000123908,0,0,0,0,0,0,0,-0.0956386,-32.8996,0.0882092,27.4747,0.54443,3.32512,0.050461,
0.00824671,-0.0812753,0.0156186,-1.75779,0.0569406,0.140814,-0.0845569,0.143308,-0.0467043,0.148612,-0.643146,0.924282,-0.753849,0.000558242,-2.76856,-3.75919,-2.86653,3.54855,-10.0758,3.60888,0.0688198,24.5064,8.91399,25.3194,-74.0522,10.8561,-14.454,0.0235751,0.00489862,-0.0771228,0.0121127,-1.73665,0.031319,0.161446,-0.0845792,0.000111037,-4.97365e-05,0.000494178,0.000438064,-0.000856093,0.002244,-0.000371764,-0.325578,-0.00230631,0.0594778,0.0280571,-0.0353863,0.034119,-0.0309819,0.00751081,-32.8996,0.0366345,27.4747,0.54443,3.33153,0.0376436,
0.00934225,-0.0816947,0.0167543,-1.76289,0.0642699,0.135223,-0.0845646,0.142035,-0.0478472,0.14728,-0.642018,0.922658,-0.742874,0.000253445,-0.795772,-0.714297,-0.832021,0.704685,-1.01536,6.85908,-0.190498,22.9631,6.55242,23.7459,-72.781,10.8561,-14.454,0.00314928,0.00489862,-0.0771228,0.0121127,-1.73665,0.031319,0.161446,-0.0845792,0.000111037,-4.97365e-05,0.000494178,0.000438064,-0.000856093,0.002244,-0.000371764,0,0,0,0,0,0,0,0.00751081,-32.8996,0.0366345,27.4747,0.54443,3.33153,0.0376436,
0.0105059,-0.0819838,0.0179603,-1.76806,0.0719241,0.130103,-0.0845822,0.14272,-0.045507,0.147975,-0.642785,0.929482,-0.722283,-0.000236134,0.428091,1.46262,0.434277,-0.47931,4.2652,12.8696,-0.305987,21.6714,4.62913,22.4202,-71.4898,10.8561,-13.5009,-0.0318177,0.00489862,-0.0771228,0.0121127,-1.73665,0.031319,0.161446,-0.0845792,0.000111037,-4.97365e-05,0.000494178,0.000438064,-0.000856093,0.002244,-0.000371764,0,0,0,0,0,0,0,0.00751081,-32.8996,0.0366345,27.4747,0.54443,3.33153,0.0376436,
0.0117223,-0.0821606,0.019221,-1.77324,0.0798069,0.125608,-0.0845646,0.144586,-0.040824,0.149896,-0.643772,0.940656,-0.690209,0.000249678,1.16617,2.92685,1.20041,-0.616798,6.98385,20.0461,0.303632,20.9528,3.17492,21.687,-70.0707,10.8561,-11.0968,0.0206777,0.00489862,-0.0771228,0.0121127,-1.73665,0.031319,0.161446,-0.0845792,0.000111037,-4.97365e-05,0.000494178,0.000438064,-0.000856093,0.002244,-0.000371764,0,0,0,0,0,0,0,0.00751081,-32.8996,0.0366345,27.4747,0.54443,3.33153,0.0376436,
0.00845056,-0.0808744,0.015826,-1.75759,0.0567548,0.138576,-0.0845174,0.141764,-0.0451212,0.147003,-0.637798,0.924179,-0.728142,0.000351748,-1.7634,-2.68573,-1.80787,3.73386,-10.2983,-23.7085,0.063794,26.051,11.4844,26.8974,-74.5012,10.8561,-14.454,0.0721268,0.00489687,-0.0771263,0.0121129,-1.73665,0.0313225,0.161445,-0.0845806,0.000549509,-0.000399606,0.000571619,-0.000777034,-9.98226e-05,0.00250174,-0.00129939,0.0548091,-0.0437337,0.00968016,-0.151887,0.0945338,0.0322167,-0.115954,0.0313145,-32.8481,0.0644055,27.4747,0.526119,3.33153,0.050461,
0.00958295,-0.0812455,0.0170005,-1.76268,0.0640835,0.131621,-0.084521,0.141721,-0.0453743,0.146966,-0.637376,0.922561,-0.756399,0.00019125,-0.0270099,-0.158157,-0.0231124,0.263768,-1.0111,-17.6601,-0.100311,23.9031,8.67852,24.7064,-73.2346,10.8561,-14.454,0.0135037,0.00489687,-0.0771263,0.0121129,-1.73665,0.0313225,0.161445,-0.0845806,0.000549509,-0.000399606,0.000571619,-0.000777034,-9.98226e-05,0.00250174,-0.00129939,0,0,0,0,0,0,0,0.0313145,-32.8481,0.0644055,27.4747,0.526119,3.33153,0.050461,
0.0107802,-0.0814991,0.0182419,-1.76786,0.0717467,0.125046,-0.0845399,0.143307,-0.0426414,0.148608,-0.639465,0.929629,-0.769488,-0.000319135,0.991291,1.70806,1.02594,-1.30596,4.41749,-8.18082,-0.318991,22.4425,6.33656,23.2148,-72.0228,10.8561,-14.454,-0.0257525,0.00489687,-0.0771263,0.0121129,-1.73665,0.0313225,0.161445,-0.0845806,0.000549509,-0.000399606,0.000571619,-0.000777034,-9.98226e-05,0.00250174,-0.00129939,0,0,0,0,0,0,0,0.0313145,-32.8481,0.0644055,27.4747,0.526119,3.33153,0.050461,
0.0123887,-0.0782895,0.0198102,-1.76395,0.0620258,0.130777,-0.0838141,0.154204,-0.0304092,0.159897,-0.645401,0.927022,-0.827155,-0.000123563,6.81026,7.64509,7.05595,-3.71,-1.62968,-36.0418,0.122233,26.0252,10.7481,26.862,-75.2946,10.8561,-14.454,0.0514771,0.00489687,-0.0771263,0.0121129,-1.73665,0.0313225,0.161445,-0.0845806,0.000549509,-0.000399606,0.000571619,-0.000777034,-9.98226e-05,0.00250174,-0.00129939,0,0,0,0,0,0,0,0.0313145,-32.8481,0.0644055,27.4747,0.526119,3.33153,0.050461,
0.00960843,-0.0815532,0.017024,-1.76316,0.0640884,0.132685,-0.0845592,0.151949,-0.0350139,0.157548,-0.645837,0.924576,-0.824699,-0.00029969,-1.40883,-2.87793,-1.46852,-0.272345,-1.52893,1.53487,-0.110079,23.9598,7.87882,24.7549,-74.0392,10.8561,-14.454,0.0071017,0.00489528,-0.077127,0.0121107,-1.73665,0.0313231,0.161443,-0.084577,-0.00224286,-0.000109325,0.000832216,0.000113842,0.000799538,0.00139726,0.000737781,-0.349046,0.0362851,0.0325745,0.11136,0.11242,-0.13806,0.254647,0.0551182,-32.8481,0.0644055,27.4271,0.507809,3.35808,0.017502,
0.0108222,-0.0818623,0.0182819,-1.76843,0.0717342,0.126631,-0.0845664,0.151903,-0.0357384,0.157487,-0.648467,0.930804,-0.811097,-0.000419008,-0.0291306,-0.45279,-0.0382492,-1.6437,3.89307,8.5012,-0.0745743,22.4685,5.49379,23.2308,-72.8386,10.8561,-14.454,-0.0358342,0.00489528,-0.077127,0.0121107,-1.73665,0.0313231,0.161443,-0.084577,-0.00224286,-0.000109325,0.000832216,0.000113842,0.000799538,0.00139726,0.000737781,0,0,0,0,0,0,0,0.0551182,-32.8481,0.0644055,27.4271,0.507809,3.35808,0.017502,
0.012085,-0.0820695,0.0195916,-1.77374,0.0796195,0.121215,-0.0845857,0.153094,-0.0337718,0.158732,-0.651413,0.941777,-0.784278,-0.00081906,0.744673,1.22911,0.778646,-1.84115,6.8581,16.7618,-0.250032,21.6345,3.64938,22.3839,-71.4913,10.8561,-13.1237,0.0140686,0.00489528,-0.077127,0.0121107,-1.73665,0.0313231,0.161443,-0.084577,-0.00224286,-0.000109325,0.000832216,0.000113842,0.000799538,0.00139726,0.000737781,0,0,0,0,0,0,0,0.0551182,-32.8481,0.0644055,27.4271,0.507809,3.35808,0.017502,
0.00822075,-0.081281,0.0155938,-1.75779,0.0569466,0.140794,-0.084581,0.147565,-0.0411696,0.153014,-0.645275,0.925175,-0.773159,-0.000319855,-3.45613,-4.62362,-3.57404,3.83601,-10.3763,6.94952,0.312003,24.5324,8.8693,25.3474,-74.098,10.8561,-14.454,0.0285271,0.00489528,-0.077127,0.0121107,-1.73665,0.0313231,0.161443,-0.084577,-0.00224286,-0.000109325,0.000832216,0.000113842,0.000799538,0.00139726,0.000737781,0,0,0,0,0,0,0,0.0551182,-32.8481,0.0644055,27.4271,0.507809,3.35808,0.017502,
0.00931758,-0.0817008,0.016731,-1.76289,0.0642654,0.135208,-0.0845745,0.145472,-0.043431,0.150839,-0.643749,0.923111,-0.758191,-9.22324e-05,-1.30757,-1.41336,-1.35919,0.95396,-1.29034,9.35478,0.142264,22.8987,6.5545,23.68,-72.74,10.8561,-14.454,-1.71247e-05,0.00489695,-0.0771217,0.012109,-1.73664,0.0313216,0.161441,-0.0845837,-0.000282697,0.00055534,0.000651206,0.00109135,0.000576031,0.00144752,-0.00133022,0.245021,0.0830831,-0.0226262,0.122188,-0.0279383,0.00628314,-0.2585,0.0313145,-32.9234,0.0882092,27.4271,0.520626,3.3709,0.0779268,
0.0104794,-0.08199,0.0179352,-1.76806,0.0719189,0.130117,-0.084575,0.145424,-0.0419726,0.150776,-0.644225,0.929826,-0.733815,-8.61161e-05,-0.0301991,0.911479,-0.0395616,-0.297368,4.19669,15.2351,0.0038227,21.6917,4.63239,22.4428,-71.4399,10.8561,-13.4662,-0.0144056,0.00489695,-0.0771217,0.012109,-1.73664,0.0313216,0.161441,-0.0845837,-0.000282697,0.00055534,0.000651206,0.00109135,0.000576031,0.00144752,-0.00133022,0,0,0,0,0,0,0,0.0313145,-32.9234,0.0882092,27.4271,0.520626,3.3709,0.0779268,
0.0116873,-0.0821685,0.0191871,-1.77324,0.0798131,0.125626,-0.0845882,0.146535,-0.0380427,0.151919,-0.644942,0.941215,-0.699332,-0.000399577,0.694267,2.4562,0.714464,-0.44823,7.11835,21.5522,-0.195913,20.6532,3.12111,21.3737,-70.1004,10.8561,-11.2118,-0.0409723,0.00489695,-0.0771217,0.012109,-1.73664,0.0313216,0.161441,-0.0845837,-0.000282697,0.00055534,0.000651206,0.00109135,0.000576031,0.00144752,-0.00133022,0,0,0,0,0,0,0,0.0313145,-32.9234,0.0882092,27.4271,0.520626,3.3709,0.0779268,
0.00845797,-0.0808645,0.015831,-1.75758,0.0567705,0.138579,-0.0844936,0.143364,-0.0428649,0.148661,-0.638787,0.92459,-0.734894,0.0003318,-1.98165,-3.0139,-2.0366,3.84697,-10.3907,-22.2266,0.457111,26.286,11.5451,27.1439,-74.4517,10.8561,-14.454,0.0793454,0.00489695,-0.0771217,0.012109,-1.73664,0.0313216,0.161441,-0.0845837,-0.000282697,0.00055534,0.000651206,0.00109135,0.000576031,0.00144752,-0.00133022,0,0,0,0,0,0,0,0.0313145,-32.9234,0.0882092,27.4271,0.520626,3.3709,0.0779268,
0.00959477,-0.0812348,0.0170099,-1.76267,0.0640922,0.131604,-0.0844818,0.143111,-0.0435505,0.148402,-0.638099,0.922714,-0.762267,0.000560841,-0.158092,-0.428522,-0.161642,0.429593,-1.17223,-17.1079,0.143151,24.0289,8.66335,24.8354,-73.262,10.8561,-14.454,0.0310554,0.00490034,-0.077121,0.0121127,-1.73664,0.0313234,0.161438,-0.0845825,0.000640851,0.000631815,0.000872173,-0.000127427,0.000991679,0.000190738,-0.00010678,0.115443,0.00955939,0.0276208,-0.152347,0.051956,-0.157098,0.15293,-0.0202602,-32.9234,0.0366345,27.4509,0.507809,3.39745,0.0641939,
0.0107962,-0.0814867,0.0182554,-1.76785,0.0717513,0.125015,-0.0844821,0.144524,-0.0411383,0.149858,-0.639953,0.929649,-0.77454,0.000441092,0.882981,1.50763,0.909954,-1.15841,4.33425,-7.671,-0.0748434,22.3411,6.34181,23.1042,-71.9722,10.8561,-14.454,-0.00138114,0.00490034,-0.077121,0.0121127,-1.73664,0.0313234,0.161438,-0.0845825,0.000640851,0.000631815,0.000872173,-0.000127427,0.000991679,0.000190738,-0.00010678,0,0,0,0,0,0,0,-0.0202602,-32.9234,0.0366345,27.4509,0.507809,3.39745,0.0641939,
0.0120438,-0.0816354,0.0195488,-1.77306,0.0796514,0.118983,-0.0844998,0.14681,-0.036627,0.152222,-0.642335,0.941223,-0.770447,-8.90176e-05,1.42878,2.81958,1.47756,-1.48899,7.23371,2.55839,-0.331318,21.155,4.45912,21.8885,-70.7175,10.8561,-13.9078,-0.0355826,0.00490034,-0.077121,0.0121127,-1.73664,0.0313234,0.161438,-0.0845825,0.000640851,0.000631815,0.000872173,-0.000127427,0.000991679,0.000190738,-0.00010678,0,0,0,0,0,0,0,-0.0202602,-32.9234,0.0366345,27.4509,0.507809,3.39745,0.0641939,
0.0084913,-0.081111,0.0158639,-1.75798,0.0567717,0.139112,-0.0845411,0.143847,-0.0431959,0.149163,-0.639149,0.924463,-0.78432,-3.71962e-05,-1.85188,-4.10559,-1.91184,1.99152,-10.4752,-8.67072,0.0323884,26.2286,10.7632,27.0809,-75.2663,10.8561,-14.454,0.0769636,0.00490034,-0.077121,0.0121127,-1.73664,0.0313234,0.161438,-0.0845825,0.000640851,0.000631815,0.000872173,-0.000127427,0.000991679,0.000190738,-0.00010678,0,0,0,0,0,0,0,-0.0202602,-32.9234,0.0366345,27.4509,0.507809,3.39745,0.0641939,
0.00964161,-0.0815385,0.0170564,-1.76316,0.0640849,0.132559,-0.0845382,0.143835,-0.0452439,0.149143,-0.640823,0.9224,-0.791268,4.08103e-05,-0.00736584,-1.27995,-0.012419,-1.04666,-1.28898,-4.34265,0.048754,24.0967,7.82345,24.901,-74.0921,10.856,-14.454,0.0248042,0.00490083,-0.0771249,0.0121076,-1.73665,0.0313247,0.161438,-0.0845822,0.000377981,-0.000361478,0.00116188,-0.000249129,0.00189298,0.000154281,-0.000687978,-0.0328587,-0.124162,0.036213,-0.0152126,0.112663,-0.0045571,-0.0726498,0.00751081,-32.8719,0.0882092,27.4747,0.502316,3.39745,0.0641939,
0.0108574,-0.0818482,0.0183167,-1.76843,0.0717369,0.126501,-0.0845412,0.145464,-0.0439368,0.150822,-0.644549,0.929222,-0.784478,-4.06769e-05,1.01775,0.816893,1.0494,-2.3289,4.26358,4.2442,-0.0509295,22.5103,5.48292,23.2761,-72.7891,10.856,-14.454,-0.0109905,0.00490083,-0.0771249,0.0121076,-1.73665,0.0313247,0.161438,-0.0845822,0.000377981,-0.000361478,0.00116188,-0.000249129,0.00189298,0.000154281,-0.000687978,0,0,0,0,0,0,0,0.00751081,-32.8719,0.0882092,27.4747,0.502316,3.39745,0.0641939,
0.0121188,-0.0820562,0.019625,-1.77374,0.0796333,0.12109,-0.0845567,0.147905,-0.0403505,0.153367,-0.648382,0.940787,-0.762853,-0.000421339,1.52578,2.24147,1.59046,-2.39551,7.2282,13.5153,-0.237914,21.3803,3.59297,22.1184,-71.5176,10.856,-13.293,-0.0484908,0.00490083,-0.0771249,0.0121076,-1.73665,0.0313247,0.161438,-0.0845822,0.000377981,-0.000361478,0.00116188,-0.000249129,0.00189298,0.000154281,-0.000687978,0,0,0,0,0,0,0,0.00751081,-32.8719,0.0882092,27.4747,0.502316,3.39745,0.0641939,
0.00826752,-0.081278,0.0156328,-1.7578,0.0569954,0.140827,-0.0845406,0.143477,-0.0464224,0.148784,-0.642895,0.924706,-0.755443,0.00055703,-2.76747,-3.79497,-2.8645,3.4297,-10.0506,4.63108,0.61148,24.8173,8.91308,25.6466,-74.0501,10.856,-14.454,0.035476,0.00490083,-0.0771249,0.0121076,-1.73665,0.0313247,0.161438,-0.0845822,0.000377981,-0.000361478,0.00116188,-0.000249129,0.00189298,0.000154281,-0.000687978,0,0,0,0,0,0,0,0.00751081,-32.8719,0.0882092,27.4747,0.502316,3.39745,0.0641939,
0.00936487,-0.0816984,0.0167703,-1.7629,0.0643267,0.135253,-0.0845311,0.142215,-0.0476473,0.147465,-0.641891,0.923047,-0.743717,0.000681868,-0.788553,-0.765545,-0.824158,0.627196,-1.03672,7.3292,0.0780243,23.0273,6.5354,23.8117,-72.7741,10.856,-14.454,0.0128406,0.00489718,-0.0771301,0.0121052,-1.73665,0.0313289,0.161435,-0.0845806,0.000541106,-0.000689199,-0.000922607,0.00082813,0.00949066,-0.000711847,-0.000523919,0.0203907,-0.0409652,-0.260561,0.134657,0.949709,-0.108266,0.0205074,0.0313145,-32.8243,0.139784,27.4271,0.484005,3.424,0.050461,
0.0105298,-0.0819874,0.0179776,-1.76807,0.071984,0.130184,-0.0845177,0.142897,-0.0453431,0.148154,-0.642809,0.929868,-0.721701,0.000881877,0.425789,1.44011,0.430683,-0.573464,4.26317,13.7596,0.125005,21.5684,4.63406,22.31,-71.4171,10.856,-13.4053,-0.00869864,0.00489718,-0.0771301,0.0121052,-1.73665,0.0313289,0.161435,-0.0845806,0.000541106,-0.000689199,-0.000922607,0.00082813,0.00949066,-0.000711847,-0.000523919,0,0,0,0,0,0,0,0.0313145,-32.8243,0.139784,27.4271,0.484005,3.424,0.050461,
0.01174,-0.0821661,0.0192318,-1.77326,0.0798824,0.12571,-0.0845241,0.144571,-0.0407427,0.149877,-0.643895,0.941355,-0.689198,0.000545686,1.04624,2.87526,1.07694,-0.678811,7.17911,20.3147,-0.210119,20.5111,3.10911,21.2226,-70.1012,10.856,-11.1785,-0.0356935,0.00489718,-0.0771301,0.0121052,-1.73665,0.0313289,0.161435,-0.0845806,0.000541106,-0.000689199,-0.000922607,0.00082813,0.00949066,-0.000711847,-0.000523919,0,0,0,0,0,0,0,0.0313145,-32.8243,0.139784,27.4271,0.484005,3.424,0.050461,
0.00845925,-0.0808981,0.0158279,-1.7576,0.0568894,0.138539,-0.084453,0.141768,-0.0451109,0.147003,-0.638016,0.92501,-0.727075,0.000860473,-1.75141,-2.7301,-1.79635,3.67446,-10.2154,-23.6734,0.196742,26.2722,11.5291,27.1324,-74.4635,10.856,-14.454,0.108243,0.00489718,-0.0771301,0.0121052,-1.73665,0.0313289,0.161435,-0.0845806,0.000541106,-0.000689199,-0.000922607,0.00082813,0.00949066,-0.000711847,-0.000523919,0,0,0,0,0,0,0,0.0313145,-32.8243,0.139784,27.4271,0.484005,3.424,0.050461,
0.00959416,-0.0812712,0.0170049,-1.76268,0.0642214,0.131564,-0.0844483,0.141787,-0.0454174,0.14703,-0.637614,0.92331,-0.756022,0.000805875,0.0119159,-0.191576,0.0166705,0.250897,-1.06243,-18.0914,-0.0341237,23.9421,8.64028,24.7468,-73.3154,10.856,-14.454,0.0336872,0.00489718,-0.0771301,0.0121052,-1.73665,0.0313289,0.161435,-0.0845806,0.000541106,-0.000689199,-0.000922607,0.00082813,0.00949066,-0.000711847,-0.000523919,0,0,0,0,0,0,0,0.0313145,-32.8243,0.139784,27.4271,0.484005,3.424,0.050461,
0.0107954,-0.0815251,0.0182504,-1.76787,0.071885,0.125005,-0.0844493,0.143461,-0.0426818,0.14876,-0.639798,0.930236,-0.768793,0.000619299,1.04573,1.70976,1.08132,-1.36474,4.32857,-7.98224,-0.11661,22.444,6.3536,23.2153,-72.0123,10.856,-14.454,0.0155574,0.00489693,-0.0771227,0.0121091,-1.73665,0.0313244,0.161438,-0.0845822,0.000475593,0.00082819,0.000696351,0.00109228,0.00373537,-0.000102649,-0.000834714,-0.00818911,0.189674,0.20237,0.0330192,-0.719411,0.0761498,-0.0388494,0.0313145,-32.8996,0.0882092,27.4271,0.495907,3.40478,0.0641939,
0.0120454,-0.0816744,0.0195464,-1.7731,0.0797836,0.119029,-0.0844392,0.14602,-0.0378768,0.151408,-0.642468,0.941655,-0.764445,0.000748366,1.59954,3.00311,1.65519,-1.6686,7.13707,2.71753,0.0806668,21.1554,4.45573,21.8904,-70.7863,10.856,-13.9031,-0.0267875,0.00489693,-0.0771227,0.0121091,-1.73665,0.0313244,0.161438,-0.0845822,0.000475593,0.00082819,0.000696351,0.00109228,0.00373537,-0.000102649,-0.000834714,0,0,0,0,0,0,0,0.0313145,-32.8996,0.0882092,27.4271,0.495907,3.40478,0.0641939,
0.00847859,-0.0811137,0.0158495,-1.758,0.05682,0.139183,-0.084543,0.143108,-0.0442131,0.148395,-0.639397,0.925071,-0.779283,0.000272036,-1.81982,-3.96021,-1.88297,1.91933,-10.3651,-9.27337,-0.297706,26.1239,10.8063,26.9693,-75.3252,10.856,-14.454,0.0662408,0.00489693,-0.0771227,0.0121091,-1.73665,0.0313244,0.161438,-0.0845822,0.000475593,0.00082819,0.000696351,0.00109228,0.00373537,-0.000102649,-0.000834714,0,0,0,0,0,0,0,0.0313145,-32.8996,0.0882092,27.4271,0.495907,3.40478,0.0641939,
0.00962658,-0.0815412,0.0170395,-1.76318,0.0641363,0.132626,-0.0845438,0.143186,-0.0460569,0.148465,-0.641136,0.922964,-0.787358,0.000196163,0.0488146,-1.15235,0.0436592,-1.08725,-1.31681,-5.04732,-0.0474203,24.0285,7.88821,24.8285,-74.1467,10.856,-14.454,0.016621,0.00489693,-0.0771227,0.0121091,-1.73665,0.0313244,0.161438,-0.0845822,0.000475593,0.00082819,0.000696351,0.00109228,0.00373537,-0.000102649,-0.000834714,0,0,0,0,0,0,0,0.0313145,-32.8996,0.0882092,27.4271,0.495907,3.40478,0.0641939,
0.0108462,-0.0818501,0.0183036,-1.76846,0.0717788,0.126544,-0.0845355,0.145041,-0.0445694,0.150375,-0.644893,0.929434,-0.781943,0.000365666,1.15905,0.929656,1.19344,-2.34812,4.04368,3.38447,0.105939,22.543,5.54413,23.3102,-72.8534,10.856,-14.454,-0.0127735,0.00489695,-0.0771229,0.0121091,-1.73665,0.0313292,0.161435,-0.0845762,-0.00159032,-0.000264228,-0.00148513,0.000604585,0.00464076,-0.000278051,8.37654e-05,-0.25824,-0.136552,-0.272685,-0.0609624,0.113173,-0.0219252,0.11481,0.0313145,-32.8996,0.0882092,27.4509,0.452877,3.41759,0.0101778,
0.0121132,-0.0820564,0.0196176,-1.77378,0.0796664,0.121143,-0.0845274,0.147707,-0.0408131,0.15315,-0.648857,0.940739,-0.76057,0.000493371,1.66665,2.3477,1.73449,-2.47734,7.06532,13.3584,0.0798156,21.4888,3.63516,22.2307,-71.5792,10.856,-13.1499,-0.0114188,0.00489695,-0.0771229,0.0121091,-1.73665,0.0313292,0.161435,-0.0845762,-0.00159032,-0.000264228,-0.00148513,0.000604585,0.00464076,-0.000278051,8.37654e-05,0,0,0,0,0,0,0,0.0313145,-32.8996,0.0882092,27.4509,0.452877,3.41759,0.0101778,
0.00851414,-0.0809208,0.0158891,-1.75804,0.0567282,0.13884,-0.084544,0.144747,-0.0451759,0.150099,-0.644524,0.924101,-0.782559,8.73403e-05,-1.84998,-2.72672,-1.90682,2.70809,-10.3984,-13.7436,-0.253769,26.3738,11.8296,27.2393,-75.9225,10.856,-14.454,0.0362943,0.00489695,-0.0771229,0.0121091,-1.73665,0.0313292,0.161435,-0.0845762,-0.00159032,-0.000264228,-0.00148513,0.000604585,0.00464076,-0.000278051,8.37654e-05,0,0,0,0,0,0,0,0.0313145,-32.8996,0.0882092,27.4509,0.452877,3.41759,0.0101778,
0.00966956,-0.0812914,0.0170879,-1.76323,0.0640476,0.131969,-0.0845522,0.144683,-0.0454052,0.150048,-0.645484,0.922267,-0.797808,-0.000135772,-0.040072,-0.143347,-0.0315738,-0.599932,-1.14669,-9.53031,-0.139445,24.5006,8.96466,25.3351,-74.6825,10.856,-14.454,0.0156915,0.00489695,-0.0771229,0.0121091,-1.73665,0.0313292,0.161435,-0.0845762,-0.00159032,-0.000264228,-0.00148513,0.000604585,0.00464076,-0.000278051,8.37654e-05,0,0,0,0,0,0,0,0.0313145,-32.8996,0.0882092,27.4509,0.452877,3.41759,0.0101778,
0.010892,-0.0815404,0.0183568,-1.76853,0.0717024,0.125545,-0.0845566,0.146307,-0.0425505,0.151761,-0.64882,0.929185,-0.798857,-0.000218402,1.01455,1.78423,1.07056,-2.08467,4.32408,-0.655951,-0.0516438,23.0319,6.58435,23.8315,-73.4149,10.856,-14.454,0.00366037,0.00488972,-0.0771247,0.0121038,-1.73665,0.0313251,0.161438,-0.0845762,-0.000489369,-0.000629516,-0.00010283,5.98051e-05,0.00562518,-0.000265615,0.000668602,0.137619,-0.045661,0.172787,-0.0680974,0.123053,0.0015545,0.0731046,0.134464,-32.8719,0.163588,27.4747,0.489498,3.39745,0.0101778,
0.0123919,-0.0784232,0.019808,-1.76454,0.0620695,0.131016,-0.0838521,0.156729,-0.0309398,0.162532,-0.65578,0.926615,-0.849951,-0.000244586,6.51418,7.25666,6.73183,-4.35008,-1.60604,-31.9337,-0.016365,26.0229,10.5205,26.8544,-76.7871,10.856,-14.454,0.02529,0.00488972,-0.0771247,0.0121038,-1.73665,0.0313251,0.161438,-0.0845762,-0.000489369,-0.000629516,-0.00010283,5.98051e-05,0.00562518,-0.000265615,0.000668602,0,0,0,0,0,0,0,0.134464,-32.8719,0.163588,27.4747,0.489498,3.39745,0.0101778,
0.00960965,-0.0817675,0.0170153,-1.7638,0.0641723,0.133206,-0.0846093,0.154066,-0.0362729,0.159714,-0.657094,0.924314,-0.839548,-0.0004374,-1.66473,-3.33316,-1.76141,-0.821424,-1.4382,6.50194,-0.120509,24.1357,7.61608,24.9296,-75.5619,10.856,-14.454,-0.00266563,0.00488972,-0.0771247,0.0121038,-1.73665,0.0313251,0.161438,-0.0845762,-0.000489369,-0.000629516,-0.00010283,5.98051e-05,0.00562518,-0.000265615,0.000668602,0,0,0,0,0,0,0,0.134464,-32.8719,0.163588,27.4747,0.489498,3.39745,0.0101778,
0.0108283,-0.082108,0.0182778,-1.76919,0.0718176,0.127307,-0.08461,0.153719,-0.0375291,0.159334,-0.660432,0.930586,-0.819111,-0.000366084,-0.216561,-0.785172,-0.237452,-2.0862,3.91961,12.7736,0.044573,22.6638,5.23472,23.418,-74.2894,10.856,-14.454,-0.0195155,0.00488972,-0.0771247,0.0121038,-1.73665,0.0313251,0.161438,-0.0845762,-0.000489369,-0.000629516,-0.00010283,5.98051e-05,0.00562518,-0.000265615,0.000668602,0,0,0,0,0,0,0,0.134464,-32.8719,0.163588,27.4747,0.489498,3.39745,0.0101778,
0.0120957,-0.0823439,0.0195915,-1.77461,0.0797046,0.122074,-0.0846099,0.15466,-0.0359229,0.160309,-0.663918,0.941642,-0.786106,-0.00029081,0.588181,1.0039,0.609258,-2.17908,6.91045,20.6278,0.0470462,21.4564,3.30875,22.1752,-72.9262,10.856,-12.8901,-0.0201299,0.0049027,-0.0771297,0.0121091,-1.73664,0.0313289,0.161435,-0.0845792,-0.00141526,-0.00120333,-0.00820546,0.000871033,0.00569441,0.000193436,-1.9491e-05,-0.115736,-0.0717273,-1.01283,0.101404,0.00865433,0.0573814,-0.0860117,-0.0202602,-32.8005,0.0882092,27.4271,0.484005,3.39745,0.0376436,
0.00817604,-0.0813531,0.0155353,-1.75819,0.0569402,0.141204,-0.0845901,0.148603,-0.0429436,0.154047,-0.657468,0.925131,-0.772314,-0.000559793,-3.7857,-4.38795,-3.91358,4.03148,-10.3195,8.6199,-0.168115,24.6385,9.06877,25.4588,-75.3559,10.856,-14.454,0.0161751,0.0049027,-0.0771297,0.0121091,-1.73664,0.0313289,0.161435,-0.0845792,-0.00141526,-0.00120333,-0.00820546,0.000871033,0.00569441,0.000193436,-1.9491e-05,0,0,0,0,0,0,0,-0.0202602,-32.8005,0.0882092,27.4271,0.484005,3.39745,0.0376436,
0.0092689,-0.0817701,0.0166682,-1.76337,0.0642529,0.135698,-0.0845939,0.146204,-0.0447808,0.151559,-0.655669,0.922923,-0.755479,-0.000542792,-1.49953,-1.14827,-1.55503,1.12412,-1.38014,10.5218,0.0106254,23.0538,6.72171,23.8423,-74.0528,10.856,-14.454,-0.000703539,0.0049027,-0.0771297,0.0121091,-1.73664,0.0313289,0.161435,-0.0845792,-0.00141526,-0.00120333,-0.00820546,0.000871033,0.00569441,0.000193436,-1.9491e-05,0,0,0,0,0,0,0,-0.0202602,-32.8005,0.0882092,27.4271,0.484005,3.39745,0.0376436,
0.0104337,-0.0820541,0.0178753,-1.76863,0.0718903,0.130677,-0.0845913,0.146082,-0.0429259,0.151426,-0.655971,0.929275,-0.729925,-0.000366963,-0.0760716,1.15931,-0.083487,-0.188421,3.96993,15.9718,0.109893,21.8291,4.83278,22.5862,-72.7029,10.856,-13.303,-0.00563417,0.0049027,-0.0771297,0.0121091,-1.73664,0.0313289,0.161435,-0.0845792,-0.00141526,-0.00120333,-0.00820546,0.000871033,0.00569441,0.000193436,-1.9491e-05,0,0,0,0,0,0,0,-0.0202602,-32.8005,0.0882092,27.4271,0.484005,3.39745,0.0376436,
0.0116472,-0.0822253,0.0191329,-1.77391,0.0797708,0.126302,-0.084581,0.147204,-0.0386199,0.152581,-0.656703,0.94043,-0.693314,-3.67632e-05,0.701025,2.69125,0.722077,-0.457823,6.97216,22.8819,0.206375,20.6992,3.32598,21.4201,-71.3063,10.8561,-10.9771,-0.0142258,0.00488733,-0.0771263,0.0121038,-1.73665,0.0313231,0.161438,-0.0845758,-0.0012494,-0.000849658,3.03804e-05,3.0791e-05,0.00743493,0.000662943,0.000547046,0.020732,0.0442095,1.02948,-0.10503,0.217564,0.0586884,0.0708171,0.158268,-32.8481,0.163588,27.5024,0.507809,3.40478,-0.0026396,
0.00843338,-0.0810165,0.0158086,-1.75802,0.0568758,0.138936,-0.0845305,0.143795,-0.0440135,0.149074,-0.650652,0.92439,-0.727286,-0.00024338,-2.13022,-3.37095,-2.19159,3.78206,-10.0253,-21.2325,-0.129136,25.9819,11.4138,26.8224,-75.7071,10.8561,-14.454,0.0477864,0.00488733,-0.0771263,0.0121038,-1.73665,0.0313231,0.161438,-0.0845758,-0.0012494,-0.000849658,3.03804e-05,3.0791e-05,0.00743493,0.000662943,0.000547046,0,0,0,0,0,0,0,0.158268,-32.8481,0.163588,27.5024,0.507809,3.40478,-0.0026396,
0.00956757,-0.0814114,0.0169846,-1.7632,0.0642065,0.132095,-0.0845271,0.143391,-0.0450834,0.14866,-0.650029,0.92278,-0.75287,-0.000110115,-0.252715,-0.668688,-0.258741,0.389536,-1.00645,-15.99,0.0832909,24.0549,8.54164,24.8639,-74.4797,10.8561,-14.454,0.0177662,0.00488733,-0.0771263,0.0121038,-1.73665,0.0313231,0.161438,-0.0845758,-0.0012494,-0.000849658,3.03804e-05,3.0791e-05,0.00743493,0.000662943,0.000547046,0,0,0,0,0,0,0,0.158268,-32.8481,0.163588,27.5024,0.507809,3.40478,-0.0026396,
0.0107696,-0.0816868,0.0182305,-1.76848,0.0718661,0.125649,-0.0845214,0.144762,-0.042952,0.150076,-0.65194,0.929715,-0.763439,5.3874e-05,0.857025,1.33212,0.884713,-1.19433,4.33453,-6.60612,0.102493,22.5563,6.15777,23.3302,-73.2316,10.8561,-14.454,-0.000287213,0.00488733,-0.0771263,0.0121038,-1.73665,0.0313231,0.161438,-0.0845758,-0.0012494,-0.000849658,3.03804e-05,3.0791e-05,0.00743493,0.000662943,0.000547046,0,0,0,0,0,0,0,0.158268,-32.8481,0.163588,27.5024,0.507809,3.40478,-0.0026396,
0.0120179,-0.0818578,0.0195244,-1.7738,0.0797679,0.119825,-0.084513,0.147018,-0.0386347,0.152408,-0.654479,0.941315,-0.75635,0.00025345,1.40985,2.69828,1.4576,-1.58722,7.25031,4.43077,0.124735,21.2932,4.24284,22.0318,-71.89,10.856,-13.5592,-0.00539299,0.00489695,-0.0771263,0.0121107,-1.73664,0.0313247,0.161441,-0.0845739,-0.00338828,-0.000562899,-0.00152744,0.000399281,0.00536234,0.000756957,0.000785737,-0.26736,0.0358449,-0.194728,0.0460612,-0.259073,0.0117518,0.0298364,0.0313145,-32.8481,0.0644055,27.4271,0.495907,3.37823,-0.00996382,
0.00843162,-0.0811396,0.0158012,-1.75828,0.0567875,0.139452,-0.0845497,0.143776,-0.0446616,0.149057,-0.650643,0.924669,-0.770836,-0.00018416,-2.02652,-3.76681,-2.09452,2.39749,-10.4038,-9.05349,-0.273506,26.0307,11.0649,26.8687,-76.3251,10.856,-14.454,0.0365027,0.00489695,-0.0771263,0.0121107,-1.73664,0.0313247,0.161441,-0.0845739,-0.00338828,-0.000562899,-0.00152744,0.000399281,0.00536234,0.000756957,0.000785737,0,0,0,0,0,0,0,0.0313145,-32.8481,0.0644055,27.4271,0.495907,3.37823,-0.00996382,
0.00957568,-0.0815574,0.016987,-1.76353,0.0640986,0.132976,-0.0845564,0.143622,-0.0461745,0.14889,-0.651766,0.922513,-0.778569,-0.000314997,-0.0960881,-0.945518,-0.10426,-0.701385,-1.34777,-4.83332,-0.0817728,24.1771,8.18489,24.9845,-75.0866,10.856,-14.454,0.0174832,0.00489695,-0.0771263,0.0121107,-1.73664,0.0313247,0.161441,-0.0845739,-0.00338828,-0.000562899,-0.00152744,0.000399281,0.00536234,0.000756957,0.000785737,0,0,0,0,0,0,0,0.0313145,-32.8481,0.0644055,27.4271,0.495907,3.37823,-0.00996382,
0.0107923,-0.0818545,0.0182478,-1.76887,0.0717366,0.126969,-0.0845581,0.145313,-0.0443678,0.150631,-0.655022,0.928962,-0.773021,-0.000294949,1.05689,1.12918,1.08785,-2.03508,4.03074,3.46735,0.0125298,22.6759,5.81028,23.4483,-73.817,10.856,-14.454,-0.00213968,0.00489695,-0.0771263,0.0121107,-1.73664,0.0313247,0.161441,-0.0845739,-0.00338828,-0.000562899,-0.00152744,0.000399281,0.00536234,0.000756957,0.000785737,0,0,0,0,0,0,0,0.0313145,-32.8481,0.0644055,27.4271,0.495907,3.37823,-0.00996382,
