xiao-wang007/linearmpc_panda/paper_data/panda_torque_PD_controller_opt_time_to_start_torque_rate_limiter_low_pass_filter/0/trajectory.csv
Commanded Joint 0 Position,Commanded Joint 1 Position,Commanded Joint 2 Position,Commanded Joint 3 Position,Commanded Joint 4 Position,Commanded Joint 5 Position,Commanded Joint 6 Position,Commanded Joint 0 Velocity,Commanded Joint 1 Velocity,Commanded Joint 2 Velocity,Commanded Joint 3 Velocity,Commanded Joint 4 Velocity,Commanded Joint 5 Velocity,Commanded Joint 6 Velocity,Commanded Joint 0 Acceleration,Commanded Joint 1 Acceleration,Commanded Joint 2 Acceleration,Commanded Joint 3 Acceleration,Commanded Joint 4 Acceleration,Commanded Joint 5 Acceleration,Commanded Joint 6 Acceleration,Commanded Joint 0 Torque,Commanded Joint 1 Torque,Commanded Joint 2 Torque,Commanded Joint 3 Torque,Commanded Joint 4 Torque,Commanded Joint 5 Torque,Commanded Joint 6 Torque,Actual Joint 0 Position,Actual Joint 1 Position,Actual Joint 2 Position,Actual Joint 3 Position,Actual Joint 4 Position,Actual Joint 5 Position,Actual Joint 6 Position,Actual Joint 0 Velocity,Actual Joint 1 Velocity,Actual Joint 2 Velocity,Actual Joint 3 Velocity,Actual Joint 4 Velocity,Actual Joint 5 Velocity,Actual Joint 6 Velocity,Actual Joint 0 Acceleration,Actual Joint 1 Acceleration,Actual Joint 2 Acceleration,Actual Joint 3 Acceleration,Actual Joint 4 Acceleration,Actual Joint 5 Acceleration,Actual Joint 6 Acceleration,Actual Joint 0 Torque,Actual Joint 1 Torque,Actual Joint 2 Torque,Actual Joint 3 Torque,Actual Joint 4 Torque,Actual Joint 5 Torque,Actual Joint 6 Torque,
0.080203,0.000473207,-0.0579858,-1.6701,0.0212785,0.13908,-0.0300928,0.000334347,0.0210546,0.000294927,-0.0324806,-0.00507105,0.050322,-0.000381971,0.208967,13.1591,0.184329,-20.3004,-3.1694,31.4513,-0.238732,0.0558636,24.3079,0.0532423,-24.1126,-0.716939,1.9007,-0.024348,0.0801586,-0.000456412,-0.0580078,-1.66676,0.0216814,0.133675,-0.0300446,-0.000640982,0.00457879,0.000637765,-0.000722141,0.00527417,-0.00267201,0.000472403,0,0,0,0,0,0,0,0.158268,-35.3197,-0.137926,26.7764,0.617672,3.21252,-0.0630644,
0.080163,-0.000393319,-0.0580031,-1.66679,0.02173,0.133636,-0.0300443,0.000309212,0.0172548,0.000278941,-0.0261954,-0.00383637,0.0399653,-0.000305698,-0.0157092,-2.3749,-0.00999072,3.92828,0.771669,-6.47294,0.0476707,0.0501555,24.7562,0.0430977,-24.0287,-0.716901,1.65133,-0.022839,0.080166,-0.000210948,-0.0580112,-1.66681,0.0216846,0.133668,-0.0300446,0.00040991,0.0102398,-0.00101831,-0.00260702,0.0033128,0.00106845,0.000237597,0.131361,0.707631,-0.207009,-0.23561,-0.245171,0.467558,-0.0293507,0.0828892,-34.8436,-0.110155,26.7288,0.550839,3.23907,-0.0630644,
0.0801645,-0.000379887,-0.0580015,-1.6668,0.0217353,0.133625,-0.0300444,0.000286047,0.0141396,0.000262926,-0.0211299,-0.00293541,0.0317166,-0.0002452,-0.0144785,-1.94698,-0.0100096,3.16593,0.563105,-5.15546,0.0378108,0.0429642,25.3277,0.0313925,-23.9207,-0.716137,1.30393,-0.02087,0.080166,-0.000210948,-0.0580112,-1.66681,0.0216846,0.133668,-0.0300446,0.00040991,0.0102398,-0.00101831,-0.00260702,0.0033128,0.00106845,0.000237597,0,0,0,0,0,0,0,0.0828892,-34.8436,-0.110155,26.7288,0.550839,3.23907,-0.0630644,
0.0801659,-0.000368789,-0.0580001,-1.6668,0.0217386,0.133617,-0.0300444,0.000262683,0.0115891,0.000245199,-0.017046,-0.00226606,0.0251579,-0.000197019,-0.0146025,-1.59405,-0.0110792,2.55246,0.418343,-4.09918,0.0301131,0.0370473,25.8516,0.0219884,-23.7529,-0.713867,0.918909,-0.0188675,0.080166,-0.000210948,-0.0580112,-1.66681,0.0216846,0.133668,-0.0300446,0.00040991,0.0102398,-0.00101831,-0.00260702,0.0033128,0.00106845,0.000237597,0,0,0,0,0,0,0,0.0828892,-34.8436,-0.110155,26.7288,0.550839,3.23907,-0.0630644,
0.0798799,4.70807e-06,-0.0582976,-1.66672,0.0295008,0.128707,-0.030068,-0.000884696,0.00976082,-0.000888439,-0.0136192,0.0476371,-0.0123897,-0.000184515,-0.717112,-1.14269,-0.708524,2.14173,31.1895,-23.4672,0.00781533,0.448056,0.236774,0.449245,-0.29457,2.98066,-1.99429,-0.00170629,0.080166,-0.000210948,-0.0580112,-1.66681,0.0216846,0.133668,-0.0300446,0.00040991,0.0102398,-0.00101831,-0.00260702,0.0033128,0.00106845,0.000237597,0,0,0,0,0,0,0,0.0828892,-34.8436,-0.110155,26.7288,0.550839,3.23907,-0.0630644,
0.0798488,2.03211e-05,-0.0583283,-1.66673,0.0315418,0.127347,-0.0300687,-0.00148675,0.00819898,-0.00147965,-0.0110204,0.0891351,-0.0439079,-0.000165125,-0.376284,-0.976149,-0.369507,1.62426,25.9363,-19.6989,0.0121187,0.443741,0.25388,0.445224,-0.293289,2.95494,-1.97729,-0.00166884,0.0801586,0.000255451,-0.0580135,-1.66698,0.0216717,0.134552,-0.0300476,-0.00108459,0.0424359,-0.00106919,-0.0274175,0.00390624,0.111519,-0.00124535,-0.186813,4.02451,-0.00636086,-3.10131,0.0741796,13.8064,-0.185369,0.158268,-30.2773,-0.0863513,22.944,0.354916,3.55675,-0.0365141,
0.0798293,3.39041e-05,-0.0583475,-1.66674,0.0336182,0.125951,-0.0300692,-0.00167677,0.00689876,-0.00166172,-0.00904921,0.123218,-0.0700248,-0.00014587,-0.118762,-0.812638,-0.113795,1.23199,21.3021,-16.323,0.0120341,0.438988,0.250983,0.440458,-0.290461,2.92858,-1.96022,-0.00163313,0.0801586,0.000255451,-0.0580135,-1.66698,0.0216717,0.134552,-0.0300476,-0.00108459,0.0424359,-0.00106919,-0.0274175,0.00390624,0.111519,-0.00124535,0,0,0,0,0,0,0,0.158268,-30.2773,-0.0863513,22.944,0.354916,3.55675,-0.0365141,
0.07982,4.6642e-05,-0.0583564,-1.66675,0.0357122,0.124535,-0.0300697,-0.0015727,0.00583745,-0.00155222,-0.00755303,0.150923,-0.0914176,-0.000129676,0.065047,-0.663315,0.068441,0.935114,17.3155,-13.3705,0.0101215,0.434243,0.24811,0.435696,-0.287654,2.90214,-1.9431,-0.00159865,0.0801586,0.000255451,-0.0580135,-1.66698,0.0216717,0.134552,-0.0300476,-0.00108459,0.0424359,-0.00106919,-0.0274175,0.00390624,0.111519,-0.00124535,0,0,0,0,0,0,0,0.158268,-30.2773,-0.0863513,22.944,0.354916,3.55675,-0.0365141,
0.0796756,0.00126574,-0.0584933,-1.6666,0.0459866,0.113844,-0.0300987,-0.00159741,0.00711235,-0.00153597,-0.00650325,0.271772,-0.212935,2.70866e-05,-0.0154497,0.796809,0.0101532,0.656111,75.5304,-75.9486,0.0979766,3.71809,1.66505,3.72288,-1.89736,9.85799,-9.0234,-0.00227283,0.0801586,0.000255451,-0.0580135,-1.66698,0.0216717,0.134552,-0.0300476,-0.00108459,0.0424359,-0.00106919,-0.0274175,0.00390624,0.111519,-0.00124535,0,0,0,0,0,0,0,0.158268,-30.2773,-0.0863513,22.944,0.354916,3.55675,-0.0365141,
0.0797114,0.00134813,-0.0584563,-1.66666,0.0521572,0.108018,-0.0300952,-0.000384487,0.00774956,-0.000304602,-0.00666899,0.371682,-0.316011,0.0001093,0.75808,0.398259,0.769606,-0.103584,62.4436,-64.4221,0.0513835,3.61517,1.72275,3.62134,-1.87331,9.59704,-8.8369,-0.00302969,0.0801418,0.00151577,-0.0580295,-1.67138,0.0228027,0.13762,-0.0300453,-0.00389995,0.00616521,-0.00255782,-0.178495,0.178924,-0.0586566,-0.000139635,-0.35192,-4.53384,-0.186078,-18.8846,21.8773,-21.272,0.138215,0.487552,-27.758,0.187391,22.7695,1.77856,1.73394,-0.0566557,
0.0797894,0.00142699,-0.0583772,-1.66674,0.0583765,0.102069,-0.0300932,0.00164376,0.0081712,0.00173421,-0.00748252,0.452826,-0.401526,0.000137932,1.26765,0.263525,1.27426,-0.508459,50.7156,-53.4473,0.0178947,3.52679,1.68644,3.53405,-1.8254,9.32078,-8.67954,-0.00298126,0.0801418,0.00151577,-0.0580295,-1.67138,0.0228027,0.13762,-0.0300453,-0.00389995,0.00616521,-0.00255782,-0.178495,0.178924,-0.0586566,-0.000139635,0,0,0,0,0,0,0,0.487552,-27.758,0.187391,22.7695,1.77856,1.73394,-0.0566557,
0.0799037,0.00150801,-0.0582619,-1.66685,0.0645818,0.0960776,-0.0300919,0.00417178,0.00856258,0.00426813,-0.00861553,0.517394,-0.471001,0.000143314,1.58001,0.244611,1.5837,-0.708135,40.3548,-43.4215,0.00336422,3.45107,1.6351,3.45941,-1.78703,9.01921,-8.531,-0.000548947,0.0801418,0.00151577,-0.0580295,-1.67138,0.0228027,0.13762,-0.0300453,-0.00389995,0.00616521,-0.00255782,-0.178495,0.178924,-0.0586566,-0.000139635,0,0,0,0,0,0,0,0.487552,-27.758,0.187391,22.7695,1.77856,1.73394,-0.0566557,
0.0826038,0.00144968,-0.05559,-1.67461,0.0497817,0.0997659,-0.029548,0.0205913,0.00300122,0.0204834,-0.0254435,0.589144,-0.618737,0.000902164,10.2622,-3.47585,10.1345,-10.5175,44.8435,-92.335,0.474281,21.1426,0.968055,21.1754,-9.89863,10.8861,-14.2854,0.260963,0.0801418,0.00151577,-0.0580295,-1.67138,0.0228027,0.13762,-0.0300453,-0.00389995,0.00616521,-0.00255782,-0.178495,0.178924,-0.0586566,-0.000139635,0,0,0,0,0,0,0,0.487552,-27.758,0.187391,22.7695,1.77856,1.73394,-0.0566557,
0.0833509,0.00129569,-0.0548495,-1.67537,0.057188,0.0896344,-0.0295193,0.0351517,-0.00144898,0.0348998,-0.0394017,0.656474,-0.748277,0.00144078,9.10023,-2.78138,9.01027,-8.72385,42.0816,-80.963,0.336635,18.4079,-2.60968,18.2641,-12.5011,10.8003,-14.2361,0.188001,0.0800196,0.00281314,-0.0580529,-1.67527,0.0336115,0.127804,-0.0300453,-0.0042583,0.0968215,0.00374952,0.00211965,0.540143,-0.687763,8.66715e-05,-0.0447935,11.332,0.788418,22.5768,45.1523,-78.6384,0.0282883,3.91132,-40.013,3.51198,28.9941,2.73712,-0.261911,-0.0566557,
0.0841427,0.00114363,-0.0540637,-1.6762,0.0648869,0.0795352,-0.0294904,0.047915,-0.00496067,0.0475629,-0.052185,0.717652,-0.851101,0.00187356,7.97705,-2.1948,7.91441,-7.98958,38.2358,-64.2645,0.270491,16.033,-2.38855,15.8736,-12.3923,10.8003,-14.2361,0.0794029,0.0800196,0.00281314,-0.0580529,-1.67527,0.0336115,0.127804,-0.0300453,-0.0042583,0.0968215,0.00374952,0.00211965,0.540143,-0.687763,8.66715e-05,0,0,0,0,0,0,0,3.91132,-40.013,3.51198,28.9941,2.73712,-0.261911,-0.0566557,
0.0849681,0.00100528,-0.053244,-1.67708,0.0727988,0.0697552,-0.0294616,0.0589669,-0.00742731,0.0585441,-0.0638346,0.771917,-0.925381,0.00221895,6.90747,-1.54165,6.86325,-7.28097,33.9161,-46.4253,0.215869,14.8399,-1.77157,14.7033,-11.8873,10.8003,-14.2361,0.045927,0.0800196,0.00281314,-0.0580529,-1.67527,0.0336115,0.127804,-0.0300453,-0.0042583,0.0968215,0.00374952,0.00211965,0.540143,-0.687763,8.66715e-05,0,0,0,0,0,0,0,3.91132,-40.013,3.51198,28.9941,2.73712,-0.261911,-0.0566557,
0.0837572,0.0043807,-0.0542674,-1.68063,0.0647579,0.085143,-0.0297331,0.0730522,0.00189923,0.0728367,-0.0823173,0.797689,-0.987706,0.00297257,8.80329,5.82909,8.93288,-11.5517,16.1074,-38.9532,0.471008,23.1944,6.87466,23.2523,-19.7205,10.8003,-14.2361,0.0835929,0.0800196,0.00281314,-0.0580529,-1.67527,0.0336115,0.127804,-0.0300453,-0.0042583,0.0968215,0.00374952,0.00211965,0.540143,-0.687763,8.66715e-05,0,0,0,0,0,0,0,3.91132,-40.013,3.51198,28.9941,2.73712,-0.261911,-0.0566557,
0.0848599,0.00470491,-0.0531607,-1.68196,0.0722858,0.075186,-0.0296886,0.0860095,0.0096247,0.0859357,-0.0990888,0.82635,-1.03909,0.00349269,8.09829,4.82842,8.18688,-10.4822,17.9129,-32.1142,0.325077,21.6661,7.21011,21.7103,-19.4631,10.581,-14.0805,0.0701635,0.0797904,0.00487941,-0.0582339,-1.67537,0.0678012,0.0921018,-0.0298682,0.0159863,-0.00134652,0.0198621,-0.049704,0.918222,-1.33323,0.0115533,2.53057,-12.271,2.01407,-6.47796,47.2599,-80.6838,1.43332,9.33857,-39.0648,9.01063,18.7823,3.68377,-3.57063,0.0440523,
0.0860094,0.00504059,-0.052008,-1.68338,0.0800668,0.0655929,-0.0296447,0.0975447,0.0160917,0.0975657,-0.114786,0.855605,-1.0711,0.00389104,7.20951,4.04188,7.26879,-9.81065,18.2847,-20.0058,0.248967,20.5154,6.96145,20.5491,-19.0445,10.581,-14.0805,0.0631984,0.0797904,0.00487941,-0.0582339,-1.67537,0.0678012,0.0921018,-0.0298682,0.0159863,-0.00134652,0.0198621,-0.049704,0.918222,-1.33323,0.0115533,0,0,0,0,0,0,0,9.33857,-39.0648,9.01063,18.7823,3.68377,-3.57063,0.0440523,
0.0846948,0.00357505,-0.0534027,-1.68455,0.103984,0.0432048,-0.0296496,0.109553,0.00887407,0.109121,-0.144187,0.874366,-1.08294,0.00381077,7.50508,-4.51102,7.22232,-18.3755,11.7257,-7.39833,-0.0501688,24.2434,2.64186,23.9441,-27.6296,10.581,-14.0805,0.0503749,0.0797904,0.00487941,-0.0582339,-1.67537,0.0678012,0.0921018,-0.0298682,0.0159863,-0.00134652,0.0198621,-0.049704,0.918222,-1.33323,0.0115533,0,0,0,0,0,0,0,9.33857,-39.0648,9.01063,18.7823,3.68377,-3.57063,0.0440523,
0.0860144,0.00346129,-0.0521014,-1.68671,0.111765,0.0350537,-0.0296233,0.120632,0.00425512,0.11983,-0.169423,0.894006,-1.07012,0.00370622,6.92475,-2.88685,6.693,-15.7726,12.275,8.00691,-0.0653395,22.8065,2.07567,22.5225,-27.2246,10.581,-14.0805,0.0354463,0.0797904,0.00487941,-0.0582339,-1.67537,0.0678012,0.0921018,-0.0298682,0.0159863,-0.00134652,0.0198621,-0.049704,0.918222,-1.33323,0.0115533,0,0,0,0,0,0,0,9.33857,-39.0648,9.01063,18.7823,3.68377,-3.57063,0.0440523,
0.0873716,0.0033873,-0.0507627,-1.68891,0.119696,0.0278639,-0.0295959,0.130435,0.0015545,0.129331,-0.190532,0.913488,-1.03584,0.00364889,6.12633,-1.68789,5.93814,-13.1936,12.176,21.4247,-0.0358369,21.6186,1.53306,21.3459,-26.8436,10.581,-14.0805,0.0284473,0.0797904,0.00487941,-0.0582339,-1.67537,0.0678012,0.0921018,-0.0298682,0.0159863,-0.00134652,0.0198621,-0.049704,0.918222,-1.33323,0.0115533,0,0,0,0,0,0,0,9.33857,-39.0648,9.01063,18.7823,3.68377,-3.57063,0.0440523,
0.0887501,0.00334517,-0.0494026,-1.69112,0.127745,0.0216471,-0.0295675,0.138812,0.000190245,0.137467,-0.207723,0.932007,-0.984096,0.00363028,5.23609,-0.852658,5.08487,-10.7439,11.5743,32.3433,-0.0116264,20.8504,1.4514,20.5864,-26.5908,10.5409,-11.5664,0.0252363,0.082526,0.00372777,-0.0543304,-1.68241,0.107635,0.0363158,-0.029836,0.151612,-0.0491034,0.148386,-0.312257,1.02402,-1.72236,-0.00125736,16.9532,-5.96961,16.0655,-32.8191,13.2253,-48.6409,-1.60133,18.2134,-26.7107,17.3102,16.2155,3.15277,-2.00599,0.0376436,
0.089961,0.00403648,-0.0469106,-1.6955,0.148134,-0.00927257,-0.0296599,0.149798,0.00542742,0.148617,-0.232353,0.950748,-0.944781,0.00362791,6.86613,3.27324,6.96878,-15.3939,11.713,24.5715,-0.00148616,22.6771,5.33551,22.6113,-30.9892,10.5409,-11.1507,0.0407112,0.082526,0.00372777,-0.0543304,-1.68241,0.107635,0.0363158,-0.029836,0.151612,-0.0491034,0.148386,-0.312257,1.02402,-1.72236,-0.00125736,0,0,0,0,0,0,0,18.2134,-26.7107,17.3102,16.2155,3.15277,-2.00599,0.0376436,
0.0915049,0.00427629,-0.0453711,-1.69812,0.156384,-0.0144026,-0.0296292,0.158435,0.0103371,0.157381,-0.251381,0.966855,-0.884077,0.00367105,5.39811,3.06857,5.47774,-11.8924,10.0673,37.9404,0.0269655,21.5018,4.54059,21.441,-30.7083,10.5409,-9.11202,0.0326398,0.082526,0.00372777,-0.0543304,-1.68241,0.107635,0.0363158,-0.029836,0.151612,-0.0491034,0.148386,-0.312257,1.02402,-1.72236,-0.00125736,0,0,0,0,0,0,0,18.2134,-26.7107,17.3102,16.2155,3.15277,-2.00599,0.0376436,
0.0930329,0.00453303,-0.0438475,-1.7007,0.164666,-0.0184854,-0.0295965,0.164949,0.0146882,0.163996,-0.265618,0.980519,-0.80933,0.00375324,4.07127,2.71939,4.13392,-8.89818,8.53965,46.7168,0.0513684,20.5258,3.91396,20.4685,-30.4174,10.5409,-7.33525,0.0315178,0.082526,0.00372777,-0.0543304,-1.68241,0.107635,0.0363158,-0.029836,0.151612,-0.0491034,0.148386,-0.312257,1.02402,-1.72236,-0.00125736,0,0,0,0,0,0,0,18.2134,-26.7107,17.3102,16.2155,3.15277,-2.00599,0.0376436,
0.0945385,0.0047986,-0.0423464,-1.70323,0.172965,-0.0216348,-0.0295619,0.169598,0.0183899,0.168725,-0.275824,0.991904,-0.726201,0.00386711,2.90555,2.3136,2.95579,-6.37857,7.11556,51.9557,0.0711671,19.9849,3.47342,19.9298,-29.8917,10.5283,-5.28447,0.0287335,0.0890029,0.00066406,-0.0475427,-1.6982,0.147919,-0.0227009,-0.0298072,0.250174,-0.10632,0.255799,-0.583317,1.16751,-1.67785,0.00104012,12.3202,-7.1521,13.4266,-33.8825,17.9352,5.5642,0.287185,14.5357,-26.0085,14.0848,17.9849,4.00146,-0.461496,-0.0566557,
0.0984408,0.000660712,-0.0381688,-1.71623,0.192193,-0.0488018,-0.0296879,0.179747,0.0181488,0.17875,-0.30356,1.00993,-0.615622,0.00375664,6.34321,-0.150709,6.26568,-17.3356,11.2655,69.1118,-0.0690432,20.6196,1.10312,20.473,-37.4759,10.5283,-0.948631,0.0198905,0.0890029,0.00066406,-0.0475427,-1.6982,0.147919,-0.0227009,-0.0298072,0.250174,-0.10632,0.255799,-0.583317,1.16751,-1.67785,0.00104012,0,0,0,0,0,0,0,14.5357,-26.0085,14.0848,17.9849,4.00146,-0.461496,-0.0566557,
0.10014,0.000799879,-0.0364811,-1.71944,0.20077,-0.0490084,-0.029655,0.18628,0.0179982,0.185192,-0.322979,1.02238,-0.497664,0.00382965,4.08306,-0.0941026,4.02619,-12.1363,7.78466,73.7233,0.0456354,19.8353,0.621315,19.6944,-37.1276,10.5283,0.314009,0.0226404,0.0890029,0.00066406,-0.0475427,-1.6982,0.147919,-0.0227009,-0.0298072,0.250174,-0.10632,0.255799,-0.583317,1.16751,-1.67785,0.00104012,0,0,0,0,0,0,0,14.5357,-26.0085,14.0848,17.9849,4.00146,-0.461496,-0.0566557,
0.101777,0.000930803,-0.0348552,-1.72254,0.209278,-0.0482735,-0.029617,0.189956,0.0176717,0.188803,-0.335978,1.0306,-0.379758,0.00401134,2.2973,-0.20409,2.2567,-8.12465,5.13765,73.6917,0.113556,19.1449,0.333977,19.0087,-36.7338,10.5283,1.3474,0.0276109,0.0890029,0.00066406,-0.0475427,-1.6982,0.147919,-0.0227009,-0.0298072,0.250174,-0.10632,0.255799,-0.583317,1.16751,-1.67785,0.00104012,0,0,0,0,0,0,0,14.5357,-26.0085,14.0848,17.9849,4.00146,-0.461496,-0.0566557,
0.111778,0.00167591,-0.0257666,-1.7398,0.242147,-0.0683708,-0.0296567,0.200055,0.0230882,0.199084,-0.361521,1.05034,-0.212469,0.00411327,6.3121,3.38534,6.42609,-15.9645,12.3344,104.555,0.063706,18.0996,0.196027,18.1105,-42.079,10.4186,8.5564,0.00889655,0.100548,3.55024e-05,-0.0369801,-1.71884,0.194421,-0.0693753,-0.0297544,0.348286,-0.0286653,0.365237,-0.700437,1.30887,-1.06747,0.00156767,12.264,9.70685,13.6798,-14.64,17.6704,76.297,0.0659434,6.49799,-25.7109,6.36049,25.4315,2.48718,3.43773,-0.0429228,
0.113581,0.00200805,-0.0239656,-1.74335,0.250991,-0.0638942,-0.029608,0.205103,0.026774,0.204293,-0.377955,1.06136,-0.058059,0.00450926,3.15527,2.30364,3.25505,-10.2708,6.888,96.5065,0.247493,17.7715,0.263353,17.7847,-41.5943,10.4186,8.82075,0.0239569,0.100548,3.55024e-05,-0.0369801,-1.71884,0.194421,-0.0693753,-0.0297544,0.348286,-0.0286653,0.365237,-0.700437,1.30887,-1.06747,0.00156767,0,0,0,0,0,0,0,6.49799,-25.7109,6.36049,25.4315,2.48718,3.43773,-0.0429228,
0.115275,0.00231304,-0.0222725,-1.74676,0.259677,-0.0588521,-0.0295499,0.20643,0.029044,0.205761,-0.387728,1.06625,0.0796055,0.00505929,0.828787,1.41872,0.917517,-6.10844,3.05389,86.0403,0.343768,17.4126,0.438415,17.4284,-41.0804,10.4186,8.94629,0.0368688,0.100548,3.55024e-05,-0.0369801,-1.71884,0.194421,-0.0693753,-0.0297544,0.348286,-0.0286653,0.365237,-0.700437,1.30887,-1.06747,0.00156767,0,0,0,0,0,0,0,6.49799,-25.7109,6.36049,25.4315,2.48718,3.43773,-0.0429228,
0.116875,0.00259301,-0.0206715,-1.75006,0.268124,-0.0534474,-0.0294902,0.205164,0.0302345,0.204635,-0.392494,1.06417,0.198801,0.00554042,-0.790797,0.744095,-0.703553,-2.97842,-1.29892,74.4974,0.300708,17.0472,0.691048,17.0657,-40.5305,10.4186,8.9826,0.0477643,0.100548,3.55024e-05,-0.0369801,-1.71884,0.194421,-0.0693753,-0.0297544,0.348286,-0.0286653,0.365237,-0.700437,1.30887,-1.06747,0.00156767,0,0,0,0,0,0,0,6.49799,-25.7109,6.36049,25.4315,2.48718,3.43773,-0.0429228,
0.111385,0.00115052,-0.0261753,-1.7411,0.241319,-0.0618334,-0.0295455,0.210139,0.0309141,0.209584,-0.411899,1.056,0.290434,0.00570841,3.10894,0.424691,3.0934,-12.1285,-5.10566,57.2702,0.10499,15.3282,-2.0439,15.3095,-44.2749,10.1823,11.737,0.0213938,0.113497,3.71746e-05,-0.0234981,-1.74768,0.243422,-0.0815567,-0.0297301,0.404309,0.0588804,0.421043,-0.983358,1.45525,0.0644307,0.0023545,7.00287,10.9432,6.97575,-35.3651,18.2976,141.488,0.0983547,1.50318,-33.1734,1.21095,29.1965,3.10333,4.96941,-0.0905302,
0.113129,0.00139422,-0.0244359,-1.74482,0.248447,-0.0556687,-0.029498,0.211723,0.0308236,0.211152,-0.422548,1.023,0.386466,0.00575491,0.99013,-0.0565536,0.979962,-6.6558,-20.6254,60.02,0.0290647,15.2549,-1.59256,15.2365,-43.6484,10.1823,11.737,0.0475633,0.113497,3.71746e-05,-0.0234981,-1.74768,0.243422,-0.0815567,-0.0297301,0.404309,0.0588804,0.421043,-0.983358,1.45525,0.0644307,0.0023545,0,0,0,0,0,0,0,1.50318,-33.1734,1.21095,29.1965,3.10333,4.96941,-0.0905302,
0.114793,0.00161,-0.022777,-1.74837,0.254463,-0.0488453,-0.029455,0.210975,0.0300534,0.210395,-0.426978,0.968786,0.479758,0.00567946,-0.467531,-0.481362,-0.473265,-2.76853,-33.8827,58.3075,-0.0471598,14.9756,-1.14983,14.9584,-43.0509,9.81169,11.737,0.0676804,0.113497,3.71746e-05,-0.0234981,-1.74768,0.243422,-0.0815567,-0.0297301,0.404309,0.0588804,0.421043,-0.983358,1.45525,0.0644307,0.0023545,0,0,0,0,0,0,0,1.50318,-33.1734,1.21095,29.1965,3.10333,4.96941,-0.0905302,
0.111385,0.00115052,-0.0261753,-1.7411,0.241319,-0.0618334,-0.0295455,0.214787,0.0307691,0.214192,-0.439487,0.979693,0.515199,0.00581963,2.38263,0.447336,2.37338,-7.81793,6.81709,22.1506,0.0876109,14.0018,-0.170865,13.9753,-41.8331,7.52282,11.737,0.0681384,0.113497,3.71746e-05,-0.0234981,-1.74768,0.243422,-0.0815567,-0.0297301,0.404309,0.0588804,0.421043,-0.983358,1.45525,0.0644307,0.0023545,0,0,0,0,0,0,0,1.50318,-33.1734,1.21095,29.1965,3.10333,4.96941,-0.0905302,
0.127381,0.00532782,-0.00967095,-1.77307,0.282988,-0.0551407,-0.0295253,0.217556,0.0382628,0.216885,-0.438654,0.871347,0.574703,0.00553154,1.73059,4.68354,1.6828,0.520163,-67.7167,37.1901,-0.180056,13.5458,0.0285694,13.509,-40.883,5.49105,11.7959,0.0580208,0.128378,0.00162603,-0.00867424,-1.78279,0.294203,-0.057257,-0.0296846,0.391494,0.0926804,0.451795,-0.967356,1.39633,1.08835,0.00224491,-1.60185,4.22499,3.84405,2.00022,-7.36462,127.99,-0.0136991,-2.98779,-34.1454,-3.41094,28.7204,0.221249,4.15368,-0.0301054,
0.129084,0.00577711,-0.00797508,-1.77639,0.285534,-0.0484435,-0.0294869,0.216624,0.0418424,0.215905,-0.433901,0.76074,0.627193,0.0053841,-0.582573,2.23728,-0.612621,2.97071,-69.129,32.8064,-0.0921524,13.2653,0.497748,13.2262,-40.1989,4.05619,11.7959,0.05104,0.128378,0.00162603,-0.00867424,-1.78279,0.294203,-0.057257,-0.0296846,0.391494,0.0926804,0.451795,-0.967356,1.39633,1.08835,0.00224491,0,0,0,0,0,0,0,-2.98779,-34.1454,-3.41094,28.7204,0.221249,4.15368,-0.0301054,
0.130682,0.00614683,-0.00638417,-1.77957,0.287246,-0.0416936,-0.0294435,0.213242,0.042717,0.212497,-0.426772,0.651395,0.670501,0.00539401,-2.11381,0.546581,-2.13015,4.45584,-68.3412,27.0677,0.00619347,13.1158,0.881575,13.076,-39.5169,2.81337,11.7959,0.048305,0.128378,0.00162603,-0.00867424,-1.78279,0.294203,-0.057257,-0.0296846,0.391494,0.0926804,0.451795,-0.967356,1.39633,1.08835,0.00224491,0,0,0,0,0,0,0,-2.98779,-34.1454,-3.41094,28.7204,0.221249,4.15368,-0.0301054,
0.140485,0.00692267,0.00337788,-1.80202,0.317423,-0.0257533,-0.0295412,0.219029,0.0504135,0.218186,-0.423213,0.570412,0.692984,0.00529224,3.61695,4.81037,3.55623,2.22415,-50.6143,14.0518,-0.0636034,13.0634,1.17261,13.0238,-38.8508,1.7932,11.3863,0.0457938,0.128378,0.00162603,-0.00867424,-1.78279,0.294203,-0.057257,-0.0296846,0.391494,0.0926804,0.451795,-0.967356,1.39633,1.08835,0.00224491,0,0,0,0,0,0,0,-2.98779,-34.1454,-3.41094,28.7204,0.221249,4.15368,-0.0301054,
0.14226,0.00743382,0.00514457,-1.80516,0.318551,-0.0195537,-0.0294955,0.219617,0.0531096,0.218717,-0.417059,0.484538,0.709376,0.00537681,0.367818,1.68502,0.331278,3.84633,-53.671,10.2448,0.0528516,12.8883,1.27613,12.8454,-38.2826,0.698952,10.69,0.0538764,0.143064,0.00268678,0.00633332,-1.81532,0.334331,-0.0117397,-0.0296342,0.385511,0.0365402,0.48485,-0.874589,0.761459,1.42854,0.00416456,-0.747799,-7.01752,4.1318,11.5959,-79.3592,42.523,0.239956,-4.45569,-34.1731,-4.86296,21.8729,0.813595,0.785452,-0.00996382,
0.143903,0.00783863,0.00677871,-1.8082,0.319008,-0.0134536,-0.0294449,0.216757,0.0526079,0.215827,-0.409429,0.399046,0.720004,0.00556579,-1.78782,-0.313567,-1.80624,4.76892,-53.4324,6.64256,0.118113,12.9524,1.39982,12.9103,-37.6481,-0.0199121,10.1813,0.0551615,0.143064,0.00268678,0.00633332,-1.81532,0.334331,-0.0117397,-0.0296342,0.385511,0.0365402,0.48485,-0.874589,0.761459,1.42854,0.00416456,0,0,0,0,0,0,0,-4.45569,-34.1731,-4.86296,21.8729,0.813595,0.785452,-0.00996382,
0.145436,0.00816182,0.00830372,-1.81114,0.318931,-0.0074795,-0.0293894,0.211725,0.0501661,0.210787,-0.401051,0.317312,0.725356,0.00584085,-3.14487,-1.5261,-3.15003,5.23625,-51.0836,3.3449,0.171914,13.0384,1.45737,12.997,-37.028,-0.631826,9.71177,0.0590422,0.143064,0.00268678,0.00633332,-1.81532,0.334331,-0.0117397,-0.0296342,0.385511,0.0365402,0.48485,-0.874589,0.761459,1.42854,0.00416456,0,0,0,0,0,0,0,-4.45569,-34.1731,-4.86296,21.8729,0.813595,0.785452,-0.00996382,
0.154762,0.00665939,0.017971,-1.83229,0.343411,0.0204388,-0.0294314,0.214973,0.0519709,0.213972,-0.395138,0.259253,0.721063,0.00596252,2.03016,1.128,1.99079,3.69552,-36.2869,-2.68335,0.0760435,13.123,1.46249,13.0824,-36.424,-1.09377,9.27753,0.0616847,0.143064,0.00268678,0.00633332,-1.81532,0.334331,-0.0117397,-0.0296342,0.385511,0.0365402,0.48485,-0.874589,0.761459,1.42854,0.00416456,0,0,0,0,0,0,0,-4.45569,-34.1731,-4.86296,21.8729,0.813595,0.785452,-0.00996382,
0.156428,0.00702673,0.0196278,-1.83517,0.343156,0.0258816,-0.0293745,0.213624,0.0507603,0.212597,-0.38818,0.201034,0.712921,0.006192,-0.843252,-0.756638,-0.858923,4.34867,-36.3868,-5.08878,0.143427,13.072,1.51418,13.024,-36.0595,-1.54232,8.6881,0.0710955,0.157831,0.00494632,0.0207155,-1.84511,0.351905,0.0390478,-0.0296299,0.362811,0.0405,0.469233,-0.800918,0.256776,1.43145,-0.00108003,-2.83753,0.494973,-1.95205,9.20889,-63.0854,0.363728,-0.655573,-3.31707,-34.3953,-3.63707,23.8644,0.116879,1.48125,0.0440523,
0.157966,0.00731459,0.0211582,-1.83798,0.342546,0.0311592,-0.0293141,0.209364,0.0478046,0.208338,-0.380698,0.14558,0.702276,0.00646444,-2.66239,-1.84729,-2.6621,4.67667,-34.659,-6.65279,0.170271,13.1296,1.45022,13.0824,-35.4785,-1.80164,8.31682,0.073749,0.157831,0.00494632,0.0207155,-1.84511,0.351905,0.0390478,-0.0296299,0.362811,0.0405,0.469233,-0.800918,0.256776,1.43145,-0.00108003,0,0,0,0,0,0,0,-3.31707,-34.3953,-3.63707,23.8644,0.116879,1.48125,0.0440523,
0.159402,0.00754285,0.0225861,-1.84072,0.341674,0.0362839,-0.0292505,0.203377,0.0439503,0.202368,-0.373011,0.0946441,0.689939,0.00675988,-3.74212,-2.40894,-3.73142,4.8042,-31.835,-7.71066,0.184652,13.1675,1.36647,13.121,-34.9049,-1.99877,7.97185,0.0772708,0.157831,0.00494632,0.0207155,-1.84511,0.351905,0.0390478,-0.0296299,0.362811,0.0405,0.469233,-0.800918,0.256776,1.43145,-0.00108003,0,0,0,0,0,0,0,-3.31707,-34.3953,-3.63707,23.8644,0.116879,1.48125,0.0440523,
0.168648,0.00865804,0.0314643,-1.861,0.352005,0.0681232,-0.0293775,0.204494,0.0461547,0.203417,-0.368636,0.0596329,0.672412,0.00688237,0.698206,1.37773,0.655645,2.73434,-21.882,-10.9542,0.0765594,13.1793,1.27103,13.1336,-34.3387,-2.11025,7.65428,0.0793936,0.157831,0.00494632,0.0207155,-1.84511,0.351905,0.0390478,-0.0296299,0.362811,0.0405,0.469233,-0.800918,0.256776,1.43145,-0.00108003,0,0,0,0,0,0,0,-3.31707,-34.3953,-3.63707,23.8644,0.116879,1.48125,0.0440523,
0.170177,0.00899969,0.032984,-1.86373,0.35117,0.0727491,-0.0293151,0.201826,0.0454651,0.200724,-0.3631,0.0268259,0.653578,0.00706542,-1.66718,-0.431013,-1.68306,3.46013,-20.5044,-11.7714,0.114404,13.1675,1.16955,13.1225,-33.7769,-2.18007,7.35856,0.081982,0.157831,0.00494632,0.0207155,-1.84511,0.351905,0.0390478,-0.0296299,0.362811,0.0405,0.469233,-0.800918,0.256776,1.43145,-0.00108003,0,0,0,0,0,0,0,-3.31707,-34.3953,-3.63707,23.8644,0.116879,1.48125,0.0440523,
0.171593,0.00926813,0.0343912,-1.86638,0.3502,0.0772243,-0.0292507,0.196862,0.0430829,0.195761,-0.356858,-0.0027953,0.634743,0.0072617,-3.10294,-1.48884,-3.10169,3.90132,-18.5132,-11.7721,0.122677,13.1401,1.11992,13.086,-33.3536,-2.14923,6.95746,0.0857757,0.171344,0.00723041,0.0341289,-1.87303,0.35578,0.0839006,-0.0295898,0.353234,0.0340563,0.427169,-0.794908,-0.0154978,1.25238,0.00393962,-1.19711,-0.805452,-5.25801,0.751191,-34.0342,-22.3827,0.627456,-1.05969,-33.8478,-1.28844,24.1898,1.5158,1.30913,-0.0301054,
0.181392,0.0109413,0.0440972,-1.88849,0.351936,0.107394,-0.0293118,0.19625,0.0458194,0.195075,-0.352955,-0.0236428,0.605553,0.00731469,-0.382596,1.71032,-0.428628,2.43889,-13.0297,-18.2435,0.0331192,12.9951,0.92408,12.9424,-32.2444,-2.08251,6.47076,0.0879245,0.171344,0.00723041,0.0341289,-1.87303,0.35578,0.0839006,-0.0295898,0.353234,0.0340563,0.427169,-0.794908,-0.0154978,1.25238,0.00393962,0,0,0,0,0,0,0,-1.05969,-33.8478,-1.28844,24.1898,1.5158,1.30913,-0.0301054,
0.182812,0.0112977,0.045507,-1.89109,0.351042,0.111192,-0.0292496,0.192507,0.045566,0.191305,-0.34757,-0.0412543,0.579408,0.0074051,-2.33895,-0.158391,-2.35631,3.3656,-11.0072,-16.341,0.0565058,12.8912,0.834597,12.8393,-31.6917,-2.01714,6.25276,0.0885733,0.171344,0.00723041,0.0341289,-1.87303,0.35578,0.0839006,-0.0295898,0.353234,0.0340563,0.427169,-0.794908,-0.0154978,1.25238,0.00393962,0,0,0,0,0,0,0,-1.05969,-33.8478,-1.28844,24.1898,1.5158,1.30913,-0.0301054,
0.18413,0.01158,0.0468148,-1.89362,0.350127,0.11491,-0.0291867,0.186938,0.0435118,0.185737,-0.341244,-0.0558666,0.556476,0.0074976,-3.48102,-1.28389,-3.4803,3.9537,-9.13272,-14.3321,0.0578115,12.7681,0.7525,12.7169,-31.1396,-1.92968,6.05221,0.0884398,0.171344,0.00723041,0.0341289,-1.87303,0.35578,0.0839006,-0.0295898,0.353234,0.0340563,0.427169,-0.794908,-0.0154978,1.25238,0.00393962,0,0,0,0,0,0,0,-1.05969,-33.8478,-1.28844,24.1898,1.5158,1.30913,-0.0301054,
0.185364,0.011806,0.0480403,-1.89608,0.349208,0.118563,-0.0291235,0.180409,0.0404597,0.179227,-0.334349,-0.0676678,0.536487,0.0075765,-4.08033,-1.90756,-4.06862,4.30951,-7.37573,-12.4934,0.0493134,12.6655,0.635123,12.6056,-30.6541,-1.77711,5.77534,0.0890153,0.183791,0.00901022,0.0469811,-1.89936,0.354136,0.12245,-0.0295589,0.334459,0.0381056,0.402026,-0.739914,-0.093581,1.08197,0.00405529,-2.34685,0.506156,-3.14285,6.87422,-9.7604,-21.3016,0.0144594,0.134464,-33.5463,-0.260912,23.2892,0.898739,1.54168,0.0376436,
0.193234,0.0124942,0.0563392,-1.91398,0.350183,0.141924,-0.0292892,0.180704,0.0430345,0.179449,-0.331007,-0.0708824,0.510838,0.00748004,0.184206,1.60927,0.138499,2.08883,-2.00912,-16.0305,-0.0602896,12.5119,0.568209,12.4528,-30.1024,-1.67424,5.60169,0.088245,0.183791,0.00901022,0.0469811,-1.89936,0.354136,0.12245,-0.0295589,0.334459,0.0381056,0.402026,-0.739914,-0.093581,1.08197,0.00405529,0,0,0,0,0,0,0,0.134464,-33.5463,-0.260912,23.2892,0.898739,1.54168,0.0376436,
0.194567,0.0128292,0.0576609,-1.91643,0.349522,0.14513,-0.0292315,0.177882,0.0428042,0.176601,-0.326012,-0.0732325,0.488805,0.00742786,-1.76353,-0.143914,-1.78,3.12218,-1.46881,-13.7708,-0.0326149,12.3466,0.508469,12.2883,-29.5507,-1.57241,5.43812,0.0873844,0.183791,0.00901022,0.0469811,-1.89936,0.354136,0.12245,-0.0295589,0.334459,0.0381056,0.402026,-0.739914,-0.093581,1.08197,0.00405529,0,0,0,0,0,0,0,0.134464,-33.5463,-0.260912,23.2892,0.898739,1.54168,0.0376436,
0.195803,0.0130946,0.0588866,-1.91879,0.348869,0.148298,-0.0291736,0.173202,0.0408772,0.171923,-0.319941,-0.0749096,0.470254,0.00738785,-2.92526,-1.20439,-2.92352,3.79435,-1.04818,-11.5944,-0.0250023,12.1706,0.455945,12.113,-28.9988,-1.46722,5.28647,0.0860749,0.183791,0.00901022,0.0469811,-1.89936,0.354136,0.12245,-0.0295589,0.334459,0.0381056,0.402026,-0.739914,-0.093581,1.08197,0.00405529,0,0,0,0,0,0,0,0.134464,-33.5463,-0.260912,23.2892,0.898739,1.54168,0.0376436,
0.19696,0.0133067,0.0600349,-1.92108,0.348228,0.151438,-0.0291163,0.167503,0.0380036,0.166244,-0.313199,-0.0759508,0.454711,0.00734286,-3.56182,-1.79604,-3.54915,4.21385,-0.650777,-9.71427,-0.0281216,12.0295,0.30583,11.9619,-28.4662,-1.29817,5.07834,0.0848228,0.195412,0.0109038,0.0591689,-1.92374,0.350747,0.155455,-0.0295167,0.327198,0.0400468,0.345074,-0.683196,-0.0946825,0.91345,0.00144191,-0.907646,0.242645,-7.11908,7.08977,-0.137695,-21.065,-0.326673,-0.702633,-32.9988,-1.01073,22.3926,0.733944,1.98571,0.017502,
0.204108,0.0141232,0.0677741,-1.93745,0.347654,0.171598,-0.0292672,0.167667,0.0402681,0.16634,-0.309795,-0.0718359,0.432978,0.00715198,0.102356,1.41536,0.0597811,2.12693,2.57181,-13.5829,-0.119299,11.8379,0.265684,11.7712,-27.9145,-1.19876,4.94447,0.0830817,0.195412,0.0109038,0.0591689,-1.92374,0.350747,0.155455,-0.0295167,0.327198,0.0400468,0.345074,-0.683196,-0.0946825,0.91345,0.00144191,0,0,0,0,0,0,0,-0.702633,-32.9988,-1.01073,22.3926,0.733944,1.98571,0.017502,
0.205343,0.0144331,0.0689977,-1.93973,0.347229,0.174348,-0.0292158,0.165012,0.0399626,0.163662,-0.304729,-0.0680921,0.415128,0.00700626,-1.6591,-0.190976,-1.67365,3.16636,2.33989,-11.1564,-0.0910758,11.6411,0.230641,11.5751,-27.3631,-1.10549,4.81704,0.0812236,0.195412,0.0109038,0.0591689,-1.92374,0.350747,0.155455,-0.0295167,0.327198,0.0400468,0.345074,-0.683196,-0.0946825,0.91345,0.00144191,0,0,0,0,0,0,0,-0.702633,-32.9988,-1.01073,22.3926,0.733944,1.98571,0.017502,
0.206489,0.0146783,0.0701335,-1.94192,0.346815,0.177093,-0.0291649,0.160671,0.0380998,0.159326,-0.298582,-0.0648333,0.400747,0.00687769,-2.71321,-1.16423,-2.71041,3.84202,2.03673,-8.98787,-0.0803552,11.4396,0.200522,11.3745,-26.8117,-1.01633,4.69736,0.0791321,0.195412,0.0109038,0.0591689,-1.92374,0.350747,0.155455,-0.0295167,0.327198,0.0400468,0.345074,-0.683196,-0.0946825,0.91345,0.00144191,0,0,0,0,0,0,0,-0.702633,-32.9988,-1.01073,22.3926,0.733944,1.98571,0.017502,
0.2152,0.0157766,0.07899,-1.95973,0.346197,0.195673,-0.0291114,0.160901,0.0392165,0.159479,-0.29365,-0.0559675,0.377971,0.00657857,0.143721,0.697939,0.095638,3.08266,5.54117,-14.2355,-0.186947,11.0887,0.0620425,11.0125,-25.6695,-0.785407,4.45018,0.074387,0.206776,0.0129816,0.0706587,-1.94693,0.347756,0.182914,-0.0293259,0.292621,0.0218662,0.36226,-0.647835,-0.056955,0.750716,0.00535153,-4.32215,-2.27257,2.14835,4.42008,4.71594,-20.3417,0.488702,-2.20227,-33.1218,-2.26042,22.8687,0.703732,1.32928,-0.0227812,
0.216382,0.0160513,0.0801597,-1.96182,0.34603,0.198,-0.0290683,0.158276,0.0382401,0.156825,-0.287355,-0.0489269,0.36056,0.0063408,-1.64071,-0.610266,-1.6583,3.93446,4.40037,-10.8818,-0.148609,10.8799,0.0426361,10.8046,-25.1198,-0.715636,4.34582,0.0719411,0.206776,0.0129816,0.0706587,-1.94693,0.347756,0.182914,-0.0293259,0.292621,0.0218662,0.36226,-0.647835,-0.056955,0.750716,0.00535153,0,0,0,0,0,0,0,-2.20227,-33.1218,-2.26042,22.8687,0.703732,1.32928,-0.0227812,
0.217475,0.0162683,0.0812405,-1.96384,0.345854,0.200362,-0.0290258,0.15393,0.036017,0.152482,-0.280221,-0.0435639,0.347499,0.00613526,-2.71581,-1.38941,-2.7144,4.45866,3.35183,-8.16309,-0.128465,10.6698,0.0260984,10.5955,-24.5704,-0.651973,4.24642,0.0693963,0.206776,0.0129816,0.0706587,-1.94693,0.347756,0.182914,-0.0293259,0.292621,0.0218662,0.36226,-0.647835,-0.056955,0.750716,0.00535153,0,0,0,0,0,0,0,-2.20227,-33.1218,-2.26042,22.8687,0.703732,1.32928,-0.0227812,
0.218494,0.0164407,0.0822491,-1.96577,0.345664,0.202753,-0.0289844,0.148628,0.0331222,0.147201,-0.27261,-0.0395927,0.337769,0.0059444,-3.31395,-1.80929,-3.30109,4.7566,2.48205,-6.08128,-0.119281,10.4591,0.0116913,10.3857,-24.022,-0.595171,4.15029,0.0667868,0.206776,0.0129816,0.0706587,-1.94693,0.347756,0.182914,-0.0293259,0.292621,0.0218662,0.36226,-0.647835,-0.056955,0.750716,0.00535153,0,0,0,0,0,0,0,-2.20227,-33.1218,-2.26042,22.8687,0.703732,1.32928,-0.0227812,
0.214994,0.0159026,0.0787818,-1.95899,0.346726,0.194285,-0.0291565,0.149913,0.0355711,0.148427,-0.268799,-0.0327108,0.320041,0.00561387,0.802895,1.53059,0.766218,2.3818,4.30114,-11.0799,-0.206586,10.2814,-0.139048,10.1987,-23.4339,-0.494143,4.03968,0.0639934,0.217487,0.014316,0.0816124,-1.96828,0.3462,0.205927,-0.0292806,0.214552,0.00897686,0.393532,-0.612885,-0.0153931,0.644802,0.000899695,-9.75861,-1.61117,3.90897,4.36878,5.19523,-13.2393,-0.556479,-1.44055,-33.225,-1.61376,24.8364,1.1734,2.31072,0.050461,
0.216119,0.0161867,0.0798952,-1.96092,0.346671,0.196318,-0.0291219,0.148073,0.0355605,0.146575,-0.263344,-0.0275426,0.306846,0.00535609,-1.15011,-0.00665012,-1.1574,3.40977,3.23016,-8.24649,-0.161112,10.0703,-0.149914,9.98852,-22.8867,-0.45026,3.95041,0.0613186,0.217487,0.014316,0.0816124,-1.96828,0.3462,0.205927,-0.0292806,0.214552,0.00897686,0.393532,-0.612885,-0.0153931,0.644802,0.000899695,0,0,0,0,0,0,0,-1.44055,-33.225,-1.61376,24.8364,1.1734,2.31072,0.050461,
0.217154,0.0164102,0.0809182,-1.96276,0.34659,0.198395,-0.0290877,0.144317,0.0340356,0.142835,-0.256836,-0.0240547,0.297392,0.0051396,-2.34753,-0.953083,-2.33709,4.0676,2.17992,-5.90916,-0.135306,9.85906,-0.159308,9.77828,-22.3399,-0.412559,3.86462,0.0586344,0.217487,0.014316,0.0816124,-1.96828,0.3462,0.205927,-0.0292806,0.214552,0.00897686,0.393532,-0.612885,-0.0153931,0.644802,0.000899695,0,0,0,0,0,0,0,-1.44055,-33.225,-1.61376,24.8364,1.1734,2.31072,0.050461,
0.218114,0.0165868,0.0818679,-1.96453,0.346479,0.20051,-0.0290543,0.13946,0.0316436,0.138012,-0.249688,-0.0220166,0.290808,0.00494589,-3.03553,-1.49494,-3.01489,4.46692,1.2738,-4.11459,-0.121065,9.64804,-0.167771,9.56824,-21.7938,-0.381436,3.78138,0.0559583,0.217487,0.014316,0.0816124,-1.96828,0.3462,0.205927,-0.0292806,0.214552,0.00897686,0.393532,-0.612885,-0.0153931,0.644802,0.000899695,0,0,0,0,0,0,0,-1.44055,-33.225,-1.61376,24.8364,1.1734,2.31072,0.050461,
0.225135,0.0168977,0.0891763,-1.97938,0.345879,0.215207,-0.0291447,0.140413,0.0334053,0.138906,-0.24581,-0.016748,0.275103,0.00463766,0.596043,1.10105,0.55913,2.42411,3.29286,-9.8156,-0.192644,9.43107,-0.289218,9.34179,-21.206,-0.318114,3.6942,0.0531918,0.228748,0.0158379,0.0901263,-1.98707,0.345895,0.225046,-0.029266,0.270172,0.0497114,0.271601,-0.549277,0.0255594,0.488971,0.00169971,6.95253,5.09182,-15.2414,7.95103,5.11906,-19.4788,0.100002,-1.13507,-35.8672,-0.836168,26.7288,0.538937,2.54235,0.00376909,
0.22618,0.0171501,0.0902088,-1.98113,0.345881,0.216972,-0.0291171,0.138458,0.0330348,0.136938,-0.240331,-0.0133594,0.264208,0.0043997,-1.22182,-0.231592,-1.2301,3.42411,2.11793,-6.80974,-0.148729,9.22037,-0.296219,9.13209,-20.6604,-0.299683,3.61667,0.050607,0.228748,0.0158379,0.0901263,-1.98707,0.345895,0.225046,-0.029266,0.270172,0.0497114,0.271601,-0.549277,0.0255594,0.488971,0.00169971,0,0,0,0,0,0,0,-1.13507,-35.8672,-0.836168,26.7288,0.538937,2.54235,0.00376909,
0.227138,0.0173474,0.0911553,-1.98279,0.345838,0.218801,-0.0290898,0.13472,0.0313602,0.133214,-0.23383,-0.0117501,0.257099,0.00420365,-2.33679,-1.04658,-2.32766,4.06311,1.00578,-4.44289,-0.12253,9.00976,-0.302676,8.9225,-20.1148,-0.287247,3.54218,0.0480766,0.228748,0.0158379,0.0901263,-1.98707,0.345895,0.225046,-0.029266,0.270172,0.0497114,0.271601,-0.549277,0.0255594,0.488971,0.00169971,0,0,0,0,0,0,0,-1.13507,-35.8672,-0.836168,26.7288,0.538937,2.54235,0.00376909,
0.235682,0.0187414,0.0969618,-1.99741,0.345788,0.232102,-0.0291523,0.134051,0.033876,0.132488,-0.229389,-0.00995228,0.240716,0.00391758,-0.418092,1.57235,-0.453692,2.77589,1.12365,-10.2398,-0.178793,8.58906,-0.315157,8.50388,-19.0228,-0.281787,3.4017,0.0432756,0.228748,0.0158379,0.0901263,-1.98707,0.345895,0.225046,-0.029266,0.270172,0.0497114,0.271601,-0.549277,0.0255594,0.488971,0.00169971,0,0,0,0,0,0,0,-1.13507,-35.8672,-0.836168,26.7288,0.538937,2.54235,0.00376909,
0.236634,0.0190145,0.0979008,-1.999,0.345715,0.233603,-0.0291297,0.131043,0.0339282,0.129466,-0.2233,-0.00977286,0.2301,0.00369767,-1.87959,0.0326356,-1.8888,3.80533,0.11214,-6.63501,-0.137444,8.35781,-0.485315,8.26442,-18.4393,-0.273222,3.32351,0.0411334,0.236727,0.016797,0.100319,-2.00387,0.345889,0.24045,-0.0292695,0.360621,0.0501956,0.130453,-0.47322,0.016542,0.447096,0.000475322,11.3061,0.060527,-17.6435,9.50714,-1.12718,-5.23444,-0.153048,-1.92059,-34.2207,-1.98668,26.6058,0.581051,2.33727,0.0239107,
0.237506,0.0192268,0.098761,-2.0005,0.345586,0.235195,-0.0291072,0.126644,0.0324502,0.125077,-0.216179,-0.0110496,0.223869,0.00352033,-2.74987,-0.923787,-2.74271,4.45099,-0.797937,-3.89381,-0.110841,8.148,-0.491857,8.05567,-17.8914,-0.286094,3.26093,0.039003,0.236727,0.016797,0.100319,-2.00387,0.345889,0.24045,-0.0292695,0.360621,0.0501956,0.130453,-0.47322,0.016542,0.447096,0.000475322,0,0,0,0,0,0,0,-1.92059,-34.2207,-1.98668,26.6058,0.581051,2.33727,0.0239107,
0.238313,0.0193918,0.0995565,-2.00192,0.345398,0.236863,-0.029085,0.121489,0.0300837,0.11995,-0.208451,-0.0135328,0.220801,0.00337178,-3.2218,-1.47905,-3.20486,4.83005,-1.55203,-1.91749,-0.0928402,7.93871,-0.49892,7.84746,-17.3424,-0.305735,3.2015,0.0370175,0.236727,0.016797,0.100319,-2.00387,0.345889,0.24045,-0.0292695,0.360621,0.0501956,0.130453,-0.47322,0.016542,0.447096,0.000475322,0,0,0,0,0,0,0,-1.92059,-34.2207,-1.98668,26.6058,0.581051,2.33727,0.0239107,
0.243015,0.0192983,0.10649,-2.01293,0.345438,0.247308,-0.0291813,0.120898,0.0313931,0.119315,-0.203657,-0.0138479,0.210252,0.00315168,-0.368988,0.818384,-0.396653,2.99612,-0.196946,-6.59333,-0.137566,7.73,-0.506482,7.63985,-16.7918,-0.330739,3.14521,0.0351467,0.236727,0.016797,0.100319,-2.00387,0.345889,0.24045,-0.0292695,0.360621,0.0501956,0.130453,-0.47322,0.016542,0.447096,0.000475322,0,0,0,0,0,0,0,-1.92059,-34.2207,-1.98668,26.6058,0.581051,2.33727,0.0239107,
0.243872,0.0195225,0.107335,-2.01431,0.345256,0.248739,-0.0291624,0.118166,0.0307186,0.116576,-0.197452,-0.0156311,0.203975,0.00299325,-1.70763,-0.421538,-1.71158,3.87807,-1.1145,-3.92307,-0.0990186,7.52238,-0.51486,7.43332,-16.2396,-0.361996,3.09198,0.0334558,0.236727,0.016797,0.100319,-2.00387,0.345889,0.24045,-0.0292695,0.360621,0.0501956,0.130453,-0.47322,0.016542,0.447096,0.000475322,0,0,0,0,0,0,0,-1.92059,-34.2207,-1.98668,26.6058,0.581051,2.33727,0.0239107,
0.244657,0.0196935,0.108108,-2.01561,0.345009,0.250249,-0.0291432,0.114155,0.0288492,0.112582,-0.190366,-0.0186864,0.200932,0.00287476,-2.50671,-1.16839,-2.49622,4.429,-1.90953,-1.902,-0.0740517,7.32789,-0.664688,7.22939,-15.6413,-0.380686,3.03765,0.0319051,0.244341,0.0179018,0.109452,-2.01894,0.345826,0.253559,-0.0292703,0.096908,0.0204545,0.366196,-0.413458,0.0169265,0.388375,0.000814659,-32.9641,-3.71764,29.4679,7.47017,0.048074,-7.34013,0.0424172,-1.08349,-33.947,-1.33605,24.2889,1.13128,2.18438,0.00376909,
0.245382,0.0198231,0.108821,-2.01682,0.344698,0.251825,-0.0291239,0.109447,0.02632,0.107905,-0.182765,-0.0227218,0.200151,0.00278313,-2.94253,-1.58077,-2.92362,4.75054,-2.52213,-0.488019,-0.0572722,7.12367,-0.674957,7.0263,-15.0851,-0.421274,2.98964,0.0305122,0.244341,0.0179018,0.109452,-2.01894,0.345826,0.253559,-0.0292703,0.096908,0.0204545,0.366196,-0.413458,0.0169265,0.388375,0.000814659,0,0,0,0,0,0,0,-1.08349,-33.947,-1.33605,24.2889,1.13128,2.18438,0.00376909,
0.250162,0.0196618,0.115204,-2.02666,0.345239,0.259807,-0.0292006,0.109411,0.0261789,0.107828,-0.177322,-0.0231037,0.191844,0.00261773,-0.0227076,-0.0881574,-0.0477152,3.40164,-0.238718,-5.19222,-0.103373,6.92204,-0.686265,6.82582,-14.5265,-0.464445,2.9434,0.0292543,0.244341,0.0179018,0.109452,-2.01894,0.345826,0.253559,-0.0292703,0.096908,0.0204545,0.366196,-0.413458,0.0169265,0.388375,0.000814659,0,0,0,0,0,0,0,-1.08349,-33.947,-1.33605,24.2889,1.13128,2.18438,0.00376909,
0.25095,0.0198149,0.115978,-2.02782,0.344973,0.261155,-0.0291839,0.107207,0.0247723,0.10562,-0.170816,-0.0251198,0.187182,0.00251221,-1.37758,-0.879149,-1.37992,4.06623,-1.26007,-2.91376,-0.065951,6.72398,-0.698843,6.62892,-13.966,-0.510014,2.89809,0.0281694,0.244341,0.0179018,0.109452,-2.01894,0.345826,0.253559,-0.0292703,0.096908,0.0204545,0.366196,-0.413458,0.0169265,0.388375,0.000814659,0,0,0,0,0,0,0,-1.08349,-33.947,-1.33605,24.2889,1.13128,2.18438,0.00376909,
0.251666,0.0199279,0.116683,-2.0289,0.344644,0.262568,-0.0291665,0.103683,0.022641,0.102115,-0.16366,-0.028322,0.185083,0.00244648,-2.20247,-1.33203,-2.19108,4.47276,-2.00139,-1.31138,-0.0410818,6.53648,-0.825569,6.43703,-13.3599,-0.533094,2.84826,0.0272435,0.253959,0.0184633,0.114781,-2.032,0.345935,0.265303,-0.0292733,0.292405,0.00116384,0.123505,-0.39326,0.0128856,0.331186,0.00144077,24.4372,-2.41133,-30.3363,2.52478,-0.505119,-7.14863,0.078264,-1.44055,-33.2488,-1.0623,25.1578,0.569149,2.3565,-0.0026396,
0.252325,0.0200093,0.11733,-2.02991,0.344262,0.264028,-0.0291485,0.0994147,0.0201485,0.0978775,-0.156137,-0.0321971,0.184564,0.00240716,-2.6676,-1.55783,-2.64828,4.70183,-2.42188,-0.324945,-0.0245732,6.34839,-0.84063,6.25014,-12.7955,-0.576455,2.80089,0.0264673,0.253959,0.0184633,0.114781,-2.032,0.345935,0.265303,-0.0292733,0.292405,0.00116384,0.123505,-0.39326,0.0128856,0.331186,0.00144077,0,0,0,0,0,0,0,-1.44055,-33.2488,-1.0623,25.1578,0.569149,2.3565,-0.0026396,
0.259262,0.0199284,0.119979,-2.03876,0.344663,0.270337,-0.0292022,0.0992837,0.0204629,0.0977161,-0.151185,-0.0331729,0.174442,0.00230812,-0.0818871,0.19649,-0.100882,3.09486,-0.609936,-6.32611,-0.0619035,6.16691,-0.856788,6.0699,-12.2296,-0.614714,2.74993,0.0258537,0.253959,0.0184633,0.114781,-2.032,0.345935,0.265303,-0.0292733,0.292405,0.00116384,0.123505,-0.39326,0.0128856,0.331186,0.00144077,0,0,0,0,0,0,0,-1.44055,-33.2488,-1.0623,25.1578,0.569149,2.3565,-0.0026396,
0.259972,0.020056,0.120676,-2.03972,0.344339,0.271475,-0.0291856,0.097155,0.0195611,0.095589,-0.145086,-0.0346393,0.167992,0.00226307,-1.33045,-0.563643,-1.32942,3.81163,-0.916439,-4.03098,-0.0281553,5.99332,-0.874064,5.89757,-11.6628,-0.645398,2.69305,0.0253876,0.253959,0.0184633,0.114781,-2.032,0.345935,0.265303,-0.0292733,0.292405,0.00116384,0.123505,-0.39326,0.0128856,0.331186,0.00144077,0,0,0,0,0,0,0,-1.44055,-33.2488,-1.0623,25.1578,0.569149,2.3565,-0.0026396,
0.260615,0.0201472,0.121307,-2.04061,0.344002,0.272653,-0.0291679,0.093807,0.0179289,0.0922619,-0.13827,-0.0361393,0.163836,0.00225228,-2.09245,-1.0201,-2.07942,4.26021,-0.937532,-2.59786,-0.00673898,5.7951,-1.0223,5.69237,-11.064,-0.657762,2.62124,0.0251893,0.258041,0.0191049,0.12412,-2.04337,0.345511,0.275816,-0.0292755,0.202553,0.0182445,0.174016,-0.301332,-0.00381232,0.306356,-0.000364991,-11.2315,2.13508,6.31382,11.4911,-2.08724,-3.1037,-0.22572,-1.82141,-33.6495,-2.11363,24.2374,0.562741,2.11114,0.0440523,
0.262764,0.0203216,0.128754,-2.04877,0.344481,0.280721,-0.0292063,0.0925214,0.017476,0.0909528,-0.131287,-0.0331428,0.153509,0.00224197,-0.803541,-0.283099,-0.818193,4.36417,1.87283,-6.45404,-0.00644627,5.49581,-1.0596,5.3958,-9.93219,-0.649058,2.4553,0.0251951,0.258041,0.0191049,0.12412,-2.04337,0.345511,0.275816,-0.0292755,0.202553,0.0182445,0.174016,-0.301332,-0.00381232,0.306356,-0.000364991,0,0,0,0,0,0,0,-1.82141,-33.6495,-2.11363,24.2374,0.562741,2.11114,0.0440523,
0.263389,0.0204068,0.129366,-2.04952,0.344352,0.281607,-0.0291869,0.0896383,0.0161095,0.088075,-0.123771,-0.0297242,0.144954,0.00227922,-1.80192,-0.854008,-1.79867,4.69797,2.1366,-5.34699,0.0232778,5.36141,-1.07798,5.26284,-9.36959,-0.612953,2.3492,0.0254611,0.258041,0.0191049,0.12412,-2.04337,0.345511,0.275816,-0.0292755,0.202553,0.0182445,0.174016,-0.301332,-0.00381232,0.306356,-0.000364991,0,0,0,0,0,0,0,-1.82141,-33.6495,-2.11363,24.2374,0.562741,2.11114,0.0440523,
0.263953,0.0204604,0.129919,-2.0502,0.344282,0.282465,-0.0291679,0.0858137,0.0142281,0.0842728,-0.11603,-0.0255212,0.137423,0.00229855,-2.39035,-1.17589,-2.37633,4.83765,2.62691,-4.70707,0.0120849,5.2364,-1.09568,5.13929,-8.811,-0.55321,2.22554,0.0258108,0.258041,0.0191049,0.12412,-2.04337,0.345511,0.275816,-0.0292755,0.202553,0.0182445,0.174016,-0.301332,-0.00381232,0.306356,-0.000364991,0,0,0,0,0,0,0,-1.82141,-33.6495,-2.11363,24.2374,0.562741,2.11114,0.0440523,
0.264468,0.02049,0.130423,-2.05082,0.344259,0.28329,-0.0291474,0.0815385,0.0121226,0.080031,-0.108235,-0.0210159,0.130561,0.00235239,-2.67202,-1.31596,-2.65116,4.87205,2.8158,-4.28823,0.0336503,5.11397,-1.18671,5.01402,-8.23358,-0.462289,2.07476,0.0267649,0.266299,0.019505,0.12794,-2.05245,0.345162,0.285566,-0.0292764,0.0821,0.0107767,0.263965,-0.249132,-0.0125599,0.267523,-0.000689193,-15.0566,-0.933473,11.2436,6.52493,-1.09345,-4.85412,-0.0405253,-1.59131,-34.4231,-1.38762,26.3559,0.880428,2.61559,0.0440523,
0.270539,0.0203929,0.132113,-2.05667,0.345279,0.288984,-0.029197,0.0807665,0.0117462,0.0792425,-0.102247,-0.0125529,0.117879,0.00244406,-0.4825,-0.235233,-0.492819,3.74237,5.28936,-7.9265,0.057295,5.00299,-1.20067,4.90467,-7.68731,-0.352341,1.91433,0.0285893,0.266299,0.019505,0.12794,-2.05245,0.345162,0.285566,-0.0292764,0.0821,0.0107767,0.263965,-0.249132,-0.0125599,0.267523,-0.000689193,0,0,0,0,0,0,0,-1.59131,-34.4231,-1.38762,26.3559,0.880428,2.61559,0.0440523,
0.271089,0.0204427,0.132652,-2.05724,0.34554,0.289523,-0.0291694,0.0783805,0.0106426,0.076867,-0.09592,-0.00350732,0.107795,0.00264629,-1.49126,-0.689795,-1.48467,3.9546,5.65349,-6.30282,0.126393,4.87712,-1.20865,4.78077,-7.14846,-0.207433,1.73676,0.0297515,0.266299,0.019505,0.12794,-2.05245,0.345162,0.285566,-0.0292764,0.0821,0.0107767,0.263965,-0.249132,-0.0125599,0.267523,-0.000689193,0,0,0,0,0,0,0,-1.59131,-34.4231,-1.38762,26.3559,0.880428,2.61559,0.0440523,
0.271577,0.0204658,0.133129,-2.05775,0.345934,0.290075,-0.0291581,0.0748968,0.00909257,0.0734122,-0.0895902,0.00704121,0.100031,0.00239872,-2.17733,-0.968737,-2.15927,3.95613,6.59283,-4.85219,-0.154735,4.73455,-1.21899,4.63986,-6.63105,-0.0574066,1.56344,0.0284082,0.266299,0.019505,0.12794,-2.05245,0.345162,0.285566,-0.0292764,0.0821,0.0107767,0.263965,-0.249132,-0.0125599,0.267523,-0.000689193,0,0,0,0,0,0,0,-1.59131,-34.4231,-1.38762,26.3559,0.880428,2.61559,0.0440523,
0.272026,0.020472,0.133567,-2.05821,0.346245,0.290721,-0.0291492,0.0711264,0.00742783,0.0696831,-0.0831371,0.0133972,0.0961739,0.00214223,-2.35646,-1.04047,-2.33064,4.03322,3.97249,-2.41071,-0.160306,4.60083,-1.3049,4.50273,-6.09051,0.0180101,1.4218,0.0293185,0.270538,0.0195485,0.134062,-2.05941,0.345106,0.292454,-0.029277,0.271692,-0.00685438,0.0200591,-0.19478,0.0110777,0.167201,0.000480732,23.699,-2.20389,-30.4882,6.79401,2.9547,-12.5403,0.146241,-0.702633,-33.6971,-0.586229,25.0864,0.740353,2.25762,0.017502,
0.274174,0.0199755,0.1376,-2.06258,0.346707,0.294464,-0.0292084,0.0701266,0.00670998,0.0686805,-0.0778959,0.0210289,0.0881386,0.00204179,-0.624911,-0.448655,-0.626656,3.27575,4.76984,-5.02207,-0.0627725,4.44939,-1.29539,4.35311,-5.60091,0.141003,1.33158,0.0352064,0.270538,0.0195485,0.134062,-2.05941,0.345106,0.292454,-0.029277,0.271692,-0.00685438,0.0200591,-0.19478,0.0110777,0.167201,0.000480732,0,0,0,0,0,0,0,-0.702633,-33.6971,-0.586229,25.0864,0.740353,2.25762,0.017502,
0.274635,0.0199821,0.13805,-2.06298,0.347254,0.29489,-0.0291962,0.0676252,0.00553131,0.0661975,-0.0723564,0.0304944,0.0811552,0.00193749,-1.56335,-0.736667,-1.55188,3.46216,5.91591,-4.36465,-0.06519,4.19215,-1.28556,4.09984,-5.12055,0.351229,1.26482,0.0409341,0.270538,0.0195485,0.134062,-2.05941,0.345106,0.292454,-0.029277,0.271692,-0.00685438,0.0200591,-0.19478,0.0110777,0.167201,0.000480732,0,0,0,0,0,0,0,-0.702633,-33.6971,-0.586229,25.0864,0.740353,2.25762,0.017502,
0.275041,0.0199697,0.138447,-2.06333,0.347899,0.295274,-0.0291887,0.0642604,0.00411682,0.0628702,-0.0666152,0.0405172,0.0745211,0.00173807,-2.10303,-0.884057,-2.07953,3.58825,6.26423,-4.14633,-0.124637,3.80309,-1.35808,3.71757,-4.67049,0.621875,1.22796,0.0195013,0.270538,0.0195485,0.134062,-2.05941,0.345106,0.292454,-0.029277,0.271692,-0.00685438,0.0200591,-0.19478,0.0110777,0.167201,0.000480732,0,0,0,0,0,0,0,-0.702633,-33.6971,-0.586229,25.0864,0.740353,2.25762,0.017502,
0.275412,0.0199447,0.138808,-2.06362,0.348457,0.295628,-0.0291822,0.0606698,0.00266653,0.0593202,-0.0605515,0.0463607,0.0684662,0.00155321,-2.24409,-0.906434,-2.21876,3.78982,3.65219,-3.78427,-0.115538,3.6459,-1.29776,3.54856,-4.10867,0.131309,1.50471,0.0118247,0.270538,0.0195485,0.134062,-2.05941,0.345106,0.292454,-0.029277,0.271692,-0.00685438,0.0200591,-0.19478,0.0110777,0.167201,0.000480732,0,0,0,0,0,0,0,-0.702633,-33.6971,-0.586229,25.0864,0.740353,2.25762,0.017502,
0.27399,0.0200622,0.137416,-2.06201,0.346985,0.293546,-0.0292478,0.0604755,0.00308655,0.0591086,-0.0565233,0.0502634,0.0576319,0.00143501,-0.121439,0.262515,-0.13223,2.51761,2.43918,-6.77145,-0.0738723,3.56101,-1.35374,3.46936,-3.72552,0.144017,1.43678,0.0223081,0.270538,0.0195485,0.134062,-2.05941,0.345106,0.292454,-0.029277,0.271692,-0.00685438,0.0200591,-0.19478,0.0110777,0.167201,0.000480732,0,0,0,0,0,0,0,-0.702633,-33.6971,-0.586229,25.0864,0.740353,2.25762,0.017502,
0.274397,0.0200738,0.137812,-2.06228,0.347712,0.293606,-0.0292406,0.0585376,0.0027589,0.0571835,-0.0521098,0.0583782,0.0476227,0.0013274,-1.21121,-0.204779,-1.20322,2.75848,5.07179,-6.25577,-0.0672551,3.31403,-1.3977,3.23215,-3.38607,0.564507,1.15883,0.0221029,0.270538,0.0195485,0.134062,-2.05941,0.345106,0.292454,-0.029277,0.271692,-0.00685438,0.0200591,-0.19478,0.0110777,0.167201,0.000480732,0,0,0,0,0,0,0,-0.702633,-33.6971,-0.586229,25.0864,0.740353,2.25762,0.017502,
0.274747,0.0200659,0.138153,-2.06252,0.348617,0.293631,-0.0292345,0.0555952,0.00200903,0.0542779,-0.0475217,0.0693291,0.0387094,0.00121408,-1.839,-0.46867,-1.81599,2.86757,6.84427,-5.57082,-0.0708238,3.137,-1.39151,3.05731,-3.01212,0.658458,0.985639,0.0145028,0.270538,0.0195485,0.134062,-2.05941,0.345106,0.292454,-0.029277,0.271692,-0.00685438,0.0200591,-0.19478,0.0110777,0.167201,0.000480732,0,0,0,0,0,0,0,-0.702633,-33.6971,-0.586229,25.0864,0.740353,2.25762,0.017502,
0.273974,0.0201359,0.137404,-2.0616,0.344197,0.294874,-0.0292506,0.0559545,0.00276932,0.0546203,-0.0443703,0.0550139,0.0453652,0.00104093,0.224586,0.475179,0.214015,1.96961,-8.94695,4.15993,-0.108222,2.89316,-1.38858,2.80935,-2.13972,-1.10736,1.96015,0.0178083,0.270538,0.0195485,0.134062,-2.05941,0.345106,0.292454,-0.029277,0.271692,-0.00685438,0.0200591,-0.19478,0.0110777,0.167201,0.000480732,0,0,0,0,0,0,0,-0.702633,-33.6971,-0.586229,25.0864,0.740353,2.25762,0.017502,
0.274356,0.0201541,0.137775,-2.06181,0.344423,0.295427,-0.0292489,0.054292,0.00267138,0.0529735,-0.0406611,0.0496666,0.050117,0.000874316,-1.03907,-0.0612113,-1.02929,2.31825,-3.34208,2.96984,-0.104133,2.67454,-1.48462,2.59925,-1.822,-0.578707,1.70736,0.018182,0.274415,0.0195095,0.139338,-2.06422,0.345974,0.296355,-0.0292773,0.00936218,0.00326623,0.234883,-0.118353,0.0600399,0.105881,-7.27656e-05,-32.7913,1.26508,26.853,9.55343,6.12028,-7.66501,-0.0691871,-0.147213,-33.1734,-0.260912,24.761,1.06353,2.09832,0.0239107,
0.274674,0.0201499,0.138084,-2.06197,0.344877,0.29593,-0.0292496,0.0513965,0.00203114,0.0501201,-0.0366192,0.0510837,0.052665,0.000680946,-1.80973,-0.400153,-1.78337,2.52618,0.885703,1.59251,-0.120856,2.54443,-1.46367,2.4721,-1.49501,-0.344812,1.61407,0.0151846,0.274415,0.0195095,0.139338,-2.06422,0.345974,0.296355,-0.0292773,0.00936218,0.00326623,0.234883,-0.118353,0.0600399,0.105881,-7.27656e-05,0,0,0,0,0,0,0,-0.147213,-33.1734,-0.260912,24.761,1.06353,2.09832,0.0239107,
0.274947,0.0201291,0.138349,-2.06209,0.34543,0.296381,-0.0292491,0.0479526,0.00110406,0.0467128,-0.032267,0.0546827,0.0534125,0.000557883,-2.15239,-0.579421,-2.12958,2.72014,2.24933,0.467184,-0.0769145,2.40815,-1.43287,2.32491,-1.16178,-0.493274,1.78688,0.00878566,0.274415,0.0195095,0.139338,-2.06422,0.345974,0.296355,-0.0292773,0.00936218,0.00326623,0.234883,-0.118353,0.0600399,0.105881,-7.27656e-05,0,0,0,0,0,0,0,-0.147213,-33.1734,-0.260912,24.761,1.06353,2.09832,0.0239107,
0.277828,0.0197849,0.142724,-2.06589,0.33614,0.3077,-0.0292106,0.0506587,0.0010237,0.0494112,-0.0301302,-0.0162579,0.111104,0.000616004,1.69127,-0.0502263,1.68655,1.33547,-44.3378,36.0571,0.0363254,2.73715,-1.86847,2.66492,-0.861655,-4.70298,5.60193,0.0143314,0.274415,0.0195095,0.139338,-2.06422,0.345974,0.296355,-0.0292773,0.00936218,0.00326623,0.234883,-0.118353,0.0600399,0.105881,-7.27656e-05,0,0,0,0,0,0,0,-0.147213,-33.1734,-0.260912,24.761,1.06353,2.09832,0.0239107,
0.278238,0.0197731,0.143125,-2.06602,0.333896,0.310451,-0.0292042,0.0507784,0.000524202,0.0495386,-0.0272667,-0.0691269,0.157653,0.000654191,0.0748114,-0.312187,0.0796141,1.78971,-33.0432,29.0929,0.0238672,2.64267,-1.86451,2.57951,-0.676034,-4.10844,5.21185,0.0146543,0.279987,0.0194094,0.14149,-2.06717,0.348091,0.298975,-0.0292792,0.12914,-0.00198764,0.0785614,-0.0684681,0.0868878,0.0612494,-0.000211882,14.9722,-0.656734,-19.5402,6.23557,3.35598,-5.57892,-0.0173896,-1.13507,-33.098,-0.76079,24.5349,1.31439,2.03148,0.0376436,
0.278582,0.0197483,0.143459,-2.06611,0.3318,0.313207,-0.0291988,0.0492147,-0.00020158,0.0479968,-0.0240224,-0.107682,0.195024,0.000657884,-0.97727,-0.453614,-0.96364,2.02767,-24.0968,23.3569,0.00230816,2.56444,-1.80674,2.50495,-0.485782,-3.76041,4.90901,0.0106652,0.279987,0.0194094,0.14149,-2.06717,0.348091,0.298975,-0.0292792,0.12914,-0.00198764,0.0785614,-0.0684681,0.0868878,0.0612494,-0.000211882,0,0,0,0,0,0,0,-1.13507,-33.098,-0.76079,24.5349,1.31439,2.03148,0.0376436,
0.278878,0.0197129,0.143747,-2.06617,0.329716,0.316029,-0.0291948,0.0467874,-0.00104476,0.0455888,-0.0206947,-0.138249,0.226578,0.000626929,-1.51707,-0.526986,-1.50503,2.07983,-19.1042,19.7212,-0.0193472,2.46398,-1.70253,2.39152,-0.245136,-3.81148,4.70029,0.00960454,0.279987,0.0194094,0.14149,-2.06717,0.348091,0.298975,-0.0292792,0.12914,-0.00198764,0.0785614,-0.0684681,0.0868878,0.0612494,-0.000211882,0,0,0,0,0,0,0,-1.13507,-33.098,-0.76079,24.5349,1.31439,2.03148,0.0376436,
0.284982,0.0198243,0.146493,-2.06925,0.312738,0.333773,-0.0288716,0.0539308,0.00279988,0.0529381,-0.0221137,-0.279718,0.365073,0.00157033,4.46463,2.4029,4.59335,-0.886864,-88.4181,86.5597,0.589624,3.72403,-1.45915,3.71234,-0.940131,-11.9007,11.0843,0.0627576,0.279987,0.0194094,0.14149,-2.06717,0.348091,0.298975,-0.0292792,0.12914,-0.00198764,0.0785614,-0.0684681,0.0868878,0.0612494,-0.000211882,0,0,0,0,0,0,0,-1.13507,-33.098,-0.76079,24.5349,1.31439,2.03148,0.0376436,
0.285587,0.0199909,0.147098,-2.06941,0.306011,0.341148,-0.0288306,0.0582722,0.00640628,0.0574598,-0.0216702,-0.391952,0.476413,0.00227977,2.71338,2.254,2.82605,0.277181,-70.1465,69.5874,0.443403,4.14612,-0.937047,4.13919,-0.801142,-11.1314,11.0755,0.0639556,0.282115,0.019149,0.145933,-2.06877,0.349147,0.301071,-0.0292749,0.161977,-0.0183191,0.0100689,-0.0338629,0.0176874,0.0807251,0.000997716,4.10458,-2.04144,-8.56155,4.32565,-8.65005,2.43446,0.1512,-1.79364,-32.5981,-1.81212,24.2612,0.966488,2.32354,-0.0026396,
0.28614,0.0201715,0.147651,-2.06952,0.299515,0.348363,-0.0287934,0.0604359,0.00963934,0.0598107,-0.0200518,-0.475955,0.561512,0.00275494,1.35227,2.02067,1.46929,1.01147,-52.5019,53.1868,0.296982,4.50318,-0.422286,4.49403,-0.66887,-10.8437,11.0755,0.0632439,0.282115,0.019149,0.145933,-2.06877,0.349147,0.301071,-0.0292749,0.161977,-0.0183191,0.0100689,-0.0338629,0.0176874,0.0807251,0.000997716,0,0,0,0,0,0,0,-1.79364,-32.5981,-1.81212,24.2612,0.966488,2.32354,-0.0026396,
0.286648,0.0203614,0.148162,-2.06959,0.293341,0.35531,-0.0287589,0.0610465,0.012459,0.0606181,-0.0177246,-0.53512,0.622883,0.00306674,0.381681,1.76231,0.504646,1.45452,-36.9781,38.3572,0.194876,4.83063,0.0713664,4.84546,-0.619959,-9.84951,11.0755,0.0683822,0.282115,0.019149,0.145933,-2.06877,0.349147,0.301071,-0.0292749,0.161977,-0.0183191,0.0100689,-0.0338629,0.0176874,0.0807251,0.000997716,0,0,0,0,0,0,0,-1.79364,-32.5981,-1.81212,24.2612,0.966488,2.32354,-0.0026396,
0.286638,0.0181598,0.150483,-2.07067,0.310999,0.329908,-0.0287897,0.0703424,0.00564952,0.0699701,-0.0230924,-0.668662,0.682405,0.00428525,5.80988,-4.25595,5.84498,-3.35485,-83.4636,37.2013,0.761564,4.87625,-3.35865,4.905,-2.20766,-13.9421,11.0755,0.086496,0.282115,0.019149,0.145933,-2.06877,0.349147,0.301071,-0.0292749,0.161977,-0.0183191,0.0100689,-0.0338629,0.0176874,0.0807251,0.000997716,0,0,0,0,0,0,0,-1.79364,-32.5981,-1.81212,24.2612,0.966488,2.32354,-0.0026396,
0.287446,0.0180064,0.151286,-2.07102,0.301448,0.337601,-0.0287239,0.0764608,0.000684539,0.0760648,-0.0272594,-0.773704,0.73826,0.00507486,3.824,-3.10311,3.80922,-2.60441,-65.6517,34.9093,0.493509,5.58552,-3.21633,5.61961,-2.39266,-13.962,10.9949,0.0827833,0.284546,0.0188528,0.149533,-2.06981,0.342722,0.312257,-0.0292816,0.0621499,-0.00566721,0.112211,-0.0193828,-0.336756,0.528473,0.000365458,-12.4783,1.58149,12.7678,1.81001,-44.3054,55.9685,-0.0790322,-0.881161,-33.3241,-1.13768,26.3559,0.484005,2.84081,0.017502,
0.288208,0.0178719,0.152044,-2.07136,0.29209,0.345516,-0.028665,0.0802251,-0.002816,0.0798031,-0.0303071,-0.852912,0.788487,0.00553123,2.35269,-2.18784,2.33642,-1.9048,-49.505,31.3918,0.285229,6.27941,-3.09829,6.29922,-2.36658,-13.962,10.9949,0.0827448,0.284546,0.0188528,0.149533,-2.06981,0.342722,0.312257,-0.0292816,0.0621499,-0.00566721,0.112211,-0.0193828,-0.336756,0.528473,0.000365458,0,0,0,0,0,0,0,-0.881161,-33.3241,-1.13768,26.3559,0.484005,2.84081,0.017502,
0.288929,0.0177544,0.152761,-2.0717,0.283141,0.353589,-0.0286137,0.0822093,-0.00518839,0.081747,-0.0326631,-0.90604,0.832604,0.00570781,1.24016,-1.48274,1.21497,-1.47251,-33.205,27.573,0.110365,6.88116,-2.91988,6.89905,-2.37904,-13.902,10.9949,0.087511,0.284546,0.0188528,0.149533,-2.06981,0.342722,0.312257,-0.0292816,0.0621499,-0.00566721,0.112211,-0.0193828,-0.336756,0.528473,0.000365458,0,0,0,0,0,0,0,-0.881161,-33.3241,-1.13768,26.3559,0.484005,2.84081,0.017502,
0.289646,0.0183414,0.154639,-2.07184,0.289905,0.356076,-0.0287399,0.0858087,-0.00516357,0.0853239,-0.035756,-0.974975,0.869784,0.00605914,2.24963,0.0155098,2.23557,-1.93308,-43.0838,23.2373,0.219578,6.54573,-1.05129,6.48132,-3.50856,-13.962,10.9949,0.101788,0.284546,0.0188528,0.149533,-2.06981,0.342722,0.312257,-0.0292816,0.0621499,-0.00566721,0.112211,-0.0193828,-0.336756,0.528473,0.000365458,0,0,0,0,0,0,0,-0.881161,-33.3241,-1.13768,26.3559,0.484005,2.84081,0.017502,
0.290408,0.0183302,0.155396,-2.07224,0.280329,0.364323,-0.0286871,0.0877074,-0.00441195,0.087184,-0.038614,-1.01939,0.902002,0.00616723,1.18669,0.469764,1.16255,-1.7862,-27.7615,20.1365,0.0675618,6.71902,-0.0532146,6.65319,-4.55205,-14.1851,10.6443,0.10216,0.288729,0.0187917,0.152111,-2.07102,0.320121,0.345318,-0.0292444,0.04207,0.00501709,0.205994,-0.0309402,-1.27459,1.41279,0.00629185,-2.50999,1.33554,11.7228,-1.44467,-117.229,110.539,0.740799,0.638309,-32.8719,0.762648,27.5024,-1.45874,3.90191,-0.150955,
0.291136,0.0183485,0.156118,-2.07265,0.271318,0.372629,-0.0286387,0.0883649,-0.00307309,0.0877998,-0.0411028,-1.04077,0.929249,0.00614303,0.410914,0.836789,0.384834,-1.55551,-13.3624,17.0296,-0.0151261,7.24091,0.0218293,7.18613,-4.65158,-14.1851,10.6443,0.098703,0.288729,0.0187917,0.152111,-2.07102,0.320121,0.345318,-0.0292444,0.04207,0.00501709,0.205994,-0.0309402,-1.27459,1.41279,0.00629185,0,0,0,0,0,0,0,0.638309,-32.8719,0.762648,27.5024,-1.45874,3.90191,-0.150955,
0.291831,0.0183935,0.156806,-2.07302,0.262933,0.380741,-0.0285944,0.0880524,-0.00133209,0.0874402,-0.0423421,-1.04226,0.946192,0.00602086,-0.195299,1.08812,-0.224731,-0.774596,-0.927078,10.5894,-0.0763561,7.67337,0.132955,7.62836,-4.74984,-14.1851,10.6443,0.0941984,0.288729,0.0187917,0.152111,-2.07102,0.320121,0.345318,-0.0292444,0.04207,0.00501709,0.205994,-0.0309402,-1.27459,1.41279,0.00629185,0,0,0,0,0,0,0,0.638309,-32.8719,0.762648,27.5024,-1.45874,3.90191,-0.150955,
0.293277,0.0182086,0.156665,-2.0731,0.25652,0.401423,-0.028838,0.0874242,-0.00353824,0.0869218,-0.0451928,-1.08541,0.9756,0.00620502,-0.392636,-1.37884,-0.323997,-1.78168,-26.9729,18.3797,0.115097,7.16438,-0.227089,7.14928,-6.17686,-14.1851,10.6443,0.101007,0.288729,0.0187917,0.152111,-2.07102,0.320121,0.345318,-0.0292444,0.04207,0.00501709,0.205994,-0.0309402,-1.27459,1.41279,0.00629185,0,0,0,0,0,0,0,0.638309,-32.8719,0.762648,27.5024,-1.45874,3.90191,-0.150955,
0.29393,0.0181352,0.157317,-2.07357,0.247136,0.409937,-0.0287873,0.0862595,-0.00466567,0.0858348,-0.0476934,-1.10294,0.993327,0.00623192,-0.727961,-0.704646,-0.679351,-1.56289,-10.9534,11.0797,0.0168139,7.3895,0.190859,7.39243,-6.79268,-14.1296,10.2652,0.10033,0.293768,0.0180215,0.155892,-2.07234,0.268937,0.397331,-0.0292005,0.136381,-0.0125976,0.0893871,-0.0338199,-1.59709,1.5738,0.00237434,11.7889,-2.20184,-14.5758,-0.359973,-40.3127,20.1264,-0.489689,0.562931,-33.8954,1.03639,25.011,1.06353,2.76757,0.00376909,
0.294555,0.0180851,0.157941,-2.07399,0.238479,0.417965,-0.0287409,0.084644,-0.00498599,0.0842726,-0.0488659,-1.09879,0.995364,0.00614515,-1.00967,-0.200204,-0.976389,-0.732813,2.59411,1.27279,-0.0542319,7.79101,0.145716,7.79966,-6.88838,-14.1296,10.2652,0.0973242,0.293768,0.0180215,0.155892,-2.07234,0.268937,0.397331,-0.0292005,0.136381,-0.0125976,0.0893871,-0.0338199,-1.59709,1.5738,0.00237434,0,0,0,0,0,0,0,0.562931,-33.8954,1.03639,25.011,1.06353,2.76757,0.00376909,
0.295156,0.0180482,0.158541,-2.07439,0.230556,0.425403,-0.0286981,0.0827471,-0.0049112,0.0824191,-0.0489421,-1.07709,0.982243,0.00598812,-1.18552,0.0467457,-1.15848,-0.0475885,13.5616,-8.20032,-0.0981409,8.10576,0.162832,8.12202,-6.97837,-14.1296,10.2652,0.0940765,0.293768,0.0180215,0.155892,-2.07234,0.268937,0.397331,-0.0292005,0.136381,-0.0125976,0.0893871,-0.0338199,-1.59709,1.5738,0.00237434,0,0,0,0,0,0,0,0.562931,-33.8954,1.03639,25.011,1.06353,2.76757,0.00376909,
0.297445,0.0173792,0.159545,-2.07395,0.216419,0.449951,-0.028984,0.0794991,-0.00622199,0.0792273,-0.0457359,-1.02631,0.950623,0.00567145,-2.03003,-0.819241,-1.99487,2.00386,31.7373,-19.7624,-0.197923,8.4811,0.448784,8.49998,-7.05409,-11.863,10.2652,0.0867044,0.293768,0.0180215,0.155892,-2.07234,0.268937,0.397331,-0.0292005,0.136381,-0.0125976,0.0893871,-0.0338199,-1.59709,1.5738,0.00237434,0,0,0,0,0,0,0,0.562931,-33.8954,1.03639,25.011,1.06353,2.76757,0.00376909,
0.297969,0.0172936,0.160069,-2.07422,0.210504,0.455832,-0.0289512,0.076698,-0.00711779,0.0764799,-0.0432319,-0.968932,0.907521,0.00535723,-1.75068,-0.559876,-1.71711,1.56497,35.861,-26.9393,-0.196386,8.30964,0.88588,8.32754,-7.23722,-10.6576,9.54404,0.0847776,0.297845,0.0177565,0.161109,-2.07456,0.213846,0.453053,-0.0291053,0.226293,-0.0202187,0.0538397,-0.0649083,-1.59627,1.65931,-4.34908e-05,11.2389,-0.952634,-4.44342,-3.88605,0.102729,10.6896,-0.302229,2.26093,-31.9237,2.31386,23.1662,0.386044,2.9937,0.0641939,
0.298488,0.0172138,0.160589,-2.07449,0.205197,0.461065,-0.0289213,0.0743396,-0.00769016,0.0741704,-0.0413506,-0.907811,0.856856,0.00503472,-1.47398,-0.35773,-1.44339,1.17587,38.2004,-31.6654,-0.201569,8.314,1.08602,8.32891,-7.21045,-9.67366,8.41842,0.0807988,0.297845,0.0177565,0.161109,-2.07456,0.213846,0.453053,-0.0291053,0.226293,-0.0202187,0.0538397,-0.0649083,-1.59627,1.65931,-4.34908e-05,0,0,0,0,0,0,0,2.26093,-31.9237,2.31386,23.1662,0.386044,2.9937,0.0641939,
0.299004,0.0171394,0.161106,-2.07477,0.200442,0.465713,-0.0288942,0.0723844,-0.00801077,0.0722588,-0.0400086,-0.845128,0.801684,0.00470376,-1.22202,-0.200384,-1.19477,0.838729,39.177,-34.4825,-0.206852,8.26455,1.26244,8.2765,-7.16875,-8.78758,7.41902,0.0770967,0.297845,0.0177565,0.161109,-2.07456,0.213846,0.453053,-0.0291053,0.226293,-0.0202187,0.0538397,-0.0649083,-1.59627,1.65931,-4.34908e-05,0,0,0,0,0,0,0,2.26093,-31.9237,2.31386,23.1662,0.386044,2.9937,0.0641939,
0.30107,0.0171065,0.164284,-2.0753,0.178839,0.490215,-0.0290662,0.0711252,-0.00999286,0.0710077,-0.0362976,-0.798189,0.771287,0.00428484,-0.786998,-1.23881,-0.781934,2.3194,29.3369,-18.9981,-0.261822,8.16517,1.40548,8.17451,-7.1191,-7.98275,6.52917,0.0731544,0.297845,0.0177565,0.161109,-2.07456,0.213846,0.453053,-0.0291053,0.226293,-0.0202187,0.0538397,-0.0649083,-1.59627,1.65931,-4.34908e-05,0,0,0,0,0,0,0,2.26093,-31.9237,2.31386,23.1662,0.386044,2.9937,0.0641939,
0.301587,0.0169711,0.164801,-2.0755,0.174557,0.494709,-0.0290455,0.0698222,-0.011381,0.069731,-0.0339675,-0.745585,0.729368,0.003946,-0.8144,-0.867566,-0.797926,1.45629,32.8772,-26.1992,-0.211777,8.02528,1.5133,8.03236,-7.06482,-7.24849,5.73702,0.0687107,0.297845,0.0177565,0.161109,-2.07456,0.213846,0.453053,-0.0291053,0.226293,-0.0202187,0.0538397,-0.0649083,-1.59627,1.65931,-4.34908e-05,0,0,0,0,0,0,0,2.26093,-31.9237,2.31386,23.1662,0.386044,2.9937,0.0641939,
0.302098,0.0168464,0.165313,-2.07572,0.170777,0.498608,-0.029026,0.0686381,-0.012222,0.0685795,-0.0326993,-0.69097,0.680981,0.00364446,-0.740041,-0.525663,-0.719733,0.792603,34.1347,-30.242,-0.18846,7.79915,1.55345,7.81039,-6.97058,-6.35792,4.79005,0.0644192,0.302251,0.0170948,0.166107,-2.07822,0.158874,0.509048,-0.0290781,0.138351,-0.0297791,0.142109,-0.0909582,-1.50305,1.58146,0.000920589,-10.9927,-1.19505,11.0337,-3.25623,11.6529,-9.73146,0.12051,2.72113,-31.1263,2.46461,23.1424,1.15509,2.59545,0.0843355,
0.302607,0.0167335,0.165822,-2.07596,0.167425,0.502001,-0.0290083,0.0676219,-0.012598,0.067596,-0.0322264,-0.636575,0.629588,0.0033582,-0.635138,-0.234958,-0.614691,0.295589,33.9966,-32.1205,-0.178917,7.60981,1.60004,7.61959,-6.91166,-5.75262,4.16746,0.0594346,0.302251,0.0170948,0.166107,-2.07822,0.158874,0.509048,-0.0290781,0.138351,-0.0297791,0.142109,-0.0909582,-1.50305,1.58146,0.000920589,0,0,0,0,0,0,0,2.72113,-31.1263,2.46461,23.1424,1.15509,2.59545,0.0843355,
0.305264,0.0162696,0.169086,-2.07866,0.132668,0.538333,-0.0291504,0.0664731,-0.0146511,0.0664621,-0.0290196,-0.588481,0.594889,0.00289639,-0.717991,-1.28322,-0.708666,2.00422,30.0588,-21.687,-0.288632,7.40879,1.62291,7.41748,-6.85121,-5.20745,3.61827,0.0544973,0.302251,0.0170948,0.166107,-2.07822,0.158874,0.509048,-0.0290781,0.138351,-0.0297791,0.142109,-0.0909582,-1.50305,1.58146,0.000920589,0,0,0,0,0,0,0,2.72113,-31.1263,2.46461,23.1424,1.15509,2.59545,0.0843355,
0.305752,0.0160994,0.169575,-2.07883,0.129957,0.541385,-0.0291403,0.0653879,-0.0159752,0.0654082,-0.0274332,-0.53857,0.552206,0.0025687,-0.678274,-0.827572,-0.658666,0.991538,31.1947,-26.6773,-0.204803,7.20243,1.62682,7.21032,-6.78928,-4.71685,3.13599,0.0495998,0.302251,0.0170948,0.166107,-2.07822,0.158874,0.509048,-0.0290781,0.138351,-0.0297791,0.142109,-0.0909582,-1.50305,1.58146,0.000920589,0,0,0,0,0,0,0,2.72113,-31.1263,2.46461,23.1424,1.15509,2.59545,0.0843355,
0.306239,0.0159459,0.170063,-2.07903,0.127598,0.543958,-0.0291301,0.0644733,-0.0166178,0.064529,-0.0270255,-0.489816,0.506097,0.00230972,-0.571569,-0.401618,-0.549507,0.254781,30.4713,-28.8179,-0.161862,7.39353,1.17211,7.40445,-6.29341,-3.93411,2.63763,0.0426712,0.307411,0.0170753,0.171324,-2.08119,0.119795,0.556818,-0.0290713,0.0984803,0.00775876,0.198212,-0.0529051,-0.98575,1.1612,-0.000676419,-4.98382,4.69223,7.01291,4.75663,64.6619,-52.5328,-0.199626,1.50318,-32.2252,1.16334,21.3214,0.269772,2.19079,0.0641939,
0.31089,0.0165576,0.174784,-2.08177,0.1042,0.57686,-0.0291615,0.0657644,-0.0170997,0.0658084,-0.0259963,-0.437368,0.46268,0.00191085,0.806885,-0.301163,0.799641,0.643273,32.7795,-27.1353,-0.249299,6.98948,1.12091,7.00005,-6.16213,-3.19602,1.9494,0.034237,0.307411,0.0170753,0.171324,-2.08119,0.119795,0.556818,-0.0290713,0.0984803,0.00775876,0.198212,-0.0529051,-0.98575,1.1612,-0.000676419,0,0,0,0,0,0,0,1.50318,-32.2252,1.16334,21.3214,0.269772,2.19079,0.0641939,
0.311435,0.0164148,0.17533,-2.08198,0.102634,0.578743,-0.0291573,0.0662311,-0.0172514,0.066283,-0.0260439,-0.389034,0.41723,0.00163395,0.291736,-0.0948589,0.29663,-0.0297547,30.2089,-28.4062,-0.173062,6.79614,1.08636,6.80683,-6.09416,-2.88802,1.67232,0.0304874,0.307411,0.0170753,0.171324,-2.08119,0.119795,0.556818,-0.0290713,0.0984803,0.00775876,0.198212,-0.0529051,-0.98575,1.1612,-0.000676419,0,0,0,0,0,0,0,1.50318,-32.2252,1.16334,21.3214,0.269772,2.19079,0.0641939,
0.311963,0.0162862,0.175859,-2.08222,0.101261,0.580293,-0.0291526,0.0661953,-0.0170144,0.0662637,-0.0268207,-0.345559,0.372537,0.00142453,-0.0223969,0.148162,-0.0121214,-0.48549,27.1718,-27.9337,-0.130886,6.60986,1.0488,6.62083,-6.02459,-2.61652,1.43289,0.0271402,0.307411,0.0170753,0.171324,-2.08119,0.119795,0.556818,-0.0290713,0.0984803,0.00775876,0.198212,-0.0529051,-0.98575,1.1612,-0.000676419,0,0,0,0,0,0,0,1.50318,-32.2252,1.16334,21.3214,0.269772,2.19079,0.0641939,
0.312479,0.0161738,0.176376,-2.08248,0.100041,0.581578,-0.029148,0.0658455,-0.0164226,0.0659335,-0.0280545,-0.306942,0.330162,0.0012533,-0.218616,0.369861,-0.206326,-0.771112,24.1361,-26.4841,-0.107016,6.71525,0.794019,6.72838,-5.78958,-2.17599,1.14808,0.0229749,0.312723,0.0169551,0.17589,-2.08317,0.0936265,0.587989,-0.0290716,0.0741724,-0.0119912,0.208199,-0.0608854,-0.703022,0.775086,0.000346344,-3.03849,-2.46874,1.24832,-0.997535,35.341,-48.2644,0.127845,1.24927,-31.5746,1.21095,21.2222,0.239559,2.81426,0.0239107,
0.316229,0.016348,0.179387,-2.0841,0.0837471,0.600506,-0.0291653,0.0670694,-0.0163923,0.0671442,-0.0281041,-0.272598,0.298448,0.000987936,0.764939,0.0189596,0.756663,-0.031027,21.4648,-19.8211,-0.165854,6.54384,0.755265,6.55749,-5.71692,-1.96525,0.971198,0.0202885,0.312723,0.0169551,0.17589,-2.08317,0.0936265,0.587989,-0.0290716,0.0741724,-0.0119912,0.208199,-0.0608854,-0.703022,0.775086,0.000346344,0,0,0,0,0,0,0,1.24927,-31.5746,1.21095,21.2222,0.239559,2.81426,0.0239107,
0.316777,0.016231,0.179935,-2.08435,0.082814,0.601602,-0.0291642,0.0673527,-0.0160402,0.0674319,-0.0287771,-0.241406,0.266163,0.00081813,0.17706,0.220078,0.179813,-0.420619,19.4948,-20.1784,-0.106129,6.37967,0.717635,6.39394,-5.64281,-1.77942,0.820034,0.0178511,0.312723,0.0169551,0.17589,-2.08317,0.0936265,0.587989,-0.0290716,0.0741724,-0.0119912,0.208199,-0.0608854,-0.703022,0.775086,0.000346344,0,0,0,0,0,0,0,1.24927,-31.5746,1.21095,21.2222,0.239559,2.81426,0.0239107,
0.317303,0.016129,0.180463,-2.08463,0.0819878,0.602485,-0.0291624,0.0670394,-0.01538,0.0671317,-0.029841,-0.213779,0.235012,0.00069981,-0.195819,0.412602,-0.187632,-0.66496,17.2667,-19.4694,-0.0739499,6.22245,0.68174,6.23742,-5.56727,-1.61684,0.690777,0.0157395,0.312723,0.0169551,0.17589,-2.08317,0.0936265,0.587989,-0.0290716,0.0741724,-0.0119912,0.208199,-0.0608854,-0.703022,0.775086,0.000346344,0,0,0,0,0,0,0,1.24927,-31.5746,1.21095,21.2222,0.239559,2.81426,0.0239107,
0.317812,0.0160424,0.180973,-2.08492,0.0812446,0.603201,-0.0291604,0.0663477,-0.0144707,0.0664571,-0.0311152,-0.189603,0.205905,0.000609314,-0.432329,0.568288,-0.421641,-0.79636,15.1103,-18.1919,-0.0565601,6.2538,0.518517,6.27136,-5.40119,-1.3523,0.537008,0.0133108,0.317969,0.0166352,0.180483,-2.08527,0.0761874,0.608381,-0.0290779,0.0912587,-0.00981275,0.189776,-0.0582848,-0.434939,0.461753,-4.9571e-05,2.1358,0.2723,-2.30279,0.325077,33.5105,-39.1666,-0.0494894,0.134464,-31.6499,0.26277,21.9958,0.410763,2.36382,0.0376436,
0.321607,0.0162046,0.184113,-2.08657,0.0705882,0.615384,-0.0291564,0.0678731,-0.0137332,0.0679637,-0.0318542,-0.166776,0.182678,0.000441238,0.953371,0.460961,0.941669,-0.461876,14.2667,-14.5169,-0.105047,6.10911,0.487555,6.12751,-5.32307,-1.22736,0.443383,0.0116986,0.317969,0.0166352,0.180483,-2.08527,0.0761874,0.608381,-0.0290779,0.0912587,-0.00981275,0.189776,-0.0582848,-0.434939,0.461753,-4.9571e-05,0,0,0,0,0,0,0,0.134464,-31.6499,0.26277,21.9958,0.410763,2.36382,0.0376436,
0.322163,0.0161286,0.18467,-2.08686,0.0700542,0.61594,-0.0291568,0.068196,-0.012886,0.0682858,-0.0327855,-0.146771,0.160049,0.000342884,0.201832,0.529488,0.201299,-0.582054,12.5032,-14.1427,-0.0614716,5.96996,0.459458,5.98924,-5.24384,-1.11739,0.364166,0.0102504,0.317969,0.0166352,0.180483,-2.08527,0.0761874,0.608381,-0.0290779,0.0912587,-0.00981275,0.189776,-0.0582848,-0.434939,0.461753,-4.9571e-05,0,0,0,0,0,0,0,0.134464,-31.6499,0.26277,21.9958,0.410763,2.36382,0.0376436,
0.32269,0.0160639,0.185198,-2.08716,0.0695676,0.616373,-0.0291565,0.0677352,-0.0119277,0.0678341,-0.0338004,-0.129582,0.138859,0.000282361,-0.288022,0.598961,-0.282283,-0.634289,10.7435,-13.2443,-0.0378265,5.83587,0.434189,5.85609,-5.16349,-1.02157,0.296726,0.00902797,0.317969,0.0166352,0.180483,-2.08527,0.0761874,0.608381,-0.0290779,0.0912587,-0.00981275,0.189776,-0.0582848,-0.434939,0.461753,-4.9571e-05,0,0,0,0,0,0,0,0.134464,-31.6499,0.26277,21.9958,0.410763,2.36382,0.0376436,
0.326458,0.015511,0.188672,-2.08842,0.0638476,0.623475,-0.029135,0.0687177,-0.0113755,0.0688131,-0.0342443,-0.111852,0.120594,0.000174204,0.614068,0.345127,0.611874,-0.277442,11.081,-11.4155,-0.0675984,5.66237,0.312112,5.68788,-4.97215,-0.807318,0.167337,0.00691172,0.322866,0.0159436,0.1851,-2.08705,0.0667431,0.619453,-0.0290782,0.185247,-0.0133789,0.08151,-0.0487248,-0.236575,0.277552,0.00191839,11.7485,-0.445774,-13.5333,1.195,24.7954,-23.0252,0.245996,0.511356,-31.8245,0.786451,23.0432,0.452877,2.3565,-0.0026396,
0.327,0.0154486,0.189215,-2.08872,0.063542,0.623754,-0.0291359,0.0685252,-0.0106623,0.0686308,-0.0348055,-0.0971201,0.103451,0.000116508,-0.12032,0.445721,-0.113981,-0.350771,9.20744,-10.7141,-0.0360599,5.54067,0.295234,5.56721,-4.88916,-0.742451,0.126281,0.00610975,0.322866,0.0159436,0.1851,-2.08705,0.0667431,0.619453,-0.0290782,0.185247,-0.0133789,0.08151,-0.0487248,-0.236575,0.277552,0.00191839,0,0,0,0,0,0,0,0.511356,-31.8245,0.786451,23.0432,0.452877,2.3565,-0.0026396,
0.32751,0.0153967,0.189727,-2.08902,0.0632491,0.623955,-0.0291361,0.0675756,-0.00982618,0.0676989,-0.0354042,-0.0850199,0.0877966,8.72863e-05,-0.593507,0.522581,-0.5824,-0.374175,7.5626,-9.78417,-0.0182636,5.42229,0.280812,5.4499,-4.80539,-0.686003,0.0909226,0.00546069,0.322866,0.0159436,0.1851,-2.08705,0.0667431,0.619453,-0.0290782,0.185247,-0.0133789,0.08151,-0.0487248,-0.236575,0.277552,0.00191839,0,0,0,0,0,0,0,0.511356,-31.8245,0.786451,23.0432,0.452877,2.3565,-0.0026396,
0.327994,0.0153546,0.190212,-2.08933,0.0629653,0.624096,-0.029136,0.0661557,-0.00891224,0.0663009,-0.0359812,-0.0751109,0.0737489,7.34749e-05,-0.887392,0.571214,-0.873774,-0.360634,6.19314,-8.77984,-0.00863213,5.30684,0.268776,5.33554,-4.72099,-0.636009,0.0608929,0.00488191,0.322866,0.0159436,0.1851,-2.08705,0.0667431,0.619453,-0.0290782,0.185247,-0.0133789,0.08151,-0.0487248,-0.236575,0.277552,0.00191839,0,0,0,0,0,0,0,0.511356,-31.8245,0.786451,23.0432,0.452877,2.3565,-0.0026396,
0.326351,0.0155102,0.188566,-2.08831,0.0644611,0.623112,-0.0291469,0.0667778,-0.00898736,0.0669182,-0.0353432,-0.0652759,0.0666699,-1.27024e-05,0.388786,-0.04695,0.385801,0.398761,6.14689,-4.42433,-0.0538608,5.23591,0.195151,5.26842,-4.6278,-0.563963,0.0185929,0.00443893,0.326728,0.0152672,0.190074,-2.08888,0.0616388,0.626243,-0.0290797,0.20302,-0.020972,0.0512832,-0.0641569,-0.109652,0.159924,0.00132623,2.22161,-0.949131,-3.77836,-1.92901,15.8654,-14.7034,-0.0740202,0.384403,-32.0982,0.43733,23.0432,0.294491,2.77489,-0.0026396,
0.326865,0.015447,0.189081,-2.08858,0.0642629,0.623324,-0.0291484,0.0662714,-0.00877041,0.0664216,-0.0350332,-0.057175,0.0586123,-4.57585e-05,-0.31651,0.135594,-0.310344,0.193727,5.06303,-5.03604,-0.02066,5.12537,0.187205,5.15901,-4.54225,-0.52528,-0.00400991,0.00403253,0.326728,0.0152672,0.190074,-2.08888,0.0616388,0.626243,-0.0290797,0.20302,-0.020972,0.0512832,-0.0641569,-0.109652,0.159924,0.00132623,0,0,0,0,0,0,0,0.384403,-32.0982,0.43733,23.0432,0.294491,2.77489,-0.0026396,
0.327346,0.0153947,0.189565,-2.08885,0.0640649,0.623462,-0.0291489,0.0650532,-0.00832344,0.0652215,-0.0349293,-0.0506894,0.0503627,-5.01539e-05,-0.761367,0.279355,-0.750112,0.064947,4.0535,-5.15601,-0.00274717,5.01687,0.180946,5.05165,-4.45615,-0.491644,-0.0242994,0.00373371,0.326728,0.0152672,0.190074,-2.08888,0.0616388,0.626243,-0.0290797,0.20302,-0.020972,0.0512832,-0.0641569,-0.109652,0.159924,0.00132623,0,0,0,0,0,0,0,0.384403,-32.0982,0.43733,23.0432,0.294491,2.77489,-0.0026396,
0.327801,0.0153525,0.190021,-2.08913,0.0638646,0.623546,-0.0291489,0.0634063,-0.00771266,0.0635968,-0.0349384,-0.0455602,0.0423674,-3.99753e-05,-1.02933,0.381735,-1.01539,-0.00569779,3.20573,-4.99706,0.00636167,4.91013,0.176285,4.94607,-4.36962,-0.461598,-0.0420209,0.00346474,0.326728,0.0152672,0.190074,-2.08888,0.0616388,0.626243,-0.0290797,0.20302,-0.020972,0.0512832,-0.0641569,-0.109652,0.159924,0.00132623,0,0,0,0,0,0,0,0.384403,-32.0982,0.43733,23.0432,0.294491,2.77489,-0.0026396,
0.330132,0.0149185,0.193459,-2.09029,0.0607071,0.62774,-0.0291251,0.0641641,-0.00740705,0.0643527,-0.0347753,-0.0388053,0.0355971,-8.43208e-05,0.473652,0.191007,0.472447,0.101958,4.22183,-4.23145,-0.027716,4.81908,0.103741,4.85848,-4.27406,-0.421795,-0.0627938,0.00328929,0.330249,0.014637,0.195463,-2.09074,0.0592394,0.62915,-0.0290837,0.0926068,-0.0235623,0.150413,-0.0527381,-0.0404401,0.0572156,0.000901022,-13.8016,-0.323782,12.3912,1.42735,8.6515,-12.8386,-0.0531514,-0.0202602,-31.1501,-0.213304,23.0908,0.331112,3.00011,0.00376909,
0.330627,0.0148777,0.193956,-2.09056,0.0605994,0.627758,-0.0291261,0.063708,-0.00694394,0.0639081,-0.0346751,-0.0337363,0.0289282,-9.03271e-05,-0.285073,0.289443,-0.277899,0.0625897,3.16814,-4.16807,-0.00375396,4.71522,0.101619,4.7558,-4.18672,-0.398425,-0.0774137,0.00313293,0.330249,0.014637,0.195463,-2.09074,0.0592394,0.62915,-0.0290837,0.0926068,-0.0235623,0.150413,-0.0527381,-0.0404401,0.0572156,0.000901022,0,0,0,0,0,0,0,-0.0202602,-31.1501,-0.213304,23.0908,0.331112,3.00011,0.00376909,
0.331087,0.0148451,0.194419,-2.09084,0.0604763,0.627738,-0.0291262,0.0624761,-0.00637226,0.0626954,-0.0345961,-0.0300682,0.0226322,-7.48008e-05,-0.76994,0.3573,-0.757907,0.0493751,2.29258,-3.93499,0.00970394,4.61253,0.100451,4.6543,-4.09894,-0.378286,-0.0913833,0.00305997,0.330249,0.014637,0.195463,-2.09074,0.0592394,0.62915,-0.0290837,0.0926068,-0.0235623,0.150413,-0.0527381,-0.0404401,0.0572156,0.000901022,0,0,0,0,0,0,0,-0.0202602,-31.1501,-0.213304,23.0908,0.331112,3.00011,0.00376909,
0.3335,0.0142631,0.19872,-2.0921,0.0591194,0.629279,-0.029115,0.0627807,-0.00621213,0.063008,-0.0342247,-0.0248524,0.0164102,-8.75447e-05,0.190392,0.100084,0.195354,0.232163,3.25988,-3.88875,-0.00796492,4.40986,0.100521,4.45407,-3.92238,-0.344952,-0.116353,0.00301734,0.330249,0.014637,0.195463,-2.09074,0.0592394,0.62915,-0.0290837,0.0926068,-0.0235623,0.150413,-0.0527381,-0.0404401,0.0572156,0.000901022,0,0,0,0,0,0,0,-0.0202602,-31.1501,-0.213304,23.0908,0.331112,3.00011,0.00376909,
0.333969,0.0142277,0.199192,-2.09236,0.059059,0.629188,-0.0291151,0.0619464,-0.00585444,0.0621925,-0.0338809,-0.0213936,0.0108633,-7.18002e-05,-0.521438,0.223557,-0.509673,0.214837,2.1617,-3.46677,0.00984033,4.30957,0.10147,4.35503,-3.83361,-0.331398,-0.127555,0.0030326,0.330249,0.014637,0.195463,-2.09074,0.0592394,0.62915,-0.0290837,0.0926068,-0.0235623,0.150413,-0.0527381,-0.0404401,0.0572156,0.000901022,0,0,0,0,0,0,0,-0.0202602,-31.1501,-0.213304,23.0908,0.331112,3.00011,0.00376909,
0.334402,0.0142,0.199628,-2.09262,0.058972,0.629079,-0.0291144,0.0603943,-0.00537734,0.0606654,-0.0335412,-0.0192892,0.00595715,-3.90207e-05,-0.970095,0.298187,-0.954439,0.212311,1.31525,-3.06636,0.0204872,4.21038,0.0608696,4.25817,-3.73353,-0.316313,-0.134166,0.0030951,0.334976,0.0142769,0.199178,-2.09228,0.058645,0.629831,-0.0290875,0.0356269,0.00192202,0.2161,-0.0413151,-0.0129317,0.0168715,-0.00085072,-7.12248,3.18553,8.21089,1.42787,3.43856,-5.04302,-0.218968,0.25745,-32.1736,0.211195,22.9916,0.349423,3.02666,0.0376436,
0.334806,0.0141785,0.200036,-2.09288,0.0588617,0.628954,-0.029113,0.058417,-0.00483732,0.0587165,-0.033188,-0.0181875,0.00164377,3.10717e-06,-1.23577,0.337509,-1.21808,0.220798,0.688565,-2.69586,0.0263299,4.11099,0.0625208,4.16007,-3.64413,-0.30685,-0.144138,0.00319452,0.334976,0.0142769,0.199178,-2.09228,0.058645,0.629831,-0.0290875,0.0356269,0.00192202,0.2161,-0.0413151,-0.0129317,0.0168715,-0.00085072,0,0,0,0,0,0,0,0.25745,-32.1736,0.211195,22.9916,0.349423,3.02666,0.0376436,
0.338227,0.0142334,0.202447,-2.09367,0.0590069,0.629235,-0.0291166,0.0592365,-0.00415921,0.0595311,-0.0330649,-0.0143601,-0.00312984,-2.54926e-06,0.512159,0.423822,0.509121,0.0768971,2.39215,-2.98351,-0.00353527,4.01189,0.0643065,4.06227,-3.55439,-0.299801,-0.154021,0.00336822,0.334976,0.0142769,0.199178,-2.09228,0.058645,0.629831,-0.0290875,0.0356269,0.00192202,0.2161,-0.0413151,-0.0129317,0.0168715,-0.00085072,0,0,0,0,0,0,0,0.25745,-32.1736,0.211195,22.9916,0.349423,3.02666,0.0376436,
0.33868,0.0142235,0.202902,-2.09392,0.0589714,0.62905,-0.0291156,0.0587139,-0.00357495,0.0590179,-0.0327954,-0.0123752,-0.00713979,2.17413e-05,-0.326607,0.365162,-0.320745,0.168457,1.24058,-2.50622,0.0151816,3.91293,0.0662252,3.96463,-3.46441,-0.294402,-0.162644,0.00354452,0.334976,0.0142769,0.199178,-2.09228,0.058645,0.629831,-0.0290875,0.0356269,0.00192202,0.2161,-0.0413151,-0.0129317,0.0168715,-0.00085072,0,0,0,0,0,0,0,0.25745,-32.1736,0.211195,22.9916,0.349423,3.02666,0.0376436,
0.339094,0.0142156,0.20332,-2.09417,0.0588971,0.62886,-0.0291137,0.0573322,-0.00305883,0.0576545,-0.0324111,-0.011757,-0.0104587,6.50196e-05,-0.863586,0.322575,-0.852146,0.240206,0.386368,-2.07432,0.0270489,3.822,0.00878779,3.87731,-3.36728,-0.289611,-0.169598,0.00378312,0.339936,0.0137902,0.20222,-2.09401,0.0584664,0.629986,-0.0290861,0.13252,-0.0277757,0.0864387,-0.0591473,0.000195301,0.00708531,6.86194e-06,12.1116,-3.71222,-16.2077,-2.22903,1.64087,-1.22327,0.107198,-0.655026,-31.7015,-0.288683,23.2654,0.361325,2.90032,0.0239107,
0.342839,0.0134657,0.205127,-2.09525,0.0586274,0.629033,-0.0290979,0.0570401,-0.00326813,0.0573813,-0.0315255,-0.0103044,-0.0132154,9.59066e-05,-0.182523,-0.130814,-0.170732,0.553468,0.90786,-1.72292,0.0193044,3.62411,0.0122607,3.68219,-3.18596,-0.290225,-0.18314,0.00437593,0.339936,0.0137902,0.20222,-2.09401,0.0584664,0.629986,-0.0290861,0.13252,-0.0277757,0.0864387,-0.0591473,0.000195301,0.00708531,6.86194e-06,0,0,0,0,0,0,0,-0.655026,-31.7015,-0.288683,23.2654,0.361325,2.90032,0.0239107,
0.343244,0.0134401,0.205536,-2.09547,0.0585462,0.628842,-0.029095,0.0557528,-0.00325537,0.0561215,-0.0306795,-0.0102726,-0.0153478,0.000151093,-0.80462,0.00797379,-0.7874,0.528783,0.0198476,-1.33278,0.0344918,3.52498,0.013751,3.5845,-3.09501,-0.293987,-0.18804,0.0047268,0.339936,0.0137902,0.20222,-2.09401,0.0584664,0.629986,-0.0290861,0.13252,-0.0277757,0.0864387,-0.0591473,0.000195301,0.00708531,6.86194e-06,0,0,0,0,0,0,0,-0.655026,-31.7015,-0.288683,23.2654,0.361325,2.90032,0.0239107,
0.343614,0.01342,0.20591,-2.09568,0.0584226,0.628653,-0.0290909,0.0538553,-0.0031063,0.0542564,-0.0298634,-0.0113078,-0.0170006,0.000221811,-1.1859,0.0931695,-1.16565,0.510057,-0.646964,-1.03301,0.0441985,3.42571,0.0149479,3.48671,-3.00382,-0.300721,-0.192415,0.00515516,0.339936,0.0137902,0.20222,-2.09401,0.0584664,0.629986,-0.0290861,0.13252,-0.0277757,0.0864387,-0.0591473,0.000195301,0.00708531,6.86194e-06,0,0,0,0,0,0,0,-0.655026,-31.7015,-0.288683,23.2654,0.361325,2.90032,0.0239107,
0.343955,0.0134042,0.206256,-2.09589,0.05826,0.628466,-0.0290859,0.0516146,-0.00287876,0.0520506,-0.0290681,-0.013113,-0.0182728,0.000301981,-1.40043,0.142211,-1.37866,0.49706,-1.12827,-0.795076,0.0501064,3.32017,-0.0394556,3.38291,-2.90245,-0.309286,-0.18964,0.00557425,0.342755,0.0135063,0.207088,-2.09558,0.0584333,0.629963,-0.0290842,0.178584,-0.00144791,0.0358105,-0.0443747,0.00355547,-0.0022008,0.00123046,5.75807,3.29098,-6.32853,1.84658,0.420021,-1.16076,0.15295,-0.857357,-31.8999,-0.788561,23.8882,0.532528,3.03307,0.00376909,
0.34553,0.0134831,0.20986,-2.09678,0.0585125,0.62887,-0.0290871,0.0517443,-0.0024862,0.0521859,-0.0285725,-0.0125706,-0.0203883,0.000344371,0.0810433,0.245351,0.0845754,0.309751,0.339047,-1.32224,0.0264936,3.22063,-0.0388278,3.28494,-2.81102,-0.321478,-0.191579,0.00610888,0.342755,0.0135063,0.207088,-2.09558,0.0584333,0.629963,-0.0290842,0.178584,-0.00144791,0.0358105,-0.0443747,0.00355547,-0.0022008,0.00123046,0,0,0,0,0,0,0,-0.857357,-31.8999,-0.788561,23.8882,0.532528,3.03307,0.00376909,
0.345905,0.013476,0.210239,-2.09698,0.0583746,0.628647,-0.0290816,0.0507821,-0.00216678,0.0512413,-0.0279591,-0.0135033,-0.0218891,0.000412779,-0.601391,0.199638,-0.590389,0.383379,-0.582961,-0.937967,0.0427552,3.12105,-0.038446,3.187,-2.71961,-0.336095,-0.191647,0.00667004,0.342755,0.0135063,0.207088,-2.09558,0.0584333,0.629963,-0.0290842,0.178584,-0.00144791,0.0358105,-0.0443747,0.00355547,-0.0022008,0.00123046,0,0,0,0,0,0,0,-0.857357,-31.8999,-0.788561,23.8882,0.532528,3.03307,0.00376909,
0.346246,0.0134694,0.210585,-2.09718,0.058187,0.628432,-0.0290749,0.0491363,-0.00189891,0.0496208,-0.0272614,-0.0154947,-0.0228867,0.000497983,-1.02858,0.167422,-1.01277,0.43604,-1.24466,-0.623518,0.0532523,3.02155,-0.0384171,3.08921,-2.62815,-0.353718,-0.191253,0.00731778,0.342755,0.0135063,0.207088,-2.09558,0.0584333,0.629963,-0.0290842,0.178584,-0.00144791,0.0358105,-0.0443747,0.00355547,-0.0022008,0.00123046,0,0,0,0,0,0,0,-0.857357,-31.8999,-0.788561,23.8882,0.532528,3.03307,0.00376909,
0.346557,0.0134633,0.210901,-2.09737,0.057955,0.628225,-0.0290671,0.0470914,-0.00167056,0.0476061,-0.0265035,-0.018196,-0.0234887,0.000593599,-1.27809,0.142716,-1.25922,0.473688,-1.68827,-0.376263,0.05976,2.92106,-0.0940858,2.99043,-2.53099,-0.374025,-0.187257,0.00798775,0.345527,0.0133045,0.211242,-2.09692,0.0584457,0.629942,-0.0290884,0.101288,-0.0159425,0.0851843,-0.0389962,0.00182289,-7.54793e-05,0.00114263,-9.66208,-1.81182,6.17173,0.672318,-0.216572,0.265664,-0.0109792,-1.11126,-32.2768,-1.36382,23.7137,0.465695,2.9937,0.00376909,
0.347946,0.0130559,0.213676,-2.09785,0.058092,0.629082,-0.029072,0.0468134,-0.00213225,0.0473465,-0.0253897,-0.018989,-0.0232923,0.000660899,-0.173723,-0.288558,-0.162222,0.696126,-0.495651,0.122765,0.0420625,2.82235,-0.0945958,2.89362,-2.43979,-0.396164,-0.185208,0.00875759,0.345527,0.0133045,0.211242,-2.09692,0.0584457,0.629942,-0.0290884,0.101288,-0.0159425,0.0851843,-0.0389962,0.00182289,-7.54793e-05,0.00114263,0,0,0,0,0,0,0,-1.11126,-32.2768,-1.36382,23.7137,0.465695,2.9937,0.00376909,
0.348273,0.0130289,0.214009,-2.09801,0.0578652,0.628903,-0.0290632,0.0456468,-0.00238196,0.046208,-0.0243533,-0.0208624,-0.0231017,0.000749162,-0.729145,-0.15607,-0.711549,0.64772,-1.17085,0.119114,0.0551642,2.72447,-0.0952723,2.79778,-2.34886,-0.419511,-0.182147,0.00956519,0.345527,0.0133045,0.211242,-2.09692,0.0584457,0.629942,-0.0290884,0.101288,-0.0159425,0.0851843,-0.0389962,0.00182289,-7.54793e-05,0.00114263,0,0,0,0,0,0,0,-1.11126,-32.2768,-1.36382,23.7137,0.465695,2.9937,0.00376909,
0.34857,0.0130056,0.214311,-2.09817,0.0575975,0.628724,-0.0290532,0.0439323,-0.00248718,0.0445282,-0.0233739,-0.0233835,-0.0229594,0.000849962,-1.0716,-0.0657623,-1.04992,0.612138,-1.5757,0.0889677,0.0630003,2.62783,-0.0961754,2.70331,-2.25823,-0.443768,-0.17991,0.010457,0.345527,0.0133045,0.211242,-2.09692,0.0584457,0.629942,-0.0290884,0.101288,-0.0159425,0.0851843,-0.0389962,0.00182289,-7.54793e-05,0.00114263,0,0,0,0,0,0,0,-1.11126,-32.2768,-1.36382,23.7137,0.465695,2.9937,0.00376909,
0.350701,0.0129344,0.216237,-2.099,0.0576558,0.629001,-0.0290518,0.0429039,-0.00250304,0.0435344,-0.0223448,-0.0248092,-0.0235357,0.000955937,-0.642711,-0.00990944,-0.621133,0.643208,-0.89105,-0.360222,0.0662341,2.43729,-0.141241,2.51847,-2.07474,-0.489713,-0.176971,0.0123866,0.348658,0.0130598,0.214161,-2.09816,0.0584294,0.629932,-0.0290897,0.0262569,-0.00792815,0.13111,-0.0364546,6.23015e-05,0.000553219,-0.00113113,-9.37883,1.00179,5.74074,0.317692,-0.220074,0.0785873,-0.28422,-0.452694,-31.8761,-0.562425,23.6661,0.526119,2.84081,0.0577852,
0.350979,0.0129151,0.216522,-2.09914,0.0573922,0.628786,-0.0290396,0.0412725,-0.00248376,0.0419455,-0.0213318,-0.0264381,-0.0242034,0.0010686,-1.01965,0.012049,-0.993057,0.633116,-1.01807,-0.41732,0.0704123,2.3477,-0.14222,2.4317,-1.98587,-0.507514,-0.178926,0.0134294,0.348658,0.0130598,0.214161,-2.09816,0.0584294,0.629932,-0.0290897,0.0262569,-0.00792815,0.13111,-0.0364546,6.23015e-05,0.000553219,-0.00113113,0,0,0,0,0,0,0,-0.452694,-31.8761,-0.562425,23.6661,0.526119,2.84081,0.0577852,
0.35123,0.0128969,0.21678,-2.09927,0.0571273,0.628558,-0.0290266,0.0392929,-0.00244401,0.0400147,-0.0203315,-0.0277727,-0.0250668,0.0011808,-1.23725,0.0248454,-1.20674,0.625166,-0.834176,-0.539607,0.070125,2.26187,-0.143151,2.34899,-1.89787,-0.519271,-0.185158,0.0145228,0.348658,0.0130598,0.214161,-2.09816,0.0584294,0.629932,-0.0290897,0.0262569,-0.00792815,0.13111,-0.0364546,6.23015e-05,0.000553219,-0.00113113,0,0,0,0,0,0,0,-0.452694,-31.8761,-0.562425,23.6661,0.526119,2.84081,0.0577852,
0.351459,0.0128792,0.217016,-2.09939,0.0568818,0.628311,-0.0290128,0.0371402,-0.00239609,0.0379162,-0.0193403,-0.0283565,-0.0262361,0.00128841,-1.3454,0.029951,-1.31156,0.619537,-0.364858,-0.730776,0.0672557,2.18069,-0.143788,2.27128,-1.81095,-0.522038,-0.195662,0.0156462,0.348658,0.0130598,0.214161,-2.09816,0.0584294,0.629932,-0.0290897,0.0262569,-0.00792815,0.13111,-0.0364546,6.23015e-05,0.000553219,-0.00113113,0,0,0,0,0,0,0,-0.452694,-31.8761,-0.562425,23.6661,0.526119,2.84081,0.0577852,
0.350632,0.0129452,0.216173,-2.09887,0.0579031,0.628696,-0.0290389,0.0369619,-0.00243514,0.0377767,-0.0184181,-0.0254628,-0.0285215,0.00135417,-0.111458,-0.0244084,-0.0871533,0.576348,1.80859,-1.42841,0.0411058,2.10174,-0.172687,2.19604,-1.71923,-0.520186,-0.217106,0.0167558,0.351554,0.012962,0.216617,-2.09902,0.0583256,0.629877,-0.0290897,0.0150051,-0.000223937,0.142745,-0.0173678,-0.000503004,-0.00187866,-0.00131972,-1.40648,0.963027,1.45433,2.38585,-0.0706631,-0.303985,-0.0235733,0.336795,-32.4513,0.286573,24.1144,0.312802,2.93328,0.0577852,
0.350887,0.0129248,0.216438,-2.09898,0.0578421,0.628363,-0.0290254,0.0359626,-0.00245717,0.036831,-0.0174728,-0.0218948,-0.0311329,0.00141986,-0.624554,-0.0137699,-0.591096,0.590839,2.22999,-1.63212,0.0410562,2.03247,-0.17256,2.1312,-1.63515,-0.494505,-0.241641,0.0178986,0.351554,0.012962,0.216617,-2.09902,0.0583256,0.629877,-0.0290897,0.0150051,-0.000223937,0.142745,-0.0173678,-0.000503004,-0.00187866,-0.00131972,0,0,0,0,0,0,0,0.336795,-32.4513,0.286573,24.1144,0.312802,2.93328,0.0577852,
0.351115,0.0129047,0.216675,-2.09909,0.0578634,0.627992,-0.029012,0.0344508,-0.00246826,0.0353864,-0.0165193,-0.0169824,-0.0341801,0.00147133,-0.94487,-0.00693281,-0.902885,0.595936,3.07026,-1.90451,0.0321684,1.97035,-0.172016,2.07418,-1.55307,-0.448298,-0.275743,0.0189917,0.351554,0.012962,0.216617,-2.09902,0.0583256,0.629877,-0.0290897,0.0150051,-0.000223937,0.142745,-0.0173678,-0.000503004,-0.00187866,-0.00131972,0,0,0,0,0,0,0,0.336795,-32.4513,0.286573,24.1144,0.312802,2.93328,0.0577852,
0.351318,0.012885,0.216889,-2.09918,0.0579975,0.627576,-0.028999,0.0326458,-0.00246724,0.0336609,-0.0155614,-0.0102347,-0.0377489,0.00150189,-1.12814,0.000638085,-1.07841,0.598706,4.21727,-2.2305,0.0190966,1.91618,-0.170147,2.02583,-1.47291,-0.377728,-0.319506,0.0200652,0.351554,0.012962,0.216617,-2.09902,0.0583256,0.629877,-0.0290897,0.0150051,-0.000223937,0.142745,-0.0173678,-0.000503004,-0.00187866,-0.00131972,0,0,0,0,0,0,0,0.336795,-32.4513,0.286573,24.1144,0.312802,2.93328,0.0577852,
0.353441,0.0128263,0.218557,-2.09949,0.0590475,0.628123,-0.0290422,0.0328116,-0.00276454,0.0338979,-0.0144223,-0.000292629,-0.0426026,0.00146158,0.103614,-0.185812,0.148128,0.711913,6.21381,-3.03355,-0.0251936,1.87031,-0.194761,1.98766,-1.40415,-0.358095,-0.442525,0.0209162,0.35409,0.0126964,0.218815,-2.09965,0.0579131,0.629851,-0.0290904,0.0243472,-0.0142844,0.111188,-0.0214348,-0.00426252,0.000585585,-0.00114056,1.16777,-1.75756,-3.94467,-0.508368,-0.46994,0.308031,0.0223949,-0.373349,-32.0982,-0.213304,24.0628,0.318295,2.89391,0.0641939,
0.353674,0.0127965,0.218802,-2.09956,0.0595073,0.627559,-0.0290327,0.0320651,-0.00295728,0.033243,-0.0133295,0.0112599,-0.0481913,0.0014043,-0.466543,-0.120462,-0.409316,0.682975,7.22036,-3.49292,-0.0358006,1.83195,-0.189249,1.9574,-1.32842,-0.223241,-0.507342,0.0216883,0.35409,0.0126964,0.218815,-2.09965,0.0579131,0.629851,-0.0290904,0.0243472,-0.0142844,0.111188,-0.0214348,-0.00426252,0.000585585,-0.00114056,0,0,0,0,0,0,0,-0.373349,-32.0982,-0.213304,24.0628,0.318295,2.89391,0.0641939,
0.353878,0.0127688,0.219019,-2.09962,0.060126,0.626924,-0.0290235,0.0307607,-0.00305788,0.0320314,-0.012277,0.0244769,-0.0544097,0.00135491,-0.815235,-0.0628773,-0.757266,0.657859,8.26059,-3.88654,-0.0308649,1.79986,-0.182257,1.93516,-1.25625,-0.0513131,-0.581301,0.0219816,0.35409,0.0126964,0.218815,-2.09965,0.0579131,0.629851,-0.0290904,0.0243472,-0.0142844,0.111188,-0.0214348,-0.00426252,0.000585585,-0.00114056,0,0,0,0,0,0,0,-0.373349,-32.0982,-0.213304,24.0628,0.318295,2.89391,0.0641939,
0.355714,0.0123601,0.220499,-2.0998,0.0592353,0.625914,-0.0290477,0.0303805,-0.00382452,0.0316265,-0.0104587,0.0332569,-0.06985,0.00140552,-0.237625,-0.479147,-0.253073,1.13641,5.48748,-9.6502,0.0316313,1.75901,-0.101476,1.91473,-1.18922,-0.230259,-1.2732,0.0201846,0.35409,0.0126964,0.218815,-2.09965,0.0579131,0.629851,-0.0290904,0.0243472,-0.0142844,0.111188,-0.0214348,-0.00426252,0.000585585,-0.00114056,0,0,0,0,0,0,0,-0.373349,-32.0982,-0.213304,24.0628,0.318295,2.89391,0.0641939,
0.355913,0.0123121,0.220705,-2.09983,0.0599772,0.624764,-0.0290347,0.029283,-0.00426098,0.0304668,-0.00900001,0.0451512,-0.0846328,0.00144973,-0.685975,-0.272791,-0.724811,0.911692,7.43399,-9.23926,0.0276303,1.73457,-0.0732878,1.90388,-1.10614,0.0154286,-1.36091,0.0189035,0.35409,0.0126964,0.218815,-2.09965,0.0579131,0.629851,-0.0290904,0.0243472,-0.0142844,0.111188,-0.0214348,-0.00426252,0.000585585,-0.00114056,0,0,0,0,0,0,0,-0.373349,-32.0982,-0.213304,24.0628,0.318295,2.89391,0.0641939,
0.356085,0.0122694,0.220884,-2.09985,0.0609168,0.623536,-0.0290276,0.0277152,-0.00447514,0.0288295,-0.00790338,0.0596123,-0.0984145,0.00133638,-0.979889,-0.133846,-1.02327,0.685393,9.03818,-8.61354,-0.0708449,1.69989,-0.076288,1.87585,-1.02993,0.256492,-1.44923,0.018586,0.35601,0.0125882,0.220995,-2.09988,0.0578155,0.629634,-0.0290829,0.0126902,-0.000213275,0.0931541,-0.000504711,0.00216083,-0.0161934,0.00116951,-1.45713,1.7589,-2.25418,2.61626,0.802919,-2.09738,0.288758,-0.171017,-32.2252,-0.0625476,24.039,0.440975,2.73461,0.0101778,
0.356238,0.0122372,0.221042,-2.09988,0.0619447,0.622256,-0.0290177,0.0259965,-0.00438523,0.0270158,-0.00695704,0.0733862,-0.110729,0.00131706,-1.07414,0.0561942,-1.13357,0.591463,8.60868,-7.69663,-0.0120774,1.65948,-0.0395926,1.81914,-0.943023,0.472393,-1.53261,0.0216838,0.35601,0.0125882,0.220995,-2.09988,0.0578155,0.629634,-0.0290829,0.0126902,-0.000213275,0.0931541,-0.000504711,0.00216083,-0.0161934,0.00116951,0,0,0,0,0,0,0,-0.171017,-32.2252,-0.0625476,24.039,0.440975,2.73461,0.0101778,
0.357328,0.0122208,0.222341,-2.09942,0.0592834,0.618724,-0.029046,0.0257167,-0.00542852,0.0265696,-0.00453078,0.0716576,-0.15715,0.00119898,-0.1749,-0.652055,-0.278876,1.51641,-1.08038,-29.0133,-0.0737957,1.94193,0.329075,2.04406,-1.24103,-0.0584965,-4.17927,0.0223411,0.35601,0.0125882,0.220995,-2.09988,0.0578155,0.629634,-0.0290829,0.0126902,-0.000213275,0.0931541,-0.000504711,0.00216083,-0.0161934,0.00116951,0,0,0,0,0,0,0,-0.171017,-32.2252,-0.0625476,24.039,0.440975,2.73461,0.0101778,
0.357501,0.0121588,0.222513,-2.09939,0.0600303,0.615854,-0.0290433,0.0248838,-0.00589295,0.0255497,-0.00304721,0.0759973,-0.197453,0.00102855,-0.52056,-0.290269,-0.637443,0.927231,2.71229,-25.1889,-0.106523,1.8582,0.348907,1.93983,-1.1597,0.195453,-4.18728,0.0231876,0.35601,0.0125882,0.220995,-2.09988,0.0578155,0.629634,-0.0290829,0.0126902,-0.000213275,0.0931541,-0.000504711,0.00216083,-0.0161934,0.00116951,0,0,0,0,0,0,0,-0.171017,-32.2252,-0.0625476,24.039,0.440975,2.73461,0.0101778,
0.357652,0.0121141,0.222662,-2.09938,0.0610235,0.612887,-0.0290468,0.0237011,-0.00583139,0.0241824,-0.00212551,0.085628,-0.232154,0.00073531,-0.739209,0.0384757,-0.854538,0.576062,6.01922,-21.6882,-0.183273,1.73739,0.293206,1.80948,-1.11312,0.411001,-4.15179,0.0152933,0.357305,0.0123032,0.223077,-2.09988,0.0583501,0.628041,-0.0290852,0.0066638,-0.0138602,0.0869887,0.000282439,0.0337566,-0.0935888,0.000592213,-0.753295,-1.70587,-0.770674,0.0983938,3.94947,-9.67443,-0.0721622,0.435978,-31.6023,0.413527,23.3646,0.709225,2.17156,0.017502,
0.357783,0.0120817,0.222804,-2.09938,0.062191,0.609861,-0.0290506,0.0222179,-0.00547564,0.0228868,-0.00169537,0.0976896,-0.261363,0.000493088,-0.926988,0.22234,-0.809792,0.268837,7.53848,-18.2557,-0.151389,1.64653,0.37895,1.69649,-0.991037,0.350619,-4.05023,0.0154071,0.357305,0.0123032,0.223077,-2.09988,0.0583501,0.628041,-0.0290852,0.0066638,-0.0138602,0.0869887,0.000282439,0.0337566,-0.0935888,0.000592213,0,0,0,0,0,0,0,0.435978,-31.6023,0.413527,23.3646,0.709225,2.17156,0.017502,
0.358624,0.0117727,0.224343,-2.09849,0.0662248,0.600502,-0.0291003,0.0238882,-0.00640637,0.0239566,0.000837701,0.123399,-0.368525,0.000552871,1.04393,-0.581706,0.668637,1.58317,16.0684,-66.9763,0.0373644,3.35407,2.72933,3.26534,-2.2086,2.19706,-11.2768,0.0146316,0.357305,0.0123032,0.223077,-2.09988,0.0583501,0.628041,-0.0290852,0.0066638,-0.0138602,0.0869887,0.000282439,0.0337566,-0.0935888,0.000592213,0,0,0,0,0,0,0,0.435978,-31.6023,0.413527,23.3646,0.709225,2.17156,0.017502,
0.358863,0.0117272,0.224568,-2.09847,0.0680172,0.594145,-0.029092,0.0250931,-0.00626131,0.024773,0.00101715,0.143529,-0.453743,0.000647525,0.753091,0.0906652,0.51027,0.112157,12.5813,-53.2615,0.0591587,3.24395,2.55921,3.17673,-2.07205,2.33471,-10.6672,0.0169986,0.357305,0.0123032,0.223077,-2.09988,0.0583501,0.628041,-0.0290852,0.0066638,-0.0138602,0.0869887,0.000282439,0.0337566,-0.0935888,0.000592213,0,0,0,0,0,0,0,0.435978,-31.6023,0.413527,23.3646,0.709225,2.17156,0.017502,
0.359095,0.0117176,0.224788,-2.09851,0.0698155,0.58789,-0.0290842,0.0258885,-0.00524846,0.0253352,-0.000237998,0.159783,-0.519393,0.000714137,0.49713,0.633031,0.351392,-0.78447,10.1583,-41.0307,0.0416323,3.11321,2.3725,3.06443,-1.92597,2.46935,-10.0902,0.0102626,0.358523,0.0119402,0.224722,-2.0995,0.0602516,0.620878,-0.0290843,0.0119395,-0.0121864,0.0653487,0.0301461,0.0439003,-0.417348,0.000600382,0.659459,0.209228,-2.70501,3.73296,1.26796,-40.4699,0.00102109,0.638309,-31.2016,0.461134,21.7697,0.893246,1.09032,0.0101778,
