xiao-wang007/linearmpc_panda/paper_data/panda_inverse_dynamics_controller_error_match_to_start_no_acceleration_ff/1/trajectory.csv
Commanded Joint 0 Position,Commanded Joint 1 Position,Commanded Joint 2 Position,Commanded Joint 3 Position,Commanded Joint 4 Position,Commanded Joint 5 Position,Commanded Joint 6 Position,Commanded Joint 0 Velocity,Commanded Joint 1 Velocity,Commanded Joint 2 Velocity,Commanded Joint 3 Velocity,Commanded Joint 4 Velocity,Commanded Joint 5 Velocity,Commanded Joint 6 Velocity,Commanded Joint 0 Acceleration,Commanded Joint 1 Acceleration,Commanded Joint 2 Acceleration,Commanded Joint 3 Acceleration,Commanded Joint 4 Acceleration,Commanded Joint 5 Acceleration,Commanded Joint 6 Acceleration,Commanded Joint 0 Torque,Commanded Joint 1 Torque,Commanded Joint 2 Torque,Commanded Joint 3 Torque,Commanded Joint 4 Torque,Commanded Joint 5 Torque,Commanded Joint 6 Torque,Actual Joint 0 Position,Actual Joint 1 Position,Actual Joint 2 Position,Actual Joint 3 Position,Actual Joint 4 Position,Actual Joint 5 Position,Actual Joint 6 Position,Actual Joint 0 Velocity,Actual Joint 1 Velocity,Actual Joint 2 Velocity,Actual Joint 3 Velocity,Actual Joint 4 Velocity,Actual Joint 5 Velocity,Actual Joint 6 Velocity,Actual Joint 0 Acceleration,Actual Joint 1 Acceleration,Actual Joint 2 Acceleration,Actual Joint 3 Acceleration,Actual Joint 4 Acceleration,Actual Joint 5 Acceleration,Actual Joint 6 Acceleration,Actual Joint 0 Torque,Actual Joint 1 Torque,Actual Joint 2 Torque,Actual Joint 3 Torque,Actual Joint 4 Torque,Actual Joint 5 Torque,Actual Joint 6 Torque,
0.0456545,-0.0745379,-0.0229187,-1.86924,-0.00325781,0.240345,-0.00499394,0.000438017,0.0201268,0.000418274,-0.0340918,-0.00475362,0.0547765,-0.000393378,0,0,0,0,0,0,0,0.0534982,22.0386,0.0740957,-24.2975,-0.595145,2.06434,-0.0250193,0.0456168,-0.0753923,-0.0229488,-1.86651,-0.00293988,0.234498,-0.00493715,-0.00523517,-0.000891477,0.00268376,-0.00431777,-0.0106464,0.000499205,-0.000180042,0,0,0,0,0,0,0,-0.0718349,-32.6497,-0.137926,27.0264,1.06353,2.8875,-0.0429228,
0.0455927,-0.0753788,-0.0229722,-1.86653,-0.00307158,0.234461,-0.00493737,0.000179465,0.0162303,0.000161555,-0.0273723,-0.00454123,0.043581,-0.000315602,0,0,0,0,0,0,0,0.0478104,22.4793,0.0638,-24.2139,-0.595369,1.81296,-0.023503,0.0456168,-0.0753923,-0.0229488,-1.86651,-0.00293988,0.234498,-0.00493715,-0.00523517,-0.000891477,0.00268376,-0.00431777,-0.0106464,0.000499205,-0.000180042,0,0,0,0,0,0,0,-0.0718349,-32.6497,-0.137926,27.0264,1.06353,2.8875,-0.0429228,
0.0455869,-0.075374,-0.022978,-1.86654,-0.00309295,0.234455,-0.00493738,1.04328e-07,0.0131034,-1.67964e-05,-0.0219721,-0.00416729,0.0347061,-0.00025264,0,0,0,0,0,0,0,0.040647,23.051,0.0521013,-24.1058,-0.594758,1.46493,-0.0215351,0.0456168,-0.0753923,-0.0229488,-1.86651,-0.00293988,0.234498,-0.00493715,-0.00523517,-0.000891477,0.00268376,-0.00431777,-0.0106464,0.000499205,-0.000180042,0,0,0,0,0,0,0,-0.0718349,-32.6497,-0.137926,27.0264,1.06353,2.8875,-0.0429228,
0.0455822,-0.0753697,-0.0229829,-1.86654,-0.00310873,0.234451,-0.00493737,-0.000118491,0.0105904,-0.000134647,-0.0176351,-0.0037283,0.0276709,-0.000201969,0,0,0,0,0,0,0,0.0346609,23.5842,0.0425199,-23.9354,-0.592409,1.08221,-0.019549,0.0456206,-0.0750812,-0.0229525,-1.86688,-0.00293824,0.234629,-0.00493715,0.00120289,0.0317461,0.00195046,-0.0138211,-0.00707021,0.00925491,-0.000750363,0.804758,4.0797,-0.091663,-1.18791,0.447028,1.09446,-0.0712901,-0.0956386,-29.4283,-0.0863513,23.4399,1.08184,2.04522,-0.0429228,
0.0456416,-0.0745028,-0.0229328,-1.86755,-0.00313983,0.23491,-0.00493389,0.000428328,0.0229314,0.000383558,-0.0309423,-0.00802242,0.0291653,-8.01776e-05,0,0,0,0,0,0,0,-9.31842e-05,28.2046,0.0231623,-23.2043,-0.994089,-2.19077,0.000325737,0.0456206,-0.0750812,-0.0229525,-1.86688,-0.00293824,0.234629,-0.00493715,0.00120289,0.0317461,0.00195046,-0.0138211,-0.00707021,0.00925491,-0.000750363,0,0,0,0,0,0,0,-0.0956386,-29.4283,-0.0863513,23.4399,1.08184,2.04522,-0.0429228,
0.0455994,-0.0739715,-0.0229647,-1.86789,-0.00234738,0.234431,-0.00494912,-0.000711148,0.0316295,-0.000490298,-0.0331146,0.0133934,0.0113568,-0.000444759,0,0,0,0,0,0,0,0.461554,0.139433,0.457167,-0.214126,3.17718,-1.25078,-0.00106937,0.0456206,-0.0750812,-0.0229525,-1.86688,-0.00293824,0.234629,-0.00493715,0.00120289,0.0317461,0.00195046,-0.0138211,-0.00707021,0.00925491,-0.000750363,0,0,0,0,0,0,0,-0.0956386,-29.4283,-0.0863513,23.4399,1.08184,2.04522,-0.0429228,
0.0455396,-0.0735455,-0.0230195,-1.86812,-0.000954983,0.233634,-0.00495862,-0.00206296,0.0359522,-0.00176243,-0.0322176,0.0455247,-0.0108226,-0.000593422,0,0,0,0,0,0,0,0.455322,0.138671,0.450961,-0.212137,3.15018,-1.23961,-0.00103865,0.0456206,-0.0750812,-0.0229525,-1.86688,-0.00293824,0.234629,-0.00493715,0.00120289,0.0317461,0.00195046,-0.0138211,-0.00707021,0.00925491,-0.000750363,0,0,0,0,0,0,0,-0.0956386,-29.4283,-0.0863513,23.4399,1.08184,2.04522,-0.0429228,
0.0454805,-0.0732128,-0.0230768,-1.8683,0.000796074,0.232685,-0.00496393,-0.00312785,0.0370796,-0.00284283,-0.0302724,0.0801962,-0.0323979,-0.000607335,0,0,0,0,0,0,0,0.449048,0.153342,0.444534,-0.205329,3.12395,-1.22196,-0.0010602,0.0456241,-0.0745487,-0.0229472,-1.86768,-0.00292244,0.23464,-0.00493302,0.00131076,0.0362681,0.00182114,-0.0309673,-0.01345,0.000932944,0.000581074,0.0134839,0.565245,-0.0161641,-2.14328,-0.797471,-1.04025,0.16643,-0.119442,-29.9797,-0.16173,25.0586,0.948178,2.47643,-0.0703886,
0.0456443,-0.0739174,-0.0229282,-1.86841,-0.00316421,0.234808,-0.00492932,-0.00199622,0.0454465,-0.00179853,-0.0426369,0.0581127,-0.0217059,-0.00039328,0,0,0,0,0,0,0,-8.67004e-05,28.2196,0.023024,-23.1997,-0.99373,-2.18439,0.000292769,0.0456241,-0.0745487,-0.0229472,-1.86768,-0.00292244,0.23464,-0.00493302,0.00131076,0.0362681,0.00182114,-0.0309673,-0.01345,0.000932944,0.000581074,0,0,0,0,0,0,0,-0.119442,-29.9797,-0.16173,25.0586,0.948178,2.47643,-0.0703886,
0.0455158,-0.0733281,-0.0230236,-1.86868,-0.000129274,0.232908,-0.0049758,-0.00480979,0.051091,-0.00382407,-0.0407733,0.122364,-0.0648635,-0.00147671,0,0,0,0,0,0,0,3.94991,0.487216,4.01476,-1.65587,11.0063,-6.26938,-0.00462827,0.0456241,-0.0745487,-0.0229472,-1.86768,-0.00292244,0.23464,-0.00493302,0.00131076,0.0362681,0.00182114,-0.0309673,-0.01345,0.000932944,0.000581074,0,0,0,0,0,0,0,-0.119442,-29.9797,-0.16173,25.0586,0.948178,2.47643,-0.0703886,
0.0453712,-0.0728723,-0.0231505,-1.86885,0.0048886,0.229936,-0.00500262,-0.00746213,0.0522665,-0.0062305,-0.0368462,0.223338,-0.126184,-0.00185177,0,0,0,0,0,0,0,3.89178,0.579168,3.96377,-1.59218,11.0063,-6.11362,-0.00361486,0.0456241,-0.0745487,-0.0229472,-1.86768,-0.00292244,0.23464,-0.00493302,0.00131076,0.0362681,0.00182114,-0.0309673,-0.01345,0.000932944,0.000581074,0,0,0,0,0,0,0,-0.119442,-29.9797,-0.16173,25.0586,0.948178,2.47643,-0.0703886,
0.0456443,-0.0739174,-0.0229282,-1.86841,-0.00316421,0.234808,-0.00492932,-0.00546364,0.057596,-0.00450866,-0.047896,0.172626,-0.0967351,-0.00138883,0,0,0,0,0,0,0,-8.67004e-05,28.2196,0.023024,-23.1997,-0.99373,-2.18439,0.000292769,0.0456241,-0.0745487,-0.0229472,-1.86768,-0.00292244,0.23464,-0.00493302,0.00131076,0.0362681,0.00182114,-0.0309673,-0.01345,0.000932944,0.000581074,0,0,0,0,0,0,0,-0.119442,-29.9797,-0.16173,25.0586,0.948178,2.47643,-0.0703886,
0.046023,-0.0734184,-0.0225316,-1.86875,-0.00103471,0.231031,-0.00486323,0.00509613,0.058553,0.00630935,-0.0467739,0.191338,-0.171813,0.000541165,0,0,0,0,0,0,0,27.573,1.86629,28.1271,-10.7471,11.007,-14.1724,0.0870242,0.0456219,-0.073308,-0.0229538,-1.86885,-0.00292568,0.234613,-0.00493398,-0.000517853,0.0471177,0.00246039,-0.0507613,-0.00907044,-0.00306966,0.000555898,-0.228577,1.35621,0.079906,-2.47426,0.547442,-0.500326,-0.00314694,-0.119442,-31.277,-0.110155,26.8518,1.06353,2.70806,-0.0703886,
0.0466826,-0.0730433,-0.0218276,-1.86902,0.00282265,0.224914,-0.00478378,0.0205668,0.05622,0.0226453,-0.0440203,0.249505,-0.290369,0.00241913,0,0,0,0,0,0,0,25.9942,3.06426,26.8222,-8.94507,11.007,-13.8741,0.0968733,0.0456219,-0.073308,-0.0229538,-1.86885,-0.00292568,0.234613,-0.00493398,-0.000517853,0.0471177,0.00246039,-0.0507613,-0.00907044,-0.00306966,0.000555898,0,0,0,0,0,0,0,-0.119442,-31.277,-0.110155,26.8518,1.06353,2.70806,-0.0703886,
0.0475658,-0.0727623,-0.0208919,-1.86931,0.00794266,0.217393,-0.00469069,0.0385327,0.0519997,0.0415086,-0.0425078,0.327604,-0.420341,0.0042627,0,0,0,0,0,0,0,24.5773,2.77377,25.4462,-7.7215,11.007,-13.467,0.111716,0.0456219,-0.073308,-0.0229538,-1.86885,-0.00292568,0.234613,-0.00493398,-0.000517853,0.0471177,0.00246039,-0.0507613,-0.00907044,-0.00306966,0.000555898,0,0,0,0,0,0,0,-0.119442,-31.277,-0.110155,26.8518,1.06353,2.70806,-0.0703886,
0.0456403,-0.0725853,-0.0229366,-1.86967,-0.00315994,0.234683,-0.00492978,0.0312883,0.0596683,0.0336366,-0.0544053,0.256227,-0.334539,0.00351512,0,0,0,0,0,0,0,-3.60293e-05,28.2555,0.022691,-23.1906,-0.992967,-2.17236,0.000227901,0.0456219,-0.073308,-0.0229538,-1.86885,-0.00292568,0.234613,-0.00493398,-0.000517853,0.0471177,0.00246039,-0.0507613,-0.00907044,-0.00306966,0.000555898,0,0,0,0,0,0,0,-0.119442,-31.277,-0.110155,26.8518,1.06353,2.70806,-0.0703886,
0.0462649,-0.0722542,-0.0223035,-1.8706,-0.00143135,0.231234,-0.00468739,0.0406451,0.056012,0.0427386,-0.0668351,0.248196,-0.35385,0.00887179,0,0,0,0,0,0,0,39.2513,-0.991013,39.9949,-20.9115,11.007,-14.1724,0.289228,0.0456219,-0.073308,-0.0229538,-1.86885,-0.00292568,0.234613,-0.00493398,-0.000517853,0.0471177,0.00246039,-0.0507613,-0.00907044,-0.00306966,0.000555898,0,0,0,0,0,0,0,-0.119442,-31.277,-0.110155,26.8518,1.06353,2.70806,-0.0703886,
0.0472885,-0.0720623,-0.021267,-1.87154,0.00198426,0.225353,-0.00455561,0.0581047,0.0496067,0.060101,-0.0768772,0.283947,-0.430111,0.0103919,0,0,0,0,0,0,0,34.7241,1.75999,35.2822,-18.8883,11.007,-14.1724,0.145588,0.0456219,-0.073308,-0.0229538,-1.86885,-0.00292568,0.234613,-0.00493398,-0.000517853,0.0471177,0.00246039,-0.0507613,-0.00907044,-0.00306966,0.000555898,0,0,0,0,0,0,0,-0.119442,-31.277,-0.110155,26.8518,1.06353,2.70806,-0.0703886,
0.0485755,-0.0719023,-0.0199554,-1.87247,0.00675455,0.217832,-0.00448565,0.0786598,0.0436837,0.080873,-0.084748,0.346415,-0.532107,0.0100626,0,0,0,0,0,0,0,31.534,3.20004,32.0982,-17.2073,11.007,-14.1724,0.0761668,0.0456219,-0.073308,-0.0229538,-1.86885,-0.00292568,0.234613,-0.00493398,-0.000517853,0.0471177,0.00246039,-0.0507613,-0.00907044,-0.00306966,0.000555898,0,0,0,0,0,0,0,-0.119442,-31.277,-0.110155,26.8518,1.06353,2.70806,-0.0703886,
0.0456403,-0.0725853,-0.0229366,-1.86967,-0.00315994,0.234683,-0.00492978,0.06339,0.0530155,0.0651281,-0.0881975,0.271275,-0.423952,0.008155,0,0,0,0,0,0,0,-3.60293e-05,28.2555,0.022691,-23.1906,-0.992967,-2.17236,0.000227901,0.0456219,-0.073308,-0.0229538,-1.86885,-0.00292568,0.234613,-0.00493398,-0.000517853,0.0471177,0.00246039,-0.0507613,-0.00907044,-0.00306966,0.000555898,0,0,0,0,0,0,0,-0.119442,-31.277,-0.110155,26.8518,1.06353,2.70806,-0.0703886,
0.0464247,-0.0724558,-0.0221346,-1.87107,-0.0016936,0.23161,-0.00458144,0.0703212,0.0456483,0.0721534,-0.105546,0.253679,-0.41599,0.0152324,0,0,0,0,0,0,0,47.1316,-2.95394,48.2045,-29.8065,11.009,-14.1576,0.409148,0.0458101,-0.0719085,-0.0226394,-1.87049,-0.0027885,0.234494,-0.00493535,0.0252911,0.0211574,0.0362984,-0.0662116,0.00725599,-0.0157322,-0.000921167,3.22612,-3.24504,4.22976,-1.93128,2.0408,-1.58282,-0.184633,4.92694,-33.4709,4.91243,28.5458,1.58905,3.00652,-0.0301054,
0.0476601,-0.0724478,-0.0208596,-1.87253,0.00145455,0.226061,-0.00444768,0.0871407,0.0367184,0.0895985,-0.120967,0.281647,-0.471503,0.0155299,0,0,0,0,0,0,0,39.8036,1.20879,40.7787,-26.9638,11.009,-14.1576,0.136798,0.0458101,-0.0719085,-0.0226394,-1.87049,-0.0027885,0.234494,-0.00493535,0.0252911,0.0211574,0.0362984,-0.0662116,0.00725599,-0.0157322,-0.000921167,0,0,0,0,0,0,0,4.92694,-33.4709,4.91243,28.5458,1.58905,3.00652,-0.0301054,
0.0460059,-0.0712961,-0.0224384,-1.87131,-0.00283377,0.234431,-0.00493587,0.0746055,0.0446841,0.0767025,-0.117435,0.224186,-0.378786,0.0124111,0,0,0,0,0,0,0,0.00185212,28.2934,0.02478,-23.18,-0.991044,-2.15758,0.000138649,0.0458101,-0.0719085,-0.0226394,-1.87049,-0.0027885,0.234494,-0.00493535,0.0252911,0.0211574,0.0362984,-0.0662116,0.00725599,-0.0157322,-0.000921167,0,0,0,0,0,0,0,4.92694,-33.4709,4.91243,28.5458,1.58905,3.00652,-0.0301054,
0.0470459,-0.0713526,-0.021373,-1.87307,-0.0013473,0.231588,-0.0045251,0.0856861,0.0343359,0.0879974,-0.137867,0.21651,-0.374104,0.020198,0,0,0,0,0,0,0,53.0228,-2.52744,54.2732,-37.5165,11.009,-14.1576,0.481241,0.0458101,-0.0719085,-0.0226394,-1.87049,-0.0027885,0.234494,-0.00493535,0.0252911,0.0211574,0.0362984,-0.0662116,0.00725599,-0.0157322,-0.000921167,0,0,0,0,0,0,0,4.92694,-33.4709,4.91243,28.5458,1.58905,3.00652,-0.0301054,
0.0485491,-0.0714711,-0.0198328,-1.87494,0.00182238,0.226292,-0.00441688,0.106127,0.0245059,0.108903,-0.157053,0.25245,-0.431675,0.018864,0,0,0,0,0,0,0,43.4002,2.53905,44.3416,-33.9485,11.0131,-14.1329,0.0994282,0.046952,-0.0705826,-0.021427,-1.87318,-0.00242558,0.233939,-0.00493079,0.0481805,0.00456712,0.0701625,-0.105002,0.0247181,-0.0457019,0.00147821,2.86117,-2.07379,4.233,-4.84883,2.18276,-3.7462,0.299922,8.19599,-32.3482,8.26082,26.7526,1.87652,2.4096,-0.103348,
0.0503089,-0.071532,-0.0180257,-1.87684,0.006478,0.219278,-0.00447982,0.128897,0.0180835,0.1323,-0.173156,0.318351,-0.5207,0.0135176,0,0,0,0,0,0,0,37.4502,4.3069,38.2801,-31.867,11.0131,-14.1329,-0.0932984,0.046952,-0.0705826,-0.021427,-1.87318,-0.00242558,0.233939,-0.00493079,0.0481805,0.00456712,0.0701625,-0.105002,0.0247181,-0.0457019,0.00147821,0,0,0,0,0,0,0,8.19599,-32.3482,8.26082,26.7526,1.87652,2.4096,-0.103348,
0.047318,-0.0699925,-0.0210496,-1.87411,-0.00229489,0.233559,-0.0049341,0.112268,0.0292197,0.115274,-0.161803,0.257948,-0.426064,0.0107314,0,0,0,0,0,0,0,0.00879312,28.3331,0.0339793,-23.1615,-0.986949,-2.1329,4.01842e-06,0.046952,-0.0705826,-0.021427,-1.87318,-0.00242558,0.233939,-0.00493079,0.0481805,0.00456712,0.0701625,-0.105002,0.0247181,-0.0457019,0.00147821,0,0,0,0,0,0,0,8.19599,-32.3482,8.26082,26.7526,1.87652,2.4096,-0.103348,
0.0485719,-0.0701039,-0.0197666,-1.87621,-0.000736381,0.230737,-0.00449817,0.121161,0.0205897,0.124295,-0.182088,0.245321,-0.411384,0.0194833,0,0,0,0,0,0,0,57.0885,-0.754452,58.4153,-44.1693,11.0131,-14.1329,0.50854,0.046952,-0.0705826,-0.021427,-1.87318,-0.00242558,0.233939,-0.00493079,0.0481805,0.00456712,0.0701625,-0.105002,0.0247181,-0.0457019,0.00147821,0,0,0,0,0,0,0,8.19599,-32.3482,8.26082,26.7526,1.87652,2.4096,-0.103348,
0.0502749,-0.070241,-0.0180192,-1.87849,0.00252065,0.225542,-0.0044445,0.139505,0.0130456,0.143121,-0.202522,0.277683,-0.458985,0.0169283,0,0,0,0,0,0,0,45.4052,4.30024,46.4121,-40.2411,11.0156,-14.1032,0.0283123,0.0488057,-0.0694216,-0.0191346,-1.877,-0.002317,0.233156,-0.00492897,0.059267,0.0436403,0.0861714,-0.128873,-0.0160668,-0.000597427,-0.000702696,1.38581,4.88415,2.00112,-2.98382,-5.0981,5.63806,-0.272613,2.89569,-30.9041,2.68678,22.6187,1.54602,1.74035,-0.0767973,
0.0522051,-0.0703017,-0.0160378,-1.88083,0.00730395,0.218658,-0.0046072,0.159858,0.00891962,0.164032,-0.22057,0.341729,-0.53929,0.0094752,0,0,0,0,0,0,0,38.3895,5.48558,39.2231,-38.2228,11.0156,-14.1032,-0.216613,0.0488057,-0.0694216,-0.0191346,-1.877,-0.002317,0.233156,-0.00492897,0.059267,0.0436403,0.0861714,-0.128873,-0.0160668,-0.000597427,-0.000702696,0,0,0,0,0,0,0,2.89569,-30.9041,2.68678,22.6187,1.54602,1.74035,-0.0767973,
0.0492431,-0.0685824,-0.0186812,-1.87805,-0.00235677,0.232929,-0.00493796,0.13882,0.0281159,0.14256,-0.202779,0.272389,-0.437102,0.00735534,0,0,0,0,0,0,0,0.00661158,28.3635,0.0359622,-23.1358,-0.984412,-2.10322,-0.000154064,0.0488057,-0.0694216,-0.0191346,-1.877,-0.002317,0.233156,-0.00492897,0.059267,0.0436403,0.0861714,-0.128873,-0.0160668,-0.000597427,-0.000702696,0,0,0,0,0,0,0,2.89569,-30.9041,2.68678,22.6187,1.54602,1.74035,-0.0767973,
0.0506046,-0.0685488,-0.0172866,-1.88051,-0.000950799,0.230407,-0.00450663,0.145095,0.0233331,0.148914,-0.223671,0.25306,-0.412744,0.0166675,0,0,0,0,0,0,0,59.9702,1.13461,61.3504,-50.1402,11.0156,-14.1032,0.500635,0.0488057,-0.0694216,-0.0191346,-1.877,-0.002317,0.233156,-0.00492897,0.059267,0.0436403,0.0861714,-0.128873,-0.0160668,-0.000597427,-0.000702696,0,0,0,0,0,0,0,2.89569,-30.9041,2.68678,22.6187,1.54602,1.74035,-0.0767973,
0.0524079,-0.068566,-0.0154379,-1.88319,0.00223266,0.225475,-0.00453154,0.161157,0.0182374,0.165347,-0.246014,0.282035,-0.453481,0.0127114,0,0,0,0,0,0,0,46.5291,5.89792,47.5172,-46.0151,11.0231,-14.0696,-0.0711402,0.051348,-0.0685315,-0.0157049,-1.88169,-0.00240206,0.232502,-0.00493492,0.0930046,0.0437918,0.0929404,-0.153394,-0.00753939,-0.0231461,-0.00136951,4.21721,0.0189373,0.846124,-3.06521,1.06592,-2.81858,-0.0833511,-1.38897,-32.0982,-1.08611,26.0306,1.54052,1.89965,-0.0227812,
0.0560315,-0.0687567,-0.010894,-1.88895,0.00876732,0.218068,-0.00562525,0.173387,0.0127543,0.177932,-0.262953,0.357705,-0.529089,0.000806186,0,0,0,0,0,0,0,46.5291,5.89792,47.5172,-46.0151,11.0231,-14.0696,-0.0711402,0.051348,-0.0685315,-0.0157049,-1.88169,-0.00240206,0.232502,-0.00493492,0.0930046,0.0437918,0.0929404,-0.153394,-0.00753939,-0.0231461,-0.00136951,0,0,0,0,0,0,0,-1.38897,-32.0982,-1.08611,26.0306,1.54052,1.89965,-0.0227812,
0.0579041,-0.0688175,-0.00897161,-1.89177,0.0151257,0.210393,-0.00597527,0.185524,0.00868225,0.190407,-0.280951,0.445124,-0.61516,-0.00810544,0,0,0,0,0,0,0,38.6299,6.42213,39.4289,-44.1136,11.0231,-14.0696,-0.360392,0.051348,-0.0685315,-0.0157049,-1.88169,-0.00240206,0.232502,-0.00493492,0.0930046,0.0437918,0.0929404,-0.153394,-0.00753939,-0.0231461,-0.00136951,0,0,0,0,0,0,0,-1.38897,-32.0982,-1.08611,26.0306,1.54052,1.89965,-0.0227812,
0.0598072,-0.0688787,-0.00701826,-1.89486,0.0223085,0.20286,-0.00631563,0.195998,0.00541639,0.201159,-0.301872,0.535669,-0.68043,-0.0149934,0,0,0,0,0,0,0,33.8968,5.44696,34.6119,-42.9199,11.0231,-14.0696,-0.469889,0.051348,-0.0685315,-0.0157049,-1.88169,-0.00240206,0.232502,-0.00493492,0.0930046,0.0437918,0.0929404,-0.153394,-0.00753939,-0.0231461,-0.00136951,0,0,0,0,0,0,0,-1.38897,-32.0982,-1.08611,26.0306,1.54052,1.89965,-0.0227812,
0.0616987,-0.0689101,-0.0050771,-1.89814,0.0300958,0.196092,-0.0066802,0.204086,0.00354699,0.209456,-0.323559,0.623217,-0.713544,-0.0211089,0,0,0,0,0,0,0,30.7168,3.85593,31.3906,-42.2761,11.0313,-13.5347,-0.431657,0.0548008,-0.0680658,-0.011856,-1.88767,-0.00211382,0.231511,-0.00493339,0.117453,0.0275465,0.10727,-0.196826,-0.00936066,-0.035971,-0.00107684,3.05606,-2.03066,1.79122,-5.42895,-0.227659,-1.60311,0.0365837,-4.32873,-32.6973,-3.91081,30.0653,1.32629,2.97997,-0.0365141,
0.0575261,-0.068169,-0.00904464,-1.89229,0.00446812,0.223161,-0.00558925,0.200231,0.000852322,0.205654,-0.320111,0.60377,-0.702357,-0.0262857,0,0,0,0,0,0,0,38.6418,6.42804,39.4486,-44.0815,11.0313,-14.0301,-0.360609,0.0548008,-0.0680658,-0.011856,-1.88767,-0.00211382,0.231511,-0.00493339,0.117453,0.0275465,0.10727,-0.196826,-0.00936066,-0.035971,-0.00107684,0,0,0,0,0,0,0,-4.32873,-32.6973,-3.91081,30.0653,1.32629,2.97997,-0.0365141,
0.0591525,-0.0682701,-0.00737139,-1.89497,0.0100267,0.216479,-0.00593919,0.200845,-0.00184485,0.206354,-0.322962,0.621981,-0.72895,-0.0297769,0,0,0,0,0,0,0,33.9087,5.45287,34.6317,-42.8879,11.0313,-14.0301,-0.470105,0.0548008,-0.0680658,-0.011856,-1.88767,-0.00211382,0.231511,-0.00493339,0.117453,0.0275465,0.10727,-0.196826,-0.00936066,-0.035971,-0.00107684,0,0,0,0,0,0,0,-4.32873,-32.6973,-3.91081,30.0653,1.32629,2.97997,-0.0365141,
0.0608551,-0.0683854,-0.00562152,-1.89793,0.0166061,0.209657,-0.00627877,0.203241,-0.00435898,0.20883,-0.332551,0.662069,-0.7537,-0.0323112,0,0,0,0,0,0,0,30.7168,3.85593,31.3906,-42.2761,11.0313,-13.5347,-0.431657,0.0548008,-0.0680658,-0.011856,-1.88767,-0.00211382,0.231511,-0.00493339,0.117453,0.0275465,0.10727,-0.196826,-0.00936066,-0.035971,-0.00107684,0,0,0,0,0,0,0,-4.32873,-32.6973,-3.91081,30.0653,1.32629,2.97997,-0.0365141,
0.0560476,-0.0680896,-0.0105682,-1.88984,0.000260287,0.228422,-0.00521331,0.193763,-0.00408216,0.199258,-0.320339,0.589008,-0.680172,-0.0328468,0,0,0,0,0,0,0,38.6418,6.42804,39.4486,-44.0815,11.0313,-14.0301,-0.360609,0.0548008,-0.0680658,-0.011856,-1.88767,-0.00211382,0.231511,-0.00493339,0.117453,0.0275465,0.10727,-0.196826,-0.00936066,-0.035971,-0.00107684,0,0,0,0,0,0,0,-4.32873,-32.6973,-3.91081,30.0653,1.32629,2.97997,-0.0365141,
0.0575261,-0.068169,-0.00904464,-1.89229,0.00446812,0.223161,-0.00558925,0.191972,-0.005251,0.197496,-0.317535,0.576403,-0.67566,-0.0356761,0,0,0,0,0,0,0,33.9523,5.48492,34.6879,-42.8256,11.0549,-13.963,-0.470499,0.0588242,-0.0679385,-0.00591851,-1.89572,-0.00161392,0.230884,-0.00493366,0.1374,-0.0107858,0.217752,-0.281333,0.0299323,-0.0408939,-0.00053989,2.49335,-4.79154,13.8103,-10.5633,4.91162,-0.615365,0.0671183,1.98322,-29.9519,2.46461,26.8518,1.37573,2.05163,-0.0630644,
0.0591525,-0.0682701,-0.00737139,-1.89497,0.0100267,0.216479,-0.00593919,0.194238,-0.00672751,0.199828,-0.320901,0.600087,-0.707592,-0.0372893,0,0,0,0,0,0,0,30.7604,3.88797,31.4468,-42.2138,11.0549,-13.4677,-0.432051,0.0588242,-0.0679385,-0.00591851,-1.89572,-0.00161392,0.230884,-0.00493366,0.1374,-0.0107858,0.217752,-0.281333,0.0299323,-0.0408939,-0.00053989,0,0,0,0,0,0,0,1.98322,-29.9519,2.46461,26.8518,1.37573,2.05163,-0.0630644,
0.0608551,-0.0683854,-0.00562152,-1.89793,0.0166061,0.209657,-0.00627877,0.197955,-0.00826511,0.203609,-0.330902,0.644554,-0.736614,-0.038321,0,0,0,0,0,0,0,27.6854,2.47468,28.3128,-41.7885,11.0549,-10.2757,-0.420538,0.0588242,-0.0679385,-0.00591851,-1.89572,-0.00161392,0.230884,-0.00493366,0.1374,-0.0107858,0.217752,-0.281333,0.0299323,-0.0408939,-0.00053989,0,0,0,0,0,0,0,1.98322,-29.9519,2.46461,26.8518,1.37573,2.05163,-0.0630644,
0.0604639,-0.0680226,-0.00421622,-1.89809,0.00114825,0.227422,-0.00522141,0.199355,-0.00871419,0.205444,-0.324038,0.584698,-0.675835,-0.0378505,0,0,0,0,0,0,0,38.6854,6.46009,39.5049,-44.0193,11.0549,-13.963,-0.361003,0.0588242,-0.0679385,-0.00591851,-1.89572,-0.00161392,0.230884,-0.00493366,0.1374,-0.0107858,0.217752,-0.281333,0.0299323,-0.0408939,-0.00053989,0,0,0,0,0,0,0,1.98322,-29.9519,2.46461,26.8518,1.37573,2.05163,-0.0630644,
0.0622473,-0.0681004,-0.00237794,-1.90063,0.00577861,0.221833,-0.00560472,0.204069,-0.00891429,0.210312,-0.322647,0.583517,-0.680412,-0.0398632,0,0,0,0,0,0,0,33.9862,5.43882,34.7381,-42.7669,11.0708,-13.8937,-0.470864,0.0630234,-0.068148,0.00162044,-1.90665,-8.91896e-05,0.228039,-0.00493044,0.11923,-0.042483,0.246572,-0.344138,0.0454849,-0.103802,-8.66469e-06,-2.27118,-3.96215,3.60248,-7.85071,1.94408,-7.86349,0.0664031,3.45508,-33.1972,3.31361,26.6772,1.55883,1.95275,-0.0630644,
0.06411,-0.0681829,-0.000461107,-1.90336,0.011743,0.214911,-0.00596007,0.209822,-0.00919447,0.216171,-0.32628,0.615924,-0.717364,-0.0407742,0,0,0,0,0,0,0,30.7943,3.84187,31.497,-42.1551,11.0708,-13.3984,-0.432416,0.0630234,-0.068148,0.00162044,-1.90665,-8.91896e-05,0.228039,-0.00493044,0.11923,-0.042483,0.246572,-0.344138,0.0454849,-0.103802,-8.66469e-06,0,0,0,0,0,0,0,3.45508,-33.1972,3.31361,26.6772,1.55883,1.95275,-0.0630644,
0.0662825,-0.0684402,0.00500786,-1.91178,0.00775546,0.218022,-0.00566869,0.209881,-0.0107541,0.216372,-0.326658,0.614074,-0.722134,-0.0416109,0,0,0,0,0,0,0,33.9862,5.43882,34.7381,-42.7669,11.0708,-13.8937,-0.470864,0.0630234,-0.068148,0.00162044,-1.90665,-8.91896e-05,0.228039,-0.00493044,0.11923,-0.042483,0.246572,-0.344138,0.0454849,-0.103802,-8.66469e-06,0,0,0,0,0,0,0,3.45508,-33.1972,3.31361,26.6772,1.55883,1.95275,-0.0630644,
0.0680113,-0.0685865,0.0067902,-1.91468,0.01393,0.211733,-0.00601455,0.211124,-0.0122612,0.217656,-0.333959,0.645624,-0.734947,-0.0419352,0,0,0,0,0,0,0,30.7943,3.84187,31.497,-42.1551,11.0708,-13.3984,-0.432416,0.0630234,-0.068148,0.00162044,-1.90665,-8.91896e-05,0.228039,-0.00493044,0.11923,-0.042483,0.246572,-0.344138,0.0454849,-0.103802,-8.66469e-06,0,0,0,0,0,0,0,3.45508,-33.1972,3.31361,26.6772,1.55883,1.95275,-0.0630644,
0.069751,-0.0687076,0.00858128,-1.91782,0.0210267,0.20587,-0.00638181,0.212392,-0.0128361,0.218902,-0.34552,0.693915,-0.734519,-0.0427297,0,0,0,0,0,0,0,27.7019,2.33556,28.3614,-41.6742,11.0631,-10.1597,-0.421187,0.0671988,-0.0682597,0.00911376,-1.91654,0.000559237,0.225733,-0.00492638,0.129455,-0.0285351,0.233544,-0.292082,0.00478781,-0.0705544,-0.000746889,1.27808,1.74349,-1.62853,6.50709,-5.08713,4.15593,-0.092278,-1.3374,-32.5743,-1.8637,22.1466,1.13128,1.16997,-0.0566557,
0.0714853,-0.0687849,0.0103654,-1.9211,0.0287408,0.200813,-0.00674475,0.21327,-0.0122025,0.219725,-0.358533,0.747986,-0.714039,-0.0432573,0,0,0,0,0,0,0,25.0449,1.49619,25.6559,-41.085,11.0631,-7.24161,-0.45328,0.0671988,-0.0682597,0.00911376,-1.91654,0.000559237,0.225733,-0.00492638,0.129455,-0.0285351,0.233544,-0.292082,0.00478781,-0.0705544,-0.000746889,0,0,0,0,0,0,0,-1.3374,-32.5743,-1.8637,22.1466,1.13128,1.16997,-0.0566557,
0.0687592,-0.0684268,0.0107463,-1.91889,0.00336636,0.222056,-0.00530817,0.209626,-0.0139402,0.216593,-0.345707,0.668567,-0.663145,-0.0441504,0,0,0,0,0,0,0,33.9688,5.34579,34.7365,-42.7113,11.0631,-13.847,-0.471148,0.0671988,-0.0682597,0.00911376,-1.91654,0.000559237,0.225733,-0.00492638,0.129455,-0.0285351,0.233544,-0.292082,0.00478781,-0.0705544,-0.000746889,0,0,0,0,0,0,0,-1.3374,-32.5743,-1.8637,22.1466,1.13128,1.16997,-0.0566557,
0.0704229,-0.0685991,0.0124681,-1.92144,0.00810158,0.216483,-0.00566908,0.209294,-0.0154599,0.216321,-0.340188,0.653234,-0.669863,-0.044343,0,0,0,0,0,0,0,30.7769,3.74884,31.4954,-42.0995,11.0631,-13.3516,-0.4327,0.0671988,-0.0682597,0.00911376,-1.91654,0.000559237,0.225733,-0.00492638,0.129455,-0.0285351,0.233544,-0.292082,0.00478781,-0.0705544,-0.000746889,0,0,0,0,0,0,0,-1.3374,-32.5743,-1.8637,22.1466,1.13128,1.16997,-0.0566557,
0.0721371,-0.0687852,0.0142372,-1.92429,0.0141969,0.210476,-0.00601562,0.210292,-0.0170202,0.217283,-0.34336,0.674969,-0.686067,-0.044138,0,0,0,0,0,0,0,27.6989,2.28025,28.3728,-41.6302,11.0664,-10.1039,-0.421457,0.0708621,-0.0682799,0.0162623,-1.92557,0.00142645,0.223229,-0.00492638,0.109374,0.000535424,0.222096,-0.292159,0.0553467,-0.133396,-0.000499924,-2.51017,3.63381,-1.43097,-0.00964977,6.31986,-7.85518,0.0308705,1.70551,-28.857,1.68703,20.4526,0.984799,0.931021,-0.0566557,
0.0738649,-0.0689441,0.0160175,-1.92738,0.021239,0.204835,-0.00638333,0.211427,-0.0175891,0.218334,-0.351926,0.71603,-0.689861,-0.0445032,0,0,0,0,0,0,0,25.042,1.44089,25.6673,-41.041,11.0664,-7.18581,-0.45355,0.0708621,-0.0682799,0.0162623,-1.92557,0.00142645,0.223229,-0.00492638,0.109374,0.000535424,0.222096,-0.292159,0.0553467,-0.133396,-0.000499924,0,0,0,0,0,0,0,1.70551,-28.857,1.68703,20.4526,0.984799,0.931021,-0.0566557,
0.0737668,-0.0684553,0.0192961,-1.93077,0.00950842,0.214526,-0.00563025,0.206523,-0.0171287,0.213455,-0.350292,0.697093,-0.6729,-0.0443614,0,0,0,0,0,0,0,30.774,3.69354,31.5068,-42.0556,11.0664,-13.2959,-0.43297,0.0708621,-0.0682799,0.0162623,-1.92557,0.00142645,0.223229,-0.00492638,0.109374,0.000535424,0.222096,-0.292159,0.0553467,-0.133396,-0.000499924,0,0,0,0,0,0,0,1.70551,-28.857,1.68703,20.4526,0.984799,0.931021,-0.0566557,
0.0753081,-0.0685885,0.0208899,-1.93378,0.0157549,0.209696,-0.00599985,0.20375,-0.0170336,0.210608,-0.355391,0.713837,-0.659072,-0.044729,0,0,0,0,0,0,0,27.6989,2.28025,28.3728,-41.6302,11.0664,-10.1039,-0.421457,0.0708621,-0.0682799,0.0162623,-1.92557,0.00142645,0.223229,-0.00492638,0.109374,0.000535424,0.222096,-0.292159,0.0553467,-0.133396,-0.000499924,0,0,0,0,0,0,0,1.70551,-28.857,1.68703,20.4526,0.984799,0.931021,-0.0566557,
0.0768769,-0.0686975,0.022509,-1.93696,0.0228575,0.205385,-0.00636361,0.202221,-0.0163514,0.208966,-0.363847,0.748633,-0.635026,-0.0448772,0,0,0,0,0,0,0,25.0465,1.37557,25.6875,-40.9699,11.0636,-7.09815,-0.45396,0.0746459,-0.0684241,0.0235963,-1.93559,0.0052933,0.216459,-0.00492486,0.119753,0.0213801,0.213673,-0.289388,0.140629,-0.225193,0.00056068,1.2974,2.60558,-1.05292,0.34637,10.6603,-11.4747,0.132576,-1.59131,-33.225,-1.66136,29.2441,1.12487,2.49566,-0.0703886,
0.0784626,-0.0687758,0.0241439,-1.94025,0.0305268,0.201863,-0.00670923,0.201418,-0.0150378,0.208043,-0.373487,0.79064,-0.596088,-0.0445423,0,0,0,0,0,0,0,23.3007,0.616758,23.9155,-40.3993,11.0636,-4.74091,-0.450038,0.0746459,-0.0684241,0.0235963,-1.93559,0.0052933,0.216459,-0.00492486,0.119753,0.0213801,0.213673,-0.289388,0.140629,-0.225193,0.00056068,0,0,0,0,0,0,0,-1.59131,-33.225,-1.66136,29.2441,1.12487,2.49566,-0.0703886,
0.0774292,-0.0684853,0.0265073,-1.94117,0.0143257,0.209212,-0.005645,0.196619,-0.0136898,0.203318,-0.371885,0.766779,-0.572741,-0.0449967,0,0,0,0,0,0,0,27.7034,2.21493,28.393,-41.5591,11.0636,-10.0162,-0.421867,0.0746459,-0.0684241,0.0235963,-1.93559,0.0052933,0.216459,-0.00492486,0.119753,0.0213801,0.213673,-0.289388,0.140629,-0.225193,0.00056068,0,0,0,0,0,0,0,-1.59131,-33.225,-1.66136,29.2441,1.12487,2.49566,-0.0703886,
0.0788891,-0.0685646,0.0280192,-1.94428,0.0208275,0.205601,-0.00601151,0.193794,-0.0129346,0.200452,-0.375367,0.775967,-0.548473,-0.0451602,0,0,0,0,0,0,0,25.0465,1.37557,25.6875,-40.9699,11.0636,-7.09815,-0.45396,0.0746459,-0.0684241,0.0235963,-1.93559,0.0052933,0.216459,-0.00492486,0.119753,0.0213801,0.213673,-0.289388,0.140629,-0.225193,0.00056068,0,0,0,0,0,0,0,-1.59131,-33.225,-1.66136,29.2441,1.12487,2.49566,-0.0703886,
0.0803812,-0.0686353,0.0295612,-1.94752,0.0280753,0.202575,-0.0063584,0.192337,-0.0121142,0.198911,-0.381348,0.80197,-0.514415,-0.0448004,0,0,0,0,0,0,0,23.3077,0.51788,23.9402,-40.2966,11.0528,-4.65126,-0.450566,0.0788279,-0.0686493,0.0314158,-1.94536,0.0106574,0.208916,-0.00492415,0.140928,0.0218049,0.229143,-0.297393,0.147614,-0.184282,0.000413254,2.64693,0.0530998,1.93381,-1.00065,0.873012,5.11387,-0.0184282,-2.83307,-33.947,-2.86345,29.6686,1.14959,2.21093,-0.0767973,
0.0816687,-0.0687211,0.0343931,-1.95113,0.0200602,0.203919,-0.00567669,0.189527,-0.0113667,0.196271,-0.380145,0.780423,-0.476238,-0.045229,0,0,0,0,0,0,0,25.0535,1.27669,25.7122,-40.8672,11.0528,-7.0085,-0.454488,0.0788279,-0.0686493,0.0314158,-1.94536,0.0106574,0.208916,-0.00492415,0.140928,0.0218049,0.229143,-0.297393,0.147614,-0.184282,0.000413254,0,0,0,0,0,0,0,-2.83307,-33.947,-2.86345,29.6686,1.14959,2.21093,-0.0767973,
0.0831154,-0.0688044,0.0358939,-1.95429,0.0267043,0.201628,-0.0060288,0.187791,-0.0111747,0.194537,-0.382954,0.79044,-0.438276,-0.044986,0,0,0,0,0,0,0,23.3077,0.51788,23.9402,-40.2966,11.0528,-4.65126,-0.450566,0.0788279,-0.0686493,0.0314158,-1.94536,0.0106574,0.208916,-0.00492415,0.140928,0.0218049,0.229143,-0.297393,0.147614,-0.184282,0.000413254,0,0,0,0,0,0,0,-2.83307,-33.947,-2.86345,29.6686,1.14959,2.21093,-0.0767973,
0.0845844,-0.0688845,0.037414,-1.95753,0.0340516,0.199884,-0.00634798,0.186956,-0.0109428,0.193631,-0.387476,0.816035,-0.394221,-0.0439682,0,0,0,0,0,0,0,22.1404,-0.262906,22.756,-39.8519,11.0528,-2.68376,-0.429807,0.0788279,-0.0686493,0.0314158,-1.94536,0.0106574,0.208916,-0.00492415,0.140928,0.0218049,0.229143,-0.297393,0.147614,-0.184282,0.000413254,0,0,0,0,0,0,0,-2.83307,-33.947,-2.86345,29.6686,1.14959,2.21093,-0.0767973,
0.0860712,-0.0689533,0.0389503,-1.96082,0.0418578,0.198798,-0.0066391,0.186735,-0.0104743,0.193313,-0.392202,0.847982,-0.342506,-0.0424526,0,0,0,0,0,0,0,21.2575,-1.02887,21.8747,-39.3634,11.0339,-1.01805,-0.393419,0.082933,-0.0686428,0.0391515,-1.95573,0.0158323,0.202531,-0.00492091,0.1099,0.00793092,0.222199,-0.31343,0.157134,-0.180408,0.000845784,-3.87852,-1.73425,-0.868051,-2.00463,1.19005,0.484305,0.0540663,-1.71826,-34.9468,-1.96288,31.2634,1.02142,2.82067,-0.0767973,
0.0855051,-0.068823,0.04186,-1.96169,0.0252293,0.199028,-0.00564812,0.181908,-0.0110942,0.188625,-0.390624,0.816553,-0.316548,-0.0428797,0,0,0,0,0,0,0,23.3043,0.396807,23.9541,-40.2186,11.0339,-4.5792,-0.450962,0.082933,-0.0686428,0.0391515,-1.95573,0.0158323,0.202531,-0.00492091,0.1099,0.00793092,0.222199,-0.31343,0.157134,-0.180408,0.000845784,0,0,0,0,0,0,0,-1.71826,-34.9468,-1.96288,31.2634,1.02142,2.82067,-0.0767973,
0.086843,-0.0689341,0.0432509,-1.96487,0.0318152,0.19772,-0.0059695,0.178975,-0.0116533,0.185674,-0.392102,0.81789,-0.285942,-0.0423384,0,0,0,0,0,0,0,22.1369,-0.383978,22.7699,-39.7739,11.0339,-2.6117,-0.430202,0.082933,-0.0686428,0.0391515,-1.95573,0.0158323,0.202531,-0.00492091,0.1099,0.00793092,0.222199,-0.31343,0.157134,-0.180408,0.000845784,0,0,0,0,0,0,0,-1.71826,-34.9468,-1.96288,31.2634,1.02142,2.82067,-0.0767973,
0.0882172,-0.0690345,0.0446754,-1.96811,0.0390905,0.196959,-0.00626137,0.177534,-0.0118303,0.18415,-0.394692,0.836196,-0.247766,-0.0411673,0,0,0,0,0,0,0,21.2575,-1.02887,21.8747,-39.3634,11.0339,-1.01805,-0.393419,0.082933,-0.0686428,0.0391515,-1.95573,0.0158323,0.202531,-0.00492091,0.1099,0.00793092,0.222199,-0.31343,0.157134,-0.180408,0.000845784,0,0,0,0,0,0,0,-1.71826,-34.9468,-1.96288,31.2634,1.02142,2.82067,-0.0767973,
0.0896206,-0.0691184,0.0461276,-1.97137,0.0468216,0.196794,-0.00652154,0.177114,-0.0115632,0.183627,-0.397158,0.862233,-0.202331,-0.0394382,0,0,0,0,0,0,0,20.5184,-1.46844,21.1191,-38.9363,11.0339,0.282447,-0.360666,0.082933,-0.0686428,0.0391515,-1.95573,0.0158323,0.202531,-0.00492091,0.1099,0.00793092,0.222199,-0.31343,0.157134,-0.180408,0.000845784,0,0,0,0,0,0,0,-1.71826,-34.9468,-1.96288,31.2634,1.02142,2.82067,-0.0767973,
0.0902341,-0.0692461,0.0518417,-1.97655,0.0383354,0.196415,-0.00581532,0.174004,-0.0134951,0.180542,-0.397115,0.857535,-0.155356,-0.0381839,0,0,0,0,0,0,0,21.2631,-1.15997,21.8996,-39.2557,11.0167,-0.933421,-0.393945,0.0864114,-0.0686628,0.0478216,-1.96724,0.0218375,0.196973,-0.0049212,0.0918715,-0.0169303,0.248647,-0.330708,0.188336,-0.12657,0.000178107,-2.25358,-3.10765,3.30599,-2.15973,3.90021,6.72976,-0.0834597,0.435978,-31.527,0.0882092,25.011,1.25305,2.00493,-0.0630644,
0.0915536,-0.0693833,0.0532111,-1.97973,0.0456977,0.197158,-0.00605184,0.172191,-0.0142252,0.17867,-0.397158,0.870086,-0.105705,-0.0364602,0,0,0,0,0,0,0,20.524,-1.59954,21.1441,-38.8287,11.0167,0.367078,-0.361192,0.0864114,-0.0686628,0.0478216,-1.96724,0.0218375,0.196973,-0.0049212,0.0918715,-0.0169303,0.248647,-0.330708,0.188336,-0.12657,0.000178107,0,0,0,0,0,0,0,0.435978,-31.527,0.0882092,25.011,1.25305,2.00493,-0.0630644,
0.0928961,-0.0694904,0.0546018,-1.98289,0.0534881,0.198359,-0.00625943,0.171317,-0.01406,0.177703,-0.396635,0.890829,-0.0545346,-0.0343579,0,0,0,0,0,0,0,19.875,-1.83732,20.4777,-38.3666,11.0167,1.38733,-0.322875,0.0864114,-0.0686628,0.0478216,-1.96724,0.0218375,0.196973,-0.0049212,0.0918715,-0.0169303,0.248647,-0.330708,0.188336,-0.12657,0.000178107,0,0,0,0,0,0,0,0.435978,-31.527,0.0882092,25.011,1.25305,2.00493,-0.0630644,
0.0942545,-0.0695716,0.0560071,-1.986,0.0615641,0.199971,-0.00644301,0.171011,-0.0132778,0.177296,-0.395252,0.914563,-0.0033449,-0.0320757,0,0,0,0,0,0,0,19.2794,-1.91634,19.8643,-37.8719,11.0167,2.18693,-0.290808,0.0864114,-0.0686628,0.0478216,-1.96724,0.0218375,0.196973,-0.0049212,0.0918715,-0.0169303,0.248647,-0.330708,0.188336,-0.12657,0.000178107,0,0,0,0,0,0,0,0.435978,-31.527,0.0882092,25.011,1.25305,2.00493,-0.0630644,
0.0876721,-0.0688755,0.0491674,-1.97024,0.025928,0.196359,-0.005248,0.168327,-0.0159385,0.175481,-0.391355,0.833913,-0.0180291,-0.0338306,0,0,0,0,0,0,0,21.2475,-1.27858,21.9019,-39.1782,10.9856,-0.870335,-0.394389,0.0889728,-0.0687604,0.0556505,-1.97807,0.0290287,0.194417,-0.00492156,0.0720099,-0.00506888,0.239594,-0.32947,0.25446,-0.0601296,0.000408542,-2.48271,1.48267,-1.13159,0.154738,8.26555,8.30502,0.0288044,1.2215,-30.9517,0.838026,24.4635,0.9967,1.99212,-0.0566557,
0.0889416,-0.0690763,0.050496,-1.97338,0.0316255,0.196155,-0.00554998,0.166397,-0.0177721,0.1736,-0.39139,0.809566,-0.0195363,-0.034614,0,0,0,0,0,0,0,20.5085,-1.71816,21.1464,-38.7511,10.9856,0.430163,-0.361636,0.0889728,-0.0687604,0.0556505,-1.97807,0.0290287,0.194417,-0.00492156,0.0720099,-0.00506888,0.239594,-0.32947,0.25446,-0.0601296,0.000408542,0,0,0,0,0,0,0,1.2215,-30.9517,0.838026,24.4635,0.9967,1.99212,-0.0566557,
0.0902341,-0.0692461,0.0518417,-1.97655,0.0383354,0.196415,-0.00581532,0.165431,-0.0184622,0.172521,-0.3925,0.815402,-0.00912046,-0.0343245,0,0,0,0,0,0,0,19.8595,-1.95594,20.4799,-38.289,10.9856,1.45041,-0.323319,0.0889728,-0.0687604,0.0556505,-1.97807,0.0290287,0.194417,-0.00492156,0.0720099,-0.00506888,0.239594,-0.32947,0.25446,-0.0601296,0.000408542,0,0,0,0,0,0,0,1.2215,-30.9517,0.838026,24.4635,0.9967,1.99212,-0.0566557,
0.092522,-0.0692121,0.0593914,-1.9874,0.0461213,0.197008,-0.00564524,0.162558,-0.0179604,0.169513,-0.392516,0.822479,0.0259375,-0.032733,0,0,0,0,0,0,0,19.8595,-1.95594,20.4799,-38.289,10.9856,1.45041,-0.323319,0.0889728,-0.0687604,0.0556505,-1.97807,0.0290287,0.194417,-0.00492156,0.0720099,-0.00506888,0.239594,-0.32947,0.25446,-0.0601296,0.000408542,0,0,0,0,0,0,0,1.2215,-30.9517,0.838026,24.4635,0.9967,1.99212,-0.0566557,
0.0937609,-0.0693091,0.0606787,-1.99051,0.0535301,0.198721,-0.00583001,0.161018,-0.0167934,0.167793,-0.391697,0.843202,0.0635744,-0.0308057,0,0,0,0,0,0,0,19.2691,-2.12126,19.892,-37.6874,10.9566,2.33613,-0.291845,0.0924888,-0.0684276,0.0649296,-1.99167,0.0396159,0.193671,-0.00492308,0.104602,0.0137455,0.237444,-0.350247,0.30637,0.0104959,-0.000432727,4.07405,2.3518,-0.268796,-2.59711,6.48875,8.82818,-0.105159,1.17389,-32.3244,0.838026,24.4357,1.1615,1.81267,-0.0429228,
0.095025,-0.0693801,0.0619894,-1.99357,0.0613377,0.20076,-0.00598922,0.160416,-0.0152091,0.167003,-0.389858,0.869752,0.101846,-0.0286248,0,0,0,0,0,0,0,18.7212,-2.08029,19.3264,-37.1675,10.9566,2.9326,-0.256945,0.0924888,-0.0684276,0.0649296,-1.99167,0.0396159,0.193671,-0.00492308,0.104602,0.0137455,0.237444,-0.350247,0.30637,0.0104959,-0.000432727,0,0,0,0,0,0,0,1.17389,-32.3244,0.838026,24.4357,1.1615,1.81267,-0.0429228,
0.0963064,-0.06943,0.0633165,-1.99658,0.0694138,0.203067,-0.00612672,0.160368,-0.0134156,0.16678,-0.387031,0.897703,0.13914,-0.0263373,0,0,0,0,0,0,0,18.2046,-1.96357,18.7924,-36.6307,10.9566,3.37222,-0.227292,0.0924888,-0.0684276,0.0649296,-1.99167,0.0396159,0.193671,-0.00492308,0.104602,0.0137455,0.237444,-0.350247,0.30637,0.0104959,-0.000432727,0,0,0,0,0,0,0,1.17389,-32.3244,0.838026,24.4357,1.1615,1.81267,-0.0429228,
0.0973341,-0.0684614,0.0700142,-2.00402,0.0650914,0.200849,-0.00555358,0.158569,-0.0105039,0.1649,-0.384807,0.907275,0.169565,-0.024033,0,0,0,0,0,0,0,18.2046,-1.96357,18.7924,-36.6307,10.9566,3.37222,-0.227292,0.0924888,-0.0684276,0.0649296,-1.99167,0.0396159,0.193671,-0.00492308,0.104602,0.0137455,0.237444,-0.350247,0.30637,0.0104959,-0.000432727,0,0,0,0,0,0,0,1.17389,-32.3244,0.838026,24.4357,1.1615,1.81267,-0.0429228,
0.0985534,-0.0684432,0.0712794,-2.00695,0.0730138,0.203381,-0.00565151,0.157338,-0.00794775,0.163552,-0.381233,0.92388,0.198972,-0.0216748,0,0,0,0,0,0,0,17.694,-1.92096,18.2804,-36.032,10.916,3.70476,-0.196284,0.0956003,-0.0683945,0.0718281,-2.00155,0.0486333,0.193962,-0.00491985,0.0969189,0.0307249,0.221994,-0.271785,0.279467,0.0142634,-0.0016255,-0.960412,2.12242,-1.93126,9.80776,-3.36286,0.470935,-0.149096,0.94379,-30.0789,0.0882092,22.8925,1.1679,1.4547,-0.0429228,
0.0997777,-0.0684196,0.0725483,-2.00982,0.0811717,0.206055,-0.00572987,0.156478,-0.00576968,0.162564,-0.376646,0.943052,0.226014,-0.0192987,0,0,0,0,0,0,0,17.2305,-1.73397,17.8005,-35.4816,10.916,3.90012,-0.169292,0.0956003,-0.0683945,0.0718281,-2.00155,0.0486333,0.193962,-0.00491985,0.0969189,0.0307249,0.221994,-0.271785,0.279467,0.0142634,-0.0016255,0,0,0,0,0,0,0,0.94379,-30.0789,0.0882092,22.8925,1.1679,1.4547,-0.0429228,
0.0961231,-0.0684705,0.0687551,-2.00101,0.0575269,0.198518,-0.00543505,0.155258,-0.00473251,0.161416,-0.378282,0.929766,0.232118,-0.0190176,0,0,0,0,0,0,0,17.2305,-1.73397,17.8005,-35.4816,10.916,3.90012,-0.169292,0.0956003,-0.0683945,0.0718281,-2.00155,0.0486333,0.193962,-0.00491985,0.0969189,0.0307249,0.221994,-0.271785,0.279467,0.0142634,-0.0016255,0,0,0,0,0,0,0,0.94379,-30.0789,0.0882092,22.8925,1.1679,1.4547,-0.0429228,
0.100092,-0.0685221,0.0765523,-2.01317,0.0738337,0.202767,-0.00538584,0.152455,-0.00406955,0.158543,-0.374267,0.931688,0.251594,-0.0172116,0,0,0,0,0,0,0,16.7903,-1.53845,17.3445,-34.931,10.916,4.0065,-0.141861,0.0956003,-0.0683945,0.0718281,-2.00155,0.0486333,0.193962,-0.00491985,0.0969189,0.0307249,0.221994,-0.271785,0.279467,0.0142634,-0.0016255,0,0,0,0,0,0,0,0.94379,-30.0789,0.0882092,22.8925,1.1679,1.4547,-0.0429228,
0.101235,-0.068519,0.0777391,-2.01597,0.0817121,0.205517,-0.0054473,0.150521,-0.0031795,0.156505,-0.369435,0.942313,0.270036,-0.0153057,0,0,0,0,0,0,0,16.3652,-1.41499,16.917,-34.337,10.8878,4.08747,-0.117858,0.0980181,-0.067797,0.0783191,-2.0102,0.0572445,0.194099,-0.00491608,0.0734101,0.0342701,0.207279,-0.289613,0.302185,0.0104636,-0.00019286,-2.93861,0.443142,-1.83933,-2.22858,2.83972,-0.474973,0.17908,3.45508,-30.1265,3.16286,23.7375,0.886837,1.34209,-0.0630644,
0.102386,-0.0685073,0.0789332,-2.01871,0.0898303,0.208333,-0.00549135,0.149189,-0.00224947,0.155057,-0.36402,0.956805,0.28642,-0.0133459,0,0,0,0,0,0,0,15.9608,-1.23794,16.4979,-33.793,10.8878,4.07876,-0.0938396,0.0980181,-0.067797,0.0783191,-2.0102,0.0572445,0.194099,-0.00491608,0.0734101,0.0342701,0.207279,-0.289613,0.302185,0.0104636,-0.00019286,0,0,0,0,0,0,0,3.45508,-30.1265,3.16286,23.7375,0.886837,1.34209,-0.0630644,
0.101068,-0.0676952,0.081547,-2.01888,0.0749278,0.200012,-0.00517979,0.145025,-0.000911645,0.150919,-0.363087,0.938383,0.288294,-0.0122817,0,0,0,0,0,0,0,16.3652,-1.41499,16.917,-34.337,10.8878,4.08747,-0.117858,0.0980181,-0.067797,0.0783191,-2.0102,0.0572445,0.194099,-0.00491608,0.0734101,0.0342701,0.207279,-0.289613,0.302185,0.0104636,-0.00019286,0,0,0,0,0,0,0,3.45508,-30.1265,3.16286,23.7375,0.886837,1.34209,-0.0630644,
0.102116,-0.0676491,0.0826396,-2.02169,0.0823934,0.20256,-0.0052247,0.142213,0.00042329,0.14805,-0.360525,0.937346,0.294327,-0.0109481,0,0,0,0,0,0,0,15.9608,-1.23794,16.4979,-33.793,10.8878,4.07876,-0.0938396,0.0980181,-0.067797,0.0783191,-2.0102,0.0572445,0.194099,-0.00491608,0.0734101,0.0342701,0.207279,-0.289613,0.302185,0.0104636,-0.00019286,0,0,0,0,0,0,0,3.45508,-30.1265,3.16286,23.7375,0.886837,1.34209,-0.0630644,
0.103182,-0.0675987,0.0837489,-2.02442,0.0902193,0.205217,-0.00525173,0.140425,0.00159875,0.146173,-0.356709,0.945525,0.301894,-0.00943416,0,0,0,0,0,0,0,15.5872,-1.16659,16.1266,-33.1764,10.8469,4.09498,-0.0727004,0.100841,-0.0673441,0.0855993,-2.02045,0.0712673,0.194849,-0.00491715,0.0895753,-0.00237638,0.226776,-0.289442,0.405663,0.0415473,-0.000326307,2.02065,-4.5808,2.43716,0.0214506,12.9348,3.88547,-0.0166808,6.09333,-30.3288,5.23775,24.3127,1.77856,1.30913,-0.0566557,
0.104261,-0.0675488,0.0848699,-2.02709,0.0982866,0.207937,-0.00526319,0.139315,0.00252631,0.144961,-0.352031,0.958102,0.309506,-0.00783404,0,0,0,0,0,0,0,15.2161,-1.02773,15.7419,-32.644,10.8469,4.0334,-0.0514297,0.100841,-0.0673441,0.0855993,-2.02045,0.0712673,0.194849,-0.00491715,0.0895753,-0.00237638,0.226776,-0.289442,0.405663,0.0415473,-0.000326307,0,0,0,0,0,0,0,6.09333,-30.3288,5.23775,24.3127,1.77856,1.30913,-0.0566557,
0.105156,-0.067565,0.0901332,-2.03123,0.0980243,0.203295,-0.00503368,0.137911,0.00191243,0.143529,-0.347372,0.959339,0.310223,-0.00628279,0,0,0,0,0,0,0,15.2161,-1.02773,15.7419,-32.644,10.8469,4.0334,-0.0514297,0.100841,-0.0673441,0.0855993,-2.02045,0.0712673,0.194849,-0.00491715,0.0895753,-0.00237638,0.226776,-0.289442,0.405663,0.0415473,-0.000326307,0,0,0,0,0,0,0,6.09333,-30.3288,5.23775,24.3127,1.77856,1.30913,-0.0566557,
0.106212,-0.0675534,0.0912314,-2.0338,0.106037,0.205903,-0.00501833,0.13673,0.00181961,0.142278,-0.34218,0.967784,0.313383,-0.00464243,0,0,0,0,0,0,0,14.8578,-0.911481,15.3704,-32.1185,10.8469,3.96358,-0.0301718,0.100841,-0.0673441,0.0855993,-2.02045,0.0712673,0.194849,-0.00491715,0.0895753,-0.00237638,0.226776,-0.289442,0.405663,0.0415473,-0.000326307,0,0,0,0,0,0,0,6.09333,-30.3288,5.23775,24.3127,1.77856,1.30913,-0.0566557,
0.107263,-0.0675342,0.0923239,-2.03632,0.114243,0.20858,-0.00498605,0.135674,0.00193418,0.141136,-0.336697,0.979385,0.31763,-0.00290683,0,0,0,0,0,0,0,14.4653,-0.887807,14.9763,-31.563,10.8011,3.91825,-0.0110516,0.103615,-0.066516,0.0921506,-2.02937,0.083494,0.196656,-0.00492009,0.0867588,0.0255745,0.183635,-0.270314,0.335881,0.0448255,-0.0010194,-0.352054,3.49386,-5.39267,2.391,-8.72273,0.409774,-0.0866361,-0.198788,-31.527,-0.713182,26.6058,1.29608,1.89232,-0.0301054,
0.106444,-0.0664317,0.0951456,-2.03733,0.10158,0.202602,-0.00494786,0.131982,0.00247652,0.137493,-0.335243,0.958584,0.311949,-0.00201738,0,0,0,0,0,0,0,14.4653,-0.887807,14.9763,-31.563,10.8011,3.91825,-0.0110516,0.103615,-0.066516,0.0921506,-2.02937,0.083494,0.196656,-0.00492009,0.0867588,0.0255745,0.183635,-0.270314,0.335881,0.0448255,-0.0010194,0,0,0,0,0,0,0,-0.198788,-31.527,-0.713182,26.6058,1.29608,1.89232,-0.0301054,
0.10739,-0.066384,0.0961343,-2.03991,0.1091,0.205075,-0.0049166,0.129238,0.0031754,0.134711,-0.33252,0.954867,0.31139,-0.000832351,0,0,0,0,0,0,0,14.0875,-0.809603,14.5855,-31.0574,10.8011,3.8522,0.00574487,0.103615,-0.066516,0.0921506,-2.02937,0.083494,0.196656,-0.00492009,0.0867588,0.0255745,0.183635,-0.270314,0.335881,0.0448255,-0.0010194,0,0,0,0,0,0,0,-0.198788,-31.527,-0.713182,26.6058,1.29608,1.89232,-0.0301054,
0.108342,-0.0663331,0.0971266,-2.04242,0.11696,0.207656,-0.00486714,0.127186,0.00381277,0.132576,-0.328857,0.960395,0.313642,0.000570705,0,0,0,0,0,0,0,13.7169,-0.742676,14.2026,-30.5592,10.8011,3.81362,0.024368,0.103615,-0.066516,0.0921506,-2.02937,0.083494,0.196656,-0.00492009,0.0867588,0.0255745,0.183635,-0.270314,0.335881,0.0448255,-0.0010194,0,0,0,0,0,0,0,-0.198788,-31.527,-0.713182,26.6058,1.29608,1.89232,-0.0301054,
0.109291,-0.0662836,0.0981143,-2.04488,0.125052,0.2103,-0.00480738,0.125475,0.0042881,0.130754,-0.32453,0.970606,0.316999,0.00195046,0,0,0,0,0,0,0,13.3139,-0.691073,13.786,-30.0772,10.8011,3.79378,0.0451083,0.103615,-0.066516,0.0921506,-2.02937,0.083494,0.196656,-0.00492009,0.0867588,0.0255745,0.183635,-0.270314,0.335881,0.0448255,-0.0010194,0,0,0,0,0,0,0,-0.198788,-31.527,-0.713182,26.6058,1.29608,1.89232,-0.0301054,
0.11049,-0.0652369,0.102143,-2.04839,0.121752,0.205397,-0.00476218,0.12265,0.0053208,0.127874,-0.321604,0.967304,0.311881,0.00293617,0,0,0,0,0,0,0,13.3164,-0.738927,13.7985,-30.0134,10.7668,3.84379,0.0448809,0.106764,-0.0655168,0.0982145,-2.03819,0.0955791,0.197639,-0.00491879,0.102365,0.0313936,0.184995,-0.26596,0.361613,0.0195858,0.000561243,1.95081,0.727382,0.169993,0.544249,3.21644,-3.15496,0.19758,0.360599,-33.4471,-0.0863513,28.0222,1.57074,2.15783,-0.0703886,
0.111389,-0.0651574,0.103081,-2.05078,0.129201,0.207814,-0.00470264,0.120594,0.00624306,0.125748,-0.317073,0.960075,0.30992,0.00383745,0,0,0,0,0,0,0,12.8283,-0.688671,13.2925,-29.5507,10.7668,3.83199,0.0666186,0.106764,-0.0655168,0.0982145,-2.03819,0.0955791,0.197639,-0.00491879,0.102365,0.0313936,0.184995,-0.26596,0.361613,0.0195858,0.000561243,0,0,0,0,0,0,0,0.360599,-33.4471,-0.0863513,28.0222,1.57074,2.15783,-0.0703886,
0.112306,-0.0650792,0.104035,-2.05309,0.136053,0.210276,-0.00464428,0.119395,0.00695119,0.124453,-0.311319,0.939364,0.309498,0.00452903,0,0,0,0,0,0,0,12.1967,-0.624601,12.6382,-29.1091,10.7668,3.77928,0.0792262,0.106764,-0.0655168,0.0982145,-2.03819,0.0955791,0.197639,-0.00491879,0.102365,0.0313936,0.184995,-0.26596,0.361613,0.0195858,0.000561243,0,0,0,0,0,0,0,0.360599,-33.4471,-0.0863513,28.0222,1.57074,2.15783,-0.0703886,
0.107751,-0.0654427,0.0992695,-2.04076,0.100645,0.199007,-0.00490987,0.120186,0.00741303,0.125937,-0.313333,0.878142,0.281801,0.00384636,0,0,0,0,0,0,0,13.3164,-0.738927,13.7985,-30.0134,10.7668,3.84379,0.0448809,0.106764,-0.0655168,0.0982145,-2.03819,0.0955791,0.197639,-0.00491879,0.102365,0.0313936,0.184995,-0.26596,0.361613,0.0195858,0.000561243,0,0,0,0,0,0,0,0.360599,-33.4471,-0.0863513,28.0222,1.57074,2.15783,-0.0703886,
0.108688,-0.065382,0.100257,-2.04336,0.106988,0.200896,-0.00487156,0.119589,0.00744742,0.125447,-0.315753,0.861097,0.272672,0.00403485,0,0,0,0,0,0,0,12.8273,-0.768205,13.3027,-29.4915,10.7237,3.87618,0.0664329,0.10976,-0.0644285,0.105137,-2.04708,0.108732,0.197957,-0.00491831,0.062808,0.0192222,0.209566,-0.245242,0.395235,0.00205183,-0.000592873,-4.94466,-1.52142,3.0714,2.58969,4.20274,-2.19175,-0.144265,1.1977,-31.2254,0.814222,25.5823,1.44897,1.91887,-0.0429228,
0.109599,-0.0653125,0.101212,-2.04591,0.114119,0.203066,-0.00481721,0.118439,0.00769585,0.124226,-0.316317,0.867145,0.272375,0.00458654,0,0,0,0,0,0,0,12.1956,-0.704135,12.6484,-29.0499,10.7237,3.82347,0.0790405,0.10976,-0.0644285,0.105137,-2.04708,0.108732,0.197957,-0.00491831,0.062808,0.0192222,0.209566,-0.245242,0.395235,0.00205183,-0.000592873,0,0,0,0,0,0,0,1.1977,-31.2254,0.814222,25.5823,1.44897,1.91887,-0.0429228,
0.11049,-0.0652369,0.102143,-2.04839,0.121752,0.205397,-0.00476218,0.117022,0.008047,0.122651,-0.315033,0.884535,0.276182,0.00504504,0,0,0,0,0,0,0,11.4913,-0.58914,11.9199,-28.6045,10.7237,3.74227,0.0763138,0.10976,-0.0644285,0.105137,-2.04708,0.108732,0.197957,-0.00491831,0.062808,0.0192222,0.209566,-0.245242,0.395235,0.00205183,-0.000592873,0,0,0,0,0,0,0,1.1977,-31.2254,0.814222,25.5823,1.44897,1.91887,-0.0429228,
0.113309,-0.0643004,0.108885,-2.05658,0.13136,0.205245,-0.00472935,0.115737,0.00797274,0.12122,-0.309053,0.844322,0.276019,0.0053913,0,0,0,0,0,0,0,11.4913,-0.58914,11.9199,-28.6045,10.7237,3.74227,0.0763138,0.10976,-0.0644285,0.105137,-2.04708,0.108732,0.197957,-0.00491831,0.062808,0.0192222,0.209566,-0.245242,0.395235,0.00205183,-0.000592873,0,0,0,0,0,0,0,1.1977,-31.2254,0.814222,25.5823,1.44897,1.91887,-0.0429228,
0.114205,-0.0642324,0.109818,-2.05879,0.136188,0.207552,-0.00467621,0.114997,0.00807722,0.120317,-0.302384,0.796146,0.278502,0.00564151,0,0,0,0,0,0,0,10.8175,-0.50576,11.3192,-28.0728,8.95697,3.69618,0.0729668,0.111249,-0.063479,0.111695,-2.05503,0.121152,0.198221,-0.00491903,0.0385953,0.0228822,0.158671,-0.198656,0.308916,0.00742028,2.39242e-05,-3.02659,0.457494,-6.36184,5.82335,-10.7899,0.671056,0.0770996,-4.88812,-34.796,-5.21208,28.1491,0.697323,2.74834,-0.0365141,
0.11511,-0.0641649,0.110759,-2.06093,0.140301,0.209931,-0.00462227,0.114621,0.00815078,0.119782,-0.295411,0.739751,0.282262,0.00586164,0,0,0,0,0,0,0,10.3054,-0.299461,10.8276,-27.5561,7.27375,3.61937,0.0662393,0.111249,-0.063479,0.111695,-2.05503,0.121152,0.198221,-0.00491903,0.0385953,0.0228822,0.158671,-0.198656,0.308916,0.00742028,2.39242e-05,0,0,0,0,0,0,0,-4.88812,-34.796,-5.21208,28.1491,0.697323,2.74834,-0.0365141,
0.116019,-0.0641018,0.111704,-2.06301,0.143704,0.212359,-0.00456823,0.114419,0.0080965,0.119434,-0.288423,0.676889,0.286511,0.0060404,0,0,0,0,0,0,0,9.94576,-0.118486,10.4703,-27.0286,5.8242,3.54793,0.0624561,0.111249,-0.063479,0.111695,-2.05503,0.121152,0.198221,-0.00491903,0.0385953,0.0228822,0.158671,-0.198656,0.308916,0.00742028,2.39242e-05,0,0,0,0,0,0,0,-4.88812,-34.796,-5.21208,28.1491,0.697323,2.74834,-0.0365141,
0.114293,-0.063424,0.114915,-2.06364,0.13394,0.2058,-0.00472785,0.111433,0.0074735,0.11635,-0.283469,0.611146,0.285756,0.00616985,0,0,0,0,0,0,0,9.94576,-0.118486,10.4703,-27.0286,5.8242,3.54793,0.0624561,0.111249,-0.063479,0.111695,-2.05503,0.121152,0.198221,-0.00491903,0.0385953,0.0228822,0.158671,-0.198656,0.308916,0.00742028,2.39242e-05,0,0,0,0,0,0,0,-4.88812,-34.796,-5.21208,28.1491,0.697323,2.74834,-0.0365141,
0.115108,-0.0633764,0.115766,-2.0657,0.136245,0.208161,-0.00467194,0.109531,0.00716789,0.114341,-0.278166,0.546548,0.287642,0.00633383,0,0,0,0,0,0,0,9.71908,-0.0329326,10.2446,-26.4395,4.5717,3.54135,0.058951,0.112457,-0.0624523,0.118051,-2.06225,0.132223,0.198435,-0.00491679,0.0320447,0.034606,0.189497,-0.204816,0.309331,0.00875587,-0.000168429,-0.818818,1.46548,3.85318,-0.770025,0.0519722,0.166949,-0.0240441,1.50318,-30.3288,1.08797,23.4399,1.71081,1.62041,-0.0566557,
0.115937,-0.0633282,0.116629,-2.06771,0.138073,0.21059,-0.00461482,0.108347,0.00693908,0.113051,-0.272719,0.482945,0.29083,0.006495,0,0,0,0,0,0,0,9.58993,0.049502,10.1043,-25.9235,3.5007,3.50275,0.0594701,0.112457,-0.0624523,0.118051,-2.06225,0.132223,0.198435,-0.00491679,0.0320447,0.034606,0.189497,-0.204816,0.309331,0.00875587,-0.000168429,0,0,0,0,0,0,0,1.50318,-30.3288,1.08797,23.4399,1.71081,1.62041,-0.0566557,
0.116771,-0.0620853,0.122554,-2.0723,0.139243,0.207731,-0.0046314,0.108134,0.00698852,0.112729,-0.266498,0.402718,0.289575,0.0067376,0,0,0,0,0,0,0,9.51104,0.0777699,9.99638,-24.928,1.85184,3.45905,0.0627816,0.112457,-0.0624523,0.118051,-2.06225,0.132223,0.198435,-0.00491679,0.0320447,0.034606,0.189497,-0.204816,0.309331,0.00875587,-0.000168429,0,0,0,0,0,0,0,1.50318,-30.3288,1.08797,23.4399,1.71081,1.62041,-0.0566557,
0.117621,-0.0620374,0.123437,-2.07419,0.139617,0.21009,-0.00456895,0.10776,0.00678931,0.112254,-0.260369,0.331527,0.29064,0.00695116,0,0,0,0,0,0,0,9.51631,0.0403527,9.98568,-24.448,1.2429,3.44694,0.0648104,0.112457,-0.0624523,0.118051,-2.06225,0.132223,0.198435,-0.00491679,0.0320447,0.034606,0.189497,-0.204816,0.309331,0.00875587,-0.000168429,0,0,0,0,0,0,0,1.50318,-30.3288,1.08797,23.4399,1.71081,1.62041,-0.0566557,
0.118461,-0.0619999,0.124309,-2.07603,0.139762,0.212504,-0.00450538,0.107214,0.0063688,0.111615,-0.254383,0.268855,0.292865,0.00715021,0,0,0,0,0,0,0,9.52322,-0.0859127,9.9839,-23.9277,0.702224,3.47155,0.0681607,0.113599,-0.0614304,0.12362,-2.06895,0.141801,0.198455,-0.00491566,0.0353241,0.0424193,0.153744,-0.188123,0.273198,0.016164,0.000876454,0.409921,0.976665,-4.46914,2.08655,-4.51668,0.926018,0.13061,-0.627255,-30.0035,-0.859972,22.7695,0.745846,1.39519,-0.0703886,
0.11929,-0.0619729,0.12517,-2.07783,0.139731,0.214953,-0.00444149,0.106494,0.00576952,0.110807,-0.24857,0.214293,0.295522,0.00731735,0,0,0,0,0,0,0,9.53633,-0.160847,9.98146,-23.4663,0.314522,3.46314,0.0704039,0.113599,-0.0614304,0.12362,-2.06895,0.141801,0.198455,-0.00491566,0.0353241,0.0424193,0.153744,-0.188123,0.273198,0.016164,0.000876454,0,0,0,0,0,0,0,-0.627255,-30.0035,-0.859972,22.7695,0.745846,1.39519,-0.0703886,
0.119281,-0.0609987,0.129511,-2.08132,0.143439,0.212184,-0.00444853,0.104746,0.00490129,0.108919,-0.239963,0.164023,0.294662,0.00743036,0,0,0,0,0,0,0,9.50967,-0.416652,9.9131,-22.1184,-0.386392,3.42793,0.0772897,0.113599,-0.0614304,0.12362,-2.06895,0.141801,0.198455,-0.00491566,0.0353241,0.0424193,0.153744,-0.188123,0.273198,0.016164,0.000876454,0,0,0,0,0,0,0,-0.627255,-30.0035,-0.859972,22.7695,0.745846,1.39519,-0.0703886,
0.120046,-0.0609979,0.130304,-2.08293,0.143122,0.214534,-0.00438664,0.102911,0.00394122,0.106964,-0.232011,0.123304,0.294497,0.00749154,0,0,0,0,0,0,0,9.46734,-0.498669,9.85797,-21.678,-0.489918,3.41132,0.0783026,0.113599,-0.0614304,0.12362,-2.06895,0.141801,0.198455,-0.00491566,0.0353241,0.0424193,0.153744,-0.188123,0.273198,0.016164,0.000876454,0,0,0,0,0,0,0,-0.627255,-30.0035,-0.859972,22.7695,0.745846,1.39519,-0.0703886,
0.120793,-0.0610064,0.131079,-2.08449,0.142808,0.21689,-0.00432582,0.101011,0.00294114,0.104954,-0.224619,0.0907859,0.294503,0.00751368,0,0,0,0,0,0,0,9.41302,-0.631762,9.79774,-21.1723,-0.569306,3.42909,0.0794547,0.115202,-0.0603674,0.129593,-2.07562,0.148077,0.198463,-0.00491385,0.0506128,0.0269923,0.173626,-0.19509,0.100867,0.00416716,0.00104519,1.91109,-1.92837,2.48525,-0.870855,-21.5413,-1.49961,0.0210918,-0.857357,-32.4989,-1.13768,26.9034,0.948178,2.01226,-0.083206,
0.121523,-0.0610229,0.131837,-2.08601,0.142512,0.219241,-0.00426632,0.0990618,0.0019396,0.102907,-0.217704,0.065244,0.294367,0.00749846,0,0,0,0,0,0,0,9.33537,-0.70147,9.70881,-20.7368,-0.594312,3.40569,0.0796976,0.115202,-0.0603674,0.129593,-2.07562,0.148077,0.198463,-0.00491385,0.0506128,0.0269923,0.173626,-0.19509,0.100867,0.00416716,0.00104519,0,0,0,0,0,0,0,-0.857357,-32.4989,-1.13768,26.9034,0.948178,2.01226,-0.083206,
0.121377,-0.060062,0.135995,-2.08799,0.148401,0.212388,-0.00445311,0.096245,0.00127746,0.0999585,-0.20833,0.0506341,0.287882,0.0072875,0,0,0,0,0,0,0,8.87252,-0.907352,9.20782,-19.0079,-0.490756,3.27574,0.0779624,0.115202,-0.0603674,0.129593,-2.07562,0.148077,0.198463,-0.00491385,0.0506128,0.0269923,0.173626,-0.19509,0.100867,0.00416716,0.00104519,0,0,0,0,0,0,0,-0.857357,-32.4989,-1.13768,26.9034,0.948178,2.01226,-0.083206,
0.122035,-0.0600823,0.136677,-2.08931,0.148362,0.214488,-0.00440327,0.0934416,0.000516,0.0970367,-0.199719,0.0395203,0.282806,0.00707593,0,0,0,0,0,0,0,8.72545,-0.941811,9.05257,-18.5778,-0.437449,3.23491,0.0768812,0.115202,-0.0603674,0.129593,-2.07562,0.148077,0.198463,-0.00491385,0.0506128,0.0269923,0.173626,-0.19509,0.100867,0.00416716,0.00104519,0,0,0,0,0,0,0,-0.857357,-32.4989,-1.13768,26.9034,0.948178,2.01226,-0.083206,
0.122672,-0.0601104,0.137339,-2.09059,0.148347,0.21658,-0.00435511,0.0906832,-0.000291054,0.0941707,-0.191766,0.0312614,0.278537,0.00686474,0,0,0,0,0,0,0,8.56835,-0.970312,8.88756,-18.1482,-0.377189,3.19254,0.0753954,0.115202,-0.0603674,0.129593,-2.07562,0.148077,0.198463,-0.00491385,0.0506128,0.0269923,0.173626,-0.19509,0.100867,0.00416716,0.00104519,0,0,0,0,0,0,0,-0.857357,-32.4989,-1.13768,26.9034,0.948178,2.01226,-0.083206,
0.122152,-0.0592969,0.14096,-2.09299,0.149711,0.210894,-0.00456099,0.0867559,-0.000633221,0.0901047,-0.181553,0.0276697,0.268189,0.00646712,0,0,0,0,0,0,0,7.68038,-1.12044,7.97026,-15.9534,-0.0941955,2.97325,0.0660572,0.116824,-0.0595706,0.135422,-2.08239,0.149176,0.1989,-0.00491895,0.046855,0.0158468,0.166046,-0.195154,0.000144728,0.0210246,0.00103338,-0.469726,-1.39319,-0.947399,-0.00798505,-12.5903,2.10717,-0.00147649,-0.603451,-32.376,-0.963121,27.2525,1.03973,2.09191,-0.0767973,
0.1227,-0.0593228,0.141529,-2.09407,0.149823,0.212712,-0.00452367,0.0830879,-0.00115647,0.0863117,-0.172247,0.0249364,0.260007,0.00610665,0,0,0,0,0,0,0,7.48943,-1.12757,7.77295,-15.5266,-0.0482429,2.91971,0.063874,0.116824,-0.0595706,0.135422,-2.08239,0.149176,0.1989,-0.00491895,0.046855,0.0158468,0.166046,-0.195154,0.000144728,0.0210246,0.00103338,0,0,0,0,0,0,0,-0.603451,-32.376,-0.963121,27.2525,1.03973,2.09191,-0.0767973,
0.123227,-0.0593573,0.142078,-2.09511,0.149938,0.214523,-0.00448807,0.0796589,-0.00178644,0.0827696,-0.163726,0.0228114,0.253277,0.00577542,0,0,0,0,0,0,0,7.29589,-1.13313,7.57324,-15.1003,-0.00862115,2.86454,0.0617068,0.116824,-0.0595706,0.135422,-2.08239,0.149176,0.1989,-0.00491895,0.046855,0.0158468,0.166046,-0.195154,0.000144728,0.0210246,0.00103338,0,0,0,0,0,0,0,-0.603451,-32.376,-0.963121,27.2525,1.03973,2.09191,-0.0767973,
0.123736,-0.0593989,0.142608,-2.09611,0.150051,0.216318,-0.00445415,0.0764465,-0.00246824,0.0794542,-0.155881,0.0210814,0.247507,0.00546823,0,0,0,0,0,0,0,7.1001,-1.13723,7.37135,-14.6744,0.0261042,2.80954,0.0594537,0.116824,-0.0595706,0.135422,-2.08239,0.149176,0.1989,-0.00491895,0.046855,0.0158468,0.166046,-0.195154,0.000144728,0.0210246,0.00103338,0,0,0,0,0,0,0,-0.603451,-32.376,-0.963121,27.2525,1.03973,2.09191,-0.0767973,
0.123953,-0.0583662,0.146038,-2.098,0.150277,0.21099,-0.00466247,0.0719369,-0.00277459,0.0747968,-0.144869,0.0182355,0.236251,0.00495542,0,0,0,0,0,0,0,6.09647,-1.21422,6.34204,-12.4929,0.110063,2.56563,0.0479862,0.118947,-0.05869,0.14083,-2.08875,0.149057,0.199692,-0.00491974,0.058745,0.0236708,0.14996,-0.165858,0.0019301,0.0140547,-0.00104383,1.48624,0.977996,-2.0108,3.66197,0.223172,-0.871236,-0.25965,-0.551876,-32.0506,-0.812364,24.761,1.00311,1.86577,-0.0301054,
0.124363,-0.0584073,0.146466,-2.09877,0.150302,0.212522,-0.00464089,0.0678081,-0.0032494,0.0705362,-0.134986,0.0152165,0.227318,0.00450385,0,0,0,0,0,0,0,5.89492,-1.21641,6.13479,-12.0689,0.107663,2.51407,0.0457188,0.118947,-0.05869,0.14083,-2.08875,0.149057,0.199692,-0.00491974,0.058745,0.0236708,0.14996,-0.165858,0.0019301,0.0140547,-0.00104383,0,0,0,0,0,0,0,-0.551876,-32.0506,-0.812364,24.761,1.00311,1.86577,-0.0301054,
0.124754,-0.0584562,0.146874,-2.09949,0.150299,0.21405,-0.004621,0.064018,-0.00382093,0.0666278,-0.126055,0.0120923,0.220036,0.00410028,0,0,0,0,0,0,0,5.69327,-1.21907,5.92751,-11.6451,0.0987252,2.46383,0.0434907,0.118947,-0.05869,0.14083,-2.08875,0.149057,0.199692,-0.00491974,0.058745,0.0236708,0.14996,-0.165858,0.0019301,0.0140547,-0.00104383,0,0,0,0,0,0,0,-0.551876,-32.0506,-0.812364,24.761,1.00311,1.86577,-0.0301054,
0.11968,-0.058557,0.141599,-2.09004,0.149182,0.200303,-0.00488861,0.0695466,0.000268361,0.0725184,-0.133236,0.0128072,0.191306,0.00405846,0,0,0,0,0,0,0,6.09647,-1.21422,6.34204,-12.4929,0.110063,2.56563,0.0479862,0.118947,-0.05869,0.14083,-2.08875,0.149057,0.199692,-0.00491974,0.058745,0.0236708,0.14996,-0.165858,0.0019301,0.0140547,-0.00104383,0,0,0,0,0,0,0,-0.551876,-32.0506,-0.812364,24.761,1.00311,1.86577,-0.0301054,
0.120352,-0.0584581,0.142295,-2.09126,0.149356,0.201224,-0.00485632,0.0724191,0.0026865,0.0754147,-0.13711,0.0146033,0.176055,0.004054,0,0,0,0,0,0,0,5.88601,-1.26962,6.12743,-12.023,0.10882,2.5375,0.0456064,0.121079,-0.0577554,0.145364,-2.09369,0.148922,0.200171,-0.00491684,0.0612707,0.0341288,0.128639,-0.131786,-0.00337326,0.016872,-0.000251883,0.315716,1.30725,-2.66511,4.25906,-0.66292,0.352161,0.0989929,-0.222592,-30.1265,-0.562425,23.0908,1.10016,1.56823,-0.0566557,
0.12097,-0.0583867,0.142936,-2.09241,0.149543,0.202354,-0.00482464,0.0733932,0.00393562,0.0763677,-0.13829,0.0163402,0.169099,0.0040351,0,0,0,0,0,0,0,5.68436,-1.27229,5.92015,-11.5992,0.0998821,2.48726,0.0433783,0.121079,-0.0577554,0.145364,-2.09369,0.148922,0.200171,-0.00491684,0.0612707,0.0341288,0.128639,-0.131786,-0.00337326,0.016872,-0.000251883,0,0,0,0,0,0,0,-0.222592,-30.1265,-0.562425,23.0908,1.10016,1.56823,-0.0566557,
0.121545,-0.0583393,0.143533,-2.09348,0.149722,0.20363,-0.00479406,0.0730826,0.00433237,0.0760106,-0.137474,0.0175611,0.167183,0.00399256,0,0,0,0,0,0,0,5.48276,-1.27537,5.71292,-11.1755,0.0855362,2.43933,0.0411387,0.121079,-0.0577554,0.145364,-2.09369,0.148922,0.200171,-0.00491684,0.0612707,0.0341288,0.128639,-0.131786,-0.00337326,0.016872,-0.000251883,0,0,0,0,0,0,0,-0.222592,-30.1265,-0.562425,23.0908,1.10016,1.56823,-0.0566557,
0.125381,-0.0580819,0.149894,-2.09785,0.22293,0.183271,-0.00517541,0.0629826,0.000987951,0.0658245,-0.108639,0.107392,0.116557,0.00281512,0,0,0,0,0,0,0,3.06516,-1.46498,3.20005,-4.82212,0.491277,1.49561,0.00476773,0.121079,-0.0577554,0.145364,-2.09369,0.148922,0.200171,-0.00491684,0.0612707,0.0341288,0.128639,-0.131786,-0.00337326,0.016872,-0.000251883,0,0,0,0,0,0,0,-0.222592,-30.1265,-0.562425,23.0908,1.10016,1.56823,-0.0566557,
0.125546,-0.0581855,0.150081,-2.09778,0.226195,0.182816,-0.00519389,0.0544923,-0.00179943,0.0573294,-0.0853194,0.167537,0.0818889,0.00179008,0,0,0,0,0,0,0,3.02027,-1.5455,3.14738,-4.37475,0.81462,1.31549,0.00147829,0.122572,-0.0571108,0.148804,-2.09735,0.148421,0.200219,-0.00491774,0.0329198,0.0299631,0.0964955,-0.0919258,-0.00694206,0.0111738,0.000610173,-3.54385,-0.520715,-4.01795,4.98249,-0.4461,-0.712275,0.107757,-1.15887,-31.8523,-1.56218,25.2094,0.898739,1.78612,-0.0767973,
0.125689,-0.0582931,0.150248,-2.09771,0.229152,0.182525,-0.00521416,0.0471694,-0.00413015,0.0500392,-0.066441,0.207959,0.0582204,0.00092536,0,0,0,0,0,0,0,3.01279,-1.57284,3.13005,-3.96049,1.23768,1.07445,-0.00191564,0.122572,-0.0571108,0.148804,-2.09735,0.148421,0.200219,-0.00491774,0.0329198,0.0299631,0.0964955,-0.0919258,-0.00694206,0.0111738,0.000610173,0,0,0,0,0,0,0,-1.15887,-31.8523,-1.56218,25.2094,0.898739,1.78612,-0.0767973,
0.12581,-0.0584042,0.150394,-2.09763,0.231903,0.182348,-0.00523535,0.0407724,-0.00608218,0.0436893,-0.0511479,0.235139,0.042169,0.000210545,0,0,0,0,0,0,0,3.03456,-1.60126,3.14125,-3.55024,1.77314,0.781106,-0.00532229,0.122572,-0.0571108,0.148804,-2.09735,0.148421,0.200219,-0.00491774,0.0329198,0.0299631,0.0964955,-0.0919258,-0.00694206,0.0111738,0.000610173,0,0,0,0,0,0,0,-1.15887,-31.8523,-1.56218,25.2094,0.898739,1.78612,-0.0767973,
0.123851,-0.0567019,0.150153,-2.09917,0.153811,0.199829,-0.00498556,0.0387626,-0.00400651,0.0414263,-0.0492106,0.243388,0.0262448,-0.000323333,0,0,0,0,0,0,0,3.03456,-1.60126,3.14125,-3.55024,1.77314,0.781106,-0.00532229,0.122572,-0.0571108,0.148804,-2.09735,0.148421,0.200219,-0.00491774,0.0329198,0.0299631,0.0964955,-0.0919258,-0.00694206,0.0111738,0.000610173,0,0,0,0,0,0,0,-1.15887,-31.8523,-1.56218,25.2094,0.898739,1.78612,-0.0767973,
0.124063,-0.0566993,0.150378,-2.09944,0.156697,0.199301,-0.00500716,0.0363224,-0.00314033,0.038756,-0.0460481,0.266881,0.00779392,-0.000798649,0,0,0,0,0,0,0,3.08107,-1.67466,3.17942,-3.11913,2.43465,0.444284,-0.00884188,0.123681,-0.0567711,0.152076,-2.10008,0.148768,0.200125,-0.00491903,0.0315711,0.0134697,0.073473,-0.0659187,0.0248546,-0.00867106,-0.000866318,-0.168594,-2.06167,-2.87781,3.25089,3.97459,-2.4806,-0.184561,0.66608,-33.7962,0.389723,28.6728,1.57074,2.37023,-0.0365141,
0.124248,-0.0567223,0.150573,-2.09965,0.160338,0.198496,-0.0050302,0.0336595,-0.00308562,0.035888,-0.0421058,0.304519,-0.0138775,-0.00121508,0,0,0,0,0,0,0,3.15101,-1.70294,3.23737,-2.72034,3.229,0.0340604,-0.0120514,0.123681,-0.0567711,0.152076,-2.10008,0.148768,0.200125,-0.00491903,0.0315711,0.0134697,0.073473,-0.0659187,0.0248546,-0.00867106,-0.000866318,0,0,0,0,0,0,0,0.66608,-33.7962,0.389723,28.6728,1.57074,2.37023,-0.0365141,
0.124406,-0.0567652,0.150742,-2.09981,0.164801,0.197381,-0.00505352,0.0308936,-0.00354246,0.0329418,-0.0377218,0.355191,-0.0389823,-0.00155514,0,0,0,0,0,0,0,3.23189,-1.72873,3.30575,-2.32951,4.15956,-0.432108,-0.0149739,0.123681,-0.0567711,0.152076,-2.10008,0.148768,0.200125,-0.00491903,0.0315711,0.0134697,0.073473,-0.0659187,0.0248546,-0.00867106,-0.000866318,0,0,0,0,0,0,0,0.66608,-33.7962,0.389723,28.6728,1.57074,2.37023,-0.0365141,
0.124485,-0.0566633,0.152932,-2.10116,0.154428,0.199032,-0.00498715,0.0302049,-0.00271259,0.032186,-0.0372774,0.351368,-0.0453552,-0.00182794,0,0,0,0,0,0,0,3.15101,-1.70294,3.23737,-2.72034,3.229,0.0340604,-0.0120514,0.123681,-0.0567711,0.152076,-2.10008,0.148768,0.200125,-0.00491903,0.0315711,0.0134697,0.073473,-0.0659187,0.0248546,-0.00867106,-0.000866318,0,0,0,0,0,0,0,0.66608,-33.7962,0.389723,28.6728,1.57074,2.37023,-0.0365141,
0.124671,-0.0566831,0.15313,-2.10138,0.157946,0.198197,-0.00501119,0.0288108,-0.0026667,0.0307039,-0.0353974,0.369038,-0.0571645,-0.00206336,0,0,0,0,0,0,0,3.22887,-1.75278,3.30431,-2.31799,4.15703,-0.426373,-0.0149974,0.124798,-0.0566104,0.153694,-2.10151,0.14935,0.20015,-0.00491831,0.0286558,0.0044326,0.0515911,-0.0335295,0.0116727,-0.00727549,-0.000477557,-0.36441,-1.12964,-2.73524,4.04864,-1.64775,0.174446,0.0485952,0.106693,-31.7769,-0.33629,27.3001,1.14318,1.83282,-0.0429228,
0.124829,-0.0567231,0.153299,-2.10155,0.162332,0.197058,-0.00503508,0.0269967,-0.00313268,0.028795,-0.0325791,0.404898,-0.0741961,-0.00224772,0,0,0,0,0,0,0,3.30461,-1.77315,3.36741,-1.93609,5.213,-0.939164,-0.0172228,0.124798,-0.0566104,0.153694,-2.10151,0.14935,0.20015,-0.00491831,0.0286558,0.0044326,0.0515911,-0.0335295,0.0116727,-0.00727549,-0.000477557,0,0,0,0,0,0,0,0.106693,-31.7769,-0.33629,27.3001,1.14318,1.83282,-0.0429228,
0.125056,-0.0560745,0.153967,-2.1022,0.1493,0.200532,-0.00492697,0.0280533,0.010892,0.0298634,-0.0433806,0.322663,-0.0498084,-0.00201458,0,0,0,0,0,0,0,0.00230072,26.5493,0.338311,-21.5221,-1.39646,-0.794759,-0.00671757,0.124798,-0.0566104,0.153694,-2.10151,0.14935,0.20015,-0.00491831,0.0286558,0.0044326,0.0515911,-0.0335295,0.0116727,-0.00727549,-0.000477557,0,0,0,0,0,0,0,0.106693,-31.7769,-0.33629,27.3001,1.14318,1.83282,-0.0429228,
0.125242,-0.0556967,0.154174,-2.10274,0.150409,0.20045,-0.00495297,0.0270913,0.0181581,0.0290718,-0.0480582,0.285874,-0.0418998,-0.00226163,0,0,0,0,0,0,0,3.22894,-1.75296,3.30439,-2.31779,4.15653,-0.423904,-0.0149949,0.124798,-0.0566104,0.153694,-2.10151,0.14935,0.20015,-0.00491831,0.0286558,0.0044326,0.0515911,-0.0335295,0.0116727,-0.00727549,-0.000477557,0,0,0,0,0,0,0,0.106693,-31.7769,-0.33629,27.3001,1.14318,1.83282,-0.0429228,
0.125389,-0.0554407,0.154338,-2.10315,0.152553,0.199988,-0.00497841,0.0253346,0.0209282,0.0273446,-0.0488972,0.282275,-0.0450807,-0.00244543,0,0,0,0,0,0,0,3.30351,-1.79049,3.36812,-1.92776,5.2126,-0.932345,-0.017241,0.125784,-0.0564554,0.15548,-2.1024,0.149394,0.200149,-0.00491831,0.0142635,0.00204313,0.0410515,-0.0222955,0.0168175,-0.00782115,-0.000499096,-1.79904,-0.298684,-1.31746,1.40425,0.643102,-0.0682078,-0.0026924,-0.627255,-30.551,-0.76079,25.4315,1.03973,1.75316,-0.0429228,
0.12551,-0.055276,0.154473,-2.10348,0.155682,0.199172,-0.00500342,0.0232983,0.0208601,0.0252593,-0.047254,0.304055,-0.0564598,-0.00258143,0,0,0,0,0,0,0,3.35038,-1.80067,3.40265,-1.55639,6.3728,-1.46952,-0.0185666,0.125784,-0.0564554,0.15548,-2.1024,0.149394,0.200149,-0.00491831,0.0142635,0.00204313,0.0410515,-0.0222955,0.0168175,-0.00782115,-0.000499096,0,0,0,0,0,0,0,-0.627255,-30.551,-0.76079,25.4315,1.03973,1.75316,-0.0429228,
0.126081,-0.0565649,0.155809,-2.10287,0.152951,0.199688,-0.00496702,0.0220162,0.0150833,0.0239319,-0.04331,0.300185,-0.0537647,-0.00266729,0,0,0,0,0,0,0,3.22857,-1.7722,3.30591,-2.30763,4.15205,-0.394575,-0.0149905,0.125784,-0.0564554,0.15548,-2.1024,0.149394,0.200149,-0.00491831,0.0142635,0.00204313,0.0410515,-0.0222955,0.0168175,-0.00782115,-0.000499096,0,0,0,0,0,0,0,-0.627255,-30.551,-0.76079,25.4315,1.03973,1.75316,-0.0429228,
0.126198,-0.0566389,0.155938,-2.10305,0.156184,0.199046,-0.00499107,0.0205316,0.0102177,0.0223709,-0.0390864,0.320979,-0.0590713,-0.0027351,0,0,0,0,0,0,0,3.30432,-1.79244,3.36902,-1.92574,5.20781,-0.907571,-0.0172149,0.125784,-0.0564554,0.15548,-2.1024,0.149394,0.200149,-0.00491831,0.0142635,0.00204313,0.0410515,-0.0222955,0.0168175,-0.00782115,-0.000499096,0,0,0,0,0,0,0,-0.627255,-30.551,-0.76079,25.4315,1.03973,1.75316,-0.0429228,
0.1263,-0.0567205,0.156052,-2.10318,0.16037,0.198069,-0.00501471,0.0189828,0.00613513,0.0207353,-0.0346506,0.361443,-0.0716718,-0.00277917,0,0,0,0,0,0,0,3.35119,-1.80252,3.40355,-1.55438,6.36782,-1.44494,-0.0185391,0.125784,-0.0564554,0.15548,-2.1024,0.149394,0.200149,-0.00491831,0.0142635,0.00204313,0.0410515,-0.0222955,0.0168175,-0.00782115,-0.000499096,0,0,0,0,0,0,0,-0.627255,-30.551,-0.76079,25.4315,1.03973,1.75316,-0.0429228,
0.126389,-0.056808,0.156151,-2.10328,0.165511,0.196748,-0.0050364,0.0174063,0.00272054,0.0190716,-0.0301638,0.417669,-0.0903756,-0.00276551,0,0,0,0,0,0,0,3.33694,-1.80277,3.37713,-1.1786,7.58821,-1.97079,-0.0183823,0.126266,-0.0560579,0.156506,-2.10355,0.149419,0.200148,-0.00491881,0.0170513,0.00292082,0.0283412,-0.0361957,0.00971498,-0.000980098,0.000349407,0.348479,0.109711,-1.58879,-1.73752,-0.887814,0.855132,0.106063,0.435978,-29.6544,0.187391,24.2612,1.10656,1.62774,-0.0767973,
0.126425,-0.0555214,0.156677,-2.10424,0.149304,0.200565,-0.00492388,0.0178951,0.01559,0.0195234,-0.0414625,0.331267,-0.0618705,-0.00233935,0,0,0,0,0,0,0,0.00128829,26.5255,0.338236,-21.5006,-1.39531,-0.782965,-0.00677621,0.126266,-0.0560579,0.156506,-2.10355,0.149419,0.200148,-0.00491881,0.0170513,0.00292082,0.0283412,-0.0361957,0.00971498,-0.000980098,0.000349407,0,0,0,0,0,0,0,0.435978,-29.6544,0.187391,24.2612,1.10656,1.62774,-0.0767973,
0.126523,-0.0551369,0.156797,-2.10475,0.15062,0.200436,-0.00495231,0.0167683,0.0220843,0.0186125,-0.0460315,0.297909,-0.0527101,-0.00258214,0,0,0,0,0,0,0,3.31289,-1.81477,3.37758,-1.89272,5.16278,-0.662601,-0.0169958,0.126266,-0.0560579,0.156506,-2.10355,0.149419,0.200148,-0.00491881,0.0170513,0.00292082,0.0283412,-0.0361957,0.00971498,-0.000980098,0.000349407,0,0,0,0,0,0,0,0.435978,-29.6544,0.187391,24.2612,1.10656,1.62774,-0.0767973,
0.126594,-0.054874,0.156885,-2.10514,0.15318,0.199875,-0.00497941,0.0151944,0.0242389,0.0170962,-0.0466292,0.302326,-0.0561974,-0.00274323,0,0,0,0,0,0,0,3.35976,-1.82454,3.41211,-1.52156,6.32095,-1.20192,-0.018317,0.126266,-0.0560579,0.156506,-2.10355,0.149419,0.200148,-0.00491881,0.0170513,0.00292082,0.0283412,-0.0361957,0.00971498,-0.000980098,0.000349407,0,0,0,0,0,0,0,0.435978,-29.6544,0.187391,24.2612,1.10656,1.62774,-0.0767973,
0.127066,-0.0554665,0.157808,-2.10505,0.15358,0.200841,-0.00496425,0.0142853,0.0197384,0.0161645,-0.0444563,0.308168,-0.0364954,-0.00278222,0,0,0,0,0,0,0,3.42737,-1.97964,3.49544,-1.74718,5.04839,1.13179,-0.0152972,0.126881,-0.0555373,0.157591,-2.10446,0.14945,0.200146,-0.0049153,0.0117267,0.0236649,0.0245667,-0.0183281,0.00905476,-0.00149797,0.000688101,-0.66558,2.59302,-0.471809,2.23346,-0.0825277,-0.0647344,0.0423367,0.158268,-29.5552,-0.0625476,22.7695,1.14318,1.44189,-0.0703886,
0.127143,-0.0554762,0.157898,-2.10528,0.157316,0.20101,-0.00498632,0.013362,0.0155488,0.0151792,-0.0412319,0.339936,-0.0249909,-0.00277761,0,0,0,0,0,0,0,3.47309,-1.97789,3.52922,-1.37592,6.18732,0.57824,-0.0165149,0.126881,-0.0555373,0.157591,-2.10446,0.14945,0.200146,-0.0049153,0.0117267,0.0236649,0.0245667,-0.0183281,0.00905476,-0.00149797,0.000688101,0,0,0,0,0,0,0,0.158268,-29.5552,-0.0625476,22.7695,1.14318,1.44189,-0.0703886,
0.127214,-0.0555042,0.15798,-2.10545,0.16209,0.20094,-0.00500617,0.012454,0.0117386,0.0141923,-0.0371804,0.391281,-0.0217368,-0.00271823,0,0,0,0,0,0,0,3.45712,-1.9618,3.50212,-1.01393,7.38623,0.0285942,-0.0161654,0.126881,-0.0555373,0.157591,-2.10446,0.14945,0.200146,-0.0049153,0.0117267,0.0236649,0.0245667,-0.0183281,0.00905476,-0.00149797,0.000688101,0,0,0,0,0,0,0,0.158268,-29.5552,-0.0625476,22.7695,1.14318,1.44189,-0.0703886,
0.127276,-0.0555468,0.158052,-2.10556,0.167849,0.200606,-0.00502036,0.0115157,0.00832629,0.013169,-0.032637,0.457002,-0.0257256,-0.00252935,0,0,0,0,0,0,0,3.33655,-1.92291,3.37213,-0.657299,8.58397,-0.47484,-0.0136386,0.126881,-0.0555373,0.157591,-2.10446,0.14945,0.200146,-0.0049153,0.0117267,0.0236649,0.0245667,-0.0183281,0.00905476,-0.00149797,0.000688101,0,0,0,0,0,0,0,0.158268,-29.5552,-0.0625476,22.7695,1.14318,1.44189,-0.0703886,
0.128766,-0.0605299,0.161352,-2.09982,0.26197,0.230082,-0.00618193,0.00952276,0.00371169,0.0115493,-0.0237672,0.42203,-0.0212574,-0.00254072,0,0,0,0,0,0,0,0.752258,-1.52672,1.01827,1.519,1.43518,2.26616,-0.0243343,0.127358,-0.0546039,0.15843,-2.10532,0.149423,0.200085,-0.00492339,0.00722853,0.0224193,0.0230269,-0.0299867,0.00466076,0.000708589,-0.000121637,-0.56227,-0.155701,-0.192473,-1.45732,-0.54925,0.27582,-0.101217,0.285221,-30.6542,0.0882092,24.1144,1.36932,1.63415,-0.0365141,
0.128778,-0.060648,0.161393,-2.09973,0.264221,0.230055,-0.00620261,0.00792845,1.65037e-05,0.0102563,-0.0166787,0.393907,-0.0176705,-0.00254966,0,0,0,0,0,0,0,0.734146,-1.5242,1.00005,1.51796,1.43801,2.20816,-0.0243566,0.127358,-0.0546039,0.15843,-2.10532,0.149423,0.200085,-0.00492339,0.00722853,0.0224193,0.0230269,-0.0299867,0.00466076,0.000708589,-0.000121637,0,0,0,0,0,0,0,0.285221,-30.6542,0.0882092,24.1144,1.36932,1.63415,-0.0365141,
0.12879,-0.0607662,0.161434,-2.09963,0.266466,0.230029,-0.00622329,0.00665303,-0.00294319,0.00922463,-0.0110153,0.371262,-0.0147884,-0.00255666,0,0,0,0,0,0,0,0.716072,-1.52169,0.981847,1.517,1.44293,2.15054,-0.0243802,0.127358,-0.0546039,0.15843,-2.10532,0.149423,0.200085,-0.00492339,0.00722853,0.0224193,0.0230269,-0.0299867,0.00466076,0.000708589,-0.000121637,0,0,0,0,0,0,0,0.285221,-30.6542,0.0882092,24.1144,1.36932,1.63415,-0.0365141,
0.139795,-0.0525831,0.169897,-2.10864,0.270827,0.375807,-0.00533938,0.017687,-0.00211469,0.0194691,-0.00814585,0.355801,0.0697202,-0.00242669,0,0,0,0,0,0,0,6.16458,-0.0147541,5.99026,-0.105531,3.05298,4.31993,-0.024394,0.127358,-0.0546039,0.15843,-2.10532,0.149423,0.200085,-0.00492339,0.00722853,0.0224193,0.0230269,-0.0299867,0.00466076,0.000708589,-0.000121637,0,0,0,0,0,0,0,0.285221,-30.6542,0.0882092,24.1144,1.36932,1.63415,-0.0365141,
0.138129,-0.0544329,0.169185,-2.1065,0.182501,0.246771,-0.00536279,0.0227566,-0.00269309,0.0242886,-0.00600475,0.297621,0.0816915,-0.00232729,0,0,0,0,0,0,0,6.12727,-0.122372,5.97621,-0.093309,2.91156,4.06481,-0.0240999,0.127978,-0.0543146,0.159654,-2.10581,0.150949,0.200022,-0.00491831,0.0248067,-0.00207663,0.0337806,0.00518082,0.116955,-0.00267047,-0.000776819,2.19728,-3.062,1.34421,4.39594,14.0368,-0.422382,-0.0818977,2.99884,-36.3194,2.66298,30.466,2.24273,2.58904,-0.0429228,
0.138466,-0.0544737,0.169527,-2.10648,0.182983,0.247771,-0.00537817,0.0266406,-0.00317371,0.0279858,-0.0042779,0.250147,0.0903489,-0.00224621,0,0,0,0,0,0,0,6.08388,-0.225964,5.95642,-0.0889013,2.78002,3.81386,-0.023686,0.127978,-0.0543146,0.159654,-2.10581,0.150949,0.200022,-0.00491831,0.0248067,-0.00207663,0.0337806,0.00518082,0.116955,-0.00267047,-0.000776819,0,0,0,0,0,0,0,2.99884,-36.3194,2.66298,30.466,2.24273,2.58904,-0.0429228,
0.138797,-0.0545152,0.169863,-2.10646,0.18343,0.248736,-0.00539348,0.0295757,-0.00357699,0.0307845,-0.00288074,0.211309,0.096396,-0.0021798,0,0,0,0,0,0,0,6.0336,-0.328036,5.9304,-0.0859491,2.65372,3.57363,-0.0232288,0.127978,-0.0543146,0.159654,-2.10581,0.150949,0.200022,-0.00491831,0.0248067,-0.00207663,0.0337806,0.00518082,0.116955,-0.00267047,-0.000776819,0,0,0,0,0,0,0,2.99884,-36.3194,2.66298,30.466,2.24273,2.58904,-0.0429228,
0.134096,-0.0591591,0.166623,-2.10186,0.244104,0.212849,-0.00605784,0.0240073,-0.00597462,0.025665,0.000210636,0.233646,0.0714384,-0.00234055,0,0,0,0,0,0,0,2.72916,-0.100608,2.62405,-0.148706,0.301038,1.52165,-0.0162332,0.127978,-0.0543146,0.159654,-2.10581,0.150949,0.200022,-0.00491831,0.0248067,-0.00207663,0.0337806,0.00518082,0.116955,-0.00267047,-0.000776819,0,0,0,0,0,0,0,2.99884,-36.3194,2.66298,30.466,2.24273,2.58904,-0.0429228,
0.13411,-0.059284,0.166664,-2.10176,0.246681,0.212623,-0.0060817,0.0195527,-0.00790071,0.0215724,0.00267974,0.251345,0.0515114,-0.00246907,0,0,0,0,0,0,0,2.73774,-0.0586073,2.62616,-0.0855156,0.367742,1.47623,-0.0174516,0.129943,-0.0538671,0.161437,-2.10488,0.15603,0.200978,-0.00491751,0.0751614,0.00826568,0.0540648,0.0218786,0.10103,0.0293468,-6.36574e-05,6.29433,1.29279,2.53553,2.08723,-1.99068,4.00216,0.0891451,1.1977,-31.1025,1.23872,26.4551,1.61926,1.93261,-0.050247,
0.134124,-0.0594091,0.166706,-2.10166,0.249252,0.212399,-0.00610556,0.015989,-0.00944915,0.0183012,0.0046506,0.265334,0.0356074,-0.00257182,0,0,0,0,0,0,0,2.76352,-0.0453956,2.64457,-0.0135489,0.465653,1.42911,-0.0188471,0.129943,-0.0538671,0.161437,-2.10488,0.15603,0.200978,-0.00491751,0.0751614,0.00826568,0.0540648,0.0218786,0.10103,0.0293468,-6.36574e-05,0,0,0,0,0,0,0,1.1977,-31.1025,1.23872,26.4551,1.61926,1.93261,-0.050247,
0.134138,-0.0595346,0.166748,-2.10156,0.251815,0.212176,-0.00612942,0.0131381,-0.0106951,0.0156873,0.00622253,0.276354,0.0229209,-0.00265395,0,0,0,0,0,0,0,2.80155,-0.0466264,2.676,0.0631093,0.572638,1.37845,-0.0203902,0.129943,-0.0538671,0.161437,-2.10488,0.15603,0.200978,-0.00491751,0.0751614,0.00826568,0.0540648,0.0218786,0.10103,0.0293468,-6.36574e-05,0,0,0,0,0,0,0,1.1977,-31.1025,1.23872,26.4551,1.61926,1.93261,-0.050247,
0.141043,-0.0543695,0.172451,-2.10553,0.201363,0.245517,-0.00552319,0.0182951,-0.00977055,0.0204952,0.00546296,0.237446,0.0427587,-0.00258398,0,0,0,0,0,0,0,4.23081,0.617568,4.01471,-0.681095,3.10664,3.91177,-0.0290334,0.129943,-0.0538671,0.161437,-2.10488,0.15603,0.200978,-0.00491751,0.0751614,0.00826568,0.0540648,0.0218786,0.10103,0.0293468,-6.36574e-05,0,0,0,0,0,0,0,1.1977,-31.1025,1.23872,26.4551,1.61926,1.93261,-0.050247,
0.141348,-0.054419,0.172762,-2.10551,0.201973,0.24646,-0.00554156,0.0222543,-0.00905319,0.0241893,0.00487705,0.205219,0.0577928,-0.00252636,0,0,0,0,0,0,0,4.39651,0.642966,4.1666,-0.613222,3.11126,3.70394,-0.031464,0.132665,-0.0544103,0.163538,-2.10398,0.158517,0.201392,-0.00491608,0.0767973,-0.00639069,0.0691613,0.0294135,0.0740547,0.00961918,6.91685e-05,0.20449,-1.83205,1.88706,0.94186,-3.37188,-2.46595,0.0166032,-0.373349,-31.8999,-0.836168,25.7568,2.02301,1.39519,-0.0630644,
0.141646,-0.0544694,0.173068,-2.10548,0.202543,0.247371,-0.00555986,0.0252549,-0.00850141,0.0269917,0.00443092,0.178424,0.0690151,-0.00247873,0,0,0,0,0,0,0,4.58336,0.645787,4.33385,-0.521293,3.11627,3.50528,-0.033827,0.132665,-0.0544103,0.163538,-2.10398,0.158517,0.201392,-0.00491608,0.0767973,-0.00639069,0.0691613,0.0294135,0.0740547,0.00961918,6.91685e-05,0,0,0,0,0,0,0,-0.373349,-31.8999,-0.836168,25.7568,2.02301,1.39519,-0.0630644,
0.14044,-0.0593375,0.172129,-2.10017,0.251064,0.207902,-0.00616467,0.0205797,-0.00995615,0.0226795,0.00597297,0.213705,0.0432288,-0.00264324,0,0,0,0,0,0,0,2.96216,0.0389359,2.83725,-0.184568,0.299275,1.48242,-0.0192832,0.132665,-0.0544103,0.163538,-2.10398,0.158517,0.201392,-0.00491608,0.0767973,-0.00639069,0.0691613,0.0294135,0.0740547,0.00961918,6.91685e-05,0,0,0,0,0,0,0,-0.373349,-31.8999,-0.836168,25.7568,2.02301,1.39519,-0.0630644,
0.140455,-0.0594642,0.172172,-2.10007,0.253895,0.207426,-0.00619108,0.0168408,-0.0111324,0.0192342,0.00720645,0.241744,0.0226732,-0.00277493,0,0,0,0,0,0,0,2.9898,0.0586773,2.85649,-0.114953,0.397311,1.42936,-0.020802,0.132665,-0.0544103,0.163538,-2.10398,0.158517,0.201392,-0.00491608,0.0767973,-0.00639069,0.0691613,0.0294135,0.0740547,0.00961918,6.91685e-05,0,0,0,0,0,0,0,-0.373349,-31.8999,-0.836168,25.7568,2.02301,1.39519,-0.0630644,
0.14047,-0.0595914,0.172216,-2.09997,0.256719,0.206952,-0.0062175,0.0138507,-0.012085,0.016482,0.0081923,0.263988,0.00629951,-0.00288035,0,0,0,0,0,0,0,3.03125,0.0526311,2.89645,-0.0543326,0.504046,1.36408,-0.0224264,0.135498,-0.0546935,0.166446,-2.10339,0.159489,0.202404,-0.00491619,0.067476,-0.0218929,0.0835992,0.0206927,0.035126,0.0415794,0.00102125,-1.16517,-1.93777,1.80473,-1.0901,-4.86609,3.99502,0.11901,-0.857357,-32.6973,-0.887743,28.1491,1.41784,1.9793,-0.0630644,
0.140485,-0.059719,0.17226,-2.09988,0.259535,0.206481,-0.00624392,0.0114593,-0.0128583,0.0142841,0.00897942,0.281596,-0.0067308,-0.00296476,0,0,0,0,0,0,0,3.08557,0.0428556,2.9437,0.0255993,0.622106,1.30419,-0.0242383,0.135498,-0.0546935,0.166446,-2.10339,0.159489,0.202404,-0.00491619,0.067476,-0.0218929,0.0835992,0.0206927,0.035126,0.0415794,0.00102125,0,0,0,0,0,0,0,-0.857357,-32.6973,-0.887743,28.1491,1.41784,1.9793,-0.0630644,
0.147061,-0.0560292,0.177993,-2.10353,0.202799,0.242011,-0.00562627,0.0162415,-0.0116548,0.0187274,0.00781659,0.241135,0.0135741,-0.00288695,0,0,0,0,0,0,0,4.1741,0.568066,3.96766,-0.608519,2.64666,3.43665,-0.0296026,0.135498,-0.0546935,0.166446,-2.10339,0.159489,0.202404,-0.00491619,0.067476,-0.0218929,0.0835992,0.0206927,0.035126,0.0415794,0.00102125,0,0,0,0,0,0,0,-0.857357,-32.6973,-0.887743,28.1491,1.41784,1.9793,-0.0630644,
0.147337,-0.056085,0.178279,-2.1035,0.203403,0.242744,-0.00564684,0.0198976,-0.0107182,0.0221264,0.00691297,0.207995,0.0291795,-0.00282361,0,0,0,0,0,0,0,4.3339,0.603519,4.10678,-0.526987,2.69314,3.26016,-0.0323388,0.135498,-0.0546935,0.166446,-2.10339,0.159489,0.202404,-0.00491619,0.067476,-0.0218929,0.0835992,0.0206927,0.035126,0.0415794,0.00102125,0,0,0,0,0,0,0,-0.857357,-32.6973,-0.887743,28.1491,1.41784,1.9793,-0.0630644,
0.147607,-0.0561418,0.178558,-2.10347,0.203979,0.243452,-0.00566736,0.0226527,-0.00999526,0.0246893,0.00621757,0.180787,0.041049,-0.00277197,0,0,0,0,0,0,0,4.51511,0.60342,4.26874,-0.435398,2.73151,3.08315,-0.0349705,0.135498,-0.0546935,0.166446,-2.10339,0.159489,0.202404,-0.00491619,0.067476,-0.0218929,0.0835992,0.0206927,0.035126,0.0415794,0.00102125,0,0,0,0,0,0,0,-0.857357,-32.6973,-0.887743,28.1491,1.41784,1.9793,-0.0630644,
0.156431,-0.0565378,0.187671,-2.11224,0.283131,0.423981,-0.00554415,0.0241492,-0.00644999,0.0256523,0.00272553,0.14708,0.0472458,-0.00258841,0,0,0,0,0,0,0,3.04624,0.0736085,2.92899,-0.276379,0.316514,1.58039,-0.0214283,0.137193,-0.0555406,0.169601,-2.10258,0.163224,0.203338,-0.00491831,0.0510742,-0.0187903,0.118228,0.0269257,0.132104,0.0411609,-0.00110567,-2.05022,0.387818,4.32859,0.779127,12.1223,-0.052304,-0.265865,4.11365,-29.1069,3.66273,23.9636,1.97357,1.36864,-0.0429228,
0.145959,-0.0604662,0.179165,-2.09917,0.250307,0.209081,-0.00622386,0.0196894,-0.00836535,0.0216372,0.00445708,0.195117,0.0191869,-0.00278359,0,0,0,0,0,0,0,3.06964,0.0960809,2.94453,-0.211277,0.396888,1.52614,-0.0228264,0.137193,-0.0555406,0.169601,-2.10258,0.163224,0.203338,-0.00491831,0.0510742,-0.0187903,0.118228,0.0269257,0.132104,0.0411609,-0.00110567,0,0,0,0,0,0,0,4.11365,-29.1069,3.66273,23.9636,1.97357,1.36864,-0.0429228,
0.145974,-0.0605952,0.17921,-2.09908,0.253398,0.208341,-0.00625239,0.0161316,-0.00991654,0.0184385,0.00584867,0.233363,-0.00314207,-0.00294016,0,0,0,0,0,0,0,3.1065,0.108344,2.97379,-0.14175,0.49259,1.47124,-0.0244361,0.137193,-0.0555406,0.169601,-2.10258,0.163224,0.203338,-0.00491831,0.0510742,-0.0187903,0.118228,0.0269257,0.132104,0.0411609,-0.00110567,0,0,0,0,0,0,0,4.11365,-29.1069,3.66273,23.9636,1.97357,1.36864,-0.0429228,
0.14599,-0.0607249,0.179256,-2.09899,0.256481,0.207606,-0.00628094,0.0132931,-0.0111753,0.0158907,0.00696667,0.263771,-0.0208945,-0.00306576,0,0,0,0,0,0,0,3.15675,0.106263,3.01712,-0.0671098,0.599346,1.41321,-0.0261744,0.137193,-0.0555406,0.169601,-2.10258,0.163224,0.203338,-0.00491831,0.0510742,-0.0187903,0.118228,0.0269257,0.132104,0.0411609,-0.00110567,0,0,0,0,0,0,0,4.11365,-29.1069,3.66273,23.9636,1.97357,1.36864,-0.0429228,
0.151671,-0.0574543,0.186268,-2.10204,0.211222,0.242076,-0.0057277,0.0169496,-0.0104655,0.0193223,0.00631254,0.227639,-0.00243031,-0.00301766,0,0,0,0,0,0,0,4.01264,0.519555,3.82119,-0.610693,2.10295,3.07813,-0.0291163,0.139615,-0.055672,0.174148,-2.10222,0.167179,0.206627,-0.00491831,0.0694024,-0.030888,0.105864,0.00456564,0.131624,0.118633,-0.000769916,2.29103,-1.51221,-1.54544,-2.79501,-0.0599807,9.68402,0.0419693,0.487552,-32.5227,0.211195,26.9788,1.79046,1.91247,-0.0429228,
0.151917,-0.0575165,0.186526,-2.102,0.211866,0.242629,-0.00575028,0.0197027,-0.00992788,0.0219094,0.00582061,0.198196,0.0118724,-0.00297863,0,0,0,0,0,0,0,4.14362,0.555515,3.93449,-0.535959,2.16085,2.92778,-0.0316703,0.139615,-0.055672,0.174148,-2.10222,0.167179,0.206627,-0.00491831,0.0694024,-0.030888,0.105864,0.00456564,0.131624,0.118633,-0.000769916,0,0,0,0,0,0,0,0.487552,-32.5227,0.211195,26.9788,1.79046,1.91247,-0.0429228,
0.152156,-0.05758,0.186778,-2.10197,0.21249,0.243163,-0.00577285,0.0217329,-0.00952864,0.0238206,0.00545913,0.174174,0.0228603,-0.00294698,0,0,0,0,0,0,0,4.29558,0.56415,4.06966,-0.451875,2.22179,2.77882,-0.0342859,0.139615,-0.055672,0.174148,-2.10222,0.167179,0.206627,-0.00491831,0.0694024,-0.030888,0.105864,0.00456564,0.131624,0.118633,-0.000769916,0,0,0,0,0,0,0,0.487552,-32.5227,0.211195,26.9788,1.79046,1.91247,-0.0429228,
0.152388,-0.0576447,0.187023,-2.10194,0.213099,0.24368,-0.00579539,0.0231843,-0.00924054,0.0251904,0.00520284,0.154558,0.0312087,-0.00292123,0,0,0,0,0,0,0,4.46511,0.535472,4.22479,-0.359461,2.27395,2.62562,-0.0367835,0.139615,-0.055672,0.174148,-2.10222,0.167179,0.206627,-0.00491831,0.0694024,-0.030888,0.105864,0.00456564,0.131624,0.118633,-0.000769916,0,0,0,0,0,0,0,0.487552,-32.5227,0.211195,26.9788,1.79046,1.91247,-0.0429228,
0.149165,-0.0598954,0.184316,-2.09938,0.239248,0.216578,-0.00619427,0.0185902,-0.0105253,0.020936,0.00627856,0.207421,-0.000572077,-0.00308756,0,0,0,0,0,0,0,3.15479,0.169966,3.02535,-0.336191,0.324467,1.66059,-0.0229206,0.139615,-0.055672,0.174148,-2.10222,0.167179,0.206627,-0.00491831,0.0694024,-0.030888,0.105864,0.00456564,0.131624,0.118633,-0.000769916,0,0,0,0,0,0,0,0.487552,-32.5227,0.211195,26.9788,1.79046,1.91247,-0.0429228,
0.149171,-0.060021,0.184352,-2.0993,0.242596,0.215569,-0.00622441,0.0150134,-0.0115591,0.0176362,0.00714444,0.249637,-0.0256787,-0.00322339,0,0,0,0,0,0,0,3.17462,0.195532,3.03732,-0.275438,0.390937,1.60364,-0.0242765,0.139615,-0.055672,0.174148,-2.10222,0.167179,0.206627,-0.00491831,0.0694024,-0.030888,0.105864,0.00456564,0.131624,0.118633,-0.000769916,0,0,0,0,0,0,0,0.487552,-32.5227,0.211195,26.9788,1.79046,1.91247,-0.0429228,
0.14918,-0.060147,0.18439,-2.09921,0.245941,0.21457,-0.00625463,0.0122249,-0.0123981,0.0150739,0.0078487,0.283314,-0.045527,-0.00333433,0,0,0,0,0,0,0,3.20754,0.212618,3.06257,-0.210617,0.473677,1.54707,-0.0258113,0.139615,-0.055672,0.174148,-2.10222,0.167179,0.206627,-0.00491831,0.0694024,-0.030888,0.105864,0.00456564,0.131624,0.118633,-0.000769916,0,0,0,0,0,0,0,0.487552,-32.5227,0.211195,26.9788,1.79046,1.91247,-0.0429228,
0.14919,-0.0602737,0.184431,-2.09913,0.24928,0.213578,-0.00628492,0.0100486,-0.0130859,0.0130826,0.00842353,0.310137,-0.0612148,-0.00342476,0,0,0,0,0,0,0,3.25403,0.217727,3.10187,-0.141092,0.570903,1.48963,-0.0275538,0.139615,-0.055672,0.174148,-2.10222,0.167179,0.206627,-0.00491831,0.0694024,-0.030888,0.105864,0.00456564,0.131624,0.118633,-0.000769916,0,0,0,0,0,0,0,0.487552,-32.5227,0.211195,26.9788,1.79046,1.91247,-0.0429228,
0.151663,-0.0576152,0.186282,-2.10176,0.211964,0.237985,-0.00582974,0.0136273,-0.0120624,0.0163714,0.00767197,0.266664,-0.038056,-0.00335286,0,0,0,0,0,0,0,3.79907,0.43512,3.63074,-0.592254,1.68895,2.76426,-0.0281714,0.14234,-0.0563178,0.177618,-2.10207,0.171907,0.209317,-0.00492055,0.0923494,-0.00788344,0.108044,0.00106152,0.086334,0.0810086,-0.00121421,2.86837,2.87558,0.27251,-0.438015,-5.6613,-4.70306,-0.0555371,-3.13855,-30.2773,-3.26018,25.7568,1.6687,2.16424,-0.0227812,
0.151879,-0.0576803,0.186512,-2.10172,0.212693,0.238408,-0.00585426,0.0163154,-0.0112782,0.0188416,0.00710591,0.231559,-0.0198775,-0.0032953,0,0,0,0,0,0,0,3.90337,0.48133,3.71875,-0.525061,1.75208,2.63639,-0.0305522,0.14234,-0.0563178,0.177618,-2.10207,0.171907,0.209317,-0.00492055,0.0923494,-0.00788344,0.108044,0.00106152,0.086334,0.0810086,-0.00121421,0,0,0,0,0,0,0,-3.13855,-30.2773,-3.26018,25.7568,1.6687,2.16424,-0.0227812,
0.152089,-0.0577469,0.186735,-2.10168,0.213412,0.238817,-0.00587878,0.0182905,-0.010686,0.0206566,0.00668877,0.203223,-0.0056802,-0.00324935,0,0,0,0,0,0,0,4.02902,0.507801,3.82832,-0.449267,1.82759,2.5118,-0.0331347,0.14234,-0.0563178,0.177618,-2.10207,0.171907,0.209317,-0.00492055,0.0923494,-0.00788344,0.108044,0.00106152,0.086334,0.0810086,-0.00121421,0,0,0,0,0,0,0,-3.13855,-30.2773,-3.26018,25.7568,1.6687,2.16424,-0.0227812,
0.152707,-0.0598118,0.188561,-2.10001,0.235969,0.220616,-0.00622658,0.0144671,-0.0115701,0.0170409,0.00782612,0.242273,-0.0319045,-0.00335078,0,0,0,0,0,0,0,3.20649,0.175787,3.08518,-0.38304,0.444205,1.72824,-0.0249158,0.14234,-0.0563178,0.177618,-2.10207,0.171907,0.209317,-0.00492055,0.0923494,-0.00788344,0.108044,0.00106152,0.086334,0.0810086,-0.00121421,0,0,0,0,0,0,0,-3.13855,-30.2773,-3.26018,25.7568,1.6687,2.16424,-0.0227812,
0.152695,-0.0599344,0.188577,-2.09992,0.239365,0.219414,-0.00625827,0.0112846,-0.0123194,0.0140214,0.00871498,0.2787,-0.0555816,-0.00347303,0,0,0,0,0,0,0,3.23857,0.17533,3.11785,-0.344068,0.506771,1.65148,-0.0263027,0.145509,-0.056856,0.180948,-2.10189,0.173777,0.211229,-0.00491608,0.0873705,-0.027502,0.0799669,0.0111281,0.0852355,0.0271016,0.000914807,-0.62237,-2.45232,-3.50969,1.25832,-0.137308,-6.73837,0.266128,-1.5675,-30.8763,-1.83592,25.856,1.39953,1.74035,-0.0630644,
0.152681,-0.0600608,0.188594,-2.09983,0.242897,0.218158,-0.00629229,0.00868472,-0.0130178,0.0116566,0.00926044,0.311269,-0.0758561,-0.00362898,0,0,0,0,0,0,0,3.28118,0.196111,3.15188,-0.279627,0.589869,1.59053,-0.0279822,0.145509,-0.056856,0.180948,-2.10189,0.173777,0.211229,-0.00491608,0.0873705,-0.027502,0.0799669,0.0111281,0.0852355,0.0271016,0.000914807,0,0,0,0,0,0,0,-1.5675,-30.8763,-1.83592,25.856,1.39953,1.74035,-0.0630644,
0.152676,-0.060189,0.188619,-2.09974,0.24644,0.216928,-0.0063242,0.00680596,-0.0136181,0.00994148,0.00952232,0.337592,-0.0914402,-0.00370084,0,0,0,0,0,0,0,3.33857,0.203999,3.20112,-0.210001,0.687965,1.52891,-0.0298862,0.145509,-0.056856,0.180948,-2.10189,0.173777,0.211229,-0.00491608,0.0873705,-0.027502,0.0799669,0.0111281,0.0852355,0.0271016,0.000914807,0,0,0,0,0,0,0,-1.5675,-30.8763,-1.83592,25.856,1.39953,1.74035,-0.0630644,
0.157422,-0.0591086,0.193048,-2.10141,0.219468,0.236505,-0.00593287,0.0102814,-0.0127263,0.0131821,0.00870546,0.290841,-0.0651432,-0.0036191,0,0,0,0,0,0,0,3.76236,0.406745,3.5953,-0.528219,1.47788,2.50017,-0.0300534,0.145509,-0.056856,0.180948,-2.10189,0.173777,0.211229,-0.00491608,0.0873705,-0.027502,0.0799669,0.0111281,0.0852355,0.0271016,0.000914807,0,0,0,0,0,0,0,-1.5675,-30.8763,-1.83592,25.856,1.39953,1.74035,-0.0630644,
0.157608,-0.0591835,0.193251,-2.10137,0.220296,0.236813,-0.00595923,0.0128846,-0.0120517,0.015612,0.0080898,0.253371,-0.0444062,-0.00355432,0,0,0,0,0,0,0,3.86517,0.420251,3.68982,-0.478597,1.54408,2.37439,-0.0324048,0.148013,-0.0572566,0.183097,-2.10179,0.176726,0.212361,-0.00491762,0.0644645,-0.00648334,0.072505,-0.00174612,0.0482376,0.0364572,0.00038928,-2.86325,2.62734,-0.932733,-1.60928,-4.62473,1.16945,-0.0656909,-1.69445,-29.9519,-1.98668,25.2847,1.6925,1.72661,-0.050247,
0.157787,-0.0592599,0.193447,-2.10132,0.221125,0.237109,-0.00598563,0.0147895,-0.0115514,0.0173925,0.00763563,0.223414,-0.028131,-0.00350334,0,0,0,0,0,0,0,3.98747,0.434491,3.79774,-0.401456,1.62985,2.26094,-0.0349843,0.148013,-0.0572566,0.183097,-2.10179,0.176726,0.212361,-0.00491762,0.0644645,-0.00648334,0.072505,-0.00174612,0.0482376,0.0364572,0.00038928,0,0,0,0,0,0,0,-1.69445,-29.9519,-1.98668,25.2847,1.6925,1.72661,-0.050247,
0.163628,-0.0581381,0.19926,-2.10874,0.274787,0.412246,-0.00561841,0.0183437,-0.0076711,0.02026,0.00405968,0.186634,-0.00177578,-0.00329954,0,0,0,0,0,0,0,3.30376,0.232573,3.17515,-0.389157,0.532755,1.77748,-0.0273547,0.148013,-0.0572566,0.183097,-2.10179,0.176726,0.212361,-0.00491762,0.0644645,-0.00648334,0.072505,-0.00174612,0.0482376,0.0364572,0.00038928,0,0,0,0,0,0,0,-1.69445,-29.9519,-1.98668,25.2847,1.6925,1.72661,-0.050247,
0.15813,-0.0604273,0.193758,-2.10014,0.236098,0.22454,-0.00625566,0.0151473,-0.0090407,0.0173479,0.00559066,0.214003,-0.0208707,-0.00339063,0,0,0,0,0,0,0,3.34004,0.257168,3.20304,-0.32972,0.598502,1.71203,-0.0289341,0.148013,-0.0572566,0.183097,-2.10179,0.176726,0.212361,-0.00491762,0.0644645,-0.00648334,0.072505,-0.00174612,0.0482376,0.0364572,0.00038928,0,0,0,0,0,0,0,-1.69445,-29.9519,-1.98668,25.2847,1.6925,1.72661,-0.050247,
0.158138,-0.0605463,0.193794,-2.10004,0.238931,0.223612,-0.00628608,0.0123321,-0.0102081,0.0147765,0.00687236,0.242042,-0.0398973,-0.00347308,0,0,0,0,0,0,0,3.39176,0.248697,3.25472,-0.281891,0.669856,1.64069,-0.0306553,0.149778,-0.0578268,0.185164,-2.10163,0.180256,0.213421,-0.00491762,0.0456315,-0.0182164,0.0643623,0.00661011,0.147467,0.0156149,-0.000240023,-2.35413,-1.46663,-1.01784,1.04453,12.4037,-2.60528,-0.0786628,0.689884,-30.7533,0.43733,25.1578,1.79046,1.43548,-0.050247,
0.158137,-0.0606679,0.193821,-2.09995,0.242019,0.222532,-0.00631709,0.00984117,-0.0112061,0.0124942,0.00793645,0.270832,-0.0589125,-0.00355378,0,0,0,0,0,0,0,3.45666,0.248062,3.31219,-0.212438,0.765831,1.57496,-0.0326297,0.149778,-0.0578268,0.185164,-2.10163,0.180256,0.213421,-0.00491762,0.0456315,-0.0182164,0.0643623,0.00661011,0.147467,0.0156149,-0.000240023,0,0,0,0,0,0,0,0.689884,-30.7533,0.43733,25.1578,1.79046,1.43548,-0.050247,
0.160904,-0.0599748,0.196517,-2.10112,0.227363,0.235676,-0.00599115,0.0122787,-0.0108892,0.014827,0.00750916,0.240288,-0.0412488,-0.00354335,0,0,0,0,0,0,0,3.62044,0.352202,3.47086,-0.514313,1.22888,2.37487,-0.0300155,0.149778,-0.0578268,0.185164,-2.10163,0.180256,0.213421,-0.00491762,0.0456315,-0.0182164,0.0643623,0.00661011,0.147467,0.0156149,-0.000240023,0,0,0,0,0,0,0,0.689884,-30.7533,0.43733,25.1578,1.79046,1.43548,-0.050247,
0.161073,-0.0600535,0.196703,-2.10107,0.22831,0.2359,-0.0060192,0.0140514,-0.0106772,0.0165308,0.00720656,0.215916,-0.0273946,-0.00353613,0,0,0,0,0,0,0,3.70023,0.38917,3.53767,-0.452076,1.29324,2.27095,-0.0321282,0.149778,-0.0578268,0.185164,-2.10163,0.180256,0.213421,-0.00491762,0.0456315,-0.0182164,0.0643623,0.00661011,0.147467,0.0156149,-0.000240023,0,0,0,0,0,0,0,0.689884,-30.7533,0.43733,25.1578,1.79046,1.43548,-0.050247,
0.161235,-0.0601338,0.196884,-2.10102,0.229264,0.236112,-0.00604732,0.0152914,-0.0105496,0.0177303,0.00700436,0.196586,-0.0166181,-0.00353173,0,0,0,0,0,0,0,3.79867,0.410192,3.62343,-0.382896,1.37392,2.16986,-0.0344951,0.149778,-0.0578268,0.185164,-2.10163,0.180256,0.213421,-0.00491762,0.0456315,-0.0182164,0.0643623,0.00661011,0.147467,0.0156149,-0.000240023,0,0,0,0,0,0,0,0.689884,-30.7533,0.43733,25.1578,1.79046,1.43548,-0.050247,
0.16139,-0.0602158,0.197057,-2.10097,0.23023,0.23631,-0.00607549,0.0161038,-0.0104903,0.0185251,0.00688339,0.181405,-0.00834194,-0.00352975,0,0,0,0,0,0,0,3.9108,0.401159,3.73056,-0.308073,1.44919,2.06784,-0.0369915,0.152114,-0.0579989,0.187983,-2.10159,0.184623,0.214819,-0.00491903,0.0768213,0.00220291,0.100415,0.000337613,0.118843,0.080838,-0.00109785,3.89874,2.55241,4.50662,-0.784062,-3.57801,8.15288,-0.107229,5.15308,-31.3762,4.73787,26.9788,2.34069,2.01867,-0.0365141,
0.162963,-0.0609592,0.199356,-2.10011,0.242405,0.227603,-0.00627281,0.0141044,-0.0111322,0.0166848,0.0075735,0.19664,-0.0182228,-0.00359702,0,0,0,0,0,0,0,3.34341,0.273061,3.2137,-0.364405,0.570758,1.80057,-0.0292371,0.152114,-0.0579989,0.187983,-2.10159,0.184623,0.214819,-0.00491903,0.0768213,0.00220291,0.100415,0.000337613,0.118843,0.080838,-0.00109785,0,0,0,0,0,0,0,5.15308,-31.3762,4.73787,26.9788,2.34069,2.01867,-0.0365141,
0.163001,-0.0610719,0.199421,-2.10002,0.244654,0.22702,-0.006304,0.0122457,-0.0117226,0.0149723,0.0082047,0.213542,-0.0291582,-0.00365735,0,0,0,0,0,0,0,3.38571,0.29498,3.24756,-0.305509,0.638104,1.73329,-0.0308976,0.152114,-0.0579989,0.187983,-2.10159,0.184623,0.214819,-0.00491903,0.0768213,0.00220291,0.100415,0.000337613,0.118843,0.080838,-0.00109785,0,0,0,0,0,0,0,5.15308,-31.3762,4.73787,26.9788,2.34069,2.01867,-0.0365141,
0.163029,-0.0611877,0.199476,-2.09993,0.247116,0.2263,-0.00633546,0.0104934,-0.0122734,0.0133556,0.00878608,0.232383,-0.0413196,-0.00371247,0,0,0,0,0,0,0,3.44232,0.305252,3.29613,-0.241773,0.721968,1.66697,-0.0327869,0.152114,-0.0579989,0.187983,-2.10159,0.184623,0.214819,-0.00491903,0.0768213,0.00220291,0.100415,0.000337613,0.118843,0.080838,-0.00109785,0,0,0,0,0,0,0,5.15308,-31.3762,4.73787,26.9788,2.34069,2.01867,-0.0365141,
0.163046,-0.0613066,0.199521,-2.09984,0.249814,0.22543,-0.00636723,0.00882446,-0.0127918,0.0118133,0.00932043,0.253342,-0.0547953,-0.00376418,0,0,0,0,0,0,0,3.51855,0.275897,3.37204,-0.185605,0.812211,1.59047,-0.0347538,0.154437,-0.0583585,0.190339,-2.10143,0.187671,0.215588,-0.00491526,0.077367,-0.00891621,0.0842691,-0.00461344,0.0649107,0.00262287,0.00112867,0.0682022,-1.38989,-2.01827,-0.618881,-6.74153,-9.77689,0.278315,1.24927,-30.4518,0.786451,25.5823,2.12005,1.7138,-0.0703886,
0.16962,-0.0602521,0.205708,-2.10132,0.200506,0.261027,-0.00613273,0.00985905,-0.0121857,0.0127253,0.00907131,0.216115,-0.0325756,-0.00373347,0,0,0,0,0,0,0,5.62796,0.985113,5.22903,-0.500681,1.17417,3.04343,-0.046303,0.154437,-0.0583585,0.190339,-2.10143,0.187671,0.215588,-0.00491526,0.077367,-0.00891621,0.0842691,-0.00461344,0.0649107,0.00262287,0.00112867,0,0,0,0,0,0,0,1.24927,-30.4518,0.786451,25.5823,2.12005,1.7138,-0.0703886,
0.169719,-0.0603336,0.205828,-2.10125,0.201202,0.261375,-0.00616198,0.0103731,-0.0117858,0.0131611,0.00897409,0.190306,-0.0173502,-0.00371799,0,0,0,0,0,0,0,5.85838,0.814324,5.45959,-0.379487,1.17267,2.87883,-0.0484883,0.154437,-0.0583585,0.190339,-2.10143,0.187671,0.215588,-0.00491526,0.077367,-0.00891621,0.0842691,-0.00461344,0.0649107,0.00262287,0.00112867,0,0,0,0,0,0,0,1.24927,-30.4518,0.786451,25.5823,2.12005,1.7138,-0.0703886,
0.169806,-0.0604187,0.205935,-2.10118,0.202085,0.261604,-0.00619163,0.0104584,-0.011557,0.013204,0.00900679,0.174315,-0.0081736,-0.00371557,0,0,0,0,0,0,0,6.0696,0.562218,5.68711,-0.265711,1.12517,2.68486,-0.0490492,0.154437,-0.0583585,0.190339,-2.10143,0.187671,0.215588,-0.00491526,0.077367,-0.00891621,0.0842691,-0.00461344,0.0649107,0.00262287,0.00112867,0,0,0,0,0,0,0,1.24927,-30.4518,0.786451,25.5823,2.12005,1.7138,-0.0703886,
0.167983,-0.0622091,0.204247,-2.10045,0.247579,0.224009,-0.0062994,0.0103889,-0.0118117,0.0131845,0.00892827,0.1787,-0.0108427,-0.00376644,0,0,0,0,0,0,0,3.53609,0.259932,3.39673,-0.403797,0.804949,2.12694,-0.0385575,0.157254,-0.058773,0.192954,-2.10142,0.188321,0.215681,-0.00491526,0.0860627,-0.0167155,0.0737273,-0.00333178,0.0151322,0.000458835,0.000745734,1.08697,-0.974915,-1.31772,0.160207,-6.22231,-0.270504,-0.0478666,0.638309,-31.7253,0.338148,27.0779,1.94976,1.7669,-0.0703886,
0.168055,-0.0623144,0.204344,-2.10038,0.249255,0.22377,-0.00633138,0.0101172,-0.012081,0.0129708,0.00893464,0.184866,-0.0146483,-0.00381263,0,0,0,0,0,0,0,3.67067,0.284608,3.50836,-0.300592,1.01948,2.02612,-0.0423012,0.157254,-0.058773,0.192954,-2.10142,0.188321,0.215681,-0.00491526,0.0860627,-0.0167155,0.0737273,-0.00333178,0.0151322,0.000458835,0.000745734,0,0,0,0,0,0,0,0.638309,-31.7253,0.338148,27.0779,1.94976,1.7669,-0.0703886,
