xiao-wang007/linearmpc_panda/paper_data/panda_inverse_dynamics_controller_Start_at_0_low_pass_acceleration/4/trajectory.csv
Commanded Joint 0 Position,Commanded Joint 1 Position,Commanded Joint 2 Position,Commanded Joint 3 Position,Commanded Joint 4 Position,Commanded Joint 5 Position,Commanded Joint 6 Position,Commanded Joint 0 Velocity,Commanded Joint 1 Velocity,Commanded Joint 2 Velocity,Commanded Joint 3 Velocity,Commanded Joint 4 Velocity,Commanded Joint 5 Velocity,Commanded Joint 6 Velocity,Commanded Joint 0 Acceleration,Commanded Joint 1 Acceleration,Commanded Joint 2 Acceleration,Commanded Joint 3 Acceleration,Commanded Joint 4 Acceleration,Commanded Joint 5 Acceleration,Commanded Joint 6 Acceleration,Commanded Joint 0 Torque,Commanded Joint 1 Torque,Commanded Joint 2 Torque,Commanded Joint 3 Torque,Commanded Joint 4 Torque,Commanded Joint 5 Torque,Commanded Joint 6 Torque,Actual Joint 0 Position,Actual Joint 1 Position,Actual Joint 2 Position,Actual Joint 3 Position,Actual Joint 4 Position,Actual Joint 5 Position,Actual Joint 6 Position,Actual Joint 0 Velocity,Actual Joint 1 Velocity,Actual Joint 2 Velocity,Actual Joint 3 Velocity,Actual Joint 4 Velocity,Actual Joint 5 Velocity,Actual Joint 6 Velocity,Actual Joint 0 Acceleration,Actual Joint 1 Acceleration,Actual Joint 2 Acceleration,Actual Joint 3 Acceleration,Actual Joint 4 Acceleration,Actual Joint 5 Acceleration,Actual Joint 6 Acceleration,Actual Joint 0 Torque,Actual Joint 1 Torque,Actual Joint 2 Torque,Actual Joint 3 Torque,Actual Joint 4 Torque,Actual Joint 5 Torque,Actual Joint 6 Torque,
0.0958664,-0.0170521,-0.0901187,-1.80948,0.0212749,0.284423,-0.00775096,0.000104582,0.021743,1.91465e-05,-0.0331736,-0.00476183,0.0527848,-0.000375361,0.0653637,13.5894,0.0119666,-20.7335,-2.97614,32.9905,-0.234601,0.0573915,24.0873,0.0244362,-24.5159,-0.708787,1.78969,-0.023794,0.0958591,-0.0183073,-0.0901286,-1.80627,0.0215834,0.278772,-0.00770163,-0.00132533,-0.000674687,-0.00213206,0.000957544,0.00501631,-0.000603565,-0.000271775,0,0,0,0,0,0,0,0.209842,-34.8436,0.286573,27.2287,0.526119,3.19237,-0.0163725,
0.095838,-0.01832,-0.0901497,-1.80626,0.02161,0.278782,-0.00770059,-3.90342e-05,0.0173141,-0.000106738,-0.0264775,-0.00377539,0.0423373,-0.000295065,-0.08976,-2.76804,-0.0786778,4.18505,0.61652,-6.52969,0.0501849,0.051646,24.5278,0.0140909,-24.4323,-0.708829,1.53904,-0.0222765,0.0958591,-0.0183073,-0.0901286,-1.80627,0.0215834,0.278772,-0.00770163,-0.00132533,-0.000674687,-0.00213206,0.000957544,0.00501631,-0.000603565,-0.000271775,0,0,0,0,0,0,0,0.209842,-34.8436,0.286573,27.2287,0.526119,3.19237,-0.0163725,
0.0958344,-0.0183223,-0.0901533,-1.80626,0.0216088,0.278786,-0.00770047,-0.000123312,0.0137917,-0.000176609,-0.0211315,-0.00305046,0.0339863,-0.000232925,-0.0526739,-2.20153,-0.0436697,3.3413,0.453087,-5.21933,0.0388379,0.0444341,25.1011,0.00247003,-24.3238,-0.707967,1.19233,-0.0203097,0.0958624,-0.0182398,-0.0901227,-1.80634,0.0215775,0.278766,-0.00770235,-0.000759498,0.000735673,-0.00112155,0.00246958,0.00354129,-0.000638161,-0.000370826,0.0707288,0.176295,0.126313,0.189004,-0.184378,-0.00432443,-0.0123814,0.158268,-34.7722,0.211195,27.3001,0.550839,3.24547,-0.00996382,
0.0958315,-0.0183241,-0.0901561,-1.80626,0.0216066,0.278791,-0.00770039,-0.000169148,0.0109903,-0.000210787,-0.0168632,-0.00249577,0.0273049,-0.000184443,-0.0286475,-1.75086,-0.0213607,2.66769,0.346675,-4.17589,0.0303013,0.0384846,25.625,-0.006964,-24.1559,-0.705667,0.80742,-0.0183072,0.0958624,-0.0182398,-0.0901227,-1.80634,0.0215775,0.278766,-0.00770235,-0.000759498,0.000735673,-0.00112155,0.00246958,0.00354129,-0.000638161,-0.000370826,0,0,0,0,0,0,0,0.158268,-34.7722,0.211195,27.3001,0.550839,3.24547,-0.00996382,
0.0958294,-0.0183253,-0.0901583,-1.80626,0.0216041,0.278795,-0.00770034,-0.000190105,0.00876236,-0.000222334,-0.0134555,-0.00205794,0.021955,-0.000146392,-0.013098,-1.39248,-0.00721744,2.12979,0.273648,-3.3437,0.0237816,0.0362112,25.9478,-0.0111984,-23.8915,-0.700621,0.434843,-0.0165841,0.0958624,-0.0182398,-0.0901227,-1.80634,0.0215775,0.278766,-0.00770235,-0.000759498,0.000735673,-0.00112155,0.00246958,0.00354129,-0.000638161,-0.000370826,0,0,0,0,0,0,0,0.158268,-34.7722,0.211195,27.3001,0.550839,3.24547,-0.00996382,
0.0957394,-0.0182254,-0.0902435,-1.8062,0.0240552,0.277284,-0.00772844,-0.00184017,0.00704454,-0.0018455,-0.0091806,0.0360591,-0.00519972,-0.000359474,-1.03129,-1.07363,-1.01448,2.67181,23.8232,-16.9717,-0.133176,0.495349,0.206279,0.496474,-0.300411,3.07147,-2.14016,-0.00218396,0.0958624,-0.0182398,-0.0901227,-1.80634,0.0215775,0.278766,-0.00770235,-0.000759498,0.000735673,-0.00112155,0.00246958,0.00354129,-0.000638161,-0.000370826,0,0,0,0,0,0,0,0.158268,-34.7722,0.211195,27.3001,0.550839,3.24547,-0.00996382,
0.0956762,-0.0182333,-0.0903062,-1.80615,0.0258725,0.276153,-0.00773389,-0.0030506,0.00543967,-0.00304445,-0.00615294,0.0742792,-0.0324384,-0.000423863,-0.756513,-1.00305,-0.749344,1.89229,23.8875,-17.0242,-0.0402427,0.490628,0.223247,0.492764,-0.289656,3.04587,-2.11668,-0.00214898,0.0958506,-0.0175994,-0.090137,-1.80673,0.0215878,0.279019,-0.00770541,-0.00398625,0.0759236,-0.00228107,-0.019692,0.00672326,0.0380973,-0.000637468,-0.403344,9.39849,-0.14494,-2.7702,0.397747,4.84193,-0.0333302,0.285221,-25.338,0.361952,18.0603,0.447384,1.50139,0.017502,
0.0956243,-0.0182457,-0.0903579,-1.80612,0.0278675,0.274875,-0.00773704,-0.00373924,0.00404065,-0.00372937,-0.00409192,0.109298,-0.0579059,-0.000417996,-0.430405,-0.874382,-0.428075,1.28813,21.8869,-15.9172,0.00366652,0.484473,0.220108,0.486551,-0.28684,3.01982,-2.09885,-0.00210868,0.0958506,-0.0175994,-0.090137,-1.80673,0.0215878,0.279019,-0.00770541,-0.00398625,0.0759236,-0.00228107,-0.019692,0.00672326,0.0380973,-0.000637468,0,0,0,0,0,0,0,0.285221,-25.338,0.361952,18.0603,0.447384,1.50139,0.017502,
0.0955855,-0.0182592,-0.0903966,-1.8061,0.0299641,0.273499,-0.00773901,-0.00396044,0.00289425,-0.00395029,-0.00273938,0.139854,-0.0807233,-0.000383475,-0.138248,-0.716504,-0.138075,0.845339,19.0974,-14.2609,0.0215761,0.478296,0.21681,0.48033,-0.284126,2.99396,-2.08094,-0.00208221,0.0958506,-0.0175994,-0.090137,-1.80673,0.0215878,0.279019,-0.00770541,-0.00398625,0.0759236,-0.00228107,-0.019692,0.00672326,0.0380973,-0.000637468,0,0,0,0,0,0,0,0.285221,-25.338,0.361952,18.0603,0.447384,1.50139,0.017502,
0.0955381,-0.0167531,-0.0904383,-1.80637,0.0300563,0.271431,-0.00779147,-0.00726637,0.0108812,-0.00713839,0.00214684,0.241687,-0.182389,-0.00110448,-2.06621,4.99184,-1.99256,3.05389,63.6458,-63.5408,-0.450627,4.11084,1.75108,4.13682,-1.91269,10.9161,-11.0401,-0.00524006,0.0958506,-0.0175994,-0.090137,-1.80673,0.0215878,0.279019,-0.00770541,-0.00398625,0.0759236,-0.00228107,-0.019692,0.00672326,0.0380973,-0.000637468,0,0,0,0,0,0,0,0.285221,-25.338,0.361952,18.0603,0.447384,1.50139,0.017502,
0.0954056,-0.0165261,-0.090567,-1.80627,0.0363885,0.265568,-0.00780864,-0.00912441,0.0143794,-0.00893028,0.0044267,0.351657,-0.292481,-0.00131272,-1.16128,2.1864,-1.11993,1.42491,68.7307,-68.808,-0.13015,3.98638,1.75247,4.01498,-1.8798,10.916,-10.8597,-0.00479355,0.0958761,-0.0171147,-0.0901081,-1.8075,0.0215889,0.279301,-0.00770235,-0.00252192,0.0181618,-0.00204376,-0.0242348,0.0161171,-0.0194685,0.00129454,0.183042,-7.22023,0.0296642,-0.567846,1.17423,-7.19572,0.241501,-0.0956386,-36.8153,-0.0625476,27.0779,0.575558,3.16582,-0.00996382,
0.0953261,-0.0163693,-0.0906436,-1.80622,0.0433403,0.258973,-0.00781683,-0.00928786,0.0154231,-0.00905861,0.00469873,0.45512,-0.398856,-0.00125496,-0.102155,0.652324,-0.0802067,0.17002,64.6648,-66.484,0.0360983,3.86165,1.72489,3.89092,-1.8518,10.8872,-10.6778,-0.00493758,0.0958761,-0.0171147,-0.0901081,-1.8075,0.0215889,0.279301,-0.00770235,-0.00252192,0.0181618,-0.00204376,-0.0242348,0.0161171,-0.0194685,0.00129454,0,0,0,0,0,0,0,-0.0956386,-36.8153,-0.0625476,27.0779,0.575558,3.16582,-0.00996382,
0.0953039,-0.0162509,-0.0906633,-1.80622,0.0506082,0.251924,-0.00782051,-0.00798633,0.0152986,-0.00773802,0.0036368,0.545794,-0.495315,-0.00109585,0.813459,-0.0778446,0.82537,-0.663707,56.6709,-60.2868,0.0994446,3.74205,1.68542,3.77156,-1.82742,10.6394,-10.4994,-0.00531108,0.0958761,-0.0171147,-0.0901081,-1.8075,0.0215889,0.279301,-0.00770235,-0.00252192,0.0181618,-0.00204376,-0.0242348,0.0161171,-0.0194685,0.00129454,0,0,0,0,0,0,0,-0.0956386,-36.8153,-0.0625476,27.0779,0.575558,3.16582,-0.00996382,
0.0966804,-0.0169267,-0.0892697,-1.80753,0.0283759,0.269444,-0.00755542,0.00681651,0.0140376,0.0075075,0.00218432,0.542471,-0.548288,0.000733677,9.25178,-0.788113,9.52845,-0.907798,-2.07681,-33.108,1.14345,25.4589,4.53869,25.6392,-10.7557,10.916,-14.3949,0.119044,0.0958761,-0.0171147,-0.0901081,-1.8075,0.0215889,0.279301,-0.00770235,-0.00252192,0.0181618,-0.00204376,-0.0242348,0.0161171,-0.0194685,0.00129454,0,0,0,0,0,0,0,-0.0956386,-36.8153,-0.0625476,27.0779,0.575558,3.16582,-0.00996382,
0.0974175,-0.0168998,-0.0885095,-1.80764,0.0337778,0.261819,-0.00748604,0.0238799,0.0119035,0.025012,-0.00109496,0.569025,-0.629261,0.00232137,10.6646,-1.33379,10.9403,-2.04955,16.5962,-50.6081,0.992308,23.9167,4.56731,24.1647,-9.17673,10.916,-14.3949,0.0831001,0.0958761,-0.0171147,-0.0901081,-1.8075,0.0215889,0.279301,-0.00770235,-0.00252192,0.0181618,-0.00204376,-0.0242348,0.0161171,-0.0194685,0.00129454,0,0,0,0,0,0,0,-0.0956386,-36.8153,-0.0625476,27.0779,0.575558,3.16582,-0.00996382,
0.0983248,-0.0169816,-0.0875828,-1.80793,0.0400091,0.253182,-0.00732597,0.0417884,0.00747832,0.0431775,-0.00811102,0.611002,-0.71932,0.00585897,11.1928,-2.76577,11.3535,-4.38503,26.2358,-56.2871,2.211,22.7911,3.30623,23.0843,-8.08152,10.9059,-14.385,0.0850912,0.0958509,-0.0167082,-0.0900154,-1.80811,0.0237292,0.277901,-0.00769834,0.00040039,0.0231929,0.00445376,-0.0409503,0.14391,-0.142541,0.00108778,0.365289,0.628891,0.81219,-2.08945,15.9741,-15.384,-0.0258453,1.27307,-32.2768,1.46089,22.5671,1.39404,1.64696,-0.0026396,
0.099344,-0.0172591,-0.0865647,-1.80851,0.0468998,0.243918,-0.00716949,0.058911,-0.000954652,0.0599933,-0.0210089,0.661068,-0.80707,0.00859922,10.7016,-5.27061,10.5099,-8.06116,31.2914,-54.8438,1.71266,21.8404,0.0309848,22.0816,-8.45504,10.9059,-14.385,0.201072,0.0958509,-0.0167082,-0.0900154,-1.80811,0.0237292,0.277901,-0.00769834,0.00040039,0.0231929,0.00445376,-0.0409503,0.14391,-0.142541,0.00108778,0,0,0,0,0,0,0,1.27307,-32.2768,1.46089,22.5671,1.39404,1.64696,-0.0026396,
0.0970853,-0.0163426,-0.0887638,-1.80875,0.0310862,0.267278,-0.00750044,0.0666548,0.00373994,0.0677616,-0.0258545,0.638352,-0.804166,0.00886403,4.83984,2.93412,4.85518,-3.02849,-14.1979,1.81474,0.165505,31.6552,8.452,31.7627,-15.4769,10.9059,-14.385,0.142661,0.0958509,-0.0167082,-0.0900154,-1.80811,0.0237292,0.277901,-0.00769834,0.00040039,0.0231929,0.00445376,-0.0409503,0.14391,-0.142541,0.00108778,0,0,0,0,0,0,0,1.27307,-32.2768,1.46089,22.5671,1.39404,1.64696,-0.0026396,
0.0981143,-0.0162091,-0.0877213,-1.80928,0.0365223,0.259571,-0.00736087,0.0790485,0.00633088,0.0802715,-0.0339432,0.646585,-0.835988,0.0105806,7.74609,1.61934,7.81868,-5.05546,5.14619,-19.8884,1.07288,29.405,8.01279,29.5349,-14.1386,10.9059,-14.385,0.0885151,0.0958509,-0.0167082,-0.0900154,-1.80811,0.0237292,0.277901,-0.00769834,0.00040039,0.0231929,0.00445376,-0.0409503,0.14391,-0.142541,0.00108778,0,0,0,0,0,0,0,1.27307,-32.2768,1.46089,22.5671,1.39404,1.64696,-0.0026396,
0.0993035,-0.0161931,-0.0865143,-1.81008,0.0428058,0.250981,-0.00722422,0.0929682,0.00546427,0.0943936,-0.0471052,0.674355,-0.883551,0.0118806,8.6998,-0.541629,8.82631,-8.22628,17.3561,-29.727,0.812493,27.6708,5.92903,27.8446,-14.0993,10.8131,-14.3005,0.170551,0.0963085,-0.0166719,-0.0887886,-1.81063,0.0399715,0.261229,-0.00769369,0.0380777,-0.0236225,0.0803022,-0.113416,0.643621,-0.681206,-0.00446347,4.70967,-5.85192,9.48105,-9.05815,62.4639,-67.3332,-0.693905,11.6198,-31.5508,11.6608,24.039,4.28894,-0.163034,-0.083206,
0.100577,-0.0162055,-0.0852223,-1.811,0.0497711,0.241681,-0.0071845,0.106226,0.00406067,0.107814,-0.0607596,0.713617,-0.939343,0.0104974,8.28589,-0.877251,8.38796,-8.534,24.5388,-34.8699,-0.864495,25.0255,2.41914,25.2451,-15.7817,10.8131,-14.3005,0.16894,0.0963085,-0.0166719,-0.0887886,-1.81063,0.0399715,0.261229,-0.00769369,0.0380777,-0.0236225,0.0803022,-0.113416,0.643621,-0.681206,-0.00446347,0,0,0,0,0,0,0,11.6198,-31.5508,11.6608,24.039,4.28894,-0.163034,-0.083206,
0.0986662,-0.016839,-0.0864311,-1.81284,0.0512917,0.246097,-0.00738732,0.118773,0.00180906,0.120002,-0.0779539,0.718912,-0.954249,0.012262,7.84238,-1.40726,7.61743,-10.7464,3.30919,-9.31626,1.10283,37.2649,7.96394,37.2788,-23.324,10.8131,-14.3005,0.152492,0.0963085,-0.0166719,-0.0887886,-1.81063,0.0399715,0.261229,-0.00769369,0.0380777,-0.0236225,0.0803022,-0.113416,0.643621,-0.681206,-0.00446347,0,0,0,0,0,0,0,11.6198,-31.5508,11.6608,24.039,4.28894,-0.163034,-0.083206,
0.100219,-0.0169198,-0.0848799,-1.81423,0.0578179,0.237261,-0.007267,0.133848,-0.000570677,0.134782,-0.0971731,0.738286,-0.984295,0.0128177,9.42171,-1.48734,9.23708,-12.012,12.1085,-18.7788,0.347361,34.0298,6.3078,34.0326,-22.6543,10.8131,-14.3005,0.168012,0.0963085,-0.0166719,-0.0887886,-1.81063,0.0399715,0.261229,-0.00769369,0.0380777,-0.0236225,0.0803022,-0.113416,0.643621,-0.681206,-0.00446347,0,0,0,0,0,0,0,11.6198,-31.5508,11.6608,24.039,4.28894,-0.163034,-0.083206,
0.101868,-0.0169724,-0.0832322,-1.81572,0.0649215,0.227831,-0.0072598,0.14829,-0.00177378,0.149017,-0.115144,0.768218,-1.02319,0.0104342,9.02608,-0.751938,8.89739,-11.2318,18.7076,-24.3064,-1.48973,30.4615,3.47154,30.4461,-23.507,10.7489,-14.1075,0.13846,0.0996815,-0.0177386,-0.0832469,-1.8156,0.0633054,0.230808,-0.00770386,0.0880262,-0.0164303,0.146453,-0.163983,0.668639,-0.960084,-0.00055754,6.24356,0.899027,8.2688,-6.32094,3.12727,-34.8597,0.488241,7.58899,-32.0982,7.78871,25.3085,2.20611,1.46203,0.017502,
0.103561,-0.0169716,-0.081539,-1.81726,0.072482,0.21794,-0.00729254,0.160959,-0.00139684,0.161544,-0.130475,0.803588,-1.06583,0.00752883,7.91851,0.235584,7.82923,-9.58184,22.1065,-26.6558,-1.81584,26.9173,3.01503,26.9099,-23.1366,10.7489,-14.1075,0.00187928,0.0996815,-0.0177386,-0.0832469,-1.8156,0.0633054,0.230808,-0.00770386,0.0880262,-0.0164303,0.146453,-0.163983,0.668639,-0.960084,-0.00055754,0,0,0,0,0,0,0,7.58899,-32.0982,7.78871,25.3085,2.20611,1.46203,0.017502,
0.102688,-0.0178412,-0.0802038,-1.81907,0.0753003,0.213556,-0.00746575,0.16956,-0.00210381,0.170424,-0.150801,0.800044,-1.07524,0.00824355,5.37504,-0.441856,5.54977,-12.7036,-2.21532,-5.87874,0.4467,38.137,8.82686,38.3709,-29.3433,10.7489,-14.1075,0.155932,0.0996815,-0.0177386,-0.0832469,-1.8156,0.0633054,0.230808,-0.00770386,0.0880262,-0.0164303,0.146453,-0.163983,0.668639,-0.960084,-0.00055754,0,0,0,0,0,0,0,7.58899,-32.0982,7.78871,25.3085,2.20611,1.46203,0.017502,
0.104442,-0.0178247,-0.0784341,-1.82104,0.0821905,0.204149,-0.00750724,0.179492,-0.00127111,0.180581,-0.170016,0.812289,-1.09537,0.00555757,6.20789,0.520441,6.3484,-12.0096,7.65367,-12.5828,-1.67874,33.5426,5.77145,33.7589,-29.9571,10.7489,-14.1075,0.0915403,0.0996815,-0.0177386,-0.0832469,-1.8156,0.0633054,0.230808,-0.00770386,0.0880262,-0.0164303,0.146453,-0.163983,0.668639,-0.960084,-0.00055754,0,0,0,0,0,0,0,7.58899,-32.0982,7.78871,25.3085,2.20611,1.46203,0.017502,
0.106253,-0.0177461,-0.0766075,-1.82307,0.0895789,0.194332,-0.00759793,0.188861,0.000948554,0.19013,-0.186724,0.834542,-1.12174,0.00217885,5.85522,1.38729,5.96796,-10.4424,13.908,-16.4772,-2.1117,29.5566,4.91836,29.766,-29.274,10.7664,-13.8129,-0.0636483,0.105043,-0.0179216,-0.0747025,-1.82231,0.0872139,0.19591,-0.00770459,0.195638,0.00466914,0.290754,-0.204334,0.63178,-1.02512,-0.00406428,13.4515,2.63743,18.0377,-5.04391,-4.60747,-8.12924,-0.438342,5.78785,-32.1736,5.813,22.1188,2.15118,-0.142893,0.0101778,
0.108083,-0.0176264,-0.0747611,-1.82514,0.0973478,0.184212,-0.00770926,0.196852,0.00375195,0.198265,-0.201106,0.861855,-1.15039,-0.00104013,4.99484,1.75212,5.08456,-8.98863,17.0704,-17.9072,-2.01186,27.0478,4.4451,27.2508,-28.5639,10.7664,-13.8129,-0.116503,0.105043,-0.0179216,-0.0747025,-1.82231,0.0872139,0.19591,-0.00770459,0.195638,0.00466914,0.290754,-0.204334,0.63178,-1.02512,-0.00406428,0,0,0,0,0,0,0,5.78785,-32.1736,5.813,22.1188,2.15118,-0.142893,0.0101778,
0.109223,-0.0180185,-0.0704952,-1.82695,0.100261,0.178397,-0.00777232,0.210157,0.00212634,0.211522,-0.22151,0.863019,-1.14572,-0.00340309,8.31524,-1.016,8.28566,-12.7529,0.727525,2.91537,-1.47685,35.5259,6.02043,35.6358,-36.3252,10.7664,-13.8129,0.0488925,0.105043,-0.0179216,-0.0747025,-1.82231,0.0872139,0.19591,-0.00770459,0.195638,0.00466914,0.290754,-0.204334,0.63178,-1.02512,-0.00406428,0,0,0,0,0,0,0,5.78785,-32.1736,5.813,22.1188,2.15118,-0.142893,0.0101778,
0.111315,-0.0180078,-0.0683941,-1.82947,0.107807,0.168912,-0.00792952,0.220419,0.00196822,0.221745,-0.240101,0.879057,-1.15371,-0.00665252,6.41424,-0.0988253,6.38947,-11.6191,10.0237,-4.98999,-2.03089,30.6979,4.56469,30.804,-35.878,10.7664,-13.8129,-0.127646,0.105043,-0.0179216,-0.0747025,-1.82231,0.0872139,0.19591,-0.00770459,0.195638,0.00466914,0.290754,-0.204334,0.63178,-1.02512,-0.00406428,0,0,0,0,0,0,0,5.78785,-32.1736,5.813,22.1188,2.15118,-0.142893,0.0101778,
0.113371,-0.0179711,-0.066329,-1.83206,0.115773,0.159199,-0.00810739,0.227732,0.00249064,0.229025,-0.2569,0.902388,-1.16579,-0.00976857,4.57066,0.326516,4.54978,-10.4992,14.5818,-7.551,-1.94754,27.9317,3.59656,28.0446,-35.0112,10.7802,-13.5466,-0.19179,0.112388,-0.0179211,-0.0621225,-1.83206,0.10633,0.159831,-0.00770174,0.200803,0.00273577,0.395003,-0.311356,0.523139,-1.07109,0.000754392,0.64557,-0.24167,13.0311,-13.3778,-13.58,-5.74683,0.602334,4.2168,-30.5788,3.98805,20.2264,1.79687,-0.242685,-0.0026396,
0.115382,-0.0179208,-0.0643087,-1.83472,0.124017,0.14952,-0.00828604,0.232464,0.00325181,0.233726,-0.272014,0.928027,-1.17462,-0.0122811,2.95703,0.475726,2.93815,-9.44633,16.0246,-5.51679,-1.57035,25.8834,2.57452,25.9934,-34.5015,10.7802,-13.0698,-0.216379,0.112388,-0.0179211,-0.0621225,-1.83206,0.10633,0.159831,-0.00770174,0.200803,0.00273577,0.395003,-0.311356,0.523139,-1.07109,0.000754392,0,0,0,0,0,0,0,4.2168,-30.5788,3.98805,20.2264,1.79687,-0.242685,-0.0026396,
0.116841,-0.0178242,-0.0576189,-1.83797,0.119225,0.142469,-0.00813683,0.240595,0.00442317,0.242012,-0.293393,0.917162,-1.15752,-0.0158431,5.08186,0.732105,5.17841,-13.3617,-6.79026,10.6824,-2.22626,30.1377,5.71687,30.3145,-41.279,10.7802,-12.4961,-0.226716,0.112388,-0.0179211,-0.0621225,-1.83206,0.10633,0.159831,-0.00770174,0.200803,0.00273577,0.395003,-0.311356,0.523139,-1.07109,0.000754392,0,0,0,0,0,0,0,4.2168,-30.5788,3.98805,20.2264,1.79687,-0.242685,-0.0026396,
0.118944,-0.0177189,-0.0554999,-1.8411,0.126892,0.133928,-0.008389,0.245066,0.00616973,0.246585,-0.313042,0.925414,-1.13955,-0.0189788,2.79467,1.0916,2.85824,-12.2811,5.15726,11.2334,-1.95981,27.1854,4.41306,27.3611,-40.6178,10.7802,-11.7604,-0.284876,0.112388,-0.0179211,-0.0621225,-1.83206,0.10633,0.159831,-0.00770174,0.200803,0.00273577,0.395003,-0.311356,0.523139,-1.07109,0.000754392,0,0,0,0,0,0,0,4.2168,-30.5788,3.98805,20.2264,1.79687,-0.242685,-0.0026396,
0.120976,-0.0175955,-0.0534535,-1.84431,0.134974,0.125802,-0.00863375,0.246838,0.00802206,0.248426,-0.330562,0.942376,-1.11478,-0.0213019,1.10737,1.15771,1.15103,-10.9496,10.601,15.4824,-1.45191,25.2139,3.11292,25.3954,-39.8673,10.7556,-10.4017,-0.304082,0.119664,-0.0178587,-0.0479477,-1.84487,0.124058,0.122852,-0.00770305,0.217515,0.00477723,0.420367,-0.406821,0.505168,-1.0729,0.000661228,2.08902,0.255182,3.17055,-11.9331,-2.2464,-0.225882,-0.0116455,1.57856,-30.7533,1.3141,21.9958,1.76025,0.593191,-0.0026396,
0.122941,-0.0174607,-0.0514736,-1.84754,0.143299,0.1182,-0.00886146,0.246604,0.00978773,0.248239,-0.345398,0.962043,-1.08188,-0.0227342,-0.146483,1.10354,-0.116873,-9.27274,12.2921,20.5642,-0.895214,23.6991,2.16449,23.8774,-39.2966,10.7556,-9.08417,-0.29736,0.119664,-0.0178587,-0.0479477,-1.84487,0.124058,0.122852,-0.00770305,0.217515,0.00477723,0.420367,-0.406821,0.505168,-1.0729,0.000661228,0,0,0,0,0,0,0,1.57856,-30.7533,1.3141,21.9958,1.76025,0.593191,-0.0026396,
0.124205,-0.0174808,-0.0433539,-1.85131,0.136905,0.105373,-0.0082047,0.252349,0.0130032,0.254087,-0.357232,0.944241,-1.08183,-0.0246526,3.59104,2.0097,3.65455,-7.39611,-11.1261,0.0313496,-1.19898,27.2599,4.32755,27.4451,-40.4149,10.7556,-11.492,-0.286369,0.119664,-0.0178587,-0.0479477,-1.84487,0.124058,0.122852,-0.00770305,0.217515,0.00477723,0.420367,-0.406821,0.505168,-1.0729,0.000661228,0,0,0,0,0,0,0,1.57856,-30.7533,1.3141,21.9958,1.76025,0.593191,-0.0026396,
0.126298,-0.0172697,-0.0412445,-1.85459,0.144564,0.0971706,-0.00845366,0.254212,0.0156818,0.256005,-0.367789,0.946887,-1.07052,-0.0259461,1.164,1.67407,1.1987,-6.59846,1.6534,7.06393,-0.80844,25.2139,3.11292,25.3954,-39.8673,10.7556,-10.4017,-0.304082,0.119664,-0.0178587,-0.0479477,-1.84487,0.124058,0.122852,-0.00770305,0.217515,0.00477723,0.420367,-0.406821,0.505168,-1.0729,0.000661228,0,0,0,0,0,0,0,1.57856,-30.7533,1.3141,21.9958,1.76025,0.593191,-0.0026396,
0.128303,-0.0170641,-0.0392242,-1.85788,0.152621,0.0895295,-0.00868412,0.253489,0.017685,0.255311,-0.376588,0.95893,-1.04745,-0.0265183,-0.451979,1.25201,-0.433203,-5.49906,7.5269,14.4233,-0.357609,23.6616,1.92739,23.8491,-39.0704,10.6561,-8.8317,-0.298952,0.126633,-0.0172608,-0.0337786,-1.86074,0.142396,0.0865117,-0.00769759,0.190687,0.0320448,0.398429,-0.467007,0.542817,-0.990957,0.0019311,-3.35351,3.40845,-2.74219,-7.52327,4.70609,10.2429,0.158734,-3.06317,-32.5505,-3.28795,23.7653,1.05804,1.77331,-0.0227812,
0.130231,-0.0168683,-0.0372805,-1.86116,0.160904,0.0824707,-0.0088917,0.251006,0.0190423,0.252842,-0.383224,0.974218,-1.01443,-0.026404,-1.55154,0.848301,-1.5432,-4.14774,9.55544,20.6364,0.0714021,22.459,1.20599,22.6434,-38.4871,10.6561,-7.74822,-0.279097,0.126633,-0.0172608,-0.0337786,-1.86074,0.142396,0.0865117,-0.00769759,0.190687,0.0320448,0.398429,-0.467007,0.542817,-0.990957,0.0019311,0,0,0,0,0,0,0,-3.06317,-32.5505,-3.28795,23.7653,1.05804,1.77331,-0.0227812,
0.130849,-0.0165097,-0.029508,-1.86756,0.155197,0.0702427,-0.0081992,0.252095,0.0244419,0.253997,-0.3912,0.951796,-1.01133,-0.0273891,0.680745,3.3748,0.721615,-4.98501,-14.0138,1.93532,-0.615669,25.1763,2.87582,25.3671,-39.6411,10.6561,-10.1493,-0.305674,0.126633,-0.0172608,-0.0337786,-1.86074,0.142396,0.0865117,-0.00769759,0.190687,0.0320448,0.398429,-0.467007,0.542817,-0.990957,0.0019311,0,0,0,0,0,0,0,-3.06317,-32.5505,-3.28795,23.7653,1.05804,1.77331,-0.0227812,
0.132809,-0.0161807,-0.0275316,-1.87092,0.162704,0.0627498,-0.00843094,0.250678,0.027778,0.252609,-0.397077,0.949109,-0.996388,-0.0277047,-0.885612,2.08503,-0.867719,-3.67287,-1.67964,9.3397,-0.197267,23.6616,1.92739,23.8491,-39.0704,10.6561,-8.8317,-0.298952,0.126633,-0.0172608,-0.0337786,-1.86074,0.142396,0.0865117,-0.00769759,0.190687,0.0320448,0.398429,-0.467007,0.542817,-0.990957,0.0019311,0,0,0,0,0,0,0,-3.06317,-32.5505,-3.28795,23.7653,1.05804,1.77331,-0.0227812,
0.134695,-0.0158922,-0.0256299,-1.87425,0.170581,0.0558136,-0.00863931,0.247691,0.0294363,0.24963,-0.400888,0.956194,-0.970516,-0.027373,-1.86704,1.03647,-1.86165,-2.38199,4.42803,16.17,0.20737,22.459,1.20599,22.6434,-38.4871,10.6561,-7.74822,-0.279097,0.126633,-0.0172608,-0.0337786,-1.86074,0.142396,0.0865117,-0.00769759,0.190687,0.0320448,0.398429,-0.467007,0.542817,-0.990957,0.0019311,0,0,0,0,0,0,0,-3.06317,-32.5505,-3.28795,23.7653,1.05804,1.77331,-0.0227812,
0.136518,-0.0156425,-0.0237917,-1.87754,0.178678,0.0495416,-0.00881962,0.243723,0.0297908,0.245658,-0.402987,0.967395,-0.933214,-0.0264061,-2.47971,0.221508,-2.48246,-1.31186,7.001,23.3137,0.604269,21.3912,0.513408,21.5799,-37.663,10.5282,-6.63197,-0.253879,0.13315,-0.0159575,-0.0202262,-1.87733,0.165393,0.0560386,-0.00770401,0.183835,0.0638358,0.380625,-0.512199,0.774982,-0.884889,0.000635957,-0.856519,3.97387,-2.22555,-5.64895,29.0207,13.2584,-0.161893,-8.79589,-35.7958,-9.03655,30.6406,0.17181,3.22533,0.0440523,
0.138283,-0.0154266,-0.0220121,-1.88079,0.186906,0.0439821,-0.00897512,0.239096,0.0292308,0.241017,-0.403474,0.979604,-0.885557,-0.0250124,-2.89231,-0.349964,-2.9005,-0.304498,7.63035,29.7856,0.871092,20.5022,0.169938,20.687,-37.0168,10.5282,-5.54239,-0.220047,0.13315,-0.0159575,-0.0202262,-1.87733,0.165393,0.0560386,-0.00770401,0.183835,0.0638358,0.380625,-0.512199,0.774982,-0.884889,0.000635957,0,0,0,0,0,0,0,-8.79589,-35.7958,-9.03655,30.6406,0.17181,3.22533,0.0440523,
0.137269,-0.0148426,-0.0160553,-1.88441,0.179909,0.04136,-0.00817631,0.241568,0.0364107,0.24353,-0.409528,0.971839,-0.888519,-0.0258207,1.54511,4.48742,1.57043,-3.78388,-4.85289,-1.85143,-0.505199,23.6056,1.757,23.801,-38.8531,10.5282,-8.56754,-0.300692,0.13315,-0.0159575,-0.0202262,-1.87733,0.165393,0.0560386,-0.00770401,0.183835,0.0638358,0.380625,-0.512199,0.774982,-0.884889,0.000635957,0,0,0,0,0,0,0,-8.79589,-35.7958,-9.03655,30.6406,0.17181,3.22533,0.0440523,
0.139195,-0.0144091,-0.0141123,-1.8878,0.18777,0.034619,-0.00838606,0.241422,0.0399645,0.243398,-0.412495,0.973994,-0.87934,-0.0259002,-0.0909018,2.22115,-0.0823615,-1.85412,1.3467,5.73719,-0.0496748,22.403,1.0356,22.5953,-38.2698,10.5282,-7.48406,-0.280837,0.13315,-0.0159575,-0.0202262,-1.87733,0.165393,0.0560386,-0.00770401,0.183835,0.0638358,0.380625,-0.512199,0.774982,-0.884889,0.000635957,0,0,0,0,0,0,0,-8.79589,-35.7958,-9.03655,30.6406,0.17181,3.22533,0.0440523,
0.14105,-0.0140544,-0.0122416,-1.89114,0.195833,0.0284959,-0.00856768,0.239514,0.0408399,0.241487,-0.413407,0.980777,-0.856549,-0.0252606,-1.19308,0.54708,-1.19427,-0.570074,4.2391,14.2446,0.399764,21.3165,0.00949458,21.5111,-37.3668,10.3534,-6.47641,-0.255383,0.13789,-0.0144542,-0.00793483,-1.89336,0.192482,0.0303556,-0.00770006,0.112689,0.0484055,0.351133,-0.456889,0.73599,-0.64915,0.00269714,-8.89317,-1.92878,-3.68646,6.91369,-4.87404,29.4675,0.257648,-8.94665,-36.9185,-9.23491,33.9294,0.306393,4.08776,-0.0301054,
0.142841,-0.0137641,-0.0104361,-1.89441,0.204015,0.0230623,-0.00872433,0.236365,0.0399293,0.238326,-0.412596,0.989168,-0.821079,-0.0241249,-1.96756,-0.569107,-1.9756,0.507026,5.24459,22.1685,0.709782,20.4274,-0.333975,20.6183,-36.7206,10.3534,-5.38683,-0.221551,0.13789,-0.0144542,-0.00793483,-1.89336,0.192482,0.0303556,-0.00770006,0.112689,0.0484055,0.351133,-0.456889,0.73599,-0.64915,0.00269714,0,0,0,0,0,0,0,-8.94665,-36.9185,-9.23491,33.9294,0.306393,4.08776,-0.0301054,
0.1414,-0.0137062,-0.0043691,-1.89996,0.206286,0.0190284,-0.00812858,0.232505,0.0404403,0.234495,-0.411531,0.970465,-0.797906,-0.0245032,-2.41297,0.319374,-2.39437,0.665569,-11.6892,14.4828,-0.236407,22.3283,0.53169,22.5265,-37.9736,10.3534,-7.3285,-0.282341,0.13789,-0.0144542,-0.00793483,-1.89336,0.192482,0.0303556,-0.00770006,0.112689,0.0484055,0.351133,-0.456889,0.73599,-0.64915,0.00269714,0,0,0,0,0,0,0,-8.94665,-36.9185,-9.23491,33.9294,0.306393,4.08776,-0.0301054,
0.143098,-0.0134375,-0.00265509,-1.90318,0.213802,0.0137332,-0.00830909,0.228451,0.0390695,0.230447,-0.409654,0.964256,-0.770704,-0.0241154,-2.53369,-0.856755,-2.53052,1.17317,-3.88104,17.0013,0.242338,21.3165,0.00949458,21.5111,-37.3668,10.3534,-6.47641,-0.255383,0.13789,-0.0144542,-0.00793483,-1.89336,0.192482,0.0303556,-0.00770006,0.112689,0.0484055,0.351133,-0.456889,0.73599,-0.64915,0.00269714,0,0,0,0,0,0,0,-8.94665,-36.9185,-9.23491,33.9294,0.306393,4.08776,-0.0301054,
0.14476,-0.0132264,-0.000977837,-1.90635,0.221548,0.00893827,-0.00846474,0.224301,0.0365341,0.226289,-0.407113,0.965049,-0.736437,-0.0231836,-2.59374,-1.58463,-2.59875,1.58811,0.496121,21.4174,0.582397,20.3964,-0.664006,20.5903,-36.4832,10.2276,-5.2402,-0.222662,0.140932,-0.0126614,0.00375385,-1.90778,0.217512,0.011724,-0.00770071,0.0725967,0.0205881,0.341297,-0.424219,0.692963,-0.472289,0.000971911,-5.0116,-3.47718,-1.22958,4.08381,-5.3784,22.1076,-0.215654,-2.60693,-36.4186,-3.01024,33.4772,1.63208,3.56316,0.017502,
0.146392,-0.0130687,0.000669531,-1.90954,0.229448,0.00517155,-0.00859691,0.220244,0.0331708,0.222215,-0.405306,0.969546,-0.683317,-0.0218511,-2.53568,-2.10207,-2.54595,1.12955,2.81047,33.1996,0.832827,19.5333,-0.904978,19.7231,-35.826,10.2276,-4.22793,-0.192302,0.140932,-0.0126614,0.00375385,-1.90778,0.217512,0.011724,-0.00770071,0.0725967,0.0205881,0.341297,-0.424219,0.692963,-0.472289,0.000971911,0,0,0,0,0,0,0,-2.60693,-36.4186,-3.01024,33.4772,1.63208,3.56316,0.017502,
0.144109,-0.0122908,0.00698938,-1.91402,0.230777,0.0029562,-0.0080804,0.215755,0.0306784,0.217748,-0.401646,0.948529,-0.656275,-0.0219896,-2.80519,-1.55769,-2.79192,2.28746,-13.1358,16.9013,-0.0865619,21.2854,-0.320536,21.4831,-37.1294,10.2276,-6.32978,-0.256494,0.140932,-0.0126614,0.00375385,-1.90778,0.217512,0.011724,-0.00770071,0.0725967,0.0205881,0.341297,-0.424219,0.692963,-0.472289,0.000971911,0,0,0,0,0,0,0,-2.60693,-36.4186,-3.01024,33.4772,1.63208,3.56316,0.017502,
0.145672,-0.012167,0.00856737,-1.9171,0.238075,-0.00115289,-0.00823595,0.211657,0.027638,0.213648,-0.398077,0.941268,-0.627747,-0.0214804,-2.56147,-1.90027,-2.56255,2.23031,-4.53798,17.8299,0.318218,20.3964,-0.664006,20.5903,-36.4832,10.2276,-5.2402,-0.222662,0.140932,-0.0126614,0.00375385,-1.90778,0.217512,0.011724,-0.00770071,0.0725967,0.0205881,0.341297,-0.424219,0.692963,-0.472289,0.000971911,0,0,0,0,0,0,0,-2.60693,-36.4186,-3.01024,33.4772,1.63208,3.56316,0.017502,
0.14722,-0.0120851,0.0101317,-1.92019,0.245633,-0.00439089,-0.00836784,0.208048,0.0241584,0.210027,-0.395888,0.94197,-0.583148,-0.0204815,-2.25578,-2.17476,-2.26315,1.36798,0.438886,27.8746,0.624324,19.482,-1.22547,19.6728,-35.6347,10.1101,-4.13718,-0.192891,0.142592,-0.011113,0.0137407,-1.92035,0.239005,-0.000580311,-0.00770062,0.0484332,-0.00156587,0.279863,-0.351899,0.554996,-0.272573,9.36679e-05,-3.02043,-2.76924,-7.67916,9.04005,-17.2458,24.9644,-0.10978,-3.41626,-37.5176,-3.71245,31.2634,1.70532,2.90673,0.017502,
0.148757,-0.012034,0.0116833,-1.92331,0.253362,-0.00646429,-0.00847935,0.20485,0.0206025,0.206811,-0.394587,0.946787,-0.518353,-0.0191731,-1.99875,-2.22242,-2.01004,0.813204,3.01029,40.4967,0.817754,18.6718,-1.36157,18.8588,-34.9225,10.1101,-1.54917,-0.165138,0.142592,-0.011113,0.0137407,-1.92035,0.239005,-0.000580311,-0.00770062,0.0484332,-0.00156587,0.279863,-0.351899,0.554996,-0.272573,9.36679e-05,0,0,0,0,0,0,0,-3.41626,-37.5176,-3.71245,31.2634,1.70532,2.90673,0.017502,
0.145219,-0.0111717,0.0164218,-1.92606,0.250883,-0.0061998,-0.00802745,0.19706,0.0155796,0.19904,-0.387462,0.915354,-0.486599,-0.019194,-4.86871,-3.13933,-4.85654,4.45303,-19.6454,19.8461,-0.0131042,20.345,-0.9845,20.5399,-36.2919,10.1101,-5.14945,-0.223251,0.142592,-0.011113,0.0137407,-1.92035,0.239005,-0.000580311,-0.00770062,0.0484332,-0.00156587,0.279863,-0.351899,0.554996,-0.272573,9.36679e-05,0,0,0,0,0,0,0,-3.41626,-37.5176,-3.71245,31.2634,1.70532,2.90673,0.017502,
0.146571,-0.011224,0.0177893,-1.929,0.257717,-0.00850479,-0.00815787,0.191439,0.0111561,0.193418,-0.383461,0.903136,-0.446904,-0.0186159,-3.51284,-2.7647,-3.51396,2.50087,-7.63621,24.8093,0.361313,19.482,-1.22547,19.6728,-35.6347,10.1101,-4.13718,-0.192891,0.142592,-0.011113,0.0137407,-1.92035,0.239005,-0.000580311,-0.00770062,0.0484332,-0.00156587,0.279863,-0.351899,0.554996,-0.272573,9.36679e-05,0,0,0,0,0,0,0,-3.41626,-37.5176,-3.71245,31.2634,1.70532,2.90673,0.017502,
0.147945,-0.0112849,0.0191784,-1.93199,0.264901,-0.0098645,-0.00826785,0.187495,0.00740268,0.189462,-0.381517,0.90212,-0.391516,-0.0176421,-2.46524,-2.34589,-2.47226,1.21499,-0.634798,34.6176,0.608673,18.6385,-1.55528,18.8263,-34.7715,10.0409,-1.48593,-0.165554,0.144483,-0.0100925,0.0227807,-1.93132,0.254438,-0.00305409,-0.00770531,0.0628507,-0.0107549,0.261872,-0.305823,0.359989,0.0295013,-0.000643872,1.80218,-1.14863,-2.24899,5.75951,-24.3759,37.7593,-0.0921925,-3.08697,-37.6167,-3.31175,28.4467,2.20611,2.00493,0.050461,
0.149333,-0.0113491,0.020582,-1.935,0.272323,-0.0101373,-0.00835995,0.184711,0.00431645,0.18666,-0.380439,0.907223,-0.320034,-0.0164162,-1.74022,-1.92889,-1.75127,0.673951,3.18883,44.6766,0.766144,17.9164,-1.82464,18.1008,-34.1982,10.0409,0.808675,-0.140844,0.144483,-0.0100925,0.0227807,-1.93132,0.254438,-0.00305409,-0.00770531,0.0628507,-0.0107549,0.261872,-0.305823,0.359989,0.0295013,-0.000643872,0,0,0,0,0,0,0,-3.08697,-37.6167,-3.31175,28.4467,2.20611,2.00493,0.050461,
0.146958,-0.0103616,0.0253063,-1.93667,0.264688,-0.00451903,-0.00799546,0.178821,-0.000120922,0.180789,-0.372941,0.867684,-0.274699,-0.0164941,-3.68076,-2.77336,-3.66987,4.68633,-24.7118,28.334,-0.0486668,19.4487,-1.41919,19.6402,-35.4838,10.0409,-4.07394,-0.193307,0.144483,-0.0100925,0.0227807,-1.93132,0.254438,-0.00305409,-0.00770531,0.0628507,-0.0107549,0.261872,-0.305823,0.359989,0.0295013,-0.000643872,0,0,0,0,0,0,0,-3.08697,-37.6167,-3.31175,28.4467,2.20611,2.00493,0.050461,
0.14822,-0.0105058,0.0265838,-1.93951,0.271087,-0.00474842,-0.00810737,0.174604,-0.00370053,0.176569,-0.369329,0.854125,-0.225494,-0.0159929,-2.63581,-2.23725,-2.63693,2.25738,-8.47412,30.7531,0.313226,18.6385,-1.55528,18.8263,-34.7715,10.0409,-1.48593,-0.165554,0.144483,-0.0100925,0.0227807,-1.93132,0.254438,-0.00305409,-0.00770531,0.0628507,-0.0107549,0.261872,-0.305823,0.359989,0.0295013,-0.000643872,0,0,0,0,0,0,0,-3.08697,-37.6167,-3.31175,28.4467,2.20611,2.00493,0.050461,
0.149504,-0.0106434,0.0278838,-1.9424,0.277965,-0.00419502,-0.00820012,0.171801,-0.00640097,0.173755,-0.367757,0.855237,-0.16656,-0.0151132,-1.75177,-1.68778,-1.75882,0.982121,0.694869,36.8338,0.549832,17.8818,-1.93929,18.0674,-34.1776,9.98824,0.814414,-0.140597,0.145629,-0.00965862,0.0303184,-1.93941,0.26378,-0.000752563,-0.00770658,0.0303173,-0.00260195,0.217019,-0.199258,0.224626,0.113727,-0.00126189,-4.06668,1.01912,-5.60654,13.3206,-16.9203,10.5282,-0.0772516,-0.932736,-33.4471,-1.13768,22.2696,1.97357,0.984122,0.0706026,
0.150808,-0.010771,0.0292019,-1.94531,0.285162,-0.00277275,-0.00827577,0.17002,-0.00831186,0.171956,-0.366869,0.864108,-0.0976917,-0.0139818,-1.11342,-1.1943,-1.12476,0.555556,5.54474,43.0429,0.707124,17.2553,-2.23154,17.4374,-33.7041,9.98824,2.67542,-0.117924,0.145629,-0.00965862,0.0303184,-1.93941,0.26378,-0.000752563,-0.00770658,0.0303173,-0.00260195,0.217019,-0.199258,0.224626,0.113727,-0.00126189,0,0,0,0,0,0,0,-0.932736,-33.4471,-1.13768,22.2696,1.97357,0.984122,0.0706026,
0.147622,-0.0101953,0.0323617,-1.94435,0.272851,0.00111105,-0.00795402,0.161578,-0.0136724,0.163539,-0.358698,0.820829,-0.0524615,-0.0140012,-5.27636,-3.35035,-5.26028,5.10634,-27.0495,28.2689,-0.0121238,18.6039,-1.66994,18.7928,-34.7509,9.98824,-1.48019,-0.165307,0.145629,-0.00965862,0.0303184,-1.93941,0.26378,-0.000752563,-0.00770658,0.0303173,-0.00260195,0.217019,-0.199258,0.224626,0.113727,-0.00126189,0,0,0,0,0,0,0,-0.932736,-33.4471,-1.13768,22.2696,1.97357,0.984122,0.0706026,
0.148699,-0.0104536,0.0334547,-1.94708,0.278873,0.00261803,-0.0080459,0.156194,-0.0173959,0.158158,-0.35526,0.807225,-0.00429458,-0.0134981,-3.3645,-2.32715,-3.36344,2.14891,-8.50257,30.1043,0.314436,17.8818,-1.93929,18.0674,-34.1776,9.98824,0.814414,-0.140597,0.145629,-0.00965862,0.0303184,-1.93941,0.26378,-0.000752563,-0.00770658,0.0303173,-0.00260195,0.217019,-0.199258,0.224626,0.113727,-0.00126189,0,0,0,0,0,0,0,-0.932736,-33.4471,-1.13768,22.2696,1.97357,0.984122,0.0706026,
0.149827,-0.0106806,0.0345981,-1.94987,0.285458,0.00475684,-0.00812012,0.153158,-0.0195912,0.155111,-0.353882,0.810392,0.0500345,-0.012654,-1.89781,-1.37206,-1.90397,0.861083,1.97912,33.9556,0.527542,17.2553,-2.23154,17.4374,-33.7041,9.98824,2.67542,-0.117924,0.145629,-0.00965862,0.0303184,-1.93941,0.26378,-0.000752563,-0.00770658,0.0303173,-0.00260195,0.217019,-0.199258,0.224626,0.113727,-0.00126189,0,0,0,0,0,0,0,-0.932736,-33.4471,-1.13768,22.2696,1.97357,0.984122,0.0706026,
0.150996,-0.0108771,0.0357823,-1.95267,0.292424,0.00757502,-0.00817825,0.151758,-0.0205855,0.153695,-0.353123,0.822488,0.110482,-0.0115764,-0.874748,-0.621451,-0.885568,0.47454,7.55996,37.7798,0.673504,16.6943,-2.46059,16.874,-33.2878,9.96036,4.11194,-0.0961561,0.146734,-0.00948736,0.0366784,-1.94536,0.26893,0.00782349,-0.00770058,0.0343841,0.0113245,0.188974,-0.161687,0.103878,0.350414,0.000347578,0.508355,1.7408,-3.50572,4.69638,-15.0935,29.5859,0.201183,1.83246,-32.4513,1.56404,23.1424,2.27295,1.17638,0.017502,
0.148515,-0.0100128,0.0385067,-1.95013,0.276974,0.0135647,-0.00791497,0.144296,-0.0236214,0.146259,-0.345942,0.77717,0.160837,-0.0116581,-4.66405,-1.89745,-4.64712,4.48791,-28.3233,31.472,-0.0510546,17.8592,-1.95487,18.0462,-34.1979,9.96036,0.795352,-0.140334,0.146734,-0.00948736,0.0366784,-1.94536,0.26893,0.00782349,-0.00770058,0.0343841,0.0113245,0.188974,-0.161687,0.103878,0.350414,0.000347578,0,0,0,0,0,0,0,1.83246,-32.4513,1.56404,23.1424,2.27295,1.17638,0.017502,
0.14949,-0.0102805,0.0394975,-1.95279,0.282705,0.0167224,-0.00799039,0.139811,-0.0255901,0.141776,-0.343245,0.765018,0.207614,-0.0112121,-2.80283,-1.23042,-2.80183,1.68602,-7.59527,29.2351,0.278794,17.2328,-2.24712,17.4163,-33.7244,9.96036,2.65636,-0.117661,0.146734,-0.00948736,0.0366784,-1.94536,0.26893,0.00782349,-0.00770058,0.0343841,0.0113245,0.188974,-0.161687,0.103878,0.350414,0.000347578,0,0,0,0,0,0,0,1.83246,-32.4513,1.56404,23.1424,2.27295,1.17638,0.017502,
0.150522,-0.0105166,0.0405455,-1.9555,0.289081,0.0202788,-0.00804844,0.137667,-0.026374,0.139621,-0.342295,0.771395,0.255,-0.0104209,-1.34025,-0.489945,-1.34695,0.593842,3.98555,29.6163,0.494458,16.6943,-2.46059,16.874,-33.2878,9.96036,4.11194,-0.0961561,0.146734,-0.00948736,0.0366784,-1.94536,0.26893,0.00782349,-0.00770058,0.0343841,0.0113245,0.188974,-0.161687,0.103878,0.350414,0.000347578,0,0,0,0,0,0,0,1.83246,-32.4513,1.56404,23.1424,2.27295,1.17638,0.017502,
0.151604,-0.0107199,0.0416419,-1.95821,0.295895,0.0242777,-0.00809091,0.137171,-0.0261832,0.139107,-0.341722,0.787471,0.303974,-0.00939834,-0.309763,0.119258,-0.32146,0.357928,10.0475,30.6088,0.639117,16.2262,-2.50857,16.4037,-32.9281,9.95295,5.19619,-0.0750424,0.147908,-0.0095068,0.0417508,-1.95035,0.27201,0.0241252,-0.00770353,0.0339074,0.0221637,0.168306,-0.146372,0.0877992,0.528628,-0.00135122,-0.0595808,1.3549,-2.58342,1.91432,-2.00985,22.2768,-0.21235,2.76874,-32.8996,2.43684,25.3085,2.5238,1.38878,0.0440523,
0.149535,-0.0099856,0.0434238,-1.95503,0.279936,0.0327398,-0.00788659,0.130762,-0.0277085,0.132723,-0.335767,0.747952,0.35017,-0.00950973,-4.00607,-0.953301,-3.98976,3.72186,-24.6994,28.8726,-0.0696209,17.2271,-2.19734,17.4121,-33.7977,9.95295,2.60036,-0.117298,0.147908,-0.0095068,0.0417508,-1.95035,0.27201,0.0241252,-0.00770353,0.0339074,0.0221637,0.168306,-0.146372,0.0877992,0.528628,-0.00135122,0,0,0,0,0,0,0,2.76874,-32.8996,2.43684,25.3085,2.5238,1.38878,0.0440523,
0.150441,-0.0102427,0.044345,-1.95764,0.285631,0.0371156,-0.00794601,0.127248,-0.028594,0.129209,-0.333775,0.740726,0.38953,-0.00909311,-2.19628,-0.553484,-2.19617,1.24514,-4.51613,24.6003,0.260387,16.6886,-2.4108,16.8699,-33.361,9.95295,4.05594,-0.0957932,0.147908,-0.0095068,0.0417508,-1.95035,0.27201,0.0241252,-0.00770353,0.0339074,0.0221637,0.168306,-0.146372,0.0877992,0.528628,-0.00135122,0,0,0,0,0,0,0,2.76874,-32.8996,2.43684,25.3085,2.5238,1.38878,0.0440523,
0.151409,-0.0104695,0.0453282,-1.96028,0.291977,0.0417011,-0.00798857,0.125997,-0.0285445,0.127947,-0.333107,0.751249,0.426262,-0.00833858,-0.781382,0.0309482,-0.789206,0.417199,6.57711,22.9575,0.47158,16.2262,-2.50857,16.4037,-32.9281,9.95295,5.19619,-0.0750424,0.147908,-0.0095068,0.0417508,-1.95035,0.27201,0.0241252,-0.00770353,0.0339074,0.0221637,0.168306,-0.146372,0.0877992,0.528628,-0.00135122,0,0,0,0,0,0,0,2.76874,-32.8996,2.43684,25.3085,2.5238,1.38878,0.0440523,
0.149535,-0.0099856,0.0434238,-1.95503,0.279936,0.0327398,-0.00788659,0.121822,-0.0295975,0.123795,-0.328875,0.718975,0.448001,-0.00866193,-2.60933,-0.658133,-2.59473,2.64502,-20.1717,13.5866,-0.20209,16.6809,-2.30514,16.8625,-33.471,9.95397,3.97205,-0.0951362,0.149241,-0.00925823,0.0463015,-1.95483,0.273508,0.0457897,-0.00769909,0.03865,0.0231017,0.155696,-0.146461,0.0241667,0.69443,0.000379246,0.592821,0.117249,-1.57631,-0.0110632,-7.95407,20.7252,0.216308,3.65741,-32.9988,3.38899,26.6058,2.64557,1.56823,0.00376909,
0.151618,-0.00995925,0.048739,-1.96203,0.286501,0.0620727,-0.00789831,0.118706,-0.0297586,0.120672,-0.327043,0.7145,0.49132,-0.00804682,-1.94779,-0.100652,-1.95199,1.14526,-2.79637,27.0744,0.384443,16.2184,-2.40292,16.3964,-33.0381,9.95397,5.1123,-0.0743854,0.149241,-0.00925823,0.0463015,-1.95483,0.273508,0.0457897,-0.00769909,0.03865,0.0231017,0.155696,-0.146461,0.0241667,0.69443,0.000379246,0,0,0,0,0,0,0,3.65741,-32.9988,3.38899,26.6058,2.64557,1.56823,0.00376909,
0.152531,-0.0101712,0.0496669,-1.96461,0.292772,0.0674345,-0.00792619,0.117787,-0.0291047,0.119735,-0.326262,0.728377,0.5271,-0.00713438,-0.574388,0.408686,-0.585493,0.487806,8.67284,22.3628,0.570272,15.8168,-2.39008,15.9911,-32.5957,9.95397,5.94998,-0.0544886,0.149241,-0.00925823,0.0463015,-1.95483,0.273508,0.0457897,-0.00769909,0.03865,0.0231017,0.155696,-0.146461,0.0241667,0.69443,0.000379246,0,0,0,0,0,0,0,3.65741,-32.9988,3.38899,26.6058,2.64557,1.56823,0.00376909,
0.1535,-0.01035,0.0506497,-1.96719,0.299518,0.0728928,-0.00793916,0.118435,-0.0277559,0.120358,-0.325521,0.751369,0.558138,-0.00603193,0.405061,0.842954,0.389665,0.463651,14.3703,19.3988,0.689035,15.4644,-2.28892,15.6353,-32.1416,9.95397,6.56694,-0.0352287,0.149241,-0.00925823,0.0463015,-1.95483,0.273508,0.0457897,-0.00769909,0.03865,0.0231017,0.155696,-0.146461,0.0241667,0.69443,0.000379246,0,0,0,0,0,0,0,3.65741,-32.9988,3.38899,26.6058,2.64557,1.56823,0.00376909,
0.151538,-0.00940831,0.0513207,-1.96382,0.280891,0.0837057,-0.00782279,0.110305,-0.0289424,0.112251,-0.320997,0.710365,0.598306,-0.00600954,-5.08141,-0.741563,-5.06738,2.827,-25.6276,25.1047,0.0139903,16.2294,-2.30076,16.407,-33.1574,9.97697,5.00653,-0.0737503,0.15038,-0.00891582,0.0501222,-1.95926,0.273806,0.0713608,-0.00770306,0.03097,0.0199412,0.0980338,-0.138762,-0.00394218,0.761777,-0.000704733,-0.960005,-0.39506,-7.20774,0.962302,-3.51361,8.41832,-0.135497,-0.500302,-34.5699,-0.586229,28.6212,2.32788,2.13128,0.0641939,
0.152253,-0.00965182,0.0520509,-1.96633,0.286336,0.0896368,-0.00785062,0.106112,-0.0292417,0.108056,-0.319495,0.704425,0.626924,-0.00550358,-2.62017,-0.187043,-2.6215,0.938684,-3.71274,17.8862,0.316225,15.8277,-2.28793,16.0017,-32.715,9.97697,5.8442,-0.0538536,0.15038,-0.00891582,0.0501222,-1.95926,0.273806,0.0713608,-0.00770306,0.03097,0.0199412,0.0980338,-0.138762,-0.00394218,0.761777,-0.000704733,0,0,0,0,0,0,0,-0.500302,-34.5699,-0.586229,28.6212,2.32788,2.13128,0.0641939,
0.153054,-0.00985679,0.0528664,-1.96886,0.292504,0.0955086,-0.00786258,0.104904,-0.0285175,0.106833,-0.318785,0.71775,0.648334,-0.00470181,-0.755001,0.452641,-0.76457,0.443811,8.32841,13.3813,0.501106,15.4754,-2.18676,15.6459,-32.2608,9.97697,6.46117,-0.0345937,0.15038,-0.00891582,0.0501222,-1.95926,0.273806,0.0713608,-0.00770306,0.03097,0.0199412,0.0980338,-0.138762,-0.00394218,0.761777,-0.000704733,0,0,0,0,0,0,0,-0.500302,-34.5699,-0.586229,28.6212,2.32788,2.13128,0.0641939,
0.153927,-0.0100246,0.0537546,-1.97138,0.299171,0.101371,-0.00785935,0.105766,-0.0270087,0.107671,-0.318032,0.740871,0.665218,-0.00368068,0.5385,0.943027,0.523825,0.470883,14.4506,10.5527,0.638211,15.1598,-2.02395,15.327,-31.7982,9.97697,6.86813,-0.0161234,0.15038,-0.00891582,0.0501222,-1.95926,0.273806,0.0713608,-0.00770306,0.03097,0.0199412,0.0980338,-0.138762,-0.00394218,0.761777,-0.000704733,0,0,0,0,0,0,0,-0.500302,-34.5699,-0.586229,28.6212,2.32788,2.13128,0.0641939,
0.154864,-0.01016,0.054705,-1.97387,0.306099,0.107232,-0.00784114,0.108022,-0.0249931,0.109897,-0.316753,0.765904,0.67872,-0.00248937,1.41006,1.25972,1.3914,0.799617,15.6453,8.43827,0.744565,14.8756,-1.69529,15.0379,-31.4452,9.9976,7.03375,0.00359437,0.151723,-0.0082475,0.0536751,-1.96376,0.274154,0.0985135,-0.00770282,0.0397871,0.0194655,0.0784482,-0.144531,-0.00397378,0.83423,-0.000190228,1.10214,-0.0594675,-2.4482,-0.721085,-0.00395026,9.05665,0.0643132,-4.15417,-35.1451,-4.06157,31.2872,2.22442,2.86736,0.0376436,
0.152802,-0.00870337,0.0547903,-1.9683,0.281297,0.111914,-0.00779506,0.100978,-0.026189,0.102875,-0.313374,0.722865,0.707231,-0.00282273,-4.40265,-0.747436,-4.38918,2.1117,-26.8994,17.8193,-0.208347,15.8324,-2.15904,16.0047,-32.829,9.9976,5.73916,-0.0532742,0.151723,-0.0082475,0.0536751,-1.96376,0.274154,0.0985135,-0.00770282,0.0397871,0.0194655,0.0784482,-0.144531,-0.00397378,0.83423,-0.000190228,0,0,0,0,0,0,0,-4.15417,-35.1451,-4.06157,31.2872,2.22442,2.86736,0.0376436,
0.153478,-0.00892274,0.0554815,-1.97077,0.28678,0.118256,-0.00780891,0.0976837,-0.0264354,0.0995793,-0.312414,0.715368,0.724333,-0.00260438,-2.0589,-0.154018,-2.05957,0.599847,-4.68545,10.6887,0.136464,15.48,-2.05787,15.6489,-32.3748,9.9976,6.35612,-0.0340143,0.151723,-0.0082475,0.0536751,-1.96376,0.274154,0.0985135,-0.00770282,0.0397871,0.0194655,0.0784482,-0.144531,-0.00397378,0.83423,-0.000190228,0,0,0,0,0,0,0,-4.15417,-35.1451,-4.06157,31.2872,2.22442,2.86736,0.0376436,
0.154241,-0.00910353,0.0562594,-1.97325,0.292987,0.124449,-0.00780605,0.0972293,-0.0256682,0.0991109,-0.311954,0.727446,0.734292,-0.00201201,-0.283991,0.479514,-0.292738,0.287527,7.54886,6.22459,0.370232,15.1644,-1.89507,15.3299,-31.9122,9.9976,6.76308,-0.0155439,0.151723,-0.0082475,0.0536751,-1.96376,0.274154,0.0985135,-0.00770282,0.0397871,0.0194655,0.0784482,-0.144531,-0.00397378,0.83423,-0.000190228,0,0,0,0,0,0,0,-4.15417,-35.1451,-4.06157,31.2872,2.22442,2.86736,0.0376436,
0.155083,-0.00924869,0.0571154,-1.97571,0.2996,0.130538,-0.00778743,0.0988298,-0.0241634,0.100688,-0.311186,0.747304,0.739647,-0.00114407,1.00032,0.94049,0.985554,0.480263,12.4115,3.34705,0.542463,14.8665,-1.54976,15.0279,-31.5677,10.0089,6.92271,0.00421086,0.153136,-0.0077652,0.057566,-1.96898,0.274466,0.128268,-0.007702,0.0419675,-0.00111721,0.132121,-0.160288,0.00887769,0.912102,-0.000301233,0.27255,-2.57283,6.70907,-1.96962,1.60643,9.73404,-0.0138757,3.07422,-33.4233,2.88911,27.55,3.10333,2.05804,0.0303194,
0.154482,-0.00832975,0.0589507,-1.97346,0.282001,0.142434,-0.00777683,0.0963974,-0.026449,0.098258,-0.307713,0.71329,0.764197,-0.00150849,-1.52023,-1.42846,-1.51865,2.17033,-21.2592,15.3438,-0.227764,15.471,-1.91234,15.6389,-32.4974,10.0089,6.24508,-0.0333978,0.153136,-0.0077652,0.057566,-1.96898,0.274466,0.128268,-0.007702,0.0419675,-0.00111721,0.132121,-0.160288,0.00887769,0.912102,-0.000301233,0,0,0,0,0,0,0,3.07422,-33.4233,2.88911,27.55,3.10333,2.05804,0.0303194,
0.155235,-0.00856941,0.0597181,-1.97587,0.287698,0.149022,-0.00777904,0.0959423,-0.0271505,0.0977913,-0.306415,0.713043,0.776059,-0.00126206,-0.284465,-0.438489,-0.291664,0.811215,-0.154331,7.41351,0.154019,15.1554,-1.74954,15.32,-32.0347,10.0089,6.65204,-0.0149275,0.153136,-0.0077652,0.057566,-1.96898,0.274466,0.128268,-0.007702,0.0419675,-0.00111721,0.132121,-0.160288,0.00887769,0.912102,-0.000301233,0,0,0,0,0,0,0,3.07422,-33.4233,2.88911,27.55,3.10333,2.05804,0.0303194,
0.156054,-0.00876143,0.0605516,-1.97828,0.294012,0.155377,-0.00776294,0.0972417,-0.0265209,0.0990709,-0.305496,0.728275,0.779742,-0.000607318,0.812099,0.393562,0.799722,0.574644,9.52026,2.30215,0.409217,14.8665,-1.54976,15.0279,-31.5677,10.0089,6.92271,0.00421086,0.153136,-0.0077652,0.057566,-1.96898,0.274466,0.128268,-0.007702,0.0419675,-0.00111721,0.132121,-0.160288,0.00887769,0.912102,-0.000301233,0,0,0,0,0,0,0,3.07422,-33.4233,2.88911,27.55,3.10333,2.05804,0.0303194,
0.156939,-0.00891369,0.0614498,-1.98068,0.300574,0.161557,-0.00772998,0.0999075,-0.0250232,0.10171,-0.304288,0.74667,0.778273,0.000338196,1.66616,0.936008,1.6494,0.755088,11.4964,-0.918461,0.590946,14.5817,-1.22118,14.7392,-31.2155,9.72655,6.93849,0.0234767,0.154554,-0.00738098,0.0611473,-1.97509,0.274679,0.160036,-0.00771248,0.0410947,-0.00109308,0.0993702,-0.176089,-0.00801221,0.931449,-0.00343957,-0.1091,0.00301658,-4.09383,-1.97517,-2.11124,2.41835,-0.392292,0.590702,-33.8716,0.389723,25.6061,2.67028,1.52794,0.124619,
0.155704,-0.00786127,0.062333,-1.97961,0.282053,0.174444,-0.0077593,0.0950314,-0.0259888,0.0968439,-0.302162,0.711151,0.797934,5.62726e-05,-3.04758,-0.603449,-3.04125,1.32865,-22.1992,12.2881,-0.176202,15.1627,-1.63988,15.3264,-32.1472,10.0418,6.53038,-0.0142686,0.154554,-0.00738098,0.0611473,-1.97509,0.274679,0.160036,-0.00771248,0.0410947,-0.00109308,0.0993702,-0.176089,-0.00801221,0.931449,-0.00343957,0,0,0,0,0,0,0,0.590702,-33.8716,0.389723,25.6061,2.67028,1.52794,0.124619,
0.156387,-0.00805663,0.0630295,-1.98199,0.287615,0.181109,-0.0077455,0.093079,-0.0256751,0.0948858,-0.301405,0.707973,0.804956,0.000389837,-1.22024,0.196047,-1.22383,0.472894,-1.98638,4.38881,0.208478,14.8738,-1.44009,15.0344,-31.6802,10.0418,6.80104,0.00486971,0.154554,-0.00738098,0.0611473,-1.97509,0.274679,0.160036,-0.00771248,0.0410947,-0.00109308,0.0993702,-0.176089,-0.00801221,0.931449,-0.00343957,0,0,0,0,0,0,0,0.590702,-33.8716,0.389723,25.6061,2.67028,1.52794,0.124619,
0.157151,-0.00820998,0.0638076,-1.98437,0.293671,0.187499,-0.00771291,0.093572,-0.0243738,0.0953621,-0.300605,0.717796,0.803735,0.00112683,0.308141,0.813295,0.297729,0.500186,6.13971,-0.763298,0.460622,14.5817,-1.22118,14.7392,-31.2155,9.72655,6.93849,0.0234767,0.154554,-0.00738098,0.0611473,-1.97509,0.274679,0.160036,-0.00771248,0.0410947,-0.00109308,0.0993702,-0.176089,-0.00801221,0.931449,-0.00343957,0,0,0,0,0,0,0,0.590702,-33.8716,0.389723,25.6061,2.67028,1.52794,0.124619,
0.157987,-0.00832949,0.0646572,-1.98673,0.299927,0.193667,-0.00766641,0.0957661,-0.0224866,0.0975305,-0.299421,0.730622,0.797168,0.00206375,1.37128,1.17951,1.3552,0.739611,8.01613,-4.1039,0.585571,14.267,-0.997572,14.4215,-30.7602,9.13071,6.99371,0.0418115,0.154554,-0.00738098,0.0611473,-1.97509,0.274679,0.160036,-0.00771248,0.0410947,-0.00109308,0.0993702,-0.176089,-0.00801221,0.931449,-0.00343957,0,0,0,0,0,0,0,0.590702,-33.8716,0.389723,25.6061,2.67028,1.52794,0.124619,
0.155697,-0.00783246,0.0623251,-1.97956,0.28197,0.174554,-0.00772893,0.09163,-0.023533,0.0934039,-0.297495,0.696167,0.814479,0.00182776,-2.58505,-0.654008,-2.57911,1.20427,-21.5342,10.8192,-0.147489,14.8661,-1.35337,15.0257,-31.7659,10.0669,6.68702,0.00538909,0.156567,-0.00697874,0.064722,-1.98125,0.274782,0.190981,-0.00771024,0.0644152,-0.006363,0.0978645,-0.180041,-0.0093086,0.87276,-0.00216225,2.91507,-0.65874,-0.188205,-0.494019,-0.162049,-7.3361,0.159665,-1.51593,-34.1731,-1.4868,25.856,2.64557,1.74035,0.104477,
0.156377,-0.00801066,0.063019,-1.98191,0.287311,0.181263,-0.00769933,0.0903046,-0.0232815,0.0920721,-0.296625,0.690444,0.819293,0.0022022,-0.828357,0.157218,-0.832371,0.543765,-3.57729,3.00862,0.234023,14.574,-1.13445,14.7305,-31.3012,9.75159,6.82447,0.0239961,0.156567,-0.00697874,0.064722,-1.98125,0.274782,0.190981,-0.00771024,0.0644152,-0.006363,0.0978645,-0.180041,-0.0093086,0.87276,-0.00216225,0,0,0,0,0,0,0,-1.51593,-34.1731,-1.4868,25.856,2.64557,1.74035,0.104477,
0.157135,-0.00814859,0.0637903,-1.98424,0.293088,0.187671,-0.00765416,0.0911909,-0.0220735,0.0929407,-0.295676,0.696778,0.815645,0.00289088,0.553903,0.754989,0.542903,0.592795,3.95907,-2.2799,0.430425,14.2593,-0.910846,14.4128,-30.8459,9.15575,6.87969,0.0423309,0.156567,-0.00697874,0.064722,-1.98125,0.274782,0.190981,-0.00771024,0.0644152,-0.006363,0.0978645,-0.180041,-0.0093086,0.87276,-0.00216225,0,0,0,0,0,0,0,-1.51593,-34.1731,-1.4868,25.856,2.64557,1.74035,0.104477,
0.157958,-0.00825329,0.0646265,-1.98656,0.299054,0.193827,-0.00759222,0.0935339,-0.0202762,0.0952568,-0.294384,0.70659,0.806411,0.0038612,1.46439,1.1233,1.44756,0.807571,6.13242,-5.77113,0.60645,13.8978,-0.688763,14.0482,-30.4118,8.64508,6.84814,0.0577003,0.156567,-0.00697874,0.064722,-1.98125,0.274782,0.190981,-0.00771024,0.0644152,-0.006363,0.0978645,-0.180041,-0.0093086,0.87276,-0.00216225,0,0,0,0,0,0,0,-1.51593,-34.1731,-1.4868,25.856,2.64557,1.74035,0.104477,
0.157829,-0.00743872,0.0660155,-1.98571,0.281952,0.204889,-0.0077029,0.0911465,-0.0216852,0.0928706,-0.293088,0.674091,0.815147,0.00359508,-1.49211,-0.880612,-1.49139,0.809954,-20.3122,5.46012,-0.166323,14.5713,-1.08233,14.7265,-31.3631,9.78095,6.72374,0.0243882,0.158646,-0.00652518,0.0682716,-1.98729,0.275041,0.218841,-0.00770424,0.0746843,0.00734054,0.0821859,-0.159807,-0.00512003,0.757693,-0.000710878,1.28364,1.71294,-1.95982,2.52933,0.523572,-14.3834,0.181421,-5.06665,-33.9986,-4.96214,25.856,2.17498,1.89965,0.050461,
0.158545,-0.00760675,0.0667452,-1.98803,0.287122,0.211363,-0.007662,0.0908271,-0.0215489,0.0925406,-0.292529,0.668526,0.813971,0.00389847,-0.199636,0.0852019,-0.206236,0.349183,-3.47802,-0.735451,0.189621,14.2567,-0.858719,14.4089,-30.9078,9.18511,6.77896,0.042723,0.158646,-0.00652518,0.0682716,-1.98729,0.275041,0.218841,-0.00770424,0.0746843,0.00734054,0.0821859,-0.159807,-0.00512003,0.757693,-0.000710878,0,0,0,0,0,0,0,-5.06665,-33.9986,-4.96214,25.856,2.17498,1.89965,0.050461,
0.159324,-0.00772995,0.0675371,-1.99034,0.292711,0.217552,-0.00760192,0.0921363,-0.0203191,0.0938298,-0.291744,0.674531,0.805904,0.00462101,0.818269,0.768589,0.805719,0.490878,3.75326,-5.04144,0.451584,13.8952,-0.636636,14.0443,-30.4737,8.67443,6.74741,0.0580924,0.158646,-0.00652518,0.0682716,-1.98729,0.275041,0.218841,-0.00770424,0.0746843,0.00734054,0.0821859,-0.159807,-0.00512003,0.757693,-0.000710878,0,0,0,0,0,0,0,-5.06665,-33.9986,-4.96214,25.856,2.17498,1.89965,0.050461,
0.157829,-0.00743872,0.0660155,-1.98571,0.281952,0.204889,-0.0077029,0.0900285,-0.0217195,0.091729,-0.290976,0.648443,0.814742,0.00420293,-1.31742,-0.875248,-1.31301,0.479951,-16.3048,5.52348,-0.261299,14.2567,-0.858719,14.4089,-30.9078,9.18511,6.77896,0.042723,0.158646,-0.00652518,0.0682716,-1.98729,0.275041,0.218841,-0.00770424,0.0746843,0.00734054,0.0821859,-0.159807,-0.00512003,0.757693,-0.000710878,0,0,0,0,0,0,0,-5.06665,-33.9986,-4.96214,25.856,2.17498,1.89965,0.050461,
0.160601,-0.00703711,0.070268,-1.99402,0.286959,0.237991,-0.00761528,0.0897082,-0.0207362,0.091392,-0.290627,0.643166,0.805834,0.00477868,-0.200187,0.614591,-0.210626,0.218363,-3.29809,-5.56713,0.359843,13.8982,-0.606594,14.0462,-30.5158,8.70162,6.66777,0.0583829,0.160789,-0.00615888,0.0713678,-1.99249,0.275186,0.241318,-0.007708,0.0655201,0.00481324,0.0833211,-0.157288,-0.000331756,0.621946,-0.00167043,-1.14553,-0.315912,0.141902,0.314853,0.598534,-16.9683,-0.119943,-4.66198,-33.1496,-4.46227,25.8084,1.72912,2.22375,0.0843355,
0.161363,-0.00712683,0.0710427,-1.99631,0.292347,0.243884,-0.0075498,0.0908229,-0.0188319,0.0924831,-0.289852,0.649222,0.791974,0.00545994,0.696719,1.19015,0.681932,0.484473,3.7846,-8.66281,0.425788,13.498,-0.362628,13.6427,-30.0864,8.28624,6.58714,0.0783025,0.160789,-0.00615888,0.0713678,-1.99249,0.275186,0.241318,-0.007708,0.0655201,0.00481324,0.0833211,-0.157288,-0.000331756,0.621946,-0.00167043,0,0,0,0,0,0,0,-4.66198,-33.1496,-4.46227,25.8084,1.72912,2.22375,0.0843355,
0.162184,-0.00718109,0.0718762,-1.99856,0.297575,0.249494,-0.00748075,0.0931756,-0.0164218,0.094823,-0.287955,0.650071,0.773845,0.00609436,1.47041,1.50632,1.46247,1.18551,0.530967,-11.3306,0.396513,12.9505,-0.0986801,13.093,-29.678,7.93692,6.39801,0.0849182,0.160789,-0.00615888,0.0713678,-1.99249,0.275186,0.241318,-0.007708,0.0655201,0.00481324,0.0833211,-0.157288,-0.000331756,0.621946,-0.00167043,0,0,0,0,0,0,0,-4.66198,-33.1496,-4.46227,25.8084,1.72912,2.22375,0.0843355,
0.16201,-0.00653723,0.0726168,-1.99692,0.281902,0.253031,-0.00764732,0.090427,-0.0175385,0.0920706,-0.287906,0.62134,0.765963,0.00609419,-1.71785,-0.697929,-1.72023,0.0301583,-17.957,-4.92596,-0.000107318,13.8982,-0.606594,14.0462,-30.5158,8.70162,6.66777,0.0583829,0.160789,-0.00615888,0.0713678,-1.99249,0.275186,0.241318,-0.007708,0.0655201,0.00481324,0.0833211,-0.157288,-0.000331756,0.621946,-0.00167043,0,0,0,0,0,0,0,-4.66198,-33.1496,-4.46227,25.8084,1.72912,2.22375,0.0843355,
0.162703,-0.00665353,0.0733219,-1.99923,0.286707,0.258746,-0.0075849,0.0896546,-0.0169383,0.0912839,-0.288094,0.617205,0.755644,0.00643584,-0.482764,0.375101,-0.491704,-0.11746,-2.58454,-6.4497,0.213531,13.5021,-0.355774,13.6466,-30.1096,8.30922,6.52902,0.0784999,0.162227,-0.00601291,0.0746936,-1.99796,0.275395,0.25948,-0.00770943,0.0414346,-0.00856185,0.117092,-0.156565,0.00741284,0.463837,-0.00150354,-3.01069,-1.67189,4.2213,0.0903796,0.968075,-19.7637,0.0208605,1.47541,-31.6499,1.38948,21.3968,1.80877,0.85137,0.0843355,
0.163461,-0.00671927,0.0740934,-2.0015,0.291556,0.264233,-0.0075167,0.0906891,-0.0151942,0.0923141,-0.287034,0.614993,0.741674,0.00685375,0.646534,1.09009,0.643861,0.662821,-1.38249,-8.73133,0.261197,12.9546,-0.0918266,13.0969,-29.7012,7.9599,6.33989,0.0851157,0.162227,-0.00601291,0.0746936,-1.99796,0.275395,0.25948,-0.00770943,0.0414346,-0.00856185,0.117092,-0.156565,0.00741284,0.463837,-0.00150354,0,0,0,0,0,0,0,1.47541,-31.6499,1.38948,21.3968,1.80877,0.85137,0.0843355,
0.164284,-0.00674868,0.0749297,-2.00369,0.295947,0.269462,-0.00744842,0.0931331,-0.0128908,0.0947578,-0.284553,0.601747,0.724088,0.00719001,1.52755,1.43963,1.5273,1.55036,-8.27829,-10.9914,0.210159,12.3814,0.240943,12.5304,-29.2598,6.48184,6.09102,0.0820188,0.162227,-0.00601291,0.0746936,-1.99796,0.275395,0.25948,-0.00770943,0.0414346,-0.00856185,0.117092,-0.156565,0.00741284,0.463837,-0.00150354,0,0,0,0,0,0,0,1.47541,-31.6499,1.38948,21.3968,1.80877,0.85137,0.0843355,
0.16351,-0.00648076,0.0760091,-2.0024,0.282025,0.269646,-0.00762849,0.0910736,-0.0154187,0.0926884,-0.285189,0.580979,0.709444,0.0071024,-1.2872,-1.57997,-1.29336,-0.397414,-12.9802,-9.15202,-0.0547518,13.5021,-0.355774,13.6466,-30.1096,8.30922,6.52902,0.0784999,0.162227,-0.00601291,0.0746936,-1.99796,0.275395,0.25948,-0.00770943,0.0414346,-0.00856185,0.117092,-0.156565,0.00741284,0.463837,-0.00150354,0,0,0,0,0,0,0,1.47541,-31.6499,1.38948,21.3968,1.80877,0.85137,0.0843355,
0.164235,-0.00660414,0.0767467,-2.00468,0.286371,0.274808,-0.00756355,0.0909768,-0.0154193,0.09259,-0.285202,0.573437,0.696598,0.00730529,-0.0605033,-0.000367848,-0.0614973,-0.00779518,-4.71358,-8.02911,0.126803,12.9592,-0.0904741,13.1004,-29.7041,7.98126,6.30765,0.0852357,0.16307,-0.00560453,0.0788049,-2.00364,0.275476,0.272851,-0.00770982,0.0191674,0.00702308,0.135931,-0.176156,-0.0019643,0.333642,-0.00159778,-2.7834,1.94812,2.35498,-2.44895,-1.17214,-16.2743,-0.0117793,1.65393,-31.1263,1.58784,21.5991,1.75384,1.04363,0.0706026,
0.165026,-0.00666599,0.0775508,-2.0069,0.290444,0.279816,-0.00749643,0.0925602,-0.0138819,0.0941766,-0.28363,0.560579,0.682477,0.0075224,0.989645,0.960863,0.991643,0.982574,-8.0366,-8.82563,0.135697,12.3861,0.242296,12.5339,-29.2626,6.5032,6.05879,0.0821389,0.16307,-0.00560453,0.0788049,-2.00364,0.275476,0.272851,-0.00770982,0.0191674,0.00702308,0.135931,-0.176156,-0.0019643,0.333642,-0.00159778,0,0,0,0,0,0,0,1.65393,-31.1263,1.58784,21.5991,1.75384,1.04363,0.0706026,
0.165874,-0.00668582,0.078412,-2.00906,0.29394,0.284626,-0.00743069,0.0952557,-0.0116013,0.0968698,-0.280772,0.535876,0.666247,0.00766129,1.68464,1.4254,1.68322,1.78589,-15.4392,-10.1439,0.0868059,11.9104,0.619291,12.0632,-28.7738,4.79978,5.75949,0.0754408,0.16307,-0.00560453,0.0788049,-2.00364,0.275476,0.272851,-0.00770982,0.0191674,0.00702308,0.135931,-0.176156,-0.0019643,0.333642,-0.00159778,0,0,0,0,0,0,0,1.65393,-31.1263,1.58784,21.5991,1.75384,1.04363,0.0706026,
0.164346,-0.00583737,0.0801169,-2.00823,0.281417,0.281497,-0.00761928,0.0928832,-0.0115867,0.0945019,-0.283457,0.514711,0.645867,0.00756893,-1.48277,0.00913282,-1.47989,-1.67798,-13.2281,-12.7374,-0.0577294,12.9592,-0.0904741,13.1004,-29.7041,7.98126,6.30765,0.0852357,0.16307,-0.00560453,0.0788049,-2.00364,0.275476,0.272851,-0.00770982,0.0191674,0.00702308,0.135931,-0.176156,-0.0019643,0.333642,-0.00159778,0,0,0,0,0,0,0,1.65393,-31.1263,1.58784,21.5991,1.75384,1.04363,0.0706026,
0.165082,-0.00586345,0.0808664,-2.01053,0.284909,0.286064,-0.00755476,0.0927155,-0.00992119,0.094339,-0.284318,0.49906,0.630869,0.00766802,-0.104817,1.04094,-0.101869,-0.538427,-9.78228,-9.37354,0.0619352,12.3937,0.234724,12.5394,-29.2437,6.52171,6.05215,0.0821449,0.163847,-0.0049731,0.0834198,-2.00985,0.275417,0.28174,-0.00769846,0.0300308,0.0170951,0.148833,-0.180788,-0.00527075,0.194781,0.000443043,1.35792,1.259,1.61266,-0.578911,-0.413305,-17.3577,0.255102,1.98322,-32.6973,1.91316,22.0197,2.0285,0.812002,-0.0026396,
0.165882,-0.00584229,0.0816795,-2.01276,0.28802,0.290557,-0.00748986,0.0941777,-0.00740801,0.0957999,-0.283134,0.477036,0.617041,0.00775689,0.913853,1.57074,0.913105,0.7401,-13.7648,-8.64224,0.0555438,11.9181,0.611719,12.0687,-28.7549,4.81829,5.75285,0.0754468,0.163847,-0.0049731,0.0834198,-2.00985,0.275417,0.28174,-0.00769846,0.0300308,0.0170951,0.148833,-0.180788,-0.00527075,0.194781,0.000443043,0,0,0,0,0,0,0,1.98322,-32.6973,1.91316,22.0197,2.0285,0.812002,-0.0026396,
0.166735,-0.0057912,0.0825443,-2.01492,0.290554,0.294916,-0.00742654,0.0966469,-0.00464912,0.0982589,-0.280451,0.444965,0.602594,0.00778849,1.54324,1.72431,1.53686,1.67668,-20.0444,-9.02992,0.0197486,11.584,0.967015,11.7351,-28.2421,3.38943,5.44763,0.0701653,0.163847,-0.0049731,0.0834198,-2.00985,0.275417,0.28174,-0.00769846,0.0300308,0.0170951,0.148833,-0.180788,-0.00527075,0.194781,0.000443043,0,0,0,0,0,0,0,1.98322,-32.6973,1.91316,22.0197,2.0285,0.812002,-0.0026396,
0.165289,-0.00507261,0.084898,-2.01449,0.280211,0.28884,-0.00760818,0.0959526,-0.004427,0.0975677,-0.283475,0.423576,0.577558,0.00762394,-0.43389,0.138826,-0.432019,-1.88957,-13.3677,-15.6475,-0.102846,12.3937,0.234724,12.5394,-29.2437,6.52171,6.05215,0.0821449,0.163847,-0.0049731,0.0834198,-2.00985,0.275417,0.28174,-0.00769846,0.0300308,0.0170951,0.148833,-0.180788,-0.00527075,0.194781,0.000443043,0,0,0,0,0,0,0,1.98322,-32.6973,1.91316,22.0197,2.0285,0.812002,-0.0026396,
0.166087,-0.00504058,0.0857094,-2.0168,0.282842,0.292826,-0.007547,0.0967276,-0.00274066,0.0983384,-0.284401,0.404638,0.561699,0.00762867,0.484378,1.05396,0.48171,-0.579125,-11.8365,-9.91145,0.00296147,11.9212,0.605773,12.0677,-28.7235,4.83272,5.76475,0.0753981,0.164752,-0.00393766,0.0880522,-2.016,0.27499,0.286893,-0.0077082,0.0235079,0.0510576,0.145128,-0.188847,-0.0177336,0.104653,-0.00134395,-0.815357,4.24532,-0.463147,-1.00743,-1.55785,-11.266,-0.223374,2.36408,-31.2532,2.08772,22.218,1.87011,0.812002,0.0440523,
0.166934,-0.00496707,0.0865684,-2.01902,0.285075,0.296823,-0.00748542,0.0985465,-0.000354989,0.100146,-0.283165,0.379535,0.549291,0.00764254,1.13675,1.49105,1.12971,0.772694,-15.6896,-7.75525,0.00866599,11.5871,0.961068,11.7341,-28.2107,3.40386,5.45953,0.0701166,0.164752,-0.00393766,0.0880522,-2.016,0.27499,0.286893,-0.0077082,0.0235079,0.0510576,0.145128,-0.188847,-0.0177336,0.104653,-0.00134395,0,0,0,0,0,0,0,2.36408,-31.2532,2.08772,22.218,1.87011,0.812002,0.0440523,
0.167819,-0.00486959,0.087466,-2.02118,0.286762,0.300753,-0.00742329,0.100975,0.00215308,0.102555,-0.280391,0.345812,0.537691,0.00766712,1.51778,1.56754,1.50589,1.73395,-21.0765,-7.2498,0.0153631,11.3827,1.25294,11.5279,-27.6951,2.19496,5.15502,0.0663721,0.164752,-0.00393766,0.0880522,-2.016,0.27499,0.286893,-0.0077082,0.0235079,0.0510576,0.145128,-0.188847,-0.0177336,0.104653,-0.00134395,0,0,0,0,0,0,0,2.36408,-31.2532,2.08772,22.218,1.87011,0.812002,0.0440523,
0.166174,-0.00367733,0.0895113,-2.02073,0.27836,0.29287,-0.00761667,0.0992819,0.00493536,0.10087,-0.284333,0.323719,0.512632,0.00751334,-1.05812,1.73893,-1.05337,-2.46363,-13.8084,-15.6619,-0.0961109,11.9212,0.605773,12.0677,-28.7235,4.83272,5.76475,0.0753981,0.164752,-0.00393766,0.0880522,-2.016,0.27499,0.286893,-0.0077082,0.0235079,0.0510576,0.145128,-0.188847,-0.0177336,0.104653,-0.00134395,0,0,0,0,0,0,0,2.36408,-31.2532,2.08772,22.218,1.87011,0.812002,0.0440523,
0.166968,-0.00352145,0.0903183,-2.02306,0.280104,0.296397,-0.00755704,0.0992909,0.00784534,0.100871,-0.285744,0.302578,0.498295,0.00750124,0.00559791,1.81874,0.000907912,-0.882016,-13.2133,-8.96063,-0.00756474,11.5871,0.961068,11.7341,-28.2107,3.40386,5.45953,0.0701166,0.164752,-0.00393766,0.0880522,-2.016,0.27499,0.286893,-0.0077082,0.0235079,0.0510576,0.145128,-0.188847,-0.0177336,0.104653,-0.00134395,0,0,0,0,0,0,0,2.36408,-31.2532,2.08772,22.218,1.87011,0.812002,0.0440523,
0.16781,-0.00334895,0.091172,-2.0253,0.281461,0.29999,-0.00749556,0.100476,0.0105887,0.102039,-0.28471,0.275998,0.488454,0.00753813,0.740521,1.71458,0.729662,0.645947,-16.6125,-6.15044,0.0230566,11.3942,1.21846,11.5361,-27.6419,2.21147,5.18531,0.0662215,0.165454,-0.00313235,0.0928279,-2.02311,0.273791,0.288601,-0.00770388,0.020308,0.043509,0.156913,-0.218869,-0.0325236,0.0325474,-3.54097e-05,-0.399993,-0.943583,1.47313,-3.75275,-1.84876,-9.0132,0.163567,2.76874,-32.9472,2.53602,25.9314,1.78405,1.51513,0.00376909,
0.168689,-0.00317182,0.0920622,-2.02747,0.282335,0.30356,-0.00743351,0.10235,0.0128994,0.103887,-0.281954,0.242648,0.480014,0.00758168,1.17166,1.4442,1.15497,1.72295,-20.8435,-5.27547,0.0272193,11.2939,1.43354,11.433,-27.1336,1.16861,4.90489,0.0657348,0.165454,-0.00313235,0.0928279,-2.02311,0.273791,0.288601,-0.00770388,0.020308,0.043509,0.156913,-0.218869,-0.0325236,0.0325474,-3.54097e-05,0,0,0,0,0,0,0,2.76874,-32.9472,2.53602,25.9314,1.78405,1.51513,0.00376909,
0.166959,-0.00281198,0.09437,-2.02789,0.275928,0.293425,-0.00760951,0.101377,0.0144732,0.102917,-0.285742,0.223825,0.453074,0.00742966,-0.608195,0.983605,-0.606245,-2.36791,-11.7645,-16.8371,-0.0950161,11.5986,0.926589,11.7422,-28.1576,3.42037,5.48983,0.0699659,0.165454,-0.00313235,0.0928279,-2.02311,0.273791,0.288601,-0.00770388,0.020308,0.043509,0.156913,-0.218869,-0.0325236,0.0325474,-3.54097e-05,0,0,0,0,0,0,0,2.76874,-32.9472,2.53602,25.9314,1.78405,1.51513,0.00376909,
0.167786,-0.00261878,0.0952091,-2.03022,0.276937,0.296502,-0.00754997,0.101785,0.0164085,0.103312,-0.286764,0.204275,0.439379,0.00743234,0.255107,1.20958,0.247216,-0.638353,-12.2187,-8.55938,0.00167799,11.3942,1.21846,11.5361,-27.6419,2.21147,5.18531,0.0662215,0.165454,-0.00313235,0.0928279,-2.02311,0.273791,0.288601,-0.00770388,0.020308,0.043509,0.156913,-0.218869,-0.0325236,0.0325474,-3.54097e-05,0,0,0,0,0,0,0,2.76874,-32.9472,2.53602,25.9314,1.78405,1.51513,0.00376909,
0.168653,-0.00241294,0.0960869,-2.03245,0.277586,0.299712,-0.00748882,0.103089,0.0182728,0.104594,-0.285342,0.179654,0.43176,0.00747462,0.814949,1.16518,0.800764,0.888794,-15.3878,-4.76234,0.0264244,11.303,1.38247,11.4369,-27.0595,1.18469,4.94846,0.0654951,0.166388,-0.00198878,0.0976308,-2.03123,0.272284,0.288713,-0.00770164,0.0290727,0.0297575,0.149512,-0.245615,-0.0279857,-0.014059,0.000771169,1.09559,-1.71894,-0.925131,-3.34323,0.567238,-5.8258,0.100822,1.2215,-35.0221,1.16334,30.6882,1.43615,2.61559,-0.0163725,
0.169549,-0.00220729,0.0969942,-2.03461,0.277809,0.302955,-0.0074259,0.104884,0.0197595,0.106357,-0.282242,0.149302,0.426491,0.00755274,1.12185,0.929192,1.10223,1.93745,-18.9703,-3.29264,0.0488274,11.2709,1.5207,11.4012,-26.5648,0.317992,4.67991,0.0658862,0.166388,-0.00198878,0.0976308,-2.03123,0.272284,0.288713,-0.00770164,0.0290727,0.0297575,0.149512,-0.245615,-0.0279857,-0.014059,0.000771169,0,0,0,0,0,0,0,1.2215,-35.0221,1.16334,30.6882,1.43615,2.61559,-0.0163725,
0.167942,-0.00167843,0.0992197,-2.03601,0.273479,0.292664,-0.00759988,0.104054,0.020101,0.105526,-0.285495,0.135259,0.400013,0.00746515,-0.518923,0.213477,-0.519298,-2.03359,-8.77694,-16.5492,-0.0547472,11.4033,1.1674,11.54,-27.5678,2.22755,5.22889,0.0659818,0.166388,-0.00198878,0.0976308,-2.03123,0.272284,0.288713,-0.00770164,0.0290727,0.0297575,0.149512,-0.245615,-0.0279857,-0.014059,0.000771169,0,0,0,0,0,0,0,1.2215,-35.0221,1.16334,30.6882,1.43615,2.61559,-0.0163725,
0.168793,-0.00147551,0.100081,-2.03831,0.273891,0.295394,-0.00753957,0.1045,0.0211538,0.105955,-0.285936,0.118485,0.388252,0.00747986,0.278822,0.657993,0.268236,-0.275155,-10.4839,-7.35075,0.00919512,11.303,1.38247,11.4369,-27.0595,1.18469,4.94846,0.0654951,0.166388,-0.00198878,0.0976308,-2.03123,0.272284,0.288713,-0.00770164,0.0290727,0.0297575,0.149512,-0.245615,-0.0279857,-0.014059,0.000771169,0,0,0,0,0,0,0,1.2215,-35.0221,1.16334,30.6882,1.43615,2.61559,-0.0163725,
0.169677,-0.00126016,0.100976,-2.04053,0.273959,0.298311,-0.00747701,0.105718,0.0223069,0.107146,-0.284067,0.096502,0.383521,0.00754769,0.760979,0.720686,0.744049,1.1679,-13.7391,-2.95677,0.0423916,11.2688,1.4458,11.3926,-26.4783,0.329117,4.72594,0.0656333,0.167232,-0.000631454,0.102744,-2.03998,0.270839,0.288529,-0.00769956,0.0206041,0.0274265,0.149971,-0.236543,-0.0406336,-0.00538314,0.000337598,-1.05857,-0.291367,0.057463,1.13398,-1.58098,1.08448,-0.0541963,0.816837,-36.0179,0.786451,28.8196,1.26495,2.91405,-0.0365141,
0.170587,-0.00104646,0.101896,-2.04266,0.273656,0.301301,-0.00741328,0.107311,0.023188,0.108703,-0.280647,0.0696282,0.381573,0.00763139,0.995751,0.550664,0.973317,2.13737,-16.7961,-1.21756,0.0523132,11.2823,1.51686,11.4021,-25.9976,-0.398375,4.4823,0.0680544,0.167232,-0.000631454,0.102744,-2.03998,0.270839,0.288529,-0.00769956,0.0206041,0.0274265,0.149971,-0.236543,-0.0406336,-0.00538314,0.000337598,0,0,0,0,0,0,0,0.816837,-36.0179,0.786451,28.8196,1.26495,2.91405,-0.0365141,
0.168763,-0.000349367,0.104309,-2.04459,0.27115,0.292417,-0.00759243,0.105796,0.0224628,0.107189,-0.282157,0.0590727,0.362823,0.00757244,-0.947029,-0.453266,-0.94625,-0.943914,-6.5972,-11.7188,-0.0368436,11.3009,1.30757,11.4283,-26.973,1.19581,4.9945,0.0652422,0.167232,-0.000631454,0.102744,-2.03998,0.270839,0.288529,-0.00769956,0.0206041,0.0274265,0.149971,-0.236543,-0.0406336,-0.00538314,0.000337598,0,0,0,0,0,0,0,0.816837,-36.0179,0.786451,28.8196,1.26495,2.91405,-0.0365141,
0.169607,-0.000163243,0.105164,-2.04682,0.271038,0.295077,-0.00753008,0.105755,0.0226233,0.107131,-0.281513,0.0444711,0.356748,0.0076169,-0.0251857,0.100353,-0.0366819,0.402874,-9.12601,-3.79632,0.027789,11.2688,1.4458,11.3926,-26.4783,0.329117,4.72594,0.0656333,0.167232,-0.000631454,0.102744,-2.03998,0.270839,0.288529,-0.00769956,0.0206041,0.0274265,0.149971,-0.236543,-0.0406336,-0.00538314,0.000337598,0,0,0,0,0,0,0,0.816837,-36.0179,0.786451,28.8196,1.26495,2.91405,-0.0365141,
0.170486,3.50563e-05,0.106053,-2.04897,0.270614,0.29791,-0.00746629,0.106581,0.0230561,0.107926,-0.279041,0.0249786,0.356218,0.00768815,0.5163,0.270505,0.497345,1.54477,-12.1828,-0.331375,0.0445336,11.2806,1.45623,11.3922,-25.907,-0.386486,4.53063,0.067787,0.167932,0.000971403,0.107877,-2.04843,0.269541,0.288522,-0.00770237,0.0229465,0.032865,0.148075,-0.240636,-0.0354249,0.015376,-0.000387596,0.292797,0.679804,-0.237085,-0.511567,0.651089,2.59489,-0.0906492,1.27307,-33.3995,1.21095,22.6425,0.97839,1.77971,-0.00996382,
0.17139,0.000232195,0.106965,-2.05105,0.269871,0.300809,-0.00740084,0.107844,0.0233734,0.109149,-0.275345,0.0014091,0.357456,0.00778691,0.788933,0.19828,0.764389,2.30991,-14.731,0.773921,0.0617241,11.3145,1.47054,11.4218,-25.4408,-0.964733,4.29971,0.0700945,0.167932,0.000971403,0.107877,-2.04843,0.269541,0.288522,-0.00770237,0.0229465,0.032865,0.148075,-0.240636,-0.0354249,0.015376,-0.000387596,0,0,0,0,0,0,0,1.27307,-33.3995,1.21095,22.6425,0.97839,1.77971,-0.00996382,
0.169487,0.00132845,0.109465,-2.05295,0.26922,0.29234,-0.00758777,0.106543,0.023359,0.107848,-0.2767,-0.00492168,0.341888,0.00777802,-0.81286,-0.00900914,-0.813255,-0.84696,-3.95674,-9.7304,-0.00555645,11.2671,1.38516,11.3827,-26.3877,0.341006,4.77428,0.065366,0.167932,0.000971403,0.107877,-2.04843,0.269541,0.288522,-0.00770237,0.0229465,0.032865,0.148075,-0.240636,-0.0354249,0.015376,-0.000387596,0,0,0,0,0,0,0,1.27307,-33.3995,1.21095,22.6425,0.97839,1.77971,-0.00996382,
0.170343,0.00153146,0.11033,-2.05513,0.268707,0.294904,-0.00752365,0.106617,0.0237623,0.107898,-0.276023,-0.0167785,0.337626,0.0078255,0.0459802,0.252116,0.0312321,0.423249,-7.41049,-2.66376,0.0296729,11.2806,1.45623,11.3922,-25.907,-0.386486,4.53063,0.067787,0.167932,0.000971403,0.107877,-2.04843,0.269541,0.288522,-0.00770237,0.0229465,0.032865,0.148075,-0.240636,-0.0354249,0.015376,-0.000387596,0,0,0,0,0,0,0,1.27307,-33.3995,1.21095,22.6425,0.97839,1.77971,-0.00996382,
0.171229,0.00173766,0.111225,-2.05725,0.2679,0.297629,-0.0074579,0.107454,0.0241649,0.108699,-0.273647,-0.0335973,0.338227,0.00790417,0.523164,0.251608,0.500412,1.48534,-10.5118,0.375602,0.0491678,11.3156,1.41063,11.416,-25.3552,-0.951669,4.34656,0.0698609,0.168861,0.00226179,0.112853,-2.05685,0.268296,0.288555,-0.00770629,0.0280184,0.0469683,0.145634,-0.24297,-0.0505624,-0.000956599,-0.00116812,0.63399,1.76292,-0.305038,-0.291818,-1.89219,-2.04158,-0.0975654,0.689884,-32.5743,0.588087,22.3212,0.9967,1.72021,0.0239107,
0.172136,0.00193683,0.11214,-2.05929,0.266821,0.300415,-0.00739128,0.108635,0.0243113,0.109834,-0.270123,-0.0538368,0.340227,0.00798884,0.73818,0.0914945,0.709645,2.20202,-12.6497,1.25,0.0529198,11.358,1.38121,11.4542,-24.9013,-1.4157,4.13789,0.073182,0.168861,0.00226179,0.112853,-2.05685,0.268296,0.288555,-0.00770629,0.0280184,0.0469683,0.145634,-0.24297,-0.0505624,-0.000956599,-0.00116812,0,0,0,0,0,0,0,0.689884,-32.5743,0.588087,22.3212,0.9967,1.72021,0.0239107,
0.170447,0.00276164,0.114469,-2.06135,0.267305,0.292008,-0.00758521,0.107542,0.0255772,0.108743,-0.272172,-0.0582259,0.323427,0.00800036,-0.682793,0.791172,-0.681756,-1.28015,-2.74319,-10.5,0.00720281,11.2817,1.39632,11.3864,-25.8213,-0.373423,4.57748,0.0675534,0.168861,0.00226179,0.112853,-2.05685,0.268296,0.288555,-0.00770629,0.0280184,0.0469683,0.145634,-0.24297,-0.0505624,-0.000956599,-0.00116812,0,0,0,0,0,0,0,0.689884,-32.5743,0.588087,22.3212,0.9967,1.72021,0.0239107,
0.171314,0.00300471,0.115345,-2.06352,0.266428,0.29439,-0.00751874,0.10771,0.0265385,0.108886,-0.272013,-0.0685248,0.318289,0.00806208,0.104744,0.600818,0.0890537,0.0992216,-6.43683,-3.21121,0.0385707,11.3156,1.41063,11.416,-25.3552,-0.951669,4.34656,0.0698609,0.168861,0.00226179,0.112853,-2.05685,0.268296,0.288555,-0.00770629,0.0280184,0.0469683,0.145634,-0.24297,-0.0505624,-0.000956599,-0.00116812,0,0,0,0,0,0,0,0.689884,-32.5743,0.588087,22.3212,0.9967,1.72021,0.0239107,
0.172208,0.00323773,0.116247,-2.06562,0.265294,0.296941,-0.00745161,0.108527,0.0270563,0.109663,-0.270025,-0.0831688,0.318402,0.00812804,0.510514,0.323642,0.485417,1.2422,-9.1525,0.070584,0.0412254,11.3567,1.30483,11.446,-24.8129,-1.40164,4.1805,0.0729465,0.169979,0.00348113,0.117644,-2.06509,0.266265,0.28863,-0.00771014,0.0388252,0.0520707,0.140354,-0.227322,-0.0600772,0.00296232,7.73777e-06,1.35085,0.63779,-0.660094,1.95606,-1.18935,0.489865,0.146982,0.539127,-32.3482,0.413527,22.5671,1.02691,1.65429,0.017502,
0.173119,0.00345431,0.117166,-2.06765,0.263938,0.299565,-0.00738346,0.109604,0.0270595,0.11069,-0.266782,-0.100425,0.320326,0.00820613,0.673236,0.00201913,0.642209,2.02739,-10.7853,1.20261,0.0488083,11.3931,1.24194,11.478,-24.3704,-1.74648,3.98435,0.0756437,0.169979,0.00348113,0.117644,-2.06509,0.266265,0.28863,-0.00771014,0.0388252,0.0520707,0.140354,-0.227322,-0.0600772,0.00296232,7.73777e-06,0,0,0,0,0,0,0,0.539127,-32.3482,0.413527,22.5671,1.02691,1.65429,0.017502,
0.171605,0.0039832,0.119297,-2.06944,0.264828,0.292056,-0.00758398,0.108762,0.0276243,0.109851,-0.267832,-0.101679,0.306772,0.00823555,-0.526397,0.352946,-0.524226,-0.656721,-0.783505,-8.47132,0.0183863,11.3142,1.33425,11.4078,-25.2668,-0.937603,4.38917,0.0696254,0.169979,0.00348113,0.117644,-2.06509,0.266265,0.28863,-0.00771014,0.0388252,0.0520707,0.140354,-0.227322,-0.0600772,0.00296232,7.73777e-06,0,0,0,0,0,0,0,0.539127,-32.3482,0.413527,22.5671,1.02691,1.65429,0.017502,
0.172485,0.00421354,0.120185,-2.07155,0.263706,0.294384,-0.00751606,0.109014,0.0278579,0.110077,-0.267143,-0.109388,0.303628,0.00828648,0.157713,0.14605,0.141307,0.430946,-4.81812,-1.96478,0.0318343,11.3567,1.30483,11.446,-24.8129,-1.40164,4.1805,0.0729465,0.169979,0.00348113,0.117644,-2.06509,0.266265,0.28863,-0.00771014,0.0388252,0.0520707,0.140354,-0.227322,-0.0600772,0.00296232,7.73777e-06,0,0,0,0,0,0,0,0.539127,-32.3482,0.413527,22.5671,1.02691,1.65429,0.017502,
0.173388,0.00443088,0.121095,-2.0736,0.262355,0.296868,-0.00744738,0.109789,0.0277197,0.11081,-0.264908,-0.121301,0.304986,0.00834633,0.484343,-0.0863869,0.458133,1.39704,-7.44563,0.848842,0.0374053,11.3922,1.17443,11.4699,-24.2859,-1.73259,4.02511,0.0754094,0.171403,0.00471187,0.122176,-2.07257,0.264262,0.288703,-0.00770794,0.0506408,0.0564731,0.132776,-0.220621,-0.047926,0.00169278,0.000317534,1.47696,0.5503,-0.947148,0.837645,1.5189,-0.158693,0.0387246,0.0551182,-32.7727,-0.0625476,24.5865,1.05163,1.64696,-0.0026396,
0.174304,0.00463071,0.122017,-2.07559,0.260823,0.299416,-0.00737841,0.110729,0.0271716,0.111699,-0.261588,-0.135325,0.307706,0.00840127,0.587409,-0.342578,0.555149,2.0746,-8.76515,1.69982,0.0343342,11.4181,1.08889,11.4915,-23.852,-1.98962,3.84849,0.0785036,0.171403,0.00471187,0.122176,-2.07257,0.264262,0.288703,-0.00770794,0.0506408,0.0564731,0.132776,-0.220621,-0.047926,0.00169278,0.000317534,0,0,0,0,0,0,0,0.0551182,-32.7727,-0.0625476,24.5865,1.05163,1.64696,-0.0026396,
0.173067,0.00523529,0.123865,-2.07681,0.262614,0.291996,-0.00757488,0.110112,0.0278202,0.111088,-0.262454,-0.133058,0.294727,0.00845424,-0.385575,0.405371,-0.381877,-0.541333,1.41709,-8.11189,0.0331051,11.3558,1.23732,11.4379,-24.7285,-1.38774,4.22126,0.0727122,0.171403,0.00471187,0.122176,-2.07257,0.264262,0.288703,-0.00770794,0.0506408,0.0564731,0.132776,-0.220621,-0.047926,0.00169278,0.000317534,0,0,0,0,0,0,0,0.0551182,-32.7727,-0.0625476,24.5865,1.05163,1.64696,-0.0026396,
0.173962,0.00546203,0.124766,-2.07888,0.261339,0.294236,-0.00750484,0.110453,0.0279247,0.111401,-0.261751,-0.13831,0.291781,0.00851426,0.212878,0.0653093,0.195999,0.439693,-3.28263,-1.84137,0.0375178,11.3922,1.17443,11.4699,-24.2859,-1.73259,4.02511,0.0754094,0.171403,0.00471187,0.122176,-2.07257,0.264262,0.288703,-0.00770794,0.0506408,0.0564731,0.132776,-0.220621,-0.047926,0.00169278,0.000317534,0,0,0,0,0,0,0,0.0551182,-32.7727,-0.0625476,24.5865,1.05163,1.64696,-0.0026396,
0.174875,0.00567127,0.125685,-2.08089,0.259852,0.296627,-0.00743503,0.11119,0.0275708,0.112094,-0.259603,-0.147826,0.293179,0.00855667,0.460841,-0.221203,0.433063,1.34255,-5.94778,0.873921,0.0265026,11.4181,1.08889,11.4915,-23.852,-1.98962,3.84849,0.0785036,0.171403,0.00471187,0.122176,-2.07257,0.264262,0.288703,-0.00770794,0.0506408,0.0564731,0.132776,-0.220621,-0.047926,0.00169278,0.000317534,0,0,0,0,0,0,0,0.0551182,-32.7727,-0.0625476,24.5865,1.05163,1.64696,-0.0026396,
0.175797,0.00586061,0.126612,-2.08284,0.258214,0.299083,-0.007365,0.112,0.02679,0.112851,-0.256419,-0.159216,0.29595,0.00859607,0.506598,-0.48795,0.472893,1.98996,-7.11876,1.73184,0.0246259,11.4253,0.910397,11.4876,-23.3427,-2.1474,3.72285,0.0805614,0.173355,0.00586536,0.126353,-2.0801,0.26319,0.288963,-0.00770936,0.0540003,0.0379598,0.115969,-0.22666,-0.0189263,0.0105225,-0.000563744,0.419929,-2.31416,-2.10095,-0.754966,3.62496,1.10372,-0.11016,0.209842,-34.6214,0.238966,27.6254,1.09466,2.09191,0.0101778,
0.174973,0.00625148,0.127993,-2.08422,0.261463,0.292151,-0.00756529,0.110683,0.0260823,0.111553,-0.256653,-0.154221,0.283802,0.00871774,-0.823163,-0.442353,-0.811347,-0.146376,3.12195,-7.59243,0.0760444,11.3919,1.09661,11.4627,-24.2031,-1.72259,4.06397,0.0751701,0.173355,0.00586536,0.126353,-2.0801,0.26319,0.288963,-0.00770936,0.0540003,0.0379598,0.115969,-0.22666,-0.0189263,0.0105225,-0.000563744,0,0,0,0,0,0,0,0.209842,-34.6214,0.238966,27.6254,1.09466,2.09191,0.0101778,
0.175855,0.00643195,0.128881,-2.08623,0.260088,0.29433,-0.00749298,0.110599,0.0253776,0.111447,-0.255547,-0.15773,0.281527,0.00878187,-0.0526198,-0.440429,-0.0659799,0.691289,-2.19304,-1.42174,0.0400838,11.4178,1.01107,11.4842,-23.7691,-1.97962,3.88735,0.0782643,0.173355,0.00586536,0.126353,-2.0801,0.26319,0.288963,-0.00770936,0.0540003,0.0379598,0.115969,-0.22666,-0.0189263,0.0105225,-0.000563744,0,0,0,0,0,0,0,0.209842,-34.6214,0.238966,27.6254,1.09466,2.09191,0.0101778,
0.176759,0.00660228,0.12979,-2.08818,0.258512,0.296663,-0.00742145,0.111058,0.0245604,0.111863,-0.253234,-0.165595,0.283535,0.00881379,0.286634,-0.510749,0.260158,1.44539,-4.91552,1.25502,0.0199482,11.4253,0.910397,11.4876,-23.3427,-2.1474,3.72285,0.0805614,0.173355,0.00586536,0.126353,-2.0801,0.26319,0.288963,-0.00770936,0.0540003,0.0379598,0.115969,-0.22666,-0.0189263,0.0105225,-0.000563744,0,0,0,0,0,0,0,0.209842,-34.6214,0.238966,27.6254,1.09466,2.09191,0.0101778,
0.177671,0.00675835,0.130707,-2.09008,0.25681,0.299064,-0.00735061,0.111663,0.0235499,0.112414,-0.250053,-0.175016,0.286844,0.00882202,0.37797,-0.631542,0.34441,1.9881,-5.88782,2.06756,0.00514514,11.4178,0.718844,11.4692,-22.8382,-2.24287,3.61411,0.0826942,0.175148,0.00694492,0.130728,-2.08757,0.262905,0.289063,-0.00770489,0.0454355,0.0166011,0.127382,-0.216691,0.000244838,-0.000421599,0.00055757,-1.07059,-2.66983,1.42672,1.2462,2.39639,-1.36802,0.140164,0.0313145,-35.1213,0.139784,27.5262,1.10656,2.3565,-0.0301054,
0.176796,0.00711784,0.132399,-2.09151,0.261199,0.2921,-0.00755456,0.110788,0.0211765,0.111561,-0.249393,-0.167151,0.274834,0.0089494,-0.546337,-1.48338,-0.533382,0.412463,4.91559,-7.50583,0.0796096,11.4214,0.927775,11.481,-23.6857,-1.97058,3.92614,0.0780349,0.175148,0.00694492,0.130728,-2.08757,0.262905,0.289063,-0.00770489,0.0454355,0.0166011,0.127382,-0.216691,0.000244838,-0.000421599,0.00055757,0,0,0,0,0,0,0,0.0313145,-35.1213,0.139784,27.5262,1.10656,2.3565,-0.0301054,
0.17769,0.00722484,0.133299,-2.09344,0.259804,0.294225,-0.00748077,0.110988,0.0196161,0.111738,-0.247848,-0.168608,0.272981,0.00900408,0.124762,-0.975244,0.110746,0.965751,-0.911054,-1.15798,0.0341761,11.4289,0.827106,11.4843,-23.2593,-2.13836,3.76164,0.080332,0.175148,0.00694492,0.130728,-2.08757,0.262905,0.289063,-0.00770489,0.0454355,0.0166011,0.127382,-0.216691,0.000244838,-0.000421599,0.00055757,0,0,0,0,0,0,0,0.0313145,-35.1213,0.139784,27.5262,1.10656,2.3565,-0.0301054,
0.178602,0.00733572,0.134215,-2.09533,0.258216,0.296509,-0.00740865,0.111581,0.0184648,0.112287,-0.245419,-0.174573,0.275497,0.00900633,0.370493,-0.719559,0.342995,1.5181,-3.72777,1.57247,0.00140658,11.4178,0.718844,11.4692,-22.8382,-2.24287,3.61411,0.0826942,0.175148,0.00694492,0.130728,-2.08757,0.262905,0.289063,-0.00770489,0.0454355,0.0166011,0.127382,-0.216691,0.000244838,-0.000421599,0.00055757,0,0,0,0,0,0,0,0.0313145,-35.1213,0.139784,27.5262,1.10656,2.3565,-0.0301054,
0.179519,0.00744299,0.135136,-2.09717,0.25652,0.298866,-0.00733737,0.112203,0.0174536,0.112854,-0.242327,-0.182055,0.279326,0.00898705,0.388662,-0.631988,0.354626,1.9326,-4.67613,2.39276,-0.0120514,11.3844,0.607609,11.4319,-22.4215,-2.28471,3.47801,0.0842707,0.175148,0.00694492,0.130728,-2.08757,0.262905,0.289063,-0.00770489,0.0454355,0.0166011,0.127382,-0.216691,0.000244838,-0.000421599,0.00055757,0,0,0,0,0,0,0,0.0313145,-35.1213,0.139784,27.5262,1.10656,2.3565,-0.0301054,
0.176799,0.00712161,0.132401,-2.09145,0.26107,0.291947,-0.00754986,0.111248,0.0163034,0.111932,-0.242408,-0.174523,0.266626,0.00913083,-0.596959,-0.718897,-0.576758,-0.0502832,4.70718,-7.93747,0.0898617,11.4289,0.827106,11.4843,-23.2593,-2.13836,3.76164,0.080332,0.175148,0.00694492,0.130728,-2.08757,0.262905,0.289063,-0.00770489,0.0454355,0.0166011,0.127382,-0.216691,0.000244838,-0.000421599,0.00055757,0,0,0,0,0,0,0,0.0313145,-35.1213,0.139784,27.5262,1.10656,2.3565,-0.0301054,
0.177693,0.00722562,0.1333,-2.09335,0.259619,0.293975,-0.00747511,0.111337,0.015643,0.112007,-0.241474,-0.175876,0.264012,0.0091735,0.0558325,-0.412762,0.0469846,0.583508,-0.845352,-1.63368,0.0266677,11.4178,0.718844,11.4692,-22.8382,-2.24287,3.61411,0.0826942,0.175148,0.00694492,0.130728,-2.08757,0.262905,0.289063,-0.00770489,0.0454355,0.0166011,0.127382,-0.216691,0.000244838,-0.000421599,0.00055757,0,0,0,0,0,0,0,0.0313145,-35.1213,0.139784,27.5262,1.10656,2.3565,-0.0301054,
0.178601,0.00733164,0.134213,-2.09521,0.258,0.296162,-0.00740222,0.111793,0.015165,0.112426,-0.239565,-0.181197,0.265887,0.00916094,0.285312,-0.298769,0.262032,1.19318,-3.32614,1.17164,-0.00784621,11.3844,0.607609,11.4319,-22.4215,-2.28471,3.47801,0.0842707,0.175148,0.00694492,0.130728,-2.08757,0.262905,0.289063,-0.00770489,0.0454355,0.0166011,0.127382,-0.216691,0.000244838,-0.000421599,0.00055757,0,0,0,0,0,0,0,0.0313145,-35.1213,0.139784,27.5262,1.10656,2.3565,-0.0301054,
0.179514,0.00743316,0.135129,-2.09702,0.256298,0.298424,-0.00733074,0.112258,0.0146701,0.112841,-0.236911,-0.18751,0.269247,0.0091158,0.290201,-0.309273,0.25964,1.65878,-3.94506,2.10044,-0.0282128,11.3258,0.416915,11.363,-21.9318,-2.27902,3.39101,0.0855451,0.176574,0.00791707,0.135473,-2.09429,0.262896,0.289262,-0.00770982,0.0394258,0.0195123,0.133292,-0.185311,0.00663401,0.00808188,-0.000765334,-0.751213,0.363901,0.738673,3.92244,0.798646,1.06294,-0.165363,0.00751081,-33.4233,0.0644055,23.5153,0.971981,1.91887,0.0239107,
0.178218,0.00802255,0.13714,-2.09795,0.261136,0.292357,-0.00755448,0.111203,0.013047,0.111817,-0.235804,-0.178078,0.260881,0.0092469,-0.658992,-1.01445,-0.64008,0.691764,5.89499,-5.22895,0.0819342,11.413,0.637754,11.4578,-22.7625,-2.23778,3.64883,0.0825049,0.176574,0.00791707,0.135473,-2.09429,0.262896,0.289262,-0.00770982,0.0394258,0.0195123,0.133292,-0.185311,0.00663401,0.00808188,-0.000765334,0,0,0,0,0,0,0,0.00751081,-33.4233,0.0644055,23.5153,0.971981,1.91887,0.0239107,
0.179107,0.0080855,0.138033,-2.09978,0.259717,0.294446,-0.0074791,0.111182,0.0120114,0.111777,-0.234342,-0.177938,0.26092,0.00928192,-0.0133813,-0.647244,-0.0250289,0.913555,0.0872768,0.024402,0.0218869,11.3796,0.526519,11.4205,-22.3458,-2.27963,3.51273,0.0840815,0.176574,0.00791707,0.135473,-2.09429,0.262896,0.289262,-0.00770982,0.0394258,0.0195123,0.133292,-0.185311,0.00663401,0.00808188,-0.000765334,0,0,0,0,0,0,0,0.00751081,-33.4233,0.0644055,23.5153,0.971981,1.91887,0.0239107,
0.18001,0.00815367,0.138939,-2.10157,0.258137,0.296666,-0.00740612,0.111513,0.0113133,0.112066,-0.232255,-0.181841,0.264257,0.00925011,0.206874,-0.436307,0.180663,1.30445,-2.4396,2.0858,-0.0198756,11.3258,0.416915,11.363,-21.9318,-2.27902,3.39101,0.0855451,0.176574,0.00791707,0.135473,-2.09429,0.262896,0.289262,-0.00770982,0.0394258,0.0195123,0.133292,-0.185311,0.00663401,0.00808188,-0.000765334,0,0,0,0,0,0,0,0.00751081,-33.4233,0.0644055,23.5153,0.971981,1.91887,0.0239107,
0.180915,0.00822127,0.139847,-2.10332,0.256487,0.298943,-0.00733466,0.111843,0.0107408,0.112344,-0.229625,-0.186721,0.268326,0.00918649,0.206349,-0.357859,0.173498,1.64381,-3.04999,2.54317,-0.0397657,11.2475,0.227496,11.2769,-21.455,-2.23307,3.31053,0.0861759,0.178062,0.00846278,0.140033,-2.10044,0.262929,0.289241,-0.00770794,0.0353458,0.0139466,0.123517,-0.171659,0.016622,0.00133009,0.000209947,-0.510007,-0.695717,-1.22191,1.70657,1.2485,-0.843974,0.12191,-1.97216,-34.796,-1.8637,25.4077,0.752255,2.42974,-0.0026396,
0.179635,0.00848184,0.141628,-2.10395,0.261225,0.292298,-0.00754825,0.110097,0.00888117,0.110639,-0.228366,-0.176953,0.259762,0.00934748,-1.0914,-1.16224,-1.06526,0.787212,6.10511,-5.35275,0.100617,11.3768,0.442702,11.4135,-22.2806,-2.27511,3.54357,0.0839157,0.178062,0.00846278,0.140033,-2.10044,0.262929,0.289241,-0.00770794,0.0353458,0.0139466,0.123517,-0.171659,0.016622,0.00133009,0.000209947,0,0,0,0,0,0,0,-1.97216,-34.796,-1.8637,25.4077,0.752255,2.42974,-0.0026396,
0.180499,0.00850915,0.142496,-2.10573,0.259829,0.294371,-0.00747206,0.109669,0.00778773,0.110199,-0.226981,-0.176456,0.259628,0.00938272,-0.267272,-0.683403,-0.275555,0.865119,0.310841,-0.0839478,0.0220286,11.323,0.333098,11.3559,-21.8666,-2.27451,3.42185,0.0853792,0.178062,0.00846278,0.140033,-2.10044,0.262929,0.289241,-0.00770794,0.0353458,0.0139466,0.123517,-0.171659,0.016622,0.00133009,0.000209947,0,0,0,0,0,0,0,-1.97216,-34.796,-1.8637,25.4077,0.752255,2.42974,-0.0026396,
0.18138,0.00854641,0.14338,-2.10747,0.258284,0.296574,-0.00739864,0.109769,0.00716166,0.110259,-0.225088,-0.179798,0.262778,0.00934175,0.0623634,-0.39129,0.0377421,1.1834,-2.08911,1.96927,-0.0256085,11.2475,0.227496,11.2769,-21.455,-2.23307,3.31053,0.0861759,0.178062,0.00846278,0.140033,-2.10044,0.262929,0.289241,-0.00770794,0.0353458,0.0139466,0.123517,-0.171659,0.016622,0.00133009,0.000209947,0,0,0,0,0,0,0,-1.97216,-34.796,-1.8637,25.4077,0.752255,2.42974,-0.0026396,
0.182266,0.0085871,0.144268,-2.10917,0.256683,0.298831,-0.00732731,0.109972,0.00674668,0.11041,-0.222706,-0.183859,0.26665,0.00925671,0.126895,-0.259363,0.0947109,1.48861,-2.53791,2.41967,-0.0531474,11.15,0.0466172,11.1738,-20.9888,-2.16144,3.23607,0.0866606,0.179394,0.008669,0.144304,-2.10586,0.262905,0.289359,-0.00770641,0.038916,0.0136835,0.117632,-0.146898,0.00764355,-0.00117018,0.000298226,0.446276,-0.0328799,-0.735602,3.0951,-1.12231,-0.312534,0.0110349,0.233646,-33.225,0.238966,25.1855,0.97839,2.09832,-0.0163725,
0.180944,0.00861175,0.145874,-2.1092,0.261206,0.292497,-0.00754782,0.108298,0.0046844,0.10878,-0.220999,-0.17422,0.259362,0.00939637,-1.04618,-1.28892,-1.01878,1.06697,6.02415,-4.5552,0.087283,11.32,0.251405,11.3507,-21.8109,-2.2703,3.44688,0.0852519,0.179394,0.008669,0.144304,-2.10586,0.262905,0.289359,-0.00770641,0.038916,0.0136835,0.117632,-0.146898,0.00764355,-0.00117018,0.000298226,0,0,0,0,0,0,0,0.233646,-33.225,0.238966,25.1855,0.97839,2.09832,-0.0163725,
0.181795,0.0086021,0.146729,-2.11091,0.259849,0.294591,-0.00747172,0.10792,0.00350624,0.108391,-0.219561,-0.173317,0.259856,0.00941961,-0.236407,-0.736354,-0.243553,0.898925,0.564446,0.308856,0.0145257,11.2445,0.145802,11.2717,-21.3993,-2.22885,3.33556,0.0860486,0.179394,0.008669,0.144304,-2.10586,0.262905,0.289359,-0.00770641,0.038916,0.0136835,0.117632,-0.146898,0.00764355,-0.00117018,0.000298226,0,0,0,0,0,0,0,0.233646,-33.225,0.238966,25.1855,0.97839,2.09832,-0.0163725,
0.182663,0.00860666,0.147599,-2.11259,0.258359,0.296803,-0.0073987,0.108051,0.00291889,0.108484,-0.217792,-0.175886,0.263163,0.00936104,0.0816299,-0.367091,0.0580968,1.1053,-1.60541,2.06683,-0.036603,11.15,0.0466172,11.1738,-20.9888,-2.16144,3.23607,0.0866606,0.179394,0.008669,0.144304,-2.10586,0.262905,0.289359,-0.00770641,0.038916,0.0136835,0.117632,-0.146898,0.00764355,-0.00117018,0.000298226,0,0,0,0,0,0,0,0.233646,-33.225,0.238966,25.1855,0.97839,2.09832,-0.0163725,
0.183537,0.00861871,0.148474,-2.11425,0.256829,0.299058,-0.00732787,0.108271,0.00263637,0.108655,-0.215622,-0.178968,0.266913,0.00925979,0.13784,-0.176578,0.106953,1.35658,-1.92645,2.34376,-0.0632829,11.0345,-0.122876,11.0536,-20.5292,-2.06657,3.16875,0.086599,0.180715,0.00875787,0.148213,-2.11083,0.26293,0.289375,-0.0077031,0.0363177,0.00827721,0.105299,-0.141192,0.00816606,3.18539e-05,0.000650524,-0.324782,-0.675791,-1.54157,0.713283,0.0653133,0.150254,0.0440372,0.562931,-33.0742,0.588087,24.9594,0.855709,1.90606,-0.0163725,
0.182181,0.00864116,0.149699,-2.11407,0.261244,0.292494,-0.007542,0.106,0.000719625,0.106436,-0.214113,-0.169997,0.25925,0.00942114,-1.41952,-1.19796,-1.38673,0.943007,5.60681,-4.7895,0.100843,11.2423,0.0682313,11.2681,-21.3493,-2.22532,3.35867,0.0859282,0.180715,0.00875787,0.148213,-2.11083,0.26293,0.289375,-0.0077031,0.0363177,0.00827721,0.105299,-0.141192,0.00816606,3.18539e-05,0.000650524,0,0,0,0,0,0,0,0.562931,-33.0742,0.588087,24.9594,0.855709,1.90606,-0.0163725,
0.183001,0.00860804,0.150522,-2.11573,0.259916,0.294571,-0.00746572,0.105297,-0.000252447,0.105727,-0.212911,-0.169193,0.259348,0.00944389,-0.439014,-0.607545,-0.442889,0.751258,0.5024,0.0616551,0.0142228,11.1478,-0.0309539,11.1702,-20.9388,-2.15791,3.25917,0.0865401,0.180715,0.00875787,0.148213,-2.11083,0.26293,0.289375,-0.0077031,0.0363177,0.00827721,0.105299,-0.141192,0.00816606,3.18539e-05,0.000650524,0,0,0,0,0,0,0,0.562931,-33.0742,0.588087,24.9594,0.855709,1.90606,-0.0163725,
0.183843,0.00859191,0.151366,-2.11738,0.258473,0.296763,-0.00739282,0.105278,-0.000605099,0.105674,-0.211394,-0.171423,0.262277,0.00937767,-0.0120465,-0.220407,-0.0334934,0.948313,-1.39336,1.83054,-0.0413923,11.0345,-0.122876,11.0536,-20.5292,-2.06657,3.16875,0.086599,0.180715,0.00875787,0.148213,-2.11083,0.26293,0.289375,-0.0077031,0.0363177,0.00827721,0.105299,-0.141192,0.00816606,3.18539e-05,0.000650524,0,0,0,0,0,0,0,0.562931,-33.0742,0.588087,24.9594,0.855709,1.90606,-0.0163725,
0.184692,0.00858554,0.152216,-2.11899,0.257005,0.298998,-0.00732248,0.105456,-0.000643288,0.105805,-0.20947,-0.173853,0.265686,0.00926072,0.111283,-0.0238685,0.081744,1.20208,-1.519,2.13064,-0.0730896,10.905,-0.206598,10.9211,-20.12,-1.96156,3.08767,0.0864552,0.180715,0.00875787,0.148213,-2.11083,0.26293,0.289375,-0.0077031,0.0363177,0.00827721,0.105299,-0.141192,0.00816606,3.18539e-05,0.000650524,0,0,0,0,0,0,0,0.562931,-33.0742,0.588087,24.9594,0.855709,1.90606,-0.0163725,
0.184138,0.00884155,0.153149,-2.11845,0.261387,0.292535,-0.00755233,0.103951,-0.0021674,0.104342,-0.207919,-0.163707,0.258433,0.00939419,-0.941027,-0.952572,-0.913954,0.969475,6.34152,-4.53331,0.0834196,11.1461,-0.0957233,11.1664,-20.8889,-2.15353,3.28207,0.0864197,0.182646,0.00896838,0.151642,-2.11533,0.262913,0.28939,-0.00771049,0.0577821,0.0128909,0.0904114,-0.124634,0.0121369,-0.000495353,-0.000255951,2.68305,0.576706,-1.86099,2.06976,0.496352,-0.0659009,-0.113309,-0.0440639,-33.5979,-0.0109729,25.134,1.00311,1.85937,0.0239107,
0.184961,0.00879453,0.153974,-2.12007,0.260156,0.294605,-0.0074769,0.103725,-0.00290933,0.104105,-0.206839,-0.161751,0.258496,0.00940122,-0.141158,-0.463706,-0.148245,0.674944,1.2222,0.039269,0.004389,11.0328,-0.187645,11.0498,-20.4794,-2.06219,3.19165,0.0864787,0.182646,0.00896838,0.151642,-2.11533,0.262913,0.28939,-0.00771049,0.0577821,0.0128909,0.0904114,-0.124634,0.0121369,-0.000495353,-0.000255951,0,0,0,0,0,0,0,-0.0440639,-33.5979,-0.0109729,25.134,1.00311,1.85937,0.0239107,
0.185801,0.00876375,0.154816,-2.12167,0.258815,0.296779,-0.00740496,0.103985,-0.00309699,0.104328,-0.205491,-0.162907,0.261152,0.0093194,0.162921,-0.117284,0.139585,0.842435,-0.722309,1.66003,-0.0511332,10.9033,-0.271368,10.9173,-20.0701,-1.95718,3.11057,0.0863348,0.182646,0.00896838,0.151642,-2.11533,0.262913,0.28939,-0.00771049,0.0577821,0.0128909,0.0904114,-0.124634,0.0121369,-0.000495353,-0.000255951,0,0,0,0,0,0,0,-0.0440639,-33.5979,-0.0109729,25.134,1.00311,1.85937,0.0239107,
0.186646,0.008743,0.155661,-2.12324,0.257453,0.298991,-0.00733562,0.104311,-0.00299646,0.104605,-0.203744,-0.164386,0.26421,0.00918898,0.203535,0.062831,0.173156,1.09189,-0.924587,1.91119,-0.0815137,10.7587,-0.346928,10.7698,-19.661,-1.84066,3.03707,0.0857935,0.182646,0.00896838,0.151642,-2.11533,0.262913,0.28939,-0.00771049,0.0577821,0.0128909,0.0904114,-0.124634,0.0121369,-0.000495353,-0.000255951,0,0,0,0,0,0,0,-0.0440639,-33.5979,-0.0109729,25.134,1.00311,1.85937,0.0239107,
0.186166,0.00894011,0.156112,-2.12232,0.261427,0.292581,-0.00754609,0.10256,-0.00476678,0.102899,-0.20204,-0.155203,0.257377,0.00931973,-1.09469,-1.10645,-1.06627,1.06525,5.73985,-4.27017,0.0817171,11.0315,-0.247703,11.0468,-20.437,-2.05895,3.21062,0.0863817,0.184713,0.00912808,0.154645,-2.11931,0.262912,0.289417,-0.00770273,0.0524809,0.0088481,0.0908997,-0.114423,0.00562254,0.00109274,0.000122809,-0.662649,-0.505345,0.0610387,1.27636,-0.814292,0.198511,0.0473451,0.868412,-32.3482,0.889601,23.9874,1.01501,1.64696,-0.00996382,
0.186971,0.00886842,0.156919,-2.12389,0.260255,0.294648,-0.00747146,0.102153,-0.00560564,0.102484,-0.200951,-0.153442,0.257581,0.00932146,-0.253928,-0.524287,-0.259729,0.680749,1.1002,0.12731,0.00108131,10.9021,-0.331426,10.9143,-20.0278,-1.95394,3.12954,0.0862378,0.184713,0.00912808,0.154645,-2.11931,0.262912,0.289417,-0.00770273,0.0524809,0.0088481,0.0908997,-0.114423,0.00562254,0.00109274,0.000122809,0,0,0,0,0,0,0,0.868412,-32.3482,0.889601,23.9874,1.01501,1.64696,-0.00996382,
0.187793,0.00881642,0.157743,-2.12545,0.258991,0.296813,-0.00740039,0.102285,-0.00578452,0.102581,-0.199667,-0.154371,0.260207,0.00923399,0.0826536,-0.111797,0.060706,0.802112,-0.58034,1.64101,-0.0546653,10.7575,-0.406986,10.7668,-19.6187,-1.83741,3.05604,0.0856966,0.184713,0.00912808,0.154645,-2.11931,0.262912,0.289417,-0.00770273,0.0524809,0.0088481,0.0908997,-0.114423,0.00562254,0.00109274,0.000122809,0,0,0,0,0,0,0,0.868412,-32.3482,0.889601,23.9874,1.01501,1.64696,-0.00996382,
0.188621,0.00877728,0.158571,-2.12698,0.257714,0.299013,-0.00733208,0.102521,-0.00560619,0.102771,-0.198023,-0.155412,0.263147,0.00909487,0.147472,0.111453,0.118485,1.02765,-0.650511,1.83745,-0.0869549,10.6001,-0.474326,10.6066,-19.2095,-1.71591,2.98955,0.0849478,0.184713,0.00912808,0.154645,-2.11931,0.262912,0.289417,-0.00770273,0.0524809,0.0088481,0.0908997,-0.114423,0.00562254,0.00109274,0.000122809,0,0,0,0,0,0,0,0.868412,-32.3482,0.889601,23.9874,1.01501,1.64696,-0.00996382,
0.187935,0.00891136,0.159161,-2.12637,0.261444,0.292466,-0.00754386,0.10043,-0.00714495,0.100729,-0.19692,-0.147405,0.254616,0.00924107,-1.30706,-0.961725,-1.27622,0.689347,5.00432,-5.33174,0.0913768,10.9028,-0.395019,10.9143,-19.9859,-1.95063,3.15085,0.0861414,0.186542,0.00913366,0.157754,-2.12338,0.262904,0.289455,-0.00770166,0.0439656,0.00104108,0.0892558,-0.123076,0.00513249,-0.00067217,0.000903002,-1.06441,-0.975878,-0.205478,-1.08171,-0.0612564,-0.220613,0.0975241,1.34845,-31.9237,1.36171,23.4915,1.08825,1.44829,-0.0163725,
0.188714,0.00883154,0.159943,-2.12791,0.260319,0.294467,-0.0074698,0.0998351,-0.00771144,0.100127,-0.196176,-0.146047,0.253715,0.00924437,-0.37192,-0.354056,-0.375765,0.464928,0.848463,-0.562871,0.00206155,10.7582,-0.47058,10.7667,-19.5768,-1.8341,3.07733,0.0856,0.186542,0.00913366,0.157754,-2.12338,0.262904,0.289455,-0.00770166,0.0439656,0.00104108,0.0892558,-0.123076,0.00513249,-0.00067217,0.000903002,0,0,0,0,0,0,0,1.34845,-31.9237,1.36171,23.4915,1.08825,1.44829,-0.0163725,
0.189515,0.00877262,0.160744,-2.12944,0.259117,0.296576,-0.00739959,0.0998758,-0.00764205,0.100136,-0.195113,-0.146887,0.255717,0.00915071,0.0254506,0.0433679,0.00506311,0.664425,-0.52491,1.25091,-0.0585347,10.6008,-0.537921,10.6065,-19.1677,-1.7126,3.01082,0.084851,0.186542,0.00913366,0.157754,-2.12338,0.262904,0.289455,-0.00770166,0.0439656,0.00104108,0.0892558,-0.123076,0.00513249,-0.00067217,0.000903002,0,0,0,0,0,0,0,1.34845,-31.9237,1.36171,23.4915,1.08825,1.44829,-0.0163725,
0.190322,0.008727,0.161552,-2.13094,0.257914,0.298729,-0.00733231,0.100082,-0.00725412,0.100298,-0.19361,-0.147578,0.258374,0.00900258,0.12901,0.24246,0.10132,0.939367,-0.431839,1.66074,-0.0925809,10.432,-0.597515,10.435,-18.7584,-1.58821,2.95036,0.0838071,0.186542,0.00913366,0.157754,-2.12338,0.262904,0.289455,-0.00770166,0.0439656,0.00104108,0.0892558,-0.123076,0.00513249,-0.00067217,0.000903002,0,0,0,0,0,0,0,1.34845,-31.9237,1.36171,23.4915,1.08825,1.44829,-0.0163725,
0.187923,0.00891767,0.159148,-2.12632,0.261527,0.292393,-0.00754577,0.0982897,-0.0083953,0.098552,-0.192792,-0.139804,0.249769,0.00914191,-1.12031,-0.713243,-1.09101,0.511684,4.85854,-5.37823,0.0870793,10.7596,-0.536806,10.7672,-19.528,-1.83637,3.12158,0.0855146,0.18781,0.00915577,0.161311,-2.1276,0.262906,0.289517,-0.007705,0.033086,0.000341609,0.111936,-0.129255,0.00590095,0.000304301,0.00147537,-1.35995,-0.0874333,2.83502,-0.772287,0.0960573,0.122059,0.0715457,1.07074,-32.3006,1.13954,23.7891,1.11297,1.48858,-0.0163725,
0.188693,0.00883922,0.15992,-2.12784,0.260471,0.294351,-0.00747283,0.0978792,-0.00867759,0.0981348,-0.192216,-0.138243,0.248782,0.00913697,-0.256588,-0.176428,-0.260776,0.359778,0.975987,-0.616414,-0.00308751,10.6023,-0.604162,10.607,-19.1189,-1.71482,3.05485,0.0847641,0.18781,0.00915577,0.161311,-2.1276,0.262906,0.289517,-0.007705,0.033086,0.000341609,0.111936,-0.129255,0.00590095,0.000304301,0.00147537,0,0,0,0,0,0,0,1.07074,-32.3006,1.13954,23.7891,1.11297,1.48858,-0.0163725,
0.189482,0.00878062,0.16071,-2.12934,0.259348,0.296421,-0.00740379,0.0980302,-0.00840716,0.0982537,-0.191251,-0.138684,0.250765,0.00903563,0.0943932,0.169019,0.0743521,0.602847,-0.276058,1.23907,-0.0633367,10.4334,-0.66376,10.4354,-18.7097,-1.59041,2.99417,0.0837188,0.18781,0.00915577,0.161311,-2.1276,0.262906,0.289517,-0.007705,0.033086,0.000341609,0.111936,-0.129255,0.00590095,0.000304301,0.00147537,0,0,0,0,0,0,0,1.07074,-32.3006,1.13954,23.7891,1.11297,1.48858,-0.0163725,
