xiao-wang007/linearmpc_panda/paper_data/panda_inverse_dynamics_controller_error_match_to_start_low_pass_acceleration/2/trajectory.csv
Commanded Joint 0 Position,Commanded Joint 1 Position,Commanded Joint 2 Position,Commanded Joint 3 Position,Commanded Joint 4 Position,Commanded Joint 5 Position,Commanded Joint 6 Position,Commanded Joint 0 Velocity,Commanded Joint 1 Velocity,Commanded Joint 2 Velocity,Commanded Joint 3 Velocity,Commanded Joint 4 Velocity,Commanded Joint 5 Velocity,Commanded Joint 6 Velocity,Commanded Joint 0 Acceleration,Commanded Joint 1 Acceleration,Commanded Joint 2 Acceleration,Commanded Joint 3 Acceleration,Commanded Joint 4 Acceleration,Commanded Joint 5 Acceleration,Commanded Joint 6 Acceleration,Commanded Joint 0 Torque,Commanded Joint 1 Torque,Commanded Joint 2 Torque,Commanded Joint 3 Torque,Commanded Joint 4 Torque,Commanded Joint 5 Torque,Commanded Joint 6 Torque,Actual Joint 0 Position,Actual Joint 1 Position,Actual Joint 2 Position,Actual Joint 3 Position,Actual Joint 4 Position,Actual Joint 5 Position,Actual Joint 6 Position,Actual Joint 0 Velocity,Actual Joint 1 Velocity,Actual Joint 2 Velocity,Actual Joint 3 Velocity,Actual Joint 4 Velocity,Actual Joint 5 Velocity,Actual Joint 6 Velocity,Actual Joint 0 Acceleration,Actual Joint 1 Acceleration,Actual Joint 2 Acceleration,Actual Joint 3 Acceleration,Actual Joint 4 Acceleration,Actual Joint 5 Acceleration,Actual Joint 6 Acceleration,Actual Joint 0 Torque,Actual Joint 1 Torque,Actual Joint 2 Torque,Actual Joint 3 Torque,Actual Joint 4 Torque,Actual Joint 5 Torque,Actual Joint 6 Torque,
-0.0260161,-0.0236387,0.0229952,-1.80902,0.0175298,0.255435,0.0513168,0.000668545,0.0214772,0.000684697,-0.0332402,-0.0048833,0.053475,-0.00037539,0.417841,13.4233,0.427936,-20.7751,-3.05206,33.4219,-0.234619,0.0566858,23.7474,0.0998704,-24.4085,-0.678867,1.89836,-0.0243911,-0.0260692,-0.0252554,0.0229406,-1.80558,0.0177976,0.249716,0.0513621,-0.000668028,-0.000692671,-0.000513281,-0.000136739,0.0114314,-0.000683574,0.000885897,0,0,0,0,0,0,0,0.106693,-34.669,-0.0625476,27.1017,0.514218,3.11913,-0.0227812,
-0.0260691,-0.0252638,0.0229405,-1.80558,0.0179027,0.249707,0.0513636,0.000560106,0.0171287,0.000572097,-0.0265626,-0.00341331,0.0427427,-0.00029563,-0.0677743,-2.71782,-0.0703753,4.17351,0.918743,-6.70765,0.0498504,0.050931,24.188,0.0895148,-24.3249,-0.67896,1.64755,-0.022875,-0.0260692,-0.0252554,0.0229406,-1.80558,0.0177976,0.249716,0.0513621,-0.000668028,-0.000692671,-0.000513281,-0.000136739,0.0114314,-0.000683574,0.000885897,0,0,0,0,0,0,0,0.106693,-34.669,-0.0625476,27.1017,0.514218,3.11913,-0.0227812,
-0.0260679,-0.0252655,0.0229417,-1.80558,0.0179153,0.249706,0.0513637,0.000478701,0.0136606,0.000487833,-0.0212262,-0.00241564,0.0341809,-0.000234137,-0.0508784,-2.16758,-0.0526651,3.33526,0.62354,-5.35116,0.0384328,0.0437198,24.7595,0.0777792,-24.2168,-0.678246,1.30006,-0.0209062,-0.0260692,-0.0252554,0.0229406,-1.80558,0.0177976,0.249716,0.0513621,-0.000668028,-0.000692671,-0.000513281,-0.000136739,0.0114314,-0.000683574,0.000885897,0,0,0,0,0,0,0,0.106693,-34.669,-0.0625476,27.1017,0.514218,3.11913,-0.0227812,
-0.0260666,-0.0252668,0.0229429,-1.80558,0.0179236,0.249706,0.0513638,0.000413347,0.0108946,0.000420441,-0.0169616,-0.00172395,0.0273454,-0.000186173,-0.0408461,-1.72874,-0.0421199,2.66532,0.432312,-4.27218,0.0299774,0.037798,25.2861,0.0682091,-24.0487,-0.676017,0.915515,-0.0189079,-0.0260686,-0.0251639,0.0229409,-1.80561,0.0177995,0.249716,0.0513612,-0.000417037,0.00209899,2.92604e-05,0.000415557,0.0149413,0.000414134,0.000313666,0.0313739,0.348958,0.0678176,0.0690369,0.438734,0.137214,-0.0715288,0.0551182,-34.4707,-0.110155,27.0541,0.507809,3.11913,0.0239107,
-0.0260495,-0.0247439,0.0229594,-1.80617,0.0176966,0.249982,0.0513669,0.000807925,0.0192151,0.000798966,-0.0274952,-0.00395179,0.0285135,-7.74908e-06,0.246611,5.2003,0.236578,-6.5835,-1.3924,0.730083,0.111515,1.45929e-05,29.906,0.0450499,-23.3129,-1.06585,-2.30761,0.0010436,-0.0260686,-0.0251639,0.0229409,-1.80561,0.0177995,0.249716,0.0513612,-0.000417037,0.00209899,2.92604e-05,0.000415557,0.0149413,0.000414134,0.000313666,0,0,0,0,0,0,0,0.0551182,-34.4707,-0.110155,27.0541,0.507809,3.11913,0.0239107,
-0.0260884,-0.0243366,0.0229233,-1.8064,0.0185608,0.249334,0.0513508,-0.00032586,0.0255568,-0.000262175,-0.0277116,0.0184456,0.00661186,-0.000408476,-0.708616,3.96354,-0.663213,-0.135239,13.9984,-13.6885,-0.250455,0.483184,0.181777,0.481062,-0.288966,3.16354,-2.00135,-0.00225005,-0.0260686,-0.0251639,0.0229409,-1.80561,0.0177995,0.249716,0.0513612,-0.000417037,0.00209899,2.92604e-05,0.000415557,0.0149413,0.000414134,0.000313666,0,0,0,0,0,0,0,0.0551182,-34.4707,-0.110155,27.0541,0.507809,3.11913,0.0239107,
-0.0261472,-0.0240109,0.022866,-1.80654,0.0200064,0.24827,0.0513402,-0.00173015,0.0285865,-0.00164189,-0.0257884,0.0508942,-0.0213091,-0.000591042,-0.877684,1.89361,-0.862321,1.20198,20.2804,-17.4506,-0.114103,0.479339,0.179305,0.477165,-0.287302,3.13422,-1.98416,-0.00218271,-0.0260686,-0.0251639,0.0229409,-1.80561,0.0177995,0.249716,0.0513612,-0.000417037,0.00209899,2.92604e-05,0.000415557,0.0149413,0.000414134,0.000313666,0,0,0,0,0,0,0,0.0551182,-34.4707,-0.110155,27.0541,0.507809,3.11913,0.0239107,
-0.0262067,-0.023759,0.0228071,-1.80666,0.021794,0.246981,0.051334,-0.00287145,0.0291662,-0.00278597,-0.0234813,0.0854054,-0.0492588,-0.000628543,-0.713307,0.362259,-0.715051,1.44194,21.5695,-17.4685,-0.0234385,0.47414,0.205762,0.470455,-0.276513,3.10654,-1.96038,-0.00214812,-0.0260726,-0.0242987,0.0229359,-1.80595,0.017796,0.249967,0.0513607,-0.00197436,0.0781692,2.1976e-05,-0.0194725,0.00618533,0.0214057,0.000906777,-0.194665,9.50878,-0.00091054,-2.48601,-1.0945,2.62395,0.0741388,0.182071,-26.4092,-0.0109729,19.6036,0.495907,1.89232,-0.00996382,
-0.0260618,-0.0234388,0.0229472,-1.80669,0.0176271,0.250277,0.0513649,-0.00202729,0.0448303,-0.0019465,-0.0372074,0.0641017,-0.0316548,-0.000398004,0.527599,9.79008,0.524666,-8.57877,-13.3148,11.0025,0.144087,-0.000349002,29.9332,0.0431331,-23.3048,-1.06536,-2.30101,0.00100963,-0.0260726,-0.0242987,0.0229359,-1.80595,0.017796,0.249967,0.0513607,-0.00197436,0.0781692,2.1976e-05,-0.0194725,0.00618533,0.0214057,0.000906777,0,0,0,0,0,0,0,0.182071,-26.4092,-0.0109729,19.6036,0.495907,1.89232,-0.00996382,
-0.0261877,-0.0226794,0.0228304,-1.80686,0.0207006,0.247534,0.0513125,-0.00476849,0.0548495,-0.00447655,-0.0341536,0.12812,-0.0939108,-0.00162994,-1.71325,6.26204,-1.58128,1.90862,40.0114,-38.91,-0.769962,4.16253,0.915577,4.18116,-1.90919,10.9346,-9.60966,-0.00750204,-0.0260726,-0.0242987,0.0229359,-1.80595,0.017796,0.249967,0.0513607,-0.00197436,0.0781692,2.1976e-05,-0.0194725,0.00618533,0.0214057,0.000906777,0,0,0,0,0,0,0,0.182071,-26.4092,-0.0109729,19.6036,0.495907,1.89232,-0.00996382,
-0.0263377,-0.0221146,0.0226857,-1.80695,0.0257348,0.243151,0.0512804,-0.0075661,0.0580004,-0.00719895,-0.0295108,0.228349,-0.184705,-0.0021052,-1.74851,1.96926,-1.7015,2.90172,62.643,-56.7465,-0.297037,4.10513,0.983209,4.12589,-1.8423,10.9346,-9.40362,-0.00656877,-0.0260726,-0.0242987,0.0229359,-1.80595,0.017796,0.249967,0.0513607,-0.00197436,0.0781692,2.1976e-05,-0.0194725,0.00618533,0.0214057,0.000906777,0,0,0,0,0,0,0,0.182071,-26.4092,-0.0109729,19.6036,0.495907,1.89232,-0.00996382,
-0.0264572,-0.0217017,0.0225692,-1.80704,0.0318996,0.237796,0.0512637,-0.0090399,0.0567226,-0.00867191,-0.0258974,0.336801,-0.281627,-0.00210201,-0.921126,-0.798633,-0.9206,2.25837,67.7826,-60.576,0.00199695,4.03679,1.02741,4.05802,-1.78184,10.7583,-9.19402,-0.00599019,-0.0260726,-0.0242987,0.0229359,-1.80595,0.017796,0.249967,0.0513607,-0.00197436,0.0781692,2.1976e-05,-0.0194725,0.00618533,0.0214057,0.000906777,0,0,0,0,0,0,0,0.182071,-26.4092,-0.0109729,19.6036,0.495907,1.89232,-0.00996382,
-0.0260618,-0.0234388,0.0229472,-1.80669,0.0176271,0.250277,0.0513649,-0.00696205,0.0668754,-0.00665526,-0.0391403,0.265218,-0.217549,-0.00157678,1.29866,6.34553,1.26041,-8.27676,-44.7392,40.0485,0.32827,-0.00106584,29.9688,0.040571,-23.3,-1.06502,-2.29095,0.000958741,-0.0260494,-0.0232607,0.0229578,-1.80721,0.0178259,0.250306,0.0513574,-9.07265e-05,0.0795123,0.000412464,-0.0511764,0.011423,-0.00840029,0.00213809,0.235454,0.167887,0.0488109,-3.96299,0.654707,-3.72575,0.153914,0.00751081,-29.3291,-0.185533,22.3688,0.484005,2.34368,0.0101778,
-0.0257084,-0.0228253,0.0233135,-1.80715,0.0198083,0.24664,0.05141,0.0032644,0.0688378,0.00383353,-0.0427398,0.266703,-0.264963,-0.000134613,6.39154,1.22647,6.55549,-2.24974,0.928312,-29.6334,0.901352,28.2545,0.93726,28.454,-12.0576,10.935,-14.291,0.0653886,-0.0260494,-0.0232607,0.0229578,-1.80721,0.0178259,0.250306,0.0513574,-9.07265e-05,0.0795123,0.000412464,-0.0511764,0.011423,-0.00840029,0.00213809,0,0,0,0,0,0,0,0.00751081,-29.3291,-0.185533,22.3688,0.484005,2.34368,0.0101778,
-0.0250653,-0.0223879,0.0239747,-1.80753,0.0236671,0.240508,0.0514696,0.0186907,0.0660063,0.0195957,-0.0439041,0.309834,-0.365275,0.00138286,9.64143,-1.76967,9.85138,-0.727677,26.957,-62.6953,0.948418,26.9568,2.11842,27.2185,-10.1965,10.935,-14.291,0.0748309,-0.0260494,-0.0232607,0.0229578,-1.80721,0.0178259,0.250306,0.0513574,-9.07265e-05,0.0795123,0.000412464,-0.0511764,0.011423,-0.00840029,0.00213809,0,0,0,0,0,0,0,0.00751081,-29.3291,-0.185533,22.3688,0.484005,2.34368,0.0101778,
-0.026029,-0.0223391,0.0229785,-1.80806,0.0176687,0.25033,0.051363,0.0154639,0.0758446,0.0161942,-0.0562619,0.243937,-0.291638,0.00124575,-2.01677,6.14895,-2.12593,-7.7236,-41.186,46.0232,-0.0856917,-0.00106584,29.9688,0.040571,-23.3,-1.06502,-2.29095,0.000958741,-0.0260494,-0.0232607,0.0229578,-1.80721,0.0178259,0.250306,0.0513574,-9.07265e-05,0.0795123,0.000412464,-0.0511764,0.011423,-0.00840029,0.00213809,0,0,0,0,0,0,0,0.00751081,-29.3291,-0.185533,22.3688,0.484005,2.34368,0.0101778,
-0.0254177,-0.0219261,0.0236025,-1.80915,0.0194276,0.246912,0.0516242,0.0276546,0.0709994,0.0285556,-0.0724241,0.239122,-0.318758,0.00752599,7.61919,-3.02828,7.72582,-10.1014,-3.00905,-16.9503,3.92515,40.9842,-2.49961,41.2254,-22.5079,10.9321,-14.2584,0.318681,-0.0259788,-0.0206475,0.0229957,-1.80975,0.018771,0.249218,0.051351,0.00318051,0.110977,0.00133737,-0.093856,0.0775589,-0.064849,-0.000297675,0.408905,3.93307,0.115613,-5.33495,8.26699,-7.05609,-0.30447,0.233646,-29.0553,0.112013,26.0306,1.18621,2.54876,0.0779268,
-0.0244044,-0.0217081,0.0246248,-1.81028,0.0228253,0.241034,0.0517624,0.0474552,0.0622509,0.048403,-0.0860846,0.276242,-0.401939,0.00947764,12.3754,-5.46777,12.4046,-8.53786,23.1997,-51.9877,1.21978,36.1231,0.330025,36.2881,-20.6513,10.9321,-14.2584,0.155551,-0.0259788,-0.0206475,0.0229957,-1.80975,0.018771,0.249218,0.051351,0.00318051,0.110977,0.00133737,-0.093856,0.0775589,-0.064849,-0.000297675,0,0,0,0,0,0,0,0.233646,-29.0553,0.112013,26.0306,1.18621,2.54876,0.0779268,
-0.0231166,-0.0215354,0.0259237,-1.81137,0.027539,0.233468,0.0518247,0.0701587,0.0541165,0.0711951,-0.0962397,0.338834,-0.510699,0.0091377,14.1897,-5.08401,14.245,-6.34689,39.1202,-67.9753,-0.212464,32.8153,2.42908,32.99,-18.7463,10.9321,-14.2584,0.0665457,-0.0259788,-0.0206475,0.0229957,-1.80975,0.018771,0.249218,0.051351,0.00318051,0.110977,0.00133737,-0.093856,0.0775589,-0.064849,-0.000297675,0,0,0,0,0,0,0,0.233646,-29.0553,0.112013,26.0306,1.18621,2.54876,0.0779268,
-0.0259316,-0.0194849,0.0230428,-1.81079,0.0189167,0.248779,0.0513589,0.0573073,0.0723597,0.0581326,-0.103122,0.27471,-0.419538,0.00750927,-8.03214,11.402,-8.16403,-4.30143,-40.0777,56.9759,-1.01776,-0.00401946,30.056,0.0330206,-23.2802,-1.06786,-2.25843,0.000775752,-0.0259788,-0.0206475,0.0229957,-1.80975,0.018771,0.249218,0.051351,0.00318051,0.110977,0.00133737,-0.093856,0.0775589,-0.064849,-0.000297675,0,0,0,0,0,0,0,0.233646,-29.0553,0.112013,26.0306,1.18621,2.54876,0.0779268,
-0.0251377,-0.0191472,0.0238425,-1.8126,0.0206149,0.245412,0.0517499,0.0656929,0.0663299,0.0664998,-0.127708,0.262222,-0.419795,0.0157813,5.24101,-3.76861,5.22951,-15.3665,-7.80472,-0.160509,5.17,48.9177,-6.62945,49.0541,-32.4898,10.9024,-14.1896,0.470552,-0.0255633,-0.0180447,0.0237014,-1.8141,0.0270703,0.24231,0.0513532,0.0350774,0.0863692,0.0720502,-0.134103,0.347278,-0.270673,-0.00120548,3.98711,-3.07595,8.83911,-5.03089,33.7149,-25.728,-0.113476,10.1241,-36.0179,9.83583,33.132,2.03491,3.01293,0.0577852,
-0.0238946,-0.0190448,0.025097,-1.81446,0.0238765,0.23959,0.0519045,0.0836328,0.0556225,0.0845623,-0.14874,0.291317,-0.481386,0.0164916,11.2124,-6.6921,11.2891,-13.1447,18.1843,-38.4948,0.443975,41.0152,-2.17969,41.1936,-29.5986,10.9024,-14.1896,0.164633,-0.0255633,-0.0180447,0.0237014,-1.8141,0.0270703,0.24231,0.0513532,0.0350774,0.0863692,0.0720502,-0.134103,0.347278,-0.270673,-0.00120548,0,0,0,0,0,0,0,10.1241,-36.0179,9.83583,33.132,2.03491,3.01293,0.0577852,
-0.0225854,-0.0184729,0.0267046,-1.81867,0.0347061,0.231958,0.0519872,0.109761,0.0379984,0.110776,-0.176884,0.341443,-0.540788,0.0169058,16.3302,-11.0151,16.3838,-17.5901,31.3284,-37.1263,0.25886,55.2808,-8.46573,55.4882,-41.0301,10.9024,-14.1896,0.571947,-0.0255633,-0.0180447,0.0237014,-1.8141,0.0270703,0.24231,0.0513532,0.0350774,0.0863692,0.0720502,-0.134103,0.347278,-0.270673,-0.00120548,0,0,0,0,0,0,0,10.1241,-36.0179,9.83583,33.132,2.03491,3.01293,0.0577852,
-0.0206313,-0.0186661,0.0286713,-1.82093,0.0401167,0.224227,0.0519463,0.136662,0.0255687,0.137789,-0.197979,0.40842,-0.62591,0.0125025,16.813,-7.76856,16.8826,-13.1841,41.8606,-53.2012,-2.75205,44.7997,-2.0097,44.9762,-36.881,10.9024,-14.1896,0.143664,-0.0255633,-0.0180447,0.0237014,-1.8141,0.0270703,0.24231,0.0513532,0.0350774,0.0863692,0.0720502,-0.134103,0.347278,-0.270673,-0.00120548,0,0,0,0,0,0,0,10.1241,-36.0179,9.83583,33.132,2.03491,3.01293,0.0577852,
-0.0185495,-0.0187827,0.0307672,-1.82316,0.0464449,0.215494,0.0518244,0.161376,0.0175398,0.162629,-0.21426,0.48494,-0.719065,0.00695391,15.4462,-5.01808,15.525,-10.1761,47.8254,-58.2219,-3.46789,38.6766,1.0823,38.8521,-34.1601,10.9152,-14.0546,-0.0694188,-0.0231294,-0.0154709,0.0274358,-1.81949,0.0362353,0.23196,0.051358,0.131711,0.0146107,0.229396,-0.165804,0.310876,-0.383016,0.00151037,12.0792,-8.96982,19.6682,-3.96259,-4.55026,-14.0429,0.339481,22.6766,-39.6361,22.1344,30.3152,3.50067,2.03881,-0.0301054,
-0.016407,-0.0188576,0.0329246,-1.82542,0.0534964,0.206104,0.0517114,0.182663,0.0121603,0.184039,-0.22797,0.564241,-0.809986,0.00273777,13.3047,-3.3622,13.3818,-8.5687,49.5632,-56.8258,-2.63508,34.766,1.93788,34.9462,-32.4761,10.9152,-14.0546,-0.158135,-0.0231294,-0.0154709,0.0274358,-1.81949,0.0362353,0.23196,0.051358,0.131711,0.0146107,0.229396,-0.165804,0.310876,-0.383016,0.00151037,0,0,0,0,0,0,0,22.6766,-39.6361,22.1344,30.3152,3.50067,2.03881,-0.0301054,
-0.0176412,-0.0159416,0.0329769,-1.82528,0.0523342,0.211992,0.051059,0.194821,0.00565536,0.196291,-0.233405,0.612108,-0.848109,-0.000688031,7.59853,-4.06556,7.65711,-3.39657,29.9165,-23.8267,-2.14113,38.6766,1.0823,38.8521,-34.1601,10.9152,-14.0546,-0.0694188,-0.0231294,-0.0154709,0.0274358,-1.81949,0.0362353,0.23196,0.051358,0.131711,0.0146107,0.229396,-0.165804,0.310876,-0.383016,0.00151037,0,0,0,0,0,0,0,22.6766,-39.6361,22.1344,30.3152,3.50067,2.03881,-0.0301054,
-0.0156565,-0.0161083,0.0349762,-1.82743,0.0594903,0.203171,0.0509475,0.205472,0.000355313,0.207014,-0.240374,0.668588,-0.899026,-0.00333993,6.65713,-3.31253,6.70187,-4.356,35.3003,-31.8232,-1.65744,34.766,1.93788,34.9462,-32.4761,10.9152,-14.0546,-0.158135,-0.0231294,-0.0154709,0.0274358,-1.81949,0.0362353,0.23196,0.051358,0.131711,0.0146107,0.229396,-0.165804,0.310876,-0.383016,0.00151037,0,0,0,0,0,0,0,22.6766,-39.6361,22.1344,30.3152,3.50067,2.03881,-0.0301054,
-0.0136811,-0.0162562,0.0369659,-1.82963,0.0671973,0.193752,0.0508005,0.213763,-0.00341215,0.215354,-0.247443,0.727548,-0.954698,-0.00634484,5.18156,-2.35466,5.21281,-4.41767,36.8498,-34.795,-1.87807,32.0282,1.48981,32.2098,-31.5367,10.9573,-13.9265,-0.139745,-0.0187876,-0.014098,0.0345237,-1.8285,0.0392705,0.219245,0.0513587,0.159809,-0.0372533,0.309796,-0.267276,0.176428,-0.449938,0.00539364,3.51226,-6.483,10.05,-12.6841,-16.806,-8.36527,0.485408,20.5739,-38.8902,19.9841,28.6728,2.75543,1.03081,0.00376909,
-0.011738,-0.0163616,0.0389232,-1.83185,0.0752949,0.183889,0.050635,0.219589,-0.00536524,0.221216,-0.253422,0.784477,-1.01034,-0.00921502,3.64143,-1.22068,3.6637,-3.73723,35.5806,-34.7731,-1.79386,29.1591,0.543885,29.3349,-31.3128,10.9573,-13.9265,-0.13401,-0.0187876,-0.014098,0.0345237,-1.8285,0.0392705,0.219245,0.0513587,0.159809,-0.0372533,0.309796,-0.267276,0.176428,-0.449938,0.00539364,0,0,0,0,0,0,0,20.5739,-38.8902,19.9841,28.6728,2.75543,1.03081,0.00376909,
-0.0149044,-0.0144599,0.0384519,-1.83249,0.0485032,0.20582,0.0510919,0.224789,-0.00850804,0.226484,-0.253174,0.763268,-0.994565,-0.0105246,3.24976,-1.96425,3.29233,0.154913,-13.2559,9.85627,-0.818461,34.8629,1.96915,35.0437,-32.368,10.9573,-13.9265,-0.158823,-0.0187876,-0.014098,0.0345237,-1.8285,0.0392705,0.219245,0.0513587,0.159809,-0.0372533,0.309796,-0.267276,0.176428,-0.449938,0.00539364,0,0,0,0,0,0,0,20.5739,-38.8902,19.9841,28.6728,2.75543,1.03081,0.00376909,
-0.0129295,-0.0146328,0.0404418,-1.83461,0.0550503,0.197388,0.050974,0.229202,-0.0111282,0.230934,-0.255406,0.774293,-1.00645,-0.0113671,2.75831,-1.63763,2.78131,-1.39501,6.89079,-7.42618,-0.526578,32.0282,1.48981,32.2098,-31.5367,10.9573,-13.9265,-0.139745,-0.0187876,-0.014098,0.0345237,-1.8285,0.0392705,0.219245,0.0513587,0.159809,-0.0372533,0.309796,-0.267276,0.176428,-0.449938,0.00539364,0,0,0,0,0,0,0,20.5739,-38.8902,19.9841,28.6728,2.75543,1.03081,0.00376909,
-0.0109753,-0.0147895,0.0424104,-1.83678,0.0623796,0.188256,0.0508236,0.232216,-0.0128216,0.233962,-0.258745,0.802666,-1.03347,-0.0128541,1.88376,-1.05832,1.89269,-2.08648,17.7335,-16.8892,-0.929402,29.3439,0.655429,29.5327,-31.2322,11.038,-13.672,-0.134247,-0.0101917,-0.0163998,0.0483024,-1.84157,0.0487161,0.194145,0.0513448,0.248674,-0.0986977,0.374096,-0.380874,0.383244,-0.887638,-0.00123199,11.1081,-7.68055,8.03755,-14.1997,25.8521,-54.7124,-0.828204,10.5565,-38.065,10.6134,26.5305,2.81677,1.28899,0.0907442,
-0.00360591,-0.017154,0.0549489,-1.84847,0.0681645,0.16609,0.0508761,0.237787,-0.0140734,0.23958,-0.26307,0.830857,-1.07366,-0.0146684,3.48154,-0.782401,3.51125,-2.70356,17.6192,-25.1196,-1.13391,29.3439,0.655429,29.5327,-31.2322,11.038,-13.672,-0.134247,-0.0101917,-0.0163998,0.0483024,-1.84157,0.0487161,0.194145,0.0513448,0.248674,-0.0986977,0.374096,-0.380874,0.383244,-0.887638,-0.00123199,0,0,0,0,0,0,0,10.5565,-38.065,10.6134,26.5305,2.81677,1.28899,0.0907442,
-0.00161254,-0.0172473,0.0569576,-1.85071,0.0762524,0.156025,0.0507085,0.240064,-0.0135921,0.241884,-0.266453,0.866882,-1.11054,-0.0159232,1.42312,0.300833,1.4395,-2.11407,22.5157,-23.0522,-0.784251,26.5894,0.493515,26.7717,-30.7325,11.038,-13.672,-0.179094,-0.0101917,-0.0163998,0.0483024,-1.84157,0.0487161,0.194145,0.0513448,0.248674,-0.0986977,0.374096,-0.380874,0.383244,-0.887638,-0.00123199,0,0,0,0,0,0,0,10.5565,-38.065,10.6134,26.5305,2.81677,1.28899,0.0907442,
0.000309569,-0.0172994,0.0588948,-1.85299,0.0846629,0.146211,0.0505603,0.240104,-0.0121755,0.241936,-0.270199,0.903769,-1.13379,-0.0164442,0.0250139,0.885379,0.0326159,-2.34138,23.0543,-14.5294,-0.325648,24.6209,0.771515,24.7997,-29.9323,11.038,-13.672,-0.202113,-0.0101917,-0.0163998,0.0483024,-1.84157,0.0487161,0.194145,0.0513448,0.248674,-0.0986977,0.374096,-0.380874,0.383244,-0.887638,-0.00123199,0,0,0,0,0,0,0,10.5565,-38.065,10.6134,26.5305,2.81677,1.28899,0.0907442,
0.00217223,-0.0173223,0.0607722,-1.85536,0.093263,0.137255,0.0504315,0.238649,-0.0103124,0.240485,-0.27544,0.938017,-1.13093,-0.0163759,-0.9089,1.16441,-0.906964,-3.27556,21.4048,1.79007,0.0427228,23.2467,0.579247,23.4408,-29.0301,10.9515,-13.1106,-0.197723,-0.0015424,-0.0194727,0.0626205,-1.85612,0.0684525,0.158761,0.0513576,0.212519,-0.136645,0.371596,-0.367139,0.552653,-1.04186,0.00114327,-4.51934,-4.74336,-0.312474,1.71687,21.1761,-19.2784,0.296908,-6.8916,-35.9187,-6.8109,23.1186,1.49749,1.19012,0.017502,
0.0062343,-0.0208279,0.0704805,-1.86516,0.098082,0.123662,0.0507768,0.236094,-0.0125903,0.237971,-0.278942,0.95761,-1.09406,-0.0159408,-1.59691,-1.42367,-1.57112,-2.18847,12.246,23.0454,0.271937,23.2467,0.579247,23.4408,-29.0301,10.9515,-13.1106,-0.197723,-0.0015424,-0.0194727,0.0626205,-1.85612,0.0684525,0.158761,0.0513576,0.212519,-0.136645,0.371596,-0.367139,0.552653,-1.04186,0.00114327,0,0,0,0,0,0,0,-6.8916,-35.9187,-6.8109,23.1186,1.49749,1.19012,0.017502,
0.00798391,-0.0209416,0.0722462,-1.86756,0.106574,0.117284,0.0506787,0.232616,-0.0129159,0.234518,-0.28308,0.978398,-1.03472,-0.0152056,-2.17414,-0.203488,-2.15815,-2.58654,12.9924,37.0871,0.459487,22.2209,0.546511,22.4118,-28.3501,10.9515,-11.7191,-0.177487,-0.0015424,-0.0194727,0.0626205,-1.85612,0.0684525,0.158761,0.0513576,0.212519,-0.136645,0.371596,-0.367139,0.552653,-1.04186,0.00114327,0,0,0,0,0,0,0,-6.8916,-35.9187,-6.8109,23.1186,1.49749,1.19012,0.017502,
0.00968423,-0.0210107,0.0739623,-1.86998,0.11517,0.112104,0.0505965,0.228601,-0.0120585,0.230518,-0.286955,0.997614,-0.957263,-0.0142198,-2.50943,0.535842,-2.49999,-2.42156,12.0101,48.4083,0.616142,21.3232,0.364081,21.5107,-27.7612,10.9515,-9.09869,-0.15672,-0.0015424,-0.0194727,0.0626205,-1.85612,0.0684525,0.158761,0.0513576,0.212519,-0.136645,0.371596,-0.367139,0.552653,-1.04186,0.00114327,0,0,0,0,0,0,0,-6.8916,-35.9187,-6.8109,23.1186,1.49749,1.19012,0.017502,
0.0113397,-0.0210471,0.0756334,-1.8724,0.12381,0.108071,0.0505269,0.224267,-0.0105563,0.226192,-0.289966,1.01408,-0.866648,-0.0131164,-2.70842,0.938918,-2.70352,-1.88192,10.2897,56.6343,0.689603,20.5204,0.029118,20.7042,-27.3214,10.9515,-6.84967,-0.135253,-0.0015424,-0.0194727,0.0626205,-1.85612,0.0684525,0.158761,0.0513576,0.212519,-0.136645,0.371596,-0.367139,0.552653,-1.04186,0.00114327,0,0,0,0,0,0,0,-6.8916,-35.9187,-6.8109,23.1186,1.49749,1.19012,0.017502,
0.000570996,-0.0200389,0.0647664,-1.85838,0.0746189,0.149317,0.0511832,0.232249,-0.0226008,0.234602,-0.288477,0.965423,-0.929414,-0.0148547,4.98844,-7.52786,5.25591,0.930588,-30.4092,-39.2292,-1.08647,23.2624,0.298079,23.473,-28.8392,10.9,-12.8852,-0.198946,0.00730641,-0.0211363,0.0780519,-1.8678,0.0865081,0.123339,0.0513513,0.195615,-0.102849,0.405142,-0.351964,0.529298,-1.06989,-0.00185026,-2.11304,4.22442,4.19317,1.89694,-2.91934,-3.50314,-0.374191,-11.204,-27.5597,-11.159,15.069,0.679012,-0.640024,0.11821,
0.00254831,-0.0204015,0.0667614,-1.86056,0.0818798,0.13989,0.0510251,0.235232,-0.0271455,0.237556,-0.285271,0.953861,-0.979225,-0.015834,1.86447,-2.84041,1.84669,2.00359,-7.22639,-31.1314,-0.612041,22.2367,0.265343,22.4441,-28.1591,10.9,-11.4937,-0.17871,0.00730641,-0.0211363,0.0780519,-1.8678,0.0865081,0.123339,0.0513513,0.195615,-0.102849,0.405142,-0.351964,0.529298,-1.06989,-0.00185026,0,0,0,0,0,0,0,-11.204,-27.5597,-11.159,15.069,0.679012,-0.640024,0.11821,
0.0044273,-0.0206543,0.0686572,-1.86282,0.0897941,0.131235,0.0508904,0.23516,-0.0280355,0.23744,-0.284746,0.960946,-0.999747,-0.016035,-0.0447244,-0.556219,-0.0726296,0.328211,4.42831,-12.8263,-0.125602,21.3389,0.0829126,21.543,-27.5703,10.9,-8.87323,-0.157944,0.00730641,-0.0211363,0.0780519,-1.8678,0.0865081,0.123339,0.0513513,0.195615,-0.102849,0.405142,-0.351964,0.529298,-1.06989,-0.00185026,0,0,0,0,0,0,0,-11.204,-27.5597,-11.159,15.069,0.679012,-0.640024,0.11821,
0.0132288,-0.0219991,0.0840526,-1.87497,0.107716,0.101159,0.050976,0.234145,-0.0267689,0.23643,-0.287768,0.965724,-0.957437,-0.0154558,-0.634374,0.791617,-0.631553,-1.88888,2.9862,26.4435,0.362009,21.3389,0.0829126,21.543,-27.5703,10.9,-8.87323,-0.157944,0.00730641,-0.0211363,0.0780519,-1.8678,0.0865081,0.123339,0.0513513,0.195615,-0.102849,0.405142,-0.351964,0.529298,-1.06989,-0.00185026,0,0,0,0,0,0,0,-11.204,-27.5597,-11.159,15.069,0.679012,-0.640024,0.11821,
0.0149839,-0.0221135,0.0858254,-1.87738,0.115958,0.0960469,0.0508895,0.231194,-0.0242744,0.233463,-0.290548,0.978615,-0.893742,-0.0145264,-1.8444,1.55905,-1.85382,-1.73733,8.05679,39.8094,0.580851,20.3727,-0.675182,20.5865,-26.9598,10.7212,-6.44697,-0.137754,0.0129151,-0.0221213,0.0908745,-1.87882,0.107042,0.0885389,0.0513826,0.143823,-0.0075875,0.327027,-0.306762,0.638676,-0.907197,0.00668166,-6.47403,11.9077,-9.76431,5.65027,13.6722,20.3366,1.06649,-6.9154,-30.9517,-7.03703,22.7933,0.905148,2.41692,-0.130813,
0.0166725,-0.022187,0.0875312,-1.87979,0.124393,0.0920828,0.0508172,0.227171,-0.0212589,0.229416,-0.292609,0.993776,-0.814095,-0.0134284,-2.51472,1.88471,-2.5298,-1.28822,9.47546,49.7791,0.686261,19.6524,-1.02203,19.8619,-26.6008,10.7212,-4.52789,-0.120791,0.0129151,-0.0221213,0.0908745,-1.87882,0.107042,0.0885389,0.0513826,0.143823,-0.0075875,0.327027,-0.306762,0.638676,-0.907197,0.00668166,0,0,0,0,0,0,0,-6.9154,-30.9517,-7.03703,22.7933,0.905148,2.41692,-0.130813,
0.0183059,-0.0222319,0.0891814,-1.88217,0.132924,0.0891797,0.0507597,0.222571,-0.0181299,0.224789,-0.29362,1.00829,-0.723854,-0.0121816,-2.8746,1.95561,-2.89198,-0.632206,9.06872,56.4012,0.779256,19.0105,-1.28882,19.2156,-26.2719,10.7212,-2.90342,-0.101495,0.0129151,-0.0221213,0.0908745,-1.87882,0.107042,0.0885389,0.0513826,0.143823,-0.0075875,0.327027,-0.306762,0.638676,-0.907197,0.00668166,0,0,0,0,0,0,0,-6.9154,-30.9517,-7.03703,22.7933,0.905148,2.41692,-0.130813,
0.0193452,-0.0221079,0.0973969,-1.88876,0.136562,0.0730306,0.0511141,0.216051,-0.0136923,0.218261,-0.295245,1.00735,-0.633197,-0.0108939,-4.07526,2.7735,-4.08004,-1.0156,-0.582277,56.6604,0.804822,19.0105,-1.28882,19.2156,-26.2719,10.7212,-2.90342,-0.101495,0.0129151,-0.0221213,0.0908745,-1.87882,0.107042,0.0885389,0.0513826,0.143823,-0.0075875,0.327027,-0.306762,0.638676,-0.907197,0.00668166,0,0,0,0,0,0,0,-6.9154,-30.9517,-7.03703,22.7933,0.905148,2.41692,-0.130813,
0.0208268,-0.0220694,0.0988954,-1.89111,0.144757,0.0717802,0.0510813,0.209879,-0.00999078,0.212071,-0.294902,1.01075,-0.537818,-0.00953466,-3.85714,2.31343,-3.86821,0.214659,2.12287,59.612,0.8495,18.3661,-1.72657,18.5729,-25.7866,10.5765,-1.37773,-0.086555,0.0168799,-0.0216248,0.100337,-1.88631,0.131893,0.0624096,0.0513606,0.130029,0.0132984,0.298277,-0.218555,0.77053,-0.846965,-0.000779237,-1.72415,2.61074,-3.59374,11.0258,16.4817,7.529,-0.932612,-3.11474,-36.0179,-3.56169,22.2696,0.855709,0.798269,0.0779268,
0.0222744,-0.0220287,0.10036,-1.89339,0.153047,0.0713164,0.0510595,0.204095,-0.0069764,0.206264,-0.292925,1.01585,-0.441851,-0.0081737,-3.61547,1.88398,-3.62986,1.2358,3.18809,59.9791,0.850597,17.8409,-1.7753,18.0433,-25.4511,10.5765,-0.244183,-0.0686801,0.0168799,-0.0216248,0.100337,-1.88631,0.131893,0.0624096,0.0513606,0.130029,0.0132984,0.298277,-0.218555,0.77053,-0.846965,-0.000779237,0,0,0,0,0,0,0,-3.11474,-36.0179,-3.56169,22.2696,0.855709,0.798269,0.0779268,
0.0236903,-0.0219879,0.101792,-1.8956,0.161389,0.0715191,0.0510489,0.198673,-0.00455954,0.200816,-0.289633,1.02123,-0.348412,-0.00680253,-3.38856,1.51054,-3.40466,2.0573,3.36339,58.3992,0.856981,17.3554,-1.73419,17.5538,-25.1039,10.5765,0.691132,-0.0537715,0.0168799,-0.0216248,0.100337,-1.88631,0.131893,0.0624096,0.0513606,0.130029,0.0132984,0.298277,-0.218555,0.77053,-0.846965,-0.000779237,0,0,0,0,0,0,0,-3.11474,-36.0179,-3.56169,22.2696,0.855709,0.798269,0.0779268,
0.0228931,-0.0217962,0.106436,-1.89569,0.16283,0.0541077,0.0512445,0.194774,-0.00355827,0.196905,-0.288456,1.02032,-0.287875,-0.00570304,-2.43706,0.62579,-2.44468,0.735732,-0.570513,37.8357,0.687182,17.3554,-1.73419,17.5538,-25.1039,10.5765,0.691132,-0.0537715,0.0168799,-0.0216248,0.100337,-1.88631,0.131893,0.0624096,0.0513606,0.130029,0.0132984,0.298277,-0.218555,0.77053,-0.846965,-0.000779237,0,0,0,0,0,0,0,-3.11474,-36.0179,-3.56169,22.2696,0.855709,0.798269,0.0779268,
0.0242903,-0.021775,0.10785,-1.89788,0.17106,0.0544868,0.0512439,0.19075,-0.00231642,0.192864,-0.285525,1.022,-0.220823,-0.00457664,-2.5149,0.776157,-2.52552,1.83152,1.04953,41.9077,0.704001,16.843,-2.00784,17.0403,-24.5417,10.4098,1.53837,-0.039451,0.0198123,-0.02069,0.109117,-1.89214,0.157399,0.0413935,0.0513658,0.064973,0.0976378,0.236524,-0.170838,0.760925,-0.422282,0.00509968,-8.13205,10.5424,-7.7191,5.96471,-1.20061,53.0854,0.734865,0.233646,-32.8243,-0.0387439,28.0222,0.697323,4.92913,0.0239107,
0.0256537,-0.0217441,0.109229,-1.89999,0.179343,0.0554594,0.0512539,0.186685,-0.00108126,0.188779,-0.281309,1.02467,-0.152343,-0.00341143,-2.54065,0.771975,-2.55323,2.63548,1.66854,42.7997,0.728253,16.4215,-1.84657,16.6151,-24.1771,10.4098,2.14558,-0.0256222,0.0198123,-0.02069,0.109117,-1.89214,0.157399,0.0413935,0.0513658,0.064973,0.0976378,0.236524,-0.170838,0.760925,-0.422282,0.00509968,0,0,0,0,0,0,0,0.233646,-32.8243,-0.0387439,28.0222,0.697323,4.92913,0.0239107,
0.0245486,-0.0198597,0.113935,-1.90092,0.187038,0.0421293,0.0513925,0.179113,0.00270116,0.181174,-0.27822,1.01423,-0.0903415,-0.00214283,-4.73245,2.36401,-4.75281,1.9305,-6.52502,38.7512,0.792878,16.0254,-1.65255,16.2153,-23.8087,10.4098,2.62107,-0.0110501,0.0198123,-0.02069,0.109117,-1.89214,0.157399,0.0413935,0.0513658,0.064973,0.0976378,0.236524,-0.170838,0.760925,-0.422282,0.00509968,0,0,0,0,0,0,0,0.233646,-32.8243,-0.0387439,28.0222,0.697323,4.92913,0.0239107,
0.0257332,-0.019735,0.115135,-1.90297,0.194943,0.0438223,0.051425,0.172906,0.00527976,0.174932,-0.273765,1.00901,-0.0299477,-0.000899424,-3.87941,1.61163,-3.90132,2.7844,-3.2606,37.7461,0.777129,15.6445,-1.445,15.8308,-23.4402,10.4098,2.99441,0.00178828,0.0198123,-0.02069,0.109117,-1.89214,0.157399,0.0413935,0.0513658,0.064973,0.0976378,0.236524,-0.170838,0.760925,-0.422282,0.00509968,0,0,0,0,0,0,0,0.233646,-32.8243,-0.0387439,28.0222,0.697323,4.92913,0.0239107,
0.0269054,-0.0196257,0.116322,-1.90494,0.202939,0.045848,0.051466,0.16763,0.00695626,0.169624,-0.26841,1.0071,0.0266825,0.000303265,-3.29756,1.04781,-3.31742,3.34689,-1.19261,35.3938,0.751681,15.286,-1.41912,15.4652,-22.9421,10.2868,3.32662,0.0139777,0.0218652,-0.0187544,0.116278,-1.89714,0.184991,0.0373419,0.0513603,0.053231,0.120599,0.207175,-0.13688,0.73248,0.120704,0.0005862,-1.46775,2.87015,-3.6687,4.24464,-3.55564,67.8732,-0.564185,-2.70611,-35.2443,-3.08562,34.7229,1.64398,4.5913,0.0376436,
0.0280591,-0.0195293,0.11749,-1.90685,0.211001,0.048125,0.0515126,0.162946,0.0079749,0.164909,-0.262527,1.00724,0.078273,0.00140743,-2.9271,0.636651,-2.94682,3.67679,0.0833384,32.2441,0.690106,14.9121,-1.20811,15.0876,-22.5814,10.2868,3.5467,0.0282303,0.0218652,-0.0187544,0.116278,-1.89714,0.184991,0.0373419,0.0513603,0.053231,0.120599,0.207175,-0.13688,0.73248,0.120704,0.0005862,0,0,0,0,0,0,0,-2.70611,-35.2443,-3.08562,34.7229,1.64398,4.5913,0.0376436,
0.0269144,-0.0174744,0.121415,-1.90658,0.22179,0.0497339,0.0515762,0.155559,0.0101198,0.157457,-0.2554,0.999789,0.130453,0.00244732,-4.61698,1.34057,-4.65787,4.45441,-4.65525,32.6124,0.649931,14.4976,-0.998005,14.6694,-22.2275,10.2868,3.69611,0.0407618,0.0218652,-0.0187544,0.116278,-1.89714,0.184991,0.0373419,0.0513603,0.053231,0.120599,0.207175,-0.13688,0.73248,0.120704,0.0005862,0,0,0,0,0,0,0,-2.70611,-35.2443,-3.08562,34.7229,1.64398,4.5913,0.0376436,
0.0279366,-0.0173433,0.12245,-1.90832,0.229143,0.0524696,0.0516309,0.150003,0.0113723,0.151844,-0.247764,0.983666,0.172754,0.00332407,-3.47296,0.782825,-3.50822,4.77216,-10.0768,26.4385,0.547966,14.0486,-0.799936,14.219,-21.889,10.2868,3.7992,0.0521985,0.0218652,-0.0187544,0.116278,-1.89714,0.184991,0.0373419,0.0513603,0.053231,0.120599,0.207175,-0.13688,0.73248,0.120704,0.0005862,0,0,0,0,0,0,0,-2.70611,-35.2443,-3.08562,34.7229,1.64398,4.5913,0.0376436,
0.0289741,-0.0172294,0.1235,-1.90998,0.235848,0.0552049,0.0516833,0.145939,0.0119457,0.147731,-0.239871,0.95455,0.206585,0.00397029,-2.53974,0.358377,-2.57057,4.93315,-18.1975,21.1441,0.403887,13.5582,-0.636623,13.7237,-21.5745,10.2025,3.83521,0.060115,0.0237079,-0.0174692,0.122843,-1.90145,0.20685,0.0456655,0.0513588,0.0438104,0.128635,0.17225,-0.110164,0.600423,0.407511,0.00111684,-1.17758,1.00453,-4.36562,3.33956,-16.5071,35.8509,0.0663295,-3.95184,-34.4469,-4.21233,33.378,1.52771,4.69109,0.050461,
0.0270801,-0.0162136,0.126284,-1.90824,0.232153,0.0593904,0.0515569,0.139047,0.0143672,0.140804,-0.233484,0.91653,0.244168,0.00451135,-4.30734,1.5134,-4.32911,3.99203,-23.7622,23.4892,0.338163,13.0482,-0.412334,13.2064,-21.2396,10.2025,3.84505,0.0669848,0.0237079,-0.0174692,0.122843,-1.90145,0.20685,0.0456655,0.0513588,0.0438104,0.128635,0.17225,-0.110164,0.600423,0.407511,0.00111684,0,0,0,0,0,0,0,-3.95184,-34.4469,-4.21233,33.378,1.52771,4.69109,0.050461,
0.0280061,-0.0160574,0.127222,-1.90984,0.237654,0.0623975,0.0516089,0.134389,0.0154008,0.136109,-0.226887,0.87076,0.270512,0.00491001,-2.91126,0.645995,-2.9346,4.12316,-28.6067,16.4653,0.249162,12.513,-0.17172,12.6672,-20.8947,10.0287,3.80434,0.0672527,0.0237079,-0.0174692,0.122843,-1.90145,0.20685,0.0456655,0.0513588,0.0438104,0.128635,0.17225,-0.110164,0.600423,0.407511,0.00111684,0,0,0,0,0,0,0,-3.95184,-34.4469,-4.21233,33.378,1.52771,4.69109,0.050461,
0.028958,-0.015928,0.128186,-1.91139,0.242463,0.0652785,0.0516594,0.131309,0.0155547,0.13299,-0.220298,0.816831,0.288435,0.00519088,-1.92494,0.0962122,-1.94895,4.1184,-33.7056,11.2014,0.175545,12.0214,0.0656877,12.185,-20.5416,8.30894,3.742,0.0664759,0.0237079,-0.0174692,0.122843,-1.90145,0.20685,0.0456655,0.0513588,0.0438104,0.128635,0.17225,-0.110164,0.600423,0.407511,0.00111684,0,0,0,0,0,0,0,-3.95184,-34.4469,-4.21233,33.378,1.52771,4.69109,0.050461,
0.0299277,-0.0158186,0.129168,-1.9129,0.246555,0.0680476,0.05171,0.129289,0.0151784,0.130931,-0.213882,0.755745,0.299974,0.00541814,-1.26296,-0.235205,-1.28715,4.00987,-38.1786,7.21238,0.142038,11.6002,0.294714,11.7672,-20.1831,6.86559,3.6449,0.0626488,0.0237079,-0.0174692,0.122843,-1.90145,0.20685,0.0456655,0.0513588,0.0438104,0.128635,0.17225,-0.110164,0.600423,0.407511,0.00111684,0,0,0,0,0,0,0,-3.95184,-34.4469,-4.21233,33.378,1.52771,4.69109,0.050461,
0.0281793,-0.0141127,0.130509,-1.90941,0.238561,0.0795392,0.0515464,0.123199,0.0138556,0.124799,-0.206323,0.689983,0.327071,0.0056244,-3.80614,-0.826712,-3.83254,4.72415,-41.1013,16.9356,0.128911,11.587,0.408443,11.7415,-20.2745,6.80271,3.57713,0.0636561,0.0252965,-0.0146537,0.127568,-1.90396,0.223137,0.063032,0.0513595,0.0451644,0.0913089,0.12373,-0.0497728,0.394076,0.605029,0.000211716,0.169256,-4.66579,-6.06503,7.54891,-25.7933,24.6897,-0.11314,-2.63073,-38.6403,-2.88725,34.826,1.91314,4.23333,0.0440523,
0.0290086,-0.0140528,0.131349,-1.9108,0.241464,0.0827237,0.0515987,0.119292,0.0125831,0.120848,-0.199877,0.624538,0.34127,0.00580587,-2.44182,-0.79533,-2.46937,4.0289,-40.9029,8.87383,0.11342,11.263,0.614371,11.4178,-19.9103,5.52364,3.46401,0.061381,0.0252965,-0.0146537,0.127568,-1.90396,0.223137,0.063032,0.0513595,0.0451644,0.0913089,0.12373,-0.0497728,0.394076,0.605029,0.000211716,0,0,0,0,0,0,0,-2.63073,-38.6403,-2.88725,34.826,1.91314,4.23333,0.0440523,
0.029868,-0.0139968,0.132219,-1.91218,0.243829,0.0856681,0.0516525,0.116918,0.0114671,0.118429,-0.194295,0.558776,0.346625,0.00598945,-1.48383,-0.697493,-1.5115,3.48882,-41.1013,3.34713,0.114736,11.026,0.788121,11.1792,-19.5469,4.40453,3.35042,0.0595394,0.0252965,-0.0146537,0.127568,-1.90396,0.223137,0.063032,0.0513595,0.0451644,0.0913089,0.12373,-0.0497728,0.394076,0.605029,0.000211716,0,0,0,0,0,0,0,-2.63073,-38.6403,-2.88725,34.826,1.91314,4.23333,0.0440523,
0.0307489,-0.0139421,0.13311,-1.91354,0.245674,0.0884154,0.0517073,0.115556,0.0105408,0.117024,-0.189419,0.493144,0.345983,0.00616196,-0.850818,-0.578958,-0.878253,3.04718,-41.0198,-0.401021,0.107817,10.8593,0.923643,11.0099,-19.1859,3.39949,3.2363,0.0599823,0.0252965,-0.0146537,0.127568,-1.90396,0.223137,0.063032,0.0513595,0.0451644,0.0913089,0.12373,-0.0497728,0.394076,0.605029,0.000211716,0,0,0,0,0,0,0,-2.63073,-38.6403,-2.88725,34.826,1.91314,4.23333,0.0440523,
0.0284307,-0.0126206,0.132915,-1.90901,0.237412,0.0989384,0.0515046,0.10889,0.00432804,0.110323,-0.181883,0.444108,0.373941,0.00622266,-4.1664,-3.88297,-4.18806,4.70999,-30.6478,17.4733,0.0379372,10.9939,0.965873,11.1335,-19.6748,4.36877,3.25451,0.0610242,0.026617,-0.0119681,0.131063,-1.90559,0.231625,0.0856707,0.0513663,0.034358,-0.0240689,0.104539,-0.0756662,0.0972786,0.68503,-0.00103273,-1.3508,-14.4222,-2.39878,-3.23668,-37.0997,10.0001,-0.155556,-0.627255,-35.7958,-0.736986,32.8583,1.8637,2.92046,-0.0301054,
0.029141,-0.0127353,0.133635,-1.91025,0.239149,0.102418,0.0515591,0.104868,0.000594727,0.106266,-0.176444,0.39872,0.386137,0.00634044,-2.51359,-2.33332,-2.53591,3.39942,-28.3677,7.6226,0.0736162,10.8272,1.10139,10.9642,-19.3139,3.36374,3.14038,0.0614671,0.026617,-0.0119681,0.131063,-1.90559,0.231625,0.0856707,0.0513663,0.034358,-0.0240689,0.104539,-0.0756662,0.0972786,0.68503,-0.00103273,0,0,0,0,0,0,0,-0.627255,-35.7958,-0.736986,32.8583,1.8637,2.92046,-0.0301054,
0.0298958,-0.0128103,0.1344,-1.9115,0.240556,0.10557,0.0516152,0.102767,-0.0013985,0.104128,-0.172442,0.354153,0.387719,0.00647345,-1.31349,-1.24576,-1.33597,2.50131,-27.8542,0.98863,0.0831301,10.7102,1.20009,10.8437,-18.9589,2.49473,3.03108,0.0619854,0.026617,-0.0119681,0.131063,-1.90559,0.231625,0.0856707,0.0513663,0.034358,-0.0240689,0.104539,-0.0756662,0.0972786,0.68503,-0.00103273,0,0,0,0,0,0,0,-0.627255,-35.7958,-0.736986,32.8583,1.8637,2.92046,-0.0301054,
0.0306864,-0.0128537,0.1352,-1.91276,0.241601,0.108455,0.0516731,0.101977,-0.00220501,0.103303,-0.169431,0.309444,0.382286,0.00662768,-0.493374,-0.504071,-0.515753,1.88222,-27.9433,-3.39538,0.0963922,10.6281,1.2636,10.7577,-18.6093,1.72449,2.92363,0.0641011,0.026617,-0.0119681,0.131063,-1.90559,0.231625,0.0856707,0.0513663,0.034358,-0.0240689,0.104539,-0.0756662,0.0972786,0.68503,-0.00103273,0,0,0,0,0,0,0,-0.627255,-35.7958,-0.736986,32.8583,1.8637,2.92046,-0.0301054,
0.0301859,-0.0113196,0.136128,-1.91313,0.228397,0.132757,0.0516436,0.0979928,-0.00348218,0.0992518,-0.163864,0.237256,0.381069,0.00688522,-2.49041,-0.798233,-2.53209,3.47915,-45.1174,-0.760443,0.160961,10.538,1.48967,10.6561,-18.4302,1.08252,2.70106,0.0670546,0.0275176,-0.0106413,0.133412,-1.90801,0.229961,0.112234,0.0513573,0.0200877,-0.0116608,0.0663923,-0.0548485,-0.138463,0.799746,-0.0033231,-1.7838,1.55102,-4.76837,2.60221,-29.4677,14.3395,-0.286295,0.309024,-34.796,0.211195,24.6857,1.13678,1.00426,0.0101778,
0.030883,-0.0113601,0.136833,-1.91428,0.227844,0.135436,0.051708,0.0958196,-0.00379949,0.0970168,-0.159925,0.175996,0.371838,0.00712002,-1.35824,-0.198316,-1.39687,2.46198,-38.2877,-5.76929,0.146755,10.4867,1.49714,10.6003,-18.0926,0.516293,2.60093,0.0696918,0.0275176,-0.0106413,0.133412,-1.90801,0.229961,0.112234,0.0513573,0.0200877,-0.0116608,0.0663923,-0.0548485,-0.138463,0.799746,-0.0033231,0,0,0,0,0,0,0,0.309024,-34.796,0.211195,24.6857,1.13678,1.00426,0.0101778,
0.0316104,-0.0113772,0.137567,-1.91545,0.227158,0.137849,0.0517729,0.0948416,-0.00346633,0.0959809,-0.157096,0.123649,0.357794,0.00731834,-0.611237,0.208223,-0.647434,1.76826,-32.7166,-8.77777,0.123948,10.4372,1.48407,10.546,-17.7608,0.0507015,2.50624,0.0715995,0.0275176,-0.0106413,0.133412,-1.90801,0.229961,0.112234,0.0513573,0.0200877,-0.0116608,0.0663923,-0.0548485,-0.138463,0.799746,-0.0033231,0,0,0,0,0,0,0,0.309024,-34.796,0.211195,24.6857,1.13678,1.00426,0.0101778,
0.0323596,-0.011375,0.138323,-1.91662,0.226353,0.140043,0.0518383,0.094603,-0.00271737,0.0956877,-0.154991,0.0787757,0.341084,0.0074893,-0.149136,0.468101,-0.183249,1.31564,-28.0458,-10.4438,0.106851,10.3854,1.45409,10.4894,-17.4331,-0.345603,2.4134,0.0740514,0.0275176,-0.0106413,0.133412,-1.90801,0.229961,0.112234,0.0513573,0.0200877,-0.0116608,0.0663923,-0.0548485,-0.138463,0.799746,-0.0033231,0,0,0,0,0,0,0,0.309024,-34.796,0.211195,24.6857,1.13678,1.00426,0.0101778,
0.0309113,-0.0113775,0.136849,-1.91354,0.223285,0.133743,0.0517441,0.0924561,-0.00365262,0.0934672,-0.149968,0.0331416,0.332037,0.00763495,-1.34182,-0.584533,-1.38781,3.13905,-28.5213,-5.65407,0.09103,10.2506,1.48403,10.3415,-16.9014,-0.882406,2.1158,0.0782831,0.0284187,-0.010058,0.135118,-1.91028,0.22401,0.140437,0.0513448,0.0232593,-0.00059341,0.0523653,-0.0627745,-0.180548,0.78507,-0.00109882,0.39646,1.38342,-1.75338,-0.990751,-5.26055,-1.83444,0.278034,0.967594,-32.4513,0.786451,18.1595,0.795284,-0.619882,0.0907442,
0.0316016,-0.0114138,0.137545,-1.91459,0.222078,0.135848,0.0518093,0.0912223,-0.00383133,0.0921674,-0.146331,-0.00366421,0.318251,0.00773988,-0.771133,-0.111692,-0.812392,2.27294,-23.0036,-8.61674,0.0655805,10.1709,1.42628,10.2569,-16.584,-1.07988,2.03597,0.0794078,0.0284187,-0.010058,0.135118,-1.91028,0.22401,0.140437,0.0513448,0.0232593,-0.00059341,0.0523653,-0.0627745,-0.180548,0.78507,-0.00109882,0,0,0,0,0,0,0,0.967594,-32.4513,0.786451,18.1595,0.795284,-0.619882,0.0907442,
0.0323043,-0.0114309,0.138253,-1.91565,0.220872,0.137742,0.0518738,0.0905463,-0.00349132,0.0914313,-0.143617,-0.0330886,0.301953,0.00780326,-0.422492,0.212506,-0.460082,1.69652,-18.3903,-10.1858,0.0396137,10.0802,1.36427,10.1613,-16.2685,-1.23651,1.95801,0.0806464,0.0284187,-0.010058,0.135118,-1.91028,0.22401,0.140437,0.0513448,0.0232593,-0.00059341,0.0523653,-0.0627745,-0.180548,0.78507,-0.00109882,0,0,0,0,0,0,0,0.967594,-32.4513,0.786451,18.1595,0.795284,-0.619882,0.0907442,
0.0309113,-0.0113775,0.136849,-1.91354,0.223285,0.133743,0.0517441,0.0892107,-0.00427178,0.0900621,-0.140869,-0.0563499,0.300733,0.00788612,-0.834731,-0.487789,-0.855755,1.71735,-14.5383,-0.76275,0.0517852,9.73737,1.17167,9.80428,-15.3317,-1.47039,1.7493,0.0816998,0.0284187,-0.010058,0.135118,-1.91028,0.22401,0.140437,0.0513448,0.0232593,-0.00059341,0.0523653,-0.0627745,-0.180548,0.78507,-0.00109882,0,0,0,0,0,0,0,0.967594,-32.4513,0.786451,18.1595,0.795284,-0.619882,0.0907442,
0.032111,-0.0105675,0.138844,-1.9163,0.214555,0.161534,0.0517938,0.0868928,-0.00414681,0.0876608,-0.136656,-0.0753458,0.284293,0.00784111,-1.44867,0.0781073,-1.50081,2.63314,-11.8725,-10.2753,-0.0281301,9.58658,1.15219,9.64965,-15.0861,-1.4503,1.57387,0.0821183,0.0293321,-0.0101816,0.136491,-1.91349,0.214992,0.164581,0.0513371,0.0352739,-0.0196815,0.0575269,-0.120466,-0.326962,0.602664,-0.000951144,1.50182,-2.38601,0.645198,-7.21147,-18.3018,-22.8008,0.0184598,1.37622,-28.008,1.28633,17.3859,0.685421,-0.447763,0.0779268,
0.0327419,-0.0105806,0.139478,-1.91726,0.213406,0.163084,0.0518536,0.0852883,-0.00364472,0.0859825,-0.133414,-0.0890217,0.266184,0.00776812,-1.00282,0.313807,-1.04895,2.0263,-8.54743,-11.318,-0.0456177,9.44139,1.09135,9.49994,-14.7766,-1.45109,1.51471,0.0815405,0.0293321,-0.0101816,0.136491,-1.91349,0.214992,0.164581,0.0513371,0.0352739,-0.0196815,0.0575269,-0.120466,-0.326962,0.602664,-0.000951144,0,0,0,0,0,0,0,1.37622,-28.008,1.28633,17.3859,0.685421,-0.447763,0.0779268,
0.0333779,-0.0105799,0.140117,-1.91822,0.212318,0.164475,0.0519118,0.0841293,-0.00289866,0.0847573,-0.130804,-0.0984054,0.24772,0.0076688,-0.724388,0.46629,-0.765741,1.63125,-5.8648,-11.5399,-0.0620743,9.28795,1.03258,9.34216,-14.4676,-1.43875,1.45712,0.0808996,0.0293321,-0.0101816,0.136491,-1.91349,0.214992,0.164581,0.0513371,0.0352739,-0.0196815,0.0575269,-0.120466,-0.326962,0.602664,-0.000951144,0,0,0,0,0,0,0,1.37622,-28.008,1.28633,17.3859,0.685421,-0.447763,0.0779268,
0.0327362,-0.0104173,0.139916,-1.91944,0.204675,0.179562,0.0517296,0.0809222,-0.00224895,0.0814681,-0.126453,-0.103648,0.229255,0.00743461,-2.00446,0.406068,-2.05572,2.71916,-3.27653,-11.5406,-0.146367,8.78575,0.872123,8.82738,-13.5432,-1.32868,1.30282,0.0772881,0.0293321,-0.0101816,0.136491,-1.91349,0.214992,0.164581,0.0513371,0.0352739,-0.0196815,0.0575269,-0.120466,-0.326962,0.602664,-0.000951144,0,0,0,0,0,0,0,1.37622,-28.008,1.28633,17.3859,0.685421,-0.447763,0.0779268,
0.0332871,-0.0104049,0.140468,-1.92031,0.203771,0.180667,0.0517797,0.0785095,-0.00148976,0.0789829,-0.122827,-0.10553,0.211037,0.00719922,-1.50794,0.474492,-1.55322,2.26645,-1.17657,-11.3864,-0.147119,8.62958,0.798687,8.67023,-13.2397,-1.20993,1.19201,0.0756606,0.0302336,-0.0107028,0.138158,-1.91734,0.203202,0.180071,0.0513382,0.0426113,0.0131274,0.0579029,-0.113227,-0.331939,0.331689,-2.32931e-06,0.917179,4.10112,0.0470038,0.904942,-0.62217,-33.8718,0.118602,-0.829586,-32.249,-0.76079,24.5865,0.874935,1.0244,0.0641939,
0.0338402,-0.0103846,0.141022,-1.92117,0.202947,0.181662,0.0518277,0.0766348,-0.000682747,0.0770436,-0.119688,-0.105009,0.193687,0.0069607,-1.17166,0.504383,-1.21209,1.96183,0.325513,-10.8436,-0.149074,8.44724,0.75312,8.48397,-12.9326,-1.15523,1.14757,0.0739026,0.0302336,-0.0107028,0.138158,-1.91734,0.203202,0.180071,0.0513382,0.0426113,0.0131274,0.0579029,-0.113227,-0.331939,0.331689,-2.32931e-06,0,0,0,0,0,0,0,-0.829586,-32.249,-0.76079,24.5865,0.874935,1.0244,0.0641939,
0.0343922,-0.0103578,0.141576,-1.92201,0.202195,0.182565,0.0518737,0.0751094,0.000124045,0.07546,-0.116864,-0.102806,0.177536,0.00671942,-0.953354,0.504245,-0.989733,1.76512,1.37736,-10.0944,-0.150805,8.26162,0.709894,8.2946,-12.6259,-1.09989,1.1042,0.072076,0.0302336,-0.0107028,0.138158,-1.91734,0.203202,0.180071,0.0513382,0.0426113,0.0131274,0.0579029,-0.113227,-0.331939,0.331689,-2.32931e-06,0,0,0,0,0,0,0,-0.829586,-32.249,-0.76079,24.5865,0.874935,1.0244,0.0641939,
0.034125,-0.0101273,0.142056,-1.92431,0.193906,0.189885,0.0516895,0.0713475,0.00129384,0.0716113,-0.111142,-0.0955013,0.157462,0.00618307,-2.35123,0.731125,-2.40544,3.57622,4.56524,-12.5461,-0.335218,7.30223,0.527043,7.31784,-11.0966,-0.828023,0.915655,0.0611385,0.0302336,-0.0107028,0.138158,-1.91734,0.203202,0.180071,0.0513382,0.0426113,0.0131274,0.0579029,-0.113227,-0.331939,0.331689,-2.32931e-06,0,0,0,0,0,0,0,-0.829586,-32.249,-0.76079,24.5865,0.874935,1.0244,0.0641939,
0.0345712,-0.0100807,0.142501,-1.925,0.193425,0.190457,0.0517198,0.0682313,0.00219893,0.0684199,-0.106039,-0.0884358,0.14027,0.0057029,-1.9476,0.565677,-1.99463,3.18925,4.41599,-10.7453,-0.300108,7.13004,0.479964,7.14243,-10.7849,-0.726906,0.859747,0.0586042,0.031009,-0.0106444,0.14051,-1.92086,0.193181,0.187726,0.051337,0.0232532,0.0140538,0.0721434,-0.108623,-0.305974,0.147145,-0.0010466,-2.41977,0.115795,1.78006,0.575469,3.24564,-23.068,-0.130534,-0.805783,-35.1213,-0.859972,29.1211,2.22442,1.78612,0.0779268,
0.0350111,-0.0100354,0.14294,-1.92566,0.192984,0.190991,0.051748,0.0655824,0.00289271,0.0657052,-0.101414,-0.0817726,0.12558,0.00526785,-1.65558,0.433613,-1.69672,2.89073,4.16446,-9.18086,-0.271903,6.93439,0.450638,6.9437,-10.48,-0.683225,0.828847,0.0561446,0.031009,-0.0106444,0.14051,-1.92086,0.193181,0.187726,0.051337,0.0232532,0.0140538,0.0721434,-0.108623,-0.305974,0.147145,-0.0010466,0,0,0,0,0,0,0,-0.805783,-35.1213,-0.859972,29.1211,2.22442,1.78612,0.0779268,
0.0336251,-0.0100225,0.143127,-1.92586,0.186434,0.192244,0.0515381,0.0619925,0.003956,0.0620563,-0.0969202,-0.0780864,0.112361,0.00482877,-2.2437,0.664556,-2.28058,2.80862,2.30387,-8.26237,-0.274427,6.15105,0.345868,6.14912,-9.26141,-0.549371,0.722064,0.0461549,0.031009,-0.0106444,0.14051,-1.92086,0.193181,0.187726,0.051337,0.0232532,0.0140538,0.0721434,-0.108623,-0.305974,0.147145,-0.0010466,0,0,0,0,0,0,0,-0.805783,-35.1213,-0.859972,29.1211,2.22442,1.78612,0.0779268,
0.0340035,-0.00996234,0.143504,-1.92646,0.185989,0.192693,0.0515607,0.0590526,0.00466951,0.059063,-0.092682,-0.0735964,0.101105,0.00442868,-1.83742,0.445944,-1.87077,2.64888,2.80625,-7.03498,-0.250057,5.95584,0.322058,5.95134,-8.95665,-0.525803,0.699739,0.0436542,0.031009,-0.0106444,0.14051,-1.92086,0.193181,0.187726,0.051337,0.0232532,0.0140538,0.0721434,-0.108623,-0.305974,0.147145,-0.0010466,0,0,0,0,0,0,0,-0.805783,-35.1213,-0.859972,29.1211,2.22442,1.78612,0.0779268,
0.034377,-0.00990699,0.143875,-1.92704,0.185595,0.193117,0.0515814,0.0565795,0.00511938,0.0565414,-0.0886523,-0.0687188,0.091504,0.00405922,-1.54568,0.28117,-1.57603,2.51857,3.0485,-6.0003,-0.230911,5.77945,0.271818,5.77099,-8.62957,-0.45714,0.681966,0.0409337,0.0313108,-0.0103575,0.142915,-1.92384,0.182879,0.189375,0.0513419,0.0235349,0.00145609,0.0593528,-0.0851514,-0.2814,-0.00751155,-6.62547e-05,0.0352182,-1.57471,-1.59883,2.93394,3.07179,-19.3321,0.122543,-0.702633,-34.919,-0.661608,28.895,2.0285,2.24389,0.0706026,
0.0347438,-0.00985595,0.14424,-1.9276,0.185247,0.19352,0.0516,0.0544336,0.00537154,0.054351,-0.0847915,-0.0636673,0.0832689,0.00371433,-1.34119,0.157601,-1.36896,2.41304,3.1572,-5.14697,-0.215556,5.58574,0.249113,5.57484,-8.32433,-0.439492,0.662855,0.0384664,0.0313108,-0.0103575,0.142915,-1.92384,0.182879,0.189375,0.0513419,0.0235349,0.00145609,0.0593528,-0.0851514,-0.2814,-0.00751155,-6.62547e-05,0,0,0,0,0,0,0,-0.702633,-34.919,-0.661608,28.895,2.0285,2.24389,0.0706026,
0.03348,-0.00998872,0.145076,-1.92795,0.177396,0.191069,0.0514629,0.0511907,0.00563896,0.0510626,-0.0801645,-0.0587093,0.0737786,0.0032959,-2.02683,0.167133,-2.05526,2.89182,3.09878,-5.93144,-0.261516,5.01344,0.182087,4.99551,-7.40607,-0.391954,0.61123,0.031171,0.0313108,-0.0103575,0.142915,-1.92384,0.182879,0.189375,0.0513419,0.0235349,0.00145609,0.0593528,-0.0851514,-0.2814,-0.00751155,-6.62547e-05,0,0,0,0,0,0,0,-0.702633,-34.919,-0.661608,28.895,2.0285,2.24389,0.0706026,
0.0337801,-0.00993943,0.145373,-1.92841,0.177181,0.191337,0.0514738,0.0484549,0.00574345,0.0482847,-0.0757409,-0.0523457,0.0657256,0.00291064,-1.70986,0.0653099,-1.73619,2.76478,3.9772,-5.03311,-0.240791,4.82731,0.15942,4.8071,-7.09892,-0.373557,0.593846,0.0287947,0.0313108,-0.0103575,0.142915,-1.92384,0.182879,0.189375,0.0513419,0.0235349,0.00145609,0.0593528,-0.0851514,-0.2814,-0.00751155,-6.62547e-05,0,0,0,0,0,0,0,-0.702633,-34.919,-0.661608,28.895,2.0285,2.24389,0.0706026,
0.0340728,-0.00989465,0.145663,-1.92885,0.177067,0.191576,0.0514827,0.0460808,0.00571424,0.0458713,-0.0714915,-0.0447188,0.0585511,0.00255066,-1.48383,-0.0182572,-1.50839,2.65589,4.76682,-4.48406,-0.224987,4.6446,0.136358,4.62213,-6.79113,-0.350152,0.574907,0.026434,0.0313108,-0.0103575,0.142915,-1.92384,0.182879,0.189375,0.0513419,0.0235349,0.00145609,0.0593528,-0.0851514,-0.2814,-0.00751155,-6.62547e-05,0,0,0,0,0,0,0,-0.702633,-34.919,-0.661608,28.895,2.0285,2.24389,0.0706026,
0.0328097,-0.0098434,0.146222,-1.92955,0.17388,0.189645,0.0513914,0.0422164,0.00534977,0.0419573,-0.0654156,-0.0260579,0.0460801,0.00205524,-2.41521,-0.227796,-2.44625,3.79739,11.6631,-7.7944,-0.309636,3.95988,-0.000741859,3.92631,-5.51596,-0.122693,0.470446,0.0170689,0.0313423,-0.00999204,0.144771,-1.9266,0.175818,0.189142,0.0513429,-0.00477132,-0.0101127,0.0483052,-0.0747331,-0.179127,-0.00798596,-0.00124918,-3.53828,-1.4461,-1.38095,1.30229,12.7841,-0.0593012,-0.147865,0.233646,-34.7206,0.211195,27.8,2.25464,2.37023,0.0641939,
0.0330175,-0.00981537,0.146426,-1.92985,0.174527,0.189512,0.0513896,0.0389671,0.00498051,0.0386628,-0.059828,-0.00467979,0.0335281,0.00160064,-2.03081,-0.230784,-2.05907,3.49229,13.3613,-7.84499,-0.284127,3.81013,-0.0281503,3.77421,-5.20562,-0.0241081,0.417164,0.0147536,0.0313423,-0.00999204,0.144771,-1.9266,0.175818,0.189142,0.0513429,-0.00477132,-0.0101127,0.0483052,-0.0747331,-0.179127,-0.00798596,-0.00124918,0,0,0,0,0,0,0,0.233646,-34.7206,0.211195,27.8,2.25464,2.37023,0.0641939,
0.0332168,-0.00979086,0.146622,-1.93012,0.175469,0.189249,0.0513856,0.0361572,0.00459721,0.0358114,-0.0546355,0.0198299,0.0202668,0.0011801,-1.7562,-0.239564,-1.7821,3.24531,15.3186,-8.2883,-0.262836,3.67096,-0.0565814,3.63262,-4.89522,0.104423,0.349108,0.012437,0.0313423,-0.00999204,0.144771,-1.9266,0.175818,0.189142,0.0513429,-0.00477132,-0.0101127,0.0483052,-0.0747331,-0.179127,-0.00798596,-0.00124918,0,0,0,0,0,0,0,0.233646,-34.7206,0.211195,27.8,2.25464,2.37023,0.0641939,
0.0334059,-0.00976999,0.146806,-1.93036,0.176754,0.188832,0.0513794,0.0336533,0.00419952,0.0332695,-0.0497648,0.0479782,0.0057727,0.000788712,-1.56492,-0.248553,-1.58874,3.04417,17.5927,-9.05883,-0.244617,3.54376,-0.0860265,3.50295,-4.58506,0.269254,0.26267,0.0100955,0.0313423,-0.00999204,0.144771,-1.9266,0.175818,0.189142,0.0513429,-0.00477132,-0.0101127,0.0483052,-0.0747331,-0.179127,-0.00798596,-0.00124918,0,0,0,0,0,0,0,0.233646,-34.7206,0.211195,27.8,2.25464,2.37023,0.0641939,
0.0322315,-0.00955206,0.14668,-1.93028,0.172922,0.187422,0.0513496,0.0312029,0.00400254,0.0307922,-0.0468367,0.0595836,-0.00347055,0.000540429,-1.5315,-0.123115,-1.54829,1.83003,7.25339,-5.77703,-0.155177,3.42813,-0.134014,3.38267,-4.25057,0.492742,0.168443,0.00767569,0.0314021,-0.00962113,0.145867,-1.92855,0.171827,0.188524,0.0513445,0.00325022,-0.00631323,0.0303976,-0.0566837,-0.0936279,-0.0429622,-0.000267999,1.00269,0.474933,-2.23845,2.25617,10.6873,-4.37203,0.122647,-0.246395,-35.4942,-0.237108,27.8992,1.82068,2.65496,0.050461,
0.0323981,-0.00952787,0.146843,-1.93053,0.174136,0.186965,0.0513437,0.029128,0.00380689,0.0286905,-0.0437222,0.0780222,-0.0142093,0.000285064,-1.29683,-0.122281,-1.31358,1.94659,11.5241,-6.71174,-0.159603,3.32858,-0.164883,3.2805,-3.94208,0.751952,0.033581,0.00532222,0.0314021,-0.00962113,0.145867,-1.92855,0.171827,0.188524,0.0513445,0.00325022,-0.00631323,0.0303976,-0.0566837,-0.0936279,-0.0429622,-0.000267999,0,0,0,0,0,0,0,-0.246395,-35.4942,-0.237108,27.8992,1.82068,2.65496,0.050461,
0.0325575,-0.00950637,0.146997,-1.93075,0.17576,0.18634,0.0513357,0.0272867,0.00358301,0.0268228,-0.040477,0.103016,-0.0269906,2.95303e-05,-1.15085,-0.139923,-1.1673,2.02826,15.6212,-7.98832,-0.159709,3.24398,-0.195938,3.19322,-3.63509,1.06958,-0.131352,0.00300359,0.0314021,-0.00962113,0.145867,-1.92855,0.171827,0.188524,0.0513445,0.00325022,-0.00631323,0.0303976,-0.0566837,-0.0936279,-0.0429622,-0.000267999,0,0,0,0,0,0,0,-0.246395,-35.4942,-0.237108,27.8992,1.82068,2.65496,0.050461,
0.0327073,-0.00948806,0.147142,-1.93095,0.177842,0.185517,0.051326,0.025575,0.00332426,0.0250858,-0.0371488,0.134454,-0.042167,-0.000218776,-1.0698,-0.161721,-1.08562,2.08014,19.6489,-9.4852,-0.155191,3.17403,-0.226672,3.12055,-3.33016,1.45324,-0.329987,0.000699296,0.0314021,-0.00962113,0.145867,-1.92855,0.171827,0.188524,0.0513445,0.00325022,-0.00631323,0.0303976,-0.0566837,-0.0936279,-0.0429622,-0.000267999,0,0,0,0,0,0,0,-0.246395,-35.4942,-0.237108,27.8992,1.82068,2.65496,0.050461,
0.0315534,-0.00963289,0.146017,-1.92897,0.171431,0.188308,0.0513499,0.0242416,0.0023655,0.0238307,-0.0400807,0.0976619,-0.0391305,-4.13767e-05,-0.83336,-0.599225,-0.784405,-1.83246,-22.9953,1.89779,0.110874,3.42369,-0.151817,3.37701,-4.23066,0.491793,0.185195,0.00760423,0.031307,-0.0093992,0.146427,-1.92978,0.171543,0.186585,0.0513396,0.000664591,0.00777169,0.00645931,-0.016793,0.032192,-0.0723997,-0.00203922,-0.323203,1.76062,-2.99228,4.98634,15.7275,-3.67969,-0.221403,0.562931,-34.1969,0.611891,25.3323,1.67419,2.07177,0.0980684,
0.0317172,-0.0096233,0.146178,-1.92935,0.171345,0.188144,0.0513533,0.0234891,0.00213207,0.0230741,-0.0415381,0.0759826,-0.0354058,5.34081e-05,-0.470283,-0.14589,-0.472886,-0.910868,-13.5495,2.32793,0.0592405,3.32413,-0.182687,3.27484,-3.92217,0.751003,0.050333,0.00525076,0.031307,-0.0093992,0.146427,-1.92978,0.171543,0.186585,0.0513396,0.000664591,0.00777169,0.00645931,-0.016793,0.032192,-0.0723997,-0.00203922,0,0,0,0,0,0,0,0.562931,-34.1969,0.611891,25.3323,1.67419,2.07177,0.0980684,
0.0318876,-0.0096028,0.146344,-1.92969,0.171557,0.187972,0.0513545,0.0230509,0.00221803,0.0226264,-0.0418605,0.0660743,-0.0326087,7.10145e-05,-0.273914,0.0537223,-0.279852,-0.201514,-6.19268,1.74821,0.011004,3.23953,-0.213741,3.18756,-3.61518,1.06863,-0.1146,0.00293213,0.031307,-0.0093992,0.146427,-1.92978,0.171543,0.186585,0.0513396,0.000664591,0.00777169,0.00645931,-0.016793,0.032192,-0.0723997,-0.00203922,0,0,0,0,0,0,0,0.562931,-34.1969,0.611891,25.3323,1.67419,2.07177,0.0980684,
0.031694,-0.00935897,0.146798,-1.93074,0.175623,0.184744,0.0513273,0.0213379,0.00206347,0.0208843,-0.038812,0.0921519,-0.0416559,-0.000112807,-1.07064,-0.0966002,-1.08877,1.90532,16.2985,-5.6545,-0.114888,3.16959,-0.244476,3.11489,-3.31026,1.45229,-0.313235,0.000627837,0.031307,-0.0093992,0.146427,-1.92978,0.171543,0.186585,0.0513396,0.000664591,0.00777169,0.00645931,-0.016793,0.032192,-0.0723997,-0.00203922,0,0,0,0,0,0,0,0.562931,-34.1969,0.611891,25.3323,1.67419,2.07177,0.0980684,
0.0318106,-0.00934736,0.14691,-1.93093,0.177654,0.183932,0.0513184,0.0199853,0.00194106,0.0195039,-0.0356863,0.124509,-0.0536308,-0.000312697,-0.845358,-0.0765054,-0.862747,1.95358,20.2233,-7.48436,-0.124931,3.1125,-0.288437,3.05457,-2.99361,1.89756,-0.530952,-0.0016361,0.0312898,-0.00928564,0.146803,-1.93018,0.17403,0.183724,0.0513507,0.00551082,0.00249736,0.0100375,-0.00902752,0.0954891,-0.0790137,0.000437183,0.605778,-0.659291,0.447274,0.970689,7.91214,-0.826747,0.309551,-0.29797,-33.6495,-0.260912,25.8322,1.54052,1.85296,0.0376436,
0.0319233,-0.0093367,0.147018,-1.93109,0.180197,0.1829,0.0513081,0.0188056,0.00181915,0.0182983,-0.0325073,0.163166,-0.0687188,-0.000509926,-0.737326,-0.0761937,-0.753523,1.98688,24.1608,-9.43,-0.123268,3.06627,-0.316193,3.00564,-2.69403,2.4302,-0.802975,-0.00369175,0.0312898,-0.00928564,0.146803,-1.93018,0.17403,0.183724,0.0513507,0.00551082,0.00249736,0.0100375,-0.00902752,0.0954891,-0.0790137,0.000437183,0,0,0,0,0,0,0,-0.29797,-33.6495,-0.260912,25.8322,1.54052,1.85296,0.0376436,
0.0320285,-0.00932742,0.147118,-1.93122,0.183294,0.181625,0.0512969,0.0176742,0.00168731,0.0171439,-0.0293098,0.207964,-0.0868468,-0.000686273,-0.707119,-0.0823984,-0.721519,1.99843,27.9987,-11.33,-0.110217,3.02523,-0.340947,2.96201,-2.39731,3.0405,-1.1109,-0.00546257,0.0312898,-0.00928564,0.146803,-1.93018,0.17403,0.183724,0.0513507,0.00551082,0.00249736,0.0100375,-0.00902752,0.0954891,-0.0790137,0.000437183,0,0,0,0,0,0,0,-0.29797,-33.6495,-0.260912,25.8322,1.54052,1.85296,0.0376436,
0.0316038,-0.009332,0.147098,-1.93078,0.182661,0.180058,0.0513121,0.0161371,0.00120007,0.015589,-0.0265008,0.241696,-0.100568,-0.000822543,-0.960662,-0.304529,-0.971762,1.7556,21.0826,-8.57559,-0.0851687,3.02523,-0.340947,2.96201,-2.39731,3.0405,-1.1109,-0.00546257,0.0312898,-0.00928564,0.146803,-1.93018,0.17403,0.183724,0.0513507,0.00551082,0.00249736,0.0100375,-0.00902752,0.0954891,-0.0790137,0.000437183,0,0,0,0,0,0,0,-0.29797,-33.6495,-0.260912,25.8322,1.54052,1.85296,0.0376436,
0.0316781,-0.00933524,0.147167,-1.93088,0.186282,0.178558,0.0513014,0.0147668,0.000879116,0.0142041,-0.0236833,0.28389,-0.117963,-0.00092413,-0.856476,-0.200594,-0.865589,1.76096,26.3709,-10.8719,-0.0634917,2.98214,-0.369445,2.91592,-2.09361,3.72333,-1.44272,-0.00693134,0.0312516,-0.00916412,0.147076,-1.93054,0.174854,0.182921,0.0513484,0.00304992,0.00605234,0.0218577,-0.0149256,0.0227528,2.44783e-05,-0.00055142,-0.307612,0.444372,1.47753,-0.737257,-9.09204,9.87977,-0.123575,0.765262,-33.4471,0.814222,25.9552,1.54052,1.52794,0.0577852,
0.0317435,-0.00933643,0.147228,-1.93095,0.190518,0.176801,0.0512924,0.0134485,0.000673338,0.0128767,-0.0208847,0.332999,-0.138294,-0.000964962,-0.823887,-0.128611,-0.829629,1.7491,30.6934,-12.707,-0.0255204,2.92338,-0.384422,2.85521,-1.80155,4.4724,-1.80388,-0.00776983,0.0312516,-0.00916412,0.147076,-1.93054,0.174854,0.182921,0.0513484,0.00304992,0.00605234,0.0218577,-0.0149256,0.0227528,2.44783e-05,-0.00055142,0,0,0,0,0,0,0,0.765262,-33.4471,0.814222,25.9552,1.54052,1.52794,0.0577852,
0.031337,-0.00914996,0.147159,-1.93071,0.175816,0.182678,0.0513364,0.0128942,0.000892552,0.0123685,-0.0208329,0.290445,-0.116712,-0.00107078,-0.34649,0.137009,-0.317603,0.0323546,-26.5963,13.4885,-0.0661362,3.02618,-0.348933,2.96232,-2.38749,3.0381,-1.10396,-0.00551437,0.0312516,-0.00916412,0.147076,-1.93054,0.174854,0.182921,0.0513484,0.00304992,0.00605234,0.0218577,-0.0149256,0.0227528,2.44783e-05,-0.00055142,0,0,0,0,0,0,0,0.765262,-33.4471,0.814222,25.9552,1.54052,1.52794,0.0577852,
0.031417,-0.00914424,0.147234,-1.93086,0.177455,0.182146,0.0513249,0.0123145,0.000857075,0.0117764,-0.0205826,0.273335,-0.10667,-0.00114536,-0.362275,-0.0221731,-0.370104,0.15645,-10.6936,6.27646,-0.0466095,2.98214,-0.369445,2.91592,-2.09361,3.72333,-1.44272,-0.00693134,0.0312516,-0.00916412,0.147076,-1.93054,0.174854,0.182921,0.0513484,0.00304992,0.00605234,0.0218577,-0.0149256,0.0227528,2.44783e-05,-0.00055142,0,0,0,0,0,0,0,0.765262,-33.4471,0.814222,25.9552,1.54052,1.52794,0.0577852,
0.0314931,-0.00914128,0.147306,-1.931,0.179737,0.181318,0.0513132,0.0117529,0.000759844,0.0112,-0.0198843,0.275729,-0.106039,-0.00120795,-0.351017,-0.0607697,-0.36024,0.43646,1.49615,0.394535,-0.0391205,2.92706,-0.376237,2.85873,-1.81405,4.45235,-1.8001,-0.0078364,0.0313313,-0.00906977,0.147761,-1.93087,0.180223,0.182531,0.0513448,0.007104,0.00324579,0.0200518,-0.00830266,0.270956,-0.0290743,-0.000846718,0.50676,-0.350819,-0.225743,0.827865,31.0254,-3.63735,-0.0369122,1.12232,-34.7444,1.18715,26.705,1.94976,1.59386,0.0907442,
0.0315647,-0.00913965,0.147372,-1.93111,0.182658,0.180193,0.0513015,0.0111938,0.000648514,0.0106264,-0.0187773,0.293594,-0.112944,-0.00125891,-0.3494,-0.0695811,-0.358463,0.691852,11.1658,-4.31585,-0.0318495,2.83748,-0.384316,2.76785,-1.5228,5.24688,-2.16869,-0.0079309,0.0313313,-0.00906977,0.147761,-1.93087,0.180223,0.182531,0.0513448,0.007104,0.00324579,0.0200518,-0.00830266,0.270956,-0.0290743,-0.000846718,0,0,0,0,0,0,0,1.12232,-34.7444,1.18715,26.705,1.94976,1.59386,0.0907442,
0.0316103,-0.00909512,0.148022,-1.93106,0.195639,0.177404,0.0513021,0.0101812,0.000225656,0.00960893,-0.0157145,0.355118,-0.135604,-0.00116207,-0.63288,-0.264286,-0.635939,1.91423,38.4523,-14.1627,0.0605254,2.83748,-0.384316,2.76785,-1.5228,5.24688,-2.16869,-0.0079309,0.0313313,-0.00906977,0.147761,-1.93087,0.180223,0.182531,0.0513448,0.007104,0.00324579,0.0200518,-0.00830266,0.270956,-0.0290743,-0.000846718,0,0,0,0,0,0,0,1.12232,-34.7444,1.18715,26.705,1.94976,1.59386,0.0907442,
0.0316432,-0.00910555,0.14805,-1.93107,0.201011,0.175325,0.051302,0.00896786,-8.01084e-05,0.00840628,-0.012922,0.418399,-0.160458,-0.000933617,-0.758359,-0.191103,-0.75166,1.74531,39.5506,-15.5337,0.142781,2.69587,-0.384386,2.62592,-1.22978,6.05582,-2.52687,-0.00695993,0.0313313,-0.00906977,0.147761,-1.93087,0.180223,0.182531,0.0513448,0.007104,0.00324579,0.0200518,-0.00830266,0.270956,-0.0290743,-0.000846718,0,0,0,0,0,0,0,1.12232,-34.7444,1.18715,26.705,1.94976,1.59386,0.0907442,
0.0316558,-0.00911433,0.148059,-1.93107,0.206872,0.173031,0.0513057,0.00748904,-0.000283659,0.00694954,-0.0103592,0.48123,-0.185703,-0.000652275,-0.924266,-0.127219,-0.910462,1.60181,39.269,-15.7777,0.175839,2.47535,-0.375618,2.40666,-0.932517,6.83815,-2.84997,-0.00454942,0.0313313,-0.00906977,0.147761,-1.93087,0.180223,0.182531,0.0513448,0.007104,0.00324579,0.0200518,-0.00830266,0.270956,-0.0290743,-0.000846718,0,0,0,0,0,0,0,1.12232,-34.7444,1.18715,26.705,1.94976,1.59386,0.0907442,
0.031653,-0.0091245,0.148043,-1.93107,0.213067,0.170616,0.0512762,0.00592346,-0.00048117,0.00514185,-0.00810734,0.539869,-0.208959,-0.00126001,-0.978486,-0.123444,-1.1298,1.40738,36.6497,-14.5355,-0.379833,2.14023,-0.369034,2.07469,-0.619072,7.50934,-3.10598,-6.99307e-05,0.0314072,-0.00890366,0.148147,-1.93101,0.189642,0.181815,0.0513477,0.00287169,0.000449723,0.0141153,-0.0113249,0.179498,-0.00352248,-0.00297873,-0.529038,-0.349509,-0.742058,-0.377783,-11.4322,3.19398,-0.266501,-0.908932,-33.6971,-0.887743,26.0822,1.8637,1.73394,0.0641939,
0.0311863,-0.00887847,0.147901,-1.93098,0.207784,0.175517,0.0512895,0.00258404,-0.000424584,0.00161139,-0.0058394,0.574524,-0.220085,-0.00179152,-2.08714,0.0353663,-2.20654,1.41746,21.6593,-6.95337,-0.332197,2.14023,-0.369034,2.07469,-0.619072,7.50934,-3.10598,-6.99307e-05,0.0314072,-0.00890366,0.148147,-1.93101,0.189642,0.181815,0.0513477,0.00287169,0.000449723,0.0141153,-0.0113249,0.179498,-0.00352248,-0.00297873,0,0,0,0,0,0,0,-0.908932,-33.6971,-0.887743,26.0822,1.8637,1.73394,0.0641939,
0.0311464,-0.00889565,0.147861,-1.93097,0.213058,0.173592,0.0512835,0.00106981,-0.000769158,0.000298326,-0.00436579,0.591462,-0.224182,-0.00158344,-0.94639,-0.215359,-0.820666,0.921009,10.5862,-2.56077,0.130054,1.64955,-0.348803,1.59189,-0.302349,8.08902,-3.2984,0.00706389,0.0314072,-0.00890366,0.148147,-1.93101,0.189642,0.181815,0.0513477,0.00287169,0.000449723,0.0141153,-0.0113249,0.179498,-0.00352248,-0.00297873,0,0,0,0,0,0,0,-0.908932,-33.6971,-0.887743,26.0822,1.8637,1.73394,0.0641939,
0.0312058,-0.00892898,0.147921,-1.93097,0.216897,0.172291,0.0512903,0.00234138,-0.00144854,0.00173448,-0.00350751,0.569132,-0.211878,-0.00109657,0.794727,-0.424614,0.897594,0.536424,-13.9564,7.68996,0.304289,0.958253,-0.346535,0.908188,0.0155848,8.51563,-3.40853,0.0114154,0.0314072,-0.00890366,0.148147,-1.93101,0.189642,0.181815,0.0513477,0.00287169,0.000449723,0.0141153,-0.0113249,0.179498,-0.00352248,-0.00297873,0,0,0,0,0,0,0,-0.908932,-33.6971,-0.887743,26.0822,1.8637,1.73394,0.0641939,
0.0314786,-0.00894756,0.149081,-1.93097,0.212691,0.176046,0.051289,0.00160631,-0.00202243,0.00112573,-0.00189817,0.580467,-0.211441,-0.001121,-0.459416,-0.358684,-0.380464,1.00583,7.08486,0.272966,-0.0152654,0.959155,-0.336402,0.909547,-0.00327513,8.48226,-3.40178,0.0114001,0.0314977,-0.00887977,0.149115,-1.93111,0.198123,0.180784,0.051347,0.00448271,-0.00107781,0.0270369,0.00396661,0.35736,-0.0756339,-0.000257939,0.201377,-0.190942,1.6152,1.91144,22.2327,-9.01392,0.340099,1.78089,-34.0224,1.86159,25.8322,2.91473,1.13061,0.0706026,
0.0315529,-0.00899663,0.149155,-1.93095,0.216375,0.174913,0.0512938,0.00314225,-0.00284459,0.00276725,-0.00102882,0.556466,-0.197482,-0.000777132,0.959961,-0.513849,1.02595,0.543348,-15.0006,8.72456,0.214917,0.229112,-0.405588,0.0491706,0.275211,8.53916,-3.3092,-0.0336074,0.0314977,-0.00887977,0.149115,-1.93111,0.198123,0.180784,0.051347,0.00448271,-0.00107781,0.0270369,0.00396661,0.35736,-0.0756339,-0.000257939,0,0,0,0,0,0,0,1.78089,-34.0224,1.86159,25.8322,2.91473,1.13061,0.0706026,
0.0316615,-0.009052,0.149264,-1.93093,0.219249,0.174127,0.0512917,0.00522993,-0.00365998,0.00493859,-0.000321521,0.517022,-0.177636,-0.000675342,1.3048,-0.509614,1.35709,0.442059,-24.6525,12.4037,0.0636188,0.296923,-0.694251,0.299254,0.455394,5.8749,-1.98139,-0.01553,0.0314977,-0.00887977,0.149115,-1.93111,0.198123,0.180784,0.051347,0.00448271,-0.00107781,0.0270369,0.00396661,0.35736,-0.0756339,-0.000257939,0,0,0,0,0,0,0,1.78089,-34.0224,1.86159,25.8322,2.91473,1.13061,0.0706026,
0.0317779,-0.00911112,0.149381,-1.9309,0.221621,0.173569,0.051285,0.00709174,-0.004406,0.00686826,0.000363037,0.472905,-0.156047,-0.000706519,1.16363,-0.466265,1.20604,0.427849,-27.5735,13.493,-0.0194862,0.0892969,-0.838125,0.0962005,0.715332,1.83424,-0.0672714,-0.0141776,0.0314977,-0.00887977,0.149115,-1.93111,0.198123,0.180784,0.051347,0.00448271,-0.00107781,0.0270369,0.00396661,0.35736,-0.0756339,-0.000257939,0,0,0,0,0,0,0,1.78089,-34.0224,1.86159,25.8322,2.91473,1.13061,0.0706026,
0.0316902,-0.00895706,0.14953,-1.93107,0.221339,0.175535,0.0513212,0.0079161,-0.0043843,0.0077485,0.000949125,0.438385,-0.136827,-0.000708646,0.515223,0.0135657,0.550148,0.366305,-21.5748,12.0126,-0.00132933,0.300604,-0.701626,0.303695,0.449076,5.82212,-1.96292,-0.0156293,0.031504,-0.00891007,0.149342,-1.93114,0.212162,0.17766,0.0513478,0.00857928,0.00242461,0.00820284,-0.00176137,0.417716,-0.0776527,-0.000977173,0.512072,0.437803,-2.35426,-0.715997,7.54454,-0.252353,-0.0899042,0.614505,-34.1969,0.639662,26.7288,2.21161,1.70006,0.0641939,
0.0317811,-0.00900194,0.149621,-1.93104,0.223402,0.175184,0.0513127,0.00860526,-0.00462933,0.00848277,0.00153633,0.402287,-0.118214,-0.000780639,0.430726,-0.153147,0.458922,0.367004,-22.5615,11.6334,-0.0449952,0.0929694,-0.845503,0.100633,0.709012,1.78146,-0.0488087,-0.0142774,0.031504,-0.00891007,0.149342,-1.93114,0.212162,0.17766,0.0513478,0.00857928,0.00242461,0.00820284,-0.00176137,0.417716,-0.0776527,-0.000977173,0,0,0,0,0,0,0,0.614505,-34.1969,0.639662,26.7288,2.21161,1.70006,0.0641939,
0.0318656,-0.00905409,0.149706,-1.931,0.225249,0.174923,0.0513026,0.00899638,-0.0050073,0.00891106,0.00212372,0.368008,-0.101105,-0.000877429,0.24445,-0.236232,0.267677,0.367121,-21.4242,10.693,-0.0604937,0.0929672,-0.845503,0.100631,0.709012,1.78145,-0.0488147,-0.0142775,0.031504,-0.00891007,0.149342,-1.93114,0.212162,0.17766,0.0513478,0.00857928,0.00242461,0.00820284,-0.00176137,0.417716,-0.0776527,-0.000977173,0,0,0,0,0,0,0,0.614505,-34.1969,0.639662,26.7288,2.21161,1.70006,0.0641939,
0.0319406,-0.00911142,0.149782,-1.93096,0.226956,0.174724,0.0512916,0.00907394,-0.00543899,0.00901972,0.00269922,0.337068,-0.0858612,-0.000975856,0.0484736,-0.269803,0.0679127,0.359687,-19.3374,9.52736,-0.0615169,0.0929659,-0.845502,0.100629,0.709011,1.78145,-0.0488209,-0.0142776,0.031504,-0.00891007,0.149342,-1.93114,0.212162,0.17766,0.0513478,0.00857928,0.00242461,0.00820284,-0.00176137,0.417716,-0.0776527,-0.000977173,0,0,0,0,0,0,0,0.614505,-34.1969,0.639662,26.7288,2.21161,1.70006,0.0641939,
0.0316531,-0.00844125,0.149491,-1.93168,0.214089,0.177665,0.0513563,0.0109858,0.00736925,0.0109375,-0.0113166,0.317841,-0.0685627,-0.000569015,1.19492,8.00515,1.19862,-8.75991,-12.0168,10.8115,0.254275,0.00231068,28.946,0.0590176,-22.4053,-1.77613,-1.24725,-0.00432637,0.0316589,-0.00897409,0.149807,-1.93101,0.222188,0.17727,0.0513491,0.000751844,-0.0086168,0.00930875,0.011271,0.150262,0.0142712,-0.000921726,-0.97843,-1.38018,0.138239,1.62905,-33.4318,11.4905,0.00693087,-0.702633,-33.5225,-0.685411,26.3559,1.52221,1.81267,0.050461,
0.0317758,-0.00804462,0.149615,-1.93196,0.215783,0.177364,0.051347,0.0118566,0.0158112,0.0118411,-0.0159488,0.296627,-0.0623846,-0.000687762,0.54423,5.27619,0.564772,-2.89509,-13.2588,3.86135,-0.0742173,0.0905217,-0.882035,0.0989691,0.736728,1.74732,-0.0282523,-0.0142336,0.0316589,-0.00897409,0.149807,-1.93101,0.222188,0.17727,0.0513491,0.000751844,-0.0086168,0.00930875,0.011271,0.150262,0.0142712,-0.000921726,0,0,0,0,0,0,0,-0.702633,-33.5225,-0.685411,26.3559,1.52221,1.81267,0.050461,
0.0318742,-0.00774844,0.149714,-1.93213,0.217364,0.176997,0.0513353,0.0119462,0.0200534,0.0119506,-0.0171913,0.276819,-0.0590638,-0.000842432,0.0560155,2.65141,0.0683939,-0.776546,-12.3798,2.07548,-0.0966688,0.0905011,-0.882019,0.0989485,0.736731,1.74725,-0.028313,-0.0142343,0.0316589,-0.00897409,0.149807,-1.93101,0.222188,0.17727,0.0513491,0.000751844,-0.0086168,0.00930875,0.011271,0.150262,0.0142712,-0.000921726,0,0,0,0,0,0,0,-0.702633,-33.5225,-0.685411,26.3559,1.52221,1.81267,0.050461,
0.031759,-0.00942961,0.149912,-1.93063,0.230252,0.17761,0.0512775,0.00983772,0.0141766,0.00986342,-0.0122187,0.255631,-0.0464512,-0.000959252,-1.3178,-3.67301,-1.30447,3.10783,-13.2427,7.88288,-0.0730121,0.112281,-0.885944,0.120897,0.735436,1.73009,0.0262724,-0.0141728,0.0316589,-0.00897409,0.149807,-1.93101,0.222188,0.17727,0.0513491,0.000751844,-0.0086168,0.00930875,0.011271,0.150262,0.0142712,-0.000921726,0,0,0,0,0,0,0,-0.702633,-33.5225,-0.685411,26.3559,1.52221,1.81267,0.050461,
0.0317697,-0.00950381,0.149924,-1.93056,0.231617,0.177638,0.0512661,0.00813756,0.00948638,0.00818142,-0.00825763,0.238634,-0.0364611,-0.00105143,-1.0626,-2.9314,-1.05125,2.47568,-10.6233,6.24382,-0.0576129,0.108936,-0.877446,0.116357,0.732194,1.72863,0.0189703,-0.0141045,0.0317103,-0.00876853,0.150219,-1.93082,0.222564,0.17898,0.0513529,-0.00163013,0.0404248,0.00764606,-0.00459646,-0.0365467,0.0399896,0.000809186,-0.297747,6.1302,-0.207837,-1.98344,-23.351,3.2148,0.216364,-0.881161,-26.433,-0.736986,19.7543,1.03973,1.24322,0.017502,
0.0317801,-0.00957765,0.149935,-1.9305,0.232979,0.177663,0.0512548,0.00676911,0.00574316,0.00682858,-0.00510334,0.22496,-0.028543,-0.00112438,-0.855283,-2.33951,-0.845523,1.97143,-8.54638,4.94878,-0.0455951,0.108684,-0.877135,0.116101,0.732232,1.72793,0.0183611,-0.0141044,0.0317103,-0.00876853,0.150219,-1.93082,0.222564,0.17898,0.0513529,-0.00163013,0.0404248,0.00764606,-0.00459646,-0.0365467,0.0399896,0.000809186,0,0,0,0,0,0,0,-0.881161,-26.433,-0.736986,19.7543,1.03973,1.24322,0.017502,
0.0317902,-0.0096512,0.149947,-1.93045,0.234337,0.177685,0.0512435,0.00566902,0.00275559,0.00574206,-0.00259247,0.213927,-0.022265,-0.00118224,-0.687554,-1.86723,-0.679078,1.56929,-6.89509,3.9238,-0.0361604,0.108419,-0.87686,0.115835,0.732263,1.72727,0.0177441,-0.0141061,0.0317103,-0.00876853,0.150219,-1.93082,0.222564,0.17898,0.0513529,-0.00163013,0.0404248,0.00764606,-0.00459646,-0.0365467,0.0399896,0.000809186,0,0,0,0,0,0,0,-0.881161,-26.433,-0.736986,19.7543,1.03973,1.24322,0.017502,
0.0317452,-0.00809293,0.150256,-1.93144,0.222168,0.179625,0.0513463,0.00540659,0.0190945,0.00550522,-0.0176102,0.161233,-0.00170768,-0.00110861,-0.16402,10.2118,-0.148023,-9.38611,-32.9338,12.8483,0.0460166,-0.000802983,28.9541,0.05471,-22.4086,-1.77685,-1.25395,-0.00425903,0.0317103,-0.00876853,0.150219,-1.93082,0.222564,0.17898,0.0513529,-0.00163013,0.0404248,0.00764606,-0.00459646,-0.0365467,0.0399896,0.000809186,0,0,0,0,0,0,0,-0.881161,-26.433,-0.736986,19.7543,1.03973,1.24322,0.017502,
0.0317417,-0.00754079,0.150254,-1.93181,0.222278,0.179855,0.0513309,0.00423807,0.0290792,0.00435871,-0.0233523,0.131746,0.00439294,-0.001274,-0.730325,6.24043,-0.716568,-3.58877,-18.4299,3.81288,-0.103368,0.349273,-0.859584,0.352023,0.705933,1.62535,0.392946,-0.0137106,0.0317631,-0.00777204,0.150559,-1.93126,0.222236,0.179911,0.0513447,-0.00137333,0.023816,0.0051381,0.00224461,0.00481087,0.0171011,-0.00106221,0.0320999,-2.07611,-0.313494,0.855133,5.1697,-2.86107,-0.233925,-2.50378,-36.0179,-2.43498,27.0026,0.422665,2.56249,0.0577852,
0.0317209,-0.00712002,0.150234,-1.93207,0.222737,0.179937,0.0513168,0.00287151,0.0337827,0.00299767,-0.0251455,0.116873,0.00556747,-0.00137093,-0.854096,2.93966,-0.85065,-1.12079,-9.29532,0.734082,-0.0605795,0.346601,-0.859074,0.34933,0.706115,1.61767,0.387925,-0.0137036,0.0317631,-0.00777204,0.150559,-1.93126,0.222236,0.179911,0.0513447,-0.00137333,0.023816,0.0051381,0.00224461,0.00481087,0.0171011,-0.00106221,0,0,0,0,0,0,0,-2.50378,-36.0179,-2.43498,27.0026,0.422665,2.56249,0.0577852,
0.0316955,-0.00680697,0.15021,-1.93226,0.223427,0.179972,0.0513043,0.00166115,0.0348524,0.00178135,-0.0248397,0.110759,0.00533852,-0.00140914,-0.756476,0.668557,-0.760205,0.191159,-3.82106,-0.143091,-0.0238782,0.343774,-0.858571,0.346481,0.706279,1.61036,0.382907,-0.0137037,0.0317631,-0.00777204,0.150559,-1.93126,0.222236,0.179911,0.0513447,-0.00137333,0.023816,0.0051381,0.00224461,0.00481087,0.0171011,-0.00106221,0,0,0,0,0,0,0,-2.50378,-36.0179,-2.43498,27.0026,0.422665,2.56249,0.0577852,
0.0318724,-0.00763591,0.150671,-1.93156,0.223718,0.181669,0.051324,0.00307864,0.0292122,0.00320529,-0.0236116,0.110928,0.0298083,-0.00134311,0.885929,-3.5251,0.889966,0.767572,0.105579,15.2936,0.0412678,2.76898,-1.3493,2.77352,0.10707,2.15813,2.12979,-0.0125482,0.0317631,-0.00777204,0.150559,-1.93126,0.222236,0.179911,0.0513447,-0.00137333,0.023816,0.0051381,0.00224461,0.00481087,0.0171011,-0.00106221,0,0,0,0,0,0,0,-2.50378,-36.0179,-2.43498,27.0026,0.422665,2.56249,0.0577852,
0.03197,-0.00759836,0.15077,-1.93168,0.224793,0.182857,0.0513165,0.0049033,0.0243085,0.00502963,-0.0218758,0.11562,0.0535545,-0.00126171,1.14041,-3.0648,1.14021,1.08487,2.93254,14.8414,0.0508734,2.73457,-1.1634,2.72737,0.161342,2.08877,2.11209,-0.0117933,0.0314757,-0.00580448,0.150389,-1.93144,0.221506,0.181044,0.0513474,-0.00893755,0.13102,-0.00196678,-0.0128954,-0.0355605,0.0613671,0.000300974,-0.945528,13.4005,-0.888111,-1.8925,-5.04642,5.53325,0.170398,-2.09912,-27.8334,-2.08586,21.8451,0.484005,1.41533,0.0239107,
0.0320906,-0.0075744,0.150891,-1.93177,0.225978,0.18415,0.0513094,0.00693837,0.020046,0.00706186,-0.0197239,0.122136,0.0751482,-0.00118758,1.27192,-2.6641,1.27015,1.34491,4.07204,13.4961,0.0463338,2.69654,-1.06075,2.68913,0.187052,2.0197,2.07904,-0.011276,0.0314757,-0.00580448,0.150389,-1.93144,0.221506,0.181044,0.0513474,-0.00893755,0.13102,-0.00196678,-0.0128954,-0.0355605,0.0613671,0.000300974,0,0,0,0,0,0,0,-2.09912,-27.8334,-2.08586,21.8451,0.484005,1.41533,0.0239107,
0.0393835,0.000411826,0.158187,-1.93692,0.21936,0.201754,0.0519126,0.020249,0.0226947,0.0201142,-0.0219086,0.0890301,0.0799997,-0.000215624,8.31914,1.65544,8.15771,-1.36541,-20.6909,3.03218,0.60747,8.57103,3.04586,8.49648,-3.96852,0.976334,2.74608,0.0445664,0.0314757,-0.00580448,0.150389,-1.93144,0.221506,0.181044,0.0513474,-0.00893755,0.13102,-0.00196678,-0.0128954,-0.0355605,0.0613671,0.000300974,0,0,0,0,0,0,0,-2.09912,-27.8334,-2.08586,21.8451,0.484005,1.41533,0.0239107,
0.0399672,0.000675189,0.158761,-1.93716,0.218978,0.202486,0.0519414,0.0307921,0.0247398,0.0304455,-0.023545,0.0616599,0.082315,0.000549155,6.58943,1.27822,6.45706,-1.02278,-17.1064,1.44708,0.477987,8.47124,3.08783,8.39739,-3.91698,0.817066,2.55296,0.0438545,0.0314757,-0.00580448,0.150389,-1.93144,0.221506,0.181044,0.0513474,-0.00893755,0.13102,-0.00196678,-0.0128954,-0.0355605,0.0613671,0.000300974,0,0,0,0,0,0,0,-2.09912,-27.8334,-2.08586,21.8451,0.484005,1.41533,0.0239107,
0.040546,0.000936236,0.15933,-1.9374,0.218562,0.20316,0.0519698,0.0391032,0.026318,0.0385822,-0.0247529,0.038936,0.0826982,0.00114762,5.19448,0.986386,5.08545,-0.75493,-14.2024,0.239446,0.374039,8.37406,3.11968,8.30046,-3.86564,0.665949,2.37171,0.0432648,0.0314757,-0.00580448,0.150389,-1.93144,0.221506,0.181044,0.0513474,-0.00893755,0.13102,-0.00196678,-0.0128954,-0.0355605,0.0613671,0.000300974,0,0,0,0,0,0,0,-2.09912,-27.8334,-2.08586,21.8451,0.484005,1.41533,0.0239107,
0.0411193,0.00119548,0.159893,-1.93763,0.218116,0.203779,0.0519976,0.045615,0.0275354,0.0449495,-0.025624,0.0199879,0.0816254,0.00161357,4.06983,0.760858,3.97955,-0.544413,-11.8425,-0.67045,0.291223,8.28297,3.17253,8.20293,-3.82444,0.527106,2.20043,0.042666,0.031179,-0.00477103,0.150348,-1.93218,0.220957,0.182264,0.0513445,-0.0143484,0.0193778,0.00218265,-0.020184,0.00349838,0.0360605,-0.000906087,-0.676352,-13.9553,0.518679,-0.911079,4.88236,-3.16332,-0.150883,3.05042,-38.5133,3.08748,30.2676,1.5094,3.05962,0.050461,
0.0345856,-0.00524119,0.153834,-1.93722,0.228594,0.202356,0.0516661,0.0534641,0.0202141,0.0531868,-0.0361784,0.0498405,0.140616,0.00219438,4.90572,-4.57579,5.14835,-6.59651,18.6579,36.8692,0.363006,11.4963,-2.67111,11.61,-8.26744,2.76436,5.09836,0.0596748,0.031179,-0.00477103,0.150348,-1.93218,0.220957,0.182264,0.0513445,-0.0143484,0.0193778,0.00218265,-0.020184,0.00349838,0.0360605,-0.000906087,0,0,0,0,0,0,0,3.05042,-38.5133,3.08748,30.2676,1.5094,3.05962,0.050461,
0.0352873,-0.00532122,0.154546,-1.93783,0.229936,0.205266,0.0517005,0.0603149,0.0141707,0.0603449,-0.044045,0.0734054,0.185246,0.0026161,4.28172,-3.77713,4.4738,-4.91662,14.728,27.8935,0.263576,11.1262,-2.40128,11.2413,-8.13123,2.66866,4.7914,0.0546326,0.031179,-0.00477103,0.150348,-1.93218,0.220957,0.182264,0.0513445,-0.0143484,0.0193778,0.00218265,-0.020184,0.00349838,0.0360605,-0.000906087,0,0,0,0,0,0,0,3.05042,-38.5133,3.08748,30.2676,1.5094,3.05962,0.050461,
0.0360046,-0.00540822,0.155274,-1.93841,0.231244,0.208064,0.0517336,0.0661846,0.00916152,0.0664582,-0.0498654,0.0914275,0.218128,0.00291881,3.66854,-3.13075,3.82081,-3.63775,11.2638,20.5513,0.189192,10.8189,-2.17989,10.9351,-8.00104,2.54501,4.51399,0.0508564,0.031179,-0.00477103,0.150348,-1.93218,0.220957,0.182264,0.0513445,-0.0143484,0.0193778,0.00218265,-0.020184,0.00349838,0.0360605,-0.000906087,0,0,0,0,0,0,0,3.05042,-38.5133,3.08748,30.2676,1.5094,3.05962,0.050461,
0.0367319,-0.00550129,0.156011,-1.93898,0.232504,0.210744,0.0517654,0.0711304,0.00500242,0.0715974,-0.0541309,0.104649,0.241516,0.00313176,3.09114,-2.59944,3.21198,-2.66594,8.26351,14.6176,0.133091,10.558,-1.93969,10.6602,-7.85611,2.41074,4.27726,0.0478128,0.0331044,-0.00244393,0.153552,-1.93309,0.220831,0.183295,0.0513465,0.0778581,0.0225681,0.0912243,-0.0336263,-0.0504562,0.0209751,-0.000295997,11.5258,0.398786,11.1302,-1.68028,-6.74432,-1.88567,0.0762613,5.02613,-34.2207,5.3885,26.8518,3.0429,2.5158,0.0303194,
0.0400515,-0.00178735,0.160432,-1.94066,0.229295,0.207176,0.0517622,0.0801597,0.00692914,0.0803149,-0.0644616,0.108234,0.266694,0.00366516,5.6433,1.2042,5.44847,-6.45669,2.24063,15.7362,0.333375,13.215,0.658404,13.0878,-11.8824,2.76793,5.63587,0.0745503,0.0331044,-0.00244393,0.153552,-1.93309,0.220831,0.183295,0.0513465,0.0778581,0.0225681,0.0912243,-0.0336263,-0.0504562,0.0209751,-0.000295997,0,0,0,0,0,0,0,5.02613,-34.2207,5.3885,26.8518,3.0429,2.5158,0.0303194,
0.0409817,-0.00167457,0.161353,-1.94149,0.230155,0.209966,0.0518075,0.0873834,0.00836286,0.0872868,-0.0722318,0.108084,0.283106,0.00406479,4.51481,0.896075,4.35739,-4.8564,-0.0936389,10.2574,0.24977,12.9008,0.815843,12.78,-11.7232,2.49901,5.21528,0.0699261,0.0331044,-0.00244393,0.153552,-1.93309,0.220831,0.183295,0.0513465,0.0778581,0.0225681,0.0912243,-0.0336263,-0.0504562,0.0209751,-0.000295997,0,0,0,0,0,0,0,5.02613,-34.2207,5.3885,26.8518,3.0429,2.5158,0.0303194,
0.0419092,-0.00156627,0.162272,-1.9423,0.230891,0.212605,0.0518518,0.0930924,0.00939788,0.0927918,-0.0780323,0.10485,0.292447,0.00435985,3.56816,0.646889,3.44063,-3.62532,-2.02121,5.83814,0.184411,12.6281,0.945104,12.5118,-11.5636,2.22892,4.83486,0.0663668,0.0331044,-0.00244393,0.153552,-1.93309,0.220831,0.183295,0.0513465,0.0778581,0.0225681,0.0912243,-0.0336263,-0.0504562,0.0209751,-0.000295997,0,0,0,0,0,0,0,5.02613,-34.2207,5.3885,26.8518,3.0429,2.5158,0.0303194,
0.0428317,-0.0014621,0.163185,-1.9431,0.231502,0.215094,0.0518953,0.0975363,0.0101225,0.0970697,-0.0823147,0.0991546,0.296186,0.00457472,2.7774,0.452888,2.67372,-2.67648,-3.55981,2.33725,0.134297,12.3538,1.10522,12.2336,-11.3994,1.95866,4.49378,0.063519,0.0359723,-0.00128131,0.158571,-1.93359,0.219284,0.187651,0.0513448,0.115788,0.0442251,0.18242,-0.00936583,-0.014601,0.203183,-0.000331264,4.74124,2.70713,11.3994,3.03255,4.4819,22.776,-0.00440846,4.89917,-37.6167,5.16237,27.3993,2.73712,2.25762,0.0440523,
0.042262,-0.00161867,0.164893,-1.94056,0.228465,0.211685,0.0516122,0.103306,0.0070012,0.103048,-0.0935701,0.11742,0.336251,0.00480608,3.60617,-1.95081,3.73668,-7.03464,11.4158,25.0406,0.144602,13.0512,-1.0795,13.1121,-14.8453,2.99443,6.65025,0.0698941,0.0359723,-0.00128131,0.158571,-1.93359,0.219284,0.187651,0.0513448,0.115788,0.0442251,0.18242,-0.00936583,-0.014601,0.203183,-0.000331264,0,0,0,0,0,0,0,4.89917,-37.6167,5.16237,27.3993,2.73712,2.25762,0.0440523,
0.0432611,-0.00166424,0.165897,-1.94165,0.229854,0.215499,0.0516572,0.107622,0.00446195,0.107531,-0.101863,0.12868,0.364341,0.00496899,2.69712,-1.58703,2.8015,-5.18306,7.03771,17.5561,0.101817,12.7697,-0.987343,12.8302,-14.668,2.68602,6.19509,0.0660012,0.0359723,-0.00128131,0.158571,-1.93359,0.219284,0.187651,0.0513448,0.115788,0.0442251,0.18242,-0.00936583,-0.014601,0.203183,-0.000331264,0,0,0,0,0,0,0,4.89917,-37.6167,5.16237,27.3993,2.73712,2.25762,0.0440523,
0.044248,-0.00171279,0.166889,-1.9427,0.231101,0.219143,0.0517013,0.110768,0.0023558,0.110811,-0.107903,0.134104,0.382592,0.00507881,1.96684,-1.31634,2.05021,-3.77491,3.39012,11.4066,0.0686389,12.5218,-0.896753,12.5819,-14.4815,2.39094,5.78693,0.0629982,0.0359723,-0.00128131,0.158571,-1.93359,0.219284,0.187651,0.0513448,0.115788,0.0442251,0.18242,-0.00936583,-0.014601,0.203183,-0.000331264,0,0,0,0,0,0,0,4.89917,-37.6167,5.16237,27.3993,2.73712,2.25762,0.0440523,
0.0452224,-0.00176458,0.167868,-1.94374,0.232203,0.222617,0.0517447,0.112975,0.000589874,0.113124,-0.112231,0.134832,0.392918,0.00514733,1.37904,-1.10371,1.44557,-2.70485,0.45481,6.45429,0.042821,12.2973,-0.748145,12.3438,-14.2941,2.12311,5.40488,0.0607585,0.0409752,0.000686605,0.16636,-1.93516,0.21786,0.196377,0.0513506,0.150584,0.0360873,0.224489,-0.0638359,-0.0330827,0.250872,0.000651909,4.34946,-1.01722,5.25861,-6.80876,-2.31021,5.96114,0.122897,2.34027,-31.2254,2.41304,22.1188,1.53412,1.80627,0.0239107,
0.0522084,0.000741021,0.177551,-1.94799,0.223485,0.229581,0.0517749,0.115084,0.00088329,0.115092,-0.119597,0.110429,0.384952,0.00521751,1.31846,0.183385,1.22988,-4.60423,-15.2523,-4.97899,0.0438615,12.7012,0.268254,12.6559,-17.36,1.36182,5.58658,0.0624438,0.0409752,0.000686605,0.16636,-1.93516,0.21786,0.196377,0.0513506,0.150584,0.0360873,0.224489,-0.0638359,-0.0330827,0.250872,0.000651909,0,0,0,0,0,0,0,2.34027,-31.2254,2.41304,22.1188,1.53412,1.80627,0.0239107,
0.0531778,0.000756693,0.178516,-1.94916,0.223489,0.232273,0.0518183,0.116304,0.00109844,0.116197,-0.125052,0.0884498,0.375251,0.00525828,0.762123,0.134468,0.690882,-3.40911,-13.7367,-6.06306,0.0254846,12.5372,0.316674,12.4916,-17.1156,1.09528,5.22583,0.061495,0.0409752,0.000686605,0.16636,-1.93516,0.21786,0.196377,0.0513506,0.150584,0.0360873,0.224489,-0.0638359,-0.0330827,0.250872,0.000651909,0,0,0,0,0,0,0,2.34027,-31.2254,2.41304,22.1188,1.53412,1.80627,0.0239107,
0.0541296,0.000771804,0.179463,-1.95032,0.223406,0.234838,0.051861,0.116839,0.00125652,0.11664,-0.128994,0.0686899,0.364339,0.0052735,0.334239,0.0988025,0.276725,-2.46363,-12.35,-6.82008,0.00951493,12.3791,0.350444,12.3331,-16.8714,0.853708,4.89928,0.0607566,0.0409752,0.000686605,0.16636,-1.93516,0.21786,0.196377,0.0513506,0.150584,0.0360873,0.224489,-0.0638359,-0.0330827,0.250872,0.000651909,0,0,0,0,0,0,0,2.34027,-31.2254,2.41304,22.1188,1.53412,1.80627,0.0239107,
0.0545266,0.00184193,0.182849,-1.949,0.224738,0.232468,0.0515934,0.119977,0.000794882,0.119842,-0.139043,0.0747143,0.384486,0.00525231,1.96167,-0.288526,2.00116,-6.28063,3.76524,12.5917,-0.0132494,12.2772,-0.593355,12.3061,-19.2329,1.61181,6.35674,0.0565753,0.0459145,0.00158093,0.174228,-1.93816,0.217566,0.205581,0.0513437,0.159782,0.0594188,0.265423,-0.111108,-0.00264082,0.284679,-0.000991807,1.14985,2.91643,5.11681,-5.90901,3.80523,4.22594,-0.205465,4.51831,-28.9562,4.51173,18.707,1.75384,0.62615,0.0577852,
0.0555548,0.00182374,0.183878,-1.9504,0.225406,0.236067,0.0516345,0.121686,0.000181247,0.121603,-0.146253,0.0764776,0.397568,0.00523058,1.06767,-0.383522,1.10095,-4.50617,1.10208,8.17625,-0.0135801,12.1355,-0.581485,12.1635,-18.9615,1.37372,6.00441,0.0561591,0.0459145,0.00158093,0.174228,-1.93816,0.217566,0.205581,0.0513437,0.159782,0.0594188,0.265423,-0.111108,-0.00264082,0.284679,-0.000991807,0,0,0,0,0,0,0,4.51831,-28.9562,4.51173,18.707,1.75384,0.62615,0.0577852,
0.0565549,0.00179736,0.18488,-1.95178,0.225961,0.23954,0.0516753,0.122351,-0.000514418,0.122314,-0.15128,0.0750613,0.404883,0.00520419,0.416147,-0.434791,0.444008,-3.14213,-0.885189,4.57243,-0.0164935,11.9934,-0.570452,12.0208,-18.6871,1.16185,5.68399,0.0557177,0.0459145,0.00158093,0.174228,-1.93816,0.217566,0.205581,0.0513437,0.159782,0.0594188,0.265423,-0.111108,-0.00264082,0.284679,-0.000991807,0,0,0,0,0,0,0,4.51831,-28.9562,4.51173,18.707,1.75384,0.62615,0.0577852,
0.0575301,0.00176436,0.185856,-1.95312,0.226414,0.242886,0.0517156,0.122262,-0.00123661,0.122261,-0.154628,0.0713675,0.407569,0.00517122,-0.05617,-0.451371,-0.032932,-2.09273,-2.30865,1.67813,-0.0206077,11.8505,-0.562128,11.8774,-18.4108,0.973524,5.39263,0.0552233,0.0459145,0.00158093,0.174228,-1.93816,0.217566,0.205581,0.0513437,0.159782,0.0594188,0.265423,-0.111108,-0.00264082,0.284679,-0.000991807,0,0,0,0,0,0,0,4.51831,-28.9562,4.51173,18.707,1.75384,0.62615,0.0577852,
0.0472021,0.00249845,0.175513,-1.93908,0.217841,0.206885,0.0513051,0.129998,0.0219488,0.129925,-0.146643,0.063961,0.358671,0.00317223,4.83545,14.4909,4.78965,4.99063,-4.62905,-30.5609,-1.24936,-0.0126608,29.2382,-0.0317926,-22.3728,-1.72042,-1.27219,-0.00419969,0.0511507,0.00263679,0.182515,-1.94404,0.216672,0.215689,0.0513512,0.142582,0.0510522,0.220194,-0.196023,0.00517607,0.289701,0.00158112,-2.15004,-1.04582,-5.6536,-10.6144,0.977111,0.627683,0.321616,1.83246,-31.9753,1.71083,23.7653,1.00311,1.68725,-0.00996382,
0.0483724,0.00281366,0.176682,-1.94119,0.219448,0.21104,0.0513039,0.133256,0.0254393,0.133184,-0.170075,0.091353,0.390808,0.00250944,2.03614,2.18158,2.03693,-14.6447,17.12,20.0858,-0.414247,12.4882,-1.81081,12.4946,-23.4799,3.71495,9.94716,0.0322038,0.0511507,0.00263679,0.182515,-1.94404,0.216672,0.215689,0.0513512,0.142582,0.0510522,0.220194,-0.196023,0.00517607,0.289701,0.00158112,0,0,0,0,0,0,0,1.83246,-31.9753,1.71083,23.7653,1.00311,1.68725,-0.00996382,
0.0495021,0.00301004,0.177811,-1.94342,0.221409,0.216237,0.0513314,0.134847,0.0252608,0.134762,-0.191773,0.122101,0.442566,0.00269424,0.994593,-0.111564,0.986441,-13.5613,19.2177,32.3485,0.1155,12.5763,-1.54761,12.5746,-23.1373,3.06438,9.34244,0.0419582,0.0511507,0.00263679,0.182515,-1.94404,0.216672,0.215689,0.0513512,0.142582,0.0510522,0.220194,-0.196023,0.00517607,0.289701,0.00158112,0,0,0,0,0,0,0,1.83246,-31.9753,1.71083,23.7653,1.00311,1.68725,-0.00996382,
0.0683319,0.00359903,0.196582,-1.97422,0.233641,0.299601,0.0521522,0.129678,0.020061,0.129518,-0.186942,0.0913299,0.422897,0.00315992,-3.2312,-3.24987,-3.27743,3.01948,-19.2322,-12.2929,0.291051,10.3668,-0.0664527,10.3343,-16.8128,-0.47686,3.411,0.0493745,0.0511507,0.00263679,0.182515,-1.94404,0.216672,0.215689,0.0513512,0.142582,0.0510522,0.220194,-0.196023,0.00517607,0.289701,0.00158112,0,0,0,0,0,0,0,1.83246,-31.9753,1.71083,23.7653,1.00311,1.68725,-0.00996382,
0.0699677,0.00395325,0.201235,-1.96958,0.207555,0.25692,0.0521138,0.11873,0.0163593,0.118489,-0.169175,0.0602184,0.369654,0.00348856,-6.84242,-2.31354,-6.89333,11.1042,-19.4447,-33.2772,0.205403,10.1885,-0.0658391,10.141,-16.473,-0.514006,3.27426,0.0485297,0.0555937,0.0045655,0.188822,-1.9505,0.216957,0.225515,0.0513455,0.132398,0.120136,0.184118,-0.176597,0.0192402,0.295097,2.18971e-05,-1.27299,8.63541,-4.50953,2.4282,1.75801,0.674511,-0.194903,-3.74554,-30.8287,-3.53789,25.3601,0.60577,1.87951,0.0706026,
0.0705544,0.003966,0.201817,-1.97034,0.207082,0.258118,0.0521542,0.109652,0.0134062,0.109344,-0.154315,0.0363461,0.32568,0.00379962,-5.67327,-1.84572,-5.71524,9.2875,-14.9202,-27.4836,0.194409,10.0313,-0.0640054,9.9835,-16.1422,-0.55409,3.15267,0.0476674,0.0555937,0.0045655,0.188822,-1.9505,0.216957,0.225515,0.0513455,0.132398,0.120136,0.184118,-0.176597,0.0192402,0.295097,2.18971e-05,0,0,0,0,0,0,0,-3.74554,-30.8287,-3.53789,25.3601,0.60577,1.87951,0.0706026,
0.0711284,0.00397913,0.202386,-1.97108,0.206655,0.259261,0.0521965,0.102071,0.0110531,0.101706,-0.141787,0.0184179,0.289115,0.00409934,-4.73868,-1.47066,-4.77384,7.83002,-11.2051,-22.853,0.187325,9.87358,-0.0621333,9.82554,-15.8108,-0.590515,3.03949,0.046818,0.0555937,0.0045655,0.188822,-1.9505,0.216957,0.225515,0.0513455,0.132398,0.120136,0.184118,-0.176597,0.0192402,0.295097,2.18971e-05,0,0,0,0,0,0,0,-3.74554,-30.8287,-3.53789,25.3601,0.60577,1.87951,0.0706026,
0.0614086,0.00661734,0.194602,-1.95861,0.216156,0.238178,0.0515277,0.102687,0.012667,0.102237,-0.143473,0.00649002,0.280957,0.00408443,0.385225,1.00865,0.331783,-1.05379,-7.45495,-5.09881,-0.00931936,9.60866,-0.0998819,9.56151,-15.1544,-0.527413,3.25578,0.0454706,0.0555937,0.0045655,0.188822,-1.9505,0.216957,0.225515,0.0513455,0.132398,0.120136,0.184118,-0.176597,0.0192402,0.295097,2.18971e-05,0,0,0,0,0,0,0,-3.74554,-30.8287,-3.53789,25.3601,0.60577,1.87951,0.0706026,
0.0622177,0.00673713,0.195405,-1.95976,0.215777,0.24014,0.0515599,0.102378,0.0131285,0.101861,-0.14363,-0.00428596,0.273824,0.00407211,-0.192797,0.288454,-0.23496,-0.0981618,-6.73499,-4.45797,-0.00769851,9.4523,-0.0951183,9.40486,-14.8208,-0.560096,3.15996,0.0447276,0.0555937,0.0045655,0.188822,-1.9505,0.216957,0.225515,0.0513455,0.132398,0.120136,0.184118,-0.176597,0.0192402,0.295097,2.18971e-05,0,0,0,0,0,0,0,-3.74554,-30.8287,-3.53789,25.3601,0.60577,1.87951,0.0706026,
0.0629992,0.00683208,0.19618,-1.96087,0.215357,0.242078,0.0515921,0.101439,0.0128763,0.100868,-0.142673,-0.0139216,0.267508,0.00406153,-0.587123,-0.157601,-0.620529,0.598372,-6.02227,-3.94776,-0.00660985,9.34692,-0.164848,9.28744,-14.4827,-0.572205,3.05959,0.0440715,0.0597338,0.00597639,0.195896,-1.95832,0.217739,0.233393,0.0513422,0.0859411,0.0152031,0.160574,-0.203298,0.0212417,0.133591,-0.000961518,-5.80713,-13.1165,-2.94302,-3.33759,0.250189,-20.1882,-0.122927,-6.2846,-41.2111,-5.91033,34.5483,-0.267643,3.90832,0.0706026,
0.0637563,0.00690828,0.196931,-1.96194,0.214904,0.24399,0.0516242,0.100079,0.0122062,0.0994653,-0.14091,-0.022462,0.261797,0.00405312,-0.850269,-0.418812,-0.876893,1.10148,-5.33774,-3.56932,-0.00525686,9.19016,-0.160184,9.13039,-14.1481,-0.600806,2.97453,0.043418,0.0597338,0.00597639,0.195896,-1.95832,0.217739,0.233393,0.0513422,0.0859411,0.0152031,0.160574,-0.203298,0.0212417,0.133591,-0.000961518,0,0,0,0,0,0,0,-6.2846,-41.2111,-5.91033,34.5483,-0.267643,3.90832,0.0706026,
0.0642325,0.00474226,0.199895,-1.95762,0.414221,0.182997,0.0493858,0.0805255,0.00803153,0.0798594,-0.111496,0.0603201,0.189729,0.002466,-12.2207,-2.60918,-12.2537,18.384,51.7388,-45.0422,-0.991952,1.73618,-0.0795731,1.69923,0.268309,2.56659,-0.239947,-0.00977065,0.0597338,0.00597639,0.195896,-1.95832,0.217739,0.233393,0.0513422,0.0859411,0.0152031,0.160574,-0.203298,0.0212417,0.133591,-0.000961518,0,0,0,0,0,0,0,-6.2846,-41.2111,-5.91033,34.5483,-0.267643,3.90832,0.0706026,
0.064251,0.00467253,0.199907,-1.95757,0.417344,0.182214,0.0493547,0.0648832,0.00468191,0.0641759,-0.0879639,0.126336,0.132206,0.00119595,-9.77648,-2.09351,-9.80221,14.7076,41.2597,-35.9522,-0.793783,1.51375,-0.240037,1.45986,0.314347,2.82681,-0.27313,-0.015329,0.0618994,0.00718933,0.200548,-1.96348,0.217597,0.235008,0.05135,0.0487153,0.00707032,0.129563,-0.12099,-0.0087977,0.0194459,-0.000744121,-4.65323,-1.0166,-3.87636,10.2885,-3.75492,-14.2682,0.0271746,-4.22955,-37.589,-4.01,28.7482,0.617672,2.44988,0.0101778,
0.0642695,0.0046024,0.199918,-1.95752,0.420459,0.181436,0.0493236,0.0523693,0.0019924,0.0516302,-0.0691374,0.178939,0.0863173,0.000179553,-7.82114,-1.68094,-7.84106,11.7665,32.877,-28.6804,-0.635246,1.30586,-0.21582,1.25535,0.42728,2.81287,-0.219066,-0.0167176,0.0618994,0.00718933,0.200548,-1.96348,0.217597,0.235008,0.05135,0.0487153,0.00707032,0.129563,-0.12099,-0.0087977,0.0194459,-0.000744121,0,0,0,0,0,0,0,-4.22955,-37.589,-4.01,28.7482,0.617672,2.44988,0.0101778,
0.076497,0.0120529,0.215726,-1.9672,0.225237,0.256989,0.0509092,0.0658997,0.00245523,0.0649966,-0.0588878,0.131554,0.0900563,-0.000187332,8.45651,0.289269,8.35404,6.40604,-29.6152,2.33691,-0.229303,8.61692,4.73646,9.42226,-2.42561,1.90353,2.88338,-0.0390281,0.0618994,0.00718933,0.200548,-1.96348,0.217597,0.235008,0.05135,0.0487153,0.00707032,0.129563,-0.12099,-0.0087977,0.0194459,-0.000744121,0,0,0,0,0,0,0,-4.22955,-37.589,-4.01,28.7482,0.617672,2.44988,0.0101778,
0.0774447,0.0120909,0.216663,-1.96735,0.224727,0.257822,0.0508942,0.0764112,0.00291441,0.0754175,-0.0507244,0.0925097,0.0928644,-0.000523092,6.56969,0.286988,6.51305,5.10213,-24.403,1.75504,-0.20985,9.17881,4.8858,9.99564,-2.25371,1.9122,2.79229,-0.0431561,0.0618994,0.00718933,0.200548,-1.96348,0.217597,0.235008,0.05135,0.0487153,0.00707032,0.129563,-0.12099,-0.0087977,0.0194459,-0.000744121,0,0,0,0,0,0,0,-4.22955,-37.589,-4.01,28.7482,0.617672,2.44988,0.0101778,
0.0783749,0.012149,0.217592,-1.96748,0.224175,0.258653,0.0508799,0.0843837,0.00378354,0.0835562,-0.0438694,0.060192,0.0950801,-0.000778197,4.98279,0.543207,5.0867,4.28437,-20.1986,1.38483,-0.159441,9.7012,4.8699,10.5121,-2.12229,1.82836,2.71151,-0.0458982,0.0628745,0.00749714,0.20272,-1.96462,0.225691,0.232766,0.0513547,-0.00714034,-0.0272672,0.0176099,0.0239417,0.401372,-0.171389,-0.000736278,-6.98195,-4.29219,-13.9941,18.1165,51.2712,-23.8544,0.000980376,-2.96002,-40.0884,-2.66112,27.1017,1.82708,1.9262,0.0303194,
0.0792867,0.0122289,0.218508,-1.9676,0.223601,0.259484,0.0508648,0.0903025,0.00502632,0.0897568,-0.0380967,0.0338192,0.0968286,-0.000998765,3.69925,0.776736,3.87537,3.60792,-16.483,1.09279,-0.137855,10.2107,4.74256,11.0048,-1.96705,1.74403,2.62603,-0.0476248,0.0628745,0.00749714,0.20272,-1.96462,0.225691,0.232766,0.0513547,-0.00714034,-0.0272672,0.0176099,0.0239417,0.401372,-0.171389,-0.000736278,0,0,0,0,0,0,0,-2.96002,-40.0884,-2.66112,27.1017,1.82708,1.9262,0.0303194,
0.0767567,0.00649267,0.216702,-1.9702,0.221388,0.261603,0.0509854,0.0875836,0.003429,0.0872391,-0.0362046,0.0139319,0.105337,-0.00133121,-1.69931,-0.998326,-1.57355,1.1826,-12.4295,5.3179,-0.207778,10.4493,-0.076553,10.483,-4.29089,-0.242506,2.67974,-0.02646,0.0628745,0.00749714,0.20272,-1.96462,0.225691,0.232766,0.0513547,-0.00714034,-0.0272672,0.0176099,0.0239417,0.401372,-0.171389,-0.000736278,0,0,0,0,0,0,0,-2.96002,-40.0884,-2.66112,27.1017,1.82708,1.9262,0.0303194,
0.0773579,0.00646884,0.217307,-1.97042,0.220858,0.262684,0.0509643,0.0850966,0.00214744,0.084915,-0.0345649,-0.00209425,0.111301,-0.00159361,-1.55436,-0.800976,-1.4526,1.02481,-10.0164,3.7272,-0.164001,10.26,-0.0369216,10.2966,-4.21168,-0.28792,2.57334,-0.026817,0.0628745,0.00749714,0.20272,-1.96462,0.225691,0.232766,0.0513547,-0.00714034,-0.0272672,0.0176099,0.0239417,0.401372,-0.171389,-0.000736278,0,0,0,0,0,0,0,-2.96002,-40.0884,-2.66112,27.1017,1.82708,1.9262,0.0303194,
0.0779465,0.00644488,0.2179,-1.97064,0.220324,0.263733,0.0509433,0.0827931,0.00111901,0.0827437,-0.0331261,-0.01502,0.115267,-0.00179988,-1.43971,-0.642763,-1.35707,0.899223,-8.0786,2.47878,-0.128917,10.0788,-0.0269465,10.1171,-4.14031,-0.334083,2.47281,-0.0270884,0.0628745,0.00749714,0.20272,-1.96462,0.225691,0.232766,0.0513547,-0.00714034,-0.0272672,0.0176099,0.0239417,0.401372,-0.171389,-0.000736278,0,0,0,0,0,0,0,-2.96002,-40.0884,-2.66112,27.1017,1.82708,1.9262,0.0303194,
0.0785226,0.00642082,0.21848,-1.97086,0.219787,0.264751,0.0509225,0.0806345,0.000293528,0.080693,-0.0318466,-0.0254571,0.117668,-0.00196097,-1.34911,-0.515929,-1.28169,0.799663,-6.52319,1.50083,-0.100683,9.90937,-0.112498,9.94939,-4.01805,-0.407798,2.41592,-0.0275182,0.0651033,0.00724322,0.206899,-1.96441,0.236426,0.229467,0.0513364,0.0694131,-0.0117682,0.0811851,0.0175725,0.0915053,-0.0166631,-0.0041259,9.56918,1.93738,7.9469,-0.796148,-38.7334,19.3407,-0.423702,3.32813,-33.5463,3.51198,25.9076,2.48718,2.44988,0.11821,
0.0792275,0.0063672,0.220783,-1.97312,0.224192,0.264128,0.0512202,0.0750518,0.000500406,0.0747081,-0.0317666,-0.0439551,0.118255,-0.00153155,-3.48923,0.129298,-3.74056,0.0500382,-11.5613,0.366669,0.268388,8.38811,-0.277114,8.29387,-5.95408,-0.420873,2.75015,-0.0116011,0.0651033,0.00724322,0.206899,-1.96441,0.236426,0.229467,0.0513364,0.0694131,-0.0117682,0.0811851,0.0175725,0.0915053,-0.0166631,-0.0041259,0,0,0,0,0,0,0,3.32813,-33.5463,3.51198,25.9076,2.48718,2.44988,0.11821,
0.0796376,0.00637903,0.221176,-1.97336,0.223241,0.265041,0.0512223,0.0702943,0.000696068,0.0695921,-0.0314584,-0.0589613,0.117429,-0.00117429,-2.97345,0.122289,-3.19748,0.192578,-9.37888,-0.516165,0.223289,8.23145,-0.256406,8.13622,-5.83611,-0.449971,2.63637,-0.0113635,0.0651033,0.00724322,0.206899,-1.96441,0.236426,0.229467,0.0513364,0.0694131,-0.0117682,0.0811851,0.0175725,0.0915053,-0.0166631,-0.0041259,0,0,0,0,0,0,0,3.32813,-33.5463,3.51198,25.9076,2.48718,2.44988,0.11821,
0.0800361,0.00639186,0.221556,-1.97359,0.222297,0.265892,0.0512248,0.0661981,0.000877519,0.0651621,-0.0309653,-0.0707531,0.115223,-0.000875906,-2.56012,0.113407,-2.76876,0.308242,-7.36988,-1.37851,0.186488,8.07491,-0.23562,7.97861,-5.71782,-0.478786,2.53026,-0.0111072,0.0651033,0.00724322,0.206899,-1.96441,0.236426,0.229467,0.0513364,0.0694131,-0.0117682,0.0811851,0.0175725,0.0915053,-0.0166631,-0.0041259,0,0,0,0,0,0,0,3.32813,-33.5463,3.51198,25.9076,2.48718,2.44988,0.11821,
0.0804231,0.0064055,0.221921,-1.97381,0.221386,0.26667,0.0512276,0.0626326,0.0010431,0.0612676,-0.0303284,-0.0793923,0.111624,-0.00062958,-2.22841,0.103486,-2.43402,0.398043,-5.39948,-2.24977,0.153953,7.92447,-0.235,7.83075,-5.60595,-0.501666,2.42166,-0.0108283,0.0682569,0.00668579,0.210596,-1.96426,0.235154,0.229531,0.051344,0.111862,-0.00664688,0.121669,-0.00100174,-0.101701,0.00470403,0.000789662,5.30613,0.640165,5.06042,-2.32178,-24.1508,2.67089,0.614445,-1.53973,-30.551,-1.31224,23.2892,1.63757,1.7138,0.0101778,
0.0819659,0.0035596,0.224789,-1.97387,0.22901,0.261691,0.0516415,0.0608174,-0.00292049,0.0603357,-0.0312551,-0.0755227,0.108447,-0.000405557,-1.13453,-2.47724,-0.582445,-0.579169,2.41853,-1.98517,0.140015,7.37871,-0.880252,7.56777,-6.71578,-0.868697,3.16769,0.0255673,0.0682569,0.00668579,0.210596,-1.96426,0.235154,0.229531,0.051344,0.111862,-0.00664688,0.121669,-0.00100174,-0.101701,0.00470403,0.000789662,0,0,0,0,0,0,0,-1.53973,-30.551,-1.31224,23.2892,1.63757,1.7138,0.0101778,
0.0823847,0.00341675,0.225233,-1.97414,0.228589,0.26242,0.0516412,0.0591238,-0.00590764,0.0593556,-0.0318564,-0.0709431,0.10499,-0.000330946,-1.0585,-1.86697,-0.6126,-0.375807,2.86221,-2.16108,0.0466318,7.24396,-0.91116,7.45226,-6.53759,-0.874508,3.05685,0.0260751,0.0682569,0.00668579,0.210596,-1.96426,0.235154,0.229531,0.051344,0.111862,-0.00664688,0.121669,-0.00100174,-0.101701,0.00470403,0.000789662,0,0,0,0,0,0,0,-1.53973,-30.551,-1.31224,23.2892,1.63757,1.7138,0.0101778,
