xiao-wang007/linearmpc_panda/paper_data/panda_torque_PD_controller_opt_time_to_start/4/trajectory.csv
Commanded Joint 0 Position,Commanded Joint 1 Position,Commanded Joint 2 Position,Commanded Joint 3 Position,Commanded Joint 4 Position,Commanded Joint 5 Position,Commanded Joint 6 Position,Commanded Joint 0 Velocity,Commanded Joint 1 Velocity,Commanded Joint 2 Velocity,Commanded Joint 3 Velocity,Commanded Joint 4 Velocity,Commanded Joint 5 Velocity,Commanded Joint 6 Velocity,Commanded Joint 0 Acceleration,Commanded Joint 1 Acceleration,Commanded Joint 2 Acceleration,Commanded Joint 3 Acceleration,Commanded Joint 4 Acceleration,Commanded Joint 5 Acceleration,Commanded Joint 6 Acceleration,Commanded Joint 0 Torque,Commanded Joint 1 Torque,Commanded Joint 2 Torque,Commanded Joint 3 Torque,Commanded Joint 4 Torque,Commanded Joint 5 Torque,Commanded Joint 6 Torque,Actual Joint 0 Position,Actual Joint 1 Position,Actual Joint 2 Position,Actual Joint 3 Position,Actual Joint 4 Position,Actual Joint 5 Position,Actual Joint 6 Position,Actual Joint 0 Velocity,Actual Joint 1 Velocity,Actual Joint 2 Velocity,Actual Joint 3 Velocity,Actual Joint 4 Velocity,Actual Joint 5 Velocity,Actual Joint 6 Velocity,Actual Joint 0 Acceleration,Actual Joint 1 Acceleration,Actual Joint 2 Acceleration,Actual Joint 3 Acceleration,Actual Joint 4 Acceleration,Actual Joint 5 Acceleration,Actual Joint 6 Acceleration,Actual Joint 0 Torque,Actual Joint 1 Torque,Actual Joint 2 Torque,Actual Joint 3 Torque,Actual Joint 4 Torque,Actual Joint 5 Torque,Actual Joint 6 Torque,
-0.0237332,0.0578745,0.0367582,-1.84611,-0.00403437,0.354275,-0.03175,0.000484777,0.0250561,0.000307676,-0.0321512,-0.00430869,0.0586478,-0.000379589,0.302985,15.6601,0.192297,-20.0945,-2.69293,36.6549,-0.237243,0.0572456,26.2822,-0.0640885,-24.3172,-0.582155,2.01177,-0.0249141,-0.023744,0.0565687,0.0367586,-1.84326,-0.00386432,0.348051,-0.0316987,0.00186157,0.00120159,0.000366281,-0.00150976,-0.00686102,0.000273204,0.00118741,0,0,0,0,0,0,0,-0.0718349,-37.6643,0.0366345,27.2009,0.868527,3.05962,-0.0703886,
-0.0237315,0.056593,0.0367696,-1.84328,-0.00391499,0.348039,-0.0316995,0.000451933,0.0202154,0.000302562,-0.0258085,-0.00362158,0.0468228,-0.000309574,-0.0205272,-3.02542,-0.00319582,3.96422,0.429441,-7.39063,0.0437595,0.0514246,26.7226,-0.0744771,-24.2336,-0.582355,1.76072,-0.0233987,-0.023744,0.0565687,0.0367586,-1.84326,-0.00386432,0.348051,-0.0316987,0.00186157,0.00120159,0.000366281,-0.00150976,-0.00686102,0.000273204,0.00118741,0,0,0,0,0,0,0,-0.0718349,-37.6643,0.0366345,27.2009,0.868527,3.05962,-0.0703886,
-0.0237297,0.0565987,0.0367711,-1.84328,-0.00391793,0.348036,-0.0316997,0.000405725,0.0163163,0.000280301,-0.0207143,-0.00297068,0.037384,-0.000251328,-0.02888,-2.43692,-0.0139133,3.18389,0.406814,-5.89922,0.0364036,0.0441752,27.2954,-0.086392,-24.1248,-0.581655,1.41373,-0.0214356,-0.0237454,0.056636,0.0367618,-1.84334,-0.00386886,0.348045,-0.0316984,0.00024714,0.00226866,0.00342907,-0.00264094,-0.00825349,0.000867728,0.00139655,-0.201804,0.133384,0.382849,-0.141398,-0.174058,0.0743154,0.0261426,0.00751081,-37.3906,-0.0387439,27.1771,0.880428,3.10631,-0.0630644,
-0.0237285,0.0566036,0.0367722,-1.84328,-0.00391878,0.348034,-0.0316998,0.000355994,0.0131755,0.000250741,-0.0166234,-0.00239766,0.0298567,-0.000203468,-0.031082,-1.963,-0.0184749,2.55677,0.358133,-4.70455,0.0299127,0.0382022,27.8193,-0.0958358,-23.957,-0.579522,1.02845,-0.0194354,-0.0237454,0.056636,0.0367618,-1.84334,-0.00386886,0.348045,-0.0316984,0.00024714,0.00226866,0.00342907,-0.00264094,-0.00825349,0.000867728,0.00139655,0,0,0,0,0,0,0,0.00751081,-37.3906,-0.0387439,27.1771,0.880428,3.10631,-0.0630644,
-0.0239495,0.0566559,0.0365449,-1.84323,0.00456144,0.344128,-0.0317384,-0.000491156,0.0104104,-0.000548606,-0.0130217,0.0508215,-0.00154035,-0.000203323,-0.529469,-1.72822,-0.499592,2.25106,33.262,-19.6232,9.08984e-05,0.482461,0.130909,0.483811,-0.227295,3.04896,-1.56106,-0.00135245,-0.0237454,0.056636,0.0367618,-1.84334,-0.00386886,0.348045,-0.0316984,0.00024714,0.00226866,0.00342907,-0.00264094,-0.00825349,0.000867728,0.00139655,0,0,0,0,0,0,0,0.00751081,-37.3906,-0.0387439,27.1771,0.880428,3.10631,-0.0630644,
-0.0239694,0.0566508,0.0365262,-1.84322,0.00672119,0.343067,-0.0317393,-0.000889416,0.00820126,-0.000904737,-0.0102893,0.094651,-0.0277435,-0.000184979,-0.248913,-1.38071,-0.222582,1.70776,27.3934,-16.377,0.0114648,0.477138,0.128882,0.478557,-0.225135,3.02147,-1.54713,-0.00133356,-0.0237454,0.056636,0.0367618,-1.84334,-0.00386886,0.348045,-0.0316984,0.00024714,0.00226866,0.00342907,-0.00264094,-0.00825349,0.000867728,0.00139655,0,0,0,0,0,0,0,0.00751081,-37.3906,-0.0387439,27.1771,0.880428,3.10631,-0.0630644,
-0.0239789,0.0566468,0.0365178,-1.84322,0.00890396,0.34198,-0.0317398,-0.000950448,0.00646066,-0.000933271,-0.00822498,0.13029,-0.0493655,-0.000161585,-0.0381448,-1.08788,-0.0178335,1.29021,22.2743,-13.5138,0.0146212,0.470485,0.146266,0.471157,-0.218389,2.99399,-1.53135,-0.00131825,-0.023749,0.0570203,0.0367482,-1.84386,-0.00382959,0.349232,-0.0317014,0.000526123,0.0536963,-0.000312675,-0.0751482,-0.00531446,0.170009,-0.000874176,0.0348729,6.42846,-0.467718,-9.06341,0.367378,21.1427,-0.283841,0.106693,-26.9328,0.139784,16.3425,0.361325,2.52953,-0.0365141,
-0.0239795,0.0566443,0.0365183,-1.84323,0.0110933,0.340879,-0.0317402,-0.000774533,0.00510585,-0.000734789,-0.00667086,0.158965,-0.0670287,-0.000139146,0.109947,-0.846758,0.124052,0.971323,17.922,-11.0395,0.0140242,0.465303,0.144569,0.466035,-0.216204,2.96624,-1.51738,-0.00129756,-0.023749,0.0570203,0.0367482,-1.84386,-0.00382959,0.349232,-0.0317014,0.000526123,0.0536963,-0.000312675,-0.0751482,-0.00531446,0.170009,-0.000874176,0,0,0,0,0,0,0,0.106693,-26.9328,0.139784,16.3425,0.361325,2.52953,-0.0365141,
-0.024057,0.0580853,0.0363886,-1.8437,0.0228749,0.329884,-0.0318134,-0.000274153,0.00584984,-0.000322424,-0.00560068,0.291558,-0.183531,-0.000194527,0.312738,0.464998,0.257728,0.668862,82.8703,-72.8137,-0.0346128,3.91354,0.708166,3.85853,-1.44496,10.1753,-8.24743,-0.00318095,-0.023749,0.0570203,0.0367482,-1.84386,-0.00382959,0.349232,-0.0317014,0.000526123,0.0536963,-0.000312675,-0.0751482,-0.00531446,0.170009,-0.000874176,0,0,0,0,0,0,0,0.106693,-26.9328,0.139784,16.3425,0.361325,2.52953,-0.0365141,
-0.0239977,0.0581354,0.0364465,-1.84374,0.0295487,0.324498,-0.0318146,0.00126519,0.00593189,0.00118932,-0.00547723,0.400092,-0.281485,-0.000185942,0.962088,0.0512803,0.944843,0.0771594,67.8338,-61.2212,0.00536545,3.80698,0.67876,3.75749,-1.42351,9.92454,-8.07225,-0.00388728,-0.023749,0.0570203,0.0367482,-1.84386,-0.00382959,0.349232,-0.0317014,0.000526123,0.0536963,-0.000312675,-0.0751482,-0.00531446,0.170009,-0.000874176,0,0,0,0,0,0,0,0.106693,-26.9328,0.139784,16.3425,0.361325,2.52953,-0.0365141,
-0.0238972,0.0581765,0.0365456,-1.8438,0.0362235,0.319024,-0.0318148,0.00352255,0.00577185,0.00342857,-0.00594771,0.486941,-0.362021,-0.000152906,1.41085,-0.100023,1.39953,-0.294052,54.2809,-50.3352,0.0206473,3.7087,0.796366,3.66421,-1.39415,9.65747,-7.88347,-0.00465397,-0.0237286,0.0612191,0.0367945,-1.84944,-0.00208556,0.355458,-0.0316991,0.00654052,0.0538674,0.000508627,-0.153105,0.231349,-0.0851311,0.000847532,0.751799,0.0213931,0.102663,-9.74455,29.583,-31.8926,0.215214,0.0313145,-30.9755,0.163588,29.0933,2.01019,2.42974,-0.0566557,
-0.0237618,0.058215,0.0366793,-1.84388,0.0428411,0.313534,-0.0318146,0.00620488,0.00558074,0.00608712,-0.00675703,0.554993,-0.426882,-0.000118138,1.67645,-0.119448,1.66159,-0.505825,42.5325,-40.5381,0.02173,3.67028,0.817025,3.5892,-1.33482,9.34463,-7.72437,0.00288306,-0.0237286,0.0612191,0.0367945,-1.84944,-0.00208556,0.355458,-0.0316991,0.00654052,0.0538674,0.000508627,-0.153105,0.231349,-0.0851311,0.000847532,0,0,0,0,0,0,0,0.0313145,-30.9755,0.163588,29.0933,2.01019,2.42974,-0.0566557,
-0.0211508,0.0609985,0.0392818,-1.85186,0.0280618,0.316176,-0.0314269,0.0230319,-0.00191394,0.0222582,-0.018294,0.631023,-0.588388,-6.67016e-05,10.5169,-4.68418,10.1069,-7.21058,47.5185,-100.941,0.0321479,20.5758,-3.73368,20.3485,-8.35322,11.0314,-14.1973,0.28114,-0.0237286,0.0612191,0.0367945,-1.84944,-0.00208556,0.355458,-0.0316991,0.00654052,0.0538674,0.000508627,-0.153105,0.231349,-0.0851311,0.000847532,0,0,0,0,0,0,0,0.0313145,-30.9755,0.163588,29.0933,2.01019,2.42974,-0.0566557,
-0.0203645,0.0607195,0.040041,-1.85244,0.0358578,0.306202,-0.0314246,0.0380821,-0.00850387,0.0367852,-0.0291561,0.699718,-0.720042,4.51943e-06,9.4064,-4.11871,9.07936,-6.78884,42.9345,-82.2838,0.0445132,17.3589,-5.33154,17.0597,-9.54761,11.0314,-14.1973,0.0826931,-0.0237286,0.0612191,0.0367945,-1.84944,-0.00208556,0.355458,-0.0316991,0.00654052,0.0538674,0.000508627,-0.153105,0.231349,-0.0851311,0.000847532,0,0,0,0,0,0,0,0.0313145,-30.9755,0.163588,29.0933,2.01019,2.42974,-0.0566557,
-0.0195294,0.0604389,0.040849,-1.85309,0.0438756,0.296432,-0.0314209,0.0513443,-0.0138196,0.0496295,-0.0393971,0.76022,-0.820284,9.76031e-05,8.28887,-3.32234,8.02771,-6.40062,37.8138,-62.6511,0.0581773,15.7441,-3.93782,15.2917,-9.14131,10.8805,-14.2147,0.0192065,-0.0238884,0.0640094,0.0367437,-1.85083,0.0130824,0.344124,-0.0317044,-0.00709421,0.137492,-0.0035085,-0.00696882,1.05123,-0.625903,0.000473488,-1.70434,10.4531,-0.502142,18.267,102.485,-67.5965,-0.0467555,5.15308,-45.3529,5.16237,23.3646,3.34228,-2.50953,-0.00996382,
-0.0197079,0.0653221,0.0409627,-1.85459,0.0512864,0.300698,-0.0316306,0.069884,-0.00902555,0.0681772,-0.0535283,0.80426,-0.907639,-2.41792e-05,11.5873,2.99629,11.5923,-8.83202,27.525,-54.5968,-0.076114,23.8457,1.52571,23.5565,-13.9729,10.8805,-14.2147,0.0104885,-0.0238884,0.0640094,0.0367437,-1.85083,0.0130824,0.344124,-0.0317044,-0.00709421,0.137492,-0.0035085,-0.00696882,1.05123,-0.625903,0.000473488,0,0,0,0,0,0,0,5.15308,-45.3529,5.16237,23.3646,3.34228,-2.50953,-0.00996382,
-0.0184884,0.0653738,0.0421649,-1.85555,0.059302,0.290752,-0.0316363,0.0863957,-0.00592647,0.0845972,-0.0670414,0.8438,-0.974745,-0.000163311,10.3198,1.93693,10.2625,-8.4457,24.7127,-41.9417,-0.0869574,22.5897,1.55883,22.282,-13.5333,10.8805,-14.2147,0.000506533,-0.0238884,0.0640094,0.0367437,-1.85083,0.0130824,0.344124,-0.0317044,-0.00709421,0.137492,-0.0035085,-0.00696882,1.05123,-0.625903,0.000473488,0,0,0,0,0,0,0,5.15308,-45.3529,5.16237,23.3646,3.34228,-2.50953,-0.00996382,
-0.0172242,0.0654182,0.0434091,-1.8566,0.0674628,0.281216,-0.0316405,0.100721,-0.00363075,0.0987813,-0.079723,0.879059,-1.01821,-0.00023327,8.9534,1.43482,8.86508,-7.92596,22.0365,-27.167,-0.0437244,21.478,1.35936,21.1641,-13.232,10.8805,-14.2147,-0.00581549,-0.0238884,0.0640094,0.0367437,-1.85083,0.0130824,0.344124,-0.0317044,-0.00709421,0.137492,-0.0035085,-0.00696882,1.05123,-0.625903,0.000473488,0,0,0,0,0,0,0,5.15308,-45.3529,5.16237,23.3646,3.34228,-2.50953,-0.00996382,
-0.0159322,0.0654691,0.0446791,-1.85769,0.0757378,0.27225,-0.0316427,0.112877,-0.00163296,0.110775,-0.0911429,0.910123,-1.0387,-0.000243901,7.59744,1.24862,7.49631,-7.13747,19.4149,-12.8077,-0.00664448,20.2062,1.63093,19.8775,-13.2302,10.6606,-13.9973,-0.00719089,-0.0232993,0.065895,0.0377611,-1.85183,0.047855,0.309236,-0.0316505,0.0738707,-0.0531423,0.117175,-0.0814255,1.28217,-1.52939,0.00176862,10.1206,-23.8293,15.0855,-9.30709,28.8673,-112.936,0.161891,18.9235,-40.4851,17.9846,13.6011,3.29925,-4.31312,-0.0163725,
-0.0165139,0.0638515,0.0444245,-1.85861,0.0907643,0.255647,-0.0317907,0.128459,-0.00926252,0.125842,-0.110701,0.937721,-1.07354,-0.00117448,9.73873,-4.76848,9.41646,-12.2239,17.249,-21.7741,-0.58161,24.7228,-1.81227,24.039,-19.4587,10.6606,-13.9973,-0.0468908,-0.0232993,0.065895,0.0377611,-1.85183,0.047855,0.309236,-0.0316505,0.0738707,-0.0531423,0.117175,-0.0814255,1.28217,-1.52939,0.00176862,0,0,0,0,0,0,0,18.9235,-40.4851,17.9846,13.6011,3.29925,-4.31312,-0.0163725,
-0.014967,0.0635696,0.0459325,-1.86017,0.0991888,0.246807,-0.0318269,0.141439,-0.0144573,0.138373,-0.127622,0.96079,-1.07985,-0.00184422,8.11255,-3.24675,7.83177,-10.5758,14.4181,-3.93914,-0.418592,23.3054,-1.90309,22.6775,-19.0199,10.6606,-13.9973,-0.0585276,-0.0232993,0.065895,0.0377611,-1.85183,0.047855,0.309236,-0.0316505,0.0738707,-0.0531423,0.117175,-0.0814255,1.28217,-1.52939,0.00176862,0,0,0,0,0,0,0,18.9235,-40.4851,17.9846,13.6011,3.29925,-4.31312,-0.0163725,
-0.0134145,0.0633196,0.0474455,-1.86176,0.107652,0.238867,-0.0318571,0.151965,-0.0178166,0.148521,-0.141818,0.98021,-1.06237,-0.00222887,6.57884,-2.09958,6.34304,-8.87197,12.1375,10.9253,-0.240404,22.1408,-2.12439,21.555,-18.6749,10.6606,-13.9973,-0.0600423,-0.0232993,0.065895,0.0377611,-1.85183,0.047855,0.309236,-0.0316505,0.0738707,-0.0531423,0.117175,-0.0814255,1.28217,-1.52939,0.00176862,0,0,0,0,0,0,0,18.9235,-40.4851,17.9846,13.6011,3.29925,-4.31312,-0.0163725,
-0.0118669,0.0630956,0.0489531,-1.86335,0.116146,0.231823,-0.0318816,0.16026,-0.0198539,0.156509,-0.153329,0.99651,-1.026,-0.00239747,5.18449,-1.2733,4.99202,-7.19466,10.1875,22.7259,-0.105372,21.2907,-2.15658,20.7202,-18.3592,10.5769,-12.0351,-0.0591061,-0.019544,0.0662814,0.0413487,-1.85651,0.0869797,0.256064,-0.0316426,0.147919,0.0281666,0.160965,-0.210731,1.29897,-1.7496,0.00448237,9.256,10.1636,5.47367,-16.1631,2.10023,-27.5259,0.339219,18.0626,-33.5979,17.211,25.0864,4.02618,-2.20466,-0.0905302,
-0.0120992,0.0666181,0.0486331,-1.86583,0.131354,0.209358,-0.0317391,0.166489,-0.0153106,0.162498,-0.167183,1.01077,-0.992746,-0.00228648,3.89273,2.83957,3.74311,-8.65898,8.9115,20.7861,0.069368,20.431,-2.3851,19.8891,-18.0978,10.5769,-10.3832,-0.0522789,-0.019544,0.0662814,0.0413487,-1.85651,0.0869797,0.256064,-0.0316426,0.147919,0.0281666,0.160965,-0.210731,1.29897,-1.7496,0.00448237,0,0,0,0,0,0,0,18.0626,-33.5979,17.211,25.0864,4.02618,-2.20466,-0.0905302,
-0.0105807,0.0666182,0.0501115,-1.86756,0.139863,0.203476,-0.0317483,0.171155,-0.012245,0.166957,-0.176797,1.02133,-0.941226,-0.00205823,2.91611,1.91602,2.7873,-6.00829,6.59857,32.2001,0.142656,19.6658,-2.55722,19.1486,-17.8482,10.5769,-8.91106,-0.0459238,-0.019544,0.0662814,0.0413487,-1.85651,0.0869797,0.256064,-0.0316426,0.147919,0.0281666,0.160965,-0.210731,1.29897,-1.7496,0.00448237,0,0,0,0,0,0,0,18.0626,-33.5979,17.211,25.0864,4.02618,-2.20466,-0.0905302,
-0.00908191,0.066596,0.0515701,-1.86922,0.148352,0.198494,-0.0317502,0.174393,-0.0103525,0.17003,-0.183001,1.02929,-0.877533,-0.00169393,2.02411,1.18277,1.92072,-3.87796,4.9793,39.8082,0.227684,18.9819,-2.66245,18.4867,-17.602,10.5769,-7.59419,-0.0362648,-0.019544,0.0662814,0.0413487,-1.85651,0.0869797,0.256064,-0.0316426,0.147919,0.0281666,0.160965,-0.210731,1.29897,-1.7496,0.00448237,0,0,0,0,0,0,0,18.0626,-33.5979,17.211,25.0864,4.02618,-2.20466,-0.0905302,
-0.0125108,0.0668551,0.0482346,-1.86618,0.13181,0.219686,-0.0315886,0.174991,-0.00588702,0.170603,-0.190063,1.03844,-0.81565,-0.00090076,0.373926,2.79095,0.358119,-4.41368,5.71577,38.6768,0.495732,17.7878,-2.69848,17.3314,-17.1063,10.5769,-5.38914,-0.0170233,-0.019544,0.0662814,0.0413487,-1.85651,0.0869797,0.256064,-0.0316426,0.147919,0.0281666,0.160965,-0.210731,1.29897,-1.7496,0.00448237,0,0,0,0,0,0,0,18.0626,-33.5979,17.211,25.0864,4.02618,-2.20466,-0.0905302,
-0.011113,0.0669236,0.0495964,-1.86783,0.140362,0.216036,-0.0315646,0.174939,-0.00299564,0.170527,-0.193482,1.04455,-0.743765,-0.000121184,-0.0327757,1.80711,-0.0479822,-2.13638,3.82214,44.9282,0.487235,17.6796,-2.89991,17.2205,-16.384,10.6143,-3.90601,-0.0100166,-0.0100623,0.0633505,0.0496173,-1.86738,0.135719,0.186745,-0.0316496,0.385549,0.0224978,0.196222,-0.279755,1.27196,-1.79956,0.00121395,29.7038,-0.708604,4.40722,-8.62802,-3.37633,-6.2449,-0.408553,9.06086,-33.0226,8.78847,24.761,3.66546,1.20293,-0.103348,
-0.00974287,0.0669635,0.0509322,-1.86941,0.148885,0.213141,-0.0315356,0.174204,-0.00139932,0.169817,-0.194209,1.04873,-0.667386,0.000629748,-0.459341,0.997702,-0.443614,-0.454879,2.61257,47.7367,0.469332,17.1835,-2.81564,16.741,-16.1354,10.6143,-3.09357,0.000970179,-0.0100623,0.0633505,0.0496173,-1.86738,0.135719,0.186745,-0.0316496,0.385549,0.0224978,0.196222,-0.279755,1.27196,-1.79956,0.00121395,0,0,0,0,0,0,0,9.06086,-33.0226,8.78847,24.761,3.66546,1.20293,-0.103348,
-0.00840422,0.066976,0.0522391,-1.87092,0.15739,0.210889,-0.0315014,0.17283,-0.000808271,0.168526,-0.192992,1.0516,-0.590199,0.00135757,-0.859065,0.369403,-0.806756,0.760707,1.79329,48.2424,0.454892,16.7094,-2.7081,16.283,-15.8892,10.6143,-2.37935,0.0111821,-0.0100623,0.0633505,0.0496173,-1.86738,0.135719,0.186745,-0.0316496,0.385549,0.0224978,0.196222,-0.279755,1.27196,-1.79956,0.00121395,0,0,0,0,0,0,0,9.06086,-33.0226,8.78847,24.761,3.66546,1.20293,-0.103348,
-0.00048557,0.06436,0.058934,-1.8776,0.182881,0.155261,-0.0315176,0.17978,0.00355604,0.175324,-0.197507,1.06725,-0.551727,0.00201296,4.34396,2.72769,4.24844,-2.82174,9.77924,24.0445,0.409619,16.2502,-2.58123,15.8398,-15.6471,10.6143,-1.74607,0.0233033,-0.0100623,0.0633505,0.0496173,-1.86738,0.135719,0.186745,-0.0316496,0.385549,0.0224978,0.196222,-0.279755,1.27196,-1.79956,0.00121395,0,0,0,0,0,0,0,9.06086,-33.0226,8.78847,24.761,3.66546,1.20293,-0.103348,
0.00107467,0.0644845,0.0604566,-1.8792,0.191785,0.152987,-0.031476,0.18283,0.00595829,0.178325,-0.198095,1.07641,-0.498229,0.00265131,1.90633,1.50141,1.87602,-0.367367,5.72294,33.4366,0.398963,16.0187,-3.29364,15.5976,-14.5991,10.5384,-0.774227,0.026875,0.00151539,0.0620673,0.0602397,-1.88094,0.182571,0.138903,-0.0316508,0.469803,-0.0110129,0.255929,-0.409073,1.31716,-1.13769,-0.000701555,10.5318,-4.18884,7.46327,-16.1648,5.65055,82.733,-0.239438,3.25275,-37.2676,3.61116,27.6254,3.0365,2.9406,-0.0630644,
0.00254723,0.0645669,0.0618891,-1.8807,0.200578,0.151443,-0.0314322,0.183078,0.00682486,0.178472,-0.195986,1.08095,-0.43719,0.00321695,0.154933,0.541601,0.0915937,1.31809,2.83762,38.149,0.353528,15.5348,-3.13929,15.1502,-14.3696,10.5384,-0.292671,0.0349982,0.00151539,0.0620673,0.0602397,-1.88094,0.182571,0.138903,-0.0316508,0.469803,-0.0110129,0.255929,-0.409073,1.31716,-1.13769,-0.000701555,0,0,0,0,0,0,0,3.25275,-37.2676,3.61116,27.6254,3.0365,2.9406,-0.0630644,
0.0121847,0.0632372,0.0705824,-1.89058,0.231018,0.118898,-0.031471,0.189533,0.00957328,0.184458,-0.195563,1.0955,-0.390147,0.00361568,4.0345,1.71777,3.74132,0.264239,9.09828,29.4024,0.249207,14.5996,-2.79266,14.2866,-13.9278,10.5384,0.519625,0.0520179,0.00151539,0.0620673,0.0602397,-1.88094,0.182571,0.138903,-0.0316508,0.469803,-0.0110129,0.255929,-0.409073,1.31716,-1.13769,-0.000701555,0,0,0,0,0,0,0,3.25275,-37.2676,3.61116,27.6254,3.0365,2.9406,-0.0630644,
0.0137689,0.0633528,0.0721155,-1.89201,0.239974,0.117994,-0.0314253,0.191233,0.010548,0.185893,-0.192196,1.1003,-0.334716,0.00403542,1.06222,0.60922,0.897006,2.10439,2.99767,34.6443,0.262336,14.117,-2.60471,13.827,-13.7205,10.5384,0.849541,0.0582107,0.00151539,0.0620673,0.0602397,-1.88094,0.182571,0.138903,-0.0316508,0.469803,-0.0110129,0.255929,-0.409073,1.31716,-1.13769,-0.000701555,0,0,0,0,0,0,0,3.25275,-37.2676,3.61116,27.6254,3.0365,2.9406,-0.0630644,
0.0152513,0.0634218,0.073554,-1.89333,0.248352,0.117656,-0.0313742,0.190045,0.0101635,0.184678,-0.186634,1.08969,-0.27621,0.00450589,-0.742319,-0.240331,-0.759377,3.47608,-6.62922,36.5659,0.294043,13.7985,-2.88008,13.4243,-13.0293,10.3929,1.44202,0.0569328,0.0147862,0.0619813,0.0730915,-1.89676,0.229841,0.112548,-0.0316506,0.538133,-0.0666296,0.2716,-0.495677,1.46958,-0.689291,-0.00179928,8.54122,-6.95208,1.95893,-10.8255,19.0528,56.0503,-0.137216,-1.18664,-36.2163,-0.586229,29.744,2.49908,3.76275,0.0239107,
0.0166542,0.0634465,0.0749177,-1.89454,0.256018,0.117772,-0.0313207,0.187108,0.00874891,0.181835,-0.179722,1.06342,-0.218064,0.00493987,-1.8353,-0.88412,-1.77689,4.32,-16.4226,36.3416,0.271242,13.3787,-2.63698,12.959,-12.7998,10.3929,1.69407,0.0592877,0.0147862,0.0619813,0.0730915,-1.89676,0.229841,0.112548,-0.0316506,0.538133,-0.0666296,0.2716,-0.495677,1.46958,-0.689291,-0.00179928,0,0,0,0,0,0,0,-1.18664,-36.2163,-0.586229,29.744,2.49908,3.76275,0.0239107,
0.0262447,0.0627966,0.0841768,-1.90549,0.276989,0.0999632,-0.031445,0.195063,0.0095101,0.189563,-0.176821,1.04353,-0.190197,0.00511428,4.97183,0.475743,4.82965,1.81328,-12.4277,17.4166,0.109003,12.9776,-2.38735,12.5471,-12.559,10.3929,1.92482,0.0614315,0.0147862,0.0619813,0.0730915,-1.89676,0.229841,0.112548,-0.0316506,0.538133,-0.0666296,0.2716,-0.495677,1.46958,-0.689291,-0.00179928,0,0,0,0,0,0,0,-1.18664,-36.2163,-0.586229,29.744,2.49908,3.76275,0.0239107,
0.0279071,0.0628421,0.0857931,-1.9067,0.283793,0.0999072,-0.0313963,0.197612,0.0087467,0.192058,-0.171701,1.00493,-0.153558,0.00531025,1.59264,-0.477129,1.55944,3.20011,-24.1244,22.8997,0.12248,12.6023,-2.15467,12.1768,-12.3145,10.0986,2.12146,0.0642291,0.0147862,0.0619813,0.0730915,-1.89676,0.229841,0.112548,-0.0316506,0.538133,-0.0666296,0.2716,-0.495677,1.46958,-0.689291,-0.00179928,0,0,0,0,0,0,0,-1.18664,-36.2163,-0.586229,29.744,2.49908,3.76275,0.0239107,
0.0294424,0.0628395,0.0872863,-1.90782,0.289741,0.100303,-0.0313456,0.196471,0.00693064,0.190978,-0.165329,0.952639,-0.112963,0.00551403,-0.712932,-1.13503,-0.674818,3.98251,-32.6842,25.3715,0.127365,12.0846,-2.27157,11.6356,-11.8882,8.59193,2.47201,0.0640424,0.0285453,0.0630623,0.0859944,-1.91187,0.281201,0.0940044,-0.0316212,0.512935,0.0848154,0.268443,-0.374352,1.54421,-0.449233,0.0035877,-3.14982,18.9306,-0.394577,15.1656,9.32857,30.0072,0.673373,-3.0354,-39.0132,-2.41118,32.0847,1.47918,5.51324,0.00376909,
0.0308707,0.0627964,0.0886761,-1.90886,0.294893,0.101053,-0.0312928,0.192886,0.00446664,0.187527,-0.158357,0.890924,-0.0716154,0.00573062,-2.24031,-1.54,-2.15671,4.35763,-38.5718,25.8424,0.135371,11.76,-2.09401,11.3257,-11.6569,7.48613,2.59865,0.0645093,0.0285453,0.0630623,0.0859944,-1.91187,0.281201,0.0940044,-0.0316212,0.512935,0.0848154,0.268443,-0.374352,1.54421,-0.449233,0.0035877,0,0,0,0,0,0,0,-3.0354,-39.0132,-2.41118,32.0847,1.47918,5.51324,0.00376909,
0.0397503,0.0652537,0.096861,-1.9197,0.318785,0.087678,-0.0313992,0.198423,0.00803308,0.192865,-0.156825,0.842925,-0.0551697,0.0057954,3.46039,2.22903,3.33595,0.957107,-29.9995,10.2786,0.0404875,11.4805,-1.93902,11.0623,-11.4325,6.50451,2.70567,0.0643556,0.0285453,0.0630623,0.0859944,-1.91187,0.281201,0.0940044,-0.0316212,0.512935,0.0848154,0.268443,-0.374352,1.54421,-0.449233,0.0035877,0,0,0,0,0,0,0,-3.0354,-39.0132,-2.41118,32.0847,1.47918,5.51324,0.00376909,
0.0413533,0.0653471,0.0984177,-1.9208,0.323144,0.088193,-0.0313478,0.198813,0.00876225,0.193211,-0.153073,0.78332,-0.0312622,0.00592072,0.24394,0.455731,0.216344,2.34539,-37.2535,14.9422,0.0783239,11.2463,-1.80408,10.8441,-11.2116,5.61321,2.78684,0.0649659,0.0285453,0.0630623,0.0859944,-1.91187,0.281201,0.0940044,-0.0316212,0.512935,0.0848154,0.268443,-0.374352,1.54421,-0.449233,0.0035877,0,0,0,0,0,0,0,-3.0354,-39.0132,-2.41118,32.0847,1.47918,5.51324,0.00376909,
0.0428216,0.0653747,0.0998437,-1.92183,0.326769,0.0890522,-0.031294,0.195758,0.00770036,0.190218,-0.148022,0.717266,-0.00352976,0.00608112,-1.90977,-0.663679,-1.87027,3.15647,-41.2833,17.3328,0.10025,10.9703,-2.13907,10.5411,-10.6879,4.62158,2.96035,0.0645739,0.0420856,0.0649473,0.099178,-1.92445,0.330737,0.0883434,-0.0315777,0.578289,0.0782401,0.199598,-0.315789,1.31433,-0.0598828,0.00144789,8.16929,-0.821905,-8.60573,7.32044,-28.7347,48.6688,-0.267476,-4.15417,-41.6356,-3.66088,29.9899,-0.0167883,3.43133,0.0101778,
0.0529892,0.0665618,0.109732,-1.93081,0.357973,0.0888684,-0.0313456,0.198674,0.00804283,0.192989,-0.143619,0.656667,0.0172048,0.00615686,1.82243,0.214043,1.73139,2.75205,-37.8746,12.9591,0.0473376,10.6587,-1.94456,10.2615,-10.2657,3.25787,3.06122,0.0672166,0.0420856,0.0649473,0.099178,-1.92445,0.330737,0.0883434,-0.0315777,0.578289,0.0782401,0.199598,-0.315789,1.31433,-0.0598828,0.00144789,0,0,0,0,0,0,0,-4.15417,-41.6356,-3.66088,29.9899,-0.0167883,3.43133,0.0101778,
0.0545075,0.0665691,0.111204,-1.93175,0.360593,0.0899328,-0.0312911,0.196897,0.0066166,0.191212,-0.13834,0.590829,0.0403728,0.00628603,-1.11019,-0.891392,-1.11034,3.29941,-41.149,14.48,0.080732,10.5289,-1.86378,10.1471,-10.0589,2.68364,3.09381,0.0688909,0.0420856,0.0649473,0.099178,-1.92445,0.330737,0.0883434,-0.0315777,0.578289,0.0782401,0.199598,-0.315789,1.31433,-0.0598828,0.00144789,0,0,0,0,0,0,0,-4.15417,-41.6356,-3.66088,29.9899,-0.0167883,3.43133,0.0101778,
0.0558902,0.0665273,0.112546,-1.93263,0.362638,0.0912154,-0.0312347,0.192085,0.00424804,0.186498,-0.13268,0.523804,0.0643637,0.00643936,-3.00751,-1.48035,-2.94617,3.5373,-41.8901,14.9943,0.0958315,10.4086,-1.79089,10.0421,-9.85537,2.18167,3.12165,0.0702231,0.0420856,0.0649473,0.099178,-1.92445,0.330737,0.0883434,-0.0315777,0.578289,0.0782401,0.199598,-0.315789,1.31433,-0.0598828,0.00144789,0,0,0,0,0,0,0,-4.15417,-41.6356,-3.66088,29.9899,-0.0167883,3.43133,0.0101778,
0.0571606,0.0664505,0.113778,-1.93347,0.364207,0.0926757,-0.0311767,0.185428,0.00147844,0.180002,-0.126956,0.458264,0.0879995,0.00660306,-4.16108,-1.731,-4.06025,3.57758,-40.9631,14.7724,0.102309,10.3316,-2.1076,9.93788,-9.49141,1.61284,3.15128,0.0732282,0.0543714,0.0653523,0.113336,-1.93616,0.366278,0.0892101,-0.0314873,0.573031,-0.0746922,0.185446,-0.345936,0.845471,0.0960602,0.00366662,-0.657268,-19.1165,-1.76896,-3.76846,-58.608,19.4929,0.277341,-6.12988,-35.6212,-5.81114,24.9594,-0.0296057,2.22375,0.0303194,
0.0647157,0.0649401,0.12333,-1.94141,0.382653,0.0917248,-0.0312404,0.187564,-0.00179013,0.182045,-0.122419,0.413462,0.0970057,0.00659923,1.33539,-2.04286,1.2767,2.83576,-28.0007,5.62889,-0.0023908,10.2195,-2.04596,9.84016,-9.29189,1.23049,3.16383,0.074274,0.0543714,0.0653523,0.113336,-1.93616,0.366278,0.0892101,-0.0314873,0.573031,-0.0746922,0.185446,-0.345936,0.845471,0.0960602,0.00366662,0,0,0,0,0,0,0,-6.12988,-35.6212,-5.81114,24.9594,-0.0296057,2.22375,0.0303194,
0.0661259,0.0648035,0.124698,-1.9422,0.384057,0.0930081,-0.0311856,0.185304,-0.00484918,0.179828,-0.117686,0.365858,0.109687,0.00664863,-1.41238,-1.91191,-1.38516,2.95815,-29.7528,7.92569,0.0308736,10.1079,-1.98809,9.74227,-9.09349,0.896751,3.16693,0.0753368,0.0543714,0.0653523,0.113336,-1.93616,0.366278,0.0892101,-0.0314873,0.573031,-0.0746922,0.185446,-0.345936,0.845471,0.0960602,0.00366662,0,0,0,0,0,0,0,-6.12988,-35.6212,-5.81114,24.9594,-0.0296057,2.22375,0.0303194,
0.0674064,0.0646552,0.12594,-1.94296,0.385072,0.094469,-0.0311296,0.180257,-0.00758643,0.174912,-0.112976,0.318064,0.124271,0.00672059,-3.1548,-1.71078,-3.07286,2.9436,-29.8711,9.11536,0.0449743,9.99504,-1.93251,9.64277,-8.89671,0.61449,3.16788,0.0759108,0.0543714,0.0653523,0.113336,-1.93616,0.366278,0.0892101,-0.0314873,0.573031,-0.0746922,0.185446,-0.345936,0.845471,0.0960602,0.00366662,0,0,0,0,0,0,0,-6.12988,-35.6212,-5.81114,24.9594,-0.0296057,2.22375,0.0303194,
0.0685805,0.0645,0.127078,-1.94368,0.385768,0.0960713,-0.0310727,0.173558,-0.00994812,0.168397,-0.108413,0.271847,0.139473,0.00679916,-4.18636,-1.47606,-4.07164,2.85176,-28.8858,9.50131,0.0491094,9.88017,-1.87881,9.54061,-8.70055,0.371966,3.16153,0.0764173,0.0543714,0.0653523,0.113336,-1.93616,0.366278,0.0892101,-0.0314873,0.573031,-0.0746922,0.185446,-0.345936,0.845471,0.0960602,0.00366662,0,0,0,0,0,0,0,-6.12988,-35.6212,-5.81114,24.9594,-0.0296057,2.22375,0.0303194,
0.0774337,0.0658539,0.135194,-1.94997,0.397129,0.103507,-0.0311799,0.17488,-0.00996585,0.169574,-0.105772,0.240727,0.146154,0.00670775,0.826121,-0.0110798,0.735492,1.65079,-19.4501,4.17522,-0.0571318,9.58334,-1.9538,9.22985,-8.51023,0.0521084,3.12969,0.0774904,0.0677268,0.0657804,0.125802,-1.94534,0.388394,0.0969689,-0.0314006,0.282275,-0.0115277,0.484417,-0.261182,0.425368,0.33068,0.00725107,-36.3444,7.89556,37.3714,10.5943,-52.5129,29.3275,0.448056,-6.20923,-35.8949,-6.11266,26.4789,0.63049,1.04363,0.0101778,
0.0787244,0.0657486,0.136443,-1.95069,0.397761,0.104998,-0.0311276,0.172171,-0.0106044,0.166879,-0.102691,0.208393,0.154203,0.00667499,-1.69328,-0.399117,-1.68448,1.92549,-20.2086,5.03103,-0.0204763,9.46271,-1.90181,9.12097,-8.31534,-0.116959,3.11681,0.0774139,0.0677268,0.0657804,0.125802,-1.94534,0.388394,0.0969689,-0.0314006,0.282275,-0.0115277,0.484417,-0.261182,0.425368,0.33068,0.00725107,0,0,0,0,0,0,0,-6.20923,-35.8949,-6.11266,26.4789,0.63049,1.04363,0.0101778,
0.0798942,0.0656274,0.137575,-1.95138,0.398148,0.106589,-0.0310745,0.166982,-0.0115141,0.161801,-0.0993955,0.176378,0.16315,0.00666671,-3.24331,-0.568568,-3.17347,2.05987,-20.0091,5.59159,-0.00517326,9.33884,-1.85007,9.00854,-8.12102,-0.252877,3.10372,0.0769047,0.0677268,0.0657804,0.125802,-1.94534,0.388394,0.0969689,-0.0314006,0.282275,-0.0115277,0.484417,-0.261182,0.425368,0.33068,0.00725107,0,0,0,0,0,0,0,-6.20923,-35.8949,-6.11266,26.4789,0.63049,1.04363,0.0101778,
0.0809661,0.0654965,0.138612,-1.95204,0.398334,0.108268,-0.0310213,0.160382,-0.0124819,0.155369,-0.0960278,0.145762,0.172484,0.0066644,-4.125,-0.60486,-4.01985,2.10481,-19.1355,5.83352,-0.00144653,9.21213,-1.7988,8.8926,-7.92668,-0.364262,3.08668,0.0762831,0.0677268,0.0657804,0.125802,-1.94534,0.388394,0.0969689,-0.0314006,0.282275,-0.0115277,0.484417,-0.261182,0.425368,0.33068,0.00725107,0,0,0,0,0,0,0,-6.20923,-35.8949,-6.11266,26.4789,0.63049,1.04363,0.0101778,
0.0888088,0.0679975,0.14552,-1.95659,0.405047,0.118229,-0.0311749,0.160453,-0.00952742,0.155286,-0.0950336,0.126513,0.176245,0.0065216,0.0446531,1.84656,-0.0522817,0.621353,-12.0304,2.35106,-0.089248,8.98852,-1.79169,8.64958,-7.84231,-0.524149,3.00573,0.0762137,0.0801336,0.0668867,0.137136,-1.95229,0.400376,0.109591,-0.0313742,0.156822,0.0903911,0.546618,-0.167841,0.219512,0.408351,0.00142555,-15.6817,12.7398,7.77505,11.6676,-25.7319,9.70893,-0.728189,-2.93621,-40.013,-2.68492,27.2525,1.46087,0.619742,0.0239107,
0.0899626,0.0679708,0.146632,-1.95728,0.405249,0.1198,-0.0311265,0.157209,-0.00828985,0.152041,-0.0931779,0.106264,0.180278,0.00642741,-2.02781,0.773483,-2.02786,1.15981,-12.6554,2.52024,-0.0588705,8.85639,-1.7412,8.52726,-7.64807,-0.59147,2.98637,0.0751052,0.0801336,0.0668867,0.137136,-1.95229,0.400376,0.109591,-0.0313742,0.156822,0.0903911,0.546618,-0.167841,0.219512,0.408351,0.00142555,0,0,0,0,0,0,0,-2.93621,-40.013,-2.68492,27.2525,1.46087,0.619742,0.0239107,
0.0910112,0.0679137,0.147643,-1.95793,0.405295,0.121426,-0.0310781,0.151982,-0.00805915,0.146909,-0.0907769,0.0861562,0.18485,0.00635223,-3.26641,0.144186,-3.20764,1.50064,-12.5675,2.85755,-0.0469875,8.7218,-1.69123,8.40212,-7.45392,-0.639526,2.96789,0.0736781,0.0801336,0.0668867,0.137136,-1.95229,0.400376,0.109591,-0.0313742,0.156822,0.0903911,0.546618,-0.167841,0.219512,0.408351,0.00142555,0,0,0,0,0,0,0,-2.93621,-40.013,-2.68492,27.2525,1.46087,0.619742,0.0239107,
0.0886973,0.0680857,0.145417,-1.95632,0.404836,0.117853,-0.0312048,0.152899,-0.00557415,0.147721,-0.0893923,0.0783419,0.184149,0.00609729,0.572675,1.55312,0.507822,0.86535,-4.88392,-0.437727,-0.159339,8.44664,-1.59441,8.14428,-7.0652,-0.695166,2.92834,0.0703672,0.0801336,0.0668867,0.137136,-1.95229,0.400376,0.109591,-0.0313742,0.156822,0.0903911,0.546618,-0.167841,0.219512,0.408351,0.00142555,0,0,0,0,0,0,0,-2.93621,-40.013,-2.68492,27.2525,1.46087,0.619742,0.0239107,
0.0898142,0.068075,0.146494,-1.95695,0.405034,0.119347,-0.0311636,0.150243,-0.00472687,0.145106,-0.0872227,0.0676396,0.18466,0.00590635,-1.65986,0.529549,-1.63475,1.35602,-6.68893,0.319036,-0.119336,8.38181,-1.72369,8.07025,-6.94284,-0.700979,2.81457,0.0692312,0.0923707,0.0665328,0.146515,-1.9593,0.405422,0.123868,-0.0313523,0.144024,-0.0857638,0.460125,-0.235467,0.0852257,0.421389,0.000558694,-1.59971,-22.0194,-10.8115,-8.45327,-16.7858,1.62969,-0.108358,-1.97216,-35.645,-1.13768,23.0154,1.61926,0.161978,0.0706026,
0.0908233,0.0680334,0.147467,-1.95754,0.405091,0.120896,-0.0311227,0.14542,-0.00482304,0.140408,-0.0845662,0.0555267,0.186471,0.00574856,-3.01456,-0.060105,-2.93627,1.66035,-7.57055,1.13173,-0.0986183,8.23993,-1.67909,7.93588,-6.7483,-0.703311,2.79539,0.067174,0.0923707,0.0665328,0.146515,-1.9593,0.405422,0.123868,-0.0313523,0.144024,-0.0857638,0.460125,-0.235467,0.0852257,0.421389,0.000558694,0,0,0,0,0,0,0,-1.97216,-35.645,-1.13768,23.0154,1.61926,0.161978,0.0706026,
0.0917453,0.0679708,0.148356,-1.9581,0.405036,0.122504,-0.0310824,0.139386,-0.00542276,0.134546,-0.0816302,0.0430487,0.189357,0.00560617,-3.77097,-0.374825,-3.66372,1.83496,-7.79879,1.80389,-0.0889966,8.09662,-1.63666,7.79951,-6.55366,-0.700141,2.77544,0.0650646,0.0923707,0.0665328,0.146515,-1.9593,0.405422,0.123868,-0.0313523,0.144024,-0.0857638,0.460125,-0.235467,0.0852257,0.421389,0.000558694,0,0,0,0,0,0,0,-1.97216,-35.645,-1.13768,23.0154,1.61926,0.161978,0.0706026,
0.0998765,0.0656724,0.153775,-1.96248,0.40743,0.131614,-0.0311961,0.139244,-0.00797022,0.134409,-0.0781959,0.0397837,0.188333,0.00533395,-0.0889739,-1.59216,-0.0852422,2.14644,-2.0406,-0.639904,-0.170139,7.95173,-1.59647,7.66121,-6.35908,-0.690973,2.75671,0.0628048,0.0923707,0.0665328,0.146515,-1.9593,0.405422,0.123868,-0.0313523,0.144024,-0.0857638,0.460125,-0.235467,0.0852257,0.421389,0.000558694,0,0,0,0,0,0,0,-1.97216,-35.645,-1.13768,23.0154,1.61926,0.161978,0.0706026,
0.10087,0.0655297,0.154734,-1.96298,0.407538,0.133142,-0.0311619,0.136236,-0.00994434,0.131506,-0.0748857,0.0345283,0.188857,0.0051222,-1.8798,-1.23382,-1.81443,2.06891,-3.28461,0.327662,-0.13234,7.78438,-1.65522,7.48942,-6.25312,-0.681681,2.66651,0.0610564,0.102347,0.0656392,0.155934,-1.96546,0.406376,0.137888,-0.0313291,0.330601,-0.0208878,0.188426,-0.168838,0.000468722,0.380244,-0.00128895,23.3221,8.1095,-33.9624,8.32859,-10.5946,-5.14311,-0.230955,-3.54321,-32.0744,-1.93511,23.7137,2.24823,0.593191,0.0641939,
0.101771,0.0653902,0.155604,-1.96345,0.407552,0.134723,-0.0311281,0.131517,-0.0114412,0.126945,-0.0717178,0.0279716,0.190607,0.00494345,-2.94915,-0.935519,-2.85057,1.97994,-4.09792,1.09342,-0.111721,7.6364,-1.6203,7.34717,-6.05869,-0.666572,2.64839,0.0586675,0.102347,0.0656392,0.155934,-1.96546,0.406376,0.137888,-0.0313291,0.330601,-0.0208878,0.188426,-0.168838,0.000468722,0.380244,-0.00128895,0,0,0,0,0,0,0,-3.54321,-32.0744,-1.93511,23.7137,2.24823,0.593191,0.0641939,
0.102597,0.0652544,0.156401,-1.9639,0.407486,0.136351,-0.031095,0.125869,-0.0125483,0.121479,-0.0686921,0.0207221,0.193191,0.00478143,-3.53024,-0.69194,-3.41637,1.89104,-4.53096,1.61491,-0.101259,7.48682,-1.58831,7.20282,-5.86435,-0.650879,2.62998,0.0562798,0.102347,0.0656392,0.155934,-1.96546,0.406376,0.137888,-0.0313291,0.330601,-0.0208878,0.188426,-0.168838,0.000468722,0.380244,-0.00128895,0,0,0,0,0,0,0,-3.54321,-32.0744,-1.93511,23.7137,2.24823,0.593191,0.0641939,
0.108902,0.0654558,0.162217,-1.96843,0.40686,0.145902,-0.0312029,0.124949,-0.0120072,0.120525,-0.0670767,0.017832,0.191302,0.00452135,-0.575236,0.338184,-0.596222,1.00961,-1.80634,-1.18019,-0.162553,7.33537,-1.55914,7.05634,-5.67022,-0.634031,2.61247,0.0538282,0.102347,0.0656392,0.155934,-1.96546,0.406376,0.137888,-0.0313291,0.330601,-0.0208878,0.188426,-0.168838,0.000468722,0.380244,-0.00128895,0,0,0,0,0,0,0,-3.54321,-32.0744,-1.93511,23.7137,2.24823,0.593191,0.0641939,
0.109774,0.065365,0.163056,-1.96888,0.406846,0.147404,-0.031175,0.121758,-0.0118761,0.117397,-0.0650789,0.0139143,0.190608,0.00431344,-1.99398,0.0819552,-1.95548,1.24864,-2.44852,-0.433699,-0.129942,7.13822,-1.59697,6.84978,-5.49777,-0.598343,2.55843,0.0515705,0.110737,0.065963,0.164408,-1.97027,0.405861,0.149114,-0.0313235,0.414496,0.0618956,0.0532862,-0.117986,-0.0159535,0.302237,-0.00123801,10.4869,10.3479,-16.8925,6.35647,-2.05277,-9.75091,0.00636743,-2.86084,-37.2914,-1.78832,26.3281,2.62085,1.83282,0.0577852,
0.110568,0.0652662,0.163819,-1.96932,0.406771,0.148944,-0.0311477,0.117244,-0.0119701,0.112996,-0.0628428,0.00924755,0.190993,0.00413401,-2.82171,-0.058792,-2.75029,1.39761,-2.91674,0.24063,-0.112143,6.98278,-1.57359,6.69865,-5.30405,-0.582697,2.54132,0.049114,0.110737,0.065963,0.164408,-1.97027,0.405861,0.149114,-0.0313235,0.414496,0.0618956,0.0532862,-0.117986,-0.0159535,0.302237,-0.00123801,0,0,0,0,0,0,0,-2.86084,-37.2914,-1.78832,26.3281,2.62085,1.83282,0.0577852,
0.116677,0.0667804,0.170058,-1.97326,0.405937,0.156431,-0.031229,0.115686,-0.00906984,0.11136,-0.0622888,0.00675195,0.186472,0.00385197,-0.973446,1.81268,-1.02252,0.34625,-1.55975,-2.82562,-0.176273,6.66522,-1.53511,6.38886,-4.91717,-0.556244,2.50682,0.0442812,0.110737,0.065963,0.164408,-1.97027,0.405861,0.149114,-0.0313235,0.414496,0.0618956,0.0532862,-0.117986,-0.0159535,0.302237,-0.00123801,0,0,0,0,0,0,0,-2.86084,-37.2914,-1.78832,26.3281,2.62085,1.83282,0.0577852,
0.117463,0.0667658,0.17081,-1.9737,0.405859,0.157813,-0.0312073,0.112202,-0.00762084,0.107897,-0.0608472,0.00344474,0.18373,0.0036236,-2.17772,0.905621,-2.16433,0.901,-2.06701,-1.71408,-0.142735,6.50289,-1.5197,6.2301,-4.72394,-0.545808,2.48926,0.0419226,0.110737,0.065963,0.164408,-1.97027,0.405861,0.149114,-0.0313235,0.414496,0.0618956,0.0532862,-0.117986,-0.0159535,0.302237,-0.00123801,0,0,0,0,0,0,0,-2.86084,-37.2914,-1.78832,26.3281,2.62085,1.83282,0.0577852,
0.118177,0.066726,0.171493,-1.97411,0.405732,0.159235,-0.0311862,0.107615,-0.00709026,0.10339,-0.0588176,-0.000417351,0.182544,0.00342716,-2.86656,0.331614,-2.81684,1.26847,-2.4138,-0.740882,-0.122775,6.45405,-1.61151,6.16799,-4.55572,-0.517855,2.4329,0.0397576,0.117187,0.0653312,0.172894,-1.97572,0.405084,0.158996,-0.0313143,0.443593,-0.094433,-0.0174748,-0.188638,-0.0114268,0.275395,0.000296409,3.63715,-19.5411,-8.84512,-8.83141,0.565827,-3.35519,0.191802,-2.83307,-35.2681,-2.43498,24.3881,2.18139,1.69366,0.017502,
0.118833,0.066668,0.172119,-1.97448,0.405563,0.160695,-0.0311659,0.102473,-0.00712331,0.0983587,-0.0564142,-0.00455841,0.182538,0.00325004,-3.21415,-0.0206558,-3.14472,1.50211,-2.58816,-0.00383189,-0.1107,6.28679,-1.60038,6.00406,-4.36256,-0.510748,2.41433,0.0374966,0.117187,0.0653312,0.172894,-1.97572,0.405084,0.158996,-0.0313143,0.443593,-0.094433,-0.0174748,-0.188638,-0.0114268,0.275395,0.000296409,0,0,0,0,0,0,0,-2.83307,-35.2681,-2.43498,24.3881,2.18139,1.69366,0.017502,
0.122741,0.0643425,0.178173,-1.97801,0.405006,0.164966,-0.0312387,0.102343,-0.0093064,0.0982142,-0.0536838,-0.00293859,0.177299,0.00297554,-0.0810348,-1.36443,-0.0902787,1.7065,1.01238,-3.27452,-0.171562,6.11706,-1.59099,5.83768,-4.16933,-0.504507,2.39492,0.0352757,0.117187,0.0653312,0.172894,-1.97572,0.405084,0.158996,-0.0313143,0.443593,-0.094433,-0.0174748,-0.188638,-0.0114268,0.275395,0.000296409,0,0,0,0,0,0,0,-2.83307,-35.2681,-2.43498,24.3881,2.18139,1.69366,0.017502,
0.123468,0.0642038,0.17887,-1.97833,0.404994,0.166275,-0.0312235,0.100052,-0.0109132,0.0959843,-0.0508826,-0.00264475,0.174568,0.00275997,-1.432,-1.00428,-1.39371,1.75075,0.183651,-1.70711,-0.134732,5.94503,-1.5832,5.66896,-3.9759,-0.499494,2.374,0.0331396,0.117187,0.0653312,0.172894,-1.97572,0.405084,0.158996,-0.0313143,0.443593,-0.094433,-0.0174748,-0.188638,-0.0114268,0.275395,0.000296409,0,0,0,0,0,0,0,-2.83307,-35.2681,-2.43498,24.3881,2.18139,1.69366,0.017502,
0.124124,0.0640689,0.179498,-1.97863,0.404941,0.167629,-0.0312086,0.0964404,-0.0121015,0.0924766,-0.0480724,-0.00345995,0.173521,0.00258143,-2.25705,-0.742675,-2.19228,1.7564,-0.5095,-0.654214,-0.111587,5.69335,-1.64375,5.41406,-3.80878,-0.487687,2.32654,0.0311956,0.1235,0.0649311,0.180634,-1.98049,0.404169,0.168157,-0.0313136,0.0345221,-0.0111588,0.3697,-0.130864,-0.0306169,0.295135,0.000194873,-51.1339,10.4093,48.3968,7.22174,-2.39876,2.46748,-0.0126921,-0.528073,-34.2207,-0.237108,27.0026,2.69409,1.95275,0.0101778,
0.124721,0.0639369,0.180068,-1.9789,0.40485,0.169015,-0.0311941,0.0920795,-0.0129816,0.0882407,-0.0452874,-0.00503296,0.173459,0.00242635,-2.72561,-0.550057,-2.64747,1.74063,-0.983131,-0.0386833,-0.0969245,5.51723,-1.6383,5.2414,-3.6147,-0.48218,2.30117,0.0292112,0.1235,0.0649311,0.180634,-1.98049,0.404169,0.168157,-0.0313136,0.0345221,-0.0111588,0.3697,-0.130864,-0.0306169,0.295135,0.000194873,0,0,0,0,0,0,0,-0.528073,-34.2207,-0.237108,27.0026,2.69409,1.95275,0.0101778,
0.1284,0.0647804,0.185342,-1.98254,0.404298,0.174567,-0.0312757,0.0915385,-0.0122619,0.0876402,-0.0438593,-0.00336311,0.168806,0.00220505,-0.338073,0.44984,-0.375325,0.89255,1.04366,-2.90842,-0.138314,5.33947,-1.63359,5.06727,-3.42017,-0.474654,2.27249,0.0272979,0.1235,0.0649311,0.180634,-1.98049,0.404169,0.168157,-0.0313136,0.0345221,-0.0111588,0.3697,-0.130864,-0.0306169,0.295135,0.000194873,0,0,0,0,0,0,0,-0.528073,-34.2207,-0.237108,27.0026,2.69409,1.95275,0.0101778,
0.129035,0.0646919,0.185947,-1.98282,0.404298,0.175783,-0.0312649,0.0890978,-0.012022,0.0852217,-0.0419512,-0.00270271,0.16543,0.00203376,-1.52546,0.149899,-1.51156,1.19252,0.412747,-2.10991,-0.107057,5.16049,-1.62951,4.89206,-3.22511,-0.464543,2.23955,0.0254889,0.1235,0.0649311,0.180634,-1.98049,0.404169,0.168157,-0.0313136,0.0345221,-0.0111588,0.3697,-0.130864,-0.0306169,0.295135,0.000194873,0,0,0,0,0,0,0,-0.528073,-34.2207,-0.237108,27.0026,2.69409,1.95275,0.0101778,
0.129604,0.0645939,0.186488,-1.98307,0.404278,0.177005,-0.0312542,0.0855046,-0.0120683,0.081699,-0.0397306,-0.00264648,0.162907,0.00189411,-2.24573,-0.0289388,-2.20167,1.38792,0.0351468,-1.57694,-0.0872767,4.98069,-1.62571,4.71627,-3.02951,-0.44977,2.20121,0.0237649,0.1235,0.0649311,0.180634,-1.98049,0.404169,0.168157,-0.0313136,0.0345221,-0.0111588,0.3697,-0.130864,-0.0306169,0.295135,0.000194873,0,0,0,0,0,0,0,-0.528073,-34.2207,-0.237108,27.0026,2.69409,1.95275,0.0101778,
0.135349,0.0665356,0.188587,-1.98557,0.404202,0.184334,-0.0312954,0.082835,-0.00951605,0.0789928,-0.0384076,2.70752e-05,0.157409,0.00171922,-1.66854,1.59518,-1.69138,0.826856,1.67097,-3.43608,-0.109308,4.60647,-1.62686,4.33685,-2.67457,-0.396053,2.07134,0.0207927,0.131408,0.0657627,0.184815,-1.9838,0.403597,0.17781,-0.0313172,-0.0316413,0.0789084,0.360709,-0.0570229,-0.00476087,0.269811,0.000222258,-8.27042,11.2584,-1.12378,9.23011,3.23201,-3.1655,0.00342313,-0.829586,-38.8902,-0.213304,27.3993,1.88202,1.59386,0.0101778,
0.135861,0.066508,0.189069,-1.9858,0.404299,0.185367,-0.0312871,0.0790593,-0.0083043,0.0752469,-0.0364395,0.00245828,0.151757,0.00158286,-2.3598,0.757344,-2.34121,1.23008,1.5195,-3.53228,-0.0852277,4.42763,-1.62286,4.16274,-2.47753,-0.357317,2.00826,0.0193996,0.131408,0.0657627,0.184815,-1.9838,0.403597,0.17781,-0.0313172,-0.0316413,0.0789084,0.360709,-0.0570229,-0.00476087,0.269811,0.000222258,0,0,0,0,0,0,0,-0.829586,-38.8902,-0.213304,27.3993,1.88202,1.59386,0.0101778,
0.136318,0.0664568,0.189499,-1.986,0.404432,0.186346,-0.0312789,0.0746773,-0.00792225,0.0709338,-0.0340503,0.00527662,0.145888,0.00147319,-2.73871,0.238779,-2.69567,1.49326,1.76147,-3.66811,-0.0685419,4.25034,-1.61831,3.99047,-2.28024,-0.30578,1.93331,0.0181273,0.131408,0.0657627,0.184815,-1.9838,0.403597,0.17781,-0.0313172,-0.0316413,0.0789084,0.360709,-0.0570229,-0.00476087,0.269811,0.000222258,0,0,0,0,0,0,0,-0.829586,-38.8902,-0.213304,27.3993,1.88202,1.59386,0.0101778,
0.136729,0.0663889,0.189883,-1.98616,0.404624,0.187259,-0.0312707,0.0700155,-0.00803493,0.0663624,-0.0314018,0.00902996,0.139546,0.00138327,-2.91365,-0.0704227,-2.85713,1.65531,2.34584,-3.9637,-0.0562009,4.07526,-1.61314,3.82069,-2.08293,-0.23911,1.84452,0.0169853,0.131408,0.0657627,0.184815,-1.9838,0.403597,0.17781,-0.0313172,-0.0316413,0.0789084,0.360709,-0.0570229,-0.00476087,0.269811,0.000222258,0,0,0,0,0,0,0,-0.829586,-38.8902,-0.213304,27.3993,1.88202,1.59386,0.0101778,
0.141684,0.0642758,0.193043,-1.98786,0.40488,0.192203,-0.0313084,0.0691809,-0.0107119,0.0655483,-0.0277511,0.0194328,0.130188,0.00122229,-0.521614,-1.67308,-0.508798,2.28163,6.50174,-5.8491,-0.100609,3.93009,-1.67143,3.67576,-1.89342,-0.13341,1.70181,0.01615,0.137928,0.0654171,0.189465,-1.98694,0.403464,0.187336,-0.0313191,0.0948739,-0.0824297,0.217997,-0.119207,-0.0112463,0.282709,-0.00111547,15.8144,-20.1673,-17.839,-7.77299,-0.81068,1.61221,-0.167215,-1.38897,-35.2443,-0.0863513,24.1382,1.41235,1.06377,0.017502,
0.14214,0.0641151,0.193474,-1.98794,0.405466,0.192848,-0.0313027,0.0667598,-0.0125855,0.0631982,-0.0243975,0.0301925,0.120278,0.00111857,-1.51319,-1.17102,-1.46883,2.09604,6.72485,-6.1935,-0.0648301,3.76103,-1.66442,3.51251,-1.69696,-0.0272437,1.57877,0.0153101,0.137928,0.0654171,0.189465,-1.98694,0.403464,0.187336,-0.0313191,0.0948739,-0.0824297,0.217997,-0.119207,-0.0112463,0.282709,-0.00111547,0,0,0,0,0,0,0,-1.38897,-35.2443,-0.0863513,24.1382,1.41235,1.06377,0.017502,
0.142538,0.063963,0.193847,-1.98802,0.406171,0.19338,-0.0312963,0.0633616,-0.0138708,0.0598972,-0.0212975,0.0417847,0.109523,0.00105539,-2.12388,-0.803299,-2.06312,1.93751,7.24512,-6.72189,-0.0394846,3.59544,-1.65623,3.35297,-1.50149,0.103419,1.43558,0.0146575,0.137928,0.0654171,0.189465,-1.98694,0.403464,0.187336,-0.0313191,0.0948739,-0.0824297,0.217997,-0.119207,-0.0112463,0.282709,-0.00111547,0,0,0,0,0,0,0,-1.38897,-35.2443,-0.0863513,24.1382,1.41235,1.06377,0.017502,
0.142887,0.063818,0.194172,-1.98807,0.407023,0.193782,-0.031289,0.0593989,-0.0147232,0.056043,-0.018415,0.0547306,0.0976682,0.00102574,-2.47669,-0.532779,-2.40887,1.80152,8.0912,-7.40939,-0.0185286,3.43325,-1.64683,3.19701,-1.30747,0.261795,1.27094,0.0141934,0.137928,0.0654171,0.189465,-1.98694,0.403464,0.187336,-0.0313191,0.0948739,-0.0824297,0.217997,-0.119207,-0.0112463,0.282709,-0.00111547,0,0,0,0,0,0,0,-1.38897,-35.2443,-0.0863513,24.1382,1.41235,1.06377,0.017502,
0.145407,0.0645159,0.197381,-1.98977,0.407075,0.200503,-0.0313112,0.0574747,-0.0145825,0.0541075,-0.0161856,0.0713964,0.0835366,0.000964632,-1.20263,0.0879735,-1.20971,1.39341,10.4161,-8.83223,-0.0381952,3.26013,-1.66421,3.02511,-1.1671,0.457117,1.0428,0.0141749,0.142419,0.0649681,0.194599,-1.98919,0.403554,0.197051,-0.0313202,0.262411,-0.0142514,-0.00925413,-0.0542217,0.00794196,0.254078,0.000372442,20.9422,8.52229,-28.4064,8.12315,2.39853,-3.57889,0.185988,-2.04754,-34.0224,-0.836168,25.2094,1.67419,1.01067,-0.0163725,
0.145744,0.0644006,0.197692,-1.98981,0.408395,0.200536,-0.0313048,0.0544019,-0.0145485,0.0510734,-0.0139325,0.0901171,0.0676529,0.000932947,-1.92049,0.0212092,-1.89632,1.40815,11.7005,-9.92734,-0.0198028,3.10231,-1.6519,2.87373,-0.977215,0.680049,0.834482,0.0141573,0.142419,0.0649681,0.194599,-1.98919,0.403554,0.197051,-0.0313202,0.262411,-0.0142514,-0.00925413,-0.0542217,0.00794196,0.254078,0.000372442,0,0,0,0,0,0,0,-2.04754,-34.0224,-0.836168,25.2094,1.67419,1.01067,-0.0163725,
0.146029,0.0642838,0.197954,-1.98984,0.409943,0.200396,-0.0312987,0.05066,-0.0145586,0.0473986,-0.0117271,0.110802,0.0506147,0.000899206,-2.33867,-0.00627823,-2.29674,1.37839,12.9277,-10.6489,-0.0210882,2.94412,-1.63814,2.72187,-0.790202,0.938118,0.607199,0.0143609,0.142419,0.0649681,0.194599,-1.98919,0.403554,0.197051,-0.0313202,0.262411,-0.0142514,-0.00925413,-0.0542217,0.00794196,0.254078,0.000372442,0,0,0,0,0,0,0,-2.04754,-34.0224,-0.836168,25.2094,1.67419,1.01067,-0.0163725,
0.146272,0.0641679,0.198173,-1.98984,0.411716,0.200097,-0.0312916,0.0465879,-0.0145454,0.0434061,-0.00956519,0.132955,0.033023,0.000895185,-2.54506,0.00820251,-2.49529,1.35119,13.8459,-10.9948,-0.00251321,2.78293,-1.62182,2.56674,-0.605312,1.23092,0.366042,0.0149503,0.142419,0.0649681,0.194599,-1.98919,0.403554,0.197051,-0.0313202,0.262411,-0.0142514,-0.00925413,-0.0542217,0.00794196,0.254078,0.000372442,0,0,0,0,0,0,0,-2.04754,-34.0224,-0.836168,25.2094,1.67419,1.01067,-0.0163725,
0.145103,0.0645899,0.197068,-1.9895,0.410609,0.197845,-0.0313236,0.0452555,-0.0141073,0.0420367,-0.00775479,0.158663,0.0152738,0.000808446,-0.832772,0.273865,-0.855901,1.1315,16.0672,-11.0932,-0.0542118,2.60398,-1.62595,2.38568,-0.442268,1.58261,0.0814012,0.0157625,0.146135,0.0652835,0.198729,-1.99,0.405044,0.203617,-0.0313217,0.221634,0.026162,-0.0214781,-0.00950244,0.0866737,0.151536,-0.000263879,-5.09723,5.05168,-1.528,5.5899,9.84146,-12.8177,-0.0795401,-2.50378,-37.5652,-1.63756,24.3127,1.90673,0.619742,-0.0026396,
0.145356,0.0644892,0.197297,-1.98948,0.41299,0.197233,-0.0313253,0.0425471,-0.013801,0.0393682,-0.00591384,0.186446,-0.00308143,0.000605249,-1.69277,0.19143,-1.6678,1.15059,17.3649,-11.472,-0.126998,2.41201,-1.60101,2.19994,-0.255314,1.95182,-0.182789,0.0156237,0.146135,0.0652835,0.198729,-1.99,0.405044,0.203617,-0.0313217,0.221634,0.026162,-0.0214781,-0.00950244,0.0866737,0.151536,-0.000263879,0,0,0,0,0,0,0,-2.50378,-37.5652,-1.63756,24.3127,1.90673,0.619742,-0.0026396,
0.145564,0.0643831,0.197477,-1.98946,0.415554,0.196546,-0.0313371,0.0392252,-0.0136934,0.0359896,-0.00424405,0.213278,-0.0196431,0.000189137,-2.07614,0.0672313,-2.11163,1.04362,16.7697,-10.3511,-0.26007,2.19935,-1.5881,1.99181,-0.0826648,2.31046,-0.420238,0.0144362,0.146135,0.0652835,0.198729,-1.99,0.405044,0.203617,-0.0313217,0.221634,0.026162,-0.0214781,-0.00950244,0.0866737,0.151536,-0.000263879,0,0,0,0,0,0,0,-2.50378,-37.5652,-1.63756,24.3127,1.90673,0.619742,-0.0026396,
0.148065,0.0653023,0.200454,-1.99009,0.415965,0.202332,-0.0313863,0.036804,-0.0126334,0.0335926,-0.00288999,0.234293,-0.0305672,-0.000184694,-1.51328,0.662486,-1.49812,0.846293,13.1341,-6.82755,-0.233644,1.68044,-1.49721,1.48542,0.303823,3.05479,-0.808832,0.0147109,0.146135,0.0652835,0.198729,-1.99,0.405044,0.203617,-0.0313217,0.221634,0.026162,-0.0214781,-0.00950244,0.0866737,0.151536,-0.000263879,0,0,0,0,0,0,0,-2.50378,-37.5652,-1.63756,24.3127,1.90673,0.619742,-0.0026396,
0.148232,0.0652206,0.200598,-1.99005,0.41863,0.201649,-0.0314064,0.0336034,-0.0121494,0.0304569,-0.00131585,0.254064,-0.0415454,-0.00065061,-2.00034,0.302488,-1.95978,0.983833,12.3571,-6.86137,-0.291198,1.36024,-1.49353,1.17506,0.508668,3.44101,-0.953446,0.00628997,0.148696,0.0646106,0.202298,-1.99078,0.410741,0.205614,-0.0313231,0.10056,-0.059427,0.0523393,-0.0434947,0.241708,-0.0124526,0.00083629,-15.1342,-10.6986,9.22718,-4.24903,19.3792,-20.4986,0.137521,-2.37683,-33.7962,-1.08611,25.5585,2.72522,1.19652,0.0101778,
0.148366,0.065121,0.200714,-1.99,0.421235,0.200961,-0.0314227,0.0302474,-0.0122091,0.0272762,0.00026997,0.268362,-0.0504192,-0.00092792,-2.09751,-0.0373194,-1.98795,0.991139,8.93643,-5.54614,-0.173319,1.09287,-1.60462,0.827581,0.651438,3.48733,-0.872424,-0.00921073,0.148696,0.0646106,0.202298,-1.99078,0.410741,0.205614,-0.0313231,0.10056,-0.059427,0.0523393,-0.0434947,0.241708,-0.0124526,0.00083629,0,0,0,0,0,0,0,-2.37683,-33.7962,-1.08611,25.5585,2.72522,1.19652,0.0101778,
0.148489,0.0650054,0.200815,-1.98993,0.423556,0.20036,-0.0314366,0.0272757,-0.0126561,0.0243492,0.00194916,0.272707,-0.0553649,-0.00109013,-1.85733,-0.279339,-1.8294,1.04949,2.71536,-3.09106,-0.10138,0.846846,-1.62901,0.614564,0.850686,2.91006,-0.44165,-0.0104393,0.148696,0.0646106,0.202298,-1.99078,0.410741,0.205614,-0.0313231,0.10056,-0.059427,0.0523393,-0.0434947,0.241708,-0.0124526,0.00083629,0,0,0,0,0,0,0,-2.37683,-33.7962,-1.08611,25.5585,2.72522,1.19652,0.0101778,
0.150265,0.0635586,0.20372,-1.99053,0.422755,0.202132,-0.0314227,0.0266142,-0.0146131,0.0236682,0.00382799,0.274281,-0.0603792,-0.00134789,-0.413454,-1.22313,-0.425591,1.17427,0.983698,-3.13395,-0.161102,0.623962,-1.65414,0.421776,0.959158,3.26007,-0.663025,-0.0109999,0.148696,0.0646106,0.202298,-1.99078,0.410741,0.205614,-0.0313231,0.10056,-0.059427,0.0523393,-0.0434947,0.241708,-0.0124526,0.00083629,0,0,0,0,0,0,0,-2.37683,-33.7962,-1.08611,25.5585,2.72522,1.19652,0.0101778,
0.150419,0.0633814,0.203852,-1.99044,0.424873,0.201551,-0.0314455,0.0251553,-0.0161204,0.0222399,0.00546406,0.272377,-0.0628165,-0.00164931,-0.911806,-0.942044,-0.892677,1.02254,-1.18963,-1.5233,-0.188389,0.3795,-1.66247,0.17923,1.05494,3.43892,-0.81898,-0.0202846,0.150211,0.0647344,0.204895,-1.99083,0.422062,0.204103,-0.0313233,-0.00241927,0.0208992,0.0947696,0.0130672,0.403311,-0.0756087,-9.37256e-05,-12.8724,10.0408,5.30379,7.07024,20.2005,-7.89451,-0.116252,-0.500302,-36.617,-0.0863513,24.761,2.57873,0.699392,-0.0301054,
0.150561,0.0631971,0.203963,-1.99034,0.426703,0.201133,-0.0314615,0.0236764,-0.0175049,0.0205585,0.00667144,0.263656,-0.0606915,-0.00171942,-0.92433,-0.865322,-1.05093,0.754617,-5.45103,1.32812,-0.0438145,0.302802,-1.84047,0.115536,1.10064,3.0161,-0.678668,-0.0186623,0.150211,0.0647344,0.204895,-1.99083,0.422062,0.204103,-0.0313233,-0.00241927,0.0208992,0.0947696,0.0130672,0.403311,-0.0756087,-9.37256e-05,0,0,0,0,0,0,0,-0.500302,-36.617,-0.0863513,24.761,2.57873,0.699392,-0.0301054,
0.150699,0.0630074,0.204072,-1.99025,0.428072,0.200982,-0.0314735,0.0223903,-0.0187454,0.0191699,0.00763528,0.245152,-0.0523425,-0.00167463,-0.803787,-0.775333,-0.867861,0.602399,-11.5648,5.21812,0.0279914,0.175335,-1.91337,-0.108454,1.20919,2.19596,-0.369922,-0.0196279,0.150211,0.0647344,0.204895,-1.99083,0.422062,0.204103,-0.0313233,-0.00241927,0.0208992,0.0947696,0.0130672,0.403311,-0.0756087,-9.37256e-05,0,0,0,0,0,0,0,-0.500302,-36.617,-0.0863513,24.761,2.57873,0.699392,-0.0301054,
0.151337,0.0643755,0.205878,-1.99053,0.432249,0.202193,-0.0314073,0.0222578,-0.0186073,0.018833,0.00784208,0.225883,-0.0428173,-0.00168923,-0.082818,0.0863057,-0.210568,0.12925,-12.0433,5.95327,-0.00912541,0.0537008,-1.94212,-0.211219,1.27231,2.291,-0.436116,-0.021585,0.150211,0.0647344,0.204895,-1.99083,0.422062,0.204103,-0.0313233,-0.00241927,0.0208992,0.0947696,0.0130672,0.403311,-0.0756087,-9.37256e-05,0,0,0,0,0,0,0,-0.500302,-36.617,-0.0863513,24.761,2.57873,0.699392,-0.0301054,
0.151487,0.0642175,0.205993,-1.99046,0.433209,0.202279,-0.0314225,0.0215443,-0.0188355,0.0179316,0.00817933,0.204707,-0.032114,-0.001732,-0.445911,-0.142622,-0.563347,0.210782,-13.2347,6.68959,-0.0267292,-0.0383109,-2.0157,-0.292814,1.34452,2.14577,-0.360053,-0.0271359,0.151954,0.0642983,0.205663,-1.99091,0.434223,0.201796,-0.0313332,0.0693958,-0.0280275,-0.0165742,-0.00965049,0.333912,-0.0685526,-0.000536779,8.97688,-6.11584,-13.918,-2.83971,-8.67493,0.882013,-0.0553817,-1.03589,-34.7444,-0.185533,26.4035,2.34069,1.34209,-0.0227812,
0.151613,0.0640509,0.206084,-1.99037,0.434016,0.202454,-0.0314384,0.020393,-0.0192349,0.016622,0.00859463,0.183944,-0.0213012,-0.00178238,-0.719571,-0.249611,-0.818482,0.259557,-12.9769,6.75799,-0.0314861,0.113318,-2.23457,-0.301174,1.30191,1.47633,0.0317582,-0.021462,0.151954,0.0642983,0.205663,-1.99091,0.434223,0.201796,-0.0313332,0.0693958,-0.0280275,-0.0165742,-0.00965049,0.333912,-0.0685526,-0.000536779,0,0,0,0,0,0,0,-1.03589,-34.7444,-0.185533,26.4035,2.34069,1.34209,-0.0227812,
0.151719,0.0638786,0.206154,-1.99029,0.43472,0.202697,-0.0314546,0.0189508,-0.0196945,0.015054,0.00904719,0.164748,-0.0109748,-0.00183022,-0.901382,-0.287237,-0.980013,0.282852,-11.9976,6.45397,-0.0299045,0.0689016,-2.26357,-0.352227,1.36086,0.547895,0.615377,-0.0198448,0.151954,0.0642983,0.205663,-1.99091,0.434223,0.201796,-0.0313332,0.0693958,-0.0280275,-0.0165742,-0.00965049,0.333912,-0.0685526,-0.000536779,0,0,0,0,0,0,0,-1.03589,-34.7444,-0.185533,26.4035,2.34069,1.34209,-0.0227812,
0.152945,0.06318,0.206445,-1.99042,0.440824,0.202024,-0.0314156,0.0177798,-0.0204958,0.0137915,0.00964076,0.148205,-0.00161707,-0.00187364,-0.731853,-0.500801,-0.789053,0.37098,-10.3395,5.8486,-0.0271381,0.068731,-2.2648,-0.352481,1.36191,0.520135,0.633805,-0.0198278,0.151954,0.0642983,0.205663,-1.99091,0.434223,0.201796,-0.0313332,0.0693958,-0.0280275,-0.0165742,-0.00965049,0.333912,-0.0685526,-0.000536779,0,0,0,0,0,0,0,-1.03589,-34.7444,-0.185533,26.4035,2.34069,1.34209,-0.0227812,
0.153032,0.0629906,0.206497,-1.99032,0.441416,0.202357,-0.031432,0.0163865,-0.0211329,0.0123312,0.0101645,0.13335,0.00702441,-0.00190911,-0.870867,-0.398185,-0.912717,0.327334,-9.28439,5.40093,-0.0221669,0.0687589,-2.26477,-0.35245,1.3619,0.520393,0.633594,-0.0198281,0.151954,0.0642983,0.205663,-1.99091,0.434223,0.201796,-0.0313332,0.0693958,-0.0280275,-0.0165742,-0.00965049,0.333912,-0.0685526,-0.000536779,0,0,0,0,0,0,0,-1.03589,-34.7444,-0.185533,26.4035,2.34069,1.34209,-0.0227812,
0.153103,0.0628015,0.206534,-1.99022,0.441961,0.202724,-0.0314484,0.0148892,-0.0216329,0.0107879,0.0106229,0.120301,0.0148144,-0.00193645,-0.93581,-0.312551,-0.964588,0.28651,-8.15533,4.86872,-0.0170879,0.0603676,-2.2924,-0.361619,1.36736,0.499225,0.645852,-0.0198233,0.152771,0.0640896,0.20654,-1.99067,0.441859,0.20082,-0.0313322,-0.000326412,0.00117326,0.0331695,0.00861524,0.137675,0.00355928,-5.59504e-05,-8.71528,3.6501,6.21796,2.28322,-24.5296,9.01398,0.0601036,-0.95654,-36.1171,-0.213304,25.5823,1.58905,1.31554,-0.0365141,
0.153161,0.0626129,0.206558,-1.99012,0.442471,0.203119,-0.0314647,0.0133747,-0.0220216,0.00924432,0.011021,0.109009,0.0217164,-0.00195651,-0.946548,-0.242903,-0.964708,0.24882,-7.05723,4.31377,-0.0125348,0.0603889,-2.29237,-0.361596,1.36735,0.499487,0.64564,-0.0198236,0.152771,0.0640896,0.20654,-1.99067,0.441859,0.20082,-0.0313322,-0.000326412,0.00117326,0.0331695,0.00861524,0.137675,0.00355928,-5.59504e-05,0,0,0,0,0,0,0,-0.95654,-36.1171,-0.213304,25.5823,1.58905,1.31554,-0.0365141,
0.153255,0.0635113,0.206852,-1.99036,0.444415,0.20258,-0.0314075,0.0123781,-0.0214238,0.00819723,0.0107615,0.0951625,0.0290872,-0.00196074,-0.622832,0.373611,-0.654429,-0.162207,-8.65439,4.60675,-0.00264621,0.0594264,-2.30373,-0.363358,1.37723,0.224789,0.823346,-0.0196587,0.152771,0.0640896,0.20654,-1.99067,0.441859,0.20082,-0.0313322,-0.000326412,0.00117326,0.0331695,0.00861524,0.137675,0.00355928,-5.59504e-05,0,0,0,0,0,0,0,-0.95654,-36.1171,-0.213304,25.5823,1.58905,1.31554,-0.0365141,
0.153311,0.0633508,0.206873,-1.99028,0.444696,0.203081,-0.0314234,0.0112933,-0.0211521,0.00707856,0.0107022,0.0831439,0.0358003,-0.00196605,-0.678011,0.169797,-0.69917,-0.0370363,-7.51158,4.19573,-0.00331719,0.0596737,-2.3035,-0.363094,1.37709,0.227302,0.821309,-0.0196594,0.152771,0.0640896,0.20654,-1.99067,0.441859,0.20082,-0.0313322,-0.000326412,0.00117326,0.0331695,0.00861524,0.137675,0.00355928,-5.59504e-05,0,0,0,0,0,0,0,-0.95654,-36.1171,-0.213304,25.5823,1.58905,1.31554,-0.0365141,
0.153356,0.0631843,0.206885,-1.99019,0.444951,0.203608,-0.0314393,0.0101841,-0.0210847,0.00594946,0.0107731,0.0729026,0.0418037,-0.00197067,-0.69327,0.0421442,-0.705692,0.0442723,-6.40084,3.75209,-0.00288753,0.0591665,-2.32271,-0.357962,1.3643,0.219599,0.816503,-0.0196025,0.153642,0.0632534,0.20699,-1.99057,0.445537,0.201487,-0.0313341,0.0308167,-0.0371599,0.00311948,-0.00572414,0.0627026,0.030777,0.00110334,3.89289,-4.79164,-3.75625,-1.79242,-9.37158,3.40221,0.144912,-1.26202,-35.3713,-0.610033,26.3281,1.91314,1.6076,-0.050247,
0.154336,0.0621757,0.207521,-1.99017,0.441938,0.206676,-0.0313932,0.0107789,-0.0219067,0.0065292,0.0109967,0.0318001,0.0664741,-0.00194999,0.371757,-0.513773,0.362338,0.139741,-25.689,15.419,0.0129239,0.11113,-2.40021,-0.310584,1.42907,-1.71887,2.08734,-0.0184903,0.153642,0.0632534,0.20699,-1.99057,0.445537,0.201487,-0.0313341,0.0308167,-0.0371599,0.00311948,-0.00572414,0.0627026,0.030777,0.00110334,0,0,0,0,0,0,0,-1.26202,-35.3713,-0.610033,26.3281,1.91314,1.6076,-0.050247,
0.154424,0.061977,0.207575,-1.99007,0.440819,0.208054,-0.0314084,0.0108271,-0.022493,0.0065657,0.0112458,-0.00252302,0.0876198,-0.00193941,0.0301403,-0.366428,0.0228121,0.155713,-21.452,13.216,0.00661077,0.112604,-2.39873,-0.309371,1.42801,-1.70021,2.07048,-0.0184827,0.153642,0.0632534,0.20699,-1.99057,0.445537,0.201487,-0.0313341,0.0308167,-0.0371599,0.00311948,-0.00572414,0.0627026,0.030777,0.00110334,0,0,0,0,0,0,0,-1.26202,-35.3713,-0.610033,26.3281,1.91314,1.6076,-0.050247,
0.154497,0.0617805,0.207614,-1.98997,0.439667,0.209467,-0.0314236,0.0104893,-0.0229083,0.00622313,0.0115001,-0.0308355,0.105427,-0.00193293,-0.21115,-0.259536,-0.214106,0.158958,-17.6953,11.1293,0.00405413,0.113584,-2.3973,-0.308574,1.42691,-1.68123,2.05351,-0.0184858,0.153642,0.0632534,0.20699,-1.99057,0.445537,0.201487,-0.0313341,0.0308167,-0.0371599,0.00311948,-0.00572414,0.0627026,0.030777,0.00110334,0,0,0,0,0,0,0,-1.26202,-35.3713,-0.610033,26.3281,1.91314,1.6076,-0.050247,
0.154557,0.0615856,0.20764,-1.98987,0.438495,0.210902,-0.0314389,0.00989687,-0.0231993,0.00563361,0.0117462,-0.0539497,0.120201,-0.00192759,-0.370261,-0.181857,-0.368446,0.153794,-14.4464,9.23365,0.00333537,0.112599,-2.39602,-0.304485,1.39827,-1.66601,2.02161,-0.0183828,0.154329,0.0625432,0.207341,-1.99025,0.447077,0.203763,-0.0313378,0.00809001,-0.0142686,0.0117684,0.00601098,-0.0317704,0.125328,0.000590998,-2.84084,2.86141,1.08111,1.46689,-11.8091,11.8189,-0.0640431,-0.932736,-34.8436,-0.237108,25.856,1.06353,2.25762,-0.0301054,
0.155683,0.061683,0.20859,-1.98997,0.426282,0.221291,-0.0313397,0.0145312,-0.0231256,0.010259,0.0111819,-0.172626,0.200134,-0.00180904,2.89647,0.046044,2.89084,-0.352706,-74.1725,49.9587,0.0740942,1.37057,-2.35846,0.966849,1.4903,-7.72685,6.4587,-0.0166766,0.154329,0.0625432,0.207341,-1.99025,0.447077,0.203763,-0.0313378,0.00809001,-0.0142686,0.0117684,0.00601098,-0.0317704,0.125328,0.000590998,0,0,0,0,0,0,0,-0.932736,-34.8436,-0.237108,25.856,1.06353,2.25762,-0.0301054,
0.155922,0.0614999,0.208792,-1.98989,0.420998,0.225512,-0.0313517,0.0175826,-0.0230779,0.0132674,0.0108773,-0.27021,0.265615,-0.00174722,1.90711,0.0298264,1.88031,-0.190376,-60.9903,40.9256,0.038636,1.40656,-2.39159,0.998113,1.47986,-7.58079,6.31192,-0.0163056,0.154329,0.0625432,0.207341,-1.99025,0.447077,0.203763,-0.0313378,0.00809001,-0.0142686,0.0117684,0.00601098,-0.0317704,0.125328,0.000590998,0,0,0,0,0,0,0,-0.932736,-34.8436,-0.237108,25.856,1.06353,2.25762,-0.0301054,
0.156134,0.061317,0.208968,-1.98981,0.415689,0.229737,-0.0313644,0.0193743,-0.0230348,0.0150115,0.0107548,-0.348899,0.318131,-0.00171433,1.11981,0.026941,1.09007,-0.0765604,-49.1808,32.8224,0.0205597,1.43251,-2.42103,1.01858,1.46865,-7.43434,6.16624,-0.0159774,0.154329,0.0625432,0.207341,-1.99025,0.447077,0.203763,-0.0313378,0.00809001,-0.0142686,0.0117684,0.00601098,-0.0317704,0.125328,0.000590998,0,0,0,0,0,0,0,-0.932736,-34.8436,-0.237108,25.856,1.06353,2.25762,-0.0301054,
0.156323,0.0611346,0.20912,-1.98972,0.410406,0.233931,-0.0313773,0.0202125,-0.0229873,0.0158111,0.0107554,-0.411192,0.359355,-0.00169527,0.523852,0.0296369,0.499707,0.000423773,-38.9327,25.7651,0.0119101,1.43426,-2.2972,1.01835,1.28374,-7.30182,5.94566,-0.0147773,0.155147,0.0618015,0.207865,-1.99006,0.441615,0.212799,-0.0313283,0.0343222,-0.0163058,0.0216226,-0.00937771,-0.490708,0.5035,-0.000965034,3.27903,-0.254651,1.23178,-1.92359,-57.3672,47.2715,-0.194504,0.562931,-35.4427,1.06416,26.5305,-1.17127,4.63799,-0.0767973,
0.158177,0.0625205,0.211162,-1.99003,0.395554,0.249595,-0.0312255,0.0340338,-0.0125076,0.0314604,0.00809979,-0.598257,0.49694,-0.00120577,8.63834,6.54986,9.78081,-1.65978,-116.916,85.9902,0.305938,5.47418,3.73463,5.78778,-0.0696904,-14.409,11.3897,0.00286926,0.155147,0.0618015,0.207865,-1.99006,0.441615,0.212799,-0.0313283,0.0343222,-0.0163058,0.0216226,-0.00937771,-0.490708,0.5035,-0.000965034,0,0,0,0,0,0,0,0.562931,-35.4427,1.06416,26.5305,-1.17127,4.63799,-0.0767973,
0.158914,0.0627747,0.211931,-1.99006,0.3845,0.258142,-0.0312205,0.0456387,-0.00364956,0.0443892,0.00560007,-0.754952,0.611237,-0.000840123,7.25303,5.53625,8.08053,-1.56232,-97.9344,71.4357,0.228529,6.34357,3.77933,6.72224,-0.0809217,-14.409,11.3897,-0.000631615,0.155147,0.0618015,0.207865,-1.99006,0.441615,0.212799,-0.0313283,0.0343222,-0.0163058,0.0216226,-0.00937771,-0.490708,0.5035,-0.000965034,0,0,0,0,0,0,0,0.562931,-35.4427,1.06416,26.5305,-1.17127,4.63799,-0.0767973,
0.159668,0.0630385,0.212712,-1.99011,0.37327,0.266785,-0.0312153,0.055372,0.00367444,0.0550429,0.00324507,-0.884725,0.705053,-0.000542021,6.08334,4.5775,6.65858,-1.47187,-81.108,58.6348,0.186313,7.17502,3.75309,7.58498,-0.0833136,-14.409,11.3897,-0.00293939,0.155147,0.0618015,0.207865,-1.99006,0.441615,0.212799,-0.0313283,0.0343222,-0.0163058,0.0216226,-0.00937771,-0.490708,0.5035,-0.000965034,0,0,0,0,0,0,0,0.562931,-35.4427,1.06416,26.5305,-1.17127,4.63799,-0.0767973,
0.160438,0.0633044,0.213504,-1.99017,0.361932,0.275473,-0.0312095,0.0635477,0.0095876,0.063817,0.00102971,-0.991222,0.781257,-0.000288627,5.10982,3.69572,5.48376,-1.3846,-66.5607,47.6275,0.158371,7.77992,4.42212,8.18186,-0.875851,-14.5338,11.0894,0.000552079,0.157285,0.0612823,0.209801,-1.99014,0.413842,0.23989,-0.0313074,0.0850401,0.017131,0.117854,-0.0312094,-1.24736,1.23617,0.00496882,6.33973,4.1796,12.029,-2.72896,-94.5809,91.5836,0.741732,5.71247,-30.7018,6.16212,25.6061,-1.22071,5.37407,-0.250748,
0.161207,0.0607485,0.213519,-1.9916,0.358601,0.285665,-0.0310992,0.0703245,0.00320081,0.069757,-0.00711451,-1.07721,0.847455,0.000638921,4.23547,-3.99175,3.71252,-5.09014,-53.745,41.3741,0.579717,8.44691,-2.19596,7.76642,-3.83425,-14.5338,11.0894,0.0558051,0.157285,0.0612823,0.209801,-1.99014,0.413842,0.23989,-0.0313074,0.0850401,0.017131,0.117854,-0.0312094,-1.24736,1.23617,0.00496882,0,0,0,0,0,0,0,5.71247,-30.7018,6.16212,25.6061,-1.22071,5.37407,-0.250748,
0.161993,0.0605611,0.214277,-1.99192,0.347185,0.294489,-0.0310653,0.0758906,-0.00212482,0.0747789,-0.0138304,-1.14717,0.898583,0.0013587,3.47884,-3.32852,3.1387,-4.19742,-43.7247,31.9549,0.449865,8.97779,-2.35601,8.39349,-3.95041,-14.5338,11.0894,0.0537248,0.157285,0.0612823,0.209801,-1.99014,0.413842,0.23989,-0.0313074,0.0850401,0.017131,0.117854,-0.0312094,-1.24736,1.23617,0.00496882,0,0,0,0,0,0,0,5.71247,-30.7018,6.16212,25.6061,-1.22071,5.37407,-0.250748,
0.162783,0.0603715,0.21505,-1.99225,0.33575,0.303252,-0.0310314,0.0804788,-0.00644042,0.0791344,-0.019361,-1.20363,0.937919,0.00193549,2.8676,-2.69725,2.72218,-3.45661,-35.2838,24.5854,0.36049,9.39897,-2.46207,8.88617,-4.05029,-14.5338,11.0894,0.0512043,0.157285,0.0612823,0.209801,-1.99014,0.413842,0.23989,-0.0313074,0.0850401,0.017131,0.117854,-0.0312094,-1.24736,1.23617,0.00496882,0,0,0,0,0,0,0,5.71247,-30.7018,6.16212,25.6061,-1.22071,5.37407,-0.250748,
0.163581,0.0601838,0.215834,-1.99259,0.324314,0.311958,-0.0309991,0.0843185,-0.00984453,0.0829015,-0.0239265,-1.24878,0.967986,0.00235366,2.39982,-2.12757,2.35443,-2.85348,-28.2224,18.7914,0.261355,9.41314,-1.47703,8.93124,-5.19552,-14.6226,10.5626,0.0522691,0.161775,0.0615546,0.214784,-1.99146,0.355489,0.291044,-0.0313272,0.160983,-0.0380941,0.141126,-0.108439,-1.89984,1.66509,0.00116275,9.49282,-6.90314,2.90897,-9.65368,-81.5609,53.615,-0.475759,2.46723,-35.518,2.86134,24.6857,0.697323,3.79571,0.00376909,
0.166146,0.0607382,0.218964,-1.99312,0.292807,0.340442,-0.0312322,0.0872284,-0.0122807,0.085713,-0.0270556,-1.29164,0.99903,0.00252128,1.81866,-1.52263,1.75716,-1.95569,-26.7879,19.4026,0.104764,9.69386,-1.48859,9.25723,-5.26686,-14.6226,10.5626,0.047083,0.161775,0.0615546,0.214784,-1.99146,0.355489,0.291044,-0.0313272,0.160983,-0.0380941,0.141126,-0.108439,-1.89984,1.66509,0.00116275,0,0,0,0,0,0,0,2.46723,-35.518,2.86134,24.6857,0.697323,3.79571,0.00376909,
0.166935,0.0605663,0.219741,-1.99345,0.281255,0.349246,-0.0312083,0.0895101,-0.0141217,0.0879889,-0.0297308,-1.32211,1.01932,0.0026164,1.4261,-1.15059,1.42248,-1.67199,-19.0404,12.6821,0.059451,9.94525,-1.45162,9.56708,-5.31479,-14.6226,10.5626,0.0461506,0.161775,0.0615546,0.214784,-1.99146,0.355489,0.291044,-0.0313272,0.160983,-0.0380941,0.141126,-0.108439,-1.89984,1.66509,0.00116275,0,0,0,0,0,0,0,2.46723,-35.518,2.86134,24.6857,0.697323,3.79571,0.00376909,
0.167722,0.060404,0.220515,-1.99374,0.269802,0.357633,-0.0311873,0.091271,-0.015355,0.0897537,-0.0309824,-1.34402,1.02514,0.00261799,1.10054,-0.770842,1.103,-0.782216,-13.6927,3.63835,0.000992993,10.1067,-1.38362,9.82776,-5.35536,-14.6226,10.5626,0.0463148,0.161775,0.0615546,0.214784,-1.99146,0.355489,0.291044,-0.0313272,0.160983,-0.0380941,0.141126,-0.108439,-1.89984,1.66509,0.00116275,0,0,0,0,0,0,0,2.46723,-35.518,2.86134,24.6857,0.697323,3.79571,0.00376909,
0.166143,0.0608476,0.219,-1.99291,0.293411,0.338323,-0.0312909,0.0920817,-0.0160406,0.0903477,-0.0303716,-1.35395,1.01487,0.00220934,0.506672,-0.428501,0.371225,0.381701,-6.21061,-6.42347,-0.255407,10.2899,-1.161,10.0944,-5.43242,-14.6226,10.5626,0.0410686,0.161775,0.0615546,0.214784,-1.99146,0.355489,0.291044,-0.0313272,0.160983,-0.0380941,0.141126,-0.108439,-1.89984,1.66509,0.00116275,0,0,0,0,0,0,0,2.46723,-35.518,2.86134,24.6857,0.697323,3.79571,0.00376909,
0.166875,0.0606974,0.219712,-1.99313,0.283027,0.34541,-0.0312878,0.0919498,-0.0165883,0.0900553,-0.0298204,-1.34275,0.989068,0.00184376,-0.0823961,-0.342262,-0.182727,0.344512,7.00382,-16.1231,-0.228487,9.90201,-0.504748,9.714,-5.90116,-14.5387,10.1213,0.0397736,0.168153,0.0615997,0.220643,-1.99517,0.28808,0.349393,-0.0313109,0.200957,0.0489232,0.205694,-0.113907,-2.11024,1.79171,-0.00189265,4.99674,10.8772,8.07104,-0.683475,-26.3,15.8275,-0.381924,0.741459,-37.5414,1.71083,28.2245,0.312802,3.77556,-0.0566557,
0.167583,0.0605512,0.2204,-1.99335,0.273427,0.351845,-0.0312851,0.0912616,-0.0169253,0.0892592,-0.0293288,-1.31419,0.952113,0.00154444,-0.430155,-0.210663,-0.497561,0.30728,17.8459,-23.0973,-0.187072,9.94548,-0.315857,9.7589,-5.90884,-14.5387,9.14377,0.035292,0.168153,0.0615997,0.220643,-1.99517,0.28808,0.349393,-0.0313109,0.200957,0.0489232,0.205694,-0.113907,-2.11024,1.79171,-0.00189265,0,0,0,0,0,0,0,0.741459,-37.5414,1.71083,28.2245,0.312802,3.77556,-0.0566557,
0.168274,0.0604109,0.221073,-1.99357,0.2646,0.357675,-0.0312827,0.0902911,-0.0170489,0.0882235,-0.0288988,-1.27204,0.907453,0.00129343,-0.60652,-0.0772281,-0.64734,0.268703,26.3464,-27.9122,-0.156883,9.99112,-0.113075,9.80102,-5.89764,-14.1878,8.19457,0.031669,0.168153,0.0615997,0.220643,-1.99517,0.28808,0.349393,-0.0313109,0.200957,0.0489232,0.205694,-0.113907,-2.11024,1.79171,-0.00189265,0,0,0,0,0,0,0,0.741459,-37.5414,1.71083,28.2245,0.312802,3.77556,-0.0566557,
0.172844,0.0621333,0.225094,-1.99666,0.233774,0.38869,-0.0314176,0.0905286,-0.0145886,0.0882241,-0.028914,-1.22518,0.865431,0.000897985,0.148397,1.53765,0.000374669,-0.00947187,29.2899,-26.2637,-0.247154,10.0268,0.0883949,9.83079,-5.87289,-13.0021,7.33687,0.0295281,0.168153,0.0615997,0.220643,-1.99517,0.28808,0.349393,-0.0313109,0.200957,0.0489232,0.205694,-0.113907,-2.11024,1.79171,-0.00189265,0,0,0,0,0,0,0,0.741459,-37.5414,1.71083,28.2245,0.312802,3.77556,-0.0566557,
0.173544,0.0620687,0.225773,-1.99688,0.22632,0.393594,-0.0314211,0.0899385,-0.0132841,0.0875342,-0.0287675,-1.16648,0.814969,0.000631743,-0.368789,0.815324,-0.431162,0.091559,36.6831,-31.5391,-0.166401,10.0463,0.0157195,9.84765,-5.55081,-11.5691,6.35143,0.0275373,0.174465,0.062534,0.227784,-1.99932,0.221484,0.406348,-0.0313109,0.144978,0.0180091,0.221682,-0.138601,-1.9433,1.5459,-0.00120609,-6.99738,-3.86426,1.99841,-3.08686,20.8677,-30.7258,0.0858195,1.93164,-39.4139,2.1631,28.8196,1.82708,2.31072,0.0303194,
0.174227,0.0619886,0.226435,-1.99711,0.219609,0.397932,-0.0314238,0.0890061,-0.0126308,0.0865787,-0.0285656,-1.10097,0.760414,0.000436277,-0.58273,0.408294,-0.59723,0.126176,40.946,-34.0965,-0.122166,10.0166,0.18086,9.81292,-5.51104,-10.6029,5.65996,0.0272643,0.174465,0.062534,0.227784,-1.99932,0.221484,0.406348,-0.0313109,0.144978,0.0180091,0.221682,-0.138601,-1.9433,1.5459,-0.00120609,0,0,0,0,0,0,0,1.93164,-39.4139,2.1631,28.8196,1.82708,2.31072,0.0303194,
0.174898,0.0618997,0.227087,-1.99733,0.213561,0.401782,-0.031427,0.0879852,-0.012326,0.0855762,-0.0283734,-1.03199,0.704571,0.000270683,-0.63811,0.190544,-0.626517,0.120108,43.1156,-34.9019,-0.103497,9.94564,0.319535,9.73766,-5.47051,-9.70835,5.03335,0.0262665,0.174465,0.062534,0.227784,-1.99932,0.221484,0.406348,-0.0313109,0.144978,0.0180091,0.221682,-0.138601,-1.9433,1.5459,-0.00120609,0,0,0,0,0,0,0,1.93164,-39.4139,2.1631,28.8196,1.82708,2.31072,0.0303194,
0.178647,0.0627573,0.231738,-2.0006,0.179967,0.435623,-0.031474,0.0872175,-0.0114764,0.0847111,-0.0274882,-0.968506,0.658999,-7.12295e-05,-0.479779,0.531003,-0.540674,0.553268,39.6742,-28.4827,-0.213695,9.83942,0.433445,9.6277,-5.42995,-8.8852,4.46227,0.0249769,0.174465,0.062534,0.227784,-1.99932,0.221484,0.406348,-0.0313109,0.144978,0.0180091,0.221682,-0.138601,-1.9433,1.5459,-0.00120609,0,0,0,0,0,0,0,1.93164,-39.4139,2.1631,28.8196,1.82708,2.31072,0.0303194,
0.179303,0.0626738,0.232374,-2.00079,0.174954,0.438894,-0.0314832,0.0861678,-0.0112679,0.0836662,-0.0268589,-0.90014,0.608969,-0.000286663,-0.656093,0.130301,-0.653103,0.393315,42.7293,-31.2687,-0.134646,9.99411,-0.00315536,9.79543,-4.8412,-7.70642,3.8907,0.0203636,0.181233,0.0626082,0.233907,-2.00307,0.1645,0.451006,-0.0313106,0.273448,-0.0357086,0.0740257,-0.13083,-1.46777,1.17139,0.000521573,16.0589,-6.71471,-18.457,0.971453,59.4418,-46.8143,0.215958,1.17389,-35.8196,1.98854,26.5781,3.26812,1.08391,-0.0163725,
0.17995,0.0625808,0.233004,-2.00099,0.170521,0.441725,-0.0314916,0.0851183,-0.0113403,0.0826692,-0.0264781,-0.830931,0.557949,-0.000438764,-0.655953,-0.0452582,-0.623107,0.23798,43.2553,-31.8873,-0.0950632,9.83877,0.0702787,9.63784,-4.80057,-7.00687,3.42409,0.0182202,0.181233,0.0626082,0.233907,-2.00307,0.1645,0.451006,-0.0313106,0.273448,-0.0357086,0.0740257,-0.13083,-1.46777,1.17139,0.000521573,0,0,0,0,0,0,0,1.17389,-35.8196,1.98854,26.5781,3.26812,1.08391,-0.0163725,
0.178647,0.0627573,0.231738,-2.0006,0.179967,0.435623,-0.031474,0.084924,-0.0106878,0.0823855,-0.025972,-0.807663,0.541701,-0.000638786,-0.121414,0.407793,-0.177297,0.316356,14.5425,-10.155,-0.125014,9.48751,0.173395,9.2844,-4.71787,-5.77403,2.6316,0.0131478,0.181233,0.0626082,0.233907,-2.00307,0.1645,0.451006,-0.0313106,0.273448,-0.0357086,0.0740257,-0.13083,-1.46777,1.17139,0.000521573,0,0,0,0,0,0,0,1.17389,-35.8196,1.98854,26.5781,3.26812,1.08391,-0.0163725,
0.186237,0.0618607,0.238674,-2.00414,0.133223,0.473457,-0.0315055,0.0850463,-0.0121089,0.0825836,-0.0248243,-0.723939,0.486249,-0.00086113,0.0764677,-0.888146,0.123817,0.717282,52.3276,-34.6577,-0.138965,9.30027,0.208334,9.0972,-4.67534,-5.23507,2.29901,0.0104486,0.181233,0.0626082,0.233907,-2.00307,0.1645,0.451006,-0.0313106,0.273448,-0.0357086,0.0740257,-0.13083,-1.46777,1.17139,0.000521573,0,0,0,0,0,0,0,1.17389,-35.8196,1.98854,26.5781,3.26812,1.08391,-0.0163725,
0.186906,0.0617247,0.239328,-2.00431,0.130504,0.475256,-0.0315186,0.0847697,-0.0130871,0.0824075,-0.0242442,-0.64713,0.43398,-0.00101412,-0.172925,-0.611414,-0.110101,0.362599,48.0054,-32.6682,-0.0956172,9.10955,0.234999,8.90709,-4.6315,-4.74655,2.00231,0.00794813,0.181233,0.0626082,0.233907,-2.00307,0.1645,0.451006,-0.0313106,0.273448,-0.0357086,0.0740257,-0.13083,-1.46777,1.17139,0.000521573,0,0,0,0,0,0,0,1.17389,-35.8196,1.98854,26.5781,3.26812,1.08391,-0.0163725,
0.187565,0.0615969,0.239972,-2.0045,0.128113,0.476797,-0.0315314,0.084278,-0.0136651,0.0820216,-0.0240834,-0.577474,0.385719,-0.00113347,-0.307318,-0.361227,-0.241182,0.100462,43.5354,-30.163,-0.0745936,8.91752,0.255318,8.7164,-4.58662,-4.30085,1.74149,0.00540529,0.181233,0.0626082,0.233907,-2.00307,0.1645,0.451006,-0.0313106,0.273448,-0.0357086,0.0740257,-0.13083,-1.46777,1.17139,0.000521573,0,0,0,0,0,0,0,1.17389,-35.8196,1.98854,26.5781,3.26812,1.08391,-0.0163725,
0.185241,0.0619737,0.237686,-2.00382,0.141239,0.468918,-0.031552,0.0834876,-0.0147104,0.0812327,-0.0223492,-0.5256,0.358183,-0.00144663,-0.493955,-0.65332,-0.493043,1.08392,32.4209,-17.2099,-0.195729,8.72586,0.270624,8.5266,-4.54022,-3.89876,1.51046,0.00312675,0.181233,0.0626082,0.233907,-2.00307,0.1645,0.451006,-0.0313106,0.273448,-0.0357086,0.0740257,-0.13083,-1.46777,1.17139,0.000521573,0,0,0,0,0,0,0,1.17389,-35.8196,1.98854,26.5781,3.26812,1.08391,-0.0163725,
0.185865,0.061827,0.238296,-2.00396,0.139116,0.47054,-0.0315701,0.082404,-0.0154366,0.0802247,-0.0214223,-0.473549,0.327089,-0.00160905,-0.677237,-0.453902,-0.630016,0.579258,32.532,-19.4337,-0.101508,8.53569,0.282331,8.33894,-4.49265,-3.53333,1.30911,0.000884136,0.181233,0.0626082,0.233907,-2.00307,0.1645,0.451006,-0.0313106,0.273448,-0.0357086,0.0740257,-0.13083,-1.46777,1.17139,0.000521573,0,0,0,0,0,0,0,1.17389,-35.8196,1.98854,26.5781,3.26812,1.08391,-0.0163725,
0.18648,0.0616887,0.238896,-2.00412,0.137307,0.471887,-0.0315864,0.0812777,-0.0158067,0.0792012,-0.0211023,-0.42407,0.29535,-0.00169534,-0.703956,-0.231269,-0.639714,0.2,30.9243,-19.837,-0.053932,8.57907,-0.0697823,8.39275,-4.0607,-2.9,1.11285,-0.00266812,0.187005,0.0634613,0.238822,-2.00534,0.122165,0.484548,-0.0313176,0.300942,0.0697302,-0.00806271,-0.0218875,-1.01461,0.815917,0.00119975,3.4367,13.1798,-10.261,13.6178,56.6441,-44.434,0.084772,2.82032,-36.6686,3.31361,25.6339,3.47046,0.951163,0.00376909,
0.187087,0.0615606,0.239492,-2.00429,0.135745,0.473021,-0.031602,0.0802047,-0.0158481,0.078236,-0.021211,-0.378319,0.264627,-0.00174721,-0.670603,-0.0259,-0.603211,-0.0678934,28.5942,-19.2016,-0.0324176,8.39406,-0.0625469,8.21125,-4.01037,-2.6025,0.959906,-0.00456121,0.187005,0.0634613,0.238822,-2.00534,0.122165,0.484548,-0.0313176,0.300942,0.0697302,-0.00806271,-0.0218875,-1.01461,0.815917,0.00119975,0,0,0,0,0,0,0,2.82032,-36.6686,3.31361,25.6339,3.47046,0.951163,0.00376909,
0.190687,0.0637951,0.242303,-2.00612,0.107645,0.49733,-0.0315374,0.0795941,-0.0141841,0.0776036,-0.0212002,-0.339995,0.243856,-0.00191914,-0.381641,1.04002,-0.39529,0.0067598,23.953,-12.9821,-0.107461,8.21222,-0.0565308,8.03329,-3.95852,-2.33614,0.826297,-0.00617679,0.187005,0.0634613,0.238822,-2.00534,0.122165,0.484548,-0.0313176,0.300942,0.0697302,-0.00806271,-0.0218875,-1.01461,0.815917,0.00119975,0,0,0,0,0,0,0,2.82032,-36.6686,3.31361,25.6339,3.47046,0.951163,0.00376909,
0.191289,0.0637217,0.24289,-2.0063,0.106419,0.498341,-0.0315556,0.0787211,-0.0131832,0.0767693,-0.0214631,-0.302648,0.220364,-0.00199013,-0.545634,0.625576,-0.521437,-0.164318,23.3414,-14.6826,-0.0443671,8.03368,-0.0510079,7.85908,-3.90554,-2.09539,0.71212,-0.00771055,0.187005,0.0634613,0.238822,-2.00534,0.122165,0.484548,-0.0313176,0.300942,0.0697302,-0.00806271,-0.0218875,-1.01461,0.815917,0.00119975,0,0,0,0,0,0,0,2.82032,-36.6686,3.31361,25.6339,3.47046,0.951163,0.00376909,
0.191881,0.063644,0.243469,-2.00649,0.10539,0.499153,-0.0315724,0.0777663,-0.0124889,0.0758789,-0.021913,-0.267835,0.196597,-0.00201272,-0.596735,0.433935,-0.556486,-0.281203,21.7584,-14.8542,-0.0141179,8.11258,-0.223176,7.942,-3.68349,-1.69194,0.586744,-0.00987388,0.19191,0.063634,0.243224,-2.00697,0.0932125,0.507341,-0.0313217,0.253041,-0.0484653,0.00471709,-0.0624352,-0.602218,0.523914,5.28761e-05,-5.9876,-14.7744,1.59748,-5.06845,51.5495,-36.5003,-0.143359,3.20118,-36.0179,3.58735,24.6381,2.3526,1.44829,-0.0026396,
0.192464,0.063567,0.24404,-2.00669,0.104516,0.499818,-0.0315886,0.076803,-0.0119143,0.0749886,-0.0224721,-0.236108,0.173899,-0.00201558,-0.602094,0.359129,-0.556395,-0.349465,19.8296,-14.1866,-0.00179065,7.9407,-0.217612,7.7751,-3.62806,-1.49809,0.503133,-0.0110804,0.19191,0.063634,0.243224,-2.00697,0.0932125,0.507341,-0.0313217,0.253041,-0.0484653,0.00471709,-0.0624352,-0.602218,0.523914,5.28761e-05,0,0,0,0,0,0,0,3.20118,-36.0179,3.58735,24.6381,2.3526,1.44829,-0.0026396,
0.195586,0.062637,0.246757,-2.00754,0.0850676,0.515189,-0.0314933,0.0772334,-0.0135668,0.075462,-0.0211758,-0.207678,0.160133,-0.00211383,0.269031,-1.03284,0.295846,0.810179,17.7686,-8.60358,-0.0614034,7.77203,-0.21169,7.61164,-3.57137,-1.32563,0.431171,-0.0120562,0.19191,0.063634,0.243224,-2.00697,0.0932125,0.507341,-0.0313217,0.253041,-0.0484653,0.00471709,-0.0624352,-0.602218,0.523914,5.28761e-05,0,0,0,0,0,0,0,3.20118,-36.0179,3.58735,24.6381,2.3526,1.44829,-0.0026396,
0.196196,0.0624936,0.247356,-2.00769,0.0844721,0.515861,-0.0315113,0.0770385,-0.0144381,0.0753394,-0.0205718,-0.181029,0.144907,-0.00214301,-0.121827,-0.544538,-0.0765948,0.377559,16.6556,-9.51624,-0.0182358,7.6064,-0.205044,7.45151,-3.51376,-1.17027,0.371299,-0.0129691,0.19191,0.063634,0.243224,-2.00697,0.0932125,0.507341,-0.0313217,0.253041,-0.0484653,0.00471709,-0.0624352,-0.602218,0.523914,5.28761e-05,0,0,0,0,0,0,0,3.20118,-36.0179,3.58735,24.6381,2.3526,1.44829,-0.0026396,
0.196789,0.0623673,0.247939,-2.00785,0.0839893,0.516406,-0.0315283,0.0764548,-0.01471,0.0748382,-0.0204488,-0.156894,0.129542,-0.00213817,-0.364826,-0.169944,-0.313247,0.0768461,15.0844,-9.60313,0.00302461,7.51782,-0.296148,7.37555,-3.41063,-0.946476,0.287984,-0.0139067,0.196488,0.0627599,0.247076,-2.00818,0.0779339,0.519819,-0.0313205,0.257446,0.00118941,-0.0104768,-0.0166633,-0.420993,0.302356,0.00968209,0.55061,6.20683,-1.89924,5.72148,22.6531,-27.6948,1.20365,2.92347,-31.8523,3.48817,23.8882,1.89483,2.27044,-0.0566557,
0.200053,0.0623378,0.250512,-2.00897,0.0732555,0.524604,-0.0314762,0.0764495,-0.0140847,0.0748694,-0.0206532,-0.133981,0.11556,-0.00218687,-0.00328839,0.390828,0.019452,-0.127739,14.3206,-8.73902,-0.0304403,7.20027,-0.278741,7.06987,-3.29062,-0.712946,0.210892,-0.015047,0.196488,0.0627599,0.247076,-2.00818,0.0779339,0.519819,-0.0313205,0.257446,0.00118941,-0.0104768,-0.0166633,-0.420993,0.302356,0.00968209,0,0,0,0,0,0,0,2.92347,-31.8523,3.48817,23.8882,1.89483,2.27044,-0.0566557,
0.20064,0.0622521,0.251089,-2.00915,0.0730108,0.524975,-0.0314936,0.0758369,-0.013412,0.0743211,-0.0209923,-0.113302,0.101736,-0.00218412,-0.38287,0.420417,-0.342645,-0.211937,12.9242,-8.63961,0.00172057,7.04507,-0.268583,6.92084,-3.22947,-0.614486,0.182712,-0.0154924,0.196488,0.0627599,0.247076,-2.00818,0.0779339,0.519819,-0.0313205,0.257446,0.00118941,-0.0104768,-0.0166633,-0.420993,0.302356,0.00968209,0,0,0,0,0,0,0,2.92347,-31.8523,3.48817,23.8882,1.89483,2.27044,-0.0566557,
0.201207,0.0621742,0.251647,-2.00933,0.0728313,0.52527,-0.03151,0.0748478,-0.0126763,0.0734081,-0.0214012,-0.095129,0.0887637,-0.0021564,-0.618232,0.459774,-0.570652,-0.255545,11.3582,-8.1078,0.0173217,6.89202,-0.257554,6.77401,-3.16747,-0.527796,0.159049,-0.0157839,0.196488,0.0627599,0.247076,-2.00818,0.0779339,0.519819,-0.0313205,0.257446,0.00118941,-0.0104768,-0.0166633,-0.420993,0.302356,0.00968209,0,0,0,0,0,0,0,2.92347,-31.8523,3.48817,23.8882,1.89483,2.27044,-0.0566557,
0.201757,0.0621043,0.252189,-2.00952,0.072701,0.525509,-0.0315257,0.0736258,-0.0118885,0.072266,-0.0218281,-0.0793621,0.0769721,-0.00211889,-0.763725,0.49239,-0.713807,-0.266832,9.85432,-7.36974,0.0234454,6.74092,-0.245502,6.62926,-3.10493,-0.449993,0.140787,-0.0160574,0.196488,0.0627599,0.247076,-2.00818,0.0779339,0.519819,-0.0313205,0.257446,0.00118941,-0.0104768,-0.0166633,-0.420993,0.302356,0.00968209,0,0,0,0,0,0,0,2.92347,-31.8523,3.48817,23.8882,1.89483,2.27044,-0.0566557,
0.205167,0.0621182,0.254985,-2.01041,0.0667538,0.529402,-0.0314688,0.0749514,-0.0112135,0.0735782,-0.022369,-0.0635424,0.0661692,-0.00215863,0.828502,0.421918,0.820141,-0.338043,9.8873,-6.75184,-0.0248333,6.65312,-0.286766,6.54475,-3.00631,-0.331343,0.114985,-0.0162806,0.201285,0.0625173,0.251222,-2.00935,0.0685501,0.527428,-0.0313266,0.247278,-0.0162871,0.0256704,-0.0458667,-0.244495,0.154284,0.000398229,-1.27102,-2.18456,4.5184,-3.65043,22.0623,-18.5089,-1.16048,1.4516,-36.6686,2.23848,24.9832,0.960079,2.68151,-0.0301054,
0.205771,0.0620566,0.255579,-2.01061,0.0667901,0.529546,-0.0314858,0.0750666,-0.0105111,0.0737221,-0.0227751,-0.0499267,0.0565428,-0.0021509,0.0720277,0.438941,0.0898901,-0.253813,8.50987,-6.01646,0.00482631,6.50543,-0.272924,6.40354,-2.94261,-0.270242,0.103751,-0.0164046,0.201285,0.0625173,0.251222,-2.00935,0.0685501,0.527428,-0.0313266,0.247278,-0.0162871,0.0256704,-0.0458667,-0.244495,0.154284,0.000398229,0,0,0,0,0,0,0,1.4516,-36.6686,2.23848,24.9832,0.960079,2.68151,-0.0301054,
0.206344,0.0620013,0.256143,-2.0108,0.0668483,0.529663,-0.0315017,0.0743782,-0.00979216,0.0730859,-0.0230687,-0.0384882,0.0481517,-0.00211826,-0.430302,0.449366,-0.397571,-0.18354,7.14902,-5.24444,0.0204023,6.35923,-0.25833,6.2638,-2.8783,-0.217014,0.0943561,-0.0164124,0.201285,0.0625173,0.251222,-2.00935,0.0685501,0.527428,-0.0313266,0.247278,-0.0162871,0.0256704,-0.0458667,-0.244495,0.154284,0.000398229,0,0,0,0,0,0,0,1.4516,-36.6686,2.23848,24.9832,0.960079,2.68151,-0.0301054,
0.20689,0.0619518,0.256682,-2.01099,0.0669204,0.52976,-0.0315168,0.0731649,-0.00907065,0.0719383,-0.0232629,-0.0289862,0.0409454,-0.0020743,-0.758317,0.450942,-0.717303,-0.121335,5.93878,-4.50399,0.027476,6.21435,-0.24288,6.12547,-2.81364,-0.169409,0.0878785,-0.0164182,0.201285,0.0625173,0.251222,-2.00935,0.0685501,0.527428,-0.0313266,0.247278,-0.0162871,0.0256704,-0.0458667,-0.244495,0.154284,0.000398229,0,0,0,0,0,0,0,1.4516,-36.6686,2.23848,24.9832,0.960079,2.68151,-0.0301054,
0.210418,0.0618169,0.260348,-2.01257,0.0658168,0.530036,-0.0314442,0.0752462,-0.00821446,0.0739792,-0.0239933,-0.0170179,0.0321241,-0.00209859,1.30087,0.535122,1.27557,-0.456545,7.48016,-5.51328,-0.0151821,6.10214,-0.300411,6.01606,-2.70832,-0.103623,0.0956239,-0.0164126,0.206244,0.0620534,0.256286,-2.01131,0.0651156,0.530087,-0.0313231,0.253232,-0.0156331,0.0440342,-0.0578656,-0.0669602,0.0371526,0.000543959,0.744195,0.0817486,2.29547,-1.49986,22.1919,-14.6414,0.0182162,-0.246395,-33.5741,0.711073,25.3323,0.404354,3.21252,-0.0365141,
0.211036,0.0617813,0.260956,-2.01277,0.0660516,0.53002,-0.0314604,0.0756417,-0.00746163,0.0743852,-0.0243634,-0.00774281,0.0252865,-0.00208314,0.247181,0.47052,0.253801,-0.2313,5.79694,-4.27348,0.00965441,5.95957,-0.283565,5.88006,-2.64287,-0.066921,0.0921612,-0.0163187,0.206244,0.0620534,0.256286,-2.01131,0.0651156,0.530087,-0.0313231,0.253232,-0.0156331,0.0440342,-0.0578656,-0.0669602,0.0371526,0.000543959,0,0,0,0,0,0,0,-0.246395,-33.5741,0.711073,25.3323,0.404354,3.21252,-0.0365141,
0.211612,0.0617483,0.261523,-2.01297,0.0662709,0.530012,-0.0314755,0.0749073,-0.00679406,0.0736934,-0.0244701,-0.000711315,0.0200259,-0.00204488,-0.459032,0.417231,-0.432385,-0.0667048,4.39468,-3.2879,0.0239136,5.81798,-0.266177,5.74501,-2.577,-0.0355295,0.0889341,-0.0161351,0.206244,0.0620534,0.256286,-2.01131,0.0651156,0.530087,-0.0313231,0.253232,-0.0156331,0.0440342,-0.0578656,-0.0669602,0.0371526,0.000543959,0,0,0,0,0,0,0,-0.246395,-33.5741,0.711073,25.3323,0.404354,3.21252,-0.0365141,
0.210418,0.0618169,0.260348,-2.01257,0.0658168,0.530036,-0.0314442,0.0766402,-0.00639318,0.0753833,-0.0249591,0.00560197,0.0153885,-0.00207506,1.08306,0.250547,1.05617,-0.305635,3.9458,-2.89835,-0.0188593,5.53738,-0.229697,5.47749,-2.44449,0.0158621,0.0850674,-0.0157072,0.206244,0.0620534,0.256286,-2.01131,0.0651156,0.530087,-0.0313231,0.253232,-0.0156331,0.0440342,-0.0578656,-0.0669602,0.0371526,0.000543959,0,0,0,0,0,0,0,-0.246395,-33.5741,0.711073,25.3323,0.404354,3.21252,-0.0365141,
0.210881,0.0618154,0.260809,-2.01267,0.0664937,0.529924,-0.0314593,0.0758929,-0.00584611,0.0746917,-0.0246259,0.0119338,0.0115798,-0.00203738,-0.467052,0.341918,-0.432227,0.208273,3.95742,-2.38044,0.023544,5.38471,-0.248573,5.31753,-2.34829,0.0400136,0.100774,-0.015541,0.211663,0.0626987,0.261319,-2.01279,0.0645823,0.530333,-0.0313305,0.231964,0.0292463,0.0833236,-0.0326404,0.00288161,0.00256651,-0.000593263,-2.65843,5.60992,4.91118,3.15315,8.73023,-4.32327,-0.142153,-0.67883,-38.065,0.413527,26.6296,0.19653,3.4771,0.00376909,
0.211421,0.0617888,0.261342,-2.01285,0.0667669,0.529904,-0.0314733,0.0742038,-0.00534141,0.0730824,-0.0241591,0.0163781,0.00876605,-0.00197861,-1.05568,0.315438,-1.00583,0.291781,2.77764,-1.75861,0.0367317,5.2462,-0.22925,5.1855,-2.28143,0.057158,0.0989781,-0.0152261,0.211663,0.0626987,0.261319,-2.01279,0.0645823,0.530333,-0.0313305,0.231964,0.0292463,0.0833236,-0.0326404,0.00288161,0.00256651,-0.000593263,0,0,0,0,0,0,0,-0.67883,-38.065,0.413527,26.6296,0.19653,3.4771,0.00376909,
0.211924,0.0617648,0.26184,-2.01302,0.0670165,0.529892,-0.0314864,0.071937,-0.00487418,0.0709083,-0.0236042,0.0193426,0.00671195,-0.0019102,-1.41675,0.29202,-1.3588,0.346818,1.85283,-1.28381,0.0427564,5.10829,-0.209503,5.05406,-2.21448,0.0721852,0.09777,-0.0149283,0.211663,0.0626987,0.261319,-2.01279,0.0645823,0.530333,-0.0313305,0.231964,0.0292463,0.0833236,-0.0326404,0.00288161,0.00256651,-0.000593263,0,0,0,0,0,0,0,-0.67883,-38.065,0.413527,26.6296,0.19653,3.4771,0.00376909,
0.215798,0.0630104,0.265349,-2.01401,0.0668236,0.5298,-0.0314455,0.0733172,-0.00347213,0.0722319,-0.0239665,0.0260334,0.00243039,-0.00191189,0.862624,0.876284,0.827224,-0.22649,4.18174,-2.67597,-0.00105204,4.97093,-0.1895,4.92313,-2.14731,0.0842403,0.0955976,-0.0145655,0.211663,0.0626987,0.261319,-2.01279,0.0645823,0.530333,-0.0313305,0.231964,0.0292463,0.0833236,-0.0326404,0.00288161,0.00256651,-0.000593263,0,0,0,0,0,0,0,-0.67883,-38.065,0.413527,26.6296,0.19653,3.4771,0.00376909,
0.216368,0.0630192,0.265911,-2.0142,0.0671981,0.529699,-0.0314593,0.072913,-0.00255719,0.0718318,-0.0238843,0.0301912,-0.000581991,-0.00187555,-0.252602,0.571833,-0.250058,0.0513758,2.59865,-1.88274,0.0227111,4.86396,-0.252401,4.81347,-2.05249,0.0977086,0.106188,-0.0142889,0.216853,0.062459,0.266988,-2.01499,0.0650917,0.530264,-0.0313219,0.193877,-0.0348185,0.13081,-0.0776828,0.0344347,-0.00256335,0.00196364,-4.76085,-8.0081,5.93585,-5.6303,3.94413,-0.641232,0.319613,-2.57916,-33.5463,-1.08611,25.7568,-0.255741,3.76916,-0.0566557,
0.216889,0.0630227,0.266424,-2.01438,0.0675291,0.529614,-0.031472,0.0713482,-0.00195806,0.0703096,-0.0234967,0.0324276,-0.00257489,-0.00181768,-0.977994,0.374461,-0.951367,0.242246,1.39772,-1.24556,0.0361702,4.72763,-0.231863,4.68349,-1.98511,0.105771,0.103133,-0.0138842,0.216853,0.062459,0.266988,-2.01499,0.0650917,0.530264,-0.0313219,0.193877,-0.0348185,0.13081,-0.0776828,0.0344347,-0.00256335,0.00196364,0,0,0,0,0,0,0,-2.57916,-33.5463,-1.08611,25.7568,-0.255741,3.76916,-0.0566557,
0.217368,0.0630228,0.266898,-2.01454,0.0678228,0.529545,-0.0314838,0.0690605,-0.00156246,0.0680884,-0.022904,0.0332837,-0.00379324,-0.00174914,-1.42983,0.247247,-1.38829,0.370458,0.535106,-0.761467,0.0428375,4.59178,-0.211053,4.55398,-1.91773,0.112738,0.10015,-0.013499,0.216853,0.062459,0.266988,-2.01499,0.0650917,0.530264,-0.0313219,0.193877,-0.0348185,0.13081,-0.0776828,0.0344347,-0.00256335,0.00196364,0,0,0,0,0,0,0,-2.57916,-33.5463,-1.08611,25.7568,-0.255741,3.76916,-0.0566557,
0.221046,0.0621248,0.271092,-2.01606,0.0677385,0.529141,-0.0314255,0.0708458,-0.00215939,0.0698461,-0.0223116,0.0386734,-0.0065493,-0.00175929,1.11581,-0.373081,1.09857,0.370225,3.36856,-1.72254,-0.00634351,4.45642,-0.190107,4.42489,-1.85024,0.117835,0.0957947,-0.0130598,0.216853,0.062459,0.266988,-2.01499,0.0650917,0.530264,-0.0313219,0.193877,-0.0348185,0.13081,-0.0776828,0.0344347,-0.00256335,0.00196364,0,0,0,0,0,0,0,-2.57916,-33.5463,-1.08611,25.7568,-0.255741,3.76916,-0.0566557,
0.221602,0.0620939,0.271642,-2.01621,0.0681638,0.529032,-0.0314383,0.0705942,-0.00250143,0.0696228,-0.0215461,0.0415721,-0.00798084,-0.00172673,-0.157251,-0.213775,-0.139519,0.478456,1.81168,-0.894708,0.0203484,4.28562,-0.209546,4.24435,-1.77815,0.114174,0.0984008,-0.012677,0.222094,0.0632627,0.272271,-2.01661,0.0662058,0.530078,-0.0313242,0.143133,0.0592927,0.156378,-0.0227696,0.023714,0.000158465,-0.000170902,-6.34302,11.7639,3.19593,6.86415,-1.34009,0.340226,-0.266818,-1.74603,-37.216,-0.487047,26.2289,0.502316,3.09258,-0.0227812,
0.222104,0.0620671,0.272139,-2.01635,0.0685379,0.528944,-0.0314498,0.0690117,-0.00266962,0.0681033,-0.0206826,0.04261,-0.00857065,-0.00166951,-0.989071,-0.105121,-0.949695,0.539689,0.648705,-0.368633,0.0357637,4.15128,-0.188269,4.1162,-1.71065,0.117346,0.0923555,-0.01221,0.222094,0.0632627,0.272271,-2.01661,0.0662058,0.530078,-0.0313242,0.143133,0.0592927,0.156378,-0.0227696,0.023714,0.000158465,-0.000170902,0,0,0,0,0,0,0,-1.74603,-37.216,-0.487047,26.2289,0.502316,3.09258,-0.0227812,
0.222559,0.0620438,0.27259,-2.01648,0.0688687,0.528872,-0.0314604,0.0665965,-0.00271826,0.0657717,-0.019769,0.0423572,-0.00866276,-0.0015996,-1.5095,-0.0303987,-1.45725,0.570982,-0.158015,-0.057571,0.0436895,4.0175,-0.166798,3.98859,-1.64325,0.120458,0.0859481,-0.011766,0.222094,0.0632627,0.272271,-2.01661,0.0662058,0.530078,-0.0313242,0.143133,0.0592927,0.156378,-0.0227696,0.023714,0.000158465,-0.000170902,0,0,0,0,0,0,0,-1.74603,-37.216,-0.487047,26.2289,0.502316,3.09258,-0.0227812,
0.22581,0.0639752,0.275903,-2.01774,0.068842,0.529284,-0.0314247,0.0669562,-0.000753089,0.0660625,-0.0202874,0.0452089,-0.0118259,-0.00158436,0.224785,1.22823,0.181739,-0.323963,1.78227,-1.97696,0.00952872,3.88435,-0.145241,3.86154,-1.57585,0.122898,0.077787,-0.0112767,0.222094,0.0632627,0.272271,-2.01661,0.0662058,0.530078,-0.0313242,0.143133,0.0592927,0.156378,-0.0227696,0.023714,0.000158465,-0.000170902,0,0,0,0,0,0,0,-1.74603,-37.216,-0.487047,26.2289,0.502316,3.09258,-0.0227812,
0.226297,0.0640151,0.276382,-2.0179,0.0692422,0.529102,-0.0314354,0.0657249,0.000394983,0.0648267,-0.0202183,0.0461725,-0.0140218,-0.00153631,-0.769518,0.717545,-0.772403,0.0432043,0.602255,-1.37247,0.0300282,3.78068,-0.210159,3.75348,-1.48844,0.127157,0.074336,-0.0108388,0.226708,0.0633134,0.277358,-2.01851,0.0672509,0.530009,-0.0313249,0.0911885,-0.0420998,0.186022,-0.0777236,0.0240545,0.000867823,9.89656e-06,-6.49309,-12.6741,3.70554,-6.86925,0.0425635,0.0886697,0.0225998,-1.15887,-34.8952,0.0128308,26.106,0.886837,3.15209,-0.0163725,
0.226733,0.0640434,0.276813,-2.01805,0.0695989,0.528934,-0.0314451,0.063491,0.00102276,0.0626293,-0.0197477,0.0458563,-0.0154188,-0.00147062,-1.39619,0.39236,-1.37335,0.294092,-0.197594,-0.873099,0.0410558,3.64904,-0.188334,3.62786,-1.42123,0.130327,0.063543,-0.0103352,0.226708,0.0633134,0.277358,-2.01851,0.0672509,0.530009,-0.0313249,0.0911885,-0.0420998,0.186022,-0.0777236,0.0240545,0.000867823,9.89656e-06,0,0,0,0,0,0,0,-1.15887,-34.8952,0.0128308,26.106,0.886837,3.15209,-0.0163725,
0.230172,0.0629208,0.280766,-2.01932,0.0696854,0.528719,-0.0314092,0.0633966,-0.000133872,0.0625524,-0.0184497,0.0484739,-0.017043,-0.00145161,-0.0589923,-0.722894,-0.0480672,0.81127,1.63601,-1.01511,0.0118814,3.38867,-0.144228,3.37944,-1.28731,0.140783,0.0376964,-0.00934061,0.226708,0.0633134,0.277358,-2.01851,0.0672509,0.530009,-0.0313249,0.0911885,-0.0420998,0.186022,-0.0777236,0.0240545,0.000867823,9.89656e-06,0,0,0,0,0,0,0,-1.15887,-34.8952,0.0128308,26.106,0.886837,3.15209,-0.0163725,
0.230617,0.0628898,0.281206,-2.01941,0.0701231,0.52855,-0.0314188,0.061822,-0.00088162,0.0610368,-0.0171413,0.0497218,-0.0178653,-0.00140111,-0.984158,-0.467343,-0.947276,0.817714,0.779889,-0.513929,0.0315665,3.26026,-0.12194,3.25698,-1.22064,0.149239,0.0222112,-0.00885939,0.226708,0.0633134,0.277358,-2.01851,0.0672509,0.530009,-0.0313249,0.0911885,-0.0420998,0.186022,-0.0777236,0.0240545,0.000867823,9.89656e-06,0,0,0,0,0,0,0,-1.15887,-34.8952,0.0128308,26.106,0.886837,3.15209,-0.0163725,
0.231011,0.0628641,0.281598,-2.0195,0.0705351,0.528389,-0.0314274,0.0593248,-0.00134669,0.0586229,-0.0158603,0.0500772,-0.018309,-0.00133467,-1.56076,-0.290667,-1.5087,0.800625,0.222174,-0.277305,0.0415244,3.10566,-0.131237,3.09809,-1.15641,0.154091,0.00632962,-0.00835935,0.231899,0.0638588,0.280563,-2.02011,0.0677711,0.529927,-0.0313234,0.117563,0.0532998,0.108407,-0.0247352,0.00812433,0.000464086,0.000198634,3.29683,11.9249,-9.70183,6.62355,-1.99127,-0.0504671,0.0235922,-1.08349,-35.6688,0.338148,26.1575,1.40594,2.90673,-0.0301054,
0.231365,0.0628426,0.281949,-2.01958,0.0709329,0.528229,-0.0314352,0.0562928,-0.00161468,0.0556874,-0.0146251,0.0500075,-0.0186657,-0.0012627,-1.895,-0.167494,-1.83466,0.772015,-0.0435902,-0.222935,0.0449816,2.98037,-0.108657,2.9787,-1.09015,0.169314,-0.0138569,-0.0078825,0.231899,0.0638588,0.280563,-2.02011,0.0677711,0.529927,-0.0313234,0.117563,0.0532998,0.108407,-0.0247352,0.00812433,0.000464086,0.000198634,0,0,0,0,0,0,0,-1.08349,-35.6688,0.338148,26.1575,1.40594,2.90673,-0.0301054,
0.234656,0.0645795,0.283257,-2.021,0.0700925,0.528738,-0.0313992,0.0549975,0.000316088,0.0543703,-0.0149097,0.0520802,-0.0224065,-0.00123282,-0.809515,1.20673,-0.82319,-0.177846,1.29543,-2.338,0.0186758,2.85701,-0.085974,2.86123,-1.02405,0.188923,-0.0373468,-0.0073824,0.231899,0.0638588,0.280563,-2.02011,0.0677711,0.529927,-0.0313234,0.117563,0.0532998,0.108407,-0.0247352,0.00812433,0.000464086,0.000198634,0,0,0,0,0,0,0,-1.08349,-35.6688,0.338148,26.1575,1.40594,2.90673,-0.0301054,
0.235006,0.064627,0.283604,-2.02111,0.0705761,0.528435,-0.0314071,0.0527728,0.00144103,0.0521702,-0.0146603,0.0537545,-0.0255006,-0.00118393,-1.39047,0.703091,-1.37502,0.155854,1.04647,-1.93381,0.0305539,2.73586,-0.0631419,2.74599,-0.958217,0.21484,-0.0633949,-0.00692438,0.231899,0.0638588,0.280563,-2.02011,0.0677711,0.529927,-0.0313234,0.117563,0.0532998,0.108407,-0.0247352,0.00812433,0.000464086,0.000198634,0,0,0,0,0,0,0,-1.08349,-35.6688,0.338148,26.1575,1.40594,2.90673,-0.0301054,
0.235318,0.0646628,0.283913,-2.02121,0.0710736,0.528127,-0.0314143,0.0500077,0.00204625,0.0494589,-0.0140496,0.0554421,-0.0281073,-0.00112789,-1.72817,0.378259,-1.69458,0.381685,1.05476,-1.62921,0.0350267,2.61724,-0.0402476,2.63328,-0.892512,0.247529,-0.0933476,-0.00645011,0.231899,0.0638588,0.280563,-2.02011,0.0677711,0.529927,-0.0313234,0.117563,0.0532998,0.108407,-0.0247352,0.00812433,0.000464086,0.000198634,0,0,0,0,0,0,0,-1.08349,-35.6688,0.338148,26.1575,1.40594,2.90673,-0.0301054,
0.235596,0.0646901,0.28419,-2.02128,0.0716009,0.527809,-0.0314212,0.0469662,0.00232068,0.0464887,-0.0132022,0.0575365,-0.0304253,-0.00107266,-1.90098,0.171517,-1.85639,0.529603,1.30898,-1.44876,0.03452,2.51595,-0.0777362,2.52794,-0.815143,0.288247,-0.123379,-0.00604234,0.235192,0.0640925,0.284514,-2.0214,0.0683308,0.52993,-0.0313272,0.0870408,-0.0281577,0.110326,-0.0500841,0.015081,0.00207717,0.000200826,-3.81529,-10.1822,0.239752,-3.16862,0.869587,0.201635,0.000273995,-1.11126,-35.5696,0.187391,26.5781,1.3446,2.82799,0.00376909,
0.237617,0.0638155,0.286903,-2.02184,0.0711268,0.528455,-0.0313918,0.046221,0.00115926,0.0457819,-0.0117477,0.0631141,-0.0323141,-0.00107385,-0.465729,-0.725885,-0.441767,0.909065,3.48601,-1.18052,-0.000744729,2.40335,-0.0548925,2.42139,-0.749653,0.339688,-0.161099,-0.0056071,0.235192,0.0640925,0.284514,-2.0214,0.0683308,0.52993,-0.0313272,0.0870408,-0.0281577,0.110326,-0.0500841,0.015081,0.00207717,0.000200826,0,0,0,0,0,0,0,-1.11126,-35.5696,0.187391,26.5781,1.3446,2.82799,0.00376909,
0.237919,0.063793,0.287204,-2.02188,0.0718631,0.528116,-0.0313996,0.0445113,0.000364072,0.044139,-0.0103625,0.0688984,-0.0343294,-0.00105519,-1.06859,-0.496992,-1.02679,0.865773,3.61514,-1.25956,0.0116595,2.29426,-0.0323,2.31845,-0.684235,0.403377,-0.202651,-0.0052316,0.235192,0.0640925,0.284514,-2.0214,0.0683308,0.52993,-0.0313272,0.0870408,-0.0281577,0.110326,-0.0500841,0.015081,0.00207717,0.000200826,0,0,0,0,0,0,0,-1.11126,-35.5696,0.187391,26.5781,1.3446,2.82799,0.00376909,
0.238183,0.0637745,0.287468,-2.02191,0.0726672,0.527749,-0.031407,0.0422145,-0.000170599,0.0419258,-0.00905614,0.0752208,-0.0366406,-0.00102886,-1.43549,-0.334169,-1.38326,0.816478,3.95154,-1.44444,0.0164568,2.18898,-0.010044,2.21944,-0.618506,0.480242,-0.249175,-0.00485354,0.235192,0.0640925,0.284514,-2.0214,0.0683308,0.52993,-0.0313272,0.0870408,-0.0281577,0.110326,-0.0500841,0.015081,0.00207717,0.000200826,0,0,0,0,0,0,0,-1.11126,-35.5696,0.187391,26.5781,1.3446,2.82799,0.00376909,
0.239538,0.0648391,0.290032,-2.02282,0.0727934,0.528029,-0.0313925,0.0402516,0.00084594,0.0399898,-0.00856623,0.0863108,-0.0422474,-0.00103173,-1.22677,0.635337,-1.20999,0.30619,6.93124,-3.50428,-0.00179421,1.98007,-0.002587,2.01424,-0.488625,0.678469,-0.354557,-0.0042464,0.23769,0.0643721,0.2882,-2.02236,0.0687274,0.529918,-0.0313261,-0.0016677,0.0356566,0.162925,-0.0185968,0.0133668,0.00300332,-0.00154595,-11.0886,7.97679,6.5749,3.93592,-0.214275,0.115768,-0.218347,0.0828892,-35.2205,0.988783,25.6815,1.65588,2.73461,0.0239107,
0.239762,0.064867,0.290256,-2.02286,0.073954,0.527465,-0.0314003,0.0378003,0.00137343,0.0375959,-0.00780423,0.0980622,-0.0478937,-0.00101969,-1.53209,0.329681,-1.49622,0.476254,7.3446,-3.52896,0.00752377,1.88694,0.0161778,1.92807,-0.420619,0.806714,-0.415155,-0.00400759,0.23769,0.0643721,0.2882,-2.02236,0.0687274,0.529918,-0.0313261,-0.0016677,0.0356566,0.162925,-0.0185968,0.0133668,0.00300332,-0.00154595,0,0,0,0,0,0,0,0.0828892,-35.2205,0.988783,25.6815,1.65588,2.73461,0.0239107,
0.239957,0.0648862,0.290452,-2.02289,0.0752412,0.526854,-0.0314076,0.0351025,0.00157796,0.0349723,-0.00687306,0.110631,-0.0535866,-0.00100003,-1.68612,0.127832,-1.6397,0.58198,7.85582,-3.55805,0.0122905,1.79747,0.0318258,1.84588,-0.351537,0.953707,-0.480505,-0.00379483,0.23769,0.0643721,0.2882,-2.02236,0.0687274,0.529918,-0.0313261,-0.0016677,0.0356566,0.162925,-0.0185968,0.0133668,0.00300332,-0.00154595,0,0,0,0,0,0,0,0.0828892,-35.2205,0.988783,25.6815,1.65588,2.73461,0.0239107,
