xiao-wang007/linearmpc_panda/paper_data/panda_inverse_dynamics_controller_Start_at_0_low_pass_acceleration/2/trajectory.csv
Commanded Joint 0 Position,Commanded Joint 1 Position,Commanded Joint 2 Position,Commanded Joint 3 Position,Commanded Joint 4 Position,Commanded Joint 5 Position,Commanded Joint 6 Position,Commanded Joint 0 Velocity,Commanded Joint 1 Velocity,Commanded Joint 2 Velocity,Commanded Joint 3 Velocity,Commanded Joint 4 Velocity,Commanded Joint 5 Velocity,Commanded Joint 6 Velocity,Commanded Joint 0 Acceleration,Commanded Joint 1 Acceleration,Commanded Joint 2 Acceleration,Commanded Joint 3 Acceleration,Commanded Joint 4 Acceleration,Commanded Joint 5 Acceleration,Commanded Joint 6 Acceleration,Commanded Joint 0 Torque,Commanded Joint 1 Torque,Commanded Joint 2 Torque,Commanded Joint 3 Torque,Commanded Joint 4 Torque,Commanded Joint 5 Torque,Commanded Joint 6 Torque,Actual Joint 0 Position,Actual Joint 1 Position,Actual Joint 2 Position,Actual Joint 3 Position,Actual Joint 4 Position,Actual Joint 5 Position,Actual Joint 6 Position,Actual Joint 0 Velocity,Actual Joint 1 Velocity,Actual Joint 2 Velocity,Actual Joint 3 Velocity,Actual Joint 4 Velocity,Actual Joint 5 Velocity,Actual Joint 6 Velocity,Actual Joint 0 Acceleration,Actual Joint 1 Acceleration,Actual Joint 2 Acceleration,Actual Joint 3 Acceleration,Actual Joint 4 Acceleration,Actual Joint 5 Acceleration,Actual Joint 6 Acceleration,Actual Joint 0 Torque,Actual Joint 1 Torque,Actual Joint 2 Torque,Actual Joint 3 Torque,Actual Joint 4 Torque,Actual Joint 5 Torque,Actual Joint 6 Torque,
-0.0364465,-0.0498259,0.058114,-1.79899,-0.00111868,0.209187,-0.00822097,0.000639312,0.020306,0.00078227,-0.0335996,-0.00491025,0.0528553,-0.000368048,0.39957,12.6913,0.488919,-20.9998,-3.0689,33.0345,-0.23003,0.0548236,22.7273,0.193231,-24.2938,-0.592653,1.9729,-0.0246676,-0.0364749,-0.0505906,0.0580814,-1.79618,-0.000828594,0.203513,-0.00816691,0.000271687,0.000202099,0.000122652,-8.67458e-06,-0.00182363,-0.000766524,0.000941962,0,0,0,0,0,0,0,-0.0718349,-33.6971,-0.288683,27.5262,0.727535,3.17864,-0.0566557,
-0.0364735,-0.0505853,0.0580825,-1.79618,-0.000843376,0.203512,-0.00816689,0.000516372,0.0162921,0.000627194,-0.0268883,-0.00398835,0.04232,-0.000295925,-0.0768377,-2.50866,-0.0969227,4.19457,0.576186,-6.58457,0.0450768,0.0490516,23.1696,0.182695,-24.2099,-0.592764,1.72243,-0.0231579,-0.0364752,-0.0505313,0.0580867,-1.79626,-0.000828594,0.203515,-0.00816927,3.87496e-05,0.000278501,0.00150457,-0.00139061,-0.00212688,8.15408e-05,0.000214725,-0.0291172,0.00955014,0.17274,-0.172742,-0.0379056,0.106008,-0.0909046,-0.0202602,-33.5463,-0.312487,27.4509,0.727535,3.16582,-0.0365141,
-0.0364734,-0.0505834,0.0580824,-1.79618,-0.00084466,0.203514,-0.00816694,0.000415191,0.0130822,0.000500059,-0.021516,-0.00322277,0.0339172,-0.000237881,-0.0632381,-2.0062,-0.0794596,3.35769,0.478485,-5.25175,0.0362773,0.0418355,23.7412,0.170951,-24.1019,-0.592108,1.37467,-0.0211915,-0.0364752,-0.0505313,0.0580867,-1.79626,-0.000828594,0.203515,-0.00816927,3.87496e-05,0.000278501,0.00150457,-0.00139061,-0.00212688,8.15408e-05,0.000214725,0,0,0,0,0,0,0,-0.0202602,-33.5463,-0.312487,27.4509,0.727535,3.16582,-0.0365141,
-0.0364734,-0.0505814,0.0580823,-1.79618,-0.000845307,0.203518,-0.00816698,0.000332791,0.0105146,0.000396754,-0.0172156,-0.0025944,0.027213,-0.000191257,-0.0515003,-1.60478,-0.0645654,2.68776,0.392735,-4.19011,0.0291399,0.0359072,24.2652,0.161535,-23.9341,-0.589966,0.989312,-0.0191916,-0.0364752,-0.0505313,0.0580867,-1.79626,-0.000828594,0.203515,-0.00816927,3.87496e-05,0.000278501,0.00150457,-0.00139061,-0.00212688,8.15408e-05,0.000214725,0,0,0,0,0,0,0,-0.0202602,-33.5463,-0.312487,27.4509,0.727535,3.16582,-0.0365141,
-0.0365926,-0.0505164,0.0579773,-1.7962,0.00163714,0.202513,-0.00819003,-0.00138845,0.00854305,-0.00128339,-0.0130457,0.0358099,0.00633257,-0.000341895,-1.07577,-1.23221,-1.05009,2.60616,24.0027,-13.0503,-0.0941487,0.461775,0.165221,0.456899,-0.236648,3.20008,-1.44598,-0.00116248,-0.0364752,-0.0505313,0.0580867,-1.79626,-0.000828594,0.203515,-0.00816927,3.87496e-05,0.000278501,0.00150457,-0.00139061,-0.00212688,8.15408e-05,0.000214725,0,0,0,0,0,0,0,-0.0202602,-33.5463,-0.312487,27.4509,0.727535,3.16582,-0.0365141,
-0.0366561,-0.0505149,0.0579141,-1.79618,0.00348365,0.201744,-0.00819393,-0.00269781,0.00686962,-0.00260723,-0.00988409,0.0748106,-0.0141524,-0.00037113,-0.81835,-1.04589,-0.8274,1.97604,24.3754,-12.8031,-0.0182719,0.456131,0.178189,0.450181,-0.230262,3.17275,-1.42796,-0.00118415,-0.0364758,-0.050095,0.0580811,-1.79671,-0.000813538,0.203571,-0.00817009,-0.000965613,0.0509836,-0.00115973,-0.0380267,-0.00304209,0.0186709,0.000221491,-0.125545,6.33814,-0.333038,-4.57951,-0.114402,2.32368,0.000845783,0.0313145,-25.1634,-0.16173,18.6078,0.562741,1.72021,-0.0566557,
-0.0367092,-0.0505153,0.0578604,-1.79616,0.00552473,0.200875,-0.00819587,-0.00348491,0.00548629,-0.00342837,-0.00754644,0.110875,-0.0330442,-0.000345364,-0.491943,-0.864577,-0.513217,1.46103,22.5405,-11.8074,0.0161039,0.451382,0.176126,0.445512,-0.228143,3.14501,-1.41523,-0.00116831,-0.0364758,-0.050095,0.0580811,-1.79671,-0.000813538,0.203571,-0.00817009,-0.000965613,0.0509836,-0.00115973,-0.0380267,-0.00304209,0.0186709,0.000221491,0,0,0,0,0,0,0,0.0313145,-25.1634,-0.16173,18.6078,0.562741,1.72021,-0.0566557,
-0.0367493,-0.0505159,0.0578192,-1.79616,0.00767974,0.199941,-0.0081968,-0.00379103,0.00437493,-0.00377085,-0.00584654,0.142576,-0.0498094,-0.000299608,-0.191324,-0.694603,-0.214046,1.06244,19.8126,-10.4782,0.0285972,0.44669,0.174442,0.440849,-0.225888,3.11715,-1.40245,-0.00114819,-0.0364758,-0.050095,0.0580811,-1.79671,-0.000813538,0.203571,-0.00817009,-0.000965613,0.0509836,-0.00115973,-0.0380267,-0.00304209,0.0186709,0.000221491,0,0,0,0,0,0,0,0.0313145,-25.1634,-0.16173,18.6078,0.562741,1.72021,-0.0566557,
-0.0367872,-0.0494455,0.0578007,-1.79663,0.00740569,0.197658,-0.0082327,-0.00716013,0.0103553,-0.00688047,-0.0032537,0.240888,-0.130973,-0.000797919,-2.10569,3.73772,-1.94352,1.62053,61.4454,-50.7272,-0.311444,3.99758,1.36442,4.03587,-1.78801,11.0073,-8.36325,-0.00123456,-0.0364758,-0.050095,0.0580811,-1.79671,-0.000813538,0.203571,-0.00817009,-0.000965613,0.0509836,-0.00115973,-0.0380267,-0.00304209,0.0186709,0.000221491,0,0,0,0,0,0,0,0.0313145,-25.1634,-0.16173,18.6078,0.562741,1.72021,-0.0566557,
-0.0369232,-0.0492485,0.0576698,-1.7966,0.0136584,0.193157,-0.00824333,-0.00912945,0.0132077,-0.0087782,-0.0020306,0.349029,-0.217304,-0.000904111,-1.23082,1.78274,-1.18608,0.764441,67.588,-53.9567,-0.0663696,3.87592,1.35666,3.92084,-1.75233,11.0071,-8.21778,-0.000867619,-0.0364515,-0.0495291,0.0581424,-1.79789,-0.000749305,0.203564,-0.00817292,-0.00337623,0.0183719,-0.00158921,-0.0335116,0.00080161,0.00273941,-0.00083136,-0.301328,-4.07647,-0.0536852,0.564382,0.480463,-1.99144,-0.131606,0.435978,-35.518,0.187391,26.8518,0.948178,2.86095,-0.0026396,
-0.037008,-0.0490996,0.0575871,-1.79662,0.0205934,0.188113,-0.00824723,-0.00942332,0.0142898,-0.00908892,-0.00200942,0.452597,-0.299939,-0.000820852,-0.18367,0.676352,-0.194199,0.0132372,64.7298,-51.6471,0.0520364,3.75419,1.32943,3.80161,-1.72291,11.0071,-8.07533,-0.00120996,-0.0364515,-0.0495291,0.0581424,-1.79789,-0.000749305,0.203564,-0.00817292,-0.00337623,0.0183719,-0.00158921,-0.0335116,0.00080161,0.00273941,-0.00083136,0,0,0,0,0,0,0,0.435978,-35.518,0.187391,26.8518,0.948178,2.86095,-0.0026396,
-0.0370349,-0.0489778,0.0575609,-1.79667,0.0278882,0.182733,-0.00824775,-0.00821037,0.0144773,-0.00792687,-0.00280704,0.544447,-0.374459,-0.000669699,0.758094,0.117168,0.726284,-0.498516,57.4066,-46.575,0.0944709,3.63935,1.2989,3.68639,-1.69432,10.8298,-7.93882,-0.00184111,-0.0364515,-0.0495291,0.0581424,-1.79789,-0.000749305,0.203564,-0.00817292,-0.00337623,0.0183719,-0.00158921,-0.0335116,0.00080161,0.00273941,-0.00083136,0,0,0,0,0,0,0,0.435978,-35.518,0.187391,26.8518,0.948178,2.86095,-0.0026396,
-0.0356455,-0.0492568,0.0590217,-1.79797,0.00565081,0.193945,-0.00801752,0.00663743,0.0145153,0.00790852,-0.00361221,0.536647,-0.448792,0.00113763,9.27988,0.0237325,9.89712,-0.503228,-4.87521,-46.4583,1.12958,24.8531,3.92758,25.4576,-10.6895,11.0071,-14.246,0.116809,-0.0364515,-0.0495291,0.0581424,-1.79789,-0.000749305,0.203564,-0.00817292,-0.00337623,0.0183719,-0.00158921,-0.0335116,0.00080161,0.00273941,-0.00083136,0,0,0,0,0,0,0,0.435978,-35.518,0.187391,26.8518,0.948178,2.86095,-0.0026396,
-0.0349074,-0.0491772,0.0598013,-1.79811,0.0108959,0.186422,-0.00794312,0.0237623,0.0136007,0.0258187,-0.00628813,0.560446,-0.54712,0.00277017,10.703,-0.571624,11.1939,-1.67245,14.8743,-61.4546,1.02034,23.3116,4.07606,24.0169,-9.25734,10.9862,-14.2271,0.0798784,-0.0363787,-0.0487818,0.0584577,-1.79864,0.0032816,0.200558,-0.00816749,0.00707944,0.0321486,0.0229628,-0.0478279,0.26521,-0.224386,-0.000424516,1.30696,1.72209,3.069,-1.78954,33.051,-28.3907,0.0508555,3.02265,-31.2532,2.73836,23.3646,2.02301,1.15624,-0.00996382,
-0.0339965,-0.0491878,0.0607437,-1.7984,0.0170109,0.177872,-0.00777508,0.0417822,0.010617,0.0442138,-0.0123383,0.601231,-0.651423,0.0064172,11.2624,-1.86478,11.4969,-3.78136,25.4907,-65.1895,2.27939,22.3544,3.15549,23.0279,-8.18325,10.9862,-14.2271,0.0874731,-0.0363787,-0.0487818,0.0584577,-1.79864,0.0032816,0.200558,-0.00816749,0.00707944,0.0321486,0.0229628,-0.0478279,0.26521,-0.224386,-0.000424516,0,0,0,0,0,0,0,3.02265,-31.2532,2.73836,23.3646,2.02301,1.15624,-0.00996382,
-0.0347344,-0.0483678,0.0601032,-1.7998,0.011235,0.189523,-0.00792812,0.0583952,0.0136697,0.0605654,-0.0259363,0.594784,-0.682929,0.00739881,10.3832,1.90794,10.2197,-8.49872,-4.02942,-19.6916,0.613505,34.5129,7.28794,34.8197,-18.8101,10.9862,-14.2271,0.161637,-0.0363787,-0.0487818,0.0584577,-1.79864,0.0032816,0.200558,-0.00816749,0.00707944,0.0321486,0.0229628,-0.0478279,0.26521,-0.224386,-0.000424516,0,0,0,0,0,0,0,3.02265,-31.2532,2.73836,23.3646,2.02301,1.15624,-0.00996382,
-0.0334865,-0.0481761,0.0613792,-1.80059,0.0167406,0.181753,-0.00778843,0.0779134,0.015729,0.080351,-0.04068,0.613467,-0.740601,0.00941118,12.1989,1.28707,12.366,-9.21482,11.6769,-36.0447,1.25773,31.7346,7.36602,32.1418,-17.5256,10.9862,-14.2271,0.0898802,-0.0363787,-0.0487818,0.0584577,-1.79864,0.0032816,0.200558,-0.00816749,0.00707944,0.0321486,0.0229628,-0.0478279,0.26521,-0.224386,-0.000424516,0,0,0,0,0,0,0,3.02265,-31.2532,2.73836,23.3646,2.02301,1.15624,-0.00996382,
-0.0320817,-0.0480684,0.062816,-1.80163,0.0230638,0.173138,-0.00764524,0.0974508,0.0152752,0.1002,-0.0584439,0.648854,-0.807849,0.0111088,12.2108,-0.283612,12.4059,-11.1025,22.1171,-42.0297,1.06103,29.8062,6.1633,30.3713,-17.2067,10.8998,-14.1153,0.16339,-0.0354709,-0.0486578,0.0607465,-1.80098,0.0232867,0.182939,-0.00816725,0.0579042,-0.0157717,0.12774,-0.113389,0.680729,-0.688075,-0.0016857,6.35309,-5.99004,13.0972,-8.19514,51.9398,-57.9612,-0.157649,17.4279,-32.0982,17.1594,23.7891,4.90509,-0.242685,0.00376909,
-0.0305972,-0.0479846,0.0643244,-1.80279,0.0300715,0.163865,-0.0075872,0.115073,0.0143154,0.117871,-0.0758609,0.694276,-0.878106,0.0103379,11.014,-0.599914,11.0442,-10.8857,28.3886,-43.9108,-0.481864,27.1895,3.35907,27.7131,-18.4912,10.8998,-14.1153,0.173489,-0.0354709,-0.0486578,0.0607465,-1.80098,0.0232867,0.182939,-0.00816725,0.0579042,-0.0157717,0.12774,-0.113389,0.680729,-0.688075,-0.0016857,0,0,0,0,0,0,0,17.4279,-32.0982,17.1594,23.7891,4.90509,-0.242685,0.00376909,
-0.0326579,-0.0488959,0.063615,-1.80366,0.0350247,0.168093,-0.00793495,0.131241,0.00886651,0.134153,-0.0965948,0.708119,-0.901469,0.0111635,10.1046,-3.40555,10.1763,-12.9587,8.65171,-14.6019,0.51601,37.8711,5.51951,38.6071,-26.704,10.8998,-14.1153,0.106194,-0.0354709,-0.0486578,0.0607465,-1.80098,0.0232867,0.182939,-0.00816725,0.0579042,-0.0157717,0.12774,-0.113389,0.680729,-0.688075,-0.0016857,0,0,0,0,0,0,0,17.4279,-32.0982,17.1594,23.7891,4.90509,-0.242685,0.00376909,
-0.0309173,-0.0490266,0.0653882,-1.80532,0.0417139,0.159393,-0.00784213,0.148508,0.0038245,0.151651,-0.118793,0.733725,-0.938662,0.0112512,10.792,-3.15125,10.9363,-13.874,16.0036,-23.2458,0.0548097,34.6472,4.34856,35.2644,-26.0253,10.8998,-14.1153,0.119341,-0.0354709,-0.0486578,0.0607465,-1.80098,0.0232867,0.182939,-0.00816725,0.0579042,-0.0157717,0.12774,-0.113389,0.680729,-0.688075,-0.0016857,0,0,0,0,0,0,0,17.4279,-32.0982,17.1594,23.7891,4.90509,-0.242685,0.00376909,
-0.0291083,-0.0491457,0.067235,-1.8071,0.048969,0.1501,-0.00784672,0.164029,8.17526e-05,0.167493,-0.139526,0.768358,-0.983274,0.00888621,9.70075,-2.33922,9.90107,-12.958,21.646,-27.8826,-1.4781,31.3214,2.15835,31.8898,-26.6815,10.9232,-13.8064,0.104329,-0.0312901,-0.0487824,0.0686524,-1.80695,0.048032,0.152379,-0.00816733,0.186252,-0.0243093,0.322234,-0.234523,0.783593,-1.0124,-0.000749514,16.0435,-1.0672,24.3117,-15.1417,12.8581,-40.5402,0.117024,19.5305,-27.4843,19.3097,20.1511,4.34936,-0.805734,-0.00996382,
-0.0272785,-0.0492237,0.0691001,-1.80892,0.0566811,0.14034,-0.00789882,0.176968,-0.00188518,0.180621,-0.157213,0.807488,-1.0306,0.0058064,8.08691,-1.22933,8.2051,-11.0546,24.4561,-29.5755,-1.92488,27.681,1.64432,28.2204,-26.4342,10.9232,-13.8064,-0.0119399,-0.0312901,-0.0487824,0.0686524,-1.80695,0.048032,0.152379,-0.00816733,0.186252,-0.0243093,0.322234,-0.234523,0.783593,-1.0124,-0.000749514,0,0,0,0,0,0,0,19.5305,-27.4843,19.3097,20.1511,4.34936,-0.805734,-0.00996382,
-0.0267888,-0.0488376,0.0732652,-1.8112,0.0620971,0.134429,-0.00807661,0.198788,-0.00169187,0.202964,-0.181326,0.828905,-1.05449,0.0052664,13.6373,0.120819,13.9641,-15.0706,13.3859,-14.9334,-0.337499,37.7528,7.57304,38.5539,-32.7631,10.9232,-13.8064,0.069311,-0.0312901,-0.0487824,0.0686524,-1.80695,0.048032,0.152379,-0.00816733,0.186252,-0.0243093,0.322234,-0.234523,0.783593,-1.0124,-0.000749514,0,0,0,0,0,0,0,19.5305,-27.4843,19.3097,20.1511,4.34936,-0.805734,-0.00996382,
-0.0245191,-0.048799,0.0755842,-1.81352,0.0699341,0.124831,-0.00815561,0.215774,-0.000390537,0.220346,-0.203273,0.859048,-1.08353,0.00223816,10.6167,0.813332,10.8637,-13.7168,18.839,-18.1518,-1.89265,33.4842,5.04406,34.1723,-33.2746,10.9232,-13.8064,0.0278419,-0.0312901,-0.0487824,0.0686524,-1.80695,0.048032,0.152379,-0.00816733,0.186252,-0.0243093,0.322234,-0.234523,0.783593,-1.0124,-0.000749514,0,0,0,0,0,0,0,19.5305,-27.4843,19.3097,20.1511,4.34936,-0.805734,-0.00996382,
-0.022305,-0.0487091,0.0778474,-1.8159,0.0781657,0.114932,-0.00828336,0.22797,0.00193622,0.232856,-0.221961,0.893029,-1.1143,-0.00140308,7.62239,1.45422,7.81891,-11.6802,21.2382,-19.2304,-2.27578,29.4036,4.25883,29.9963,-32.9196,10.9232,-13.8064,-0.0970082,-0.0312901,-0.0487824,0.0686524,-1.80695,0.048032,0.152379,-0.00816733,0.186252,-0.0243093,0.322234,-0.234523,0.783593,-1.0124,-0.000749514,0,0,0,0,0,0,0,19.5305,-27.4843,19.3097,20.1511,4.34936,-0.805734,-0.00996382,
-0.0194847,-0.0497378,0.0858238,-1.82307,0.0884551,0.0963174,-0.00840106,0.242529,0.00203027,0.247869,-0.250277,0.906041,-1.11737,-0.00520851,9.09917,0.0587804,9.38279,-17.6972,8.13251,-1.91576,-2.37839,32.4436,4.2763,33.1364,-38.106,10.9333,-11.856,-0.0768287,-0.024394,-0.0497171,0.0807827,-1.81733,0.0739254,0.114449,-0.0081698,0.249501,-0.017444,0.399611,-0.339516,0.721657,-1.141,-0.000497496,7.90619,0.858166,9.67219,-13.1241,-7.74206,-16.0748,0.0315023,7.46204,-28.3571,7.31264,17.0129,3.39721,-1.4759,-0.0163725,
-0.0171891,-0.0496717,0.0881737,-1.826,0.0966445,0.0873756,-0.00860359,0.251414,0.00327659,0.257043,-0.273524,0.929568,-1.11744,-0.00923011,5.55352,0.778955,5.73377,-14.5293,14.7041,-0.0451435,-2.5135,28.4651,3.21921,29.0725,-37.7319,10.9333,-11.4994,-0.194412,-0.024394,-0.0497171,0.0807827,-1.81733,0.0739254,0.114449,-0.0081698,0.249501,-0.017444,0.399611,-0.339516,0.721657,-1.141,-0.000497496,0,0,0,0,0,0,0,7.46204,-28.3571,7.31264,17.0129,3.39721,-1.4759,-0.0163725,
-0.0149973,-0.0495828,0.0904172,-1.82896,0.105159,0.0787431,-0.00881041,0.255926,0.00484312,0.261721,-0.292848,0.956524,-1.10976,-0.0125547,2.81986,0.97908,2.92393,-12.0773,16.8477,4.79806,-2.07785,25.9426,2.68904,26.5071,-37.0326,10.9333,-11.0937,-0.241474,-0.024394,-0.0497171,0.0807827,-1.81733,0.0739254,0.114449,-0.0081698,0.249501,-0.017444,0.399611,-0.339516,0.721657,-1.141,-0.000497496,0,0,0,0,0,0,0,7.46204,-28.3571,7.31264,17.0129,3.39721,-1.4759,-0.0163725,
-0.0128971,-0.0494949,0.0925668,-1.83201,0.113867,0.0710522,-0.00900624,0.257246,0.00607103,0.263118,-0.310527,0.982906,-1.08008,-0.0149395,0.824547,0.767441,0.873273,-11.0498,16.4888,18.5497,-1.4905,24.2232,2.07606,24.7585,-36.4075,10.9333,-10.1092,-0.247043,-0.024394,-0.0497171,0.0807827,-1.81733,0.0739254,0.114449,-0.0081698,0.249501,-0.017444,0.399611,-0.339516,0.721657,-1.141,-0.000497496,0,0,0,0,0,0,0,7.46204,-28.3571,7.31264,17.0129,3.39721,-1.4759,-0.0163725,
-0.0096729,-0.0494881,0.102178,-1.8382,0.111895,0.0636145,-0.00879254,0.272624,0.00795623,0.278891,-0.343621,0.993196,-1.03302,-0.0199095,9.61177,1.17825,9.85825,-20.6836,6.43152,29.4161,-3.10624,26.2662,2.66072,26.7832,-43.7373,10.999,-5.52065,-0.34537,-0.0153035,-0.0496756,0.0963937,-1.83055,0.0962665,0.078223,-0.0081771,0.317107,0.000811989,0.529904,-0.461205,0.711218,-1.17819,-0.00258006,8.45073,2.282,16.2866,-15.2111,-1.30485,-4.64929,-0.26032,2.03479,-29.1545,2.03615,18.4848,2.25464,-0.899118,0.0779268,
-0.00722632,-0.0493392,0.104681,-1.84196,0.120646,0.0578568,-0.00909653,0.279264,0.010089,0.285682,-0.368917,1.01334,-0.970355,-0.0235275,4.14981,1.33296,4.24416,-15.81,12.5889,39.1627,-2.26127,24.1677,1.91766,24.6616,-43.0779,10.999,-4.9768,-0.369418,-0.0153035,-0.0496756,0.0963937,-1.83055,0.0962665,0.078223,-0.0081771,0.317107,0.000811989,0.529904,-0.461205,0.711218,-1.17819,-0.00258006,0,0,0,0,0,0,0,2.03479,-29.1545,2.03615,18.4848,2.25464,-0.899118,0.0779268,
-0.00495525,-0.0491981,0.107004,-1.84573,0.129621,0.053507,-0.00937474,0.280188,0.0115987,0.286612,-0.389459,1.03505,-0.885028,-0.0257771,0.577455,0.943561,0.581402,-12.8389,13.569,53.3292,-1.406,22.7537,1.25441,23.2307,-42.4388,10.999,-3.95182,-0.357055,-0.0153035,-0.0496756,0.0963937,-1.83055,0.0962665,0.078223,-0.0081771,0.317107,0.000811989,0.529904,-0.461205,0.711218,-1.17819,-0.00258006,0,0,0,0,0,0,0,2.03479,-29.1545,2.03615,18.4848,2.25464,-0.899118,0.0779268,
-0.00282447,-0.0490727,0.109183,-1.8495,0.138667,0.0506793,-0.0096281,0.27742,0.0124128,0.283765,-0.405883,1.05419,-0.778716,-0.0269558,-1.73007,0.508867,-1.77934,-10.2651,11.965,66.4449,-0.736718,21.6519,0.696712,22.1172,-41.786,10.999,-1.23697,-0.330276,-0.0153035,-0.0496756,0.0963937,-1.83055,0.0962665,0.078223,-0.0081771,0.317107,0.000811989,0.529904,-0.461205,0.711218,-1.17819,-0.00258006,0,0,0,0,0,0,0,2.03479,-29.1545,2.03615,18.4848,2.25464,-0.899118,0.0779268,
0.00203789,-0.0478499,0.122494,-1.85818,0.138948,0.0243179,-0.00879441,0.290683,0.022616,0.297484,-0.426036,1.05519,-0.776484,-0.0294153,8.28974,6.37696,8.57425,-12.5953,0.626056,1.3952,-1.53719,24.1651,1.71339,24.69,-42.7492,10.9224,-4.60002,-0.372227,-0.00379974,-0.048922,0.116482,-1.84989,0.122801,0.0376082,-0.00816178,0.318563,0.0638977,0.583543,-0.576788,0.779276,-0.999426,0.00189447,0.182021,7.88571,6.70485,-14.4479,8.5072,22.3454,0.559316,7.20813,-27.9088,6.36049,21.8967,2.43225,1.07018,-0.0566557,
0.00452828,-0.0474318,0.125045,-1.86216,0.147815,0.0196516,-0.00908017,0.294806,0.0285455,0.301755,-0.440529,1.06583,-0.737845,-0.0306764,2.57691,3.70592,2.66922,-9.05796,6.64641,24.1493,-0.788147,22.7511,1.05014,23.2591,-42.1101,10.9224,-3.57504,-0.359864,-0.00379974,-0.048922,0.116482,-1.84989,0.122801,0.0376082,-0.00816178,0.318563,0.0638977,0.583543,-0.576788,0.779276,-0.999426,0.00189447,0,0,0,0,0,0,0,7.20813,-27.9088,6.36049,21.8967,2.43225,1.07018,-0.0566557,
0.00682023,-0.0470979,0.127391,-1.8661,0.156833,0.0165844,-0.00933908,0.293144,0.0311836,0.300065,-0.450743,1.07811,-0.666956,-0.0310139,-1.03914,1.64883,-1.0559,-6.38424,7.67351,44.3059,-0.21095,21.6493,0.49244,22.1456,-41.4573,10.9224,-0.860188,-0.333085,-0.00379974,-0.048922,0.116482,-1.84989,0.122801,0.0376082,-0.00816178,0.318563,0.0638977,0.583543,-0.576788,0.779276,-0.999426,0.00189447,0,0,0,0,0,0,0,7.20813,-27.9088,6.36049,21.8967,2.43225,1.07018,-0.0566557,
0.00203789,-0.0478499,0.122494,-1.85818,0.138948,0.0243179,-0.00879441,0.303263,0.0376326,0.310524,-0.461924,1.07433,-0.687076,-0.0326618,6.32424,4.03062,6.53673,-6.98782,-2.36314,-12.5749,-1.02994,22.7511,1.05014,23.2591,-42.1101,10.9224,-3.57504,-0.359864,-0.00379974,-0.048922,0.116482,-1.84989,0.122801,0.0376082,-0.00816178,0.318563,0.0638977,0.583543,-0.576788,0.779276,-0.999426,0.00189447,0,0,0,0,0,0,0,7.20813,-27.9088,6.36049,21.8967,2.43225,1.07018,-0.0566557,
0.00442121,-0.0474931,0.124938,-1.86231,0.147949,0.0218975,-0.00902897,0.303836,0.0400908,0.311137,-0.470501,1.08201,-0.638186,-0.0327209,0.358489,1.53636,0.383289,-5.36068,4.80033,30.5559,-0.0369434,21.4369,-0.166315,21.9487,-41.036,10.6804,-0.667844,-0.336297,0.00602455,-0.046748,0.134096,-1.86998,0.147328,0.0148153,-0.00820279,0.278607,0.127276,0.542569,-0.587824,0.826076,-0.442684,-0.0268895,-4.99458,7.92229,-5.1217,-1.37944,5.85011,69.5928,-3.59799,3.83594,-24.8381,2.98829,18.7585,1.49109,1.19652,0.467026,
0.00666906,-0.0471719,0.127239,-1.86626,0.156984,0.02002,-0.00926488,0.299265,0.0401024,0.306447,-0.475114,1.09148,-0.557486,-0.0320744,-2.85688,0.00728945,-2.93156,-2.88324,5.92039,50.4379,0.404078,20.5204,-0.769508,21.0171,-40.5164,10.6804,1.58181,-0.308796,0.00602455,-0.046748,0.134096,-1.86998,0.147328,0.0148153,-0.00820279,0.278607,0.127276,0.542569,-0.587824,0.826076,-0.442684,-0.0268895,0,0,0,0,0,0,0,3.83594,-24.8381,2.98829,18.7585,1.49109,1.19652,0.467026,
0.00875825,-0.0469208,0.129378,-1.87011,0.166023,0.0196659,-0.00947585,0.291642,0.0383581,0.298619,-0.476376,1.09916,-0.454842,-0.0309338,-4.76459,-1.0902,-4.8928,-0.788808,4.8008,64.1523,0.712886,19.7415,-1.29047,20.221,-40.058,10.6804,3.39798,-0.279668,0.00602455,-0.046748,0.134096,-1.86998,0.147328,0.0148153,-0.00820279,0.278607,0.127276,0.542569,-0.587824,0.826076,-0.442684,-0.0268895,0,0,0,0,0,0,0,3.83594,-24.8381,2.98829,18.7585,1.49109,1.19652,0.467026,
0.0113177,-0.0451646,0.139556,-1.87831,0.163404,0.00942767,-0.00877057,0.29569,0.04801,0.302909,-0.48318,1.08815,-0.418373,-0.0315163,2.53034,6.0324,2.68172,-4.25241,-6.88369,22.7929,-0.364072,21.4369,-0.166315,21.9487,-41.036,10.6804,-0.667844,-0.336297,0.00602455,-0.046748,0.134096,-1.86998,0.147328,0.0148153,-0.00820279,0.278607,0.127276,0.542569,-0.587824,0.826076,-0.442684,-0.0268895,0,0,0,0,0,0,0,3.83594,-24.8381,2.98829,18.7585,1.49109,1.19652,0.467026,
0.0135822,-0.0446442,0.141878,-1.88228,0.172055,0.00847915,-0.00901131,0.293164,0.0514177,0.30036,-0.485751,1.08677,-0.358412,-0.0312316,-1.57917,2.12987,-1.59309,-1.60707,-0.86088,37.476,0.177942,20.4341,-1.2412,20.9421,-40.3996,10.4507,1.6781,-0.310387,0.0146942,-0.043969,0.15051,-1.89022,0.179849,0.0011232,-0.00811434,0.218538,0.133564,0.443117,-0.543943,1.00423,-0.239302,0.00211464,-7.50856,0.785994,-12.4316,5.48507,22.269,25.4227,3.62551,-3.21392,-34.919,-3.96239,31.1642,1.42425,3.78197,-0.0969389,
0.015672,-0.0442616,0.144019,-1.88614,0.180813,0.00877543,-0.00922537,0.286777,0.0506983,0.293811,-0.48511,1.08837,-0.279322,-0.0303367,-3.99181,-0.449648,-4.0932,0.400609,1.00271,49.4308,0.559282,19.6551,-1.76217,20.146,-39.9411,10.4507,3.49427,-0.281258,0.0146942,-0.043969,0.15051,-1.89022,0.179849,0.0011232,-0.00811434,0.218538,0.133564,0.443117,-0.543943,1.00423,-0.239302,0.00211464,0,0,0,0,0,0,0,-3.21392,-34.919,-3.96239,31.1642,1.42425,3.78197,-0.0969389,
0.0176248,-0.043986,0.146018,-1.88989,0.189578,0.0102279,-0.00941395,0.278242,0.0474499,0.285042,-0.481815,1.08983,-0.187147,-0.0289839,-5.33433,-2.03023,-5.48053,2.05959,0.909497,57.6098,0.845487,18.9806,-2.12658,19.4542,-39.4929,10.4507,4.96239,-0.253486,0.0146942,-0.043969,0.15051,-1.89022,0.179849,0.0011232,-0.00811434,0.218538,0.133564,0.443117,-0.543943,1.00423,-0.239302,0.00211464,0,0,0,0,0,0,0,-3.21392,-34.919,-3.96239,31.1642,1.42425,3.78197,-0.0969389,
0.0192068,-0.0425207,0.155162,-1.89827,0.196777,-0.000539947,-0.00860743,0.276692,0.0532947,0.283519,-0.484331,1.08569,-0.158254,-0.0291486,-0.968491,3.65298,-0.95199,-1.5723,-2.5851,18.0577,-0.102932,20.4341,-1.2412,20.9421,-40.3996,10.4507,1.6781,-0.310387,0.0146942,-0.043969,0.15051,-1.89022,0.179849,0.0011232,-0.00811434,0.218538,0.133564,0.443117,-0.543943,1.00423,-0.239302,0.00211464,0,0,0,0,0,0,0,-3.21392,-34.919,-3.96239,31.1642,1.42425,3.78197,-0.0969389,
0.0212213,-0.0420824,0.157226,-1.90211,0.205385,0.000203037,-0.00882034,0.271718,0.0535942,0.27843,-0.483551,1.08375,-0.108029,-0.0286418,-3.1089,0.187201,-3.18099,0.48711,-1.21408,31.3909,0.316784,19.547,-2.14661,20.0247,-39.8505,10.2291,3.47658,-0.281788,0.0213424,-0.0390549,0.163253,-1.90553,0.212446,0.000531534,-0.00811649,0.155802,0.203253,0.313796,-0.411344,0.922137,0.0775094,-0.00128123,-7.84209,8.71109,-16.165,16.5749,-10.2614,39.6015,-0.424484,-12.9258,-37.7397,-13.2855,40.8008,0.318295,5.73845,-0.0227812,
0.0231171,-0.0417766,0.159168,-1.90585,0.21398,0.00199535,-0.00900815,0.264769,0.0505195,0.271293,-0.480142,1.08188,-0.0416151,-0.0276086,-4.34291,-1.92168,-4.46032,2.13081,-1.16898,41.5085,0.64571,18.8725,-2.51102,19.3328,-39.4023,10.2291,4.9447,-0.254015,0.0213424,-0.0390549,0.163253,-1.90553,0.212446,0.000531534,-0.00811649,0.155802,0.203253,0.313796,-0.411344,0.922137,0.0775094,-0.00128123,0,0,0,0,0,0,0,-12.9258,-37.7397,-13.2855,40.8008,0.318295,5.73845,-0.0227812,
0.0247606,-0.0374216,0.166782,-1.91298,0.228091,0.004024,-0.00855449,0.253803,0.0566353,0.26016,-0.477665,1.06296,0.018705,-0.0273185,-6.85385,3.82237,-6.95801,1.54799,-11.8257,37.7001,0.181326,19.547,-2.14661,20.0247,-39.8505,10.2291,3.47658,-0.281788,0.0213424,-0.0390549,0.163253,-1.90553,0.212446,0.000531534,-0.00811649,0.155802,0.203253,0.313796,-0.411344,0.922137,0.0775094,-0.00128123,0,0,0,0,0,0,0,-12.9258,-37.7397,-13.2855,40.8008,0.318295,5.73845,-0.0227812,
0.0263904,-0.0369843,0.168454,-1.91666,0.23606,0.006798,-0.00873858,0.243787,0.0562398,0.249921,-0.473944,1.04961,0.084314,-0.026457,-6.2602,-0.247209,-6.39966,2.32598,-8.34505,41.0056,0.538429,18.8725,-2.51102,19.3328,-39.4023,10.2291,4.9447,-0.254015,0.0213424,-0.0390549,0.163253,-1.90553,0.212446,0.000531534,-0.00811649,0.155802,0.203253,0.313796,-0.411344,0.922137,0.0775094,-0.00128123,0,0,0,0,0,0,0,-12.9258,-37.7397,-13.2855,40.8008,0.318295,5.73845,-0.0227812,
0.0279778,-0.036692,0.170081,-1.92023,0.244067,0.0102641,-0.00890008,0.234714,0.0523006,0.240606,-0.468608,1.03986,0.154104,-0.0252033,-5.67053,-2.46202,-5.82172,3.33473,-6.08992,43.6189,0.783606,18.2646,-2.91337,18.6907,-38.9127,10.0827,6.04888,-0.224933,0.0263262,-0.0345418,0.172909,-1.91582,0.242254,0.00456061,-0.00811986,0.126938,0.172105,0.225574,-0.276694,0.809351,0.213508,0.000286738,-3.60798,-3.89347,-11.0278,16.8312,-14.0982,16.9999,0.195996,-9.73217,-35.9425,-9.73479,36.1948,0.397946,4.99596,0.00376909,
0.0295262,-0.0365014,0.171666,-1.92371,0.252095,0.0143644,-0.00903988,0.22648,0.0466058,0.232129,-0.461791,1.03258,0.225791,-0.0236574,-5.14619,-3.55923,-5.29835,4.26084,-4.55394,44.8041,0.966158,17.7359,-2.96344,18.1461,-38.4265,10.0827,6.91432,-0.198085,0.0263262,-0.0345418,0.172909,-1.91582,0.242254,0.00456061,-0.00811986,0.126938,0.172105,0.225574,-0.276694,0.809351,0.213508,0.000286738,0,0,0,0,0,0,0,-9.73217,-35.9425,-9.73479,36.1948,0.397946,4.99596,0.00376909,
0.0290628,-0.0336132,0.175732,-1.92248,0.256783,0.0112536,-0.00850667,0.215576,0.0453219,0.221035,-0.455054,1.01097,0.272259,-0.0234733,-6.81516,-0.802407,-6.93371,4.21032,-13.5022,29.0425,0.115064,18.8564,-2.71645,19.2995,-39.3774,10.0827,4.92467,-0.253412,0.0263262,-0.0345418,0.172909,-1.91582,0.242254,0.00456061,-0.00811986,0.126938,0.172105,0.225574,-0.276694,0.809351,0.213508,0.000286738,0,0,0,0,0,0,0,-9.73217,-35.9425,-9.73479,36.1948,0.397946,4.99596,0.00376909,
0.0304493,-0.0334326,0.177154,-1.9259,0.264327,0.0154437,-0.00866516,0.207121,0.040771,0.212378,-0.449505,0.997384,0.322558,-0.0227411,-5.28416,-2.8443,-5.41054,3.46843,-8.49287,31.4372,0.457649,18.2646,-2.91337,18.6907,-38.9127,10.0827,6.04888,-0.224933,0.0263262,-0.0345418,0.172909,-1.91582,0.242254,0.00456061,-0.00811986,0.126938,0.172105,0.225574,-0.276694,0.809351,0.213508,0.000286738,0,0,0,0,0,0,0,-9.73217,-35.9425,-9.73479,36.1948,0.397946,4.99596,0.00376909,
0.0318396,-0.0333356,0.178579,-1.92926,0.271973,0.0201127,-0.00880222,0.200455,0.0350428,0.205514,-0.443583,0.989063,0.374772,-0.0216193,-4.16649,-3.58018,-4.29002,3.70111,-5.20071,32.6335,0.701095,17.7359,-2.96344,18.1461,-38.4265,10.0827,6.91432,-0.198085,0.0263262,-0.0345418,0.172909,-1.91582,0.242254,0.00456061,-0.00811986,0.126938,0.172105,0.225574,-0.276694,0.809351,0.213508,0.000286738,0,0,0,0,0,0,0,-9.73217,-35.9425,-9.73479,36.1948,0.397946,4.99596,0.00376909,
0.0332264,-0.0332922,0.179999,-1.93254,0.279696,0.0252082,-0.00891975,0.195035,0.0291182,0.199906,-0.436988,0.984321,0.427205,-0.0202336,-3.38739,-3.70282,-3.50477,4.12207,-2.96343,32.7705,0.86607,17.2651,-2.94882,17.64,-37.9173,9.99087,7.49312,-0.170612,0.0301867,-0.0304642,0.17975,-1.92415,0.265202,0.0159977,-0.00811226,0.100439,0.0775413,0.186956,-0.242792,0.601354,0.463667,0.00111454,-3.31228,-11.8204,-4.8273,4.23785,-25.9996,31.2699,0.103475,-7.67712,-38.4142,-8.13597,39.7058,1.60736,5.81811,-0.0630644,
0.0324951,-0.0304401,0.182134,-1.93022,0.277781,0.0258683,-0.00845161,0.185417,0.0218401,0.190132,-0.428205,0.952339,0.470145,-0.0201512,-6.01113,-4.54881,-6.10859,5.48898,-19.9887,26.8377,0.0514873,18.2723,-2.96291,18.6783,-38.9106,9.99087,6.0224,-0.224178,0.0301867,-0.0304642,0.17975,-1.92415,0.265202,0.0159977,-0.00811226,0.100439,0.0775413,0.186956,-0.242792,0.601354,0.463667,0.00111454,0,0,0,0,0,0,0,-7.67712,-38.4142,-8.13597,39.7058,1.60736,5.81811,-0.0630644,
0.0337081,-0.0305375,0.183379,-1.93339,0.284758,0.0312929,-0.00858722,0.178659,0.0150358,0.183212,-0.42185,0.936291,0.51173,-0.0195112,-4.22407,-4.2527,-4.32512,3.97197,-10.03,25.9907,0.399984,17.7436,-3.01298,18.1337,-38.4243,9.99087,6.88784,-0.19733,0.0301867,-0.0304642,0.17975,-1.92415,0.265202,0.0159977,-0.00811226,0.100439,0.0775413,0.186956,-0.242792,0.601354,0.463667,0.00111454,0,0,0,0,0,0,0,-7.67712,-38.4142,-8.13597,39.7058,1.60736,5.81811,-0.0630644,
0.034949,-0.030645,0.18465,-1.93653,0.291995,0.0369775,-0.00870302,0.17395,0.00934275,0.17835,-0.416092,0.929971,0.551499,-0.018504,-2.94301,-3.55817,-3.0391,3.59862,-3.95042,24.8556,0.629516,17.2651,-2.94882,17.64,-37.9173,9.99087,7.49312,-0.170612,0.0301867,-0.0304642,0.17975,-1.92415,0.265202,0.0159977,-0.00811226,0.100439,0.0775413,0.186956,-0.242792,0.601354,0.463667,0.00111454,0,0,0,0,0,0,0,-7.67712,-38.4142,-8.13597,39.7058,1.60736,5.81811,-0.0630644,
0.0334453,-0.0286643,0.186607,-1.93766,0.290344,0.0539142,-0.00839124,0.157279,-0.00393144,0.161483,-0.403028,0.87724,0.611288,-0.0180871,-10.4195,-8.29637,-10.5418,8.16541,-32.957,37.3681,0.260591,17.7575,-2.93321,18.1336,-38.5717,9.94383,6.78249,-0.195657,0.0321352,-0.0277301,0.185235,-1.93231,0.280766,0.0403615,-0.00810691,0.0253947,-0.0253698,0.0939945,-0.197946,0.302082,0.768108,0.00140833,-9.38059,-12.8639,-11.6202,5.60575,-37.409,38.0551,0.0367238,-6.61389,-40.4097,-6.56096,34.5483,1.99188,3.74261,-0.0365141,
0.0342876,-0.0290491,0.187476,-1.94055,0.296393,0.0607024,-0.00850212,0.14688,-0.012766,0.150912,-0.394508,0.853011,0.658735,-0.0172418,-6.49893,-5.52157,-6.60684,5.32495,-15.1429,29.6542,0.528311,17.2789,-2.86906,17.64,-38.0646,9.94383,7.38778,-0.168939,0.0321352,-0.0277301,0.185235,-1.93231,0.280766,0.0403615,-0.00810691,0.0253947,-0.0253698,0.0939945,-0.197946,0.302082,0.768108,0.00140833,0,0,0,0,0,0,0,-6.61389,-40.4097,-6.56096,34.5483,1.99188,3.74261,-0.0365141,
0.0352233,-0.0293647,0.188439,-1.94345,0.302944,0.0674688,-0.00859473,0.140897,-0.0181013,0.144782,-0.388112,0.846182,0.696148,-0.0161085,-3.73961,-3.33456,-3.83103,3.99759,-4.26828,23.3827,0.708288,16.8388,-2.72468,17.1858,-37.5425,9.94383,7.81083,-0.144,0.0321352,-0.0277301,0.185235,-1.93231,0.280766,0.0403615,-0.00810691,0.0253947,-0.0253698,0.0939945,-0.197946,0.302082,0.768108,0.00140833,0,0,0,0,0,0,0,-6.61389,-40.4097,-6.56096,34.5483,1.99188,3.74261,-0.0365141,
0.0362297,-0.0296222,0.189471,-1.94634,0.309855,0.0742074,-0.00867068,0.137879,-0.0209187,0.141641,-0.38277,0.849724,0.725384,-0.0147856,-1.8862,-1.7609,-1.96345,3.33876,2.21388,18.2729,0.826801,16.4293,-2.52906,16.763,-37.0105,9.94383,8.04791,-0.119791,0.0321352,-0.0277301,0.185235,-1.93231,0.280766,0.0403615,-0.00810691,0.0253947,-0.0253698,0.0939945,-0.197946,0.302082,0.768108,0.00140833,0,0,0,0,0,0,0,-6.61389,-40.4097,-6.56096,34.5483,1.99188,3.74261,-0.0365141,
0.0337827,-0.0284947,0.18933,-1.94196,0.294447,0.0908142,-0.00837429,0.122435,-0.0344262,0.126074,-0.367801,0.794293,0.793173,-0.0146999,-9.65279,-8.44219,-9.7295,9.35528,-34.6443,42.3684,0.0535752,17.2646,-2.58978,17.6247,-38.3372,9.92349,7.25254,-0.166947,0.0329696,-0.0270216,0.188462,-1.93745,0.286807,0.0734405,-0.00811606,0.0116658,-0.0482886,0.0450814,-0.0728688,0.0485728,1.0498,-0.000630382,-1.71612,-2.86485,-6.11414,15.6346,-31.6886,35.2111,-0.254839,-8.13336,-38.3666,-7.90984,27.9745,1.40594,2.50298,0.00376909,
0.0344123,-0.0290778,0.189985,-1.94457,0.300006,0.0989182,-0.00846671,0.11369,-0.0421186,0.117213,-0.359489,0.774423,0.83714,-0.0140704,-5.46543,-4.80775,-5.53761,5.19489,-12.419,27.479,0.393463,16.8245,-2.4454,17.1705,-37.8151,9.92349,7.6756,-0.142008,0.0329696,-0.0270216,0.188462,-1.93745,0.286807,0.0734405,-0.00811606,0.0116658,-0.0482886,0.0450814,-0.0728688,0.0485728,1.0498,-0.000630382,0,0,0,0,0,0,0,-8.13336,-38.3666,-7.90984,27.9745,1.40594,2.50298,0.00376909,
0.035163,-0.0295457,0.190759,-1.94724,0.306233,0.106669,-0.00854117,0.109718,-0.0453919,0.113143,-0.354412,0.775204,0.863488,-0.0131179,-2.48281,-2.04583,-2.54374,3.17336,0.488212,16.4676,0.595315,16.415,-2.24978,16.7477,-37.2831,9.92349,7.91268,-0.117799,0.0329696,-0.0270216,0.188462,-1.93745,0.286807,0.0734405,-0.00811606,0.0116658,-0.0482886,0.0450814,-0.0728688,0.0485728,1.0498,-0.000630382,0,0,0,0,0,0,0,-8.13336,-38.3666,-7.90984,27.9745,1.40594,2.50298,0.00376909,
0.0360097,-0.0299189,0.19163,-1.94994,0.312927,0.114114,-0.00859937,0.108942,-0.0456436,0.112289,-0.350999,0.787522,0.876918,-0.0119492,-0.484448,-0.157314,-0.534257,2.13326,7.69926,8.39377,0.73044,16.0297,-2.02714,16.3498,-36.7463,9.92349,8.03023,-0.0952971,0.0329696,-0.0270216,0.188462,-1.93745,0.286807,0.0734405,-0.00811606,0.0116658,-0.0482886,0.0450814,-0.0728688,0.0485728,1.0498,-0.000630382,0,0,0,0,0,0,0,-8.13336,-38.3666,-7.90984,27.9745,1.40594,2.50298,0.00376909,
0.0337656,-0.0284686,0.189311,-1.94192,0.294462,0.091011,-0.00833603,0.0990003,-0.0537899,0.102284,-0.341735,0.744756,0.917046,-0.0119518,-6.21383,-5.09146,-6.25282,5.78975,-26.7291,25.0798,-0.00163519,16.862,-2.12436,17.2168,-38.1243,9.95865,7.49356,-0.140423,0.0333352,-0.0277723,0.190298,-1.94126,0.287461,0.114838,-0.00811817,-0.00931401,-0.0931232,0.00581795,-0.0559531,-0.00473222,1.2848,-0.000347255,-2.62247,-5.60432,-4.90793,2.11446,-6.66312,29.3754,0.0353909,-9.35131,-40.735,-9.1873,29.494,1.59546,2.80144,0.0239107,
0.0343791,-0.0290317,0.189949,-1.94449,0.300032,0.0992056,-0.00841067,0.0945377,-0.0571092,0.0977553,-0.337724,0.735042,0.938501,-0.0114273,-2.78908,-2.07453,-2.8305,2.50721,-6.07116,13.4096,0.327774,16.4525,-1.92874,16.794,-37.5923,9.95865,7.73063,-0.116214,0.0333352,-0.0277723,0.190298,-1.94126,0.287461,0.114838,-0.00811817,-0.00931401,-0.0931232,0.00581795,-0.0559531,-0.00473222,1.2848,-0.000347255,0,0,0,0,0,0,0,-9.35131,-40.735,-9.1873,29.494,1.59546,2.80144,0.0239107,
0.0351096,-0.0294786,0.190702,-1.94712,0.306268,0.107009,-0.00846821,0.0938923,-0.0568592,0.0970518,-0.335891,0.743946,0.945874,-0.0105805,-0.403435,0.156275,-0.439698,1.14566,5.56503,4.6083,0.529266,16.0672,-1.7061,16.3961,-37.0555,9.95865,7.84818,-0.0937119,0.0333352,-0.0277723,0.190298,-1.94126,0.287461,0.114838,-0.00811817,-0.00931401,-0.0931232,0.00581795,-0.0559531,-0.00473222,1.2848,-0.000347255,0,0,0,0,0,0,0,-9.35131,-40.735,-9.1873,29.494,1.59546,2.80144,0.0239107,
0.0337495,-0.0296076,0.19076,-1.94528,0.294678,0.134733,-0.00830438,0.0825314,-0.0668318,0.0856166,-0.324125,0.705807,0.996777,-0.010435,-7.10054,-6.23287,-7.14704,7.35328,-23.8371,31.8143,0.0909192,16.4525,-1.92874,16.794,-37.5923,9.95865,7.73063,-0.116214,0.0333352,-0.0277723,0.190298,-1.94126,0.287461,0.114838,-0.00811817,-0.00931401,-0.0931232,0.00581795,-0.0559531,-0.00473222,1.2848,-0.000347255,0,0,0,0,0,0,0,-9.35131,-40.735,-9.1873,29.494,1.59546,2.80144,0.0239107,
0.0342103,-0.0302942,0.191243,-1.94766,0.300156,0.143628,-0.00836225,0.0775444,-0.0706314,0.0805592,-0.318738,0.70159,1.01981,-0.00979487,-3.11688,-2.37476,-3.16084,3.36707,-2.63537,14.396,0.400109,16.056,-1.64544,16.4045,-37.2077,9.99328,7.64944,-0.0929201,0.0332611,-0.0302134,0.191371,-1.94472,0.287554,0.158012,-0.00811016,-0.0095294,-0.0908747,0.0121842,-0.0662553,0.0125832,1.20233,0.00105222,-0.0269234,0.281064,0.795778,-1.28778,2.16443,-10.3089,0.174934,0.66608,-30.0789,0.711073,17.5366,1.57714,0.32128,-0.0163725,
0.0348094,-0.0308366,0.191864,-1.95012,0.306346,0.15191,-0.00840372,0.0770136,-0.070064,0.0799733,-0.316487,0.716024,1.0229,-0.00887266,-0.331753,0.354601,-0.366215,1.40715,9.02133,1.9316,0.576382,15.6903,-1.41289,16.0267,-36.6701,9.99328,7.64277,-0.0714374,0.0332611,-0.0302134,0.191371,-1.94472,0.287554,0.158012,-0.00811016,-0.0095294,-0.0908747,0.0121842,-0.0662553,0.0125832,1.20233,0.00105222,0,0,0,0,0,0,0,0.66608,-30.0789,0.711073,17.5366,1.57714,0.32128,-0.0163725,
0.03552,-0.0312634,0.192597,-1.95263,0.313032,0.159663,-0.00843065,0.0793767,-0.0667224,0.0822968,-0.315836,0.739956,1.01214,-0.00777131,1.47696,2.0885,1.45219,0.406715,14.957,-6.72758,0.688345,15.3407,-1.18371,15.6656,-36.1342,9.99328,7.56623,-0.0514945,0.0332611,-0.0302134,0.191371,-1.94472,0.287554,0.158012,-0.00811016,-0.0095294,-0.0908747,0.0121842,-0.0662553,0.0125832,1.20233,0.00105222,0,0,0,0,0,0,0,0.66608,-30.0789,0.711073,17.5366,1.57714,0.32128,-0.0163725,
0.0336945,-0.0319773,0.191853,-1.9488,0.295092,0.177019,-0.00826818,0.0710479,-0.0737771,0.0739486,-0.30842,0.70654,1.03977,-0.00781781,-5.2055,-4.40919,-5.21759,4.63512,-20.8848,17.2712,-0.0290619,16.056,-1.64544,16.4045,-37.2077,9.99328,7.64944,-0.0929201,0.0332611,-0.0302134,0.191371,-1.94472,0.287554,0.158012,-0.00811016,-0.0095294,-0.0908747,0.0121842,-0.0662553,0.0125832,1.20233,0.00105222,0,0,0,0,0,0,0,0.66608,-30.0789,0.711073,17.5366,1.57714,0.32128,-0.0163725,
0.0341531,-0.0326273,0.192334,-1.95117,0.300711,0.185561,-0.00831135,0.0683032,-0.0752695,0.0711771,-0.306093,0.705699,1.04538,-0.00733358,-1.71546,-0.932767,-1.73221,1.45438,-0.525318,3.50733,0.302644,15.6903,-1.41289,16.0267,-36.6701,9.99328,7.64277,-0.0714374,0.0332611,-0.0302134,0.191371,-1.94472,0.287554,0.158012,-0.00811016,-0.0095294,-0.0908747,0.0121842,-0.0662553,0.0125832,1.20233,0.00105222,0,0,0,0,0,0,0,0.66608,-30.0789,0.711073,17.5366,1.57714,0.32128,-0.0163725,
0.0347442,-0.0331358,0.192947,-1.95362,0.307024,0.193508,-0.00833835,0.0694203,-0.0729301,0.0722747,-0.306007,0.722378,1.03498,-0.00654186,0.698188,1.46213,0.685995,0.0537946,10.4243,-6.50334,0.49482,15.3407,-1.18371,15.6656,-36.1342,9.99328,7.56623,-0.0514945,0.0332611,-0.0302134,0.191371,-1.94472,0.287554,0.158012,-0.00811016,-0.0095294,-0.0908747,0.0121842,-0.0662553,0.0125832,1.20233,0.00105222,0,0,0,0,0,0,0,0.66608,-30.0789,0.711073,17.5366,1.57714,0.32128,-0.0163725,
0.0354425,-0.0335327,0.193668,-1.9561,0.313815,0.200934,-0.00835138,0.0729931,-0.0682656,0.0758377,-0.306933,0.747678,1.01363,-0.00555931,2.233,2.91536,2.22692,-0.5788,15.812,-13.3439,0.614094,15.0044,-0.96568,15.3182,-35.6026,9.99328,7.41584,-0.0326365,0.0332611,-0.0302134,0.191371,-1.94472,0.287554,0.158012,-0.00811016,-0.0095294,-0.0908747,0.0121842,-0.0662553,0.0125832,1.20233,0.00105222,0,0,0,0,0,0,0,0.66608,-30.0789,0.711073,17.5366,1.57714,0.32128,-0.0163725,
0.033676,-0.031945,0.191833,-1.94873,0.295102,0.176941,-0.00823626,0.0656388,-0.0745632,0.0684606,-0.300312,0.712889,1.03971,-0.00565801,-4.5964,-3.93601,-4.6107,4.13783,-21.743,16.3039,-0.0616855,15.6903,-1.41289,16.0267,-36.6701,9.99328,7.64277,-0.0714374,0.0332611,-0.0302134,0.191371,-1.94472,0.287554,0.158012,-0.00811016,-0.0095294,-0.0908747,0.0121842,-0.0662553,0.0125832,1.20233,0.00105222,0,0,0,0,0,0,0,0.66608,-30.0789,0.711073,17.5366,1.57714,0.32128,-0.0163725,
0.0341182,-0.0325768,0.192297,-1.95106,0.300729,0.185405,-0.00826465,0.0635663,-0.0754439,0.0663578,-0.298498,0.711,1.04337,-0.00523627,-1.29534,-0.550468,-1.31426,1.1339,-1.18057,2.28397,0.263588,15.3206,-1.20201,15.6698,-36.2417,10.0248,7.38334,-0.0508813,0.0331227,-0.0333415,0.192,-1.94846,0.287819,0.197873,-0.00811452,0.00171361,-0.0823632,0.0299508,-0.114669,0.0317437,1.07737,0.00721559,1.40538,1.06394,2.22083,-6.05169,2.39507,-15.6195,0.770421,5.86322,-26.9844,5.68605,11.9824,1.93145,-0.733408,-0.00996382,
0.0346899,-0.0330685,0.19289,-1.95346,0.307051,0.193249,-0.00827781,0.0651467,-0.0726472,0.0679154,-0.298789,0.726847,1.03081,-0.0045179,0.987747,1.74795,0.973495,-0.182032,9.90431,-7.85012,0.44898,14.9843,-0.983987,15.3223,-35.71,10.0248,7.23295,-0.0320233,0.0331227,-0.0333415,0.192,-1.94846,0.287819,0.197873,-0.00811452,0.00171361,-0.0823632,0.0299508,-0.114669,0.0317437,1.07737,0.00721559,0,0,0,0,0,0,0,5.86322,-26.9844,5.68605,11.9824,1.93145,-0.733408,-0.00996382,
0.0336892,-0.0348295,0.192619,-1.95277,0.295653,0.215075,-0.00821408,0.060958,-0.075073,0.063767,-0.296453,0.699782,1.03343,-0.00451047,-2.61792,-1.51609,-2.59278,1.46018,-16.9157,1.63921,0.00464514,15.3206,-1.20201,15.6698,-36.2417,10.0248,7.38334,-0.0508813,0.0331227,-0.0333415,0.192,-1.94846,0.287819,0.197873,-0.00811452,0.00171361,-0.0823632,0.0299508,-0.114669,0.0317437,1.07737,0.00721559,0,0,0,0,0,0,0,5.86322,-26.9844,5.68605,11.9824,1.93145,-0.733408,-0.00996382,
0.0341761,-0.0353575,0.193129,-1.95516,0.301413,0.222848,-0.00822999,0.0609381,-0.0732572,0.0637589,-0.297118,0.703826,1.02109,-0.00400607,-0.0124222,1.13485,-0.00504476,-0.415475,2.52779,-7.71383,0.315253,14.9843,-0.983987,15.3223,-35.71,10.0248,7.23295,-0.0320233,0.0331227,-0.0333415,0.192,-1.94846,0.287819,0.197873,-0.00811452,0.00171361,-0.0823632,0.0299508,-0.114669,0.0317437,1.07737,0.00721559,0,0,0,0,0,0,0,5.86322,-26.9844,5.68605,11.9824,1.93145,-0.733408,-0.00996382,
0.0347775,-0.035762,0.193753,-1.95761,0.307853,0.230087,-0.0082305,0.0637877,-0.0687188,0.0666141,-0.298785,0.724052,0.997826,-0.0032176,1.78099,2.83649,1.7845,-1.04236,12.641,-14.5387,0.492791,14.6595,-0.782809,14.9868,-35.1837,10.0248,7.05318,-0.0144458,0.0331227,-0.0333415,0.192,-1.94846,0.287819,0.197873,-0.00811452,0.00171361,-0.0823632,0.0299508,-0.114669,0.0317437,1.07737,0.00721559,0,0,0,0,0,0,0,5.86322,-26.9844,5.68605,11.9824,1.93145,-0.733408,-0.00996382,
0.0354799,-0.0360713,0.194478,-1.96007,0.314617,0.236849,-0.00821486,0.068589,-0.0627081,0.071405,-0.300513,0.748344,0.967321,-0.00218321,3.00081,3.75667,2.99431,-1.07953,15.1825,-19.0658,0.646495,14.3027,-0.58279,14.6326,-34.7488,10.0442,6.69302,0.00302945,0.0337019,-0.0349405,0.193257,-1.9528,0.288286,0.23425,-0.00811651,0.0310444,-0.0368374,0.0734084,-0.172507,0.00696192,0.967506,-0.00140809,3.66635,5.69072,5.4322,-7.22976,-3.09773,-13.7333,-1.07796,6.04175,-25.5126,5.813,12.6529,2.49908,-1.56196,0.0376436,
0.0346201,-0.0358338,0.194238,-1.95757,0.296147,0.249665,-0.00820471,0.0673811,-0.0604303,0.0703298,-0.302565,0.718399,0.961058,-0.00243946,-0.754957,1.42362,-0.672026,-1.28256,-18.7153,-3.91449,-0.160155,14.9431,-0.966482,15.2941,-35.7947,10.0442,7.08248,-0.0314241,0.0337019,-0.0349405,0.193257,-1.9528,0.288286,0.23425,-0.00811651,0.0310444,-0.0368374,0.0734084,-0.172507,0.00696192,0.967506,-0.00140809,0,0,0,0,0,0,0,6.04175,-25.5126,5.813,12.6529,2.49908,-1.56196,0.0376436,
0.0352117,-0.0361472,0.194856,-1.9601,0.301999,0.256654,-0.00821063,0.068694,-0.0561789,0.0716969,-0.305425,0.721008,0.943579,-0.00209967,0.820564,2.65713,0.854458,-1.78783,1.63044,-10.9241,0.212365,14.6183,-0.765304,14.9586,-35.2683,10.0442,6.90271,-0.0138466,0.0337019,-0.0349405,0.193257,-1.9528,0.288286,0.23425,-0.00811651,0.0310444,-0.0368374,0.0734084,-0.172507,0.00696192,0.967506,-0.00140809,0,0,0,0,0,0,0,6.04175,-25.5126,5.813,12.6529,2.49908,-1.56196,0.0376436,
0.0358948,-0.0363802,0.195563,-1.96264,0.308398,0.263189,-0.00819732,0.0720323,-0.0507695,0.0750361,-0.307754,0.736788,0.918245,-0.0013469,2.08647,3.3809,2.08702,-1.45515,9.86242,-15.8341,0.470482,14.3027,-0.58279,14.6326,-34.7488,10.0442,6.69302,0.00302945,0.0337019,-0.0349405,0.193257,-1.9528,0.288286,0.23425,-0.00811651,0.0310444,-0.0368374,0.0734084,-0.172507,0.00696192,0.967506,-0.00140809,0,0,0,0,0,0,0,6.04175,-25.5126,5.813,12.6529,2.49908,-1.56196,0.0376436,
0.0366596,-0.0365538,0.196351,-1.96516,0.314999,0.269323,-0.00816752,0.076747,-0.0449537,0.0797228,-0.309271,0.754455,0.88793,-0.000332648,2.94665,3.63489,2.92918,-0.948535,11.0422,-18.9468,0.633907,13.9795,-0.369298,14.3092,-34.3298,9.62753,6.36245,0.0210587,0.0345459,-0.0361345,0.194653,-1.95825,0.288332,0.26723,-0.00811593,0.0456944,0.0301747,0.0469961,-0.17045,-0.0106537,0.90872,-0.00174035,1.83126,8.37652,-3.30153,0.257114,-2.20195,-7.34831,-0.0415326,-1.00811,-30.7018,-1.16149,22.5433,2.27295,-0.0962008,0.0440523,
0.0353586,-0.0364147,0.195529,-1.9632,0.296176,0.281893,-0.00818476,0.0725909,-0.0397513,0.0757037,-0.311776,0.723325,0.888032,-0.000665009,-2.59753,3.2515,-2.51193,-1.56536,-19.4561,0.063889,-0.207726,14.6061,-0.715763,14.9563,-35.3621,10.0802,6.7748,-0.0132509,0.0345459,-0.0361345,0.194653,-1.95825,0.288332,0.26723,-0.00811593,0.0456944,0.0301747,0.0469961,-0.17045,-0.0106537,0.90872,-0.00174035,0,0,0,0,0,0,0,-1.00811,-30.7018,-1.16149,22.5433,2.27295,-0.0962008,0.0440523,
0.0359086,-0.0365312,0.196105,-1.96579,0.301887,0.288493,-0.0081749,0.0718232,-0.0347119,0.0749607,-0.314319,0.721442,0.875408,-0.000285292,-0.479808,3.14959,-0.464377,-1.58943,-1.17735,-7.89031,0.237323,14.2905,-0.533249,14.6303,-34.8426,10.0802,6.56511,0.00362516,0.0345459,-0.0361345,0.194653,-1.95825,0.288332,0.26723,-0.00811593,0.0456944,0.0301747,0.0469961,-0.17045,-0.0106537,0.90872,-0.00174035,0,0,0,0,0,0,0,-1.00811,-30.7018,-1.16149,22.5433,2.27295,-0.0962008,0.0440523,
0.0365573,-0.0366133,0.196778,-1.96837,0.308025,0.294639,-0.00814584,0.0736768,-0.0298225,0.0767827,-0.315861,0.730592,0.853982,0.000498052,1.15845,3.05588,1.13872,-0.964053,5.71893,-13.391,0.48959,13.9795,-0.369298,14.3092,-34.3298,9.62753,6.36245,0.0210587,0.0345459,-0.0361345,0.194653,-1.95825,0.288332,0.26723,-0.00811593,0.0456944,0.0301747,0.0469961,-0.17045,-0.0106537,0.90872,-0.00174035,0,0,0,0,0,0,0,-1.00811,-30.7018,-1.16149,22.5433,2.27295,-0.0962008,0.0440523,
0.0372891,-0.0366703,0.197532,-1.97092,0.314321,0.300395,-0.00810041,0.0772354,-0.0252831,0.0802875,-0.316437,0.74187,0.82708,0.00153438,2.22415,2.83716,2.19055,-0.35976,7.04861,-16.8136,0.647707,13.6191,-0.19139,13.9381,-33.8625,9.09444,6.05533,0.0382271,0.0361777,-0.0359724,0.197149,-1.96341,0.288374,0.294631,-0.00811063,0.0698579,0.0789745,0.0666183,-0.177403,-0.00728832,0.720325,8.88215e-05,3.02043,6.09997,2.45277,-0.86909,0.420669,-23.5493,0.228646,-0.476498,-31.527,-0.411669,28.0975,2.32238,1.4016,-0.0026396,
0.0372201,-0.0357798,0.198258,-1.96862,0.296384,0.30725,-0.00816074,0.0755432,-0.0188578,0.0787408,-0.320593,0.71365,0.816337,0.00114946,-1.05762,4.01577,-0.966732,-2.59739,-17.6373,-6.71431,-0.240576,14.2648,-0.504259,14.6048,-34.879,10.1071,6.47225,0.00390773,0.0361777,-0.0359724,0.197149,-1.96341,0.288374,0.294631,-0.00811063,0.0698579,0.0789745,0.0666183,-0.177403,-0.00728832,0.720325,8.88215e-05,0,0,0,0,0,0,0,-0.476498,-31.527,-0.411669,28.0975,2.32238,1.4016,-0.0026396,
0.0378516,-0.0357319,0.198916,-1.97131,0.301973,0.313069,-0.00813696,0.0762209,-0.0138882,0.0794361,-0.323706,0.710643,0.798549,0.00151401,0.42356,3.10604,0.434605,-1.94576,-1.8794,-11.1177,0.227844,13.9538,-0.340308,14.2836,-34.3661,9.65445,6.26959,0.0213412,0.0361777,-0.0359724,0.197149,-1.96341,0.288374,0.294631,-0.00811063,0.0698579,0.0789745,0.0666183,-0.177403,-0.00728832,0.720325,8.88215e-05,0,0,0,0,0,0,0,-0.476498,-31.527,-0.411669,28.0975,2.32238,1.4016,-0.0026396,
0.0385604,-0.035682,0.199649,-1.97396,0.307924,0.318547,-0.00809366,0.0786968,-0.00986305,0.0818707,-0.325139,0.717289,0.775776,0.00229367,1.54745,2.51569,1.52161,-0.895806,4.1539,-14.2331,0.487287,13.6191,-0.19139,13.9381,-33.8625,9.09444,6.05533,0.0382271,0.0361777,-0.0359724,0.197149,-1.96341,0.288374,0.294631,-0.00811063,0.0698579,0.0789745,0.0666183,-0.177403,-0.00728832,0.720325,8.88215e-05,0,0,0,0,0,0,0,-0.476498,-31.527,-0.411669,28.0975,2.32238,1.4016,-0.0026396,
0.0394212,-0.0349046,0.201133,-1.97566,0.296773,0.323086,-0.00812755,0.0780383,-0.0049144,0.0813108,-0.329721,0.68906,0.749519,0.00213721,-0.411572,3.0929,-0.349957,-2.8637,-17.6432,-16.4107,-0.0977886,13.9546,-0.329539,14.2805,-34.3716,9.67968,6.22592,0.0214459,0.0382685,-0.0352099,0.199916,-1.97023,0.289038,0.312834,-0.00810757,0.0797811,0.0789448,0.0695699,-0.202607,-0.00159893,0.499852,-0.000298382,1.24041,-0.0037154,0.368959,-3.15058,0.711175,-27.5592,-0.0484005,-3.0354,-30.9517,-3.11339,30.3152,2.21801,2.74834,-0.0301054,
0.0400947,-0.0347901,0.201832,-1.97841,0.30212,0.328095,-0.00808893,0.0792686,-0.00107,0.08253,-0.332583,0.684917,0.724841,0.0026753,0.768933,2.40275,0.761982,-1.78893,-2.58981,-15.4239,0.336308,13.6199,-0.180621,13.935,-33.8679,9.11967,6.01166,0.0383317,0.0382685,-0.0352099,0.199916,-1.97023,0.289038,0.312834,-0.00810757,0.0797811,0.0789448,0.0695699,-0.202607,-0.00159893,0.499852,-0.000298382,0,0,0,0,0,0,0,-3.0354,-30.9517,-3.11339,30.3152,2.21801,2.74834,-0.0301054,
0.0408302,-0.0346774,0.202591,-1.9811,0.307847,0.332913,-0.00803859,0.0818017,0.00196291,0.0849993,-0.333411,0.691109,0.700328,0.00339879,1.58315,1.89557,1.54334,-0.517059,3.87037,-15.3203,0.452178,13.2451,-0.0435323,13.5481,-33.3747,8.65457,5.8009,0.0562168,0.0382685,-0.0352099,0.199916,-1.97023,0.289038,0.312834,-0.00810757,0.0797811,0.0789448,0.0695699,-0.202607,-0.00159893,0.499852,-0.000298382,0,0,0,0,0,0,0,-3.0354,-30.9517,-3.11339,30.3152,2.21801,2.74834,-0.0301054,
0.0416274,-0.0345689,0.203411,-1.98372,0.313455,0.33753,-0.00797454,0.0853699,0.00428106,0.0885093,-0.332214,0.693089,0.675685,0.00432025,2.23014,1.44885,2.19373,0.747853,1.23757,-15.4017,0.575917,12.7793,0.0758586,13.0671,-32.9102,8.33811,5.56793,0.0653929,0.0382685,-0.0352099,0.199916,-1.97023,0.289038,0.312834,-0.00810757,0.0797811,0.0789448,0.0695699,-0.202607,-0.00159893,0.499852,-0.000298382,0,0,0,0,0,0,0,-3.0354,-30.9517,-3.11339,30.3152,2.21801,2.74834,-0.0301054,
0.0424714,-0.0344687,0.204278,-1.98627,0.318748,0.341942,-0.00790275,0.0893958,0.00593006,0.0924765,-0.329578,0.686806,0.650867,0.00525106,2.51616,1.03062,2.47954,1.64746,-3.92725,-15.5115,0.581754,12.3061,0.246577,12.6012,-32.4298,7.15986,5.34508,0.0745403,0.0411081,-0.0334417,0.202916,-1.97805,0.289385,0.325037,-0.00811004,0.0890298,0.0521237,0.0884238,-0.226161,0.000923285,0.309439,-0.00570854,1.15609,-3.35263,2.35673,-2.94416,0.315277,-23.8016,-0.67627,-3.01159,-34.4469,-3.03801,31.9101,1.82068,3.55034,-0.0365141,
0.0424547,-0.0332686,0.204324,-1.98357,0.296826,0.333203,-0.00810264,0.0887951,0.00673408,0.0919499,-0.334078,0.660394,0.627071,0.00485621,-0.375437,0.50251,-0.329158,-2.81254,-16.5073,-14.8726,-0.246781,13.6337,-0.152804,13.9374,-33.8555,9.14121,6.00201,0.0383373,0.0411081,-0.0334417,0.202916,-1.97805,0.289385,0.325037,-0.00811004,0.0890298,0.0521237,0.0884238,-0.226161,0.000923285,0.309439,-0.00570854,0,0,0,0,0,0,0,-3.01159,-34.4469,-3.03801,31.9101,1.82068,3.55034,-0.0365141,
0.0431933,-0.0331667,0.205087,-1.98634,0.302015,0.33751,-0.00805773,0.0895007,0.00793294,0.0926332,-0.336524,0.65805,0.609314,0.00500772,0.441044,0.749288,0.42705,-1.52877,-1.4649,-11.0982,0.0946908,13.2589,-0.015715,13.5505,-33.3623,8.67611,5.79124,0.0562223,0.0411081,-0.0334417,0.202916,-1.97805,0.289385,0.325037,-0.00811004,0.0890298,0.0521237,0.0884238,-0.226161,0.000923285,0.309439,-0.00570854,0,0,0,0,0,0,0,-3.01159,-34.4469,-3.03801,31.9101,1.82068,3.55034,-0.0365141,
0.0439876,-0.0330504,0.205904,-1.98903,0.307297,0.341763,-0.00799626,0.0914593,0.00925604,0.0945536,-0.336347,0.658496,0.593787,0.00554314,1.22411,0.82694,1.20028,0.1111,0.278747,-9.70434,0.334642,12.7931,0.103676,13.0695,-32.8978,8.35965,5.55828,0.0653985,0.0411081,-0.0334417,0.202916,-1.97805,0.289385,0.325037,-0.00811004,0.0890298,0.0521237,0.0884238,-0.226161,0.000923285,0.309439,-0.00570854,0,0,0,0,0,0,0,-3.01159,-34.4469,-3.03801,31.9101,1.82068,3.55034,-0.0365141,
0.0453583,-0.0309847,0.207637,-1.99218,0.296727,0.337312,-0.00807393,0.0908178,0.00686722,0.093895,-0.339275,0.634206,0.559811,0.00531256,-0.400951,-1.49301,-0.411619,-1.83037,-15.1816,-21.2352,-0.144115,13.2827,-0.0044773,13.5564,-33.3244,8.69495,5.81134,0.0561027,0.0439861,-0.0308868,0.20621,-1.98666,0.289536,0.331223,-0.0081091,0.0727555,0.0163005,0.100867,-0.227621,0.00509371,0.0894282,-0.00191915,-2.03429,-4.47791,1.55542,-0.182563,0.521303,-27.5013,0.473674,3.70899,-35.4942,3.46437,30.589,2.09625,3.28484,-0.0163725,
0.0461216,-0.0309397,0.208423,-1.99492,0.301466,0.340981,-0.00801639,0.0917364,0.00662058,0.094772,-0.339943,0.625841,0.539554,0.00568842,0.574111,-0.154149,0.548122,-0.417562,-5.22805,-12.6604,0.234911,12.8169,0.114914,13.0754,-32.8598,8.37849,5.57837,0.0652789,0.0439861,-0.0308868,0.20621,-1.98666,0.289536,0.331223,-0.0081091,0.0727555,0.0163005,0.100867,-0.227621,0.00509371,0.0894282,-0.00191915,0,0,0,0,0,0,0,3.70899,-35.4942,3.46437,30.589,2.09625,3.28484,-0.0163725,
0.0469343,-0.0308548,0.209258,-1.99757,0.306221,0.344744,-0.0079477,0.0937059,0.00741726,0.0966835,-0.338302,0.619549,0.525739,0.00626792,1.23095,0.497928,1.19471,1.02606,-3.93198,-8.63406,0.362187,12.3298,0.257815,12.6071,-32.3919,7.1787,5.36517,0.0744208,0.0439861,-0.0308868,0.20621,-1.98666,0.289536,0.331223,-0.0081091,0.0727555,0.0163005,0.100867,-0.227621,0.00509371,0.0894282,-0.00191915,0,0,0,0,0,0,0,3.70899,-35.4942,3.46437,30.589,2.09625,3.28484,-0.0163725,
0.0477823,-0.0307516,0.210127,-2.00014,0.310743,0.34849,-0.00787978,0.0961661,0.00851403,0.0990767,-0.334903,0.608708,0.514234,0.00671256,1.53763,0.685476,1.49571,2.12395,-6.77615,-7.1912,0.277901,11.8286,0.436211,12.1048,-31.9077,6.2941,5.12056,0.0819958,0.0439861,-0.0308868,0.20621,-1.98666,0.289536,0.331223,-0.0081091,0.0727555,0.0163005,0.100867,-0.227621,0.00509371,0.0894282,-0.00191915,0,0,0,0,0,0,0,3.70899,-35.4942,3.46437,30.589,2.09625,3.28484,-0.0163725,
0.0453546,-0.0309656,0.207632,-1.99208,0.296196,0.337082,-0.00805357,0.09462,0.00650822,0.0975575,-0.336615,0.583537,0.492801,0.00655447,-0.966307,-1.25363,-0.949512,-1.0697,-15.7316,-13.3954,-0.0988047,12.83,0.0967688,13.072,-32.7952,8.3873,5.62713,0.0650228,0.0464797,-0.0284991,0.209925,-1.99503,0.290159,0.331206,-0.00810224,0.058583,-0.00370672,0.106719,-0.234821,0.014223,-0.0301094,-0.000785592,-1.77156,-2.5009,0.731437,-0.899928,1.14116,-14.9422,0.141695,1.32465,-33.9708,1.28633,22.218,1.62567,1.99212,-0.050247,
0.0461132,-0.030915,0.208413,-1.99476,0.30041,0.340596,-0.00798901,0.0946618,0.00647157,0.0975777,-0.336401,0.572178,0.482068,0.0068576,0.0261558,-0.0229049,0.0126696,0.133796,-7.09965,-6.70812,0.189458,12.343,0.23967,12.6037,-32.3272,7.18751,5.41393,0.0741646,0.0464797,-0.0284991,0.209925,-1.99503,0.290159,0.331206,-0.00810224,0.058583,-0.00370672,0.106719,-0.234821,0.014223,-0.0301094,-0.000785592,0,0,0,0,0,0,0,1.32465,-33.9708,1.28633,22.218,1.62567,1.99212,-0.050247,
0.0469136,-0.0308263,0.209235,-1.99736,0.304588,0.344179,-0.00792293,0.095739,0.0073952,0.0986087,-0.33411,0.562192,0.475234,0.00713817,0.673207,0.577269,0.644325,1.43153,-6.24086,-4.27136,0.175356,11.8418,0.418066,12.1014,-31.843,6.30291,5.16931,0.0817397,0.0464797,-0.0284991,0.209925,-1.99503,0.290159,0.331206,-0.00810224,0.058583,-0.00370672,0.106719,-0.234821,0.014223,-0.0301094,-0.000785592,0,0,0,0,0,0,0,1.32465,-33.9708,1.28633,22.218,1.62567,1.99212,-0.050247,
0.0478486,-0.0286993,0.211345,-2.00039,0.295979,0.335803,-0.00802193,0.0943455,0.0045532,0.0971968,-0.335275,0.534196,0.448076,0.00711454,-0.870899,-1.77625,-0.882396,-0.728211,-17.4975,-16.9737,-0.0147708,12.343,0.23967,12.6037,-32.3272,7.18751,5.41393,0.0741646,0.0464797,-0.0284991,0.209925,-1.99503,0.290159,0.331206,-0.00810224,0.058583,-0.00370672,0.106719,-0.234821,0.014223,-0.0301094,-0.000785592,0,0,0,0,0,0,0,1.32465,-33.9708,1.28633,22.218,1.62567,1.99212,-0.050247,
0.0486064,-0.0286702,0.212123,-2.00305,0.299639,0.338885,-0.00795923,0.0944192,0.00436989,0.0972187,-0.33449,0.518863,0.435508,0.00725915,0.0460516,-0.114565,0.0136812,0.491004,-9.5836,-7.85462,0.0903823,11.8418,0.418066,12.1014,-31.843,6.30291,5.16931,0.0817397,0.0464797,-0.0284991,0.209925,-1.99503,0.290159,0.331206,-0.00810224,0.058583,-0.00370672,0.106719,-0.234821,0.014223,-0.0301094,-0.000785592,0,0,0,0,0,0,0,1.32465,-33.9708,1.28633,22.218,1.62567,1.99212,-0.050247,
0.0494128,-0.0285893,0.212951,-2.0056,0.302982,0.342113,-0.00789355,0.0956974,0.00551908,0.0984551,-0.331343,0.498683,0.429092,0.00744932,0.798889,0.718244,0.772734,1.96657,-12.612,-4.01037,0.118855,11.313,0.573913,11.5544,-31.2779,5.44595,4.94394,0.0774468,0.0492074,-0.0264954,0.214359,-2.00391,0.290193,0.330033,-0.00811872,0.0709622,0.00149647,0.13589,-0.259808,-0.00107351,-0.0454416,-0.0044799,1.5474,0.650399,3.64639,-3.12345,-1.91206,-1.91651,-0.461788,0.793033,-33.225,0.588087,20.0519,1.65588,1.31554,0.0706026,
0.0502587,-0.028483,0.213817,-2.00805,0.305746,0.345373,-0.00782915,0.0977037,0.00707295,0.10042,-0.326545,0.468023,0.424772,0.00756936,1.25389,0.971166,1.22814,2.99869,-19.1629,-2.70001,0.0750267,10.8598,0.772896,11.1196,-30.781,3.84487,4.67592,0.0713049,0.0492074,-0.0264954,0.214359,-2.00391,0.290193,0.330033,-0.00811872,0.0709622,0.00149647,0.13589,-0.259808,-0.00107351,-0.0454416,-0.0044799,0,0,0,0,0,0,0,0.793033,-33.225,0.588087,20.0519,1.65588,1.31554,0.0706026,
0.0507965,-0.0265591,0.215999,-2.00933,0.295247,0.333993,-0.00803623,0.0982361,0.00588373,0.100945,-0.329388,0.448045,0.399266,0.00736509,0.332751,-0.743261,0.327858,-1.77676,-12.4863,-15.9409,-0.127668,11.8549,0.390583,12.1011,-31.7581,6.3162,5.22985,0.0814213,0.0492074,-0.0264954,0.214359,-2.00391,0.290193,0.330033,-0.00811872,0.0709622,0.00149647,0.13589,-0.259808,-0.00107351,-0.0454416,-0.0044799,0,0,0,0,0,0,0,0.793033,-33.225,0.588087,20.0519,1.65588,1.31554,0.0706026,
0.0516309,-0.0264784,0.216854,-2.01196,0.298173,0.336743,-0.00797548,0.0994472,0.00672246,0.102134,-0.32923,0.431582,0.388152,0.007411,0.756954,0.524208,0.74351,0.0986053,-10.2892,-6.94677,0.0286909,11.313,0.573913,11.5544,-31.2779,5.44595,4.94394,0.0774468,0.0492074,-0.0264954,0.214359,-2.00391,0.290193,0.330033,-0.00811872,0.0709622,0.00149647,0.13589,-0.259808,-0.00107351,-0.0454416,-0.0044799,0,0,0,0,0,0,0,0.793033,-33.225,0.588087,20.0519,1.65588,1.31554,0.0706026,
0.0524949,-0.0263582,0.217738,-2.01449,0.300689,0.339669,-0.00791382,0.101159,0.00838502,0.103813,-0.326492,0.40817,0.383672,0.00747011,1.06991,1.0391,1.04907,1.71159,-14.6326,-2.79992,0.0369426,10.8413,0.689487,11.0957,-30.7111,3.84466,4.72176,0.0710522,0.0515517,-0.0255841,0.217912,-2.01271,0.289936,0.329236,-0.00810839,0.0664431,0.0180422,0.0929125,-0.253763,-0.0136172,0.00243883,-0.000867366,-0.56489,2.06821,-5.37216,0.755675,-1.56796,5.98505,0.451566,-1.59131,-31.7015,-1.73674,18.1079,1.60736,0.99053,-0.0227812,
0.0533813,-0.0262209,0.218644,-2.01692,0.302632,0.342662,-0.00785373,0.103088,0.0101407,0.105697,-0.322037,0.375097,0.381766,0.00747833,1.20537,1.09731,1.17758,2.78407,-20.6703,-1.19094,0.00513766,10.5233,0.895672,10.7808,-30.1898,2.52347,4.47165,0.0660961,0.0515517,-0.0255841,0.217912,-2.01271,0.289936,0.329236,-0.00810839,0.0664431,0.0180422,0.0929125,-0.253763,-0.0136172,0.00243883,-0.000867366,0,0,0,0,0,0,0,-1.59131,-31.7015,-1.73674,18.1079,1.60736,0.99053,-0.0227812,
0.0528862,-0.0254942,0.219292,-2.01799,0.293804,0.333481,-0.00801847,0.099834,0.00988792,0.102447,-0.323781,0.353965,0.367038,0.00736783,-2.03355,-0.157997,-2.03148,-1.08997,-13.2075,-9.20494,-0.0690575,11.2945,0.490504,11.5305,-31.2081,5.44574,4.98978,0.0771941,0.0515517,-0.0255841,0.217912,-2.01271,0.289936,0.329236,-0.00810839,0.0664431,0.0180422,0.0929125,-0.253763,-0.0136172,0.00243883,-0.000867366,0,0,0,0,0,0,0,-1.59131,-31.7015,-1.73674,18.1079,1.60736,0.99053,-0.0227812,
0.0536345,-0.0253735,0.22006,-2.02054,0.29581,0.336256,-0.00795842,0.0985748,0.0109269,0.101166,-0.32297,0.333322,0.363002,0.00739536,-0.787003,0.649383,-0.800275,0.50725,-12.902,-2.52257,0.0172042,10.8413,0.689487,11.0957,-30.7111,3.84466,4.72176,0.0710522,0.0515517,-0.0255841,0.217912,-2.01271,0.289936,0.329236,-0.00810839,0.0664431,0.0180422,0.0929125,-0.253763,-0.0136172,0.00243883,-0.000867366,0,0,0,0,0,0,0,-1.59131,-31.7015,-1.73674,18.1079,1.60736,0.99053,-0.0227812,
0.0544268,-0.0252267,0.220872,-2.02301,0.297404,0.339169,-0.00789877,0.0986674,0.0124129,0.10122,-0.319967,0.306512,0.363228,0.00740774,0.0579025,0.928705,0.0338878,1.87657,-16.7563,0.141141,0.00773453,10.5151,0.831309,10.7686,-30.1253,2.53052,4.51183,0.0658873,0.0539163,-0.0248972,0.221034,-2.02042,0.289315,0.328957,-0.00811263,0.0703935,0.0505599,0.0985909,-0.219278,-0.0289106,0.00464185,9.71284e-05,0.493804,4.06472,0.709796,4.31055,-1.91167,0.275378,0.120562,1.07074,-29.3291,0.961012,19.0085,1.54602,1.07751,-0.0227812,
0.055306,-0.0246178,0.22247,-2.02549,0.291991,0.33324,-0.00802787,0.0968747,0.0133635,0.0994362,-0.320196,0.281929,0.352026,0.00723468,-1.12046,0.594151,-1.11512,-0.142676,-15.3645,-7.00121,-0.108163,10.8331,0.625124,11.0834,-30.6466,3.85172,4.76194,0.0708434,0.0539163,-0.0248972,0.221034,-2.02042,0.289315,0.328957,-0.00811263,0.0703935,0.0505599,0.0985909,-0.219278,-0.0289106,0.00464185,9.71284e-05,0,0,0,0,0,0,0,1.07074,-29.3291,0.961012,19.0085,1.54602,1.07751,-0.0227812,
0.0560682,-0.0244584,0.223251,-2.02799,0.293256,0.335962,-0.00797113,0.0965541,0.0146753,0.0990894,-0.318627,0.257182,0.349681,0.00720637,-0.200363,0.819884,-0.216745,0.980043,-15.4668,-1.46593,-0.0176936,10.5151,0.831309,10.7686,-30.1253,2.53052,4.51183,0.0658873,0.0539163,-0.0248972,0.221034,-2.02042,0.289315,0.328957,-0.00811263,0.0703935,0.0505599,0.0985909,-0.219278,-0.0289106,0.00464185,9.71284e-05,0,0,0,0,0,0,0,1.07074,-29.3291,0.961012,19.0085,1.54602,1.07751,-0.0227812,
0.0568672,-0.0242879,0.224069,-2.0304,0.29412,0.338798,-0.00791272,0.097219,0.0160035,0.0997072,-0.315273,0.227353,0.350641,0.00722532,0.415587,0.830113,0.386144,2.09672,-18.6429,0.600084,0.0118488,10.321,1.0084,10.5704,-29.5938,1.43224,4.28335,0.0621843,0.0539163,-0.0248972,0.221034,-2.02042,0.289315,0.328957,-0.00811263,0.0703935,0.0505599,0.0985909,-0.219278,-0.0289106,0.00464185,9.71284e-05,0,0,0,0,0,0,0,1.07074,-29.3291,0.961012,19.0085,1.54602,1.07751,-0.0227812,
0.0576938,-0.0241176,0.224913,-2.03274,0.294521,0.341669,-0.00785413,0.0984402,0.0170612,0.100867,-0.310724,0.19189,0.352277,0.00724487,0.76323,0.661089,0.724598,2.84324,-22.1647,1.0229,0.0122172,10.2251,1.07754,10.4652,-29.0011,0.503755,4.13215,0.0615614,0.0559944,-0.0244623,0.223951,-2.02842,0.288914,0.328523,-0.00811609,0.0578988,0.0622727,0.0945297,-0.245334,-0.0168518,-0.0217328,-0.00103716,-1.56185,1.46409,-0.507645,-3.2569,1.50735,-3.29683,-0.141786,-1.00811,-31.6777,-1.18529,26.1575,1.49109,2.13769,0.00376909,
0.0573333,-0.0239707,0.225335,-2.03355,0.290524,0.332162,-0.00802354,0.0962254,0.0194855,0.0986702,-0.313056,0.174423,0.335418,0.00713711,-1.38426,1.51515,-1.37274,-1.45747,-10.9168,-10.5368,-0.067352,10.5136,0.77249,10.7652,-30.062,2.5382,4.55595,0.0656578,0.0559944,-0.0244623,0.223951,-2.02842,0.288914,0.328523,-0.00811609,0.0578988,0.0622727,0.0945297,-0.245334,-0.0168518,-0.0217328,-0.00103716,0,0,0,0,0,0,0,-1.00811,-31.6777,-1.18529,26.1575,1.49109,2.13769,0.00376909,
0.0580822,-0.023737,0.226103,-2.03605,0.2911,0.334611,-0.0079657,0.0957032,0.0214329,0.0981291,-0.312929,0.153928,0.32956,0.0071556,-0.326329,1.21713,-0.33814,0.0792848,-12.8091,-3.66165,0.0115584,10.3196,0.949577,10.567,-29.5305,1.43991,4.32747,0.0619549,0.0559944,-0.0244623,0.223951,-2.02842,0.288914,0.328523,-0.00811609,0.0578988,0.0622727,0.0945297,-0.245334,-0.0168518,-0.0217328,-0.00103716,0,0,0,0,0,0,0,-1.00811,-31.6777,-1.18529,26.1575,1.49109,2.13769,0.00376909,
0.0588696,-0.0235096,0.226908,-2.03846,0.291299,0.337212,-0.00790713,0.0962478,0.0228298,0.0986302,-0.310634,0.128111,0.328677,0.00718876,0.340344,0.87308,0.313155,1.43425,-16.1358,-0.551637,0.0207245,10.2251,1.07754,10.4652,-29.0011,0.503755,4.13215,0.0615614,0.0559944,-0.0244623,0.223951,-2.02842,0.288914,0.328523,-0.00811609,0.0578988,0.0622727,0.0945297,-0.245334,-0.0168518,-0.0217328,-0.00103716,0,0,0,0,0,0,0,-1.00811,-31.6777,-1.18529,26.1575,1.49109,2.13769,0.00376909,
0.0596852,-0.023296,0.22774,-2.0408,0.291091,0.339883,-0.00784734,0.0973887,0.0236052,0.0997101,-0.306863,0.0972982,0.329728,0.00724586,0.713044,0.484608,0.674922,2.35696,-19.2579,0.656719,0.0356887,10.1997,1.06652,10.4258,-28.4063,-0.245577,3.99553,0.0615593,0.0576172,-0.0237629,0.227366,-2.03708,0.287704,0.329079,-0.00811316,0.0463795,0.0430001,0.111397,-0.253758,-0.043724,0.0280589,-0.000966599,-1.4399,-2.40907,2.10836,-1.05305,-3.35903,6.22397,0.00881972,-2.04754,-35.1967,-2.16124,31.684,1.17981,3.25829,-0.0227812,
0.0589985,-0.0233953,0.228792,-2.04204,0.288242,0.332886,-0.00801869,0.0958687,0.0234415,0.0981984,-0.307676,0.0843108,0.318416,0.00714436,-0.949963,-0.102299,-0.944801,-0.508403,-8.11716,-7.07015,-0.0634367,10.3238,0.864983,10.5671,-29.456,1.45156,4.36566,0.0617327,0.0576172,-0.0237629,0.227366,-2.03708,0.287704,0.329079,-0.00811316,0.0463795,0.0430001,0.111397,-0.253758,-0.043724,0.0280589,-0.000966599,0,0,0,0,0,0,0,-2.04754,-35.1967,-2.16124,31.684,1.17981,3.25829,-0.0227812,
0.0597604,-0.0232037,0.229572,-2.04446,0.288248,0.33534,-0.00796154,0.0957436,0.0235438,0.0980481,-0.306564,0.0675944,0.316074,0.00714442,-0.078227,0.0639519,-0.0939312,0.694964,-10.4477,-1.46367,3.76568e-05,10.2294,0.992947,10.4654,-28.9266,0.515408,4.17034,0.0613393,0.0576172,-0.0237629,0.227366,-2.03708,0.287704,0.329079,-0.00811316,0.0463795,0.0430001,0.111397,-0.253758,-0.043724,0.0280589,-0.000966599,0,0,0,0,0,0,0,-2.04754,-35.1967,-2.16124,31.684,1.17981,3.25829,-0.0227812,
0.0605555,-0.0230124,0.230383,-2.0468,0.287919,0.337928,-0.00790238,0.0964729,0.0236178,0.0987309,-0.303773,0.0458611,0.317551,0.00719451,0.45583,0.0462416,0.426725,1.74477,-13.5833,0.923275,0.0313063,10.1997,1.06652,10.4258,-28.4063,-0.245577,3.99553,0.0615593,0.0576172,-0.0237629,0.227366,-2.03708,0.287704,0.329079,-0.00811316,0.0463795,0.0430001,0.111397,-0.253758,-0.043724,0.0280589,-0.000966599,0,0,0,0,0,0,0,-2.04754,-35.1967,-2.16124,31.684,1.17981,3.25829,-0.0227812,
0.0596457,-0.0218881,0.232388,-2.04971,0.285918,0.334162,-0.00800852,0.0937283,0.0235163,0.0959542,-0.302778,0.0330465,0.310606,0.00718336,-1.71536,-0.0634682,-1.73542,0.621337,-8.00913,-4.34042,-0.00697254,10.2213,0.926864,10.4463,-28.8571,0.524102,4.20552,0.0611259,0.0584007,-0.0222825,0.231099,-2.04497,0.286042,0.330177,-0.00811175,0.0175538,0.0525472,0.11074,-0.22746,-0.0347157,0.0379944,-0.000168003,-3.60322,1.19338,-0.0820743,3.28722,1.12604,1.24193,0.0998245,0.0313145,-33.7962,-0.137926,29.8907,0.953671,2.80785,-0.0365141,
0.0603653,-0.0217035,0.233123,-2.05205,0.285473,0.336667,-0.00794824,0.0929739,0.0234288,0.0951472,-0.300705,0.0153093,0.311099,0.00725371,-0.471526,-0.0546373,-0.504365,1.29607,-11.0857,0.308059,0.0439695,10.1916,1.00044,10.4067,-28.3368,-0.236883,4.0307,0.0613459,0.0584007,-0.0222825,0.231099,-2.04497,0.286042,0.330177,-0.00811175,0.0175538,0.0525472,0.11074,-0.22746,-0.0347157,0.0379944,-0.000168003,0,0,0,0,0,0,0,0.0313145,-33.7962,-0.137926,29.8907,0.953671,2.80785,-0.0365141,
0.0611266,-0.0215235,0.233899,-2.05432,0.284713,0.339282,-0.00788731,0.0934123,0.0232427,0.0955195,-0.297469,-0.00674772,0.314261,0.00732604,0.274,-0.116319,0.232711,2.0225,-13.7856,1.97585,0.045205,10.2057,1.02457,10.4101,-27.8279,-0.866181,3.8817,0.0636836,0.0584007,-0.0222825,0.231099,-2.04497,0.286042,0.330177,-0.00811175,0.0175538,0.0525472,0.11074,-0.22746,-0.0347157,0.0379944,-0.000168003,0,0,0,0,0,0,0,0.0313145,-33.7962,-0.137926,29.8907,0.953671,2.80785,-0.0365141,
0.0619173,-0.0213539,0.234703,-2.05654,0.283661,0.341939,-0.00782527,0.094497,0.0228327,0.0965277,-0.293421,-0.0316924,0.317838,0.00741202,0.677957,-0.256273,0.630127,2.53014,-15.5904,2.23569,0.0537389,10.2392,1.00711,10.4318,-27.3311,-1.35036,3.74695,0.0657109,0.0584007,-0.0222825,0.231099,-2.04497,0.286042,0.330177,-0.00811175,0.0175538,0.0525472,0.11074,-0.22746,-0.0347157,0.0379944,-0.000168003,0,0,0,0,0,0,0,0.0313145,-33.7962,-0.137926,29.8907,0.953671,2.80785,-0.0365141,
0.059668,-0.0218707,0.232407,-2.04961,0.285317,0.333991,-0.00800086,0.0924443,0.0230508,0.0944613,-0.293278,-0.037708,0.308488,0.00743959,-1.28295,0.136317,-1.29153,0.0887603,-3.75976,-5.8437,0.0172346,10.1994,0.918588,10.4072,-28.2675,-0.225187,4.06424,0.0611294,0.0589393,-0.0212393,0.23476,-2.0529,0.285087,0.331,-0.00810769,0.0126344,0.0134014,0.11047,-0.224962,-0.0305891,0.0175967,0.00053256,-0.614933,-4.89322,-0.0337174,0.312229,0.515821,-2.54972,0.0875704,0.816837,-35.0697,0.639662,30.7874,1.28326,3.05321,-0.083206,
0.0603973,-0.0216844,0.233152,-2.05191,0.284513,0.336398,-0.00793894,0.0921894,0.0230973,0.0941714,-0.292026,-0.050261,0.306988,0.00749967,-0.159309,0.0290765,-0.181154,0.782605,-7.84563,-0.937394,0.0375464,10.2136,0.942717,10.4106,-27.7586,-0.854485,3.91524,0.0634671,0.0589393,-0.0212393,0.23476,-2.0529,0.285087,0.331,-0.00810769,0.0126344,0.0134014,0.11047,-0.224962,-0.0305891,0.0175967,0.00053256,0,0,0,0,0,0,0,0.816837,-35.0697,0.639662,30.7874,1.28326,3.05321,-0.083206,
0.0611655,-0.0215059,0.233934,-2.05415,0.283421,0.338919,-0.00787607,0.0929555,0.0229403,0.0948876,-0.289579,-0.067525,0.308612,0.00757143,0.478792,-0.0981492,0.447612,1.52972,-10.7899,1.01486,0.0448483,10.2471,0.925257,10.4323,-27.2618,-1.33866,3.78049,0.0654944,0.0589393,-0.0212393,0.23476,-2.0529,0.285087,0.331,-0.00810769,0.0126344,0.0134014,0.11047,-0.224962,-0.0305891,0.0175967,0.00053256,0,0,0,0,0,0,0,0.816837,-35.0697,0.639662,30.7874,1.28326,3.05321,-0.083206,
0.0602172,-0.0211563,0.236074,-2.05733,0.283914,0.334561,-0.00798681,0.0914298,0.0197404,0.0933135,-0.287585,-0.0727674,0.298624,0.00764114,-0.953552,-1.99994,-0.983831,1.246,-3.27656,-6.24231,0.0435715,10.2136,0.942717,10.4106,-27.7586,-0.854485,3.91524,0.0634671,0.0589393,-0.0212393,0.23476,-2.0529,0.285087,0.331,-0.00810769,0.0126344,0.0134014,0.11047,-0.224962,-0.0305891,0.0175967,0.00053256,0,0,0,0,0,0,0,0.816837,-35.0697,0.639662,30.7874,1.28326,3.05321,-0.083206,
0.0609563,-0.0210715,0.236827,-2.05954,0.282853,0.33691,-0.00792255,0.091622,0.0179113,0.093453,-0.28518,-0.0847409,0.297645,0.00771947,0.120123,-1.14317,0.0872186,1.5031,-7.48344,-0.611701,0.0489546,10.2457,0.848893,10.4232,-27.1899,-1.32714,3.81592,0.065301,0.0594594,-0.0201752,0.238419,-2.06093,0.283351,0.331744,-0.00810729,0.00753093,6.64875e-05,0.0953307,-0.221618,-0.0611469,0.0167859,0.000228277,-0.637929,-1.66687,-1.89245,0.418071,-3.81972,-0.101349,-0.0380355,-0.349545,-34.0224,-0.510851,26.7764,1.02691,2.92687,-0.0767973,
0.0617325,-0.0209713,0.237615,-2.0617,0.281536,0.339397,-0.0078586,0.0927004,0.0168338,0.0944736,-0.282138,-0.100707,0.30027,0.00777426,0.673999,-0.673473,0.637813,1.90161,-9.97861,1.64064,0.0342424,10.2879,0.799956,10.4535,-26.704,-1.70636,3.69943,0.0684399,0.0594594,-0.0201752,0.238419,-2.06093,0.283351,0.331744,-0.00810729,0.00753093,6.64875e-05,0.0953307,-0.221618,-0.0611469,0.0167859,0.000228277,0,0,0,0,0,0,0,-0.349545,-34.0224,-0.510851,26.7764,1.02691,2.92687,-0.0767973,
0.0625322,-0.0208668,0.238426,-2.06381,0.280021,0.34194,-0.00779423,0.0941529,0.0160804,0.0958618,-0.278601,-0.118459,0.303806,0.00782886,0.907849,-0.47086,0.867634,2.21038,-11.0954,2.20947,0.0341279,10.3244,0.728366,10.4776,-26.2279,-1.97224,3.59267,0.0708208,0.0594594,-0.0201752,0.238419,-2.06093,0.283351,0.331744,-0.00810729,0.00753093,6.64875e-05,0.0953307,-0.221618,-0.0611469,0.0167859,0.000228277,0,0,0,0,0,0,0,-0.349545,-34.0224,-0.510851,26.7764,1.02691,2.92687,-0.0767973,
0.0606425,-0.0202002,0.239634,-2.06523,0.281513,0.335252,-0.00797827,0.0913813,0.0131237,0.0930459,-0.277159,-0.121848,0.294229,0.00793564,-1.73224,-1.84792,-1.7599,0.901306,-2.11779,-5.98564,0.0667369,10.2457,0.848893,10.4232,-27.1899,-1.32714,3.81592,0.065301,0.0594594,-0.0201752,0.238419,-2.06093,0.283351,0.331744,-0.00810729,0.00753093,6.64875e-05,0.0953307,-0.221618,-0.0611469,0.0167859,0.000228277,0,0,0,0,0,0,0,-0.349545,-34.0224,-0.510851,26.7764,1.02691,2.92687,-0.0767973,
0.0613502,-0.020151,0.240353,-2.06738,0.28016,0.337586,-0.00791212,0.090796,0.0117295,0.0924142,-0.275366,-0.131307,0.293739,0.00800229,-0.365837,-0.871388,-0.394843,1.12036,-5.91195,-0.305933,0.0416548,10.2879,0.799956,10.4535,-26.704,-1.70636,3.69943,0.0684399,0.0594594,-0.0201752,0.238419,-2.06093,0.283351,0.331744,-0.00810729,0.00753093,6.64875e-05,0.0953307,-0.221618,-0.0611469,0.0167859,0.000228277,0,0,0,0,0,0,0,-0.349545,-34.0224,-0.510851,26.7764,1.02691,2.92687,-0.0767973,
0.0621006,-0.02008,0.241114,-2.06948,0.278603,0.34006,-0.0078463,0.0913979,0.011159,0.0929655,-0.272965,-0.143954,0.296832,0.00804733,0.376208,-0.356552,0.344599,1.50054,-7.90418,1.93286,0.0281536,10.3194,0.660528,10.4661,-26.1665,-1.96168,3.62106,0.0706448,0.0602421,-0.0193292,0.241268,-2.06737,0.281244,0.332153,-0.00811387,0.022195,0.0147635,0.078077,-0.169488,-0.0585838,0.00873692,-0.00184531,1.833,1.83713,-2.15671,6.51628,0.320387,-1.00612,-0.259198,-0.500302,-31.9991,-0.510851,22.5195,1.05163,2.08459,-0.0163725,
0.0628783,-0.0200001,0.241902,-2.07155,0.276908,0.342591,-0.00778097,0.0925613,0.0109239,0.0940715,-0.270059,-0.157558,0.300739,0.00807105,0.727072,-0.146957,0.691228,1.81647,-8.50309,2.44224,0.014824,10.3462,0.574891,10.4811,-25.6983,-2.14915,3.52697,0.0735436,0.0602421,-0.0193292,0.241268,-2.06737,0.281244,0.332153,-0.00811387,0.022195,0.0147635,0.078077,-0.169488,-0.0585838,0.00873692,-0.00184531,0,0,0,0,0,0,0,-0.500302,-31.9991,-0.510851,22.5195,1.05163,2.08459,-0.0163725,
0.0614138,-0.019382,0.242465,-2.07138,0.279311,0.335915,-0.00798357,0.0899777,0.00828524,0.0914419,-0.26757,-0.154889,0.294982,0.00816833,-1.61469,-1.64916,-1.64347,1.55573,1.66824,-3.59813,0.0607981,10.2829,0.732119,10.442,-26.6425,-1.69579,3.72783,0.0682638,0.0602421,-0.0193292,0.241268,-2.06737,0.281244,0.332153,-0.00811387,0.022195,0.0147635,0.078077,-0.169488,-0.0585838,0.00873692,-0.00184531,0,0,0,0,0,0,0,-0.500302,-31.9991,-0.510851,22.5195,1.05163,2.08459,-0.0163725,
0.0621173,-0.0193675,0.243179,-2.07345,0.27787,0.338347,-0.00791537,0.089569,0.00699124,0.0909885,-0.265592,-0.159944,0.296795,0.00823978,-0.255482,-0.808746,-0.283425,1.23602,-3.15911,1.13313,0.0446562,10.3194,0.660528,10.4661,-26.1665,-1.96168,3.62106,0.0706448,0.0602421,-0.0193292,0.241268,-2.06737,0.281244,0.332153,-0.00811387,0.022195,0.0147635,0.078077,-0.169488,-0.0585838,0.00873692,-0.00184531,0,0,0,0,0,0,0,-0.500302,-31.9991,-0.510851,22.5195,1.05163,2.08459,-0.0163725,
0.0628632,-0.0193308,0.243934,-2.07548,0.276237,0.340889,-0.00784845,0.0903031,0.00651211,0.0916753,-0.263384,-0.168783,0.30097,0.00826477,0.458854,-0.299458,0.429253,1.38025,-5.52428,2.60926,0.015623,10.3484,0.504786,10.481,-25.641,-2.13716,3.55458,0.0733728,0.0610661,-0.0189377,0.244285,-2.07323,0.27916,0.33214,-0.00811015,0.0213017,0.00563541,0.0808937,-0.170449,-0.0486682,0.00112517,0.000199292,-0.111655,-1.14101,0.352089,-0.120195,1.23946,-0.951469,0.255575,-0.702633,-31.4,-0.713182,22.6187,0.745846,2.24389,-0.050247,
0.0622646,-0.0190592,0.245507,-2.07715,0.277108,0.335728,-0.00797233,0.0885031,0.00402843,0.0898273,-0.261067,-0.165806,0.29311,0.00839287,-1.12506,-1.5523,-1.15499,1.44788,1.86077,-4.91248,0.0800613,10.3215,0.590423,10.466,-26.1091,-1.94968,3.64867,0.070474,0.0610661,-0.0189377,0.244285,-2.07323,0.27916,0.33214,-0.00811015,0.0213017,0.00563541,0.0808937,-0.170449,-0.0486682,0.00112517,0.000199292,0,0,0,0,0,0,0,-0.702633,-31.4,-0.713182,22.6187,0.745846,2.24389,-0.050247,
0.0629786,-0.0190691,0.24623,-2.07917,0.275596,0.33809,-0.00790287,0.0886519,0.00297562,0.0899324,-0.259283,-0.170436,0.293553,0.00845065,0.0930045,-0.658007,0.0657042,1.1154,-2.89395,0.277145,0.0361106,10.3484,0.504786,10.481,-25.641,-2.13716,3.55458,0.0733728,0.0610661,-0.0189377,0.244285,-2.07323,0.27916,0.33214,-0.00811015,0.0213017,0.00563541,0.0808937,-0.170449,-0.0486682,0.00112517,0.000199292,0,0,0,0,0,0,0,-0.702633,-31.4,-0.713182,22.6187,0.745846,2.24389,-0.050247,
0.0637318,-0.0190536,0.246991,-2.08116,0.273913,0.340572,-0.00783487,0.0897524,0.00276637,0.0909889,-0.257292,-0.178416,0.296889,0.00846061,0.687821,-0.13078,0.660277,1.244,-4.9876,2.08443,0.00622661,10.3578,0.411604,10.4786,-25.1794,-2.24176,3.46737,0.0753942,0.0610661,-0.0189377,0.244285,-2.07323,0.27916,0.33214,-0.00811015,0.0213017,0.00563541,0.0808937,-0.170449,-0.0486682,0.00112517,0.000199292,0,0,0,0,0,0,0,-0.702633,-31.4,-0.713182,22.6187,0.745846,2.24389,-0.050247,
0.0645083,-0.0190244,0.247776,-2.08313,0.272143,0.343095,-0.00776813,0.091213,0.00294295,0.0924011,-0.254977,-0.186995,0.300581,0.00843691,0.912901,0.110362,0.882678,1.44736,-5.36181,2.30758,-0.0148166,10.3477,0.241449,10.458,-24.6679,-2.28334,3.41696,0.0773866,0.0618909,-0.0188974,0.247046,-2.07913,0.278052,0.332135,-0.00810788,0.0229595,0.0159072,0.0793174,-0.162117,-0.0198418,-0.00287268,0.00133998,0.20722,1.28397,-0.197043,1.04149,3.60329,-0.499731,0.142586,-0.40112,-32.3244,-0.463243,25.983,1.08184,2.38305,-0.0703886,
0.0631013,-0.0189528,0.248277,-2.08297,0.276116,0.335654,-0.00796347,0.0893836,0.00173372,0.0905392,-0.253438,-0.179691,0.291852,0.00858839,-1.14341,-0.755769,-1.16373,0.961503,4.56519,-5.45566,0.0946752,10.3464,0.429646,10.4797,-25.5861,-2.12874,3.5827,0.0732058,0.0618909,-0.0188974,0.247046,-2.07913,0.278052,0.332135,-0.00810788,0.0229595,0.0159072,0.0793174,-0.162117,-0.0198418,-0.00287268,0.00133998,0,0,0,0,0,0,0,-0.40112,-32.3244,-0.463243,25.983,1.08184,2.38305,-0.0703886,
0.0638201,-0.0189527,0.249004,-2.08496,0.27461,0.337973,-0.00789223,0.089477,0.00139007,0.090603,-0.252343,-0.181403,0.291466,0.00865154,0.0583925,-0.214784,0.0398661,0.68457,-1.07014,-0.241296,0.0394681,10.3558,0.336464,10.4773,-25.1245,-2.23334,3.49549,0.0752271,0.0618909,-0.0188974,0.247046,-2.07913,0.278052,0.332135,-0.00810788,0.0229595,0.0159072,0.0793174,-0.162117,-0.0198418,-0.00287268,0.00133998,0,0,0,0,0,0,0,-0.40112,-32.3244,-0.463243,25.983,1.08184,2.38305,-0.0703886,
0.0645759,-0.0189348,0.249768,-2.08692,0.272938,0.340409,-0.00782347,0.0904774,0.00155901,0.0915712,-0.250926,-0.186942,0.294071,0.00864023,0.625231,0.10559,0.605158,0.885573,-3.4621,1.62842,-0.00706258,10.3477,0.241449,10.458,-24.6679,-2.28334,3.41696,0.0773866,0.0618909,-0.0188974,0.247046,-2.07913,0.278052,0.332135,-0.00810788,0.0229595,0.0159072,0.0793174,-0.162117,-0.0198418,-0.00287268,0.00133998,0,0,0,0,0,0,0,-0.40112,-32.3244,-0.463243,25.983,1.08184,2.38305,-0.0703886,
0.0642645,-0.0189878,0.251362,-2.08857,0.27577,0.33556,-0.00796682,0.08996,-0.000425341,0.0910158,-0.248906,-0.178136,0.285244,0.00877617,-0.323327,-1.24022,-0.347149,1.26267,5.50374,-5.51672,0.084962,10.3599,0.258644,10.4821,-25.069,-2.22492,3.52277,0.0750601,0.0629484,-0.0188357,0.250026,-2.08483,0.277559,0.332148,-0.00811352,0.0311764,0.00485439,0.0889803,-0.16176,0.000958918,-0.00275675,-0.000653958,1.02712,-1.3816,1.20786,0.0446715,2.60009,0.0144923,-0.249242,1.72931,-32.7489,1.61165,26.6772,1.03332,2.3034,-0.0227812,
0.0650186,-0.0190228,0.252123,-2.09051,0.274324,0.337828,-0.0078955,0.0908199,-0.00121616,0.0918448,-0.247484,-0.17865,0.284875,0.00880394,0.537439,-0.494263,0.518131,0.888601,-0.321428,-0.230856,0.0173533,10.3518,0.163628,10.4628,-24.6124,-2.27492,3.44424,0.0772196,0.0629484,-0.0188357,0.250026,-2.08483,0.277559,0.332148,-0.00811352,0.0311764,0.00485439,0.0889803,-0.16176,0.000958918,-0.00275675,-0.000653958,0,0,0,0,0,0,0,1.72931,-32.7489,1.61165,26.6772,1.03332,2.3034,-0.0227812,
0.0658003,-0.0190351,0.252912,-2.09242,0.272719,0.340216,-0.00782667,0.092199,-0.00127922,0.0931939,-0.245876,-0.183057,0.287617,0.00876398,0.861945,-0.0394112,0.843168,1.00488,-2.754,1.714,-0.0249742,10.3225,0.0706726,10.4226,-24.1597,-2.26841,3.37072,0.0785574,0.0629484,-0.0188357,0.250026,-2.08483,0.277559,0.332148,-0.00811352,0.0311764,0.00485439,0.0889803,-0.16176,0.000958918,-0.00275675,-0.000653958,0,0,0,0,0,0,0,1.72931,-32.7489,1.61165,26.6772,1.03332,2.3034,-0.0227812,
0.0665952,-0.0190342,0.253713,-2.09431,0.271051,0.34265,-0.00775975,0.0936306,-0.00100074,0.0945916,-0.24392,-0.188147,0.290946,0.00868415,0.89473,0.17405,0.87356,1.22227,-3.18119,2.08017,-0.0498944,10.2737,-0.0171106,10.3637,-23.7098,-2.22687,3.30298,0.079852,0.0629484,-0.0188357,0.250026,-2.08483,0.277559,0.332148,-0.00811352,0.0311764,0.00485439,0.0889803,-0.16176,0.000958918,-0.00275675,-0.000653958,0,0,0,0,0,0,0,1.72931,-32.7489,1.61165,26.6772,1.03332,2.3034,-0.0227812,
0.0642643,-0.0189818,0.25136,-2.08852,0.275732,0.335464,-0.0079637,0.0924605,-0.00242639,0.0933901,-0.242569,-0.179447,0.281378,0.00883442,-0.731309,-0.891032,-0.750937,0.844478,5.43764,-5.97992,0.093916,10.3507,0.0950646,10.4611,-24.5596,-2.26935,3.47163,0.0770706,0.0642789,-0.0186366,0.252882,-2.09032,0.277534,0.332214,-0.00810944,0.0430191,0.0139691,0.0837737,-0.155353,0.00536128,0.000397514,0.000215999,1.48034,1.13934,-0.650825,0.800816,0.550295,0.394282,0.108745,2.11017,-31.7015,1.96077,24.9594,1.03332,1.87951,-0.0566557,
0.0650158,-0.0190173,0.252118,-2.09042,0.274291,0.337673,-0.00789169,0.0927551,-0.00282737,0.0936605,-0.241654,-0.179581,0.28033,0.00886777,0.184106,-0.250613,0.169002,0.571815,-0.08429,-0.654885,0.020849,10.3214,0.00210871,10.4209,-24.107,-2.26283,3.3981,0.0784085,0.0642789,-0.0186366,0.252882,-2.09032,0.277534,0.332214,-0.00810944,0.0430191,0.0139691,0.0837737,-0.155353,0.00536128,0.000397514,0.000215999,0,0,0,0,0,0,0,2.11017,-31.7015,1.96077,24.9594,1.03332,1.87951,-0.0566557,
0.0657931,-0.0190314,0.252902,-2.09231,0.272713,0.340003,-0.00782277,0.0936376,-0.00261605,0.094519,-0.240443,-0.183116,0.282522,0.00881715,0.551543,0.132074,0.536575,0.757087,-2.20912,1.37029,-0.0316397,10.2727,-0.0856745,10.362,-23.6571,-2.22129,3.33036,0.0797031,0.0642789,-0.0186366,0.252882,-2.09032,0.277534,0.332214,-0.00810944,0.0430191,0.0139691,0.0837737,-0.155353,0.00536128,0.000397514,0.000215999,0,0,0,0,0,0,0,2.11017,-31.7015,1.96077,24.9594,1.03332,1.87951,-0.0566557,
0.0665821,-0.0190332,0.253696,-2.09416,0.271092,0.34238,-0.00775586,0.0946341,-0.00213725,0.0954875,-0.238792,-0.187008,0.28544,0.00872652,0.622815,0.299254,0.605342,1.03155,-2.43275,1.82371,-0.0566458,10.2032,-0.166414,10.2828,-23.2092,-2.14444,3.26631,0.0803084,0.0642789,-0.0186366,0.252882,-2.09032,0.277534,0.332214,-0.00810944,0.0430191,0.0139691,0.0837737,-0.155353,0.00536128,0.000397514,0.000215999,0,0,0,0,0,0,0,2.11017,-31.7015,1.96077,24.9594,1.03332,1.87951,-0.0566557,
0.0656237,-0.0187242,0.254242,-2.09395,0.275794,0.335515,-0.0079592,0.0935323,-0.00282726,0.094359,-0.237742,-0.177368,0.276544,0.00887502,-0.688606,-0.431257,-0.705336,0.656829,6.02496,-5.5599,0.0928164,10.3245,-0.0685038,10.4235,-24.0545,-2.2571,3.42565,0.0782651,0.0662616,-0.0184395,0.255817,-2.09567,0.277516,0.332217,-0.00811337,0.0560034,0.00649543,0.0789367,-0.157353,0.00479418,-0.00995008,0.000981368,1.62305,-0.934212,-0.604617,-0.249908,-0.0708883,-1.29345,0.0956711,0.158268,-31.8999,-0.0109729,26.3559,1.1679,2.24389,-0.050247,
0.0663808,-0.0187498,0.255004,-2.09583,0.274411,0.337695,-0.00788735,0.0937531,-0.00290183,0.0945587,-0.237061,-0.17646,0.275722,0.00889613,0.138004,-0.0466091,0.124809,0.425663,0.567616,-0.514205,0.0131891,10.2758,-0.15629,10.3645,-23.6045,-2.21556,3.3579,0.0795596,0.0662616,-0.0184395,0.255817,-2.09567,0.277516,0.332217,-0.00811337,0.0560034,0.00649543,0.0789367,-0.157353,0.00479418,-0.00995008,0.000981368,0,0,0,0,0,0,0,0.158268,-31.8999,-0.0109729,26.3559,1.1679,2.24389,-0.050247,
0.0671599,-0.0187605,0.255789,-2.09768,0.272904,0.33999,-0.00781863,0.0944786,-0.00258932,0.0952626,-0.236004,-0.178865,0.277943,0.00883494,0.453419,0.195323,0.439928,0.660458,-1.50275,1.38824,-0.0382405,10.2063,-0.23703,10.2853,-23.1567,-2.1387,3.29383,0.0801647,0.0662616,-0.0184395,0.255817,-2.09567,0.277516,0.332217,-0.00811337,0.0560034,0.00649543,0.0789367,-0.157353,0.00479418,-0.00995008,0.000981368,0,0,0,0,0,0,0,0.158268,-31.8999,-0.0109729,26.3559,1.1679,2.24389,-0.050247,
0.0676492,-0.0185821,0.257216,-2.09925,0.275828,0.335338,-0.00796273,0.0938381,-0.00375162,0.0945898,-0.234738,-0.169877,0.26846,0.00895309,-0.400279,-0.726437,-0.42048,0.790922,5.61743,-5.92713,0.0738407,10.2754,-0.157392,10.3643,-23.6036,-2.22303,3.36961,0.079575,0.0662616,-0.0184395,0.255817,-2.09567,0.277516,0.332217,-0.00811337,0.0560034,0.00649543,0.0789367,-0.157353,0.00479418,-0.00995008,0.000981368,0,0,0,0,0,0,0,0.158268,-31.8999,-0.0109729,26.3559,1.1679,2.24389,-0.050247,
0.0684173,-0.0186253,0.257989,-2.10109,0.274506,0.337449,-0.00789131,0.0942745,-0.00408183,0.0950026,-0.233821,-0.168943,0.267549,0.00894793,0.272738,-0.206382,0.25801,0.573136,0.583762,-0.569152,-0.00322273,10.2028,-0.309694,10.2824,-23.1077,-2.14225,3.32896,0.0800457,0.0685093,-0.0184041,0.258211,-2.10076,0.277543,0.332325,-0.00811092,0.0684922,0.00958818,0.0618546,-0.142714,0.0168562,-0.00168024,0.000115247,1.5611,0.386594,-2.13527,1.82977,1.50775,1.03373,-0.108265,-1.82141,-31.9753,-1.8637,26.2805,0.990292,2.32995,-0.0429228,
0.0692024,-0.0186508,0.25878,-2.10291,0.273077,0.339688,-0.00782335,0.0950473,-0.00390223,0.0957529,-0.232548,-0.170877,0.270018,0.00885747,0.483012,0.112245,0.468942,0.795761,-1.20917,1.54319,-0.0565353,10.1151,-0.382157,10.1857,-22.6613,-2.04543,3.26844,0.080494,0.0685093,-0.0184041,0.258211,-2.10076,0.277543,0.332325,-0.00811092,0.0684922,0.00958818,0.0618546,-0.142714,0.0168562,-0.00168024,0.000115247,0,0,0,0,0,0,0,-1.82141,-31.9753,-1.8637,26.2805,0.990292,2.32995,-0.0429228,
0.069992,-0.018666,0.259574,-2.1047,0.271631,0.341982,-0.0077578,0.095778,-0.00350129,0.096458,-0.230791,-0.17287,0.273358,0.0087246,0.456693,0.250592,0.440667,1.09789,-1.2455,2.08742,-0.0830435,10.0095,-0.445785,10.0714,-22.2159,-1.92937,3.21063,0.0803837,0.0685093,-0.0184041,0.258211,-2.10076,0.277543,0.332325,-0.00811092,0.0684922,0.00958818,0.0618546,-0.142714,0.0168562,-0.00168024,0.000115247,0,0,0,0,0,0,0,-1.82141,-31.9753,-1.8637,26.2805,0.990292,2.32995,-0.0429228,
0.0698704,-0.0185607,0.25958,-2.10421,0.27599,0.335657,-0.00795964,0.0945552,-0.00475636,0.0952059,-0.229229,-0.163614,0.267438,0.00887814,-0.764297,-0.78442,-0.782587,0.976763,5.78507,-3.69989,0.0959602,10.1992,-0.320666,10.2793,-23.0978,-2.21585,3.44871,0.0801973,0.0685093,-0.0184041,0.258211,-2.10076,0.277543,0.332325,-0.00811092,0.0684922,0.00958818,0.0618546,-0.142714,0.0168562,-0.00168024,0.000115247,0,0,0,0,0,0,0,-1.82141,-31.9753,-1.8637,26.2805,0.990292,2.32995,-0.0429228,
0.0706266,-0.0186174,0.26034,-2.106,0.27472,0.337867,-0.00788821,0.0945478,-0.005221,0.0951796,-0.228209,-0.162639,0.269202,0.00888814,-0.00459184,-0.290398,-0.0164227,0.637505,0.609145,1.10265,0.00624706,10.1114,-0.393322,10.1824,-22.6515,-2.11853,3.38709,0.0806321,0.0685093,-0.0184041,0.258211,-2.10076,0.277543,0.332325,-0.00811092,0.0684922,0.00958818,0.0618546,-0.142714,0.0168562,-0.00168024,0.000115247,0,0,0,0,0,0,0,-1.82141,-31.9753,-1.8637,26.2805,0.990292,2.32995,-0.0429228,
0.0713999,-0.0186567,0.261118,-2.10778,0.273341,0.340197,-0.00782049,0.0949726,-0.00515972,0.0955871,-0.226915,-0.164589,0.273628,0.0088036,0.265472,0.0382988,0.254718,0.808336,-1.21816,2.76635,-0.0528347,10.0082,-0.526688,10.0708,-22.1588,-1.99688,3.35131,0.0803906,0.0705301,-0.0183051,0.260863,-2.10565,0.277546,0.3323,-0.00811128,0.0525408,-0.00181909,0.0768106,-0.144096,0.00359204,-0.00849537,0.000432944,-1.99393,-1.42591,1.86951,-0.172757,-1.65802,-0.851891,0.0397121,0.158268,-31.3524,0.211195,26.2051,1.02142,2.44988,-0.0429228,
0.0721777,-0.0186854,0.2619,-2.10952,0.271946,0.342577,-0.00775557,0.0954217,-0.00484508,0.0960161,-0.22518,-0.166559,0.278384,0.00866588,0.280738,0.19665,0.268099,1.08464,-1.23174,2.97255,-0.0860761,9.88721,-0.581421,9.94162,-21.7142,-1.87159,3.29455,0.0800707,0.0705301,-0.0183051,0.260863,-2.10565,0.277546,0.3323,-0.00811128,0.0525408,-0.00181909,0.0768106,-0.144096,0.00359204,-0.00849537,0.000432944,0,0,0,0,0,0,0,0.158268,-31.3524,0.211195,26.2051,1.02142,2.44988,-0.0429228,
0.071906,-0.018544,0.262248,-2.1091,0.275585,0.33616,-0.00795444,0.0945036,-0.00659755,0.0950732,-0.22452,-0.16412,0.280015,0.00887798,-0.573857,-1.0953,-0.58933,0.412297,1.52483,1.01921,0.132562,10.0962,-0.547098,10.1708,-22.5314,-2.58634,4.32422,0.0816761,0.0705301,-0.0183051,0.260863,-2.10565,0.277546,0.3323,-0.00811128,0.0525408,-0.00181909,0.0768106,-0.144096,0.00359204,-0.00849537,0.000432944,0,0,0,0,0,0,0,0.158268,-31.3524,0.211195,26.2051,1.02142,2.44988,-0.0429228,
0.0726703,-0.0186198,0.263016,-2.11088,0.274076,0.338813,-0.00788204,0.0947108,-0.00717072,0.0952686,-0.224066,-0.169021,0.290359,0.00891248,0.129547,-0.358232,0.122139,0.283792,-3.06313,6.46487,0.0215636,9.98899,-0.612857,10.0549,-22.0874,-2.46643,4.25571,0.0814271,0.0705301,-0.0183051,0.260863,-2.10565,0.277546,0.3323,-0.00811128,0.0525408,-0.00181909,0.0768106,-0.144096,0.00359204,-0.00849537,0.000432944,0,0,0,0,0,0,0,0.158268,-31.3524,0.211195,26.2051,1.02142,2.44988,-0.0429228,
0.073449,-0.018672,0.263799,-2.11263,0.272451,0.341654,-0.00781404,0.0952369,-0.00704273,0.0957856,-0.223091,-0.175842,0.303299,0.00882994,0.328778,0.0799968,0.323138,0.609641,-4.26359,8.08727,-0.0515855,9.86667,-0.740494,9.92396,-21.5936,-2.3341,4.21481,0.0808891,0.0720729,-0.0181208,0.263901,-2.11063,0.277533,0.332285,-0.00810939,0.0396315,0.000261885,0.0913757,-0.13791,0.00421346,-0.00179754,0.00114965,-1.61366,0.260123,1.82063,0.773304,0.077678,0.837228,0.0895885,0.741459,-32.249,0.687269,26.106,1.15509,2.48284,-0.0566557,
0.0742288,-0.0187106,0.264583,-2.11435,0.270806,0.344586,-0.0077492,0.0956849,-0.00659814,0.0962217,-0.221492,-0.181795,0.315932,0.0086849,0.280001,0.27787,0.272573,0.999099,-3.72057,7.89554,-0.0906539,9.73145,-0.78665,9.78101,-21.1503,-2.19974,4.15159,0.0801046,0.0720729,-0.0181208,0.263901,-2.11063,0.277533,0.332285,-0.00810939,0.0396315,0.000261885,0.0913757,-0.13791,0.00421346,-0.00179754,0.00114965,0,0,0,0,0,0,0,0.741459,-32.249,0.687269,26.106,1.15509,2.48284,-0.0566557,
0.073529,-0.0183496,0.265367,-2.11424,0.275007,0.338641,-0.00793716,0.0958498,-0.0077399,0.0963641,-0.22377,-0.185152,0.347548,0.00905306,0.103068,-0.713604,0.0889589,-1.42374,-2.09822,19.7605,0.2301,10.05,-1.01146,10.1211,-21.8773,-3.35879,7.69653,0.0861782,0.0720729,-0.0181208,0.263901,-2.11063,0.277533,0.332285,-0.00810939,0.0396315,0.000261885,0.0913757,-0.13791,0.00421346,-0.00179754,0.00114965,0,0,0,0,0,0,0,0.741459,-32.249,0.687269,26.106,1.15509,2.48284,-0.0566557,
0.0743374,-0.0184084,0.26618,-2.11609,0.273065,0.343087,-0.0078609,0.0968892,-0.00766176,0.097399,-0.225169,-0.196669,0.389171,0.00914901,0.649637,0.0488369,0.64683,-0.874186,-7.19807,26.0144,0.0599717,9.92117,-1.10159,9.98361,-21.4523,-3.18497,7.52605,0.0844206,0.0720729,-0.0181208,0.263901,-2.11063,0.277533,0.332285,-0.00810939,0.0396315,0.000261885,0.0913757,-0.13791,0.00421346,-0.00179754,0.00114965,0,0,0,0,0,0,0,0.741459,-32.249,0.687269,26.106,1.15509,2.48284,-0.0566557,
0.0751539,-0.0184435,0.267,-2.11789,0.270967,0.34789,-0.00779053,0.0979248,-0.00700876,0.098435,-0.225105,-0.209792,0.43143,0.00907833,0.647223,0.408126,0.647509,0.0397231,-8.2014,26.4119,-0.0441759,9.79091,-1.23408,9.845,-20.9763,-3.01484,7.39237,0.082794,0.0736872,-0.017931,0.266923,-2.11523,0.277517,0.332323,-0.00810874,0.047561,0.00179751,0.0874038,-0.1276,0.00560308,0.00307569,0.00102958,0.991187,0.191953,-0.496492,1.28872,0.173702,0.609154,-0.0150085,-0.0718349,-32.1498,-0.137926,25.5823,1.20453,2.45629,-0.0630644,
0.075245,-0.0182492,0.268477,-2.11903,0.273725,0.341159,-0.00788778,0.0989736,-0.00940828,0.0993102,-0.229655,-0.226596,0.478037,0.00985123,0.655501,-1.4997,0.546986,-2.84379,-10.5025,29.1292,0.483065,9.60215,-2.17197,9.6053,-21.6291,-5.16844,10.9032,0.113267,0.0736872,-0.017931,0.266923,-2.11523,0.277517,0.332323,-0.00810874,0.047561,0.00179751,0.0874038,-0.1276,0.00560308,0.00307569,0.00102958,0,0,0,0,0,0,0,-0.0718349,-32.1498,-0.137926,25.5823,1.20453,2.45629,-0.0630644,
0.076104,-0.0183696,0.269334,-2.12101,0.2709,0.34752,-0.00779637,0.100653,-0.0105357,0.100874,-0.233115,-0.251917,0.541435,0.0101662,1.04955,-0.704634,0.977155,-2.16247,-15.826,39.6237,0.196835,9.55379,-2.62979,9.54217,-21.3878,-4.71384,10.9032,0.10214,0.0736872,-0.017931,0.266923,-2.11523,0.277517,0.332323,-0.00810874,0.047561,0.00179751,0.0874038,-0.1276,0.00560308,0.00307569,0.00102958,0,0,0,0,0,0,0,-0.0718349,-32.1498,-0.137926,25.5823,1.20453,2.45629,-0.0630644,
0.0769668,-0.0184689,0.270196,-2.12293,0.267872,0.354531,-0.00771187,0.102093,-0.0109111,0.102237,-0.234595,-0.277221,0.608444,0.0102454,0.900396,-0.234601,0.852099,-0.925113,-15.8152,41.8808,0.0495161,9.59143,-2.81173,9.57147,-21.0727,-4.3838,10.9032,0.0982,0.0736872,-0.017931,0.266923,-2.11523,0.277517,0.332323,-0.00810874,0.047561,0.00179751,0.0874038,-0.1276,0.00560308,0.00307569,0.00102958,0,0,0,0,0,0,0,-0.0718349,-32.1498,-0.137926,25.5823,1.20453,2.45629,-0.0630644,
0.0778195,-0.0185569,0.271048,-2.12479,0.264807,0.361966,-0.0076313,0.102992,-0.0109299,0.103084,-0.234231,-0.298409,0.67263,0.0102106,0.56178,-0.011789,0.529091,0.227958,-13.2421,40.1162,-0.021746,9.62978,-2.87563,9.60328,-20.666,-4.10357,10.9171,0.0969378,0.0753626,-0.017549,0.27007,-2.1192,0.27747,0.333515,-0.00811387,0.040715,0.0106198,0.0847743,-0.0993102,-0.00363052,0.0850221,-0.000424297,-0.855752,1.10278,-0.328679,3.53625,-1.1542,10.2433,-0.181735,0.562931,-30.9517,0.43733,24.9832,1.06353,2.73461,-0.0163725,
0.0768646,-0.0179038,0.271593,-2.1228,0.272412,0.343312,-0.00786399,0.102426,-0.0134054,0.102714,-0.235014,-0.316439,0.681532,0.0111062,-0.354193,-1.54717,-0.230853,-0.489628,-11.2688,5.56369,0.55977,9.13081,-2.33442,9.29729,-21.8633,-6.7861,10.9171,0.127167,0.0753626,-0.017549,0.27007,-2.1192,0.27747,0.333515,-0.00811387,0.040715,0.0106198,0.0847743,-0.0993102,-0.00363052,0.0850221,-0.000424297,0,0,0,0,0,0,0,0.562931,-30.9517,0.43733,24.9832,1.06353,2.73461,-0.0163725,
0.0777052,-0.0180704,0.272443,-2.12473,0.268692,0.349996,-0.00775873,0.102955,-0.0148881,0.103412,-0.236222,-0.346145,0.712346,0.0115166,0.330665,-0.926668,0.435938,-0.754971,-18.5663,19.2585,0.256449,9.2638,-2.87595,9.40249,-21.7007,-6.21289,10.9171,0.115875,0.0753626,-0.017549,0.27007,-2.1192,0.27747,0.333515,-0.00811387,0.040715,0.0106198,0.0847743,-0.0993102,-0.00363052,0.0850221,-0.000424297,0,0,0,0,0,0,0,0.562931,-30.9517,0.43733,24.9832,1.06353,2.73461,-0.0163725,
0.0785548,-0.018217,0.273302,-2.12663,0.264705,0.357258,-0.00766002,0.103604,-0.0155769,0.104204,-0.236411,-0.376576,0.751418,0.011681,0.406119,-0.430496,0.495069,-0.118319,-19.0192,24.42,0.10279,9.474,-3.05176,9.59613,-21.4294,-5.79566,10.9171,0.113266,0.0753626,-0.017549,0.27007,-2.1192,0.27747,0.333515,-0.00811387,0.040715,0.0106198,0.0847743,-0.0993102,-0.00363052,0.0850221,-0.000424297,0,0,0,0,0,0,0,0.562931,-30.9517,0.43733,24.9832,1.06353,2.73461,-0.0163725,
0.0787206,-0.0173846,0.274371,-2.12623,0.270905,0.354152,-0.0078903,0.102334,-0.0168119,0.103009,-0.234066,-0.379968,0.772223,0.0120997,-0.794199,-0.771905,-0.746507,1.46569,-2.12013,13.0034,0.261698,9.23965,-2.85948,9.37532,-21.7218,-6.21472,10.8955,0.116184,0.077242,-0.0170883,0.272875,-2.12281,0.276265,0.341569,-0.00811487,0.0597566,0.0222615,0.0794854,-0.103703,-0.0902819,0.417862,0.00035018,2.3802,1.45521,-0.661113,-0.549063,-10.8314,41.605,0.0968097,-0.29797,-32.0268,-0.312487,26.8042,1.06994,3.32512,-0.050247,
0.0795315,-0.0175562,0.27519,-2.12805,0.267267,0.361587,-0.00778747,0.10214,-0.0177396,0.102888,-0.232722,-0.394931,0.803669,0.0122505,-0.121076,-0.579824,-0.0758723,0.840045,-9.35218,19.654,0.0942502,9.44985,-3.03529,9.56896,-21.4505,-5.79749,10.8955,0.113575,0.077242,-0.0170883,0.272875,-2.12281,0.276265,0.341569,-0.00811487,0.0597566,0.0222615,0.0794854,-0.103703,-0.0902819,0.417862,0.00035018,0,0,0,0,0,0,0,-0.29797,-32.0268,-0.312487,26.8042,1.06994,3.32512,-0.050247,
0.0803518,-0.0177152,0.276019,-2.12984,0.263432,0.36937,-0.00768965,0.10222,-0.018167,0.103034,-0.231057,-0.411806,0.837495,0.0122459,0.0497339,-0.267102,0.0911547,1.04092,-10.5465,21.1412,-0.00288064,9.64521,-2.99728,9.7544,-21.1069,-5.43974,10.8955,0.113763,0.077242,-0.0170883,0.272875,-2.12281,0.276265,0.341569,-0.00811487,0.0597566,0.0222615,0.0794854,-0.103703,-0.0902819,0.417862,0.00035018,0,0,0,0,0,0,0,-0.29797,-32.0268,-0.312487,26.8042,1.06994,3.32512,-0.050247,
0.0811698,-0.0178608,0.276846,-2.1316,0.259584,0.377365,-0.00759535,0.102225,-0.0181737,0.103098,-0.228809,-0.425655,0.869873,0.0121541,0.00367273,-0.00422742,0.040155,1.40492,-8.6559,20.2361,-0.0573787,9.79456,-2.85664,9.89752,-20.7254,-5.10632,10.8955,0.114273,0.077242,-0.0170883,0.272875,-2.12281,0.276265,0.341569,-0.00811487,0.0597566,0.0222615,0.0794854,-0.103703,-0.0902819,0.417862,0.00035018,0,0,0,0,0,0,0,-0.29797,-32.0268,-0.312487,26.8042,1.06994,3.32512,-0.050247,
0.0787207,-0.0173814,0.274369,-2.12621,0.271205,0.354135,-0.00789433,0.101256,-0.0187688,0.102134,-0.227614,-0.414798,0.866705,0.0124677,-0.605816,-0.37188,-0.602449,0.746828,6.78578,-1.98018,0.195984,9.41535,-2.9462,9.53467,-21.5488,-5.78522,10.813,0.114433,0.0795373,-0.0169624,0.275571,-2.12717,0.270136,0.360808,-0.0081094,0.0684725,0.0109887,0.0772731,-0.130705,-0.23719,0.648227,0.000728762,1.08948,-1.40909,-0.276538,-3.37526,-18.3636,28.7956,0.0473228,-0.452694,-32.5227,-0.487047,27.8754,1.07635,3.51006,-0.0566557,
0.0795344,-0.0175427,0.275191,-2.128,0.267774,0.361559,-0.00779131,0.101348,-0.0190478,0.102247,-0.226985,-0.417636,0.878952,0.0125498,0.0572615,-0.174432,0.0704239,0.393155,-1.77375,7.6542,0.0512925,9.61071,-2.90819,9.72012,-21.2052,-5.42747,10.813,0.11462,0.0795373,-0.0169624,0.275571,-2.12717,0.270136,0.360808,-0.0081094,0.0684725,0.0109887,0.0772731,-0.130705,-0.23719,0.648227,0.000728762,0,0,0,0,0,0,0,-0.452694,-32.5227,-0.487047,27.8754,1.07635,3.51006,-0.0566557,
0.0803583,-0.0176882,0.276023,-2.12977,0.264163,0.369331,-0.0076938,0.101676,-0.0188771,0.102603,-0.225781,-0.42437,0.897464,0.0124776,0.204886,0.106727,0.222617,0.752451,-4.20891,11.5701,-0.0451285,9.76006,-2.76755,9.86324,-20.8237,-5.09405,10.813,0.115131,0.0795373,-0.0169624,0.275571,-2.12717,0.270136,0.360808,-0.0081094,0.0684725,0.0109887,0.0772731,-0.130705,-0.23719,0.648227,0.000728762,0,0,0,0,0,0,0,-0.452694,-32.5227,-0.487047,27.8754,1.07635,3.51006,-0.0566557,
0.0811799,-0.0178191,0.276853,-2.1315,0.260549,0.377318,-0.00760051,0.101879,-0.0183724,0.102836,-0.22385,-0.42986,0.91765,0.0123143,0.127378,0.315426,0.145927,1.20702,-3.43092,12.6167,-0.102043,9.85845,-2.58862,9.95744,-20.4252,-4.77145,10.813,0.114932,0.0795373,-0.0169624,0.275571,-2.12717,0.270136,0.360808,-0.0081094,0.0684725,0.0109887,0.0772731,-0.130705,-0.23719,0.648227,0.000728762,0,0,0,0,0,0,0,-0.452694,-32.5227,-0.487047,27.8754,1.07635,3.51006,-0.0566557,
0.0809695,-0.0172666,0.277019,-2.1305,0.264083,0.375077,-0.00790041,0.100157,-0.0189009,0.10111,-0.222207,-0.42622,0.921241,0.0124727,-1.07622,-0.330328,-1.07883,1.02686,2.27473,2.24425,0.0989992,9.61574,-2.86514,9.72545,-21.2653,-5.38127,10.7192,0.115014,0.0819204,-0.0169189,0.278203,-2.13142,0.262366,0.383963,-0.00811532,0.0659858,6.69009e-05,0.0630006,-0.105526,-0.191298,0.662048,1.46176e-05,-0.310835,-1.36523,-1.78407,3.14733,5.73652,1.72761,-0.0892681,-3.41626,-33.0742,-3.28795,28.0222,0.837399,3.50365,-0.0163725,
