xiao-wang007/linearmpc_panda/paper_data/panda_inverse_dynamics_controller_Start_at_0_no_acceleration_ff/0/trajectory.csv
Commanded Joint 0 Position,Commanded Joint 1 Position,Commanded Joint 2 Position,Commanded Joint 3 Position,Commanded Joint 4 Position,Commanded Joint 5 Position,Commanded Joint 6 Position,Commanded Joint 0 Velocity,Commanded Joint 1 Velocity,Commanded Joint 2 Velocity,Commanded Joint 3 Velocity,Commanded Joint 4 Velocity,Commanded Joint 5 Velocity,Commanded Joint 6 Velocity,Commanded Joint 0 Acceleration,Commanded Joint 1 Acceleration,Commanded Joint 2 Acceleration,Commanded Joint 3 Acceleration,Commanded Joint 4 Acceleration,Commanded Joint 5 Acceleration,Commanded Joint 6 Acceleration,Commanded Joint 0 Torque,Commanded Joint 1 Torque,Commanded Joint 2 Torque,Commanded Joint 3 Torque,Commanded Joint 4 Torque,Commanded Joint 5 Torque,Commanded Joint 6 Torque,Actual Joint 0 Position,Actual Joint 1 Position,Actual Joint 2 Position,Actual Joint 3 Position,Actual Joint 4 Position,Actual Joint 5 Position,Actual Joint 6 Position,Actual Joint 0 Velocity,Actual Joint 1 Velocity,Actual Joint 2 Velocity,Actual Joint 3 Velocity,Actual Joint 4 Velocity,Actual Joint 5 Velocity,Actual Joint 6 Velocity,Actual Joint 0 Acceleration,Actual Joint 1 Acceleration,Actual Joint 2 Acceleration,Actual Joint 3 Acceleration,Actual Joint 4 Acceleration,Actual Joint 5 Acceleration,Actual Joint 6 Acceleration,Actual Joint 0 Torque,Actual Joint 1 Torque,Actual Joint 2 Torque,Actual Joint 3 Torque,Actual Joint 4 Torque,Actual Joint 5 Torque,Actual Joint 6 Torque,
-0.0050614,-0.0529157,0.0256376,-1.84666,-0.0546185,0.282945,0.0926751,0.000563516,0.0209875,0.000639539,-0.0339131,-0.00272833,0.0527835,-0.000357634,0,0,0,0,0,0,0,0.0578771,22.8959,0.140869,-24.4831,-0.354466,1.84006,-0.023981,-0.00511734,-0.0535799,0.0255822,-1.8437,-0.0544561,0.277273,0.0927177,0.00225637,-0.000835674,0.00109991,-0.000804732,-0.00379649,-0.000156502,-0.000398026,0,0,0,0,0,0,0,0.00751081,-33.9232,-0.260912,27.4509,0.569149,3.31139,-0.0163725,
-0.00509674,-0.053583,0.025603,-1.8437,-0.0544685,0.277273,0.0927166,0.000571523,0.0167934,0.000632767,-0.0271182,-0.00213563,0.042274,-0.00029131,0,0,0,0,0,0,0,0.0521033,23.3401,0.13029,-24.3989,-0.355165,1.58993,-0.0224687,-0.00511502,-0.0534527,0.025579,-1.84376,-0.0544519,0.277276,0.0927174,0.00108814,0.00106122,-0.000737663,0.000696533,-0.00277049,0.00157228,-0.000602048,-0.146029,0.237112,-0.229697,0.187658,0.12825,0.216097,-0.0255028,0.0551182,-33.6495,-0.185533,27.2763,0.526119,3.31139,0.0101778,
-0.0050931,-0.0535823,0.0256066,-1.8437,-0.0544649,0.277276,0.0927164,0.0005482,0.0134518,0.000596488,-0.0216803,-0.00161724,0.0338976,-0.000236507,0,0,0,0,0,0,0,0.0448661,23.9117,0.118529,-24.2908,-0.355009,1.24233,-0.0205007,-0.00511502,-0.0534527,0.025579,-1.84376,-0.0544519,0.277276,0.0927174,0.00108814,0.00106122,-0.000737663,0.000696533,-0.00277049,0.00157228,-0.000602048,0,0,0,0,0,0,0,0.0551182,-33.6495,-0.185533,27.2763,0.526119,3.31139,0.0101778,
-0.0050903,-0.0535813,0.0256093,-1.8437,-0.0544608,0.27728,0.0927163,0.00050841,0.0107873,0.000545642,-0.0173296,-0.00119078,0.0272159,-0.000191649,0,0,0,0,0,0,0,0.0389016,24.4357,0.109082,-24.123,-0.353345,0.85713,-0.0185008,-0.00511502,-0.0534527,0.025579,-1.84376,-0.0544519,0.277276,0.0927174,0.00108814,0.00106122,-0.000737663,0.000696533,-0.00277049,0.00157228,-0.000602048,0,0,0,0,0,0,0,0.0551182,-33.6495,-0.185533,27.2763,0.526119,3.31139,0.0101778,
-0.00538117,-0.0536307,0.0253249,-1.84353,-0.0409091,0.271254,0.0926779,0.0001981,0.00847498,0.000205289,-0.0138137,0.0573901,-0.00540504,-0.000174158,0,0,0,0,0,0,0,0.0366231,24.7586,0.104843,-23.8586,-0.348952,0.484282,-0.0167793,-0.00511502,-0.0534527,0.025579,-1.84376,-0.0544519,0.277276,0.0927174,0.00108814,0.00106122,-0.000737663,0.000696533,-0.00277049,0.00157228,-0.000602048,0,0,0,0,0,0,0,0.0551182,-33.6495,-0.185533,27.2763,0.526119,3.31139,0.0101778,
-0.00523257,-0.0534443,0.0254699,-1.84367,-0.0518765,0.276223,0.0926905,-0.00146181,0.00677434,-0.00139546,-0.00996626,0.0853778,-0.0206338,-0.000384142,0,0,0,0,0,0,0,0.517419,0.189475,0.512785,-0.247446,3.2513,-1.54966,-0.00182638,-0.00511005,-0.0527783,0.0255875,-1.84387,-0.0544547,0.277352,0.0927197,0.00363508,0.0209332,0.00212205,-0.0156672,-0.00318541,-0.00344499,0.000533572,0.318367,2.48399,0.357464,-2.04547,-0.0518646,-0.627158,0.141953,0.0313145,-32.0506,-0.213304,26.4551,0.550839,2.82067,-0.0301054,
-0.00529263,-0.0534505,0.0254103,-1.84364,-0.0499639,0.275406,0.0926852,-0.00267094,0.00526438,-0.00260746,-0.00712793,0.116117,-0.0369315,-0.000440187,0,0,0,0,0,0,0,0.510777,0.189394,0.505969,-0.244799,3.22215,-1.53523,-0.00175312,-0.00511005,-0.0527783,0.0255875,-1.84387,-0.0544547,0.277352,0.0927197,0.00363508,0.0209332,0.00212205,-0.0156672,-0.00318541,-0.00344499,0.000533572,0,0,0,0,0,0,0,0.0313145,-32.0506,-0.213304,26.4551,0.550839,2.82067,-0.0301054,
-0.00534111,-0.0534592,0.0253613,-1.84361,-0.047859,0.27448,0.0926823,-0.00334867,0.00399554,-0.00331107,-0.00510779,0.145518,-0.052708,-0.000425131,0,0,0,0,0,0,0,0.503645,0.18891,0.498699,-0.242137,3.19391,-1.52085,-0.00170873,-0.00511005,-0.0527783,0.0255875,-1.84387,-0.0544547,0.277352,0.0927197,0.00363508,0.0209332,0.00212205,-0.0156672,-0.00318541,-0.00344499,0.000533572,0,0,0,0,0,0,0,0.0313145,-32.0506,-0.213304,26.4551,0.550839,2.82067,-0.0301054,
-0.00536255,-0.0525028,0.0253634,-1.84355,-0.0457115,0.271647,0.0926281,-0.00607305,0.00586592,-0.00581518,-3.70398e-05,0.250745,-0.129287,-0.00120376,0,0,0,0,0,0,0,3.941,1.4731,3.9461,-1.66738,11.2083,-7.96728,-0.00873226,-0.00511005,-0.0527783,0.0255875,-1.84387,-0.0544547,0.277352,0.0927197,0.00363508,0.0209332,0.00212205,-0.0156672,-0.00318541,-0.00344499,0.000533572,0,0,0,0,0,0,0,0.0313145,-32.0506,-0.213304,26.4551,0.550839,2.82067,-0.0301054,
-0.00547053,-0.05244,0.0252589,-1.84344,-0.0391434,0.267361,0.0926082,-0.00755801,0.00626243,-0.00726379,0.00280632,0.364797,-0.210573,-0.0014613,0,0,0,0,0,0,0,3.81948,1.48246,3.83564,-1.63682,11.2082,-7.8637,-0.00824074,-0.00511239,-0.0524749,0.025611,-1.84426,-0.0544353,0.277265,0.092721,0.0052512,-0.00293139,-0.00106282,-0.0105894,-0.00172199,-0.000663705,0.000265455,0.202016,-2.98307,-0.398108,0.634732,0.182927,0.347661,-0.0335146,0.106693,-34.8198,-0.110155,28.522,0.459286,3.424,-0.0163725,
-0.00553347,-0.0523982,0.0251969,-1.84338,-0.0318482,0.262554,0.0925961,-0.00762004,0.00605514,-0.00736262,0.0037919,0.47422,-0.288633,-0.00147138,0,0,0,0,0,0,0,3.69768,1.47199,3.71817,-1.61573,11.2082,-7.75969,-0.00826347,-0.00511239,-0.0524749,0.025611,-1.84426,-0.0544353,0.277265,0.092721,0.0052512,-0.00293139,-0.00106282,-0.0105894,-0.00172199,-0.000663705,0.000265455,0,0,0,0,0,0,0,0.106693,-34.8198,-0.110155,28.522,0.459286,3.424,-0.0163725,
-0.00554849,-0.0523615,0.0251816,-1.84336,-0.0240992,0.257409,0.0925882,-0.00647136,0.00575998,-0.00627132,0.00346364,0.5731,-0.359531,-0.00137597,0,0,0,0,0,0,0,3.58089,1.45162,3.60229,-1.59646,11.2082,-7.66374,-0.00841478,-0.00511239,-0.0524749,0.025611,-1.84426,-0.0544353,0.277265,0.092721,0.0052512,-0.00293139,-0.00106282,-0.0105894,-0.00172199,-0.000663705,0.000265455,0,0,0,0,0,0,0,0.106693,-34.8198,-0.110155,28.522,0.459286,3.424,-0.0163725,
-0.00432374,-0.0525684,0.0264817,-1.84409,-0.0474281,0.267517,0.092828,0.00749985,0.00286734,0.00880711,0.00395058,0.568605,-0.438385,-0.000264799,0,0,0,0,0,0,0,23.3386,3.6492,23.955,-10.3053,11.2082,-14.3734,0.114435,-0.00511239,-0.0524749,0.025611,-1.84426,-0.0544353,0.277265,0.092721,0.0052512,-0.00293139,-0.00106282,-0.0105894,-0.00172199,-0.000663705,0.000265455,0,0,0,0,0,0,0,0.106693,-34.8198,-0.110155,28.522,0.459286,3.424,-0.0163725,
-0.00362556,-0.0526563,0.0272244,-1.84415,-0.0417891,0.259927,0.0928295,0.0234545,9.7695e-05,0.0256113,0.00179556,0.595858,-0.540437,-0.000174121,0,0,0,0,0,0,0,21.6365,3.45057,22.3501,-9.39834,11.2082,-14.3734,0.04868,-0.00511239,-0.0524749,0.025611,-1.84426,-0.0544353,0.277265,0.092721,0.0052512,-0.00293139,-0.00106282,-0.0105894,-0.00172199,-0.000663705,0.000265455,0,0,0,0,0,0,0,0.106693,-34.8198,-0.110155,28.522,0.459286,3.424,-0.0163725,
-0.00274744,-0.0527648,0.0281263,-1.84431,-0.0353233,0.251268,0.092962,0.0407164,-0.00263462,0.043037,-0.00263177,0.638332,-0.648847,0.0031713,0,0,0,0,0,0,0,20.6659,2.96145,21.3452,-8.42328,11.2079,-14.3696,0.00171443,-0.00510287,-0.0518317,0.0256332,-1.84443,-0.0543197,0.277223,0.0927229,0.00547717,0.00648674,-0.000599964,-0.00551352,0.0197051,-0.00577965,0.000424847,0.0282455,1.17727,0.0578567,0.634482,2.67839,-0.639494,0.019924,0.158268,-34.6968,-0.0109729,27.6254,0.715634,3.3178,-0.0301054,
-0.00368765,-0.0517716,0.02705,-1.84491,-0.0480232,0.268041,0.0927882,0.0547372,-0.00125266,0.0567871,-0.0102393,0.610197,-0.662291,0.00217914,0,0,0,0,0,0,0,34.408,8.23984,34.7016,-17.6814,11.2079,-14.3696,0.0936061,-0.00510287,-0.0518317,0.0256332,-1.84443,-0.0543197,0.277223,0.0927229,0.00547717,0.00648674,-0.000599964,-0.00551352,0.0197051,-0.00577965,0.000424847,0,0,0,0,0,0,0,0.158268,-34.6968,-0.0109729,27.6254,0.715634,3.3178,-0.0301054,
-0.00252841,-0.0517126,0.02824,-1.8454,-0.042818,0.260745,0.0928595,0.0727708,0.000472335,0.0751786,-0.0203352,0.618289,-0.712237,0.0035262,0,0,0,0,0,0,0,31.547,8.12356,31.9096,-16.5679,11.2079,-14.3696,-0.0293594,-0.00510287,-0.0518317,0.0256332,-1.84443,-0.0543197,0.277223,0.0927229,0.00547717,0.00648674,-0.000599964,-0.00551352,0.0197051,-0.00577965,0.000424847,0,0,0,0,0,0,0,0.158268,-34.6968,-0.0109729,27.6254,0.715634,3.3178,-0.0301054,
-0.00118505,-0.0517555,0.0296061,-1.84621,-0.0366245,0.252485,0.0928685,0.0918008,-0.000694207,0.0942969,-0.0366245,0.649468,-0.776295,0.00304525,0,0,0,0,0,0,0,30.2509,7.22724,30.8471,-15.6855,11.2079,-14.3696,0.0852425,-0.00510287,-0.0518317,0.0256332,-1.84443,-0.0543197,0.277223,0.0927229,0.00547717,0.00648674,-0.000599964,-0.00551352,0.0197051,-0.00577965,0.000424847,0,0,0,0,0,0,0,0.158268,-34.6968,-0.0109729,27.6254,0.715634,3.3178,-0.0301054,
0.000272775,-0.0517767,0.0310821,-1.84714,-0.0296781,0.243419,0.0928134,0.109886,-0.0010863,0.112336,-0.0525415,0.693233,-0.847694,0.00105876,0,0,0,0,0,0,0,27.639,3.14884,28.0445,-17.8,11.2025,-14.3555,0.00616663,-0.0049925,-0.0515491,0.0267093,-1.845,-0.0522428,0.275476,0.0927236,0.0169531,-0.00308003,0.0604902,-0.0269965,0.0831852,-0.0934613,0.000938667,1.43449,-1.19585,7.63627,-2.68538,7.93501,-10.9602,0.0642275,6.09333,-33.3241,5.98756,25.257,1.53412,2.32354,-0.0365141,
-0.00289994,-0.0517708,0.0288449,-1.84647,-0.0455645,0.265999,0.0927309,0.11899,-0.00362953,0.121467,-0.0636544,0.657178,-0.823013,0.00132517,0,0,0,0,0,0,0,39.5947,8.27778,40.2356,-25.085,11.2025,-14.3555,-0.0338333,-0.0049925,-0.0515491,0.0267093,-1.845,-0.0522428,0.275476,0.0927236,0.0169531,-0.00308003,0.0604902,-0.0269965,0.0831852,-0.0934613,0.000938667,0,0,0,0,0,0,0,6.09333,-33.3241,5.98756,25.257,1.53412,2.32354,-0.0365141,
-0.0014151,-0.0519633,0.0303586,-1.84769,-0.0401925,0.258819,0.0926615,0.132313,-0.00771608,0.135013,-0.0814491,0.660043,-0.837921,-0.00067263,0,0,0,0,0,0,0,36.752,7.19441,37.3028,-24.032,11.2025,-14.3555,0.0135636,-0.0049925,-0.0515491,0.0267093,-1.845,-0.0522428,0.275476,0.0927236,0.0169531,-0.00308003,0.0604902,-0.0269965,0.0831852,-0.0934613,0.000938667,0,0,0,0,0,0,0,6.09333,-33.3241,5.98756,25.257,1.53412,2.32354,-0.0365141,
0.000217596,-0.0521252,0.032025,-1.84907,-0.033833,0.250546,0.0925108,0.146668,-0.010221,0.149672,-0.0994946,0.687023,-0.877168,-0.00430756,0,0,0,0,0,0,0,32.9207,3.4057,33.4521,-25.5599,11.2025,-14.3555,-0.0937119,-0.0049925,-0.0515491,0.0267093,-1.845,-0.0522428,0.275476,0.0927236,0.0169531,-0.00308003,0.0604902,-0.0269965,0.0831852,-0.0934613,0.000938667,0,0,0,0,0,0,0,6.09333,-33.3241,5.98756,25.257,1.53412,2.32354,-0.0365141,
0.00194395,-0.052242,0.033784,-1.85055,-0.026735,0.241488,0.0923336,0.160493,-0.0110977,0.163713,-0.11657,0.727067,-0.92817,-0.00787506,0,0,0,0,0,0,0,29.8194,3.43898,30.3456,-24.6704,11.1994,-14.3172,-0.192861,-0.00381083,-0.0515289,0.0299015,-1.84696,-0.0486139,0.271679,0.0927156,0.0543364,-0.00221273,0.128926,-0.0875057,0.14277,-0.152152,-0.00139032,4.67291,0.108413,8.55452,-7.56364,7.4481,-7.33628,-0.291123,8.85456,-30.1781,8.66151,22.2934,1.76574,1.64696,0.00376909,
-0.0013199,-0.0516951,0.032452,-1.84888,-0.0407431,0.261287,0.0926538,0.16273,-0.0125015,0.166049,-0.12153,0.699814,-0.896133,-0.00815182,0,0,0,0,0,0,0,36.7655,7.20227,37.3219,-24.0046,11.1994,-14.3172,0.0133975,-0.00381083,-0.0515289,0.0299015,-1.84696,-0.0486139,0.271679,0.0927156,0.0543364,-0.00221273,0.128926,-0.0875057,0.14277,-0.152152,-0.00139032,0,0,0,0,0,0,0,8.85456,-30.1781,8.66151,22.2934,1.76574,1.64696,0.00376909,
0.000215931,-0.051842,0.0340216,-1.85017,-0.03483,0.253726,0.0925004,0.16858,-0.0136745,0.172081,-0.129578,0.707678,-0.905921,-0.0103565,0,0,0,0,0,0,0,32.9343,3.41357,33.4712,-25.5325,11.1994,-14.3172,-0.093878,-0.00381083,-0.0515289,0.0299015,-1.84696,-0.0486139,0.271679,0.0927156,0.0543364,-0.00221273,0.128926,-0.0875057,0.14277,-0.152152,-0.00139032,0,0,0,0,0,0,0,8.85456,-30.1781,8.66151,22.2934,1.76574,1.64696,0.00376909,
0.00186044,-0.0519639,0.0356985,-1.85159,-0.0280497,0.245165,0.092322,0.175977,-0.0139861,0.179586,-0.139007,0.735651,-0.938768,-0.0127465,0,0,0,0,0,0,0,29.8194,3.43898,30.3456,-24.6704,11.1994,-14.3172,-0.192861,-0.00381083,-0.0515289,0.0299015,-1.84696,-0.0486139,0.271679,0.0927156,0.0543364,-0.00221273,0.128926,-0.0875057,0.14277,-0.152152,-0.00139032,0,0,0,0,0,0,0,8.85456,-30.1781,8.66151,22.2934,1.76574,1.64696,0.00376909,
0.00357232,-0.0520571,0.0374438,-1.8531,-0.0206406,0.235899,0.0921362,0.183579,-0.0135192,0.187301,-0.148935,0.773748,-0.982679,-0.0148406,0,0,0,0,0,0,0,27.8566,2.97679,28.3326,-24.0716,11.2075,-14.2508,-0.222771,-0.000880376,-0.0515905,0.0354038,-1.85067,-0.0443586,0.26491,0.0927235,0.114959,-0.00457703,0.189532,-0.133322,0.124137,-0.246412,0.000803133,7.57789,-0.295538,7.57569,-5.72702,-2.32907,-11.7826,0.274181,4.26441,-30.9279,4.13881,22.9678,1.44897,1.64055,-0.0365141,
0.00202939,-0.0517937,0.0383967,-1.85303,-0.0358091,0.253435,0.0924708,0.184906,-0.0135977,0.188847,-0.15006,0.747143,-0.953025,-0.0159564,0,0,0,0,0,0,0,32.9687,3.42758,33.5151,-25.4836,11.2075,-14.2508,-0.0941697,-0.000880376,-0.0515905,0.0354038,-1.85067,-0.0443586,0.26491,0.0927235,0.114959,-0.00457703,0.189532,-0.133322,0.124137,-0.246412,0.000803133,0,0,0,0,0,0,0,4.26441,-30.9279,4.13881,22.9678,1.44897,1.64055,-0.0365141,
0.00364661,-0.0519026,0.0400488,-1.85439,-0.029514,0.245483,0.0922866,0.188355,-0.0136027,0.19238,-0.153931,0.755092,-0.96122,-0.0173687,0,0,0,0,0,0,0,29.8539,3.45299,30.3895,-24.6215,11.2075,-14.2508,-0.193153,-0.000880376,-0.0515905,0.0354038,-1.85067,-0.0443586,0.26491,0.0927235,0.114959,-0.00457703,0.189532,-0.133322,0.124137,-0.246412,0.000803133,0,0,0,0,0,0,0,4.26441,-30.9279,4.13881,22.9678,1.44897,1.64055,-0.0365141,
0.00532778,-0.0519987,0.0417648,-1.85584,-0.022412,0.236644,0.0920978,0.192713,-0.0132836,0.196803,-0.159615,0.781623,-0.989943,-0.0186167,0,0,0,0,0,0,0,27.8566,2.97679,28.3326,-24.0716,11.2075,-14.2508,-0.222771,-0.000880376,-0.0515905,0.0354038,-1.85067,-0.0443586,0.26491,0.0927235,0.114959,-0.00457703,0.189532,-0.133322,0.124137,-0.246412,0.000803133,0,0,0,0,0,0,0,4.26441,-30.9279,4.13881,22.9678,1.44897,1.64055,-0.0365141,
0.00661926,-0.0516078,0.0456038,-1.85808,-0.0332574,0.243006,0.0923407,0.193866,-0.0117475,0.198161,-0.160225,0.756017,-0.967174,-0.0198079,0,0,0,0,0,0,0,29.8901,3.44324,30.4369,-24.5637,11.2241,-14.1747,-0.193569,0.00350207,-0.051553,0.0423889,-1.85556,-0.0418578,0.255279,0.0927176,0.148197,0.00048768,0.230413,-0.160136,0.0644177,-0.316606,-0.00128622,4.15469,0.633089,5.11015,-3.35177,-7.46497,-8.77425,-0.261169,-0.198788,-32.0506,-0.260912,24.6381,1.25946,1.62041,0.017502,
0.00825552,-0.0516714,0.047278,-1.85948,-0.0268184,0.234817,0.0921448,0.196,-0.0109871,0.200384,-0.163333,0.765789,-0.978458,-0.0207426,0,0,0,0,0,0,0,27.8929,2.96705,28.38,-24.0138,11.2241,-14.1747,-0.223188,0.00350207,-0.051553,0.0423889,-1.85556,-0.0418578,0.255279,0.0927176,0.148197,0.00048768,0.230413,-0.160136,0.0644177,-0.316606,-0.00128622,0,0,0,0,0,0,0,-0.198788,-32.0506,-0.260912,24.6381,1.25946,1.62041,0.017502,
0.00992847,-0.0517383,0.0489877,-1.86098,-0.0195797,0.225808,0.091956,0.198623,-0.0104628,0.203049,-0.168023,0.793599,-1.00799,-0.0213135,0,0,0,0,0,0,0,26.3391,2.34136,26.8095,-23.5967,11.2241,-14.1747,-0.232031,0.00350207,-0.051553,0.0423889,-1.85556,-0.0418578,0.255279,0.0927176,0.148197,0.00048768,0.230413,-0.160136,0.0644177,-0.316606,-0.00128622,0,0,0,0,0,0,0,-0.198788,-32.0506,-0.260912,24.6381,1.25946,1.62041,0.017502,
0.0116248,-0.0517992,0.0507201,-1.86254,-0.0118052,0.216221,0.0917793,0.201306,-0.00989246,0.20575,-0.173413,0.82924,-1.04608,-0.0214692,0,0,0,0,0,0,0,25.0716,1.74299,25.5287,-23.212,11.2241,-14.1747,-0.228837,0.00350207,-0.051553,0.0423889,-1.85556,-0.0418578,0.255279,0.0927176,0.148197,0.00048768,0.230413,-0.160136,0.0644177,-0.316606,-0.00128622,0,0,0,0,0,0,0,-0.198788,-32.0506,-0.260912,24.6381,1.25946,1.62041,0.017502,
0.00651682,-0.0516321,0.0454998,-1.85804,-0.0330978,0.242973,0.0923043,0.1992,-0.00949907,0.20378,-0.17087,0.796212,-1.01249,-0.0223279,0,0,0,0,0,0,0,27.9191,2.91885,28.4196,-23.9444,11.2389,-14.0924,-0.223675,0.00788811,-0.0514622,0.0510452,-1.86117,-0.0405009,0.244035,0.092724,0.13997,-0.000740445,0.275342,-0.191091,0.0310729,-0.342522,0.000318981,-1.02834,-0.153516,5.61607,-3.86934,-4.16809,-3.23955,0.20065,-0.29797,-32.8719,-0.387865,26.3281,0.960079,1.98571,-0.0301054,
0.00808314,-0.051722,0.0471036,-1.85943,-0.0265909,0.234766,0.09211,0.198518,-0.00984565,0.20312,-0.171406,0.799644,-1.01517,-0.0227199,0,0,0,0,0,0,0,26.3653,2.29316,26.8491,-23.5273,11.2389,-14.0924,-0.232518,0.00788811,-0.0514622,0.0510452,-1.86117,-0.0405009,0.244035,0.092724,0.13997,-0.000740445,0.275342,-0.191091,0.0310729,-0.342522,0.000318981,0,0,0,0,0,0,0,-0.29797,-32.8719,-0.387865,26.3281,0.960079,1.98571,-0.0301054,
0.00968385,-0.0518183,0.0487401,-1.86091,-0.0193062,0.225737,0.0919307,0.198833,-0.0102832,0.203408,-0.173932,0.821833,-1.03788,-0.0226606,0,0,0,0,0,0,0,25.0978,1.69479,25.5683,-23.1426,11.2389,-14.0924,-0.229324,0.00788811,-0.0514622,0.0510452,-1.86117,-0.0405009,0.244035,0.092724,0.13997,-0.000740445,0.275342,-0.191091,0.0310729,-0.342522,0.000318981,0,0,0,0,0,0,0,-0.29797,-32.8719,-0.387865,26.3281,0.960079,1.98571,-0.0301054,
0.0110006,-0.0514778,0.0542683,-1.86381,-0.0317913,0.231286,0.0922967,0.197909,-0.00904327,0.202687,-0.172681,0.790843,-1.01084,-0.0233252,0,0,0,0,0,0,0,26.3653,2.29316,26.8491,-23.5273,11.2389,-14.0924,-0.232518,0.00788811,-0.0514622,0.0510452,-1.86117,-0.0405009,0.244035,0.092724,0.13997,-0.000740445,0.275342,-0.191091,0.0310729,-0.342522,0.000318981,0,0,0,0,0,0,0,-0.29797,-32.8719,-0.387865,26.3281,0.960079,1.98571,-0.0301054,
0.0125667,-0.0515453,0.0558741,-1.86523,-0.0252276,0.222934,0.0921095,0.197481,-0.00892231,0.202295,-0.173638,0.796767,-1.01748,-0.0233408,0,0,0,0,0,0,0,25.0731,1.53676,25.5585,-23.0684,11.2169,-14.0139,-0.229694,0.0118275,-0.0516733,0.0599437,-1.86789,-0.0371754,0.231395,0.0927239,0.110319,-0.0170484,0.23058,-0.19197,0.114096,-0.358753,-3.70521e-05,-3.70636,-2.03849,-5.59525,-0.109895,10.3778,-2.02882,-0.0445041,-7.60174,-36.2679,-7.56072,31.2119,0.129696,3.35808,0.00376909,
0.0141477,-0.051634,0.0574922,-1.86679,-0.01787,0.214265,0.0919412,0.197508,-0.00935409,0.202289,-0.177863,0.821353,-1.03072,-0.0228793,0,0,0,0,0,0,0,24.0081,1.01492,24.4796,-22.6738,11.2169,-14.0139,-0.217595,0.0118275,-0.0516733,0.0599437,-1.86789,-0.0371754,0.231395,0.0927239,0.110319,-0.0170484,0.23058,-0.19197,0.114096,-0.358753,-3.70521e-05,0,0,0,0,0,0,0,-7.60174,-36.2679,-7.56072,31.2119,0.129696,3.35808,0.00376909,
0.0157394,-0.0517238,0.0591196,-1.86849,-0.00999298,0.205889,0.0917894,0.197799,-0.00972892,0.202518,-0.184796,0.854009,-1.03396,-0.022099,0,0,0,0,0,0,0,23.0576,0.525261,23.5149,-22.2944,11.2169,-12.3767,-0.202793,0.0118275,-0.0516733,0.0599437,-1.86789,-0.0371754,0.231395,0.0927239,0.110319,-0.0170484,0.23058,-0.19197,0.114096,-0.358753,-3.70521e-05,0,0,0,0,0,0,0,-7.60174,-36.2679,-7.56072,31.2119,0.129696,3.35808,0.00376909,
0.0145308,-0.0518567,0.0627472,-1.87047,-0.0281012,0.218502,0.092325,0.192511,-0.0104637,0.197316,-0.18046,0.818654,-1.00898,-0.0224794,0,0,0,0,0,0,0,25.0731,1.53676,25.5585,-23.0684,11.2169,-14.0139,-0.229694,0.0118275,-0.0516733,0.0599437,-1.86789,-0.0371754,0.231395,0.0927239,0.110319,-0.0170484,0.23058,-0.19197,0.114096,-0.358753,-3.70521e-05,0,0,0,0,0,0,0,-7.60174,-36.2679,-7.56072,31.2119,0.129696,3.35808,0.00376909,
0.0159424,-0.0519932,0.0641963,-1.87192,-0.0215433,0.210595,0.0921543,0.189299,-0.0117829,0.194079,-0.180669,0.81887,-1.00486,-0.0222533,0,0,0,0,0,0,0,24.0081,1.01492,24.4796,-22.6738,11.2169,-14.0139,-0.217595,0.0118275,-0.0516733,0.0599437,-1.86789,-0.0371754,0.231395,0.0927239,0.110319,-0.0170484,0.23058,-0.19197,0.114096,-0.358753,-3.70521e-05,0,0,0,0,0,0,0,-7.60174,-36.2679,-7.56072,31.2119,0.129696,3.35808,0.00376909,
0.017391,-0.0521352,0.0656805,-1.87353,-0.0142377,0.202771,0.0920015,0.187655,-0.0129769,0.192368,-0.184818,0.837737,-0.999496,-0.0216221,0,0,0,0,0,0,0,23.0727,0.457829,23.5454,-22.2092,11.2139,-12.2666,-0.203219,0.0158617,-0.0518697,0.0688989,-1.87452,-0.0315809,0.217687,0.0927239,0.123935,-0.0142305,0.262058,-0.189178,0.200084,-0.455357,-0.000427292,1.70193,0.352235,3.93473,0.349035,10.7485,-12.0755,-0.04878,-1.49212,-34.5461,-1.76055,28.5974,0.758663,2.52221,0.00376909,
0.0188686,-0.0522621,0.0671927,-1.87526,-0.0064367,0.195415,0.0918636,0.187062,-0.0135541,0.1917,-0.191184,0.865213,-0.983494,-0.0207449,0,0,0,0,0,0,0,22.2138,-0.0422258,22.6727,-21.8939,11.2139,-10.2271,-0.187895,0.0158617,-0.0518697,0.0688989,-1.87452,-0.0315809,0.217687,0.0927239,0.123935,-0.0142305,0.262058,-0.189178,0.200084,-0.455357,-0.000427292,0,0,0,0,0,0,0,-1.49212,-34.5461,-1.76055,28.5974,0.758663,2.52221,0.00376909,
0.0187739,-0.0520666,0.0719189,-1.87723,-0.0215663,0.204489,0.0923445,0.18602,-0.0137985,0.190825,-0.188048,0.83794,-0.964591,-0.0211096,0,0,0,0,0,0,0,24.0233,0.947492,24.5101,-22.5886,11.2139,-13.9038,-0.21802,0.0158617,-0.0518697,0.0688989,-1.87452,-0.0315809,0.217687,0.0927239,0.123935,-0.0142305,0.262058,-0.189178,0.200084,-0.455357,-0.000427292,0,0,0,0,0,0,0,-1.49212,-34.5461,-1.76055,28.5974,0.758663,2.52221,0.00376909,
0.0202393,-0.052207,0.0734237,-1.87879,-0.0146919,0.197224,0.0921858,0.185452,-0.0145485,0.190281,-0.189443,0.84221,-0.953305,-0.0208562,0,0,0,0,0,0,0,23.0727,0.457829,23.5454,-22.2092,11.2139,-12.2666,-0.203219,0.0158617,-0.0518697,0.0688989,-1.87452,-0.0315809,0.217687,0.0927239,0.123935,-0.0142305,0.262058,-0.189178,0.200084,-0.455357,-0.000427292,0,0,0,0,0,0,0,-1.49212,-34.5461,-1.76055,28.5974,0.758663,2.52221,0.00376909,
0.0217201,-0.052344,0.0749418,-1.88048,-0.00715004,0.190271,0.0920444,0.185382,-0.0150646,0.190175,-0.193748,0.862316,-0.936453,-0.0202192,0,0,0,0,0,0,0,22.1803,-0.175516,22.6533,-21.8217,11.1712,-10.1302,-0.18824,0.0194488,-0.0518484,0.0772583,-1.88089,-0.0232008,0.201188,0.0927246,0.0824935,-0.00632665,0.243923,-0.168638,0.298845,-0.526478,-0.000384935,-5.18017,0.987979,-2.26676,2.56744,12.3451,-8.89011,0.00529464,1.67774,-33.2488,1.23872,25.2332,0.733944,1.9793,-0.0026396,
0.0220401,-0.0520578,0.079952,-1.88372,-0.012612,0.188858,0.0923853,0.181143,-0.0152243,0.185998,-0.192119,0.839999,-0.909915,-0.0202172,0,0,0,0,0,0,0,23.0392,0.324539,23.526,-22.137,11.1712,-12.1697,-0.203564,0.0194488,-0.0518484,0.0772583,-1.88089,-0.0232008,0.201188,0.0927246,0.0824935,-0.00632665,0.243923,-0.168638,0.298845,-0.526478,-0.000384935,0,0,0,0,0,0,0,1.67774,-33.2488,1.23872,25.2332,0.733944,1.9793,-0.0026396,
0.0233901,-0.0521994,0.0813397,-1.88534,-0.00568869,0.182499,0.0922424,0.178666,-0.0157198,0.18349,-0.194222,0.845082,-0.886895,-0.0197458,0,0,0,0,0,0,0,22.1803,-0.175516,22.6533,-21.8217,11.1712,-10.1302,-0.18824,0.0194488,-0.0518484,0.0772583,-1.88089,-0.0232008,0.201188,0.0927246,0.0824935,-0.00632665,0.243923,-0.168638,0.298845,-0.526478,-0.000384935,0,0,0,0,0,0,0,1.67774,-33.2488,1.23872,25.2332,0.733944,1.9793,-0.0026396,
0.0247739,-0.0523345,0.0827595,-1.88706,0.00183575,0.176548,0.0921155,0.177526,-0.0159519,0.182288,-0.198403,0.864176,-0.858287,-0.0189689,0,0,0,0,0,0,0,21.3983,-0.629021,21.8579,-21.5434,11.1712,-8.35476,-0.173159,0.0194488,-0.0518484,0.0772583,-1.88089,-0.0232008,0.201188,0.0927246,0.0824935,-0.00632665,0.243923,-0.168638,0.298845,-0.526478,-0.000384935,0,0,0,0,0,0,0,1.67774,-33.2488,1.23872,25.2332,0.733944,1.9793,-0.0026396,
0.0261836,-0.0524527,0.0842046,-1.88884,0.00976079,0.171186,0.0920025,0.177265,-0.0157161,0.181959,-0.203346,0.889467,-0.820703,-0.0180011,0,0,0,0,0,0,0,20.6877,-1.12018,21.1476,-21.1688,11.1409,-6.68388,-0.158098,0.0226963,-0.0518204,0.0856079,-1.88693,-0.0130002,0.18398,0.0927277,0.0971328,0.00213634,0.250462,-0.181551,0.321667,-0.509401,0.000510229,1.82991,1.05787,0.817281,-1.61409,2.85277,2.13466,0.111895,0.967594,-31.9991,0.663466,23.067,0.557247,1.44829,-0.0301054,
0.0253578,-0.051938,0.0883757,-1.88998,-0.00213271,0.173147,0.0924111,0.175229,-0.0146508,0.180055,-0.202272,0.864752,-0.795733,-0.0181609,0,0,0,0,0,0,0,22.186,-0.29521,22.6736,-21.7111,11.1409,-10.0135,-0.188903,0.0226963,-0.0518204,0.0856079,-1.88693,-0.0130002,0.18398,0.0927277,0.0971328,0.00213634,0.250462,-0.181551,0.321667,-0.509401,0.000510229,0,0,0,0,0,0,0,0.967594,-31.9991,0.663466,23.067,0.557247,1.44829,-0.0301054,
0.0267148,-0.052042,0.0897718,-1.89167,0.00487942,0.167752,0.0922797,0.174108,-0.0143214,0.178946,-0.203897,0.867105,-0.771456,-0.0178133,0,0,0,0,0,0,0,21.4041,-0.748715,21.8782,-21.4328,11.1409,-8.23811,-0.173821,0.0226963,-0.0518204,0.0856079,-1.88693,-0.0130002,0.18398,0.0927277,0.0971328,0.00213634,0.250462,-0.181551,0.321667,-0.509401,0.000510229,0,0,0,0,0,0,0,0.967594,-31.9991,0.663466,23.067,0.557247,1.44829,-0.0301054,
0.028094,-0.0521477,0.0911882,-1.89342,0.0124656,0.162788,0.0921641,0.173766,-0.014098,0.178568,-0.206902,0.883338,-0.741255,-0.01714,0,0,0,0,0,0,0,20.6877,-1.12018,21.1476,-21.1688,11.1409,-6.68388,-0.158098,0.0226963,-0.0518204,0.0856079,-1.88693,-0.0130002,0.18398,0.0927277,0.0971328,0.00213634,0.250462,-0.181551,0.321667,-0.509401,0.000510229,0,0,0,0,0,0,0,0.967594,-31.9991,0.663466,23.067,0.557247,1.44829,-0.0301054,
0.0294909,-0.0522452,0.0926215,-1.89521,0.0204305,0.158394,0.0920632,0.173937,-0.0137169,0.178685,-0.210297,0.905795,-0.702864,-0.0162332,0,0,0,0,0,0,0,20.0265,-1.55811,20.4879,-20.7856,11.1006,-5.22999,-0.143177,0.0261428,-0.0519864,0.0937088,-1.89359,-0.00209684,0.168117,0.0927309,0.113151,0.00354317,0.238221,-0.194207,0.315368,-0.434862,0.00034792,2.00232,0.175853,-1.53011,-1.58204,-0.787383,9.31726,-0.0202886,1.09455,-31.2016,0.711073,24.3127,1.04522,1.65429,-0.0301054,
0.0287803,-0.052077,0.096453,-1.89678,0.00871851,0.1591,0.0924375,0.172103,-0.0126964,0.177003,-0.20914,0.877225,-0.677375,-0.0164459,0,0,0,0,0,0,0,21.4041,-0.908637,21.8932,-21.3141,11.1006,-8.13162,-0.174558,0.0261428,-0.0519864,0.0937088,-1.89359,-0.00209684,0.168117,0.0927309,0.113151,0.00354317,0.238221,-0.194207,0.315368,-0.434862,0.00034792,0,0,0,0,0,0,0,1.09455,-31.2016,0.711073,24.3127,1.04522,1.65429,-0.0301054,
0.0301114,-0.0521689,0.0978242,-1.89849,0.0157074,0.154696,0.0923179,0.170961,-0.0124558,0.175883,-0.209963,0.876503,-0.651993,-0.0161476,0,0,0,0,0,0,0,20.6876,-1.2801,21.1625,-21.0501,11.1006,-6.57738,-0.158834,0.0261428,-0.0519864,0.0937088,-1.89359,-0.00209684,0.168117,0.0927309,0.113151,0.00354317,0.238221,-0.194207,0.315368,-0.434862,0.00034792,0,0,0,0,0,0,0,1.09455,-31.2016,0.711073,24.3127,1.04522,1.65429,-0.0301054,
0.0314602,-0.0522667,0.099211,-1.90024,0.023269,0.150707,0.0922149,0.17049,-0.0124102,0.175376,-0.21176,0.890241,-0.621334,-0.0154941,0,0,0,0,0,0,0,20.0265,-1.55811,20.4879,-20.7856,11.1006,-5.22999,-0.143177,0.0261428,-0.0519864,0.0937088,-1.89359,-0.00209684,0.168117,0.0927309,0.113151,0.00354317,0.238221,-0.194207,0.315368,-0.434862,0.00034792,0,0,0,0,0,0,0,1.09455,-31.2016,0.711073,24.3127,1.04522,1.65429,-0.0301054,
0.0328239,-0.0523613,0.100612,-1.90201,0.0312076,0.147239,0.0921263,0.170484,-0.0122915,0.175314,-0.213756,0.910658,-0.583761,-0.0146089,0,0,0,0,0,0,0,19.4112,-1.88331,19.8727,-20.4126,11.0652,-3.95304,-0.126987,0.0301646,-0.0518631,0.10197,-1.90045,0.00790618,0.15409,0.0927275,0.109731,0.00946117,0.239589,-0.217115,0.299747,-0.383865,-0.000640305,-0.427531,0.739751,0.171081,-2.86351,-1.95265,6.37466,-0.123528,-1.44055,-33.3479,-1.76055,27.4747,0.953671,2.15142,0.00376909,
0.0327496,-0.0518459,0.104665,-1.90384,0.0185482,0.146439,0.0924585,0.168588,-0.0102469,0.173587,-0.213846,0.879196,-0.563621,-0.0148403,0,0,0,0,0,0,0,20.6891,-1.41476,21.1779,-20.9457,11.0652,-6.47728,-0.159488,0.0301646,-0.0518631,0.10197,-1.90045,0.00790618,0.15409,0.0927275,0.109731,0.00946117,0.239589,-0.217115,0.299747,-0.383865,-0.000640305,0,0,0,0,0,0,0,-1.44055,-33.3479,-1.76055,27.4747,0.953671,2.15142,0.00376909,
0.034046,-0.0518932,0.106002,-1.90559,0.0254733,0.142821,0.0923517,0.167281,-0.00938104,0.172303,-0.214816,0.876484,-0.541353,-0.014541,0,0,0,0,0,0,0,20.028,-1.69277,20.5033,-20.6812,11.0652,-5.12989,-0.143831,0.0301646,-0.0518631,0.10197,-1.90045,0.00790618,0.15409,0.0927275,0.109731,0.00946117,0.239589,-0.217115,0.299747,-0.383865,-0.000640305,0,0,0,0,0,0,0,-1.44055,-33.3479,-1.76055,27.4747,0.953671,2.15142,0.00376909,
0.0353574,-0.0519556,0.107352,-1.90736,0.0329796,0.139616,0.0922612,0.166608,-0.00906316,0.171592,-0.216078,0.888845,-0.513192,-0.0138952,0,0,0,0,0,0,0,19.4112,-1.88331,19.8727,-20.4126,11.0652,-3.95304,-0.126987,0.0301646,-0.0518631,0.10197,-1.90045,0.00790618,0.15409,0.0927275,0.109731,0.00946117,0.239589,-0.217115,0.299747,-0.383865,-0.000640305,0,0,0,0,0,0,0,-1.44055,-33.3479,-1.76055,27.4747,0.953671,2.15142,0.00376909,
0.0366818,-0.0520232,0.108714,-1.90913,0.0408691,0.136906,0.0921842,0.166396,-0.00894049,0.171321,-0.217153,0.908313,-0.478316,-0.0130418,0,0,0,0,0,0,0,18.8159,-2.15451,19.2791,-20.0361,11.0223,-2.84874,-0.110999,0.0330781,-0.0517337,0.11087,-1.90772,0.0182504,0.142155,0.0927299,0.0778484,0.00556818,0.266674,-0.211619,0.314024,-0.326285,0.0013898,-3.98534,-0.486624,3.38552,0.687059,1.78466,7.19758,0.253763,-0.222592,-34.3199,-0.538622,28.0222,1.05163,2.28417,-0.050247,
0.0356123,-0.0517851,0.11352,-1.91111,0.0289768,0.136012,0.0924886,0.164674,-0.00832111,0.169758,-0.216512,0.877971,-0.459317,-0.0132425,0,0,0,0,0,0,0,20.0221,-1.84705,20.5122,-20.5768,11.0223,-5.03833,-0.14442,0.0330781,-0.0517337,0.11087,-1.90772,0.0182504,0.142155,0.0927299,0.0778484,0.00556818,0.266674,-0.211619,0.314024,-0.326285,0.0013898,0,0,0,0,0,0,0,-0.222592,-34.3199,-0.538622,28.0222,1.05163,2.28417,-0.050247,
0.0368802,-0.0518554,0.11483,-1.91285,0.035908,0.133205,0.0923949,0.163436,-0.00841225,0.168538,-0.216547,0.875657,-0.437628,-0.0129363,0,0,0,0,0,0,0,19.4053,-2.0376,19.8817,-20.3083,11.0223,-3.86148,-0.127576,0.0330781,-0.0517337,0.11087,-1.90772,0.0182504,0.142155,0.0927299,0.0778484,0.00556818,0.266674,-0.211619,0.314024,-0.326285,0.0013898,0,0,0,0,0,0,0,-0.222592,-34.3199,-0.538622,28.0222,1.05163,2.28417,-0.050247,
0.0381605,-0.0519358,0.116149,-1.91459,0.0434086,0.130787,0.0923162,0.162757,-0.00874173,0.167818,-0.216754,0.88804,-0.410543,-0.0123165,0,0,0,0,0,0,0,18.8159,-2.15451,19.2791,-20.0361,11.0223,-2.84874,-0.110999,0.0330781,-0.0517337,0.11087,-1.90772,0.0182504,0.142155,0.0927299,0.0778484,0.00556818,0.266674,-0.211619,0.314024,-0.326285,0.0013898,0,0,0,0,0,0,0,-0.222592,-34.3199,-0.538622,28.0222,1.05163,2.28417,-0.050247,
0.0355781,-0.0517909,0.113486,-1.91118,0.0290326,0.136785,0.0925141,0.161238,-0.00813351,0.16642,-0.216885,0.862489,-0.393689,-0.0123374,0,0,0,0,0,0,0,19.4053,-2.0376,19.8817,-20.3083,11.0223,-3.86148,-0.127576,0.0330781,-0.0517337,0.11087,-1.90772,0.0182504,0.142155,0.0927299,0.0778484,0.00556818,0.266674,-0.211619,0.314024,-0.326285,0.0013898,0,0,0,0,0,0,0,-0.222592,-34.3199,-0.538622,28.0222,1.05163,2.28417,-0.050247,
0.0368196,-0.0518535,0.114768,-1.91292,0.0359903,0.134491,0.0924324,0.160026,-0.00807101,0.165195,-0.217102,0.863934,-0.372293,-0.011912,0,0,0,0,0,0,0,18.8075,-2.30384,19.2858,-19.9451,10.9698,-2.76631,-0.111542,0.0354434,-0.0515432,0.11994,-1.91465,0.0302396,0.131974,0.0927255,0.0655549,-0.0102619,0.263971,-0.212693,0.374364,-0.262911,8.41339e-05,-1.53669,-1.97876,-0.337831,-0.134227,7.5425,7.92171,-0.163208,0.25745,-32.7251,-0.137926,26.9034,1.14318,2.13769,-0.00996382,
0.0380697,-0.0519228,0.116057,-1.91466,0.0435127,0.132593,0.0923645,0.159273,-0.00819118,0.164377,-0.217063,0.879207,-0.345287,-0.0112278,0,0,0,0,0,0,0,18.2325,-2.3501,18.6998,-19.6618,10.9698,-1.89273,-0.0962011,0.0354434,-0.0515432,0.11994,-1.91465,0.0302396,0.131974,0.0927255,0.0655549,-0.0102619,0.263971,-0.212693,0.374364,-0.262911,8.41339e-05,0,0,0,0,0,0,0,0.25745,-32.7251,-0.137926,26.9034,1.14318,2.13769,-0.00996382,
0.0393286,-0.051994,0.117353,-1.91638,0.0514055,0.131121,0.0923082,0.158892,-0.00833203,0.163912,-0.216583,0.900686,-0.313036,-0.0103894,0,0,0,0,0,0,0,17.6812,-2.34162,18.1387,-19.3656,10.9698,-1.15827,-0.0823535,0.0354434,-0.0515432,0.11994,-1.91465,0.0302396,0.131974,0.0927255,0.0655549,-0.0102619,0.263971,-0.212693,0.374364,-0.262911,8.41339e-05,0,0,0,0,0,0,0,0.25745,-32.7251,-0.137926,26.9034,1.14318,2.13769,-0.00996382,
0.0378692,-0.0517415,0.12248,-1.91805,0.041441,0.127864,0.0925396,0.157317,-0.00925634,0.16245,-0.215937,0.876346,-0.299391,-0.0104458,0,0,0,0,0,0,0,18.8075,-2.30384,19.2858,-19.9451,10.9698,-2.76631,-0.111542,0.0354434,-0.0515432,0.11994,-1.91465,0.0302396,0.131974,0.0927255,0.0655549,-0.0102619,0.263971,-0.212693,0.374364,-0.262911,8.41339e-05,0,0,0,0,0,0,0,0.25745,-32.7251,-0.137926,26.9034,1.14318,2.13769,-0.00996382,
0.0390803,-0.0518463,0.123732,-1.91976,0.0484786,0.126219,0.0924696,0.156132,-0.010025,0.161262,-0.215306,0.877018,-0.28065,-0.010106,0,0,0,0,0,0,0,18.2215,-2.50518,18.7045,-19.581,10.9133,-1.82945,-0.096688,0.0377929,-0.0516281,0.128572,-1.92174,0.0427752,0.125003,0.0927302,0.0664069,-0.0168901,0.250031,-0.19394,0.380364,-0.158644,0.00155322,0.10651,-0.828524,-1.74253,2.34404,0.74996,13.0333,0.183635,-0.198788,-33.0742,-0.836168,27.3517,0.800778,2.08459,-0.0429228,
0.0403011,-0.0519483,0.124992,-1.92145,0.0560393,0.124942,0.0924123,0.155425,-0.0105693,0.160502,-0.214466,0.890631,-0.256439,-0.00951749,0,0,0,0,0,0,0,17.6702,-2.4967,18.1435,-19.2848,10.9133,-1.09499,-0.0828404,0.0377929,-0.0516281,0.128572,-1.92174,0.0427752,0.125003,0.0927302,0.0664069,-0.0168901,0.250031,-0.19394,0.380364,-0.158644,0.00155322,0,0,0,0,0,0,0,-0.198788,-33.0742,-0.836168,27.3517,0.800778,2.08459,-0.0429228,
0.0415307,-0.052046,0.12626,-1.92311,0.0639446,0.124045,0.0923658,0.155081,-0.0108981,0.160088,-0.213265,0.910139,-0.227574,-0.0087769,0,0,0,0,0,0,0,17.1493,-2.45832,17.6121,-18.9851,10.9133,-0.465721,-0.0695966,0.0377929,-0.0516281,0.128572,-1.92174,0.0427752,0.125003,0.0927302,0.0664069,-0.0168901,0.250031,-0.19394,0.380364,-0.158644,0.00155322,0,0,0,0,0,0,0,-0.198788,-33.0742,-0.836168,27.3517,0.800778,2.08459,-0.0429228,
0.0401254,-0.0519463,0.131017,-1.92499,0.0539812,0.122569,0.0925682,0.153137,-0.0127023,0.158261,-0.211463,0.88366,-0.210743,-0.00887375,0,0,0,0,0,0,0,18.2215,-2.50518,18.7045,-19.581,10.9133,-1.82945,-0.096688,0.0377929,-0.0516281,0.128572,-1.92174,0.0427752,0.125003,0.0927302,0.0664069,-0.0168901,0.250031,-0.19394,0.380364,-0.158644,0.00155322,0,0,0,0,0,0,0,-0.198788,-33.0742,-0.836168,27.3517,0.800778,2.08459,-0.0429228,
0.0412939,-0.0520975,0.132227,-1.92663,0.0609952,0.121663,0.0925087,0.151724,-0.0139427,0.156849,-0.210013,0.882279,-0.191235,-0.008586,0,0,0,0,0,0,0,17.6592,-2.61062,18.146,-19.2372,10.8597,-1.05105,-0.0831738,0.0400394,-0.0515536,0.136445,-1.92834,0.055174,0.120995,0.0927232,0.0642095,0.00101399,0.21962,-0.191844,0.358628,-0.0883427,-0.00058897,-0.274681,2.23801,-3.80133,0.261977,-2.71701,8.78771,-0.267773,0.384403,-33.4709,-0.16173,27.2763,0.941769,2.11846,0.0101778,
0.0424741,-0.0522385,0.133446,-1.92825,0.0685248,0.121046,0.0924612,0.150883,-0.0146772,0.155963,-0.208572,0.894063,-0.168406,-0.00805721,0,0,0,0,0,0,0,17.1382,-2.57224,17.6147,-18.9375,10.8597,-0.421778,-0.0699301,0.0400394,-0.0515536,0.136445,-1.92834,0.055174,0.120995,0.0927232,0.0642095,0.00101399,0.21962,-0.191844,0.358628,-0.0883427,-0.00058897,0,0,0,0,0,0,0,0.384403,-33.4709,-0.16173,27.2763,0.941769,2.11846,0.0101778,
0.0421662,-0.0517106,0.138681,-1.93161,0.0660579,0.11971,0.0925836,0.147394,-0.0140204,0.152573,-0.207877,0.866879,-0.149408,-0.00801352,0,0,0,0,0,0,0,17.6592,-2.61062,18.146,-19.2372,10.8597,-1.05105,-0.0831738,0.0400394,-0.0515536,0.136445,-1.92834,0.055174,0.120995,0.0927232,0.0642095,0.00101399,0.21962,-0.191844,0.358628,-0.0883427,-0.00058897,0,0,0,0,0,0,0,0.384403,-33.4709,-0.16173,27.2763,0.941769,2.11846,0.0101778,
0.0432521,-0.0518103,0.139808,-1.93324,0.0729281,0.119315,0.0925346,0.145063,-0.0137098,0.150233,-0.207035,0.86526,-0.129393,-0.00763427,0,0,0,0,0,0,0,17.1382,-2.57224,17.6147,-18.9375,10.8597,-0.421778,-0.0699301,0.0400394,-0.0515536,0.136445,-1.92834,0.055174,0.120995,0.0927232,0.0642095,0.00101399,0.21962,-0.191844,0.358628,-0.0883427,-0.00058897,0,0,0,0,0,0,0,0.384403,-33.4709,-0.16173,27.2763,0.941769,2.11846,0.0101778,
0.0443598,-0.0519127,0.140955,-1.93485,0.080329,0.11916,0.092497,0.143743,-0.0135286,0.148858,-0.205868,0.877229,-0.107392,-0.0070486,0,0,0,0,0,0,0,16.6389,-2.61268,17.1175,-18.5999,10.8034,0.132374,-0.0576631,0.0423941,-0.0514622,0.14336,-1.93446,0.0684104,0.119534,0.0927277,0.0702299,0.00353184,0.198812,-0.16828,0.390311,-0.0132827,0.00104509,0.752549,0.314731,-2.60104,2.94556,3.96048,9.38249,0.204257,1.70551,-33.0226,1.18715,26.7288,1.57074,1.83922,-0.0301054,
0.0454861,-0.0520156,0.142119,-1.93643,0.0880853,0.119257,0.092469,0.143151,-0.0133951,0.148198,-0.204309,0.895691,-0.0834939,-0.00633764,0,0,0,0,0,0,0,16.1732,-2.55117,16.6415,-18.3028,10.8034,0.574764,-0.0456396,0.0423941,-0.0514622,0.14336,-1.93446,0.0684104,0.119534,0.0927277,0.0702299,0.00353184,0.198812,-0.16828,0.390311,-0.0132827,0.00104509,0,0,0,0,0,0,0,1.70551,-33.0226,1.18715,26.7288,1.57074,1.83922,-0.0301054,
0.0444294,-0.0516646,0.145501,-1.93757,0.079536,0.119523,0.0926096,0.140137,-0.0136217,0.145273,-0.202809,0.870297,-0.066105,-0.0063759,0,0,0,0,0,0,0,17.1303,-2.66709,17.6191,-18.9004,10.8034,-0.386667,-0.0702186,0.0423941,-0.0514622,0.14336,-1.93446,0.0684104,0.119534,0.0927277,0.0702299,0.00353184,0.198812,-0.16828,0.390311,-0.0132827,0.00104509,0,0,0,0,0,0,0,1.70551,-33.0226,1.18715,26.7288,1.57074,1.83922,-0.0301054,
0.0454769,-0.0517877,0.146589,-1.93914,0.086445,0.119681,0.0925704,0.138299,-0.0139745,0.143426,-0.201513,0.868964,-0.0489401,-0.00608022,0,0,0,0,0,0,0,16.6389,-2.61268,17.1175,-18.5999,10.8034,0.132374,-0.0576631,0.0423941,-0.0514622,0.14336,-1.93446,0.0684104,0.119534,0.0927277,0.0702299,0.00353184,0.198812,-0.16828,0.390311,-0.0132827,0.00104509,0,0,0,0,0,0,0,1.70551,-33.0226,1.18715,26.7288,1.57074,1.83922,-0.0301054,
0.0465489,-0.0519108,0.1477,-1.94069,0.0938562,0.120009,0.0925419,0.137439,-0.0142587,0.142518,-0.200062,0.880452,-0.0309439,-0.00557788,0,0,0,0,0,0,0,16.176,-2.62467,16.6569,-18.2652,10.759,0.608322,-0.045796,0.0448652,-0.0513312,0.15065,-1.94026,0.0811006,0.119536,0.0927246,0.0662172,-0.00344721,0.218774,-0.175153,0.365592,-2.72789e-05,0.000358824,-0.501582,-0.872382,2.49531,-0.859187,-3.0899,1.65693,-0.0857827,-0.147213,-31.8761,-0.610033,25.6061,1.3446,1.50139,-0.0026396,
0.0469514,-0.0515684,0.152848,-1.94339,0.0920639,0.119927,0.0926221,0.13598,-0.0145704,0.141184,-0.199441,0.856723,-0.0184697,-0.00556714,0,0,0,0,0,0,0,16.6417,-2.68618,17.1329,-18.5623,10.759,0.165933,-0.0578196,0.0448652,-0.0513312,0.15065,-1.94026,0.0811006,0.119536,0.0927246,0.0662172,-0.00344721,0.218774,-0.175153,0.365592,-2.72789e-05,0.000358824,0,0,0,0,0,0,0,-0.147213,-31.8761,-0.610033,25.6061,1.3446,1.50139,-0.0026396,
0.0480024,-0.051695,0.153941,-1.94495,0.0989435,0.120324,0.0925909,0.135061,-0.0148206,0.140273,-0.198564,0.857368,-0.00485093,-0.00523291,0,0,0,0,0,0,0,16.176,-2.62467,16.6569,-18.2652,10.759,0.608322,-0.045796,0.0448652,-0.0513312,0.15065,-1.94026,0.0811006,0.119536,0.0927246,0.0662172,-0.00344721,0.218774,-0.175153,0.365592,-2.72789e-05,0.000358824,0,0,0,0,0,0,0,-0.147213,-31.8761,-0.610033,25.6061,1.3446,1.50139,-0.0026396,
0.0490689,-0.0518189,0.155048,-1.94649,0.106337,0.120892,0.0925702,0.13471,-0.0149546,0.13988,-0.197279,0.870726,0.0103247,-0.00470498,0,0,0,0,0,0,0,15.7327,-2.5607,16.2037,-17.9705,10.759,0.965133,-0.0343366,0.0448652,-0.0513312,0.15065,-1.94026,0.0811006,0.119536,0.0927246,0.0662172,-0.00344721,0.218774,-0.175153,0.365592,-2.72789e-05,0.000358824,0,0,0,0,0,0,0,-0.147213,-31.8761,-0.610033,25.6061,1.3446,1.50139,-0.0026396,
0.0501492,-0.0519405,0.156167,-1.948,0.114072,0.121636,0.0925583,0.134777,-0.0150034,0.139888,-0.195581,0.889953,0.0268497,-0.00406067,0,0,0,0,0,0,0,15.3083,-2.57923,15.7831,-17.6501,10.7162,1.29625,-0.0236197,0.0471836,-0.0514004,0.157905,-1.94601,0.093244,0.11965,0.0927246,0.0685291,-0.00490901,0.220024,-0.178491,0.339013,0.0012218,-0.000591388,0.28898,-0.182724,0.156189,-0.417231,-3.32238,0.156134,-0.118777,1.98322,-30.8763,1.46089,24.5349,1.67419,1.19012,-0.0026396,
0.0492573,-0.0516337,0.160093,-1.94917,0.103987,0.120309,0.0926382,0.133578,-0.0150393,0.138838,-0.195981,0.862127,0.0317104,-0.00414519,0,0,0,0,0,0,0,16.1765,-2.70594,16.6707,-18.2348,10.7162,0.63718,-0.0459151,0.0471836,-0.0514004,0.157905,-1.94601,0.093244,0.11965,0.0927246,0.0685291,-0.00490901,0.220024,-0.178491,0.339013,0.0012218,-0.000591388,0,0,0,0,0,0,0,1.98322,-30.8763,1.46089,24.5349,1.67419,1.19012,-0.0026396,
0.0502913,-0.0517529,0.16117,-1.95072,0.110804,0.120886,0.0926151,0.132714,-0.0150106,0.137996,-0.195688,0.860126,0.0398,-0.00389339,0,0,0,0,0,0,0,15.7331,-2.64196,16.2176,-17.9401,10.7162,0.993991,-0.0344557,0.0471836,-0.0514004,0.157905,-1.94601,0.093244,0.11965,0.0927246,0.0685291,-0.00490901,0.220024,-0.178491,0.339013,0.0012218,-0.000591388,0,0,0,0,0,0,0,1.98322,-30.8763,1.46089,24.5349,1.67419,1.19012,-0.0026396,
0.0513368,-0.0518693,0.162256,-1.95225,0.118149,0.121636,0.0926021,0.132308,-0.0149191,0.137554,-0.19468,0.87172,0.0505882,-0.00343857,0,0,0,0,0,0,0,15.3083,-2.57923,15.7831,-17.6501,10.7162,1.29625,-0.0236197,0.0471836,-0.0514004,0.157905,-1.94601,0.093244,0.11965,0.0927246,0.0685291,-0.00490901,0.220024,-0.178491,0.339013,0.0012218,-0.000591388,0,0,0,0,0,0,0,1.98322,-30.8763,1.46089,24.5349,1.67419,1.19012,-0.0026396,
0.0523935,-0.0519847,0.163353,-1.95374,0.125843,0.122556,0.0925977,0.132264,-0.0148212,0.137452,-0.193087,0.889733,0.0634653,-0.00286252,0,0,0,0,0,0,0,14.8927,-2.59032,15.3691,-17.3411,10.6723,1.56002,-0.0134352,0.0494145,-0.0511684,0.164967,-1.95124,0.104625,0.11995,0.0927262,0.0656066,0.0115735,0.21488,-0.159029,0.345085,0.0127181,0.000823052,-0.365306,2.06031,-0.642925,2.4328,0.758992,1.43703,0.176805,0.717655,-31.6499,0.238966,25.257,1.77856,1.25603,-0.0163725,
0.0514218,-0.0513108,0.167089,-1.95434,0.115422,0.121102,0.0926565,0.130753,-0.0140479,0.13608,-0.193576,0.862325,0.0674021,-0.00297479,0,0,0,0,0,0,0,15.7264,-2.71274,16.2219,-17.9177,10.6723,1.01969,-0.0345907,0.0494145,-0.0511684,0.164967,-1.95124,0.104625,0.11995,0.0927262,0.0656066,0.0115735,0.21488,-0.159029,0.345085,0.0127181,0.000823052,0,0,0,0,0,0,0,0.717655,-31.6499,0.238966,25.257,1.77856,1.25603,-0.0163725,
0.0524243,-0.0514066,0.168135,-1.95588,0.122236,0.121918,0.0926415,0.129667,-0.0136331,0.135007,-0.193358,0.860195,0.0743097,-0.00275337,0,0,0,0,0,0,0,15.3016,-2.65,15.7874,-17.6277,10.6723,1.32194,-0.0237547,0.0494145,-0.0511684,0.164967,-1.95124,0.104625,0.11995,0.0927262,0.0656066,0.0115735,0.21488,-0.159029,0.345085,0.0127181,0.000823052,0,0,0,0,0,0,0,0.717655,-31.6499,0.238966,25.257,1.77856,1.25603,-0.0163725,
0.053439,-0.0515065,0.169191,-1.95739,0.129565,0.122884,0.0926362,0.1291,-0.0134037,0.134399,-0.192348,0.871391,0.0835931,-0.00233551,0,0,0,0,0,0,0,14.8927,-2.59032,15.3691,-17.3411,10.6723,1.56002,-0.0134352,0.0494145,-0.0511684,0.164967,-1.95124,0.104625,0.11995,0.0927262,0.0656066,0.0115735,0.21488,-0.159029,0.345085,0.0127181,0.000823052,0,0,0,0,0,0,0,0.717655,-31.6499,0.238966,25.257,1.77856,1.25603,-0.0163725,
0.0513996,-0.0512995,0.167066,-1.95433,0.115451,0.121272,0.0926723,0.127873,-0.0127349,0.133279,-0.192777,0.848061,0.0860003,-0.00235532,0,0,0,0,0,0,0,15.3016,-2.65,15.7874,-17.6277,10.6723,1.32194,-0.0237547,0.0494145,-0.0511684,0.164967,-1.95124,0.104625,0.11995,0.0927262,0.0656066,0.0115735,0.21488,-0.159029,0.345085,0.0127181,0.000823052,0,0,0,0,0,0,0,0.717655,-31.6499,0.238966,25.257,1.77856,1.25603,-0.0163725,
0.0523842,-0.0513871,0.168094,-1.95586,0.122281,0.122201,0.0926648,0.126911,-0.0123789,0.132304,-0.192394,0.849195,0.0920066,-0.00207009,0,0,0,0,0,0,0,14.8904,-2.65632,15.3772,-17.3061,10.6332,1.5922,-0.0135237,0.0521588,-0.0507888,0.172331,-1.95666,0.116119,0.120193,0.0927258,0.0858798,0.0179782,0.215731,-0.14857,0.299978,-0.00157203,0.000150862,2.53415,0.800592,0.106322,1.30738,-5.63843,-1.78626,-0.0840237,-0.147213,-32.6735,-0.538622,26.6058,1.78405,1.67351,-0.0026396,
0.0533777,-0.051479,0.169128,-1.95735,0.129625,0.123278,0.0926668,0.126368,-0.0121989,0.131696,-0.191154,0.86296,0.100532,-0.00160797,0,0,0,0,0,0,0,14.4943,-2.60123,14.9721,-17.0247,10.6332,1.79417,-0.00381675,0.0521588,-0.0507888,0.172331,-1.95666,0.116119,0.120193,0.0927258,0.0858798,0.0179782,0.215731,-0.14857,0.299978,-0.00157203,0.000150862,0,0,0,0,0,0,0,-0.147213,-32.6735,-0.538622,26.6058,1.78405,1.67351,-0.0026396,
0.0543808,-0.0515757,0.17017,-1.9588,0.13731,0.124494,0.0926766,0.126171,-0.0121779,0.131416,-0.189255,0.882476,0.110834,-0.0010415,0,0,0,0,0,0,0,14.1089,-2.55094,14.5778,-16.7476,10.6332,1.95125,0.00550402,0.0521588,-0.0507888,0.172331,-1.95666,0.116119,0.120193,0.0927258,0.0858798,0.0179782,0.215731,-0.14857,0.299978,-0.00157203,0.000150862,0,0,0,0,0,0,0,-0.147213,-32.6735,-0.538622,26.6058,1.78405,1.67351,-0.0026396,
0.0542115,-0.0508974,0.1745,-1.95973,0.126664,0.121617,0.0926811,0.126083,-0.0115576,0.131491,-0.190229,0.854463,0.109652,-0.00118234,0,0,0,0,0,0,0,14.8904,-2.65632,15.3772,-17.3061,10.6332,1.5922,-0.0135237,0.0521588,-0.0507888,0.172331,-1.95666,0.116119,0.120193,0.0927258,0.0858798,0.0179782,0.215731,-0.14857,0.299978,-0.00157203,0.000150862,0,0,0,0,0,0,0,-0.147213,-32.6735,-0.538622,26.6058,1.78405,1.67351,-0.0026396,
0.0552035,-0.0509786,0.175536,-1.96125,0.133438,0.122634,0.0926797,0.125667,-0.0112764,0.131093,-0.190184,0.85292,0.113147,-0.000980223,0,0,0,0,0,0,0,14.4943,-2.60123,14.9721,-17.0247,10.6332,1.79417,-0.00381675,0.0521588,-0.0507888,0.172331,-1.95666,0.116119,0.120193,0.0927258,0.0858798,0.0179782,0.215731,-0.14857,0.299978,-0.00157203,0.000150862,0,0,0,0,0,0,0,-0.147213,-32.6735,-0.538622,26.6058,1.78405,1.67351,-0.0026396,
0.0561947,-0.0510653,0.176569,-1.96273,0.140748,0.123807,0.0926879,0.125314,-0.0111876,0.130692,-0.189106,0.865091,0.11982,-0.000581404,0,0,0,0,0,0,0,14.1089,-2.55094,14.5778,-16.7476,10.6332,1.95125,0.00550402,0.0521588,-0.0507888,0.172331,-1.95666,0.116119,0.120193,0.0927258,0.0858798,0.0179782,0.215731,-0.14857,0.299978,-0.00157203,0.000150862,0,0,0,0,0,0,0,-0.147213,-32.6735,-0.538622,26.6058,1.78405,1.67351,-0.0026396,
0.0571884,-0.0511582,0.177603,-1.96417,0.148409,0.125117,0.0927042,0.125093,-0.0112735,0.130396,-0.187241,0.883592,0.128611,-5.54343e-05,0,0,0,0,0,0,0,13.7306,-2.50522,14.191,-16.4763,10.6332,2.08908,0.0144189,0.0521588,-0.0507888,0.172331,-1.95666,0.116119,0.120193,0.0927258,0.0858798,0.0179782,0.215731,-0.14857,0.299978,-0.00157203,0.000150862,0,0,0,0,0,0,0,-0.147213,-32.6735,-0.538622,26.6058,1.78405,1.67351,-0.0026396,
0.0541905,-0.0508869,0.174479,-1.95972,0.12669,0.121722,0.0926952,0.124889,-0.0106761,0.130334,-0.188345,0.855729,0.125414,-0.00021602,0,0,0,0,0,0,0,14.4943,-2.60123,14.9721,-17.0247,10.6332,1.79417,-0.00381675,0.0521588,-0.0507888,0.172331,-1.95666,0.116119,0.120193,0.0927258,0.0858798,0.0179782,0.215731,-0.14857,0.299978,-0.00157203,0.000150862,0,0,0,0,0,0,0,-0.147213,-32.6735,-0.538622,26.6058,1.78405,1.67351,-0.0026396,
0.0551652,-0.0509613,0.175497,-1.96122,0.13348,0.12281,0.0927007,0.124279,-0.0104031,0.129724,-0.188321,0.854319,0.127549,-3.54928e-05,0,0,0,0,0,0,0,14.1047,-2.6306,14.5825,-16.7288,10.5957,1.96903,0.00545502,0.0551737,-0.0504832,0.178645,-1.96114,0.125737,0.120227,0.0927266,0.0899006,0.00568073,0.187016,-0.128215,0.282564,-0.000612475,0.00018608,0.502602,-1.53719,-3.58937,2.54432,-2.17673,0.119944,0.00440228,-0.0718349,-32.2252,-0.713182,27.0541,1.88842,1.7138,-0.00996382,
0.0561361,-0.0510415,0.176509,-1.96268,0.140804,0.124055,0.0927159,0.123695,-0.0103272,0.129077,-0.187196,0.866567,0.13316,0.000350953,0,0,0,0,0,0,0,13.7264,-2.58488,14.1956,-16.4576,10.5957,2.10686,0.0143699,0.0551737,-0.0504832,0.178645,-1.96114,0.125737,0.120227,0.0927266,0.0899006,0.00568073,0.187016,-0.128215,0.282564,-0.000612475,0.00018608,0,0,0,0,0,0,0,-0.0718349,-32.2252,-0.713182,27.0541,1.88842,1.7138,-0.00996382,
0.0570571,-0.0507439,0.180638,-1.96405,0.136107,0.122032,0.0927121,0.122067,-0.0117034,0.127543,-0.186661,0.83976,0.132925,0.000312191,0,0,0,0,0,0,0,14.1047,-2.6306,14.5825,-16.7288,10.5957,1.96903,0.00545502,0.0551737,-0.0504832,0.178645,-1.96114,0.125737,0.120227,0.0927266,0.0899006,0.00568073,0.187016,-0.128215,0.282564,-0.000612475,0.00018608,0,0,0,0,0,0,0,-0.0718349,-32.2252,-0.713182,27.0541,1.88842,1.7138,-0.00996382,
0.0579735,-0.0508724,0.181597,-1.9655,0.142814,0.123279,0.0927256,0.120564,-0.0125749,0.126015,-0.185593,0.839488,0.137511,0.000586914,0,0,0,0,0,0,0,13.7264,-2.58488,14.1956,-16.4576,10.5957,2.10686,0.0143699,0.0551737,-0.0504832,0.178645,-1.96114,0.125737,0.120227,0.0927266,0.0899006,0.00568073,0.187016,-0.128215,0.282564,-0.000612475,0.00018608,0,0,0,0,0,0,0,-0.0718349,-32.2252,-0.713182,27.0541,1.88842,1.7138,-0.00996382,
0.058893,-0.0509936,0.182557,-1.96691,0.150068,0.124677,0.0927493,0.119438,-0.0130905,0.124811,-0.183815,0.852931,0.144958,0.00106283,0,0,0,0,0,0,0,13.3482,-2.61824,13.8173,-16.1765,10.5615,2.23297,0.0234351,0.0574496,-0.0501797,0.184802,-1.96532,0.134791,0.120235,0.092725,0.0537083,-0.000157101,0.185988,-0.1253,0.25532,0.00183843,0.000494049,-4.52404,-0.729729,-0.128457,0.364414,-3.40553,0.306363,0.0384961,-0.500302,-31.6023,-0.859972,25.8084,1.52221,1.60119,-0.0026396,
0.0598166,-0.051112,0.18352,-1.96829,0.157682,0.126197,0.0927802,0.11864,-0.0134326,0.123917,-0.181473,0.872697,0.153976,0.00162285,0,0,0,0,0,0,0,12.9632,-2.5746,13.4239,-15.9165,10.5615,2.33632,0.0336229,0.0574496,-0.0501797,0.184802,-1.96532,0.134791,0.120235,0.092725,0.0537083,-0.000157101,0.185988,-0.1253,0.25532,0.00183843,0.000494049,0,0,0,0,0,0,0,-0.500302,-31.6023,-0.859972,25.8084,1.52221,1.60119,-0.0026396,
0.0591192,-0.0504841,0.186582,-1.96818,0.144783,0.122186,0.0927287,0.115635,-0.0145998,0.121002,-0.181455,0.840283,0.151663,0.00155153,0,0,0,0,0,0,0,13.7241,-2.66122,14.2016,-16.4426,10.5615,2.1221,0.0143176,0.0574496,-0.0501797,0.184802,-1.96532,0.134791,0.120235,0.092725,0.0537083,-0.000157101,0.185988,-0.1253,0.25532,0.00183843,0.000494049,0,0,0,0,0,0,0,-0.500302,-31.6023,-0.859972,25.8084,1.52221,1.60119,-0.0026396,
0.0599553,-0.0506228,0.187461,-1.9696,0.151342,0.123527,0.0927514,0.113412,-0.0151461,0.118757,-0.180819,0.836195,0.154866,0.00180812,0,0,0,0,0,0,0,13.3482,-2.61824,13.8173,-16.1765,10.5615,2.23297,0.0234351,0.0574496,-0.0501797,0.184802,-1.96532,0.134791,0.120235,0.092725,0.0537083,-0.000157101,0.185988,-0.1253,0.25532,0.00183843,0.000494049,0,0,0,0,0,0,0,-0.500302,-31.6023,-0.859972,25.8084,1.52221,1.60119,-0.0026396,
0.0608049,-0.0507502,0.18835,-1.97099,0.158472,0.125017,0.0927822,0.111969,-0.0153011,0.117245,-0.179379,0.847218,0.161141,0.00221623,0,0,0,0,0,0,0,12.96,-2.6503,13.4305,-15.9049,10.5247,2.3531,0.0335315,0.0584719,-0.0501708,0.190565,-1.9693,0.144406,0.120288,0.0927246,0.0269427,-0.000960306,0.180354,-0.11124,0.28303,0.00798091,-9.88577e-05,-3.3457,-0.100401,-0.704297,1.75746,3.46381,0.76781,-0.0741134,0.717655,-31.7015,0.0882092,25.6061,1.90673,1.42815,-0.0026396,
0.0599699,-0.0505122,0.192171,-1.97205,0.154537,0.122491,0.0927476,0.108424,-0.0165447,0.113755,-0.17869,0.820766,0.160734,0.0022726,0,0,0,0,0,0,0,13.345,-2.69394,13.8239,-16.1649,10.5247,2.24975,0.0233436,0.0584719,-0.0501708,0.190565,-1.9693,0.144406,0.120288,0.0927246,0.0269427,-0.000960306,0.180354,-0.11124,0.28303,0.00798091,-9.88577e-05,0,0,0,0,0,0,0,0.717655,-31.7015,0.0882092,25.6061,1.90673,1.42815,-0.0026396,
0.0607437,-0.0506655,0.192986,-1.97344,0.161094,0.123958,0.0927777,0.106084,-0.017068,0.11138,-0.177666,0.820529,0.165264,0.00257076,0,0,0,0,0,0,0,12.96,-2.6503,13.4305,-15.9049,10.5247,2.3531,0.0335315,0.0584719,-0.0501708,0.190565,-1.9693,0.144406,0.120288,0.0927246,0.0269427,-0.000960306,0.180354,-0.11124,0.28303,0.00798091,-9.88577e-05,0,0,0,0,0,0,0,0.717655,-31.7015,0.0882092,25.6061,1.90673,1.42815,-0.0026396,
0.0615395,-0.0508048,0.19382,-1.97479,0.168204,0.125564,0.092815,0.104761,-0.0171378,0.109952,-0.176023,0.834181,0.172352,0.00299014,0,0,0,0,0,0,0,12.5337,-2.59921,12.9947,-15.6491,10.5247,2.42544,0.0414518,0.0584719,-0.0501708,0.190565,-1.9693,0.144406,0.120288,0.0927246,0.0269427,-0.000960306,0.180354,-0.11124,0.28303,0.00798091,-9.88577e-05,0,0,0,0,0,0,0,0.717655,-31.7015,0.0882092,25.6061,1.90673,1.42815,-0.0026396,
0.0623518,-0.0509373,0.194668,-1.97612,0.17569,0.127276,0.0928557,0.104117,-0.0170233,0.109166,-0.173899,0.854479,0.180694,0.00340861,0,0,0,0,0,0,0,12.0892,-2.6141,12.5331,-15.3889,10.4928,2.5091,0.0488412,0.0592673,-0.0500593,0.196449,-1.97317,0.153384,0.120775,0.0927239,0.0237449,0.00192946,0.165922,-0.110813,0.252773,0.0171763,0.000345118,-0.399726,0.36122,-1.80402,0.053432,-3.78218,1.14943,0.055497,0.868412,-31.7491,0.512709,25.8798,1.71722,1.54168,0.00376909,
0.0606444,-0.0503669,0.197934,-1.9759,0.163196,0.123129,0.0927614,0.100693,-0.0175362,0.105845,-0.174092,0.823108,0.178203,0.0033893,0,0,0,0,0,0,0,12.9579,-2.71904,13.4375,-15.8895,10.4928,2.36932,0.0334708,0.0592673,-0.0500593,0.196449,-1.97317,0.153384,0.120775,0.0927239,0.0237449,0.00192946,0.165922,-0.110813,0.252773,0.0171763,0.000345118,0,0,0,0,0,0,0,0.868412,-31.7491,0.512709,25.8798,1.71722,1.54168,0.00376909,
0.061365,-0.0505077,0.198694,-1.97728,0.169645,0.124666,0.0927976,0.0985694,-0.0175483,0.10369,-0.173714,0.819697,0.180974,0.00361559,0,0,0,0,0,0,0,12.5316,-2.66794,13.0017,-15.6337,10.4928,2.44165,0.0413911,0.0592673,-0.0500593,0.196449,-1.97317,0.153384,0.120775,0.0927239,0.0237449,0.00192946,0.165922,-0.110813,0.252773,0.0171763,0.000345118,0,0,0,0,0,0,0,0.868412,-31.7491,0.512709,25.8798,1.71722,1.54168,0.00376909,
0.0621102,-0.0506372,0.199476,-1.97862,0.17667,0.126336,0.092838,0.0974837,-0.0172782,0.102504,-0.172551,0.831389,0.186527,0.00390387,0,0,0,0,0,0,0,12.0892,-2.6141,12.5331,-15.3889,10.4928,2.5091,0.0488412,0.0592673,-0.0500593,0.196449,-1.97317,0.153384,0.120775,0.0927239,0.0237449,0.00192946,0.165922,-0.110813,0.252773,0.0171763,0.000345118,0,0,0,0,0,0,0,0.868412,-31.7491,0.512709,25.8798,1.71722,1.54168,0.00376909,
0.0628727,-0.0507607,0.200277,-1.97993,0.184086,0.128107,0.0928795,0.0970495,-0.016909,0.102005,-0.17074,0.850523,0.193496,0.00416058,0,0,0,0,0,0,0,11.6104,-2.61835,12.0378,-15.1443,10.4648,2.58512,0.0525239,0.0602065,-0.0500246,0.201945,-1.97671,0.161826,0.121059,0.0927239,0.0376865,0.00390083,0.166341,-0.10307,0.234683,0.00207254,-0.000203933,1.74269,0.246422,0.0523712,0.967812,-2.26119,-1.88798,-0.0686314,-0.119442,-31.1501,-0.586229,25.1578,1.90033,1.44189,0.00376909,
0.0616279,-0.0503394,0.203474,-1.97941,0.171566,0.123368,0.092769,0.0953771,-0.0175563,0.100448,-0.171283,0.819529,0.188298,0.00410029,0,0,0,0,0,0,0,12.5309,-2.72828,13.01,-15.6137,10.4648,2.4625,0.0413292,0.0602065,-0.0500246,0.201945,-1.97671,0.161826,0.121059,0.0927239,0.0376865,0.00390083,0.166341,-0.10307,0.234683,0.00207254,-0.000203933,0,0,0,0,0,0,0,-0.119442,-31.1501,-0.586229,25.1578,1.90033,1.44189,0.00376909,
0.0623491,-0.0504838,0.204234,-1.98078,0.178016,0.124914,0.0928072,0.0943329,-0.0176549,0.0993756,-0.171184,0.81685,0.189292,0.00423479,0,0,0,0,0,0,0,12.0885,-2.67444,12.5413,-15.3689,10.4648,2.52994,0.0487793,0.0602065,-0.0500246,0.201945,-1.97671,0.161826,0.121059,0.0927239,0.0376865,0.00390083,0.166341,-0.10307,0.234683,0.00207254,-0.000203933,0,0,0,0,0,0,0,-0.119442,-31.1501,-0.586229,25.1578,1.90033,1.44189,0.00376909,
0.0630842,-0.0506145,0.205009,-1.98211,0.185047,0.126602,0.0928477,0.0938425,-0.0173918,0.0988559,-0.17017,0.829271,0.193632,0.0044007,0,0,0,0,0,0,0,11.6104,-2.61835,12.0378,-15.1443,10.4648,2.58512,0.0525239,0.0602065,-0.0500246,0.201945,-1.97671,0.161826,0.121059,0.0927239,0.0376865,0.00390083,0.166341,-0.10307,0.234683,0.00207254,-0.000203933,0,0,0,0,0,0,0,-0.119442,-31.1501,-0.586229,25.1578,1.90033,1.44189,0.00376909,
0.0626263,-0.0501866,0.208939,-1.98283,0.178636,0.123583,0.0927797,0.0916895,-0.0182141,0.096779,-0.170326,0.798975,0.189718,0.00435762,0,0,0,0,0,0,0,12.0866,-2.74025,12.5471,-15.3512,10.439,2.54685,0.0487311,0.0612936,-0.0498471,0.2075,-1.98017,0.169245,0.121179,0.0927271,0.0307607,0.00270255,0.163183,-0.0961971,0.194929,0.00186991,0.000326624,-0.865718,-0.149786,-0.394704,0.859158,-4.96929,-0.0253283,0.0663197,-0.198788,-31.277,-0.637804,25.4593,1.87011,1.5078,0.00376909,
0.0633013,-0.050337,0.209655,-1.98418,0.184984,0.125183,0.0928185,0.0902264,-0.0183298,0.0953278,-0.169912,0.797872,0.191779,0.00445534,0,0,0,0,0,0,0,11.6084,-2.68416,12.0435,-15.1265,10.439,2.60203,0.0524757,0.0612936,-0.0498471,0.2075,-1.98017,0.169245,0.121179,0.0927271,0.0307607,0.00270255,0.163183,-0.0961971,0.194929,0.00186991,0.000326624,0,0,0,0,0,0,0,-0.198788,-31.277,-0.637804,25.4593,1.87011,1.5078,0.00376909,
0.0639913,-0.0504684,0.210386,-1.98548,0.191939,0.12692,0.092859,0.0894295,-0.0179484,0.0945419,-0.168568,0.812182,0.196857,0.0045772,0,0,0,0,0,0,0,11.1093,-2.58496,11.5567,-14.8903,10.439,2.65117,0.0533678,0.0612936,-0.0498471,0.2075,-1.98017,0.169245,0.121179,0.0927271,0.0307607,0.00270255,0.163183,-0.0961971,0.194929,0.00186991,0.000326624,0,0,0,0,0,0,0,-0.198788,-31.277,-0.637804,25.4593,1.87011,1.5078,0.00376909,
0.0647062,-0.0505859,0.211141,-1.98674,0.199107,0.128754,0.0929022,0.0894182,-0.0172961,0.0944992,-0.166224,0.828934,0.20333,0.00474276,0,0,0,0,0,0,0,10.6384,-2.4365,11.1036,-14.6209,10.439,2.68569,0.0533796,0.0612936,-0.0498471,0.2075,-1.98017,0.169245,0.121179,0.0927271,0.0307607,0.00270255,0.163183,-0.0961971,0.194929,0.00186991,0.000326624,0,0,0,0,0,0,0,-0.198788,-31.277,-0.637804,25.4593,1.87011,1.5078,0.00376909,
0.0625989,-0.0501771,0.208911,-1.98281,0.178667,0.123593,0.0927822,0.0876979,-0.0179874,0.0928751,-0.166843,0.799162,0.197661,0.00463832,0,0,0,0,0,0,0,11.6069,-2.74353,12.049,-15.1097,10.416,2.62008,0.0523974,0.0620157,-0.0496335,0.212921,-1.98328,0.175915,0.121198,0.0927225,0.025168,0.0059042,0.163551,-0.0876297,0.196216,0.00266045,-0.000883722,-0.699084,0.400206,0.0459482,1.07093,0.160858,0.098818,-0.151293,0.487552,-31.4754,-0.0109729,25.5069,1.99829,1.51513,0.017502,
0.063251,-0.0503184,0.209606,-1.98414,0.185033,0.125201,0.0928207,0.0864621,-0.0179225,0.0916744,-0.166677,0.798473,0.198326,0.00467354,0,0,0,0,0,0,0,11.1077,-2.64433,11.5621,-14.8736,10.416,2.66922,0.0532895,0.0620157,-0.0496335,0.212921,-1.98328,0.175915,0.121198,0.0927225,0.025168,0.0059042,0.163551,-0.0876297,0.196216,0.00266045,-0.000883722,0,0,0,0,0,0,0,0.487552,-31.4754,-0.0109729,25.5069,1.99829,1.51513,0.017502,
0.0639275,-0.050438,0.210323,-1.98541,0.19181,0.126944,0.0928632,0.0860807,-0.017328,0.0912594,-0.165237,0.8082,0.202243,0.00480076,0,0,0,0,0,0,0,10.6369,-2.49586,11.109,-14.6041,10.416,2.70374,0.0533013,0.0620157,-0.0496335,0.212921,-1.98328,0.175915,0.121198,0.0927225,0.025168,0.0059042,0.163551,-0.0876297,0.196216,0.00266045,-0.000883722,0,0,0,0,0,0,0,0.487552,-31.4754,-0.0109729,25.5069,1.99829,1.51513,0.017502,
0.064642,-0.0505447,0.211075,-1.98663,0.198495,0.128781,0.0929085,0.0867284,-0.0165299,0.0918047,-0.162571,0.813681,0.207715,0.00497463,0,0,0,0,0,0,0,10.2147,-2.33884,10.6919,-14.3146,9.73659,2.73427,0.0537812,0.0620157,-0.0496335,0.212921,-1.98328,0.175915,0.121198,0.0927225,0.025168,0.0059042,0.163551,-0.0876297,0.196216,0.00266045,-0.000883722,0,0,0,0,0,0,0,0.487552,-31.4754,-0.0109729,25.5069,1.99829,1.51513,0.017502,
0.0632668,-0.0499514,0.214282,-1.98586,0.185362,0.123706,0.0927769,0.084846,-0.0172484,0.0900701,-0.163289,0.787188,0.20237,0.00481777,0,0,0,0,0,0,0,11.1077,-2.64433,11.5621,-14.8736,10.416,2.66922,0.0532895,0.0620157,-0.0496335,0.212921,-1.98328,0.175915,0.121198,0.0927225,0.025168,0.0059042,0.163551,-0.0876297,0.196216,0.00266045,-0.000883722,0,0,0,0,0,0,0,0.487552,-31.4754,-0.0109729,25.5069,1.99829,1.51513,0.017502,
0.0639021,-0.0500861,0.21496,-1.98716,0.191536,0.125355,0.0928174,0.08376,-0.0171648,0.0889995,-0.162981,0.784095,0.203136,0.00486694,0,0,0,0,0,0,0,10.6357,-2.54958,11.1136,-14.5901,10.3949,2.7196,0.053234,0.0626117,-0.0493505,0.217989,-1.98604,0.182061,0.121184,0.0927277,0.0210655,0.0108147,0.156303,-0.0840612,0.192158,0.000378152,0.000515566,-0.512814,0.613809,-0.906011,0.446053,-0.507241,-0.285288,0.174911,0.868412,-31.2254,0.338148,25.8322,1.91314,1.60119,-0.0301054,
0.0645759,-0.0502001,0.215672,-1.98839,0.197814,0.127132,0.092862,0.0838528,-0.0165835,0.0890092,-0.161204,0.784236,0.20694,0.00500817,0,0,0,0,0,0,0,10.2135,-2.39256,10.6965,-14.3006,9.71548,2.75014,0.0537139,0.0626117,-0.0493505,0.217989,-1.98604,0.182061,0.121184,0.0927277,0.0210655,0.0108147,0.156303,-0.0840612,0.192158,0.000378152,0.000515566,0,0,0,0,0,0,0,0.868412,-31.2254,0.338148,25.8322,1.91314,1.60119,-0.0301054,
0.0652891,-0.050306,0.216422,-1.98956,0.203856,0.129,0.0929072,0.0849132,-0.0159124,0.0899512,-0.158358,0.778428,0.212252,0.0051367,0,0,0,0,0,0,0,9.83542,-2.25967,10.3158,-14.0111,8.39976,2.76133,0.0531919,0.0626117,-0.0493505,0.217989,-1.98604,0.182061,0.121184,0.0927277,0.0210655,0.0108147,0.156303,-0.0840612,0.192158,0.000378152,0.000515566,0,0,0,0,0,0,0,0.868412,-31.2254,0.338148,25.8322,1.91314,1.60119,-0.0301054,
0.0637899,-0.0496194,0.219278,-1.98859,0.191259,0.123711,0.0927847,0.0826657,-0.0161854,0.0878456,-0.159335,0.753437,0.206303,0.00500358,0,0,0,0,0,0,0,10.6357,-2.54958,11.1136,-14.5901,10.3949,2.7196,0.053234,0.0626117,-0.0493505,0.217989,-1.98604,0.182061,0.121184,0.0927277,0.0210655,0.0108147,0.156303,-0.0840612,0.192158,0.000378152,0.000515566,0,0,0,0,0,0,0,0.868412,-31.2254,0.338148,25.8322,1.91314,1.60119,-0.0301054,
0.0644131,-0.0497356,0.219942,-1.98985,0.196909,0.125372,0.0928275,0.0817116,-0.0158553,0.0868695,-0.158969,0.744015,0.206565,0.0050729,0,0,0,0,0,0,0,10.2116,-2.45717,10.7011,-14.286,9.69229,2.76412,0.0536714,0.0633933,-0.0491493,0.223144,-1.9889,0.188596,0.121205,0.092725,0.0197619,-0.000484244,0.138609,-0.0729429,0.164204,0.00792636,0.000566115,-0.162952,-1.41236,-2.21175,1.3898,-3.49422,0.943526,0.00631858,0.511356,-30.8763,-0.0625476,25.3323,1.96167,1.44829,-0.0026396,
0.0650782,-0.0498385,0.220645,-1.99105,0.202525,0.127163,0.092872,0.0819971,-0.0152552,0.0870653,-0.157195,0.735589,0.210021,0.0051726,0,0,0,0,0,0,0,9.8335,-2.32428,10.3204,-13.9965,8.37656,2.77531,0.0531494,0.0633933,-0.0491493,0.223144,-1.9889,0.188596,0.121205,0.092725,0.0197619,-0.000484244,0.138609,-0.0729429,0.164204,0.00792636,0.000566115,0,0,0,0,0,0,0,0.511356,-30.8763,-0.0625476,25.3323,1.96167,1.44829,-0.0026396,
0.0644829,-0.0495308,0.224339,-1.99129,0.196837,0.123894,0.0927867,0.0794957,-0.0168395,0.0846373,-0.156554,0.703943,0.206535,0.00509434,0,0,0,0,0,0,0,10.2116,-2.45717,10.7011,-14.286,9.69229,2.76412,0.0536714,0.0633933,-0.0491493,0.223144,-1.9889,0.188596,0.121205,0.092725,0.0197619,-0.000484244,0.138609,-0.0729429,0.164204,0.00792636,0.000566115,0,0,0,0,0,0,0,0.511356,-30.8763,-0.0625476,25.3323,1.96167,1.44829,-0.0026396,
0.0650806,-0.0496846,0.224976,-1.99249,0.201765,0.125632,0.0928296,0.0785387,-0.0173166,0.0836321,-0.155169,0.686371,0.208687,0.00514992,0,0,0,0,0,0,0,9.8335,-2.32428,10.3204,-13.9965,8.37656,2.77531,0.0531494,0.0633933,-0.0491493,0.223144,-1.9889,0.188596,0.121205,0.092725,0.0197619,-0.000484244,0.138609,-0.0729429,0.164204,0.00792636,0.000566115,0,0,0,0,0,0,0,0.511356,-30.8763,-0.0625476,25.3323,1.96167,1.44829,-0.0026396,
0.0657229,-0.049818,0.225655,-1.99364,0.206622,0.127491,0.0928737,0.0788901,-0.0171873,0.0838876,-0.152827,0.670524,0.213422,0.00522195,0,0,0,0,0,0,0,9.50666,-2.26819,9.99196,-13.7032,7.20765,2.78549,0.051712,0.0642914,-0.0489142,0.227317,-1.99128,0.193711,0.121211,0.0927242,0.0284212,0.00368406,0.116755,-0.0728995,0.147631,0.0031575,-0.000771835,1.08241,0.521038,-2.73171,0.00542501,-2.07164,-0.596107,-0.167244,0.00751081,-30.7771,-0.487047,24.9118,1.82708,1.42815,0.0303194,
0.0664047,-0.0499429,0.226372,-1.99474,0.211193,0.12943,0.0929182,0.080155,-0.0168709,0.0850435,-0.149809,0.650694,0.219198,0.00528849,0,0,0,0,0,0,0,9.24146,-2.18944,9.71863,-13.4261,6.18248,2.77164,0.050518,0.0642914,-0.0489142,0.227317,-1.99128,0.193711,0.121211,0.0927242,0.0284212,0.00368406,0.116755,-0.0728995,0.147631,0.0031575,-0.000771835,0,0,0,0,0,0,0,0.00751081,-30.7771,-0.487047,24.9118,1.82708,1.42815,0.0303194,
0.0653368,-0.0492441,0.228461,-1.99363,0.200843,0.123848,0.0927888,0.0775638,-0.0175915,0.0825292,-0.150053,0.620111,0.213391,0.00519899,0,0,0,0,0,0,0,9.83266,-2.37076,10.3241,-13.9846,8.3594,2.78853,0.0530988,0.0642914,-0.0489142,0.227317,-1.99128,0.193711,0.121211,0.0927242,0.0284212,0.00368406,0.116755,-0.0728995,0.147631,0.0031575,-0.000771835,0,0,0,0,0,0,0,0.00751081,-30.7771,-0.487047,24.9118,1.82708,1.42815,0.0303194,
0.0659186,-0.0493832,0.229081,-1.99481,0.205067,0.125574,0.0928314,0.0765974,-0.017551,0.0815326,-0.149411,0.601695,0.213856,0.00522516,0,0,0,0,0,0,0,9.50666,-2.26819,9.99196,-13.7032,7.20765,2.78549,0.051712,0.0642914,-0.0489142,0.227317,-1.99128,0.193711,0.121211,0.0927242,0.0284212,0.00368406,0.116755,-0.0728995,0.147631,0.0031575,-0.000771835,0,0,0,0,0,0,0,0.00751081,-30.7771,-0.487047,24.9118,1.82708,1.42815,0.0303194,
0.0665452,-0.0495069,0.229745,-1.99593,0.209205,0.127425,0.0928754,0.0769431,-0.0171316,0.0818043,-0.147705,0.584807,0.217362,0.00528076,0,0,0,0,0,0,0,9.24205,-2.23128,9.72342,-13.4104,6.16819,2.78683,0.0504525,0.0655045,-0.0487589,0.230847,-1.99383,0.198386,0.12125,0.092722,0.0464416,0.00510129,0.101741,-0.0833093,0.12676,0.00478158,-0.00122535,2.25255,0.177154,-1.87679,-1.30123,-2.60889,0.20301,-0.0566897,0.106693,-30.8287,-0.33629,24.9594,1.8399,1.37505,0.0239107,
0.0672103,-0.0496254,0.230445,-1.99702,0.213075,0.129357,0.09292,0.0781819,-0.0166679,0.082955,-0.145227,0.564594,0.222196,0.00533937,0,0,0,0,0,0,0,9.03196,-2.17286,9.50486,-13.1369,5.24573,2.77405,0.0501883,0.0655045,-0.0487589,0.230847,-1.99383,0.198386,0.12125,0.092722,0.0464416,0.00510129,0.101741,-0.0833093,0.12676,0.00478158,-0.00122535,0,0,0,0,0,0,0,0.106693,-30.8287,-0.33629,24.9594,1.8399,1.37505,0.0239107,
0.0665853,-0.0490348,0.232022,-1.99618,0.204512,0.123787,0.0927871,0.0763721,-0.0168089,0.0812308,-0.146179,0.537048,0.214503,0.00523077,0,0,0,0,0,0,0,9.50724,-2.31003,9.99675,-13.6875,7.19336,2.80069,0.0516464,0.0655045,-0.0487589,0.230847,-1.99383,0.198386,0.12125,0.092722,0.0464416,0.00510129,0.101741,-0.0833093,0.12676,0.00478158,-0.00122535,0,0,0,0,0,0,0,0.106693,-30.8287,-0.33629,24.9594,1.8399,1.37505,0.0239107,
0.0671772,-0.0491561,0.232652,-1.99734,0.208115,0.12547,0.0928295,0.0758956,-0.0164784,0.0807403,-0.146006,0.519722,0.213673,0.00524412,0,0,0,0,0,0,0,9.24205,-2.23128,9.72342,-13.4104,6.16819,2.78683,0.0504525,0.0655045,-0.0487589,0.230847,-1.99383,0.198386,0.12125,0.092722,0.0464416,0.00510129,0.101741,-0.0833093,0.12676,0.00478158,-0.00122535,0,0,0,0,0,0,0,0.106693,-30.8287,-0.33629,24.9594,1.8399,1.37505,0.0239107,
0.0678082,-0.0492675,0.233319,-1.99845,0.211624,0.127285,0.0928735,0.0764906,-0.0159682,0.0812775,-0.144642,0.503492,0.216329,0.00529401,0,0,0,0,0,0,0,9.03054,-2.22021,9.50769,-13.1226,5.23351,2.78586,0.0501427,0.0670259,-0.0486831,0.234113,-1.99652,0.202046,0.121558,0.0927272,0.0435837,-0.000447742,0.0939932,-0.0745937,0.103365,0.0192014,0.000602172,-0.357238,-0.693629,-0.968415,1.08945,-2.92433,1.80247,0.228441,-0.198788,-30.9517,-0.586229,25.0348,1.78405,1.42174,-0.0163725,
0.0684726,-0.0493779,0.234019,-1.99952,0.214882,0.129189,0.0929184,0.0778032,-0.0155352,0.0825166,-0.142428,0.48424,0.22066,0.00535945,0,0,0,0,0,0,0,8.86304,-2.17983,9.33122,-12.8525,4.41011,2.76896,0.0504205,0.0670259,-0.0486831,0.234113,-1.99652,0.202046,0.121558,0.0927272,0.0435837,-0.000447742,0.0939932,-0.0745937,0.103365,0.0192014,0.000602172,0,0,0,0,0,0,0,-0.198788,-30.9517,-0.586229,25.0348,1.78405,1.42174,-0.0163725,
0.0680681,-0.0490213,0.235244,-1.99874,0.207227,0.124269,0.092795,0.0756779,-0.0166142,0.0804483,-0.142485,0.45953,0.215281,0.00526792,0,0,0,0,0,0,0,9.24063,-2.27863,9.72625,-13.3961,6.15597,2.79864,0.0504069,0.0670259,-0.0486831,0.234113,-1.99652,0.202046,0.121558,0.0927272,0.0435837,-0.000447742,0.0939932,-0.0745937,0.103365,0.0192014,0.000602172,0,0,0,0,0,0,0,-0.198788,-30.9517,-0.586229,25.0348,1.78405,1.42174,-0.0163725,
0.068647,-0.0491669,0.23586,-1.99986,0.210256,0.126018,0.0928379,0.0750137,-0.0169327,0.0797626,-0.141822,0.443362,0.215955,0.0052888,0,0,0,0,0,0,0,9.03054,-2.22021,9.50769,-13.1226,5.23351,2.78586,0.0501427,0.0670259,-0.0486831,0.234113,-1.99652,0.202046,0.121558,0.0927272,0.0435837,-0.000447742,0.0939932,-0.0745937,0.103365,0.0192014,0.000602172,0,0,0,0,0,0,0,-0.198788,-30.9517,-0.586229,25.0348,1.78405,1.42174,-0.0163725,
0.0692653,-0.0492992,0.236515,-2.00093,0.213187,0.127888,0.0928827,0.0754682,-0.016853,0.0801632,-0.140256,0.427957,0.219508,0.00534988,0,0,0,0,0,0,0,8.86366,-2.22043,9.33572,-12.8383,4.40461,2.77953,0.0503909,0.0686921,-0.0486167,0.237234,-1.99923,0.204398,0.122046,0.0927255,0.0438916,-0.0012319,0.0974859,-0.0723907,0.0385061,0.00397889,0.000322709,0.0384826,-0.0980199,0.436583,0.275379,-8.1074,-1.90281,-0.0349328,-0.0956386,-31.2254,-0.562425,25.6339,1.82708,1.58745,-0.00996382,
0.0697539,-0.0489615,0.238384,-2.00141,0.208389,0.124606,0.092793,0.0739933,-0.017742,0.0787417,-0.140285,0.399421,0.212768,0.00526084,0,0,0,0,0,0,0,9.03117,-2.26081,9.51219,-13.1084,5.22801,2.79642,0.0501132,0.0686921,-0.0486167,0.237234,-1.99923,0.204398,0.122046,0.0927255,0.0438916,-0.0012319,0.0974859,-0.0723907,0.0385061,0.00397889,0.000322709,0,0,0,0,0,0,0,-0.0956386,-31.2254,-0.562425,25.6339,1.82708,1.58745,-0.00996382,
0.0703351,-0.0491098,0.239003,-2.00251,0.210827,0.126309,0.0928364,0.0737262,-0.0179014,0.0784547,-0.139622,0.380474,0.212786,0.00529403,0,0,0,0,0,0,0,8.86366,-2.22043,9.33572,-12.8383,4.40461,2.77953,0.0503909,0.0686921,-0.0486167,0.237234,-1.99923,0.204398,0.122046,0.0927255,0.0438916,-0.0012319,0.0974859,-0.0723907,0.0385061,0.00397889,0.000322709,0,0,0,0,0,0,0,-0.0956386,-31.2254,-0.562425,25.6339,1.82708,1.58745,-0.00996382,
0.0709514,-0.0492445,0.239655,-2.00357,0.213196,0.128143,0.0928818,0.0743875,-0.0176908,0.0790649,-0.13807,0.363598,0.21609,0.00536786,0,0,0,0,0,0,0,8.72819,-2.19534,9.19156,-12.5718,3.6698,2.76472,0.0513533,0.0686921,-0.0486167,0.237234,-1.99923,0.204398,0.122046,0.0927255,0.0438916,-0.0012319,0.0974859,-0.0723907,0.0385061,0.00397889,0.000322709,0,0,0,0,0,0,0,-0.0956386,-31.2254,-0.562425,25.6339,1.82708,1.58745,-0.00996382,
0.0715968,-0.0493751,0.240335,-2.00458,0.215375,0.130062,0.0929283,0.0756446,-0.017417,0.0802609,-0.135862,0.345368,0.220838,0.00545784,0,0,0,0,0,0,0,8.61374,-2.18313,9.06832,-12.3085,3.02244,2.74666,0.052531,0.0686921,-0.0486167,0.237234,-1.99923,0.204398,0.122046,0.0927255,0.0438916,-0.0012319,0.0974859,-0.0723907,0.0385061,0.00397889,0.000322709,0,0,0,0,0,0,0,-0.0956386,-31.2254,-0.562425,25.6339,1.82708,1.58745,-0.00996382,
0.0710248,-0.0488015,0.2414,-2.00348,0.208026,0.124742,0.0927949,0.0736639,-0.018203,0.0783186,-0.135819,0.321707,0.214605,0.00538338,0,0,0,0,0,0,0,8.86227,-2.25862,9.33701,-12.8254,4.40389,2.78878,0.0503499,0.0700074,-0.0484637,0.240297,-2.00138,0.204897,0.122125,0.0927246,0.0378239,0.00247073,0.0936632,-0.0610504,0.00626344,0.00287488,-0.000121989,-0.758461,0.462829,-0.477844,1.41754,-4.03033,-0.138,-0.0555872,-0.500302,-31.0509,-0.986925,25.4077,1.54602,1.72021,-0.0026396,
0.0715901,-0.0489532,0.242002,-2.00454,0.209978,0.126471,0.0928395,0.073065,-0.0183554,0.0776986,-0.135266,0.306183,0.214906,0.00542234,0,0,0,0,0,0,0,8.7268,-2.23354,9.19285,-12.5588,3.66908,2.77397,0.0513123,0.0700074,-0.0484637,0.240297,-2.00138,0.204897,0.122125,0.0927246,0.0378239,0.00247073,0.0936632,-0.0610504,0.00626344,0.00287488,-0.000121989,0,0,0,0,0,0,0,-0.500302,-31.0509,-0.986925,25.4077,1.54602,1.72021,-0.0026396,
0.0721915,-0.0490926,0.242639,-2.00557,0.211872,0.128325,0.092886,0.0734855,-0.0181697,0.078074,-0.133905,0.2923,0.218287,0.00550015,0,0,0,0,0,0,0,8.61235,-2.22133,9.06961,-12.2956,3.02172,2.75591,0.05249,0.0700074,-0.0484637,0.240297,-2.00138,0.204897,0.122125,0.0927246,0.0378239,0.00247073,0.0936632,-0.0610504,0.00626344,0.00287488,-0.000121989,0,0,0,0,0,0,0,-0.500302,-31.0509,-0.986925,25.4077,1.54602,1.72021,-0.0026396,
0.0728219,-0.0492282,0.243304,-2.00656,0.213606,0.130257,0.0929336,0.0745495,-0.0179248,0.0790856,-0.131919,0.27717,0.222932,0.00558864,0,0,0,0,0,0,0,8.51166,-2.21925,8.96054,-12.0355,2.45301,2.73899,0.0539593,0.0700074,-0.0484637,0.240297,-2.00138,0.204897,0.122125,0.0927246,0.0378239,0.00247073,0.0936632,-0.0610504,0.00626344,0.00287488,-0.000121989,0,0,0,0,0,0,0,-0.500302,-31.0509,-0.986925,25.4077,1.54602,1.72021,-0.0026396,
0.0710442,-0.0487922,0.241416,-2.00343,0.207507,0.124702,0.092799,0.073036,-0.0185228,0.0775956,-0.132021,0.259383,0.215775,0.00552706,0,0,0,0,0,0,0,8.72726,-2.27789,9.19666,-12.54,3.67189,2.78721,0.0512448,0.0712401,-0.0482843,0.244139,-2.00388,0.204893,0.122146,0.0927224,0.0279413,0.00642843,0.105424,-0.0650124,0.000418151,0.000696717,-0.000784711,-1.23532,0.494713,1.47009,-0.49526,-0.730661,-0.272271,-0.0828403,1.07074,-30.9279,0.663466,24.8087,1.67419,1.5609,0.017502,
0.0716169,-0.0489431,0.242025,-2.00447,0.209106,0.126413,0.0928448,0.0727483,-0.0185904,0.0772855,-0.131631,0.247478,0.215381,0.00556857,0,0,0,0,0,0,0,8.61281,-2.26568,9.07342,-12.2768,3.02453,2.76915,0.0524225,0.0712401,-0.0482843,0.244139,-2.00388,0.204893,0.122146,0.0927224,0.0279413,0.00642843,0.105424,-0.0650124,0.000418151,0.000696717,-0.000784711,0,0,0,0,0,0,0,1.07074,-30.9279,0.663466,24.8087,1.67419,1.5609,0.017502,
0.0722221,-0.0490833,0.242665,-2.00547,0.210639,0.128249,0.0928923,0.0733278,-0.0183781,0.0778246,-0.130452,0.236304,0.218212,0.00564108,0,0,0,0,0,0,0,8.51212,-2.2636,8.96435,-12.0167,2.45582,2.75224,0.0538919,0.0712401,-0.0482843,0.244139,-2.00388,0.204893,0.122146,0.0927224,0.0279413,0.00642843,0.105424,-0.0650124,0.000418151,0.000696717,-0.000784711,0,0,0,0,0,0,0,1.07074,-30.9279,0.663466,24.8087,1.67419,1.5609,0.017502,
0.0723006,-0.0485608,0.245283,-2.00592,0.20699,0.124641,0.0928002,0.0723487,-0.0183457,0.0768663,-0.130629,0.219305,0.210976,0.00560602,0,0,0,0,0,0,0,8.61281,-2.26568,9.07342,-12.2768,3.02453,2.76915,0.0524225,0.0712401,-0.0482843,0.244139,-2.00388,0.204893,0.122146,0.0927224,0.0279413,0.00642843,0.105424,-0.0650124,0.000418151,0.000696717,-0.000784711,0,0,0,0,0,0,0,1.07074,-30.9279,0.663466,24.8087,1.67419,1.5609,0.017502,
0.0728813,-0.0486977,0.245899,-2.00695,0.208265,0.126314,0.0928471,0.0723976,-0.018098,0.0768962,-0.130239,0.207325,0.210623,0.00565715,0,0,0,0,0,0,0,8.51184,-2.30553,8.96672,-11.9979,2.45805,2.76514,0.0538257,0.072253,-0.0480606,0.247771,-2.00625,0.204866,0.122168,0.0927232,0.0270236,0.00777603,0.10636,-0.0713591,0.000433233,0.0136548,-0.000764866,-0.114723,0.16845,0.116981,-0.793331,0.00188524,1.61976,0.00248057,1.07074,-30.7018,0.461134,24.7372,1.78405,1.4016,0.0101778,
0.0734904,-0.0488293,0.246542,-2.00794,0.209475,0.128118,0.0928954,0.0731439,-0.0177697,0.0776081,-0.129033,0.196095,0.213602,0.00573297,0,0,0,0,0,0,0,8.41778,-2.31124,8.86431,-11.7408,1.96531,2.74524,0.0552438,0.072253,-0.0480606,0.247771,-2.00625,0.204866,0.122168,0.0927232,0.0270236,0.00777603,0.10636,-0.0713591,0.000433233,0.0136548,-0.000764866,0,0,0,0,0,0,0,1.07074,-30.7018,0.461134,24.7372,1.78405,1.4016,0.0101778,
0.0741209,-0.0489617,0.247207,-2.0089,0.210553,0.130004,0.0929444,0.0742782,-0.0175245,0.078703,-0.127191,0.183845,0.21801,0.00581128,0,0,0,0,0,0,0,8.32637,-2.32236,8.76498,-11.4862,1.54035,2.72575,0.0566706,0.072253,-0.0480606,0.247771,-2.00625,0.204866,0.122168,0.0927232,0.0270236,0.00777603,0.10636,-0.0713591,0.000433233,0.0136548,-0.000764866,0,0,0,0,0,0,0,1.07074,-30.7018,0.461134,24.7372,1.78405,1.4016,0.0101778,
0.0733277,-0.0483006,0.248927,-2.00827,0.206547,0.124696,0.0928052,0.0732829,-0.0172735,0.0777287,-0.127653,0.171181,0.210948,0.00578016,0,0,0,0,0,0,0,8.51184,-2.30553,8.96672,-11.9979,2.45805,2.76514,0.0538257,0.072253,-0.0480606,0.247771,-2.00625,0.204866,0.122168,0.0927232,0.0270236,0.00777603,0.10636,-0.0713591,0.000433233,0.0136548,-0.000764866,0,0,0,0,0,0,0,1.07074,-30.7018,0.461134,24.7372,1.78405,1.4016,0.0101778,
0.0739128,-0.0484281,0.249547,-2.00929,0.207548,0.126367,0.0928532,0.0732526,-0.0170071,0.077686,-0.127438,0.161975,0.210517,0.00582289,0,0,0,0,0,0,0,8.41626,-2.35127,8.8651,-11.7268,1.96647,2.75472,0.055197,0.0732954,-0.0478964,0.250812,-2.00828,0.204822,0.122208,0.0927277,0.0267149,0.00899797,0.0902201,-0.0557283,0.001683,0.003687,0.000815394,-0.0385823,0.152742,-2.01745,1.95385,0.156221,-1.24597,0.197532,0.336795,-30.4042,-0.237108,24.6381,1.74743,1.30913,-0.0301054,
0.0745228,-0.0485551,0.250191,-2.01026,0.208483,0.128163,0.0929022,0.073852,-0.0167788,0.0782594,-0.126365,0.152965,0.213311,0.00588314,0,0,0,0,0,0,0,8.32485,-2.36239,8.76577,-11.4722,1.54151,2.73523,0.0566239,0.0732954,-0.0478964,0.250812,-2.00828,0.204822,0.122208,0.0927277,0.0267149,0.00899797,0.0902201,-0.0557283,0.001683,0.003687,0.000815394,0,0,0,0,0,0,0,0.336795,-30.4042,-0.237108,24.6381,1.74743,1.30913,-0.0301054,
0.075151,-0.0486857,0.250854,-2.0112,0.209303,0.130037,0.0929517,0.0747873,-0.0166895,0.0791636,-0.124631,0.142869,0.217505,0.00594434,0,0,0,0,0,0,0,8.232,-2.37703,8.66514,-11.2199,1.18044,2.71331,0.0578412,0.0732954,-0.0478964,0.250812,-2.00828,0.204822,0.122208,0.0927277,0.0267149,0.00899797,0.0902201,-0.0557283,0.001683,0.003687,0.000815394,0,0,0,0,0,0,0,0.336795,-30.4042,-0.237108,24.6381,1.74743,1.30913,-0.0301054,
0.0742975,-0.0481652,0.25189,-2.01019,0.206156,0.124755,0.0928153,0.0729334,-0.0170103,0.0772978,-0.124441,0.133081,0.211047,0.00594534,0,0,0,0,0,0,0,8.41626,-2.35127,8.8651,-11.7268,1.96647,2.75472,0.055197,0.0732954,-0.0478964,0.250812,-2.00828,0.204822,0.122208,0.0927277,0.0267149,0.00899797,0.0902201,-0.0557283,0.001683,0.003687,0.000815394,0,0,0,0,0,0,0,0.336795,-30.4042,-0.237108,24.6381,1.74743,1.30913,-0.0301054,
0.0748594,-0.0483081,0.252486,-2.01116,0.206913,0.126449,0.0928649,0.0723947,-0.017181,0.0767359,-0.123934,0.125399,0.211173,0.00599526,0,0,0,0,0,0,0,8.32425,-2.39804,8.76699,-11.4586,1.5428,2.74459,0.0565772,0.074231,-0.0477032,0.253667,-2.01013,0.204819,0.1222,0.0927269,0.0271781,0.00872691,0.0718356,-0.0567765,0.00252935,0.00270653,0.000318118,0.0579014,-0.0338818,-2.29807,-0.131027,0.105793,-0.122559,-0.0621595,0.158268,-30.678,-0.260912,25.1102,1.68701,1.39519,-0.0227812,
0.07545,-0.0484487,0.25311,-2.01211,0.207602,0.128265,0.092915,0.0726822,-0.0172589,0.0769983,-0.122764,0.117546,0.21434,0.00604903,0,0,0,0,0,0,0,8.2314,-2.41268,8.66635,-11.2063,1.18172,2.72267,0.0577945,0.074231,-0.0477032,0.253667,-2.01013,0.204819,0.1222,0.0927269,0.0271781,0.00872691,0.0718356,-0.0567765,0.00252935,0.00270653,0.000318118,0,0,0,0,0,0,0,0.158268,-30.678,-0.260912,25.1102,1.68701,1.39519,-0.0227812,
0.0760608,-0.0485912,0.253754,-2.01302,0.20819,0.130154,0.0929652,0.0734151,-0.0173687,0.0777063,-0.121043,0.108734,0.218704,0.00609391,0,0,0,0,0,0,0,8.13546,-2.42904,8.56303,-10.9559,0.877289,2.70085,0.0588645,0.074231,-0.0477032,0.253667,-2.01013,0.204819,0.1222,0.0927269,0.0271781,0.00872691,0.0718356,-0.0567765,0.00252935,0.00270653,0.000318118,0,0,0,0,0,0,0,0.158268,-30.678,-0.260912,25.1102,1.68701,1.39519,-0.0227812,
0.0751539,-0.0479608,0.25466,-2.012,0.2058,0.124715,0.0928203,0.0709983,-0.0174264,0.0752617,-0.121033,0.100538,0.211671,0.00612341,0,0,0,0,0,0,0,8.32425,-2.39804,8.76699,-11.4586,1.5428,2.74459,0.0565772,0.074231,-0.0477032,0.253667,-2.01013,0.204819,0.1222,0.0927269,0.0271781,0.00872691,0.0718356,-0.0567765,0.00252935,0.00270653,0.000318118,0,0,0,0,0,0,0,0.158268,-30.678,-0.260912,25.1102,1.68701,1.39519,-0.0227812,
0.0756896,-0.0481009,0.255229,-2.01295,0.206327,0.126399,0.0928714,0.0701925,-0.0174431,0.0744323,-0.120687,0.0936073,0.211438,0.00617568,0,0,0,0,0,0,0,8.23178,-2.44276,8.66819,-11.1907,1.18393,2.73315,0.0577398,0.0752931,-0.0475011,0.256311,-2.01192,0.2048,0.12218,0.0927291,0.0312174,0.00897731,0.0812218,-0.0504342,0.00305862,-0.0042433,0.00123685,0.50491,0.0312993,1.17328,0.792794,0.0661588,-0.868729,0.114841,0.182071,-31.3246,-0.312487,26.2805,1.6925,1.58105,-0.0429228,
0.0762582,-0.0482404,0.255831,-2.01388,0.20679,0.128207,0.0929224,0.0703684,-0.0174424,0.0745892,-0.119672,0.0864642,0.214352,0.00621611,0,0,0,0,0,0,0,8.13584,-2.45912,8.56486,-10.9403,0.879494,2.71133,0.0588098,0.0752931,-0.0475011,0.256311,-2.01192,0.2048,0.12218,0.0927291,0.0312174,0.00897731,0.0812218,-0.0504342,0.00305862,-0.0042433,0.00123685,0,0,0,0,0,0,0,0.182071,-31.3246,-0.312487,26.2805,1.6925,1.58105,-0.0429228,
0.07629,-0.0477766,0.257379,-2.01373,0.205601,0.124636,0.0928233,0.0693589,-0.0177416,0.0735588,-0.119261,0.0799735,0.207539,0.00622654,0,0,0,0,0,0,0,8.23178,-2.44276,8.66819,-11.1907,1.18393,2.73315,0.0577398,0.0752931,-0.0475011,0.256311,-2.01192,0.2048,0.12218,0.0927291,0.0312174,0.00897731,0.0812218,-0.0504342,0.00305862,-0.0042433,0.00123685,0,0,0,0,0,0,0,0.182071,-31.3246,-0.312487,26.2805,1.6925,1.58105,-0.0429228,
0.0768485,-0.0479272,0.25797,-2.01466,0.206002,0.126297,0.0928744,0.0694496,-0.0179587,0.0736338,-0.118664,0.0740119,0.207557,0.00625813,0,0,0,0,0,0,0,8.13584,-2.45912,8.56486,-10.9403,0.879494,2.71133,0.0588098,0.0752931,-0.0475011,0.256311,-2.01192,0.2048,0.12218,0.0927291,0.0312174,0.00897731,0.0812218,-0.0504342,0.00305862,-0.0042433,0.00123685,0,0,0,0,0,0,0,0.182071,-31.3246,-0.312487,26.2805,1.6925,1.58105,-0.0429228,
0.077432,-0.0480767,0.258587,-2.01556,0.206339,0.128084,0.0929253,0.0701487,-0.0181042,0.0743218,-0.117488,0.0676234,0.210716,0.00627821,0,0,0,0,0,0,0,8.03419,-2.50862,8.4572,-10.6783,0.62855,2.69674,0.0595493,0.0765933,-0.0472918,0.258872,-2.01369,0.204754,0.122179,0.0927262,0.038098,0.00671265,0.0569322,-0.0478198,0.00381794,-0.00869651,-4.8766e-05,0.86008,-0.283082,-3.0362,0.326802,0.0949156,-0.556651,-0.160702,0.0828892,-30.7533,-0.33629,25.5347,1.57074,1.614,-0.0163725,
0.0780316,-0.0482284,0.259219,-2.01644,0.2066,0.129945,0.0929756,0.0711076,-0.0182752,0.0752717,-0.115809,0.060634,0.215103,0.00628156,0,0,0,0,0,0,0,7.92775,-2.52447,8.34392,-10.4309,0.422378,2.6733,0.0600911,0.0765933,-0.0472918,0.258872,-2.01369,0.204754,0.122179,0.0927262,0.038098,0.00671265,0.0569322,-0.0478198,0.00381794,-0.00869651,-4.8766e-05,0,0,0,0,0,0,0,0.0828892,-30.7533,-0.33629,25.5347,1.57074,1.614,-0.0163725,
0.0775093,-0.0475854,0.259852,-2.01544,0.205303,0.124599,0.0928246,0.0690771,-0.0186009,0.0731978,-0.115461,0.0555502,0.207842,0.00632433,0,0,0,0,0,0,0,8.13526,-2.49192,8.56549,-10.927,0.880816,2.72025,0.0587652,0.0765933,-0.0472918,0.258872,-2.01369,0.204754,0.122179,0.0927262,0.038098,0.00671265,0.0569322,-0.0478198,0.00381794,-0.00869651,-4.8766e-05,0,0,0,0,0,0,0,0.0828892,-30.7533,-0.33629,25.5347,1.57074,1.614,-0.0163725,
0.0780402,-0.0477425,0.260415,-2.01635,0.205541,0.126254,0.0928768,0.0685332,-0.0188091,0.0726322,-0.11498,0.050381,0.207653,0.00636264,0,0,0,0,0,0,0,8.03419,-2.50862,8.4572,-10.6783,0.62855,2.69674,0.0595493,0.0765933,-0.0472918,0.258872,-2.01369,0.204754,0.122179,0.0927262,0.038098,0.00671265,0.0569322,-0.0478198,0.00381794,-0.00869651,-4.8766e-05,0,0,0,0,0,0,0,0.0828892,-30.7533,-0.33629,25.5347,1.57074,1.614,-0.0163725,
0.0786004,-0.0478977,0.261008,-2.01722,0.205719,0.128037,0.0929281,0.0688322,-0.0189261,0.0729217,-0.113948,0.0447736,0.210697,0.00637382,0,0,0,0,0,0,0,7.92775,-2.52447,8.34392,-10.4309,0.422378,2.6733,0.0600911,0.0765933,-0.0472918,0.258872,-2.01369,0.204754,0.122179,0.0927262,0.038098,0.00671265,0.0569322,-0.0478198,0.00381794,-0.00869651,-4.8766e-05,0,0,0,0,0,0,0,0.0828892,-30.7533,-0.33629,25.5347,1.57074,1.614,-0.0163725,
0.0791792,-0.0480543,0.261619,-2.01807,0.205839,0.129895,0.0929785,0.0695352,-0.0190559,0.0736211,-0.112423,0.0388048,0.214992,0.00635971,0,0,0,0,0,0,0,7.81548,-2.56454,8.22554,-10.1696,0.259561,2.6588,0.0602827,0.0781277,-0.0470401,0.261177,-2.01538,0.204721,0.122198,0.0927277,0.0384329,0.0036649,0.0662197,-0.0483467,0.00269878,-0.000827874,0.000969589,0.0418516,-0.380969,1.16094,-0.0658732,-0.139896,0.98358,0.127294,0.487552,-30.7018,0.0128308,24.6619,1.57074,1.50139,-0.0301054,
0.0790949,-0.0473564,0.262208,-2.01708,0.205119,0.12464,0.0928268,0.0683549,-0.0194816,0.072407,-0.112143,0.0359437,0.207817,0.00638443,0,0,0,0,0,0,0,8.0345,-2.53455,8.45801,-10.6632,0.630378,2.70654,0.0594977,0.0781277,-0.0470401,0.261177,-2.01538,0.204721,0.122198,0.0927277,0.0384329,0.0036649,0.0662197,-0.0483467,0.00269878,-0.000827874,0.000969589,0,0,0,0,0,0,0,0.487552,-30.7018,0.0128308,24.6619,1.57074,1.50139,-0.0301054,
0.0796396,-0.047523,0.262785,-2.01796,0.205267,0.12629,0.0928785,0.0683033,-0.0197498,0.072342,-0.111724,0.0324569,0.207514,0.00640146,0,0,0,0,0,0,0,7.92806,-2.55041,8.34474,-10.4158,0.424205,2.68311,0.0600395,0.0781277,-0.0470401,0.261177,-2.01538,0.204721,0.122198,0.0927277,0.0384329,0.0036649,0.0662197,-0.0483467,0.00269878,-0.000827874,0.000969589,0,0,0,0,0,0,0,0.487552,-30.7018,0.0128308,24.6619,1.57074,1.50139,-0.0301054,
0.0802076,-0.0476869,0.263385,-2.01882,0.205361,0.128065,0.0929293,0.0688413,-0.0198958,0.0728778,-0.110767,0.0283284,0.21037,0.00639122,0,0,0,0,0,0,0,7.81548,-2.56454,8.22554,-10.1696,0.259561,2.6588,0.0602827,0.0781277,-0.0470401,0.261177,-2.01538,0.204721,0.122198,0.0927277,0.0384329,0.0036649,0.0662197,-0.0483467,0.00269878,-0.000827874,0.000969589,0,0,0,0,0,0,0,0.487552,-30.7018,0.0128308,24.6619,1.57074,1.50139,-0.0301054,
0.0805425,-0.0472263,0.264655,-2.01895,0.204878,0.124591,0.0928275,0.0675637,-0.0202135,0.0715641,-0.110451,0.025059,0.203405,0.00642445,0,0,0,0,0,0,0,7.92854,-2.58362,8.34689,-10.4008,0.42625,2.69289,0.0599888,0.0795966,-0.0468998,0.263645,-2.01726,0.204658,0.122202,0.0927262,0.0320804,-0.000662427,0.0675956,-0.0548577,0.0025016,0.00236179,0.000509808,-0.794062,-0.540916,0.171983,-0.813872,-0.0246465,0.398708,-0.0574726,1.30085,-30.4518,0.762648,24.761,1.63208,1.51513,-0.0163725,
0.0810779,-0.0473946,0.265222,-2.01981,0.204925,0.126216,0.0928792,0.067437,-0.0203783,0.0714262,-0.109938,0.0212209,0.203343,0.00643374,0,0,0,0,0,0,0,7.81596,-2.59775,8.22769,-10.1546,0.261605,2.66859,0.060232,0.0795966,-0.0468998,0.263645,-2.01726,0.204658,0.122202,0.0927262,0.0320804,-0.000662427,0.0675956,-0.0548577,0.0025016,0.00236179,0.000509808,0,0,0,0,0,0,0,1.30085,-30.4518,0.762648,24.761,1.63208,1.51513,-0.0163725,
0.0816359,-0.0475602,0.265812,-2.02065,0.204928,0.127968,0.0929297,0.0678997,-0.0204442,0.0718906,-0.108892,0.0170429,0.206474,0.00640787,0,0,0,0,0,0,0,7.6978,-2.6095,8.10328,-9.90936,0.133573,2.64449,0.0601901,0.0795966,-0.0468998,0.263645,-2.01726,0.204658,0.122202,0.0927262,0.0320804,-0.000662427,0.0675956,-0.0548577,0.0025016,0.00236179,0.000509808,0,0,0,0,0,0,0,1.30085,-30.4518,0.762648,24.761,1.63208,1.51513,-0.0163725,
0.0822067,-0.0477266,0.266415,-2.02146,0.204895,0.129795,0.0929787,0.0685887,-0.0205139,0.0725863,-0.107374,0.0128285,0.210846,0.00635268,0,0,0,0,0,0,0,7.57403,-2.61842,7.97349,-9.66489,0.0377057,2.62031,0.0598439,0.0795966,-0.0468998,0.263645,-2.01726,0.204658,0.122202,0.0927262,0.0320804,-0.000662427,0.0675956,-0.0548577,0.0025016,0.00236179,0.000509808,0,0,0,0,0,0,0,1.30085,-30.4518,0.762648,24.761,1.63208,1.51513,-0.0163725,
0.0820368,-0.0471917,0.267235,-2.02094,0.204776,0.124564,0.0928212,0.0681077,-0.0207476,0.0720839,-0.107338,0.0117223,0.202981,0.0063681,0,0,0,0,0,0,0,7.81654,-2.63259,8.23098,-10.1383,0.264198,2.67922,0.0601764,0.081018,-0.0468649,0.266153,-2.01928,0.204626,0.122237,0.0927224,0.0419138,3.15099e-05,0.0727305,-0.0534753,0.000228983,-0.000232042,-0.00109321,1.22918,0.0867421,0.641862,0.1728,-0.284078,-0.324229,-0.200378,0.590702,-30.5034,0.112013,24.8364,1.60736,1.57464,0.017502,
0.082592,-0.0473632,0.267822,-2.02179,0.204787,0.126157,0.0928719,0.0683672,-0.0208834,0.0723418,-0.107029,0.00964392,0.202214,0.00636233,0,0,0,0,0,0,0,7.69839,-2.64434,8.10657,-9.89302,0.136165,2.65512,0.0601345,0.081018,-0.0468649,0.266153,-2.01928,0.204626,0.122237,0.0927224,0.0419138,3.15099e-05,0.0727305,-0.0534753,0.000228983,-0.000232042,-0.00109321,0,0,0,0,0,0,0,0.590702,-30.5034,0.112013,24.8364,1.60736,1.57464,0.017502,
0.083162,-0.0475327,0.268425,-2.02261,0.204759,0.127879,0.0929212,0.0689441,-0.0209442,0.0729268,-0.106133,0.00700356,0.204828,0.00632246,0,0,0,0,0,0,0,7.57462,-2.65325,7.97678,-9.64855,0.0402981,2.63094,0.0597882,0.081018,-0.0468649,0.266153,-2.01928,0.204626,0.122237,0.0927224,0.0419138,3.15099e-05,0.0727305,-0.0534753,0.000228983,-0.000232042,-0.00109321,0,0,0,0,0,0,0,0.590702,-30.5034,0.112013,24.8364,1.60736,1.57464,0.017502,
0.0837388,-0.047703,0.269034,-2.0234,0.204703,0.129679,0.0929691,0.069574,-0.0210152,0.0735674,-0.104722,0.00420559,0.208852,0.00625379,0,0,0,0,0,0,0,7.44616,-2.65913,7.84266,-9.40468,-0.0273081,2.60718,0.0591534,0.081018,-0.0468649,0.266153,-2.01928,0.204626,0.122237,0.0927224,0.0419138,3.15099e-05,0.0727305,-0.0534753,0.000228983,-0.000232042,-0.00109321,0,0,0,0,0,0,0,0.590702,-30.5034,0.112013,24.8364,1.60736,1.57464,0.017502,
0.0820343,-0.0471857,0.267232,-2.02091,0.204692,0.124524,0.0928211,0.068841,-0.0210823,0.0728035,-0.104794,0.00362917,0.200831,0.00628093,0,0,0,0,0,0,0,7.69825,-2.68478,8.10955,-9.87812,0.138154,2.66487,0.0600853,0.082244,-0.0468532,0.268861,-2.02138,0.2046,0.122326,0.0927255,0.0238565,0.00101733,0.0808759,-0.0579304,0.00355106,0.000948095,0.000437898,-2.25717,0.123228,1.01818,-0.556884,0.41526,0.147517,0.191389,0.412174,-30.551,-0.0387439,24.9118,1.58905,1.54809,-0.00996382,
0.0825852,-0.0473555,0.267814,-2.02174,0.204656,0.126094,0.0928711,0.0688449,-0.0211103,0.0728002,-0.104555,0.0019875,0.199915,0.00627636,0,0,0,0,0,0,0,7.57447,-2.69369,7.97976,-9.63365,0.0422871,2.64069,0.0597391,0.082244,-0.0468532,0.268861,-2.02138,0.2046,0.122326,0.0927255,0.0238565,0.00101733,0.0808759,-0.0579304,0.00355106,0.000948095,0.000437898,0,0,0,0,0,0,0,0.412174,-30.551,-0.0387439,24.9118,1.58905,1.54809,-0.00996382,
0.0831489,-0.047524,0.26841,-2.02254,0.204587,0.127793,0.0929196,0.0691679,-0.0211012,0.0731273,-0.103712,-0.000138187,0.202412,0.0062316,0,0,0,0,0,0,0,7.44602,-2.69957,7.84564,-9.38979,-0.0253192,2.61693,0.0591043,0.082244,-0.0468532,0.268861,-2.02138,0.2046,0.122326,0.0927255,0.0238565,0.00101733,0.0808759,-0.0579304,0.00355106,0.000948095,0.000437898,0,0,0,0,0,0,0,0.412174,-30.551,-0.0387439,24.9118,1.58905,1.54809,-0.00996382,
0.0837176,-0.0476937,0.269011,-2.02332,0.2045,0.12957,0.0929663,0.0695527,-0.0211239,0.0735203,-0.102343,-0.0022836,0.206355,0.00615357,0,0,0,0,0,0,0,7.31318,-2.70231,7.7074,-9.14645,-0.068864,2.59375,0.0582034,0.082244,-0.0468532,0.268861,-2.02138,0.2046,0.122326,0.0927255,0.0238565,0.00101733,0.0808759,-0.0579304,0.00355106,0.000948095,0.000437898,0,0,0,0,0,0,0,0.412174,-30.551,-0.0387439,24.9118,1.58905,1.54809,-0.00996382,
0.0832078,-0.047143,0.26989,-2.02299,0.204585,0.124566,0.0928257,0.0682491,-0.0208149,0.0721851,-0.102676,-0.00279157,0.198189,0.00620177,0,0,0,0,0,0,0,7.5742,-2.73957,7.98354,-9.61878,0.0444591,2.65019,0.0596913,0.0829425,-0.0468768,0.272042,-2.02348,0.204536,0.122421,0.0927246,0.0146614,0.00184111,0.0830611,-0.05903,0.000595136,0.00303766,-0.000515008,-1.14938,0.102973,0.273144,-0.137456,-0.369491,0.261196,-0.119113,-0.424923,-30.4042,-0.963121,25.5585,1.56433,1.65429,-0.0026396,
0.0837387,-0.0473024,0.270452,-2.02381,0.204499,0.126112,0.0928753,0.0678703,-0.0206364,0.0718004,-0.102566,-0.00438685,0.197194,0.00620049,0,0,0,0,0,0,0,7.44574,-2.74545,7.84942,-9.37492,-0.0231472,2.62643,0.0590564,0.0829425,-0.0468768,0.272042,-2.02348,0.204536,0.122421,0.0927246,0.0146614,0.00184111,0.0830611,-0.05903,0.000595136,0.00303766,-0.000515008,0,0,0,0,0,0,0,-0.424923,-30.4042,-0.963121,25.5585,1.56433,1.65429,-0.0026396,
0.0842841,-0.0474636,0.271029,-2.0246,0.204388,0.127789,0.0929228,0.0679314,-0.0205396,0.0718682,-0.101783,-0.0062899,0.199688,0.00614926,0,0,0,0,0,0,0,7.3129,-2.74819,7.71118,-9.13158,-0.0666921,2.60325,0.0581556,0.0829425,-0.0468768,0.272042,-2.02348,0.204536,0.122421,0.0927246,0.0146614,0.00184111,0.0830611,-0.05903,0.000595136,0.00303766,-0.000515008,0,0,0,0,0,0,0,-0.424923,-30.4042,-0.963121,25.5585,1.56433,1.65429,-0.0026396,
0.0838642,-0.0471496,0.273029,-2.02507,0.204427,0.124646,0.0928242,0.0664659,-0.0201631,0.0703757,-0.101881,-0.0071793,0.192586,0.00618534,0,0,0,0,0,0,0,7.44574,-2.74545,7.84942,-9.37492,-0.0231472,2.62643,0.0590564,0.0829425,-0.0468768,0.272042,-2.02348,0.204536,0.122421,0.0927246,0.0146614,0.00184111,0.0830611,-0.05903,0.000595136,0.00303766,-0.000515008,0,0,0,0,0,0,0,-0.424923,-30.4042,-0.963121,25.5585,1.56433,1.65429,-0.0026396,
0.0843772,-0.0473041,0.273574,-2.02587,0.204301,0.126179,0.0928729,0.0659977,-0.0199936,0.0699065,-0.101542,-0.00890123,0.192402,0.00616525,0,0,0,0,0,0,0,7.31207,-2.78996,7.7137,-9.11874,-0.0651009,2.6112,0.0581154,0.0833759,-0.0468417,0.275095,-2.02523,0.20448,0.122521,0.0927277,0.0128018,0.00155851,0.0790963,-0.0482837,0.000888783,0.000927968,0.00101474,-0.232448,-0.0353258,-0.495597,1.3433,0.036706,-0.263712,0.191218,-0.805783,-30.7256,-1.23686,25.3085,1.46087,1.5078,-0.0301054,
0.0849058,-0.0474624,0.274134,-2.02665,0.20416,0.127844,0.0929193,0.0660128,-0.0199525,0.069933,-0.100555,-0.0106459,0.195538,0.00609269,0,0,0,0,0,0,0,7.17587,-2.7897,7.57246,-8.87578,-0.087656,2.58868,0.056935,0.0833759,-0.0468417,0.275095,-2.02523,0.20448,0.122521,0.0927277,0.0128018,0.00155851,0.0790963,-0.0482837,0.000888783,0.000927968,0.00101474,0,0,0,0,0,0,0,-0.805783,-30.7256,-1.23686,25.3085,1.46087,1.5078,-0.0301054,
0.0854413,-0.0476256,0.274701,-2.02739,0.204023,0.129589,0.0929635,0.0661975,-0.0200415,0.0701329,-0.099025,-0.011935,0.200059,0.00598054,0,0,0,0,0,0,0,7.03668,-2.78666,7.42852,-8.63316,-0.0931271,2.56725,0.0555213,0.0833759,-0.0468417,0.275095,-2.02523,0.20448,0.122521,0.0927277,0.0128018,0.00155851,0.0790963,-0.0482837,0.000888783,0.000927968,0.00101474,0,0,0,0,0,0,0,-0.805783,-30.7256,-1.23686,25.3085,1.46087,1.5078,-0.0301054,
0.0842598,-0.0471442,0.276043,-2.02674,0.204362,0.124783,0.092826,0.0646354,-0.0201413,0.0685329,-0.0987797,-0.0118611,0.193402,0.00602875,0,0,0,0,0,0,0,7.31207,-2.78996,7.7137,-9.11874,-0.0651009,2.6112,0.0581154,0.0833759,-0.0468417,0.275095,-2.02523,0.20448,0.122521,0.0927277,0.0128018,0.00155851,0.0790963,-0.0482837,0.000888783,0.000927968,0.00101474,0,0,0,0,0,0,0,-0.805783,-30.7256,-1.23686,25.3085,1.46087,1.5078,-0.0301054,
0.0847566,-0.0473119,0.276571,-2.02751,0.20423,0.126333,0.0928736,0.0641286,-0.0203038,0.0680203,-0.0982953,-0.0127871,0.193488,0.00601281,0,0,0,0,0,0,0,7.17587,-2.7897,7.57246,-8.87578,-0.087656,2.58868,0.056935,0.0833759,-0.0468417,0.275095,-2.02523,0.20448,0.122521,0.0927277,0.0128018,0.00155851,0.0790963,-0.0482837,0.000888783,0.000927968,0.00101474,0,0,0,0,0,0,0,-0.805783,-30.7256,-1.23686,25.3085,1.46087,1.5078,-0.0301054,
0.08527,-0.0474811,0.277116,-2.02825,0.204088,0.128011,0.0929187,0.0641364,-0.0204749,0.0680386,-0.0972643,-0.013779,0.196725,0.00593772,0,0,0,0,0,0,0,7.03707,-2.82905,7.43282,-8.62065,-0.0909647,2.57516,0.0554802,0.0835384,-0.0468472,0.27827,-2.02682,0.204424,0.122533,0.0927246,0.00115753,-0.000531914,0.0894108,-0.0518451,0.00344777,-0.00119311,-2.84829e-05,-1.45554,-0.261302,1.28932,-0.44518,0.319874,-0.265134,-0.130403,-0.0202602,-30.2535,-0.538622,24.9832,1.62567,1.4547,-0.0026396,
0.0857908,-0.0476534,0.277668,-2.02897,0.203957,0.129765,0.0929615,0.0643305,-0.0206875,0.0682492,-0.0957481,-0.014312,0.201227,0.00581936,0,0,0,0,0,0,0,6.89581,-2.8236,7.28715,-8.37828,-0.0817439,2.55458,0.0538275,0.0835384,-0.0468472,0.27827,-2.02682,0.204424,0.122533,0.0927246,0.00115753,-0.000531914,0.0894108,-0.0518451,0.00344777,-0.00119311,-2.84829e-05,0,0,0,0,0,0,0,-0.0202602,-30.2535,-0.538622,24.9832,1.62567,1.4547,-0.0026396,
0.0844109,-0.0471507,0.279209,-2.02832,0.204303,0.124717,0.092821,0.062994,-0.0206413,0.066881,-0.0958684,-0.0138121,0.193368,0.00587097,0,0,0,0,0,0,0,7.17626,-2.83209,7.57676,-8.86327,-0.0854937,2.59658,0.0568939,0.0835384,-0.0468472,0.27827,-2.02682,0.204424,0.122533,0.0927246,0.00115753,-0.000531914,0.0894108,-0.0518451,0.00344777,-0.00119311,-2.84829e-05,0,0,0,0,0,0,0,-0.0202602,-30.2535,-0.538622,24.9832,1.62567,1.4547,-0.0026396,
0.0849003,-0.0473177,0.27973,-2.02907,0.204174,0.126234,0.0928672,0.0626308,-0.0206887,0.066517,-0.0956074,-0.0142789,0.192626,0.00585069,0,0,0,0,0,0,0,7.03707,-2.82905,7.43282,-8.62065,-0.0909647,2.57516,0.0554802,0.0835384,-0.0468472,0.27827,-2.02682,0.204424,0.122533,0.0927246,0.00115753,-0.000531914,0.0894108,-0.0518451,0.00344777,-0.00119311,-2.84829e-05,0,0,0,0,0,0,0,-0.0202602,-30.2535,-0.538622,24.9832,1.62567,1.4547,-0.0026396,
0.085405,-0.0474869,0.280266,-2.0298,0.204041,0.127883,0.0929107,0.0627222,-0.02078,0.0666231,-0.0947223,-0.0147504,0.195336,0.00576832,0,0,0,0,0,0,0,6.89579,-2.86544,7.29101,-8.36526,-0.0797966,2.56268,0.0537855,0.0836854,-0.0468531,0.281412,-2.02843,0.204396,0.122536,0.0927255,0.00322364,-0.00082676,0.0958563,-0.0467024,-0.00183645,2.41165e-05,-0.00010661,0.258264,-0.0368557,0.805683,0.642834,-0.660527,0.152153,-0.00976592,0.0551182,-30.1543,-0.411669,24.9832,1.66229,1.44189,-0.00996382,
0.0859162,-0.0476596,0.280809,-2.0305,0.203925,0.129614,0.0929517,0.0629583,-0.0209403,0.0668791,-0.093301,-0.0147091,0.19953,0.00564047,0,0,0,0,0,0,0,6.75274,-2.85798,7.14385,-8.12313,-0.0594582,2.54354,0.0519565,0.0836854,-0.0468531,0.281412,-2.02843,0.204396,0.122536,0.0927255,0.00322364,-0.00082676,0.0958563,-0.0467024,-0.00183645,2.41165e-05,-0.00010661,0,0,0,0,0,0,0,0.0551182,-30.1543,-0.411669,24.9832,1.66229,1.44189,-0.00996382,
0.084589,-0.0471743,0.282383,-2.02987,0.204278,0.124729,0.0928173,0.0621748,-0.0210727,0.0660725,-0.093314,-0.0138551,0.192055,0.00567355,0,0,0,0,0,0,0,7.03706,-2.87088,7.43668,-8.60763,-0.0890174,2.58326,0.0554382,0.0836854,-0.0468531,0.281412,-2.02843,0.204396,0.122536,0.0927255,0.00322364,-0.00082676,0.0958563,-0.0467024,-0.00183645,2.41165e-05,-0.00010661,0,0,0,0,0,0,0,0.0551182,-30.1543,-0.411669,24.9832,1.66229,1.44189,-0.00996382,
0.0850832,-0.0473498,0.282909,-2.03061,0.204172,0.126244,0.0928614,0.0620966,-0.0212458,0.0659978,-0.0929986,-0.0137572,0.191502,0.00564185,0,0,0,0,0,0,0,6.89579,-2.86544,7.29101,-8.36526,-0.0797966,2.56268,0.0537855,0.0836854,-0.0468531,0.281412,-2.02843,0.204396,0.122536,0.0927255,0.00322364,-0.00082676,0.0958563,-0.0467024,-0.00183645,2.41165e-05,-0.00010661,0,0,0,0,0,0,0,0.0551182,-30.1543,-0.411669,24.9832,1.66229,1.44189,-0.00996382,
0.0855883,-0.0475265,0.283446,-2.03131,0.204068,0.127887,0.0929029,0.0623036,-0.0214139,0.0662219,-0.0920858,-0.0135928,0.194295,0.0055506,0,0,0,0,0,0,0,6.75233,-2.89948,7.14716,-8.1108,-0.0577708,2.55157,0.0519164,0.0838021,-0.0468349,0.284615,-2.02997,0.204372,0.122539,0.0927243,0.001583,0.00413783,0.0998019,-0.0439398,0.00204623,0.00214959,0.00011702,-0.20508,0.620574,0.493205,0.345325,0.485334,0.265684,0.0279537,-0.119442,-30.428,-0.586229,25.257,1.6687,1.44189,-0.0026396,
