xiao-wang007/linearmpc_panda/paper_data/panda_inverse_dynamics_controller_opt_time_to_start/4/trajectory.csv
Commanded Joint 0 Position,Commanded Joint 1 Position,Commanded Joint 2 Position,Commanded Joint 3 Position,Commanded Joint 4 Position,Commanded Joint 5 Position,Commanded Joint 6 Position,Commanded Joint 0 Velocity,Commanded Joint 1 Velocity,Commanded Joint 2 Velocity,Commanded Joint 3 Velocity,Commanded Joint 4 Velocity,Commanded Joint 5 Velocity,Commanded Joint 6 Velocity,Commanded Joint 0 Acceleration,Commanded Joint 1 Acceleration,Commanded Joint 2 Acceleration,Commanded Joint 3 Acceleration,Commanded Joint 4 Acceleration,Commanded Joint 5 Acceleration,Commanded Joint 6 Acceleration,Commanded Joint 0 Torque,Commanded Joint 1 Torque,Commanded Joint 2 Torque,Commanded Joint 3 Torque,Commanded Joint 4 Torque,Commanded Joint 5 Torque,Commanded Joint 6 Torque,Actual Joint 0 Position,Actual Joint 1 Position,Actual Joint 2 Position,Actual Joint 3 Position,Actual Joint 4 Position,Actual Joint 5 Position,Actual Joint 6 Position,Actual Joint 0 Velocity,Actual Joint 1 Velocity,Actual Joint 2 Velocity,Actual Joint 3 Velocity,Actual Joint 4 Velocity,Actual Joint 5 Velocity,Actual Joint 6 Velocity,Actual Joint 0 Acceleration,Actual Joint 1 Acceleration,Actual Joint 2 Acceleration,Actual Joint 3 Acceleration,Actual Joint 4 Acceleration,Actual Joint 5 Acceleration,Actual Joint 6 Acceleration,Actual Joint 0 Torque,Actual Joint 1 Torque,Actual Joint 2 Torque,Actual Joint 3 Torque,Actual Joint 4 Torque,Actual Joint 5 Torque,Actual Joint 6 Torque,
0.0150016,-0.0641861,-0.0528668,-1.8287,-0.0257669,0.221002,0.0510751,0.000150815,0.020029,3.17193e-05,-0.033786,-0.00261711,0.0532577,-0.000374321,0.0942591,12.5181,0.0198245,-21.1163,-1.63569,33.2861,-0.233951,0.0590785,22.3781,0.0115806,-24.3028,-0.471183,1.9794,-0.0248126,0.0150124,-0.064909,-0.052814,-1.82574,-0.0257465,0.215267,0.0511344,-0.00113398,0.00027463,-0.0013906,0.000864952,0.00890749,-0.000303903,-0.00061906,0,0,0,0,0,0,0,-0.0202602,-33.4987,-0.0863513,27.4271,0.672604,3.22533,-0.0429228,
0.0150018,-0.0649079,-0.0528255,-1.82574,-0.025673,0.215279,0.0511352,7.3405e-05,0.0160332,-2.46998e-05,-0.026998,-0.00178958,0.0427303,-0.00029514,-0.0483809,-2.49738,-0.0352619,4.24252,0.517207,-6.57964,0.049488,0.0533057,22.8217,0.00126318,-24.2187,-0.471758,1.72919,-0.0233006,0.0150105,-0.0648043,-0.052813,-1.82582,-0.0257536,0.21527,0.0511337,-0.00174684,0.00184801,-0.00123837,-0.000355781,0.00665339,-0.000170179,-0.000710184,-0.076607,0.196672,0.0190281,-0.152592,-0.281762,0.0167155,-0.0113905,0.00751081,-33.1972,-0.0863513,27.3993,0.745846,3.19878,-0.0227812,
0.0150006,-0.0649073,-0.0528267,-1.82574,-0.0256661,0.215284,0.0511353,3.03273e-05,0.0128422,-4.92414e-05,-0.0215729,-0.00126082,0.0343153,-0.000233972,-0.0269236,-1.99436,-0.0153385,3.39065,0.330474,-5.25939,0.0382302,0.0460624,23.3933,-0.0105128,-24.1107,-0.471587,1.38154,-0.0213321,0.0150105,-0.0648043,-0.052813,-1.82582,-0.0257536,0.21527,0.0511337,-0.00174684,0.00184801,-0.00123837,-0.000355781,0.00665339,-0.000170179,-0.000710184,0,0,0,0,0,0,0,0.00751081,-33.1972,-0.0863513,27.3993,0.745846,3.19878,-0.0227812,
0.0149999,-0.0649064,-0.0528274,-1.82574,-0.0256622,0.21529,0.0511354,6.75114e-06,0.0102948,-5.70096e-05,-0.0172366,-0.000910603,0.0275866,-0.000186265,-0.0147351,-1.59215,-0.00485512,2.71023,0.218884,-4.20542,0.029817,0.040092,23.9173,-0.019974,-23.9429,-0.469911,0.996276,-0.0193312,0.0150105,-0.0648043,-0.052813,-1.82582,-0.0257536,0.21527,0.0511337,-0.00174684,0.00184801,-0.00123837,-0.000355781,0.00665339,-0.000170179,-0.000710184,0,0,0,0,0,0,0,0.00751081,-33.1972,-0.0863513,27.3993,0.745846,3.19878,-0.0227812,
0.0147275,-0.0647688,-0.0530863,-1.82571,-0.0173477,0.211801,0.0511069,-0.000931886,0.00820966,-0.00100273,-0.013612,0.0520782,-0.000660058,-0.000173708,-0.586648,-1.30319,-0.591075,2.26533,33.118,-17.6542,0.00784763,0.495323,0.137302,0.495497,-0.233489,3.13839,-1.40753,-0.00123924,0.0150105,-0.0648043,-0.052813,-1.82582,-0.0257536,0.21527,0.0511337,-0.00174684,0.00184801,-0.00123837,-0.000355781,0.00665339,-0.000170179,-0.000710184,0,0,0,0,0,0,0,0.00751081,-33.1972,-0.0863513,27.3993,0.745846,3.19878,-0.0227812,
0.0147034,-0.0647701,-0.0531114,-1.82571,-0.015173,0.21085,0.0511063,-0.00134895,0.00653658,-0.00142791,-0.0108531,0.096031,-0.0243111,-0.000152252,-0.260664,-1.04568,-0.265737,1.72433,27.4705,-14.7819,0.01341,0.488921,0.150756,0.489403,-0.223451,3.11188,-1.38484,-0.00130335,0.0150211,-0.064283,-0.0528047,-1.82617,-0.0257637,0.214268,0.0511335,-0.000173815,0.0303699,0.000545372,-0.0304105,-0.000194012,-0.0144596,-0.000681583,0.196628,3.56524,0.222968,-3.75684,-0.855926,-1.78617,0.00357524,0.0313145,-28.4563,-0.0863513,23.1662,0.795284,2.16424,-0.0301054,
0.0146911,-0.0647706,-0.0531244,-1.82571,-0.0129646,0.209873,0.051106,-0.00138493,0.00521509,-0.00146888,-0.00875645,0.132034,-0.0438823,-0.000130255,-0.0224888,-0.825933,-0.0256057,1.31041,22.5017,-12.232,0.0137483,0.483271,0.150596,0.483728,-0.22074,3.08365,-1.3716,-0.00128903,0.0150211,-0.064283,-0.0528047,-1.82617,-0.0257637,0.214268,0.0511335,-0.000173815,0.0303699,0.000545372,-0.0304105,-0.000194012,-0.0144596,-0.000681583,0,0,0,0,0,0,0,0.0313145,-28.4563,-0.0863513,23.1662,0.795284,2.16424,-0.0301054,
0.0146891,-0.0647701,-0.0531272,-1.82572,-0.0107412,0.208881,0.0511057,-0.00115919,0.00418585,-0.00124387,-0.00716479,0.161214,-0.0599068,-0.000111236,0.141087,-0.643277,0.140629,0.99479,18.2376,-10.0153,0.0118866,0.477926,0.149772,0.478337,-0.218242,3.05494,-1.35855,-0.00126506,0.0150211,-0.064283,-0.0528047,-1.82617,-0.0257637,0.214268,0.0511335,-0.000173815,0.0303699,0.000545372,-0.0304105,-0.000194012,-0.0144596,-0.000681583,0,0,0,0,0,0,0,0.0313145,-28.4563,-0.0863513,23.1662,0.795284,2.16424,-0.0301054,
0.0145109,-0.0635464,-0.0532593,-1.82598,0.00354331,0.194359,0.0510445,-0.0015552,0.00517343,-0.00148471,-0.00656264,0.31757,-0.174925,-0.000173841,-0.247504,0.617243,-0.150526,0.376343,97.7223,-71.8864,-0.0391276,3.91636,1.21523,3.99188,-1.69575,11.0826,-7.84189,-0.00254279,0.0150211,-0.064283,-0.0528047,-1.82617,-0.0257637,0.214268,0.0511335,-0.000173815,0.0303699,0.000545372,-0.0304105,-0.000194012,-0.0144596,-0.000681583,0,0,0,0,0,0,0,0.0313145,-28.4563,-0.0863513,23.1662,0.795284,2.16424,-0.0301054,
0.0145383,-0.0634807,-0.0532283,-1.82604,0.0113205,0.189092,0.0510434,-0.000558898,0.00578186,-0.000411778,-0.00678479,0.448486,-0.271606,-0.000166741,0.622688,0.380263,0.670584,-0.138845,81.8226,-60.4256,0.00443737,3.80503,1.17877,3.87899,-1.67152,11.0739,-7.71703,-0.00317492,0.0152319,-0.0647279,-0.0524116,-1.82685,-0.0236634,0.212826,0.0511464,0.0155614,0.00628494,0.0168352,-0.031418,0.157066,-0.0826639,0.00138451,1.9669,-3.01062,2.03623,-0.125941,19.6575,-8.52554,0.258262,2.94727,-33.7962,2.86134,26.4789,1.80236,2.64855,-0.0227812,
0.0146142,-0.063416,-0.0531493,-1.82613,0.0191728,0.183727,0.0510433,0.0014496,0.00624198,0.00164654,-0.00749423,0.555097,-0.351416,-0.000135002,1.25531,0.287577,1.28645,-0.443395,66.632,-49.8813,0.0198365,3.70728,1.15739,3.77427,-1.64782,11.0739,-7.60149,-0.00375491,0.0152319,-0.0647279,-0.0524116,-1.82685,-0.0236634,0.212826,0.0511464,0.0155614,0.00628494,0.0168352,-0.031418,0.157066,-0.0826639,0.00138451,0,0,0,0,0,0,0,2.94727,-33.7962,2.86134,26.4789,1.80236,2.64855,-0.0227812,
0.0147322,-0.0633493,-0.0530279,-1.82623,0.0270007,0.178326,0.0510435,0.00411,0.00666195,0.00435099,-0.00846252,0.639775,-0.416154,-0.000104136,1.66275,0.262479,1.69028,-0.605184,52.9237,-40.4611,0.0192915,3.63683,1.1482,3.65887,-1.61368,11.0739,-7.49181,-0.00271449,0.0152319,-0.0647279,-0.0524116,-1.82685,-0.0236634,0.212826,0.0511464,0.0155614,0.00628494,0.0168352,-0.031418,0.157066,-0.0826639,0.00138451,0,0,0,0,0,0,0,2.94727,-33.7962,2.86134,26.4789,1.80236,2.64855,-0.0227812,
0.0184424,-0.0661,-0.0490272,-1.82865,0.00454455,0.177563,0.0515281,0.0241629,-0.00409558,0.0252969,-0.022267,0.694725,-0.551755,0.000162765,12.5331,-6.72345,13.0912,-8.62781,34.3436,-84.7505,0.166813,21.7429,0.947974,22.8847,-8.2896,11.0739,-14.2237,0.220007,0.0152319,-0.0647279,-0.0524116,-1.82685,-0.0236634,0.212826,0.0511464,0.0155614,0.00628494,0.0168352,-0.031418,0.157066,-0.0826639,0.00138451,0,0,0,0,0,0,0,2.94727,-33.7962,2.86134,26.4789,1.80236,2.64855,-0.0227812,
0.0193299,-0.0664404,-0.0481007,-1.82935,0.0122514,0.168843,0.0515362,0.0415161,-0.0117884,0.0434002,-0.0352386,0.74845,-0.659392,0.00033283,10.8457,-4.80799,11.3146,-8.10726,33.5785,-67.2734,0.106291,19.8463,-3.644,20.0346,-11.6148,10.9443,-14.176,0.192103,0.0162685,-0.0643422,-0.0507046,-1.82812,-0.00659924,0.200487,0.0513426,0.050678,-0.0207758,0.0928511,-0.0885661,0.99131,-0.80419,0.0124724,4.38958,-3.3826,9.502,-7.14351,104.281,-90.1908,1.38599,11.2389,-25.7863,11.0617,18.457,6.01104,-1.96662,0.110886,
0.0202565,-0.0667372,-0.0471345,-1.83011,0.0202339,0.160368,0.0515439,0.0563775,-0.0168501,0.0588748,-0.0471113,0.798324,-0.739398,0.000459701,9.28833,-3.16357,9.67159,-7.42043,31.171,-50.0035,0.0792945,17.1194,-3.29567,17.4985,-11.532,10.9443,-14.176,0.0538137,0.0162685,-0.0643422,-0.0507046,-1.82812,-0.00659924,0.200487,0.0513426,0.050678,-0.0207758,0.0928511,-0.0885661,0.99131,-0.80419,0.0124724,0,0,0,0,0,0,0,11.2389,-25.7863,11.0617,18.457,6.01104,-1.96662,0.110886,
0.022498,-0.0639914,-0.0443149,-1.83281,0.0322405,0.155707,0.0514269,0.0810874,-0.0092434,0.0841333,-0.0669695,0.841463,-0.824717,0.000255519,15.4437,4.75418,15.7865,-12.4114,26.9618,-53.3246,-0.127614,25.5056,6.91827,26.1119,-17.4956,10.9443,-14.176,0.0278655,0.0162685,-0.0643422,-0.0507046,-1.82812,-0.00659924,0.200487,0.0513426,0.050678,-0.0207758,0.0928511,-0.0885661,0.99131,-0.80419,0.0124724,0,0,0,0,0,0,0,11.2389,-25.7863,11.0617,18.457,6.01104,-1.96662,0.110886,
0.0239646,-0.0637813,-0.0428047,-1.83408,0.040515,0.146818,0.0514206,0.101535,-0.00214374,0.105062,-0.0852326,0.880032,-0.882002,4.74769e-05,12.7797,4.43729,13.0802,-11.4144,24.1059,-35.8031,-0.130026,23.9824,6.52608,24.5747,-17.1598,10.9443,-14.176,0.00995397,0.0162685,-0.0643422,-0.0507046,-1.82812,-0.00659924,0.200487,0.0513426,0.050678,-0.0207758,0.0928511,-0.0885661,0.99131,-0.80419,0.0124724,0,0,0,0,0,0,0,11.2389,-25.7863,11.0617,18.457,6.01104,-1.96662,0.110886,
0.0254422,-0.0635339,-0.0412826,-1.83541,0.0489149,0.138496,0.0514155,0.118168,0.00447098,0.122102,-0.101487,0.914025,-0.913635,-9.03587e-05,10.3957,4.1342,10.6503,-10.159,21.2455,-19.7707,-0.0861472,22.8054,6.65519,23.405,-17.0545,10.8678,-13.792,0.0010457,0.01901,-0.06631,-0.0463108,-1.83309,0.0361251,0.163176,0.051438,0.211446,-0.153508,0.316117,-0.273291,1.47896,-1.42328,0.00133801,20.096,-16.5915,27.9082,-23.0906,60.9566,-77.3859,-1.3918,21.1055,-30.305,21.0355,23.2892,5.2594,-1.48872,-0.00996382,
0.0269192,-0.0632545,-0.0397605,-1.83679,0.0574067,0.130808,0.0514118,0.131459,0.010562,0.135733,-0.115509,0.943515,-0.923107,-0.000164014,8.30702,3.80688,8.51944,-8.76391,18.4314,-5.91986,-0.0460343,21.7169,6.12966,22.3073,-16.8601,10.8678,-12.9344,-0.0064022,0.01901,-0.06631,-0.0463108,-1.83309,0.0361251,0.163176,0.051438,0.211446,-0.153508,0.316117,-0.273291,1.47896,-1.42328,0.00133801,0,0,0,0,0,0,0,21.1055,-30.305,21.0355,23.2892,5.2594,-1.48872,-0.00996382,
0.0291677,-0.0677331,-0.035914,-1.84173,0.0857556,0.116258,0.0512371,0.153116,0.00717543,0.157742,-0.138091,0.98914,-0.923813,-0.00115762,13.5354,-2.1166,13.7554,-14.1136,28.5157,-0.441443,-0.621005,23.9671,3.7862,24.5547,-22.3046,10.8678,-12.7759,-0.0555739,0.01901,-0.06631,-0.0463108,-1.83309,0.0361251,0.163176,0.051438,0.211446,-0.153508,0.316117,-0.273291,1.47896,-1.42328,0.00133801,0,0,0,0,0,0,0,21.1055,-30.305,21.0355,23.2892,5.2594,-1.48872,-0.00996382,
0.0310228,-0.0677322,-0.0340112,-1.84357,0.0949861,0.109772,0.0512004,0.16887,0.00576315,0.173764,-0.156592,1.02208,-0.901196,-0.00184381,9.84627,-0.882677,10.0138,-11.5632,20.5847,14.1353,-0.428866,22.867,3.07717,23.4323,-22.096,10.8678,-11.0501,-0.0594609,0.01901,-0.06631,-0.0463108,-1.83309,0.0361251,0.163176,0.051438,0.211446,-0.153508,0.316117,-0.273291,1.47896,-1.42328,0.00133801,0,0,0,0,0,0,0,21.1055,-30.305,21.0355,23.2892,5.2594,-1.48872,-0.00996382,
0.0328174,-0.0676956,-0.0321697,-1.84542,0.104098,0.104154,0.0511702,0.179961,0.00552508,0.185049,-0.171397,1.04547,-0.861409,-0.00223115,6.93152,-0.148792,7.05311,-9.25289,14.6205,24.8672,-0.242086,22.0209,2.08936,22.6003,-21.534,10.7172,-9.22806,-0.0612571,0.0263,-0.0653855,-0.0354668,-1.84443,0.082104,0.11642,0.051416,0.197836,0.0506419,0.258454,-0.370002,1.21696,-1.07269,-0.00253603,-1.70124,25.5187,-7.20784,-12.0888,-32.7503,43.8233,-0.484255,7.25971,-27.9326,7.73713,31.9577,3.12805,3.24547,0.0980684,
0.0349458,-0.0631519,-0.0265935,-1.8552,0.126845,0.0853268,0.0512817,0.185158,0.0128743,0.19034,-0.18674,1.05465,-0.800077,-0.002203,3.24844,4.59329,3.3069,-9.58942,5.74078,38.3325,0.0175923,20.4796,1.25614,21.0236,-21.0828,10.7172,-6.59157,-0.0501536,0.0263,-0.0653855,-0.0354668,-1.84443,0.082104,0.11642,0.051416,0.197836,0.0506419,0.258454,-0.370002,1.21696,-1.07269,-0.00253603,0,0,0,0,0,0,0,7.25971,-27.9326,7.73713,31.9577,3.12805,3.24547,0.0980684,
0.0365496,-0.0628583,-0.0249461,-1.85711,0.135519,0.0816405,0.0512709,0.18822,0.0176406,0.193458,-0.197376,1.06057,-0.73222,-0.00203303,1.91388,2.97888,1.9487,-6.64772,3.69912,42.4108,0.106229,19.8222,0.991177,20.3495,-20.8363,10.7172,-5.48881,-0.0433706,0.0263,-0.0653855,-0.0354668,-1.84443,0.082104,0.11642,0.051416,0.197836,0.0506419,0.258454,-0.370002,1.21696,-1.07269,-0.00253603,0,0,0,0,0,0,0,7.25971,-27.9326,7.73713,31.9577,3.12805,3.24547,0.0980684,
0.0381103,-0.0626028,-0.0233426,-1.85897,0.144144,0.07863,0.0512667,0.189593,0.0204984,0.194854,-0.204317,1.06409,-0.661039,-0.00173054,0.858172,1.78614,0.87255,-4.33797,2.19646,44.4882,0.189057,19.2227,0.808047,19.7332,-20.5787,10.7172,-4.50874,-0.0342353,0.0263,-0.0653855,-0.0354668,-1.84443,0.082104,0.11642,0.051416,0.197836,0.0506419,0.258454,-0.370002,1.21696,-1.07269,-0.00253603,0,0,0,0,0,0,0,7.25971,-27.9326,7.73713,31.9577,3.12805,3.24547,0.0980684,
0.0396289,-0.0623802,-0.021782,-1.86077,0.152726,0.0762224,0.0512685,0.189641,0.0219649,0.194897,-0.208373,1.06581,-0.589021,-0.00134115,0.0295872,0.916569,0.0271409,-2.53536,1.07803,45.011,0.24337,18.6641,0.687234,19.1582,-20.3108,10.7172,-3.64822,-0.0262566,0.0263,-0.0653855,-0.0354668,-1.84443,0.082104,0.11642,0.051416,0.197836,0.0506419,0.258454,-0.370002,1.21696,-1.07269,-0.00253603,0,0,0,0,0,0,0,7.25971,-27.9326,7.73713,31.9577,3.12805,3.24547,0.0980684,
0.0461497,-0.0636312,-0.00995757,-1.86653,0.160586,0.0782925,0.0513824,0.193784,0.0242874,0.199241,-0.210552,1.07072,-0.512511,-0.00104828,2.58967,1.45157,2.71448,-1.36129,3.06749,47.8187,0.18304,18.2469,-0.0187053,18.7655,-19.2699,10.6463,-2.57751,-0.0210367,0.0361338,-0.0657544,-0.0203172,-1.85711,0.119284,0.0902118,0.0514995,0.281734,0.0914958,0.448089,-0.274219,0.72392,-0.370916,0.0029057,10.4873,5.10673,23.7044,11.9729,-61.6301,87.7219,0.680216,-5.59826,-31.7491,-5.08513,27.923,0.752255,3.67669,-0.0703886,
0.047741,-0.0634097,-0.00831949,-1.86823,0.169296,0.0770242,0.0513913,0.194809,0.0249661,0.200344,-0.210903,1.07433,-0.441715,-0.000615757,0.640444,0.424188,0.689917,-0.219423,2.25793,44.2472,0.270329,17.7529,-0.0536199,18.2557,-18.9907,10.6463,-1.91584,-0.012853,0.0361338,-0.0657544,-0.0203172,-1.85711,0.119284,0.0902118,0.0514995,0.281734,0.0914958,0.448089,-0.274219,0.72392,-0.370916,0.0029057,0,0,0,0,0,0,0,-5.59826,-31.7491,-5.08513,27.923,0.752255,3.67669,-0.0703886,
0.0492566,-0.0632256,-0.0067595,-1.86988,0.177965,0.0761166,0.0514076,0.193736,0.0245761,0.199275,-0.20989,1.07617,-0.376061,-8.53276e-05,-0.670372,-0.243762,-0.668162,0.633143,1.14833,41.0341,0.331518,17.285,-0.0609886,17.7721,-18.7097,10.6463,-1.33545,-0.00383196,0.0361338,-0.0657544,-0.0203172,-1.85711,0.119284,0.0902118,0.0514995,0.281734,0.0914958,0.448089,-0.274219,0.72392,-0.370916,0.0029057,0,0,0,0,0,0,0,-5.59826,-31.7491,-5.08513,27.923,0.752255,3.67669,-0.0703886,
0.0507075,-0.0630712,-0.00526598,-1.87148,0.186579,0.0755412,0.0514303,0.191263,0.0235205,0.196758,-0.207879,1.07628,-0.315234,0.000501041,-1.54576,-0.659744,-1.5732,1.25692,0.0720145,38.0169,0.366481,16.8355,-0.051757,17.3071,-18.4278,10.6463,-0.833365,0.0040426,0.0361338,-0.0657544,-0.0203172,-1.85711,0.119284,0.0902118,0.0514995,0.281734,0.0914958,0.448089,-0.274219,0.72392,-0.370916,0.0029057,0,0,0,0,0,0,0,-5.59826,-31.7491,-5.08513,27.923,0.752255,3.67669,-0.0703886,
0.0458029,-0.0634943,-0.0103195,-1.86643,0.160917,0.0824993,0.0515021,0.19268,0.0263902,0.19823,-0.208515,1.08039,-0.269725,0.0010038,0.885616,1.79354,0.919912,-0.397868,2.56621,28.443,0.314226,16.3458,-0.177571,16.8355,-17.9995,10.5093,-0.367344,0.011553,0.0429145,-0.0631374,-0.00657413,-1.86502,0.136235,0.0906852,0.0516631,0.26502,-0.0182709,0.500567,-0.243552,0.540749,0.104138,-0.000661128,-2.08922,-13.7208,6.55975,3.83334,-22.8964,59.3818,-0.445854,-2.83307,-32.0506,-3.63707,22.5433,2.3645,4.07403,0.0706026,
0.0472906,-0.0632425,-0.00878908,-1.86805,0.169669,0.0821383,0.0515347,0.191337,0.0274075,0.196845,-0.207357,1.08312,-0.224804,0.0016195,-0.839403,0.635836,-0.865641,0.723636,1.70278,28.0757,0.38481,15.9274,-0.149884,16.4021,-17.7213,10.5093,0.0106131,0.0189601,0.0429145,-0.0631374,-0.00657413,-1.86502,0.136235,0.0906852,0.0516631,0.26502,-0.0182709,0.500567,-0.243552,0.540749,0.104138,-0.000661128,0,0,0,0,0,0,0,-2.83307,-32.0506,-3.63707,22.5433,2.3645,4.07403,0.0706026,
0.0486959,-0.0630322,-0.0073437,-1.86962,0.178372,0.0820787,0.0515726,0.188201,0.0271844,0.193611,-0.204962,1.08408,-0.181333,0.00224104,-1.95979,-0.139435,-2.02159,1.49676,0.600663,27.1694,0.388463,15.5217,-0.117328,15.9816,-17.4472,10.5093,0.341705,0.0266604,0.0429145,-0.0631374,-0.00657413,-1.86502,0.136235,0.0906852,0.0516631,0.26502,-0.0182709,0.500567,-0.243552,0.540749,0.104138,-0.000661128,0,0,0,0,0,0,0,-2.83307,-32.0506,-3.63707,22.5433,2.3645,4.07403,0.0706026,
0.0522885,-0.0627883,0.00314185,-1.87246,0.176164,0.0929266,0.0517422,0.187358,0.0236224,0.192791,-0.19909,1.08562,-0.128994,0.0027761,-0.526857,-2.22627,-0.512072,3.67028,0.966861,32.712,0.334411,14.7282,-0.0462453,15.159,-16.9153,10.5093,0.887182,0.0416205,0.0429145,-0.0631374,-0.00657413,-1.86502,0.136235,0.0906852,0.0516631,0.26502,-0.0182709,0.500567,-0.243552,0.540749,0.104138,-0.000661128,0,0,0,0,0,0,0,-2.83307,-32.0506,-3.63707,22.5433,2.3645,4.07403,0.0706026,
0.0536505,-0.062717,0.0045447,-1.87384,0.184912,0.0937066,0.051786,0.183939,0.0206828,0.189304,-0.193638,1.0872,-0.0836947,0.00331551,-2.13729,-1.83721,-2.17925,3.40751,0.985273,28.3119,0.337133,14.2859,-0.00169688,14.719,-16.8184,10.4115,1.02667,0.050189,0.049109,-0.056544,0.00711322,-1.8689,0.154411,0.0970485,0.051821,0.141741,0.0596678,0.35529,-0.121507,0.728149,-0.0228091,0.00558767,-15.4099,9.74234,-18.1596,15.2556,23.425,-15.8684,0.7811,-5.47131,-44.9522,-6.31102,35.6949,-0.347294,5.71831,-0.0163725,
0.0549222,-0.0626464,0.00585719,-1.87518,0.193627,0.0946173,0.0518321,0.178942,0.0183093,0.184256,-0.18851,1.08762,-0.0441895,0.00380529,-3.1232,-1.48348,-3.15538,3.20502,0.264619,24.6908,0.306111,13.8477,0.0506062,14.2645,-16.5708,10.4115,1.2255,0.0549383,0.049109,-0.056544,0.00711322,-1.8689,0.154411,0.0970485,0.051821,0.141741,0.0596678,0.35529,-0.121507,0.728149,-0.0228091,0.00558767,0,0,0,0,0,0,0,-5.47131,-44.9522,-6.31102,35.6949,-0.347294,5.71831,-0.0163725,
0.0561187,-0.0625743,0.00709402,-1.8765,0.202286,0.0956465,0.0518801,0.173065,0.0164517,0.178325,-0.183624,1.08657,-0.00962175,0.0042445,-3.67257,-1.16098,-3.70648,3.05353,-0.65559,21.6048,0.274508,13.4101,0.121718,13.8123,-16.321,10.4115,1.40455,0.0593537,0.049109,-0.056544,0.00711322,-1.8689,0.154411,0.0970485,0.051821,0.141741,0.0596678,0.35529,-0.121507,0.728149,-0.0228091,0.00558767,0,0,0,0,0,0,0,-5.47131,-44.9522,-6.31102,35.6949,-0.347294,5.71831,-0.0163725,
0.0559613,-0.0556446,0.0142185,-1.8758,0.194125,0.100947,0.052013,0.167541,0.0167415,0.172704,-0.179827,1.0746,0.0186518,0.00463203,-3.45256,0.181149,-3.51314,2.37337,-7.48588,17.671,0.242207,12.9723,0.206324,13.3574,-16.0732,10.4115,1.57142,0.0641192,0.049109,-0.056544,0.00711322,-1.8689,0.154411,0.0970485,0.051821,0.141741,0.0596678,0.35529,-0.121507,0.728149,-0.0228091,0.00558767,0,0,0,0,0,0,0,-5.47131,-44.9522,-6.31102,35.6949,-0.347294,5.71831,-0.0163725,
0.0570864,-0.0555134,0.0153781,-1.87706,0.201887,0.102104,0.0520658,0.162159,0.0166725,0.167153,-0.175516,1.05374,0.0438479,0.0050261,-3.36428,-0.0431172,-3.4695,2.69451,-13.0364,15.7476,0.246291,12.5228,0.245375,12.9175,-15.9614,10.2632,1.64239,0.0661735,0.0522399,-0.0550247,0.0152925,-1.87069,0.184845,0.0976505,0.0518999,0.0715641,0.0459847,0.194836,0.0278894,0.85984,0.109097,0.00628085,-8.77212,-1.7104,-20.0567,18.6746,16.4614,16.4882,0.0866481,-6.20923,-39.1402,-7.06084,27.3755,2.34619,1.72661,-0.26448,
0.0581836,-0.055396,0.0165077,-1.87828,0.209055,0.103353,0.0521191,0.157158,0.0162729,0.161963,-0.170917,1.02218,0.0662977,0.00535377,-3.12516,-0.249768,-3.24374,2.87451,-19.7235,14.0311,0.204799,12.0628,0.375598,12.4795,-15.6943,10.2632,1.76537,0.0667282,0.0522399,-0.0550247,0.0152925,-1.87069,0.184845,0.0976505,0.0518999,0.0715641,0.0459847,0.194836,0.0278894,0.85984,0.109097,0.00628085,0,0,0,0,0,0,0,-6.20923,-39.1402,-7.06084,27.3755,2.34619,1.72661,-0.26448,
0.0559613,-0.0556446,0.0142185,-1.8758,0.194125,0.100947,0.052013,0.154816,0.0165985,0.159615,-0.169661,1.02308,0.0793873,0.00551945,-1.46416,0.203496,-1.46786,0.784895,0.563264,8.18103,0.103548,11.2554,0.630494,11.6751,-15.1173,9.51599,1.95355,0.0681169,0.0522399,-0.0550247,0.0152925,-1.87069,0.184845,0.0976505,0.0518999,0.0715641,0.0459847,0.194836,0.0278894,0.85984,0.109097,0.00628085,0,0,0,0,0,0,0,-6.20923,-39.1402,-7.06084,27.3755,2.34619,1.72661,-0.26448,
0.058049,-0.05536,0.0213022,-1.87659,0.223233,0.108645,0.0522088,0.14783,0.0126422,0.152363,-0.161351,0.944941,0.107183,0.00577827,-4.36615,-2.47272,-4.532,5.19352,-48.8384,17.3723,0.161764,10.9014,0.713237,11.3123,-14.834,8.34307,2.01469,0.0680948,0.0522399,-0.0550247,0.0152925,-1.87069,0.184845,0.0976505,0.0518999,0.0715641,0.0459847,0.194836,0.0278894,0.85984,0.109097,0.00628085,0,0,0,0,0,0,0,-6.20923,-39.1402,-7.06084,27.3755,2.34619,1.72661,-0.26448,
0.0589998,-0.0553748,0.0222803,-1.87761,0.227708,0.110366,0.0522636,0.142034,0.00974257,0.146344,-0.154433,0.867831,0.128757,0.00599025,-3.62213,-1.81225,-3.76225,4.32386,-48.1936,13.4841,0.132484,10.5513,0.717549,10.956,-14.5521,7.24323,1.99839,0.0675596,0.0544426,-0.0533279,0.0201082,-1.86906,0.204374,0.105027,0.0518736,0.0489065,0.092067,0.102204,0.0402913,0.3711,0.275304,0.000242707,-2.83221,5.76029,-11.579,1.55024,-61.0924,20.7759,-0.754768,-5.06665,-24.1637,-4.93834,17.5882,0.679012,0.566641,0.0239107,
0.0599398,-0.0553816,0.0232472,-1.87861,0.231629,0.112064,0.0523189,0.137126,0.00762486,0.141245,-0.148601,0.792293,0.145468,0.00617598,-3.06779,-1.32357,-3.18651,3.64489,-47.2112,10.4439,0.116081,10.2877,0.748836,10.6795,-14.2832,6.31414,2.02434,0.0668483,0.0544426,-0.0533279,0.0201082,-1.86906,0.204374,0.105027,0.0518736,0.0489065,0.092067,0.102204,0.0402913,0.3711,0.275304,0.000242707,0,0,0,0,0,0,0,-5.06665,-24.1637,-4.93834,17.5882,0.679012,0.566641,0.0239107,
0.0578114,-0.0528971,0.0236142,-1.87361,0.220972,0.117006,0.052138,0.128201,0.00696151,0.132093,-0.143238,0.704729,0.166963,0.00638673,-5.57809,-0.414592,-5.72012,3.3519,-54.7277,13.4343,0.131718,10.0688,0.762848,10.4474,-14.0191,5.48281,2.04685,0.0662187,0.0544426,-0.0533279,0.0201082,-1.86906,0.204374,0.105027,0.0518736,0.0489065,0.092067,0.102204,0.0402913,0.3711,0.275304,0.000242707,0,0,0,0,0,0,0,-5.06665,-24.1637,-4.93834,17.5882,0.679012,0.566641,0.0239107,
0.058571,-0.0528655,0.0243973,-1.87458,0.223478,0.118916,0.0521964,0.12155,0.00635921,0.125254,-0.138749,0.626442,0.181314,0.00657014,-4.15672,-0.376439,-4.27475,2.80582,-48.9291,8.96985,0.114632,9.88661,0.761856,10.2527,-13.7575,4.72591,2.05868,0.0665551,0.0544426,-0.0533279,0.0201082,-1.86906,0.204374,0.105027,0.0518736,0.0489065,0.092067,0.102204,0.0402913,0.3711,0.275304,0.000242707,0,0,0,0,0,0,0,-5.06665,-24.1637,-4.93834,17.5882,0.679012,0.566641,0.0239107,
0.0593432,-0.0528354,0.025193,-1.87553,0.225664,0.120739,0.052255,0.116546,0.00584173,0.120093,-0.134917,0.555807,0.190634,0.00672155,-3.12756,-0.323424,-3.2253,2.39456,-44.1467,5.82487,0.0946328,9.69874,0.747448,10.0598,-13.5453,4.02866,2.01934,0.0677308,0.0558155,-0.0540832,0.0231967,-1.87031,0.2095,0.113731,0.0518613,0.0392556,0.0673207,0.100052,-0.0232616,-0.095427,0.297324,-3.09346e-05,-1.20636,-3.09329,-0.26903,-7.94411,-58.3159,2.75244,-0.0342053,-1.11126,-25.0127,-1.58599,17.2629,0.452877,1.83922,-0.0163725,
0.0601223,-0.0528058,0.0259952,-1.87648,0.227548,0.122494,0.0523139,0.112713,0.00541296,0.11613,-0.131578,0.491735,0.196376,0.00684994,-2.39567,-0.267978,-2.47709,2.08716,-40.045,3.58888,0.0802416,9.56379,0.72401,9.91314,-13.2899,3.4228,2.02118,0.0686887,0.0558155,-0.0540832,0.0231967,-1.87031,0.2095,0.113731,0.0518613,0.0392556,0.0673207,0.100052,-0.0232616,-0.095427,0.297324,-3.09346e-05,0,0,0,0,0,0,0,-1.11126,-25.0127,-1.58599,17.2629,0.452877,1.83922,-0.0163725,
0.0586903,-0.0534905,0.0262063,-1.87496,0.213887,0.124792,0.052132,0.106039,0.00613955,0.109323,-0.128968,0.419252,0.203942,0.00697422,-4.17122,0.454117,-4.25401,1.63111,-45.3022,4.72854,0.0776797,9.44183,0.692789,9.77983,-13.038,2.89211,2.02186,0.0693969,0.0558155,-0.0540832,0.0231967,-1.87031,0.2095,0.113731,0.0518613,0.0392556,0.0673207,0.100052,-0.0232616,-0.095427,0.297324,-3.09346e-05,0,0,0,0,0,0,0,-1.11126,-25.0127,-1.58599,17.2629,0.452877,1.83922,-0.0163725,
0.0593476,-0.0534264,0.0268852,-1.87589,0.214828,0.126565,0.052192,0.101263,0.00651423,0.104431,-0.126522,0.358916,0.207473,0.00707998,-2.98487,0.234176,-3.05802,1.52888,-37.7102,2.20681,0.0660974,9.32834,0.655342,9.65559,-12.7882,2.41971,2.0151,0.0704459,0.0558155,-0.0540832,0.0231967,-1.87031,0.2095,0.113731,0.0518613,0.0392556,0.0673207,0.100052,-0.0232616,-0.095427,0.297324,-3.09346e-05,0,0,0,0,0,0,0,-1.11126,-25.0127,-1.58599,17.2629,0.452877,1.83922,-0.0163725,
0.0600212,-0.0533689,0.0275802,-1.87681,0.215658,0.128258,0.0522518,0.0978518,0.00665024,0.100918,-0.124193,0.307874,0.208325,0.00715767,-2.13216,0.0850086,-2.19519,1.45532,-31.9012,0.532857,0.0485563,9.21899,0.613822,9.53578,-12.5412,2.01217,2.00733,0.0711086,0.0558155,-0.0540832,0.0231967,-1.87031,0.2095,0.113731,0.0518613,0.0392556,0.0673207,0.100052,-0.0232616,-0.095427,0.297324,-3.09346e-05,0,0,0,0,0,0,0,-1.11126,-25.0127,-1.58599,17.2629,0.452877,1.83922,-0.0163725,
0.0581661,-0.0531999,0.0278156,-1.87716,0.191385,0.131077,0.0521463,0.0902025,0.00855103,0.0931315,-0.122928,0.241046,0.206682,0.00723815,-4.78083,1.18799,-4.86672,0.790803,-41.7673,-1.027,0.0502992,9.01863,0.592978,9.31783,-12.1397,1.40486,1.92031,0.0726322,0.0562954,-0.0540765,0.025824,-1.87229,0.196492,0.122225,0.0518652,0.00765196,0.0576029,0.0637989,-0.0650208,-0.512897,0.208928,0.000469877,-3.95045,-1.21472,-4.53164,-5.2199,-52.1838,-11.0495,0.0626014,-1.36517,-25.1634,-1.81212,20.1788,0.612179,2.02508,-0.0630644,
0.058682,-0.0530862,0.0283502,-1.87807,0.191298,0.132618,0.0522062,0.085061,0.00968329,0.0878702,-0.121267,0.190669,0.203878,0.0072876,-3.21342,0.707664,-3.28831,1.03808,-31.4856,-1.75245,0.0309102,8.90886,0.54704,9.19887,-11.8979,1.14182,1.90032,0.0730474,0.0562954,-0.0540765,0.025824,-1.87229,0.196492,0.122225,0.0518652,0.00765196,0.0576029,0.0637989,-0.0650208,-0.512897,0.208928,0.000469877,0,0,0,0,0,0,0,-1.36517,-25.1634,-1.81212,20.1788,0.612179,2.02508,-0.0630644,
0.0592285,-0.0529862,0.0289151,-1.87897,0.191285,0.134109,0.052265,0.0817107,0.0102464,0.0844185,-0.119329,0.152193,0.200385,0.00730041,-2.09398,0.351943,-2.15731,1.21157,-24.0478,-2.18357,0.00800055,8.79624,0.501932,9.07732,-11.6579,0.923034,1.88,0.0730249,0.0562954,-0.0540765,0.025824,-1.87229,0.196492,0.122225,0.0518652,0.00765196,0.0576029,0.0637989,-0.0650208,-0.512897,0.208928,0.000469877,0,0,0,0,0,0,0,-1.36517,-25.1634,-1.81212,20.1788,0.612179,2.02508,-0.0630644,
0.0597977,-0.0528981,0.0295026,-1.87984,0.191313,0.135557,0.0523226,0.0795983,0.0104013,0.0822211,-0.117198,0.122472,0.19649,0.00728137,-1.32027,0.0968086,-1.37336,1.33181,-18.5751,-2.43381,-0.0118944,8.68071,0.458107,8.95329,-11.4188,0.736781,1.85557,0.0729816,0.0562954,-0.0540765,0.025824,-1.87229,0.196492,0.122225,0.0518652,0.00765196,0.0576029,0.0637989,-0.0650208,-0.512897,0.208928,0.000469877,0,0,0,0,0,0,0,-1.36517,-25.1634,-1.81212,20.1788,0.612179,2.02508,-0.0630644,
0.0565454,-0.0502321,0.0279745,-1.87839,0.167247,0.133993,0.0521197,0.0718412,0.0142215,0.0743224,-0.117363,0.0764906,0.191337,0.00730051,-4.84813,2.38761,-4.9367,-0.103357,-28.7386,-3.22111,0.0119586,8.5869,0.514036,8.84452,-11.1912,0.671592,1.82535,0.0723596,0.0557492,-0.0520279,0.0270861,-1.87337,0.176962,0.126796,0.0518346,-0.0226165,0.116548,-0.000553794,-0.0486576,-0.675485,0.104433,-0.00601529,-3.78356,7.36811,-8.04408,2.0454,-20.3235,-13.0619,-0.810646,-7.19708,-28.7538,-6.8347,25.3839,0.764157,2.39037,0.185044,
0.0569296,-0.0500324,0.0283739,-1.87929,0.166634,0.135323,0.0521771,0.0670788,0.0163704,0.0694426,-0.1165,0.0458737,0.186316,0.00727549,-2.97654,1.3431,-3.04987,0.539621,-19.1355,-3.13815,-0.0156345,8.4648,0.474518,8.71458,-10.954,0.545848,1.79782,0.071854,0.0557492,-0.0520279,0.0270861,-1.87337,0.176962,0.126796,0.0518346,-0.0226165,0.116548,-0.000553794,-0.0486576,-0.675485,0.104433,-0.00601529,0,0,0,0,0,0,0,-7.19708,-28.7538,-6.8347,25.3839,0.764157,2.39037,0.185044,
0.0573592,-0.0498627,0.0288186,-1.88016,0.166204,0.136622,0.0522326,0.0644028,0.0173386,0.0666711,-0.114914,0.0259478,0.181531,0.0072084,-1.67248,0.605111,-1.73218,0.99125,-12.4537,-2.99052,-0.0419343,8.33943,0.437705,8.58164,-10.7178,0.447468,1.77068,0.07099,0.0557492,-0.0520279,0.0270861,-1.87337,0.176962,0.126796,0.0518346,-0.0226165,0.116548,-0.000553794,-0.0486576,-0.675485,0.104433,-0.00601529,0,0,0,0,0,0,0,-7.19708,-28.7538,-6.8347,25.3839,0.764157,2.39037,0.185044,
0.0578235,-0.0497177,0.0292979,-1.88099,0.165913,0.137893,0.0522862,0.0631299,0.0174946,0.0653206,-0.112832,0.0134675,0.177008,0.00710729,-0.795564,0.0975089,-0.844124,1.30143,-7.80018,-2.82677,-0.0631942,8.21137,0.403533,8.44635,-10.4821,0.368128,1.74121,0.070066,0.0557492,-0.0520279,0.0270861,-1.87337,0.176962,0.126796,0.0518346,-0.0226165,0.116548,-0.000553794,-0.0486576,-0.675485,0.104433,-0.00601529,0,0,0,0,0,0,0,-7.19708,-28.7538,-6.8347,25.3839,0.764157,2.39037,0.185044,
0.0564566,-0.0502092,0.0278768,-1.87806,0.166662,0.13351,0.0520984,0.0578975,0.0198722,0.0599941,-0.112136,-0.0132157,0.17308,0.00702368,-3.27026,1.48599,-3.32902,0.434966,-16.677,-2.45496,-0.0522547,8.09814,0.4432,8.3177,-10.2273,0.404463,1.72135,0.0685475,0.0555405,-0.0496086,0.0285149,-1.8755,0.155099,0.127408,0.0518325,-0.00817916,0.128371,0.00207706,-0.0759208,-0.6773,-0.0218164,-0.00101716,1.80467,1.47784,0.328857,-3.4079,-0.22686,-15.7811,0.624766,-7.62555,-28.4563,-7.40996,28.6212,0.886837,3.55034,0.14476,
0.0568056,-0.0500115,0.0282394,-1.8789,0.165972,0.134733,0.05215,0.0550422,0.0208395,0.05706,-0.110567,-0.0278177,0.169043,0.0069076,-1.78458,0.604552,-1.83382,0.980616,-9.12621,-2.52318,-0.0725471,7.96528,0.414558,8.17824,-9.99258,0.359583,1.69087,0.0672576,0.0555405,-0.0496086,0.0285149,-1.8755,0.155099,0.127408,0.0518325,-0.00817916,0.128371,0.00207706,-0.0759208,-0.6773,-0.0218164,-0.00101716,0,0,0,0,0,0,0,-7.62555,-28.4563,-7.40996,28.6212,0.886837,3.55034,0.14476,
0.0571964,-0.0498445,0.0286438,-1.8797,0.165488,0.135926,0.0521994,0.0538049,0.0208471,0.0557584,-0.108401,-0.0343679,0.165066,0.00676088,-0.773269,0.00474038,-0.813521,1.35326,-4.09387,-2.48538,-0.0917011,7.83039,0.388649,8.03702,-9.75844,0.329809,1.66124,0.0657139,0.0555405,-0.0496086,0.0285149,-1.8755,0.155099,0.127408,0.0518325,-0.00817916,0.128371,0.00207706,-0.0759208,-0.6773,-0.0218164,-0.00101716,0,0,0,0,0,0,0,-7.62555,-28.4563,-7.40996,28.6212,0.886837,3.55034,0.14476,
0.0563036,-0.0473415,0.0293556,-1.88036,0.145007,0.131253,0.0520651,0.0500882,0.0241341,0.0519624,-0.108258,-0.0495404,0.154643,0.00657009,-2.32296,2.05441,-2.37247,0.0895214,-9.48282,-6.51434,-0.119245,7.55609,0.344082,7.75094,-9.29111,0.299516,1.60073,0.062318,0.0555405,-0.0496086,0.0285149,-1.8755,0.155099,0.127408,0.0518325,-0.00817916,0.128371,0.00207706,-0.0759208,-0.6773,-0.0218164,-0.00101716,0,0,0,0,0,0,0,-7.62555,-28.4563,-7.40996,28.6212,0.886837,3.55034,0.14476,
0.0566313,-0.0470914,0.0296954,-1.88116,0.144406,0.132185,0.0521095,0.0482631,0.0255592,0.0500666,-0.106814,-0.0546632,0.146997,0.00636548,-1.14066,0.890686,-1.18491,0.902472,-3.20175,-4.77932,-0.12788,7.39806,0.271167,7.58154,-8.99124,0.362946,1.58445,0.0603557,0.0558952,-0.0480518,0.0301125,-1.8777,0.137865,0.126837,0.0518489,0.00497423,0.0576827,0.00546791,-0.037518,-0.449066,-0.00648936,0.000586774,1.64417,-8.83598,0.423856,4.80035,28.5292,1.91588,0.200492,-5.16583,-35.6688,-4.91057,31.2872,1.07635,3.90191,0.0843355,
0.0569952,-0.0468811,0.0300714,-1.88193,0.144018,0.133135,0.0521517,0.0477095,0.0257057,0.0494517,-0.104494,-0.0534363,0.141366,0.00614624,-0.346049,0.091568,-0.384266,1.45003,0.766801,-3.51895,-0.137025,7.25795,0.254151,7.4362,-8.75838,0.36556,1.55505,0.0583743,0.0558952,-0.0480518,0.0301125,-1.8777,0.137865,0.126837,0.0518489,0.00497423,0.0576827,0.00546791,-0.037518,-0.449066,-0.00648936,0.000586774,0,0,0,0,0,0,0,-5.16583,-35.6688,-4.91057,31.2872,1.07635,3.90191,0.0843355,
0.057387,-0.0467034,0.0304749,-1.88265,0.143794,0.134098,0.0521916,0.0479605,0.025007,0.0496504,-0.101607,-0.0483478,0.137172,0.00591593,0.156872,-0.436698,0.124196,1.80424,3.1803,-2.62144,-0.143945,7.11697,0.238798,7.29026,-8.5257,0.371052,1.52534,0.0563742,0.0558952,-0.0480518,0.0301125,-1.8777,0.137865,0.126837,0.0518489,0.00497423,0.0576827,0.00546791,-0.037518,-0.449066,-0.00648936,0.000586774,0,0,0,0,0,0,0,-5.16583,-35.6688,-4.91057,31.2872,1.07635,3.90191,0.0843355,
0.0569222,-0.0471908,0.0312001,-1.88132,0.131652,0.131209,0.0520525,0.0460666,0.0232379,0.0476896,-0.0982279,-0.049923,0.134341,0.00570401,-1.18366,-1.10573,-1.22554,2.11217,-0.984469,-1.7694,-0.132449,6.97499,0.225039,7.14354,-8.29333,0.380341,1.49667,0.0542609,0.0558952,-0.0480518,0.0301125,-1.8777,0.137865,0.126837,0.0518489,0.00497423,0.0576827,0.00546791,-0.037518,-0.449066,-0.00648936,0.000586774,0,0,0,0,0,0,0,-5.16583,-35.6688,-4.91057,31.2872,1.07635,3.90191,0.0843355,
0.0572636,-0.047076,0.0315523,-1.88197,0.131401,0.132199,0.0520892,0.0453888,0.0214586,0.0469563,-0.0947244,-0.0462069,0.132236,0.00548079,-0.423652,-1.11201,-0.458301,2.18968,2.32257,-1.31554,-0.139516,6.82311,0.227787,6.98077,-7.99966,0.42847,1.4957,0.0520827,0.0562477,-0.0456272,0.0314286,-1.87914,0.128927,0.126015,0.0518599,0.0101462,0.0136526,0.058866,-0.0593554,-0.115819,-0.027972,-0.00149398,0.646497,-5.50377,6.67476,-2.72967,41.6559,-2.68533,-0.260094,3.3797,-32.5505,3.0359,33.9771,2.0166,4.11431,0.0641939,
0.0576305,-0.0469744,0.0319299,-1.88258,0.131302,0.133189,0.0521238,0.0454831,0.019708,0.0470051,-0.0911832,-0.0394521,0.130521,0.00524803,0.0589393,-1.09415,0.0304911,2.21327,4.22173,-1.07201,-0.145475,6.67922,0.216563,6.83253,-7.76768,0.440009,1.46799,0.0499008,0.0562477,-0.0456272,0.0314286,-1.87914,0.128927,0.126015,0.0518599,0.0101462,0.0136526,0.058866,-0.0593554,-0.115819,-0.027972,-0.00149398,0,0,0,0,0,0,0,3.3797,-32.5505,3.0359,33.9771,2.0166,4.11431,0.0641939,
0.0580159,-0.0468842,0.032326,-1.88317,0.131319,0.134171,0.0521562,0.0460231,0.0180203,0.0475074,-0.0876628,-0.0311384,0.128981,0.00500965,0.33755,-1.05479,0.313951,2.2002,5.19604,-0.962053,-0.148984,6.5343,0.206325,6.68344,-7.53578,0.450654,1.4404,0.0477433,0.0562477,-0.0456272,0.0314286,-1.87914,0.128927,0.126015,0.0518599,0.0101462,0.0136526,0.058866,-0.0593554,-0.115819,-0.027972,-0.00149398,0,0,0,0,0,0,0,3.3797,-32.5505,3.0359,33.9771,2.0166,4.11431,0.0641939,
0.0580568,-0.0453283,0.0332947,-1.88222,0.128067,0.12931,0.0520304,0.046826,0.0160567,0.0482706,-0.0843602,-0.0222784,0.124622,0.00476999,0.501775,-1.22727,0.47699,2.06415,5.53748,-2.72481,-0.149788,6.38812,0.197053,6.5332,-7.30401,0.461437,1.41368,0.0455441,0.0562477,-0.0456272,0.0314286,-1.87914,0.128927,0.126015,0.0518599,0.0101462,0.0136526,0.058866,-0.0593554,-0.115819,-0.027972,-0.00149398,0,0,0,0,0,0,0,3.3797,-32.5505,3.0359,33.9771,2.0166,4.11431,0.0641939,
0.0584649,-0.0452645,0.033713,-1.88277,0.128249,0.130196,0.0520589,0.0476631,0.0144404,0.0490736,-0.0810617,-0.0132867,0.121839,0.00452847,0.523167,-1.01017,0.501872,2.06153,5.61987,-1.73949,-0.150947,6.23815,0.175821,6.38044,-7.05697,0.472681,1.39569,0.0433448,0.0566295,-0.0453585,0.0328591,-1.88017,0.128204,0.125971,0.051857,0.0194197,-0.0516641,0.0490536,-0.0256238,0.00170982,-0.00968863,0.00260436,1.15918,-8.16458,-1.22654,4.21645,14.6911,2.28542,0.512292,2.79651,-37.3152,2.71455,34.1754,1.84539,3.96783,-0.0301054,
0.0588768,-0.0452036,0.0341349,-1.88328,0.12849,0.131094,0.0520855,0.0484268,0.0130742,0.0498068,-0.0778014,-0.0046005,0.11993,0.00428761,0.477362,-0.853878,0.458278,2.03771,5.42885,-1.1928,-0.150542,6.08915,0.168057,6.22754,-6.82512,0.481187,1.36972,0.0411765,0.0566295,-0.0453585,0.0328591,-1.88017,0.128204,0.125971,0.051857,0.0194197,-0.0516641,0.0490536,-0.0256238,0.00170982,-0.00968863,0.00260436,0,0,0,0,0,0,0,2.79651,-37.3152,2.71455,34.1754,1.84539,3.96783,-0.0301054,
0.0592891,-0.0451461,0.0345571,-1.88378,0.128779,0.131994,0.0521103,0.0490496,0.0118971,0.050401,-0.0745996,0.00353807,0.118447,0.00405013,0.389205,-0.735699,0.371359,2.00113,5.0866,-0.927105,-0.148426,5.93858,0.160864,6.07314,-6.59304,0.487876,1.34374,0.0390637,0.0566295,-0.0453585,0.0328591,-1.88017,0.128204,0.125971,0.051857,0.0194197,-0.0516641,0.0490536,-0.0256238,0.00170982,-0.00968863,0.00260436,0,0,0,0,0,0,0,2.79651,-37.3152,2.71455,34.1754,1.84539,3.96783,-0.0301054,
0.0584322,-0.0462984,0.0347057,-1.88215,0.129354,0.129832,0.0519995,0.0489222,0.00754711,0.0502276,-0.069723,0.0109502,0.118168,0.00383812,-0.0796147,-2.71876,-0.108379,3.0479,4.63258,-0.174331,-0.132505,5.78628,0.154239,5.91696,-6.36068,0.494201,1.31787,0.0369591,0.0566295,-0.0453585,0.0328591,-1.88017,0.128204,0.125971,0.051857,0.0194197,-0.0516641,0.0490536,-0.0256238,0.00170982,-0.00968863,0.00260436,0,0,0,0,0,0,0,2.79651,-37.3152,2.71455,34.1754,1.84539,3.96783,-0.0301054,
0.0588209,-0.0463496,0.0351034,-1.88254,0.129713,0.13077,0.0520215,0.0488549,0.00475713,0.0501248,-0.0656108,0.0177334,0.117984,0.00362117,-0.0420513,-1.74374,-0.0642518,2.57012,4.23953,-0.115176,-0.135593,5.63059,0.144364,5.76198,-6.12341,0.489028,1.29756,0.0349162,0.0573912,-0.0455317,0.0355205,-1.88048,0.130946,0.12619,0.0518634,0.0232307,-0.0609378,0.0929584,0.00579446,0.0703484,-0.00967647,0.00089823,0.476372,-1.15921,5.48809,3.92728,8.57982,0.00151951,-0.213267,-0.781979,-31.0271,-0.76079,26.7764,1.55243,3.14568,-0.0227812,
0.0592074,-0.0463808,0.0354989,-1.88292,0.130103,0.131693,0.0520418,0.0487478,0.00302642,0.049988,-0.0620549,0.0239438,0.117472,0.00340403,-0.0669093,-1.08169,-0.0854681,2.22241,3.88146,-0.319654,-0.135714,5.47471,0.138497,5.60211,-5.89003,0.495038,1.27053,0.032902,0.0573912,-0.0455317,0.0355205,-1.88048,0.130946,0.12619,0.0518634,0.0232307,-0.0609378,0.0929584,0.00579446,0.0703484,-0.00967647,0.00089823,0,0,0,0,0,0,0,-0.781979,-31.0271,-0.76079,26.7764,1.55243,3.14568,-0.0227812,
0.0595556,-0.0468067,0.0377349,-1.88182,0.133863,0.130001,0.051963,0.0492084,-0.000700194,0.0504194,-0.0570234,0.0335959,0.115914,0.00314581,0.287835,-2.32914,0.26959,3.14471,6.0326,-0.973603,-0.161383,5.15782,0.127221,5.27686,-5.42092,0.511214,1.2119,0.0290622,0.0573912,-0.0455317,0.0355205,-1.88048,0.130946,0.12619,0.0518634,0.0232307,-0.0609378,0.0929584,0.00579446,0.0703484,-0.00967647,0.00089823,0,0,0,0,0,0,0,-0.781979,-31.0271,-0.76079,26.7764,1.55243,3.14568,-0.0227812,
0.0599493,-0.0468962,0.0381371,-1.88211,0.134452,0.130856,0.0519785,0.049208,-0.00279777,0.0503922,-0.0529132,0.0415928,0.114129,0.00290358,-0.000266256,-1.31099,-0.01698,2.56887,4.99807,-1.11613,-0.151396,4.99707,0.121535,5.11169,-5.18492,0.524133,1.17893,0.0272369,0.0573912,-0.0455317,0.0355205,-1.88048,0.130946,0.12619,0.0518634,0.0232307,-0.0609378,0.0929584,0.00579446,0.0703484,-0.00967647,0.00089823,0,0,0,0,0,0,0,-0.781979,-31.0271,-0.76079,26.7764,1.55243,3.14568,-0.0227812,
0.0603276,-0.0469593,0.0385239,-1.8824,0.135062,0.131674,0.0519926,0.0488251,-0.0038164,0.0499828,-0.0494552,0.0485315,0.11174,0.00267656,-0.239285,-0.636644,-0.255906,2.16126,4.33665,-1.49287,-0.141891,4.83507,0.115644,4.94503,-4.94783,0.543057,1.14223,0.0254617,0.0573912,-0.0455317,0.0355205,-1.88048,0.130946,0.12619,0.0518634,0.0232307,-0.0609378,0.0929584,0.00579446,0.0703484,-0.00967647,0.00089823,0,0,0,0,0,0,0,-0.781979,-31.0271,-0.76079,26.7764,1.55243,3.14568,-0.0227812,
0.0606902,-0.0470027,0.0388947,-1.88267,0.135706,0.13244,0.0520055,0.0481259,-0.0041369,0.0492557,-0.0464499,0.0549297,0.108552,0.00246408,-0.437027,-0.200311,-0.454417,1.87827,3.99887,-1.99263,-0.132794,4.67217,0.109306,4.77727,-4.70952,0.569218,1.10084,0.0237677,0.0573912,-0.0455317,0.0355205,-1.88048,0.130946,0.12619,0.0518634,0.0232307,-0.0609378,0.0929584,0.00579446,0.0703484,-0.00967647,0.00089823,0,0,0,0,0,0,0,-0.781979,-31.0271,-0.76079,26.7764,1.55243,3.14568,-0.0227812,
0.0593923,-0.0467512,0.0375665,-1.88149,0.13441,0.129302,0.0519333,0.0475552,-0.00628598,0.0486424,-0.0426591,0.062888,0.1041,0.00226332,-0.356639,-1.34318,-0.383338,2.36931,4.97397,-2.78246,-0.125479,4.50872,0.102403,4.60868,-4.46997,0.605625,1.05328,0.0221342,0.0573912,-0.0455317,0.0355205,-1.88048,0.130946,0.12619,0.0518634,0.0232307,-0.0609378,0.0929584,0.00579446,0.0703484,-0.00967647,0.00089823,0,0,0,0,0,0,0,-0.781979,-31.0271,-0.76079,26.7764,1.55243,3.14568,-0.0227812,
0.0597354,-0.046837,0.0379167,-1.8817,0.135223,0.129944,0.0519439,0.0466227,-0.00717189,0.0476692,-0.0394897,0.0706407,0.0993267,0.00207526,-0.582851,-0.553693,-0.608199,1.98084,4.84539,-2.98318,-0.117535,4.34516,0.0946964,4.43975,-4.22914,0.654126,0.998291,0.0205824,0.0573912,-0.0455317,0.0355205,-1.88048,0.130946,0.12619,0.0518634,0.0232307,-0.0609378,0.0929584,0.00579446,0.0703484,-0.00967647,0.00089823,0,0,0,0,0,0,0,-0.781979,-31.0271,-0.76079,26.7764,1.55243,3.14568,-0.0227812,
0.0600596,-0.0468979,0.0382476,-1.88191,0.13611,0.130516,0.0519535,0.0454019,-0.00726222,0.0464084,-0.036738,0.0786839,0.0937667,0.00190019,-0.763008,-0.0564549,-0.788025,1.71982,5.02702,-3.475,-0.10942,4.18192,0.0860871,4.27084,-3.98713,0.718042,0.934023,0.0191066,0.0573912,-0.0455317,0.0355205,-1.88048,0.130946,0.12619,0.0518634,0.0232307,-0.0609378,0.0929584,0.00579446,0.0703484,-0.00967647,0.00089823,0,0,0,0,0,0,0,-0.781979,-31.0271,-0.76079,26.7764,1.55243,3.14568,-0.0227812,
0.0603647,-0.0469405,0.0385592,-1.8821,0.137091,0.131002,0.0519623,0.0439506,-0.00687442,0.0449166,-0.0342567,0.0874689,0.0871409,0.00173844,-0.907064,0.24237,-0.932359,1.55082,5.49062,-4.14111,-0.101093,4.01409,0.0517195,4.10455,-3.75016,0.791123,0.852703,0.0177688,0.057667,-0.046404,0.0390724,-1.87986,0.132732,0.126447,0.0518576,0.00427257,-0.0791669,0.125736,0.0252708,0.039764,0.0240622,0.00366334,-2.36976,-2.27864,4.09721,2.43455,-3.82305,4.21733,0.345639,1.1977,-34.5976,0.988783,27.7484,2.0166,2.50298,0.0101778,
0.0595583,-0.0480017,0.0410136,-1.8802,0.1373,0.129253,0.0518972,0.0430344,-0.0097019,0.0439696,-0.0299976,0.099298,0.0813863,0.00157529,-0.572601,-1.76717,-0.591895,2.66191,7.39319,-3.59667,-0.101969,3.85271,0.0408881,3.93699,-3.50619,0.89386,0.764705,0.0164881,0.057667,-0.046404,0.0390724,-1.87986,0.132732,0.126447,0.0518576,0.00427257,-0.0791669,0.125736,0.0252708,0.039764,0.0240622,0.00366334,0,0,0,0,0,0,0,1.1977,-34.5976,0.988783,27.7484,2.0166,2.50298,0.0101778,
0.0598479,-0.0481287,0.0413092,-1.8803,0.138609,0.129602,0.0519042,0.0416664,-0.0109354,0.0425676,-0.0266007,0.112176,0.07384,0.00143461,-0.854993,-0.770945,-0.876256,2.12305,8.04881,-4.71638,-0.0879233,3.69271,0.0288335,3.77056,-3.26165,1.02014,0.662166,0.0153173,0.057667,-0.046404,0.0390724,-1.87986,0.132732,0.126447,0.0518576,0.00427257,-0.0791669,0.125736,0.0252708,0.039764,0.0240622,0.00366334,0,0,0,0,0,0,0,1.1977,-34.5976,0.988783,27.7484,2.0166,2.50298,0.0101778,
0.0601134,-0.0482247,0.0415805,-1.8804,0.140075,0.129816,0.0519108,0.0399717,-0.0111497,0.0408367,-0.0237935,0.126387,0.0644069,0.00131338,-1.0592,-0.133913,-1.08183,1.75455,8.8819,-5.89572,-0.0757699,3.53405,0.0156725,3.60525,-3.01699,1.17292,0.543195,0.0142803,0.057667,-0.046404,0.0390724,-1.87986,0.132732,0.126447,0.0518576,0.00427257,-0.0791669,0.125736,0.0252708,0.039764,0.0240622,0.00366334,0,0,0,0,0,0,0,1.1977,-34.5976,0.988783,27.7484,2.0166,2.50298,0.0101778,
0.0592067,-0.04945,0.0438085,-1.87915,0.139641,0.127246,0.0518903,0.0372403,-0.0133746,0.03806,-0.0195605,0.146136,0.0504876,0.00121433,-1.7071,-1.39056,-1.73541,2.64561,12.3432,-8.69955,-0.061907,3.21987,-0.0653425,3.28573,-2.53971,1.56476,0.239249,0.012745,0.0579011,-0.0477458,0.0424614,-1.87918,0.133347,0.12647,0.0518618,-0.0064669,-0.0952738,0.10075,0.0123136,0.0190172,0.0141892,-0.00188794,-1.34243,-2.01336,-3.12326,-1.61966,-2.59335,-1.23413,-0.69391,-2.12292,-29.829,-2.23662,25.3085,1.19171,2.46911,0.0101778,
0.0593956,-0.0495857,0.0440022,-1.87917,0.141695,0.127045,0.0518962,0.0345145,-0.014091,0.0352912,-0.0162275,0.168271,0.0353522,0.00112085,-1.70365,-0.447744,-1.73054,2.0831,13.8343,-9.45965,-0.0584229,3.06141,-0.0800209,3.12021,-2.29901,1.80761,0.066246,0.0122128,0.0579011,-0.0477458,0.0424614,-1.87918,0.133347,0.12647,0.0518618,-0.0064669,-0.0952738,0.10075,0.0123136,0.0190172,0.0141892,-0.00188794,0,0,0,0,0,0,0,-2.12292,-29.829,-2.23662,25.3085,1.19171,2.46911,0.0101778,
0.059564,-0.0496896,0.0441752,-1.87919,0.143996,0.126681,0.0519016,0.0318205,-0.0138706,0.0325576,-0.013565,0.192147,0.0191758,0.00103215,-1.68377,0.137714,-1.70849,1.66409,14.9225,-10.1102,-0.0554386,2.89973,-0.0937304,2.95151,-2.06206,2.08079,-0.122715,0.0118398,0.0579011,-0.0477458,0.0424614,-1.87918,0.133347,0.12647,0.0518618,-0.0064669,-0.0952738,0.10075,0.0123136,0.0190172,0.0141892,-0.00188794,0,0,0,0,0,0,0,-2.12292,-29.829,-2.23662,25.3085,1.19171,2.46911,0.0101778,
0.0597131,-0.0497684,0.0443288,-1.87921,0.146525,0.126165,0.0519075,0.0291847,-0.0130661,0.0298855,-0.0113779,0.216922,0.00244427,0.000972344,-1.64732,0.502847,-1.67005,1.36694,15.4844,-10.4572,-0.0373798,2.7327,-0.104225,2.7777,-1.82976,2.37975,-0.322888,0.0118762,0.0579011,-0.0477458,0.0424614,-1.87918,0.133347,0.12647,0.0518618,-0.0064669,-0.0952738,0.10075,0.0123136,0.0190172,0.0141892,-0.00188794,0,0,0,0,0,0,0,-2.12292,-29.829,-2.23662,25.3085,1.19171,2.46911,0.0101778,
0.0588891,-0.0493861,0.0434892,-1.87879,0.143111,0.125095,0.0518757,0.0266239,-0.0147107,0.0272848,-0.00795524,0.241535,-0.0119372,0.000919662,-1.60053,-1.02793,-1.62542,2.13915,15.3832,-8.98842,-0.0329263,2.55527,-0.159403,2.60107,-1.61328,2.71811,-0.547022,0.0121664,0.0577641,-0.04919,0.0449986,-1.87883,0.134075,0.126309,0.0518588,-0.00527817,-0.0843677,0.0840195,0.0112407,0.0340331,-0.00335082,-0.000824517,0.148591,1.36326,-2.09132,-0.134108,1.87699,-2.1925,0.132928,0.765262,-32.2014,0.536512,24.6381,1.81518,2.13128,0.0376436,
0.0589944,-0.0495128,0.0435985,-1.87875,0.146122,0.124421,0.0518774,0.0239309,-0.0149362,0.0245599,-0.00546847,0.268504,-0.0264015,0.000776912,-1.6831,-0.140937,-1.70306,1.55423,16.8557,-9.04018,-0.0892188,2.35383,-0.153488,2.39323,-1.39212,3.0718,-0.762486,0.0114492,0.0577641,-0.04919,0.0449986,-1.87883,0.134075,0.126309,0.0518588,-0.00527817,-0.0843677,0.0840195,0.0112407,0.0340331,-0.00335082,-0.000824517,0,0,0,0,0,0,0,0.765262,-32.2014,0.536512,24.6381,1.81518,2.13128,0.0376436,
0.0590813,-0.0496097,0.0436911,-1.87873,0.149301,0.123696,0.0518698,0.0213181,-0.0143719,0.0219622,-0.00380947,0.294271,-0.0392503,0.000431091,-1.63303,0.352692,-1.62359,1.03688,16.1041,-8.03052,-0.216138,2.13374,-0.145804,2.1689,-1.18907,3.38997,-0.948923,0.0106463,0.0577641,-0.04919,0.0449986,-1.87883,0.134075,0.126309,0.0518588,-0.00527817,-0.0843677,0.0840195,0.0112407,0.0340331,-0.00335082,-0.000824517,0,0,0,0,0,0,0,0.765262,-32.2014,0.536512,24.6381,1.81518,2.13128,0.0376436,
0.0583117,-0.0505742,0.0455898,-1.87831,0.146242,0.12387,0.0518203,0.0186165,-0.0149866,0.019225,-0.00125964,0.308809,-0.0453375,0.000105174,-1.68848,-0.384188,-1.71075,1.59364,9.0864,-3.80452,-0.203698,1.59883,-0.0465868,1.62471,-0.78776,4.022,-1.20934,0.0120273,0.0577641,-0.04919,0.0449986,-1.87883,0.134075,0.126309,0.0518588,-0.00527817,-0.0843677,0.0840195,0.0112407,0.0340331,-0.00335082,-0.000824517,0,0,0,0,0,0,0,0.765262,-32.2014,0.536512,24.6381,1.81518,2.13128,0.0376436,
0.0583598,-0.0506777,0.0456411,-1.87824,0.14928,0.123252,0.0518052,0.0160954,-0.0145766,0.0166618,0.000668792,0.322985,-0.0517214,-0.000294033,-1.57571,0.256288,-1.60201,1.20527,8.85961,-3.98992,-0.249505,1.24467,-0.012149,1.27522,-0.600613,4.33456,-1.26746,0.00646475,0.0577253,-0.0501655,0.0464881,-1.8782,0.137444,0.125116,0.05187,-0.00951343,-0.0564453,0.0377977,0.0243268,0.184886,-0.0655902,0.00492614,-0.529407,3.4903,-5.77772,1.63576,18.8566,-7.77992,0.718832,1.07074,-29.456,0.913405,18.8815,1.80236,0.566641,-0.0630644,
0.0584102,-0.050759,0.0456946,-1.87818,0.152201,0.122628,0.0517963,0.0141373,-0.0136939,0.0146689,0.00203786,0.331411,-0.0569668,-0.000457194,-1.2238,0.551662,-1.24557,0.85567,5.26643,-3.27836,-0.101975,0.923814,-0.0678508,0.983384,-0.440793,4.29638,-1.13751,-0.00703749,0.0577253,-0.0501655,0.0464881,-1.8782,0.137444,0.125116,0.05187,-0.00951343,-0.0564453,0.0377977,0.0243268,0.184886,-0.0655902,0.00492614,0,0,0,0,0,0,0,1.07074,-29.456,0.913405,18.8815,1.80236,0.566641,-0.0630644,
0.0584734,-0.050825,0.0457635,-1.87812,0.154768,0.122047,0.0517892,0.0128912,-0.0126049,0.0134566,0.00310857,0.329315,-0.0600993,-0.000543881,-0.778844,0.680615,-0.757639,0.669193,-1.30983,-1.95782,-0.0541798,0.712662,0.0125838,0.767199,-0.178727,3.60859,-0.719118,-0.0102205,0.0577253,-0.0501655,0.0464881,-1.8782,0.137444,0.125116,0.05187,-0.00951343,-0.0564453,0.0377977,0.0243268,0.184886,-0.0655902,0.00492614,0,0,0,0,0,0,0,1.07074,-29.456,0.913405,18.8815,1.80236,0.566641,-0.0630644,
0.057909,-0.0511847,0.0467045,-1.87762,0.149334,0.122472,0.0518125,0.0112773,-0.0128896,0.0119037,0.00474407,0.319541,-0.0608051,-0.00066692,-1.00867,-0.17792,-0.970572,1.02218,-6.10861,-0.441106,-0.0768995,0.542124,0.026363,0.578674,-0.0604306,3.86399,-0.885014,-0.00982543,0.0577253,-0.0501655,0.0464881,-1.8782,0.137444,0.125116,0.05187,-0.00951343,-0.0564453,0.0377977,0.0243268,0.184886,-0.0655902,0.00492614,0,0,0,0,0,0,0,1.07074,-29.456,0.913405,18.8815,1.80236,0.566641,-0.0630644,
0.0579466,-0.0512738,0.0467494,-1.87754,0.151467,0.121972,0.0518007,0.00996223,-0.012541,0.0106446,0.00581918,0.308954,-0.0611558,-0.000827014,-0.821903,0.217866,-0.786953,0.671944,-6.61695,-0.219205,-0.100058,0.34476,0.0149553,0.376672,0.0332137,3.93105,-1.00468,-0.0170818,0.0577387,-0.0507206,0.0468024,-1.87776,0.146521,0.122973,0.0518559,-0.00424086,0.00988284,0.0103444,0.0203226,0.318079,-0.0670802,-0.00184215,0.659071,8.29101,-3.43167,-0.500525,16.6491,-0.186246,-0.846035,0.511356,-27.032,0.314344,16.8661,1.35742,0.135428,0.0779268,
0.0579894,-0.0513493,0.0468056,-1.87747,0.153377,0.121544,0.0517955,0.00903848,-0.0119187,0.00992073,0.00632929,0.294896,-0.0596241,-0.000791497,-0.577344,0.388959,-0.452417,0.318824,-8.78664,0.957316,0.0221982,0.337966,-0.0507184,0.389627,0.123338,3.34443,-0.865434,-0.0117142,0.0577387,-0.0507206,0.0468024,-1.87776,0.146521,0.122973,0.0518559,-0.00424086,0.00988284,0.0103444,0.0203226,0.318079,-0.0670802,-0.00184215,0,0,0,0,0,0,0,0.511356,-27.032,0.314344,16.8661,1.35742,0.135428,0.0779268,
0.0580452,-0.0514147,0.0468746,-1.87742,0.154956,0.121257,0.0517916,0.00862561,-0.0111721,0.00966085,0.00639592,0.275399,-0.054868,-0.000732512,-0.258048,0.466628,-0.162427,0.0416387,-12.1855,2.97254,0.0368656,0.189698,-0.0612764,0.290332,0.257753,2.38047,-0.66009,-0.0124384,0.0577387,-0.0507206,0.0468024,-1.87776,0.146521,0.122973,0.0518559,-0.00424086,0.00988284,0.0103444,0.0203226,0.318079,-0.0670802,-0.00184215,0,0,0,0,0,0,0,0.511356,-27.032,0.314344,16.8661,1.35742,0.135428,0.0779268,
0.0579505,-0.0507359,0.0470704,-1.87755,0.155963,0.121074,0.0518206,0.00830634,-0.00934295,0.00949283,0.00583887,0.254664,-0.0492515,-0.000718737,-0.199542,1.1432,-0.105013,-0.348155,-12.9594,3.51033,0.00860902,0.119503,-0.0589063,0.219308,0.319383,2.43511,-0.712104,-0.0127701,0.0577387,-0.0507206,0.0468024,-1.87776,0.146521,0.122973,0.0518559,-0.00424086,0.00988284,0.0103444,0.0203226,0.318079,-0.0670802,-0.00184215,0,0,0,0,0,0,0,0.511356,-27.032,0.314344,16.8661,1.35742,0.135428,0.0779268,
0.0580035,-0.0507523,0.0471384,-1.87752,0.157197,0.120915,0.0518144,0.00796876,-0.00788408,0.00929288,0.00543269,0.234576,-0.0433934,-0.000729692,-0.210989,0.911794,-0.124967,-0.253864,-12.5548,3.66133,-0.00684711,0.066566,-0.0875501,0.167181,0.386845,2.31067,-0.67244,-0.0154841,0.0575244,-0.0509608,0.0468011,-1.87717,0.157327,0.122011,0.0518618,-0.00478828,0.0469157,-0.0014438,0.026216,0.245811,0.000636376,0.00110241,-0.0684286,4.6291,-1.47352,0.736677,-9.03348,8.46457,0.36807,0.158268,-28.6546,-0.0863513,20.9247,1.44256,0.904471,0.0101778,
0.0580509,-0.0507686,0.0472012,-1.87748,0.158338,0.120793,0.0518078,0.00756125,-0.00671398,0.00900429,0.00514846,0.216205,-0.0377665,-0.000750129,-0.254694,0.731312,-0.180368,-0.177638,-11.4821,3.51676,-0.0127728,0.100961,-0.16021,0.290476,0.416174,1.80526,-0.414854,-0.00851088,0.0575244,-0.0509608,0.0468011,-1.87717,0.157327,0.122011,0.0518618,-0.00478828,0.0469157,-0.0014438,0.026216,0.245811,0.000636376,0.00110241,0,0,0,0,0,0,0,0.158268,-28.6546,-0.0863513,20.9247,1.44256,0.904471,0.0101778,
0.0580923,-0.0507847,0.0472581,-1.87745,0.159418,0.120697,0.0518009,0.00708363,-0.0057741,0.00862625,0.00495576,0.19995,-0.0326036,-0.000772213,-0.298513,0.587429,-0.236272,-0.120441,-10.1591,3.22682,-0.0138023,0.0680093,-0.182884,0.260096,0.466167,1.15498,-0.0409373,-0.00851652,0.0575244,-0.0509608,0.0468011,-1.87717,0.157327,0.122011,0.0518618,-0.00478828,0.0469157,-0.0014438,0.026216,0.245811,0.000636376,0.00110241,0,0,0,0,0,0,0,0.158268,-28.6546,-0.0863513,20.9247,1.44256,0.904471,0.0101778,
0.0575894,-0.0504517,0.0469387,-1.87709,0.163529,0.122163,0.0518342,0.00614477,-0.003692,0.00776312,0.00437358,0.185445,-0.0267194,-0.000782083,-0.586785,1.30131,-0.539456,-0.363864,-9.06573,3.67762,-0.006169,0.0680093,-0.182884,0.260096,0.466167,1.15498,-0.0409373,-0.00851652,0.0575244,-0.0509608,0.0468011,-1.87717,0.157327,0.122011,0.0518618,-0.00478828,0.0469157,-0.0014438,0.026216,0.245811,0.000636376,0.00110241,0,0,0,0,0,0,0,0.158268,-28.6546,-0.0863513,20.9247,1.44256,0.904471,0.0101778,
0.0576071,-0.0504282,0.0469719,-1.87707,0.164509,0.122127,0.0518275,0.0053587,-0.00236477,0.00703996,0.00401055,0.172854,-0.0222657,-0.000793696,-0.491291,0.829517,-0.451976,-0.226894,-7.86944,2.78359,-0.00725777,0.0680093,-0.182884,0.260096,0.466167,1.15498,-0.0409373,-0.00851652,0.0575244,-0.0509608,0.0468011,-1.87717,0.157327,0.122011,0.0518618,-0.00478828,0.0469157,-0.0014438,0.026216,0.245811,0.000636376,0.00110241,0,0,0,0,0,0,0,0.158268,-28.6546,-0.0863513,20.9247,1.44256,0.904471,0.0101778,
0.0576231,-0.0504143,0.0470034,-1.87704,0.165463,0.122087,0.0518207,0.00468712,-0.00154476,0.00641968,0.00380486,0.162131,-0.0188249,-0.000804711,-0.41974,0.512508,-0.387675,-0.128556,-6.70186,2.15047,-0.00688483,0.0620477,-0.197656,0.255238,0.473137,1.14289,-0.0408174,-0.00841432,0.0572746,-0.0512294,0.0467168,-1.87645,0.160284,0.12209,0.0518537,0.00462088,0.0311401,0.00279363,0.0159905,-0.0130652,0.0224616,0.00726005,1.17615,-1.97195,0.529679,-1.27819,-32.3595,2.72816,0.769705,-0.551876,-29.3291,-0.713182,25.3085,1.3327,2.09191,0.0376436,
0.0571793,-0.0508434,0.0467058,-1.87641,0.16316,0.122397,0.0518132,0.00326308,-0.000399076,0.00504039,0.00336954,0.148834,-0.0154174,-0.000815202,-0.890022,0.716054,-0.862059,-0.272074,-8.31053,2.12974,-0.00655658,0.0620477,-0.197656,0.255238,0.473137,1.14289,-0.0408174,-0.00841432,0.0572746,-0.0512294,0.0467168,-1.87645,0.160284,0.12209,0.0518537,0.00462088,0.0311401,0.00279363,0.0159905,-0.0130652,0.0224616,0.00726005,0,0,0,0,0,0,0,-0.551876,-29.3291,-0.713182,25.3085,1.3327,2.09191,0.0376436,
0.0571632,-0.0508207,0.0467053,-1.8764,0.163961,0.12237,0.0518065,0.00220849,0.000247023,0.00401781,0.00313859,0.139097,-0.0130148,-0.000819331,-0.659124,0.403812,-0.639108,-0.144346,-6.08557,1.50161,-0.00258069,0.0620477,-0.197656,0.255238,0.473137,1.14289,-0.0408174,-0.00841432,0.0572746,-0.0512294,0.0467168,-1.87645,0.160284,0.12209,0.0518537,0.00462088,0.0311401,0.00279363,0.0159905,-0.0130652,0.0224616,0.00726005,0,0,0,0,0,0,0,-0.551876,-29.3291,-0.713182,25.3085,1.3327,2.09191,0.0376436,
0.0571505,-0.0508063,0.046708,-1.87637,0.164787,0.122336,0.0517999,0.0014492,0.00055818,0.00328231,0.00304914,0.131918,-0.0112688,-0.000820694,-0.474556,0.194473,-0.459691,-0.0559048,-4.48726,1.09127,-0.000851937,0.0620477,-0.197656,0.255238,0.473137,1.14289,-0.0408174,-0.00841432,0.0572746,-0.0512294,0.0467168,-1.87645,0.160284,0.12209,0.0518537,0.00462088,0.0311401,0.00279363,0.0159905,-0.0130652,0.0224616,0.00726005,0,0,0,0,0,0,0,-0.551876,-29.3291,-0.713182,25.3085,1.3327,2.09191,0.0376436,
0.0571409,-0.0507982,0.0467138,-1.87635,0.165629,0.122298,0.0517933,0.000919161,0.000649547,0.00277057,0.00305456,0.126593,-0.00995767,-0.000821088,-0.331272,0.057104,-0.31984,0.0033863,-3.3278,0.819433,-0.000246023,0.0624172,-0.189455,0.255052,0.468087,1.14561,-0.0457866,-0.00838745,0.0570402,-0.0511604,0.046566,-1.87613,0.15964,0.122854,0.0518598,-0.00663337,0.00652212,-0.0046563,-0.0119567,-0.0253287,0.0319234,-0.000123137,-1.40678,-3.07725,-0.931242,-3.49339,-1.53294,1.18272,-0.922899,-0.452694,-29.9797,-0.562425,26.1575,1.47918,2.4096,0.0239107,
0.0567738,-0.0509595,0.0463803,-1.87613,0.162102,0.122946,0.0518232,-0.000242643,0.00102884,0.00162022,0.00287151,0.119189,-0.00868415,-0.000817809,-0.726128,0.237059,-0.718969,-0.114402,-4.62755,0.795949,0.00204897,0.0624172,-0.189455,0.255052,0.468087,1.14561,-0.0457866,-0.00838745,0.0570402,-0.0511604,0.046566,-1.87613,0.15964,0.122854,0.0518598,-0.00663337,0.00652212,-0.0046563,-0.0119567,-0.0253287,0.0319234,-0.000123137,0,0,0,0,0,0,0,-0.452694,-29.9797,-0.562425,26.1575,1.47918,2.4096,0.0239107,
0.0567422,-0.050946,0.0463639,-1.87611,0.162866,0.122911,0.0518168,-0.000983549,0.00115978,0.000886762,0.00282173,0.114447,-0.00781467,-0.000813401,-0.463066,0.0818382,-0.458408,-0.0311148,-2.96388,0.543426,0.0027551,0.0624172,-0.189455,0.255052,0.468087,1.14561,-0.0457866,-0.00838745,0.0570402,-0.0511604,0.046566,-1.87613,0.15964,0.122854,0.0518598,-0.00663337,0.00652212,-0.0046563,-0.0119567,-0.0253287,0.0319234,-0.000123137,0,0,0,0,0,0,0,-0.452694,-29.9797,-0.562425,26.1575,1.47918,2.4096,0.0239107,
0.0567173,-0.0509381,0.0463542,-1.87608,0.163663,0.122873,0.0518105,-0.00141055,0.00112629,0.00046542,0.00285936,0.111482,-0.00719628,-0.000809727,-0.266876,-0.0209351,-0.263339,0.0235186,-1.8529,0.38649,0.00229634,0.0624172,-0.189455,0.255052,0.468087,1.14561,-0.0457866,-0.00838745,0.0570402,-0.0511604,0.046566,-1.87613,0.15964,0.122854,0.0518598,-0.00663337,0.00652212,-0.0046563,-0.0119567,-0.0253287,0.0319234,-0.000123137,0,0,0,0,0,0,0,-0.452694,-29.9797,-0.562425,26.1575,1.47918,2.4096,0.0239107,
0.0563518,-0.0505834,0.0460303,-1.87611,0.161948,0.123127,0.0518184,-0.00214371,0.00152293,-0.000265959,0.00256713,0.107123,-0.00737738,-0.000805117,-0.458226,0.247904,-0.457112,-0.182646,-2.72473,-0.113184,0.00288115,0.0624299,-0.175141,0.253431,0.466744,1.14669,-0.0471937,-0.0083829,0.0566447,-0.0508009,0.0462442,-1.87607,0.159405,0.123441,0.0518528,-0.0110024,0.0067728,-0.00524504,-0.0123557,-0.0152808,0.00390822,-0.000676983,-0.546128,0.0313353,-0.0735924,-0.0498766,1.25599,-3.5019,-0.0692307,-0.627255,-32.5227,-0.812364,27.2525,1.5158,2.46911,0.0577852,
0.0563193,-0.0505655,0.0460129,-1.87609,0.162711,0.123066,0.0518121,-0.00252717,0.00166393,-0.000648965,0.00245959,0.104779,-0.00742025,-0.000801043,-0.239663,0.0881246,-0.239379,-0.0672103,-1.46473,-0.026795,0.0025463,0.0624299,-0.175141,0.253431,0.466744,1.14669,-0.0471937,-0.0083829,0.0566447,-0.0508009,0.0462442,-1.87607,0.159405,0.123441,0.0518528,-0.0110024,0.0067728,-0.00524504,-0.0123557,-0.0152808,0.00390822,-0.000676983,0,0,0,0,0,0,0,-0.627255,-32.5227,-0.812364,27.2525,1.5158,2.46911,0.0577852,
0.0562938,-0.0505535,0.0460024,-1.87607,0.163507,0.123009,0.0518058,-0.00265951,0.00163119,-0.000780851,0.00247489,0.103719,-0.00735298,-0.0007985,-0.0827082,-0.0204603,-0.0824284,0.009562,-0.662588,0.0420438,0.0015897,0.0624299,-0.175141,0.253431,0.466744,1.14669,-0.0471937,-0.0083829,0.0566447,-0.0508009,0.0462442,-1.87607,0.159405,0.123441,0.0518528,-0.0110024,0.0067728,-0.00524504,-0.0123557,-0.0152808,0.00390822,-0.000676983,0,0,0,0,0,0,0,-0.627255,-32.5227,-0.812364,27.2525,1.5158,2.46911,0.0577852,
0.0562741,-0.0505463,0.0459978,-1.87605,0.164326,0.122957,0.0517994,-0.00261885,0.00148566,-0.000739232,0.00256872,0.103459,-0.00720501,-0.000797636,0.0254074,-0.0909613,0.0260118,0.0586477,-0.162695,0.0924825,0.000539793,0.0624299,-0.175141,0.253431,0.466744,1.14669,-0.0471937,-0.0083829,0.0566447,-0.0508009,0.0462442,-1.87607,0.159405,0.123441,0.0518528,-0.0110024,0.0067728,-0.00524504,-0.0123557,-0.0152808,0.00390822,-0.000676983,0,0,0,0,0,0,0,-0.627255,-32.5227,-0.812364,27.2525,1.5158,2.46911,0.0577852,
0.0563518,-0.0505834,0.0460303,-1.87611,0.161948,0.123127,0.0518184,-0.00311035,0.00181043,-0.00122968,0.00233462,0.100704,-0.00738436,-0.000795444,-0.307188,0.202983,-0.30653,-0.146317,-1.72178,-0.112094,0.00136976,0.0624531,-0.173101,0.253022,0.465522,1.14648,-0.0485299,-0.00837681,0.0563572,-0.0507885,0.0459828,-1.87586,0.159449,0.123502,0.0518544,-0.00723595,-0.00272161,-0.00787158,0.00142344,-0.00119482,0.000990389,-0.000816499,0.470806,-1.1868,-0.328317,1.72239,1.76074,-0.364729,-0.0174395,0.158268,-31.4754,0.0128308,25.9552,1.31439,2.17797,0.0440523,
0.0563193,-0.0505655,0.0460129,-1.87609,0.162711,0.123066,0.0518121,-0.00330049,0.00189393,-0.00141994,0.00227358,0.0996442,-0.00742583,-0.000793305,-0.118833,0.0521875,-0.118914,-0.0381468,-0.662375,-0.0259226,0.00133719,0.0624531,-0.173101,0.253022,0.465522,1.14648,-0.0485299,-0.00837681,0.0563572,-0.0507885,0.0459828,-1.87586,0.159449,0.123502,0.0518544,-0.00723595,-0.00272161,-0.00787158,0.00142344,-0.00119482,0.000990389,-0.000816499,0,0,0,0,0,0,0,0.158268,-31.4754,0.0128308,25.9552,1.31439,2.17797,0.0440523,
0.0562938,-0.0505535,0.0460024,-1.87607,0.163507,0.123009,0.0518058,-0.00327816,0.00181519,-0.00139763,0.00232608,0.099611,-0.00735745,-0.000792309,0.0139561,-0.04921,0.0139438,0.0328128,-0.0207007,0.0427418,0.000622409,0.0624531,-0.173101,0.253022,0.465522,1.14648,-0.0485299,-0.00837681,0.0563572,-0.0507885,0.0459828,-1.87586,0.159449,0.123502,0.0518544,-0.00723595,-0.00272161,-0.00787158,0.00142344,-0.00119482,0.000990389,-0.000816499,0,0,0,0,0,0,0,0.158268,-31.4754,0.0128308,25.9552,1.31439,2.17797,0.0440523,
0.0562741,-0.0505463,0.0459978,-1.87605,0.164326,0.122957,0.0517994,-0.00311377,0.00163286,-0.00123266,0.00244968,0.100172,-0.00720858,-0.000792683,0.102739,-0.113961,0.10311,0.0772483,0.350815,0.0930409,-0.000234037,0.0624531,-0.173101,0.253022,0.465522,1.14648,-0.0485299,-0.00837681,0.0563572,-0.0507885,0.0459828,-1.87586,0.159449,0.123502,0.0518544,-0.00723595,-0.00272161,-0.00787158,0.00142344,-0.00119482,0.000990389,-0.000816499,0,0,0,0,0,0,0,0.158268,-31.4754,0.0128308,25.9552,1.31439,2.17797,0.0440523,
0.0560902,-0.0508185,0.0457926,-1.87573,0.162274,0.123389,0.0518199,-0.00339957,0.00118755,-0.00152041,0.00272568,0.0988533,-0.00650657,-0.000791842,-0.178625,-0.278313,-0.179844,0.172498,-0.824381,0.438756,0.000525924,0.0624663,-0.175217,0.253065,0.464897,1.14625,-0.049295,-0.00837251,0.0561019,-0.0508815,0.0458097,-1.87578,0.159478,0.123484,0.051855,0.000698892,-0.0105646,-0.00137004,-0.00329942,-0.00102496,-0.000380193,-0.00114748,0.991855,-0.98037,0.812692,-0.590357,0.0212322,-0.171323,-0.041373,1.07074,-30.9041,0.913405,26.2051,1.54052,2.29699,0.0577852,
0.0560613,-0.0508241,0.0457788,-1.8757,0.163062,0.123358,0.0518136,-0.00344054,0.000808562,-0.00156277,0.00297548,0.0987718,-0.00598306,-0.000790993,-0.0256052,-0.236871,-0.0264764,0.156126,-0.0509617,0.327196,0.000530846,0.0624663,-0.175217,0.253065,0.464897,1.14625,-0.049295,-0.00837251,0.0561019,-0.0508815,0.0458097,-1.87578,0.159478,0.123484,0.051855,0.000698892,-0.0105646,-0.00137004,-0.00329942,-0.00102496,-0.000380193,-0.00114748,0,0,0,0,0,0,0,1.07074,-30.9041,0.913405,26.2051,1.54052,2.29699,0.0577852,
0.0560389,-0.0508308,0.0457713,-1.87567,0.163877,0.123326,0.0518073,-0.00331324,0.000479867,-0.00143569,0.00319861,0.0993901,-0.00559395,-0.00079105,0.0795666,-0.205434,0.0794272,0.139458,0.38647,0.243194,-3.56204e-05,0.0624663,-0.175217,0.253065,0.464897,1.14625,-0.049295,-0.00837251,0.0561019,-0.0508815,0.0458097,-1.87578,0.159478,0.123484,0.051855,0.000698892,-0.0105646,-0.00137004,-0.00329942,-0.00102496,-0.000380193,-0.00114748,0,0,0,0,0,0,0,1.07074,-30.9041,0.913405,26.2051,1.54052,2.29699,0.0577852,
0.0559688,-0.0510058,0.0457559,-1.87564,0.16246,0.123259,0.0518175,-0.00318572,3.31136e-05,-0.00130302,0.00340574,0.0989998,-0.00548432,-0.000797932,0.0796948,-0.279221,0.082915,0.129457,-0.243946,0.0685158,-0.00430151,0.0624663,-0.175217,0.253065,0.464897,1.14625,-0.049295,-0.00837251,0.0561019,-0.0508815,0.0458097,-1.87578,0.159478,0.123484,0.051855,0.000698892,-0.0105646,-0.00137004,-0.00329942,-0.00102496,-0.000380193,-0.00114748,0,0,0,0,0,0,0,1.07074,-30.9041,0.913405,26.2051,1.54052,2.29699,0.0577852,
0.0559517,-0.0510187,0.045754,-1.87561,0.163274,0.12322,0.0518109,-0.00297608,-0.00029508,-0.00109042,0.00358614,0.099553,-0.00535236,-0.00080133,0.131028,-0.205121,0.132879,0.112751,0.345747,0.0824756,-0.00212346,0.0624592,-0.179072,0.25352,0.463565,1.14586,-0.0506659,-0.00836491,0.0559907,-0.0510399,0.0457862,-1.87567,0.159556,0.123499,0.0518577,-0.00334583,-0.000724594,0.00580984,-0.00023941,-0.000587935,0.00233568,0.00017198,-0.505591,1.23,0.897484,0.382501,0.054628,0.339484,0.164933,0.840641,-30.2019,0.687269,25.3085,1.53412,2.09191,0.0440523,
0.0559386,-0.051031,0.045756,-1.87557,0.164111,0.123183,0.0518045,-0.00271001,-0.000544732,-0.00082199,0.00374161,0.100571,-0.00521969,-0.000803425,0.166296,-0.156032,0.167766,0.0971665,0.636488,0.0829225,-0.0013095,0.0624592,-0.179072,0.25352,0.463565,1.14586,-0.0506659,-0.00836491,0.0559907,-0.0510399,0.0457862,-1.87567,0.159556,0.123499,0.0518577,-0.00334583,-0.000724594,0.00580984,-0.00023941,-0.000587935,0.00233568,0.00017198,0,0,0,0,0,0,0,0.840641,-30.2019,0.687269,25.3085,1.53412,2.09191,0.0440523,
0.0559288,-0.0510432,0.0457615,-1.87554,0.164964,0.123146,0.051798,-0.00241147,-0.000740901,-0.000521019,0.00387469,0.101773,-0.00509822,-0.000805215,0.186583,-0.122606,0.188107,0.0831766,0.750885,0.0759183,-0.00111874,0.0624592,-0.179072,0.25352,0.463565,1.14586,-0.0506659,-0.00836491,0.0559907,-0.0510399,0.0457862,-1.87567,0.159556,0.123499,0.0518577,-0.00334583,-0.000724594,0.00580984,-0.00023941,-0.000587935,0.00233568,0.00017198,0,0,0,0,0,0,0,0.840641,-30.2019,0.687269,25.3085,1.53412,2.09191,0.0440523,
0.0558827,-0.0510333,0.0457599,-1.87556,0.162563,0.123325,0.0518193,-0.00239992,-0.000624942,-0.000503854,0.00378075,0.100956,-0.00517041,-0.00081107,0.00722425,0.0724748,0.0107284,-0.0587138,-0.510726,-0.0451207,-0.00365962,0.0624592,-0.179072,0.25352,0.463565,1.14586,-0.0506659,-0.00836491,0.0559907,-0.0510399,0.0457862,-1.87567,0.159556,0.123499,0.0518577,-0.00334583,-0.000724594,0.00580984,-0.00023941,-0.000587935,0.00233568,0.00017198,0,0,0,0,0,0,0,0.840641,-30.2019,0.687269,25.3085,1.53412,2.09191,0.0440523,
0.0558675,-0.0510365,0.04576,-1.87553,0.163378,0.123281,0.0518127,-0.0022988,-0.000580162,-0.000400167,0.00375212,0.101146,-0.00523042,-0.000813054,0.0631991,0.0279875,0.0648044,-0.0178922,0.119184,-0.037508,-0.00123969,0.0624592,-0.179072,0.25352,0.463565,1.14586,-0.0506659,-0.00836491,0.0559907,-0.0510399,0.0457862,-1.87567,0.159556,0.123499,0.0518577,-0.00334583,-0.000724594,0.00580984,-0.00023941,-0.000587935,0.00233568,0.00017198,0,0,0,0,0,0,0,0.840641,-30.2019,0.687269,25.3085,1.53412,2.09191,0.0440523,
0.0558558,-0.0510415,0.0457635,-1.8755,0.164216,0.123238,0.0518062,-0.00213125,-0.00058845,-0.000231135,0.0037663,0.10186,-0.00526817,-0.000813625,0.104716,-0.00518049,0.105645,0.00885768,0.446274,-0.0235937,-0.000356978,0.0624149,-0.184097,0.254305,0.461602,1.14537,-0.0528212,-0.00835299,0.0559971,-0.0512442,0.0459098,-1.8754,0.159639,0.123493,0.051861,-0.000455812,-0.00509927,0.00589544,0.00683673,-0.00402686,0.00397495,0.000327833,0.361253,-0.546835,0.0107005,0.884517,-0.429865,0.20491,0.0194816,0.0828892,-31.6261,-0.0863513,26.2289,1.49109,2.17156,0.017502,
0.0558472,-0.051048,0.0457702,-1.87547,0.165068,0.123195,0.0517997,-0.0019203,-0.000634045,-1.88447e-05,0.00380731,0.102809,-0.00528276,-0.000813931,0.131846,-0.0284967,0.132681,0.0256311,0.592711,-0.00911836,-0.000191122,0.0624149,-0.184097,0.254305,0.461602,1.14537,-0.0528212,-0.00835299,0.0559971,-0.0512442,0.0459098,-1.8754,0.159639,0.123493,0.051861,-0.000455812,-0.00509927,0.00589544,0.00683673,-0.00402686,0.00397495,0.000327833,0,0,0,0,0,0,0,0.0828892,-31.6261,-0.0863513,26.2289,1.49109,2.17156,0.017502,
0.055911,-0.0513574,0.0459058,-1.87521,0.162673,0.123458,0.0518215,-0.00195155,-0.000904794,-4.49136e-05,0.00396206,0.102004,-0.00483724,-0.000819443,-0.0195313,-0.169218,-0.016293,0.0967181,-0.502834,0.27845,-0.003445,0.0624149,-0.184097,0.254305,0.461602,1.14537,-0.0528212,-0.00835299,0.0559971,-0.0512442,0.0459098,-1.8754,0.159639,0.123493,0.051861,-0.000455812,-0.00509927,0.00589544,0.00683673,-0.00402686,0.00397495,0.000327833,0,0,0,0,0,0,0,0.0828892,-31.6261,-0.0863513,26.2289,1.49109,2.17156,0.017502,
0.0558976,-0.0513723,0.0459077,-1.87518,0.163496,0.123429,0.0518149,-0.0018969,-0.00109676,1.20392e-05,0.00408478,0.102182,-0.00458043,-0.000820615,0.0341573,-0.119978,0.0355955,0.0767004,0.111138,0.160508,-0.000732681,0.0624149,-0.184097,0.254305,0.461602,1.14537,-0.0528212,-0.00835299,0.0559971,-0.0512442,0.0459098,-1.8754,0.159639,0.123493,0.051861,-0.000455812,-0.00509927,0.00589544,0.00683673,-0.00402686,0.00397495,0.000327833,0,0,0,0,0,0,0,0.0828892,-31.6261,-0.0863513,26.2289,1.49109,2.17156,0.017502,
0.0558872,-0.0513867,0.0459127,-1.87514,0.164341,0.123398,0.0518083,-0.00177561,-0.00123759,0.00013472,0.00418179,0.102858,-0.00444785,-0.000820184,0.0758026,-0.0880178,0.0766756,0.0606359,0.422661,0.0828611,0.000269483,0.0624473,-0.185007,0.254748,0.45971,1.14468,-0.0548266,-0.00834168,0.0560147,-0.0513157,0.0460135,-1.87508,0.15979,0.123528,0.0518583,0.00231075,0.0009199,-0.000575776,0.00650201,-0.00675062,0.00531331,-0.000238221,0.34582,0.752396,-0.808902,-0.0418388,-0.340471,0.167294,-0.0707568,-0.0718349,-30.7771,-0.213304,24.9832,1.54052,1.89965,0.0376436,
0.0558897,-0.0513315,0.0459695,-1.87493,0.162732,0.123495,0.0518192,-0.00195294,-0.00112633,-3.95843e-05,0.00411626,0.101675,-0.00429725,-0.000822293,-0.110833,0.0695362,-0.10894,-0.0409594,-0.739237,0.0941278,-0.00131835,0.0624473,-0.185007,0.254748,0.45971,1.14468,-0.0548266,-0.00834168,0.0560147,-0.0513157,0.0460135,-1.87508,0.15979,0.123528,0.0518583,0.00231075,0.0009199,-0.000575776,0.00650201,-0.00675062,0.00531331,-0.000238221,0,0,0,0,0,0,0,-0.0718349,-30.7771,-0.213304,24.9832,1.54052,1.89965,0.0376436,
0.0558726,-0.0513382,0.0459677,-1.8749,0.163542,0.123461,0.0518127,-0.00199174,-0.00107039,-7.77445e-05,0.00409019,0.101608,-0.00428672,-0.000821167,-0.0242463,0.0349615,-0.0238501,-0.0162924,-0.0424405,0.00657706,0.000703495,0.0624473,-0.185007,0.254748,0.45971,1.14468,-0.0548266,-0.00834168,0.0560147,-0.0513157,0.0460135,-1.87508,0.15979,0.123528,0.0518583,0.00231075,0.0009199,-0.000575776,0.00650201,-0.00675062,0.00531331,-0.000238221,0,0,0,0,0,0,0,-0.0718349,-30.7771,-0.213304,24.9832,1.54052,1.89965,0.0376436,
0.0558592,-0.0513463,0.0459697,-1.87487,0.164377,0.123424,0.0518062,-0.00192663,-0.00105666,-1.25495e-05,0.00409048,0.102139,-0.00434922,-0.000819223,0.0406903,0.00858376,0.0407469,0.000180543,0.332014,-0.0390606,0.00121504,0.0624473,-0.185007,0.254748,0.45971,1.14468,-0.0548266,-0.00834168,0.0560147,-0.0513157,0.0460135,-1.87508,0.15979,0.123528,0.0518583,0.00231075,0.0009199,-0.000575776,0.00650201,-0.00675062,0.00531331,-0.000238221,0,0,0,0,0,0,0,-0.0718349,-30.7771,-0.213304,24.9832,1.54052,1.89965,0.0376436,
0.0558493,-0.0513554,0.0459751,-1.87484,0.165226,0.123385,0.0517997,-0.00178974,-0.00107342,0.000124711,0.00410767,0.102958,-0.00444512,-0.000817528,0.0855565,-0.0104756,0.0857876,0.0107439,0.512251,-0.0599399,0.00105957,0.062415,-0.191916,0.255665,0.458333,1.14425,-0.0564896,-0.00833232,0.0560433,-0.0515603,0.0461357,-1.87492,0.159875,0.123488,0.0518551,-0.00114897,-0.0132273,0.00137169,0.00198664,-0.00324314,0.00226021,-0.000657082,-0.432465,-1.7684,0.243433,-0.564422,0.438435,-0.381637,-0.0523576,-0.29797,-30.5034,-0.435472,25.5069,1.55883,2.21734,0.0577852,
0.0559146,-0.0517681,0.0460877,-1.87471,0.16286,0.123375,0.0518173,-0.00195869,-0.00148321,-4.16868e-05,0.00429381,0.101923,-0.00425388,-0.000818937,-0.105593,-0.256118,-0.103998,0.116337,-0.647323,0.119528,-0.000880316,0.062415,-0.191916,0.255665,0.458333,1.14425,-0.0564896,-0.00833232,0.0560433,-0.0515603,0.0461357,-1.87492,0.159875,0.123488,0.0518551,-0.00114897,-0.0132273,0.00137169,0.00198664,-0.00324314,0.00226021,-0.000657082,0,0,0,0,0,0,0,-0.29797,-30.5034,-0.435472,25.5069,1.55883,2.21734,0.0577852,
0.0558977,-0.05179,0.0460863,-1.87467,0.163677,0.123345,0.0518108,-0.00198835,-0.00173426,-7.02989e-05,0.00442257,0.10195,-0.00414931,-0.000817702,-0.018534,-0.156906,-0.0178826,0.0804753,0.016974,0.065359,0.000771612,0.062415,-0.191916,0.255665,0.458333,1.14425,-0.0564896,-0.00833232,0.0560433,-0.0515603,0.0461357,-1.87492,0.159875,0.123488,0.0518551,-0.00114897,-0.0132273,0.00137169,0.00198664,-0.00324314,0.00226021,-0.000657082,0,0,0,0,0,0,0,-0.29797,-30.5034,-0.435472,25.5069,1.55883,2.21734,0.0577852,
0.0558847,-0.0518099,0.0460887,-1.87463,0.164516,0.123313,0.0518043,-0.00191508,-0.00188446,3.96953e-06,0.00450879,0.102535,-0.00411426,-0.000815933,0.045793,-0.0938769,0.0464178,0.0538901,0.36574,0.0219022,0.00110573,0.062415,-0.191916,0.255665,0.458333,1.14425,-0.0564896,-0.00833232,0.0560433,-0.0515603,0.0461357,-1.87492,0.159875,0.123488,0.0518551,-0.00114897,-0.0132273,0.00137169,0.00198664,-0.00324314,0.00226021,-0.000657082,0,0,0,0,0,0,0,-0.29797,-30.5034,-0.435472,25.5069,1.55883,2.21734,0.0577852,
0.0558751,-0.0518284,0.0460945,-1.8746,0.16537,0.123279,0.0517978,-0.00177172,-0.0019711,0.000148864,0.00456404,0.103377,-0.00413253,-0.000814527,0.0896014,-0.0541504,0.0905588,0.0345263,0.526371,-0.0114179,0.000878592,0.062392,-0.192195,0.25591,0.456752,1.14388,-0.0581227,-0.00832322,0.0560325,-0.0516088,0.0462037,-1.87464,0.15994,0.123503,0.0518581,-0.00539321,-0.00717125,0.00456237,0.00537492,-0.00469054,0.00749797,0.000395943,-0.53053,0.75701,0.398835,0.423535,-0.180926,0.654721,0.131628,-0.0956386,-30.6264,-0.213304,25.3323,1.57074,2.08459,0.0440523,
0.0558892,-0.0517459,0.0461421,-1.87444,0.162892,0.123503,0.0518203,-0.00199262,-0.00204208,-7.05163e-05,0.00460337,0.102116,-0.00383319,-0.000816117,-0.138068,-0.0443595,-0.137112,0.0245832,-0.788028,0.187087,-0.000993745,0.062392,-0.192195,0.25591,0.456752,1.14388,-0.0581227,-0.00832322,0.0560325,-0.0516088,0.0462037,-1.87464,0.15994,0.123503,0.0518581,-0.00539321,-0.00717125,0.00456237,0.00537492,-0.00469054,0.00749797,0.000395943,0,0,0,0,0,0,0,-0.0956386,-30.6264,-0.213304,25.3323,1.57074,2.08459,0.0440523,
0.0558707,-0.051763,0.046139,-1.8744,0.163704,0.123477,0.0518138,-0.00205531,-0.00206267,-0.000133101,0.00462426,0.101982,-0.00372627,-0.000814972,-0.0391785,-0.0128737,-0.0391157,0.0130584,-0.0842193,0.0668264,0.000715808,0.062392,-0.192195,0.25591,0.456752,1.14388,-0.0581227,-0.00832322,0.0560325,-0.0516088,0.0462037,-1.87464,0.15994,0.123503,0.0518581,-0.00539321,-0.00717125,0.00456237,0.00537492,-0.00469054,0.00749797,0.000395943,0,0,0,0,0,0,0,-0.0956386,-30.6264,-0.213304,25.3323,1.57074,2.08459,0.0440523,
0.0558564,-0.0517793,0.0461401,-1.87436,0.164539,0.123446,0.0518074,-0.00200131,-0.00205759,-7.89315e-05,0.0046322,0.102455,-0.00374254,-0.000813265,0.0337521,0.00317533,0.0338562,0.00496387,0.295953,-0.0101706,0.0010669,0.062392,-0.192195,0.25591,0.456752,1.14388,-0.0581227,-0.00832322,0.0560325,-0.0516088,0.0462037,-1.87464,0.15994,0.123503,0.0518581,-0.00539321,-0.00717125,0.00456237,0.00537492,-0.00469054,0.00749797,0.000395943,0,0,0,0,0,0,0,-0.0956386,-30.6264,-0.213304,25.3323,1.57074,2.08459,0.0440523,
0.0559498,-0.0517945,0.0462541,-1.87415,0.163039,0.123547,0.0518103,-0.00200351,-0.00203414,-7.58001e-05,0.00462357,0.101723,-0.00352749,-0.000818912,-0.00137923,0.0146563,0.0019571,-0.00539679,-0.457606,0.134405,-0.00352982,0.0623964,-0.19368,0.25629,0.455089,1.14346,-0.0599418,-0.00831332,0.0560289,-0.051701,0.0462506,-1.87435,0.160005,0.123514,0.0518511,0.003174,-0.00115914,0.00361461,0.012435,-0.00592515,0.00460322,-0.00166478,1.0709,0.751514,-0.11847,0.882508,-0.154326,-0.361845,-0.25759,-0.0718349,-31.277,-0.0863513,25.0864,1.58905,1.98571,0.0779268,
0.0559367,-0.0518095,0.0462566,-1.87411,0.163862,0.123519,0.0518037,-0.00192946,-0.00200213,4.91966e-07,0.00461214,0.101951,-0.00352547,-0.0008199,0.0462842,0.0200083,0.0476825,-0.00714462,0.142285,0.00126716,-0.000617419,0.0623964,-0.19368,0.25629,0.455089,1.14346,-0.0599418,-0.00831332,0.0560289,-0.051701,0.0462506,-1.87435,0.160005,0.123514,0.0518511,0.003174,-0.00115914,0.00361461,0.012435,-0.00592515,0.00460322,-0.00166478,0,0,0,0,0,0,0,-0.0718349,-31.277,-0.0863513,25.0864,1.58905,1.98571,0.0779268,
0.0559266,-0.0518243,0.046262,-1.87408,0.164706,0.123486,0.0517971,-0.00179525,-0.00197086,0.000135937,0.00459935,0.10266,-0.00364473,-0.000819139,0.0838783,0.0195459,0.084653,-0.00799484,0.443345,-0.0745416,0.00047568,0.0623964,-0.19368,0.25629,0.455089,1.14346,-0.0599418,-0.00831332,0.0560289,-0.051701,0.0462506,-1.87435,0.160005,0.123514,0.0518511,0.003174,-0.00115914,0.00361461,0.012435,-0.00592515,0.00460322,-0.00166478,0,0,0,0,0,0,0,-0.0718349,-31.277,-0.0863513,25.0864,1.58905,1.98571,0.0779268,
0.0559193,-0.051839,0.0462702,-1.87404,0.165563,0.12345,0.0517906,-0.00161969,-0.00194448,0.00031272,0.00458609,0.103572,-0.00382736,-0.000818019,0.109729,0.0164823,0.11049,-0.00828457,0.569791,-0.11414,0.000700113,0.0623964,-0.19368,0.25629,0.455089,1.14346,-0.0599418,-0.00831332,0.0560289,-0.051701,0.0462506,-1.87435,0.160005,0.123514,0.0518511,0.003174,-0.00115914,0.00361461,0.012435,-0.00592515,0.00460322,-0.00166478,0,0,0,0,0,0,0,-0.0718349,-31.277,-0.0863513,25.0864,1.58905,1.98571,0.0779268,
0.0559498,-0.0517945,0.0462541,-1.87415,0.163039,0.123547,0.0518103,-0.00169822,-0.00194366,0.000237521,0.00458668,0.102616,-0.00359535,-0.000822716,-0.0490816,0.000517739,-0.0469994,0.000367372,-0.597169,0.145007,-0.00293553,0.0624472,-0.194064,0.256548,0.453392,1.14315,-0.0619313,-0.00830251,0.0560362,-0.0517603,0.0462597,-1.87398,0.160047,0.123503,0.0518542,0.00333414,-0.00290696,0.00412635,0.00471729,-0.00589497,0.00266861,-0.000252447,0.0200173,-0.218479,0.0639673,-0.964712,0.00377342,-0.241826,0.176541,-0.222592,-30.4042,-0.33629,25.1102,1.53412,2.08459,0.050461,
0.0559367,-0.0518095,0.0462566,-1.87411,0.163862,0.123519,0.0518037,-0.00168522,-0.00192974,0.000251149,0.00458262,0.102665,-0.00357975,-0.000822943,0.00812233,0.00869747,0.00851735,-0.00253329,0.0306343,0.00974864,-0.000141988,0.0624472,-0.194064,0.256548,0.453392,1.14315,-0.0619313,-0.00830251,0.0560362,-0.0517603,0.0462597,-1.87398,0.160047,0.123503,0.0518542,0.00333414,-0.00290696,0.00412635,0.00471729,-0.00589497,0.00266861,-0.000252447,0,0,0,0,0,0,0,-0.222592,-30.4042,-0.33629,25.1102,1.53412,2.08459,0.050461,
0.0559266,-0.0518243,0.046262,-1.87408,0.164706,0.123486,0.0517971,-0.00159986,-0.00191294,0.000336462,0.00457574,0.103232,-0.00368816,-0.000821573,0.0533488,0.0104972,0.0533208,-0.00430577,0.354024,-0.0677564,0.000856025,0.0624472,-0.194064,0.256548,0.453392,1.14315,-0.0619313,-0.00830251,0.0560362,-0.0517603,0.0462597,-1.87398,0.160047,0.123503,0.0518542,0.00333414,-0.00290696,0.00412635,0.00471729,-0.00589497,0.00266861,-0.000252447,0,0,0,0,0,0,0,-0.222592,-30.4042,-0.33629,25.1102,1.53412,2.08459,0.050461,
0.0559658,-0.0518275,0.0462724,-1.87383,0.163058,0.123381,0.0518142,-0.00165707,-0.00180242,0.00028322,0.00446244,0.102288,-0.00395271,-0.00082555,-0.0357533,0.0690753,-0.0332765,-0.0708128,-0.590035,-0.165342,-0.00248512,0.0624472,-0.194064,0.256548,0.453392,1.14315,-0.0619313,-0.00830251,0.0560362,-0.0517603,0.0462597,-1.87398,0.160047,0.123503,0.0518542,0.00333414,-0.00290696,0.00412635,0.00471729,-0.00589497,0.00266861,-0.000252447,0,0,0,0,0,0,0,-0.222592,-30.4042,-0.33629,25.1102,1.53412,2.08459,0.050461,
0.0559535,-0.0518386,0.0462756,-1.8738,0.16388,0.123338,0.0518076,-0.00163252,-0.00172004,0.000308648,0.00439039,0.102359,-0.00423062,-0.000825196,0.0153413,0.0514901,0.0158926,-0.0450289,0.0449115,-0.173698,0.000221197,0.0624537,-0.19475,0.256851,0.451608,1.14288,-0.0639746,-0.00829126,0.0560347,-0.0518288,0.0463097,-1.87362,0.160078,0.123505,0.0518554,0.00165891,0.00144871,-0.000266858,0.00767473,-0.00413721,0.00220467,-0.000187577,-0.209404,0.544459,-0.549151,0.36968,0.21972,-0.0579924,0.00810874,-0.119442,-30.5272,-0.185533,25.1855,1.54602,2.06536,0.0577852,
0.0559441,-0.0518502,0.0462817,-1.87377,0.164722,0.123294,0.0518011,-0.0015422,-0.00166523,0.000398926,0.00434739,0.102953,-0.00449457,-0.000823353,0.0564519,0.0342537,0.0564235,-0.0268734,0.371278,-0.164968,0.00115142,0.0624537,-0.19475,0.256851,0.451608,1.14288,-0.0639746,-0.00829126,0.0560347,-0.0518288,0.0463097,-1.87362,0.160078,0.123505,0.0518554,0.00165891,0.00144871,-0.000266858,0.00767473,-0.00413721,0.00220467,-0.000187577,0,0,0,0,0,0,0,-0.119442,-30.5272,-0.185533,25.1855,1.54602,2.06536,0.0577852,
0.0559372,-0.0518623,0.0462904,-1.87373,0.165579,0.123248,0.0517946,-0.00140508,-0.0016343,0.000536082,0.00432459,0.103779,-0.00473214,-0.000821363,0.0857032,0.0193358,0.0857227,-0.0142507,0.516202,-0.148479,0.00124417,0.0624537,-0.19475,0.256851,0.451608,1.14288,-0.0639746,-0.00829126,0.0560347,-0.0518288,0.0463097,-1.87362,0.160078,0.123505,0.0518554,0.00165891,0.00144871,-0.000266858,0.00767473,-0.00413721,0.00220467,-0.000187577,0,0,0,0,0,0,0,-0.119442,-30.5272,-0.185533,25.1855,1.54602,2.06536,0.0577852,
0.0559095,-0.0518474,0.0462663,-1.87348,0.163049,0.123423,0.0518167,-0.00165073,-0.00146468,0.000291262,0.00421488,0.10244,-0.00472292,-0.000821977,-0.153535,0.10601,-0.153013,-0.0685692,-0.837136,0.00576188,-0.000383628,0.0624537,-0.19475,0.256851,0.451608,1.14288,-0.0639746,-0.00829126,0.0560347,-0.0518288,0.0463097,-1.87362,0.160078,0.123505,0.0518554,0.00165891,0.00144871,-0.000266858,0.00767473,-0.00413721,0.00220467,-0.000187577,0,0,0,0,0,0,0,-0.119442,-30.5272,-0.185533,25.1855,1.54602,2.06536,0.0577852,
0.0558925,-0.051855,0.0462648,-1.87345,0.16386,0.123381,0.0518102,-0.00174431,-0.00136202,0.000196661,0.00415331,0.102225,-0.00481928,-0.0008198,-0.058489,0.0641656,-0.0591253,-0.0384816,-0.134289,-0.0602253,0.0013602,0.0624518,-0.194734,0.257009,0.450154,1.14272,-0.0656294,-0.0082823,0.0560374,-0.0518709,0.0463267,-1.87333,0.160086,0.123519,0.0518598,9.44042e-05,-0.00026019,0.00161782,0.00612693,-0.00697934,0.0038572,0.000980128,-0.195563,-0.213613,0.235585,-0.193475,-0.355267,0.206567,0.145963,-0.119442,-30.551,-0.260912,24.9832,1.63757,1.94543,0.0239107,
0.0558794,-0.0518638,0.0462672,-1.87341,0.164694,0.123337,0.0518037,-0.00172359,-0.00131081,0.000216222,0.00412515,0.102625,-0.00496297,-0.000817097,0.012953,0.0320035,0.0122256,-0.0176017,0.249811,-0.0898087,0.00168983,0.0624518,-0.194734,0.257009,0.450154,1.14272,-0.0656294,-0.0082823,0.0560374,-0.0518709,0.0463267,-1.87333,0.160086,0.123519,0.0518598,9.44042e-05,-0.00026019,0.00161782,0.00612693,-0.00697934,0.0038572,0.000980128,0,0,0,0,0,0,0,-0.119442,-30.551,-0.260912,24.9832,1.63757,1.94543,0.0239107,
0.0558696,-0.0518738,0.0462729,-1.87338,0.165543,0.123291,0.0517973,-0.0016229,-0.00129751,0.000316324,0.00411957,0.10333,-0.00512073,-0.000814837,0.0629313,0.00831021,0.0625636,-0.00348556,0.440749,-0.0985963,0.0014123,0.0624518,-0.194734,0.257009,0.450154,1.14272,-0.0656294,-0.0082823,0.0560374,-0.0518709,0.0463267,-1.87333,0.160086,0.123519,0.0518598,9.44042e-05,-0.00026019,0.00161782,0.00612693,-0.00697934,0.0038572,0.000980128,0,0,0,0,0,0,0,-0.119442,-30.551,-0.260912,24.9832,1.63757,1.94543,0.0239107,
0.0559124,-0.0519053,0.046284,-1.87318,0.16302,0.123435,0.0518215,-0.00183003,-0.00123044,0.000110834,0.00406535,0.102023,-0.00504713,-0.0008168,-0.129455,0.0419217,-0.128431,-0.0338881,-0.81658,0.0459979,-0.00122695,0.0624518,-0.194734,0.257009,0.450154,1.14272,-0.0656294,-0.0082823,0.0560374,-0.0518709,0.0463267,-1.87333,0.160086,0.123519,0.0518598,9.44042e-05,-0.00026019,0.00161782,0.00612693,-0.00697934,0.0038572,0.000980128,0,0,0,0,0,0,0,-0.119442,-30.551,-0.260912,24.9832,1.63757,1.94543,0.0239107,
0.0558953,-0.051914,0.0462824,-1.87315,0.163829,0.123393,0.051815,-0.00189272,-0.00120132,4.76913e-05,0.00404488,0.101856,-0.00509196,-0.000815573,-0.0391864,0.0182024,-0.039464,-0.0127905,-0.104515,-0.0280201,0.00076693,0.0624518,-0.194734,0.257009,0.450154,1.14272,-0.0656294,-0.0082823,0.0560374,-0.0518709,0.0463267,-1.87333,0.160086,0.123519,0.0518598,9.44042e-05,-0.00026019,0.00161782,0.00612693,-0.00697934,0.0038572,0.000980128,0,0,0,0,0,0,0,-0.119442,-30.551,-0.260912,24.9832,1.63757,1.94543,0.0239107,
0.055882,-0.0519237,0.0462846,-1.87312,0.164662,0.123348,0.0518085,-0.00184682,-0.00120277,9.28713e-05,0.00404686,0.102307,-0.00519571,-0.00081356,0.0286928,-0.000906772,0.0282375,0.00123537,0.281766,-0.0648442,0.0012582,0.0624449,-0.193932,0.257127,0.449321,1.14249,-0.0665955,-0.00827697,0.056051,-0.0518645,0.046413,-1.87311,0.160125,0.123508,0.0518561,0.00147307,-0.000437813,0.00668157,0.00335989,-0.00549968,0.00200748,0.000260636,0.172334,-0.0222029,0.632969,-0.34588,0.184958,-0.231215,-0.0899365,-0.29797,-30.8287,-0.435472,25.0348,1.54602,2.03881,0.0303194,
0.0559871,-0.0518839,0.0464332,-1.87298,0.163135,0.123335,0.0518162,-0.00183695,-0.00109973,0.000107926,0.00394679,0.101523,-0.00540559,-0.000819027,0.0061649,0.0644,0.00940918,-0.062541,-0.490021,-0.13117,-0.00341722,0.0624449,-0.193932,0.257127,0.449321,1.14249,-0.0665955,-0.00827697,0.056051,-0.0518645,0.046413,-1.87311,0.160125,0.123508,0.0518561,0.00147307,-0.000437813,0.00668157,0.00335989,-0.00549968,0.00200748,0.000260636,0,0,0,0,0,0,0,-0.29797,-30.8287,-0.435472,25.0348,1.54602,2.03881,0.0303194,
0.0559754,-0.0518908,0.0464371,-1.87295,0.163955,0.123283,0.0518096,-0.001763,-0.00105227,0.000183488,0.00390213,0.101722,-0.00561904,-0.000819766,0.046219,0.029658,0.0472262,-0.0279165,0.124049,-0.133407,-0.000461683,0.0624449,-0.193932,0.257127,0.449321,1.14249,-0.0665955,-0.00827697,0.056051,-0.0518645,0.046413,-1.87311,0.160125,0.123508,0.0518561,0.00147307,-0.000437813,0.00668157,0.00335989,-0.00549968,0.00200748,0.000260636,0,0,0,0,0,0,0,-0.29797,-30.8287,-0.435472,25.0348,1.54602,2.03881,0.0303194,
0.0559664,-0.051899,0.0464437,-1.87292,0.164796,0.123231,0.0518031,-0.00163636,-0.00104763,0.00031047,0.00389457,0.102417,-0.00581029,-0.000818731,0.0791476,0.00290069,0.0793639,-0.00472653,0.43455,-0.119531,0.000647089,0.0624449,-0.193932,0.257127,0.449321,1.14249,-0.0665955,-0.00827697,0.056051,-0.0518645,0.046413,-1.87311,0.160125,0.123508,0.0518561,0.00147307,-0.000437813,0.00668157,0.00335989,-0.00549968,0.00200748,0.000260636,0,0,0,0,0,0,0,-0.29797,-30.8287,-0.435472,25.0348,1.54602,2.03881,0.0303194,
0.0559598,-0.0519084,0.0464527,-1.87289,0.165652,0.123178,0.0517966,-0.00147262,-0.00107399,0.000474412,0.00391102,0.103324,-0.00596971,-0.000817341,0.10234,-0.0164742,0.102463,0.0102815,0.567259,-0.0996395,0.000868561,0.0624662,-0.194333,0.257259,0.448605,1.14239,-0.0674413,-0.00827231,0.0560344,-0.0518973,0.0464173,-1.87295,0.160133,0.123499,0.0518562,0.00224987,-0.00320323,0.00355004,0.00121512,-0.00381451,0.00154747,-0.000766482,0.0971001,-0.345677,-0.391442,-0.268096,0.210646,-0.0575013,-0.12839,-0.0440639,-30.8009,-0.137926,25.4593,1.60095,2.11846,0.050461,
0.0559524,-0.0519452,0.0464183,-1.87283,0.163139,0.123296,0.0518169,-0.0015832,-0.00106036,0.000366593,0.00386435,0.102276,-0.00606143,-0.000820622,-0.0691138,0.00851927,-0.0673865,-0.0291633,-0.655451,-0.057327,-0.00205062,0.0624662,-0.194333,0.257259,0.448605,1.14239,-0.0674413,-0.00827231,0.0560344,-0.0518973,0.0464173,-1.87295,0.160133,0.123499,0.0518562,0.00224987,-0.00320323,0.00355004,0.00121512,-0.00381451,0.00154747,-0.000766482,0,0,0,0,0,0,0,-0.0440639,-30.8009,-0.137926,25.4593,1.60095,2.11846,0.050461,
0.0559392,-0.051954,0.0464208,-1.8728,0.163957,0.123243,0.0518103,-0.00159469,-0.00106855,0.000355151,0.00385706,0.102269,-0.00615906,-0.000820031,-0.00717808,-0.00512081,-0.00715155,-0.00456168,-0.00422482,-0.0610194,0.000369385,0.0624662,-0.194333,0.257259,0.448605,1.14239,-0.0674413,-0.00827231,0.0560344,-0.0518973,0.0464173,-1.87295,0.160133,0.123499,0.0518562,0.00224987,-0.00320323,0.00355004,0.00121512,-0.00381451,0.00154747,-0.000766482,0,0,0,0,0,0,0,-0.0440639,-30.8009,-0.137926,25.4593,1.60095,2.11846,0.050461,
0.0559291,-0.0519637,0.0464263,-1.87276,0.164796,0.123191,0.0518038,-0.00152834,-0.00109697,0.000420841,0.00387498,0.102808,-0.00624653,-0.000818205,0.0414648,-0.0177608,0.0410562,0.0112014,0.336835,-0.0546689,0.00114091,0.0624662,-0.194333,0.257259,0.448605,1.14239,-0.0674413,-0.00827231,0.0560344,-0.0518973,0.0464173,-1.87295,0.160133,0.123499,0.0518562,0.00224987,-0.00320323,0.00355004,0.00121512,-0.00381451,0.00154747,-0.000766482,0,0,0,0,0,0,0,-0.0440639,-30.8009,-0.137926,25.4593,1.60095,2.11846,0.050461,
0.0559524,-0.0519452,0.0464183,-1.87283,0.163139,0.123296,0.0518169,-0.00162778,-0.00107874,0.000323737,0.00383552,0.101862,-0.00628289,-0.000821314,-0.0621484,0.0113917,-0.0606901,-0.0246586,-0.590883,-0.0227239,-0.00194256,0.0624651,-0.194382,0.257384,0.447762,1.14222,-0.0683963,-0.008267,0.0560365,-0.0519205,0.0464487,-1.87277,0.16016,0.123499,0.0518573,-0.00293824,-0.000201809,0.00170941,0.00336499,-0.00199029,0.00123008,0.000141985,-0.648514,0.375177,-0.230079,0.268735,0.228028,-0.0396737,0.113558,0.285221,-30.8763,0.211195,25.6577,1.61926,2.12487,0.050461,
0.0558735,-0.051941,0.0463832,-1.87262,0.163921,0.123282,0.0518135,-0.00176277,-0.00102099,0.000186212,0.00381084,0.101655,-0.00627479,-0.000817817,-0.0843684,0.0360977,-0.0859531,-0.0154282,-0.129544,0.00506155,0.00218524,0.0624651,-0.194382,0.257384,0.447762,1.14222,-0.0683963,-0.008267,0.0560365,-0.0519205,0.0464487,-1.87277,0.16016,0.123499,0.0518573,-0.00293824,-0.000201809,0.00170941,0.00336499,-0.00199029,0.00123008,0.000141985,0,0,0,0,0,0,0,0.285221,-30.8763,0.211195,25.6577,1.61926,2.12487,0.050461,
0.0558592,-0.0519487,0.0463845,-1.87259,0.164751,0.123231,0.0518071,-0.0017669,-0.00101014,0.000179872,0.00381852,0.102075,-0.00630049,-0.000814355,-0.00257859,0.00678013,-0.0039622,0.00480125,0.262443,-0.0160604,0.00216398,0.0624651,-0.194382,0.257384,0.447762,1.14222,-0.0683963,-0.008267,0.0560365,-0.0519205,0.0464487,-1.87277,0.16016,0.123499,0.0518573,-0.00293824,-0.000201809,0.00170941,0.00336499,-0.00199029,0.00123008,0.000141985,0,0,0,0,0,0,0,0.285221,-30.8763,0.211195,25.6577,1.61926,2.12487,0.050461,
0.0558486,-0.0519577,0.0463893,-1.87256,0.165597,0.123179,0.0518007,-0.00167985,-0.00103327,0.000265594,0.00384671,0.10281,-0.00633894,-0.00081169,0.0544031,-0.0144587,0.0535763,0.0176171,0.459271,-0.0240336,0.00166525,0.0624651,-0.194382,0.257384,0.447762,1.14222,-0.0683963,-0.008267,0.0560365,-0.0519205,0.0464487,-1.87277,0.16016,0.123499,0.0518573,-0.00293824,-0.000201809,0.00170941,0.00336499,-0.00199029,0.00123008,0.000141985,0,0,0,0,0,0,0,0.285221,-30.8763,0.211195,25.6577,1.61926,2.12487,0.050461,
0.0558914,-0.0519329,0.0464137,-1.87245,0.163076,0.123389,0.0518165,-0.00196269,-0.000897996,-1.72387e-05,0.00377029,0.101387,-0.00618452,-0.000811954,-0.176772,0.0845484,-0.176771,-0.0477596,-0.889496,0.0965178,-0.000164751,0.0624748,-0.194226,0.257525,0.446817,1.14206,-0.069463,-0.00826114,0.0560481,-0.0519407,0.0464886,-1.87258,0.160184,0.123509,0.0518542,-0.00178815,0.00193436,-7.62456e-05,0.00513039,-0.00628988,0.00290339,4.5338e-05,0.14376,0.267021,-0.223207,0.220675,-0.537449,0.209164,-0.0120808,-0.147213,-30.7533,-0.237108,25.1855,1.53412,2.03148,0.050461,
0.0558715,-0.0519377,0.0464094,-1.87242,0.163878,0.123341,0.0518101,-0.00206717,-0.000839295,-0.000123203,0.00374565,0.101153,-0.00615203,-0.000809894,-0.0653022,0.0366877,-0.0662279,-0.0153998,-0.146008,0.0203024,0.00128756,0.0624748,-0.194226,0.257525,0.446817,1.14206,-0.069463,-0.00826114,0.0560481,-0.0519407,0.0464886,-1.87258,0.160184,0.123509,0.0518542,-0.00178815,0.00193436,-7.62456e-05,0.00513039,-0.00628988,0.00290339,4.5338e-05,0,0,0,0,0,0,0,-0.147213,-30.7533,-0.237108,25.1855,1.53412,2.03148,0.050461,
0.055856,-0.0519443,0.0464094,-1.87239,0.164704,0.12329,0.0518037,-0.0020403,-0.000836409,-9.77198e-05,0.00375532,0.101579,-0.00618166,-0.000807579,0.0167931,0.00180396,0.0159272,0.00604224,0.265927,-0.0185185,0.00144689,0.0624748,-0.194226,0.257525,0.446817,1.14206,-0.069463,-0.00826114,0.0560481,-0.0519407,0.0464886,-1.87258,0.160184,0.123509,0.0518542,-0.00178815,0.00193436,-7.62456e-05,0.00513039,-0.00628988,0.00290339,4.5338e-05,0,0,0,0,0,0,0,-0.147213,-30.7533,-0.237108,25.1855,1.53412,2.03148,0.050461,
0.0558444,-0.0519524,0.0464133,-1.87236,0.165547,0.123239,0.0517973,-0.00192292,-0.000872264,1.90094e-05,0.00378672,0.102338,-0.00623876,-0.000805856,0.0733649,-0.0224093,0.0729557,0.019625,0.474852,-0.0356871,0.00107688,0.0624748,-0.194226,0.257525,0.446817,1.14206,-0.069463,-0.00826114,0.0560481,-0.0519407,0.0464886,-1.87258,0.160184,0.123509,0.0518542,-0.00178815,0.00193436,-7.62456e-05,0.00513039,-0.00628988,0.00290339,4.5338e-05,0,0,0,0,0,0,0,-0.147213,-30.7533,-0.237108,25.1855,1.53412,2.03148,0.050461,
0.0558914,-0.0519329,0.0464137,-1.87245,0.163076,0.123389,0.0518165,-0.00215714,-0.000769189,-0.000214507,0.0037223,0.10101,-0.00610437,-0.000807286,-0.146388,0.0644222,-0.145947,-0.0402612,-0.830551,0.0839949,-0.000894066,0.0624666,-0.194696,0.257658,0.445973,1.14197,-0.0704472,-0.00825582,0.0560571,-0.0519805,0.0464992,-1.8724,0.160183,0.123505,0.051858,0.00310949,-0.00236354,-0.00183486,0.0052515,-0.00370317,0.00195822,-0.00014189,0.612205,-0.537238,-0.219826,0.0151388,0.323339,-0.118147,-0.0234035,-0.424923,-30.678,-0.510851,25.0586,1.54052,2.06536,0.0303194,
0.0558715,-0.0519377,0.0464094,-1.87242,0.163878,0.123341,0.0518101,-0.00222273,-0.00073625,-0.000281018,0.00370726,0.100851,-0.00608791,-0.00080616,-0.0409956,0.0205868,-0.0415694,-0.00940102,-0.0988523,0.0102841,0.000704106,0.0624666,-0.194696,0.257658,0.445973,1.14197,-0.0704472,-0.00825582,0.0560571,-0.0519805,0.0464992,-1.8724,0.160183,0.123505,0.051858,0.00310949,-0.00236354,-0.00183486,0.0052515,-0.00370317,0.00195822,-0.00014189,0,0,0,0,0,0,0,-0.424923,-30.678,-0.510851,25.0586,1.54052,2.06536,0.0303194,
0.055856,-0.0519443,0.0464094,-1.87239,0.164704,0.12329,0.0518037,-0.00216475,-0.000753972,-0.000223971,0.00372461,0.101337,-0.00613037,-0.000804592,0.0362383,-0.0110768,0.035654,0.0108412,0.303652,-0.0265332,0.00098013,0.0624666,-0.194696,0.257658,0.445973,1.14197,-0.0704472,-0.00825582,0.0560571,-0.0519805,0.0464992,-1.8724,0.160183,0.123505,0.051858,0.00310949,-0.00236354,-0.00183486,0.0052515,-0.00370317,0.00195822,-0.00014189,0,0,0,0,0,0,0,-0.424923,-30.678,-0.510851,25.0586,1.54052,2.06536,0.0303194,
0.0559327,-0.0520427,0.0464563,-1.87225,0.163157,0.123375,0.0518198,-0.00225442,-0.000864695,-0.000311418,0.00377321,0.100502,-0.00597543,-0.000807711,-0.0560462,-0.0692017,-0.0546544,0.0303764,-0.521814,0.0968382,-0.00194976,0.0624666,-0.194696,0.257658,0.445973,1.14197,-0.0704472,-0.00825582,0.0560571,-0.0519805,0.0464992,-1.8724,0.160183,0.123505,0.051858,0.00310949,-0.00236354,-0.00183486,0.0052515,-0.00370317,0.00195822,-0.00014189,0,0,0,0,0,0,0,-0.424923,-30.678,-0.510851,25.0586,1.54052,2.06536,0.0303194,
0.0559159,-0.0520535,0.0464551,-1.87222,0.163968,0.123329,0.0518133,-0.00222348,-0.000961695,-0.000280237,0.00382884,0.100689,-0.00593522,-0.000807612,0.0193382,-0.0606248,0.0194881,0.0347692,0.116407,0.0251294,6.20914e-05,0.0624638,-0.1944,0.257728,0.445044,1.14183,-0.0715263,-0.00824986,0.0560354,-0.0519978,0.0465089,-1.87219,0.160198,0.123504,0.0518519,-0.00192262,-0.000901959,0.00021803,0.00255802,-0.0047202,0.00326731,-0.00110006,-0.629013,0.182698,0.256611,-0.336684,-0.127128,0.163636,-0.119771,0.0551182,-30.8287,-0.0387439,25.2332,1.58264,2.07818,0.0706026,
0.0559029,-0.0520648,0.0464576,-1.87219,0.164803,0.12328,0.0518069,-0.0021035,-0.0010521,-0.0001603,0.00388667,0.101406,-0.00595989,-0.000806612,0.074989,-0.0565055,0.0749608,0.0361421,0.448117,-0.0154197,0.000625165,0.0624638,-0.1944,0.257728,0.445044,1.14183,-0.0715263,-0.00824986,0.0560354,-0.0519978,0.0465089,-1.87219,0.160198,0.123504,0.0518519,-0.00192262,-0.000901959,0.00021803,0.00255802,-0.0047202,0.00326731,-0.00110006,0,0,0,0,0,0,0,0.0551182,-30.8287,-0.0387439,25.2332,1.58264,2.07818,0.0706026,
0.0558932,-0.0520767,0.0464635,-1.87215,0.165652,0.12323,0.0518005,-0.0019238,-0.00113862,1.97904e-05,0.00394358,0.102361,-0.00601884,-0.000805739,0.11231,-0.0540716,0.112557,0.0355721,0.596938,-0.0368402,0.000545229,0.0624638,-0.1944,0.257728,0.445044,1.14183,-0.0715263,-0.00824986,0.0560354,-0.0519978,0.0465089,-1.87219,0.160198,0.123504,0.0518519,-0.00192262,-0.000901959,0.00021803,0.00255802,-0.0047202,0.00326731,-0.00110006,0,0,0,0,0,0,0,0.0551182,-30.8287,-0.0387439,25.2332,1.58264,2.07818,0.0706026,
0.0558831,-0.0520175,0.0464385,-1.87207,0.163109,0.12335,0.0518142,-0.00214158,-0.0010439,-0.000197142,0.00386913,0.101082,-0.00600997,-0.000807021,-0.136107,0.0591985,-0.135583,-0.0465342,-0.799454,0.0055425,-0.000801345,0.0624638,-0.1944,0.257728,0.445044,1.14183,-0.0715263,-0.00824986,0.0560354,-0.0519978,0.0465089,-1.87219,0.160198,0.123504,0.0518519,-0.00192262,-0.000901959,0.00021803,0.00255802,-0.0047202,0.00326731,-0.00110006,0,0,0,0,0,0,0,0.0551182,-30.8287,-0.0387439,25.2332,1.58264,2.07818,0.0706026,
0.0558638,-0.0520242,0.0464347,-1.87204,0.163912,0.123299,0.0518077,-0.00219676,-0.00100285,-0.000253067,0.00384148,0.100953,-0.00607235,-0.000805813,-0.0344887,0.0256562,-0.034953,-0.0172836,-0.0804148,-0.0389883,0.000755486,0.0624638,-0.1944,0.257728,0.445044,1.14183,-0.0715263,-0.00824986,0.0560354,-0.0519978,0.0465089,-1.87219,0.160198,0.123504,0.0518519,-0.00192262,-0.000901959,0.00021803,0.00255802,-0.0047202,0.00326731,-0.00110006,0,0,0,0,0,0,0,0.0551182,-30.8287,-0.0387439,25.2332,1.58264,2.07818,0.0706026,
0.0558488,-0.0520322,0.0464352,-1.87201,0.16474,0.123247,0.0518014,-0.00213281,-0.00100331,-0.00018987,0.00384489,0.101453,-0.00616494,-0.000804189,0.039966,-0.000288764,0.039498,0.00213139,0.312892,-0.057872,0.00101458,0.0624632,-0.194577,0.257829,0.444132,1.1417,-0.0725938,-0.00824418,0.0560311,-0.052031,0.0465063,-1.87199,0.160204,0.123493,0.051853,0.00105893,-0.00207523,0.00176269,0.00223041,-0.00768456,0.00200218,-5.86229e-05,0.372695,-0.146659,0.193082,-0.0409514,-0.370546,-0.158141,0.130179,0.0313145,-31.0787,-0.0625476,25.7092,1.65588,2.17797,0.0577852,
0.0558375,-0.0520415,0.0464395,-1.87198,0.165584,0.123193,0.051795,-0.00198777,-0.00103391,-4.49395e-05,0.00386814,0.102266,-0.00626504,-0.000803018,0.0906523,-0.0191235,0.0905814,0.0145311,0.507753,-0.0625621,0.000731991,0.0624632,-0.194577,0.257829,0.444132,1.1417,-0.0725938,-0.00824418,0.0560311,-0.052031,0.0465063,-1.87199,0.160204,0.123493,0.051853,0.00105893,-0.00207523,0.00176269,0.00223041,-0.00768456,0.00200218,-5.86229e-05,0,0,0,0,0,0,0,0.0313145,-31.0787,-0.0625476,25.7092,1.65588,2.17797,0.0577852,
