xiao-wang007/linearmpc_panda/paper_data/panda_torque_PD_controller_opt_time_to_start_low_pass_filter/4/trajectory.csv
Commanded Joint 0 Position,Commanded Joint 1 Position,Commanded Joint 2 Position,Commanded Joint 3 Position,Commanded Joint 4 Position,Commanded Joint 5 Position,Commanded Joint 6 Position,Commanded Joint 0 Velocity,Commanded Joint 1 Velocity,Commanded Joint 2 Velocity,Commanded Joint 3 Velocity,Commanded Joint 4 Velocity,Commanded Joint 5 Velocity,Commanded Joint 6 Velocity,Commanded Joint 0 Acceleration,Commanded Joint 1 Acceleration,Commanded Joint 2 Acceleration,Commanded Joint 3 Acceleration,Commanded Joint 4 Acceleration,Commanded Joint 5 Acceleration,Commanded Joint 6 Acceleration,Commanded Joint 0 Torque,Commanded Joint 1 Torque,Commanded Joint 2 Torque,Commanded Joint 3 Torque,Commanded Joint 4 Torque,Commanded Joint 5 Torque,Commanded Joint 6 Torque,Actual Joint 0 Position,Actual Joint 1 Position,Actual Joint 2 Position,Actual Joint 3 Position,Actual Joint 4 Position,Actual Joint 5 Position,Actual Joint 6 Position,Actual Joint 0 Velocity,Actual Joint 1 Velocity,Actual Joint 2 Velocity,Actual Joint 3 Velocity,Actual Joint 4 Velocity,Actual Joint 5 Velocity,Actual Joint 6 Velocity,Actual Joint 0 Acceleration,Actual Joint 1 Acceleration,Actual Joint 2 Acceleration,Actual Joint 3 Acceleration,Actual Joint 4 Acceleration,Actual Joint 5 Acceleration,Actual Joint 6 Acceleration,Actual Joint 0 Torque,Actual Joint 1 Torque,Actual Joint 2 Torque,Actual Joint 3 Torque,Actual Joint 4 Torque,Actual Joint 5 Torque,Actual Joint 6 Torque,
-0.0578517,-0.0637577,0.0688862,-1.78525,0.0408193,0.177119,0.0146181,0.000750129,0.0196179,0.000982875,-0.0337517,-0.00694155,0.0520919,-0.000378444,0.468831,12.2612,0.614297,-21.0948,-4.33847,32.5574,-0.236528,0.0533441,22.1432,0.262455,-24.2156,-0.791872,1.99816,-0.0246768,-0.0578888,-0.0646644,0.06882,-1.78217,0.0413006,0.171554,0.014674,0.0010773,-0.000585911,0.000201965,-0.0017044,-0.00493937,-0.00042342,-0.000531362,0,0,0,0,0,0,0,-0.0440639,-32.8243,-0.435472,27.1255,0.850216,3.08617,-0.0905302,
-0.0578834,-0.064661,0.0688255,-1.78218,0.0412569,0.171535,0.0146733,0.000622942,0.0157393,0.000808268,-0.0270373,-0.0057392,0.041568,-0.000305477,-0.0794922,-2.42415,-0.10913,4.19648,0.751465,-6.57742,0.0456047,0.04759,22.5839,0.252084,-24.132,-0.791545,1.74703,-0.0231648,-0.0578888,-0.0646644,0.06882,-1.78217,0.0413006,0.171554,0.014674,0.0010773,-0.000585911,0.000201965,-0.0017044,-0.00493937,-0.00042342,-0.000531362,0,0,0,0,0,0,0,-0.0440639,-32.8243,-0.435472,27.1255,0.850216,3.08617,-0.0905302,
-0.0578829,-0.0646591,0.0688259,-1.78218,0.0412527,0.171533,0.0146733,0.000511142,0.0126389,0.000657554,-0.0216561,-0.00469621,0.0331966,-0.000246123,-0.069875,-1.93774,-0.0941961,3.36329,0.651871,-5.23211,0.037096,0.0403985,23.1555,0.240359,-24.024,-0.790477,1.39924,-0.0211983,-0.0578888,-0.0646644,0.06882,-1.78217,0.0413006,0.171554,0.014674,0.0010773,-0.000585911,0.000201965,-0.0017044,-0.00493937,-0.00042342,-0.000531362,0,0,0,0,0,0,0,-0.0440639,-32.8243,-0.435472,27.1255,0.850216,3.08617,-0.0905302,
-0.0578826,-0.0646572,0.0688261,-1.78218,0.0412504,0.171532,0.0146732,0.000416046,0.0101585,0.000530769,-0.0173446,-0.00381605,0.0265355,-0.00019808,-0.0594346,-1.55023,-0.079241,2.69467,0.550097,-4.16322,0.0300272,0.0344588,23.6817,0.230686,-23.856,-0.787943,1.01456,-0.0192018,-0.0578897,-0.0645909,0.068821,-1.78226,0.0413025,0.171553,0.0146763,0.00203444,0.00213773,0.000391376,-0.00185117,-0.00772538,0.00838803,0.000406243,0.119642,0.340455,0.0236764,-0.0183454,-0.348251,1.10143,0.117201,-0.0440639,-32.6497,-0.463243,26.9788,0.819088,3.09899,-0.110672,
-0.0581119,-0.0645419,0.0686067,-1.7821,0.0481092,0.166949,0.0146504,-0.000466183,0.00815043,-0.000400304,-0.0135467,0.0405384,-0.00927054,-0.000195333,-0.551393,-1.25507,-0.58192,2.37367,27.7215,-22.3788,0.00171668,0.442608,0.225469,0.440705,-0.281816,2.61594,-1.90145,-0.00192887,-0.0578897,-0.0645909,0.068821,-1.78226,0.0413025,0.171553,0.0146763,0.00203444,0.00213773,0.000391376,-0.00185117,-0.00772538,0.00838803,0.000406243,0,0,0,0,0,0,0,-0.0440639,-32.6497,-0.463243,26.9788,0.819088,3.09899,-0.110672,
-0.0581327,-0.0645407,0.0685848,-1.78209,0.0499093,0.165671,0.0146493,-0.000892278,0.00654974,-0.000867753,-0.010697,0.0774341,-0.0393755,-0.000182739,-0.266309,-1.00043,-0.292156,1.78106,23.0598,-18.8156,0.00787129,0.437831,0.22239,0.435972,-0.279307,2.59253,-1.88571,-0.00189447,-0.0578897,-0.0645909,0.068821,-1.78226,0.0413025,0.171553,0.0146763,0.00203444,0.00213773,0.000391376,-0.00185117,-0.00772538,0.00838803,0.000406243,0,0,0,0,0,0,0,-0.0440639,-32.6497,-0.463243,26.9788,0.819088,3.09899,-0.110672,
-0.0581433,-0.0645384,0.0685732,-1.78209,0.0517405,0.164356,0.0146485,-0.000977919,0.00529749,-0.000984767,-0.0085675,0.107727,-0.0643755,-0.000168127,-0.0535258,-0.782659,-0.0731337,1.33095,18.933,-15.625,0.00913214,0.433125,0.21965,0.431288,-0.276697,2.569,-1.86985,-0.00185607,-0.0578897,-0.0645909,0.068821,-1.78226,0.0413025,0.171553,0.0146763,0.00203444,0.00213773,0.000391376,-0.00185117,-0.00772538,0.00838803,0.000406243,0,0,0,0,0,0,0,-0.0440639,-32.6497,-0.463243,26.9788,0.819088,3.09899,-0.110672,
-0.058145,-0.0645346,0.0685706,-1.7821,0.0535864,0.16302,0.0146477,-0.000824969,0.00433361,-0.000853451,-0.00698175,0.13233,-0.0849106,-0.000154978,0.0955939,-0.602423,0.0820726,0.991093,15.3772,-12.8345,0.00821852,0.423431,0.277274,0.418374,-0.262919,2.54647,-1.84232,-0.00187598,-0.0578852,-0.0636191,0.0688169,-1.78365,0.0413293,0.173968,0.0146754,0.00180584,0.0941146,0.00171701,-0.148577,-0.00185456,0.245017,7.71914e-05,-0.0285743,11.4971,0.165705,-18.3408,0.733852,29.5787,-0.0411314,0.00751081,-14.5033,-0.360094,8.99109,0.233151,1.36223,-0.103348,
-0.0582482,-0.0610529,0.0685114,-1.78452,0.063363,0.156518,0.0146175,-0.000655982,0.010566,-0.000530918,-0.00925343,0.244939,-0.188309,-0.000123288,0.105616,3.89525,0.201583,-1.4198,70.3801,-64.624,0.0198059,3.57909,1.23414,3.65941,-1.7047,8.99178,-7.56646,-0.00154553,-0.0578852,-0.0636191,0.0688169,-1.78365,0.0413293,0.173968,0.0146754,0.00180584,0.0941146,0.00171701,-0.148577,-0.00185456,0.245017,7.71914e-05,0,0,0,0,0,0,0,0.00751081,-14.5033,-0.360094,8.99109,0.233151,1.36223,-0.103348,
-0.0582026,-0.0608226,0.0685614,-1.78467,0.069067,0.15152,0.0146178,0.000615142,0.0142096,0.000826854,-0.0112656,0.33855,-0.275619,-9.02305e-05,0.794453,2.27723,0.848607,-1.2576,58.507,-54.5688,0.0206611,3.48434,1.20106,3.55994,-1.67041,8.78209,-7.40643,-0.00243924,-0.0578852,-0.0636191,0.0688169,-1.78365,0.0413293,0.173968,0.0146754,0.00180584,0.0941146,0.00171701,-0.148577,-0.00185456,0.245017,7.71914e-05,0,0,0,0,0,0,0,0.00751081,-14.5033,-0.360094,8.99109,0.233151,1.36223,-0.103348,
-0.0581167,-0.0606287,0.0686513,-1.78483,0.0748206,0.14644,0.0146184,0.00263915,0.0162169,0.00290939,-0.0129846,0.414681,-0.347479,-5.69812e-05,1.265,1.25458,1.30159,-1.07436,47.5821,-44.9127,0.0207808,3.40722,1.17256,3.47162,-1.63096,8.55511,-7.25757,-0.00296046,-0.0578852,-0.0636191,0.0688169,-1.78365,0.0413293,0.173968,0.0146754,0.00180584,0.0941146,0.00171701,-0.148577,-0.00185456,0.245017,7.71914e-05,0,0,0,0,0,0,0,0.00751081,-14.5033,-0.360094,8.99109,0.233151,1.36223,-0.103348,
-0.0579965,-0.0604598,0.0687756,-1.78499,0.0805643,0.14135,0.014619,0.00511662,0.0171942,0.00543464,-0.0144129,0.475336,-0.405239,-3.14465e-05,1.54842,0.610797,1.57828,-0.892696,37.9094,-36.0999,0.0159592,3.34897,1.25965,3.38672,-1.62437,8.26686,-7.10411,0.00267181,-0.0579161,-0.0610254,0.0688417,-1.78954,0.0439857,0.176468,0.0146725,-0.00217048,0.0306461,0.000955162,-0.109367,0.202586,-0.208272,-0.00111841,-0.497041,-7.93356,-0.0952315,4.90122,25.555,-56.6612,-0.14945,0.66608,-34.0462,0.211195,36.2424,2.17498,3.86895,-0.0767973,
-0.0549197,-0.0617049,0.0720108,-1.79275,0.0711584,0.138496,0.0152576,0.0241433,0.004556,0.0253666,-0.0329839,0.556782,-0.549637,0.00134601,11.8917,-7.89886,12.4575,-11.6069,50.9038,-90.2489,0.860908,23.0696,-1.73377,23.7767,-9.67813,10.8243,-14.2104,0.187748,-0.0579161,-0.0610254,0.0688417,-1.78954,0.0439857,0.176468,0.0146725,-0.00217048,0.0306461,0.000955162,-0.109367,0.202586,-0.208272,-0.00111841,0,0,0,0,0,0,0,0.66608,-34.0462,0.211195,36.2424,2.17498,3.86895,-0.0767973,
-0.0540788,-0.062073,0.072892,-1.79366,0.0786399,0.129614,0.0152957,0.0403385,-0.0055574,0.0423222,-0.0490411,0.632463,-0.66177,0.0020295,10.122,-6.32087,10.5972,-10.0358,47.3006,-70.0828,0.427184,20.9153,-4.20348,21.4955,-10.5882,10.8243,-14.2104,0.203099,-0.0579161,-0.0610254,0.0688417,-1.78954,0.0439857,0.176468,0.0146725,-0.00217048,0.0306461,0.000955162,-0.109367,0.202586,-0.208272,-0.00111841,0,0,0,0,0,0,0,0.66608,-34.0462,0.211195,36.2424,2.17498,3.86895,-0.0767973,
-0.0532122,-0.0624172,0.0737995,-1.79459,0.0864209,0.121073,0.0153253,0.053934,-0.0130513,0.0565457,-0.0625554,0.700495,-0.742924,0.00236517,8.49723,-4.68368,8.88965,-8.44642,42.52,-50.7216,0.209792,18.4222,-5.69996,18.9512,-11.4005,10.8243,-14.2104,0.159144,-0.0579161,-0.0610254,0.0688417,-1.78954,0.0439857,0.176468,0.0146725,-0.00217048,0.0306461,0.000955162,-0.109367,0.202586,-0.208272,-0.00111841,0,0,0,0,0,0,0,0.66608,-34.0462,0.211195,36.2424,2.17498,3.86895,-0.0767973,
-0.0509875,-0.0601853,0.0759191,-1.79616,0.0762925,0.129671,0.0156394,0.0793467,-0.0053382,0.0824421,-0.0812594,0.743439,-0.840891,0.00337608,15.8829,4.82068,16.1853,-11.69,26.8398,-61.229,0.631821,23.508,4.4062,24.0632,-18.7834,10.8243,-14.2104,0.0973186,-0.0579161,-0.0610254,0.0688417,-1.78954,0.0439857,0.176468,0.0146725,-0.00217048,0.0306461,0.000955162,-0.109367,0.202586,-0.208272,-0.00111841,0,0,0,0,0,0,0,0.66608,-34.0462,0.211195,36.2424,2.17498,3.86895,-0.0767973,
-0.0535093,-0.0598679,0.0734037,-1.7958,0.0784148,0.132943,0.0149952,0.0893505,0.00125085,0.0926005,-0.0983033,0.778904,-0.870213,0.00368199,6.25244,4.11816,6.34898,-10.6524,22.1659,-18.3261,0.191192,21.6093,4.93423,22.1354,-18.4645,10.6854,-14.1827,0.0727061,-0.0582324,-0.0576996,0.0685795,-1.7902,0.0606187,0.163272,0.0146692,-0.00942799,0.139626,-0.0167244,-0.0142022,0.877753,-0.640301,0.00090335,-0.907189,13.6224,-2.20994,11.8957,84.396,-54.0037,0.25272,5.73627,-41.1119,5.06318,26.0822,3.83026,-0.799326,-0.0905302,
-0.0524205,-0.059613,0.0745245,-1.7972,0.0860835,0.125551,0.0150341,0.0987004,0.00737226,0.102099,-0.113549,0.814842,-0.880965,0.00391892,5.84364,3.82588,5.93669,-9.52833,22.461,-6.71996,0.14808,20.1966,4.91371,20.7024,-18.0494,10.6854,-14.0341,0.0581779,-0.0582324,-0.0576996,0.0685795,-1.7902,0.0606187,0.163272,0.0146692,-0.00942799,0.139626,-0.0167244,-0.0142022,0.877753,-0.640301,0.00090335,0,0,0,0,0,0,0,5.73627,-41.1119,5.06318,26.0822,3.83026,-0.799326,-0.0905302,
-0.0512954,-0.059327,0.0756822,-1.79864,0.0939754,0.118762,0.0150731,0.107086,0.0130488,0.110623,-0.126746,0.84917,-0.874497,0.00410849,5.24119,3.54786,5.32721,-8.24859,21.4551,4.04193,0.118485,19.0405,4.76537,19.5282,-17.7121,10.6854,-12.4021,0.0486931,-0.0582324,-0.0576996,0.0685795,-1.7902,0.0606187,0.163272,0.0146692,-0.00942799,0.139626,-0.0167244,-0.0142022,0.877753,-0.640301,0.00090335,0,0,0,0,0,0,0,5.73627,-41.1119,5.06318,26.0822,3.83026,-0.799326,-0.0905302,
-0.0540889,-0.0570585,0.0728276,-1.79862,0.0957757,0.125997,0.0148461,0.114676,0.00989367,0.118321,-0.151473,0.865651,-0.890737,0.00384007,4.74386,-1.97198,4.81171,-15.4541,10.3006,-10.15,-0.167764,24.0476,1.54369,24.6128,-25.9999,10.6854,-14.1827,0.041993,-0.0582324,-0.0576996,0.0685795,-1.7902,0.0606187,0.163272,0.0146692,-0.00942799,0.139626,-0.0167244,-0.0142022,0.877753,-0.640301,0.00090335,0,0,0,0,0,0,0,5.73627,-41.1119,5.06318,26.0822,3.83026,-0.799326,-0.0905302,
-0.052854,-0.0570845,0.0740973,-1.80068,0.103444,0.11891,0.0148676,0.122613,0.00726499,0.126401,-0.17281,0.884232,-0.889761,0.00360873,4.96033,-1.64292,5.04982,-13.3357,11.6131,0.61012,-0.144586,22.6064,1.30963,23.1687,-25.8069,10.5809,-13.9162,0.0280946,-0.056891,-0.0569674,0.0705536,-1.79264,0.0917019,0.12718,0.0147,0.104883,-0.0347765,0.131464,-0.140868,1.02715,-1.38129,0.00546654,14.2889,-21.8003,18.5236,-15.8332,18.6742,-92.624,0.570399,20.2922,-35.645,19.9365,18.3578,5.24109,-3.36555,-0.0703886,
-0.0515695,-0.0571065,0.0754182,-1.80278,0.111292,0.112492,0.0148914,0.130204,0.00526123,0.134143,-0.190683,0.903582,-0.872257,0.00348275,4.7441,-1.25235,4.83871,-11.1703,12.0936,10.9402,-0.0787389,21.4486,0.715127,21.9964,-25.5093,10.5809,-12.2747,0.0219475,-0.056891,-0.0569674,0.0705536,-1.79264,0.0917019,0.12718,0.0147,0.104883,-0.0347765,0.131464,-0.140868,1.02715,-1.38129,0.00546654,0,0,0,0,0,0,0,20.2922,-35.645,19.9365,18.3578,5.24109,-3.36555,-0.0703886,
-0.0502543,-0.0571221,0.0767707,-1.80488,0.119283,0.106792,0.0149188,0.137043,0.00381964,0.141128,-0.205217,0.922648,-0.840321,0.00347191,4.27458,-0.900991,4.36528,-9.0837,11.9164,19.9599,-0.0067758,20.4712,0.208671,21.0038,-25.2231,10.5809,-10.5368,0.0184849,-0.056891,-0.0569674,0.0705536,-1.79264,0.0917019,0.12718,0.0147,0.104883,-0.0347765,0.131464,-0.140868,1.02715,-1.38129,0.00546654,0,0,0,0,0,0,0,20.2922,-35.645,19.9365,18.3578,5.24109,-3.36555,-0.0703886,
-0.050139,-0.0580986,0.0774699,-1.8037,0.132051,0.0866044,0.0148207,0.14631,0.0014496,0.150547,-0.223755,0.94269,-0.830448,0.00329659,5.79183,-1.48128,5.88703,-11.5868,12.5263,6.17083,-0.109576,22.5981,2.00636,23.1767,-29.9387,10.5809,-11.9684,0.0215159,-0.056891,-0.0569674,0.0705536,-1.79264,0.0917019,0.12718,0.0147,0.104883,-0.0347765,0.131464,-0.140868,1.02715,-1.38129,0.00546654,0,0,0,0,0,0,0,20.2922,-35.645,19.9365,18.3578,5.24109,-3.36555,-0.0703886,
-0.048664,-0.058109,0.0789847,-1.8061,0.140301,0.0811447,0.0148421,0.153923,0.000899766,0.158308,-0.238788,0.96041,-0.800851,0.00317224,4.75804,-0.343646,4.85075,-9.39513,11.075,18.4983,-0.0777175,21.5609,1.89962,22.1256,-29.5126,10.5012,-9.76294,0.0141178,-0.0522247,-0.0556503,0.074849,-1.80152,0.127633,0.0767545,0.0147303,0.193754,0.0661853,0.168735,-0.289394,1.08983,-1.52847,0.000443147,11.1089,12.6202,4.65888,-18.5657,7.8358,-18.3972,-0.627924,13.0162,-27.8572,12.962,27.6254,4.64233,0.37438,-0.0703886,
-0.0471934,-0.0580784,0.0804957,-1.80848,0.148603,0.0765073,0.0148667,0.159904,0.00148297,0.16442,-0.250571,0.975876,-0.756615,0.0031522,3.73811,0.364503,3.82027,-7.36446,9.6661,27.6472,-0.012522,20.5972,1.60574,21.1407,-29.1361,10.5012,-8.14244,0.0147872,-0.0522247,-0.0556503,0.074849,-1.80152,0.127633,0.0767545,0.0147303,0.193754,0.0661853,0.168735,-0.289394,1.08983,-1.52847,0.000443147,0,0,0,0,0,0,0,13.0162,-27.8572,12.962,27.6254,4.64233,0.37438,-0.0703886,
-0.0457358,-0.0580172,0.0819937,-1.81084,0.156941,0.072638,0.0148964,0.164362,0.00271696,0.168988,-0.259436,0.989137,-0.702026,0.00326381,2.78664,0.771246,2.85448,-5.54101,8.28849,34.1183,0.0697546,19.7639,1.38726,20.2887,-28.7639,10.5012,-6.71026,0.0181823,-0.0522247,-0.0556503,0.074849,-1.80152,0.127633,0.0767545,0.0147303,0.193754,0.0661853,0.168735,-0.289394,1.08983,-1.52847,0.000443147,0,0,0,0,0,0,0,13.0162,-27.8572,12.962,27.6254,4.64233,0.37438,-0.0703886,
-0.0443796,-0.0546058,0.0829117,-1.81734,0.169757,0.046439,0.0148013,0.170818,0.00690635,0.175656,-0.285017,0.999969,-0.646687,0.00309476,4.03514,2.61837,4.16768,-15.9877,6.77002,34.5866,-0.105659,21.0573,1.7888,21.675,-35.5315,10.5012,-5.56639,0.00810271,-0.0522247,-0.0556503,0.074849,-1.80152,0.127633,0.0767545,0.0147303,0.193754,0.0661853,0.168735,-0.289394,1.08983,-1.52847,0.000443147,0,0,0,0,0,0,0,13.0162,-27.8572,12.962,27.6254,4.64233,0.37438,-0.0703886,
-0.0428313,-0.0544345,0.084505,-1.82037,0.178098,0.0439998,0.0148244,0.175364,0.00980764,0.180357,-0.303694,1.00851,-0.578329,0.00305418,2.84078,1.8133,2.938,-11.6732,5.34077,42.7241,-0.0253583,20.3565,0.830748,20.9785,-34.7512,10.4801,-3.67922,0.0023634,-0.0437898,-0.0577469,0.0843893,-1.81586,0.167264,0.0259806,0.0147523,0.234824,0.0497434,0.363408,-0.407038,1.23062,-1.30487,0.00113331,5.13372,-2.05523,24.3341,-14.7056,17.5989,27.9503,0.0862704,9.23542,-26.8337,9.01063,20.9009,3.50708,0.301138,-0.0767973,
-0.0413133,-0.0542825,0.086067,-1.82332,0.186435,0.0423929,0.0148519,0.17824,0.0116473,0.183337,-0.316776,1.01522,-0.502835,0.00313018,1.79784,1.14981,1.86294,-8.17624,4.19189,47.1834,0.0474976,19.587,0.36748,20.1825,-34.3781,10.4801,-2.45409,0.00669887,-0.0437898,-0.0577469,0.0843893,-1.81586,0.167264,0.0259806,0.0147523,0.234824,0.0497434,0.363408,-0.407038,1.23062,-1.30487,0.00113331,0,0,0,0,0,0,0,9.23542,-26.8337,9.01063,20.9009,3.50708,0.301138,-0.0767973,
-0.0337505,-0.0572462,0.0946891,-1.83477,0.213553,0.0151036,0.0147994,0.187662,0.0118786,0.192899,-0.341233,1.03392,-0.381713,0.00312158,5.88856,0.144545,5.97622,-15.2858,11.6851,75.7011,-0.005378,19.5291,-1.98153,20.0394,-40.5974,10.4801,2.67476,0.00122401,-0.0437898,-0.0577469,0.0843893,-1.81586,0.167264,0.0259806,0.0147523,0.234824,0.0497434,0.363408,-0.407038,1.23062,-1.30487,0.00113331,0,0,0,0,0,0,0,9.23542,-26.8337,9.01063,20.9009,3.50708,0.301138,-0.0767973,
-0.0320334,-0.0571546,0.0964509,-1.83815,0.222288,0.0167753,0.0148345,0.193057,0.0117938,0.198365,-0.357599,1.04552,-0.263578,0.00337408,3.37163,-0.0530131,3.41599,-10.2289,7.25043,73.8347,0.157815,18.8823,-1.83939,19.3702,-40.0667,10.4801,3.41138,0.00921904,-0.0437898,-0.0577469,0.0843893,-1.81586,0.167264,0.0259806,0.0147523,0.234824,0.0497434,0.363408,-0.407038,1.23062,-1.30487,0.00113331,0,0,0,0,0,0,0,9.23542,-26.8337,9.01063,20.9009,3.50708,0.301138,-0.0767973,
-0.0303952,-0.0570756,0.0981325,-1.84142,0.230913,0.0191081,0.0148795,0.195401,0.0114097,0.200732,-0.367855,1.05203,-0.152542,0.00382416,1.4652,-0.240035,1.47929,-6.40969,4.06726,69.3977,0.281303,18.4562,-1.82021,18.9652,-39.1194,10.3874,4.43216,0.014828,-0.0324619,-0.0585036,0.0974655,-1.8366,0.210865,-0.0141977,0.0147594,0.274291,0.046227,0.465213,-0.577725,1.35901,-1.05835,-0.000856443,4.93342,-0.439554,12.7256,-21.3358,16.0485,30.8151,-0.248719,4.64527,-31.4992,3.81349,26.705,2.57873,4.13994,-0.0969389,
-0.0288308,-0.0570089,0.0997388,-1.84459,0.239447,0.0219497,0.0149305,0.195431,0.0107962,0.200743,-0.373533,1.05497,-0.0509937,0.00433302,0.0188502,-0.383434,0.00703373,-3.54882,1.83761,63.4675,0.318034,17.9547,-1.54712,18.4476,-38.5435,10.3874,4.90033,0.0250673,-0.0324619,-0.0585036,0.0974655,-1.8366,0.210865,-0.0141977,0.0147594,0.274291,0.046227,0.465213,-0.577725,1.35901,-1.05835,-0.000856443,0,0,0,0,0,0,0,4.64527,-31.4992,3.81349,26.705,2.57873,4.13994,-0.0969389,
-0.0213074,-0.0574649,0.108942,-1.85852,0.259663,-0.00706172,0.0148542,0.203201,0.0130731,0.208794,-0.396434,1.07176,0.0771467,0.00461298,4.85638,1.42305,5.0316,-14.313,10.4979,80.0878,0.174976,16.7199,-2.83607,17.2513,-44.6094,10.3874,10.654,-0.00248919,-0.0324619,-0.0585036,0.0974655,-1.8366,0.210865,-0.0141977,0.0147594,0.274291,0.046227,0.465213,-0.577725,1.35901,-1.05835,-0.000856443,0,0,0,0,0,0,0,4.64527,-31.4992,3.81349,26.705,2.57873,4.13994,-0.0969389,
-0.0195691,-0.0573182,0.110731,-1.86225,0.268561,-0.0016465,0.0149064,0.206019,0.0141251,0.21175,-0.410264,1.07987,0.197098,0.00499603,1.76121,0.657465,1.84785,-8.6437,5.06689,74.9695,0.239409,16.581,-2.40423,17.0961,-43.956,10.3874,10.6222,0.0205726,-0.0324619,-0.0585036,0.0974655,-1.8366,0.210865,-0.0141977,0.0147594,0.274291,0.046227,0.465213,-0.577725,1.35901,-1.05835,-0.000856443,0,0,0,0,0,0,0,4.64527,-31.4992,3.81349,26.705,2.57873,4.13994,-0.0969389,
-0.0179446,-0.0572007,0.112403,-1.86581,0.277174,0.00420621,0.0149591,0.205428,0.0142372,0.211201,-0.417374,1.07922,0.303996,0.00531408,-0.369762,0.0700856,-0.343526,-4.44416,-0.406666,66.8113,0.198777,16.5396,-2.54047,17.0787,-42.6045,10.2604,10.8998,0.0338531,-0.0192924,-0.0584753,0.112147,-1.8646,0.258654,-0.0338794,0.0147613,0.301868,-0.0937285,0.55459,-0.937631,1.51335,-0.19326,0.000623342,3.44705,-17.4944,11.1721,-44.9883,19.2927,108.136,0.184973,0.741459,-30.1265,-0.137926,24.2136,1.41235,5.41344,-0.0566557,
-0.0163932,-0.0571109,0.113999,-1.86922,0.285052,0.010307,0.0150138,0.203126,0.0136354,0.208875,-0.419108,1.06034,0.395716,0.0056198,-1.43865,-0.376117,-1.45348,-1.08328,-11.7995,57.3251,0.191075,16.2126,-2.14292,16.7334,-41.9699,10.2604,10.7401,0.0501075,-0.0192924,-0.0584753,0.112147,-1.8646,0.258654,-0.0338794,0.0147613,0.301868,-0.0937285,0.55459,-0.937631,1.51335,-0.19326,0.000623342,0,0,0,0,0,0,0,0.741459,-30.1265,-0.137926,24.2136,1.41235,5.41344,-0.0566557,
-0.00737309,-0.0579202,0.12439,-1.88787,0.305365,-0.0166343,0.0149291,0.210733,0.0131496,0.216532,-0.435248,1.02725,0.466802,0.00554409,4.75431,-0.303615,4.78563,-10.0875,-20.6829,44.4288,-0.0473154,13.9599,-4.37497,14.3863,-47.164,10.2604,11.7418,0.0313233,-0.0192924,-0.0584753,0.112147,-1.8646,0.258654,-0.0338794,0.0147613,0.301868,-0.0937285,0.55459,-0.937631,1.51335,-0.19326,0.000623342,0,0,0,0,0,0,0,0.741459,-30.1265,-0.137926,24.2136,1.41235,5.41344,-0.0566557,
-0.00558073,-0.0578648,0.126228,-1.89168,0.311229,-0.009927,0.0149733,0.213395,0.0119037,0.219155,-0.443407,0.968404,0.541124,0.00554097,1.66396,-0.778674,1.6392,-5.0994,-36.777,46.4509,-0.00195198,13.8821,-3.60895,14.2876,-46.4325,9.90093,11.7418,0.0574559,-0.0192924,-0.0584753,0.112147,-1.8646,0.258654,-0.0338794,0.0147613,0.301868,-0.0937285,0.55459,-0.937631,1.51335,-0.19326,0.000623342,0,0,0,0,0,0,0,0.741459,-30.1265,-0.137926,24.2136,1.41235,5.41344,-0.0566557,
-0.00390148,-0.0578362,0.127949,-1.89533,0.31588,-0.0026966,0.0150192,0.212697,0.0102382,0.218362,-0.446079,0.890981,0.613659,0.00558011,-0.435967,-1.04098,-0.495622,-1.66997,-48.3895,45.3345,0.0244622,13.6844,-3.42447,14.1275,-45.2654,8.82426,11.9181,0.0573235,-0.00364139,-0.0593955,0.127437,-1.8973,0.309096,-0.025174,0.0147712,0.262719,-0.174261,0.669507,-1.03886,1.59812,0.739427,-0.00126968,-4.89363,-10.0665,14.3647,-12.6537,10.5956,116.586,-0.236628,-3.01159,-27.8056,-3.56169,20.0281,0.990292,6.15594,-0.0301054,
0.0091942,-0.0590471,0.140628,-1.91792,0.34173,0.00367809,0.0149537,0.220477,0.00961128,0.226271,-0.445592,0.803452,0.666533,0.00554393,4.86211,-0.391809,4.94352,0.30429,-54.7058,33.046,-0.0226156,13.1372,-2.00564,13.6358,-43.7714,4.9359,11.9181,0.0558033,-0.00364139,-0.0593955,0.127437,-1.8973,0.309096,-0.025174,0.0147712,0.262719,-0.174261,0.669507,-1.03886,1.59812,0.739427,-0.00126968,0,0,0,0,0,0,0,-3.01159,-27.8056,-3.56169,20.0281,0.990292,6.15594,-0.0301054,
0.0110321,-0.0590197,0.142513,-1.92135,0.344276,0.0111247,0.0150043,0.222328,0.00837391,0.228133,-0.442214,0.706418,0.719391,0.00569958,1.15727,-0.773359,1.16388,2.111,-60.646,33.0366,0.0972828,13.0301,-1.40128,13.5303,-43.0086,3.4928,11.9181,0.0556526,-0.00364139,-0.0593955,0.127437,-1.8973,0.309096,-0.025174,0.0147712,0.262719,-0.174261,0.669507,-1.03886,1.59812,0.739427,-0.00126968,0,0,0,0,0,0,0,-3.01159,-27.8056,-3.56169,20.0281,0.990292,6.15594,-0.0301054,
0.0127287,-0.0590129,0.144253,-1.92469,0.345914,0.0188985,0.0150604,0.220279,0.00687073,0.226019,-0.437093,0.606084,0.769859,0.00596227,-1.28117,-0.939487,-1.32139,3.20096,-62.7089,31.5423,0.16418,13.0214,-0.905337,13.5154,-42.2578,2.32055,11.9181,0.0549865,-0.00364139,-0.0593955,0.127437,-1.8973,0.309096,-0.025174,0.0147712,0.262719,-0.174261,0.669507,-1.03886,1.59812,0.739427,-0.00126968,0,0,0,0,0,0,0,-3.01159,-27.8056,-3.56169,20.0281,0.990292,6.15594,-0.0301054,
0.0143111,-0.0590194,0.145877,-1.92794,0.346795,0.0269242,0.0151225,0.215782,0.00533242,0.221414,-0.430973,0.506891,0.81653,0.00632378,-2.81041,-0.961439,-2.87838,3.82499,-61.9952,29.1693,0.225945,13.0887,-0.522665,13.5749,-41.5252,1.31548,11.9181,0.0581509,-0.00364139,-0.0593955,0.127437,-1.8973,0.309096,-0.025174,0.0147712,0.262719,-0.174261,0.669507,-1.03886,1.59812,0.739427,-0.00126968,0,0,0,0,0,0,0,-3.01159,-27.8056,-3.56169,20.0281,0.990292,6.15594,-0.0301054,
0.0261156,-0.0568714,0.155313,-1.95149,0.377419,0.0454152,0.0150554,0.222546,0.0101251,0.228301,-0.429421,0.438041,0.837155,0.00649988,4.22773,2.99544,4.3046,0.969838,-43.0315,12.8908,0.110062,13.2164,-0.292487,13.7223,-40.6986,0.408817,11.9305,0.0591147,0.0131298,-0.0589454,0.141977,-1.93156,0.358249,0.0110555,0.0148028,0.317601,-0.12619,0.64165,-1.1497,1.39461,1.29458,0.000522953,6.86029,6.00887,-3.48217,-13.8545,-25.4384,69.3944,0.224079,-3.67016,-33.3717,-3.93462,25.3323,0.27618,4.31298,-0.0566557,
0.0279263,-0.0567113,0.157169,-1.95477,0.377976,0.0530599,0.0151196,0.223303,0.0121041,0.229056,-0.425482,0.364362,0.860842,0.00680282,0.473029,1.23684,0.471764,2.46195,-46.0496,14.8042,0.189339,13.3494,-0.10118,13.8442,-40.0098,-0.25538,11.9305,0.0638207,0.0131298,-0.0589454,0.141977,-1.93156,0.358249,0.0110555,0.0148028,0.317601,-0.12619,0.64165,-1.1497,1.39461,1.29458,0.000522953,0,0,0,0,0,0,0,-3.67016,-33.3717,-3.93462,25.3323,0.27618,4.31298,-0.0566557,
0.029588,-0.0566036,0.158874,-1.95796,0.37796,0.0609444,0.0151881,0.220186,0.0123749,0.22586,-0.420095,0.291095,0.885785,0.00715702,-1.94798,0.169296,-1.99737,3.36645,-45.7918,15.5895,0.221374,13.484,0.0190984,13.9657,-39.3414,-0.751407,11.9305,0.066997,0.0131298,-0.0589454,0.141977,-1.93156,0.358249,0.0110555,0.0148028,0.317601,-0.12619,0.64165,-1.1497,1.39461,1.29458,0.000522953,0,0,0,0,0,0,0,-3.67016,-33.3717,-3.93462,25.3323,0.27618,4.31298,-0.0566557,
0.0311284,-0.0565314,0.160455,-1.96106,0.377508,0.068961,0.0152607,0.214658,0.0117053,0.220212,-0.413656,0.221557,0.909043,0.0075392,-3.45531,-0.418532,-3.52996,4.02495,-43.4609,14.5363,0.238862,13.6123,0.0828157,14.0819,-38.69,-1.14926,11.9305,0.0716351,0.0131298,-0.0589454,0.141977,-1.93156,0.358249,0.0110555,0.0148028,0.317601,-0.12619,0.64165,-1.1497,1.39461,1.29458,0.000522953,0,0,0,0,0,0,0,-3.67016,-33.3717,-3.93462,25.3323,0.27618,4.31298,-0.0566557,
0.0263034,-0.0567033,0.155478,-1.95056,0.37416,0.0447851,0.0151117,0.222041,0.0156428,0.227688,-0.4106,0.196318,0.904051,0.00764129,4.61416,2.46095,4.67215,1.90944,-15.7743,-3.1203,0.0638061,13.3504,0.0138182,13.824,-38.2194,-1.59107,11.7634,0.0824967,0.0296857,-0.0582465,0.156763,-1.96608,0.386838,0.059197,0.0148384,0.576533,-0.0377412,0.318269,-1.04798,0.63154,1.54182,0.000827716,32.3665,11.0561,-40.4226,12.7144,-95.3841,30.9047,0.0380953,-7.1217,-30.3526,-7.06084,24.6103,-0.572513,2.75475,-0.0767973,
0.0281126,-0.0565325,0.157332,-1.95363,0.374322,0.0519051,0.0151808,0.222862,0.016784,0.228489,-0.405128,0.161105,0.901239,0.00784015,0.513218,0.713263,0.500533,3.42026,-22.0085,-1.75714,0.124291,13.4396,0.00668296,13.901,-37.5948,-1.79115,11.7634,0.086249,0.0296857,-0.0582465,0.156763,-1.96608,0.386838,0.059197,0.0148384,0.576533,-0.0377412,0.318269,-1.04798,0.63154,1.54182,0.000827716,0,0,0,0,0,0,0,-7.1217,-30.3526,-7.06084,24.6103,-0.572513,2.75475,-0.0767973,
0.0297571,-0.0564209,0.159017,-1.95659,0.374049,0.0589905,0.0152532,0.219403,0.0162172,0.224936,-0.398223,0.122044,0.898128,0.00808234,-2.16179,-0.35426,-2.22066,4.31542,-24.4128,-1.94464,0.15137,13.5023,-0.0192667,13.9512,-36.9801,-1.89952,11.7634,0.0884369,0.0296857,-0.0582465,0.156763,-1.96608,0.386838,0.059197,0.0148384,0.576533,-0.0377412,0.318269,-1.04798,0.63154,1.54182,0.000827716,0,0,0,0,0,0,0,-7.1217,-30.3526,-7.06084,24.6103,-0.572513,2.75475,-0.0767973,
0.041228,-0.0551288,0.168585,-1.98407,0.390593,0.0934736,0.0151874,0.219077,0.0212633,0.224641,-0.393946,0.0891625,0.875204,0.00824356,-0.203582,3.15381,-0.184189,2.67326,-20.5511,-14.3273,0.100758,13.5513,-0.100776,13.9771,-35.7705,-1.96734,11.0102,0.0924572,0.0296857,-0.0582465,0.156763,-1.96608,0.386838,0.059197,0.0148384,0.576533,-0.0377412,0.318269,-1.04798,0.63154,1.54182,0.000827716,0,0,0,0,0,0,0,-7.1217,-30.3526,-7.06084,24.6103,-0.572513,2.75475,-0.0767973,
0.0428035,-0.0548986,0.170202,-1.98697,0.390007,0.0996311,0.0152612,0.214649,0.0227654,0.220131,-0.387648,0.0566683,0.8541,0.00843872,-2.76781,0.938792,-2.81871,3.93633,-20.3089,-13.1901,0.121978,13.169,-0.0756228,13.5979,-35.4559,-2.06591,10.3481,0.0996025,0.0417207,-0.056822,0.175435,-1.9976,0.398079,0.116259,0.0148829,0.702106,0.0965831,0.179879,-0.847995,0.185241,1.75985,0.00531041,15.6966,16.7905,-17.2987,24.9983,-55.7874,27.2538,0.560337,-7.22088,-32.5981,-8.01299,24.5349,-0.738224,1.19012,-0.083206,
0.044247,-0.0547423,0.171684,-1.98977,0.389252,0.105672,0.0153363,0.207807,0.0221209,0.213143,-0.380166,0.0264686,0.834311,0.00863033,-4.27598,-0.402818,-4.36721,4.67635,-18.8748,-12.3682,0.119757,13.1247,-0.119683,13.5431,-34.8564,-2.0196,9.89579,0.100584,0.0417207,-0.056822,0.175435,-1.9976,0.398079,0.116259,0.0148829,0.702106,0.0965831,0.179879,-0.847995,0.185241,1.75985,0.00531041,0,0,0,0,0,0,0,-7.22088,-32.5981,-8.01299,24.5349,-0.738224,1.19012,-0.083206,
0.0455851,-0.0546396,0.173057,-1.99248,0.388389,0.111586,0.0154123,0.199698,0.0202623,0.204855,-0.372041,-0.000392821,0.815299,0.00880276,-5.06826,-1.16158,-5.18047,5.07782,-16.7884,-11.8824,0.107769,13.0528,-0.161061,13.4614,-34.2575,-1.95964,9.47166,0.101529,0.0417207,-0.056822,0.175435,-1.9976,0.398079,0.116259,0.0148829,0.702106,0.0965831,0.179879,-0.847995,0.185241,1.75985,0.00531041,0,0,0,0,0,0,0,-7.22088,-32.5981,-8.01299,24.5349,-0.738224,1.19012,-0.083206,
0.0522098,-0.0529483,0.186186,-2.01399,0.396877,0.151122,0.0152085,0.198535,0.0252032,0.203726,-0.367767,-0.015156,0.792914,0.00878212,-0.72699,3.08807,-0.705337,2.67134,-9.22698,-13.9904,-0.0128988,12.9546,-0.197614,13.3534,-33.6587,-1.87747,9.07683,0.101572,0.0417207,-0.056822,0.175435,-1.9976,0.398079,0.116259,0.0148829,0.702106,0.0965831,0.179879,-0.847995,0.185241,1.75985,0.00531041,0,0,0,0,0,0,0,-7.22088,-32.5981,-8.01299,24.5349,-0.738224,1.19012,-0.083206,
0.0536161,-0.0527027,0.187631,-2.01669,0.3962,0.156509,0.0152798,0.193984,0.0263016,0.199091,-0.361726,-0.0290469,0.76901,0.00880854,-2.84412,0.686443,-2.89703,3.77582,-8.68183,-14.9401,0.0165108,12.9262,-0.29318,13.3288,-33.2505,-1.74947,8.50211,0.103902,0.0550931,-0.0547551,0.191274,-2.02589,0.399285,0.173777,0.0150851,0.0947024,0.0764945,0.724147,-0.768251,0.0214877,1.64261,0.00445983,-75.9254,-2.51108,68.0336,9.96806,-20.4691,-14.6554,-0.106323,-2.88464,-36.0417,-4.11315,22.5433,0.819088,0.46044,-0.0163725,
0.0549105,-0.052538,0.18896,-2.0193,0.395471,0.161712,0.0153517,0.187548,0.0251593,0.192506,-0.354619,-0.0414741,0.745259,0.0088431,-4.02259,-0.713913,-4.11553,4.442,-7.76701,-14.8444,0.0216018,12.7862,-0.319334,13.1797,-32.6512,-1.65135,8.15687,0.103081,0.0550931,-0.0547551,0.191274,-2.02589,0.399285,0.173777,0.0150851,0.0947024,0.0764945,0.724147,-0.768251,0.0214877,1.64261,0.00445983,0,0,0,0,0,0,0,-2.88464,-36.0417,-4.11315,22.5433,0.819088,0.46044,-0.0163725,
0.0522098,-0.0529483,0.186186,-2.01399,0.396877,0.151122,0.0152085,0.188815,0.0291208,0.193847,-0.353829,-0.048021,0.736882,0.0088144,0.79175,2.47595,0.838241,0.493507,-4.09182,-5.23538,-0.0179416,12.4611,-0.356369,12.8374,-31.4514,-1.45452,7.53024,0.100645,0.0550931,-0.0547551,0.191274,-2.02589,0.399285,0.173777,0.0150851,0.0947024,0.0764945,0.724147,-0.768251,0.0214877,1.64261,0.00445983,0,0,0,0,0,0,0,-2.88464,-36.0417,-4.11315,22.5433,0.819088,0.46044,-0.0163725,
0.0660156,-0.051298,0.202587,-2.04346,0.396099,0.208719,0.0154582,0.183406,0.0281996,0.188302,-0.345421,-0.0513125,0.702335,0.00868626,-3.38075,-0.575729,-3.46559,5.25528,-2.05717,-21.5922,-0.080085,12.2811,-0.367832,12.6494,-30.8511,-1.35966,7.24593,0.0990458,0.0550931,-0.0547551,0.191274,-2.02589,0.399285,0.173777,0.0150851,0.0947024,0.0764945,0.724147,-0.768251,0.0214877,1.64261,0.00445983,0,0,0,0,0,0,0,-2.88464,-36.0417,-4.11315,22.5433,0.819088,0.46044,-0.0163725,
0.0672094,-0.0511696,0.203812,-2.04587,0.395572,0.213075,0.0155237,0.176569,0.0257711,0.181284,-0.336573,-0.0542293,0.670779,0.00858607,-4.27293,-1.51783,-4.38616,5.53006,-1.82298,-19.7222,-0.0626197,12.1721,-0.548115,12.5285,-30.3357,-1.16877,6.80453,0.0981537,0.0727253,-0.053414,0.199064,-2.05246,0.397918,0.224313,0.015161,0.444919,-0.0223638,0.284374,-0.769382,-0.0662843,1.37656,0.000409621,43.777,-12.3573,-54.9717,-0.141392,-10.9715,-33.2556,-0.506276,-2.53155,-32.2768,-2.41118,19.9051,0.91705,-0.328745,0.0101778,
0.0683244,-0.0510888,0.204957,-2.0482,0.395039,0.217306,0.0155886,0.169131,0.0226355,0.173648,-0.327582,-0.0566942,0.642387,0.00849044,-4.6486,-1.95974,-4.77246,5.6193,-1.54054,-17.7452,-0.0597704,11.977,-0.551551,12.3258,-29.7348,-1.08299,6.55454,0.0961116,0.0727253,-0.053414,0.199064,-2.05246,0.397918,0.224313,0.015161,0.444919,-0.0223638,0.284374,-0.769382,-0.0662843,1.37656,0.000409621,0,0,0,0,0,0,0,-2.53155,-32.2768,-2.41118,19.9051,0.91705,-0.328745,0.0101778,
0.0814364,-0.0514346,0.208011,-2.06645,0.39479,0.248155,0.0154478,0.167887,0.0229611,0.17237,-0.321539,-0.0550446,0.609249,0.00823428,-0.777669,0.203457,-0.798778,3.77685,1.03098,-20.7115,-0.160097,11.7768,-0.551409,12.118,-29.1335,-1.00218,6.32079,0.0938539,0.0727253,-0.053414,0.199064,-2.05246,0.397918,0.224313,0.015161,0.444919,-0.0223638,0.284374,-0.769382,-0.0662843,1.37656,0.000409621,0,0,0,0,0,0,0,-2.53155,-32.2768,-2.41118,19.9051,0.91705,-0.328745,0.0101778,
0.0826252,-0.0513056,0.209231,-2.06874,0.394425,0.251847,0.0155062,0.16403,0.0215957,0.168402,-0.31445,-0.0531651,0.579711,0.00804669,-2.41079,-0.853367,-2.48001,4.43065,1.1747,-18.4613,-0.117246,11.573,-0.548686,11.907,-28.5326,-0.928619,6.0998,0.0915178,0.0727253,-0.053414,0.199064,-2.05246,0.397918,0.224313,0.015161,0.444919,-0.0223638,0.284374,-0.769382,-0.0662843,1.37656,0.000409621,0,0,0,0,0,0,0,-2.53155,-32.2768,-2.41118,19.9051,0.91705,-0.328745,0.0101778,
0.0837255,-0.0512229,0.21036,-2.07095,0.394067,0.255453,0.0155643,0.15873,0.0193431,0.162955,-0.306776,-0.0514889,0.553907,0.00789013,-3.31224,-1.40784,-3.40492,4.79603,1.04758,-16.1271,-0.0978506,11.4243,-0.793358,11.7633,-27.9426,-0.766062,5.77799,0.0895266,0.0794499,-0.0523173,0.216219,-2.07744,0.394614,0.265825,0.0152183,0.567521,-0.0520487,0.0702427,-0.753052,-0.118168,1.11305,0.000546855,15.3253,-3.71062,-26.7664,2.04118,-6.48544,-32.9385,0.0171543,-2.73388,-29.0791,-3.78783,19.8019,2.06512,0.560232,0.0101778,
0.0847556,-0.0511735,0.211418,-2.07308,0.39371,0.258985,0.0156215,0.152737,0.0167084,0.156799,-0.298813,-0.0501207,0.531447,0.00774306,-3.74566,-1.6467,-3.84743,4.97666,0.85515,-14.0377,-0.0919188,11.2164,-0.78617,11.5484,-27.342,-0.705649,5.58135,0.0869989,0.0794499,-0.0523173,0.216219,-2.07744,0.394614,0.265825,0.0152183,0.567521,-0.0520487,0.0702427,-0.753052,-0.118168,1.11305,0.000546855,0,0,0,0,0,0,0,-2.73388,-29.0791,-3.78783,19.8019,2.06512,0.560232,0.0101778,
0.087226,-0.0507079,0.224174,-2.09068,0.391098,0.283964,0.0154802,0.15168,0.017781,0.155741,-0.294387,-0.0487595,0.500777,0.00746416,-0.660625,0.670336,-0.660718,2.76644,0.850748,-19.1684,-0.174312,11.0075,-0.777056,11.3326,-26.7415,-0.651435,5.39617,0.0843953,0.0794499,-0.0523173,0.216219,-2.07744,0.394614,0.265825,0.0152183,0.567521,-0.0520487,0.0702427,-0.753052,-0.118168,1.11305,0.000546855,0,0,0,0,0,0,0,-2.73388,-29.0791,-3.78783,19.8019,2.06512,0.560232,0.0101778,
0.0883072,-0.0505879,0.225285,-2.0928,0.390797,0.286951,0.0155313,0.148374,0.0172259,0.152362,-0.28847,-0.0465241,0.475305,0.00724978,-2.06616,-0.346911,-2.11206,3.69786,1.39713,-15.9201,-0.133987,10.7982,-0.766776,11.1166,-26.1415,-0.603907,5.21995,0.0817579,0.0794499,-0.0523173,0.216219,-2.07744,0.394614,0.265825,0.0152183,0.567521,-0.0520487,0.0702427,-0.753052,-0.118168,1.11305,0.000546855,0,0,0,0,0,0,0,-2.73388,-29.0791,-3.78783,19.8019,2.06512,0.560232,0.0101778,
0.0893116,-0.0505097,0.226317,-2.09483,0.390516,0.289914,0.015582,0.143809,0.0157343,0.147685,-0.281637,-0.044243,0.454321,0.00706671,-2.85318,-0.932223,-2.92297,4.2712,1.4257,-13.115,-0.114419,10.5407,-0.807854,10.8479,-25.4423,-0.480695,5.0315,0.0788904,0.0910464,-0.0507697,0.226494,-2.10097,0.390745,0.299795,0.0152694,0.0127274,0.0982074,0.637418,-0.642767,-0.0867188,0.929658,-0.000523668,-69.3492,18.782,70.8969,13.7856,3.93113,-22.9246,-0.133815,0.590702,-32.8243,-0.435472,26.3559,2.46246,0.93743,0.0303194,
0.0902545,-0.0504628,0.227286,-2.09679,0.390241,0.292854,0.0156317,0.13862,0.0137607,0.142368,-0.274265,-0.0422688,0.436936,0.00689617,-3.24302,-1.23351,-3.32367,4.60713,1.23389,-10.8655,-0.106585,10.3316,-0.795561,10.6322,-24.8432,-0.445437,4.87253,0.0762182,0.0910464,-0.0507697,0.226494,-2.10097,0.390745,0.299795,0.0152694,0.0127274,0.0982074,0.637418,-0.642767,-0.0867188,0.929658,-0.000523668,0,0,0,0,0,0,0,0.590702,-32.8243,-0.435472,26.3559,2.46246,0.93743,0.0303194,
0.0986909,-0.0475366,0.234426,-2.11375,0.388306,0.314176,0.0154791,0.139393,0.0188748,0.143136,-0.272271,-0.0394031,0.407582,0.0065958,0.482853,3.19632,0.480555,1.24643,1.79106,-18.3464,-0.187735,10.1227,-0.78237,10.4169,-24.2443,-0.415873,4.72184,0.0735429,0.0910464,-0.0507697,0.226494,-2.10097,0.390745,0.299795,0.0152694,0.0127274,0.0982074,0.637418,-0.642767,-0.0867188,0.929658,-0.000523668,0,0,0,0,0,0,0,0.590702,-32.8243,-0.435472,26.3559,2.46246,0.93743,0.0303194,
0.0997275,-0.0473141,0.235489,-2.11575,0.388099,0.316502,0.0155227,0.137431,0.020661,0.141091,-0.267828,-0.0366951,0.384215,0.00636805,-1.22589,1.11633,-1.27822,2.77665,1.69245,-14.6046,-0.142341,9.91426,-0.76885,10.2021,-23.6461,-0.392384,4.57778,0.0709007,0.0910464,-0.0507697,0.226494,-2.10097,0.390745,0.299795,0.0152694,0.0127274,0.0982074,0.637418,-0.642767,-0.0867188,0.929658,-0.000523668,0,0,0,0,0,0,0,0.590702,-32.8243,-0.435472,26.3559,2.46246,0.93743,0.0303194,
0.100684,-0.047159,0.23647,-2.11765,0.387889,0.318849,0.0155661,0.133856,0.0204059,0.137391,-0.261788,-0.0346126,0.366057,0.00617793,-2.23449,-0.159424,-2.31275,3.77498,1.30156,-11.3485,-0.118825,9.70615,-0.754772,9.98777,-23.0479,-0.374436,4.44101,0.0682808,0.0910464,-0.0507697,0.226494,-2.10097,0.390745,0.299795,0.0152694,0.0127274,0.0982074,0.637418,-0.642767,-0.0867188,0.929658,-0.000523668,0,0,0,0,0,0,0,0.590702,-32.8243,-0.435472,26.3559,2.46246,0.93743,0.0303194,
0.110878,-0.0450728,0.239865,-2.1342,0.385489,0.338387,0.0154876,0.132259,0.0247088,0.13571,-0.257883,-0.0344032,0.339531,0.00589375,-0.998482,2.68931,-1.05029,2.44096,0.130913,-16.5789,-0.177611,9.22637,-0.898527,9.47523,-21.7854,-0.287103,4.14521,0.0631477,0.104232,-0.0484846,0.233048,-2.12236,0.387742,0.327325,0.0153001,0.360229,0.128461,0.193306,-0.579991,-0.0737228,0.732009,0.00113092,43.4377,3.78166,-55.514,7.84711,1.6245,-24.7061,0.206824,-0.349545,-35.2959,-0.260912,29.5694,2.28485,1.99853,-0.0301054,
0.111799,-0.0448326,0.240808,-2.13602,0.385226,0.340301,0.0155259,0.128849,0.0257727,0.132165,-0.251816,-0.0340996,0.319469,0.00567129,-2.13074,0.664942,-2.21585,3.79195,0.189741,-12.5386,-0.139041,9.01911,-0.884289,9.26196,-21.1877,-0.287385,4.0268,0.0607251,0.104232,-0.0484846,0.233048,-2.12236,0.387742,0.327325,0.0153001,0.360229,0.128461,0.193306,-0.579991,-0.0737228,0.732009,0.00113092,0,0,0,0,0,0,0,-0.349545,-35.2959,-0.260912,29.5694,2.28485,1.99853,-0.0301054,
0.112654,-0.0446625,0.241683,-2.13774,0.384951,0.342268,0.0155638,0.124445,0.024871,0.1276,-0.244392,-0.0341581,0.304753,0.00548377,-2.75264,-0.563543,-2.85288,4.63958,-0.0365617,-9.19738,-0.117197,8.81193,-0.869998,9.04881,-20.5896,-0.293451,3.91465,0.0583622,0.104232,-0.0484846,0.233048,-2.12236,0.387742,0.327325,0.0153001,0.360229,0.128461,0.193306,-0.579991,-0.0737228,0.732009,0.00113092,0,0,0,0,0,0,0,-0.349545,-35.2959,-0.260912,29.5694,2.28485,1.99853,-0.0301054,
0.113455,-0.0445446,0.242502,-2.13936,0.384653,0.344282,0.015601,0.119567,0.0228435,0.122555,-0.236166,-0.0347704,0.294169,0.00531754,-3.04885,-1.26717,-3.15364,5.14153,-0.382686,-6.61522,-0.103899,8.60497,-0.856096,8.83597,-19.9912,-0.306443,3.80804,0.0561113,0.104232,-0.0484846,0.233048,-2.12236,0.387742,0.327325,0.0153001,0.360229,0.128461,0.193306,-0.579991,-0.0737228,0.732009,0.00113092,0,0,0,0,0,0,0,-0.349545,-35.2959,-0.260912,29.5694,2.28485,1.99853,-0.0301054,
0.116285,-0.0449723,0.251995,-2.15272,0.384458,0.358726,0.0154762,0.119287,0.0240851,0.12224,-0.231354,-0.0346064,0.273565,0.005068,-0.175214,0.775955,-0.196413,3.00759,0.102509,-12.8775,-0.155957,8.48564,-1.09384,8.71414,-19.317,-0.262775,3.6725,0.053796,0.110021,-0.0472304,0.245613,-2.14211,0.386367,0.35032,0.0153059,0.486747,0.0346401,0.0264678,-0.591122,-0.0194034,0.633349,0.000695527,15.8147,-11.7276,-20.8548,-1.39145,6.78993,-12.3324,-0.0544248,-3.01159,-32.8005,-3.71245,24.3127,1.25305,1.48125,0.00376909,
0.117147,-0.0448097,0.252877,-2.15431,0.384166,0.360341,0.0155093,0.116973,0.0233311,0.119842,-0.224785,-0.0349842,0.259222,0.00488201,-1.44582,-0.471241,-1.49901,4.1055,-0.236131,-8.96429,-0.116249,8.27924,-1.08068,8.50198,-18.717,-0.288913,3.57722,0.0517708,0.110021,-0.0472304,0.245613,-2.14211,0.386367,0.35032,0.0153059,0.486747,0.0346401,0.0264678,-0.591122,-0.0194034,0.633349,0.000695527,0,0,0,0,0,0,0,-3.01159,-32.8005,-3.71245,24.3127,1.25305,1.48125,0.00376909,
0.117942,-0.0446997,0.253691,-2.1558,0.383838,0.362034,0.0155425,0.113464,0.0214167,0.116221,-0.217136,-0.036198,0.249721,0.00473471,-2.19343,-1.1965,-2.26306,4.7803,-0.758617,-5.93843,-0.0920611,8.0734,-1.0679,8.29039,-18.1158,-0.320924,3.4875,0.0498385,0.110021,-0.0472304,0.245613,-2.14211,0.386367,0.35032,0.0153059,0.486747,0.0346401,0.0264678,-0.591122,-0.0194034,0.633349,0.000695527,0,0,0,0,0,0,0,-3.01159,-32.8005,-3.71245,24.3127,1.25305,1.48125,0.00376909,
0.118684,-0.0446293,0.254449,-2.15721,0.383465,0.363792,0.0155755,0.109308,0.0188921,0.111942,-0.208865,-0.0382835,0.243729,0.00461232,-2.59748,-1.5779,-2.67426,5.16951,-1.30345,-3.74501,-0.0764911,7.8686,-1.0559,8.0799,-17.5134,-0.359797,3.40264,0.048076,0.110021,-0.0472304,0.245613,-2.14211,0.386367,0.35032,0.0153059,0.486747,0.0346401,0.0264678,-0.591122,-0.0194034,0.633349,0.000695527,0,0,0,0,0,0,0,-3.01159,-32.8005,-3.71245,24.3127,1.25305,1.48125,0.00376909,
0.116108,-0.0448435,0.251811,-2.15189,0.383886,0.357366,0.0154527,0.109881,0.0213124,0.112508,-0.204939,-0.0410223,0.226129,0.00440525,0.35846,1.51272,0.353613,2.45356,-1.71174,-10.9999,-0.129418,7.69645,-1.29759,7.90989,-16.8418,-0.370282,3.29027,0.0464953,0.117164,-0.0468821,0.255792,-2.15985,0.385981,0.369586,0.0153104,0.146831,-0.0172237,0.3502,-0.501912,-0.0068552,0.552005,0.0018942,-42.4895,-6.48297,40.4665,11.1513,1.56852,-10.1681,0.149834,-2.50378,-30.0273,-3.68468,24.0866,1.05163,1.5545,-0.0365141,
0.116919,-0.0446686,0.252641,-2.15329,0.38344,0.358706,0.0154825,0.108184,0.021424,0.110745,-0.199016,-0.0439707,0.214402,0.00426774,-1.06067,0.0697577,-1.10213,3.70199,-1.84274,-7.32943,-0.0859488,7.49532,-1.28709,7.70308,-16.2362,-0.419717,3.21374,0.0450261,0.117164,-0.0468821,0.255792,-2.15985,0.385981,0.369586,0.0153104,0.146831,-0.0172237,0.3502,-0.501912,-0.0068552,0.552005,0.0018942,0,0,0,0,0,0,0,-2.50378,-30.0273,-3.68468,24.0866,1.05163,1.5545,-0.0365141,
0.117662,-0.0445483,0.2534,-2.1546,0.382952,0.360131,0.0155129,0.105122,0.0201465,0.107585,-0.19183,-0.0473707,0.207153,0.00417436,-1.9137,-0.798428,-1.97486,4.4917,-2.12499,-4.53049,-0.0583577,7.29714,-1.27728,7.49918,-15.6288,-0.472299,3.14017,0.043697,0.117164,-0.0468821,0.255792,-2.15985,0.385981,0.369586,0.0153104,0.146831,-0.0172237,0.3502,-0.501912,-0.0068552,0.552005,0.0018942,0,0,0,0,0,0,0,-2.50378,-30.0273,-3.68468,24.0866,1.05163,1.5545,-0.0365141,
0.122997,-0.0456087,0.261781,-2.16789,0.383547,0.375937,0.0154406,0.105316,0.0192164,0.107755,-0.184286,-0.0489502,0.193879,0.00400753,0.120824,-0.581359,0.106234,4.71471,-0.987218,-8.29615,-0.10427,6.91369,-1.2603,7.10416,-14.409,-0.582247,2.99584,0.0415861,0.117164,-0.0468821,0.255792,-2.15985,0.385981,0.369586,0.0153104,0.146831,-0.0172237,0.3502,-0.501912,-0.0068552,0.552005,0.0018942,0,0,0,0,0,0,0,-2.50378,-30.0273,-3.68468,24.0866,1.05163,1.5545,-0.0365141,
0.123757,-0.0455311,0.262558,-2.16903,0.383075,0.377127,0.0154692,0.103264,0.0173115,0.105635,-0.175873,-0.0509514,0.184855,0.00392153,-1.28258,-1.19054,-1.32496,5.25811,-1.25075,-5.64032,-0.0537485,6.6689,-1.3409,6.84243,-13.7262,-0.614007,2.93356,0.040802,0.12601,-0.045053,0.26284,-2.17522,0.385673,0.384297,0.0153049,-0.0152695,0.106122,0.46928,-0.388278,-0.0164919,0.40026,-4.38731e-05,-20.2625,15.4183,14.8851,14.2042,-1.20459,-18.968,-0.242259,-0.325741,-32.8243,-0.963121,26.6772,0.97839,2.11114,-0.0163725,
0.124448,-0.0454886,0.263264,-2.17008,0.382576,0.378365,0.015499,0.0998759,0.0149128,0.102156,-0.167014,-0.0532411,0.17883,0.00388333,-2.11732,-1.49916,-2.17433,5.53683,-1.43107,-3.76575,-0.0238767,6.49308,-1.33402,6.66055,-13.1131,-0.661051,2.85504,0.0402617,0.12601,-0.045053,0.26284,-2.17522,0.385673,0.384297,0.0153049,-0.0152695,0.106122,0.46928,-0.388278,-0.0164919,0.40026,-4.38731e-05,0,0,0,0,0,0,0,-0.325741,-32.8243,-0.963121,26.6772,0.97839,2.11114,-0.0163725,
0.125082,-0.0454726,0.263913,-2.17106,0.382058,0.379628,0.0155302,0.0957603,0.0123284,0.0979387,-0.15798,-0.0555563,0.174642,0.00388516,-2.57223,-1.6153,-2.63579,5.64605,-1.44696,-2.61739,0.0011404,6.3255,-1.32752,6.48672,-12.4999,-0.699125,2.76965,0.0399222,0.12601,-0.045053,0.26284,-2.17522,0.385673,0.384297,0.0153049,-0.0152695,0.106122,0.46928,-0.388278,-0.0164919,0.40026,-4.38731e-05,0,0,0,0,0,0,0,-0.325741,-32.8243,-0.963121,26.6772,0.97839,2.11114,-0.0163725,
0.131244,-0.0425935,0.268242,-2.18247,0.383113,0.388559,0.0154352,0.0956021,0.0152906,0.0977231,-0.153594,-0.0564704,0.157332,0.00386239,-0.0988957,1.85138,-0.134787,2.7418,-0.571361,-10.8187,-0.0142308,6.16699,-1.32085,6.3218,-11.887,-0.725352,2.67512,0.0399312,0.12601,-0.045053,0.26284,-2.17522,0.385673,0.384297,0.0153049,-0.0152695,0.106122,0.46928,-0.388278,-0.0164919,0.40026,-4.38731e-05,0,0,0,0,0,0,0,-0.325741,-32.8243,-0.963121,26.6772,0.97839,2.11114,-0.0163725,
0.131923,-0.0424488,0.268934,-2.18345,0.382653,0.389306,0.0154679,0.0934638,0.0158508,0.0954852,-0.147413,-0.0566797,0.144545,0.00390617,-1.33642,0.350142,-1.39868,3.86304,-0.130779,-7.99196,0.0273625,6.04104,-1.48999,6.17907,-11.1978,-0.69884,2.55588,0.0401662,0.13514,-0.0437459,0.26784,-2.18816,0.38469,0.395684,0.0153056,0.166767,0.00868772,0.240972,-0.379957,-0.0465976,0.298794,0.00130743,22.7546,-12.1793,-28.5385,1.04008,-3.76321,-12.6833,0.168913,-1.89679,-33.3717,-1.78832,27.3755,1.10016,2.39037,-0.0365141,
0.132538,-0.0423578,0.26956,-2.18434,0.382229,0.390082,0.0154993,0.0901397,0.0149563,0.0920385,-0.14014,-0.0559611,0.135047,0.00391082,-2.07753,-0.559093,-2.15416,4.54573,0.449108,-5.93635,0.00290624,5.89939,-1.4823,6.03042,-10.5896,-0.688537,2.43564,0.0404139,0.13514,-0.0437459,0.26784,-2.18816,0.38469,0.395684,0.0153056,0.166767,0.00868772,0.240972,-0.379957,-0.0465976,0.298794,0.00130743,0,0,0,0,0,0,0,-1.89679,-33.3717,-1.78832,27.3755,1.10016,2.39037,-0.0365141,
0.133102,-0.0423061,0.270135,-2.18514,0.381813,0.390885,0.015532,0.0862179,0.0132574,0.0879905,-0.13223,-0.0551592,0.128091,0.00394495,-2.45118,-1.06181,-2.53,4.94366,0.501213,-4.34741,0.0213343,5.76914,-1.4724,5.89351,-9.98514,-0.666668,2.30482,0.0412655,0.13514,-0.0437459,0.26784,-2.18816,0.38469,0.395684,0.0153056,0.166767,0.00868772,0.240972,-0.379957,-0.0465976,0.298794,0.00130743,0,0,0,0,0,0,0,-1.89679,-33.3717,-1.78832,27.3755,1.10016,2.39037,-0.0365141,
0.139917,-0.0425055,0.272717,-2.19407,0.38225,0.397514,0.0154552,0.0862435,0.0134978,0.0879601,-0.1269,-0.0525501,0.111485,0.00406179,0.0160135,0.150281,-0.0189839,3.33079,1.63065,-10.3787,0.0730214,5.64391,-1.45996,5.76095,-9.38645,-0.617564,2.15813,0.0434062,0.13514,-0.0437459,0.26784,-2.18816,0.38469,0.395684,0.0153056,0.166767,0.00868772,0.240972,-0.379957,-0.0465976,0.298794,0.00130743,0,0,0,0,0,0,0,-1.89679,-33.3717,-1.78832,27.3755,1.10016,2.39037,-0.0365141,
0.140531,-0.0424338,0.27334,-2.19483,0.381967,0.397962,0.0154982,0.0843303,0.012589,0.0859486,-0.12043,-0.0491074,0.100393,0.00432534,-1.19575,-0.56802,-1.25723,4.04391,2.1517,-6.93239,0.164721,5.50952,-1.64014,5.6232,-8.72707,-0.51922,1.99598,0.0451848,0.14068,-0.0435335,0.275203,-2.1997,0.382543,0.404126,0.0153048,0.357027,-0.0465844,0.00656179,-0.345104,-0.0574557,0.244585,0.00057242,23.7825,-6.90902,-29.3013,4.35667,-1.35727,-6.77617,-0.0918764,-2.32922,-29.6782,-2.61351,24.8602,1.47277,2.15142,-0.0301054,
0.141076,-0.0423986,0.273892,-2.19551,0.381775,0.398482,0.0155223,0.0811006,0.0109517,0.0825648,-0.113418,-0.044077,0.093312,0.00406276,-2.01853,-1.02328,-2.11485,4.38261,3.14401,-4.42561,-0.16411,5.34355,-1.6285,5.4481,-8.15517,-0.427586,1.83645,0.0428435,0.14068,-0.0435335,0.275203,-2.1997,0.382543,0.404126,0.0153048,0.357027,-0.0465844,0.00656179,-0.345104,-0.0574557,0.244585,0.00057242,0,0,0,0,0,0,0,-2.32922,-29.6782,-2.61351,24.8602,1.47277,2.15142,-0.0301054,
0.141578,-0.0423866,0.274401,-2.19612,0.381425,0.399148,0.0155449,0.0774188,0.00906116,0.0787855,-0.105972,-0.0440298,0.0912998,0.0038146,-2.30114,-1.18161,-2.36204,4.65371,0.0295237,-1.25762,-0.1551,5.19368,-1.59753,5.29644,-7.58665,-0.447954,1.73441,0.0430802,0.14068,-0.0435335,0.275203,-2.1997,0.382543,0.404126,0.0153048,0.357027,-0.0465844,0.00656179,-0.345104,-0.0574557,0.244585,0.00057242,0,0,0,0,0,0,0,-2.32922,-29.6782,-2.61351,24.8602,1.47277,2.15142,-0.0301054,
0.144931,-0.0431311,0.279492,-2.20433,0.38043,0.405136,0.0154468,0.0771053,0.00817409,0.078446,-0.100458,-0.0441403,0.0820341,0.00377146,-0.195928,-0.554417,-0.212187,3.44657,-0.0690686,-5.79104,-0.0269667,5.04365,-1.55993,5.14124,-7.04084,-0.419473,1.66428,0.0516351,0.14068,-0.0435335,0.275203,-2.1997,0.382543,0.404126,0.0153048,0.357027,-0.0465844,0.00656179,-0.345104,-0.0574557,0.244585,0.00057242,0,0,0,0,0,0,0,-2.32922,-29.6782,-2.61351,24.8602,1.47277,2.15142,-0.0301054,
0.145462,-0.0431219,0.28003,-2.20488,0.380174,0.405562,0.0154754,0.0749555,0.00676928,0.0761996,-0.0942083,-0.0417338,0.0762847,0.00373363,-1.34365,-0.878005,-1.404,3.90576,1.50402,-3.59339,-0.0236418,4.66795,-1.63275,4.74175,-6.41777,-0.284215,1.61345,0.0592305,0.145631,-0.0423858,0.281771,-2.20839,0.38056,0.410689,0.0153041,0.318194,0.0915368,-0.00211933,-0.20448,-0.0451333,0.161603,0.000565969,-4.85409,17.2651,-1.08514,17.5781,1.5403,-10.3728,-0.000806349,-2.22607,-31.9515,-2.83568,28.1491,1.65039,2.40319,-0.0227812,
0.145931,-0.0431358,0.280503,-2.20537,0.379999,0.406015,0.0154933,0.0716823,0.00506901,0.072786,-0.0875286,-0.0377567,0.0723696,0.00343297,-2.04573,-1.06267,-2.13351,4.17484,2.48572,-2.44695,-0.187911,4.25473,-1.67911,4.29565,-5.91087,-0.0970066,1.54225,0.0346661,0.145631,-0.0423858,0.281771,-2.20839,0.38056,0.410689,0.0153041,0.318194,0.0915368,-0.00211933,-0.20448,-0.0451333,0.161603,0.000565969,0,0,0,0,0,0,0,-2.22607,-31.9515,-2.83568,28.1491,1.65039,2.40319,-0.0227812,
0.146358,-0.0431644,0.280937,-2.20579,0.37967,0.406516,0.0155132,0.0680344,0.00333804,0.0690769,-0.0804027,-0.0384152,0.0704096,0.00324452,-2.27997,-1.08186,-2.31817,4.45371,-0.411547,-1.22497,-0.117784,4.06592,-1.64217,4.14858,-5.34508,-0.7166,1.81571,0.0264467,0.145631,-0.0423858,0.281771,-2.20839,0.38056,0.410689,0.0153041,0.318194,0.0915368,-0.00211933,-0.20448,-0.0451333,0.161603,0.000565969,0,0,0,0,0,0,0,-2.22607,-31.9515,-2.83568,28.1491,1.65039,2.40319,-0.0227812,
0.14918,-0.0408471,0.285346,-2.2121,0.379029,0.411477,0.0154072,0.0668959,0.00537988,0.0678966,-0.0766084,-0.0384559,0.059398,0.0032436,-0.711535,1.27615,-0.73771,2.37141,-0.0254407,-6.88229,-0.000570922,4.03313,-1.62132,4.10217,-4.90091,-0.59687,1.67295,0.0411143,0.145631,-0.0423858,0.281771,-2.20839,0.38056,0.410689,0.0153041,0.318194,0.0915368,-0.00211933,-0.20448,-0.0451333,0.161603,0.000565969,0,0,0,0,0,0,0,-2.22607,-31.9515,-2.83568,28.1491,1.65039,2.40319,-0.0227812,
0.149612,-0.0407902,0.285782,-2.21252,0.378904,0.411601,0.0154286,0.0643244,0.0057254,0.0652038,-0.0718063,-0.0339064,0.0506146,0.0031285,-1.60717,0.215949,-1.68298,3.00134,2.84343,-5.48961,-0.0719373,3.79996,-1.59155,3.82935,-4.4696,-0.240901,1.43479,0.0423391,0.145631,-0.0423858,0.281771,-2.20839,0.38056,0.410689,0.0153041,0.318194,0.0915368,-0.00211933,-0.20448,-0.0451333,0.161603,0.000565969,0,0,0,0,0,0,0,-2.22607,-31.9515,-2.83568,28.1491,1.65039,2.40319,-0.0227812,
0.149993,-0.0407706,0.286164,-2.21288,0.378943,0.411729,0.015443,0.0609751,0.00507026,0.0617088,-0.0664079,-0.0261315,0.0437001,0.00286478,-2.09335,-0.409465,-2.18439,3.37396,4.85928,-4.32154,-0.164831,3.60033,-1.71441,3.6,-4.00259,-0.12963,1.27118,0.0269586,0.149983,-0.041276,0.287218,-2.21504,0.379124,0.414335,0.0153004,0.244545,0.0431214,0.00386719,-0.173926,-0.032072,0.0893843,-0.00114607,-9.20617,-6.05193,0.748315,3.81917,1.63267,-9.02729,-0.214005,-1.86902,-33.6733,-2.71269,27.8754,1.63208,2.49566,0.0101778,
0.152866,-0.0403963,0.290112,-2.21775,0.378234,0.41415,0.0153856,0.0589859,0.0052848,0.0596767,-0.0616304,-0.0200571,0.0357931,0.00267602,-1.24327,0.134092,-1.27004,2.98597,3.7965,-4.94186,-0.117975,3.44153,-1.61726,3.47765,-3.10011,-0.646928,1.29923,0.037197,0.149983,-0.041276,0.287218,-2.21504,0.379124,0.414335,0.0153004,0.244545,0.0431214,0.00386719,-0.173926,-0.032072,0.0893843,-0.00114607,0,0,0,0,0,0,0,-1.86902,-33.6733,-2.71269,27.8754,1.63208,2.49566,0.0101778,
0.153219,-0.0403847,0.290467,-2.21803,0.378551,0.414172,0.0153976,0.0560101,0.00451914,0.0566134,-0.0563724,-0.00812344,0.0291789,0.00244132,-1.85986,-0.47854,-1.91461,3.28626,7.45856,-4.13389,-0.146685,3.23361,-1.58511,3.22427,-2.71591,-0.107084,1.03775,0.0341592,0.149983,-0.041276,0.287218,-2.21504,0.379124,0.414335,0.0153004,0.244545,0.0431214,0.00386719,-0.173926,-0.032072,0.0893843,-0.00114607,0,0,0,0,0,0,0,-1.86902,-33.6733,-2.71269,27.8754,1.63208,2.49566,0.0101778,
0.153526,-0.0404016,0.290776,-2.21826,0.379155,0.414149,0.0154033,0.0524936,0.00319123,0.0530098,-0.0508636,0.00859725,0.0227758,0.00209663,-2.19779,-0.829946,-2.25223,3.44298,10.4504,-4.00193,-0.21543,3.10796,-1.58861,3.08468,-2.34719,0.0933952,0.926223,0.0240468,0.149983,-0.041276,0.287218,-2.21504,0.379124,0.414335,0.0153004,0.244545,0.0431214,0.00386719,-0.173926,-0.032072,0.0893843,-0.00114607,0,0,0,0,0,0,0,-1.86902,-33.6733,-2.71269,27.8754,1.63208,2.49566,0.0101778,
0.153803,-0.0404387,0.291054,-2.21844,0.379906,0.414085,0.0154118,0.0489089,0.00162599,0.0493495,-0.045142,0.025661,0.0166089,0.00189045,-2.24042,-0.978274,-2.2877,3.576,10.6648,-3.85432,-0.128864,3.03519,-1.70196,3.0672,-1.92854,-0.207772,1.08882,0.0195041,0.154136,-0.0414932,0.29139,-2.22053,0.378003,0.417172,0.0153033,0.231143,-0.0732894,-0.0113292,-0.170674,-0.00651319,0.0615832,0.000229381,-1.67522,-14.5513,-1.89955,0.406565,3.19485,-3.47514,0.171932,-2.27765,-29.8052,-2.86345,25.0586,1.47277,2.10473,-0.0163725,
0.156883,-0.0420721,0.294131,-2.22221,0.375541,0.419268,0.0153774,0.0486092,-0.000746172,0.0490288,-0.0403657,0.0154656,0.0281824,0.00178557,-0.187313,-1.4826,-0.20042,2.98521,-6.37208,7.23345,-0.0655502,2.96585,-1.83032,2.9918,-1.55352,-1.52291,2.29111,0.0271184,0.154136,-0.0414932,0.29139,-2.22053,0.378003,0.417172,0.0153033,0.231143,-0.0732894,-0.0113292,-0.170674,-0.00651319,0.0615832,0.000229381,0,0,0,0,0,0,0,-2.27765,-29.8052,-2.86345,25.0586,1.47277,2.10473,-0.0163725,
0.157199,-0.0421589,0.294447,-2.22234,0.375708,0.419832,0.0153829,0.0467873,-0.00276826,0.047126,-0.0355804,0.0165635,0.0366475,0.00156623,-1.1387,-1.26381,-1.18928,2.99079,0.686192,5.29064,-0.137088,2.8451,-1.81059,2.84199,-1.28104,-0.91547,1.98083,0.0253086,0.154136,-0.0414932,0.29139,-2.22053,0.378003,0.417172,0.0153033,0.231143,-0.0732894,-0.0113292,-0.170674,-0.00651319,0.0615832,0.000229381,0,0,0,0,0,0,0,-2.27765,-29.8052,-2.86345,25.0586,1.47277,2.10473,-0.0163725,
0.157467,-0.042251,0.294711,-2.22244,0.376206,0.420359,0.0153822,0.0441106,-0.00451623,0.0442909,-0.0308945,0.0257043,0.0424896,0.00123511,-1.67296,-1.09248,-1.77192,2.92872,5.71297,3.65135,-0.206949,2.73095,-1.81361,2.72479,-1.01836,-0.524178,1.73708,0.0167689,0.154136,-0.0414932,0.29139,-2.22053,0.378003,0.417172,0.0153033,0.231143,-0.0732894,-0.0113292,-0.170674,-0.00651319,0.0615832,0.000229381,0,0,0,0,0,0,0,-2.27765,-29.8052,-2.86345,25.0586,1.47277,2.10473,-0.0163725,
0.160634,-0.0405019,0.297513,-2.22515,0.366217,0.429961,0.0154041,0.0451703,-0.00319646,0.0454327,-0.0290204,-0.0448824,0.111428,0.00113892,0.662322,0.824855,0.713648,1.17131,-44.1167,43.0863,-0.0601159,2.67752,-2.19121,2.68898,-0.0914234,-4.94579,6.00356,0.0273502,0.157888,-0.0411299,0.294786,-2.2236,0.377862,0.417953,0.0153008,0.205377,0.0538901,-0.0188749,-0.0566543,-0.00917767,0.00199464,0.000258386,-3.22076,15.8974,-0.943207,14.2524,-0.33306,-7.44857,0.00362565,-2.4284,-30.5034,-3.03801,27.3993,1.57074,2.60186,-0.0365141,
0.160962,-0.0405167,0.297844,-2.22527,0.363886,0.43311,0.0154031,0.0443329,-0.00292713,0.0446391,-0.0261195,-0.0941841,0.167869,0.000885126,-0.523406,0.168332,-0.495995,1.81301,-30.8136,35.2759,-0.158624,2.52345,-2.10491,2.4982,0.149945,-4.18507,5.62045,0.0237115,0.157888,-0.0411299,0.294786,-2.2236,0.377862,0.417953,0.0153008,0.205377,0.0538901,-0.0188749,-0.0566543,-0.00917767,0.00199464,0.000258386,0,0,0,0,0,0,0,-2.4284,-30.5034,-3.03801,27.3993,1.57074,2.60186,-0.0365141,
0.161236,-0.0405576,0.298124,-2.22534,0.361806,0.436269,0.0153982,0.0423235,-0.00336413,0.0426935,-0.0225393,-0.127337,0.213256,0.000585331,-1.25588,-0.273122,-1.21604,2.23763,-20.7205,28.3665,-0.187372,2.42737,-2.08404,2.36706,0.373246,-3.76849,5.39685,0.0142112,0.157888,-0.0411299,0.294786,-2.2236,0.377862,0.417953,0.0153008,0.205377,0.0538901,-0.0188749,-0.0566543,-0.00917767,0.00199464,0.000258386,0,0,0,0,0,0,0,-2.4284,-30.5034,-3.03801,27.3993,1.57074,2.60186,-0.0365141,
0.161476,-0.0406205,0.298367,-2.22536,0.359783,0.439457,0.0153954,0.0398628,-0.00426247,0.0402482,-0.018536,-0.15246,0.250312,0.000398163,-1.5379,-0.561465,-1.52826,2.50209,-15.7018,23.1606,-0.11698,2.28407,-2.06084,2.31544,0.606618,-3.88649,5.42618,0.0104389,0.157888,-0.0411299,0.294786,-2.2236,0.377862,0.417953,0.0153008,0.205377,0.0538901,-0.0188749,-0.0566543,-0.00917767,0.00199464,0.000258386,0,0,0,0,0,0,0,-2.4284,-30.5034,-3.03801,27.3993,1.57074,2.60186,-0.0365141,
0.164428,-0.0400075,0.30132,-2.22658,0.341066,0.451651,0.0156083,0.04604,-0.000637453,0.0463045,-0.017996,-0.313584,0.382976,0.000808098,3.86071,2.26564,3.78515,0.337475,-100.703,82.9146,0.25621,2.42255,-3.30133,2.36799,1.30028,-13.3384,10.9788,0.0661452,0.161035,-0.0406057,0.297987,-2.22549,0.376615,0.421686,0.0153082,0.173424,0.0358527,0.00527966,-0.0484846,-0.218974,0.279977,0.000727715,-3.9941,-2.25468,3.01932,1.02121,-26.2245,34.7478,0.0586662,-2.47998,-33.5979,-2.91106,28.3713,-0.352787,5.30724,-0.103348,
0.164953,-0.0398767,0.301844,-2.22667,0.333857,0.459271,0.0156161,0.049957,0.00275933,0.050125,-0.0165553,-0.431084,0.496878,0.000840152,2.44814,2.12299,2.38783,0.900485,-73.4378,71.189,0.0200335,3.01009,-2.33523,2.9447,1.46881,-11.8997,10.9788,0.0615161,0.161035,-0.0406057,0.297987,-2.22549,0.376615,0.421686,0.0153082,0.173424,0.0358527,0.00527966,-0.0484846,-0.218974,0.279977,0.000727715,0,0,0,0,0,0,0,-2.47998,-33.5979,-2.91106,28.3713,-0.352787,5.30724,-0.103348,
0.165456,-0.039731,0.302344,-2.22671,0.327069,0.467112,0.0156206,0.0525259,0.00584936,0.0526018,-0.0143571,-0.514581,0.593521,0.00078519,1.60557,1.93126,1.54798,1.37383,-52.1853,60.4015,-0.0343512,3.646,-1.53682,3.56514,1.62234,-10.8399,10.9788,0.0476917,0.161035,-0.0406057,0.297987,-2.22549,0.376615,0.421686,0.0153082,0.173424,0.0358527,0.00527966,-0.0484846,-0.218974,0.279977,0.000727715,0,0,0,0,0,0,0,-2.47998,-33.5979,-2.91106,28.3713,-0.352787,5.30724,-0.103348,
0.165953,-0.0395783,0.302836,-2.22671,0.320512,0.475105,0.0156219,0.0544663,0.00849739,0.0543769,-0.011491,-0.575599,0.674652,0.00066129,1.21276,1.65502,1.10947,1.79131,-38.136,50.7072,-0.0774376,4.26497,-0.860596,4.21789,1.78098,-10.3775,10.9788,0.0354172,0.161035,-0.0406057,0.297987,-2.22549,0.376615,0.421686,0.0153082,0.173424,0.0358527,0.00527966,-0.0484846,-0.218974,0.279977,0.000727715,0,0,0,0,0,0,0,-2.47998,-33.5979,-2.91106,28.3713,-0.352787,5.30724,-0.103348,
0.16507,-0.0404533,0.302014,-2.22623,0.33419,0.451592,0.0157279,0.0621928,0.00517641,0.0623882,-0.0108734,-0.713493,0.72191,0.00180248,4.82907,-2.07561,5.00702,0.386051,-86.1838,29.536,0.713244,4.40251,-3.96772,4.50771,1.9369,-13.8179,10.8033,0.0793714,0.164295,-0.0412058,0.301214,-2.22766,0.363048,0.44105,0.0153225,0.119269,-0.0723984,0.0770543,-0.0844893,-0.782602,0.875826,0.00196643,-6.7694,-13.5314,8.97183,-4.50059,-70.4535,74.4811,0.154839,-3.74554,-30.1543,-3.56169,28.645,-1.62995,7.76726,-0.190323,
0.165767,-0.0405308,0.302724,-2.22629,0.324257,0.459182,0.0157734,0.0671778,0.00220188,0.0676427,-0.0100136,-0.819116,0.767262,0.00258044,3.11564,-1.85908,3.28409,0.537328,-66.0145,28.3452,0.486226,5.19001,-3.57137,5.28155,1.98651,-13.8179,10.8033,0.0730794,0.164295,-0.0412058,0.301214,-2.22766,0.363048,0.44105,0.0153225,0.119269,-0.0723984,0.0770543,-0.0844893,-0.782602,0.875826,0.00196643,0,0,0,0,0,0,0,-3.74554,-30.1543,-3.56169,28.645,-1.62995,7.76726,-0.190323,
0.166421,-0.0406104,0.303392,-2.22632,0.314668,0.466981,0.0158123,0.0700714,-0.000226994,0.0708296,-0.00890027,-0.895037,0.808793,0.00303739,1.80848,-1.51804,1.99178,0.695847,-47.4505,25.9565,0.285594,5.85048,-3.34972,5.95094,1.97032,-13.8179,10.8033,0.0656767,0.164295,-0.0412058,0.301214,-2.22766,0.363048,0.44105,0.0153225,0.119269,-0.0723984,0.0770543,-0.0844893,-0.782602,0.875826,0.00196643,0,0,0,0,0,0,0,-3.74554,-30.1543,-3.56169,28.645,-1.62995,7.76726,-0.190323,
0.167893,-0.0422691,0.304791,-2.22744,0.313949,0.47893,0.0157227,0.0723991,-0.00407173,0.0729413,-0.00469593,-0.982584,0.847215,0.00385427,1.45484,-2.40296,1.31983,2.62771,-54.7169,24.0138,0.51055,5.10636,-3.41907,5.15979,2.11742,-13.8179,10.8033,0.0814986,0.164295,-0.0412058,0.301214,-2.22766,0.363048,0.44105,0.0153225,0.119269,-0.0723984,0.0770543,-0.0844893,-0.782602,0.875826,0.00196643,0,0,0,0,0,0,0,-3.74554,-30.1543,-3.56169,28.645,-1.62995,7.76726,-0.190323,
0.168528,-0.0424051,0.305423,-2.22735,0.30316,0.48704,0.0157749,0.0737849,-0.00665811,0.0741522,-0.00130924,-1.05579,0.880535,0.00438918,0.86611,-1.61648,0.756836,2.11668,-45.757,20.8256,0.334317,5.34015,-2.38794,5.35636,1.54438,-13.875,10.4874,0.0940007,0.168331,-0.0405234,0.305703,-2.22931,0.323868,0.483341,0.0153107,0.060329,0.0529648,0.216322,-0.00993759,-1.16368,1.3185,0.000777107,-7.36748,15.6704,17.4085,9.31896,-47.6345,55.3339,-0.148665,-0.551876,-33.2726,-0.911547,28.5974,-0.866398,5.34752,-0.0969389,
0.169136,-0.0425237,0.30603,-2.22727,0.292678,0.49523,0.0158149,0.0742273,-0.00829047,0.0744978,0.000866835,-1.10667,0.909166,0.00451098,0.276515,-1.02023,0.216,1.36005,-31.7976,17.8942,0.0761229,5.70416,-2.0713,5.69005,1.46005,-13.875,10.4874,0.0899537,0.168331,-0.0405234,0.305703,-2.22931,0.323868,0.483341,0.0153107,0.060329,0.0529648,0.216322,-0.00993759,-1.16368,1.3185,0.000777107,0,0,0,0,0,0,0,-0.551876,-33.2726,-0.911547,28.5974,-0.866398,5.34752,-0.0969389,
0.169719,-0.0426191,0.306613,-2.22721,0.282731,0.503466,0.015848,0.0739627,-0.00901928,0.0741903,0.00218439,-1.13401,0.933237,0.00443596,-0.165406,-0.455502,-0.192232,0.823473,-17.0855,15.0442,-0.0468847,5.96208,-1.73617,5.94828,1.43976,-13.875,10.4874,0.0772826,0.168331,-0.0405234,0.305703,-2.22931,0.323868,0.483341,0.0153107,0.060329,0.0529648,0.216322,-0.00993759,-1.16368,1.3185,0.000777107,0,0,0,0,0,0,0,-0.551876,-33.2726,-0.911547,28.5974,-0.866398,5.34752,-0.0969389,
0.172115,-0.0400526,0.309529,-2.22851,0.271549,0.527075,0.0156535,0.0755617,-0.00741008,0.0757537,0.00549757,-1.17628,0.955569,0.00511266,0.999407,1.00575,0.97717,2.07073,-26.4176,13.9575,0.422936,5.48526,-0.287754,5.58593,2.12821,-13.875,10.4874,0.0941566,0.168331,-0.0405234,0.305703,-2.22931,0.323868,0.483341,0.0153107,0.060329,0.0529648,0.216322,-0.00993759,-1.16368,1.3185,0.000777107,0,0,0,0,0,0,0,-0.551876,-33.2726,-0.911547,28.5974,-0.866398,5.34752,-0.0969389,
0.172749,-0.0400712,0.310164,-2.22838,0.260852,0.535378,0.0157084,0.0763089,-0.00639416,0.0764679,0.00765228,-1.20845,0.972038,0.00546263,0.466982,0.634952,0.44635,1.34669,-20.1066,10.2932,0.21873,5.69418,0.223952,5.79585,1.3658,-13.887,10.0706,0.094309,0.173069,-0.0402501,0.310977,-2.22992,0.269112,0.530656,0.0153222,0.0306233,-0.0154961,0.278262,-0.0354103,-1.63402,1.48416,0.00171659,-3.7132,-8.55762,7.7425,-3.18409,-58.7931,20.7077,0.117435,-0.0440639,-34.4707,-0.562425,27.923,-0.738224,4.57757,-0.103348,
0.173357,-0.0400934,0.310773,-2.22829,0.250632,0.543651,0.0157505,0.0762377,-0.00566835,0.0764038,0.00851591,-1.22225,0.984441,0.00542299,-0.0445044,0.453632,-0.0400473,0.539774,-8.63024,7.75204,-0.0247697,6.15003,0.259662,6.21062,1.21752,-13.887,10.0706,0.0924553,0.173069,-0.0402501,0.310977,-2.22992,0.269112,0.530656,0.0153222,0.0306233,-0.0154961,0.278262,-0.0354103,-1.63402,1.48416,0.00171659,0,0,0,0,0,0,0,-0.0440639,-34.4707,-0.562425,27.923,-0.738224,4.57757,-0.103348,
0.173942,-0.0401072,0.31136,-2.22822,0.241071,0.551889,0.0157858,0.0756055,-0.00488047,0.0757888,0.00859777,-1.21683,0.993518,0.00522208,-0.395138,0.49242,-0.384369,0.0511598,3.39303,5.67301,-0.125571,6.49369,0.299389,6.52997,1.07096,-13.887,10.0706,0.0888275,0.173069,-0.0402501,0.310977,-2.22992,0.269112,0.530656,0.0153222,0.0306233,-0.0154961,0.278262,-0.0354103,-1.63402,1.48416,0.00171659,0,0,0,0,0,0,0,-0.0440639,-34.4707,-0.562425,27.923,-0.738224,4.57757,-0.103348,
0.17689,-0.0405655,0.314851,-2.22917,0.216592,0.575695,0.0154643,0.0757683,-0.00528853,0.0760032,0.0113057,-1.19449,0.99563,0.00481552,0.101737,-0.255033,0.133986,1.69247,13.9603,1.31965,-0.254103,6.75612,0.339065,6.77908,0.911821,-13.887,10.0706,0.082538,0.173069,-0.0402501,0.310977,-2.22992,0.269112,0.530656,0.0153222,0.0306233,-0.0154961,0.278262,-0.0354103,-1.63402,1.48416,0.00171659,0,0,0,0,0,0,0,-0.0440639,-34.4707,-0.562425,27.923,-0.738224,4.57757,-0.103348,
0.17746,-0.0406145,0.315425,-2.22895,0.208537,0.583016,0.015488,0.0748796,-0.00545551,0.0751512,0.0145859,-1.15697,0.979521,0.00444495,-0.55544,-0.104364,-0.532526,2.05009,23.4504,-10.0677,-0.231607,6.97538,0.40266,6.99143,0.745592,-13.5748,10.0706,0.0756129,0.173069,-0.0402501,0.310977,-2.22992,0.269112,0.530656,0.0153222,0.0306233,-0.0154961,0.278262,-0.0354103,-1.63402,1.48416,0.00171659,0,0,0,0,0,0,0,-0.0440639,-34.4707,-0.562425,27.923,-0.738224,4.57757,-0.103348,
0.178001,-0.0406613,0.315969,-2.22869,0.201227,0.58959,0.0155098,0.0734289,-0.00553327,0.0737242,0.0180696,-1.10832,0.947973,0.00410039,-0.906639,-0.0485976,-0.891867,2.1773,30.4065,-19.7176,-0.215348,6.84331,0.834093,6.85384,0.295452,-12.2883,9.73662,0.0723805,0.177854,-0.0397997,0.316379,-2.23028,0.209248,0.583478,0.0153288,0.00964887,0.0140771,0.296202,0.00387303,-1.79882,1.59162,0.000618967,-2.62181,3.69665,2.24243,4.91042,-20.5998,13.4332,-0.137203,1.2215,-30.8009,0.588087,27.0026,0.324703,3.32512,-0.0301054,
0.178521,-0.0407074,0.316492,-2.22841,0.194617,0.595425,0.0155291,0.0717396,-0.00558078,0.0720485,0.0214189,-1.0519,0.904265,0.00376167,-1.05584,-0.0296968,-1.04733,2.09333,35.2647,-27.3176,-0.211697,6.97401,1.04589,6.98092,0.174267,-11.1977,9.72213,0.0684306,0.177854,-0.0397997,0.316379,-2.23028,0.209248,0.583478,0.0153288,0.00964887,0.0140771,0.296202,0.00387303,-1.79882,1.59162,0.000618967,0,0,0,0,0,0,0,1.2215,-30.8009,0.588087,27.0026,0.324703,3.32512,-0.0301054,
0.181155,-0.0401218,0.31975,-2.22867,0.167943,0.622154,0.0152905,0.0705587,-0.00698834,0.0708654,0.026438,-0.992308,0.861427,0.00327476,-0.738066,-0.879724,-0.739381,3.13696,37.2417,-26.7736,-0.304323,7.0308,1.30787,7.04066,0.0873507,-10.1928,8.33035,0.0643036,0.177854,-0.0397997,0.316379,-2.23028,0.209248,0.583478,0.0153288,0.00964887,0.0140771,0.296202,0.00387303,-1.79882,1.59162,0.000618967,0,0,0,0,0,0,0,1.2215,-30.8009,0.588087,27.0026,0.324703,3.32512,-0.0301054,
0.181661,-0.0402189,0.320258,-2.2283,0.16259,0.626878,0.0153009,0.0691146,-0.00801898,0.069405,0.030249,-0.927667,0.807235,0.00288046,-0.902555,-0.644154,-0.912791,2.38187,40.4009,-33.8699,-0.246435,7.02826,1.56794,7.04372,0.0300157,-9.28725,7.10907,0.0607563,0.177854,-0.0397997,0.316379,-2.23028,0.209248,0.583478,0.0153288,0.00964887,0.0140771,0.296202,0.00387303,-1.79882,1.59162,0.000618967,0,0,0,0,0,0,0,1.2215,-30.8009,0.588087,27.0026,0.324703,3.32512,-0.0301054,
0.182155,-0.0403089,0.320754,-2.22795,0.157822,0.630897,0.0153099,0.0676464,-0.00866481,0.0679172,0.0329407,-0.861323,0.746251,0.00252896,-0.917603,-0.403641,-0.929844,1.68231,41.4653,-38.1155,-0.219686,6.87774,1.82768,6.88878,0.0746328,-8.25838,5.82443,0.0579616,0.182849,-0.039088,0.321276,-2.23025,0.150386,0.639391,0.0153398,-0.00010029,0.0283532,0.285829,0.00703118,-1.61364,1.61484,0.000886026,-1.21865,1.78451,-1.29657,0.394769,23.1475,2.90201,0.0333824,2.16175,-31.4278,1.48866,25.5823,2.5238,2.19811,-0.0429228,
0.185805,-0.0395318,0.324299,-2.22784,0.120662,0.669047,0.0151926,0.0662901,-0.0107641,0.0665156,0.0375879,-0.785891,0.684477,0.00196815,-0.847738,-1.31206,-0.875991,2.90452,47.1445,-38.6087,-0.350508,6.61827,2.13146,6.64027,0.0129759,-6.80555,4.0147,0.0485578,0.182849,-0.039088,0.321276,-2.23025,0.150386,0.639391,0.0153398,-0.00010029,0.0283532,0.285829,0.00703118,-1.61364,1.61484,0.000886026,0,0,0,0,0,0,0,2.16175,-31.4278,1.48866,25.5823,2.5238,2.19811,-0.0429228,
0.186282,-0.0396742,0.324775,-2.22743,0.117284,0.671847,0.0151916,0.0649365,-0.012173,0.0651155,0.0402207,-0.713186,0.617571,0.00154821,-0.84598,-0.880571,-0.875114,1.64551,45.4411,-41.816,-0.262461,6.44748,2.21164,6.47369,-0.0134384,-6.17121,3.26581,0.0432869,0.182849,-0.039088,0.321276,-2.23025,0.150386,0.639391,0.0153398,-0.00010029,0.0283532,0.285829,0.00703118,-1.61364,1.61484,0.000886026,0,0,0,0,0,0,0,2.16175,-31.4278,1.48866,25.5823,2.5238,2.19811,-0.0429228,
0.186751,-0.0398007,0.325245,-2.22707,0.114307,0.67407,0.0151902,0.0636969,-0.0129001,0.0638372,0.0412799,-0.644968,0.54962,0.00120258,-0.774769,-0.454397,-0.798889,0.661961,42.6361,-42.4692,-0.216021,6.26253,2.25173,6.2921,-0.0386923,-5.59676,2.60762,0.0381138,0.182849,-0.039088,0.321276,-2.23025,0.150386,0.639391,0.0153398,-0.00010029,0.0283532,0.285829,0.00703118,-1.61364,1.61484,0.000886026,0,0,0,0,0,0,0,2.16175,-31.4278,1.48866,25.5823,2.5238,2.19811,-0.0429228,
0.187217,-0.0399096,0.32571,-2.22674,0.11167,0.675809,0.0151876,0.0625939,-0.0130416,0.062706,0.0411525,-0.581888,0.483176,0.000897816,-0.689359,-0.0884349,-0.706992,-0.0796192,39.4248,-41.5276,-0.190476,6.63524,1.90145,6.64649,0.385523,-4.70406,1.97028,0.0304038,0.187618,-0.0386701,0.324296,-2.22946,0.105378,0.686272,0.0153383,-0.00927161,0.00713238,0.219347,0.0405989,-1.07837,1.13549,0.00223013,-1.14642,-2.6526,-8.31027,4.19597,66.9083,-59.9191,0.168014,2.76874,-30.2773,2.31386,23.8644,2.24823,1.20934,-0.0703886,
0.190218,-0.0394152,0.326934,-2.22695,0.0867364,0.704795,0.0151964,0.0616755,-0.0146331,0.0617388,0.0431686,-0.524877,0.433122,0.000520089,-0.573986,-0.994703,-0.604523,1.26005,35.6319,-31.2836,-0.236079,6.44284,1.88278,6.45589,0.362111,-4.23605,1.47108,0.0255988,0.187618,-0.0386701,0.324296,-2.22946,0.105378,0.686272,0.0153383,-0.00927161,0.00713238,0.219347,0.0405989,-1.07837,1.13549,0.00223013,0,0,0,0,0,0,0,2.76874,-30.2773,2.31386,23.8644,2.24823,1.20934,-0.0703886,
0.190675,-0.0395626,0.32739,-2.2266,0.0846677,0.706154,0.0151894,0.06078,-0.0153918,0.0608043,0.0434628,-0.471618,0.380458,0.000239663,-0.559666,-0.474192,-0.584067,0.183912,33.2866,-32.9153,-0.175266,6.25318,1.84463,6.26739,0.339703,-3.81476,1.04059,0.0210189,0.187618,-0.0386701,0.324296,-2.22946,0.105378,0.686272,0.0153383,-0.00927161,0.00713238,0.219347,0.0405989,-1.07837,1.13549,0.00223013,0,0,0,0,0,0,0,2.76874,-30.2773,2.31386,23.8644,2.24823,1.20934,-0.0703886,
0.191128,-0.0396874,0.327842,-2.22629,0.0828461,0.707107,0.0151822,0.0599444,-0.0154332,0.0599421,0.0425224,-0.422835,0.328195,1.20688e-05,-0.522282,-0.0258539,-0.538853,-0.587747,30.4895,-32.6646,-0.142246,6.0682,1.79228,6.08303,0.318445,-3.43837,0.670335,0.0168824,0.187618,-0.0386701,0.324296,-2.22946,0.105378,0.686272,0.0153383,-0.00927161,0.00713238,0.219347,0.0405989,-1.07837,1.13549,0.00223013,0,0,0,0,0,0,0,2.76874,-30.2773,2.31386,23.8644,2.24823,1.20934,-0.0703886,
0.192599,-0.0391535,0.330075,-2.22498,0.0648155,0.723909,0.0152047,0.0589626,-0.0157556,0.0589228,0.0419518,-0.374539,0.280567,-0.000252878,-0.6136,-0.201516,-0.637114,-0.356615,30.1853,-29.7673,-0.165592,6.11029,1.47421,6.11563,0.467468,-2.59268,0.0279198,0.00825114,0.190255,-0.0384552,0.327713,-2.22714,0.0760224,0.714313,0.0153254,-0.00650438,0.00763876,0.166282,0.0804884,-0.661795,0.64067,0.000471504,0.345904,0.0632972,-6.63317,4.98618,52.0724,-61.8522,-0.219829,5.20465,-28.6308,4.71406,23.5153,1.43066,1.64696,-0.0429228,
0.193034,-0.0392682,0.330509,-2.22471,0.0635453,0.724303,0.0151947,0.0580521,-0.0154724,0.0579865,0.0403462,-0.331385,0.234288,-0.000452318,-0.569052,0.177004,-0.585135,-1.00355,26.9711,-28.9242,-0.12465,5.94612,1.40394,5.95095,0.450391,-2.32522,-0.197041,0.00519378,0.190255,-0.0384552,0.327713,-2.22714,0.0760224,0.714313,0.0153254,-0.00650438,0.00763876,0.166282,0.0804884,-0.661795,0.64067,0.000471504,0,0,0,0,0,0,0,5.20465,-28.6308,4.71406,23.5153,1.43066,1.64696,-0.0429228,
0.193465,-0.0393613,0.330939,-2.22448,0.0624224,0.724438,0.0151847,0.057206,-0.014705,0.0571258,0.0380734,-0.293181,0.190825,-0.000612366,-0.528839,0.479626,-0.537966,-1.42048,23.878,-27.1646,-0.10003,5.7892,1.33318,5.79327,0.434891,-2.08807,-0.385343,0.00253909,0.190255,-0.0384552,0.327713,-2.22714,0.0760224,0.714313,0.0153254,-0.00650438,0.00763876,0.166282,0.0804884,-0.661795,0.64067,0.000471504,0,0,0,0,0,0,0,5.20465,-28.6308,4.71406,23.5153,1.43066,1.64696,-0.0429228,
0.193891,-0.0394343,0.331364,-2.22428,0.0614242,0.724369,0.0151745,0.056406,-0.0135895,0.0563201,0.0354128,-0.259499,0.150931,-0.000746758,-0.500001,0.697191,-0.503587,-1.66285,21.0509,-24.9336,-0.0839955,5.63938,1.26389,5.64251,0.420904,-1.8771,-0.540667,0.000169201,0.190255,-0.0384552,0.327713,-2.22714,0.0760224,0.714313,0.0153254,-0.00650438,0.00763876,0.166282,0.0804884,-0.661795,0.64067,0.000471504,0,0,0,0,0,0,0,5.20465,-28.6308,4.71406,23.5153,1.43066,1.64696,-0.0429228,
0.192421,-0.0392877,0.329897,-2.22494,0.0673295,0.722535,0.0151574,0.0551971,-0.0148952,0.0550751,0.0362559,-0.231708,0.132049,-0.000942902,-0.755579,-0.816096,-0.778076,0.526934,17.3692,-11.8013,-0.12259,5.64515,1.13956,5.65249,0.433825,-1.60455,-0.722714,-0.00218922,0.192509,-0.0389655,0.331214,-2.22458,0.0572261,0.73006,0.0153151,0.00321723,-0.0311536,0.17456,0.0837137,-0.423317,0.310285,-0.000410323,1.2152,-4.84904,1.03482,0.403166,29.8099,-41.298,-0.110228,4.44294,-28.1072,3.56355,22.345,1.21002,1.37505,-0.0365141,
0.19282,-0.039423,0.330295,-2.22467,0.0664958,0.722695,0.0151449,0.0541402,-0.0152987,0.0539944,0.0356909,-0.206211,0.109642,-0.00106514,-0.660538,-0.252186,-0.675466,-0.353155,15.936,-14.0043,-0.0763969,5.50824,1.07658,5.51438,0.422826,-1.43892,-0.825501,-0.00397408,0.192509,-0.0389655,0.331214,-2.22458,0.0572261,0.73006,0.0153151,0.00321723,-0.0311536,0.17456,0.0837137,-0.423317,0.310285,-0.000410323,0,0,0,0,0,0,0,4.44294,-28.1072,3.56355,22.345,1.21002,1.37505,-0.0365141,
0.193216,-0.0395329,0.330689,-2.22444,0.0657605,0.722634,0.0151331,0.0532105,-0.0149861,0.0530527,0.0341886,-0.183351,0.0861892,-0.00114825,-0.581052,0.195374,-0.58854,-0.938927,14.2876,-14.6581,-0.0519428,5.37707,1.01777,5.38193,0.413263,-1.29278,-0.907853,-0.00547093,0.192509,-0.0389655,0.331214,-2.22458,0.0572261,0.73006,0.0153151,0.00321723,-0.0311536,0.17456,0.0837137,-0.423317,0.310285,-0.000410323,0,0,0,0,0,0,0,4.44294,-28.1072,3.56355,22.345,1.21002,1.37505,-0.0365141,
0.193608,-0.0396194,0.33108,-2.22425,0.0651047,0.722403,0.0151214,0.0523732,-0.0141511,0.052213,0.0321068,-0.163076,0.0631888,-0.00120951,-0.523356,0.521893,-0.524848,-1.30112,12.6715,-14.3753,-0.0382921,5.25116,0.963635,5.25469,0.404977,-1.16323,-0.971851,-0.00677942,0.192509,-0.0389655,0.331214,-2.22458,0.0572261,0.73006,0.0153151,0.00321723,-0.0311536,0.17456,0.0837137,-0.423317,0.310285,-0.000410323,0,0,0,0,0,0,0,4.44294,-28.1072,3.56355,22.345,1.21002,1.37505,-0.0365141,
0.194976,-0.0401192,0.333694,-2.22273,0.0521234,0.733485,0.0151697,0.0527467,-0.0153185,0.0525791,0.0320709,-0.144419,0.050136,-0.00132139,0.233436,-0.729606,0.228821,-0.0224572,11.6607,-8.15795,-0.0699237,5.20882,0.866364,5.21862,0.405139,-1.00943,-1.03754,-0.00788503,0.195226,-0.0395064,0.334511,-2.22224,0.0487988,0.735573,0.0153156,0.0638419,-0.0202652,0.127355,0.0660963,-0.168441,0.0685203,0.00153679,7.57809,1.36105,-5.9006,-2.20218,31.8594,-30.2206,0.24339,3.17737,-28.3809,2.01234,22.5949,0.0317347,2.4096,-0.083206,
0.195394,-0.0402463,0.334111,-2.22251,0.0516331,0.733284,0.0151568,0.0526492,-0.0154324,0.0524841,0.0310083,-0.127792,0.0350766,-0.00137972,-0.0608918,-0.071222,-0.0593629,-0.664116,10.3921,-9.41218,-0.036454,5.09202,0.821797,5.10042,0.399184,-0.908455,-1.07358,-0.00880506,0.195226,-0.0395064,0.334511,-2.22224,0.0487988,0.735573,0.0153156,0.0638419,-0.0202652,0.127355,0.0660963,-0.168441,0.0685203,0.00153679,0,0,0,0,0,0,0,3.17737,-28.3809,2.01234,22.5949,0.0317347,2.4096,-0.083206,
0.195798,-0.040345,0.334514,-2.22233,0.051193,0.732941,0.0151446,0.0522371,-0.0148135,0.0520822,0.0292944,-0.113235,0.0194941,-0.00140905,-0.257608,0.386825,-0.251192,-1.07117,9.09783,-9.73901,-0.0183364,4.97911,0.781871,4.9861,0.394284,-0.819746,-1.09941,-0.00953298,0.195226,-0.0395064,0.334511,-2.22224,0.0487988,0.735573,0.0153156,0.0638419,-0.0202652,0.127355,0.0660963,-0.168441,0.0685203,0.00153679,0,0,0,0,0,0,0,3.17737,-28.3809,2.01234,22.5949,0.0317347,2.4096,-0.083206,
0.197915,-0.0402334,0.337203,-2.22105,0.0465714,0.735033,0.0152125,0.0531006,-0.0141331,0.0529595,0.0273933,-0.0980771,0.0048247,-0.00145808,0.539739,0.425228,0.548336,-1.18817,9.47381,-9.16839,-0.0306425,4.76343,0.715438,4.76761,0.387099,-0.672541,-1.12555,-0.0106097,0.195226,-0.0395064,0.334511,-2.22224,0.0487988,0.735573,0.0153156,0.0638419,-0.0202652,0.127355,0.0660963,-0.168441,0.0685203,0.00153679,0,0,0,0,0,0,0,3.17737,-28.3809,2.01234,22.5949,0.0317347,2.4096,-0.083206,
0.198342,-0.0403021,0.337629,-2.22092,0.0462915,0.734514,0.0152001,0.0531424,-0.0130237,0.0530176,0.0252525,-0.085459,-0.00913019,-0.00147584,0.026079,0.693415,0.0362968,-1.33801,7.88636,-8.72181,-0.011098,4.68223,0.662061,4.68812,0.383612,-0.599185,-1.13019,-0.0109662,0.199394,-0.0394916,0.337925,-2.22086,0.0449227,0.735718,0.0153102,0.141817,0.00289009,0.0720949,0.0241067,-0.0876123,-0.0136387,-0.000704244,9.74685,2.89441,-6.90756,-5.24869,10.1036,-10.2699,-0.28013,0.309024,-30.3526,-0.685411,25.7568,-0.334476,3.63,-0.0365141,
0.198747,-0.0403517,0.338034,-2.2208,0.0460271,0.733927,0.0151883,0.052639,-0.0116588,0.052532,0.0230289,-0.0749785,-0.0219754,-0.00147452,-0.314575,0.853068,-0.303515,-1.38973,6.55027,-8.02825,0.000825065,4.58125,0.638699,4.58576,0.381831,-0.546148,-1.12917,-0.0112176,0.199394,-0.0394916,0.337925,-2.22086,0.0449227,0.735718,0.0153102,0.141817,0.00289009,0.0720949,0.0241067,-0.0876123,-0.0136387,-0.000704244,0,0,0,0,0,0,0,0.309024,-30.3526,-0.685411,25.7568,-0.334476,3.63,-0.0365141,
0.199134,-0.0403853,0.338421,-2.22071,0.045776,0.73329,0.015177,0.0517841,-0.0101686,0.0516948,0.0208303,-0.0662584,-0.0335158,-0.00146184,-0.534356,0.931327,-0.523221,-1.37416,5.45008,-7.21278,0.00792424,4.4825,0.618807,4.48564,0.380577,-0.499369,-1.12393,-0.011409,0.199394,-0.0394916,0.337925,-2.22086,0.0449227,0.735718,0.0153102,0.141817,0.00289009,0.0720949,0.0241067,-0.0876123,-0.0136387,-0.000704244,0,0,0,0,0,0,0,0.309024,-30.3526,-0.685411,25.7568,-0.334476,3.63,-0.0365141,
0.202261,-0.0396292,0.340787,-2.22035,0.0439256,0.732987,0.0152156,0.0529095,-0.00856592,0.0528324,0.0185515,-0.056892,-0.0441792,-0.00148698,0.703402,1.0017,0.710992,-1.42423,5.85401,-6.66462,-0.0157132,4.38572,0.60196,4.38751,0.379861,-0.458723,-1.11625,-0.0114947,0.199394,-0.0394916,0.337925,-2.22086,0.0449227,0.735718,0.0153102,0.141817,0.00289009,0.0720949,0.0241067,-0.0876123,-0.0136387,-0.000704244,0,0,0,0,0,0,0,0.309024,-30.3526,-0.685411,25.7568,-0.334476,3.63,-0.0365141,
0.202686,-0.039638,0.341212,-2.22029,0.0437656,0.732265,0.0152038,0.0529593,-0.00707374,0.052891,0.0164996,-0.0495138,-0.0534082,-0.00148356,0.0310949,0.932613,0.036599,-1.28243,4.61135,-5.76811,0.0021359,4.2907,0.587959,4.29116,0.379543,-0.422968,-1.10588,-0.0115431,0.199394,-0.0394916,0.337925,-2.22086,0.0449227,0.735718,0.0153102,0.141817,0.00289009,0.0720949,0.0241067,-0.0876123,-0.0136387,-0.000704244,0,0,0,0,0,0,0,0.309024,-30.3526,-0.685411,25.7568,-0.334476,3.63,-0.0365141,
0.203084,-0.0396392,0.341609,-2.22023,0.0436013,0.731525,0.0151928,0.0523082,-0.00568879,0.0522464,0.0146683,-0.043717,-0.0612319,-0.00146263,-0.406911,0.865595,-0.402863,-1.1446,3.62299,-4.88978,0.0130833,4.2107,0.53536,4.21364,0.393621,-0.385561,-1.08291,-0.0115378,0.2038,-0.0395087,0.341483,-2.22055,0.0436589,0.733882,0.0153093,0.220836,0.00135696,0.0102238,0.00276354,-0.0178323,-0.0911828,0.00077585,9.87741,-0.191641,-7.73389,-2.6679,8.7225,-9.69301,0.185012,-1.64288,-29.9043,-2.16124,26.1575,-0.347294,3.56316,-0.0703886,
0.206808,-0.0394997,0.344475,-2.22037,0.043577,0.729796,0.015227,0.0534368,-0.00430668,0.0533884,0.0126034,-0.0365455,-0.0693872,-0.0014666,0.705366,0.863815,0.713776,-1.29051,4.48223,-5.09708,-0.002483,4.02767,0.518659,4.02803,0.394737,-0.335711,-1.05638,-0.0113298,0.2038,-0.0395087,0.341483,-2.22055,0.0436589,0.733882,0.0153093,0.220836,0.00135696,0.0102238,0.00276354,-0.0178323,-0.0911828,0.00077585,0,0,0,0,0,0,0,-1.64288,-29.9043,-2.16124,26.1575,-0.347294,3.56316,-0.0703886,
0.207231,-0.0394858,0.344897,-2.22034,0.0434902,0.728991,0.0152161,0.0533105,-0.00309756,0.0532698,0.0109251,-0.0314062,-0.0756372,-0.00144541,-0.0789362,0.755703,-0.0741196,-1.04894,3.21206,-3.90625,0.0132468,3.93781,0.512997,3.9369,0.395674,-0.315916,-1.04202,-0.0111736,0.2038,-0.0395087,0.341483,-2.22055,0.0436589,0.733882,0.0153093,0.220836,0.00135696,0.0102238,0.00276354,-0.0178323,-0.0911828,0.00077585,0,0,0,0,0,0,0,-1.64288,-29.9043,-2.16124,26.1575,-0.347294,3.56316,-0.0703886,
0.20762,-0.0394683,0.345286,-2.22031,0.0433836,0.728198,0.0152061,0.05238,-0.00204008,0.0523429,0.00955882,-0.0277901,-0.0803392,-0.00140821,-0.581535,0.660923,-0.579316,-0.853946,2.26002,-2.93874,0.023248,3.84885,0.50874,3.8467,0.396873,-0.299546,-1.02792,-0.0109499,0.2038,-0.0395087,0.341483,-2.22055,0.0436589,0.733882,0.0153093,0.220836,0.00135696,0.0102238,0.00276354,-0.0178323,-0.0911828,0.00077585,0,0,0,0,0,0,0,-1.64288,-29.9043,-2.16124,26.1575,-0.347294,3.56316,-0.0703886,
0.207982,-0.0394477,0.345648,-2.22028,0.0432608,0.727418,0.0151967,0.0509591,-0.00111795,0.0509224,0.00844528,-0.0253019,-0.0837888,-0.00136192,-0.888089,0.576334,-0.887827,-0.695966,1.55514,-2.15602,0.0289331,3.75949,0.457119,3.75645,0.409894,-0.285445,-0.998979,-0.0107963,0.208074,-0.0392303,0.344956,-2.2205,0.0434548,0.730312,0.0153017,0.192686,0.0116035,0.011455,0.00213968,0.000138358,-0.11403,-0.000345952,-3.51876,1.28082,0.153897,-0.0779819,2.24634,-2.85591,-0.140225,-1.38897,-30.9041,-1.53838,26.2051,-0.00488642,3.29857,-0.0301054,
0.210758,-0.0390486,0.347624,-2.22045,0.0435148,0.726003,0.0152321,0.051168,-0.000165301,0.0511316,0.00720365,-0.0217193,-0.0875524,-0.00134215,0.130543,0.595403,0.130755,-0.776014,2.23912,-2.35224,0.0123564,3.67198,0.455145,3.66773,0.411473,-0.274658,-0.984833,-0.0105098,0.208074,-0.0392303,0.344956,-2.2205,0.0434548,0.730312,0.0153017,0.192686,0.0116035,0.011455,0.00213968,0.000138358,-0.11403,-0.000345952,0,0,0,0,0,0,0,-1.38897,-30.9041,-1.53838,26.2051,-0.00488642,3.29857,-0.0301054,
0.211138,-0.0390195,0.348004,-2.22043,0.0434268,0.725205,0.0152228,0.0504252,0.00059443,0.0503849,0.00627313,-0.0195736,-0.0899985,-0.00130417,-0.464224,0.474832,-0.466709,-0.581576,1.34105,-1.5288,0.0237382,3.58505,0.454093,3.5796,0.413182,-0.266109,-0.970274,-0.0102221,0.208074,-0.0392303,0.344956,-2.2205,0.0434548,0.730312,0.0153017,0.192686,0.0116035,0.011455,0.00213968,0.000138358,-0.11403,-0.000345952,0,0,0,0,0,0,0,-1.38897,-30.9041,-1.53838,26.2051,-0.00488642,3.29857,-0.0301054,
0.211488,-0.0389902,0.348353,-2.2204,0.0433143,0.724428,0.0152144,0.0490938,0.00120815,0.0490466,0.00557941,-0.0184715,-0.0914184,-0.00125427,-0.832146,0.383574,-0.83642,-0.433576,0.688835,-0.887475,0.0311855,3.49858,0.453691,3.49196,0.41508,-0.260331,-0.956319,-0.00987731,0.208074,-0.0392303,0.344956,-2.2205,0.0434548,0.730312,0.0153017,0.192686,0.0116035,0.011455,0.00213968,0.000138358,-0.11403,-0.000345952,0,0,0,0,0,0,0,-1.38897,-30.9041,-1.53838,26.2051,-0.00488642,3.29857,-0.0301054,
0.214408,-0.0387521,0.35121,-2.22057,0.0435357,0.722358,0.0152417,0.0492928,0.00172074,0.0492413,0.00480965,-0.0161991,-0.092829,-0.00122367,0.124412,0.320371,0.121707,-0.4811,1.42024,-0.881587,0.0191262,3.32832,0.406614,3.31997,0.440217,-0.255349,-0.910253,-0.00925861,0.21176,-0.0389476,0.348562,-2.22057,0.0434082,0.726572,0.0153074,0.112567,0.0109205,0.0959124,-0.00213812,0.00253662,-0.112748,-0.000134777,-10.0149,-0.0853772,10.5572,-0.534725,0.299783,0.160299,0.0263969,-1.69445,-30.4518,-1.68517,26.828,0.331112,3.13927,-0.0566557,
0.21477,-0.0387228,0.351571,-2.22055,0.0434405,0.721599,0.0152339,0.0484774,0.00210974,0.0484177,0.00429135,-0.0153375,-0.0932542,-0.0011732,-0.509634,0.243122,-0.514759,-0.323941,0.538516,-0.265807,0.0315408,3.24282,0.407579,3.23332,0.442495,-0.256323,-0.895915,-0.00887268,0.21176,-0.0389476,0.348562,-2.22057,0.0434082,0.726572,0.0153074,0.112567,0.0109205,0.0959124,-0.00213812,0.00253662,-0.112748,-0.000134777,0,0,0,0,0,0,0,-1.69445,-30.4518,-1.68517,26.828,0.331112,3.13927,-0.0566557,
0.2151,-0.0386939,0.3519,-2.22053,0.0433114,0.720865,0.015227,0.0470389,0.00241141,0.0469687,0.00395398,-0.0154981,-0.0929391,-0.00111019,-0.899072,0.188543,-0.905658,-0.210855,-0.100376,0.196998,0.0393854,3.1575,0.408716,3.14689,0.444936,-0.259992,-0.881973,-0.00843052,0.21176,-0.0389476,0.348562,-2.22057,0.0434082,0.726572,0.0153074,0.112567,0.0109205,0.0959124,-0.00213812,0.00253662,-0.112748,-0.000134777,0,0,0,0,0,0,0,-1.69445,-30.4518,-1.68517,26.828,0.331112,3.13927,-0.0566557,
0.215405,-0.0386651,0.352204,-2.22051,0.0431519,0.720156,0.0152209,0.045246,0.00264883,0.0451638,0.00374529,-0.0163871,-0.0920737,-0.00104044,-1.12058,0.148387,-1.12804,-0.130431,-0.555607,0.540866,0.0435907,3.07234,0.410045,3.06062,0.447476,-0.265703,-0.867348,-0.00799788,0.21176,-0.0389476,0.348562,-2.22057,0.0434082,0.726572,0.0153074,0.112567,0.0109205,0.0959124,-0.00213812,0.00253662,-0.112748,-0.000134777,0,0,0,0,0,0,0,-1.69445,-30.4518,-1.68517,26.828,0.331112,3.13927,-0.0566557,
0.214339,-0.0387494,0.351139,-2.22058,0.0434635,0.722505,0.0152487,0.0457315,0.00289974,0.0456433,0.00332112,-0.0153414,-0.0923758,-0.00100757,0.303443,0.156818,0.299679,-0.265102,0.653533,-0.18882,0.0205477,2.98508,0.352956,2.97311,0.461396,-0.275739,-0.839767,-0.00759444,0.214233,-0.038666,0.352497,-2.22059,0.0433868,0.722993,0.0153051,-0.00446726,0.0080217,0.175317,0.00273968,0.00185811,-0.111502,-0.000504142,-14.6292,-0.362354,9.92558,0.609724,-0.0848138,0.155719,-0.0461706,-0.0718349,-30.0273,-0.487047,26.3559,0.477596,2.9937,-0.0429228,
0.21468,-0.038719,0.351479,-2.22056,0.0433269,0.721788,0.0152429,0.0451065,0.00308086,0.0450087,0.00308771,-0.0156881,-0.0918355,-0.000952559,-0.390612,0.113205,-0.396648,-0.145887,-0.216673,0.337684,0.0343794,2.90014,0.354384,2.88709,0.464192,-0.286321,-0.824488,-0.00711396,0.214233,-0.038666,0.352497,-2.22059,0.0433868,0.722993,0.0153051,-0.00446726,0.0080217,0.175317,0.00273968,0.00185811,-0.111502,-0.000504142,0,0,0,0,0,0,0,-0.0718349,-30.0273,-0.487047,26.3559,0.477596,2.9937,-0.0429228,
0.214988,-0.0386889,0.351786,-2.22054,0.0431477,0.7211,0.015238,0.0437909,0.00321684,0.0436812,0.00298467,-0.0170304,-0.0906783,-0.000883416,-0.82227,0.0849846,-0.829634,-0.0643994,-0.838956,0.723271,0.0432142,2.81531,0.355739,2.80119,0.467139,-0.299737,-0.80924,-0.00657458,0.214233,-0.038666,0.352497,-2.22059,0.0433868,0.722993,0.0153051,-0.00446726,0.0080217,0.175317,0.00273968,0.00185811,-0.111502,-0.000504142,0,0,0,0,0,0,0,-0.0718349,-30.0273,-0.487047,26.3559,0.477596,2.9937,-0.0429228,
0.216388,-0.038502,0.354665,-2.22055,0.0429736,0.719292,0.0152648,0.0431405,0.00326307,0.0430206,0.00284822,-0.01829,-0.0892836,-0.000814586,-0.406469,0.0288949,-0.4129,-0.0852758,-0.78722,0.87165,0.0430184,2.64608,0.358352,2.62986,0.473366,-0.333503,-0.77669,-0.00545709,0.214233,-0.038666,0.352497,-2.22059,0.0433868,0.722993,0.0153051,-0.00446726,0.0080217,0.175317,0.00273968,0.00185811,-0.111502,-0.000504142,0,0,0,0,0,0,0,-0.0718349,-30.0273,-0.487047,26.3559,0.477596,2.9937,-0.0429228,
0.216679,-0.0384747,0.354955,-2.22053,0.0427409,0.718653,0.0152616,0.0417876,0.0032911,0.0416554,0.00282623,-0.020451,-0.0874122,-0.000733501,-0.845572,0.0175198,-0.853268,-0.0137468,-1.35068,1.16964,0.0506783,2.56009,0.310664,2.5438,0.491826,-0.354383,-0.744871,-0.00496812,0.216356,-0.0384632,0.35579,-2.22064,0.0433513,0.719642,0.0153067,0.0429038,0.00768,0.115409,0.000147646,0.00240566,-0.0945499,0.00115158,5.92139,-0.0427118,-7.48849,-0.324004,0.0684438,2.119,0.206966,1.4278,-30.2297,0.26277,26.6772,0.471188,3.17864,-0.0767973,
0.216943,-0.0384477,0.355217,-2.2205,0.0424673,0.718041,0.0152592,0.0400286,0.00330961,0.039883,0.00287935,-0.0232012,-0.0852261,-0.000645205,-1.09936,0.0115691,-1.10775,0.033201,-1.71884,1.36632,0.0551852,2.47621,0.311805,2.4589,0.495235,-0.376935,-0.727524,-0.0043249,0.216356,-0.0384632,0.35579,-2.22064,0.0433513,0.719642,0.0153067,0.0429038,0.00768,0.115409,0.000147646,0.00240566,-0.0945499,0.00115158,0,0,0,0,0,0,0,1.4278,-30.2297,0.26277,26.6772,0.471188,3.17864,-0.0767973,
0.217184,-0.0384207,0.355457,-2.22047,0.0421583,0.717454,0.0152577,0.0380642,0.00332222,0.0379046,0.00297966,-0.0262845,-0.0828496,-0.000554592,-1.22776,0.00788195,-1.2365,0.0626949,-1.92704,1.48529,0.0566329,2.39289,0.312967,2.37454,0.49873,-0.400739,-0.709361,-0.00369486,0.216356,-0.0384632,0.35579,-2.22064,0.0433513,0.719642,0.0153067,0.0429038,0.00768,0.115409,0.000147646,0.00240566,-0.0945499,0.00115158,0,0,0,0,0,0,0,1.4278,-30.2297,0.26277,26.6772,0.471188,3.17864,-0.0767973,
0.218334,-0.0383081,0.357769,-2.22058,0.0425958,0.716345,0.0152812,0.0377732,0.00327857,0.0376057,0.0029315,-0.0276656,-0.0812206,-0.000492461,-0.181863,-0.0272831,-0.18678,-0.030105,-0.863219,1.01813,0.0388318,2.31034,0.314078,2.29095,0.502336,-0.426073,-0.691444,-0.00300029,0.216356,-0.0384632,0.35579,-2.22064,0.0433513,0.719642,0.0153067,0.0429038,0.00768,0.115409,0.000147646,0.00240566,-0.0945499,0.00115158,0,0,0,0,0,0,0,1.4278,-30.2297,0.26277,26.6772,0.471188,3.17864,-0.0767973,
0.218595,-0.0382839,0.358028,-2.22055,0.0422903,0.715774,0.0152802,0.0367425,0.00322729,0.0365647,0.00297917,-0.0297692,-0.0792511,-0.000419413,-0.644209,-0.0320527,-0.650624,0.0297946,-1.31476,1.23093,0.045655,2.22869,0.282768,2.20654,0.519096,-0.451859,-0.659224,-0.0024042,0.219148,-0.0381727,0.357564,-2.22073,0.0433054,0.716193,0.0153055,0.133426,0.0058692,-0.0113163,-0.00763756,-0.0029168,-0.100809,-0.000287481,11.3153,-0.226349,-15.8407,-0.97315,-0.665308,-0.782444,-0.179883,-0.57568,-30.2535,-1.23686,27.1017,0.245053,3.3709,-0.0365141,
0.21883,-0.0382602,0.358261,-2.22053,0.0419556,0.715226,0.01528,0.0352687,0.00317604,0.0350791,0.00308995,-0.0321851,-0.077103,-0.000340746,-0.921134,-0.0320304,-0.928495,0.0692422,-1.50991,1.34258,0.0491669,2.1486,0.283978,2.12538,0.522874,-0.47692,-0.641838,-0.00166186,0.219148,-0.0381727,0.357564,-2.22073,0.0433054,0.716193,0.0153055,0.133426,0.0058692,-0.0113163,-0.00763756,-0.0029168,-0.100809,-0.000287481,0,0,0,0,0,0,0,-0.57568,-30.2535,-1.23686,27.1017,0.245053,3.3709,-0.0365141,
0.219043,-0.0382368,0.358473,-2.22049,0.0416034,0.714697,0.0152804,0.0335545,0.00312643,0.0333522,0.00324131,-0.0345512,-0.0749135,-0.000262373,-1.07138,-0.0310057,-1.07936,0.0945968,-1.47885,1.36844,0.0489836,2.07034,0.285352,2.046,0.526739,-0.499554,-0.625019,-0.000941547,0.219148,-0.0381727,0.357564,-2.22073,0.0433054,0.716193,0.0153055,0.133426,0.0058692,-0.0113163,-0.00763756,-0.0029168,-0.100809,-0.000287481,0,0,0,0,0,0,0,-0.57568,-30.2535,-1.23686,27.1017,0.245053,3.3709,-0.0365141,
0.220734,-0.0379781,0.359129,-2.22074,0.0421225,0.712876,0.0152992,0.0327938,0.00332921,0.0325795,0.00301475,-0.0354401,-0.0744489,-0.000201979,-0.475425,0.126737,-0.48294,-0.1416,-0.555519,0.290377,0.0377459,1.99445,0.286866,1.96895,0.530598,-0.519462,-0.610816,-0.000165541,0.219148,-0.0381727,0.357564,-2.22073,0.0433054,0.716193,0.0153055,0.133426,0.0058692,-0.0113163,-0.00763756,-0.0029168,-0.100809,-0.000287481,0,0,0,0,0,0,0,-0.57568,-30.2535,-1.23686,27.1017,0.245053,3.3709,-0.0365141,
0.220947,-0.0379474,0.359339,-2.22071,0.0418113,0.712319,0.0153,0.0315616,0.00343093,0.0313331,0.00297094,-0.0361322,-0.0734836,-0.000142602,-0.770137,0.0635771,-0.778991,-0.0273806,-0.432564,0.6033,0.0371106,1.92025,0.259767,1.89142,0.552269,-0.532948,-0.583122,0.000476611,0.221354,-0.0378224,0.359566,-2.22079,0.0431323,0.713064,0.0153085,0.0461103,0.00836937,0.0732926,-0.00207143,-0.00779948,-0.0868988,0.000740327,-10.9145,0.31252,10.5761,0.695766,-0.610336,1.73883,0.128476,-1.13507,-30.4796,-1.28844,27.0026,0.104977,3.32512,-0.0630644,
0.22114,-0.0379189,0.359529,-2.22069,0.0415213,0.711777,0.015301,0.0300616,0.00345613,0.0298174,0.00305516,-0.0361558,-0.0723335,-8.73427e-05,-0.937471,0.0157485,-0.947292,0.0526359,-0.0147412,0.718803,0.0345371,1.85097,0.261567,1.82081,0.556354,-0.538076,-0.573795,0.0012595,0.221354,-0.0378224,0.359566,-2.22079,0.0431323,0.713064,0.0153085,0.0461103,0.00836937,0.0732926,-0.00207143,-0.00779948,-0.0868988,0.000740327,0,0,0,0,0,0,0,-1.13507,-30.4796,-1.28844,27.0026,0.104977,3.32512,-0.0630644,
0.22284,-0.0376377,0.361044,-2.22073,0.0423321,0.710006,0.0153054,0.0294709,0.0034278,0.0292067,0.0031076,-0.0319447,-0.07237,-6.56261e-05,-0.369174,-0.0177071,-0.381671,0.0327785,2.63194,-0.0228095,0.0135729,1.7264,0.266423,1.6932,0.564201,-0.515713,-0.574607,0.00271598,0.221354,-0.0378224,0.359566,-2.22079,0.0431323,0.713064,0.0153085,0.0461103,0.00836937,0.0732926,-0.00207143,-0.00779948,-0.0868988,0.000740327,0,0,0,0,0,0,0,-1.13507,-30.4796,-1.28844,27.0026,0.104977,3.32512,-0.0630644,
0.223032,-0.0376141,0.361232,-2.2207,0.0422944,0.709422,0.0153054,0.0283628,0.00333286,0.0280776,0.00329279,-0.0264975,-0.0724842,-5.20173e-05,-0.692623,-0.0593377,-0.705693,0.115743,3.40449,-0.0713873,0.0085055,1.67272,0.269244,1.63774,0.568884,-0.474135,-0.58133,0.00336426,0.221354,-0.0378224,0.359566,-2.22079,0.0431323,0.713064,0.0153085,0.0461103,0.00836937,0.0732926,-0.00207143,-0.00779948,-0.0868988,0.000740327,0,0,0,0,0,0,0,-1.13507,-30.4796,-1.28844,27.0026,0.104977,3.32512,-0.0630644,
0.223202,-0.0375931,0.3614,-2.22066,0.0423729,0.708826,0.0153053,0.026957,0.00319024,0.0266504,0.00356024,-0.0192352,-0.0728925,-4.36619e-05,-0.878586,-0.0891364,-0.892013,0.167157,4.5389,-0.255164,0.00522209,1.62586,0.271885,1.5889,0.573344,-0.409408,-0.596038,0.00401431,0.221354,-0.0378224,0.359566,-2.22079,0.0431323,0.713064,0.0153085,0.0461103,0.00836937,0.0732926,-0.00207143,-0.00779948,-0.0868988,0.000740327,0,0,0,0,0,0,0,-1.13507,-30.4796,-1.28844,27.0026,0.104977,3.32512,-0.0630644,
0.223356,-0.0375742,0.36155,-2.22062,0.0426014,0.708208,0.015305,0.0254033,0.00302486,0.0250753,0.00388833,-0.00967802,-0.0737747,-4.16564e-05,-0.971052,-0.103358,-0.984407,0.205055,5.97326,-0.551373,0.00125346,1.58524,0.240784,1.54474,0.593595,-0.316118,-0.607524,0.00445136,0.222693,-0.0374789,0.362232,-2.22084,0.0428465,0.710515,0.0153055,0.0160333,0.00777934,0.0958052,-0.00215727,-0.0140134,-0.0681781,-9.51704e-06,-3.75963,-0.073753,2.81408,-0.0107302,-0.776734,2.34009,-0.0937305,0.435978,-30.5272,-0.562425,27.0026,0.123287,3.17864,-0.0365141,
0.224035,-0.0373371,0.363568,-2.22071,0.043542,0.707251,0.0152941,0.0250916,0.00283956,0.0247452,0.00412563,0.00250439,-0.0766222,-7.31005e-05,-0.194821,-0.115815,-0.206341,0.148313,7.61401,-1.77971,-0.0196526,1.55291,0.24848,1.51035,0.592332,-0.263351,-0.690394,0.00483713,0.222693,-0.0374789,0.362232,-2.22084,0.0428465,0.710515,0.0153055,0.0160333,0.00777934,0.0958052,-0.00215727,-0.0140134,-0.0681781,-9.51704e-06,0,0,0,0,0,0,0,0.435978,-30.5272,-0.562425,27.0026,0.123287,3.17864,-0.0365141,
0.224201,-0.0373217,0.363731,-2.22066,0.0441608,0.706511,0.0152922,0.0242326,0.00265464,0.0238685,0.0044569,0.0174721,-0.0797967,-0.00010584,-0.536881,-0.115575,-0.547912,0.207042,9.3548,-1.98402,-0.0204623,1.52868,0.256176,1.48358,0.599931,-0.101147,-0.734077,0.00513845,0.222693,-0.0374789,0.362232,-2.22084,0.0428465,0.710515,0.0153055,0.0160333,0.00777934,0.0958052,-0.00215727,-0.0140134,-0.0681781,-9.51704e-06,0,0,0,0,0,0,0,0.435978,-30.5272,-0.562425,27.0026,0.123287,3.17864,-0.0365141,
0.224348,-0.037309,0.363874,-2.22062,0.045021,0.70574,0.0152913,0.0230496,0.00244174,0.0226682,0.00474508,0.0354824,-0.0831223,-0.000106983,-0.739377,-0.133065,-0.750199,0.180115,11.2565,-2.07853,-0.000714403,1.51202,0.25985,1.46418,0.603682,0.0986034,-0.785911,0.00566123,0.222693,-0.0374789,0.362232,-2.22084,0.0428465,0.710515,0.0153055,0.0160333,0.00777934,0.0958052,-0.00215727,-0.0140134,-0.0681781,-9.51704e-06,0,0,0,0,0,0,0,0.435978,-30.5272,-0.562425,27.0026,0.123287,3.17864,-0.0365141,
0.224242,-0.0373556,0.363771,-2.22058,0.0419191,0.705278,0.0153007,0.0227263,0.00217283,0.0223361,0.00507454,0.0327564,-0.0911205,-0.000136497,-0.202048,-0.168065,-0.207574,0.205912,-1.70374,-4.99886,-0.0184464,1.49336,0.293996,1.44025,0.584382,0.0553123,-1.26019,0.00610211,0.224829,-0.0371619,0.363464,-2.22082,0.0428408,0.707985,0.0153033,0.0891536,0.00767851,-0.00337617,0.00137663,-0.000464286,-0.0732921,-0.000550926,9.14004,-0.012604,-12.3977,0.441737,1.69363,-0.639249,-0.0676761,-0.500302,-30.1781,-0.93535,26.4551,0.404354,2.9406,-0.0163725,
0.226013,-0.0370528,0.364617,-2.22049,0.0467123,0.702161,0.0152864,0.0214005,0.0021747,0.0210019,0.00565857,0.0591018,-0.100754,-0.000255552,-0.828663,0.00116927,-0.833895,0.365014,16.4659,-6.02071,-0.0744092,1.48351,0.329174,1.42857,0.606139,0.374544,-1.32755,0.00640212,0.224829,-0.0371619,0.363464,-2.22082,0.0428408,0.707985,0.0153033,0.0891536,0.00767851,-0.00337617,0.00137663,-0.000464286,-0.0732921,-0.000550926,0,0,0,0,0,0,0,-0.500302,-30.1781,-0.93535,26.4551,0.404354,2.9406,-0.0163725,
0.226126,-0.037045,0.364726,-2.22044,0.0483094,0.701024,0.0152792,0.0199546,0.00193627,0.0195234,0.00579236,0.0872106,-0.109025,-0.000383712,-0.903652,-0.14902,-0.924021,0.0836242,17.568,-5.16948,-0.0800996,1.47584,0.308513,1.41869,0.584327,0.721915,-1.37046,0.00838877,0.224829,-0.0371619,0.363464,-2.22082,0.0428408,0.707985,0.0153033,0.0891536,0.00767851,-0.00337617,0.00137663,-0.000464286,-0.0732921,-0.000550926,0,0,0,0,0,0,0,-0.500302,-30.1781,-0.93535,26.4551,0.404354,2.9406,-0.0163725,
0.22623,-0.0370334,0.364825,-2.22038,0.0500814,0.699877,0.0152746,0.0185552,0.0018388,0.0180958,0.0059136,0.114067,-0.115896,-0.00042318,-0.874663,-0.0609182,-0.892288,0.0757706,16.7851,-4.29462,-0.0246678,1.44587,0.371021,1.38709,0.601765,1.09707,-1.40621,0.00993265,0.224829,-0.0371619,0.363464,-2.22082,0.0428408,0.707985,0.0153033,0.0891536,0.00767851,-0.00337617,0.00137663,-0.000464286,-0.0732921,-0.000550926,0,0,0,0,0,0,0,-0.500302,-30.1781,-0.93535,26.4551,0.404354,2.9406,-0.0163725,
0.226888,-0.0371637,0.366254,-2.22022,0.0490758,0.694199,0.015272,0.0186998,0.00107343,0.0182116,0.00686734,0.125516,-0.1486,-0.000588422,0.0903945,-0.478359,0.0724227,0.596091,7.15611,-20.44,-0.103277,1.72697,0.541494,1.66706,0.471805,0.827148,-3.22286,0.00713173,0.225877,-0.0370628,0.365258,-2.22077,0.0440084,0.704353,0.0153018,-0.002506,-0.00327426,0.0796335,0.000778883,0.0704343,-0.130755,-0.000966989,-11.4575,-1.3691,10.3762,-0.0747187,8.86233,-7.18285,-0.0520079,-0.349545,-29.5552,-0.911547,26.0306,1.06994,2.61559,-0.0026396,
0.227025,-0.0371694,0.366387,-2.22013,0.0506723,0.691897,0.0152585,0.0183904,0.0007144,0.0178841,0.0076571,0.140326,-0.176449,-0.000808635,-0.193352,-0.224393,-0.204694,0.493601,9.25583,-17.4055,-0.137633,1.66829,0.659805,1.61269,0.580177,1.18712,-3.24211,0.00321651,0.225877,-0.0370628,0.365258,-2.22077,0.0440084,0.704353,0.0153018,-0.002506,-0.00327426,0.0796335,0.000778883,0.0704343,-0.130755,-0.000966989,0,0,0,0,0,0,0,-0.349545,-29.5552,-0.911547,26.0306,1.06994,2.61559,-0.0026396,
0.227148,-0.0371882,0.366505,-2.22007,0.0524697,0.689564,0.0152461,0.0178002,0.000103103,0.0172791,0.00771925,0.157195,-0.19947,-0.000955738,-0.368919,-0.382061,-0.378152,0.0388382,10.5432,-14.3881,-0.0919392,1.63787,0.307234,1.57209,0.406555,1.45156,-3.17397,0.0006719,0.225877,-0.0370628,0.365258,-2.22077,0.0440084,0.704353,0.0153018,-0.002506,-0.00327426,0.0796335,0.000778883,0.0704343,-0.130755,-0.000966989,0,0,0,0,0,0,0,-0.349545,-29.5552,-0.911547,26.0306,1.06994,2.61559,-0.0026396,
