xiao-wang007/linearmpc_panda/paper_data/panda_torque_PD_controller_Start_at_0_low_pass_filter/1/trajectory.csv
Commanded Joint 0 Position,Commanded Joint 1 Position,Commanded Joint 2 Position,Commanded Joint 3 Position,Commanded Joint 4 Position,Commanded Joint 5 Position,Commanded Joint 6 Position,Commanded Joint 0 Velocity,Commanded Joint 1 Velocity,Commanded Joint 2 Velocity,Commanded Joint 3 Velocity,Commanded Joint 4 Velocity,Commanded Joint 5 Velocity,Commanded Joint 6 Velocity,Commanded Joint 0 Acceleration,Commanded Joint 1 Acceleration,Commanded Joint 2 Acceleration,Commanded Joint 3 Acceleration,Commanded Joint 4 Acceleration,Commanded Joint 5 Acceleration,Commanded Joint 6 Acceleration,Commanded Joint 0 Torque,Commanded Joint 1 Torque,Commanded Joint 2 Torque,Commanded Joint 3 Torque,Commanded Joint 4 Torque,Commanded Joint 5 Torque,Commanded Joint 6 Torque,Actual Joint 0 Position,Actual Joint 1 Position,Actual Joint 2 Position,Actual Joint 3 Position,Actual Joint 4 Position,Actual Joint 5 Position,Actual Joint 6 Position,Actual Joint 0 Velocity,Actual Joint 1 Velocity,Actual Joint 2 Velocity,Actual Joint 3 Velocity,Actual Joint 4 Velocity,Actual Joint 5 Velocity,Actual Joint 6 Velocity,Actual Joint 0 Acceleration,Actual Joint 1 Acceleration,Actual Joint 2 Acceleration,Actual Joint 3 Acceleration,Actual Joint 4 Acceleration,Actual Joint 5 Acceleration,Actual Joint 6 Acceleration,Actual Joint 0 Torque,Actual Joint 1 Torque,Actual Joint 2 Torque,Actual Joint 3 Torque,Actual Joint 4 Torque,Actual Joint 5 Torque,Actual Joint 6 Torque,
-0.00807238,-0.0981058,0.0678911,-1.8762,-0.003723,0.260277,0.0253382,0.000684534,0.0191644,0.00104268,-0.0344208,-0.00519705,0.0528958,-0.00035986,0.427834,11.9777,0.651674,-21.513,-3.24816,33.0599,-0.224912,0.051909,21.2533,0.351374,-24.4405,-0.585655,1.89075,-0.0241027,-0.00812597,-0.098953,0.0678457,-1.87291,-0.0033985,0.254568,0.0253821,-0.00243026,0.000532965,-0.002358,0.000303033,0.0102171,-0.00116137,-0.000709249,0,0,0,0,0,0,0,0.0828892,-31.6023,-0.435472,27.0779,0.557247,3.29125,-0.00996382,
-0.00815026,-0.098945,0.0678186,-1.87291,-0.00333105,0.254561,0.0253837,0.000417739,0.0153881,0.000690039,-0.0275375,-0.00396349,0.0423069,-0.000280137,-0.166747,-2.36018,-0.2204,4.30209,0.770973,-6.61806,0.0498266,0.0461731,21.694,0.34103,-24.3569,-0.585594,1.63949,-0.0225902,-0.00812597,-0.098953,0.0678457,-1.87291,-0.0033985,0.254568,0.0253821,-0.00243026,0.000532965,-0.002358,0.000303033,0.0102171,-0.00116137,-0.000709249,0,0,0,0,0,0,0,0.0828892,-31.6023,-0.435472,27.0779,0.557247,3.29125,-0.00996382,
-0.00815393,-0.098943,0.0678145,-1.87291,-0.00332893,0.254561,0.0253839,0.000242354,0.0123623,0.000450155,-0.0220326,-0.00311763,0.0338609,-0.000219742,-0.109616,-1.89115,-0.149927,3.44055,0.528665,-5.27876,0.037747,0.0389956,22.2657,0.329317,-24.2488,-0.58476,1.29157,-0.0206235,-0.00812597,-0.098953,0.0678457,-1.87291,-0.0033985,0.254568,0.0253821,-0.00243026,0.000532965,-0.002358,0.000303033,0.0102171,-0.00116137,-0.000709249,0,0,0,0,0,0,0,0.0828892,-31.6023,-0.435472,27.0779,0.557247,3.29125,-0.00996382,
-0.0081566,-0.098941,0.0678116,-1.87291,-0.00332947,0.254563,0.025384,0.00012706,0.00993823,0.000285681,-0.0176288,-0.00250757,0.0271209,-0.000173356,-0.0720585,-1.51503,-0.102797,2.75234,0.38129,-4.21251,0.0289913,0.0330969,22.7898,0.319932,-24.081,-0.582431,0.906051,-0.0186242,-0.00812597,-0.098953,0.0678457,-1.87291,-0.0033985,0.254568,0.0253821,-0.00243026,0.000532965,-0.002358,0.000303033,0.0102171,-0.00116137,-0.000709249,0,0,0,0,0,0,0,0.0828892,-31.6023,-0.435472,27.0779,0.557247,3.29125,-0.00996382,
-0.00828127,-0.097603,0.0677129,-1.87387,-0.00111597,0.255192,0.0253552,-0.00193131,0.0171427,-0.00163927,-0.0177971,0.0333796,0.0103457,-0.000367878,-1.28648,4.50278,-1.20309,-0.105183,22.4295,-10.4845,-0.121577,0.451253,0.183957,0.44399,-0.226515,3.05159,-1.38861,-0.00137073,-0.00812594,-0.0984437,0.0678482,-1.87348,-0.00342124,0.255595,0.0253789,-0.00132802,0.0646377,-0.00575012,-0.0752746,0.00432257,0.14043,-0.00112486,0.13778,8.0131,-0.424015,-9.4472,-0.736816,17.6989,-0.051952,0.0828892,-20.371,-0.288683,15.1721,0.288082,2.52953,-0.00996382,
-0.00835555,-0.0973253,0.0676408,-1.87399,0.000614419,0.25446,0.02535,-0.0034022,0.0206571,-0.00311271,-0.017047,0.0699634,-0.010029,-0.000424526,-0.919306,2.19648,-0.920902,0.468813,22.8649,-12.7342,-0.0354049,0.444996,0.182311,0.437489,-0.224375,3.02548,-1.37632,-0.00131835,-0.00812594,-0.0984437,0.0678482,-1.87348,-0.00342124,0.255595,0.0253789,-0.00132802,0.0646377,-0.00575012,-0.0752746,0.00432257,0.14043,-0.00112486,0,0,0,0,0,0,0,0.0828892,-20.371,-0.288683,15.1721,0.288082,2.52953,-0.00996382,
-0.00841685,-0.0971147,0.0675794,-1.87408,0.00253283,0.253566,0.0253471,-0.00425426,0.0217913,-0.00402436,-0.0159624,0.103931,-0.03036,-0.000411588,-0.532537,0.708914,-0.569781,0.677918,21.2298,-12.7069,0.00808616,0.438579,0.181015,0.430804,-0.222148,3.00003,-1.36394,-0.00129514,-0.00812594,-0.0984437,0.0678482,-1.87348,-0.00342124,0.255595,0.0253789,-0.00132802,0.0646377,-0.00575012,-0.0752746,0.00432257,0.14043,-0.00112486,0,0,0,0,0,0,0,0.0828892,-20.371,-0.288683,15.1721,0.288082,2.52953,-0.00996382,
-0.00846359,-0.0969527,0.0675315,-1.87416,0.00456338,0.25258,0.0253455,-0.00457184,0.0214834,-0.00441761,-0.0147525,0.133909,-0.0489357,-0.000369433,-0.198484,-0.192444,-0.245778,0.75615,18.736,-11.6098,0.0263471,0.432332,0.180023,0.424318,-0.219838,2.97469,-1.35144,-0.0012837,-0.00812594,-0.0984437,0.0678482,-1.87348,-0.00342124,0.255595,0.0253789,-0.00132802,0.0646377,-0.00575012,-0.0752746,0.00432257,0.14043,-0.00112486,0,0,0,0,0,0,0,0.0828892,-20.371,-0.288683,15.1721,0.288082,2.52953,-0.00996382,
-0.00848177,-0.0975919,0.0675572,-1.87351,0.0050103,0.250413,0.0252964,-0.00822165,0.0261858,-0.00756683,-0.0111196,0.236821,-0.123728,-0.00107326,-2.28114,2.93901,-1.96827,2.27056,64.3201,-46.7451,-0.439892,3.61345,1.29408,3.66472,-1.80778,11.0289,-8.27779,-0.00666396,-0.0081327,-0.0954859,0.0679277,-1.87984,-0.0018534,0.260738,0.0253789,-0.00820204,0.0296085,-0.00366357,-0.15746,0.193018,-0.0704689,-0.000738889,-0.859253,-4.37865,0.260818,-10.2732,23.5869,-26.3623,0.048247,0.309024,-28.73,-0.33629,31.3388,1.64398,3.23907,-0.00996382,
-0.00862896,-0.0973362,0.0674189,-1.8735,0.0113762,0.246069,0.0252794,-0.0102571,0.0273414,-0.00951203,-0.00859351,0.348604,-0.207591,-0.00128341,-1.27216,0.722226,-1.21575,1.57882,69.8646,-52.4147,-0.131346,3.54609,1.36181,3.6036,-1.75378,11.0289,-8.14836,-0.00618101,-0.0081327,-0.0954859,0.0679277,-1.87984,-0.0018534,0.260738,0.0253789,-0.00820204,0.0296085,-0.00366357,-0.15746,0.193018,-0.0704689,-0.000738889,0,0,0,0,0,0,0,0.309024,-28.73,-0.33629,31.3388,1.64398,3.23907,-0.00996382,
-0.00872463,-0.0971468,0.0673264,-1.87352,0.018468,0.24112,0.0252703,-0.0105973,0.0266083,-0.00992233,-0.00735169,0.456179,-0.289788,-0.00125309,-0.212602,-0.458183,-0.256442,0.776138,67.2344,-51.3728,0.0189515,3.47574,1.4061,3.5353,-1.70675,11.0289,-8.02089,-0.00575514,-0.0081327,-0.0954859,0.0679277,-1.87984,-0.0018534,0.260738,0.0253789,-0.00820204,0.0296085,-0.00366357,-0.15746,0.193018,-0.0704689,-0.000738889,0,0,0,0,0,0,0,0.309024,-28.73,-0.33629,31.3388,1.64398,3.23907,-0.00996382,
-0.00876659,-0.0969959,0.0672853,-1.87357,0.0260181,0.235794,0.0252656,-0.00952693,0.0250595,-0.0089633,-0.00710113,0.553694,-0.364995,-0.00111973,0.668964,-0.968019,0.599393,0.1566,60.947,-47.0044,0.0833487,3.40434,1.42906,3.46509,-1.66457,11.0289,-7.90452,-0.00547542,-0.0081327,-0.0954859,0.0679277,-1.87984,-0.0018534,0.260738,0.0253789,-0.00820204,0.0296085,-0.00366357,-0.15746,0.193018,-0.0704689,-0.000738889,0,0,0,0,0,0,0,0.309024,-28.73,-0.33629,31.3388,1.64398,3.23907,-0.00996382,
-0.00726945,-0.0946812,0.0688877,-1.88055,0.00618188,0.249277,0.0254964,0.00645409,0.0296916,0.0083815,-0.0127748,0.560722,-0.463057,0.000323679,9.98814,2.89511,10.8405,-3.54607,4.39202,-61.2892,0.902133,24.1079,4.36857,25.0506,-10.8015,11.0289,-14.3362,0.0829622,-0.0081327,-0.0954859,0.0679277,-1.87984,-0.0018534,0.260738,0.0253789,-0.00820204,0.0296085,-0.00366357,-0.15746,0.193018,-0.0704689,-0.000738889,0,0,0,0,0,0,0,0.309024,-28.73,-0.33629,31.3388,1.64398,3.23907,-0.00996382,
-0.00649599,-0.0943567,0.069724,-1.88085,0.0119129,0.241042,0.0255462,0.0244998,0.0318659,0.0276136,-0.0176478,0.591852,-0.576324,0.00150275,11.2786,1.35894,12.02,-3.0456,19.4563,-70.7916,0.736919,22.5478,5.0872,23.6605,-9.55706,10.8992,-14.3544,0.0559641,-0.00843529,-0.0926881,0.0678271,-1.88095,0.0121294,0.251091,0.0253726,-0.0223069,0.128225,-0.0126703,-0.00210774,0.989036,-0.533036,0.00191793,-1.76311,12.327,-1.12584,19.4191,99.5023,-57.8209,0.332102,4.97455,-37.1922,3.91267,24.3881,3.98315,-1.4228,0.017502,
-0.00555502,-0.0941295,0.0707199,-1.88123,0.0183935,0.231906,0.0256578,0.0431241,0.0311733,0.046988,-0.0237626,0.635498,-0.689455,0.0039919,11.6402,-0.432904,12.109,-3.82173,27.2792,-70.7067,1.55572,21.5981,4.37717,22.6784,-8.45671,10.8992,-14.3544,0.0570709,-0.00843529,-0.0926881,0.0678271,-1.88095,0.0121294,0.251091,0.0253726,-0.0223069,0.128225,-0.0126703,-0.00210774,0.989036,-0.533036,0.00191793,0,0,0,0,0,0,0,4.97455,-37.1922,3.91267,24.3881,3.98315,-1.4228,0.017502,
-0.00688251,-0.0917348,0.0693528,-1.88245,0.0259182,0.2376,0.0256048,0.0591083,0.0349082,0.0623616,-0.0401081,0.678608,-0.738815,0.00509161,9.99016,2.33429,9.60853,-10.2159,26.9435,-30.8501,0.687318,32.3942,4.55714,33.1838,-19.0419,10.8992,-14.3544,0.133314,-0.00843529,-0.0926881,0.0678271,-1.88095,0.0121294,0.251091,0.0253726,-0.0223069,0.128225,-0.0126703,-0.00210774,0.989036,-0.533036,0.00191793,0,0,0,0,0,0,0,4.97455,-37.1922,3.91267,24.3881,3.98315,-1.4228,0.017502,
-0.00563337,-0.0914117,0.0706409,-1.8834,0.0328892,0.22904,0.0256857,0.0785151,0.036005,0.0820913,-0.0558318,0.717162,-0.805043,0.00609625,12.1292,0.685542,12.331,-9.82736,24.0964,-41.3927,0.627896,29.5238,5.22076,30.3599,-17.7346,10.8992,-14.3544,0.0511799,-0.00843529,-0.0926881,0.0678271,-1.88095,0.0121294,0.251091,0.0253726,-0.0223069,0.128225,-0.0126703,-0.00210774,0.989036,-0.533036,0.00191793,0,0,0,0,0,0,0,4.97455,-37.1922,3.91267,24.3881,3.98315,-1.4228,0.017502,
-0.00422463,-0.0911843,0.0721053,-1.88449,0.0401697,0.219776,0.0258029,0.0980307,0.034489,0.102285,-0.0720491,0.755743,-0.875639,0.00780753,12.1973,-0.947491,12.621,-10.1358,24.1128,-44.122,1.06955,27.4827,5.09575,28.4378,-17.0335,10.7723,-14.1035,0.0807208,-0.00812085,-0.0891616,0.0690628,-1.8814,0.0442187,0.219156,0.0253744,0.0672281,0.09558,0.145015,-0.0158422,0.97498,-1.27724,0.000234157,11.1919,-4.08057,19.7106,-1.71681,-1.75702,-93.0258,-0.210471,19.7368,-29.4283,19.5358,12.3077,3.09143,-4.43946,0.0303194,
-0.00274189,-0.0910392,0.0736401,-1.88572,0.0478176,0.210017,0.025863,0.115493,0.0312192,0.120196,-0.0882109,0.795792,-0.944479,0.00774896,10.914,-2.04364,11.1947,-10.1012,25.0309,-43.0252,-0.0366041,25.4112,3.19462,26.3676,-17.5059,10.7723,-14.1035,0.139628,-0.00812085,-0.0891616,0.0690628,-1.8814,0.0442187,0.219156,0.0253744,0.0672281,0.09558,0.145015,-0.0158422,0.97498,-1.27724,0.000234157,0,0,0,0,0,0,0,19.7368,-29.4283,19.5358,12.3077,3.09143,-4.43946,0.0303194,
-0.00524976,-0.0888807,0.0720638,-1.88448,0.0589339,0.19996,0.0255025,0.131864,0.0273191,0.137184,-0.112637,0.820275,-0.998595,0.00726265,10.2321,-2.43758,10.6172,-15.2662,15.3018,-33.8229,-0.303941,34.1676,2.33201,35.747,-26.7203,10.7723,-14.1035,0.0673837,-0.00812085,-0.0891616,0.0690628,-1.8814,0.0442187,0.219156,0.0253744,0.0672281,0.09558,0.145015,-0.0158422,0.97498,-1.27724,0.000234157,0,0,0,0,0,0,0,19.7368,-29.4283,19.5358,12.3077,3.09143,-4.43946,0.0303194,
-0.00352074,-0.0888297,0.0738588,-1.88629,0.0664775,0.189945,0.0255565,0.148717,0.023132,0.154621,-0.135344,0.844811,-1.04924,0.00716186,10.5329,-2.61695,10.8981,-14.1921,15.3346,-31.6548,-0.0629948,30.9427,2.67875,32.1899,-25.4619,10.7723,-14.1035,0.0263729,-0.00812085,-0.0891616,0.0690628,-1.8814,0.0442187,0.219156,0.0253744,0.0672281,0.09558,0.145015,-0.0158422,0.97498,-1.27724,0.000234157,0,0,0,0,0,0,0,19.7368,-29.4283,19.5358,12.3077,3.09143,-4.43946,0.0303194,
-0.00174502,-0.0888129,0.0757048,-1.88818,0.0743208,0.179687,0.0255462,0.163367,0.0189256,0.169847,-0.155518,0.871931,-1.09586,0.00547056,9.15597,-2.629,9.5164,-12.6088,16.9501,-29.1345,-1.05706,28.3534,1.73627,29.4259,-25.2997,10.749,-13.7479,0.0574969,-0.00268683,-0.0872165,0.0749497,-1.88676,0.0773091,0.171721,0.0253872,0.179343,0.0757416,0.220553,-0.217242,1.01455,-1.50461,-0.00054601,14.0143,-2.47979,9.44224,-25.175,4.94583,-28.4213,-0.097521,20.6969,-28.8292,20.0595,24.9594,4.44091,-1.80732,0.0303194,
0.00109826,-0.0866221,0.078878,-1.89173,0.0931683,0.150527,0.0253533,0.179549,0.0216823,0.186565,-0.188643,0.896367,-1.13437,0.0039007,10.1138,1.72296,10.4489,-20.703,15.2727,-24.0696,-0.981164,32.5487,3.47035,33.819,-32.0248,10.749,-12.649,-0.0452064,-0.00268683,-0.0872165,0.0749497,-1.88676,0.0773091,0.171721,0.0253872,0.179343,0.0757416,0.220553,-0.217242,1.01455,-1.50461,-0.00054601,0,0,0,0,0,0,0,20.6969,-28.8292,20.0595,24.9594,4.44091,-1.80732,0.0303194,
0.0030722,-0.0863976,0.0809264,-1.89435,0.101307,0.140644,0.0252681,0.192988,0.0229568,0.200463,-0.216482,0.920548,-1.15456,0.000990239,8.39926,0.79653,8.68644,-17.3993,15.1133,-12.6183,-1.81904,29.2225,2.50687,30.3199,-31.647,10.749,-11.972,-0.0350365,-0.00268683,-0.0872165,0.0749497,-1.88676,0.0773091,0.171721,0.0253872,0.179343,0.0757416,0.220553,-0.217242,1.01455,-1.50461,-0.00054601,0,0,0,0,0,0,0,20.6969,-28.8292,20.0595,24.9594,4.44091,-1.80732,0.0303194,
0.00501208,-0.0861744,0.08294,-1.89694,0.10964,0.131095,0.0251299,0.202887,0.0239465,0.210711,-0.238002,0.944763,-1.16236,-0.00266155,6.18714,0.618612,6.40463,-13.4498,15.1341,-4.87811,-2.28237,25.7904,1.72999,26.7172,-31.4749,10.749,-11.4676,-0.109067,-0.00268683,-0.0872165,0.0749497,-1.88676,0.0773091,0.171721,0.0253872,0.179343,0.0757416,0.220553,-0.217242,1.01455,-1.50461,-0.00054601,0,0,0,0,0,0,0,20.6969,-28.8292,20.0595,24.9594,4.44091,-1.80732,0.0303194,
0.00690111,-0.0859532,0.0849013,-1.89955,0.118129,0.122344,0.0249795,0.209535,0.0246855,0.2176,-0.255618,0.968054,-1.14869,-0.00589087,4.15517,0.461885,4.30544,-11.0105,14.5572,8.54707,-2.01833,23.6688,2.24346,24.5427,-30.4239,10.8997,-10.459,-0.170617,0.00732425,-0.087781,0.0868879,-1.89836,0.115429,0.115499,0.0253956,0.343981,0.0125026,0.455573,-0.37129,1.15716,-1.73288,0.000512052,20.5798,-7.90488,29.3776,-19.2559,17.8264,-28.5333,0.132258,15.7537,-27.8056,14.9854,20.4248,4.31274,-1.07124,-0.0301054,
0.0129913,-0.0878009,0.0927831,-1.90541,0.134493,0.0959857,0.0250837,0.235836,0.0197841,0.244888,-0.29307,1.01382,-1.13872,-0.0093659,16.4381,-3.06338,17.0551,-23.4072,28.602,6.22743,-2.1719,28.3661,-0.16672,29.4712,-38.1278,10.8997,-5.95393,-0.148707,0.00732425,-0.087781,0.0868879,-1.89836,0.115429,0.115499,0.0253956,0.343981,0.0125026,0.455573,-0.37129,1.15716,-1.73288,0.000512052,0,0,0,0,0,0,0,15.7537,-27.8056,14.9854,20.4248,4.31274,-1.07124,-0.0301054,
0.0155074,-0.0877565,0.0953953,-1.90885,0.144064,0.088541,0.0248553,0.251573,0.0169371,0.261216,-0.320312,1.05032,-1.0971,-0.0132017,9.8353,-1.77939,10.205,-17.0265,22.8139,26.0169,-2.3974,24.9513,-0.699179,25.882,-37.749,10.8997,-5.3118,-0.217238,0.00732425,-0.087781,0.0868879,-1.89836,0.115429,0.115499,0.0253956,0.343981,0.0125026,0.455573,-0.37129,1.15716,-1.73288,0.000512052,0,0,0,0,0,0,0,15.7537,-27.8056,14.9854,20.4248,4.31274,-1.07124,-0.0301054,
0.0178372,-0.0876943,0.0978145,-1.91222,0.153572,0.082587,0.0246251,0.259502,0.0151039,0.269452,-0.340468,1.07796,-1.02653,-0.0163182,4.95582,-1.14575,5.14782,-12.5974,17.2731,44.1063,-1.94778,22.4863,-0.455559,23.3123,-36.9091,10.8997,-4.82492,-0.267851,0.00732425,-0.087781,0.0868879,-1.89836,0.115429,0.115499,0.0253956,0.343981,0.0125026,0.455573,-0.37129,1.15716,-1.73288,0.000512052,0,0,0,0,0,0,0,15.7537,-27.8056,14.9854,20.4248,4.31274,-1.07124,-0.0301054,
0.0200085,-0.0876333,0.10007,-1.91555,0.162975,0.0782481,0.0244085,0.261886,0.0136085,0.271947,-0.355604,1.09744,-0.929695,-0.0184694,1.49001,-0.934645,1.55901,-9.45999,12.1778,60.5205,-1.34452,21.2212,-0.398478,22.0654,-35.6044,10.8864,-2.14606,-0.274522,0.024057,-0.0878913,0.101972,-1.91823,0.15964,0.0597013,0.0253619,0.345147,-0.0424316,0.610679,-0.642326,1.38463,-1.55114,-0.0051377,0.145845,-6.86678,19.3881,-33.8795,28.4346,22.7169,-0.706219,3.32813,-29.1545,2.98829,18.7308,2.68219,0.832144,0.0303194,
0.0302437,-0.0878112,0.108419,-1.92748,0.181343,0.0465511,0.0246507,0.282035,0.0137807,0.292815,-0.395841,1.14638,-0.870222,-0.0238788,12.5932,0.107622,13.0429,-25.1484,30.5897,37.1707,-3.38089,19.4765,-0.966978,20.2552,-42.323,10.8864,4.04341,-0.424806,0.024057,-0.0878913,0.101972,-1.91823,0.15964,0.0597013,0.0253619,0.345147,-0.0424316,0.610679,-0.642326,1.38463,-1.55114,-0.0051377,0,0,0,0,0,0,0,3.32813,-29.1545,2.98829,18.7308,2.68219,0.832144,0.0303194,
0.0328274,-0.0876396,0.1111,-1.9317,0.191767,0.0441062,0.0243126,0.29022,0.0153159,0.301276,-0.422164,1.17772,-0.7573,-0.0275573,5.1157,0.959517,5.28781,-16.4517,19.5846,70.5761,-2.29906,18.2235,-0.838605,18.9369,-41.5475,10.8864,4.21337,-0.428629,0.024057,-0.0878913,0.101972,-1.91823,0.15964,0.0597013,0.0253619,0.345147,-0.0424316,0.610679,-0.642326,1.38463,-1.55114,-0.0051377,0,0,0,0,0,0,0,3.32813,-29.1545,2.98829,18.7308,2.68219,0.832144,0.0303194,
0.0351594,-0.0874625,0.11352,-1.93574,0.201854,0.0439771,0.0240101,0.290478,0.0166807,0.301529,-0.438838,1.19435,-0.609066,-0.029609,0.161195,0.853024,0.158203,-10.4209,10.3908,92.6462,-1.2823,17.5706,-0.606998,18.2618,-40.7035,10.8864,5.94792,-0.397503,0.024057,-0.0878913,0.101972,-1.91823,0.15964,0.0597013,0.0253619,0.345147,-0.0424316,0.610679,-0.642326,1.38463,-1.55114,-0.0051377,0,0,0,0,0,0,0,3.32813,-29.1545,2.98829,18.7308,2.68219,0.832144,0.0303194,
0.0492614,-0.0877238,0.127352,-1.95795,0.23489,0.0200254,0.0240731,0.308726,0.0164827,0.320622,-0.478174,1.24873,-0.485585,-0.0357229,11.4052,-0.123754,11.9334,-24.5853,33.9873,77.1758,-3.82119,10.485,-4.16567,11.0335,-45.4174,10.7695,11.962,-0.654366,0.0425672,-0.0878122,0.120368,-1.94708,0.210861,0.0227136,0.0250968,0.451737,-0.0939213,0.674133,-0.927554,1.61317,-0.726447,-0.0250645,13.3237,-6.4362,7.93185,-35.6535,28.567,103.087,-2.49085,-2.57916,-28.5317,-3.36333,21.972,2.16949,4.34594,-0.110672,
0.0518666,-0.0875939,0.130061,-1.96261,0.246018,0.022295,0.0236659,0.312113,0.016435,0.324234,-0.499124,1.27718,-0.331728,-0.038757,2.11653,-0.0298148,2.25712,-13.0938,17.784,96.1607,-1.89627,11.6142,-4.01125,12.1968,-44.6688,10.7695,11.962,-0.560023,0.0425672,-0.0878122,0.120368,-1.94708,0.210861,0.0227136,0.0250968,0.451737,-0.0939213,0.674133,-0.927554,1.61317,-0.726447,-0.0250645,0,0,0,0,0,0,0,-2.57916,-28.5317,-3.36333,21.972,2.16949,4.34594,-0.110672,
0.0541329,-0.0875091,0.132419,-1.96697,0.256573,0.0262187,0.023323,0.306347,0.015268,0.318316,-0.508274,1.28561,-0.167289,-0.0395794,-3.6036,-0.729405,-3.69835,-5.71884,5.27026,102.774,-0.514029,12.4466,-3.81009,13.0444,-43.977,10.7695,11.962,-0.474519,0.0425672,-0.0878122,0.120368,-1.94708,0.210861,0.0227136,0.0250968,0.451737,-0.0939213,0.674133,-0.927554,1.61317,-0.726447,-0.0250645,0,0,0,0,0,0,0,-2.57916,-28.5317,-3.36333,21.972,2.16949,4.34594,-0.110672,
0.0561401,-0.0874799,0.134507,-1.97109,0.26662,0.0313728,0.0230349,0.295257,0.0129447,0.306852,-0.509613,1.27967,-0.00498021,-0.0388648,-6.93146,-1.45203,-7.16504,-0.836318,-3.71195,101.443,0.446634,12.9977,-3.59614,13.5952,-43.3592,10.7695,11.962,-0.401826,0.0425672,-0.0878122,0.120368,-1.94708,0.210861,0.0227136,0.0250968,0.451737,-0.0939213,0.674133,-0.927554,1.61317,-0.726447,-0.0250645,0,0,0,0,0,0,0,-2.57916,-28.5317,-3.36333,21.972,2.16949,4.34594,-0.110672,
0.0488137,-0.0879707,0.126878,-1.95834,0.235492,0.0200658,0.0239014,0.306,0.0101941,0.317897,-0.539951,1.32474,-0.00232313,-0.044462,6.71449,-1.71912,6.90279,-18.9618,28.1663,1.66068,-3.49828,2.46862,-6.86513,2.70068,-47.6239,10.4963,12.1307,-0.798184,0.060566,-0.0889195,0.139619,-1.98486,0.270294,0.019708,0.0233716,0.418442,-0.112672,0.616782,-1.24183,1.88246,0.317349,-0.059263,-4.16189,-2.34382,-7.16898,-39.2848,33.6616,130.474,-4.27482,-8.56579,-29.6306,-9.38567,28.6728,1.11297,6.44158,-0.123489,
0.0511502,-0.0879558,0.129293,-1.96318,0.246562,0.0223016,0.0234828,0.303212,0.00852835,0.3147,-0.553084,1.33656,0.0540376,-0.0460345,-1.74225,-1.04111,-1.99823,-8.20814,7.38618,35.2254,-0.982796,5.67078,-6.22128,6.00405,-46.8794,10.4963,12.1307,-0.626057,0.060566,-0.0889195,0.139619,-1.98486,0.270294,0.019708,0.0233716,0.418442,-0.112672,0.616782,-1.24183,1.88246,0.317349,-0.059263,0,0,0,0,0,0,0,-8.56579,-29.6306,-9.38567,28.6728,1.11297,6.44158,-0.123489,
0.053173,-0.0879567,0.131377,-1.96769,0.256433,0.0261783,0.0231533,0.293139,0.00680049,0.303855,-0.555037,1.31601,0.140148,-0.0450672,-6.29576,-1.07991,-6.77823,-1.22064,-12.8448,53.8189,0.604581,7.76953,-5.37117,8.15296,-46.1157,9.38078,12.1307,-0.496811,0.060566,-0.0889195,0.139619,-1.98486,0.270294,0.019708,0.0233716,0.418442,-0.112672,0.616782,-1.24183,1.88246,0.317349,-0.059263,0,0,0,0,0,0,0,-8.56579,-29.6306,-9.38567,28.6728,1.11297,6.44158,-0.123489,
0.0549645,-0.0879811,0.133219,-1.97192,0.265153,0.0312898,0.0228894,0.279298,0.00483146,0.289145,-0.549896,1.27081,0.239905,-0.0426501,-8.65048,-1.23065,-9.1936,3.21342,-28.2498,62.3483,1.51065,9.1156,-4.45425,9.51989,-45.3554,8.05903,12.1307,-0.397807,0.060566,-0.0889195,0.139619,-1.98486,0.270294,0.019708,0.0233716,0.418442,-0.112672,0.616782,-1.24183,1.88246,0.317349,-0.059263,0,0,0,0,0,0,0,-8.56579,-29.6306,-9.38567,28.6728,1.11297,6.44158,-0.123489,
0.0666276,-0.0881769,0.145935,-1.99658,0.294914,0.0240397,0.0224355,0.292135,0.0146094,0.302578,-0.571872,1.30654,0.259631,-0.0446735,8.02312,6.11119,8.39561,-13.7352,22.3348,12.3289,-1.26459,5.67078,-6.22128,6.00405,-46.8794,10.4963,12.1307,-0.626057,0.060566,-0.0889195,0.139619,-1.98486,0.270294,0.019708,0.0233716,0.418442,-0.112672,0.616782,-1.24183,1.88246,0.317349,-0.059263,0,0,0,0,0,0,0,-8.56579,-29.6306,-9.38567,28.6728,1.11297,6.44158,-0.123489,
0.0689596,-0.0878474,0.148347,-2.0013,0.305106,0.0280206,0.0220998,0.292008,0.019925,0.302341,-0.57564,1.30003,0.307227,-0.0441323,-0.0794643,3.32228,-0.148247,-2.35506,-4.07193,29.7476,0.338248,7.63876,-6.03366,8.07214,-46.0204,9.10708,12.0468,-0.497598,0.0784443,-0.0890262,0.156147,-2.02355,0.329339,0.0402948,0.0212943,0.378054,-0.0398398,0.522684,-1.13856,1.75613,0.763924,-0.0728896,-5.04849,9.104,-11.7622,12.9089,-15.7912,55.822,-1.70332,-11.4817,-31.277,-11.9842,22.6425,0.239559,3.88817,-0.110672,
0.070982,-0.0876362,0.150434,-2.00568,0.314025,0.0330989,0.0218308,0.284167,0.0212205,0.294054,-0.569917,1.26299,0.37274,-0.0420309,-4.90099,0.809684,-5.17888,3.57736,-23.1491,40.9457,1.31337,8.98483,-5.11674,9.43907,-45.2601,7.78533,12.0468,-0.398594,0.0784443,-0.0890262,0.156147,-2.02355,0.329339,0.0402948,0.0212943,0.378054,-0.0398398,0.522684,-1.13856,1.75613,0.763924,-0.0728896,0,0,0,0,0,0,0,-11.4817,-31.277,-11.9842,22.6425,0.239559,3.88817,-0.110672,
0.0838512,-0.0879188,0.16178,-2.03451,0.350998,0.049362,0.0205546,0.289142,0.0306332,0.299367,-0.579886,1.26093,0.415704,-0.0419472,3.1096,5.88292,3.32058,-6.2311,-1.2854,26.852,0.0523295,7.63876,-6.03366,8.07214,-46.0204,9.10708,12.0468,-0.497598,0.0784443,-0.0890262,0.156147,-2.02355,0.329339,0.0402948,0.0212943,0.378054,-0.0398398,0.522684,-1.13856,1.75613,0.763924,-0.0728896,0,0,0,0,0,0,0,-11.4817,-31.277,-11.9842,22.6425,0.239559,3.88817,-0.110672,
0.0859702,-0.0875342,0.163973,-2.03899,0.359709,0.0547826,0.0202855,0.284287,0.0341217,0.294333,-0.575812,1.22652,0.468078,-0.0402856,-3.03439,2.1803,-3.14642,2.54651,-21.5042,32.7339,1.03851,8.98483,-5.11674,9.43907,-45.2601,7.78533,12.0468,-0.398594,0.0784443,-0.0890262,0.156147,-2.02355,0.329339,0.0402948,0.0212943,0.378054,-0.0398398,0.522684,-1.13856,1.75613,0.763924,-0.0728896,0,0,0,0,0,0,0,-11.4817,-31.277,-11.9842,22.6425,0.239559,3.88817,-0.110672,
0.0878311,-0.0872966,0.165898,-2.04315,0.367132,0.0609041,0.0200707,0.273954,0.0332385,0.283584,-0.564735,1.16679,0.5275,-0.0375997,-6.4583,-0.55198,-6.71809,6.92292,-37.3364,37.1391,1.67864,9.77581,-4.37452,10.2858,-44.2934,6.85732,12.1157,-0.325507,0.0936901,-0.0894266,0.172606,-2.06332,0.384077,0.0729826,0.0196202,0.413887,0.088528,0.509182,-1.15265,1.65485,1.06536,-0.0575116,4.47919,16.046,-1.68778,-1.76158,-12.6606,37.6798,1.92225,-5.70141,-34.1969,-6.8347,33.8779,1.03973,3.79571,-0.197647,
0.0895011,-0.0871677,0.167625,-2.04708,0.373309,0.0676276,0.0199005,0.260913,0.0298141,0.270041,-0.549998,1.08786,0.590088,-0.0343346,-8.15056,-2.14022,-8.46442,9.21093,-49.3268,39.1173,2.0407,10.3018,-3.50578,10.8548,-43.5519,5.55325,12.1157,-0.265618,0.0936901,-0.0894266,0.172606,-2.06332,0.384077,0.0729826,0.0196202,0.413887,0.088528,0.509182,-1.15265,1.65485,1.06536,-0.0575116,0,0,0,0,0,0,0,-5.70141,-34.1969,-6.8347,33.8779,1.03973,3.79571,-0.197647,
0.0991745,-0.0871411,0.178336,-2.07439,0.40331,0.0844432,0.0190314,0.271153,0.0495769,0.281043,-0.565057,1.09023,0.612103,-0.0341939,6.40024,12.3517,6.87601,-9.41182,1.4804,13.7592,0.0879626,8.93489,-5.29162,9.43859,-45.0434,7.69778,12.1157,-0.400005,0.0936901,-0.0894266,0.172606,-2.06332,0.384077,0.0729826,0.0196202,0.413887,0.088528,0.509182,-1.15265,1.65485,1.06536,-0.0575116,0,0,0,0,0,0,0,-5.70141,-34.1969,-6.8347,33.8779,1.03973,3.79571,-0.197647,
0.101307,-0.0864145,0.180552,-2.07888,0.410707,0.0903926,0.0188145,0.270245,0.0578275,0.280252,-0.564225,1.0571,0.638418,-0.0327784,-0.567633,5.1566,-0.494181,0.519558,-20.7091,16.4471,0.884673,9.77581,-4.37452,10.2858,-44.2934,6.85732,12.1157,-0.325507,0.0936901,-0.0894266,0.172606,-2.06332,0.384077,0.0729826,0.0196202,0.413887,0.088528,0.509182,-1.15265,1.65485,1.06536,-0.0575116,0,0,0,0,0,0,0,-5.70141,-34.1969,-6.8347,33.8779,1.03973,3.79571,-0.197647,
0.103173,-0.0859316,0.182489,-2.08304,0.416808,0.0968203,0.0186429,0.262841,0.058334,0.272628,-0.555308,0.998202,0.671428,-0.0305125,-4.62724,0.316588,-4.7649,5.57361,-36.8097,20.631,1.41617,10.0051,-3.95233,10.5857,-43.4744,5.38899,12.0349,-0.259854,0.108678,-0.0888276,0.187493,-2.10146,0.432075,0.11681,0.0181839,0.510794,0.121026,0.358818,-1.00924,1.10956,1.38781,-0.0354523,12.1133,4.06223,-18.7954,17.9262,-68.1617,40.306,2.75741,-3.82489,-32.376,-4.71221,27.2009,0.404354,1.20293,-0.117081,
0.113658,-0.0866557,0.192704,-2.11171,0.445636,0.131953,0.0177055,0.266532,0.0704055,0.277061,-0.561254,0.954922,0.716276,-0.0298551,2.30665,7.54467,2.7703,-3.71659,-27.0496,28.0302,0.410862,9.47911,-4.82107,10.0167,-44.2159,6.69306,12.0349,-0.319743,0.108678,-0.0888276,0.187493,-2.10146,0.432075,0.11681,0.0181839,0.510794,0.121026,0.358818,-1.00924,1.10956,1.38781,-0.0354523,0,0,0,0,0,0,0,-3.82489,-32.376,-4.71221,27.2009,0.404354,1.20293,-0.117081,
0.115577,-0.0860016,0.19471,-2.11595,0.450905,0.139036,0.0175325,0.261204,0.0726763,0.271792,-0.555174,0.895657,0.750092,-0.0282096,-3.32994,1.41925,-3.29261,3.80029,-37.041,21.1349,1.02847,10.0051,-3.95233,10.5857,-43.4744,5.38899,12.0349,-0.259854,0.108678,-0.0888276,0.187493,-2.10146,0.432075,0.11681,0.0181839,0.510794,0.121026,0.358818,-1.00924,1.10956,1.38781,-0.0354523,0,0,0,0,0,0,0,-3.82489,-32.376,-4.71221,27.2009,0.404354,1.20293,-0.117081,
0.11726,-0.0855742,0.196465,-2.11992,0.455244,0.146289,0.0174001,0.251035,0.0688277,0.261323,-0.543403,0.825004,0.781404,-0.0258772,-6.3555,-2.40537,-6.54339,7.35702,-44.1583,19.57,1.45776,10.3568,-3.16275,10.9703,-42.7451,4.15357,12.0349,-0.210306,0.108678,-0.0888276,0.187493,-2.10146,0.432075,0.11681,0.0181839,0.510794,0.121026,0.358818,-1.00924,1.10956,1.38781,-0.0354523,0,0,0,0,0,0,0,-3.82489,-32.376,-4.71221,27.2009,0.404354,1.20293,-0.117081,
0.118769,-0.0853052,0.198038,-2.12369,0.458755,0.153794,0.0173031,0.238562,0.061787,0.24838,-0.528963,0.747775,0.812753,-0.0231258,-7.79607,-4.40041,-8.08946,9.02448,-48.268,19.5932,1.71962,10.7115,-2.67863,11.3741,-42.0337,3.18731,11.9446,-0.164268,0.122849,-0.0886011,0.201964,-2.13852,0.473464,0.170282,0.0173224,0.581109,0.0606994,0.264714,-1.0436,0.973868,1.60746,-0.0160008,8.78941,-7.54081,-11.763,-4.2947,-16.9609,27.4565,2.43143,-5.54669,-31.8999,-6.28722,27.2763,2.09625,1.85296,-0.0365141,
0.12768,-0.0868059,0.20701,-2.14849,0.484303,0.186794,0.0169585,0.245315,0.0696404,0.255883,-0.535946,0.72052,0.841996,-0.022755,4.22116,4.90833,4.68968,-4.36404,-17.0343,18.2768,0.231759,10.1039,-4.15419,10.7241,-43.4761,5.39091,11.9446,-0.258071,0.122849,-0.0886011,0.201964,-2.13852,0.473464,0.170282,0.0173224,0.581109,0.0606994,0.264714,-1.0436,0.973868,1.60746,-0.0160008,0,0,0,0,0,0,0,-5.54669,-31.8999,-6.28722,27.2763,2.09625,1.85296,-0.0365141,
0.129537,-0.0862455,0.208954,-2.15258,0.488343,0.194206,0.016825,0.242676,0.0697208,0.253318,-0.531048,0.677407,0.8589,-0.0215413,-1.64989,0.0502568,-1.60332,3.06124,-26.9455,10.5653,0.758524,10.4556,-3.36462,11.1086,-42.7468,4.15549,11.9446,-0.208523,0.122849,-0.0886011,0.201964,-2.13852,0.473464,0.170282,0.0173224,0.581109,0.0606994,0.264714,-1.0436,0.973868,1.60746,-0.0160008,0,0,0,0,0,0,0,-5.54669,-31.8999,-6.28722,27.2763,2.09625,1.85296,-0.0365141,
0.131164,-0.0858816,0.210655,-2.15643,0.491633,0.201684,0.016727,0.234821,0.064876,0.245178,-0.520936,0.624176,0.874071,-0.0196808,-4.90926,-3.02798,-5.08736,6.3197,-33.2695,9.48154,1.16283,10.7115,-2.67863,11.3741,-42.0337,3.18731,11.9446,-0.164268,0.122849,-0.0886011,0.201964,-2.13852,0.473464,0.170282,0.0173224,0.581109,0.0606994,0.264714,-1.0436,0.973868,1.60746,-0.0160008,0,0,0,0,0,0,0,-5.54669,-31.8999,-6.28722,27.2763,2.09625,1.85296,-0.0365141,
0.132624,-0.085655,0.212179,-2.16009,0.494245,0.209343,0.0166575,0.224343,0.0575639,0.23425,-0.508419,0.564641,0.890735,-0.0174829,-6.54864,-4.57008,-6.83017,7.8236,-37.2095,10.4156,1.37366,11.0806,-2.35788,11.7725,-41.3587,2.51975,11.8161,-0.122486,0.135557,-0.0878194,0.217426,-2.17465,0.504538,0.22669,0.0167285,0.478997,-0.0547775,0.3286,-1.07821,0.903942,1.69191,-0.011748,-12.7641,-14.4346,7.98563,-4.32657,-8.74077,10.5559,0.531607,-3.44403,-28.9324,-4.6884,18.0603,1.68701,0.268179,-0.0365141,
0.140228,-0.0868403,0.222314,-2.18429,0.513272,0.243476,0.0164692,0.232344,0.058396,0.242848,-0.514637,0.547831,0.906503,-0.0171636,5.00068,0.520083,5.37383,-3.88653,-10.5059,9.85476,0.199614,10.6521,-3.6138,11.3405,-42.7581,4.20464,11.8161,-0.206632,0.135557,-0.0878194,0.217426,-2.17465,0.504538,0.22669,0.0167285,0.478997,-0.0547775,0.3286,-1.07821,0.903942,1.69191,-0.011748,0,0,0,0,0,0,0,-3.44403,-28.9324,-4.6884,18.0603,1.68701,0.268179,-0.0365141,
0.142035,-0.0864897,0.224206,-2.18821,0.516405,0.250957,0.0163705,0.231041,0.0554807,0.241554,-0.509627,0.516595,0.912215,-0.0161977,-0.814311,-1.82204,-0.808498,3.13108,-19.5224,3.56976,0.603673,10.908,-2.92781,11.606,-42.045,3.23646,11.8161,-0.162377,0.135557,-0.0878194,0.217426,-2.17465,0.504538,0.22669,0.0167285,0.478997,-0.0547775,0.3286,-1.07821,0.903942,1.69191,-0.011748,0,0,0,0,0,0,0,-3.44403,-28.9324,-4.6884,18.0603,1.68701,0.268179,-0.0365141,
0.14362,-0.0862689,0.225863,-2.19191,0.518919,0.258497,0.0162996,0.224473,0.049904,0.234692,-0.50018,0.476124,0.918263,-0.0147304,-4.10512,-3.48547,-4.28892,5.90444,-25.2948,3.78028,0.91705,11.0806,-2.35788,11.7725,-41.3587,2.51975,11.8161,-0.122486,0.135557,-0.0878194,0.217426,-2.17465,0.504538,0.22669,0.0167285,0.478997,-0.0547775,0.3286,-1.07821,0.903942,1.69191,-0.011748,0,0,0,0,0,0,0,-3.44403,-28.9324,-4.6884,18.0603,1.68701,0.268179,-0.0365141,
0.145049,-0.0861413,0.227357,-2.19545,0.520728,0.266204,0.0162549,0.215305,0.0431143,0.225094,-0.488584,0.426109,0.927295,-0.0129023,-5.73021,-4.24353,-5.99862,7.2477,-31.259,5.64491,1.14254,11.2878,-2.10964,11.9946,-40.6036,1.97234,11.7174,-0.0894025,0.148159,-0.0871377,0.232073,-2.2104,0.528405,0.284785,0.0164011,0.241521,-0.113338,0.59237,-1.08977,0.833025,1.76457,-0.00591095,-29.6845,-7.32005,32.9713,-1.44443,-8.86466,9.08291,0.729631,-3.36865,-27.7065,-4.50987,18.4332,1.61377,1.05096,-0.117081,
0.152943,-0.0865594,0.23713,-2.21983,0.535367,0.301806,0.0162265,0.226451,0.0429623,0.236882,-0.495682,0.416046,0.936733,-0.0126552,6.96666,-0.0949929,7.36733,-4.43619,-6.2897,5.89848,0.154459,11.0332,-3.1338,11.7543,-41.9426,3.32505,11.7174,-0.160734,0.148159,-0.0871377,0.232073,-2.2104,0.528405,0.284785,0.0164011,0.241521,-0.113338,0.59237,-1.08977,0.833025,1.76457,-0.00591095,0,0,0,0,0,0,0,-3.36865,-27.7065,-4.50987,18.4332,1.61377,1.05096,-0.117081,
0.154782,-0.0863118,0.239054,-2.22363,0.537783,0.309268,0.016153,0.227142,0.0405604,0.237604,-0.491668,0.393259,0.935934,-0.011962,0.431721,-1.50118,0.451019,2.50878,-14.2419,-0.498999,0.433249,11.2058,-2.56387,11.9208,-41.2563,2.60833,11.7174,-0.120843,0.148159,-0.0871377,0.232073,-2.2104,0.528405,0.284785,0.0164011,0.241521,-0.113338,0.59237,-1.08977,0.833025,1.76457,-0.00591095,0,0,0,0,0,0,0,-3.36865,-27.7065,-4.50987,18.4332,1.61377,1.05096,-0.117081,
0.156392,-0.0861607,0.240736,-2.22722,0.539545,0.316761,0.0161058,0.22194,0.0362264,0.23213,-0.483169,0.358654,0.936078,-0.010751,-3.25132,-2.70878,-3.421,5.31167,-21.628,0.0898487,0.756873,11.2878,-2.10964,11.9946,-40.6036,1.97234,11.7174,-0.0894025,0.148159,-0.0871377,0.232073,-2.2104,0.528405,0.284785,0.0164011,0.241521,-0.113338,0.59237,-1.08977,0.833025,1.76457,-0.00591095,0,0,0,0,0,0,0,-3.36865,-27.7065,-4.50987,18.4332,1.61377,1.05096,-0.117081,
0.152972,-0.0865023,0.237153,-2.2197,0.534787,0.301756,0.0162884,0.232132,0.0381939,0.242828,-0.489781,0.353564,0.943221,-0.0102596,6.36988,1.22967,6.68641,-4.13217,-3.18119,4.46444,0.307117,11.1656,-2.57868,11.8892,-41.1669,2.69198,11.6504,-0.119063,0.162467,-0.0859084,0.244063,-2.24522,0.546532,0.342354,0.0163267,0.189664,-0.041005,0.643428,-1.11418,0.686313,1.7759,0.000364285,-6.4821,9.0416,6.3823,-3.05099,-18.339,1.41577,0.784405,-1.79364,-30.305,-2.41118,26.1813,1.36291,1.90606,-0.117081,
0.154829,-0.086228,0.239093,-2.22344,0.536685,0.309201,0.0162391,0.23212,0.0374132,0.242761,-0.485229,0.330318,0.940678,-0.00943943,-0.00726125,-0.487893,-0.0418138,2.84465,-14.5286,-1.58965,0.512616,11.2476,-2.12445,11.963,-40.5142,2.05599,11.6504,-0.0876225,0.162467,-0.0859084,0.244063,-2.24522,0.546532,0.342354,0.0163267,0.189664,-0.041005,0.643428,-1.11418,0.686313,1.7759,0.000364285,0,0,0,0,0,0,0,-1.79364,-30.305,-2.41118,26.1813,1.36291,1.90606,-0.117081,
0.156452,-0.0860551,0.240788,-2.22698,0.537897,0.316685,0.0162113,0.226289,0.0342508,0.236603,-0.476547,0.294543,0.939665,-0.00824739,-3.64449,-1.97653,-3.84912,5.42614,-22.3597,-0.632956,0.745028,11.3006,-1.76231,12.0301,-39.8858,1.03961,11.6504,-0.0606635,0.162467,-0.0859084,0.244063,-2.24522,0.546532,0.342354,0.0163267,0.189664,-0.041005,0.643428,-1.11418,0.686313,1.7759,0.000364285,0,0,0,0,0,0,0,-1.79364,-30.305,-2.41118,26.1813,1.36291,1.90606,-0.117081,
0.157907,-0.0859582,0.242308,-2.23038,0.538491,0.324338,0.0162036,0.217395,0.0298233,0.227268,-0.466279,0.250503,0.943042,-0.00679007,-5.55846,-2.76715,-5.83432,6.41777,-27.525,2.11061,0.910825,11.367,-1.47205,12.0927,-39.2686,0.26383,11.6504,-0.0370019,0.162467,-0.0859084,0.244063,-2.24522,0.546532,0.342354,0.0163267,0.189664,-0.041005,0.643428,-1.11418,0.686313,1.7759,0.000364285,0,0,0,0,0,0,0,-1.79364,-30.305,-2.41118,26.1813,1.36291,1.90606,-0.117081,
0.167185,-0.0845938,0.249072,-2.25482,0.550567,0.358913,0.0162774,0.227339,0.04017,0.237903,-0.479367,0.23778,0.942252,-0.00639432,6.21452,6.46666,6.64691,-8.18023,-7.95191,-0.493721,0.247343,11.2476,-2.12445,11.963,-40.5142,2.05599,11.6504,-0.0876225,0.162467,-0.0859084,0.244063,-2.24522,0.546532,0.342354,0.0163267,0.189664,-0.041005,0.643428,-1.11418,0.686313,1.7759,0.000364285,0,0,0,0,0,0,0,-1.79364,-30.305,-2.41118,26.1813,1.36291,1.90606,-0.117081,
0.168998,-0.0841103,0.250971,-2.25865,0.551422,0.366074,0.0162502,0.227208,0.0442246,0.237817,-0.479208,0.211579,0.932814,-0.0057955,-0.0815661,2.53412,-0.0536311,0.0991871,-16.3755,-5.89895,0.374261,10.8443,-1.79659,11.572,-40.0075,0.991387,11.561,-0.0565533,0.177179,-0.0843264,0.255116,-2.27887,0.558684,0.399903,0.016319,0.500874,0.117746,0.268898,-0.955991,0.291365,1.67987,0.00115903,38.9012,19.8439,-46.8163,19.7734,-49.3685,-12.0039,0.0993436,-0.655026,-31.7015,-1.08611,28.2999,1.38763,1.38238,-0.150955,
0.170584,-0.0837798,0.252631,-2.26226,0.55175,0.373289,0.0162418,0.221415,0.0436412,0.23175,-0.473471,0.177473,0.926633,-0.004847,-3.62099,-0.364639,-3.79172,3.5858,-21.3162,-3.86269,0.59281,10.9107,-1.50633,11.6346,-39.3903,0.21561,11.561,-0.0328917,0.177179,-0.0843264,0.255116,-2.27887,0.558684,0.399903,0.016319,0.500874,0.117746,0.268898,-0.955991,0.291365,1.67987,0.00115903,0,0,0,0,0,0,0,-0.655026,-31.7015,-1.08611,28.2999,1.38763,1.38238,-0.150955,
0.167185,-0.0845938,0.249072,-2.25482,0.550567,0.358913,0.0162774,0.230554,0.0512243,0.241489,-0.485121,0.179356,0.929125,-0.00483987,5.71213,4.73943,6.0866,-7.28118,1.17683,1.55735,0.0044602,10.8443,-1.79659,11.572,-40.0075,0.991387,11.561,-0.0565533,0.177179,-0.0843264,0.255116,-2.27887,0.558684,0.399903,0.016319,0.500874,0.117746,0.268898,-0.955991,0.291365,1.67987,0.00115903,0,0,0,0,0,0,0,-0.655026,-31.7015,-1.08611,28.2999,1.38763,1.38238,-0.150955,
0.183047,-0.0815328,0.261292,-2.29205,0.559231,0.423774,0.0162709,0.225088,0.0577191,0.235999,-0.484522,0.137748,0.924202,-0.00410041,-3.41652,4.05927,-3.43101,0.374704,-26.0047,-3.07682,0.462158,10.9107,-1.50633,11.6346,-39.3903,0.21561,11.561,-0.0328917,0.177179,-0.0843264,0.255116,-2.27887,0.558684,0.399903,0.016319,0.500874,0.117746,0.268898,-0.955991,0.291365,1.67987,0.00115903,0,0,0,0,0,0,0,-0.655026,-31.7015,-1.08611,28.2999,1.38763,1.38238,-0.150955,
0.184484,-0.0810698,0.262803,-2.29568,0.558722,0.431026,0.0162811,0.215998,0.0577516,0.226565,-0.478457,0.0974719,0.920655,-0.00302515,-5.68112,0.0203232,-5.89638,3.7902,-25.1727,-2.21678,0.672038,11.0017,-1.28834,11.7136,-38.7873,-0.371576,11.561,-0.01086,0.177179,-0.0843264,0.255116,-2.27887,0.558684,0.399903,0.016319,0.500874,0.117746,0.268898,-0.955991,0.291365,1.67987,0.00115903,0,0,0,0,0,0,0,-0.655026,-31.7015,-1.08611,28.2999,1.38763,1.38238,-0.150955,
0.185789,-0.0807539,0.264172,-2.29916,0.557992,0.43844,0.0163107,0.205414,0.0540986,0.215497,-0.469648,0.0597334,0.921889,-0.00168076,-6.61466,-2.28314,-6.91747,5.5058,-23.5866,0.771226,0.840247,11.1102,-1.13944,11.805,-38.1998,-0.787813,11.561,0.0111912,0.177179,-0.0843264,0.255116,-2.27887,0.558684,0.399903,0.016319,0.500874,0.117746,0.268898,-0.955991,0.291365,1.67987,0.00115903,0,0,0,0,0,0,0,-0.655026,-31.7015,-1.08611,28.2999,1.38763,1.38238,-0.150955,
0.181443,-0.082168,0.259596,-2.28808,0.558831,0.416484,0.0163231,0.212219,0.06716,0.222915,-0.480224,0.0415488,0.927243,-0.00144928,4.25311,8.16336,4.63583,-6.6097,-11.3654,3.34619,0.144673,10.9107,-1.50633,11.6346,-39.3903,0.21561,11.561,-0.0328917,0.177179,-0.0843264,0.255116,-2.27887,0.558684,0.399903,0.016319,0.500874,0.117746,0.268898,-0.955991,0.291365,1.67987,0.00115903,0,0,0,0,0,0,0,-0.655026,-31.7015,-1.08611,28.2999,1.38763,1.38238,-0.150955,
0.183079,-0.0814848,0.261317,-2.29189,0.558259,0.423708,0.0163315,0.210675,0.0708088,0.221363,-0.479417,0.0189182,0.922394,-0.000950272,-0.965022,2.2805,-0.969947,0.503926,-14.1441,-3.03071,0.31188,11.0017,-1.28834,11.7136,-38.7873,-0.371576,11.561,-0.01086,0.177179,-0.0843264,0.255116,-2.27887,0.558684,0.399903,0.016319,0.500874,0.117746,0.268898,-0.955991,0.291365,1.67987,0.00115903,0,0,0,0,0,0,0,-0.655026,-31.7015,-1.08611,28.2999,1.38763,1.38238,-0.150955,
0.184524,-0.0810108,0.262835,-2.29549,0.557474,0.430954,0.0163586,0.204657,0.0684962,0.21502,-0.473394,-0.00448328,0.919067,-8.08559e-05,-3.76157,-1.44536,-3.96389,3.76428,-14.626,-2.07907,0.543385,10.9391,-1.33877,11.6427,-38.2607,-0.755917,11.4175,0.0140047,0.18587,-0.0825309,0.271612,-2.31099,0.564337,0.457277,0.0163239,0.586528,0.136593,0.119654,-0.882449,0.0242003,1.64817,0.000794186,10.7068,2.35593,-18.6555,9.19272,-33.3955,-3.96198,-0.0456061,-1.71826,-30.678,-3.08562,27.4271,1.67419,1.37505,-0.143631,
0.185832,-0.0806861,0.264207,-2.29893,0.556559,0.438364,0.016402,0.196434,0.0629149,0.206334,-0.464776,-0.0264538,0.92051,0.00101986,-5.13908,-3.48827,-5.4293,5.38663,-13.7316,0.90138,0.687945,11.0394,-1.24829,11.7205,-37.6913,-0.98559,11.4175,0.0367827,0.18587,-0.0825309,0.271612,-2.31099,0.564337,0.457277,0.0163239,0.586528,0.136593,0.119654,-0.882449,0.0242003,1.64817,0.000794186,0,0,0,0,0,0,0,-1.71826,-30.678,-3.08562,27.4271,1.67419,1.37505,-0.143631,
0.189741,-0.0804517,0.275669,-2.31992,0.562249,0.474019,0.0163459,0.20053,0.0729691,0.211014,-0.47401,-0.0500247,0.928921,0.00104136,2.55999,6.28387,2.92532,-5.77138,-14.7318,5.25732,0.0134401,10.8306,-1.48766,11.5514,-38.8482,-0.33968,11.4175,-0.00804649,0.18587,-0.0825309,0.271612,-2.31099,0.564337,0.457277,0.0163239,0.586528,0.136593,0.119654,-0.882449,0.0242003,1.64817,0.000794186,0,0,0,0,0,0,0,-1.71826,-30.678,-3.08562,27.4271,1.67419,1.37505,-0.143631,
0.191235,-0.0798098,0.277246,-2.32367,0.561076,0.481347,0.0163701,0.197768,0.0744238,0.208239,-0.472905,-0.0693382,0.92635,0.00143738,-1.7265,0.909138,-1.73427,0.69057,-12.071,-1.60685,0.247515,10.9391,-1.33877,11.6427,-38.2607,-0.755917,11.4175,0.0140047,0.18587,-0.0825309,0.271612,-2.31099,0.564337,0.457277,0.0163239,0.586528,0.136593,0.119654,-0.882449,0.0242003,1.64817,0.000794186,0,0,0,0,0,0,0,-1.71826,-30.678,-3.08562,27.4271,1.67419,1.37505,-0.143631,
0.192567,-0.0793667,0.278649,-2.32721,0.559929,0.488673,0.016411,0.191511,0.0706157,0.201663,-0.466927,-0.0841468,0.924234,0.00217332,-3.91065,-2.38005,-4.11004,3.73643,-9.25537,-1.32261,0.45996,11.204,-1.47377,11.8991,-37.604,-0.872972,11.2561,0.0378443,0.197156,-0.0813508,0.285416,-2.34328,0.565886,0.514808,0.0163244,0.115792,0.0588021,0.603336,-0.879727,-0.00651075,1.60993,-0.000725442,-58.842,-9.72392,60.4603,0.340252,-3.83888,-4.77992,-0.189954,0.717655,-29.4798,-0.637804,24.0866,1.43615,1.79345,-0.0630644,
0.193787,-0.0790651,0.279933,-2.3306,0.558712,0.49613,0.0164702,0.183731,0.0640323,0.193434,-0.458218,-0.097743,0.925799,0.00321808,-4.86259,-4.1146,-5.14346,5.44292,-8.49761,0.977824,0.652978,11.2479,-1.42948,11.9176,-37.0562,-0.947103,11.2561,0.0571388,0.197156,-0.0813508,0.285416,-2.34328,0.565886,0.514808,0.0163244,0.115792,0.0588021,0.603336,-0.879727,-0.00651075,1.60993,-0.000725442,0,0,0,0,0,0,0,0.717655,-29.4798,-0.637804,24.0866,1.43615,1.79345,-0.0630644,
0.201092,-0.0798569,0.28963,-2.35199,0.563,0.531106,0.0163869,0.191546,0.0680148,0.201797,-0.465991,-0.11457,0.927958,0.00314447,4.88467,2.48904,5.22722,-4.85797,-10.5168,1.34975,-0.0460089,11.1036,-1.56425,11.8213,-38.1734,-0.643299,11.2561,0.0150663,0.197156,-0.0813508,0.285416,-2.34328,0.565886,0.514808,0.0163244,0.115792,0.0588021,0.603336,-0.879727,-0.00651075,1.60993,-0.000725442,0,0,0,0,0,0,0,0.717655,-29.4798,-0.637804,24.0866,1.43615,1.79345,-0.0630644,
0.202619,-0.0793769,0.291237,-2.35564,0.561709,0.538268,0.0164217,0.191404,0.0664121,0.201611,-0.464004,-0.123924,0.921426,0.00338503,-0.0886745,-1.00169,-0.116108,1.24206,-5.8462,-4.08258,0.150349,11.204,-1.47377,11.8991,-37.604,-0.872972,11.2561,0.0378443,0.197156,-0.0813508,0.285416,-2.34328,0.565886,0.514808,0.0163244,0.115792,0.0588021,0.603336,-0.879727,-0.00651075,1.60993,-0.000725442,0,0,0,0,0,0,0,0.717655,-29.4798,-0.637804,24.0866,1.43615,1.79345,-0.0630644,
0.203975,-0.0790489,0.292662,-2.35909,0.560454,0.545452,0.0164762,0.187027,0.0613282,0.196917,-0.457414,-0.130521,0.91675,0.00407108,-2.73582,-3.17743,-2.93398,4.11843,-4.12298,-2.92291,0.428783,11.3821,-1.63462,12.0406,-36.8655,-0.798975,11.1199,0.0578148,0.212314,-0.080007,0.293413,-2.37502,0.564508,0.568422,0.0163435,0.217315,-0.0372662,0.481105,-0.988831,-0.0444008,1.557,0.00177585,12.6903,-12.0085,-15.279,-13.6379,-4.73626,-6.61671,0.312662,-0.702633,-26.2346,-1.10991,21.25,0.831906,2.13128,-0.103348,
0.21621,-0.0795175,0.297499,-2.38318,0.56451,0.585467,0.0159484,0.193461,0.0527535,0.202979,-0.452216,-0.0982686,0.934812,0.000203117,4.02157,-5.3592,3.78889,3.2485,20.1575,11.2892,-2.41748,11.3382,-1.6789,12.0221,-37.4133,-0.724844,11.1199,0.0385202,0.212314,-0.080007,0.293413,-2.37502,0.564508,0.568422,0.0163435,0.217315,-0.0372662,0.481105,-0.988831,-0.0444008,1.557,0.00177585,0,0,0,0,0,0,0,-0.702633,-26.2346,-1.10991,21.25,0.831906,2.13128,-0.103348,
0.217654,-0.0797997,0.298977,-2.38591,0.565073,0.592725,0.0160769,0.190854,0.0351474,0.199343,-0.429956,-0.0645362,0.92931,0.00337711,-1.62963,-11.0038,-2.27295,13.9129,21.0828,-3.43865,1.98375,11.3821,-1.63462,12.0406,-36.8655,-0.798975,11.1199,0.0578148,0.212314,-0.080007,0.293413,-2.37502,0.564508,0.568422,0.0163435,0.217315,-0.0372662,0.481105,-0.988831,-0.0444008,1.557,0.00177585,0,0,0,0,0,0,0,-0.702633,-26.2346,-1.10991,21.25,0.831906,2.13128,-0.103348,
0.218869,-0.0805287,0.300203,-2.38816,0.565829,0.598957,0.0163526,0.183074,0.00989293,0.190114,-0.400229,-0.0327102,0.899246,0.00959291,-4.86255,-15.784,-5.76765,18.5795,19.8912,-18.7904,3.88488,11.3726,-1.6148,12.026,-36.3345,-1.11364,11.1199,0.0760348,0.212314,-0.080007,0.293413,-2.37502,0.564508,0.568422,0.0163435,0.217315,-0.0372662,0.481105,-0.988831,-0.0444008,1.557,0.00177585,0,0,0,0,0,0,0,-0.702633,-26.2346,-1.10991,21.25,0.831906,2.13128,-0.103348,
0.219938,-0.0816349,0.301262,-2.39007,0.56666,0.604315,0.0167761,0.173183,-0.0197417,0.178569,-0.368138,-0.00539734,0.853329,0.0182609,-6.1817,-18.5217,-7.21578,20.0565,17.0705,-28.6982,5.41752,11.2063,-1.9093,11.8363,-35.587,-1.22035,11.0297,0.0834352,0.222719,-0.0781749,0.306594,-2.40606,0.562635,0.61821,0.0163546,0.645641,0.00835003,0.0390196,-0.936614,-0.0442422,1.43955,0.000674431,53.5407,5.70203,-55.2606,6.52711,0.019833,-14.6806,-0.137678,-2.96002,-27.159,-3.51012,20.9485,-0.414127,2.84081,-0.0301054,
0.22647,-0.0781678,0.310388,-2.41326,0.564736,0.635639,0.0160707,0.179677,-0.0219267,0.184774,-0.365737,0.0264454,0.879364,0.0121907,4.05891,-1.36564,3.87834,1.50079,19.9017,16.2722,-3.79388,11.2954,-1.94644,11.9433,-36.6382,-0.685135,11.0297,0.0579936,0.222719,-0.0781749,0.306594,-2.40606,0.562635,0.61821,0.0163546,0.645641,0.00835003,0.0390196,-0.936614,-0.0442422,1.43955,0.000674431,0,0,0,0,0,0,0,-2.96002,-27.159,-3.51012,20.9485,-0.414127,2.84081,-0.0301054,
0.227795,-0.0790916,0.311709,-2.41525,0.56615,0.641958,0.0161074,0.176879,-0.0406346,0.180838,-0.342292,0.0565081,0.861459,0.0106698,-1.74872,-11.6924,-2.46003,14.6533,18.7892,-11.1905,-0.9506,11.2859,-1.92663,11.9287,-36.1072,-0.999801,11.0297,0.0762136,0.222719,-0.0781749,0.306594,-2.40606,0.562635,0.61821,0.0163546,0.645641,0.00835003,0.0390196,-0.936614,-0.0442422,1.43955,0.000674431,0,0,0,0,0,0,0,-2.96002,-27.159,-3.51012,20.9485,-0.414127,2.84081,-0.0301054,
0.22891,-0.0806207,0.312791,-2.4167,0.567602,0.646968,0.0162953,0.16938,-0.0707373,0.171703,-0.309961,0.081507,0.814411,0.0132326,-4.68714,-18.8142,-5.70951,20.2067,15.6243,-29.4052,1.60176,11.2063,-1.9093,11.8363,-35.587,-1.22035,11.0297,0.0834352,0.222719,-0.0781749,0.306594,-2.40606,0.562635,0.61821,0.0163546,0.645641,0.00835003,0.0390196,-0.936614,-0.0442422,1.43955,0.000674431,0,0,0,0,0,0,0,-2.96002,-27.159,-3.51012,20.9485,-0.414127,2.84081,-0.0301054,
0.229891,-0.0826273,0.313715,-2.41779,0.569004,0.650922,0.0166429,0.160021,-0.106753,0.160484,-0.275327,0.100233,0.750375,0.0192762,-5.84933,-22.5101,-7.01208,21.6461,11.7035,-40.0228,3.77727,11.1695,-1.8818,11.8071,-35.0627,-1.73992,11.0297,0.0962045,0.222719,-0.0781749,0.306594,-2.40606,0.562635,0.61821,0.0163546,0.645641,0.00835003,0.0390196,-0.936614,-0.0442422,1.43955,0.000674431,0,0,0,0,0,0,0,-2.96002,-27.159,-3.51012,20.9485,-0.414127,2.84081,-0.0301054,
0.234251,-0.0773072,0.326215,-2.44098,0.564168,0.687722,0.0165586,0.165814,-0.102924,0.166442,-0.273968,0.109785,0.794497,0.0184221,3.62036,2.39344,3.72374,0.849801,5.96999,27.5766,-0.533802,11.1956,-2.22325,11.8415,-35.9402,-0.908338,10.9185,0.0767817,0.230737,-0.0768758,0.322584,-2.43522,0.562297,0.669751,0.0163988,0.168767,0.0917711,0.526563,-0.77064,0.0325938,1.6092,0.00595931,-59.6092,10.4276,60.9429,20.7468,9.6045,21.2057,0.660609,-1.21045,-27.6073,-2.81188,23.2892,-1.8863,3.02666,-0.103348,
0.235432,-0.0789342,0.327359,-2.44224,0.565582,0.693412,0.0167969,0.162159,-0.123014,0.161754,-0.250741,0.1232,0.777849,0.0206945,-2.28408,-12.5564,-2.92989,14.5167,8.3847,-10.4049,1.42025,11.116,-2.20592,11.7492,-35.4199,-1.12889,10.9185,0.0840033,0.230737,-0.0768758,0.322584,-2.43522,0.562297,0.669751,0.0163988,0.168767,0.0917711,0.526563,-0.77064,0.0325938,1.6092,0.00595931,0,0,0,0,0,0,0,-1.21045,-27.6073,-2.81188,23.2892,-1.8863,3.02666,-0.103348,
0.236403,-0.0813144,0.328259,-2.44295,0.567057,0.697436,0.0171783,0.154011,-0.157916,0.151906,-0.218284,0.13543,0.722869,0.0260907,-5.09249,-21.8135,-6.15494,20.2856,7.64336,-34.3629,3.3726,11.0792,-2.17841,11.7199,-34.8957,-1.64846,10.9185,0.0967726,0.230737,-0.0768758,0.322584,-2.43522,0.562297,0.669751,0.0163988,0.168767,0.0917711,0.526563,-0.77064,0.0325938,1.6092,0.00595931,0,0,0,0,0,0,0,-1.21045,-27.6073,-2.81188,23.2892,-1.8863,3.02666,-0.103348,
0.237239,-0.0842559,0.328998,-2.44332,0.568502,0.700169,0.0177156,0.144113,-0.199869,0.139992,-0.183827,0.144453,0.646625,0.0343032,-6.18627,-26.2206,-7.44618,21.5356,5.63935,-47.6521,5.13283,11.012,-2.14418,11.6381,-34.3737,-1.94121,10.9185,0.11673,0.230737,-0.0768758,0.322584,-2.43522,0.562297,0.669751,0.0163988,0.168767,0.0917711,0.526563,-0.77064,0.0325938,1.6092,0.00595931,0,0,0,0,0,0,0,-1.21045,-27.6073,-2.81188,23.2892,-1.8863,3.02666,-0.103348,
0.250011,-0.0815694,0.33238,-2.46379,0.566475,0.733372,0.0171564,0.150271,-0.205541,0.146071,-0.180105,0.146679,0.6697,0.0342085,3.84862,-3.54534,3.7994,2.32605,1.39177,14.4219,-0.0591856,11.1023,-2.69802,11.7487,-35.3103,-1.04031,10.7521,0.0842045,0.246766,-0.0788631,0.329109,-2.45982,0.564314,0.718792,0.0167124,0.134192,-0.0446437,0.509546,-0.617301,0.1023,1.38296,0.0152826,-4.32189,-17.0519,-2.12713,19.1674,8.71331,-28.2797,1.16541,-0.171017,-22.7672,-0.213304,19.1553,-0.976261,5.04906,-0.143631,
0.251112,-0.0842555,0.333399,-2.46434,0.56784,0.73749,0.0175611,0.147739,-0.231585,0.142345,-0.157769,0.151487,0.638727,0.0374837,-1.58237,-16.2777,-2.32864,13.9603,3.0049,-19.3581,2.04695,11.0655,-2.67051,11.7194,-34.7861,-1.55989,10.7521,0.0969738,0.246766,-0.0788631,0.329109,-2.45982,0.564314,0.718792,0.0167124,0.134192,-0.0446437,0.509546,-0.617301,0.1023,1.38296,0.0152826,0,0,0,0,0,0,0,-0.171017,-22.7672,-0.213304,19.1553,-0.976261,5.04906,-0.143631,
0.25202,-0.0876143,0.334192,-2.46444,0.569212,0.740066,0.0181225,0.140876,-0.269239,0.133682,-0.128588,0.155494,0.575378,0.0440215,-4.28957,-23.5333,-5.4149,18.2379,2.50399,-39.5935,4.08617,10.9984,-2.63627,11.6376,-34.2641,-1.85263,10.7521,0.116932,0.246766,-0.0788631,0.329109,-2.45982,0.564314,0.718792,0.0167124,0.134192,-0.0446437,0.509546,-0.617301,0.1023,1.38296,0.0152826,0,0,0,0,0,0,0,-0.171017,-22.7672,-0.213304,19.1553,-0.976261,5.04906,-0.143631,
0.252834,-0.0914282,0.334863,-2.46424,0.570437,0.741485,0.0188462,0.133067,-0.310739,0.123725,-0.0979452,0.155001,0.495763,0.05331,-4.88023,-25.9378,-6.22302,19.1518,-0.308071,-49.759,5.8053,10.7425,-2.60264,11.3361,-33.7677,-1.83396,10.7521,0.115284,0.246766,-0.0788631,0.329109,-2.45982,0.564314,0.718792,0.0167124,0.134192,-0.0446437,0.509546,-0.617301,0.1023,1.38296,0.0152826,0,0,0,0,0,0,0,-0.171017,-22.7672,-0.213304,19.1553,-0.976261,5.04906,-0.143631,
0.25877,-0.091391,0.341826,-2.48248,0.570932,0.770342,0.0177751,0.13713,-0.318773,0.12726,-0.0947626,0.169173,0.508324,0.0499528,2.5389,-5.02124,2.20962,1.9891,8.85742,7.85064,-2.09826,11.0229,-3.16035,11.77,-34.841,-1.50355,10.5988,0.0975441,0.255981,-0.0865271,0.339239,-2.47999,0.567261,0.759302,0.0173114,0.527436,-0.17591,-0.0191678,-0.551664,0.0882754,1.12736,0.0180517,49.1555,-16.4082,-66.0892,8.20455,-1.75311,-31.9499,0.346141,0.967594,-16.5028,0.43733,19.4052,-0.261234,6.85906,-0.117081,
0.25979,-0.0948969,0.342711,-2.48251,0.572616,0.773141,0.018229,0.135185,-0.342667,0.123933,-0.0766387,0.177435,0.47662,0.0513109,-1.21529,-14.9339,-2.07915,11.3274,5.16391,-19.815,0.848809,10.9558,-3.12611,11.6882,-34.319,-1.79629,10.5988,0.117502,0.255981,-0.0865271,0.339239,-2.47999,0.567261,0.759302,0.0173114,0.527436,-0.17591,-0.0191678,-0.551664,0.0882754,1.12736,0.0180517,0,0,0,0,0,0,0,0.967594,-16.5028,0.43733,19.4052,-0.261234,6.85906,-0.117081,
0.260704,-0.0989099,0.343458,-2.48218,0.57405,0.774673,0.0188585,0.131015,-0.374459,0.117825,-0.0529061,0.177787,0.419614,0.0567849,-2.60653,-19.8695,-3.81802,14.8329,0.220347,-35.629,3.42128,10.6999,-3.09248,11.3866,-33.8226,-1.77762,10.5988,0.115854,0.255981,-0.0865271,0.339239,-2.47999,0.567261,0.759302,0.0173114,0.527436,-0.17591,-0.0191678,-0.551664,0.0882754,1.12736,0.0180517,0,0,0,0,0,0,0,0.967594,-16.5028,0.43733,19.4052,-0.261234,6.85906,-0.117081,
0.261574,-0.10325,0.344136,-2.48164,0.575174,0.775291,0.0196691,0.126541,-0.408057,0.111206,-0.028828,0.170349,0.351134,0.0656935,-2.79591,-20.9992,-4.13661,15.0488,-4.64889,-42.8,5.56784,10.4677,-3.02023,11.1703,-33.3156,-2.69226,10.5988,0.10962,0.255981,-0.0865271,0.339239,-2.47999,0.567261,0.759302,0.0173114,0.527436,-0.17591,-0.0191678,-0.551664,0.0882754,1.12736,0.0180517,0,0,0,0,0,0,0,0.967594,-16.5028,0.43733,19.4052,-0.261234,6.85906,-0.117081,
0.25878,-0.0913544,0.34183,-2.48243,0.570883,0.770332,0.0177741,0.131911,-0.396172,0.117189,-0.038835,0.180982,0.39238,0.0598445,3.35597,7.42855,3.73915,-6.25438,6.64584,25.7789,-3.65562,10.9558,-3.12611,11.6882,-34.319,-1.79629,10.5988,0.117502,0.255981,-0.0865271,0.339239,-2.47999,0.567261,0.759302,0.0173114,0.527436,-0.17591,-0.0191678,-0.551664,0.0882754,1.12736,0.0180517,0,0,0,0,0,0,0,0.967594,-16.5028,0.43733,19.4052,-0.261234,6.85906,-0.117081,
0.259822,-0.0948252,0.342733,-2.4824,0.572472,0.773112,0.0182225,0.131584,-0.403708,0.116303,-0.0304055,0.184496,0.383419,0.0590851,-0.204345,-4.7101,-0.553525,5.26842,2.19568,-5.60105,-0.474642,10.6999,-3.09248,11.3866,-33.8226,-1.77762,10.5988,0.115854,0.255981,-0.0865271,0.339239,-2.47999,0.567261,0.759302,0.0173114,0.527436,-0.17591,-0.0191678,-0.551664,0.0882754,1.12736,0.0180517,0,0,0,0,0,0,0,0.967594,-16.5028,0.43733,19.4052,-0.261234,6.85906,-0.117081,
0.260765,-0.0988058,0.343503,-2.482,0.57378,0.774622,0.0188454,0.128819,-0.422481,0.112298,-0.0143369,0.180301,0.344476,0.0628414,-1.7278,-11.7334,-2.503,10.0429,-2.62137,-24.3393,2.34772,10.4677,-3.02023,11.1703,-33.3156,-2.69226,10.5988,0.10962,0.255981,-0.0865271,0.339239,-2.47999,0.567261,0.759302,0.0173114,0.527436,-0.17591,-0.0191678,-0.551664,0.0882754,1.12736,0.0180517,0,0,0,0,0,0,0,0.967594,-16.5028,0.43733,19.4052,-0.261234,6.85906,-0.117081,
0.261659,-0.10312,0.344203,-2.4814,0.574774,0.775215,0.0196505,0.125422,-0.445843,0.107354,0.00344185,0.169093,0.2904,0.0704006,-2.12338,-14.6012,-3.08988,11.1117,-7.00529,-33.7972,4.72448,10.3465,-2.88594,11.0442,-32.7618,-3.28872,10.5988,0.103749,0.255981,-0.0865271,0.339239,-2.47999,0.567261,0.759302,0.0173114,0.527436,-0.17591,-0.0191678,-0.551664,0.0882754,1.12736,0.0180517,0,0,0,0,0,0,0,0.967594,-16.5028,0.43733,19.4052,-0.261234,6.85906,-0.117081,
0.258796,-0.0913068,0.341838,-2.48235,0.570809,0.770316,0.0177677,0.13151,-0.425563,0.114455,-0.0116269,0.178064,0.343556,0.0634779,3.80527,12.675,4.43803,-9.41798,5.6072,33.2226,-4.32668,10.6999,-3.09248,11.3866,-33.8226,-1.77762,10.5988,0.115854,0.255981,-0.0865271,0.339239,-2.47999,0.567261,0.759302,0.0173114,0.527436,-0.17591,-0.0191678,-0.551664,0.0882754,1.12736,0.0180517,0,0,0,0,0,0,0,0.967594,-16.5028,0.43733,19.4052,-0.261234,6.85906,-0.117081,
0.259864,-0.0947448,0.342761,-2.48227,0.572286,0.77308,0.0182095,0.131906,-0.4264,0.11465,-0.00708199,0.179383,0.343935,0.0618274,0.247111,-0.522945,0.12154,2.84058,0.824134,0.236766,-1.03153,10.4677,-3.02023,11.1703,-33.3156,-2.69226,10.5988,0.10962,0.255981,-0.0865271,0.339239,-2.47999,0.567261,0.759302,0.0173114,0.527436,-0.17591,-0.0191678,-0.551664,0.0882754,1.12736,0.0180517,0,0,0,0,0,0,0,0.967594,-16.5028,0.43733,19.4052,-0.261234,6.85906,-0.117081,
0.260831,-0.0986991,0.343553,-2.48181,0.573474,0.774569,0.0188267,0.129692,-0.43998,0.111521,0.00573751,0.173211,0.312376,0.0648917,-1.38376,-8.48738,-1.95575,8.01219,-3.85737,-19.7247,1.91513,10.3465,-2.88594,11.0442,-32.7618,-3.28872,10.5988,0.103749,0.255981,-0.0865271,0.339239,-2.47999,0.567261,0.759302,0.0173114,0.527436,-0.17591,-0.0191678,-0.551664,0.0882754,1.12736,0.0180517,0,0,0,0,0,0,0,0.967594,-16.5028,0.43733,19.4052,-0.261234,6.85906,-0.117081,
0.261747,-0.102994,0.344274,-2.48117,0.574352,0.775141,0.0196279,0.126656,-0.459357,0.107232,0.0207014,0.160517,0.264195,0.0719437,-1.89762,-12.111,-2.68059,9.35244,-7.93378,-30.113,4.40752,10.3307,-2.76025,11.0148,-32.1898,-3.65894,10.5988,0.0989695,0.255981,-0.0865271,0.339239,-2.47999,0.567261,0.759302,0.0173114,0.527436,-0.17591,-0.0191678,-0.551664,0.0882754,1.12736,0.0180517,0,0,0,0,0,0,0,0.967594,-16.5028,0.43733,19.4052,-0.261234,6.85906,-0.117081,
0.258847,-0.0912477,0.341879,-2.48225,0.57062,0.770304,0.0177576,0.133194,-0.43561,0.114949,0.00367697,0.168434,0.322358,0.0645733,4.0865,14.8421,4.82352,-10.6403,4.94814,36.3521,-4.60649,10.4677,-3.02023,11.1703,-33.3156,-2.69226,10.5988,0.10962,0.255981,-0.0865271,0.339239,-2.47999,0.567261,0.759302,0.0173114,0.527436,-0.17591,-0.0191678,-0.551664,0.0882754,1.12736,0.0180517,0,0,0,0,0,0,0,0.967594,-16.5028,0.43733,19.4052,-0.261234,6.85906,-0.117081,
0.259941,-0.0946601,0.342826,-2.4821,0.571978,0.773053,0.0181944,0.133905,-0.433797,0.115629,0.00655488,0.168684,0.326608,0.0625802,0.444285,1.13322,0.425052,1.79869,0.156102,2.65632,-1.2457,10.3465,-2.88594,11.0442,-32.7618,-3.28872,10.5988,0.103749,0.255981,-0.0865271,0.339239,-2.47999,0.567261,0.759302,0.0173114,0.527436,-0.17591,-0.0191678,-0.551664,0.0882754,1.12736,0.0180517,0,0,0,0,0,0,0,0.967594,-16.5028,0.43733,19.4052,-0.261234,6.85906,-0.117081,
0.26093,-0.0985951,0.343639,-2.4816,0.57305,0.774525,0.0188084,0.131852,-0.445413,0.11283,0.0178397,0.161751,0.298097,0.0654136,-1.28276,-7.26008,-1.74984,7.05304,-4.33308,-17.8193,1.77087,10.3307,-2.76025,11.0148,-32.1898,-3.65894,10.5988,0.0989695,0.255981,-0.0865271,0.339239,-2.47999,0.567261,0.759302,0.0173114,0.527436,-0.17591,-0.0191678,-0.551664,0.0882754,1.12736,0.0180517,0,0,0,0,0,0,0,0.967594,-16.5028,0.43733,19.4052,-0.261234,6.85906,-0.117081,
0.261863,-0.102877,0.344376,-2.48092,0.573827,0.77508,0.0196086,0.128801,-0.463373,0.108692,0.0313207,0.148821,0.252355,0.0723365,-1.90725,-11.225,-2.58625,8.42561,-8.08158,-28.5889,4.32681,10.3955,-2.6795,11.0643,-31.62,-3.88032,10.5988,0.0975182,0.255981,-0.0865271,0.339239,-2.47999,0.567261,0.759302,0.0173114,0.527436,-0.17591,-0.0191678,-0.551664,0.0882754,1.12736,0.0180517,0,0,0,0,0,0,0,0.967594,-16.5028,0.43733,19.4052,-0.261234,6.85906,-0.117081,
0.258884,-0.0911939,0.341908,-2.48216,0.570487,0.770294,0.0177507,0.135404,-0.438128,0.116533,0.0133968,0.157129,0.312695,0.0647963,4.12702,15.7784,4.9006,-11.2024,5.19272,37.7122,-4.71259,10.3465,-2.88594,11.0442,-32.7618,-3.28872,10.5988,0.103749,0.255981,-0.0865271,0.339239,-2.47999,0.567261,0.759302,0.0173114,0.527436,-0.17591,-0.0191678,-0.551664,0.0882754,1.12736,0.0180517,0,0,0,0,0,0,0,0.967594,-16.5028,0.43733,19.4052,-0.261234,6.85906,-0.117081,
0.259997,-0.0945832,0.342872,-2.48197,0.57176,0.773031,0.0181849,0.13615,-0.435235,0.117328,0.0154733,0.157516,0.318591,0.0626915,0.465973,1.80794,0.496839,1.29781,0.242008,3.68506,-1.3155,10.3307,-2.76025,11.0148,-32.1898,-3.65894,10.5988,0.0989695,0.255981,-0.0865271,0.339239,-2.47999,0.567261,0.759302,0.0173114,0.527436,-0.17591,-0.0191678,-0.551664,0.0882754,1.12736,0.0180517,0,0,0,0,0,0,0,0.967594,-16.5028,0.43733,19.4052,-0.261234,6.85906,-0.117081,
0.261001,-0.0985017,0.343699,-2.48142,0.572754,0.774491,0.018798,0.134023,-0.446151,0.11455,0.0259076,0.150869,0.291359,0.0654805,-1.32928,-6.82283,-1.73601,6.52146,-4.1545,-17.0198,1.74309,10.3955,-2.6795,11.0643,-31.62,-3.88032,10.5988,0.0975182,0.255981,-0.0865271,0.339239,-2.47999,0.567261,0.759302,0.0173114,0.527436,-0.17591,-0.0191678,-0.551664,0.0882754,1.12736,0.0180517,0,0,0,0,0,0,0,0.967594,-16.5028,0.43733,19.4052,-0.261234,6.85906,-0.117081,
0.258884,-0.0911939,0.341908,-2.48216,0.570487,0.770294,0.0177507,0.139582,-0.42435,0.121219,0.00906635,0.158768,0.343898,0.0593115,3.47428,13.6257,4.16831,-10.5258,4.93667,32.8367,-3.85559,10.3307,-2.76025,11.0148,-32.1898,-3.65894,10.5988,0.0989695,0.255981,-0.0865271,0.339239,-2.47999,0.567261,0.759302,0.0173114,0.527436,-0.17591,-0.0191678,-0.551664,0.0882754,1.12736,0.0180517,0,0,0,0,0,0,0,0.967594,-16.5028,0.43733,19.4052,-0.261234,6.85906,-0.117081,
0.260037,-0.0945179,0.342906,-2.48186,0.571608,0.773015,0.01818,0.139814,-0.423741,0.121379,0.0128993,0.157412,0.343339,0.0582851,0.145156,0.380682,0.0997015,2.3956,-0.84702,-0.349536,-0.64155,10.3955,-2.6795,11.0643,-31.62,-3.88032,10.5988,0.0975182,0.255981,-0.0865271,0.339239,-2.47999,0.567261,0.759302,0.0173114,0.527436,-0.17591,-0.0191678,-0.551664,0.0882754,1.12736,0.0180517,0,0,0,0,0,0,0,0.967594,-16.5028,0.43733,19.4052,-0.261234,6.85906,-0.117081,
0.26105,-0.0984228,0.343742,-2.48129,0.572554,0.774465,0.0187941,0.137183,-0.436615,0.118026,0.0245689,0.149571,0.310914,0.0619805,-1.64462,-8.04639,-2.09559,7.2935,-4.90055,-20.2652,2.30968,10.5002,-2.65195,11.1509,-31.0626,-3.9492,10.5988,0.0964497,0.255981,-0.0865271,0.339239,-2.47999,0.567261,0.759302,0.0173114,0.527436,-0.17591,-0.0191678,-0.551664,0.0882754,1.12736,0.0180517,0,0,0,0,0,0,0,0.967594,-16.5028,0.43733,19.4052,-0.261234,6.85906,-0.117081,
0.261996,-0.102684,0.344495,-2.48055,0.573233,0.774997,0.0195984,0.133407,-0.455817,0.113237,0.0379576,0.136638,0.262035,0.0696902,-2.35977,-12.0008,-2.99314,8.36795,-8.08328,-30.5498,4.81853,10.6246,-2.66989,11.2578,-30.5193,-3.91528,10.5988,0.097256,0.255981,-0.0865271,0.339239,-2.47999,0.567261,0.759302,0.0173114,0.527436,-0.17591,-0.0191678,-0.551664,0.0882754,1.12736,0.0180517,0,0,0,0,0,0,0,0.967594,-16.5028,0.43733,19.4052,-0.261234,6.85906,-0.117081,
