xiao-wang007/linearmpc_panda/paper_data/panda_torque_PD_controller_Start_at_0/3/trajectory.csv
Commanded Joint 0 Position,Commanded Joint 1 Position,Commanded Joint 2 Position,Commanded Joint 3 Position,Commanded Joint 4 Position,Commanded Joint 5 Position,Commanded Joint 6 Position,Commanded Joint 0 Velocity,Commanded Joint 1 Velocity,Commanded Joint 2 Velocity,Commanded Joint 3 Velocity,Commanded Joint 4 Velocity,Commanded Joint 5 Velocity,Commanded Joint 6 Velocity,Commanded Joint 0 Acceleration,Commanded Joint 1 Acceleration,Commanded Joint 2 Acceleration,Commanded Joint 3 Acceleration,Commanded Joint 4 Acceleration,Commanded Joint 5 Acceleration,Commanded Joint 6 Acceleration,Commanded Joint 0 Torque,Commanded Joint 1 Torque,Commanded Joint 2 Torque,Commanded Joint 3 Torque,Commanded Joint 4 Torque,Commanded Joint 5 Torque,Commanded Joint 6 Torque,Actual Joint 0 Position,Actual Joint 1 Position,Actual Joint 2 Position,Actual Joint 3 Position,Actual Joint 4 Position,Actual Joint 5 Position,Actual Joint 6 Position,Actual Joint 0 Velocity,Actual Joint 1 Velocity,Actual Joint 2 Velocity,Actual Joint 3 Velocity,Actual Joint 4 Velocity,Actual Joint 5 Velocity,Actual Joint 6 Velocity,Actual Joint 0 Acceleration,Actual Joint 1 Acceleration,Actual Joint 2 Acceleration,Actual Joint 3 Acceleration,Actual Joint 4 Acceleration,Actual Joint 5 Acceleration,Actual Joint 6 Acceleration,Actual Joint 0 Torque,Actual Joint 1 Torque,Actual Joint 2 Torque,Actual Joint 3 Torque,Actual Joint 4 Torque,Actual Joint 5 Torque,Actual Joint 6 Torque,
0.0292874,0.0698932,0.00706923,-1.71332,0.0171151,0.247882,-0.0470613,0.000600116,0.0244172,0.000461092,-0.0320007,-0.00508616,0.0539817,-0.00038127,0.375072,15.2608,0.288183,-20.0004,-3.17885,33.7386,-0.238294,0.0563863,26.7755,-0.0339194,-24.3795,-0.694893,1.92372,-0.0244685,0.0292323,0.0684781,0.00702554,-1.71079,0.0174318,0.2421,-0.0470121,0.00193661,2.02942e-05,-0.000332903,-0.00760571,-0.00487763,-0.000456164,0.000373506,0,0,0,0,0,0,0,0.0551182,-37.4144,0.163588,27.3001,0.893246,3.32512,0.00376909,
0.0292423,0.0685195,0.00703409,-1.71083,0.0173836,0.24201,-0.0470125,0.000530283,0.0198559,0.000412821,-0.0258383,-0.00427578,0.0425573,-0.000308849,-0.0436458,-2.85081,-0.0301695,3.85149,0.506489,-7.14022,0.0452633,0.0506242,27.2159,-0.0442486,-24.2959,-0.694906,1.67299,-0.0229519,0.0292323,0.0684781,0.00702554,-1.71079,0.0174318,0.2421,-0.0470121,0.00193661,2.02942e-05,-0.000332903,-0.00760571,-0.00487763,-0.000456164,0.000373506,0,0,0,0,0,0,0,0.0551182,-37.4144,0.163588,27.3001,0.893246,3.32512,0.00376909,
0.0292436,0.0685305,0.00703525,-1.71084,0.017379,0.241991,-0.0470126,0.000457668,0.0161606,0.000359323,-0.0208588,-0.00353706,0.0335615,-0.000249691,-0.0453842,-2.30957,-0.0334359,3.11216,0.461698,-5.62243,0.0369738,0.0434038,27.7873,-0.0559728,-24.188,-0.694084,1.32559,-0.020984,0.0292323,0.0684781,0.00702554,-1.71079,0.0174318,0.2421,-0.0470121,0.00193661,2.02942e-05,-0.000332903,-0.00760571,-0.00487763,-0.000456164,0.000373506,0,0,0,0,0,0,0,0.0551182,-37.4144,0.163588,27.3001,0.893246,3.32512,0.00376909,
0.0292445,0.0685399,0.00703603,-1.71085,0.0173763,0.241976,-0.0470127,0.00038896,0.0131628,0.000307017,-0.0168387,-0.00289535,0.0264824,-0.000201597,-0.0429424,-1.87363,-0.0326915,2.51259,0.401072,-4.42442,0.0300584,0.0374627,28.3112,-0.0653846,-24.0202,-0.691771,0.940593,-0.0189822,0.0292323,0.0684781,0.00702554,-1.71079,0.0174318,0.2421,-0.0470121,0.00193661,2.02942e-05,-0.000332903,-0.00760571,-0.00487763,-0.000456164,0.000373506,0,0,0,0,0,0,0,0.0551182,-37.4144,0.163588,27.3001,0.893246,3.32512,0.00376909,
0.0291339,0.0685157,0.0069114,-1.7107,0.0197692,0.240568,-0.0470359,-0.00117028,0.0108806,-0.00134448,-0.0123723,0.0336958,-0.00212017,-0.00038651,-0.974524,-1.42638,-1.03219,2.79148,22.8695,-17.8766,-0.11557,0.475796,0.23663,0.474695,-0.28251,3.01227,-2.09055,-0.00196019,0.0292201,0.0690931,0.00702033,-1.71189,0.0173678,0.243875,-0.0470136,-0.000860892,0.0758711,0.000361866,-0.117297,-0.00418016,0.191572,-0.00080478,-0.349688,9.48135,0.0868461,-13.7114,0.0871833,24.0035,-0.147286,0.25745,-21.3191,0.238966,11.0104,0.306393,1.58105,0.017502,
0.0290738,0.0685201,0.00685052,-1.71067,0.0215238,0.239425,-0.0470409,-0.00243898,0.00881351,-0.00259745,-0.00905103,0.07082,-0.0302683,-0.00043555,-0.792936,-1.29192,-0.783104,2.07579,23.2026,-17.5926,-0.0306504,0.470865,0.234387,0.469858,-0.279647,2.9865,-2.07328,-0.0019171,0.0292201,0.0690931,0.00702033,-1.71189,0.0173678,0.243875,-0.0470136,-0.000860892,0.0758711,0.000361866,-0.117297,-0.00418016,0.191572,-0.00080478,0,0,0,0,0,0,0,0.25745,-21.3191,0.238966,11.0104,0.306393,1.58105,0.017502,
0.0290217,0.0685188,0.00679935,-1.71065,0.0234596,0.238144,-0.0470438,-0.00325311,0.0070202,-0.00335716,-0.00666978,0.105051,-0.0562409,-0.000419885,-0.508833,-1.12082,-0.474822,1.48828,21.3942,-16.2329,0.00979098,0.465932,0.231933,0.465016,-0.276916,2.96069,-2.05589,-0.00188102,0.0292201,0.0690931,0.00702033,-1.71189,0.0173678,0.243875,-0.0470136,-0.000860892,0.0758711,0.000361866,-0.117297,-0.00418016,0.191572,-0.00080478,0,0,0,0,0,0,0,0.25745,-21.3191,0.238966,11.0104,0.306393,1.58105,0.017502,
0.028981,0.0685154,0.00676025,-1.71063,0.0254993,0.236773,-0.0470455,-0.00361944,0.00552929,-0.00366336,-0.00500119,0.135033,-0.0792822,-0.000378368,-0.228956,-0.93182,-0.191375,1.04287,18.7387,-14.4008,0.0259478,0.461018,0.229404,0.460193,-0.274249,2.93475,-2.03843,-0.00184417,0.0292201,0.0690931,0.00702033,-1.71189,0.0173678,0.243875,-0.0470136,-0.000860892,0.0758711,0.000361866,-0.117297,-0.00418016,0.191572,-0.00080478,0,0,0,0,0,0,0,0.25745,-21.3191,0.238966,11.0104,0.306393,1.58105,0.017502,
0.0289889,0.0702518,0.00673754,-1.71196,0.0249367,0.237633,-0.0470817,-0.00615426,0.0168374,-0.00659162,-0.00354433,0.224301,-0.165267,-0.000923224,-1.58426,7.06758,-1.83016,0.910536,55.7927,-53.7405,-0.340535,4.13259,1.23903,4.05689,-1.79184,10.2271,-9.91806,-0.00172953,0.0292201,0.0690931,0.00702033,-1.71189,0.0173678,0.243875,-0.0470136,-0.000860892,0.0758711,0.000361866,-0.117297,-0.00418016,0.191572,-0.00080478,0,0,0,0,0,0,0,0.25745,-21.3191,0.238966,11.0104,0.306393,1.58105,0.017502,
0.0288816,0.0706046,0.00662433,-1.71196,0.0305716,0.232427,-0.0470934,-0.00760585,0.0222887,-0.00810345,-0.00288429,0.320314,-0.262367,-0.00103171,-0.907244,3.40703,-0.944892,0.412525,60.0081,-60.6875,-0.0678009,4.01205,1.38984,3.9167,-1.76987,9.96595,-9.70525,-0.00138189,0.0292145,0.0733047,0.00702257,-1.71697,0.0198211,0.24719,-0.0470173,-0.00261336,0.07155,-0.00111014,-0.0923581,0.209862,-0.190256,-0.00138409,-0.219058,-0.540139,-0.184001,3.11736,26.7553,-47.7285,-0.0724131,0.384403,-34.4945,0.389723,33.4534,2.16949,3.56316,0.050461,
0.0288196,0.0708598,0.00656112,-1.712,0.0367478,0.226524,-0.047098,-0.00763326,0.0242106,-0.00806306,-0.00326239,0.410657,-0.357464,-0.000939537,-0.0171283,1.2012,0.0252413,-0.23631,56.4644,-59.4356,0.0576055,3.89736,1.36667,3.79804,-1.73597,9.7364,-9.51215,-0.00162296,0.0292145,0.0733047,0.00702257,-1.71697,0.0198211,0.24719,-0.0470173,-0.00261336,0.07155,-0.00111014,-0.0923581,0.209862,-0.190256,-0.00138409,0,0,0,0,0,0,0,0.384403,-34.4945,0.389723,33.4534,2.16949,3.56316,0.050461,
0.0288092,0.0710534,0.00655121,-1.71207,0.0432035,0.220203,-0.047099,-0.00636797,0.024209,-0.00669808,-0.00436551,0.489916,-0.443996,-0.000778059,0.790805,-0.000974885,0.853115,-0.689453,49.5368,-54.0824,0.100923,3.78557,1.33579,3.68727,-1.70591,9.51223,-9.32503,-0.00218166,0.0292145,0.0733047,0.00702257,-1.71697,0.0198211,0.24719,-0.0470173,-0.00261336,0.07155,-0.00111014,-0.0923581,0.209862,-0.190256,-0.00138409,0,0,0,0,0,0,0,0.384403,-34.4945,0.389723,33.4534,2.16949,3.56316,0.050461,
0.0301418,0.074108,0.00791602,-1.71771,0.027847,0.23533,-0.0468597,0.00996428,0.0277988,0.00907398,-0.0121278,0.508164,-0.529248,0.00138087,10.2077,2.24364,9.85754,-4.85143,11.4048,-53.2823,1.34933,26.7946,1.93431,26.0379,-10.5236,10.9185,-14.2531,0.0959524,0.0292145,0.0733047,0.00702257,-1.71697,0.0198211,0.24719,-0.0470173,-0.00261336,0.07155,-0.00111014,-0.0923581,0.209862,-0.190256,-0.00138409,0,0,0,0,0,0,0,0.384403,-34.4945,0.389723,33.4534,2.16949,3.56316,0.050461,
0.0309592,0.0743273,0.00870343,-1.7181,0.0334463,0.22703,-0.0467574,0.0284063,0.0277221,0.0269445,-0.019221,0.546514,-0.630889,0.00366169,11.5263,-0.047948,11.169,-4.43327,23.9689,-63.526,1.42551,25.303,2.48912,24.4475,-9.22603,10.7626,-14.23,0.0941959,0.0290013,0.0767746,0.00680339,-1.71712,0.0364656,0.232049,-0.0470154,-0.0111355,0.178339,-0.0327484,0.0229745,0.900995,-0.722563,0.00230642,-1.06527,13.3486,-3.95478,14.4166,86.3916,-66.5383,0.461313,5.30384,-46.674,5.46388,22.3688,3.51257,-2.13874,-0.00996382,
0.0319332,0.0743975,0.00964968,-1.71859,0.0397752,0.217874,-0.0466012,0.0470752,0.0239336,0.0452117,-0.027846,0.595433,-0.733622,0.00683369,11.6681,-2.3678,11.417,-5.3906,30.5746,-64.2081,1.9825,24.045,1.38908,23.2385,-8.33097,10.7626,-14.23,0.122137,0.0290013,0.0767746,0.00680339,-1.71712,0.0364656,0.232049,-0.0470154,-0.0111355,0.178339,-0.0327484,0.0229745,0.900995,-0.722563,0.00230642,0,0,0,0,0,0,0,5.30384,-46.674,5.46388,22.3688,3.51257,-2.13874,-0.00996382,
0.030397,0.0778744,0.00824793,-1.71907,0.0491573,0.217281,-0.0466652,0.060836,0.0300105,0.0594216,-0.0489678,0.633569,-0.787204,0.00915585,8.60048,3.79805,8.8812,-13.2011,23.8349,-33.4889,1.45135,35.6803,1.94223,34.725,-19.1805,10.7626,-14.23,0.197847,0.0290013,0.0767746,0.00680339,-1.71712,0.0364656,0.232049,-0.0470154,-0.0111355,0.178339,-0.0327484,0.0229745,0.900995,-0.722563,0.00230642,0,0,0,0,0,0,0,5.30384,-46.674,5.46388,22.3688,3.51257,-2.13874,-0.00996382,
0.0316261,0.0781864,0.00944832,-1.72021,0.0556701,0.208345,-0.046516,0.0793961,0.0318095,0.0775472,-0.067863,0.669675,-0.853176,0.0110541,11.6001,1.12433,11.3285,-11.8095,22.5665,-41.2323,1.18638,32.6127,2.85175,31.6479,-17.7253,10.7626,-14.23,0.141317,0.0290013,0.0767746,0.00680339,-1.71712,0.0364656,0.232049,-0.0470154,-0.0111355,0.178339,-0.0327484,0.0229745,0.900995,-0.722563,0.00230642,0,0,0,0,0,0,0,5.30384,-46.674,5.46388,22.3688,3.51257,-2.13874,-0.00996382,
0.033032,0.0783844,0.0108164,-1.72147,0.0625581,0.198802,-0.0463794,0.0986628,0.0303963,0.0962405,-0.0856724,0.707942,-0.92111,0.0122569,12.0417,-0.883201,11.6833,-11.1309,23.9165,-42.4586,0.751794,30.2844,2.67953,29.2691,-17.1713,10.7597,-13.8855,0.164086,0.0300775,0.0795949,0.00921979,-1.71831,0.0656966,0.193892,-0.0470055,0.153563,0.00650883,0.219311,-0.0884142,0.856892,-1.36224,0.00516667,20.5873,-21.4788,31.5074,-13.9236,-5.51295,-79.96,0.357532,20.2922,-37.8389,19.1113,16.763,4.50866,-3.1797,0.0577852,
0.0345219,0.0785176,0.0122753,-1.72278,0.0698548,0.188819,-0.0463066,0.116178,0.0276461,0.113465,-0.10138,0.74877,-0.986453,0.0116252,10.9468,-1.71889,10.7654,-9.81705,25.5177,-40.8395,-0.394835,27.4428,1.27521,26.587,-17.681,10.7597,-13.8855,0.159867,0.0300775,0.0795949,0.00921979,-1.71831,0.0656966,0.193892,-0.0470055,0.153563,0.00650883,0.219311,-0.0884142,0.856892,-1.36224,0.00516667,0,0,0,0,0,0,0,20.2922,-37.8389,19.1113,16.763,4.50866,-3.1797,0.0577852,
0.033955,0.078955,0.012935,-1.72179,0.0798246,0.173508,-0.0466944,0.143684,0.0141423,0.139406,-0.126497,0.778751,-1.04495,0.0126617,17.1916,-8.43988,16.213,-15.6985,18.7384,-36.5597,0.64784,39.0519,-1.86869,37.1913,-26.9117,10.7597,-13.8855,0.200808,0.0300775,0.0795949,0.00921979,-1.71831,0.0656966,0.193892,-0.0470055,0.153563,0.00650883,0.219311,-0.0884142,0.856892,-1.36224,0.00516667,0,0,0,0,0,0,0,20.2922,-37.8389,19.1113,16.763,4.50866,-3.1797,0.0577852,
0.0360588,0.0786563,0.0149511,-1.72367,0.0873689,0.163146,-0.0465982,0.167541,0.00384599,0.161927,-0.148253,0.81161,-1.09502,0.0125353,14.9108,-6.43519,14.0756,-13.5974,20.5364,-31.292,-0.0790043,34.7039,-1.19657,33.2493,-25.649,10.7597,-13.8855,0.151624,0.0300775,0.0795949,0.00921979,-1.71831,0.0656966,0.193892,-0.0470055,0.153563,0.00650883,0.219311,-0.0884142,0.856892,-1.36224,0.00516667,0,0,0,0,0,0,0,20.2922,-37.8389,19.1113,16.763,4.50866,-3.1797,0.0577852,
0.0381632,0.0783898,0.0169646,-1.72557,0.0952752,0.152654,-0.0465766,0.186644,-0.00358476,0.179878,-0.16613,0.846945,-1.13832,0.0105677,11.9389,-4.64422,11.2197,-11.1733,22.0848,-27.0681,-1.22976,30.8859,-1.40001,29.6187,-25.5779,10.6286,-13.5755,0.115456,0.0381604,0.0812836,0.0164842,-1.72566,0.0988088,0.143904,-0.0468446,0.276566,0.0878483,0.114719,-0.241493,1.03368,-1.61826,0.00311354,15.3754,10.1674,-13.074,-19.1348,22.0985,-32.0024,-0.256642,17.9595,-37.1922,16.9849,26.4789,3.92822,-1.38252,0.138352,
0.0402234,0.0781724,0.0189474,-1.72745,0.103476,0.142042,-0.0466037,0.200819,-0.00830284,0.193472,-0.179812,0.882584,-1.17596,0.00777764,8.8597,-2.9488,8.4962,-8.55078,22.2745,-23.5199,-1.7438,27.4249,-1.37586,26.2937,-25.2141,10.6286,-13.5755,0.0277186,0.0381604,0.0812836,0.0164842,-1.72566,0.0988088,0.143904,-0.0468446,0.276566,0.0878483,0.114719,-0.241493,1.03368,-1.61826,0.00311354,0,0,0,0,0,0,0,17.9595,-37.1922,16.9849,26.4789,3.92822,-1.38252,0.138352,
0.0420684,0.0820027,0.0202609,-1.73077,0.114487,0.120664,-0.0467389,0.211081,0.00119135,0.203579,-0.209076,0.90189,-1.22577,0.00697877,6.41377,5.93387,6.31685,-18.2904,12.0663,-31.1321,-0.499298,34.8188,2.49277,33.5082,-31.3758,10.6286,-13.5755,0.0656559,0.0381604,0.0812836,0.0164842,-1.72566,0.0988088,0.143904,-0.0468446,0.276566,0.0878483,0.114719,-0.241493,1.03368,-1.61826,0.00311354,0,0,0,0,0,0,0,17.9595,-37.1922,16.9849,26.4789,3.92822,-1.38252,0.138352,
0.0441199,0.0822697,0.0222421,-1.7334,0.122475,0.109699,-0.0467822,0.22015,0.00762875,0.212393,-0.232913,0.921205,-1.25475,0.00449919,5.6682,4.02337,5.50876,-14.8979,12.0716,-18.1145,-1.54974,30.8115,1.52647,29.7177,-31.1239,10.6286,-13.4481,0.0235487,0.0381604,0.0812836,0.0164842,-1.72566,0.0988088,0.143904,-0.0468446,0.276566,0.0878483,0.114719,-0.241493,1.03368,-1.61826,0.00311354,0,0,0,0,0,0,0,17.9595,-37.1922,16.9849,26.4789,3.92822,-1.38252,0.138352,
0.0461561,0.0825201,0.0242043,-1.73599,0.130643,0.0991765,-0.0468703,0.227028,0.0123638,0.218971,-0.251115,0.941152,-1.26685,0.00139789,4.2982,2.95943,4.11092,-11.3765,12.467,-7.56416,-1.93831,27.7029,1.34713,26.7422,-30.4553,10.7287,-12.0858,-0.0605538,0.0485325,0.0786803,0.0293511,-1.73946,0.135374,0.0841766,-0.0467428,0.313263,0.0307386,0.407246,-0.346393,1.13065,-1.83633,8.09232e-05,4.58709,-7.13871,36.5658,-13.1125,12.1216,-27.2584,-0.379077,16.567,-33.7209,14.8108,23.3646,4.32556,-0.560373,0.050461,
0.0481529,0.0827608,0.026128,-1.73853,0.138958,0.0891107,-0.0469724,0.231541,0.0159071,0.223268,-0.264429,0.96081,-1.26513,-0.00143402,2.82085,2.21456,2.68572,-8.32087,12.2863,1.07944,-1.76994,25.2602,1.44856,24.3787,-29.7393,10.7287,-11.3784,-0.109891,0.0485325,0.0786803,0.0293511,-1.73946,0.135374,0.0841766,-0.0467428,0.313263,0.0307386,0.407246,-0.346393,1.13065,-1.83633,8.09232e-05,0,0,0,0,0,0,0,16.567,-33.7209,14.8108,23.3646,4.32556,-0.560373,0.050461,
0.0540639,0.0787533,0.0346756,-1.74601,0.153703,0.0613521,-0.0468751,0.252745,0.0134129,0.243493,-0.293774,0.998147,-1.27709,-0.00363893,13.2524,-1.55891,12.6405,-18.3409,23.3357,-7.47699,-1.37807,30.3944,-1.80201,29.1831,-35.7501,10.7287,-9.52457,-0.0345442,0.0485325,0.0786803,0.0293511,-1.73946,0.135374,0.0841766,-0.0467428,0.313263,0.0307386,0.407246,-0.346393,1.13065,-1.83633,8.09232e-05,0,0,0,0,0,0,0,16.567,-33.7209,14.8108,23.3646,4.32556,-0.560373,0.050461,
0.0566146,0.0787925,0.0371268,-1.74921,0.162889,0.0520286,-0.0470144,0.265963,0.0117096,0.256074,-0.315085,1.02815,-1.25476,-0.00639388,8.26152,-1.06454,7.86326,-13.3189,18.7525,13.9568,-1.72185,26.7885,-1.90261,25.792,-35.1684,10.7287,-8.45876,-0.117136,0.0485325,0.0786803,0.0293511,-1.73946,0.135374,0.0841766,-0.0467428,0.313263,0.0307386,0.407246,-0.346393,1.13065,-1.83633,8.09232e-05,0,0,0,0,0,0,0,16.567,-33.7209,14.8108,23.3646,4.32556,-0.560373,0.050461,
0.0590192,0.0788361,0.0394379,-1.75231,0.172044,0.0437756,-0.0471621,0.272885,0.010459,0.262636,-0.329521,1.05141,-1.21013,-0.00880769,4.32611,-0.781639,4.10116,-9.02268,14.5348,27.891,-1.50863,24.6467,-1.60313,23.7182,-34.0524,10.7183,-6.93952,-0.165498,0.0631086,0.0779677,0.0429292,-1.75803,0.178822,0.0207097,-0.0467792,0.455245,-0.0009436,0.43285,-0.539825,1.32921,-1.84207,-0.00282307,17.7477,-3.96028,3.20044,-24.1791,24.8194,-0.717774,-0.362999,6.04175,-35.2681,5.71382,24.5865,3.09784,0.632559,0.11821,
0.0693396,0.0780086,0.0489218,-1.76672,0.199774,0.00412059,-0.0472579,0.292321,0.00966931,0.281316,-0.369688,1.10021,-1.13439,-0.0132598,12.1473,-0.493556,11.6753,-25.1047,30.5044,47.3418,-2.78258,21.5484,-3.6938,20.7503,-40.1919,10.7183,1.63024,-0.277827,0.0631086,0.0779677,0.0429292,-1.75803,0.178822,0.0207097,-0.0467792,0.455245,-0.0009436,0.43285,-0.539825,1.32921,-1.84207,-0.00282307,0,0,0,0,0,0,0,6.04175,-35.2681,5.71382,24.5865,3.09784,0.632559,0.11821,
0.0720335,0.0780899,0.0515143,-1.77072,0.209856,-0.000117482,-0.0474937,0.301205,0.00976834,0.289867,-0.395584,1.13221,-1.01346,-0.0165045,5.55268,0.0618951,5.34417,-16.1846,20.0001,75.5785,-2.02791,20.055,-3.36215,19.3526,-39.399,10.7183,2.45265,-0.29069,0.0631086,0.0779677,0.0429292,-1.75803,0.178822,0.0207097,-0.0467792,0.455245,-0.0009436,0.43285,-0.539825,1.32921,-1.84207,-0.00282307,0,0,0,0,0,0,0,6.04175,-35.2681,5.71382,24.5865,3.09784,0.632559,0.11821,
0.0744999,0.0781672,0.0538882,-1.77448,0.219649,-0.00256407,-0.0477032,0.302624,0.00974673,0.291241,-0.410554,1.15059,-0.871933,-0.0184401,0.886992,-0.0135082,0.858827,-9.35613,11.4833,88.4547,-1.20977,19.2025,-3.0354,18.5498,-38.6532,10.7183,3.05608,-0.272784,0.0631086,0.0779677,0.0429292,-1.75803,0.178822,0.0207097,-0.0467792,0.455245,-0.0009436,0.43285,-0.539825,1.32921,-1.84207,-0.00282307,0,0,0,0,0,0,0,6.04175,-35.2681,5.71382,24.5865,3.09784,0.632559,0.11821,
0.0767736,0.0782203,0.0560768,-1.77806,0.22917,-0.00357813,-0.047881,0.29894,0.00912523,0.287707,-0.417779,1.1585,-0.722898,-0.0191967,-2.30292,-0.388434,-2.20861,-4.5159,4.94556,93.147,-0.472853,18.8831,-3.40686,18.2005,-36.9815,10.6318,4.06133,-0.249193,0.080927,0.0768708,0.0595724,-1.78504,0.227042,-0.0283786,-0.0470889,0.561678,-0.103508,0.515364,-0.934488,1.60702,-1.03936,-0.0256296,13.3041,-12.8206,10.3143,-49.3328,34.7261,100.339,-2.85081,1.2215,-35.1967,1.18715,26.2567,2.12005,4.99596,-0.0163725,
0.0879543,0.0768756,0.0663208,-1.79578,0.250723,-0.033771,-0.0478517,0.32053,0.00938192,0.308403,-0.459474,1.21522,-0.602768,-0.0243763,13.4939,0.160432,12.9346,-26.0594,35.4521,75.0813,-3.23725,12.395,-6.69252,11.9335,-43.3321,10.6318,12.2323,-0.485653,0.080927,0.0768708,0.0595724,-1.78504,0.227042,-0.0283786,-0.0470889,0.561678,-0.103508,0.515364,-0.934488,1.60702,-1.03936,-0.0256296,0,0,0,0,0,0,0,1.2215,-35.1967,1.18715,26.2567,2.12005,4.99596,-0.0163725,
0.0907991,0.0769634,0.0690588,-1.80035,0.26167,-0.0321382,-0.0481545,0.327545,0.00970166,0.315172,-0.481817,1.24586,-0.441392,-0.0270689,4.38418,0.199835,4.23098,-13.9644,19.1467,100.86,-1.68288,13.1615,-6.27086,12.7067,-42.6719,10.6318,12.2323,-0.417471,0.080927,0.0768708,0.0595724,-1.78504,0.227042,-0.0283786,-0.0470889,0.561678,-0.103508,0.515364,-0.934488,1.60702,-1.03936,-0.0256296,0,0,0,0,0,0,0,1.2215,-35.1967,1.18715,26.2567,2.12005,4.99596,-0.0163725,
0.0933173,0.0770141,0.0714842,-1.80459,0.272074,-0.0285851,-0.0484001,0.324992,0.00902906,0.312772,-0.491347,1.25677,-0.264288,-0.0277966,-1.59558,-0.420375,-1.50024,-5.95632,6.81991,110.69,-0.454814,13.803,-5.67661,13.3517,-41.9905,10.6318,12.2323,-0.347046,0.080927,0.0768708,0.0595724,-1.78504,0.227042,-0.0283786,-0.0470889,0.561678,-0.103508,0.515364,-0.934488,1.60702,-1.03936,-0.0256296,0,0,0,0,0,0,0,1.2215,-35.1967,1.18715,26.2567,2.12005,4.99596,-0.0163725,
0.0955798,0.0770191,0.0736667,-1.80855,0.281851,-0.0236272,-0.0485969,0.316554,0.00734676,0.30478,-0.492044,1.24984,-0.0874817,-0.0271567,-5.27356,-1.05144,-4.99483,-0.435457,-4.33023,110.504,0.399941,14.2302,-4.93687,13.781,-41.251,10.6318,12.2323,-0.279993,0.080927,0.0768708,0.0595724,-1.78504,0.227042,-0.0283786,-0.0470889,0.561678,-0.103508,0.515364,-0.934488,1.60702,-1.03936,-0.0256296,0,0,0,0,0,0,0,1.2215,-35.1967,1.18715,26.2567,2.12005,4.99596,-0.0163725,
0.0874901,0.0765714,0.0658741,-1.79627,0.251167,-0.0336945,-0.0480479,0.32779,0.00383513,0.315618,-0.525246,1.29139,-0.0941742,-0.0323937,7.02273,-2.19477,6.7739,-20.7514,25.9705,-4.18284,-3.27316,2.97907,-10.6235,2.87939,-45.8852,10.2647,12.4684,-0.644309,0.10011,0.0750204,0.0783339,-1.82105,0.285098,-0.0429327,-0.0481692,0.511276,-0.193422,0.531984,-1.12685,1.80685,0.190426,-0.0566433,-6.30025,-11.2392,2.0775,-24.0458,24.9796,153.723,-3.87672,-5.16583,-33.4987,-4.56145,20.9009,1.44256,5.30083,0.0577852,
0.0900513,0.0765017,0.0683542,-1.80105,0.261555,-0.0320986,-0.0483737,0.326262,0.00132578,0.314497,-0.53981,1.29282,-0.0354399,-0.034059,-0.954912,-1.56835,-0.700966,-9.10243,0.887863,36.7089,-1.04081,5.93528,-9.63718,5.75412,-45.1847,9.42355,12.4684,-0.498668,0.10011,0.0750204,0.0783339,-1.82105,0.285098,-0.0429327,-0.0481692,0.511276,-0.193422,0.531984,-1.12685,1.80685,0.190426,-0.0566433,0,0,0,0,0,0,0,-5.16583,-33.4987,-4.56145,20.9009,1.44256,5.30083,0.0577852,
0.0923094,0.0764091,0.0705466,-1.80546,0.270481,-0.0285997,-0.0486247,0.317462,-0.0012548,0.306408,-0.542066,1.25738,0.0591191,-0.0335216,-5.5001,-1.61286,-5.05565,-1.40993,-22.1463,59.0994,0.335916,7.93772,-8.31208,7.70652,-44.3401,7.65134,12.4684,-0.382364,0.10011,0.0750204,0.0783339,-1.82105,0.285098,-0.0429327,-0.0481692,0.511276,-0.193422,0.531984,-1.12685,1.80685,0.190426,-0.0566433,0,0,0,0,0,0,0,-5.16583,-33.4987,-4.56145,20.9009,1.44256,5.30083,0.0577852,
0.106678,0.0746255,0.0846654,-1.83171,0.308746,-0.0386781,-0.0489236,0.329265,-0.00350136,0.317867,-0.554359,1.28153,0.118711,-0.0351594,7.37681,-1.4041,7.16213,-7.68297,15.0948,37.2452,-1.02365,5.93528,-9.63718,5.75412,-45.1847,9.42355,12.4684,-0.498668,0.10011,0.0750204,0.0783339,-1.82105,0.285098,-0.0429327,-0.0481692,0.511276,-0.193422,0.531984,-1.12685,1.80685,0.190426,-0.0566433,0,0,0,0,0,0,0,-5.16583,-33.4987,-4.56145,20.9009,1.44256,5.30083,0.0577852,
0.109282,0.0745087,0.0871878,-1.83606,0.318147,-0.0343931,-0.0491833,0.328522,-0.00572057,0.317355,-0.55228,1.26025,0.202093,-0.03462,-0.464643,-1.38701,-0.3202,1.29921,-13.3012,52.1133,0.337149,7.9172,-8.92901,7.63979,-44.1814,7.40778,12.3959,-0.384367,0.117883,0.074063,0.0957174,-1.859,0.342969,-0.0250952,-0.0495448,0.46508,-0.170699,0.424792,-1.23088,1.65432,0.744362,-0.0714079,-5.77453,2.84033,-13.399,-13.0036,-19.0665,69.2421,-1.84557,-12.0134,-38.5133,-11.2344,25.0586,-0.664982,4.31939,-0.123489,
0.111581,0.0743474,0.0894172,-1.84009,0.325888,-0.0289594,-0.0493841,0.320294,-0.00861097,0.309619,-0.542528,1.20172,0.297518,-0.0327161,-5.14235,-1.8065,-4.83503,6.09474,-36.5829,59.6407,1.18993,9.22049,-7.55506,8.87818,-43.3077,5.75341,12.3959,-0.299396,0.117883,0.074063,0.0957174,-1.859,0.342969,-0.0250952,-0.0495448,0.46508,-0.170699,0.424792,-1.23088,1.65432,0.744362,-0.0714079,0,0,0,0,0,0,0,-12.0134,-38.5133,-11.2344,25.0586,-0.664982,4.31939,-0.123489,
0.113642,0.0741451,0.0914171,-1.84388,0.332089,-0.0226317,-0.0495373,0.307768,-0.011945,0.297692,-0.528778,1.11641,0.396207,-0.0300019,-7.82882,-2.08374,-7.45434,8.59394,-53.3171,61.6805,1.69638,10.1067,-6.20633,9.69863,-42.3828,4.05159,12.3959,-0.234343,0.117883,0.074063,0.0957174,-1.859,0.342969,-0.0250952,-0.0495448,0.46508,-0.170699,0.424792,-1.23088,1.65432,0.744362,-0.0714079,0,0,0,0,0,0,0,-12.0134,-38.5133,-11.2344,25.0586,-0.664982,4.31939,-0.123489,
0.123707,0.0743333,0.101328,-1.86964,0.362404,-0.0165804,-0.0501091,0.313569,-0.00433709,0.303173,-0.541533,1.11411,0.430375,-0.0303125,3.62557,4.75491,3.42575,-7.97212,-1.44001,21.3555,-0.19415,7.9172,-8.92901,7.63979,-44.1814,7.40778,12.3959,-0.384367,0.117883,0.074063,0.0957174,-1.859,0.342969,-0.0250952,-0.0495448,0.46508,-0.170699,0.424792,-1.23088,1.65432,0.744362,-0.0714079,0,0,0,0,0,0,0,-12.0134,-38.5133,-11.2344,25.0586,-0.664982,4.31939,-0.123489,
0.126067,0.0744574,0.103609,-1.87387,0.369629,-0.0111458,-0.0503075,0.309853,-0.000368912,0.299572,-0.539073,1.07192,0.480166,-0.0292085,-2.32247,2.48011,-2.25094,1.53791,-26.3671,31.1193,0.68999,8.98812,-7.86681,8.6185,-42.9896,5.60561,12.5063,-0.297027,0.13549,0.0720173,0.112015,-1.89747,0.393953,0.00457131,-0.0508098,0.519652,-0.083493,0.513366,-1.09262,1.28053,1.01816,-0.0280097,6.82155,10.9008,11.0717,17.2829,-46.7242,34.2253,5.42477,-5.03888,-36.8153,-4.25994,27.6254,-0.871891,4.04748,-0.190323,
0.128167,0.0744757,0.105641,-1.8778,0.375386,-0.00489516,-0.0504591,0.300384,0.000163833,0.290443,-0.529482,1.00145,0.540399,-0.0271587,-5.91831,0.332966,-5.70503,5.99404,-44.0443,37.6454,1.28114,9.8743,-6.51808,9.43894,-42.0646,3.90379,12.5063,-0.231973,0.13549,0.0720173,0.112015,-1.89747,0.393953,0.00457131,-0.0508098,0.519652,-0.083493,0.513366,-1.09262,1.28053,1.01816,-0.0280097,0,0,0,0,0,0,0,-5.03888,-36.8153,-4.25994,27.6254,-0.871891,4.04748,-0.190323,
0.13006,0.0744101,0.107473,-1.88151,0.379866,0.00202411,-0.050571,0.287645,-0.00150876,0.278158,-0.516408,0.913158,0.605301,-0.0245237,-7.96175,-1.04537,-7.67843,8.17135,-55.1817,40.5637,1.64686,10.516,-5.45136,10.0494,-41.2692,2.6349,12.5063,-0.179103,0.13549,0.0720173,0.112015,-1.89747,0.393953,0.00457131,-0.0508098,0.519652,-0.083493,0.513366,-1.09262,1.28053,1.01816,-0.0280097,0,0,0,0,0,0,0,-5.03888,-36.8153,-4.25994,27.6254,-0.871891,4.04748,-0.190323,
0.141988,0.0727001,0.118252,-1.90751,0.40907,0.0161704,-0.0512598,0.304436,0.00761733,0.293951,-0.526141,0.901764,0.629099,-0.0247494,10.4946,5.7038,9.87068,-6.08286,-7.12168,14.8736,-0.141075,8.98812,-7.86681,8.6185,-42.9896,5.60561,12.5063,-0.297027,0.13549,0.0720173,0.112015,-1.89747,0.393953,0.00457131,-0.0508098,0.519652,-0.083493,0.513366,-1.09262,1.28053,1.01816,-0.0280097,0,0,0,0,0,0,0,-5.03888,-36.8153,-4.25994,27.6254,-0.871891,4.04748,-0.190323,
0.14454,0.0729126,0.120708,-1.91159,0.414626,0.0224362,-0.0514187,0.307339,0.0114069,0.29658,-0.523019,0.860295,0.659924,-0.0237712,1.81438,2.36846,1.6431,1.95121,-25.9182,19.2659,0.611414,9.5724,-6.74317,9.11111,-42.0851,3.76243,12.4254,-0.22831,0.151588,0.071059,0.128705,-1.93443,0.434566,0.045067,-0.0515551,0.379736,0.0737586,0.56962,-1.01788,0.844631,1.32689,-0.00945399,-17.4894,19.6565,7.03181,9.34254,-54.4871,38.5907,2.31947,-3.87249,-42.556,-3.28795,36.1194,0.514218,3.51739,-0.284622,
0.146769,0.0729909,0.122857,-1.91541,0.419009,0.0292263,-0.0515358,0.301593,0.0110808,0.290977,-0.513914,0.797826,0.697693,-0.0219463,-3.59126,-0.20379,-3.50162,5.69066,-39.043,23.6058,1.14055,10.2141,-5.67645,9.72155,-41.2897,2.49353,12.4254,-0.17544,0.151588,0.071059,0.128705,-1.93443,0.434566,0.045067,-0.0515551,0.379736,0.0737586,0.56962,-1.01788,0.844631,1.32689,-0.00945399,0,0,0,0,0,0,0,-3.87249,-42.556,-3.28795,36.1194,0.514218,3.51739,-0.284622,
0.148748,0.0729698,0.124766,-1.91904,0.422348,0.0364909,-0.0516201,0.290747,0.00833769,0.280497,-0.501824,0.72172,0.73977,-0.0196631,-6.77884,-1.71445,-6.55032,7.55571,-47.5664,26.298,1.427,10.6901,-4.79916,10.1886,-40.5792,1.58666,12.4254,-0.130573,0.151588,0.071059,0.128705,-1.93443,0.434566,0.045067,-0.0515551,0.379736,0.0737586,0.56962,-1.01788,0.844631,1.32689,-0.00945399,0,0,0,0,0,0,0,-3.87249,-42.556,-3.28795,36.1194,0.514218,3.51739,-0.284622,
0.157458,0.0730054,0.134321,-1.94436,0.444124,0.0598942,-0.0518966,0.299612,0.0283847,0.288416,-0.514511,0.684372,0.769723,-0.0196252,5.5408,12.5294,4.94931,-7.92909,-23.3423,18.7205,0.0237072,9.5724,-6.74317,9.11111,-42.0851,3.76243,12.4254,-0.22831,0.151588,0.071059,0.128705,-1.93443,0.434566,0.045067,-0.0515551,0.379736,0.0737586,0.56962,-1.01788,0.844631,1.32689,-0.00945399,0,0,0,0,0,0,0,-3.87249,-42.556,-3.28795,36.1194,0.514218,3.51739,-0.284622,
0.159754,0.073598,0.136519,-1.94847,0.447524,0.0670492,-0.0520128,0.297082,0.0375215,0.285677,-0.514348,0.63249,0.794652,-0.0186058,-1.5812,5.71053,-1.71148,0.101765,-32.4258,15.5806,0.637087,10.1115,-5.86771,9.5873,-41.4513,2.39836,12.283,-0.17148,0.167378,0.070275,0.144197,-1.96923,0.464852,0.0976801,-0.0519654,0.282656,0.0799171,0.628567,-0.905245,0.532639,1.61324,-0.000718134,-12.1351,0.769812,7.36837,14.0793,-38.999,35.7932,1.09198,-2.09912,-37.3152,-2.08586,24.5865,0.63049,0.507132,-0.170181,
0.161762,0.0739671,0.138445,-1.95232,0.450105,0.0744315,-0.0520958,0.287875,0.0392466,0.276677,-0.507625,0.570509,0.82028,-0.0169596,-5.75456,1.07813,-5.62539,4.20216,-38.7386,16.0174,1.02887,10.5875,-4.99043,10.0543,-40.7408,1.49149,12.283,-0.126613,0.167378,0.070275,0.144197,-1.96923,0.464852,0.0976801,-0.0519654,0.282656,0.0799171,0.628567,-0.905245,0.532639,1.61324,-0.000718134,0,0,0,0,0,0,0,-2.09912,-37.3152,-2.08586,24.5865,0.63049,0.507132,-0.170181,
0.172892,0.0719881,0.149471,-1.9784,0.470824,0.115549,-0.0522282,0.293062,0.0500545,0.28111,-0.511635,0.523324,0.865997,-0.0165286,3.24198,6.75499,2.77103,-2.50655,-29.4902,28.5732,0.269428,10.1115,-5.86771,9.5873,-41.4513,2.39836,12.283,-0.17148,0.167378,0.070275,0.144197,-1.96923,0.464852,0.0976801,-0.0519654,0.282656,0.0799171,0.628567,-0.905245,0.532639,1.61324,-0.000718134,0,0,0,0,0,0,0,-2.09912,-37.3152,-2.08586,24.5865,0.63049,0.507132,-0.170181,
0.175034,0.0724787,0.151516,-1.98229,0.472913,0.123607,-0.052314,0.288004,0.0523078,0.276015,-0.506462,0.470891,0.894237,-0.0153701,-3.16158,1.40831,-3.18452,3.23306,-32.7709,17.65,0.724024,10.5875,-4.99043,10.0543,-40.7408,1.49149,12.283,-0.126613,0.167378,0.070275,0.144197,-1.96923,0.464852,0.0976801,-0.0519654,0.282656,0.0799171,0.628567,-0.905245,0.532639,1.61324,-0.000718134,0,0,0,0,0,0,0,-2.09912,-37.3152,-2.08586,24.5865,0.63049,0.507132,-0.170181,
0.176914,0.0727695,0.153314,-1.98595,0.474277,0.131624,-0.0523695,0.277405,0.0491152,0.265767,-0.49671,0.410801,0.915828,-0.0136817,-6.62381,-1.99539,-6.40511,6.09532,-37.5562,13.4945,1.05524,11.0573,-4.42575,10.4939,-40.2322,0.770924,12.1039,-0.0892576,0.183816,0.0692866,0.157546,-2.00271,0.486326,0.157202,-0.0521394,0.282781,-0.0321971,0.562398,-0.936797,0.390651,1.77675,-0.0097134,0.0157135,-14.0143,-8.27113,-3.94406,-17.7485,20.4395,-1.12441,-1.71826,-35.4189,-0.713182,21.8967,1.28326,0.632559,-0.170181,
0.178603,0.0729174,0.154932,-1.98944,0.474903,0.139732,-0.0523996,0.264151,0.0429903,0.253051,-0.48467,0.344295,0.935348,-0.0116993,-8.28405,-3.82804,-7.94761,7.52515,-41.5664,12.1997,1.23904,11.3641,-3.78175,10.7716,-39.5921,-0.342215,12.1039,-0.0596102,0.183816,0.0692866,0.157546,-2.00271,0.486326,0.157202,-0.0521394,0.282781,-0.0321971,0.562398,-0.936797,0.390651,1.77675,-0.0097134,0,0,0,0,0,0,0,-1.71826,-35.4189,-0.713182,21.8967,1.28326,0.632559,-0.170181,
0.188969,0.070179,0.162468,-2.01149,0.489947,0.176033,-0.0523207,0.27004,0.0449523,0.258347,-0.487704,0.314946,0.967182,-0.0114745,3.68088,1.2262,3.3098,-1.89642,-18.3428,19.8965,0.140488,10.7129,-5.17167,10.1556,-40.8955,1.52149,12.1039,-0.124098,0.183816,0.0692866,0.157546,-2.00271,0.486326,0.157202,-0.0521394,0.282781,-0.0321971,0.562398,-0.936797,0.390651,1.77675,-0.0097134,0,0,0,0,0,0,0,-1.71826,-35.4189,-0.713182,21.8967,1.28326,0.632559,-0.170181,
0.190987,0.0704441,0.164394,-2.01516,0.490981,0.184349,-0.0523782,0.266481,0.0425907,0.254843,-0.482099,0.277797,0.981665,-0.0106164,-2.22479,-1.47597,-2.18998,3.50298,-23.218,9.05195,0.536277,11.0573,-4.42575,10.4939,-40.2322,0.770924,12.1039,-0.0892576,0.183816,0.0692866,0.157546,-2.00271,0.486326,0.157202,-0.0521394,0.282781,-0.0321971,0.562398,-0.936797,0.390651,1.77675,-0.0097134,0,0,0,0,0,0,0,-1.71826,-35.4189,-0.713182,21.8967,1.28326,0.632559,-0.170181,
0.192769,0.0705741,0.166099,-2.01865,0.491407,0.192564,-0.0524098,0.257728,0.0373216,0.246484,-0.47293,0.232888,0.9907,-0.00928326,-5.47071,-3.29319,-5.22393,5.73086,-28.0686,5.64705,0.833231,11.3641,-3.78175,10.7716,-39.5921,-0.342215,12.1039,-0.0596102,0.183816,0.0692866,0.157546,-2.00271,0.486326,0.157202,-0.0521394,0.282781,-0.0321971,0.562398,-0.936797,0.390651,1.77675,-0.0097134,0,0,0,0,0,0,0,-1.71826,-35.4189,-0.713182,21.8967,1.28326,0.632559,-0.170181,
0.194379,0.0706074,0.167641,-2.02201,0.491235,0.200821,-0.0524183,0.246432,0.030689,0.235737,-0.46223,0.182012,0.998975,-0.0076408,-7.05977,-4.14537,-6.71734,6.68733,-31.7973,5.17141,1.02654,11.6355,-3.23556,11.0351,-38.9653,-1.18099,12.1039,-0.0337715,0.183816,0.0692866,0.157546,-2.00271,0.486326,0.157202,-0.0521394,0.282781,-0.0321971,0.562398,-0.936797,0.390651,1.77675,-0.0097134,0,0,0,0,0,0,0,-1.71826,-35.4189,-0.713182,21.8967,1.28326,0.632559,-0.170181,
0.189011,0.0702445,0.162514,-2.01135,0.48924,0.175991,-0.0522641,0.256536,0.0359794,0.245195,-0.467868,0.173335,1.01766,-0.00756527,6.3153,3.30645,5.91167,-3.52374,-5.42297,11.6782,0.0472099,11.0573,-4.42575,10.4939,-40.2322,0.770924,12.1039,-0.0892576,0.183816,0.0692866,0.157546,-2.00271,0.486326,0.157202,-0.0521394,0.282781,-0.0321971,0.562398,-0.936797,0.390651,1.77675,-0.0097134,0,0,0,0,0,0,0,-1.71826,-35.4189,-0.713182,21.8967,1.28326,0.632559,-0.170181,
0.191057,0.0705421,0.164469,-2.01496,0.489738,0.184304,-0.0523001,0.256382,0.036225,0.245032,-0.464576,0.151106,1.02194,-0.00695276,-0.0966783,0.153502,-0.102203,2.05715,-13.8932,2.67812,0.382813,11.3641,-3.78175,10.7716,-39.5921,-0.342215,12.1039,-0.0596102,0.183816,0.0692866,0.157546,-2.00271,0.486326,0.157202,-0.0521394,0.282781,-0.0321971,0.562398,-0.936797,0.390651,1.77675,-0.0097134,0,0,0,0,0,0,0,-1.71826,-35.4189,-0.713182,21.8967,1.28326,0.632559,-0.170181,
0.192864,0.0707024,0.166199,-2.0184,0.489645,0.192521,-0.0523127,0.250289,0.0329864,0.23927,-0.457546,0.118574,1.02299,-0.00587627,-3.80797,-2.02408,-3.60133,4.39398,-20.3326,0.652867,0.67281,11.6355,-3.23556,11.0351,-38.9653,-1.18099,12.1039,-0.0337715,0.183816,0.0692866,0.157546,-2.00271,0.486326,0.157202,-0.0521394,0.282781,-0.0321971,0.562398,-0.936797,0.390651,1.77675,-0.0097134,0,0,0,0,0,0,0,-1.71826,-35.4189,-0.713182,21.8967,1.28326,0.632559,-0.170181,
0.194496,0.0707638,0.167762,-2.02171,0.489016,0.200782,-0.0523026,0.241022,0.0279253,0.230494,-0.44881,0.0791352,1.02492,-0.00444997,-5.79168,-3.16319,-5.48463,5.46018,-24.6492,1.20436,0.891435,12.0885,-2.86294,11.4617,-38.3487,-1.69348,11.971,-0.00810305,0.197929,0.0687002,0.17223,-2.03659,0.497929,0.219593,-0.0521542,0.746261,-0.0718336,0.0846431,-1.03336,0.285773,1.79057,-0.000156592,57.9349,-4.95455,-59.7194,-12.0703,-13.1097,1.72722,1.1946,-3.34088,-32.5743,-2.36357,22.1942,1.92505,1.24962,-0.110672,
0.203219,0.0696803,0.17719,-2.04554,0.498285,0.237602,-0.0522012,0.252724,0.0348774,0.241378,-0.45911,0.0609439,1.02753,-0.00436195,7.31332,4.34506,6.80225,-6.43736,-11.3695,1.63452,0.0550167,11.5574,-3.84994,10.9366,-39.583,-0.224323,11.971,-0.0579683,0.197929,0.0687002,0.17223,-2.03659,0.497929,0.219593,-0.0521542,0.746261,-0.0718336,0.0846431,-1.03336,0.285773,1.79057,-0.000156592,0,0,0,0,0,0,0,-3.34088,-32.5743,-2.36357,22.1942,1.92505,1.24962,-0.110672,
0.205278,0.0700371,0.179155,-2.04919,0.497792,0.245511,-0.0522164,0.253666,0.0368199,0.242227,-0.458577,0.0364301,1.01977,-0.0038678,0.589089,1.21404,0.530823,0.333145,-15.3212,-4.85103,0.308843,11.8287,-3.30375,11.2001,-38.9562,-1.0631,11.971,-0.0321295,0.197929,0.0687002,0.17223,-2.03659,0.497929,0.219593,-0.0521542,0.746261,-0.0718336,0.0846431,-1.03336,0.285773,1.79057,-0.000156592,0,0,0,0,0,0,0,-3.34088,-32.5743,-2.36357,22.1942,1.92505,1.24962,-0.110672,
0.207094,0.0702568,0.18089,-2.05265,0.496915,0.25338,-0.0522088,0.248336,0.0349486,0.237173,-0.453431,0.00721925,1.01253,-0.00290553,-3.33128,-1.16953,-3.15853,3.21625,-18.2568,-4.52529,0.60142,12.0885,-2.86294,11.4617,-38.3487,-1.69348,11.971,-0.00810305,0.197929,0.0687002,0.17223,-2.03659,0.497929,0.219593,-0.0521542,0.746261,-0.0718336,0.0846431,-1.03336,0.285773,1.79057,-0.000156592,0,0,0,0,0,0,0,-3.34088,-32.5743,-2.36357,22.1942,1.92505,1.24962,-0.110672,
0.208731,0.0703734,0.182456,-2.05599,0.4957,0.261343,-0.0521767,0.239575,0.0308743,0.228871,-0.446064,-0.0246042,1.00909,-0.0015215,-5.47551,-2.54644,-5.1891,4.60403,-19.8897,-2.14989,0.865017,12.1307,-2.64141,11.485,-37.8036,-2.07803,11.8423,0.017583,0.208736,0.0691221,0.189309,-2.06986,0.503469,0.281927,-0.0521546,0.296186,0.0324541,0.503982,-0.953746,0.173624,1.76773,0.000187252,-56.2593,13.036,52.4174,9.95164,-14.0186,-2.85441,0.0429805,-1.18664,-35.0935,-1.63756,22.9678,1.8637,0.977713,-0.050247,
0.213668,0.0707303,0.194,-2.07866,0.502575,0.299942,-0.0521663,0.248044,0.0431598,0.23661,-0.456555,-0.0377333,1.01503,-0.00144726,5.29318,7.67841,4.83692,-6.55694,-8.20566,3.71362,0.0463976,11.6259,-3.41791,10.9708,-38.9941,-0.99827,11.8423,-0.0305489,0.208736,0.0691221,0.189309,-2.06986,0.503469,0.281927,-0.0521546,0.296186,0.0324541,0.503982,-0.953746,0.173624,1.76773,0.000187252,0,0,0,0,0,0,0,-1.18664,-35.0935,-1.63756,22.9678,1.8637,0.977713,-0.050247,
0.215617,0.0712497,0.195854,-2.08232,0.501503,0.307821,-0.0521585,0.247152,0.0475132,0.235634,-0.456736,-0.0569941,1.009,-0.000964175,-0.557682,2.72085,-0.609849,-0.113173,-12.038,-3.76928,0.301929,11.8856,-2.97709,11.2324,-38.3867,-1.62865,11.8423,-0.00652247,0.208736,0.0691221,0.189309,-2.06986,0.503469,0.281927,-0.0521546,0.296186,0.0324541,0.503982,-0.953746,0.173624,1.76773,0.000187252,0,0,0,0,0,0,0,-1.18664,-35.0935,-1.63756,22.9678,1.8637,0.977713,-0.050247,
0.217345,0.0715882,0.1975,-2.08579,0.500149,0.315629,-0.0521268,0.240911,0.0464708,0.229657,-0.452241,-0.0794461,1.00238,2.14229e-05,-3.90063,-0.651448,-3.73574,2.80969,-14.0325,-4.13819,0.615999,12.1307,-2.64141,11.485,-37.8036,-2.07803,11.8423,0.017583,0.208736,0.0691221,0.189309,-2.06986,0.503469,0.281927,-0.0521546,0.296186,0.0324541,0.503982,-0.953746,0.173624,1.76773,0.000187252,0,0,0,0,0,0,0,-1.18664,-35.0935,-1.63756,22.9678,1.8637,0.977713,-0.050247,
0.232328,0.0715635,0.201819,-2.1099,0.501087,0.357247,-0.0521092,0.246389,0.0542914,0.23456,-0.460151,-0.102103,1.00584,0.000277259,3.42378,4.88783,3.06416,-4.94415,-14.1608,2.16423,0.159898,11.8504,-3.04896,11.1766,-38.4352,-1.55962,11.6874,-0.004398,0.227645,0.0700939,0.197362,-2.10123,0.503873,0.339583,-0.0521377,0.217839,0.0199997,0.545086,-0.937447,0.00288984,1.73897,0.00271191,-9.79346,-1.5568,5.13794,2.03746,-21.3418,-3.59506,0.315582,-0.857357,-37.216,0.0644055,23.4637,1.41784,1.22307,-0.083206,
0.234189,0.0720527,0.203586,-2.11352,0.499428,0.365007,-0.0520802,0.243642,0.0556641,0.231843,-0.458539,-0.123169,0.998669,0.000948172,-1.71709,0.857929,-1.69821,1.00759,-13.1662,-4.48354,0.419321,12.0954,-2.71328,11.4293,-37.8521,-2.00901,11.6874,0.0197074,0.227645,0.0700939,0.197362,-2.10123,0.503873,0.339583,-0.0521377,0.217839,0.0199997,0.545086,-0.937447,0.00288984,1.73897,0.00271191,0,0,0,0,0,0,0,-0.857357,-37.216,0.0644055,23.4637,1.41784,1.22307,-0.083206,
0.235843,0.0723767,0.20516,-2.11696,0.497728,0.372715,-0.0520339,0.236262,0.0526312,0.224804,-0.452868,-0.141041,0.99164,0.00191589,-4.61236,-1.89553,-4.39882,3.54457,-11.1696,-4.39311,0.604824,12.2961,-2.46985,11.6449,-37.2971,-2.26279,11.6874,0.0469838,0.227645,0.0700939,0.197362,-2.10123,0.503873,0.339583,-0.0521377,0.217839,0.0199997,0.545086,-0.937447,0.00288984,1.73897,0.00271191,0,0,0,0,0,0,0,-0.857357,-37.216,0.0644055,23.4637,1.41784,1.22307,-0.083206,
0.237348,0.0725783,0.206593,-2.12026,0.495833,0.380498,-0.0519734,0.226647,0.0471436,0.215665,-0.444828,-0.160194,0.98788,0.00304385,-6.00952,-3.42977,-5.712,5.02506,-11.9707,-2.34968,0.704975,12.3591,-2.29368,11.7329,-36.7737,-2.24351,11.6874,0.0666887,0.227645,0.0700939,0.197362,-2.10123,0.503873,0.339583,-0.0521377,0.217839,0.0199997,0.545086,-0.937447,0.00288984,1.73897,0.00271191,0,0,0,0,0,0,0,-0.857357,-37.216,0.0644055,23.4637,1.41784,1.22307,-0.083206,
0.24624,0.0713788,0.214379,-2.14109,0.497318,0.416271,-0.0520493,0.236003,0.0491446,0.22436,-0.450704,-0.174883,0.994288,0.00316438,5.84791,1.25061,5.43405,-3.67256,-9.1808,4.00471,0.075332,12.2344,-2.89361,11.5421,-37.8164,-1.89521,11.5193,0.0208467,0.241412,0.0704629,0.209868,-2.13268,0.500932,0.398515,-0.0521269,0.680927,-0.0473684,0.0854292,-0.935159,-0.0252833,1.76853,0.00063545,57.886,-8.42102,-57.4571,0.285915,-3.52164,3.69422,-0.259558,-3.84869,-31.2016,-2.68492,19.1553,0.880428,1.05096,-0.083206,
0.248125,0.0717028,0.216171,-2.14459,0.495542,0.424004,-0.0520089,0.235931,0.0474155,0.224288,-0.447973,-0.184307,0.988771,0.003541,-0.0454201,-1.08068,-0.0447254,1.707,-5.89007,-3.44796,0.235388,12.4351,-2.65018,11.7577,-37.2613,-2.14899,11.5193,0.0481231,0.241412,0.0704629,0.209868,-2.13268,0.500932,0.398515,-0.0521269,0.680927,-0.0473684,0.0854292,-0.935159,-0.0252833,1.76853,0.00063545,0,0,0,0,0,0,0,-3.84869,-31.2016,-2.68492,19.1553,0.880428,1.05096,-0.083206,
0.249798,0.0719043,0.217763,-2.14791,0.493666,0.431663,-0.0519531,0.230563,0.0429706,0.219235,-0.4415,-0.194339,0.982488,0.00422887,-3.3549,-2.77806,-3.15815,4.04571,-6.26982,-3.92685,0.429919,12.4981,-2.47402,11.8457,-36.7379,-2.12972,11.5193,0.067828,0.241412,0.0704629,0.209868,-2.13268,0.500932,0.398515,-0.0521269,0.680927,-0.0473684,0.0854292,-0.935159,-0.0252833,1.76853,0.00063545,0,0,0,0,0,0,0,-3.84869,-31.2016,-2.68492,19.1553,0.880428,1.05096,-0.083206,
0.251318,0.0720119,0.219211,-2.15111,0.491548,0.439387,-0.0518831,0.222455,0.0370657,0.211581,-0.433126,-0.208439,0.979094,0.0051315,-5.06725,-3.69053,-4.78397,5.23358,-8.81269,-2.12143,0.564144,12.5065,-2.33722,11.8397,-36.2317,-2.64348,11.5193,0.0789388,0.241412,0.0704629,0.209868,-2.13268,0.500932,0.398515,-0.0521269,0.680927,-0.0473684,0.0854292,-0.935159,-0.0252833,1.76853,0.00063545,0,0,0,0,0,0,0,-3.84869,-31.2016,-2.68492,19.1553,0.880428,1.05096,-0.083206,
0.246251,0.0714107,0.214394,-2.14102,0.497162,0.416237,-0.0520105,0.232778,0.0414906,0.221254,-0.440477,-0.214841,0.986905,0.00521632,6.45172,2.76556,6.04553,-4.59465,-4.00102,4.88204,0.0530124,12.165,-2.648,11.4528,-37.2334,-2.06936,11.3935,0.0501785,0.250509,0.071749,0.226486,-2.16411,0.495021,0.459722,-0.0520872,0.432875,0.114437,0.339427,-0.890638,-0.246378,1.77364,0.00577643,-31.0065,20.2257,31.7497,5.56513,-27.6369,0.638793,0.642622,-3.19012,-35.4704,-3.21257,28.9465,1.43615,1.6076,-0.110672,
0.248145,0.0717495,0.216195,-2.14447,0.495181,0.423952,-0.0519582,0.233567,0.0416615,0.22203,-0.438617,-0.221392,0.982382,0.00547987,0.492781,0.106813,0.485205,1.16269,-4.09457,-2.82692,0.164716,12.2281,-2.47183,11.5407,-36.71,-2.05008,11.3935,0.0698834,0.250509,0.071749,0.226486,-2.16411,0.495021,0.459722,-0.0520872,0.432875,0.114437,0.339427,-0.890638,-0.246378,1.77364,0.00577643,0,0,0,0,0,0,0,-3.19012,-35.4704,-3.21257,28.9465,1.43615,1.6076,-0.110672,
0.249827,0.0719622,0.217797,-2.14775,0.49301,0.431595,-0.051892,0.228911,0.0386462,0.217671,-0.432822,-0.231389,0.976984,0.00603827,-2.90952,-1.8846,-2.72442,3.62218,-6.24798,-3.37339,0.349003,12.2364,-2.33503,11.5348,-36.2037,-2.56384,11.3935,0.0809942,0.250509,0.071749,0.226486,-2.16411,0.495021,0.459722,-0.0520872,0.432875,0.114437,0.339427,-0.890638,-0.246378,1.77364,0.00577643,0,0,0,0,0,0,0,-3.19012,-35.4704,-3.21257,28.9465,1.43615,1.6076,-0.110672,
0.251355,0.0720775,0.219252,-2.1509,0.490594,0.439309,-0.0518077,0.221318,0.0338016,0.210521,-0.425146,-0.245522,0.974443,0.00693988,-4.74584,-3.02787,-4.46854,4.79713,-8.8334,-1.58831,0.563503,12.2546,-2.21868,11.543,-35.6956,-3.09689,11.3935,0.0917852,0.250509,0.071749,0.226486,-2.16411,0.495021,0.459722,-0.0520872,0.432875,0.114437,0.339427,-0.890638,-0.246378,1.77364,0.00577643,0,0,0,0,0,0,0,-3.19012,-35.4704,-3.21257,28.9465,1.43615,1.6076,-0.110672,
0.255194,0.0738881,0.230878,-2.1727,0.489697,0.477301,-0.0519683,0.230134,0.0506382,0.218379,-0.438042,-0.261976,0.979539,0.00684548,5.51007,10.5229,4.91093,-8.0601,-10.2837,3.18484,-0.0589969,12.1615,-2.53884,11.4431,-36.6743,-1.95002,11.2385,0.0709617,0.266332,0.0735617,0.235302,-2.19451,0.486661,0.519141,-0.0520139,0.0752459,0.158031,0.664152,-0.866622,-0.325025,1.72995,0.0066196,-44.7037,5.44918,40.5906,3.00207,-9.83087,-5.4613,0.105397,1.75708,-38.065,2.6114,31.0889,1.0086,2.4096,-0.0905302,
0.257014,0.0744972,0.2326,-2.17621,0.487456,0.484663,-0.0518567,0.229608,0.0557369,0.217771,-0.438052,-0.265604,0.967698,0.00826531,-0.328587,3.18672,-0.37969,-0.00604763,-2.26747,-7.40074,0.887389,12.1699,-2.40204,11.4371,-36.1681,-2.46379,11.2385,0.0820725,0.266332,0.0735617,0.235302,-2.19451,0.486661,0.519141,-0.0520139,0.0752459,0.158031,0.664152,-0.866622,-0.325025,1.72995,0.0066196,0,0,0,0,0,0,0,1.75708,-38.065,2.6114,31.0889,1.0086,2.4096,-0.0905302,
0.258576,0.0746352,0.234092,-2.17921,0.485777,0.491543,-0.0515482,0.222751,0.0480386,0.211521,-0.425379,-0.254444,0.946149,0.0143251,-4.28611,-4.81144,-3.90644,7.92088,6.97512,-13.4682,3.78737,12.188,-2.28569,11.4454,-35.6599,-2.99683,11.2385,0.0928634,0.266332,0.0735617,0.235302,-2.19451,0.486661,0.519141,-0.0520139,0.0752459,0.158031,0.664152,-0.866622,-0.325025,1.72995,0.0066196,0,0,0,0,0,0,0,1.75708,-38.065,2.6114,31.0889,1.0086,2.4096,-0.0905302,
0.259942,0.0743577,0.235408,-2.18186,0.48451,0.497962,-0.0510247,0.212352,0.0314952,0.202115,-0.406544,-0.235238,0.917388,0.0245491,-6.49932,-10.3396,-5.87875,11.7714,12.0037,-17.9753,6.39002,12.195,-2.20533,11.4587,-35.1635,-3.38358,11.2385,0.111229,0.266332,0.0735617,0.235302,-2.19451,0.486661,0.519141,-0.0520139,0.0752459,0.158031,0.664152,-0.866622,-0.325025,1.72995,0.0066196,0,0,0,0,0,0,0,1.75708,-38.065,2.6114,31.0889,1.0086,2.4096,-0.0905302,
0.270712,0.0752748,0.23951,-2.202,0.484574,0.538945,-0.0526275,0.219495,0.0388401,0.208963,-0.404781,-0.208022,0.966009,0.0154777,4.46489,4.59054,4.27976,1.10236,17.0102,30.3879,-5.66962,12.1699,-2.40204,11.4371,-36.1681,-2.46379,11.2385,0.0820725,0.266332,0.0735617,0.235302,-2.19451,0.486661,0.519141,-0.0520139,0.0752459,0.158031,0.664152,-0.866622,-0.325025,1.72995,0.0066196,0,0,0,0,0,0,0,1.75708,-38.065,2.6114,31.0889,1.0086,2.4096,-0.0905302,
0.272357,0.0751113,0.241096,-2.2045,0.484081,0.546773,-0.0526087,0.216698,0.0269849,0.206823,-0.386126,-0.178726,0.968504,0.0128534,-1.74841,-7.40949,-1.33712,11.6591,18.3099,1.55931,-1.64018,12.4049,-2.77539,11.6449,-35.4232,-2.83007,11.0605,0.0926592,0.280851,0.0748689,0.245505,-2.2238,0.479318,0.570895,-0.0518683,0.667234,0.0114272,0.0545772,-0.850208,-0.305362,1.44378,0.00133418,73.9985,-18.3254,-76.1968,2.05173,2.45792,-35.771,-0.660677,2.23713,-34.669,2.78596,21.6467,-1.18409,3.15941,-0.0301054,
0.273746,0.0743247,0.242455,-2.20656,0.483779,0.553356,-0.0523986,0.208099,0.00192369,0.199438,-0.360408,-0.150532,0.939379,0.0155352,-5.37432,-15.6633,-4.61583,16.0735,17.6213,-18.2028,1.67607,12.4119,-2.69503,11.6583,-34.9268,-3.21682,11.0605,0.111025,0.280851,0.0748689,0.245505,-2.2238,0.479318,0.570895,-0.0518683,0.667234,0.0114272,0.0545772,-0.850208,-0.305362,1.44378,0.00133418,0,0,0,0,0,0,0,2.23713,-34.669,2.78596,21.6467,-1.18409,3.15941,-0.0301054,
0.274964,0.0730506,0.243664,-2.20832,0.483558,0.558916,-0.0520054,0.196914,-0.030315,0.189763,-0.332375,-0.125958,0.890497,0.0222566,-6.99084,-20.1492,-6.04667,17.521,15.3587,-30.5513,4.20087,12.2487,-2.63108,11.5327,-34.4511,-3.122,11.0605,0.117528,0.280851,0.0748689,0.245505,-2.2238,0.479318,0.570895,-0.0518683,0.667234,0.0114272,0.0545772,-0.850208,-0.305362,1.44378,0.00133418,0,0,0,0,0,0,0,2.23713,-34.669,2.78596,21.6467,-1.18409,3.15941,-0.0301054,
0.285065,0.0745193,0.249456,-2.23036,0.475674,0.587449,-0.0515989,0.203884,-0.0361025,0.196333,-0.330975,-0.136415,0.898791,0.0226936,4.35649,-3.61719,4.10643,0.875086,-6.53568,5.18339,0.273172,12.4049,-2.77539,11.6449,-35.4232,-2.83007,11.0605,0.0926592,0.280851,0.0748689,0.245505,-2.2238,0.479318,0.570895,-0.0518683,0.667234,0.0114272,0.0545772,-0.850208,-0.305362,1.44378,0.00133418,0,0,0,0,0,0,0,2.23713,-34.669,2.78596,21.6467,-1.18409,3.15941,-0.0301054,
0.286555,0.0733167,0.250914,-2.23222,0.474789,0.593419,-0.0512474,0.200345,-0.0589477,0.193506,-0.311277,-0.131247,0.868287,0.026943,-2.21176,-14.2782,-1.76729,12.311,3.22988,-19.0645,2.65588,12.4221,-3.08693,11.639,-34.8111,-3.13198,10.903,0.111756,0.288143,0.0746076,0.263821,-2.25216,0.470927,0.622754,-0.0515489,0.338718,-0.0812529,0.437774,-0.804593,-0.331667,1.47797,0.0205853,-41.0646,-11.585,47.8997,5.70188,-3.2881,4.2732,2.40639,0.336795,-31.2016,-0.0625476,21.0239,0.19653,2.32995,-0.0365141,
0.287796,0.0714901,0.252154,-2.23362,0.474224,0.598142,-0.0507352,0.191302,-0.0928223,0.185807,-0.284035,-0.119112,0.812716,0.0343599,-5.65183,-21.1716,-4.81172,17.0265,7.58457,-34.7318,4.63556,12.2589,-3.02298,11.5134,-34.3354,-3.03715,10.903,0.118258,0.288143,0.0746076,0.263821,-2.25216,0.470927,0.622754,-0.0515489,0.338718,-0.0812529,0.437774,-0.804593,-0.331667,1.47797,0.0205853,0,0,0,0,0,0,0,0.336795,-31.2016,-0.0625476,21.0239,0.19653,2.32995,-0.0365141,
0.288883,0.0691895,0.253263,-2.23471,0.473803,0.601869,-0.0500666,0.180216,-0.131774,0.176385,-0.254694,-0.10582,0.743336,0.0442019,-6.92927,-24.3446,-5.88889,18.3377,8.3075,-43.3628,6.15125,12.0761,-2.95988,11.3259,-33.8703,-3.54622,10.903,0.11576,0.288143,0.0746076,0.263821,-2.25216,0.470927,0.622754,-0.0515489,0.338718,-0.0812529,0.437774,-0.804593,-0.331667,1.47797,0.0205853,0,0,0,0,0,0,0,0.336795,-31.2016,-0.0625476,21.0239,0.19653,2.32995,-0.0365141,
0.292573,0.0728582,0.268099,-2.25758,0.468784,0.639848,-0.0511805,0.192601,-0.136054,0.188236,-0.253405,-0.103788,0.78073,0.041432,7.74072,-2.675,7.40682,0.806136,1.27022,23.371,-1.73122,12.4221,-3.08693,11.639,-34.8111,-3.13198,10.903,0.111756,0.288143,0.0746076,0.263821,-2.25216,0.470927,0.622754,-0.0515489,0.338718,-0.0812529,0.437774,-0.804593,-0.331667,1.47797,0.0205853,0,0,0,0,0,0,0,0.336795,-31.2016,-0.0625476,21.0239,0.19653,2.32995,-0.0365141,
0.294107,0.070835,0.269626,-2.25878,0.468369,0.645394,-0.0507843,0.192433,-0.159423,0.188782,-0.232845,-0.0934064,0.763232,0.0430515,-0.104939,-14.606,0.341595,12.85,6.48827,-10.9362,1.01222,12.1474,-3.49372,11.4353,-34.288,-2.92949,10.7341,0.118382,0.305824,0.0717863,0.270435,-2.27657,0.464577,0.673828,-0.0509982,0.113635,-0.145032,0.525338,-0.664666,-0.220163,1.39831,0.0280743,-28.1353,-7.97238,10.9455,17.4909,13.938,-9.95756,0.936126,0.25745,-26.8575,1.28633,20.528,0.709225,2.64855,-0.117081,
0.295377,0.0681498,0.270924,-2.25953,0.468101,0.649422,-0.0502226,0.185698,-0.194669,0.183465,-0.20491,-0.0814157,0.711293,0.0484839,-4.20906,-22.0288,-3.32348,17.459,7.49421,-32.4614,3.39525,11.9646,-3.43062,11.2478,-33.8229,-3.43856,10.7341,0.115883,0.305824,0.0717863,0.270435,-2.27657,0.464577,0.673828,-0.0509982,0.113635,-0.145032,0.525338,-0.664666,-0.220163,1.39831,0.0280743,0,0,0,0,0,0,0,0.25745,-26.8575,1.28633,20.528,0.709225,2.64855,-0.117081,
0.296483,0.0649771,0.272078,-2.26,0.467857,0.652288,-0.0494969,0.176222,-0.235051,0.175636,-0.175687,-0.0712308,0.640668,0.0569294,-5.92243,-25.2387,-4.89322,18.2645,6.36556,-44.1407,5.27844,11.8423,-3.3503,11.1317,-33.3525,-4.13984,10.7341,0.110217,0.305824,0.0717863,0.270435,-2.27657,0.464577,0.673828,-0.0509982,0.113635,-0.145032,0.525338,-0.664666,-0.220163,1.39831,0.0280743,0,0,0,0,0,0,0,0.25745,-26.8575,1.28633,20.528,0.709225,2.64855,-0.117081,
0.309529,0.0684532,0.274126,-2.28043,0.464746,0.689478,-0.0504472,0.182152,-0.239498,0.181597,-0.172403,-0.0523,0.677601,0.0538858,3.70603,-2.77919,3.72615,2.05261,11.8317,23.0831,-1.90229,12.1474,-3.49372,11.4353,-34.288,-2.92949,10.7341,0.118382,0.305824,0.0717863,0.270435,-2.27657,0.464577,0.673828,-0.0509982,0.113635,-0.145032,0.525338,-0.664666,-0.220163,1.39831,0.0280743,0,0,0,0,0,0,0,0.25745,-26.8575,1.28633,20.528,0.709225,2.64855,-0.117081,
0.310879,0.065597,0.275511,-2.28102,0.464943,0.694101,-0.0499563,0.17948,-0.263004,0.179893,-0.152609,-0.0369161,0.657639,0.0553815,-1.67006,-14.6912,-1.06529,12.371,9.61495,-12.4765,0.934855,11.9646,-3.43062,11.2478,-33.8229,-3.43856,10.7341,0.115883,0.305824,0.0717863,0.270435,-2.27657,0.464577,0.673828,-0.0509982,0.113635,-0.145032,0.525338,-0.664666,-0.220163,1.39831,0.0280743,0,0,0,0,0,0,0,0.25745,-26.8575,1.28633,20.528,0.709225,2.64855,-0.117081,
0.312041,0.0621136,0.27673,-2.28123,0.46504,0.697205,-0.0492936,0.172641,-0.297487,0.174399,-0.127351,-0.0270998,0.603716,0.0608716,-4.27441,-21.552,-3.43396,15.7864,6.1352,-33.7017,3.4313,11.8423,-3.3503,11.1317,-33.3525,-4.13984,10.7341,0.110217,0.305824,0.0717863,0.270435,-2.27657,0.464577,0.673828,-0.0509982,0.113635,-0.145032,0.525338,-0.664666,-0.220163,1.39831,0.0280743,0,0,0,0,0,0,0,0.25745,-26.8575,1.28633,20.528,0.709225,2.64855,-0.117081,
0.313092,0.0581947,0.277848,-2.28124,0.464986,0.699193,-0.04846,0.164366,-0.335964,0.167475,-0.10211,-0.0230498,0.532679,0.069538,-5.17188,-24.0481,-4.32701,15.7756,2.53125,-44.3982,5.41648,11.806,-3.23578,11.1076,-32.8466,-4.58463,10.7341,0.106094,0.305824,0.0717863,0.270435,-2.27657,0.464577,0.673828,-0.0509982,0.113635,-0.145032,0.525338,-0.664666,-0.220163,1.39831,0.0280743,0,0,0,0,0,0,0,0.25745,-26.8575,1.28633,20.528,0.709225,2.64855,-0.117081,
0.309558,0.0684952,0.274164,-2.28035,0.464624,0.689464,-0.0504574,0.173183,-0.319627,0.17571,-0.112337,-0.0158582,0.590986,0.0638167,5.51088,10.2104,5.14668,-6.39216,4.49473,36.4421,-3.57577,11.9646,-3.43062,11.2478,-33.8229,-3.43856,10.7341,0.115883,0.305824,0.0717863,0.270435,-2.27657,0.464577,0.673828,-0.0509982,0.113635,-0.145032,0.525338,-0.664666,-0.220163,1.39831,0.0280743,0,0,0,0,0,0,0,0.25745,-26.8575,1.28633,20.528,0.709225,2.64855,-0.117081,
0.310933,0.065661,0.275576,-2.28089,0.464718,0.694073,-0.0499729,0.172923,-0.326559,0.175877,-0.103326,-0.0103392,0.588016,0.0631647,-0.16284,-4.33206,0.104556,5.63213,3.44942,-1.85622,-0.40753,11.8423,-3.3503,11.1317,-33.3525,-4.13984,10.7341,0.110217,0.305824,0.0717863,0.270435,-2.27657,0.464577,0.673828,-0.0509982,0.113635,-0.145032,0.525338,-0.664666,-0.220163,1.39831,0.0280743,0,0,0,0,0,0,0,0.25745,-26.8575,1.28633,20.528,0.709225,2.64855,-0.117081,
0.312119,0.0621952,0.27682,-2.28106,0.464711,0.697162,-0.0493152,0.167978,-0.34789,0.171808,-0.0868255,-0.00845149,0.547634,0.0669754,-3.09039,-13.3318,-2.54317,10.3129,1.1798,-25.2387,2.38167,11.806,-3.23578,11.1076,-32.8466,-4.58463,10.7341,0.106094,0.305824,0.0717863,0.270435,-2.27657,0.464577,0.673828,-0.0509982,0.113635,-0.145032,0.525338,-0.664666,-0.220163,1.39831,0.0280743,0,0,0,0,0,0,0,0.25745,-26.8575,1.28633,20.528,0.709225,2.64855,-0.117081,
0.309592,0.0685374,0.274206,-2.28027,0.46449,0.68945,-0.0504677,0.176578,-0.328612,0.179767,-0.098979,-0.00615738,0.60275,0.0616313,5.37523,12.0486,4.97418,-7.59597,1.43382,34.4476,-3.34006,11.8423,-3.3503,11.1317,-33.3525,-4.13984,10.7341,0.110217,0.305824,0.0717863,0.270435,-2.27657,0.464577,0.673828,-0.0509982,0.113635,-0.145032,0.525338,-0.664666,-0.220163,1.39831,0.0280743,0,0,0,0,0,0,0,0.25745,-26.8575,1.28633,20.528,0.709225,2.64855,-0.117081,
0.310988,0.0657223,0.275641,-2.28076,0.464498,0.694048,-0.0499878,0.176154,-0.333267,0.179683,-0.0915678,-0.00471797,0.59714,0.0613004,-0.265337,-2.90924,-0.0525433,4.63202,0.899627,-3.50666,-0.206787,11.806,-3.23578,11.1076,-32.8466,-4.58463,10.7341,0.106094,0.305824,0.0717863,0.270435,-2.27657,0.464577,0.673828,-0.0509982,0.113635,-0.145032,0.525338,-0.664666,-0.220163,1.39831,0.0280743,0,0,0,0,0,0,0,0.25745,-26.8575,1.28633,20.528,0.709225,2.64855,-0.117081,
0.312192,0.0622717,0.276904,-2.28089,0.46441,0.697124,-0.049333,0.171022,-0.352877,0.17533,-0.0764827,-0.00599834,0.554607,0.0654111,-3.20752,-12.2567,-2.72069,9.4282,-0.800227,-26.5832,2.56917,11.8452,-3.13459,11.1608,-32.3264,-4.82709,10.7341,0.102877,0.305824,0.0717863,0.270435,-2.27657,0.464577,0.673828,-0.0509982,0.113635,-0.145032,0.525338,-0.664666,-0.220163,1.39831,0.0280743,0,0,0,0,0,0,0,0.25745,-26.8575,1.28633,20.528,0.709225,2.64855,-0.117081,
0.313275,0.0583772,0.278056,-2.28083,0.464191,0.699083,-0.0485035,0.163905,-0.379666,0.169068,-0.0597217,-0.0102511,0.492654,0.0730672,-4.44838,-16.7427,-3.91386,10.4756,-2.65799,-38.7205,4.78508,11.9413,-3.07258,11.2694,-31.8069,-4.93778,10.7341,0.102489,0.305824,0.0717863,0.270435,-2.27657,0.464577,0.673828,-0.0509982,0.113635,-0.145032,0.525338,-0.664666,-0.220163,1.39831,0.0280743,0,0,0,0,0,0,0,0.25745,-26.8575,1.28633,20.528,0.709225,2.64855,-0.117081,
0.309616,0.0685783,0.274236,-2.2802,0.464399,0.68944,-0.0504745,0.173672,-0.353498,0.177983,-0.0763465,-0.00892254,0.558604,0.0664187,6.10463,16.3549,5.57232,-10.3905,0.830363,41.2186,-4.15532,11.806,-3.23578,11.1076,-32.8466,-4.58463,10.7341,0.106094,0.305824,0.0717863,0.270435,-2.27657,0.464577,0.673828,-0.0509982,0.113635,-0.145032,0.525338,-0.664666,-0.220163,1.39831,0.0280743,0,0,0,0,0,0,0,0.25745,-26.8575,1.28633,20.528,0.709225,2.64855,-0.117081,
0.311026,0.0657815,0.275687,-2.28066,0.464351,0.694029,-0.049997,0.174189,-0.352718,0.178642,-0.0725636,-0.00835123,0.561589,0.0650712,0.323379,0.487478,0.41182,2.36435,0.357072,1.86576,-0.84217,11.8452,-3.13459,11.1608,-32.3264,-4.82709,10.7341,0.102877,0.305824,0.0717863,0.270435,-2.27657,0.464577,0.673828,-0.0509982,0.113635,-0.145032,0.525338,-0.664666,-0.220163,1.39831,0.0280743,0,0,0,0,0,0,0,0.25745,-26.8575,1.28633,20.528,0.709225,2.64855,-0.117081,
0.312241,0.0623445,0.276961,-2.28076,0.464213,0.697093,-0.0493431,0.16973,-0.368098,0.174778,-0.0605294,-0.0101173,0.525891,0.068406,-2.78731,-9.61229,-2.41485,7.52132,-1.10383,-22.3112,2.08427,11.9413,-3.07258,11.2694,-31.8069,-4.93778,10.7341,0.102489,0.305824,0.0717863,0.270435,-2.27657,0.464577,0.673828,-0.0509982,0.113635,-0.145032,0.525338,-0.664666,-0.220163,1.39831,0.0280743,0,0,0,0,0,0,0,0.25745,-26.8575,1.28633,20.528,0.709225,2.64855,-0.117081,
0.313332,0.0584601,0.27812,-2.28067,0.463961,0.69904,-0.0485129,0.163042,-0.39159,0.168785,-0.0463536,-0.0144135,0.46939,0.0754794,-4.17997,-14.6826,-3.74561,8.85993,-2.68511,-35.313,4.42083,12.0583,-3.05583,11.3995,-31.2971,-4.90778,10.7341,0.102225,0.305824,0.0717863,0.270435,-2.27657,0.464577,0.673828,-0.0509982,0.113635,-0.145032,0.525338,-0.664666,-0.220163,1.39831,0.0280743,0,0,0,0,0,0,0,0.25745,-26.8575,1.28633,20.528,0.709225,2.64855,-0.117081,
0.309633,0.0686156,0.274257,-2.28014,0.46434,0.689433,-0.0504786,0.173234,-0.362549,0.178043,-0.0648589,-0.0131157,0.539867,0.0683019,6.37031,18.1503,5.78604,-11.5659,0.811132,44.0483,-4.48592,11.8452,-3.13459,11.1608,-32.3264,-4.82709,10.7341,0.102877,0.305824,0.0717863,0.270435,-2.27657,0.464577,0.673828,-0.0509982,0.113635,-0.145032,0.525338,-0.664666,-0.220163,1.39831,0.0280743,0,0,0,0,0,0,0,0.25745,-26.8575,1.28633,20.528,0.709225,2.64855,-0.117081,
0.311052,0.0658348,0.275716,-2.28057,0.46426,0.694014,-0.0500016,0.174057,-0.359558,0.178913,-0.0626596,-0.0125106,0.54641,0.0665652,0.514236,1.86987,0.543839,1.37457,0.378193,4.0894,-1.08546,11.9413,-3.07258,11.2694,-31.8069,-4.93778,10.7341,0.102489,0.305824,0.0717863,0.270435,-2.27657,0.464577,0.673828,-0.0509982,0.113635,-0.145032,0.525338,-0.664666,-0.220163,1.39831,0.0280743,0,0,0,0,0,0,0,0.25745,-26.8575,1.28633,20.528,0.709225,2.64855,-0.117081,
0.312272,0.0624101,0.276996,-2.28065,0.4641,0.697069,-0.0493469,0.16976,-0.373264,0.17512,-0.0520099,-0.0140051,0.513519,0.0696208,-2.68576,-8.56661,-2.37067,6.65609,-0.934061,-20.5571,1.90978,12.0583,-3.05583,11.3995,-31.2971,-4.90778,10.7341,0.102225,0.305824,0.0717863,0.270435,-2.27657,0.464577,0.673828,-0.0509982,0.113635,-0.145032,0.525338,-0.664666,-0.220163,1.39831,0.0280743,0,0,0,0,0,0,0,0.25745,-26.8575,1.28633,20.528,0.709225,2.64855,-0.117081,
0.313363,0.0585346,0.278154,-2.28055,0.463841,0.699006,-0.0485147,0.163075,-0.395499,0.169046,-0.039078,-0.0176728,0.459237,0.0764997,-4.17794,-13.8965,-3.79661,8.08241,-2.29228,-33.9264,4.29932,12.1829,-3.07941,11.5359,-30.7985,-4.78881,10.7341,0.103575,0.305824,0.0717863,0.270435,-2.27657,0.464577,0.673828,-0.0509982,0.113635,-0.145032,0.525338,-0.664666,-0.220163,1.39831,0.0280743,0,0,0,0,0,0,0,0.25745,-26.8575,1.28633,20.528,0.709225,2.64855,-0.117081,
0.309645,0.068648,0.274271,-2.28009,0.464307,0.689428,-0.0504803,0.173412,-0.365258,0.178412,-0.058413,-0.0161728,0.531641,0.0691046,6.46062,18.9005,5.85388,-12.0844,0.937501,45.2527,-4.62194,11.9413,-3.07258,11.2694,-31.8069,-4.93778,10.7341,0.102489,0.305824,0.0717863,0.270435,-2.27657,0.464577,0.673828,-0.0509982,0.113635,-0.145032,0.525338,-0.664666,-0.220163,1.39831,0.0280743,0,0,0,0,0,0,0,0.25745,-26.8575,1.28633,20.528,0.709225,2.64855,-0.117081,
0.311067,0.0658814,0.275733,-2.2805,0.464213,0.694002,-0.0500024,0.1743,-0.361372,0.179299,-0.0569397,-0.0152732,0.539672,0.0672303,0.555276,2.42873,0.554669,0.92082,0.56225,5.01951,-1.17144,12.0583,-3.05583,11.3995,-31.2971,-4.90778,10.7341,0.102225,0.305824,0.0717863,0.270435,-2.27657,0.464577,0.673828,-0.0509982,0.113635,-0.145032,0.525338,-0.664666,-0.220163,1.39831,0.0280743,0,0,0,0,0,0,0,0.25745,-26.8575,1.28633,20.528,0.709225,2.64855,-0.117081,
0.312288,0.0624673,0.277012,-2.28056,0.464055,0.69705,-0.0493458,0.169945,-0.37445,0.175396,-0.0469849,-0.0161815,0.507926,0.0702009,-2.72195,-8.174,-2.43949,6.22173,-0.567719,-19.8415,1.85663,12.1829,-3.07941,11.5359,-30.7985,-4.78881,10.7341,0.103575,0.305824,0.0717863,0.270435,-2.27657,0.464577,0.673828,-0.0509982,0.113635,-0.145032,0.525338,-0.664666,-0.220163,1.39831,0.0280743,0,0,0,0,0,0,0,0.25745,-26.8575,1.28633,20.528,0.709225,2.64855,-0.117081,
0.313373,0.0586004,0.278163,-2.28044,0.463813,0.698977,-0.0485109,0.163098,-0.396232,0.169111,-0.0347032,-0.0189823,0.454529,0.0770333,-4.27968,-13.6137,-3.92818,7.67606,-1.75047,-33.3731,4.27024,12.2927,-3.13416,11.6581,-30.3119,-4.57137,10.7341,0.10424,0.305824,0.0717863,0.270435,-2.27657,0.464577,0.673828,-0.0509982,0.113635,-0.145032,0.525338,-0.664666,-0.220163,1.39831,0.0280743,0,0,0,0,0,0,0,0.25745,-26.8575,1.28633,20.528,0.709225,2.64855,-0.117081,
