xiao-wang007/linearmpc_panda/paper_data/panda_torque_PD_controller_Start_at_0_torque_rate_limiter_low_pass_filter/1/trajectory.csv
Commanded Joint 0 Position,Commanded Joint 1 Position,Commanded Joint 2 Position,Commanded Joint 3 Position,Commanded Joint 4 Position,Commanded Joint 5 Position,Commanded Joint 6 Position,Commanded Joint 0 Velocity,Commanded Joint 1 Velocity,Commanded Joint 2 Velocity,Commanded Joint 3 Velocity,Commanded Joint 4 Velocity,Commanded Joint 5 Velocity,Commanded Joint 6 Velocity,Commanded Joint 0 Acceleration,Commanded Joint 1 Acceleration,Commanded Joint 2 Acceleration,Commanded Joint 3 Acceleration,Commanded Joint 4 Acceleration,Commanded Joint 5 Acceleration,Commanded Joint 6 Acceleration,Commanded Joint 0 Torque,Commanded Joint 1 Torque,Commanded Joint 2 Torque,Commanded Joint 3 Torque,Commanded Joint 4 Torque,Commanded Joint 5 Torque,Commanded Joint 6 Torque,Actual Joint 0 Position,Actual Joint 1 Position,Actual Joint 2 Position,Actual Joint 3 Position,Actual Joint 4 Position,Actual Joint 5 Position,Actual Joint 6 Position,Actual Joint 0 Velocity,Actual Joint 1 Velocity,Actual Joint 2 Velocity,Actual Joint 3 Velocity,Actual Joint 4 Velocity,Actual Joint 5 Velocity,Actual Joint 6 Velocity,Actual Joint 0 Acceleration,Actual Joint 1 Acceleration,Actual Joint 2 Acceleration,Actual Joint 3 Acceleration,Actual Joint 4 Acceleration,Actual Joint 5 Acceleration,Actual Joint 6 Acceleration,Actual Joint 0 Torque,Actual Joint 1 Torque,Actual Joint 2 Torque,Actual Joint 3 Torque,Actual Joint 4 Torque,Actual Joint 5 Torque,Actual Joint 6 Torque,
0.00080284,-0.0629031,-0.00150115,-1.82983,0.0217969,0.219211,-0.0655832,0.000554274,0.0201948,0.000594082,-0.0338513,-0.00555752,0.0534085,-0.000389549,0.346421,12.6217,0.371301,-21.1571,-3.47345,33.3803,-0.243468,0.0546472,22.3933,0.120191,-24.3016,-0.701324,2.00552,-0.024711,0.000751331,-0.0643286,-0.00154763,-1.82638,0.0221995,0.213506,-0.065535,0.000736375,0.000107844,0.000934487,-0.000648018,-0.00433797,0.000733603,-0.000908031,0,0,0,0,0,0,0,-0.0956386,-32.9472,-0.260912,27.2287,0.776974,3.11272,0.0376436,
0.00075956,-0.0643236,-0.00153883,-1.82638,0.0221664,0.213507,-0.0655359,0.000485219,0.0161924,0.000519584,-0.0271038,-0.00456616,0.0427175,-0.000314743,-0.043159,-2.50147,-0.0465611,4.2172,0.619601,-6.6819,0.0467539,0.048938,22.834,0.109869,-24.2179,-0.701379,1.75436,-0.0231954,0.000751331,-0.0643286,-0.00154763,-1.82638,0.0221995,0.213506,-0.065535,0.000736375,0.000107844,0.000934487,-0.000648018,-0.00433797,0.000733603,-0.000908031,0,0,0,0,0,0,0,-0.0956386,-32.9472,-0.260912,27.2287,0.776974,3.11272,0.0376436,
0.000760691,-0.0643224,-0.00153764,-1.82638,0.0221642,0.213506,-0.065536,0.000416452,0.0129845,0.000445436,-0.0217005,-0.00370805,0.0341608,-0.00025364,-0.0429797,-2.00497,-0.0463422,3.37704,0.536321,-5.34796,0.0381892,0.0417611,23.4056,0.0981581,-24.1099,-0.700626,1.40655,-0.0212275,0.000751331,-0.0643286,-0.00154763,-1.82638,0.0221995,0.213506,-0.065535,0.000736375,0.000107844,0.000934487,-0.000648018,-0.00433797,0.000733603,-0.000908031,0,0,0,0,0,0,0,-0.0956386,-32.9472,-0.260912,27.2287,0.776974,3.11272,0.0376436,
0.000761481,-0.0643214,-0.00153681,-1.82638,0.0221633,0.213506,-0.065536,0.000352893,0.0104129,0.000376976,-0.0173742,-0.00298774,0.027315,-0.000204036,-0.0397241,-1.60721,-0.0427879,2.70396,0.450193,-4.27863,0.0310027,0.0358545,23.9297,0.0887613,-23.9422,-0.698374,1.02112,-0.0192266,0.000751331,-0.0643286,-0.00154763,-1.82638,0.0221995,0.213506,-0.065535,0.000736375,0.000107844,0.000934487,-0.000648018,-0.00433797,0.000733603,-0.000908031,0,0,0,0,0,0,0,-0.0956386,-32.9472,-0.260912,27.2287,0.776974,3.11272,0.0376436,
0.000643258,-0.0643107,-0.00164503,-1.82628,0.0244678,0.212176,-0.0655567,-0.0012329,0.00846288,-0.00113474,-0.0126921,0.0325923,0.00139292,-0.000362564,-0.991121,-1.21877,-0.944822,2.92633,22.2375,-16.2013,-0.0990803,0.47242,0.210743,0.471372,-0.285842,2.97047,-1.9177,-0.0017575,0.000751331,-0.0643286,-0.00154763,-1.82638,0.0221995,0.213506,-0.065535,0.000736375,0.000107844,0.000934487,-0.000648018,-0.00433797,0.000733603,-0.000908031,0,0,0,0,0,0,0,-0.0956386,-32.9472,-0.260912,27.2287,0.776974,3.11272,0.0376436,
0.000585744,-0.0643119,-0.00170175,-1.82624,0.0261788,0.211159,-0.0655611,-0.00242417,0.00674132,-0.00232599,-0.00923801,0.0688473,-0.0243169,-0.000399546,-0.744546,-1.07598,-0.744534,2.15878,22.6594,-16.0686,-0.0231134,0.466214,0.208383,0.464989,-0.282822,2.94524,-1.90243,-0.00169025,0.000751331,-0.0643286,-0.00154763,-1.82638,0.0221995,0.213506,-0.065535,0.000736375,0.000107844,0.000934487,-0.000648018,-0.00433797,0.000733603,-0.000908031,0,0,0,0,0,0,0,-0.0956386,-32.9472,-0.260912,27.2287,0.776974,3.11272,0.0376436,
0.000538289,-0.0643162,-0.00174957,-1.82622,0.0280733,0.210009,-0.0655635,-0.00312571,0.00528337,-0.00305613,-0.00676656,0.102441,-0.0481912,-0.000380378,-0.438461,-0.911214,-0.456333,1.54465,20.9963,-14.9215,0.01198,0.459797,0.211541,0.458218,-0.280115,2.92052,-1.88676,-0.00165436,0.000757176,-0.0641654,-0.0015447,-1.82648,0.0221907,0.213729,-0.0655294,0.000923523,0.0128402,0.000843236,-0.0199352,-0.00431779,0.0520668,0.000382167,0.0233936,1.59154,-0.0114064,-2.41089,0.00252278,6.41665,0.161275,-0.0440639,-31.0271,-0.213304,25.2847,0.599362,3.62359,-0.0026396,
0.00050311,-0.0643213,-0.00178559,-1.8262,0.0300756,0.208772,-0.0655649,-0.00338004,0.00409977,-0.00334534,-0.00503672,0.13201,-0.0694878,-0.000339783,-0.158958,-0.739751,-0.18076,1.08115,18.4807,-13.3104,0.0253714,0.453728,0.208205,0.452003,-0.277559,2.89566,-1.87144,-0.00162868,0.000757176,-0.0641654,-0.0015447,-1.82648,0.0221907,0.213729,-0.0655294,0.000923523,0.0128402,0.000843236,-0.0199352,-0.00431779,0.0520668,0.000382167,0,0,0,0,0,0,0,-0.0440639,-31.0271,-0.213304,25.2847,0.599362,3.62359,-0.0026396,
0.000496899,-0.0639248,-0.00176512,-1.82618,0.0298772,0.208539,-0.0655851,-0.00607351,0.00565875,-0.00570444,-0.000242704,0.223585,-0.137097,-0.000741874,-1.68342,0.974362,-1.47444,2.99626,57.234,-42.2556,-0.251307,4.01294,1.18384,4.0793,-1.74633,10.3598,-7.9781,0.000766138,0.000757176,-0.0641654,-0.0015447,-1.82648,0.0221907,0.213729,-0.0655294,0.000923523,0.0128402,0.000843236,-0.0199352,-0.00431779,0.0520668,0.000382167,0,0,0,0,0,0,0,-0.0440639,-31.0271,-0.213304,25.2847,0.599362,3.62359,-0.0026396,
0.000397971,-0.0638714,-0.00185724,-1.82608,0.0356039,0.204453,-0.0655924,-0.00733201,0.00586258,-0.00686633,0.00229434,0.322034,-0.211827,-0.000777497,-0.786562,0.127392,-0.726181,1.58565,61.5309,-46.7062,-0.022264,3.88674,1.16519,3.96249,-1.70947,10.1217,-7.80917,0.00106675,0.000757176,-0.0641654,-0.0015447,-1.82648,0.0221907,0.213729,-0.0655294,0.000923523,0.0128402,0.000843236,-0.0199352,-0.00431779,0.0520668,0.000382167,0,0,0,0,0,0,0,-0.0440639,-31.0271,-0.213304,25.2847,0.599362,3.62359,-0.0026396,
0.000351292,-0.0638402,-0.00190034,-1.82603,0.0418981,0.199845,-0.065594,-0.00703258,0.00546859,-0.00657075,0.00299353,0.414983,-0.284653,-0.000660821,0.187145,-0.246244,0.184739,0.436995,58.0932,-45.5162,0.0729226,3.76385,1.13612,3.84221,-1.67924,9.90252,-7.63805,0.000663547,0.000757176,-0.0641654,-0.0015447,-1.82648,0.0221907,0.213729,-0.0655294,0.000923523,0.0128402,0.000843236,-0.0199352,-0.00431779,0.0520668,0.000382167,0,0,0,0,0,0,0,-0.0440639,-31.0271,-0.213304,25.2847,0.599362,3.62359,-0.0026396,
0.00145493,-0.0618128,-0.000666723,-1.83105,0.0293331,0.207741,-0.0652963,0.00568361,0.0149085,0.00829733,-0.00526263,0.438323,-0.386939,0.00182008,7.94762,5.89992,9.29255,-5.1601,14.5871,-63.9287,1.55056,22.3853,4.56216,23.4655,-10.0207,10.9096,-14.2187,0.187293,0.000754659,-0.0627353,-0.00152543,-1.83031,0.0224692,0.218103,-0.0655332,5.11098e-05,0.0339004,0.00143337,-0.178226,0.050988,0.0546828,-0.00021658,-0.109052,2.63253,0.073767,-19.7864,6.91322,0.326989,-0.0748434,0.0828892,-22.8664,-0.185533,19.2068,1.65588,0.519949,0.0303194,
0.00207474,-0.0615052,6.08223e-05,-1.83141,0.0347528,0.199884,-0.0652136,0.0200421,0.0196185,0.0248265,-0.0131173,0.48615,-0.50598,0.00352231,8.97406,2.94375,10.3307,-4.90917,29.892,-74.401,1.0639,20.5193,3.96673,21.809,-9.22925,10.9096,-14.2187,0.116192,0.000754659,-0.0627353,-0.00152543,-1.83031,0.0224692,0.218103,-0.0655332,5.11098e-05,0.0339004,0.00143337,-0.178226,0.050988,0.0546828,-0.00021658,0,0,0,0,0,0,0,0.0828892,-22.8664,-0.185533,19.2068,1.65588,0.519949,0.0303194,
0.00289845,-0.0614254,0.000874253,-1.83203,0.0410061,0.191159,-0.0649952,0.0366265,0.017689,0.040197,-0.0260969,0.545252,-0.622894,0.00827823,10.3653,-1.20592,9.60654,-8.11222,36.9387,-73.0711,2.97245,19.3623,2.76691,20.8516,-8.72601,10.9096,-14.2187,0.100446,0.000754659,-0.0627353,-0.00152543,-1.83031,0.0224692,0.218103,-0.0655332,5.11098e-05,0.0339004,0.00143337,-0.178226,0.050988,0.0546828,-0.00021658,0,0,0,0,0,0,0,0.0828892,-22.8664,-0.185533,19.2068,1.65588,0.519949,0.0303194,
0.00375842,-0.0614133,0.00177741,-1.83272,0.0479441,0.181703,-0.0649399,0.0508004,0.0144534,0.0547365,-0.0378947,0.609653,-0.734727,0.00800562,8.85865,-2.02225,9.0872,-7.37365,40.2505,-69.8954,-0.170383,19.4705,-1.46541,19.4338,-11.2576,10.9096,-14.2187,0.276651,0.000754659,-0.0627353,-0.00152543,-1.83031,0.0224692,0.218103,-0.0655332,5.11098e-05,0.0339004,0.00143337,-0.178226,0.050988,0.0546828,-0.00021658,0,0,0,0,0,0,0,0.0828892,-22.8664,-0.185533,19.2068,1.65588,0.519949,0.0303194,
0.00218997,-0.0615619,-0.000119584,-1.83796,0.0387802,0.200496,-0.0651637,0.0640671,0.0156261,0.0660522,-0.0554281,0.605755,-0.766214,0.0100604,8.29173,0.732968,7.07232,-10.9584,-2.43638,-19.6794,1.28422,33.098,1.67173,33.0455,-19.5252,10.8654,-14.175,0.262688,0.000663559,-0.0619892,-0.00155552,-1.83602,0.0304025,0.213036,-0.0655379,0.00248397,0.0588504,0.0091124,-0.108035,0.318037,-0.358066,-0.000643546,0.304108,3.11875,0.959878,8.77392,33.3811,-51.5936,-0.0533707,3.1258,-35.8434,2.93672,29.0219,2.87811,0.0429594,0.0440523,
0.00331415,-0.061542,0.00106269,-1.83916,0.044411,0.192267,-0.0649272,0.079358,0.0129993,0.0823986,-0.0743386,0.625375,-0.818689,0.0139616,9.55681,-1.64179,10.2165,-11.8191,12.2631,-32.797,2.43825,29.9472,2.11315,29.6923,-18.4705,10.8654,-14.175,0.158834,0.000663559,-0.0619892,-0.00155552,-1.83602,0.0304025,0.213036,-0.0655379,0.00248397,0.0588504,0.0091124,-0.108035,0.318037,-0.358066,-0.000643546,0,0,0,0,0,0,0,3.1258,-35.8434,2.93672,29.0219,2.87811,0.0429594,0.0440523,
0.0045749,-0.0615255,0.00234804,-1.84039,0.0508498,0.183181,-0.0648709,0.0950051,0.0108097,0.0980527,-0.0901558,0.661269,-0.882104,0.0125756,9.77944,-1.36846,9.78383,-9.88574,22.4336,-39.6342,-0.866212,27.2868,-0.0652189,28.2451,-19.7583,10.8654,-14.175,0.288163,0.000663559,-0.0619892,-0.00155552,-1.83602,0.0304025,0.213036,-0.0655379,0.00248397,0.0588504,0.0091124,-0.108035,0.318037,-0.358066,-0.000643546,0,0,0,0,0,0,0,3.1258,-35.8434,2.93672,29.0219,2.87811,0.0429594,0.0440523,
0.00592838,-0.0614857,0.00369878,-1.84163,0.0578909,0.173504,-0.0648383,0.109841,0.00964442,0.112211,-0.103096,0.705044,-0.947615,0.0108766,9.27254,-0.728326,8.84866,-8.08793,27.3593,-40.9446,-1.06187,23.5935,1.32421,23.9861,-18.7075,10.8654,-14.175,0.0578779,0.000663559,-0.0619892,-0.00155552,-1.83602,0.0304025,0.213036,-0.0655379,0.00248397,0.0588504,0.0091124,-0.108035,0.318037,-0.358066,-0.000643546,0,0,0,0,0,0,0,3.1258,-35.8434,2.93672,29.0219,2.87811,0.0429594,0.0440523,
0.00232276,-0.0618658,0.000174447,-1.83888,0.0385314,0.201195,-0.0650972,0.113873,0.00705949,0.116133,-0.121545,0.678486,-0.926777,0.0149356,2.51957,-1.61558,2.45156,-11.5305,-16.5985,13.0237,2.53682,36.155,2.51627,37.4679,-27.1737,10.5951,-14.0658,0.210329,0.000807412,-0.0582592,-0.00163327,-1.83485,0.0616787,0.180471,-0.0655247,0.0256558,0.101331,-0.00132732,0.093123,0.998743,-1.32968,0.000696683,2.89648,5.31006,-1.30496,25.1447,85.0883,-121.452,0.167529,9.94556,-35.7204,9.56209,21.3214,3.40912,-3.16596,0.0843355,
0.00357281,-0.0619066,0.00146112,-1.84051,0.0441076,0.19318,-0.0650546,0.122349,0.00462935,0.125073,-0.138111,0.682195,-0.941793,0.0130123,5.29795,-1.51884,5.5876,-10.3539,2.31782,-9.38521,-1.20203,33.0038,1.19258,33.5704,-27.6614,10.5951,-14.0658,0.293161,0.000807412,-0.0582592,-0.00163327,-1.83485,0.0616787,0.180471,-0.0655247,0.0256558,0.101331,-0.00132732,0.093123,0.998743,-1.32968,0.000696683,0,0,0,0,0,0,0,9.94556,-35.7204,9.56209,21.3214,3.40912,-3.16596,0.0843355,
0.00495962,-0.0619298,0.00290028,-1.8422,0.0504786,0.184282,-0.0650518,0.132549,0.00312214,0.136038,-0.152603,0.70503,-0.975886,0.0104809,6.37516,-0.942006,6.85278,-9.05725,14.2716,-21.3078,-1.58215,28.0081,2.42223,28.6702,-26.4232,10.5951,-14.0658,0.0360971,0.000807412,-0.0582592,-0.00163327,-1.83485,0.0616787,0.180471,-0.0655247,0.0256558,0.101331,-0.00132732,0.093123,0.998743,-1.32968,0.000696683,0,0,0,0,0,0,0,9.94556,-35.7204,9.56209,21.3214,3.40912,-3.16596,0.0843355,
0.00644646,-0.0619338,0.00442423,-1.84393,0.0574634,0.174776,-0.0650682,0.143211,0.00239821,0.146929,-0.165373,0.738643,-1.01836,0.0079738,6.66321,-0.452456,6.80696,-7.98116,21.0085,-26.5481,-1.56692,25.79,2.5866,26.5705,-25.6552,10.5951,-14.0658,-0.00135166,0.000807412,-0.0582592,-0.00163327,-1.83485,0.0616787,0.180471,-0.0655247,0.0256558,0.101331,-0.00132732,0.093123,0.998743,-1.32968,0.000696683,0,0,0,0,0,0,0,9.94556,-35.7204,9.56209,21.3214,3.40912,-3.16596,0.0843355,
0.0029497,-0.058538,0.000534925,-1.83837,0.0755879,0.162518,-0.065136,0.146624,-0.00242793,0.150079,-0.182536,0.762624,-1.0409,0.00808686,2.13332,-3.01634,1.96876,-10.7269,14.988,-14.0873,0.0706602,39.4885,3.3798,40.4356,-34.704,10.6558,-13.6688,0.340353,0.00507722,-0.0575761,0.00136332,-1.83692,0.093408,0.130604,-0.0651612,0.200264,-0.0216757,0.161384,-0.226661,0.927247,-1.47861,0.0101536,21.826,-15.3758,20.3389,-39.9731,-8.93701,-18.6161,1.18211,19.4551,-29.2299,19.5874,13.5495,4.04998,-3.15956,0.259201,
0.00448054,-0.0586414,0.00209255,-1.84053,0.0826209,0.153088,-0.0651439,0.15557,-0.00452776,0.159004,-0.200043,0.785922,-1.06848,0.00627178,5.59145,-1.31239,5.57812,-10.9421,14.5615,-17.2342,-1.13443,33.1813,4.51319,33.887,-33.2601,10.6558,-13.6688,0.0310184,0.00507722,-0.0575761,0.00136332,-1.83692,0.093408,0.130604,-0.0651612,0.200264,-0.0216757,0.161384,-0.226661,0.927247,-1.47861,0.0101536,0,0,0,0,0,0,0,19.4551,-29.2299,19.5874,13.5495,4.04998,-3.15956,0.259201,
0.00614767,-0.0586724,0.0038001,-1.84277,0.0899423,0.14332,-0.065193,0.166134,-0.00439583,0.169892,-0.215954,0.811773,-1.09898,0.00379034,6.60254,0.0824558,6.80488,-9.94407,16.1568,-19.0671,-1.5509,30.0749,4.41509,30.6786,-32.4145,10.6558,-13.6688,-0.036277,0.00507722,-0.0575761,0.00136332,-1.83692,0.093408,0.130604,-0.0651612,0.200264,-0.0216757,0.161384,-0.226661,0.927247,-1.47861,0.0101536,0,0,0,0,0,0,0,19.4551,-29.2299,19.5874,13.5495,4.04998,-3.15956,0.259201,
0.0088204,-0.0579469,0.0051997,-1.84231,0.1082,0.109841,-0.0651201,0.181874,-0.00683085,0.186144,-0.243039,0.836448,-1.13208,0.00223035,9.837,-1.52189,10.1575,-16.9283,15.4216,-20.6839,-0.974996,36.1078,5.82686,37.0848,-39.5596,10.6558,-13.1335,0.0547551,0.00507722,-0.0575761,0.00136332,-1.83692,0.093408,0.130604,-0.0651612,0.200264,-0.0216757,0.161384,-0.226661,0.927247,-1.47861,0.0101536,0,0,0,0,0,0,0,19.4551,-29.2299,19.5874,13.5495,4.04998,-3.15956,0.259201,
0.0108513,-0.0579875,0.00728044,-1.84523,0.115946,0.100113,-0.0652139,0.19627,-0.00647899,0.200933,-0.267374,0.862815,-1.14886,-0.000561904,8.9979,0.219914,9.24351,-15.2093,16.4795,-10.4854,-1.74516,32.2254,5.02544,33.0701,-38.5443,10.8063,-11.9729,-0.0649066,0.0137833,-0.0596254,0.0103828,-1.84989,0.123561,0.080569,-0.0649614,0.33909,-0.0361347,0.364924,-0.456221,0.890461,-1.52559,0.00110145,17.3533,-1.80738,25.4425,-28.6949,-4.59823,-5.87227,-1.13152,19.4313,-23.8384,19.4089,21.2738,4.60022,-1.62788,0.0641939,
0.0128933,-0.0579667,0.00937274,-1.8482,0.123948,0.090723,-0.0653365,0.208067,-0.00466306,0.213054,-0.288181,0.890315,-1.15384,-0.00351365,7.3733,1.13496,7.57562,-13.0042,17.1878,-3.11387,-1.84484,29.172,3.83566,29.8851,-38.0646,10.8063,-11.3743,-0.128021,0.0137833,-0.0596254,0.0103828,-1.84989,0.123561,0.080569,-0.0649614,0.33909,-0.0361347,0.364924,-0.456221,0.890461,-1.52559,0.00110145,0,0,0,0,0,0,0,19.4313,-23.8384,19.4089,21.2738,4.60022,-1.62788,0.0641939,
0.0149155,-0.0579174,0.011445,-1.85124,0.132164,0.0820088,-0.0654681,0.217009,-0.00249911,0.222249,-0.306654,0.917651,-1.14093,-0.00610071,5.58857,1.35247,5.74685,-11.5459,17.0851,8.06975,-1.61692,26.8764,2.83338,27.5235,-37.5551,10.8063,-10.8495,-0.155571,0.0137833,-0.0596254,0.0103828,-1.84989,0.123561,0.080569,-0.0649614,0.33909,-0.0361347,0.364924,-0.456221,0.890461,-1.52559,0.00110145,0,0,0,0,0,0,0,19.4313,-23.8384,19.4089,21.2738,4.60022,-1.62788,0.0641939,
0.0190729,-0.0595633,0.015812,-1.85741,0.139647,0.0617832,-0.0652343,0.238278,0.000507181,0.244153,-0.339664,0.941083,-1.12846,-0.00911985,13.2928,1.87893,13.69,-20.631,14.6449,7.78828,-1.88696,31.6648,5.99531,32.4604,-44.109,10.8063,-7.3847,-0.131954,0.0137833,-0.0596254,0.0103828,-1.84989,0.123561,0.080569,-0.0649614,0.33909,-0.0361347,0.364924,-0.456221,0.890461,-1.52559,0.00110145,0,0,0,0,0,0,0,19.4313,-23.8384,19.4089,21.2738,4.60022,-1.62788,0.0641939,
0.0215308,-0.0593974,0.0183336,-1.86117,0.148219,0.0543283,-0.0654308,0.25207,0.00455363,0.258364,-0.365778,0.967183,-1.08914,-0.0122081,8.61995,2.52903,8.88162,-16.3215,16.3126,24.575,-1.93015,28.6154,4.26834,29.3618,-43.4994,10.8892,-6.01146,-0.208323,0.0270201,-0.0607884,0.0259669,-1.86682,0.157136,0.0257192,-0.0649515,0.446495,-0.0429034,0.504233,-0.569531,1.0611,-1.59944,-0.00252172,13.4257,-0.846077,17.4137,-14.1638,21.3297,-9.2309,-0.452895,12.0006,-21.8428,11.8631,15.4181,3.50708,-2.331,0.0980684,
0.0238637,-0.059216,0.0207271,-1.86494,0.15696,0.0481453,-0.0656312,0.25998,0.00817733,0.266528,-0.386871,0.99227,-1.02589,-0.0147765,4.94431,2.26481,5.10233,-13.183,15.6794,39.5334,-1.60527,26.2294,2.89643,26.9116,-43.1037,10.8892,-5.33883,-0.236981,0.0270201,-0.0607884,0.0259669,-1.86682,0.157136,0.0257192,-0.0649515,0.446495,-0.0429034,0.504233,-0.569531,1.0611,-1.59944,-0.00252172,0,0,0,0,0,0,0,12.0006,-21.8428,11.8631,15.4181,3.50708,-2.331,0.0980684,
0.0333166,-0.0609741,0.0324321,-1.87634,0.176086,0.0120338,-0.0655733,0.282375,0.00598914,0.289541,-0.427672,1.03443,-0.954591,-0.0196899,13.9966,-1.36762,14.3832,-25.5004,26.3505,44.563,-3.07085,24.266,2.04501,24.8886,-49.3897,10.8892,2.09131,-0.367178,0.0270201,-0.0607884,0.0259669,-1.86682,0.157136,0.0257192,-0.0649515,0.446495,-0.0429034,0.504233,-0.569531,1.0611,-1.59944,-0.00252172,0,0,0,0,0,0,0,12.0006,-21.8428,11.8631,15.4181,3.50708,-2.331,0.0980684,
0.0360113,-0.0609317,0.0351966,-1.88097,0.185747,0.00910075,-0.0658712,0.29327,0.00585168,0.300745,-0.457682,1.06908,-0.836999,-0.0231993,6.80917,-0.0859135,7.00287,-18.7565,21.6568,73.4948,-2.19337,22.6461,0.43565,23.2288,-49.1383,10.8892,2.58031,-0.366596,0.0270201,-0.0607884,0.0259669,-1.86682,0.157136,0.0257192,-0.0649515,0.446495,-0.0429034,0.504233,-0.569531,1.0611,-1.59944,-0.00252172,0,0,0,0,0,0,0,12.0006,-21.8428,11.8631,15.4181,3.50708,-2.331,0.0980684,
0.0384798,-0.0608773,0.0377292,-1.88551,0.195315,0.00843687,-0.066145,0.296326,0.00604158,0.30391,-0.479664,1.09446,-0.686196,-0.0254049,1.91038,0.118689,1.97794,-13.7388,15.8589,94.2519,-1.37848,21.669,-0.242813,22.2706,-48.205,10.9366,4.78185,-0.352077,0.0467882,-0.0609739,0.0426171,-1.89152,0.19795,-0.0275387,-0.0651002,0.612744,-0.00549741,0.540551,-0.811618,1.2555,-1.50135,-0.00390589,20.7811,4.67574,4.53972,-30.2609,24.2998,12.2611,-0.173022,4.77222,-27.0082,4.66249,17.8104,2.5357,-0.15571,0.0303194,
0.0407625,-0.0608329,0.0400717,-1.88996,0.204725,0.00978093,-0.0663927,0.294129,0.00594273,0.30169,-0.494946,1.11081,-0.515356,-0.0265167,-1.37359,-0.0617785,-1.38748,-9.5514,10.2211,106.775,-0.694905,20.707,-0.83248,21.2904,-47.615,10.9366,7.09341,-0.325029,0.0467882,-0.0609739,0.0426171,-1.89152,0.19795,-0.0275387,-0.0651002,0.612744,-0.00549741,0.540551,-0.811618,1.2555,-1.50135,-0.00390589,0,0,0,0,0,0,0,4.77222,-27.0082,4.66249,17.8104,2.5357,-0.15571,0.0303194,
0.0538457,-0.0604658,0.0498513,-1.90344,0.219341,-0.0354622,-0.0660154,0.316544,0.012337,0.324721,-0.540139,1.15615,-0.459481,-0.0320741,14.0098,3.99642,14.3941,-28.2457,28.338,34.9217,-3.47339,16.007,-0.0440373,16.4744,-53.3784,10.9366,12.0462,-0.573835,0.0467882,-0.0609739,0.0426171,-1.89152,0.19795,-0.0275387,-0.0651002,0.612744,-0.00549741,0.540551,-0.811618,1.2555,-1.50135,-0.00390589,0,0,0,0,0,0,0,4.77222,-27.0082,4.66249,17.8104,2.5357,-0.15571,0.0303194,
0.0566731,-0.0601573,0.0527532,-1.90885,0.229786,-0.0344132,-0.0663933,0.323919,0.0175809,0.332324,-0.567346,1.18604,-0.341358,-0.0351055,4.60908,3.27744,4.75229,-17.0041,18.6807,73.8266,-1.89461,16.3338,-1.12504,16.8123,-53.0038,10.9366,12.0462,-0.500578,0.0467882,-0.0609739,0.0426171,-1.89152,0.19795,-0.0275387,-0.0651002,0.612744,-0.00549741,0.540551,-0.811618,1.2555,-1.50135,-0.00390589,0,0,0,0,0,0,0,4.77222,-27.0082,4.66249,17.8104,2.5357,-0.15571,0.0303194,
0.0591734,-0.0598944,0.0553201,-1.91396,0.239885,-0.0312566,-0.0667191,0.321645,0.0206379,0.330031,-0.58152,1.20131,-0.194172,-0.0362301,-1.42117,1.91065,-1.433,-8.85879,9.54177,91.9913,-0.70289,16.4963,-1.59705,16.9774,-52.4303,10.9366,12.0462,-0.43551,0.0467882,-0.0609739,0.0426171,-1.89152,0.19795,-0.0275387,-0.0651002,0.612744,-0.00549741,0.540551,-0.811618,1.2555,-1.50135,-0.00390589,0,0,0,0,0,0,0,4.77222,-27.0082,4.66249,17.8104,2.5357,-0.15571,0.0303194,
0.0614176,-0.0596963,0.0576244,-1.91881,0.24963,-0.026576,-0.0669985,0.31342,0.0214631,0.321632,-0.586492,1.20467,-0.0383224,-0.0359682,-5.14046,0.515705,-5.24978,-3.1075,2.10011,97.406,0.163693,16.5613,-2.47292,17.0916,-50.8276,10.7574,12.6001,-0.384826,0.0648389,-0.0597294,0.0665433,-1.92456,0.243582,-0.0640247,-0.0658015,0.608766,-0.0331008,0.659031,-1.1133,1.43468,-0.664648,-0.0353806,-0.497165,-3.45042,14.81,-37.7099,22.398,104.587,-3.93433,1.93164,-28.607,1.3379,22.6425,2.42584,1.83922,-0.0566557,
0.0720293,-0.0591005,0.073936,-1.93782,0.266386,-0.0664295,-0.0669644,0.331397,0.0251723,0.340169,-0.624989,1.24538,-0.0263937,-0.0419054,11.2354,2.31826,11.5861,-24.0608,25.4466,7.45546,-3.71072,6.94692,-6.78875,7.25501,-56.5269,10.7574,12.6001,-0.747836,0.0648389,-0.0597294,0.0665433,-1.92456,0.243582,-0.0640247,-0.0658015,0.608766,-0.0331008,0.659031,-1.1133,1.43468,-0.664648,-0.0353806,0,0,0,0,0,0,0,1.93164,-28.607,1.3379,22.6425,2.42584,1.83922,-0.0566557,
0.0747259,-0.0588892,0.0767047,-1.94356,0.277191,-0.0640578,-0.0673862,0.332532,0.0254219,0.341352,-0.643594,1.26644,0.0381761,-0.0440714,0.709561,0.156013,0.738762,-11.6281,13.1617,40.3561,-1.35378,9.40876,-6.87908,9.76047,-55.9131,10.7574,12.6001,-0.598448,0.0648389,-0.0597294,0.0665433,-1.92456,0.243582,-0.0640247,-0.0658015,0.608766,-0.0331008,0.659031,-1.1133,1.43468,-0.664648,-0.0353806,0,0,0,0,0,0,0,1.93164,-28.607,1.3379,22.6425,2.42584,1.83922,-0.0566557,
0.0770362,-0.0587942,0.0790759,-1.94894,0.28749,-0.0600085,-0.067726,0.323784,0.0227115,0.332362,-0.649332,1.27062,0.131776,-0.0437522,-5.46762,-1.694,-5.61875,-3.58582,2.61041,58.4997,0.199495,10.9895,-6.48371,11.3593,-55.186,10.7574,12.6001,-0.483588,0.0648389,-0.0597294,0.0665433,-1.92456,0.243582,-0.0640247,-0.0658015,0.608766,-0.0331008,0.659031,-1.1133,1.43468,-0.664648,-0.0353806,0,0,0,0,0,0,0,1.93164,-28.607,1.3379,22.6425,2.42584,1.83922,-0.0566557,
0.0950964,-0.057422,0.0938633,-1.98059,0.317299,-0.0580673,-0.0681448,0.340409,0.0393287,0.34956,-0.674584,1.29288,0.190016,-0.0458541,10.3906,10.3858,10.7491,-15.7829,13.9161,36.4,-1.31367,9.23381,-7.55401,9.63018,-55.1515,10.442,12.8822,-0.607424,0.0878555,-0.0592528,0.0864128,-1.96707,0.294534,-0.0638661,-0.0671846,0.602187,0.0295345,0.654985,-1.31211,1.59687,0.39797,-0.0632662,-0.822483,7.82941,-0.5057,-24.851,20.2732,132.827,-3.4857,-6.20923,-31.0271,-6.50939,28.3237,1.44256,4.81011,-0.0301054,
0.0978143,-0.0568421,0.0966558,-1.98624,0.327772,-0.0535374,-0.0684952,0.340276,0.0459617,0.349463,-0.680724,1.29614,0.26526,-0.0454444,-0.082826,4.14561,-0.0608561,-3.83736,2.03485,47.028,0.256038,10.8146,-7.15864,11.229,-54.4244,10.442,12.8822,-0.492564,0.0878555,-0.0592528,0.0864128,-1.96707,0.294534,-0.0638661,-0.0671846,0.602187,0.0295345,0.654985,-1.31211,1.59687,0.39797,-0.0632662,0,0,0,0,0,0,0,-6.20923,-31.0271,-6.50939,28.3237,1.44256,4.81011,-0.0301054,
0.10014,-0.0564946,0.0990438,-1.99149,0.337643,-0.0480067,-0.0687755,0.330366,0.0454578,0.33927,-0.676035,1.28369,0.350476,-0.0433633,-6.19402,-0.314959,-6.37037,2.93045,-7.78328,53.2599,1.30073,11.811,-6.49739,12.2291,-53.6309,10.442,12.8822,-0.40173,0.0878555,-0.0592528,0.0864128,-1.96707,0.294534,-0.0638661,-0.0671846,0.602187,0.0295345,0.654985,-1.31211,1.59687,0.39797,-0.0632662,0,0,0,0,0,0,0,-6.20923,-31.0271,-6.50939,28.3237,1.44256,4.81011,-0.0301054,
0.102185,-0.0563231,0.101141,-1.99644,0.346748,-0.041661,-0.0689971,0.315416,0.0406514,0.323838,-0.664569,1.25457,0.439022,-0.0402316,-9.34342,-3.00399,-9.64541,7.16617,-18.1985,55.3412,1.95728,12.4252,-5.70009,12.8404,-52.799,10.1653,12.8822,-0.326424,0.0878555,-0.0592528,0.0864128,-1.96707,0.294534,-0.0638661,-0.0671846,0.602187,0.0295345,0.654985,-1.31211,1.59687,0.39797,-0.0632662,0,0,0,0,0,0,0,-6.20923,-31.0271,-6.50939,28.3237,1.44256,4.81011,-0.0301054,
0.115466,-0.0566439,0.113056,-2.023,0.373839,-0.0311065,-0.0699408,0.32794,0.052022,0.336732,-0.679809,1.27929,0.473315,-0.0409466,7.82735,7.10666,8.05886,-9.52469,15.4502,21.4333,-0.446894,10.8596,-7.80951,11.3162,-54.3506,10.1975,12.8179,-0.495642,0.108787,-0.0583479,0.106215,-2.01002,0.350696,-0.0405712,-0.0691643,0.651511,0.0203319,0.472987,-1.29994,1.76678,0.806863,-0.077443,6.16549,-1.15033,-22.7497,1.52091,21.2397,51.1116,-1.77211,-10.6724,-32.4751,-11.0123,29.3948,0.770565,4.04107,-0.110672,
0.118026,-0.0561309,0.115685,-2.02838,0.384022,-0.0255107,-0.0702234,0.326354,0.0544442,0.335102,-0.678484,1.278,0.518549,-0.039823,-0.991377,1.51383,-1.01845,0.828375,-0.806406,28.2706,0.702254,11.856,-7.14826,12.3163,-53.5571,10.1975,12.8179,-0.404808,0.108787,-0.0583479,0.106215,-2.01002,0.350696,-0.0405712,-0.0691643,0.651511,0.0203319,0.472987,-1.29994,1.76678,0.806863,-0.077443,0,0,0,0,0,0,0,-10.6724,-32.4751,-11.0123,29.3948,0.770565,4.04107,-0.110672,
0.120248,-0.0558454,0.117964,-2.03341,0.3933,-0.0192093,-0.070447,0.316644,0.0506904,0.325069,-0.668349,1.25435,0.572372,-0.0374479,-6.06873,-2.34607,-6.27068,6.33386,-14.7814,33.6396,1.48447,12.4702,-6.35095,12.9276,-52.7252,9.92079,12.8179,-0.329501,0.108787,-0.0583479,0.106215,-2.01002,0.350696,-0.0405712,-0.0691643,0.651511,0.0203319,0.472987,-1.29994,1.76678,0.806863,-0.077443,0,0,0,0,0,0,0,-10.6724,-32.4751,-11.0123,29.3948,0.770565,4.04107,-0.110672,
0.122216,-0.0557288,0.119982,-2.03816,0.401728,-0.0122923,-0.0706227,0.302514,0.0434675,0.310496,-0.653401,1.21418,0.630822,-0.0343505,-8.83151,-4.51436,-9.10832,9.34259,-25.102,36.5313,1.93588,12.8183,-5.52048,13.2673,-51.8758,8.93466,12.8179,-0.265869,0.108787,-0.0583479,0.106215,-2.01002,0.350696,-0.0405712,-0.0691643,0.651511,0.0203319,0.472987,-1.29994,1.76678,0.806863,-0.077443,0,0,0,0,0,0,0,-10.6724,-32.4751,-11.0123,29.3948,0.770565,4.04107,-0.110672,
0.115525,-0.0565634,0.113112,-2.02288,0.373695,-0.0311407,-0.0698072,0.318488,0.0554612,0.326894,-0.669122,1.24429,0.626345,-0.0347032,9.9843,7.49607,10.2489,-9.82529,18.8173,-2.79794,-0.220466,11.9671,-7.65214,12.471,-53.4234,10.0861,12.7425,-0.405725,0.124612,-0.0586922,0.125849,-2.05517,0.407472,-0.00696724,-0.0711255,0.508791,0.0152408,0.511483,-1.36057,1.70657,1.16878,-0.0597552,-17.8399,-0.636386,4.81203,-7.57846,-7.52736,45.2402,2.21097,-8.94665,-33.0742,-9.65941,22.3688,-0.121158,1.90606,-0.083206,
0.118129,-0.0559979,0.115783,-2.02818,0.383548,-0.0255596,-0.070038,0.319893,0.0585051,0.328267,-0.667785,1.24176,0.640602,-0.0335331,0.878124,1.90242,0.858127,0.835497,-1.5853,8.91013,0.731306,12.5813,-6.85484,13.0823,-52.5915,9.8094,12.7425,-0.330419,0.124612,-0.0586922,0.125849,-2.05517,0.407472,-0.00696724,-0.0711255,0.508791,0.0152408,0.511483,-1.36057,1.70657,1.16878,-0.0597552,0,0,0,0,0,0,0,-8.94665,-33.0742,-9.65941,22.3688,-0.121158,1.90606,-0.083206,
0.120389,-0.0556606,0.118098,-2.03312,0.392437,-0.0192672,-0.0702198,0.312412,0.0552382,0.320509,-0.657777,1.21563,0.669793,-0.0313704,-4.67609,-2.04176,-4.84856,6.25524,-16.3309,18.2444,1.3517,12.9294,-6.02437,13.4221,-51.7421,8.82327,12.7425,-0.266786,0.124612,-0.0586922,0.125849,-2.05517,0.407472,-0.00696724,-0.0711255,0.508791,0.0152408,0.511483,-1.36057,1.70657,1.16878,-0.0597552,0,0,0,0,0,0,0,-8.94665,-33.0742,-9.65941,22.3688,-0.121158,1.90606,-0.083206,
0.12239,-0.0554938,0.12015,-2.03779,0.40034,-0.0123589,-0.0703607,0.299967,0.0483592,0.307688,-0.642889,1.17007,0.708542,-0.0286199,-7.77819,-4.2994,-8.01353,9.30493,-28.4754,24.2181,1.71907,13.0788,-5.22717,13.5619,-50.9009,8.13451,12.7425,-0.214575,0.124612,-0.0586922,0.125849,-2.05517,0.407472,-0.00696724,-0.0711255,0.508791,0.0152408,0.511483,-1.36057,1.70657,1.16878,-0.0597552,0,0,0,0,0,0,0,-8.94665,-33.0742,-9.65941,22.3688,-0.121158,1.90606,-0.083206,
0.130812,-0.0567224,0.132223,-2.06793,0.42829,0.00517836,-0.0716191,0.310797,0.0616345,0.318924,-0.657964,1.17871,0.714746,-0.0285194,6.7687,8.29708,7.02284,-9.42183,5.40259,3.87756,0.0628062,12.5806,-7.34555,13.1139,-52.4536,9.7243,12.6699,-0.328034,0.142461,-0.0588556,0.142696,-2.10306,0.464799,0.0384298,-0.0723267,0.392642,0.0230497,0.573333,-1.30264,1.51664,1.39163,-0.0339526,-14.5186,0.976113,7.73123,7.24111,-23.7404,27.8555,3.22533,-1.51593,-31.7491,-2.06206,23.5907,0.855709,1.5545,-0.0969389,
0.133236,-0.0560923,0.134711,-2.07311,0.436957,0.0114629,-0.0717996,0.309233,0.0650605,0.317359,-0.655739,1.15965,0.72891,-0.0273289,-0.977213,2.1412,-0.978476,1.39055,-11.9096,8.85292,0.744055,12.9287,-6.51508,13.4537,-51.6042,8.73817,12.6699,-0.264401,0.142461,-0.0588556,0.142696,-2.10306,0.464799,0.0384298,-0.0723267,0.392642,0.0230497,0.573333,-1.30264,1.51664,1.39163,-0.0339526,0,0,0,0,0,0,0,-1.51593,-31.7491,-2.06206,23.5907,0.855709,1.5545,-0.0969389,
0.135354,-0.0557109,0.136886,-2.07792,0.444631,0.0182425,-0.0719399,0.300331,0.0615841,0.308242,-0.645018,1.11958,0.752618,-0.02537,-5.56405,-2.17273,-5.69795,6.70052,-25.0461,14.8172,1.22434,13.0781,-5.71788,13.5934,-50.7629,8.0494,12.6699,-0.212191,0.142461,-0.0588556,0.142696,-2.10306,0.464799,0.0384298,-0.0723267,0.392642,0.0230497,0.573333,-1.30264,1.51664,1.39163,-0.0339526,0,0,0,0,0,0,0,-1.51593,-31.7491,-2.06206,23.5907,0.855709,1.5545,-0.0969389,
0.148294,-0.0569633,0.148719,-2.11533,0.482625,0.0527658,-0.0726989,0.30688,0.0710363,0.315159,-0.654357,1.10299,0.772413,-0.0246551,4.09324,5.90763,4.32319,-5.83696,-10.3689,12.3718,0.44681,12.9287,-6.51508,13.4537,-51.6042,8.73817,12.6699,-0.264401,0.142461,-0.0588556,0.142696,-2.10306,0.464799,0.0384298,-0.0723267,0.392642,0.0230497,0.573333,-1.30264,1.51664,1.39163,-0.0339526,0,0,0,0,0,0,0,-1.51593,-31.7491,-2.06206,23.5907,0.855709,1.5545,-0.0969389,
0.150577,-0.0563768,0.151067,-2.12032,0.489939,0.0596706,-0.0728379,0.302576,0.0714918,0.310837,-0.648277,1.06526,0.79055,-0.0231979,-2.68986,0.284681,-2.70142,3.79989,-23.5823,11.3359,0.910767,13.0248,-6.00071,13.5662,-50.5878,8.02891,12.6591,-0.209226,0.159286,-0.0587529,0.158544,-2.14723,0.513824,0.0876925,-0.0730125,0.462834,0.0437745,0.521603,-1.26937,1.28725,1.46616,-0.0138106,8.77399,2.5906,-6.46632,4.15843,-28.6739,9.31685,2.51775,-1.94836,-31.9237,-2.312,29.0933,1.39953,1.95275,-0.117081,
0.152578,-0.0560318,0.153126,-2.12498,0.496306,0.0668883,-0.0729423,0.292085,0.0658178,0.300129,-0.635053,1.01138,0.812883,-0.0211684,-6.55695,-3.5462,-6.69227,8.26534,-33.6763,13.958,1.26844,13.054,-5.26746,13.6072,-49.7565,6.97555,12.6591,-0.165983,0.159286,-0.0587529,0.158544,-2.14723,0.513824,0.0876925,-0.0730125,0.462834,0.0437745,0.521603,-1.26937,1.28725,1.46616,-0.0138106,0,0,0,0,0,0,0,-1.94836,-31.9237,-2.312,29.0933,1.39953,1.95275,-0.117081,
0.154368,-0.055865,0.154967,-2.12939,0.50178,0.0744646,-0.0730159,0.278403,0.0568253,0.286136,-0.618403,0.94596,0.839714,-0.0187765,-8.55099,-5.62033,-8.74583,10.4063,-40.8852,16.7692,1.4949,13.0346,-4.61187,13.6025,-48.9341,5.82832,12.6591,-0.128524,0.159286,-0.0587529,0.158544,-2.14723,0.513824,0.0876925,-0.0730125,0.462834,0.0437745,0.521603,-1.26937,1.28725,1.46616,-0.0138106,0,0,0,0,0,0,0,-1.94836,-31.9237,-2.312,29.0933,1.39953,1.95275,-0.117081,
0.165114,-0.0567694,0.164558,-2.15931,0.52862,0.102579,-0.0732912,0.288931,0.0680385,0.297152,-0.630913,0.92777,0.846679,-0.0183685,6.57989,7.00822,6.88539,-7.81873,-11.3691,4.35319,0.255039,13.0248,-6.00071,13.5662,-50.5878,8.02891,12.6591,-0.209226,0.159286,-0.0587529,0.158544,-2.14723,0.513824,0.0876925,-0.0730125,0.462834,0.0437745,0.521603,-1.26937,1.28725,1.46616,-0.0138106,0,0,0,0,0,0,0,-1.94836,-31.9237,-2.312,29.0933,1.39953,1.95275,-0.117081,
0.167372,-0.0561597,0.166885,-2.16422,0.534573,0.10956,-0.0733955,0.287603,0.0696739,0.295888,-0.627523,0.891044,0.851879,-0.0173019,-0.82984,1.02217,-0.790504,2.11855,-22.9535,3.24989,0.666577,13.3752,-5.70922,13.9533,-49.6975,7.05868,12.5243,-0.167195,0.174909,-0.0583051,0.175664,-2.18857,0.557155,0.141326,-0.0736632,0.599259,-0.0490305,0.336024,-1.27037,1.48096,1.6783,-0.0237232,17.0532,-11.6006,-23.1973,-0.125067,24.2133,26.5178,-1.23908,-3.13855,-28.9046,-3.91081,19.556,1.97998,-0.872568,0.0101778,
0.169344,-0.055796,0.168917,-2.16881,0.539716,0.116802,-0.0734694,0.279381,0.0648316,0.287496,-0.616688,0.84141,0.862538,-0.0156884,-5.13865,-3.02647,-5.24467,6.77169,-31.0211,6.66186,1.00849,13.3559,-5.05363,13.9487,-48.8751,5.91145,12.5243,-0.129736,0.174909,-0.0583051,0.175664,-2.18857,0.557155,0.141326,-0.0736632,0.599259,-0.0490305,0.336024,-1.27037,1.48096,1.6783,-0.0237232,0,0,0,0,0,0,0,-3.13855,-28.9046,-3.91081,19.556,1.97998,-0.872568,0.0101778,
0.180497,-0.0571107,0.181386,-2.19999,0.572306,0.157748,-0.0738509,0.286985,0.066249,0.29532,-0.620912,0.841457,0.880249,-0.0148784,4.75236,0.885878,4.89,-2.63982,0.029453,11.0695,0.50622,13.3752,-5.70922,13.9533,-49.6975,7.05868,12.5243,-0.167195,0.174909,-0.0583051,0.175664,-2.18857,0.557155,0.141326,-0.0736632,0.599259,-0.0490305,0.336024,-1.27037,1.48096,1.6783,-0.0237232,0,0,0,0,0,0,0,-3.13855,-28.9046,-3.91081,19.556,1.97998,-0.872568,0.0101778,
0.182671,-0.0567486,0.183624,-2.2046,0.5779,0.16518,-0.0739225,0.283924,0.0620512,0.292186,-0.611995,0.813003,0.890013,-0.0136915,-1.91329,-2.6236,-1.95911,5.57281,-17.7838,6.10296,0.741808,13.3559,-5.05363,13.9487,-48.8751,5.91145,12.5243,-0.129736,0.174909,-0.0583051,0.175664,-2.18857,0.557155,0.141326,-0.0736632,0.599259,-0.0490305,0.336024,-1.27037,1.48096,1.6783,-0.0237232,0,0,0,0,0,0,0,-3.13855,-28.9046,-3.91081,19.556,1.97998,-0.872568,0.0101778,
0.184574,-0.0565752,0.185584,-2.20894,0.582586,0.172769,-0.0739668,0.274729,0.0539763,0.282759,-0.598099,0.767555,0.901737,-0.0120607,-5.74713,-5.04682,-5.89132,8.68537,-28.4053,7.32727,1.01924,13.3325,-4.49866,13.9278,-48.0704,4.9717,12.5243,-0.0961941,0.174909,-0.0583051,0.175664,-2.18857,0.557155,0.141326,-0.0736632,0.599259,-0.0490305,0.336024,-1.27037,1.48096,1.6783,-0.0237232,0,0,0,0,0,0,0,-3.13855,-28.9046,-3.91081,19.556,1.97998,-0.872568,0.0101778,
0.186275,-0.0565384,0.187337,-2.2131,0.586537,0.180617,-0.0739867,0.262298,0.0441009,0.27003,-0.582374,0.712808,0.917583,-0.0101458,-7.76879,-6.17217,-7.95607,9.82772,-34.2165,9.90348,1.19684,13.0058,-4.23259,13.6144,-47.2015,4.17028,12.5047,-0.0563537,0.190118,-0.0577088,0.191955,-2.23052,0.591515,0.199665,-0.0738535,0.318946,0.00253344,0.603336,-1.21465,0.874593,1.69007,-0.00490724,-35.0391,6.44549,33.414,6.96457,-75.7956,1.47044,2.352,-2.12292,-30.428,-2.81188,20.6509,0.9967,-0.136484,-0.0703886,
0.195436,-0.0561779,0.197486,-2.24197,0.600254,0.216414,-0.0739784,0.270089,0.0531065,0.278355,-0.594806,0.669698,0.927088,-0.00977137,4.8692,5.62853,5.20338,-7.76987,-26.9441,5.94105,0.234013,13.049,-5.23461,13.6593,-48.7814,5.86805,12.5047,-0.122281,0.190118,-0.0577088,0.191955,-2.23052,0.591515,0.199665,-0.0738535,0.318946,0.00253344,0.603336,-1.21465,0.874593,1.69007,-0.00490724,0,0,0,0,0,0,0,-2.12292,-30.428,-2.81188,20.6509,0.9967,-0.136484,-0.0703886,
0.197486,-0.055701,0.199606,-2.24664,0.60375,0.223877,-0.0740232,0.267321,0.0544056,0.27567,-0.59256,0.623158,0.928259,-0.00893779,-1.72986,0.811928,-1.67842,1.40381,-29.0872,0.731553,0.52099,13.0257,-4.67964,13.6385,-47.9767,4.9283,12.5047,-0.0887391,0.190118,-0.0577088,0.191955,-2.23052,0.591515,0.199665,-0.0738535,0.318946,0.00253344,0.603336,-1.21465,0.874593,1.69007,-0.00490724,0,0,0,0,0,0,0,-2.12292,-30.428,-2.81188,20.6509,0.9967,-0.136484,-0.0703886,
0.199278,-0.0554278,0.201458,-2.25102,0.60685,0.231451,-0.0740439,0.258663,0.0503559,0.266857,-0.583736,0.576035,0.931964,-0.00766724,-5.41152,-2.53106,-5.50808,5.515,-29.4521,2.31596,0.794091,13.0058,-4.23259,13.6144,-47.2015,4.17028,12.5047,-0.0563537,0.190118,-0.0577088,0.191955,-2.23052,0.591515,0.199665,-0.0738535,0.318946,0.00253344,0.603336,-1.21465,0.874593,1.69007,-0.00490724,0,0,0,0,0,0,0,-2.12292,-30.428,-2.81188,20.6509,0.9967,-0.136484,-0.0703886,
0.200884,-0.0553048,0.203119,-2.2552,0.609519,0.239258,-0.0740409,0.247077,0.0433598,0.255003,-0.571526,0.527544,0.940735,-0.00605871,-7.2414,-4.37255,-7.40869,7.63124,-30.3067,5.48139,1.00534,13.0468,-4.11857,13.6599,-46.3173,3.73927,12.4327,-0.0272169,0.207587,-0.0576883,0.205231,-2.27186,0.625686,0.258939,-0.0739539,0.553473,-0.0123537,0.339202,-1.25595,0.83387,1.7589,0.00106373,29.3158,-1.86089,-33.0168,-5.16155,-5.0904,8.6042,0.746372,-1.82141,-28.008,-2.18505,25.4593,1.81518,0.102469,-0.110672,
0.212706,-0.056186,0.210511,-2.28333,0.632831,0.275721,-0.0739992,0.255389,0.0525096,0.26377,-0.585466,0.500576,0.9446,-0.00563391,5.19492,5.7186,5.47923,-8.71255,-16.8548,2.41618,0.265497,13.1073,-4.92164,13.7356,-47.8415,5.03438,12.4327,-0.0876668,0.207587,-0.0576883,0.205231,-2.27186,0.625686,0.258939,-0.0739539,0.553473,-0.0123537,0.339202,-1.25595,0.83387,1.7589,0.00106373,0,0,0,0,0,0,0,-1.82141,-28.008,-2.18505,25.4593,1.81518,0.102469,-0.110672,
0.214674,-0.0557021,0.212548,-2.28795,0.635576,0.283122,-0.0740175,0.253505,0.0541069,0.261933,-0.584067,0.469099,0.940703,-0.00496356,-1.1775,0.998315,-1.14797,0.874375,-19.6737,-2.43602,0.418971,13.0874,-4.47458,13.7115,-47.0662,4.27637,12.4327,-0.0552814,0.207587,-0.0576883,0.205231,-2.27186,0.625686,0.258939,-0.0739539,0.553473,-0.0123537,0.339202,-1.25595,0.83387,1.7589,0.00106373,0,0,0,0,0,0,0,-1.82141,-28.008,-2.18505,25.4593,1.81518,0.102469,-0.110672,
0.216401,-0.0554201,0.214336,-2.29229,0.637961,0.290631,-0.074014,0.245991,0.0503346,0.254247,-0.575696,0.434892,0.940296,-0.00388544,-4.69592,-2.35771,-4.80365,5.23232,-21.3789,-0.254224,0.673822,13.0468,-4.11857,13.6599,-46.3173,3.73927,12.4327,-0.0272169,0.207587,-0.0576883,0.205231,-2.27186,0.625686,0.258939,-0.0739539,0.553473,-0.0123537,0.339202,-1.25595,0.83387,1.7589,0.00106373,0,0,0,0,0,0,0,-1.82141,-28.008,-2.18505,25.4593,1.81518,0.102469,-0.110672,
0.223579,-0.0553741,0.229679,-2.32183,0.657811,0.335013,-0.0739618,0.251609,0.0546784,0.260194,-0.582575,0.40961,0.949762,-0.00340907,3.51109,2.71488,3.71698,-4.29937,-15.8015,5.91617,0.297731,12.9485,-4.86946,13.586,-47.0396,4.2809,12.3349,-0.0522256,0.21873,-0.0566436,0.224631,-2.31109,0.65227,0.31789,-0.073954,0.309096,0.0119957,0.548323,-1.09819,0.663326,1.69064,0.000295224,-30.5471,3.04368,26.1401,19.719,-21.3179,-8.53218,-0.0960631,-0.551876,-30.6264,-1.83592,18.0087,0.697323,0.519949,-0.0703886,
0.225451,-0.055008,0.231618,-2.32628,0.659958,0.342613,-0.073959,0.248078,0.0528929,0.25662,-0.577353,0.381362,0.94982,-0.00265716,-2.20692,-1.11589,-2.23377,3.26357,-17.6547,0.0361301,0.469947,12.9078,-4.51345,13.5344,-46.2907,3.74381,12.3349,-0.0241612,0.21873,-0.0566436,0.224631,-2.31109,0.65227,0.31789,-0.073954,0.309096,0.0119957,0.548323,-1.09819,0.663326,1.69064,0.000295224,0,0,0,0,0,0,0,-0.551876,-30.6264,-1.83592,18.0087,0.697323,0.519949,-0.0703886,
0.2271,-0.0548193,0.233327,-2.33047,0.66176,0.350283,-0.0739325,0.239701,0.0470326,0.248015,-0.566714,0.35014,0.951585,-0.00146267,-5.23581,-3.66269,-5.37804,6.64919,-19.514,1.1033,0.746557,12.8571,-4.2302,13.4804,-45.5644,3.05342,12.3349,0.00157203,0.21873,-0.0566436,0.224631,-2.31109,0.65227,0.31789,-0.073954,0.309096,0.0119957,0.548323,-1.09819,0.663326,1.69064,0.000295224,0,0,0,0,0,0,0,-0.551876,-30.6264,-1.83592,18.0087,0.697323,0.519949,-0.0703886,
0.228588,-0.0547616,0.234869,-2.33448,0.663273,0.358156,-0.0738924,0.228956,0.0390694,0.236963,-0.553708,0.317947,0.958102,-0.000168354,-6.71523,-4.97701,-6.90772,8.12892,-20.1204,4.07318,0.808945,12.801,-4.00077,13.422,-44.8508,2.29324,12.3349,0.0285104,0.21873,-0.0566436,0.224631,-2.31109,0.65227,0.31789,-0.073954,0.309096,0.0119957,0.548323,-1.09819,0.663326,1.69064,0.000295224,0,0,0,0,0,0,0,-0.551876,-30.6264,-1.83592,18.0087,0.697323,0.519949,-0.0703886,
0.242471,-0.0547033,0.239796,-2.36142,0.675605,0.392846,-0.0738763,0.237265,0.0507248,0.245692,-0.569265,0.293143,0.952383,0.000276219,5.19324,7.2846,5.45572,-9.72349,-15.5029,-3.5745,0.277858,12.9585,-4.63931,13.5897,-46.0437,3.90076,12.282,-0.0231859,0.237656,-0.0564164,0.234818,-2.35019,0.67188,0.376571,-0.0739356,0.51851,0.0409688,0.344182,-1.18704,0.581171,1.70622,0.00383253,26.1767,3.62163,-25.5176,-11.1061,-10.2694,1.94643,0.442163,-2.4046,-30.0035,-2.71269,27.5024,1.52221,1.614,-0.163772,
0.244319,-0.0541799,0.241712,-2.36597,0.676883,0.400011,-0.0738477,0.235999,0.0536636,0.244444,-0.569194,0.266466,0.941034,0.000935374,-0.791581,1.83677,-0.779777,0.0444042,-16.6733,-7.09287,0.411972,12.9078,-4.35606,13.5357,-45.3174,3.21038,12.282,0.00254734,0.237656,-0.0564164,0.234818,-2.35019,0.67188,0.376571,-0.0739356,0.51851,0.0409688,0.344182,-1.18704,0.581171,1.70622,0.00383253,0,0,0,0,0,0,0,-2.4046,-30.0035,-2.71269,27.5024,1.52221,1.614,-0.163772,
0.245946,-0.0538718,0.243399,-2.37023,0.678004,0.407308,-0.0738079,0.229477,0.0506331,0.23773,-0.561922,0.241195,0.935249,0.00174272,-4.0762,-1.89407,-4.19656,4.54509,-15.7942,-3.61567,0.504589,12.8517,-4.12663,13.4773,-44.6038,2.4502,12.282,0.0294857,0.237656,-0.0564164,0.234818,-2.35019,0.67188,0.376571,-0.0739356,0.51851,0.0409688,0.344182,-1.18704,0.581171,1.70622,0.00383253,0,0,0,0,0,0,0,-2.4046,-30.0035,-2.71269,27.5024,1.52221,1.614,-0.163772,
0.247417,-0.0537234,0.244925,-2.37427,0.678822,0.414859,-0.0737543,0.220362,0.044218,0.228332,-0.550588,0.213408,0.936962,0.00273558,-5.6965,-4.00942,-5.87362,7.08406,-17.3666,1.07059,0.620541,12.727,-3.94354,13.3365,-43.9111,2.06478,12.282,0.0448945,0.237656,-0.0564164,0.234818,-2.35019,0.67188,0.376571,-0.0739356,0.51851,0.0409688,0.344182,-1.18704,0.581171,1.70622,0.00383253,0,0,0,0,0,0,0,-2.4046,-30.0035,-2.71269,27.5024,1.52221,1.614,-0.163772,
0.242479,-0.0546686,0.239801,-2.36129,0.674966,0.392773,-0.0738276,0.230493,0.0552729,0.238855,-0.565073,0.199668,0.934574,0.0032052,6.33158,6.90929,6.57681,-9.05318,-8.5879,-1.49258,0.29351,12.8035,-4.76012,13.4472,-45.2821,3.23247,12.1683,0.00574664,0.246894,-0.0556043,0.254955,-2.38927,0.686563,0.434628,-0.0739198,0.291915,0.026113,0.53138,-1.09609,0.303264,1.61602,0.000493875,-28.3244,-1.85698,23.3998,11.3685,-34.7383,-11.274,-0.417332,-1.46435,-30.0551,-2.46276,23.8406,0.660702,2.31713,-0.0365141,
0.244326,-0.0541312,0.241715,-2.36579,0.675891,0.399916,-0.0737871,0.230569,0.0576537,0.238937,-0.564455,0.182859,0.926241,0.00357508,0.0475806,1.48798,0.0510348,0.386296,-10.5052,-5.20821,0.231174,12.7474,-4.53069,13.3888,-44.5685,2.47229,12.1683,0.032685,0.246894,-0.0556043,0.254955,-2.38927,0.686563,0.434628,-0.0739198,0.291915,0.026113,0.53138,-1.09609,0.303264,1.61602,0.000493875,0,0,0,0,0,0,0,-1.46435,-30.0551,-2.46276,23.8406,0.660702,2.31713,-0.0365141,
0.245953,-0.0538104,0.243401,-2.36999,0.676535,0.407189,-0.073735,0.225119,0.0541411,0.233295,-0.556519,0.162393,0.922821,0.00416291,-3.40648,-2.19537,-3.52623,4.95995,-12.7916,-2.13757,0.367392,12.6226,-4.3476,13.2479,-43.8758,2.08687,12.1683,0.0480938,0.246894,-0.0556043,0.254955,-2.38927,0.686563,0.434628,-0.0739198,0.291915,0.026113,0.53138,-1.09609,0.303264,1.61602,0.000493875,0,0,0,0,0,0,0,-1.46435,-30.0551,-2.46276,23.8406,0.660702,2.31713,-0.0365141,
0.251444,-0.0542166,0.259705,-2.39999,0.687214,0.450643,-0.0737983,0.231383,0.0591159,0.239911,-0.566634,0.135288,0.922737,0.00444745,3.9149,3.10926,4.1349,-6.32199,-16.9404,-0.0525349,0.177842,12.7474,-4.53069,13.3888,-44.5685,2.47229,12.1683,0.032685,0.246894,-0.0556043,0.254955,-2.38927,0.686563,0.434628,-0.0739198,0.291915,0.026113,0.53138,-1.09609,0.303264,1.61602,0.000493875,0,0,0,0,0,0,0,-1.46435,-30.0551,-2.46276,23.8406,0.660702,2.31713,-0.0365141,
0.253099,-0.0540259,0.261417,-2.40404,0.688083,0.457596,-0.0736454,0.226496,0.0520586,0.234737,-0.554537,0.129954,0.912028,0.00738099,-3.05445,-4.41083,-3.23364,7.56066,-3.33412,-6.69322,1.83346,12.6445,-4.66603,13.2718,-43.6364,2.20648,12.0693,0.0488414,0.265358,-0.0555817,0.264366,-2.42576,0.698899,0.48912,-0.0738838,0.55215,0.0217194,0.294318,-1.08128,0.257369,1.52307,0.00096162,32.5295,-0.549206,-29.6327,1.85184,-5.73686,-11.6196,0.0584681,-2.70611,-28.6824,-2.51036,24.884,-0.945133,4.09417,-0.0163725,
0.254464,-0.0542593,0.262822,-2.40754,0.689392,0.464259,-0.0732613,0.215309,0.0358119,0.222918,-0.531094,0.136697,0.896185,0.0155068,-6.99167,-10.1541,-7.38694,14.6518,4.21438,-9.90155,5.07864,12.5563,-4.51319,13.1885,-42.9471,1.39129,12.0693,0.0614432,0.265358,-0.0555817,0.264366,-2.42576,0.698899,0.48912,-0.0738838,0.55215,0.0217194,0.294318,-1.08128,0.257369,1.52307,0.00096162,0,0,0,0,0,0,0,-2.70611,-28.6824,-2.51036,24.884,-0.945133,4.09417,-0.0163725,
0.255615,-0.0548541,0.264002,-2.41063,0.690981,0.47056,-0.0726361,0.201032,0.0137804,0.20782,-0.502161,0.149082,0.874485,0.0280343,-8.92273,-13.7697,-9.43628,18.0833,7.74113,-13.5626,7.82966,12.5406,-4.38657,13.1686,-42.257,0.800988,12.0693,0.075085,0.265358,-0.0555817,0.264366,-2.42576,0.698899,0.48912,-0.0738838,0.55215,0.0217194,0.294318,-1.08128,0.257369,1.52307,0.00096162,0,0,0,0,0,0,0,-2.70611,-28.6824,-2.51036,24.884,-0.945133,4.09417,-0.0163725,
0.269775,-0.0551057,0.268885,-2.43518,0.70412,0.506811,-0.0743579,0.208668,0.0119947,0.215337,-0.500764,0.188983,0.903331,0.0172783,4.77229,-1.11604,4.69805,0.872741,24.9381,18.0287,-6.72252,12.6445,-4.66603,13.2718,-43.6364,2.20648,12.0693,0.0488414,0.265358,-0.0555817,0.264366,-2.42576,0.698899,0.48912,-0.0738838,0.55215,0.0217194,0.294318,-1.08128,0.257369,1.52307,0.00096162,0,0,0,0,0,0,0,-2.70611,-28.6824,-2.51036,24.884,-0.945133,4.09417,-0.0163725,
0.271249,-0.055649,0.270385,-2.43824,0.707069,0.513569,-0.0744645,0.203802,-0.00398621,0.209766,-0.47731,0.224904,0.891607,0.0111582,-3.04131,-9.98808,-3.4816,14.6589,22.4503,-7.32756,-3.82506,12.6403,-5.2091,13.2889,-42.607,1.51435,11.9637,0.0610291,0.277563,-0.0560583,0.28353,-2.46347,0.714027,0.538162,-0.0738615,0.41182,-0.0585967,0.418224,-1.02436,0.357376,1.18577,-0.00188817,-17.5414,-10.0395,15.4882,7.11483,12.5008,-42.1626,-0.356224,-2.63073,-22.5411,-3.23638,11.5103,-4.52485,5.53979,0.131027,
0.272406,-0.0567455,0.271548,-2.44073,0.710042,0.519067,-0.074455,0.191966,-0.0306022,0.196872,-0.44393,0.254255,0.850723,0.0091623,-7.3974,-16.635,-8.05866,20.8627,18.3446,-25.552,-1.24741,12.6246,-5.08248,13.2689,-41.917,0.92404,11.9637,0.0746709,0.277563,-0.0560583,0.28353,-2.46347,0.714027,0.538162,-0.0738615,0.41182,-0.0585967,0.418224,-1.02436,0.357376,1.18577,-0.00188817,0,0,0,0,0,0,0,-2.63073,-22.5411,-3.23638,11.5103,-4.52485,5.53979,0.131027,
0.273341,-0.0583029,0.272472,-2.44281,0.712955,0.523492,-0.0743201,0.176946,-0.0634165,0.180607,-0.407136,0.27624,0.791213,0.0107041,-9.38758,-20.509,-10.1657,22.996,13.7403,-37.1942,0.963598,12.6478,-4.99813,13.2846,-41.2385,0.446785,11.9637,0.0916765,0.277563,-0.0560583,0.28353,-2.46347,0.714027,0.538162,-0.0738615,0.41182,-0.0585967,0.418224,-1.02436,0.357376,1.18577,-0.00188817,0,0,0,0,0,0,0,-2.63073,-22.5411,-3.23638,11.5103,-4.52485,5.53979,0.131027,
0.281727,-0.0570452,0.287769,-2.47164,0.720999,0.55245,-0.0740502,0.184972,-0.0702671,0.188409,-0.406492,0.311232,0.790938,0.00686709,5.01591,-4.28159,4.87611,0.40267,21.8699,-0.171942,-2.3981,12.6403,-5.2091,13.2889,-42.607,1.51435,11.9637,0.0610291,0.277563,-0.0560583,0.28353,-2.46347,0.714027,0.538162,-0.0738615,0.41182,-0.0585967,0.418224,-1.02436,0.357376,1.18577,-0.00188817,0,0,0,0,0,0,0,-2.63073,-22.5411,-3.23638,11.5103,-4.52485,5.53979,0.131027,
0.282949,-0.0585502,0.288983,-2.47387,0.724652,0.557151,-0.0740249,0.178541,-0.0938381,0.181077,-0.380863,0.340323,0.750269,0.00612788,-4.0194,-14.7319,-4.58216,16.018,18.1822,-25.4179,-0.462007,12.6779,-5.66476,13.3503,-41.6154,1.0229,11.8639,0.0749079,0.295414,-0.0585232,0.295941,-2.49514,0.728718,0.583234,-0.0735442,0.38718,-0.149469,0.535133,-0.86846,0.538779,1.51163,0.0106732,-3.07998,-11.359,14.6136,19.4877,22.6754,40.7324,1.57018,-5.57446,-20.6685,-5.36284,9.66553,-4.12751,3.09899,-0.0703886,
0.283811,-0.0606979,0.289813,-2.47546,0.728221,0.560435,-0.0738841,0.164375,-0.128763,0.165604,-0.344567,0.361467,0.682317,0.00842252,-8.85347,-21.8282,-9.67089,22.6854,13.2148,-42.4701,1.43415,12.7011,-5.58041,13.366,-40.9369,0.545643,11.8639,0.0919135,0.295414,-0.0585232,0.295941,-2.49514,0.728718,0.583234,-0.0735442,0.38718,-0.149469,0.535133,-0.86846,0.538779,1.51163,0.0106732,0,0,0,0,0,0,0,-5.57446,-20.6685,-5.36284,9.66553,-4.12751,3.09899,-0.0703886,
0.28442,-0.0633511,0.29037,-2.47666,0.731645,0.562551,-0.0736157,0.146713,-0.16934,0.146418,-0.305568,0.374786,0.598748,0.0134479,-11.0386,-25.3602,-11.9912,24.3741,8.32478,-52.2308,3.14084,12.7032,-5.52921,13.3566,-40.2777,0.152956,11.8639,0.121539,0.295414,-0.0585232,0.295941,-2.49514,0.728718,0.583234,-0.0735442,0.38718,-0.149469,0.535133,-0.86846,0.538779,1.51163,0.0106732,0,0,0,0,0,0,0,-5.57446,-20.6685,-5.36284,9.66553,-4.12751,3.09899,-0.0703886,
0.299634,-0.0612816,0.300204,-2.50123,0.737637,0.599083,-0.0734495,0.159541,-0.178132,0.15916,-0.3002,0.411305,0.64365,0.0125733,8.01765,-5.49517,7.96412,3.35536,22.824,28.0643,-0.546591,12.6779,-5.66476,13.3503,-41.6154,1.0229,11.8639,0.0749079,0.295414,-0.0585232,0.295941,-2.49514,0.728718,0.583234,-0.0735442,0.38718,-0.149469,0.535133,-0.86846,0.538779,1.51163,0.0106732,0,0,0,0,0,0,0,-5.57446,-20.6685,-5.36284,9.66553,-4.12751,3.09899,-0.0703886,
0.300716,-0.063752,0.301246,-2.50252,0.741947,0.603347,-0.0732814,0.154692,-0.204267,0.153374,-0.272506,0.436799,0.621524,0.0142622,-3.03071,-16.3346,-3.61669,17.3083,15.9337,-13.8288,1.05554,12.4319,-6.19183,13.1733,-41.11,0.538776,11.7238,0.0934934,0.307112,-0.0645076,0.312607,-2.5215,0.742651,0.630676,-0.0732717,0.467453,-0.259748,0.241215,-0.708372,0.425897,1.26371,0.00229987,10.0341,-13.7849,-36.7397,20.0109,-14.1103,-30.9898,-1.04667,-5.16583,-21.7912,-5.81114,10.8359,-2.91809,4.91631,-0.0026396,
0.301379,-0.0668801,0.30184,-2.50326,0.746037,0.605719,-0.0729925,0.140332,-0.241614,0.137555,-0.236446,0.451671,0.556525,0.0186307,-8.97488,-23.342,-9.88692,22.5379,9.29499,-40.6245,2.73031,12.434,-6.14062,13.164,-40.4508,0.146088,11.7238,0.123119,0.307112,-0.0645076,0.312607,-2.5215,0.742651,0.630676,-0.0732717,0.467453,-0.259748,0.241215,-0.708372,0.425897,1.26371,0.00229987,0,0,0,0,0,0,0,-5.16583,-21.7912,-5.81114,10.8359,-2.91809,4.91631,-0.0026396,
0.301775,-0.0704926,0.302141,-2.50364,0.749825,0.606619,-0.072573,0.122152,-0.283605,0.117583,-0.198524,0.456053,0.467715,0.025392,-11.3628,-26.244,-12.4823,23.7012,2.73925,-55.5064,4.22581,12.1819,-6.1101,12.8789,-39.8383,0.11734,11.7238,0.13531,0.307112,-0.0645076,0.312607,-2.5215,0.742651,0.630676,-0.0732717,0.467453,-0.259748,0.241215,-0.708372,0.425897,1.26371,0.00229987,0,0,0,0,0,0,0,-5.16583,-21.7912,-5.81114,10.8359,-2.91809,4.91631,-0.0026396,
0.310045,-0.069572,0.315463,-2.52563,0.750484,0.642182,-0.0731321,0.125314,-0.298673,0.120407,-0.192154,0.464043,0.483894,0.0231368,1.97626,-9.4177,1.76516,3.98136,4.99322,10.1123,-1.40946,12.4319,-6.19183,13.1733,-41.11,0.538776,11.7238,0.0934934,0.307112,-0.0645076,0.312607,-2.5215,0.742651,0.630676,-0.0732717,0.467453,-0.259748,0.241215,-0.708372,0.425897,1.26371,0.00229987,0,0,0,0,0,0,0,-5.16583,-21.7912,-5.81114,10.8359,-2.91809,4.91631,-0.0026396,
0.310652,-0.0731643,0.315981,-2.52615,0.754398,0.644301,-0.0728945,0.115419,-0.328745,0.109272,-0.166618,0.469101,0.440084,0.0244488,-6.18434,-18.795,-6.95964,15.9595,3.16123,-27.3812,0.82,12.434,-6.14062,13.164,-40.4508,0.146088,11.7238,0.123119,0.307112,-0.0645076,0.312607,-2.5215,0.742651,0.630676,-0.0732717,0.467453,-0.259748,0.241215,-0.708372,0.425897,1.26371,0.00229987,0,0,0,0,0,0,0,-5.16583,-21.7912,-5.81114,10.8359,-2.91809,4.91631,-0.0026396,
0.310943,-0.0773291,0.316149,-2.52616,0.75811,0.644637,-0.0725157,0.099608,-0.367117,0.0916061,-0.133654,0.468075,0.360466,0.0290279,-9.88192,-23.9823,-11.0411,20.6026,-0.641195,-49.7618,2.86193,12.1819,-6.1101,12.8789,-39.8383,0.11734,11.7238,0.13531,0.307112,-0.0645076,0.312607,-2.5215,0.742651,0.630676,-0.0732717,0.467453,-0.259748,0.241215,-0.708372,0.425897,1.26371,0.00229987,0,0,0,0,0,0,0,-5.16583,-21.7912,-5.81114,10.8359,-2.91809,4.91631,-0.0026396,
0.311055,-0.0818883,0.316108,-2.52585,0.761504,0.643638,-0.0719891,0.0824936,-0.407671,0.0722608,-0.0991739,0.459323,0.26339,0.0363884,-10.6965,-25.3467,-12.0908,21.5502,-5.46971,-60.6726,4.6003,11.8071,-6.02798,12.5008,-39.2272,-0.685001,11.7238,0.129676,0.307112,-0.0645076,0.312607,-2.5215,0.742651,0.630676,-0.0732717,0.467453,-0.259748,0.241215,-0.708372,0.425897,1.26371,0.00229987,0,0,0,0,0,0,0,-5.16583,-21.7912,-5.81114,10.8359,-2.91809,4.91631,-0.0026396,
0.310063,-0.0695304,0.315476,-2.52556,0.750419,0.642179,-0.0731316,0.093709,-0.397399,0.0842221,-0.111824,0.4659,0.320299,0.0319482,7.00965,6.42047,7.47586,-7.90626,4.11079,35.5686,-2.77511,12.434,-6.14062,13.164,-40.4508,0.146088,11.7238,0.123119,0.307112,-0.0645076,0.312607,-2.5215,0.742651,0.630676,-0.0732717,0.467453,-0.259748,0.241215,-0.708372,0.425897,1.26371,0.00229987,0,0,0,0,0,0,0,-5.16583,-21.7912,-5.81114,10.8359,-2.91809,4.91631,-0.0026396,
0.310682,-0.0730902,0.316003,-2.52602,0.75426,0.644285,-0.0728967,0.090451,-0.406915,0.0805453,-0.100814,0.468739,0.308897,0.0314306,-2.03623,-5.94762,-2.29801,6.88119,1.774,-7.12622,-0.323509,12.1819,-6.1101,12.8789,-39.8383,0.11734,11.7238,0.13531,0.307112,-0.0645076,0.312607,-2.5215,0.742651,0.630676,-0.0732717,0.467453,-0.259748,0.241215,-0.708372,0.425897,1.26371,0.00229987,0,0,0,0,0,0,0,-5.16583,-21.7912,-5.81114,10.8359,-2.91809,4.91631,-0.0026396,
0.310997,-0.0772163,0.31619,-2.52594,0.757844,0.644602,-0.0725238,0.0802353,-0.428684,0.0691109,-0.0788015,0.46459,0.255038,0.0344683,-6.38481,-13.606,-7.1465,13.7578,-2.59287,-33.6623,1.89856,11.8071,-6.02798,12.5008,-39.2272,-0.685001,11.7238,0.129676,0.307112,-0.0645076,0.312607,-2.5215,0.742651,0.630676,-0.0732717,0.467453,-0.259748,0.241215,-0.708372,0.425897,1.26371,0.00229987,0,0,0,0,0,0,0,-5.16583,-21.7912,-5.81114,10.8359,-2.91809,4.91631,-0.0026396,
0.311135,-0.0817431,0.316171,-2.52555,0.76109,0.643578,-0.0720033,0.0676404,-0.456116,0.0548177,-0.0530924,0.452828,0.17842,0.0405866,-7.87185,-17.1445,-8.93325,16.0682,-7.35146,-47.8861,3.82391,11.5275,-5.85744,12.2305,-38.558,-1.78952,11.7238,0.121534,0.307112,-0.0645076,0.312607,-2.5215,0.742651,0.630676,-0.0732717,0.467453,-0.259748,0.241215,-0.708372,0.425897,1.26371,0.00229987,0,0,0,0,0,0,0,-5.16583,-21.7912,-5.81114,10.8359,-2.91809,4.91631,-0.0026396,
0.310071,-0.0694798,0.315479,-2.52549,0.750358,0.642167,-0.0731361,0.0820649,-0.435318,0.0704125,-0.0735787,0.459319,0.2521,0.0352045,9.01532,12.9987,9.74675,-12.8039,4.05722,46.0498,-3.36377,12.1819,-6.1101,12.8789,-39.8383,0.11734,11.7238,0.13531,0.307112,-0.0645076,0.312607,-2.5215,0.742651,0.630676,-0.0732717,0.467453,-0.259748,0.241215,-0.708372,0.425897,1.26371,0.00229987,0,0,0,0,0,0,0,-5.16583,-21.7912,-5.81114,10.8359,-2.91809,4.91631,-0.0026396,
0.310713,-0.0729987,0.316023,-2.52586,0.754085,0.644258,-0.0729086,0.0816931,-0.436229,0.0699432,-0.0680809,0.460638,0.253938,0.0338524,-0.232369,-0.569296,-0.29331,3.43616,0.823968,1.14917,-0.84508,11.8071,-6.02798,12.5008,-39.2272,-0.685001,11.7238,0.129676,0.307112,-0.0645076,0.312607,-2.5215,0.742651,0.630676,-0.0732717,0.467453,-0.259748,0.241215,-0.708372,0.425897,1.26371,0.00229987,0,0,0,0,0,0,0,-5.16583,-21.7912,-5.81114,10.8359,-2.91809,4.91631,-0.0026396,
0.311053,-0.0770904,0.316232,-2.5257,0.757532,0.644552,-0.0725433,0.0738502,-0.451275,0.0611603,-0.0504455,0.454674,0.210506,0.0362128,-4.90182,-9.404,-5.4893,11.0221,-3.72759,-27.1453,1.47523,11.5275,-5.85744,12.2305,-38.558,-1.78952,11.7238,0.121534,0.307112,-0.0645076,0.312607,-2.5215,0.742651,0.630676,-0.0732717,0.467453,-0.259748,0.241215,-0.708372,0.425897,1.26371,0.00229987,0,0,0,0,0,0,0,-5.16583,-21.7912,-5.81114,10.8359,-2.91809,4.91631,-0.0026396,
0.310107,-0.0694128,0.315506,-2.52536,0.750198,0.642152,-0.073148,0.0876285,-0.430464,0.0759756,-0.0694106,0.458069,0.277494,0.0315142,8.61146,13.0071,9.25955,-11.8532,2.12228,41.8677,-2.93664,11.8071,-6.02798,12.5008,-39.2272,-0.685001,11.7238,0.129676,0.307112,-0.0645076,0.312607,-2.5215,0.742651,0.630676,-0.0732717,0.467453,-0.259748,0.241215,-0.708372,0.425897,1.26371,0.00229987,0,0,0,0,0,0,0,-5.16583,-21.7912,-5.81114,10.8359,-2.91809,4.91631,-0.0026396,
0.310774,-0.0728975,0.316073,-2.52564,0.753792,0.644224,-0.0729286,0.0867947,-0.431487,0.0749571,-0.0626136,0.456291,0.273796,0.0306971,-0.521116,-0.639715,-0.636584,4.24809,-1.11157,-2.31124,-0.510658,11.5275,-5.85744,12.2305,-38.558,-1.78952,11.7238,0.121534,0.307112,-0.0645076,0.312607,-2.5215,0.742651,0.630676,-0.0732717,0.467453,-0.259748,0.241215,-0.708372,0.425897,1.26371,0.00229987,0,0,0,0,0,0,0,-5.16583,-21.7912,-5.81114,10.8359,-2.91809,4.91631,-0.0026396,
0.31114,-0.0769635,0.316305,-2.5254,0.757097,0.644496,-0.0725703,0.078571,-0.446841,0.0657464,-0.0441169,0.447671,0.225833,0.0335138,-5.13982,-9.59609,-5.7567,11.5604,-5.38727,-29.9769,1.76045,11.3894,-5.67149,12.0872,-37.8516,-2.53661,11.7238,0.113867,0.307112,-0.0645076,0.312607,-2.5215,0.742651,0.630676,-0.0732717,0.467453,-0.259748,0.241215,-0.708372,0.425897,1.26371,0.00229987,0,0,0,0,0,0,0,-5.16583,-21.7912,-5.81114,10.8359,-2.91809,4.91631,-0.0026396,
0.311326,-0.0814481,0.31633,-2.52486,0.760064,0.643423,-0.0720614,0.0675119,-0.469588,0.0532242,-0.0217131,0.432309,0.153827,0.0395334,-6.91195,-14.2166,-7.82638,14.0024,-9.60126,-45.0039,3.76224,11.3783,-5.53514,12.0661,-37.1401,-3.05219,11.7238,0.109873,0.307112,-0.0645076,0.312607,-2.5215,0.742651,0.630676,-0.0732717,0.467453,-0.259748,0.241215,-0.708372,0.425897,1.26371,0.00229987,0,0,0,0,0,0,0,-5.16583,-21.7912,-5.81114,10.8359,-2.91809,4.91631,-0.0026396,
0.31015,-0.0693432,0.315542,-2.52522,0.750021,0.64214,-0.0731599,0.0831606,-0.444218,0.070142,-0.0444973,0.437532,0.231906,0.0340043,9.78047,15.8562,10.5736,-14.2402,3.26457,48.7993,-3.45567,11.5275,-5.85744,12.2305,-38.558,-1.78952,11.7238,0.121534,0.307112,-0.0645076,0.312607,-2.5215,0.742651,0.630676,-0.0732717,0.467453,-0.259748,0.241215,-0.708372,0.425897,1.26371,0.00229987,0,0,0,0,0,0,0,-5.16583,-21.7912,-5.81114,10.8359,-2.91809,4.91631,-0.0026396,
0.310843,-0.0727991,0.316132,-2.52543,0.753494,0.644197,-0.0729465,0.0838397,-0.441772,0.070844,-0.040815,0.436862,0.236944,0.032538,0.424389,1.52847,0.438735,2.30142,-0.418921,3.149,-0.916471,11.3894,-5.67149,12.0872,-37.8516,-2.53661,11.7238,0.113867,0.307112,-0.0645076,0.312607,-2.5215,0.742651,0.630676,-0.0732717,0.467453,-0.259748,0.241215,-0.708372,0.425897,1.26371,0.00229987,0,0,0,0,0,0,0,-5.16583,-21.7912,-5.81114,10.8359,-2.91809,4.91631,-0.0026396,
0.311231,-0.0768454,0.316384,-2.52512,0.75668,0.644451,-0.0725927,0.0767856,-0.454575,0.0629934,-0.0250511,0.429131,0.195904,0.0348765,-4.40878,-8.00169,-4.90659,9.85245,-4.8317,-25.6498,1.46156,11.3783,-5.53514,12.0661,-37.1401,-3.05219,11.7238,0.109873,0.307112,-0.0645076,0.312607,-2.5215,0.742651,0.630676,-0.0732717,0.467453,-0.259748,0.241215,-0.708372,0.425897,1.26371,0.00229987,0,0,0,0,0,0,0,-5.16583,-21.7912,-5.81114,10.8359,-2.91809,4.91631,-0.0026396,
0.311438,-0.0813177,0.316429,-2.52453,0.759536,0.643359,-0.072086,0.0665989,-0.475468,0.051519,-0.00511094,0.414693,0.129434,0.0405667,-6.3667,-13.0581,-7.17154,12.4626,-9.0242,-41.5443,3.55638,11.4507,-5.47001,12.1257,-36.4431,-3.36496,11.7238,0.107718,0.307112,-0.0645076,0.312607,-2.5215,0.742651,0.630676,-0.0732717,0.467453,-0.259748,0.241215,-0.708372,0.425897,1.26371,0.00229987,0,0,0,0,0,0,0,-5.16583,-21.7912,-5.81114,10.8359,-2.91809,4.91631,-0.0026396,
0.310186,-0.0692814,0.315572,-2.5251,0.749886,0.642132,-0.0731681,0.0829385,-0.448133,0.0692175,-0.029613,0.421411,0.212232,0.0347205,10.2122,17.0843,11.0616,-15.3138,4.19865,51.7491,-3.65389,11.3894,-5.67149,12.0872,-37.8516,-2.53661,11.7238,0.113867,0.307112,-0.0645076,0.312607,-2.5215,0.742651,0.630676,-0.0732717,0.467453,-0.259748,0.241215,-0.708372,0.425897,1.26371,0.00229987,0,0,0,0,0,0,0,-5.16583,-21.7912,-5.81114,10.8359,-2.91809,4.91631,-0.0026396,
0.3109,-0.0727131,0.31618,-2.52525,0.753269,0.644179,-0.0729582,0.0841826,-0.444298,0.0705805,-0.0273919,0.421691,0.220945,0.0330245,0.777552,2.39689,0.851847,1.38821,0.175194,5.44537,-1.06,11.3783,-5.53514,12.0661,-37.1401,-3.05219,11.7238,0.109873,0.307112,-0.0645076,0.312607,-2.5215,0.742651,0.630676,-0.0732717,0.467453,-0.259748,0.241215,-0.708372,0.425897,1.26371,0.00229987,0,0,0,0,0,0,0,-5.16583,-21.7912,-5.81114,10.8359,-2.91809,4.91631,-0.0026396,
0.311307,-0.076743,0.316451,-2.5249,0.756365,0.644421,-0.0726061,0.0775451,-0.456187,0.0632456,-0.0130091,0.414749,0.182799,0.0352221,-4.14843,-7.43088,-4.58429,8.98921,-4.33862,-23.8413,1.37353,11.4507,-5.47001,12.1257,-36.4431,-3.36496,11.7238,0.107718,0.307112,-0.0645076,0.312607,-2.5215,0.742651,0.630676,-0.0732717,0.467453,-0.259748,0.241215,-0.708372,0.425897,1.26371,0.00229987,0,0,0,0,0,0,0,-5.16583,-21.7912,-5.81114,10.8359,-2.91809,4.91631,-0.0026396,
0.311531,-0.0812054,0.316513,-2.52426,0.75914,0.643317,-0.0720992,0.067614,-0.476509,0.0521288,0.00556691,0.401179,0.118638,0.0408493,-6.2069,-12.7011,-6.94802,11.61,-8.48148,-40.1004,3.51698,11.5717,-5.47108,12.2331,-35.7654,-3.52344,11.7238,0.107939,0.307112,-0.0645076,0.312607,-2.5215,0.742651,0.630676,-0.0732717,0.467453,-0.259748,0.241215,-0.708372,0.425897,1.26371,0.00229987,0,0,0,0,0,0,0,-5.16583,-21.7912,-5.81114,10.8359,-2.91809,4.91631,-0.0026396,
0.310217,-0.0692302,0.315598,-2.52501,0.749782,0.642129,-0.0731731,0.0841866,-0.448324,0.0700935,-0.0197694,0.409044,0.203508,0.034884,10.3578,17.6158,11.228,-15.8352,4.91589,53.0436,-3.72832,11.3783,-5.53514,12.0661,-37.1401,-3.05219,11.7238,0.109873,0.307112,-0.0645076,0.312607,-2.5215,0.742651,0.630676,-0.0732717,0.467453,-0.259748,0.241215,-0.708372,0.425897,1.26371,0.00229987,0,0,0,0,0,0,0,-5.16583,-21.7912,-5.81114,10.8359,-2.91809,4.91631,-0.0026396,
0.310948,-0.0726424,0.316223,-2.52511,0.753096,0.644169,-0.0729645,0.0856227,-0.443965,0.071697,-0.0183018,0.410087,0.213805,0.0331228,0.89755,2.72426,1.00217,0.917266,0.651558,6.4355,-1.10072,11.4507,-5.47001,12.1257,-36.4431,-3.36496,11.7238,0.107718,0.307112,-0.0645076,0.312607,-2.5215,0.742651,0.630676,-0.0732717,0.467453,-0.259748,0.241215,-0.708372,0.425897,1.26371,0.00229987,0,0,0,0,0,0,0,-5.16583,-21.7912,-5.81114,10.8359,-2.91809,4.91631,-0.0026396,
