xiao-wang007/linearmpc_panda/paper_data/panda_inverse_dynamics_controller_Start_at_0_no_acceleration_ff/3/trajectory.csv
Commanded Joint 0 Position,Commanded Joint 1 Position,Commanded Joint 2 Position,Commanded Joint 3 Position,Commanded Joint 4 Position,Commanded Joint 5 Position,Commanded Joint 6 Position,Commanded Joint 0 Velocity,Commanded Joint 1 Velocity,Commanded Joint 2 Velocity,Commanded Joint 3 Velocity,Commanded Joint 4 Velocity,Commanded Joint 5 Velocity,Commanded Joint 6 Velocity,Commanded Joint 0 Acceleration,Commanded Joint 1 Acceleration,Commanded Joint 2 Acceleration,Commanded Joint 3 Acceleration,Commanded Joint 4 Acceleration,Commanded Joint 5 Acceleration,Commanded Joint 6 Acceleration,Commanded Joint 0 Torque,Commanded Joint 1 Torque,Commanded Joint 2 Torque,Commanded Joint 3 Torque,Commanded Joint 4 Torque,Commanded Joint 5 Torque,Commanded Joint 6 Torque,Actual Joint 0 Position,Actual Joint 1 Position,Actual Joint 2 Position,Actual Joint 3 Position,Actual Joint 4 Position,Actual Joint 5 Position,Actual Joint 6 Position,Actual Joint 0 Velocity,Actual Joint 1 Velocity,Actual Joint 2 Velocity,Actual Joint 3 Velocity,Actual Joint 4 Velocity,Actual Joint 5 Velocity,Actual Joint 6 Velocity,Actual Joint 0 Acceleration,Actual Joint 1 Acceleration,Actual Joint 2 Acceleration,Actual Joint 3 Acceleration,Actual Joint 4 Acceleration,Actual Joint 5 Acceleration,Actual Joint 6 Acceleration,Actual Joint 0 Torque,Actual Joint 1 Torque,Actual Joint 2 Torque,Actual Joint 3 Torque,Actual Joint 4 Torque,Actual Joint 5 Torque,Actual Joint 6 Torque,
0.0687221,0.0128569,-0.0368644,-1.82337,0.0148028,0.30581,0.0371841,0.000357082,0.0230961,0.000323635,-0.0327616,-0.00483533,0.0555577,-0.000384251,0,0,0,0,0,0,0,0.0554189,25.0272,0.0545156,-24.4429,-0.671666,1.91266,-0.0244038,0.0687002,0.0113954,-0.0368814,-1.82018,0.0151145,0.299863,0.0372262,0.00423577,0.00444059,-0.00192618,-0.00235735,-0.00103937,0.000337385,-0.000756446,0,0,0,0,0,0,0,0.0828892,-36.617,-0.0387439,27.55,0.575558,3.37823,0.0577852,
0.068717,0.0114624,-0.0368653,-1.82022,0.0151125,0.299832,0.0372253,0.000387999,0.0189087,0.000360312,-0.0264455,-0.00383707,0.0441368,-0.00031125,0,0,0,0,0,0,0,0.0496797,25.4676,0.044192,-24.3593,-0.671692,1.66176,-0.0228867,0.0687002,0.0113954,-0.0368814,-1.82018,0.0151145,0.299863,0.0372262,0.00423577,0.00444059,-0.00192618,-0.00235735,-0.00103937,0.000337385,-0.000756446,0,0,0,0,0,0,0,0.0828892,-36.617,-0.0387439,27.55,0.575558,3.37823,0.0577852,
0.0687201,0.0114762,-0.0368622,-1.82022,0.0151142,0.29982,0.0372252,0.000389644,0.0154712,0.000366835,-0.0213491,-0.00302572,0.035009,-0.000251716,0,0,0,0,0,0,0,0.0424799,26.0392,0.0324703,-24.2513,-0.670878,1.3142,-0.0209174,0.0687002,0.0113954,-0.0368814,-1.82018,0.0151145,0.299863,0.0372262,0.00423577,0.00444059,-0.00192618,-0.00235735,-0.00103937,0.000337385,-0.000756446,0,0,0,0,0,0,0,0.0828892,-36.617,-0.0387439,27.55,0.575558,3.37823,0.0577852,
0.0687226,0.0114873,-0.0368597,-1.82023,0.0151161,0.29981,0.0372251,0.000373576,0.012654,0.000354849,-0.0172362,-0.00237463,0.0277354,-0.000203369,0,0,0,0,0,0,0,0.0365465,26.5631,0.0230591,-24.0835,-0.668557,0.929047,-0.0189154,0.0687002,0.0113954,-0.0368814,-1.82018,0.0151145,0.299863,0.0372262,0.00423577,0.00444059,-0.00192618,-0.00235735,-0.00103937,0.000337385,-0.000756446,0,0,0,0,0,0,0,0.0828892,-36.617,-0.0387439,27.55,0.575558,3.37823,0.0577852,
0.068605,0.0114538,-0.0369807,-1.8201,0.0175631,0.298502,0.0371984,-0.00109655,0.0106616,-0.00113514,-0.0127623,0.0355418,0.00131034,-0.000421247,0,0,0,0,0,0,0,0.472947,0.177697,0.473763,-0.273406,3.03623,-1.9165,-0.00206855,0.0687002,0.0113954,-0.0368814,-1.82018,0.0151145,0.299863,0.0372262,0.00423577,0.00444059,-0.00192618,-0.00235735,-0.00103937,0.000337385,-0.000756446,0,0,0,0,0,0,0,0.0828892,-36.617,-0.0387439,27.55,0.575558,3.37823,0.0577852,
0.0685505,0.0114631,-0.0370353,-1.82007,0.0193716,0.297469,0.0371926,-0.00224096,0.00876265,-0.00227294,-0.00943544,0.0736447,-0.0247864,-0.000482573,0,0,0,0,0,0,0,0.468189,0.181233,0.469025,-0.269389,3.00995,-1.89932,-0.00202323,0.0686985,0.0115736,-0.0368831,-1.82022,0.0151199,0.299871,0.0372262,0.00045738,0.012718,0.00648345,-0.00205443,-0.000204421,0.000547677,-0.00075765,-0.472298,1.03468,1.0512,0.0378654,0.104368,0.0262865,-0.000150445,0.106693,-35.7442,-0.0387439,26.4313,0.526119,3.27202,0.0577852,
0.0685049,0.0114652,-0.0370806,-1.82005,0.0213565,0.296305,0.0371892,-0.0029334,0.00706302,-0.00295018,-0.00703204,0.108538,-0.0489175,-0.000469896,0,0,0,0,0,0,0,0.463303,0.179193,0.464142,-0.266621,2.98362,-1.88313,-0.00198017,0.0686985,0.0115736,-0.0368831,-1.82022,0.0151199,0.299871,0.0372262,0.00045738,0.012718,0.00648345,-0.00205443,-0.000204421,0.000547677,-0.00075765,0,0,0,0,0,0,0,0.106693,-35.7442,-0.0387439,26.4313,0.526119,3.27202,0.0577852,
0.0684708,0.0114639,-0.0371142,-1.82004,0.0234405,0.295057,0.0371872,-0.00319934,0.00561786,-0.00320033,-0.0053284,0.13893,-0.0703506,-0.000427174,0,0,0,0,0,0,0,0.458368,0.176861,0.459214,-0.264015,2.95728,-1.86695,-0.00194178,0.0686985,0.0115736,-0.0368831,-1.82022,0.0151199,0.299871,0.0372262,0.00045738,0.012718,0.00648345,-0.00205443,-0.000204421,0.000547677,-0.00075765,0,0,0,0,0,0,0,0.106693,-35.7442,-0.0387439,26.4313,0.526119,3.27202,0.0577852,
0.0684813,0.0117306,-0.0371107,-1.8197,0.0234595,0.293104,0.037141,-0.00555552,0.00562813,-0.00562277,0.00194875,0.238278,-0.15977,-0.00110236,0,0,0,0,0,0,0,4.04111,1.2325,4.03634,-1.71765,10.6511,-9.65527,-0.00381878,0.0686985,0.0115736,-0.0368831,-1.82022,0.0151199,0.299871,0.0372262,0.00045738,0.012718,0.00648345,-0.00205443,-0.000204421,0.000547677,-0.00075765,0,0,0,0,0,0,0,0.106693,-35.7442,-0.0387439,26.4313,0.526119,3.27202,0.0577852,
0.0683897,0.0117293,-0.0372024,-1.81952,0.0295545,0.288017,0.037126,-0.00673577,0.00446937,-0.00679066,0.00603199,0.342998,-0.254989,-0.00125518,0,0,0,0,0,0,0,3.92824,1.25214,3.92014,-1.67141,10.3991,-9.47632,-0.00331689,0.0687031,0.0122224,-0.0368798,-1.82062,0.015119,0.299877,0.0372285,0.000973861,0.017642,0.000369844,-0.00583918,-0.000161177,0.00403673,-2.92282e-05,0.0645602,0.615504,-0.7642,-0.473094,0.00540557,0.436131,0.0910527,0.0313145,-35.2443,-0.0863513,25.8084,0.562741,3.21252,0.0376436,
0.0683457,0.0117072,-0.0372453,-1.81941,0.0361881,0.282326,0.0371192,-0.00648769,0.00302283,-0.00650491,0.00761665,0.440239,-0.346258,-0.00117418,0,0,0,0,0,0,0,3.81223,1.23724,3.80318,-1.63859,10.1649,-9.30036,-0.00353096,0.0687031,0.0122224,-0.0368798,-1.82062,0.015119,0.299877,0.0372285,0.000973861,0.017642,0.000369844,-0.00583918,-0.000161177,0.00403673,-2.92282e-05,0,0,0,0,0,0,0,0.0313145,-35.2443,-0.0863513,25.8084,0.562741,3.21252,0.0376436,
0.0683534,0.0116822,-0.037236,-1.81935,0.0430871,0.276259,0.0371164,-0.00499676,0.00179543,-0.00497325,0.00747289,0.524664,-0.428675,-0.00101009,0,0,0,0,0,0,0,3.70128,1.21178,3.69278,-1.61019,9.93591,-9.13011,-0.00404204,0.0687031,0.0122224,-0.0368798,-1.82062,0.015119,0.299877,0.0372285,0.000973861,0.017642,0.000369844,-0.00583918,-0.000161177,0.00403673,-2.92282e-05,0,0,0,0,0,0,0,0.0313145,-35.2443,-0.0863513,25.8084,0.562741,3.21252,0.0376436,
0.0693284,0.0122337,-0.0362597,-1.82061,0.0223274,0.290441,0.0373565,0.00616266,0.000210405,0.00616068,0.00428555,0.532364,-0.489242,0.000271601,0,0,0,0,0,0,0,21.665,3.25178,21.5145,-10.2363,10.9592,-14.2981,0.139882,0.0687031,0.0122224,-0.0368798,-1.82062,0.015119,0.299877,0.0372285,0.000973861,0.017642,0.000369844,-0.00583918,-0.000161177,0.00403673,-2.92282e-05,0,0,0,0,0,0,0,0.0313145,-35.2443,-0.0863513,25.8084,0.562741,3.21252,0.0376436,
0.0698931,0.012113,-0.0356814,-1.82085,0.0280311,0.283061,0.0373812,0.0190482,-0.00284962,0.0193861,-0.00238484,0.568485,-0.575887,0.000833427,0,0,0,0,0,0,0,19.9688,2.60904,19.8653,-10.3302,10.9592,-14.2945,0.0671103,0.0687001,0.0126946,-0.0368727,-1.82093,0.0151783,0.299852,0.037224,0.000461874,0.0125957,0.000671861,-0.0116492,0.00570199,-0.00476104,-0.00103625,-0.0639984,-0.630796,0.0377522,-0.726258,0.732895,-1.09972,-0.125878,0.134464,-37.2914,-0.0109729,27.5024,0.690914,3.31139,0.0779268,
0.0706246,0.0120846,-0.0349799,-1.82102,0.034523,0.274488,0.0375896,0.0335254,-0.00299022,0.0330454,-0.00637472,0.617085,-0.675046,0.00587696,0,0,0,0,0,0,0,18.8632,1.89286,18.951,-10.4998,10.9592,-14.2945,0.0352778,0.0687001,0.0126946,-0.0368727,-1.82093,0.0151783,0.299852,0.037224,0.000461874,0.0125957,0.000671861,-0.0116492,0.00570199,-0.00476104,-0.00103625,0,0,0,0,0,0,0,0.134464,-37.2914,-0.0109729,27.5024,0.690914,3.31139,0.0779268,
0.0698376,0.0126499,-0.0357406,-1.82161,0.0216744,0.29093,0.0374356,0.0450565,-0.00356321,0.0443446,-0.0161831,0.596153,-0.679419,0.00666127,0,0,0,0,0,0,0,31.7351,6.31734,31.6188,-17.4401,10.9592,-14.2945,0.178605,0.0687001,0.0126946,-0.0368727,-1.82093,0.0151783,0.299852,0.037224,0.000461874,0.0125957,0.000671861,-0.0116492,0.00570199,-0.00476104,-0.00103625,0,0,0,0,0,0,0,0.134464,-37.2914,-0.0109729,27.5024,0.690914,3.31139,0.0779268,
0.0707912,0.01269,-0.0347609,-1.82209,0.0269817,0.283711,0.0376588,0.0598855,-0.00184654,0.0599678,-0.0248909,0.609605,-0.724019,0.0109102,0,0,0,0,0,0,0,29.1662,5.9211,28.8368,-17.157,10.9592,-14.2945,0.0965808,0.0687001,0.0126946,-0.0368727,-1.82093,0.0151783,0.299852,0.037224,0.000461874,0.0125957,0.000671861,-0.0116492,0.00570199,-0.00476104,-0.00103625,0,0,0,0,0,0,0,0.134464,-37.2914,-0.0109729,27.5024,0.690914,3.31139,0.0779268,
0.0718829,0.0127394,-0.0336405,-1.82274,0.0332641,0.275442,0.0377011,0.0752001,-0.000244019,0.0759849,-0.0359987,0.644744,-0.785945,0.00978477,0,0,0,0,0,0,0,27.2104,7.50996,27.4193,-14.793,10.9549,-14.2853,0.282495,0.0687231,0.0130962,-0.0366428,-1.82112,0.0163728,0.298443,0.0372233,0.0031452,0.0193958,0.0185831,-0.0107425,0.069861,-0.0654338,-0.00143356,0.335416,0.850016,2.23891,0.113337,8.01988,-7.58409,-0.0496636,2.66956,-36.494,2.53602,26.0822,1.06994,2.42333,0.0843355,
0.0730732,0.012795,-0.0324157,-1.82352,0.0402316,0.266422,0.0377109,0.0899186,0.00119509,0.0914079,-0.0484439,0.689982,-0.854244,0.0080737,0,0,0,0,0,0,0,23.4571,5.72106,23.7484,-15.1103,10.9549,-14.2853,0.0460216,0.0687231,0.0130962,-0.0366428,-1.82112,0.0163728,0.298443,0.0372233,0.0031452,0.0193958,0.0185831,-0.0107425,0.069861,-0.0654338,-0.00143356,0,0,0,0,0,0,0,2.66956,-36.494,2.53602,26.0822,1.06994,2.42333,0.0843355,
0.0702614,0.0129089,-0.0351188,-1.82255,0.0230882,0.289531,0.0375801,0.0958992,-0.00137528,0.0965327,-0.0588874,0.655138,-0.822482,0.0122431,0,0,0,0,0,0,0,36.9067,5.92388,36.7131,-24.4038,10.9549,-14.2853,0.156575,0.0687231,0.0130962,-0.0366428,-1.82112,0.0163728,0.298443,0.0372233,0.0031452,0.0193958,0.0185831,-0.0107425,0.069861,-0.0654338,-0.00143356,0,0,0,0,0,0,0,2.66956,-36.494,2.53602,26.0822,1.06994,2.42333,0.0843355,
0.0714394,0.0127934,-0.0339672,-1.82359,0.0284795,0.282464,0.0376027,0.10617,-0.00398864,0.106016,-0.0728756,0.658893,-0.834675,0.0103588,0,0,0,0,0,0,0,33.8431,6.72592,33.3659,-22.2274,10.9549,-14.2853,0.287413,0.0687231,0.0130962,-0.0366428,-1.82112,0.0163728,0.298443,0.0372233,0.0031452,0.0193958,0.0185831,-0.0107425,0.069861,-0.0654338,-0.00143356,0,0,0,0,0,0,0,2.66956,-36.494,2.53602,26.0822,1.06994,2.42333,0.0843355,
0.0727709,0.0126727,-0.0326652,-1.82479,0.0347952,0.274313,0.0375749,0.118224,-0.00620819,0.117363,-0.0884845,0.685006,-0.871513,0.00759285,0,0,0,0,0,0,0,29.0281,4.72728,28.584,-22.3559,10.9468,-14.2572,0.0190781,0.0694064,0.013054,-0.0350839,-1.82223,0.0196445,0.294357,0.0372315,0.0321504,0.000107939,0.0665894,-0.0482504,0.117096,-0.155243,0.00089254,3.62565,-2.41098,6.00079,-4.68848,5.9044,-11.2261,0.290763,6.52179,-34.2485,6.38826,25.2847,1.48559,2.03881,0.0101778,
0.071194,0.0128432,-0.0333412,-1.82375,0.0273578,0.28429,0.0374679,0.119918,-0.00837695,0.118587,-0.0931021,0.66459,-0.847308,0.00652174,0,0,0,0,0,0,0,33.8478,6.72106,33.3698,-22.2075,10.9468,-14.2572,0.287314,0.0694064,0.013054,-0.0350839,-1.82223,0.0196445,0.294357,0.0372315,0.0321504,0.000107939,0.0665894,-0.0482504,0.117096,-0.155243,0.00089254,0,0,0,0,0,0,0,6.52179,-34.2485,6.38826,25.2847,1.48559,2.03881,0.0101778,
0.0723834,0.0126814,-0.0321803,-1.82485,0.0331642,0.276897,0.0374381,0.12567,-0.0107475,0.123891,-0.101891,0.676831,-0.862691,0.00446994,0,0,0,0,0,0,0,29.0281,4.72728,28.584,-22.3559,10.9468,-14.2572,0.0190781,0.0694064,0.013054,-0.0350839,-1.82223,0.0196445,0.294357,0.0372315,0.0321504,0.000107939,0.0665894,-0.0482504,0.117096,-0.155243,0.00089254,0,0,0,0,0,0,0,6.52179,-34.2485,6.38826,25.2847,1.48559,2.03881,0.0101778,
0.0736921,0.0125219,-0.0308852,-1.82609,0.0397835,0.268496,0.0373862,0.133254,-0.0125843,0.131491,-0.112576,0.706947,-0.900163,0.00227903,0,0,0,0,0,0,0,26.8196,3.34041,26.3728,-22.2595,10.9468,-14.2572,-0.0366937,0.0694064,0.013054,-0.0350839,-1.82223,0.0196445,0.294357,0.0372315,0.0321504,0.000107939,0.0665894,-0.0482504,0.117096,-0.155243,0.00089254,0,0,0,0,0,0,0,6.52179,-34.2485,6.38826,25.2847,1.48559,2.03881,0.0101778,
0.0750905,0.0123775,-0.0295012,-1.82744,0.0469848,0.259367,0.0373247,0.141562,-0.0136785,0.139792,-0.123776,0.74559,-0.948351,0.00028751,0,0,0,0,0,0,0,25.0443,2.38179,24.8126,-21.9497,10.939,-14.198,-0.0653184,0.0712124,0.0130141,-0.031451,-1.82479,0.0250267,0.286917,0.037225,0.0702206,-0.00732641,0.134884,-0.0798605,0.160112,-0.247293,-0.000578828,4.75878,-0.929294,8.53679,-3.95127,5.37692,-11.5063,-0.183921,6.59717,-33.9708,6.46364,25.5823,1.73553,1.91247,0.0641939,
0.0733896,0.0127372,-0.0293266,-1.82659,0.0338083,0.275808,0.0371821,0.142382,-0.0149988,0.140215,-0.124015,0.725734,-0.920189,-0.000735646,0,0,0,0,0,0,0,29.0456,4.72618,28.5997,-22.3103,10.939,-14.198,0.0188523,0.0712124,0.0130141,-0.031451,-1.82479,0.0250267,0.286917,0.037225,0.0702206,-0.00732641,0.134884,-0.0798605,0.160112,-0.247293,-0.000578828,0,0,0,0,0,0,0,6.59717,-33.9708,6.46364,25.5823,1.73553,1.91247,0.0641939,
0.0746647,0.0125597,-0.0280657,-1.82775,0.0400341,0.268067,0.0371255,0.145783,-0.0164349,0.143695,-0.128201,0.736231,-0.929686,-0.00200459,0,0,0,0,0,0,0,26.837,3.3393,26.3885,-22.2139,10.939,-14.198,-0.0369194,0.0712124,0.0130141,-0.031451,-1.82479,0.0250267,0.286917,0.037225,0.0702206,-0.00732641,0.134884,-0.0798605,0.160112,-0.247293,-0.000578828,0,0,0,0,0,0,0,6.59717,-33.9708,6.46364,25.5823,1.73553,1.91247,0.0641939,
0.0760281,0.0123874,-0.026717,-1.82903,0.0469845,0.25941,0.0370615,0.15071,-0.017457,0.148674,-0.134564,0.762745,-0.960166,-0.00320479,0,0,0,0,0,0,0,25.0443,2.38179,24.8126,-21.9497,10.939,-14.198,-0.0653184,0.0712124,0.0130141,-0.031451,-1.82479,0.0250267,0.286917,0.037225,0.0702206,-0.00732641,0.134884,-0.0798605,0.160112,-0.247293,-0.000578828,0,0,0,0,0,0,0,6.59717,-33.9708,6.46364,25.5823,1.73553,1.91247,0.0641939,
0.0774536,0.0122301,-0.0253064,-1.8304,0.0544395,0.250096,0.0369961,0.156206,-0.0178976,0.154203,-0.141864,0.796571,-1.00099,-0.00419832,0,0,0,0,0,0,0,23.7112,1.58974,23.4854,-21.5918,10.9405,-14.1328,-0.0780432,0.0740191,0.0130683,-0.02627,-1.8283,0.0287242,0.27764,0.0372307,0.0868196,-0.00194039,0.173913,-0.119548,0.0960967,-0.296277,0.00116098,2.07487,0.673252,4.87867,-4.96096,-8.00187,-6.12299,0.217476,6.42261,-34.8714,6.16212,24.4119,1.77856,1.51513,0.017502,
0.0763576,0.012915,-0.023974,-1.83038,0.0373366,0.265786,0.0371051,0.155217,-0.0168715,0.153213,-0.14124,0.766317,-0.97088,-0.00506337,0,0,0,0,0,0,0,26.8623,3.32289,26.4116,-22.1594,10.9405,-14.1328,-0.037262,0.0740191,0.0130683,-0.02627,-1.8283,0.0287242,0.27764,0.0372307,0.0868196,-0.00194039,0.173913,-0.119548,0.0960967,-0.296277,0.00116098,0,0,0,0,0,0,0,6.42261,-34.8714,6.16212,24.4119,1.77856,1.51513,0.017502,
0.077647,0.0127858,-0.0226999,-1.83162,0.0436117,0.257772,0.0370347,0.156409,-0.0167263,0.154423,-0.143822,0.769931,-0.977044,-0.00580945,0,0,0,0,0,0,0,25.0696,2.36538,24.8357,-21.8953,10.9405,-14.1328,-0.065661,0.0740191,0.0130683,-0.02627,-1.8283,0.0287242,0.27764,0.0372307,0.0868196,-0.00194039,0.173913,-0.119548,0.0960967,-0.296277,0.00116098,0,0,0,0,0,0,0,6.42261,-34.8714,6.16212,24.4119,1.77856,1.51513,0.017502,
0.0790008,0.0126496,-0.0213611,-1.83294,0.0506241,0.248906,0.0369661,0.158972,-0.0167869,0.157007,-0.148285,0.791255,-1.00329,-0.00636425,0,0,0,0,0,0,0,23.7112,1.58974,23.4854,-21.5918,10.9405,-14.1328,-0.0780432,0.0740191,0.0130683,-0.02627,-1.8283,0.0287242,0.27764,0.0372307,0.0868196,-0.00194039,0.173913,-0.119548,0.0960967,-0.296277,0.00116098,0,0,0,0,0,0,0,6.42261,-34.8714,6.16212,24.4119,1.77856,1.51513,0.017502,
0.0762666,0.0128644,-0.0240492,-1.83038,0.0374626,0.265752,0.037068,0.156176,-0.0167158,0.154204,-0.146275,0.763735,-0.973289,-0.00709414,0,0,0,0,0,0,0,25.0696,2.36538,24.8357,-21.8953,10.9405,-14.1328,-0.065661,0.0740191,0.0130683,-0.02627,-1.8283,0.0287242,0.27764,0.0372307,0.0868196,-0.00194039,0.173913,-0.119548,0.0960967,-0.296277,0.00116098,0,0,0,0,0,0,0,6.42261,-34.8714,6.16212,24.4119,1.77856,1.51513,0.017502,
0.0774971,0.0127027,-0.0228337,-1.8316,0.0437937,0.257711,0.0369942,0.155703,-0.0174143,0.153753,-0.147547,0.769263,-0.979675,-0.00751965,0,0,0,0,0,0,0,23.7288,1.55569,23.5003,-21.5269,10.9413,-14.0536,-0.0784096,0.0771956,0.0131243,-0.0200948,-1.83265,0.0315813,0.266348,0.0372261,0.10475,-0.00602673,0.189571,-0.14242,0.113197,-0.362047,-0.000190175,2.24128,-0.510792,1.95726,-2.85896,2.13756,-8.22123,-0.168894,4.01447,-34.6968,3.81349,23.3646,1.3446,1.34209,0.0577852,
0.078788,0.0125335,-0.021557,-1.83291,0.0508461,0.248815,0.0369286,0.156836,-0.01816,0.154918,-0.150788,0.791722,-1.00612,-0.00765603,0,0,0,0,0,0,0,22.5807,0.912886,22.362,-21.1959,10.9413,-14.0536,-0.0815844,0.0771956,0.0131243,-0.0200948,-1.83265,0.0315813,0.266348,0.0372261,0.10475,-0.00602673,0.189571,-0.14242,0.113197,-0.362047,-0.000190175,0,0,0,0,0,0,0,4.01447,-34.6968,3.81349,23.3646,1.3446,1.34209,0.0577852,
0.0801248,0.0123688,-0.0202342,-1.83429,0.0583823,0.239317,0.0368715,0.158889,-0.0186478,0.157004,-0.155027,0.821782,-1.04237,-0.00755068,0,0,0,0,0,0,0,21.5843,0.380381,21.377,-20.8335,10.9413,-14.0536,-0.0773482,0.0771956,0.0131243,-0.0200948,-1.83265,0.0315813,0.266348,0.0372261,0.10475,-0.00602673,0.189571,-0.14242,0.113197,-0.362047,-0.000190175,0,0,0,0,0,0,0,4.01447,-34.6968,3.81349,23.3646,1.3446,1.34209,0.0577852,
0.0795686,0.0129306,-0.0177521,-1.83489,0.0406348,0.253714,0.0370459,0.15721,-0.0179843,0.155272,-0.153046,0.792014,-1.0125,-0.00816172,0,0,0,0,0,0,0,23.7288,1.55569,23.5003,-21.5269,10.9413,-14.0536,-0.0784096,0.0771956,0.0131243,-0.0200948,-1.83265,0.0315813,0.266348,0.0372261,0.10475,-0.00602673,0.189571,-0.14242,0.113197,-0.362047,-0.000190175,0,0,0,0,0,0,0,4.01447,-34.6968,3.81349,23.3646,1.3446,1.34209,0.0577852,
0.0808174,0.0127779,-0.0165187,-1.83614,0.0470992,0.245443,0.0369741,0.156988,-0.0182033,0.155054,-0.153777,0.795221,-1.01678,-0.00832624,0,0,0,0,0,0,0,22.5822,0.826338,22.3608,-21.1279,10.9306,-13.9773,-0.0820253,0.0806818,0.0130472,-0.0137057,-1.83778,0.0346534,0.253158,0.0372251,0.0961011,0.0013198,0.168436,-0.152038,0.0694578,-0.387755,-0.00119055,-1.0811,0.918315,-2.64192,-1.20226,-5.46742,-3.2135,-0.125047,-3.84869,-36.2679,-3.78783,27.4747,1.10016,2.32995,0.0779268,
0.0821086,0.0126142,-0.015242,-1.83747,0.0542607,0.236387,0.0369136,0.157869,-0.0186562,0.15596,-0.156227,0.815215,-1.03982,-0.00817188,0,0,0,0,0,0,0,21.5858,0.293833,21.3759,-20.7655,10.9306,-13.9773,-0.0777892,0.0806818,0.0130472,-0.0137057,-1.83778,0.0346534,0.253158,0.0372251,0.0961011,0.0013198,0.168436,-0.152038,0.0694578,-0.387755,-0.00119055,0,0,0,0,0,0,0,-3.84869,-36.2679,-3.78783,27.4747,1.10016,2.32995,0.0779268,
0.0834334,0.0124485,-0.0139315,-1.83888,0.0618862,0.226981,0.036863,0.159415,-0.0190687,0.157531,-0.160314,0.842809,-1.067,-0.0078033,0,0,0,0,0,0,0,20.683,-0.189649,20.4836,-20.4053,10.9306,-13.9773,-0.0700245,0.0806818,0.0130472,-0.0137057,-1.83778,0.0346534,0.253158,0.0372251,0.0961011,0.0013198,0.168436,-0.152038,0.0694578,-0.387755,-0.00119055,0,0,0,0,0,0,0,-3.84869,-36.2679,-3.78783,27.4747,1.10016,2.32995,0.0779268,
0.0828237,0.0129307,-0.0115939,-1.8401,0.0432391,0.240247,0.0370462,0.154797,-0.0175002,0.152882,-0.158104,0.803722,-1.03518,-0.00827206,0,0,0,0,0,0,0,22.5822,0.826338,22.3608,-21.1279,10.9306,-13.9773,-0.0820253,0.0806818,0.0130472,-0.0137057,-1.83778,0.0346534,0.253158,0.0372251,0.0961011,0.0013198,0.168436,-0.152038,0.0694578,-0.387755,-0.00119055,0,0,0,0,0,0,0,-3.84869,-36.2679,-3.78783,27.4747,1.10016,2.32995,0.0779268,
0.083966,0.0127998,-0.0104661,-1.84138,0.0495402,0.231891,0.0369809,0.152394,-0.0172716,0.150501,-0.158305,0.800507,-1.03703,-0.00825026,0,0,0,0,0,0,0,21.5811,0.219565,21.3685,-20.6817,10.9173,-13.8787,-0.0781865,0.0837735,0.0128206,-0.00708837,-1.84289,0.0384932,0.238987,0.0372318,0.0858395,0.00282731,0.197372,-0.151113,0.179383,-0.439836,-0.000231881,-1.2827,0.188439,3.617,0.115594,13.7406,-6.51009,0.119834,-3.97564,-36.9423,-3.93462,29.2679,0.54443,2.75475,0.050461,
0.0851586,0.0126465,-0.00928727,-1.84274,0.0565722,0.222981,0.036928,0.151731,-0.0176501,0.149871,-0.160814,0.816204,-1.05238,-0.00792301,0,0,0,0,0,0,0,20.6783,-0.263917,20.4763,-20.3215,10.9173,-13.8787,-0.0704218,0.0837735,0.0128206,-0.00708837,-1.84289,0.0384932,0.238987,0.0372318,0.0858395,0.00282731,0.197372,-0.151113,0.179383,-0.439836,-0.000231881,0,0,0,0,0,0,0,-3.97564,-36.9423,-3.93462,29.2679,0.54443,2.75475,0.050461,
0.0863944,0.0124824,-0.00806502,-1.84425,0.0640957,0.214251,0.0368862,0.152279,-0.0182226,0.150453,-0.166276,0.841052,-1.06016,-0.00738457,0,0,0,0,0,0,0,19.8474,-0.698893,19.6513,-19.9601,10.9173,-13.1663,-0.0619728,0.0837735,0.0128206,-0.00708837,-1.84289,0.0384932,0.238987,0.0372318,0.0858395,0.00282731,0.197372,-0.151113,0.179383,-0.439836,-0.000231881,0,0,0,0,0,0,0,-3.97564,-36.9423,-3.93462,29.2679,0.54443,2.75475,0.050461,
0.0860104,0.0126914,-0.00487774,-1.84523,0.0480521,0.225654,0.0370665,0.15008,-0.017041,0.148212,-0.163054,0.81212,-1.03381,-0.00775295,0,0,0,0,0,0,0,21.5811,0.219565,21.3685,-20.6817,10.9173,-13.8787,-0.0781865,0.0837735,0.0128206,-0.00708837,-1.84289,0.0384932,0.238987,0.0372318,0.0858395,0.00282731,0.197372,-0.151113,0.179383,-0.439836,-0.000231881,0,0,0,0,0,0,0,-3.97564,-36.9423,-3.93462,29.2679,0.54443,2.75475,0.050461,
0.0871768,0.0125472,-0.0037261,-1.84653,0.0546285,0.217397,0.0370086,0.149225,-0.0172379,0.147361,-0.163007,0.814107,-1.03348,-0.0076503,0,0,0,0,0,0,0,20.6592,-0.364383,20.4541,-20.2531,10.8816,-13.788,-0.0707694,0.0855985,0.0126891,8.28015e-05,-1.84779,0.0452698,0.222615,0.037224,0.0364651,0.0065641,0.195956,-0.134983,0.224809,-0.52255,-0.001069,-6.17179,0.467099,-0.176993,2.01627,5.67831,-10.3393,-0.10464,-1.38897,-37.0653,-1.4868,29.0695,0.672604,2.63482,0.0779268,
0.0883819,0.0123771,-0.002535,-1.84799,0.0618611,0.209135,0.0369639,0.149507,-0.0180445,0.147666,-0.166679,0.832101,-1.03333,-0.00723733,0,0,0,0,0,0,0,19.8282,-0.79936,19.6292,-19.8918,10.8816,-13.0755,-0.0623204,0.0855985,0.0126891,8.28015e-05,-1.84779,0.0452698,0.222615,0.037224,0.0364651,0.0065641,0.195956,-0.134983,0.224809,-0.52255,-0.001069,0,0,0,0,0,0,0,-1.38897,-37.0653,-1.4868,29.0695,0.672604,2.63482,0.0779268,
0.089621,0.0122068,-0.00130959,-1.84956,0.0695244,0.201315,0.0369298,0.150583,-0.018693,0.148768,-0.172611,0.857262,-1.02215,-0.00664443,0,0,0,0,0,0,0,19.075,-1.24367,18.8823,-19.5805,10.8816,-10.9725,-0.0530725,0.0855985,0.0126891,8.28015e-05,-1.84779,0.0452698,0.222615,0.037224,0.0364651,0.0065641,0.195956,-0.134983,0.224809,-0.52255,-0.001069,0,0,0,0,0,0,0,-1.38897,-37.0653,-1.4868,29.0695,0.672604,2.63482,0.0779268,
0.087535,0.0125209,0.00200198,-1.85015,0.054996,0.208939,0.0370823,0.145367,-0.0179913,0.143551,-0.168867,0.825684,-1.00341,-0.00687301,0,0,0,0,0,0,0,20.6592,-0.364383,20.4541,-20.2531,10.8816,-13.788,-0.0707694,0.0855985,0.0126891,8.28015e-05,-1.84779,0.0452698,0.222615,0.037224,0.0364651,0.0065641,0.195956,-0.134983,0.224809,-0.52255,-0.001069,0,0,0,0,0,0,0,-1.38897,-37.0653,-1.4868,29.0695,0.672604,2.63482,0.0779268,
0.0885897,0.0123537,0.00304316,-1.85154,0.0615399,0.201271,0.0370356,0.142659,-0.0185734,0.140871,-0.169867,0.824142,-0.994416,-0.00666658,0,0,0,0,0,0,0,19.8278,-0.908972,19.6254,-19.7848,10.8467,-12.9602,-0.0628702,0.0868009,0.0126815,0.00744891,-1.85263,0.054543,0.20398,0.0372315,0.0275366,-0.000136055,0.218531,-0.131861,0.271377,-0.539664,0.00177564,-1.11606,-0.83752,2.82194,0.390209,5.82095,-2.13918,0.35558,-0.0718349,-36.6686,-0.312487,27.677,1.04522,2.4627,0.0101778,
0.0897,0.0121744,0.00414047,-1.85306,0.0687064,0.193884,0.0370007,0.141886,-0.0193417,0.140129,-0.173922,0.838477,-0.980216,-0.00620563,0,0,0,0,0,0,0,19.0746,-1.35328,18.8786,-19.4735,10.8467,-10.8572,-0.0536223,0.0868009,0.0126815,0.00744891,-1.85263,0.054543,0.20398,0.0372315,0.0275366,-0.000136055,0.218531,-0.131861,0.271377,-0.539664,0.00177564,0,0,0,0,0,0,0,-0.0718349,-36.6686,-0.312487,27.677,1.04522,2.4627,0.0101778,
0.08879,0.0124197,0.00942254,-1.85506,0.0647088,0.191135,0.0371068,0.138903,-0.019624,0.137126,-0.171627,0.815227,-0.952588,-0.00630788,0,0,0,0,0,0,0,19.8278,-0.908972,19.6254,-19.7848,10.8467,-12.9602,-0.0628702,0.0868009,0.0126815,0.00744891,-1.85263,0.054543,0.20398,0.0372315,0.0275366,-0.000136055,0.218531,-0.131861,0.271377,-0.539664,0.00177564,0,0,0,0,0,0,0,-0.0718349,-36.6686,-0.312487,27.677,1.04522,2.4627,0.0101778,
0.0898535,0.0122249,0.0104723,-1.8565,0.0713762,0.184418,0.0370679,0.13771,-0.0205684,0.135945,-0.173397,0.818867,-0.929984,-0.00601876,0,0,0,0,0,0,0,19.0746,-1.35328,18.8786,-19.4735,10.8467,-10.8572,-0.0536223,0.0868009,0.0126815,0.00744891,-1.85263,0.054543,0.20398,0.0372315,0.0275366,-0.000136055,0.218531,-0.131861,0.271377,-0.539664,0.00177564,0,0,0,0,0,0,0,-0.0718349,-36.6686,-0.312487,27.677,1.04522,2.4627,0.0101778,
0.0909639,0.0120286,0.0115695,-1.85805,0.0786239,0.178094,0.03704,0.13793,-0.0213627,0.136187,-0.177403,0.836285,-0.902099,-0.00551196,0,0,0,0,0,0,0,18.3867,-1.89297,18.1935,-19.0968,10.8071,-8.87315,-0.0449009,0.0877816,0.0126196,0.0149446,-1.8575,0.0642348,0.18514,0.0372255,0.0286578,-0.00520804,0.20729,-0.131968,0.272822,-0.541151,2.86468e-05,0.140142,-0.633998,-1.40521,-0.0133759,0.180678,-0.185869,-0.218374,-0.730404,-35.518,-0.836168,26.0306,1.20453,1.99212,0.0641939,
0.0921143,0.0118444,0.0127069,-1.85967,0.0862574,0.172373,0.0370213,0.139104,-0.0216957,0.137383,-0.182286,0.859867,-0.864696,-0.00487819,0,0,0,0,0,0,0,17.7624,-2.23011,17.575,-18.8453,10.8071,-7.22837,-0.0357372,0.0877816,0.0126196,0.0149446,-1.8575,0.0642348,0.18514,0.0372255,0.0286578,-0.00520804,0.20729,-0.131968,0.272822,-0.541151,2.86468e-05,0,0,0,0,0,0,0,-0.730404,-35.518,-0.836168,26.0306,1.20453,1.99212,0.0641939,
0.0896894,0.0122942,0.0168362,-1.86007,0.0743587,0.173786,0.0371187,0.135658,-0.0220786,0.133913,-0.179911,0.831577,-0.8379,-0.00502397,0,0,0,0,0,0,0,19.0731,-1.48382,18.8739,-19.3654,10.8071,-10.7461,-0.0542121,0.0877816,0.0126196,0.0149446,-1.8575,0.0642348,0.18514,0.0372255,0.0286578,-0.00520804,0.20729,-0.131968,0.272822,-0.541151,2.86468e-05,0,0,0,0,0,0,0,-0.730404,-35.518,-0.836168,26.0306,1.20453,1.99212,0.0641939,
0.0907126,0.0120881,0.0178458,-1.86155,0.080985,0.168091,0.0370877,0.134106,-0.0228141,0.132371,-0.180922,0.830919,-0.812701,-0.00479544,0,0,0,0,0,0,0,18.3867,-1.89297,18.1935,-19.0968,10.8071,-8.87315,-0.0449009,0.0877816,0.0126196,0.0149446,-1.8575,0.0642348,0.18514,0.0372255,0.0286578,-0.00520804,0.20729,-0.131968,0.272822,-0.541151,2.86468e-05,0,0,0,0,0,0,0,-0.730404,-35.518,-0.836168,26.0306,1.20453,1.99212,0.0641939,
0.0917835,0.0118852,0.0189037,-1.86311,0.0881869,0.162832,0.0370674,0.134057,-0.023324,0.132343,-0.183702,0.844781,-0.781613,-0.00434403,0,0,0,0,0,0,0,17.7724,-2.3627,17.5818,-18.726,10.7767,-7.11511,-0.0364144,0.088818,0.0125055,0.0227189,-1.8625,0.0731793,0.167235,0.0372284,0.0244176,-0.00940611,0.228031,-0.148617,0.254944,-0.502765,0.00154771,-0.530022,-0.524759,2.59266,-2.08106,-2.23483,4.79828,0.189883,0.463749,-34.0224,0.238966,24.3604,1.31988,1.80627,0.0376436,
0.0907796,0.0121789,0.0246646,-1.86525,0.0831877,0.157409,0.0371354,0.132061,-0.0232171,0.130303,-0.182761,0.818485,-0.749993,-0.00443162,0,0,0,0,0,0,0,18.3967,-2.02556,18.2003,-18.9776,10.7767,-8.75989,-0.0455781,0.088818,0.0125055,0.0227189,-1.8625,0.0731793,0.167235,0.0372284,0.0244176,-0.00940611,0.228031,-0.148617,0.254944,-0.502765,0.00154771,0,0,0,0,0,0,0,0.463749,-34.0224,0.238966,24.3604,1.31988,1.80627,0.0376436,
0.0918068,0.0119843,0.0256778,-1.86676,0.0897897,0.152658,0.037111,0.131331,-0.0234399,0.129572,-0.184133,0.819838,-0.718769,-0.00415348,0,0,0,0,0,0,0,17.7724,-2.3627,17.5818,-18.726,10.7767,-7.11511,-0.0364144,0.088818,0.0125055,0.0227189,-1.8625,0.0731793,0.167235,0.0372284,0.0244176,-0.00940611,0.228031,-0.148617,0.254944,-0.502765,0.00154771,0,0,0,0,0,0,0,0.463749,-34.0224,0.238966,24.3604,1.31988,1.80627,0.0376436,
0.0928723,0.0117925,0.0267299,-1.86833,0.0969743,0.148362,0.0370972,0.131702,-0.0235459,0.129961,-0.186557,0.835487,-0.682413,-0.00366814,0,0,0,0,0,0,0,17.2032,-2.61379,17.0179,-18.4798,10.7767,-5.65827,-0.0268185,0.088818,0.0125055,0.0227189,-1.8625,0.0731793,0.167235,0.0372284,0.0244176,-0.00940611,0.228031,-0.148617,0.254944,-0.502765,0.00154771,0,0,0,0,0,0,0,0.463749,-34.0224,0.238966,24.3604,1.31988,1.80627,0.0376436,
0.0939719,0.0116108,0.0278165,-1.86993,0.104546,0.144638,0.0370923,0.132852,-0.0233783,0.131132,-0.18919,0.857674,-0.639027,-0.00305788,0,0,0,0,0,0,0,16.6813,-2.78052,16.5012,-18.2305,10.7767,-4.39141,-0.0174001,0.088818,0.0125055,0.0227189,-1.8625,0.0731793,0.167235,0.0372284,0.0244176,-0.00940611,0.228031,-0.148617,0.254944,-0.502765,0.00154771,0,0,0,0,0,0,0,0.463749,-34.0224,0.238966,24.3604,1.31988,1.80627,0.0376436,
0.0917247,0.0119773,0.032294,-1.871,0.0912729,0.143279,0.0371516,0.130605,-0.0227421,0.128838,-0.188514,0.827038,-0.613918,-0.00320601,0,0,0,0,0,0,0,17.7731,-2.5088,17.5797,-18.6102,10.7429,-7.01204,-0.0370815,0.0897959,0.0122716,0.030382,-1.8681,0.0814171,0.151443,0.0372285,0.0264894,-0.0124842,0.224568,-0.171589,0.244253,-0.425713,0.00163328,0.258983,-0.384764,-0.432826,-2.8715,-1.33634,9.6315,0.0106957,1.72931,-33.9708,1.41328,24.6857,1.39953,1.80627,0.0376436,
0.092728,0.0118035,0.0332831,-1.87254,0.097815,0.13944,0.0371345,0.129567,-0.022539,0.127799,-0.189336,0.825181,-0.587092,-0.00299274,0,0,0,0,0,0,0,17.2038,-2.75989,17.0158,-18.364,10.7429,-5.55519,-0.0274856,0.0897959,0.0122716,0.030382,-1.8681,0.0814171,0.151443,0.0372285,0.0264894,-0.0124842,0.224568,-0.171589,0.244253,-0.425713,0.00163328,0,0,0,0,0,0,0,1.72931,-33.9708,1.41328,24.6857,1.39953,1.80627,0.0376436,
0.0937668,0.0116289,0.0343084,-1.87411,0.104948,0.13605,0.0371279,0.129621,-0.0223942,0.127873,-0.190781,0.838469,-0.554437,-0.00255958,0,0,0,0,0,0,0,16.682,-2.92663,16.499,-18.1147,10.7429,-4.28833,-0.0180672,0.0897959,0.0122716,0.030382,-1.8681,0.0814171,0.151443,0.0372285,0.0264894,-0.0124842,0.224568,-0.171589,0.244253,-0.425713,0.00163328,0,0,0,0,0,0,0,1.72931,-33.9708,1.41328,24.6857,1.39953,1.80627,0.0376436,
0.0948378,0.01146,0.0353665,-1.8757,0.112474,0.133193,0.0371298,0.130473,-0.0221388,0.128749,-0.19222,0.85892,-0.51497,-0.00199841,0,0,0,0,0,0,0,16.1999,-3.01912,16.0219,-17.8625,10.7429,-3.1739,-0.00832537,0.0897959,0.0122716,0.030382,-1.8681,0.0814171,0.151443,0.0372285,0.0264894,-0.0124842,0.224568,-0.171589,0.244253,-0.425713,0.00163328,0,0,0,0,0,0,0,1.72931,-33.9708,1.41328,24.6857,1.39953,1.80627,0.0376436,
0.0930159,0.0122147,0.0398099,-1.87696,0.100522,0.130554,0.0371637,0.128565,-0.0197731,0.126794,-0.192702,0.830052,-0.497682,-0.00215374,0,0,0,0,0,0,0,17.1994,-2.86799,17.008,-18.2679,10.7049,-5.45512,-0.028024,0.0910939,0.0123297,0.0379066,-1.8739,0.0904334,0.137494,0.037224,0.0379135,0.0067564,0.212924,-0.17729,0.277087,-0.398748,-0.000148917,1.428,2.40508,-1.4555,-0.712677,4.10419,3.3706,-0.222774,0.689884,-35.8196,0.361952,26.951,1.52771,1.94543,0.0779268,
0.09401,0.0121051,0.0407897,-1.87855,0.107101,0.127449,0.0371544,0.127704,-0.0185581,0.125932,-0.193776,0.828536,-0.47577,-0.00195681,0,0,0,0,0,0,0,16.6776,-3.03473,16.4913,-18.0186,10.7049,-4.18826,-0.0186056,0.0910939,0.0123297,0.0379066,-1.8739,0.0904334,0.137494,0.037224,0.0379135,0.0067564,0.212924,-0.17729,0.277087,-0.398748,-0.000148917,0,0,0,0,0,0,0,0.689884,-35.8196,0.361952,26.951,1.52771,1.94543,0.0779268,
0.0950358,0.0119821,0.0418022,-1.88014,0.114246,0.124796,0.0371549,0.12781,-0.0179213,0.126056,-0.19483,0.841454,-0.446947,-0.00155143,0,0,0,0,0,0,0,16.1956,-3.12722,16.0141,-17.7664,10.7049,-3.07383,-0.00886384,0.0910939,0.0123297,0.0379066,-1.8739,0.0904334,0.137494,0.037224,0.0379135,0.0067564,0.212924,-0.17729,0.277087,-0.398748,-0.000148917,0,0,0,0,0,0,0,0.689884,-35.8196,0.361952,26.951,1.52771,1.94543,0.0779268,
0.0929935,0.0122114,0.0397877,-1.87704,0.100565,0.131393,0.0371786,0.126086,-0.0163271,0.124294,-0.195586,0.816639,-0.430815,-0.00160208,0,0,0,0,0,0,0,16.6776,-3.03473,16.4913,-18.0186,10.7049,-4.18826,-0.0186056,0.0910939,0.0123297,0.0379066,-1.8739,0.0904334,0.137494,0.037224,0.0379135,0.0067564,0.212924,-0.17729,0.277087,-0.398748,-0.000148917,0,0,0,0,0,0,0,0.689884,-35.8196,0.361952,26.951,1.52771,1.94543,0.0779268,
0.0939696,0.0121117,0.0407497,-1.87863,0.107164,0.128851,0.0371767,0.125272,-0.0155536,0.123486,-0.196435,0.818292,-0.408205,-0.00132889,0,0,0,0,0,0,0,16.1944,-3.2557,16.0096,-17.6595,10.6641,-2.97974,-0.00944354,0.0928143,0.0124009,0.0451965,-1.8798,0.100374,0.125079,0.0372252,0.052237,-0.0028716,0.207642,-0.182473,0.304405,-0.327126,0.000495367,1.79045,-1.2035,-0.660251,-0.64788,3.4148,8.95275,0.0805355,-0.857357,-36.1171,-1.10991,27.1771,1.43066,1.94543,0.0641939,
0.0949744,0.0120018,0.0417412,-1.88023,0.114325,0.126778,0.0371849,0.125337,-0.0151896,0.123577,-0.196952,0.833659,-0.378372,-0.000859716,0,0,0,0,0,0,0,15.7446,-3.2864,15.5645,-17.4037,10.6641,-2.01953,6.44234e-05,0.0928143,0.0124009,0.0451965,-1.8798,0.100374,0.125079,0.0372252,0.052237,-0.0028716,0.207642,-0.182473,0.304405,-0.327126,0.000495367,0,0,0,0,0,0,0,-0.857357,-36.1171,-1.10991,27.1771,1.43066,1.94543,0.0641939,
0.0960058,0.0118871,0.0427598,-1.8818,0.121861,0.125205,0.0372018,0.126054,-0.0150189,0.124324,-0.196931,0.855318,-0.342022,-0.000265405,0,0,0,0,0,0,0,15.3197,-3.26835,15.1442,-17.1478,10.6641,-1.1779,0.00986825,0.0928143,0.0124009,0.0451965,-1.8798,0.100374,0.125079,0.0372252,0.052237,-0.0028716,0.207642,-0.182473,0.304405,-0.327126,0.000495367,0,0,0,0,0,0,0,-0.857357,-36.1171,-1.10991,27.1771,1.43066,1.94543,0.0641939,
0.0947579,0.0122076,0.0471189,-1.88293,0.110735,0.120351,0.0371958,0.125096,-0.0147371,0.123314,-0.196943,0.830012,-0.329241,-0.000386078,0,0,0,0,0,0,0,16.1944,-3.2557,16.0096,-17.6595,10.6641,-2.97974,-0.00944354,0.0928143,0.0124009,0.0451965,-1.8798,0.100374,0.125079,0.0372252,0.052237,-0.0028716,0.207642,-0.182473,0.304405,-0.327126,0.000495367,0,0,0,0,0,0,0,-0.857357,-36.1171,-1.10991,27.1771,1.43066,1.94543,0.0641939,
0.0957419,0.0120876,0.0480886,-1.88451,0.117395,0.118516,0.0372011,0.124678,-0.0147903,0.122893,-0.196899,0.830512,-0.309264,-0.000174521,0,0,0,0,0,0,0,15.7318,-3.42428,15.5486,-17.3179,10.6144,-1.95156,-0.000375277,0.0946106,0.0124393,0.0518851,-1.88536,0.110557,0.115466,0.0372233,0.0473654,-0.00444878,0.183425,-0.15484,0.287838,-0.24257,-0.000661659,-0.60896,-0.197148,-3.02717,3.45415,-2.07083,10.5695,-0.144628,-2.4284,-36.2679,-2.61351,27.8238,1.11847,2.24389,0.0843355,
0.0967474,0.0119624,0.0490806,-1.88606,0.124596,0.117125,0.0372166,0.124878,-0.0149599,0.123114,-0.196493,0.844437,-0.282188,0.000245707,0,0,0,0,0,0,0,15.3068,-3.40622,15.1283,-17.062,10.6144,-1.10992,0.00942855,0.0946106,0.0124393,0.0518851,-1.88536,0.110557,0.115466,0.0372233,0.0473654,-0.00444878,0.183425,-0.15484,0.287838,-0.24257,-0.000661659,0,0,0,0,0,0,0,-2.4284,-36.2679,-2.61351,27.8238,1.11847,2.24389,0.0843355,
0.0977732,0.0118353,0.0500934,-1.8876,0.132158,0.116195,0.0372416,0.125547,-0.0151459,0.123811,-0.195616,0.86458,-0.248994,0.000823514,0,0,0,0,0,0,0,14.8974,-3.34953,14.7235,-16.8074,10.6144,-0.387397,0.0195113,0.0946106,0.0124393,0.0518851,-1.88536,0.110557,0.115466,0.0372233,0.0473654,-0.00444878,0.183425,-0.15484,0.287838,-0.24257,-0.000661659,0,0,0,0,0,0,0,-2.4284,-36.2679,-2.61351,27.8238,1.11847,2.24389,0.0843355,
0.096375,0.012143,0.0536284,-1.88833,0.120679,0.112396,0.037211,0.122632,-0.0160884,0.120863,-0.194257,0.834494,-0.234108,0.000706926,0,0,0,0,0,0,0,15.7318,-3.42428,15.5486,-17.3179,10.6144,-1.95156,-0.000375277,0.0946106,0.0124393,0.0518851,-1.88536,0.110557,0.115466,0.0372233,0.0473654,-0.00444878,0.183425,-0.15484,0.287838,-0.24257,-0.000661659,0,0,0,0,0,0,0,-2.4284,-36.2679,-2.61351,27.8238,1.11847,2.24389,0.0843355,
0.0972882,0.011982,0.054528,-1.88985,0.127231,0.111341,0.0372251,0.120937,-0.0168959,0.119179,-0.19325,0.831404,-0.213664,0.000916009,0,0,0,0,0,0,0,15.3013,-3.51179,15.1202,-16.9955,10.5707,-1.05676,0.00900707,0.0958041,0.0123104,0.0585705,-1.89097,0.120623,0.110142,0.0372262,0.0180379,-0.00370858,0.199312,-0.16655,0.288508,-0.112134,0.000892734,-3.66593,0.0925258,1.98583,-1.46369,0.0837694,16.3044,0.194299,0.25745,-34.5976,0.0644055,26.5543,1.54602,1.91887,0.0577852,
0.0982314,0.0118238,0.0554582,-1.89135,0.134337,0.110669,0.0372497,0.12033,-0.0174718,0.1186,-0.19213,0.842762,-0.187717,0.00134974,0,0,0,0,0,0,0,14.8919,-3.45509,14.7154,-16.741,10.5707,-0.334241,0.0190898,0.0958041,0.0123104,0.0585705,-1.89097,0.120623,0.110142,0.0372262,0.0180379,-0.00370858,0.199312,-0.16655,0.288508,-0.112134,0.000892734,0,0,0,0,0,0,0,0.25745,-34.5976,0.0644055,26.5543,1.54602,1.91887,0.0577852,
0.0992005,0.0116701,0.0564149,-1.89283,0.141816,0.110389,0.0372813,0.120491,-0.0178203,0.118797,-0.19071,0.861184,-0.157183,0.00186833,0,0,0,0,0,0,0,14.4824,-3.36719,14.311,-16.4911,10.5707,0.29885,0.0304446,0.0958041,0.0123104,0.0585705,-1.89097,0.120623,0.110142,0.0372262,0.0180379,-0.00370858,0.199312,-0.16655,0.288508,-0.112134,0.000892734,0,0,0,0,0,0,0,0.25745,-34.5976,0.0644055,26.5543,1.54602,1.91887,0.0577852,
0.0974755,0.0120677,0.0602257,-1.89393,0.130657,0.108717,0.0372311,0.117504,-0.0175903,0.115778,-0.18989,0.830512,-0.14134,0.00174804,0,0,0,0,0,0,0,15.3013,-3.51179,15.1202,-16.9955,10.5707,-1.05676,0.00900707,0.0958041,0.0123104,0.0585705,-1.89097,0.120623,0.110142,0.0372262,0.0180379,-0.00370858,0.199312,-0.16655,0.288508,-0.112134,0.000892734,0,0,0,0,0,0,0,0.25745,-34.5976,0.0644055,26.5543,1.54602,1.91887,0.0577852,
0.0983481,0.011926,0.0610848,-1.89542,0.137157,0.108356,0.037254,0.115817,-0.0176147,0.1141,-0.189079,0.82691,-0.12211,0.00196991,0,0,0,0,0,0,0,14.888,-3.53267,14.7087,-16.7003,10.5247,-0.29601,0.0187983,0.0963708,0.0122454,0.0652516,-1.89646,0.131724,0.108142,0.0372278,0.0112316,-0.00162615,0.196973,-0.153174,0.328987,-0.023575,0.00103982,-0.850792,0.260303,-0.292347,1.67197,5.05978,11.0699,0.018386,1.37622,-34.8714,1.08797,26.4551,1.77215,1.74035,0.0440523,
0.0992515,0.0117819,0.0619756,-1.89689,0.144214,0.108301,0.0372848,0.115238,-0.0176932,0.11355,-0.18798,0.837942,-0.0990683,0.0023463,0,0,0,0,0,0,0,14.4786,-3.44477,14.3043,-16.4504,10.5247,0.337081,0.0301531,0.0963708,0.0122454,0.0652516,-1.89646,0.131724,0.108142,0.0372278,0.0112316,-0.00162615,0.196973,-0.153174,0.328987,-0.023575,0.00103982,0,0,0,0,0,0,0,1.37622,-34.8714,1.08797,26.4551,1.77215,1.74035,0.0440523,
0.100181,0.0116384,0.0628937,-1.89834,0.151648,0.108569,0.0373227,0.11543,-0.0177414,0.113792,-0.186516,0.856213,-0.0725514,0.00282584,0,0,0,0,0,0,0,14.0365,-3.32646,13.8693,-16.2052,10.5247,0.866855,0.0382047,0.0963708,0.0122454,0.0652516,-1.89646,0.131724,0.108142,0.0372278,0.0112316,-0.00162615,0.196973,-0.153174,0.328987,-0.023575,0.00103982,0,0,0,0,0,0,0,1.37622,-34.8714,1.08797,26.4551,1.77215,1.74035,0.0440523,
0.0979885,0.0119854,0.0668547,-1.89931,0.142079,0.108105,0.0372503,0.112836,-0.0177926,0.111166,-0.185322,0.829546,-0.0568522,0.00274544,0,0,0,0,0,0,0,14.888,-3.53267,14.7087,-16.7003,10.5247,-0.29601,0.0187983,0.0963708,0.0122454,0.0652516,-1.89646,0.131724,0.108142,0.0372278,0.0112316,-0.00162615,0.196973,-0.153174,0.328987,-0.023575,0.00103982,0,0,0,0,0,0,0,1.37622,-34.8714,1.08797,26.4551,1.77215,1.74035,0.0440523,
0.0988368,0.0118337,0.0676899,-1.90075,0.14865,0.108351,0.0372795,0.111475,-0.0180258,0.109813,-0.184249,0.827917,-0.0393479,0.00292667,0,0,0,0,0,0,0,14.4786,-3.44477,14.3043,-16.4504,10.5247,0.337081,0.0301531,0.0963708,0.0122454,0.0652516,-1.89646,0.131724,0.108142,0.0372278,0.0112316,-0.00162615,0.196973,-0.153174,0.328987,-0.023575,0.00103982,0,0,0,0,0,0,0,1.37622,-34.8714,1.08797,26.4551,1.77215,1.74035,0.0440523,
0.0997147,0.0116811,0.0685561,-1.90218,0.155747,0.10884,0.0373168,0.111129,-0.0182356,0.109507,-0.182973,0.83976,-0.0192458,0.00327372,0,0,0,0,0,0,0,14.0354,-3.37798,13.8647,-16.1729,10.484,0.898667,0.0380559,0.0969508,0.0123913,0.0721294,-1.90166,0.142813,0.108071,0.0372255,0.0153577,0.00677828,0.20312,-0.14709,0.317088,0.00427823,0.000645473,0.51576,1.05055,0.768349,0.760478,-1.48736,3.48165,-0.0492936,0.0551182,-36.1449,-0.137926,26.5543,1.72363,1.48858,0.0641939,
0.098599,0.0121969,0.0737621,-1.90452,0.153113,0.108746,0.0372599,0.109605,-0.0174626,0.107938,-0.182516,0.815977,-0.00500897,0.00323362,0,0,0,0,0,0,0,14.4775,-3.49628,14.2997,-16.4182,10.484,0.368894,0.0300043,0.0969508,0.0123913,0.0721294,-1.90166,0.142813,0.108071,0.0372255,0.0153577,0.00677828,0.20312,-0.14709,0.317088,0.00427823,0.000645473,0,0,0,0,0,0,0,0.0551182,-36.1449,-0.137926,26.5543,1.72363,1.48858,0.0641939,
0.0994452,0.0120707,0.0745955,-1.90595,0.159677,0.109356,0.037295,0.108839,-0.0171264,0.107187,-0.181869,0.816882,0.0112505,0.00346311,0,0,0,0,0,0,0,14.0354,-3.37798,13.8647,-16.1729,10.484,0.898667,0.0380559,0.0969508,0.0123913,0.0721294,-1.90166,0.142813,0.108071,0.0372255,0.0153577,0.00677828,0.20312,-0.14709,0.317088,0.00427823,0.000645473,0,0,0,0,0,0,0,0.0551182,-36.1449,-0.137926,26.5543,1.72363,1.48858,0.0641939,
0.100313,0.0119405,0.0754517,-1.90736,0.166771,0.110192,0.0373356,0.108768,-0.0169557,0.107154,-0.180777,0.830837,0.0298899,0.00378669,0,0,0,0,0,0,0,13.5841,-3.23323,13.4272,-15.9317,10.484,1.36137,0.0466218,0.0969508,0.0123913,0.0721294,-1.90166,0.142813,0.108071,0.0372255,0.0153577,0.00677828,0.20312,-0.14709,0.317088,0.00427823,0.000645473,0,0,0,0,0,0,0,0.0551182,-36.1449,-0.137926,26.5543,1.72363,1.48858,0.0641939,
0.1012,0.0118108,0.076326,-1.90875,0.174222,0.111262,0.0373786,0.109188,-0.0168054,0.10758,-0.179204,0.850958,0.0506645,0.00410395,0,0,0,0,0,0,0,13.1068,-3.12342,12.9547,-15.6808,10.4425,1.77802,0.0516956,0.09734,0.0125851,0.0789167,-1.90629,0.153742,0.108102,0.0372262,0.0107061,0.00887428,0.203913,-0.123265,0.309326,0.00222479,0.000843621,-0.581445,0.262001,0.0992142,2.97809,-0.970281,-0.256681,0.0247685,1.14612,-35.4704,1.01259,26.2567,1.8399,1.38238,0.0577852,
0.098944,0.0123435,0.0805065,-1.90905,0.164011,0.109304,0.0372723,0.10747,-0.016878,0.105831,-0.178694,0.824646,0.058418,0.00405989,0,0,0,0,0,0,0,14.0319,-3.43089,13.8574,-16.1497,10.4425,0.923995,0.0379892,0.09734,0.0125851,0.0789167,-1.90629,0.153742,0.108102,0.0372262,0.0107061,0.00887428,0.203913,-0.123265,0.309326,0.00222479,0.000843621,0,0,0,0,0,0,0,1.14612,-35.4704,1.01259,26.2567,1.8399,1.38238,0.0577852,
0.0997647,0.0122029,0.0813147,-1.91046,0.170565,0.110229,0.0373112,0.106493,-0.0170191,0.10487,-0.178101,0.823547,0.0698748,0.00422227,0,0,0,0,0,0,0,13.5806,-3.28615,13.4199,-15.9085,10.4425,1.3867,0.0465551,0.09734,0.0125851,0.0789167,-1.90629,0.153742,0.108102,0.0372262,0.0107061,0.00887428,0.203913,-0.123265,0.309326,0.00222479,0.000843621,0,0,0,0,0,0,0,1.14612,-35.4704,1.01259,26.2567,1.8399,1.38238,0.0577852,
0.100606,0.0120661,0.0821427,-1.91184,0.177646,0.111371,0.0373536,0.10622,-0.0170352,0.104594,-0.177008,0.835867,0.0844366,0.00443652,0,0,0,0,0,0,0,13.1068,-3.12342,12.9547,-15.6808,10.4425,1.77802,0.0516956,0.09734,0.0125851,0.0789167,-1.90629,0.153742,0.108102,0.0372262,0.0107061,0.00887428,0.203913,-0.123265,0.309326,0.00222479,0.000843621,0,0,0,0,0,0,0,1.14612,-35.4704,1.01259,26.2567,1.8399,1.38238,0.0577852,
0.101465,0.0119364,0.0829874,-1.91319,0.185082,0.112723,0.0373974,0.106447,-0.016869,0.104793,-0.17535,0.85461,0.101365,0.00464367,0,0,0,0,0,0,0,12.6417,-2.96185,12.4722,-15.4209,10.4041,2.13185,0.05399,0.0977672,0.0128878,0.0856725,-1.91022,0.164101,0.108188,0.0372255,0.0116153,0.010495,0.198961,-0.11311,0.307857,0.00418797,0.000403633,0.113647,0.202595,-0.619016,1.26944,-0.183587,0.245398,-0.0549986,1.63013,-33.8478,1.36171,24.6619,1.97998,1.09032,0.0641939,
0.0993302,0.0126417,0.0872216,-1.91295,0.174368,0.109792,0.0372815,0.10473,-0.0169499,0.10306,-0.175256,0.827517,0.104689,0.00459082,0,0,0,0,0,0,0,13.579,-3.33078,13.4141,-15.8889,10.4041,1.40972,0.0464766,0.0977672,0.0128878,0.0856725,-1.91022,0.164101,0.108188,0.0372255,0.0116153,0.010495,0.198961,-0.11311,0.307857,0.00418797,0.000403633,0,0,0,0,0,0,0,1.63013,-33.8478,1.36171,24.6619,1.97998,1.09032,0.0641939,
0.100127,0.0125058,0.0880048,-1.91434,0.180915,0.11096,0.0373222,0.103713,-0.0169581,0.102027,-0.174915,0.825688,0.112957,0.00469128,0,0,0,0,0,0,0,13.1052,-3.16805,12.9488,-15.6612,10.4041,1.80104,0.0516171,0.0977672,0.0128878,0.0856725,-1.91022,0.164101,0.108188,0.0372255,0.0116153,0.010495,0.198961,-0.11311,0.307857,0.00418797,0.000403633,0,0,0,0,0,0,0,1.63013,-33.8478,1.36171,24.6619,1.97998,1.09032,0.0641939,
0.100943,0.0123788,0.088806,-1.91569,0.187985,0.112337,0.0373654,0.103366,-0.0167425,0.101652,-0.173883,0.837304,0.124791,0.00483272,0,0,0,0,0,0,0,12.6417,-2.96185,12.4722,-15.4209,10.4041,2.13185,0.05399,0.0977672,0.0128878,0.0856725,-1.91022,0.164101,0.108188,0.0372255,0.0116153,0.010495,0.198961,-0.11311,0.307857,0.00418797,0.000403633,0,0,0,0,0,0,0,1.63013,-33.8478,1.36171,24.6619,1.97998,1.09032,0.0641939,
0.0998755,0.0128176,0.0938186,-1.91694,0.184278,0.110368,0.0372858,0.102219,-0.0163674,0.100451,-0.174285,0.81206,0.127274,0.00476899,0,0,0,0,0,0,0,13.1055,-3.21491,12.9455,-15.6391,10.3689,1.82433,0.0515333,0.0983049,0.0130337,0.0922656,-1.91418,0.174178,0.108486,0.0372259,0.0217384,0.00915921,0.19478,-0.120948,0.286831,0.0146864,0.000483121,1.26539,-0.16698,-0.522625,-0.979765,-2.62824,1.31231,0.00993609,0.919986,-34.1454,0.838026,25.011,1.96808,1.20293,0.0577852,
0.100663,0.0127051,0.0945902,-1.91832,0.190782,0.111701,0.0373269,0.101461,-0.0159057,0.0996521,-0.174034,0.812243,0.135144,0.00484332,0,0,0,0,0,0,0,12.642,-3.00871,12.4688,-15.3988,10.3689,2.15515,0.0539062,0.0983049,0.0130337,0.0922656,-1.91418,0.174178,0.108486,0.0372259,0.0217384,0.00915921,0.19478,-0.120948,0.286831,0.0146864,0.000483121,0,0,0,0,0,0,0,0.919986,-34.1454,0.838026,25.011,1.96808,1.20293,0.0577852,
0.101463,0.0126025,0.0953755,-1.91967,0.19782,0.113243,0.037371,0.101183,-0.0152905,0.0993528,-0.172878,0.825739,0.146682,0.00497659,0,0,0,0,0,0,0,12.209,-2.76188,12.0229,-15.1303,10.3689,2.42512,0.0551463,0.0983049,0.0130337,0.0922656,-1.91418,0.174178,0.108486,0.0372259,0.0217384,0.00915921,0.19478,-0.120948,0.286831,0.0146864,0.000483121,0,0,0,0,0,0,0,0.919986,-34.1454,0.838026,25.011,1.96808,1.20293,0.0577852,
0.102297,0.0125068,0.0961951,-1.92096,0.204846,0.11497,0.0374202,0.101776,-0.014623,0.0999715,-0.170569,0.836253,0.160509,0.00521047,0,0,0,0,0,0,0,11.811,-2.51362,11.6231,-14.8464,10.3689,2.6509,0.0568521,0.0983049,0.0130337,0.0922656,-1.91418,0.174178,0.108486,0.0372259,0.0217384,0.00915921,0.19478,-0.120948,0.286831,0.0146864,0.000483121,0,0,0,0,0,0,0,0.919986,-34.1454,0.838026,25.011,1.96808,1.20293,0.0577852,
0.0998547,0.0128398,0.093795,-1.91693,0.184309,0.110558,0.0372879,0.100614,-0.0143055,0.0987406,-0.171411,0.811656,0.158655,0.00508936,0,0,0,0,0,0,0,12.643,-3.05471,12.4658,-15.3768,10.336,2.17831,0.0538238,0.099045,0.0132559,0.0988939,-1.91829,0.18384,0.109068,0.0372262,0.0236632,0.00511182,0.198939,-0.129605,0.271038,0.0208457,0.000790785,0.240598,-0.505924,0.519831,-1.08211,-1.97407,0.769915,0.0384579,0.816837,-33.7962,0.639662,24.9594,2.06512,1.16997,0.0577852,
0.100625,0.0127459,0.0945488,-1.9183,0.19083,0.112017,0.0373302,0.0997377,-0.0137918,0.0978362,-0.171362,0.812339,0.163414,0.00512802,0,0,0,0,0,0,0,12.21,-2.80788,12.0198,-15.1083,10.336,2.44828,0.0550639,0.099045,0.0132559,0.0988939,-1.91829,0.18384,0.109068,0.0372262,0.0236632,0.00511182,0.198939,-0.129605,0.271038,0.0208457,0.000790785,0,0,0,0,0,0,0,0.816837,-33.7962,0.639662,24.9594,2.06512,1.16997,0.0577852,
0.101424,0.0126614,0.0953348,-1.91961,0.197515,0.113682,0.0373786,0.099789,-0.0131437,0.0979197,-0.16989,0.816997,0.172354,0.00531326,0,0,0,0,0,0,0,11.812,-2.55962,11.6201,-14.8244,10.336,2.67406,0.0567696,0.099045,0.0132559,0.0988939,-1.91829,0.18384,0.109068,0.0372262,0.0236632,0.00511182,0.198939,-0.129605,0.271038,0.0208457,0.000790785,0,0,0,0,0,0,0,0.816837,-33.7962,0.639662,24.9594,2.06512,1.16997,0.0577852,
0.102262,0.0125791,0.0961592,-1.92087,0.203988,0.115524,0.0374291,0.100762,-0.0125747,0.098945,-0.167289,0.815438,0.183939,0.00551306,0,0,0,0,0,0,0,11.4488,-2.33751,11.2603,-14.5386,9.04758,2.85664,0.0585708,0.099045,0.0132559,0.0988939,-1.91829,0.18384,0.109068,0.0372262,0.0236632,0.00511182,0.198939,-0.129605,0.271038,0.0208457,0.000790785,0,0,0,0,0,0,0,0.816837,-33.7962,0.639662,24.9594,2.06512,1.16997,0.0577852,
0.100607,0.0130764,0.100433,-1.92106,0.193843,0.111285,0.0372891,0.0998301,-0.0123374,0.0979202,-0.168752,0.793775,0.17952,0.00534725,0,0,0,0,0,0,0,12.2042,-2.86841,12.0104,-15.0955,10.302,2.46255,0.0550877,0.0997376,0.0134241,0.105011,-1.92229,0.192654,0.109445,0.0372201,0.0246438,0.00857484,0.163479,-0.103773,0.221241,0.0037327,0.000155919,0.122577,0.432878,-4.43253,3.22891,-6.22471,-2.13913,-0.0793582,-2.6585,-35.7442,-2.66112,27.3279,1.61377,1.88592,0.0843355,
0.101391,0.0129983,0.101201,-1.9224,0.199964,0.112838,0.0373353,0.0994475,-0.011822,0.0975375,-0.168599,0.788041,0.182453,0.00543313,0,0,0,0,0,0,0,11.8061,-2.62015,11.6106,-14.8116,10.302,2.68833,0.0567935,0.0997376,0.0134241,0.105011,-1.92229,0.192654,0.109445,0.0372201,0.0246438,0.00857484,0.163479,-0.103773,0.221241,0.0037327,0.000155919,0,0,0,0,0,0,0,-2.6585,-35.7442,-2.66112,27.3279,1.61377,1.88592,0.0843355,
0.102205,0.0129258,0.102002,-1.92369,0.20606,0.114602,0.0373848,0.0999248,-0.0112704,0.0980554,-0.166931,0.782844,0.190048,0.00558281,0,0,0,0,0,0,0,11.443,-2.39803,11.2508,-14.5259,9.01359,2.87091,0.0585946,0.0997376,0.0134241,0.105011,-1.92229,0.192654,0.109445,0.0372201,0.0246438,0.00857484,0.163479,-0.103773,0.221241,0.0037327,0.000155919,0,0,0,0,0,0,0,-2.6585,-35.7442,-2.66112,27.3279,1.61377,1.88592,0.0843355,
0.101106,0.0132175,0.106355,-1.92493,0.201795,0.111876,0.0372899,0.0971884,-0.0116312,0.095286,-0.167056,0.753131,0.187746,0.00553984,0,0,0,0,0,0,0,11.8061,-2.62015,11.6106,-14.8116,10.302,2.68833,0.0567935,0.0997376,0.0134241,0.105011,-1.92229,0.192654,0.109445,0.0372201,0.0246438,0.00857484,0.163479,-0.103773,0.221241,0.0037327,0.000155919,0,0,0,0,0,0,0,-2.6585,-35.7442,-2.66112,27.3279,1.61377,1.88592,0.0843355,
0.101832,0.0131279,0.107066,-1.92623,0.207179,0.113576,0.0373385,0.0958939,-0.0115439,0.0940192,-0.166022,0.737119,0.192691,0.00564604,0,0,0,0,0,0,0,11.442,-2.44409,11.2459,-14.5092,8.98602,2.88978,0.0585398,0.100336,0.0136743,0.110814,-1.92567,0.200421,0.109571,0.0372217,0.0133113,0.00609977,0.16564,-0.0979387,0.210767,-0.000562337,-0.000425772,-1.41656,-0.309384,0.270219,0.729344,-1.30917,-0.536879,-0.0727113,-0.274166,-34.3715,-0.213304,26.4551,1.97357,1.85296,0.0980684,
0.1026,0.013046,0.107822,-1.92747,0.212485,0.115478,0.0373887,0.0959193,-0.011282,0.0940951,-0.163792,0.722347,0.201719,0.00577135,0,0,0,0,0,0,0,11.1098,-2.2609,10.9178,-14.2354,7.79935,3.0195,0.0584891,0.100336,0.0136743,0.110814,-1.92567,0.200421,0.109571,0.0372217,0.0133113,0.00609977,0.16564,-0.0979387,0.210767,-0.000562337,-0.000425772,0,0,0,0,0,0,0,-0.274166,-34.3715,-0.213304,26.4551,1.97357,1.85296,0.0980684,
0.103407,0.0129641,0.108617,-1.92865,0.217494,0.117539,0.0374396,0.0969189,-0.0110732,0.0951485,-0.160711,0.703083,0.212895,0.00588886,0,0,0,0,0,0,0,10.8288,-2.10934,10.6415,-13.9696,6.74822,3.10668,0.0579276,0.100336,0.0136743,0.110814,-1.92567,0.200421,0.109571,0.0372217,0.0133113,0.00609977,0.16564,-0.0979387,0.210767,-0.000562337,-0.000425772,0,0,0,0,0,0,0,-0.274166,-34.3715,-0.213304,26.4551,1.97357,1.85296,0.0980684,
0.101683,0.0134419,0.11214,-1.92823,0.208527,0.112111,0.0372973,0.0946297,-0.0117521,0.0928221,-0.161079,0.674074,0.207812,0.00582293,0,0,0,0,0,0,0,11.442,-2.44409,11.2459,-14.5092,8.98602,2.88978,0.0585398,0.100336,0.0136743,0.110814,-1.92567,0.200421,0.109571,0.0372217,0.0133113,0.00609977,0.16564,-0.0979387,0.210767,-0.000562337,-0.000425772,0,0,0,0,0,0,0,-0.274166,-34.3715,-0.213304,26.4551,1.97357,1.85296,0.0980684,
0.102404,0.0133438,0.112846,-1.92949,0.213222,0.113892,0.037346,0.0937159,-0.0118552,0.0919227,-0.160329,0.656633,0.210775,0.0058742,0,0,0,0,0,0,0,11.1098,-2.2609,10.9178,-14.2354,7.79935,3.0195,0.0584891,0.100336,0.0136743,0.110814,-1.92567,0.200421,0.109571,0.0372217,0.0133113,0.00609977,0.16564,-0.0979387,0.210767,-0.000562337,-0.000425772,0,0,0,0,0,0,0,-0.274166,-34.3715,-0.213304,26.4551,1.97357,1.85296,0.0980684,
0.103165,0.0132553,0.113595,-1.93069,0.217814,0.115875,0.0373963,0.094,-0.0116971,0.0922427,-0.158409,0.640125,0.218192,0.0059578,0,0,0,0,0,0,0,10.8269,-2.14666,10.6345,-13.9538,6.72187,3.12569,0.0578527,0.100778,0.0141406,0.116355,-1.92873,0.207641,0.109619,0.0372193,0.00788074,0.0154828,0.159748,-0.0860404,0.21634,0.00391146,-0.0010014,-0.678822,1.17288,-0.73654,1.48728,0.696535,0.559225,-0.0719541,1.01917,-33.8716,0.937208,25.0348,1.97357,1.44829,0.110886,
0.103962,0.0131682,0.11438,-1.93185,0.22212,0.118008,0.0374475,0.0951386,-0.0115336,0.0934223,-0.155645,0.619734,0.227876,0.00604487,0,0,0,0,0,0,0,10.5993,-2.02218,10.4117,-13.6942,5.77256,3.18856,0.0580152,0.100778,0.0141406,0.116355,-1.92873,0.207641,0.109619,0.0372193,0.00788074,0.0154828,0.159748,-0.0860404,0.21634,0.00391146,-0.0010014,0,0,0,0,0,0,0,1.01917,-33.8716,0.937208,25.0348,1.97357,1.44829,0.110886,
0.102091,0.0139662,0.117649,-1.9312,0.214935,0.112366,0.0372983,0.0929173,-0.0115929,0.0911698,-0.156113,0.594857,0.222478,0.00597228,0,0,0,0,0,0,0,11.1079,-2.29822,10.9108,-14.2196,7.773,3.03852,0.0584142,0.100778,0.0141406,0.116355,-1.92873,0.207641,0.109619,0.0372193,0.00788074,0.0154828,0.159748,-0.0860404,0.21634,0.00391146,-0.0010014,0,0,0,0,0,0,0,1.01917,-33.8716,0.937208,25.0348,1.97357,1.44829,0.110886,
0.102804,0.0138811,0.118348,-1.93243,0.219035,0.114246,0.0373477,0.0921393,-0.0114031,0.0904006,-0.155573,0.578382,0.224978,0.00601137,0,0,0,0,0,0,0,10.8269,-2.14666,10.6345,-13.9538,6.72187,3.12569,0.0578527,0.100778,0.0141406,0.116355,-1.92873,0.207641,0.109619,0.0372193,0.00788074,0.0154828,0.159748,-0.0860404,0.21634,0.00391146,-0.0010014,0,0,0,0,0,0,0,1.01917,-33.8716,0.937208,25.0348,1.97357,1.44829,0.110886,
0.103556,0.0138009,0.119088,-1.93361,0.222999,0.116313,0.0373986,0.0925267,-0.0111283,0.0908145,-0.153891,0.56182,0.231664,0.00608193,0,0,0,0,0,0,0,10.5975,-2.05571,10.4044,-13.6709,5.75176,3.20919,0.0579748,0.10131,0.0146835,0.121908,-1.93155,0.213893,0.109626,0.037224,0.0270562,0.0139834,0.161353,-0.0749425,0.161765,0.00206296,-0.000314658,2.39693,-0.187421,0.200602,1.38723,-6.82186,-0.231063,0.0858434,-0.29797,-34.0224,-0.312487,25.134,1.76025,1.38878,0.0779268,
0.102738,0.0144689,0.123314,-1.93393,0.220071,0.112462,0.0373005,0.0920419,-0.0117473,0.0902797,-0.153719,0.533958,0.226772,0.00597701,0,0,0,0,0,0,0,10.8251,-2.18019,10.6271,-13.9305,6.70107,3.14632,0.0578124,0.10131,0.0146835,0.121908,-1.93155,0.213893,0.109626,0.037224,0.0270562,0.0139834,0.161353,-0.0749425,0.161765,0.00206296,-0.000314658,0,0,0,0,0,0,0,-0.29797,-34.0224,-0.312487,25.134,1.76025,1.38878,0.0779268,
0.103484,0.0143682,0.124046,-1.93512,0.223574,0.114391,0.0373493,0.0922993,-0.0119166,0.090534,-0.152796,0.514759,0.229646,0.00600122,0,0,0,0,0,0,0,10.5975,-2.05571,10.4044,-13.6709,5.75176,3.20919,0.0579748,0.10131,0.0146835,0.121908,-1.93155,0.213893,0.109626,0.037224,0.0270562,0.0139834,0.161353,-0.0749425,0.161765,0.00206296,-0.000314658,0,0,0,0,0,0,0,-0.29797,-34.0224,-0.312487,25.134,1.76025,1.38878,0.0779268,
0.10426,0.0142755,0.124808,-1.93627,0.226952,0.116502,0.0374003,0.0932262,-0.01185,0.0914804,-0.150898,0.496234,0.236499,0.00607689,0,0,0,0,0,0,0,10.4138,-1.95503,10.2257,-13.4166,4.89945,3.24782,0.0585486,0.10131,0.0146835,0.121908,-1.93155,0.213893,0.109626,0.037224,0.0270562,0.0139834,0.161353,-0.0749425,0.161765,0.00206296,-0.000314658,0,0,0,0,0,0,0,-0.29797,-34.0224,-0.312487,25.134,1.76025,1.38878,0.0779268,
0.105061,0.0141839,0.125597,-1.93737,0.230068,0.118741,0.0374528,0.0946079,-0.0117692,0.0928901,-0.148279,0.474892,0.245164,0.00617258,0,0,0,0,0,0,0,10.2635,-1.9081,10.0747,-13.1512,4.1168,3.28579,0.0598039,0.10206,0.0152719,0.127373,-1.93407,0.218209,0.109652,0.0372256,0.0240325,0.0207101,0.158809,-0.0732535,0.0932064,0.00492751,0.00121488,-0.377966,0.840835,-0.317959,0.21113,-8.5698,0.358069,0.191192,0.614505,-33.7724,0.611891,24.9356,1.94336,1.27617,0.050461,
0.103455,0.0151247,0.128747,-1.93643,0.223103,0.112555,0.0373041,0.093328,-0.0115389,0.0915614,-0.148945,0.448053,0.23841,0.00606754,0,0,0,0,0,0,0,10.5962,-2.08874,10.3972,-13.6549,5.73695,3.22324,0.0579462,0.10206,0.0152719,0.127373,-1.93407,0.218209,0.109652,0.0372256,0.0240325,0.0207101,0.158809,-0.0732535,0.0932064,0.00492751,0.00121488,0,0,0,0,0,0,0,0.614505,-33.7724,0.611891,24.9356,1.94336,1.27617,0.050461,
0.104187,0.015046,0.129464,-1.93761,0.22596,0.114514,0.0373539,0.0929512,-0.0111985,0.09118,-0.148669,0.429873,0.239703,0.00609935,0,0,0,0,0,0,0,10.4125,-1.98806,10.2186,-13.4006,4.88464,3.26188,0.05852,0.10206,0.0152719,0.127373,-1.93407,0.218209,0.109652,0.0372256,0.0240325,0.0207101,0.158809,-0.0732535,0.0932064,0.00492751,0.00121488,0,0,0,0,0,0,0,0.614505,-33.7724,0.611891,24.9356,1.94336,1.27617,0.050461,
0.104946,0.0149704,0.13021,-1.93874,0.22872,0.116649,0.037406,0.0933519,-0.0108482,0.091598,-0.147268,0.412903,0.24513,0.00618144,0,0,0,0,0,0,0,10.2635,-1.9081,10.0747,-13.1512,4.1168,3.28579,0.0598039,0.10206,0.0152719,0.127373,-1.93407,0.218209,0.109652,0.0372256,0.0240325,0.0207101,0.158809,-0.0732535,0.0932064,0.00492751,0.00121488,0,0,0,0,0,0,0,0.614505,-33.7724,0.611891,24.9356,1.94336,1.27617,0.050461,
0.105731,0.0148922,0.130981,-1.93983,0.23126,0.118904,0.0374596,0.0942911,-0.0106334,0.0925626,-0.145034,0.393822,0.25249,0.00628741,0,0,0,0,0,0,0,10.1387,-1.87559,9.94925,-12.8901,3.4285,3.30559,0.0612355,0.103097,0.0158913,0.132527,-1.93641,0.220154,0.109682,0.0372261,0.0339363,0.0195695,0.147353,-0.0705153,0.0338717,-0.000618118,0.000505381,1.23798,-0.142576,-1.43198,0.342274,-7.41684,-0.693203,-0.0886876,1.01917,-33.6971,0.937208,25.134,1.83349,1.34209,0.0577852,
0.104487,0.015736,0.133893,-1.93872,0.223934,0.112566,0.0373064,0.0929835,-0.0107052,0.0912059,-0.14578,0.369008,0.244225,0.00618735,0,0,0,0,0,0,0,10.4127,-2.01772,10.2129,-13.3842,4.87908,3.27434,0.0584812,0.103097,0.0158913,0.132527,-1.93641,0.220154,0.109682,0.0372261,0.0339363,0.0195695,0.147353,-0.0705153,0.0338717,-0.000618118,0.000505381,0,0,0,0,0,0,0,1.01917,-33.6971,0.937208,25.134,1.83349,1.34209,0.0577852,
0.105213,0.0156556,0.134604,-1.93988,0.226233,0.114529,0.0373572,0.0925369,-0.0105741,0.0907532,-0.145598,0.352688,0.244463,0.0062213,0,0,0,0,0,0,0,10.2638,-1.93777,10.069,-13.1349,4.11124,3.29825,0.0597651,0.103097,0.0158913,0.132527,-1.93641,0.220154,0.109682,0.0372261,0.0339363,0.0195695,0.147353,-0.0705153,0.0338717,-0.000618118,0.000505381,0,0,0,0,0,0,0,1.01917,-33.6971,0.937208,25.134,1.83349,1.34209,0.0577852,
0.105964,0.0155791,0.135343,-1.941,0.228462,0.11667,0.0374105,0.0928261,-0.0103704,0.0910579,-0.144302,0.337875,0.24908,0.0063091,0,0,0,0,0,0,0,10.1387,-1.87559,9.94925,-12.8901,3.4285,3.30559,0.0612355,0.103097,0.0158913,0.132527,-1.93641,0.220154,0.109682,0.0372261,0.0339363,0.0195695,0.147353,-0.0705153,0.0338717,-0.000618118,0.000505381,0,0,0,0,0,0,0,1.01917,-33.6971,0.937208,25.134,1.83349,1.34209,0.0577852,
0.106062,0.0163988,0.138859,-1.94112,0.223391,0.112752,0.0373029,0.0925488,-0.00995718,0.0907255,-0.144873,0.313542,0.242111,0.00621868,0,0,0,0,0,0,0,10.2635,-1.96303,10.0629,-13.1148,4.11197,3.31214,0.0596999,0.104602,0.0165036,0.137426,-1.93883,0.220428,0.109796,0.0372212,0.0479965,0.0234617,0.145491,-0.0733532,-0.00216015,0.0118717,0.000436568,1.75753,0.486527,-0.232826,-0.354731,-4.50398,1.56123,-0.00860162,-0.119442,-33.8954,-0.16173,25.3085,1.77215,1.40893,0.0641939,
0.106808,0.0163336,0.139591,-1.94226,0.225255,0.114727,0.0373545,0.0926984,-0.00959652,0.0908655,-0.14451,0.297437,0.243061,0.00626549,0,0,0,0,0,0,0,10.1385,-1.90085,9.94312,-12.87,3.42923,3.31948,0.0611703,0.104602,0.0165036,0.137426,-1.93883,0.220428,0.109796,0.0372212,0.0479965,0.0234617,0.145491,-0.0733532,-0.00216015,0.0118717,0.000436568,0,0,0,0,0,0,0,-0.119442,-33.8954,-0.16173,25.3085,1.77215,1.40893,0.0641939,
0.107573,0.0162677,0.140341,-1.94336,0.227063,0.116869,0.0374085,0.0932687,-0.00932261,0.0914494,-0.143056,0.283147,0.247999,0.00636279,0,0,0,0,0,0,0,10.0301,-1.85348,9.83995,-12.6293,2.8222,3.31668,0.0629853,0.104602,0.0165036,0.137426,-1.93883,0.220428,0.109796,0.0372212,0.0479965,0.0234617,0.145491,-0.0733532,-0.00216015,0.0118717,0.000436568,0,0,0,0,0,0,0,-0.119442,-33.8954,-0.16173,25.3085,1.77215,1.40893,0.0641939,
0.108353,0.0161967,0.141108,-1.94442,0.228714,0.119122,0.0374641,0.0941273,-0.00923356,0.0923317,-0.1408,0.267794,0.254728,0.00648062,0,0,0,0,0,0,0,9.93082,-1.81819,9.74592,-12.3923,2.29018,3.30215,0.0647279,0.104602,0.0165036,0.137426,-1.93883,0.220428,0.109796,0.0372212,0.0479965,0.0234617,0.145491,-0.0733532,-0.00216015,0.0118717,0.000436568,0,0,0,0,0,0,0,-0.119442,-33.8954,-0.16173,25.3085,1.77215,1.40893,0.0641939,
0.106079,0.0164074,0.138877,-1.94107,0.222908,0.112729,0.0373076,0.0938144,-0.00895979,0.091985,-0.141476,0.250229,0.246353,0.00640637,0,0,0,0,0,0,0,10.1411,-1.93385,9.94011,-12.8471,3.4323,3.33519,0.061087,0.106372,0.0170643,0.142164,-1.94163,0.220427,0.109997,0.0372215,0.0524825,0.0140125,0.139832,-0.0859819,0.00208626,0.00776308,0.000556001,0.560747,-1.18115,-0.707391,-1.57859,0.530801,-0.513582,0.0149292,0.233646,-34.07,0.211195,25.733,1.73553,1.52154,0.0577852,
0.106832,0.0163439,0.139616,-1.9422,0.224441,0.114692,0.0373607,0.0938874,-0.00875389,0.0920596,-0.141227,0.238523,0.246157,0.00645221,0,0,0,0,0,0,0,10.0327,-1.88648,9.83693,-12.6064,2.82526,3.33239,0.062902,0.106372,0.0170643,0.142164,-1.94163,0.220427,0.109997,0.0372215,0.0524825,0.0140125,0.139832,-0.0859819,0.00208626,0.00776308,0.000556001,0,0,0,0,0,0,0,0.233646,-34.07,0.211195,25.733,1.73553,1.52154,0.0577852,
0.1076,0.0162788,0.140371,-1.94327,0.225911,0.11682,0.0374159,0.0943177,-0.00862988,0.0925096,-0.139907,0.227548,0.250119,0.00654382,0,0,0,0,0,0,0,9.93343,-1.85118,9.74291,-12.3694,2.29325,3.31786,0.0646446,0.106372,0.0170643,0.142164,-1.94163,0.220427,0.109997,0.0372215,0.0524825,0.0140125,0.139832,-0.0859819,0.00208626,0.00776308,0.000556001,0,0,0,0,0,0,0,0.233646,-34.07,0.211195,25.733,1.73553,1.52154,0.0577852,
0.108381,0.0162081,0.141138,-1.94431,0.227235,0.119055,0.0374725,0.0949773,-0.00867162,0.0931964,-0.137795,0.21514,0.25597,0.00665009,0,0,0,0,0,0,0,9.83909,-1.82534,9.65368,-12.1356,1.82758,3.29635,0.0664369,0.106372,0.0170643,0.142164,-1.94163,0.220427,0.109997,0.0372215,0.0524825,0.0140125,0.139832,-0.0859819,0.00208626,0.00776308,0.000556001,0,0,0,0,0,0,0,0.233646,-34.07,0.211195,25.733,1.73553,1.52154,0.0577852,
0.107864,0.0169314,0.143632,-1.94386,0.222483,0.112773,0.0373139,0.0947209,-0.00880742,0.0929068,-0.138683,0.201704,0.24555,0.00659711,0,0,0,0,0,0,0,10.0317,-1.92887,9.83149,-12.5863,2.82564,3.34503,0.0628377,0.108122,0.0174466,0.146401,-1.9445,0.220407,0.110205,0.0372215,0.0427058,0.00291545,0.131854,-0.0804759,-0.00338695,0.0171276,0.000204104,-1.22209,-1.38713,-0.997201,0.688246,-0.68415,1.17056,-0.0439872,0.0828892,-34.1454,0.163588,25.3085,1.66229,1.52794,0.0577852,
0.108625,0.0168602,0.144378,-1.94497,0.223726,0.114682,0.0373686,0.0948007,-0.0088277,0.0929837,-0.138516,0.192439,0.244154,0.00664351,0,0,0,0,0,0,0,9.93238,-1.89358,9.73746,-12.3493,2.29363,3.33051,0.0645803,0.108122,0.0174466,0.146401,-1.9445,0.220407,0.110205,0.0372215,0.0427058,0.00291545,0.131854,-0.0804759,-0.00338695,0.0171276,0.000204104,0,0,0,0,0,0,0,0.0828892,-34.1454,0.163588,25.3085,1.66229,1.52794,0.0577852,
0.109398,0.0167892,0.145137,-1.94603,0.224901,0.116767,0.0374249,0.0951598,-0.008837,0.0933565,-0.13726,0.183316,0.247453,0.00672382,0,0,0,0,0,0,0,9.83805,-1.86774,9.64823,-12.1155,1.82796,3.30899,0.0663727,0.108122,0.0174466,0.146401,-1.9445,0.220407,0.110205,0.0372215,0.0427058,0.00291545,0.131854,-0.0804759,-0.00338695,0.0171276,0.000204104,0,0,0,0,0,0,0,0.0828892,-34.1454,0.163588,25.3085,1.66229,1.52794,0.0577852,
0.109532,0.0172072,0.147789,-1.94662,0.221998,0.113097,0.0373203,0.0940096,-0.0100924,0.0922005,-0.136887,0.169548,0.24013,0.0067238,0,0,0,0,0,0,0,9.93238,-1.89358,9.73746,-12.3493,2.29363,3.33051,0.0645803,0.108122,0.0174466,0.146401,-1.9445,0.220407,0.110205,0.0372215,0.0427058,0.00291545,0.131854,-0.0804759,-0.00338695,0.0171276,0.000204104,0,0,0,0,0,0,0,0.0828892,-34.1454,0.163588,25.3085,1.66229,1.52794,0.0577852,
0.110266,0.0170996,0.148509,-1.94768,0.22295,0.115054,0.0373768,0.0935651,-0.0107636,0.0917664,-0.135895,0.159456,0.241025,0.00679142,0,0,0,0,0,0,0,9.83805,-1.86774,9.64823,-12.1155,1.82796,3.30899,0.0663727,0.108122,0.0174466,0.146401,-1.9445,0.220407,0.110205,0.0372215,0.0427058,0.00291545,0.131854,-0.0804759,-0.00338695,0.0171276,0.000204104,0,0,0,0,0,0,0,0.0828892,-34.1454,0.163588,25.3085,1.66229,1.52794,0.0577852,
0.111017,0.0169997,0.149246,-1.94869,0.223838,0.117178,0.0374346,0.0936114,-0.0111076,0.0918319,-0.134141,0.149759,0.245918,0.0068772,0,0,0,0,0,0,0,9.74245,-1.88782,9.5535,-11.8672,1.42781,3.29138,0.06789,0.109316,0.0177849,0.150815,-1.94726,0.220349,0.110669,0.0372215,0.0286479,0.012903,0.127657,-0.0730578,0.00109301,0.00628135,0.000359771,-1.75724,1.24844,-0.52459,0.927269,0.559994,-1.35578,0.0194584,0.360599,-33.7724,0.536512,24.9832,1.74743,1.5545,0.0577852,
0.111779,0.0169013,0.149995,-1.94967,0.224611,0.119405,0.037493,0.0939369,-0.0113465,0.0921803,-0.131828,0.139142,0.252424,0.00696241,0,0,0,0,0,0,0,9.64676,-1.87431,9.46278,-11.6385,1.08253,3.25736,0.0693482,0.109316,0.0177849,0.150815,-1.94726,0.220349,0.110669,0.0372215,0.0286479,0.012903,0.127657,-0.0730578,0.00109301,0.00628135,0.000359771,0,0,0,0,0,0,0,0.360599,-33.7724,0.536512,24.9832,1.74743,1.5545,0.0577852,
0.110639,0.0176176,0.152119,-1.94934,0.221606,0.113513,0.0373263,0.0921267,-0.0114016,0.0903778,-0.132139,0.128985,0.243674,0.00697914,0,0,0,0,0,0,0,9.83654,-1.90647,9.64244,-12.0982,1.82936,3.32092,0.0663163,0.109316,0.0177849,0.150815,-1.94726,0.220349,0.110669,0.0372215,0.0286479,0.012903,0.127657,-0.0730578,0.00109301,0.00628135,0.000359771,0,0,0,0,0,0,0,0.360599,-33.7724,0.536512,24.9832,1.74743,1.5545,0.0577852,
0.111345,0.0175288,0.152811,-1.95038,0.222315,0.115455,0.0373847,0.0913637,-0.0113416,0.0896253,-0.131739,0.120928,0.243485,0.00704303,0,0,0,0,0,0,0,9.74245,-1.88782,9.5535,-11.8672,1.42781,3.29138,0.06789,0.109316,0.0177849,0.150815,-1.94726,0.220349,0.110669,0.0372215,0.0286479,0.012903,0.127657,-0.0730578,0.00109301,0.00628135,0.000359771,0,0,0,0,0,0,0,0.360599,-33.7724,0.536512,24.9832,1.74743,1.5545,0.0577852,
0.112073,0.0174419,0.153525,-1.95138,0.222956,0.117562,0.0374437,0.0912728,-0.0112453,0.0895476,-0.130465,0.112761,0.247465,0.00711038,0,0,0,0,0,0,0,9.64694,-1.91451,9.45861,-11.6191,1.0841,3.27093,0.069282,0.109746,0.0180908,0.155547,-1.94986,0.220344,0.110774,0.0372136,0.00694541,0.0170189,0.145126,-0.073348,-0.000608628,0.00314071,-0.00116425,-2.71281,0.514489,2.18358,-0.0362762,-0.212704,-0.39258,-0.190503,1.55078,-33.3995,1.66322,24.6381,1.79687,1.35583,0.0843355,
0.112814,0.0173526,0.154254,-1.95235,0.223495,0.11977,0.037503,0.0915546,-0.0112282,0.0898439,-0.128532,0.103687,0.253177,0.00717098,0,0,0,0,0,0,0,9.54703,-1.90442,9.36368,-11.3923,0.791958,3.23189,0.0704434,0.109746,0.0180908,0.155547,-1.94986,0.220344,0.110774,0.0372136,0.00694541,0.0170189,0.145126,-0.073348,-0.000608628,0.00314071,-0.00116425,0,0,0,0,0,0,0,1.55078,-33.3995,1.66322,24.6381,1.79687,1.35583,0.0843355,
0.11105,0.0179657,0.156836,-1.95192,0.221293,0.113556,0.0373217,0.0900493,-0.0108741,0.0883451,-0.129194,0.0960919,0.243518,0.00718621,0,0,0,0,0,0,0,9.74264,-1.92802,9.54933,-11.8477,1.42938,3.30494,0.0678238,0.109746,0.0180908,0.155547,-1.94986,0.220344,0.110774,0.0372136,0.00694541,0.0170189,0.145126,-0.073348,-0.000608628,0.00314071,-0.00116425,0,0,0,0,0,0,0,1.55078,-33.3995,1.66322,24.6381,1.79687,1.35583,0.0843355,
0.11175,0.0178886,0.157523,-1.95295,0.221803,0.115468,0.0373812,0.0895457,-0.0106279,0.0878451,-0.129052,0.089619,0.242609,0.00723446,0,0,0,0,0,0,0,9.64694,-1.91451,9.45861,-11.6191,1.0841,3.27093,0.069282,0.109746,0.0180908,0.155547,-1.94986,0.220344,0.110774,0.0372136,0.00694541,0.0170189,0.145126,-0.073348,-0.000608628,0.00314071,-0.00116425,0,0,0,0,0,0,0,1.55078,-33.3995,1.66322,24.6381,1.79687,1.35583,0.0843355,
0.112471,0.0178095,0.15823,-1.95394,0.222245,0.117544,0.0374409,0.0896449,-0.01048,0.0879491,-0.127971,0.0827644,0.24601,0.00728038,0,0,0,0,0,0,0,9.54703,-1.90442,9.36368,-11.3923,0.791958,3.23189,0.0704434,0.109746,0.0180908,0.155547,-1.94986,0.220344,0.110774,0.0372136,0.00694541,0.0170189,0.145126,-0.073348,-0.000608628,0.00314071,-0.00116425,0,0,0,0,0,0,0,1.55078,-33.3995,1.66322,24.6381,1.79687,1.35583,0.0843355,
0.113204,0.0177253,0.15895,-1.95489,0.2226,0.119722,0.0375005,0.0900475,-0.0104875,0.0883581,-0.12618,0.0750796,0.251245,0.00731531,0,0,0,0,0,0,0,9.44246,-1.89631,9.26393,-11.1671,0.546191,3.19035,0.0713938,0.109746,0.0180908,0.155547,-1.94986,0.220344,0.110774,0.0372136,0.00694541,0.0170189,0.145126,-0.073348,-0.000608628,0.00314071,-0.00116425,0,0,0,0,0,0,0,1.55078,-33.3995,1.66322,24.6381,1.79687,1.35583,0.0843355,
0.111056,0.0179724,0.156843,-1.95189,0.221052,0.113508,0.0373247,0.0889099,-0.0102127,0.0872341,-0.126823,0.0696516,0.241302,0.0073298,0,0,0,0,0,0,0,9.64694,-1.91451,9.45861,-11.6191,1.0841,3.27093,0.069282,0.109746,0.0180908,0.155547,-1.94986,0.220344,0.110774,0.0372136,0.00694541,0.0170189,0.145126,-0.073348,-0.000608628,0.00314071,-0.00116425,0,0,0,0,0,0,0,1.55078,-33.3995,1.66322,24.6381,1.79687,1.35583,0.0843355,
0.111757,0.0178967,0.157531,-1.95289,0.221405,0.11539,0.0373849,0.0886527,-0.0100633,0.0869827,-0.126677,0.0645431,0.240088,0.00736665,0,0,0,0,0,0,0,9.54703,-1.90442,9.36368,-11.3923,0.791958,3.23189,0.0704434,0.109746,0.0180908,0.155547,-1.94986,0.220344,0.110774,0.0372136,0.00694541,0.0170189,0.145126,-0.073348,-0.000608628,0.00314071,-0.00116425,0,0,0,0,0,0,0,1.55078,-33.3995,1.66322,24.6381,1.79687,1.35583,0.0843355,
0.112475,0.0178182,0.158237,-1.95387,0.221693,0.117434,0.0374449,0.0888874,-0.0100119,0.0872226,-0.125613,0.058833,0.243179,0.00739441,0,0,0,0,0,0,0,9.44242,-1.93326,9.25825,-11.1457,0.548009,3.20487,0.0713203,0.109892,0.0185518,0.160652,-1.95227,0.220324,0.110831,0.0372136,0.0104144,0.0203473,0.150485,-0.0700588,0.00134023,0.00222002,-0.000348416,0.433628,0.416055,0.669842,0.411149,0.243607,-0.115086,0.10198,0.435978,-33.7724,0.536512,25.0586,1.71722,1.32928,0.0843355,
0.11125,0.0184543,0.161997,-1.95425,0.220888,0.113531,0.0373257,0.0885053,-0.00965753,0.0868406,-0.125904,0.0544017,0.234349,0.00740032,0,0,0,0,0,0,0,9.54699,-1.94137,9.358,-11.3709,0.793777,3.24641,0.07037,0.109892,0.0185518,0.160652,-1.95227,0.220324,0.110831,0.0372136,0.0104144,0.0203473,0.150485,-0.0700588,0.00134023,0.00222002,-0.000348416,0,0,0,0,0,0,0,0.435978,-33.7724,0.536512,25.0586,1.71722,1.32928,0.0843355,
0.111966,0.0183816,0.162699,-1.95524,0.221137,0.115388,0.0373859,0.0886892,-0.00954331,0.0870186,-0.125495,0.0497386,0.233894,0.00742341,0,0,0,0,0,0,0,9.44242,-1.93326,9.25825,-11.1457,0.548009,3.20487,0.0713203,0.109892,0.0185518,0.160652,-1.95227,0.220324,0.110831,0.0372136,0.0104144,0.0203473,0.150485,-0.0700588,0.00134023,0.00222002,-0.000348416,0,0,0,0,0,0,0,0.435978,-33.7724,0.536512,25.0586,1.71722,1.32928,0.0843355,
0.112693,0.0183039,0.163412,-1.95619,0.22132,0.117404,0.0374457,0.0891342,-0.00957738,0.0874594,-0.12423,0.0443637,0.237508,0.00743556,0,0,0,0,0,0,0,9.33195,-1.92595,9.15255,-10.9218,0.3451,3.16067,0.0719582,0.109892,0.0185518,0.160652,-1.95227,0.220324,0.110831,0.0372136,0.0104144,0.0203473,0.150485,-0.0700588,0.00134023,0.00222002,-0.000348416,0,0,0,0,0,0,0,0.435978,-33.7724,0.536512,25.0586,1.71722,1.32928,0.0843355,
0.113426,0.0182196,0.164132,-1.95711,0.221433,0.119516,0.0375051,0.0896314,-0.00976996,0.0879557,-0.122314,0.0383215,0.242815,0.00743246,0,0,0,0,0,0,0,9.21486,-1.96235,9.03407,-10.6808,0.180019,3.12698,0.0722872,0.109965,0.0190444,0.165835,-1.95461,0.220267,0.110956,0.0372132,0.00323564,0.0167231,0.135898,-0.064634,-0.00067745,0.00150664,0.000594372,-0.89735,-0.453031,-1.82331,0.678098,-0.25221,-0.089173,0.117849,-1.3374,-34.4707,-1.21306,26.5305,1.55243,1.63415,0.050461,
0.111211,0.0189069,0.167068,-1.95652,0.220586,0.113672,0.0373301,0.0878818,-0.00990964,0.0862282,-0.122373,0.0344597,0.234294,0.00747492,0,0,0,0,0,0,0,9.44134,-1.97707,9.25116,-11.1278,0.548551,3.21638,0.0712636,0.109965,0.0190444,0.165835,-1.95461,0.220267,0.110956,0.0372132,0.00323564,0.0167231,0.135898,-0.064634,-0.00067745,0.00150664,0.000594372,0,0,0,0,0,0,0,-1.3374,-34.4707,-1.21306,26.5305,1.55243,1.63415,0.050461,
0.111888,0.0188198,0.167732,-1.95748,0.220685,0.115537,0.0373912,0.0872187,-0.010106,0.0855685,-0.121884,0.0300476,0.234055,0.00750881,0,0,0,0,0,0,0,9.33087,-1.96977,9.14546,-10.9038,0.345642,3.17217,0.0719015,0.109965,0.0190444,0.165835,-1.95461,0.220267,0.110956,0.0372132,0.00323564,0.0167231,0.135898,-0.064634,-0.00067745,0.00150664,0.000594372,0,0,0,0,0,0,0,-1.3374,-34.4707,-1.21306,26.5305,1.55243,1.63415,0.050461,
0.112583,0.0187304,0.168414,-1.95841,0.220726,0.117557,0.0374516,0.0871489,-0.0103197,0.0854967,-0.120637,0.0250611,0.237744,0.00751568,0,0,0,0,0,0,0,9.21486,-1.96235,9.03407,-10.6808,0.180019,3.12698,0.0722872,0.109965,0.0190444,0.165835,-1.95461,0.220267,0.110956,0.0372132,0.00323564,0.0167231,0.135898,-0.064634,-0.00067745,0.00150664,0.000594372,0,0,0,0,0,0,0,-1.3374,-34.4707,-1.21306,26.5305,1.55243,1.63415,0.050461,
0.111283,0.0192538,0.171531,-1.95839,0.220404,0.113919,0.0373305,0.085825,-0.0110723,0.0841923,-0.119896,0.0221816,0.230975,0.00754485,0,0,0,0,0,0,0,9.32986,-2.00546,9.13928,-10.8871,0.346524,3.18253,0.0718485,0.110041,0.0194516,0.170302,-1.95659,0.220198,0.111139,0.0372133,0.00308329,0.0140187,0.135703,-0.0518091,-0.00195625,0.00266997,0.000531509,-0.0190436,-0.338052,-0.0243357,1.60312,-0.15985,0.145416,-0.00785788,0.384403,-33.9986,0.488905,26.0068,1.64398,1.51513,0.0440523,
0.111955,0.0191423,0.172191,-1.95932,0.220429,0.115803,0.0373916,0.0854669,-0.0116476,0.0838333,-0.118952,0.0183924,0.231886,0.00756169,0,0,0,0,0,0,0,9.21385,-1.99804,9.02789,-10.6641,0.180902,3.13734,0.0722342,0.110041,0.0194516,0.170302,-1.95659,0.220198,0.111139,0.0372133,0.00308329,0.0140187,0.135703,-0.0518091,-0.00195625,0.00266997,0.000531509,0,0,0,0,0,0,0,0.384403,-33.9986,0.488905,26.0068,1.64398,1.51513,0.0440523,
0.112644,0.0190327,0.172866,-1.96021,0.2204,0.117833,0.0374516,0.0856003,-0.0120567,0.0839599,-0.117462,0.0139678,0.236253,0.00754914,0,0,0,0,0,0,0,9.09187,-1.98981,8.91045,-10.4419,0.0490338,3.09128,0.0723213,0.110041,0.0194516,0.170302,-1.95659,0.220198,0.111139,0.0372133,0.00308329,0.0140187,0.135703,-0.0518091,-0.00195625,0.00266997,0.000531509,0,0,0,0,0,0,0,0.384403,-33.9986,0.488905,26.0068,1.64398,1.51513,0.0440523,
0.113342,0.0189225,0.17355,-1.96107,0.220323,0.119946,0.0375104,0.0859187,-0.0124002,0.0842716,-0.115517,0.00926519,0.241841,0.00751081,0,0,0,0,0,0,0,8.9647,-1.98029,8.78768,-10.2201,-0.0535581,3.04534,0.0721499,0.110041,0.0194516,0.170302,-1.95659,0.220198,0.111139,0.0372133,0.00308329,0.0140187,0.135703,-0.0518091,-0.00195625,0.00266997,0.000531509,0,0,0,0,0,0,0,0.384403,-33.9986,0.488905,26.0068,1.64398,1.51513,0.0440523,
0.111281,0.0192606,0.171531,-1.95836,0.220292,0.113865,0.0373312,0.0848028,-0.0126607,0.083182,-0.115366,0.00793372,0.233489,0.00754245,0,0,0,0,0,0,0,9.21404,-2.03532,9.02311,-10.6475,0.182294,3.14818,0.0721786,0.110133,0.0198278,0.174632,-1.95852,0.220127,0.111131,0.0372059,0.00674895,0.00819338,0.120428,-0.055403,0.00482924,-0.00127601,-0.000520981,0.458208,-0.728162,-1.90943,-0.449238,0.848187,-0.493247,-0.131561,0.309024,-33.3717,0.488905,25.257,1.45446,1.57464,0.0779268,
0.11195,0.0191511,0.172187,-1.95927,0.220251,0.115716,0.037392,0.0845619,-0.012866,0.082944,-0.114892,0.00530638,0.233049,0.00755315,0,0,0,0,0,0,0,9.09206,-2.02709,8.90567,-10.4252,0.0504267,3.10212,0.0722656,0.110133,0.0198278,0.174632,-1.95852,0.220127,0.111131,0.0372059,0.00674895,0.00819338,0.120428,-0.055403,0.00482924,-0.00127601,-0.000520981,0,0,0,0,0,0,0,0.309024,-33.3717,0.488905,25.257,1.45446,1.57464,0.0779268,
0.112634,0.0190431,0.172857,-1.96014,0.220158,0.11771,0.0374514,0.0847393,-0.0129935,0.0831173,-0.113785,0.00193342,0.236291,0.00752937,0,0,0,0,0,0,0,8.96489,-2.01757,8.7829,-10.2034,-0.0521652,3.05618,0.0720942,0.110133,0.0198278,0.174632,-1.95852,0.220127,0.111131,0.0372059,0.00674895,0.00819338,0.120428,-0.055403,0.00482924,-0.00127601,-0.000520981,0,0,0,0,0,0,0,0.309024,-33.3717,0.488905,25.257,1.45446,1.57464,0.0779268,
0.113324,0.0189342,0.173534,-1.96099,0.220028,0.119787,0.0375096,0.0850485,-0.0131174,0.0834216,-0.112153,-0.00170469,0.240959,0.00747711,0,0,0,0,0,0,0,8.83258,-2.00644,8.65488,-9.98198,-0.128822,3.01068,0.0716519,0.110133,0.0198278,0.174632,-1.95852,0.220127,0.111131,0.0372059,0.00674895,0.00819338,0.120428,-0.055403,0.00482924,-0.00127601,-0.000520981,0,0,0,0,0,0,0,0.309024,-33.3717,0.488905,25.257,1.45446,1.57464,0.0779268,
0.111316,0.0196051,0.175803,-1.96026,0.220145,0.113759,0.0373259,0.0834789,-0.0135292,0.0818838,-0.112157,-0.00216916,0.231633,0.00753129,0,0,0,0,0,0,0,9.09206,-2.02709,8.90567,-10.4252,0.0504267,3.10212,0.0722656,0.110133,0.0198278,0.174632,-1.95852,0.220127,0.111131,0.0372059,0.00674895,0.00819338,0.120428,-0.055403,0.00482924,-0.00127601,-0.000520981,0,0,0,0,0,0,0,0.309024,-33.3717,0.488905,25.257,1.45446,1.57464,0.0779268,
0.111963,0.0194873,0.176438,-1.96114,0.220043,0.115571,0.0373866,0.0829793,-0.0137681,0.0813872,-0.111792,-0.00428617,0.230617,0.0075443,0,0,0,0,0,0,0,8.96448,-2.05418,8.77756,-10.1864,-0.0509766,3.06719,0.0720389,0.110256,0.0201699,0.17914,-1.9604,0.220052,0.111138,0.0372048,0.0033551,0.0090354,0.130671,-0.047316,0.00167605,-0.000275198,-0.000449115,-0.424232,0.105253,1.2804,1.01087,-0.394149,0.125101,0.00898335,0.360599,-33.6971,0.512709,25.134,1.57714,1.54168,0.0779268,
0.112629,0.019373,0.17709,-1.96199,0.219893,0.117533,0.0374457,0.0830103,-0.0138712,0.081411,-0.110789,-0.00716758,0.23354,0.00751232,0,0,0,0,0,0,0,8.83217,-2.04305,8.64954,-9.965,-0.127634,3.02169,0.0715965,0.110256,0.0201699,0.17914,-1.9604,0.220052,0.111138,0.0372048,0.0033551,0.0090354,0.130671,-0.047316,0.00167605,-0.000275198,-0.000449115,0,0,0,0,0,0,0,0.360599,-33.6971,0.512709,25.134,1.57714,1.54168,0.0779268,
0.113302,0.0192593,0.17775,-1.96282,0.219714,0.119582,0.0375032,0.0832376,-0.01394,0.0816293,-0.109258,-0.0101992,0.238044,0.00744623,0,0,0,0,0,0,0,8.69562,-2.03017,8.51714,-9.74374,-0.181867,2.97707,0.0709093,0.110256,0.0201699,0.17914,-1.9604,0.220052,0.111138,0.0372048,0.0033551,0.0090354,0.130671,-0.047316,0.00167605,-0.000275198,-0.000449115,0,0,0,0,0,0,0,0.360599,-33.6971,0.512709,25.134,1.57714,1.54168,0.0779268,
0.111466,0.0199319,0.180339,-1.96207,0.220026,0.113783,0.0373225,0.0822864,-0.0144108,0.0806981,-0.109117,-0.00951638,0.229406,0.00748067,0,0,0,0,0,0,0,8.96448,-2.05418,8.77756,-10.1864,-0.0509766,3.06719,0.0720389,0.110256,0.0201699,0.17914,-1.9604,0.220052,0.111138,0.0372048,0.0033551,0.0090354,0.130671,-0.047316,0.00167605,-0.000275198,-0.000449115,0,0,0,0,0,0,0,0.360599,-33.6971,0.512709,25.134,1.57714,1.54168,0.0779268,
0.112118,0.0198053,0.180979,-1.96293,0.219904,0.115591,0.0373822,0.0821479,-0.0146938,0.0805537,-0.108721,-0.0106611,0.228716,0.00747745,0,0,0,0,0,0,0,8.8314,-2.07706,8.64411,-9.95218,-0.126829,3.02958,0.0715573,0.110407,0.0205166,0.183024,-1.96199,0.21988,0.111191,0.0372053,-7.81376e-05,0.00542708,0.116802,-0.0443755,-0.00309976,0.00256545,0.00121502,-0.429154,-0.45104,-1.73366,0.367565,-0.596976,0.355082,0.208017,0.336795,-33.2488,0.564283,24.3127,1.46087,1.26977,0.0303194,
0.112784,0.019683,0.181631,-1.96376,0.219739,0.117541,0.0374402,0.0823629,-0.0148112,0.0807555,-0.107741,-0.0126524,0.231737,0.0074305,0,0,0,0,0,0,0,8.69486,-2.06418,8.51171,-9.73092,-0.181062,2.98496,0.0708701,0.110407,0.0205166,0.183024,-1.96199,0.21988,0.111191,0.0372053,-7.81376e-05,0.00542708,0.116802,-0.0443755,-0.00309976,0.00256545,0.00121502,0,0,0,0,0,0,0,0.336795,-33.2488,0.564283,24.3127,1.46087,1.26977,0.0303194,
0.11152,0.0202477,0.184127,-1.9636,0.219714,0.113855,0.0373247,0.0805064,-0.0154311,0.078933,-0.107161,-0.0132862,0.224541,0.00747448,0,0,0,0,0,0,0,8.8314,-2.07706,8.64411,-9.95218,-0.126829,3.02958,0.0715573,0.110407,0.0205166,0.183024,-1.96199,0.21988,0.111191,0.0372053,-7.81376e-05,0.00542708,0.116802,-0.0443755,-0.00309976,0.00256545,0.00121502,0,0,0,0,0,0,0,0.336795,-33.2488,0.564283,24.3127,1.46087,1.26977,0.0303194,
0.112137,0.0201113,0.184731,-1.96443,0.219526,0.115666,0.0373842,0.0798267,-0.0157558,0.0782537,-0.106476,-0.0153309,0.224905,0.0074662,0,0,0,0,0,0,0,8.69486,-2.06418,8.51171,-9.73092,-0.181062,2.98496,0.0708701,0.110407,0.0205166,0.183024,-1.96199,0.21988,0.111191,0.0372053,-7.81376e-05,0.00542708,0.116802,-0.0443755,-0.00309976,0.00256545,0.00121502,0,0,0,0,0,0,0,0.336795,-33.2488,0.564283,24.3127,1.46087,1.26977,0.0303194,
0.112772,0.0199815,0.185353,-1.96523,0.219306,0.117615,0.0374415,0.0797394,-0.01585,0.0781547,-0.105319,-0.017764,0.228669,0.00740622,0,0,0,0,0,0,0,8.55369,-2.07806,8.36988,-9.49785,-0.215028,2.94951,0.0699174,0.110501,0.0208753,0.186656,-1.96334,0.219709,0.111202,0.0372006,-0.00111196,0.0109843,0.106004,-0.0424055,0.000210813,0.00211488,0.00107153,-0.129228,0.694654,-1.34972,0.246246,0.413822,-0.0563212,-0.0179366,0.919986,-33.2726,1.16334,24.6857,1.5158,1.30913,0.0303194,
0.113416,0.0198549,0.185983,-1.96601,0.219076,0.119644,0.0374969,0.079886,-0.0158435,0.0782871,-0.103741,-0.0199681,0.233645,0.0073086,0,0,0,0,0,0,0,8.41009,-2.06172,8.23017,-9.27666,-0.233252,2.90755,0.0687799,0.110501,0.0208753,0.186656,-1.96334,0.219709,0.111202,0.0372006,-0.00111196,0.0109843,0.106004,-0.0424055,0.000210813,0.00211488,0.00107153,0,0,0,0,0,0,0,0.919986,-33.2726,1.16334,24.6857,1.5158,1.30913,0.0303194,
0.111546,0.0206575,0.18769,-1.96492,0.219503,0.113844,0.03732,0.0777545,-0.0157292,0.0761956,-0.10366,-0.0198306,0.22572,0.00737112,0,0,0,0,0,0,0,8.69422,-2.09273,8.50638,-9.71902,-0.180151,2.99282,0.0708323,0.110501,0.0208753,0.186656,-1.96334,0.219709,0.111202,0.0372006,-0.00111196,0.0109843,0.106004,-0.0424055,0.000210813,0.00211488,0.00107153,0,0,0,0,0,0,0,0.919986,-33.2726,1.16334,24.6857,1.5158,1.30913,0.0303194,
0.112137,0.0205363,0.188268,-1.96574,0.219285,0.115637,0.0373788,0.0769676,-0.0156139,0.0754096,-0.103357,-0.0213353,0.225388,0.0073684,0,0,0,0,0,0,0,8.55369,-2.07806,8.36988,-9.49785,-0.215028,2.94951,0.0699174,0.110501,0.0208753,0.186656,-1.96334,0.219709,0.111202,0.0372006,-0.00111196,0.0109843,0.106004,-0.0424055,0.000210813,0.00211488,0.00107153,0,0,0,0,0,0,0,0.919986,-33.2726,1.16334,24.6857,1.5158,1.30913,0.0303194,
0.112749,0.0204176,0.188867,-1.96653,0.219038,0.117565,0.0374353,0.0768724,-0.0154577,0.0753004,-0.102486,-0.0232414,0.228523,0.00730599,0,0,0,0,0,0,0,8.41079,-2.09147,8.22715,-9.26388,-0.231688,2.91599,0.0687372,0.110621,0.0211052,0.190133,-1.96478,0.219632,0.111211,0.0371966,-0.00190681,0.0112215,0.108808,-0.0487184,0.00331791,-0.00311313,0.000363156,-0.0993562,0.0296515,0.35054,-0.789107,0.388387,-0.653502,-0.0885467,1.09455,-33.4233,1.23872,25.1102,1.64398,1.26977,0.0641939,
0.113371,0.0202994,0.189477,-1.96729,0.218788,0.119571,0.0374895,0.0770682,-0.0153219,0.0754785,-0.10112,-0.0248452,0.232957,0.00720062,0,0,0,0,0,0,0,8.26442,-2.07363,8.08454,-9.04264,-0.236026,2.87586,0.0674113,0.110621,0.0211052,0.190133,-1.96478,0.219632,0.111211,0.0371966,-0.00190681,0.0112215,0.108808,-0.0487184,0.00331791,-0.00311313,0.000363156,0,0,0,0,0,0,0,1.09455,-33.4233,1.23872,25.1102,1.64398,1.26977,0.0641939,
0.111672,0.0209149,0.191173,-1.96637,0.219428,0.113709,0.0373142,0.0755366,-0.0149747,0.0739793,-0.101505,-0.023762,0.223379,0.00725814,0,0,0,0,0,0,0,8.55439,-2.1078,8.36686,-9.48507,-0.213463,2.95795,0.0698747,0.110621,0.0211052,0.190133,-1.96478,0.219632,0.111211,0.0371966,-0.00190681,0.0112215,0.108808,-0.0487184,0.00331791,-0.00311313,0.000363156,0,0,0,0,0,0,0,1.09455,-33.4233,1.23872,25.1102,1.64398,1.26977,0.0641939,
0.112261,0.0208046,0.19175,-1.96718,0.21921,0.115437,0.0373718,0.0751523,-0.0147373,0.0735902,-0.101463,-0.0244603,0.221912,0.00724621,0,0,0,0,0,0,0,8.41079,-2.09147,8.22715,-9.26388,-0.231688,2.91599,0.0687372,0.110621,0.0211052,0.190133,-1.96478,0.219632,0.111211,0.0371966,-0.00190681,0.0112215,0.108808,-0.0487184,0.00331791,-0.00311313,0.000363156,0,0,0,0,0,0,0,1.09455,-33.4233,1.23872,25.1102,1.64398,1.26977,0.0641939,
0.112869,0.0206944,0.192344,-1.96796,0.218969,0.117309,0.0374268,0.0753158,-0.0145439,0.0737356,-0.100738,-0.025616,0.224333,0.0071728,0,0,0,0,0,0,0,8.26447,-2.10933,8.08129,-9.02938,-0.2348,2.88423,0.0673688,0.110803,0.0212651,0.193725,-1.96641,0.219566,0.11125,0.0371898,0.00368183,0.00880095,0.0982955,-0.0515794,0.00421104,-0.0035631,0.000294114,0.69858,-0.302573,-1.31412,-0.357624,0.111642,-0.0562453,-0.00863026,0.412174,-33.4987,0.512709,25.5347,1.55883,1.42174,0.0440523,
0.113486,0.0205828,0.192947,-1.96872,0.218728,0.119265,0.0374795,0.0756685,-0.014427,0.0740675,-0.0994425,-0.0264982,0.228374,0.00705626,0,0,0,0,0,0,0,8.11613,-2.09027,7.93656,-8.80802,-0.227304,2.8457,0.0658485,0.110803,0.0212651,0.193725,-1.96641,0.219566,0.11125,0.0371898,0.00368183,0.00880095,0.0982955,-0.0515794,0.00421104,-0.0035631,0.000294114,0,0,0,0,0,0,0,0.412174,-33.4987,0.512709,25.5347,1.55883,1.42174,0.0440523,
0.111825,0.02107,0.194734,-1.96798,0.219339,0.113681,0.0373061,0.0740466,-0.0142775,0.0724819,-0.0997967,-0.0253687,0.21885,0.00711988,0,0,0,0,0,0,0,8.41084,-2.12717,8.2239,-9.25061,-0.230462,2.92436,0.0686948,0.110803,0.0212651,0.193725,-1.96641,0.219566,0.11125,0.0371898,0.00368183,0.00880095,0.0982955,-0.0515794,0.00421104,-0.0035631,0.000294114,0,0,0,0,0,0,0,0.412174,-33.4987,0.512709,25.5347,1.55883,1.42174,0.0440523,
0.112399,0.0209596,0.195296,-1.96877,0.219115,0.115377,0.0373625,0.073604,-0.014182,0.0720371,-0.0996882,-0.0259083,0.217477,0.0071057,0,0,0,0,0,0,0,8.26447,-2.10933,8.08129,-9.02938,-0.2348,2.88423,0.0673688,0.110803,0.0212651,0.193725,-1.96641,0.219566,0.11125,0.0371898,0.00368183,0.00880095,0.0982955,-0.0515794,0.00421104,-0.0035631,0.000294114,0,0,0,0,0,0,0,0.412174,-33.4987,0.512709,25.5347,1.55883,1.42174,0.0440523,
0.112993,0.0208494,0.195877,-1.96954,0.218873,0.11722,0.0374162,0.0737283,-0.0141005,0.0721445,-0.0988981,-0.0267794,0.220042,0.0070264,0,0,0,0,0,0,0,8.11575,-2.12431,7.9331,-8.79373,-0.226002,2.85421,0.0658046,0.111042,0.0214044,0.197171,-1.96812,0.219502,0.111463,0.0371802,0.00845166,0.00777632,0.105374,-0.0448972,0.00412912,0.00372059,-0.000437082,0.59623,-0.128079,0.88484,0.835265,-0.0102409,0.910461,-0.0913996,-0.424923,-33.6217,-0.237108,25.4315,1.54052,1.52794,0.0843355,
0.112115,0.0211816,0.19823,-1.96963,0.219341,0.113954,0.0372914,0.0729925,-0.0143601,0.0714286,-0.0986019,-0.0246391,0.212688,0.00703928,0,0,0,0,0,0,0,8.26409,-2.14336,8.07783,-9.01509,-0.233499,2.89274,0.0673249,0.111042,0.0214044,0.197171,-1.96812,0.219502,0.111463,0.0371802,0.00845166,0.00777632,0.105374,-0.0448972,0.00412912,0.00372059,-0.000437082,0,0,0,0,0,0,0,-0.424923,-33.6217,-0.237108,25.4315,1.54052,1.52794,0.0843355,
0.112701,0.021059,0.198804,-1.97039,0.219159,0.115656,0.0373458,0.0730555,-0.0145545,0.0714802,-0.098049,-0.0242469,0.212712,0.0069897,0,0,0,0,0,0,0,8.11575,-2.12431,7.9331,-8.79373,-0.226002,2.85421,0.0658046,0.111042,0.0214044,0.197171,-1.96812,0.219502,0.111463,0.0371802,0.00845166,0.00777632,0.105374,-0.0448972,0.00412912,0.00372059,-0.000437082,0,0,0,0,0,0,0,-0.424923,-33.6217,-0.237108,25.4315,1.54052,1.52794,0.0843355,
0.113301,0.0209382,0.19939,-1.97113,0.218962,0.117496,0.0373975,0.0734358,-0.0146625,0.0718391,-0.0969534,-0.0243229,0.216171,0.0068839,0,0,0,0,0,0,0,7.9657,-2.10432,7.7865,-8.57227,-0.209129,2.81775,0.0641339,0.111042,0.0214044,0.197171,-1.96812,0.219502,0.111463,0.0371802,0.00845166,0.00777632,0.105374,-0.0448972,0.00412912,0.00372059,-0.000437082,0,0,0,0,0,0,0,-0.424923,-33.6217,-0.237108,25.4315,1.54052,1.52794,0.0843355,
0.113905,0.0208175,0.199981,-1.97185,0.218774,0.119417,0.0374467,0.0738565,-0.0147487,0.0722378,-0.0953935,-0.0241685,0.220964,0.00673903,0,0,0,0,0,0,0,7.81501,-2.12249,7.63634,-8.33805,-0.183101,2.79068,0.0622615,0.111174,0.021501,0.200655,-1.96989,0.219468,0.111616,0.0371814,0.00125677,0.00199004,0.0984752,-0.0522237,0.0041712,-0.000345955,0.000688103,-0.899362,-0.723284,-0.862378,-0.915802,0.00525988,-0.508319,0.140648,-0.0440639,-32.8996,0.139784,24.6619,1.57074,1.46844,0.0577852,
0.112168,0.0212609,0.201637,-1.97138,0.219252,0.113985,0.0372929,0.0722186,-0.0149812,0.0706379,-0.0955174,-0.0232214,0.212,0.00679591,0,0,0,0,0,0,0,8.11619,-2.16302,7.93075,-8.7811,-0.224697,2.86191,0.0657658,0.111174,0.021501,0.200655,-1.96989,0.219468,0.111616,0.0371814,0.00125677,0.00199004,0.0984752,-0.0522237,0.0041712,-0.000345955,0.000688103,0,0,0,0,0,0,0,-0.0440639,-32.8996,0.139784,24.6619,1.57074,1.46844,0.0577852,
0.112725,0.0211371,0.202181,-1.97213,0.219052,0.115642,0.0373462,0.071698,-0.0150792,0.0701171,-0.0952191,-0.023597,0.211019,0.00676912,0,0,0,0,0,0,0,7.96614,-2.14303,7.78416,-8.55964,-0.207823,2.82546,0.064095,0.111174,0.021501,0.200655,-1.96989,0.219468,0.111616,0.0371814,0.00125677,0.00199004,0.0984752,-0.0522237,0.0041712,-0.000345955,0.000688103,0,0,0,0,0,0,0,-0.0440639,-32.8996,0.139784,24.6619,1.57074,1.46844,0.0577852,
0.113299,0.0210164,0.202742,-1.97286,0.218844,0.117445,0.0373966,0.0717101,-0.0150822,0.0701144,-0.0943012,-0.0240624,0.213904,0.00667521,0,0,0,0,0,0,0,7.81501,-2.12249,7.63634,-8.33805,-0.183101,2.79068,0.0622615,0.111174,0.021501,0.200655,-1.96989,0.219468,0.111616,0.0371814,0.00125677,0.00199004,0.0984752,-0.0522237,0.0041712,-0.000345955,0.000688103,0,0,0,0,0,0,0,-0.0440639,-32.8996,0.139784,24.6619,1.57074,1.46844,0.0577852,
0.113881,0.020896,0.20331,-1.97356,0.218654,0.119336,0.0374444,0.0719092,-0.0150741,0.0702953,-0.0928703,-0.0240022,0.218403,0.00653508,0,0,0,0,0,0,0,7.66295,-2.10174,7.48743,-8.11637,-0.152694,2.75802,0.0603185,0.111174,0.021501,0.200655,-1.96989,0.219468,0.111616,0.0371814,0.00125677,0.00199004,0.0984752,-0.0522237,0.0041712,-0.000345955,0.000688103,0,0,0,0,0,0,0,-0.0440639,-32.8996,0.139784,24.6619,1.57074,1.46844,0.0577852,
0.112159,0.0212687,0.201628,-1.97135,0.219271,0.113939,0.0372898,0.0705161,-0.0151426,0.0689416,-0.0931287,-0.0227652,0.209294,0.00659114,0,0,0,0,0,0,0,7.9659,-2.18136,7.78136,-8.54481,-0.206679,2.83463,0.0640488,0.111359,0.02157,0.204078,-1.97174,0.219454,0.111702,0.0371775,0.00414416,0.00208686,0.10025,-0.0502283,0.00313539,0.00612718,0.000449914,0.360924,0.0121025,0.221884,0.249418,-0.129476,0.809142,-0.0297736,0.919986,-33.1972,1.06416,24.8364,1.6806,1.38878,0.050461,
0.112708,0.0211484,0.202165,-1.97209,0.219089,0.115567,0.0373413,0.0701446,-0.0151212,0.0685718,-0.0929153,-0.0227629,0.208152,0.00656246,0,0,0,0,0,0,0,7.81477,-2.16082,7.63354,-8.32322,-0.181956,2.79984,0.0622153,0.111359,0.02157,0.204078,-1.97174,0.219454,0.111702,0.0371775,0.00414416,0.00208686,0.10025,-0.0502283,0.00313539,0.00612718,0.000449914,0,0,0,0,0,0,0,0.919986,-33.1972,1.06416,24.8364,1.6806,1.38878,0.050461,
0.113273,0.0210307,0.202717,-1.9728,0.218905,0.117343,0.03739,0.0702427,-0.0150396,0.0686572,-0.0920555,-0.0228121,0.210904,0.00646566,0,0,0,0,0,0,0,7.66271,-2.14007,7.48463,-8.10154,-0.15155,2.76718,0.0602723,0.111359,0.02157,0.204078,-1.97174,0.219454,0.111702,0.0371775,0.00414416,0.00208686,0.10025,-0.0502283,0.00313539,0.00612718,0.000449914,0,0,0,0,0,0,0,0.919986,-33.1972,1.06416,24.8364,1.6806,1.38878,0.050461,
0.112358,0.0213367,0.205064,-1.97316,0.219295,0.114052,0.0372814,0.0692734,-0.0151416,0.0677138,-0.0919774,-0.0211844,0.203445,0.00648176,0,0,0,0,0,0,0,7.81477,-2.16082,7.63354,-8.32322,-0.181956,2.79984,0.0622153,0.111359,0.02157,0.204078,-1.97174,0.219454,0.111702,0.0371775,0.00414416,0.00208686,0.10025,-0.0502283,0.00313539,0.00612718,0.000449914,0,0,0,0,0,0,0,0.919986,-33.1972,1.06416,24.8364,1.6806,1.38878,0.050461,
0.112907,0.0212146,0.2056,-1.97388,0.219145,0.115678,0.0373309,0.069132,-0.0151654,0.0675659,-0.0914986,-0.0206909,0.203389,0.00642315,0,0,0,0,0,0,0,7.66289,-2.17558,7.48196,-8.08686,-0.150072,2.77661,0.0602256,0.11165,0.0216808,0.207431,-1.9735,0.219423,0.111732,0.0371695,0.00913549,0.00668965,0.102484,-0.0483527,0.00156753,0.00175884,0.000762579,0.623916,0.575348,0.279238,0.234458,-0.195983,-0.546043,0.0390832,0.94379,-33.0226,1.18715,24.8364,1.72363,1.33568,0.050461,
0.113468,0.0210947,0.206148,-1.97457,0.218998,0.117444,0.0373775,0.0693377,-0.01513,0.067754,-0.0904328,-0.020252,0.206878,0.00630385,0,0,0,0,0,0,0,7.51036,-2.15503,7.33243,-7.8651,-0.115091,2.74555,0.0581596,0.11165,0.0216808,0.207431,-1.9735,0.219423,0.111732,0.0371695,0.00913549,0.00668965,0.102484,-0.0483527,0.00156753,0.00175884,0.000762579,0,0,0,0,0,0,0,0.94379,-33.0226,1.18715,24.8364,1.72363,1.33568,0.050461,
0.114034,0.0209747,0.2067,-1.97523,0.218872,0.119297,0.0374215,0.0696139,-0.0151044,0.068011,-0.0888832,-0.0193397,0.211808,0.00614291,0,0,0,0,0,0,0,7.35737,-2.13502,7.18229,-7.64334,-0.0774142,2.71651,0.056015,0.11165,0.0216808,0.207431,-1.9735,0.219423,0.111732,0.0371695,0.00913549,0.00668965,0.102484,-0.0483527,0.00156753,0.00175884,0.000762579,0,0,0,0,0,0,0,0.94379,-33.0226,1.18715,24.8364,1.72363,1.33568,0.050461,
0.112676,0.0214851,0.208442,-1.97491,0.21931,0.114013,0.0372685,0.0690009,-0.0148147,0.0674149,-0.0892465,-0.0176631,0.20328,0.00616419,0,0,0,0,0,0,0,7.66289,-2.17558,7.48196,-8.08686,-0.150072,2.77661,0.0602256,0.11165,0.0216808,0.207431,-1.9735,0.219423,0.111732,0.0371695,0.00913549,0.00668965,0.102484,-0.0483527,0.00156753,0.00175884,0.000762579,0,0,0,0,0,0,0,0.94379,-33.0226,1.18715,24.8364,1.72363,1.33568,0.050461,
0.113228,0.0213736,0.208981,-1.97562,0.219197,0.115603,0.0373158,0.069004,-0.0146389,0.0674075,-0.0890742,-0.0169644,0.20237,0.00611406,0,0,0,0,0,0,0,7.50948,-2.1891,7.32877,-7.85441,-0.114807,2.75202,0.0581287,0.111906,0.0218047,0.210464,-1.97494,0.219399,0.111799,0.0371631,0.00365532,0.0060286,0.0936989,-0.0407338,-0.00159433,0.00184801,0.000188597,-0.685021,-0.0826312,-1.09816,0.952355,-0.395232,0.0111459,-0.0717478,0.487552,-32.9472,0.663466,24.7095,1.71722,1.20293,0.0641939,
0.113789,0.0212611,0.209528,-1.9763,0.219088,0.117336,0.0373603,0.0692252,-0.0145224,0.0676099,-0.0882082,-0.0162858,0.205217,0.00600336,0,0,0,0,0,0,0,7.35649,-2.16909,7.17863,-7.63265,-0.0771305,2.72297,0.0559841,0.111906,0.0218047,0.210464,-1.97494,0.219399,0.111799,0.0371631,0.00365532,0.0060286,0.0936989,-0.0407338,-0.00159433,0.00184801,0.000188597,0,0,0,0,0,0,0,0.487552,-32.9472,0.663466,24.7095,1.71722,1.20293,0.0641939,
0.112676,0.0214851,0.208442,-1.97491,0.21931,0.114013,0.0372685,0.06869,-0.0143491,0.0670941,-0.0887065,-0.0152199,0.198008,0.00605255,0,0,0,0,0,0,0,7.50948,-2.1891,7.32877,-7.85441,-0.114807,2.75202,0.0581287,0.111906,0.0218047,0.210464,-1.97494,0.219399,0.111799,0.0371631,0.00365532,0.0060286,0.0936989,-0.0407338,-0.00159433,0.00184801,0.000188597,0,0,0,0,0,0,0,0.487552,-32.9472,0.663466,24.7095,1.71722,1.20293,0.0641939,
0.113364,0.0214697,0.211895,-1.97697,0.219146,0.115723,0.0373054,0.0679247,-0.0144599,0.066329,-0.0879732,-0.0150672,0.198525,0.00598911,0,0,0,0,0,0,0,7.35649,-2.16909,7.17863,-7.63265,-0.0771305,2.72297,0.0559841,0.111906,0.0218047,0.210464,-1.97494,0.219399,0.111799,0.0371631,0.00365532,0.0060286,0.0936989,-0.0407338,-0.00159433,0.00184801,0.000188597,0,0,0,0,0,0,0,0.487552,-32.9472,0.663466,24.7095,1.71722,1.20293,0.0641939,
0.113896,0.0213511,0.212414,-1.97762,0.219041,0.117467,0.0373484,0.0676478,-0.0145335,0.0660395,-0.0867117,-0.0146768,0.202402,0.00586472,0,0,0,0,0,0,0,7.20349,-2.18092,7.02554,-7.39976,-0.0365377,2.70236,0.0537133,0.112061,0.0219249,0.213504,-1.97626,0.219372,0.11181,0.0371635,0.00561896,0.00721327,0.0946293,-0.0415639,-0.00731122,0.00198258,0.00185917,0.245455,0.148084,0.116304,-0.103756,-0.714611,0.0168209,0.208822,0.995365,-32.9988,1.13954,25.0864,1.80236,1.22948,0.0303194,
0.114433,0.0212313,0.212938,-1.97825,0.218965,0.119294,0.0373886,0.0675553,-0.0146223,0.0659315,-0.0850054,-0.0136525,0.20761,0.00569832,0,0,0,0,0,0,0,7.05006,-2.16301,6.87467,-7.1781,0.00341464,2.67654,0.0514415,0.112061,0.0219249,0.213504,-1.97626,0.219372,0.11181,0.0371635,0.00561896,0.00721327,0.0946293,-0.0415639,-0.00731122,0.00198258,0.00185917,0,0,0,0,0,0,0,0.995365,-32.9988,1.13954,25.0864,1.80236,1.22948,0.0303194,
0.113003,0.0217271,0.214432,-1.97759,0.219227,0.114085,0.0372559,0.0663487,-0.0144672,0.0647486,-0.0851421,-0.0131748,0.199758,0.00572099,0,0,0,0,0,0,0,7.35665,-2.20003,7.176,-7.62152,-0.0761529,2.72996,0.0559495,0.112061,0.0219249,0.213504,-1.97626,0.219372,0.11181,0.0371635,0.00561896,0.00721327,0.0946293,-0.0415639,-0.00731122,0.00198258,0.00185917,0,0,0,0,0,0,0,0.995365,-32.9988,1.13954,25.0864,1.80236,1.22948,0.0303194,
0.113518,0.0216139,0.214934,-1.97826,0.21913,0.115663,0.0372997,0.0659438,-0.0144045,0.0643381,-0.0848215,-0.0129718,0.199256,0.00567033,0,0,0,0,0,0,0,7.20349,-2.18092,7.02554,-7.39976,-0.0365377,2.70236,0.0537133,0.112061,0.0219249,0.213504,-1.97626,0.219372,0.11181,0.0371635,0.00561896,0.00721327,0.0946293,-0.0415639,-0.00731122,0.00198258,0.00185917,0,0,0,0,0,0,0,0.995365,-32.9988,1.13954,25.0864,1.80236,1.22948,0.0303194,
0.114043,0.0214996,0.215446,-1.9789,0.21905,0.117381,0.0373405,0.065898,-0.0143812,0.0642767,-0.083854,-0.0123684,0.202339,0.00555752,0,0,0,0,0,0,0,7.0497,-2.19385,6.87182,-7.16761,0.00388506,2.68285,0.0514092,0.11237,0.022029,0.216248,-1.97747,0.219369,0.111796,0.0371577,0.00913798,0.00123514,0.086176,-0.0347783,-0.00112867,-0.000393183,0.00149559,0.439878,-0.747267,-1.05667,0.848194,0.772818,-0.29697,-0.0454474,0.66608,-33.1734,0.814222,25.5347,1.81518,1.36223,0.0303194,
0.114573,0.0213827,0.215962,-1.97951,0.219002,0.119184,0.0373788,0.0659519,-0.0144258,0.0643135,-0.0823564,-0.0110874,0.206957,0.00540186,0,0,0,0,0,0,0,6.89614,-2.17743,6.72068,-6.94606,0.0437255,2.65826,0.0490749,0.11237,0.022029,0.216248,-1.97747,0.219369,0.111796,0.0371577,0.00913798,0.00123514,0.086176,-0.0347783,-0.00112867,-0.000393183,0.00149559,0,0,0,0,0,0,0,0.66608,-33.1734,0.814222,25.5347,1.81518,1.36223,0.0303194,
0.11328,0.0217651,0.217143,-1.97872,0.219313,0.114071,0.0372467,0.0646811,-0.0150265,0.0630744,-0.0821152,-0.0100437,0.19931,0.00544057,0,0,0,0,0,0,0,7.20312,-2.21177,7.02269,-7.38927,-0.0360673,2.70867,0.053681,0.11237,0.022029,0.216248,-1.97747,0.219369,0.111796,0.0371577,0.00913798,0.00123514,0.086176,-0.0347783,-0.00112867,-0.000393183,0.00149559,0,0,0,0,0,0,0,0.66608,-33.1734,0.814222,25.5347,1.81518,1.36223,0.0303194,
0.113781,0.0216299,0.217631,-1.97935,0.219257,0.115653,0.0372886,0.0642526,-0.0154012,0.0626459,-0.0815966,-0.0094452,0.199004,0.0054006,0,0,0,0,0,0,0,7.0497,-2.19385,6.87182,-7.16761,0.00388506,2.68285,0.0514092,0.11237,0.022029,0.216248,-1.97747,0.219369,0.111796,0.0371577,0.00913798,0.00123514,0.086176,-0.0347783,-0.00112867,-0.000393183,0.00149559,0,0,0,0,0,0,0,0.66608,-33.1734,0.814222,25.5347,1.81518,1.36223,0.0303194,
