xiao-wang007/linearmpc_panda/paper_data/panda_inverse_dynamics_controller_opt_time_to_start_no_acceleration_ff/0/trajectory.csv
Commanded Joint 0 Position,Commanded Joint 1 Position,Commanded Joint 2 Position,Commanded Joint 3 Position,Commanded Joint 4 Position,Commanded Joint 5 Position,Commanded Joint 6 Position,Commanded Joint 0 Velocity,Commanded Joint 1 Velocity,Commanded Joint 2 Velocity,Commanded Joint 3 Velocity,Commanded Joint 4 Velocity,Commanded Joint 5 Velocity,Commanded Joint 6 Velocity,Commanded Joint 0 Acceleration,Commanded Joint 1 Acceleration,Commanded Joint 2 Acceleration,Commanded Joint 3 Acceleration,Commanded Joint 4 Acceleration,Commanded Joint 5 Acceleration,Commanded Joint 6 Acceleration,Commanded Joint 0 Torque,Commanded Joint 1 Torque,Commanded Joint 2 Torque,Commanded Joint 3 Torque,Commanded Joint 4 Torque,Commanded Joint 5 Torque,Commanded Joint 6 Torque,Actual Joint 0 Position,Actual Joint 1 Position,Actual Joint 2 Position,Actual Joint 3 Position,Actual Joint 4 Position,Actual Joint 5 Position,Actual Joint 6 Position,Actual Joint 0 Velocity,Actual Joint 1 Velocity,Actual Joint 2 Velocity,Actual Joint 3 Velocity,Actual Joint 4 Velocity,Actual Joint 5 Velocity,Actual Joint 6 Velocity,Actual Joint 0 Acceleration,Actual Joint 1 Acceleration,Actual Joint 2 Acceleration,Actual Joint 3 Acceleration,Actual Joint 4 Acceleration,Actual Joint 5 Acceleration,Actual Joint 6 Acceleration,Actual Joint 0 Torque,Actual Joint 1 Torque,Actual Joint 2 Torque,Actual Joint 3 Torque,Actual Joint 4 Torque,Actual Joint 5 Torque,Actual Joint 6 Torque,
0.0568073,0.0374234,-0.0131693,-1.77947,0.0252576,0.319374,0.0484379,0.000491963,0.0236776,0.000431076,-0.0323626,-0.0055291,0.0539337,-0.00037103,0,0,0,0,0,0,0,0.0561819,25.9648,0.0292337,-24.582,-0.732737,1.73999,-0.023592,0.0567541,0.0363083,-0.013225,-1.77668,0.0256141,0.313573,0.0484759,0.00280807,-0.000547957,0.00356492,-0.00345411,-0.00251264,0.00113489,-0.00199604,0,0,0,0,0,0,0,0.182071,-37.2398,0.187391,27.8992,0.679012,3.51006,0.0376436,
0.0567995,0.0363214,-0.013181,-1.77669,0.0256311,0.31355,0.0484738,0.000678211,0.0190586,0.000620666,-0.0259621,-0.00414495,0.0429833,-0.000305051,0,0,0,0,0,0,0,0.0504243,26.4053,0.0189001,-24.4984,-0.732565,1.48947,-0.0220751,0.0567541,0.0363083,-0.013225,-1.77668,0.0256141,0.313573,0.0484759,0.00280807,-0.000547957,0.00356492,-0.00345411,-0.00251264,0.00113489,-0.00199604,0,0,0,0,0,0,0,0.182071,-37.2398,0.187391,27.8992,0.679012,3.51006,0.0376436,
0.0568084,0.0363257,-0.0131723,-1.7767,0.0256429,0.313545,0.0484735,0.000765896,0.015353,0.000713157,-0.0208231,-0.00302099,0.0342761,-0.0002497,0,0,0,0,0,0,0,0.0432103,26.9767,0.00717394,-24.3904,-0.731569,1.14229,-0.020105,0.0567541,0.0363083,-0.013225,-1.77668,0.0256141,0.313573,0.0484759,0.00280807,-0.000547957,0.00356492,-0.00345411,-0.00251264,0.00113489,-0.00199604,0,0,0,0,0,0,0,0.182071,-37.2398,0.187391,27.8992,0.679012,3.51006,0.0376436,
0.0568155,0.0363295,-0.0131654,-1.7767,0.0256539,0.313543,0.0484734,0.000789804,0.0123778,0.000742317,-0.0166991,-0.00213968,0.0273549,-0.00020384,0,0,0,0,0,0,0,0.0372684,27.5005,-0.00224289,-24.2225,-0.729065,0.75752,-0.0181026,0.0567541,0.0363083,-0.013225,-1.77668,0.0256141,0.313573,0.0484759,0.00280807,-0.000547957,0.00356492,-0.00345411,-0.00251264,0.00113489,-0.00199604,0,0,0,0,0,0,0,0.182071,-37.2398,0.187391,27.8992,0.679012,3.51006,0.0376436,
0.0565115,0.0363815,-0.013495,-1.77649,0.0333383,0.308197,0.0484411,-0.000235966,0.00959372,-0.000251332,-0.0128284,0.0465901,-0.013042,-0.000220593,0,0,0,0,0,0,0,0.471683,0.206403,0.471908,-0.290509,2.81312,-2.16145,-0.00236594,0.0567445,0.0363893,-0.0132549,-1.77671,0.0256153,0.313581,0.0484807,0.00112172,0.00115837,-0.000600147,-0.00142376,-0.0028739,0.00088632,-0.00128054,-0.210794,0.213291,-0.520633,0.253793,-0.0451576,-0.031071,0.0894377,0.134464,-36.9661,0.163588,27.6016,0.667111,3.43773,0.0239107,
0.0564882,0.0363701,-0.0135172,-1.77648,0.0353188,0.306739,0.0484395,-0.000769998,0.00739116,-0.000758193,-0.00995831,0.0867851,-0.0468875,-0.000217692,0,0,0,0,0,0,0,0.465548,0.203977,0.465844,-0.287763,2.7889,-2.14244,-0.00233261,0.0567445,0.0363893,-0.0132549,-1.77671,0.0256153,0.313581,0.0484807,0.00112172,0.00115837,-0.000600147,-0.00142376,-0.0028739,0.00088632,-0.00128054,0,0,0,0,0,0,0,0.134464,-36.9661,0.163588,27.6016,0.667111,3.43773,0.0239107,
0.0564755,0.036361,-0.0135291,-1.77647,0.0373228,0.305243,0.0484381,-0.000934356,0.00568457,-0.000902441,-0.00784358,0.119528,-0.0749089,-0.000207392,0,0,0,0,0,0,0,0.459565,0.201518,0.459927,-0.285051,2.76453,-2.12343,-0.00229981,0.0567445,0.0363893,-0.0132549,-1.77671,0.0256153,0.313581,0.0484807,0.00112172,0.00115837,-0.000600147,-0.00142376,-0.0028739,0.00088632,-0.00128054,0,0,0,0,0,0,0,0.134464,-36.9661,0.163588,27.6016,0.667111,3.43773,0.0239107,
0.0564719,0.0363546,-0.0135319,-1.77647,0.0393349,0.303725,0.0484369,-0.000836485,0.00438787,-0.000791387,-0.00629577,0.145924,-0.0978655,-0.000195574,0,0,0,0,0,0,0,0.453747,0.19905,0.454173,-0.282357,2.73997,-2.10442,-0.00226596,0.0567445,0.0363893,-0.0132549,-1.77671,0.0256153,0.313581,0.0484807,0.00112172,0.00115837,-0.000600147,-0.00142376,-0.0028739,0.00088632,-0.00128054,0,0,0,0,0,0,0,0.134464,-36.9661,0.163588,27.6016,0.667111,3.43773,0.0239107,
0.0562358,0.0362718,-0.0137931,-1.77551,0.053074,0.286444,0.0483538,-0.00137173,0.00212961,-0.00135395,-0.00249173,0.285488,-0.252723,-0.000273453,0,0,0,0,0,0,0,3.60937,1.60487,3.57411,-1.77312,10.3969,-11.0628,-0.00728945,0.0567322,0.0368852,-0.0132566,-1.77707,0.0256174,0.313556,0.0484814,0.00398491,0.00682703,0.00323173,-0.00634875,-0.00104646,0.000549085,-0.000985498,0.357899,0.708582,0.478985,-0.615623,0.22843,-0.0421543,0.0368798,0.336795,-36.3948,0.26277,27.677,0.660702,3.67669,0.017502,
0.0562553,0.0362315,-0.0137737,-1.77547,0.0599291,0.279198,0.0483497,-0.000610516,0.000696115,-0.000597099,-0.000837321,0.399768,-0.383313,-0.000320544,0,0,0,0,0,0,0,3.50202,1.55628,3.46912,-1.75174,10.1706,-10.8861,-0.00752788,0.0567322,0.0368852,-0.0132566,-1.77707,0.0256174,0.313556,0.0484814,0.00398491,0.00682703,0.00323173,-0.00634875,-0.00104646,0.000549085,-0.000985498,0,0,0,0,0,0,0,0.336795,-36.3948,0.26277,27.677,0.660702,3.67669,0.017502,
0.0563177,0.0362105,-0.0137113,-1.77547,0.0667891,0.271803,0.0483465,0.00107191,3.26018e-05,0.00108344,-0.000619117,0.491314,-0.491529,-0.000337601,0,0,0,0,0,0,0,3.4118,1.49974,3.38414,-1.73512,9.93692,-10.7135,-0.00774803,0.0567322,0.0368852,-0.0132566,-1.77707,0.0256174,0.313556,0.0484814,0.00398491,0.00682703,0.00323173,-0.00634875,-0.00104646,0.000549085,-0.000985498,0,0,0,0,0,0,0,0.336795,-36.3948,0.26277,27.677,0.660702,3.67669,0.017502,
0.0564172,0.0362099,-0.013612,-1.7755,0.0735916,0.264341,0.0483435,0.00334594,1.27105e-05,0.00334847,-0.00130902,0.563115,-0.579783,-0.00034349,0,0,0,0,0,0,0,3.34716,1.46995,3.32947,-1.71579,9.66694,-10.5286,-0.00605582,0.0567322,0.0368852,-0.0132566,-1.77707,0.0256174,0.313556,0.0484814,0.00398491,0.00682703,0.00323173,-0.00634875,-0.00104646,0.000549085,-0.000985498,0,0,0,0,0,0,0,0.336795,-36.3948,0.26277,27.677,0.660702,3.67669,0.017502,
0.0586983,0.0362622,-0.0114039,-1.77765,0.0531084,0.278404,0.0487227,0.0173184,-0.0060909,0.0167196,-0.0107754,0.631724,-0.697159,-0.000381214,0,0,0,0,0,0,0,18.6149,1.48981,18.2434,-11.0972,10.9179,-14.4378,0.143063,0.0567432,0.0372744,-0.0132456,-1.77739,0.0256632,0.313597,0.0484833,0.00470559,0.00849709,0.00256888,-0.00347564,0.00198093,-0.00238087,4.17644e-05,0.0900852,0.208757,-0.0828567,0.359138,0.378424,-0.366245,0.128408,0.360599,-37.9897,0.413527,27.0026,0.855709,3.21892,-0.0026396,
0.0593548,0.0359911,-0.0107702,-1.77813,0.0606984,0.268529,0.0487208,0.0302656,-0.0116481,0.0292181,-0.0206427,0.695129,-0.804613,-0.000353549,0,0,0,0,0,0,0,16.8043,4.6077,16.5392,-7.41687,10.9179,-14.4378,0.216936,0.0567432,0.0372744,-0.0132456,-1.77739,0.0256632,0.313597,0.0484833,0.00470559,0.00849709,0.00256888,-0.00347564,0.00198093,-0.00238087,4.17644e-05,0,0,0,0,0,0,0,0.360599,-37.9897,0.413527,27.0026,0.855709,3.21892,-0.0026396,
0.060068,0.0357083,-0.0100791,-1.77868,0.0685236,0.258264,0.0487217,0.0420422,-0.0163893,0.0406518,-0.030125,0.751733,-0.900306,-0.000260225,0,0,0,0,0,0,0,14.5184,1.84634,14.071,-8.19194,10.9179,-14.4378,0.0296405,0.0567432,0.0372744,-0.0132456,-1.77739,0.0256632,0.313597,0.0484833,0.00470559,0.00849709,0.00256888,-0.00347564,0.00198093,-0.00238087,4.17644e-05,0,0,0,0,0,0,0,0.360599,-37.9897,0.413527,27.0026,0.855709,3.21892,-0.0026396,
0.0592969,0.0369476,-0.0107131,-1.77915,0.0525778,0.279396,0.0484692,0.0532003,-0.014899,0.0519085,-0.0394731,0.778994,-0.950065,-3.97743e-05,0,0,0,0,0,0,0,20.3779,5.33648,20.2099,-13.5732,10.9179,-14.4378,0.0169692,0.0567432,0.0372744,-0.0132456,-1.77739,0.0256632,0.313597,0.0484833,0.00470559,0.00849709,0.00256888,-0.00347564,0.00198093,-0.00238087,4.17644e-05,0,0,0,0,0,0,0,0.360599,-37.9897,0.413527,27.0026,0.855709,3.21892,-0.0026396,
0.0601663,0.0369063,-0.00985266,-1.77984,0.0600632,0.269649,0.0484791,0.0642953,-0.0129512,0.0630384,-0.0489396,0.81033,-1.00374,0.000215034,0,0,0,0,0,0,0,19.4667,4.59626,19.2699,-13.419,10.9105,-14.4262,0.00941003,0.0567146,0.0373965,-0.0128797,-1.77791,0.0275075,0.311633,0.0484782,-0.000316536,0.00584591,0.0230026,-0.013646,0.102618,-0.106888,-0.00126735,-0.627766,-0.331397,2.55421,-1.2713,12.5796,-13.0634,-0.16364,2.51484,-36.7162,2.63917,24.9356,1.45446,2.20452,0.0376436,
0.0611005,0.0368975,-0.00892915,-1.78059,0.0678241,0.259504,0.0484937,0.0747917,-0.0105791,0.0735182,-0.0579874,0.842287,-1.05662,0.000537688,0,0,0,0,0,0,0,18.6406,3.99112,18.4338,-13.247,10.9105,-14.4262,0.00549317,0.0567146,0.0373965,-0.0128797,-1.77791,0.0275075,0.311633,0.0484782,-0.000316536,0.00584591,0.0230026,-0.013646,0.102618,-0.106888,-0.00126735,0,0,0,0,0,0,0,2.51484,-36.7162,2.63917,24.9356,1.45446,2.20452,0.0376436,
0.0620801,0.0369183,-0.00796164,-1.78139,0.0757881,0.249074,0.0485115,0.084324,-0.00794476,0.0830024,-0.0663488,0.872929,-1.10605,0.00087374,0,0,0,0,0,0,0,17.8889,3.49325,17.6806,-13.0576,10.9105,-14.4262,0.00434591,0.0567146,0.0373965,-0.0128797,-1.77791,0.0275075,0.311633,0.0484782,-0.000316536,0.00584591,0.0230026,-0.013646,0.102618,-0.106888,-0.00126735,0,0,0,0,0,0,0,2.51484,-36.7162,2.63917,24.9356,1.45446,2.20452,0.0376436,
0.0602132,0.0364115,-0.00947857,-1.782,0.0551552,0.276901,0.0484411,0.092271,-0.0114817,0.0906657,-0.0807468,0.876612,-1.11494,0.000565352,0,0,0,0,0,0,0,24.2834,4.57354,23.8089,-20.0141,10.9105,-14.4262,0.0154436,0.0567146,0.0373965,-0.0128797,-1.77791,0.0275075,0.311633,0.0484782,-0.000316536,0.00584591,0.0230026,-0.013646,0.102618,-0.106888,-0.00126735,0,0,0,0,0,0,0,2.51484,-36.7162,2.63917,24.9356,1.45446,2.20452,0.0376436,
0.0612894,0.0362281,-0.0084258,-1.78319,0.0626652,0.267151,0.0484375,0.10072,-0.0137706,0.0988519,-0.094249,0.88904,-1.13572,0.000364131,0,0,0,0,0,0,0,22.8836,3.59174,22.4255,-19.7131,10.8901,-14.3799,-0.000795287,0.0571356,0.0372034,-0.0105813,-1.77961,0.0336108,0.304238,0.0484846,0.0184655,0.00191325,0.0894137,-0.0614472,0.231015,-0.300905,-0.00127817,2.34776,-0.491583,8.30139,-5.97515,16.0497,-24.2522,-0.00135218,5.60932,-34.2723,5.46388,23.6661,1.62567,1.7138,0.017502,
0.0624255,0.0360644,-0.00731434,-1.78443,0.0704526,0.257006,0.0484377,0.108979,-0.0151093,0.106868,-0.106547,0.905916,-1.16218,0.000296254,0,0,0,0,0,0,0,21.7121,2.7103,21.277,-19.4236,10.8901,-14.3799,-0.00746268,0.0571356,0.0372034,-0.0105813,-1.77961,0.0336108,0.304238,0.0484846,0.0184655,0.00191325,0.0894137,-0.0614472,0.231015,-0.300905,-0.00127817,0,0,0,0,0,0,0,5.60932,-34.2723,5.46388,23.6661,1.62567,1.7138,0.017502,
0.063598,0.0374756,-0.00601123,-1.78529,0.0608807,0.269016,0.0487589,0.12505,-0.00908648,0.122879,-0.125516,0.911073,-1.16749,-0.000277014,0,0,0,0,0,0,0,25.7866,6.33676,25.463,-25.0636,10.8901,-14.3799,-0.0112192,0.0571356,0.0372034,-0.0105813,-1.77961,0.0336108,0.304238,0.0484846,0.0184655,0.00191325,0.0894137,-0.0614472,0.231015,-0.300905,-0.00127817,0,0,0,0,0,0,0,5.60932,-34.2723,5.46388,23.6661,1.62567,1.7138,0.017502,
0.0631429,0.0366002,-0.00464186,-1.78745,0.0711003,0.257155,0.0483468,0.131424,-0.00842184,0.129272,-0.140141,0.921222,-1.18057,-0.000541075,0,0,0,0,0,0,0,24.227,5.27962,23.9157,-24.7064,10.8901,-14.3799,-0.0266241,0.0571356,0.0372034,-0.0105813,-1.77961,0.0336108,0.304238,0.0484846,0.0184655,0.00191325,0.0894137,-0.0614472,0.231015,-0.300905,-0.00127817,0,0,0,0,0,0,0,5.60932,-34.2723,5.46388,23.6661,1.62567,1.7138,0.017502,
0.0644408,0.0365778,-0.00336272,-1.78909,0.0790372,0.246944,0.048342,0.137586,-0.00729559,0.135396,-0.153115,0.935399,-1.19973,-0.000553157,0,0,0,0,0,0,0,22.9352,4.33205,22.6383,-24.3626,10.8901,-14.3799,-0.0324268,0.0571356,0.0372034,-0.0105813,-1.77961,0.0336108,0.304238,0.0484846,0.0184655,0.00191325,0.0894137,-0.0614472,0.231015,-0.300905,-0.00127817,0,0,0,0,0,0,0,5.60932,-34.2723,5.46388,23.6661,1.62567,1.7138,0.017502,
0.0657631,0.0365725,-0.00206038,-1.79077,0.0871519,0.236482,0.048345,0.143127,-0.00597061,0.140875,-0.164427,0.951188,-1.22132,-0.000367048,0,0,0,0,0,0,0,21.8678,3.46364,21.5789,-23.9707,10.8712,-14.2961,-0.0324384,0.0580726,0.0368983,-0.00600677,-1.78271,0.0424861,0.2911,0.0484845,0.0378644,-0.00804371,0.151728,-0.0991094,0.220018,-0.404992,0.00225129,2.42485,-1.24462,7.78934,-4.70778,-1.37461,-13.0108,0.441183,3.25275,-34.07,3.16286,24.1382,2.06512,1.5545,-0.00996382,
0.0635306,0.0355264,-0.000652395,-1.79131,0.0731178,0.252772,0.0482418,0.146026,-0.0108886,0.143662,-0.180791,0.948782,-1.21377,-0.00106483,0,0,0,0,0,0,0,25.1267,3.61876,24.7049,-30.4909,10.8712,-14.2961,-0.0538967,0.0580726,0.0368983,-0.00600677,-1.78271,0.0424861,0.2911,0.0484845,0.0378644,-0.00804371,0.151728,-0.0991094,0.220018,-0.404992,0.00225129,0,0,0,0,0,0,0,3.25275,-34.07,3.16286,24.1382,2.06512,1.5545,-0.00996382,
0.0648345,0.0353069,0.000627289,-1.79334,0.0809378,0.242854,0.0482173,0.149419,-0.0141972,0.146922,-0.195332,0.954525,-1.21897,-0.00146625,0,0,0,0,0,0,0,23.7123,2.59358,23.3143,-30.0447,10.8712,-14.2961,-0.058381,0.0580726,0.0368983,-0.00600677,-1.78271,0.0424861,0.2911,0.0484845,0.0378644,-0.00804371,0.151728,-0.0991094,0.220018,-0.404992,0.00225129,0,0,0,0,0,0,0,3.25275,-34.07,3.16286,24.1382,2.06512,1.5545,-0.00996382,
0.066165,0.0351067,0.0019326,-1.79542,0.0889766,0.232712,0.0482008,0.152798,-0.0163638,0.15017,-0.20835,0.96459,-1.22874,-0.00158357,0,0,0,0,0,0,0,22.5026,1.66955,22.13,-29.62,10.8712,-14.2961,-0.0544533,0.0580726,0.0368983,-0.00600677,-1.78271,0.0424861,0.2911,0.0484845,0.0378644,-0.00804371,0.151728,-0.0991094,0.220018,-0.404992,0.00225129,0,0,0,0,0,0,0,3.25275,-34.07,3.16286,24.1382,2.06512,1.5545,-0.00996382,
0.0675121,0.0349181,0.00325436,-1.79762,0.0971782,0.222997,0.0481933,0.155916,-0.0178064,0.15318,-0.221677,0.976714,-1.22584,-0.00145606,0,0,0,0,0,0,0,21.4714,0.851091,21.1123,-29.1326,10.8658,-14.1855,-0.046744,0.0598149,0.0368208,0.000963049,-1.7877,0.0499053,0.27581,0.0484823,0.0472939,-0.000785831,0.22665,-0.177038,0.223634,-0.474337,-0.00076706,1.1787,0.907235,9.36519,-9.74107,0.452017,-8.66814,-0.377294,5.0777,-33.4987,4.88862,22.3688,1.8399,0.957571,0.0101778,
0.0658314,0.0361049,0.00687994,-1.79775,0.0815719,0.235861,0.0482539,0.156995,-0.0175692,0.154283,-0.232949,0.973583,-1.21633,-0.00165131,0,0,0,0,0,0,0,23.4955,3.55812,23.1617,-32.4259,10.8658,-14.1855,-0.0527946,0.0598149,0.0368208,0.000963049,-1.7877,0.0499053,0.27581,0.0484823,0.0472939,-0.000785831,0.22665,-0.177038,0.223634,-0.474337,-0.00076706,0,0,0,0,0,0,0,5.0777,-33.4987,4.88862,22.3688,1.8399,0.957571,0.0101778,
0.067148,0.0359859,0.00817572,-1.80011,0.0895397,0.226777,0.048245,0.158511,-0.0170299,0.155821,-0.245343,0.978061,-1.20015,-0.00154357,0,0,0,0,0,0,0,22.2436,2.68317,21.9245,-31.9477,10.8658,-14.1855,-0.0515834,0.0598149,0.0368208,0.000963049,-1.7877,0.0499053,0.27581,0.0484823,0.0472939,-0.000785831,0.22665,-0.177038,0.223634,-0.474337,-0.00076706,0,0,0,0,0,0,0,5.0777,-33.4987,4.88862,22.3688,1.8399,0.957571,0.0101778,
0.0684812,0.035895,0.00948798,-1.80257,0.0976958,0.218363,0.0482443,0.160137,-0.0158961,0.157464,-0.257755,0.986351,-1.17048,-0.00125276,0,0,0,0,0,0,0,21.1709,1.90355,20.8652,-31.4836,10.8658,-14.1855,-0.0450053,0.0598149,0.0368208,0.000963049,-1.7877,0.0499053,0.27581,0.0484823,0.0472939,-0.000785831,0.22665,-0.177038,0.223634,-0.474337,-0.00076706,0,0,0,0,0,0,0,5.0777,-33.4987,4.88862,22.3688,1.8399,0.957571,0.0101778,
0.0680004,0.0359166,0.0155908,-1.80717,0.0908808,0.218576,0.0482926,0.161191,-0.0171662,0.158527,-0.275414,0.983404,-1.13858,-0.00130593,0,0,0,0,0,0,0,23.0118,2.13769,22.6996,-36.5364,10.8481,-14.0587,-0.0475034,0.0616891,0.0367683,0.00938007,-1.79475,0.0584452,0.25789,0.0484863,0.0461869,0.00201448,0.259575,-0.230965,0.266955,-0.587362,0.000494928,-0.138379,0.350038,4.11562,-6.74083,5.41515,-14.1282,0.157749,4.82379,-34.8198,4.56331,23.2892,1.65039,1.01708,-0.0227812,
0.0693425,0.0357663,0.0169119,-1.81002,0.0989023,0.211208,0.0482879,0.162505,-0.0174906,0.15985,-0.29163,0.987259,-1.09507,-0.00116327,0,0,0,0,0,0,0,21.81,1.21569,21.5006,-36.01,10.8481,-14.0587,-0.0423092,0.0616891,0.0367683,0.00938007,-1.79475,0.0584452,0.25789,0.0484863,0.0461869,0.00201448,0.259575,-0.230965,0.266955,-0.587362,0.000494928,0,0,0,0,0,0,0,4.82379,-34.8198,4.56331,23.2892,1.65039,1.01708,-0.0227812,
0.0706943,0.0356479,0.0182428,-1.81292,0.107088,0.204675,0.0482897,0.163798,-0.0169514,0.161152,-0.305657,0.994459,-1.0394,-0.000885811,0,0,0,0,0,0,0,20.7462,0.348646,20.4457,-35.5504,10.8481,-13.8593,-0.0355257,0.0616891,0.0367683,0.00938007,-1.79475,0.0584452,0.25789,0.0484863,0.0461869,0.00201448,0.259575,-0.230965,0.266955,-0.587362,0.000494928,0,0,0,0,0,0,0,4.82379,-34.8198,4.56331,23.2892,1.65039,1.01708,-0.0227812,
0.0720477,0.0355605,0.0195753,-1.81582,0.115383,0.199013,0.0482981,0.164874,-0.0157474,0.162235,-0.317133,1.00293,-0.973044,-0.000499154,0,0,0,0,0,0,0,19.8223,-0.397053,19.533,-35.1122,10.8481,-11.5509,-0.0282834,0.0616891,0.0367683,0.00938007,-1.79475,0.0584452,0.25789,0.0484863,0.0461869,0.00201448,0.259575,-0.230965,0.266955,-0.587362,0.000494928,0,0,0,0,0,0,0,4.82379,-34.8198,4.56331,23.2892,1.65039,1.01708,-0.0227812,
0.0705888,0.0360238,0.0255237,-1.81823,0.101917,0.203319,0.0483383,0.16615,-0.0153013,0.163505,-0.332328,0.999218,-0.918047,-0.000560142,0,0,0,0,0,0,0,22.363,1.4813,22.0635,-39.6646,10.8277,-13.1011,-0.0354154,0.0638687,0.0367755,0.0189086,-1.80362,0.068448,0.235782,0.04849,0.0635593,-0.000530473,0.283429,-0.271656,0.319219,-0.695932,0.000545329,2.17155,-0.318119,2.98171,-5.08647,6.53291,-13.5712,0.00630011,2.01099,-35.8949,1.78621,24.4873,1.22833,1.49499,-0.0163725,
0.0719656,0.0359498,0.0268794,-1.8214,0.110008,0.198511,0.0483407,0.16734,-0.0140906,0.164697,-0.345016,1.00165,-0.854641,-0.000386889,0,0,0,0,0,0,0,21.1914,0.618431,20.898,-39.1718,10.8277,-10.7438,-0.0324671,0.0638687,0.0367755,0.0189086,-1.80362,0.068448,0.235782,0.04849,0.0635593,-0.000530473,0.283429,-0.271656,0.319219,-0.695932,0.000545329,0,0,0,0,0,0,0,2.01099,-35.8949,1.78621,24.4873,1.22833,1.49499,-0.0163725,
0.0733419,0.0359061,0.0282343,-1.82456,0.118241,0.194491,0.0483521,0.16828,-0.0123664,0.165628,-0.355026,1.00715,-0.784209,-2.40057e-05,0,0,0,0,0,0,0,20.1859,-0.0701725,19.9021,-38.6887,10.8277,-8.71679,-0.0265375,0.0638687,0.0367755,0.0189086,-1.80362,0.068448,0.235782,0.04849,0.0635593,-0.000530473,0.283429,-0.271656,0.319219,-0.695932,0.000545329,0,0,0,0,0,0,0,2.01099,-35.8949,1.78621,24.4873,1.22833,1.49499,-0.0163725,
0.0747097,0.0358876,0.029581,-1.82769,0.126568,0.191233,0.0483682,0.168818,-0.0103548,0.166171,-0.3624,1.0139,-0.708812,0.000383081,0,0,0,0,0,0,0,19.3275,-0.584034,19.0546,-38.1921,10.8277,-6.96294,-0.0195455,0.0638687,0.0367755,0.0189086,-1.80362,0.068448,0.235782,0.04849,0.0635593,-0.000530473,0.283429,-0.271656,0.319219,-0.695932,0.000545329,0,0,0,0,0,0,0,2.01099,-35.8949,1.78621,24.4873,1.22833,1.49499,-0.0163725,
0.070403,0.0356266,0.0253543,-1.82019,0.102266,0.216599,0.0483753,0.168076,-0.0121936,0.165499,-0.375698,1.00892,-0.633698,0.000279596,0,0,0,0,0,0,0,21.008,-0.560254,20.7491,-42.9039,10.7838,-6.86144,-0.0304339,0.0664159,0.0366984,0.0289158,-1.81413,0.0813122,0.211882,0.0484885,0.0711253,0.00320343,0.303442,-0.326366,0.428718,-0.689204,0.00013435,0.945755,0.466738,2.5017,-6.83872,13.6874,0.841052,-0.0513724,3.09803,-34.0978,2.76216,23.7653,1.11297,1.46844,-0.0026396,
0.0717271,0.0355043,0.0266601,-1.8236,0.110385,0.214568,0.0483837,0.167563,-0.0128103,0.165043,-0.385872,1.01011,-0.557734,0.000432781,0,0,0,0,0,0,0,20.0156,-1.19764,19.762,-42.3652,10.7838,-5.19296,-0.0242532,0.0664159,0.0366984,0.0289158,-1.81413,0.0813122,0.211882,0.0484885,0.0711253,0.00320343,0.303442,-0.326366,0.428718,-0.689204,0.00013435,0,0,0,0,0,0,0,3.09803,-34.0978,2.76216,23.7653,1.11297,1.46844,-0.0026396,
0.0730478,0.0354098,0.0279627,-1.82698,0.118639,0.213143,0.048399,0.167068,-0.0126122,0.164601,-0.39315,1.01445,-0.481825,0.000727295,0,0,0,0,0,0,0,19.1443,-1.65659,18.9018,-41.814,10.7838,-3.77511,-0.0138254,0.0664159,0.0366984,0.0289158,-1.81413,0.0813122,0.211882,0.0484885,0.0711253,0.00320343,0.303442,-0.326366,0.428718,-0.689204,0.00013435,0,0,0,0,0,0,0,3.09803,-34.0978,2.76216,23.7653,1.11297,1.46844,-0.0026396,
0.0732048,0.0361604,0.0356026,-1.83143,0.116585,0.195345,0.0484656,0.167071,-0.0108751,0.164582,-0.401581,1.01216,-0.440437,0.000991067,0,0,0,0,0,0,0,19.9145,-0.13593,19.6531,-43.8051,10.7838,-4.92044,-0.00837322,0.0664159,0.0366984,0.0289158,-1.81413,0.0813122,0.211882,0.0484885,0.0711253,0.00320343,0.303442,-0.326366,0.428718,-0.689204,0.00013435,0,0,0,0,0,0,0,3.09803,-34.0978,2.76216,23.7653,1.11297,1.46844,-0.0026396,
0.0745314,0.0361565,0.0369092,-1.83487,0.124779,0.193659,0.0484874,0.16682,-0.00879562,0.164329,-0.407301,1.01457,-0.394504,0.00133816,0,0,0,0,0,0,0,19.0551,-0.69407,18.7849,-43.0253,10.7081,-3.61586,-0.00139981,0.0690717,0.0367733,0.0389057,-1.82658,0.0971093,0.189574,0.0484948,0.0620598,0.00726115,0.26868,-0.379664,0.464344,-0.585152,0.000857162,-1.13319,0.507215,-4.34521,-6.66229,4.45331,13.0065,0.0903515,-3.21392,-39.0132,-3.48631,31.3388,1.1615,3.03307,-0.0301054,
0.0758437,0.0361745,0.038202,-1.83827,0.133081,0.19245,0.0485125,0.166265,-0.00658682,0.163784,-0.410623,1.0192,-0.345841,0.00169851,0,0,0,0,0,0,0,18.2874,-0.913288,18.0257,-42.4021,10.7081,-2.64472,0.00621099,0.0690717,0.0367733,0.0389057,-1.82658,0.0971093,0.189574,0.0484948,0.0620598,0.00726115,0.26868,-0.379664,0.464344,-0.585152,0.000857162,0,0,0,0,0,0,0,-3.21392,-39.0132,-3.48631,31.3388,1.1615,3.03307,-0.0301054,
0.0771383,0.0362103,0.0394775,-1.8416,0.14145,0.191677,0.0485428,0.165377,-0.00437491,0.162916,-0.411858,1.02459,-0.29598,0.00211649,0,0,0,0,0,0,0,17.5914,-1.02897,17.3396,-41.7663,10.7081,-1.81018,0.0131647,0.0690717,0.0367733,0.0389057,-1.82658,0.0971093,0.189574,0.0484948,0.0620598,0.00726115,0.26868,-0.379664,0.464344,-0.585152,0.000857162,0,0,0,0,0,0,0,-3.21392,-39.0132,-3.48631,31.3388,1.1615,3.03307,-0.0301054,
0.0754107,0.0361367,0.0451644,-1.84557,0.132038,0.181635,0.0485049,0.164151,-0.00549916,0.161752,-0.423007,1.01721,-0.245296,0.00212776,0,0,0,0,0,0,0,19.2503,-2.05911,19.0287,-46.5034,10.7081,-1.49199,-0.000127615,0.0690717,0.0367733,0.0389057,-1.82658,0.0971093,0.189574,0.0484948,0.0620598,0.00726115,0.26868,-0.379664,0.464344,-0.585152,0.000857162,0,0,0,0,0,0,0,-3.21392,-39.0132,-3.48631,31.3388,1.1615,3.03307,-0.0301054,
0.0766801,0.03607,0.0464182,-1.84925,0.140115,0.181781,0.048529,0.163055,-0.0060687,0.160748,-0.430289,1.01571,-0.192599,0.00230359,0,0,0,0,0,0,0,18.4378,-2.57512,18.2067,-45.6255,10.6538,-0.509017,0.00333739,0.0713595,0.0369756,0.0482726,-1.83898,0.111531,0.174163,0.0484973,0.0634824,0.0176476,0.293093,-0.368408,0.454292,-0.380569,0.00519765,0.177829,1.2983,3.05153,1.40706,-1.25653,25.5728,0.542562,-2.47998,-36.9939,-2.53813,27.6492,0.336605,2.91405,-0.00996382,
0.0779388,0.036012,0.0476623,-1.85285,0.148312,0.182359,0.0485534,0.161911,-0.0063029,0.1597,-0.434395,1.01748,-0.139625,0.00245413,0,0,0,0,0,0,0,17.7099,-2.7172,17.4856,-44.9394,10.6538,0.213064,0.00809134,0.0713595,0.0369756,0.0482726,-1.83898,0.111531,0.174163,0.0484973,0.0634824,0.0176476,0.293093,-0.368408,0.454292,-0.380569,0.00519765,0,0,0,0,0,0,0,-2.47998,-36.9939,-2.53813,27.6492,0.336605,2.91405,-0.00996382,
0.0791848,0.0359613,0.048889,-1.85639,0.156588,0.183321,0.048578,0.160679,-0.00631153,0.158428,-0.435891,1.02088,-0.0876347,0.00257807,0,0,0,0,0,0,0,17.0655,-2.76467,16.8491,-44.2349,10.6538,0.844025,0.0167491,0.0713595,0.0369756,0.0482726,-1.83898,0.111531,0.174163,0.0484973,0.0634824,0.0176476,0.293093,-0.368408,0.454292,-0.380569,0.00519765,0,0,0,0,0,0,0,-2.47998,-36.9939,-2.53813,27.6492,0.336605,2.91405,-0.00996382,
0.0774468,0.0365799,0.0542664,-1.85703,0.146831,0.174588,0.0485731,0.157804,-0.00605836,0.155454,-0.436035,1.0158,-0.0414471,0.00265376,0,0,0,0,0,0,0,16.4487,-2.74399,16.2435,-43.5272,10.6538,1.38787,0.0234141,0.0713595,0.0369756,0.0482726,-1.83898,0.111531,0.174163,0.0484973,0.0634824,0.0176476,0.293093,-0.368408,0.454292,-0.380569,0.00519765,0,0,0,0,0,0,0,-2.47998,-36.9939,-2.53813,27.6492,0.336605,2.91405,-0.00996382,
0.0786036,0.0365513,0.0554013,-1.86044,0.154948,0.176094,0.048599,0.155164,-0.005562,0.152736,-0.434144,1.01556,0.00449937,0.00276978,0,0,0,0,0,0,0,15.8578,-2.67221,15.6789,-42.816,10.6538,1.86086,0.0321511,0.0713595,0.0369756,0.0482726,-1.83898,0.111531,0.174163,0.0484973,0.0634824,0.0176476,0.293093,-0.368408,0.454292,-0.380569,0.00519765,0,0,0,0,0,0,0,-2.47998,-36.9939,-2.53813,27.6492,0.336605,2.91405,-0.00996382,
0.079747,0.0365305,0.0565232,-1.86377,0.163158,0.177914,0.0486266,0.152715,-0.00496911,0.150237,-0.430689,1.01771,0.0490944,0.0029054,0,0,0,0,0,0,0,15.251,-2.74425,15.0768,-41.9965,10.5764,2.37028,0.0321608,0.0728421,0.0372299,0.0579211,-1.85193,0.128667,0.162487,0.0484967,0.0334778,-0.00584949,0.268398,-0.407181,0.500475,-0.309067,-0.00056874,-3.75058,-2.93713,-3.08689,-4.84663,5.7729,8.93778,-0.720799,1.17389,-36.0417,0.889601,28.9465,1.40594,3.10631,0.0101778,
0.0782137,0.0370657,0.0631953,-1.86912,0.162726,0.16634,0.048622,0.149192,-0.00354944,0.146787,-0.425693,0.990064,0.0869537,0.00323656,0,0,0,0,0,0,0,14.3255,-2.38675,14.0788,-40.535,10.5764,3.02835,0.0329823,0.0728421,0.0372299,0.0579211,-1.85193,0.128667,0.162487,0.0484967,0.0334778,-0.00584949,0.268398,-0.407181,0.500475,-0.309067,-0.00056874,0,0,0,0,0,0,0,1.17389,-36.0417,0.889601,28.9465,1.40594,3.10631,0.0101778,
0.0793146,0.0370798,0.0642804,-1.87227,0.169296,0.168579,0.0486598,0.146875,-0.002487,0.144557,-0.419242,0.956302,0.12552,0.00353482,0,0,0,0,0,0,0,13.9522,-2.19238,13.7032,-39.787,10.5764,3.30109,0.0353839,0.0728421,0.0372299,0.0579211,-1.85193,0.128667,0.162487,0.0484967,0.0334778,-0.00584949,0.268398,-0.407181,0.500475,-0.309067,-0.00056874,0,0,0,0,0,0,0,1.17389,-36.0417,0.889601,28.9465,1.40594,3.10631,0.0101778,
0.0804307,0.0370848,0.0653812,-1.87533,0.175328,0.171081,0.0486975,0.145402,-0.00186464,0.143164,-0.411839,0.915832,0.162975,0.00377163,0,0,0,0,0,0,0,13.6241,-2.01668,13.3811,-39.0439,10.5764,3.54728,0.0373735,0.0728421,0.0372299,0.0579211,-1.85193,0.128667,0.162487,0.0484967,0.0334778,-0.00584949,0.268398,-0.407181,0.500475,-0.309067,-0.00056874,0,0,0,0,0,0,0,1.17389,-36.0417,0.889601,28.9465,1.40594,3.10631,0.0101778,
0.0815562,0.037078,0.0664914,-1.87831,0.180797,0.173794,0.0487358,0.144459,-0.00166217,0.142288,-0.403848,0.8694,0.198205,0.0039728,0,0,0,0,0,0,0,13.3413,-2.07787,13.0934,-38.1476,9.46301,3.87974,0.0399671,0.0741458,0.0372973,0.0674158,-1.86578,0.146294,0.154693,0.0485003,0.0415127,-0.0132083,0.28296,-0.399985,0.524746,-0.134097,0.00107823,1.00436,-0.919846,1.8203,0.899446,3.03387,21.8713,0.205872,-2.22607,-36.0179,-2.3358,26.9788,1.02691,2.97997,-0.0227812,
0.0799006,0.0371115,0.0730848,-1.88156,0.172137,0.162649,0.048657,0.143784,-0.00146241,0.141625,-0.39715,0.812428,0.221551,0.0040999,0,0,0,0,0,0,0,13.0715,-1.95873,12.8331,-37.4249,8.32444,4.05288,0.0405313,0.0741458,0.0372973,0.0674158,-1.86578,0.146294,0.154693,0.0485003,0.0415127,-0.0132083,0.28296,-0.399985,0.524746,-0.134097,0.00107823,0,0,0,0,0,0,0,-2.22607,-36.0179,-2.3358,26.9788,1.02691,2.97997,-0.0227812,
0.0810241,0.0371001,0.074192,-1.88443,0.176384,0.165414,0.048695,0.143114,-0.00145589,0.140981,-0.389645,0.756107,0.24636,0.00422984,0,0,0,0,0,0,0,12.8421,-1.86486,12.6123,-36.7124,7.32663,4.188,0.0411515,0.0741458,0.0372973,0.0674158,-1.86578,0.146294,0.154693,0.0485003,0.0415127,-0.0132083,0.28296,-0.399985,0.524746,-0.134097,0.00107823,0,0,0,0,0,0,0,-2.22607,-36.0179,-2.3358,26.9788,1.02691,2.97997,-0.0227812,
0.0821406,0.0370791,0.0752926,-1.88723,0.180201,0.168363,0.0487335,0.142404,-0.00168875,0.1403,-0.381667,0.700319,0.270827,0.00434861,0,0,0,0,0,0,0,12.6535,-1.79077,12.4325,-36.0103,6.45988,4.2969,0.0410496,0.0741458,0.0372973,0.0674158,-1.86578,0.146294,0.154693,0.0485003,0.0415127,-0.0132083,0.28296,-0.399985,0.524746,-0.134097,0.00107823,0,0,0,0,0,0,0,-2.22607,-36.0179,-2.3358,26.9788,1.02691,2.97997,-0.0227812,
0.0832481,0.0370475,0.0763845,-1.88996,0.183606,0.171451,0.048773,0.141613,-0.00214125,0.139539,-0.373446,0.645372,0.293849,0.00446409,0,0,0,0,0,0,0,12.496,-1.88656,12.2692,-35.215,5.61481,4.45858,0.0414016,0.0755284,0.0375065,0.0769287,-1.8798,0.163825,0.153707,0.0484986,0.0349657,0.00494104,0.268438,-0.404787,0.499288,0.00477651,0.00228403,-0.818373,2.26866,-1.81523,-0.600208,-3.18231,17.3591,0.150724,-1.97216,-37.2676,-2.03826,29.1687,1.25946,2.81426,-0.00996382,
0.081206,0.0377458,0.082535,-1.89454,0.181448,0.163971,0.0486836,0.140931,-0.00103436,0.138852,-0.367376,0.58917,0.304941,0.00455699,0,0,0,0,0,0,0,12.37,-1.84307,12.1513,-34.5288,4.93257,4.52691,0.0420454,0.0755284,0.0375065,0.0769287,-1.8798,0.163825,0.153707,0.0484986,0.0349657,0.00494104,0.268438,-0.404787,0.499288,0.00477651,0.00228403,0,0,0,0,0,0,0,-1.97216,-37.2676,-2.03826,29.1687,1.25946,2.81426,-0.00996382,
0.0822966,0.0377551,0.0836091,-1.8972,0.184048,0.166949,0.0487236,0.140009,-0.000596643,0.137935,-0.360413,0.536333,0.318407,0.00464538,0,0,0,0,0,0,0,12.2626,-1.81084,12.0513,-33.849,4.32048,4.57814,0.0434323,0.0755284,0.0375065,0.0769287,-1.8798,0.163825,0.153707,0.0484986,0.0349657,0.00494104,0.268438,-0.404787,0.499288,0.00477651,0.00228403,0,0,0,0,0,0,0,-1.97216,-37.2676,-2.03826,29.1687,1.25946,2.81426,-0.00996382,
0.0833714,0.037747,0.0846678,-1.89978,0.186355,0.170058,0.0487637,0.138878,-0.000678257,0.136815,-0.352904,0.486749,0.332448,0.00472092,0,0,0,0,0,0,0,12.1644,-1.78655,11.9604,-33.1756,3.78819,4.61419,0.0443889,0.0755284,0.0375065,0.0769287,-1.8798,0.163825,0.153707,0.0484986,0.0349657,0.00494104,0.268438,-0.404787,0.499288,0.00477651,0.00228403,0,0,0,0,0,0,0,-1.97216,-37.2676,-2.03826,29.1687,1.25946,2.81426,-0.00996382,
0.0825387,0.0378906,0.0915704,-1.90564,0.19015,0.166455,0.0486908,0.138035,-0.000932106,0.135963,-0.344676,0.43512,0.339818,0.00477578,0,0,0,0,0,0,0,11.9605,-1.91012,11.7564,-31.7567,2.85128,4.69914,0.0465325,0.0769135,0.0378863,0.0860131,-1.89234,0.178396,0.154642,0.0484967,0.0421641,0.00958801,0.261583,-0.341233,0.38369,0.0580991,-0.00154656,0.899803,0.580872,-0.856945,7.94423,-14.4497,6.66532,-0.478823,-0.95654,-37.216,-1.0623,26.8518,1.09466,2.19811,0.0101778,
0.0835925,0.037863,0.0926077,-1.90806,0.191762,0.169534,0.0487307,0.136774,-0.00143706,0.134704,-0.336195,0.388401,0.348838,0.00481771,0,0,0,0,0,0,0,11.8644,-1.8993,11.6665,-31.0968,2.49053,4.69609,0.0475245,0.0769135,0.0378863,0.0860131,-1.89234,0.178396,0.154642,0.0484967,0.0421641,0.00958801,0.261583,-0.341233,0.38369,0.0580991,-0.00154656,0,0,0,0,0,0,0,-0.95654,-37.216,-1.0623,26.8518,1.09466,2.19811,0.0101778,
0.0846236,0.0378235,0.0936226,-1.91041,0.193183,0.172694,0.0487703,0.135197,-0.00213584,0.133137,-0.327637,0.346238,0.358052,0.00484454,0,0,0,0,0,0,0,11.7627,-1.8898,11.5708,-30.44,2.1815,4.6826,0.048056,0.0769135,0.0378863,0.0860131,-1.89234,0.178396,0.154642,0.0484967,0.0421641,0.00958801,0.261583,-0.341233,0.38369,0.0580991,-0.00154656,0,0,0,0,0,0,0,-0.95654,-37.216,-1.0623,26.8518,1.09466,2.19811,0.0101778,
0.0856327,0.0377733,0.0946159,-1.91269,0.194435,0.175899,0.0488097,0.133385,-0.00296442,0.131342,-0.319114,0.30829,0.36658,0.00486046,0,0,0,0,0,0,0,11.655,-1.8812,11.4688,-29.786,1.91062,4.65913,0.0486071,0.0769135,0.0378863,0.0860131,-1.89234,0.178396,0.154642,0.0484967,0.0421641,0.00958801,0.261583,-0.341233,0.38369,0.0580991,-0.00154656,0,0,0,0,0,0,0,-0.95654,-37.216,-1.0623,26.8518,1.09466,2.19811,0.0101778,
0.0825329,0.0380489,0.0915723,-1.90474,0.18761,0.165671,0.0486977,0.133183,-0.00227332,0.131141,-0.312747,0.278983,0.362823,0.00485895,0,0,0,0,0,0,0,11.5278,-1.96561,11.3329,-29.0701,1.64558,4.67147,0.0488338,0.0785585,0.0386186,0.0945305,-1.90352,0.188917,0.15684,0.0484966,0.0528628,0.0222805,0.247695,-0.317854,0.237356,0.0536137,-0.000996496,1.33734,1.58656,-1.7359,2.92245,-18.2918,-0.560667,0.0687575,1.09455,-34.5976,0.937208,23.5391,1.32629,1.32928,0.0101778,
0.0835597,0.0380373,0.0925831,-1.90696,0.188731,0.168569,0.048736,0.132214,-0.00210982,0.130182,-0.30571,0.251215,0.362719,0.00484495,0,0,0,0,0,0,0,11.4054,-1.95648,11.2158,-28.4198,1.44449,4.6317,0.0489957,0.0785585,0.0386186,0.0945305,-1.90352,0.188917,0.15684,0.0484966,0.0528628,0.0222805,0.247695,-0.317854,0.237356,0.0536137,-0.000996496,0,0,0,0,0,0,0,1.09455,-34.5976,0.937208,23.5391,1.32629,1.32928,0.0101778,
0.0845561,0.0380114,0.0935639,-1.90911,0.189709,0.171539,0.0487738,0.130681,-0.00233373,0.128667,-0.298268,0.225424,0.364406,0.00482147,0,0,0,0,0,0,0,11.2752,-1.94632,11.0906,-27.7705,1.27412,4.58556,0.0488526,0.0785585,0.0386186,0.0945305,-1.90352,0.188917,0.15684,0.0484966,0.0528628,0.0222805,0.247695,-0.317854,0.237356,0.0536137,-0.000996496,0,0,0,0,0,0,0,1.09455,-34.5976,0.937208,23.5391,1.32629,1.32928,0.0101778,
0.0855242,0.0379732,0.0945169,-1.91119,0.190567,0.174546,0.0488113,0.128749,-0.00282344,0.126759,-0.290609,0.201782,0.366698,0.00479367,0,0,0,0,0,0,0,11.1379,-1.93534,10.9581,-27.1222,1.12575,4.53339,0.0487149,0.0785585,0.0386186,0.0945305,-1.90352,0.188917,0.15684,0.0484966,0.0528628,0.0222805,0.247695,-0.317854,0.237356,0.0536137,-0.000996496,0,0,0,0,0,0,0,1.09455,-34.5976,0.937208,23.5391,1.32629,1.32928,0.0101778,
0.0839293,0.0389974,0.099833,-1.915,0.194755,0.167219,0.048685,0.12793,-0.00156814,0.125919,-0.285098,0.182088,0.358661,0.00475362,0,0,0,0,0,0,0,10.9712,-2.05145,10.7836,-26.4324,0.974105,4.49451,0.0484686,0.080326,0.0391997,0.102588,-1.91347,0.194022,0.159517,0.0484997,0.0418617,0.0188308,0.207941,-0.250813,0.0970712,0.0888535,0.00165407,-1.37514,-0.431211,-4.96927,8.38012,-17.5355,4.40497,0.331321,-5.72522,-37.9421,-5.50963,27.6492,0.715634,2.46911,-0.0301054,
0.0848922,0.0390042,0.10078,-1.91702,0.195473,0.169939,0.0487214,0.126417,-0.00108306,0.124402,-0.278662,0.163612,0.354918,0.00471186,0,0,0,0,0,0,0,10.8197,-2.03822,10.6367,-25.7849,0.864177,4.43372,0.048138,0.080326,0.0391997,0.102588,-1.91347,0.194022,0.159517,0.0484997,0.0418617,0.0188308,0.207941,-0.250813,0.0970712,0.0888535,0.00165407,0,0,0,0,0,0,0,-5.72522,-37.9421,-5.50963,27.6492,0.715634,2.46911,-0.0301054,
0.0858237,0.0389929,0.101695,-1.91897,0.196099,0.172724,0.0487574,0.124421,-0.00114861,0.122414,-0.271633,0.146547,0.353565,0.00467038,0,0,0,0,0,0,0,10.6616,-2.0237,10.483,-25.1371,0.770477,4.37027,0.0476685,0.080326,0.0391997,0.102588,-1.91347,0.194022,0.159517,0.0484997,0.0418617,0.0188308,0.207941,-0.250813,0.0970712,0.0888535,0.00165407,0,0,0,0,0,0,0,-5.72522,-37.9421,-5.50963,27.6492,0.715634,2.46911,-0.0301054,
0.0849353,0.0392536,0.107134,-1.9235,0.196979,0.17058,0.0486813,0.121407,-0.00132978,0.119417,-0.263634,0.128351,0.348102,0.00463733,0,0,0,0,0,0,0,10.3279,-1.99183,10.1576,-23.841,0.614436,4.23789,0.0467903,0.080326,0.0391997,0.102588,-1.91347,0.194022,0.159517,0.0484997,0.0418617,0.0188308,0.207941,-0.250813,0.0970712,0.0888535,0.00165407,0,0,0,0,0,0,0,-5.72522,-37.9421,-5.50963,27.6492,0.715634,2.46911,-0.0301054,
0.0857867,0.0392251,0.107971,-1.92528,0.197367,0.173256,0.0487172,0.118411,-0.00177775,0.116444,-0.255418,0.112376,0.345386,0.00460565,0,0,0,0,0,0,0,10.1531,-1.97469,9.98678,-23.1924,0.547622,4.17062,0.0464091,0.080326,0.0391997,0.102588,-1.91347,0.194022,0.159517,0.0484997,0.0418617,0.0188308,0.207941,-0.250813,0.0970712,0.0888535,0.00165407,0,0,0,0,0,0,0,-5.72522,-37.9421,-5.50963,27.6492,0.715634,2.46911,-0.0301054,
0.0866157,0.0391854,0.108785,-1.92699,0.197702,0.175967,0.0487529,0.115453,-0.00241335,0.113513,-0.247133,0.0982921,0.344083,0.00457764,0,0,0,0,0,0,0,9.96318,-2.01501,9.78861,-22.5105,0.483918,4.11893,0.0460277,0.0819028,0.0399226,0.110051,-1.92108,0.195047,0.163376,0.0484959,0.0397032,0.0332225,0.21447,-0.208695,-0.000482741,0.110234,0.000109952,-0.269815,1.79896,0.816098,5.26477,-12.1942,2.67257,-0.193015,-0.95654,-35.5934,-1.01073,25.5823,1.22833,1.77971,0.017502,
0.0874233,0.039136,0.109578,-1.92864,0.197989,0.17869,0.0487887,0.112553,-0.00316495,0.110643,-0.238876,0.0857931,0.343343,0.00455664,0,0,0,0,0,0,0,9.77971,-1.99655,9.60895,-21.861,0.425892,4.05285,0.0457498,0.0819028,0.0399226,0.110051,-1.92108,0.195047,0.163376,0.0484959,0.0397032,0.0332225,0.21447,-0.208695,-0.000482741,0.110234,0.000109952,0,0,0,0,0,0,0,-0.95654,-35.5934,-1.01073,25.5823,1.22833,1.77971,0.017502,
0.0862959,0.0400863,0.114375,-1.93,0.196354,0.174288,0.0486625,0.11044,-0.00277712,0.10852,-0.232095,0.074391,0.336754,0.0045307,0,0,0,0,0,0,0,9.59279,-1.97738,9.42581,-21.2109,0.371249,3.98828,0.0454868,0.0819028,0.0399226,0.110051,-1.92108,0.195047,0.163376,0.0484959,0.0397032,0.0332225,0.21447,-0.208695,-0.000482741,0.110234,0.000109952,0,0,0,0,0,0,0,-0.95654,-35.5934,-1.01073,25.5823,1.22833,1.77971,0.017502,
0.0870864,0.0400623,0.11515,-1.93157,0.196547,0.176817,0.0486983,0.108113,-0.0028225,0.106198,-0.224872,0.0643347,0.332631,0.00451809,0,0,0,0,0,0,0,9.40348,-1.95794,9.24015,-20.5608,0.316617,3.92477,0.0453544,0.0819028,0.0399226,0.110051,-1.92108,0.195047,0.163376,0.0484959,0.0397032,0.0332225,0.21447,-0.208695,-0.000482741,0.110234,0.000109952,0,0,0,0,0,0,0,-0.95654,-35.5934,-1.01073,25.5823,1.22833,1.77971,0.017502,
0.0878534,0.0400259,0.115902,-1.93307,0.196701,0.179366,0.0487344,0.105666,-0.00316643,0.103767,-0.217392,0.055318,0.329826,0.00451762,0,0,0,0,0,0,0,9.21525,-2.01513,9.04442,-19.8796,0.267765,3.88203,0.0451744,0.0825044,0.0405368,0.116979,-1.92786,0.194977,0.165187,0.0484957,0.00436886,0.0241093,0.19498,-0.189523,0.00154459,0.0281409,0.000283689,-4.41679,-1.13915,-2.43627,2.39648,0.253416,-10.2616,0.0217171,0.285221,-36.1925,0.238966,28.6212,1.61926,2.36382,0.017502,
0.0885987,0.0399792,0.116633,-1.93451,0.196817,0.181914,0.048771,0.103165,-0.00370108,0.101288,-0.209787,0.0471482,0.327559,0.00452867,0,0,0,0,0,0,0,9.02394,-1.99482,8.85667,-19.2298,0.214205,3.82016,0.0452343,0.0825044,0.0405368,0.116979,-1.92786,0.194977,0.165187,0.0484957,0.00436886,0.0241093,0.19498,-0.189523,0.00154459,0.0281409,0.000283689,0,0,0,0,0,0,0,0.285221,-36.1925,0.238966,28.6212,1.61926,2.36382,0.017502,
0.0862582,0.0406384,0.120678,-1.9358,0.195376,0.174334,0.0486779,0.100567,-0.00317834,0.0987025,-0.203733,0.0384256,0.317774,0.00456401,0,0,0,0,0,0,0,8.83344,-1.97386,8.66971,-18.5806,0.162297,3.7581,0.045366,0.0825044,0.0405368,0.116979,-1.92786,0.194977,0.165187,0.0484957,0.00436886,0.0241093,0.19498,-0.189523,0.00154459,0.0281409,0.000283689,0,0,0,0,0,0,0,0.285221,-36.1925,0.238966,28.6212,1.61926,2.36382,0.017502,
0.0869622,0.0406173,0.121368,-1.93716,0.195382,0.176618,0.048716,0.0980547,-0.00307027,0.0962058,-0.197048,0.0309007,0.31132,0.00460494,0,0,0,0,0,0,0,8.64508,-1.95247,8.48486,-17.9327,0.111325,3.69379,0.0456143,0.0825044,0.0405368,0.116979,-1.92786,0.194977,0.165187,0.0484957,0.00436886,0.0241093,0.19498,-0.189523,0.00154459,0.0281409,0.000283689,0,0,0,0,0,0,0,0.285221,-36.1925,0.238966,28.6212,1.61926,2.36382,0.017502,
0.0876488,0.0405848,0.12204,-1.93845,0.195373,0.178918,0.0487545,0.0956079,-0.00326875,0.0937792,-0.189962,0.0244882,0.306553,0.0046442,0,0,0,0,0,0,0,8.46028,-2.00283,8.29258,-17.2408,0.0671183,3.65343,0.0458305,0.0830456,0.0411484,0.123631,-1.93396,0.194902,0.165634,0.0484945,0.0128833,0.0148853,0.187379,-0.157575,-0.00660592,0.00501677,0.000312891,1.06431,-1.15299,-0.950064,3.99342,-1.01881,-2.89052,0.00365026,-1.97216,-37.7159,-1.8637,29.6924,1.64398,2.55608,-0.0026396,
0.0866663,0.0410636,0.127193,-1.94073,0.195046,0.173719,0.0486839,0.0935305,-0.00335982,0.0917028,-0.182237,0.0194457,0.294509,0.00473555,0,0,0,0,0,0,0,8.10656,-1.95511,7.9459,-15.9551,-0.0123534,3.49754,0.047012,0.0830456,0.0411484,0.123631,-1.93396,0.194902,0.165634,0.0484945,0.0128833,0.0148853,0.187379,-0.157575,-0.00660592,0.00501677,0.000312891,0,0,0,0,0,0,0,-1.97216,-37.7159,-1.8637,29.6924,1.64398,2.55608,-0.0026396,
0.0873268,0.0410263,0.127839,-1.94187,0.195038,0.17571,0.0487265,0.091335,-0.00362192,0.0895174,-0.174272,0.0153418,0.285369,0.00485375,0,0,0,0,0,0,0,7.93858,-1.92909,7.78158,-15.3171,-0.0385148,3.40451,0.0479098,0.0830456,0.0411484,0.123631,-1.93396,0.194902,0.165634,0.0484945,0.0128833,0.0148853,0.187379,-0.157575,-0.00660592,0.00501677,0.000312891,0,0,0,0,0,0,0,-1.97216,-37.7159,-1.8637,29.6924,1.64398,2.55608,-0.0026396,
0.0879655,0.0409809,0.128464,-1.94294,0.195043,0.177678,0.0487667,0.0890354,-0.00403061,0.0872348,-0.166235,0.0124074,0.277503,0.00488868,0,0,0,0,0,0,0,7.77526,-1.90153,7.62205,-14.6832,-0.0499711,3.29817,0.0484217,0.0830456,0.0411484,0.123631,-1.93396,0.194902,0.165634,0.0484945,0.0128833,0.0148853,0.187379,-0.157575,-0.00660592,0.00501677,0.000312891,0,0,0,0,0,0,0,-1.97216,-37.7159,-1.8637,29.6924,1.64398,2.55608,-0.0026396,
0.0885854,0.0409286,0.129071,-1.94395,0.195036,0.179606,0.0488061,0.0867257,-0.00453357,0.0849465,-0.158219,0.00976428,0.270196,0.00489609,0,0,0,0,0,0,0,7.61828,-1.93801,7.45688,-14.0177,-0.0617025,3.20174,0.049252,0.08327,0.0418657,0.129959,-1.9387,0.194598,0.165987,0.0484955,-0.00685868,0.00400733,0.180984,-0.126855,-0.0210851,0.00966897,-0.000265585,-2.46775,-1.35975,-0.799456,3.84007,-1.80989,0.581525,-0.0723095,-0.325741,-35.9941,-0.137926,26.2805,1.8399,2.14501,0.017502,
0.0864766,0.0415857,0.133113,-1.94424,0.194462,0.173052,0.0487015,0.0846411,-0.00494072,0.0828682,-0.151145,0.0066687,0.258113,0.00504539,0,0,0,0,0,0,0,7.47291,-1.90594,7.31492,-13.3917,-0.0629189,3.06824,0.0517083,0.08327,0.0418657,0.129959,-1.9387,0.194598,0.165987,0.0484955,-0.00685868,0.00400733,0.180984,-0.126855,-0.0210851,0.00966897,-0.000265585,0,0,0,0,0,0,0,-0.325741,-35.9941,-0.137926,26.2805,1.8399,2.14501,0.017502,
0.0870699,0.0415307,0.133693,-1.94516,0.194389,0.174773,0.0487591,0.0825459,-0.00532607,0.0807886,-0.143995,0.00352349,0.249525,0.00547771,0,0,0,0,0,0,0,7.30881,-1.8686,7.15545,-12.7668,-0.0414009,2.91816,0.0542471,0.08327,0.0418657,0.129959,-1.9387,0.194598,0.165987,0.0484955,-0.00685868,0.00400733,0.180984,-0.126855,-0.0210851,0.00966897,-0.000265585,0,0,0,0,0,0,0,-0.325741,-35.9941,-0.137926,26.2805,1.8399,2.14501,0.017502,
0.0876345,0.0414701,0.134244,-1.94604,0.194401,0.176521,0.0487899,0.0801517,-0.00577731,0.0784162,-0.137047,0.00311186,0.243309,0.00515214,0,0,0,0,0,0,0,7.11271,-1.83732,6.96472,-12.1556,0.00931324,2.75598,0.0514068,0.08327,0.0418657,0.129959,-1.9387,0.194598,0.165987,0.0484955,-0.00685868,0.00400733,0.180984,-0.126855,-0.0210851,0.00966897,-0.000265585,0,0,0,0,0,0,0,-0.325741,-35.9941,-0.137926,26.2805,1.8399,2.14501,0.017502,
0.0881866,0.0414054,0.134783,-1.94687,0.19429,0.178389,0.0488141,0.0779236,-0.00623911,0.0762092,-0.130329,-0.000293608,0.241345,0.00472703,0,0,0,0,0,0,0,6.94408,-1.84868,6.78521,-11.5028,-0.0568003,2.65677,0.0499277,0.0833264,0.0424378,0.13572,-1.94317,0.19401,0.166499,0.0484923,-0.00365494,-0.00267088,0.15593,-0.120158,-0.0158895,0.0154024,0.000796399,0.400468,-0.834776,-3.13176,0.837103,0.649451,0.716673,0.132748,0.158268,-35.0697,0.413527,24.1144,1.83349,1.70006,0.0101778,
0.0861727,0.0421763,0.138513,-1.94781,0.193491,0.172951,0.0486826,0.0759061,-0.00626201,0.0741967,-0.124535,-0.00540244,0.235457,0.00459102,0,0,0,0,0,0,0,6.8023,-1.80339,6.64348,-10.8978,-0.130468,2.59287,0.0568012,0.0833264,0.0424378,0.13572,-1.94317,0.19401,0.166499,0.0484923,-0.00365494,-0.00267088,0.15593,-0.120158,-0.0158895,0.0154024,0.000796399,0,0,0,0,0,0,0,0.158268,-35.0697,0.413527,24.1144,1.83349,1.70006,0.0101778,
0.086696,0.0421217,0.139024,-1.94856,0.193292,0.174676,0.0487178,0.0738082,-0.00637261,0.0721134,-0.118386,-0.0092979,0.23148,0.00455062,0,0,0,0,0,0,0,6.56068,-1.75427,6.40813,-10.2867,-0.175815,2.58626,0.0730256,0.0833264,0.0424378,0.13572,-1.94317,0.19401,0.166499,0.0484923,-0.00365494,-0.00267088,0.15593,-0.120158,-0.0158895,0.0154024,0.000796399,0,0,0,0,0,0,0,0.158268,-35.0697,0.413527,24.1144,1.83349,1.70006,0.0101778,
0.0871973,0.0420623,0.139512,-1.94925,0.193136,0.176373,0.048741,0.0715789,-0.00658388,0.0699043,-0.112035,-0.0113528,0.227617,0.00422231,0,0,0,0,0,0,0,6.05363,-1.79294,5.92325,-9.71585,0.13217,2.56106,0.0397071,0.0833264,0.0424378,0.13572,-1.94317,0.19401,0.166499,0.0484923,-0.00365494,-0.00267088,0.15593,-0.120158,-0.0158895,0.0154024,0.000796399,0,0,0,0,0,0,0,0.158268,-35.0697,0.413527,24.1144,1.83349,1.70006,0.0101778,
0.0861146,0.0427267,0.143619,-1.95091,0.192721,0.173082,0.0486397,0.0697921,-0.00606566,0.0681153,-0.105337,-0.017001,0.217099,0.00425016,0,0,0,0,0,0,0,5.88673,-1.84147,5.73013,-8.58881,-0.444061,2.79294,0.0401482,0.08343,0.0428004,0.14099,-1.9471,0.193673,0.167111,0.0484942,0.000195321,0.00972214,0.150437,-0.100292,-0.0134403,0.0183122,0.00138202,0.481283,1.54913,-0.686583,2.48324,0.306146,0.363732,0.073203,-0.528073,-34.8436,-0.260912,23.9636,1.78405,1.614,-0.00996382,
0.086592,0.0426871,0.144084,-1.95148,0.192434,0.174466,0.0486791,0.0677688,-0.0058423,0.0661037,-0.0985847,-0.0207779,0.208283,0.00438429,0,0,0,0,0,0,0,5.70439,-1.80456,5.56383,-8.09857,-0.26321,2.57387,0.044901,0.08343,0.0428004,0.14099,-1.9471,0.193673,0.167111,0.0484942,0.000195321,0.00972214,0.150437,-0.100292,-0.0134403,0.0183122,0.00138202,0,0,0,0,0,0,0,-0.528073,-34.8436,-0.260912,23.9636,1.78405,1.614,-0.00996382,
0.0870439,0.0426388,0.144523,-1.952,0.192209,0.175825,0.0487047,0.065511,-0.00588159,0.063867,-0.0920182,-0.0222288,0.2006,0.00414915,0,0,0,0,0,0,0,5.46989,-1.77243,5.3378,-7.59949,-0.143054,2.37485,0.0301372,0.08343,0.0428004,0.14099,-1.9471,0.193673,0.167111,0.0484942,0.000195321,0.00972214,0.150437,-0.100292,-0.0134403,0.0183122,0.00138202,0,0,0,0,0,0,0,-0.528073,-34.8436,-0.260912,23.9636,1.78405,1.614,-0.00996382,
0.0874838,0.0425841,0.144951,-1.95249,0.191869,0.177228,0.0487267,0.0634071,-0.00607274,0.0617842,-0.0856929,-0.026285,0.195548,0.0038687,0,0,0,0,0,0,0,5.36038,-1.69424,5.21059,-7.05241,-0.598089,2.32065,0.0262999,0.08343,0.0428004,0.14099,-1.9471,0.193673,0.167111,0.0484942,0.000195321,0.00972214,0.150437,-0.100292,-0.0134403,0.0183122,0.00138202,0,0,0,0,0,0,0,-0.528073,-34.8436,-0.260912,23.9636,1.78405,1.614,-0.00996382,
0.0859904,0.0428863,0.143497,-1.95022,0.19235,0.171914,0.0486465,0.0622856,-0.00513352,0.0606669,-0.0810144,-0.0306578,0.187394,0.00386736,0,0,0,0,0,0,0,5.32973,-1.66237,5.17684,-6.5225,-0.646208,2.3314,0.0442775,0.0834057,0.0433676,0.145903,-1.95007,0.193596,0.167526,0.0484926,0.000508241,0.0322576,0.144727,-0.0815257,-0.00747432,0.00454139,0.000904779,0.039115,2.81694,-0.713714,2.34579,0.745747,-1.72135,-0.0596556,0.412174,-34.3715,0.639662,24.3604,1.80236,1.32928,0.00376909,
0.0864244,0.0428637,0.143919,-1.95066,0.192012,0.173162,0.0486792,0.0606781,-0.00467287,0.0590812,-0.0759743,-0.0329921,0.181106,0.00390999,0,0,0,0,0,0,0,5.06756,-1.58892,4.9342,-6.04134,-0.397029,2.15027,0.0512691,0.0834057,0.0433676,0.145903,-1.95007,0.193596,0.167526,0.0484926,0.000508241,0.0322576,0.144727,-0.0815257,-0.00747432,0.00454139,0.000904779,0,0,0,0,0,0,0,0.412174,-34.3715,0.639662,24.3604,1.80236,1.32928,0.00376909,
0.0868298,0.0428295,0.144313,-1.95106,0.191741,0.174386,0.0486983,0.0586764,-0.00459249,0.0571156,-0.0707924,-0.0331503,0.175485,0.00360591,0,0,0,0,0,0,0,4.7805,-1.58732,4.65588,-5.59052,-0.258483,2.06445,0.0338247,0.0834057,0.0433676,0.145903,-1.95007,0.193596,0.167526,0.0484926,0.000508241,0.0322576,0.144727,-0.0815257,-0.00747432,0.00454139,0.000904779,0,0,0,0,0,0,0,0.412174,-34.3715,0.639662,24.3604,1.80236,1.32928,0.00376909,
0.087222,0.0427868,0.144694,-1.95142,0.191339,0.175619,0.048717,0.0567466,-0.00473983,0.0552152,-0.0654816,-0.036565,0.171207,0.00335266,0,0,0,0,0,0,0,4.63588,-1.53601,4.48859,-5.10001,-0.785517,2.27784,0.0267042,0.0834057,0.0433676,0.145903,-1.95007,0.193596,0.167526,0.0484926,0.000508241,0.0322576,0.144727,-0.0815257,-0.00747432,0.00454139,0.000904779,0,0,0,0,0,0,0,0.412174,-34.3715,0.639662,24.3604,1.80236,1.32928,0.00376909,
0.085841,0.0438031,0.148285,-1.95276,0.191511,0.174167,0.0486281,0.0561965,-0.00306796,0.0546466,-0.0623457,-0.0445638,0.179084,0.00340165,0,0,0,0,0,0,0,4.69692,-1.60678,4.55996,-4.66682,-0.960095,3.24356,0.0406582,0.0834057,0.0433676,0.145903,-1.95007,0.193596,0.167526,0.0484926,0.000508241,0.0322576,0.144727,-0.0815257,-0.00747432,0.00454139,0.000904779,0,0,0,0,0,0,0,0.412174,-34.3715,0.639662,24.3604,1.80236,1.32928,0.00376909,
0.0862397,0.0438118,0.148671,-1.95311,0.19097,0.175865,0.048656,0.0549259,-0.00223584,0.0533841,-0.0584573,-0.0491804,0.185721,0.00341909,0,0,0,0,0,0,0,4.45881,-1.59956,4.33384,-4.27272,-0.693743,3.04209,0.0441444,0.0836603,0.0438766,0.149945,-1.95204,0.193598,0.167584,0.0484897,0.00620335,0.0209086,0.110493,-0.0439696,-0.00998208,0.000991364,-0.000321571,0.711889,-1.41863,-4.27925,4.69452,-0.31347,-0.443754,-0.153294,-2.12292,-36.8669,-1.73674,27.7246,1.60095,1.83922,0.0303194,
0.0866073,0.043802,0.149028,-1.9534,0.190529,0.177556,0.0486722,0.0531301,-0.00203362,0.0516248,-0.054219,-0.050373,0.190851,0.00313885,0,0,0,0,0,0,0,4.18913,-1.60166,4.07407,-3.9049,-0.575818,2.88877,0.0268094,0.0836603,0.0438766,0.149945,-1.95204,0.193598,0.167584,0.0484897,0.00620335,0.0209086,0.110493,-0.0439696,-0.00998208,0.000991364,-0.000321571,0,0,0,0,0,0,0,-2.12292,-36.8669,-1.73674,27.7246,1.60095,1.83922,0.0303194,
0.0869587,0.0437776,0.149369,-1.95366,0.190032,0.179293,0.0486865,0.0512893,-0.0022383,0.0498095,-0.0498475,-0.0527158,0.196106,0.00286845,0,0,0,0,0,0,0,4.06807,-1.54494,3.92547,-3.48137,-1.17473,2.95757,0.0236855,0.0836603,0.0438766,0.149945,-1.95204,0.193598,0.167584,0.0484897,0.00620335,0.0209086,0.110493,-0.0439696,-0.00998208,0.000991364,-0.000321571,0,0,0,0,0,0,0,-2.12292,-36.8669,-1.73674,27.7246,1.60095,1.83922,0.0303194,
0.0859749,0.044067,0.152213,-1.95456,0.193361,0.183198,0.0486194,0.0520999,-0.0011869,0.0506097,-0.0487302,-0.0438883,0.255269,0.00282339,0,0,0,0,0,0,0,5.23303,-1.89917,5.09237,-3.28262,-0.238385,6.68255,0.0398663,0.0836603,0.0438766,0.149945,-1.95204,0.193598,0.167584,0.0484897,0.00620335,0.0209086,0.110493,-0.0439696,-0.00998208,0.000991364,-0.000321571,0,0,0,0,0,0,0,-2.12292,-36.8669,-1.73674,27.7246,1.60095,1.83922,0.0303194,
0.0863956,0.0440768,0.152622,-1.95484,0.193407,0.187182,0.0486382,0.0521987,-0.000703968,0.0507174,-0.0461818,-0.0339605,0.303814,0.00273074,0,0,0,0,0,0,0,5.01769,-1.82659,4.89338,-2.93587,0.073221,6.37356,0.040642,0.0836577,0.0444278,0.153482,-1.95305,0.193603,0.167573,0.0484911,0.00131817,0.00862972,0.0917607,-0.0341871,-0.00464048,-0.00468761,0.000427838,-0.610648,-1.53486,-2.34156,1.22281,0.667699,-0.709872,0.0936762,-1.00811,-35.9187,-0.685411,27.6254,1.55243,1.93902,0.017502,
0.0867945,0.0440707,0.15301,-1.95507,0.193583,0.191129,0.0486498,0.0517299,-0.000717558,0.0502777,-0.0427349,-0.022775,0.34172,0.00247317,0,0,0,0,0,0,0,4.82889,-1.80198,4.71619,-2.61841,0.192521,6.17645,0.0253438,0.0836577,0.0444278,0.153482,-1.95305,0.193603,0.167573,0.0484911,0.00131817,0.00862972,0.0917607,-0.0341871,-0.00464048,-0.00468761,0.000427838,0,0,0,0,0,0,0,-1.00811,-35.9187,-0.685411,27.6254,1.55243,1.93902,0.017502,
0.0864898,0.044428,0.15627,-1.95699,0.201648,0.1962,0.0487619,0.0576612,0.0015195,0.056226,-0.0492817,0.0302718,0.45846,0.00329374,0,0,0,0,0,0,0,9.58285,-3.12074,9.40865,-5.08583,3.50201,11.1542,0.0748473,0.0836577,0.0444278,0.153482,-1.95305,0.193603,0.167573,0.0484911,0.00131817,0.00862972,0.0917607,-0.0341871,-0.00464048,-0.00468761,0.000427838,0,0,0,0,0,0,0,-1.00811,-35.9187,-0.685411,27.6254,1.55243,1.93902,0.017502,
0.0871544,0.044531,0.156923,-1.95752,0.203683,0.203972,0.0488136,0.062743,0.00379174,0.0612957,-0.0525729,0.0750734,0.561077,0.00392599,0,0,0,0,0,0,0,9.29868,-2.55491,9.1417,-4.8319,3.559,11.1542,0.0694783,0.0836577,0.0444278,0.153482,-1.95305,0.193603,0.167573,0.0484911,0.00131817,0.00862972,0.0917607,-0.0341871,-0.00464048,-0.00468761,0.000427838,0,0,0,0,0,0,0,-1.00811,-35.9187,-0.685411,27.6254,1.55243,1.93902,0.017502,
0.0878259,0.0446471,0.157581,-1.95798,0.205777,0.212002,0.0488524,0.0669837,0.00593575,0.0654725,-0.0535952,0.11242,0.649608,0.00411091,0,0,0,0,0,0,0,9.04602,-2.02577,8.88297,-4.55445,3.46896,11.1573,0.0541993,0.083585,0.044871,0.15639,-1.9535,0.1936,0.167706,0.0484931,0.0098171,0.00361997,0.0782763,-0.00305301,-0.0111562,0.0100185,0.00162502,1.06237,-0.626218,-1.68556,3.89176,-0.814462,1.83826,0.149648,0.590702,-35.1967,0.889601,27.0026,1.6687,2.11114,-0.00996382,
0.0885097,0.0447741,0.15825,-1.95838,0.207722,0.220207,0.0488896,0.0706803,0.00792438,0.0691107,-0.0528325,0.13857,0.72482,0.00421889,0,0,0,0,0,0,0,8.89993,-1.47373,8.73742,-4.24395,2.88334,11.1573,0.0510794,0.083585,0.044871,0.15639,-1.9535,0.1936,0.167706,0.0484931,0.0098171,0.00361997,0.0782763,-0.00305301,-0.0111562,0.0100185,0.00162502,0,0,0,0,0,0,0,0.590702,-35.1967,0.889601,27.0026,1.6687,2.11114,-0.00996382,
0.0872847,0.0442863,0.160089,-1.95838,0.202823,0.205337,0.0488452,0.0746988,0.00566526,0.0734538,-0.058733,0.154492,0.777279,0.00449299,0,0,0,0,0,0,0,10.4906,-3.33323,10.4057,-6.66953,3.76978,11.1573,0.0900412,0.083585,0.044871,0.15639,-1.9535,0.1936,0.167706,0.0484931,0.0098171,0.00361997,0.0782763,-0.00305301,-0.0111562,0.0100185,0.00162502,0,0,0,0,0,0,0,0.590702,-35.1967,0.889601,27.0026,1.6687,2.11114,-0.00996382,
0.0880348,0.0442647,0.160834,-1.95896,0.204412,0.213352,0.0488861,0.0785132,0.00399229,0.0773753,-0.0615611,0.163303,0.8222,0.00461742,0,0,0,0,0,0,0,10.1835,-3.06808,10.1055,-6.45378,3.5578,11.1573,0.0684501,0.083585,0.044871,0.15639,-1.9535,0.1936,0.167706,0.0484931,0.0098171,0.00361997,0.0782763,-0.00305301,-0.0111562,0.0100185,0.00162502,0,0,0,0,0,0,0,0.590702,-35.1967,0.889601,27.0026,1.6687,2.11114,-0.00996382,
0.0887894,0.0442432,0.161581,-1.95946,0.205961,0.221129,0.0489257,0.0816752,0.00265683,0.0805793,-0.0616312,0.16938,0.852192,0.00468377,0,0,0,0,0,0,0,10.0392,-2.76642,9.92691,-6.21217,2.69939,11.1524,0.0613897,0.0837973,0.0457192,0.160063,-1.95363,0.193628,0.170171,0.0484944,0.0137131,0.0211064,0.113496,-0.000414744,-0.0043136,0.141056,0.000790561,0.486997,2.18581,4.40248,0.329784,0.855322,16.3797,-0.104307,1.85627,-34.9944,2.08772,27.0026,1.90033,2.7282,-0.0026396,
0.0895362,0.0442147,0.16232,-1.95988,0.207572,0.228475,0.0489551,0.084009,0.00141299,0.0829545,-0.0598521,0.175782,0.865396,0.00448042,0,0,0,0,0,0,0,9.99092,-2.50347,9.90409,-6.0521,2.57002,11.1524,0.0670842,0.0837973,0.0457192,0.160063,-1.95363,0.193628,0.170171,0.0484944,0.0137131,0.0211064,0.113496,-0.000414744,-0.0043136,0.141056,0.000790561,0,0,0,0,0,0,0,1.85627,-34.9944,2.08772,27.0026,1.90033,2.7282,-0.0026396,
0.0872415,0.045326,0.16346,-1.95834,0.202372,0.202055,0.0487891,0.0866404,0.00060486,0.0855133,-0.0691226,0.191719,0.886128,0.0047506,0,0,0,0,0,0,0,11.3948,-2.90053,11.2033,-8.45794,4.07824,11.1524,0.0938452,0.0837973,0.0457192,0.160063,-1.95363,0.193628,0.170171,0.0484944,0.0137131,0.0211064,0.113496,-0.000414744,-0.0043136,0.141056,0.000790561,0,0,0,0,0,0,0,1.85627,-34.9944,2.08772,27.0026,1.90033,2.7282,-0.0026396,
0.0880391,0.0453181,0.164246,-1.95913,0.204454,0.210091,0.0488238,0.0892521,0.000285384,0.0880488,-0.0751328,0.205442,0.909799,0.00466854,0,0,0,0,0,0,0,11.0472,-2.70511,10.854,-8.33851,3.80847,11.1524,0.0734811,0.0837973,0.0457192,0.160063,-1.95363,0.193628,0.170171,0.0484944,0.0137131,0.0211064,0.113496,-0.000414744,-0.0043136,0.141056,0.000790561,0,0,0,0,0,0,0,1.85627,-34.9944,2.08772,27.0026,1.90033,2.7282,-0.0026396,
0.0888604,0.0453188,0.165054,-1.95987,0.206376,0.218318,0.0488536,0.0919342,0.000246277,0.0906558,-0.0785614,0.212395,0.933527,0.00447952,0,0,0,0,0,0,0,10.8278,-2.40401,10.6239,-8.21352,2.96929,11.1243,0.0646684,0.0841672,0.0466274,0.164961,-1.95366,0.193639,0.177404,0.0484882,0.0105256,0.0305835,0.154404,0.00043984,-0.00961285,0.258199,-0.00115344,-0.398436,1.18464,5.11354,0.106823,-0.662406,14.6429,-0.243001,1.67774,-35.5458,1.88936,26.4035,2.06512,2.34368,0.0440523,
0.0896913,0.0453266,0.165872,-1.96053,0.208217,0.226417,0.0488799,0.0943204,0.000391996,0.0929669,-0.0794462,0.215932,0.949295,0.00424131,0,0,0,0,0,0,0,10.7374,-2.08782,10.5631,-8.09091,2.93666,11.1243,0.0660321,0.0841672,0.0466274,0.164961,-1.95366,0.193639,0.177404,0.0484882,0.0105256,0.0305835,0.154404,0.00043984,-0.00961285,0.258199,-0.00115344,0,0,0,0,0,0,0,1.67774,-35.5458,1.88936,26.4035,2.06512,2.34368,0.0440523,
0.0880681,0.0460859,0.168816,-1.95922,0.203913,0.211347,0.0487463,0.0970632,-0.00124049,0.095701,-0.0897693,0.229884,0.957862,0.00438896,0,0,0,0,0,0,0,12.3652,-3.10697,12.1966,-11.3397,4.71623,11.1243,0.0949601,0.0841672,0.0466274,0.164961,-1.95366,0.193639,0.177404,0.0484882,0.0105256,0.0305835,0.154404,0.00043984,-0.00961285,0.258199,-0.00115344,0,0,0,0,0,0,0,1.67774,-35.5458,1.88936,26.4035,2.06512,2.34368,0.0440523,
0.0889556,0.0460393,0.169692,-1.96022,0.206132,0.219513,0.0487764,0.099839,-0.0021566,0.0984554,-0.0967742,0.239385,0.970449,0.00426391,0,0,0,0,0,0,0,12.0085,-2.92405,11.8377,-11.2535,4.36536,11.1243,0.0704879,0.0841672,0.0466274,0.164961,-1.95366,0.193639,0.177404,0.0484882,0.0105256,0.0305835,0.154404,0.00043984,-0.00961285,0.258199,-0.00115344,0,0,0,0,0,0,0,1.67774,-35.5458,1.88936,26.4035,2.06512,2.34368,0.0440523,
0.0898667,0.0460064,0.170591,-1.96117,0.208114,0.227832,0.0488018,0.102647,-0.0025479,0.101227,-0.101122,0.241054,0.984324,0.00404632,0,0,0,0,0,0,0,11.8075,-2.61674,11.5997,-11.1742,3.45543,11.0866,0.0575705,0.0846286,0.0477659,0.170797,-1.95371,0.193661,0.187076,0.0484904,0.0212167,0.0389201,0.175904,4.8945e-05,-0.00210942,0.316429,-0.000234014,1.33639,1.04207,2.68743,-0.0488618,0.937929,7.27875,0.114929,0.638309,-34.4707,0.913405,25.6339,1.8399,2.28417,0.0239107,
0.0907916,0.0459848,0.171503,-1.96208,0.209895,0.236257,0.0488263,0.105242,-0.00257736,0.103783,-0.103679,0.237358,0.998075,0.00384996,0,0,0,0,0,0,0,11.7332,-2.30043,11.5472,-11.0979,3.24962,11.0866,0.054123,0.0846286,0.0477659,0.170797,-1.95371,0.193661,0.187076,0.0484904,0.0212167,0.0389201,0.175904,4.8945e-05,-0.00210942,0.316429,-0.000234014,0,0,0,0,0,0,0,0.638309,-34.4707,0.913405,25.6339,1.8399,2.28417,0.0239107,
0.0889337,0.0472463,0.175041,-1.96008,0.203461,0.222154,0.0486879,0.107384,-0.00356744,0.105857,-0.113755,0.239785,0.999188,0.00386273,0,0,0,0,0,0,0,12.8285,-2.59834,12.6258,-14.1285,4.49059,11.0866,0.078107,0.0846286,0.0477659,0.170797,-1.95371,0.193661,0.187076,0.0484904,0.0212167,0.0389201,0.175904,4.8945e-05,-0.00210942,0.316429,-0.000234014,0,0,0,0,0,0,0,0.638309,-34.4707,0.913405,25.6339,1.8399,2.28417,0.0239107,
0.0898782,0.0471957,0.175972,-1.96127,0.205238,0.230379,0.0487121,0.10952,-0.00411924,0.107952,-0.12078,0.236251,1.00497,0.00369503,0,0,0,0,0,0,0,12.4779,-2.42524,12.2713,-14.0525,4.03799,11.0866,0.0572099,0.0846286,0.0477659,0.170797,-1.95371,0.193661,0.187076,0.0484904,0.0212167,0.0389201,0.175904,4.8945e-05,-0.00210942,0.316429,-0.000234014,0,0,0,0,0,0,0,0.638309,-34.4707,0.913405,25.6339,1.8399,2.28417,0.0239107,
0.0908403,0.0471533,0.17692,-1.96241,0.206614,0.238729,0.0487302,0.111669,-0.00435354,0.110064,-0.125283,0.22341,1.01273,0.00340859,0,0,0,0,0,0,0,12.218,-2.13489,11.9797,-13.9837,3.16996,11.0369,0.0437868,0.0854,0.0488627,0.177252,-1.95424,0.193666,0.199475,0.0484921,0.0295821,0.0342962,0.189689,-0.018223,-0.00334474,0.4052,0.000179037,1.04567,-0.577991,1.72308,-2.284,-0.154416,11.0963,0.0516314,0.868412,-34.2485,1.08797,25.0586,1.80877,1.96557,0.0101778,
0.0898906,0.0481656,0.181679,-1.96143,0.201956,0.235826,0.0486049,0.112997,-0.00588985,0.111346,-0.135714,0.216036,1.01336,0.00307714,0,0,0,0,0,0,0,12.5879,-2.4189,12.392,-16.937,4.05158,11.0369,0.057329,0.0854,0.0488627,0.177252,-1.95424,0.193666,0.199475,0.0484921,0.0295821,0.0342962,0.189689,-0.018223,-0.00334474,0.4052,0.000179037,0,0,0,0,0,0,0,0.868412,-34.2485,1.08797,25.0586,1.80877,1.96557,0.0101778,
0.0908505,0.0480831,0.182626,-1.96282,0.203219,0.244114,0.0486162,0.114394,-0.00677538,0.112735,-0.143207,0.204401,1.01788,0.00274447,0,0,0,0,0,0,0,12.1679,-2.3585,11.9613,-16.87,3.39733,11.0369,0.0402862,0.0854,0.0488627,0.177252,-1.95424,0.193666,0.199475,0.0484921,0.0295821,0.0342962,0.189689,-0.018223,-0.00334474,0.4052,0.000179037,0,0,0,0,0,0,0,0.868412,-34.2485,1.08797,25.0586,1.80877,1.96557,0.0101778,
0.0918196,0.0480125,0.183581,-1.96417,0.20425,0.252506,0.0486253,0.115742,-0.00718575,0.114083,-0.148436,0.189295,1.0241,0.0024227,0,0,0,0,0,0,0,11.8637,-2.17057,11.639,-16.7236,2.337,11.0369,0.025482,0.0854,0.0488627,0.177252,-1.95424,0.193666,0.199475,0.0484921,0.0295821,0.0342962,0.189689,-0.018223,-0.00334474,0.4052,0.000179037,0,0,0,0,0,0,0,0.868412,-34.2485,1.08797,25.0586,1.80877,1.96557,0.0101778,
0.0927939,0.0479537,0.184542,-1.9655,0.205063,0.260963,0.0486325,0.116952,-0.00721831,0.115288,-0.151934,0.171757,1.03073,0.00211726,0,0,0,0,0,0,0,11.7534,-1.95703,11.5396,-16.6067,1.93451,11.0369,0.0163731,0.0854,0.0488627,0.177252,-1.95424,0.193666,0.199475,0.0484921,0.0295821,0.0342962,0.189689,-0.018223,-0.00334474,0.4052,0.000179037,0,0,0,0,0,0,0,0.868412,-34.2485,1.08797,25.0586,1.80877,1.96557,0.0101778,
0.091292,0.0495648,0.18898,-1.96358,0.200432,0.251796,0.0485426,0.118297,-0.00751271,0.116561,-0.161669,0.168366,1.02851,0.00191682,0,0,0,0,0,0,0,12.45,-1.85108,12.2371,-19.4265,2.96626,10.9796,0.0320345,0.0864524,0.0500781,0.184212,-1.9555,0.193689,0.214703,0.0484861,0.0375126,0.0395897,0.212443,-0.0477531,-0.00444933,0.476707,-0.0018365,0.991317,0.661692,2.84433,-3.69126,-0.138074,8.93839,-0.251943,1.78089,-33.9986,1.98854,24.039,1.65039,1.70739,0.0641939,
0.0922869,0.0495076,0.18996,-1.96515,0.201477,0.260086,0.0485492,0.119509,-0.00743976,0.11774,-0.16861,0.16081,1.03005,0.00169872,0,0,0,0,0,0,0,12.2743,-1.80717,12.0519,-19.3377,2.45862,10.9796,0.0232695,0.0864524,0.0500781,0.184212,-1.9555,0.193689,0.214703,0.0484861,0.0375126,0.0395897,0.212443,-0.0477531,-0.00444933,0.476707,-0.0018365,0,0,0,0,0,0,0,1.78089,-33.9986,1.98854,24.039,1.65039,1.70739,0.0641939,
0.0932842,0.0494615,0.190942,-1.96669,0.202325,0.26846,0.0485538,0.120539,-0.00710422,0.11875,-0.173374,0.149856,1.0334,0.00147383,0,0,0,0,0,0,0,12.1477,-1.69128,11.9239,-19.2091,2.00468,10.9796,0.016151,0.0864524,0.0500781,0.184212,-1.9555,0.193689,0.214703,0.0484861,0.0375126,0.0395897,0.212443,-0.0477531,-0.00444933,0.476707,-0.0018365,0,0,0,0,0,0,0,1.78089,-33.9986,1.98854,24.039,1.65039,1.70739,0.0641939,
0.0913438,0.0497437,0.189045,-1.96319,0.196533,0.251175,0.0484875,0.121,-0.00615804,0.119175,-0.175688,0.129607,1.0197,0.00118802,0,0,0,0,0,0,0,11.9897,-1.38644,11.778,-18.9007,1.22334,10.9796,0.00672397,0.0864524,0.0500781,0.184212,-1.9555,0.193689,0.214703,0.0484861,0.0375126,0.0395897,0.212443,-0.0477531,-0.00444933,0.476707,-0.0018365,0,0,0,0,0,0,0,1.78089,-33.9986,1.98854,24.039,1.65039,1.70739,0.0641939,
0.092317,0.049734,0.190002,-1.96459,0.196797,0.258557,0.0484866,0.12113,-0.0051678,0.119271,-0.175662,0.110296,1.00029,0.000928482,0,0,0,0,0,0,0,11.9237,-1.153,11.7059,-18.7831,0.911034,10.9169,0.00413841,0.0876602,0.0514521,0.191653,-1.95761,0.193715,0.231688,0.0484959,0.0432747,0.0423809,0.221054,-0.0698166,-0.0102606,0.514489,0.00110917,0.720266,0.348896,1.07634,-2.75794,-0.726406,4.72277,0.368209,0.94379,-34.0462,1.21095,24.4357,1.44256,1.91887,-0.0227812,
0.0932783,0.0497231,0.190948,-1.96594,0.196944,0.265505,0.0484849,0.120936,-0.00440627,0.119053,-0.174156,0.0919124,0.973934,0.000699686,0,0,0,0,0,0,0,11.8658,-0.935881,11.6544,-18.5738,0.644307,10.9169,0.00175272,0.0876602,0.0514521,0.191653,-1.95761,0.193715,0.231688,0.0484959,0.0432747,0.0423809,0.221054,-0.0698166,-0.0102606,0.514489,0.00110917,0,0,0,0,0,0,0,0.94379,-34.0462,1.21095,24.4357,1.44256,1.91887,-0.0227812,
0.0942266,0.0497057,0.191881,-1.96724,0.196984,0.271979,0.0484825,0.120456,-0.00396093,0.118561,-0.171812,0.0745243,0.94101,0.000500334,0,0,0,0,0,0,0,11.8033,-0.717351,11.5947,-18.3398,0.42378,10.6605,-9.35149e-05,0.0876602,0.0514521,0.191653,-1.95761,0.193715,0.231688,0.0484959,0.0432747,0.0423809,0.221054,-0.0698166,-0.0102606,0.514489,0.00110917,0,0,0,0,0,0,0,0.94379,-34.0462,1.21095,24.4357,1.44256,1.91887,-0.0227812,
0.0926104,0.0514139,0.196535,-1.96455,0.19438,0.261491,0.0484743,0.120412,-0.00330973,0.11846,-0.170556,0.058378,0.893603,0.000320894,0,0,0,0,0,0,0,11.7347,-0.525998,11.5282,-18.0927,0.237649,9.57732,-0.00165932,0.0876602,0.0514521,0.191653,-1.95761,0.193715,0.231688,0.0484959,0.0432747,0.0423809,0.221054,-0.0698166,-0.0102606,0.514489,0.00110917,0,0,0,0,0,0,0,0.94379,-34.0462,1.21095,24.4357,1.44256,1.91887,-0.0227812,
0.0935554,0.0514028,0.197463,-1.96584,0.194248,0.266769,0.0484702,0.119955,-0.00292429,0.117964,-0.168592,0.0433858,0.84682,0.00015413,0,0,0,0,0,0,0,11.661,-0.331125,11.4357,-17.8941,0.0739671,8.56068,-0.00180501,0.0889392,0.0527515,0.198976,-1.96046,0.193712,0.249976,0.0484889,0.0416374,0.0328029,0.216685,-0.0893163,-0.012041,0.539218,-0.00113967,-0.204664,-1.19725,-0.546062,-2.43746,-0.222547,3.09119,-0.281105,-0.222592,-34.5461,0.0882092,24.9594,1.35101,1.87951,0.0376436,
0.0944837,0.0513842,0.198374,-1.9671,0.194043,0.271684,0.0484652,0.119173,-0.00280497,0.117157,-0.166261,0.0296014,0.800336,-3.798e-06,0,0,0,0,0,0,0,11.5685,-0.224331,11.3459,-17.6345,-0.0811451,7.73311,-0.00222077,0.0889392,0.0527515,0.198976,-1.96046,0.193712,0.249976,0.0484889,0.0416374,0.0328029,0.216685,-0.0893163,-0.012041,0.539218,-0.00113967,0,0,0,0,0,0,0,-0.222592,-34.5461,0.0882092,24.9594,1.35101,1.87951,0.0376436,
0.0953958,0.0513577,0.19927,-1.96833,0.193778,0.276245,0.0484591,0.11814,-0.00290718,0.116113,-0.163785,0.0170525,0.754294,-0.000155185,0,0,0,0,0,0,0,11.4575,-0.157246,11.238,-17.3742,-0.213145,7.00576,-0.00266294,0.0889392,0.0527515,0.198976,-1.96046,0.193712,0.249976,0.0484889,0.0416374,0.0328029,0.216685,-0.0893163,-0.012041,0.539218,-0.00113967,0,0,0,0,0,0,0,-0.222592,-34.5461,0.0882092,24.9594,1.35101,1.87951,0.0376436,
0.0936972,0.052673,0.203661,-1.9667,0.193097,0.272946,0.0484534,0.117394,-0.00313431,0.115325,-0.161677,0.00666934,0.706276,-0.000303156,0,0,0,0,0,0,0,11.3303,-0.12453,11.1142,-17.1144,-0.32334,6.37102,-0.0033804,0.0889392,0.0527515,0.198976,-1.96046,0.193712,0.249976,0.0484889,0.0416374,0.0328029,0.216685,-0.0893163,-0.012041,0.539218,-0.00113967,0,0,0,0,0,0,0,-0.222592,-34.5461,0.0882092,24.9594,1.35101,1.87951,0.0376436,
0.0945944,0.0526363,0.204541,-1.9679,0.192765,0.276784,0.0484451,0.116347,-0.00342443,0.114251,-0.159486,-0.00296684,0.660972,-0.000449224,0,0,0,0,0,0,0,11.1894,-0.118465,10.9768,-16.8552,-0.414084,5.81376,-0.00425039,0.0889392,0.0527515,0.198976,-1.96046,0.193712,0.249976,0.0484889,0.0416374,0.0328029,0.216685,-0.0893163,-0.012041,0.539218,-0.00113967,0,0,0,0,0,0,0,-0.222592,-34.5461,0.0882092,24.9594,1.35101,1.87951,0.0376436,
0.0954744,0.0525954,0.205403,-1.96909,0.19239,0.280361,0.0484358,0.115076,-0.0037638,0.112966,-0.157286,-0.0117497,0.618203,-0.000592465,0,0,0,0,0,0,0,11.038,-0.13316,10.8291,-16.5965,-0.488903,5.32837,-0.00533365,0.0889392,0.0527515,0.198976,-1.96046,0.193712,0.249976,0.0484889,0.0416374,0.0328029,0.216685,-0.0893163,-0.012041,0.539218,-0.00113967,0,0,0,0,0,0,0,-0.222592,-34.5461,0.0882092,24.9594,1.35101,1.87951,0.0376436,
0.0935371,0.0526255,0.203503,-1.96613,0.192605,0.268898,0.0484293,0.113851,-0.00443033,0.111741,-0.154262,-0.0185969,0.575486,-0.000771628,0,0,0,0,0,0,0,10.7139,-0.200825,10.5125,-16.0792,-0.600092,4.53335,-0.00783156,0.0889392,0.0527515,0.198976,-1.96046,0.193712,0.249976,0.0484889,0.0416374,0.0328029,0.216685,-0.0893163,-0.012041,0.539218,-0.00113967,0,0,0,0,0,0,0,-0.222592,-34.5461,0.0882092,24.9594,1.35101,1.87951,0.0376436,
0.0943887,0.0525657,0.204338,-1.96726,0.192193,0.271911,0.0484166,0.112371,-0.00503726,0.110269,-0.151551,-0.0251551,0.535726,-0.000936544,0,0,0,0,0,0,0,10.5454,-0.244926,10.3478,-15.8199,-0.640799,4.20992,-0.00916957,0.0889392,0.0527515,0.198976,-1.96046,0.193712,0.249976,0.0484889,0.0416374,0.0328029,0.216685,-0.0893163,-0.012041,0.539218,-0.00113967,0,0,0,0,0,0,0,-0.222592,-34.5461,0.0882092,24.9594,1.35101,1.87951,0.0376436,
0.0952218,0.0525046,0.205155,-1.96837,0.191749,0.274727,0.048403,0.110725,-0.00555822,0.108637,-0.149075,-0.0312326,0.498978,-0.00108878,0,0,0,0,0,0,0,10.3866,-0.278512,10.1738,-15.5992,-0.654947,3.86618,-0.0102474,0.0904981,0.0538985,0.205651,-1.96367,0.193705,0.267113,0.0484911,0.0519735,0.0344305,0.181097,-0.097776,-0.000174867,0.482347,-9.01512e-05,1.29201,0.203452,-4.44856,-1.05745,1.48326,-7.10892,0.13119,-1.15887,-35.3713,-0.859972,24.9832,1.19171,1.85937,0.017502,
0.0960377,0.0524431,0.205955,-1.96947,0.191279,0.277368,0.0483886,0.108978,-0.00598557,0.106908,-0.14677,-0.0367313,0.465209,-0.00123016,0,0,0,0,0,0,0,10.2151,-0.325221,10.0061,-15.3381,-0.682192,3.62027,-0.0115879,0.0904981,0.0538985,0.205651,-1.96367,0.193705,0.267113,0.0484911,0.0519735,0.0344305,0.181097,-0.097776,-0.000174867,0.482347,-9.01512e-05,0,0,0,0,0,0,0,-1.15887,-35.3713,-0.859972,24.9832,1.19171,1.85937,0.017502,
0.0947351,0.0538661,0.209813,-1.96903,0.192304,0.282538,0.0484186,0.107383,-0.00606618,0.105298,-0.144277,-0.0401457,0.436908,-0.0013607,0,0,0,0,0,0,0,10.0439,-0.370485,9.83841,-15.0759,-0.705013,3.40612,-0.0128783,0.0904981,0.0538985,0.205651,-1.96367,0.193705,0.267113,0.0484911,0.0519735,0.0344305,0.181097,-0.097776,-0.000174867,0.482347,-9.01512e-05,0,0,0,0,0,0,0,-1.15887,-35.3713,-0.859972,24.9832,1.19171,1.85937,0.017502,
0.095526,0.0538103,0.210587,-1.97009,0.191839,0.284956,0.0484028,0.105678,-0.00624672,0.103588,-0.141992,-0.0437432,0.409966,-0.00148279,0,0,0,0,0,0,0,9.87318,-0.412749,9.67125,-14.8126,-0.723162,3.21847,-0.0141339,0.0904981,0.0538985,0.205651,-1.96367,0.193705,0.267113,0.0484911,0.0519735,0.0344305,0.181097,-0.097776,-0.000174867,0.482347,-9.01512e-05,0,0,0,0,0,0,0,-1.15887,-35.3713,-0.859972,24.9832,1.19171,1.85937,0.017502,
0.0963008,0.0537526,0.211345,-1.97114,0.191349,0.287228,0.0483864,0.103912,-0.00644021,0.101823,-0.139839,-0.0472248,0.384764,-0.00159626,0,0,0,0,0,0,0,9.71758,-0.458889,9.50564,-14.5845,-0.720546,2.99836,-0.0150275,0.0921468,0.0544816,0.211444,-1.96742,0.193671,0.282319,0.0484927,0.0487463,0.0037437,0.150783,-0.117323,-0.00714349,0.42776,0.000474324,-0.403395,-3.83585,-3.78927,-2.44338,-0.871078,-6.82336,0.0705595,-1.49212,-35.8949,-1.10991,26.8796,1.43066,2.05163,0.00376909,
0.0970603,0.0536945,0.212088,-1.97218,0.190844,0.289374,0.0483694,0.102117,-0.00660404,0.100034,-0.137763,-0.0504249,0.361464,-0.00170171,0,0,0,0,0,0,0,9.5495,-0.493396,9.34097,-14.319,-0.732285,2.8539,-0.0161506,0.0921468,0.0544816,0.211444,-1.96742,0.193671,0.282319,0.0484927,0.0487463,0.0037437,0.150783,-0.117323,-0.00714349,0.42776,0.000474324,0,0,0,0,0,0,0,-1.49212,-35.8949,-1.10991,26.8796,1.43066,2.05163,0.00376909,
0.0959551,0.0541703,0.215181,-1.97241,0.191803,0.29517,0.0484134,0.100142,-0.00713492,0.0980643,-0.135024,-0.0524592,0.343388,-0.00179286,0,0,0,0,0,0,0,9.38321,-0.523632,9.17799,-14.0523,-0.741881,2.72669,-0.0171849,0.0921468,0.0544816,0.211444,-1.96742,0.193671,0.282319,0.0484927,0.0487463,0.0037437,0.150783,-0.117323,-0.00714349,0.42776,0.000474324,0,0,0,0,0,0,0,-1.49212,-35.8949,-1.10991,26.8796,1.43066,2.05163,0.00376909,
0.0966804,0.0540983,0.21589,-1.97339,0.191299,0.297206,0.0483956,0.0982465,-0.00750746,0.0961762,-0.132578,-0.0545788,0.325613,-0.00187934,0,0,0,0,0,0,0,9.21858,-0.549395,9.01664,-13.7847,-0.74879,2.6138,-0.0181638,0.0921468,0.0544816,0.211444,-1.96742,0.193671,0.282319,0.0484927,0.0487463,0.0037437,0.150783,-0.117323,-0.00714349,0.42776,0.000474324,0,0,0,0,0,0,0,-1.49212,-35.8949,-1.10991,26.8796,1.43066,2.05163,0.00376909,
0.0973933,0.0540294,0.216586,-1.97436,0.190783,0.29913,0.0483774,0.0964178,-0.00772907,0.0943559,-0.130317,-0.0565649,0.308591,-0.00195994,0,0,0,0,0,0,0,9.06334,-0.590863,8.85636,-13.5393,-0.738803,2.46954,-0.0188614,0.0937307,0.0546103,0.216223,-1.97143,0.193681,0.295415,0.0484919,0.0502139,0.00176893,0.130913,-0.113118,0.000907066,0.350812,-0.000174369,0.18345,-0.246846,-2.4837,0.525611,1.00632,-9.61852,-0.0810867,-1.97216,-35.5696,-1.58599,25.4315,1.15509,1.85296,0.0101778,
0.0980937,0.0539639,0.217271,-1.97532,0.190261,0.300958,0.0483587,0.0946447,-0.00782091,0.0925924,-0.128165,-0.0583041,0.292567,-0.00203414,0,0,0,0,0,0,0,8.90231,-0.608198,8.69847,-13.2699,-0.741771,2.37938,-0.0196849,0.0937307,0.0546103,0.216223,-1.97143,0.193681,0.295415,0.0484919,0.0502139,0.00176893,0.130913,-0.113118,0.000907066,0.350812,-0.000174369,0,0,0,0,0,0,0,-1.97216,-35.5696,-1.58599,25.4315,1.15509,1.85296,0.0101778,
0.0972571,0.0543141,0.219679,-1.97611,0.191833,0.306123,0.0484057,0.0928688,-0.00796249,0.0908242,-0.125619,-0.0587123,0.279927,-0.00209408,0,0,0,0,0,0,0,8.74313,-0.621724,8.54235,-12.9998,-0.743422,2.29881,-0.0204187,0.0937307,0.0546103,0.216223,-1.97143,0.193681,0.295415,0.0484919,0.0502139,0.00176893,0.130913,-0.113118,0.000907066,0.350812,-0.000174369,0,0,0,0,0,0,0,-1.97216,-35.5696,-1.58599,25.4315,1.15509,1.85296,0.0101778,
0.0979317,0.0542482,0.220337,-1.97702,0.191334,0.307857,0.0483867,0.0911589,-0.00801812,0.0891211,-0.123272,-0.0594227,0.267292,-0.00215148,0,0,0,0,0,0,0,8.58546,-0.631584,8.38769,-12.7291,-0.742977,2.22478,-0.0210819,0.0937307,0.0546103,0.216223,-1.97143,0.193681,0.295415,0.0484919,0.0502139,0.00176893,0.130913,-0.113118,0.000907066,0.350812,-0.000174369,0,0,0,0,0,0,0,-1.97216,-35.5696,-1.58599,25.4315,1.15509,1.85296,0.0101778,
0.0985945,0.0541854,0.220984,-1.97792,0.190829,0.309505,0.0483674,0.0894968,-0.00798534,0.0874662,-0.121041,-0.060163,0.255041,-0.00220434,0,0,0,0,0,0,0,8.43446,-0.67088,8.23322,-12.4693,-0.729526,2.12769,-0.0215368,0.0952088,0.0546091,0.22055,-1.97494,0.193655,0.304728,0.0484926,0.0397839,-0.000398641,0.128889,-0.0910494,-0.00189814,0.237767,0.000562023,-1.30376,-0.270947,-0.252985,2.75859,-0.35065,-14.1306,0.092049,1.09455,-34.4707,1.43709,25.011,1.3446,1.94543,0.00376909,
0.0992454,0.0541259,0.221619,-1.9788,0.190323,0.312627,0.0483284,0.0878706,-0.00787551,0.0858484,-0.118867,-0.0607906,0.241877,-0.00225398,0,0,0,0,0,0,0,8.27967,-0.674478,8.08134,-12.1976,-0.726033,2.06496,-0.0220475,0.0952088,0.0546091,0.22055,-1.97494,0.193655,0.304728,0.0484926,0.0397839,-0.000398641,0.128889,-0.0910494,-0.00189814,0.237767,0.000562023,0,0,0,0,0,0,0,1.09455,-34.4707,1.43709,25.011,1.3446,1.94543,0.00376909,
0.0985062,0.0542373,0.223782,-1.97924,0.191903,0.313377,0.0484014,0.0863426,-0.00805112,0.0843313,-0.116337,-0.0601136,0.232487,-0.00228529,0,0,0,0,0,0,0,8.12648,-0.675956,7.931,-11.9251,-0.724577,2.0138,-0.0224799,0.0952088,0.0546091,0.22055,-1.97494,0.193655,0.304728,0.0484926,0.0397839,-0.000398641,0.128889,-0.0910494,-0.00189814,0.237767,0.000562023,0,0,0,0,0,0,0,1.09455,-34.4707,1.43709,25.011,1.3446,1.94543,0.00376909,
0.0991362,0.0541722,0.224396,-1.98008,0.191431,0.314868,0.0483819,0.0848252,-0.0080675,0.0828222,-0.113953,-0.0598998,0.223261,-0.00231499,0,0,0,0,0,0,0,7.97395,-0.67452,7.78128,-11.6526,-0.718481,1.95893,-0.0228416,0.0952088,0.0546091,0.22055,-1.97494,0.193655,0.304728,0.0484926,0.0397839,-0.000398641,0.128889,-0.0910494,-0.00189814,0.237767,0.000562023,0,0,0,0,0,0,0,1.09455,-34.4707,1.43709,25.011,1.3446,1.94543,0.00376909,
0.0997542,0.0541118,0.224998,-1.9809,0.190953,0.316297,0.0483624,0.0833087,-0.00796469,0.0813137,-0.11165,-0.0598536,0.214353,-0.00234053,0,0,0,0,0,0,0,7.82231,-0.670953,7.6324,-11.3799,-0.711168,1.90727,-0.0231392,0.0952088,0.0546091,0.22055,-1.97494,0.193655,0.304728,0.0484926,0.0397839,-0.000398641,0.128889,-0.0910494,-0.00189814,0.237767,0.000562023,0,0,0,0,0,0,0,1.09455,-34.4707,1.43709,25.011,1.3446,1.94543,0.00376909,
0.0991881,0.0544455,0.227803,-1.98215,0.191886,0.318193,0.0484,0.0816149,-0.00759524,0.0796231,-0.109003,-0.0595713,0.205386,-0.00234384,0,0,0,0,0,0,0,7.529,-0.699159,7.3374,-10.8324,-0.729165,1.86564,-0.0233468,0.0961084,0.0546879,0.224788,-1.9781,0.193648,0.311109,0.0484904,0.0295042,0.00371341,0.12715,-0.0863426,0.00138032,0.161071,-0.00053087,-1.28497,0.514006,-0.21746,0.588349,0.409807,-9.58703,-0.136612,-0.325741,-35.0697,0.0882092,25.4077,1.27777,2.13128,0.0239107,
0.0997746,0.0543988,0.228374,-1.98292,0.191404,0.31951,0.0483811,0.079953,-0.00724395,0.0779636,-0.10641,-0.0597077,0.197254,-0.00234557,0,0,0,0,0,0,0,7.37874,-0.690949,7.18977,-10.5592,-0.720532,1.82039,-0.0233965,0.0961084,0.0546879,0.224788,-1.9781,0.193648,0.311109,0.0484904,0.0295042,0.00371341,0.12715,-0.0863426,0.00138032,0.161071,-0.00053087,0,0,0,0,0,0,0,-0.325741,-35.0697,0.0882092,25.4077,1.27777,2.13128,0.0239107,
0.100348,0.0543542,0.228932,-1.98367,0.190915,0.320791,0.0483625,0.0783088,-0.00691024,0.0763231,-0.103846,-0.0600002,0.189825,-0.00234264,0,0,0,0,0,0,0,7.22854,-0.681525,7.04215,-10.2859,-0.711623,1.77734,-0.0233972,0.0961084,0.0546879,0.224788,-1.9781,0.193648,0.311109,0.0484904,0.0295042,0.00371341,0.12715,-0.0863426,0.00138032,0.161071,-0.00053087,0,0,0,0,0,0,0,-0.325741,-35.0697,0.0882092,25.4077,1.27777,2.13128,0.0239107,
0.10091,0.0543115,0.229478,-1.9844,0.190421,0.322037,0.0483442,0.0766773,-0.00659473,0.0746976,-0.101292,-0.06034,0.183004,-0.00233142,0,0,0,0,0,0,0,7.07817,-0.671248,6.89432,-10.0126,-0.703666,1.73592,-0.0232879,0.0961084,0.0546879,0.224788,-1.9781,0.193648,0.311109,0.0484904,0.0295042,0.00371341,0.12715,-0.0863426,0.00138032,0.161071,-0.00053087,0,0,0,0,0,0,0,-0.325741,-35.0697,0.0882092,25.4077,1.27777,2.13128,0.0239107,
0.0991153,0.0545241,0.227731,-1.98185,0.191142,0.318829,0.048408,0.0757071,-0.00617556,0.0737329,-0.0989199,-0.0649741,0.185203,-0.00229033,0,0,0,0,0,0,0,6.98416,-0.746755,6.79476,-9.72134,-0.986982,2.19297,-0.0224732,0.0970491,0.054832,0.228924,-1.98089,0.19363,0.314601,0.0484876,0.0236356,0.0101038,0.117496,-0.0716721,0.00135079,0.0661093,-0.00184622,-0.733574,0.798805,-1.20664,1.83382,-0.00369207,-11.8702,-0.164419,-0.349545,-35.0697,0.0644055,25.3839,1.28326,2.19811,0.050461,
0.0996741,0.0544886,0.228275,-1.98255,0.19044,0.320364,0.0483914,0.0745372,-0.00582912,0.072569,-0.0964725,-0.0695258,0.186534,-0.00224812,0,0,0,0,0,0,0,6.83287,-0.735093,6.64589,-9.44794,-0.986316,2.15304,-0.0221951,0.0970491,0.054832,0.228924,-1.98089,0.19363,0.314601,0.0484876,0.0236356,0.0101038,0.117496,-0.0716721,0.00135079,0.0661093,-0.00184622,0,0,0,0,0,0,0,-0.349545,-35.0697,0.0644055,25.3839,1.28326,2.19811,0.050461,
0.100218,0.0544536,0.228803,-1.98322,0.189712,0.321879,0.0483753,0.0732153,-0.00553827,0.0712554,-0.0939654,-0.0738363,0.187119,-0.00220114,0,0,0,0,0,0,0,6.68071,-0.722838,6.49612,-9.17452,-0.987583,2.11575,-0.0218735,0.0970491,0.054832,0.228924,-1.98089,0.19363,0.314601,0.0484876,0.0236356,0.0101038,0.117496,-0.0716721,0.00135079,0.0661093,-0.00184622,0,0,0,0,0,0,0,-0.349545,-35.0697,0.0644055,25.3839,1.28326,2.19811,0.050461,
0.0999807,0.0548079,0.231794,-1.98468,0.19134,0.324198,0.0484303,0.0729803,-0.00456576,0.0710121,-0.0926432,-0.0753032,0.205376,-0.0020525,0,0,0,0,0,0,0,7.09883,-0.867463,6.91292,-8.86179,-0.804204,3.44338,-0.0187542,0.0970491,0.054832,0.228924,-1.98089,0.19363,0.314601,0.0484876,0.0236356,0.0101038,0.117496,-0.0716721,0.00135079,0.0661093,-0.00184622,0,0,0,0,0,0,0,-0.349545,-35.0697,0.0644055,25.3839,1.28326,2.19811,0.050461,
0.100545,0.0547987,0.232342,-1.98535,0.190635,0.326464,0.0484192,0.0724805,-0.00388208,0.0705052,-0.0907415,-0.0778716,0.220965,-0.00191893,0,0,0,0,0,0,0,6.94806,-0.895703,6.75687,-8.5708,-0.831706,3.38638,-0.0181327,0.0978091,0.0550494,0.232855,-1.98312,0.193626,0.315215,0.0484903,0.0265157,0.00565922,0.111138,-0.063387,0.00247635,-0.00122358,-0.00124206,0.360015,-0.555578,-0.794856,1.03563,0.140695,-8.41661,0.0755204,0.0551182,-34.9706,0.413527,25.9076,1.21002,2.3034,0.0239107,
0.101095,0.0547852,0.232876,-1.98598,0.189876,0.328748,0.0484089,0.0717507,-0.00344399,0.0697728,-0.0884341,-0.0812642,0.23387,-0.00179158,0,0,0,0,0,0,0,6.79212,-0.879228,6.60332,-8.29676,-0.868647,3.32618,-0.0174119,0.0978091,0.0550494,0.232855,-1.98312,0.193626,0.315215,0.0484903,0.0265157,0.00565922,0.111138,-0.063387,0.00247635,-0.00122358,-0.00124206,0,0,0,0,0,0,0,0.0551182,-34.9706,0.413527,25.9076,1.21002,2.3034,0.0239107,
0.101633,0.0547674,0.233398,-1.98659,0.189061,0.331035,0.0483998,0.0708334,-0.00320025,0.068858,-0.0858509,-0.0853726,0.244272,-0.00166224,0,0,0,0,0,0,0,6.63472,-0.86318,6.44815,-8.02281,-0.914182,3.26994,-0.0165042,0.0978091,0.0550494,0.232855,-1.98312,0.193626,0.315215,0.0484903,0.0265157,0.00565922,0.111138,-0.063387,0.00247635,-0.00122358,-0.00124206,0,0,0,0,0,0,0,0.0551182,-34.9706,0.413527,25.9076,1.21002,2.3034,0.0239107,
0.101182,0.0548203,0.236186,-1.98808,0.193949,0.332138,0.0485521,0.0742923,-0.00290982,0.0723862,-0.0905753,-0.0686488,0.295006,-0.00104245,0,0,0,0,0,0,0,9.39152,-1.9118,9.22326,-10.6139,0.275182,6.93361,0.0108835,0.0978091,0.0550494,0.232855,-1.98312,0.193626,0.315215,0.0484903,0.0265157,0.00565922,0.111138,-0.063387,0.00247635,-0.00122358,-0.00124206,0,0,0,0,0,0,0,0.0551182,-34.9706,0.413527,25.9076,1.21002,2.3034,0.0239107,
0.101884,0.0548031,0.236875,-1.9889,0.193893,0.336107,0.048564,0.0769796,-0.0027584,0.0751286,-0.0928656,-0.0563358,0.335227,-0.000538469,0,0,0,0,0,0,0,9.19994,-1.81823,9.03428,-10.3109,0.231477,6.55362,0.0103169,0.098501,0.0551756,0.236089,-1.98507,0.193626,0.3152,0.0484897,0.0164239,0.00218659,0.0937204,-0.0513441,0.0018373,0.00222792,-0.00158191,-1.26148,-0.434078,-2.17715,1.50537,-0.0798806,0.431437,-0.0424817,0.25745,-35.0459,0.711073,25.8322,1.13128,2.38305,0.0303194,
0.102579,0.0547793,0.237558,-1.98966,0.193784,0.340003,0.0485765,0.0789698,-0.00280002,0.077168,-0.0934064,-0.047773,0.365564,-0.00011747,0,0,0,0,0,0,0,9.02169,-1.67743,8.8621,-10.0155,0.16857,6.19528,0.0104465,0.098501,0.0551756,0.236089,-1.98507,0.193626,0.3152,0.0484897,0.0164239,0.00218659,0.0937204,-0.0513441,0.0018373,0.00222792,-0.00158191,0,0,0,0,0,0,0,0.25745,-35.0459,0.711073,25.8322,1.13128,2.38305,0.0303194,
0.103267,0.0547482,0.238233,-1.99038,0.193615,0.343787,0.0485901,0.0803573,-0.00301815,0.0786028,-0.0927094,-0.0424517,0.387072,0.00024708,0,0,0,0,0,0,0,8.84929,-1.54471,8.69428,-9.71615,0.0888658,5.86099,0.0111098,0.098501,0.0551756,0.236089,-1.98507,0.193626,0.3152,0.0484897,0.0164239,0.00218659,0.0937204,-0.0513441,0.0018373,0.00222792,-0.00158191,0,0,0,0,0,0,0,0.25745,-35.0459,0.711073,25.8322,1.13128,2.38305,0.0303194,
0.101827,0.0546838,0.239409,-1.99066,0.193121,0.334554,0.0486493,0.0826977,-0.0035034,0.0810783,-0.0991951,-0.0403722,0.418848,0.000956119,0,0,0,0,0,0,0,10.358,-2.30968,10.2401,-12.8031,0.161227,7.91454,0.0320949,0.098501,0.0551756,0.236089,-1.98507,0.193626,0.3152,0.0484897,0.0164239,0.00218659,0.0937204,-0.0513441,0.0018373,0.00222792,-0.00158191,0,0,0,0,0,0,0,0.25745,-35.0459,0.711073,25.8322,1.13128,2.38305,0.0303194,
0.102571,0.0546436,0.240143,-1.99159,0.192808,0.338806,0.0486798,0.0847431,-0.00380841,0.0832139,-0.102796,-0.040127,0.441385,0.00152618,0,0,0,0,0,0,0,10.1632,-2.10529,10.042,-12.4816,0.0626887,7.29913,0.0315363,0.0991416,0.0554788,0.239089,-1.98655,0.193626,0.315183,0.0484904,0.0157649,0.00575287,0.0830701,-0.0348925,0.00977751,0.00166129,-0.00152682,-0.0823633,0.445785,-1.33128,2.05645,0.992527,-0.0708292,0.00688602,0.717655,-34.669,1.13954,25.6815,1.11297,2.52221,0.0239107,
0.103315,0.0546016,0.240878,-1.99248,0.192439,0.342882,0.0487108,0.0864108,-0.0040946,0.0849449,-0.104324,-0.041326,0.455018,0.00199645,0,0,0,0,0,0,0,9.98691,-1.86071,9.8668,-12.1546,-0.0490323,6.73519,0.0318492,0.0991416,0.0554788,0.239089,-1.98655,0.193626,0.315183,0.0484904,0.0157649,0.00575287,0.0830701,-0.0348925,0.00977751,0.00166129,-0.00152682,0,0,0,0,0,0,0,0.717655,-34.669,1.13954,25.6815,1.11297,2.52221,0.0239107,
0.104058,0.0545559,0.24161,-1.99331,0.192016,0.346748,0.0487428,0.087688,-0.00441804,0.0862684,-0.104384,-0.0436521,0.460652,0.00239745,0,0,0,0,0,0,0,9.82145,-1.63384,9.70119,-11.8183,-0.169403,6.21908,0.0328157,0.0991416,0.0554788,0.239089,-1.98655,0.193626,0.315183,0.0484904,0.0157649,0.00575287,0.0830701,-0.0348925,0.00977751,0.00166129,-0.00152682,0,0,0,0,0,0,0,0.717655,-34.669,1.13954,25.6815,1.11297,2.52221,0.0239107,
0.102518,0.0549487,0.24243,-1.99258,0.192993,0.336732,0.0487236,0.0892714,-0.00453982,0.0877608,-0.110958,-0.0423716,0.487819,0.00301379,0,0,0,0,0,0,0,11.0015,-1.99228,10.7754,-14.3458,0.0820184,8.73072,0.0502953,0.0991416,0.0554788,0.239089,-1.98655,0.193626,0.315183,0.0484904,0.0157649,0.00575287,0.0830701,-0.0348925,0.00977751,0.00166129,-0.00152682,0,0,0,0,0,0,0,0.717655,-34.669,1.13954,25.6815,1.11297,2.52221,0.0239107,
0.103294,0.0549132,0.24319,-1.99361,0.192664,0.341331,0.0487667,0.0908013,-0.0045213,0.0892012,-0.114609,-0.0421138,0.50525,0.00349025,0,0,0,0,0,0,0,10.7951,-1.81402,10.5707,-14.0038,-0.011432,7.97423,0.048915,0.100102,0.0559567,0.242287,-1.98774,0.193593,0.315218,0.0484942,0.0322597,0.0220488,0.096522,-0.0317061,0.00380532,0.0028053,-4.01791e-05,2.06184,2.03698,1.68149,0.398294,-0.746524,0.143001,0.185831,1.83246,-34.4469,2.23848,24.8087,1.35101,2.29699,-0.00996382,
0.104073,0.0548761,0.243953,-1.99459,0.192316,0.345696,0.0488098,0.09212,-0.00454376,0.090443,-0.116156,-0.0423863,0.513302,0.00386884,0,0,0,0,0,0,0,10.6203,-1.60061,10.4023,-13.654,-0.112738,7.29018,0.0488123,0.100102,0.0559567,0.242287,-1.98774,0.193593,0.315218,0.0484942,0.0322597,0.0220488,0.096522,-0.0317061,0.00380532,0.0028053,-4.01791e-05,0,0,0,0,0,0,0,1.83246,-34.4469,2.23848,24.8087,1.35101,2.29699,-0.00996382,
0.103796,0.055527,0.245969,-1.99437,0.193082,0.337578,0.0487729,0.0938459,-0.00457888,0.0922477,-0.1233,-0.0394871,0.532453,0.00439819,0,0,0,0,0,0,0,11.2155,-2.01389,11.069,-15.8627,-0.0648056,9.12002,0.065467,0.100102,0.0559567,0.242287,-1.98774,0.193593,0.315218,0.0484942,0.0322597,0.0220488,0.096522,-0.0317061,0.00380532,0.0028053,-4.01791e-05,0,0,0,0,0,0,0,1.83246,-34.4469,2.23848,24.8087,1.35101,2.29699,-0.00996382,
0.104605,0.0554896,0.246767,-1.99552,0.192872,0.342239,0.0488227,0.0952944,-0.00459784,0.0937429,-0.127302,-0.0368382,0.542486,0.00476155,0,0,0,0,0,0,0,11.0311,-1.85084,10.8952,-15.5189,-0.0963349,8.25966,0.0631723,0.100102,0.0559567,0.242287,-1.98774,0.193593,0.315218,0.0484942,0.0322597,0.0220488,0.096522,-0.0317061,0.00380532,0.0028053,-4.01791e-05,0,0,0,0,0,0,0,1.83246,-34.4469,2.23848,24.8087,1.35101,2.29699,-0.00996382,
0.105412,0.0554473,0.247563,-1.99661,0.192659,0.346642,0.0488728,0.0964235,-0.00473392,0.0949042,-0.129073,-0.0348114,0.544067,0.00506158,0,0,0,0,0,0,0,10.8815,-1.68475,10.7394,-15.1298,-0.133697,7.50111,0.0623256,0.101337,0.0566302,0.245681,-1.98891,0.193606,0.315424,0.0484933,0.0340974,0.0268534,0.0976759,-0.0343051,0.00516015,0.00822656,0.00043038,0.229721,0.600578,0.144234,-0.324872,0.169354,0.677658,0.0588198,0.384403,-34.3715,0.937208,24.8602,1.21643,2.21734,-0.0026396,
0.106216,0.0553983,0.248356,-1.99765,0.192429,0.350768,0.0489263,0.0972333,-0.00501394,0.0957407,-0.129296,-0.0336009,0.538414,0.00538676,0,0,0,0,0,0,0,10.7455,-1.50355,10.6067,-14.7403,-0.156426,6.80194,0.0625834,0.101337,0.0566302,0.245681,-1.98891,0.193606,0.315424,0.0484933,0.0340974,0.0268534,0.0976759,-0.0343051,0.00516015,0.00822656,0.00043038,0,0,0,0,0,0,0,0.384403,-34.3715,0.937208,24.8602,1.21643,2.21734,-0.0026396,
0.105074,0.0562121,0.249383,-1.996,0.193205,0.338667,0.048812,0.098151,-0.00488534,0.0965931,-0.136095,-0.0332966,0.557578,0.00607967,0,0,0,0,0,0,0,11.2631,-2.12287,11.0631,-17.0626,-0.0545798,9.42475,0.0724613,0.101337,0.0566302,0.245681,-1.98891,0.193606,0.315424,0.0484933,0.0340974,0.0268534,0.0976759,-0.0343051,0.00516015,0.00822656,0.00043038,0,0,0,0,0,0,0,0.384403,-34.3715,0.937208,24.8602,1.21643,2.21734,-0.0026396,
0.105885,0.0561771,0.250179,-1.99724,0.19296,0.343544,0.0488629,0.0987894,-0.00478141,0.097164,-0.139863,-0.032743,0.567983,0.00613741,0,0,0,0,0,0,0,11.0768,-1.91047,10.8895,-16.683,-0.0229081,8.5023,0.0688731,0.101337,0.0566302,0.245681,-1.98891,0.193606,0.315424,0.0484933,0.0340974,0.0268534,0.0976759,-0.0343051,0.00516015,0.00822656,0.00043038,0,0,0,0,0,0,0,0.384403,-34.3715,0.937208,24.8602,1.21643,2.21734,-0.0026396,
0.106697,0.0561381,0.250976,-1.99842,0.192547,0.348224,0.0489118,0.0993381,-0.00480025,0.0976519,-0.141437,-0.0365339,0.571369,0.00613019,0,0,0,0,0,0,0,10.9232,-1.68506,10.7376,-16.2852,-0.0920015,7.7265,0.0683403,0.101337,0.0566302,0.245681,-1.98891,0.193606,0.315424,0.0484933,0.0340974,0.0268534,0.0976759,-0.0343051,0.00516015,0.00822656,0.00043038,0,0,0,0,0,0,0,0.384403,-34.3715,0.937208,24.8602,1.21643,2.21734,-0.0026396,
0.107505,0.0560927,0.251768,-1.99955,0.192021,0.352652,0.0489599,0.0996645,-0.00497478,0.097932,-0.14144,-0.0423608,0.567808,0.00610884,0,0,0,0,0,0,0,10.7795,-1.49598,10.5826,-15.874,-0.176501,7.04991,0.0719358,0.102961,0.0572738,0.249266,-1.99049,0.19357,0.316587,0.0484933,0.0579674,0.0208145,0.101312,-0.0579813,0.00406304,0.0542418,0.000569039,2.98375,-0.754858,0.454537,-2.95953,-0.137139,5.75191,0.0173324,1.40003,-34.0224,1.81398,25.2847,1.35742,2.27044,-0.0026396,
0.106934,0.0567903,0.253212,-1.99809,0.192397,0.341442,0.0488026,0.100592,-0.00516055,0.0989103,-0.148031,-0.0476414,0.589924,0.00626962,0,0,0,0,0,0,0,11.0793,-2.24638,10.9227,-18.1571,-0.250028,9.86509,0.0956646,0.102961,0.0572738,0.249266,-1.99049,0.19357,0.316587,0.0484933,0.0579674,0.0208145,0.101312,-0.0579813,0.00406304,0.0542418,0.000569039,0,0,0,0,0,0,0,1.40003,-34.0224,1.81398,25.2847,1.35742,2.27044,-0.0026396,
0.10776,0.0567427,0.254026,-1.99941,0.191808,0.34668,0.0488467,0.101134,-0.00531666,0.0994815,-0.151561,-0.0528247,0.602908,0.00611843,0,0,0,0,0,0,0,10.6353,-2.04619,10.5053,-17.7676,-0.112592,8.9294,0.0692291,0.102961,0.0572738,0.249266,-1.99049,0.19357,0.316587,0.0484933,0.0579674,0.0208145,0.101312,-0.0579813,0.00406304,0.0542418,0.000569039,0,0,0,0,0,0,0,1.40003,-34.0224,1.81398,25.2847,1.35742,2.27044,-0.0026396,
0.108582,0.0566907,0.254835,-2.00068,0.191101,0.351715,0.0488899,0.10144,-0.00555553,0.0998096,-0.152945,-0.0599382,0.608192,0.00597324,0,0,0,0,0,0,0,10.4496,-1.85913,10.2965,-17.3452,-0.686474,8.33798,0.0626069,0.102961,0.0572738,0.249266,-1.99049,0.19357,0.316587,0.0484933,0.0579674,0.0208145,0.101312,-0.0579813,0.00406304,0.0542418,0.000569039,0,0,0,0,0,0,0,1.40003,-34.0224,1.81398,25.2847,1.35742,2.27044,-0.0026396,
0.109394,0.0566318,0.255636,-2.00189,0.190333,0.356484,0.0489334,0.10147,-0.00591641,0.0998623,-0.152761,-0.0671466,0.605781,0.00586716,0,0,0,0,0,0,0,10.3761,-1.68118,10.2229,-16.9257,-0.750266,7.59838,0.0634985,0.105244,0.0577488,0.252673,-1.9929,0.193568,0.319404,0.0484956,0.0729515,0.0114117,0.0901977,-0.0820642,0.00561815,0.0981573,0.000677932,1.87301,-1.17536,-1.38932,-3.01036,0.194389,5.48943,0.0136116,0.689884,-34.4231,1.23872,25.9314,1.30798,2.50939,-0.0227812,
0.109283,0.0572382,0.256673,-2.00087,0.191003,0.345814,0.0487709,0.102214,-0.00587389,0.100571,-0.158772,-0.0741838,0.627836,0.00603072,0,0,0,0,0,0,0,10.6565,-2.21295,10.4769,-18.9976,-0.846421,10.3767,0.0730584,0.105244,0.0577488,0.252673,-1.9929,0.193568,0.319404,0.0484956,0.0729515,0.0114117,0.0901977,-0.0820642,0.00561815,0.0981573,0.000677932,0,0,0,0,0,0,0,0.689884,-34.4231,1.23872,25.9314,1.30798,2.50939,-0.0227812,
0.110117,0.0571952,0.257492,-2.00226,0.190179,0.35132,0.0488233,0.102616,-0.00577434,0.100936,-0.161711,-0.0799556,0.639911,0.00613598,0,0,0,0,0,0,0,10.446,-2.01145,10.2836,-18.5964,-0.782824,9.44604,0.0584636,0.105244,0.0577488,0.252673,-1.9929,0.193568,0.319404,0.0484956,0.0729515,0.0114117,0.0901977,-0.0820642,0.00561815,0.0981573,0.000677932,0,0,0,0,0,0,0,0.689884,-34.4231,1.23872,25.9314,1.30798,2.50939,-0.0227812,
0.110937,0.0571474,0.258298,-2.00359,0.189397,0.356536,0.0488662,0.102603,-0.00581578,0.100891,-0.162542,-0.0835015,0.642349,0.00598101,0,0,0,0,0,0,0,10.3727,-1.80149,10.1986,-18.1693,-1.09776,8.78827,0.0555689,0.105244,0.0577488,0.252673,-1.9929,0.193568,0.319404,0.0484956,0.0729515,0.0114117,0.0901977,-0.0820642,0.00561815,0.0981573,0.000677932,0,0,0,0,0,0,0,0.689884,-34.4231,1.23872,25.9314,1.30798,2.50939,-0.0227812,
0.11175,0.0570932,0.259096,-2.00486,0.18856,0.361475,0.0489105,0.102403,-0.00600761,0.10067,-0.161953,-0.0877366,0.637351,0.00589059,0,0,0,0,0,0,0,10.374,-1.62744,10.1984,-17.7543,-1.08192,7.99508,0.0573352,0.107944,0.0581615,0.256044,-1.99594,0.193561,0.323514,0.0484942,0.0781857,0.00961543,0.0999905,-0.0917586,0.00599338,0.127445,0.000823341,0.654278,-0.224528,1.2241,-1.21179,0.0469034,3.66101,0.0181762,-0.0440639,-34.4231,0.588087,25.6339,1.26495,2.68151,-0.00996382,
0.112134,0.0576053,0.260205,-2.00422,0.190722,0.350873,0.0487749,0.103322,-0.0061685,0.101624,-0.167648,-0.0914448,0.657013,0.00605549,0,0,0,0,0,0,0,10.6109,-2.32993,10.4632,-19.7927,-1.17111,10.6859,0.0690041,0.107944,0.0581615,0.256044,-1.99594,0.193561,0.323514,0.0484942,0.0781857,0.00961543,0.0999905,-0.0917586,0.00599338,0.127445,0.000823341,0,0,0,0,0,0,0,-0.0440639,-34.4231,0.588087,25.6339,1.26495,2.68151,-0.00996382,
0.112977,0.0575538,0.261035,-2.00567,0.189881,0.356517,0.0488274,0.103723,-0.00622281,0.102047,-0.170326,-0.0941949,0.666727,0.00615844,0,0,0,0,0,0,0,10.539,-2.07026,10.4063,-19.3798,-1.06778,9.76768,0.0697913,0.107944,0.0581615,0.256044,-1.99594,0.193561,0.323514,0.0484942,0.0781857,0.00961543,0.0999905,-0.0917586,0.00599338,0.127445,0.000823341,0,0,0,0,0,0,0,-0.0440639,-34.4231,0.588087,25.6339,1.26495,2.68151,-0.00996382,
0.113801,0.0574969,0.261846,-2.00706,0.189105,0.361854,0.048867,0.10357,-0.00640082,0.101909,-0.170978,-0.0947575,0.666803,0.00591511,0,0,0,0,0,0,0,10.375,-1.85718,10.2529,-18.9639,-0.934346,8.86755,0.0576699,0.107944,0.0581615,0.256044,-1.99594,0.193561,0.323514,0.0484942,0.0781857,0.00961543,0.0999905,-0.0917586,0.00599338,0.127445,0.000823341,0,0,0,0,0,0,0,-0.0440639,-34.4231,0.588087,25.6339,1.26495,2.68151,-0.00996382,
0.11409,0.0579615,0.264021,-2.0081,0.189981,0.357347,0.0487662,0.103799,-0.00637879,0.102134,-0.176016,-0.101575,0.683143,0.00593753,0,0,0,0,0,0,0,10.4553,-2.2554,10.2918,-20.4221,-1.43305,10.6775,0.0674099,0.110021,0.0584881,0.259979,-1.99959,0.193574,0.329192,0.0484973,0.0441139,0.00648523,0.124653,-0.109494,0.00625144,0.183691,0.000186988,-4.25898,-0.391275,3.0828,-2.21689,0.0322574,7.03069,-0.0795442,0.463749,-34.0978,1.03639,25.2332,1.18621,2.63482,-0.00996382,
0.114915,0.0579138,0.264833,-2.00959,0.188984,0.363068,0.0488104,0.103669,-0.00629725,0.101992,-0.17823,-0.106187,0.689541,0.00585563,0,0,0,0,0,0,0,10.3974,-1.97039,10.2509,-20.0198,-1.29535,9.86632,0.0695442,0.110021,0.0584881,0.259979,-1.99959,0.193574,0.329192,0.0484973,0.0441139,0.00648523,0.124653,-0.109494,0.00625144,0.183691,0.000186988,0,0,0,0,0,0,0,0.463749,-34.0978,1.03639,25.2332,1.18621,2.63482,-0.00996382,
0.115722,0.0578604,0.265626,-2.01103,0.188085,0.368455,0.0488404,0.103117,-0.00637179,0.101428,-0.178571,-0.10744,0.686295,0.00543294,0,0,0,0,0,0,0,10.2048,-1.75907,10.0702,-19.6267,-1.11386,8.93353,0.053266,0.110021,0.0584881,0.259979,-1.99959,0.193574,0.329192,0.0484973,0.0441139,0.00648523,0.124653,-0.109494,0.00625144,0.183691,0.000186988,0,0,0,0,0,0,0,0.463749,-34.0978,1.03639,25.2332,1.18621,2.63482,-0.00996382,
0.116521,0.0578007,0.266411,-2.01243,0.187144,0.373533,0.0488696,0.102454,-0.00659116,0.100758,-0.177691,-0.109459,0.675987,0.00507646,0,0,0,0,0,0,0,10.1576,-1.56559,9.99908,-19.2289,-1.48311,8.31509,0.0504805,0.110021,0.0584881,0.259979,-1.99959,0.193574,0.329192,0.0484973,0.0441139,0.00648523,0.124653,-0.109494,0.00625144,0.183691,0.000186988,0,0,0,0,0,0,0,0.463749,-34.0978,1.03639,25.2332,1.18621,2.63482,-0.00996382,
0.114077,0.0579156,0.264022,-2.0083,0.189577,0.35732,0.0487258,0.102775,-0.00672223,0.10114,-0.182712,-0.114374,0.689652,0.00500862,0,0,0,0,0,0,0,10.3318,-2.2711,10.1848,-21.0701,-1.72104,10.6681,0.0612286,0.111152,0.0588786,0.264913,-2.00339,0.193547,0.335507,0.0484956,0.0264708,0.0177685,0.147727,-0.108912,0.00424265,0.169622,0.00054424,-2.20538,1.41041,2.88426,0.0726605,-0.251099,-1.75861,0.0446565,1.50318,-34.1216,1.98854,25.0348,1.31988,2.32354,-0.0227812,
0.114896,0.057861,0.264829,-2.00986,0.188587,0.363014,0.0487547,0.102674,-0.00674317,0.10108,-0.185114,-0.116228,0.694079,0.00473012,0,0,0,0,0,0,0,10.3024,-1.97499,10.1758,-20.6926,-1.48817,9.80173,0.0602453,0.111152,0.0588786,0.264913,-2.00339,0.193547,0.335507,0.0484956,0.0264708,0.0177685,0.147727,-0.108912,0.00424265,0.169622,0.00054424,0,0,0,0,0,0,0,1.50318,-34.1216,1.98854,25.0348,1.31988,2.32354,-0.0227812,
0.115695,0.057802,0.265617,-2.01137,0.187727,0.368389,0.048768,0.102129,-0.00686975,0.100566,-0.185753,-0.114503,0.689646,0.0041162,0,0,0,0,0,0,0,10.1454,-1.76013,10.0311,-20.3312,-1.2365,8.83814,0.042465,0.111152,0.0588786,0.264913,-2.00339,0.193547,0.335507,0.0484956,0.0264708,0.0177685,0.147727,-0.108912,0.00424265,0.169622,0.00054424,0,0,0,0,0,0,0,1.50318,-34.1216,1.98854,25.0348,1.31988,2.32354,-0.0227812,
0.116484,0.0577372,0.266394,-2.01283,0.186861,0.37348,0.0487741,0.101422,-0.00711522,0.0998857,-0.185255,-0.113255,0.678992,0.00344522,0,0,0,0,0,0,0,10.1223,-1.56343,9.98369,-19.9708,-1.53686,8.19573,0.0385996,0.111152,0.0588786,0.264913,-2.00339,0.193547,0.335507,0.0484956,0.0264708,0.0177685,0.147727,-0.108912,0.00424265,0.169622,0.00054424,0,0,0,0,0,0,0,1.50318,-34.1216,1.98854,25.0348,1.31988,2.32354,-0.0227812,
0.115235,0.0584367,0.268974,-2.01247,0.190149,0.363632,0.048627,0.101928,-0.00682708,0.100365,-0.19076,-0.113294,0.693052,0.00293058,0,0,0,0,0,0,0,10.3968,-2.17402,10.2238,-21.8003,-1.6094,10.662,0.0490382,0.112296,0.0594616,0.270188,-2.00729,0.193518,0.34153,0.0484926,0.0292065,0.0146148,0.156132,-0.120531,0.00241089,0.182618,-0.000564348,0.341956,-0.394214,1.05062,-1.45229,-0.228969,1.62456,-0.138574,0.134464,-34.4231,0.611891,25.5069,1.22284,2.37664,0.00376909,
0.11605,0.0583913,0.269775,-2.0141,0.189287,0.369375,0.0486209,0.101913,-0.00659636,0.10032,-0.193403,-0.112184,0.698029,0.00219357,0,0,0,0,0,0,0,10.3559,-1.89634,10.2053,-21.4734,-1.28862,9.80006,0.0416225,0.112296,0.0594616,0.270188,-2.00729,0.193518,0.34153,0.0484926,0.0292065,0.0146148,0.156132,-0.120531,0.00241089,0.182618,-0.000564348,0,0,0,0,0,0,0,0.134464,-34.4231,0.611891,25.5069,1.22284,2.37664,0.00376909,
0.116849,0.0583378,0.27056,-2.01568,0.188431,0.37484,0.0486134,0.101494,-0.00661541,0.0998752,-0.194189,-0.111166,0.695049,0.00156715,0,0,0,0,0,0,0,10.1927,-1.71149,10.0517,-21.1417,-1.03995,8.88664,0.0221603,0.112296,0.0594616,0.270188,-2.00729,0.193518,0.34153,0.0484926,0.0292065,0.0146148,0.156132,-0.120531,0.00241089,0.182618,-0.000564348,0,0,0,0,0,0,0,0.134464,-34.4231,0.611891,25.5069,1.22284,2.37664,0.00376909,
0.117635,0.0582773,0.271333,-2.01721,0.187471,0.380047,0.0486,0.100852,-0.00680367,0.0992188,-0.193685,-0.112917,0.686216,0.000918556,0,0,0,0,0,0,0,10.0892,-1.54712,9.92774,-20.7969,-1.30423,8.30349,0.0110808,0.112296,0.0594616,0.270188,-2.00729,0.193518,0.34153,0.0484926,0.0292065,0.0146148,0.156132,-0.120531,0.00241089,0.182618,-0.000564348,0,0,0,0,0,0,0,0.134464,-34.4231,0.611891,25.5069,1.22284,2.37664,0.00376909,
0.116444,0.0589526,0.274316,-2.01665,0.189425,0.369869,0.0484976,0.101506,-0.0068642,0.0998818,-0.198752,-0.120788,0.700698,0.000450273,0,0,0,0,0,0,0,10.1388,-2.348,9.98619,-22.5336,-1.62868,10.645,0.0108913,0.113143,0.0599942,0.275053,-2.01111,0.193332,0.348828,0.0484904,0.022882,0.0169551,0.133913,-0.114535,-0.0110411,0.237111,-0.000139326,-0.790566,0.292543,-2.77742,0.749448,-1.6815,6.81163,0.0531278,-0.984311,-34.3953,-0.435472,25.6815,1.25946,2.38305,0.0239107,
