xiao-wang007/linearmpc_panda/paper_data/panda_torque_PD_controller_opt_time_to_start_no_torque_ff/0/trajectory.csv
Commanded Joint 0 Position,Commanded Joint 1 Position,Commanded Joint 2 Position,Commanded Joint 3 Position,Commanded Joint 4 Position,Commanded Joint 5 Position,Commanded Joint 6 Position,Commanded Joint 0 Velocity,Commanded Joint 1 Velocity,Commanded Joint 2 Velocity,Commanded Joint 3 Velocity,Commanded Joint 4 Velocity,Commanded Joint 5 Velocity,Commanded Joint 6 Velocity,Commanded Joint 0 Acceleration,Commanded Joint 1 Acceleration,Commanded Joint 2 Acceleration,Commanded Joint 3 Acceleration,Commanded Joint 4 Acceleration,Commanded Joint 5 Acceleration,Commanded Joint 6 Acceleration,Commanded Joint 0 Torque,Commanded Joint 1 Torque,Commanded Joint 2 Torque,Commanded Joint 3 Torque,Commanded Joint 4 Torque,Commanded Joint 5 Torque,Commanded Joint 6 Torque,Actual Joint 0 Position,Actual Joint 1 Position,Actual Joint 2 Position,Actual Joint 3 Position,Actual Joint 4 Position,Actual Joint 5 Position,Actual Joint 6 Position,Actual Joint 0 Velocity,Actual Joint 1 Velocity,Actual Joint 2 Velocity,Actual Joint 3 Velocity,Actual Joint 4 Velocity,Actual Joint 5 Velocity,Actual Joint 6 Velocity,Actual Joint 0 Acceleration,Actual Joint 1 Acceleration,Actual Joint 2 Acceleration,Actual Joint 3 Acceleration,Actual Joint 4 Acceleration,Actual Joint 5 Acceleration,Actual Joint 6 Acceleration,Actual Joint 0 Torque,Actual Joint 1 Torque,Actual Joint 2 Torque,Actual Joint 3 Torque,Actual Joint 4 Torque,Actual Joint 5 Torque,Actual Joint 6 Torque,
0.0418455,0.0274245,-0.0620304,-1.75292,-0.0258328,0.266964,-0.00598995,0.00016843,0.0229505,0.000170264,-0.0324441,-0.00250947,0.0530714,-0.000365097,0.105269,14.3441,0.106415,-20.2775,-1.56842,33.1697,-0.228186,0,0,0,0,0,0,0,0.0418252,0.0266835,-0.0620516,-1.75008,-0.0257302,0.261299,-0.005944,-0.000532603,0.000311315,0.000240511,-8.46427e-05,0.000829416,0.000441019,-0.000652841,0,0,0,0,0,0,0,0.25745,-37.1407,0.0644055,27.4747,0.581051,3.06603,0.0843355,
0.0418234,0.0266912,-0.0620529,-1.75008,-0.0257234,0.261311,-0.00594417,0.000125615,0.0184242,0.000129507,-0.0259526,-0.00197872,0.0425629,-0.0002923,-0.0267592,-2.82892,-0.0254733,4.05719,0.331718,-6.56787,0.0454985,0,0,0,0,0,0,0,0.0418252,0.0266835,-0.0620516,-1.75008,-0.0257302,0.261299,-0.005944,-0.000532603,0.000311315,0.000240511,-8.46427e-05,0.000829416,0.000441019,-0.000652841,0,0,0,0,0,0,0,0.25745,-37.1407,0.0644055,27.4747,0.581051,3.06603,0.0843355,
0.0418232,0.0266938,-0.0620531,-1.75008,-0.0257227,0.261315,-0.00594419,9.39591e-05,0.0148023,9.93813e-05,-0.0207581,-0.00156448,0.0341627,-0.000234299,-0.0197849,-2.2637,-0.0188287,3.24655,0.258903,-5.2501,0.0362508,0,0,0,0,0,0,0,0.0418277,0.0268919,-0.0620519,-1.75012,-0.0257278,0.261291,-0.00594019,0.00328208,0.00658804,0.000573336,0.00421181,0.00345608,0.000397861,-0.000385653,0.476835,0.784591,0.041603,0.537056,0.328333,-0.00539477,0.0333985,0.285221,-36.2917,0.0644055,27.2763,0.532528,3.12554,0.050461,
0.041823,0.0266962,-0.0620532,-1.75008,-0.0257221,0.26132,-0.00594421,7.03278e-05,0.011904,7.691e-05,-0.0166015,-0.00123793,0.0274478,-0.000188034,-0.0147696,-1.81143,-0.0140446,2.59786,0.204096,-4.19683,0.0289152,0,0,0,0,0,0,0,0.0418277,0.0268919,-0.0620519,-1.75012,-0.0257278,0.261291,-0.00594019,0.00328208,0.00658804,0.000573336,0.00421181,0.00345608,0.000397861,-0.000385653,0,0,0,0,0,0,0,0.285221,-36.2917,0.0644055,27.2763,0.532528,3.12554,0.050461,
0.0416009,0.026952,-0.0622843,-1.74995,-0.0168838,0.256873,-0.00597554,-0.000803388,0.00942632,-0.000775092,-0.0129516,0.0541803,-0.00720913,-0.000188109,-0.546072,-1.54857,-0.532501,2.28117,34.6364,-21.6606,-4.66341e-05,0,0,0,0,0,0,0,0.0418277,0.0268919,-0.0620519,-1.75012,-0.0257278,0.261291,-0.00594019,0.00328208,0.00658804,0.000573336,0.00421181,0.00345608,0.000397861,-0.000385653,0,0,0,0,0,0,0,0.285221,-36.2917,0.0644055,27.2763,0.532528,3.12554,0.050461,
0.0415785,0.0269473,-0.0623058,-1.74994,-0.0146197,0.255651,-0.00597642,-0.00120256,0.00742475,-0.00115557,-0.0102149,0.0999456,-0.0363157,-0.00017255,-0.249484,-1.25098,-0.2378,1.71042,28.6033,-18.1916,0.00972443,0,0,0,0,0,0,0,0.0418277,0.0268919,-0.0620519,-1.75012,-0.0257278,0.261291,-0.00594019,0.00328208,0.00658804,0.000573336,0.00421181,0.00345608,0.000397861,-0.000385653,0,0,0,0,0,0,0,0.285221,-36.2917,0.0644055,27.2763,0.532528,3.12554,0.050461,
0.0415672,0.0269434,-0.0623162,-1.74994,-0.0123271,0.254395,-0.00597701,-0.00124493,0.00584097,-0.0011844,-0.0081698,0.137271,-0.0604519,-0.000152785,-0.0264811,-0.989863,-0.0180175,1.27821,23.3284,-15.0851,0.0123527,0,0,0,0,0,0,0,0.0418245,0.0271744,-0.0620508,-1.75042,-0.0257304,0.261647,-0.00594289,8.33684e-05,0.0107613,0.00129315,-0.0205336,0.0031898,0.0368585,-0.000670102,-0.399839,0.521656,0.0899764,-3.09318,-0.0332849,4.55759,-0.0355562,0.25745,-34.8952,0.0644055,25.8322,0.54443,3.00011,0.0706026,
0.0415656,0.0269409,-0.0623169,-1.74995,-0.0100239,0.25312,-0.00597749,-0.00103625,0.0046106,-0.000967433,-0.00664632,0.167398,-0.0802419,-0.000134055,0.130427,-0.768981,0.135605,0.952172,18.8291,-12.3688,0.0117064,0,0,0,0,0,0,0,0.0418245,0.0271744,-0.0620508,-1.75042,-0.0257304,0.261647,-0.00594289,8.33684e-05,0.0107613,0.00129315,-0.0205336,0.0031898,0.0368585,-0.000670102,0,0,0,0,0,0,0,0.25745,-34.8952,0.0644055,25.8322,0.54443,3.00011,0.0706026,
0.0413187,0.0274085,-0.0625745,-1.74952,0.00420712,0.236718,-0.00606301,-0.00166303,0.00347192,-0.00160987,-0.00379477,0.324797,-0.227109,-0.000276706,-0.391737,-0.711673,-0.401526,1.78222,98.3749,-91.7918,-0.0891569,0,0,0,0,0,0,0,0.0418245,0.0271744,-0.0620508,-1.75042,-0.0257304,0.261647,-0.00594289,8.33684e-05,0.0107613,0.00129315,-0.0205336,0.0031898,0.0368585,-0.000670102,0,0,0,0,0,0,0,0.25745,-34.8952,0.0644055,25.8322,0.54443,3.00011,0.0706026,
0.0413305,0.0274071,-0.0625621,-1.7495,0.0121284,0.229915,-0.00606803,-0.00103503,0.00274248,-0.000978569,-0.00272236,0.457871,-0.351768,-0.000346838,0.392498,-0.455902,0.394566,0.670256,83.1707,-77.9121,-0.0438324,0,0,0,0,0,0,0,0.0418245,0.0271744,-0.0620508,-1.75042,-0.0257304,0.261647,-0.00594289,8.33684e-05,0.0107613,0.00129315,-0.0205336,0.0031898,0.0368585,-0.000670102,0,0,0,0,0,0,0,0.25745,-34.8952,0.0644055,25.8322,0.54443,3.00011,0.0706026,
0.0413826,0.0274192,-0.0625095,-1.74953,0.0202372,0.222938,-0.00607222,0.000474585,0.00249726,0.000531836,-0.00282399,0.569016,-0.45584,-0.000382384,0.943509,-0.153261,0.944003,-0.0635173,69.4657,-65.0451,-0.0222161,0,0,0,0,0,0,0,0.0418141,0.0276698,-0.0620727,-1.75084,-0.0249933,0.261792,-0.00593947,-0.00151714,0.0166925,-0.00401538,-0.0134906,0.087066,-0.00403499,0.000416872,-0.200064,0.741405,-0.663566,0.880382,10.4845,-5.11169,0.135872,0.360599,-36.9661,0.286573,27.4747,1.13128,2.97997,0.0440523,
0.0414691,0.0274474,-0.0624229,-1.74959,0.0284709,0.215865,-0.00607615,0.00254136,0.00270166,0.00259175,-0.00365731,0.661056,-0.541489,-0.000404116,1.29174,0.127746,1.28744,-0.520826,57.5251,-53.5305,-0.0135824,0,0,0,0,0,0,0,0.0418141,0.0276698,-0.0620727,-1.75084,-0.0249933,0.261792,-0.00593947,-0.00151714,0.0166925,-0.00401538,-0.0134906,0.087066,-0.00403499,0.000416872,0,0,0,0,0,0,0,0.360599,-36.9661,0.286573,27.4747,1.13128,2.97997,0.0440523,
0.0448787,0.025903,-0.0591768,-1.75265,0.0103361,0.216474,-0.00594746,0.021724,-0.0082735,0.0212424,-0.0167481,0.717913,-0.681483,-0.000194487,11.9892,-6.85947,11.6566,-8.18176,35.5356,-87.4965,0.131018,0,0,0,0,0,0,0,0.0418141,0.0276698,-0.0620727,-1.75084,-0.0249933,0.261792,-0.00593947,-0.00151714,0.0166925,-0.00401538,-0.0134906,0.087066,-0.00403499,0.000416872,0,0,0,0,0,0,0,0.360599,-36.9661,0.286573,27.4747,1.13128,2.97997,0.0440523,
0.0457278,0.0254985,-0.05835,-1.75325,0.018179,0.206176,-0.00594178,0.038608,-0.0167307,0.0376625,-0.0283534,0.770403,-0.802622,-1.35826e-05,10.5525,-5.28573,10.2626,-7.2533,32.8066,-75.7116,0.113066,0,0,0,0,0,0,0,0.0418141,0.0276698,-0.0620727,-1.75084,-0.0249933,0.261792,-0.00593947,-0.00151714,0.0166925,-0.00401538,-0.0134906,0.087066,-0.00403499,0.000416872,0,0,0,0,0,0,0,0.360599,-36.9661,0.286573,27.4747,1.13128,2.97997,0.0440523,
0.0466209,0.0251142,-0.0574798,-1.75388,0.0262301,0.195625,-0.00593519,0.0532126,-0.0229925,0.0518852,-0.038416,0.8176,-0.905872,0.000153849,9.12792,-3.91364,8.88916,-6.28912,29.4982,-64.5314,0.104645,0,0,0,0,0,0,0,0.0415716,0.0282258,-0.0624207,-1.75072,-0.0144034,0.257779,-0.00594576,-0.0177372,0.00767512,-0.0237974,0.00957372,0.594055,-0.291241,-0.000886293,-2.02751,-1.12718,-2.47275,2.88303,63.3736,-35.9008,-0.162896,1.93164,-36.9661,1.7624,25.3323,2.43774,0.951163,0.0907442,
0.0475438,0.0247498,-0.0565796,-1.75457,0.0344406,0.18515,-0.00592701,0.0656434,-0.0275028,0.0640132,-0.0479095,0.859342,-0.986587,0.000327571,7.76921,-2.81892,7.58001,-5.93346,26.0886,-50.4465,0.108576,0,0,0,0,0,0,0,0.0415716,0.0282258,-0.0624207,-1.75072,-0.0144034,0.257779,-0.00594576,-0.0177372,0.00767512,-0.0237974,0.00957372,0.594055,-0.291241,-0.000886293,0,0,0,0,0,0,0,1.93164,-36.9661,1.7624,25.3323,2.43774,0.951163,0.0907442,
0.0450376,0.0276782,-0.0589387,-1.75308,0.0179297,0.2197,-0.00586326,0.0782087,-0.0238703,0.0767759,-0.0561122,0.872597,-1.02705,0.000382075,7.85333,2.27026,7.97672,-5.12664,8.28411,-25.2903,0.0340652,0,0,0,0,0,0,0,0.0415716,0.0282258,-0.0624207,-1.75072,-0.0144034,0.257779,-0.00594576,-0.0177372,0.00767512,-0.0237974,0.00957372,0.594055,-0.291241,-0.000886293,0,0,0,0,0,0,0,1.93164,-36.9661,1.7624,25.3323,2.43774,0.951163,0.0907442,
0.0461459,0.0276444,-0.0578377,-1.75386,0.0256431,0.209744,-0.00585936,0.0902723,-0.0199409,0.0889473,-0.0644062,0.890913,-1.07053,0.000403147,7.53976,2.45589,7.60709,-5.18376,11.4476,-27.1753,0.0131698,0,0,0,0,0,0,0,0.0415716,0.0282258,-0.0624207,-1.75072,-0.0144034,0.257779,-0.00594576,-0.0177372,0.00767512,-0.0237974,0.00957372,0.594055,-0.291241,-0.000886293,0,0,0,0,0,0,0,1.93164,-36.9661,1.7624,25.3323,2.43774,0.951163,0.0907442,
0.0473082,0.0276487,-0.0566839,-1.75469,0.0335994,0.199473,-0.00585562,0.101276,-0.0158464,0.100001,-0.0723737,0.911638,-1.11322,0.000416148,6.87706,2.55907,6.90858,-4.97969,12.9533,-26.6775,0.00812592,0,0,0,0,0,0,0,0.0415716,0.0282258,-0.0624207,-1.75072,-0.0144034,0.257779,-0.00594576,-0.0177372,0.00767512,-0.0237974,0.00957372,0.594055,-0.291241,-0.000886293,0,0,0,0,0,0,0,1.93164,-36.9661,1.7624,25.3323,2.43774,0.951163,0.0907442,
0.0485044,0.0276855,-0.0554973,-1.75557,0.0417446,0.189027,-0.00585174,0.110925,-0.0117559,0.109667,-0.079935,0.93294,-1.15172,0.000429817,6.03113,2.55654,6.04125,-4.72584,13.3136,-24.0681,0.00854276,0,0,0,0,0,0,0,0.0412208,0.0282896,-0.0628174,-1.7505,0.00891576,0.239844,-0.00594434,-0.00907053,0.00143516,-0.0053203,0.00153935,0.784925,-0.705446,0.000564323,1.08334,-0.779995,2.30963,-1.0043,23.8587,-51.7755,0.181327,4.77222,-36.5694,4.36098,24.3604,2.28485,-0.282053,0.0577852,
0.0457708,0.027141,-0.0583459,-1.75583,0.0431505,0.197194,-0.00601735,0.120187,-0.013846,0.118565,-0.0967387,0.93353,-1.16718,-0.000429608,5.78825,-1.30626,5.56143,-10.5023,0.368723,-9.66135,-0.537141,0,0,0,0,0,0,0,0.0412208,0.0282896,-0.0628174,-1.7505,0.00891576,0.239844,-0.00594434,-0.00907053,0.00143516,-0.0053203,0.00153935,0.784925,-0.705446,0.000564323,0,0,0,0,0,0,0,4.77222,-36.5694,4.36098,24.3604,2.28485,-0.282053,0.0577852,
0.047106,0.026992,-0.0570371,-1.7572,0.0509011,0.187033,-0.00604783,0.129528,-0.0148004,0.127574,-0.111641,0.940589,-1.18777,-0.00110571,5.8384,-0.596504,5.63065,-9.31394,4.41201,-12.8701,-0.422563,0,0,0,0,0,0,0,0.0412208,0.0282896,-0.0628174,-1.7505,0.00891576,0.239844,-0.00594434,-0.00907053,0.00143516,-0.0053203,0.00153935,0.784925,-0.705446,0.000564323,0,0,0,0,0,0,0,4.77222,-36.5694,4.36098,24.3604,2.28485,-0.282053,0.0577852,
0.048492,0.0268643,-0.0556783,-1.75861,0.0588647,0.176634,-0.00607423,0.138274,-0.015033,0.136027,-0.124629,0.951563,-1.21018,-0.0015445,5.46593,-0.145369,5.28293,-8.11746,6.85843,-14.0037,-0.274244,0,0,0,0,0,0,0,0.0412208,0.0282896,-0.0628174,-1.7505,0.00891576,0.239844,-0.00594434,-0.00907053,0.00143516,-0.0053203,0.00153935,0.784925,-0.705446,0.000564323,0,0,0,0,0,0,0,4.77222,-36.5694,4.36098,24.3604,2.28485,-0.282053,0.0577852,
0.0499103,0.0267473,-0.0542879,-1.7601,0.0670006,0.166383,-0.00609547,0.146076,-0.014952,0.143582,-0.136918,0.964646,-1.22444,-0.00176682,4.87657,0.050609,4.72209,-7.68078,8.17735,-8.90927,-0.138949,0,0,0,0,0,0,0,0.0414821,0.0278531,-0.0625033,-1.75103,0.0356299,0.21151,-0.0059469,0.00916542,-0.0252963,0.0273185,-0.0341694,0.846717,-0.875495,-8.71771e-05,2.27949,-3.34143,4.07985,-4.46359,7.72398,-21.2562,-0.0814375,6.44641,-34.796,6.06294,23.6383,2.40112,0.188528,0.0779268,
0.0467654,0.0264632,-0.0572259,-1.75842,0.0709512,0.167374,-0.00615902,0.151339,-0.015682,0.14907,-0.152523,0.961247,-1.22567,-0.00260329,3.28925,-0.45625,3.42952,-9.75315,-2.12465,-0.773296,-0.522797,0,0,0,0,0,0,0,0.0414821,0.0278531,-0.0625033,-1.75103,0.0356299,0.21151,-0.0059469,0.00916542,-0.0252963,0.0273185,-0.0341694,0.846717,-0.875495,-8.71771e-05,0,0,0,0,0,0,0,6.44641,-34.796,6.06294,23.6383,2.40112,0.188528,0.0779268,
0.0482128,0.0263605,-0.0557912,-1.76021,0.0787653,0.157427,-0.00620161,0.157256,-0.0151126,0.155122,-0.166987,0.964349,-1.2292,-0.00314734,3.69808,0.355859,3.78259,-9.03965,1.93901,-2.20571,-0.340033,0,0,0,0,0,0,0,0.0414821,0.0278531,-0.0625033,-1.75103,0.0356299,0.21151,-0.0059469,0.00916542,-0.0252963,0.0273185,-0.0341694,0.846717,-0.875495,-8.71771e-05,0,0,0,0,0,0,0,6.44641,-34.796,6.06294,23.6383,2.40112,0.188528,0.0779268,
0.0497055,0.0262923,-0.0543122,-1.76213,0.0867743,0.14791,-0.00623539,0.163122,-0.0137966,0.161072,-0.18142,0.971704,-1.2213,-0.00336227,3.66621,0.822484,3.71876,-9.02099,4.5968,4.93928,-0.13433,0,0,0,0,0,0,0,0.0414821,0.0278531,-0.0625033,-1.75103,0.0356299,0.21151,-0.0059469,0.00916542,-0.0252963,0.0273185,-0.0341694,0.846717,-0.875495,-8.71771e-05,0,0,0,0,0,0,0,6.44641,-34.796,6.06294,23.6383,2.40112,0.188528,0.0779268,
0.0512261,0.0262629,-0.052806,-1.76413,0.0949336,0.139087,-0.00626204,0.168513,-0.0117711,0.166514,-0.195113,0.981347,-1.19761,-0.0033561,3.36931,1.26597,3.40159,-8.55771,6.02662,14.8076,0.00385859,0,0,0,0,0,0,0,0.0430661,0.0269475,-0.0607972,-1.7533,0.0645966,0.178028,-0.005942,0.0643542,-0.0176982,0.06481,-0.0849369,0.889323,-1.03319,0.00146235,6.89859,0.94976,4.68644,-6.34594,5.32585,-19.7115,0.193691,5.25623,-32.9988,5.06318,23.3408,2.04132,0.791861,0.0239107,
0.0492022,0.0253398,-0.0547447,-1.76355,0.10157,0.133873,-0.00620143,0.171503,-0.0151304,0.169326,-0.21544,0.980088,-1.17404,-0.00388323,1.8688,-2.0996,1.75763,-12.7044,-0.786865,14.7306,-0.329456,0,0,0,0,0,0,0,0.0430661,0.0269475,-0.0607972,-1.7533,0.0645966,0.178028,-0.005942,0.0643542,-0.0176982,0.06481,-0.0849369,0.889323,-1.03319,0.00146235,0,0,0,0,0,0,0,5.25623,-32.9988,5.06318,23.3408,2.04132,0.791861,0.0239107,
0.0507191,0.0251586,-0.0532519,-1.76602,0.109542,0.126023,-0.00624293,0.175125,-0.0166336,0.172781,-0.234151,0.983375,-1.13549,-0.00414414,2.26375,-0.939484,2.15935,-11.6947,2.05428,24.0939,-0.16307,0,0,0,0,0,0,0,0.0430661,0.0269475,-0.0607972,-1.7533,0.0645966,0.178028,-0.005942,0.0643542,-0.0176982,0.06481,-0.0849369,0.889323,-1.03319,0.00146235,0,0,0,0,0,0,0,5.25623,-32.9988,5.06318,23.3408,2.04132,0.791861,0.0239107,
0.0522658,0.0250217,-0.0517299,-1.76855,0.117648,0.119068,-0.00627524,0.178768,-0.0167294,0.176276,-0.250523,0.989345,-1.08228,-0.00412303,2.27687,-0.0598658,2.18387,-10.2322,3.73112,33.2575,0.013197,0,0,0,0,0,0,0,0.0430661,0.0269475,-0.0607972,-1.7533,0.0645966,0.178028,-0.005942,0.0643542,-0.0176982,0.06481,-0.0849369,0.889323,-1.03319,0.00146235,0,0,0,0,0,0,0,5.25623,-32.9988,5.06318,23.3408,2.04132,0.791861,0.0239107,
0.0538276,0.0249225,-0.0501932,-1.7711,0.125853,0.113042,-0.00629941,0.182059,-0.0158634,0.17944,-0.264211,0.996615,-1.01647,-0.00390278,2.05699,0.541283,1.97742,-8.55514,4.54378,41.1305,0.137651,0,0,0,0,0,0,0,0.0459226,0.0263558,-0.0576607,-1.7579,0.0954718,0.140482,-0.0059513,0.090617,0.00415547,0.108033,-0.151926,0.94708,-1.11356,-0.000388228,3.28285,2.73171,5.40283,-8.37364,7.21961,-10.0462,-0.231322,4.59766,-34.07,4.2856,24.4119,1.58905,1.83922,0.0641939,
0.0526696,0.0255516,-0.0509538,-1.77095,0.133947,0.104499,-0.0061556,0.183957,-0.0140833,0.181519,-0.283216,0.995967,-0.954347,-0.00392839,1.18663,1.11256,1.29948,-11.8783,-0.404592,38.8249,-0.0160043,0,0,0,0,0,0,0,0.0459226,0.0263558,-0.0576607,-1.7579,0.0954718,0.140482,-0.0059513,0.090617,0.00415547,0.108033,-0.151926,0.94708,-1.11356,-0.000388228,0,0,0,0,0,0,0,4.59766,-34.07,4.2856,24.4119,1.58905,1.83922,0.0641939,
0.0542328,0.0255432,-0.0494052,-1.77385,0.142005,0.0997444,-0.00618017,0.186247,-0.0114754,0.18393,-0.299003,0.99822,-0.882347,-0.00375699,1.43069,1.62993,1.50717,-9.86686,1.40813,45,0.107126,0,0,0,0,0,0,0,0.0459226,0.0263558,-0.0576607,-1.7579,0.0954718,0.140482,-0.0059513,0.090617,0.00415547,0.108033,-0.151926,0.94708,-1.11356,-0.000388228,0,0,0,0,0,0,0,4.59766,-34.07,4.2856,24.4119,1.58905,1.83922,0.0641939,
0.0558103,0.0255728,-0.0478429,-1.77674,0.15015,0.0958475,-0.00619304,0.188435,-0.0084403,0.186203,-0.311529,1.0022,-0.8033,-0.00332722,1.36788,1.89692,1.42039,-7.82883,2.48561,49.4046,0.268604,0,0,0,0,0,0,0,0.0459226,0.0263558,-0.0576607,-1.7579,0.0954718,0.140482,-0.0059513,0.090617,0.00415547,0.108033,-0.151926,0.94708,-1.11356,-0.000388228,0,0,0,0,0,0,0,4.59766,-34.07,4.2856,24.4119,1.58905,1.83922,0.0641939,
0.0573891,0.0256312,-0.0462795,-1.77961,0.158361,0.0927541,-0.006197,0.190219,-0.00529237,0.188048,-0.32099,1.00703,-0.719975,-0.00276076,1.1149,1.96745,1.1532,-5.913,3.02,52.0782,0.354043,0,0,0,0,0,0,0,0.0500968,0.0256202,-0.0532524,-1.76564,0.127275,0.104423,-0.00595562,0.13494,-0.0502406,0.136354,-0.268523,0.961218,-0.969492,0.000697354,5.54032,-6.79951,3.54017,-14.5747,1.76718,18.0081,0.135698,3.42731,-33.3479,3.16286,24.8364,1.78405,2.2503,0.050461,
0.0573295,0.0238403,-0.0461137,-1.78159,0.166806,0.0852113,-0.00607278,0.190913,-0.00936558,0.188631,-0.338744,1.00748,-0.625583,-0.00249036,0.434048,-2.54575,0.364582,-11.0961,0.281936,58.9948,0.168996,0,0,0,0,0,0,0,0.0500968,0.0256202,-0.0532524,-1.76564,0.127275,0.104423,-0.00595562,0.13494,-0.0502406,0.136354,-0.268523,0.961218,-0.969492,0.000697354,0,0,0,0,0,0,0,3.42731,-33.3479,3.16286,24.8364,1.78405,2.2503,0.050461,
0.0588874,0.0236802,-0.044578,-1.78484,0.174944,0.083965,-0.0060758,0.191679,-0.0114952,0.189298,-0.352301,1.00943,-0.531625,-0.00206765,0.4782,-1.33103,0.416857,-8.47341,1.22009,58.7239,0.264195,0,0,0,0,0,0,0,0.0500968,0.0256202,-0.0532524,-1.76564,0.127275,0.104423,-0.00595562,0.13494,-0.0502406,0.136354,-0.268523,0.961218,-0.969492,0.000697354,0,0,0,0,0,0,0,3.42731,-33.3479,3.16286,24.8364,1.78405,2.2503,0.050461,
0.0604428,0.0235529,-0.0430449,-1.78805,0.183128,0.0833725,-0.00606772,0.192228,-0.012377,0.189766,-0.362176,1.01216,-0.440111,-0.00145217,0.343412,-0.551129,0.292381,-6.17129,1.7028,57.1963,0.384675,0,0,0,0,0,0,0,0.0500968,0.0256202,-0.0532524,-1.76564,0.127275,0.104423,-0.00595562,0.13494,-0.0502406,0.136354,-0.268523,0.961218,-0.969492,0.000697354,0,0,0,0,0,0,0,3.42731,-33.3479,3.16286,24.8364,1.78405,2.2503,0.050461,
0.0619876,0.0234489,-0.0415223,-1.79122,0.191344,0.083357,-0.0060477,0.192401,-0.0125016,0.189875,-0.368907,1.01514,-0.352478,-0.000661181,0.108277,-0.0778585,0.0684278,-4.20699,1.86145,54.7708,0.494367,0,0,0,0,0,0,0,0.0554652,0.0254459,-0.0480885,-1.77623,0.159625,0.075812,-0.00595629,0.174352,0.0177574,0.152399,-0.317163,0.95912,-0.726898,0.000729879,4.9265,8.49975,2.00564,-6.07994,-0.262155,30.3242,0.00406567,0.741459,-34.1731,0.762648,26.4551,1.66229,2.97997,0.0239107,
0.0629796,0.0252652,-0.040644,-1.79352,0.199472,0.0691571,-0.00591196,0.19248,-0.00910847,0.19007,-0.380548,1.01421,-0.274587,0.000144094,0.0492712,2.12071,0.121799,-7.27576,-0.575657,48.6817,0.503297,0,0,0,0,0,0,0,0.0554652,0.0254459,-0.0480885,-1.77623,0.159625,0.075812,-0.00595629,0.174352,0.0177574,0.152399,-0.317163,0.95912,-0.726898,0.000729879,0,0,0,0,0,0,0,0.741459,-34.1731,0.762648,26.4551,1.66229,2.97997,0.0239107,
0.0645128,0.0253179,-0.0391265,-1.79688,0.207595,0.0699786,-0.00587473,0.192315,-0.0059683,0.189995,-0.388372,1.01444,-0.199131,0.00104614,-0.103113,1.96261,-0.0469951,-4.8902,0.141562,47.1597,0.563779,0,0,0,0,0,0,0,0.0554652,0.0254459,-0.0480885,-1.77623,0.159625,0.075812,-0.00595629,0.174352,0.0177574,0.152399,-0.317163,0.95912,-0.726898,0.000729879,0,0,0,0,0,0,0,0.741459,-34.1731,0.762648,26.4551,1.66229,2.97997,0.0239107,
0.0660285,0.0253808,-0.0376264,-1.80018,0.215747,0.0712386,-0.00582822,0.191744,-0.00320359,0.189497,-0.3931,1.01535,-0.127805,0.00199962,-0.35697,1.72794,-0.311251,-2.95484,0.57052,44.5789,0.595927,0,0,0,0,0,0,0,0.0554652,0.0254459,-0.0480885,-1.77623,0.159625,0.075812,-0.00595629,0.174352,0.0177574,0.152399,-0.317163,0.95912,-0.726898,0.000729879,0,0,0,0,0,0,0,0.741459,-34.1731,0.762648,26.4551,1.66229,2.97997,0.0239107,
0.06752,0.0254499,-0.0361503,-1.80341,0.22392,0.0728655,-0.00577007,0.190684,-0.000834562,0.1885,-0.395332,1.01661,-0.0615716,0.00305342,-0.662823,1.48065,-0.623111,-1.39487,0.784123,41.3961,0.658624,0,0,0,0,0,0,0,0.0612327,0.0255314,-0.0418799,-1.78879,0.192582,0.0595773,-0.00595911,0.156444,-0.00711058,0.197568,-0.37935,0.971797,-0.327754,0.000666003,-2.23845,-3.1085,5.64606,-7.7734,1.58459,49.8929,-0.00798448,0.919986,-35.8949,0.86183,26.8518,2.15667,2.98638,0.0577852,
0.0688299,0.0246186,-0.0343649,-1.80761,0.232749,0.0681785,-0.00573037,0.190459,-0.00323465,0.188258,-0.407835,1.01587,0.0272948,0.00406704,-0.140438,-1.50006,-0.151535,-7.81438,-0.461106,55.5415,0.633512,0,0,0,0,0,0,0,0.0612327,0.0255314,-0.0418799,-1.78879,0.192582,0.0595773,-0.00595911,0.156444,-0.00711058,0.197568,-0.37935,0.971797,-0.327754,0.000666003,0,0,0,0,0,0,0,0.919986,-35.8949,0.86183,26.8518,2.15667,2.98638,0.0577852,
0.0703193,0.0245361,-0.0328933,-1.8112,0.240879,0.0715795,-0.00565718,0.189603,-0.00465064,0.187397,-0.41603,1.01594,0.10686,0.00508333,-0.534726,-0.884996,-0.53795,-5.1222,0.0463784,49.7283,0.635183,0,0,0,0,0,0,0,0.0612327,0.0255314,-0.0418799,-1.78879,0.192582,0.0595773,-0.00595911,0.156444,-0.00711058,0.197568,-0.37935,0.971797,-0.327754,0.000666003,0,0,0,0,0,0,0,0.919986,-35.8949,0.86183,26.8518,2.15667,2.98638,0.0577852,
0.0717729,0.0244693,-0.0314572,-1.81472,0.249032,0.0752187,-0.00558682,0.188022,-0.00538944,0.185818,-0.420773,1.01659,0.176469,0.00582556,-0.988352,-0.461749,-0.986651,-2.96391,0.400519,43.5057,0.463894,0,0,0,0,0,0,0,0.0612327,0.0255314,-0.0418799,-1.78879,0.192582,0.0595773,-0.00595911,0.156444,-0.00711058,0.197568,-0.37935,0.971797,-0.327754,0.000666003,0,0,0,0,0,0,0,0.919986,-35.8949,0.86183,26.8518,2.15667,2.98638,0.0577852,
0.0686328,0.024894,-0.0345319,-1.80854,0.232821,0.0738351,-0.00555855,0.186965,-0.00405914,0.184895,-0.431612,1.00902,0.24653,0.00654427,-0.66054,0.831441,-0.577298,-6.77435,-4.72557,43.7881,0.449192,0,0,0,0,0,0,0,0.0612327,0.0255314,-0.0418799,-1.78879,0.192582,0.0595773,-0.00595911,0.156444,-0.00711058,0.197568,-0.37935,0.971797,-0.327754,0.000666003,0,0,0,0,0,0,0,0.919986,-35.8949,0.86183,26.8518,2.15667,2.98638,0.0577852,
0.0700972,0.0249312,-0.03308,-1.81223,0.239904,0.0782547,-0.00548594,0.186181,-0.00231724,0.184215,-0.437385,0.984307,0.307712,0.00705071,-0.490202,1.08869,-0.425118,-3.60813,-15.4485,38.2389,0.316525,0,0,0,0,0,0,0,0.0672176,0.0259024,-0.0354849,-1.80306,0.225569,0.0540933,-0.00595714,0.185897,0.0167208,0.172877,-0.426349,0.981051,-0.0689621,0.000952686,3.68161,2.97892,-3.08632,-5.87483,1.15667,32.349,0.0358354,0.0551182,-35.9187,-0.387865,27.6016,2.43225,3.20519,0.0706026,
0.0715626,0.0249818,-0.0316271,-1.81581,0.246087,0.0827778,-0.00541901,0.185581,-0.000589428,0.183693,-0.439357,0.942017,0.359247,0.00731381,-0.374935,1.07988,-0.325979,-1.23267,-26.4315,32.2092,0.164441,0,0,0,0,0,0,0,0.0672176,0.0259024,-0.0354849,-1.80306,0.225569,0.0540933,-0.00595714,0.185897,0.0167208,0.172877,-0.426349,0.981051,-0.0689621,0.000952686,0,0,0,0,0,0,0,0.0551182,-35.9187,-0.387865,27.6016,2.43225,3.20519,0.0706026,
0.0730251,0.0250379,-0.0301774,-1.81929,0.251321,0.0873369,-0.00535391,0.185027,0.000931856,0.183199,-0.438575,0.884445,0.401376,0.00747848,-0.346086,0.950802,-0.30881,0.488525,-35.9825,26.3303,0.102913,0,0,0,0,0,0,0,0.0672176,0.0259024,-0.0354849,-1.80306,0.225569,0.0540933,-0.00595714,0.185897,0.0167208,0.172877,-0.426349,0.981051,-0.0689621,0.000952686,0,0,0,0,0,0,0,0.0551182,-35.9187,-0.387865,27.6016,2.43225,3.20519,0.0706026,
0.0745086,0.0256894,-0.0282747,-1.82326,0.262035,0.072814,-0.00561554,0.184686,0.0010572,0.182838,-0.44668,0.856454,0.439411,0.00753181,-0.212907,0.07834,-0.225452,-5.06532,-17.494,23.7721,0.033331,0,0,0,0,0,0,0,0.0672176,0.0259024,-0.0354849,-1.80306,0.225569,0.0540933,-0.00595714,0.185897,0.0167208,0.172877,-0.426349,0.981051,-0.0689621,0.000952686,0,0,0,0,0,0,0,0.0551182,-35.9187,-0.387865,27.6016,2.43225,3.20519,0.0706026,
0.0759715,0.0257034,-0.0268272,-1.82699,0.267143,0.0776799,-0.00555386,0.184321,0.0011978,0.182459,-0.450577,0.812883,0.473176,0.0075675,-0.228258,0.0878761,-0.236892,-2.43602,-27.2319,21.1031,0.0223105,0,0,0,0,0,0,0,0.0739962,0.0263708,-0.0296583,-1.81777,0.258154,0.0572145,-0.00595984,0.219858,0.0292034,0.152668,-0.4187,0.864843,0.208852,-7.81969e-06,4.24512,1.56033,-2.52608,0.956102,-14.526,34.7267,-0.120063,-1.82141,-35.9187,-1.4868,26.5027,1.78405,3.13927,0.0980684,
0.0774248,0.0257131,-0.0253891,-1.83063,0.271457,0.0826045,-0.00549309,0.183791,0.00120103,0.18192,-0.451451,0.758137,0.501655,0.00757319,-0.331216,0.00201743,-0.33722,-0.546243,-34.2167,17.7994,0.0035532,0,0,0,0,0,0,0,0.0739962,0.0263708,-0.0296583,-1.81777,0.258154,0.0572145,-0.00595984,0.219858,0.0292034,0.152668,-0.4187,0.864843,0.208852,-7.81969e-06,0,0,0,0,0,0,0,-1.82141,-35.9187,-1.4868,26.5027,1.78405,3.13927,0.0980684,
0.0788651,0.0257157,-0.023964,-1.83419,0.275036,0.0875379,-0.00543042,0.18304,0.00102562,0.181163,-0.45016,0.69599,0.52466,0.00762543,-0.469443,-0.10963,-0.472752,0.807226,-38.8416,14.3779,0.0326487,0,0,0,0,0,0,0,0.0739962,0.0263708,-0.0296583,-1.81777,0.258154,0.0572145,-0.00595984,0.219858,0.0292034,0.152668,-0.4187,0.864843,0.208852,-7.81969e-06,0,0,0,0,0,0,0,-1.82141,-35.9187,-1.4868,26.5027,1.78405,3.13927,0.0980684,
0.0815962,0.0260828,-0.0221406,-1.83829,0.284412,0.0848849,-0.00563286,0.184114,0.000416522,0.182227,-0.458218,0.651766,0.575355,0.0077333,0.67112,-0.380686,0.665097,-5.03646,-27.6399,31.6846,0.0674227,0,0,0,0,0,0,0,0.0739962,0.0263708,-0.0296583,-1.81777,0.258154,0.0572145,-0.00595984,0.219858,0.0292034,0.152668,-0.4187,0.864843,0.208852,-7.81969e-06,0,0,0,0,0,0,0,-1.82141,-35.9187,-1.4868,26.5027,1.78405,3.13927,0.0980684,
0.0830871,0.0260725,-0.020665,-1.84212,0.287557,0.0911214,-0.0055654,0.184562,7.56671e-05,0.182672,-0.462358,0.600053,0.616198,0.00787307,0.280301,-0.213035,0.277986,-2.58746,-32.3207,25.5268,0.0873539,0,0,0,0,0,0,0,0.0806681,0.0269541,-0.0235282,-1.83315,0.285578,0.0681782,-0.00595544,0.112939,-0.00414991,0.257522,-0.445293,0.756286,0.387858,0.00101105,-13.3649,-4.16917,13.1068,-3.32412,-13.5696,22.3758,0.127358,-0.857357,-35.9941,-0.637804,25.0348,1.74194,2.32995,0.0907442,
0.0845587,0.0260635,-0.0192084,-1.84587,0.290125,0.0973037,-0.00549687,0.184442,-0.000164203,0.182553,-0.463622,0.544242,0.647515,0.00801184,-0.0753562,-0.149919,-0.0742863,-0.789858,-34.882,19.5734,0.0867294,0,0,0,0,0,0,0,0.0806681,0.0269541,-0.0235282,-1.83315,0.285578,0.0681782,-0.00595544,0.112939,-0.00414991,0.257522,-0.445293,0.756286,0.387858,0.00101105,0,0,0,0,0,0,0,-0.857357,-35.9941,-0.637804,25.0348,1.74194,2.32995,0.0907442,
0.0860101,0.0260537,-0.0177719,-1.84954,0.292184,0.103389,-0.005426,0.183838,-0.000377839,0.181956,-0.462768,0.48687,0.670139,0.00818122,-0.377664,-0.133523,-0.373438,0.533818,-35.8573,14.1401,0.105865,0,0,0,0,0,0,0,0.0806681,0.0269541,-0.0235282,-1.83315,0.285578,0.0681782,-0.00595544,0.112939,-0.00414991,0.257522,-0.445293,0.756286,0.387858,0.00101105,0,0,0,0,0,0,0,-0.857357,-35.9941,-0.637804,25.0348,1.74194,2.32995,0.0907442,
0.088418,0.02605,-0.0158294,-1.85394,0.302062,0.101297,-0.00559304,0.185294,-0.0029188,0.183413,-0.470264,0.435913,0.715625,0.0084021,0.91037,-1.5881,0.910737,-4.68505,-31.8481,28.4282,0.138053,0,0,0,0,0,0,0,0.0806681,0.0269541,-0.0235282,-1.83315,0.285578,0.0681782,-0.00595544,0.112939,-0.00414991,0.257522,-0.445293,0.756286,0.387858,0.00101105,0,0,0,0,0,0,0,-0.857357,-35.9941,-0.637804,25.0348,1.74194,2.32995,0.0907442,
0.0899205,0.0259628,-0.0143418,-1.85786,0.303424,0.108397,-0.00551692,0.185799,-0.00451517,0.183918,-0.474189,0.382801,0.750014,0.00862481,0.31535,-0.997731,0.315745,-2.45342,-33.1954,21.4936,0.139191,0,0,0,0,0,0,0,0.0870825,0.0272996,-0.0167476,-1.84864,0.307135,0.0856099,-0.00595731,0.0973482,0.0190173,0.304972,-0.473052,0.547241,0.55851,-0.000556378,-1.94882,2.8959,5.93116,-3.46985,-26.1307,21.3315,-0.195928,-0.528073,-34.8198,-0.33629,26.3043,1.45446,2.19811,0.11821,
0.0913953,0.0258862,-0.012882,-1.8617,0.304381,0.115352,-0.00543986,0.185508,-0.00552632,0.183632,-0.475443,0.330152,0.773866,0.00882627,-0.181671,-0.63197,-0.178988,-0.78365,-32.9056,14.9072,0.125911,0,0,0,0,0,0,0,0.0870825,0.0272996,-0.0167476,-1.84864,0.307135,0.0856099,-0.00595731,0.0973482,0.0190173,0.304972,-0.473052,0.547241,0.55851,-0.000556378,0,0,0,0,0,0,0,-0.528073,-34.8198,-0.33629,26.3043,1.45446,2.19811,0.11821,
0.0928425,0.0258161,-0.0114493,-1.86547,0.305001,0.122119,-0.00536151,0.184588,-0.00617353,0.182721,-0.474687,0.279631,0.788277,0.00901974,-0.575236,-0.404509,-0.569466,0.472748,-31.5755,9.00715,0.120922,0,0,0,0,0,0,0,0.0870825,0.0272996,-0.0167476,-1.84864,0.307135,0.0856099,-0.00595731,0.0973482,0.0190173,0.304972,-0.473052,0.547241,0.55851,-0.000556378,0,0,0,0,0,0,0,-0.528073,-34.8198,-0.33629,26.3043,1.45446,2.19811,0.11821,
0.09518,0.0270406,-0.00869547,-1.86977,0.314103,0.121609,-0.00556048,0.186827,-0.0053938,0.184953,-0.481735,0.227148,0.820849,0.00924524,1.39987,0.487337,1.39496,-4.4052,-32.8017,20.3575,0.140938,0,0,0,0,0,0,0,0.0870825,0.0272996,-0.0167476,-1.84864,0.307135,0.0856099,-0.00595731,0.0973482,0.0190173,0.304972,-0.473052,0.547241,0.55851,-0.000556378,0,0,0,0,0,0,0,-0.528073,-34.8198,-0.33629,26.3043,1.45446,2.19811,0.11821,
0.0967073,0.0270305,-0.00718332,-1.87376,0.313901,0.129073,-0.00547841,0.187646,-0.00456639,0.185766,-0.485247,0.176654,0.843275,0.00944784,0.511463,0.51713,0.508189,-2.19494,-31.5589,14.0158,0.126623,0,0,0,0,0,0,0,0.0941004,0.0277379,-0.0104187,-1.86447,0.320867,0.107327,-0.00596026,0.111315,0.00170925,0.274559,-0.457394,0.331414,0.712121,-0.00093066,1.74588,-2.1635,-3.80163,1.95722,-26.9783,19.2013,-0.0467853,-0.702633,-36.0417,-0.435472,24.2374,1.28967,1.79986,0.14476,
0.098197,0.0270239,-0.00570867,-1.87768,0.313444,0.136329,-0.00539605,0.187358,-0.00381717,0.185479,-0.486089,0.1299,0.856028,0.00961727,-0.179919,0.468258,-0.179219,-0.526123,-29.2211,7.97081,0.105893,0,0,0,0,0,0,0,0.0941004,0.0277379,-0.0104187,-1.86447,0.320867,0.107327,-0.00596026,0.111315,0.00170925,0.274559,-0.457394,0.331414,0.712121,-0.00093066,0,0,0,0,0,0,0,-0.702633,-36.0417,-0.435472,24.2374,1.28967,1.79986,0.14476,
0.0996513,0.0270182,-0.00426905,-1.88152,0.312797,0.143343,-0.00531346,0.186244,-0.00319595,0.184374,-0.484908,0.0877593,0.860162,0.00975844,-0.695954,0.388265,-0.690841,0.737871,-26.3381,2.58376,0.0882309,0,0,0,0,0,0,0,0.0941004,0.0277379,-0.0104187,-1.86447,0.320867,0.107327,-0.00596026,0.111315,0.00170925,0.274559,-0.457394,0.331414,0.712121,-0.00093066,0,0,0,0,0,0,0,-0.702633,-36.0417,-0.435472,24.2374,1.28967,1.79986,0.14476,
0.101757,0.0272682,-0.00280897,-1.88383,0.322588,0.14103,-0.0055431,0.185857,-0.0040856,0.183999,-0.481735,0.0577451,0.853267,0.00986809,-0.242209,-0.55603,-0.234324,1.98296,-18.7589,-4.30948,0.0685318,0,0,0,0,0,0,0,0.0941004,0.0277379,-0.0104187,-1.86447,0.320867,0.107327,-0.00596026,0.111315,0.00170925,0.274559,-0.457394,0.331414,0.712121,-0.00093066,0,0,0,0,0,0,0,-0.702633,-36.0417,-0.435472,24.2374,1.28967,1.79986,0.14476,
0.103196,0.0272184,-0.00138477,-1.88752,0.321903,0.147431,-0.0054616,0.184651,-0.00451434,0.182804,-0.477554,0.0290678,0.842631,0.00993175,-0.753754,-0.267961,-0.746646,2.61309,-17.9233,-6.64728,0.0397903,0,0,0,0,0,0,0,0.101602,0.0277097,-0.00440851,-1.88081,0.327038,0.133477,-0.0059573,0.240939,0.00295612,0.14348,-0.505374,0.0905065,0.782834,0.000157138,16.203,0.155859,-16.3848,-5.9975,-30.1135,8.83915,0.135975,-2.32922,-35.0459,-1.53838,27.0779,1.67419,2.64214,0.11821,
0.1046,0.0271769,5.3339e-06,-1.89114,0.321092,0.15361,-0.00538128,0.182829,-0.00464737,0.180996,-0.4726,0.00296514,0.828587,0.00995352,-1.13889,-0.083148,-1.13016,3.09664,-16.3142,-8.77768,0.0136026,0,0,0,0,0,0,0,0.101602,0.0277097,-0.00440851,-1.88081,0.327038,0.133477,-0.0059573,0.240939,0.00295612,0.14348,-0.505374,0.0905065,0.782834,0.000157138,0,0,0,0,0,0,0,-2.32922,-35.0459,-1.53838,27.0779,1.67419,2.64214,0.11821,
0.105972,0.0271418,0.00136356,-1.8947,0.320197,0.159562,-0.00530221,0.180568,-0.0045959,0.178752,-0.467042,-0.0200035,0.811666,0.00993952,-1.4132,0.0321675,-1.40212,3.47369,-14.3554,-10.5753,-0.00875044,0,0,0,0,0,0,0,0.101602,0.0277097,-0.00440851,-1.88081,0.327038,0.133477,-0.0059573,0.240939,0.00295612,0.14348,-0.505374,0.0905065,0.782834,0.000157138,0,0,0,0,0,0,0,-2.32922,-35.0459,-1.53838,27.0779,1.67419,2.64214,0.11821,
0.108885,0.027848,0.00279565,-1.89924,0.324597,0.162972,-0.00555209,0.179011,-0.00335747,0.177203,-0.461868,-0.0372751,0.788839,0.00989272,-0.973064,0.774019,-0.968355,3.23363,-10.7948,-14.2673,-0.0292452,0,0,0,0,0,0,0,0.101602,0.0277097,-0.00440851,-1.88081,0.327038,0.133477,-0.0059573,0.240939,0.00295612,0.14348,-0.505374,0.0905065,0.782834,0.000157138,0,0,0,0,0,0,0,-2.32922,-35.0459,-1.53838,27.0779,1.67419,2.64214,0.11821,
0.110233,0.0278559,0.00413001,-1.9027,0.323684,0.168368,-0.0054761,0.176917,-0.00248853,0.175121,-0.455965,-0.0526543,0.765979,0.00981391,-1.30863,0.543087,-1.30098,3.68921,-9.61199,-14.287,-0.049257,0,0,0,0,0,0,0,0.101602,0.0277097,-0.00440851,-1.88081,0.327038,0.133477,-0.0059573,0.240939,0.00295612,0.14348,-0.505374,0.0905065,0.782834,0.000157138,0,0,0,0,0,0,0,-2.32922,-35.0459,-1.53838,27.0779,1.67419,2.64214,0.11821,
0.11155,0.0278601,0.00543327,-1.90609,0.322736,0.173582,-0.00540175,0.174457,-0.00188686,0.172679,-0.449512,-0.0658223,0.743111,0.00970983,-1.53732,0.376046,-1.52673,4.03311,-8.23,-14.2928,-0.065049,0,0,0,0,0,0,0,0.107932,0.0280883,0.00248194,-1.89649,0.327297,0.160791,-0.00595611,0.34392,0.0315878,0.0152358,-0.434409,-0.011913,0.797787,0.000262358,12.8726,3.57896,-16.0305,8.87065,-12.8024,1.8691,0.0131525,-2.80926,-37.0931,-2.36357,26.5781,2.0166,2.12487,0.11821,
0.112838,0.0278614,0.00670783,-1.90941,0.321773,0.178615,-0.00532906,0.171764,-0.00147688,0.170007,-0.442639,-0.0767351,0.720321,0.00958516,-1.68288,0.256239,-1.66984,4.29567,-6.82048,-14.2438,-0.0779231,0,0,0,0,0,0,0,0.107932,0.0280883,0.00248194,-1.89649,0.327297,0.160791,-0.00595611,0.34392,0.0315878,0.0152358,-0.434409,-0.011913,0.797787,0.000262358,0,0,0,0,0,0,0,-2.80926,-37.0931,-2.36357,26.5781,2.0166,2.12487,0.11821,
0.115846,0.028471,0.0102842,-1.91615,0.322883,0.192017,-0.00552818,0.168238,-0.000887674,0.166506,-0.431968,-0.0833873,0.691206,0.00936081,-2.2043,0.368253,-2.18829,6.66943,-4.15762,-18.1971,-0.140214,0,0,0,0,0,0,0,0.107932,0.0280883,0.00248194,-1.89649,0.327297,0.160791,-0.00595611,0.34392,0.0315878,0.0152358,-0.434409,-0.011913,0.797787,0.000262358,0,0,0,0,0,0,0,-2.80926,-37.0931,-2.36357,26.5781,2.0166,2.12487,0.11821,
0.117053,0.0284766,0.011478,-1.9192,0.322,0.196439,-0.00546187,0.164755,-0.000571642,0.163051,-0.421777,-0.0887868,0.663518,0.00914634,-2.17636,0.19752,-2.15907,6.36978,-3.37468,-17.3046,-0.134044,0,0,0,0,0,0,0,0.107932,0.0280883,0.00248194,-1.89649,0.327297,0.160791,-0.00595611,0.34392,0.0315878,0.0152358,-0.434409,-0.011913,0.797787,0.000262358,0,0,0,0,0,0,0,-2.80926,-37.0931,-2.36357,26.5781,2.0166,2.12487,0.11821,
0.118235,0.0284782,0.0126477,-1.92218,0.321122,0.200702,-0.00539686,0.161359,-0.00041531,0.159684,-0.411962,-0.0929694,0.637387,0.00894254,-2.12263,0.0977079,-2.10463,6.13413,-2.61412,-16.3318,-0.12738,0,0,0,0,0,0,0,0.11312,0.0282833,0.00991566,-1.91219,0.325804,0.18571,-0.00595578,0.354552,-0.0226504,-0.00393051,-0.447295,-0.0655809,0.670498,-0.00107352,1.32896,-6.77978,-2.39579,-1.61078,-6.70849,-15.9111,-0.166985,-3.06317,-36.2163,-3.01024,25.8084,1.93145,1.6671,0.14476,
0.119394,0.0284776,0.0137949,-1.9251,0.320256,0.204819,-0.00533303,0.158072,-0.000348488,0.156425,-0.402442,-0.0960435,0.612828,0.00874962,-2.05476,0.0417634,-2.03651,5.94995,-1.92132,-15.3494,-0.120572,0,0,0,0,0,0,0,0.11312,0.0282833,0.00991566,-1.91219,0.325804,0.18571,-0.00595578,0.354552,-0.0226504,-0.00393051,-0.447295,-0.0655809,0.670498,-0.00107352,0,0,0,0,0,0,0,-3.06317,-36.2163,-3.01024,25.8084,1.93145,1.6671,0.14476,
0.119524,0.0281525,0.0162157,-1.92748,0.321978,0.207805,-0.00562761,0.156447,-0.000662112,0.154805,-0.39469,-0.0965411,0.592398,0.00857762,-1.01538,-0.196015,-1.01255,4.84519,-0.311031,-12.7687,-0.107502,0,0,0,0,0,0,0,0.11312,0.0282833,0.00991566,-1.91219,0.325804,0.18571,-0.00595578,0.354552,-0.0226504,-0.00393051,-0.447295,-0.0655809,0.670498,-0.00107352,0,0,0,0,0,0,0,-3.06317,-36.2163,-3.01024,25.8084,1.93145,1.6671,0.14476,
0.120694,0.0281387,0.0173729,-1.93032,0.321191,0.211761,-0.00556539,0.154402,-0.000874881,0.152773,-0.386841,-0.0969263,0.572808,0.00841763,-1.27821,-0.132981,-1.26993,4.90543,-0.240739,-12.2442,-0.0999947,0,0,0,0,0,0,0,0.11312,0.0282833,0.00991566,-1.91219,0.325804,0.18571,-0.00595578,0.354552,-0.0226504,-0.00393051,-0.447295,-0.0655809,0.670498,-0.00107352,0,0,0,0,0,0,0,-3.06317,-36.2163,-3.01024,25.8084,1.93145,1.6671,0.14476,
0.121837,0.0281264,0.0185033,-1.9331,0.320406,0.215595,-0.00550399,0.15209,-0.00100785,0.15048,-0.378905,-0.0971495,0.554107,0.00826906,-1.44486,-0.0831051,-1.43311,4.95978,-0.139489,-11.6879,-0.092852,0,0,0,0,0,0,0,0.117821,0.0288726,0.0163679,-1.92637,0.323106,0.208814,-0.00595504,0.255545,0.026592,0.0440132,-0.408631,-0.0964654,0.61867,0.000293851,-12.3758,6.15531,5.99297,4.83296,-3.86056,-6.47848,0.170922,-2.04754,-36.494,-2.23662,26.705,1.98639,1.76049,0.110886,
0.122954,0.0281155,0.0196092,-1.93581,0.319627,0.219316,-0.00544332,0.14962,-0.0010785,0.148032,-0.370891,-0.0971955,0.536315,0.00813206,-1.54404,-0.0441544,-1.53015,5.0091,-0.0287588,-11.1203,-0.0856281,0,0,0,0,0,0,0,0.117821,0.0288726,0.0163679,-1.92637,0.323106,0.208814,-0.00595504,0.255545,0.026592,0.0440132,-0.408631,-0.0964654,0.61867,0.000293851,0,0,0,0,0,0,0,-2.04754,-36.494,-2.23662,26.705,1.98639,1.76049,0.110886,
0.123472,0.0294918,0.0219354,-1.94058,0.31878,0.228653,-0.00564518,0.146725,0.000744416,0.145152,-0.363686,-0.0986534,0.51948,0.00801364,-1.8093,1.13932,-1.80012,4.50275,-0.911171,-10.5217,-0.0740131,0,0,0,0,0,0,0,0.117821,0.0288726,0.0163679,-1.92637,0.323106,0.208814,-0.00595504,0.255545,0.026592,0.0440132,-0.408631,-0.0964654,0.61867,0.000293851,0,0,0,0,0,0,0,-2.04754,-36.494,-2.23662,26.705,1.98639,1.76049,0.110886,
0.124533,0.0295405,0.0229849,-1.94319,0.317963,0.232153,-0.00558539,0.143915,0.0018124,0.14236,-0.356073,-0.0993589,0.503096,0.00790582,-1.75588,0.667492,-1.74502,4.75847,-0.440973,-10.2398,-0.0673869,0,0,0,0,0,0,0,0.117821,0.0288726,0.0163679,-1.92637,0.323106,0.208814,-0.00595504,0.255545,0.026592,0.0440132,-0.408631,-0.0964654,0.61867,0.000293851,0,0,0,0,0,0,0,-2.04754,-36.494,-2.23662,26.705,1.98639,1.76049,0.110886,
0.125576,0.0295778,0.0240159,-1.94572,0.317163,0.235549,-0.00552599,0.141197,0.00238252,0.139661,-0.348157,-0.0994926,0.487384,0.00780963,-1.69871,0.356325,-1.68691,4.94768,-0.0835612,-9.82031,-0.0601153,0,0,0,0,0,0,0,0.122694,0.0297144,0.0219677,-1.93944,0.320278,0.227149,-0.00595703,0.155178,0.023368,0.134377,-0.363572,-0.0884663,0.517629,-0.000786259,-12.5459,-0.402998,11.2954,5.63235,0.999881,-12.6301,-0.135014,-0.119442,-37.7913,-0.93535,25.4593,1.92505,1.7138,0.14476,
0.1266,0.0296068,0.0250288,-1.94818,0.316378,0.23885,-0.00546687,0.138569,0.00263067,0.137052,-0.340017,-0.0992011,0.472421,0.00772566,-1.64277,0.155095,-1.63051,5.08699,0.182207,-9.35143,-0.0524859,0,0,0,0,0,0,0,0.122694,0.0297144,0.0219677,-1.93944,0.320278,0.227149,-0.00595703,0.155178,0.023368,0.134377,-0.363572,-0.0884663,0.517629,-0.000786259,0,0,0,0,0,0,0,-0.119442,-37.7913,-0.93535,25.4593,1.92505,1.7138,0.14476,
0.128059,0.030222,0.027268,-1.95225,0.316469,0.244438,-0.0056631,0.136422,0.00346094,0.134911,-0.332085,-0.0981654,0.457958,0.00764828,-1.3416,0.518917,-1.33816,4.95777,0.647333,-9.03994,-0.048359,0,0,0,0,0,0,0,0.122694,0.0297144,0.0219677,-1.93944,0.320278,0.227149,-0.00595703,0.155178,0.023368,0.134377,-0.363572,-0.0884663,0.517629,-0.000786259,0,0,0,0,0,0,0,-0.119442,-37.7913,-0.93535,25.4593,1.92505,1.7138,0.14476,
0.12906,0.030264,0.028258,-1.95458,0.315727,0.247545,-0.00560438,0.134182,0.00381929,0.13268,-0.323888,-0.0970881,0.444035,0.00758659,-1.40055,0.223966,-1.39424,5.12327,0.673321,-8.70145,-0.0385553,0,0,0,0,0,0,0,0.122694,0.0297144,0.0219677,-1.93944,0.320278,0.227149,-0.00595703,0.155178,0.023368,0.134377,-0.363572,-0.0884663,0.517629,-0.000786259,0,0,0,0,0,0,0,-0.119442,-37.7913,-0.93535,25.4593,1.92505,1.7138,0.14476,
0.130042,0.0302971,0.0292284,-1.95684,0.314996,0.250562,-0.00554551,0.131893,0.00388239,0.130405,-0.3155,-0.0959385,0.430647,0.00754092,-1.43004,0.0394372,-1.42188,5.24231,0.7185,-8.36772,-0.0285454,0,0,0,0,0,0,0,0.127494,0.0299635,0.0263807,-1.95158,0.318068,0.243372,-0.00596178,0.115958,-0.00429042,0.155076,-0.358616,-0.0831767,0.440131,-0.00202113,-4.9025,-3.45731,2.58735,0.61957,0.661204,-9.68731,-0.154359,1.24927,-35.4189,0.461134,26.5305,1.82068,1.87951,0.158493,
0.131005,0.0303236,0.0301801,-1.95902,0.314279,0.253489,-0.00548602,0.129589,0.00376868,0.128116,-0.306977,-0.0946856,0.417699,0.00751999,-1.44008,-0.0710659,-1.43068,5.32692,0.78305,-8.09227,-0.0130798,0,0,0,0,0,0,0,0.127494,0.0299635,0.0263807,-1.95158,0.318068,0.243372,-0.00596178,0.115958,-0.00429042,0.155076,-0.358616,-0.0831767,0.440131,-0.00202113,0,0,0,0,0,0,0,1.24927,-35.4189,0.461134,26.5305,1.82068,1.87951,0.158493,
0.133402,0.0303551,0.0322209,-1.9648,0.313791,0.260136,-0.00560587,0.126788,0.00403837,0.125332,-0.295311,-0.0922418,0.398424,0.00753503,-1.75078,0.168553,-1.74012,7.29122,1.52739,-12.0467,0.00939629,0,0,0,0,0,0,0,0.127494,0.0299635,0.0263807,-1.95158,0.318068,0.243372,-0.00596178,0.115958,-0.00429042,0.155076,-0.358616,-0.0831767,0.440131,-0.00202113,0,0,0,0,0,0,0,1.24927,-35.4189,0.461134,26.5305,1.82068,1.87951,0.158493,
0.134307,0.030389,0.0331146,-1.96671,0.313153,0.262609,-0.00554201,0.124047,0.00407933,0.12261,-0.284113,-0.0897398,0.380575,0.00762453,-1.71313,0.025601,-1.70113,6.99887,1.56373,-11.1562,0.0559357,0,0,0,0,0,0,0,0.127494,0.0299635,0.0263807,-1.95158,0.318068,0.243372,-0.00596178,0.115958,-0.00429042,0.155076,-0.358616,-0.0831767,0.440131,-0.00202113,0,0,0,0,0,0,0,1.24927,-35.4189,0.461134,26.5305,1.82068,1.87951,0.158493,
0.13519,0.0304176,0.0339873,-1.96856,0.312559,0.26497,-0.00548058,0.121322,0.00397673,0.119904,-0.273336,-0.0866618,0.363489,0.00763546,-1.70322,-0.0641243,-1.69121,6.73548,1.92376,-10.6783,0.00683181,0,0,0,0,0,0,0,0.131964,0.0309835,0.0306254,-1.96254,0.315733,0.256234,-0.00595354,0.129424,0.0509632,0.133787,-0.286468,-0.0662384,0.34263,0.00101941,1.68322,6.9067,-2.6611,9.01847,2.11729,-12.1876,0.380068,0.360599,-37.343,-0.411669,26.6296,1.54052,2.18438,0.0843355,
0.136719,0.0319495,0.0353203,-1.97255,0.312782,0.267998,-0.00565332,0.119343,0.00594324,0.117918,-0.264263,-0.0834943,0.344264,0.00755427,-1.23706,1.22907,-1.24108,5.6705,1.97969,-12.0157,-0.0507425,0,0,0,0,0,0,0,0.131964,0.0309835,0.0306254,-1.96254,0.315733,0.256234,-0.00595354,0.129424,0.0509632,0.133787,-0.286468,-0.0662384,0.34263,0.00101941,0,0,0,0,0,0,0,0.360599,-37.343,-0.411669,26.6296,1.54052,2.18438,0.0843355,
0.137589,0.0320379,0.0361783,-1.97429,0.312213,0.270066,-0.00559424,0.117208,0.00696329,0.115784,-0.255067,-0.0810334,0.327109,0.00752047,-1.33413,0.637535,-1.33379,5.74789,1.53806,-10.7221,-0.0211248,0,0,0,0,0,0,0,0.131964,0.0309835,0.0306254,-1.96254,0.315733,0.256234,-0.00595354,0.129424,0.0509632,0.133787,-0.286468,-0.0662384,0.34263,0.00101941,0,0,0,0,0,0,0,0.360599,-37.343,-0.411669,26.6296,1.54052,2.18438,0.0843355,
0.138442,0.0321091,0.0370204,-1.97597,0.311585,0.272116,-0.00551187,0.115091,0.00735104,0.113679,-0.245938,-0.0805347,0.312948,0.00807561,-1.32341,0.242339,-1.31582,5.70537,0.311655,-8.85073,0.346964,0,0,0,0,0,0,0,0.131964,0.0309835,0.0306254,-1.96254,0.315733,0.256234,-0.00595354,0.129424,0.0509632,0.133787,-0.286468,-0.0662384,0.34263,0.00101941,0,0,0,0,0,0,0,0.360599,-37.343,-0.411669,26.6296,1.54052,2.18438,0.0843355,
0.139263,0.0321674,0.0378303,-1.97758,0.311069,0.27413,-0.0054612,0.112598,0.00734019,0.111191,-0.237074,-0.0773155,0.300704,0.00772731,-1.55758,-0.00677766,-1.55491,5.54004,2.01198,-7.65253,-0.217688,0,0,0,0,0,0,0,0.131964,0.0309835,0.0306254,-1.96254,0.315733,0.256234,-0.00595354,0.129424,0.0509632,0.133787,-0.286468,-0.0662384,0.34263,0.00101941,0,0,0,0,0,0,0,0.360599,-37.343,-0.411669,26.6296,1.54052,2.18438,0.0843355,
0.140815,0.0320268,0.0394385,-1.98073,0.311072,0.277493,-0.00567211,0.111201,0.00723592,0.109793,-0.228624,-0.0762172,0.291614,0.00725822,-0.873387,-0.0651699,-0.873906,5.28105,0.686472,-5.68095,-0.29318,0,0,0,0,0,0,0,0.136221,0.0316476,0.0349144,-1.97217,0.313781,0.267341,-0.00595954,0.168779,0.000186397,0.0944293,-0.281542,-0.062861,0.321949,-0.000848175,4.91946,-6.3471,-4.91968,0.615715,0.42217,-2.5851,-0.233448,-1.18664,-36.9185,-1.71294,26.3559,1.58264,2.01867,0.138352,
0.141632,0.0320726,0.0402442,-1.98222,0.310491,0.279531,-0.00563556,0.109382,0.00693368,0.107976,-0.220141,-0.0755132,0.284229,0.00672036,-1.13713,-0.188903,-1.13556,5.30183,0.440007,-4.61577,-0.336162,0,0,0,0,0,0,0,0.136221,0.0316476,0.0349144,-1.97217,0.313781,0.267341,-0.00595954,0.168779,0.000186397,0.0944293,-0.281542,-0.062861,0.321949,-0.000848175,0,0,0,0,0,0,0,-1.18664,-36.9185,-1.71294,26.3559,1.58264,2.01867,0.138352,
0.142428,0.032111,0.0410288,-1.98364,0.309881,0.281536,-0.00558794,0.107391,0.00650832,0.105996,-0.211614,-0.0756466,0.277512,0.00656671,-1.2443,-0.265848,-1.23767,5.32986,-0.0833979,-4.19828,-0.0960317,0,0,0,0,0,0,0,0.136221,0.0316476,0.0349144,-1.97217,0.313781,0.267341,-0.00595954,0.168779,0.000186397,0.0944293,-0.281542,-0.062861,0.321949,-0.000848175,0,0,0,0,0,0,0,-1.18664,-36.9185,-1.71294,26.3559,1.58264,2.01867,0.138352,
0.1432,0.0321438,0.0417907,-1.985,0.309289,0.283475,-0.00553,0.105224,0.00602694,0.103843,-0.203113,-0.0753266,0.270482,0.00670186,-1.35427,-0.300861,-1.3452,5.31293,0.200029,-4.39363,0.0844705,0,0,0,0,0,0,0,0.136221,0.0316476,0.0349144,-1.97217,0.313781,0.267341,-0.00595954,0.168779,0.000186397,0.0944293,-0.281542,-0.062861,0.321949,-0.000848175,0,0,0,0,0,0,0,-1.18664,-36.9185,-1.71294,26.3559,1.58264,2.01867,0.138352,
0.144607,0.0331441,0.0422751,-1.98807,0.308442,0.285671,-0.00572735,0.103007,0.00723859,0.101623,-0.195866,-0.0759472,0.260266,0.00641315,-1.38575,0.757279,-1.38788,4.52965,-0.387874,-6.38509,-0.180444,0,0,0,0,0,0,0,0.140549,0.0323803,0.0382914,-1.98053,0.311985,0.27636,-0.00595649,0.200244,0.0296396,0.0206914,-0.236706,-0.0666682,0.241868,-2.84658e-05,3.93312,3.68165,-9.21724,5.60451,-0.475896,-10.0102,0.102464,-1.97216,-36.4186,-1.9113,27.5739,1.5039,2.29699,0.110886,
0.14534,0.0332241,0.0429979,-1.98932,0.307746,0.287353,-0.00569205,0.100743,0.00778968,0.0993684,-0.188057,-0.0781578,0.250282,0.00601309,-1.41477,0.344435,-1.409,4.88004,-1.38167,-6.24002,-0.250037,0,0,0,0,0,0,0,0.140549,0.0323803,0.0382914,-1.98053,0.311985,0.27636,-0.00595649,0.200244,0.0296396,0.0206914,-0.236706,-0.0666682,0.241868,-2.84658e-05,0,0,0,0,0,0,0,-1.97216,-36.4186,-1.9113,27.5739,1.5039,2.29699,0.110886,
0.146058,0.0332903,0.0437053,-1.99051,0.30699,0.288974,-0.00564204,0.0985415,0.00788704,0.0971805,-0.180056,-0.0814304,0.240749,0.00606078,-1.37598,0.0608456,-1.36744,5.00087,-2.04537,-5.95789,0.0298022,0,0,0,0,0,0,0,0.140549,0.0323803,0.0382914,-1.98053,0.311985,0.27636,-0.00595649,0.200244,0.0296396,0.0206914,-0.236706,-0.0666682,0.241868,-2.84658e-05,0,0,0,0,0,0,0,-1.97216,-36.4186,-1.9113,27.5739,1.5039,2.29699,0.110886,
0.146755,0.0333461,0.0443922,-1.99163,0.306252,0.290527,-0.0055795,0.0962647,0.00770563,0.0949174,-0.172114,-0.0835726,0.231418,0.00641203,-1.42302,-0.113379,-1.41444,4.96365,-1.33887,-5.83195,0.219535,0,0,0,0,0,0,0,0.140549,0.0323803,0.0382914,-1.98053,0.311985,0.27636,-0.00595649,0.200244,0.0296396,0.0206914,-0.236706,-0.0666682,0.241868,-2.84658e-05,0,0,0,0,0,0,0,-1.97216,-36.4186,-1.9113,27.5739,1.5039,2.29699,0.110886,
0.14848,0.0348173,0.0451236,-1.99364,0.304923,0.292368,-0.00571977,0.0948462,0.00895683,0.0934783,-0.165465,-0.0957014,0.22714,0.00625063,-0.88651,0.782001,-0.899438,4.15567,-7.5805,-2.67376,-0.100876,0,0,0,0,0,0,0,0.14462,0.0338151,0.041331,-1.98741,0.310036,0.283631,-0.00596026,0.177246,0.0684695,0.0314465,-0.154733,-0.0570328,0.191325,-0.00149011,-2.87477,4.85374,1.3444,10.2466,1.20443,-6.31789,-0.182705,-1.64288,-37.9421,-1.36382,27.55,1.41235,2.58904,0.14476,
0.149174,0.0349083,0.0458059,-1.99469,0.303642,0.29409,-0.00568346,0.0932088,0.00944054,0.0918385,-0.158586,-0.108598,0.224748,0.00590841,-1.02342,0.302319,-1.02487,4.29964,-8.06043,-1.49482,-0.213888,0,0,0,0,0,0,0,0.14462,0.0338151,0.041331,-1.98741,0.310036,0.283631,-0.00596026,0.177246,0.0684695,0.0314465,-0.154733,-0.0570328,0.191325,-0.00149011,0,0,0,0,0,0,0,-1.64288,-37.9421,-1.36382,27.55,1.41235,2.58904,0.14476,
0.149848,0.0349831,0.0464695,-1.99568,0.302287,0.295819,-0.00563597,0.0914307,0.00942387,0.0900618,-0.151598,-0.120756,0.22303,0.00591393,-1.11129,-0.0104218,-1.11045,4.36759,-7.59894,-1.07379,0.00345166,0,0,0,0,0,0,0,0.14462,0.0338151,0.041331,-1.98741,0.310036,0.283631,-0.00596026,0.177246,0.0684695,0.0314465,-0.154733,-0.0570328,0.191325,-0.00149011,0,0,0,0,0,0,0,-1.64288,-37.9421,-1.36382,27.55,1.41235,2.58904,0.14476,
0.150499,0.035046,0.0471099,-1.99661,0.300943,0.297522,-0.00557827,0.0894253,0.00911035,0.0880593,-0.144621,-0.130188,0.220992,0.00617363,-1.25337,-0.195948,-1.25158,4.3602,-5.8945,-1.27361,0.162308,0,0,0,0,0,0,0,0.14462,0.0338151,0.041331,-1.98741,0.310036,0.283631,-0.00596026,0.177246,0.0684695,0.0314465,-0.154733,-0.0570328,0.191325,-0.00149011,0,0,0,0,0,0,0,-1.64288,-37.9421,-1.36382,27.55,1.41235,2.58904,0.14476,
0.152375,0.0343641,0.0493204,-1.99935,0.29602,0.302017,-0.00566265,0.089239,0.00770284,0.0878598,-0.135781,-0.16209,0.230793,0.00615594,-0.116435,-0.879694,-0.124651,5.52488,-19.9388,6.12539,-0.011052,0,0,0,0,0,0,0,0.147816,0.0343947,0.044815,-1.99349,0.307731,0.290263,-0.00595802,0.0431951,-0.0301059,0.152093,-0.197294,-0.0873648,0.176248,-0.00105884,-16.7564,-12.3219,15.0808,-5.32016,-3.7915,-1.88458,0.0539076,-0.702633,-35.7204,-0.487047,25.0864,1.11847,2.15783,0.124619,
0.153056,0.0343805,0.0499903,-2.0001,0.293697,0.304155,-0.00560527,0.0884245,0.00657256,0.0870348,-0.127457,-0.187748,0.23809,0.00635911,-0.50906,-0.706427,-0.515632,5.20279,-16.0368,4.56053,0.126977,0,0,0,0,0,0,0,0.147816,0.0343947,0.044815,-1.99349,0.307731,0.290263,-0.00595802,0.0431951,-0.0301059,0.152093,-0.197294,-0.0873648,0.176248,-0.00105884,0,0,0,0,0,0,0,-0.702633,-35.7204,-0.487047,25.0864,1.11847,2.15783,0.124619,
0.153707,0.0343962,0.05063,-2.00081,0.291435,0.306253,-0.00556304,0.0870198,0.00565054,0.0856196,-0.119677,-0.206746,0.24292,0.00614322,-0.877954,-0.57626,-0.884503,4.86259,-11.8737,3.01868,-0.134932,0,0,0,0,0,0,0,0.147816,0.0343947,0.044815,-1.99349,0.307731,0.290263,-0.00595802,0.0431951,-0.0301059,0.152093,-0.197294,-0.0873648,0.176248,-0.00105884,0,0,0,0,0,0,0,-0.702633,-35.7204,-0.487047,25.0864,1.11847,2.15783,0.124619,
0.154343,0.0344109,0.0512544,-2.00147,0.289041,0.308393,-0.00552527,0.0854998,0.00488855,0.0841062,-0.112382,-0.225254,0.247826,0.00585883,-0.949991,-0.476247,-0.945886,4.55933,-11.567,3.06654,-0.17774,0,0,0,0,0,0,0,0.147816,0.0343947,0.044815,-1.99349,0.307731,0.290263,-0.00595802,0.0431951,-0.0301059,0.152093,-0.197294,-0.0873648,0.176248,-0.00105884,0,0,0,0,0,0,0,-0.702633,-35.7204,-0.487047,25.0864,1.11847,2.15783,0.124619,
0.152522,0.0340349,0.049502,-1.99908,0.294693,0.305009,-0.0055195,0.0920555,0.00264808,0.0906982,-0.113773,-0.252605,0.281812,0.0064802,4.09731,-1.40029,4.12002,-0.869289,-17.0945,21.2414,0.388355,0,0,0,0,0,0,0,0.150273,0.0352486,0.0484722,-1.99845,0.303254,0.295815,-0.00595354,0.00594986,0.0607025,0.182225,-0.11943,-0.179209,0.173203,0.000274761,-4.65566,11.351,3.76658,9.73307,-11.4805,-0.380585,0.166701,0.412174,-35.1689,0.187391,26.705,0.91705,2.54876,0.0843355,
0.153455,0.0339818,0.0504251,-1.99997,0.291807,0.308359,-0.00543899,0.0969663,0.000791445,0.0956364,-0.113361,-0.274229,0.309202,0.00719683,3.06924,-1.1604,3.08633,0.257203,-13.515,17.1185,0.447892,0,0,0,0,0,0,0,0.150273,0.0352486,0.0484722,-1.99845,0.303254,0.295815,-0.00595354,0.00594986,0.0607025,0.182225,-0.11943,-0.179209,0.173203,0.000274761,0,0,0,0,0,0,0,0.412174,-35.1689,0.187391,26.705,0.91705,2.54876,0.0843355,
0.154367,0.033925,0.0513278,-2.00081,0.289035,0.311643,-0.00535036,0.100372,-0.000786594,0.0990774,-0.111663,-0.288696,0.329455,0.00797335,2.12845,-0.986275,2.15067,1.06162,-9.04218,12.6582,0.485329,0,0,0,0,0,0,0,0.150273,0.0352486,0.0484722,-1.99845,0.303254,0.295815,-0.00595354,0.00594986,0.0607025,0.182225,-0.11943,-0.179209,0.173203,0.000274761,0,0,0,0,0,0,0,0.412174,-35.1689,0.187391,26.705,0.91705,2.54876,0.0843355,
0.155251,0.0338639,0.0522034,-2.0016,0.286449,0.314799,-0.0052826,0.102396,-0.0021559,0.101151,-0.109013,-0.295605,0.342475,0.00807255,1.26538,-0.855819,1.29581,1.65624,-4.31768,8.13756,0.0619949,0,0,0,0,0,0,0,0.150273,0.0352486,0.0484722,-1.99845,0.303254,0.295815,-0.00595354,0.00594986,0.0607025,0.182225,-0.11943,-0.179209,0.173203,0.000274761,0,0,0,0,0,0,0,0.412174,-35.1689,0.187391,26.705,0.91705,2.54876,0.0843355,
0.155182,0.0358253,0.0533754,-2.00451,0.28814,0.312605,-0.00542238,0.107426,-0.000352743,0.106192,-0.113984,-0.317157,0.361682,0.00868555,3.1435,1.12698,3.15086,-3.10683,-13.4705,12.0044,0.383131,0,0,0,0,0,0,0,0.153843,0.0367892,0.0515197,-2.00251,0.294717,0.303366,-0.00595649,0.167682,0.0166835,0.0165361,-0.115151,-0.267783,0.249129,-0.000275353,20.2165,-5.50238,-20.7112,0.534842,-11.0718,9.49071,-0.0687642,-0.0718349,-38.6641,-0.0109729,27.5262,0.948178,2.82067,0.110886,
0.156199,0.0358655,0.0543829,-2.00552,0.284955,0.316003,-0.0053227,0.111382,0.000724428,0.110143,-0.116267,-0.333349,0.374291,0.00944033,2.47277,0.673232,2.46902,-1.42688,-10.1199,7.88049,0.471734,0,0,0,0,0,0,0,0.153843,0.0367892,0.0515197,-2.00251,0.294717,0.303366,-0.00595649,0.167682,0.0166835,0.0165361,-0.115151,-0.267783,0.249129,-0.000275353,0,0,0,0,0,0,0,-0.0718349,-38.6641,-0.0109729,27.5262,0.948178,2.82067,0.110886,
0.157204,0.0358948,0.0553771,-2.00646,0.281937,0.319241,-0.00521524,0.114228,0.00131043,0.112969,-0.116667,-0.342128,0.380382,0.0102389,1.77827,0.36625,1.76683,-0.250147,-5.48652,3.80712,0.499093,0,0,0,0,0,0,0,0.153843,0.0367892,0.0515197,-2.00251,0.294717,0.303366,-0.00595649,0.167682,0.0166835,0.0165361,-0.115151,-0.267783,0.249129,-0.000275353,0,0,0,0,0,0,0,-0.0718349,-38.6641,-0.0109729,27.5262,0.948178,2.82067,0.110886,
0.158188,0.0359158,0.0563499,-2.00736,0.279173,0.322289,-0.00512901,0.11599,0.00157402,0.114694,-0.115742,-0.342791,0.38052,0.0103467,1.10149,0.164746,1.0777,0.578104,-0.414421,0.0857745,0.0674101,0,0,0,0,0,0,0,0.153843,0.0367892,0.0515197,-2.00251,0.294717,0.303366,-0.00595649,0.167682,0.0166835,0.0165361,-0.115151,-0.267783,0.249129,-0.000275353,0,0,0,0,0,0,0,-0.0718349,-38.6641,-0.0109729,27.5262,0.948178,2.82067,0.110886,
0.158839,0.03641,0.0564628,-2.00867,0.279796,0.322902,-0.00538985,0.118978,-0.000542208,0.117637,-0.120513,-0.346159,0.405013,0.0106711,1.86767,-1.32264,1.83953,-2.98223,-2.10501,15.3086,0.202754,0,0,0,0,0,0,0,0.157292,0.037012,0.0545543,-2.00687,0.284658,0.313463,-0.005958,0.0898792,-0.0200609,0.114663,-0.145917,-0.317288,0.318286,-0.000830915,-9.72534,-4.59305,12.2659,-3.84571,-6.1881,8.6446,-0.0694453,0.233646,-33.7486,0.711073,25.6815,1.1615,2.73461,0.124619,
0.159888,0.0363389,0.0574994,-2.00973,0.277076,0.326795,-0.00529086,0.121408,-0.00221146,0.120024,-0.122875,-0.344924,0.421336,0.0110116,1.51847,-1.04328,1.49191,-1.47614,0.771518,10.2015,0.212806,0,0,0,0,0,0,0,0.157292,0.037012,0.0545543,-2.00687,0.284658,0.313463,-0.005958,0.0898792,-0.0200609,0.114663,-0.145917,-0.317288,0.318286,-0.000830915,0,0,0,0,0,0,0,0.233646,-33.7486,0.711073,25.6815,1.1615,2.73461,0.124619,
0.16093,0.0362677,0.0585292,-2.01074,0.274591,0.330496,-0.00518779,0.123174,-0.00355032,0.121764,-0.123463,-0.338067,0.429583,0.0113859,1.10362,-0.836786,1.08764,-0.367482,4.28593,5.1546,0.233945,0,0,0,0,0,0,0,0.157292,0.037012,0.0545543,-2.00687,0.284658,0.313463,-0.005958,0.0898792,-0.0200609,0.114663,-0.145917,-0.317288,0.318286,-0.000830915,0,0,0,0,0,0,0,0.233646,-33.7486,0.711073,25.6815,1.1615,2.73461,0.124619,
0.162427,0.0364375,0.0596612,-2.01319,0.270981,0.333064,-0.00540347,0.125253,-0.0045461,0.123884,-0.127591,-0.331604,0.439508,0.0114663,1.29973,-0.622362,1.32488,-2.58006,4.03958,6.20297,0.0502485,0,0,0,0,0,0,0,0.157292,0.037012,0.0545543,-2.00687,0.284658,0.313463,-0.005958,0.0898792,-0.0200609,0.114663,-0.145917,-0.317288,0.318286,-0.000830915,0,0,0,0,0,0,0,0.233646,-33.7486,0.711073,25.6815,1.1615,2.73461,0.124619,
0.163498,0.0363763,0.0607219,-2.01429,0.268696,0.336695,-0.00530142,0.12697,-0.00516779,0.125624,-0.129635,-0.322409,0.442397,0.0117242,1.07322,-0.388557,1.08759,-1.27706,5.74675,1.80572,0.16114,0,0,0,0,0,0,0,0.157292,0.037012,0.0545543,-2.00687,0.284658,0.313463,-0.005958,0.0898792,-0.0200609,0.114663,-0.145917,-0.317288,0.318286,-0.000830915,0,0,0,0,0,0,0,0.233646,-33.7486,0.711073,25.6815,1.1615,2.73461,0.124619,
0.164563,0.0363189,0.0617763,-2.01535,0.266624,0.340103,-0.00518882,0.128193,-0.00556747,0.12686,-0.130216,-0.309721,0.439105,0.0121946,0.764112,-0.249801,0.772336,-0.363116,7.92959,-2.05722,0.294008,0,0,0,0,0,0,0,0.160109,0.0381839,0.0589239,-2.01075,0.273699,0.324945,-0.00595472,0.00523111,0.0851085,0.212383,-0.0819808,-0.317147,0.362979,-0.00127928,-10.581,13.1462,12.2149,7.992,0.0175959,5.5866,-0.0560453,1.27307,-37.4422,1.11177,27.7008,1.38763,2.9937,0.138352,
0.165611,0.0362636,0.0628142,-2.01638,0.264833,0.343268,-0.00509833,0.128771,-0.00583727,0.127436,-0.129764,-0.29254,0.430403,0.0120177,0.360954,-0.168627,0.359959,0.282002,10.7385,-5.43896,-0.110564,0,0,0,0,0,0,0,0.160109,0.0381839,0.0589239,-2.01075,0.273699,0.324945,-0.00595472,0.00523111,0.0851085,0.212383,-0.0819808,-0.317147,0.362979,-0.00127928,0,0,0,0,0,0,0,1.27307,-37.4422,1.11177,27.7008,1.38763,2.9937,0.138352,
0.165205,0.0387559,0.0639904,-2.01743,0.262615,0.344915,-0.00541776,0.129465,-0.0039974,0.12809,-0.135332,-0.282732,0.437842,0.0119451,0.434255,1.14992,0.408972,-3.47991,6.12991,4.64913,-0.0453384,0,0,0,0,0,0,0,0.160109,0.0381839,0.0589239,-2.01075,0.273699,0.324945,-0.00595472,0.00523111,0.0851085,0.212383,-0.0819808,-0.317147,0.362979,-0.00127928,0,0,0,0,0,0,0,1.27307,-37.4422,1.11177,27.7008,1.38763,2.9937,0.138352,
0.166267,0.0387625,0.0650395,-2.01864,0.260783,0.348461,-0.00532016,0.13011,-0.00303359,0.1287,-0.138534,-0.271991,0.438936,0.0119961,0.403069,0.602387,0.381308,-2.00122,6.71288,0.684103,0.0318606,0,0,0,0,0,0,0,0.160109,0.0381839,0.0589239,-2.01075,0.273699,0.324945,-0.00595472,0.00523111,0.0851085,0.212383,-0.0819808,-0.317147,0.362979,-0.00127928,0,0,0,0,0,0,0,1.27307,-37.4422,1.11177,27.7008,1.38763,2.9937,0.138352,
0.167323,0.0387537,0.066084,-2.0198,0.259123,0.351792,-0.00521731,0.130501,-0.00264742,0.129072,-0.139982,-0.25909,0.434422,0.0121681,0.244373,0.241355,0.232305,-0.904641,8.06307,-2.82131,0.107502,0,0,0,0,0,0,0,0.160109,0.0381839,0.0589239,-2.01075,0.273699,0.324945,-0.00595472,0.00523111,0.0851085,0.212383,-0.0819808,-0.317147,0.362979,-0.00127928,0,0,0,0,0,0,0,1.27307,-37.4422,1.11177,27.7008,1.38763,2.9937,0.138352,
0.168366,0.038733,0.0671146,-2.02093,0.257686,0.354887,-0.00513575,0.130468,-0.00263442,0.129025,-0.140106,-0.243194,0.424913,0.0117734,-0.0208118,0.00812391,-0.0294934,-0.0778331,9.93532,-5.94307,-0.246678,0,0,0,0,0,0,0,0.160109,0.0381839,0.0589239,-2.01075,0.273699,0.324945,-0.00595472,0.00523111,0.0851085,0.212383,-0.0819808,-0.317147,0.362979,-0.00127928,0,0,0,0,0,0,0,1.27307,-37.4422,1.11177,27.7008,1.38763,2.9937,0.138352,
0.165091,0.0384773,0.063886,-2.01783,0.264288,0.344564,-0.00546128,0.130268,-0.00272474,0.128872,-0.145553,-0.234569,0.43102,0.0115375,-0.125241,-0.0564473,-0.0956166,-3.40419,5.39047,3.8164,-0.147431,0,0,0,0,0,0,0,0.160109,0.0381839,0.0589239,-2.01075,0.273699,0.324945,-0.00595472,0.00523111,0.0851085,0.212383,-0.0819808,-0.317147,0.362979,-0.00127928,0,0,0,0,0,0,0,1.27307,-37.4422,1.11177,27.7008,1.38763,2.9937,0.138352,
0.166133,0.0384376,0.0649178,-2.01912,0.262784,0.34801,-0.0053718,0.130255,-0.00317205,0.128894,-0.148596,-0.225247,0.430976,0.0114672,-0.00776752,-0.279573,0.0138226,-1.90183,5.82614,-0.0271171,-0.0439626,0,0,0,0,0,0,0,0.160109,0.0381839,0.0589239,-2.01075,0.273699,0.324945,-0.00595472,0.00523111,0.0851085,0.212383,-0.0819808,-0.317147,0.362979,-0.00127928,0,0,0,0,0,0,0,1.27307,-37.4422,1.11177,27.7008,1.38763,2.9937,0.138352,
0.167173,0.0383872,0.0659483,-2.02036,0.261438,0.351245,-0.00527357,0.130212,-0.00379922,0.128878,-0.149902,-0.213844,0.425646,0.0116295,-0.0270051,-0.39198,-0.0100871,-0.816486,7.12704,-3.33108,0.101419,0,0,0,0,0,0,0,0.163327,0.0384175,0.063204,-2.01521,0.263485,0.338087,-0.00595355,0.058543,-0.0497666,0.157917,-0.160567,-0.263749,0.379559,0.000404255,6.66399,-16.8594,-6.80824,-9.82329,6.67474,2.07256,0.210442,1.67774,-36.0179,0.988783,24.4873,1.61926,2.07818,0.11821,
0.168203,0.038329,0.0669683,-2.02156,0.26033,0.35425,-0.00519216,0.12992,-0.00449431,0.128601,-0.14996,-0.19878,0.415652,0.0113388,-0.182686,-0.434429,-0.173204,-0.0362624,9.41504,-6.24627,-0.181671,0,0,0,0,0,0,0,0.163327,0.0384175,0.063204,-2.01521,0.263485,0.338087,-0.00595355,0.058543,-0.0497666,0.157917,-0.160567,-0.263749,0.379559,0.000404255,0,0,0,0,0,0,0,1.67774,-36.0179,0.988783,24.4873,1.61926,2.07818,0.11821,
0.169346,0.0371452,0.0691752,-2.02325,0.254798,0.359188,-0.00536762,0.12981,-0.00676304,0.128493,-0.151469,-0.184315,0.412553,0.0116284,-0.0686023,-1.41796,-0.0675772,-0.942992,9.04089,-1.93682,0.181016,0,0,0,0,0,0,0,0.163327,0.0384175,0.063204,-2.01521,0.263485,0.338087,-0.00595355,0.058543,-0.0497666,0.157917,-0.160567,-0.263749,0.379559,0.000404255,0,0,0,0,0,0,0,1.67774,-36.0179,0.988783,24.4873,1.61926,2.07818,0.11821,
0.17037,0.0370323,0.0701887,-2.02448,0.254033,0.362165,-0.00528816,0.129446,-0.00823337,0.12813,-0.151979,-0.166558,0.404468,0.0112892,-0.227601,-0.91896,-0.226796,-0.318571,11.0978,-5.05355,-0.212004,0,0,0,0,0,0,0,0.163327,0.0384175,0.063204,-2.01521,0.263485,0.338087,-0.00595355,0.058543,-0.0497666,0.157917,-0.160567,-0.263749,0.379559,0.000404255,0,0,0,0,0,0,0,1.67774,-36.0179,0.988783,24.4873,1.61926,2.07818,0.11821,
0.171394,0.0369288,0.0712017,-2.02568,0.253271,0.364998,-0.0052138,0.12916,-0.009176,0.12783,-0.151722,-0.152313,0.394384,0.0108903,-0.178305,-0.589142,-0.187104,0.160528,8.90289,-6.30241,-0.249314,0,0,0,0,0,0,0,0.167617,0.0385189,0.0662425,-2.02007,0.25509,0.352176,-0.00595319,0.170273,-0.0150467,0.047402,-0.159912,-0.192173,0.425879,0.000606883,13.9662,4.33999,-13.8144,0.0818341,8.94706,5.78997,0.0253285,0.233646,-33.2488,0.286573,24.6381,1.73553,1.99212,0.124619,
0.172415,0.036832,0.0722113,-2.02687,0.252545,0.367671,-0.00513016,0.128846,-0.00976071,0.127504,-0.150903,-0.139983,0.382343,0.0108034,-0.196688,-0.365442,-0.204121,0.511947,7.70623,-7.52579,-0.0543172,0,0,0,0,0,0,0,0.167617,0.0385189,0.0662425,-2.02007,0.25509,0.352176,-0.00595319,0.170273,-0.0150467,0.047402,-0.159912,-0.192173,0.425879,0.000606883,0,0,0,0,0,0,0,0.233646,-33.2488,0.286573,24.6381,1.73553,1.99212,0.124619,
0.17355,0.0379503,0.0721144,-2.02827,0.249428,0.371828,-0.00538723,0.128264,-0.0096686,0.126955,-0.153507,-0.127144,0.376597,0.0106572,-0.36346,0.0575683,-0.342819,-1.6278,8.02469,-3.59086,-0.0914078,0,0,0,0,0,0,0,0.167617,0.0385189,0.0662425,-2.02007,0.25509,0.352176,-0.00595319,0.170273,-0.0150467,0.047402,-0.159912,-0.192173,0.425879,0.000606883,0,0,0,0,0,0,0,0.233646,-33.2488,0.286573,24.6381,1.73553,1.99212,0.124619,
0.174561,0.0378769,0.0731152,-2.02956,0.24877,0.374544,-0.00531002,0.127869,-0.00957067,0.126584,-0.155105,-0.118164,0.369188,0.0104561,-0.246674,0.0612087,-0.231753,-0.998268,5.61267,-4.63095,-0.125688,0,0,0,0,0,0,0,0.167617,0.0385189,0.0662425,-2.02007,0.25509,0.352176,-0.00595319,0.170273,-0.0150467,0.047402,-0.159912,-0.192173,0.425879,0.000606883,0,0,0,0,0,0,0,0.233646,-33.2488,0.286573,24.6381,1.73553,1.99212,0.124619,
0.175569,0.0378036,0.0741141,-2.03083,0.2481,0.377141,-0.00522802,0.127506,-0.0094888,0.12624,-0.155926,-0.111283,0.360264,0.0104149,-0.227415,0.0511683,-0.215276,-0.513413,4.30062,-5.57727,-0.0257495,0,0,0,0,0,0,0,0.172159,0.0396471,0.0691339,-2.02452,0.249251,0.365239,-0.00595248,0.209893,0.0890829,0.0190262,-0.106621,-0.144382,0.380649,0.00016677,4.95253,13.0162,-3.54697,6.66145,5.9739,-5.65381,-0.0550142,0.590702,-37.343,0.889601,26.7764,1.27777,2.54876,0.11821,
0.176569,0.037731,0.0751048,-2.03209,0.247463,0.379621,-0.00514189,0.127004,-0.00940658,0.125758,-0.15617,-0.10494,0.350215,0.0104852,-0.313492,0.0513833,-0.301195,-0.152627,3.96407,-6.28101,0.0439657,0,0,0,0,0,0,0,0.172159,0.0396471,0.0691339,-2.02452,0.249251,0.365239,-0.00595248,0.209893,0.0890829,0.0190262,-0.106621,-0.144382,0.380649,0.00016677,0,0,0,0,0,0,0,0.590702,-37.343,0.889601,26.7764,1.27777,2.54876,0.11821,
0.177164,0.0402464,0.0740707,-2.03203,0.245542,0.381431,-0.00547919,0.127133,-0.00722609,0.125859,-0.161809,-0.100669,0.352891,0.0107856,0.0808765,1.36281,0.0632411,-3.52427,2.66924,1.67307,0.187764,0,0,0,0,0,0,0,0.172159,0.0396471,0.0691339,-2.02452,0.249251,0.365239,-0.00595248,0.209893,0.0890829,0.0190262,-0.106621,-0.144382,0.380649,0.00016677,0,0,0,0,0,0,0,0.590702,-37.343,0.889601,26.7764,1.27777,2.54876,0.11821,
0.178176,0.0402374,0.0750714,-2.03347,0.244986,0.384176,-0.00541091,0.127005,-0.0060048,0.125704,-0.165585,-0.0944313,0.350957,0.0103355,-0.0804544,0.763305,-0.0969456,-2.36016,3.89882,-1.20886,-0.281298,0,0,0,0,0,0,0,0.172159,0.0396471,0.0691339,-2.02452,0.249251,0.365239,-0.00595248,0.209893,0.0890829,0.0190262,-0.106621,-0.144382,0.380649,0.00016677,0,0,0,0,0,0,0,0.590702,-37.343,0.889601,26.7764,1.27777,2.54876,0.11821,
0.17919,0.0402125,0.0760741,-2.03489,0.244285,0.386859,-0.00534657,0.126951,-0.00542736,0.12563,-0.167913,-0.093071,0.347832,0.00987688,-0.0335412,0.360898,-0.046334,-1.45506,0.850181,-1.95359,-0.286663,0,0,0,0,0,0,0,0.175956,0.0397276,0.0729302,-2.02953,0.245336,0.376948,-0.00595695,0.11681,-0.0614534,0.106427,-0.173926,-0.0893504,0.309425,-0.00160545,-11.6354,-18.817,10.9251,-8.41314,6.8789,-8.9029,-0.221528,0.0828892,-35.768,0.687269,24.5627,0.923458,2.23748,0.158493,
0.180199,0.0401761,0.0770723,-2.03628,0.243518,0.389457,-0.00528777,0.126796,-0.0052508,0.12546,-0.169093,-0.0936252,0.343209,0.00937167,-0.0966114,0.110354,-0.106405,-0.737167,-0.346366,-2.88882,-0.31576,0,0,0,0,0,0,0,0.175956,0.0397276,0.0729302,-2.02953,0.245336,0.376948,-0.00595695,0.11681,-0.0614534,0.106427,-0.173926,-0.0893504,0.309425,-0.00160545,0,0,0,0,0,0,0,0.0828892,-35.768,0.687269,24.5627,0.923458,2.23748,0.158493,
0.180932,0.0382149,0.0778684,-2.03706,0.242322,0.391678,-0.00557165,0.126938,-0.0093647,0.125654,-0.172206,-0.0910536,0.347244,0.00902691,0.0886382,-2.57119,0.121134,-1.94544,1.60721,2.52138,-0.215476,0,0,0,0,0,0,0,0.175956,0.0397276,0.0729302,-2.02953,0.245336,0.376948,-0.00595695,0.11681,-0.0614534,0.106427,-0.173926,-0.0893504,0.309425,-0.00160545,0,0,0,0,0,0,0,0.0828892,-35.768,0.687269,24.5627,0.923458,2.23748,0.158493,
0.181951,0.038034,0.0788787,-2.03852,0.241683,0.394491,-0.00551391,0.127026,-0.0120159,0.125781,-0.174209,-0.0888301,0.348138,0.00866502,0.0550854,-1.65702,0.0797115,-1.25246,1.38974,0.558904,-0.226177,0,0,0,0,0,0,0,0.175956,0.0397276,0.0729302,-2.02953,0.245336,0.376948,-0.00595695,0.11681,-0.0614534,0.106427,-0.173926,-0.0893504,0.309425,-0.00160545,0,0,0,0,0,0,0,0.0828892,-35.768,0.687269,24.5627,0.923458,2.23748,0.158493,
0.182965,0.0378723,0.0798849,-2.03996,0.241058,0.397204,-0.00545946,0.126993,-0.0136541,0.12578,-0.175334,-0.0866895,0.346321,0.00829315,-0.0206419,-1.02386,-0.000981882,-0.702654,1.33785,-1.13557,-0.232422,0,0,0,0,0,0,0,0.175956,0.0397276,0.0729302,-2.02953,0.245336,0.376948,-0.00595695,0.11681,-0.0614534,0.106427,-0.173926,-0.0893504,0.309425,-0.00160545,0,0,0,0,0,0,0,0.0828892,-35.768,0.687269,24.5627,0.923458,2.23748,0.158493,
0.183974,0.0377255,0.0808848,-2.04138,0.24045,0.399813,-0.00540807,0.126809,-0.0145939,0.125621,-0.175753,-0.0845318,0.342288,0.00791921,-0.115373,-0.587345,-0.0988843,-0.262179,1.34859,-2.52085,-0.23371,0,0,0,0,0,0,0,0.179049,0.0396864,0.0773711,-2.03501,0.242725,0.38746,-0.00595699,0.0178343,0.0188711,0.207725,-0.154056,-0.0659844,0.308003,-0.0014615,-12.3719,10.0406,12.6622,2.48377,2.92076,-0.177764,0.017994,1.24927,-33.9986,1.43709,25.5585,1.08825,2.58263,0.158493,
0.184954,0.0395356,0.083238,-2.04421,0.239054,0.403036,-0.00561576,0.126487,-0.0127664,0.12527,-0.178146,-0.0831722,0.331968,0.00753168,-0.200964,1.14218,-0.21985,-1.49523,0.849692,-6.4498,-0.242207,0,0,0,0,0,0,0,0.179049,0.0396864,0.0773711,-2.03501,0.242725,0.38746,-0.00595699,0.0178343,0.0188711,0.207725,-0.154056,-0.0659844,0.308003,-0.0014615,0,0,0,0,0,0,0,1.24927,-33.9986,1.43709,25.5585,1.08825,2.58263,0.158493,
0.185952,0.0394886,0.0842244,-2.04569,0.238443,0.40526,-0.00557098,0.126119,-0.0113864,0.124875,-0.179518,-0.0818128,0.321185,0.00714496,-0.230187,0.862505,-0.246501,-0.857648,0.849654,-6.73905,-0.241699,0,0,0,0,0,0,0,0.179049,0.0396864,0.0773711,-2.03501,0.242725,0.38746,-0.00595699,0.0178343,0.0188711,0.207725,-0.154056,-0.0659844,0.308003,-0.0014615,0,0,0,0,0,0,0,1.24927,-33.9986,1.43709,25.5585,1.08825,2.58263,0.158493,
0.186942,0.0394391,0.0852042,-2.04715,0.237841,0.407395,-0.00552898,0.125661,-0.0103485,0.124395,-0.180063,-0.0805026,0.310311,0.00676589,-0.286522,0.648691,-0.299841,-0.340923,0.818876,-6.79627,-0.236923,0,0,0,0,0,0,0,0.179049,0.0396864,0.0773711,-2.03501,0.242725,0.38746,-0.00595699,0.0178343,0.0188711,0.207725,-0.154056,-0.0659844,0.308003,-0.0014615,0,0,0,0,0,0,0,1.24927,-33.9986,1.43709,25.5585,1.08825,2.58263,0.158493,
0.187925,0.0393874,0.0861759,-2.04859,0.237245,0.40945,-0.00548954,0.125091,-0.00956961,0.123809,-0.179937,-0.0793032,0.299622,0.00639865,-0.355962,0.486788,-0.366263,0.0791347,0.749611,-6.68109,-0.229525,0,0,0,0,0,0,0,0.182302,0.0406737,0.0816114,-2.03993,0.240805,0.397303,-0.00595214,0.0424051,0.0735624,0.179567,-0.117535,-0.0566511,0.287105,-0.000376853,3.07135,6.83642,-3.51966,4.56505,1.16666,-2.6123,0.135581,1.83246,-37.8667,1.18715,26.3043,0.850216,2.80785,0.110886,
0.18711,0.0408212,0.0863968,-2.04809,0.238597,0.410958,-0.00569443,0.124684,-0.00905395,0.123443,-0.184379,-0.0752044,0.302766,0.006253,-0.254338,0.322288,-0.228921,-2.77665,2.56176,1.96551,-0.0910319,0,0,0,0,0,0,0,0.182302,0.0406737,0.0816114,-2.03993,0.240805,0.397303,-0.00595214,0.0424051,0.0735624,0.179567,-0.117535,-0.0566511,0.287105,-0.000376853,0,0,0,0,0,0,0,1.83246,-37.8667,1.18715,26.3043,0.850216,2.80785,0.110886,
0.188094,0.0407521,0.0873717,-2.04968,0.238134,0.413394,-0.00565216,0.124339,-0.00897082,0.123128,-0.187189,-0.0717395,0.30312,0.00605911,-0.215829,0.0519566,-0.197193,-1.7559,2.16557,0.22102,-0.121181,0,0,0,0,0,0,0,0.182302,0.0406737,0.0816114,-2.03993,0.240805,0.397303,-0.00595214,0.0424051,0.0735624,0.179567,-0.117535,-0.0566511,0.287105,-0.000376853,0,0,0,0,0,0,0,1.83246,-37.8667,1.18715,26.3043,0.850216,2.80785,0.110886,
0.189074,0.0406742,0.0883429,-2.05123,0.237677,0.415758,-0.00561257,0.123968,-0.00912444,0.122781,-0.1887,-0.068803,0.301597,0.00583707,-0.231467,-0.0960115,-0.216793,-0.944533,1.83532,-0.952084,-0.138772,0,0,0,0,0,0,0,0.182302,0.0406737,0.0816114,-2.03993,0.240805,0.397303,-0.00595214,0.0424051,0.0735624,0.179567,-0.117535,-0.0566511,0.287105,-0.000376853,0,0,0,0,0,0,0,1.83246,-37.8667,1.18715,26.3043,0.850216,2.80785,0.110886,
0.190048,0.0405904,0.0893081,-2.05276,0.237225,0.418061,-0.00557531,0.123524,-0.00939456,0.122356,-0.189184,-0.0663637,0.298849,0.00560109,-0.277928,-0.168825,-0.265548,-0.302417,1.52453,-1.71712,-0.14749,0,0,0,0,0,0,0,0.186308,0.0402309,0.0855056,-2.04596,0.238939,0.407217,-0.00595491,0.143809,-0.086844,0.0865644,-0.218096,-0.0557024,0.295883,-7.12814e-06,12.6755,-20.0508,-11.6254,-12.5701,0.118586,1.09733,0.0462156,0.638309,-34.3715,0.286573,23.317,0.831906,2.21734,0.0980684,
0.191288,0.0386031,0.0904365,-2.0539,0.236258,0.419548,-0.0057123,0.123916,-0.0126796,0.122745,-0.190149,-0.0662058,0.299811,0.00550343,0.245366,-2.05317,0.243295,-0.603079,0.09869,0.601036,-0.0610374,0,0,0,0,0,0,0,0.186308,0.0402309,0.0855056,-2.04596,0.238939,0.407217,-0.00595491,0.143809,-0.086844,0.0865644,-0.218096,-0.0557024,0.295883,-7.12814e-06,0,0,0,0,0,0,0,0.638309,-34.3715,0.286573,23.317,0.831906,2.21734,0.0980684,
0.192286,0.0384259,0.0914255,-2.05544,0.235731,0.421922,-0.00567378,0.124097,-0.0145748,0.122922,-0.190465,-0.0661484,0.299202,0.00536576,0.112943,-1.1845,0.110696,-0.197556,0.0359061,-0.380731,-0.0860417,0,0,0,0,0,0,0,0.186308,0.0402309,0.0855056,-2.04596,0.238939,0.407217,-0.00595491,0.143809,-0.086844,0.0865644,-0.218096,-0.0557024,0.295883,-7.12814e-06,0,0,0,0,0,0,0,0.638309,-34.3715,0.286573,23.317,0.831906,2.21734,0.0980684,
0.193277,0.0382707,0.0924071,-2.05695,0.235196,0.424238,-0.00563735,0.124054,-0.0155397,0.122877,-0.190219,-0.066297,0.297238,0.00520349,-0.0269193,-0.603063,-0.028312,0.15345,-0.0928995,-1.22711,-0.10142,0,0,0,0,0,0,0,0.186308,0.0402309,0.0855056,-2.04596,0.238939,0.407217,-0.00595491,0.143809,-0.086844,0.0865644,-0.218096,-0.0557024,0.295883,-7.12814e-06,0,0,0,0,0,0,0,0.638309,-34.3715,0.286573,23.317,0.831906,2.21734,0.0980684,
0.194259,0.0381324,0.0933797,-2.05844,0.234649,0.426493,-0.00560271,0.123795,-0.0158901,0.122618,-0.189487,-0.0667052,0.294178,0.00502872,-0.161942,-0.218969,-0.162051,0.458029,-0.255093,-1.91265,-0.109231,0,0,0,0,0,0,0,0.190678,0.0398893,0.0889623,-2.05208,0.237299,0.416031,-0.00595503,0.211197,0.00312637,0.0164964,-0.178675,-0.0380819,0.258436,0.000212577,8.42346,11.2463,-8.7585,4.9276,2.20256,-4.6809,0.0274631,-1.00811,-33.5741,-0.836168,26.106,0.941769,2.57531,0.0980684,
0.19559,0.0396204,0.0938196,-2.06026,0.234603,0.427884,-0.00573448,0.123709,-0.0142183,0.122551,-0.191803,-0.0686213,0.292102,0.00497486,-0.0537425,1.04483,-0.0417842,-1.44809,-1.1976,-1.29772,-0.0336615,0,0,0,0,0,0,0,0.190678,0.0398893,0.0889623,-2.05208,0.237299,0.416031,-0.00595503,0.211197,0.00312637,0.0164964,-0.178675,-0.0380819,0.258436,0.000212577,0,0,0,0,0,0,0,-1.00811,-33.5741,-0.836168,26.106,0.941769,2.57531,0.0980684,
0.196571,0.0395568,0.0947921,-2.06184,0.233976,0.430089,-0.00569842,0.123498,-0.012965,0.122353,-0.193033,-0.0705678,0.288792,0.0048815,-0.131988,0.783315,-0.123816,-0.768191,-1.21656,-2.06873,-0.0583522,0,0,0,0,0,0,0,0.190678,0.0398893,0.0889623,-2.05208,0.237299,0.416031,-0.00595503,0.211197,0.00312637,0.0164964,-0.178675,-0.0380819,0.258436,0.000212577,0,0,0,0,0,0,0,-1.00811,-33.5741,-0.836168,26.106,0.941769,2.57531,0.0980684,
0.197545,0.0394899,0.0957569,-2.0634,0.233336,0.432232,-0.00566411,0.123138,-0.0120443,0.122003,-0.193357,-0.0724559,0.284608,0.00476285,-0.224914,0.575448,-0.218603,-0.20255,-1.18009,-2.61513,-0.0741513,0,0,0,0,0,0,0,0.190678,0.0398893,0.0889623,-2.05208,0.237299,0.416031,-0.00595503,0.211197,0.00312637,0.0164964,-0.178675,-0.0380819,0.258436,0.000212577,0,0,0,0,0,0,0,-1.00811,-33.5741,-0.836168,26.106,0.941769,2.57531,0.0980684,
0.19851,0.0394201,0.0967128,-2.06493,0.232685,0.434318,-0.00563128,0.122626,-0.0113809,0.1215,-0.19293,-0.074243,0.279845,0.0046311,-0.319883,0.414625,-0.314319,0.26671,-1.11693,-2.9765,-0.0823462,0,0,0,0,0,0,0,0.194811,0.04083,0.0923714,-2.05779,0.235886,0.424738,-0.00595354,0.171469,0.0866577,0.0399848,-0.134824,-0.0426616,0.246456,0.000193104,-4.96602,10.4414,2.93606,5.48138,-0.57246,-1.49748,-0.00243405,-0.222592,-37.9143,0.139784,27.5262,0.893246,2.96715,0.0843355,
0.19935,0.0414727,0.0968601,-2.06569,0.232847,0.435722,-0.00577497,0.121053,-0.0087709,0.119932,-0.192858,-0.0771103,0.274517,0.00451959,-0.98284,1.63127,-0.980215,0.0449399,-1.79202,-3.33034,-0.0696942,0,0,0,0,0,0,0,0.194811,0.04083,0.0923714,-2.05779,0.235886,0.424738,-0.00595354,0.171469,0.0866577,0.0399848,-0.134824,-0.0426616,0.246456,0.000193104,0,0,0,0,0,0,0,-0.222592,-37.9143,0.139784,27.5262,0.893246,2.96715,0.0843355,
0.200265,0.0414634,0.0977666,-2.06719,0.232131,0.437688,-0.00574394,0.119729,-0.00724909,0.118608,-0.191898,-0.0795931,0.26876,0.00439139,-0.82744,0.951131,-0.827369,0.599905,-1.55175,-3.59801,-0.0801229,0,0,0,0,0,0,0,0.194811,0.04083,0.0923714,-2.05779,0.235886,0.424738,-0.00595354,0.171469,0.0866577,0.0399848,-0.134824,-0.0426616,0.246456,0.000193104,0,0,0,0,0,0,0,-0.222592,-37.9143,0.139784,27.5262,0.893246,2.96715,0.0843355,
0.201176,0.0414378,0.0986681,-2.06866,0.231415,0.439604,-0.0057143,0.118547,-0.006438,0.117425,-0.190242,-0.0815658,0.262919,0.00425428,-0.738777,0.506931,-0.73949,1.03531,-1.23298,-3.65036,-0.085696,0,0,0,0,0,0,0,0.194811,0.04083,0.0923714,-2.05779,0.235886,0.424738,-0.00595354,0.171469,0.0866577,0.0399848,-0.134824,-0.0426616,0.246456,0.000193104,0,0,0,0,0,0,0,-0.222592,-37.9143,0.139784,27.5262,0.893246,2.96715,0.0843355,
0.20208,0.0414004,0.099563,-2.07009,0.230705,0.441478,-0.00568577,0.117437,-0.00608494,0.116313,-0.188043,-0.0830152,0.25717,0.00411665,-0.694212,0.220665,-0.694761,1.37417,-0.905852,-3.59309,-0.0860186,0,0,0,0,0,0,0,0.198375,0.0406811,0.0964673,-2.06435,0.234158,0.432947,-0.00595849,0.0606771,-0.0694767,0.163867,-0.226949,-0.0370724,0.22444,0.000197477,-13.849,-19.5168,15.4853,-11.5156,0.69865,-2.75202,0.000546549,0.638309,-34.7722,1.06416,22.7695,0.795284,2.26403,0.0907442,
0.203809,0.0395702,0.101866,-2.07267,0.230487,0.443519,-0.0057793,0.116116,-0.00767138,0.115015,-0.183068,-0.0825049,0.250289,0.00393946,-0.825189,-0.991525,-0.811161,3.10919,0.318942,-4.3011,-0.110746,0,0,0,0,0,0,0,0.198375,0.0406811,0.0964673,-2.06435,0.234158,0.432947,-0.00595849,0.0606771,-0.0694767,0.163867,-0.226949,-0.0370724,0.22444,0.000197477,0,0,0,0,0,0,0,0.638309,-34.7722,1.06416,22.7695,0.795284,2.26403,0.0907442,
0.204684,0.0394675,0.102733,-2.07395,0.22985,0.445273,-0.00575409,0.114767,-0.00870374,0.113685,-0.178397,-0.0819375,0.244078,0.00378192,-0.843188,-0.645226,-0.831278,2.91986,0.354632,-3.88148,-0.09846,0,0,0,0,0,0,0,0.198375,0.0406811,0.0964673,-2.06435,0.234158,0.432947,-0.00595849,0.0606771,-0.0694767,0.163867,-0.226949,-0.0370724,0.22444,0.000197477,0,0,0,0,0,0,0,0.638309,-34.7722,1.06416,22.7695,0.795284,2.26403,0.0907442,
0.205547,0.0393717,0.103587,-2.07519,0.229222,0.446994,-0.00572942,0.113385,-0.00935993,0.11232,-0.173952,-0.081236,0.23827,0.00364227,-0.864039,-0.410115,-0.853397,2.77796,0.438425,-3.6304,-0.0872819,0,0,0,0,0,0,0,0.198375,0.0406811,0.0964673,-2.06435,0.234158,0.432947,-0.00595849,0.0606771,-0.0694767,0.163867,-0.226949,-0.0370724,0.22444,0.000197477,0,0,0,0,0,0,0,0.638309,-34.7722,1.06416,22.7695,0.795284,2.26403,0.0907442,
0.206398,0.0392808,0.10443,-2.07642,0.228607,0.448677,-0.00570504,0.111971,-0.0097597,0.110922,-0.169675,-0.0803784,0.232711,0.00352328,-0.883752,-0.249856,-0.873857,2.67294,0.535971,-3.47444,-0.0743657,0,0,0,0,0,0,0,0.201561,0.0404226,0.101,-2.07084,0.23242,0.440416,-0.00595308,0.0220926,-0.00435729,0.201302,-0.193799,-0.0497478,0.219989,0.000357947,-4.82306,8.13993,4.67935,4.14378,-1.58443,-0.556389,0.0200588,0.793033,-33.5979,0.838026,25.856,0.941769,2.65496,0.0706026,
0.205912,0.0402547,0.105327,-2.0775,0.229427,0.448567,-0.00582016,0.110859,-0.0090165,0.109809,-0.167025,-0.0798716,0.226136,0.00343599,-0.694673,0.464496,-0.695331,1.6563,0.316786,-4.10922,-0.0545592,0,0,0,0,0,0,0,0.201561,0.0404226,0.101,-2.07084,0.23242,0.440416,-0.00595308,0.0220926,-0.00435729,0.201302,-0.193799,-0.0497478,0.219989,0.000357947,0,0,0,0,0,0,0,0.793033,-33.5979,0.838026,25.856,0.941769,2.65496,0.0706026,
0.206751,0.0402014,0.106158,-2.07871,0.228816,0.450144,-0.00579581,0.109666,-0.00854502,0.108616,-0.164022,-0.0791894,0.220335,0.00335757,-0.746038,0.294678,-0.745568,1.87668,0.426357,-3.62557,-0.0490138,0,0,0,0,0,0,0,0.201561,0.0404226,0.101,-2.07084,0.23242,0.440416,-0.00595308,0.0220926,-0.00435729,0.201302,-0.193799,-0.0497478,0.219989,0.000357947,0,0,0,0,0,0,0,0.793033,-33.5979,0.838026,25.856,0.941769,2.65496,0.0706026,
0.207578,0.0401444,0.106976,-2.07989,0.228217,0.451697,-0.00577145,0.108401,-0.00826234,0.107354,-0.160757,-0.0783202,0.215098,0.00329501,-0.790464,0.176673,-0.788683,2.04067,0.543248,-3.27274,-0.0390958,0,0,0,0,0,0,0,0.201561,0.0404226,0.101,-2.07084,0.23242,0.440416,-0.00595308,0.0220926,-0.00435729,0.201302,-0.193799,-0.0497478,0.219989,0.000357947,0,0,0,0,0,0,0,0.793033,-33.5979,0.838026,25.856,0.941769,2.65496,0.0706026,
0.205777,0.0403594,0.105191,-2.07698,0.229616,0.447799,-0.00582642,0.107066,-0.00742367,0.106024,-0.157035,-0.0770286,0.208146,0.00326267,-0.834376,0.524169,-0.831317,2.32655,0.807286,-4.34515,-0.0202159,0,0,0,0,0,0,0,0.201561,0.0404226,0.101,-2.07084,0.23242,0.440416,-0.00595308,0.0220926,-0.00435729,0.201302,-0.193799,-0.0497478,0.219989,0.000357947,0,0,0,0,0,0,0,0.793033,-33.5979,0.838026,25.856,0.941769,2.65496,0.0706026,
0.206576,0.04032,0.105982,-2.07808,0.229044,0.449229,-0.00580071,0.105627,-0.00692302,0.104593,-0.153139,-0.0759208,0.202262,0.00325278,-0.89905,0.312908,-0.894475,2.43492,0.692343,-3.67745,-0.00618176,0,0,0,0,0,0,0,0.20476,0.0414145,0.10517,-2.07657,0.230383,0.447471,-0.00595454,0.0513229,0.0895542,0.160033,-0.125551,-0.0710119,0.186575,0.00104577,3.65379,11.7389,-5.15856,8.53098,-2.65801,-4.17671,0.0859776,1.67774,-37.8151,1.16334,27.4271,1.0086,2.82799,0.0641939,
0.20736,0.0402755,0.106759,-2.07914,0.228472,0.450645,-0.00577396,0.104118,-0.00665208,0.103093,-0.149134,-0.0750393,0.197213,0.00327116,-0.943482,0.169339,-0.937643,2.50327,0.550939,-3.15612,0.0114858,0,0,0,0,0,0,0,0.20476,0.0414145,0.10517,-2.07657,0.230383,0.447471,-0.00595454,0.0513229,0.0895542,0.160033,-0.125551,-0.0710119,0.186575,0.00104577,0,0,0,0,0,0,0,1.67774,-37.8151,1.16334,27.4271,1.0086,2.82799,0.0641939,
0.208131,0.040227,0.107522,-2.08017,0.227895,0.452047,-0.00574597,0.102561,-0.0065332,0.101547,-0.145066,-0.0744396,0.19282,0.0033166,-0.973,0.0742974,-0.96619,2.54256,0.374804,-2.74519,0.0284031,0,0,0,0,0,0,0,0.20476,0.0414145,0.10517,-2.07657,0.230383,0.447471,-0.00595454,0.0513229,0.0895542,0.160033,-0.125551,-0.0710119,0.186575,0.00104577,0,0,0,0,0,0,0,1.67774,-37.8151,1.16334,27.4271,1.0086,2.82799,0.0641939,
0.209632,0.0401221,0.109008,-2.08213,0.226707,0.454809,-0.00568498,0.100643,-0.00656497,0.0996443,-0.140141,-0.074553,0.18859,0.00343661,-1.1987,-0.0198533,-1.18912,3.07775,-0.0708764,-2.64393,0.075004,0,0,0,0,0,0,0,0.20476,0.0414145,0.10517,-2.07657,0.230383,0.447471,-0.00595454,0.0513229,0.0895542,0.160033,-0.125551,-0.0710119,0.186575,0.00104577,0,0,0,0,0,0,0,1.67774,-37.8151,1.16334,27.4271,1.0086,2.82799,0.0641939,
0.209378,0.042486,0.109743,-2.08317,0.2268,0.455537,-0.00578374,0.0988167,-0.00427502,0.0977988,-0.136824,-0.0758848,0.182111,0.00358694,-1.14153,1.43122,-1.15342,2.07315,-0.832329,-4.04904,0.0939602,0,0,0,0,0,0,0,0.208515,0.0415222,0.108388,-2.08218,0.228416,0.453189,-0.00595783,0.150111,-0.0525921,0.0460603,-0.196003,-0.0566557,0.15918,0.000538285,12.3485,-17.7683,-14.2466,-8.8065,1.79453,-3.42436,-0.0634353,-0.198788,-35.7204,-0.538622,24.8087,0.990292,2.39678,0.0907442,
0.210097,0.0425031,0.110453,-2.08411,0.226135,0.456781,-0.00574826,0.0970274,-0.00299031,0.0959984,-0.133097,-0.0773421,0.176786,0.00375652,-1.11833,0.802943,-1.12524,2.32943,-0.910861,-3.32841,0.105986,0,0,0,0,0,0,0,0.208515,0.0415222,0.108388,-2.08218,0.228416,0.453189,-0.00595783,0.150111,-0.0525921,0.0460603,-0.196003,-0.0566557,0.15918,0.000538285,0,0,0,0,0,0,0,-0.198788,-35.7204,-0.538622,24.8087,0.990292,2.39678,0.0907442,
0.210803,0.0425042,0.111151,-2.08502,0.225456,0.45802,-0.00571033,0.0952785,-0.00236457,0.0942445,-0.129105,-0.0788518,0.172413,0.00395355,-1.09307,0.391083,-1.09618,2.49506,-0.943531,-2.73284,0.123146,0,0,0,0,0,0,0,0.208515,0.0415222,0.108388,-2.08218,0.228416,0.453189,-0.00595783,0.150111,-0.0525921,0.0460603,-0.196003,-0.0566557,0.15918,0.000538285,0,0,0,0,0,0,0,-0.198788,-35.7204,-0.538622,24.8087,0.990292,2.39678,0.0907442,
0.212255,0.0410479,0.112076,-2.08698,0.22516,0.458645,-0.00577397,0.0940302,-0.0032573,0.0930056,-0.124671,-0.0796309,0.167531,0.00414,-0.780175,-0.557955,-0.774318,2.77151,-0.486919,-3.05153,0.116529,0,0,0,0,0,0,0,0.208515,0.0415222,0.108388,-2.08218,0.228416,0.453189,-0.00595783,0.150111,-0.0525921,0.0460603,-0.196003,-0.0566557,0.15918,0.000538285,0,0,0,0,0,0,0,-0.198788,-35.7204,-0.538622,24.8087,0.990292,2.39678,0.0907442,
0.212951,0.0409964,0.112765,-2.0878,0.224501,0.459841,-0.00573351,0.0926344,-0.00389457,0.0916214,-0.12026,-0.0801846,0.163911,0.00432339,-0.872368,-0.39829,-0.865146,2.75631,-0.346081,-2.26267,0.114619,0,0,0,0,0,0,0,0.212652,0.0416271,0.111125,-2.08738,0.226629,0.457292,-0.00596126,0.189431,0.00763635,0.00823272,-0.147362,-0.05065,0.113516,-0.000356525,4.915,7.52856,-4.72844,6.08007,0.750713,-5.7081,-0.111851,-1.38897,-34.1969,-0.836168,26.7764,1.03973,2.86736,0.110886,
0.213633,0.0409461,0.113439,-2.08859,0.223854,0.461033,-0.00569171,0.091148,-0.00437154,0.0901477,-0.115907,-0.0803287,0.160931,0.00450371,-0.929007,-0.298111,-0.921049,2.72114,-0.0900999,-1.86236,0.112698,0,0,0,0,0,0,0,0.212652,0.0416271,0.111125,-2.08738,0.226629,0.457292,-0.00596126,0.189431,0.00763635,0.00823272,-0.147362,-0.05065,0.113516,-0.000356525,0,0,0,0,0,0,0,-1.38897,-34.1969,-0.836168,26.7764,1.03973,2.86736,0.110886,
0.214301,0.0408964,0.1141,-2.08935,0.223227,0.462209,-0.00564618,0.0896178,-0.00474066,0.0886317,-0.111615,-0.0799357,0.158149,0.00474122,-0.956357,-0.230698,-0.947546,2.68195,0.245664,-1.73858,0.148446,0,0,0,0,0,0,0,0.212652,0.0416271,0.111125,-2.08738,0.226629,0.457292,-0.00596126,0.189431,0.00763635,0.00823272,-0.147362,-0.05065,0.113516,-0.000356525,0,0,0,0,0,0,0,-1.38897,-34.1969,-0.836168,26.7764,1.03973,2.86736,0.110886,
0.216923,0.0418721,0.115326,-2.09235,0.223152,0.462713,-0.00570548,0.0880296,-0.00374512,0.087036,-0.106835,-0.0761837,0.149294,0.00484823,-0.992634,0.622215,-0.997285,2.98799,2.34497,-5.53454,0.0668782,0,0,0,0,0,0,0,0.212652,0.0416271,0.111125,-2.08738,0.226629,0.457292,-0.00596126,0.189431,0.00763635,0.00823272,-0.147362,-0.05065,0.113516,-0.000356525,0,0,0,0,0,0,0,-1.38897,-34.1969,-0.836168,26.7764,1.03973,2.86736,0.110886,
0.21756,0.041864,0.115955,-2.09301,0.222708,0.463609,-0.00565849,0.0863479,-0.00319945,0.0853532,-0.102087,-0.0720424,0.141826,0.00505331,-1.0511,0.341042,-1.05173,2.96723,2.58834,-4.66781,0.128179,0,0,0,0,0,0,0,0.216053,0.0430674,0.11409,-2.09116,0.224724,0.460481,-0.0059563,0.123397,0.109196,0.0496142,-0.0500309,-0.0611415,0.0709891,-0.000106034,-8.25414,12.695,5.17269,12.1664,-1.31144,-5.31582,0.0313113,-0.805783,-36.4424,-0.312487,27.8476,0.966488,3.424,0.0980684,
0.218181,0.0418488,0.116569,-2.09364,0.222301,0.46449,-0.00559972,0.0846157,-0.00293856,0.0836278,-0.097423,-0.0678292,0.135502,0.00551193,-1.08259,0.163054,-1.07841,2.9151,2.63325,-3.952,0.286632,0,0,0,0,0,0,0,0.216053,0.0430674,0.11409,-2.09116,0.224724,0.460481,-0.0059563,0.123397,0.109196,0.0496142,-0.0500309,-0.0611415,0.0709891,-0.000106034,0,0,0,0,0,0,0,-0.805783,-36.4424,-0.312487,27.8476,0.966488,3.424,0.0980684,
0.21878,0.0418273,0.11716,-2.09424,0.222003,0.465336,-0.00556029,0.082656,-0.00288808,0.0816747,-0.0928941,-0.0617009,0.129541,0.00539541,-1.22481,0.0315529,-1.22067,2.83053,3.83018,-3.72554,-0.0728239,0,0,0,0,0,0,0,0.216053,0.0430674,0.11409,-2.09116,0.224724,0.460481,-0.0059563,0.123397,0.109196,0.0496142,-0.0500309,-0.0611415,0.0709891,-0.000106034,0,0,0,0,0,0,0,-0.805783,-36.4424,-0.312487,27.8476,0.966488,3.424,0.0980684,
0.219283,0.0442978,0.117269,-2.09489,0.22132,0.465371,-0.0057241,0.0813163,0.000100892,0.0803,-0.0910794,-0.0660826,0.12713,0.00533275,-0.837357,1.86811,-0.859171,1.13417,-2.73856,-1.50747,-0.0391589,0,0,0,0,0,0,0,0.216053,0.0430674,0.11409,-2.09116,0.224724,0.460481,-0.0059563,0.123397,0.109196,0.0496142,-0.0500309,-0.0611415,0.0709891,-0.000106034,0,0,0,0,0,0,0,-0.805783,-36.4424,-0.312487,27.8476,0.966488,3.424,0.0980684,
0.219878,0.0443619,0.117856,-2.09552,0.220529,0.466346,-0.00568282,0.0799393,0.00168322,0.0789041,-0.088489,-0.0726363,0.126069,0.00529811,-0.8606,0.988957,-0.872446,1.619,-4.09608,-0.663114,-0.0216532,0,0,0,0,0,0,0,0.218204,0.0436638,0.117629,-2.0949,0.223025,0.463404,-0.00595831,0.00276054,-0.0174233,0.153501,-0.121261,-0.0464651,0.064084,0.000602872,-15.0796,-15.8274,12.9858,-8.9038,1.83455,-0.863139,0.0886132,0.689884,-36.4662,0.663466,23.8644,0.893246,2.63482,0.0843355,
0.220462,0.0444016,0.11843,-2.0961,0.219664,0.467341,-0.00563395,0.078534,0.00233955,0.077486,-0.0853855,-0.0797149,0.125723,0.00546027,-0.878323,0.410206,-0.886298,1.93971,-4.42411,-0.216134,0.101352,0,0,0,0,0,0,0,0.218204,0.0436638,0.117629,-2.0949,0.223025,0.463404,-0.00595831,0.00276054,-0.0174233,0.153501,-0.121261,-0.0464651,0.064084,0.000602872,0,0,0,0,0,0,0,0.689884,-36.4662,0.663466,23.8644,0.893246,2.63482,0.0843355,
0.221031,0.044424,0.118992,-2.09665,0.218774,0.46835,-0.00557626,0.0770746,0.00243104,0.0760226,-0.0819783,-0.0860418,0.125821,0.00581052,-0.912091,0.0571776,-0.914639,2.12953,-3.95432,0.0611805,0.218909,0,0,0,0,0,0,0,0.218204,0.0436638,0.117629,-2.0949,0.223025,0.463404,-0.00595831,0.00276054,-0.0174233,0.153501,-0.121261,-0.0464651,0.064084,0.000602872,0,0,0,0,0,0,0,0.689884,-36.4662,0.663466,23.8644,0.893246,2.63482,0.0843355,
0.221904,0.0435674,0.121297,-2.09846,0.216477,0.469871,-0.00567037,0.0763697,0.00151334,0.0753234,-0.0775595,-0.101569,0.133869,0.00570911,-0.440578,-0.573558,-0.436983,2.76172,-9.70425,5.03022,-0.0633852,0,0,0,0,0,0,0,0.218204,0.0436638,0.117629,-2.0949,0.223025,0.463404,-0.00595831,0.00276054,-0.0174233,0.153501,-0.121261,-0.0464651,0.064084,0.000602872,0,0,0,0,0,0,0,0.689884,-36.4662,0.663466,23.8644,0.893246,2.63482,0.0843355,
0.222478,0.0435455,0.121864,-2.0989,0.215143,0.471233,-0.00562063,0.0754573,0.000662648,0.0744188,-0.073222,-0.11461,0.141146,0.00581083,-0.570241,-0.531684,-0.565399,2.71091,-8.15093,4.54832,0.0635737,0,0,0,0,0,0,0,0.220913,0.0436882,0.120231,-2.09866,0.221622,0.465822,-0.00595283,0.122995,-0.0229696,0.026638,-0.120242,-0.0401552,0.0616044,0.0014097,15.0293,-0.693291,-15.8579,0.127421,0.788735,-0.309953,0.100854,-0.627255,-33.3995,-0.610033,25.134,1.07635,2.69524,0.0779268,
0.223032,0.043519,0.12241,-2.09932,0.213865,0.472588,-0.00558976,0.0742236,-0.000134003,0.0731916,-0.06898,-0.123653,0.146787,0.00542023,-0.771102,-0.497907,-0.766974,2.65125,-5.65162,3.52557,-0.244125,0,0,0,0,0,0,0,0.220913,0.0436882,0.120231,-2.09866,0.221622,0.465822,-0.00595283,0.122995,-0.0229696,0.026638,-0.120242,-0.0401552,0.0616044,0.0014097,0,0,0,0,0,0,0,-0.627255,-33.3995,-0.610033,25.134,1.07635,2.69524,0.0779268,
0.223577,0.0434885,0.122947,-2.09971,0.212446,0.473974,-0.00555797,0.0730034,-0.000869264,0.0719835,-0.0648381,-0.134392,0.152079,0.00513111,-0.762626,-0.459538,-0.755096,2.58869,-6.71237,3.3076,-0.180698,0,0,0,0,0,0,0,0.220913,0.0436882,0.120231,-2.09866,0.221622,0.465822,-0.00595283,0.122995,-0.0229696,0.026638,-0.120242,-0.0401552,0.0616044,0.0014097,0,0,0,0,0,0,0,-0.627255,-33.3995,-0.610033,25.134,1.07635,2.69524,0.0779268,
0.225109,0.0433512,0.124381,-2.10228,0.215631,0.475505,-0.00556259,0.0759171,-0.00210034,0.0749047,-0.0633273,-0.134221,0.167926,0.00562941,1.82106,-0.769421,1.82574,0.944272,0.107384,9.9039,0.311438,0,0,0,0,0,0,0,0.220913,0.0436882,0.120231,-2.09866,0.221622,0.465822,-0.00595283,0.122995,-0.0229696,0.026638,-0.120242,-0.0401552,0.0616044,0.0014097,0,0,0,0,0,0,0,-0.627255,-33.3995,-0.610033,25.134,1.07635,2.69524,0.0779268,
0.225795,0.0432882,0.125059,-2.1027,0.214669,0.4773,-0.00551863,0.0778822,-0.00325461,0.0768699,-0.0611077,-0.131438,0.17921,0.00560251,1.22822,-0.721418,1.22825,1.38727,1.7393,7.05263,-0.016815,0,0,0,0,0,0,0,0.223702,0.0446225,0.122425,-2.10152,0.219372,0.468355,-0.00595719,0.118192,0.094524,0.0249063,-0.0492685,-0.0968232,0.0770144,0.000295857,-0.600356,14.6867,-0.216463,8.87167,-7.08351,1.92625,-0.139231,-1.00811,-36.9185,-0.387865,28.6728,0.948178,3.3709,0.104477,
0.226475,0.043219,0.125731,-2.10308,0.213624,0.479068,-0.00547508,0.0793059,-0.0043344,0.0782955,-0.0584278,-0.131273,0.187566,0.00557062,0.889782,-0.674872,0.891002,1.67493,0.102881,5.22262,-0.0199279,0,0,0,0,0,0,0,0.223702,0.0446225,0.122425,-2.10152,0.219372,0.468355,-0.00595719,0.118192,0.094524,0.0249063,-0.0492685,-0.0968232,0.0770144,0.000295857,0,0,0,0,0,0,0,-1.00811,-36.9185,-0.387865,28.6728,0.948178,3.3709,0.104477,
0.227147,0.0431442,0.126396,-2.10343,0.212554,0.480782,-0.00542467,0.0802442,-0.00533844,0.0792458,-0.0555191,-0.131756,0.192919,0.00571683,0.586487,-0.62752,0.593926,1.81794,-0.301811,3.34564,0.0913804,0,0,0,0,0,0,0,0.223702,0.0446225,0.122425,-2.10152,0.219372,0.468355,-0.00595719,0.118192,0.094524,0.0249063,-0.0492685,-0.0968232,0.0770144,0.000295857,0,0,0,0,0,0,0,-1.00811,-36.9185,-0.387865,28.6728,0.948178,3.3709,0.104477,
0.227233,0.0456149,0.125933,-2.10503,0.214012,0.478362,-0.00559857,0.0826585,-0.00262899,0.0817248,-0.0588503,-0.133253,0.206961,0.0062271,1.50893,1.6934,1.54943,-2.08202,-0.935779,8.77619,0.318919,0,0,0,0,0,0,0,0.223702,0.0446225,0.122425,-2.10152,0.219372,0.468355,-0.00595719,0.118192,0.094524,0.0249063,-0.0492685,-0.0968232,0.0770144,0.000295857,0,0,0,0,0,0,0,-1.00811,-36.9185,-0.387865,28.6728,0.948178,3.3709,0.104477,
0.227971,0.0456483,0.126666,-2.10555,0.212977,0.480401,-0.00553216,0.0845923,-0.00126969,0.0837042,-0.0600868,-0.132485,0.216544,0.00664205,1.20859,0.849561,1.23708,-0.772796,0.479906,5.98973,0.259342,0,0,0,0,0,0,0,0.223702,0.0446225,0.122425,-2.10152,0.219372,0.468355,-0.00595719,0.118192,0.094524,0.0249063,-0.0492685,-0.0968232,0.0770144,0.000295857,0,0,0,0,0,0,0,-1.00811,-36.9185,-0.387865,28.6728,0.948178,3.3709,0.104477,
0.228702,0.0456562,0.127391,-2.10603,0.212072,0.482337,-0.00548316,0.0859473,-0.000817591,0.0850891,-0.0598482,-0.1286,0.221636,0.00653852,0.846926,0.282564,0.865608,0.149126,2.42852,3.1822,-0.0647035,0,0,0,0,0,0,0,0.225657,0.0455553,0.125318,-2.10378,0.215557,0.471203,-0.00595578,-0.00302272,0.00799499,0.132819,-0.0603015,-0.119293,0.0941647,0.000611115,-15.1518,-10.8161,13.4891,-1.37913,-2.80878,2.14378,0.0394073,0.360599,-37.466,0.461134,25.5823,0.9967,3.07244,0.104477,
0.229433,0.0456447,0.128116,-2.10645,0.211098,0.484207,-0.00543146,0.0870322,-0.000942378,0.0862033,-0.0585884,-0.127244,0.224052,0.0065234,0.678054,-0.077992,0.69638,0.78735,0.847446,1.51002,-0.00944863,0,0,0,0,0,0,0,0.225657,0.0455553,0.125318,-2.10378,0.215557,0.471203,-0.00595578,-0.00302272,0.00799499,0.132819,-0.0603015,-0.119293,0.0941647,0.000611115,0,0,0,0,0,0,0,0.360599,-37.466,0.461134,25.5823,0.9967,3.07244,0.104477,
0.229141,0.045111,0.128787,-2.10702,0.210679,0.482709,-0.00559143,0.088405,-0.00309244,0.0875325,-0.0601291,-0.124855,0.240695,0.00686104,0.857957,-1.34379,0.830715,-0.962895,1.49338,10.4022,0.211022,0,0,0,0,0,0,0,0.225657,0.0455553,0.125318,-2.10378,0.215557,0.471203,-0.00595578,-0.00302272,0.00799499,0.132819,-0.0603015,-0.119293,0.0941647,0.000611115,0,0,0,0,0,0,0,0.360599,-37.466,0.461134,25.5823,0.9967,3.07244,0.104477,
0.229896,0.0450164,0.129533,-2.1075,0.20986,0.48508,-0.00553054,0.0895939,-0.00483992,0.0886819,-0.0601241,-0.12036,0.25183,0.00701112,0.743108,-1.09218,0.718402,0.00310373,2.809,6.95936,0.0938026,0,0,0,0,0,0,0,0.225657,0.0455553,0.125318,-2.10378,0.215557,0.471203,-0.00595578,-0.00302272,0.00799499,0.132819,-0.0603015,-0.119293,0.0941647,0.000611115,0,0,0,0,0,0,0,0.360599,-37.466,0.461134,25.5823,0.9967,3.07244,0.104477,
0.230647,0.0449191,0.130275,-2.10794,0.209163,0.487329,-0.00548546,0.0904478,-0.00630266,0.0894955,-0.0590986,-0.113702,0.257709,0.00673576,0.533698,-0.914207,0.508477,0.640917,4.16135,3.67377,-0.172104,0,0,0,0,0,0,0,0.228172,0.0453232,0.127543,-2.10644,0.211974,0.475494,-0.00595429,0.118576,-0.042153,0.0211044,-0.0967652,-0.10895,0.144632,0.000959382,15.1999,-6.26849,-13.9643,-4.55796,1.29288,6.30838,0.0435334,0.233646,-33.0742,0.588087,25.3601,1.23474,3.07976,0.0907442,
0.2314,0.0448198,0.13102,-2.10835,0.208379,0.489493,-0.0054382,0.0911968,-0.00752592,0.0902119,-0.057396,-0.110572,0.260262,0.00657019,0.468084,-0.764542,0.447775,1.06416,1.95603,1.59624,-0.103482,0,0,0,0,0,0,0,0.228172,0.0453232,0.127543,-2.10644,0.211974,0.475494,-0.00595429,0.118576,-0.042153,0.0211044,-0.0967652,-0.10895,0.144632,0.000959382,0,0,0,0,0,0,0,0.233646,-33.0742,0.588087,25.3601,1.23474,3.07976,0.0907442,
0.231836,0.0446691,0.131182,-2.10948,0.207317,0.487082,-0.00560807,0.0923569,-0.00806412,0.0914305,-0.0583054,-0.111408,0.2685,0.00679946,0.725089,-0.336372,0.761588,-0.56842,-0.522484,5.14867,0.143298,0,0,0,0,0,0,0,0.228172,0.0453232,0.127543,-2.10644,0.211974,0.475494,-0.00595429,0.118576,-0.042153,0.0211044,-0.0967652,-0.10895,0.144632,0.000959382,0,0,0,0,0,0,0,0.233646,-33.0742,0.588087,25.3601,1.23474,3.07976,0.0907442,
0.232615,0.0445906,0.131955,-2.10993,0.206431,0.489392,-0.00554276,0.0933526,-0.00841343,0.0924676,-0.0581176,-0.111293,0.272551,0.00707243,0.622299,-0.218322,0.648216,0.117386,0.0723283,2.53163,0.170601,0,0,0,0,0,0,0,0.228172,0.0453232,0.127543,-2.10644,0.211974,0.475494,-0.00595429,0.118576,-0.042153,0.0211044,-0.0967652,-0.10895,0.144632,0.000959382,0,0,0,0,0,0,0,0.233646,-33.0742,0.588087,25.3601,1.23474,3.07976,0.0907442,
0.233386,0.0445117,0.132721,-2.11036,0.205639,0.491561,-0.00549765,0.0939655,-0.0087041,0.0931081,-0.0572166,-0.108825,0.272268,0.00678546,0.383048,-0.181664,0.400319,0.563133,1.54234,-0.1769,-0.179351,0,0,0,0,0,0,0,0.230685,0.0459261,0.129846,-2.10869,0.208535,0.480957,-0.00595507,0.0552556,0.0715024,0.0906834,-0.0379357,-0.0975334,0.172002,0.000816301,-7.91511,14.2069,8.69737,7.35369,1.42713,3.42133,-0.0178851,0.285221,-36.7162,0.937208,28.3237,1.27777,3.55675,0.0980684,
0.234157,0.0444313,0.133485,-2.11077,0.204747,0.493622,-0.00545683,0.0944395,-0.0089734,0.0936051,-0.0558152,-0.109362,0.269324,0.00644911,0.296267,-0.168317,0.310628,0.875897,-0.335886,-1.8399,-0.210221,0,0,0,0,0,0,0,0.230685,0.0459261,0.129846,-2.10869,0.208535,0.480957,-0.00595507,0.0552556,0.0715024,0.0906834,-0.0379357,-0.0975334,0.172002,0.000816301,0,0,0,0,0,0,0,0.285221,-36.7162,0.937208,28.3237,1.27777,3.55675,0.0980684,
0.234306,0.0465482,0.133437,-2.11194,0.204179,0.493181,-0.0056473,0.0946819,-0.00661581,0.0937974,-0.058509,-0.111039,0.274613,0.0063897,0.151495,1.4735,0.120197,-1.68364,-1.04815,3.30536,-0.0371312,0,0,0,0,0,0,0,0.230685,0.0459261,0.129846,-2.10869,0.208535,0.480957,-0.00595507,0.0552556,0.0715024,0.0906834,-0.0379357,-0.0975334,0.172002,0.000816301,0,0,0,0,0,0,0,0.285221,-36.7162,0.937208,28.3237,1.27777,3.55675,0.0980684,
0.235078,0.0465434,0.1342,-2.11245,0.203231,0.495417,-0.00558964,0.0950295,-0.00541352,0.094101,-0.0595637,-0.112521,0.275585,0.00655317,0.217225,0.751432,0.189696,-0.659158,-0.926065,0.607601,0.102171,0,0,0,0,0,0,0,0.230685,0.0459261,0.129846,-2.10869,0.208535,0.480957,-0.00595507,0.0552556,0.0715024,0.0906834,-0.0379357,-0.0975334,0.172002,0.000816301,0,0,0,0,0,0,0,0.285221,-36.7162,0.937208,28.3237,1.27777,3.55675,0.0980684,
0.235848,0.0465183,0.134962,-2.11292,0.202343,0.497512,-0.00553218,0.0952847,-0.004958,0.0943198,-0.0595222,-0.112235,0.272852,0.00667892,0.159529,0.2847,0.136777,0.0259289,0.178952,-1.70811,0.0785893,0,0,0,0,0,0,0,0.232627,0.0468305,0.132886,-2.11061,0.205337,0.48788,-0.00596097,0.0516248,0.0161462,0.0942507,-0.057514,-0.110705,0.213197,-0.00117112,-0.453853,-6.91953,0.445922,-2.44728,-1.64642,5.14929,-0.248427,1.60236,-38.0412,1.3379,26.1575,1.30798,2.87377,0.151169,
