xiao-wang007/linearmpc_panda/paper_data/panda_torque_PD_controller_opt_time_to_start_low_pass_filter/1/trajectory.csv
Commanded Joint 0 Position,Commanded Joint 1 Position,Commanded Joint 2 Position,Commanded Joint 3 Position,Commanded Joint 4 Position,Commanded Joint 5 Position,Commanded Joint 6 Position,Commanded Joint 0 Velocity,Commanded Joint 1 Velocity,Commanded Joint 2 Velocity,Commanded Joint 3 Velocity,Commanded Joint 4 Velocity,Commanded Joint 5 Velocity,Commanded Joint 6 Velocity,Commanded Joint 0 Acceleration,Commanded Joint 1 Acceleration,Commanded Joint 2 Acceleration,Commanded Joint 3 Acceleration,Commanded Joint 4 Acceleration,Commanded Joint 5 Acceleration,Commanded Joint 6 Acceleration,Commanded Joint 0 Torque,Commanded Joint 1 Torque,Commanded Joint 2 Torque,Commanded Joint 3 Torque,Commanded Joint 4 Torque,Commanded Joint 5 Torque,Commanded Joint 6 Torque,Actual Joint 0 Position,Actual Joint 1 Position,Actual Joint 2 Position,Actual Joint 3 Position,Actual Joint 4 Position,Actual Joint 5 Position,Actual Joint 6 Position,Actual Joint 0 Velocity,Actual Joint 1 Velocity,Actual Joint 2 Velocity,Actual Joint 3 Velocity,Actual Joint 4 Velocity,Actual Joint 5 Velocity,Actual Joint 6 Velocity,Actual Joint 0 Acceleration,Actual Joint 1 Acceleration,Actual Joint 2 Acceleration,Actual Joint 3 Acceleration,Actual Joint 4 Acceleration,Actual Joint 5 Acceleration,Actual Joint 6 Acceleration,Actual Joint 0 Torque,Actual Joint 1 Torque,Actual Joint 2 Torque,Actual Joint 3 Torque,Actual Joint 4 Torque,Actual Joint 5 Torque,Actual Joint 6 Torque,
-0.0354966,-0.0447225,0.0400942,-1.88361,0.0454057,0.307754,-0.0570708,0.00092624,0.0215124,0.00103154,-0.0337517,-0.00680035,0.054952,-0.00039452,0.5789,13.4452,0.644712,-21.0948,-4.25022,34.345,-0.246575,0.0541739,23.0782,0.162047,-24.4491,-0.801044,1.92491,-0.0242724,-0.0355965,-0.0457449,0.0399892,-1.88053,0.0459406,0.30187,-0.057024,0.00108406,0.000392856,0.00217928,-0.000660535,-0.00222748,0.000639979,-0.000296081,0,0,0,0,0,0,0,-0.0202602,-33.9232,-0.185533,27.4271,0.709225,2.95983,0.0706026,
-0.0355752,-0.0457352,0.0400108,-1.88054,0.04594,0.301873,-0.057025,0.000870188,0.0172821,0.000954151,-0.0270276,-0.00534902,0.0439735,-0.000320603,-0.0350328,-2.64395,-0.0483677,4.20254,0.907079,-6.86157,0.0461981,0.0484895,23.5188,0.151762,-24.3655,-0.800737,1.67393,-0.0227558,-0.0355965,-0.0457449,0.0399892,-1.88053,0.0459406,0.30187,-0.057024,0.00108406,0.000392856,0.00217928,-0.000660535,-0.00222748,0.000639979,-0.000296081,0,0,0,0,0,0,0,-0.0202602,-33.9232,-0.185533,27.4271,0.709225,2.95983,0.0706026,
-0.0355713,-0.0457326,0.0400147,-1.88054,0.0459445,0.301873,-0.0570251,0.000794973,0.0138896,0.000861025,-0.0216406,-0.00416678,0.0351962,-0.000259854,-0.0470092,-2.12028,-0.0582039,3.36687,0.738899,-5.48579,0.0379684,0.0413384,24.0921,0.139913,-24.257,-0.799574,1.32681,-0.0207894,-0.0355995,-0.045679,0.039985,-1.88058,0.0459377,0.301869,-0.057027,0.000416606,0.000865766,0.000711768,9.93632e-05,-0.00641631,8.57702e-05,-0.0016473,-0.0834313,0.0591138,-0.183439,0.0949872,-0.523603,-0.0692762,-0.168902,0.00751081,-33.8954,-0.0863513,27.3517,0.697323,2.97356,0.0980684,
-0.0355682,-0.0457303,0.0400177,-1.88054,0.045949,0.301874,-0.0570252,0.000712532,0.011169,0.000763715,-0.0173254,-0.00322184,0.0281823,-0.000210278,-0.0515257,-1.70038,-0.0608186,2.69703,0.59059,-4.38368,0.0309849,0.0354466,24.6161,0.130538,-24.0892,-0.796937,0.941574,-0.0187876,-0.0355995,-0.045679,0.039985,-1.88058,0.0459377,0.301869,-0.057027,0.000416606,0.000865766,0.000711768,9.93632e-05,-0.00641631,8.57702e-05,-0.0016473,0,0,0,0,0,0,0,0.00751081,-33.8954,-0.0863513,27.3517,0.697323,2.97356,0.0980684,
-0.035808,-0.0456939,0.0397821,-1.88037,0.0530069,0.296805,-0.0570625,-0.00012986,0.00868022,-0.00010552,-0.0133376,0.0420513,-0.0103328,-0.00021656,-0.526495,-1.55549,-0.543272,2.49239,28.2957,-24.0719,-0.00392613,0.462621,0.212983,0.458601,-0.277818,2.6099,-2.03937,-0.00203109,-0.0355995,-0.045679,0.039985,-1.88058,0.0459377,0.301869,-0.057027,0.000416606,0.000865766,0.000711768,9.93632e-05,-0.00641631,8.57702e-05,-0.0016473,0,0,0,0,0,0,0,0.00751081,-33.8954,-0.0863513,27.3517,0.697323,2.97356,0.0980684,
-0.035825,-0.0457025,0.0397643,-1.88036,0.0548404,0.295432,-0.0570638,-0.000528961,0.00672741,-0.000528182,-0.0103672,0.079479,-0.0426007,-0.000206801,-0.249438,-1.22051,-0.264164,1.8565,23.3923,-20.1674,0.00609913,0.456539,0.210221,0.45253,-0.275304,2.58734,-2.02234,-0.00199969,-0.0355995,-0.045679,0.039985,-1.88058,0.0459377,0.301869,-0.057027,0.000416606,0.000865766,0.000711768,9.93632e-05,-0.00641631,8.57702e-05,-0.0016473,0,0,0,0,0,0,0,0.00751081,-33.8954,-0.0863513,27.3517,0.697323,2.97356,0.0980684,
-0.0358321,-0.0457088,0.0397565,-1.88036,0.056698,0.294022,-0.0570649,-0.000600971,0.00522509,-0.000618525,-0.00816822,0.110023,-0.0693254,-0.000191849,-0.0450061,-0.938949,-0.056464,1.37433,19.0899,-16.703,0.00934531,0.449529,0.237514,0.44421,-0.266209,2.56585,-2.00126,-0.00199332,-0.0356001,-0.0451277,0.0399765,-1.88136,0.0459455,0.303459,-0.0570221,0.000461346,0.0670262,-0.000267716,-0.0974273,0.00423525,0.199349,0.000240901,0.00559242,8.27005,-0.122435,-12.1908,1.33145,24.9079,0.236025,0.0313145,-20.8946,0.0366345,13.7994,0.208431,2.05804,0.0440523,
-0.0358307,-0.0457124,0.0397572,-1.88036,0.0585645,0.292591,-0.0570658,-0.000446231,0.00409054,-0.000476764,-0.00655034,0.134682,-0.0912348,-0.00017677,0.0967122,-0.709096,0.0886002,1.01117,15.4121,-13.6934,0.00942403,0.443872,0.234675,0.438611,-0.263724,2.54288,-1.9841,-0.00195949,-0.0356001,-0.0451277,0.0399765,-1.88136,0.0459455,0.303459,-0.0570221,0.000461346,0.0670262,-0.000267716,-0.0974273,0.00423525,0.199349,0.000240901,0,0,0,0,0,0,0,0.0313145,-20.8946,0.0366345,13.7994,0.208431,2.05804,0.0440523,
-0.0359106,-0.0435859,0.0397048,-1.88138,0.0689697,0.282796,-0.0571109,2.86904e-05,0.00677206,9.81717e-05,-0.00609378,0.250946,-0.212258,-0.000218694,0.296826,1.67595,0.359335,0.28535,72.665,-75.6393,-0.0262021,3.69157,1.14773,3.73171,-1.60456,8.96182,-8.8345,-0.00318531,-0.0356001,-0.0451277,0.0399765,-1.88136,0.0459455,0.303459,-0.0570221,0.000461346,0.0670262,-0.000267716,-0.0974273,0.00423525,0.199349,0.000240901,0,0,0,0,0,0,0,0.0313145,-20.8946,0.0366345,13.7994,0.208431,2.05804,0.0440523,
-0.0358502,-0.0434754,0.0397678,-1.88145,0.0748077,0.277015,-0.0571124,0.00153273,0.00818153,0.00165384,-0.00641833,0.346707,-0.314336,-0.000212553,0.940022,0.880922,0.972294,-0.202841,59.8504,-63.7988,0.00383783,3.5961,1.10371,3.63259,-1.58518,8.74942,-8.6504,-0.00378483,-0.0356001,-0.0451277,0.0399765,-1.88136,0.0459455,0.303459,-0.0570221,0.000461346,0.0670262,-0.000267716,-0.0974273,0.00423525,0.199349,0.000240901,0,0,0,0,0,0,0,0.0313145,-20.8946,0.0366345,13.7994,0.208431,2.05804,0.0440523,
-0.0357503,-0.0433808,0.03987,-1.88153,0.0806645,0.271134,-0.057113,0.00372429,0.00890901,0.00387848,-0.00720537,0.423786,-0.398504,-0.000186992,1.36973,0.454674,1.3904,-0.4919,48.1746,-52.6053,0.0159758,3.51379,1.19233,3.5339,-1.57797,8.51052,-8.44922,-0.00410702,-0.0356064,-0.0419454,0.0399972,-1.88754,0.0477835,0.308485,-0.057028,-0.00432434,0.0209663,-0.00377545,-0.149058,0.215185,-0.145376,2.76167e-05,-0.598211,-5.75748,-0.438467,-6.4538,26.3687,-43.0907,-0.0266605,0.25745,-30.3764,0.0644055,31.561,1.83349,2.93328,0.0641939,
-0.035617,-0.0432943,0.0400056,-1.88163,0.086484,0.265227,-0.0571135,0.00631208,0.00928942,0.00649261,-0.00822918,0.484515,-0.466479,-0.000160396,1.61737,0.237755,1.63383,-0.639881,37.9554,-42.4841,0.0166222,3.42912,1.24703,3.48656,-1.48937,8.26301,-8.29127,0.00213059,-0.0356064,-0.0419454,0.0399972,-1.88754,0.0477835,0.308485,-0.057028,-0.00432434,0.0209663,-0.00377545,-0.149058,0.215185,-0.145376,2.76167e-05,0,0,0,0,0,0,0,0.25745,-30.3764,0.0644055,31.561,1.83349,2.93328,0.0641939,
-0.033132,-0.0428133,0.0425727,-1.8903,0.0765955,0.269036,-0.0566006,0.0223694,-0.00134496,0.0231016,-0.0218712,0.569722,-0.619446,0.000322681,10.0359,-6.64649,10.3806,-8.52625,53.2545,-95.6048,0.301923,21.1013,-3.35956,21.4385,-8.99222,10.8475,-14.2783,0.256918,-0.0356064,-0.0419454,0.0399972,-1.88754,0.0477835,0.308485,-0.057028,-0.00432434,0.0209663,-0.00377545,-0.149058,0.215185,-0.145376,2.76167e-05,0,0,0,0,0,0,0,0.25745,-30.3764,0.0644055,31.561,1.83349,2.93328,0.0641939,
-0.032384,-0.0431664,0.043345,-1.89093,0.08422,0.258833,-0.0565846,0.0365979,-0.00990277,0.0377874,-0.033308,0.64639,-0.750624,0.00065876,8.89281,-5.34863,9.17864,-7.14798,47.9174,-81.9862,0.210049,18.139,-5.79442,18.3622,-10.422,10.8475,-14.2783,0.171454,-0.0356064,-0.0419454,0.0399972,-1.88754,0.0477835,0.308485,-0.057028,-0.00432434,0.0209663,-0.00377545,-0.149058,0.215185,-0.145376,2.76167e-05,0,0,0,0,0,0,0,0.25745,-30.3764,0.0644055,31.561,1.83349,2.93328,0.0641939,
-0.031593,-0.0435117,0.0441603,-1.89163,0.0920879,0.248743,-0.0565673,0.0490529,-0.0165553,0.0506136,-0.0440492,0.713811,-0.85275,0.000958743,7.78437,-4.15784,8.01636,-6.71328,42.1383,-63.8282,0.187489,15.6306,-5.22471,15.8913,-10.6042,10.7009,-14.2643,0.0749849,-0.0358409,-0.0389471,0.039892,-1.88854,0.0622828,0.295367,-0.0570499,-0.00423506,0.160388,-0.00780544,0.0252652,0.932083,-0.703045,-0.00072409,0.0111608,17.4277,-0.503748,21.7904,89.6123,-69.7086,-0.0939634,5.20465,-40.8104,4.78547,24.0866,3.29284,-1.87324,0.0980684,
-0.0307701,-0.0438358,0.0450077,-1.89238,0.100126,0.239018,-0.0565488,0.0598151,-0.0213479,0.0616755,-0.0540393,0.772007,-0.925313,0.00122925,6.72636,-2.99535,6.91373,-6.24383,36.3726,-45.3523,0.16907,14.3324,-4.50888,14.6271,-10.1889,10.7009,-14.2643,0.0352381,-0.0358409,-0.0389471,0.039892,-1.88854,0.0622828,0.295367,-0.0570499,-0.00423506,0.160388,-0.00780544,0.0252652,0.932083,-0.703045,-0.00072409,0,0,0,0,0,0,0,5.20465,-40.8104,4.78547,24.0866,3.29284,-1.87324,0.0980684,
-0.0318099,-0.036678,0.0439836,-1.89263,0.0989241,0.252061,-0.056801,0.0752863,-0.00935279,0.0772289,-0.0676847,0.809482,-0.990132,0.00176043,9.66952,7.49693,9.72086,-8.52834,23.422,-40.5119,0.331987,22.9936,5.06322,23.2538,-15.5945,10.7009,-14.2643,0.0628763,-0.0358409,-0.0389471,0.039892,-1.88854,0.0622828,0.295367,-0.0570499,-0.00423506,0.160388,-0.00780544,0.0252652,0.932083,-0.703045,-0.00072409,0,0,0,0,0,0,0,5.20465,-40.8104,4.78547,24.0866,3.29284,-1.87324,0.0980684,
-0.0306534,-0.036394,0.0451592,-1.89368,0.106788,0.242006,-0.056773,0.0891427,-0.000381483,0.0911722,-0.0803722,0.844187,-1.04348,0.00210739,8.66023,5.60707,8.71458,-7.92974,21.6903,-33.3405,0.216847,21.5714,5.01133,21.8342,-15.122,10.7009,-14.2643,0.0477592,-0.0358409,-0.0389471,0.039892,-1.88854,0.0622828,0.295367,-0.0570499,-0.00423506,0.160388,-0.00780544,0.0252652,0.932083,-0.703045,-0.00072409,0,0,0,0,0,0,0,5.20465,-40.8104,4.78547,24.0866,3.29284,-1.87324,0.0980684,
-0.0294577,-0.0361234,0.0463741,-1.89482,0.114809,0.23231,-0.0567447,0.101205,0.00645993,0.103312,-0.0927016,0.875873,-1.07718,0.00239402,7.539,4.27588,7.58719,-7.70585,19.8039,-21.0632,0.179144,20.3777,4.75495,20.6446,-14.7525,10.7009,-14.2643,0.041473,-0.0358409,-0.0389471,0.039892,-1.88854,0.0622828,0.295367,-0.0570499,-0.00423506,0.160388,-0.00780544,0.0252652,0.932083,-0.703045,-0.00072409,0,0,0,0,0,0,0,5.20465,-40.8104,4.78547,24.0866,3.29284,-1.87324,0.0980684,
-0.0287681,-0.0395068,0.0477961,-1.89785,0.134667,0.20591,-0.056983,0.116673,-0.00185653,0.118835,-0.117076,0.905782,-1.10001,0.00200816,9.66766,-5.19779,9.70202,-15.2338,18.693,-14.2715,-0.241163,23.1491,-1.23087,23.4275,-22.0759,10.5335,-14.0344,0.0164028,-0.0351542,-0.0377367,0.0413338,-1.89011,0.0935014,0.258145,-0.0570563,0.0725545,-0.043818,0.111459,-0.109028,1.14941,-1.43806,-0.000238264,9.5987,-25.5257,14.9081,-16.7866,27.1657,-91.877,0.0607283,20.1415,-37.9897,19.7858,16.2433,4.65515,-5.3614,0.198776,
-0.0273193,-0.0397574,0.0492648,-1.89962,0.142927,0.197295,-0.0569772,0.129559,-0.00775108,0.131784,-0.138051,0.93111,-1.09538,0.00175185,8.05332,-3.68409,8.09314,-13.1094,15.8299,2.89299,-0.160191,21.7571,-1.43328,22.0225,-21.6306,10.5335,-14.0344,0.00199538,-0.0351542,-0.0377367,0.0413338,-1.89011,0.0935014,0.258145,-0.0570563,0.0725545,-0.043818,0.111459,-0.109028,1.14941,-1.43806,-0.000238264,0,0,0,0,0,0,0,20.1415,-37.9897,19.7858,16.2433,4.65515,-5.3614,0.198776,
-0.0258636,-0.0399808,0.0507408,-1.90143,0.151231,0.189655,-0.0569666,0.140039,-0.0117855,0.142328,-0.15561,0.952501,-1.06731,0.00166808,6.55017,-2.52153,6.5903,-10.9745,13.3695,17.5442,-0.0523585,20.634,-1.70618,20.8924,-21.2415,10.5335,-14.0344,-0.00273222,-0.0351542,-0.0377367,0.0413338,-1.89011,0.0935014,0.258145,-0.0570563,0.0725545,-0.043818,0.111459,-0.109028,1.14941,-1.43806,-0.000238264,0,0,0,0,0,0,0,20.1415,-37.9897,19.7858,16.2433,4.65515,-5.3614,0.198776,
-0.0244112,-0.0401819,0.0522139,-1.90325,0.159568,0.182994,-0.0569503,0.14834,-0.0144557,0.15069,-0.169868,0.970424,-1.02038,0.00174065,5.1883,-1.66888,5.22598,-8.91148,11.2017,29.3354,0.0453553,19.7106,-2.01883,19.9629,-20.9059,10.5335,-12.3404,-0.00276035,-0.0351542,-0.0377367,0.0413338,-1.89011,0.0935014,0.258145,-0.0570563,0.0725545,-0.043818,0.111459,-0.109028,1.14941,-1.43806,-0.000238264,0,0,0,0,0,0,0,20.1415,-37.9897,19.7858,16.2433,4.65515,-5.3614,0.198776,
-0.0239712,-0.0366415,0.0533489,-1.90654,0.174845,0.158136,-0.0570219,0.158588,-0.00719724,0.161117,-0.19127,0.987441,-0.974571,0.00163251,6.40509,4.53656,6.51683,-13.3761,10.6356,28.6285,-0.067587,21.0618,1.30934,21.4068,-23.8714,10.4867,-10.9148,-0.00968651,-0.0319788,-0.0376142,0.0452231,-1.89542,0.131891,0.202861,-0.0570394,0.226482,0.0442033,0.147167,-0.223332,1.15019,-1.68736,0.00162869,19.2409,11.0027,4.46356,-14.2881,0.097314,-31.1618,0.233369,19.9114,-24.6874,19.2859,19.8773,4.25781,-1.96662,0.0376436,
-0.0223999,-0.0364788,0.0549457,-1.90871,0.183267,0.152921,-0.0570082,0.166151,-0.00168937,0.168816,-0.207243,1.0005,-0.910031,0.00164702,4.72665,3.44242,4.81168,-9.98332,8.16474,40.3373,0.00906812,20.1123,0.817143,20.4436,-23.5897,10.4867,-8.96585,-0.00905178,-0.0319788,-0.0376142,0.0452231,-1.89542,0.131891,0.202861,-0.0570394,0.226482,0.0442033,0.147167,-0.223332,1.15019,-1.68736,0.00162869,0,0,0,0,0,0,0,19.9114,-24.6874,19.2859,19.8773,4.25781,-1.96662,0.0376436,
-0.0208588,-0.0363289,0.0565122,-1.91082,0.19167,0.148721,-0.0569886,0.17145,0.00239438,0.174214,-0.218689,1.01049,-0.833033,0.00180816,3.31189,2.55234,3.37367,-7.15338,6.24017,48.1237,0.100712,19.3135,0.445748,19.6326,-23.3148,10.4867,-7.25349,-0.00266481,-0.0319788,-0.0376142,0.0452231,-1.89542,0.131891,0.202861,-0.0570394,0.226482,0.0442033,0.147167,-0.223332,1.15019,-1.68736,0.00162869,0,0,0,0,0,0,0,19.9114,-24.6874,19.2859,19.8773,4.25781,-1.96662,0.0376436,
-0.0193504,-0.0361918,0.0580454,-1.91288,0.200055,0.145436,-0.0569616,0.17487,0.00534298,0.177701,-0.226409,1.01802,-0.748544,0.00212107,2.13724,1.84287,2.17968,-4.8253,4.70542,52.8059,0.195571,18.6188,0.19387,18.927,-23.0361,10.4867,-5.7511,0.00518452,-0.0319788,-0.0376142,0.0452231,-1.89542,0.131891,0.202861,-0.0570394,0.226482,0.0442033,0.147167,-0.223332,1.15019,-1.68736,0.00162869,0,0,0,0,0,0,0,19.9114,-24.6874,19.2859,19.8773,4.25781,-1.96662,0.0376436,
-0.0241607,-0.037629,0.0531491,-1.90965,0.175308,0.179139,-0.056996,0.178515,0.00485285,0.181381,-0.248169,1.02626,-0.636559,0.00229229,2.27832,-0.306329,2.30003,-13.5996,5.15411,69.9904,0.10701,19.1974,-3.47104,19.5321,-28.8867,10.4124,-1.30144,-0.0174257,-0.0240004,-0.0411509,0.0523699,-1.90719,0.17405,0.141015,-0.0570462,0.373931,0.0316337,0.142816,-0.327418,1.29512,-1.78641,-0.00151373,18.4312,-1.5712,-0.54397,-13.0107,18.1168,-12.3818,-0.392803,9.59247,-28.4325,9.76045,27.6016,3.12805,1.43548,0.0980684,
-0.0226465,-0.0376107,0.0546871,-1.91223,0.183748,0.178635,-0.0569648,0.180667,0.00434066,0.183556,-0.262904,1.03201,-0.521864,0.0026127,1.34502,-0.32012,1.35945,-9.20951,3.58968,71.6847,0.200262,18.5583,-3.3534,18.8804,-28.4968,10.4124,-0.0933388,-0.00861567,-0.0240004,-0.0411509,0.0523699,-1.90719,0.17405,0.141015,-0.0570462,0.373931,0.0316337,0.142816,-0.327418,1.29512,-1.78641,-0.00151373,0,0,0,0,0,0,0,9.59247,-28.4325,9.76045,27.6016,3.12805,1.43548,0.0980684,
-0.0211668,-0.0376011,0.0561903,-1.9147,0.192165,0.178948,-0.056926,0.181526,0.00371191,0.184426,-0.272206,1.03601,-0.409669,0.00306034,0.537134,-0.392967,0.543322,-5.81369,2.5038,70.1213,0.279771,18.0159,-3.158,18.3275,-28.0977,10.4124,0.919369,0.00368693,-0.0240004,-0.0411509,0.0523699,-1.90719,0.17405,0.141015,-0.0570462,0.373931,0.0316337,0.142816,-0.327418,1.29512,-1.78641,-0.00151373,0,0,0,0,0,0,0,9.59247,-28.4325,9.76045,27.6016,3.12805,1.43548,0.0980684,
-0.0146251,-0.0405208,0.0618495,-1.92275,0.220334,0.117723,-0.0568778,0.188332,0.00725351,0.191295,-0.288096,1.04807,-0.359925,0.0037549,4.25328,2.2135,4.29337,-9.93146,7.53302,31.0906,0.434104,18.5268,-1.94968,18.8242,-30.9052,10.4124,0.630029,0.0177205,-0.0240004,-0.0411509,0.0523699,-1.90719,0.17405,0.141015,-0.0570462,0.373931,0.0316337,0.142816,-0.327418,1.29512,-1.78641,-0.00151373,0,0,0,0,0,0,0,9.59247,-28.4325,9.76045,27.6016,3.12805,1.43548,0.0980684,
-0.0129778,-0.0403579,0.0635218,-1.92543,0.228984,0.117334,-0.0568192,0.191847,0.00987538,0.194845,-0.297394,1.0547,-0.297665,0.00446816,2.19684,1.63866,2.21901,-5.81119,4.14604,38.9122,0.445784,18.2051,-2.24172,18.5149,-29.7011,10.3743,1.71135,0.0231337,-0.0142796,-0.0423063,0.0638932,-1.92255,0.217505,0.0954989,-0.0570447,0.49763,0.0852254,0.210033,-0.467426,1.36032,-1.15132,-0.000627858,15.4623,6.69895,8.40218,-17.501,8.15004,79.3865,0.110734,3.91132,-30.4796,3.61116,29.8431,3.01178,4.02733,0.0843355,
-0.0114057,-0.0402077,0.0651183,-1.92799,0.237544,0.11762,-0.0567597,0.19278,0.0116554,0.195788,-0.301837,1.05774,-0.230967,0.00506381,0.583242,1.11254,0.588909,-2.77701,1.90277,41.6861,0.372285,17.7394,-1.83451,18.0393,-29.2492,10.3743,2.20938,0.0360828,-0.0142796,-0.0423063,0.0638932,-1.92255,0.217505,0.0954989,-0.0570447,0.49763,0.0852254,0.210033,-0.467426,1.36032,-1.15132,-0.000627858,0,0,0,0,0,0,0,3.91132,-30.4796,3.61116,29.8431,3.01178,4.02733,0.0843355,
-0.00990563,-0.0400695,0.066644,-1.93044,0.24603,0.118415,-0.0567002,0.191727,0.0127785,0.194774,-0.302737,1.05836,-0.164911,0.00553756,-0.658125,0.701903,-0.633415,-0.562394,0.387551,41.285,0.296092,17.2978,-1.42254,17.5889,-28.7909,10.3743,2.61244,0.0507195,-0.0142796,-0.0423063,0.0638932,-1.92255,0.217505,0.0954989,-0.0570447,0.49763,0.0852254,0.210033,-0.467426,1.36032,-1.15132,-0.000627858,0,0,0,0,0,0,0,3.91132,-30.4796,3.61116,29.8431,3.01178,4.02733,0.0843355,
-0.00347295,-0.0406841,0.0748449,-1.93996,0.265758,0.0925337,-0.0568519,0.198683,0.0155417,0.201943,-0.317764,1.07195,-0.0733342,0.00563444,4.34754,1.727,4.48052,-9.39216,8.49346,57.2357,0.0605517,16.5878,-3.94858,16.9097,-32.4923,10.3743,7.08869,0.0371857,-0.0142796,-0.0423063,0.0638932,-1.92255,0.217505,0.0954989,-0.0570447,0.49763,0.0852254,0.210033,-0.467426,1.36032,-1.15132,-0.000627858,0,0,0,0,0,0,0,3.91132,-30.4796,3.61116,29.8431,3.01178,4.02733,0.0843355,
-0.00178383,-0.0405199,0.0765662,-1.94281,0.274434,0.0955641,-0.0568,0.201174,0.0165381,0.204587,-0.325271,1.07446,0.0170945,0.00580496,1.55719,0.622787,1.6528,-4.69172,1.56844,56.518,0.106571,16.4441,-4.13077,16.7837,-31.2958,10.2619,7.52278,0.0483424,0.00160888,-0.042567,0.0788501,-1.94769,0.268727,0.0730386,-0.0570443,0.53157,-0.0218148,0.301884,-0.69829,1.44504,-0.367519,0.000386743,4.24257,-13.38,11.4814,-28.858,10.5893,97.975,0.126825,-0.754208,-33.6495,-1.0623,30.2676,1.6925,4.93645,0.0843355,
-0.000178459,-0.0404006,0.0782009,-1.94548,0.282422,0.099075,-0.0567436,0.201074,0.016212,0.204537,-0.327058,1.05928,0.101448,0.00605577,-0.0629009,-0.203846,-0.0312127,-1.11668,-9.48966,52.7206,0.156762,16.0123,-3.61598,16.3377,-30.8227,10.2619,7.52156,0.0601052,0.00160888,-0.042567,0.0788501,-1.94769,0.268727,0.0730386,-0.0570443,0.53157,-0.0218148,0.301884,-0.69829,1.44504,-0.367519,0.000386743,0,0,0,0,0,0,0,-0.754208,-33.6495,-1.0623,30.2676,1.6925,4.93645,0.0843355,
0.00136213,-0.0403238,0.079769,-1.94801,0.289574,0.102916,-0.0566843,0.199374,0.0148893,0.202832,-0.324898,1.02621,0.17718,0.00632552,-1.06258,-0.826704,-1.06603,1.35,-20.6695,47.3329,0.168593,15.5466,-3.09625,15.8628,-30.3417,10.2619,7.45325,0.0647572,0.00160888,-0.042567,0.0788501,-1.94769,0.268727,0.0730386,-0.0570443,0.53157,-0.0218148,0.301884,-0.69829,1.44504,-0.367519,0.000386743,0,0,0,0,0,0,0,-0.754208,-33.6495,-1.0623,30.2676,1.6925,4.93645,0.0843355,
0.013394,-0.041768,0.0907923,-1.9662,0.313748,0.08881,-0.0568464,0.207942,0.0144241,0.211468,-0.337196,0.991067,0.28738,0.00640621,5.35552,-0.290754,5.3975,-7.68654,-21.9638,68.8752,0.0504268,13.9684,-6.00109,14.2589,-34.8008,10.2619,11.617,0.040456,0.00160888,-0.042567,0.0788501,-1.94769,0.268727,0.0730386,-0.0570443,0.53157,-0.0218148,0.301884,-0.69829,1.44504,-0.367519,0.000386743,0,0,0,0,0,0,0,-0.754208,-33.6495,-1.0623,30.2676,1.6925,4.93645,0.0843355,
0.0152015,-0.0417065,0.0926285,-1.96911,0.319403,0.095361,-0.0567875,0.211542,0.0130773,0.215079,-0.342492,0.934239,0.39368,0.00659747,2.24949,-0.841742,2.25683,-3.30979,-35.5174,66.4374,0.11954,14.0114,-5.36872,14.3286,-33.7929,10.0679,11.8049,0.0516002,0.0164037,-0.0429366,0.0944941,-1.9731,0.318089,0.070754,-0.0570428,0.60291,-0.0820243,0.290208,-0.752013,1.51127,0.172259,1.17002e-06,8.91748,-7.52619,-1.45947,-6.71542,8.27898,67.4723,-0.0481966,-4.20575,-28.98,-4.48607,22.4442,0.434567,5.24773,0.110886,
0.016901,-0.041676,0.0943553,-1.97187,0.324008,0.102459,-0.0567247,0.21172,0.0112243,0.215233,-0.343104,0.862499,0.492401,0.00684706,0.111785,-1.15809,0.0966015,-0.382604,-44.8372,61.7005,0.155992,13.9068,-4.34169,14.2498,-33.165,8.02457,11.8049,0.0601811,0.0164037,-0.0429366,0.0944941,-1.9731,0.318089,0.070754,-0.0570428,0.60291,-0.0820243,0.290208,-0.752013,1.51127,0.172259,1.17002e-06,0,0,0,0,0,0,0,-4.20575,-28.98,-4.48607,22.4442,0.434567,5.24773,0.110886,
0.0287926,-0.043081,0.107028,-1.99067,0.345226,0.0935896,-0.0568325,0.218603,0.00755359,0.222177,-0.349603,0.746318,0.55652,0.00709368,4.30167,-2.29422,4.33957,-4.06165,-72.6133,40.0746,0.154138,10.9783,-5.15945,11.3387,-36.0828,3.31165,11.8049,0.0302844,0.0164037,-0.0429366,0.0944941,-1.9731,0.318089,0.070754,-0.0570428,0.60291,-0.0820243,0.290208,-0.752013,1.51127,0.172259,1.17002e-06,0,0,0,0,0,0,0,-4.20575,-28.98,-4.48607,22.4442,0.434567,5.24773,0.110886,
0.0306015,-0.0431571,0.108866,-1.99355,0.346396,0.100662,-0.0567574,0.220104,0.0041396,0.223678,-0.351725,0.626313,0.622034,0.00755268,0.938373,-2.13374,0.938323,-1.32617,-75.003,40.9462,0.286873,11.5562,-4.07668,11.9134,-35.3659,1.79981,11.8049,0.0481294,0.0164037,-0.0429366,0.0944941,-1.9731,0.318089,0.070754,-0.0570428,0.60291,-0.0820243,0.290208,-0.752013,1.51127,0.172259,1.17002e-06,0,0,0,0,0,0,0,-4.20575,-28.98,-4.48607,22.4442,0.434567,5.24773,0.110886,
0.0322806,-0.0432442,0.110572,-1.99634,0.346691,0.108168,-0.0566744,0.218062,0.00113489,0.221598,-0.350977,0.508414,0.685273,0.00811612,-1.27661,-1.87794,-1.29981,0.467459,-73.6867,39.5245,0.352152,12.061,-3.51753,12.4346,-34.4846,0.488393,11.8252,0.0579025,0.030156,-0.0427347,0.111504,-1.99981,0.36668,0.0923963,-0.057039,0.45091,-0.0347937,0.426629,-0.815368,1.37495,1.05449,0.000490327,-19,5.90382,17.0526,-7.91937,-17.0403,110.279,0.0611446,-5.77679,-30.2773,-6.56096,23.8882,0.507809,5.29442,0.11821,
0.0338545,-0.0433354,0.112172,-1.99904,0.346285,0.116002,-0.0565842,0.213796,-0.00137202,0.217275,-0.348378,0.396599,0.74407,0.00874882,-2.66607,-1.56682,-2.70232,1.62448,-69.8846,36.748,0.39544,12.522,-2.83666,12.8867,-33.8456,-0.461458,11.8252,0.0699514,0.030156,-0.0427347,0.111504,-1.99981,0.36668,0.0923963,-0.057039,0.45091,-0.0347937,0.426629,-0.815368,1.37495,1.05449,0.000490327,0,0,0,0,0,0,0,-5.77679,-30.2773,-6.56096,23.8882,0.507809,5.29442,0.11821,
0.0424577,-0.0413736,0.123967,-2.01577,0.381577,0.126608,-0.056645,0.219626,0.00102092,0.223129,-0.347606,0.321854,0.781596,0.00922346,3.6435,1.49559,3.65895,0.482046,-46.7158,23.4537,0.296646,12.9404,-2.31749,13.2945,-33.2447,-1.2017,11.8252,0.0798919,0.030156,-0.0427347,0.111504,-1.99981,0.36668,0.0923963,-0.057039,0.45091,-0.0347937,0.426629,-0.815368,1.37495,1.05449,0.000490327,0,0,0,0,0,0,0,-5.77679,-30.2773,-6.56096,23.8882,0.507809,5.29442,0.11821,
0.0442356,-0.0413411,0.125772,-2.01844,0.381036,0.134343,-0.0565502,0.220149,0.00163153,0.223635,-0.344867,0.243974,0.818645,0.00974814,0.327258,0.381629,0.316613,1.71193,-48.6748,23.1558,0.327928,13.3092,-1.93185,13.6486,-32.6849,-1.79384,11.8252,0.0901614,0.030156,-0.0427347,0.111504,-1.99981,0.36668,0.0923963,-0.057039,0.45091,-0.0347937,0.426629,-0.815368,1.37495,1.05449,0.000490327,0,0,0,0,0,0,0,-5.77679,-30.2773,-6.56096,23.8882,0.507809,5.29442,0.11821,
0.0458797,-0.0413411,0.127442,-2.02104,0.37997,0.142308,-0.0564515,0.217221,0.00130308,0.220664,-0.34092,0.168534,0.854041,0.0102658,-1.82997,-0.205281,-1.85706,2.46733,-47.1501,22.1224,0.323509,13.2054,-1.55772,13.5511,-32.1906,-2.38744,11.721,0.105185,0.0465879,-0.0429013,0.126409,-2.02724,0.392906,0.137445,-0.0570336,0.193725,0.0542221,0.75775,-0.75194,0.461012,1.49199,0.00130971,-32.1482,11.127,41.3901,7.92858,-114.242,54.6866,0.102422,-6.66546,-33.4471,-7.03703,29.1965,-0.407718,3.5833,0.0706026,
0.0474154,-0.0413608,0.129003,-2.02358,0.37853,0.150458,-0.0563495,0.212169,0.000550262,0.215553,-0.336251,0.0988152,0.886978,0.0107623,-3.15772,-0.470512,-3.19448,2.91795,-43.5742,20.5855,0.310313,13.4556,-1.31136,13.7897,-31.6564,-2.69529,11.721,0.112545,0.0465879,-0.0429013,0.126409,-2.02724,0.392906,0.137445,-0.0570336,0.193725,0.0542221,0.75775,-0.75194,0.461012,1.49199,0.00130971,0,0,0,0,0,0,0,-6.66546,-33.4471,-7.03703,29.1965,-0.407718,3.5833,0.0706026,
0.0586477,-0.0401622,0.138722,-2.04258,0.392607,0.177425,-0.0565908,0.215719,0.00651795,0.219175,-0.335709,0.0492601,0.904566,0.0110311,2.21879,3.72981,2.26369,0.338602,-30.972,10.9926,0.16801,13.6501,-1.11924,13.973,-31.1318,-2.8817,11.721,0.11757,0.0465879,-0.0429013,0.126409,-2.02724,0.392906,0.137445,-0.0570336,0.193725,0.0542221,0.75775,-0.75194,0.461012,1.49199,0.00130971,0,0,0,0,0,0,0,-6.66546,-33.4471,-7.03703,29.1965,-0.407718,3.5833,0.0706026,
0.0603234,-0.0400009,0.140426,-2.04516,0.391145,0.185351,-0.0564907,0.214468,0.00924561,0.217923,-0.333116,0.00287515,0.921818,0.0113293,-0.781719,1.70478,-0.782199,1.62061,-28.9906,10.7824,0.186386,13.7951,-0.97555,14.1082,-30.6168,-2.99681,11.721,0.1223,0.0465879,-0.0429013,0.126409,-2.02724,0.392906,0.137445,-0.0570336,0.193725,0.0542221,0.75775,-0.75194,0.461012,1.49199,0.00130971,0,0,0,0,0,0,0,-6.66546,-33.4471,-7.03703,29.1965,-0.407718,3.5833,0.0706026,
0.061871,-0.0398962,0.141999,-2.04767,0.389508,0.193408,-0.0563888,0.210264,0.0100151,0.213676,-0.32919,-0.0386364,0.93887,0.0116095,-2.62792,0.480909,-2.65488,2.45367,-25.9448,10.6574,0.175163,13.8934,-0.870995,14.197,-30.1104,-3.03175,11.721,0.12516,0.0465879,-0.0429013,0.126409,-2.02724,0.392906,0.137445,-0.0570336,0.193725,0.0542221,0.75775,-0.75194,0.461012,1.49199,0.00130971,0,0,0,0,0,0,0,-6.66546,-33.4471,-7.03703,29.1965,-0.407718,3.5833,0.0706026,
0.063317,-0.0398305,0.14347,-2.05011,0.387767,0.201584,-0.0562861,0.204363,0.00965377,0.207708,-0.324415,-0.0744297,0.955493,0.0118556,-3.68827,-0.225807,-3.72983,2.9844,-22.3708,10.3892,0.153767,13.8336,-0.743832,14.1448,-30.0059,-3.09825,11.4638,0.132556,0.0653317,-0.042819,0.137958,-2.05282,0.399538,0.191043,-0.0570307,0.525563,-0.0177915,0.353704,-0.712444,0.0160292,1.68376,0.000315785,41.4797,-9.00169,-50.5057,4.93695,-55.6228,23.9722,-0.12424,-5.2174,-32.9234,-4.61302,23.9636,-0.0534094,1.4016,0.131027,
0.0762586,-0.0411516,0.149062,-2.06679,0.393432,0.233648,-0.0565752,0.205061,0.0115307,0.208467,-0.320416,-0.095937,0.961717,0.0118694,0.436518,1.17305,0.474731,2.49931,-13.4421,3.89046,0.00864258,13.8538,-0.696049,14.1569,-29.5135,-3.03938,11.4638,0.133636,0.0653317,-0.042819,0.137958,-2.05282,0.399538,0.191043,-0.0570307,0.525563,-0.0177915,0.353704,-0.712444,0.0160292,1.68376,0.000315785,0,0,0,0,0,0,0,-5.2174,-32.9234,-4.61302,23.9636,-0.0534094,1.4016,0.131027,
0.0777739,-0.0410569,0.150604,-2.06913,0.391927,0.241314,-0.0564782,0.20193,0.0115941,0.205334,-0.314861,-0.114381,0.961018,0.0119198,-1.95696,0.0396406,-1.95841,3.47197,-11.5277,-0.436947,0.0315255,13.8421,-0.66733,14.138,-29.0264,-2.95617,11.4638,0.134353,0.0653317,-0.042819,0.137958,-2.05282,0.399538,0.191043,-0.0570307,0.525563,-0.0177915,0.353704,-0.712444,0.0160292,1.68376,0.000315785,0,0,0,0,0,0,0,-5.2174,-32.9234,-4.61302,23.9636,-0.0534094,1.4016,0.131027,
0.0791729,-0.0410061,0.152028,-2.07139,0.390401,0.24872,-0.0563807,0.196518,0.0105431,0.199881,-0.308369,-0.129651,0.953975,0.0119752,-3.38235,-0.656834,-3.40821,4.05749,-9.5433,-4.40205,0.0345795,13.8018,-0.651448,14.0908,-28.5435,-2.84372,11.4638,0.133973,0.0653317,-0.042819,0.137958,-2.05282,0.399538,0.191043,-0.0570307,0.525563,-0.0177915,0.353704,-0.712444,0.0160292,1.68376,0.000315785,0,0,0,0,0,0,0,-5.2174,-32.9234,-4.61302,23.9636,-0.0534094,1.4016,0.131027,
0.0852685,-0.042029,0.166047,-2.08995,0.389465,0.290292,-0.0565689,0.19382,0.0103319,0.197226,-0.301484,-0.137345,0.929419,0.011845,-1.68615,-0.132044,-1.65927,4.3035,-4.80931,-15.3474,-0.0813885,13.6921,-0.660087,13.9945,-27.8776,-2.5341,10.6293,0.13436,0.0756826,-0.0429843,0.156319,-2.07706,0.39728,0.250515,-0.057019,0.625742,-0.088447,0.147344,-0.754097,-0.149349,1.82119,-0.000193168,12.5225,-8.83194,-25.7951,-5.20664,-20.6723,17.178,-0.0636191,-4.07879,-30.2535,-4.75981,21.7975,0.0381434,1.15624,0.164902,
0.0866136,-0.0420018,0.167419,-2.09207,0.388174,0.296603,-0.0564774,0.188683,0.00894556,0.192071,-0.294203,-0.142157,0.9013,0.0117625,-3.2105,-0.866445,-3.22183,4.55057,-3.00728,-17.5746,-0.0515223,13.5904,-0.663861,13.8873,-27.4,-2.40806,10.0078,0.133216,0.0756826,-0.0429843,0.156319,-2.07706,0.39728,0.250515,-0.057019,0.625742,-0.088447,0.147344,-0.754097,-0.149349,1.82119,-0.000193168,0,0,0,0,0,0,0,-4.07879,-30.2535,-4.75981,21.7975,0.0381434,1.15624,0.164902,
0.0878666,-0.0420098,0.168697,-2.09413,0.38693,0.30261,-0.0563862,0.182271,0.00695452,0.185607,-0.286832,-0.14482,0.87121,0.011689,-4.00772,-1.2444,-4.04029,4.60667,-1.66424,-18.8063,-0.0459636,13.4678,-0.669755,13.7595,-26.9209,-2.2846,9.43799,0.13176,0.0756826,-0.0429843,0.156319,-2.07706,0.39728,0.250515,-0.057019,0.625742,-0.088447,0.147344,-0.754097,-0.149349,1.82119,-0.000193168,0,0,0,0,0,0,0,-4.07879,-30.2535,-4.75981,21.7975,0.0381434,1.15624,0.164902,
0.0890469,-0.0420435,0.169901,-2.09613,0.385734,0.308334,-0.0562962,0.175325,0.00472275,0.178591,-0.279544,-0.145757,0.840073,0.011603,-4.34127,-1.39486,-4.38482,4.55502,-0.585608,-19.4605,-0.0537309,13.3248,-0.677113,13.6115,-26.4407,-2.16558,8.90984,0.130084,0.0756826,-0.0429843,0.156319,-2.07706,0.39728,0.250515,-0.057019,0.625742,-0.088447,0.147344,-0.754097,-0.149349,1.82119,-0.000193168,0,0,0,0,0,0,0,-4.07879,-30.2535,-4.75981,21.7975,0.0381434,1.15624,0.164902,
0.0965808,-0.0403012,0.180508,-2.1124,0.383228,0.34314,-0.056611,0.174558,0.00766726,0.177851,-0.275802,-0.142992,0.801984,0.0113211,-0.479651,1.84032,-0.462402,2.3387,1.72775,-23.8055,-0.176166,13.0359,-0.683095,13.3247,-26.0309,-1.95896,8.24368,0.129148,0.0875222,-0.0423645,0.171199,-2.10014,0.39066,0.309703,-0.0570067,0.0861451,0.0225112,0.676253,-0.669286,-0.240192,1.73439,0.00125401,-67.4497,13.8698,66.1136,10.6014,-11.3553,-10.8494,0.180898,-0.702633,-32.0744,-1.73674,26.9788,1.24664,1.93261,0.131027,
0.0978407,-0.0402177,0.181793,-2.11441,0.382255,0.34803,-0.056529,0.171143,0.00822133,0.174401,-0.270918,-0.138722,0.763851,0.0111085,-2.13387,0.346291,-2.15622,3.05241,2.66924,-23.8334,-0.132926,12.8597,-0.690359,13.1435,-25.5484,-1.84556,7.79243,0.126695,0.0875222,-0.0423645,0.171199,-2.10014,0.39066,0.309703,-0.0570067,0.0861451,0.0225112,0.676253,-0.669286,-0.240192,1.73439,0.00125401,0,0,0,0,0,0,0,-0.702633,-32.0744,-1.73674,26.9788,1.24664,1.93261,0.131027,
0.099015,-0.0401849,0.18299,-2.11635,0.381343,0.352673,-0.0564476,0.166272,0.00739781,0.169461,-0.265355,-0.133784,0.727151,0.0109211,-3.04488,-0.514695,-3.08785,3.47714,3.08613,-22.9373,-0.117116,12.6716,-0.696636,12.9505,-25.0646,-1.73582,7.37693,0.123882,0.0875222,-0.0423645,0.171199,-2.10014,0.39066,0.309703,-0.0570067,0.0861451,0.0225112,0.676253,-0.669286,-0.240192,1.73439,0.00125401,0,0,0,0,0,0,0,-0.702633,-32.0744,-1.73674,26.9788,1.24664,1.93261,0.131027,
0.100122,-0.0401879,0.18412,-2.11824,0.380481,0.357102,-0.0563677,0.160696,0.00584137,0.163801,-0.259413,-0.128562,0.692441,0.0107349,-3.48488,-0.972776,-3.53739,3.71375,3.26379,-21.694,-0.116379,12.4746,-0.702139,12.7486,-24.5801,-1.63219,6.99165,0.12084,0.0875222,-0.0423645,0.171199,-2.10014,0.39066,0.309703,-0.0570067,0.0861451,0.0225112,0.676253,-0.669286,-0.240192,1.73439,0.00125401,0,0,0,0,0,0,0,-0.702633,-32.0744,-1.73674,26.9788,1.24664,1.93261,0.131027,
0.0962963,-0.0402472,0.18022,-2.11159,0.384286,0.339059,-0.0566708,0.161202,0.00851015,0.164327,-0.255704,-0.122607,0.660805,0.0103371,0.316081,1.66799,0.329113,2.31823,3.72149,-19.7722,-0.248631,12.2191,-0.827407,12.4747,-24.0628,-1.39772,6.47944,0.117696,0.104847,-0.040652,0.177976,-2.12135,0.38223,0.361856,-0.0570082,0.371408,0.101231,0.318591,-0.588904,-0.264529,1.42113,-0.00083561,35.6579,9.83995,-44.7077,10.0477,-3.04217,-39.1583,-0.261203,-1.41278,-36.4186,-0.93535,28.2721,2.73712,1.70739,0.14476,
0.0974909,-0.0401666,0.181438,-2.11344,0.38357,0.343053,-0.0566002,0.158827,0.00882403,0.16191,-0.250952,-0.115981,0.628486,0.0100349,-1.48389,0.196178,-1.51082,2.96963,4.14183,-20.1992,-0.188822,12.0108,-0.830595,12.2616,-23.5768,-1.30645,6.15067,0.114305,0.104847,-0.040652,0.177976,-2.12135,0.38223,0.361856,-0.0570082,0.371408,0.101231,0.318591,-0.588904,-0.264529,1.42113,-0.00083561,0,0,0,0,0,0,0,-1.41278,-36.4186,-0.93535,28.2721,2.73712,1.70739,0.14476,
0.0986012,-0.0401362,0.18257,-2.11523,0.382901,0.346837,-0.0565301,0.15482,0.00781934,0.157828,-0.245574,-0.109507,0.597401,0.00977849,-2.50453,-0.627934,-2.55146,3.36144,4.04591,-19.4285,-0.160279,11.7994,-0.832391,12.0456,-23.0901,-1.22146,5.84791,0.110801,0.104847,-0.040652,0.177976,-2.12135,0.38223,0.361856,-0.0570082,0.371408,0.101231,0.318591,-0.588904,-0.264529,1.42113,-0.00083561,0,0,0,0,0,0,0,-1.41278,-36.4186,-0.93535,28.2721,2.73712,1.70739,0.14476,
0.112801,-0.0378003,0.186093,-2.13232,0.376752,0.38445,-0.056727,0.153684,0.0119626,0.156649,-0.242444,-0.102808,0.558281,0.0093427,-0.709774,2.58953,-0.736839,1.95629,4.18664,-24.4499,-0.272372,11.3722,-0.832694,11.6091,-22.1155,-1.07122,5.30832,0.103626,0.104847,-0.040652,0.177976,-2.12135,0.38223,0.361856,-0.0570082,0.371408,0.101231,0.318591,-0.588904,-0.264529,1.42113,-0.00083561,0,0,0,0,0,0,0,-1.41278,-36.4186,-0.93535,28.2721,2.73712,1.70739,0.14476,
0.113897,-0.0376585,0.18721,-2.13408,0.376216,0.387475,-0.0566657,0.150359,0.0131165,0.153234,-0.237883,-0.0956419,0.522257,0.00900433,-2.07828,0.721186,-2.13407,2.85067,4.4791,-22.5147,-0.211481,11.3385,-1.15623,11.5798,-21.5693,-0.856426,4.9294,0.0996855,0.111121,-0.0398732,0.194136,-2.14123,0.374896,0.404236,-0.0570067,0.556973,-0.0188719,0.0478909,-0.613277,-0.193585,1.08916,0.000875339,23.1956,-15.0128,-33.8375,-3.04657,8.86809,-41.4959,0.213869,-3.0354,-34.6214,-3.71245,26.7526,2.46887,1.19652,0.131027,
0.11492,-0.0375773,0.188251,-2.13576,0.375724,0.390371,-0.0566052,0.145855,0.0125224,0.148621,-0.232426,-0.0888087,0.490203,0.00871652,-2.8149,-0.371321,-2.88297,3.41068,4.27073,-20.0342,-0.179884,11.1245,-1.15364,11.3613,-21.0813,-0.796551,4.70766,0.0961052,0.111121,-0.0398732,0.194136,-2.14123,0.374896,0.404236,-0.0570067,0.556973,-0.0188719,0.0478909,-0.613277,-0.193585,1.08916,0.000875339,0,0,0,0,0,0,0,-3.0354,-34.6214,-3.71245,26.7526,2.46887,1.19652,0.131027,
0.115885,-0.0375393,0.189233,-2.13738,0.375262,0.393169,-0.056546,0.140802,0.0109686,0.143454,-0.226432,-0.0826116,0.462103,0.00845388,-3.15863,-0.971134,-3.22989,3.74583,3.87318,-17.5622,-0.164148,10.9111,-1.15025,11.1436,-20.5931,-0.742651,4.50166,0.0925589,0.111121,-0.0398732,0.194136,-2.14123,0.374896,0.404236,-0.0570067,0.556973,-0.0188719,0.0478909,-0.613277,-0.193585,1.08916,0.000875339,0,0,0,0,0,0,0,-3.0354,-34.6214,-3.71245,26.7526,2.46887,1.19652,0.131027,
0.118415,-0.0384346,0.201528,-2.15139,0.370721,0.419923,-0.0567514,0.140462,0.0118172,0.143113,-0.222809,-0.0759955,0.428999,0.00806032,-0.212458,0.530402,-0.212676,2.2644,4.13509,-20.6902,-0.245972,10.6985,-1.14585,10.9267,-20.1047,-0.694043,4.3113,0.0890689,0.111121,-0.0398732,0.194136,-2.14123,0.374896,0.404236,-0.0570067,0.556973,-0.0188719,0.0478909,-0.613277,-0.193585,1.08916,0.000875339,0,0,0,0,0,0,0,-3.0354,-34.6214,-3.71245,26.7526,2.46887,1.19652,0.131027,
0.11944,-0.0383672,0.202573,-2.15298,0.37038,0.422225,-0.0566991,0.137992,0.0111373,0.140601,-0.217973,-0.0693402,0.400738,0.00775654,-1.54346,-0.424957,-1.56992,3.02271,4.15953,-17.6633,-0.189865,10.4683,-1.32322,10.6963,-19.5499,-0.576647,4.06294,0.0855459,0.120845,-0.0394877,0.204343,-2.15877,0.369403,0.436117,-0.0570045,0.00914472,0.040286,0.577134,-0.479689,-0.121653,0.923975,0.00110823,-68.4785,7.39474,66.1554,16.6985,8.9915,-20.648,0.0291115,1.14612,-30.5788,0.389723,25.0348,2.38922,0.632559,0.110886,
0.120396,-0.0383394,0.203548,-2.1545,0.370063,0.424482,-0.0566472,0.134304,0.00960589,0.13685,-0.21239,-0.0633829,0.377008,0.00750178,-2.30523,-0.95711,-2.34473,3.4893,3.72333,-14.8309,-0.159225,10.2574,-1.31731,10.4812,-19.0609,-0.538734,3.89938,0.0822463,0.120845,-0.0394877,0.204343,-2.15877,0.369403,0.436117,-0.0570045,0.00914472,0.040286,0.577134,-0.479689,-0.121653,0.923975,0.00110823,0,0,0,0,0,0,0,1.14612,-30.5788,0.389723,25.0348,2.38922,0.632559,0.110886,
0.121298,-0.0383406,0.204467,-2.15595,0.369756,0.426704,-0.0565963,0.12998,0.00765583,0.132454,-0.206367,-0.0583742,0.357161,0.0072746,-2.70219,-1.21879,-2.74719,3.76426,3.13041,-12.4045,-0.141986,10.0473,-1.31088,10.2669,-18.5716,-0.506561,3.74748,0.0790723,0.120845,-0.0394877,0.204343,-2.15877,0.369403,0.436117,-0.0570045,0.00914472,0.040286,0.577134,-0.479689,-0.121653,0.923975,0.00110823,0,0,0,0,0,0,0,1.14612,-30.5788,0.389723,25.0348,2.38922,0.632559,0.110886,
0.127801,-0.0379115,0.21149,-2.16772,0.367003,0.449444,-0.0567998,0.130374,0.00878688,0.132845,-0.202408,-0.0517693,0.334357,0.00692763,0.245989,0.706908,0.243992,2.47467,4.12808,-14.2525,-0.216858,9.83773,-1.30375,10.0534,-18.0817,-0.479343,3.60724,0.0760044,0.120845,-0.0394877,0.204343,-2.15877,0.369403,0.436117,-0.0570045,0.00914472,0.040286,0.577134,-0.479689,-0.121653,0.923975,0.00110823,0,0,0,0,0,0,0,1.14612,-30.5788,0.389723,25.0348,2.38922,0.632559,0.110886,
0.128768,-0.0378591,0.212476,-2.16914,0.366808,0.451332,-0.0567546,0.128484,0.00833927,0.130914,-0.197424,-0.0462896,0.314704,0.00667065,-1.18125,-0.279757,-1.20649,3.11485,3.42484,-12.283,-0.16061,9.62882,-1.29625,9.8405,-17.5913,-0.45821,3.47734,0.0731135,0.120845,-0.0394877,0.204343,-2.15877,0.369403,0.436117,-0.0570045,0.00914472,0.040286,0.577134,-0.479689,-0.121653,0.923975,0.00110823,0,0,0,0,0,0,0,1.14612,-30.5788,0.389723,25.0348,2.38922,0.632559,0.110886,
0.129667,-0.0378448,0.213392,-2.1705,0.366601,0.453195,-0.0567095,0.125251,0.00702977,0.127623,-0.191806,-0.0422034,0.298322,0.00646451,-2.02068,-0.818432,-2.05722,3.51098,2.55387,-10.239,-0.128839,9.40948,-1.44825,9.60544,-17.0186,-0.363201,3.31305,0.0701001,0.133379,-0.0380308,0.209523,-2.17431,0.366523,0.460524,-0.057013,0.263063,0.0889437,0.240295,-0.395082,-0.0614335,0.608123,-0.000822516,31.7398,6.08221,-42.1049,10.5759,7.52739,-39.4814,-0.241343,-0.0440639,-34.2723,0.461134,27.0541,1.57714,1.73394,0.14476,
0.13051,-0.0378576,0.214251,-2.17179,0.366373,0.455043,-0.0566648,0.121284,0.00530218,0.12359,-0.185814,-0.0394804,0.284865,0.00628924,-2.47932,-1.07974,-2.52043,3.7455,1.70187,-8.41029,-0.109542,9.20139,-1.43992,9.39353,-16.5265,-0.353879,3.20285,0.0675228,0.133379,-0.0380308,0.209523,-2.17431,0.366523,0.460524,-0.057013,0.263063,0.0889437,0.240295,-0.395082,-0.0614335,0.608123,-0.000822516,0,0,0,0,0,0,0,-0.0440639,-34.2723,0.461134,27.0541,1.57714,1.73394,0.14476,
0.139575,-0.0360752,0.215833,-2.18262,0.364981,0.469481,-0.0568246,0.120937,0.00801071,0.123206,-0.183111,-0.0367895,0.263608,0.00604813,-0.216835,1.69283,-0.239783,1.68885,1.68184,-13.2861,-0.150698,8.99358,-1.43116,9.18195,-16.0334,-0.350118,3.10197,0.065077,0.133379,-0.0380308,0.209523,-2.17431,0.366523,0.460524,-0.057013,0.263063,0.0889437,0.240295,-0.395082,-0.0614335,0.608123,-0.000822516,0,0,0,0,0,0,0,-0.0440639,-34.2723,0.461134,27.0541,1.57714,1.73394,0.14476,
0.140454,-0.0359853,0.216728,-2.18392,0.364751,0.470928,-0.0567833,0.118745,0.00865622,0.120952,-0.178917,-0.0351817,0.247068,0.00587071,-1.37016,0.403449,-1.40885,2.6214,1.00484,-10.3371,-0.110883,8.78622,-1.42228,8.97092,-15.5392,-0.35351,3.00952,0.0628416,0.133379,-0.0380308,0.209523,-2.17431,0.366523,0.460524,-0.057013,0.263063,0.0889437,0.240295,-0.395082,-0.0614335,0.608123,-0.000822516,0,0,0,0,0,0,0,-0.0440639,-34.2723,0.461134,27.0541,1.57714,1.73394,0.14476,
0.141273,-0.0359394,0.217562,-2.18514,0.364489,0.472406,-0.0567419,0.115469,0.00807224,0.117604,-0.173741,-0.0347007,0.234611,0.00573121,-2.04715,-0.36499,-2.09278,3.23495,0.300645,-7.78587,-0.0871909,8.69389,-1.62889,8.88596,-14.962,-0.303087,2.89253,0.0606651,0.138478,-0.0378517,0.221558,-2.18856,0.365594,0.479318,-0.0570123,0.477435,-0.0397082,0.0267401,-0.438902,-0.0134513,0.472195,-0.00111623,26.7965,-16.0815,-26.6943,-5.47756,5.99778,-16.991,-0.0367138,-2.4284,-33.1218,-3.03801,25.4315,0.831906,2.3034,0.138352,
0.144716,-0.0373104,0.227857,-2.19596,0.364391,0.485006,-0.0568382,0.115947,0.00742182,0.118073,-0.168498,-0.0325307,0.21473,0.00549581,0.298469,-0.40651,0.293001,3.27733,1.35627,-12.4254,-0.147123,8.28312,-1.61,8.46813,-13.9667,-0.341593,2.74551,0.0571017,0.138478,-0.0378517,0.221558,-2.18856,0.365594,0.479318,-0.0570123,0.477435,-0.0397082,0.0267401,-0.438902,-0.0134513,0.472195,-0.00111623,0,0,0,0,0,0,0,-2.4284,-33.1218,-3.03801,25.4315,0.831906,2.3034,0.138352,
0.145573,-0.0373025,0.22873,-2.19706,0.364156,0.486167,-0.0568004,0.114195,0.00613433,0.11629,-0.162442,-0.0319168,0.200811,0.00534204,-1.09474,-0.804682,-1.11429,3.78465,0.383631,-8.69933,-0.096109,8.08023,-1.60035,8.26178,-13.467,-0.370071,2.68088,0.055629,0.138478,-0.0378517,0.221558,-2.18856,0.365594,0.479318,-0.0570123,0.477435,-0.0397082,0.0267401,-0.438902,-0.0134513,0.472195,-0.00111623,0,0,0,0,0,0,0,-2.4284,-33.1218,-3.03801,25.4315,0.831906,2.3034,0.138352,
0.146362,-0.0373184,0.229534,-2.1981,0.363869,0.487396,-0.0567617,0.111087,0.00451087,0.113139,-0.155914,-0.0326988,0.191357,0.00524058,-1.94238,-1.01466,-1.9691,4.08011,-0.488706,-5.90874,-0.0634104,7.87989,-1.5904,8.05801,-12.9659,-0.402624,2.62082,0.0543262,0.138478,-0.0378517,0.221558,-2.18856,0.365594,0.479318,-0.0570123,0.477435,-0.0397082,0.0267401,-0.438902,-0.0134513,0.472195,-0.00111623,0,0,0,0,0,0,0,-2.4284,-33.1218,-3.03801,25.4315,0.831906,2.3034,0.138352,
0.147096,-0.0373528,0.230282,-2.19908,0.363534,0.488674,-0.0567224,0.10721,0.00274862,0.109214,-0.149135,-0.0345257,0.185041,0.00517371,-2.42354,-1.10141,-2.45339,4.23708,-1.14186,-3.9476,-0.041795,7.67043,-1.77544,7.85472,-12.3716,-0.403044,2.56002,0.0532204,0.145649,-0.0380401,0.231726,-2.20193,0.365304,0.49232,-0.0570096,0.174953,-0.0232956,0.328206,-0.371196,-0.0175946,0.341717,-0.000317081,-37.8103,2.05158,37.6833,8.46326,-0.517917,-16.3097,0.0998932,-1.59131,-29.706,-2.66112,24.884,1.08825,2.4627,0.104477,
0.151727,-0.0375259,0.237922,-2.20842,0.364,0.496199,-0.0568531,0.108355,0.00287882,0.110369,-0.144795,-0.0335979,0.168363,0.0050208,0.715886,0.0813782,0.722282,2.71204,0.579889,-10.4238,-0.0955685,7.47831,-1.76489,7.65918,-11.8686,-0.440551,2.50371,0.0523483,0.145649,-0.0380401,0.231726,-2.20193,0.365304,0.49232,-0.0570096,0.174953,-0.0232956,0.328206,-0.371196,-0.0175946,0.341717,-0.000317081,0,0,0,0,0,0,0,-1.59131,-29.706,-2.66112,24.884,1.08825,2.4627,0.104477,
0.152541,-0.0375286,0.238751,-2.20936,0.363725,0.497098,-0.0568158,0.107037,0.00223565,0.109037,-0.13943,-0.0337591,0.157148,0.00494772,-0.823741,-0.401979,-0.832848,3.35354,-0.100727,-7.00976,-0.0456737,7.29205,-1.75401,7.46948,-11.3651,-0.477411,2.44593,0.0516978,0.145649,-0.0380401,0.231726,-2.20193,0.365304,0.49232,-0.0570096,0.174953,-0.0232956,0.328206,-0.371196,-0.0175946,0.341717,-0.000317081,0,0,0,0,0,0,0,-1.59131,-29.706,-2.66112,24.884,1.08825,2.4627,0.104477,
0.153284,-0.0375546,0.239509,-2.21024,0.363422,0.498058,-0.0567774,0.104198,0.00113741,0.10617,-0.133421,-0.0345882,0.149731,0.00491885,-1.7744,-0.686403,-1.792,3.75559,-0.518225,-4.63505,-0.0180469,7.11292,-1.74245,7.28687,-10.8615,-0.509892,2.3846,0.0512812,0.145649,-0.0380401,0.231726,-2.20193,0.365304,0.49232,-0.0570096,0.174953,-0.0232956,0.328206,-0.371196,-0.0175946,0.341717,-0.000317081,0,0,0,0,0,0,0,-1.59131,-29.706,-2.66112,24.884,1.08825,2.4627,0.104477,
0.159746,-0.0355588,0.244629,-2.21854,0.363791,0.505621,-0.0568552,0.103686,0.00348727,0.105633,-0.128978,-0.0332468,0.133158,0.00489571,-0.319808,1.46867,-0.335305,2.77687,0.838394,-10.3583,-0.0144596,6.71123,-1.81441,6.87649,-9.80544,-0.53969,2.24756,0.0512351,0.154241,-0.0371568,0.238982,-2.21282,0.365007,0.502502,-0.0570111,0.00512796,0.0941579,0.462435,-0.26499,-0.0236905,0.279671,0.0001881,-21.2282,14.6817,16.7786,13.2758,-0.761994,-7.75578,0.0631476,-0.222592,-33.5225,-0.859972,28.7204,1.30157,3.13927,0.0843355,
0.160477,-0.0355087,0.245373,-2.21934,0.363587,0.506195,-0.0568145,0.101223,0.00404232,0.103124,-0.123349,-0.0317201,0.120884,0.00493381,-1.5395,0.346901,-1.56812,3.51768,0.954173,-7.67162,0.023811,6.55857,-1.80008,6.72007,-9.30569,-0.536087,2.1593,0.0515691,0.154241,-0.0371568,0.238982,-2.21282,0.365007,0.502502,-0.0570111,0.00512796,0.0941579,0.462435,-0.26499,-0.0236905,0.279671,0.0001881,0,0,0,0,0,0,0,-0.222592,-33.5225,-0.859972,28.7204,1.30157,3.13927,0.0843355,
0.161141,-0.0354979,0.246051,-2.22007,0.363418,0.506794,-0.0567755,0.0975968,0.00350318,0.0994426,-0.117003,-0.0295947,0.111685,0.00492195,-2.26647,-0.33696,-2.30101,3.96627,1.32839,-5.74901,-0.00741282,6.41428,-1.78482,6.57195,-8.80909,-0.512609,2.05754,0.0518243,0.154241,-0.0371568,0.238982,-2.21282,0.365007,0.502502,-0.0570111,0.00512796,0.0941579,0.462435,-0.26499,-0.0236905,0.279671,0.0001881,0,0,0,0,0,0,0,-0.222592,-33.5225,-0.859972,28.7204,1.30157,3.13927,0.0843355,
0.161754,-0.0355159,0.246676,-2.22074,0.363258,0.507416,-0.0567353,0.0933976,0.00235286,0.095186,-0.11025,-0.0276805,0.104899,0.00494199,-2.62451,-0.718953,-2.66041,4.22057,1.19636,-4.24143,0.0125273,6.28212,-1.76785,6.4362,-8.31583,-0.476884,1.94641,0.0526839,0.154241,-0.0371568,0.238982,-2.21282,0.365007,0.502502,-0.0570111,0.00512796,0.0941579,0.462435,-0.26499,-0.0236905,0.279671,0.0001881,0,0,0,0,0,0,0,-0.222592,-33.5225,-0.859972,28.7204,1.30157,3.13927,0.0843355,
0.168764,-0.0359419,0.248755,-2.22689,0.362997,0.512398,-0.0568406,0.0928426,0.00185336,0.094606,-0.104911,-0.0232393,0.0919505,0.00504482,-0.346836,-0.312186,-0.362497,3.33747,2.77576,-8.09276,0.0642658,6.1728,-1.91338,6.31807,-7.76633,-0.387583,1.80634,0.0548284,0.163883,-0.0362954,0.243781,-2.2224,0.363863,0.510846,-0.0570149,0.140859,-0.00691857,0.263575,-0.260848,-0.0405863,0.207492,-0.00131151,16.9664,-12.6346,-24.8575,0.517663,-2.11197,-9.02238,-0.187451,-1.5675,-32.6735,-1.43523,25.4077,1.22284,2.55608,0.11821,
0.169414,-0.0359674,0.249418,-2.22749,0.362998,0.51279,-0.0567906,0.0905195,0.000846308,0.0922436,-0.099052,-0.0185581,0.0833741,0.00528447,-1.45196,-0.629406,-1.47651,3.6616,2.92578,-5.36025,0.149783,6.02885,-1.89053,6.16984,-7.28025,-0.294096,1.66431,0.0563472,0.163883,-0.0362954,0.243781,-2.2224,0.363863,0.510846,-0.0570149,0.140859,-0.00691857,0.263575,-0.260848,-0.0405863,0.207492,-0.00131151,0,0,0,0,0,0,0,-1.5675,-32.6735,-1.43523,25.4077,1.22284,2.55608,0.11821,
0.169996,-0.0360142,0.250012,-2.22805,0.363083,0.513242,-0.0567625,0.0869772,-0.000492648,0.0886594,-0.0930338,-0.0127209,0.0780048,0.00493003,-2.21392,-0.836848,-2.2401,3.76137,3.64823,-3.35582,-0.221527,5.85959,-1.87466,5.99675,-6.80985,-0.190205,1.51814,0.0533774,0.163883,-0.0362954,0.243781,-2.2224,0.363863,0.510846,-0.0570149,0.140859,-0.00691857,0.263575,-0.260848,-0.0405863,0.207492,-0.00131151,0,0,0,0,0,0,0,-1.5675,-32.6735,-1.43523,25.4077,1.22284,2.55608,0.11821,
0.170537,-0.0360728,0.250565,-2.22855,0.362978,0.513851,-0.0567347,0.0831004,-0.0018604,0.0847413,-0.0869124,-0.012804,0.077625,0.00464025,-2.42302,-0.854847,-2.44877,3.82583,-0.0519037,-0.237361,-0.181109,5.70778,-1.84361,5.8448,-6.33962,-0.199211,1.43139,0.0532785,0.163883,-0.0362954,0.243781,-2.2224,0.363863,0.510846,-0.0570149,0.140859,-0.00691857,0.263575,-0.260848,-0.0405863,0.207492,-0.00131151,0,0,0,0,0,0,0,-1.5675,-32.6735,-1.43523,25.4077,1.22284,2.55608,0.11821,
0.168567,-0.0358309,0.248557,-2.22631,0.363323,0.511487,-0.0568643,0.0833645,-0.0010931,0.08499,-0.0833002,-0.0128393,0.0687747,0.00453998,0.165092,0.479566,0.155413,2.25767,-0.0221059,-5.53144,-0.0626723,5.57159,-1.97797,5.71552,-5.83597,-0.141893,1.38069,0.061626,0.169963,-0.0367046,0.250256,-2.23045,0.363001,0.516806,-0.0570171,0.289778,-0.0748708,0.0741108,-0.249537,-0.0105295,0.15291,-0.0017171,18.6148,-8.49403,-23.683,1.41392,3.7571,-6.82277,-0.0506985,-2.20227,-30.2019,-1.96288,24.6619,1.22284,2.11846,0.138352,
0.16916,-0.0358435,0.249161,-2.22679,0.363283,0.511822,-0.0568319,0.0815125,-0.00119081,0.0831075,-0.0788102,-0.0112597,0.0633836,0.00444042,-1.15752,-0.061067,-1.17659,2.80621,0.987275,-3.36943,-0.0622238,5.28296,-1.9308,5.42093,-5.37829,-0.0207865,1.33927,0.068713,0.169963,-0.0367046,0.250256,-2.23045,0.363001,0.516806,-0.0570171,0.289778,-0.0748708,0.0741108,-0.249537,-0.0105295,0.15291,-0.0017171,0,0,0,0,0,0,0,-2.20227,-30.2019,-1.96288,24.6619,1.22284,2.11846,0.138352,
0.169686,-0.0358791,0.249699,-2.22722,0.363272,0.51219,-0.0568096,0.0783544,-0.00184143,0.0799204,-0.0737184,-0.00928422,0.0599186,0.00411014,-1.97381,-0.406642,-1.99191,3.18242,1.23467,-2.16561,-0.206424,4.83722,-1.9713,4.97015,-4.95977,0.157299,1.29637,0.0405163,0.169963,-0.0367046,0.250256,-2.23045,0.363001,0.516806,-0.0570171,0.289778,-0.0748708,0.0741108,-0.249537,-0.0105295,0.15291,-0.0017171,0,0,0,0,0,0,0,-2.20227,-30.2019,-1.96288,24.6619,1.22284,2.11846,0.138352,
0.170168,-0.0359296,0.250192,-2.22758,0.363032,0.512617,-0.0567831,0.0747401,-0.00273572,0.0762705,-0.0680602,-0.013428,0.058603,0.00395143,-2.25893,-0.558926,-2.28118,3.53633,-2.58985,-0.822233,-0.0991957,4.64623,-1.94292,4.79556,-4.49537,-0.474415,1.65149,0.0321255,0.169963,-0.0367046,0.250256,-2.23045,0.363001,0.516806,-0.0570171,0.289778,-0.0748708,0.0741108,-0.249537,-0.0105295,0.15291,-0.0017171,0,0,0,0,0,0,0,-2.20227,-30.2019,-1.96288,24.6619,1.22284,2.11846,0.138352,
0.174204,-0.0371249,0.254549,-2.23337,0.362249,0.516855,-0.0568931,0.0748005,-0.00379131,0.0763363,-0.0635323,-0.0155552,0.0498871,0.00393989,0.0377223,-0.659746,0.0411372,2.82993,-1.32949,-5.44746,-0.00720793,4.50816,-2.03123,4.64495,-4.1125,-0.369581,1.53836,0.0468194,0.175111,-0.0362092,0.256329,-2.23634,0.362855,0.520432,-0.0570118,0.297434,0.0788996,0.00401602,-0.120409,-0.00299859,0.0800579,2.905e-05,0.957009,19.2213,-8.76185,16.141,0.941368,-9.10649,0.218268,-2.09912,-32.8481,-2.21282,28.1253,1.15509,2.97997,0.0907442,
0.174723,-0.0371984,0.255081,-2.23368,0.362186,0.517001,-0.0568661,0.072822,-0.0048706,0.0743605,-0.0587146,-0.0140159,0.0435587,0.00382582,-1.23653,-0.674555,-1.23489,3.01109,0.962058,-3.95523,-0.0712949,4.24736,-1.98203,4.3728,-3.75944,-0.0719566,1.31855,0.0474262,0.175111,-0.0362092,0.256329,-2.23634,0.362855,0.520432,-0.0570118,0.297434,0.0788996,0.00401602,-0.120409,-0.00299859,0.0800579,2.905e-05,0,0,0,0,0,0,0,-2.09912,-32.8481,-2.21282,28.1253,1.15509,2.97997,0.0907442,
0.175179,-0.0372807,0.25555,-2.23396,0.362223,0.517171,-0.0568466,0.0696509,-0.00595406,0.0712034,-0.0538167,-0.0102791,0.0390893,0.00354907,-1.98197,-0.677166,-1.9732,3.06115,2.33548,-2.79342,-0.172973,4.00411,-1.97487,4.133,-3.41361,-0.0574456,1.1731,0.0323914,0.175111,-0.0362092,0.256329,-2.23634,0.362855,0.520432,-0.0570118,0.297434,0.0788996,0.00401602,-0.120409,-0.00299859,0.0800579,2.905e-05,0,0,0,0,0,0,0,-2.09912,-32.8481,-2.21282,28.1253,1.15509,2.97997,0.0907442,
0.174745,-0.0371967,0.255103,-2.23369,0.361315,0.517394,-0.056862,0.0687611,-0.00659931,0.070315,-0.0509664,-0.0141816,0.0370123,0.00351657,-0.556093,-0.403281,-0.555237,1.78148,-2.43906,-1.29811,-0.0203093,3.81398,-1.8542,3.94265,-2.66817,-0.690003,1.1748,0.0453886,0.175111,-0.0362092,0.256329,-2.23634,0.362855,0.520432,-0.0570118,0.297434,0.0788996,0.00401602,-0.120409,-0.00299859,0.0800579,2.905e-05,0,0,0,0,0,0,0,-2.09912,-32.8481,-2.21282,28.1253,1.15509,2.97997,0.0907442,
0.178971,-0.0352277,0.260247,-2.23896,0.362395,0.520184,-0.0568866,0.0655219,-0.00540365,0.0670607,-0.0473558,-0.00903467,0.0298781,0.00326662,-2.02449,0.747286,-2.03397,2.25659,3.21682,-4.45885,-0.156221,3.57522,-1.79721,3.69531,-2.33833,-0.243448,0.941207,0.0427754,0.175111,-0.0362092,0.256329,-2.23634,0.362855,0.520432,-0.0570118,0.297434,0.0788996,0.00401602,-0.120409,-0.00299859,0.0800579,2.905e-05,0,0,0,0,0,0,0,-2.09912,-32.8481,-2.21282,28.1253,1.15509,2.97997,0.0907442,
0.179339,-0.0352632,0.260627,-2.23918,0.362681,0.520168,-0.0568766,0.0616127,-0.00520933,0.0631496,-0.0432773,-7.21978e-05,0.0235049,0.00286313,-2.44328,0.121455,-2.44445,2.54909,5.60155,-3.98326,-0.25218,3.42077,-1.90802,3.55096,-2.00856,-0.1183,0.871521,0.031128,0.179239,-0.0356734,0.261572,-2.24069,0.362776,0.522752,-0.0570137,0.232073,0.0268273,0.00517657,-0.0913363,0.00179245,0.0363048,0.000858295,-8.17011,-6.50904,0.145069,3.63406,0.59888,-5.46913,0.103656,-2.15069,-34.0462,-2.46276,27.0026,1.01501,3.17223,0.0641939,
0.179672,-0.0353199,0.260971,-2.23934,0.362996,0.520136,-0.0568624,0.0576088,-0.00558531,0.0591181,-0.0388061,0.00782428,0.0180148,0.00264571,-2.5024,-0.23499,-2.51966,2.79448,4.9353,-3.4313,-0.135887,3.31731,-1.90276,3.4516,-1.69366,-0.51358,1.1063,0.0272157,0.179239,-0.0356734,0.261572,-2.24069,0.362776,0.522752,-0.0570137,0.232073,0.0268273,0.00517657,-0.0913363,0.00179245,0.0363048,0.000858295,0,0,0,0,0,0,0,-2.15069,-34.0462,-2.46276,27.0026,1.01501,3.17223,0.0641939,
0.182136,-0.0354417,0.264512,-2.24222,0.359349,0.524029,-0.0569173,0.0563249,-0.0054615,0.057832,-0.035564,-0.0104039,0.0225127,0.00252393,-0.802489,0.077379,-0.803787,2.0263,-11.3926,2.81118,-0.0761093,3.24975,-1.98583,3.37787,-1.42963,-1.78791,1.79674,0.0346929,0.179239,-0.0356734,0.261572,-2.24069,0.362776,0.522752,-0.0570137,0.232073,0.0268273,0.00517657,-0.0913363,0.00179245,0.0363048,0.000858295,0,0,0,0,0,0,0,-2.15069,-34.0462,-2.46276,27.0026,1.01501,3.17223,0.0641939,
0.182484,-0.0355038,0.264872,-2.24236,0.358943,0.524316,-0.0569093,0.053748,-0.00592144,0.0552757,-0.0319876,-0.0184705,0.0251775,0.00221767,-1.61056,-0.287462,-1.59774,2.23524,-5.04161,1.66549,-0.191413,3.10888,-1.95296,3.23411,-1.20547,-1.31083,1.5249,0.0324099,0.179239,-0.0356734,0.261572,-2.24069,0.362776,0.522752,-0.0570137,0.232073,0.0268273,0.00517657,-0.0913363,0.00179245,0.0363048,0.000858295,0,0,0,0,0,0,0,-2.15069,-34.0462,-2.46276,27.0026,1.01501,3.17223,0.0641939,
0.182784,-0.0355833,0.265186,-2.24247,0.35875,0.524581,-0.0569081,0.0505121,-0.00672434,0.0520639,-0.0283134,-0.0196081,0.0267733,0.00180505,-2.02242,-0.501813,-2.00736,2.29643,-0.711006,0.997392,-0.257891,2.99312,-2.06421,3.13785,-0.966292,-1.03341,1.31663,0.0212018,0.183475,-0.0363442,0.265526,-2.244,0.36274,0.52349,-0.0570192,0.215346,-0.0843141,0.00879824,-0.109307,-0.00822988,0.00800685,-0.00452677,-2.09094,-13.8927,0.452709,-2.24632,-1.25279,-3.53725,-0.673134,-2.88464,-30.0273,-2.7603,24.6103,0.91705,2.93328,0.104477,
0.183058,-0.0356727,0.26547,-2.24255,0.35857,0.524895,-0.0569055,0.0472364,-0.00761445,0.0487583,-0.024622,-0.0201909,0.0292726,0.00150816,-2.04731,-0.556319,-2.06601,2.30711,-0.364278,1.56205,-0.185558,2.89376,-2.0384,3.03825,-0.725257,-1.2248,1.24342,0.0215836,0.183475,-0.0363442,0.265526,-2.244,0.36274,0.52349,-0.0570192,0.215346,-0.0843141,0.00879824,-0.109307,-0.00822988,0.00800685,-0.00452677,0,0,0,0,0,0,0,-2.88464,-30.0273,-2.7603,24.6103,0.91705,2.93328,0.104477,
0.186655,-0.0373483,0.268731,-2.24487,0.348429,0.529748,-0.0569007,0.0493225,-0.00944732,0.0508371,-0.0216553,-0.0977101,0.0684233,0.00129944,1.30382,-1.14554,1.29928,1.85419,-48.4495,24.4692,-0.130449,3.05407,-2.2723,3.18743,-0.298938,-5.40477,3.69771,0.0313267,0.183475,-0.0363442,0.265526,-2.244,0.36274,0.52349,-0.0570192,0.215346,-0.0843141,0.00879824,-0.109307,-0.00822988,0.00800685,-0.00452677,0,0,0,0,0,0,0,-2.88464,-30.0273,-2.7603,24.6103,0.91705,2.93328,0.104477,
0.187046,-0.0374764,0.269135,-2.24492,0.345394,0.531578,-0.0569039,0.0492301,-0.0107588,0.0507619,-0.0185435,-0.154045,0.100478,0.000957298,-0.0577718,-0.81966,-0.0469986,1.94485,-35.2096,20.0345,-0.213837,2.88388,-2.15401,3.02035,-0.0866113,-4.80658,3.40244,0.024598,0.183475,-0.0363442,0.265526,-2.244,0.36274,0.52349,-0.0570192,0.215346,-0.0843141,0.00879824,-0.109307,-0.00822988,0.00800685,-0.00452677,0,0,0,0,0,0,0,-2.88464,-30.0273,-2.7603,24.6103,0.91705,2.93328,0.104477,
0.187381,-0.037602,0.269483,-2.24494,0.342596,0.533387,-0.0569106,0.0477539,-0.0117482,0.0493171,-0.0153429,-0.19318,0.125613,0.00060047,-0.922647,-0.61838,-0.903029,2.00038,-24.4594,15.709,-0.223018,2.74266,-2.18748,2.88814,0.090191,-4.55795,3.28805,0.0141105,0.187076,-0.0362816,0.269236,-2.24572,0.361572,0.5249,-0.0570185,0.155938,0.0505204,0.0332801,-0.01649,-0.0216557,0.0357601,0.000560241,-7.42592,16.8543,3.06023,11.6021,-1.67823,3.46915,0.635877,-2.68231,-31.277,-2.63732,26.5543,0.953671,3.09899,0.0641939,
0.187676,-0.0377254,0.26979,-2.24493,0.339927,0.535164,-0.0569153,0.0455822,-0.0124829,0.0471263,-0.0120202,-0.221291,0.144922,0.000362626,-1.3573,-0.459215,-1.36924,2.07669,-17.5692,12.068,-0.148652,2.6731,-2.13452,2.81186,0.290782,-4.79986,3.42067,0.00968841,0.187076,-0.0362816,0.269236,-2.24572,0.361572,0.5249,-0.0570185,0.155938,0.0505204,0.0332801,-0.01649,-0.0216557,0.0357601,0.000560241,0,0,0,0,0,0,0,-2.68231,-31.277,-2.63732,26.5543,0.953671,3.09899,0.0641939,
0.190875,-0.0352914,0.272945,-2.24625,0.326395,0.543516,-0.0566902,0.052074,-0.00670573,0.0531005,-0.0101903,-0.373818,0.224357,0.00100066,4.05741,3.61075,3.73388,1.14369,-95.3294,49.647,0.398773,3.70346,-0.935038,3.60779,1.43381,-13.1357,8.78964,0.0399522,0.187076,-0.0362816,0.269236,-2.24572,0.361572,0.5249,-0.0570185,0.155938,0.0505204,0.0332801,-0.01649,-0.0216557,0.0357601,0.000560241,0,0,0,0,0,0,0,-2.68231,-31.277,-2.63732,26.5543,0.953671,3.09899,0.0641939,
0.191436,-0.0351695,0.273499,-2.24623,0.319048,0.547716,-0.056674,0.0556958,-0.00231813,0.056314,-0.00757353,-0.482715,0.284498,0.00120615,2.26357,2.74225,2.00847,1.63549,-68.0605,37.5884,0.128428,4.28498,-0.647892,4.16076,1.50858,-12.0862,8.05495,0.0439079,0.187076,-0.0362816,0.269236,-2.24572,0.361572,0.5249,-0.0570185,0.155938,0.0505204,0.0332801,-0.01649,-0.0216557,0.0357601,0.000560241,0,0,0,0,0,0,0,-2.68231,-31.277,-2.63732,26.5543,0.953671,3.09899,0.0641939,
0.191951,-0.0350535,0.274005,-2.24616,0.312313,0.55172,-0.0566674,0.0574265,0.00104656,0.0577209,-0.00445881,-0.554542,0.327689,0.00112853,1.08172,2.10294,0.879282,1.9467,-44.8922,26.9943,-0.0485112,4.77026,-0.38145,4.63151,1.50691,-11.2515,7.33219,0.0431836,0.18985,-0.0361093,0.273277,-2.24678,0.349415,0.531882,-0.0570243,0.109333,-0.0118893,0.0765986,-0.0208698,-0.313873,0.268307,0.000352969,-5.82564,-7.8012,5.41481,-0.547475,-36.5271,29.0684,-0.0259089,-2.86084,-33.5463,-2.78807,26.4035,0.21484,3.59704,0.0843355,
0.19311,-0.0369049,0.275389,-2.24665,0.279167,0.575761,-0.0564179,0.0592221,-0.0026928,0.0597848,-7.59878e-05,-0.687339,0.40861,0.00159812,1.12225,-2.3371,1.28995,2.73926,-82.9979,50.5754,0.29349,5.16626,-0.111458,5.04267,1.60069,-10.7437,6.79203,0.0425348,0.18985,-0.0361093,0.273277,-2.24678,0.349415,0.531882,-0.0570243,0.109333,-0.0118893,0.0765986,-0.0208698,-0.313873,0.268307,0.000352969,0,0,0,0,0,0,0,-2.86084,-33.5463,-2.78807,26.4035,0.21484,3.59704,0.0843355,
0.19384,-0.0365651,0.277282,-2.24684,0.306628,0.557059,-0.0566269,0.0648041,-0.00502807,0.0655556,0.00197495,-0.782645,0.459951,0.00210043,3.48871,-1.45955,3.60675,1.28184,-59.5662,32.0882,0.313948,5.45221,-3.69606,5.56555,1.96553,-13.5447,10.3554,0.0720849,0.18985,-0.0361093,0.273277,-2.24678,0.349415,0.531882,-0.0570243,0.109333,-0.0118893,0.0765986,-0.0208698,-0.313873,0.268307,0.000352969,0,0,0,0,0,0,0,-2.86084,-33.5463,-2.78807,26.4035,0.21484,3.59704,0.0843355,
0.194481,-0.0366847,0.277936,-2.24672,0.297912,0.562103,-0.0566046,0.0678665,-0.00701273,0.0688105,0.00461679,-0.844014,0.494047,0.00223744,1.91404,-1.24041,2.03429,1.65115,-38.3559,21.3102,0.0856316,6.05442,-3.224,6.15324,2.0772,-13.5447,9.32171,0.0711213,0.18985,-0.0361093,0.273277,-2.24678,0.349415,0.531882,-0.0570243,0.109333,-0.0118893,0.0765986,-0.0208698,-0.313873,0.268307,0.000352969,0,0,0,0,0,0,0,-2.86084,-33.5463,-2.78807,26.4035,0.21484,3.59704,0.0843355,
0.195081,-0.0368113,0.27855,-2.24657,0.289798,0.566835,-0.056588,0.0692861,-0.0087749,0.0703995,0.0075022,-0.878073,0.513537,0.002205,0.88725,-1.10135,0.99316,1.80338,-21.2869,12.1809,-0.0202782,6.28768,-2.47092,6.39763,1.61725,-13.5489,8.13013,0.0648289,0.193509,-0.0361229,0.277769,-2.24764,0.310241,0.555061,-0.0570214,0.0599969,-0.00678136,0.219225,-0.00602436,-1.10415,0.831811,-0.00381071,-6.16703,0.638489,17.8284,1.85568,-98.7844,70.438,-0.52046,-0.222592,-29.9043,-0.387865,27.3279,0.0381434,4.3789,0.0907442,
0.197674,-0.0363253,0.28193,-2.2467,0.259657,0.585939,-0.0567908,0.0727648,-0.00833252,0.0736003,0.0125304,-0.95147,0.547464,0.00245218,2.17415,0.276484,2.00049,3.14263,-45.8727,21.2045,0.154492,6.50455,-1.10874,6.48252,2.17475,-13.6259,9.52925,0.0694614,0.193509,-0.0361229,0.277769,-2.24764,0.310241,0.555061,-0.0570214,0.0599969,-0.00678136,0.219225,-0.00602436,-1.10415,0.831811,-0.00381071,0,0,0,0,0,0,0,-0.222592,-29.9043,-0.387865,27.3279,0.0381434,4.3789,0.0907442,
0.198315,-0.0363792,0.282569,-2.24642,0.250339,0.590936,-0.0567684,0.0742275,-0.00801223,0.0748527,0.0169154,-0.99412,0.5629,0.00252166,0.914224,0.20018,0.782727,2.7406,-26.6561,9.64773,0.0434233,6.99036,-0.632246,6.93956,2.26955,-13.6259,8.43153,0.0673388,0.193509,-0.0361229,0.277769,-2.24764,0.310241,0.555061,-0.0570214,0.0599969,-0.00678136,0.219225,-0.00602436,-1.10415,0.831811,-0.00381071,0,0,0,0,0,0,0,-0.222592,-29.9043,-0.387865,27.3279,0.0381434,4.3789,0.0907442,
0.198918,-0.0364371,0.28317,-2.24615,0.241634,0.595503,-0.0567497,0.0744535,-0.00785751,0.0748995,0.0204975,-1.01292,0.564498,0.00248683,0.141251,0.0967009,0.0292947,2.2388,-11.751,0.998437,-0.0217706,7.30942,-0.411995,7.24951,2.27358,-13.6259,7.53856,0.0597579,0.193509,-0.0361229,0.277769,-2.24764,0.310241,0.555061,-0.0570214,0.0599969,-0.00678136,0.219225,-0.00602436,-1.10415,0.831811,-0.00381071,0,0,0,0,0,0,0,-0.222592,-29.9043,-0.387865,27.3279,0.0381434,4.3789,0.0907442,
0.199498,-0.0364911,0.283748,-2.24586,0.233351,0.599689,-0.0567359,0.0740633,-0.00763586,0.0743812,0.0235872,-1.01743,0.556243,0.00233282,-0.243879,0.138531,-0.323953,1.93109,-2.81739,-5.15914,-0.0962565,7.18485,0.200617,7.13751,1.89999,-13.2821,6.58581,0.0516754,0.19806,-0.0353669,0.283269,-2.24775,0.260708,0.58956,-0.0570211,0.0233042,0.0449742,0.294671,0.008401,-1.46269,1.10773,-0.000136667,-4.58659,6.46945,9.43065,1.80317,-44.8179,34.4901,0.459256,1.09455,-33.7724,0.361952,25.3601,-0.255741,4.29284,0.0907442,
0.201943,-0.0351779,0.287179,-2.24625,0.215832,0.616079,-0.0569988,0.074843,-0.00734193,0.0750413,0.0268891,-1.00567,0.543786,0.00191403,0.487285,0.183707,0.412541,2.06371,7.35139,-7.78572,-0.26174,7.37452,0.424485,7.32077,1.90757,-12.0602,5.75285,0.0553702,0.19806,-0.0353669,0.283269,-2.24775,0.260708,0.58956,-0.0570211,0.0233042,0.0449742,0.294671,0.008401,-1.46269,1.10773,-0.000136667,0,0,0,0,0,0,0,1.09455,-33.7724,0.361952,25.3601,-0.255741,4.29284,0.0907442,
0.202531,-0.0352354,0.287765,-2.24593,0.208764,0.619551,-0.0569997,0.0745877,-0.00731096,0.0746806,0.0294783,-0.981235,0.521825,0.00150793,-0.159537,0.0193553,-0.225403,1.6182,15.2697,-13.7257,-0.253816,7.37322,0.629005,7.31833,1.92793,-10.991,5.01007,0.0538354,0.19806,-0.0353669,0.283269,-2.24775,0.260708,0.58956,-0.0570211,0.0233042,0.0449742,0.294671,0.008401,-1.46269,1.10773,-0.000136667,0,0,0,0,0,0,0,1.09455,-33.7724,0.361952,25.3601,-0.255741,4.29284,0.0907442,
0.203095,-0.0352954,0.288326,-2.24562,0.202278,0.622588,-0.0570027,0.0737597,-0.00734867,0.0737624,0.0314523,-0.947141,0.493402,0.00113067,-0.517505,-0.023567,-0.573894,1.23377,21.309,-17.7641,-0.235786,7.30963,0.603538,7.25421,1.83159,-10.2901,4.50123,0.0475228,0.19806,-0.0353669,0.283269,-2.24775,0.260708,0.58956,-0.0570211,0.0233042,0.0449742,0.294671,0.008401,-1.46269,1.10773,-0.000136667,0,0,0,0,0,0,0,1.09455,-33.7724,0.361952,25.3601,-0.255741,4.29284,0.0907442,
0.201631,-0.0352678,0.286878,-2.24603,0.224417,0.611007,-0.0571509,0.0732612,-0.00760281,0.0732013,0.0339012,-0.896865,0.462987,0.000595115,-0.311591,-0.158835,-0.350668,1.53054,31.4224,-19.0095,-0.334721,7.23452,0.749926,7.1866,1.94476,-8.98897,3.39432,0.0271318,0.205483,-0.0350846,0.286946,-2.2472,0.206433,0.623258,-0.0570224,0.055667,-0.0018781,0.270679,0.0298638,-1.35634,0.916536,0.00111147,4.04535,-5.85654,-2.99896,2.68285,13.2943,-23.8996,0.156017,0.285221,-30.3288,0.488905,24.9594,0.208431,3.13286,0.0980684,
0.202176,-0.0353417,0.28742,-2.24569,0.219387,0.613294,-0.0571631,0.0722279,-0.0079299,0.0721055,0.0355076,-0.843219,0.427557,0.000170965,-0.645805,-0.20443,-0.684881,1.00402,33.5287,-22.144,-0.265094,7.2096,0.801087,7.15992,1.92321,-8.23121,2.88287,0.0226911,0.205483,-0.0350846,0.286946,-2.2472,0.206433,0.623258,-0.0570224,0.055667,-0.0018781,0.270679,0.0298638,-1.35634,0.916536,0.00111147,0,0,0,0,0,0,0,0.285221,-30.3288,0.488905,24.9594,0.208431,3.13286,0.0980684,
0.202703,-0.0354147,0.287944,-2.24537,0.21483,0.61521,-0.0571761,0.0709702,-0.00816792,0.0707917,0.0364281,-0.788522,0.389952,-0.000189048,-0.786071,-0.148765,-0.821159,0.575318,34.1856,-23.5031,-0.225008,7.15112,0.832178,7.10144,1.90105,-7.53898,2.42928,0.0186413,0.205483,-0.0350846,0.286946,-2.2472,0.206433,0.623258,-0.0570224,0.055667,-0.0018781,0.270679,0.0298638,-1.35634,0.916536,0.00111147,0,0,0,0,0,0,0,0.285221,-30.3288,0.488905,24.9594,0.208431,3.13286,0.0980684,
0.203219,-0.0354839,0.288456,-2.24506,0.210693,0.616811,-0.0571905,0.0696541,-0.00826387,0.0694278,0.036806,-0.734228,0.35198,-0.000510462,-0.822526,-0.0599677,-0.852383,0.236192,33.934,-23.7324,-0.200884,7.06293,0.84742,7.01399,1.87894,-6.90145,2.0238,0.0145823,0.205483,-0.0350846,0.286946,-2.2472,0.206433,0.623258,-0.0570224,0.055667,-0.0018781,0.270679,0.0298638,-1.35634,0.916536,0.00111147,0,0,0,0,0,0,0,0.285221,-30.3288,0.488905,24.9594,0.208431,3.13286,0.0980684,
0.20909,-0.0357729,0.29058,-2.24508,0.179533,0.638801,-0.0572495,0.0700237,-0.0102414,0.0697572,0.0391857,-0.681215,0.324768,-0.000966505,0.230972,-1.23594,0.205835,1.4873,33.1331,-17.0071,-0.285027,6.95189,0.851303,6.90388,1.85702,-6.31509,1.66193,0.0105322,0.205483,-0.0350846,0.286946,-2.2472,0.206433,0.623258,-0.0570224,0.055667,-0.0018781,0.270679,0.0298638,-1.35634,0.916536,0.00111147,0,0,0,0,0,0,0,0.285221,-30.3288,0.488905,24.9594,0.208431,3.13286,0.0980684,
0.209634,-0.0359038,0.29112,-2.24472,0.176182,0.640164,-0.0572703,0.0696272,-0.0114644,0.0693215,0.0403698,-0.628747,0.293894,-0.00129388,-0.247797,-0.764422,-0.272303,0.740063,32.7923,-19.2964,-0.204609,7.0459,0.657741,6.98709,2.07533,-5.56008,1.29451,0.00566986,0.21085,-0.0344803,0.291637,-2.24554,0.164739,0.64821,-0.0570287,0.170498,0.033442,0.113549,0.0687937,-1.02923,0.59903,0.000690155,14.3539,4.41502,-19.6412,4.86623,40.8879,-39.6883,-0.0526639,0.793033,-31.0033,0.786451,24.2889,2.05322,1.37505,0.0706026,
0.210159,-0.0360194,0.291641,-2.24438,0.173165,0.641234,-0.057291,0.0688171,-0.0120618,0.0684788,0.0406523,-0.578424,0.261869,-0.00155115,-0.506301,-0.37338,-0.526708,0.176569,31.4518,-20.0155,-0.160796,6.91056,0.644643,6.85258,2.05369,-5.06737,1.01099,0.00180339,0.21085,-0.0344803,0.291637,-2.24554,0.164739,0.64821,-0.0570287,0.170498,0.033442,0.113549,0.0687937,-1.02923,0.59903,0.000690155,0,0,0,0,0,0,0,0.793033,-31.0033,0.786451,24.2889,2.05322,1.37505,0.0706026,
0.210669,-0.0361204,0.292147,-2.24407,0.170436,0.642064,-0.057312,0.0677971,-0.0121755,0.0674338,0.0402814,-0.530955,0.230232,-0.00176835,-0.637538,-0.0710287,-0.653079,-0.231796,29.6681,-19.7732,-0.13575,6.77065,0.625561,6.71336,2.03216,-4.61727,0.762949,-0.00190126,0.21085,-0.0344803,0.291637,-2.24554,0.164739,0.64821,-0.0570287,0.170498,0.033442,0.113549,0.0687937,-1.02923,0.59903,0.000690155,0,0,0,0,0,0,0,0.793033,-31.0033,0.786451,24.2889,2.05322,1.37505,0.0706026,
0.214196,-0.0348245,0.294974,-2.24361,0.146416,0.65761,-0.0572713,0.0679033,-0.0124028,0.0675027,0.0405606,-0.486708,0.205718,-0.00207451,0.0664227,-0.142072,0.0430245,0.174509,27.6547,-15.3216,-0.191351,6.62912,0.602063,6.57235,2.01084,-4.20796,0.546089,-0.0053267,0.21085,-0.0344803,0.291637,-2.24554,0.164739,0.64821,-0.0570287,0.170498,0.033442,0.113549,0.0687937,-1.02923,0.59903,0.000690155,0,0,0,0,0,0,0,0.793033,-31.0033,0.786451,24.2889,2.05322,1.37505,0.0706026,
0.214718,-0.0349225,0.295492,-2.2433,0.144207,0.658217,-0.0572963,0.0673814,-0.0123726,0.066946,0.0401615,-0.444589,0.179759,-0.00228345,-0.32622,0.0188897,-0.347929,-0.249475,26.3245,-16.2243,-0.130585,6.63298,0.473935,6.57662,2.09157,-3.70835,0.327776,-0.0087935,0.214905,-0.0345824,0.296267,-2.2434,0.134722,0.663997,-0.0570417,0.156509,-0.0202591,0.0698701,0.0632185,-0.727399,0.393206,0.00020622,-1.74861,-6.71265,-5.4599,-0.696892,37.7294,-25.728,-0.0604918,1.85627,-29.3529,1.86159,23.6383,2.0285,1.53435,0.0577852,
0.215222,-0.0350099,0.295991,-2.24301,0.142218,0.658627,-0.0573208,0.06651,-0.0120831,0.0660464,0.0392794,-0.405388,0.154066,-0.00244078,-0.54461,0.180948,-0.562241,-0.551329,24.5003,-16.0578,-0.0983323,6.49404,0.445406,6.43791,2.07085,-3.37123,0.166115,-0.011687,0.214905,-0.0345824,0.296267,-2.2434,0.134722,0.663997,-0.0570417,0.156509,-0.0202591,0.0698701,0.0632185,-0.727399,0.393206,0.00020622,0,0,0,0,0,0,0,1.85627,-29.3529,1.86159,23.6383,2.0285,1.53435,0.0577852,
0.217868,-0.0354949,0.299208,-2.24143,0.12235,0.669725,-0.0572667,0.0658653,-0.0132432,0.0653791,0.0396354,-0.365263,0.134149,-0.00266053,-0.402962,-0.725097,-0.41705,0.222545,25.0784,-12.4481,-0.137344,6.22508,0.386579,6.16907,2.03065,-2.78974,-0.0884804,-0.0166872,0.214905,-0.0345824,0.296267,-2.2434,0.134722,0.663997,-0.0570417,0.156509,-0.0202591,0.0698701,0.0632185,-0.727399,0.393206,0.00020622,0,0,0,0,0,0,0,1.85627,-29.3529,1.86159,23.6383,2.0285,1.53435,0.0577852,
0.218355,-0.0356167,0.299691,-2.24113,0.120891,0.669977,-0.0572938,0.0648792,-0.0136407,0.0643767,0.0391955,-0.328697,0.113632,-0.00280506,-0.61632,-0.24842,-0.626542,-0.274943,22.8535,-12.8233,-0.0903321,6.09569,0.357836,6.03959,2.0113,-2.54022,-0.186323,-0.0188159,0.214905,-0.0345824,0.296267,-2.2434,0.134722,0.663997,-0.0570417,0.156509,-0.0202591,0.0698701,0.0632185,-0.727399,0.393206,0.00020622,0,0,0,0,0,0,0,1.85627,-29.3529,1.86159,23.6383,2.0285,1.53435,0.0577852,
0.218828,-0.0357197,0.300159,-2.24085,0.119575,0.670087,-0.0573204,0.0637202,-0.0134873,0.0632082,0.0382142,-0.295838,0.0936579,-0.00290872,-0.724337,0.0958525,-0.730258,-0.613344,20.5367,-12.4837,-0.0647868,6.05937,0.271002,6.00504,2.03436,-2.2358,-0.293193,-0.0207568,0.218245,-0.0348095,0.299789,-2.2408,0.114045,0.672872,-0.0570619,0.118299,0.00682122,0.0770534,0.0735078,-0.490695,0.187419,0.000689808,-4.77626,3.38505,0.897912,1.28615,29.588,-25.7233,0.0604484,4.26441,-28.9324,4.31337,23.8882,1.6806,2.01226,0.0376436,
0.219288,-0.0358064,0.300615,-2.2406,0.118383,0.670086,-0.0573468,0.062486,-0.012957,0.0619704,0.0368902,-0.266487,0.0748809,-0.00298904,-0.771414,0.331476,-0.773624,-0.827495,18.3446,-11.7357,-0.0502014,5.93683,0.24507,5.88228,2.01613,-2.03272,-0.360014,-0.0224328,0.218245,-0.0348095,0.299789,-2.2408,0.114045,0.672872,-0.0570619,0.118299,0.00682122,0.0770534,0.0735078,-0.490695,0.187419,0.000689808,0,0,0,0,0,0,0,4.26441,-28.9324,4.31337,23.8882,1.6806,2.01226,0.0376436,
0.220971,-0.0352872,0.302496,-2.23923,0.105975,0.675158,-0.0572676,0.0619068,-0.0125648,0.0613828,0.035961,-0.240207,0.0604808,-0.00310768,-0.361979,0.245081,-0.367248,-0.580728,16.4248,-9.00005,-0.0741439,5.81751,0.220997,5.76267,1.9985,-1.84989,-0.414642,-0.0238922,0.218245,-0.0348095,0.299789,-2.2408,0.114045,0.672872,-0.0570619,0.118299,0.00682122,0.0770534,0.0735078,-0.490695,0.187419,0.000689808,0,0,0,0,0,0,0,4.26441,-28.9324,4.31337,23.8882,1.6806,2.01226,0.0376436,
0.221431,-0.0353631,0.302951,-2.23899,0.105006,0.675073,-0.0572954,0.0610197,-0.0119498,0.0604897,0.0347384,-0.216392,0.0462685,-0.00317949,-0.55445,0.384386,-0.558186,-0.764157,14.8845,-8.88271,-0.0448829,5.70125,0.199027,5.64608,1.98137,-1.6851,-0.457711,-0.0251871,0.218245,-0.0348095,0.299789,-2.2408,0.114045,0.672872,-0.0570619,0.118299,0.00682122,0.0770534,0.0735078,-0.490695,0.187419,0.000689808,0,0,0,0,0,0,0,4.26441,-28.9324,4.31337,23.8882,1.6806,2.01226,0.0376436,
0.221877,-0.0354278,0.303393,-2.23877,0.104128,0.674908,-0.0573227,0.0599632,-0.0111756,0.0594306,0.0333474,-0.195075,0.0328851,-0.00322635,-0.660281,0.483871,-0.66197,-0.869341,13.3234,-8.36458,-0.0292884,5.63757,0.123956,5.58805,1.9956,-1.49297,-0.493858,-0.026323,0.220789,-0.0351893,0.304084,-2.23876,0.101261,0.675559,-0.0570946,0.0342133,-0.00761079,0.176758,0.0549987,-0.251798,0.00666354,-0.00115655,-10.5108,-1.804,12.4631,-2.31364,29.8622,-22.5945,-0.230794,2.66956,-29.579,2.23848,25.0348,0.361325,3.11913,0.017502,
0.223746,-0.0356226,0.307037,-2.23758,0.096737,0.674837,-0.0572766,0.0604262,-0.0105092,0.0599024,0.0316938,-0.172585,0.0193117,-0.00330725,0.289346,0.416497,0.294868,-1.0335,14.056,-8.48339,-0.050561,5.41835,0.0910422,5.36802,1.96385,-1.23997,-0.537832,-0.0281321,0.220789,-0.0351893,0.304084,-2.23876,0.101261,0.675559,-0.0570946,0.0342133,-0.00761079,0.176758,0.0549987,-0.251798,0.00666354,-0.00115655,0,0,0,0,0,0,0,2.66956,-29.579,2.23848,25.0348,0.361325,3.11913,0.017502,
0.224216,-0.0356749,0.307504,-2.23739,0.0961281,0.674522,-0.0573049,0.0601127,-0.00971559,0.0595973,0.0301076,-0.153291,0.00758368,-0.00335318,-0.195935,0.496026,-0.190655,-0.991358,12.0591,-7.33001,-0.0287084,5.31217,0.0778993,5.26139,1.9486,-1.13238,-0.550082,-0.0288565,0.220789,-0.0351893,0.304084,-2.23876,0.101261,0.675559,-0.0570946,0.0342133,-0.00761079,0.176758,0.0549987,-0.251798,0.00666354,-0.00115655,0,0,0,0,0,0,0,2.66956,-29.579,2.23848,25.0348,0.361325,3.11913,0.017502,
0.224665,-0.0357185,0.307948,-2.23721,0.0955632,0.674183,-0.0573327,0.0593049,-0.00886327,0.058798,0.0286128,-0.136755,-0.00242587,-0.00337826,-0.504845,0.532703,-0.499596,-0.934278,10.3349,-6.25597,-0.015673,5.208,0.0668337,5.15676,1.93377,-1.03602,-0.557771,-0.0294543,0.220789,-0.0351893,0.304084,-2.23876,0.101261,0.675559,-0.0570946,0.0342133,-0.00761079,0.176758,0.0549987,-0.251798,0.00666354,-0.00115655,0,0,0,0,0,0,0,2.66956,-29.579,2.23848,25.0348,0.361325,3.11913,0.017502,
0.225095,-0.0357549,0.308375,-2.23704,0.0950374,0.673825,-0.0573602,0.0581954,-0.00800147,0.0576967,0.0272237,-0.122549,-0.0108743,-0.00339075,-0.693455,0.538622,-0.688305,-0.868198,8.87835,-5.28027,-0.0078076,5.10881,0.0209124,5.06128,1.93031,-0.936116,-0.557167,-0.029927,0.224206,-0.0352255,0.308594,-2.23757,0.0945978,0.675509,-0.0571273,0.0589843,0.00925063,0.18052,0.0331978,-0.130645,-0.0086018,0.00132091,3.09638,2.10768,0.470236,-2.72511,15.1441,-1.90817,0.309682,1.57856,-30.4042,0.663466,25.9076,-0.127567,3.13286,0.0101778,
0.227394,-0.0353364,0.31178,-2.2367,0.0922141,0.673908,-0.0573042,0.0593594,-0.00715449,0.0588688,0.0257929,-0.107705,-0.0187184,-0.00344824,0.727499,0.529362,0.732552,-0.894226,9.27755,-4.90258,-0.0359338,5.00817,0.0137729,4.96014,1.91613,-0.858837,-0.557183,-0.0303352,0.224206,-0.0352255,0.308594,-2.23757,0.0945978,0.675509,-0.0571273,0.0589843,0.00925063,0.18052,0.0331978,-0.130645,-0.0086018,0.00132091,0,0,0,0,0,0,0,1.57856,-30.4042,0.663466,25.9076,-0.127567,3.13286,0.0101778,
0.22787,-0.0353637,0.312251,-2.23655,0.0918405,0.6735,-0.0573328,0.0593681,-0.00640598,0.0588833,0.0245493,-0.0955034,-0.0251666,-0.0034723,0.00545233,0.467819,0.00905915,-0.77725,7.62623,-4.0301,-0.0150367,4.90907,0.00846327,4.86054,1.90218,-0.789565,-0.553904,-0.0306858,0.224206,-0.0352255,0.308594,-2.23757,0.0945978,0.675509,-0.0571273,0.0589843,0.00925063,0.18052,0.0331978,-0.130645,-0.0086018,0.00132091,0,0,0,0,0,0,0,1.57856,-30.4042,0.663466,25.9076,-0.127567,3.13286,0.0101778,
0.228315,-0.0353879,0.312693,-2.23639,0.0914792,0.673092,-0.0573607,0.0586344,-0.00572869,0.0581541,0.0234655,-0.0854359,-0.0303479,-0.00347602,-0.458547,0.423308,-0.455704,-0.677412,6.29218,-3.23828,-0.00232156,4.81135,0.00478544,4.7623,1.8885,-0.727894,-0.548827,-0.0309455,0.224206,-0.0352255,0.308594,-2.23757,0.0945978,0.675509,-0.0571273,0.0589843,0.00925063,0.18052,0.0331978,-0.130645,-0.0086018,0.00132091,0,0,0,0,0,0,0,1.57856,-30.4042,0.663466,25.9076,-0.127567,3.13286,0.0101778,
0.228737,-0.035409,0.313111,-2.23624,0.0911303,0.672686,-0.0573882,0.057443,-0.00511116,0.0569665,0.0225189,-0.0770698,-0.034422,-0.00346771,-0.74463,0.385959,-0.742279,-0.591601,5.22883,-2.54634,0.00519226,4.71958,-0.0328853,4.67176,1.88209,-0.665733,-0.536256,-0.0311674,0.228413,-0.0350245,0.312833,-2.23672,0.0915825,0.674602,-0.0571641,0.162009,0.00984813,0.0835119,0.0201216,-0.0651859,-0.0321037,4.46731e-05,12.878,0.0746875,-12.126,-1.63453,8.18237,-2.93774,-0.15953,-0.171017,-31.4278,-1.08611,25.8798,-0.328983,2.89391,0.0376436,
0.231621,-0.0350582,0.316018,-2.23603,0.0904241,0.672489,-0.057336,0.0585066,-0.00454388,0.0580337,0.0214938,-0.0673413,-0.038634,-0.0035024,0.66474,0.354548,0.666995,-0.640708,6.08028,-2.63248,-0.0216806,4.62428,-0.0336116,4.57593,1.86882,-0.616864,-0.528012,-0.0313009,0.228413,-0.0350245,0.312833,-2.23672,0.0915825,0.674602,-0.0571641,0.162009,0.00984813,0.0835119,0.0201216,-0.0651859,-0.0321037,4.46731e-05,0,0,0,0,0,0,0,-0.171017,-31.4278,-1.08611,25.8798,-0.328983,2.89391,0.0376436,
0.232083,-0.0350756,0.316476,-2.23589,0.0901872,0.672055,-0.0573642,0.0583377,-0.00407089,0.0578664,0.0206594,-0.0597964,-0.0417328,-0.00350697,-0.105585,0.29562,-0.104565,-0.521507,4.71557,-1.93675,-0.00285773,4.53005,-0.0330121,4.48115,1.85566,-0.573305,-0.518267,-0.0314029,0.228413,-0.0350245,0.312833,-2.23672,0.0915825,0.674602,-0.0571641,0.162009,0.00984813,0.0835119,0.0201216,-0.0651859,-0.0321037,4.46731e-05,0,0,0,0,0,0,0,-0.171017,-31.4278,-1.08611,25.8798,-0.328983,2.89391,0.0376436,
0.232511,-0.0350917,0.316901,-2.23575,0.0899436,0.671635,-0.0573917,0.057386,-0.00365844,0.0569153,0.0199732,-0.0539262,-0.0438907,-0.00349311,-0.594828,0.257777,-0.594425,-0.428843,3.66887,-1.34874,0.00866439,4.43675,-0.0312826,4.38731,1.8427,-0.534965,-0.508278,-0.0314366,0.228413,-0.0350245,0.312833,-2.23672,0.0915825,0.674602,-0.0571641,0.162009,0.00984813,0.0835119,0.0201216,-0.0651859,-0.0321037,4.46731e-05,0,0,0,0,0,0,0,-0.171017,-31.4278,-1.08611,25.8798,-0.328983,2.89391,0.0376436,
0.231535,-0.0350592,0.315931,-2.23606,0.0908552,0.672601,-0.057339,0.0579009,-0.00334996,0.0574274,0.0193411,-0.0468185,-0.045508,-0.00351073,0.321844,0.192805,0.320041,-0.395089,4.44235,-1.0108,-0.0110158,4.25271,-0.0247441,4.20214,1.81708,-0.471319,-0.486604,-0.0314002,0.228413,-0.0350245,0.312833,-2.23672,0.0915825,0.674602,-0.0571641,0.162009,0.00984813,0.0835119,0.0201216,-0.0651859,-0.0321037,4.46731e-05,0,0,0,0,0,0,0,-0.171017,-31.4278,-1.08611,25.8798,-0.328983,2.89391,0.0376436,
0.231973,-0.035075,0.316365,-2.23592,0.0906884,0.672198,-0.0573666,0.0572641,-0.00307481,0.0567868,0.0188306,-0.041624,-0.0464963,-0.00349788,-0.398013,0.171965,-0.400391,-0.319028,3.24652,-0.61768,0.00803266,4.1618,-0.0201565,4.11066,1.80439,-0.445241,-0.475276,-0.03134,0.228413,-0.0350245,0.312833,-2.23672,0.0915825,0.674602,-0.0571641,0.162009,0.00984813,0.0835119,0.0201216,-0.0651859,-0.0321037,4.46731e-05,0,0,0,0,0,0,0,-0.171017,-31.4278,-1.08611,25.8798,-0.328983,2.89391,0.0376436,
0.232377,-0.0350892,0.316765,-2.23579,0.090505,0.671808,-0.0573933,0.0559169,-0.00281414,0.0554357,0.0184106,-0.0378855,-0.0469444,-0.00346735,-0.842026,0.162919,-0.844434,-0.262508,2.33659,-0.28003,0.0190817,4.07154,-0.0148753,4.01982,1.79184,-0.42287,-0.464468,-0.031224,0.228413,-0.0350245,0.312833,-2.23672,0.0915825,0.674602,-0.0571641,0.162009,0.00984813,0.0835119,0.0201216,-0.0651859,-0.0321037,4.46731e-05,0,0,0,0,0,0,0,-0.171017,-31.4278,-1.08611,25.8798,-0.328983,2.89391,0.0376436,
0.232754,-0.0351017,0.317138,-2.23565,0.0903083,0.671432,-0.0574195,0.0541601,-0.00256257,0.0536753,0.0180585,-0.0352261,-0.046955,-0.00342749,-1.09796,0.157235,-1.10022,-0.220076,1.66212,-0.00661933,0.0249135,3.98188,-0.00891681,3.92958,1.77932,-0.403437,-0.453288,-0.031102,0.228413,-0.0350245,0.312833,-2.23672,0.0915825,0.674602,-0.0571641,0.162009,0.00984813,0.0835119,0.0201216,-0.0651859,-0.0321037,4.46731e-05,0,0,0,0,0,0,0,-0.171017,-31.4278,-1.08611,25.8798,-0.328983,2.89391,0.0376436,
0.231455,-0.0350569,0.31585,-2.23608,0.0911131,0.672713,-0.0573391,0.0547839,-0.00242946,0.0542936,0.0177015,-0.0307529,-0.0472892,-0.00343941,0.38987,0.0831901,0.386455,-0.223096,2.79574,-0.20889,-0.00745207,3.89274,-0.00244485,3.83986,1.76692,-0.387191,-0.442809,-0.0309282,0.228413,-0.0350245,0.312833,-2.23672,0.0915825,0.674602,-0.0571641,0.162009,0.00984813,0.0835119,0.0201216,-0.0651859,-0.0321037,4.46731e-05,0,0,0,0,0,0,0,-0.171017,-31.4278,-1.08611,25.8798,-0.328983,2.89391,0.0376436,
0.231869,-0.0350707,0.316261,-2.23595,0.0909824,0.672337,-0.0573658,0.0542011,-0.00228738,0.0537048,0.0174189,-0.0278688,-0.0472327,-0.00341911,-0.364249,0.0887988,-0.368042,-0.176656,1.80258,0.0353171,0.0126865,3.80647,-0.0368748,3.75573,1.7547,-0.371882,-0.428323,-0.0307654,0.232944,-0.0349272,0.316765,-2.23611,0.0904351,0.673309,-0.0571898,0.212817,-0.00104029,0.0174176,0.0149526,-0.0281145,-0.0400537,9.78879e-06,6.35112,-1.36105,-8.26179,-0.646121,4.63393,-0.993745,-0.00436054,-1.84521,-30.2297,-2.48656,26.3797,-0.0167883,2.97997,0.0577852,
0.23225,-0.0350826,0.316637,-2.23582,0.0908271,0.671975,-0.0573916,0.0528725,-0.0021282,0.0523704,0.0171865,-0.0261769,-0.0468366,-0.00338043,-0.830379,0.0994894,-0.834007,-0.145217,1.05741,0.247554,0.0241785,3.71828,-0.0295307,3.66694,1.74242,-0.360884,-0.418377,-0.0305412,0.232944,-0.0349272,0.316765,-2.23611,0.0904351,0.673309,-0.0571898,0.212817,-0.00104029,0.0174176,0.0149526,-0.0281145,-0.0400537,9.78879e-06,0,0,0,0,0,0,0,-1.84521,-30.2297,-2.48656,26.3797,-0.0167883,2.97997,0.0577852,
0.23581,-0.0350658,0.319594,-2.23547,0.0902736,0.671437,-0.0573507,0.0529966,-0.00225774,0.0524918,0.0169961,-0.0231524,-0.046428,-0.00336783,0.07756,-0.080959,0.0759163,-0.119049,1.89034,0.255374,0.00787191,3.54311,-0.0138663,3.49057,1.71799,-0.345534,-0.398866,-0.030056,0.232944,-0.0349272,0.316765,-2.23611,0.0904351,0.673309,-0.0571898,0.212817,-0.00104029,0.0174176,0.0149526,-0.0281145,-0.0400537,9.78879e-06,0,0,0,0,0,0,0,-1.84521,-30.2297,-2.48656,26.3797,-0.0167883,2.97997,0.0577852,
0.236196,-0.0350845,0.319976,-2.23534,0.0901495,0.671094,-0.0573761,0.0520392,-0.00227233,0.0515316,0.0168311,-0.0216238,-0.0457146,-0.00332977,-0.598375,-0.00912436,-0.600161,-0.103073,0.955357,0.445872,0.023792,3.45608,-0.00565806,3.40293,1.70584,-0.340892,-0.38929,-0.0297981,0.232944,-0.0349272,0.316765,-2.23611,0.0904351,0.673309,-0.0571898,0.212817,-0.00104029,0.0174176,0.0149526,-0.0281145,-0.0400537,9.78879e-06,0,0,0,0,0,0,0,-1.84521,-30.2297,-2.48656,26.3797,-0.0167883,2.97997,0.0577852,
0.236548,-0.0350999,0.320324,-2.23521,0.0899945,0.670766,-0.0574006,0.0504283,-0.00220435,0.0499179,0.0166813,-0.0211745,-0.0447777,-0.00327711,-1.00682,0.0424915,-1.00851,-0.0936353,0.280823,0.585577,0.0329107,3.36766,-0.0326553,3.31629,1.69158,-0.338736,-0.378565,-0.0295031,0.23724,-0.034837,0.32031,-2.23557,0.0899505,0.67223,-0.0572084,0.229973,0.00511515,-0.00938869,0.00874309,-0.025234,-0.0198927,0.00159133,2.14444,0.769429,-3.35078,-0.776194,0.360067,2.52012,0.197693,-1.86902,-30.6542,-2.41118,26.4789,0.422665,2.80785,0.0101778,
0.236873,-0.0351126,0.320644,-2.23509,0.0898132,0.670451,-0.0574245,0.0484547,-0.00208088,0.0479419,0.0165402,-0.0214713,-0.0436887,-0.00321739,-1.23346,0.0771687,-1.23503,-0.0882214,-0.185468,0.680605,0.0373241,3.28128,-0.0241407,3.22929,1.67954,-0.337881,-0.369516,-0.029205,0.23724,-0.034837,0.32031,-2.23557,0.0899505,0.67223,-0.0572084,0.229973,0.00511515,-0.00938869,0.00874309,-0.025234,-0.0198927,0.00159133,0,0,0,0,0,0,0,-1.86902,-30.6542,-2.41118,26.4789,0.422665,2.80785,0.0101778,
0.23994,-0.0348766,0.32297,-2.235,0.0897651,0.670561,-0.0573619,0.0486926,-0.00200242,0.0481784,0.0162692,-0.0197467,-0.0433814,-0.0032031,0.148649,0.049035,0.147817,-0.169335,1.07784,0.192035,0.00892906,3.1952,-0.0155646,3.1426,1.66759,-0.339067,-0.361224,-0.0288603,0.23724,-0.034837,0.32031,-2.23557,0.0899505,0.67223,-0.0572084,0.229973,0.00511515,-0.00938869,0.00874309,-0.025234,-0.0198927,0.00159133,0,0,0,0,0,0,0,-1.86902,-30.6542,-2.41118,26.4789,0.422665,2.80785,0.0101778,
0.240296,-0.0348888,0.323322,-2.23488,0.089623,0.670238,-0.0573859,0.0478495,-0.0019075,0.0473328,0.0160657,-0.0193505,-0.0427785,-0.00316301,-0.526904,0.0593268,-0.528527,-0.127193,0.247638,0.376811,0.025055,3.10945,-0.00687297,3.05622,1.65564,-0.341569,-0.352636,-0.0285297,0.23724,-0.034837,0.32031,-2.23557,0.0899505,0.67223,-0.0572084,0.229973,0.00511515,-0.00938869,0.00874309,-0.025234,-0.0198927,0.00159133,0,0,0,0,0,0,0,-1.86902,-30.6542,-2.41118,26.4789,0.422665,2.80785,0.0101778,
0.240619,-0.0348994,0.32364,-2.23475,0.0894466,0.669929,-0.057409,0.046349,-0.00179075,0.0458292,0.0159056,-0.01989,-0.0419374,-0.00310806,-0.937807,0.0729687,-0.939714,-0.100105,-0.337174,0.525685,0.0343496,3.02551,-0.0381103,2.9744,1.63889,-0.346224,-0.344353,-0.0281527,0.240933,-0.0347889,0.323723,-2.23531,0.0896817,0.671355,-0.0572362,0.18566,-0.00260987,0.00190331,0.00292227,-0.0100014,-0.015903,-0.00168006,-5.53913,-0.965626,1.4115,-0.727602,1.90407,0.498718,-0.408924,-1.92059,-30.1027,-1.98668,26.705,0.6488,2.87377,0.0843355,
0.240915,-0.0349083,0.323932,-2.23463,0.0892412,0.669634,-0.0574314,0.0444791,-0.00165545,0.0439561,0.0157727,-0.0210479,-0.0409251,-0.00304591,-1.1687,0.0845607,-1.17071,-0.0830063,-0.723736,0.632734,0.0388435,2.94044,-0.0293145,2.88869,1.62704,-0.3516,-0.336198,-0.0277902,0.240933,-0.0347889,0.323723,-2.23531,0.0896817,0.671355,-0.0572362,0.18566,-0.00260987,0.00190331,0.00292227,-0.0100014,-0.015903,-0.00168006,0,0,0,0,0,0,0,-1.92059,-30.1027,-1.98668,26.705,0.6488,2.87377,0.0843355,
0.243275,-0.0348756,0.326029,-2.23475,0.0893109,0.669821,-0.057373,0.0442681,-0.00170148,0.0437448,0.0156321,-0.0206171,-0.0403169,-0.0030171,-0.131905,-0.0287692,-0.132071,-0.0879102,0.26925,0.380106,0.0180039,2.85575,-0.0205132,2.80337,1.61527,-0.358526,-0.328794,-0.0273795,0.240933,-0.0347889,0.323723,-2.23531,0.0896817,0.671355,-0.0572362,0.18566,-0.00260987,0.00190331,0.00292227,-0.0100014,-0.015903,-0.00168006,0,0,0,0,0,0,0,-1.92059,-30.1027,-1.98668,26.705,0.6488,2.87377,0.0843355,
0.243587,-0.0348886,0.326337,-2.23463,0.0891233,0.66953,-0.0573952,0.043206,-0.00168577,0.0426814,0.0155212,-0.0211839,-0.0395068,-0.00296904,-0.663802,0.00982178,-0.664604,-0.0692962,-0.354256,0.506324,0.0300366,2.7715,-0.0116221,2.71848,1.60349,-0.366131,-0.321154,-0.0269854,0.240933,-0.0347889,0.323723,-2.23531,0.0896817,0.671355,-0.0572362,0.18566,-0.00260987,0.00190331,0.00292227,-0.0100014,-0.015903,-0.00168006,0,0,0,0,0,0,0,-1.92059,-30.1027,-1.98668,26.705,0.6488,2.87377,0.0843355,
0.24387,-0.0348995,0.326615,-2.23451,0.088905,0.669252,-0.0574166,0.0416367,-0.00162143,0.0411103,0.0154269,-0.0224047,-0.038558,-0.00290991,-0.980801,0.0402114,-0.981911,-0.0589578,-0.762941,0.592976,0.0369596,2.68537,-0.0330451,2.63298,1.58798,-0.37547,-0.314385,-0.0265436,0.243711,-0.034642,0.326752,-2.23501,0.0894758,0.670747,-0.0572441,0.0735283,0.00274481,0.089076,0.00798978,-0.0112409,-0.00650489,0.000534288,-14.0165,0.669335,10.8966,0.633439,-0.15494,1.17476,0.276793,-0.805783,-30.6264,-0.76079,27.1017,0.703732,2.84722,0.0239107,
0.24574,-0.03467,0.328763,-2.23444,0.0888558,0.669496,-0.0573681,0.0408704,-0.00157217,0.04034,0.0153135,-0.0227695,-0.0375592,-0.00286261,-0.478954,0.0307879,-0.481447,-0.0708903,-0.228015,0.624255,0.0295622,2.51984,-0.0148745,2.46613,1.56455,-0.39431,-0.301759,-0.0256477,0.243711,-0.034642,0.326752,-2.23501,0.0894758,0.670747,-0.0572441,0.0735283,0.00274481,0.089076,0.00798978,-0.0112409,-0.00650489,0.000534288,0,0,0,0,0,0,0,-0.805783,-30.6264,-0.76079,27.1017,0.703732,2.84722,0.0239107,
0.246011,-0.0346801,0.32903,-2.23433,0.0886344,0.669233,-0.0573886,0.0394756,-0.00150834,0.0389409,0.0152186,-0.023749,-0.0366226,-0.0028032,-0.871714,0.0398953,-0.874469,-0.0592956,-0.612215,0.585411,0.0371267,2.43833,-0.00553665,2.38394,1.55285,-0.402808,-0.296136,-0.0251993,0.243711,-0.034642,0.326752,-2.23501,0.0894758,0.670747,-0.0572441,0.0735283,0.00274481,0.089076,0.00798978,-0.0112409,-0.00650489,0.000534288,0,0,0,0,0,0,0,-0.805783,-30.6264,-0.76079,27.1017,0.703732,2.84722,0.0239107,
0.246257,-0.0346887,0.329271,-2.23421,0.0883938,0.668975,-0.0574084,0.0377265,-0.00142298,0.0371874,0.015134,-0.0250157,-0.0357414,-0.00273813,-1.09319,0.0533467,-1.09592,-0.0528391,-0.791651,0.550693,0.0406732,2.35788,0.00399098,2.30282,1.54117,-0.410652,-0.291884,-0.0247032,0.243711,-0.034642,0.326752,-2.23501,0.0894758,0.670747,-0.0572441,0.0735283,0.00274481,0.089076,0.00798978,-0.0112409,-0.00650489,0.000534288,0,0,0,0,0,0,0,-0.805783,-30.6264,-0.76079,27.1017,0.703732,2.84722,0.0239107,
0.246482,-0.0346959,0.329492,-2.23409,0.0881429,0.668721,-0.0574277,0.0358062,-0.00131786,0.0352629,0.015055,-0.0262854,-0.0349364,-0.00267303,-1.20018,0.0657014,-1.20279,-0.0494253,-0.793616,0.503149,0.0406864,2.27986,-0.021536,2.2264,1.5285,-0.416054,-0.287853,-0.0242361,0.24559,-0.0345667,0.330077,-2.23481,0.0894282,0.670376,-0.0572629,-0.00903346,-0.000575352,0.156122,0.00287652,-0.00104248,-0.00858427,-0.000640673,-10.3202,-0.415021,8.38073,-0.639157,1.2748,-0.259922,-0.14687,0.66608,-30.4042,0.26277,26.8518,0.416256,2.78771,0.0779268,
0.247416,-0.0345896,0.331898,-2.23429,0.0887496,0.66905,-0.0573748,0.0353951,-0.00125843,0.034851,0.0148753,-0.0257598,-0.0349086,-0.00263911,-0.256943,0.0371466,-0.25745,-0.112286,0.328526,0.0173813,0.0212007,2.20203,-0.0114508,2.1479,1.51662,-0.427606,-0.286421,-0.0237253,0.24559,-0.0345667,0.330077,-2.23481,0.0894282,0.670376,-0.0572629,-0.00903346,-0.000575352,0.156122,0.00287652,-0.00104248,-0.00858427,-0.000640673,0,0,0,0,0,0,0,0.66608,-30.4042,0.26277,26.8518,0.416256,2.78771,0.0779268,
0.247656,-0.034597,0.332134,-2.23417,0.0885552,0.668775,-0.0573942,0.0343287,-0.00119247,0.0337829,0.0147451,-0.0254696,-0.0348234,-0.0025963,-0.666518,0.041219,-0.667593,-0.0813779,0.181392,0.0532614,0.0267528,2.12636,-0.000729357,2.07148,1.50497,-0.426481,-0.285901,-0.02325,0.24559,-0.0345667,0.330077,-2.23481,0.0894282,0.670376,-0.0572629,-0.00903346,-0.000575352,0.156122,0.00287652,-0.00104248,-0.00858427,-0.000640673,0,0,0,0,0,0,0,0.66608,-30.4042,0.26277,26.8518,0.416256,2.78771,0.0779268,
0.247873,-0.0346034,0.332347,-2.23406,0.08837,0.668499,-0.0574132,0.0328768,-0.00111224,0.0323289,0.0146479,-0.0250051,-0.0347457,-0.00255066,-0.907445,0.0501456,-0.908733,-0.0607269,0.290292,0.0485292,0.0285294,2.05298,0.0105514,1.99734,1.49339,-0.420347,-0.28785,-0.0227355,0.24559,-0.0345667,0.330077,-2.23481,0.0894282,0.670376,-0.0572629,-0.00903346,-0.000575352,0.156122,0.00287652,-0.00104248,-0.00858427,-0.000640673,0,0,0,0,0,0,0,0.66608,-30.4042,0.26277,26.8518,0.416256,2.78771,0.0779268,
0.24807,-0.0346085,0.332539,-2.23395,0.0882104,0.668221,-0.0574319,0.031222,-0.00101709,0.030672,0.014573,-0.0239942,-0.0347471,-0.00250826,-1.03421,0.0594691,-1.03554,-0.0468096,0.63179,-0.000857421,0.0264945,1.98065,0.00259457,1.92489,1.48097,-0.407076,-0.291276,-0.0222737,0.248036,-0.0344147,0.332482,-2.23458,0.0894171,0.670146,-0.0572697,0.069744,0.00516817,0.075808,0.00762169,-0.00218768,0.000469856,-0.00180154,9.84718,0.717941,-10.0392,0.593147,-0.14315,1.13177,-0.145108,-0.147213,-30.7256,-1.10991,26.6058,0.312802,2.7813,0.050461,
0.249786,-0.03441,0.334211,-2.23403,0.0888815,0.668934,-0.0573789,0.031219,-0.00101639,0.0306665,0.0145139,-0.0219191,-0.0350514,-0.0025021,-0.00193246,0.000440085,-0.00347736,-0.0369597,1.29694,-0.190174,0.00385242,1.9104,0.013778,1.85429,1.46793,-0.476012,-0.296476,-0.0217912,0.248036,-0.0344147,0.332482,-2.23458,0.0894171,0.670146,-0.0572697,0.069744,0.00516817,0.075808,0.00762169,-0.00218768,0.000469856,-0.00180154,0,0,0,0,0,0,0,-0.147213,-30.7256,-1.10991,26.6058,0.312802,2.7813,0.050461,
0.250005,-0.0344175,0.334426,-2.23392,0.0888169,0.668632,-0.0573984,0.030458,-0.00100049,0.0299031,0.0144695,-0.0191495,-0.0355815,-0.00249092,-0.475593,0.00993869,-0.477094,-0.0277607,1.73104,-0.331304,0.00698963,1.84697,0.0277427,1.79001,1.4571,-0.441575,-0.305793,-0.0213597,0.248036,-0.0344147,0.332482,-2.23458,0.0894171,0.670146,-0.0572697,0.069744,0.00516817,0.075808,0.00762169,-0.00218768,0.000469856,-0.00180154,0,0,0,0,0,0,0,-0.147213,-30.7256,-1.10991,26.6058,0.312802,2.7813,0.050461,
0.2502,-0.0344237,0.334616,-2.2338,0.0888227,0.668318,-0.0574179,0.0292372,-0.00095556,0.0286805,0.0144339,-0.0151754,-0.0363351,-0.00248018,-0.762998,0.0280782,-0.764144,-0.022217,2.48379,-0.470992,0.00671078,1.78794,0.0428357,1.73011,1.44675,-0.393011,-0.318965,-0.0209108,0.248036,-0.0344147,0.332482,-2.23458,0.0894171,0.670146,-0.0572697,0.069744,0.00516817,0.075808,0.00762169,-0.00218768,0.000469856,-0.00180154,0,0,0,0,0,0,0,-0.147213,-30.7256,-1.10991,26.6058,0.312802,2.7813,0.050461,
0.250054,-0.0344185,0.334474,-2.2339,0.0860806,0.668621,-0.0573859,0.0290044,-0.000991386,0.0284512,0.0143936,-0.0273238,-0.0364415,-0.00246957,-0.145488,-0.0223911,-0.143282,-0.0252163,-7.59276,-0.0665119,0.00663113,1.67507,0.0484647,1.6195,1.41319,-0.9368,-0.347424,-0.020295,0.250903,-0.0343487,0.334085,-2.23445,0.089414,0.669978,-0.0572789,0.119497,-0.00594737,0.0119734,0.00113001,-0.00546044,-0.0055124,-0.00134648,6.21914,-1.38944,-7.97932,-0.811461,-0.409095,-0.747782,0.0568827,-1.13507,-30.2019,-1.18529,26.7288,0.239559,2.82067,0.0779268,
0.252709,-0.034451,0.335854,-2.23376,0.0876399,0.668137,-0.0573979,0.0281094,-0.0010557,0.0275615,0.0144171,-0.0248297,-0.0382104,-0.00250118,-0.55938,-0.0401982,-0.556101,0.0147052,1.55886,-1.10556,-0.0197533,1.63509,0.0678565,1.57854,1.40703,-0.829795,-0.367064,-0.0199914,0.250903,-0.0343487,0.334085,-2.23445,0.089414,0.669978,-0.0572789,0.119497,-0.00594737,0.0119734,0.00113001,-0.00546044,-0.0055124,-0.00134648,0,0,0,0,0,0,0,-1.13507,-30.2019,-1.18529,26.7288,0.239559,2.82067,0.0779268,
0.252881,-0.0344589,0.336022,-2.23365,0.0876921,0.667751,-0.057419,0.0267977,-0.00104256,0.0262554,0.0144193,-0.0185589,-0.0402188,-0.00252802,-0.819802,0.00821238,-0.816321,0.00134988,3.91924,-1.25527,-0.0167773,1.60156,0.0878847,1.54404,1.40221,-0.694271,-0.391495,-0.019676,0.250903,-0.0343487,0.334085,-2.23445,0.089414,0.669978,-0.0572789,0.119497,-0.00594737,0.0119734,0.00113001,-0.00546044,-0.0055124,-0.00134648,0,0,0,0,0,0,0,-1.13507,-30.2019,-1.18529,26.7288,0.239559,2.82067,0.0779268,
0.253034,-0.0344642,0.336171,-2.23353,0.0879523,0.667337,-0.0574403,0.0252618,-0.00096624,0.024725,0.014423,-0.00834231,-0.0425337,-0.00255371,-0.959986,0.0477022,-0.956453,0.00234929,6.38535,-1.44681,-0.0160582,1.57456,0.110531,1.51604,1.40078,-0.525389,-0.42087,-0.0194761,0.250903,-0.0343487,0.334085,-2.23445,0.089414,0.669978,-0.0572789,0.119497,-0.00594737,0.0119734,0.00113001,-0.00546044,-0.0055124,-0.00134648,0,0,0,0,0,0,0,-1.13507,-30.2019,-1.18529,26.7288,0.239559,2.82067,0.0779268,
0.252566,-0.0344694,0.335712,-2.23373,0.0862132,0.666784,-0.0573679,0.0261008,-0.00131623,0.0255587,0.0148592,-0.0190519,-0.0531333,-0.00257628,0.52437,-0.218742,0.521043,0.272594,-6.69352,-6.62474,-0.0141074,1.765,0.13205,1.70677,1.35139,-1.58074,-1.03298,-0.0203132,0.252455,-0.0342616,0.336536,-2.23429,0.0894018,0.669777,-0.0572786,0.00199848,0.0029004,0.110021,0.0106722,-0.00254,-0.0134144,0.000763141,-14.6873,1.10597,12.256,1.19278,0.365055,-0.987753,0.263702,-0.805783,-30.428,-1.23686,26.6296,0.306393,2.80785,0.0376436,
0.252771,-0.0344862,0.335913,-2.2336,0.0859275,0.665981,-0.0573896,0.026017,-0.00147361,0.025473,0.0151178,-0.022384,-0.0625712,-0.00260398,-0.052338,-0.0983673,-0.0535851,0.161629,-2.08255,-5.89868,-0.0173097,1.76773,0.15091,1.70854,1.35973,-1.38447,-1.03725,-0.0197077,0.252455,-0.0342616,0.336536,-2.23429,0.0894018,0.669777,-0.0572786,0.00199848,0.0029004,0.110021,0.0106722,-0.00254,-0.0134144,0.000763141,0,0,0,0,0,0,0,-0.805783,-30.428,-1.23686,26.6296,0.306393,2.80785,0.0376436,
0.252952,-0.0345022,0.33609,-2.23348,0.0858866,0.665153,-0.0574096,0.0253402,-0.001577,0.0247981,0.0151278,-0.0189293,-0.0707587,-0.00258417,-0.423029,-0.0646166,-0.421806,0.00626859,2.15918,-5.11717,0.012378,1.77187,0.159451,1.71172,1.36462,-1.14758,-1.04578,-0.0188235,0.252455,-0.0342616,0.336536,-2.23429,0.0894018,0.669777,-0.0572786,0.00199848,0.0029004,0.110021,0.0106722,-0.00254,-0.0134144,0.000763141,0,0,0,0,0,0,0,-0.805783,-30.428,-1.23686,26.6296,0.306393,2.80785,0.0376436,
0.253113,-0.0345149,0.336246,-2.23336,0.0861164,0.664302,-0.0574287,0.0242913,-0.00158024,0.0237575,0.0150439,-0.00940002,-0.0778854,-0.00254413,-0.655552,-0.00202443,-0.650376,-0.0524327,5.95582,-4.4542,0.0250283,1.77311,0.178644,1.71199,1.38032,-0.868353,-1.06165,-0.0180922,0.252455,-0.0342616,0.336536,-2.23429,0.0894018,0.669777,-0.0572786,0.00199848,0.0029004,0.110021,0.0106722,-0.00254,-0.0134144,0.000763141,0,0,0,0,0,0,0,-0.805783,-30.428,-1.23686,26.6296,0.306393,2.80785,0.0376436,
0.253995,-0.0344229,0.338075,-2.23295,0.0898388,0.659055,-0.0573636,0.0257473,-0.00218279,0.025292,0.0171569,0.0033507,-0.125791,-0.00244452,0.90999,-0.376594,0.959092,1.32057,7.9692,-29.9408,0.062255,2.64841,0.571309,2.61314,1.54873,-0.396025,-4.19713,-0.0189615,0.252455,-0.0342616,0.336536,-2.23429,0.0894018,0.669777,-0.0572786,0.00199848,0.0029004,0.110021,0.0106722,-0.00254,-0.0134144,0.000763141,0,0,0,0,0,0,0,-0.805783,-30.428,-1.23686,26.6296,0.306393,2.80785,0.0376436,
0.254231,-0.0344355,0.338312,-2.23276,0.0905333,0.656491,-0.0573878,0.0265047,-0.00206144,0.0261686,0.0183382,0.0200421,-0.164741,-0.0025607,0.473413,0.0758449,0.547825,0.738317,10.4321,-24.3442,-0.0726136,2.70289,0.569947,2.67305,1.56056,-0.187298,-4.05471,-0.0166217,0.254059,-0.0341362,0.338156,-2.23417,0.0889321,0.66949,-0.0572828,0.0705075,-0.000170864,0.0130655,0.000338291,-0.00722531,-0.0164281,-0.000892223,8.56362,-0.383908,-12.1195,-1.29174,-0.585664,-0.376704,-0.206921,-0.754208,-30.305,-1.43523,26.7526,0.484005,2.72179,0.0706026,
0.254461,-0.0344389,0.338541,-2.23262,0.0914352,0.653984,-0.0574097,0.0269427,-0.00173458,0.0266593,0.0183221,0.0385821,-0.194469,-0.00259682,0.27375,0.204286,0.306711,-0.0100506,11.5875,-18.5797,-0.0225753,2.75331,0.514527,2.72844,1.50723,0.0544294,-3.90492,-0.0119116,0.254059,-0.0341362,0.338156,-2.23417,0.0889321,0.66949,-0.0572828,0.0705075,-0.000170864,0.0130655,0.000338291,-0.00722531,-0.0164281,-0.000892223,0,0,0,0,0,0,0,-0.754208,-30.305,-1.43523,26.7526,0.484005,2.72179,0.0706026,
0.255432,-0.034326,0.339516,-2.23281,0.0916558,0.658081,-0.0573663,0.0280875,-0.00294055,0.0278145,0.0195599,0.0520248,-0.219235,-0.00268717,0.715508,-0.753731,0.722015,0.773658,8.40168,-15.4786,-0.0564636,3.38653,0.721204,3.37064,1.98372,0.549743,-4.63098,-0.0019832,0.254059,-0.0341362,0.338156,-2.23417,0.0889321,0.66949,-0.0572828,0.0705075,-0.000170864,0.0130655,0.000338291,-0.00722531,-0.0164281,-0.000892223,0,0,0,0,0,0,0,-0.754208,-30.305,-1.43523,26.7526,0.484005,2.72179,0.0706026,
