xiao-wang007/linearmpc_panda/paper_data/panda_torque_PD_controller_error_match_to_start_torque_rate_limiter_low_pass_filter/4/trajectory.csv
Commanded Joint 0 Position,Commanded Joint 1 Position,Commanded Joint 2 Position,Commanded Joint 3 Position,Commanded Joint 4 Position,Commanded Joint 5 Position,Commanded Joint 6 Position,Commanded Joint 0 Velocity,Commanded Joint 1 Velocity,Commanded Joint 2 Velocity,Commanded Joint 3 Velocity,Commanded Joint 4 Velocity,Commanded Joint 5 Velocity,Commanded Joint 6 Velocity,Commanded Joint 0 Acceleration,Commanded Joint 1 Acceleration,Commanded Joint 2 Acceleration,Commanded Joint 3 Acceleration,Commanded Joint 4 Acceleration,Commanded Joint 5 Acceleration,Commanded Joint 6 Acceleration,Commanded Joint 0 Torque,Commanded Joint 1 Torque,Commanded Joint 2 Torque,Commanded Joint 3 Torque,Commanded Joint 4 Torque,Commanded Joint 5 Torque,Commanded Joint 6 Torque,Actual Joint 0 Position,Actual Joint 1 Position,Actual Joint 2 Position,Actual Joint 3 Position,Actual Joint 4 Position,Actual Joint 5 Position,Actual Joint 6 Position,Actual Joint 0 Velocity,Actual Joint 1 Velocity,Actual Joint 2 Velocity,Actual Joint 3 Velocity,Actual Joint 4 Velocity,Actual Joint 5 Velocity,Actual Joint 6 Velocity,Actual Joint 0 Acceleration,Actual Joint 1 Acceleration,Actual Joint 2 Acceleration,Actual Joint 3 Acceleration,Actual Joint 4 Acceleration,Actual Joint 5 Acceleration,Actual Joint 6 Acceleration,Actual Joint 0 Torque,Actual Joint 1 Torque,Actual Joint 2 Torque,Actual Joint 3 Torque,Actual Joint 4 Torque,Actual Joint 5 Torque,Actual Joint 6 Torque,
-0.00908056,-0.173087,-0.0374497,-1.84588,-0.00202526,0.190946,-0.0690733,0.000353398,0.0156022,0.000237297,-0.0349908,-0.00431801,0.0472453,-0.000357088,0.220874,9.75136,0.148311,-21.8693,-2.69876,29.5283,-0.22318,0.0578754,18.8183,0.0331747,-24.3416,-0.601473,1.66761,-0.0231677,-0.00909584,-0.173736,-0.0374594,-1.8427,-0.00184253,0.185801,-0.0690078,0.00167111,-0.0016072,0.00125095,-0.00165973,-0.00566429,0.00234386,-0.00113299,0,0,0,0,0,0,0,0.00751081,-29.0038,0.112013,27.1771,0.966488,3.19878,-0.0630644,
-0.00908216,-0.173746,-0.0374431,-1.8427,-0.0018783,0.185815,-0.0690091,0.000353536,0.012446,0.000273299,-0.0279678,-0.00354046,0.0378953,-0.000290453,8.59319e-05,-1.97259,0.0225008,4.38937,0.485969,-5.84376,0.0416466,0.0521685,19.2591,0.0227841,-24.2579,-0.601911,1.41697,-0.0216518,-0.00909584,-0.173736,-0.0374594,-1.8427,-0.00184253,0.185801,-0.0690078,0.00167111,-0.0016072,0.00125095,-0.00165973,-0.00566429,0.00234386,-0.00113299,0,0,0,0,0,0,0,0.00751081,-29.0038,0.112013,27.1771,0.966488,3.19878,-0.0630644,
-0.0090802,-0.173746,-0.0374408,-1.8427,-0.00187849,0.185819,-0.0690092,0.000331891,0.00993811,0.000275461,-0.0223511,-0.00283712,0.0304175,-0.000235361,-0.013528,-1.56745,0.00135133,3.51047,0.439586,-4.67361,0.0344326,0.0449663,19.8322,0.011015,-24.1496,-0.601555,1.07028,-0.0196853,-0.00909698,-0.173693,-0.0374616,-1.8428,-0.00184061,0.185798,-0.0690064,0.00117052,0.000960499,0.00110463,-0.00663143,-0.0100524,0.00286643,-0.000680256,-0.0625733,0.320962,-0.0182908,-0.621462,-0.548512,0.0653217,0.0565918,0.0551182,-28.857,0.112013,27.0264,0.948178,3.23907,-0.0703886,
-0.0090788,-0.173747,-0.0374392,-1.8427,-0.00187717,0.185823,-0.0690093,0.000300591,0.00794318,0.00026036,-0.017861,-0.00223666,0.0244358,-0.000190264,-0.0195626,-1.24684,-0.00943811,2.8063,0.375289,-3.73856,0.0281856,0.0390341,20.3563,0.00156922,-23.9818,-0.599691,0.685344,-0.0176844,-0.00909698,-0.173693,-0.0374616,-1.8428,-0.00184061,0.185798,-0.0690064,0.00117052,0.000960499,0.00110463,-0.00663143,-0.0100524,0.00286643,-0.000680256,0,0,0,0,0,0,0,0.0551182,-28.857,0.112013,27.0264,0.948178,3.23907,-0.0703886,
-0.00907865,-0.17338,-0.0374472,-1.84345,-0.00206072,0.185955,-0.069002,0.000698791,0.0141614,0.000568883,-0.030486,-0.00729199,0.0234653,-4.01774e-05,0.248875,3.88639,0.192827,-7.89065,-3.15958,-0.606569,0.0938043,-6.79608e-06,24.9654,-0.0211014,-23.2422,-1.03747,-2.51848,0.00223301,-0.00909698,-0.173693,-0.0374616,-1.8428,-0.00184061,0.185798,-0.0690064,0.00117052,0.000960499,0.00110463,-0.00663143,-0.0100524,0.00286643,-0.000680256,0,0,0,0,0,0,0,0.0551182,-28.857,0.112013,27.0264,0.948178,3.23907,-0.0703886,
-0.00914114,-0.173023,-0.0374848,-1.8437,-0.00120289,0.185221,-0.0690167,-0.00100345,0.0202502,-0.000484,-0.0306793,0.0156121,0.000415585,-0.000400377,-1.0639,3.8055,-0.658052,-0.120771,14.315,-14.4061,-0.225125,0.493982,0.207859,0.490381,-0.306784,3.48063,-1.94788,-0.00160397,-0.00909698,-0.173693,-0.0374616,-1.8428,-0.00184061,0.185798,-0.0690064,0.00117052,0.000960499,0.00110463,-0.00663143,-0.0100524,0.00286643,-0.000680256,0,0,0,0,0,0,0,0.0551182,-28.857,0.112013,27.0264,0.948178,3.23907,-0.0703886,
-0.009218,-0.172726,-0.0375508,-1.84385,0.00030538,0.184114,-0.0690257,-0.00272407,0.0236264,-0.00203823,-0.0283073,0.0501964,-0.0273412,-0.000546201,-1.07538,2.11014,-0.971392,1.48248,21.6152,-17.348,-0.0911399,0.487757,0.213431,0.483652,-0.305625,3.45027,-1.93049,-0.00153818,-0.00909868,-0.173617,-0.0374642,-1.84305,-0.00184515,0.186269,-0.0690032,0.00219443,0.0117449,-0.000598522,-0.0310158,-0.00882989,0.086353,0.000259253,0.127988,1.34805,-0.212894,-3.04805,0.152812,10.4358,0.117439,0.0828892,-26.187,0.211195,24.2374,0.642391,3.6831,-0.0905302,
-0.00928997,-0.172493,-0.0376202,-1.84397,0.0022046,0.182816,-0.0690307,-0.00397867,0.02474,-0.00336595,-0.0255333,0.0876377,-0.0543118,-0.000560859,-0.78413,0.696004,-0.82983,1.73373,23.4008,-16.8566,-0.00916143,0.481338,0.213559,0.476654,-0.302564,3.42065,-1.91268,-0.00150122,-0.00909868,-0.173617,-0.0374642,-1.84305,-0.00184515,0.186269,-0.0690032,0.00219443,0.0117449,-0.000598522,-0.0310158,-0.00882989,0.086353,0.000259253,0,0,0,0,0,0,0,0.0828892,-26.187,0.211195,24.2374,0.642391,3.6831,-0.0905302,
-0.00908048,-0.173204,-0.0374512,-1.84376,-0.00207793,0.186762,-0.0689986,-0.00272782,0.0301227,-0.00236861,-0.0380499,0.0642908,-0.0311226,-0.000332621,0.781785,3.36418,0.623338,-7.82286,-14.5918,14.4933,0.142649,-0.000369895,24.971,-0.0215031,-23.2439,-1.0375,-2.51875,0.00223918,-0.00909868,-0.173617,-0.0374642,-1.84305,-0.00184515,0.186269,-0.0690032,0.00219443,0.0117449,-0.000598522,-0.0310158,-0.00882989,0.086353,0.000259253,0,0,0,0,0,0,0,0.0828892,-26.187,0.211195,24.2374,0.642391,3.6831,-0.0905302,
-0.00924052,-0.172717,-0.0375412,-1.84378,0.000875449,0.183889,-0.0690441,-0.00618328,0.0362769,-0.00414499,-0.031007,0.125267,-0.0967338,-0.00140294,-2.15967,3.84634,-1.11024,4.40181,38.1102,-41.007,-0.66895,3.81893,1.7228,3.9355,-2.32232,10.9625,-10.6811,-0.0082609,-0.00909868,-0.173617,-0.0374642,-1.84305,-0.00184515,0.186269,-0.0690032,0.00219443,0.0117449,-0.000598522,-0.0310158,-0.00882989,0.086353,0.000259253,0,0,0,0,0,0,0,0.0828892,-26.187,0.211195,24.2374,0.642391,3.6831,-0.0905302,
-0.00940738,-0.172341,-0.037674,-1.84372,0.00577935,0.179213,-0.0690711,-0.00911818,0.0383978,-0.00663525,-0.0232819,0.222811,-0.19428,-0.00179888,-1.83431,1.32556,-1.55641,4.8282,60.965,-60.9663,-0.247462,3.75752,1.89735,3.8974,-2.26728,10.967,-10.4881,-0.00705503,-0.00908938,-0.172124,-0.0374323,-1.84737,-0.00235824,0.190306,-0.0690029,0.00147755,0.0520766,0.00891929,-0.209597,-0.0178684,0.028607,-0.000663653,-0.0896095,5.04146,1.18973,-22.3226,-1.12981,-7.21824,-0.115363,0.0313145,-14.1542,-0.0387439,13.9502,0.837399,0.427481,-0.0630644,
-0.00953661,-0.172066,-0.037789,-1.84369,0.0118881,0.173443,-0.0690855,-0.0105253,0.037593,-0.00818315,-0.0179176,0.330968,-0.299665,-0.00179926,-0.879467,-0.502963,-0.96744,3.35269,67.5982,-65.8654,-0.000237133,3.68271,1.94516,3.83372,-2.20977,10.967,-10.3131,-0.00634181,-0.00908938,-0.172124,-0.0374323,-1.84737,-0.00235824,0.190306,-0.0690029,0.00147755,0.0520766,0.00891929,-0.209597,-0.0178684,0.028607,-0.000663653,0,0,0,0,0,0,0,0.0313145,-14.1542,-0.0387439,13.9502,0.837399,0.427481,-0.0630644,
-0.00903984,-0.171197,-0.0373864,-1.84871,-0.00271384,0.189777,-0.0689967,-0.00718193,0.0532557,-0.0053998,-0.047775,0.255885,-0.252959,-0.00128423,2.08962,9.7892,1.73959,-18.6609,-46.9273,29.1912,0.321891,-0.000351675,25.08,-0.0217581,-23.2525,-1.03302,-2.49868,0.00217065,-0.00908938,-0.172124,-0.0374323,-1.84737,-0.00235824,0.190306,-0.0690029,0.00147755,0.0520766,0.00891929,-0.209597,-0.0178684,0.028607,-0.000663653,0,0,0,0,0,0,0,0.0313145,-14.1542,-0.0387439,13.9502,0.837399,0.427481,-0.0630644,
-0.00861194,-0.170342,-0.0369256,-1.8495,-0.000811481,0.185334,-0.0689136,0.00495207,0.0639696,0.00719892,-0.0579507,0.252267,-0.313451,0.00104956,7.58375,6.69615,7.8742,-6.3598,-2.26117,-37.808,1.45862,27.6755,5.10617,29.2659,-14.4056,10.967,-14.4987,0.0976127,-0.00908938,-0.172124,-0.0374323,-1.84737,-0.00235824,0.190306,-0.0690029,0.00147755,0.0520766,0.00891929,-0.209597,-0.0178684,0.028607,-0.000663653,0,0,0,0,0,0,0,0.0313145,-14.1542,-0.0387439,13.9502,0.837399,0.427481,-0.0630644,
-0.00791302,-0.16961,-0.0361168,-1.85015,0.00279309,0.178552,-0.0688352,0.0214345,0.0694768,0.0259804,-0.0627119,0.291928,-0.420288,0.00280171,10.3015,3.442,11.7384,-2.97571,24.7881,-66.7727,1.0951,26.0248,6.17172,28.3382,-12.5134,10.9459,-14.4318,0.08765,-0.00920685,-0.170934,-0.0375671,-1.85682,0.00278761,0.187743,-0.0690007,2.8293e-05,0.078991,0.00196318,-0.268889,0.101354,-0.160735,-0.000742296,-0.181158,3.3643,-0.869513,-7.41151,14.9028,-23.6677,-0.00983028,1.55078,-24.6636,1.68703,24.4873,1.35101,0.93743,-0.083206,
-0.00914955,-0.169771,-0.0375274,-1.85845,0.0029787,0.186004,-0.0689879,0.0185801,0.0846659,0.0217768,-0.0911123,0.238319,-0.379707,0.00256066,-1.78404,9.49322,-2.62721,-17.7503,-33.5052,25.3627,-0.150656,-0.0049124,25.1784,-0.023458,-23.2584,-1.05406,-2.43181,0.00183529,-0.00920685,-0.170934,-0.0375671,-1.85682,0.00278761,0.187743,-0.0690007,2.8293e-05,0.078991,0.00196318,-0.268889,0.101354,-0.160735,-0.000742296,0,0,0,0,0,0,0,1.55078,-24.6636,1.68703,24.4873,1.35101,0.93743,-0.083206,
-0.00841571,-0.169013,-0.0367639,-1.86013,0.0047252,0.181165,-0.068687,0.0332099,0.0866742,0.0365086,-0.114665,0.234318,-0.424746,0.0095705,9.14367,1.25517,9.20735,-14.7207,-2.50082,-28.1494,4.38115,40.2862,1.226,42.8894,-26.4977,10.9459,-14.4318,0.343852,-0.00920685,-0.170934,-0.0375671,-1.85682,0.00278761,0.187743,-0.0690007,2.8293e-05,0.078991,0.00196318,-0.268889,0.101354,-0.160735,-0.000742296,0,0,0,0,0,0,0,1.55078,-24.6636,1.68703,24.4873,1.35101,0.93743,-0.083206,
-0.00726646,-0.168441,-0.035551,-1.86177,0.00801382,0.174217,-0.0685208,0.0552993,0.083631,0.0595291,-0.132924,0.26967,-0.513497,0.0118135,13.8059,-1.90201,14.3878,-11.4114,22.0949,-55.4691,1.4019,35.5358,3.37222,37.6475,-24.8524,10.9459,-14.4318,0.176843,-0.00920685,-0.170934,-0.0375671,-1.85682,0.00278761,0.187743,-0.0690007,2.8293e-05,0.078991,0.00196318,-0.268889,0.101354,-0.160735,-0.000742296,0,0,0,0,0,0,0,1.55078,-24.6636,1.68703,24.4873,1.35101,0.93743,-0.083206,
-0.00585741,-0.167929,-0.0340511,-1.86337,0.0126268,0.165842,-0.0684596,0.0794658,0.0797003,0.085121,-0.146229,0.331061,-0.620154,0.01098,15.1041,-2.45666,15.995,-8.31568,38.3694,-66.6608,-0.520946,31.8821,5.62853,33.8183,-23.4112,10.7366,-14.3391,0.059571,-0.00940641,-0.164939,-0.0377575,-1.85895,0.0214152,0.16065,-0.0690006,-0.0184985,0.266245,-0.0285694,0.0635201,0.83089,-1.18175,-0.00103174,-2.31585,23.4067,-3.81658,41.5511,91.192,-127.627,-0.0361804,2.0586,-28.7062,1.83778,23.3923,3.52539,-0.633615,-0.0026396,
-0.00932944,-0.163386,-0.0377599,-1.86028,0.0253282,0.155029,-0.0689635,0.0654969,0.102574,0.0680372,-0.15006,0.362675,-0.636646,0.0097109,-8.73056,14.2961,-10.6774,-2.39445,19.7587,-10.3073,-0.793202,-0.271453,25.7633,-0.281437,-23.5697,-1.26337,-2.33914,0.00387118,-0.00940641,-0.164939,-0.0377575,-1.85895,0.0214152,0.16065,-0.0690006,-0.0184985,0.266245,-0.0285694,0.0635201,0.83089,-1.18175,-0.00103174,0,0,0,0,0,0,0,2.0586,-28.7062,1.83778,23.3923,3.52539,-0.633615,-0.0026396,
-0.00837999,-0.162712,-0.0367993,-1.86257,0.0292035,0.148286,-0.0685461,0.0761338,0.0989218,0.078446,-0.177447,0.387022,-0.677891,0.0182054,6.64806,-2.28271,6.50553,-17.1169,15.2173,-25.7782,5.30904,45.3776,-2.65419,48.4977,-35.0064,10.7366,-14.3391,0.461089,-0.00940641,-0.164939,-0.0377575,-1.85895,0.0214152,0.16065,-0.0690006,-0.0184985,0.266245,-0.0285694,0.0635201,0.83089,-1.18175,-0.00103174,0,0,0,0,0,0,0,2.0586,-28.7062,1.83778,23.3923,3.52539,-0.633615,-0.0026396,
-0.00696256,-0.162289,-0.0353015,-1.86497,0.0337619,0.140189,-0.0683639,0.096343,0.0896975,0.1002,-0.20193,0.423578,-0.744751,0.0191192,12.6307,-5.76517,13.5963,-15.302,22.847,-41.7876,0.571132,38.3065,0.47264,40.8738,-32.8182,10.7366,-14.3391,0.177186,-0.00940641,-0.164939,-0.0377575,-1.85895,0.0214152,0.16065,-0.0690006,-0.0184985,0.266245,-0.0285694,0.0635201,0.83089,-1.18175,-0.00103174,0,0,0,0,0,0,0,2.0586,-28.7062,1.83778,23.3923,3.52539,-0.633615,-0.0026396,
-0.00528511,-0.16192,-0.0335077,-1.8673,0.0391791,0.131067,-0.0683393,0.119011,0.0809803,0.125004,-0.219628,0.474293,-0.823851,0.0159084,14.1672,-5.44829,15.5028,-11.0614,31.697,-49.4375,-2.00674,33.7907,2.64942,36.0489,-30.7527,10.7366,-14.3391,0.00473978,-0.00940641,-0.164939,-0.0377575,-1.85895,0.0214152,0.16065,-0.0690006,-0.0184985,0.266245,-0.0285694,0.0635201,0.83089,-1.18175,-0.00103174,0,0,0,0,0,0,0,2.0586,-28.7062,1.83778,23.3923,3.52539,-0.633615,-0.0026396,
-0.00932944,-0.163386,-0.0377599,-1.86028,0.0253282,0.155029,-0.0689635,0.0971327,0.103598,0.099944,-0.20878,0.47726,-0.799604,0.0136536,-13.6737,14.1361,-15.6628,6.78049,1.85469,15.1548,-1.40925,-0.0269015,25.7798,-0.0241777,-23.3138,-1.19022,-2.06325,0.0019348,-0.00885005,-0.158786,-0.0372151,-1.85956,0.0369174,0.120367,-0.0685624,0.0521667,0.0891119,0.0636536,-0.170304,0.340444,-1.19546,0.0201377,8.83315,-22.1416,11.5279,-29.228,-61.3057,-1.71385,2.64618,7.08118,-30.6542,7.68556,18.7308,1.38122,-1.99958,0.0907442,
-0.00829766,-0.163025,-0.0366441,-1.86318,0.0290398,0.148743,-0.068457,0.103501,0.0919068,0.107851,-0.239483,0.474597,-0.796837,0.0235873,3.98011,-7.30704,4.94162,-19.1898,-1.66447,1.72914,6.20859,50.5019,-7.63201,54.9596,-45.32,10.8098,-14.0633,0.56487,-0.00885005,-0.158786,-0.0372151,-1.85956,0.0369174,0.120367,-0.0685624,0.0521667,0.0891119,0.0636536,-0.170304,0.340444,-1.19546,0.0201377,0,0,0,0,0,0,0,7.08118,-30.6542,7.68556,18.7308,1.38122,-1.99958,0.0907442,
-0.00676076,-0.162908,-0.0349844,-1.86622,0.0334633,0.141014,-0.068302,0.121223,0.0764513,0.127773,-0.267677,0.490266,-0.830699,0.0227426,11.0764,-9.6597,12.4517,-17.6213,9.79319,-21.1636,-0.527938,40.903,-2.17849,44.0724,-41.8454,10.8098,-14.0633,0.13391,-0.00885005,-0.158786,-0.0372151,-1.85956,0.0369174,0.120367,-0.0685624,0.0521667,0.0891119,0.0636536,-0.170304,0.340444,-1.19546,0.0201377,0,0,0,0,0,0,0,7.08118,-30.6542,7.68556,18.7308,1.38122,-1.99958,0.0907442,
-0.00842632,-0.157768,-0.0367885,-1.86133,0.0386313,0.113694,-0.0685453,0.107572,0.086605,0.112883,-0.258372,0.435061,-0.831393,0.0186212,-8.5322,6.34603,-9.30629,5.81558,-34.5036,-0.433577,-2.57587,-0.0269015,25.7798,-0.0241777,-23.3138,-1.19022,-2.06325,0.0019348,-0.00885005,-0.158786,-0.0372151,-1.85956,0.0369174,0.120367,-0.0685624,0.0521667,0.0891119,0.0636536,-0.170304,0.340444,-1.19546,0.0201377,0,0,0,0,0,0,0,7.08118,-30.6542,7.68556,18.7308,1.38122,-1.99958,0.0907442,
-0.0070842,-0.157827,-0.0353314,-1.86484,0.0410231,0.106956,-0.0680077,0.11961,0.067815,0.126734,-0.294372,0.407844,-0.833555,0.0283363,7.52421,-11.7437,8.65681,-22.4997,-17.0106,-1.35136,6.07192,54.5405,-7.52754,58.9686,-54.9036,10.733,-13.7246,0.615706,-0.00568302,-0.158155,-0.034763,-1.87443,0.0592376,0.0797128,-0.0679995,0.130828,-0.00547164,0.0944986,-0.614249,0.813572,-1.30579,0.014602,9.8326,-11.8229,3.85562,-55.4931,59.141,-13.7912,-0.691962,13.9525,-22.0928,14.1602,16.8384,3.53729,-3.12019,0.0706026,
-0.00530915,-0.157943,-0.0334108,-1.86844,0.0446984,0.0990096,-0.0679004,0.140065,0.0513491,0.149401,-0.325618,0.418155,-0.865511,0.0253511,12.784,-10.2912,14.1668,-19.529,6.44459,-19.9724,-1.86573,42.6959,-0.145863,45.8044,-50.0939,10.733,-13.7246,0.0776921,-0.00568302,-0.158155,-0.034763,-1.87443,0.0592376,0.0797128,-0.0679995,0.130828,-0.00547164,0.0944986,-0.614249,0.813572,-1.30579,0.014602,0,0,0,0,0,0,0,13.9525,-22.0928,14.1602,16.8384,3.53729,-3.12019,0.0706026,
-0.0033398,-0.157957,-0.0312843,-1.87196,0.0496663,0.0901046,-0.0680376,0.161285,0.0407441,0.172684,-0.348325,0.458722,-0.915033,0.0168518,13.2629,-6.62809,14.5517,-14.1916,25.3546,-30.9517,-5.3121,36.035,2.75699,38.5053,-47.3927,10.733,-13.7246,-0.196088,-0.00568302,-0.158155,-0.034763,-1.87443,0.0592376,0.0797128,-0.0679995,0.130828,-0.00547164,0.0944986,-0.614249,0.813572,-1.30579,0.014602,0,0,0,0,0,0,0,13.9525,-22.0928,14.1602,16.8384,3.53729,-3.12019,0.0706026,
-0.000203934,-0.157597,-0.029014,-1.88778,0.0782883,0.0504394,-0.0684181,0.17945,0.0396257,0.19175,-0.385862,0.536532,-0.964238,0.00562522,11.3529,-0.699025,11.9164,-23.4605,48.6311,-30.7526,-7.0166,42.9495,0.125602,45.7973,-55.0699,10.733,-11.386,0.0208547,-0.00568302,-0.158155,-0.034763,-1.87443,0.0592376,0.0797128,-0.0679995,0.130828,-0.00547164,0.0944986,-0.614249,0.813572,-1.30579,0.014602,0,0,0,0,0,0,0,13.9525,-22.0928,14.1602,16.8384,3.53729,-3.12019,0.0706026,
0.00187471,-0.1573,-0.0267947,-1.89204,0.0855456,0.0420822,-0.0687263,0.195526,0.0391298,0.208881,-0.415103,0.610659,-0.98032,-0.00320566,10.0476,-0.309915,10.7068,-18.2755,46.3292,-10.0515,-5.5193,36.2012,2.67223,38.4896,-52.1817,10.9612,-10.4047,-0.282139,0.00303421,-0.157769,-0.0275489,-1.89826,0.0858702,0.0301662,-0.0672997,0.346732,-0.0490929,0.287711,-0.786837,0.764764,-1.42486,0.0147846,26.988,-5.45266,24.1516,-21.5735,-6.10099,-14.8837,0.0228318,17.654,-20.0694,18.5877,20.3772,3.53088,0.360647,-0.0301054,
0.00396017,-0.157025,-0.0245637,-1.89628,0.0932095,0.0347313,-0.0690162,0.208557,0.038167,0.222881,-0.438207,0.680125,-0.968029,-0.00981255,8.14452,-0.60175,8.74992,-14.4402,43.4164,7.682,-4.12931,32.1503,3.11793,34.1819,-50.3643,10.9612,-9.42655,-0.417522,0.00303421,-0.157769,-0.0275489,-1.89826,0.0858702,0.0301662,-0.0672997,0.346732,-0.0490929,0.287711,-0.786837,0.764764,-1.42486,0.0147846,0,0,0,0,0,0,0,17.654,-20.0694,18.5877,20.3772,3.53088,0.360647,-0.0301054,
0.00405709,-0.157853,-0.0243402,-1.8997,0.0933188,0.052686,-0.0693268,0.219296,0.0340128,0.234395,-0.473144,0.736423,-0.842991,-0.0172091,6.71187,-2.59639,7.19668,-21.8359,35.1861,78.1487,-4.62283,29.4557,0.247619,31.4044,-56.2199,10.9612,-0.561652,-0.50387,0.00303421,-0.157769,-0.0275489,-1.89826,0.0858702,0.0301662,-0.0672997,0.346732,-0.0490929,0.287711,-0.786837,0.764764,-1.42486,0.0147846,0,0,0,0,0,0,0,17.654,-20.0694,18.5877,20.3772,3.53088,0.360647,-0.0301054,
0.0141338,-0.156794,-0.0156733,-1.92431,0.125242,0.00927265,-0.0691898,0.226541,0.033435,0.242187,-0.499098,0.800216,-0.687756,-0.0228447,4.52791,-0.361085,4.86965,-16.2211,39.8705,97.0215,-3.52227,27.215,-0.5995,28.9735,-55.5095,10.9612,0.769674,-0.467586,0.00303421,-0.157769,-0.0275489,-1.89826,0.0858702,0.0301662,-0.0672997,0.346732,-0.0490929,0.287711,-0.786837,0.764764,-1.42486,0.0147846,0,0,0,0,0,0,0,17.654,-20.0694,18.5877,20.3772,3.53088,0.360647,-0.0301054,
0.0161019,-0.156566,-0.0135681,-1.92899,0.133764,0.0100561,-0.0695184,0.230435,0.0324505,0.246381,-0.516224,0.853209,-0.530618,-0.0264907,2.4334,-0.615353,2.62113,-10.7036,33.1206,98.2116,-2.27873,25.3983,-0.0987224,27.0488,-54.2838,11.2404,2.94451,-0.488362,0.0178527,-0.157894,-0.0142056,-1.92858,0.109448,-0.018484,-0.0668312,0.454303,0.0787504,0.54429,-0.915996,0.815034,-1.52558,0.00020439,13.4464,15.9804,32.0724,-16.1448,6.28368,-12.5902,-1.82253,18.0626,-26.4092,18.9368,24.9594,4.5874,-0.0769747,0.0440523,
0.0180007,-0.156362,-0.0115368,-1.93353,0.142316,0.0119609,-0.0698154,0.231818,0.0310471,0.247886,-0.52652,0.896378,-0.376875,-0.0286182,0.864856,-0.877115,0.94087,-6.43533,26.9808,96.0892,-1.32971,23.8795,0.0669518,25.4254,-53.2527,11.2404,4.0924,-0.477758,0.0178527,-0.157894,-0.0142056,-1.92858,0.109448,-0.018484,-0.0668312,0.454303,0.0787504,0.54429,-0.915996,0.815034,-1.52558,0.00020439,0,0,0,0,0,0,0,18.0626,-26.4092,18.9368,24.9594,4.5874,-0.0769747,0.0440523,
0.0310099,-0.153918,-1.99301e-05,-1.95604,0.153191,-0.0321625,-0.0683765,0.239267,0.0398397,0.256013,-0.542214,0.942987,-0.255359,-0.0289319,4.65549,5.49536,5.07918,-9.80865,29.1305,75.9479,-0.196036,22.8657,0.169958,24.3461,-52.3325,11.2404,4.85644,-0.44726,0.0178527,-0.157894,-0.0142056,-1.92858,0.109448,-0.018484,-0.0668312,0.454303,0.0787504,0.54429,-0.915996,0.815034,-1.52558,0.00020439,0,0,0,0,0,0,0,18.0626,-26.4092,18.9368,24.9594,4.5874,-0.0769747,0.0440523,
0.0330198,-0.153422,0.00213419,-1.96066,0.162143,-0.0287562,-0.0685847,0.241663,0.0442829,0.258663,-0.549421,0.978206,-0.119129,-0.0283509,1.4973,2.777,1.65654,-4.50444,22.0121,85.1433,0.3631,22.0806,0.295303,23.5128,-51.4427,11.2404,5.97482,-0.403149,0.0178527,-0.157894,-0.0142056,-1.92858,0.109448,-0.018484,-0.0668312,0.454303,0.0787504,0.54429,-0.915996,0.815034,-1.52558,0.00020439,0,0,0,0,0,0,0,18.0626,-26.4092,18.9368,24.9594,4.5874,-0.0769747,0.0440523,
0.0349114,-0.153014,0.00416094,-1.9651,0.170996,-0.0241103,-0.0687684,0.240619,0.0456081,0.257599,-0.550407,1.00389,0.0208431,-0.0272719,-0.652436,0.82824,-0.664928,-0.6161,16.053,87.4828,0.674396,21.5853,0.22075,23.1224,-49.5587,11.2568,7.5405,-0.372471,0.031867,-0.156409,0.00933716,-1.96446,0.14338,-0.0597217,-0.0678186,0.431127,0.0415376,0.803042,-1.25776,1.19608,-0.828248,-0.0477782,-2.89693,-4.6516,32.344,-42.7203,47.6304,87.1663,-5.99783,8.9339,-28.7816,9.26057,21.373,3.11615,2.37664,-0.170181,
0.0367025,-0.152681,0.00607999,-1.96936,0.179749,-0.0185236,-0.068926,0.237273,0.0448153,0.254056,-0.546843,1.02193,0.156343,-0.0257577,-2.09116,-0.495462,-2.21481,2.22771,11.2717,84.6877,0.946366,20.9548,0.375413,22.4483,-48.7387,11.2568,8.67668,-0.329321,0.031867,-0.156409,0.00933716,-1.96446,0.14338,-0.0597217,-0.0678186,0.431127,0.0415376,0.803042,-1.25776,1.19608,-0.828248,-0.0477782,0,0,0,0,0,0,0,8.9339,-28.7816,9.26057,21.373,3.11615,2.37664,-0.170181,
0.0505079,-0.149574,0.0294571,-2.00026,0.211538,-0.0472081,-0.0687906,0.235596,0.0487288,0.252376,-0.537324,1.04588,0.264718,-0.0223081,-1.04811,2.44595,-1.05005,5.94904,14.971,67.7339,2.15599,19.288,0.629434,20.6398,-46.6092,11.2568,11.2459,-0.223519,0.031867,-0.156409,0.00933716,-1.96446,0.14338,-0.0597217,-0.0678186,0.431127,0.0415376,0.803042,-1.25776,1.19608,-0.828248,-0.0477782,0,0,0,0,0,0,0,8.9339,-28.7816,9.26057,21.373,3.11615,2.37664,-0.170181,
0.0522022,-0.149163,0.0312761,-2.00407,0.220469,-0.0412793,-0.0688398,0.230836,0.0492544,0.247375,-0.524927,1.05998,0.359994,-0.019077,-2.97527,0.328458,-3.12525,7.74845,8.81221,59.548,2.01943,18.8088,0.744828,20.1104,-45.9581,11.2568,11.4868,-0.191742,0.031867,-0.156409,0.00933716,-1.96446,0.14338,-0.0597217,-0.0678186,0.431127,0.0415376,0.803042,-1.25776,1.19608,-0.828248,-0.0477782,0,0,0,0,0,0,0,8.9339,-28.7816,9.26057,21.373,3.11615,2.37664,-0.170181,
0.053785,-0.148835,0.032976,-2.00771,0.229229,-0.0351859,-0.0688727,0.224238,0.0476001,0.240398,-0.511008,1.06699,0.440332,-0.0160846,-4.12344,-1.03393,-4.3609,8.69923,4.38359,50.2111,1.87025,18.3796,0.364798,19.826,-44.1518,11.0564,12.0661,-0.176091,0.0487385,-0.155718,0.039673,-2.01453,0.190333,-0.0615772,-0.068779,0.497189,0.0266746,0.900549,-1.49573,1.4095,0.228576,-0.0248626,8.25774,-1.85788,12.1884,-29.747,26.6773,132.103,2.86445,-0.0718349,-26.6591,-1.10991,33.0566,2.90191,5.46013,-0.304764,
0.058037,-0.148191,0.0375469,-2.01791,0.254755,-0.0170309,-0.0688828,0.213091,0.0423472,0.228563,-0.491202,1.06372,0.501188,-0.0125992,-6.96683,-3.28305,-7.3966,12.3787,-2.04212,38.035,2.17837,15.3222,1.79563,16.4372,-38.3099,11.0564,8.89735,0.00804775,0.0487385,-0.155718,0.039673,-2.01453,0.190333,-0.0615772,-0.068779,0.497189,0.0266746,0.900549,-1.49573,1.4095,0.228576,-0.0248626,0,0,0,0,0,0,0,-0.0718349,-26.6591,-1.10991,33.0566,2.90191,5.46013,-0.304764,
0.0750608,-0.145716,0.0680941,-2.06295,0.277574,-0.0297527,-0.0685215,0.197928,0.036834,0.212471,-0.457301,0.881645,0.493814,-0.00912397,-9.47686,-3.44579,-10.0575,21.1883,-113.8,-4.60858,2.17203,14.9928,1.86896,16.0752,-37.6865,11.0564,8.57629,0.0265403,0.0487385,-0.155718,0.039673,-2.01453,0.190333,-0.0615772,-0.068779,0.497189,0.0266746,0.900549,-1.49573,1.4095,0.228576,-0.0248626,0,0,0,0,0,0,0,-0.0718349,-26.6591,-1.10991,33.0566,2.90191,5.46013,-0.304764,
0.0761159,-0.145624,0.0692329,-2.06546,0.278182,-0.0260403,-0.0684793,0.18472,0.031766,0.198447,-0.428685,0.72051,0.487863,-0.0062425,-8.25539,-3.16748,-8.76481,17.8847,-100.709,-3.71979,1.80092,14.5895,1.93718,15.623,-37.0772,10.7801,8.2898,0.0438782,0.0487385,-0.155718,0.039673,-2.01453,0.190333,-0.0615772,-0.068779,0.497189,0.0266746,0.900549,-1.49573,1.4095,0.228576,-0.0248626,0,0,0,0,0,0,0,-0.0718349,-26.6591,-1.10991,33.0566,2.90191,5.46013,-0.304764,
0.0771339,-0.145553,0.0703322,-2.06792,0.278287,-0.0223376,-0.0684343,0.173227,0.0271928,0.18624,-0.404486,0.579045,0.482857,-0.00387006,-7.18299,-2.85825,-7.62962,15.1244,-88.4158,-3.12888,1.48278,13.696,1.09796,14.8003,-36.273,9.93622,7.96211,0.0513928,0.0684735,-0.15238,0.0668796,-2.06044,0.241638,-0.0381558,-0.0689998,0.590002,0.12403,0.69477,-1.25976,1.58334,0.971584,-0.00199133,11.6016,12.1695,-25.7224,29.4971,21.731,92.8759,2.85891,-9.93451,-32.6973,-11.4844,39.3091,1.61926,5.95727,-0.177505,
0.0868078,-0.146535,0.0890084,-2.0675,0.436834,-0.0192754,-0.0702846,0.138945,0.019826,0.15085,-0.320879,0.509217,0.407871,-0.00346924,-21.4258,-4.60423,-22.1186,52.2543,-43.6424,-46.8661,0.250508,3.97898,-0.00772863,4.08369,-3.31616,1.82566,2.30902,-0.037755,0.0684735,-0.15238,0.0668796,-2.06044,0.241638,-0.0381558,-0.0689998,0.590002,0.12403,0.69477,-1.25976,1.58334,0.971584,-0.00199133,0,0,0,0,0,0,0,-9.93451,-32.6973,-11.4844,39.3091,1.61926,5.95727,-0.177505,
0.0868224,-0.146612,0.0890828,-2.06739,0.438668,-0.0184148,-0.0702995,0.11152,0.0139398,0.122541,-0.254008,0.453235,0.347812,-0.00314796,-17.1408,-3.67887,-17.6929,41.7944,-34.9888,-37.537,0.200804,4.05438,-0.0770537,4.12626,-2.7887,2.60938,1.93093,-0.0403812,0.0684735,-0.15238,0.0668796,-2.06044,0.241638,-0.0381558,-0.0689998,0.590002,0.12403,0.69477,-1.25976,1.58334,0.971584,-0.00199133,0,0,0,0,0,0,0,-9.93451,-32.6973,-11.4844,39.3091,1.61926,5.95727,-0.177505,
0.0868369,-0.146688,0.0891574,-2.06728,0.440498,-0.017557,-0.0703144,0.0895797,0.00923806,0.0998977,-0.200526,0.40833,0.299694,-0.00289029,-13.7127,-2.9386,-14.1523,33.4266,-28.0655,-30.0735,0.16104,4.14516,-0.146645,4.18268,-2.27502,3.54485,1.4998,-0.0426339,0.0684735,-0.15238,0.0668796,-2.06044,0.241638,-0.0381558,-0.0689998,0.590002,0.12403,0.69477,-1.25976,1.58334,0.971584,-0.00199133,0,0,0,0,0,0,0,-9.93451,-32.6973,-11.4844,39.3091,1.61926,5.95727,-0.177505,
0.0868515,-0.146765,0.0892321,-2.06718,0.442323,-0.016702,-0.0703292,0.0720273,0.00548382,0.0817859,-0.157754,0.372287,0.26113,-0.00268353,-10.9703,-2.3464,-11.3199,26.7324,-22.5265,-24.1024,0.129227,4.23489,-0.211669,4.23762,-1.77921,4.62299,1.02632,-0.0439732,0.0684735,-0.15238,0.0668796,-2.06044,0.241638,-0.0381558,-0.0689998,0.590002,0.12403,0.69477,-1.25976,1.58334,0.971584,-0.00199133,0,0,0,0,0,0,0,-9.93451,-32.6973,-11.4844,39.3091,1.61926,5.95727,-0.177505,
0.0979899,-0.137297,0.0992892,-2.10226,0.350809,-0.0234138,-0.0692522,0.070479,0.00977068,0.079701,-0.130092,0.416515,0.184356,-0.00267973,-0.967669,2.67929,-1.30309,17.2888,27.6425,-47.9835,0.00237558,3.51912,-0.874624,3.45906,-0.190354,9.40723,-1.07484,-0.0124772,0.0870731,-0.145599,0.0874169,-2.0944,0.289949,-0.00831029,-0.068933,0.475046,0.207843,0.630749,-0.865745,1.08247,0.796439,0.0118773,-14.3694,10.4766,-8.00271,49.2517,-62.6095,-21.8932,1.73357,-13.4614,-41.3579,-15.162,32.6083,-1.77643,3.5833,-0.210464,
0.0984135,-0.137167,0.0997728,-2.10234,0.354783,-0.0239285,-0.0692734,0.0669729,0.0110526,0.0758494,-0.10618,0.432563,0.134618,-0.00267249,-2.19132,0.801216,-2.40722,14.9446,10.0299,-31.0868,0.00452117,2.93836,-0.764826,2.87775,0.258038,10.2482,-1.4556,0.00833907,0.0870731,-0.145599,0.0874169,-2.0944,0.289949,-0.00831029,-0.068933,0.475046,0.207843,0.630749,-0.865745,1.08247,0.796439,0.0118773,0,0,0,0,0,0,0,-13.4614,-41.3579,-15.162,32.6083,-1.77643,3.5833,-0.210464,
0.0987579,-0.137099,0.100179,-2.10237,0.35822,-0.0240904,-0.069294,0.0621896,0.010558,0.0708229,-0.0857315,0.431981,0.103647,-0.00265412,-2.98953,-0.309161,-3.14157,12.7806,-0.364226,-19.3567,0.0114825,2.00061,-0.709545,1.96875,0.698871,10.2482,-1.88564,0.0354147,0.0870731,-0.145599,0.0874169,-2.0944,0.289949,-0.00831029,-0.068933,0.475046,0.207843,0.630749,-0.865745,1.08247,0.796439,0.0118773,0,0,0,0,0,0,0,-13.4614,-41.3579,-15.162,32.6083,-1.77643,3.5833,-0.210464,
0.0901758,-0.143324,0.0908053,-2.09734,0.298233,-0.00791357,-0.0689894,0.127321,0.0653247,0.141369,-0.142028,0.552684,0.0928355,-0.0035316,40.7073,34.2292,44.0916,-35.1853,75.4396,-6.75712,-0.548424,3.51912,-0.874624,3.45906,-0.190354,9.40723,-1.07484,-0.0124772,0.0870731,-0.145599,0.0874169,-2.0944,0.289949,-0.00831029,-0.068933,0.475046,0.207843,0.630749,-0.865745,1.08247,0.796439,0.0118773,0,0,0,0,0,0,0,-13.4614,-41.3579,-15.162,32.6083,-1.77643,3.5833,-0.210464,
0.0924374,-0.141439,0.0932554,-2.09899,0.306825,-0.009696,-0.0690321,0.158396,0.0993865,0.174347,-0.154875,0.656948,0.0297075,-0.00389442,19.4218,21.2886,20.6109,-8.02963,65.1651,-39.455,-0.226764,2.74249,-1.39051,2.7029,-0.313365,9.96382,-1.82087,0.0147823,0.101987,-0.138318,0.100496,-2.11677,0.323281,0.00804247,-0.0689057,0.288492,0.232023,0.269273,-0.441229,0.880574,0.0428078,-9.51406e-05,-23.3193,3.02244,-45.1845,53.0645,-25.2367,-94.2038,-1.49655,-17.7977,-42.2585,-19.7363,40.654,0.593868,2.25762,-0.163772,
0.0940858,-0.140036,0.0950351,-2.10008,0.315571,-0.0124215,-0.0690399,0.167927,0.11457,0.183971,-0.151161,0.744201,-0.044371,-0.00331083,5.95644,9.48994,6.01493,2.32163,54.5333,-46.2991,0.364744,1.80473,-1.33523,1.79389,0.127468,9.96382,-2.25091,0.041858,0.101987,-0.138318,0.100496,-2.11677,0.323281,0.00804247,-0.0689057,0.288492,0.232023,0.269273,-0.441229,0.880574,0.0428078,-9.51406e-05,0,0,0,0,0,0,0,-17.7977,-42.2585,-19.7363,40.654,0.593868,2.25762,-0.163772,
0.0952718,-0.139053,0.0963234,-2.10088,0.324339,-0.0155305,-0.0691006,0.163992,0.116249,0.179385,-0.140961,0.81456,-0.113222,-0.00416455,-2.45925,1.04934,-2.86624,6.37479,43.9741,-43.0318,-0.533571,0.427514,-1.72532,0.52339,0.103144,9.96382,-2.40155,-0.0420952,0.101987,-0.138318,0.100496,-2.11677,0.323281,0.00804247,-0.0689057,0.288492,0.232023,0.269273,-0.441229,0.880574,0.0428078,-9.51406e-05,0,0,0,0,0,0,0,-17.7977,-42.2585,-19.7363,40.654,0.593868,2.25762,-0.163772,
0.106765,-0.132959,0.105802,-2.12116,0.350023,-0.000266191,-0.0691108,0.144988,0.105526,0.159217,-0.121387,0.743554,-0.113323,-0.00392145,-11.8774,-6.70183,-12.6051,12.2337,-44.3784,-0.0631574,0.151936,0.448712,-0.763111,0.357756,1.07684,9.96382,-1.47739,-0.0351851,0.101987,-0.138318,0.100496,-2.11677,0.323281,0.00804247,-0.0689057,0.288492,0.232023,0.269273,-0.441229,0.880574,0.0428078,-9.51406e-05,0,0,0,0,0,0,0,-17.7977,-42.2585,-19.7363,40.654,0.593868,2.25762,-0.163772,
0.107198,-0.132613,0.106307,-2.12139,0.353256,-0.000802331,-0.0691328,0.126817,0.0930802,0.140007,-0.102893,0.675663,-0.104062,-0.00368784,-11.3569,-7.77886,-12.0061,11.5585,-42.4322,5.78817,0.14601,-0.362224,-0.878504,0.473536,1.55027,4.61014,0.392995,-0.0656002,0.107495,-0.131839,0.110335,-2.12201,0.356895,0.00439637,-0.0688754,0.211125,0.191616,0.115286,0.000868823,0.928289,-0.0855348,-0.00107206,-9.67083,-5.05088,-19.2484,55.2622,5.96435,-16.0428,-0.122114,-13.3345,-38.438,-14.7851,34.1278,-0.676884,1.64055,-0.103348,
0.107538,-0.132378,0.106716,-2.12154,0.356175,-0.00102886,-0.0691536,0.109951,0.0803258,0.122223,-0.0859504,0.613517,-0.0889128,-0.00346878,-10.5409,-7.97152,-11.115,10.5894,-38.8412,9.46815,0.136911,0.232032,-0.77223,0.919582,1.67814,3.59496,0.979967,-0.0228634,0.107495,-0.131839,0.110335,-2.12201,0.356895,0.00439637,-0.0688754,0.211125,0.191616,0.115286,0.000868823,0.928289,-0.0855348,-0.00107206,0,0,0,0,0,0,0,-13.3345,-38.438,-14.7851,34.1278,-0.676884,1.64055,-0.103348,
0.107805,-0.132225,0.107049,-2.12162,0.358871,-0.0010024,-0.0691733,0.0946396,0.0680933,0.106107,-0.0707537,0.558213,-0.0704685,-0.00326783,-9.56984,-7.64532,-10.0728,9.49791,-34.5648,11.5277,0.125592,0.173231,-0.805863,0.872468,1.72952,2.66845,1.30859,-0.0214813,0.107495,-0.131839,0.110335,-2.12201,0.356895,0.00439637,-0.0688754,0.211125,0.191616,0.115286,0.000868823,0.928289,-0.0855348,-0.00107206,0,0,0,0,0,0,0,-13.3345,-38.438,-14.7851,34.1278,-0.676884,1.64055,-0.103348,
0.111255,-0.129569,0.114651,-2.12246,0.38669,0.00585895,-0.0690768,0.0799744,0.0544059,0.090707,-0.054874,0.508767,-0.0411641,-0.00308141,-9.16576,-8.55457,-9.62473,9.92481,-30.904,18.3153,0.116512,0.173231,-0.805863,0.872468,1.72952,2.66845,1.30859,-0.0214813,0.107495,-0.131839,0.110335,-2.12201,0.356895,0.00439637,-0.0688754,0.211125,0.191616,0.115286,0.000868823,0.928289,-0.0855348,-0.00107206,0,0,0,0,0,0,0,-13.3345,-38.438,-14.7851,34.1278,-0.676884,1.64055,-0.103348,
0.11139,-0.129591,0.114848,-2.12238,0.389062,0.00654628,-0.0690948,0.0673568,0.0429546,0.0774767,-0.0417728,0.466311,-0.015748,-0.00291639,-7.88601,-7.15709,-8.26891,8.18829,-26.5351,15.885,0.103138,0.323925,-0.603059,1.03254,1.47773,2.51272,1.26593,-0.0214238,0.11492,-0.127866,0.109689,-2.12108,0.39507,0.00167801,-0.0688589,0.108792,0.0619591,-0.00682921,0.0358775,1.2805,-0.0876804,0.000731758,-12.7916,-16.2071,-15.2644,4.37608,44.0263,-0.268201,0.225477,-5.32055,-29.0553,-6.18804,22.7179,0.862118,-0.461496,-0.150955,
0.111498,-0.129628,0.115016,-2.12228,0.391347,0.00729826,-0.0691124,0.056579,0.0334453,0.0661901,-0.0309905,0.430184,0.00620111,-0.00277212,-6.73612,-5.94334,-7.05412,6.73894,-22.5793,13.7182,0.0901716,0.323925,-0.603059,1.03254,1.47773,2.51272,1.26593,-0.0214238,0.11492,-0.127866,0.109689,-2.12108,0.39507,0.00167801,-0.0688589,0.108792,0.0619591,-0.00682921,0.0358775,1.2805,-0.0876804,0.000731758,0,0,0,0,0,0,0,-5.32055,-29.0553,-6.18804,22.7179,0.862118,-0.461496,-0.150955,
0.111585,-0.129675,0.115163,-2.12217,0.393567,0.00810245,-0.0691295,0.0474288,0.0255949,0.0566192,-0.0221366,0.399654,0.0250656,-0.00264719,-5.71886,-4.90646,-5.98179,5.53366,-19.0812,11.7903,0.0780789,0.323925,-0.603059,1.03254,1.47773,2.51272,1.26593,-0.0214238,0.11492,-0.127866,0.109689,-2.12108,0.39507,0.00167801,-0.0688589,0.108792,0.0619591,-0.00682921,0.0358775,1.2805,-0.0876804,0.000731758,0,0,0,0,0,0,0,-5.32055,-29.0553,-6.18804,22.7179,0.862118,-0.461496,-0.150955,
0.117427,-0.12835,0.112842,-2.11908,0.439486,0.0104475,-0.0690904,0.0391473,0.0186058,0.0479666,-0.0142722,0.370642,0.0443848,-0.0025289,-5.17593,-4.36821,-5.40789,4.91522,-18.1326,12.0745,0.0739329,0.323925,-0.603059,1.03254,1.47773,2.51272,1.26593,-0.0214238,0.11492,-0.127866,0.109689,-2.12108,0.39507,0.00167801,-0.0688589,0.108792,0.0619591,-0.00682921,0.0358775,1.2805,-0.0876804,0.000731758,0,0,0,0,0,0,0,-5.32055,-29.0553,-6.18804,22.7179,0.862118,-0.461496,-0.150955,
0.117467,-0.128423,0.112941,-2.11894,0.441488,0.01143,-0.0691066,0.0323356,0.0130737,0.0408596,-0.00801887,0.346571,0.0600692,-0.00243007,-4.25735,-3.45752,-4.4419,3.90835,-15.0445,9.80273,0.0617652,0.172054,-0.761282,0.874472,1.72617,2.44971,1.31052,-0.0201136,0.116328,-0.12603,0.111734,-2.1207,0.416193,0.00426931,-0.0688574,0.0521478,0.0342592,0.0592525,-0.0202248,0.222297,0.201105,-3.79685e-05,-7.08059,-3.46249,8.26021,-7.01278,-132.275,36.0982,-0.0962158,2.43946,-28.3333,1.83778,22.9916,-0.261234,-0.759958,-0.123489,
0.117502,-0.128493,0.113035,-2.11881,0.443464,0.012419,-0.0691228,0.0267404,0.0087,0.03503,-0.00304986,0.32664,0.0727806,-0.00234756,-3.49696,-2.73359,-3.6435,3.10563,-12.4569,7.94466,0.0515728,0.172054,-0.761282,0.874472,1.72617,2.44971,1.31052,-0.0201136,0.116328,-0.12603,0.111734,-2.1207,0.416193,0.00426931,-0.0688574,0.0521478,0.0342592,0.0592525,-0.0202248,0.222297,0.201105,-3.79685e-05,0,0,0,0,0,0,0,2.43946,-28.3333,1.83778,22.9916,-0.261234,-0.759958,-0.123489,
0.117533,-0.128562,0.113124,-2.11867,0.445418,0.0134125,-0.0691388,0.0221507,0.00524589,0.0302546,0.000895247,0.31016,0.0830622,-0.00227868,-2.86856,-2.15882,-2.98461,2.46569,-10.3002,6.42596,0.0430479,0.172054,-0.761282,0.874472,1.72617,2.44971,1.31052,-0.0201136,0.116328,-0.12603,0.111734,-2.1207,0.416193,0.00426931,-0.0688574,0.0521478,0.0342592,0.0592525,-0.0202248,0.222297,0.201105,-3.79685e-05,0,0,0,0,0,0,0,2.43946,-28.3333,1.83778,22.9916,-0.261234,-0.759958,-0.123489,
0.11706,-0.125587,0.11275,-2.12061,0.423917,0.00846095,-0.0689381,0.0204206,0.00516201,0.0284978,0.00241625,0.297306,0.0898626,-0.00227699,-1.08133,-0.0524198,-1.09801,0.95063,-8.03366,4.25029,0.0010584,0.172002,-0.761489,0.874461,1.72642,2.44698,1.31407,-0.0201107,0.116328,-0.12603,0.111734,-2.1207,0.416193,0.00426931,-0.0688574,0.0521478,0.0342592,0.0592525,-0.0202248,0.222297,0.201105,-3.79685e-05,0,0,0,0,0,0,0,2.43946,-28.3333,1.83778,22.9916,-0.261234,-0.759958,-0.123489,
0.117142,-0.125575,0.112894,-2.12053,0.425884,0.00938871,-0.0689554,0.0183918,0.00442161,0.0263918,0.00401995,0.287042,0.095084,-0.00225638,-1.26803,-0.462751,-1.31621,1.00231,-6.41503,3.26338,0.0128802,0.175353,-0.72153,0.885574,1.69006,2.40469,1.30602,-0.0199422,0.117747,-0.125202,0.113468,-2.12101,0.430307,0.00888601,-0.0688557,0.056829,0.0138563,0.0195797,-0.00260282,0.253108,0.119978,0.00114097,0.585152,-2.55036,-4.9591,2.20274,3.85129,-10.1409,0.147368,-0.754208,-28.607,-1.8875,27.3755,3.64074,0.82482,-0.137222,
0.117206,-0.125582,0.113018,-2.12043,0.427848,0.0103204,-0.0689723,0.0163156,0.00335262,0.024218,0.00559376,0.278727,0.0993586,-0.00222713,-1.29761,-0.668118,-1.35868,0.983634,-5.19687,2.67159,0.0182799,0.175357,-0.721526,0.885577,1.69006,2.4047,1.30599,-0.0199423,0.117747,-0.125202,0.113468,-2.12101,0.430307,0.00888601,-0.0688557,0.056829,0.0138563,0.0195797,-0.00260282,0.253108,0.119978,0.00114097,0,0,0,0,0,0,0,-0.754208,-28.607,-1.8875,27.3755,3.64074,0.82482,-0.137222,
0.118496,-0.12523,0.114706,-2.12031,0.44602,0.0162179,-0.0689943,0.0140083,0.00163972,0.0217975,0.00739494,0.270693,0.103932,-0.00218396,-1.44207,-1.07057,-1.51277,1.12574,-5.02102,2.8585,0.0269852,0.175114,-0.723496,0.885693,1.69238,2.37788,1.3393,-0.0199153,0.117747,-0.125202,0.113468,-2.12101,0.430307,0.00888601,-0.0688557,0.056829,0.0138563,0.0195797,-0.00260282,0.253108,0.119978,0.00114097,0,0,0,0,0,0,0,-0.754208,-28.607,-1.8875,27.3755,3.64074,0.82482,-0.137222,
0.118529,-0.125275,0.114797,-2.12019,0.447918,0.0172083,-0.0690102,0.0120234,0.000186951,0.0197178,0.00891201,0.264003,0.107905,-0.00214646,-1.24058,-0.907979,-1.29985,0.948169,-4.18109,2.48325,0.023432,0.175124,-0.723461,0.885696,1.69235,2.37804,1.3389,-0.0199159,0.117747,-0.125202,0.113468,-2.12101,0.430307,0.00888601,-0.0688557,0.056829,0.0138563,0.0195797,-0.00260282,0.253108,0.119978,0.00114097,0,0,0,0,0,0,0,-0.754208,-28.607,-1.8875,27.3755,3.64074,0.82482,-0.137222,
0.118557,-0.125322,0.114884,-2.12007,0.449807,0.0182084,-0.0690261,0.0103299,-0.00103358,0.0179461,0.0101812,0.258423,0.111327,-0.00211418,-1.05839,-0.762835,-1.10732,0.793232,-3.48748,2.13883,0.0201785,0.171793,-0.707037,0.894062,1.66974,2.34133,1.33922,-0.0197661,0.119161,-0.125133,0.115333,-2.12116,0.442181,0.0118958,-0.0688531,0.0634684,-0.00852953,0.0403399,0.00698394,0.26479,0.0527871,0.00457204,0.829931,-2.79823,2.59502,1.19834,1.46032,-8.39882,0.428884,-2.57916,-28.8054,-3.06182,26.5781,2.3526,2.28417,-0.117081,
0.118583,-0.125371,0.114968,-2.11994,0.451688,0.0192158,-0.0690419,0.00889476,-0.00205077,0.0164472,0.011236,0.253759,0.114247,-0.00208651,-0.896978,-0.635743,-0.936759,0.659267,-2.91516,1.82466,0.017291,0.171799,-0.707005,0.894063,1.6697,2.3415,1.33882,-0.0197667,0.119161,-0.125133,0.115333,-2.12116,0.442181,0.0118958,-0.0688531,0.0634684,-0.00852953,0.0403399,0.00698394,0.26479,0.0527871,0.00457204,0,0,0,0,0,0,0,-2.57916,-28.8054,-3.06182,26.5781,2.3526,2.28417,-0.117081,
0.120247,-0.125548,0.116858,-2.12048,0.455377,0.0183569,-0.068978,0.0088592,-0.00304823,0.0164176,0.011902,0.246776,0.119714,-0.00207944,-0.0222245,-0.623409,-0.0185024,0.416236,-4.36434,3.41714,0.00441768,0.169589,-0.725853,0.895404,1.69165,2.07121,1.65994,-0.0195093,0.119161,-0.125133,0.115333,-2.12116,0.442181,0.0118958,-0.0688531,0.0634684,-0.00852953,0.0403399,0.00698394,0.26479,0.0527871,0.00457204,0,0,0,0,0,0,0,-2.57916,-28.8054,-3.06182,26.5781,2.3526,2.28417,-0.117081,
0.120304,-0.125604,0.116976,-2.12036,0.457102,0.0195206,-0.0689942,0.00851172,-0.0038407,0.0160678,0.0125108,0.240553,0.124863,-0.00206779,-0.217175,-0.495294,-0.218665,0.380481,-3.88962,3.21771,0.0072845,0.169681,-0.725526,0.89545,1.69135,2.07281,1.65606,-0.0195139,0.119161,-0.125133,0.115333,-2.12116,0.442181,0.0118958,-0.0688531,0.0634684,-0.00852953,0.0403399,0.00698394,0.26479,0.0527871,0.00457204,0,0,0,0,0,0,0,-2.57916,-28.8054,-3.06182,26.5781,2.3526,2.28417,-0.117081,
0.120351,-0.12566,0.117083,-2.12024,0.458807,0.0207069,-0.0690102,0.00798783,-0.00446978,0.0155372,0.0130537,0.23506,0.129549,-0.00205379,-0.327436,-0.393177,-0.331603,0.339355,-3.43266,2.92875,0.00875286,0.169755,-0.725217,0.895479,1.69104,2.07446,1.65217,-0.019519,0.119161,-0.125133,0.115333,-2.12116,0.442181,0.0118958,-0.0688531,0.0634684,-0.00852953,0.0403399,0.00698394,0.26479,0.0527871,0.00457204,0,0,0,0,0,0,0,-2.57916,-28.8054,-3.06182,26.5781,2.3526,2.28417,-0.117081,
0.120391,-0.125715,0.117183,-2.12011,0.460495,0.0219094,-0.069026,0.0073788,-0.00496791,0.0149198,0.0135282,0.230253,0.133702,-0.00203888,-0.380639,-0.311332,-0.385851,0.296526,-3.00471,2.59571,0.00931519,0.179616,-0.708231,0.91315,1.65487,2.0469,1.63556,-0.0194683,0.119764,-0.124955,0.116644,-2.12095,0.452241,0.014591,-0.0688522,-0.000838496,0.00456608,0.03401,0.000297508,0.273087,0.118538,-0.000381587,-8.03836,1.63695,-0.791238,-0.835803,1.03714,8.21891,-0.619204,-0.627255,-29.3807,-1.4868,26.7288,3.13446,1.59386,-0.0969389,
0.121047,-0.127438,0.122115,-2.11369,0.561257,0.0866491,-0.069855,0.0062606,-0.00461637,0.0139054,0.0130526,0.225828,0.127738,-0.0019828,-0.698879,0.219712,-0.634029,-0.297214,-2.76539,-3.72727,0.0350526,0.192904,-0.732931,0.928221,1.67892,1.3353,2.16865,-0.0192431,0.119764,-0.124955,0.116644,-2.12095,0.452241,0.014591,-0.0688522,-0.000838496,0.00456608,0.03401,0.000297508,0.273087,0.118538,-0.000381587,0,0,0,0,0,0,0,-0.627255,-29.3807,-1.4868,26.7288,3.13446,1.59386,-0.0969389,
0.121062,-0.127463,0.122194,-2.1136,0.562919,0.0874783,-0.0698691,0.00536596,-0.00432512,0.0130959,0.0126582,0.222208,0.122921,-0.00193743,-0.559146,0.182036,-0.505919,-0.246493,-2.26238,-3.01067,0.028355,0.192716,-0.731267,0.927543,1.67712,1.3653,2.13873,-0.0192561,0.119764,-0.124955,0.116644,-2.12095,0.452241,0.014591,-0.0688522,-0.000838496,0.00456608,0.03401,0.000297508,0.273087,0.118538,-0.000381587,0,0,0,0,0,0,0,-0.627255,-29.3807,-1.4868,26.7288,3.13446,1.59386,-0.0969389,
0.121076,-0.127488,0.122273,-2.11351,0.564578,0.0883057,-0.0698831,0.00465019,-0.00408209,0.0124504,0.0123288,0.219233,0.119022,-0.00190064,-0.447361,0.151889,-0.403437,-0.205892,-1.85968,-2.43712,0.0229955,0.192537,-0.729605,0.926871,1.67533,1.39573,2.10872,-0.0192689,0.119764,-0.124955,0.116644,-2.12095,0.452241,0.014591,-0.0688522,-0.000838496,0.00456608,0.03401,0.000297508,0.273087,0.118538,-0.000381587,0,0,0,0,0,0,0,-0.627255,-29.3807,-1.4868,26.7288,3.13446,1.59386,-0.0969389,
0.12109,-0.127512,0.122352,-2.11342,0.566233,0.0891313,-0.0698971,0.00407749,-0.00387767,0.0119361,0.0120514,0.216773,0.115857,-0.00187071,-0.357933,0.127766,-0.321458,-0.173386,-1.53724,-1.97803,0.0187066,0.194713,-0.701113,0.93755,1.63511,1.40122,2.06265,-0.0191572,0.120141,-0.125048,0.117876,-2.12091,0.461529,0.0198853,-0.0688575,0.0185843,-0.00574911,0.024547,-0.00257084,0.268532,0.18174,-0.000807528,2.42785,-1.2894,-1.18288,-0.358543,-0.569401,7.90023,-0.0532427,-0.29797,-27.8334,-1.26067,26.3797,3.34228,1.14342,-0.0767973,
0.12189,-0.128323,0.1259,-2.11124,0.629182,0.108046,-0.070293,0.00362034,-0.00346894,0.0116089,0.011435,0.212235,0.112754,-0.00183632,-0.285722,0.255454,-0.20452,-0.385276,-2.83664,-1.93951,0.021489,0.194713,-0.701113,0.93755,1.63511,1.40122,2.06265,-0.0191572,0.120141,-0.125048,0.117876,-2.12091,0.461529,0.0198853,-0.0688575,0.0185843,-0.00574911,0.024547,-0.00257084,0.268532,0.18174,-0.000807528,0,0,0,0,0,0,0,-0.29797,-27.8334,-1.26067,26.3797,3.34228,1.14342,-0.0767973,
0.12189,-0.128323,0.1259,-2.11124,0.629182,0.108046,-0.070293,0.00325461,-0.00314196,0.0113471,0.0109418,0.208604,0.110271,-0.00180882,-0.228578,0.204363,-0.163616,-0.308221,-2.26931,-1.55161,0.0171912,0.194713,-0.701113,0.93755,1.63511,1.40122,2.06265,-0.0191572,0.120141,-0.125048,0.117876,-2.12091,0.461529,0.0198853,-0.0688575,0.0185843,-0.00574911,0.024547,-0.00257084,0.268532,0.18174,-0.000807528,0,0,0,0,0,0,0,-0.29797,-27.8334,-1.26067,26.3797,3.34228,1.14342,-0.0767973,
0.12189,-0.128323,0.1259,-2.11124,0.629182,0.108046,-0.070293,0.00296203,-0.00288038,0.0111376,0.0105473,0.205699,0.108285,-0.00178681,-0.182862,0.163491,-0.130893,-0.246577,-1.81545,-1.24129,0.0137529,0.194713,-0.701113,0.93755,1.63511,1.40122,2.06265,-0.0191572,0.120141,-0.125048,0.117876,-2.12091,0.461529,0.0198853,-0.0688575,0.0185843,-0.00574911,0.024547,-0.00257084,0.268532,0.18174,-0.000807528,0,0,0,0,0,0,0,-0.29797,-27.8334,-1.26067,26.3797,3.34228,1.14342,-0.0767973,
0.170774,-0.110691,0.146004,-2.11942,0.307061,0.436074,-0.0678973,0.0023249,0.000754041,0.0101723,0.00790327,0.242873,0.0623163,-0.00169613,-0.398208,2.27151,-0.603345,-1.6525,23.2337,-28.7305,0.0566789,0.233629,-0.609153,0.987018,1.53531,1.37351,2.02096,-0.0191463,0.120467,-0.1251,0.118647,-2.12086,0.475262,0.0309484,-0.0688489,0.0124936,-0.00504116,0.0203721,0.0189206,0.410858,0.380578,0.000167487,-0.761338,0.0884944,-0.521864,2.68643,17.7907,24.8547,0.121877,-0.29797,-28.4325,-1.10991,25.8322,2.99987,0.500723,-0.123489,
0.122152,-0.128196,0.126662,-2.11116,0.664988,0.109705,-0.0703681,0.0022679,0.000349374,0.0102715,0.00794522,0.23762,0.0673599,-0.00171963,-0.0356287,-0.252916,0.0619933,0.0262185,-3.28348,3.15226,-0.0146907,0.233629,-0.609153,0.987018,1.53531,1.37351,2.02096,-0.0191463,0.120467,-0.1251,0.118647,-2.12086,0.475262,0.0309484,-0.0688489,0.0124936,-0.00504116,0.0203721,0.0189206,0.410858,0.380578,0.000167487,0,0,0,0,0,0,0,-0.29797,-28.4325,-1.10991,25.8322,2.99987,0.500723,-0.123489,
0.122152,-0.128196,0.126662,-2.11116,0.664988,0.109705,-0.0703681,0.00222229,2.56413e-05,0.0103508,0.00797878,0.233417,0.0713948,-0.00173844,-0.0285029,-0.202333,0.0495947,0.0209748,-2.62679,2.5218,-0.0117526,0.233629,-0.609153,0.987018,1.53531,1.37351,2.02096,-0.0191463,0.120467,-0.1251,0.118647,-2.12086,0.475262,0.0309484,-0.0688489,0.0124936,-0.00504116,0.0203721,0.0189206,0.410858,0.380578,0.000167487,0,0,0,0,0,0,0,-0.29797,-28.4325,-1.10991,25.8322,2.99987,0.500723,-0.123489,
0.122152,-0.128196,0.126662,-2.11116,0.664988,0.109705,-0.0703681,0.00218581,-0.000233345,0.0104143,0.00800563,0.230054,0.0746227,-0.00175348,-0.0228023,-0.161867,0.0396757,0.0167798,-2.10143,2.01744,-0.00940207,0.233629,-0.609153,0.987018,1.53531,1.37351,2.02096,-0.0191463,0.120467,-0.1251,0.118647,-2.12086,0.475262,0.0309484,-0.0688489,0.0124936,-0.00504116,0.0203721,0.0189206,0.410858,0.380578,0.000167487,0,0,0,0,0,0,0,-0.29797,-28.4325,-1.10991,25.8322,2.99987,0.500723,-0.123489,
0.17198,-0.110746,0.147372,-2.11759,0.30244,0.432819,-0.0679415,0.00159355,0.00282303,0.00948834,0.00590129,0.267446,0.0336649,-0.00170153,-0.370161,1.91023,-0.578735,-1.31521,23.3699,-25.5986,0.0324705,0.24448,-0.499694,1.00758,1.42503,1.33168,1.96568,-0.0187613,0.12053,-0.12494,0.119447,-2.12033,0.493603,0.0466164,-0.0688527,0.0116109,0.00748066,0.0276401,0.0233009,0.381511,0.502043,0.000337884,-0.110332,1.56523,0.908501,0.547536,-3.66836,15.1831,0.0212997,1.83246,-28.8808,0.86183,24.6103,1.83349,0.944754,-0.117081,
0.1222,-0.127051,0.127499,-2.11135,0.701383,0.115012,-0.0704483,0.00173386,0.00220656,0.00978423,0.00615321,0.261753,0.0421181,-0.00174522,0.0876942,-0.385293,0.184934,0.157451,-3.5585,5.28326,-0.0273106,0.24448,-0.499694,1.00758,1.42503,1.33168,1.96568,-0.0187613,0.12053,-0.12494,0.119447,-2.12033,0.493603,0.0466164,-0.0688527,0.0116109,0.00748066,0.0276401,0.0233009,0.381511,0.502043,0.000337884,0,0,0,0,0,0,0,1.83246,-28.8808,0.86183,24.6103,1.83349,0.944754,-0.117081,
0.1222,-0.127051,0.127499,-2.11135,0.701383,0.115012,-0.0704483,0.00184611,0.00171338,0.010021,0.00635475,0.257198,0.0488806,-0.00178018,0.0701553,-0.308234,0.147947,0.125961,-2.8468,4.22661,-0.0218485,0.24448,-0.499694,1.00758,1.42503,1.33168,1.96568,-0.0187613,0.12053,-0.12494,0.119447,-2.12033,0.493603,0.0466164,-0.0688527,0.0116109,0.00748066,0.0276401,0.0233009,0.381511,0.502043,0.000337884,0,0,0,0,0,0,0,1.83246,-28.8808,0.86183,24.6103,1.83349,0.944754,-0.117081,
0.1222,-0.127051,0.127499,-2.11135,0.701383,0.115012,-0.0704483,0.00193591,0.00131884,0.0102103,0.00651598,0.253554,0.0542907,-0.00180815,0.0561243,-0.246587,0.118358,0.100768,-2.27744,3.38129,-0.0174788,0.24448,-0.499694,1.00758,1.42503,1.33168,1.96568,-0.0187613,0.12053,-0.12494,0.119447,-2.12033,0.493603,0.0466164,-0.0688527,0.0116109,0.00748066,0.0276401,0.0233009,0.381511,0.502043,0.000337884,0,0,0,0,0,0,0,1.83246,-28.8808,0.86183,24.6103,1.83349,0.944754,-0.117081,
0.122344,-0.127006,0.127659,-2.11151,0.721417,0.107187,-0.070547,0.00205893,0.000995006,0.0104239,0.00661368,0.255334,0.0571709,-0.00185668,0.0768885,-0.202399,0.133508,0.061065,1.11272,1.8001,-0.0303357,0.331388,-0.387547,1.10514,1.28734,1.3198,1.88372,-0.0191421,0.120713,-0.124927,0.120307,-2.11981,0.509436,0.0623882,-0.0688527,-0.00221712,0.00104076,0.0058508,-0.00927671,0.706257,0.464751,0.00145103,-1.72851,-0.804987,-2.72366,-4.0722,40.5933,-4.66153,0.139143,2.2887,-28.0556,1.11177,25.3839,4.99115,0.805594,-0.117081,
0.122344,-0.127006,0.127659,-2.11151,0.721417,0.107187,-0.070547,0.00215735,0.000735936,0.0105948,0.00669185,0.256758,0.059475,-0.00189551,0.0615108,-0.161919,0.106806,0.048852,0.890174,1.44008,-0.0242686,0.331388,-0.387547,1.10514,1.28734,1.3198,1.88372,-0.0191421,0.120713,-0.124927,0.120307,-2.11981,0.509436,0.0623882,-0.0688527,-0.00221712,0.00104076,0.0058508,-0.00927671,0.706257,0.464751,0.00145103,0,0,0,0,0,0,0,2.2887,-28.0556,1.11177,25.3839,4.99115,0.805594,-0.117081,
0.122344,-0.127006,0.127659,-2.11151,0.721417,0.107187,-0.070547,0.00223608,0.00052868,0.0107315,0.00675438,0.257898,0.0613183,-0.00192658,0.0492086,-0.129535,0.0854451,0.0390816,0.712139,1.15207,-0.0194149,0.331388,-0.387547,1.10514,1.28734,1.3198,1.88372,-0.0191421,0.120713,-0.124927,0.120307,-2.11981,0.509436,0.0623882,-0.0688527,-0.00221712,0.00104076,0.0058508,-0.00927671,0.706257,0.464751,0.00145103,0,0,0,0,0,0,0,2.2887,-28.0556,1.11177,25.3839,4.99115,0.805594,-0.117081,
0.122344,-0.127006,0.127659,-2.11151,0.721417,0.107187,-0.070547,0.00229907,0.000362875,0.0108409,0.0068044,0.258809,0.0627929,-0.00195143,0.0393669,-0.103628,0.0683561,0.0312653,0.569711,0.921652,-0.0155319,0.331388,-0.387547,1.10514,1.28734,1.3198,1.88372,-0.0191421,0.120713,-0.124927,0.120307,-2.11981,0.509436,0.0623882,-0.0688527,-0.00221712,0.00104076,0.0058508,-0.00927671,0.706257,0.464751,0.00145103,0,0,0,0,0,0,0,2.2887,-28.0556,1.11177,25.3839,4.99115,0.805594,-0.117081,
0.122732,-0.126384,0.128735,-2.11172,0.758825,0.112021,-0.0705912,0.00240129,0.000402468,0.0109975,0.00664976,0.263642,0.0622187,-0.00199008,0.063891,0.0247457,0.0978929,-0.0966502,3.0201,-0.358885,-0.0241556,0.312941,-0.30558,1.09789,1.19581,1.24802,1.85596,-0.0187057,0.120787,-0.12488,0.120728,-2.1195,0.533774,0.0749729,-0.0688553,0.00267951,0.00419446,0.0329304,0.0148982,0.774913,0.319954,-4.48367e-05,0.612079,0.394212,3.38495,3.02187,8.58198,-18.0997,-0.186983,0.336795,-28.5793,-0.33629,24.1382,3.21319,0.48699,-0.0969389,
0.122732,-0.126384,0.128735,-2.11172,0.758825,0.112021,-0.0705912,0.00248307,0.000434142,0.0111228,0.00652605,0.267507,0.0617594,-0.002021,0.0511128,0.0197966,0.0783143,-0.0773202,2.41608,-0.287108,-0.0193245,0.312941,-0.30558,1.09789,1.19581,1.24802,1.85596,-0.0187057,0.120787,-0.12488,0.120728,-2.1195,0.533774,0.0749729,-0.0688553,0.00267951,0.00419446,0.0329304,0.0148982,0.774913,0.319954,-4.48367e-05,0,0,0,0,0,0,0,0.336795,-28.5793,-0.33629,24.1382,3.21319,0.48699,-0.0969389,
0.122732,-0.126384,0.128735,-2.11172,0.758825,0.112021,-0.0705912,0.0025485,0.000459482,0.0112231,0.00642708,0.2706,0.0613919,-0.00204573,0.0408903,0.0158373,0.0626515,-0.0618561,1.93286,-0.229686,-0.0154596,0.312941,-0.30558,1.09789,1.19581,1.24802,1.85596,-0.0187057,0.120787,-0.12488,0.120728,-2.1195,0.533774,0.0749729,-0.0688553,0.00267951,0.00419446,0.0329304,0.0148982,0.774913,0.319954,-4.48367e-05,0,0,0,0,0,0,0,0.336795,-28.5793,-0.33629,24.1382,3.21319,0.48699,-0.0969389,
0.169805,-0.118989,0.145375,-2.11518,0.296625,0.423315,-0.0676169,0.00157065,0.00284872,0.00990515,0.00461516,0.3134,0.01836,-0.00202149,-0.611154,1.49328,-0.823705,-1.13245,26.7503,-26.8949,0.0151516,0.312941,-0.30558,1.09789,1.19581,1.24802,1.85596,-0.0187057,0.120787,-0.12488,0.120728,-2.1195,0.533774,0.0749729,-0.0688553,0.00267951,0.00419446,0.0329304,0.0148982,0.774913,0.319954,-4.48367e-05,0,0,0,0,0,0,0,0.336795,-28.5793,-0.33629,24.1382,3.21319,0.48699,-0.0969389,
0.123533,-0.12594,0.12998,-2.11216,0.799817,0.114909,-0.0706686,0.00187059,0.00253977,0.0103237,0.00471415,0.311088,0.0255709,-0.0020655,0.187462,-0.193097,0.261563,0.0618672,-1.44536,4.50679,-0.0275051,0.328178,-0.241761,1.12467,1.10995,1.18923,1.82968,-0.0184785,0.120749,-0.124931,0.121265,-2.11916,0.558195,0.0842978,-0.0688553,0.00386681,-0.00146963,0.00764667,-0.0092452,0.800021,0.295702,-0.000776096,0.148413,-0.70801,-3.16046,-3.01793,3.13847,-3.03146,-0.0914075,1.32465,-28.0318,0.314344,26.1813,4.25232,0.679251,-0.0969389,
0.123533,-0.12594,0.12998,-2.11216,0.799817,0.114909,-0.0706686,0.00211054,0.00229261,0.0106585,0.00479334,0.309238,0.0313396,-0.0021007,0.14997,-0.154477,0.20925,0.0494938,-1.15629,3.60543,-0.0220041,0.328178,-0.241761,1.12467,1.10995,1.18923,1.82968,-0.0184785,0.120749,-0.124931,0.121265,-2.11916,0.558195,0.0842978,-0.0688553,0.00386681,-0.00146963,0.00764667,-0.0092452,0.800021,0.295702,-0.000776096,0,0,0,0,0,0,0,1.32465,-28.0318,0.314344,26.1813,4.25232,0.679251,-0.0969389,
0.123533,-0.12594,0.12998,-2.11216,0.799817,0.114909,-0.0706686,0.0023025,0.00209488,0.0109263,0.00485669,0.307758,0.0359545,-0.00212887,0.119976,-0.123582,0.1674,0.039595,-0.925029,2.88434,-0.0176033,0.328178,-0.241761,1.12467,1.10995,1.18923,1.82968,-0.0184785,0.120749,-0.124931,0.121265,-2.11916,0.558195,0.0842978,-0.0688553,0.00386681,-0.00146963,0.00764667,-0.0092452,0.800021,0.295702,-0.000776096,0,0,0,0,0,0,0,1.32465,-28.0318,0.314344,26.1813,4.25232,0.679251,-0.0969389,
0.165386,-0.12245,0.143019,-2.11402,0.293495,0.417639,-0.067633,0.00127842,0.00393654,0.00959817,0.00336218,0.347111,-0.00301233,-0.00211627,-0.640052,1.15104,-0.830081,-0.934068,24.5959,-24.3543,0.0078764,0.328178,-0.241761,1.12467,1.10995,1.18923,1.82968,-0.0184785,0.120749,-0.124931,0.121265,-2.11916,0.558195,0.0842978,-0.0688553,0.00386681,-0.00146963,0.00764667,-0.0092452,0.800021,0.295702,-0.000776096,0,0,0,0,0,0,0,1.32465,-28.0318,0.314344,26.1813,4.25232,0.679251,-0.0969389,
0.123443,-0.125281,0.130507,-2.11269,0.838814,0.117888,-0.0707253,0.0016899,0.00357872,0.010143,0.00353711,0.341821,0.00764996,-0.00216053,0.257176,-0.22364,0.340502,0.109332,-3.30641,6.66394,-0.0276619,0.328178,-0.241761,1.12467,1.10995,1.18923,1.82968,-0.0184785,0.120749,-0.124931,0.121265,-2.11916,0.558195,0.0842978,-0.0688553,0.00386681,-0.00146963,0.00764667,-0.0092452,0.800021,0.295702,-0.000776096,0,0,0,0,0,0,0,1.32465,-28.0318,0.314344,26.1813,4.25232,0.679251,-0.0969389,
0.123443,-0.125281,0.130507,-2.11269,0.838814,0.117888,-0.0707253,0.00201909,0.00329246,0.0105788,0.00367706,0.337589,0.0161798,-0.00219593,0.20574,-0.178912,0.272401,0.0874659,-2.64513,5.33115,-0.0221295,0.252214,-0.208201,1.05467,1.08527,1.13754,1.82569,-0.0176393,0.121169,-0.12482,0.122069,-2.11893,0.5776,0.0957331,-0.0688546,0.00729378,0.00206,0.0329748,0.00195323,0.521301,0.312524,-0.000140644,0.42837,0.441203,3.16602,1.3998,-34.8399,2.10277,0.0794315,-1.76983,-28.73,-2.43498,25.9314,3.15277,-0.0632418,-0.103348,
0.123443,-0.125281,0.130507,-2.11269,0.838814,0.117888,-0.0707253,0.00228243,0.00306345,0.0109275,0.00378902,0.334203,0.0230037,-0.00222426,0.164592,-0.14313,0.217921,0.0699728,-2.1161,4.26492,-0.0177036,0.252214,-0.208201,1.05467,1.08527,1.13754,1.82569,-0.0176393,0.121169,-0.12482,0.122069,-2.11893,0.5776,0.0957331,-0.0688546,0.00729378,0.00206,0.0329748,0.00195323,0.521301,0.312524,-0.000140644,0,0,0,0,0,0,0,-1.76983,-28.73,-2.43498,25.9314,3.15277,-0.0632418,-0.103348,
0.12305,-0.124759,0.122567,-2.11828,0.5712,0.106834,-0.0687384,0.0269901,0.00379968,0.0173003,0.0126233,0.14321,0.175917,-0.000676757,15.4423,0.460141,3.98301,5.52142,-119.371,95.5708,0.967188,7.70251,2.56632,0.319842,1.16524,-14.8614,11.7901,0.0265875,0.121169,-0.12482,0.122069,-2.11893,0.5776,0.0957331,-0.0688546,0.00729378,0.00206,0.0329748,0.00195323,0.521301,0.312524,-0.000140644,0,0,0,0,0,0,0,-1.76983,-28.73,-2.43498,25.9314,3.15277,-0.0632418,-0.103348,
0.124076,-0.124658,0.123018,-2.11788,0.563953,0.11413,-0.0686972,0.047241,0.00557173,0.0251274,0.0199757,-0.0666144,0.323116,0.000487626,12.6568,1.10753,4.89191,4.59528,-131.14,91.9996,0.72774,8.44149,4.59652,1.24893,2.10542,-14.8614,11.7901,0.0169573,0.121169,-0.12482,0.122069,-2.11893,0.5776,0.0957331,-0.0688546,0.00729378,0.00206,0.0329748,0.00195323,0.521301,0.312524,-0.000140644,0,0,0,0,0,0,0,-1.76983,-28.73,-2.43498,25.9314,3.15277,-0.0632418,-0.103348,
0.125084,-0.124524,0.123512,-2.11752,0.555211,0.122074,-0.0686536,0.0630004,0.00780805,0.0324474,0.0249731,-0.271851,0.457095,0.00148017,9.84959,1.3977,4.57502,3.12336,-128.273,83.7366,0.620343,8.88191,5.01262,2.40883,2.34221,-14.9327,11.7666,0.0299362,0.121081,-0.124756,0.122576,-2.11895,0.606625,0.103053,-0.0688553,0.00279873,0.00185017,0.0191618,0.00607127,0.892013,0.152929,-0.00135591,-0.561881,-0.0262284,-1.72662,0.514755,46.339,-19.9494,-0.151908,0.463749,-29.2299,-0.411669,27.677,3.29284,0.387198,-0.0969389,
0.126061,-0.124372,0.124007,-2.11721,0.545476,0.13043,-0.0686077,0.07482,0.010042,0.0383328,0.0277147,-0.460847,0.574581,0.00233203,7.38729,1.39622,3.67836,1.71348,-118.122,73.4288,0.532408,9.04726,4.55881,3.04515,2.45736,-14.9327,11.7666,0.0418372,0.121081,-0.124756,0.122576,-2.11895,0.606625,0.103053,-0.0688553,0.00279873,0.00185017,0.0191618,0.00607127,0.892013,0.152929,-0.00135591,0,0,0,0,0,0,0,0.463749,-29.2299,-0.411669,27.677,3.29284,0.387198,-0.0969389,
0.122233,-0.124736,0.124029,-2.11814,0.60335,0.112899,-0.0686473,0.0767758,0.0080072,0.0515919,0.0329604,-0.462051,0.605935,0.00408513,1.22239,-1.27175,8.28692,3.27857,-0.752529,19.5961,1.09569,3.80038,4.03626,7.84195,1.33381,-14.9327,11.7666,0.0709259,0.121081,-0.124756,0.122576,-2.11895,0.606625,0.103053,-0.0688553,0.00279873,0.00185017,0.0191618,0.00607127,0.892013,0.152929,-0.00135591,0,0,0,0,0,0,0,0.463749,-29.2299,-0.411669,27.677,3.29284,0.387198,-0.0969389,
0.122992,-0.124751,0.124953,-2.11775,0.596908,0.119948,-0.0685711,0.0803935,0.00603892,0.0643548,0.0360037,-0.530687,0.660973,0.00517254,2.26103,-1.23017,7.97683,1.90205,-42.8974,34.3986,0.679632,4.52444,3.95678,7.89357,1.50717,-14.9327,11.7666,0.0642871,0.121081,-0.124756,0.122576,-2.11895,0.606625,0.103053,-0.0688553,0.00279873,0.00185017,0.0191618,0.00607127,0.892013,0.152929,-0.00135591,0,0,0,0,0,0,0,0.463749,-29.2299,-0.411669,27.677,3.29284,0.387198,-0.0969389,
0.123769,-0.124768,0.125897,-2.11744,0.588688,0.127756,-0.068499,0.0837536,0.00440902,0.0751027,0.0366836,-0.630057,0.723973,0.00594126,2.10005,-1.01869,6.71744,0.42492,-62.1064,39.3753,0.480449,5.1016,3.63203,7.97583,1.28018,-15.0354,11.7716,0.071541,0.123972,-0.123472,0.122936,-2.11825,0.627022,0.119499,-0.0687744,0.193244,0.0340176,0.0264677,0.0110652,-0.0337002,1.04249,0.00701552,23.8056,4.02092,0.91323,0.624247,-115.714,111.196,1.04643,3.65741,-27.0598,3.73811,28.9465,0.484005,5.14794,-0.0905302,
0.124534,-0.12478,0.126834,-2.11719,0.579284,0.136038,-0.0684273,0.0861166,0.00323354,0.0835065,0.035489,-0.739134,0.786235,0.00654493,1.47689,-0.734675,5.25238,-0.746565,-68.1731,38.9138,0.377298,5.66146,2.94022,8.23953,1.16131,-15.0354,11.7716,0.0771556,0.123972,-0.123472,0.122936,-2.11825,0.627022,0.119499,-0.0687744,0.193244,0.0340176,0.0264677,0.0110652,-0.0337002,1.04249,0.00701552,0,0,0,0,0,0,0,3.65741,-27.0598,3.73811,28.9465,0.484005,5.14794,-0.0905302,
0.126546,-0.123176,0.125324,-2.11752,0.607694,0.145578,-0.0683775,0.0893745,0.00329658,0.0859654,0.0328081,-0.801683,0.851295,0.00852193,2.0362,0.0393979,1.53679,-1.67562,-39.0933,40.6622,1.23562,4.17778,3.80806,4.24088,-1.07458,-15.0354,11.7716,0.144364,0.123972,-0.123472,0.122936,-2.11825,0.627022,0.119499,-0.0687744,0.193244,0.0340176,0.0264677,0.0110652,-0.0337002,1.04249,0.00701552,0,0,0,0,0,0,0,3.65741,-27.0598,3.73811,28.9465,0.484005,5.14794,-0.0905302,
0.127336,-0.12318,0.126055,-2.11743,0.598149,0.154585,-0.0682447,0.0912444,0.00254,0.0870367,0.0285255,-0.87996,0.906227,0.010139,1.16868,-0.472864,0.669576,-2.67659,-48.9229,34.3327,1.01064,5.0887,3.08019,4.96431,-1.18836,-15.0354,11.7716,0.149295,0.123972,-0.123472,0.122936,-2.11825,0.627022,0.119499,-0.0687744,0.193244,0.0340176,0.0264677,0.0110652,-0.0337002,1.04249,0.00701552,0,0,0,0,0,0,0,3.65741,-27.0598,3.73811,28.9465,0.484005,5.14794,-0.0905302,
0.128104,-0.123199,0.126755,-2.11741,0.58784,0.163658,-0.0681107,0.092205,0.00155861,0.0871342,0.0232405,-0.961685,0.951805,0.0114615,0.600383,-0.613368,0.0609168,-3.30312,-51.0783,28.4859,0.826561,5.95679,3.59403,5.69036,-2.78405,-15.2682,11.1565,0.161751,0.128097,-0.122829,0.129601,-2.11628,0.587585,0.169561,-0.0683883,0.125162,-0.00946964,0.260839,0.0870501,-1.62371,1.45146,0.0159535,-8.51025,-5.4359,29.2964,9.49811,-198.751,51.1209,1.11725,0.487552,-25.8617,0.187391,22.4203,-0.871891,2.54235,-0.0703886,
0.128858,-0.123223,0.127432,-2.11746,0.577013,0.17276,-0.0679763,0.0926231,0.000641216,0.0866217,0.0174742,-1.04003,0.989001,0.0125271,0.261284,-0.57337,-0.320258,-3.60397,-48.9661,23.2474,0.666027,6.69368,2.92372,6.22897,-2.94325,-15.2682,11.1565,0.166351,0.128097,-0.122829,0.129601,-2.11628,0.587585,0.169561,-0.0683883,0.125162,-0.00946964,0.260839,0.0870501,-1.62371,1.45146,0.0159535,0,0,0,0,0,0,0,0.487552,-25.8617,0.187391,22.4203,-0.871891,2.54235,-0.0703886,
0.13381,-0.123537,0.134932,-2.11643,0.516498,0.227861,-0.0676908,0.09406,-0.00109323,0.0870764,0.00959855,-1.12498,1.01857,0.0130385,0.898101,-1.08403,0.284179,-4.92227,-53.0901,18.4809,0.319631,7.85732,1.90016,7.03646,-3.23674,-15.2682,11.1565,0.16982,0.128097,-0.122829,0.129601,-2.11628,0.587585,0.169561,-0.0683883,0.125162,-0.00946964,0.260839,0.0870501,-1.62371,1.45146,0.0159535,0,0,0,0,0,0,0,0.487552,-25.8617,0.187391,22.4203,-0.871891,2.54235,-0.0703886,
0.134595,-0.123587,0.135628,-2.11663,0.504772,0.23686,-0.0675721,0.0948679,-0.00213473,0.0870652,0.00259774,-1.19314,1.03983,0.0133971,0.504919,-0.650936,-0.00702005,-4.37551,-42.605,13.2869,0.224098,8.29781,1.54172,7.33718,-3.36468,-15.2682,11.1565,0.168937,0.128097,-0.122829,0.129601,-2.11628,0.587585,0.169561,-0.0683883,0.125162,-0.00946964,0.260839,0.0870501,-1.62371,1.45146,0.0159535,0,0,0,0,0,0,0,0.487552,-25.8617,0.187391,22.4203,-0.871891,2.54235,-0.0703886,
0.135372,-0.123627,0.136318,-2.11686,0.49304,0.245782,-0.0674568,0.0953379,-0.00270386,0.0868951,-0.00357214,-1.24781,1.05491,0.0136018,0.29373,-0.355705,-0.106334,-3.85617,-34.1643,9.42768,0.127968,8.42055,1.53792,7.34662,-3.62831,-15.0835,10.8903,0.169007,0.13531,-0.121807,0.13644,-2.11668,0.536969,0.224199,-0.0680903,0.162668,0.049832,0.299075,-0.0288888,-1.5193,1.61141,0.00867545,4.6883,7.41271,4.77953,-14.4924,13.0504,19.9942,-0.909762,-3.01159,-30.0789,-3.98619,28.3237,-0.267643,2.55608,0.0303194,
0.136147,-0.123659,0.137007,-2.1171,0.481309,0.254638,-0.0673457,0.0956286,-0.00296166,0.0867489,-0.00897575,-1.29153,1.06533,0.0136589,0.181675,-0.16113,-0.0913659,-3.37726,-27.3246,6.51292,0.0356601,8.70581,1.32903,7.5949,-3.72893,-15.0835,10.8903,0.165753,0.13531,-0.121807,0.13644,-2.11668,0.536969,0.224199,-0.0680903,0.162668,0.049832,0.299075,-0.0288888,-1.5193,1.61141,0.00867545,0,0,0,0,0,0,0,-3.01159,-30.0789,-3.98619,28.3237,-0.267643,2.55608,0.0303194,
0.141922,-0.121243,0.142727,-2.11805,0.467046,0.281588,-0.0674871,0.0986909,-0.00228601,0.0899448,-0.0140652,-1.32279,1.07093,0.0133254,1.91395,0.422284,1.99746,-3.18091,-19.54,3.49454,-0.208435,9.14887,1.02444,8.06508,-3.90926,-15.0835,10.8903,0.15819,0.13531,-0.121807,0.13644,-2.11668,0.536969,0.224199,-0.0680903,0.162668,0.049832,0.299075,-0.0288888,-1.5193,1.61141,0.00867545,0,0,0,0,0,0,0,-3.01159,-30.0789,-3.98619,28.3237,-0.267643,2.55608,0.0303194,
0.142785,-0.121249,0.143526,-2.11834,0.455457,0.290242,-0.0673945,0.100526,-0.00197099,0.0919457,-0.0184509,-1.34797,1.07311,0.0129734,1.14708,0.196888,1.25057,-2.74103,-15.7378,1.36382,-0.219979,9.34207,0.905211,8.25976,-3.99474,-15.0835,10.8903,0.154124,0.13531,-0.121807,0.13644,-2.11668,0.536969,0.224199,-0.0680903,0.162668,0.049832,0.299075,-0.0288888,-1.5193,1.61141,0.00867545,0,0,0,0,0,0,0,-3.01159,-30.0789,-3.98619,28.3237,-0.267643,2.55608,0.0303194,
0.143637,-0.121262,0.144312,-2.11864,0.443864,0.298833,-0.0673049,0.101721,-0.0019106,0.0931977,-0.022271,-1.36819,1.07324,0.0126203,0.746993,0.0377435,0.782505,-2.38758,-12.6406,0.0845907,-0.22069,9.333,1.46541,8.28146,-4.83131,-14.9972,10.3909,0.151772,0.144433,-0.121263,0.142639,-2.11753,0.47445,0.282874,-0.067742,0.229313,0.0104691,0.167955,-0.0367933,-1.95758,1.7336,0.000213048,8.33058,-4.92036,-16.3901,-0.988066,-54.7849,15.2727,-1.0578,-2.45221,-28.6824,-2.58574,24.4357,0.0317347,3.02666,0.138352,
0.151004,-0.121329,0.148973,-2.11934,0.387749,0.350141,-0.0672689,0.102116,-0.0024272,0.0942482,-0.0248574,-1.38531,1.06731,0.0118474,0.246795,-0.322877,0.656523,-1.61654,-10.6995,-3.70891,-0.483054,9.89674,1.08183,9.12666,-5.06133,-14.9972,10.3909,0.123413,0.144433,-0.121263,0.142639,-2.11753,0.47445,0.282874,-0.067742,0.229313,0.0104691,0.167955,-0.0367933,-1.95758,1.7336,0.000213048,0,0,0,0,0,0,0,-2.45221,-28.6824,-2.58574,24.4357,0.0317347,3.02666,0.138352,
0.151801,-0.121358,0.14974,-2.1196,0.376557,0.357905,-0.0672091,0.101618,-0.002658,0.0945788,-0.0264394,-1.38805,1.04793,0.0109733,-0.311279,-0.14425,0.206678,-0.988717,-1.71037,-12.1133,-0.546354,10.1164,0.932887,9.32641,-5.13413,-14.9972,10.3909,0.118776,0.144433,-0.121263,0.142639,-2.11753,0.47445,0.282874,-0.067742,0.229313,0.0104691,0.167955,-0.0367933,-1.95758,1.7336,0.000213048,0,0,0,0,0,0,0,-2.45221,-28.6824,-2.58574,24.4357,0.0317347,3.02666,0.138352,
0.152564,-0.121378,0.150482,-2.11985,0.366017,0.36501,-0.0671552,0.100349,-0.00262772,0.0942141,-0.0273444,-1.37395,1.01598,0.0101249,-0.79323,0.0189261,-0.227941,-0.565639,8.814,-19.97,-0.530195,10.295,0.775007,9.54223,-5.23493,-14.9972,10.3909,0.111799,0.144433,-0.121263,0.142639,-2.11753,0.47445,0.282874,-0.067742,0.229313,0.0104691,0.167955,-0.0367933,-1.95758,1.7336,0.000213048,0,0,0,0,0,0,0,-2.45221,-28.6824,-2.58574,24.4357,0.0317347,3.02666,0.138352,
0.153296,-0.121388,0.151201,-2.12008,0.356221,0.37144,-0.0671048,0.0985819,-0.00237214,0.0933402,-0.0277654,-1.34404,0.973525,0.00936111,-1.10448,0.159739,-0.546182,-0.263117,18.692,-26.5313,-0.477396,10.4574,0.661813,9.81616,-5.34473,-14.9972,10.3909,0.106763,0.144433,-0.121263,0.142639,-2.11753,0.47445,0.282874,-0.067742,0.229313,0.0104691,0.167955,-0.0367933,-1.95758,1.7336,0.000213048,0,0,0,0,0,0,0,-2.45221,-28.6824,-2.58574,24.4357,0.0317347,3.02666,0.138352,
0.157506,-0.120719,0.156755,-2.12251,0.33102,0.397438,-0.0671628,0.096126,-0.0015432,0.0919328,-0.0271834,-1.26462,0.895679,0.00848161,-1.53491,0.518085,-0.879647,0.363776,49.6387,-48.6537,-0.549682,10.5063,1.31,10.0264,-6.00079,-14.8462,9.06263,0.0969534,0.15112,-0.121093,0.150292,-2.12083,0.405723,0.344918,-0.0673883,0.318277,0.0158823,0.14559,-0.0889328,-2.1249,1.80585,0.00182901,11.1205,0.676641,-2.79559,-6.51744,-20.9143,9.03171,0.201995,-1.59131,-29.9519,-2.63732,26.0306,-0.0662268,2.79412,0.138352,
0.158178,-0.120704,0.157428,-2.12271,0.324184,0.401501,-0.067125,0.0937184,-0.000851466,0.0903663,-0.0266925,-1.18259,0.818118,0.00773029,-1.50475,0.432335,-0.97904,0.30681,51.2702,-48.4754,-0.469576,10.5408,1.53271,10.1316,-6.00356,-13.6855,7.90127,0.0921685,0.15112,-0.121093,0.150292,-2.12083,0.405723,0.344918,-0.0673883,0.318277,0.0158823,0.14559,-0.0889328,-2.1249,1.80585,0.00182901,0,0,0,0,0,0,0,-1.59131,-29.9519,-2.63732,26.0306,-0.0662268,2.79412,0.138352,
0.158839,-0.120687,0.158089,-2.1229,0.318023,0.405019,-0.0670896,0.0914902,-0.000247194,0.088816,-0.0263119,-1.1001,0.742455,0.00706783,-1.39265,0.37767,-0.968939,0.237864,51.5521,-47.2894,-0.414041,10.535,1.76988,10.2117,-5.97629,-12.5231,6.88628,0.0896903,0.15112,-0.121093,0.150292,-2.12083,0.405723,0.344918,-0.0673883,0.318277,0.0158823,0.14559,-0.0889328,-2.1249,1.80585,0.00182901,0,0,0,0,0,0,0,-1.59131,-29.9519,-2.63732,26.0306,-0.0662268,2.79412,0.138352,
0.159491,-0.120667,0.158741,-2.1231,0.312476,0.408053,-0.067057,0.08949,0.000293194,0.087364,-0.0260503,-1.01875,0.669803,0.00646993,-1.25009,0.337743,-0.907535,0.163478,50.8473,-45.4076,-0.373686,10.4744,1.98684,10.2325,-5.93331,-11.4697,5.985,0.0875324,0.15112,-0.121093,0.150292,-2.12083,0.405723,0.344918,-0.0673883,0.318277,0.0158823,0.14559,-0.0889328,-2.1249,1.80585,0.00182901,0,0,0,0,0,0,0,-1.59131,-29.9519,-2.63732,26.0306,-0.0662268,2.79412,0.138352,
0.164091,-0.1191,0.163695,-2.12637,0.282276,0.435361,-0.0673291,0.0859306,0.00107469,0.0842467,-0.0257151,-0.898485,0.573623,0.00563537,-2.22462,0.488436,-1.94832,0.209535,75.1642,-60.1128,-0.521601,9.76391,2.28247,9.69249,-5.47578,-7.64352,2.94892,0.071505,0.158801,-0.120004,0.158151,-2.12468,0.333467,0.404364,-0.0673507,0.206292,0.0305655,0.181661,-0.107178,-2.07331,1.51705,-0.000247692,-13.9981,1.83541,4.50886,-2.28061,6.44805,-36.0997,-0.259588,0.0828892,-30.9755,-1.41142,26.0068,4.32556,1.79986,0.124619,
0.164668,-0.119069,0.164272,-2.12657,0.279326,0.436589,-0.0673122,0.0831522,0.00163537,0.0818098,-0.025607,-0.792542,0.48958,0.00493047,-1.73652,0.350421,-1.52305,0.0675253,66.2143,-52.5271,-0.440558,9.53404,2.33348,9.48915,-5.42101,-6.96328,2.43994,0.066777,0.158801,-0.120004,0.158151,-2.12468,0.333467,0.404364,-0.0673507,0.206292,0.0305655,0.181661,-0.107178,-2.07331,1.51705,-0.000247692,0,0,0,0,0,0,0,0.0828892,-30.9755,-1.41142,26.0068,4.32556,1.79986,0.124619,
0.165245,-0.119039,0.16485,-2.12678,0.276711,0.437583,-0.067297,0.0809691,0.00206143,0.0798969,-0.0256636,-0.699405,0.41652,0.00432526,-1.36445,0.266291,-1.19555,-0.0353507,58.2111,-45.6619,-0.378259,9.29467,2.36225,9.2708,-5.36567,-6.34514,1.99554,0.0619906,0.158801,-0.120004,0.158151,-2.12468,0.333467,0.404364,-0.0673507,0.206292,0.0305655,0.181661,-0.107178,-2.07331,1.51705,-0.000247692,0,0,0,0,0,0,0,0.0828892,-30.9755,-1.41142,26.0068,4.32556,1.79986,0.124619,
0.165823,-0.119009,0.165428,-2.12699,0.274388,0.438386,-0.0672834,0.0792239,0.00240306,0.0783699,-0.0258318,-0.61759,0.353288,0.00380028,-1.09071,0.213517,-0.954367,-0.105164,51.134,-39.5204,-0.32811,9.05079,2.37348,9.04324,-5.31006,-5.78457,1.60757,0.057248,0.158801,-0.120004,0.158151,-2.12468,0.333467,0.404364,-0.0673507,0.206292,0.0305655,0.181661,-0.107178,-2.07331,1.51705,-0.000247692,0,0,0,0,0,0,0,0.0828892,-30.9755,-1.41142,26.0068,4.32556,1.79986,0.124619,
0.170083,-0.117494,0.169506,-2.13,0.254146,0.458427,-0.067428,0.0761401,0.00277513,0.0754656,-0.0258686,-0.517635,0.287717,0.00315524,-1.92738,0.232546,-1.81524,-0.0229563,62.4721,-40.982,-0.40315,8.04896,1.27016,8.02366,-3.83377,-2.82193,0.356208,0.0293483,0.164405,-0.118648,0.163651,-2.12794,0.278624,0.445083,-0.0673595,0.140892,0.0619586,0.156201,-0.0710854,-1.16692,0.875704,-0.000384706,-8.17508,3.92413,-3.18247,4.51154,113.299,-80.1685,-0.0171267,4.89917,-30.9517,2.78596,24.5111,5.4425,0.0292265,0.11821,
0.170589,-0.11746,0.170013,-2.13021,0.253313,0.458588,-0.067424,0.0735589,0.00307403,0.0730327,-0.0259225,-0.434933,0.234182,0.00262512,-1.61329,0.18681,-1.52053,-0.0336911,51.689,-33.4591,-0.331324,7.83229,1.23623,7.81186,-3.77432,-2.55726,0.24492,0.0264436,0.164405,-0.118648,0.163651,-2.12794,0.278624,0.445083,-0.0673595,0.140892,0.0619586,0.156201,-0.0710854,-1.16692,0.875704,-0.000384706,0,0,0,0,0,0,0,4.89917,-30.9517,2.78596,24.5111,5.4425,0.0292265,0.11821,
0.17109,-0.117425,0.170514,-2.13042,0.252574,0.45872,-0.0674205,0.071351,0.0033243,0.0709495,-0.0259658,-0.36641,0.190649,0.00218744,-1.37991,0.156418,-1.30203,-0.0270936,42.8264,-27.2081,-0.273552,7.62179,1.20248,7.60564,-3.7145,-2.3205,0.156389,0.0237952,0.164405,-0.118648,0.163651,-2.12794,0.278624,0.445083,-0.0673595,0.140892,0.0619586,0.156201,-0.0710854,-1.16692,0.875704,-0.000384706,0,0,0,0,0,0,0,4.89917,-30.9517,2.78596,24.5111,5.4425,0.0292265,0.11821,
0.171583,-0.11739,0.171008,-2.13062,0.251918,0.458835,-0.0674175,0.0694164,0.00353896,0.0691205,-0.025979,-0.30954,0.155398,0.00182456,-1.20915,0.134166,-1.14308,-0.00821105,35.5438,-22.0321,-0.226801,7.41726,1.16937,7.40509,-3.65429,-2.10943,0.0888433,0.0214226,0.164405,-0.118648,0.163651,-2.12794,0.278624,0.445083,-0.0673595,0.140892,0.0619586,0.156201,-0.0710854,-1.16692,0.875704,-0.000384706,0,0,0,0,0,0,0,4.89917,-30.9517,2.78596,24.5111,5.4425,0.0292265,0.11821,
0.164991,-0.117852,0.164387,-2.1287,0.27331,0.449477,-0.0674719,0.0701829,0.0227533,0.0736964,-0.039659,-0.380497,0.234173,-0.00135066,0.479099,12.009,2.85993,-8.55003,-44.3478,49.2347,-1.98451,-0.0250071,26.0466,0.758431,-23.1118,-1.55866,-2.12334,0.00123157,0.16853,-0.117491,0.167669,-2.12987,0.253518,0.461601,-0.0673579,0.118171,0.0101998,0.122102,-0.0422877,-0.208295,0.218698,0.0023879,-2.84013,-6.46985,-4.26244,3.59971,119.828,-82.1257,0.346576,4.62146,-29.3053,4.21419,23.5669,0.685421,2.00493,0.0303194,
0.165521,-0.117242,0.164958,-2.12915,0.269323,0.452108,-0.0674859,0.0694018,0.0334299,0.0732463,-0.0430691,-0.404055,0.253102,-0.00143122,-0.488212,6.67288,-0.281295,-2.13131,-14.7237,11.8303,-0.0503528,8.13411,0.798843,8.08558,-3.26036,-2.2758,0.332067,0.024132,0.16853,-0.117491,0.167669,-2.12987,0.253518,0.461601,-0.0673579,0.118171,0.0101998,0.122102,-0.0422877,-0.208295,0.218698,0.0023879,0,0,0,0,0,0,0,4.62146,-29.3053,4.21419,23.5669,0.685421,2.00493,0.0303194,
0.166013,-0.116803,0.165471,-2.12951,0.26624,0.453768,-0.0674885,0.0678119,0.037733,0.0714245,-0.0433788,-0.400316,0.243986,-0.00120919,-0.993652,2.68945,-1.13866,-0.193573,2.33656,-5.69729,0.138771,7.92361,0.765094,7.87936,-3.20054,-2.03905,0.243547,0.0214838,0.16853,-0.117491,0.167669,-2.12987,0.253518,0.461601,-0.0673579,0.118171,0.0101998,0.122102,-0.0422877,-0.208295,0.218698,0.0023879,0,0,0,0,0,0,0,4.62146,-29.3053,4.21419,23.5669,0.685421,2.00493,0.0303194,
0.166493,-0.116485,0.165963,-2.12983,0.263768,0.454847,-0.0674856,0.0662586,0.0381225,0.0694264,-0.0426085,-0.382054,0.222172,-0.000893694,-0.970844,0.243395,-1.24881,0.481475,11.4139,-13.6341,0.197183,7.71907,0.731989,7.67881,-3.14033,-1.82797,0.17601,0.0191112,0.16853,-0.117491,0.167669,-2.12987,0.253518,0.461601,-0.0673579,0.118171,0.0101998,0.122102,-0.0422877,-0.208295,0.218698,0.0023879,0,0,0,0,0,0,0,4.62146,-29.3053,4.21419,23.5669,0.685421,2.00493,0.0303194,
0.173969,-0.117197,0.17317,-2.13158,0.247813,0.464481,-0.0673713,0.0651808,0.0311649,0.0677728,-0.0388498,-0.314775,0.180386,-0.000690776,-0.673591,-4.34851,-1.03348,2.34917,42.0493,-26.1162,0.126824,6.79798,0.60341,6.78141,-2.85392,-1.03919,0.0104676,0.010448,0.172387,-0.117138,0.17176,-2.13101,0.242121,0.465931,-0.0673709,0.0868273,0.00221309,0.180882,-0.044053,-0.355986,0.129303,-0.00191192,-3.91791,-0.998339,7.34756,-0.220657,-18.4614,-11.1745,-0.537478,0.0313145,-26.0362,-0.859972,22.1704,0.251461,2.98638,0.0907442,
0.17444,-0.117168,0.173643,-2.13177,0.247479,0.464592,-0.0673705,0.0639146,0.0256486,0.0660459,-0.0358006,-0.260176,0.147092,-0.000532184,-0.791385,-3.44765,-1.07937,1.90577,34.1248,-20.8082,0.0991199,6.62271,0.582264,6.60858,-2.7932,-0.933733,0.0144878,0.00924102,0.172387,-0.117138,0.17176,-2.13101,0.242121,0.465931,-0.0673709,0.0868273,0.00221309,0.180882,-0.044053,-0.355986,0.129303,-0.00191192,0,0,0,0,0,0,0,0.0313145,-26.0362,-0.859972,22.1704,0.251461,2.98638,0.0907442,
0.174896,-0.117138,0.174101,-2.13195,0.247173,0.464712,-0.0673698,0.0625277,0.0212785,0.0642909,-0.0333016,-0.215801,0.120685,-0.000409348,-0.866834,-2.7313,-1.09685,1.56189,27.7338,-16.5047,0.0767725,6.45111,0.563491,6.43919,-2.73264,-0.839864,0.0239545,0.00816101,0.172387,-0.117138,0.17176,-2.13101,0.242121,0.465931,-0.0673709,0.0868273,0.00221309,0.180882,-0.044053,-0.355986,0.129303,-0.00191192,0,0,0,0,0,0,0,0.0313145,-26.0362,-0.859972,22.1704,0.251461,2.98638,0.0907442,
0.176231,-0.116935,0.175713,-2.13231,0.237403,0.466987,-0.0674403,0.0627084,0.0178309,0.064246,-0.0314731,-0.181409,0.0977171,-0.000364331,0.112936,-2.15475,-0.0280409,1.14278,21.4952,-14.3549,0.0281354,5.95847,0.525163,5.95379,-2.56315,-0.72312,0.0254068,0.00554957,0.172387,-0.117138,0.17176,-2.13101,0.242121,0.465931,-0.0673709,0.0868273,0.00221309,0.180882,-0.044053,-0.355986,0.129303,-0.00191192,0,0,0,0,0,0,0,0.0313145,-26.0362,-0.859972,22.1704,0.251461,2.98638,0.0907442,
0.176711,-0.116903,0.176197,-2.1325,0.237088,0.467044,-0.0674411,0.0621774,0.0150886,0.0635127,-0.0298976,-0.153004,0.0795784,-0.000311257,-0.331861,-1.71398,-0.458342,0.984705,17.7534,-11.3367,0.0331717,5.80195,0.472406,5.81006,-2.45767,-0.625309,0.0486077,0.00484647,0.177355,-0.11698,0.1769,-2.13271,0.232231,0.47125,-0.0673697,0.0927846,-0.00194919,0.202416,-0.0445507,-0.162599,0.093509,0.000813239,0.744662,-0.520285,2.69174,-0.062224,24.1733,-4.4742,0.340644,-0.246395,-27.3335,-1.33605,24.5111,1.02691,3.17864,0.0376436,
0.177169,-0.116869,0.176659,-2.13269,0.236796,0.467115,-0.0674415,0.0611839,0.0129118,0.0623445,-0.0285264,-0.129696,0.0654359,-0.000260541,-0.620949,-1.36048,-0.730133,0.856971,14.5673,-8.83903,0.0316974,5.64422,0.463569,5.65355,-2.39862,-0.574362,0.0722181,0.00425572,0.177355,-0.11698,0.1769,-2.13271,0.232231,0.47125,-0.0673697,0.0927846,-0.00194919,0.202416,-0.0445507,-0.162599,0.093509,0.000813239,0,0,0,0,0,0,0,-0.246395,-27.3335,-1.33605,24.5111,1.02691,3.17864,0.0376436,
0.177607,-0.116835,0.1771,-2.13287,0.236521,0.467203,-0.0674418,0.0598948,0.0111859,0.0609078,-0.0273177,-0.110637,0.0545513,-0.000216408,-0.805706,-1.07865,-0.897883,0.755476,11.912,-6.80286,0.0275832,5.48848,0.456403,5.49881,-2.34,-0.529576,0.0961509,0.0037291,0.177355,-0.11698,0.1769,-2.13271,0.232231,0.47125,-0.0673697,0.0927846,-0.00194919,0.202416,-0.0445507,-0.162599,0.093509,0.000813239,0,0,0,0,0,0,0,-0.246395,-27.3335,-1.33605,24.5111,1.02691,3.17864,0.0376436,
0.182632,-0.116826,0.182309,-2.13417,0.226199,0.470489,-0.0674362,0.0575162,0.00957951,0.0584603,-0.0254807,-0.106353,0.0413416,-0.000210857,-1.48661,-1.00402,-1.52972,1.1481,2.6774,-8.25607,0.00346909,4.78816,0.479708,4.81483,-2.1368,-1.10683,-0.164237,0.00152726,0.177355,-0.11698,0.1769,-2.13271,0.232231,0.47125,-0.0673697,0.0927846,-0.00194919,0.202416,-0.0445507,-0.162599,0.093509,0.000813239,0,0,0,0,0,0,0,-0.246395,-27.3335,-1.33605,24.5111,1.02691,3.17864,0.0376436,
0.182992,-0.116799,0.182674,-2.13431,0.225463,0.470419,-0.0674375,0.0550101,0.00835058,0.0558893,-0.0239219,-0.103482,0.0313176,-0.000201686,-1.56632,-0.76808,-1.6069,0.974276,1.79408,-6.26501,0.00573224,4.64513,0.426998,4.68382,-2.05889,-1.0778,-0.130693,0.00123417,0.18201,-0.116963,0.181207,-2.13372,0.229244,0.472351,-0.0673691,0.0702064,-0.00589617,0.203038,-0.0229782,-0.0444929,0.0210643,0.000192623,-2.82228,-0.493373,0.077761,2.69657,14.7633,-9.05559,-0.077577,-0.0718349,-27.7342,-0.812364,24.2612,0.422665,3.10631,0.0303194,
0.183331,-0.11677,0.183018,-2.13444,0.224708,0.47037,-0.0674387,0.0524771,0.00741286,0.0532965,-0.0225793,-0.10165,0.0238143,-0.000191494,-1.58313,-0.586078,-1.62048,0.839088,1.14503,-4.68954,0.00636977,4.49894,0.426456,4.53732,-2.00262,-1.06764,-0.104192,0.00102768,0.18201,-0.116963,0.181207,-2.13372,0.229244,0.472351,-0.0673691,0.0702064,-0.00589617,0.203038,-0.0229782,-0.0444929,0.0210643,0.000192623,0,0,0,0,0,0,0,-0.0718349,-27.7342,-0.812364,24.2612,0.422665,3.10631,0.0303194,
0.183651,-0.116739,0.183342,-2.13458,0.223939,0.470339,-0.0674398,0.04998,0.00669823,0.0507451,-0.0214051,-0.100557,0.0182919,-0.00018197,-1.56064,-0.446645,-1.59463,0.733886,0.683545,-3.45153,0.00595222,4.35356,0.426491,4.39146,-1.9468,-1.06066,-0.0789363,0.000843474,0.18201,-0.116963,0.181207,-2.13372,0.229244,0.472351,-0.0673691,0.0702064,-0.00589617,0.203038,-0.0229782,-0.0444929,0.0210643,0.000192623,0,0,0,0,0,0,0,-0.0718349,-27.7342,-0.812364,24.2612,0.422665,3.10631,0.0303194,
0.183718,-0.117033,0.182973,-2.13382,0.227567,0.47056,-0.0673877,0.0598584,0.00433477,0.0609355,-0.0183243,-0.104006,-0.0129559,-0.000383227,6.17397,-1.47716,6.36902,1.92548,-2.15566,-19.5299,-0.125785,5.1853,0.770535,5.28707,-2.55821,-2.07354,-2.35563,-0.00405928,0.18201,-0.116963,0.181207,-2.13372,0.229244,0.472351,-0.0673691,0.0702064,-0.00589617,0.203038,-0.0229782,-0.0444929,0.0210643,0.000192623,0,0,0,0,0,0,0,-0.0718349,-27.7342,-0.812364,24.2612,0.422665,3.10631,0.0303194,
0.184419,-0.117077,0.183689,-2.13389,0.226459,0.469242,-0.0673946,0.065403,0.00237143,0.0666512,-0.0164631,-0.110908,-0.0432992,-0.000478227,3.46538,-1.22709,3.57228,1.16327,-4.31376,-18.9646,-0.0593753,5.09608,0.764772,5.20465,-2.48997,-2.11376,-2.24892,-0.00248073,0.18201,-0.116963,0.181207,-2.13372,0.229244,0.472351,-0.0673691,0.0702064,-0.00589617,0.203038,-0.0229782,-0.0444929,0.0210643,0.000192623,0,0,0,0,0,0,0,-0.0718349,-27.7342,-0.812364,24.2612,0.422665,3.10631,0.0303194,
0.185047,-0.117115,0.184331,-2.13398,0.225214,0.467817,-0.0673993,0.0680335,0.000952611,0.069376,-0.0155856,-0.119849,-0.0702705,-0.000501543,1.64405,-0.886765,1.70303,0.548444,-5.58807,-16.857,-0.0145724,4.98903,0.731303,5.1095,-2.42679,-2.13634,-2.1553,-0.0014463,0.186237,-0.116552,0.18517,-2.13433,0.225803,0.472552,-0.0673676,0.0704294,0.0228014,0.168217,-0.0124128,-0.0816032,0.0109243,0.000427241,0.0278723,3.58719,-4.35266,1.32067,-4.63878,-1.26749,0.0293274,-0.603451,-29.2537,-1.33605,24.4357,0.484005,2.9937,0.017502,
0.185619,-0.117142,0.184916,-2.1341,0.223857,0.466345,-0.0674026,0.0687272,8.82884e-05,0.0701205,-0.0153816,-0.129817,-0.0930126,-0.000483877,0.433602,-0.540202,0.465314,0.127503,-6.23008,-14.2138,0.0110417,4.87447,0.7207,4.99617,-2.36183,-2.16472,-2.06296,-0.000725034,0.186237,-0.116552,0.18517,-2.13433,0.225803,0.472552,-0.0673676,0.0704294,0.0228014,0.168217,-0.0124128,-0.0816032,0.0109243,0.000427241,0,0,0,0,0,0,0,-0.603451,-29.2537,-1.33605,24.4357,0.484005,2.9937,0.017502,
0.186928,-0.116018,0.185931,-2.13501,0.225553,0.472857,-0.0673993,0.0722384,0.0134135,0.0751443,-0.0293559,-0.110121,-0.0667836,-0.00117989,2.19446,8.32828,3.13985,-8.73393,12.31,16.3931,-0.435008,0.00148951,25.9379,0.825144,-23.0641,-1.45405,-2.15833,0.00114977,0.186237,-0.116552,0.18517,-2.13433,0.225803,0.472552,-0.0673676,0.0704294,0.0228014,0.168217,-0.0124128,-0.0816032,0.0109243,0.000427241,0,0,0,0,0,0,0,-0.603451,-29.2537,-1.33605,24.4357,0.484005,2.9937,0.017502,
0.187579,-0.115558,0.186627,-2.1352,0.224401,0.470474,-0.0673914,0.0740686,0.022242,0.0774931,-0.0281418,-0.116879,-0.113,-0.000745594,1.14391,5.51778,1.46803,0.758798,-4.22424,-28.885,0.271435,7.12858,3.6006,7.63738,-5.84036,-2.6802,-8.12534,-0.003052,0.186237,-0.116552,0.18517,-2.13433,0.225803,0.472552,-0.0673676,0.0704294,0.0228014,0.168217,-0.0124128,-0.0816032,0.0109243,0.000427241,0,0,0,0,0,0,0,-0.603451,-29.2537,-1.33605,24.4357,0.484005,2.9937,0.017502,
0.188201,-0.115224,0.187289,-2.13536,0.222835,0.466905,-0.0673816,0.0748196,0.0261325,0.0785666,-0.0265006,-0.132655,-0.179628,-0.00035062,0.469345,2.43157,0.67092,1.02578,-9.85991,-41.6425,0.246859,7.25375,3.43516,7.78724,-5.62297,-2.73442,-7.3895,0.00911876,0.189885,-0.116905,0.189066,-2.13477,0.220544,0.468772,-0.0673714,0.135868,-0.0269176,0.104453,-0.0250483,-0.154718,-0.155398,-0.00078652,8.17984,-6.21488,-7.97046,-1.57943,-9.13941,-20.7903,-0.15172,0.360599,-26.5599,-0.33629,23.0432,0.550839,2.20452,0.050461,
0.188809,-0.114973,0.187936,-2.13558,0.221052,0.4628,-0.0673682,0.0750491,0.0271808,0.0790129,-0.0267722,-0.150714,-0.246327,5.26671e-05,0.143458,0.655155,0.27894,-0.16977,-11.2866,-41.6874,0.252054,7.24277,3.22591,7.77246,-5.45848,-2.73218,-6.75988,0.0162496,0.189885,-0.116905,0.189066,-2.13477,0.220544,0.468772,-0.0673714,0.135868,-0.0269176,0.104453,-0.0250483,-0.154718,-0.155398,-0.00078652,0,0,0,0,0,0,0,0.360599,-26.5599,-0.33629,23.0432,0.550839,2.20452,0.050461,
0.191617,-0.117452,0.190834,-2.13504,0.216509,0.460837,-0.0673136,0.0811118,0.0147312,0.0847857,-0.026205,-0.173598,-0.307967,0.000748385,3.78918,-7.78099,3.60802,0.354512,-14.3026,-38.5247,0.434824,9.72628,-0.124013,10.0566,-9.50605,-3.77117,-10.0912,0.0355105,0.189885,-0.116905,0.189066,-2.13477,0.220544,0.468772,-0.0673714,0.135868,-0.0269176,0.104453,-0.0250483,-0.154718,-0.155398,-0.00078652,0,0,0,0,0,0,0,0.360599,-26.5599,-0.33629,23.0432,0.550839,2.20452,0.050461,
0.192428,-0.117698,0.191664,-2.13536,0.2144,0.456093,-0.0672891,0.085154,0.00563631,0.0885945,-0.02912,-0.191615,-0.364972,0.00121017,2.52639,-5.68429,2.38047,-1.82189,-11.2605,-35.6282,0.288613,9.42834,0.609027,9.75506,-8.98208,-3.38874,-8.69216,0.040313,0.189885,-0.116905,0.189066,-2.13477,0.220544,0.468772,-0.0673714,0.135868,-0.0269176,0.104453,-0.0250483,-0.154718,-0.155398,-0.00078652,0,0,0,0,0,0,0,0.360599,-26.5599,-0.33629,23.0432,0.550839,2.20452,0.050461,
0.193213,-0.117889,0.19247,-2.13581,0.21239,0.451384,-0.0672666,0.0877722,-0.000260616,0.0910196,-0.0343466,-0.203527,-0.409701,0.00153237,1.63636,-3.68558,1.51569,-3.26659,-7.44505,-27.9554,0.201379,9.2468,0.967847,9.56083,-8.55509,-2.92928,-7.46791,0.0373238,0.191701,-0.116977,0.194015,-2.13564,0.213867,0.457546,-0.067368,0.115793,-0.00275399,0.0954255,0.00569611,-0.225502,-0.689441,0.000678985,-2.50941,3.02045,-1.12847,3.84305,-8.84793,-66.7553,0.183188,2.16175,-24.7627,1.13954,18.6078,-0.0112951,-0.401071,0.017502,
0.193321,-0.117255,0.19567,-2.13639,0.209797,0.446375,-0.0673122,0.0902426,-0.00358706,0.093343,-0.0389745,-0.214258,-0.466332,0.00190786,1.54403,-2.07903,1.45213,-2.89245,-6.70719,-35.3943,0.234681,9.53702,0.612146,9.87799,-8.98262,-3.32935,-8.6509,0.0399577,0.191701,-0.116977,0.194015,-2.13564,0.213867,0.457546,-0.067368,0.115793,-0.00275399,0.0954255,0.00569611,-0.225502,-0.689441,0.000678985,0,0,0,0,0,0,0,2.16175,-24.7627,1.13954,18.6078,-0.0112951,-0.401071,0.017502,
0.194106,-0.117349,0.196476,-2.13696,0.207802,0.441098,-0.0672876,0.0918092,-0.00522227,0.0948198,-0.0452245,-0.221283,-0.50499,0.00214322,0.979083,-1.02201,0.923001,-3.90628,-4.39059,-24.1614,0.147097,9.2468,0.967847,9.56083,-8.55509,-2.92928,-7.46791,0.0373238,0.191701,-0.116977,0.194015,-2.13564,0.213867,0.457546,-0.067368,0.115793,-0.00275399,0.0954255,0.00569611,-0.225502,-0.689441,0.000678985,0,0,0,0,0,0,0,2.16175,-24.7627,1.13954,18.6078,-0.0112951,-0.401071,0.017502,
0.194874,-0.117399,0.197266,-2.13759,0.205916,0.436203,-0.0672641,0.0926659,-0.00544446,0.0956132,-0.0520004,-0.224181,-0.52636,0.0023008,0.535457,-0.138868,0.495907,-4.23493,-1.81134,-13.3563,0.0984924,9.00973,1.00319,9.29481,-8.24431,-2.59905,-6.42304,0.0348532,0.191701,-0.116977,0.194015,-2.13564,0.213867,0.457546,-0.067368,0.115793,-0.00275399,0.0954255,0.00569611,-0.225502,-0.689441,0.000678985,0,0,0,0,0,0,0,2.16175,-24.7627,1.13954,18.6078,-0.0112951,-0.401071,0.017502,
0.195628,-0.117414,0.198041,-2.13827,0.204154,0.431757,-0.0672413,0.0929658,-0.00472662,0.095864,-0.0586766,-0.223386,-0.532246,0.00241186,0.187443,0.448645,0.156718,-4.17262,0.497185,-3.67865,0.0694116,8.81024,0.851371,9.06925,-8.01986,-2.33526,-5.48962,0.0335196,0.191701,-0.116977,0.194015,-2.13564,0.213867,0.457546,-0.067368,0.115793,-0.00275399,0.0954255,0.00569611,-0.225502,-0.689441,0.000678985,0,0,0,0,0,0,0,2.16175,-24.7627,1.13954,18.6078,-0.0112951,-0.401071,0.017502,
0.19252,-0.11712,0.194849,-2.13593,0.211855,0.451918,-0.0673395,0.0948474,-0.00733598,0.0975417,-0.0543411,-0.229025,-0.566503,0.00264094,1.17598,-1.63085,1.04859,2.70967,-3.52444,-21.4107,0.143171,9.53702,0.612146,9.87799,-8.98262,-3.32935,-8.6509,0.0399577,0.191701,-0.116977,0.194015,-2.13564,0.213867,0.457546,-0.067368,0.115793,-0.00275399,0.0954255,0.00569611,-0.225502,-0.689441,0.000678985,0,0,0,0,0,0,0,2.16175,-24.7627,1.13954,18.6078,-0.0112951,-0.401071,0.017502,
0.193321,-0.117255,0.19567,-2.13639,0.209797,0.446375,-0.0673122,0.0959028,-0.00924735,0.0985607,-0.0549701,-0.234657,-0.591773,0.00279471,0.659634,-1.1946,0.636857,-0.39313,-3.51991,-15.7941,0.0961105,9.2468,0.967847,9.56083,-8.55509,-2.92928,-7.46791,0.0373238,0.191701,-0.116977,0.194015,-2.13564,0.213867,0.457546,-0.067368,0.115793,-0.00275399,0.0954255,0.00569611,-0.225502,-0.689441,0.000678985,0,0,0,0,0,0,0,2.16175,-24.7627,1.13954,18.6078,-0.0112951,-0.401071,0.017502,
0.194106,-0.117349,0.196476,-2.13696,0.207802,0.441098,-0.0672876,0.0963373,-0.0097505,0.098994,-0.0580211,-0.237602,-0.605343,0.0028527,0.271564,-0.314471,0.270786,-1.90682,-1.84077,-8.48115,0.0362401,9.00973,1.00319,9.29481,-8.24431,-2.59905,-6.42304,0.0348532,0.191701,-0.116977,0.194015,-2.13564,0.213867,0.457546,-0.067368,0.115793,-0.00275399,0.0954255,0.00569611,-0.225502,-0.689441,0.000678985,0,0,0,0,0,0,0,2.16175,-24.7627,1.13954,18.6078,-0.0112951,-0.401071,0.017502,
0.194874,-0.117399,0.197266,-2.13759,0.205916,0.436203,-0.0672641,0.0962884,-0.00906704,0.0989526,-0.0622376,-0.237236,-0.606643,0.00286839,-0.0305583,0.427161,-0.0258656,-2.63536,0.228513,-0.812119,0.00980723,8.99065,0.844826,9.26709,-7.95026,-2.24579,-5.3577,0.0326181,0.19651,-0.117542,0.198635,-2.1377,0.203558,0.426634,-0.067368,0.118235,-0.00165328,0.188153,-0.0824528,-0.328088,-0.986069,-0.00153845,0.305222,0.137588,11.5909,-11.0186,-12.8233,-37.0786,-0.27718,5.0539,-27.9802,4.2856,21.972,0.764157,1.57464,0.0641939,
0.197605,-0.11755,0.199779,-2.13845,0.201114,0.419116,-0.0673495,0.104395,-0.00745964,0.107766,-0.068516,-0.250883,-0.673257,0.00275809,5.06664,1.00462,5.50845,-3.924,-8.52904,-41.6342,-0.0689393,9.71744,0.605601,10.0758,-8.91302,-3.23988,-8.51898,0.0390562,0.19651,-0.117542,0.198635,-2.1377,0.203558,0.426634,-0.067368,0.118235,-0.00165328,0.188153,-0.0824528,-0.328088,-0.986069,-0.00153845,0,0,0,0,0,0,0,5.0539,-27.9802,4.2856,21.972,0.764157,1.57464,0.0641939,
0.198619,-0.117523,0.20083,-2.13924,0.198875,0.412131,-0.0673298,0.108866,-0.00529535,0.112505,-0.0746342,-0.25668,-0.713244,0.00269756,2.79422,1.35269,2.96186,-3.82388,-3.6229,-24.9916,-0.0378318,9.42722,0.961302,9.75867,-8.48548,-2.83981,-7.33599,0.0364223,0.19651,-0.117542,0.198635,-2.1377,0.203558,0.426634,-0.067368,0.118235,-0.00165328,0.188153,-0.0824528,-0.328088,-0.986069,-0.00153845,0,0,0,0,0,0,0,5.0539,-27.9802,4.2856,21.972,0.764157,1.57464,0.0641939,
0.199566,-0.11746,0.201812,-2.14006,0.196827,0.405767,-0.06731,0.110771,-0.00265699,0.11454,-0.0801795,-0.256542,-0.729691,0.00265211,1.19048,1.64898,1.27188,-3.46576,0.086248,-10.2793,-0.0284038,9.19014,0.996646,9.49265,-8.17471,-2.50958,-6.29112,0.0339517,0.19651,-0.117542,0.198635,-2.1377,0.203558,0.426634,-0.067368,0.118235,-0.00165328,0.188153,-0.0824528,-0.328088,-0.986069,-0.00153845,0,0,0,0,0,0,0,5.0539,-27.9802,4.2856,21.972,0.764157,1.57464,0.0641939,
0.203483,-0.118085,0.206302,-2.14306,0.191065,0.387334,-0.0673542,0.122581,-0.00398187,0.127433,-0.0847675,-0.263958,-0.779504,0.00240992,7.38182,-0.828053,8.05816,-2.86754,-4.63509,-31.1334,-0.151369,9.79016,0.423504,10.1672,-8.72319,-3.18118,-8.35754,0.0379716,0.202125,-0.118011,0.20487,-2.14223,0.193414,0.395165,-0.0673658,0.123905,-0.0190578,0.273835,-0.103934,-0.329301,-1.02939,0.000347243,0.708777,-2.17556,10.7103,-2.68508,-0.151637,-5.41498,0.235712,3.02265,-26.8099,1.96077,22.1188,0.660702,1.14342,0.0440523,
0.204697,-0.118098,0.207564,-2.14389,0.188984,0.380115,-0.0673411,0.128414,-0.00351006,0.133493,-0.0886781,-0.263187,-0.804084,0.00225673,3.64551,0.294883,3.78749,-2.4441,0.481505,-15.3624,-0.0957425,9.49993,0.779205,9.85004,-8.29565,-2.78111,-7.17455,0.0353377,0.202125,-0.118011,0.20487,-2.14223,0.193414,0.395165,-0.0673658,0.123905,-0.0190578,0.273835,-0.103934,-0.329301,-1.02939,0.000347243,0,0,0,0,0,0,0,3.02265,-26.8099,1.96077,22.1188,0.660702,1.14342,0.0440523,
0.205794,-0.118064,0.208702,-2.14474,0.187109,0.373593,-0.0673258,0.130147,-0.00194214,0.135254,-0.0920484,-0.257446,-0.806315,0.00218631,1.08287,0.979952,1.10028,-2.10647,3.58828,-1.39405,-0.0440133,9.26286,0.814549,9.58401,-7.98487,-2.45088,-6.12968,0.0328671,0.202125,-0.118011,0.20487,-2.14223,0.193414,0.395165,-0.0673658,0.123905,-0.0190578,0.273835,-0.103934,-0.329301,-1.02939,0.000347243,0,0,0,0,0,0,0,3.02265,-26.8099,1.96077,22.1188,0.660702,1.14342,0.0440523,
0.206799,-0.117998,0.209745,-2.14559,0.185392,0.36779,-0.0673088,0.129247,9.27741e-05,0.134268,-0.0948707,-0.24887,-0.790132,0.0021746,-0.562246,1.27182,-0.616184,-1.76394,5.3601,10.1139,-0.00732046,9.06337,0.662729,9.35845,-7.76043,-2.18709,-5.19626,0.0315335,0.202125,-0.118011,0.20487,-2.14223,0.193414,0.395165,-0.0673658,0.123905,-0.0190578,0.273835,-0.103934,-0.329301,-1.02939,0.000347243,0,0,0,0,0,0,0,3.02265,-26.8099,1.96077,22.1188,0.660702,1.14342,0.0440523,
0.203483,-0.118085,0.206302,-2.14306,0.191065,0.387334,-0.0673542,0.137363,-0.00178206,0.143215,-0.0965205,-0.25782,-0.827857,0.00202791,5.07223,-1.17177,5.59221,-1.03113,-5.59405,-23.5782,-0.0916803,9.79016,0.423504,10.1672,-8.72319,-3.18118,-8.35754,0.0379716,0.202125,-0.118011,0.20487,-2.14223,0.193414,0.395165,-0.0673658,0.123905,-0.0190578,0.273835,-0.103934,-0.329301,-1.02939,0.000347243,0,0,0,0,0,0,0,3.02265,-26.8099,1.96077,22.1188,0.660702,1.14342,0.0440523,
0.204697,-0.118098,0.207564,-2.14389,0.188984,0.380115,-0.0673411,0.140239,-0.00175021,0.146119,-0.0980805,-0.258277,-0.842767,0.00195112,1.79784,0.0199066,1.81473,-0.974974,-0.285662,-9.31825,-0.0479912,9.5312,0.581299,9.89962,-8.12404,-2.73774,-7.01594,0.0342194,0.209185,-0.118206,0.211881,-2.14674,0.183338,0.3634,-0.0673724,0.152733,0.00048476,0.284337,-0.0945107,-0.367634,-1.05122,-0.00209448,3.60349,2.44282,1.31276,1.17785,-4.7916,-2.72942,-0.305216,2.13398,-25.8617,1.11177,20.7739,0.697323,0.354239,0.104477,
0.205794,-0.118064,0.208702,-2.14474,0.187109,0.373593,-0.0673258,0.139607,-0.000534259,0.145354,-0.0995704,-0.253518,-0.837261,0.00194182,-0.395268,0.759971,-0.477927,-0.931169,2.97454,3.44127,-0.00581229,9.29412,0.616643,9.63359,-7.81326,-2.40751,-5.97107,0.0317488,0.209185,-0.118206,0.211881,-2.14674,0.183338,0.3634,-0.0673724,0.152733,0.00048476,0.284337,-0.0945107,-0.367634,-1.05122,-0.00209448,0,0,0,0,0,0,0,2.13398,-25.8617,1.11177,20.7739,0.697323,0.354239,0.104477,
0.206799,-0.117998,0.209745,-2.14559,0.185392,0.36779,-0.0673088,0.136815,0.00121908,0.142348,-0.100888,-0.245728,-0.814889,0.00197901,-1.74476,1.09583,-1.87875,-0.823694,4.86912,13.9822,0.0232404,9.09463,0.464823,9.40803,-7.58882,-2.14372,-5.03764,0.0304152,0.209185,-0.118206,0.211881,-2.14674,0.183338,0.3634,-0.0673724,0.152733,0.00048476,0.284337,-0.0945107,-0.367634,-1.05122,-0.00209448,0,0,0,0,0,0,0,2.13398,-25.8617,1.11177,20.7739,0.697323,0.354239,0.104477,
0.210641,-0.118209,0.213419,-2.14758,0.180902,0.355524,-0.06737,0.145866,0.000919691,0.152325,-0.101781,-0.257485,-0.848811,0.0016438,5.65691,-0.187116,6.23583,-0.557906,-7.34818,-21.2013,-0.209507,9.82142,0.225598,10.2168,-8.55157,-3.13781,-8.19892,0.0368533,0.209185,-0.118206,0.211881,-2.14674,0.183338,0.3634,-0.0673724,0.152733,0.00048476,0.284337,-0.0945107,-0.367634,-1.05122,-0.00209448,0,0,0,0,0,0,0,2.13398,-25.8617,1.11177,20.7739,0.697323,0.354239,0.104477,
0.211921,-0.118183,0.214753,-2.14844,0.178815,0.348295,-0.0673613,0.148678,0.00138108,0.155215,-0.10301,-0.258183,-0.859765,0.00153409,1.75713,0.28837,1.80595,-0.768278,-0.436623,-6.84606,-0.0685672,9.52269,0.36793,9.91173,-7.92117,-2.70692,-6.80066,0.0333734,0.216813,-0.118327,0.219712,-2.15127,0.173112,0.32501,-0.0673695,0.172626,0.0180042,0.290957,-0.130774,-0.283511,-1.10087,-0.000792081,2.4866,2.18993,0.827557,-4.53289,10.5154,-6.20515,0.1628,1.55078,-28.3333,0.588087,22.4957,0.477596,2.37664,0.0779268,
0.213062,-0.118127,0.215941,-2.14931,0.176963,0.341784,-0.0673486,0.147475,0.00249419,0.153872,-0.104085,-0.252837,-0.850598,0.00154315,-0.751594,0.695694,-0.839086,-0.671689,3.34159,5.72941,0.00566508,9.28562,0.403274,9.6457,-7.6104,-2.37669,-5.75578,0.0309028,0.216813,-0.118327,0.219712,-2.15127,0.173112,0.32501,-0.0673695,0.172626,0.0180042,0.290957,-0.130774,-0.283511,-1.10087,-0.000792081,0,0,0,0,0,0,0,1.55078,-28.3333,0.588087,22.4957,0.477596,2.37664,0.0779268,
0.214098,-0.118052,0.217018,-2.15017,0.175281,0.336009,-0.0673334,0.143874,0.00387265,0.150021,-0.104867,-0.24431,-0.824852,0.00161568,-2.25063,0.861535,-2.40733,-0.489124,5.3294,16.0911,0.0453284,9.08613,0.251454,9.42014,-7.38595,-2.1129,-4.82236,0.0295691,0.216813,-0.118327,0.219712,-2.15127,0.173112,0.32501,-0.0673695,0.172626,0.0180042,0.290957,-0.130774,-0.283511,-1.10087,-0.000792081,0,0,0,0,0,0,0,1.55078,-28.3333,0.588087,22.4957,0.477596,2.37664,0.0779268,
0.218355,-0.118198,0.221339,-2.15228,0.171087,0.316765,-0.0673634,0.153655,0.00633442,0.160675,-0.108994,-0.246072,-0.866006,0.00144441,6.11272,1.53861,6.65893,-2.57878,-1.10113,-25.7211,-0.10704,9.81292,0.0122292,10.2289,-8.34871,-3.10699,-7.98364,0.0360073,0.216813,-0.118327,0.219712,-2.15127,0.173112,0.32501,-0.0673695,0.172626,0.0180042,0.290957,-0.130774,-0.283511,-1.10087,-0.000792081,0,0,0,0,0,0,0,1.55078,-28.3333,0.588087,22.4957,0.477596,2.37664,0.0779268,
0.219701,-0.118069,0.222744,-2.15325,0.169265,0.309255,-0.0673537,0.156565,0.00827811,0.163666,-0.111486,-0.24239,-0.880545,0.00139799,1.81891,1.21481,1.86939,-1.55803,2.30075,-9.08677,-0.0290125,9.49185,0.0679465,9.89987,-7.65313,-2.68477,-6.58267,0.0323607,0.224902,-0.118445,0.227707,-2.15743,0.163984,0.288927,-0.067365,0.240781,0.00785788,0.26219,-0.150155,-0.190639,-1.06315,0.000732611,8.51943,-1.26829,-3.59599,-2.42266,11.6089,4.7149,0.190587,1.37622,-27.6073,0.43733,24.8364,0.208431,2.84722,0.0376436,
0.220893,-0.117939,0.223986,-2.1542,0.167594,0.302548,-0.0673413,0.155044,0.009876,0.161999,-0.112807,-0.235694,-0.872102,0.00143037,-0.950306,0.998681,-1.04179,-0.825594,4.18494,5.27677,0.0202336,9.25478,0.103291,9.63385,-7.34235,-2.35453,-5.53779,0.0298901,0.224902,-0.118445,0.227707,-2.15743,0.163984,0.288927,-0.067365,0.240781,0.00785788,0.26219,-0.150155,-0.190639,-1.06315,0.000732611,0,0,0,0,0,0,0,1.37622,-27.6073,0.43733,24.8364,0.208431,2.84722,0.0376436,
0.221966,-0.117813,0.225105,-2.15512,0.166038,0.296651,-0.0673266,0.150869,0.0110657,0.157555,-0.113242,-0.22745,-0.845119,0.00151017,-2.60977,0.743565,-2.77736,-0.271953,5.15303,16.8645,0.0498735,9.05529,-0.0485293,9.40828,-7.11791,-2.09074,-4.60437,0.0285565,0.224902,-0.118445,0.227707,-2.15743,0.163984,0.288927,-0.067365,0.240781,0.00785788,0.26219,-0.150155,-0.190639,-1.06315,0.000732611,0,0,0,0,0,0,0,1.37622,-27.6073,0.43733,24.8364,0.208431,2.84722,0.0376436,
0.226566,-0.118354,0.229445,-2.15846,0.162478,0.280827,-0.0673589,0.162304,0.0111173,0.169501,-0.11629,-0.219614,-0.878606,0.00136117,7.14677,0.0322707,7.4662,-1.90499,4.8974,-20.9293,-0.0931246,9.78208,-0.287754,10.217,-8.08066,-3.08483,-7.76565,0.0349946,0.224902,-0.118445,0.227707,-2.15743,0.163984,0.288927,-0.067365,0.240781,0.00785788,0.26219,-0.150155,-0.190639,-1.06315,0.000732611,0,0,0,0,0,0,0,1.37622,-27.6073,0.43733,24.8364,0.208431,2.84722,0.0376436,
0.228,-0.118257,0.23094,-2.15942,0.161021,0.273434,-0.0673499,0.165696,0.0113243,0.172991,-0.117088,-0.212125,-0.887697,0.00131325,2.1202,0.129323,2.18085,-0.498587,4.68067,-5.68203,-0.0299485,9.48119,-0.258727,9.91016,-7.4239,-2.66425,-6.38668,0.0311634,0.233139,-0.11849,0.236516,-2.16359,0.154776,0.252682,-0.067361,0.27791,-0.0152481,0.206093,-0.171087,-0.199561,-1.0432,0.000575051,4.64111,-2.88825,-7.01201,-2.61648,-1.11524,2.49338,-0.019695,-0.198788,-27.1352,-1.08611,22.7933,0.354916,2.37023,0.0303194,
