xiao-wang007/linearmpc_panda/paper_data/panda_torque_PD_controller_Start_at_0_low_pass_filter/0/trajectory.csv
Commanded Joint 0 Position,Commanded Joint 1 Position,Commanded Joint 2 Position,Commanded Joint 3 Position,Commanded Joint 4 Position,Commanded Joint 5 Position,Commanded Joint 6 Position,Commanded Joint 0 Velocity,Commanded Joint 1 Velocity,Commanded Joint 2 Velocity,Commanded Joint 3 Velocity,Commanded Joint 4 Velocity,Commanded Joint 5 Velocity,Commanded Joint 6 Velocity,Commanded Joint 0 Acceleration,Commanded Joint 1 Acceleration,Commanded Joint 2 Acceleration,Commanded Joint 3 Acceleration,Commanded Joint 4 Acceleration,Commanded Joint 5 Acceleration,Commanded Joint 6 Acceleration,Commanded Joint 0 Torque,Commanded Joint 1 Torque,Commanded Joint 2 Torque,Commanded Joint 3 Torque,Commanded Joint 4 Torque,Commanded Joint 5 Torque,Commanded Joint 6 Torque,Actual Joint 0 Position,Actual Joint 1 Position,Actual Joint 2 Position,Actual Joint 3 Position,Actual Joint 4 Position,Actual Joint 5 Position,Actual Joint 6 Position,Actual Joint 0 Velocity,Actual Joint 1 Velocity,Actual Joint 2 Velocity,Actual Joint 3 Velocity,Actual Joint 4 Velocity,Actual Joint 5 Velocity,Actual Joint 6 Velocity,Actual Joint 0 Acceleration,Actual Joint 1 Acceleration,Actual Joint 2 Acceleration,Actual Joint 3 Acceleration,Actual Joint 4 Acceleration,Actual Joint 5 Acceleration,Actual Joint 6 Acceleration,Actual Joint 0 Torque,Actual Joint 1 Torque,Actual Joint 2 Torque,Actual Joint 3 Torque,Actual Joint 4 Torque,Actual Joint 5 Torque,Actual Joint 6 Torque,
0.0417385,-0.0372453,-0.0198819,-1.88508,-0.00756212,0.241911,0.0223109,0.000301008,0.0220614,0.000274584,-0.0338079,-0.00428705,0.0586781,-0.00041021,0.18813,13.7884,0.171615,-21.1299,-2.67941,36.6738,-0.256381,0.0525631,23.0789,0.064656,-24.0699,-0.554372,2.36176,-0.0263922,0.04171,-0.0368227,-0.0198975,-1.88361,-0.00729453,0.235558,0.0223432,-0.000733837,-0.00318195,-0.000281031,0.00336813,0.00186804,0.00128477,-0.00212671,0,0,0,0,0,0,0,0.158268,-34.6214,-0.0387439,27.8476,0.690914,2.73461,0.131027,
0.0417041,-0.0368701,-0.0199037,-1.88356,-0.00727411,0.235641,0.0223427,0.000208504,0.0173681,0.000184685,-0.0267775,-0.00332139,0.0476749,-0.000327896,-0.0578153,-2.93334,-0.0561868,4.39399,0.603539,-6.87703,0.051446,0.0468458,23.5208,0.0543272,-23.9865,-0.554708,2.10973,-0.0248769,0.0417115,-0.0367909,-0.0199037,-1.88359,-0.00728696,0.235595,0.022346,-0.000552475,-0.00130436,-0.00152402,-0.000214448,0.00624041,0.000494869,0.000642751,0.0226702,0.234699,-0.155373,-0.447822,0.546547,-0.0987378,0.346182,0.182071,-33.4987,0.0366345,26.6534,0.612179,2.59545,0.0641939,
0.0417032,-0.036878,-0.0199047,-1.88356,-0.00727102,0.235669,0.0223427,0.000144181,0.0136955,0.000122799,-0.0211982,-0.00257967,0.0388531,-0.000262807,-0.0402015,-2.29537,-0.0386785,3.48706,0.463573,-5.51357,0.0406803,0.0396715,24.0925,0.0426196,-23.8786,-0.554185,1.76119,-0.0229114,0.0417115,-0.0367909,-0.0199037,-1.88359,-0.00728696,0.235595,0.022346,-0.000552475,-0.00130436,-0.00152402,-0.000214448,0.00624041,0.000494869,0.000642751,0,0,0,0,0,0,0,0.182071,-33.4987,0.0366345,26.6534,0.612179,2.59545,0.0641939,
0.0417026,-0.0368835,-0.0199054,-1.88355,-0.00726867,0.235696,0.0223427,9.93808e-05,0.0108205,8.01919e-05,-0.0167704,-0.00200502,0.0317611,-0.000211244,-0.0280003,-1.7969,-0.0266297,2.76738,0.359153,-4.43255,0.0322274,0.0337647,24.6166,0.0332332,-23.7109,-0.552173,1.37505,-0.020912,0.0417115,-0.0367909,-0.0199037,-1.88359,-0.00728696,0.235595,0.022346,-0.000552475,-0.00130436,-0.00152402,-0.000214448,0.00624041,0.000494869,0.000642751,0,0,0,0,0,0,0,0.182071,-33.4987,0.0366345,26.6534,0.612179,2.59545,0.0641939,
0.0415825,-0.0367867,-0.0200274,-1.88354,-0.00466334,0.234904,0.0223249,-0.00168356,0.00871578,-0.00165861,-0.0128609,0.0383258,0.0147097,-0.000361419,-1.11434,-1.31543,-1.08675,2.44342,25.2068,-10.6571,-0.0938597,0.438905,0.155246,0.435064,-0.172154,3.30797,-1.0235,-0.00103152,0.0417115,-0.0367909,-0.0199037,-1.88359,-0.00728696,0.235595,0.022346,-0.000552475,-0.00130436,-0.00152402,-0.000214448,0.00624041,0.000494869,0.000642751,0,0,0,0,0,0,0,0.182071,-33.4987,0.0366345,26.6534,0.612179,2.59545,0.0641939,
0.0415165,-0.0367852,-0.020093,-1.88352,-0.00273105,0.234367,0.0223209,-0.0029984,0.00700971,-0.00296829,-0.00987382,0.0789679,-0.00165138,-0.000388352,-0.821776,-1.06629,-0.818551,1.86694,25.4013,-10.2257,-0.0168329,0.434235,0.213903,0.429968,-0.155682,3.28154,-1.00643,-0.00106582,0.0416934,-0.0357163,-0.0199154,-1.88518,-0.00734467,0.238853,0.0223421,-0.00293034,0.0946793,-0.00149413,-0.146207,0.00317657,0.281387,-0.00102912,-0.297233,11.998,0.00373587,-18.249,-0.382981,35.1115,-0.208984,0.360599,-13.5552,0.187391,7.22565,0.0802576,0.76531,0.0980684,
0.0414618,-0.0367841,-0.0201479,-1.88351,-0.000601705,0.233757,0.022319,-0.00376499,0.00563535,-0.00374579,-0.00763123,0.116408,-0.0165668,-0.000359745,-0.479117,-0.858979,-0.485939,1.40162,23.4001,-9.32213,0.0178792,0.429951,0.212088,0.425694,-0.15394,3.25301,-0.997827,-0.00105422,0.0416934,-0.0357163,-0.0199154,-1.88518,-0.00734467,0.238853,0.0223421,-0.00293034,0.0946793,-0.00149413,-0.146207,0.00317657,0.281387,-0.00102912,0,0,0,0,0,0,0,0.360599,-13.5552,0.187391,7.22565,0.0802576,0.76531,0.0980684,
0.0414207,-0.0367827,-0.0201895,-1.88351,0.00164268,0.233098,0.022318,-0.00404073,0.00454342,-0.00403704,-0.00596496,0.149236,-0.0297203,-0.00031116,-0.172341,-0.682454,-0.18203,1.04142,20.5175,-8.22094,0.0303655,0.425749,0.210206,0.421499,-0.152164,3.22432,-0.989214,-0.00104802,0.0416934,-0.0357163,-0.0199154,-1.88518,-0.00734467,0.238853,0.0223421,-0.00293034,0.0946793,-0.00149413,-0.146207,0.00317657,0.281387,-0.00102912,0,0,0,0,0,0,0,0.360599,-13.5552,0.187391,7.22565,0.0802576,0.76531,0.0980684,
0.0414024,-0.0343549,-0.0201855,-1.88592,0.000924104,0.237947,0.0222801,-0.00707381,0.0186846,-0.0068779,-0.0118269,0.246959,-0.0480552,-0.000810297,-1.89567,8.83823,-1.77554,-3.66374,61.0767,-11.4593,-0.31196,3.72632,0.348358,3.74158,-1.19805,11.0419,-3.19272,0.00134149,0.0416934,-0.0357163,-0.0199154,-1.88518,-0.00734467,0.238853,0.0223421,-0.00293034,0.0946793,-0.00149413,-0.146207,0.00317657,0.281387,-0.00102912,0,0,0,0,0,0,0,0.360599,-13.5552,0.187391,7.22565,0.0802576,0.76531,0.0980684,
0.0412771,-0.0338979,-0.0203063,-1.88615,0.00722305,0.236404,0.0222691,-0.00879043,0.0263732,-0.00852237,-0.0152092,0.355041,-0.0770301,-0.000922043,-1.07289,4.80537,-1.0278,-2.11392,67.5513,-18.1093,-0.0698412,3.61311,0.337256,3.63397,-1.17352,11.0419,-3.1034,0.00153805,0.0416934,-0.0357163,-0.0199154,-1.88518,-0.00734467,0.238853,0.0223421,-0.00293034,0.0946793,-0.00149413,-0.146207,0.00317657,0.281387,-0.00102912,0,0,0,0,0,0,0,0.360599,-13.5552,0.187391,7.22565,0.0802576,0.76531,0.0980684,
0.0411976,-0.0335502,-0.020383,-1.88636,0.0142725,0.234529,0.0222643,-0.00901876,0.0297912,-0.00873608,-0.017337,0.460268,-0.108488,-0.000857344,-0.142705,2.13626,-0.133568,-1.32989,65.7672,-19.6614,0.0404363,3.49164,0.405688,3.51397,-1.16252,11.0287,-3.00169,0.0010727,0.0416732,-0.0328749,-0.0199283,-1.89092,-0.00450371,0.242755,0.0223418,-0.00541559,0.0404372,-0.00490477,-0.0969971,0.198328,-0.128756,0.000511141,-0.310656,-6.78027,-0.426331,6.15118,24.394,-51.2679,0.192533,0.638309,-36.8669,0.461134,36.8176,1.96808,4.45855,0.0577852,
0.0411674,-0.0332811,-0.0204114,-1.88655,0.021803,0.232469,0.0222626,-0.00797063,0.0305602,-0.00769823,-0.0186671,0.556478,-0.138299,-0.000729463,0.65508,0.480631,0.648657,-0.831293,60.131,-18.6317,0.0799259,3.38332,0.391427,3.40604,-1.14078,11.0287,-2.91901,0.000420611,0.0416732,-0.0328749,-0.0199283,-1.89092,-0.00450371,0.242755,0.0223418,-0.00541559,0.0404372,-0.00490477,-0.0969971,0.198328,-0.128756,0.000511141,0,0,0,0,0,0,0,0.638309,-36.8669,0.461134,36.8176,1.96808,4.45855,0.0577852,
0.0427909,-0.0322988,-0.0187739,-1.89177,0.003306,0.235488,0.0225105,0.0117388,0.031116,0.012499,-0.0245213,0.559078,-0.215758,0.0016053,12.3184,0.34739,12.6233,-3.6589,1.62521,-48.4116,1.45923,28.7064,1.37699,29.0132,-8.20004,11.0287,-8.34405,0.0851936,0.0416732,-0.0328749,-0.0199283,-1.89092,-0.00450371,0.242755,0.0223418,-0.00541559,0.0404372,-0.00490477,-0.0969971,0.198328,-0.128756,0.000511141,0,0,0,0,0,0,0,0.638309,-36.8669,0.461134,36.8176,1.96808,4.45855,0.0577852,
0.0437644,-0.0320861,-0.0177769,-1.89213,0.00886614,0.230496,0.022617,0.0337285,0.0302106,0.0349232,-0.0286535,0.586266,-0.297391,0.00394523,13.7436,-0.565903,14.0151,-2.5826,16.9924,-51.0208,1.46246,27.2565,1.99963,27.6142,-6.84826,11.0287,-8.13281,0.0940837,0.0416732,-0.0328749,-0.0199283,-1.89092,-0.00450371,0.242755,0.0223418,-0.00541559,0.0404372,-0.00490477,-0.0969971,0.198328,-0.128756,0.000511141,0,0,0,0,0,0,0,0.638309,-36.8669,0.461134,36.8176,1.96808,4.45855,0.0577852,
0.0449153,-0.0319668,-0.016603,-1.89252,0.015208,0.224862,0.0227668,0.0557543,0.0271513,0.0572864,-0.0326433,0.62756,-0.378763,0.00690294,13.7661,-1.91202,13.977,-2.49363,25.8084,-50.8572,1.84857,25.8847,1.62314,26.2391,-6.18922,10.94,-8.39554,0.121148,0.0413578,-0.0290582,-0.020234,-1.89231,0.0150983,0.237667,0.0223238,-0.0205834,0.170681,-0.0213927,-0.0531322,0.975848,-0.148269,-0.00113812,-1.89598,16.2804,-2.061,5.48312,97.1899,-2.43916,-0.206158,5.51014,-42.3814,5.18617,29.6448,3.34777,1.56823,0.0907442,
0.0461743,-0.0319959,-0.0153232,-1.89302,0.0221836,0.218804,0.0229581,0.0760792,0.0209931,0.0778231,-0.038595,0.676436,-0.454476,0.0103032,12.7031,-3.84891,12.8354,-3.71981,30.548,-47.3207,2.12518,24.3823,-0.271501,24.7066,-6.17232,10.94,-8.96036,0.181324,0.0413578,-0.0290582,-0.020234,-1.89231,0.0150983,0.237667,0.0223238,-0.0205834,0.170681,-0.0213927,-0.0531322,0.975848,-0.148269,-0.00113812,0,0,0,0,0,0,0,5.51014,-42.3814,5.18617,29.6448,3.34777,1.56823,0.0907442,
0.0428606,-0.027728,-0.018714,-1.89387,0.0286509,0.230387,0.0225811,0.0851846,0.0298135,0.086891,-0.0514881,0.708391,-0.469993,0.0110311,5.69088,5.51276,5.66746,-8.0582,19.9718,-9.69816,0.454901,33.1417,0.628287,33.4108,-13.3716,10.94,-9.36629,0.119986,0.0413578,-0.0290582,-0.020234,-1.89231,0.0150983,0.237667,0.0223238,-0.0205834,0.170681,-0.0213927,-0.0531322,0.975848,-0.148269,-0.00113812,0,0,0,0,0,0,0,5.51014,-42.3814,5.18617,29.6448,3.34777,1.56823,0.0907442,
0.0441145,-0.0274047,-0.0174434,-1.89475,0.0355189,0.225329,0.0226991,0.0994947,0.0319328,0.101277,-0.0632212,0.738414,-0.502426,0.0117756,8.94377,1.32458,8.99136,-7.33316,18.7644,-20.2706,0.465345,30.5301,0.706492,30.804,-12.3798,10.94,-8.85742,0.0963875,0.0413578,-0.0290582,-0.020234,-1.89231,0.0150983,0.237667,0.0223238,-0.0205834,0.170681,-0.0213927,-0.0531322,0.975848,-0.148269,-0.00113812,0,0,0,0,0,0,0,5.51014,-42.3814,5.18617,29.6448,3.34777,1.56823,0.0907442,
0.0455333,-0.0272605,-0.016006,-1.89573,0.0427145,0.219868,0.0228404,0.115066,0.0291519,0.116957,-0.0750745,0.77062,-0.538482,0.0129533,9.73185,-1.7381,9.79974,-7.40835,20.1284,-22.5355,0.736068,28.2114,-0.165671,28.4855,-11.9185,10.8356,-8.47569,0.125954,0.0428529,-0.0263179,-0.0178324,-1.894,0.0464674,0.221459,0.0223244,0.140562,0.0648766,0.179278,-0.0516545,0.916653,-0.698965,-0.000108199,20.1432,-13.2255,25.0838,0.184712,-7.39928,-68.837,0.128741,24.5015,-36.3194,24.0109,21.1984,3.78814,-1.50245,0.171311,
0.0464143,-0.0263475,-0.0142309,-1.89652,0.0609135,0.209611,0.0225467,0.139329,0.0215813,0.141295,-0.0937683,0.799048,-0.582583,0.0125143,15.1649,-4.73161,15.2114,-11.6836,17.7676,-27.5626,-0.27439,37.295,-2.34146,37.61,-20.4858,10.8356,-10.1706,0.142873,0.0428529,-0.0263179,-0.0178324,-1.894,0.0464674,0.221459,0.0223244,0.140562,0.0648766,0.179278,-0.0516545,0.916653,-0.698965,-0.000108199,0,0,0,0,0,0,0,24.5015,-36.3194,24.0109,21.1984,3.78814,-1.50245,0.171311,
0.0484073,-0.0264559,-0.0122197,-1.89796,0.0685161,0.203529,0.0226264,0.161288,0.0145571,0.163316,-0.111099,0.829302,-0.618126,0.0120047,13.724,-4.39008,13.7632,-10.8314,18.9091,-22.2144,-0.31852,33.295,-1.18256,33.5641,-19.3033,10.8356,-9.17232,0.0877693,0.0428529,-0.0263179,-0.0178324,-1.894,0.0464674,0.221459,0.0223244,0.140562,0.0648766,0.179278,-0.0516545,0.916653,-0.698965,-0.000108199,0,0,0,0,0,0,0,24.5015,-36.3194,24.0109,21.1984,3.78814,-1.50245,0.171311,
0.0504192,-0.0265853,-0.0101893,-1.89949,0.0764552,0.19773,0.0226854,0.179328,0.00840922,0.181413,-0.12723,0.861919,-0.639467,0.0110773,11.2752,-3.84246,11.3106,-10.0824,20.3854,-13.3382,-0.5796,30.0154,-1.3278,30.2554,-18.9955,10.8356,-8.16092,0.093449,0.0428529,-0.0263179,-0.0178324,-1.894,0.0464674,0.221459,0.0223244,0.140562,0.0648766,0.179278,-0.0516545,0.916653,-0.698965,-0.000108199,0,0,0,0,0,0,0,24.5015,-36.3194,24.0109,21.1984,3.78814,-1.50245,0.171311,
0.0523961,-0.0267041,-0.00819377,-1.90108,0.0846987,0.192392,0.0226953,0.192885,0.00375865,0.19502,-0.141477,0.895623,-0.645023,0.00910948,8.47287,-2.9066,8.50401,-8.90419,21.0651,-3.47279,-1.22989,26.957,-1.46269,27.1855,-18.9324,10.8035,-6.67638,0.0738875,0.0495127,-0.025532,-0.010807,-1.89953,0.0797773,0.192717,0.0223476,0.228871,0.00470965,0.314664,-0.214892,0.988142,-0.911455,0.000226916,11.0386,-7.52087,16.9233,-20.4047,8.93605,-26.5612,0.0418894,19.8122,-32.376,19.1351,28.772,4.42901,0.454031,0.131027,
0.0541181,-0.0256394,-0.00615239,-1.9036,0.0959158,0.180027,0.0223308,0.212245,0.00166918,0.21448,-0.165094,0.92064,-0.66702,0.00689737,12.1001,-1.30592,12.1629,-14.7604,15.6356,-13.7481,-1.38257,33.9265,-0.467829,34.2073,-25.3841,10.8035,-7.50731,-0.0135198,0.0495127,-0.025532,-0.010807,-1.89953,0.0797773,0.192717,0.0223476,0.228871,0.00470965,0.314664,-0.214892,0.988142,-0.911455,0.000226916,0,0,0,0,0,0,0,19.8122,-32.376,19.1351,28.772,4.42901,0.454031,0.131027,
0.0563955,-0.0256898,-0.00385404,-1.90573,0.104307,0.174717,0.0222973,0.226731,7.57359e-05,0.229043,-0.185446,0.946282,-0.666372,0.00467934,9.05369,-0.995901,9.10175,-12.7202,16.0258,0.404832,-1.38627,30.3682,-0.52931,30.6301,-24.7923,10.8035,-6.20106,-0.0218749,0.0495127,-0.025532,-0.010807,-1.89953,0.0797773,0.192717,0.0223476,0.228871,0.00470965,0.314664,-0.214892,0.988142,-0.911455,0.000226916,0,0,0,0,0,0,0,19.8122,-32.376,19.1351,28.772,4.42901,0.454031,0.131027,
0.058593,-0.0257265,-0.00163596,-1.90789,0.112897,0.170195,0.0222238,0.236322,-0.000857776,0.238686,-0.202362,0.971787,-0.646132,0.00190711,5.99468,-0.583445,6.02703,-10.5723,15.9406,12.6504,-1.73265,27.1626,-0.950256,27.4047,-24.6517,10.8035,-4.82677,-0.0376166,0.0495127,-0.025532,-0.010807,-1.89953,0.0797773,0.192717,0.0223476,0.228871,0.00470965,0.314664,-0.214892,0.988142,-0.911455,0.000226916,0,0,0,0,0,0,0,19.8122,-32.376,19.1351,28.772,4.42901,0.454031,0.131027,
0.0606957,-0.0257337,0.000486858,-1.91003,0.121626,0.166437,0.0221191,0.241626,-0.000866683,0.24402,-0.215427,0.995658,-0.610867,-0.00109174,3.31464,-0.00556683,3.3333,-8.16541,14.9198,22.0406,-1.87428,24.5652,-0.849715,24.8078,-24.094,10.7624,-3.13142,-0.0867991,0.0618289,-0.0268135,0.00151347,-1.90983,0.118867,0.159627,0.0223426,0.395972,-0.0407654,0.40374,-0.314587,1.28245,-0.918385,-0.0082065,20.8877,-5.68438,11.1345,-12.4618,36.7882,-0.866335,-1.05418,9.89399,-32.0982,9.4629,20.8017,2.79205,-0.18226,0.151169,
0.0676454,-0.0271619,0.00737774,-1.91512,0.138825,0.150023,0.0220563,0.263551,-0.00400823,0.266054,-0.238823,1.04407,-0.590271,-0.00452568,13.7033,-1.96346,13.7714,-14.6224,30.2551,12.8725,-2.14621,28.6251,-0.000861711,28.8922,-29.4406,10.7624,-2.12534,-0.168206,0.0618289,-0.0268135,0.00151347,-1.90983,0.118867,0.159627,0.0223426,0.395972,-0.0407654,0.40374,-0.314587,1.28245,-0.918385,-0.0082065,0,0,0,0,0,0,0,9.89399,-32.0982,9.4629,20.8017,2.79205,-0.18226,0.151169,
0.0702564,-0.0272358,0.0100116,-1.91777,0.148593,0.14723,0.0218861,0.276115,-0.00505396,0.27869,-0.257271,1.07946,-0.542041,-0.00787778,7.8522,-0.653585,7.89739,-11.5304,22.1182,30.1434,-2.09506,25.7929,-0.51488,26.0429,-29.2099,10.7624,-0.789886,-0.168455,0.0618289,-0.0268135,0.00151347,-1.90983,0.118867,0.159627,0.0223426,0.395972,-0.0407654,0.40374,-0.314587,1.28245,-0.918385,-0.0082065,0,0,0,0,0,0,0,9.89399,-32.0982,9.4629,20.8017,2.79205,-0.18226,0.151169,
0.0726813,-0.0272612,0.0124588,-1.92037,0.158222,0.145508,0.0216991,0.281516,-0.0046798,0.284131,-0.270865,1.10428,-0.476663,-0.0109759,3.37591,0.233855,3.40091,-8.49642,15.5179,40.8614,-1.93634,23.3824,-0.667254,23.6173,-28.9032,10.7624,0.414065,-0.197822,0.0618289,-0.0268135,0.00151347,-1.90983,0.118867,0.159627,0.0223426,0.395972,-0.0407654,0.40374,-0.314587,1.28245,-0.918385,-0.0082065,0,0,0,0,0,0,0,9.89399,-32.0982,9.4629,20.8017,2.79205,-0.18226,0.151169,
0.0672389,-0.0273471,0.0069753,-1.91619,0.139561,0.155075,0.0217358,0.289396,-0.00888901,0.2921,-0.297059,1.14046,-0.407708,-0.0162615,4.92518,-2.63076,4.98057,-16.3709,22.611,43.0967,-3.30351,20.4545,-0.448314,20.7378,-33.3707,10.7346,5.11871,-0.37332,0.0781697,-0.0285302,0.0178453,-1.926,0.163965,0.134083,0.0223199,0.490101,-0.100534,0.521814,-0.557898,1.41189,-0.627788,0.00248573,11.7661,-7.47111,14.7592,-30.4139,16.1802,36.3247,1.33653,7.8429,-29.3529,7.61018,19.0799,2.57873,1.00426,0.017502,
0.0695791,-0.0274487,0.00933847,-1.91933,0.149618,0.15575,0.0214492,0.290023,-0.00965173,0.292759,-0.316353,1.16379,-0.309297,-0.0201731,0.391965,-0.476699,0.412073,-12.0587,14.5787,61.5073,-2.44475,19.2608,-1.00596,19.528,-33.1444,10.7346,6.06867,-0.35712,0.0781697,-0.0285302,0.0178453,-1.926,0.163965,0.134083,0.0223199,0.490101,-0.100534,0.521814,-0.557898,1.41189,-0.627788,0.00248573,0,0,0,0,0,0,0,7.8429,-29.3529,7.61018,19.0799,2.57873,1.00426,0.017502,
0.0717348,-0.0274861,0.0115159,-1.92239,0.159423,0.157704,0.0211879,0.285911,-0.00865578,0.288644,-0.329427,1.17616,-0.198576,-0.0226718,-2.57015,0.622467,-2.57191,-8.17136,7.73533,69.2003,-1.56169,18.452,-1.10918,18.7066,-32.7031,10.7346,6.74166,-0.344024,0.0781697,-0.0285302,0.0178453,-1.926,0.163965,0.134083,0.0223199,0.490101,-0.100534,0.521814,-0.557898,1.41189,-0.627788,0.00248573,0,0,0,0,0,0,0,7.8429,-29.3529,7.61018,19.0799,2.57873,1.00426,0.017502,
0.073741,-0.027492,0.0135429,-1.92535,0.168983,0.160617,0.0209576,0.278882,-0.00707247,0.281589,-0.33754,1.17993,-0.086039,-0.0238953,-4.39297,0.989571,-4.40965,-5.07047,2.35228,70.3356,-0.764678,18.045,-1.17775,18.2904,-32.2705,10.7346,7.1996,-0.314204,0.0781697,-0.0285302,0.0178453,-1.926,0.163965,0.134083,0.0223199,0.490101,-0.100534,0.521814,-0.557898,1.41189,-0.627788,0.00248573,0,0,0,0,0,0,0,7.8429,-29.3529,7.61018,19.0799,2.57873,1.00426,0.017502,
0.0847164,-0.0288472,0.0244552,-1.93311,0.186044,0.130605,0.0217194,0.299547,-0.00706274,0.302443,-0.355249,1.21673,-0.0866059,-0.0266096,12.9156,0.00607981,13.0339,-11.0683,23.0015,-0.354319,-1.69639,19.3361,-1.3695,19.6305,-32.7285,10.5574,6.29897,-0.363389,0.0966299,-0.0298162,0.0365894,-1.94946,0.214685,0.125527,0.0215394,0.524544,-0.0732589,0.53541,-0.751464,1.52131,0.106018,-0.0361336,4.30532,3.40943,1.69956,-24.1958,13.6779,91.7257,-4.82742,0.0313145,-26.7583,-0.213304,19.3298,1.31988,2.91405,-0.083206,
0.0874325,-0.0288205,0.0271983,-1.93634,0.196615,0.131516,0.021447,0.307541,-0.0049838,0.310533,-0.364899,1.23764,-0.0465305,-0.028097,4.99604,1.29934,5.05619,-6.03091,13.0698,25.0471,-0.929661,18.5273,-1.47272,18.8092,-32.2872,10.5574,6.97196,-0.350293,0.0966299,-0.0298162,0.0365894,-1.94946,0.214685,0.125527,0.0215394,0.524544,-0.0732589,0.53541,-0.751464,1.52131,0.106018,-0.0361336,0,0,0,0,0,0,0,0.0313145,-26.7583,-0.213304,19.3298,1.31988,2.91405,-0.083206,
0.0898784,-0.0287667,0.0296695,-1.93943,0.206821,0.13366,0.0212081,0.307182,-0.00264179,0.310205,-0.369094,1.24528,0.016396,-0.0284523,-0.224603,1.46376,-0.205039,-2.62224,4.77175,39.3291,-0.222062,18.1203,-1.54128,18.393,-31.8546,10.5574,7.4299,-0.320473,0.0966299,-0.0298162,0.0365894,-1.94946,0.214685,0.125527,0.0215394,0.524544,-0.0732589,0.53541,-0.751464,1.52131,0.106018,-0.0361336,0,0,0,0,0,0,0,0.0313145,-26.7583,-0.213304,19.3298,1.31988,2.91405,-0.083206,
0.0921086,-0.0287128,0.0319233,-1.94239,0.216682,0.136728,0.0210024,0.301499,-0.000765161,0.30451,-0.369414,1.24273,0.0898072,-0.0279027,-3.55177,1.17289,-3.55913,-0.199801,-1.58976,45.882,0.34351,17.8844,-1.60592,18.1486,-31.459,10.5574,7.7351,-0.283319,0.0966299,-0.0298162,0.0365894,-1.94946,0.214685,0.125527,0.0215394,0.524544,-0.0732589,0.53541,-0.751464,1.52131,0.106018,-0.0361336,0,0,0,0,0,0,0,0.0313145,-26.7583,-0.213304,19.3298,1.31988,2.91405,-0.083206,
0.103411,-0.0292892,0.0434382,-1.95698,0.237046,0.127294,0.0209566,0.319999,0.00741875,0.323218,-0.382263,1.26773,0.104879,-0.0293466,11.5624,5.11495,11.6923,-8.03069,15.6251,9.41981,-0.902467,18.5273,-1.47272,18.8092,-32.2872,10.5574,6.97196,-0.350293,0.0966299,-0.0298162,0.0365894,-1.94946,0.214685,0.125527,0.0215394,0.524544,-0.0732589,0.53541,-0.751464,1.52131,0.106018,-0.0361336,0,0,0,0,0,0,0,0.0313145,-26.7583,-0.213304,19.3298,1.31988,2.91405,-0.083206,
0.106189,-0.0290043,0.0462459,-1.96019,0.247549,0.129574,0.0207098,0.325451,0.0130572,0.328766,-0.386214,1.27676,0.140913,-0.0296485,3.40793,3.52401,3.46741,-2.4694,5.64057,22.5214,-0.188689,18.036,-1.67043,18.33,-31.6673,10.3885,7.5712,-0.323025,0.115165,-0.0299451,0.0556614,-1.97586,0.267869,0.134874,0.0205568,0.571594,0.0511373,0.532814,-0.720725,1.58975,0.33478,-0.0328384,5.88121,15.5495,-0.324593,3.84246,8.55502,28.5953,0.411899,-2.07531,-32.0982,-2.13744,25.2094,1.8518,3.35168,-0.190323,
0.108674,-0.0287841,0.0487575,-1.96324,0.25764,0.13266,0.0204981,0.322472,0.0159513,0.325804,-0.385276,1.27367,0.189878,-0.0290097,-1.86205,1.80885,-1.85119,0.586375,-1.93245,30.6033,0.399285,17.8001,-1.73507,18.0856,-31.2717,10.3885,7.87641,-0.285872,0.115165,-0.0299451,0.0556614,-1.97586,0.267869,0.134874,0.0205568,0.571594,0.0511373,0.532814,-0.720725,1.58975,0.33478,-0.0328384,0,0,0,0,0,0,0,-2.07531,-32.0982,-2.13744,25.2094,1.8518,3.35168,-0.190323,
0.110925,-0.0286264,0.0510342,-1.96617,0.26736,0.136375,0.0203193,0.314259,0.0167021,0.317559,-0.381237,1.26194,0.24479,-0.0276784,-5.13347,0.469221,-5.15337,2.52437,-7.33142,34.3201,0.832036,17.6008,-1.74946,17.8782,-30.8847,10.3885,8.05082,-0.247966,0.115165,-0.0299451,0.0556614,-1.97586,0.267869,0.134874,0.0205568,0.571594,0.0511373,0.532814,-0.720725,1.58975,0.33478,-0.0328384,0,0,0,0,0,0,0,-2.07531,-32.0982,-2.13744,25.2094,1.8518,3.35168,-0.190323,
0.122152,-0.0284527,0.0627166,-1.98342,0.290542,0.139025,0.0200206,0.332303,0.0308235,0.335802,-0.392587,1.28457,0.253115,-0.0284894,11.2778,8.82588,11.4018,-7.09363,14.1438,5.20311,-0.506853,18.036,-1.67043,18.33,-31.6673,10.3885,7.5712,-0.323025,0.115165,-0.0299451,0.0556614,-1.97586,0.267869,0.134874,0.0205568,0.571594,0.0511373,0.532814,-0.720725,1.58975,0.33478,-0.0328384,0,0,0,0,0,0,0,-2.07531,-32.0982,-2.13744,25.2094,1.8518,3.35168,-0.190323,
0.124987,-0.0279188,0.0655832,-1.98666,0.300989,0.141937,0.0198027,0.336737,0.0380079,0.340306,-0.395053,1.28883,0.275307,-0.0282395,2.7712,4.49024,2.8156,-1.54175,2.6632,13.8697,0.156217,17.8555,-1.96037,18.1579,-31.1305,10.2447,7.92725,-0.288059,0.134171,-0.028717,0.0740446,-2.00216,0.322832,0.152006,0.0196869,0.58513,0.0534633,0.520305,-0.747735,1.63543,0.647255,-0.0370261,1.69207,0.290754,-1.56361,-3.3763,5.70997,39.0594,-0.523462,-1.74603,-35.518,-1.43523,24.1144,1.21002,1.94543,-0.143631,
0.127509,-0.0275321,0.0681334,-1.98972,0.31096,0.145419,0.0196192,0.33244,0.0400732,0.335998,-0.392519,1.28034,0.307285,-0.0271802,-2.68564,1.2908,-2.69259,1.58377,-5.30185,19.9861,0.662043,17.6562,-1.97477,17.9505,-30.7435,10.2447,8.10166,-0.250154,0.134171,-0.028717,0.0740446,-2.00216,0.322832,0.152006,0.0196869,0.58513,0.0534633,0.520305,-0.747735,1.63543,0.647255,-0.0370261,0,0,0,0,0,0,0,-1.74603,-35.518,-1.43523,24.1144,1.21002,1.94543,-0.143631,
0.141135,-0.0271549,0.0810734,-2.00957,0.345345,0.158674,0.0192157,0.34643,0.0500234,0.350119,-0.399023,1.2956,0.327971,-0.0272882,8.74361,6.21892,8.82557,-4.06494,9.53263,12.9288,-0.0674949,17.8555,-1.96037,18.1579,-31.1305,10.2447,7.92725,-0.288059,0.134171,-0.028717,0.0740446,-2.00216,0.322832,0.152006,0.0196869,0.58513,0.0534633,0.520305,-0.747735,1.63543,0.647255,-0.0370261,0,0,0,0,0,0,0,-1.74603,-35.518,-1.43523,24.1144,1.21002,1.94543,-0.143631,
0.143947,-0.0266271,0.0839162,-2.0127,0.355595,0.16225,0.0190276,0.347455,0.0532118,0.351166,-0.397527,1.29272,0.351779,-0.0265334,0.640846,1.99272,0.654169,0.935023,-1.79634,14.88,0.471745,17.6562,-1.97477,17.9505,-30.7435,10.2447,8.10166,-0.250154,0.134171,-0.028717,0.0740446,-2.00216,0.322832,0.152006,0.0196869,0.58513,0.0534633,0.520305,-0.747735,1.63543,0.647255,-0.0370261,0,0,0,0,0,0,0,-1.74603,-35.518,-1.43523,24.1144,1.21002,1.94543,-0.143631,
0.146442,-0.0262617,0.0864383,-2.01566,0.365356,0.166167,0.0188715,0.340322,0.0517052,0.343985,-0.391994,1.2782,0.379365,-0.0251289,-4.45804,-0.941595,-4.488,3.45833,-9.07629,17.2411,0.877805,17.6306,-2.21416,17.938,-30.2146,10.1609,8.17626,-0.214724,0.152863,-0.0282747,0.0933093,-2.02951,0.377622,0.178783,0.0191584,0.479928,-0.0611403,0.635553,-0.828137,1.59812,0.908562,-0.0152311,-13.1503,-14.3254,14.4061,-10.0503,-4.66444,32.6633,2.72437,-0.246395,-31.3524,-0.0625476,23.1424,2.01019,0.367972,-0.217789,
0.148684,-0.0260198,0.0887068,-2.01848,0.374718,0.170389,0.0187442,0.328323,0.0474131,0.331899,-0.384143,1.25661,0.409042,-0.0232852,-7.4996,-2.68257,-7.55361,4.90686,-13.4917,18.5486,1.15232,17.3906,-2.10579,17.6902,-29.8061,10.1609,8.16654,-0.181345,0.152863,-0.0282747,0.0933093,-2.02951,0.377622,0.178783,0.0191584,0.479928,-0.0611403,0.635553,-0.828137,1.59812,0.908562,-0.0152311,0,0,0,0,0,0,0,-0.246395,-31.3524,-0.0625476,23.1424,2.01019,0.367972,-0.217789,
0.159833,-0.0274872,0.100364,-2.03672,0.399166,0.186942,0.0187663,0.343073,0.0481939,0.34679,-0.388295,1.26539,0.422926,-0.0233822,9.21895,0.487975,9.30644,-2.59481,5.48361,8.67704,-0.0606244,17.8432,-2.26735,18.1584,-30.6103,10.1609,8.09772,-0.250773,0.152863,-0.0282747,0.0933093,-2.02951,0.377622,0.178783,0.0191584,0.479928,-0.0611403,0.635553,-0.828137,1.59812,0.908562,-0.0152311,0,0,0,0,0,0,0,-0.246395,-31.3524,-0.0625476,23.1424,2.01019,0.367972,-0.217789,
0.16263,-0.0271878,0.103192,-2.03969,0.409064,0.190859,0.0186054,0.344372,0.0460406,0.348119,-0.384737,1.25976,0.43627,-0.0227285,0.811706,-1.34577,0.830873,2.22363,-3.51994,8.34002,0.408533,17.6306,-2.21416,17.938,-30.2146,10.1609,8.17626,-0.214724,0.152863,-0.0282747,0.0933093,-2.02951,0.377622,0.178783,0.0191584,0.479928,-0.0611403,0.635553,-0.828137,1.59812,0.908562,-0.0152311,0,0,0,0,0,0,0,-0.246395,-31.3524,-0.0625476,23.1424,2.01019,0.367972,-0.217789,
0.1651,-0.0269986,0.105691,-2.0425,0.41855,0.194993,0.0184741,0.337258,0.0415634,0.340969,-0.378009,1.24496,0.452353,-0.0214643,-4.44638,-2.79829,-4.46874,4.20488,-9.24967,10.0519,0.790138,17.2581,-2.19553,17.5648,-29.7357,10.057,8.17585,-0.181094,0.172044,-0.0266254,0.112559,-2.05606,0.432004,0.211425,0.0187766,0.48517,0.0627272,0.64729,-0.759045,1.50955,1.02733,-0.0041728,0.655256,15.4834,1.46709,8.63657,-11.0711,14.8461,1.38229,-0.95654,-32.2768,-0.685411,25.9314,2.41394,0.785452,-0.304764,
0.178988,-0.0249974,0.119591,-2.06321,0.452504,0.220891,0.0184386,0.349549,0.0515115,0.353371,-0.383746,1.24386,0.469819,-0.0212572,7.68231,6.21757,7.75095,-3.58566,-0.683661,10.9161,0.129441,17.4981,-2.3039,17.8125,-30.1442,10.057,8.18557,-0.214473,0.172044,-0.0266254,0.112559,-2.05606,0.432004,0.211425,0.0187766,0.48517,0.0627272,0.64729,-0.759045,1.50955,1.02733,-0.0041728,0,0,0,0,0,0,0,-0.95654,-32.2768,-0.685411,25.9314,2.41394,0.785452,-0.304764,
0.181745,-0.0244855,0.122378,-2.0662,0.461969,0.225042,0.0183034,0.34856,0.0540086,0.352371,-0.381662,1.23171,0.479624,-0.020384,-0.618193,1.5607,-0.624644,1.30255,-7.5939,6.12843,0.545741,17.2581,-2.19553,17.5648,-29.7357,10.057,8.17585,-0.181094,0.172044,-0.0266254,0.112559,-2.05606,0.432004,0.211425,0.0187766,0.48517,0.0627272,0.64729,-0.759045,1.50955,1.02733,-0.0041728,0,0,0,0,0,0,0,-0.95654,-32.2768,-0.685411,25.9314,2.41394,0.785452,-0.304764,
0.184171,-0.024149,0.124831,-2.06902,0.471075,0.229237,0.0181964,0.339486,0.0516177,0.343222,-0.375913,1.21302,0.488572,-0.018984,-5.67147,-1.49433,-5.71841,3.59283,-11.6816,5.59241,0.87498,16.9925,-2.04964,17.2917,-29.3173,10.057,8.10623,-0.150358,0.172044,-0.0266254,0.112559,-2.05606,0.432004,0.211425,0.0187766,0.48517,0.0627272,0.64729,-0.759045,1.50955,1.02733,-0.0041728,0,0,0,0,0,0,0,-0.95654,-32.2768,-0.685411,25.9314,2.41394,0.785452,-0.304764,
0.186339,-0.0239403,0.127024,-2.07172,0.479888,0.233537,0.0181145,0.325789,0.0465129,0.329418,-0.368177,1.19074,0.498363,-0.0172338,-8.56068,-3.1905,-8.62752,4.83502,-13.9232,6.11959,1.09393,16.7724,-2.02789,17.0676,-28.8409,10.014,7.96687,-0.122282,0.191395,-0.024593,0.130911,-2.08147,0.485768,0.246868,0.0184631,0.537671,0.0564513,0.606741,-0.742773,1.54656,1.13584,-0.011354,6.56268,-0.784488,-5.0686,2.03403,4.62663,13.5636,-0.897655,-0.452694,-35.2205,0.0644055,23.2178,2.90832,0.063101,-0.224197,
0.198355,-0.0231013,0.137943,-2.08836,0.506202,0.257048,0.0181826,0.340286,0.053738,0.343974,-0.372824,1.19838,0.512608,-0.0171815,9.06069,4.51573,9.09753,-2.90426,4.77337,8.90277,0.0326895,17.3242,-2.33656,17.6342,-29.6834,10.014,8.16205,-0.181386,0.191395,-0.024593,0.130911,-2.08147,0.485768,0.246868,0.0184631,0.537671,0.0564513,0.606741,-0.742773,1.54656,1.13584,-0.011354,0,0,0,0,0,0,0,-0.452694,-35.2205,0.0644055,23.2178,2.90832,0.063101,-0.224197,
0.201097,-0.0226539,0.140714,-2.09124,0.515547,0.26129,0.0180721,0.340799,0.0541763,0.344452,-0.370269,1.19231,0.516127,-0.0165092,0.32069,0.273885,0.298775,1.59672,-3.79347,2.19982,0.420178,17.0586,-2.19067,17.3611,-29.265,10.014,8.09244,-0.150651,0.191395,-0.024593,0.130911,-2.08147,0.485768,0.246868,0.0184631,0.537671,0.0564513,0.606741,-0.742773,1.54656,1.13584,-0.011354,0,0,0,0,0,0,0,-0.452694,-35.2205,0.0644055,23.2178,2.90832,0.063101,-0.224197,
0.203503,-0.0223739,0.143145,-2.09398,0.524524,0.265483,0.0179873,0.332776,0.0503406,0.336344,-0.364527,1.17828,0.51772,-0.0153261,-5.01425,-2.39726,-5.06709,3.58875,-8.77284,0.995617,0.739408,16.7724,-2.02789,17.0676,-28.8409,10.014,7.96687,-0.122282,0.191395,-0.024593,0.130911,-2.08147,0.485768,0.246868,0.0184631,0.537671,0.0564513,0.606741,-0.742773,1.54656,1.13584,-0.011354,0,0,0,0,0,0,0,-0.452694,-35.2205,0.0644055,23.2178,2.90832,0.063101,-0.224197,
0.217076,-0.0230223,0.156173,-2.11375,0.559533,0.292972,0.0181536,0.343626,0.0470816,0.347186,-0.365851,1.18442,0.520319,-0.0148903,6.78115,-2.03689,6.77624,-0.827023,3.84217,1.6242,0.272413,17.2814,-2.47283,17.5933,-29.2857,9.99538,8.02104,-0.149993,0.210303,-0.0235419,0.149382,-2.10711,0.539325,0.283464,0.0183597,0.762836,-0.0673815,0.339697,-0.782992,1.59423,1.1211,-0.00854414,28.1456,-15.4791,-33.3806,-5.02743,5.95887,-1.8419,0.351237,-2.96002,-31.9237,-2.53813,20.528,2.43774,0.552908,-0.150955,
0.219748,-0.0228502,0.158873,-2.11647,0.568721,0.296979,0.0180675,0.341714,0.0419693,0.345231,-0.360801,1.17725,0.51642,-0.0140654,-1.1953,-3.19517,-1.22195,3.15606,-4.48037,-2.43668,0.515514,16.9953,-2.31005,17.2998,-28.8615,9.99538,7.89547,-0.121625,0.210303,-0.0235419,0.149382,-2.10711,0.539325,0.283464,0.0183597,0.762836,-0.0673815,0.339697,-0.782992,1.59423,1.1211,-0.00854414,0,0,0,0,0,0,0,-2.96002,-31.9237,-2.53813,20.528,2.43774,0.552908,-0.150955,
0.222099,-0.0227714,0.161249,-2.11907,0.577479,0.300985,0.0180054,0.332149,0.0355442,0.335589,-0.353423,1.16075,0.513286,-0.0128049,-5.9782,-4.01574,-6.0266,4.6113,-10.3154,-1.95906,0.787833,16.6944,-2.14281,16.992,-28.4361,9.99538,7.73741,-0.0954259,0.210303,-0.0235419,0.149382,-2.10711,0.539325,0.283464,0.0183597,0.762836,-0.0673815,0.339697,-0.782992,1.59423,1.1211,-0.00854414,0,0,0,0,0,0,0,-2.96002,-31.9237,-2.53813,20.528,2.43774,0.552908,-0.150955,
0.224206,-0.0227628,0.163379,-2.12155,0.585705,0.305058,0.017967,0.31838,0.0286524,0.321718,-0.3448,1.13424,0.512447,-0.0112041,-8.60548,-4.30737,-8.66948,5.38962,-16.5695,-0.524589,1.00052,16.3835,-1.98252,16.6743,-28.0123,9.71754,7.54892,-0.0710095,0.210303,-0.0235419,0.149382,-2.10711,0.539325,0.283464,0.0183597,0.762836,-0.0673815,0.339697,-0.782992,1.59423,1.1211,-0.00854414,0,0,0,0,0,0,0,-2.96002,-31.9237,-2.53813,20.528,2.43774,0.552908,-0.150955,
0.217056,-0.0229984,0.156153,-2.11369,0.559526,0.292821,0.0181961,0.331794,0.0300554,0.335157,-0.349218,1.14914,0.513797,-0.0110751,8.38378,0.876886,8.39969,-2.76168,9.31658,0.844343,0.0806188,16.9953,-2.31005,17.2998,-28.8615,9.99538,7.89547,-0.121625,0.210303,-0.0235419,0.149382,-2.10711,0.539325,0.283464,0.0183597,0.762836,-0.0673815,0.339697,-0.782992,1.59423,1.1211,-0.00854414,0,0,0,0,0,0,0,-2.96002,-31.9237,-2.53813,20.528,2.43774,0.552908,-0.150955,
0.219715,-0.0228143,0.158837,-2.11637,0.568629,0.296708,0.0181305,0.331897,0.0286475,0.335238,-0.346423,1.14689,0.508206,-0.0104993,0.0645978,-0.879899,0.0503467,1.74682,-1.40656,-3.49499,0.3599,16.6966,-2.33497,17.0002,-28.392,9.99688,7.72474,-0.0956413,0.224977,-0.0224616,0.172123,-2.13239,0.593814,0.319988,0.0183345,0.698529,-0.00630615,0.400032,-0.757754,1.64559,1.12594,-0.00128481,-8.03842,7.63442,7.54192,3.1548,6.41981,0.603815,0.907417,-3.4956,-30.7771,-4.03777,22.5195,2.12646,0.977713,-0.117081,
0.222053,-0.0227271,0.1612,-2.11891,0.577124,0.300573,0.0180887,0.323991,0.0250976,0.327263,-0.340587,1.12988,0.503185,-0.00944647,-4.94109,-2.21874,-4.98425,3.64796,-10.632,-3.13775,0.657986,16.3858,-2.17467,16.6825,-27.9683,9.71904,7.53625,-0.0712249,0.224977,-0.0224616,0.172123,-2.13239,0.593814,0.319988,0.0183345,0.698529,-0.00630615,0.400032,-0.757754,1.64559,1.12594,-0.00128481,0,0,0,0,0,0,0,-3.4956,-30.7771,-4.03777,22.5195,2.12646,0.977713,-0.117081,
0.224145,-0.0227139,0.163315,-2.12134,0.585015,0.304492,0.0180672,0.311494,0.0204084,0.314676,-0.333288,1.10118,0.500527,-0.00809297,-7.81107,-2.93071,-7.86655,4.56178,-17.9422,-1.66117,0.845941,16.0678,-2.02465,16.3579,-27.5492,9.02721,7.3308,-0.04902,0.224977,-0.0224616,0.172123,-2.13239,0.593814,0.319988,0.0183345,0.698529,-0.00630615,0.400032,-0.757754,1.64559,1.12594,-0.00128481,0,0,0,0,0,0,0,-3.4956,-30.7771,-4.03777,22.5195,2.12646,0.977713,-0.117081,
0.231642,-0.0215026,0.178817,-2.13893,0.613873,0.329178,0.0182297,0.325221,0.0273346,0.328435,-0.339851,1.11781,0.500771,-0.00791052,8.57948,4.32889,8.59946,-4.10202,10.3981,0.152309,0.114027,16.6966,-2.33497,17.0002,-28.392,9.99688,7.72474,-0.0956413,0.224977,-0.0224616,0.172123,-2.13239,0.593814,0.319988,0.0183345,0.698529,-0.00630615,0.400032,-0.757754,1.64559,1.12594,-0.00128481,0,0,0,0,0,0,0,-3.4956,-30.7771,-4.03777,22.5195,2.12646,0.977713,-0.117081,
0.234262,-0.0212229,0.181462,-2.1416,0.622532,0.332855,0.0181889,0.325684,0.0288607,0.328871,-0.338551,1.11073,0.492526,-0.00734714,0.289418,0.953776,0.27203,0.812172,-4.42409,-5.15308,0.352112,16.1548,-2.26052,16.4493,-27.9279,9.6618,7.58797,-0.0691806,0.245258,-0.0208416,0.189882,-2.15599,0.644091,0.354155,0.0183383,0.207462,0.10796,0.915732,-0.650417,1.47238,1.04227,0.000974407,-61.3833,14.2832,64.4625,13.4171,-21.6516,-10.4576,0.282402,-1.21045,-34.8198,-1.43523,27.2763,1.97998,1.17638,-0.150955,
0.236564,-0.0210769,0.183787,-2.14412,0.63049,0.336479,0.0181675,0.3181,0.0267393,0.321222,-0.33389,1.08754,0.484634,-0.00641476,-4.74026,-1.32588,-4.78047,2.91362,-14.4948,-4.93247,0.582738,15.8368,-2.11049,16.1247,-27.5088,8.96997,7.38252,-0.0469757,0.245258,-0.0208416,0.189882,-2.15599,0.644091,0.354155,0.0183383,0.207462,0.10796,0.915732,-0.650417,1.47238,1.04227,0.000974407,0,0,0,0,0,0,0,-1.21045,-34.8198,-1.43523,27.2763,1.97998,1.17638,-0.150955,
0.2519,-0.0192258,0.196645,-2.1624,0.662392,0.36294,0.0182607,0.330402,0.0383112,0.333559,-0.340423,1.08567,0.482837,-0.00611406,7.68918,7.23246,7.71066,-4.08317,-1.17328,-1.12326,0.187942,16.1548,-2.26052,16.4493,-27.9279,9.6618,7.58797,-0.0691806,0.245258,-0.0208416,0.189882,-2.15599,0.644091,0.354155,0.0183383,0.207462,0.10796,0.915732,-0.650417,1.47238,1.04227,0.000974407,0,0,0,0,0,0,0,-1.21045,-34.8198,-1.43523,27.2763,1.97998,1.17638,-0.150955,
0.254501,-0.0187947,0.199268,-2.16509,0.670259,0.366357,0.0182379,0.329344,0.0414258,0.332444,-0.339773,1.06521,0.471711,-0.00546172,-0.661407,1.94664,-0.696969,0.406335,-12.7865,-6.95359,0.40771,15.8368,-2.11049,16.1247,-27.5088,8.96997,7.38252,-0.0469757,0.245258,-0.0208416,0.189882,-2.15599,0.644091,0.354155,0.0183383,0.207462,0.10796,0.915732,-0.650417,1.47238,1.04227,0.000974407,0,0,0,0,0,0,0,-1.21045,-34.8198,-1.43523,27.2763,1.97998,1.17638,-0.150955,
0.256776,-0.018544,0.201565,-2.16765,0.677501,0.3697,0.0182335,0.320348,0.0394083,0.323361,-0.335624,1.0332,0.460941,-0.00447905,-5.6222,-1.26096,-5.67706,2.59277,-20.0057,-6.73112,0.614169,15.4902,-2.20368,15.7664,-27.0712,8.39688,7.15015,-0.0254792,0.267945,-0.0194965,0.203788,-2.17873,0.691991,0.386817,0.01835,0.921284,0.0525992,0.17538,-0.658804,1.38192,0.979208,0.00591504,89.2277,-6.92004,-92.5439,-1.04835,-11.3075,-7.88327,0.617579,-1.64288,-35.5458,-1.73674,27.1017,1.71722,1.01708,-0.210464,
0.2588,-0.0184177,0.203609,-2.17009,0.684224,0.373091,0.0182451,0.306894,0.0346845,0.309809,-0.32957,0.994639,0.453512,-0.00329342,-8.40927,-2.95237,-8.46976,3.78359,-24.0994,-4.64324,0.74102,15.182,-2.07849,15.4519,-26.6648,7.90434,6.92249,-0.0061569,0.267945,-0.0194965,0.203788,-2.17873,0.691991,0.386817,0.01835,0.921284,0.0525992,0.17538,-0.658804,1.38192,0.979208,0.00591504,0,0,0,0,0,0,0,-1.64288,-35.5458,-1.73674,27.1017,1.71722,1.01708,-0.210464,
0.274487,-0.0183581,0.210309,-2.185,0.708722,0.394719,0.0183211,0.31957,0.0399293,0.322458,-0.334995,0.992234,0.448096,-0.0031046,7.92243,3.27799,7.90575,-3.39054,-1.5029,-3.38493,0.118009,15.8077,-2.34,16.0906,-27.4841,8.98141,7.378,-0.0455659,0.267945,-0.0194965,0.203788,-2.17873,0.691991,0.386817,0.01835,0.921284,0.0525992,0.17538,-0.658804,1.38192,0.979208,0.00591504,0,0,0,0,0,0,0,-1.64288,-35.5458,-1.73674,27.1017,1.71722,1.01708,-0.210464,
0.277025,-0.0180562,0.212868,-2.18763,0.71592,0.397826,0.0183153,0.319105,0.0394926,0.321948,-0.333626,0.973733,0.436167,-0.00262716,-0.290568,-0.272951,-0.318793,0.855658,-11.5629,-7.45555,0.298403,15.4902,-2.20368,15.7664,-27.0712,8.39688,7.15015,-0.0254792,0.267945,-0.0194965,0.203788,-2.17873,0.691991,0.386817,0.01835,0.921284,0.0525992,0.17538,-0.658804,1.38192,0.979208,0.00591504,0,0,0,0,0,0,0,-1.64288,-35.5458,-1.73674,27.1017,1.71722,1.01708,-0.210464,
0.279246,-0.0178946,0.215109,-2.19012,0.722604,0.400918,0.0183252,0.310798,0.0356336,0.313577,-0.329197,0.946097,0.426227,-0.00185522,-5.19168,-2.41187,-5.23214,2.76853,-17.2725,-6.21277,0.48246,15.2097,-2.4525,15.4924,-26.7024,7.89124,6.90291,-0.0033469,0.279134,-0.0192401,0.229724,-2.2014,0.736425,0.419677,0.0183522,0.265594,-0.0594434,0.778592,-0.677965,1.14097,0.876781,-0.000405286,-81.9613,-14.0053,75.4014,-2.39517,-30.1183,-12.8034,-0.79004,-2.07531,-31.6499,-3.26018,22.3688,1.91314,0.307547,-0.103348,
0.28533,-0.018949,0.236014,-2.20758,0.750374,0.426553,0.0183558,0.319521,0.0324988,0.322339,-0.333196,0.923826,0.415736,-0.00161226,5.45188,-1.95922,5.47648,-2.49967,-13.9199,-6.55685,0.151853,15.5179,-2.57769,15.8069,-27.1087,8.38378,7.13056,-0.0226692,0.279134,-0.0192401,0.229724,-2.2014,0.736425,0.419677,0.0183522,0.265594,-0.0594434,0.778592,-0.677965,1.14097,0.876781,-0.000405286,0,0,0,0,0,0,0,-2.07531,-31.6499,-3.26018,22.3688,1.91314,0.307547,-0.103348,
0.287767,-0.0188612,0.238474,-2.21015,0.756716,0.429365,0.0183614,0.316547,0.0281941,0.319355,-0.330615,0.897602,0.402873,-0.0011504,-1.85874,-2.69044,-1.8648,1.61325,-16.3895,-8.03907,0.288659,15.2097,-2.4525,15.4924,-26.7024,7.89124,6.90291,-0.0033469,0.279134,-0.0192401,0.229724,-2.2014,0.736425,0.419677,0.0183522,0.265594,-0.0594434,0.778592,-0.677965,1.14097,0.876781,-0.000405286,0,0,0,0,0,0,0,-2.07531,-31.6499,-3.26018,22.3688,1.91314,0.307547,-0.103348,
0.289908,-0.0188443,0.240636,-2.21257,0.762651,0.432236,0.0183847,0.306746,0.0229768,0.309532,-0.325074,0.866469,0.394072,-0.000338813,-6.12584,-3.2608,-6.13971,3.46309,-19.4582,-5.50095,0.507243,14.9003,-2.33783,15.1766,-26.3034,7.51508,6.67148,0.0139586,0.279134,-0.0192401,0.229724,-2.2014,0.736425,0.419677,0.0183522,0.265594,-0.0594434,0.778592,-0.677965,1.14097,0.876781,-0.000405286,0,0,0,0,0,0,0,-2.07531,-31.6499,-3.26018,22.3688,1.91314,0.307547,-0.103348,
0.291821,-0.0188832,0.242571,-2.21488,0.768066,0.43524,0.0184243,0.293235,0.0174109,0.295998,-0.317869,0.828547,0.390362,0.000719167,-8.44404,-3.47871,-8.45844,4.50311,-23.7013,-2.319,0.661238,14.6089,-2.32057,14.8909,-25.8265,6.90804,6.49159,0.0298995,0.305196,-0.019312,0.239084,-2.22384,0.778582,0.450655,0.0183626,0.562814,-0.00561486,0.500395,-0.677606,1.16841,0.93515,-0.000105756,37.1525,6.72857,-34.7745,0.0449138,3.4298,7.29619,0.0374412,-1.08349,-29.9519,-0.33629,22.1188,2.29126,0.149161,-0.110672,
0.311422,-0.0186084,0.245351,-2.23006,0.792009,0.457569,0.0184093,0.305187,0.0219098,0.307975,-0.324475,0.821425,0.385224,0.000914602,7.46961,2.81182,7.48542,-4.12897,-4.45129,-3.21112,0.122147,15.2238,-2.54813,15.5112,-26.6219,7.95012,6.93791,-0.00361612,0.305196,-0.019312,0.239084,-2.22384,0.778582,0.450655,0.0183626,0.562814,-0.00561486,0.500395,-0.677606,1.16841,0.93515,-0.000105756,0,0,0,0,0,0,0,-1.08349,-29.9519,-0.33629,22.1188,2.29126,0.149161,-0.110672,
0.313838,-0.0184164,0.247789,-2.23262,0.797861,0.460219,0.0184328,0.304542,0.0223266,0.307326,-0.323637,0.803459,0.374414,0.0013189,-0.403009,0.260482,-0.405301,0.523879,-11.2287,-6.75605,0.252684,14.9144,-2.43346,15.1954,-26.2229,7.57396,6.70648,0.0136893,0.305196,-0.019312,0.239084,-2.22384,0.778582,0.450655,0.0183626,0.562814,-0.00561486,0.500395,-0.677606,1.16841,0.93515,-0.000105756,0,0,0,0,0,0,0,-1.08349,-29.9519,-0.33629,22.1188,2.29126,0.149161,-0.110672,
0.315953,-0.018331,0.249926,-2.23503,0.803185,0.462895,0.0184716,0.29652,0.0199976,0.299287,-0.319217,0.775867,0.366432,0.0020254,-5.01361,-1.45564,-5.02449,2.76244,-17.2451,-4.98906,0.441564,14.6089,-2.32057,14.8909,-25.8265,6.90804,6.49159,0.0298995,0.305196,-0.019312,0.239084,-2.22384,0.778582,0.450655,0.0183626,0.562814,-0.00561486,0.500395,-0.677606,1.16841,0.93515,-0.000105756,0,0,0,0,0,0,0,-1.08349,-29.9519,-0.33629,22.1188,2.29126,0.149161,-0.110672,
0.317841,-0.0183238,0.251834,-2.23733,0.80798,0.465708,0.0185235,0.284398,0.0161783,0.287142,-0.312916,0.740558,0.363485,0.00291646,-7.57621,-2.38707,-7.59104,3.93834,-22.0679,-1.84179,0.556912,14.2298,-2.54479,14.5173,-25.4624,6.12012,6.28411,0.044089,0.314489,-0.0184707,0.264698,-2.2454,0.81711,0.479789,0.0183936,0.687161,0.0637421,0.284388,-0.639387,1.21859,0.837264,0.00403685,15.5434,8.66963,-27.0009,4.77735,6.27276,-12.2358,0.517826,-1.53973,-33.3717,-2.63732,24.6857,1.79687,1.51513,-0.130813,
0.32023,-0.0173363,0.270447,-2.25157,0.830251,0.486136,0.0184949,0.292678,0.0248535,0.295433,-0.320493,0.743164,0.358501,0.00332822,5.17519,5.42204,5.18208,-4.73586,1.62873,-3.11451,0.257352,14.8392,-2.76891,15.1226,-26.2549,7.60881,6.70293,0.0138527,0.314489,-0.0184707,0.264698,-2.2454,0.81711,0.479789,0.0183936,0.687161,0.0637421,0.284388,-0.639387,1.21859,0.837264,0.00403685,0,0,0,0,0,0,0,-1.53973,-33.3717,-2.63732,24.6857,1.79687,1.51513,-0.130813,
0.322477,-0.0170483,0.272716,-2.25413,0.835559,0.488645,0.0185395,0.29031,0.0270838,0.293062,-0.320373,0.727245,0.349521,0.00377654,-1.4801,1.39391,-1.48174,0.0748672,-9.94962,-5.61289,0.280202,14.5338,-2.65602,14.8181,-25.8585,6.9429,6.48803,0.0300629,0.314489,-0.0184707,0.264698,-2.2454,0.81711,0.479789,0.0183936,0.687161,0.0637421,0.284388,-0.639387,1.21859,0.837264,0.00403685,0,0,0,0,0,0,0,-1.53973,-33.3717,-2.63732,24.6857,1.79687,1.51513,-0.130813,
0.324459,-0.0169026,0.274719,-2.25654,0.84028,0.491226,0.0185938,0.281796,0.025309,0.284529,-0.316499,0.69981,0.344151,0.00438001,-5.32136,-1.10924,-5.33321,2.42131,-17.1468,-3.35597,0.377167,14.2298,-2.54479,14.5173,-25.4624,6.12012,6.28411,0.044089,0.314489,-0.0184707,0.264698,-2.2454,0.81711,0.479789,0.0183936,0.687161,0.0637421,0.284388,-0.639387,1.21859,0.837264,0.00403685,0,0,0,0,0,0,0,-1.53973,-33.3717,-2.63732,24.6857,1.79687,1.51513,-0.130813,
0.326239,-0.0168567,0.27652,-2.25883,0.8445,0.493977,0.0186597,0.269935,0.0213959,0.272641,-0.310615,0.665355,0.344098,0.00515083,-7.41313,-2.44571,-7.43028,3.67765,-21.5342,-0.033391,0.481761,14.06,-2.66527,14.3542,-24.9056,5.50096,6.13391,0.05766,0.340682,-0.0188284,0.27243,-2.26705,0.851701,0.50722,0.0184391,0.241672,-0.0436495,0.768227,-0.671304,1.14393,0.881655,0.000591007,-55.6861,-13.424,60.4799,-3.98967,-9.33305,5.54896,-0.430731,-0.730404,-29.456,-0.312487,21.972,2.08984,0.971304,-0.0703886,
0.34652,-0.0184737,0.278361,-2.27303,0.86326,0.513405,0.0185691,0.282398,0.0214434,0.285142,-0.315439,0.663786,0.33969,0.00536722,7.7895,0.0297233,7.81307,-3.0152,-0.980679,-2.75498,0.135245,14.6519,-2.88669,14.9437,-25.6983,7.01202,6.51847,0.0307927,0.340682,-0.0188284,0.27243,-2.26705,0.851701,0.50722,0.0184391,0.241672,-0.0436495,0.768227,-0.671304,1.14393,0.881655,0.000591007,0,0,0,0,0,0,0,-0.730404,-29.456,-0.312487,21.972,2.08984,0.971304,-0.0703886,
0.348797,-0.0183922,0.28066,-2.27546,0.867921,0.515772,0.0186204,0.282847,0.0191917,0.285598,-0.313256,0.647562,0.330935,0.00557479,0.280666,-1.40734,0.285463,1.3648,-10.1404,-5.47183,0.129729,14.348,-2.77546,14.6429,-25.3022,6.18925,6.31454,0.0448188,0.340682,-0.0188284,0.27243,-2.26705,0.851701,0.50722,0.0184391,0.241672,-0.0436495,0.768227,-0.671304,1.14393,0.881655,0.000591007,0,0,0,0,0,0,0,-0.730404,-29.456,-0.312487,21.972,2.08984,0.971304,-0.0703886,
0.350795,-0.0183918,0.28268,-2.27777,0.872116,0.518227,0.0186827,0.276227,0.0153643,0.278974,-0.308241,0.622935,0.326121,0.00601706,-4.13746,-2.39211,-4.13998,3.13429,-15.3917,-3.00898,0.276421,14.06,-2.66527,14.3542,-24.9056,5.50096,6.13391,0.05766,0.340682,-0.0188284,0.27243,-2.26705,0.851701,0.50722,0.0184391,0.241672,-0.0436495,0.768227,-0.671304,1.14393,0.881655,0.000591007,0,0,0,0,0,0,0,-0.730404,-29.456,-0.312487,21.972,2.08984,0.971304,-0.0703886,
0.346498,-0.0184662,0.278339,-2.27292,0.862525,0.513179,0.0185988,0.287107,0.0166659,0.289874,-0.312238,0.619418,0.322214,0.00636803,6.79971,0.813482,6.8126,-2.4981,-2.1982,-2.44181,0.219357,14.1439,-3.08542,14.4472,-25.3289,6.20518,6.36362,0.0458242,0.349477,-0.0186287,0.297201,-2.28842,0.882766,0.533169,0.0185339,0.804888,0.0429241,0.158542,-0.587508,1.00345,0.768022,0.000147114,70.4021,10.8217,-76.2107,10.4745,-17.5593,-14.2041,-0.0554866,-3.95184,-29.0553,-4.71221,21.5237,1.56433,1.19652,-0.0703886,
0.34876,-0.0183844,0.280622,-2.27532,0.866765,0.515426,0.0186615,0.286227,0.0153786,0.288989,-0.30963,0.60154,0.313928,0.00666053,-0.549776,-0.804565,-0.553567,1.62959,-11.1735,-5.1783,0.182812,13.8559,-2.97523,14.1586,-24.9323,5.51689,6.18299,0.0586654,0.349477,-0.0186287,0.297201,-2.28842,0.882766,0.533169,0.0185339,0.804888,0.0429241,0.158542,-0.587508,1.00345,0.768022,0.000147114,0,0,0,0,0,0,0,-3.95184,-29.0553,-4.71221,21.5237,1.56433,1.19652,-0.0703886,
0.35074,-0.0183829,0.282624,-2.27759,0.870574,0.517767,0.0187349,0.27849,0.0123403,0.281236,-0.304494,0.576441,0.309679,0.0071632,-4.83564,-1.89889,-4.84568,3.21043,-15.6872,-2.65621,0.31417,13.5836,-2.8725,13.883,-24.5383,4.96152,6.02941,0.0730966,0.349477,-0.0186287,0.297201,-2.28842,0.882766,0.533169,0.0185339,0.804888,0.0429241,0.158542,-0.587508,1.00345,0.768022,0.000147114,0,0,0,0,0,0,0,-3.95184,-29.0553,-4.71221,21.5237,1.56433,1.19652,-0.0703886,
0.352505,-0.0184387,0.28441,-2.27976,0.873917,0.520291,0.0188233,0.266919,0.00847521,0.269643,-0.297976,0.54474,0.310833,0.00794217,-7.2322,-2.4157,-7.24516,4.07375,-19.8129,0.721248,0.486854,13.287,-2.77741,13.5815,-24.1549,4.51164,5.89763,0.088107,0.349477,-0.0186287,0.297201,-2.28842,0.882766,0.533169,0.0185339,0.804888,0.0429241,0.158542,-0.587508,1.00345,0.768022,0.000147114,0,0,0,0,0,0,0,-3.95184,-29.0553,-4.71221,21.5237,1.56433,1.19652,-0.0703886,
0.355068,-0.0178402,0.302779,-2.29416,0.892307,0.538606,0.0187064,0.276546,0.0147733,0.279287,-0.303859,0.542013,0.305537,0.00820624,6.01699,3.93629,6.02714,-3.6768,-1.70454,-3.30952,0.165045,13.8559,-2.97523,14.1586,-24.9323,5.51689,6.18299,0.0586654,0.349477,-0.0186287,0.297201,-2.28842,0.882766,0.533169,0.0185339,0.804888,0.0429241,0.158542,-0.587508,1.00345,0.768022,0.000147114,0,0,0,0,0,0,0,-3.95184,-29.0553,-4.71221,21.5237,1.56433,1.19652,-0.0703886,
0.357227,-0.0176727,0.30496,-2.29657,0.896022,0.540736,0.0187825,0.275213,0.0160055,0.277963,-0.303371,0.526466,0.297668,0.00846682,-0.833077,0.770113,-0.827506,0.304865,-9.71649,-4.91831,0.162859,13.5836,-2.8725,13.883,-24.5383,4.96152,6.02941,0.0730966,0.349477,-0.0186287,0.297201,-2.28842,0.882766,0.533169,0.0185339,0.804888,0.0429241,0.158542,-0.587508,1.00345,0.768022,0.000147114,0,0,0,0,0,0,0,-3.95184,-29.0553,-4.71221,21.5237,1.56433,1.19652,-0.0703886,
0.359122,-0.0176172,0.306876,-2.29885,0.899261,0.542978,0.0188715,0.267529,0.0141917,0.27027,-0.29963,0.502156,0.2942,0.00899981,-4.80252,-1.1336,-4.80802,2.33778,-15.1937,-2.16731,0.333123,13.287,-2.77741,13.5815,-24.1549,4.51164,5.89763,0.088107,0.349477,-0.0186287,0.297201,-2.28842,0.882766,0.533169,0.0185339,0.804888,0.0429241,0.158542,-0.587508,1.00345,0.768022,0.000147114,0,0,0,0,0,0,0,-3.95184,-29.0553,-4.71221,21.5237,1.56433,1.19652,-0.0703886,
0.36081,-0.0176398,0.308586,-2.30101,0.901982,0.545395,0.0189654,0.256234,0.0107888,0.258958,-0.293858,0.469751,0.295776,0.00954585,-7.05913,-2.12682,-7.07025,3.60763,-20.2536,0.985072,0.341273,12.9306,-2.6789,13.223,-23.7824,3.83779,5.76855,0.103407,0.349477,-0.0186287,0.297201,-2.28842,0.882766,0.533169,0.0185339,0.804888,0.0429241,0.158542,-0.587508,1.00345,0.768022,0.000147114,0,0,0,0,0,0,0,-3.95184,-29.0553,-4.71221,21.5237,1.56433,1.19652,-0.0703886,
0.355047,-0.0178303,0.302757,-2.29407,0.891799,0.538427,0.0187355,0.267673,0.0167181,0.270399,-0.299511,0.47492,0.291034,0.00981892,7.14949,3.70584,7.15071,-3.53289,3.23093,-2.96377,0.170665,13.5836,-2.8725,13.883,-24.5383,4.96152,6.02941,0.0730966,0.349477,-0.0186287,0.297201,-2.28842,0.882766,0.533169,0.0185339,0.804888,0.0429241,0.158542,-0.587508,1.00345,0.768022,0.000147114,0,0,0,0,0,0,0,-3.95184,-29.0553,-4.71221,21.5237,1.56433,1.19652,-0.0703886,
0.357189,-0.0176609,0.30492,-2.29644,0.895115,0.540445,0.0188261,0.267687,0.0176076,0.270412,-0.298725,0.462816,0.283287,0.0101202,0.00831472,0.555902,0.0080324,0.491108,-7.56511,-4.8419,0.188305,13.3085,-2.93245,13.6058,-24.0905,4.548,5.92788,0.0899538,0.371012,-0.0183676,0.308258,-2.30906,0.908208,0.557708,0.0186502,0.12777,-0.0132758,0.863772,-0.602593,0.65797,0.688535,-0.000632757,-84.6398,-7.02499,88.1539,-1.88554,-43.1853,-9.93586,-0.097484,-1.79364,-33.2964,-2.01048,25.7568,1.54602,1.28258,-0.050247,
0.35906,-0.017605,0.306813,-2.29867,0.897854,0.542554,0.0189194,0.260928,0.0154834,0.263638,-0.294691,0.438725,0.279357,0.0104269,-4.22437,-1.32761,-4.23362,2.52147,-15.0566,-2.45663,0.191672,12.9522,-2.83394,13.2473,-23.718,3.87415,5.79879,0.105254,0.371012,-0.0183676,0.308258,-2.30906,0.908208,0.557708,0.0186502,0.12777,-0.0132758,0.863772,-0.602593,0.65797,0.688535,-0.000632757,0,0,0,0,0,0,0,-1.79364,-33.2964,-2.01048,25.7568,1.54602,1.28258,-0.050247,
0.360723,-0.0176272,0.308496,-2.30077,0.899843,0.544818,0.0190149,0.250301,0.0118327,0.252992,-0.288332,0.400706,0.280067,0.0107303,-6.64193,-2.28171,-6.65346,3.97447,-23.762,0.444221,0.189613,12.4912,-2.71336,12.7849,-23.3512,3.08869,5.62165,0.107598,0.371012,-0.0183676,0.308258,-2.30906,0.908208,0.557708,0.0186502,0.12777,-0.0132758,0.863772,-0.602593,0.65797,0.688535,-0.000632757,0,0,0,0,0,0,0,-1.79364,-33.2964,-2.01048,25.7568,1.54602,1.28258,-0.050247,
0.37664,-0.0179166,0.314,-2.31486,0.914168,0.562083,0.0188452,0.264132,0.0145879,0.266874,-0.296432,0.38799,0.268313,0.0107896,8.64487,1.72202,8.67629,-5.06292,-7.94773,-7.34633,0.0371162,13.3085,-2.93245,13.6058,-24.0905,4.548,5.92788,0.0899538,0.371012,-0.0183676,0.308258,-2.30906,0.908208,0.557708,0.0186502,0.12777,-0.0132758,0.863772,-0.602593,0.65797,0.688535,-0.000632757,0,0,0,0,0,0,0,-1.79364,-33.2964,-2.01048,25.7568,1.54602,1.28258,-0.050247,
0.378811,-0.0178071,0.316193,-2.31725,0.916487,0.563732,0.0189323,0.265573,0.014409,0.268317,-0.296776,0.368359,0.255875,0.0108092,0.900167,-0.111827,0.901539,-0.215025,-12.269,-7.77428,0.0121999,12.8949,-3.17319,13.204,-23.8063,3.88714,5.79667,0.106234,0.38604,-0.0189927,0.323975,-2.32947,0.929399,0.579426,0.0188274,0.852068,-0.0324945,0.00522594,-0.590434,0.462959,0.589588,0.00617172,90.5372,-2.40234,-107.318,1.5198,-24.3764,-12.3684,0.850559,-1.49212,-28.8808,-2.11363,25.6815,1.26495,1.27617,-0.0365141,
0.380696,-0.0177803,0.3181,-2.31946,0.918207,0.565498,0.0190233,0.259598,0.0121965,0.262331,-0.292754,0.337684,0.248851,0.0109211,-3.73403,-1.38282,-3.74082,2.5139,-19.1718,-4.3896,0.0699662,12.434,-3.05261,12.7416,-23.4395,3.10168,5.61953,0.108578,0.38604,-0.0189927,0.323975,-2.32947,0.929399,0.579426,0.0188274,0.852068,-0.0324945,0.00522594,-0.590434,0.462959,0.589588,0.00617172,0,0,0,0,0,0,0,-1.49212,-28.8808,-2.11363,25.6815,1.26495,1.27617,-0.0365141,
0.391074,-0.0187287,0.328981,-2.33524,0.933493,0.583577,0.0190358,0.264454,0.0132137,0.267233,-0.299553,0.316301,0.243262,0.0110316,3.03491,0.635755,3.06357,-4.24953,-13.3645,-3.49292,0.0690657,12.8949,-3.17319,13.204,-23.8063,3.88714,5.79667,0.106234,0.38604,-0.0189927,0.323975,-2.32947,0.929399,0.579426,0.0188274,0.852068,-0.0324945,0.00522594,-0.590434,0.462959,0.589588,0.00617172,0,0,0,0,0,0,0,-1.49212,-28.8808,-2.11363,25.6815,1.26495,1.27617,-0.0365141,
0.393024,-0.0186554,0.330954,-2.33758,0.934868,0.58529,0.0191256,0.260295,0.0124039,0.263112,-0.298107,0.287417,0.237442,0.0110687,-2.59962,-0.50613,-2.57585,0.90368,-18.0525,-3.63751,0.0231616,12.434,-3.05261,12.7416,-23.4395,3.10168,5.61953,0.108578,0.38604,-0.0189927,0.323975,-2.32947,0.929399,0.579426,0.0188274,0.852068,-0.0324945,0.00522594,-0.590434,0.462959,0.589588,0.00617172,0,0,0,0,0,0,0,-1.49212,-28.8808,-2.11363,25.6815,1.26495,1.27617,-0.0365141,
0.394735,-0.0186507,0.332688,-2.33974,0.935631,0.58715,0.0192155,0.251015,0.0100406,0.253846,-0.292459,0.249021,0.236444,0.0111028,-5.79961,-1.47703,-5.79095,3.53041,-23.9974,-0.624149,0.0213542,11.95,-3.13278,12.2656,-22.9531,1.90371,5.45487,0.104716,0.398948,-0.0187716,0.34092,-2.34855,0.945455,0.600427,0.019014,-0.0691667,0.0299094,0.913504,-0.564471,0.308742,0.561162,0.00706821,-115.154,7.80049,113.535,3.24542,-19.2771,-3.55325,0.112062,1.12232,-32.9234,0.639662,26.3043,1.06994,1.44189,0.0303194,
0.396265,-0.0187027,0.334241,-2.34177,0.935753,0.589222,0.0193043,0.239065,0.00673161,0.241895,-0.284696,0.202261,0.240964,0.0111024,-7.46915,-2.06813,-7.46941,4.8516,-29.2253,2.82542,-0.000261651,11.6231,-2.94767,11.9396,-22.5261,0.704818,5.28138,0.0993541,0.398948,-0.0187716,0.34092,-2.34855,0.945455,0.600427,0.019014,-0.0691667,0.0299094,0.913504,-0.564471,0.308742,0.561162,0.00706821,0,0,0,0,0,0,0,1.12232,-32.9234,0.639662,26.3043,1.06994,1.44189,0.0303194,
0.403752,-0.0180473,0.345868,-2.35439,0.94754,0.604314,0.0192176,0.246169,0.013205,0.249103,-0.29417,0.182238,0.233231,0.0111684,4.44042,4.04589,4.50457,-5.92133,-12.5144,-4.83343,0.0412404,12.3839,-3.29873,12.6954,-23.3478,3.15955,5.64024,0.109001,0.398948,-0.0187716,0.34092,-2.34855,0.945455,0.600427,0.019014,-0.0691667,0.0299094,0.913504,-0.564471,0.308742,0.561162,0.00706821,0,0,0,0,0,0,0,1.12232,-32.9234,0.639662,26.3043,1.06994,1.44189,0.0303194,
0.405635,-0.0178593,0.347775,-2.35676,0.947886,0.605869,0.0193054,0.244001,0.0152651,0.246955,-0.294619,0.15445,0.225461,0.0111297,-1.35506,1.28753,-1.34221,-0.280119,-17.3673,-4.85614,-0.0241931,11.95,-3.13278,12.2656,-22.9531,1.90371,5.45487,0.104716,0.398948,-0.0187716,0.34092,-2.34855,0.945455,0.600427,0.019014,-0.0691667,0.0299094,0.913504,-0.564471,0.308742,0.561162,0.00706821,0,0,0,0,0,0,0,1.12232,-32.9234,0.639662,26.3043,1.06994,1.44189,0.0303194,
0.40729,-0.017776,0.349453,-2.35895,0.947717,0.607584,0.0193923,0.23657,0.0142946,0.239514,-0.290298,0.119333,0.223255,0.0110759,-4.64446,-0.606546,-4.65066,2.70016,-21.9483,-1.37888,-0.0336374,11.6538,-3.3269,11.9838,-22.4246,0.755071,5.2777,0.0994008,0.416259,-0.0196179,0.351105,-2.36787,0.958753,0.618568,0.0191601,0.841711,-0.058526,-0.0549267,-0.562915,0.310243,0.56902,0.00487544,113.86,-11.0544,-121.054,0.19454,0.187546,0.982261,-0.274097,0.511356,-27.3097,0.0644055,20.3018,1.63757,0.606009,0.124619,
0.408774,-0.0177733,0.35096,-2.36099,0.947034,0.609534,0.0194784,0.22637,0.0115031,0.229288,-0.28343,0.0783796,0.227354,0.0110125,-6.37506,-1.74469,-6.3911,4.29254,-25.5958,2.56189,-0.0396376,11.4451,-3.17081,11.772,-21.9849,-0.224164,5.12245,0.0957758,0.416259,-0.0196179,0.351105,-2.36787,0.958753,0.618568,0.0191601,0.841711,-0.058526,-0.0549267,-0.562915,0.310243,0.56902,0.00487544,0,0,0,0,0,0,0,0.511356,-27.3097,0.0644055,20.3018,1.63757,0.606009,0.124619,
0.420848,-0.019645,0.355662,-2.37331,0.959786,0.62264,0.0193726,0.232735,0.00955274,0.235682,-0.287828,0.0676018,0.22536,0.0110954,3.97796,-1.21898,3.9964,-2.74834,-6.73613,-1.24632,0.0518513,11.9807,-3.51201,12.3098,-22.8516,1.95396,5.45119,0.104763,0.416259,-0.0196179,0.351105,-2.36787,0.958753,0.618568,0.0191601,0.841711,-0.058526,-0.0549267,-0.562915,0.310243,0.56902,0.00487544,0,0,0,0,0,0,0,0.511356,-27.3097,0.0644055,20.3018,1.63757,0.606009,0.124619,
0.422627,-0.019666,0.357465,-2.37549,0.959511,0.624349,0.0194565,0.230642,0.00711816,0.233621,-0.284945,0.0472057,0.223014,0.0109753,-1.30767,-1.52161,-1.28854,1.80184,-12.7475,-1.46636,-0.0750587,11.6538,-3.3269,11.9838,-22.4246,0.755071,5.2777,0.0994008,0.416259,-0.0196179,0.351105,-2.36787,0.958753,0.618568,0.0191601,0.841711,-0.058526,-0.0549267,-0.562915,0.310243,0.56902,0.00487544,0,0,0,0,0,0,0,0.511356,-27.3097,0.0644055,20.3018,1.63757,0.606009,0.124619,
0.424198,-0.0197347,0.359061,-2.37753,0.95878,0.626226,0.0195395,0.223797,0.0039762,0.226785,-0.278825,0.0195074,0.225337,0.0108547,-4.27866,-1.96373,-4.27209,3.82487,-17.3115,1.45182,-0.0753745,11.4195,-3.54308,11.7551,-21.7893,-0.142434,5.12524,0.0958007,0.424106,-0.0197952,0.371007,-2.38717,0.966503,0.637432,0.0193288,0.00447173,-0.00370283,0.780616,-0.559557,0.258727,0.550592,0.0122746,-104.655,6.8529,104.443,0.419666,-6.43945,-2.30351,0.92489,0.487552,-27.6311,-0.33629,18.6078,1.77856,0.745169,0.138352,
0.428534,-0.0193871,0.37556,-2.3927,0.965916,0.641113,0.0195493,0.229559,0.00763545,0.232642,-0.285376,-5.99667e-05,0.218681,0.0109714,3.60125,2.28703,3.66059,-4.09457,-12.2296,-4.15999,0.0729382,11.6281,-3.69918,11.9668,-22.229,0.8368,5.28049,0.0994257,0.424106,-0.0197952,0.371007,-2.38717,0.966503,0.637432,0.0193288,0.00447173,-0.00370283,0.780616,-0.559557,0.258727,0.550592,0.0122746,0,0,0,0,0,0,0,0.487552,-27.6311,-0.33629,18.6078,1.77856,0.745169,0.138352,
0.430274,-0.0193044,0.377326,-2.39493,0.964888,0.642635,0.019632,0.227148,0.00817465,0.230258,-0.284046,-0.0257472,0.212977,0.0108455,-1.50669,0.337,-1.4899,0.831499,-16.0545,-3.56481,-0.0786862,11.4195,-3.54308,11.7551,-21.7893,-0.142434,5.12524,0.0958007,0.424106,-0.0197952,0.371007,-2.38717,0.966503,0.637432,0.0193288,0.00447173,-0.00370283,0.780616,-0.559557,0.258727,0.550592,0.0122746,0,0,0,0,0,0,0,0.487552,-27.6311,-0.33629,18.6078,1.77856,0.745169,0.138352,
0.431815,-0.0193072,0.378892,-2.39699,0.963508,0.644348,0.0197143,0.220244,0.00646919,0.223354,-0.278902,-0.0550959,0.213207,0.0107323,-4.315,-1.06591,-4.31538,3.21461,-18.3429,0.143866,-0.0707537,11.3069,-3.44251,11.6373,-21.3538,-0.940924,4.99442,0.0938302,0.424106,-0.0197952,0.371007,-2.38717,0.966503,0.637432,0.0193288,0.00447173,-0.00370283,0.780616,-0.559557,0.258727,0.550592,0.0122746,0,0,0,0,0,0,0,0.487552,-27.6311,-0.33629,18.6078,1.77856,0.745169,0.138352,
0.433209,-0.0193785,0.380311,-2.39894,0.961809,0.64631,0.019797,0.211064,0.00339319,0.214158,-0.271867,-0.086558,0.21962,0.0106542,-5.73766,-1.9225,-5.74722,4.39729,-19.6638,4.0078,-0.0488228,11.2588,-3.64085,11.5878,-20.8041,-1.53332,4.8684,0.094115,0.443884,-0.0201181,0.37672,-2.40603,0.969905,0.654725,0.019412,0.594702,-0.0183786,0.15183,-0.562639,0.154276,0.522145,0.00150564,73.7787,-1.83447,-78.5983,-0.385239,-13.0564,-3.55581,-1.34611,-1.44055,-28.9046,-1.08611,22.4957,1.40594,0.865103,0.0641939,
0.44817,-0.0198332,0.381018,-2.4115,0.96785,0.658181,0.0196257,0.217258,0.00605155,0.220396,-0.278891,-0.102176,0.212186,0.0107488,3.87139,1.66148,3.89863,-4.39004,-9.7614,-4.64608,0.0591043,11.4147,-3.78221,11.755,-21.6637,-0.0871858,5.11219,0.0960488,0.443884,-0.0201181,0.37672,-2.40603,0.969905,0.654725,0.019412,0.594702,-0.0183786,0.15183,-0.562639,0.154276,0.522145,0.00150564,0,0,0,0,0,0,0,-1.44055,-28.9046,-1.08611,22.4957,1.40594,0.865103,0.0641939,
0.449845,-0.019779,0.38272,-2.41369,0.966242,0.659665,0.0197066,0.215699,0.00619775,0.218858,-0.277921,-0.121947,0.206862,0.0106207,-0.97442,0.0913704,-0.961314,0.605982,-12.357,-3.32734,-0.0800221,11.3021,-3.68163,11.6372,-21.2281,-0.885675,4.98137,0.0940783,0.443884,-0.0201181,0.37672,-2.40603,0.969905,0.654725,0.019412,0.594702,-0.0183786,0.15183,-0.562639,0.154276,0.522145,0.00150564,0,0,0,0,0,0,0,-1.44055,-28.9046,-1.08611,22.4957,1.40594,0.865103,0.0641939,
0.451338,-0.0198029,0.384237,-2.41572,0.964396,0.661362,0.0197871,0.209865,0.00435988,0.21302,-0.273128,-0.143705,0.207899,0.0105112,-3.64635,-1.14867,-3.6488,2.99574,-13.5982,0.647949,-0.0684829,11.2588,-3.64085,11.5878,-20.8041,-1.53332,4.8684,0.094115,0.443884,-0.0201181,0.37672,-2.40603,0.969905,0.654725,0.019412,0.594702,-0.0183786,0.15183,-0.562639,0.154276,0.522145,0.00150564,0,0,0,0,0,0,0,-1.44055,-28.9046,-1.08611,22.4957,1.40594,0.865103,0.0641939,
0.452695,-0.0198926,0.385619,-2.41764,0.962336,0.663314,0.0198691,0.201829,0.00124596,0.204967,-0.266425,-0.166475,0.215124,0.0104588,-5.02231,-1.9462,-5.03303,4.18955,-14.2314,4.51598,-0.0327466,11.2574,-3.65237,11.5795,-20.3942,-2.03434,4.77262,0.0947805,0.443884,-0.0201181,0.37672,-2.40603,0.969905,0.654725,0.019412,0.594702,-0.0183786,0.15183,-0.562639,0.154276,0.522145,0.00150564,0,0,0,0,0,0,0,-1.44055,-28.9046,-1.08611,22.4957,1.40594,0.865103,0.0641939,
0.452615,-0.0207045,0.401798,-2.42907,0.968609,0.678635,0.0189873,0.205366,-0.00269022,0.208436,-0.261596,-0.135271,0.243645,0.00274349,2.21066,-2.46011,2.16776,3.01797,19.5026,17.8253,-4.82205,11.2735,-4.07893,11.6231,-21.1256,-0.834392,4.94859,0.0945905,0.448685,-0.0206061,0.397819,-2.42444,0.969103,0.672933,0.0194674,0.3505,0.00296481,0.359761,-0.544825,-0.0824286,0.489664,-0.000216184,-30.5252,2.66793,25.9914,2.22678,-29.588,-4.0602,-0.215229,-2.50378,-28.1072,-3.86321,24.2136,0.855709,1.30273,0.0843355,
0.454072,-0.0210799,0.403275,-2.43058,0.968741,0.681652,0.0188893,0.200726,-0.0115365,0.203662,-0.246865,-0.104901,0.270343,-0.000254272,-2.89983,-5.52892,-2.98336,9.20684,18.9809,16.6866,-1.8736,11.2302,-4.03815,11.5737,-20.7016,-1.48204,4.83562,0.0946271,0.448685,-0.0206061,0.397819,-2.42444,0.969103,0.672933,0.0194674,0.3505,0.00296481,0.359761,-0.544825,-0.0824286,0.489664,-0.000216184,0,0,0,0,0,0,0,-2.50378,-28.1072,-3.86321,24.2136,0.855709,1.30273,0.0843355,
0.45531,-0.0216599,0.404529,-2.43179,0.968998,0.684709,0.0189419,0.19151,-0.0237286,0.194274,-0.227909,-0.077508,0.292719,0.00111068,-5.76005,-7.62008,-5.86773,11.8474,17.1207,13.9847,0.853092,11.2288,-4.04966,11.5655,-20.2917,-1.98305,4.73984,0.0952927,0.448685,-0.0206061,0.397819,-2.42444,0.969103,0.672933,0.0194674,0.3505,0.00296481,0.359761,-0.544825,-0.0824286,0.489664,-0.000216184,0,0,0,0,0,0,0,-2.50378,-28.1072,-3.86321,24.2136,0.855709,1.30273,0.0843355,
0.452615,-0.0207045,0.401798,-2.42907,0.968609,0.678635,0.0189873,0.197111,-0.0226699,0.199881,-0.230784,-0.0640972,0.30572,-0.00473499,3.50051,0.66171,3.50442,-1.79648,8.38175,8.12598,-3.65354,11.2302,-4.03815,11.5737,-20.7016,-1.48204,4.83562,0.0946271,0.448685,-0.0206061,0.397819,-2.42444,0.969103,0.672933,0.0194674,0.3505,0.00296481,0.359761,-0.544825,-0.0824286,0.489664,-0.000216184,0,0,0,0,0,0,0,-2.50378,-28.1072,-3.86321,24.2136,0.855709,1.30273,0.0843355,
0.454075,-0.0211004,0.403274,-2.43038,0.968383,0.681392,0.0189185,0.194235,-0.0277878,0.196907,-0.220708,-0.051406,0.317815,-0.00608253,-1.79762,-3.19871,-1.85866,6.29729,7.93203,7.55885,-0.842214,11.2254,-4.36956,11.5678,-20.0694,-1.921,4.71702,0.0952055,0.465456,-0.0210031,0.405359,-2.44244,0.965246,0.687223,0.0194854,0.0686515,-0.00438309,0.646633,-0.488412,-0.183696,0.371433,0.00113052,-35.2311,-0.918488,35.859,7.05155,-12.6584,-14.7788,0.168338,-0.274166,-28.0834,-0.213304,22.1188,-0.187992,2.07818,0.138352,
0.455319,-0.0216925,0.404533,-2.43155,0.968506,0.684372,0.0189749,0.186475,-0.0370344,0.189008,-0.20577,-0.0380328,0.328746,-0.00345467,-4.84988,-5.77908,-4.93688,9.33585,8.35826,6.8322,1.64241,11.2477,-4.42215,11.5832,-19.6729,-2.30058,4.63214,0.0968984,0.465456,-0.0210031,0.405359,-2.44244,0.965246,0.687223,0.0194854,0.0686515,-0.00438309,0.646633,-0.488412,-0.183696,0.371433,0.00113052,0,0,0,0,0,0,0,-0.274166,-28.0834,-0.213304,22.1188,-0.187992,2.07818,0.138352,
0.4564,-0.0224546,0.405629,-2.43253,0.968701,0.687274,0.019169,0.176218,-0.0486799,0.17859,-0.189057,-0.0255472,0.335536,0.00208929,-6.41084,-7.27848,-6.51119,10.446,7.8035,4.24354,3.46498,11.2765,-4.50373,11.6048,-19.2885,-2.56177,4.55788,0.0983774,0.465456,-0.0210031,0.405359,-2.44244,0.965246,0.687223,0.0194854,0.0686515,-0.00438309,0.646633,-0.488412,-0.183696,0.371433,0.00113052,0,0,0,0,0,0,0,-0.274166,-28.0834,-0.213304,22.1188,-0.187992,2.07818,0.138352,
0.469346,-0.0214879,0.40934,-2.44639,0.964451,0.691955,0.019121,0.18381,-0.0491827,0.186131,-0.190514,-0.0250842,0.328822,-0.00144,4.74538,-0.314226,4.71324,-0.910549,0.289368,-4.1964,-2.2058,11.2254,-4.36956,11.5678,-20.0694,-1.921,4.71702,0.0952055,0.465456,-0.0210031,0.405359,-2.44244,0.965246,0.687223,0.0194854,0.0686515,-0.00438309,0.646633,-0.488412,-0.183696,0.371433,0.00113052,0,0,0,0,0,0,0,-0.274166,-28.0834,-0.213304,22.1188,-0.187992,2.07818,0.138352,
0.4707,-0.0222323,0.410707,-2.44748,0.964551,0.6944,0.0191877,0.180904,-0.057957,0.183067,-0.179622,-0.0175693,0.324176,0.000514924,-1.81623,-5.48395,-1.91512,6.80753,4.6968,-2.9036,1.22182,11.2609,-4.86249,11.624,-19.4946,-2.25689,4.61027,0.0968319,0.477112,-0.0227787,0.417482,-2.45877,0.961634,0.700583,0.019473,0.673438,-0.0937156,0.033314,-0.470979,-0.0744562,0.431997,0.00169491,75.5983,-11.1666,-76.6649,2.17917,13.6549,7.57054,0.0705489,-2.6585,-27.4089,-2.81188,24.7372,-0.628361,3.07976,0.110886,
0.471793,-0.0232536,0.411809,-2.44826,0.96483,0.696727,0.0194438,0.17205,-0.071897,0.174006,-0.163167,-0.00707288,0.317507,0.00681422,-5.53403,-8.71248,-5.66331,10.284,6.56025,-4.1681,3.93706,11.2897,-4.94408,11.6456,-19.1102,-2.51808,4.53601,0.0983109,0.477112,-0.0227787,0.417482,-2.45877,0.961634,0.700583,0.019473,0.673438,-0.0937156,0.033314,-0.470979,-0.0744562,0.431997,0.00169491,0,0,0,0,0,0,0,-2.6585,-27.4089,-2.81188,24.7372,-0.628361,3.07976,0.110886,
0.472699,-0.0244876,0.412721,-2.44883,0.965211,0.698859,0.0198771,0.160284,-0.0883692,0.162012,-0.144909,0.0038605,0.307312,0.0162839,-7.35385,-10.2951,-7.49619,11.4112,6.83336,-6.37202,5.91854,11.3163,-5.04412,11.6655,-18.7356,-2.68696,4.46832,0.100175,0.477112,-0.0227787,0.417482,-2.45877,0.961634,0.700583,0.019473,0.673438,-0.0937156,0.033314,-0.470979,-0.0744562,0.431997,0.00169491,0,0,0,0,0,0,0,-2.6585,-27.4089,-2.81188,24.7372,-0.628361,3.07976,0.110886,
0.48057,-0.0248136,0.420901,-2.46168,0.960898,0.705233,0.0196714,0.164895,-0.098726,0.166495,-0.142145,-0.000907001,0.299806,0.0171021,2.8823,-6.47301,2.80172,1.7279,-2.97969,-4.69127,0.511384,11.2609,-4.86249,11.624,-19.4946,-2.25689,4.61027,0.0968319,0.477112,-0.0227787,0.417482,-2.45877,0.961634,0.700583,0.019473,0.673438,-0.0937156,0.033314,-0.470979,-0.0744562,0.431997,0.00169491,0,0,0,0,0,0,0,-2.6585,-27.4089,-2.81188,24.7372,-0.628361,3.07976,0.110886,
0.481682,-0.0262014,0.422018,-2.46228,0.961042,0.70702,0.0199877,0.159727,-0.113676,0.161121,-0.128593,0.00288815,0.284524,0.0215898,-3.23029,-9.34353,-3.35861,8.46996,2.37197,-9.55086,2.80483,11.0916,-5.41837,11.4961,-19.0471,-2.48545,4.51033,0.0984992,0.484334,-0.0260336,0.434099,-2.4718,0.961569,0.719245,0.0194318,0.185575,-0.116032,0.485699,-0.303481,0.000498932,0.611458,6.24375e-05,-60.9828,-2.78956,56.5481,20.9373,9.3694,22.4326,-0.204059,-2.09912,-24.612,-3.13719,15.2435,-2.25251,0.918204,0.151169,
0.482548,-0.0278207,0.422885,-2.4626,0.961373,0.708426,0.0204589,0.149419,-0.131421,0.150549,-0.110949,0.0105876,0.262756,0.0290517,-6.44247,-11.0909,-6.60767,11.0272,4.81218,-13.6054,4.66368,11.1183,-5.51842,11.5159,-18.6725,-2.65432,4.44264,0.100363,0.484334,-0.0260336,0.434099,-2.4718,0.961569,0.719245,0.0194318,0.185575,-0.116032,0.485699,-0.303481,0.000498932,0.611458,6.24375e-05,0,0,0,0,0,0,0,-2.09912,-24.612,-3.13719,15.2435,-2.25251,0.918204,0.151169,
0.483245,-0.0296155,0.423579,-2.46276,0.961808,0.709489,0.0210802,0.136963,-0.150008,0.137802,-0.0926788,0.0193316,0.236791,0.0387735,-7.78478,-11.6166,-7.96689,11.419,5.46498,-16.2277,6.07615,11.1334,-5.62786,11.5242,-18.306,-2.73414,4.38172,0.101621,0.484334,-0.0260336,0.434099,-2.4718,0.961569,0.719245,0.0194318,0.185575,-0.116032,0.485699,-0.303481,0.000498932,0.611458,6.24375e-05,0,0,0,0,0,0,0,-2.09912,-24.612,-3.13719,15.2435,-2.25251,0.918204,0.151169,
0.487675,-0.0284267,0.437487,-2.47354,0.962752,0.725881,0.019492,0.144652,-0.154334,0.145453,-0.0873172,0.0329111,0.260644,0.0336314,4.80543,-2.70402,4.78234,3.35103,8.48719,14.9083,-3.21384,11.0916,-5.41837,11.4961,-19.0471,-2.48545,4.51033,0.0984992,0.484334,-0.0260336,0.434099,-2.4718,0.961569,0.719245,0.0194318,0.185575,-0.116032,0.485699,-0.303481,0.000498932,0.611458,6.24375e-05,0,0,0,0,0,0,0,-2.09912,-24.612,-3.13719,15.2435,-2.25251,0.918204,0.151169,
0.488697,-0.0301384,0.438507,-2.47368,0.963567,0.727889,0.0197589,0.141283,-0.166258,0.141873,-0.0732766,0.0467122,0.258709,0.0335776,-2.10539,-7.45271,-2.23795,8.77538,8.62568,-1.2097,-0.0335974,11.0608,-5.8293,11.5282,-18.625,-2.60288,4.3866,0.10039,0.499181,-0.0312378,0.440399,-2.4815,0.962002,0.736152,0.0194426,0.0915544,-0.154717,0.528465,-0.238421,-0.00520839,0.447712,0.00185326,-11.7526,-4.83558,5.34575,8.13252,-0.713415,-20.4682,0.223852,-1.21045,-22.5173,-1.21306,14.4739,-1.39099,2.07818,0.178635,
0.489463,-0.0321157,0.439265,-2.47359,0.964421,0.729199,0.0201922,0.132164,-0.182439,0.132443,-0.0563416,0.0587157,0.239714,0.0376948,-5.69979,-10.113,-5.89324,10.5843,7.50221,-11.872,2.57321,11.0758,-5.93874,11.5364,-18.2584,-2.68269,4.32568,0.101647,0.499181,-0.0312378,0.440399,-2.4815,0.962002,0.736152,0.0194426,0.0915544,-0.154717,0.528465,-0.238421,-0.00520839,0.447712,0.00185326,0,0,0,0,0,0,0,-1.21045,-22.5173,-1.21306,14.4739,-1.39099,2.07818,0.178635,
0.490059,-0.0342809,0.439848,-2.47337,0.96526,0.729962,0.0207913,0.120623,-0.200083,0.120548,-0.0395946,0.0679614,0.210846,0.0451339,-7.2128,-11.0272,-7.43484,10.4669,5.77856,-18.0423,4.64947,11.0765,-6.05063,11.5308,-17.8979,-2.69787,4.26888,0.102997,0.499181,-0.0312378,0.440399,-2.4815,0.962002,0.736152,0.0194426,0.0915544,-0.154717,0.528465,-0.238421,-0.00520839,0.447712,0.00185326,0,0,0,0,0,0,0,-1.21045,-22.5173,-1.21306,14.4739,-1.39099,2.07818,0.178635,
0.502254,-0.0342754,0.443523,-2.48264,0.963124,0.741123,0.0197712,0.12854,-0.202681,0.128471,-0.0381197,0.0709936,0.219854,0.0421517,4.94809,-1.62397,4.95198,0.921799,1.89513,5.63003,-1.86389,11.0608,-5.8293,11.5282,-18.625,-2.60288,4.3866,0.10039,0.499181,-0.0312378,0.440399,-2.4815,0.962002,0.736152,0.0194426,0.0915544,-0.154717,0.528465,-0.238421,-0.00520839,0.447712,0.00185326,0,0,0,0,0,0,0,-1.21045,-22.5173,-1.21306,14.4739,-1.39099,2.07818,0.178635,
0.503171,-0.0363104,0.444431,-2.48255,0.963898,0.742386,0.0201781,0.125775,-0.213021,0.125481,-0.0280669,0.076166,0.207438,0.0438923,-1.72817,-6.46264,-1.86847,6.28304,3.23273,-7.76033,1.08787,11.1002,-6.23491,11.6767,-18.3968,-2.67593,4.25976,0.102016,0.508636,-0.0388907,0.450594,-2.48991,0.961905,0.751068,0.0196106,0.541593,-0.273965,-0.018417,-0.24384,-0.000443906,0.389332,0.00893589,56.2549,-14.9061,-68.3602,-0.677461,0.59556,-7.29752,0.88533,-2.80926,-23.3663,-3.1848,13.974,-0.890201,2.12487,0.23906,
0.503844,-0.0385967,0.445088,-2.48225,0.964707,0.743004,0.0207531,0.117441,-0.227575,0.116795,-0.0150161,0.0811595,0.181419,0.0494898,-5.20907,-9.09623,-5.42861,8.15671,3.12093,-16.2615,3.49844,11.1008,-6.34679,11.671,-18.0362,-2.69111,4.20296,0.103365,0.508636,-0.0388907,0.450594,-2.48991,0.961905,0.751068,0.0196106,0.541593,-0.273965,-0.018417,-0.24384,-0.000443906,0.389332,0.00893589,0,0,0,0,0,0,0,-2.80926,-23.3663,-3.1848,13.974,-0.890201,2.12487,0.23906,
0.51096,-0.0436606,0.452842,-2.49032,0.962158,0.753943,0.0202223,0.117636,-0.243013,0.116725,-0.00997415,0.0706596,0.171108,0.0494026,0.121933,-9.64871,-0.0441218,3.15124,-6.56242,-6.44433,-0.0544871,11.1002,-6.23491,11.6767,-18.3968,-2.67593,4.25976,0.102016,0.508636,-0.0388907,0.450594,-2.48991,0.961905,0.751068,0.0196106,0.541593,-0.273965,-0.018417,-0.24384,-0.000443906,0.389332,0.00893589,0,0,0,0,0,0,0,-2.80926,-23.3663,-3.1848,13.974,-0.890201,2.12487,0.23906,
0.511636,-0.0462499,0.453495,-2.48996,0.962533,0.754321,0.0207943,0.111014,-0.259143,0.10969,0.000992581,0.0658921,0.146321,0.0538233,-4.13856,-10.0812,-4.39687,6.85421,-2.97972,-15.4918,2.76295,11.1008,-6.34679,11.671,-18.0362,-2.69111,4.20296,0.103365,0.508636,-0.0388907,0.450594,-2.48991,0.961905,0.751068,0.0196106,0.541593,-0.273965,-0.018417,-0.24384,-0.000443906,0.389332,0.00893589,0,0,0,0,0,0,0,-2.80926,-23.3663,-3.1848,13.974,-0.890201,2.12487,0.23906,
0.512135,-0.0489622,0.453963,-2.48947,0.962996,0.754187,0.0215399,0.101274,-0.275124,0.0994517,0.0130797,0.0642996,0.113723,0.061697,-6.08775,-9.98813,-6.39889,7.55447,-0.995321,-20.3739,4.92105,11.0823,-6.45573,11.6464,-17.6804,-2.64413,4.15076,0.103981,0.508636,-0.0388907,0.450594,-2.48991,0.961905,0.751068,0.0196106,0.541593,-0.273965,-0.018417,-0.24384,-0.000443906,0.389332,0.00893589,0,0,0,0,0,0,0,-2.80926,-23.3663,-3.1848,13.974,-0.890201,2.12487,0.23906,
0.512521,-0.0517497,0.454313,-2.48893,0.96351,0.753686,0.022447,0.0906653,-0.289786,0.0883298,0.0240584,0.0642786,0.0784429,0.0720356,-6.63017,-9.16337,-6.9512,6.86168,-0.0131308,-22.0501,6.46166,11.0077,-7.04753,11.7018,-17.2688,-2.50263,4.0096,0.104881,0.513652,-0.048522,0.464051,-2.49789,0.961756,0.766393,0.0199979,0.190404,-0.339406,0.340114,-0.228216,-0.0118528,0.408519,0.0166778,-43.8986,-8.18001,44.8164,1.9531,-1.42611,2.39835,0.967744,-2.45221,-22.9418,-3.91081,16.4655,0.379635,1.08391,0.332443,
0.516191,-0.0534056,0.466587,-2.49826,0.962058,0.770163,0.0207392,0.0986387,-0.294105,0.0963718,0.022352,0.0576308,0.0980285,0.0690601,4.98338,-2.69951,5.02625,-1.06652,-4.15482,12.241,-1.85974,11.0635,-6.83625,11.7693,-17.9773,-2.63756,4.11133,0.10369,0.513652,-0.048522,0.464051,-2.49789,0.961756,0.766393,0.0199979,0.190404,-0.339406,0.340114,-0.228216,-0.0118528,0.408519,0.0166778,0,0,0,0,0,0,0,-2.45221,-22.9418,-3.91081,16.4655,0.379635,1.08391,0.332443,
0.516924,-0.0560642,0.467292,-2.49784,0.962458,0.770791,0.0213766,0.0972422,-0.301748,0.0947117,0.0284693,0.0561199,0.0941338,0.0711832,-0.872817,-4.77715,-1.03757,3.82334,-0.944316,-2.43419,1.32694,11.0449,-6.94519,11.7446,-17.6215,-2.59058,4.05913,0.104305,0.513652,-0.048522,0.464051,-2.49789,0.961756,0.766393,0.0199979,0.190404,-0.339406,0.340114,-0.228216,-0.0118528,0.408519,0.0166778,0,0,0,0,0,0,0,-2.45221,-22.9418,-3.91081,16.4655,0.379635,1.08391,0.332443,
0.517452,-0.0588621,0.467782,-2.49728,0.96296,0.770814,0.0221871,0.0910067,-0.311348,0.0880316,0.0369135,0.0574247,0.0758795,0.0772098,-3.89724,-5.99996,-4.17501,5.27757,0.81548,-11.4089,3.76664,11.0077,-7.04753,11.7018,-17.2688,-2.50263,4.0096,0.104881,0.513652,-0.048522,0.464051,-2.49789,0.961756,0.766393,0.0199979,0.190404,-0.339406,0.340114,-0.228216,-0.0118528,0.408519,0.0166778,0,0,0,0,0,0,0,-2.45221,-22.9418,-3.91081,16.4655,0.379635,1.08391,0.332443,
0.517851,-0.0617467,0.468136,-2.49665,0.963519,0.770398,0.0231601,0.0827661,-0.321192,0.0792794,0.0450692,0.0599364,0.0503011,0.0860908,-5.15033,-6.15246,-5.47016,5.09734,1.5698,-15.9865,5.55065,10.8756,-7.43212,11.6998,-16.9953,-2.34098,3.8904,0.105076,0.524779,-0.0584258,0.469394,-2.50495,0.961646,0.779986,0.020641,0.00967171,-0.273408,0.491668,-0.166576,-0.012898,0.400625,0.0236824,-22.5916,8.24968,18.9442,7.70495,-0.130645,-0.986737,0.875566,0.0313145,-25.3856,-0.637804,22.1466,0.251461,1.22948,0.326035,
0.52721,-0.0628369,0.471867,-2.50525,0.961935,0.783824,0.0215488,0.0913115,-0.31544,0.0881732,0.0392062,0.054651,0.0763849,0.0824284,5.34084,3.59499,5.55863,-3.66436,-3.30339,16.3024,-2.28904,10.9709,-7.23658,11.8059,-17.6983,-2.55655,3.98616,0.104628,0.524779,-0.0584258,0.469394,-2.50495,0.961646,0.779986,0.020641,0.00967171,-0.273408,0.491668,-0.166576,-0.012898,0.400625,0.0236824,0,0,0,0,0,0,0,0.0313145,-25.3856,-0.637804,22.1466,0.251461,1.22948,0.326035,
0.527912,-0.0654321,0.472538,-2.50483,0.96238,0.784482,0.0222674,0.0906032,-0.317231,0.087309,0.0417897,0.0548494,0.0775417,0.0839091,-0.442678,-1.11942,-0.54011,1.61465,0.12403,0.723008,0.925485,10.9336,-7.33892,11.7631,-17.3456,-2.4686,3.93663,0.105203,0.524779,-0.0584258,0.469394,-2.50495,0.961646,0.779986,0.020641,0.00967171,-0.273408,0.491668,-0.166576,-0.012898,0.400625,0.0236824,0,0,0,0,0,0,0,0.0313145,-25.3856,-0.637804,22.1466,0.251461,1.22948,0.326035,
0.528417,-0.0682155,0.473,-2.50427,0.962934,0.784527,0.023156,0.0851043,-0.32337,0.0813867,0.0476069,0.0577339,0.0631635,0.0893411,-3.43682,-3.83663,-3.70145,3.63576,1.80281,-8.98639,3.39498,10.8756,-7.43212,11.6998,-16.9953,-2.34098,3.8904,0.105076,0.524779,-0.0584258,0.469394,-2.50495,0.961646,0.779986,0.020641,0.00967171,-0.273408,0.491668,-0.166576,-0.012898,0.400625,0.0236824,0,0,0,0,0,0,0,0.0313145,-25.3856,-0.637804,22.1466,0.251461,1.22948,0.326035,
0.528797,-0.0711142,0.473329,-2.50363,0.96355,0.784127,0.0242043,0.0775839,-0.331164,0.0733351,0.0538899,0.06159,0.0405286,0.0976822,-4.70025,-4.87166,-5.03226,3.92686,2.41004,-14.1468,5.2132,10.7662,-7.73495,11.7581,-16.8779,-2.19623,3.77831,0.105283,0.533636,-0.0696334,0.475848,-2.51017,0.960976,0.791506,0.0218128,0.323504,-0.286382,0.107885,-0.116751,-0.0213816,0.361236,0.0304848,39.229,-1.62168,-47.9729,6.22816,-1.06045,-4.92364,0.850302,0.919986,-24.9889,0.43733,21.5991,0.404354,1.09032,0.332443,
0.535644,-0.0747324,0.47779,-2.50983,0.961436,0.794395,0.0228365,0.0827663,-0.330847,0.0785909,0.0521219,0.0572303,0.0584225,0.0933418,3.23903,0.198592,3.2849,-1.10497,-2.72478,11.1837,-2.71275,10.9009,-7.55908,11.9029,-17.5773,-2.4737,3.8691,0.105617,0.533636,-0.0696334,0.475848,-2.51017,0.960976,0.791506,0.0218128,0.323504,-0.286382,0.107885,-0.116751,-0.0213816,0.361236,0.0304848,0,0,0,0,0,0,0,0.919986,-24.9889,0.43733,21.5991,0.404354,1.09032,0.332443,
0.536247,-0.0775261,0.478348,-2.50928,0.961883,0.794798,0.0236304,0.0812883,-0.334518,0.0768272,0.0552444,0.0569699,0.0568271,0.0945208,-0.923745,-2.29479,-1.10235,1.95154,-0.162747,-0.997135,0.736848,10.8429,-7.65227,11.8396,-17.2269,-2.34608,3.82286,0.10549,0.533636,-0.0696334,0.475848,-2.51017,0.960976,0.791506,0.0218128,0.323504,-0.286382,0.107885,-0.116751,-0.0213816,0.361236,0.0304848,0,0,0,0,0,0,0,0.919986,-24.9889,0.43733,21.5991,0.404354,1.09032,0.332443,
0.536705,-0.0804237,0.478753,-2.50867,0.962415,0.794732,0.0245996,0.0764938,-0.340056,0.0715779,0.0596471,0.0588761,0.0437888,0.099847,-2.99659,-3.46117,-3.28082,2.75173,1.19139,-8.14892,3.3289,10.7662,-7.73495,11.7581,-16.8779,-2.19623,3.77831,0.105283,0.533636,-0.0696334,0.475848,-2.51017,0.960976,0.791506,0.0218128,0.323504,-0.286382,0.107885,-0.116751,-0.0213816,0.361236,0.0304848,0,0,0,0,0,0,0,0.919986,-24.9889,0.43733,21.5991,0.404354,1.09032,0.332443,
0.537073,-0.0833706,0.479062,-2.50803,0.962999,0.79434,0.0257313,0.0703974,-0.345716,0.0649974,0.0635235,0.0617053,0.0252536,0.108171,-3.81025,-3.53746,-4.11279,2.4227,1.76823,-11.5845,5.20228,10.6821,-8.18678,11.8735,-16.675,-2.01101,3.64133,0.104905,0.538649,-0.0830474,0.48486,-2.51547,0.96001,0.80258,0.0231778,0.389737,-0.341643,-0.00225288,-0.133276,-0.0315901,0.304386,0.0396238,8.27915,-6.90766,-13.7672,-2.06568,-1.27606,-7.1062,1.14237,0.209842,-22.5411,-1.10991,20.7263,0.813595,1.41533,0.326035,
0.540491,-0.0886223,0.486593,-2.51507,0.960449,0.805026,0.0243395,0.0755853,-0.346664,0.0702372,0.0604184,0.0563277,0.0425987,0.103534,3.24246,-0.59232,3.27489,-1.94066,-3.36103,10.8407,-2.89808,10.8545,-8.03252,12.0554,-17.3718,-2.33392,3.72809,0.10698,0.538649,-0.0830474,0.48486,-2.51547,0.96001,0.80258,0.0231778,0.389737,-0.341643,-0.00225288,-0.133276,-0.0315901,0.304386,0.0396238,0,0,0,0,0,0,0,0.209842,-22.5411,-1.10991,20.7263,0.813595,1.41533,0.326035,
0.541075,-0.0914953,0.487124,-2.51454,0.960835,0.805415,0.0252104,0.0750598,-0.349156,0.0694722,0.0616683,0.0547101,0.0438069,0.104598,-0.328477,-1.55757,-0.47813,0.781174,-1.01098,0.755138,0.665337,10.7779,-8.11528,11.9738,-17.0228,-2.18404,3.68324,0.104683,0.538649,-0.0830474,0.48486,-2.51547,0.96001,0.80258,0.0231778,0.389737,-0.341643,-0.00225288,-0.133276,-0.0315901,0.304386,0.0396238,0,0,0,0,0,0,0,0.209842,-22.5411,-1.10991,20.7263,0.813595,1.41533,0.326035,
0.541537,-0.0944134,0.487528,-2.51396,0.961302,0.805438,0.0262598,0.0716056,-0.352277,0.0656575,0.0638217,0.0554403,0.03562,0.109913,-2.15883,-1.95052,-2.38419,1.34588,0.456364,-5.11679,3.32192,10.682,-8.18672,11.8734,-16.6747,-2.01208,3.64113,0.103682,0.538649,-0.0830474,0.48486,-2.51547,0.96001,0.80258,0.0231778,0.389737,-0.341643,-0.00225288,-0.133276,-0.0315901,0.304386,0.0396238,0,0,0,0,0,0,0,0.209842,-22.5411,-1.10991,20.7263,0.813595,1.41533,0.326035,
0.541922,-0.0973395,0.487851,-2.51339,0.961827,0.805217,0.0274735,0.0669121,-0.354975,0.0606147,0.0653119,0.0574697,0.022982,0.118274,-2.93344,-1.6863,-3.15178,0.931359,1.26839,-7.89877,5.22553,10.5737,-8.72614,11.973,-16.3419,-1.8057,3.50637,0.102952,0.544088,-0.0975493,0.49366,-2.52095,0.95896,0.81228,0.0249979,0.264026,-0.450027,0.14742,-0.158915,-0.0178106,0.280593,0.0617648,-15.7139,-13.5481,18.7091,-3.20483,1.72244,-2.97415,2.76763,0.106693,-23.5646,-2.01048,21.1469,0.886837,1.6076,0.406601,
0.546179,-0.103541,0.495677,-2.52076,0.958941,0.814862,0.0264585,0.0757247,-0.357065,0.0697286,0.059824,0.0472481,0.0440424,0.115248,5.50784,-1.30617,5.69623,-3.42993,-6.3885,13.1627,-1.89117,10.782,-8.59444,12.1898,-17.0377,-2.15798,3.58967,0.105053,0.544088,-0.0975493,0.49366,-2.52095,0.95896,0.81228,0.0249979,0.264026,-0.450027,0.14742,-0.158915,-0.0178106,0.280593,0.0617648,0,0,0,0,0,0,0,0.106693,-23.5646,-2.01048,21.1469,0.886837,1.6076,0.406601,
0.546855,-0.10644,0.496303,-2.52031,0.959135,0.815467,0.0274678,0.0774683,-0.358122,0.0714471,0.0590934,0.0426533,0.0503779,0.117432,1.08977,-0.660979,1.07407,-0.456578,-2.87176,3.95974,1.36504,10.6861,-8.66589,12.0894,-16.6896,-1.98602,3.54756,0.104051,0.544088,-0.0975493,0.49366,-2.52095,0.95896,0.81228,0.0249979,0.264026,-0.450027,0.14742,-0.158915,-0.0178106,0.280593,0.0617648,0,0,0,0,0,0,0,0.106693,-23.5646,-2.01048,21.1469,0.886837,1.6076,0.406601,
0.547389,-0.109333,0.496782,-2.51982,0.959448,0.815705,0.0286229,0.0753408,-0.35882,0.0691308,0.0594648,0.0419586,0.0462517,0.122823,-1.3297,-0.436301,-1.44773,0.232097,-0.434159,-2.57892,3.36914,10.5737,-8.72614,11.973,-16.3419,-1.8057,3.50637,0.102952,0.544088,-0.0975493,0.49366,-2.52095,0.95896,0.81228,0.0249979,0.264026,-0.450027,0.14742,-0.158915,-0.0178106,0.280593,0.0617648,0,0,0,0,0,0,0,0.106693,-23.5646,-2.01048,21.1469,0.886837,1.6076,0.406601,
0.547834,-0.112211,0.497167,-2.51934,0.959848,0.815591,0.0298662,0.0713938,-0.35901,0.0649323,0.0595422,0.0435494,0.0341346,0.129341,-2.46685,-0.118784,-2.62405,0.0483573,0.99425,-7.5732,4.07386,10.4404,-9.28952,12.0326,-15.95,-1.57745,3.37111,0.103059,0.550719,-0.112135,0.500835,-2.52611,0.958319,0.821583,0.0272711,0.0705418,-0.525654,0.367946,-0.176426,-0.00854684,0.252837,0.0592845,-24.1855,-9.45333,27.5658,-2.18883,1.15797,-3.46944,-0.310044,1.34845,-24.7112,-1.01073,24.7849,0.447384,1.74035,0.299484,
0.553067,-0.118239,0.503189,-2.52631,0.957312,0.824072,0.0286302,0.0824501,-0.360323,0.0766573,0.0509221,0.0248551,0.0534915,0.122662,6.91016,-0.820537,7.32812,-5.38753,-11.6839,12.0981,-4.17435,10.6812,-9.17992,12.2813,-16.6451,-1.94729,3.45146,0.104374,0.550719,-0.112135,0.500835,-2.52611,0.958319,0.821583,0.0272711,0.0705418,-0.525654,0.367946,-0.176426,-0.00854684,0.252837,0.0592845,0,0,0,0,0,0,0,1.34845,-24.7112,-1.01073,24.7849,0.447384,1.74035,0.299484,
0.553844,-0.121089,0.503927,-2.52601,0.95715,0.824774,0.0295651,0.0853648,-0.359504,0.0797866,0.0482862,0.0158447,0.0603418,0.121502,1.82167,0.512268,1.95582,-1.64747,-5.63149,4.28142,-0.725099,10.5689,-9.24018,12.1649,-16.2974,-1.76697,3.41026,0.103275,0.550719,-0.112135,0.500835,-2.52611,0.958319,0.821583,0.0272711,0.0705418,-0.525654,0.367946,-0.176426,-0.00854684,0.252837,0.0592845,0,0,0,0,0,0,0,1.34845,-24.7112,-1.01073,24.7849,0.447384,1.74035,0.299484,
0.554461,-0.123908,0.504499,-2.52566,0.957185,0.825141,0.0306253,0.0837249,-0.358089,0.0781156,0.0474983,0.0135523,0.0574451,0.123706,-1.02489,0.884361,-1.04438,-0.492418,-1.4328,-1.81042,1.37736,10.4404,-9.28952,12.0326,-15.95,-1.57745,3.37111,0.103059,0.550719,-0.112135,0.500835,-2.52611,0.958319,0.821583,0.0272711,0.0705418,-0.525654,0.367946,-0.176426,-0.00854684,0.252837,0.0592845,0,0,0,0,0,0,0,1.34845,-24.7112,-1.01073,24.7849,0.447384,1.74035,0.299484,
0.554976,-0.1267,0.504963,-2.5253,0.957368,0.8252,0.0317676,0.0798566,-0.356256,0.0741108,0.0468874,0.0154084,0.0474134,0.127523,-2.41773,1.14562,-2.50303,-0.38183,1.16006,-6.26983,2.38557,10.2984,-9.32871,11.8872,-15.6024,-1.38922,3.3323,0.102874,0.550719,-0.112135,0.500835,-2.52611,0.958319,0.821583,0.0272711,0.0705418,-0.525654,0.367946,-0.176426,-0.00854684,0.252837,0.0592845,0,0,0,0,0,0,0,1.34845,-24.7112,-1.01073,24.7849,0.447384,1.74035,0.299484,
0.56113,-0.132709,0.508228,-2.53152,0.955984,0.831777,0.0319204,0.0885707,-0.355829,0.0835206,0.0380676,-0.00081517,0.0565508,0.122169,5.44632,0.266584,5.88115,-5.51233,-10.1397,5.7109,-3.34626,10.5594,-9.5888,12.37,-16.4607,-1.75946,3.31911,0.103714,0.558871,-0.126803,0.505944,-2.53114,0.957267,0.829884,0.0303903,0.0559903,-0.505139,0.360549,-0.166038,-0.0245208,0.252739,0.098395,-1.81894,2.56435,-0.924627,1.29845,-1.99675,-0.0122548,4.88882,2.13398,-23.1917,-0.288683,27.8754,1.01501,1.6671,0.198776,
0.561908,-0.135462,0.508976,-2.53134,0.955709,0.83226,0.032842,0.0903219,-0.353486,0.0855197,0.0348482,-0.00752822,0.0573317,0.120775,1.0945,1.46436,1.24946,-2.01216,-4.19565,0.488082,-0.87099,10.4308,-9.63814,12.2376,-16.1133,-1.56993,3.27995,0.103498,0.558871,-0.126803,0.505944,-2.53114,0.957267,0.829884,0.0303903,0.0559903,-0.505139,0.360549,-0.166038,-0.0245208,0.252739,0.098395,0,0,0,0,0,0,0,2.13398,-23.1917,-0.288683,27.8754,1.01501,1.6671,0.198776,
0.562547,-0.138175,0.509578,-2.53112,0.95564,0.832508,0.0338567,0.0882329,-0.350623,0.0834624,0.0334691,-0.00772971,0.0520564,0.121988,-1.30563,1.7897,-1.28583,-0.861927,-0.125935,-3.29711,0.757871,10.2889,-9.67733,12.0922,-15.7657,-1.3817,3.24114,0.103313,0.558871,-0.126803,0.505944,-2.53114,0.957267,0.829884,0.0303903,0.0559903,-0.505139,0.360549,-0.166038,-0.0245208,0.252739,0.098395,0,0,0,0,0,0,0,2.13398,-23.1917,-0.288683,27.8754,1.01501,1.6671,0.198776,
0.563096,-0.140852,0.510086,-2.53089,0.955729,0.832538,0.034933,0.0843029,-0.347426,0.0794854,0.0324044,-0.00396936,0.0423952,0.124496,-2.45623,1.99795,-2.48564,-0.665414,2.35022,-6.03825,1.56751,10.1342,-9.70712,11.9343,-15.418,-1.19319,3.20345,0.101523,0.558871,-0.126803,0.505944,-2.53114,0.957267,0.829884,0.0303903,0.0559903,-0.505139,0.360549,-0.166038,-0.0245208,0.252739,0.098395,0,0,0,0,0,0,0,2.13398,-23.1917,-0.288683,27.8754,1.01501,1.6671,0.198776,
0.567822,-0.146496,0.514721,-2.53718,0.954309,0.842177,0.034934,0.0920299,-0.340994,0.088269,0.0236141,-0.013292,0.0566243,0.117777,4.8294,4.02011,5.48977,-5.49395,-5.82666,8.89324,-4.19908,10.4117,-9.95712,12.4422,-16.3254,-1.56216,3.18321,0.104023,0.565589,-0.141385,0.512408,-2.53667,0.955363,0.839927,0.0335267,0.0518281,-0.395636,0.363421,-0.127529,-0.0190401,0.29479,0.10041,-0.520267,13.6878,0.358974,4.81366,0.685091,5.25634,0.251885,2.94727,-22.5411,0.564283,26.4789,1.14959,1.26977,0.198776,
0.568612,-0.149021,0.515499,-2.53714,0.954136,0.84284,0.0357611,0.093376,-0.33591,0.0900631,0.020047,-0.0149564,0.0618685,0.114898,0.841312,3.17755,1.1213,-2.22945,-1.04025,3.27759,-1.79955,10.2698,-9.99631,12.2968,-15.9779,-1.37393,3.14441,0.103838,0.565589,-0.141385,0.512408,-2.53667,0.955363,0.839927,0.0335267,0.0518281,-0.395636,0.363421,-0.127529,-0.0190401,0.29479,0.10041,0,0,0,0,0,0,0,2.94727,-22.5411,0.564283,26.4789,1.14959,1.26977,0.198776,
0.569273,-0.151551,0.516139,-2.53704,0.954146,0.843292,0.0366754,0.0912269,-0.331968,0.088066,0.0185426,-0.0117293,0.0607996,0.114778,-1.34321,2.46372,-1.24818,-0.940256,2.01695,-0.668062,-0.0751386,10.1151,-10.0261,12.1389,-15.6302,-1.18542,3.10672,0.102048,0.565589,-0.141385,0.512408,-2.53667,0.955363,0.839927,0.0335267,0.0518281,-0.395636,0.363421,-0.127529,-0.0190401,0.29479,0.10041,0,0,0,0,0,0,0,2.94727,-22.5411,0.564283,26.4789,1.14959,1.26977,0.198776,
0.567801,-0.146488,0.514706,-2.53718,0.954352,0.842139,0.0349208,0.0972529,-0.328492,0.0948998,0.0125314,-0.0188331,0.0708188,0.109815,3.76622,2.17243,4.2711,-3.757,-4.43985,6.26198,-3.10192,10.2698,-9.99631,12.2968,-15.9779,-1.37393,3.14441,0.103838,0.565589,-0.141385,0.512408,-2.53667,0.955363,0.839927,0.0335267,0.0518281,-0.395636,0.363421,-0.127529,-0.0190401,0.29479,0.10041,0,0,0,0,0,0,0,2.94727,-22.5411,0.564283,26.4789,1.14959,1.26977,0.198776,
0.568576,-0.149005,0.515472,-2.53713,0.954213,0.84278,0.0357401,0.0971745,-0.325714,0.0950665,0.011203,-0.0185373,0.0726807,0.108333,-0.0489715,1.73613,0.104225,-0.830251,0.184814,1.16371,-0.925958,10.1335,-10.4141,12.3807,-15.7571,-1.17297,3.00817,0.102494,0.571974,-0.155957,0.519174,-2.54214,0.953203,0.84896,0.0365177,0.0881005,-0.406407,0.308448,-0.147557,-0.0220824,0.267827,0.0866974,4.53404,-1.34631,-6.87161,-2.50355,-0.380284,-3.37034,-1.71409,3.63361,-23.4377,1.11177,22.7933,0.672604,1.24322,0.191452,
0.56922,-0.151525,0.516099,-2.53703,0.954261,0.843211,0.0366468,0.0938426,-0.323571,0.0917221,0.0115074,-0.0136127,0.0689087,0.109334,-2.08243,1.33943,-2.09028,0.19027,3.07791,-2.35748,0.625721,9.96856,-10.4355,12.2128,-15.4092,-0.991967,2.97033,0.100704,0.571974,-0.155957,0.519174,-2.54214,0.953203,0.84896,0.0365177,0.0881005,-0.406407,0.308448,-0.147557,-0.0220824,0.267827,0.0866974,0,0,0,0,0,0,0,3.63361,-23.4377,1.11177,22.7933,0.672604,1.24322,0.191452,
0.569778,-0.154035,0.516637,-2.53692,0.954449,0.843445,0.0376143,0.0890401,-0.321599,0.0868166,0.0120768,-0.00620833,0.0609754,0.111654,-3.00159,1.23232,-3.06592,0.355833,4.62772,-4.95832,1.44984,9.79416,-10.4494,12.0355,-15.0612,-0.816437,2.93336,0.0986318,0.571974,-0.155957,0.519174,-2.54214,0.953203,0.84896,0.0365177,0.0881005,-0.406407,0.308448,-0.147557,-0.0220824,0.267827,0.0866974,0,0,0,0,0,0,0,3.63361,-23.4377,1.11177,22.7933,0.672604,1.24322,0.191452,
0.574141,-0.161038,0.521439,-2.54281,0.952238,0.851277,0.0377743,0.0952646,-0.319136,0.0939977,0.00533312,-0.0143394,0.0734471,0.105716,3.89033,1.53925,4.48818,-4.21477,-5.0819,7.7948,-3.71157,10.1335,-10.4141,12.3807,-15.7571,-1.17297,3.00817,0.102494,0.571974,-0.155957,0.519174,-2.54214,0.953203,0.84896,0.0365177,0.0881005,-0.406407,0.308448,-0.147557,-0.0220824,0.267827,0.0866974,0,0,0,0,0,0,0,3.63361,-23.4377,1.11177,22.7933,0.672604,1.24322,0.191452,
0.574924,-0.163477,0.52223,-2.54286,0.952082,0.852057,0.0385232,0.0958016,-0.316297,0.0949624,0.00317687,-0.0153676,0.0782501,0.103295,0.335646,1.77455,0.602957,-1.34766,-0.642634,3.00187,-1.51283,10.0111,-10.8287,12.4925,-15.5285,-0.983814,2.86268,0.101226,0.578475,-0.170801,0.526067,-2.54864,0.950731,0.859135,0.0391728,0.186556,-0.473745,0.20885,-0.203674,-0.059811,0.295617,0.085773,12.307,-8.4173,-12.4498,-7.01461,-4.71608,3.47367,-0.115556,0.840641,-21.3667,-1.10991,19.7305,0.886837,1.49499,0.211594,
0.575588,-0.1659,0.522894,-2.54286,0.952103,0.85265,0.0393506,0.0932408,-0.313593,0.0925759,0.00262588,-0.0117597,0.0774225,0.10332,-1.60054,1.69014,-1.49158,-0.34437,2.25493,-0.517253,0.0158774,9.83668,-10.8426,12.3152,-15.1805,-0.808284,2.82571,0.0991535,0.578475,-0.170801,0.526067,-2.54864,0.950731,0.859135,0.0391728,0.186556,-0.473745,0.20885,-0.203674,-0.059811,0.295617,0.085773,0,0,0,0,0,0,0,0.840641,-21.3667,-1.10991,19.7305,0.886837,1.49499,0.211594,
0.576173,-0.168299,0.523477,-2.54284,0.952258,0.853064,0.0402311,0.0892179,-0.310872,0.088632,0.00239461,-0.00552988,0.0723042,0.104668,-2.51428,1.7004,-2.46494,-0.144546,3.89364,-3.19894,0.841951,9.65497,-10.85,12.1309,-14.8323,-0.643825,2.78821,0.097106,0.578475,-0.170801,0.526067,-2.54864,0.950731,0.859135,0.0391728,0.186556,-0.473745,0.20885,-0.203674,-0.059811,0.295617,0.085773,0,0,0,0,0,0,0,0.840641,-21.3667,-1.10991,19.7305,0.886837,1.49499,0.211594,
0.580642,-0.176318,0.528308,-2.54942,0.949656,0.861805,0.0403424,0.0954414,-0.313722,0.0956929,-0.00332859,-0.0157743,0.0871238,0.0991185,3.8897,-1.78122,4.41304,-3.577,-6.40278,9.26227,-3.46814,10.0111,-10.8287,12.4925,-15.5285,-0.983814,2.86268,0.101226,0.578475,-0.170801,0.526067,-2.54864,0.950731,0.859135,0.0391728,0.186556,-0.473745,0.20885,-0.203674,-0.059811,0.295617,0.085773,0,0,0,0,0,0,0,0.840641,-21.3667,-1.10991,19.7305,0.886837,1.49499,0.211594,
0.581437,-0.178787,0.529124,-2.54952,0.949409,0.86276,0.0410433,0.0962272,-0.312708,0.096956,-0.004936,-0.018796,0.0935582,0.0968186,0.491129,0.63382,0.789428,-1.00463,-1.88851,4.02151,-1.43744,9.8612,-11.2517,12.5894,-15.2941,-0.798873,2.73113,0.0995515,0.584883,-0.185851,0.533909,-2.55533,0.948818,0.868272,0.0416821,0.297873,-0.491333,0.102536,-0.222183,-0.0856011,0.243406,0.0759292,13.9146,-2.19843,-13.2893,-2.31367,-3.22377,-6.52629,-1.23048,-2.20227,-22.5173,-4.86296,23.19,1.00311,2.60186,0.178635,
0.582118,-0.181183,0.529824,-2.54958,0.949343,0.863518,0.0418114,0.0940248,-0.310069,0.0950528,-0.00550473,-0.0167058,0.0938054,0.0966561,-1.37655,1.64917,-1.18949,-0.355458,1.30636,0.154458,-0.101541,9.67949,-11.2591,12.4051,-14.9458,-0.634413,2.69363,0.0975041,0.584883,-0.185851,0.533909,-2.55533,0.948818,0.868272,0.0416821,0.297873,-0.491333,0.102536,-0.222183,-0.0856011,0.243406,0.0759292,0,0,0,0,0,0,0,-2.20227,-22.5173,-4.86296,23.19,1.00311,2.60186,0.178635,
0.582725,-0.183523,0.530449,-2.54965,0.949417,0.864096,0.0426218,0.0903947,-0.306546,0.0916629,-0.00612104,-0.0115135,0.0894864,0.0975853,-2.26881,2.20244,-2.11868,-0.385194,3.24519,-2.69938,0.580738,9.49113,-11.2609,12.2142,-14.5975,-0.478727,2.65665,0.0952687,0.584883,-0.185851,0.533909,-2.55533,0.948818,0.868272,0.0416821,0.297873,-0.491333,0.102536,-0.222183,-0.0856011,0.243406,0.0759292,0,0,0,0,0,0,0,-2.20227,-22.5173,-4.86296,23.19,1.00311,2.60186,0.178635,
0.587099,-0.191601,0.536149,-2.55605,0.94804,0.870709,0.0427553,0.0969508,-0.311903,0.098759,-0.00975171,-0.0178648,0.0998601,0.0925232,4.09759,-3.34848,4.4351,-2.26916,-3.96959,6.48356,-3.16381,9.8612,-11.2517,12.5894,-15.2941,-0.798873,2.73113,0.0995515,0.584883,-0.185851,0.533909,-2.55533,0.948818,0.868272,0.0416821,0.297873,-0.491333,0.102536,-0.222183,-0.0856011,0.243406,0.0759292,0,0,0,0,0,0,0,-2.20227,-22.5173,-4.86296,23.19,1.00311,2.60186,0.178635,
0.587924,-0.19407,0.537008,-2.55616,0.947846,0.871682,0.0434124,0.098196,-0.311241,0.100478,-0.0106324,-0.0191346,0.104215,0.090447,0.778221,0.413933,1.07437,-0.550407,-0.793612,2.72185,-1.29765,9.66896,-11.6498,12.6415,-15.0739,-0.6284,2.61092,0.0979539,0.590948,-0.200436,0.542074,-2.56216,0.947375,0.876888,0.0441895,0.380106,-0.461331,0.0355866,-0.210508,-0.0736237,0.284037,0.0626351,10.2792,3.75025,-8.36868,1.45939,1.49718,5.07883,-1.66176,0.638309,-21.7674,-3.36333,24.5865,1.08184,2.14501,0.299484,
0.58864,-0.196423,0.537759,-2.55628,0.947799,0.872492,0.0441231,0.0964512,-0.307804,0.0991671,-0.0113459,-0.0164906,0.103626,0.0901264,-1.09046,2.14815,-0.819302,-0.445953,1.65252,-0.36809,-0.200395,9.48059,-11.6516,12.4506,-14.7256,-0.472713,2.57394,0.0957185,0.590948,-0.200436,0.542074,-2.56216,0.947375,0.876888,0.0441895,0.380106,-0.461331,0.0355866,-0.210508,-0.0736237,0.284037,0.0626351,0,0,0,0,0,0,0,0.638309,-21.7674,-3.36333,24.5865,1.08184,2.14501,0.299484,
0.589282,-0.19869,0.538441,-2.55642,0.947872,0.873148,0.0448634,0.0932144,-0.302923,0.0963771,-0.0125864,-0.0113821,0.0993067,0.0906079,-2.02298,3.05072,-1.7438,-0.775342,3.19282,-2.69962,0.300982,9.28735,-11.6486,12.255,-14.3772,-0.329754,2.53615,0.0935418,0.590948,-0.200436,0.542074,-2.56216,0.947375,0.876888,0.0441895,0.380106,-0.461331,0.0355866,-0.210508,-0.0736237,0.284037,0.0626351,0,0,0,0,0,0,0,0.638309,-21.7674,-3.36333,24.5865,1.08184,2.14501,0.299484,
0.593224,-0.206086,0.544354,-2.56271,0.947294,0.879897,0.045092,0.0998042,-0.307639,0.10343,-0.0138523,-0.0102448,0.114901,0.0850464,4.11861,-2.94792,4.40835,-0.79114,0.710803,9.74667,-3.47596,9.66896,-11.6498,12.6415,-15.0739,-0.6284,2.61092,0.0979539,0.590948,-0.200436,0.542074,-2.56216,0.947375,0.876888,0.0441895,0.380106,-0.461331,0.0355866,-0.210508,-0.0736237,0.284037,0.0626351,0,0,0,0,0,0,0,0.638309,-21.7674,-3.36333,24.5865,1.08184,2.14501,0.299484,
0.594076,-0.208482,0.545259,-2.56283,0.947317,0.881129,0.0456734,0.101147,-0.306025,0.105353,-0.0140246,-0.00760943,0.122714,0.0825704,0.838963,1.00901,1.20157,-0.107737,1.64709,4.883,-1.54752,9.4687,-12.0894,12.6529,-14.7996,-0.447105,2.48718,0.0961085,0.59655,-0.214488,0.550939,-2.56894,0.946295,0.88565,0.0463631,0.320626,-0.378777,0.0729042,-0.192365,-0.0454885,0.237046,0.054966,-7.43505,10.3193,4.6647,2.26785,3.5169,-5.87392,-0.958644,1.32465,-21.4937,-3.13719,26.0306,0.6488,2.15783,0.225327,
0.59482,-0.210747,0.546061,-2.56298,0.947424,0.88217,0.0463032,0.0995128,-0.301445,0.104338,-0.0149376,-0.00341148,0.124208,0.0818014,-1.02108,2.86242,-0.634308,-0.570588,2.62371,0.933942,-0.480601,9.27545,-12.0865,12.4573,-14.4513,-0.304146,2.44939,0.0939318,0.59655,-0.214488,0.550939,-2.56894,0.946295,0.88565,0.0463631,0.320626,-0.378777,0.0729042,-0.192365,-0.0454885,0.237046,0.054966,0,0,0,0,0,0,0,1.32465,-21.4937,-3.13719,26.0306,0.6488,2.15783,0.225327,
0.59549,-0.212915,0.546797,-2.56317,0.947604,0.883039,0.0469571,0.0963666,-0.295363,0.10186,-0.0168393,0.00177184,0.121081,0.0817898,-1.96638,3.80129,-1.54847,-1.1886,3.23957,-1.95473,-0.00726607,9.07785,-12.0795,12.2575,-14.1029,-0.171531,2.41187,0.0916336,0.59655,-0.214488,0.550939,-2.56894,0.946295,0.88565,0.0463631,0.320626,-0.378777,0.0729042,-0.192365,-0.0454885,0.237046,0.054966,0,0,0,0,0,0,0,1.32465,-21.4937,-3.13719,26.0306,0.6488,2.15783,0.225327,
0.598732,-0.219436,0.55321,-2.56975,0.946409,0.888323,0.0471503,0.101538,-0.294642,0.107851,-0.020773,0.0028508,0.129162,0.076326,3.23197,0.450636,3.74422,-2.45857,0.674349,5.05081,-3.41485,9.4687,-12.0894,12.6529,-14.7996,-0.447105,2.48718,0.0961085,0.59655,-0.214488,0.550939,-2.56894,0.946295,0.88565,0.0463631,0.320626,-0.378777,0.0729042,-0.192365,-0.0454885,0.237046,0.054966,0,0,0,0,0,0,0,1.32465,-21.4937,-3.13719,26.0306,0.6488,2.15783,0.225327,
0.599569,-0.221632,0.554129,-2.57,0.946524,0.889501,0.0476569,0.102161,-0.29061,0.10926,-0.0227654,0.00515183,0.1328,0.073727,0.389339,2.51993,0.880573,-1.24521,1.43815,2.27349,-1.62438,9.27545,-12.0865,12.4573,-14.4513,-0.304146,2.44939,0.0939318,0.59655,-0.214488,0.550939,-2.56894,0.946295,0.88565,0.0463631,0.320626,-0.378777,0.0729042,-0.192365,-0.0454885,0.237046,0.054966,0,0,0,0,0,0,0,1.32465,-21.4937,-3.13719,26.0306,0.6488,2.15783,0.225327,
0.600308,-0.223743,0.554955,-2.57025,0.946706,0.890547,0.0482101,0.100202,-0.285251,0.10804,-0.0246163,0.00867556,0.132377,0.072811,-1.22423,3.34969,-0.762624,-1.15681,2.20233,-0.264478,-0.572521,9.07212,-12.5067,12.47,-14.1552,-0.15161,2.32616,0.0920939,0.602155,-0.22857,0.559305,-2.57601,0.945572,0.894765,0.0480398,0.249524,-0.345099,0.163434,-0.187005,-0.0109072,0.303304,0.050181,-8.88781,4.20973,11.3162,0.670098,4.32266,8.28236,-0.598118,3.32813,-20.2202,-1.66136,27.0779,0.654293,2.04522,0.11821,
