xiao-wang007/linearmpc_panda/paper_data/panda_torque_PD_controller_error_match_to_start_torque_rate_limiter/1/trajectory.csv
Commanded Joint 0 Position,Commanded Joint 1 Position,Commanded Joint 2 Position,Commanded Joint 3 Position,Commanded Joint 4 Position,Commanded Joint 5 Position,Commanded Joint 6 Position,Commanded Joint 0 Velocity,Commanded Joint 1 Velocity,Commanded Joint 2 Velocity,Commanded Joint 3 Velocity,Commanded Joint 4 Velocity,Commanded Joint 5 Velocity,Commanded Joint 6 Velocity,Commanded Joint 0 Acceleration,Commanded Joint 1 Acceleration,Commanded Joint 2 Acceleration,Commanded Joint 3 Acceleration,Commanded Joint 4 Acceleration,Commanded Joint 5 Acceleration,Commanded Joint 6 Acceleration,Commanded Joint 0 Torque,Commanded Joint 1 Torque,Commanded Joint 2 Torque,Commanded Joint 3 Torque,Commanded Joint 4 Torque,Commanded Joint 5 Torque,Commanded Joint 6 Torque,Actual Joint 0 Position,Actual Joint 1 Position,Actual Joint 2 Position,Actual Joint 3 Position,Actual Joint 4 Position,Actual Joint 5 Position,Actual Joint 6 Position,Actual Joint 0 Velocity,Actual Joint 1 Velocity,Actual Joint 2 Velocity,Actual Joint 3 Velocity,Actual Joint 4 Velocity,Actual Joint 5 Velocity,Actual Joint 6 Velocity,Actual Joint 0 Acceleration,Actual Joint 1 Acceleration,Actual Joint 2 Acceleration,Actual Joint 3 Acceleration,Actual Joint 4 Acceleration,Actual Joint 5 Acceleration,Actual Joint 6 Acceleration,Actual Joint 0 Torque,Actual Joint 1 Torque,Actual Joint 2 Torque,Actual Joint 3 Torque,Actual Joint 4 Torque,Actual Joint 5 Torque,Actual Joint 6 Torque,
0.026034,0.0881771,-0.0471266,-1.77736,0.00624759,0.341761,0.00709939,0.00021552,0.0255352,0.00025473,-0.0316052,-0.0035011,0.0565999,-0.000377395,0.1347,15.9595,0.159206,-19.7532,-2.18819,35.3749,-0.235872,0.0615067,27.4675,0.09802,-24.4715,-0.59496,1.84134,-0.0242899,0.0260267,0.0867088,-0.0471406,-1.77456,0.00638952,0.335737,0.00715045,-0.00160621,0.000118616,-0.00172223,0.000623891,0.00746688,-0.00186974,2.22481e-05,0,0,0,0,0,0,0,0.134464,-38.6403,-0.0387439,27.3755,0.593868,3.17864,-0.0703886,
0.0260063,0.0867084,-0.0471589,-1.77456,0.00643768,0.335729,0.00715183,5.76676e-05,0.0204288,9.85911e-05,-0.0252694,-0.00266789,0.0452759,-0.000295954,-0.0986578,-3.19149,-0.0975868,3.95986,0.520755,-7.07752,0.0509002,0.0556742,27.9079,0.0876296,-24.3879,-0.595316,1.59088,-0.0227708,0.0260267,0.0867088,-0.0471406,-1.77456,0.00638952,0.335737,0.00715045,-0.00160621,0.000118616,-0.00172223,0.000623891,0.00746688,-0.00186974,2.22481e-05,0,0,0,0,0,0,0,0.134464,-38.6403,-0.0387439,27.3755,0.593868,3.17864,-0.0703886,
0.0260029,0.0867086,-0.0471621,-1.77456,0.00643898,0.33573,0.00715196,-3.86448e-05,0.0163497,4.02787e-07,-0.0202024,-0.00210168,0.0362521,-0.00023346,-0.0601952,-2.54944,-0.0613677,3.16684,0.353881,-5.63988,0.0390592,0.04839,28.4792,0.0758387,-24.2798,-0.594794,1.24375,-0.0208007,0.0260267,0.0867088,-0.0471406,-1.77456,0.00638952,0.335737,0.00715045,-0.00160621,0.000118616,-0.00172223,0.000623891,0.00746688,-0.00186974,2.22481e-05,0,0,0,0,0,0,0,0.134464,-38.6403,-0.0387439,27.3755,0.593868,3.17864,-0.0703886,
0.0260004,0.0867091,-0.0471645,-1.77456,0.00643844,0.335732,0.00715203,-9.52711e-05,0.0130913,-5.96424e-05,-0.0161497,-0.00169488,0.029056,-0.000184974,-0.0353915,-2.03654,-0.0375282,2.53297,0.254251,-4.49756,0.0303034,0.0423776,29.003,0.0663578,-24.112,-0.592765,0.859043,-0.0187983,0.0260267,0.0867088,-0.0471406,-1.77456,0.00638952,0.335737,0.00715045,-0.00160621,0.000118616,-0.00172223,0.000623891,0.00746688,-0.00186974,2.22481e-05,0,0,0,0,0,0,0,0.134464,-38.6403,-0.0387439,27.3755,0.593868,3.17864,-0.0703886,
0.0259984,0.0867097,-0.0471663,-1.77456,0.00643717,0.335735,0.00715207,-0.000126096,0.0104881,-9.43709e-05,-0.012908,-0.00138776,0.023314,-0.000147056,-0.0192656,-1.62695,-0.0217054,2.02607,0.191948,-3.58874,0.023699,0.0400448,29.3279,0.0620927,-23.8468,-0.587889,0.48746,-0.0170791,0.0260313,0.0868014,-0.0471315,-1.77465,0.00637634,0.335736,0.00714982,-0.00162037,0.00107119,-0.000951971,-0.0020742,0.0124163,-0.00264791,0.00108032,-0.00177038,0.119071,0.0962819,-0.337262,0.618672,-0.0972719,0.132259,-0.0202602,-38.3666,-0.137926,27.3993,0.722042,3.19237,-0.103348,
0.0260334,0.0872981,-0.0471271,-1.77515,0.0062833,0.33603,0.00715584,-4.98765e-05,0.0208087,3.35484e-05,-0.022945,-0.00343634,0.0260087,3.29122e-05,0.0476372,6.45034,0.0799496,-6.27315,-1.28036,1.68422,0.11248,-9.68685e-06,33.631,0.0370671,-23.3728,-0.988115,-2.33188,0.00115252,0.0260313,0.0868014,-0.0471315,-1.77465,0.00637634,0.335736,0.00714982,-0.00162037,0.00107119,-0.000951971,-0.0020742,0.0124163,-0.00264791,0.00108032,0,0,0,0,0,0,0,-0.0202602,-38.3666,-0.137926,27.3993,0.722042,3.19237,-0.103348,
0.0259925,0.0877487,-0.0471815,-1.77537,0.00722939,0.335379,0.00713616,-0.00106114,0.0279117,-0.00133177,-0.0236688,0.0209032,0.00451603,-0.000465748,-0.632038,4.43941,-0.853326,-0.452348,15.2122,-13.4329,-0.311663,0.540482,0.152434,0.544911,-0.282255,3.25735,-2.09612,-0.00211075,0.0260313,0.0868014,-0.0471315,-1.77465,0.00637634,0.335736,0.00714982,-0.00162037,0.00107119,-0.000951971,-0.0020742,0.0124163,-0.00264791,0.00108032,0,0,0,0,0,0,0,-0.0202602,-38.3666,-0.137926,27.3993,0.722042,3.19237,-0.103348,
0.0259321,0.0881014,-0.047247,-1.77551,0.00877714,0.334279,0.00712379,-0.00235989,0.0311479,-0.00270261,-0.0224577,0.0554163,-0.0238695,-0.000681692,-0.811719,2.02263,-0.856771,0.756935,21.5706,-17.741,-0.134965,0.533357,0.150451,0.538099,-0.279562,3.229,-2.07809,-0.00203933,0.0260313,0.0868014,-0.0471315,-1.77465,0.00637634,0.335736,0.00714982,-0.00162037,0.00107119,-0.000951971,-0.0020742,0.0124163,-0.00264791,0.00108032,0,0,0,0,0,0,0,-0.0202602,-38.3666,-0.137926,27.3993,0.722042,3.19237,-0.103348,
0.0260205,0.0879398,-0.0471385,-1.77613,0.00612896,0.338302,0.00715595,-0.00191046,0.044679,-0.0021148,-0.0355056,0.039314,0.000336157,-0.000392006,0.280892,8.45692,0.367377,-8.15496,-10.0639,15.1285,0.181054,0.000258192,33.6499,0.0375515,-23.3729,-0.987235,-2.33275,0.00115815,0.0260214,0.0871494,-0.0471404,-1.77543,0.00632972,0.337524,0.00714982,-0.00170461,0.0322338,-0.00200587,-0.0742707,0.00186381,0.152985,0.000226121,-0.0105302,3.89533,-0.131737,-9.02456,-1.31906,19.4541,-0.106775,0.209842,-31.3524,-0.0109729,20.3534,0.459286,2.71447,-0.0969389,
0.0259223,0.0886442,-0.0472818,-1.77616,0.00936591,0.335334,0.00709043,-0.00398344,0.0533525,-0.00527387,-0.02906,0.112375,-0.0739262,-0.00195181,-1.29561,5.42095,-1.97442,4.02854,45.6631,-46.414,-0.974875,4.52303,0.760775,4.44926,-1.85496,11.0128,-11.2544,-0.00812584,0.0260214,0.0871494,-0.0471404,-1.77543,0.00632972,0.337524,0.00714982,-0.00170461,0.0322338,-0.00200587,-0.0742707,0.00186381,0.152985,0.000226121,0,0,0,0,0,0,0,0.209842,-31.3524,-0.0109729,20.3534,0.459286,2.71447,-0.0969389,
0.025794,0.0891363,-0.0474304,-1.7761,0.0146233,0.330375,0.00705007,-0.00639473,0.0549857,-0.00793581,-0.0219778,0.221335,-0.183112,-0.00257022,-1.50706,1.0207,-1.66371,4.42633,68.1002,-68.2413,-0.386512,4.45902,0.847635,4.37473,-1.7766,11.0128,-11.0375,-0.0075451,0.0260214,0.0871494,-0.0471404,-1.77543,0.00632972,0.337524,0.00714982,-0.00170461,0.0322338,-0.00200587,-0.0742707,0.00186381,0.152985,0.000226121,0,0,0,0,0,0,0,0.209842,-31.3524,-0.0109729,20.3534,0.459286,2.71447,-0.0969389,
0.0256888,0.0894663,-0.0475431,-1.77608,0.0210686,0.324231,0.00702748,-0.00774383,0.0522382,-0.00916589,-0.0170723,0.338201,-0.300077,-0.00262099,-0.84319,-1.71717,-0.768798,3.06593,73.0413,-73.1028,-0.031727,4.3854,0.8976,4.29622,-1.71217,11.0128,-10.8161,-0.00723095,0.0260214,0.0871494,-0.0471404,-1.77543,0.00632972,0.337524,0.00714982,-0.00170461,0.0322338,-0.00200587,-0.0742707,0.00186381,0.152985,0.000226121,0,0,0,0,0,0,0,0.209842,-31.3524,-0.0109729,20.3534,0.459286,2.71447,-0.0969389,
0.0260572,0.090506,-0.0471048,-1.78264,0.00580584,0.341425,0.00715584,-0.00593106,0.076859,-0.00695777,-0.0442964,0.263435,-0.252822,-0.00189624,1.13298,15.388,1.38007,-17.015,-46.729,29.5342,0.452967,0.000118531,33.7468,0.0383981,-23.3468,-0.982356,-2.3031,0.00104879,0.0260467,0.0891033,-0.0471198,-1.78142,0.00609088,0.341935,0.00714782,-0.00207094,0.111406,0.00174153,-0.182336,-0.00408399,-0.00872339,0.000838215,-0.0457913,9.89646,0.468425,-13.5081,-0.743474,-20.2135,0.0765118,-0.0440639,-22.9894,-0.185533,18.9053,0.758663,1.39519,-0.0767973,
0.0263877,0.0915625,-0.0467754,-1.78339,0.0081109,0.33687,0.00720327,0.00351835,0.0878994,0.00266745,-0.0540836,0.268375,-0.316117,-0.000331208,5.90588,6.90025,6.01576,-6.11698,3.08727,-39.5595,0.978146,28.5656,0.552788,27.9521,-11.1042,11.0176,-14.3031,0.0840833,0.0260467,0.0891033,-0.0471198,-1.78142,0.00609088,0.341935,0.00714782,-0.00207094,0.111406,0.00174153,-0.182336,-0.00408399,-0.00872339,0.000838215,0,0,0,0,0,0,0,-0.0440639,-22.9894,-0.185533,18.9053,0.758663,1.39519,-0.0767973,
0.0270054,0.0923386,-0.0461861,-1.78398,0.0121876,0.329903,0.00726273,0.0182568,0.0897218,0.0168668,-0.0581436,0.316618,-0.427069,0.00122152,9.21154,1.13901,8.87462,-2.53752,30.1521,-69.3451,0.970454,27.298,1.67983,26.3883,-9.26784,11.0176,-14.3031,0.0840667,0.0260467,0.0891033,-0.0471198,-1.78142,0.00609088,0.341935,0.00714782,-0.00207094,0.111406,0.00174153,-0.182336,-0.00408399,-0.00872339,0.000838215,0,0,0,0,0,0,0,-0.0440639,-22.9894,-0.185533,18.9053,0.758663,1.39519,-0.0767973,
0.0278541,0.0929156,-0.0453796,-1.78452,0.0174942,0.321415,0.00732567,0.0358214,0.0862008,0.0336575,-0.0598484,0.385958,-0.553875,0.00255056,10.9779,-2.20064,10.4941,-1.06554,43.3374,-79.2535,0.830649,25.9708,1.616,24.9765,-7.80281,11.0176,-14.3031,0.080196,0.0260467,0.0891033,-0.0471198,-1.78142,0.00609088,0.341935,0.00714782,-0.00207094,0.111406,0.00174153,-0.182336,-0.00408399,-0.00872339,0.000838215,0,0,0,0,0,0,0,-0.0440639,-22.9894,-0.185533,18.9053,0.758663,1.39519,-0.0767973,
0.0261276,0.0966712,-0.0469204,-1.78729,0.0137527,0.335651,0.00716067,0.031396,0.114032,0.0302107,-0.0778751,0.341687,-0.484696,0.00252851,-2.76588,17.3947,-2.15425,-11.2666,-27.6694,43.237,-0.0137798,-0.0331242,33.9278,0.00545036,-23.3139,-1.01263,-2.23785,0.000810581,0.026018,0.0948683,-0.0470518,-1.78609,0.0124359,0.337315,0.00714114,-0.00229291,0.224706,0.0190009,-0.0648473,0.317528,-0.336589,-0.000231338,-0.0277456,14.1626,2.15742,14.6861,40.2015,-40.9831,-0.133694,3.65741,-30.7533,3.31361,24.2136,2.57232,-0.619882,-0.0301054,
0.0268403,0.0976206,-0.0461673,-1.78876,0.0164971,0.330814,0.00744778,0.0429338,0.114963,0.0429966,-0.0989817,0.341958,-0.508685,0.00920064,7.21111,0.58145,7.9912,-13.1916,0.169653,-14.9931,4.17008,44.0741,-7.13178,43.1185,-20.2527,10.9874,-14.2379,0.35029,0.026018,0.0948683,-0.0470518,-1.78609,0.0124359,0.337315,0.00714114,-0.00229291,0.224706,0.0190009,-0.0648473,0.317528,-0.336589,-0.000231338,0,0,0,0,0,0,0,3.65741,-30.7533,3.31361,24.2136,2.57232,-0.619882,-0.0301054,
0.0279797,0.0981194,-0.0450274,-1.79023,0.0205767,0.323749,0.00764606,0.0628332,0.104439,0.0628954,-0.116059,0.375557,-0.58358,0.0123174,12.4372,-6.57745,12.4367,-10.6731,20.9995,-46.8095,1.94799,38.9566,-5.45532,38.0089,-19.1827,10.9874,-14.2379,0.233081,0.026018,0.0948683,-0.0470518,-1.78609,0.0124359,0.337315,0.00714114,-0.00229291,0.224706,0.0190009,-0.0648473,0.317528,-0.336589,-0.000231338,0,0,0,0,0,0,0,3.65741,-30.7533,3.31361,24.2136,2.57232,-0.619882,-0.0301054,
0.0293981,0.098403,-0.0436331,-1.79162,0.0257959,0.315186,0.00774012,0.0857257,0.0906406,0.0851734,-0.127421,0.430925,-0.680931,0.0122055,14.3078,-8.62382,13.9238,-7.10157,34.6048,-60.8444,-0.0699672,34.8152,-3.32401,33.9155,-17.5483,10.9874,-14.2379,0.107764,0.026018,0.0948683,-0.0470518,-1.78609,0.0124359,0.337315,0.00714114,-0.00229291,0.224706,0.0190009,-0.0648473,0.317528,-0.336589,-0.000231338,0,0,0,0,0,0,0,3.65741,-30.7533,3.31361,24.2136,2.57232,-0.619882,-0.0301054,
0.0261276,0.0966712,-0.0469204,-1.78729,0.0137527,0.335651,0.00716067,0.0713195,0.117584,0.0714234,-0.131933,0.377661,-0.586341,0.0102525,-9.00392,16.8397,-8.59374,-2.82007,-33.2903,59.119,-1.22065,-0.369641,34.6637,-0.334804,-23.5452,-1.25895,-2.10343,0.00267147,0.0258969,0.105295,-0.0478747,-1.78386,0.0429761,0.304164,0.00715422,-0.00405781,0.317949,-0.0129906,0.0545196,0.883151,-1.16641,-0.000485563,-0.220612,11.6553,-3.99894,14.9209,70.7029,-103.727,-0.0317781,6.26789,-34.1216,5.83681,19.306,1.64398,-1.21681,-0.0630644,
0.0270278,0.0972134,-0.0460291,-1.78941,0.0162087,0.331266,0.00761472,0.0795611,0.107623,0.0794232,-0.15858,0.363528,-0.578693,0.0195532,5.15099,-6.2259,4.99986,-16.654,-8.83307,4.77979,5.81297,53.1643,-15.1489,51.1342,-30.5417,10.7411,-14.1034,0.55286,0.0258969,0.105295,-0.0478747,-1.78386,0.0429761,0.304164,0.00715422,-0.00405781,0.317949,-0.0129906,0.0545196,0.883151,-1.16641,-0.000485563,0,0,0,0,0,0,0,6.26789,-34.1216,5.83681,19.306,1.64398,-1.21681,-0.0630644,
0.0284143,0.0972666,-0.0447014,-1.79157,0.0200033,0.324528,0.00782884,0.0983098,0.0874285,0.0967307,-0.180819,0.385687,-0.631416,0.0209956,11.718,-12.6214,10.8171,-13.8995,13.8495,-32.952,0.901493,44.3782,-10.803,42.5514,-28.3254,10.7411,-14.1034,0.242788,0.0258969,0.105295,-0.0478747,-1.78386,0.0429761,0.304164,0.00715422,-0.00405781,0.317949,-0.0129906,0.0545196,0.883151,-1.16641,-0.000485563,0,0,0,0,0,0,0,6.26789,-34.1216,5.83681,19.306,1.64398,-1.21681,-0.0630644,
0.0300851,0.097153,-0.0431041,-1.79357,0.0250285,0.316153,0.00786608,0.12042,0.0671025,0.117316,-0.194557,0.43418,-0.714511,0.0177276,13.8187,-12.7037,12.8657,-8.58634,30.3082,-51.9343,-2.04251,38.3681,-6.75845,36.8383,-25.7408,10.7411,-14.1034,0.0353282,0.0258969,0.105295,-0.0478747,-1.78386,0.0429761,0.304164,0.00715422,-0.00405781,0.317949,-0.0129906,0.0545196,0.883151,-1.16641,-0.000485563,0,0,0,0,0,0,0,6.26789,-34.1216,5.83681,19.306,1.64398,-1.21681,-0.0630644,
0.0281884,0.106093,-0.0455528,-1.7883,0.05459,0.286744,0.00789102,0.132264,0.0568599,0.129173,-0.214872,0.491348,-0.799624,0.020241,7.40279,-6.40163,7.41046,-12.6972,35.7302,-53.1954,1.57089,53.4705,-14.9455,51.4275,-30.28,10.8268,-13.7507,0.550619,0.0267991,0.111893,-0.0451101,-1.79066,0.0615919,0.264289,0.00755899,0.0349866,0.124217,0.15149,-0.40379,0.530389,-1.10037,0.0261282,4.88055,-24.2164,20.5601,-57.2887,-44.0953,8.25454,3.32672,13.8771,-40.5843,12.8867,17.3383,2.96966,-2.94074,0.0843355,
0.0299512,0.106078,-0.0438475,-1.79052,0.0607448,0.276817,0.00794484,0.149881,0.0451069,0.145969,-0.227243,0.546947,-0.887878,0.0175383,11.0103,-7.34564,10.4979,-7.73152,34.7491,-55.159,-1.68917,44.6844,-10.5996,42.8446,-28.0638,10.8268,-13.7507,0.240548,0.0267991,0.111893,-0.0451101,-1.79066,0.0615919,0.264289,0.00755899,0.0349866,0.124217,0.15149,-0.40379,0.530389,-1.10037,0.0261282,0,0,0,0,0,0,0,13.8771,-40.5843,12.8867,17.3383,2.96966,-2.94074,0.0843355,
0.0318987,0.106033,-0.0419709,-1.79254,0.0674182,0.266367,0.00791276,0.168592,0.0349618,0.163691,-0.232423,0.604394,-0.97156,0.0132286,11.6948,-6.34068,11.0762,-3.23763,35.9045,-52.3012,-2.69354,38.6743,-6.55507,37.1315,-25.4791,10.8268,-13.7507,0.0330876,0.0267991,0.111893,-0.0451101,-1.79066,0.0615919,0.264289,0.00755899,0.0349866,0.124217,0.15149,-0.40379,0.530389,-1.10037,0.0261282,0,0,0,0,0,0,0,13.8771,-40.5843,12.8867,17.3383,2.96966,-2.94074,0.0843355,
0.0339471,0.105953,-0.0399988,-1.79446,0.0745867,0.255647,0.00790314,0.186083,0.0259669,0.180255,-0.233981,0.662729,-1.04523,0.0103424,10.9317,-5.62181,10.3523,-0.973591,36.4589,-46.0423,-1.80392,34.8226,-4.24897,33.498,-23.3632,10.8268,-13.7507,-0.05633,0.0267991,0.111893,-0.0451101,-1.79066,0.0615919,0.264289,0.00755899,0.0349866,0.124217,0.15149,-0.40379,0.530389,-1.10037,0.0261282,0,0,0,0,0,0,0,13.8771,-40.5843,12.8867,17.3383,2.96966,-2.94074,0.0843355,
0.0297233,0.112921,-0.0422495,-1.79614,0.0715546,0.243684,0.00784023,0.18976,0.0314007,0.183749,-0.251431,0.663388,-1.10247,0.00958919,2.29809,3.39614,2.18403,-10.906,0.411885,-35.7741,-0.470741,44.6844,-10.5996,42.8446,-28.0638,10.8268,-13.7507,0.240548,0.0267991,0.111893,-0.0451101,-1.79066,0.0615919,0.264289,0.00755899,0.0349866,0.124217,0.15149,-0.40379,0.530389,-1.10037,0.0261282,0,0,0,0,0,0,0,13.8771,-40.5843,12.8867,17.3383,2.96966,-2.94074,0.0843355,
0.0315617,0.113251,-0.0404787,-1.79844,0.0776038,0.232666,0.00780812,0.197768,0.0333778,0.19127,-0.258583,0.68194,-1.15741,0.00686863,5.00498,1.23571,4.7006,-4.47041,11.5956,-34.3388,-1.70035,38.9149,-6.39704,37.3383,-25.2646,10.8931,-13.3488,0.0321017,0.0289146,0.113168,-0.0375712,-1.80961,0.0836288,0.221634,0.00824595,0.11761,-0.0163543,0.337575,-0.594702,0.663695,-1.31627,0.0201487,10.3279,-17.5715,23.2606,-23.8639,16.6633,-26.9872,-0.747447,18.4911,-42.7068,17.6593,27.9745,3.09784,-0.447763,0.0440523,
0.0335182,0.113484,-0.0385956,-1.80057,0.0842883,0.221519,0.00779881,0.207128,0.0325146,0.200092,-0.260322,0.712665,-1.20461,0.00526223,5.84965,-0.53954,5.51339,-1.08681,19.2026,-29.5003,-1.004,35.0631,-4.09094,33.7048,-23.1487,10.8931,-13.3488,-0.0573158,0.0289146,0.113168,-0.0375712,-1.80961,0.0836288,0.221634,0.00824595,0.11761,-0.0163543,0.337575,-0.594702,0.663695,-1.31627,0.0201487,0,0,0,0,0,0,0,18.4911,-42.7068,17.6593,27.9745,3.09784,-0.447763,0.0440523,
0.0355222,0.113591,-0.0366742,-1.80266,0.0915292,0.210386,0.00777036,0.215802,0.0286797,0.208111,-0.260469,0.751153,-1.242,0.00349847,5.42173,-2.39682,5.01193,-0.0917537,24.0554,-23.3679,-1.10234,32.2459,-3.75404,31.0463,-22.1688,10.8931,-13.3488,-0.0165162,0.0289146,0.113168,-0.0375712,-1.80961,0.0836288,0.221634,0.00824595,0.11761,-0.0163543,0.337575,-0.594702,0.663695,-1.31627,0.0201487,0,0,0,0,0,0,0,18.4911,-42.7068,17.6593,27.9745,3.09784,-0.447763,0.0440523,
0.0331546,0.113888,-0.0334739,-1.81531,0.096012,0.19761,0.00826163,0.227356,0.0325986,0.219001,-0.272371,0.763498,-1.29555,0.00194905,7.22085,2.44936,6.80663,-7.43855,7.71573,-33.4674,-0.96839,38.9149,-6.39704,37.3383,-25.2646,10.8931,-13.3488,0.0321017,0.0289146,0.113168,-0.0375712,-1.80961,0.0836288,0.221634,0.00824595,0.11761,-0.0163543,0.337575,-0.594702,0.663695,-1.31627,0.0201487,0,0,0,0,0,0,0,18.4911,-42.7068,17.6593,27.9745,3.09784,-0.447763,0.0440523,
0.0353975,0.114208,-0.0313218,-1.81761,0.103078,0.185714,0.0082496,0.237957,0.0340846,0.229001,-0.275536,0.787449,-1.33384,0.00125857,6.62583,0.928712,6.24996,-1.97859,14.9691,-23.9348,-0.431553,35.466,-3.76902,34.0405,-22.8728,11.0291,-12.7835,-0.0578802,0.039357,0.112305,-0.0222381,-1.82933,0.112053,0.168891,0.00877314,0.502303,-0.0247063,0.29438,-0.575904,0.935377,-1.72911,-0.00892215,48.0866,-1.044,-5.39947,2.34973,33.9602,-51.605,-3.63385,22.0418,-38.4895,20.0357,26.4789,4.45922,0.102469,0.158493,
0.0376351,0.114403,-0.0291813,-1.81982,0.110635,0.174082,0.00821838,0.246307,0.0321401,0.236714,-0.275674,0.818872,-1.35788,0.000226371,5.21895,-1.21529,4.82046,-0.0859814,19.6395,-15.025,-0.645121,32.6488,-3.43212,31.3821,-21.8929,11.0291,-12.7835,-0.0170806,0.039357,0.112305,-0.0222381,-1.82933,0.112053,0.168891,0.00877314,0.502303,-0.0247063,0.29438,-0.575904,0.935377,-1.72911,-0.00892215,0,0,0,0,0,0,0,22.0418,-38.4895,20.0357,26.4789,4.45922,0.102469,0.158493,
0.0398229,0.114527,-0.0270956,-1.82191,0.118586,0.162637,0.00810516,0.251741,0.028809,0.241514,-0.272613,0.853881,-1.37241,-0.00264941,3.39626,-2.08193,3.00003,1.91305,21.8805,-9.08337,-1.79736,29.4673,-4.18915,28.2943,-22.1444,11.0291,-12.7835,-0.0362646,0.039357,0.112305,-0.0222381,-1.82933,0.112053,0.168891,0.00877314,0.502303,-0.0247063,0.29438,-0.575904,0.935377,-1.72911,-0.00892215,0,0,0,0,0,0,0,22.0418,-38.4895,20.0357,26.4789,4.45922,0.102469,0.158493,
0.0523799,0.114185,-0.00990103,-1.84109,0.155556,0.104936,0.00809358,0.257948,0.0299595,0.246982,-0.266886,0.90779,-1.38344,-0.00513482,3.87937,0.719068,3.41753,3.57937,33.6932,-6.89117,-1.55339,26.5052,-3.3062,25.3982,-21.484,11.0291,-12.7835,-0.138435,0.039357,0.112305,-0.0222381,-1.82933,0.112053,0.168891,0.00877314,0.502303,-0.0247063,0.29438,-0.575904,0.935377,-1.72911,-0.00892215,0,0,0,0,0,0,0,22.0418,-38.4895,20.0357,26.4789,4.45922,0.102469,0.158493,
0.0545247,0.114393,-0.00786122,-1.84295,0.164514,0.0941894,0.00799004,0.259978,0.0291713,0.248581,-0.259915,0.950183,-1.37542,-0.00669629,1.26874,-0.492641,0.999188,4.35662,26.4955,5.0101,-0.975917,25.1207,-2.17531,24.0007,-19.9302,11.1667,-12.1384,-0.174469,0.0566093,0.111927,-0.0089946,-1.84647,0.14572,0.105071,0.0088352,0.403706,0.0240814,0.69305,-0.496728,0.993845,-1.866,0.000947786,-12.3246,6.09846,49.8338,9.89701,7.30845,-17.112,1.23374,14.385,-37.5176,14.4617,24.5349,4.77691,0.00267619,0.0843355,
0.0565667,0.114541,-0.00591928,-1.84472,0.173418,0.0840528,0.00790143,0.259033,0.0270191,0.247413,-0.25213,0.982743,-1.35375,-0.00757212,-0.590573,-1.34512,-0.729687,4.86617,20.3501,13.5444,-0.547396,24.0438,-1.58919,22.9603,-19.1806,11.1667,-12.1384,-0.172682,0.0566093,0.111927,-0.0089946,-1.84647,0.14572,0.105071,0.0088352,0.403706,0.0240814,0.69305,-0.496728,0.993845,-1.866,0.000947786,0,0,0,0,0,0,0,14.385,-37.5176,14.4617,24.5349,4.77691,0.00267619,0.0843355,
0.0585226,0.114625,-0.00405899,-1.84647,0.182263,0.0749426,0.00782983,0.256124,0.0237202,0.244438,-0.245529,1.00733,-1.31076,-0.00784771,-1.81826,-2.06184,-1.85975,4.12538,15.3647,26.872,-0.172243,23.2063,-1.33888,22.1579,-18.5989,11.1667,-11.662,-0.158245,0.0566093,0.111927,-0.0089946,-1.84647,0.14572,0.105071,0.0088352,0.403706,0.0240814,0.69305,-0.496728,0.993845,-1.866,0.000947786,0,0,0,0,0,0,0,14.385,-37.5176,14.4617,24.5349,4.77691,0.00267619,0.0843355,
0.0719091,0.114272,0.0055047,-1.85791,0.193706,0.0466256,0.00829142,0.266374,0.0261578,0.253873,-0.246051,1.04631,-1.27144,-0.00801323,6.40598,1.5235,5.89732,-0.326183,24.366,24.5754,-0.103447,22.4683,-1.25216,21.4557,-18.1031,11.1667,-10.9769,-0.140843,0.0566093,0.111927,-0.0089946,-1.84647,0.14572,0.105071,0.0088352,0.403706,0.0240814,0.69305,-0.496728,0.993845,-1.866,0.000947786,0,0,0,0,0,0,0,14.385,-37.5176,14.4617,24.5349,4.77691,0.00267619,0.0843355,
0.0741806,0.114469,0.00766005,-1.85982,0.203151,0.0391896,0.00823641,0.269887,0.0258537,0.256982,-0.24456,1.07317,-1.20305,-0.00778588,2.19587,-0.190068,1.94318,0.931481,16.785,42.7433,0.14209,22.0881,-1.22402,20.9936,-17.074,11.2576,-9.70363,-0.123674,0.0734866,0.112819,0.0172874,-1.86529,0.182619,0.0390077,0.00877658,0.662262,0.0273091,0.641558,-0.560267,1.22406,-1.95686,-0.00441393,32.3194,0.403457,-6.43648,-7.94235,28.7767,-11.3574,-0.670215,9.03308,-40.3105,8.03865,28.1491,3.36059,-0.541147,0.151169,
0.0762961,0.114587,0.00966685,-1.86165,0.212415,0.033148,0.00819231,0.268796,0.0236436,0.255756,-0.241466,1.09013,-1.11348,-0.0073311,-0.682093,-1.3813,-0.766608,1.93377,10.6022,55.9804,0.284242,21.4128,-1.24709,20.3522,-16.6374,11.2576,-9.23308,-0.105741,0.0734866,0.112819,0.0172874,-1.86529,0.182619,0.0390077,0.00877658,0.662262,0.0273091,0.641558,-0.560267,1.22406,-1.95686,-0.00441393,0,0,0,0,0,0,0,9.03308,-40.3105,8.03865,28.1491,3.36059,-0.541147,0.151169,
0.0908633,0.115414,0.0336806,-1.87773,0.234996,-0.00629976,0.00843871,0.281118,0.0263572,0.267039,-0.243594,1.12435,-1.01867,-0.00680737,7.70138,1.69597,7.05172,-1.32972,21.3884,59.2527,0.32733,20.131,-1.44604,19.1119,-15.8485,11.2576,-5.2174,-0.0710385,0.0734866,0.112819,0.0172874,-1.86529,0.182619,0.0390077,0.00877658,0.662262,0.0273091,0.641558,-0.560267,1.22406,-1.95686,-0.00441393,0,0,0,0,0,0,0,9.03308,-40.3105,8.03865,28.1491,3.36059,-0.541147,0.151169,
0.0932461,0.115602,0.035931,-1.8796,0.244776,-0.00997324,0.00841346,0.284464,0.0257783,0.269891,-0.241502,1.14397,-0.906777,-0.00607732,2.09125,-0.361799,1.78281,1.30741,12.2619,69.9364,0.456281,19.5238,-1.65082,18.5296,-15.5778,11.2576,-3.57868,-0.0560473,0.0734866,0.112819,0.0172874,-1.86529,0.182619,0.0390077,0.00877658,0.662262,0.0273091,0.641558,-0.560267,1.22406,-1.95686,-0.00441393,0,0,0,0,0,0,0,9.03308,-40.3105,8.03865,28.1491,3.36059,-0.541147,0.151169,
0.0954151,0.115696,0.0379781,-1.88133,0.254266,-0.0124168,0.00839855,0.281795,0.0229694,0.267092,-0.236514,1.15244,-0.78651,-0.00523444,-1.66833,-1.75555,-1.74977,3.11786,5.29304,75.1666,0.526801,19.0075,-2.34457,17.947,-14.6441,11.1601,-1.58393,-0.0475591,0.102846,0.114533,0.0339388,-1.88272,0.228785,-0.0300282,0.00827958,0.920743,0.0353373,0.482558,-0.509523,1.37352,-1.9073,-0.0125115,32.3101,1.00353,-19.8751,6.34297,18.683,6.19531,-1.0122,2.41565,-40.8342,3.11128,28.0222,2.96325,0.745169,-0.0429228,
0.0974066,0.115712,0.0398563,-1.88295,0.2635,-0.0138122,0.00839404,0.275224,0.0187749,0.260628,-0.229624,1.15279,-0.664094,-0.00430029,-4.10696,-2.62155,-4.03944,4.30565,0.218581,76.5099,0.583843,18.4741,-2.46603,17.4402,-14.4212,11.1601,-0.350046,-0.0346467,0.102846,0.114533,0.0339388,-1.88272,0.228785,-0.0300282,0.00827958,0.920743,0.0353373,0.482558,-0.509523,1.37352,-1.9073,-0.0125115,0,0,0,0,0,0,0,2.41565,-40.8342,3.11128,28.0222,2.96325,0.745169,-0.0429228,
0.121167,0.116548,0.0511598,-1.8948,0.283201,-0.0626734,0.00809542,0.287424,0.0199851,0.271873,-0.23028,1.17786,-0.592349,-0.00369404,7.62504,0.75635,7.02798,-0.409726,15.6663,44.841,0.378906,17.9734,-2.52209,16.966,-14.2,11.1601,0.707763,-0.0240221,0.102846,0.114533,0.0339388,-1.88272,0.228785,-0.0300282,0.00827958,0.920743,0.0353373,0.482558,-0.509523,1.37352,-1.9073,-0.0125115,0,0,0,0,0,0,0,2.41565,-40.8342,3.11128,28.0222,2.96325,0.745169,-0.0429228,
0.123554,0.116647,0.053407,-1.89648,0.293043,-0.0638387,0.00809725,0.2896,0.0184705,0.273677,-0.226457,1.18833,-0.503012,-0.00290945,1.36022,-0.946639,1.12751,2.38964,6.54627,55.8353,0.490366,17.5065,-2.51464,16.5253,-13.9769,11.1601,1.6167,-0.0122612,0.102846,0.114533,0.0339388,-1.88272,0.228785,-0.0300282,0.00827958,0.920743,0.0353373,0.482558,-0.509523,1.37352,-1.9073,-0.0125115,0,0,0,0,0,0,0,2.41565,-40.8342,3.11128,28.0222,2.96325,0.745169,-0.0429228,
0.125693,0.116663,0.0554191,-1.89803,0.302542,-0.0639735,0.00811033,0.285156,0.0151688,0.269245,-0.219802,1.18814,-0.405778,-0.00200059,-2.77772,-2.06352,-2.77005,4.15896,-0.120383,60.7714,0.568041,16.6733,-3.66882,15.5973,-13.0113,10.6614,2.72508,-0.00793812,0.129787,0.116826,0.0552202,-1.89934,0.281277,-0.0837612,0.00809958,0.651892,0.0263141,0.668579,-0.536467,1.61922,-1.20086,0.000278016,-33.6064,-1.1279,23.2527,-3.36802,30.7124,88.3054,1.59869,-8.03418,-41.3341,-7.08464,30.8627,1.83349,2.68151,0.017502,
0.127628,0.116611,0.0572372,-1.89946,0.311745,-0.0632756,0.00813386,0.276495,0.0108336,0.260849,-0.211491,1.18058,-0.307175,-0.00101212,-5.41272,-2.70949,-5.2478,5.19439,-4.72191,61.6268,0.617791,16.2544,-3.56794,15.2035,-12.7836,10.6614,3.37739,0.00284969,0.129787,0.116826,0.0552202,-1.89934,0.281277,-0.0837612,0.00809958,0.651892,0.0263141,0.668579,-0.536467,1.61922,-1.20086,0.000278016,0,0,0,0,0,0,0,-8.03418,-41.3341,-7.08464,30.8627,1.83349,2.68151,0.017502,
0.148955,0.118605,0.0732639,-1.91151,0.346763,-0.0986385,0.00813425,0.275399,0.00956067,0.259464,-0.20503,1.18571,-0.22315,-9.50619e-05,-0.685436,-0.795613,-0.865709,4.03809,3.20348,52.5155,0.573163,15.457,-3.28503,14.4554,-12.3317,10.6614,4.38257,0.0226991,0.129787,0.116826,0.0552202,-1.89934,0.281277,-0.0837612,0.00809958,0.651892,0.0263141,0.668579,-0.536467,1.61922,-1.20086,0.000278016,0,0,0,0,0,0,0,-8.03418,-41.3341,-7.08464,30.8627,1.83349,2.68151,0.017502,
0.150885,0.118571,0.0750655,-1.9128,0.355917,-0.0970228,0.00816661,0.268566,0.00680568,0.252613,-0.196454,1.1774,-0.138129,0.000732825,-4.27018,-1.72187,-4.28158,5.35999,-5.19189,53.1383,0.517429,15.062,-3.11695,14.0855,-12.1124,10.6614,4.76533,0.0330158,0.129787,0.116826,0.0552202,-1.89934,0.281277,-0.0837612,0.00809958,0.651892,0.0263141,0.668579,-0.536467,1.61922,-1.20086,0.000278016,0,0,0,0,0,0,0,-8.03418,-41.3341,-7.08464,30.8627,1.83349,2.68151,0.017502,
0.152629,0.118481,0.0766953,-1.91397,0.364317,-0.0948612,0.00820156,0.258466,0.00320325,0.242833,-0.186384,1.15193,-0.0564629,0.00146003,-6.3124,-2.25152,-6.11226,6.29383,-15.9214,51.0413,0.454501,14.3496,-3.85396,13.2973,-11.3311,10.2361,5.2298,0.0387117,0.149709,0.118852,0.0739765,-1.91492,0.3322,-0.107557,0.00810179,0.65528,-0.000133882,0.616206,-0.504884,1.66994,-0.495613,-0.00018964,0.423509,-3.306,-6.54667,3.94787,6.34016,88.1556,-0.058457,-11.0255,-41.0365,-9.13573,28.8474,1.44256,2.53594,0.0101778,
0.154227,0.118345,0.0781876,-1.91503,0.371858,-0.0922823,0.00823709,0.246709,-0.000833775,0.231574,-0.175623,1.11007,0.0193036,0.00205644,-7.34861,-2.52314,-7.0371,6.72578,-26.1624,47.3541,0.372757,13.8892,-3.65191,12.8876,-11.1233,10.2361,5.47732,0.0471414,0.149709,0.118852,0.0739765,-1.91492,0.3322,-0.107557,0.00810179,0.65528,-0.000133882,0.616206,-0.504884,1.66994,-0.495613,-0.00018964,0,0,0,0,0,0,0,-11.0255,-41.0365,-9.13573,28.8474,1.44256,2.53594,0.0101778,
0.167806,0.119949,0.0909469,-1.92473,0.390452,-0.108494,0.00818179,0.2482,-0.00198044,0.232842,-0.167843,1.0596,0.0643506,0.00226238,0.932264,-0.716663,0.79264,4.86267,-31.5401,28.1543,0.128714,12.9477,-3.1847,11.9635,-10.7214,10.2361,5.81342,0.0538211,0.149709,0.118852,0.0739765,-1.91492,0.3322,-0.107557,0.00810179,0.65528,-0.000133882,0.616206,-0.504884,1.66994,-0.495613,-0.00018964,0,0,0,0,0,0,0,-11.0255,-41.0365,-9.13573,28.8474,1.44256,2.53594,0.0101778,
0.169616,0.119836,0.0926397,-1.92572,0.396259,-0.106101,0.0082104,0.243828,-0.00442755,0.228593,-0.158952,0.992861,0.111289,0.00252533,-2.73289,-1.52945,-2.65554,5.55685,-41.7141,29.3362,0.164345,12.5406,-2.89868,11.5013,-10.489,9.71442,5.91995,0.0545528,0.149709,0.118852,0.0739765,-1.91492,0.3322,-0.107557,0.00810179,0.65528,-0.000133882,0.616206,-0.504884,1.66994,-0.495613,-0.00018964,0,0,0,0,0,0,0,-11.0255,-41.0365,-9.13573,28.8474,1.44256,2.53594,0.0101778,
0.171247,0.119676,0.0941616,-1.92662,0.401102,-0.103382,0.00824255,0.235819,-0.007534,0.220924,-0.149737,0.915351,0.157017,0.0028239,-5.00541,-1.94153,-4.79357,5.75944,-48.4435,28.5805,0.186604,12.1512,-2.61302,11.1001,-10.2419,8.32101,5.97974,0.0547229,0.149709,0.118852,0.0739765,-1.91492,0.3322,-0.107557,0.00810179,0.65528,-0.000133882,0.616206,-0.504884,1.66994,-0.495613,-0.00018964,0,0,0,0,0,0,0,-11.0255,-41.0365,-9.13573,28.8474,1.44256,2.53594,0.0101778,
0.17273,0.119483,0.0955443,-1.92746,0.405071,-0.100422,0.00827832,0.225736,-0.010857,0.211304,-0.140696,0.831512,0.199609,0.00315331,-6.30158,-2.07687,-6.01223,5.65027,-52.3998,26.62,0.205883,11.5716,-3.0636,10.4212,-10.0261,6.66623,5.89762,0.0515203,0.171771,0.120247,0.0952359,-1.93174,0.393392,-0.114205,0.00811246,0.590633,0.0384203,0.463881,-0.435224,1.67301,-0.00563355,-0.00072497,-8.08086,4.81927,-19.0407,8.70758,0.383565,61.2474,-0.0669162,-11.1525,-40.3859,-9.58403,32.5568,1.62567,3.87536,0.0303194,
0.190484,0.112044,0.109858,-1.92317,0.474363,-0.0623011,0.00683126,0.180672,-0.0134635,0.167708,-0.107317,0.667773,0.195805,0.00208853,-28.1654,-1.62909,-27.2476,20.8617,-102.337,-2.37741,-0.665486,3.17407,-1.29167,2.76511,1.37277,2.46853,1.47755,-0.0183037,0.171771,0.120247,0.0952359,-1.93174,0.393392,-0.114205,0.00811246,0.590633,0.0384203,0.463881,-0.435224,1.67301,-0.00563355,-0.00072497,0,0,0,0,0,0,0,-11.1525,-40.3859,-9.58403,32.5568,1.62567,3.87536,0.0303194,
0.190487,0.111853,0.109805,-1.92296,0.474466,-0.0608632,0.00681393,0.14462,-0.0155392,0.132834,-0.0806355,0.536788,0.192593,0.00123747,-22.5323,-1.29726,-21.7964,16.6762,-81.8656,-2.00798,-0.531916,3.05883,-1.26466,2.6614,1.56129,2.94083,1.07733,-0.0189479,0.171771,0.120247,0.0952359,-1.93174,0.393392,-0.114205,0.00811246,0.590633,0.0384203,0.463881,-0.435224,1.67301,-0.00563355,-0.00072497,0,0,0,0,0,0,0,-11.1525,-40.3859,-9.58403,32.5568,1.62567,3.87536,0.0303194,
0.19049,0.111662,0.109752,-1.92275,0.474569,-0.059432,0.00679662,0.115779,-0.0171901,0.104937,-0.0593108,0.432006,0.189853,0.00055737,-18.0259,-1.03184,-17.4355,13.3279,-65.4884,-1.71201,-0.425061,2.9271,-1.23664,2.54137,1.7516,3.4472,0.658808,-0.0191358,0.171771,0.120247,0.0952359,-1.93174,0.393392,-0.114205,0.00811246,0.590633,0.0384203,0.463881,-0.435224,1.67301,-0.00563355,-0.00072497,0,0,0,0,0,0,0,-11.1525,-40.3859,-9.58403,32.5568,1.62567,3.87536,0.0303194,
0.190494,0.111472,0.109698,-1.92255,0.474672,-0.0580076,0.00677935,0.0927055,-0.0185014,0.0826221,-0.0422719,0.348188,0.187494,1.40455e-05,-14.4207,-0.819551,-13.9468,10.6493,-52.3866,-1.47479,-0.339578,2.5862,-1.62805,2.13419,1.95407,3.68338,0.156262,-0.0178056,0.189625,0.12058,0.111503,-1.94349,0.444659,-0.107073,0.00813103,0.537042,0.017915,0.431952,-0.325164,1.41459,0.369665,-0.00042357,-6.69886,-2.56317,-3.99113,13.7575,-32.3032,46.9123,0.0376749,-10.4423,-39.763,-9.15953,27.3993,0.971981,2.6751,0.0779268,
0.205006,0.103519,0.120232,-1.92565,0.48919,0.0195587,0.00617873,0.0742463,-0.0193048,0.0648008,-0.0295286,0.28141,0.178276,-0.000386165,-11.537,-0.502143,-11.1383,7.9646,-41.7363,-5.76115,-0.250132,2.5862,-1.62805,2.13419,1.95407,3.68338,0.156262,-0.0178056,0.189625,0.12058,0.111503,-1.94349,0.444659,-0.107073,0.00813103,0.537042,0.017915,0.431952,-0.325164,1.41459,0.369665,-0.00042357,0,0,0,0,0,0,0,-10.4423,-39.763,-9.15953,27.3993,0.971981,2.6751,0.0779268,
0.205006,0.103519,0.120232,-1.92565,0.48919,0.0195587,0.00617873,0.059479,-0.0199476,0.0505437,-0.0193339,0.227987,0.170902,-0.000706334,-9.2296,-0.401715,-8.91066,6.37168,-33.3891,-4.60892,-0.200105,2.5862,-1.62805,2.13419,1.95407,3.68338,0.156262,-0.0178056,0.189625,0.12058,0.111503,-1.94349,0.444659,-0.107073,0.00813103,0.537042,0.017915,0.431952,-0.325164,1.41459,0.369665,-0.00042357,0,0,0,0,0,0,0,-10.4423,-39.763,-9.15953,27.3993,0.971981,2.6751,0.0779268,
0.205006,0.103519,0.120232,-1.92565,0.48919,0.0195587,0.00617873,0.0476651,-0.0204618,0.0391381,-0.0111781,0.185249,0.165002,-0.000962469,-7.38368,-0.321372,-7.12853,5.09735,-26.7113,-3.68714,-0.160084,2.5862,-1.62805,2.13419,1.95407,3.68338,0.156262,-0.0178056,0.189625,0.12058,0.111503,-1.94349,0.444659,-0.107073,0.00813103,0.537042,0.017915,0.431952,-0.325164,1.41459,0.369665,-0.00042357,0,0,0,0,0,0,0,-10.4423,-39.763,-9.15953,27.3993,0.971981,2.6751,0.0779268,
0.205006,0.103519,0.120232,-1.92565,0.48919,0.0195587,0.00617873,0.038214,-0.0208731,0.0300136,-0.00465352,0.151059,0.160283,-0.00116738,-5.90694,-0.257097,-5.70282,4.07788,-21.369,-2.94971,-0.128067,2.38415,-2.06308,1.87726,1.66522,3.48831,-0.125324,-0.0123502,0.202553,0.120996,0.127632,-1.95072,0.475726,-0.0955366,0.00813115,0.304571,0.0279346,0.368662,-0.0653749,0.685751,0.136673,-0.00176722,-29.0589,1.25246,-7.91123,32.4736,-91.1045,-29.124,-0.167956,-16.1235,-41.1357,-14.6106,32.8583,0.27618,0.606009,0.0641939,
0.212951,0.101977,0.13136,-1.93188,0.502728,0.0320769,0.006277,0.0306515,-0.0213714,0.0226593,0.000479939,0.123177,0.156109,-0.00132783,-4.72654,-0.311411,-4.59641,3.20841,-17.426,-2.6084,-0.100282,2.38415,-2.06308,1.87726,1.66522,3.48831,-0.125324,-0.0123502,0.202553,0.120996,0.127632,-1.95072,0.475726,-0.0955366,0.00813115,0.304571,0.0279346,0.368662,-0.0653749,0.685751,0.136673,-0.00176722,0,0,0,0,0,0,0,-16.1235,-41.1357,-14.6106,32.8583,0.27618,0.606009,0.0641939,
0.212951,0.101977,0.13136,-1.93188,0.502728,0.0320769,0.006277,0.0246015,-0.02177,0.0167759,0.00458671,0.100872,0.152771,-0.00145619,-3.78123,-0.249129,-3.67713,2.56673,-13.9408,-2.08672,-0.0802254,2.38415,-2.06308,1.87726,1.66522,3.48831,-0.125324,-0.0123502,0.202553,0.120996,0.127632,-1.95072,0.475726,-0.0955366,0.00813115,0.304571,0.0279346,0.368662,-0.0653749,0.685751,0.136673,-0.00176722,0,0,0,0,0,0,0,-16.1235,-41.1357,-14.6106,32.8583,0.27618,0.606009,0.0641939,
0.212951,0.101977,0.13136,-1.93188,0.502728,0.0320769,0.006277,0.0197616,-0.0220889,0.0120692,0.00787212,0.0830275,0.1501,-0.00155888,-3.02498,-0.199303,-2.9417,2.05338,-11.1526,-1.66938,-0.0641803,2.38415,-2.06308,1.87726,1.66522,3.48831,-0.125324,-0.0123502,0.202553,0.120996,0.127632,-1.95072,0.475726,-0.0955366,0.00813115,0.304571,0.0279346,0.368662,-0.0653749,0.685751,0.136673,-0.00176722,0,0,0,0,0,0,0,-16.1235,-41.1357,-14.6106,32.8583,0.27618,0.606009,0.0641939,
0.212951,0.101977,0.13136,-1.93188,0.502728,0.0320769,0.006277,0.0158896,-0.022344,0.0083038,0.0105004,0.0687521,0.147963,-0.00164103,-2.41999,-0.159443,-2.35336,1.64271,-8.92212,-1.3355,-0.0513443,2.34313,-2.13868,1.79903,1.47926,3.36381,-0.240624,-0.0112122,0.212668,0.121053,0.136033,-1.95094,0.493423,-0.0862102,0.00812515,0.224133,0.000247646,0.311848,0.00624485,0.410412,0.412304,-0.000997662,-10.0548,-3.46087,-7.10171,8.95247,-34.4174,34.4539,0.0961949,-14.0922,-38.7395,-12.2858,26.2567,0.825497,-0.593332,0.0303194,
0.220518,0.101311,0.137173,-1.93162,0.512629,0.0444664,0.00632701,0.0127914,-0.022513,0.00526027,0.0124371,0.0569283,0.145244,-0.00170083,-1.93638,-0.105625,-1.90221,1.21042,-7.38987,-1.69907,-0.0373739,2.34313,-2.13868,1.79903,1.47926,3.36381,-0.240624,-0.0112122,0.212668,0.121053,0.136033,-1.95094,0.493423,-0.0862102,0.00812515,0.224133,0.000247646,0.311848,0.00624485,0.410412,0.412304,-0.000997662,0,0,0,0,0,0,0,-14.0922,-38.7395,-12.2858,26.2567,0.825497,-0.593332,0.0303194,
0.220518,0.101311,0.137173,-1.93162,0.512629,0.0444664,0.00632701,0.0103128,-0.0226482,0.00282544,0.0139865,0.0474692,0.143069,-0.00174866,-1.5491,-0.0845002,-1.52177,0.968339,-5.9119,-1.35926,-0.0298991,2.34313,-2.13868,1.79903,1.47926,3.36381,-0.240624,-0.0112122,0.212668,0.121053,0.136033,-1.95094,0.493423,-0.0862102,0.00812515,0.224133,0.000247646,0.311848,0.00624485,0.410412,0.412304,-0.000997662,0,0,0,0,0,0,0,-14.0922,-38.7395,-12.2858,26.2567,0.825497,-0.593332,0.0303194,
0.220518,0.101311,0.137173,-1.93162,0.512629,0.0444664,0.00632701,0.00832996,-0.0227563,0.000877571,0.0152259,0.039902,0.14133,-0.00178694,-1.23928,-0.0676001,-1.21742,0.774671,-4.72952,-1.0874,-0.0239193,2.34313,-2.13868,1.79903,1.47926,3.36381,-0.240624,-0.0112122,0.212668,0.121053,0.136033,-1.95094,0.493423,-0.0862102,0.00812515,0.224133,0.000247646,0.311848,0.00624485,0.410412,0.412304,-0.000997662,0,0,0,0,0,0,0,-14.0922,-38.7395,-12.2858,26.2567,0.825497,-0.593332,0.0303194,
0.220518,0.101311,0.137173,-1.93162,0.512629,0.0444664,0.00632701,0.00674368,-0.0228429,-0.000680721,0.0162175,0.0338482,0.139938,-0.00181755,-0.991426,-0.0540801,-0.973932,0.619737,-3.78362,-0.869923,-0.0191354,2.39889,-2.21513,1.84004,1.26061,3.33288,-0.385851,-0.0101651,0.219541,0.120129,0.141511,-1.95031,0.505179,-0.07202,0.00810747,0.114092,-0.0524287,0.131617,0.0433818,0.257771,0.36639,-0.00143086,-13.7551,-6.58454,-22.5289,4.64212,-19.0801,-5.73928,-0.0541497,-8.51422,-35.1213,-6.86247,23.7375,1.41235,-0.574106,0.0641939,
0.220518,0.101311,0.137173,-1.93162,0.512629,0.0444664,0.00632701,0.00547465,-0.0229121,-0.00192735,0.0170108,0.0290052,0.138824,-0.00184205,-0.793141,-0.0432641,-0.779146,0.49579,-3.02689,-0.695939,-0.0153083,2.39889,-2.21513,1.84004,1.26061,3.33288,-0.385851,-0.0101651,0.219541,0.120129,0.141511,-1.95031,0.505179,-0.07202,0.00810747,0.114092,-0.0524287,0.131617,0.0433818,0.257771,0.36639,-0.00143086,0,0,0,0,0,0,0,-8.51422,-35.1213,-6.86247,23.7375,1.41235,-0.574106,0.0641939,
0.220518,0.101311,0.137173,-1.93162,0.512629,0.0444664,0.00632701,0.00445943,-0.0229675,-0.00292466,0.0176454,0.0251308,0.137933,-0.00186164,-0.634513,-0.0346113,-0.623317,0.396632,-2.42151,-0.556751,-0.0122467,2.39889,-2.21513,1.84004,1.26061,3.33288,-0.385851,-0.0101651,0.219541,0.120129,0.141511,-1.95031,0.505179,-0.07202,0.00810747,0.114092,-0.0524287,0.131617,0.0433818,0.257771,0.36639,-0.00143086,0,0,0,0,0,0,0,-8.51422,-35.1213,-6.86247,23.7375,1.41235,-0.574106,0.0641939,
0.220518,0.101311,0.137173,-1.93162,0.512629,0.0444664,0.00632701,0.00364726,-0.0230118,-0.00372251,0.0181531,0.0220312,0.137221,-0.00187732,-0.50761,-0.027689,-0.498653,0.317305,-1.93721,-0.445401,-0.00979733,2.39889,-2.21513,1.84004,1.26061,3.33288,-0.385851,-0.0101651,0.219541,0.120129,0.141511,-1.95031,0.505179,-0.07202,0.00810747,0.114092,-0.0524287,0.131617,0.0433818,0.257771,0.36639,-0.00143086,0,0,0,0,0,0,0,-8.51422,-35.1213,-6.86247,23.7375,1.41235,-0.574106,0.0641939,
0.223381,0.0996444,0.138909,-1.93093,0.518207,0.056393,0.00640896,0.00299749,-0.0230095,-0.00435014,0.0183878,0.0194144,0.135455,-0.00188365,-0.406102,0.00143326,-0.392272,0.146703,-1.63552,-1.10337,-0.00395659,2.41768,-2.19437,1.85851,1.12433,3.32346,-0.480004,-0.00963833,0.222566,0.118734,0.144103,-1.94893,0.512801,-0.0575687,0.00810441,0.0648679,-0.0396125,0.0649407,0.0357471,0.156659,0.39676,-0.00237091,-6.15304,1.60202,-8.33455,-0.954337,-12.639,3.7963,-0.117506,-2.98779,-35.0935,-1.8637,24.039,2.62725,-0.911936,0.0303194,
0.223381,0.0996444,0.138909,-1.93093,0.518207,0.056393,0.00640896,0.00247768,-0.0230076,-0.00485225,0.0185756,0.0173209,0.134043,-0.00188871,-0.324882,0.00114661,-0.313817,0.117363,-1.30842,-0.882693,-0.00316527,2.41768,-2.19437,1.85851,1.12433,3.32346,-0.480004,-0.00963833,0.222566,0.118734,0.144103,-1.94893,0.512801,-0.0575687,0.00810441,0.0648679,-0.0396125,0.0649407,0.0357471,0.156659,0.39676,-0.00237091,0,0,0,0,0,0,0,-2.98779,-35.0935,-1.8637,24.039,2.62725,-0.911936,0.0303194,
0.223381,0.0996444,0.138909,-1.93093,0.518207,0.056393,0.00640896,0.00206184,-0.0230062,-0.00525394,0.0187258,0.0156461,0.132913,-0.00189276,-0.259905,0.000917286,-0.251054,0.0938902,-1.04674,-0.706154,-0.00253222,2.41768,-2.19437,1.85851,1.12433,3.32346,-0.480004,-0.00963833,0.222566,0.118734,0.144103,-1.94893,0.512801,-0.0575687,0.00810441,0.0648679,-0.0396125,0.0649407,0.0357471,0.156659,0.39676,-0.00237091,0,0,0,0,0,0,0,-2.98779,-35.0935,-1.8637,24.039,2.62725,-0.911936,0.0303194,
0.223381,0.0996444,0.138909,-1.93093,0.518207,0.056393,0.00640896,0.00172916,-0.023005,-0.00557528,0.018846,0.0143063,0.132009,-0.001896,-0.207924,0.000733829,-0.200843,0.0751121,-0.837388,-0.564923,-0.00202577,2.41768,-2.19437,1.85851,1.12433,3.32346,-0.480004,-0.00963833,0.222566,0.118734,0.144103,-1.94893,0.512801,-0.0575687,0.00810441,0.0648679,-0.0396125,0.0649407,0.0357471,0.156659,0.39676,-0.00237091,0,0,0,0,0,0,0,-2.98779,-35.0935,-1.8637,24.039,2.62725,-0.911936,0.0303194,
0.224679,0.0991635,0.139852,-1.93035,0.522172,0.0676876,0.00646292,0.00146327,-0.0229109,-0.00583225,0.0188027,0.0132206,0.130247,-0.00189331,-0.166181,0.0588291,-0.160606,-0.027034,-0.678594,-1.10114,0.00168331,2.41988,-2.19357,1.86894,1.0497,3.32438,-0.543786,-0.00931676,0.224103,0.117156,0.145003,-1.9479,0.517101,-0.0468104,0.00810425,0.0512851,-0.0459402,0.0062009,0.0323389,0.0995962,0.284689,-0.0010264,-1.69785,-0.790957,-7.34247,-0.42603,-7.13284,-14.0089,0.168063,-0.67883,-34.5699,0.238966,24.4119,3.79364,0.474173,0.017502,
0.224679,0.0991635,0.139852,-1.93035,0.522172,0.0676876,0.00646292,0.00125055,-0.0228356,-0.00603783,0.0187681,0.012352,0.128838,-0.00189116,-0.132945,0.0470633,-0.128485,-0.0216272,-0.542875,-0.880912,0.00134665,2.41988,-2.19357,1.86894,1.0497,3.32438,-0.543786,-0.00931676,0.224103,0.117156,0.145003,-1.9479,0.517101,-0.0468104,0.00810425,0.0512851,-0.0459402,0.0062009,0.0323389,0.0995962,0.284689,-0.0010264,0,0,0,0,0,0,0,-0.67883,-34.5699,0.238966,24.4119,3.79364,0.474173,0.017502,
0.224679,0.0991635,0.139852,-1.93035,0.522172,0.0676876,0.00646292,0.00108039,-0.0227753,-0.00620229,0.0187405,0.0116571,0.12771,-0.00188943,-0.106356,0.0376506,-0.102788,-0.0173018,-0.4343,-0.70473,0.00107732,2.41988,-2.19357,1.86894,1.0497,3.32438,-0.543786,-0.00931676,0.224103,0.117156,0.145003,-1.9479,0.517101,-0.0468104,0.00810425,0.0512851,-0.0459402,0.0062009,0.0323389,0.0995962,0.284689,-0.0010264,0,0,0,0,0,0,0,-0.67883,-34.5699,0.238966,24.4119,3.79364,0.474173,0.017502,
0.224679,0.0991635,0.139852,-1.93035,0.522172,0.0676876,0.00646292,0.00094425,-0.0227271,-0.00633386,0.0187183,0.0111012,0.126808,-0.00188805,-0.0850847,0.0301205,-0.0822301,-0.0138414,-0.34744,-0.563784,0.000861854,2.41988,-2.19357,1.86894,1.0497,3.32438,-0.543786,-0.00931676,0.224103,0.117156,0.145003,-1.9479,0.517101,-0.0468104,0.00810425,0.0512851,-0.0459402,0.0062009,0.0323389,0.0995962,0.284689,-0.0010264,0,0,0,0,0,0,0,-0.67883,-34.5699,0.238966,24.4119,3.79364,0.474173,0.017502,
0.225326,0.0977253,0.139985,-1.92995,0.524407,0.073934,0.0065015,0.000835468,-0.0226856,-0.00642014,0.0186036,0.0106298,0.125389,-0.00188342,-0.0679884,0.0259638,-0.0539297,-0.0716772,-0.294624,-0.886903,0.00289474,2.41988,-2.19357,1.86894,1.0497,3.32438,-0.543786,-0.00931676,0.224103,0.117156,0.145003,-1.9479,0.517101,-0.0468104,0.00810425,0.0512851,-0.0459402,0.0062009,0.0323389,0.0995962,0.284689,-0.0010264,0,0,0,0,0,0,0,-0.67883,-34.5699,0.238966,24.4119,3.79364,0.474173,0.017502,
0.225326,0.0977253,0.139985,-1.92995,0.524407,0.073934,0.0065015,0.000748443,-0.0226524,-0.00648917,0.0185119,0.0102527,0.124254,-0.00187972,-0.0543907,0.020771,-0.0431438,-0.0573417,-0.2357,-0.709522,0.00231579,2.42068,-2.17894,1.87735,0.985849,3.32354,-0.594387,-0.00910144,0.225285,0.115864,0.145377,-1.94721,0.520346,-0.0373225,0.00810131,0.0302627,-0.0453804,0.0129178,0.00916124,0.094414,0.263508,-0.000335409,-2.6278,0.0699784,0.839608,-2.8972,-0.647783,-2.6476,0.0863741,-0.0718349,-36.1171,1.16334,25.4077,4.04449,0.407339,0.0101778,
0.225326,0.0977253,0.139985,-1.92995,0.524407,0.073934,0.0065015,0.000678823,-0.0226258,-0.0065444,0.0184385,0.00995097,0.123346,-0.00187675,-0.0435125,0.0166168,-0.034515,-0.0458734,-0.18856,-0.567618,0.00185263,2.42068,-2.17894,1.87735,0.985849,3.32354,-0.594387,-0.00910144,0.225285,0.115864,0.145377,-1.94721,0.520346,-0.0373225,0.00810131,0.0302627,-0.0453804,0.0129178,0.00916124,0.094414,0.263508,-0.000335409,0,0,0,0,0,0,0,-0.0718349,-36.1171,1.16334,25.4077,4.04449,0.407339,0.0101778,
0.225326,0.0977253,0.139985,-1.92995,0.524407,0.073934,0.0065015,0.000623127,-0.0226045,-0.00658858,0.0183798,0.00970962,0.122619,-0.00187438,-0.03481,0.0132934,-0.027612,-0.0366987,-0.150848,-0.454094,0.00148211,2.42068,-2.17894,1.87735,0.985849,3.32354,-0.594387,-0.00910144,0.225285,0.115864,0.145377,-1.94721,0.520346,-0.0373225,0.00810131,0.0302627,-0.0453804,0.0129178,0.00916124,0.094414,0.263508,-0.000335409,0,0,0,0,0,0,0,-0.0718349,-36.1171,1.16334,25.4077,4.04449,0.407339,0.0101778,
0.226341,0.0967965,0.140245,-1.9299,0.526957,0.079977,0.00652045,0.000578678,-0.0225693,-0.00661304,0.0182507,0.00948762,0.121453,-0.00186944,-0.0277809,0.021989,-0.0152903,-0.080641,-0.13875,-0.728779,0.00308891,2.42068,-2.17894,1.87735,0.985849,3.32354,-0.594387,-0.00910144,0.225285,0.115864,0.145377,-1.94721,0.520346,-0.0373225,0.00810131,0.0302627,-0.0453804,0.0129178,0.00916124,0.094414,0.263508,-0.000335409,0,0,0,0,0,0,0,-0.0718349,-36.1171,1.16334,25.4077,4.04449,0.407339,0.0101778,
0.226341,0.0967965,0.140245,-1.9299,0.526957,0.079977,0.00652045,0.000543118,-0.0225412,-0.00663261,0.0181475,0.00931002,0.120521,-0.00186548,-0.0222247,0.0175912,-0.0122323,-0.0645128,-0.111,-0.583023,0.00247113,2.42321,-2.15104,1.88637,0.918206,3.32205,-0.642407,-0.00887389,0.225928,0.11474,0.145616,-1.94671,0.523402,-0.0278855,0.008098,0.0156631,-0.0234833,0.0130884,0.0162375,0.0836971,0.291358,0.00010942,-1.82495,2.73714,0.0213297,0.884537,-1.33961,3.48125,0.0556036,0.336795,-35.8672,1.38948,25.4593,3.95843,0.268179,0.0303194,
0.226341,0.0967965,0.140245,-1.9299,0.526957,0.079977,0.00652045,0.00051467,-0.0225187,-0.00664827,0.0180649,0.00916794,0.119774,-0.00186232,-0.0177798,0.014073,-0.00978581,-0.0516103,-0.0888001,-0.466419,0.00197691,2.42321,-2.15104,1.88637,0.918206,3.32205,-0.642407,-0.00887389,0.225928,0.11474,0.145616,-1.94671,0.523402,-0.0278855,0.008098,0.0156631,-0.0234833,0.0130884,0.0162375,0.0836971,0.291358,0.00010942,0,0,0,0,0,0,0,0.336795,-35.8672,1.38948,25.4593,3.95843,0.268179,0.0303194,
0.226341,0.0967965,0.140245,-1.9299,0.526957,0.079977,0.00652045,0.000491912,-0.0225007,-0.0066608,0.0179989,0.00905427,0.119177,-0.00185979,-0.0142238,0.0112584,-0.00782865,-0.0412882,-0.0710401,-0.373135,0.00158152,2.42321,-2.15104,1.88637,0.918206,3.32205,-0.642407,-0.00887389,0.225928,0.11474,0.145616,-1.94671,0.523402,-0.0278855,0.008098,0.0156631,-0.0234833,0.0130884,0.0162375,0.0836971,0.291358,0.00010942,0,0,0,0,0,0,0,0.336795,-35.8672,1.38948,25.4593,3.95843,0.268179,0.0303194,
0.226698,0.0962802,0.140238,-1.92989,0.529545,0.0871368,0.00653581,0.000473936,-0.0224342,-0.00666402,0.0178602,0.00897193,0.118061,-0.00185447,-0.0112353,0.0415098,-0.00201518,-0.0866824,-0.0514621,-0.69741,0.00332279,2.42321,-2.15104,1.88637,0.918206,3.32205,-0.642407,-0.00887389,0.225928,0.11474,0.145616,-1.94671,0.523402,-0.0278855,0.008098,0.0156631,-0.0234833,0.0130884,0.0162375,0.0836971,0.291358,0.00010942,0,0,0,0,0,0,0,0.336795,-35.8672,1.38948,25.4593,3.95843,0.268179,0.0303194,
0.226698,0.0962802,0.140238,-1.92989,0.529545,0.0871368,0.00653581,0.000459555,-0.0223811,-0.0066666,0.0177492,0.00890606,0.117169,-0.00185022,-0.00898824,0.0332079,-0.00161214,-0.0693459,-0.0411697,-0.557928,0.00265823,2.4271,-2.11398,1.8961,0.848759,3.32111,-0.692365,-0.00865704,0.226572,0.113731,0.145733,-1.94613,0.526533,-0.0176512,0.00809324,0.0232696,-0.0226964,-0.00124707,0.0223812,0.113704,0.29874,-0.00117977,0.950811,0.098356,-1.79193,0.76796,3.75089,0.922689,-0.161149,0.590702,-36.4186,1.46089,24.761,3.43383,-0.388254,0.0303194,
0.226698,0.0962802,0.140238,-1.92989,0.529545,0.0871368,0.00653581,0.00044805,-0.0223386,-0.00666866,0.0176605,0.00885336,0.116455,-0.00184682,-0.00719059,0.0265663,-0.00128971,-0.0554768,-0.0329358,-0.446343,0.00212659,2.4271,-2.11398,1.8961,0.848759,3.32111,-0.692365,-0.00865704,0.226572,0.113731,0.145733,-1.94613,0.526533,-0.0176512,0.00809324,0.0232696,-0.0226964,-0.00124707,0.0223812,0.113704,0.29874,-0.00117977,0,0,0,0,0,0,0,0.590702,-36.4186,1.46089,24.761,3.43383,-0.388254,0.0303194,
0.226698,0.0962802,0.140238,-1.92989,0.529545,0.0871368,0.00653581,0.000438846,-0.0223046,-0.00667032,0.0175895,0.00881121,0.115883,-0.0018441,-0.00575247,0.021253,-0.00103177,-0.0443814,-0.0263486,-0.357074,0.00170127,2.4271,-2.11398,1.8961,0.848759,3.32111,-0.692365,-0.00865704,0.226572,0.113731,0.145733,-1.94613,0.526533,-0.0176512,0.00809324,0.0232696,-0.0226964,-0.00124707,0.0223812,0.113704,0.29874,-0.00117977,0,0,0,0,0,0,0,0.590702,-36.4186,1.46089,24.761,3.43383,-0.388254,0.0303194,
0.227269,0.0954034,0.140337,-1.92964,0.533007,0.0944472,0.0065482,0.000431664,-0.0222372,-0.00666085,0.0174336,0.00873005,0.114738,-0.00183825,-0.00448877,0.0421008,0.00591792,-0.0974034,-0.0507249,-0.71572,0.00365454,2.4271,-2.11398,1.8961,0.848759,3.32111,-0.692365,-0.00865704,0.226572,0.113731,0.145733,-1.94613,0.526533,-0.0176512,0.00809324,0.0232696,-0.0226964,-0.00124707,0.0223812,0.113704,0.29874,-0.00117977,0,0,0,0,0,0,0,0.590702,-36.4186,1.46089,24.761,3.43383,-0.388254,0.0303194,
0.227269,0.0954034,0.140337,-1.92964,0.533007,0.0944472,0.0065482,0.000425918,-0.0221833,-0.00665327,0.0173089,0.00866512,0.113822,-0.00183357,-0.00359102,0.0336807,0.00473433,-0.0779227,-0.0405799,-0.572576,0.00292363,2.43265,-2.07214,1.90756,0.773881,3.31768,-0.742731,-0.00841296,0.22718,0.112643,0.145849,-1.94555,0.530498,-0.00706963,0.0080917,0.0170543,-0.0544122,0.00279719,0.00617995,0.138939,0.329952,-0.00040962,-0.776914,-3.96447,0.505533,-2.02516,3.15437,3.90156,0.096269,0.463749,-36.4662,1.36171,24.7372,2.89642,-0.335153,0.0440523,
0.227269,0.0954034,0.140337,-1.92964,0.533007,0.0944472,0.0065482,0.000421322,-0.0221402,-0.00664721,0.0172092,0.00861318,0.113089,-0.00182983,-0.00287282,0.0269445,0.00378747,-0.0623382,-0.0324639,-0.458061,0.00233891,2.43265,-2.07214,1.90756,0.773881,3.31768,-0.742731,-0.00841296,0.22718,0.112643,0.145849,-1.94555,0.530498,-0.00706963,0.0080917,0.0170543,-0.0544122,0.00279719,0.00617995,0.138939,0.329952,-0.00040962,0,0,0,0,0,0,0,0.463749,-36.4662,1.36171,24.7372,2.89642,-0.335153,0.0440523,
0.227862,0.0939274,0.140523,-1.92933,0.537167,0.101923,0.00656618,0.000417778,-0.0220915,-0.00662387,0.0170166,0.00848044,0.111754,-0.00182276,-0.00221459,0.0304277,0.0145899,-0.120343,-0.0829612,-0.834575,0.00441879,2.43265,-2.07214,1.90756,0.773881,3.31768,-0.742731,-0.00841296,0.22718,0.112643,0.145849,-1.94555,0.530498,-0.00706963,0.0080917,0.0170543,-0.0544122,0.00279719,0.00617995,0.138939,0.329952,-0.00040962,0,0,0,0,0,0,0,0.463749,-36.4662,1.36171,24.7372,2.89642,-0.335153,0.0440523,
0.227862,0.0939274,0.140523,-1.92933,0.537167,0.101923,0.00656618,0.000414944,-0.0220526,-0.00660519,0.0168626,0.00837425,0.110685,-0.0018171,-0.00177167,0.0243422,0.011672,-0.0962748,-0.066369,-0.66766,0.00353503,2.43265,-2.07214,1.90756,0.773881,3.31768,-0.742731,-0.00841296,0.22718,0.112643,0.145849,-1.94555,0.530498,-0.00706963,0.0080917,0.0170543,-0.0544122,0.00279719,0.00617995,0.138939,0.329952,-0.00040962,0,0,0,0,0,0,0,0.463749,-36.4662,1.36171,24.7372,2.89642,-0.335153,0.0440523,
0.227862,0.0939274,0.140523,-1.92933,0.537167,0.101923,0.00656618,0.000412676,-0.0220214,-0.00659025,0.0167394,0.0082893,0.109831,-0.00181258,-0.00141734,0.0194737,0.00933756,-0.0770198,-0.0530952,-0.534128,0.00282803,2.42772,-2.04555,1.9089,0.709903,3.31334,-0.79107,-0.00817933,0.227687,0.111604,0.146,-1.94502,0.534753,0.00298405,0.00809636,0.0142237,-0.0269718,0.00684957,0.0231212,0.12844,0.289967,0.000880642,-0.353831,3.43004,0.506547,2.11765,-1.31236,-4.9982,0.161283,0.309024,-35.8672,1.3141,25.2094,2.78015,-0.0302828,-0.0301054,
0.227862,0.0939274,0.140523,-1.92933,0.537167,0.101923,0.00656618,0.000410862,-0.0219965,-0.0065783,0.0166408,0.00822133,0.109147,-0.00180896,-0.00113387,0.015579,0.00747005,-0.0616158,-0.0424762,-0.427302,0.00226242,2.42772,-2.04555,1.9089,0.709903,3.31334,-0.79107,-0.00817933,0.227687,0.111604,0.146,-1.94502,0.534753,0.00298405,0.00809636,0.0142237,-0.0269718,0.00684957,0.0231212,0.12844,0.289967,0.000880642,0,0,0,0,0,0,0,0.309024,-35.8672,1.3141,25.2094,2.78015,-0.0302828,-0.0301054,
0.228377,0.0935184,0.140697,-1.92937,0.540954,0.108744,0.0065855,0.000409578,-0.0219242,-0.00656511,0.0164789,0.00811481,0.108045,-0.00180297,-0.000802101,0.0451939,0.00824613,-0.101156,-0.0665772,-0.688918,0.0037458,2.42772,-2.04555,1.9089,0.709903,3.31334,-0.79107,-0.00817933,0.227687,0.111604,0.146,-1.94502,0.534753,0.00298405,0.00809636,0.0142237,-0.0269718,0.00684957,0.0231212,0.12844,0.289967,0.000880642,0,0,0,0,0,0,0,0.309024,-35.8672,1.3141,25.2094,2.78015,-0.0302828,-0.0301054,
0.228377,0.0935184,0.140697,-1.92937,0.540954,0.108744,0.0065855,0.000408552,-0.0218664,-0.00655455,0.0163495,0.00802959,0.107163,-0.00179817,-0.000641681,0.0361551,0.0065969,-0.0809245,-0.0532618,-0.551134,0.00299664,2.42772,-2.04555,1.9089,0.709903,3.31334,-0.79107,-0.00817933,0.227687,0.111604,0.146,-1.94502,0.534753,0.00298405,0.00809636,0.0142237,-0.0269718,0.00684957,0.0231212,0.12844,0.289967,0.000880642,0,0,0,0,0,0,0,0.309024,-35.8672,1.3141,25.2094,2.78015,-0.0302828,-0.0301054,
0.228377,0.0935184,0.140697,-1.92937,0.540954,0.108744,0.0065855,0.00040773,-0.0218201,-0.00654611,0.0162459,0.00796142,0.106458,-0.00179434,-0.000513345,0.0289241,0.00527752,-0.0647396,-0.0426094,-0.440907,0.00239731,2.42576,-2.01573,1.91207,0.646188,3.30851,-0.837409,-0.00795077,0.228356,0.110672,0.146187,-1.94434,0.539292,0.0126211,0.00809242,0.0172907,-0.0157506,0.00275187,0.0221356,0.123497,0.265812,-0.000649721,0.383377,1.40265,-0.512212,-0.12319,-0.61795,-3.01931,-0.191295,0.360599,-36.4186,1.21095,24.3127,2.80487,0.141836,0.00376909,
0.228377,0.0935184,0.140697,-1.92937,0.540954,0.108744,0.0065855,0.000407073,-0.0217831,-0.00653935,0.016163,0.00790688,0.105893,-0.00179127,-0.000410676,0.0231393,0.00422202,-0.0517917,-0.0340875,-0.352726,0.00191785,2.42576,-2.01573,1.91207,0.646188,3.30851,-0.837409,-0.00795077,0.228356,0.110672,0.146187,-1.94434,0.539292,0.0126211,0.00809242,0.0172907,-0.0157506,0.00275187,0.0221356,0.123497,0.265812,-0.000649721,0,0,0,0,0,0,0,0.360599,-36.4186,1.21095,24.3127,2.80487,0.141836,0.00376909,
0.229048,0.0930533,0.140904,-1.92924,0.544937,0.115258,0.00659742,0.000406703,-0.0217044,-0.00652981,0.0160129,0.00779149,0.1049,-0.00178573,-0.000231569,0.0491489,0.00596184,-0.0938345,-0.0721183,-0.620666,0.00345873,2.42576,-2.01573,1.91207,0.646188,3.30851,-0.837409,-0.00795077,0.228356,0.110672,0.146187,-1.94434,0.539292,0.0126211,0.00809242,0.0172907,-0.0157506,0.00275187,0.0221356,0.123497,0.265812,-0.000649721,0,0,0,0,0,0,0,0.360599,-36.4186,1.21095,24.3127,2.80487,0.141836,0.00376909,
0.229048,0.0930533,0.140904,-1.92924,0.544937,0.115258,0.00659742,0.000406406,-0.0216415,-0.00652218,0.0158928,0.00769918,0.104106,-0.00178131,-0.000185255,0.0393191,0.00476947,-0.0750676,-0.0576946,-0.496533,0.00276698,2.42576,-2.01573,1.91207,0.646188,3.30851,-0.837409,-0.00795077,0.228356,0.110672,0.146187,-1.94434,0.539292,0.0126211,0.00809242,0.0172907,-0.0157506,0.00275187,0.0221356,0.123497,0.265812,-0.000649721,0,0,0,0,0,0,0,0.360599,-36.4186,1.21095,24.3127,2.80487,0.141836,0.00376909,
0.229048,0.0930533,0.140904,-1.92924,0.544937,0.115258,0.00659742,0.000406169,-0.0215912,-0.00651608,0.0157967,0.00762533,0.10347,-0.00177776,-0.000148204,0.0314553,0.00381558,-0.0600541,-0.0461557,-0.397226,0.00221358,2.42124,-2.00358,1.91613,0.590903,3.30384,-0.877585,-0.00770631,0.228994,0.109311,0.146333,-1.94408,0.54288,0.0210209,0.00809288,0.0211031,-0.0617654,0.00199279,0.00131212,0.101037,0.226147,8.8066e-05,0.476559,-5.75185,-0.0948857,-2.60294,-2.8075,-4.95817,0.0922233,0.285221,-36.367,1.23872,25.3085,3.32397,0.155569,-0.00996382,
0.229048,0.0930533,0.140904,-1.92924,0.544937,0.115258,0.00659742,0.000405979,-0.0215509,-0.00651119,0.0157198,0.00756625,0.102962,-0.00177493,-0.000118564,0.0251642,0.00305246,-0.0480433,-0.0369246,-0.317781,0.00177087,2.42124,-2.00358,1.91613,0.590903,3.30384,-0.877585,-0.00770631,0.228994,0.109311,0.146333,-1.94408,0.54288,0.0210209,0.00809288,0.0211031,-0.0617654,0.00199279,0.00131212,0.101037,0.226147,8.8066e-05,0,0,0,0,0,0,0,0.285221,-36.367,1.23872,25.3085,3.32397,0.155569,-0.00996382,
0.229809,0.0908841,0.141282,-1.92925,0.548034,0.120042,0.00661287,0.000405848,-0.0215745,-0.00647928,0.0155696,0.00742796,0.101992,-0.00176955,-8.24515e-05,-0.0147395,0.0199429,-0.0938623,-0.0864318,-0.606339,0.00336244,2.42124,-2.00358,1.91613,0.590903,3.30384,-0.877585,-0.00770631,0.228994,0.109311,0.146333,-1.94408,0.54288,0.0210209,0.00809288,0.0211031,-0.0617654,0.00199279,0.00131212,0.101037,0.226147,8.8066e-05,0,0,0,0,0,0,0,0.285221,-36.367,1.23872,25.3085,3.32397,0.155569,-0.00996382,
0.229809,0.0908841,0.141282,-1.92925,0.548034,0.120042,0.00661287,0.000405742,-0.0215934,-0.00645376,0.0154495,0.00731732,0.101216,-0.00176525,-6.59612e-05,-0.0117916,0.0159543,-0.0750898,-0.0691454,-0.485071,0.00268995,2.42124,-2.00358,1.91613,0.590903,3.30384,-0.877585,-0.00770631,0.228994,0.109311,0.146333,-1.94408,0.54288,0.0210209,0.00809288,0.0211031,-0.0617654,0.00199279,0.00131212,0.101037,0.226147,8.8066e-05,0,0,0,0,0,0,0,0.285221,-36.367,1.23872,25.3085,3.32397,0.155569,-0.00996382,
0.229809,0.0908841,0.141282,-1.92925,0.548034,0.120042,0.00661287,0.000405658,-0.0216085,-0.00643334,0.0153534,0.00722882,0.100595,-0.0017618,-5.27689e-05,-0.00943331,0.0127635,-0.0600719,-0.0553163,-0.388057,0.00215196,2.42124,-2.00358,1.91613,0.590903,3.30384,-0.877585,-0.00770631,0.228994,0.109311,0.146333,-1.94408,0.54288,0.0210209,0.00809288,0.0211031,-0.0617654,0.00199279,0.00131212,0.101037,0.226147,8.8066e-05,0,0,0,0,0,0,0,0.285221,-36.367,1.23872,25.3085,3.32397,0.155569,-0.00996382,
0.229809,0.0908841,0.141282,-1.92925,0.548034,0.120042,0.00661287,0.00040559,-0.0216205,-0.006417,0.0152765,0.00715801,0.100098,-0.00175905,-4.22151e-05,-0.00754665,0.0102108,-0.0480575,-0.0442531,-0.310445,0.00172157,2.41853,-1.99532,1.9215,0.540228,3.30142,-0.914513,-0.0075258,0.229656,0.108107,0.146436,-1.94384,0.546016,0.0283316,0.0080902,0.0169717,-0.0305846,0.00466174,0.0130805,0.0819744,0.20124,-0.00100648,-0.516431,3.89761,0.333618,1.47104,-2.3828,-3.11334,-0.136819,0.435978,-36.1171,1.41328,25.6815,3.43933,0.354239,0.017502,
0.230419,0.0903292,0.141356,-1.92954,0.550576,0.12504,0.00662142,0.000405693,-0.0216079,-0.00639693,0.0151552,0.00708781,0.0992937,-0.00175459,6.46581e-05,0.00791057,0.0125421,-0.0757839,-0.0438782,-0.502649,0.00278703,2.41853,-1.99532,1.9215,0.540228,3.30142,-0.914513,-0.0075258,0.229656,0.108107,0.146436,-1.94384,0.546016,0.0283316,0.0080902,0.0169717,-0.0305846,0.00466174,0.0130805,0.0819744,0.20124,-0.00100648,0,0,0,0,0,0,0,0.435978,-36.1171,1.41328,25.6815,3.43933,0.354239,0.017502,
0.230419,0.0903292,0.141356,-1.92954,0.550576,0.12504,0.00662142,0.000405776,-0.0215978,-0.00638088,0.0150582,0.00703164,0.0986503,-0.00175102,5.17265e-05,0.00632846,0.0100337,-0.0606271,-0.0351026,-0.402119,0.00222962,2.41853,-1.99532,1.9215,0.540228,3.30142,-0.914513,-0.0075258,0.229656,0.108107,0.146436,-1.94384,0.546016,0.0283316,0.0080902,0.0169717,-0.0305846,0.00466174,0.0130805,0.0819744,0.20124,-0.00100648,0,0,0,0,0,0,0,0.435978,-36.1171,1.41328,25.6815,3.43933,0.354239,0.017502,
0.230419,0.0903292,0.141356,-1.92954,0.550576,0.12504,0.00662142,0.000405842,-0.0215897,-0.00636803,0.0149806,0.00698671,0.0981356,-0.00174817,4.13812e-05,0.00506277,0.00802695,-0.0485017,-0.0280821,-0.321695,0.0017837,2.41853,-1.99532,1.9215,0.540228,3.30142,-0.914513,-0.0075258,0.229656,0.108107,0.146436,-1.94384,0.546016,0.0283316,0.0080902,0.0169717,-0.0305846,0.00466174,0.0130805,0.0819744,0.20124,-0.00100648,0,0,0,0,0,0,0,0.435978,-36.1171,1.41328,25.6815,3.43933,0.354239,0.017502,
0.230419,0.0903292,0.141356,-1.92954,0.550576,0.12504,0.00662142,0.000405895,-0.0215832,-0.00635776,0.0149185,0.00695077,0.0977238,-0.00174589,3.31049e-05,0.00405021,0.00642156,-0.0388014,-0.0224657,-0.257356,0.00142696,2.4205,-1.97361,1.92902,0.487974,3.29959,-0.950624,-0.007354,0.230229,0.107206,0.146521,-1.94354,0.549317,0.03591,0.00809215,0.0195631,-0.0177568,-0.000713987,0.0123479,0.0903991,0.21768,-0.00096001,0.323923,1.60347,-0.671965,-0.0915722,1.05309,2.055,0.0058091,0.539127,-36.7162,1.43709,24.6857,3.14636,0.135428,0.0303194,
0.230929,0.0898446,0.141403,-1.92964,0.553713,0.130689,0.00663704,0.000406131,-0.0215415,-0.00634361,0.0147995,0.00689196,0.0969355,-0.00174147,0.000147019,0.0260196,0.00884133,-0.0744287,-0.0367537,-0.492689,0.00276013,2.4205,-1.97361,1.92902,0.487974,3.29959,-0.950624,-0.007354,0.230229,0.107206,0.146521,-1.94354,0.549317,0.03591,0.00809215,0.0195631,-0.0177568,-0.000713987,0.0123479,0.0903991,0.21768,-0.00096001,0,0,0,0,0,0,0,0.539127,-36.7162,1.43709,24.6857,3.14636,0.135428,0.0303194,
0.230929,0.0898446,0.141403,-1.92964,0.553713,0.130689,0.00663704,0.000406319,-0.0215082,-0.0063323,0.0147042,0.00684492,0.0963048,-0.00173794,0.000117616,0.0208157,0.00707306,-0.059543,-0.0294029,-0.394151,0.0022081,2.4205,-1.97361,1.92902,0.487974,3.29959,-0.950624,-0.007354,0.230229,0.107206,0.146521,-1.94354,0.549317,0.03591,0.00809215,0.0195631,-0.0177568,-0.000713987,0.0123479,0.0903991,0.21768,-0.00096001,0,0,0,0,0,0,0,0.539127,-36.7162,1.43709,24.6857,3.14636,0.135428,0.0303194,
0.230929,0.0898446,0.141403,-1.92964,0.553713,0.130689,0.00663704,0.000406469,-0.0214816,-0.00632324,0.014628,0.00680728,0.0958003,-0.00173511,9.40925e-05,0.0166526,0.00565845,-0.0476344,-0.0235224,-0.315321,0.00176648,2.4205,-1.97361,1.92902,0.487974,3.29959,-0.950624,-0.007354,0.230229,0.107206,0.146521,-1.94354,0.549317,0.03591,0.00809215,0.0195631,-0.0177568,-0.000713987,0.0123479,0.0903991,0.21768,-0.00096001,0,0,0,0,0,0,0,0.539127,-36.7162,1.43709,24.6857,3.14636,0.135428,0.0303194,
0.230929,0.0898446,0.141403,-1.92964,0.553713,0.130689,0.00663704,0.00040659,-0.0214603,-0.006316,0.014567,0.00677717,0.0953967,-0.00173285,7.5274e-05,0.0133221,0.00452676,-0.0381075,-0.0188179,-0.252257,0.00141319,2.41987,-1.95654,1.93528,0.437387,3.29576,-0.98466,-0.00716312,0.230877,0.106118,0.146565,-1.94339,0.552903,0.0433758,0.00809147,0.0166562,-0.0501263,0.00373473,0.0030128,0.0957043,0.205451,8.34009e-05,-0.363363,-4.04618,0.55609,-1.16689,0.663152,-1.52861,0.130426,0.765262,-36.2441,1.68703,25.3085,3.0484,0.301138,0.00376909,
0.231648,0.0881454,0.14161,-1.92965,0.557276,0.135522,0.00664916,0.00040674,-0.0214733,-0.00628801,0.0144356,0.00665579,0.0945709,-0.00172814,9.36724e-05,-0.00811889,0.0174926,-0.0821236,-0.0758618,-0.516121,0.00294363,2.41987,-1.95654,1.93528,0.437387,3.29576,-0.98466,-0.00716312,0.230877,0.106118,0.146565,-1.94339,0.552903,0.0433758,0.00809147,0.0166562,-0.0501263,0.00373473,0.0030128,0.0957043,0.205451,8.34009e-05,0,0,0,0,0,0,0,0.765262,-36.2441,1.68703,25.3085,3.0484,0.301138,0.00376909,
0.231648,0.0881454,0.14161,-1.92965,0.557276,0.135522,0.00664916,0.00040686,-0.0214837,-0.00626562,0.0143305,0.00655869,0.0939103,-0.00172437,7.49379e-05,-0.00649512,0.0139941,-0.0656989,-0.0606895,-0.412897,0.0023549,2.41987,-1.95654,1.93528,0.437387,3.29576,-0.98466,-0.00716312,0.230877,0.106118,0.146565,-1.94339,0.552903,0.0433758,0.00809147,0.0166562,-0.0501263,0.00373473,0.0030128,0.0957043,0.205451,8.34009e-05,0,0,0,0,0,0,0,0.765262,-36.2441,1.68703,25.3085,3.0484,0.301138,0.00376909,
0.231648,0.0881454,0.14161,-1.92965,0.557276,0.135522,0.00664916,0.000406955,-0.021492,-0.00624771,0.0142464,0.00648101,0.0933818,-0.00172136,5.99503e-05,-0.00519609,0.0111952,-0.0525591,-0.0485516,-0.330317,0.00188392,2.41987,-1.95654,1.93528,0.437387,3.29576,-0.98466,-0.00716312,0.230877,0.106118,0.146565,-1.94339,0.552903,0.0433758,0.00809147,0.0166562,-0.0501263,0.00373473,0.0030128,0.0957043,0.205451,8.34009e-05,0,0,0,0,0,0,0,0.765262,-36.2441,1.68703,25.3085,3.0484,0.301138,0.00376909,
0.231648,0.0881454,0.14161,-1.92965,0.557276,0.135522,0.00664916,0.000407032,-0.0214986,-0.00623338,0.0141791,0.00641886,0.092959,-0.00171895,4.79603e-05,-0.00415687,0.00895619,-0.0420473,-0.0388413,-0.264254,0.00150714,2.42099,-1.93778,1.94123,0.389326,3.29309,-1.01758,-0.00702809,0.231461,0.105319,0.146667,-1.94317,0.556722,0.0505241,0.0080943,0.0195186,-0.00535252,0.00349636,0.0180999,0.118166,0.204234,0.000336738,0.357803,5.59672,-0.029797,1.88589,2.80773,-0.152182,0.0316671,0.360599,-36.367,1.28633,25.3839,2.89642,0.413748,-0.0227812,
0.232244,0.0883136,0.141707,-1.92995,0.561022,0.141012,0.00666253,0.000407256,-0.0214405,-0.00622595,0.014069,0.00632541,0.0922812,-0.00171492,0.000139728,0.0363443,0.00464638,-0.0688199,-0.0584067,-0.423636,0.002515,2.42099,-1.93778,1.94123,0.389326,3.29309,-1.01758,-0.00702809,0.231461,0.105319,0.146667,-1.94317,0.556722,0.0505241,0.0080943,0.0195186,-0.00535252,0.00349636,0.0180999,0.118166,0.204234,0.000336738,0,0,0,0,0,0,0,0.360599,-36.367,1.28633,25.3839,2.89642,0.413748,-0.0227812,
0.232244,0.0883136,0.141707,-1.92995,0.561022,0.141012,0.00666253,0.000407435,-0.021394,-0.00622,0.0139809,0.00625065,0.0917389,-0.0017117,0.000111782,0.0290755,0.0037171,-0.0550559,-0.0467253,-0.338909,0.002012,2.42099,-1.93778,1.94123,0.389326,3.29309,-1.01758,-0.00702809,0.231461,0.105319,0.146667,-1.94317,0.556722,0.0505241,0.0080943,0.0195186,-0.00535252,0.00349636,0.0180999,0.118166,0.204234,0.000336738,0,0,0,0,0,0,0,0.360599,-36.367,1.28633,25.3839,2.89642,0.413748,-0.0227812,
0.232244,0.0883136,0.141707,-1.92995,0.561022,0.141012,0.00666253,0.000407578,-0.0213567,-0.00621524,0.0139104,0.00619084,0.0913051,-0.00170913,8.94257e-05,0.0232604,0.00297368,-0.0440447,-0.0373803,-0.271127,0.0016096,2.42099,-1.93778,1.94123,0.389326,3.29309,-1.01758,-0.00702809,0.231461,0.105319,0.146667,-1.94317,0.556722,0.0505241,0.0080943,0.0195186,-0.00535252,0.00349636,0.0180999,0.118166,0.204234,0.000336738,0,0,0,0,0,0,0,0.360599,-36.367,1.28633,25.3839,2.89642,0.413748,-0.0227812,
0.232244,0.0883136,0.141707,-1.92995,0.561022,0.141012,0.00666253,0.000407692,-0.021327,-0.00621143,0.0138541,0.006143,0.0909581,-0.00170707,7.15406e-05,0.0186083,0.00237895,-0.0352358,-0.0299042,-0.216902,0.00128768,2.42041,-1.91681,1.94431,0.344536,3.28906,-1.04729,-0.00686306,0.232129,0.104623,0.146839,-1.94294,0.560534,0.0573593,0.00809359,0.0205745,-0.026248,0.00641323,0.00298526,0.122305,0.188969,0.000725131,0.131987,-2.61194,0.36461,-1.88933,0.517357,-1.90815,0.0485491,0.590702,-36.4186,1.41328,24.4357,2.86529,0.23522,-0.0163725,
0.232244,0.0883136,0.141707,-1.92995,0.561022,0.141012,0.00666253,0.000407784,-0.0213031,-0.00620839,0.013809,0.00610472,0.0906804,-0.00170542,5.72325e-05,0.0148866,0.00190316,-0.0281886,-0.0239234,-0.173521,0.00103015,2.42041,-1.91681,1.94431,0.344536,3.28906,-1.04729,-0.00686306,0.232129,0.104623,0.146839,-1.94294,0.560534,0.0573593,0.00809359,0.0205745,-0.026248,0.00641323,0.00298526,0.122305,0.188969,0.000725131,0,0,0,0,0,0,0,0.590702,-36.4186,1.41328,24.4357,2.86529,0.23522,-0.0163725,
0.232244,0.0883136,0.141707,-1.92995,0.561022,0.141012,0.00666253,0.000407857,-0.0212841,-0.00620595,0.0137729,0.0060741,0.0904583,-0.0017041,4.5786e-05,0.0119093,0.00152253,-0.0225509,-0.0191387,-0.138817,0.000824116,2.42041,-1.91681,1.94431,0.344536,3.28906,-1.04729,-0.00686306,0.232129,0.104623,0.146839,-1.94294,0.560534,0.0573593,0.00809359,0.0205745,-0.026248,0.00641323,0.00298526,0.122305,0.188969,0.000725131,0,0,0,0,0,0,0,0.590702,-36.4186,1.41328,24.4357,2.86529,0.23522,-0.0163725,
0.232244,0.0883136,0.141707,-1.92995,0.561022,0.141012,0.00666253,0.000407916,-0.0212688,-0.006204,0.013744,0.0060496,0.0902806,-0.00170304,3.66288e-05,0.00952745,0.00121802,-0.0180407,-0.015311,-0.111054,0.000659293,2.42041,-1.91681,1.94431,0.344536,3.28906,-1.04729,-0.00686306,0.232129,0.104623,0.146839,-1.94294,0.560534,0.0573593,0.00809359,0.0205745,-0.026248,0.00641323,0.00298526,0.122305,0.188969,0.000725131,0,0,0,0,0,0,0,0.590702,-36.4186,1.41328,24.4357,2.86529,0.23522,-0.0163725,
0.233023,0.0873899,0.142032,-1.93,0.56462,0.145475,0.00667331,0.000408023,-0.0212556,-0.00619198,0.0136545,0.00594159,0.0897552,-0.00169987,6.68209e-05,0.00830261,0.00751486,-0.0559514,-0.0675026,-0.328391,0.00198443,2.41892,-1.90583,1.94836,0.302896,3.28462,-1.07425,-0.00670051,0.232834,0.103723,0.146941,-1.94287,0.564259,0.0633922,0.00809135,0.0184287,-0.0313966,0.00602777,-0.00192542,0.103669,0.177474,0.000279669,-0.268221,-0.643578,-0.0481829,-0.613835,-2.32954,-1.43676,-0.0556827,0.309024,-36.3194,1.26253,25.8084,2.94494,0.639883,0.00376909,
0.233023,0.0873899,0.142032,-1.93,0.56462,0.145475,0.00667331,0.000408108,-0.0212449,-0.00618236,0.0135829,0.00585519,0.0893349,-0.00169733,5.34568e-05,0.00664209,0.00601189,-0.0447611,-0.054002,-0.262712,0.00158754,2.41892,-1.90583,1.94836,0.302896,3.28462,-1.07425,-0.00670051,0.232834,0.103723,0.146941,-1.94287,0.564259,0.0633922,0.00809135,0.0184287,-0.0313966,0.00602777,-0.00192542,0.103669,0.177474,0.000279669,0,0,0,0,0,0,0,0.309024,-36.3194,1.26253,25.8084,2.94494,0.639883,0.00376909,
0.233023,0.0873899,0.142032,-1.93,0.56462,0.145475,0.00667331,0.000408176,-0.0212364,-0.00617467,0.0135256,0.00578607,0.0889986,-0.0016953,4.27654e-05,0.00531367,0.00480951,-0.0358089,-0.0432016,-0.21017,0.00127003,2.41892,-1.90583,1.94836,0.302896,3.28462,-1.07425,-0.00670051,0.232834,0.103723,0.146941,-1.94287,0.564259,0.0633922,0.00809135,0.0184287,-0.0313966,0.00602777,-0.00192542,0.103669,0.177474,0.000279669,0,0,0,0,0,0,0,0.309024,-36.3194,1.26253,25.8084,2.94494,0.639883,0.00376909,
0.233023,0.0873899,0.142032,-1.93,0.56462,0.145475,0.00667331,0.000408231,-0.0212296,-0.00616851,0.0134797,0.00573077,0.0887296,-0.00169367,3.42123e-05,0.00425093,0.00384761,-0.0286471,-0.0345613,-0.168136,0.00101603,2.41892,-1.90583,1.94836,0.302896,3.28462,-1.07425,-0.00670051,0.232834,0.103723,0.146941,-1.94287,0.564259,0.0633922,0.00809135,0.0184287,-0.0313966,0.00602777,-0.00192542,0.103669,0.177474,0.000279669,0,0,0,0,0,0,0,0.309024,-36.3194,1.26253,25.8084,2.94494,0.639883,0.00376909,
0.233692,0.086492,0.142143,-1.93023,0.567726,0.149612,0.00668171,0.000408353,-0.0212257,-0.00615207,0.0133844,0.00562458,0.0881682,-0.00169029,7.59799e-05,0.00242651,0.0102727,-0.0595597,-0.0663661,-0.350864,0.00211433,2.41892,-1.90583,1.94836,0.302896,3.28462,-1.07425,-0.00670051,0.232834,0.103723,0.146941,-1.94287,0.564259,0.0633922,0.00809135,0.0184287,-0.0313966,0.00602777,-0.00192542,0.103669,0.177474,0.000279669,0,0,0,0,0,0,0,0.309024,-36.3194,1.26253,25.8084,2.94494,0.639883,0.00376909,
0.233692,0.086492,0.142143,-1.93023,0.567726,0.149612,0.00668171,0.00040845,-0.0212226,-0.00613892,0.0133082,0.00553964,0.0877191,-0.00168758,6.07839e-05,0.00194121,0.00821815,-0.0476478,-0.0530928,-0.280691,0.00169147,2.41785,-1.88931,1.95067,0.266073,3.28171,-1.09859,-0.00657462,0.233593,0.103158,0.147013,-1.94269,0.567496,0.0689291,0.00809466,0.0194629,-0.00516899,0.00562393,0.00875585,0.0990763,0.169476,0.00158349,0.129276,3.27846,-0.0504803,1.33516,-0.574044,-0.999777,0.162978,0.689884,-36.6686,1.51246,25.1102,2.99347,0.421072,-0.0227812,
0.233692,0.086492,0.142143,-1.93023,0.567726,0.149612,0.00668171,0.000408528,-0.0212202,-0.00612841,0.0132472,0.00547168,0.0873598,-0.00168542,4.86271e-05,0.00155297,0.00657452,-0.0381182,-0.0424743,-0.224553,0.00135317,2.41785,-1.88931,1.95067,0.266073,3.28171,-1.09859,-0.00657462,0.233593,0.103158,0.147013,-1.94269,0.567496,0.0689291,0.00809466,0.0194629,-0.00516899,0.00562393,0.00875585,0.0990763,0.169476,0.00158349,0,0,0,0,0,0,0,0.689884,-36.6686,1.51246,25.1102,2.99347,0.421072,-0.0227812,
0.233692,0.086492,0.142143,-1.93023,0.567726,0.149612,0.00668171,0.00040859,-0.0212182,-0.00611999,0.0131984,0.00541731,0.0870724,-0.00168369,3.89017e-05,0.00124237,0.00525962,-0.0304946,-0.0339794,-0.179642,0.00108254,2.41785,-1.88931,1.95067,0.266073,3.28171,-1.09859,-0.00657462,0.233593,0.103158,0.147013,-1.94269,0.567496,0.0689291,0.00809466,0.0194629,-0.00516899,0.00562393,0.00875585,0.0990763,0.169476,0.00158349,0,0,0,0,0,0,0,0.689884,-36.6686,1.51246,25.1102,2.99347,0.421072,-0.0227812,
0.234432,0.0865353,0.142189,-1.93043,0.570603,0.153774,0.00669339,0.000408784,-0.0211717,-0.00611486,0.0131151,0.00534386,0.0865799,-0.00168067,0.000121157,0.0290705,0.00320434,-0.0521006,-0.0459072,-0.307778,0.00188488,2.41785,-1.88931,1.95067,0.266073,3.28171,-1.09859,-0.00657462,0.233593,0.103158,0.147013,-1.94269,0.567496,0.0689291,0.00809466,0.0194629,-0.00516899,0.00562393,0.00875585,0.0990763,0.169476,0.00158349,0,0,0,0,0,0,0,0.689884,-36.6686,1.51246,25.1102,2.99347,0.421072,-0.0227812,
0.234432,0.0865353,0.142189,-1.93043,0.570603,0.153774,0.00669339,0.000408939,-0.0211344,-0.00611076,0.0130484,0.0052851,0.086186,-0.00167826,9.69259e-05,0.0232564,0.00256347,-0.0416805,-0.0367257,-0.246223,0.0015079,2.419,-1.87826,1.95689,0.228077,3.27867,-1.12294,-0.00643987,0.234385,0.102342,0.147074,-1.94271,0.570905,0.0745554,0.00809595,0.0175467,-0.0305011,0.00262553,-0.00779832,0.110742,0.1584,0.00144645,-0.239532,-3.16651,-0.374799,-2.06927,1.45821,-1.38447,-0.0171297,0.487552,-36.4424,1.46089,25.6061,3.05481,0.546499,-0.0365141,
0.234432,0.0865353,0.142189,-1.93043,0.570603,0.153774,0.00669339,0.000409063,-0.0211047,-0.00610748,0.012995,0.00523809,0.0858708,-0.00167633,7.75407e-05,0.0186051,0.00205078,-0.0333444,-0.0293806,-0.196978,0.00120632,2.419,-1.87826,1.95689,0.228077,3.27867,-1.12294,-0.00643987,0.234385,0.102342,0.147074,-1.94271,0.570905,0.0745554,0.00809595,0.0175467,-0.0305011,0.00262553,-0.00779832,0.110742,0.1584,0.00144645,0,0,0,0,0,0,0,0.487552,-36.4424,1.46089,25.6061,3.05481,0.546499,-0.0365141,
0.234432,0.0865353,0.142189,-1.93043,0.570603,0.153774,0.00669339,0.000409162,-0.0210809,-0.00610486,0.0129523,0.00520048,0.0856187,-0.00167478,6.20326e-05,0.0148841,0.00164062,-0.0266755,-0.0235045,-0.157583,0.000965059,2.419,-1.87826,1.95689,0.228077,3.27867,-1.12294,-0.00643987,0.234385,0.102342,0.147074,-1.94271,0.570905,0.0745554,0.00809595,0.0175467,-0.0305011,0.00262553,-0.00779832,0.110742,0.1584,0.00144645,0,0,0,0,0,0,0,0.487552,-36.4424,1.46089,25.6061,3.05481,0.546499,-0.0365141,
0.235219,0.085336,0.142313,-1.93063,0.573873,0.157497,0.00670679,0.000409274,-0.0210815,-0.00608702,0.0128583,0.00508615,0.0850824,-0.00167148,6.97179e-05,-0.000410469,0.0111444,-0.0587984,-0.0714599,-0.335174,0.00206306,2.419,-1.87826,1.95689,0.228077,3.27867,-1.12294,-0.00643987,0.234385,0.102342,0.147074,-1.94271,0.570905,0.0745554,0.00809595,0.0175467,-0.0305011,0.00262553,-0.00779832,0.110742,0.1584,0.00144645,0,0,0,0,0,0,0,0.487552,-36.4424,1.46089,25.6061,3.05481,0.546499,-0.0365141,
0.235219,0.085336,0.142313,-1.93063,0.573873,0.157497,0.00670679,0.000409363,-0.021082,-0.00607276,0.012783,0.00499468,0.0846534,-0.00166884,5.57743e-05,-0.000328375,0.00891552,-0.0470387,-0.0571679,-0.268139,0.00165045,2.41779,-1.86744,1.95994,0.192574,3.27534,-1.14548,-0.00631707,0.235114,0.101633,0.1472,-1.94266,0.574162,0.0797737,0.00809941,0.0233878,-0.0116856,-0.000358695,0.00266116,0.108332,0.146624,0.00137261,0.730142,2.35193,-0.373029,1.30744,-0.301304,-1.47207,-0.00923017,0.638309,-36.7677,1.41328,25.8322,3.11615,0.552908,-0.0301054,
0.235219,0.085336,0.142313,-1.93063,0.573873,0.157497,0.00670679,0.000409435,-0.0210825,-0.00606135,0.0127228,0.0049215,0.0843102,-0.00166673,4.46194e-05,-0.0002627,0.00713242,-0.037631,-0.0457343,-0.214511,0.00132036,2.41779,-1.86744,1.95994,0.192574,3.27534,-1.14548,-0.00631707,0.235114,0.101633,0.1472,-1.94266,0.574162,0.0797737,0.00809941,0.0233878,-0.0116856,-0.000358695,0.00266116,0.108332,0.146624,0.00137261,0,0,0,0,0,0,0,0.638309,-36.7677,1.41328,25.8322,3.11615,0.552908,-0.0301054,
0.235219,0.085336,0.142313,-1.93063,0.573873,0.157497,0.00670679,0.000409492,-0.0210828,-0.00605222,0.0126746,0.00486296,0.0840356,-0.00166504,3.56955e-05,-0.00021016,0.00570594,-0.0301048,-0.0365875,-0.171609,0.00105629,2.41779,-1.86744,1.95994,0.192574,3.27534,-1.14548,-0.00631707,0.235114,0.101633,0.1472,-1.94266,0.574162,0.0797737,0.00809941,0.0233878,-0.0116856,-0.000358695,0.00266116,0.108332,0.146624,0.00137261,0,0,0,0,0,0,0,0.638309,-36.7677,1.41328,25.8322,3.11615,0.552908,-0.0301054,
0.235979,0.0850061,0.142479,-1.93091,0.576851,0.161316,0.00671718,0.000409629,-0.0210622,-0.00604177,0.0125903,0.00476984,0.0835594,-0.00166206,8.57861e-05,0.0128924,0.00652942,-0.0527013,-0.0582009,-0.297635,0.00186427,2.41779,-1.86744,1.95994,0.192574,3.27534,-1.14548,-0.00631707,0.235114,0.101633,0.1472,-1.94266,0.574162,0.0797737,0.00809941,0.0233878,-0.0116856,-0.000358695,0.00266116,0.108332,0.146624,0.00137261,0,0,0,0,0,0,0,0.638309,-36.7677,1.41328,25.8322,3.11615,0.552908,-0.0301054,
0.235979,0.0850061,0.142479,-1.93091,0.576851,0.161316,0.00671718,0.000409739,-0.0210457,-0.00603341,0.0125229,0.00469534,0.0831784,-0.00165967,6.86288e-05,0.0103139,0.00522354,-0.0421611,-0.0465607,-0.238108,0.00149142,2.41809,-1.85633,1.9642,0.157893,3.27187,-1.16666,-0.00619369,0.235853,0.10095,0.147333,-1.94265,0.577544,0.0847973,0.00809327,0.013091,-0.020159,0.0044791,-0.00209378,0.10814,0.14281,0.00114873,-1.2871,-1.05917,0.604724,-0.594368,-0.0239121,-0.476745,-0.0279851,0.590702,-36.9423,1.51246,25.6339,2.99347,0.533682,-0.00996382,
0.235979,0.0850061,0.142479,-1.93091,0.576851,0.161316,0.00671718,0.000409827,-0.0210325,-0.00602673,0.0124689,0.00463575,0.0828736,-0.00165776,5.49031e-05,0.00825112,0.00417883,-0.0337289,-0.0372485,-0.190486,0.00119313,2.41809,-1.85633,1.9642,0.157893,3.27187,-1.16666,-0.00619369,0.235853,0.10095,0.147333,-1.94265,0.577544,0.0847973,0.00809327,0.013091,-0.020159,0.0044791,-0.00209378,0.10814,0.14281,0.00114873,0,0,0,0,0,0,0,0.590702,-36.9423,1.51246,25.6339,2.99347,0.533682,-0.00996382,
0.236647,0.0842325,0.142587,-1.93109,0.579936,0.16494,0.00672094,0.000409964,-0.021022,-0.00601156,0.0123735,0.00452224,0.0823421,-0.00165442,8.56081e-05,0.00654692,0.00948194,-0.0596032,-0.070939,-0.332213,0.002089,2.41809,-1.85633,1.9642,0.157893,3.27187,-1.16666,-0.00619369,0.235853,0.10095,0.147333,-1.94265,0.577544,0.0847973,0.00809327,0.013091,-0.020159,0.0044791,-0.00209378,0.10814,0.14281,0.00114873,0,0,0,0,0,0,0,0.590702,-36.9423,1.51246,25.6339,2.99347,0.533682,-0.00996382,
0.236647,0.0842325,0.142587,-1.93109,0.579936,0.16494,0.00672094,0.000410073,-0.0210136,-0.00599942,0.0122972,0.00443144,0.0819168,-0.00165174,6.84865e-05,0.00523753,0.00758555,-0.0476826,-0.0567512,-0.265771,0.0016712,2.41809,-1.85633,1.9642,0.157893,3.27187,-1.16666,-0.00619369,0.235853,0.10095,0.147333,-1.94265,0.577544,0.0847973,0.00809327,0.013091,-0.020159,0.0044791,-0.00209378,0.10814,0.14281,0.00114873,0,0,0,0,0,0,0,0.590702,-36.9423,1.51246,25.6339,2.99347,0.533682,-0.00996382,
0.236647,0.0842325,0.142587,-1.93109,0.579936,0.16494,0.00672094,0.000410161,-0.0210069,-0.00598971,0.0122362,0.0043588,0.0815767,-0.0016496,5.47892e-05,0.00419003,0.00606844,-0.0381461,-0.045401,-0.212617,0.00133696,2.41692,-1.84911,1.96765,0.124749,3.26804,-1.18679,-0.00607074,0.236591,0.100188,0.147464,-1.94267,0.580802,0.0895719,0.00809458,0.0210912,-0.0193915,0.000934608,-0.00241214,0.0969203,0.135648,-0.000218591,1.00002,0.0959313,-0.443061,-0.0397959,-1.40249,-0.895239,-0.170915,0.336795,-36.5694,1.3379,25.9552,3.0484,0.692984,0.00376909,
0.236647,0.0842325,0.142587,-1.93109,0.579936,0.16494,0.00672094,0.000410231,-0.0210015,-0.00598194,0.0121874,0.00430069,0.0813045,-0.00164789,4.38314e-05,0.00335202,0.00485475,-0.0305169,-0.0363208,-0.170093,0.00106957,2.41692,-1.84911,1.96765,0.124749,3.26804,-1.18679,-0.00607074,0.236591,0.100188,0.147464,-1.94267,0.580802,0.0895719,0.00809458,0.0210912,-0.0193915,0.000934608,-0.00241214,0.0969203,0.135648,-0.000218591,0,0,0,0,0,0,0,0.336795,-36.5694,1.3379,25.9552,3.0484,0.692984,0.00376909,
0.237448,0.0835163,0.142809,-1.93136,0.582799,0.168289,0.00672836,0.000410337,-0.0210008,-0.00596719,0.0121017,0.00419667,0.0808329,-0.0016449,6.63693e-05,0.000486875,0.00921962,-0.0535682,-0.0650108,-0.294781,0.00186869,2.41692,-1.84911,1.96765,0.124749,3.26804,-1.18679,-0.00607074,0.236591,0.100188,0.147464,-1.94267,0.580802,0.0895719,0.00809458,0.0210912,-0.0193915,0.000934608,-0.00241214,0.0969203,0.135648,-0.000218591,0,0,0,0,0,0,0,0.336795,-36.5694,1.3379,25.9552,3.0484,0.692984,0.00376909,
0.237448,0.0835163,0.142809,-1.93136,0.582799,0.168289,0.00672836,0.000410422,-0.0210001,-0.00595539,0.0120331,0.00411346,0.0804555,-0.00164251,5.30955e-05,0.0003895,0.00737569,-0.0428545,-0.0520086,-0.235824,0.00149496,2.41692,-1.84911,1.96765,0.124749,3.26804,-1.18679,-0.00607074,0.236591,0.100188,0.147464,-1.94267,0.580802,0.0895719,0.00809458,0.0210912,-0.0193915,0.000934608,-0.00241214,0.0969203,0.135648,-0.000218591,0,0,0,0,0,0,0,0.336795,-36.5694,1.3379,25.9552,3.0484,0.692984,0.00376909,
0.237448,0.0835163,0.142809,-1.93136,0.582799,0.168289,0.00672836,0.00041049,-0.0209996,-0.00594595,0.0119782,0.00404688,0.0801537,-0.0016406,4.24764e-05,0.0003116,0.00590056,-0.0342836,-0.0416069,-0.18866,0.00119596,2.41651,-1.83918,1.97102,0.0915942,3.26488,-1.2068,-0.00595319,0.237327,0.0995198,0.147658,-1.94265,0.583934,0.0943554,0.0080934,0.0265866,-0.0141558,-0.00399664,0.00408658,0.0927247,0.135323,6.60906e-05,0.686928,0.654462,-0.616406,0.81234,-0.524459,-0.0406786,0.0355852,0.435978,-36.7677,1.3379,25.7806,3.07312,0.579458,0.0239107,
0.237448,0.0835163,0.142809,-1.93136,0.582799,0.168289,0.00672836,0.000410544,-0.0209992,-0.0059384,0.0119344,0.00399363,0.0799122,-0.00163907,3.39811e-05,0.00024928,0.00472044,-0.0274269,-0.0332855,-0.150928,0.000956772,2.41651,-1.83918,1.97102,0.0915942,3.26488,-1.2068,-0.00595319,0.237327,0.0995198,0.147658,-1.94265,0.583934,0.0943554,0.0080934,0.0265866,-0.0141558,-0.00399664,0.00408658,0.0927247,0.135323,6.60906e-05,0,0,0,0,0,0,0,0.435978,-36.7677,1.3379,25.7806,3.07312,0.579458,0.0239107,
0.238178,0.0829461,0.14302,-1.93156,0.585696,0.171889,0.00673422,0.000410677,-0.0209916,-0.0059258,0.0118512,0.00390167,0.0794524,-0.00163615,8.31607e-05,0.00479084,0.00787067,-0.0519824,-0.0574741,-0.287349,0.00182096,2.41651,-1.83918,1.97102,0.0915942,3.26488,-1.2068,-0.00595319,0.237327,0.0995198,0.147658,-1.94265,0.583934,0.0943554,0.0080934,0.0265866,-0.0141558,-0.00399664,0.00408658,0.0927247,0.135323,6.60906e-05,0,0,0,0,0,0,0,0.435978,-36.7677,1.3379,25.7806,3.07312,0.579458,0.0239107,
0.238178,0.0829461,0.14302,-1.93156,0.585696,0.171889,0.00673422,0.000410784,-0.0209854,-0.00591573,0.0117846,0.0038281,0.0790846,-0.00163382,6.65286e-05,0.00383268,0.00629654,-0.0415859,-0.0459793,-0.229879,0.00145676,2.41651,-1.83918,1.97102,0.0915942,3.26488,-1.2068,-0.00595319,0.237327,0.0995198,0.147658,-1.94265,0.583934,0.0943554,0.0080934,0.0265866,-0.0141558,-0.00399664,0.00408658,0.0927247,0.135323,6.60906e-05,0,0,0,0,0,0,0,0.435978,-36.7677,1.3379,25.7806,3.07312,0.579458,0.0239107,
0.238178,0.0829461,0.14302,-1.93156,0.585696,0.171889,0.00673422,0.000410869,-0.0209805,-0.00590767,0.0117314,0.00376925,0.0787904,-0.00163196,5.32228e-05,0.00306614,0.00503723,-0.0332687,-0.0367834,-0.183903,0.00116541,2.41613,-1.83574,1.97551,0.0606416,3.26063,-1.22481,-0.00584674,0.238054,0.0987195,0.147806,-1.94266,0.587378,0.0986639,0.00809304,0.0155395,-0.024851,0.00790317,-0.00480263,0.0985647,0.11775,-0.000158801,-1.38088,-1.33689,1.48748,-1.11115,0.73,-2.19659,-0.0281115,0.435978,-36.8153,1.41328,25.7806,3.09143,0.606009,0.017502,
0.238178,0.0829461,0.14302,-1.93156,0.585696,0.171889,0.00673422,0.000410937,-0.0209766,-0.00590122,0.0116888,0.00372217,0.078555,-0.00163047,4.25783e-05,0.00245291,0.00402978,-0.026615,-0.0294267,-0.147122,0.000932329,2.41613,-1.83574,1.97551,0.0606416,3.26063,-1.22481,-0.00584674,0.238054,0.0987195,0.147806,-1.94266,0.587378,0.0986639,0.00809304,0.0155395,-0.024851,0.00790317,-0.00480263,0.0985647,0.11775,-0.000158801,0,0,0,0,0,0,0,0.435978,-36.8153,1.41328,25.7806,3.09143,0.606009,0.017502,
0.238958,0.0819682,0.14327,-1.93178,0.588876,0.17468,0.0067418,0.000410965,-0.0209944,-0.00588405,0.0116081,0.00359139,0.0781429,-0.00162774,1.72497e-05,-0.0110869,0.0107301,-0.0504643,-0.0817382,-0.257566,0.00170515,2.41613,-1.83574,1.97551,0.0606416,3.26063,-1.22481,-0.00584674,0.238054,0.0987195,0.147806,-1.94266,0.587378,0.0986639,0.00809304,0.0155395,-0.024851,0.00790317,-0.00480263,0.0985647,0.11775,-0.000158801,0,0,0,0,0,0,0,0.435978,-36.8153,1.41328,25.7806,3.09143,0.606009,0.017502,
0.238958,0.0819682,0.14327,-1.93178,0.588876,0.17468,0.0067418,0.000410987,-0.0210085,-0.00587032,0.0115435,0.00348676,0.0778132,-0.00162556,1.37997e-05,-0.00886953,0.00858408,-0.0403715,-0.0653906,-0.206053,0.00136412,2.41613,-1.83574,1.97551,0.0606416,3.26063,-1.22481,-0.00584674,0.238054,0.0987195,0.147806,-1.94266,0.587378,0.0986639,0.00809304,0.0155395,-0.024851,0.00790317,-0.00480263,0.0985647,0.11775,-0.000158801,0,0,0,0,0,0,0,0.435978,-36.8153,1.41328,25.7806,3.09143,0.606009,0.017502,
0.238958,0.0819682,0.14327,-1.93178,0.588876,0.17468,0.0067418,0.000411005,-0.0210199,-0.00585933,0.0114918,0.00340306,0.0775495,-0.00162381,1.10398e-05,-0.00709562,0.00686726,-0.0322972,-0.0523125,-0.164842,0.0010913,2.41613,-1.83574,1.97551,0.0606416,3.26063,-1.22481,-0.00584674,0.238054,0.0987195,0.147806,-1.94266,0.587378,0.0986639,0.00809304,0.0155395,-0.024851,0.00790317,-0.00480263,0.0985647,0.11775,-0.000158801,0,0,0,0,0,0,0,0.435978,-36.8153,1.41328,25.7806,3.09143,0.606009,0.017502,
0.239531,0.0814597,0.143355,-1.93195,0.591737,0.177767,0.00674963,0.000411079,-0.0210217,-0.00584429,0.0114082,0.00327797,0.0771221,-0.00162097,4.66308e-05,-0.00112739,0.0093997,-0.052274,-0.0781808,-0.267075,0.00177548,2.41634,-1.83078,1.97993,0.0311782,3.25664,-1.24113,-0.00575053,0.238712,0.0980144,0.14795,-1.94264,0.590532,0.102522,0.00809395,0.0179651,-0.0124396,0.00122027,0.00555181,0.0986463,0.120239,-0.000204577,0.303197,1.55142,-0.835363,1.2943,0.0102004,0.31113,-0.00572197,0.463749,-36.4186,1.23872,25.4315,3.17108,0.672842,-0.0163725,
0.239531,0.0814597,0.143355,-1.93195,0.591737,0.177767,0.00674963,0.000411139,-0.0210231,-0.00583226,0.0113413,0.0031779,0.0767803,-0.0016187,3.73047e-05,-0.000901909,0.00751976,-0.0418192,-0.0625446,-0.21366,0.00142039,2.41634,-1.83078,1.97993,0.0311782,3.25664,-1.24113,-0.00575053,0.238712,0.0980144,0.14795,-1.94264,0.590532,0.102522,0.00809395,0.0179651,-0.0124396,0.00122027,0.00555181,0.0986463,0.120239,-0.000204577,0,0,0,0,0,0,0,0.463749,-36.4186,1.23872,25.4315,3.17108,0.672842,-0.0163725,
0.239531,0.0814597,0.143355,-1.93195,0.591737,0.177767,0.00674963,0.000411187,-0.0210243,-0.00582263,0.0112877,0.00309784,0.0765068,-0.00161688,2.98437e-05,-0.000721527,0.00601581,-0.0334553,-0.0500357,-0.170928,0.00113631,2.41634,-1.83078,1.97993,0.0311782,3.25664,-1.24113,-0.00575053,0.238712,0.0980144,0.14795,-1.94264,0.590532,0.102522,0.00809395,0.0179651,-0.0124396,0.00122027,0.00555181,0.0986463,0.120239,-0.000204577,0,0,0,0,0,0,0,0.463749,-36.4186,1.23872,25.4315,3.17108,0.672842,-0.0163725,
0.239531,0.0814597,0.143355,-1.93195,0.591737,0.177767,0.00674963,0.000411225,-0.0210252,-0.00581493,0.0112449,0.0030338,0.076288,-0.00161542,2.3875e-05,-0.000577222,0.00481264,-0.0267643,-0.0400286,-0.136742,0.000909047,2.41634,-1.83078,1.97993,0.0311782,3.25664,-1.24113,-0.00575053,0.238712,0.0980144,0.14795,-1.94264,0.590532,0.102522,0.00809395,0.0179651,-0.0124396,0.00122027,0.00555181,0.0986463,0.120239,-0.000204577,0,0,0,0,0,0,0,0.463749,-36.4186,1.23872,25.4315,3.17108,0.672842,-0.0163725,
0.240244,0.0803553,0.143626,-1.93215,0.594898,0.180354,0.00675814,0.000411214,-0.021055,-0.00579492,0.0111638,0.00288416,0.0758935,-0.00161274,-6.42915e-06,-0.0186137,0.0125064,-0.0507098,-0.0935204,-0.246569,0.00167845,2.4164,-1.82762,1.98455,0.00262005,3.25217,-1.25674,-0.00565143,0.239337,0.0972566,0.14808,-1.94269,0.593919,0.106441,0.00809511,0.0176526,-0.0313931,0.0049401,-0.00637827,0.103394,0.11399,0.00122987,-0.0390694,-2.36919,0.464979,-1.49126,0.593469,-0.78106,0.179305,0.360599,-36.6686,1.16334,25.8798,3.26263,0.73876,-0.0301054,
0.240244,0.0803553,0.143626,-1.93215,0.594898,0.180354,0.00675814,0.000411206,-0.0210788,-0.00577892,0.0110989,0.00276446,0.0755779,-0.00161059,-5.14332e-06,-0.0148909,0.0100051,-0.0405679,-0.0748163,-0.197255,0.00134276,2.4164,-1.82762,1.98455,0.00262005,3.25217,-1.25674,-0.00565143,0.239337,0.0972566,0.14808,-1.94269,0.593919,0.106441,0.00809511,0.0176526,-0.0313931,0.0049401,-0.00637827,0.103394,0.11399,0.00122987,0,0,0,0,0,0,0,0.360599,-36.6686,1.16334,25.8798,3.26263,0.73876,-0.0301054,
0.240244,0.0803553,0.143626,-1.93215,0.594898,0.180354,0.00675814,0.0004112,-0.0210979,-0.00576611,0.0110469,0.00266869,0.0753254,-0.00160887,-4.11465e-06,-0.0119127,0.00800409,-0.0324543,-0.059853,-0.157804,0.00107421,2.4164,-1.82762,1.98455,0.00262005,3.25217,-1.25674,-0.00565143,0.239337,0.0972566,0.14808,-1.94269,0.593919,0.106441,0.00809511,0.0176526,-0.0313931,0.0049401,-0.00637827,0.103394,0.11399,0.00122987,0,0,0,0,0,0,0,0.360599,-36.6686,1.16334,25.8798,3.26263,0.73876,-0.0301054,
0.240244,0.0803553,0.143626,-1.93215,0.594898,0.180354,0.00675814,0.000411194,-0.0211131,-0.00575586,0.0110054,0.00259208,0.0751234,-0.0016075,-3.29172e-06,-0.00953019,0.00640327,-0.0259634,-0.0478824,-0.126243,0.000859368,2.4164,-1.82762,1.98455,0.00262005,3.25217,-1.25674,-0.00565143,0.239337,0.0972566,0.14808,-1.94269,0.593919,0.106441,0.00809511,0.0176526,-0.0313931,0.0049401,-0.00637827,0.103394,0.11399,0.00122987,0,0,0,0,0,0,0,0.360599,-36.6686,1.16334,25.8798,3.26263,0.73876,-0.0301054,
0.240244,0.0803553,0.143626,-1.93215,0.594898,0.180354,0.00675814,0.00041119,-0.0211253,-0.00574767,0.0109722,0.00253079,0.0749618,-0.0016064,-2.63338e-06,-0.00762415,0.00512262,-0.0207708,-0.0383059,-0.100995,0.000687495,2.41604,-1.82426,1.9888,-0.0266267,3.248,-1.27278,-0.00555552,0.239962,0.0965182,0.148191,-1.94272,0.597285,0.110324,0.00809583,0.0158726,-0.0162466,0.00351833,-3.85756e-05,0.0993559,0.108536,0.00137339,-0.222496,1.89332,-0.17772,0.792462,-0.504767,-0.681769,0.0179403,0.0551182,-36.9661,1.13954,26.2051,3.31115,0.805594,-0.0365141,
0.240244,0.0803553,0.143626,-1.93215,0.594898,0.180354,0.00675814,0.000411187,-0.0211351,-0.00574111,0.0109456,0.00248176,0.0748326,-0.00160552,-2.1067e-06,-0.00609932,0.00409809,-0.0166166,-0.0306448,-0.0807957,0.000549996,2.41604,-1.82426,1.9888,-0.0266267,3.248,-1.27278,-0.00555552,0.239962,0.0965182,0.148191,-1.94272,0.597285,0.110324,0.00809583,0.0158726,-0.0162466,0.00351833,-3.85756e-05,0.0993559,0.108536,0.00137339,0,0,0,0,0,0,0,0.0551182,-36.9661,1.13954,26.2051,3.31115,0.805594,-0.0365141,
0.240244,0.0803553,0.143626,-1.93215,0.594898,0.180354,0.00675814,0.000411184,-0.0211429,-0.00573587,0.0109243,0.00244253,0.0747291,-0.00160481,-1.68536e-06,-0.00487946,0.00327848,-0.0132933,-0.0245158,-0.0646365,0.000439997,2.41604,-1.82426,1.9888,-0.0266267,3.248,-1.27278,-0.00555552,0.239962,0.0965182,0.148191,-1.94272,0.597285,0.110324,0.00809583,0.0158726,-0.0162466,0.00351833,-3.85756e-05,0.0993559,0.108536,0.00137339,0,0,0,0,0,0,0,0.0551182,-36.9661,1.13954,26.2051,3.31115,0.805594,-0.0365141,
0.240244,0.0803553,0.143626,-1.93215,0.594898,0.180354,0.00675814,0.000411182,-0.0211492,-0.00573167,0.0109073,0.00241115,0.0746464,-0.00160425,-1.34829e-06,-0.00390357,0.00262278,-0.0106346,-0.0196126,-0.0517092,0.000351997,2.41604,-1.82426,1.9888,-0.0266267,3.248,-1.27278,-0.00555552,0.239962,0.0965182,0.148191,-1.94272,0.597285,0.110324,0.00809583,0.0158726,-0.0162466,0.00351833,-3.85756e-05,0.0993559,0.108536,0.00137339,0,0,0,0,0,0,0,0.0551182,-36.9661,1.13954,26.2051,3.31115,0.805594,-0.0365141,
0.240805,0.0799166,0.143695,-1.93245,0.597828,0.183345,0.00676594,0.000411225,-0.021146,-0.00572299,0.0108552,0.0023296,0.0743961,-0.0016025,2.68557e-05,0.00195311,0.00542538,-0.0325689,-0.0509721,-0.156465,0.00109048,2.41601,-1.81759,1.99218,-0.0537338,3.24423,-1.28755,-0.00546198,0.240518,0.0959385,0.148313,-1.94267,0.600426,0.113982,0.00809611,0.0123614,-0.0144393,0.00140733,0.000394432,0.0933845,0.106782,0.00138702,-0.438903,0.22591,-0.263875,0.054126,-0.746424,-0.219311,0.00170404,0.209842,-36.5932,1.16334,25.4315,3.23791,0.672842,-0.00996382,
0.240805,0.0799166,0.143695,-1.93245,0.597828,0.183345,0.00676594,0.000411259,-0.0211435,-0.00571604,0.0108135,0.00226436,0.0741958,-0.00160111,2.14846e-05,0.00156249,0.00434031,-0.0260551,-0.0407777,-0.125172,0.000872384,2.41601,-1.81759,1.99218,-0.0537338,3.24423,-1.28755,-0.00546198,0.240518,0.0959385,0.148313,-1.94267,0.600426,0.113982,0.00809611,0.0123614,-0.0144393,0.00140733,0.000394432,0.0933845,0.106782,0.00138702,0,0,0,0,0,0,0,0.209842,-36.5932,1.16334,25.4315,3.23791,0.672842,-0.00996382,
0.240805,0.0799166,0.143695,-1.93245,0.597828,0.183345,0.00676594,0.000411287,-0.0211415,-0.00571049,0.0107802,0.00221216,0.0740356,-0.00159999,1.71876e-05,0.00124999,0.00347225,-0.0208441,-0.0326221,-0.100138,0.000697907,2.41601,-1.81759,1.99218,-0.0537338,3.24423,-1.28755,-0.00546198,0.240518,0.0959385,0.148313,-1.94267,0.600426,0.113982,0.00809611,0.0123614,-0.0144393,0.00140733,0.000394432,0.0933845,0.106782,0.00138702,0,0,0,0,0,0,0,0.209842,-36.5932,1.16334,25.4315,3.23791,0.672842,-0.00996382,
0.240805,0.0799166,0.143695,-1.93245,0.597828,0.183345,0.00676594,0.000411309,-0.0211399,-0.00570604,0.0107535,0.0021704,0.0739074,-0.0015991,1.37501e-05,0.000999991,0.0027778,-0.0166753,-0.0260977,-0.0801103,0.000558326,2.41601,-1.81759,1.99218,-0.0537338,3.24423,-1.28755,-0.00546198,0.240518,0.0959385,0.148313,-1.94267,0.600426,0.113982,0.00809611,0.0123614,-0.0144393,0.00140733,0.000394432,0.0933845,0.106782,0.00138702,0,0,0,0,0,0,0,0.209842,-36.5932,1.16334,25.4315,3.23791,0.672842,-0.00996382,
0.241271,0.0794206,0.143756,-1.93259,0.600553,0.186141,0.00677368,0.000411383,-0.0211331,-0.00569619,0.0106928,0.00208089,0.0736113,-0.00159706,4.63238e-05,0.00423842,0.00615565,-0.0378979,-0.0559429,-0.185025,0.00127312,2.41522,-1.81967,1.9966,-0.0793338,3.24017,-1.30141,-0.00536869,0.241052,0.0951155,0.148456,-1.94275,0.603434,0.117391,0.00809654,0.0156016,-0.0282121,0.00359232,-0.00904296,0.0858627,0.0973024,0.00223539,0.40503,-1.72159,0.273124,-1.17967,-0.940219,-1.18492,0.106046,0.182071,-36.5932,1.21095,26.1575,3.29925,0.771719,-0.0429228,
0.241271,0.0794206,0.143756,-1.93259,0.600553,0.186141,0.00677368,0.000411442,-0.0211277,-0.00568832,0.0106443,0.00200929,0.0733745,-0.00159543,3.7059e-05,0.00339074,0.00492452,-0.0303183,-0.0447543,-0.14802,0.00101849,2.41522,-1.81967,1.9966,-0.0793338,3.24017,-1.30141,-0.00536869,0.241052,0.0951155,0.148456,-1.94275,0.603434,0.117391,0.00809654,0.0156016,-0.0282121,0.00359232,-0.00904296,0.0858627,0.0973024,0.00223539,0,0,0,0,0,0,0,0.182071,-36.5932,1.21095,26.1575,3.29925,0.771719,-0.0429228,
0.241271,0.0794206,0.143756,-1.93259,0.600553,0.186141,0.00677368,0.00041149,-0.0211234,-0.00568201,0.0106055,0.001952,0.073185,-0.00159413,2.96472e-05,0.00271259,0.00393961,-0.0242547,-0.0358035,-0.118416,0.000814794,2.41522,-1.81967,1.9966,-0.0793338,3.24017,-1.30141,-0.00536869,0.241052,0.0951155,0.148456,-1.94275,0.603434,0.117391,0.00809654,0.0156016,-0.0282121,0.00359232,-0.00904296,0.0858627,0.0973024,0.00223539,0,0,0,0,0,0,0,0.182071,-36.5932,1.21095,26.1575,3.29925,0.771719,-0.0429228,
0.241271,0.0794206,0.143756,-1.93259,0.600553,0.186141,0.00677368,0.000411528,-0.0211199,-0.00567697,0.0105745,0.00190617,0.0730335,-0.00159309,2.37178e-05,0.00217007,0.00315169,-0.0194037,-0.0286428,-0.0947329,0.000651835,2.41522,-1.81967,1.9966,-0.0793338,3.24017,-1.30141,-0.00536869,0.241052,0.0951155,0.148456,-1.94275,0.603434,0.117391,0.00809654,0.0156016,-0.0282121,0.00359232,-0.00904296,0.0858627,0.0973024,0.00223539,0,0,0,0,0,0,0,0.182071,-36.5932,1.21095,26.1575,3.29925,0.771719,-0.0429228,
0.24191,0.0783206,0.144052,-1.93285,0.603202,0.188299,0.00677943,0.000411514,-0.0211526,-0.00565894,0.0105094,0.00178934,0.0727242,-0.00159095,-8.78428e-06,-0.0204484,0.0112702,-0.0406472,-0.0730188,-0.193279,0.00133615,2.41459,-1.81708,1.99994,-0.104786,3.23683,-1.31515,-0.0052833,0.24155,0.0944652,0.148622,-1.94272,0.606184,0.120672,0.00809541,0.00924515,-0.0116385,0.0064709,0.00567426,0.0789879,0.0937385,0.00106141,-0.794559,2.07169,0.359822,1.83965,-0.859351,-0.445495,-0.146747,0.360599,-36.7915,1.26253,25.6577,3.33587,0.679251,-0.0227812,
0.24191,0.0783206,0.144052,-1.93285,0.603202,0.188299,0.00677943,0.000411502,-0.0211788,-0.00564451,0.0104574,0.00169588,0.0724768,-0.00158924,-7.02743e-06,-0.0163587,0.00901616,-0.0325177,-0.058415,-0.154623,0.00106892,2.41459,-1.81708,1.99994,-0.104786,3.23683,-1.31515,-0.0052833,0.24155,0.0944652,0.148622,-1.94272,0.606184,0.120672,0.00809541,0.00924515,-0.0116385,0.0064709,0.00567426,0.0789879,0.0937385,0.00106141,0,0,0,0,0,0,0,0.360599,-36.7915,1.26253,25.6577,3.33587,0.679251,-0.0227812,
0.24191,0.0783206,0.144052,-1.93285,0.603202,0.188299,0.00677943,0.000411493,-0.0211997,-0.00563297,0.0104158,0.00162111,0.0722789,-0.00158787,-5.62194e-06,-0.0130869,0.00721293,-0.0260142,-0.046732,-0.123699,0.000855137,2.41459,-1.81708,1.99994,-0.104786,3.23683,-1.31515,-0.0052833,0.24155,0.0944652,0.148622,-1.94272,0.606184,0.120672,0.00809541,0.00924515,-0.0116385,0.0064709,0.00567426,0.0789879,0.0937385,0.00106141,0,0,0,0,0,0,0,0.360599,-36.7915,1.26253,25.6577,3.33587,0.679251,-0.0227812,
0.24232,0.0779106,0.144152,-1.933,0.605644,0.190935,0.00678295,0.000411552,-0.0212097,-0.00561872,0.010347,0.00151843,0.0719435,-0.00158557,3.69092e-05,-0.00621048,0.00890476,-0.0430129,-0.0641751,-0.209643,0.00143786,2.41459,-1.81708,1.99994,-0.104786,3.23683,-1.31515,-0.0052833,0.24155,0.0944652,0.148622,-1.94272,0.606184,0.120672,0.00809541,0.00924515,-0.0116385,0.0064709,0.00567426,0.0789879,0.0937385,0.00106141,0,0,0,0,0,0,0,0.360599,-36.7915,1.26253,25.6577,3.33587,0.679251,-0.0227812,
0.24232,0.0779106,0.144152,-1.933,0.605644,0.190935,0.00678295,0.0004116,-0.0212176,-0.00560732,0.0102919,0.00143628,0.0716751,-0.00158373,2.95273e-05,-0.00496838,0.00712381,-0.0344103,-0.0513401,-0.167714,0.00115029,2.41459,-1.81708,1.99994,-0.104786,3.23683,-1.31515,-0.0052833,0.24155,0.0944652,0.148622,-1.94272,0.606184,0.120672,0.00809541,0.00924515,-0.0116385,0.0064709,0.00567426,0.0789879,0.0937385,0.00106141,0,0,0,0,0,0,0,0.360599,-36.7915,1.26253,25.6577,3.33587,0.679251,-0.0227812,
0.24232,0.0779106,0.144152,-1.933,0.605644,0.190935,0.00678295,0.000411637,-0.021224,-0.00559821,0.0102479,0.00137057,0.0714605,-0.00158226,2.36219e-05,-0.0039747,0.00569905,-0.0275283,-0.0410721,-0.134171,0.000920229,2.41528,-1.81914,2.00606,-0.130825,3.23286,-1.32895,-0.00519705,0.242113,0.0936287,0.148718,-1.94277,0.609318,0.12401,0.00809233,0.0174799,-0.0281811,-0.00256054,-0.00995865,0.0880748,0.0859126,2.97098e-05,1.02934,-2.06782,-1.12893,-1.95411,1.13586,-0.978234,-0.128963,0.562931,-36.7677,1.41328,26.0068,3.34228,0.76531,0.0239107,
