xiao-wang007/linearmpc_panda/paper_data/panda_inverse_dynamics_controller_Start_at_0/3/trajectory.csv
Commanded Joint 0 Position,Commanded Joint 1 Position,Commanded Joint 2 Position,Commanded Joint 3 Position,Commanded Joint 4 Position,Commanded Joint 5 Position,Commanded Joint 6 Position,Commanded Joint 0 Velocity,Commanded Joint 1 Velocity,Commanded Joint 2 Velocity,Commanded Joint 3 Velocity,Commanded Joint 4 Velocity,Commanded Joint 5 Velocity,Commanded Joint 6 Velocity,Commanded Joint 0 Acceleration,Commanded Joint 1 Acceleration,Commanded Joint 2 Acceleration,Commanded Joint 3 Acceleration,Commanded Joint 4 Acceleration,Commanded Joint 5 Acceleration,Commanded Joint 6 Acceleration,Commanded Joint 0 Torque,Commanded Joint 1 Torque,Commanded Joint 2 Torque,Commanded Joint 3 Torque,Commanded Joint 4 Torque,Commanded Joint 5 Torque,Commanded Joint 6 Torque,Actual Joint 0 Position,Actual Joint 1 Position,Actual Joint 2 Position,Actual Joint 3 Position,Actual Joint 4 Position,Actual Joint 5 Position,Actual Joint 6 Position,Actual Joint 0 Velocity,Actual Joint 1 Velocity,Actual Joint 2 Velocity,Actual Joint 3 Velocity,Actual Joint 4 Velocity,Actual Joint 5 Velocity,Actual Joint 6 Velocity,Actual Joint 0 Acceleration,Actual Joint 1 Acceleration,Actual Joint 2 Acceleration,Actual Joint 3 Acceleration,Actual Joint 4 Acceleration,Actual Joint 5 Acceleration,Actual Joint 6 Acceleration,Actual Joint 0 Torque,Actual Joint 1 Torque,Actual Joint 2 Torque,Actual Joint 3 Torque,Actual Joint 4 Torque,Actual Joint 5 Torque,Actual Joint 6 Torque,
0.0917793,-0.0988184,-0.110445,-1.8259,0.0157571,0.212115,0.0323392,0.000133508,0.0184886,-0.000252806,-0.0341879,-0.00440505,0.0507547,-0.000380322,0.0834422,11.5554,-0.158004,-21.3674,-2.75316,31.7217,-0.237701,0.0565745,21.2225,-0.172395,-24.3581,-0.717444,1.84137,-0.0240088,0.0917752,-0.0994638,-0.110427,-1.8227,0.0158173,0.206643,0.0323873,-0.00216278,0.000569387,-0.00121914,-0.00045987,0.0154385,-0.000819755,0.000393301,0,0,0,0,0,0,0,0.158268,-31.9991,0.488905,27.2763,0.990292,3.13286,-0.0566557,
0.0917647,-0.0994546,-0.110439,-1.8227,0.0159488,0.206632,0.0323891,7.45875e-05,0.0148547,-0.000240745,-0.0273675,-0.00295113,0.0405581,-0.000297478,-0.036825,-2.27115,0.00753838,4.26277,0.908702,-6.37286,0.0517776,0.0508918,21.6631,-0.182737,-24.2744,-0.717594,1.59054,-0.0224916,0.0917752,-0.0994638,-0.110427,-1.8227,0.0158173,0.206643,0.0323873,-0.00216278,0.000569387,-0.00121914,-0.00045987,0.0154385,-0.000819755,0.000393301,0,0,0,0,0,0,0,0.158268,-31.9991,0.488905,27.2763,0.990292,3.13286,-0.0566557,
0.0917643,-0.0994523,-0.11044,-1.8227,0.0159625,0.206632,0.0323892,4.8789e-05,0.0119419,-0.000205298,-0.0219062,-0.00201927,0.0324365,-0.000234596,-0.0161241,-1.82054,0.0221546,3.41328,0.58241,-5.07601,0.0393014,0.0437191,22.2348,-0.194462,-24.1663,-0.716944,1.24304,-0.0205209,0.0917752,-0.0994638,-0.110427,-1.8227,0.0158173,0.206643,0.0323873,-0.00216278,0.000569387,-0.00121914,-0.00045987,0.0154385,-0.000819755,0.000393301,0,0,0,0,0,0,0,0.158268,-31.9991,0.488905,27.2763,0.990292,3.13286,-0.0566557,
0.0917642,-0.0994501,-0.11044,-1.8227,0.0159709,0.206632,0.0323893,3.85154e-05,0.00960821,-0.000164165,-0.0175337,-0.00140437,0.0259663,-0.00018614,-0.00642101,-1.45854,0.0257081,2.73285,0.384314,-4.04387,0.0302851,0.0378345,22.7618,-0.203625,-23.9982,-0.714639,0.858524,-0.0185221,0.0917749,-0.099367,-0.110424,-1.82274,0.0158024,0.206648,0.032387,-0.0029835,0.0036193,0.00279068,-0.000521088,0.0115253,0.00396899,0.0017647,-0.10259,0.381239,0.501227,-0.00765229,-0.489154,0.598592,0.171424,0.158268,-31.8761,0.43733,27.2009,1.08184,3.09899,-0.0905302,
0.091651,-0.0993068,-0.110531,-1.82264,0.0183413,0.205275,0.0323659,-0.00164603,0.00827075,-0.00168442,-0.0128098,0.0372861,-0.000503687,-0.00035209,-1.05284,-0.835912,-0.950157,2.95244,24.1815,-16.5437,-0.103719,0.476292,0.223167,0.477033,-0.306231,3.16743,-2.02482,-0.00196716,0.0917749,-0.099367,-0.110424,-1.82274,0.0158024,0.206648,0.032387,-0.0029835,0.0036193,0.00279068,-0.000521088,0.0115253,0.00396899,0.0017647,0,0,0,0,0,0,0,0.158268,-31.8761,0.43733,27.2009,1.08184,3.09899,-0.0905302,
0.0915891,-0.099295,-0.110591,-1.8226,0.0201919,0.204209,0.0323612,-0.00286423,0.00690992,-0.00286501,-0.00936637,0.0760957,-0.0270368,-0.000397952,-0.761376,-0.850524,-0.737874,2.15213,24.256,-16.5832,-0.0286637,0.469163,0.223516,0.469061,-0.303557,3.14402,-2.00654,-0.00198623,0.0917749,-0.099367,-0.110424,-1.82274,0.0158024,0.206648,0.032387,-0.0029835,0.0036193,0.00279068,-0.000521088,0.0115253,0.00396899,0.0017647,0,0,0,0,0,0,0,0.158268,-31.8761,0.43733,27.2009,1.08184,3.09899,-0.0905302,
0.0915387,-0.0992903,-0.110642,-1.82258,0.022228,0.203001,0.0323585,-0.00354984,0.0056459,-0.00356469,-0.00692421,0.111779,-0.0518359,-0.000386326,-0.428505,-0.790011,-0.4373,1.52635,22.3023,-15.4995,0.00726672,0.463296,0.224551,0.462564,-0.299612,3.11928,-1.98886,-0.00202194,0.0917749,-0.099367,-0.110424,-1.82274,0.0158024,0.206648,0.032387,-0.0029835,0.0036193,0.00279068,-0.000521088,0.0115253,0.00396899,0.0017647,0,0,0,0,0,0,0,0.158268,-31.8761,0.43733,27.2009,1.08184,3.09899,-0.0905302,
0.0915017,-0.0992889,-0.11068,-1.82257,0.0243731,0.201698,0.0323568,-0.00376472,0.00455137,-0.0038086,-0.00522486,0.143049,-0.0740483,-0.000351547,-0.134299,-0.684083,-0.152443,1.06209,19.5438,-13.8827,0.0217365,0.458753,0.249811,0.459763,-0.289923,3.09392,-1.96337,-0.00203987,0.0917718,-0.098527,-0.110423,-1.82322,0.0156139,0.206344,0.0323849,-0.00162641,0.0399988,0.00133782,-0.0356227,0.000265066,0.0392451,0.000266912,0.169637,4.54743,-0.181607,-4.3877,-1.40753,4.40952,-0.187223,0.182071,-27.5081,0.413527,24.4873,1.07635,2.42333,-0.0365141,
0.0914646,-0.0979159,-0.110668,-1.82293,0.0237546,0.199502,0.0323181,-0.00697372,0.0101201,-0.00645841,-0.00042444,0.239869,-0.165202,-0.000891502,-2.00563,3.48046,-1.65613,3.00026,60.5124,-56.9709,-0.337472,4.05695,1.8786,4.15982,-2.05121,10.8845,-9.98061,-0.00356652,0.0917718,-0.098527,-0.110423,-1.82322,0.0156139,0.206344,0.0323849,-0.00162641,0.0399988,0.00133782,-0.0356227,0.000265066,0.0392451,0.000266912,0,0,0,0,0,0,0,0.182071,-27.5081,0.413527,24.4873,1.07635,2.42333,-0.0365141,
0.0913404,-0.0977337,-0.11078,-1.82284,0.0299346,0.194246,0.0323054,-0.00868407,0.0126517,-0.0079753,0.00193918,0.346395,-0.26357,-0.00102946,-1.06896,1.58224,-0.948053,1.47726,66.5786,-61.4802,-0.0862266,3.92568,1.87913,4.04375,-2.00383,10.8845,-9.7994,-0.00319957,0.0917718,-0.098527,-0.110423,-1.82322,0.0156139,0.206344,0.0323849,-0.00162641,0.0399988,0.00133782,-0.0356227,0.000265066,0.0392451,0.000266912,0,0,0,0,0,0,0,0.182071,-27.5081,0.413527,24.4873,1.07635,2.42333,-0.0365141,
0.0912695,-0.0975983,-0.110845,-1.82281,0.0367917,0.18834,0.0322996,-0.00871872,0.0135052,-0.0079934,0.00234279,0.448544,-0.358508,-0.000969496,-0.0216588,0.533441,-0.0113156,0.252257,63.843,-59.3362,0.0374802,3.79966,1.86036,3.92276,-1.96399,10.8845,-9.61922,-0.00346374,0.0917718,-0.098527,-0.110423,-1.82322,0.0156139,0.206344,0.0323849,-0.00162641,0.0399988,0.00133782,-0.0356227,0.000265066,0.0392451,0.000266912,0,0,0,0,0,0,0,0.182071,-27.5081,0.413527,24.4873,1.07635,2.42333,-0.0365141,
0.0912566,-0.0974871,-0.110854,-1.82283,0.0440114,0.182027,0.0322972,-0.00729715,0.0135852,-0.00662575,0.00145253,0.539327,-0.444638,-0.000834585,0.888483,0.0500342,0.854782,-0.556412,56.7393,-53.8315,0.0843193,3.68121,1.81817,3.80401,-1.93144,10.7083,-9.44558,-0.00402847,0.091943,-0.0989318,-0.110355,-1.82393,0.0171174,0.205824,0.0323861,0.00608866,0.016093,0.000759155,-0.0247425,0.123864,-0.056506,0.000709487,0.964384,-2.98823,-0.072333,1.36002,15.4498,-11.9689,0.0553219,1.85627,-34.2485,2.21467,29.1449,1.93145,2.95983,-0.0429228,
0.0928912,-0.098661,-0.109264,-1.82405,0.0244372,0.195783,0.0325681,0.0091842,0.0140276,0.0119336,-0.000796432,0.541033,-0.509016,0.00130447,10.3008,0.276463,11.5996,-1.4056,1.06659,-40.2359,1.33691,25.3028,6.09106,26.5411,-11.4904,10.8775,-14.3564,0.128281,0.091943,-0.0989318,-0.110355,-1.82393,0.0171174,0.205824,0.0323861,0.00608866,0.016093,0.000759155,-0.0247425,0.123864,-0.056506,0.000709487,0,0,0,0,0,0,0,1.85627,-34.2485,2.21467,29.1449,1.93145,2.95983,-0.0429228,
0.0937027,-0.0985733,-0.108358,-1.82423,0.029879,0.188156,0.0326636,0.0276352,0.0134145,0.0321879,-0.00522982,0.568872,-0.597869,0.00343073,11.5319,-0.383162,12.6589,-2.77087,17.399,-55.5331,1.32891,23.588,5.81822,25.1094,-9.94692,10.8775,-14.3564,0.091215,0.091943,-0.0989318,-0.110355,-1.82393,0.0171174,0.205824,0.0323861,0.00608866,0.016093,0.000759155,-0.0247425,0.123864,-0.056506,0.000709487,0,0,0,0,0,0,0,1.85627,-34.2485,2.21467,29.1449,1.93145,2.95983,-0.0429228,
0.0946942,-0.0986148,-0.107306,-1.82464,0.0361081,0.179567,0.0328629,0.0468953,0.00969454,0.0520569,-0.0143175,0.610825,-0.693022,0.00772707,12.0375,-2.32499,12.4181,-5.67981,26.2211,-59.4707,2.68521,22.5482,4.15274,24.0481,-9.00476,10.8775,-14.3564,0.113102,0.091943,-0.0989318,-0.110355,-1.82393,0.0171174,0.205824,0.0323861,0.00608866,0.016093,0.000759155,-0.0247425,0.123864,-0.056506,0.000709487,0,0,0,0,0,0,0,1.85627,-34.2485,2.21467,29.1449,1.93145,2.95983,-0.0429228,
0.0949606,-0.0988656,-0.107805,-1.82721,0.0426576,0.177463,0.0327089,0.0683817,0.0107868,0.072665,-0.0324754,0.643539,-0.7681,0.00913296,13.429,0.682668,12.8801,-11.3487,20.4458,-46.9236,0.878681,34.4615,12.1363,35.0769,-20.245,10.7643,-14.3152,0.167597,0.0928478,-0.0989227,-0.10988,-1.8256,0.030519,0.193623,0.0324129,0.0441894,-0.0404737,0.0205794,-0.0982896,0.77093,-0.774053,0.00854422,4.76259,-7.07083,2.47753,-9.19339,80.8833,-89.6933,0.979342,6.95423,-26.187,7.41182,21.5714,4.26422,-1.54182,-0.110672,
0.0964166,-0.0986695,-0.106287,-1.82821,0.049256,0.16831,0.0328872,0.091106,0.0135317,0.0960877,-0.0511498,0.679791,-0.843306,0.0117647,14.2027,1.71559,14.6392,-11.6715,22.6579,-47.0039,1.64485,31.7385,11.6074,32.5116,-18.9518,10.7643,-14.3152,0.10987,0.0928478,-0.0989227,-0.10988,-1.8256,0.030519,0.193623,0.0324129,0.0441894,-0.0404737,0.0205794,-0.0982896,0.77093,-0.774053,0.00854422,0,0,0,0,0,0,0,6.95423,-26.187,7.41182,21.5714,4.26422,-1.54182,-0.110672,
0.0979916,-0.0984809,-0.104632,-1.82944,0.0563355,0.158755,0.033014,0.11226,0.01554,0.118235,-0.0716562,0.720821,-0.913506,0.0125827,13.2214,1.25517,13.842,-12.8165,25.6434,-43.8747,0.511218,29.6062,9.16073,30.816,-19.1088,10.7643,-14.3152,0.205924,0.0928478,-0.0989227,-0.10988,-1.8256,0.030519,0.193623,0.0324129,0.0441894,-0.0404737,0.0205794,-0.0982896,0.77093,-0.774053,0.00854422,0,0,0,0,0,0,0,6.95423,-26.187,7.41182,21.5714,4.26422,-1.54182,-0.110672,
0.099619,-0.098233,-0.102939,-1.83075,0.0638652,0.148812,0.0330614,0.130493,0.0186296,0.136922,-0.0899428,0.7649,-0.979383,0.0112495,11.3954,1.93097,11.6796,-11.4292,27.5493,-41.1733,-0.833214,26.4096,6.38538,27.585,-20.4251,10.7643,-14.3152,0.149128,0.0928478,-0.0989227,-0.10988,-1.8256,0.030519,0.193623,0.0324129,0.0441894,-0.0404737,0.0205794,-0.0982896,0.77093,-0.774053,0.00854422,0,0,0,0,0,0,0,6.95423,-26.187,7.41182,21.5714,4.26422,-1.54182,-0.110672,
0.0949296,-0.0992071,-0.10774,-1.82791,0.0426757,0.177937,0.032703,0.135096,0.0123137,0.141304,-0.103908,0.766953,-0.99053,0.0130157,2.87689,-3.94746,2.73841,-8.72841,1.28325,-6.96669,1.10388,34.5855,11.3182,35.9741,-25.0414,10.7855,-13.9401,0.106208,0.0968785,-0.0994101,-0.106373,-1.82954,0.0621603,0.160734,0.0324043,0.253652,-0.103697,0.291357,-0.186563,1.04255,-1.20927,0.00139052,26.1828,-7.90294,33.8472,-11.0341,33.953,-54.4024,-0.894212,26.3543,-29.0553,27.3078,24.2889,5.35095,-1.65443,-0.0767973,
0.0963677,-0.0992997,-0.106245,-1.82945,0.049343,0.169032,0.0327969,0.144028,0.00753686,0.150409,-0.121622,0.780246,-1.01506,0.0127612,5.5826,-2.9855,5.69084,-11.0709,8.30848,-15.3286,-0.159104,32.0081,8.42628,33.2527,-25.1432,10.7855,-13.9401,0.169116,0.0968785,-0.0994101,-0.106373,-1.82954,0.0621603,0.160734,0.0324043,0.253652,-0.103697,0.291357,-0.186563,1.04255,-1.20927,0.00139052,0,0,0,0,0,0,0,26.3543,-29.0553,27.3078,24.2889,5.35095,-1.65443,-0.0767973,
0.0979105,-0.0993238,-0.104642,-1.8311,0.0565033,0.159575,0.0328043,0.153793,0.00542653,0.160403,-0.138609,0.803205,-1.04846,0.0103922,6.10278,-1.31895,6.24605,-10.6174,14.3489,-20.8781,-1.4806,28.4779,5.41393,29.556,-26.2296,10.7855,-13.9401,0.0997635,0.0968785,-0.0994101,-0.106373,-1.82954,0.0621603,0.160734,0.0324043,0.253652,-0.103697,0.291357,-0.186563,1.04255,-1.20927,0.00139052,0,0,0,0,0,0,0,26.3543,-29.0553,27.3078,24.2889,5.35095,-1.65443,-0.0767973,
0.0995018,-0.0992734,-0.102983,-1.83281,0.0640758,0.149691,0.0327736,0.162818,0.00560003,0.169787,-0.15366,0.831874,-1.08587,0.0075483,5.64073,0.108435,5.86523,-9.40687,17.9185,-23.3817,-1.77744,25.4822,5.15256,26.3958,-25.7208,10.7855,-13.9401,0.000321438,0.0968785,-0.0994101,-0.106373,-1.82954,0.0621603,0.160734,0.0324043,0.253652,-0.103697,0.291357,-0.186563,1.04255,-1.20927,0.00139052,0,0,0,0,0,0,0,26.3543,-29.0553,27.3078,24.2889,5.35095,-1.65443,-0.0767973,
0.101598,-0.10004,-0.101442,-1.83323,0.0787012,0.141316,0.0326373,0.189871,-0.000728359,0.19809,-0.172509,0.874246,-1.11198,0.00777518,16.9086,-3.95524,17.6896,-11.7802,26.4823,-16.318,0.1418,37.1512,13.3533,38.7918,-32.4919,10.7855,-13.9401,0.187947,0.0968785,-0.0994101,-0.106373,-1.82954,0.0621603,0.160734,0.0324043,0.253652,-0.103697,0.291357,-0.186563,1.04255,-1.20927,0.00139052,0,0,0,0,0,0,0,26.3543,-29.0553,27.3078,24.2889,5.35095,-1.65443,-0.0767973,
0.103943,-0.100066,-0.0989911,-1.83536,0.0872785,0.131411,0.0326025,0.210519,-0.00122858,0.219735,-0.191285,0.91383,-1.13722,0.00535016,12.9048,-0.312636,13.5282,-11.7349,24.7398,-15.7725,-1.51564,32.6191,9.9261,34.0072,-33.2879,10.7638,-13.619,0.077147,0.105517,-0.100324,-0.0965666,-1.84073,0.0933503,0.118958,0.0323924,0.292347,0.0347195,0.339687,-0.389056,0.964506,-1.24454,-0.000172178,4.83689,17.3021,6.04121,-25.3117,-9.75603,-4.40899,-0.195338,19.6575,-24.3144,19.885,25.8322,5.14312,0.09606,-0.0163725,
0.106217,-0.0999562,-0.0966148,-1.83759,0.096035,0.121314,0.0325204,0.225269,0.00175044,0.235196,-0.208639,0.949975,-1.16219,0.00222872,9.21864,1.86189,9.66317,-10.8465,22.5907,-15.609,-1.9509,28.8542,8.83678,30.0714,-32.8138,10.7638,-13.619,-0.0439573,0.105517,-0.100324,-0.0965666,-1.84073,0.0933503,0.118958,0.0323924,0.292347,0.0347195,0.339687,-0.389056,0.964506,-1.24454,-0.000172178,0,0,0,0,0,0,0,19.6575,-24.3144,19.885,25.8322,5.14312,0.09606,-0.0163725,
0.108411,-0.0997568,-0.0943211,-1.83988,0.104901,0.111046,0.0324262,0.235062,0.00638549,0.2455,-0.224178,0.981623,-1.18646,-0.000572762,6.12081,2.89691,6.43969,-9.71202,19.7801,-15.1685,-1.75093,26.512,7.8895,27.6247,-32.2871,10.7638,-13.619,-0.0970318,0.105517,-0.100324,-0.0965666,-1.84073,0.0933503,0.118958,0.0323924,0.292347,0.0347195,0.339687,-0.389056,0.964506,-1.24454,-0.000172178,0,0,0,0,0,0,0,19.6575,-24.3144,19.885,25.8322,5.14312,0.09606,-0.0163725,
0.110305,-0.0992826,-0.0915571,-1.84679,0.109864,0.0984917,0.0321907,0.246811,0.0187425,0.257823,-0.256197,0.995995,-1.20416,-0.00413175,7.34286,7.72313,7.70183,-20.0116,8.98278,-11.0605,-2.22437,30.5644,11.8619,31.8605,-40.1674,10.7638,-13.619,-0.0667708,0.105517,-0.100324,-0.0965666,-1.84073,0.0933503,0.118958,0.0323924,0.292347,0.0347195,0.339687,-0.389056,0.964506,-1.24454,-0.000172178,0,0,0,0,0,0,0,19.6575,-24.3144,19.885,25.8322,5.14312,0.09606,-0.0163725,
0.112557,-0.0987416,-0.0892039,-1.84996,0.118514,0.0885407,0.0320089,0.253762,0.0285193,0.265089,-0.283974,1.01305,-1.2121,-0.00784924,4.34455,6.11047,4.54129,-17.3609,10.6576,-4.96483,-2.32343,27.114,8.47424,28.2899,-39.5304,10.6777,-12.7927,-0.180012,0.11483,-0.101929,-0.0824895,-1.85525,0.110874,0.0785179,0.0324076,0.161287,0.00927542,0.376726,-0.281747,0.37506,-0.955114,0.000468491,-16.3825,-3.18051,4.62995,13.4137,-73.6807,36.1787,0.0800837,-10.3392,-35.2205,-10.8377,27.0264,1.3327,0.99053,-0.0163725,
0.114717,-0.0982283,-0.0869489,-1.85317,0.12728,0.0789214,0.0318269,0.256991,0.0356464,0.268447,-0.307612,1.02957,-1.21016,-0.0108309,2.01817,4.45444,2.09854,-14.7737,10.3282,1.21037,-1.86357,25.0235,6.50527,26.1086,-39.2029,10.6777,-11.9318,-0.220332,0.11483,-0.101929,-0.0824895,-1.85525,0.110874,0.0785179,0.0324076,0.161287,0.00927542,0.376726,-0.281747,0.37506,-0.955114,0.000468491,0,0,0,0,0,0,0,-10.3392,-35.2205,-10.8377,27.0264,1.3327,0.99053,-0.0163725,
0.118633,-0.102101,-0.0784354,-1.86196,0.122459,0.0657305,0.0318722,0.252121,0.0267275,0.263886,-0.333874,0.984813,-1.12128,-0.0155694,-3.04411,-5.57426,-2.85064,-16.4133,-27.9746,55.5522,-2.96156,25.3025,5.08994,26.3447,-46.7343,10.6777,-8.64072,-0.31221,0.11483,-0.101929,-0.0824895,-1.85525,0.110874,0.0785179,0.0324076,0.161287,0.00927542,0.376726,-0.281747,0.37506,-0.955114,0.000468491,0,0,0,0,0,0,0,-10.3392,-35.2205,-10.8377,27.0264,1.3327,0.99053,-0.0163725,
0.120434,-0.102123,-0.076542,-1.8656,0.129688,0.0601015,0.0316138,0.246718,0.0208334,0.258442,-0.358163,0.96857,-1.03775,-0.018915,-3.37684,-3.68384,-3.40244,-15.181,-10.1521,52.2071,-2.09098,23.5711,3.33864,24.5545,-46.3649,10.6777,-7.30499,-0.331006,0.11483,-0.101929,-0.0824895,-1.85525,0.110874,0.0785179,0.0324076,0.161287,0.00927542,0.376726,-0.281747,0.37506,-0.955114,0.000468491,0,0,0,0,0,0,0,-10.3392,-35.2205,-10.8377,27.0264,1.3327,0.99053,-0.0163725,
0.122191,-0.102106,-0.0746993,-1.86929,0.137388,0.0549676,0.031382,0.241297,0.017091,0.252822,-0.378867,0.967362,-0.958547,-0.020926,-3.38786,-2.33903,-3.51252,-12.9397,-0.754871,49.5011,-1.25686,22.5014,2.03555,23.5199,-45.7551,10.6202,-5.96573,-0.314253,0.121999,-0.101027,-0.0647777,-1.86647,0.133381,0.0462017,0.0324113,0.150275,-0.0352379,0.412799,-0.349721,0.427044,-1.02782,0.00247334,-1.37653,-5.56417,4.50914,-8.49684,6.49804,-9.08882,0.250606,-8.49041,-27.6073,-7.33458,24.2889,0.093075,1.52154,-0.0630644,
0.12391,-0.102061,-0.0728984,-1.87299,0.145374,0.0502965,0.0311789,0.236021,0.0148017,0.247279,-0.395478,0.973527,-0.883615,-0.0218191,-3.29739,-1.43077,-3.46433,-10.3821,3.8533,46.8328,-0.558196,21.6109,1.16382,22.5979,-45.2189,10.6202,-5.0969,-0.283365,0.121999,-0.101027,-0.0647777,-1.86647,0.133381,0.0462017,0.0324113,0.150275,-0.0352379,0.412799,-0.349721,0.427044,-1.02782,0.00247334,0,0,0,0,0,0,0,-8.49041,-27.6073,-7.33458,24.2889,0.093075,1.52154,-0.0630644,
0.125891,-0.101478,-0.0606197,-1.87351,0.145431,0.033139,0.0318785,0.236188,0.00743306,0.247917,-0.406854,0.944604,-0.859707,-0.0240103,0.10441,-4.60542,0.398966,-7.10994,-18.0771,14.9421,-1.36946,23.6234,3.29375,24.6748,-46.2183,10.6202,-7.07166,-0.331994,0.121999,-0.101027,-0.0647777,-1.86647,0.133381,0.0462017,0.0324113,0.150275,-0.0352379,0.412799,-0.349721,0.427044,-1.02782,0.00247334,0,0,0,0,0,0,0,-8.49041,-27.6073,-7.33458,24.2889,0.093075,1.52154,-0.0630644,
0.127709,-0.10157,-0.0587051,-1.87719,0.152776,0.0277209,0.0316442,0.234388,0.00364141,0.246199,-0.417577,0.939293,-0.823219,-0.0250639,-1.12514,-2.36978,-1.07399,-6.70182,-3.31909,22.8052,-0.658502,22.5014,2.03555,23.5199,-45.7551,10.6202,-5.96573,-0.314253,0.121999,-0.101027,-0.0647777,-1.86647,0.133381,0.0462017,0.0324113,0.150275,-0.0352379,0.412799,-0.349721,0.427044,-1.02782,0.00247334,0,0,0,0,0,0,0,-8.49041,-27.6073,-7.33458,24.2889,0.093075,1.52154,-0.0630644,
0.129468,-0.101602,-0.0568554,-1.88088,0.160542,0.0228963,0.0314395,0.231499,0.00211573,0.243202,-0.426253,0.945602,-0.779188,-0.0251697,-1.80534,-0.95355,-1.87308,-5.42223,3.94306,27.519,-0.0661504,21.367,0.791625,22.3966,-44.8902,10.3908,-4.91503,-0.286168,0.12594,-0.0964972,-0.0542898,-1.88321,0.146889,0.0172908,0.032427,0.0482503,0.0814871,0.162841,-0.540868,0.419555,-0.307327,-0.00124294,-12.7531,14.5906,-31.2448,-23.8933,-0.936159,90.0622,-0.464535,-16.302,-29.5036,-16.9354,35.2744,-2.86316,6.68603,-0.00996382,
0.128019,-0.0953203,-0.0520563,-1.89101,0.156877,0.0102807,0.0319744,0.212829,0.0149819,0.223986,-0.437433,0.892934,-0.713785,-0.0256493,-11.6691,8.04133,-12.0096,-6.9876,-32.918,40.8772,-0.299773,22.2575,1.66335,23.3186,-45.4264,10.3908,-5.78386,-0.317057,0.12594,-0.0964972,-0.0542898,-1.88321,0.146889,0.0172908,0.032427,0.0482503,0.0814871,0.162841,-0.540868,0.419555,-0.307327,-0.00124294,0,0,0,0,0,0,0,-16.302,-29.5036,-16.9354,35.2744,-2.86316,6.68603,-0.00996382,
0.129221,-0.0948945,-0.050783,-1.89482,0.163027,0.00669772,0.0317794,0.20029,0.0226305,0.211021,-0.445085,0.868096,-0.660604,-0.0253949,-7.83664,4.78041,-8.10332,-4.78293,-15.5236,33.2384,0.159023,21.367,0.791625,22.3966,-44.8902,10.3908,-4.91503,-0.286168,0.12594,-0.0964972,-0.0542898,-1.88321,0.146889,0.0172908,0.032427,0.0482503,0.0814871,0.162841,-0.540868,0.419555,-0.307327,-0.00124294,0,0,0,0,0,0,0,-16.302,-29.5036,-16.9354,35.2744,-2.86316,6.68603,-0.00996382,
0.130496,-0.0945601,-0.0494346,-1.89863,0.169699,0.0037689,0.0316101,0.192129,0.0264635,0.202526,-0.451413,0.861278,-0.601703,-0.0245501,-5.10062,2.39562,-5.30923,-3.95499,-4.26125,36.8127,0.527974,20.566,0.254655,21.5612,-44.2715,10.3908,-4.27962,-0.251241,0.12594,-0.0964972,-0.0542898,-1.88321,0.146889,0.0172908,0.032427,0.0482503,0.0814871,0.162841,-0.540868,0.419555,-0.307327,-0.00124294,0,0,0,0,0,0,0,-16.302,-29.5036,-16.9354,35.2744,-2.86316,6.68603,-0.00996382,
0.131829,-0.0942931,-0.0480297,-1.90246,0.176762,0.0019427,0.0314623,0.187006,0.0278472,0.197143,-0.456895,0.865575,-0.527018,-0.0233333,-3.2024,0.86478,-3.36429,-3.42574,2.68557,46.6786,0.760553,19.8228,-0.27531,20.8341,-43.3268,10.3605,-1.78672,-0.219656,0.130294,-0.0979142,-0.0430693,-1.90107,0.165502,0.012924,0.032426,0.106512,-0.0285281,0.286471,-0.483908,0.454597,-0.094266,-0.00133182,7.28277,-13.7519,15.4538,7.11999,4.38024,26.6326,-0.0111092,-7.7525,-40.6874,-7.08464,30.2399,-0.542301,3.86895,0.0303194,
0.133216,-0.0979408,-0.0399308,-1.90811,0.176712,0.00862149,0.0319956,0.185976,0.0224044,0.196441,-0.452983,0.845321,-0.481019,-0.0238076,-0.643304,-3.40169,-0.438965,2.44475,-12.6584,28.749,-0.296447,21.4202,0.516076,22.4915,-44.6893,10.3605,-4.79035,-0.287231,0.130294,-0.0979142,-0.0430693,-1.90107,0.165502,0.012924,0.032426,0.106512,-0.0285281,0.286471,-0.483908,0.454597,-0.094266,-0.00133182,0,0,0,0,0,0,0,-7.7525,-40.6874,-7.08464,30.2399,-0.542301,3.86895,0.0303194,
0.13467,-0.0979376,-0.0383894,-1.91166,0.183507,0.0065921,0.0318186,0.185137,0.0180039,0.195688,-0.451328,0.846128,-0.43555,-0.0234704,-0.524568,-2.75032,-0.470771,1.03451,0.504267,28.4182,0.210745,20.6192,-0.0208942,21.6561,-44.0706,10.3605,-4.15494,-0.252304,0.130294,-0.0979142,-0.0430693,-1.90107,0.165502,0.012924,0.032426,0.106512,-0.0285281,0.286471,-0.483908,0.454597,-0.094266,-0.00133182,0,0,0,0,0,0,0,-7.7525,-40.6874,-7.08464,30.2399,-0.542301,3.86895,0.0303194,
0.136131,-0.097936,-0.0368455,-1.91529,0.190753,0.00544909,0.0316657,0.184627,0.0144435,0.195147,-0.451676,0.858053,-0.377015,-0.0226004,-0.318653,-2.22529,-0.338241,-0.217892,7.45327,36.5844,0.543754,19.8228,-0.27531,20.8341,-43.3268,10.3605,-1.78672,-0.219656,0.130294,-0.0979142,-0.0430693,-1.90107,0.165502,0.012924,0.032426,0.106512,-0.0285281,0.286471,-0.483908,0.454597,-0.094266,-0.00133182,0,0,0,0,0,0,0,-7.7525,-40.6874,-7.08464,30.2399,-0.542301,3.86895,0.0303194,
0.137596,-0.0979286,-0.035299,-1.91895,0.198296,0.00540678,0.0315341,0.184347,0.0117396,0.19478,-0.452763,0.875019,-0.30267,-0.0213687,-0.175328,-1.68993,-0.229132,-0.679234,10.6037,46.4658,0.769764,19.039,-0.587637,20.0452,-42.6812,10.2306,0.831573,-0.192806,0.131398,-0.0945353,-0.0395823,-1.91639,0.184325,0.0123494,0.0324386,0.0397583,-0.0246551,0.0975573,-0.388958,0.728902,0.00402985,-9.46917e-05,-8.34427,0.484127,-23.6142,11.8687,34.2882,12.287,0.154641,-4.66198,-34.7722,-5.91033,34.9252,2.16308,5.98382,-0.083206,
0.133126,-0.0948919,-0.037732,-1.92289,0.197139,0.0107461,0.0320957,0.171375,0.00504083,0.181255,-0.445077,0.864938,-0.262044,-0.0211958,-8.10714,-4.18672,-8.4529,4.80412,-6.30078,25.391,0.108121,20.5756,-0.0878429,21.6309,-44.1141,10.2306,-4.14203,-0.253085,0.131398,-0.0945353,-0.0395823,-1.91639,0.184325,0.0123494,0.0324386,0.0397583,-0.0246551,0.0975573,-0.388958,0.728902,0.00402985,-9.46917e-05,0,0,0,0,0,0,0,-4.66198,-34.7722,-5.91033,34.9252,2.16308,5.98382,-0.083206,
0.134217,-0.0950468,-0.036576,-1.92632,0.204063,0.0105683,0.0319514,0.164362,0.000160189,0.173904,-0.441862,0.865041,-0.214079,-0.0205628,-4.38315,-3.0504,-4.59453,2.00911,0.0641078,29.9781,0.395599,19.7792,-0.342258,20.8089,-43.3704,10.2306,-1.77381,-0.220437,0.131398,-0.0945353,-0.0395823,-1.91639,0.184325,0.0123494,0.0324386,0.0397583,-0.0246551,0.0975573,-0.388958,0.728902,0.00402985,-9.46917e-05,0,0,0,0,0,0,0,-4.66198,-34.7722,-5.91033,34.9252,2.16308,5.98382,-0.083206,
0.135405,-0.0951726,-0.03532,-1.92982,0.211252,0.0112822,0.0318261,0.161181,-0.00301828,0.170525,-0.44109,0.871766,-0.153417,-0.0195849,-1.98826,-1.98654,-2.11216,0.482565,4.20336,37.9142,0.611188,19.039,-0.587637,20.0452,-42.6812,10.2306,0.831573,-0.192806,0.131398,-0.0945353,-0.0395823,-1.91639,0.184325,0.0123494,0.0324386,0.0397583,-0.0246551,0.0975573,-0.388958,0.728902,0.00402985,-9.46917e-05,0,0,0,0,0,0,0,-4.66198,-34.7722,-5.91033,34.9252,2.16308,5.98382,-0.083206,
0.133126,-0.0948919,-0.037732,-1.92289,0.197139,0.0107461,0.0320957,0.152843,-0.00676546,0.161851,-0.435738,0.862336,-0.142642,-0.0197687,-5.21143,-2.34199,-5.42098,3.34496,-5.89411,6.73435,-0.114861,19.777,-0.355373,20.8315,-43.2838,10.1534,-1.69668,-0.220899,0.134685,-0.0931639,-0.0331516,-1.92628,0.206847,0.0161142,0.0324334,0.0891073,0.0568459,0.168741,-0.228645,0.723241,0.186134,0.0030365,6.16863,10.1876,8.8979,20.0391,-0.707589,22.763,0.3914,6.49799,-36.9185,7.28883,26.5543,1.14318,3.71606,-0.0767973,
0.138182,-0.0934586,-0.0294175,-1.93559,0.227633,0.0209596,0.0319787,0.153269,-0.00915117,0.162344,-0.43177,0.871786,-0.0655028,-0.0190805,0.266355,-1.49107,0.308247,2.48009,5.90647,48.2118,0.430133,19.0369,-0.600751,20.0678,-42.5947,10.1534,0.908698,-0.193267,0.134685,-0.0931639,-0.0331516,-1.92628,0.206847,0.0161142,0.0324334,0.0891073,0.0568459,0.168741,-0.228645,0.723241,0.186134,0.0030365,0,0,0,0,0,0,0,6.49799,-36.9185,7.28883,26.5543,1.14318,3.71606,-0.0767973,
0.139471,-0.0935924,-0.028054,-1.93899,0.235119,0.0235466,0.0318669,0.154838,-0.0106653,0.163964,-0.430446,0.884578,0.0122739,-0.0180592,0.981035,-0.946335,1.01214,0.827235,7.99503,48.6104,0.638259,18.3873,-0.870664,19.3911,-42.0033,10.1534,2.99633,-0.166981,0.134685,-0.0931639,-0.0331516,-1.92628,0.206847,0.0161142,0.0324334,0.0891073,0.0568459,0.168741,-0.228645,0.723241,0.186134,0.0030365,0,0,0,0,0,0,0,6.49799,-36.9185,7.28883,26.5543,1.14318,3.71606,-0.0767973,
0.140793,-0.0936986,-0.0266577,-1.94242,0.242754,0.026845,0.0317731,0.156917,-0.0111878,0.166079,-0.429966,0.898543,0.0922793,-0.0167928,1.29888,-0.326585,1.32193,0.300487,8.72837,50.0033,0.791559,17.8218,-1.072,18.7967,-41.4573,10.1534,4.67149,-0.143258,0.134685,-0.0931639,-0.0331516,-1.92628,0.206847,0.0161142,0.0324334,0.0891073,0.0568459,0.168741,-0.228645,0.723241,0.186134,0.0030365,0,0,0,0,0,0,0,6.49799,-36.9185,7.28883,26.5543,1.14318,3.71606,-0.0767973,
0.136927,-0.0933204,-0.0307498,-1.93238,0.2204,0.0206511,0.0321528,0.154585,-0.0122456,0.163771,-0.424361,0.893822,0.135412,-0.016719,-1.45708,-0.661086,-1.44235,3.50283,-2.95077,26.9581,0.0461119,19.0369,-0.600751,20.0678,-42.5947,10.1534,0.908698,-0.193267,0.134685,-0.0931639,-0.0331516,-1.92628,0.206847,0.0161142,0.0324334,0.0891073,0.0568459,0.168741,-0.228645,0.723241,0.186134,0.0030365,0,0,0,0,0,0,0,6.49799,-36.9185,7.28883,26.5543,1.14318,3.71606,-0.0767973,
0.13815,-0.0934603,-0.0294537,-1.93572,0.227692,0.0236363,0.032041,0.15424,-0.0132941,0.16342,-0.422978,0.897369,0.182961,-0.0161687,-0.215965,-0.655341,-0.219343,0.864162,2.21669,29.7183,0.343907,18.3562,-1.00216,19.3788,-41.9862,10.0776,2.98839,-0.165817,0.136601,-0.0943914,-0.0291427,-1.93529,0.22583,0.0210447,0.0324344,0.0375102,-0.039909,0.141168,-0.239599,0.37847,0.0692047,-0.00229442,-6.44964,-12.0944,-3.44655,-1.36924,-43.0964,-14.6161,-0.666366,-0.655026,-25.8339,-1.96288,19.3298,2.43774,1.8731,-0.0026396,
0.139416,-0.093579,-0.0281142,-1.9391,0.235189,0.0272268,0.0319476,0.155055,-0.013604,0.164223,-0.422938,0.905318,0.236131,-0.0152713,0.509287,-0.193676,0.502054,0.0252285,4.96823,33.2308,0.560895,17.7907,-1.2035,18.7844,-41.4402,10.0776,4.66356,-0.142095,0.136601,-0.0943914,-0.0291427,-1.93529,0.22583,0.0210447,0.0324344,0.0375102,-0.039909,0.141168,-0.239599,0.37847,0.0692047,-0.00229442,0,0,0,0,0,0,0,-0.655026,-25.8339,-1.96288,19.3298,2.43774,1.8731,-0.0026396,
0.140711,-0.0936681,-0.0267463,-1.94248,0.242832,0.0314358,0.0318706,0.156422,-0.0131107,0.165576,-0.422918,0.915329,0.29413,-0.0141408,0.854749,0.308294,0.845389,0.0125085,6.25713,36.2498,0.706539,17.3,-1.29414,18.2639,-40.9032,10.0776,5.93938,-0.118587,0.136601,-0.0943914,-0.0291427,-1.93529,0.22583,0.0210447,0.0324344,0.0375102,-0.039909,0.141168,-0.239599,0.37847,0.0692047,-0.00229442,0,0,0,0,0,0,0,-0.655026,-25.8339,-1.96288,19.3298,2.43774,1.8731,-0.0026396,
0.138322,-0.0953616,-0.0272628,-1.94138,0.236141,0.0258042,0.0322018,0.148178,-0.0218034,0.157287,-0.418105,0.873812,0.305591,-0.0140048,-5.1529,-5.43291,-5.18041,3.00826,-25.9481,7.16253,0.0850024,18.3562,-1.00216,19.3788,-41.9862,10.0776,2.98839,-0.165817,0.136601,-0.0943914,-0.0291427,-1.93529,0.22583,0.0210447,0.0324344,0.0375102,-0.039909,0.141168,-0.239599,0.37847,0.0692047,-0.00229442,0,0,0,0,0,0,0,-0.655026,-25.8339,-1.96288,19.3298,2.43774,1.8731,-0.0026396,
0.139341,-0.0957114,-0.0261747,-1.94467,0.242475,0.0293644,0.0321126,0.144001,-0.0261875,0.153032,-0.416735,0.857403,0.333477,-0.0134341,-2.61065,-2.74007,-2.65995,0.856228,-10.2557,17.4291,0.356674,17.7415,-1.06349,18.7567,-41.4774,10.0177,4.64728,-0.141647,0.139495,-0.0922266,-0.0213994,-1.94102,0.237585,0.0347794,0.0324242,0.0810951,0.0510328,0.160996,-0.193154,0.114253,0.623916,-0.00358674,5.44811,11.3677,2.47845,5.80558,-33.0272,69.339,-0.16154,-9.09741,-33.0504,-8.43749,29.617,2.04132,1.80627,0.0907442,
0.140434,-0.0959678,-0.0250117,-1.94799,0.249273,0.0336112,0.0320394,0.142542,-0.0273615,0.151502,-0.416307,0.855872,0.372952,-0.0125767,-0.911356,-0.733767,-0.956169,0.267625,-0.956871,24.6721,0.535893,17.2508,-1.15412,18.2362,-40.9404,10.0177,5.92311,-0.118139,0.139495,-0.0922266,-0.0213994,-1.94102,0.237585,0.0347794,0.0324242,0.0810951,0.0510328,0.160996,-0.193154,0.114253,0.623916,-0.00358674,0,0,0,0,0,0,0,-9.09741,-33.0504,-8.43749,29.617,2.04132,1.80627,0.0907442,
0.14133,-0.092469,-0.0193703,-1.94689,0.245871,0.0458575,0.0322003,0.13752,-0.0259216,0.146834,-0.410652,0.806914,0.43752,-0.0125459,-3.13879,0.899943,-2.91706,3.53403,-30.5989,40.3544,0.0192659,17.7415,-1.06349,18.7567,-41.4774,10.0177,4.64728,-0.141647,0.139495,-0.0922266,-0.0213994,-1.94102,0.237585,0.0347794,0.0324242,0.0810951,0.0510328,0.160996,-0.193154,0.114253,0.623916,-0.00358674,0,0,0,0,0,0,0,-9.09741,-33.0504,-8.43749,29.617,2.04132,1.80627,0.0907442,
0.142325,-0.0926158,-0.0182974,-1.9501,0.251714,0.0515281,0.0321222,0.134893,-0.0244067,0.144292,-0.40871,0.791583,0.491779,-0.0119892,-1.64184,0.946829,-1.58882,1.214,-9.58167,33.9123,0.347927,17.2508,-1.15412,18.2362,-40.9404,10.0177,5.92311,-0.118139,0.139495,-0.0922266,-0.0213994,-1.94102,0.237585,0.0347794,0.0324242,0.0810951,0.0510328,0.160996,-0.193154,0.114253,0.623916,-0.00358674,0,0,0,0,0,0,0,-9.09741,-33.0504,-8.43749,29.617,2.04132,1.80627,0.0907442,
0.143374,-0.0927271,-0.0171744,-1.95333,0.25819,0.0573704,0.0320621,0.134144,-0.0223073,0.143509,-0.407724,0.795166,0.539481,-0.0110917,-0.468112,1.31213,-0.489535,0.615796,2.23911,29.8135,0.560937,16.7987,-0.974191,17.7701,-40.5792,10.0052,6.78144,-0.0950272,0.142154,-0.091519,-0.0155751,-1.94746,0.240645,0.0616718,0.0324352,0.0804425,-0.0109154,0.104674,-0.18269,-0.121312,0.785924,0.000178215,-0.0815678,-7.74353,-7.04023,1.30798,-29.4456,20.2509,0.47062,-10.4423,-32.3244,-10.4608,34.3262,1.8637,2.59545,-0.00996382,
0.144469,-0.0928005,-0.0160077,-1.95655,0.265098,0.063411,0.0320178,0.134692,-0.0196821,0.143974,-0.406626,0.808835,0.582602,-0.00998167,0.342326,1.64075,0.290576,0.6865,8.54286,26.9505,0.693773,16.4148,-0.864862,17.3573,-40.026,10.0052,7.45818,-0.0737459,0.142154,-0.091519,-0.0155751,-1.94746,0.240645,0.0616718,0.0324352,0.0804425,-0.0109154,0.104674,-0.18269,-0.121312,0.785924,0.000178215,0,0,0,0,0,0,0,-10.4423,-32.3244,-10.4608,34.3262,1.8637,2.59545,-0.00996382,
0.143571,-0.0922994,-0.0139708,-1.95304,0.246871,0.0750371,0.032245,0.126266,-0.0252108,0.135798,-0.399199,0.748621,0.632406,-0.0100452,-5.26607,-3.45542,-5.10991,4.64162,-37.6332,31.1276,-0.0396867,17.2309,-0.993345,18.2316,-41.123,10.0052,5.80679,-0.11675,0.142154,-0.091519,-0.0155751,-1.94746,0.240645,0.0616718,0.0324352,0.0804425,-0.0109154,0.104674,-0.18269,-0.121312,0.785924,0.000178215,0,0,0,0,0,0,0,-10.4423,-32.3244,-10.4608,34.3262,1.8637,2.59545,-0.00996382,
0.144392,-0.0925959,-0.0130748,-1.9561,0.252153,0.0816406,0.0321842,0.121529,-0.0275822,0.131037,-0.395942,0.730938,0.671013,-0.00955542,-2.96071,-1.48212,-2.97568,2.03587,-11.0524,24.1295,0.306095,16.7987,-0.974191,17.7701,-40.5792,10.0052,6.78144,-0.0950272,0.142154,-0.091519,-0.0155751,-1.94746,0.240645,0.0616718,0.0324352,0.0804425,-0.0109154,0.104674,-0.18269,-0.121312,0.785924,0.000178215,0,0,0,0,0,0,0,-10.4423,-32.3244,-10.4608,34.3262,1.8637,2.59545,-0.00996382,
0.14529,-0.0928113,-0.0121056,-1.9592,0.258245,0.088254,0.0321406,0.119683,-0.0274506,0.12906,-0.394137,0.737054,0.702145,-0.00873402,-1.15392,0.0822162,-1.23586,1.12806,3.82255,19.4576,0.513376,16.3652,-0.577769,17.3153,-40.201,10.012,7.34963,-0.0728316,0.144842,-0.0898805,-0.0105036,-1.9533,0.236635,0.0940629,0.0324318,0.0952611,0.0865178,0.158874,-0.139154,-0.088582,1.09934,0.000429117,1.85232,12.1791,6.77505,5.44199,4.09124,39.1771,0.0313628,-7.09393,-34.8714,-6.75933,32.533,1.58264,3.52379,0.017502,
0.146256,-0.0929569,-0.0110717,-1.96229,0.264888,0.0948955,0.0321122,0.119881,-0.0256,0.129097,-0.392613,0.755725,0.727752,-0.00769796,0.123943,1.15666,0.0233655,0.952481,11.6696,16.0044,0.647536,16.017,-0.405759,16.9396,-39.6387,10.012,7.818,-0.0531463,0.144842,-0.0898805,-0.0105036,-1.9533,0.236635,0.0940629,0.0324318,0.0952611,0.0865178,0.158874,-0.139154,-0.088582,1.09934,0.000429117,0,0,0,0,0,0,0,-7.09393,-34.8714,-6.75933,32.533,1.58264,3.52379,0.017502,
0.146543,-0.0898983,-0.00859158,-1.95874,0.243533,0.111021,0.0322519,0.117217,-0.0223541,0.126877,-0.386768,0.71436,0.786913,-0.00802345,-1.66529,2.02864,-1.38761,3.65337,-25.8529,36.9751,-0.203431,16.7491,-0.687098,17.7282,-40.7542,10.012,6.67289,-0.0941129,0.144842,-0.0898805,-0.0105036,-1.9533,0.236635,0.0940629,0.0324318,0.0952611,0.0865178,0.158874,-0.139154,-0.088582,1.09934,0.000429117,0,0,0,0,0,0,0,-7.09393,-34.8714,-6.75933,32.533,1.58264,3.52379,0.017502,
0.147434,-0.0899835,-0.00762137,-1.96175,0.249102,0.118732,0.032201,0.116039,-0.0200117,0.125757,-0.384777,0.710731,0.822311,-0.00769101,-0.736436,1.46401,-0.70007,1.24403,-2.26848,22.1237,0.207771,16.3652,-0.577769,17.3153,-40.201,10.012,7.34963,-0.0728316,0.144842,-0.0898805,-0.0105036,-1.9533,0.236635,0.0940629,0.0324318,0.0952611,0.0865178,0.158874,-0.139154,-0.088582,1.09934,0.000429117,0,0,0,0,0,0,0,-7.09393,-34.8714,-6.75933,32.533,1.58264,3.52379,0.017502,
0.148373,-0.0900473,-0.00660866,-1.96479,0.255438,0.126112,0.0321686,0.116316,-0.017606,0.125923,-0.383815,0.726966,0.842328,-0.00696094,0.173523,1.50359,0.104009,0.601583,10.1469,12.5111,0.456298,16.1252,-0.233709,17.055,-39.8349,10.089,7.65774,-0.052738,0.147077,-0.0893428,-0.00708922,-1.96051,0.23649,0.133834,0.0324312,0.0615106,-0.0360978,0.0618077,-0.188046,0.0418876,1.15849,0.00018323,-4.21881,-15.3269,-12.1333,-6.11152,16.3087,7.39393,-0.0307359,-0.984311,-35.8434,-1.28844,25.5823,1.8518,2.19811,-0.0163725,
0.148163,-0.0902723,-0.00584121,-1.96567,0.244218,0.15135,0.032304,0.107852,-0.0250206,0.117405,-0.375153,0.698651,0.886013,-0.00684642,-5.29013,-4.63414,-5.32355,5.41344,-17.6966,27.3029,0.0715754,16.4734,-0.405719,17.4307,-40.3972,10.089,7.18936,-0.0724232,0.147077,-0.0893428,-0.00708922,-1.96051,0.23649,0.133834,0.0324312,0.0615106,-0.0360978,0.0618077,-0.188046,0.0418876,1.15849,0.00018323,0,0,0,0,0,0,0,-0.984311,-35.8434,-1.28844,25.5823,1.8518,2.19811,-0.0163725,
0.148858,-0.0906136,-0.00507789,-1.9685,0.249953,0.159366,0.032273,0.103662,-0.0285481,0.113007,-0.370821,0.702293,0.909212,-0.00625216,-2.61856,-2.20468,-2.74878,2.7078,2.27585,14.4997,0.371409,16.1252,-0.233709,17.055,-39.8349,10.089,7.65774,-0.052738,0.147077,-0.0893428,-0.00708922,-1.96051,0.23649,0.133834,0.0324312,0.0615106,-0.0360978,0.0618077,-0.188046,0.0418876,1.15849,0.00018323,0,0,0,0,0,0,0,-0.984311,-35.8434,-1.28844,25.5823,1.8518,2.19811,-0.0163725,
0.149647,-0.0908636,-0.00422389,-1.97137,0.256386,0.167017,0.0322578,0.102655,-0.0290882,0.111756,-0.368406,0.72267,0.918646,-0.00538139,-0.629619,-0.337572,-0.782119,1.50917,12.736,5.8962,0.544234,15.8055,-0.0226256,16.7087,-39.2687,10.089,7.91722,-0.0338259,0.147077,-0.0893428,-0.00708922,-1.96051,0.23649,0.133834,0.0324312,0.0615106,-0.0360978,0.0618077,-0.188046,0.0418876,1.15849,0.00018323,0,0,0,0,0,0,0,-0.984311,-35.8434,-1.28844,25.5823,1.8518,2.19811,-0.0163725,
0.150515,-0.0910352,-0.00329251,-1.97425,0.263294,0.174368,0.0322563,0.103817,-0.0275596,0.112689,-0.366771,0.750843,0.918689,-0.00434279,0.726594,0.955343,0.583298,1.02172,17.6079,0.0265278,0.649124,15.4967,0.341338,16.3854,-38.7997,10.0996,7.91782,-0.0160842,0.149909,-0.0888576,-0.00253844,-1.96891,0.240111,0.173068,0.0324299,0.0727784,-0.0434044,0.144894,-0.21202,0.124365,1.11159,-0.00129583,1.40847,-0.913334,10.3858,-2.99668,10.3096,-5.86295,-0.184882,4.72065,-28.1548,4.26179,16.4655,2.07794,0.341421,0.0376436,
0.15149,-0.0897498,-0.000771878,-1.97415,0.24897,0.190027,0.0323172,0.103212,-0.0322643,0.112343,-0.361884,0.73105,0.940842,-0.00454225,-0.378537,-2.94041,-0.216423,3.05483,-12.3707,13.8455,-0.124665,16.1156,-0.0980677,17.0559,-39.9342,10.0996,7.53074,-0.0524408,0.149909,-0.0888576,-0.00253844,-1.96891,0.240111,0.173068,0.0324299,0.0727784,-0.0434044,0.144894,-0.21202,0.124365,1.11159,-0.00129583,0,0,0,0,0,0,0,4.72065,-28.1548,4.26179,16.4655,2.07794,0.341421,0.0376436,
0.152346,-0.0900568,0.000157398,-1.97697,0.255159,0.197825,0.0322956,0.103983,-0.0334853,0.113106,-0.359986,0.739578,0.947632,-0.00417487,0.481875,-0.763117,0.477066,1.18576,5.32994,4.24436,0.229611,15.7959,0.113016,16.7097,-39.3679,10.0996,7.79023,-0.0335287,0.149909,-0.0888576,-0.00253844,-1.96891,0.240111,0.173068,0.0324299,0.0727784,-0.0434044,0.144894,-0.21202,0.124365,1.11159,-0.00129583,0,0,0,0,0,0,0,4.72065,-28.1548,4.26179,16.4655,2.07794,0.341421,0.0376436,
0.153256,-0.0902721,0.00113529,-1.97982,0.261971,0.205261,0.0322905,0.105925,-0.0321713,0.114932,-0.359161,0.761969,0.94399,-0.00346793,1.21415,0.821213,1.14121,0.516089,13.9943,-2.27686,0.44184,15.4967,0.341338,16.3854,-38.7997,10.0996,7.91782,-0.0160842,0.149909,-0.0888576,-0.00253844,-1.96891,0.240111,0.173068,0.0324299,0.0727784,-0.0434044,0.144894,-0.21202,0.124365,1.11159,-0.00129583,0,0,0,0,0,0,0,4.72065,-28.1548,4.26179,16.4655,2.07794,0.341421,0.0376436,
0.154025,-0.0899457,0.00378675,-1.98213,0.254831,0.224334,0.0323429,0.108092,-0.030896,0.117307,-0.359286,0.757696,0.936615,-0.00348289,1.35384,0.797065,1.48454,-0.0785373,-2.67036,-4.60881,-0.0093494,15.8302,0.11616,16.7541,-39.3991,10.146,7.67005,-0.0338077,0.152174,-0.0895107,0.00175141,-1.97659,0.244242,0.209692,0.032427,0.0771312,0.00318051,0.176154,-0.221086,0.306128,0.857696,-0.00266988,0.544092,5.82312,3.90751,-1.13323,22.7204,-31.7365,-0.171756,12.56,-27.7342,11.6608,15.3943,2.19329,0.632559,0.0641939,
0.154989,-0.0900848,0.00482372,-1.98506,0.261518,0.231361,0.0323347,0.110571,-0.0281946,0.11977,-0.360466,0.773318,0.924971,-0.00299121,1.54966,1.68841,1.53917,-0.736975,9.76338,-7.27755,0.307301,15.531,0.344482,16.4299,-38.8309,10.146,7.79763,-0.0163632,0.152174,-0.0895107,0.00175141,-1.97659,0.244242,0.209692,0.032427,0.0771312,0.00318051,0.176154,-0.221086,0.306128,0.857696,-0.00266988,0,0,0,0,0,0,0,12.56,-27.7342,11.6608,15.3943,2.19329,0.632559,0.0641939,
0.155993,-0.0901614,0.00589512,-1.98797,0.268555,0.23816,0.0323437,0.113554,-0.0244699,0.122601,-0.361176,0.794596,0.909955,-0.00216672,1.86436,2.32791,1.76936,-0.444303,13.2991,-9.3853,0.515307,15.2478,0.575763,16.1227,-38.2659,10.146,7.79271,0.000175823,0.152174,-0.0895107,0.00175141,-1.97659,0.244242,0.209692,0.032427,0.0771312,0.00318051,0.176154,-0.221086,0.306128,0.857696,-0.00266988,0,0,0,0,0,0,0,12.56,-27.7342,11.6608,15.3943,2.19329,0.632559,0.0641939,
0.157037,-0.0901884,0.00700324,-1.99085,0.275649,0.244739,0.0323686,0.116951,-0.0202494,0.125784,-0.361022,0.813021,0.892431,-0.00111104,2.12297,2.63783,1.98935,0.0963358,11.5152,-10.9526,0.659795,14.9755,0.798082,15.8279,-37.7053,9.72652,7.72128,0.0158367,0.152174,-0.0895107,0.00175141,-1.97659,0.244242,0.209692,0.032427,0.0771312,0.00318051,0.176154,-0.221086,0.306128,0.857696,-0.00266988,0,0,0,0,0,0,0,12.56,-27.7342,11.6608,15.3943,2.19329,0.632559,0.0641939,
0.154011,-0.0899108,0.00376955,-1.98207,0.254841,0.224334,0.0323691,0.116672,-0.0208579,0.125715,-0.359808,0.798694,0.895154,-0.00127301,-0.174368,-0.380278,-0.0431541,0.759135,-8.95402,1.70209,-0.101231,15.531,0.344482,16.4299,-38.8309,10.146,7.79763,-0.0163632,0.152174,-0.0895107,0.00175141,-1.97659,0.244242,0.209692,0.032427,0.0771312,0.00318051,0.176154,-0.221086,0.306128,0.857696,-0.00266988,0,0,0,0,0,0,0,12.56,-27.7342,11.6608,15.3943,2.19329,0.632559,0.0641939,
0.154969,-0.0900306,0.00479784,-1.98494,0.261408,0.231328,0.0323748,0.117295,-0.0196824,0.126279,-0.35963,0.803129,0.89098,-0.000875842,0.389771,0.73466,0.352584,0.111021,2.77203,-2.60869,0.248232,15.2435,0.583482,16.132,-38.2774,10.155,7.73214,0.000381273,0.155252,-0.0900263,0.00675756,-1.98557,0.253848,0.235182,0.0324392,0.11719,0.0497174,0.149909,-0.287899,0.314782,0.623644,-0.00270885,5.00731,5.81711,-3.28065,-8.35169,1.08178,-29.2565,-0.00487128,0.638309,-22.9894,0.889601,17.2113,1.65588,0.632559,0.0843355,
0.155969,-0.0900912,0.00586251,-1.9878,0.268202,0.238064,0.0323981,0.118839,-0.0172601,0.12764,-0.359109,0.81235,0.881174,-0.000119531,0.964902,1.51393,0.8506,0.325376,5.76259,-6.1289,0.472695,14.9711,0.805801,15.8372,-37.7168,9.73558,7.66071,0.0160422,0.155252,-0.0900263,0.00675756,-1.98557,0.253848,0.235182,0.0324392,0.11719,0.0497174,0.149909,-0.287899,0.314782,0.623644,-0.00270885,0,0,0,0,0,0,0,0.638309,-22.9894,0.889601,17.2113,1.65588,0.632559,0.0843355,
0.157006,-0.0901054,0.00696119,-1.99063,0.275004,0.244554,0.0324347,0.120991,-0.0141628,0.129579,-0.35801,0.819941,0.867203,0.000818612,1.34476,1.93581,1.2119,0.68741,4.74443,-8.73155,0.58634,14.7012,1.01433,15.5455,-37.1666,9.15649,7.51643,0.032141,0.155252,-0.0900263,0.00675756,-1.98557,0.253848,0.235182,0.0324392,0.11719,0.0497174,0.149909,-0.287899,0.314782,0.623644,-0.00270885,0,0,0,0,0,0,0,0.638309,-22.9894,0.889601,17.2113,1.65588,0.632559,0.0843355,
0.157189,-0.0897626,0.00886902,-1.99164,0.264339,0.247095,0.0324098,0.121122,-0.00828164,0.129961,-0.363544,0.800856,0.84466,0.000650025,0.0816757,3.67573,0.238488,-3.45915,-11.9281,-14.0896,-0.105367,15.2435,0.583482,16.132,-38.2774,10.155,7.73214,0.000381273,0.155252,-0.0900263,0.00675756,-1.98557,0.253848,0.235182,0.0324392,0.11719,0.0497174,0.149909,-0.287899,0.314782,0.623644,-0.00270885,0,0,0,0,0,0,0,0.638309,-22.9894,0.889601,17.2113,1.65588,0.632559,0.0843355,
0.158192,-0.0896242,0.00994221,-1.99469,0.270627,0.253104,0.0324308,0.121976,-0.00316624,0.130798,-0.367075,0.79788,0.825965,0.00104524,0.53416,3.19712,0.523398,-2.20679,-1.85988,-11.6845,0.247011,14.9739,0.856306,15.8558,-37.759,9.71929,7.62545,0.0163931,0.159122,-0.0893649,0.012301,-1.99512,0.266377,0.254655,0.0324447,0.107665,0.0388956,0.144881,-0.317156,0.275275,0.632516,-0.00232109,-1.19056,-1.35273,-0.628519,-3.65714,-4.93838,1.10902,0.0484693,-5.67364,-30.8763,-6.03728,30.7159,2.23632,2.88018,0.0303194,
0.159227,-0.0894713,0.0110425,-1.99768,0.277085,0.259029,0.0324667,0.123448,0.00129038,0.132145,-0.36839,0.79975,0.80888,0.00173264,0.919958,2.78538,0.841874,-0.82154,1.16914,-10.6781,0.429626,14.7039,1.06484,15.5641,-37.2087,9.14021,7.48117,0.0324919,0.159122,-0.0893649,0.012301,-1.99512,0.266377,0.254655,0.0324447,0.107665,0.0388956,0.144881,-0.317156,0.275275,0.632516,-0.00232109,0,0,0,0,0,0,0,-5.67364,-30.8763,-6.03728,30.7159,2.23632,2.88018,0.0303194,
0.160978,-0.0890654,0.0143296,-2.00122,0.276092,0.266287,0.0324432,0.122205,0.00478068,0.13109,-0.371518,0.774337,0.79393,0.00173458,-0.776907,2.18144,-0.659215,-1.95556,-15.8836,-9.34366,0.00121381,14.9739,0.856306,15.8558,-37.759,9.71929,7.62545,0.0163931,0.159122,-0.0893649,0.012301,-1.99512,0.266377,0.254655,0.0324447,0.107665,0.0388956,0.144881,-0.317156,0.275275,0.632516,-0.00232109,0,0,0,0,0,0,0,-5.67364,-30.8763,-6.03728,30.7159,2.23632,2.88018,0.0303194,
0.161949,-0.088897,0.0153692,-2.00424,0.281966,0.272122,0.0324761,0.122021,0.00803565,0.130862,-0.372784,0.766314,0.781029,0.00220835,-0.114892,2.03435,-0.142494,-0.791075,-5.01397,-8.06343,0.296104,14.7039,1.06484,15.5641,-37.2087,9.14021,7.48117,0.0324919,0.159122,-0.0893649,0.012301,-1.99512,0.266377,0.254655,0.0324447,0.107665,0.0388956,0.144881,-0.317156,0.275275,0.632516,-0.00232109,0,0,0,0,0,0,0,-5.67364,-30.8763,-6.03728,30.7159,2.23632,2.88018,0.0303194,
0.16295,-0.0887156,0.0164356,-2.0072,0.288043,0.277863,0.0325234,0.122643,0.0109643,0.131351,-0.372188,0.764968,0.768342,0.00295015,0.388362,1.83041,0.305038,0.372514,-0.841761,-7.92919,0.463627,14.3471,1.34336,15.1939,-36.6709,8.6403,7.28724,0.0472782,0.162744,-0.0871537,0.0183957,-2.00415,0.273351,0.272986,0.0324435,0.0996461,0.153485,0.168523,-0.251223,0.119795,0.50353,0.00081658,-1.00238,14.3236,2.95529,8.24166,-19.435,-16.1232,0.392209,-6.48694,-25.5602,-6.33483,24.2889,1.25946,1.46844,0.00376909,
0.163979,-0.0885285,0.017529,-2.01009,0.294036,0.283479,0.0325877,0.12385,0.0134472,0.132415,-0.370018,0.7618,0.755089,0.00396728,0.754758,1.55181,0.665601,1.35635,-1.97943,-8.28318,0.635704,14.0198,1.52865,14.8437,-36.1488,8.25192,7.08127,0.0616488,0.162744,-0.0871537,0.0183957,-2.00415,0.273351,0.272986,0.0324435,0.0996461,0.153485,0.168523,-0.251223,0.119795,0.50353,0.00081658,0,0,0,0,0,0,0,-6.48694,-25.5602,-6.33483,24.2889,1.25946,1.46844,0.00376909,
0.164628,-0.0860008,0.0204665,-2.01035,0.281588,0.283828,0.03245,0.122636,0.0231655,0.131522,-0.375215,0.727728,0.74211,0.00368979,-0.75912,6.07392,-0.558314,-3.24809,-21.2954,-8.11175,-0.173434,14.6443,1.14997,15.5139,-37.2074,9.12946,7.46231,0.0331417,0.162744,-0.0871537,0.0183957,-2.00415,0.273351,0.272986,0.0324435,0.0996461,0.153485,0.168523,-0.251223,0.119795,0.50353,0.00081658,0,0,0,0,0,0,0,-6.48694,-25.5602,-6.33483,24.2889,1.25946,1.46844,0.00376909,
0.165588,-0.0855726,0.0214991,-2.01346,0.286929,0.289309,0.0324922,0.122123,0.0292375,0.131034,-0.378049,0.71569,0.730732,0.0040067,-0.320575,3.79502,-0.304826,-1.77128,-7.52356,-7.11107,0.198071,14.3471,1.34336,15.1939,-36.6709,8.6403,7.28724,0.0472782,0.162744,-0.0871537,0.0183957,-2.00415,0.273351,0.272986,0.0324435,0.0996461,0.153485,0.168523,-0.251223,0.119795,0.50353,0.00081658,0,0,0,0,0,0,0,-6.48694,-25.5602,-6.33483,24.2889,1.25946,1.46844,0.00376909,
0.166576,-0.0851902,0.0225543,-2.01649,0.292428,0.294694,0.0325544,0.122381,0.0329504,0.131207,-0.378078,0.710035,0.719187,0.00475984,0.161294,2.32058,0.108077,-0.0179602,-3.53461,-7.21567,0.470714,14.0317,1.58598,14.8649,-36.162,8.2635,7.06609,0.0619004,0.165493,-0.0845717,0.0243705,-2.0132,0.275427,0.286249,0.0324508,0.0815686,0.0894322,0.201895,-0.250129,0.0606151,0.404933,0.00121559,-2.25969,-8.00654,4.17148,0.13671,-7.39745,-12.3246,0.049876,6.57337,-38.2158,5.83681,37.6151,2.82867,3.75542,-0.0630644,
0.167454,-0.0839504,0.0265226,-2.0192,0.283007,0.296051,0.0324755,0.12225,0.0334524,0.131337,-0.379049,0.67925,0.702423,0.00455257,-0.0819576,0.313748,0.0810046,-0.607141,-19.2404,-10.4776,-0.129542,14.3589,1.40069,15.2151,-36.6841,8.65188,7.27206,0.0475297,0.165493,-0.0845717,0.0243705,-2.0132,0.275427,0.286249,0.0324508,0.0815686,0.0894322,0.201895,-0.250129,0.0606151,0.404933,0.00121559,0,0,0,0,0,0,0,6.57337,-38.2158,5.83681,37.6151,2.82867,3.75542,-0.0630644,
0.168438,-0.083669,0.0275788,-2.02221,0.287996,0.301205,0.0325318,0.122391,0.0337975,0.131476,-0.37858,0.668111,0.690777,0.00505075,0.0885224,0.215649,0.087072,0.293146,-6.96205,-7.27865,0.31136,14.0317,1.58598,14.8649,-36.162,8.2635,7.06609,0.0619004,0.165493,-0.0845717,0.0243705,-2.0132,0.275427,0.286249,0.0324508,0.0815686,0.0894322,0.201895,-0.250129,0.0606151,0.404933,0.00121559,0,0,0,0,0,0,0,6.57337,-38.2158,5.83681,37.6151,2.82867,3.75542,-0.0630644,
0.169433,-0.0833888,0.0286421,-2.02515,0.293157,0.306312,0.0325976,0.122795,0.0340439,0.131763,-0.376221,0.663523,0.680304,0.005686,0.252618,0.154023,0.179339,1.47461,-2.86718,-6.54574,0.39703,13.631,1.76448,14.4713,-35.661,7.51645,6.86012,0.0795581,0.165493,-0.0845717,0.0243705,-2.0132,0.275427,0.286249,0.0324508,0.0815686,0.0894322,0.201895,-0.250129,0.0606151,0.404933,0.00121559,0,0,0,0,0,0,0,6.57337,-38.2158,5.83681,37.6151,2.82867,3.75542,-0.0630644,
0.170444,-0.0831131,0.0297191,-2.02799,0.298058,0.311295,0.0326656,0.123514,0.0341281,0.132336,-0.371984,0.653346,0.668816,0.00624867,0.449345,0.0526566,0.357738,2.64783,-6.36083,-7.17984,0.351673,13.0924,2.05011,13.913,-35.1553,6.98454,6.59326,0.0851918,0.16752,-0.0805514,0.0290825,-2.02182,0.275725,0.295514,0.0324504,0.0574527,0.136419,0.154485,-0.25671,-0.00675511,0.248015,0.000377012,-3.0145,5.87334,-5.92626,-0.822532,-8.42128,-19.6148,-0.104822,3.22498,-31.4754,2.53602,35.2228,2.13287,4.01452,-0.0566557,
0.169114,-0.0794474,0.0308513,-2.02804,0.282103,0.303808,0.0325106,0.11921,0.0397249,0.128174,-0.376798,0.617451,0.645811,0.00624405,-2.69024,3.49796,-2.6012,-3.00883,-22.4342,-14.378,-0.00289047,14.032,1.67397,14.8647,-36.1327,8.28365,7.07933,0.0619648,0.16752,-0.0805514,0.0290825,-2.02182,0.275725,0.295514,0.0324504,0.0574527,0.136419,0.154485,-0.25671,-0.00675511,0.248015,0.000377012,0,0,0,0,0,0,0,3.22498,-31.4754,2.53602,35.2228,2.13287,4.01452,-0.0566557,
0.169969,-0.0789912,0.0317752,-2.03114,0.286452,0.308418,0.0325747,0.116737,0.0431831,0.125638,-0.378778,0.602669,0.631897,0.00659773,-1.54578,2.16136,-1.585,-1.23744,-9.23894,-8.69633,0.221049,13.6313,1.85247,14.4711,-35.6317,7.5366,6.87336,0.0796225,0.16752,-0.0805514,0.0290825,-2.02182,0.275725,0.295514,0.0324504,0.0574527,0.136419,0.154485,-0.25671,-0.00675511,0.248015,0.000377012,0,0,0,0,0,0,0,3.22498,-31.4754,2.53602,35.2228,2.13287,4.01452,-0.0566557,
0.170865,-0.0785651,0.0327374,-2.03411,0.290783,0.313039,0.0326426,0.115791,0.0452005,0.124565,-0.377405,0.590426,0.621042,0.00697579,-0.590925,1.26091,-0.670246,0.858155,-7.65197,-6.78453,0.236289,13.0924,2.05011,13.913,-35.1553,6.98454,6.59326,0.0851918,0.16752,-0.0805514,0.0290825,-2.02182,0.275725,0.295514,0.0324504,0.0574527,0.136419,0.154485,-0.25671,-0.00675511,0.248015,0.000377012,0,0,0,0,0,0,0,3.22498,-31.4754,2.53602,35.2228,2.13287,4.01452,-0.0566557,
0.171803,-0.0781679,0.0337399,-2.03696,0.294623,0.317578,0.0327105,0.116077,0.046091,0.124714,-0.373179,0.56832,0.610311,0.00727865,0.178606,0.55654,0.0926483,2.64112,-13.8163,-6.70668,0.189285,12.5116,2.32037,13.358,-34.6156,5.76229,6.28884,0.080614,0.170134,-0.0779964,0.0338532,-2.0306,0.275864,0.298529,0.0324555,0.0597148,0.106838,0.0999777,-0.198107,-0.0434505,-0.0225406,-2.65484e-05,0.282766,-3.69758,-6.81339,7.32535,-4.58692,-33.8194,-0.050445,-3.77331,-33.8478,-3.98619,32.3822,1.5094,4.28643,-0.0630644,
0.171488,-0.0773012,0.0353614,-2.03657,0.2815,0.304859,0.0325402,0.11067,0.0449691,0.119333,-0.375509,0.539788,0.579875,0.00726238,-3.37947,-0.701207,-3.36306,-1.45572,-17.8321,-19.0224,-0.010169,13.6448,1.84769,14.4881,-35.6085,7.54898,6.89641,0.0795367,0.170134,-0.0779964,0.0338532,-2.0306,0.275864,0.298529,0.0324555,0.0597148,0.106838,0.0999777,-0.198107,-0.0434505,-0.0225406,-2.65484e-05,0,0,0,0,0,0,0,-3.77331,-33.8478,-3.98619,32.3822,1.5094,4.28643,-0.0630644,
0.17227,-0.0769612,0.0362092,-2.03958,0.285224,0.308919,0.0326065,0.108082,0.0444746,0.116661,-0.375621,0.524921,0.565401,0.00746721,-1.61743,-0.309055,-1.66961,-0.0702692,-9.2919,-9.04668,0.128019,13.1058,2.04534,13.93,-35.1322,6.99692,6.61631,0.0851061,0.170134,-0.0779964,0.0338532,-2.0306,0.275864,0.298529,0.0324555,0.0597148,0.106838,0.0999777,-0.198107,-0.0434505,-0.0225406,-2.65484e-05,0,0,0,0,0,0,0,-3.77331,-33.8478,-3.98619,32.3822,1.5094,4.28643,-0.0630644,
0.173117,-0.0766113,0.037121,-2.04247,0.288659,0.313113,0.0326741,0.107651,0.0443276,0.116122,-0.372646,0.50581,0.55718,0.00766411,-0.269274,-0.0918326,-0.33714,1.85936,-11.9446,-5.13799,0.123065,12.5116,2.32037,13.358,-34.6156,5.76229,6.28884,0.080614,0.170134,-0.0779964,0.0338532,-2.0306,0.275864,0.298529,0.0324555,0.0597148,0.106838,0.0999777,-0.198107,-0.0434505,-0.0225406,-2.65484e-05,0,0,0,0,0,0,0,-3.77331,-33.8478,-3.98619,32.3822,1.5094,4.28643,-0.0630644,
0.174017,-0.0762638,0.0380837,-2.04523,0.291527,0.317312,0.0327396,0.108607,0.044149,0.116966,-0.367358,0.476366,0.550703,0.00776891,0.597669,-0.111667,0.527509,3.30508,-18.4023,-4.04819,0.0654985,12.048,2.64963,12.9239,-33.9733,4.13252,5.9898,0.0729525,0.172684,-0.0742817,0.0379315,-2.03899,0.274468,0.296513,0.0324548,0.0714814,-0.0441156,0.0723946,-0.281874,-0.0889734,-0.123614,-0.00117741,1.47083,-18.8692,-3.44788,-10.4709,-5.69037,-12.6341,-0.143858,-10.6962,-33.5463,-10.6869,23.5669,0.740353,2.63482,-0.0566557,
0.173979,-0.0746112,0.0393664,-2.04489,0.278951,0.301094,0.032555,0.104143,0.0336723,0.112498,-0.368033,0.449516,0.512991,0.0077116,-2.79024,-6.54792,-2.79216,-0.421936,-16.7811,-23.5699,-0.0358161,13.141,2.05305,13.9637,-35.058,7.01581,6.67007,0.0847681,0.172684,-0.0742817,0.0379315,-2.03899,0.274468,0.296513,0.0324548,0.0714814,-0.0441156,0.0723946,-0.281874,-0.0889734,-0.123614,-0.00117741,0,0,0,0,0,0,0,-10.6962,-33.5463,-10.6869,23.5669,0.740353,2.63482,-0.0566557,
0.174752,-0.0745292,0.0402036,-2.04775,0.281786,0.304592,0.0326198,0.102642,0.0289869,0.11093,-0.366124,0.430495,0.497845,0.00778921,-0.938404,-2.92835,-0.980433,1.19323,-11.8882,-9.46609,0.0485065,12.5467,2.32807,13.3917,-34.5414,5.78118,6.3426,0.080276,0.172684,-0.0742817,0.0379315,-2.03899,0.274468,0.296513,0.0324548,0.0714814,-0.0441156,0.0723946,-0.281874,-0.0889734,-0.123614,-0.00117741,0,0,0,0,0,0,0,-10.6962,-33.5463,-10.6869,23.5669,0.740353,2.63482,-0.0566557,
0.175593,-0.0743564,0.0411072,-2.05051,0.284288,0.30838,0.0326838,0.103132,0.0275097,0.111333,-0.361828,0.406943,0.49296,0.00783225,0.306545,-0.923251,0.251837,2.68511,-14.7202,-3.05347,0.0268987,12.048,2.64963,12.9239,-33.9733,4.13252,5.9898,0.0729525,0.172684,-0.0742817,0.0379315,-2.03899,0.274468,0.296513,0.0324548,0.0714814,-0.0441156,0.0723946,-0.281874,-0.0889734,-0.123614,-0.00117741,0,0,0,0,0,0,0,-10.6962,-33.5463,-10.6869,23.5669,0.740353,2.63482,-0.0566557,
0.173994,-0.074587,0.0393792,-2.04475,0.277843,0.300771,0.0325552,0.100001,0.0206443,0.108216,-0.36163,0.375743,0.461983,0.00773241,-1.95681,-4.29091,-1.94771,0.12363,-19.5,-19.3602,-0.0624035,12.5467,2.32807,13.3917,-34.5414,5.78118,6.3426,0.080276,0.172684,-0.0742817,0.0379315,-2.03899,0.274468,0.296513,0.0324548,0.0714814,-0.0441156,0.0723946,-0.281874,-0.0889734,-0.123614,-0.00117741,0,0,0,0,0,0,0,-10.6962,-33.5463,-10.6869,23.5669,0.740353,2.63482,-0.0566557,
0.174773,-0.074497,0.0402213,-2.04754,0.279823,0.304053,0.032617,0.0994678,0.0187669,0.107625,-0.359168,0.350088,0.451658,0.00772933,-0.33336,-1.17335,-0.369508,1.53876,-16.0345,-6.45325,-0.00192073,12.0268,2.61315,12.8991,-33.8768,4.13368,6.04944,0.07259,0.174752,-0.0711516,0.0411152,-2.04754,0.273455,0.294451,0.0324411,0.0373849,-0.0712651,0.047404,-0.252071,-0.0302399,-0.113716,-0.0033559,-4.26206,-3.39369,-3.12382,3.72541,7.34169,1.23724,-0.272311,-8.23651,-38.5411,-8.18755,26.2289,1.00311,2.52221,0.0376436,
0.175613,-0.0743179,0.0411238,-2.05023,0.281459,0.307617,0.0326774,0.100588,0.0194913,0.108663,-0.354687,0.320968,0.450423,0.00769496,0.699872,0.452769,0.648857,2.80038,-18.2001,-0.771866,-0.0214835,11.6819,2.90789,12.5545,-33.2859,2.75968,5.70568,0.0671223,0.174752,-0.0711516,0.0411152,-2.04754,0.273455,0.294451,0.0324411,0.0373849,-0.0712651,0.047404,-0.252071,-0.0302399,-0.113716,-0.0033559,0,0,0,0,0,0,0,-8.23651,-38.5411,-8.18755,26.2289,1.00311,2.52221,0.0376436,
0.1765,-0.0740884,0.0420715,-2.05284,0.282605,0.311291,0.0327375,0.102635,0.0213288,0.110623,-0.348901,0.28544,0.452182,0.00765906,1.27944,1.14843,1.2246,3.6164,-22.2047,1.09913,-0.0224386,11.4711,3.13601,12.3307,-32.6943,1.61505,5.37833,0.0628959,0.174752,-0.0711516,0.0411152,-2.04754,0.273455,0.294451,0.0324411,0.0373849,-0.0712651,0.047404,-0.252071,-0.0302399,-0.113716,-0.0033559,0,0,0,0,0,0,0,-8.23651,-38.5411,-8.18755,26.2289,1.00311,2.52221,0.0376436,
0.175811,-0.0717611,0.0422957,-2.05287,0.27596,0.298848,0.0325512,0.0970188,0.0123298,0.104896,-0.346461,0.263487,0.430962,0.00765134,-3.50994,-5.62442,-3.57891,1.52505,-13.7208,-13.2622,-0.00482166,12.0268,2.61315,12.8991,-33.8768,4.13368,6.04944,0.07259,0.174752,-0.0711516,0.0411152,-2.04754,0.273455,0.294451,0.0324411,0.0373849,-0.0712651,0.047404,-0.252071,-0.0302399,-0.113716,-0.0033559,0,0,0,0,0,0,0,-8.23651,-38.5411,-8.18755,26.2289,1.00311,2.52221,0.0376436,
0.176512,-0.0717778,0.0430554,-2.0555,0.277213,0.302174,0.0326124,0.0951364,0.0094461,0.102909,-0.343025,0.242123,0.42792,0.00765088,-1.17651,-1.80228,-1.24211,2.14717,-13.3526,-1.90145,-0.000288791,11.6804,2.81459,12.5619,-33.2026,2.77276,5.75874,0.0668178,0.176464,-0.0719247,0.0445239,-2.05767,0.272531,0.293527,0.0324455,0.0558559,0.00136232,0.0908366,-0.235558,-0.0299817,0.0168932,-0.000379095,2.30887,9.07842,5.42907,2.06404,0.0322756,16.3261,0.3721,-3.11474,-37.1407,-2.91106,30.6406,1.29608,3.17223,-0.0163725,
0.177291,-0.071683,0.0438933,-2.05807,0.278099,0.30576,0.0326733,0.0955934,0.00992913,0.103277,-0.338458,0.215849,0.431989,0.00764359,0.285648,0.301894,0.229834,2.85467,-16.4207,2.54322,-0.00455324,11.4695,3.0427,12.3382,-32.611,1.62814,5.43138,0.0625914,0.176464,-0.0719247,0.0445239,-2.05767,0.272531,0.293527,0.0324455,0.0558559,0.00136232,0.0908366,-0.235558,-0.0299817,0.0168932,-0.000379095,0,0,0,0,0,0,0,-3.11474,-37.1407,-2.91106,30.6406,1.29608,3.17223,-0.0163725,
0.177833,-0.0719381,0.0460257,-2.0629,0.274196,0.298781,0.0325434,0.0946555,0.00906288,0.10238,-0.337137,0.195275,0.421573,0.00748322,-0.586206,-0.541402,-0.560474,0.825354,-12.859,-6.51028,-0.100237,11.6804,2.81459,12.5619,-33.2026,2.77276,5.75874,0.0668178,0.176464,-0.0719247,0.0445239,-2.05767,0.272531,0.293527,0.0324455,0.0558559,0.00136232,0.0908366,-0.235558,-0.0299817,0.0168932,-0.000379095,0,0,0,0,0,0,0,-3.11474,-37.1407,-2.91106,30.6406,1.29608,3.17223,-0.0163725,
0.178628,-0.0718005,0.046882,-2.0655,0.27488,0.302182,0.0326015,0.0955994,0.0106903,0.10331,-0.3348,0.173322,0.422284,0.00743847,0.589902,1.01713,0.581317,1.46116,-13.7208,0.444788,-0.0279632,11.4695,3.0427,12.3382,-32.611,1.62814,5.43138,0.0625914,0.176464,-0.0719247,0.0445239,-2.05767,0.272531,0.293527,0.0324455,0.0558559,0.00136232,0.0908366,-0.235558,-0.0299817,0.0168932,-0.000379095,0,0,0,0,0,0,0,-3.11474,-37.1407,-2.91106,30.6406,1.29608,3.17223,-0.0163725,
0.179474,-0.0716029,0.0477881,-2.06804,0.2752,0.305727,0.0326599,0.0976263,0.0134914,0.105301,-0.331216,0.14666,0.426442,0.00741119,1.26681,1.7507,1.24459,2.23967,-16.6636,2.59876,-0.0170501,11.3655,3.06493,12.226,-31.9762,0.657801,5.15314,0.0618696,0.177979,-0.0728657,0.0478165,-2.06594,0.270312,0.295233,0.0324371,0.0431445,-0.0827572,0.0988935,-0.207283,-0.0846359,0.0762324,-0.00156959,-1.58892,-10.5149,1.00712,3.53446,-6.83177,7.4174,-0.148812,-0.452694,-31.4516,-0.610033,15.5927,0.690914,0.579458,0.0303194,
0.180357,-0.0713714,0.0487304,-2.07051,0.275109,0.309297,0.0327194,0.100171,0.0165809,0.107799,-0.326772,0.115049,0.430403,0.00741807,1.5903,1.93091,1.56086,2.77755,-19.757,2.47515,0.00429618,11.3285,3.14008,12.1681,-31.4079,-0.140378,4.88115,0.0617929,0.177979,-0.0728657,0.0478165,-2.06594,0.270312,0.295233,0.0324371,0.0431445,-0.0827572,0.0988935,-0.207283,-0.0846359,0.0762324,-0.00156959,0,0,0,0,0,0,0,-0.452694,-31.4516,-0.610033,15.5927,0.690914,0.579458,0.0303194,
0.179327,-0.0736791,0.0492928,-2.07061,0.270799,0.301002,0.0325322,0.0980885,0.00587792,0.105688,-0.321066,0.09962,0.425938,0.00727698,-1.30138,-6.68933,-1.31922,3.56604,-9.64305,-2.79009,-0.0881802,11.4701,2.91418,12.3482,-32.5597,1.63944,5.44681,0.0624777,0.177979,-0.0728657,0.0478165,-2.06594,0.270312,0.295233,0.0324371,0.0431445,-0.0827572,0.0988935,-0.207283,-0.0846359,0.0762324,-0.00156959,0,0,0,0,0,0,0,-0.452694,-31.4516,-0.610033,15.5927,0.690914,0.579458,0.0303194,
0.180112,-0.0738017,0.0501363,-2.07299,0.270916,0.304582,0.0325889,0.0980863,0.00163785,0.105637,-0.316339,0.0826147,0.430232,0.00723998,-0.00140625,-2.65004,-0.0318597,2.95451,-10.6284,2.68357,-0.023123,11.3655,3.06493,12.226,-31.9762,0.657801,5.15314,0.0618696,0.177979,-0.0728657,0.0478165,-2.06594,0.270312,0.295233,0.0324371,0.0431445,-0.0827572,0.0988935,-0.207283,-0.0846359,0.0762324,-0.00156959,0,0,0,0,0,0,0,-0.452694,-31.4516,-0.610033,15.5927,0.690914,0.579458,0.0303194,
0.180947,-0.0738066,0.0510293,-2.07534,0.27072,0.308262,0.0326478,0.0993334,0.00118868,0.106834,-0.311847,0.061184,0.436204,0.00726269,0.779446,-0.280729,0.748346,2.80784,-13.3942,3.73266,0.014189,11.3309,3.11267,12.1771,-31.3468,-0.122232,4.92067,0.0615744,0.179568,-0.0726325,0.0517057,-2.07392,0.268726,0.296745,0.0324363,0.0514986,-0.00216483,0.134489,-0.220309,-0.0412712,0.0710598,-0.00189489,1.04427,10.074,4.44944,-1.62831,5.42058,-0.646573,-0.0406616,2.2887,-25.3102,1.93696,15.8942,1.02142,0.62615,0.0376436,
0.181817,-0.0737346,0.0519576,-2.07766,0.270182,0.311928,0.0327074,0.101223,0.00274984,0.108677,-0.307501,0.035513,0.440607,0.00729998,1.18075,0.975722,1.15139,2.71592,-16.0443,2.75162,0.0233062,11.3396,3.12381,12.1642,-30.7928,-0.786312,4.67839,0.0638447,0.179568,-0.0726325,0.0517057,-2.07392,0.268726,0.296745,0.0324363,0.0514986,-0.00216483,0.134489,-0.220309,-0.0412712,0.0710598,-0.00189489,0,0,0,0,0,0,0,2.2887,-25.3102,1.93696,15.8942,1.02142,0.62615,0.0376436,
0.181173,-0.0726907,0.053444,-2.07878,0.268863,0.30201,0.0325334,0.101769,0.00262038,0.10927,-0.307868,0.0290941,0.426617,0.00718812,0.341689,-0.080915,0.370697,-0.229073,-4.01186,-8.7437,-0.0699066,11.3679,3.03752,12.235,-31.915,0.675947,5.19266,0.0616511,0.179568,-0.0726325,0.0517057,-2.07392,0.268726,0.296745,0.0324363,0.0514986,-0.00216483,0.134489,-0.220309,-0.0412712,0.0710598,-0.00189489,0,0,0,0,0,0,0,2.2887,-25.3102,1.93696,15.8942,1.02142,0.62615,0.0376436,
0.182045,-0.0725891,0.0543769,-2.08123,0.268618,0.305253,0.0325913,0.10323,0.00463596,0.110738,-0.307532,0.0171351,0.422357,0.00719755,0.912661,1.25974,0.917429,0.209861,-7.47432,-2.66257,0.00588795,11.3309,3.11267,12.1771,-31.3468,-0.122232,4.92067,0.0615744,0.179568,-0.0726325,0.0517057,-2.07392,0.268726,0.296745,0.0324363,0.0514986,-0.00216483,0.134489,-0.220309,-0.0412712,0.0710598,-0.00189489,0,0,0,0,0,0,0,2.2887,-25.3102,1.93696,15.8942,1.02142,0.62615,0.0376436,
0.182946,-0.072431,0.0553376,-2.08363,0.268051,0.308592,0.0326504,0.105109,0.00766251,0.112606,-0.306137,-0.00046,0.421383,0.00723555,1.17469,1.89159,1.16799,0.871703,-10.997,-0.608517,0.0237559,11.3189,3.09721,12.1478,-30.7533,-0.77636,4.69676,0.0637946,0.181103,-0.0721516,0.0551689,-2.08037,0.266808,0.300014,0.0324394,0.0594358,0.0890121,0.0998496,-0.174805,-0.072836,0.07399,-0.000956574,0.992148,11.3971,-4.32994,5.68803,-3.9456,0.366274,0.117289,3.1496,-27.7342,2.86134,15.6918,0.740353,0.301138,-0.0026396,
0.182567,-0.071542,0.0567567,-2.08518,0.266073,0.305456,0.0325403,0.103311,0.0130469,0.110803,-0.306918,-0.0117317,0.412378,0.00722293,-1.12374,3.36522,-1.12724,-0.488138,-7.04481,-5.62837,-0.00789365,11.3102,3.08608,12.1606,-31.3072,-0.11228,4.93903,0.0615243,0.181103,-0.0721516,0.0551689,-2.08037,0.266808,0.300014,0.0324394,0.0594358,0.0890121,0.0998496,-0.174805,-0.072836,0.07399,-0.000956574,0,0,0,0,0,0,0,3.1496,-27.7342,2.86134,15.6918,0.740353,0.301138,-0.0026396,
0.183389,-0.0712645,0.0576381,-2.08764,0.265337,0.308657,0.0326006,0.103205,0.0173753,0.110677,-0.30714,-0.0277918,0.409921,0.00728727,-0.0660886,2.70525,-0.0785388,-0.138421,-10.0376,-1.53559,0.0402153,11.3189,3.09721,12.1478,-30.7533,-0.77636,4.69676,0.0637946,0.181103,-0.0721516,0.0551689,-2.08037,0.266808,0.300014,0.0324394,0.0594358,0.0890121,0.0998496,-0.174805,-0.072836,0.07399,-0.000956574,0,0,0,0,0,0,0,3.1496,-27.7342,2.86134,15.6918,0.740353,0.301138,-0.0026396,
0.184249,-0.0709837,0.0585565,-2.09006,0.264315,0.311898,0.0326626,0.104058,0.0209187,0.111503,-0.306097,-0.0478011,0.40898,0.00737914,0.532975,2.21468,0.515802,0.651627,-12.5058,-0.587939,0.0574175,11.3468,3.05547,12.153,-30.2151,-1.28722,4.47244,0.065642,0.181103,-0.0721516,0.0551689,-2.08037,0.266808,0.300014,0.0324394,0.0594358,0.0890121,0.0998496,-0.174805,-0.072836,0.07399,-0.000956574,0,0,0,0,0,0,0,3.1496,-27.7342,2.86134,15.6918,0.740353,0.301138,-0.0026396,
0.185133,-0.0707054,0.0594994,-2.09242,0.263043,0.31511,0.032725,0.105366,0.0236939,0.112775,-0.304,-0.0700393,0.40748,0.007464,0.817661,1.7345,0.795362,1.3103,-13.8988,-0.93798,0.0530363,11.3924,3.02206,12.1756,-29.6153,-1.66601,4.32358,0.0685979,0.183487,-0.0699497,0.0590342,-2.08777,0.264182,0.300681,0.0324359,0.0728482,0.123921,0.0956263,-0.25018,-0.1142,0.00145658,-4.13519e-06,1.67654,4.36363,-0.527911,-9.42185,-5.17044,-9.06668,0.119055,-5.37213,-23.763,-5.28746,14.6207,0.331112,0.957571,0.017502,
0.185016,-0.0687832,0.0606871,-2.09304,0.262423,0.304635,0.0325471,0.104255,0.0322368,0.111692,-0.309678,-0.0802651,0.383314,0.00747682,-0.694853,5.33931,-0.676827,-3.54876,-6.39118,-15.1037,0.0080161,11.3279,3.14436,12.1559,-30.6793,-0.751626,4.74847,0.0635977,0.183487,-0.0699497,0.0590342,-2.08777,0.264182,0.300681,0.0324359,0.0728482,0.123921,0.0956263,-0.25018,-0.1142,0.00145658,-4.13519e-06,0,0,0,0,0,0,0,-5.37213,-23.763,-5.28746,14.6207,0.331112,0.957571,0.017502,
0.185862,-0.068303,0.0615921,-2.09564,0.261221,0.307216,0.0326098,0.104537,0.0377968,0.111979,-0.312549,-0.094253,0.371171,0.00754997,0.176723,3.47496,0.179507,-1.79401,-8.74238,-7.58942,0.0457154,11.3558,3.10262,12.1612,-30.1412,-1.26249,4.52415,0.0654451,0.183487,-0.0699497,0.0590342,-2.08777,0.264182,0.300681,0.0324359,0.0728482,0.123921,0.0956263,-0.25018,-0.1142,0.00145658,-4.13519e-06,0,0,0,0,0,0,0,-5.37213,-23.763,-5.28746,14.6207,0.331112,0.957571,0.017502,
0.186738,-0.067863,0.0625275,-2.09815,0.259809,0.309932,0.0326729,0.105542,0.0412362,0.112969,-0.312799,-0.110702,0.364849,0.00761655,0.628047,2.1496,0.618527,-0.156309,-10.2806,-3.95107,0.0416139,11.3924,3.02206,12.1756,-29.6153,-1.66601,4.32358,0.0685979,0.183487,-0.0699497,0.0590342,-2.08777,0.264182,0.300681,0.0324359,0.0728482,0.123921,0.0956263,-0.25018,-0.1142,0.00145658,-4.13519e-06,0,0,0,0,0,0,0,-5.37213,-23.763,-5.28746,14.6207,0.331112,0.957571,0.017502,
0.185016,-0.0687832,0.0606871,-2.09304,0.262423,0.304635,0.0325471,0.104395,0.0462706,0.111847,-0.316717,-0.112795,0.349209,0.00759886,-0.716836,3.14654,-0.701069,-2.44894,-1.30835,-9.77483,-0.011053,11.3514,3.12324,12.1532,-30.033,-1.23998,4.58527,0.065156,0.185561,-0.0671702,0.0630452,-2.09592,0.260885,0.300862,0.0324414,0.0664419,0.182408,0.123246,-0.261132,-0.103885,0.0114073,-0.000398445,-0.800785,7.31083,3.45246,-1.36906,1.28935,1.24384,-0.0492888,-0.198788,-22.6402,-0.360094,13.6526,0.795284,-0.965036,-0.0227812,
0.185885,-0.0682986,0.0616083,-2.09551,0.260597,0.306881,0.0326189,0.104807,0.0489418,0.11222,-0.317114,-0.125905,0.340705,0.00768936,0.257561,1.66947,0.233216,-0.248106,-8.1937,-5.31498,0.0565605,11.388,3.04269,12.1677,-29.5071,-1.6435,4.38469,0.0683088,0.185561,-0.0671702,0.0630452,-2.09592,0.260885,0.300862,0.0324414,0.0664419,0.182408,0.123246,-0.261132,-0.103885,0.0114073,-0.000398445,0,0,0,0,0,0,0,-0.198788,-22.6402,-0.360094,13.6526,0.795284,-0.965036,-0.0227812,
0.186765,-0.0678648,0.0625459,-2.09798,0.258987,0.309469,0.0326838,0.105848,0.0499996,0.113218,-0.315476,-0.140983,0.337252,0.00777373,0.65059,0.661131,0.623771,1.02389,-9.42363,-2.15809,0.0527334,11.4177,2.93356,12.1749,-28.9933,-1.92693,4.19873,0.0705953,0.185561,-0.0671702,0.0630452,-2.09592,0.260885,0.300862,0.0324414,0.0664419,0.182408,0.123246,-0.261132,-0.103885,0.0114073,-0.000398445,0,0,0,0,0,0,0,-0.198788,-22.6402,-0.360094,13.6526,0.795284,-0.965036,-0.0227812,
0.187662,-0.0674694,0.0634998,-2.10037,0.257247,0.312112,0.0327486,0.107102,0.0498832,0.11442,-0.312338,-0.156286,0.335886,0.00783758,0.783786,-0.0727393,0.750927,1.96128,-9.56443,-0.853708,0.0399038,11.437,2.80708,12.1731,-28.488,-2.13028,4.03158,0.0735444,0.185561,-0.0671702,0.0630452,-2.09592,0.260885,0.300862,0.0324414,0.0664419,0.182408,0.123246,-0.261132,-0.103885,0.0114073,-0.000398445,0,0,0,0,0,0,0,-0.198788,-22.6402,-0.360094,13.6526,0.795284,-0.965036,-0.0227812,
0.187221,-0.0654512,0.0648285,-2.10124,0.258511,0.304384,0.0325641,0.107099,0.0588248,0.11442,-0.316722,-0.158391,0.319229,0.00789038,-0.00224514,5.58854,6.24622e-05,-2.74023,-1.31577,-10.411,0.0329999,11.388,3.04269,12.1677,-29.5071,-1.6435,4.38469,0.0683088,0.185561,-0.0671702,0.0630452,-2.09592,0.260885,0.300862,0.0324414,0.0664419,0.182408,0.123246,-0.261132,-0.103885,0.0114073,-0.000398445,0,0,0,0,0,0,0,-0.198788,-22.6402,-0.360094,13.6526,0.795284,-0.965036,-0.0227812,
0.188109,-0.0648153,0.0657746,-2.10383,0.256938,0.306644,0.03263,0.107881,0.062956,0.115189,-0.318218,-0.166022,0.311894,0.00795983,0.488689,2.58199,0.480584,-0.934531,-4.76908,-4.58387,0.0434079,11.4385,2.92108,12.189,-28.8898,-1.90076,4.25125,0.0702053,0.187464,-0.0634895,0.0672857,-2.10501,0.257187,0.301129,0.0324488,0.0621686,0.112205,0.142889,-0.303102,-0.0651584,0.0245129,0.00229959,-0.534155,-8.77541,2.45532,-5.2463,4.8408,1.63819,0.337254,1.55078,-37.2914,1.23872,34.2746,1.01501,2.61559,-0.0905302,
0.189015,-0.0642677,0.0667376,-2.10633,0.255205,0.309028,0.0326954,0.108949,0.0640555,0.116226,-0.317086,-0.17615,0.309123,0.00800413,0.667447,0.68714,0.647825,0.707428,-6.32981,-1.73197,0.0276867,11.4579,2.7946,12.1872,-28.3845,-2.10411,4.08409,0.0731543,0.187464,-0.0634895,0.0672857,-2.10501,0.257187,0.301129,0.0324488,0.0621686,0.112205,0.142889,-0.303102,-0.0651584,0.0245129,0.00229959,0,0,0,0,0,0,0,1.55078,-37.2914,1.23872,34.2746,1.01501,2.61559,-0.0905302,
0.189929,-0.0637902,0.0677081,-2.10874,0.253374,0.311475,0.0327609,0.110018,0.0631828,0.117244,-0.314031,-0.186701,0.308473,0.00804183,0.668596,-0.545388,0.636527,1.90936,-6.59456,-0.406147,0.0235608,11.4584,2.6578,12.1667,-27.8872,-2.21942,3.92909,0.0751385,0.187464,-0.0634895,0.0672857,-2.10501,0.257187,0.301129,0.0324488,0.0621686,0.112205,0.142889,-0.303102,-0.0651584,0.0245129,0.00229959,0,0,0,0,0,0,0,1.55078,-37.2914,1.23872,34.2746,1.01501,2.61559,-0.0905302,
0.189236,-0.0622448,0.0691764,-2.11022,0.25489,0.304267,0.0325825,0.110723,0.0648499,0.117899,-0.315929,-0.182487,0.292544,0.00812752,0.440098,1.04192,0.409689,-1.18646,2.63341,-9.95603,0.0535589,11.4385,2.92108,12.189,-28.8898,-1.90076,4.25125,0.0702053,0.187464,-0.0634895,0.0672857,-2.10501,0.257187,0.301129,0.0324488,0.0621686,0.112205,0.142889,-0.303102,-0.0651584,0.0245129,0.00229959,0,0,0,0,0,0,0,1.55078,-37.2914,1.23872,34.2746,1.01501,2.61559,-0.0905302,
0.190165,-0.0617398,0.070161,-2.11272,0.253326,0.306383,0.0326491,0.111796,0.0645052,0.118933,-0.315311,-0.185094,0.286954,0.00816641,0.671201,-0.215467,0.645865,0.386138,-1.62936,-3.4936,0.0243036,11.4295,2.78072,12.1521,-28.2524,-2.0971,4.1489,0.0728214,0.18875,-0.0598827,0.0719453,-2.11291,0.255797,0.300885,0.0324463,0.0340123,0.228092,0.155469,-0.221732,-0.0246557,0.0395578,0.00102228,-3.51954,14.4859,1.57255,10.1713,5.06283,1.88062,-0.159664,1.34845,-31.3008,0.86183,29.744,1.38122,1.84655,-0.0566557,
0.191101,-0.0612896,0.0711529,-2.11514,0.251613,0.308664,0.0327151,0.112854,0.0628578,0.119944,-0.312672,-0.190902,0.286577,0.00818449,0.660685,-1.02959,0.631973,1.64984,-3.62971,-0.235488,0.011303,11.4301,2.64393,12.1317,-27.7551,-2.21242,3.9939,0.0748055,0.18875,-0.0598827,0.0719453,-2.11291,0.255797,0.300885,0.0324463,0.0340123,0.228092,0.155469,-0.221732,-0.0246557,0.0395578,0.00102228,0,0,0,0,0,0,0,1.34845,-31.3008,0.86183,29.744,1.38122,1.84655,-0.0566557,
0.190433,-0.0578884,0.0737479,-2.11796,0.253786,0.304674,0.0325808,0.112027,0.0715412,0.119057,-0.314172,-0.183809,0.281883,0.00828994,-0.516354,5.4271,-0.554505,-0.938018,4.43328,-2.93376,0.0659063,11.4295,2.78072,12.1521,-28.2524,-2.0971,4.1489,0.0728214,0.18875,-0.0598827,0.0719453,-2.11291,0.255797,0.300885,0.0324463,0.0340123,0.228092,0.155469,-0.221732,-0.0246557,0.0395578,0.00102228,0,0,0,0,0,0,0,1.34845,-31.3008,0.86183,29.744,1.38122,1.84655,-0.0566557,
0.19133,-0.0572065,0.0746995,-2.12046,0.252233,0.30694,0.0326498,0.11206,0.0742822,0.119035,-0.313748,-0.185889,0.282163,0.00835888,0.0206131,1.71317,-0.0134656,0.265244,-1.30021,0.174762,0.0430852,11.4301,2.64393,12.1317,-27.7551,-2.21242,3.9939,0.0748055,0.18875,-0.0598827,0.0719453,-2.11291,0.255797,0.300885,0.0324463,0.0340123,0.228092,0.155469,-0.221732,-0.0246557,0.0395578,0.00102228,0,0,0,0,0,0,0,1.34845,-31.3008,0.86183,29.744,1.38122,1.84655,-0.0566557,
0.192241,-0.0566396,0.0756632,-2.12287,0.250508,0.30928,0.0327173,0.112403,0.0735966,0.119319,-0.311237,-0.191828,0.284239,0.00837364,0.213976,-0.42852,0.177061,1.56904,-3.71166,1.29736,0.00922427,11.4347,2.46997,12.1132,-27.1994,-2.26106,3.89523,0.0767782,0.189798,-0.0568135,0.0773502,-2.11976,0.255351,0.299087,0.0324502,0.0275577,0.127735,0.148363,-0.243255,0.00602378,-0.0455578,0.00297406,-0.806831,-12.5446,-0.888243,-2.69045,3.83494,-10.6395,0.243973,-1.05969,-30.2535,-1.08611,28.0737,0.800778,2.70806,-0.0630644,
0.193154,-0.0561584,0.0766292,-2.12519,0.248708,0.311655,0.0327839,0.112761,0.070907,0.119606,-0.307152,-0.198463,0.286769,0.00836338,0.223839,-1.68098,0.179544,2.5537,-4.14712,1.58165,-0.00640978,11.3946,2.33158,12.054,-26.7119,-2.26066,3.76527,0.0781579,0.189798,-0.0568135,0.0773502,-2.11976,0.255351,0.299087,0.0324502,0.0275577,0.127735,0.148363,-0.243255,0.00602378,-0.0455578,0.00297406,0,0,0,0,0,0,0,-1.05969,-30.2535,-1.08611,28.0737,0.800778,2.70806,-0.0630644,
0.191456,-0.0556072,0.0791162,-2.1246,0.253475,0.301895,0.0325974,0.111799,0.0701355,0.118525,-0.306696,-0.188598,0.272248,0.00853099,-0.601039,-0.482204,-0.675476,0.284625,6.16558,-9.07569,0.104757,11.4524,2.60953,12.1505,-27.6916,-2.20126,4.0354,0.0745092,0.189798,-0.0568135,0.0773502,-2.11976,0.255351,0.299087,0.0324502,0.0275577,0.127735,0.148363,-0.243255,0.00602378,-0.0455578,0.00297406,0,0,0,0,0,0,0,-1.05969,-30.2535,-1.08611,28.0737,0.800778,2.70806,-0.0630644,
0.192352,-0.055145,0.0800639,-2.12698,0.251977,0.303923,0.0326679,0.111858,0.067663,0.118512,-0.304845,-0.188318,0.268491,0.00858724,0.0369219,-1.54534,-0.00793146,1.15675,0.175063,-2.34803,0.0351563,11.4347,2.46997,12.1132,-27.1994,-2.26106,3.89523,0.0767782,0.189798,-0.0568135,0.0773502,-2.11976,0.255351,0.299087,0.0324502,0.0275577,0.127735,0.148363,-0.243255,0.00602378,-0.0455578,0.00297406,0,0,0,0,0,0,0,-1.05969,-30.2535,-1.08611,28.0737,0.800778,2.70806,-0.0630644,
0.193263,-0.0547371,0.0810258,-2.12929,0.250321,0.306124,0.0327362,0.112259,0.0643285,0.118858,-0.301519,-0.192068,0.269832,0.0085781,0.250343,-2.08402,0.216109,2.07888,-2.344,0.837943,-0.00571512,11.4258,2.23521,12.0829,-26.6047,-2.24257,3.80835,0.0778238,0.190675,-0.0543301,0.0827392,-2.12825,0.255145,0.298434,0.0324501,0.0345381,-0.0371339,0.15843,-0.303549,0.00334574,-0.0230817,-0.00011162,0.872557,-20.6086,1.25834,-7.53668,-0.334756,2.80951,-0.38571,-2.73388,-35.4427,-2.93486,31.3626,1.27777,3.60345,-0.0566557,
0.194177,-0.0543735,0.08199,-2.13152,0.248604,0.308421,0.0328028,0.112647,0.0605527,0.11919,-0.297088,-0.196571,0.273291,0.00852759,0.242326,-2.35992,0.207377,2.7692,-2.81444,2.16169,-0.0315667,11.3657,2.10238,12.0051,-26.1199,-2.20692,3.68992,0.0792823,0.190675,-0.0543301,0.0827392,-2.12825,0.255145,0.298434,0.0324501,0.0345381,-0.0371339,0.15843,-0.303549,0.00334574,-0.0230817,-0.00011162,0,0,0,0,0,0,0,-2.73388,-35.4427,-2.93486,31.3626,1.27777,3.60345,-0.0566557,
0.192446,-0.0543495,0.0846111,-2.13283,0.253189,0.300864,0.0326034,0.112955,0.0497545,0.119362,-0.293977,-0.187089,0.257414,0.00866849,0.192691,-6.74882,0.107296,1.94457,5.92626,-9.92288,0.0880612,11.4659,2.37359,12.1421,-27.0922,-2.24298,3.93832,0.0764441,0.190675,-0.0543301,0.0827392,-2.12825,0.255145,0.298434,0.0324501,0.0345381,-0.0371339,0.15843,-0.303549,0.00334574,-0.0230817,-0.00011162,0,0,0,0,0,0,0,-2.73388,-35.4427,-2.93486,31.3626,1.27777,3.60345,-0.0566557,
0.19338,-0.0542271,0.0855939,-2.13502,0.25176,0.302825,0.0326731,0.113721,0.0428653,0.12006,-0.290086,-0.185409,0.254958,0.00867811,0.478628,-4.30577,0.436295,2.4321,1.05042,-1.53537,0.00601189,11.4258,2.23521,12.0829,-26.6047,-2.24257,3.80835,0.0778238,0.190675,-0.0543301,0.0827392,-2.12825,0.255145,0.298434,0.0324501,0.0345381,-0.0371339,0.15843,-0.303549,0.00334574,-0.0230817,-0.00011162,0,0,0,0,0,0,0,-2.73388,-35.4427,-2.93486,31.3626,1.27777,3.60345,-0.0566557,
0.194318,-0.0540669,0.0865809,-2.13717,0.250217,0.305025,0.0327402,0.114424,0.0382973,0.120723,-0.285699,-0.186907,0.258979,0.00861984,0.439312,-2.85501,0.41453,2.74166,-0.936441,2.51329,-0.0364172,11.346,2.02899,11.9833,-26.029,-2.20546,3.72971,0.0790577,0.191612,-0.0520646,0.0882568,-2.13584,0.255216,0.298868,0.032444,0.0190911,-0.0293622,0.158717,-0.217083,0.0197801,-0.00279673,-0.000271644,-1.93088,0.971463,0.03585,10.8082,2.05429,2.53562,-0.020003,3.17737,-42.1315,2.66298,34.227,1.27777,2.74834,-0.0163725,
0.193291,-0.0522752,0.0900341,-2.1399,0.253596,0.30211,0.0325946,0.113366,0.0292809,0.119514,-0.279939,-0.175497,0.255726,0.00874911,-0.660679,-5.63521,-0.755775,3.59993,7.1316,-2.03319,0.0807929,11.4062,2.16182,12.0611,-26.5139,-2.24111,3.84815,0.0775992,0.191612,-0.0520646,0.0882568,-2.13584,0.255216,0.298868,0.032444,0.0190911,-0.0293622,0.158717,-0.217083,0.0197801,-0.00279673,-0.000271644,0,0,0,0,0,0,0,3.17737,-42.1315,2.66298,34.227,1.27777,2.74834,-0.0163725,
0.194192,-0.0522523,0.0909809,-2.14195,0.252299,0.304383,0.0326647,0.113208,0.0239971,0.119281,-0.275098,-0.172823,0.261397,0.0087506,-0.0990648,-3.30239,-0.145263,3.02573,1.67121,3.54466,0.000932897,11.346,2.02899,11.9833,-26.029,-2.20546,3.72971,0.0790577,0.191612,-0.0520646,0.0882568,-2.13584,0.255216,0.298868,0.032444,0.0190911,-0.0293622,0.158717,-0.217083,0.0197801,-0.00279673,-0.000271644,0,0,0,0,0,0,0,3.17737,-42.1315,2.66298,34.227,1.27777,2.74834,-0.0163725,
0.195101,-0.0521785,0.091937,-2.14397,0.250875,0.306821,0.0327321,0.113292,0.021043,0.119328,-0.270598,-0.173842,0.270083,0.00868609,0.0526392,-1.84633,0.0292675,2.81277,-0.637062,5.42852,-0.0403236,11.2643,1.90338,11.8845,-25.5465,-2.13198,3.61985,0.079755,0.191612,-0.0520646,0.0882568,-2.13584,0.255216,0.298868,0.032444,0.0190911,-0.0293622,0.158717,-0.217083,0.0197801,-0.00279673,-0.000271644,0,0,0,0,0,0,0,3.17737,-42.1315,2.66298,34.227,1.27777,2.74834,-0.0163725,
0.196007,-0.0520732,0.0928908,-2.14596,0.249413,0.309331,0.0327976,0.113298,0.0194678,0.119307,-0.266241,-0.175646,0.278814,0.00858619,0.00369861,-0.984509,-0.0131085,2.72295,-1.12727,5.45721,-0.062435,11.1452,1.70286,11.756,-25.0124,-2.03931,3.54173,0.0802944,0.192911,-0.0518242,0.0936853,-2.14163,0.255268,0.299583,0.0324438,0.026106,0.00526543,0.152798,-0.117507,0.0113703,0.0142662,0.000753634,0.876866,4.32845,-0.739775,12.447,-1.05122,2.13287,0.12816,1.88404,-38.1166,1.56404,31.0889,1.08184,2.80785,-0.0429228,
0.194565,-0.0520397,0.0954348,-2.14521,0.253897,0.303681,0.0325854,0.112085,0.0133415,0.117977,-0.260063,-0.163074,0.28169,0.00866788,-0.75795,-3.82895,-0.831253,3.86092,7.85728,1.79725,0.0510591,11.3272,1.94478,11.971,-25.9762,-2.20591,3.7527,0.0789498,0.192911,-0.0518242,0.0936853,-2.14163,0.255268,0.299583,0.0324438,0.026106,0.00526543,0.152798,-0.117507,0.0113703,0.0142662,0.000753634,0,0,0,0,0,0,0,1.88404,-38.1166,1.56404,31.0889,1.08184,2.80785,-0.0429228,
0.195449,-0.0520676,0.0963639,-2.14713,0.252731,0.306257,0.0326549,0.111763,0.00997689,0.117608,-0.256067,-0.15961,0.289756,0.0086723,-0.201197,-2.10285,-0.230787,2.49766,2.16518,5.0412,0.00276233,11.2455,1.81916,11.8722,-25.4937,-2.13243,3.64283,0.0796471,0.192911,-0.0518242,0.0936853,-2.14163,0.255268,0.299583,0.0324438,0.026106,0.00526543,0.152798,-0.117507,0.0113703,0.0142662,0.000753634,0,0,0,0,0,0,0,1.88404,-38.1166,1.56404,31.0889,1.08184,2.80785,-0.0429228,
0.19634,-0.0520457,0.0973017,-2.14905,0.251434,0.308912,0.0327218,0.111702,0.00852895,0.117532,-0.252803,-0.160111,0.298177,0.00861034,-0.0386112,-0.904961,-0.0477068,2.03985,-0.313071,5.26301,-0.03873,11.1452,1.70286,11.756,-25.0124,-2.03931,3.54173,0.0802944,0.192911,-0.0518242,0.0936853,-2.14163,0.255268,0.299583,0.0324438,0.026106,0.00526543,0.152798,-0.117507,0.0113703,0.0142662,0.000753634,0,0,0,0,0,0,0,1.88404,-38.1166,1.56404,31.0889,1.08184,2.80785,-0.0429228,
0.197229,-0.0519888,0.0982372,-2.15095,0.250095,0.311572,0.0327869,0.111589,0.00824607,0.117413,-0.249785,-0.161579,0.305043,0.00851518,-0.0705038,-0.176797,-0.0741927,1.88676,-0.9176,4.29116,-0.0594736,11.0262,1.59605,11.6218,-24.5321,-1.92534,3.44768,0.080363,0.192911,-0.0518242,0.0936853,-2.14163,0.255268,0.299583,0.0324438,0.026106,0.00526543,0.152798,-0.117507,0.0113703,0.0142662,0.000753634,0,0,0,0,0,0,0,1.88404,-38.1166,1.56404,31.0889,1.08184,2.80785,-0.0429228,
0.194556,-0.0520349,0.0954245,-2.14515,0.253952,0.30356,0.0325858,0.110579,0.00439857,0.116299,-0.246136,-0.150876,0.300928,0.00861422,-0.630883,-2.40469,-0.695934,2.28061,6.68914,-2.57151,0.0619011,11.2455,1.81916,11.8722,-25.4937,-2.13243,3.64283,0.0796471,0.192911,-0.0518242,0.0936853,-2.14163,0.255268,0.299583,0.0324438,0.026106,0.00526543,0.152798,-0.117507,0.0113703,0.0142662,0.000753634,0,0,0,0,0,0,0,1.88404,-38.1166,1.56404,31.0889,1.08184,2.80785,-0.0429228,
0.195433,-0.0520636,0.0963449,-2.14704,0.252844,0.30606,0.032655,0.110368,0.00280041,0.116051,-0.244112,-0.148396,0.303252,0.00862149,-0.132031,-0.998846,-0.155194,1.26458,1.54991,1.45266,0.00454221,11.1452,1.70286,11.756,-25.0124,-2.03931,3.54173,0.0802944,0.192911,-0.0518242,0.0936853,-2.14163,0.255268,0.299583,0.0324438,0.026106,0.00526543,0.152798,-0.117507,0.0113703,0.0142662,0.000753634,0,0,0,0,0,0,0,1.88404,-38.1166,1.56404,31.0889,1.08184,2.80785,-0.0429228,
0.196315,-0.0520442,0.0972726,-2.14893,0.251621,0.308638,0.0327216,0.110357,0.00272732,0.116034,-0.2424,-0.149302,0.307057,0.00856191,-0.00694458,-0.0456829,-0.0107483,1.07016,-0.565867,2.37804,-0.0372362,11.0262,1.59605,11.6218,-24.5321,-1.92534,3.44768,0.080363,0.192911,-0.0518242,0.0936853,-2.14163,0.255268,0.299583,0.0324438,0.026106,0.00526543,0.152798,-0.117507,0.0113703,0.0142662,0.000753634,0,0,0,0,0,0,0,1.88404,-38.1166,1.56404,31.0889,1.08184,2.80785,-0.0429228,
0.194546,-0.0520293,0.0954126,-2.1451,0.254024,0.303444,0.0325855,0.10943,3.13371e-05,0.11501,-0.23948,-0.139841,0.300878,0.0086417,-0.57946,-1.68499,-0.639646,1.82533,5.91294,-3.86181,0.0498714,11.1452,1.70286,11.756,-25.0124,-2.03931,3.54173,0.0802944,0.192911,-0.0518242,0.0936853,-2.14163,0.255268,0.299583,0.0324438,0.026106,0.00526543,0.152798,-0.117507,0.0113703,0.0142662,0.000753634,0,0,0,0,0,0,0,1.88404,-38.1166,1.56404,31.0889,1.08184,2.80785,-0.0429228,
0.195414,-0.0520582,0.0963236,-2.14696,0.252984,0.305872,0.0326544,0.109233,-0.000697408,0.114782,-0.23798,-0.137884,0.301409,0.00863395,-0.122804,-0.455466,-0.142479,0.937067,1.22306,0.331662,-0.0048484,11.0227,1.51357,11.6282,-24.4983,-1.92204,3.45833,0.0802993,0.194372,-0.0522777,0.0990854,-2.14592,0.255289,0.300874,0.0324463,0.0337073,-0.0329185,0.145568,-0.0919719,0.0118416,0.0337241,0.000169882,0.950162,-4.77299,-0.903838,3.19194,0.0589093,2.43223,-0.072969,0.336795,-30.678,0.163588,21.0992,0.788876,1.77331,-0.0365141,
0.196286,-0.0520403,0.0972403,-2.14881,0.251842,0.308377,0.0327203,0.109196,-0.000112153,0.114743,-0.236658,-0.138846,0.303761,0.00855592,-0.0232005,0.365784,-0.0245734,0.826639,-0.600977,1.47024,-0.0487664,10.8881,1.4169,11.4794,-24.0183,-1.79975,3.37068,0.0802763,0.194372,-0.0522777,0.0990854,-2.14592,0.255289,0.300874,0.0324463,0.0337073,-0.0329185,0.145568,-0.0919719,0.0118416,0.0337241,0.000169882,0,0,0,0,0,0,0,0.336795,-30.678,0.163588,21.0992,0.788876,1.77331,-0.0365141,
0.197154,-0.0519893,0.0981524,-2.15064,0.250679,0.310891,0.0327841,0.109046,0.0011864,0.114597,-0.23515,-0.14015,0.30585,0.00844043,-0.0941126,0.811598,-0.0915539,0.942296,-0.81517,1.30566,-0.0721833,10.7386,1.32978,11.3163,-23.5386,-1.66879,3.28874,0.0798182,0.194372,-0.0522777,0.0990854,-2.14592,0.255289,0.300874,0.0324463,0.0337073,-0.0329185,0.145568,-0.0919719,0.0118416,0.0337241,0.000169882,0,0,0,0,0,0,0,0.336795,-30.678,0.163588,21.0992,0.788876,1.77331,-0.0365141,
0.195998,-0.0528807,0.100799,-2.14908,0.254237,0.305035,0.0325849,0.108209,-0.00548399,0.113658,-0.23005,-0.129667,0.303495,0.00851402,-0.522962,-4.169,-0.586716,3.18736,6.55156,-1.47228,0.0459934,11.0227,1.51357,11.6282,-24.4983,-1.92204,3.45833,0.0802993,0.194372,-0.0522777,0.0990854,-2.14592,0.255289,0.300874,0.0324463,0.0337073,-0.0329185,0.145568,-0.0919719,0.0118416,0.0337241,0.000169882,0,0,0,0,0,0,0,0.336795,-30.678,0.163588,21.0992,0.788876,1.77331,-0.0365141,
0.196856,-0.0530412,0.1017,-2.15081,0.253329,0.307586,0.0326525,0.108025,-0.00840034,0.113446,-0.227356,-0.126435,0.306566,0.00850226,-0.114807,-1.82272,-0.132265,1.68386,2.02048,1.91976,-0.00734712,10.8904,1.36209,11.4889,-23.9872,-1.79295,3.38439,0.0802047,0.195948,-0.0524319,0.103683,-2.15039,0.2553,0.302382,0.0324445,0.0358943,-0.00767165,0.123008,-0.13465,0.0112096,0.0529975,-0.000688517,0.273376,3.15586,-2.82002,-5.33482,-0.0789902,2.40917,-0.1073,0.717655,-27.7818,0.338148,14.7476,0.758663,0.32128,-0.00996382,
0.197718,-0.053126,0.102605,-2.15255,0.252326,0.310191,0.0327175,0.107957,-0.00883983,0.113385,-0.225509,-0.126211,0.310371,0.00842484,-0.042775,-0.274683,-0.0381299,1.15448,0.139527,2.37772,-0.048391,10.7409,1.27498,11.3258,-23.5075,-1.66198,3.30245,0.0797466,0.195948,-0.0524319,0.103683,-2.15039,0.2553,0.302382,0.0324445,0.0358943,-0.00767165,0.123008,-0.13465,0.0112096,0.0529975,-0.000688517,0,0,0,0,0,0,0,0.717655,-27.7818,0.338148,14.7476,0.758663,0.32128,-0.00996382,
0.197457,-0.0526856,0.105278,-2.15377,0.254135,0.306264,0.0325876,0.106009,-0.00964604,0.11137,-0.224313,-0.119776,0.302808,0.00853114,-1.2174,-0.50388,-1.25974,0.74757,4.02233,-4.72674,0.0664415,10.8904,1.36209,11.4889,-23.9872,-1.79295,3.38439,0.0802047,0.195948,-0.0524319,0.103683,-2.15039,0.2553,0.302382,0.0324445,0.0358943,-0.00767165,0.123008,-0.13465,0.0112096,0.0529975,-0.000688517,0,0,0,0,0,0,0,0.717655,-27.7818,0.338148,14.7476,0.758663,0.32128,-0.00996382,
0.198271,-0.0527298,0.106134,-2.15555,0.253202,0.308634,0.0326555,0.105156,-0.00882257,0.110513,-0.223952,-0.119143,0.301496,0.0085236,-0.532866,0.51467,-0.535519,0.225687,0.39532,-0.819666,-0.00471464,10.7409,1.27498,11.3258,-23.5075,-1.66198,3.30245,0.0797466,0.195948,-0.0524319,0.103683,-2.15039,0.2553,0.302382,0.0324445,0.0358943,-0.00767165,0.123008,-0.13465,0.0112096,0.0529975,-0.000688517,0,0,0,0,0,0,0,0.717655,-27.7818,0.338148,14.7476,0.758663,0.32128,-0.00996382,
0.199095,-0.0527281,0.107002,-2.15732,0.2522,0.311068,0.0327202,0.104722,-0.00701576,0.1101,-0.223473,-0.120357,0.302049,0.00843573,-0.271516,1.12925,-0.258031,0.299136,-0.758479,0.345218,-0.0549199,10.5709,1.16047,11.1448,-22.9876,-1.52647,3.24353,0.0790753,0.197396,-0.0517807,0.107399,-2.15487,0.255274,0.303732,0.0324433,0.0278536,0.04022,0.0954759,-0.127309,0.0115328,0.0575969,-0.000687483,-1.00509,5.98646,-3.44146,0.917721,0.0403983,0.574933,0.000129196,1.52698,-27.3335,1.08797,13.7994,0.923458,-0.381845,-0.00996382,
0.199918,-0.0526941,0.107869,-2.15908,0.251199,0.313504,0.0327824,0.104354,-0.00476257,0.109756,-0.222615,-0.121321,0.30254,0.00830404,-0.230161,1.40825,-0.21473,0.536495,-0.602948,0.307195,-0.0823026,10.3979,1.09109,10.9595,-22.508,-1.39442,3.17051,0.0781808,0.197396,-0.0517807,0.107399,-2.15487,0.255274,0.303732,0.0324433,0.0278536,0.04022,0.0954759,-0.127309,0.0115328,0.0575969,-0.000687483,0,0,0,0,0,0,0,1.52698,-27.3335,1.08797,13.7994,0.923458,-0.381845,-0.00996382,
0.198703,-0.0516396,0.10879,-2.1583,0.254106,0.307647,0.0325884,0.100878,-0.00242713,0.106207,-0.22259,-0.115989,0.296424,0.00846349,-2.17245,1.45965,-2.21854,0.015099,3.33288,-3.82271,0.0996565,10.7326,1.23828,11.3194,-23.4672,-1.65808,3.32105,0.0796614,0.197396,-0.0517807,0.107399,-2.15487,0.255274,0.303732,0.0324433,0.0278536,0.04022,0.0954759,-0.127309,0.0115328,0.0575969,-0.000687483,0,0,0,0,0,0,0,1.52698,-27.3335,1.08797,13.7994,0.923458,-0.381845,-0.00996382,
0.199444,-0.0515739,0.109573,-2.16009,0.253173,0.309979,0.0326569,0.0992447,-0.000297181,0.104561,-0.222939,-0.116121,0.295434,0.008484,-1.02076,1.33122,-1.02846,-0.217859,-0.0826057,-0.618588,0.0128184,10.5709,1.16047,11.1448,-22.9876,-1.52647,3.24353,0.0790753,0.197396,-0.0517807,0.107399,-2.15487,0.255274,0.303732,0.0324433,0.0278536,0.04022,0.0954759,-0.127309,0.0115328,0.0575969,-0.000687483,0,0,0,0,0,0,0,1.52698,-27.3335,1.08797,13.7994,0.923458,-0.381845,-0.00996382,
0.200209,-0.0514943,0.110381,-2.16187,0.252181,0.312356,0.0327217,0.0985213,0.00175103,0.10385,-0.222759,-0.117684,0.295764,0.00840685,-0.452099,1.28013,-0.444405,0.112755,-0.976985,0.206025,-0.0482175,10.3962,1.06775,10.9579,-22.4771,-1.38939,3.18043,0.0781285,0.198875,-0.0509926,0.110419,-2.15852,0.255604,0.306044,0.0324449,0.0396928,0.0449433,0.0704071,-0.115953,0.0213901,0.0228612,9.49998e-05,1.4799,0.590407,-3.13359,1.41951,1.23217,-4.34197,0.0978104,-0.857357,-29.4798,-1.0385,15.8188,0.722042,-0.0696505,-0.0227812,
0.200984,-0.0514047,0.111199,-2.16361,0.251203,0.314726,0.0327836,0.0981768,0.00364111,0.10352,-0.221904,-0.11862,0.295871,0.00827271,-0.215329,1.1813,-0.206087,0.53431,-0.58464,0.0668567,-0.0838421,10.2143,1.00612,10.7643,-21.9975,-1.26153,3.11023,0.0770984,0.198875,-0.0509926,0.110419,-2.15852,0.255604,0.306044,0.0324449,0.0396928,0.0449433,0.0704071,-0.115953,0.0213901,0.0228612,9.49998e-05,0,0,0,0,0,0,0,-0.857357,-29.4798,-1.0385,15.8188,0.722042,-0.0696505,-0.0227812,
0.200107,-0.0508343,0.111729,-2.16187,0.254621,0.309677,0.0325898,0.0950911,0.0044244,0.100344,-0.221214,-0.111529,0.288145,0.00843532,-1.92858,0.489559,-1.98501,0.431114,4.43174,-4.82884,0.101634,10.5691,1.13696,11.1432,-22.9565,-1.52197,3.25545,0.0790254,0.198875,-0.0509926,0.110419,-2.15852,0.255604,0.306044,0.0324449,0.0396928,0.0449433,0.0704071,-0.115953,0.0213901,0.0228612,9.49998e-05,0,0,0,0,0,0,0,-0.857357,-29.4798,-1.0385,15.8188,0.722042,-0.0696505,-0.0227812,
0.200821,-0.0507659,0.112483,-2.16363,0.253778,0.311915,0.0326579,0.0939092,0.00525028,0.0991402,-0.221048,-0.110307,0.286485,0.00845228,-0.738633,0.516172,-0.752638,0.103664,0.763805,-1.03754,0.0105981,10.3961,1.06757,10.9579,-22.4769,-1.38992,3.18241,0.0781308,0.198875,-0.0509926,0.110419,-2.15852,0.255604,0.306044,0.0324449,0.0396928,0.0449433,0.0704071,-0.115953,0.0213901,0.0228612,9.49998e-05,0,0,0,0,0,0,0,-0.857357,-29.4798,-1.0385,15.8188,0.722042,-0.0696505,-0.0227812,
0.201562,-0.0506851,0.113266,-2.16537,0.252875,0.314215,0.032722,0.0936418,0.00622008,0.0988782,-0.220424,-0.110814,0.286666,0.00836438,-0.167131,0.606129,-0.163736,0.389936,-0.317033,0.113549,-0.054939,10.2116,1.00868,10.7574,-21.9431,-1.25562,3.14099,0.0769818,0.200211,-0.0494453,0.113206,-2.16242,0.255624,0.306471,0.0324479,0.0371638,0.0925867,0.0671485,-0.135967,0.0078218,-0.0102882,0.00298067,-0.316133,5.95543,-0.407322,-2.50178,-1.69604,-4.14367,0.360708,-3.87249,-27.5597,-4.01,19.556,0.831906,0.87792,-0.0767973,
0.200822,-0.0507657,0.112484,-2.16363,0.25377,0.311941,0.0326581,0.0927566,0.00669013,0.0979739,-0.220431,-0.10982,0.285577,0.00839642,-0.553266,0.293779,-0.565192,-0.00410607,0.620955,-0.680977,0.0200276,10.393,1.06849,10.9506,-22.4207,-1.38913,3.23147,0.0780371,0.200211,-0.0494453,0.113206,-2.16242,0.255624,0.306471,0.0324479,0.0371638,0.0925867,0.0671485,-0.135967,0.0078218,-0.0102882,0.00298067,0,0,0,0,0,0,0,-3.87249,-27.5597,-4.01,19.556,0.831906,0.87792,-0.0767973,
0.202086,-0.0485934,0.115201,-2.16782,0.253685,0.311555,0.0326596,0.0914768,0.0108067,0.0966784,-0.222106,-0.109216,0.278344,0.00840133,-0.799902,2.57288,-0.809724,-1.04685,0.37799,-4.52074,0.00306798,10.2111,1.00686,10.757,-21.9412,-1.26125,3.16108,0.0770053,0.200211,-0.0494453,0.113206,-2.16242,0.255624,0.306471,0.0324479,0.0371638,0.0925867,0.0671485,-0.135967,0.0078218,-0.0102882,0.00298067,0,0,0,0,0,0,0,-3.87249,-27.5597,-4.01,19.556,0.831906,0.87792,-0.0767973,
0.202805,-0.0484002,0.115963,-2.16961,0.25279,0.31364,0.0327228,0.0911694,0.0134747,0.0963706,-0.222383,-0.109743,0.274798,0.00830105,-0.192079,1.66748,-0.19233,-0.173457,-0.329825,-2.216,-0.0626729,10.0213,0.952088,10.5557,-21.4617,-1.13809,3.09414,0.0757652,0.200211,-0.0494453,0.113206,-2.16242,0.255624,0.306471,0.0324479,0.0371638,0.0925867,0.0671485,-0.135967,0.0078218,-0.0102882,0.00298067,0,0,0,0,0,0,0,-3.87249,-27.5597,-4.01,19.556,0.831906,0.87792,-0.0767973,
0.203538,-0.0482255,0.116737,-2.17135,0.251921,0.31576,0.0327828,0.0912567,0.0151468,0.0964553,-0.221398,-0.109533,0.272835,0.00814,0.0545253,1.04505,0.0528877,0.615949,0.131607,-1.22705,-0.10066,9.83051,0.858105,10.3527,-20.9272,-1.01527,3.05445,0.0742647,0.201275,-0.0484935,0.116005,-2.16729,0.255549,0.306515,0.0324447,0.0343684,0.054436,0.0656946,-0.154105,0.00224606,-0.0171909,1.52092e-05,-0.349424,-4.76883,-0.181744,-2.2673,-0.696967,-0.862839,-0.370682,-2.86084,-35.1213,-2.86345,31.1127,1.40594,1.98571,-0.00996382,
0.202436,-0.048117,0.117243,-2.1708,0.254431,0.309484,0.0325886,0.0886779,0.0162292,0.0938004,-0.222096,-0.105122,0.262279,0.0082957,-1.61172,0.676484,-1.65929,-0.436383,2.75658,-6.59761,0.0973133,10.2121,0.940699,10.7567,-21.8668,-1.30859,3.38992,0.0771159,0.201275,-0.0484935,0.116005,-2.16729,0.255549,0.306515,0.0324447,0.0343684,0.054436,0.0656946,-0.154105,0.00224606,-0.0171909,1.52092e-05,0,0,0,0,0,0,0,-2.86084,-35.1213,-2.86345,31.1127,1.40594,1.98571,-0.00996382,
0.203116,-0.0479634,0.117963,-2.17258,0.253603,0.311504,0.0326549,0.0879343,0.0168219,0.0930332,-0.222168,-0.104805,0.260332,0.00829266,-0.464788,0.370453,-0.479508,-0.0450347,0.197946,-1.21653,-0.00189495,10.0219,0.886611,10.5552,-21.3873,-1.18522,3.32125,0.0758579,0.201275,-0.0484935,0.116005,-2.16729,0.255549,0.306515,0.0324447,0.0343684,0.054436,0.0656946,-0.154105,0.00224606,-0.0171909,1.52092e-05,0,0,0,0,0,0,0,-2.86084,-35.1213,-2.86345,31.1127,1.40594,1.98571,-0.00996382,
0.203823,-0.0478156,0.118711,-2.17432,0.252748,0.313654,0.0327168,0.0880423,0.0171534,0.0931365,-0.221154,-0.105233,0.262004,0.00818301,0.0674904,0.207188,0.0645661,0.633501,-0.267191,1.04494,-0.0685363,9.82586,0.838348,10.3482,-20.9081,-1.06885,3.25421,0.0744863,0.201275,-0.0484935,0.116005,-2.16729,0.255549,0.306515,0.0324447,0.0343684,0.054436,0.0656946,-0.154105,0.00224606,-0.0171909,1.52092e-05,0,0,0,0,0,0,0,-2.86084,-35.1213,-2.86345,31.1127,1.40594,1.98571,-0.00996382,
0.204544,-0.0476741,0.119472,-2.17601,0.251922,0.315863,0.0327755,0.0884452,0.0172596,0.0935351,-0.219158,-0.104822,0.264844,0.00801284,0.251863,0.0663683,0.249105,1.24766,0.256951,1.77494,-0.106352,9.6247,0.795238,10.1364,-20.4291,-0.960193,3.18976,0.0729852,0.201275,-0.0484935,0.116005,-2.16729,0.255549,0.306515,0.0324447,0.0343684,0.054436,0.0656946,-0.154105,0.00224606,-0.0171909,1.52092e-05,0,0,0,0,0,0,0,-2.86084,-35.1213,-2.86345,31.1127,1.40594,1.98571,-0.00996382,
0.203467,-0.0462231,0.120107,-2.17588,0.254375,0.311212,0.0325871,0.0869719,0.0220676,0.0920071,-0.221783,-0.102486,0.275933,0.00819669,-0.920846,3.00504,-0.954984,-1.64026,1.46007,6.93056,0.114906,9.99285,0.696282,10.5205,-21.169,-1.44885,4.88799,0.0775471,0.202254,-0.0470154,0.118815,-2.17226,0.25554,0.306762,0.0324449,0.0332454,0.108371,0.078079,-0.139647,0.00272676,0.0269598,-0.000889729,-0.140376,6.74187,1.54805,1.80735,0.0600876,5.51883,-0.113117,0.840641,-27.2344,0.663466,21.373,1.35101,0.188528,-0.00996382,
0.20416,-0.0459526,0.12084,-2.1777,0.253465,0.314102,0.0326536,0.0869201,0.0244155,0.0919382,-0.223024,-0.104743,0.293,0.00822105,-0.0323777,1.4674,-0.043045,-0.776203,-1.41077,10.6671,0.015223,9.79428,0.651251,10.3109,-20.6908,-1.33205,4.80606,0.0760144,0.202254,-0.0470154,0.118815,-2.17226,0.25554,0.306762,0.0324449,0.0332454,0.108371,0.078079,-0.139647,0.00272676,0.0269598,-0.000889729,0,0,0,0,0,0,0,0.840641,-27.2344,0.663466,21.373,1.35101,0.188528,-0.00996382,
0.204876,-0.0457207,0.121595,-2.17947,0.252501,0.317169,0.0327157,0.0874194,0.0253295,0.0924309,-0.222479,-0.107875,0.311071,0.00812892,0.312049,0.571233,0.307901,0.340928,-1.95759,11.2943,-0.0575843,9.59214,0.610908,10.0982,-20.213,-1.22428,4.72735,0.0743994,0.202254,-0.0470154,0.118815,-2.17226,0.25554,0.306762,0.0324449,0.0332454,0.108371,0.078079,-0.139647,0.00272676,0.0269598,-0.000889729,0,0,0,0,0,0,0,0.840641,-27.2344,0.663466,21.373,1.35101,0.188528,-0.00996382,
0.205598,-0.0455187,0.122357,-2.18117,0.25155,0.320332,0.0327743,0.0880009,0.0253137,0.0930009,-0.220444,-0.110081,0.327945,0.00796862,0.363439,-0.00983978,0.356281,1.27173,-1.37864,10.5461,-0.100187,9.38713,0.574823,9.88287,-19.7357,-1.1256,4.64966,0.0726919,0.202254,-0.0470154,0.118815,-2.17226,0.25554,0.306762,0.0324449,0.0332454,0.108371,0.078079,-0.139647,0.00272676,0.0269598,-0.000889729,0,0,0,0,0,0,0,0.840641,-27.2344,0.663466,21.373,1.35101,0.188528,-0.00996382,
0.205061,-0.0456118,0.123097,-2.18126,0.254585,0.314704,0.0326,0.0892663,0.0225713,0.0940909,-0.226333,-0.101933,0.382715,0.00825052,0.790903,-1.71398,0.681261,-3.68066,5.09263,34.2314,0.176191,9.87289,-0.549679,10.3393,-20.2929,-1.13036,10.4796,0.0826503,0.203625,-0.0457764,0.121594,-2.17732,0.255467,0.3067,0.0324485,0.0467097,0.0314344,0.0923793,-0.155467,-0.0100666,-0.00803917,0.00117162,1.68304,-9.61707,1.78755,-1.97756,-1.59917,-4.37487,0.257668,3.1496,-34.2961,2.68678,30.589,1.59546,2.06536,-0.0429228,
0.205844,-0.0454861,0.123915,-2.18318,0.253916,0.320433,0.0326688,0.0909974,0.0212002,0.0957307,-0.229126,-0.0982625,0.449402,0.00831977,1.08196,-0.856962,1.02484,-1.74562,2.2939,41.679,0.0432782,9.65,-0.497076,10.1047,-19.8112,-0.987157,10.2549,0.0792248,0.203625,-0.0457764,0.121594,-2.17732,0.255467,0.3067,0.0324485,0.0467097,0.0314344,0.0923793,-0.155467,-0.0100666,-0.00803917,0.00117162,0,0,0,0,0,0,0,3.1496,-34.2961,2.68678,30.589,1.59546,2.06536,-0.0429228,
0.206632,-0.0453458,0.124738,-2.185,0.253218,0.3267,0.0327324,0.092491,0.0204672,0.0971714,-0.228866,-0.0960698,0.516203,0.0082467,0.933488,-0.45812,0.900489,0.162536,1.37047,41.751,-0.0456646,9.44434,-0.462497,9.88937,-19.3358,-0.874323,10.0401,0.0765419,0.203625,-0.0457764,0.121594,-2.17732,0.255467,0.3067,0.0324485,0.0467097,0.0314344,0.0923793,-0.155467,-0.0100666,-0.00803917,0.00117162,0,0,0,0,0,0,0,3.1496,-34.2961,2.68678,30.589,1.59546,2.06536,-0.0429228,
0.207411,-0.0452067,0.125553,-2.18673,0.252538,0.333279,0.0327922,0.093465,0.0198504,0.0981051,-0.226271,-0.0938517,0.577421,0.00809304,0.608759,-0.385495,0.583511,1.62176,1.38631,38.2614,-0.0960388,9.24593,-0.436617,9.68219,-18.8628,-0.783729,9.83321,0.0743173,0.203625,-0.0457764,0.121594,-2.17732,0.255467,0.3067,0.0324485,0.0467097,0.0314344,0.0923793,-0.155467,-0.0100666,-0.00803917,0.00117162,0,0,0,0,0,0,0,3.1496,-34.2961,2.68678,30.589,1.59546,2.06536,-0.0429228,
0.205055,-0.0459339,0.123017,-2.1814,0.255446,0.315179,0.0326419,0.0935353,0.0132724,0.0971163,-0.23286,-0.0762817,0.58999,0.00890628,0.043892,-4.11128,-0.617994,-4.11804,10.9812,7.8555,0.508275,9.84739,-5.1899,9.80727,-19.2359,0.037727,11.2019,0.115458,0.205309,-0.0437643,0.12418,-2.18231,0.255337,0.308423,0.0324467,0.0542867,0.04637,0.0902035,-0.141188,-0.0119976,0.121391,-0.000441327,0.947118,1.86695,-0.271985,1.78486,-0.241384,16.1787,-0.201618,2.18555,-35.6926,1.7386,35.0482,1.66229,3.88177,-0.0301054,
