xiao-wang007/linearmpc_panda/paper_data/panda_torque_PD_controller_Start_at_0_torque_rate_limiter_low_pass_filter/3/trajectory.csv
Commanded Joint 0 Position,Commanded Joint 1 Position,Commanded Joint 2 Position,Commanded Joint 3 Position,Commanded Joint 4 Position,Commanded Joint 5 Position,Commanded Joint 6 Position,Commanded Joint 0 Velocity,Commanded Joint 1 Velocity,Commanded Joint 2 Velocity,Commanded Joint 3 Velocity,Commanded Joint 4 Velocity,Commanded Joint 5 Velocity,Commanded Joint 6 Velocity,Commanded Joint 0 Acceleration,Commanded Joint 1 Acceleration,Commanded Joint 2 Acceleration,Commanded Joint 3 Acceleration,Commanded Joint 4 Acceleration,Commanded Joint 5 Acceleration,Commanded Joint 6 Acceleration,Commanded Joint 0 Torque,Commanded Joint 1 Torque,Commanded Joint 2 Torque,Commanded Joint 3 Torque,Commanded Joint 4 Torque,Commanded Joint 5 Torque,Commanded Joint 6 Torque,Actual Joint 0 Position,Actual Joint 1 Position,Actual Joint 2 Position,Actual Joint 3 Position,Actual Joint 4 Position,Actual Joint 5 Position,Actual Joint 6 Position,Actual Joint 0 Velocity,Actual Joint 1 Velocity,Actual Joint 2 Velocity,Actual Joint 3 Velocity,Actual Joint 4 Velocity,Actual Joint 5 Velocity,Actual Joint 6 Velocity,Actual Joint 0 Acceleration,Actual Joint 1 Acceleration,Actual Joint 2 Acceleration,Actual Joint 3 Acceleration,Actual Joint 4 Acceleration,Actual Joint 5 Acceleration,Actual Joint 6 Acceleration,Actual Joint 0 Torque,Actual Joint 1 Torque,Actual Joint 2 Torque,Actual Joint 3 Torque,Actual Joint 4 Torque,Actual Joint 5 Torque,Actual Joint 6 Torque,
-0.0254933,-0.0657553,-0.018988,-1.79604,0.0319151,0.206414,-0.00185838,0.000554734,0.0196704,0.00055421,-0.0336986,-0.00585423,0.0511378,-0.000386209,0.346709,12.294,0.346381,-21.0616,-3.65889,31.9611,-0.241381,0.0580071,22.3566,0.0933616,-24.3347,-0.748179,1.85865,-0.0241764,-0.0255596,-0.066832,-0.0189967,-1.79283,0.032399,0.200929,-0.00181685,-0.00523201,0.000357629,0.00147018,-0.000667697,0.0020781,-0.000398722,-0.00108209,0,0,0,0,0,0,0,0.182071,-32.9472,-0.260912,27.0264,0.617672,3.00652,0.0440523,
-0.025583,-0.066823,-0.0190204,-1.79283,0.0323892,0.200921,-0.00181628,0.000304155,0.0158029,0.000298471,-0.0269886,-0.00485028,0.0408686,-0.000304881,-0.156612,-2.41717,-0.159837,4.19375,0.627471,-6.41824,0.0508297,0.0523065,22.7988,0.0830051,-24.2508,-0.748275,1.60857,-0.0226622,-0.0255589,-0.0667796,-0.019,-1.7929,0.0323996,0.200927,-0.0018178,-0.00510431,0.00302343,-0.00106203,-0.00242822,0.0034455,0.000120425,-0.000492006,0.0159635,0.333225,-0.316525,-0.220066,0.170925,0.0648933,0.0737606,0.209842,-32.8005,-0.213304,27.0264,0.612179,3.02666,0.0239107,
-0.0255873,-0.0668206,-0.0190248,-1.79283,0.0323821,0.20092,-0.00181617,0.000136131,0.0127011,0.000127826,-0.0216148,-0.00405708,0.032676,-0.000241335,-0.105015,-1.93859,-0.106654,3.35863,0.495749,-5.12039,0.0397167,0.045105,23.3704,0.0712712,-24.1427,-0.747576,1.26124,-0.0206922,-0.0255589,-0.0667796,-0.019,-1.7929,0.0323996,0.200927,-0.0018178,-0.00510431,0.00302343,-0.00106203,-0.00242822,0.0034455,0.000120425,-0.000492006,0,0,0,0,0,0,0,0.209842,-32.8005,-0.213304,27.0264,0.612179,3.02666,0.0239107,
-0.0255906,-0.0668185,-0.0190282,-1.79283,0.0323755,0.20092,-0.00181611,2.54895e-05,0.0102134,1.60477e-05,-0.0173112,-0.00341174,0.0261392,-0.000191428,-0.0691507,-1.55481,-0.0698613,2.68978,0.403337,-4.08553,0.0311919,0.0391729,23.8944,0.0618432,-23.9749,-0.745368,0.876304,-0.0186897,-0.0255589,-0.0667796,-0.019,-1.7929,0.0323996,0.200927,-0.0018178,-0.00510431,0.00302343,-0.00106203,-0.00242822,0.0034455,0.000120425,-0.000492006,0,0,0,0,0,0,0,0.209842,-32.8005,-0.213304,27.0264,0.612179,3.02666,0.0239107,
-0.0257128,-0.0667252,-0.0191436,-1.7928,0.0347956,0.199363,-0.00183901,-0.00200296,0.00868529,-0.0019433,-0.0126137,0.0338982,-0.00308329,-0.000351336,-1.26778,-0.9551,-1.22459,2.93591,23.3187,-18.264,-0.0999426,0.500195,0.223034,0.499712,-0.317378,3.11306,-2.22314,-0.00225652,-0.0255589,-0.0667796,-0.019,-1.7929,0.0323996,0.200927,-0.0018178,-0.00510431,0.00302343,-0.00106203,-0.00242822,0.0034455,0.000120425,-0.000492006,0,0,0,0,0,0,0,0.209842,-32.8005,-0.213304,27.0264,0.612179,3.02666,0.0239107,
-0.0257865,-0.0667159,-0.019217,-1.79276,0.0365772,0.198174,-0.00184349,-0.00344606,0.0071827,-0.00339051,-0.00917285,0.07166,-0.0321927,-0.000393114,-0.901938,-0.939115,-0.904507,2.15053,23.6011,-18.1934,-0.0261112,0.493524,0.220884,0.492883,-0.314547,3.0868,-2.20487,-0.00219094,-0.0255589,-0.0667796,-0.019,-1.7929,0.0323996,0.200927,-0.0018178,-0.00510431,0.00302343,-0.00106203,-0.00242822,0.0034455,0.000120425,-0.000492006,0,0,0,0,0,0,0,0.209842,-32.8005,-0.213304,27.0264,0.612179,3.02666,0.0239107,
-0.0258468,-0.066713,-0.0192782,-1.79274,0.0385475,0.196833,-0.0018461,-0.00426498,0.00581859,-0.00424023,-0.00673467,0.106585,-0.0592743,-0.000379846,-0.511828,-0.852569,-0.531075,1.52386,21.828,-16.926,0.00829275,0.487074,0.233084,0.48614,-0.314991,3.06178,-2.18825,-0.00214046,-0.0255612,-0.0665453,-0.0189943,-1.79316,0.0323715,0.201985,-0.00181737,-0.00143435,0.028927,6.63497e-05,-0.0309287,0.00511473,0.134304,0.000178616,0.458745,3.23795,0.141047,-3.56256,0.208654,16.773,0.0838277,0.209842,-28.2301,-0.213304,22.8925,0.343014,3.3178,0.0101778,
-0.0258921,-0.0667129,-0.0193247,-1.79272,0.0406302,0.195392,-0.00184776,-0.00454444,0.00465713,-0.00455481,-0.00504671,0.137336,-0.0834453,-0.000345278,-0.174664,-0.725916,-0.196611,1.05497,19.2195,-15.1069,0.021605,0.48036,0.231383,0.479297,-0.311914,3.03629,-2.16975,-0.00211157,-0.0255612,-0.0665453,-0.0189943,-1.79316,0.0323715,0.201985,-0.00181737,-0.00143435,0.028927,6.63497e-05,-0.0309287,0.00511473,0.134304,0.000178616,0,0,0,0,0,0,0,0.209842,-28.2301,-0.213304,22.8925,0.343014,3.3178,0.0101778,
-0.0258651,-0.0660907,-0.0192549,-1.79273,0.0404695,0.195784,-0.00188119,-0.00758061,0.00828155,-0.00721585,0.00141412,0.234168,-0.167213,-0.000850813,-1.8976,2.26526,-1.66315,4.03802,60.5197,-52.3548,-0.31596,4.24457,1.56855,4.32578,-2.01835,10.8566,-10.313,-0.00213338,-0.0255612,-0.0665453,-0.0189943,-1.79316,0.0323715,0.201985,-0.00181737,-0.00143435,0.028927,6.63497e-05,-0.0309287,0.00511473,0.134304,0.000178616,0,0,0,0,0,0,0,0.209842,-28.2301,-0.213304,22.8925,0.343014,3.3178,0.0101778,
-0.0259849,-0.0659813,-0.0193674,-1.79258,0.0465034,0.19062,-0.00189178,-0.00906015,0.00936157,-0.00858674,0.00489673,0.338182,-0.262871,-0.00094542,-0.924711,0.675013,-0.85681,2.17663,65.0091,-59.7861,-0.0591292,4.11304,1.558,4.20197,-1.97306,10.7209,-10.1168,-0.00178784,-0.0255612,-0.0665453,-0.0189943,-1.79316,0.0323715,0.201985,-0.00181737,-0.00143435,0.028927,6.63497e-05,-0.0309287,0.00511473,0.134304,0.000178616,0,0,0,0,0,0,0,0.209842,-28.2301,-0.213304,22.8925,0.343014,3.3178,0.0101778,
-0.0260486,-0.0659132,-0.0194274,-1.7925,0.0531338,0.184724,-0.00189592,-0.0088397,0.0091925,-0.00836877,0.00596171,0.436305,-0.357702,-0.000859869,0.137781,-0.10567,0.136234,0.665617,61.3267,-59.2698,0.0534694,3.98019,1.60715,4.07089,-1.95099,10.4805,-9.91143,-0.00230081,-0.0255822,-0.0653616,-0.0189835,-1.7972,0.0333775,0.205505,-0.00182091,-0.00885522,0.0091199,-0.00299926,-0.156403,0.175341,-0.0530102,8.92995e-05,-0.927609,-2.47589,-0.383201,-15.6843,21.2782,-23.4143,-0.0111645,0.590702,-26.1116,0.187391,23.317,1.63757,1.86577,0.0376436,
-0.0238997,-0.0660954,-0.0171773,-1.79361,0.0437548,0.186628,-0.00142786,0.0119733,0.0105856,0.0143936,-0.000462195,0.477993,-0.464236,0.00155456,13.0081,0.870708,14.2265,-4.01494,26.0553,-66.5836,1.50902,24.4075,5.42788,25.432,-11.33,10.8519,-14.3251,0.170875,-0.0255822,-0.0653616,-0.0189835,-1.7972,0.0333775,0.205505,-0.00182091,-0.00885522,0.0091199,-0.00299926,-0.156403,0.175341,-0.0530102,8.92995e-05,0,0,0,0,0,0,0,0.590702,-26.1116,0.187391,23.317,1.63757,1.86577,0.0376436,
-0.0240632,-0.0644534,-0.0172472,-1.79826,0.046466,0.186408,-0.00150431,0.0276201,0.0149232,0.0317702,-0.00895783,0.519701,-0.572325,0.00333366,9.77923,2.711,10.8604,-5.30977,26.0669,-67.5554,1.11194,22.5195,5.07262,23.7585,-10.0161,10.8519,-14.3251,0.105384,-0.0255822,-0.0653616,-0.0189835,-1.7972,0.0333775,0.205505,-0.00182091,-0.00885522,0.0091199,-0.00299926,-0.156403,0.175341,-0.0530102,8.92995e-05,0,0,0,0,0,0,0,0.590702,-26.1116,0.187391,23.317,1.63757,1.86577,0.0376436,
-0.0231532,-0.0643591,-0.0162957,-1.79881,0.0527044,0.177509,-0.00123752,0.0448449,0.014296,0.0492043,-0.0208796,0.57172,-0.680321,0.00933653,10.7655,-0.392024,10.8963,-7.45112,32.5124,-67.4975,3.7518,21.4196,3.72086,22.7407,-9.01936,10.8519,-14.3251,0.096436,-0.0255822,-0.0653616,-0.0189835,-1.7972,0.0333775,0.205505,-0.00182091,-0.00885522,0.0091199,-0.00299926,-0.156403,0.175341,-0.0530102,8.92995e-05,0,0,0,0,0,0,0,0.590702,-26.1116,0.187391,23.317,1.63757,1.86577,0.0376436,
-0.0221836,-0.0644513,-0.0152817,-1.7996,0.0596264,0.168038,-0.00116165,0.0601164,0.00913328,0.0647116,-0.0365003,0.630425,-0.781034,0.00936618,9.54469,-3.22669,9.69204,-9.76292,36.6903,-62.9455,0.0185292,21.0232,-0.0050163,21.7003,-10.3995,10.7635,-14.2804,0.336446,-0.0257575,-0.0638537,-0.0190032,-1.79991,0.0439254,0.195142,-0.00182421,-0.00596747,0.0994155,0.00113172,0.0260888,0.553504,-0.663544,0.00066028,0.360969,11.287,0.516373,22.8115,47.2705,-76.3168,0.0713726,4.11365,-37.0177,3.73811,27.677,2.7124,-0.633615,0.0239107,
-0.0241338,-0.0633265,-0.0174462,-1.80162,0.0540362,0.18112,-0.00148147,0.0733375,0.0127411,0.0763937,-0.0534999,0.637798,-0.815883,0.0107761,8.26318,2.25491,7.30131,-10.6247,4.60816,-21.7807,0.8812,34.6518,5.35012,34.8233,-20.8723,10.7635,-14.2804,0.226951,-0.0257575,-0.0638537,-0.0190032,-1.79991,0.0439254,0.195142,-0.00182421,-0.00596747,0.0994155,0.00113172,0.0260888,0.553504,-0.663544,0.00066028,0,0,0,0,0,0,0,4.11365,-37.0177,3.73811,27.677,2.7124,-0.633615,0.0239107,
-0.0228742,-0.0631785,-0.0161525,-1.80277,0.0599755,0.172557,-0.00120834,0.0901586,0.013891,0.0934587,-0.0716618,0.658721,-0.866785,0.0154491,10.5132,0.718685,10.6657,-11.3512,13.0767,-31.814,2.9206,31.6206,5.62021,31.777,-19.4658,10.7635,-14.2804,0.129777,-0.0257575,-0.0638537,-0.0190032,-1.79991,0.0439254,0.195142,-0.00182421,-0.00596747,0.0994155,0.00113172,0.0260888,0.553504,-0.663544,0.00066028,0,0,0,0,0,0,0,4.11365,-37.0177,3.73811,27.677,2.7124,-0.633615,0.0239107,
-0.0214879,-0.0631011,-0.0147261,-1.80411,0.0665874,0.163349,-0.00113385,0.106785,0.0130485,0.110426,-0.0907772,0.692276,-0.923634,0.0142216,10.3918,-0.5266,10.6043,-11.9471,20.9721,-35.5307,-0.767166,29.568,3.74357,30.3135,-19.718,10.7635,-14.2804,0.329095,-0.0257575,-0.0638537,-0.0190032,-1.79991,0.0439254,0.195142,-0.00182421,-0.00596747,0.0994155,0.00113172,0.0260888,0.553504,-0.663544,0.00066028,0,0,0,0,0,0,0,4.11365,-37.0177,3.73811,27.677,2.7124,-0.633615,0.0239107,
-0.0200208,-0.0629832,-0.0132303,-1.80546,0.07373,0.153581,-0.00110861,0.122105,0.0133872,0.125736,-0.106344,0.732385,-0.983099,0.0120083,9.57463,0.211723,9.56906,-9.72946,25.0681,-37.1651,-1.38329,25.031,2.62936,25.6602,-20.9355,10.5736,-14.082,0.0807521,-0.0256156,-0.0614206,-0.0188117,-1.79886,0.0775382,0.15483,-0.0018084,0.045998,0.0622756,0.0490896,0.000134681,0.8239,-1.40232,0.000427817,6.49568,-4.64249,5.99474,-3.24426,33.7995,-92.3466,-0.0290579,11.3658,-32.3006,11.2879,18.0087,2.02301,-1.94007,0.0779268,
-0.0231971,-0.061594,-0.0163131,-1.80222,0.0900687,0.135038,-0.00134702,0.133122,0.00767855,0.136844,-0.131901,0.743544,-1.03333,0.0166686,6.88574,-3.56792,6.94227,-15.9728,6.97435,-31.3934,2.91269,37.5126,3.97802,38.8562,-29.1001,10.5736,-14.082,0.172541,-0.0256156,-0.0614206,-0.0188117,-1.79886,0.0775382,0.15483,-0.0018084,0.045998,0.0622756,0.0490896,0.000134681,0.8239,-1.40232,0.000427817,0,0,0,0,0,0,0,11.3658,-32.3006,11.2879,18.0087,2.02301,-1.94007,0.0779268,
-0.0215893,-0.0617252,-0.0146659,-1.80428,0.0967939,0.125011,-0.00129012,0.146692,0.00286321,0.150654,-0.156987,0.762965,-1.07735,0.0147576,8.4812,-3.00959,8.63152,-15.6791,12.1381,-27.5129,-1.19441,34.5497,2.62331,35.4234,-28.732,10.5736,-14.082,0.321145,-0.0256156,-0.0614206,-0.0188117,-1.79886,0.0775382,0.15483,-0.0018084,0.045998,0.0622756,0.0490896,0.000134681,0.8239,-1.40232,0.000427817,0,0,0,0,0,0,0,11.3658,-32.3006,11.2879,18.0087,2.02301,-1.94007,0.0779268,
-0.0198837,-0.0617856,-0.0129115,-1.80634,0.103941,0.114741,-0.00129977,0.159993,0.000780939,0.164385,-0.177215,0.789049,-1.11863,0.0115647,8.31338,-1.30142,8.58174,-12.6423,16.3026,-25.8019,-1.99556,29.2545,1.17838,29.9512,-29.239,10.5736,-14.082,0.0465937,-0.0256156,-0.0614206,-0.0188117,-1.79886,0.0775382,0.15483,-0.0018084,0.045998,0.0622756,0.0490896,0.000134681,0.8239,-1.40232,0.000427817,0,0,0,0,0,0,0,11.3658,-32.3006,11.2879,18.0087,2.02301,-1.94007,0.0779268,
-0.0181217,-0.061794,-0.0111075,-1.80841,0.111449,0.104295,-0.00133108,0.172046,0.000413701,0.176606,-0.19343,0.818932,-1.15605,0.00846904,7.53262,-0.229524,7.63844,-10.1344,18.6767,-23.3877,-1.93478,27.0497,2.08369,27.7762,-27.9109,10.6478,-13.6571,-0.0224739,-0.0205848,-0.0620595,-0.0135738,-1.80623,0.109522,0.104781,-0.00169222,0.220645,-0.00685989,0.229847,-0.302316,0.860962,-1.49173,0.0012784,21.8309,-8.64194,22.5947,-37.8063,4.63269,-11.1769,0.106323,20.6731,-26.187,20.6586,19.4052,4.79522,-2.31086,0.0843355,
-0.0163179,-0.0619638,-0.0091775,-1.8116,0.123762,0.0824263,-0.00137478,0.192154,0.00210514,0.197466,-0.223293,0.837966,-1.20053,0.00767633,12.5676,1.05715,13.0373,-18.664,11.8962,-27.7987,-0.49544,38.5375,5.46445,39.6947,-35.3892,10.6478,-13.6571,0.332259,-0.0205848,-0.0620595,-0.0135738,-1.80623,0.109522,0.104781,-0.00169222,0.220645,-0.00685989,0.229847,-0.302316,0.860962,-1.49173,0.0012784,0,0,0,0,0,0,0,20.6731,-26.187,20.6586,19.4052,4.79522,-2.31086,0.0843355,
-0.0141224,-0.061821,-0.00691605,-1.81436,0.131453,0.0717056,-0.00142159,0.208611,0.00525196,0.214509,-0.247582,0.862648,-1.22844,0.00497098,10.2858,1.96676,10.6519,-15.1808,15.4267,-17.4449,-1.69085,32.1939,3.70342,33.1227,-35.7112,10.6478,-13.6571,0.0253873,-0.0205848,-0.0620595,-0.0135738,-1.80623,0.109522,0.104781,-0.00169222,0.220645,-0.00685989,0.229847,-0.302316,0.860962,-1.49173,0.0012784,0,0,0,0,0,0,0,20.6731,-26.187,20.6586,19.4052,4.79522,-2.31086,0.0843355,
-0.0119508,-0.0616383,-0.00467628,-1.81713,0.139447,0.0613902,-0.00149752,0.221179,0.00876918,0.227601,-0.267447,0.889971,-1.24064,0.00207849,7.8549,2.19827,8.18274,-12.4161,17.0769,-7.62263,-1.80781,29.0105,3.79016,29.8294,-34.6649,10.6478,-12.8936,-0.0624552,-0.0205848,-0.0620595,-0.0135738,-1.80623,0.109522,0.104781,-0.00169222,0.220645,-0.00685989,0.229847,-0.302316,0.860962,-1.49173,0.0012784,0,0,0,0,0,0,0,20.6731,-26.187,20.6586,19.4052,4.79522,-2.31086,0.0843355,
-0.00420378,-0.0645334,0.00248605,-1.8268,0.161933,0.0244462,-0.00177445,0.246125,0.0049363,0.253219,-0.301357,0.932948,-1.26369,-0.000999687,15.5915,-2.39555,16.0111,-21.1933,26.8606,-14.4069,-1.92386,31.6195,2.60875,32.5054,-40.5613,10.77,-10.0308,-0.0399545,-0.00989268,-0.0641454,-0.00335649,-1.81966,0.144503,0.0476101,-0.0016364,0.408119,-0.0963974,0.361749,-0.50876,1.03502,-1.72226,0.00195259,23.4342,-11.1922,16.4877,-25.8054,21.7574,-28.8155,0.0842727,17.4279,-23.1917,17.6355,17.6596,4.81353,-1.59492,0.0303194,
-0.00158819,-0.0645139,0.00517713,-1.83024,0.170909,0.0149349,-0.00190606,0.26229,0.00443719,0.269852,-0.327074,0.970751,-1.24873,-0.00408994,10.1029,-0.311944,10.3958,-16.0733,23.627,9.34677,-1.93141,28.4155,2.3757,29.2059,-39.5841,10.77,-8.91006,-0.12721,-0.00989268,-0.0641454,-0.00335649,-1.81966,0.144503,0.0476101,-0.0016364,0.408119,-0.0963974,0.361749,-0.50876,1.03502,-1.72226,0.00195259,0,0,0,0,0,0,0,17.4279,-23.1917,17.6355,17.6596,4.81353,-1.59492,0.0303194,
0.000884991,-0.064449,0.0077224,-1.83363,0.179929,0.00657636,-0.00204427,0.271662,0.00517027,0.279514,-0.346435,1.00212,-1.20795,-0.00672713,5.85713,0.458176,6.03823,-12.1008,19.6023,25.4898,-1.64825,26.3862,1.64695,27.131,-39.0157,10.77,-7.8144,-0.15338,-0.00989268,-0.0641454,-0.00335649,-1.81966,0.144503,0.0476101,-0.0016364,0.408119,-0.0963974,0.361749,-0.50876,1.03502,-1.72226,0.00195259,0,0,0,0,0,0,0,17.4279,-23.1917,17.6355,17.6596,4.81353,-1.59492,0.0303194,
0.00322751,-0.0643687,0.0101339,-1.83696,0.188931,-0.000808958,-0.00217592,0.275892,0.00614568,0.283899,-0.360453,1.02675,-1.15099,-0.00867302,2.6442,0.609628,2.74077,-8.76119,15.3947,35.5983,-1.21618,24.855,1.01746,25.5592,-38.5003,10.77,-6.90511,-0.159676,-0.00989268,-0.0641454,-0.00335649,-1.81966,0.144503,0.0476101,-0.0016364,0.408119,-0.0963974,0.361749,-0.50876,1.03502,-1.72226,0.00195259,0,0,0,0,0,0,0,17.4279,-23.1917,17.6355,17.6596,4.81353,-1.59492,0.0303194,
-0.00457419,-0.0648324,0.0021173,-1.82824,0.162675,0.0321952,-0.00210198,0.284502,-0.00072335,0.292824,-0.395114,1.05162,-1.07398,-0.0128204,5.38089,-4.29314,5.57847,-21.6628,15.5442,48.133,-2.59208,23.5949,2.52119,24.377,-45.1531,10.8518,1.19189,-0.289637,0.00530614,-0.0650245,0.0119082,-1.84133,0.184143,-0.0133614,-0.00167593,0.465711,-0.0737711,0.542604,-0.738515,1.27986,-1.73713,0.00191206,7.19898,2.82828,22.6069,-28.7195,30.6044,-1.859,-0.00506595,10.9374,-23.4892,11.1609,16.89,4.12963,-0.322336,-0.0301054,
-0.00219904,-0.0649158,0.00456385,-1.83241,0.171923,0.0283938,-0.00232405,0.28698,-0.00266448,0.295423,-0.420237,1.07248,-0.954219,-0.0158082,1.54904,-1.2132,1.62427,-15.7023,13.0375,74.8509,-1.86742,22.4894,1.23979,23.2298,-44.8147,10.8518,2.29682,-0.28474,0.00530614,-0.0650245,0.0119082,-1.84133,0.184143,-0.0133614,-0.00167593,0.465711,-0.0737711,0.542604,-0.738515,1.27986,-1.73713,0.00191206,0,0,0,0,0,0,0,10.9374,-23.4892,11.1609,16.89,4.12963,-0.322336,-0.0301054,
2.73472e-05,-0.0649219,0.00685749,-1.83645,0.181107,0.0263111,-0.0025231,0.285244,-0.00228247,0.29368,-0.437175,1.08759,-0.815444,-0.0176228,-1.08529,0.238753,-1.08972,-10.5863,9.44409,86.7341,-1.13412,21.6808,0.436365,22.3894,-44.3795,10.8518,3.09598,-0.266507,0.00530614,-0.0650245,0.0119082,-1.84133,0.184143,-0.0133614,-0.00167593,0.465711,-0.0737711,0.542604,-0.738515,1.27986,-1.73713,0.00191206,0,0,0,0,0,0,0,10.9374,-23.4892,11.1609,16.89,4.12963,-0.322336,-0.0301054,
0.00212657,-0.0648911,0.00902052,-1.84036,0.190185,0.0255597,-0.00269498,0.280675,-0.00105682,0.289019,-0.447636,1.09702,-0.671139,-0.0183952,-2.85516,0.766032,-2.91266,-6.53761,5.89652,90.1908,-0.482726,21.0426,0.0150869,21.7243,-43.848,10.8518,3.6012,-0.236588,0.00530614,-0.0650245,0.0119082,-1.84133,0.184143,-0.0133614,-0.00167593,0.465711,-0.0737711,0.542604,-0.738515,1.27986,-1.73713,0.00191206,0,0,0,0,0,0,0,10.9374,-23.4892,11.1609,16.89,4.12963,-0.322336,-0.0301054,
0.0119444,-0.0648566,0.0187512,-1.85109,0.20485,-0.0298876,-0.00214451,0.302811,0.00368838,0.311835,-0.475276,1.13556,-0.702383,-0.0205449,13.835,2.96575,14.2599,-17.2751,24.0838,-19.5271,-1.3436,22.548,0.872291,23.343,-43.9808,10.7559,2.92179,-0.2923,0.022641,-0.0643022,0.0328245,-1.8701,0.231216,-0.0638621,-0.00214469,0.56076,-0.0216144,0.626482,-0.948103,1.3554,-1.18327,-0.0273948,11.8811,6.51959,10.4847,-26.1985,9.44341,69.2318,-3.66336,2.94727,-27.032,2.48842,18.584,2.17498,2.02508,0.0376436,
0.0147671,-0.0646181,0.0216593,-1.8555,0.214955,-0.0340066,-0.00235411,0.312818,0.00891323,0.322171,-0.49066,1.16107,-0.66488,-0.021676,6.25427,3.26553,6.45978,-9.61518,15.948,23.4392,-0.706891,21.7393,0.0688647,22.5026,-43.5456,10.7559,3.72095,-0.274067,0.022641,-0.0643022,0.0328245,-1.8701,0.231216,-0.0638621,-0.00214469,0.56076,-0.0216144,0.626482,-0.948103,1.3554,-1.18327,-0.0273948,0,0,0,0,0,0,0,2.94727,-27.032,2.48842,18.584,2.17498,2.02508,0.0376436,
0.0173378,-0.0643816,0.0243084,-1.8597,0.224792,-0.0362032,-0.00253522,0.31452,0.0130436,0.323964,-0.497473,1.17478,-0.586819,-0.0218686,1.06356,2.5815,1.12089,-4.25792,8.56862,48.7881,-0.12043,21.1012,-0.352414,21.8375,-43.0142,10.7559,4.22617,-0.244148,0.022641,-0.0643022,0.0328245,-1.8701,0.231216,-0.0638621,-0.00214469,0.56076,-0.0216144,0.626482,-0.948103,1.3554,-1.18327,-0.0273948,0,0,0,0,0,0,0,2.94727,-27.032,2.48842,18.584,2.17498,2.02508,0.0376436,
0.0301672,-0.0630522,0.0405904,-1.88058,0.252425,-0.0763562,-0.00261259,0.339152,0.0270305,0.349449,-0.52017,1.20278,-0.595255,-0.0230914,15.3951,8.74183,15.9278,-14.1861,17.4986,-5.27285,-0.764199,21.7393,0.0688647,22.5026,-43.5456,10.7559,3.72095,-0.274067,0.022641,-0.0643022,0.0328245,-1.8701,0.231216,-0.0638621,-0.00214469,0.56076,-0.0216144,0.626482,-0.948103,1.3554,-1.18327,-0.0273948,0,0,0,0,0,0,0,2.94727,-27.032,2.48842,18.584,2.17498,2.02508,0.0376436,
0.0332531,-0.0624696,0.043773,-1.88509,0.262666,-0.0793012,-0.00280595,0.348468,0.0361889,0.359124,-0.528753,1.21825,-0.54983,-0.023307,5.82272,5.72394,6.04688,-5.36384,9.66737,28.3907,-0.13474,21.1012,-0.352414,21.8375,-43.0142,10.7559,4.22617,-0.244148,0.022641,-0.0643022,0.0328245,-1.8701,0.231216,-0.0638621,-0.00214469,0.56076,-0.0216144,0.626482,-0.948103,1.3554,-1.18327,-0.0273948,0,0,0,0,0,0,0,2.94727,-27.032,2.48842,18.584,2.17498,2.02508,0.0376436,
0.0360079,-0.0619977,0.0466146,-1.88932,0.272582,-0.0805282,-0.00296969,0.347645,0.0407488,0.358338,-0.528764,1.2225,-0.470538,-0.0227391,-0.51479,2.84997,-0.490795,-0.00705298,2.65974,49.5574,0.354905,20.2777,-1.07277,21.0408,-41.4763,10.4578,5.20047,-0.219945,0.0431976,-0.0641156,0.0543086,-1.90993,0.28039,-0.0773012,-0.00289622,0.588275,0.0662469,0.646118,-1.23569,1.47298,-0.108534,-0.0227472,3.43937,10.9827,2.45452,-35.9478,14.6969,134.343,0.58096,-1.64288,-32.376,-2.46276,33.5803,2.15667,4.14727,-0.190323,
0.0385018,-0.0616371,0.0491875,-1.89336,0.282175,-0.0800307,-0.00310565,0.340464,0.0416154,0.350995,-0.524162,1.21782,-0.363992,-0.0215902,-4.48791,0.541608,-4.58958,2.87602,-2.92867,66.5914,0.718088,19.6877,-1.02003,20.4266,-40.7986,10.4578,5.83794,-0.187818,0.0431976,-0.0641156,0.0543086,-1.90993,0.28039,-0.0773012,-0.00289622,0.588275,0.0662469,0.646118,-1.23569,1.47298,-0.108534,-0.0227472,0,0,0,0,0,0,0,-1.64288,-32.376,-2.46276,33.5803,2.15667,4.14727,-0.190323,
0.0508989,-0.061157,0.0622713,-1.92125,0.301425,-0.0816571,-0.00332392,0.361313,0.0688327,0.372711,-0.546566,1.23152,-0.336553,-0.0223725,13.0303,17.0108,13.5724,-14.0022,8.5658,17.1497,-0.488976,20.8582,-0.941285,21.6464,-42.0915,10.4578,4.65167,-0.254281,0.0431976,-0.0641156,0.0543086,-1.90993,0.28039,-0.0773012,-0.00289622,0.588275,0.0662469,0.646118,-1.23569,1.47298,-0.108534,-0.0227472,0,0,0,0,0,0,0,-1.64288,-32.376,-2.46276,33.5803,2.15667,4.14727,-0.190323,
0.0539966,-0.0600314,0.0654715,-1.92582,0.311343,-0.082321,-0.00349736,0.366492,0.0832063,0.378175,-0.551742,1.23318,-0.28584,-0.022234,3.23733,8.98354,3.41531,-3.23524,1.03743,31.6956,0.0865601,20.2777,-1.07277,21.0408,-41.4763,10.4578,5.20047,-0.219945,0.0431976,-0.0641156,0.0543086,-1.90993,0.28039,-0.0773012,-0.00289622,0.588275,0.0662469,0.646118,-1.23569,1.47298,-0.108534,-0.0227472,0,0,0,0,0,0,0,-1.64288,-32.376,-2.46276,33.5803,2.15667,4.14727,-0.190323,
0.0567415,-0.0591881,0.0683067,-1.93012,0.32091,-0.0815394,-0.00364046,0.361817,0.0876474,0.373418,-0.548647,1.22573,-0.209131,-0.0213648,-2.92206,2.77567,-2.9734,1.93418,-4.66129,47.9431,0.54328,19.676,-1.5364,20.4617,-40.6041,10.2277,6.03518,-0.188373,0.0640033,-0.0616336,0.0760237,-1.9468,0.334687,-0.0862279,-0.00353351,0.569576,0.078601,0.682017,-1.03094,1.63414,-0.186527,-0.0117431,-2.33739,1.54427,4.48742,25.5926,20.145,-9.74914,1.37551,-0.67883,-30.9041,-1.26067,21.8213,1.08184,2.20452,-0.117081,
0.0592122,-0.058573,0.0708585,-1.93419,0.330151,-0.0792506,-0.00375731,0.351221,0.0854953,0.36253,-0.540909,1.21159,-0.110084,-0.020013,-6.6224,-1.34507,-6.80486,4.83668,-8.83568,61.9039,0.844857,19.0888,-1.35084,19.8588,-39.8442,10.2277,7.82541,-0.159083,0.0640033,-0.0616336,0.0760237,-1.9468,0.334687,-0.0862279,-0.00353351,0.569576,0.078601,0.682017,-1.03094,1.63414,-0.186527,-0.0117431,0,0,0,0,0,0,0,-0.67883,-30.9041,-1.26067,21.8213,1.08184,2.20452,-0.117081,
0.0718152,-0.0593456,0.0840898,-1.95717,0.357206,-0.089464,-0.00391196,0.371206,0.0951395,0.383095,-0.55138,1.24088,-0.116572,-0.0205078,12.4904,6.02761,12.8527,-6.54452,18.3059,-4.0545,-0.30922,20.266,-1.58914,21.076,-41.2819,10.2277,5.3977,-0.2205,0.0640033,-0.0616336,0.0760237,-1.9468,0.334687,-0.0862279,-0.00353351,0.569576,0.078601,0.682017,-1.03094,1.63414,-0.186527,-0.0117431,0,0,0,0,0,0,0,-0.67883,-30.9041,-1.26067,21.8213,1.08184,2.20452,-0.117081,
0.0749598,-0.0585355,0.0873336,-1.96153,0.367462,-0.0891056,-0.00406205,0.375581,0.0963629,0.38757,-0.549928,1.24911,-0.0842969,-0.0201583,2.7348,0.764669,2.79696,0.907224,5.14217,20.1717,0.218385,19.676,-1.5364,20.4617,-40.6041,10.2277,6.03518,-0.188373,0.0640033,-0.0616336,0.0760237,-1.9468,0.334687,-0.0862279,-0.00353351,0.569576,0.078601,0.682017,-1.03094,1.63414,-0.186527,-0.0117431,0,0,0,0,0,0,0,-0.67883,-30.9041,-1.26067,21.8213,1.08184,2.20452,-0.117081,
0.0777432,-0.0579565,0.0902053,-1.96563,0.377204,-0.0871448,-0.00418477,0.370048,0.091566,0.381848,-0.542589,1.24284,-0.0184174,-0.0191948,-3.45846,-2.99805,-3.57594,4.58699,-3.9163,41.1747,0.602228,18.9878,-1.6927,19.7887,-39.4552,10.0197,8.02138,-0.1622,0.0853195,-0.0585915,0.096886,-1.98317,0.389983,-0.0848195,-0.00398854,0.588376,0.144368,0.682062,-1.05858,1.61862,0.164605,-0.00815683,2.35006,8.22085,0.00564575,-3.45408,-1.93964,43.8915,0.448286,-2.20227,-33.6733,-2.81188,28.6212,1.30157,1.40893,-0.278213,
0.0931528,-0.0556829,0.104974,-1.99364,0.411699,-0.0843447,-0.00431698,0.38622,0.106146,0.398494,-0.553587,1.25499,0.000503494,-0.0192485,10.1078,9.11225,10.4038,-6.87378,7.59471,11.8255,-0.0335932,19.575,-1.87826,20.3916,-40.2151,10.0197,6.23114,-0.191489,0.0853195,-0.0585915,0.096886,-1.98317,0.389983,-0.0848195,-0.00398854,0.588376,0.144368,0.682062,-1.05858,1.61862,0.164605,-0.00815683,0,0,0,0,0,0,0,-2.20227,-33.6733,-2.81188,28.6212,1.30157,1.40893,-0.278213,
0.0962798,-0.0547144,0.108199,-1.998,0.421512,-0.0824002,-0.00444553,0.387151,0.109128,0.399421,-0.551889,1.24934,0.0490155,-0.0186128,0.581922,1.86378,0.57903,1.06132,-3.53379,30.32,0.397361,18.9878,-1.6927,19.7887,-39.4552,10.0197,8.02138,-0.1622,0.0853195,-0.0585915,0.096886,-1.98317,0.389983,-0.0848195,-0.00398854,0.588376,0.144368,0.682062,-1.05858,1.61862,0.164605,-0.00815683,0,0,0,0,0,0,0,-2.20227,-33.6733,-2.81188,28.6212,1.30157,1.40893,-0.278213,
0.0990345,-0.0540357,0.11104,-2.00208,0.430832,-0.0790493,-0.00454942,0.378588,0.104269,0.39058,-0.543676,1.23247,0.122985,-0.0174873,-5.35204,-3.03644,-5.52565,5.13326,-10.5438,46.2312,0.703394,18.4396,-1.62438,19.2226,-38.7932,10.0197,9.67072,-0.136294,0.0853195,-0.0585915,0.096886,-1.98317,0.389983,-0.0848195,-0.00398854,0.588376,0.144368,0.682062,-1.05858,1.61862,0.164605,-0.00815683,0,0,0,0,0,0,0,-2.20227,-33.6733,-2.81188,28.6212,1.30157,1.40893,-0.278213,
0.101497,-0.0535775,0.113581,-2.00595,0.439749,-0.0744096,-0.00463113,0.364421,0.0948715,0.375991,-0.531655,1.2089,0.214382,-0.0160327,-8.85445,-5.87366,-9.11794,7.51287,-14.7268,57.1229,0.909155,17.9246,-2.12292,18.7094,-37.9687,9.82594,10.9767,-0.115673,0.106833,-0.0548592,0.118502,-2.01923,0.444803,-0.0700485,-0.00427215,0.62756,0.13412,0.60134,-1.063,1.61641,0.543398,-0.00893533,4.89796,-1.28099,-10.0903,-0.55276,-0.275765,47.3491,-0.0973125,-1.03589,-33.225,-1.66136,25.0864,2.15667,-0.785593,-0.137222,
0.114399,-0.0520659,0.126298,-2.02946,0.465798,-0.0650922,-0.00454613,0.378534,0.107281,0.390469,-0.541405,1.21772,0.23811,-0.0160899,8.82068,7.75607,9.04884,-6.09382,5.50958,14.8298,-0.0357685,18.9601,-2.19112,19.7833,-39.1987,9.82594,8.07006,-0.164252,0.106833,-0.0548592,0.118502,-2.01923,0.444803,-0.0700485,-0.00427215,0.62756,0.13412,0.60134,-1.063,1.61641,0.543398,-0.00893533,0,0,0,0,0,0,0,-1.03589,-33.225,-1.66136,25.0864,2.15667,-0.785593,-0.137222,
0.117413,-0.051163,0.129405,-2.03368,0.475201,-0.0614212,-0.00465359,0.378163,0.108398,0.390039,-0.538652,1.20924,0.282264,-0.0155583,-0.232033,0.698114,-0.269094,1.72103,-5.29789,27.5961,0.332249,18.412,-2.1228,19.2173,-38.5367,9.82594,9.7194,-0.138346,0.106833,-0.0548592,0.118502,-2.01923,0.444803,-0.0700485,-0.00427215,0.62756,0.13412,0.60134,-1.063,1.61641,0.543398,-0.00893533,0,0,0,0,0,0,0,-1.03589,-33.225,-1.66136,25.0864,2.15667,-0.785593,-0.137222,
0.120066,-0.0505489,0.132141,-2.03763,0.484136,-0.0566503,-0.00473808,0.368854,0.102069,0.380431,-0.529679,1.19077,0.345084,-0.0145589,-5.81775,-3.95565,-6.00451,5.6079,-11.5478,39.2626,0.624602,17.9246,-2.12292,18.7094,-37.9687,9.82594,10.9767,-0.115673,0.106833,-0.0548592,0.118502,-2.01923,0.444803,-0.0700485,-0.00427215,0.62756,0.13412,0.60134,-1.063,1.61641,0.543398,-0.00893533,0,0,0,0,0,0,0,-1.03589,-33.225,-1.66136,25.0864,2.15667,-0.785593,-0.137222,
0.122437,-0.0501502,0.134587,-2.04137,0.492706,-0.0508618,-0.00480196,0.354362,0.0916237,0.365518,-0.517215,1.16687,0.420779,-0.0132441,-9.05769,-6.5284,-9.3207,7.79038,-14.9339,47.3099,0.821775,17.4896,-2.59091,18.2741,-37.1578,9.6881,11.8912,-0.0945756,0.127921,-0.0516454,0.141539,-2.05505,0.498903,-0.0438255,-0.00437663,0.675478,0.0798404,0.580975,-1.02652,1.49306,1.02946,-0.00235097,5.98982,-6.78493,-2.54557,4.56047,-15.4198,60.7575,0.823045,-5.11822,-31.3524,-5.43822,26.4551,2.76733,0.997854,-0.0365141,
0.135492,-0.0494578,0.149329,-2.0647,0.518457,-0.0335568,-0.00460926,0.369892,0.0979365,0.38145,-0.522926,1.16842,0.461353,-0.013408,9.70601,3.9455,9.95759,-3.56994,0.966172,25.3585,-0.102445,18.4029,-2.6086,19.2293,-38.2517,9.6881,9.74974,-0.138775,0.127921,-0.0516454,0.141539,-2.05505,0.498903,-0.0438255,-0.00437663,0.675478,0.0798404,0.580975,-1.02652,1.49306,1.02946,-0.00235097,0,0,0,0,0,0,0,-5.11822,-31.3524,-5.43822,26.4551,2.76733,0.997854,-0.0365141,
0.138456,-0.0487732,0.152384,-2.06867,0.527382,-0.0280798,-0.00469972,0.370019,0.0954634,0.381542,-0.517798,1.15787,0.506007,-0.012988,0.0797235,-1.54567,0.0576014,3.20534,-6.5947,27.909,0.262499,17.9155,-2.60873,18.7215,-37.6837,9.6881,11.007,-0.116102,0.127921,-0.0516454,0.141539,-2.05505,0.498903,-0.0438255,-0.00437663,0.675478,0.0798404,0.580975,-1.02652,1.49306,1.02946,-0.00235097,0,0,0,0,0,0,0,-5.11822,-31.3524,-5.43822,26.4551,2.76733,0.997854,-0.0365141,
0.141048,-0.0483348,0.155058,-2.07241,0.535951,-0.0219115,-0.00476802,0.360825,0.0873314,0.37207,-0.507741,1.14051,0.559013,-0.0120978,-5.74638,-5.08252,-5.92023,6.28584,-10.8484,33.1286,0.55636,17.4896,-2.59091,18.2741,-37.1578,9.6881,11.8912,-0.0945756,0.127921,-0.0516454,0.141539,-2.05505,0.498903,-0.0438255,-0.00437663,0.675478,0.0798404,0.580975,-1.02652,1.49306,1.02946,-0.00235097,0,0,0,0,0,0,0,-5.11822,-31.3524,-5.43822,26.4551,2.76733,0.997854,-0.0365141,
0.135492,-0.0494516,0.149326,-2.06471,0.518461,-0.0328288,-0.0045737,0.375011,0.0946695,0.386602,-0.515251,1.14732,0.582315,-0.012055,8.86622,4.58631,9.08234,-4.69384,4.25637,14.5635,0.0267729,17.9146,-2.76527,18.73,-37.5121,9.6546,11.0247,-0.115749,0.148,-0.0482659,0.163863,-2.08865,0.548883,-0.00746433,-0.00440825,0.662475,0.107793,0.622151,-1.04444,1.36648,1.27325,-0.000730164,-1.6254,3.49401,5.14703,-2.24009,-15.8218,30.4736,0.2026,-3.2893,-35.0697,-3.96239,29.494,3.64074,1.6671,-0.103348,
0.138448,-0.0487549,0.152371,-2.06866,0.527383,-0.0269352,-0.00464817,0.373906,0.0931529,0.385423,-0.511098,1.1409,0.613192,-0.0115058,-0.690426,-0.947901,-0.736953,2.59543,-4.00941,19.2982,0.343245,17.4888,-2.74745,18.2827,-36.9863,9.6546,11.9089,-0.094223,0.148,-0.0482659,0.163863,-2.08865,0.548883,-0.00746433,-0.00440825,0.662475,0.107793,0.622151,-1.04444,1.36648,1.27325,-0.000730164,0,0,0,0,0,0,0,-3.2893,-35.0697,-3.96239,29.494,3.64074,1.6671,-0.103348,
0.141025,-0.0483007,0.155029,-2.07236,0.535948,-0.0204141,-0.00470126,0.363561,0.0858775,0.374771,-0.501426,1.12684,0.653579,-0.0105318,-6.46579,-4.54707,-6.65732,6.04499,-8.79302,25.2423,0.608782,17.117,-2.67496,17.8899,-36.4736,9.6546,12.5176,-0.0741264,0.148,-0.0482659,0.163863,-2.08865,0.548883,-0.00746433,-0.00440825,0.662475,0.107793,0.622151,-1.04444,1.36648,1.27325,-0.000730164,0,0,0,0,0,0,0,-3.2893,-35.0697,-3.96239,29.494,3.64074,1.6671,-0.103348,
0.143315,-0.0480246,0.157391,-2.07586,0.544146,-0.0133024,-0.0047348,0.348091,0.0756049,0.358865,-0.488657,1.10642,0.700658,-0.00926392,-9.66898,-6.42039,-9.94097,7.98093,-12.7621,29.4241,0.792398,16.7875,-2.54572,17.5399,-35.9618,9.6546,12.8538,-0.0547218,0.148,-0.0482659,0.163863,-2.08865,0.548883,-0.00746433,-0.00440825,0.662475,0.107793,0.622151,-1.04444,1.36648,1.27325,-0.000730164,0,0,0,0,0,0,0,-3.2893,-35.0697,-3.96239,29.494,3.64074,1.6671,-0.103348,
0.155611,-0.0458051,0.171696,-2.09838,0.566729,0.00585466,-0.00456232,0.364857,0.0880073,0.37604,-0.500383,1.10061,0.719565,-0.00930293,10.4789,7.75146,10.7339,-7.32893,-3.62841,11.8169,-0.0243836,17.4888,-2.74745,18.2827,-36.9863,9.6546,11.9089,-0.094223,0.148,-0.0482659,0.163863,-2.08865,0.548883,-0.00746433,-0.00440825,0.662475,0.107793,0.622151,-1.04444,1.36648,1.27325,-0.000730164,0,0,0,0,0,0,0,-3.2893,-35.0697,-3.96239,29.494,3.64074,1.6671,-0.103348,
0.158546,-0.0450332,0.174718,-2.10232,0.575024,0.012404,-0.00461897,0.365247,0.0897033,0.376388,-0.49894,1.08785,0.739385,-0.0088585,0.243979,1.06003,0.217902,0.901597,-7.9779,12.3877,0.277774,17.1918,-2.97907,17.9674,-36.4545,9.61975,12.4499,-0.072557,0.168795,-0.0447166,0.185818,-2.1229,0.597437,0.0361656,-0.00441991,0.498643,0.0857822,0.752847,-0.990138,1.31544,1.27238,0.00113187,-20.479,-2.75129,16.337,6.78732,-6.38018,-0.108858,0.232755,-0.0956386,-32.3006,-0.788561,24.8364,3.13995,0.924612,-0.0703886,
0.161093,-0.0445268,0.177342,-2.10599,0.583002,0.0193582,-0.00465516,0.355881,0.0844221,0.366722,-0.490878,1.06973,0.765362,-0.00799155,-5.85386,-3.30075,-6.04146,5.03918,-11.3223,16.2356,0.541842,16.8623,-2.84983,17.6175,-35.9427,9.61975,12.7861,-0.0531524,0.168795,-0.0447166,0.185818,-2.1229,0.597437,0.0361656,-0.00441991,0.498643,0.0857822,0.752847,-0.990138,1.31544,1.27238,0.00113187,0,0,0,0,0,0,0,-0.0956386,-32.3006,-0.788561,24.8364,3.13995,0.924612,-0.0703886,
0.163351,-0.0442154,0.179669,-2.10944,0.590556,0.0267218,-0.00467285,0.34115,0.075325,0.351549,-0.478881,1.04462,0.79638,-0.00683551,-9.20684,-5.68571,-9.48329,7.4977,-15.691,19.3863,0.722523,16.5654,-2.67667,17.3013,-35.428,9.30277,12.9398,-0.0348616,0.168795,-0.0447166,0.185818,-2.1229,0.597437,0.0361656,-0.00441991,0.498643,0.0857822,0.752847,-0.990138,1.31544,1.27238,0.00113187,0,0,0,0,0,0,0,-0.0956386,-32.3006,-0.788561,24.8364,3.13995,0.924612,-0.0703886,
0.176206,-0.0426309,0.193459,-2.1323,0.614473,0.0499572,-0.00452823,0.35718,0.0835423,0.367865,-0.489236,1.04166,0.802026,-0.00684298,10.0186,5.13581,10.1978,-6.47149,-1.85508,3.52837,-0.00466674,17.1918,-2.97907,17.9674,-36.4545,9.61975,12.4499,-0.072557,0.168795,-0.0447166,0.185818,-2.1229,0.597437,0.0361656,-0.00441991,0.498643,0.0857822,0.752847,-0.990138,1.31544,1.27238,0.00113187,0,0,0,0,0,0,0,-0.0956386,-32.3006,-0.788561,24.8364,3.13995,0.924612,-0.0703886,
0.179072,-0.041988,0.196407,-2.13612,0.62236,0.0566862,-0.00456631,0.357404,0.0829061,0.367981,-0.487062,1.0305,0.809845,-0.00642616,0.140247,-0.397614,0.0725808,1.35835,-6.97175,4.88669,0.260511,17.0061,-3.19281,17.7654,-35.9225,9.6263,12.7021,-0.0530581,0.190378,-0.0423261,0.205379,-2.15539,0.644542,0.0844961,-0.00441754,0.622339,0.0150413,0.608729,-0.945739,1.38321,1.47435,-0.000718442,15.4619,-8.84261,-18.0148,5.54981,8.47116,25.2474,-0.23129,-4.66198,-30.551,-4.91057,22.218,2.47436,0.579458,-0.0630644,
0.181565,-0.0415787,0.198971,-2.13968,0.629826,0.0637382,-0.00458558,0.348252,0.0765577,0.358501,-0.478441,1.01107,0.824175,-0.00562279,-5.72014,-3.96775,-5.92543,5.38858,-12.1448,8.95646,0.502105,16.7092,-3.01965,17.4492,-35.4079,9.30932,12.8559,-0.0347673,0.190378,-0.0423261,0.205379,-2.15539,0.644542,0.0844961,-0.00441754,0.622339,0.0150413,0.608729,-0.945739,1.38321,1.47435,-0.000718442,0,0,0,0,0,0,0,-4.66198,-30.551,-4.91057,22.218,2.47436,0.579458,-0.0630644,
0.183776,-0.0413414,0.201247,-2.14302,0.636842,0.071125,-0.00458871,0.333864,0.0671789,0.343686,-0.466283,0.984257,0.84401,-0.00457641,-8.99281,-5.86173,-9.25924,7.59826,-16.7578,12.3969,0.653992,16.4333,-2.81798,17.1546,-34.8929,8.60196,12.819,-0.0179165,0.190378,-0.0423261,0.205379,-2.15539,0.644542,0.0844961,-0.00441754,0.622339,0.0150413,0.608729,-0.945739,1.38321,1.47435,-0.000718442,0,0,0,0,0,0,0,-4.66198,-30.551,-4.91057,22.218,2.47436,0.579458,-0.0630644,
0.19763,-0.0409936,0.212817,-2.16415,0.66187,0.100195,-0.00448803,0.34929,0.0689104,0.359303,-0.47165,0.994356,0.859813,-0.00459071,9.64172,1.08218,9.76049,-3.35384,6.31198,9.877,-0.00894029,17.0061,-3.19281,17.7654,-35.9225,9.6263,12.7021,-0.0530581,0.190378,-0.0423261,0.205379,-2.15539,0.644542,0.0844961,-0.00441754,0.622339,0.0150413,0.608729,-0.945739,1.38321,1.47435,-0.000718442,0,0,0,0,0,0,0,-4.66198,-30.551,-4.91057,22.218,2.47436,0.579458,-0.0630644,
0.200424,-0.0405992,0.215686,-2.16771,0.669578,0.107451,-0.00451017,0.349288,0.0649886,0.359163,-0.466384,0.988175,0.869264,-0.00422595,-0.00132143,-2.45113,-0.0872112,3.29115,-3.86369,5.90652,0.227976,16.7994,-3.30559,17.5405,-35.4414,9.3557,12.7421,-0.0342633,0.207811,-0.0399561,0.228461,-2.1864,0.689688,0.138117,-0.00441644,0.651747,0.0176571,0.519007,-0.911558,1.4106,1.62598,-0.00119083,3.6761,0.326973,-11.2153,4.27272,3.42389,18.9538,-0.0590488,-3.87249,-30.6542,-4.33531,22.5671,2.20611,0.466849,-0.0301054,
0.202852,-0.0403819,0.21818,-2.17104,0.676761,0.114836,-0.00451576,0.340128,0.0574245,0.3497,-0.45639,0.97011,0.880015,-0.00352048,-5.72527,-4.72758,-5.91427,6.24584,-11.2905,6.71936,0.440917,16.5234,-3.10392,17.2459,-34.9265,8.64834,12.7052,-0.0174125,0.207811,-0.0399561,0.228461,-2.1864,0.689688,0.138117,-0.00441644,0.651747,0.0176571,0.519007,-0.911558,1.4106,1.62598,-0.00119083,0,0,0,0,0,0,0,-3.87249,-30.6542,-4.33531,22.5671,2.20611,0.466849,-0.0301054,
0.205002,-0.0402922,0.220392,-2.1742,0.68345,0.122395,-0.00450587,0.325863,0.0481813,0.335064,-0.444105,0.943313,0.892986,-0.00256916,-8.91573,-5.77699,-9.1479,7.67847,-16.7478,8.10735,0.594577,16.2678,-2.88843,16.9727,-34.4125,8.04542,12.5504,-0.00240409,0.207811,-0.0399561,0.228461,-2.1864,0.689688,0.138117,-0.00441644,0.651747,0.0176571,0.519007,-0.911558,1.4106,1.62598,-0.00119083,0,0,0,0,0,0,0,-3.87249,-30.6542,-4.33531,22.5671,2.20611,0.466849,-0.0301054,
0.214676,-0.0387219,0.235485,-2.19481,0.706529,0.155231,-0.0044419,0.338407,0.0523282,0.347751,-0.449712,0.952295,0.912996,-0.00246313,7.84001,2.59179,7.92951,-3.50447,5.61371,12.506,0.0662698,16.7994,-3.30559,17.5405,-35.4414,9.3557,12.7421,-0.0342633,0.207811,-0.0399561,0.228461,-2.1864,0.689688,0.138117,-0.00441644,0.651747,0.0176571,0.519007,-0.911558,1.4106,1.62598,-0.00119083,0,0,0,0,0,0,0,-3.87249,-30.6542,-4.33531,22.5671,2.20611,0.466849,-0.0301054,
0.217319,-0.0383818,0.238199,-2.19823,0.713767,0.162832,-0.00444712,0.33682,0.0503663,0.346037,-0.445243,0.942786,0.920404,-0.00210114,-0.99138,-1.22614,-1.07123,2.79283,-5.9431,4.6299,0.226246,16.5549,-3.27418,17.2792,-34.8982,8.73409,12.6168,-0.0158458,0.227544,-0.0383805,0.248157,-2.2172,0.732108,0.195016,-0.00440625,0.43997,0.0540766,0.706256,-0.905809,1.32437,1.72438,0.00183817,-26.4722,4.55243,23.4061,0.718607,-10.7794,12.2997,0.378626,-1.15887,-31.7491,-1.83592,25.0586,2.21161,-0.12916,-0.0767973,
0.219621,-0.0382116,0.240563,-2.20144,0.720461,0.17039,-0.00443748,0.326984,0.0445468,0.335937,-0.43643,0.92159,0.925281,-0.00143999,-6.14759,-3.63723,-6.3125,5.50812,-13.2479,3.0483,0.413217,16.2993,-3.05869,17.0059,-34.3842,8.13117,12.4619,-0.000837373,0.227544,-0.0383805,0.248157,-2.2172,0.732108,0.195016,-0.00440625,0.43997,0.0540766,0.706256,-0.905809,1.32437,1.72438,0.00183817,0,0,0,0,0,0,0,-1.15887,-31.7491,-1.83592,25.0586,2.21161,-0.12916,-0.0767973,
0.23416,-0.0368616,0.254968,-2.22558,0.747165,0.212735,-0.00438738,0.336445,0.0521746,0.345553,-0.443311,0.912879,0.943161,-0.00110004,5.91297,4.76737,6.01007,-4.30063,-5.44417,11.1748,0.212468,16.5549,-3.27418,17.2792,-34.8982,8.73409,12.6168,-0.0158458,0.227544,-0.0383805,0.248157,-2.2172,0.732108,0.195016,-0.00440625,0.43997,0.0540766,0.706256,-0.905809,1.32437,1.72438,0.00183817,0,0,0,0,0,0,0,-1.15887,-31.7491,-1.83592,25.0586,2.21161,-0.12916,-0.0767973,
0.236699,-0.0364467,0.257575,-2.22899,0.753606,0.220334,-0.00437675,0.332628,0.0521129,0.34161,-0.439743,0.891324,0.944509,-0.000614382,-2.38558,-0.0385431,-2.46455,2.23004,-13.4716,0.842715,0.303535,16.2993,-3.05869,17.0059,-34.3842,8.13117,12.4619,-0.000837373,0.227544,-0.0383805,0.248157,-2.2172,0.732108,0.195016,-0.00440625,0.43997,0.0540766,0.706256,-0.905809,1.32437,1.72438,0.00183817,0,0,0,0,0,0,0,-1.15887,-31.7491,-1.83592,25.0586,2.21161,-0.12916,-0.0767973,
0.238907,-0.0362227,0.259844,-2.23218,0.75961,0.227782,-0.00435195,0.321305,0.0472906,0.330027,-0.43159,0.863173,0.941796,0.000128626,-7.07697,-3.01393,-7.23899,5.09581,-17.5946,-1.69608,0.46438,16.0918,-3.01855,16.7837,-33.8577,7.70938,12.1032,0.0158106,0.248089,-0.0371513,0.266455,-2.24679,0.772617,0.254119,-0.00439376,0.653625,0.0465766,0.481254,-0.908408,1.21993,1.77814,0.00220129,26.7069,-0.937491,-28.1253,-0.324949,-13.0545,6.71932,0.0453895,-0.754208,-30.7018,-1.26067,23.8129,2.62085,-0.175852,-0.103348,
0.240868,-0.0361307,0.261863,-2.23521,0.765221,0.235198,-0.0043127,0.306072,0.0401327,0.314489,-0.421138,0.830813,0.938843,0.00108399,-9.52047,-4.47369,-9.71112,6.53274,-20.2248,-1.84551,0.597105,15.87,-2.8028,16.546,-33.3526,7.28251,11.7919,0.0310403,0.248089,-0.0371513,0.266455,-2.24679,0.772617,0.254119,-0.00439376,0.653625,0.0465766,0.481254,-0.908408,1.21993,1.77814,0.00220129,0,0,0,0,0,0,0,-0.754208,-30.7018,-1.26067,23.8129,2.62085,-0.175852,-0.103348,
0.254562,-0.0357148,0.273076,-2.2551,0.785963,0.271811,-0.0043373,0.317637,0.0478285,0.326249,-0.430025,0.819868,0.951506,0.00132952,7.22795,4.80989,7.34961,-5.55461,-6.84061,7.91476,0.153453,16.324,-3.23768,17.0326,-34.3674,8.22463,12.3688,0.0011757,0.248089,-0.0371513,0.266455,-2.24679,0.772617,0.254119,-0.00439376,0.653625,0.0465766,0.481254,-0.908408,1.21993,1.77814,0.00220129,0,0,0,0,0,0,0,-0.754208,-30.7018,-1.26067,23.8129,2.62085,-0.175852,-0.103348,
0.257024,-0.0353196,0.275604,-2.25847,0.791715,0.279218,-0.00431212,0.315658,0.0481424,0.324199,-0.4281,0.79969,0.946396,0.00169302,-1.23656,0.196176,-1.28085,1.20288,-12.6113,-3.19426,0.227187,16.0918,-3.01855,16.7837,-33.8577,7.70938,12.1032,0.0158106,0.248089,-0.0371513,0.266455,-2.24679,0.772617,0.254119,-0.00439376,0.653625,0.0465766,0.481254,-0.908408,1.21993,1.77814,0.00220129,0,0,0,0,0,0,0,-0.754208,-30.7018,-1.26067,23.8129,2.62085,-0.175852,-0.103348,
0.259163,-0.0351058,0.277803,-2.26162,0.797121,0.286411,-0.0042735,0.306002,0.0438595,0.314344,-0.421255,0.774894,0.936933,0.00231996,-6.0356,-2.67679,-6.15993,4.27826,-15.4976,-5.914,0.391837,15.8256,-3.08295,16.5137,-33.4493,7.3116,11.6844,0.034383,0.264396,-0.0365056,0.288213,-2.27583,0.811723,0.314312,-0.00438252,0.501689,0.00659085,0.596914,-0.849164,1.04252,1.68263,0.000197228,-18.992,-4.99822,14.4575,7.40554,-22.1759,-11.9387,-0.250508,-1.23822,-30.6026,-2.16124,23.5153,2.07794,-0.222544,-0.0365141,
0.261062,-0.035018,0.279759,-2.26461,0.802173,0.293528,-0.00422414,0.292274,0.0372834,0.300373,-0.411799,0.746212,0.927482,0.00309001,-8.57993,-4.11008,-8.73193,5.91034,-17.9261,-5.90717,0.481281,15.5775,-2.87021,16.2562,-32.9524,6.84602,11.315,0.0492215,0.264396,-0.0365056,0.288213,-2.27583,0.811723,0.314312,-0.00438252,0.501689,0.00659085,0.596914,-0.849164,1.04252,1.68263,0.000197228,0,0,0,0,0,0,0,-1.23822,-30.6026,-2.16124,23.5153,2.07794,-0.222544,-0.0365141,
0.270624,-0.0355531,0.294607,-2.28381,0.823187,0.331187,-0.00430219,0.303944,0.0404464,0.312249,-0.41943,0.732131,0.93344,0.00322984,7.29387,1.97685,7.42266,-4.76966,-8.80111,3.72424,0.0873954,16.0475,-3.2987,16.7514,-33.9543,7.73847,11.9957,0.0191533,0.264396,-0.0365056,0.288213,-2.27583,0.811723,0.314312,-0.00438252,0.501689,0.00659085,0.596914,-0.849164,1.04252,1.68263,0.000197228,0,0,0,0,0,0,0,-1.23822,-30.6026,-2.16124,23.5153,2.07794,-0.222544,-0.0365141,
0.272998,-0.0352981,0.297046,-2.28707,0.828306,0.338263,-0.00426503,0.30252,0.0387317,0.310789,-0.417239,0.713681,0.923654,0.00351284,-0.89017,-1.07164,-0.912219,1.36978,-11.5307,-6.11661,0.176873,15.8256,-3.08295,16.5137,-33.4493,7.3116,11.6844,0.034383,0.264396,-0.0365056,0.288213,-2.27583,0.811723,0.314312,-0.00438252,0.501689,0.00659085,0.596914,-0.849164,1.04252,1.68263,0.000197228,0,0,0,0,0,0,0,-1.23822,-30.6026,-2.16124,23.5153,2.07794,-0.222544,-0.0365141,
0.275064,-0.0351795,0.299172,-2.29014,0.833158,0.345126,-0.00421749,0.293651,0.0339501,0.301774,-0.4105,0.692257,0.910503,0.0039988,-5.54293,-2.98856,-5.63426,4.21186,-13.39,-8.21918,0.303728,15.543,-3.06386,16.2309,-33.0178,6.92108,11.2156,0.0516732,0.284544,-0.0362377,0.305312,-2.30411,0.846363,0.372996,-0.00434711,0.456811,0.00671952,0.5977,-0.826627,0.887201,1.66196,0.000815419,-5.60982,0.0160837,0.098261,2.81708,-19.4152,-2.58287,0.0772739,-2.57916,-30.2535,-3.11339,23.6383,2.38922,-0.0165499,-0.050247,
0.2769,-0.0351572,0.301066,-2.29305,0.837607,0.351904,-0.00415762,0.280827,0.027719,0.288768,-0.401121,0.665019,0.897837,0.00469568,-8.01508,-3.89439,-8.12927,5.86164,-17.0238,-7.91652,0.435548,15.2407,-2.85199,15.9263,-32.5287,6.35646,10.8196,0.0615585,0.284544,-0.0362377,0.305312,-2.30411,0.846363,0.372996,-0.00434711,0.456811,0.00671952,0.5977,-0.826627,0.887201,1.66196,0.000815419,0,0,0,0,0,0,0,-2.57916,-30.2535,-3.11339,23.6383,2.38922,-0.0165499,-0.050247,
0.290461,-0.0353404,0.311398,-2.31201,0.85605,0.389501,-0.00423912,0.291224,0.0322215,0.299399,-0.410141,0.647465,0.904545,0.00484057,6.49818,2.81402,6.64485,-5.63775,-10.9713,4.19245,0.0905585,15.7911,-3.2766,16.4885,-33.5146,7.38666,11.585,0.0368347,0.284544,-0.0362377,0.305312,-2.30411,0.846363,0.372996,-0.00434711,0.456811,0.00671952,0.5977,-0.826627,0.887201,1.66196,0.000815419,0,0,0,0,0,0,0,-2.57916,-30.2535,-3.11339,23.6383,2.38922,-0.0165499,-0.050247,
0.292716,-0.035096,0.313718,-2.31525,0.860496,0.396328,-0.0041925,0.289356,0.0318853,0.297529,-0.409023,0.629121,0.894303,0.00503792,-1.16745,-0.2101,-1.16906,0.698648,-11.4647,-6.40119,0.123341,15.543,-3.06386,16.2309,-33.0178,6.92108,11.2156,0.0516732,0.284544,-0.0362377,0.305312,-2.30411,0.846363,0.372996,-0.00434711,0.456811,0.00671952,0.5977,-0.826627,0.887201,1.66196,0.000815419,0,0,0,0,0,0,0,-2.57916,-30.2535,-3.11339,23.6383,2.38922,-0.0165499,-0.050247,
0.294681,-0.0349802,0.315745,-2.31827,0.864653,0.402905,-0.00413388,0.280628,0.0284043,0.288691,-0.402811,0.607215,0.879859,0.00549606,-5.45474,-2.17563,-5.52375,3.88286,-13.6915,-9.02716,0.28634,15.2407,-2.85199,15.9263,-32.5287,6.35646,10.8196,0.0615585,0.284544,-0.0362377,0.305312,-2.30411,0.846363,0.372996,-0.00434711,0.456811,0.00671952,0.5977,-0.826627,0.887201,1.66196,0.000815419,0,0,0,0,0,0,0,-2.57916,-30.2535,-3.11339,23.6383,2.38922,-0.0165499,-0.050247,
0.307362,-0.0353258,0.328794,-2.34011,0.886311,0.444744,-0.00417632,0.286596,0.0317365,0.294845,-0.410863,0.585886,0.879344,0.00577588,3.72996,2.08266,3.84624,-5.03241,-13.3305,-0.321949,0.174889,15.5158,-3.33561,16.2135,-33.0634,7.01027,11.1149,0.053423,0.301844,-0.0361121,0.323136,-2.33227,0.877925,0.42923,-0.00431361,0.562533,-0.0023782,0.418024,-0.813829,0.786304,1.56086,0.00213201,13.2153,-1.13721,-22.4595,1.59973,-12.6122,-12.6382,0.164574,-2.57916,-29.1069,-3.08562,22.345,1.6925,0.307547,-0.050247,
0.309479,-0.0351029,0.330976,-2.34331,0.8901,0.451193,-0.00411736,0.282188,0.0309623,0.290425,-0.408573,0.563418,0.864701,0.00609464,-2.7553,-0.483893,-2.76229,1.43101,-14.0426,-9.15196,0.19922,15.2135,-3.12374,15.9088,-32.5744,6.44564,10.7188,0.0633083,0.301844,-0.0361121,0.323136,-2.33227,0.877925,0.42923,-0.00431361,0.562533,-0.0023782,0.418024,-0.813829,0.786304,1.56086,0.00213201,0,0,0,0,0,0,0,-2.57916,-29.1069,-3.08562,22.345,1.6925,0.307547,-0.050247,
0.311334,-0.0349988,0.332893,-2.34628,0.893557,0.457423,-0.00404834,0.272138,0.0273726,0.280257,-0.401245,0.537163,0.847507,0.00660123,-6.2811,-2.24359,-6.35522,4.58007,-16.4094,-10.746,0.316624,14.9005,-2.90361,15.6039,-32.0833,5.56383,10.3063,0.0731062,0.301844,-0.0361121,0.323136,-2.33227,0.877925,0.42923,-0.00431361,0.562533,-0.0023782,0.418024,-0.813829,0.786304,1.56086,0.00213201,0,0,0,0,0,0,0,-2.57916,-29.1069,-3.08562,22.345,1.6925,0.307547,-0.050247,
0.312995,-0.0349826,0.334611,-2.3491,0.89665,0.463559,-0.00397062,0.259218,0.022301,0.267154,-0.391445,0.507061,0.831412,0.00722404,-8.07519,-3.16976,-8.18911,6.12502,-18.8135,-10.0598,0.389255,14.5625,-2.68841,15.2688,-31.5985,4.6013,9.89948,0.0813068,0.301844,-0.0361121,0.323136,-2.33227,0.877925,0.42923,-0.00431361,0.562533,-0.0023782,0.418024,-0.813829,0.786304,1.56086,0.00213201,0,0,0,0,0,0,0,-2.57916,-29.1069,-3.08562,22.345,1.6925,0.307547,-0.050247,
0.322078,-0.0354806,0.347326,-2.36772,0.914576,0.50076,-0.00410269,0.26713,0.026115,0.275309,-0.400004,0.492262,0.839897,0.00748393,4.94545,2.38379,5.09685,-5.34908,-9.2497,5.30309,0.16243,15.2828,-3.38512,15.9901,-32.4795,6.59508,10.6242,0.0642333,0.316742,-0.0362031,0.341838,-2.35998,0.907098,0.485055,-0.00427052,0.504472,-0.00852865,0.467362,-0.819697,0.783573,1.64892,0.00102829,-7.25769,-0.768806,6.16722,-0.73343,-0.34135,11.0076,-0.137965,-1.94836,-27.4565,-2.58574,19.6552,1.97357,0.360647,0.017502,
0.324105,-0.0352847,0.349419,-2.37084,0.917739,0.507059,-0.00403403,0.264382,0.0257887,0.272578,-0.397962,0.472891,0.829384,0.00770349,-1.71804,-0.20395,-1.70671,1.2757,-12.107,-6.57072,0.137224,14.9698,-3.165,15.6851,-31.9884,5.71327,10.2117,0.0740312,0.316742,-0.0362031,0.341838,-2.35998,0.907098,0.485055,-0.00427052,0.504472,-0.00852865,0.467362,-0.819697,0.783573,1.64892,0.00102829,0,0,0,0,0,0,0,-1.94836,-27.4565,-2.58574,19.6552,1.97357,0.360647,0.017502,
0.325878,-0.0352037,0.351253,-2.37375,0.920628,0.51307,-0.00395791,0.255832,0.0226573,0.263916,-0.391122,0.450534,0.813782,0.00806578,-5.34334,-1.95712,-5.41421,4.27547,-13.9732,-9.75091,0.22643,14.6318,-2.94979,15.3501,-31.5036,4.75073,9.80488,0.0822318,0.316742,-0.0362031,0.341838,-2.35998,0.907098,0.485055,-0.00427052,0.504472,-0.00852865,0.467362,-0.819697,0.783573,1.64892,0.00102829,0,0,0,0,0,0,0,-1.94836,-27.4565,-2.58574,19.6552,1.97357,0.360647,0.017502,
0.32746,-0.0352055,0.352893,-2.37651,0.923219,0.518924,-0.00388238,0.244224,0.0180791,0.252126,-0.381896,0.425194,0.797394,0.00834104,-7.25496,-2.8614,-7.36857,5.76595,-15.8372,-10.2424,0.172039,14.2728,-2.72039,14.9777,-31.0117,4.04976,9.37367,0.0908825,0.316742,-0.0362031,0.341838,-2.35998,0.907098,0.485055,-0.00427052,0.504472,-0.00852865,0.467362,-0.819697,0.783573,1.64892,0.00102829,0,0,0,0,0,0,0,-1.94836,-27.4565,-2.58574,19.6552,1.97357,0.360647,0.017502,
0.322039,-0.0354641,0.347286,-2.36758,0.913697,0.500355,-0.00407819,0.25456,0.0229,0.262696,-0.390497,0.413419,0.806764,0.00863312,6.45974,3.0131,6.6063,-5.37579,-7.35927,5.85615,0.182547,14.8977,-3.39333,15.6212,-31.9442,5.81045,10.1336,0.0754464,0.333494,-0.0361689,0.357897,-2.38667,0.930302,0.537979,-0.00418739,0.379188,0.0154832,0.596341,-0.763034,0.682944,1.58255,0.0076317,-15.6604,3.00148,16.1224,7.0828,-12.5786,-8.29631,0.825425,-2.07531,-27.6311,-2.61351,19.9289,2.0166,0.341421,0.0577852,
0.324039,-0.0352635,0.349351,-2.37064,0.916324,0.506384,-0.00400293,0.253633,0.0233351,0.261766,-0.388819,0.396391,0.79615,0.00878802,-0.579176,0.271905,-0.581372,1.04927,-10.6427,-6.63414,0.0968166,14.5597,-3.17812,15.2862,-31.4595,4.84791,9.72671,0.083647,0.333494,-0.0361689,0.357897,-2.38667,0.930302,0.537979,-0.00418739,0.379188,0.0154832,0.596341,-0.763034,0.682944,1.58255,0.0076317,0,0,0,0,0,0,0,-2.07531,-27.6311,-2.61351,19.9289,2.0166,0.341421,0.0577852,
0.325778,-0.0351764,0.35115,-2.37349,0.918704,0.512088,-0.00392986,0.246403,0.020845,0.254403,-0.382489,0.376613,0.779511,0.00885697,-4.51859,-1.55631,-4.60203,3.95623,-12.3613,-10.3991,0.0430923,14.2006,-2.94872,14.9138,-30.9676,4.14694,9.2955,0.0922977,0.333494,-0.0361689,0.357897,-2.38667,0.930302,0.537979,-0.00418739,0.379188,0.0154832,0.596341,-0.763034,0.682944,1.58255,0.0076317,0,0,0,0,0,0,0,-2.07531,-27.6311,-2.61351,19.9289,2.0166,0.341421,0.0577852,
0.338712,-0.0354083,0.36329,-2.39402,0.935573,0.552446,-0.00398552,0.255288,0.02487,0.263487,-0.389001,0.359546,0.782128,0.00914595,5.55314,2.51562,5.6776,-4.07053,-10.6666,1.63579,0.180612,14.5597,-3.17812,15.2862,-31.4595,4.84791,9.72671,0.083647,0.333494,-0.0361689,0.357897,-2.38667,0.930302,0.537979,-0.00418739,0.379188,0.0154832,0.596341,-0.763034,0.682944,1.58255,0.0076317,0,0,0,0,0,0,0,-2.07531,-27.6311,-2.61351,19.9289,2.0166,0.341421,0.0577852,
0.340664,-0.0352228,0.365306,-2.39702,0.937692,0.558042,-0.00391411,0.253048,0.0245324,0.261205,-0.386272,0.340619,0.765603,0.00910196,-1.40016,-0.211002,-1.42633,1.7058,-11.8297,-10.3282,-0.0274917,14.1113,-3.26827,14.8306,-30.995,4.22507,9.19747,0.0936308,0.349209,-0.0360892,0.373408,-2.4125,0.949528,0.587596,-0.00407153,0.441648,-0.00127287,0.43994,-0.731643,0.540226,1.33065,0.000475761,7.80739,-2.09451,-19.5501,3.92389,-17.8398,-31.4869,-0.894492,-4.20575,-28.7538,-4.66063,22.6187,1.1679,1.04363,0.0376436,
0.342357,-0.0351485,0.367059,-2.3998,0.939278,0.563284,-0.00383793,0.24474,0.0214846,0.252772,-0.378476,0.312136,0.743541,0.0091861,-5.19283,-1.90485,-5.27029,4.87261,-17.802,-13.7888,0.0525868,13.673,-3.03599,14.375,-30.5046,3.62008,8.71497,0.0906441,0.349209,-0.0360892,0.373408,-2.4125,0.949528,0.587596,-0.00407153,0.441648,-0.00127287,0.43994,-0.731643,0.540226,1.33065,0.000475761,0,0,0,0,0,0,0,-4.20575,-28.7538,-4.66063,22.6187,1.1679,1.04363,0.0376436,
0.34386,-0.0351551,0.36862,-2.40241,0.940218,0.568351,-0.00376142,0.233391,0.0170233,0.241258,-0.368108,0.273207,0.721509,0.00926171,-7.0928,-2.78831,-7.19636,6.48025,-24.3305,-13.7702,0.047255,13.2865,-2.78772,14.0097,-29.9877,2.14742,8.24262,0.0854251,0.349209,-0.0360892,0.373408,-2.4125,0.949528,0.587596,-0.00407153,0.441648,-0.00127287,0.43994,-0.731643,0.540226,1.33065,0.000475761,0,0,0,0,0,0,0,-4.20575,-28.7538,-4.66063,22.6187,1.1679,1.04363,0.0376436,
0.354018,-0.03551,0.378364,-2.41976,0.953477,0.600081,-0.00386979,0.240586,0.0201485,0.248606,-0.376796,0.262683,0.715815,0.00940598,4.49687,1.95327,4.5926,-5.43037,-6.57713,-3.55865,0.0901663,14.1113,-3.26827,14.8306,-30.995,4.22507,9.19747,0.0936308,0.349209,-0.0360892,0.373408,-2.4125,0.949528,0.587596,-0.00407153,0.441648,-0.00127287,0.43994,-0.731643,0.540226,1.33065,0.000475761,0,0,0,0,0,0,0,-4.20575,-28.7538,-4.66063,22.6187,1.1679,1.04363,0.0376436,
0.355844,-0.0353585,0.380254,-2.4227,0.954769,0.605054,-0.00379342,0.238133,0.0199072,0.246144,-0.375013,0.242456,0.696978,0.00943402,-1.533,-0.150853,-1.53868,1.1143,-12.6419,-11.7734,0.017526,13.6508,-3.30775,14.3643,-30.465,3.7168,8.62386,0.0920054,0.363054,-0.0363457,0.389333,-2.43831,0.964785,0.633663,-0.00395476,0.464858,-0.00892561,0.37276,-0.737549,0.365779,1.26855,-0.00212951,2.90133,-0.956591,-8.39748,-0.738168,-21.8058,-7.76281,-0.325659,-1.61908,-27.1828,-2.11363,22.6187,1.21643,-0.0037325,0.0376436,
0.357443,-0.0353032,0.381913,-2.42543,0.955509,0.609796,-0.00371779,0.230471,0.0173083,0.238382,-0.368091,0.212447,0.67613,0.00943808,-4.78896,-1.62431,-4.85174,4.32619,-18.7558,-13.0295,0.0025386,13.2642,-3.05948,13.999,-29.9482,2.24414,8.15151,0.0867864,0.363054,-0.0363457,0.389333,-2.43831,0.964785,0.633663,-0.00395476,0.464858,-0.00892561,0.37276,-0.737549,0.365779,1.26855,-0.00212951,0,0,0,0,0,0,0,-1.61908,-27.1828,-2.11363,22.6187,1.21643,-0.0037325,0.0376436,
0.358877,-0.0353208,0.383404,-2.42799,0.955674,0.614442,-0.00364374,0.220227,0.0134064,0.227992,-0.358667,0.174101,0.657047,0.00940171,-6.40246,-2.43866,-6.49361,5.89021,-23.9662,-11.9274,-0.0227278,12.987,-2.82163,13.7226,-29.4083,1.06509,7.69916,0.0820563,0.363054,-0.0363457,0.389333,-2.43831,0.964785,0.633663,-0.00395476,0.464858,-0.00892561,0.37276,-0.737549,0.365779,1.26855,-0.00212951,0,0,0,0,0,0,0,-1.61908,-27.1828,-2.11363,22.6187,1.21643,-0.0037325,0.0376436,
0.367584,-0.0358484,0.394002,-2.44554,0.967169,0.645469,-0.00383103,0.226746,0.0160188,0.234672,-0.367062,0.168789,0.657858,0.00778176,4.07445,1.63274,4.17513,-5.24714,-3.32009,0.50726,-1.01247,13.6508,-3.30775,14.3643,-30.465,3.7168,8.62386,0.0920054,0.363054,-0.0363457,0.389333,-2.43831,0.964785,0.633663,-0.00395476,0.464858,-0.00892561,0.37276,-0.737549,0.365779,1.26855,-0.00212951,0,0,0,0,0,0,0,-1.61908,-27.1828,-2.11363,22.6187,1.21643,-0.0037325,0.0376436,
0.369227,-0.0359186,0.3957,-2.44813,0.968692,0.650366,-0.00381688,0.222468,0.0110619,0.230196,-0.358515,0.173127,0.648721,0.0065791,-2.67373,-3.09806,-2.79763,5.34209,2.7112,-5.71073,-0.751667,13.1774,-3.39647,13.9199,-29.8452,2.33744,8.08141,0.0873373,0.376217,-0.0365422,0.404065,-2.46333,0.975721,0.674279,-0.00390727,0.430118,0.0147853,0.348125,-0.702209,0.225729,1.027,-1.3218e-05,-4.34254,2.96386,-3.07934,4.41752,-17.5063,-30.1937,0.264537,-1.66668,-27.2344,-2.21282,21.6467,0.221249,2.27044,0.050461,
0.370598,-0.036247,0.397117,-2.4503,0.970398,0.655016,-0.00369105,0.212246,0.000637727,0.219583,-0.340985,0.181148,0.635229,0.00840897,-6.38922,-6.51511,-6.63267,10.9566,5.01328,-8.43226,1.14367,12.9002,-3.15862,13.6435,-29.3054,1.1584,7.62907,0.0826072,0.376217,-0.0365422,0.404065,-2.46333,0.975721,0.674279,-0.00390727,0.430118,0.0147853,0.348125,-0.702209,0.225729,1.027,-1.3218e-05,0,0,0,0,0,0,0,-1.66668,-27.2344,-2.21282,21.6467,0.221249,2.27044,0.050461,
0.380284,-0.0366014,0.408245,-2.46939,0.980262,0.686235,-0.00433249,0.213837,-0.00441946,0.221016,-0.335501,0.204933,0.648612,0.00318428,0.99441,-3.16074,0.895487,3.42711,14.8656,8.36429,-3.26543,13.1774,-3.39647,13.9199,-29.8452,2.33744,8.08141,0.0873373,0.376217,-0.0365422,0.404065,-2.46333,0.975721,0.674279,-0.00390727,0.430118,0.0147853,0.348125,-0.702209,0.225729,1.027,-1.3218e-05,0,0,0,0,0,0,0,-1.66668,-27.2344,-2.21282,21.6467,0.221249,2.27044,0.050461,
0.381651,-0.0371884,0.40965,-2.47125,0.982787,0.691091,-0.00432853,0.20524,-0.0182128,0.211945,-0.314945,0.227084,0.640292,0.00264655,-5.37279,-8.62086,-5.66947,12.8477,13.8442,-5.20009,-0.336082,12.9002,-3.15862,13.6435,-29.3054,1.1584,7.62907,0.0826072,0.376217,-0.0365422,0.404065,-2.46333,0.975721,0.674279,-0.00390727,0.430118,0.0147853,0.348125,-0.702209,0.225729,1.027,-1.3218e-05,0,0,0,0,0,0,0,-1.66668,-27.2344,-2.21282,21.6467,0.221249,2.27044,0.050461,
0.382739,-0.0381178,0.410765,-2.47268,0.985305,0.695216,-0.00417335,0.191395,-0.0378048,0.197441,-0.287592,0.244616,0.615362,0.0059967,-8.65339,-12.245,-9.06531,17.0955,10.9578,-15.5813,2.09385,12.772,-3.46864,13.5176,-28.4419,0.332468,7.13338,0.0782279,0.388916,-0.037237,0.418228,-2.48656,0.982825,0.707041,-0.00390124,0.373742,-0.038185,0.392201,-0.670611,0.426255,0.959136,0.00255939,-7.04702,-6.62128,5.50952,3.94973,25.0658,-8.48327,0.321576,0.25745,-26.31,-0.685411,22.1466,-1.09253,4.38531,-0.050247,
0.383635,-0.0393213,0.411679,-2.4738,0.987725,0.698689,-0.00386618,0.175503,-0.0603314,0.180801,-0.258083,0.256186,0.579118,0.0124765,-9.93226,-14.0791,-10.3996,18.4432,7.23128,-22.6527,4.0499,12.6868,-3.3397,13.4203,-27.8989,-0.460749,6.75589,0.0774626,0.388916,-0.037237,0.418228,-2.48656,0.982825,0.707041,-0.00390124,0.373742,-0.038185,0.392201,-0.670611,0.426255,0.959136,0.00255939,0,0,0,0,0,0,0,0.25745,-26.31,-0.685411,22.1466,-1.09253,4.38531,-0.050247,
0.392705,-0.038309,0.422103,-2.49147,0.989499,0.717816,-0.00411301,0.180321,-0.0668707,0.185396,-0.253059,0.287844,0.583448,0.00866776,3.01117,-4.08707,2.87156,3.1403,19.7862,2.70622,-2.38049,12.9432,-3.66025,13.6972,-28.9888,1.28507,7.55834,0.0820689,0.388916,-0.037237,0.418228,-2.48656,0.982825,0.707041,-0.00390124,0.373742,-0.038185,0.392201,-0.670611,0.426255,0.959136,0.00255939,0,0,0,0,0,0,0,0.25745,-26.31,-0.685411,22.1466,-1.09253,4.38531,-0.050247,
0.393882,-0.0395102,0.423298,-2.49265,0.992698,0.721545,-0.00402772,0.17369,-0.083526,0.178191,-0.23184,0.310269,0.559968,0.00906646,-4.14418,-10.4095,-4.50295,13.2613,14.0155,-14.6746,0.249184,12.772,-3.46864,13.5176,-28.4419,0.332468,7.13338,0.0782279,0.388916,-0.037237,0.418228,-2.48656,0.982825,0.707041,-0.00390124,0.373742,-0.038185,0.392201,-0.670611,0.426255,0.959136,0.00255939,0,0,0,0,0,0,0,0.25745,-26.31,-0.685411,22.1466,-1.09253,4.38531,-0.050247,
0.394772,-0.0411002,0.424193,-2.49339,0.995708,0.724337,-0.00379367,0.161196,-0.106571,0.164922,-0.204107,0.323469,0.517789,0.0131044,-7.80903,-14.403,-8.29326,17.3333,8.25001,-26.3617,2.52374,12.6868,-3.3397,13.4203,-27.8989,-0.460749,6.75589,0.0774626,0.388916,-0.037237,0.418228,-2.48656,0.982825,0.707041,-0.00390124,0.373742,-0.038185,0.392201,-0.670611,0.426255,0.959136,0.00255939,0,0,0,0,0,0,0,0.25745,-26.31,-0.685411,22.1466,-1.09253,4.38531,-0.050247,
0.395471,-0.0429864,0.424887,-2.49386,0.99848,0.726363,-0.00340615,0.146434,-0.132413,0.149292,-0.174975,0.328072,0.46487,0.0201714,-9.22601,-16.1512,-9.76874,18.2076,2.87693,-33.0746,4.41684,12.5031,-3.78979,13.2631,-27.2461,-1.02857,6.38179,0.07716,0.402681,-0.0401474,0.431392,-2.50529,0.996871,0.736412,-0.00391665,0.287626,-0.12564,0.464236,-0.472135,0.481542,0.842508,0.0033213,-10.7645,-10.9319,9.0044,24.8095,6.9109,-14.5785,0.0952387,-2.6585,-24.6636,-3.161,16.4178,-2.52716,3.55675,0.0980684,
0.406244,-0.042754,0.435016,-2.50835,1.00406,0.745652,-0.00368131,0.153741,-0.143807,0.156346,-0.166334,0.350132,0.470081,0.0205121,4.5666,-7.12129,4.40911,5.40064,13.7873,3.25702,0.212946,12.6206,-3.98284,13.4076,-28.3212,0.386015,7.10469,0.078223,0.402681,-0.0401474,0.431392,-2.50529,0.996871,0.736412,-0.00391665,0.287626,-0.12564,0.464236,-0.472135,0.481542,0.842508,0.0033213,0,0,0,0,0,0,0,-2.6585,-24.6636,-3.161,16.4178,-2.52716,3.55675,0.0980684,
0.407268,-0.0446881,0.436037,-2.50886,1.00734,0.748358,-0.00337004,0.148607,-0.163398,0.150586,-0.145769,0.361907,0.443724,0.0241915,-3.20831,-12.2448,-3.60011,12.853,7.35963,-16.473,2.29961,12.5354,-3.8539,13.3103,-27.7781,-0.407202,6.7272,0.0774577,0.402681,-0.0401474,0.431392,-2.50529,0.996871,0.736412,-0.00391665,0.287626,-0.12564,0.464236,-0.472135,0.481542,0.842508,0.0033213,0,0,0,0,0,0,0,-2.6585,-24.6636,-3.161,16.4178,-2.52716,3.55675,0.0980684,
0.408003,-0.0469576,0.436753,-2.50904,1.01032,0.75006,-0.0029113,0.137248,-0.187455,0.138388,-0.121106,0.364235,0.397533,0.0308217,-7.0997,-15.0353,-7.6241,15.4147,1.45523,-28.8697,4.1439,12.5031,-3.78979,13.2631,-27.2461,-1.02857,6.38179,0.07716,0.402681,-0.0401474,0.431392,-2.50529,0.996871,0.736412,-0.00391665,0.287626,-0.12564,0.464236,-0.472135,0.481542,0.842508,0.0033213,0,0,0,0,0,0,0,-2.6585,-24.6636,-3.161,16.4178,-2.52716,3.55675,0.0980684,
0.408551,-0.0494692,0.437273,-2.50903,1.01301,0.75098,-0.00229992,0.123502,-0.212756,0.123707,-0.0964953,0.358515,0.341029,0.0399418,-8.59096,-15.8131,-9.17574,15.3815,-3.57521,-35.3148,5.70004,12.417,-4.20537,13.2556,-26.7443,-1.47532,6.02315,0.0791426,0.41554,-0.0469136,0.442651,-2.51924,1.01192,0.763736,-0.00386086,0.306929,-0.246466,0.369851,-0.379641,0.521754,0.743397,0.00338165,2.41292,-15.1033,-11.7982,11.5616,5.02641,-12.3889,0.0075444,-3.87249,-21.3667,-4.08537,9.78851,-2.4292,3.16582,-0.0026396,
0.418652,-0.0510413,0.445771,-2.52107,1.01905,0.771216,-0.00349609,0.130356,-0.225422,0.130277,-0.0895581,0.371847,0.348741,0.0381856,4.28333,-7.91623,4.10654,4.3357,8.33259,4.81963,-1.09763,12.4473,-4.2767,13.3164,-27.7962,-0.358662,6.67223,0.0777539,0.41554,-0.0469136,0.442651,-2.51924,1.01192,0.763736,-0.00386086,0.306929,-0.246466,0.369851,-0.379641,0.521754,0.743397,0.00338165,0,0,0,0,0,0,0,-3.87249,-21.3667,-4.08537,9.78851,-2.4292,3.16582,-0.0026396,
0.419521,-0.0535618,0.446612,-2.52112,1.02213,0.773073,-0.00309276,0.126011,-0.24335,0.125256,-0.0728975,0.37451,0.325409,0.0406316,-2.71568,-11.205,-3.13785,10.4129,1.66418,-14.5822,1.5288,12.415,-4.21259,13.2692,-27.2641,-0.980028,6.32682,0.0774562,0.41554,-0.0469136,0.442651,-2.51924,1.01192,0.763736,-0.00386086,0.306929,-0.246466,0.369851,-0.379641,0.521754,0.743397,0.00338165,0,0,0,0,0,0,0,-3.87249,-21.3667,-4.08537,9.78851,-2.4292,3.16582,-0.0026396,
0.420137,-0.056329,0.447186,-2.52093,1.02488,0.773998,-0.0025261,0.116207,-0.263861,0.114563,-0.0535574,0.36847,0.283459,0.0466718,-6.12701,-12.8193,-6.68369,12.0876,-3.77485,-26.2185,3.7751,12.417,-4.20537,13.2556,-26.7443,-1.47532,6.02315,0.0791426,0.41554,-0.0469136,0.442651,-2.51924,1.01192,0.763736,-0.00386086,0.306929,-0.246466,0.369851,-0.379641,0.521754,0.743397,0.00338165,0,0,0,0,0,0,0,-3.87249,-21.3667,-4.08537,9.78851,-2.4292,3.16582,-0.0026396,
0.420595,-0.0592649,0.447592,-2.52061,1.02732,0.774231,-0.00179282,0.104423,-0.284486,0.101802,-0.035017,0.355665,0.232587,0.0556695,-7.36498,-12.8907,-7.97539,11.5877,-8.00291,-31.7955,5.62356,12.3969,-4.60713,13.3636,-26.411,-1.81081,5.6635,0.0813295,0.425881,-0.0569376,0.453954,-2.53125,1.02381,0.786838,-0.00313127,0.384677,-0.338755,0.200582,-0.373859,0.338619,0.653843,0.0150284,9.71843,-11.5361,-21.1585,0.722814,-22.8919,-11.1943,1.45584,-4.28112,-21.7674,-4.71221,14.1486,-0.585331,2.65496,0.131027,
0.428411,-0.0622358,0.456432,-2.5327,1.02862,0.792696,-0.00251998,0.108659,-0.295678,0.105831,-0.0355836,0.343088,0.242311,0.0540986,2.64719,-6.99496,2.5182,-0.35413,-7.8611,6.07803,-0.981793,12.3812,-4.57459,13.3803,-27.4377,-0.959139,6.24331,0.0783047,0.425881,-0.0569376,0.453954,-2.53125,1.02381,0.786838,-0.00313127,0.384677,-0.338755,0.200582,-0.373859,0.338619,0.653843,0.0150284,0,0,0,0,0,0,0,-4.28112,-21.7674,-4.71221,14.1486,-0.585331,2.65496,0.131027,
0.429086,-0.0651757,0.457057,-2.53258,1.03082,0.793839,-0.00196703,0.1038,-0.310041,0.100296,-0.0255205,0.329448,0.222424,0.0571027,-3.03691,-8.97702,-3.45957,6.28947,-8.52496,-12.4299,1.87756,12.3832,-4.56737,13.3667,-26.9178,-1.45443,5.93965,0.0799911,0.425881,-0.0569376,0.453954,-2.53125,1.02381,0.786838,-0.00313127,0.384677,-0.338755,0.200582,-0.373859,0.338619,0.653843,0.0150284,0,0,0,0,0,0,0,-4.28112,-21.7674,-4.71221,14.1486,-0.585331,2.65496,0.131027,
0.429556,-0.0682942,0.457462,-2.53225,1.03284,0.794135,-0.00123771,0.0947992,-0.325994,0.0903603,-0.0120998,0.314154,0.185335,0.0639152,-5.62542,-9.97088,-6.20963,8.38795,-9.55876,-23.1805,4.25778,12.3969,-4.60713,13.3636,-26.411,-1.81081,5.6635,0.0813295,0.425881,-0.0569376,0.453954,-2.53125,1.02381,0.786838,-0.00313127,0.384677,-0.338755,0.200582,-0.373859,0.338619,0.653843,0.0150284,0,0,0,0,0,0,0,-4.28112,-21.7674,-4.71221,14.1486,-0.585331,2.65496,0.131027,
0.429904,-0.0715301,0.457734,-2.53182,1.03468,0.793823,-0.000331661,0.0845465,-0.341693,0.0790795,0.00109969,0.297204,0.140472,0.0737834,-6.40793,-9.81146,-7.0505,8.24967,-10.5934,-28.039,6.16762,12.4133,-4.68156,13.3634,-25.9151,-2.06932,5.42125,0.0837331,0.425881,-0.0569376,0.453954,-2.53125,1.02381,0.786838,-0.00313127,0.384677,-0.338755,0.200582,-0.373859,0.338619,0.653843,0.0150284,0,0,0,0,0,0,0,-4.28112,-21.7674,-4.71221,14.1486,-0.585331,2.65496,0.131027,
0.428422,-0.0621961,0.456441,-2.53259,1.02846,0.792668,-0.00252655,0.0929081,-0.340959,0.0877794,-0.00520642,0.293902,0.168159,0.0685,5.22599,0.458646,5.43744,-3.94132,-2.06376,17.3041,-3.3021,12.3832,-4.56737,13.3667,-26.9178,-1.45443,5.93965,0.0799911,0.425881,-0.0569376,0.453954,-2.53125,1.02381,0.786838,-0.00313127,0.384677,-0.338755,0.200582,-0.373859,0.338619,0.653843,0.0150284,0,0,0,0,0,0,0,-4.28112,-21.7674,-4.71221,14.1486,-0.585331,2.65496,0.131027,
0.429102,-0.0651218,0.457071,-2.53242,1.03055,0.793787,-0.00197671,0.0913282,-0.345911,0.0859685,0.000150357,0.287454,0.162507,0.0685461,-0.987471,-3.09509,-1.13182,3.34799,-4.03024,-3.53245,0.0288337,12.3969,-4.60713,13.3636,-26.411,-1.81081,5.6635,0.0813295,0.425881,-0.0569376,0.453954,-2.53125,1.02381,0.786838,-0.00313127,0.384677,-0.338755,0.200582,-0.373859,0.338619,0.653843,0.0150284,0,0,0,0,0,0,0,-4.28112,-21.7674,-4.71221,14.1486,-0.585331,2.65496,0.131027,
0.429576,-0.0682313,0.457478,-2.53204,1.03247,0.794057,-0.00124955,0.0848921,-0.354465,0.0789647,0.00956276,0.27802,0.136741,0.073016,-4.02257,-5.34653,-4.37738,5.88275,-5.89612,-16.1038,2.79367,12.4133,-4.68156,13.3634,-25.9151,-2.06932,5.42125,0.0837331,0.425881,-0.0569376,0.453954,-2.53125,1.02381,0.786838,-0.00313127,0.384677,-0.338755,0.200582,-0.373859,0.338619,0.653843,0.0150284,0,0,0,0,0,0,0,-4.28112,-21.7674,-4.71221,14.1486,-0.585331,2.65496,0.131027,
0.429924,-0.0714613,0.45775,-2.53157,1.03422,0.793718,-0.000344562,0.0766305,-0.364323,0.0699774,0.0193277,0.265999,0.100917,0.0810374,-5.16348,-6.1609,-5.61705,6.10307,-7.51335,-22.3898,5.01337,12.3179,-5.20492,13.4154,-25.5329,-2.18966,5.13072,0.0859012,0.434143,-0.0688295,0.464205,-2.54231,1.0342,0.806231,-0.00221911,0.252273,-0.38413,0.263082,-0.307693,0.193199,0.55947,0.0293342,-16.5504,-5.6719,7.8125,8.27073,-18.1774,-11.7965,1.78823,-3.4956,-22.4181,-4.50987,14.5731,-0.0717199,1.84655,0.205185,
0.436377,-0.0746309,0.466377,-2.54327,1.03714,0.810947,-0.00131264,0.0834238,-0.365559,0.0769354,0.0127563,0.249745,0.123652,0.0782572,4.24583,-0.772673,4.34876,-4.10711,-10.1585,14.2093,-1.73759,12.2953,-5.03145,13.4265,-26.5146,-1.77839,5.59211,0.08182,0.434143,-0.0688295,0.464205,-2.54231,1.0342,0.806231,-0.00221911,0.252273,-0.38413,0.263082,-0.307693,0.193199,0.55947,0.0293342,0,0,0,0,0,0,0,-3.4956,-22.4181,-4.50987,14.5731,-0.0717199,1.84655,0.205185,
0.436967,-0.0777792,0.466897,-2.54301,1.03861,0.811638,-0.000595072,0.0814903,-0.371156,0.0745562,0.0166514,0.236477,0.116197,0.0805451,-1.20846,-3.49834,-1.48704,2.43446,-8.29264,-4.6597,1.42992,12.3117,-5.10589,13.4262,-26.0187,-2.03689,5.34986,0.0842237,0.434143,-0.0688295,0.464205,-2.54231,1.0342,0.806231,-0.00221911,0.252273,-0.38413,0.263082,-0.307693,0.193199,0.55947,0.0293342,0,0,0,0,0,0,0,-3.4956,-22.4181,-4.50987,14.5731,-0.0717199,1.84655,0.205185,
0.437375,-0.0810801,0.467219,-2.54258,1.04002,0.811565,0.000305222,0.0754094,-0.379446,0.0676936,0.024206,0.224599,0.0911302,0.0869434,-3.80057,-5.18067,-4.28912,4.72164,-7.42352,-15.6665,3.99895,12.3179,-5.20492,13.4154,-25.5329,-2.18966,5.13072,0.0859012,0.434143,-0.0688295,0.464205,-2.54231,1.0342,0.806231,-0.00221911,0.252273,-0.38413,0.263082,-0.307693,0.193199,0.55947,0.0293342,0,0,0,0,0,0,0,-3.4956,-22.4181,-4.50987,14.5731,-0.0717199,1.84655,0.205185,
0.444204,-0.0892157,0.47462,-2.55231,1.04374,0.828276,-8.12436e-05,0.0800932,-0.381049,0.0723069,0.0198919,0.209925,0.112837,0.0837065,2.92737,-1.00205,2.88332,-2.69632,-9.1715,13.567,-2.02306,12.2352,-5.5246,13.5462,-26.1487,-2.00424,5.2675,0.0846607,0.442243,-0.0830901,0.472745,-2.5517,1.04134,0.823856,-0.00102452,0.172508,-0.420926,0.264411,-0.259493,0.173912,0.533797,0.0263211,-9.97068,-4.5995,0.166042,6.02501,-2.41086,-3.20912,-0.376638,-0.500302,-20.5455,-1.66136,16.5408,0.17181,1.27617,0.124619,
0.444752,-0.0924624,0.475078,-2.55198,1.04496,0.828934,0.000683188,0.0777665,-0.386007,0.0693104,0.0241971,0.19856,0.10672,0.086076,-1.45414,-3.09914,-1.87282,2.6907,-7.10327,-3.82312,1.48092,12.2414,-5.62363,13.5353,-25.6628,-2.15701,5.04835,0.0863383,0.442243,-0.0830901,0.472745,-2.5517,1.04134,0.823856,-0.00102452,0.172508,-0.420926,0.264411,-0.259493,0.173912,0.533797,0.0263211,0,0,0,0,0,0,0,-0.500302,-20.5455,-1.66136,16.5408,0.17181,1.27617,0.124619,
0.445153,-0.0958288,0.475374,-2.55151,1.04618,0.828902,0.00163623,0.0722424,-0.392965,0.0628249,0.0311863,0.189244,0.0845736,0.0926868,-3.45258,-4.34854,-4.05346,4.3683,-5.82212,-13.8417,4.13178,12.2344,-5.73712,13.512,-25.1844,-2.239,4.85635,0.0884874,0.442243,-0.0830901,0.472745,-2.5517,1.04134,0.823856,-0.00102452,0.172508,-0.420926,0.264411,-0.259493,0.173912,0.533797,0.0263211,0,0,0,0,0,0,0,-0.500302,-20.5455,-1.66136,16.5408,0.17181,1.27617,0.124619,
0.445472,-0.0992604,0.475576,-2.55099,1.04737,0.828392,0.00276414,0.0657631,-0.400163,0.0553115,0.0380474,0.181071,0.0549098,0.102347,-4.04957,-4.49894,-4.69584,4.28814,-5.10827,-18.5399,6.03782,12.2078,-5.85792,13.4693,-24.7122,-2.24616,4.68375,0.089806,0.442243,-0.0830901,0.472745,-2.5517,1.04134,0.823856,-0.00102452,0.172508,-0.420926,0.264411,-0.259493,0.173912,0.533797,0.0263211,0,0,0,0,0,0,0,-0.500302,-20.5455,-1.66136,16.5408,0.17181,1.27617,0.124619,
0.444204,-0.0891929,0.47462,-2.55226,1.04366,0.828254,-8.4301e-05,0.0723532,-0.397334,0.0623908,0.0317325,0.17397,0.0835114,0.0959893,4.11879,1.7685,4.42456,-3.94677,-4.43804,17.876,-3.97378,12.2409,-6.00417,13.7175,-25.7323,-2.13146,4.96091,0.0867152,0.449125,-0.0965405,0.478321,-2.5594,1.04509,0.836679,0.000630308,0.151019,-0.469135,0.281946,-0.265413,0.11483,0.46099,0.0564585,-2.68615,-6.02614,2.19197,-0.740022,-7.38535,-9.10098,3.76718,0.590702,-20.9938,-0.510851,17.6874,0.429074,1.72661,0.185044,
0.444748,-0.0924305,0.475076,-2.5519,1.04484,0.828894,0.000678387,0.0714904,-0.398808,0.0613164,0.0343351,0.168721,0.0827966,0.0958586,-0.539216,-0.921599,-0.671541,1.6266,-3.28058,-0.446734,-0.0816672,12.2339,-6.11766,13.6942,-25.2538,-2.21345,4.7689,0.0888643,0.449125,-0.0965405,0.478321,-2.5594,1.04509,0.836679,0.000630308,0.151019,-0.469135,0.281946,-0.265413,0.11483,0.46099,0.0564585,0,0,0,0,0,0,0,0.590702,-20.9938,-0.510851,17.6874,0.429074,1.72661,0.185044,
0.445144,-0.0957896,0.475367,-2.55141,1.04602,0.828841,0.00162965,0.0670779,-0.403023,0.0563163,0.0398352,0.164473,0.0649006,0.100468,-2.75779,-2.63415,-3.12505,3.43756,-2.65497,-11.185,2.88112,12.2073,-6.23845,13.6514,-24.7816,-2.2206,4.5963,0.0901829,0.449125,-0.0965405,0.478321,-2.5594,1.04509,0.836679,0.000630308,0.151019,-0.469135,0.281946,-0.265413,0.11483,0.46099,0.0564585,0,0,0,0,0,0,0,0.590702,-20.9938,-0.510851,17.6874,0.429074,1.72661,0.185044,
0.445454,-0.0992148,0.475562,-2.55086,1.04718,0.828307,0.00275565,0.0614243,-0.408049,0.0499354,0.0453707,0.160617,0.0385908,0.108525,-3.53352,-3.1411,-3.98802,3.45972,-2.41032,-16.4436,5.03527,12.1614,-6.35986,13.5903,-24.3136,-2.18069,4.44509,0.0916544,0.449125,-0.0965405,0.478321,-2.5594,1.04509,0.836679,0.000630308,0.151019,-0.469135,0.281946,-0.265413,0.11483,0.46099,0.0564585,0,0,0,0,0,0,0,0.590702,-20.9938,-0.510851,17.6874,0.429074,1.72661,0.185044,
0.451115,-0.10294,0.480214,-2.56004,1.04647,0.840479,0.00204766,0.0693541,-0.4063,0.0583386,0.0365461,0.14684,0.0650567,0.106778,4.95611,1.09306,5.25198,-5.51542,-8.6108,16.5412,-1.09201,12.2339,-6.11766,13.6942,-25.2538,-2.21345,4.7689,0.0888643,0.449125,-0.0965405,0.478321,-2.5594,1.04509,0.836679,0.000630308,0.151019,-0.469135,0.281946,-0.265413,0.11483,0.46099,0.0564585,0,0,0,0,0,0,0,0.590702,-20.9938,-0.510851,17.6874,0.429074,1.72661,0.185044,
0.451683,-0.106231,0.480683,-2.55973,1.04732,0.841023,0.00302459,0.0696833,-0.407299,0.0584081,0.036944,0.138673,0.0656548,0.109845,0.205767,-0.624528,0.0434597,0.248718,-5.10387,0.373813,1.9172,12.2039,-6.62124,13.8997,-24.9813,-2.20653,4.49657,0.0906611,0.457101,-0.113361,0.486717,-2.56828,1.04782,0.852004,0.00296246,0.331791,-0.439325,0.122667,-0.240806,0.0484076,0.391398,0.0796212,22.5965,3.72633,-19.9099,3.07589,-8.30275,-8.69891,2.89533,1.70551,-21.5929,0.0128308,21.2738,0.502316,1.05736,0.191452,
0.452106,-0.109605,0.480991,-2.55929,1.04825,0.840966,0.0041713,0.0663138,-0.410199,0.0544076,0.0405117,0.134197,0.0510967,0.116544,-2.10595,-1.81242,-2.50035,2.22983,-2.79755,-9.09884,4.1868,12.158,-6.74265,13.8386,-24.5133,-2.16661,4.34535,0.0921326,0.457101,-0.113361,0.486717,-2.56828,1.04782,0.852004,0.00296246,0.331791,-0.439325,0.122667,-0.240806,0.0484076,0.391398,0.0796212,0,0,0,0,0,0,0,1.70551,-21.5929,0.0128308,21.2738,0.502316,1.05736,0.191452,
0.452446,-0.113019,0.481206,-2.55881,1.04923,0.840497,0.00547504,0.0615584,-0.413506,0.0489032,0.0444142,0.131893,0.0291575,0.125829,-2.97216,-2.06695,-3.44026,2.43902,-1.44041,-13.712,5.80286,12.0903,-6.86054,13.756,-24.0485,-2.07807,4.21025,0.0928628,0.457101,-0.113361,0.486717,-2.56828,1.04782,0.852004,0.00296246,0.331791,-0.439325,0.122667,-0.240806,0.0484076,0.391398,0.0796212,0,0,0,0,0,0,0,1.70551,-21.5929,0.0128308,21.2738,0.502316,1.05736,0.191452,
0.459169,-0.119883,0.488614,-2.5687,1.0491,0.85529,0.00468022,0.070467,-0.411869,0.0581287,0.037368,0.122786,0.0535595,0.124271,5.56789,1.02343,5.76599,-4.40387,-5.69149,15.2512,-0.973492,12.2039,-6.62124,13.8997,-24.9813,-2.20653,4.49657,0.0906611,0.457101,-0.113361,0.486717,-2.56828,1.04782,0.852004,0.00296246,0.331791,-0.439325,0.122667,-0.240806,0.0484076,0.391398,0.0796212,0,0,0,0,0,0,0,1.70551,-21.5929,0.0128308,21.2738,0.502316,1.05736,0.191452,
0.459794,-0.123181,0.489127,-2.56838,1.04991,0.855834,0.00579371,0.0719898,-0.411943,0.0593192,0.0378331,0.118472,0.0564441,0.127254,0.951762,-0.0465146,0.744063,0.290724,-2.69634,1.80291,1.86427,12.1042,-7.25416,14.0007,-24.5746,-2.12966,4.24205,0.0925272,0.46299,-0.129364,0.496334,-2.57603,1.04858,0.864954,0.00517131,0.143363,-0.434835,0.280685,-0.194686,0.00638519,0.315342,0.0776013,-23.5535,0.561204,19.7521,5.76507,-5.2528,-9.50705,-0.252483,1.85627,-20.7677,-0.411669,21.25,0.727535,0.805594,0.272019,
0.460281,-0.126529,0.489488,-2.56797,1.05081,0.855895,0.00706791,0.0697882,-0.413253,0.0564741,0.0406055,0.117295,0.046703,0.133658,-1.37603,-0.819001,-1.77821,1.73272,-0.735421,-6.08818,4.00276,12.0364,-7.37205,13.9181,-24.1098,-2.04112,4.10695,0.0932574,0.46299,-0.129364,0.496334,-2.57603,1.04858,0.864954,0.00517131,0.143363,-0.434835,0.280685,-0.194686,0.00638519,0.315342,0.0776013,0,0,0,0,0,0,0,1.85627,-20.7677,-0.411669,21.25,0.727535,0.805594,0.272019,
0.460689,-0.129892,0.48976,-2.56753,1.05178,0.855633,0.00849093,0.066018,-0.414676,0.0519995,0.0433045,0.117923,0.0307933,0.142502,-2.35637,-0.888967,-2.79663,1.6869,0.392108,-9.94357,5.52729,11.9487,-7.48275,13.8165,-23.6469,-1.92463,3.98833,0.0939498,0.46299,-0.129364,0.496334,-2.57603,1.04858,0.864954,0.00517131,0.143363,-0.434835,0.280685,-0.194686,0.00638519,0.315342,0.0776013,0,0,0,0,0,0,0,1.85627,-20.7677,-0.411669,21.25,0.727535,0.805594,0.272019,
0.465067,-0.1356,0.498297,-2.57659,1.04881,0.867827,0.0069672,0.0746142,-0.410069,0.061245,0.0339602,0.100624,0.0522228,0.138691,5.37264,2.87929,5.77843,-5.84021,-10.8115,13.3934,-2.38184,12.1042,-7.25416,14.0007,-24.5746,-2.12966,4.24205,0.0925272,0.46299,-0.129364,0.496334,-2.57603,1.04858,0.864954,0.00517131,0.143363,-0.434835,0.280685,-0.194686,0.00638519,0.315342,0.0776013,0,0,0,0,0,0,0,1.85627,-20.7677,-0.411669,21.25,0.727535,0.805594,0.272019,
0.465721,-0.138819,0.498837,-2.57638,1.0493,0.868401,0.00812948,0.0760276,-0.408515,0.0624954,0.0323116,0.0927537,0.0561195,0.14001,0.883363,0.971391,0.781509,-1.03035,-4.91924,2.43542,0.824189,12.0601,-7.77545,14.1653,-24.2344,-2.02306,4.00143,0.0937453,0.472056,-0.145643,0.500841,-2.58421,1.04868,0.876463,0.00760541,0.163777,-0.44939,0.242601,-0.225847,0.000336162,0.305726,0.077408,2.55174,-1.81934,-4.76049,-3.8952,-0.756129,-1.202,-0.0241704,1.55078,-20.2718,-0.463243,22.8687,0.800778,1.07751,0.305893,
0.46624,-0.142099,0.499226,-2.57607,1.04996,0.868582,0.00945593,0.0737915,-0.408815,0.0597166,0.033561,0.0908932,0.0494433,0.145169,-1.39752,-0.187567,-1.73677,0.780852,-1.16283,-4.17264,3.22456,11.9724,-7.88614,14.0638,-23.7715,-1.90658,3.8828,0.0944377,0.472056,-0.145643,0.500841,-2.58421,1.04868,0.876463,0.00760541,0.163777,-0.44939,0.242601,-0.225847,0.000336162,0.305726,0.077408,0,0,0,0,0,0,0,1.55078,-20.2718,-0.463243,22.8687,0.800778,1.07751,0.305893,
0.474102,-0.151897,0.502761,-2.58496,1.04875,0.879407,0.00935594,0.0807999,-0.404923,0.0673397,0.0241403,0.0767445,0.069519,0.140421,4.38024,2.43211,4.76446,-5.88792,-8.84291,12.5473,-2.9678,12.0601,-7.77545,14.1653,-24.2344,-2.02306,4.00143,0.0937453,0.472056,-0.145643,0.500841,-2.58421,1.04868,0.876463,0.00760541,0.163777,-0.44939,0.242601,-0.225847,0.000336162,0.305726,0.077408,0,0,0,0,0,0,0,1.55078,-20.2718,-0.463243,22.8687,0.800778,1.07751,0.305893,
0.474773,-0.155069,0.503318,-2.58483,1.04915,0.880165,0.0105138,0.0814195,-0.403234,0.067792,0.0225298,0.0714557,0.0745589,0.141282,0.387247,1.0556,0.282707,-1.00661,-3.30554,3.14996,0.538409,11.9724,-7.88614,14.0638,-23.7715,-1.90658,3.8828,0.0944377,0.472056,-0.145643,0.500841,-2.58421,1.04868,0.876463,0.00760541,0.163777,-0.44939,0.242601,-0.225847,0.000336162,0.305726,0.077408,0,0,0,0,0,0,0,1.55078,-20.2718,-0.463243,22.8687,0.800778,1.07751,0.305893,
0.475321,-0.158288,0.503735,-2.5846,1.04974,0.880559,0.0118299,0.0788158,-0.403073,0.064647,0.0238156,0.0718873,0.0695005,0.145929,-1.62736,0.100971,-1.96564,0.803655,0.269768,-3.16152,2.90427,11.8557,-8.43062,14.19,-23.4756,-1.75547,3.68939,0.0948993,0.476707,-0.162308,0.509751,-2.59212,1.04862,0.886119,0.0108735,0.267053,-0.452013,0.0920024,-0.228898,-0.0094772,0.244588,0.110224,12.9095,-0.327885,-18.8248,-0.381359,-1.22667,-7.64225,4.10197,0.233646,-19.5458,-2.38738,21.7697,1.11847,1.28258,0.380051,
0.475794,-0.161529,0.504067,-2.58433,1.05046,0.880592,0.0132416,0.0748965,-0.403477,0.060035,0.0257585,0.0754357,0.0564358,0.152036,-2.44951,-0.252244,-2.88251,1.21431,2.21774,-8.16542,3.81691,11.7298,-8.52175,14.0516,-23.0144,-1.5975,3.59617,0.0948188,0.476707,-0.162308,0.509751,-2.59212,1.04862,0.886119,0.0108735,0.267053,-0.452013,0.0920024,-0.228898,-0.0094772,0.244588,0.110224,0,0,0,0,0,0,0,0.233646,-19.5458,-2.38738,21.7697,1.11847,1.28258,0.380051,
0.478568,-0.168807,0.511387,-2.59273,1.04912,0.888221,0.0129,0.0800671,-0.402776,0.0653745,0.0189414,0.0683188,0.0665903,0.149036,3.23162,0.438032,3.33723,-4.26067,-4.44804,6.34655,-1.87504,11.9638,-8.32895,14.3114,-23.9373,-1.89994,3.79489,0.0948401,0.476707,-0.162308,0.509751,-2.59212,1.04862,0.886119,0.0108735,0.267053,-0.452013,0.0920024,-0.228898,-0.0094772,0.244588,0.110224,0,0,0,0,0,0,0,0.233646,-19.5458,-2.38738,21.7697,1.11847,1.28258,0.380051,
0.479223,-0.172007,0.511911,-2.5926,1.0496,0.888732,0.0141386,0.0804338,-0.402219,0.0654065,0.018316,0.0667238,0.0660502,0.150193,0.229177,0.348117,0.0199618,-0.390914,-0.996873,-0.337556,0.723531,11.8557,-8.43062,14.19,-23.4756,-1.75547,3.68939,0.0948993,0.476707,-0.162308,0.509751,-2.59212,1.04862,0.886119,0.0108735,0.267053,-0.452013,0.0920024,-0.228898,-0.0094772,0.244588,0.110224,0,0,0,0,0,0,0,0.233646,-19.5458,-2.38738,21.7697,1.11847,1.28258,0.380051,
0.479786,-0.175216,0.512331,-2.5924,1.05022,0.888919,0.0154757,0.0784163,-0.402001,0.0628204,0.0196539,0.0687822,0.0574985,0.153582,-1.26095,0.135819,-1.61629,0.836182,1.28652,-5.34481,2.11792,11.7418,-9.01222,14.2733,-23.0358,-1.57064,3.48557,0.0953475,0.483189,-0.178682,0.516481,-2.60037,1.04842,0.896549,0.0141897,0.0855586,-0.460132,0.324692,-0.231843,-0.0217381,0.352475,0.0909151,-22.6868,-1.01483,29.0862,-0.368059,-1.53262,13.4859,-2.41358,1.70551,-19.4704,-0.788561,18.8062,0.745846,1.52794,0.352585,
0.480296,-0.178416,0.512692,-2.59219,1.05093,0.888819,0.0168709,0.0754847,-0.401611,0.0592869,0.0211033,0.0728038,0.0435137,0.157745,-1.83225,0.244274,-2.20844,0.905896,2.51348,-8.7405,2.60178,11.5987,-9.09244,14.1183,-22.5748,-1.40002,3.40271,0.094778,0.483189,-0.178682,0.516481,-2.60037,1.04842,0.896549,0.0141897,0.0855586,-0.460132,0.324692,-0.231843,-0.0217381,0.352475,0.0909151,0,0,0,0,0,0,0,1.70551,-19.4704,-0.788561,18.8062,0.745846,1.52794,0.352585,
0.485318,-0.184715,0.518563,-2.6015,1.04763,0.899838,0.015849,0.0835439,-0.396065,0.0688559,0.00927731,0.0526037,0.0694966,0.148756,5.03701,3.46614,5.9806,-7.39124,-12.6251,16.2393,-5.618,11.8677,-8.92109,14.4117,-23.497,-1.72861,3.57879,0.095428,0.483189,-0.178682,0.516481,-2.60037,1.04842,0.896549,0.0141897,0.0855586,-0.460132,0.324692,-0.231843,-0.0217381,0.352475,0.0909151,0,0,0,0,0,0,0,1.70551,-19.4704,-0.788561,18.8062,0.745846,1.52794,0.352585,
0.486055,-0.187747,0.519199,-2.60156,1.04773,0.900843,0.0169106,0.0852608,-0.392658,0.07098,0.00592164,0.0444434,0.0807035,0.145544,1.07309,2.12898,1.32758,-2.09729,-5.10017,7.00435,-2.00735,11.7418,-9.01222,14.2733,-23.0358,-1.57064,3.48557,0.0953475,0.483189,-0.178682,0.516481,-2.60037,1.04842,0.896549,0.0141897,0.0855586,-0.460132,0.324692,-0.231843,-0.0217381,0.352475,0.0909151,0,0,0,0,0,0,0,1.70551,-19.4704,-0.788561,18.8062,0.745846,1.52794,0.352585,
0.486675,-0.19082,0.519698,-2.60151,1.04807,0.901498,0.0180958,0.0837143,-0.390963,0.0692626,0.00611334,0.0440723,0.0809439,0.146067,-0.96658,1.05949,-1.07339,0.119814,-0.23195,0.150241,0.32628,11.6491,-9.51807,14.4115,-22.6792,-1.38764,3.30092,0.0952008,0.491146,-0.195136,0.522286,-2.60944,1.0482,0.907025,0.017502,0.209701,-0.496598,0.195336,-0.290315,-0.024383,0.308595,0.0990567,15.5179,-4.55824,-16.1695,-7.30909,-0.330608,-5.48504,1.0177,1.12232,-20.244,-1.56218,21.4484,0.819088,1.73394,0.406601,
0.487227,-0.193911,0.520117,-2.6014,1.04859,0.901837,0.0193629,0.0807691,-0.390041,0.0658945,0.00746065,0.0481895,0.0732253,0.14853,-1.84076,0.576352,-2.10507,0.842066,2.57321,-4.82417,1.53969,11.4914,-9.58725,14.2427,-22.2181,-1.21373,3.22679,0.0944525,0.491146,-0.195136,0.522286,-2.60944,1.0482,0.907025,0.017502,0.209701,-0.496598,0.195336,-0.290315,-0.024383,0.308595,0.0990567,0,0,0,0,0,0,0,1.12232,-20.244,-1.56218,21.4484,0.819088,1.73394,0.406601,
0.49328,-0.201513,0.524289,-2.61063,1.04779,0.90987,0.0191608,0.0879602,-0.389452,0.0739917,-0.00184092,0.035922,0.0894179,0.141337,4.49443,0.368001,5.06075,-5.81348,-7.66718,10.1204,-4.49559,11.7921,-9.43785,14.5665,-23.1402,-1.55826,3.38378,0.0957702,0.491146,-0.195136,0.522286,-2.60944,1.0482,0.907025,0.017502,0.209701,-0.496598,0.195336,-0.290315,-0.024383,0.308595,0.0990567,0,0,0,0,0,0,0,1.12232,-20.244,-1.56218,21.4484,0.819088,1.73394,0.406601,
0.494043,-0.204579,0.524945,-2.6107,1.04793,0.910799,0.0202049,0.0894566,-0.388215,0.0755984,-0.0033306,0.0323255,0.0947763,0.139172,0.935239,0.773446,1.00423,-0.931053,-2.24782,3.34895,-1.35313,11.6491,-9.51807,14.4115,-22.6792,-1.38764,3.30092,0.0952008,0.491146,-0.195136,0.522286,-2.60944,1.0482,0.907025,0.017502,0.209701,-0.496598,0.195336,-0.290315,-0.024383,0.308595,0.0990567,0,0,0,0,0,0,0,1.12232,-20.244,-1.56218,21.4484,0.819088,1.73394,0.406601,
0.494701,-0.207644,0.52548,-2.61068,1.04828,0.911438,0.0213558,0.0880034,-0.387187,0.0738523,-0.00204717,0.0346644,0.09178,0.140109,-0.908227,0.642458,-1.0913,0.802148,1.46183,-1.87266,0.585571,11.4914,-9.58725,14.2427,-22.2181,-1.21373,3.22679,0.0944525,0.491146,-0.195136,0.522286,-2.60944,1.0482,0.907025,0.017502,0.209701,-0.496598,0.195336,-0.290315,-0.024383,0.308595,0.0990567,0,0,0,0,0,0,0,1.12232,-20.244,-1.56218,21.4484,0.819088,1.73394,0.406601,
0.495295,-0.210698,0.525944,-2.61062,1.04879,0.911807,0.0225741,0.0852721,-0.386103,0.0706921,-0.000192887,0.0404316,0.0826561,0.142546,-1.70708,0.677189,-1.97511,1.15892,3.60453,-5.70243,1.52285,11.3145,-10.1059,14.3114,-21.8425,-1.02738,3.07162,0.0937691,0.49593,-0.211359,0.531903,-2.61796,1.04782,0.916992,0.0209021,0.280015,-0.507122,0.157223,-0.276522,-0.0387885,0.32019,0.0887807,8.78917,-1.3156,-4.76411,1.72411,-1.80069,1.4494,-1.2845,0.66608,-20.0218,-2.68492,19.6274,0.782467,1.90606,0.400192,
0.498225,-0.217915,0.534032,-2.61897,1.04755,0.920121,0.0224266,0.0932745,-0.387784,0.0794793,-0.00635614,0.0310445,0.101019,0.135018,5.00153,-1.05056,5.49198,-3.85204,-5.86695,11.4769,-4.7048,11.643,-9.9782,14.6619,-22.7651,-1.37714,3.21201,0.0956216,0.49593,-0.211359,0.531903,-2.61796,1.04782,0.916992,0.0209021,0.280015,-0.507122,0.157223,-0.276522,-0.0387885,0.32019,0.0887807,0,0,0,0,0,0,0,0.66608,-20.0218,-2.68492,19.6274,0.782467,1.90606,0.400192,
0.499049,-0.220994,0.53475,-2.61902,1.04772,0.921223,0.0234081,0.0952172,-0.387194,0.081556,-0.00645004,0.0291011,0.10838,0.132553,1.21417,0.368889,1.2979,-0.0586862,-1.21461,4.60045,-1.5406,11.4854,-10.0474,14.493,-22.3039,-1.20323,3.13788,0.0948734,0.49593,-0.211359,0.531903,-2.61796,1.04782,0.916992,0.0209021,0.280015,-0.507122,0.157223,-0.276522,-0.0387885,0.32019,0.0887807,0,0,0,0,0,0,0,0.66608,-20.0218,-2.68492,19.6274,0.782467,1.90606,0.400192,
0.499761,-0.224037,0.535346,-2.61901,1.04808,0.922039,0.0244916,0.0939817,-0.38584,0.0801268,-0.00482301,0.0323443,0.107094,0.133129,-0.772171,0.845971,-0.893238,1.01689,2.02697,-0.803495,0.360044,11.3145,-10.1059,14.3114,-21.8425,-1.02738,3.07162,0.0937691,0.49593,-0.211359,0.531903,-2.61796,1.04782,0.916992,0.0209021,0.280015,-0.507122,0.157223,-0.276522,-0.0387885,0.32019,0.0887807,0,0,0,0,0,0,0,0.66608,-20.0218,-2.68492,19.6274,0.782467,1.90606,0.400192,
0.507303,-0.234525,0.542735,-2.62909,1.04571,0.930525,0.0250377,0.10387,-0.382221,0.0920817,-0.0164646,0.0121539,0.122281,0.122982,6.18033,2.26179,7.47183,-7.27597,-12.619,9.49147,-6.34185,11.5214,-10.6182,14.7377,-22.2306,-1.16638,3.02646,0.095281,0.504689,-0.228462,0.540057,-2.62751,1.04715,0.927291,0.0238437,0.11289,-0.513428,0.387753,-0.274141,-0.0343188,0.303237,0.0710665,-20.8906,-0.788208,28.8163,0.297624,0.558716,-2.11919,-2.21427,-0.627255,-18.2485,-3.76006,19.9289,0.740353,1.87951,0.433151,
0.508224,-0.237442,0.543592,-2.62934,1.04553,0.931777,0.0258529,0.106129,-0.378703,0.0950736,-0.0193634,0.0051922,0.129127,0.118764,1.41202,2.19923,1.86995,-1.81178,-4.35109,4.27878,-2.63602,11.3504,-10.6767,14.5561,-21.7691,-0.990524,2.9602,0.0941768,0.504689,-0.228462,0.540057,-2.62751,1.04715,0.927291,0.0238437,0.11289,-0.513428,0.387753,-0.274141,-0.0343188,0.303237,0.0710665,0,0,0,0,0,0,0,-0.627255,-18.2485,-3.76006,19.9289,0.740353,1.87951,0.433151,
0.509001,-0.240362,0.544282,-2.62947,1.04564,0.932803,0.0267947,0.104341,-0.375971,0.0933302,-0.0187185,0.00704947,0.128955,0.118556,-1.1181,1.70752,-1.08963,0.403066,1.1608,-0.107522,-0.129963,11.1685,-10.7253,14.364,-21.3074,-0.81814,2.89974,0.0928746,0.504689,-0.228462,0.540057,-2.62751,1.04715,0.927291,0.0238437,0.11289,-0.513428,0.387753,-0.274141,-0.0343188,0.303237,0.0710665,0,0,0,0,0,0,0,-0.627255,-18.2485,-3.76006,19.9289,0.740353,1.87951,0.433151,
0.50969,-0.243278,0.544873,-2.62955,1.04598,0.933594,0.0278233,0.100692,-0.373664,0.0894188,-0.016929,0.0140548,0.122926,0.120561,-2.28003,1.44194,-2.44465,1.11842,4.37831,-3.76766,1.25296,10.9768,-10.7645,14.1626,-20.8453,-0.65077,2.84497,0.0913141,0.504689,-0.228462,0.540057,-2.62751,1.04715,0.927291,0.0238437,0.11289,-0.513428,0.387753,-0.274141,-0.0343188,0.303237,0.0710665,0,0,0,0,0,0,0,-0.627255,-18.2485,-3.76006,19.9289,0.740353,1.87951,0.433151,
0.515995,-0.251066,0.549805,-2.63832,1.04687,0.93996,0.0279783,0.108203,-0.373869,0.0977053,-0.0225865,0.0126829,0.133884,0.113466,4.69394,-0.128163,5.17911,-3.53593,-0.857412,6.84879,-4.43419,11.3541,-11.0619,14.8344,-21.9478,-0.988653,2.87428,0.0946345,0.513473,-0.244841,0.547408,-2.63707,1.04686,0.936924,0.026762,0.310961,-0.476914,0.168821,-0.29969,-0.0112051,0.293216,0.0752134,24.759,4.56424,-27.3666,-3.19358,2.88921,-1.25263,0.518368,-1.61908,-19.1451,-5.68816,23.6899,0.667111,2.37664,0.433151,
0.516911,-0.253995,0.550643,-2.63848,1.04711,0.941199,0.0288008,0.109472,-0.372303,0.0991035,-0.0221213,0.016168,0.138082,0.111336,0.793424,0.978601,0.873845,0.290777,2.17816,2.62381,-1.3315,11.1721,-11.1104,14.6422,-21.4861,-0.816269,2.81382,0.0933323,0.513473,-0.244841,0.547408,-2.63707,1.04686,0.936924,0.026762,0.310961,-0.476914,0.168821,-0.29969,-0.0112051,0.293216,0.0752134,0,0,0,0,0,0,0,-1.61908,-19.1451,-5.68816,23.6899,0.667111,2.37664,0.433151,
0.517706,-0.256893,0.551347,-2.63857,1.04751,0.942227,0.029728,0.107451,-0.370312,0.0968902,-0.0199404,0.0231333,0.136155,0.112246,-1.2632,1.24436,-1.38332,1.36308,4.35332,-1.20454,0.569017,10.9805,-11.1497,14.4409,-21.024,-0.648899,2.75905,0.0917719,0.513473,-0.244841,0.547408,-2.63707,1.04686,0.936924,0.026762,0.310961,-0.476914,0.168821,-0.29969,-0.0112051,0.293216,0.0752134,0,0,0,0,0,0,0,-1.61908,-19.1451,-5.68816,23.6899,0.667111,2.37664,0.433151,
0.518425,-0.259762,0.551971,-2.63864,1.04805,0.943037,0.0307215,0.103933,-0.36797,0.0931068,-0.017804,0.0319303,0.129184,0.114637,-2.19865,1.46354,-2.36459,1.33524,5.49813,-4.3572,1.4939,10.7811,-11.1806,14.2323,-20.5617,-0.489007,2.70769,0.0900028,0.513473,-0.244841,0.547408,-2.63707,1.04686,0.936924,0.026762,0.310961,-0.476914,0.168821,-0.29969,-0.0112051,0.293216,0.0752134,0,0,0,0,0,0,0,-1.61908,-19.1451,-5.68816,23.6899,0.667111,2.37664,0.433151,
0.515966,-0.251056,0.549789,-2.63831,1.04691,0.939908,0.0279614,0.11038,-0.36914,0.100384,-0.0231612,0.0276238,0.138192,0.1085,4.02935,-0.731072,4.54853,-3.34825,-2.69155,5.63021,-3.83575,11.1485,-11.6831,14.863,-21.4797,-0.79329,2.72086,0.0937555,0.517891,-0.261787,0.559696,-2.64609,1.04616,0.946251,0.0290664,0.190819,-0.478492,0.302579,-0.261858,-0.0132594,0.292571,0.063944,-15.0178,-0.197232,16.7198,4.72895,-0.256782,-0.0805101,-1.40868,0.106693,-18.1731,-4.01,22.944,0.617672,2.34368,0.440476,
0.516863,-0.253975,0.550612,-2.63846,1.04718,0.941119,0.0287751,0.110733,-0.368284,0.1009,-0.0224261,0.0289237,0.140824,0.107143,0.220515,0.534848,0.322496,0.459408,0.81246,1.645,-0.847829,10.9569,-11.7223,14.6617,-21.0176,-0.62592,2.66609,0.0921951,0.517891,-0.261787,0.559696,-2.64609,1.04616,0.946251,0.0290664,0.190819,-0.478492,0.302579,-0.261858,-0.0132594,0.292571,0.063944,0,0,0,0,0,0,0,0.106693,-18.1731,-4.01,22.944,0.617672,2.34368,0.440476,
0.517637,-0.256862,0.551301,-2.63855,1.04762,0.942119,0.0296941,0.10794,-0.366815,0.0979355,-0.0199985,0.0342353,0.137653,0.108689,-1.74554,0.91836,-1.85313,1.51727,3.31974,-1.98173,0.966547,10.7575,-11.7533,14.4531,-20.5553,-0.466027,2.61474,0.090426,0.517891,-0.261787,0.559696,-2.64609,1.04616,0.946251,0.0290664,0.190819,-0.478492,0.302579,-0.261858,-0.0132594,0.292571,0.063944,0,0,0,0,0,0,0,0.106693,-18.1731,-4.01,22.944,0.617672,2.34368,0.440476,
0.520461,-0.267706,0.562321,-2.64754,1.04553,0.949484,0.0301016,0.114663,-0.36511,0.106369,-0.0278422,0.022377,0.147769,0.101427,4.20161,1.06562,5.27126,-4.9023,-7.41144,6.32238,-4.53926,10.9569,-11.7223,14.6617,-21.0176,-0.62592,2.66609,0.0921951,0.517891,-0.261787,0.559696,-2.64609,1.04616,0.946251,0.0290664,0.190819,-0.478492,0.302579,-0.261858,-0.0132594,0.292571,0.063944,0,0,0,0,0,0,0,0.106693,-18.1731,-4.01,22.944,0.617672,2.34368,0.440476,
0.521388,-0.270528,0.563205,-2.6478,1.0456,0.950822,0.0308229,0.1149,-0.362627,0.1072,-0.0288276,0.019825,0.151677,0.0991728,0.14804,1.5519,0.518989,-0.615892,-1.59501,2.44245,-1.40866,10.7529,-12.1821,14.6689,-20.6074,-0.447755,2.52543,0.0908665,0.528294,-0.278158,0.565117,-2.65576,1.04594,0.9562,0.0313492,0.180072,-0.449224,0.328248,-0.250718,-0.00576537,0.295961,0.0652617,-1.34345,3.65848,3.20859,1.39251,0.93675,0.423641,0.16471,0.309024,-19.0975,-4.08537,25.134,0.612179,2.31713,0.460617,
0.522183,-0.273334,0.563941,-2.64797,1.04591,0.951968,0.0316562,0.111805,-0.360253,0.104147,-0.027351,0.0235199,0.149972,0.10017,-1.93386,1.48375,-1.90819,0.922847,2.30928,-1.06534,0.623257,10.5472,-12.2055,14.4542,-20.1449,-0.296998,2.47792,0.0889354,0.528294,-0.278158,0.565117,-2.65576,1.04594,0.9562,0.0313492,0.180072,-0.449224,0.328248,-0.250718,-0.00576537,0.295961,0.0652617,0,0,0,0,0,0,0,0.309024,-19.0975,-4.08537,25.134,0.612179,2.31713,0.460617,
0.522897,-0.27612,0.564586,-2.64811,1.04639,0.952905,0.0325643,0.107282,-0.35785,0.0994519,-0.0253381,0.0307402,0.143412,0.102839,-2.82687,1.50183,-2.93429,1.25807,4.51273,-4.10025,1.66836,10.3364,-12.2224,14.2349,-19.6824,-0.155776,2.43202,0.0868175,0.528294,-0.278158,0.565117,-2.65576,1.04594,0.9562,0.0313492,0.180072,-0.449224,0.328248,-0.250718,-0.00576537,0.295961,0.0652617,0,0,0,0,0,0,0,0.309024,-19.0975,-4.08537,25.134,0.612179,2.31713,0.460617,
0.530918,-0.283778,0.567875,-2.6573,1.04536,0.95941,0.0322654,0.114842,-0.354734,0.10902,-0.0337473,0.0203788,0.152323,0.0949666,4.72499,1.94748,5.98,-5.25575,-6.47593,5.56957,-4.92051,10.7529,-12.1821,14.6689,-20.6074,-0.447755,2.52543,0.0908665,0.528294,-0.278158,0.565117,-2.65576,1.04594,0.9562,0.0313492,0.180072,-0.449224,0.328248,-0.250718,-0.00576537,0.295961,0.0652617,0,0,0,0,0,0,0,0.309024,-19.0975,-4.08537,25.134,0.612179,2.31713,0.460617,
0.531871,-0.286492,0.568811,-2.65763,1.04547,0.960787,0.032908,0.115704,-0.351634,0.110631,-0.0352812,0.0188743,0.156273,0.0920387,0.538311,1.93721,1.00701,-0.958699,-0.940286,2.46828,-1.82992,10.5324,-12.686,14.7216,-20.273,-0.291574,2.39389,0.0893418,0.533255,-0.294497,0.576241,-2.66501,1.04592,0.964655,0.0332681,0.305253,-0.436444,0.126057,-0.27613,-0.0123571,0.23285,0.0505199,15.6476,1.59754,-25.2739,-3.1765,-0.823962,-7.88885,-1.84272,1.65393,-16.9988,-3.83544,23.6899,0.672604,2.32354,0.473435,
0.532691,-0.289201,0.569596,-2.65787,1.04579,0.962006,0.0336612,0.113062,-0.34904,0.108128,-0.0341799,0.0232167,0.155502,0.0924614,-1.651,1.6212,-1.56454,0.688321,2.71402,-0.481403,0.264161,10.3217,-12.7029,14.5023,-19.8106,-0.150352,2.34798,0.0872239,0.533255,-0.294497,0.576241,-2.66501,1.04592,0.964655,0.0332681,0.305253,-0.436444,0.126057,-0.27613,-0.0123571,0.23285,0.0505199,0,0,0,0,0,0,0,1.65393,-16.9988,-3.83544,23.6899,0.672604,2.32354,0.473435,
0.533427,-0.291897,0.570289,-2.65807,1.04628,0.963043,0.0344901,0.108847,-0.346636,0.103807,-0.0323652,0.0307899,0.150327,0.0946902,-2.63473,1.50255,-2.70036,1.1342,4.73323,-3.23434,1.39304,10.1071,-12.7141,14.2794,-19.3481,-0.0203046,2.30445,0.0850042,0.533255,-0.294497,0.576241,-2.66501,1.04592,0.964655,0.0332681,0.305253,-0.436444,0.126057,-0.27613,-0.0123571,0.23285,0.0505199,0,0,0,0,0,0,0,1.65393,-16.9988,-3.83544,23.6899,0.672604,2.32354,0.473435,
0.53559,-0.300408,0.578494,-2.66632,1.04614,0.967545,0.0342801,0.112954,-0.348425,0.108446,-0.0368657,0.0286516,0.155723,0.0902453,2.56705,-1.11772,2.89916,-2.81284,-1.33641,3.37223,-2.7781,10.5324,-12.686,14.7216,-20.273,-0.291574,2.39389,0.0893418,0.533255,-0.294497,0.576241,-2.66501,1.04592,0.964655,0.0332681,0.305253,-0.436444,0.126057,-0.27613,-0.0123571,0.23285,0.0505199,0,0,0,0,0,0,0,1.65393,-16.9988,-3.83544,23.6899,0.672604,2.32354,0.473435,
0.536473,-0.303168,0.579348,-2.6666,1.04646,0.968847,0.0349809,0.11245,-0.347744,0.108089,-0.0364633,0.0309235,0.157118,0.0897151,-0.314896,0.425611,-0.222792,0.251522,1.41991,0.871751,-0.33138,10.3729,-13.2388,14.7273,-19.6789,-0.119172,2.24723,0.0876466,0.542301,-0.310724,0.583566,-2.67429,1.04595,0.97381,0.0348708,0.0921459,-0.467037,0.430314,-0.263662,-0.00429905,0.265907,0.0529545,-26.6383,-3.82418,38.0322,1.55847,1.00725,4.13222,0.304318,0.435978,-16.7488,-3.48631,20.3018,0.562741,2.68792,0.453293,
0.53726,-0.305882,0.580098,-2.66682,1.04692,0.969983,0.0357641,0.109629,-0.346052,0.105223,-0.0347409,0.0363602,0.154096,0.091353,-1.76314,1.05743,-1.79174,1.07651,3.39793,-1.88888,1.0237,10.1583,-13.25,14.5045,-19.2164,0.0108758,2.2037,0.085427,0.542301,-0.310724,0.583566,-2.67429,1.04595,0.97381,0.0348708,0.0921459,-0.467037,0.430314,-0.263662,-0.00429905,0.265907,0.0529545,0,0,0,0,0,0,0,0.435978,-16.7488,-3.48631,20.3018,0.562741,2.68792,0.453293,
0.537986,-0.308554,0.580787,-2.66703,1.0475,0.97094,0.036596,0.105844,-0.343639,0.101398,-0.0330991,0.043479,0.147203,0.0938801,-2.36544,1.50821,-2.39042,1.02611,4.44926,-4.30791,1.57941,9.94101,-13.2565,14.2792,-18.7543,0.130692,2.16042,0.0830351,0.542301,-0.310724,0.583566,-2.67429,1.04595,0.97381,0.0348708,0.0921459,-0.467037,0.430314,-0.263662,-0.00429905,0.265907,0.0529545,0,0,0,0,0,0,0,0.435978,-16.7488,-3.48631,20.3018,0.562741,2.68792,0.453293,
0.544957,-0.316016,0.586614,-2.67634,1.0448,0.977028,0.035509,0.114375,-0.339093,0.113325,-0.0456842,0.0241401,0.156105,0.0840144,5.33187,2.84136,7.45444,-7.8657,-12.0868,5.56375,-6.16602,10.3729,-13.2388,14.7273,-19.6789,-0.119172,2.24723,0.0876466,0.542301,-0.310724,0.583566,-2.67429,1.04595,0.97381,0.0348708,0.0921459,-0.467037,0.430314,-0.263662,-0.00429905,0.265907,0.0529545,0,0,0,0,0,0,0,0.435978,-16.7488,-3.48631,20.3018,0.562741,2.68792,0.453293,
0.54593,-0.318566,0.587638,-2.67686,1.04471,0.9785,0.0359979,0.115834,-0.335037,0.11628,-0.049561,0.0171384,0.161689,0.079435,0.911983,2.5347,1.84686,-2.42297,-4.37611,3.49021,-2.86215,10.1583,-13.25,14.5045,-19.2164,0.0108758,2.2037,0.085427,0.542301,-0.310724,0.583566,-2.67429,1.04595,0.97381,0.0348708,0.0921459,-0.467037,0.430314,-0.263662,-0.00429905,0.265907,0.0529545,0,0,0,0,0,0,0,0.435978,-16.7488,-3.48631,20.3018,0.562741,2.68792,0.453293,
0.546766,-0.321123,0.5885,-2.67725,1.0449,0.979867,0.0366029,0.113547,-0.331935,0.114555,-0.0495468,0.0183555,0.163536,0.0786727,-1.42937,1.93884,-1.07845,0.0088867,0.760722,1.15432,-0.476424,9.89187,-13.6482,14.5342,-18.9517,0.124769,2.08735,0.0834847,0.549544,-0.326732,0.592459,-2.68347,1.04605,0.98245,0.0361687,0.335074,-0.461429,0.102564,-0.290411,-0.00534868,0.254933,0.0351711,30.3661,0.701035,-40.9688,-3.34359,-0.131205,-1.37183,-2.22292,-0.274166,-17.3995,-5.78734,21.4484,0.58746,2.60918,0.473435,
