xiao-wang007/linearmpc_panda/paper_data/panda_torque_PD_controller_error_match_to_start_torque_rate_limiter_low_pass_filter/0/trajectory.csv
Commanded Joint 0 Position,Commanded Joint 1 Position,Commanded Joint 2 Position,Commanded Joint 3 Position,Commanded Joint 4 Position,Commanded Joint 5 Position,Commanded Joint 6 Position,Commanded Joint 0 Velocity,Commanded Joint 1 Velocity,Commanded Joint 2 Velocity,Commanded Joint 3 Velocity,Commanded Joint 4 Velocity,Commanded Joint 5 Velocity,Commanded Joint 6 Velocity,Commanded Joint 0 Acceleration,Commanded Joint 1 Acceleration,Commanded Joint 2 Acceleration,Commanded Joint 3 Acceleration,Commanded Joint 4 Acceleration,Commanded Joint 5 Acceleration,Commanded Joint 6 Acceleration,Commanded Joint 0 Torque,Commanded Joint 1 Torque,Commanded Joint 2 Torque,Commanded Joint 3 Torque,Commanded Joint 4 Torque,Commanded Joint 5 Torque,Commanded Joint 6 Torque,Actual Joint 0 Position,Actual Joint 1 Position,Actual Joint 2 Position,Actual Joint 3 Position,Actual Joint 4 Position,Actual Joint 5 Position,Actual Joint 6 Position,Actual Joint 0 Velocity,Actual Joint 1 Velocity,Actual Joint 2 Velocity,Actual Joint 3 Velocity,Actual Joint 4 Velocity,Actual Joint 5 Velocity,Actual Joint 6 Velocity,Actual Joint 0 Acceleration,Actual Joint 1 Acceleration,Actual Joint 2 Acceleration,Actual Joint 3 Acceleration,Actual Joint 4 Acceleration,Actual Joint 5 Acceleration,Actual Joint 6 Acceleration,Actual Joint 0 Torque,Actual Joint 1 Torque,Actual Joint 2 Torque,Actual Joint 3 Torque,Actual Joint 4 Torque,Actual Joint 5 Torque,Actual Joint 6 Torque,
-0.0310697,0.00333483,0.0299972,-1.77319,-0.00890233,0.226743,0.0134592,0.000608327,0.0222947,0.000566154,-0.0329234,-0.00435374,0.0541387,-0.000380604,0.380205,13.9342,0.353846,-20.5771,-2.72109,33.8367,-0.237877,0.0575398,24.5188,0.052097,-24.2996,-0.553092,2.00261,-0.0249207,-0.0311364,0.00203406,0.0299441,-1.77003,-0.00855218,0.220983,0.0135172,-0.000464644,0.000109445,4.49676e-05,0.00141336,0.00153256,-0.000598522,-0.0012799,0,0,0,0,0,0,0,0.134464,-35.3713,0.0882092,27.0264,0.489498,3.03307,-0.0767973,
-0.0311384,0.00202973,0.029942,-1.77002,-0.00853817,0.220996,0.0135169,0.000478002,0.0178057,0.00044297,-0.0262984,-0.00342398,0.0434325,-0.000303813,-0.0814534,-2.80562,-0.0769901,4.14063,0.581102,-6.6914,0.0479944,0.0517794,24.9608,0.0416347,-24.2157,-0.553507,1.7522,-0.0234075,-0.0311317,0.00209146,0.0299433,-1.77009,-0.00854415,0.22098,0.0135221,-0.00133043,0.00479522,-0.000446064,0.000952986,0.00438787,-0.000271258,0.000732909,-0.108224,0.585722,-0.0613789,-0.0575468,0.356915,0.0409079,0.251601,0.158268,-35.2681,0.0644055,27.0541,0.447384,3.05962,-0.110672,
-0.0311386,0.0020289,0.0299417,-1.77002,-0.00853688,0.221001,0.0135169,0.000377503,0.0142239,0.00034812,-0.0210064,-0.00270702,0.0348597,-0.000242756,-0.0628116,-2.23862,-0.0592812,3.3075,0.448101,-5.358,0.0381602,0.0445457,25.5324,0.0298827,-24.1077,-0.553072,1.40458,-0.0214401,-0.0311317,0.00209146,0.0299433,-1.77009,-0.00854415,0.22098,0.0135221,-0.00133043,0.00479522,-0.000446064,0.000952986,0.00438787,-0.000271258,0.000732909,0,0,0,0,0,0,0,0.158268,-35.2681,0.0644055,27.0541,0.447384,3.05962,-0.110672,
-0.0311387,0.00202839,0.0299416,-1.77002,-0.00853621,0.221005,0.0135169,0.000299281,0.0113664,0.000274386,-0.0167785,-0.0021487,0.0279924,-0.000194147,-0.0488887,-1.78595,-0.0460835,2.64247,0.348949,-4.29204,0.0303808,0.0385923,26.0563,0.0204475,-23.9399,-0.551144,1.01936,-0.0194393,-0.0311317,0.00209146,0.0299433,-1.77009,-0.00854415,0.22098,0.0135221,-0.00133043,0.00479522,-0.000446064,0.000952986,0.00438787,-0.000271258,0.000732909,0,0,0,0,0,0,0,0.158268,-35.2681,0.0644055,27.0541,0.447384,3.05962,-0.110672,
-0.0311185,0.00253834,0.0299556,-1.77064,-0.00869509,0.221244,0.0135283,0.000570281,0.0202651,0.00052719,-0.0271547,-0.00549261,0.0289914,-2.2596e-06,0.169375,5.5617,0.158002,-6.4851,-2.08995,0.62438,0.11993,9.8624e-06,30.6782,-0.00396729,-23.2052,-0.96989,-2.21755,0.000464258,-0.0311317,0.00209146,0.0299433,-1.77009,-0.00854415,0.22098,0.0135221,-0.00133043,0.00479522,-0.000446064,0.000952986,0.00438787,-0.000271258,0.000732909,0,0,0,0,0,0,0,0.158268,-35.2681,0.0644055,27.0541,0.447384,3.05962,-0.110672,
-0.0311598,0.00296273,0.0299125,-1.77088,-0.00787091,0.220755,0.0135138,-0.000576566,0.0268219,-0.000655527,-0.027956,0.0162106,0.0109772,-0.000362694,-0.716779,4.09796,-0.739198,-0.500859,13.5645,-11.2589,-0.225271,0.496068,0.142203,0.494635,-0.237881,3.15165,-1.47389,-0.00123928,-0.0311433,0.00219225,0.0299475,-1.77021,-0.00854507,0.221309,0.0135225,-0.00293656,0.0112825,-0.00211443,-0.018584,0.00697061,0.0637072,0.000550318,-0.200766,0.810914,-0.208546,-2.44212,0.322842,7.9973,-0.0228238,0.233646,-32.7251,0.139784,24.5627,0.281674,3.50365,-0.123489,
-0.0312216,0.00330445,0.0298501,-1.77105,-0.00646073,0.219933,0.0135047,-0.00200478,0.0300006,-0.00208386,-0.026536,0.0482228,-0.01176,-0.000519007,-0.892631,1.98668,-0.892706,0.887498,20.0076,-14.2108,-0.0976958,0.490649,0.13991,0.489305,-0.23547,3.12442,-1.46089,-0.00122949,-0.0311433,0.00219225,0.0299475,-1.77021,-0.00854507,0.221309,0.0135225,-0.00293656,0.0112825,-0.00211443,-0.018584,0.00697061,0.0637072,0.000550318,0,0,0,0,0,0,0,0.233646,-32.7251,0.139784,24.5627,0.281674,3.50365,-0.123489,
-0.0312843,0.00357194,0.0297873,-1.77118,-0.00470369,0.218937,0.0134995,-0.00317119,0.0306877,-0.00323749,-0.0245384,0.0825043,-0.0343271,-0.000543341,-0.72901,0.429489,-0.721024,1.24849,21.426,-14.1044,-0.0152084,0.485438,0.137438,0.484187,-0.233118,3.09669,-1.44792,-0.00122366,-0.0311433,0.00219225,0.0299475,-1.77021,-0.00854507,0.221309,0.0135225,-0.00293656,0.0112825,-0.00211443,-0.018584,0.00697061,0.0637072,0.000550318,0,0,0,0,0,0,0,0.233646,-32.7251,0.139784,24.5627,0.281674,3.50365,-0.123489,
-0.0311381,0.00270965,0.0299519,-1.7708,-0.00870437,0.221824,0.013529,-0.00240588,0.0374853,-0.00248074,-0.0343928,0.0620209,-0.0146,-0.00027351,0.478321,4.24844,0.472974,-6.15898,-12.8022,12.3294,0.168644,0.000294098,30.683,-0.00387528,-23.206,-0.969729,-2.21786,0.000464837,-0.0311433,0.00219225,0.0299475,-1.77021,-0.00854507,0.221309,0.0135225,-0.00293656,0.0112825,-0.00211443,-0.018584,0.00697061,0.0637072,0.000550318,0,0,0,0,0,0,0,0.233646,-32.7251,0.139784,24.5627,0.281674,3.50365,-0.123489,
-0.0312588,0.0032024,0.0298265,-1.7709,-0.00561961,0.219743,0.0134831,-0.00494352,0.0423069,-0.0051196,-0.030006,0.126736,-0.0636897,-0.00136577,-1.58603,3.01356,-1.64929,2.74172,40.4467,-30.681,-0.682663,4.22441,0.655993,4.21424,-1.7927,11.0321,-7.98255,-0.00498624,-0.0311275,0.00349095,0.0299576,-1.77473,-0.00870413,0.226134,0.0135209,-0.000753069,0.0448951,-0.000663457,-0.215734,-0.00202329,0.0779397,0.000987664,0.272936,4.20157,0.181371,-24.6438,-1.12424,1.77907,0.0546683,0.0828892,-19.9703,0.0366345,14.1724,0.507809,0.202261,-0.110672,
-0.0314055,0.00356551,0.0296783,-1.77093,-0.000567452,0.216263,0.0134561,-0.0076223,0.0429232,-0.00779986,-0.0247988,0.227692,-0.137957,-0.00176751,-1.67424,0.385138,-1.67516,3.25456,63.0981,-46.417,-0.251086,4.166,0.728973,4.15488,-1.72888,11.0321,-7.81197,-0.00408161,-0.0311275,0.00349095,0.0299576,-1.77473,-0.00870413,0.226134,0.0135209,-0.000753069,0.0448951,-0.000663457,-0.215734,-0.00202329,0.0779397,0.000987664,0,0,0,0,0,0,0,0.0828892,-19.9703,0.0366345,14.1724,0.507809,0.202261,-0.110672,
-0.0315263,0.00382426,0.0295574,-1.77097,0.00568263,0.211943,0.0134423,-0.00911723,0.0408073,-0.00926099,-0.0209646,0.338406,-0.218353,-0.00175844,-0.93433,-1.32241,-0.913207,2.39637,69.196,-50.2474,0.00566887,4.09684,0.779149,4.08469,-1.67119,11.0321,-7.6345,-0.00356378,-0.0311275,0.00349095,0.0299576,-1.77473,-0.00870413,0.226134,0.0135209,-0.000753069,0.0448951,-0.000663457,-0.215734,-0.00202329,0.0779397,0.000987664,0,0,0,0,0,0,0,0.0828892,-19.9703,0.0366345,14.1724,0.507809,0.202261,-0.110672,
-0.0311019,0.00453166,0.0299814,-1.77595,-0.00901037,0.225904,0.0135305,-0.00665229,0.0586637,-0.00681334,-0.0473398,0.263069,-0.180425,-0.00116798,1.54059,11.1602,1.52978,-16.4845,-47.0858,23.7047,0.369038,-0.00296658,30.7694,-0.00960849,-23.2021,-0.967903,-2.20113,0.000396185,-0.0311275,0.00349095,0.0299576,-1.77473,-0.00870413,0.226134,0.0135209,-0.000753069,0.0448951,-0.000663457,-0.215734,-0.00202329,0.0779397,0.000987664,0,0,0,0,0,0,0,0.0828892,-19.9703,0.0366345,14.1724,0.507809,0.202261,-0.110672,
-0.0307454,0.00542397,0.0303475,-1.7766,-0.006936,0.22165,0.013614,0.00358967,0.0692387,0.00370219,-0.0540812,0.262314,-0.2507,0.00115402,6.40122,6.60937,6.57221,-4.21334,-0.471607,-43.9219,1.45125,27.831,2.42805,27.8227,-11.3852,11.0168,-14.1431,0.111917,-0.0312425,0.00466406,0.0298783,-1.7834,-0.0041623,0.224936,0.0135187,0.00252573,0.0537779,-0.000570412,-0.284438,0.0437676,-0.0889032,-0.000648388,0.40985,1.11035,0.0116306,-8.58801,5.72386,-20.8554,-0.204507,1.14612,-28.98,1.13954,20.4526,0.923458,0.32128,-0.0905302,
-0.0301134,0.00613844,0.0309849,-1.77709,-0.00313044,0.215011,0.0137008,0.0186716,0.0732526,0.0188961,-0.0557311,0.30499,-0.366546,0.00309369,9.42621,2.50868,9.49616,-1.03117,26.6726,-72.4036,1.21229,26.2986,3.58304,26.2522,-9.53294,11.0168,-14.1431,0.10745,-0.0312425,0.00466406,0.0298783,-1.7834,-0.0041623,0.224936,0.0135187,0.00252573,0.0537779,-0.000570412,-0.284438,0.0437676,-0.0889032,-0.000648388,0,0,0,0,0,0,0,1.14612,-28.98,1.13954,20.4526,0.923458,0.32128,-0.0905302,
-0.0292634,0.00671455,0.0318379,-1.77755,0.00193249,0.206851,0.0137816,0.0361866,0.0730048,0.0364426,-0.0560279,0.370566,-0.497228,0.00449348,10.9469,-0.154877,10.9666,-0.185529,40.9846,-81.6761,0.874867,24.8744,3.49659,24.8209,-8.0934,11.0168,-14.1431,0.0962155,-0.0312425,0.00466406,0.0298783,-1.7834,-0.0041623,0.224936,0.0135187,0.00252573,0.0537779,-0.000570412,-0.284438,0.0437676,-0.0889032,-0.000648388,0,0,0,0,0,0,0,1.14612,-28.98,1.13954,20.4526,0.923458,0.32128,-0.0905302,
-0.0311949,0.00586856,0.0299236,-1.78492,-0.00427008,0.223566,0.0135315,0.0301388,0.0885163,0.0302866,-0.0825977,0.293758,-0.432027,0.00391341,-3.77986,9.6947,-3.84752,-16.6061,-48.0048,40.7503,-0.362544,-0.00577415,30.8349,-0.0147199,-23.1837,-0.983188,-2.14312,0.000139363,-0.0312425,0.00466406,0.0298783,-1.7834,-0.0041623,0.224936,0.0135187,0.00252573,0.0537779,-0.000570412,-0.284438,0.0437676,-0.0889032,-0.000648388,0,0,0,0,0,0,0,1.14612,-28.98,1.13954,20.4526,0.923458,0.32128,-0.0905302,
-0.0305409,0.0065846,0.0305919,-1.78639,-0.00257916,0.218894,0.0138112,0.0404594,0.088714,0.0409379,-0.102838,0.27728,-0.462434,0.0101251,6.45036,0.123589,6.6571,-12.6503,-10.2991,-19.0043,3.8823,42.0199,-3.8581,41.9228,-21.8811,10.8922,-14.0613,0.334893,-0.0311328,0.00913613,0.0299275,-1.78844,0.00925894,0.207303,0.0135195,-0.00421622,0.193644,-0.0132251,-0.0727748,0.705648,-0.747463,-0.00117172,-0.842744,17.4833,-1.58183,26.4579,82.7351,-82.32,-0.065416,1.78089,-34.4945,1.83778,22.5671,2.96325,-0.163034,-0.0163725,
-0.0294744,0.00701407,0.0316628,-1.78782,0.000720901,0.212042,0.0139939,0.0590302,0.0817079,0.0595223,-0.118149,0.304325,-0.541245,0.0126659,11.6068,-4.37883,11.6152,-9.56897,16.9035,-49.2568,1.58804,37.1355,-2.22881,36.9997,-20.5259,10.8922,-14.0613,0.208534,-0.0311328,0.00913613,0.0299275,-1.78844,0.00925894,0.207303,0.0135195,-0.00421622,0.193644,-0.0132251,-0.0727748,0.705648,-0.747463,-0.00117172,0,0,0,0,0,0,0,1.78089,-34.4945,1.83778,22.5671,2.96325,-0.163034,-0.0163725,
-0.0288245,0.00962518,0.0322492,-1.79264,0.0193461,0.192592,0.0141732,0.0830439,0.067378,0.0834518,-0.149136,0.372504,-0.633348,0.0153842,15.0086,-8.95619,14.956,-19.3672,42.612,-57.5641,1.69893,51.6336,-9.66901,51.2764,-32.0148,10.8922,-14.0613,0.490171,-0.0311328,0.00913613,0.0299275,-1.78844,0.00925894,0.207303,0.0135195,-0.00421622,0.193644,-0.0132251,-0.0727748,0.705648,-0.747463,-0.00117172,0,0,0,0,0,0,0,1.78089,-34.4945,1.83778,22.5671,2.96325,-0.163034,-0.0163725,
-0.0270754,0.00962985,0.0339933,-1.79474,0.0251161,0.183546,0.0142174,0.110164,0.0540193,0.110364,-0.171868,0.442254,-0.732824,0.013411,16.9502,-8.34917,16.82,-14.2074,43.5937,-62.173,-1.23327,43.3764,-5.99302,43.0912,-29.7572,10.8922,-14.0613,0.204882,-0.0311328,0.00913613,0.0299275,-1.78844,0.00925894,0.207303,0.0135195,-0.00421622,0.193644,-0.0132251,-0.0727748,0.705648,-0.747463,-0.00117172,0,0,0,0,0,0,0,1.78089,-34.4945,1.83778,22.5671,2.96325,-0.163034,-0.0163725,
-0.0251451,0.00962813,0.0359161,-1.79674,0.0315455,0.173813,0.0141977,0.136389,0.0431724,0.13636,-0.187525,0.514539,-0.829594,0.010236,16.3903,-6.7793,16.2475,-9.78564,45.1779,-60.4808,-1.98435,37.7565,-2.81136,37.526,-27.5263,10.8061,-13.8119,0.0244287,-0.030649,0.0135447,0.0307996,-1.79221,0.0333712,0.168528,0.013725,0.0289441,0.141571,0.0431068,-0.190246,0.638398,-1.17356,0.0181815,4.14504,-6.50909,7.04149,-14.6839,-8.40621,-53.2619,2.41915,6.31946,-33.9708,6.16212,17.7628,1.62567,-0.394663,0.0303194,
-0.023116,0.00959596,0.0379362,-1.79872,0.0385677,0.163679,0.0142336,0.159837,0.0337336,0.159591,-0.199444,0.587187,-0.917004,0.00908837,14.6551,-5.89929,14.5191,-7.44941,45.4049,-54.6316,-0.717293,34.1583,-1.37788,33.9693,-25.7255,10.8061,-13.8119,-0.0384934,-0.030649,0.0135447,0.0307996,-1.79221,0.0333712,0.168528,0.013725,0.0289441,0.141571,0.0431068,-0.190246,0.638398,-1.17356,0.0181815,0,0,0,0,0,0,0,6.31946,-33.9708,6.16212,17.7628,1.62567,-0.394663,0.0303194,
-0.0282517,0.014281,0.0332128,-1.7968,0.04379,0.149218,0.0139921,0.163214,0.0339917,0.163074,-0.216975,0.605158,-0.981445,0.00864428,2.11055,0.16132,2.17705,-10.9568,11.2318,-40.2754,-0.277554,43.3698,-5.69189,43.0743,-29.7586,10.8061,-13.8119,0.205191,-0.030649,0.0135447,0.0307996,-1.79221,0.0333712,0.168528,0.013725,0.0289441,0.141571,0.0431068,-0.190246,0.638398,-1.17356,0.0181815,0,0,0,0,0,0,0,6.31946,-33.9708,6.16212,17.7628,1.62567,-0.394663,0.0303194,
-0.0265758,0.0145063,0.0348856,-1.79898,0.0497898,0.138897,0.0139803,0.172469,0.032826,0.17228,-0.228073,0.63412,-1.04317,0.00661997,5.78441,-0.728573,5.75396,-6.93635,18.1018,-38.5799,-1.26519,37.7565,-2.81136,37.526,-27.5263,10.8061,-13.8119,0.0244287,-0.030649,0.0135447,0.0307996,-1.79221,0.0333712,0.168528,0.013725,0.0289441,0.141571,0.0431068,-0.190246,0.638398,-1.17356,0.0181815,0,0,0,0,0,0,0,6.31946,-33.9708,6.16212,17.7628,1.62567,-0.394663,0.0303194,
-0.0247425,0.0146652,0.0367126,-1.8011,0.0563754,0.128361,0.0140216,0.183808,0.0302343,0.183499,-0.235581,0.671936,-1.09793,0.0063295,7.08675,-1.61978,7.0117,-4.6926,23.6349,-34.2264,-0.18154,34.1583,-1.37788,33.9693,-25.7255,10.8061,-13.8119,-0.0384934,-0.030649,0.0135447,0.0307996,-1.79221,0.0333712,0.168528,0.013725,0.0289441,0.141571,0.0431068,-0.190246,0.638398,-1.17356,0.0181815,0,0,0,0,0,0,0,6.31946,-33.9708,6.16212,17.7628,1.62567,-0.394663,0.0303194,
-0.0228467,0.0147198,0.0385987,-1.80327,0.0635305,0.117856,0.0140301,0.194441,0.0255534,0.193951,-0.242694,0.716427,-1.14099,0.00527559,6.64602,-2.9256,6.53238,-4.4456,27.8067,-26.9094,-0.658694,31.7943,-1.3823,31.6295,-25.1104,10.8659,-13.4095,0.043294,-0.0281806,0.0116395,0.0358223,-1.80919,0.0585054,0.12534,0.0143481,0.125796,-0.0790322,0.225779,-0.635266,0.815009,-1.42348,-0.000726512,12.1064,-27.5754,22.834,-55.6275,22.0764,-31.2406,-2.3635,18.6696,-34.1731,18.3099,18.5086,4.31274,-2.33741,0.0376436,
-0.0226025,0.0124371,0.0413877,-1.81737,0.0790302,0.0882437,0.0144132,0.204495,0.0268281,0.203853,-0.256305,0.754877,-1.2113,0.00451365,6.28331,0.796684,6.18893,-8.50686,24.0313,-43.9443,-0.476212,34.4162,-1.04737,34.228,-25.7051,10.8659,-13.4095,-0.0392334,-0.0281806,0.0116395,0.0358223,-1.80919,0.0585054,0.12534,0.0143481,0.125796,-0.0790322,0.225779,-0.635266,0.815009,-1.42348,-0.000726512,0,0,0,0,0,0,0,18.6696,-34.1731,18.3099,18.5086,4.31274,-2.33741,0.0376436,
-0.0206516,0.0126507,0.043327,-1.81974,0.0867243,0.0768418,0.0143375,0.212368,0.0268023,0.211565,-0.264412,0.796254,-1.25409,0.00171967,4.92095,-0.0161169,4.82024,-5.06659,25.8606,-26.7427,-1.74624,31.7943,-1.3823,31.6295,-25.1104,10.8659,-13.4095,0.043294,-0.0281806,0.0116395,0.0358223,-1.80919,0.0585054,0.12534,0.0143481,0.125796,-0.0790322,0.225779,-0.635266,0.815009,-1.42348,-0.000726512,0,0,0,0,0,0,0,18.6696,-34.1731,18.3099,18.5086,4.31274,-2.33741,0.0376436,
-0.0187295,0.0128509,0.0452371,-1.82202,0.0947379,0.0661398,0.0142372,0.217946,0.0264483,0.217006,-0.268384,0.837345,-1.27082,-0.00113124,3.48648,-0.221252,3.40059,-2.48246,25.6818,-10.4577,-1.78182,28.3687,-2.53174,28.219,-25.7017,10.8659,-13.0289,0.00739761,-0.0281806,0.0116395,0.0358223,-1.80919,0.0585054,0.12534,0.0143481,0.125796,-0.0790322,0.225779,-0.635266,0.815009,-1.42348,-0.000726512,0,0,0,0,0,0,0,18.6696,-34.1731,18.3099,18.5086,4.31274,-2.33741,0.0376436,
-0.00675881,0.0133598,0.059844,-1.84241,0.133061,0.014033,0.0138963,0.226171,0.0301416,0.225037,-0.274722,0.894353,-1.19285,-0.00272221,5.14032,2.30835,5.01895,-3.96153,35.6299,48.7351,-0.994356,24.0185,-0.0617856,23.8938,-23.8401,11.0797,-10.627,-0.124369,-0.0186367,0.0111878,0.0480687,-1.8288,0.0894043,0.0668593,0.0143638,0.413671,-0.0124603,0.339324,-0.557035,0.925839,-1.91324,0.00195362,35.9844,8.3215,14.1932,9.77892,13.8538,-61.2202,0.335016,21.6887,-34.0462,20.8093,27.4747,4.78973,-0.0568331,-0.050247,
-0.00479003,0.0136548,0.0617984,-1.8447,0.141998,0.00843163,0.0138332,0.230156,0.031489,0.228889,-0.277199,0.938912,-1.09431,-0.00375489,2.49089,0.842103,2.40769,-1.54816,27.8496,61.5848,-0.645424,22.8994,0.391439,22.7798,-23.0991,11.0797,-8.50703,-0.11972,-0.0186367,0.0111878,0.0480687,-1.8288,0.0894043,0.0668593,0.0143638,0.413671,-0.0124603,0.339324,-0.557035,0.925839,-1.91324,0.00195362,0,0,0,0,0,0,0,21.6887,-34.0462,20.8093,27.4747,4.78973,-0.0568331,-0.050247,
-0.00291179,0.0138894,0.0636629,-1.8469,0.150872,0.00411051,0.013781,0.231081,0.0310556,0.229724,-0.276742,0.972974,-0.983476,-0.004307,0.577923,-0.270842,0.52196,0.285387,21.289,69.2711,-0.345072,22.0043,0.429892,21.8886,-22.5974,11.0797,-6.64954,-0.106157,-0.0186367,0.0111878,0.0480687,-1.8288,0.0894043,0.0668593,0.0143638,0.413671,-0.0124603,0.339324,-0.557035,0.925839,-1.91324,0.00195362,0,0,0,0,0,0,0,21.6887,-34.0462,20.8093,27.4747,4.78973,-0.0568331,-0.050247,
-0.001114,0.0140696,0.0654476,-1.84901,0.159674,0.000914108,0.013738,0.22981,0.0293487,0.228394,-0.274073,0.998439,-0.866691,-0.0045208,-0.794683,-1.06684,-0.830997,1.66846,15.9151,72.9907,-0.133625,21.2197,0.29613,21.1081,-22.2258,11.0797,-5.02817,-0.0938948,-0.0186367,0.0111878,0.0480687,-1.8288,0.0894043,0.0668593,0.0143638,0.413671,-0.0124603,0.339324,-0.557035,0.925839,-1.91324,0.00195362,0,0,0,0,0,0,0,21.6887,-34.0462,20.8093,27.4747,4.78973,-0.0568331,-0.050247,
-0.0158853,0.0116011,0.0507885,-1.83202,0.097571,0.0525932,0.014257,0.252632,0.0338113,0.25071,-0.299675,1.00292,-1.05,-0.0062869,14.264,2.78915,13.9474,-16.0013,2.8004,-114.571,-1.10381,24.2935,-0.163391,24.1623,-23.305,11.1439,-9.96101,-0.127664,-0.00436963,0.010957,0.0628938,-1.84749,0.127297,0.000563331,0.0143451,0.33796,-0.00513419,0.660916,-0.610602,1.17434,-1.8851,0.000427583,-9.46392,0.915757,40.1989,-6.69591,31.0632,3.51791,-0.190754,13.3178,-32.4513,13.4381,25.5069,4.83184,0.354239,-0.0905302,
-0.0133651,0.0121003,0.0532878,-1.83485,0.106219,0.0402082,0.0141493,0.265111,0.0395285,0.26305,-0.310508,1.01852,-1.14963,-0.0077215,7.79933,3.57326,7.71255,-6.77057,9.75315,-62.2665,-0.896624,23.1745,0.289834,23.0483,-22.564,11.1439,-7.84109,-0.123015,-0.00436963,0.010957,0.0628938,-1.84749,0.127297,0.000563331,0.0143451,0.33796,-0.00513419,0.660916,-0.610602,1.17434,-1.8851,0.000427583,0,0,0,0,0,0,0,13.3178,-32.4513,13.4381,25.5069,4.83184,0.354239,-0.0905302,
-0.0110253,0.0125775,0.0556093,-1.83749,0.115106,0.0297486,0.0140537,0.270584,0.0435515,0.26848,-0.314528,1.037,-1.18119,-0.00856738,3.42087,2.51436,3.39347,-2.51267,11.547,-19.7274,-0.528672,22.2793,0.328287,22.1571,-22.0623,11.1439,-5.9836,-0.109452,-0.00436963,0.010957,0.0628938,-1.84749,0.127297,0.000563331,0.0143451,0.33796,-0.00513419,0.660916,-0.610602,1.17434,-1.8851,0.000427583,0,0,0,0,0,0,0,13.3178,-32.4513,13.4381,25.5069,4.83184,0.354239,-0.0905302,
0.00954252,0.0133803,0.0767083,-1.86168,0.176699,-0.0378863,0.0140145,0.272456,0.0438607,0.2703,-0.309977,1.07025,-1.03935,-0.00791513,1.17001,0.193252,1.13746,2.84437,20.7799,88.6503,0.407655,20.7882,0.0285334,20.6739,-21.3809,11.1439,-2.94908,-0.0825807,-0.00436963,0.010957,0.0628938,-1.84749,0.127297,0.000563331,0.0143451,0.33796,-0.00513419,0.660916,-0.610602,1.17434,-1.8851,0.000427583,0,0,0,0,0,0,0,13.3178,-32.4513,13.4381,25.5069,4.83184,0.354239,-0.0905302,
0.0116071,0.013659,0.0787557,-1.86386,0.186111,-0.0403721,0.0139824,0.26958,0.0420544,0.267424,-0.302412,1.09149,-0.893628,-0.00713447,-1.79747,-1.12892,-1.79742,4.72844,13.2757,91.0786,0.487912,20.0227,-0.921857,19.8924,-19.9514,10.9494,-1.10914,-0.0783633,0.00934609,0.0130785,0.0887391,-1.86914,0.17376,-0.0501318,0.0142844,0.478294,0.0949372,0.744513,-0.596901,1.28946,-1.15477,-0.000410104,17.5418,12.5089,10.4497,1.71262,14.3898,91.2918,-0.104711,4.77222,-37.7397,4.43635,26.9788,1.58905,2.19811,-0.0630644,
0.013526,0.0138651,0.0806587,-1.8659,0.195321,-0.0417994,0.013961,0.263636,0.0387981,0.261513,-0.292991,1.10344,-0.750586,-0.00624188,-3.715,-2.03519,-3.69439,5.88784,7.47201,89.4009,0.557872,19.4257,-1.00135,19.2988,-19.6727,10.9494,-0.0577699,-0.0644653,0.00934609,0.0130785,0.0887391,-1.86914,0.17376,-0.0501318,0.0142844,0.478294,0.0949372,0.744513,-0.596901,1.28946,-1.15477,-0.000410104,0,0,0,0,0,0,0,4.77222,-37.7397,4.43635,26.9788,1.58905,2.19811,-0.0630644,
0.0153218,0.0140097,0.0824396,-1.86782,0.20435,-0.0423581,0.0139488,0.255805,0.0346526,0.253734,-0.282548,1.10849,-0.614436,-0.00529844,-4.89476,-2.59098,-4.86175,6.52694,3.15277,85.0936,0.589646,18.8668,-1.0238,18.7431,-19.3921,10.9494,0.838243,-0.0529432,0.00934609,0.0130785,0.0887391,-1.86914,0.17376,-0.0501318,0.0142844,0.478294,0.0949372,0.744513,-0.596901,1.28946,-1.15477,-0.000410104,0,0,0,0,0,0,0,4.77222,-37.7397,4.43635,26.9788,1.58905,2.19811,-0.0630644,
0.0268747,0.0169072,0.106092,-1.88457,0.235688,-0.0686721,0.0140984,0.256563,0.0352207,0.254343,-0.274887,1.12752,-0.491176,-0.00419796,0.473877,0.355057,0.380489,4.78827,11.8939,77.0376,0.687802,17.8474,-0.921141,17.7296,-18.8191,10.9494,2.2355,-0.0288706,0.00934609,0.0130785,0.0887391,-1.86914,0.17376,-0.0501318,0.0142844,0.478294,0.0949372,0.744513,-0.596901,1.28946,-1.15477,-0.000410104,0,0,0,0,0,0,0,4.77222,-37.7397,4.43635,26.9788,1.58905,2.19811,-0.0630644,
0.0287604,0.0171154,0.107958,-1.88638,0.245034,-0.0679609,0.01411,0.252394,0.0333817,0.250108,-0.265315,1.13565,-0.375162,-0.00306887,-2.60563,-1.14934,-2.6465,5.98211,5.08235,72.5091,0.705681,17.4249,-1.15745,17.2791,-18.2867,10.7578,3.14019,-0.0188422,0.0281717,0.0163765,0.111688,-1.89001,0.222006,-0.0937725,0.0142142,0.600424,0.0622805,0.598567,-0.636175,1.54253,-1.18813,0.000728282,15.2662,-4.0821,-18.2433,-4.90928,31.6332,-4.17055,0.142298,-6.74084,-38.4657,-6.66014,29.5932,2.50549,3.33153,-0.050247,
0.0304895,0.0172506,0.109668,-1.88808,0.254133,-0.0666987,0.0141316,0.245142,0.0300855,0.242847,-0.254822,1.13599,-0.268573,-0.0019157,-4.53248,-2.06015,-4.53836,6.55823,0.213594,66.6178,0.72073,16.9711,-1.03625,16.828,-17.9943,10.7578,3.57544,-0.00864297,0.0281717,0.0163765,0.111688,-1.89001,0.222006,-0.0937725,0.0142142,0.600424,0.0622805,0.598567,-0.636175,1.54253,-1.18813,0.000728282,0,0,0,0,0,0,0,-6.74084,-38.4657,-6.66014,29.5932,2.50549,3.33153,-0.050247,
0.032088,0.0173285,0.111249,-1.88969,0.263022,-0.0650026,0.0141619,0.236075,0.0260157,0.233807,-0.244076,1.13103,-0.172457,-0.000774834,-5.66685,-2.54358,-5.64978,6.71661,-3.09858,60.0727,0.713041,16.536,-0.902744,16.3955,-17.7026,10.7578,3.93035,0.00205231,0.0281717,0.0163765,0.111688,-1.89001,0.222006,-0.0937725,0.0142142,0.600424,0.0622805,0.598567,-0.636175,1.54253,-1.18813,0.000728282,0,0,0,0,0,0,0,-6.74084,-38.4657,-6.66014,29.5932,2.50549,3.33153,-0.050247,
0.0453273,0.01981,0.128621,-1.90483,0.286198,-0.108959,0.0142493,0.23817,0.0273209,0.235724,-0.240056,1.1448,-0.120386,0.000143023,1.30925,0.815738,1.19768,2.51228,8.6045,32.5444,0.573661,15.7037,-0.629868,15.5682,-17.1275,10.7578,4.43996,0.0210154,0.0281717,0.0163765,0.111688,-1.89001,0.222006,-0.0937725,0.0142142,0.600424,0.0622805,0.598567,-0.636175,1.54253,-1.18813,0.000728282,0,0,0,0,0,0,0,-6.74084,-38.4657,-6.66014,29.5932,2.50549,3.33153,-0.050247,
0.0470922,0.0199837,0.130363,-1.90648,0.295469,-0.107611,0.0142884,0.234658,0.0262006,0.232138,-0.233354,1.14761,-0.0626081,0.00109157,-2.19458,-0.70017,-2.24089,4.18845,1.75506,36.1111,0.59284,14.9387,-1.6524,14.7737,-16.2294,10.2126,4.73258,0.0235109,0.0485129,0.0194541,0.131485,-1.9113,0.276914,-0.112239,0.014212,0.547522,0.0785127,0.539466,-0.580184,1.68591,-0.196674,0.000664033,-6.61272,2.02903,-7.38756,6.99885,17.9224,123.932,-0.00803114,-9.60522,-38.3666,-9.33409,33.4296,0.465695,3.98156,-0.0163725,
0.0486854,0.0200898,0.131936,-1.90802,0.304466,-0.105779,0.0143316,0.227556,0.023613,0.225025,-0.225182,1.14302,-0.00427003,0.00195162,-4.43921,-1.61728,-4.44573,5.10758,-2.86956,36.4613,0.53753,14.5381,-1.52442,14.3757,-15.9548,10.2126,4.87074,0.0332482,0.0485129,0.0194541,0.131485,-1.9113,0.276914,-0.112239,0.014212,0.547522,0.0785127,0.539466,-0.580184,1.68591,-0.196674,0.000664033,0,0,0,0,0,0,0,-9.60522,-38.3666,-9.33409,33.4296,0.465695,3.98156,-0.0163725,
0.0638094,0.0225937,0.14655,-1.92341,0.339411,-0.110066,0.0143487,0.225781,0.023296,0.2231,-0.216453,1.12336,0.0423445,0.0024395,-1.10911,-0.198143,-1.20322,5.45583,-12.2867,29.1341,0.304927,13.2303,-1.14796,13.0853,-15.1758,10.2126,5.08624,0.0535718,0.0485129,0.0194541,0.131485,-1.9113,0.276914,-0.112239,0.014212,0.547522,0.0785127,0.539466,-0.580184,1.68591,-0.196674,0.000664033,0,0,0,0,0,0,0,-9.60522,-38.3666,-9.33409,33.4296,0.465695,3.98156,-0.0163725,
0.0653905,0.0226894,0.148108,-1.92475,0.346753,-0.107919,0.014385,0.220151,0.0210285,0.217419,-0.206432,1.08223,0.0875475,0.00285902,-3.51852,-1.41715,-3.55066,6.26302,-25.7031,28.2519,0.262201,12.7862,-1.00907,12.6472,-14.9228,10.2126,5.11966,0.0606393,0.0485129,0.0194541,0.131485,-1.9113,0.276914,-0.112239,0.014212,0.547522,0.0785127,0.539466,-0.580184,1.68591,-0.196674,0.000664033,0,0,0,0,0,0,0,-9.60522,-38.3666,-9.33409,33.4296,0.465695,3.98156,-0.0163725,
0.0668359,0.0227236,0.149532,-1.92598,0.353106,-0.105536,0.0144222,0.212256,0.0176785,0.209535,-0.195989,1.02461,0.129605,0.0032164,-4.93434,-2.0938,-4.92721,6.52697,-36.0182,26.2859,0.223363,12.1475,-1.37764,11.9798,-14.5883,9.87244,5.09391,0.0617835,0.0662632,0.0220825,0.148913,-1.92827,0.332436,-0.110755,0.0142185,0.54838,0.101518,0.442486,-0.471317,1.62228,0.163748,0.000412319,0.107216,2.87572,-12.1226,13.6084,-7.95319,45.0528,-0.0314642,-8.46264,-38.188,-7.96141,29.7162,1.27136,2.69524,-0.0026396,
0.0681707,0.0227119,0.150847,-1.92714,0.358519,-0.102983,0.0144609,0.203176,0.0138503,0.200505,-0.185685,0.955008,0.167518,0.0035428,-5.6751,-2.39257,-5.64377,6.43979,-43.4986,23.6958,0.203998,11.6922,-1.212,11.508,-14.3378,9.85824,5.0872,0.061676,0.0662632,0.0220825,0.148913,-1.92827,0.332436,-0.110755,0.0142185,0.54838,0.101518,0.442486,-0.471317,1.62228,0.163748,0.000412319,0,0,0,0,0,0,0,-8.46264,-38.188,-7.96141,29.7162,1.27136,2.69524,-0.0026396,
0.083678,0.0164424,0.165387,-1.92522,0.420755,-0.0700366,0.0132405,0.162644,0.0065502,0.160268,-0.144811,0.768513,0.163157,0.00252815,-25.3327,-4.56259,-25.1483,25.5462,-116.559,-2.72567,-0.634155,3.39249,-0.777008,3.27262,-0.703733,1.22967,2.21461,-0.0127935,0.0662632,0.0220825,0.148913,-1.92827,0.332436,-0.110755,0.0142185,0.54838,0.101518,0.442486,-0.471317,1.62228,0.163748,0.000412319,0,0,0,0,0,0,0,-8.46264,-38.188,-7.96141,29.7162,1.27136,2.69524,-0.0026396,
0.0836821,0.0162613,0.165382,-1.92507,0.420935,-0.0688764,0.0132282,0.130218,0.000714455,0.128081,-0.112129,0.619316,0.159529,0.0017171,-20.2662,-3.64734,-20.117,20.4268,-93.2484,-2.2678,-0.506909,3.28638,-0.788546,3.16739,-0.464932,1.60017,1.97403,-0.0145438,0.0662632,0.0220825,0.148913,-1.92827,0.332436,-0.110755,0.0142185,0.54838,0.101518,0.442486,-0.471317,1.62228,0.163748,0.000412319,0,0,0,0,0,0,0,-8.46264,-38.188,-7.96141,29.7162,1.27136,2.69524,-0.0026396,
0.0836862,0.0160805,0.165376,-1.92492,0.421115,-0.0677219,0.013216,0.104277,-0.00394984,0.102334,-0.0859985,0.499956,0.156487,0.00106891,-16.213,-2.91518,-16.0919,16.3313,-74.5997,-1.90113,-0.405113,3.18365,-0.797741,3.06562,-0.227119,2.02123,1.70289,-0.0161271,0.0662632,0.0220825,0.148913,-1.92827,0.332436,-0.110755,0.0142185,0.54838,0.101518,0.442486,-0.471317,1.62228,0.163748,0.000412319,0,0,0,0,0,0,0,-8.46264,-38.188,-7.96141,29.7162,1.27136,2.69524,-0.0026396,
0.0836903,0.0158998,0.165371,-1.92477,0.421295,-0.0665729,0.0132039,0.0835244,-0.00767703,0.0817388,-0.0651104,0.404467,0.153915,0.000551029,-12.9704,-2.3295,-12.8719,13.055,-59.6807,-1.60743,-0.323678,3.00524,-1.23908,2.85738,-0.0158418,2.22407,1.28855,-0.0159013,0.0820841,0.0243301,0.164819,-1.94301,0.384167,-0.100289,0.0142375,0.468268,0.052898,0.397011,-0.379147,1.38432,0.399265,0.000443001,-10.0139,-6.07756,-5.68427,11.5213,-29.7449,29.4395,0.00383522,-9.70837,-36.9939,-9.36186,26.0822,1.02691,1.73394,0.0303194,
0.0952737,0.00942191,0.176716,-1.93172,0.435817,0.00109677,0.012801,0.0669222,-0.010565,0.0653534,-0.049101,0.32818,0.145785,0.000166564,-10.3764,-1.80497,-10.2409,10.0059,-47.6793,-5.08117,-0.24029,3.00524,-1.23908,2.85738,-0.0158418,2.22407,1.28855,-0.0159013,0.0820841,0.0243301,0.164819,-1.94301,0.384167,-0.100289,0.0142375,0.468268,0.052898,0.397011,-0.379147,1.38432,0.399265,0.000443001,0,0,0,0,0,0,0,-9.70837,-36.9939,-9.36186,26.0822,1.02691,1.73394,0.0303194,
0.0952737,0.00942191,0.176716,-1.93172,0.435817,0.00109677,0.012801,0.0536405,-0.0128754,0.052245,-0.0362935,0.267151,0.139281,-0.000141007,-8.3011,-1.44398,-8.19273,8.00469,-38.1434,-4.06494,-0.192232,3.00524,-1.23908,2.85738,-0.0158418,2.22407,1.28855,-0.0159013,0.0820841,0.0243301,0.164819,-1.94301,0.384167,-0.100289,0.0142375,0.468268,0.052898,0.397011,-0.379147,1.38432,0.399265,0.000443001,0,0,0,0,0,0,0,-9.70837,-36.9939,-9.36186,26.0822,1.02691,1.73394,0.0303194,
0.0952737,0.00942191,0.176716,-1.93172,0.435817,0.00109677,0.012801,0.0430151,-0.0147236,0.0417583,-0.0260475,0.218327,0.134078,-0.000387065,-6.64088,-1.15518,-6.55419,6.40375,-30.5147,-3.25195,-0.153786,3.00524,-1.23908,2.85738,-0.0158418,2.22407,1.28855,-0.0159013,0.0820841,0.0243301,0.164819,-1.94301,0.384167,-0.100289,0.0142375,0.468268,0.052898,0.397011,-0.379147,1.38432,0.399265,0.000443001,0,0,0,0,0,0,0,-9.70837,-36.9939,-9.36186,26.0822,1.02691,1.73394,0.0303194,
0.0952737,0.00942191,0.176716,-1.93172,0.435817,0.00109677,0.012801,0.0345147,-0.0162023,0.033369,-0.0178507,0.179268,0.129916,-0.000583911,-5.3127,-0.924146,-5.24335,5.123,-24.4118,-2.60156,-0.123029,2.76961,-1.59098,2.6009,-0.134457,2.0429,1.05765,-0.0100018,0.0971751,0.0262719,0.175173,-1.95129,0.413988,-0.0903748,0.0142348,0.315544,0.0847357,0.383157,-0.074109,0.415879,0.172576,-0.000548897,-19.0906,3.97971,-1.73181,38.1297,-121.056,-28.3361,-0.123987,-14.0922,-39.9852,-13.2339,33.9017,0.135189,1.85937,-0.0163725,
0.106807,0.00998974,0.183479,-1.93888,0.445947,0.0127178,0.0128657,0.0277135,-0.0174288,0.026643,-0.0113315,0.147678,0.126452,-0.00073967,-4.25078,-0.766572,-4.20373,4.07448,-19.7442,-2.16455,-0.0973498,2.76961,-1.59098,2.6009,-0.134457,2.0429,1.05765,-0.0100018,0.0971751,0.0262719,0.175173,-1.95129,0.413988,-0.0903748,0.0142348,0.315544,0.0847357,0.383157,-0.074109,0.415879,0.172576,-0.000548897,0,0,0,0,0,0,0,-14.0922,-39.9852,-13.2339,33.9017,0.135189,1.85937,-0.0163725,
0.106807,0.00998974,0.183479,-1.93888,0.445947,0.0127178,0.0128657,0.0222725,-0.01841,0.0212622,-0.00611619,0.122405,0.123682,-0.000864278,-3.40063,-0.613258,-3.36298,3.25958,-15.7954,-1.73164,-0.0778799,2.76961,-1.59098,2.6009,-0.134457,2.0429,1.05765,-0.0100018,0.0971751,0.0262719,0.175173,-1.95129,0.413988,-0.0903748,0.0142348,0.315544,0.0847357,0.383157,-0.074109,0.415879,0.172576,-0.000548897,0,0,0,0,0,0,0,-14.0922,-39.9852,-13.2339,33.9017,0.135189,1.85937,-0.0163725,
0.106807,0.00998974,0.183479,-1.93888,0.445947,0.0127178,0.0128657,0.0179197,-0.019195,0.0169576,-0.00194392,0.102187,0.121465,-0.000963964,-2.7205,-0.490606,-2.69039,2.60767,-12.6363,-1.38531,-0.0623039,2.76961,-1.59098,2.6009,-0.134457,2.0429,1.05765,-0.0100018,0.0971751,0.0262719,0.175173,-1.95129,0.413988,-0.0903748,0.0142348,0.315544,0.0847357,0.383157,-0.074109,0.415879,0.172576,-0.000548897,0,0,0,0,0,0,0,-14.0922,-39.9852,-13.2339,33.9017,0.135189,1.85937,-0.0163725,
0.111503,0.00955561,0.188991,-1.93954,0.454061,0.0272923,0.0129606,0.0144372,-0.019791,0.0135171,0.001234,0.085736,0.118508,-0.00103714,-2.17657,-0.372514,-2.1503,1.9862,-10.2817,-1.84836,-0.0457338,2.79034,-1.7665,2.60576,-0.340994,1.94538,0.91735,-0.00906616,0.105646,0.027214,0.18441,-1.95301,0.427717,-0.0783137,0.0142335,0.31298,0.0202749,0.103074,-0.00402654,0.337403,0.378906,-0.000133022,-0.320445,-8.0576,-35.0104,8.76031,-9.80955,25.7912,0.0519843,-14.7548,-37.7159,-14.1345,27.4509,-0.457157,0.161978,-0.00996382,
0.111503,0.00955561,0.188991,-1.93954,0.454061,0.0272923,0.0129606,0.0116512,-0.0202678,0.0107648,0.00377634,0.0725754,0.116142,-0.00109568,-1.74126,-0.298012,-1.72024,1.58896,-8.2254,-1.47869,-0.036587,2.79034,-1.7665,2.60576,-0.340994,1.94538,0.91735,-0.00906616,0.105646,0.027214,0.18441,-1.95301,0.427717,-0.0783137,0.0142335,0.31298,0.0202749,0.103074,-0.00402654,0.337403,0.378906,-0.000133022,0,0,0,0,0,0,0,-14.7548,-37.7159,-14.1345,27.4509,-0.457157,0.161978,-0.00996382,
0.111503,0.00955561,0.188991,-1.93954,0.454061,0.0272923,0.0129606,0.00942235,-0.0206493,0.00856285,0.00581021,0.0620469,0.114249,-0.00114251,-1.39301,-0.238409,-1.37619,1.27117,-6.58032,-1.18295,-0.0292696,2.79034,-1.7665,2.60576,-0.340994,1.94538,0.91735,-0.00906616,0.105646,0.027214,0.18441,-1.95301,0.427717,-0.0783137,0.0142335,0.31298,0.0202749,0.103074,-0.00402654,0.337403,0.378906,-0.000133022,0,0,0,0,0,0,0,-14.7548,-37.7159,-14.1345,27.4509,-0.457157,0.161978,-0.00996382,
0.111503,0.00955561,0.188991,-1.93954,0.454061,0.0272923,0.0129606,0.0076393,-0.0209544,0.00680133,0.00743731,0.0536241,0.112735,-0.00117997,-1.1144,-0.190727,-1.10095,1.01694,-5.26426,-0.946359,-0.0234157,2.79034,-1.7665,2.60576,-0.340994,1.94538,0.91735,-0.00906616,0.105646,0.027214,0.18441,-1.95301,0.427717,-0.0783137,0.0142335,0.31298,0.0202749,0.103074,-0.00402654,0.337403,0.378906,-0.000133022,0,0,0,0,0,0,0,-14.7548,-37.7159,-14.1345,27.4509,-0.457157,0.161978,-0.00996382,
0.111503,0.00955561,0.188991,-1.93954,0.454061,0.0272923,0.0129606,0.00621286,-0.0211986,0.00539211,0.00873898,0.0468858,0.111524,-0.00120995,-0.891524,-0.152582,-0.880761,0.813548,-4.2114,-0.757087,-0.0187325,2.83655,-1.84398,2.65421,-0.486333,1.92524,0.809848,-0.00828969,0.109636,0.0263061,0.190289,-1.95312,0.437422,-0.0661217,0.0142302,0.0455903,-0.0519963,0.142411,0.00309031,0.215677,0.357409,0.000800441,-33.4237,-9.03391,4.91708,0.889607,-15.2157,-2.68709,0.116683,-10.847,-32.3006,-10.437,24.2889,1.53412,0.99053,-0.0227812,
0.111503,0.00955561,0.188991,-1.93954,0.454061,0.0272923,0.0129606,0.00507171,-0.0213939,0.00426474,0.00978033,0.0414952,0.110555,-0.00123392,-0.713219,-0.122066,-0.704609,0.650838,-3.36912,-0.60567,-0.014986,2.83655,-1.84398,2.65421,-0.486333,1.92524,0.809848,-0.00828969,0.109636,0.0263061,0.190289,-1.95312,0.437422,-0.0661217,0.0142302,0.0455903,-0.0519963,0.142411,0.00309031,0.215677,0.357409,0.000800441,0,0,0,0,0,0,0,-10.847,-32.3006,-10.437,24.2889,1.53412,0.99053,-0.0227812,
0.111503,0.00955561,0.188991,-1.93954,0.454061,0.0272923,0.0129606,0.00415879,-0.0215501,0.00336284,0.0106134,0.0371827,0.109779,-0.00125311,-0.570575,-0.0976524,-0.563687,0.520671,-2.6953,-0.484536,-0.0119888,2.83655,-1.84398,2.65421,-0.486333,1.92524,0.809848,-0.00828969,0.109636,0.0263061,0.190289,-1.95312,0.437422,-0.0661217,0.0142302,0.0455903,-0.0519963,0.142411,0.00309031,0.215677,0.357409,0.000800441,0,0,0,0,0,0,0,-10.847,-32.3006,-10.437,24.2889,1.53412,0.99053,-0.0227812,
0.111503,0.00955561,0.188991,-1.93954,0.454061,0.0272923,0.0129606,0.00342845,-0.0216751,0.00264132,0.0112799,0.0337328,0.109159,-0.00126845,-0.45646,-0.0781219,-0.45095,0.416537,-2.15624,-0.387629,-0.00959106,2.83655,-1.84398,2.65421,-0.486333,1.92524,0.809848,-0.00828969,0.109636,0.0263061,0.190289,-1.95312,0.437422,-0.0661217,0.0142302,0.0455903,-0.0519963,0.142411,0.00309031,0.215677,0.357409,0.000800441,0,0,0,0,0,0,0,-10.847,-32.3006,-10.437,24.2889,1.53412,0.99053,-0.0227812,
0.112508,0.00745729,0.192091,-1.93951,0.458465,0.0370254,0.0130444,0.00284406,-0.0218336,0.00209722,0.0116795,0.0308438,0.10763,-0.00127528,-0.365248,-0.0990617,-0.340059,0.249753,-1.80563,-0.955616,-0.00426649,2.84427,-1.85133,2.67193,-0.562253,1.91867,0.745209,-0.00787725,0.11259,0.0250018,0.190974,-1.95319,0.443688,-0.0555874,0.0142273,0.0498949,-0.0474366,0.0240755,0.0227134,0.121293,0.255821,-0.000391702,0.53807,0.569959,-14.7919,2.45289,-11.7981,-12.6985,-0.149018,-3.64636,-31.8999,-3.28795,25.2847,2.70691,1.26977,0.00376909,
0.112508,0.00745729,0.192091,-1.93951,0.458465,0.0370254,0.0130444,0.00237654,-0.0219604,0.00166195,0.0119991,0.0285325,0.106407,-0.00128074,-0.292199,-0.0792494,-0.272047,0.199802,-1.4445,-0.764493,-0.0034132,2.84427,-1.85133,2.67193,-0.562253,1.91867,0.745209,-0.00787725,0.11259,0.0250018,0.190974,-1.95319,0.443688,-0.0555874,0.0142273,0.0498949,-0.0474366,0.0240755,0.0227134,0.121293,0.255821,-0.000391702,0,0,0,0,0,0,0,-3.64636,-31.8999,-3.28795,25.2847,2.70691,1.26977,0.00376909,
0.112508,0.00745729,0.192091,-1.93951,0.458465,0.0370254,0.0130444,0.00200252,-0.0220619,0.00131373,0.0122549,0.0266836,0.105428,-0.00128511,-0.233759,-0.0633995,-0.217638,0.159842,-1.1556,-0.611594,-0.00273056,2.84427,-1.85133,2.67193,-0.562253,1.91867,0.745209,-0.00787725,0.11259,0.0250018,0.190974,-1.95319,0.443688,-0.0555874,0.0142273,0.0498949,-0.0474366,0.0240755,0.0227134,0.121293,0.255821,-0.000391702,0,0,0,0,0,0,0,-3.64636,-31.8999,-3.28795,25.2847,2.70691,1.26977,0.00376909,
0.113997,0.00646485,0.191397,-1.94003,0.461342,0.0441506,0.0130896,0.00170347,-0.0221157,0.00105215,0.0123766,0.0251556,0.103993,-0.00128516,-0.186911,-0.033636,-0.163485,0.0760821,-0.954983,-0.896799,-3.09469e-05,2.84427,-1.85133,2.67193,-0.562253,1.91867,0.745209,-0.00787725,0.11259,0.0250018,0.190974,-1.95319,0.443688,-0.0555874,0.0142273,0.0498949,-0.0474366,0.0240755,0.0227134,0.121293,0.255821,-0.000391702,0,0,0,0,0,0,0,-3.64636,-31.8999,-3.28795,25.2847,2.70691,1.26977,0.00376909,
0.113997,0.00646485,0.191397,-1.94003,0.461342,0.0441506,0.0130896,0.00146422,-0.0221587,0.000842888,0.012474,0.0239332,0.102846,-0.0012852,-0.149529,-0.0269088,-0.130788,0.0608657,-0.763986,-0.717439,-2.47575e-05,2.8485,-1.84315,2.68754,-0.632861,1.91982,0.689729,-0.00761216,0.113278,0.0235347,0.191962,-1.9531,0.445978,-0.0454966,0.0142225,0.00855954,-0.0204627,0.0349772,0.0245436,0.0950477,0.309079,-0.00134274,-5.16692,3.37174,1.36271,0.22878,-3.28064,6.65717,-0.118879,0.868412,-31.9237,0.988783,24.2889,3.5437,0.725943,0.0376436,
0.113997,0.00646485,0.191397,-1.94003,0.461342,0.0441506,0.0130896,0.00127282,-0.0221932,0.000675479,0.0125519,0.0229553,0.101927,-0.00128523,-0.119623,-0.021527,-0.104631,0.0486926,-0.611189,-0.573951,-1.9806e-05,2.8485,-1.84315,2.68754,-0.632861,1.91982,0.689729,-0.00761216,0.113278,0.0235347,0.191962,-1.9531,0.445978,-0.0454966,0.0142225,0.00855954,-0.0204627,0.0349772,0.0245436,0.0950477,0.309079,-0.00134274,0,0,0,0,0,0,0,0.868412,-31.9237,0.988783,24.2889,3.5437,0.725943,0.0376436,
0.113997,0.00646485,0.191397,-1.94003,0.461342,0.0441506,0.0130896,0.00111971,-0.0222207,0.000541551,0.0126142,0.022173,0.101193,-0.00128525,-0.0956983,-0.0172216,-0.0837045,0.038954,-0.488951,-0.459161,-1.58448e-05,2.8485,-1.84315,2.68754,-0.632861,1.91982,0.689729,-0.00761216,0.113278,0.0235347,0.191962,-1.9531,0.445978,-0.0454966,0.0142225,0.00855954,-0.0204627,0.0349772,0.0245436,0.0950477,0.309079,-0.00134274,0,0,0,0,0,0,0,0.868412,-31.9237,0.988783,24.2889,3.5437,0.725943,0.0376436,
0.114152,0.00567494,0.191919,-1.94046,0.462795,0.0520154,0.0131096,0.000997523,-0.0222178,0.000447788,0.0125785,0.0216092,0.0998703,-0.00128159,-0.0763645,0.00182285,-0.0586019,-0.0223679,-0.352376,-0.826409,0.0022888,2.8485,-1.84315,2.68754,-0.632861,1.91982,0.689729,-0.00761216,0.113278,0.0235347,0.191962,-1.9531,0.445978,-0.0454966,0.0142225,0.00855954,-0.0204627,0.0349772,0.0245436,0.0950477,0.309079,-0.00134274,0,0,0,0,0,0,0,0.868412,-31.9237,0.988783,24.2889,3.5437,0.725943,0.0376436,
0.114152,0.00567494,0.191919,-1.94046,0.462795,0.0520154,0.0131096,0.000899777,-0.0222155,0.000372778,0.0125498,0.0211582,0.0988125,-0.00127866,-0.0610916,0.00145828,-0.0468815,-0.0178943,-0.281901,-0.661127,0.00183104,2.85015,-1.80929,2.69738,-0.70633,1.92073,0.631011,-0.00728107,0.113979,0.0224761,0.19255,-1.9529,0.447915,-0.033871,0.0142229,0.0330236,-0.0318656,0.0105871,0.00715334,0.0582664,0.352755,-0.000242788,3.05801,-1.42535,-3.04877,-2.17379,-4.59766,5.45961,0.137494,0.539127,-33.3241,0.937208,23.5391,3.83667,-0.0504244,0.0101778,
0.114152,0.00567494,0.191919,-1.94046,0.462795,0.0520154,0.0131096,0.00082158,-0.0222136,0.00031277,0.0125269,0.0207973,0.0979663,-0.00127632,-0.0488733,0.00116662,-0.0375052,-0.0143155,-0.225521,-0.528901,0.00146483,2.85015,-1.80929,2.69738,-0.70633,1.92073,0.631011,-0.00728107,0.113979,0.0224761,0.19255,-1.9529,0.447915,-0.033871,0.0142229,0.0330236,-0.0318656,0.0105871,0.00715334,0.0582664,0.352755,-0.000242788,0,0,0,0,0,0,0,0.539127,-33.3241,0.937208,23.5391,3.83667,-0.0504244,0.0101778,
0.114152,0.00567494,0.191919,-1.94046,0.462795,0.0520154,0.0131096,0.000759022,-0.0222121,0.000264763,0.0125086,0.0205087,0.0972893,-0.00127444,-0.0390986,0.000933299,-0.0300042,-0.0114524,-0.180417,-0.423121,0.00117187,2.85015,-1.80929,2.69738,-0.70633,1.92073,0.631011,-0.00728107,0.113979,0.0224761,0.19255,-1.9529,0.447915,-0.033871,0.0142229,0.0330236,-0.0318656,0.0105871,0.00715334,0.0582664,0.352755,-0.000242788,0,0,0,0,0,0,0,0.539127,-33.3241,0.937208,23.5391,3.83667,-0.0504244,0.0101778,
0.114782,0.00471778,0.192494,-1.94072,0.464275,0.0603175,0.0131312,0.000709332,-0.022189,0.000242646,0.0123997,0.0203452,0.0959408,-0.00126889,-0.031056,0.0144179,-0.013823,-0.0680656,-0.102149,-0.842796,0.00347043,2.85015,-1.80929,2.69738,-0.70633,1.92073,0.631011,-0.00728107,0.113979,0.0224761,0.19255,-1.9529,0.447915,-0.033871,0.0142229,0.0330236,-0.0318656,0.0105871,0.00715334,0.0582664,0.352755,-0.000242788,0,0,0,0,0,0,0,0.539127,-33.3241,0.937208,23.5391,3.83667,-0.0504244,0.0101778,
0.114782,0.00471778,0.192494,-1.94072,0.464275,0.0603175,0.0131312,0.000669581,-0.0221706,0.000224953,0.0123126,0.0202145,0.094862,-0.00126445,-0.0248448,0.0115343,-0.0110584,-0.0544525,-0.0817194,-0.674236,0.00277635,2.84842,-1.78055,2.70326,-0.773278,1.92462,0.571552,-0.00699638,0.114616,0.0215014,0.193292,-1.95301,0.44964,-0.0215418,0.014224,0.0177777,-0.0312167,0.025382,0.00866588,0.0515639,0.340593,0.000197851,-1.90574,0.0811122,1.84937,0.189067,-0.837818,-1.52031,0.0550799,0.384403,-32.9234,0.786451,25.2094,3.56201,0.0365507,-0.00996382,
0.114782,0.00471778,0.192494,-1.94072,0.464275,0.0603175,0.0131312,0.000637779,-0.0221558,0.000210798,0.0122429,0.0201099,0.093999,-0.0012609,-0.0198758,0.00922746,-0.00884674,-0.043562,-0.0653755,-0.539389,0.00222108,2.84842,-1.78055,2.70326,-0.773278,1.92462,0.571552,-0.00699638,0.114616,0.0215014,0.193292,-1.95301,0.44964,-0.0215418,0.014224,0.0177777,-0.0312167,0.025382,0.00866588,0.0515639,0.340593,0.000197851,0,0,0,0,0,0,0,0.384403,-32.9234,0.786451,25.2094,3.56201,0.0365507,-0.00996382,
0.115402,0.00389356,0.193279,-1.94127,0.466164,0.0687777,0.0131512,0.000612673,-0.0221205,0.000213514,0.0120959,0.0200811,0.0925393,-0.00125412,-0.0156916,0.0220485,0.00169779,-0.0918424,-0.0179555,-0.912309,0.00423498,2.84842,-1.78055,2.70326,-0.773278,1.92462,0.571552,-0.00699638,0.114616,0.0215014,0.193292,-1.95301,0.44964,-0.0215418,0.014224,0.0177777,-0.0312167,0.025382,0.00866588,0.0515639,0.340593,0.000197851,0,0,0,0,0,0,0,0.384403,-32.9234,0.786451,25.2094,3.56201,0.0365507,-0.00996382,
0.115402,0.00389356,0.193279,-1.94127,0.466164,0.0687777,0.0131512,0.000592588,-0.0220923,0.000215688,0.0119784,0.0200582,0.0913716,-0.0012487,-0.0125532,0.0176388,0.00135823,-0.0734739,-0.0143644,-0.729847,0.00338798,2.84842,-1.78055,2.70326,-0.773278,1.92462,0.571552,-0.00699638,0.114616,0.0215014,0.193292,-1.95301,0.44964,-0.0215418,0.014224,0.0177777,-0.0312167,0.025382,0.00866588,0.0515639,0.340593,0.000197851,0,0,0,0,0,0,0,0.384403,-32.9234,0.786451,25.2094,3.56201,0.0365507,-0.00996382,
0.115402,0.00389356,0.193279,-1.94127,0.466164,0.0687777,0.0131512,0.00057652,-0.0220697,0.000217426,0.0118843,0.0200398,0.0904374,-0.00124436,-0.0100426,0.014111,0.00108659,-0.0587791,-0.0114915,-0.583878,0.00271038,2.85045,-1.75492,2.71367,-0.838402,1.92507,0.516456,-0.00677642,0.115269,0.0204382,0.193855,-1.95284,0.452459,-0.0101849,0.0142202,0.0194871,-0.0238242,0.0234609,0.0184563,0.098504,0.324584,-0.00130542,0.213675,0.924051,-0.240145,1.2238,5.86751,-2.00117,-0.187909,0.590702,-32.975,0.913405,23.7375,2.8717,0.0887358,0.0239107,
0.115402,0.00389356,0.193279,-1.94127,0.466164,0.0687777,0.0131512,0.000563665,-0.0220517,0.000218817,0.0118091,0.0200251,0.08969,-0.00124089,-0.00803408,0.0112888,0.000869269,-0.0470233,-0.00919319,-0.467102,0.00216831,2.85045,-1.75492,2.71367,-0.838402,1.92507,0.516456,-0.00677642,0.115269,0.0204382,0.193855,-1.95284,0.452459,-0.0101849,0.0142202,0.0194871,-0.0238242,0.0234609,0.0184563,0.098504,0.324584,-0.00130542,0,0,0,0,0,0,0,0.590702,-32.975,0.913405,23.7375,2.8717,0.0887358,0.0239107,
0.116112,0.00296707,0.193963,-1.94147,0.469635,0.0765755,0.0131642,0.000553563,-0.0220185,0.000235621,0.0116552,0.0199485,0.0883735,-0.0012342,-0.00631404,0.0207261,0.0105022,-0.096156,-0.0478219,-0.822838,0.00418218,2.85045,-1.75492,2.71367,-0.838402,1.92507,0.516456,-0.00677642,0.115269,0.0204382,0.193855,-1.95284,0.452459,-0.0101849,0.0142202,0.0194871,-0.0238242,0.0234609,0.0184563,0.098504,0.324584,-0.00130542,0,0,0,0,0,0,0,0.590702,-32.975,0.913405,23.7375,2.8717,0.0887358,0.0239107,
0.116112,0.00296707,0.193963,-1.94147,0.469635,0.0765755,0.0131642,0.000545481,-0.021992,0.000249063,0.0115321,0.0198873,0.0873202,-0.00122885,-0.00505123,0.0165809,0.00840177,-0.0769248,-0.0382575,-0.658271,0.00334575,2.85045,-1.75492,2.71367,-0.838402,1.92507,0.516456,-0.00677642,0.115269,0.0204382,0.193855,-1.95284,0.452459,-0.0101849,0.0142202,0.0194871,-0.0238242,0.0234609,0.0184563,0.098504,0.324584,-0.00130542,0,0,0,0,0,0,0,0.590702,-32.975,0.913405,23.7375,2.8717,0.0887358,0.0239107,
0.116112,0.00296707,0.193963,-1.94147,0.469635,0.0765755,0.0131642,0.000539015,-0.0219708,0.000259818,0.0114337,0.0198384,0.0864776,-0.00122457,-0.00404099,0.0132647,0.00672141,-0.0615398,-0.030606,-0.526616,0.0026766,2.85045,-1.75492,2.71367,-0.838402,1.92507,0.516456,-0.00677642,0.115269,0.0204382,0.193855,-1.95284,0.452459,-0.0101849,0.0142202,0.0194871,-0.0238242,0.0234609,0.0184563,0.098504,0.324584,-0.00130542,0,0,0,0,0,0,0,0.590702,-32.975,0.913405,23.7375,2.8717,0.0887358,0.0239107,
0.116112,0.00296707,0.193963,-1.94147,0.469635,0.0765755,0.0131642,0.000533842,-0.0219538,0.000268421,0.0113549,0.0197992,0.0858036,-0.00122114,-0.00323279,0.0106118,0.00537713,-0.0492319,-0.0244848,-0.421293,0.00214128,2.84905,-1.73222,2.71912,-0.897421,1.92322,0.46414,-0.00653833,0.116096,0.0195553,0.19455,-1.95271,0.455895,0.000884209,0.0142241,0.032242,-0.0285816,0.0207182,0.00382584,0.112871,0.290544,0.000349343,1.59437,-0.594663,-0.342835,-1.82881,1.79586,-4.25499,0.206846,0.539127,-33.1734,0.738844,24.0628,2.67028,0.307547,-0.00996382,
0.117144,0.00221743,0.194908,-1.94188,0.473063,0.0836655,0.0131848,0.000529837,-0.0219266,0.000288006,0.0112104,0.0197015,0.0846519,-0.001215,-0.00250336,0.0169971,0.0122408,-0.0903159,-0.0610322,-0.719765,0.00383878,2.84905,-1.73222,2.71912,-0.897421,1.92322,0.46414,-0.00653833,0.116096,0.0195553,0.19455,-1.95271,0.455895,0.000884209,0.0142241,0.032242,-0.0285816,0.0207182,0.00382584,0.112871,0.290544,0.000349343,0,0,0,0,0,0,0,0.539127,-33.1734,0.738844,24.0628,2.67028,0.307547,-0.00996382,
0.117144,0.00221743,0.194908,-1.94188,0.473063,0.0836655,0.0131848,0.000526633,-0.0219048,0.000303674,0.0110948,0.0196234,0.0837306,-0.00121008,-0.00200269,0.0135977,0.00979264,-0.0722527,-0.0488258,-0.575812,0.00307103,2.84905,-1.73222,2.71912,-0.897421,1.92322,0.46414,-0.00653833,0.116096,0.0195553,0.19455,-1.95271,0.455895,0.000884209,0.0142241,0.032242,-0.0285816,0.0207182,0.00382584,0.112871,0.290544,0.000349343,0,0,0,0,0,0,0,0.539127,-33.1734,0.738844,24.0628,2.67028,0.307547,-0.00996382,
0.117144,0.00221743,0.194908,-1.94188,0.473063,0.0836655,0.0131848,0.000524069,-0.0218874,0.000316209,0.0110023,0.0195609,0.0829936,-0.00120615,-0.00160215,0.0108782,0.00783411,-0.0578022,-0.0390606,-0.46065,0.00245682,2.84905,-1.73222,2.71912,-0.897421,1.92322,0.46414,-0.00653833,0.116096,0.0195553,0.19455,-1.95271,0.455895,0.000884209,0.0142241,0.032242,-0.0285816,0.0207182,0.00382584,0.112871,0.290544,0.000349343,0,0,0,0,0,0,0,0.539127,-33.1734,0.738844,24.0628,2.67028,0.307547,-0.00996382,
0.11819,0.00104519,0.195768,-1.94234,0.476153,0.0898158,0.0132011,0.000522091,-0.0218908,0.000346223,0.0108523,0.0194477,0.0818351,-0.00119985,-0.00123631,-0.00212778,0.0187588,-0.0937744,-0.0707482,-0.724082,0.0039398,2.84689,-1.72054,2.72557,-0.951442,1.91933,0.419632,-0.00629794,0.117057,0.0184696,0.19525,-1.95279,0.459339,0.0102448,0.0142263,0.0371577,-0.0347434,0.0213103,0.000593033,0.101965,0.268863,0.000185946,0.614454,-0.770235,0.0740132,-0.404101,-1.36324,-2.71003,-0.0204246,-0.0440639,-32.8005,0.361952,25.0586,2.8836,0.918204,-0.0301054,
0.11819,0.00104519,0.195768,-1.94234,0.476153,0.0898158,0.0132011,0.000520509,-0.0218936,0.000370234,0.0107322,0.0193572,0.0809082,-0.00119481,-0.000989051,-0.00170223,0.015007,-0.0750196,-0.0565986,-0.579265,0.00315184,2.84689,-1.72054,2.72557,-0.951442,1.91933,0.419632,-0.00629794,0.117057,0.0184696,0.19525,-1.95279,0.459339,0.0102448,0.0142263,0.0371577,-0.0347434,0.0213103,0.000593033,0.101965,0.268863,0.000185946,0,0,0,0,0,0,0,-0.0440639,-32.8005,0.361952,25.0586,2.8836,0.918204,-0.0301054,
0.11819,0.00104519,0.195768,-1.94234,0.476153,0.0898158,0.0132011,0.000519243,-0.0218957,0.000389443,0.0106362,0.0192847,0.0801668,-0.00119077,-0.000791241,-0.00136178,0.0120056,-0.0600156,-0.0452788,-0.463412,0.00252147,2.84689,-1.72054,2.72557,-0.951442,1.91933,0.419632,-0.00629794,0.117057,0.0184696,0.19525,-1.95279,0.459339,0.0102448,0.0142263,0.0371577,-0.0347434,0.0213103,0.000593033,0.101965,0.268863,0.000185946,0,0,0,0,0,0,0,-0.0440639,-32.8005,0.361952,25.0586,2.8836,0.918204,-0.0301054,
0.11819,0.00104519,0.195768,-1.94234,0.476153,0.0898158,0.0132011,0.00051823,-0.0218975,0.00040481,0.0105594,0.0192268,0.0795736,-0.00118754,-0.000632992,-0.00108943,0.00960448,-0.0480125,-0.0362231,-0.37073,0.00201718,2.84689,-1.72054,2.72557,-0.951442,1.91933,0.419632,-0.00629794,0.117057,0.0184696,0.19525,-1.95279,0.459339,0.0102448,0.0142263,0.0371577,-0.0347434,0.0213103,0.000593033,0.101965,0.268863,0.000185946,0,0,0,0,0,0,0,-0.0440639,-32.8005,0.361952,25.0586,2.8836,0.918204,-0.0301054,
0.11819,0.00104519,0.195768,-1.94234,0.476153,0.0898158,0.0132011,0.00051742,-0.0218989,0.000417104,0.0104979,0.0191804,0.0790991,-0.00118496,-0.000506394,-0.000871541,0.00768359,-0.03841,-0.0289785,-0.296584,0.00161374,2.84405,-1.71088,2.73086,-1.00414,1.91668,0.375877,-0.00606717,0.118051,0.0174431,0.196132,-1.95278,0.462491,0.0192589,0.0142232,0.0266528,-0.0241769,0.0330743,0.00518838,0.0842757,0.247849,-0.00046942,-1.3131,1.32081,1.47051,0.574419,-2.21116,-2.62687,-0.0819207,0.336795,-32.975,0.663466,24.761,2.99347,0.771719,-0.0026396,
0.11819,0.00104519,0.195768,-1.94234,0.476153,0.0898158,0.0132011,0.000516772,-0.0219,0.000426939,0.0104488,0.0191433,0.0787195,-0.0011829,-0.000405115,-0.000697233,0.00614687,-0.030728,-0.0231828,-0.237267,0.00129099,2.84405,-1.71088,2.73086,-1.00414,1.91668,0.375877,-0.00606717,0.118051,0.0174431,0.196132,-1.95278,0.462491,0.0192589,0.0142232,0.0266528,-0.0241769,0.0330743,0.00518838,0.0842757,0.247849,-0.00046942,0,0,0,0,0,0,0,0.336795,-32.975,0.663466,24.761,2.99347,0.771719,-0.0026396,
0.11819,0.00104519,0.195768,-1.94234,0.476153,0.0898158,0.0132011,0.000516253,-0.0219009,0.000434807,0.0104095,0.0191136,0.0784158,-0.00118124,-0.000324092,-0.000557786,0.0049175,-0.0245824,-0.0185462,-0.189814,0.0010328,2.84405,-1.71088,2.73086,-1.00414,1.91668,0.375877,-0.00606717,0.118051,0.0174431,0.196132,-1.95278,0.462491,0.0192589,0.0142232,0.0266528,-0.0241769,0.0330743,0.00518838,0.0842757,0.247849,-0.00046942,0,0,0,0,0,0,0,0.336795,-32.975,0.663466,24.761,2.99347,0.771719,-0.0026396,
0.11819,0.00104519,0.195768,-1.94234,0.476153,0.0898158,0.0132011,0.000515838,-0.0219016,0.000441102,0.010378,0.0190899,0.0781728,-0.00117992,-0.000259274,-0.000446229,0.003934,-0.0196659,-0.014837,-0.151851,0.000826236,2.84405,-1.71088,2.73086,-1.00414,1.91668,0.375877,-0.00606717,0.118051,0.0174431,0.196132,-1.95278,0.462491,0.0192589,0.0142232,0.0266528,-0.0241769,0.0330743,0.00518838,0.0842757,0.247849,-0.00046942,0,0,0,0,0,0,0,0.336795,-32.975,0.663466,24.761,2.99347,0.771719,-0.0026396,
0.119176,0.000248525,0.196695,-1.94276,0.478843,0.0959026,0.0132115,0.000515649,-0.0219018,0.000459902,0.0102826,0.0190374,0.0774435,-0.00117591,-0.000118428,-0.000105359,0.0117503,-0.0595853,-0.0328301,-0.45579,0.00250536,2.8447,-1.69799,2.73839,-1.05401,1.91693,0.334421,-0.00585125,0.119021,0.0165828,0.196877,-1.9528,0.46495,0.0277295,0.0142262,0.0393944,-0.0174453,0.0104097,-0.000513403,0.0671009,0.245669,0.000697457,1.5927,0.841452,-2.83308,-0.712723,-2.14685,-0.272392,0.14586,0.00751081,-33.4471,0.338148,25.0586,3.13995,0.679251,-0.0301054,
0.119176,0.000248525,0.196695,-1.94276,0.478843,0.0959026,0.0132115,0.000515497,-0.0219019,0.000474942,0.0102064,0.0189953,0.0768601,-0.00117271,-9.47427e-05,-8.42873e-05,0.00940025,-0.0476682,-0.0262641,-0.364632,0.00200429,2.8447,-1.69799,2.73839,-1.05401,1.91693,0.334421,-0.00585125,0.119021,0.0165828,0.196877,-1.9528,0.46495,0.0277295,0.0142262,0.0393944,-0.0174453,0.0104097,-0.000513403,0.0671009,0.245669,0.000697457,0,0,0,0,0,0,0,0.00751081,-33.4471,0.338148,25.0586,3.13995,0.679251,-0.0301054,
0.119176,0.000248525,0.196695,-1.94276,0.478843,0.0959026,0.0132115,0.000515376,-0.021902,0.000486975,0.0101454,0.0189617,0.0763934,-0.00117014,-7.57942e-05,-6.74299e-05,0.0075202,-0.0381346,-0.0210112,-0.291706,0.00160343,2.8447,-1.69799,2.73839,-1.05401,1.91693,0.334421,-0.00585125,0.119021,0.0165828,0.196877,-1.9528,0.46495,0.0277295,0.0142262,0.0393944,-0.0174453,0.0104097,-0.000513403,0.0671009,0.245669,0.000697457,0,0,0,0,0,0,0,0.00751081,-33.4471,0.338148,25.0586,3.13995,0.679251,-0.0301054,
0.119992,-0.000301045,0.197323,-1.94322,0.480805,0.101853,0.0132317,0.000515521,-0.021886,0.000506315,0.0100327,0.0189494,0.0755101,-0.00116535,9.09525e-05,0.0100151,0.0120874,-0.0704048,-0.00771154,-0.552049,0.00299403,2.8447,-1.69799,2.73839,-1.05401,1.91693,0.334421,-0.00585125,0.119021,0.0165828,0.196877,-1.9528,0.46495,0.0277295,0.0142262,0.0393944,-0.0174453,0.0104097,-0.000513403,0.0671009,0.245669,0.000697457,0,0,0,0,0,0,0,0.00751081,-33.4471,0.338148,25.0586,3.13995,0.679251,-0.0301054,
0.119992,-0.000301045,0.197323,-1.94322,0.480805,0.101853,0.0132317,0.000515638,-0.0218732,0.000521787,0.0099426,0.0189395,0.0748035,-0.00116152,7.2762e-05,0.00801208,0.00966993,-0.0563238,-0.00616923,-0.441639,0.00239522,2.84528,-1.68518,2.74666,-1.10402,1.91687,0.294613,-0.00564382,0.119949,0.0156293,0.197619,-1.95285,0.467289,0.0360396,0.014224,0.0150108,-0.0337908,0.0313931,-0.00214444,0.0741945,0.250959,-8.62154e-05,-3.04796,-2.04319,2.62292,-0.203879,0.886704,0.661242,-0.097959,0.209842,-33.2726,0.639662,25.2332,3.02459,0.758902,-0.00996382,
0.119992,-0.000301045,0.197323,-1.94322,0.480805,0.101853,0.0132317,0.000515731,-0.0218629,0.000534164,0.0098705,0.0189316,0.0742382,-0.00115845,5.82096e-05,0.00640967,0.00773595,-0.0450591,-0.00493538,-0.353312,0.00191618,2.84528,-1.68518,2.74666,-1.10402,1.91687,0.294613,-0.00564382,0.119949,0.0156293,0.197619,-1.95285,0.467289,0.0360396,0.014224,0.0150108,-0.0337908,0.0313931,-0.00214444,0.0741945,0.250959,-8.62154e-05,0,0,0,0,0,0,0,0.209842,-33.2726,0.639662,25.2332,3.02459,0.758902,-0.00996382,
0.119992,-0.000301045,0.197323,-1.94322,0.480805,0.101853,0.0132317,0.000515805,-0.0218547,0.000544066,0.00981283,0.0189253,0.0737859,-0.001156,4.65677e-05,0.00512773,0.00618876,-0.0360472,-0.00394831,-0.282649,0.00153294,2.84528,-1.68518,2.74666,-1.10402,1.91687,0.294613,-0.00564382,0.119949,0.0156293,0.197619,-1.95285,0.467289,0.0360396,0.014224,0.0150108,-0.0337908,0.0313931,-0.00214444,0.0741945,0.250959,-8.62154e-05,0,0,0,0,0,0,0,0.209842,-33.2726,0.639662,25.2332,3.02459,0.758902,-0.00996382,
0.120888,-0.00159581,0.198123,-1.94345,0.48328,0.107644,0.0132443,0.000516012,-0.0218725,0.000574535,0.0096915,0.0188913,0.0728457,-0.00115088,0.000128808,-0.0111358,0.0190432,-0.0758281,-0.0212289,-0.587671,0.00320219,2.84528,-1.68518,2.74666,-1.10402,1.91687,0.294613,-0.00564382,0.119949,0.0156293,0.197619,-1.95285,0.467289,0.0360396,0.014224,0.0150108,-0.0337908,0.0313931,-0.00214444,0.0741945,0.250959,-8.62154e-05,0,0,0,0,0,0,0,0.209842,-33.2726,0.639662,25.2332,3.02459,0.758902,-0.00996382,
0.120888,-0.00159581,0.198123,-1.94345,0.48328,0.107644,0.0132443,0.000516176,-0.0218868,0.00059891,0.00959444,0.0188642,0.0720935,-0.00114678,0.000103047,-0.00890867,0.0152345,-0.0606625,-0.0169831,-0.470137,0.00256175,2.84385,-1.67902,2.75251,-1.14852,1.91646,0.256495,-0.00545819,0.120756,0.014731,0.198457,-1.95284,0.469773,0.0439142,0.0142225,0.0305022,-0.0164053,0.0176806,0.00278673,0.0715512,0.219498,-0.00107024,1.93642,2.17319,-1.71406,0.616396,-0.330415,-3.93261,-0.123003,0.384403,-33.1218,0.639662,25.011,2.74353,0.805594,0.00376909,
0.120888,-0.00159581,0.198123,-1.94345,0.48328,0.107644,0.0132443,0.000516308,-0.0218982,0.000618411,0.0095168,0.0188424,0.0714917,-0.0011435,8.24372e-05,-0.00712693,0.0121876,-0.04853,-0.0135865,-0.37611,0.0020494,2.84385,-1.67902,2.75251,-1.14852,1.91646,0.256495,-0.00545819,0.120756,0.014731,0.198457,-1.95284,0.469773,0.0439142,0.0142225,0.0305022,-0.0164053,0.0176806,0.00278673,0.0715512,0.219498,-0.00107024,0,0,0,0,0,0,0,0.384403,-33.1218,0.639662,25.011,2.74353,0.805594,0.00376909,
0.120888,-0.00159581,0.198123,-1.94345,0.48328,0.107644,0.0132443,0.000516414,-0.0219073,0.000634011,0.00945468,0.018825,0.0710103,-0.00114088,6.59498e-05,-0.00570155,0.0097501,-0.038824,-0.0108692,-0.300888,0.00163952,2.84385,-1.67902,2.75251,-1.14852,1.91646,0.256495,-0.00545819,0.120756,0.014731,0.198457,-1.95284,0.469773,0.0439142,0.0142225,0.0305022,-0.0164053,0.0176806,0.00278673,0.0715512,0.219498,-0.00107024,0,0,0,0,0,0,0,0.384403,-33.1218,0.639662,25.011,2.74353,0.805594,0.00376909,
0.121728,-0.00213653,0.199028,-1.94388,0.485578,0.112839,0.0132541,0.000516649,-0.0219101,0.000656129,0.00934795,0.0187924,0.0701941,-0.00113636,0.000146843,-0.00171823,0.0138239,-0.0667072,-0.0204027,-0.510095,0.00281902,2.84385,-1.67902,2.75251,-1.14852,1.91646,0.256495,-0.00545819,0.120756,0.014731,0.198457,-1.95284,0.469773,0.0439142,0.0142225,0.0305022,-0.0164053,0.0176806,0.00278673,0.0715512,0.219498,-0.00107024,0,0,0,0,0,0,0,0.384403,-33.1218,0.639662,25.011,2.74353,0.805594,0.00376909,
0.121728,-0.00213653,0.199028,-1.94388,0.485578,0.112839,0.0132541,0.000516837,-0.0219123,0.000673824,0.00926256,0.0187663,0.0695412,-0.00113276,0.000117474,-0.00137458,0.0110591,-0.0533658,-0.0163222,-0.408076,0.00225521,2.84452,-1.66972,2.76013,-1.19239,1.91501,0.221854,-0.00528038,0.1217,0.013876,0.199195,-1.95288,0.472435,0.0512886,0.0142254,0.0298828,-0.0262543,0.0195584,-0.00166277,0.0822984,0.215808,-0.000116983,-0.0774241,-1.23112,0.234731,-0.556188,1.3434,-0.461357,0.119157,0.134464,-33.4471,0.512709,25.3601,2.73712,1.05736,-0.0227812,
0.121728,-0.00213653,0.199028,-1.94388,0.485578,0.112839,0.0132541,0.000516987,-0.021914,0.000687979,0.00919425,0.0187454,0.0690188,-0.00112987,9.39794e-05,-0.00109967,0.0088473,-0.0426926,-0.0130578,-0.326461,0.00180417,2.84452,-1.66972,2.76013,-1.19239,1.91501,0.221854,-0.00528038,0.1217,0.013876,0.199195,-1.95288,0.472435,0.0512886,0.0142254,0.0298828,-0.0262543,0.0195584,-0.00166277,0.0822984,0.215808,-0.000116983,0,0,0,0,0,0,0,0.134464,-33.4471,0.512709,25.3601,2.73712,1.05736,-0.0227812,
0.122718,-0.00317932,0.199881,-1.94415,0.48829,0.117869,0.01327,0.000517196,-0.0219357,0.000717686,0.00907522,0.0186756,0.0681298,-0.00112488,0.000130522,-0.0135727,0.0185668,-0.0743928,-0.0436293,-0.555658,0.00311561,2.84452,-1.66972,2.76013,-1.19239,1.91501,0.221854,-0.00528038,0.1217,0.013876,0.199195,-1.95288,0.472435,0.0512886,0.0142254,0.0298828,-0.0262543,0.0195584,-0.00166277,0.0822984,0.215808,-0.000116983,0,0,0,0,0,0,0,0.134464,-33.4471,0.512709,25.3601,2.73712,1.05736,-0.0227812,
0.122718,-0.00317932,0.199881,-1.94415,0.48829,0.117869,0.01327,0.000517363,-0.0219531,0.000741452,0.00898,0.0186197,0.0674186,-0.0011209,0.000104418,-0.0108582,0.0148535,-0.0595142,-0.0349034,-0.444526,0.00249248,2.84452,-1.66972,2.76013,-1.19239,1.91501,0.221854,-0.00528038,0.1217,0.013876,0.199195,-1.95288,0.472435,0.0512886,0.0142254,0.0298828,-0.0262543,0.0195584,-0.00166277,0.0822984,0.215808,-0.000116983,0,0,0,0,0,0,0,0.134464,-33.4471,0.512709,25.3601,2.73712,1.05736,-0.0227812,
0.122718,-0.00317932,0.199881,-1.94415,0.48829,0.117869,0.01327,0.000517497,-0.021967,0.000760464,0.00890382,0.0185751,0.0668496,-0.00111771,8.35341e-05,-0.00868654,0.0118828,-0.0476114,-0.0279227,-0.355621,0.00199399,2.84452,-1.66972,2.76013,-1.19239,1.91501,0.221854,-0.00528038,0.1217,0.013876,0.199195,-1.95288,0.472435,0.0512886,0.0142254,0.0298828,-0.0262543,0.0195584,-0.00166277,0.0822984,0.215808,-0.000116983,0,0,0,0,0,0,0,0.134464,-33.4471,0.512709,25.3601,2.73712,1.05736,-0.0227812,
0.122718,-0.00317932,0.199881,-1.94415,0.48829,0.117869,0.01327,0.000517604,-0.0219781,0.000775674,0.00884288,0.0185393,0.0663944,-0.00111515,6.68273e-05,-0.00694923,0.00950621,-0.0380891,-0.0223382,-0.284497,0.00159519,2.84377,-1.66837,2.76654,-1.23175,1.91291,0.189997,-0.0051204,0.122466,0.0129992,0.200096,-1.95294,0.475342,0.0580646,0.0142269,0.0122213,-0.0258392,0.0365283,-0.00382295,0.0910851,0.191063,0.000414329,-2.20769,0.0518836,2.12123,-0.270021,1.09834,-3.09313,0.066414,0.412174,-33.1972,0.711073,25.5347,2.79205,1.09673,-0.0365141,
0.123512,-0.00406227,0.200871,-1.94453,0.491055,0.122304,0.0132836,0.00051772,-0.0220086,0.000803533,0.00873877,0.0184462,0.0656418,-0.00111084,7.28071e-05,-0.0190253,0.0174119,-0.0650705,-0.0582042,-0.470329,0.00269884,2.84377,-1.66837,2.76654,-1.23175,1.91291,0.189997,-0.0051204,0.122466,0.0129992,0.200096,-1.95294,0.475342,0.0580646,0.0142269,0.0122213,-0.0258392,0.0365283,-0.00382295,0.0910851,0.191063,0.000414329,0,0,0,0,0,0,0,0.412174,-33.1972,0.711073,25.5347,2.79205,1.09673,-0.0365141,
0.123512,-0.00406227,0.200871,-1.94453,0.491055,0.122304,0.0132836,0.000517813,-0.0220329,0.00082582,0.00865548,0.0183717,0.0650398,-0.00110738,5.82457e-05,-0.0152203,0.0139295,-0.0520564,-0.0465634,-0.376263,0.00215907,2.84377,-1.66837,2.76654,-1.23175,1.91291,0.189997,-0.0051204,0.122466,0.0129992,0.200096,-1.95294,0.475342,0.0580646,0.0142269,0.0122213,-0.0258392,0.0365283,-0.00382295,0.0910851,0.191063,0.000414329,0,0,0,0,0,0,0,0.412174,-33.1972,0.711073,25.5347,2.79205,1.09673,-0.0365141,
0.123512,-0.00406227,0.200871,-1.94453,0.491055,0.122304,0.0132836,0.000517888,-0.0220524,0.00084365,0.00858885,0.0183121,0.0645582,-0.00110462,4.65966e-05,-0.0121762,0.0111436,-0.0416451,-0.0372507,-0.301011,0.00172726,2.84377,-1.66837,2.76654,-1.23175,1.91291,0.189997,-0.0051204,0.122466,0.0129992,0.200096,-1.95294,0.475342,0.0580646,0.0142269,0.0122213,-0.0258392,0.0365283,-0.00382295,0.0910851,0.191063,0.000414329,0,0,0,0,0,0,0,0.412174,-33.1972,0.711073,25.5347,2.79205,1.09673,-0.0365141,
0.123512,-0.00406227,0.200871,-1.94453,0.491055,0.122304,0.0132836,0.000517948,-0.022068,0.000857914,0.00853554,0.0182644,0.0641729,-0.00110241,3.72773e-05,-0.00974097,0.00891491,-0.0333161,-0.0298006,-0.240809,0.00138181,2.84377,-1.66837,2.76654,-1.23175,1.91291,0.189997,-0.0051204,0.122466,0.0129992,0.200096,-1.95294,0.475342,0.0580646,0.0142269,0.0122213,-0.0258392,0.0365283,-0.00382295,0.0910851,0.191063,0.000414329,0,0,0,0,0,0,0,0.412174,-33.1972,0.711073,25.5347,2.79205,1.09673,-0.0365141,
0.123512,-0.00406227,0.200871,-1.94453,0.491055,0.122304,0.0132836,0.000517995,-0.0220804,0.000869325,0.0084929,0.0182263,0.0638647,-0.00110064,2.98218e-05,-0.00779277,0.00713193,-0.0266529,-0.0238404,-0.192647,0.00110545,2.84377,-1.66837,2.76654,-1.23175,1.91291,0.189997,-0.0051204,0.122466,0.0129992,0.200096,-1.95294,0.475342,0.0580646,0.0142269,0.0122213,-0.0258392,0.0365283,-0.00382295,0.0910851,0.191063,0.000414329,0,0,0,0,0,0,0,0.412174,-33.1972,0.711073,25.5347,2.79205,1.09673,-0.0365141,
0.123512,-0.00406227,0.200871,-1.94453,0.491055,0.122304,0.0132836,0.000518033,-0.0220904,0.000878454,0.00845878,0.0181957,0.0636181,-0.00109922,2.38574e-05,-0.00623422,0.00570554,-0.0213223,-0.0190724,-0.154117,0.000884357,2.84377,-1.66837,2.76654,-1.23175,1.91291,0.189997,-0.0051204,0.122466,0.0129992,0.200096,-1.95294,0.475342,0.0580646,0.0142269,0.0122213,-0.0258392,0.0365283,-0.00382295,0.0910851,0.191063,0.000414329,0,0,0,0,0,0,0,0.412174,-33.1972,0.711073,25.5347,2.79205,1.09673,-0.0365141,
0.123512,-0.00406227,0.200871,-1.94453,0.491055,0.122304,0.0132836,0.000518064,-0.0220984,0.000885757,0.00843149,0.0181713,0.0634208,-0.00109809,1.9086e-05,-0.00498738,0.00456443,-0.0170579,-0.0152579,-0.123294,0.000707485,2.84377,-1.66837,2.76654,-1.23175,1.91291,0.189997,-0.0051204,0.122466,0.0129992,0.200096,-1.95294,0.475342,0.0580646,0.0142269,0.0122213,-0.0258392,0.0365283,-0.00382295,0.0910851,0.191063,0.000414329,0,0,0,0,0,0,0,0.412174,-33.1972,0.711073,25.5347,2.79205,1.09673,-0.0365141,
0.124296,-0.00494425,0.201775,-1.94483,0.493929,0.126623,0.0132923,0.000518117,-0.0221252,0.00090738,0.00835449,0.0180787,0.0628829,-0.00109493,3.31458e-05,-0.0167539,0.0135142,-0.0481241,-0.0578844,-0.336175,0.00197679,2.84518,-1.66557,2.77479,-1.27053,1.90946,0.161064,-0.00496797,0.123246,0.0121629,0.200941,-1.95297,0.478439,0.0642651,0.014224,0.0278547,-0.0288783,0.019672,-0.00974798,0.0990024,0.191218,-8.02465e-05,1.95418,-0.37988,-2.10703,-0.74063,0.989664,0.0194165,-0.0618219,0.562931,-33.4987,0.814222,25.7092,2.84149,1.09673,-0.00996382,
0.124296,-0.00494425,0.201775,-1.94483,0.493929,0.126623,0.0132923,0.000518159,-0.0221467,0.000924678,0.00829289,0.0180046,0.0624526,-0.0010924,2.65166e-05,-0.0134031,0.0108113,-0.0384993,-0.0463075,-0.26894,0.00158143,2.84518,-1.66557,2.77479,-1.27053,1.90946,0.161064,-0.00496797,0.123246,0.0121629,0.200941,-1.95297,0.478439,0.0642651,0.014224,0.0278547,-0.0288783,0.019672,-0.00974798,0.0990024,0.191218,-8.02465e-05,0,0,0,0,0,0,0,0.562931,-33.4987,0.814222,25.7092,2.84149,1.09673,-0.00996382,
0.124296,-0.00494425,0.201775,-1.94483,0.493929,0.126623,0.0132923,0.000518193,-0.0221638,0.000938516,0.00824361,0.0179453,0.0621084,-0.00109037,2.12133e-05,-0.0107225,0.00864907,-0.0307994,-0.037046,-0.215152,0.00126515,2.84518,-1.66557,2.77479,-1.27053,1.90946,0.161064,-0.00496797,0.123246,0.0121629,0.200941,-1.95297,0.478439,0.0642651,0.014224,0.0278547,-0.0288783,0.019672,-0.00974798,0.0990024,0.191218,-8.02465e-05,0,0,0,0,0,0,0,0.562931,-33.4987,0.814222,25.7092,2.84149,1.09673,-0.00996382,
0.124296,-0.00494425,0.201775,-1.94483,0.493929,0.126623,0.0132923,0.00051822,-0.0221775,0.000949587,0.00820419,0.0178979,0.061833,-0.00108875,1.69706e-05,-0.008578,0.00691926,-0.0246396,-0.0296368,-0.172122,0.00101212,2.84518,-1.66557,2.77479,-1.27053,1.90946,0.161064,-0.00496797,0.123246,0.0121629,0.200941,-1.95297,0.478439,0.0642651,0.014224,0.0278547,-0.0288783,0.019672,-0.00974798,0.0990024,0.191218,-8.02465e-05,0,0,0,0,0,0,0,0.562931,-33.4987,0.814222,25.7092,2.84149,1.09673,-0.00996382,
0.124296,-0.00494425,0.201775,-1.94483,0.493929,0.126623,0.0132923,0.000518242,-0.0221885,0.000958444,0.00817265,0.01786,0.0616127,-0.00108746,1.35765e-05,-0.0068624,0.00553541,-0.0197116,-0.0237095,-0.137697,0.000809693,2.84408,-1.65991,2.78043,-1.30985,1.90716,0.131267,-0.00479292,0.124139,0.0113558,0.201594,-1.95303,0.481071,0.0705441,0.0142285,0.0240343,-0.0200774,0.015539,0.000633224,0.0772556,0.189305,0.000972212,-0.47755,1.10011,-0.516626,1.29765,-2.71835,-0.23908,0.131557,0.511356,-33.4471,0.838026,25.6061,2.93853,1.13701,-0.050247,
0.124296,-0.00494425,0.201775,-1.94483,0.493929,0.126623,0.0132923,0.00051826,-0.0221973,0.000965529,0.00814742,0.0178296,0.0614364,-0.00108642,1.08612e-05,-0.00548992,0.00442832,-0.0157693,-0.0189676,-0.110158,0.000647754,2.84408,-1.65991,2.78043,-1.30985,1.90716,0.131267,-0.00479292,0.124139,0.0113558,0.201594,-1.95303,0.481071,0.0705441,0.0142285,0.0240343,-0.0200774,0.015539,0.000633224,0.0772556,0.189305,0.000972212,0,0,0,0,0,0,0,0.511356,-33.4471,0.838026,25.6061,2.93853,1.13701,-0.050247,
0.124296,-0.00494425,0.201775,-1.94483,0.493929,0.126623,0.0132923,0.000518273,-0.0222043,0.000971197,0.00812723,0.0178054,0.0612954,-0.00108559,8.68896e-06,-0.00439193,0.00354266,-0.0126155,-0.0151741,-0.0881263,0.000518203,2.84408,-1.65991,2.78043,-1.30985,1.90716,0.131267,-0.00479292,0.124139,0.0113558,0.201594,-1.95303,0.481071,0.0705441,0.0142285,0.0240343,-0.0200774,0.015539,0.000633224,0.0772556,0.189305,0.000972212,0,0,0,0,0,0,0,0.511356,-33.4471,0.838026,25.6061,2.93853,1.13701,-0.050247,
0.124296,-0.00494425,0.201775,-1.94483,0.493929,0.126623,0.0132923,0.000518285,-0.0222099,0.000975732,0.00811108,0.0177859,0.0611826,-0.00108493,6.95117e-06,-0.00351355,0.00283413,-0.0100924,-0.0121392,-0.070501,0.000414563,2.84408,-1.65991,2.78043,-1.30985,1.90716,0.131267,-0.00479292,0.124139,0.0113558,0.201594,-1.95303,0.481071,0.0705441,0.0142285,0.0240343,-0.0200774,0.015539,0.000633224,0.0772556,0.189305,0.000972212,0,0,0,0,0,0,0,0.511356,-33.4471,0.838026,25.6061,2.93853,1.13701,-0.050247,
0.125032,-0.00561825,0.202318,-1.94514,0.49607,0.131233,0.0133084,0.000518459,-0.0222153,0.000991599,0.00804427,0.0177525,0.0606903,-0.00108213,0.00010882,-0.00337585,0.00991692,-0.0417567,-0.0208713,-0.307678,0.00175171,2.84276,-1.65979,2.78609,-1.34567,1.90508,0.103065,-0.00464513,0.124915,0.0105199,0.202446,-1.95313,0.48373,0.076631,0.0142258,0.0108758,-0.01215,0.0352279,0.000389309,0.0769444,0.175996,-5.8161e-05,-1.64482,0.990927,2.46112,-0.0304894,-0.0388943,-1.66372,-0.128797,0.435978,-33.1496,0.711073,25.3323,2.84149,1.17638,-0.0227812,
0.125032,-0.00561825,0.202318,-1.94514,0.49607,0.131233,0.0133084,0.000518598,-0.0222197,0.00100429,0.00799083,0.0177258,0.0602965,-0.00107989,8.70558e-05,-0.00270068,0.00793353,-0.0334053,-0.0166971,-0.246142,0.00140137,2.84276,-1.65979,2.78609,-1.34567,1.90508,0.103065,-0.00464513,0.124915,0.0105199,0.202446,-1.95313,0.48373,0.076631,0.0142258,0.0108758,-0.01215,0.0352279,0.000389309,0.0769444,0.175996,-5.8161e-05,0,0,0,0,0,0,0,0.435978,-33.1496,0.711073,25.3323,2.84149,1.17638,-0.0227812,
0.125032,-0.00561825,0.202318,-1.94514,0.49607,0.131233,0.0133084,0.000518709,-0.0222231,0.00101445,0.00794807,0.0177045,0.0599814,-0.00107809,6.96447e-05,-0.00216054,0.00634683,-0.0267243,-0.0133577,-0.196914,0.0011211,2.84276,-1.65979,2.78609,-1.34567,1.90508,0.103065,-0.00464513,0.124915,0.0105199,0.202446,-1.95313,0.48373,0.076631,0.0142258,0.0108758,-0.01215,0.0352279,0.000389309,0.0769444,0.175996,-5.8161e-05,0,0,0,0,0,0,0,0.435978,-33.1496,0.711073,25.3323,2.84149,1.17638,-0.0227812,
0.125032,-0.00561825,0.202318,-1.94514,0.49607,0.131233,0.0133084,0.000518799,-0.0222259,0.00102257,0.00791386,0.0176874,0.0597294,-0.00107666,5.57157e-05,-0.00172843,0.00507746,-0.0213794,-0.0106861,-0.157531,0.000896876,2.84276,-1.65979,2.78609,-1.34567,1.90508,0.103065,-0.00464513,0.124915,0.0105199,0.202446,-1.95313,0.48373,0.076631,0.0142258,0.0108758,-0.01215,0.0352279,0.000389309,0.0769444,0.175996,-5.8161e-05,0,0,0,0,0,0,0,0.435978,-33.1496,0.711073,25.3323,2.84149,1.17638,-0.0227812,
0.125893,-0.00632733,0.203305,-1.94556,0.498556,0.135325,0.0133138,0.00051892,-0.022245,0.00104203,0.00783805,0.0176266,0.0591904,-0.00107351,7.56652e-05,-0.0119709,0.0121608,-0.0473794,-0.0379662,-0.336874,0.0019675,2.84245,-1.6652,2.79373,-1.37761,1.90273,0.0780702,-0.00449418,0.125797,0.0095833,0.20317,-1.95318,0.486074,0.0818049,0.0142266,0.037149,-0.0326284,0.0106185,-0.00679216,0.0633312,0.147344,0.000531173,3.28415,-2.5598,-3.07618,-0.897683,-1.70165,-3.58142,0.0736667,0.309024,-33.3717,0.588087,25.4315,2.86529,1.25603,-0.0301054,
0.125893,-0.00632733,0.203305,-1.94556,0.498556,0.135325,0.0133138,0.000519017,-0.0222604,0.00105759,0.00777741,0.017578,0.0587592,-0.00107099,6.05322e-05,-0.00957672,0.00972864,-0.0379035,-0.030373,-0.269499,0.001574,2.84245,-1.6652,2.79373,-1.37761,1.90273,0.0780702,-0.00449418,0.125797,0.0095833,0.20317,-1.95318,0.486074,0.0818049,0.0142266,0.037149,-0.0326284,0.0106185,-0.00679216,0.0633312,0.147344,0.000531173,0,0,0,0,0,0,0,0.309024,-33.3717,0.588087,25.4315,2.86529,1.25603,-0.0301054,
0.125893,-0.00632733,0.203305,-1.94556,0.498556,0.135325,0.0133138,0.000519094,-0.0222726,0.00107005,0.00772889,0.0175391,0.0584142,-0.00106898,4.84257e-05,-0.00766138,0.00778291,-0.0303228,-0.0242984,-0.215599,0.0012592,2.84245,-1.6652,2.79373,-1.37761,1.90273,0.0780702,-0.00449418,0.125797,0.0095833,0.20317,-1.95318,0.486074,0.0818049,0.0142266,0.037149,-0.0326284,0.0106185,-0.00679216,0.0633312,0.147344,0.000531173,0,0,0,0,0,0,0,0.309024,-33.3717,0.588087,25.4315,2.86529,1.25603,-0.0301054,
0.126852,-0.00774439,0.20419,-1.94579,0.500592,0.138345,0.0133238,0.000519113,-0.0223436,0.00110545,0.00764219,0.0174537,0.0577976,-0.00106539,1.21671e-05,-0.0443874,0.0221297,-0.054187,-0.0533743,-0.385375,0.00223781,2.84245,-1.6652,2.79373,-1.37761,1.90273,0.0780702,-0.00449418,0.125797,0.0095833,0.20317,-1.95318,0.486074,0.0818049,0.0142266,0.037149,-0.0326284,0.0106185,-0.00679216,0.0633312,0.147344,0.000531173,0,0,0,0,0,0,0,0.309024,-33.3717,0.588087,25.4315,2.86529,1.25603,-0.0301054,
0.126852,-0.00774439,0.20419,-1.94579,0.500592,0.138345,0.0133238,0.000519129,-0.0224005,0.00113378,0.00757283,0.0173854,0.0573044,-0.00106253,9.7337e-06,-0.0355099,0.0177038,-0.0433496,-0.0426995,-0.3083,0.00179025,2.84245,-1.6652,2.79373,-1.37761,1.90273,0.0780702,-0.00449418,0.125797,0.0095833,0.20317,-1.95318,0.486074,0.0818049,0.0142266,0.037149,-0.0326284,0.0106185,-0.00679216,0.0633312,0.147344,0.000531173,0,0,0,0,0,0,0,0.309024,-33.3717,0.588087,25.4315,2.86529,1.25603,-0.0301054,
0.126852,-0.00774439,0.20419,-1.94579,0.500592,0.138345,0.0133238,0.000519141,-0.0224459,0.00115644,0.00751734,0.0173308,0.0569097,-0.00106024,7.78696e-06,-0.0284079,0.014163,-0.0346797,-0.0341596,-0.24664,0.0014322,2.84212,-1.67183,2.80153,-1.40977,1.90096,0.0533921,-0.00436128,0.126697,0.00863376,0.203939,-1.95331,0.488478,0.0869564,0.014224,0.0228773,-0.0350586,0.0223862,-0.00875151,0.0663011,0.139313,-0.000880528,-1.78397,-0.303774,1.47096,-0.244919,0.371237,-1.00389,-0.176463,0.233646,-33.1972,0.588087,25.856,2.98797,1.24322,-0.00996382,
0.126852,-0.00774439,0.20419,-1.94579,0.500592,0.138345,0.0133238,0.000519151,-0.0224823,0.00117457,0.00747295,0.017287,0.056594,-0.00105841,6.22957e-06,-0.0227264,0.0113304,-0.0277438,-0.0273277,-0.197312,0.00114576,2.84212,-1.67183,2.80153,-1.40977,1.90096,0.0533921,-0.00436128,0.126697,0.00863376,0.203939,-1.95331,0.488478,0.0869564,0.014224,0.0228773,-0.0350586,0.0223862,-0.00875151,0.0663011,0.139313,-0.000880528,0,0,0,0,0,0,0,0.233646,-33.1972,0.588087,25.856,2.98797,1.24322,-0.00996382,
0.127731,-0.00882337,0.205013,-1.94614,0.502829,0.141818,0.0133308,0.000519168,-0.0225506,0.00120871,0.00739034,0.0172033,0.0560114,-0.001055,1.03777e-05,-0.0426849,0.0213393,-0.0516326,-0.0523526,-0.364124,0.00213011,2.84212,-1.67183,2.80153,-1.40977,1.90096,0.0533921,-0.00436128,0.126697,0.00863376,0.203939,-1.95331,0.488478,0.0869564,0.014224,0.0228773,-0.0350586,0.0223862,-0.00875151,0.0663011,0.139313,-0.000880528,0,0,0,0,0,0,0,0.233646,-33.1972,0.588087,25.856,2.98797,1.24322,-0.00996382,
0.127731,-0.00882337,0.205013,-1.94614,0.502829,0.141818,0.0133308,0.000519181,-0.0226052,0.00123603,0.00732425,0.0171363,0.0555454,-0.00105227,8.30215e-06,-0.0341479,0.0170714,-0.0413061,-0.0418821,-0.291299,0.00170409,2.84212,-1.67183,2.80153,-1.40977,1.90096,0.0533921,-0.00436128,0.126697,0.00863376,0.203939,-1.95331,0.488478,0.0869564,0.014224,0.0228773,-0.0350586,0.0223862,-0.00875151,0.0663011,0.139313,-0.000880528,0,0,0,0,0,0,0,0.233646,-33.1972,0.588087,25.856,2.98797,1.24322,-0.00996382,
0.127731,-0.00882337,0.205013,-1.94614,0.502829,0.141818,0.0133308,0.000519192,-0.0226489,0.00125788,0.00727138,0.0170827,0.0551725,-0.00105009,6.64172e-06,-0.0273183,0.0136572,-0.0330449,-0.0335057,-0.233039,0.00136327,2.84192,-1.67622,2.80786,-1.44098,1.89851,0.0308797,-0.00424548,0.12742,0.00786223,0.20496,-1.95339,0.490956,0.0917686,0.0142306,0.0136527,-0.0132116,0.0309441,0.00043144,0.0722381,0.146145,0.00132418,-1.15307,2.73087,1.06974,1.14787,0.742122,0.853985,0.275589,0.638309,-33.4471,0.762648,25.5823,3.0365,1.26244,-0.0566557,
0.127731,-0.00882337,0.205013,-1.94614,0.502829,0.141818,0.0133308,0.0005192,-0.0226839,0.00127536,0.00722908,0.0170398,0.0548742,-0.00104834,5.31337e-06,-0.0218547,0.0109257,-0.0264359,-0.0268045,-0.186431,0.00109062,2.84192,-1.67622,2.80786,-1.44098,1.89851,0.0308797,-0.00424548,0.12742,0.00786223,0.20496,-1.95339,0.490956,0.0917686,0.0142306,0.0136527,-0.0132116,0.0309441,0.00043144,0.0722381,0.146145,0.00132418,0,0,0,0,0,0,0,0.638309,-33.4471,0.762648,25.5823,3.0365,1.26244,-0.0566557,
0.128402,-0.00926868,0.206015,-1.94649,0.505143,0.145491,0.013346,0.000519265,-0.022719,0.00129796,0.00715379,0.0169638,0.0543548,-0.00104525,4.02976e-05,-0.0219588,0.0141236,-0.0470596,-0.0475026,-0.324613,0.00193691,2.84192,-1.67622,2.80786,-1.44098,1.89851,0.0308797,-0.00424548,0.12742,0.00786223,0.20496,-1.95339,0.490956,0.0917686,0.0142306,0.0136527,-0.0132116,0.0309441,0.00043144,0.0722381,0.146145,0.00132418,0,0,0,0,0,0,0,0.638309,-33.4471,0.762648,25.5823,3.0365,1.26244,-0.0566557,
0.128402,-0.00926868,0.206015,-1.94649,0.505143,0.145491,0.013346,0.000519317,-0.0227471,0.00131604,0.00709355,0.016903,0.0539393,-0.00104277,3.22381e-05,-0.0175671,0.0112989,-0.0376476,-0.0380021,-0.259691,0.00154953,2.84192,-1.67622,2.80786,-1.44098,1.89851,0.0308797,-0.00424548,0.12742,0.00786223,0.20496,-1.95339,0.490956,0.0917686,0.0142306,0.0136527,-0.0132116,0.0309441,0.00043144,0.0722381,0.146145,0.00132418,0,0,0,0,0,0,0,0.638309,-33.4471,0.762648,25.5823,3.0365,1.26244,-0.0566557,
0.128402,-0.00926868,0.206015,-1.94649,0.505143,0.145491,0.013346,0.000519358,-0.0227696,0.0013305,0.00704536,0.0168543,0.0536069,-0.00104078,2.57905e-05,-0.0140536,0.00903914,-0.0301181,-0.0304017,-0.207753,0.00123962,2.84171,-1.68138,2.81518,-1.46992,1.89579,0.00950798,-0.00411282,0.128471,0.00698981,0.205693,-1.95352,0.493231,0.0964189,0.0142294,0.043784,-0.0322766,0.0117752,-0.00362745,0.0615903,0.135982,0.000720662,3.76642,-2.38312,-2.39611,-0.507362,-1.33097,-1.27037,-0.0754401,0.511356,-33.4709,0.838026,25.3323,3.16467,1.26244,-0.0301054,
0.129628,-0.0106616,0.207007,-1.94673,0.507299,0.148375,0.0133499,0.000519328,-0.0228513,0.00136758,0.00696074,0.0167549,0.0530221,-0.00103731,-1.88508e-05,-0.0510426,0.0231743,-0.0528916,-0.0621416,-0.365521,0.00217131,2.84171,-1.68138,2.81518,-1.46992,1.89579,0.00950798,-0.00411282,0.128471,0.00698981,0.205693,-1.95352,0.493231,0.0964189,0.0142294,0.043784,-0.0322766,0.0117752,-0.00362745,0.0615903,0.135982,0.000720662,0,0,0,0,0,0,0,0.511356,-33.4709,0.838026,25.3323,3.16467,1.26244,-0.0301054,
0.129628,-0.0106616,0.207007,-1.94673,0.507299,0.148375,0.0133499,0.000519303,-0.0229166,0.00139724,0.00689303,0.0166754,0.0525542,-0.00103453,-1.50806e-05,-0.0408341,0.0185395,-0.0423133,-0.0497133,-0.292417,0.00173705,2.84171,-1.68138,2.81518,-1.46992,1.89579,0.00950798,-0.00411282,0.128471,0.00698981,0.205693,-1.95352,0.493231,0.0964189,0.0142294,0.043784,-0.0322766,0.0117752,-0.00362745,0.0615903,0.135982,0.000720662,0,0,0,0,0,0,0,0.511356,-33.4709,0.838026,25.3323,3.16467,1.26244,-0.0301054,
0.129628,-0.0106616,0.207007,-1.94673,0.507299,0.148375,0.0133499,0.000519284,-0.0229689,0.00142097,0.00683887,0.0166117,0.0521799,-0.00103231,-1.20645e-05,-0.0326673,0.0148316,-0.0338506,-0.0397706,-0.233933,0.00138964,2.84171,-1.68138,2.81518,-1.46992,1.89579,0.00950798,-0.00411282,0.128471,0.00698981,0.205693,-1.95352,0.493231,0.0964189,0.0142294,0.043784,-0.0322766,0.0117752,-0.00362745,0.0615903,0.135982,0.000720662,0,0,0,0,0,0,0,0.511356,-33.4709,0.838026,25.3323,3.16467,1.26244,-0.0301054,
0.129628,-0.0106616,0.207007,-1.94673,0.507299,0.148375,0.0133499,0.000519269,-0.0230107,0.00143996,0.00679555,0.0165608,0.0518805,-0.00103053,-9.6516e-06,-0.0261338,0.0118653,-0.0270805,-0.0318165,-0.187147,0.00111171,2.84103,-1.69534,2.82229,-1.49362,1.89401,-0.00878154,-0.00401468,0.129351,0.00609641,0.20648,-1.95368,0.495352,0.100178,0.0142241,0.0244226,-0.0299543,0.0302057,-0.00882145,0.0612367,0.116792,-0.000108007,-2.42017,0.290286,2.30382,-0.649249,-0.0442022,-2.39876,-0.103584,0.182071,-33.1734,0.512709,25.6339,3.36609,1.28258,-0.00996382,
0.130515,-0.0115789,0.207865,-1.94715,0.509123,0.150685,0.0133519,0.00051919,-0.0230885,0.00147217,0.00672894,0.0164731,0.0514305,-0.00102781,-4.91401e-05,-0.0486524,0.0201354,-0.0416254,-0.0548529,-0.281234,0.0016978,2.84103,-1.69534,2.82229,-1.49362,1.89401,-0.00878154,-0.00401468,0.129351,0.00609641,0.20648,-1.95368,0.495352,0.100178,0.0142241,0.0244226,-0.0299543,0.0302057,-0.00882145,0.0612367,0.116792,-0.000108007,0,0,0,0,0,0,0,0.182071,-33.1734,0.512709,25.6339,3.36609,1.28258,-0.00996382,
0.130515,-0.0115789,0.207865,-1.94715,0.509123,0.150685,0.0133519,0.000519127,-0.0231508,0.00149795,0.00667566,0.0164028,0.0510705,-0.00102564,-3.93121e-05,-0.0389219,0.0161083,-0.0333003,-0.0438823,-0.224987,0.00135824,2.84103,-1.69534,2.82229,-1.49362,1.89401,-0.00878154,-0.00401468,0.129351,0.00609641,0.20648,-1.95368,0.495352,0.100178,0.0142241,0.0244226,-0.0299543,0.0302057,-0.00882145,0.0612367,0.116792,-0.000108007,0,0,0,0,0,0,0,0.182071,-33.1734,0.512709,25.6339,3.36609,1.28258,-0.00996382,
0.130515,-0.0115789,0.207865,-1.94715,0.509123,0.150685,0.0133519,0.000519077,-0.0232006,0.00151856,0.00663304,0.0163467,0.0507825,-0.0010239,-3.14496e-05,-0.0311375,0.0128866,-0.0266402,-0.0351058,-0.17999,0.00108659,2.84103,-1.69534,2.82229,-1.49362,1.89401,-0.00878154,-0.00401468,0.129351,0.00609641,0.20648,-1.95368,0.495352,0.100178,0.0142241,0.0244226,-0.0299543,0.0302057,-0.00882145,0.0612367,0.116792,-0.000108007,0,0,0,0,0,0,0,0.182071,-33.1734,0.512709,25.6339,3.36609,1.28258,-0.00996382,
0.130515,-0.0115789,0.207865,-1.94715,0.509123,0.150685,0.0133519,0.000519037,-0.0232405,0.00153506,0.00659894,0.0163017,0.0505522,-0.00102251,-2.51597e-05,-0.02491,0.0103093,-0.0213122,-0.0280847,-0.143992,0.000869271,2.84122,-1.70541,2.83026,-1.52376,1.89024,-0.0291684,-0.00390202,0.130277,0.00520182,0.207594,-1.9538,0.498161,0.104614,0.0142294,0.0286168,-0.0213963,0.0226398,0.0024846,0.0767137,0.115833,0.000311203,0.524275,1.06974,-0.945745,1.41326,1.93462,-0.119879,0.0524013,0.539127,-33.4471,0.611891,25.1855,3.05481,1.23589,-0.0301054,
0.131397,-0.0125366,0.208999,-1.94742,0.511893,0.153986,0.0133658,0.000518959,-0.0233115,0.00156641,0.00652583,0.0161859,0.0500746,-0.00101955,-4.86812e-05,-0.0443985,0.0195954,-0.0456912,-0.0724243,-0.298457,0.001846,2.84122,-1.70541,2.83026,-1.52376,1.89024,-0.0291684,-0.00390202,0.130277,0.00520182,0.207594,-1.9538,0.498161,0.104614,0.0142294,0.0286168,-0.0213963,0.0226398,0.0024846,0.0767137,0.115833,0.000311203,0,0,0,0,0,0,0,0.539127,-33.4471,0.611891,25.1855,3.05481,1.23589,-0.0301054,
0.131397,-0.0125366,0.208999,-1.94742,0.511893,0.153986,0.0133658,0.000518896,-0.0233684,0.00159149,0.00646735,0.0160932,0.0496926,-0.00101719,-3.8945e-05,-0.0355188,0.0156763,-0.0365529,-0.0579394,-0.238766,0.0014768,2.84122,-1.70541,2.83026,-1.52376,1.89024,-0.0291684,-0.00390202,0.130277,0.00520182,0.207594,-1.9538,0.498161,0.104614,0.0142294,0.0286168,-0.0213963,0.0226398,0.0024846,0.0767137,0.115833,0.000311203,0,0,0,0,0,0,0,0.539127,-33.4471,0.611891,25.1855,3.05481,1.23589,-0.0301054,
0.131397,-0.0125366,0.208999,-1.94742,0.511893,0.153986,0.0133658,0.000518847,-0.0234138,0.00161156,0.00642056,0.016019,0.049387,-0.0010153,-3.1156e-05,-0.028415,0.012541,-0.0292423,-0.0463515,-0.191013,0.00118144,2.84122,-1.70541,2.83026,-1.52376,1.89024,-0.0291684,-0.00390202,0.130277,0.00520182,0.207594,-1.9538,0.498161,0.104614,0.0142294,0.0286168,-0.0213963,0.0226398,0.0024846,0.0767137,0.115833,0.000311203,0,0,0,0,0,0,0,0.539127,-33.4471,0.611891,25.1855,3.05481,1.23589,-0.0301054,
0.131384,-0.011971,0.208959,-1.94757,0.511516,0.152824,0.0133901,0.000518744,-0.0234331,0.00161728,0.00640361,0.0159594,0.0493072,-0.00101468,-6.40731e-05,-0.0120547,0.00357686,-0.0105976,-0.037258,-0.0498548,0.000386926,2.84205,-1.72037,2.84019,-1.54923,1.88701,-0.0474487,-0.00378698,0.131306,0.00417247,0.208351,-1.95406,0.500655,0.108548,0.0142298,0.0378051,-0.0444647,0.0176327,-0.0116427,0.0665457,0.116408,0.000712818,1.14854,-2.88355,-0.62588,-1.76591,-1.271,0.0719268,0.0502019,0.0551182,-33.4233,0.314344,25.5823,3.07953,1.36223,-0.0301054,
0.132494,-0.0135467,0.209894,-1.94794,0.513688,0.155314,0.0133976,0.000518541,-0.0235268,0.00165104,0.0063475,0.0158447,0.0489576,-0.00101246,-0.000126855,-0.058567,0.021097,-0.0350663,-0.0716832,-0.218482,0.00138823,2.84205,-1.72037,2.84019,-1.54923,1.88701,-0.0474487,-0.00378698,0.131306,0.00417247,0.208351,-1.95406,0.500655,0.108548,0.0142298,0.0378051,-0.0444647,0.0176327,-0.0116427,0.0665457,0.116408,0.000712818,0,0,0,0,0,0,0,0.0551182,-33.4233,0.314344,25.5823,3.07953,1.36223,-0.0301054,
0.132494,-0.0135467,0.209894,-1.94794,0.513688,0.155314,0.0133976,0.000518379,-0.0236018,0.00167804,0.00630261,0.0157529,0.048678,-0.00101068,-0.000101484,-0.0468536,0.0168776,-0.028053,-0.0573466,-0.174786,0.00111059,2.84205,-1.72037,2.84019,-1.54923,1.88701,-0.0474487,-0.00378698,0.131306,0.00417247,0.208351,-1.95406,0.500655,0.108548,0.0142298,0.0378051,-0.0444647,0.0176327,-0.0116427,0.0665457,0.116408,0.000712818,0,0,0,0,0,0,0,0.0551182,-33.4233,0.314344,25.5823,3.07953,1.36223,-0.0301054,
0.132494,-0.0135467,0.209894,-1.94794,0.513688,0.155314,0.0133976,0.000518249,-0.0236618,0.00169965,0.00626671,0.0156795,0.0484543,-0.00100926,-8.11871e-05,-0.0374829,0.0135021,-0.0224424,-0.0458773,-0.139828,0.000888469,2.84205,-1.72037,2.84019,-1.54923,1.88701,-0.0474487,-0.00378698,0.131306,0.00417247,0.208351,-1.95406,0.500655,0.108548,0.0142298,0.0378051,-0.0444647,0.0176327,-0.0116427,0.0665457,0.116408,0.000712818,0,0,0,0,0,0,0,0.0551182,-33.4233,0.314344,25.5823,3.07953,1.36223,-0.0301054,
0.132473,-0.012593,0.209824,-1.94819,0.513073,0.15339,0.0134378,0.000518042,-0.0236804,0.00169945,0.006272,0.0156196,0.0485495,-0.00100961,-0.000129523,-0.0116541,-0.00012117,0.00330972,-0.0374559,0.0595506,-0.000217982,2.8408,-1.74061,2.84831,-1.57505,1.88455,-0.0658384,-0.00368465,0.132119,0.00311928,0.20943,-1.9543,0.502935,0.112264,0.0142247,0.0189214,-0.0300454,0.0298334,-0.00316143,0.0637544,0.104662,-0.000128384,-2.36047,1.80242,1.52508,1.06016,-0.348913,-1.46829,-0.10515,0.360599,-33.1496,0.588087,25.7568,3.17108,1.42174,-0.0163725,
0.132473,-0.012593,0.209824,-1.94819,0.513073,0.15339,0.0134378,0.000517876,-0.0236953,0.0016993,0.00627624,0.0155717,0.0486258,-0.00100989,-0.000103619,-0.00932324,-9.69359e-05,0.00264778,-0.0299647,0.0476405,-0.000174386,2.8408,-1.74061,2.84831,-1.57505,1.88455,-0.0658384,-0.00368465,0.132119,0.00311928,0.20943,-1.9543,0.502935,0.112264,0.0142247,0.0189214,-0.0300454,0.0298334,-0.00316143,0.0637544,0.104662,-0.000128384,0,0,0,0,0,0,0,0.360599,-33.1496,0.588087,25.7568,3.17108,1.42174,-0.0163725,
0.132473,-0.012593,0.209824,-1.94819,0.513073,0.15339,0.0134378,0.000517743,-0.0237073,0.00169917,0.00627963,0.0155333,0.0486868,-0.00101011,-8.2895e-05,-0.00745859,-7.75487e-05,0.00211822,-0.0239718,0.0381124,-0.000139509,2.8408,-1.74061,2.84831,-1.57505,1.88455,-0.0658384,-0.00368465,0.132119,0.00311928,0.20943,-1.9543,0.502935,0.112264,0.0142247,0.0189214,-0.0300454,0.0298334,-0.00316143,0.0637544,0.104662,-0.000128384,0,0,0,0,0,0,0,0.360599,-33.1496,0.588087,25.7568,3.17108,1.42174,-0.0163725,
0.132473,-0.012593,0.209824,-1.94819,0.513073,0.15339,0.0134378,0.000517637,-0.0237168,0.00169907,0.00628234,0.0155026,0.0487355,-0.00101029,-6.6316e-05,-0.00596687,-6.2039e-05,0.00169458,-0.0191774,0.0304899,-0.000111607,2.8408,-1.74061,2.84831,-1.57505,1.88455,-0.0658384,-0.00368465,0.132119,0.00311928,0.20943,-1.9543,0.502935,0.112264,0.0142247,0.0189214,-0.0300454,0.0298334,-0.00316143,0.0637544,0.104662,-0.000128384,0,0,0,0,0,0,0,0.360599,-33.1496,0.588087,25.7568,3.17108,1.42174,-0.0163725,
0.133177,-0.0135607,0.210857,-1.94865,0.515029,0.156074,0.0134399,0.000517498,-0.0237715,0.00171738,0.00624865,0.0154357,0.0485346,-0.00100897,-8.69422e-05,-0.0342038,0.0114391,-0.0210545,-0.0418399,-0.12557,0.000824599,2.8408,-1.74061,2.84831,-1.57505,1.88455,-0.0658384,-0.00368465,0.132119,0.00311928,0.20943,-1.9543,0.502935,0.112264,0.0142247,0.0189214,-0.0300454,0.0298334,-0.00316143,0.0637544,0.104662,-0.000128384,0,0,0,0,0,0,0,0.360599,-33.1496,0.588087,25.7568,3.17108,1.42174,-0.0163725,
0.133177,-0.0135607,0.210857,-1.94865,0.515029,0.156074,0.0134399,0.000517387,-0.0238153,0.00173202,0.0062217,0.0153821,0.0483739,-0.00100792,-6.95537e-05,-0.027363,0.00915132,-0.0168436,-0.033472,-0.100456,0.000659679,2.84066,-1.75516,2.85643,-1.59969,1.88185,-0.0830078,-0.00358899,0.133029,0.00219737,0.210389,-1.95446,0.50517,0.115897,0.0142232,0.0297549,-0.020685,0.0258399,-0.00159884,0.0654558,0.104598,-8.46952e-05,1.35419,1.17004,-0.499184,0.195323,0.212676,-0.00800961,0.00546116,0.209842,-33.5979,0.26277,25.4593,3.15277,1.30913,-0.0026396,
0.133177,-0.0135607,0.210857,-1.94865,0.515029,0.156074,0.0134399,0.000517298,-0.0238503,0.00174373,0.00620014,0.0153393,0.0482453,-0.00100707,-5.5643e-05,-0.0218904,0.00732105,-0.0134749,-0.0267776,-0.0803646,0.000527744,2.84066,-1.75516,2.85643,-1.59969,1.88185,-0.0830078,-0.00358899,0.133029,0.00219737,0.210389,-1.95446,0.50517,0.115897,0.0142232,0.0297549,-0.020685,0.0258399,-0.00159884,0.0654558,0.104598,-8.46952e-05,0,0,0,0,0,0,0,0.209842,-33.5979,0.26277,25.4593,3.15277,1.30913,-0.0026396,
0.134152,-0.0138698,0.211903,-1.94918,0.516765,0.157515,0.0134669,0.000517098,-0.0239042,0.00175952,0.00616803,0.0152504,0.0480797,-0.00100587,-0.000124652,-0.0336366,0.00986961,-0.0200713,-0.0555352,-0.103523,0.000753082,2.84066,-1.75516,2.85643,-1.59969,1.88185,-0.0830078,-0.00358899,0.133029,0.00219737,0.210389,-1.95446,0.50517,0.115897,0.0142232,0.0297549,-0.020685,0.0258399,-0.00159884,0.0654558,0.104598,-8.46952e-05,0,0,0,0,0,0,0,0.209842,-33.5979,0.26277,25.4593,3.15277,1.30913,-0.0026396,
0.134152,-0.0138698,0.211903,-1.94918,0.516765,0.157515,0.0134669,0.000516939,-0.0239472,0.00177216,0.00614234,0.0151793,0.0479472,-0.0010049,-9.97219e-05,-0.0269093,0.00789569,-0.016057,-0.0444282,-0.0828183,0.000602465,2.84066,-1.75516,2.85643,-1.59969,1.88185,-0.0830078,-0.00358899,0.133029,0.00219737,0.210389,-1.95446,0.50517,0.115897,0.0142232,0.0297549,-0.020685,0.0258399,-0.00159884,0.0654558,0.104598,-8.46952e-05,0,0,0,0,0,0,0,0.209842,-33.5979,0.26277,25.4593,3.15277,1.30913,-0.0026396,
0.134152,-0.0138698,0.211903,-1.94918,0.516765,0.157515,0.0134669,0.000516811,-0.0239817,0.00178226,0.00612178,0.0151225,0.0478412,-0.00100413,-7.97775e-05,-0.0215275,0.00631655,-0.0128456,-0.0355426,-0.0662547,0.000481972,2.84054,-1.77763,2.86588,-1.62016,1.87909,-0.0979672,-0.00349424,0.133977,0.00113704,0.211326,-1.95465,0.50729,0.118938,0.0142218,0.025381,-0.0416218,0.0349041,-0.00975018,0.0573518,0.0902436,-0.000751876,-0.546744,-2.6171,1.13302,-1.01892,-1.01301,-1.79426,-0.0833976,-0.0440639,-33.0504,0.139784,25.7568,3.29925,1.42174,0.0101778,
0.134152,-0.0138698,0.211903,-1.94918,0.516765,0.157515,0.0134669,0.000516709,-0.0240092,0.00179035,0.00610534,0.015077,0.0477564,-0.00100352,-6.3822e-05,-0.017222,0.00505324,-0.0102765,-0.028434,-0.0530037,0.000385578,2.84054,-1.77763,2.86588,-1.62016,1.87909,-0.0979672,-0.00349424,0.133977,0.00113704,0.211326,-1.95465,0.50729,0.118938,0.0142218,0.025381,-0.0416218,0.0349041,-0.00975018,0.0573518,0.0902436,-0.000751876,0,0,0,0,0,0,0,-0.0440639,-33.0504,0.139784,25.7568,3.29925,1.42174,0.0101778,
0.135186,-0.0147307,0.212977,-1.94962,0.518203,0.157762,0.0135017,0.000516359,-0.0240981,0.00181324,0.00608214,0.0149667,0.0476623,-0.00100271,-0.000218719,-0.0555433,0.0143072,-0.0145017,-0.068902,-0.0587561,0.000500907,2.84054,-1.77763,2.86588,-1.62016,1.87909,-0.0979672,-0.00349424,0.133977,0.00113704,0.211326,-1.95465,0.50729,0.118938,0.0142218,0.025381,-0.0416218,0.0349041,-0.00975018,0.0573518,0.0902436,-0.000751876,0,0,0,0,0,0,0,-0.0440639,-33.0504,0.139784,25.7568,3.29925,1.42174,0.0101778,
0.135186,-0.0147307,0.212977,-1.94962,0.518203,0.157762,0.0135017,0.000516079,-0.0241692,0.00183155,0.00606358,0.0148785,0.0475871,-0.00100207,-0.000174975,-0.0444346,0.0114458,-0.0116014,-0.0551216,-0.0470049,0.000400726,2.84054,-1.77763,2.86588,-1.62016,1.87909,-0.0979672,-0.00349424,0.133977,0.00113704,0.211326,-1.95465,0.50729,0.118938,0.0142218,0.025381,-0.0416218,0.0349041,-0.00975018,0.0573518,0.0902436,-0.000751876,0,0,0,0,0,0,0,-0.0440639,-33.0504,0.139784,25.7568,3.29925,1.42174,0.0101778,
0.135186,-0.0147307,0.212977,-1.94962,0.518203,0.157762,0.0135017,0.000515855,-0.024226,0.0018462,0.00604873,0.014808,0.047527,-0.00100156,-0.00013998,-0.0355477,0.00915661,-0.00928109,-0.0440973,-0.0376039,0.00032058,2.84007,-1.79642,2.87351,-1.64271,1.87613,-0.11272,-0.00341218,0.134686,0.00024507,0.212431,-1.9548,0.509363,0.121862,0.0142263,0.0207951,-0.0171222,0.0330763,0.000169814,0.0556226,0.0930606,0.00118395,-0.573233,3.06246,-0.228468,1.24,-0.216144,0.352121,0.241978,0.384403,-32.9472,0.43733,25.6815,3.34228,1.43548,-0.0301054,
0.135186,-0.0147307,0.212977,-1.94962,0.518203,0.157762,0.0135017,0.000515676,-0.0242715,0.00185792,0.00603685,0.0147515,0.0474788,-0.00100115,-0.000111984,-0.0284382,0.00732529,-0.00742487,-0.0352778,-0.0300831,0.000256464,2.84007,-1.79642,2.87351,-1.64271,1.87613,-0.11272,-0.00341218,0.134686,0.00024507,0.212431,-1.9548,0.509363,0.121862,0.0142263,0.0207951,-0.0171222,0.0330763,0.000169814,0.0556226,0.0930606,0.00118395,0,0,0,0,0,0,0,0.384403,-32.9472,0.43733,25.6815,3.34228,1.43548,-0.0301054,
0.135745,-0.0147146,0.213935,-1.95015,0.519587,0.159046,0.0135366,0.000515445,-0.0243168,0.0018678,0.00601851,0.0146713,0.0474149,-0.00100053,-0.000144112,-0.0282979,0.00617393,-0.0114635,-0.0501389,-0.039988,0.000386912,0.0605771,-2.25676,0.064,0.888797,0.137437,0.709713,-0.0113006,0.134686,0.00024507,0.212431,-1.9548,0.509363,0.121862,0.0142263,0.0207951,-0.0171222,0.0330763,0.000169814,0.0556226,0.0930606,0.00118395,0,0,0,0,0,0,0,0.384403,-32.9472,0.43733,25.6815,3.34228,1.43548,-0.0301054,
0.135745,-0.0147146,0.213935,-1.95015,0.519587,0.159046,0.0135366,0.000515261,-0.024353,0.0018757,0.00600383,0.0146071,0.0473637,-0.00100004,-0.000115289,-0.0226383,0.00493914,-0.00917079,-0.0401112,-0.0319904,0.00030953,0.0605771,-2.25676,0.064,0.888797,0.137437,0.709713,-0.0113006,0.134686,0.00024507,0.212431,-1.9548,0.509363,0.121862,0.0142263,0.0207951,-0.0171222,0.0330763,0.000169814,0.0556226,0.0930606,0.00118395,0,0,0,0,0,0,0,0.384403,-32.9472,0.43733,25.6815,3.34228,1.43548,-0.0301054,
0.135745,-0.0147146,0.213935,-1.95015,0.519587,0.159046,0.0135366,0.000515113,-0.024382,0.00188203,0.00599209,0.0145558,0.0473227,-0.00099964,-9.22315e-05,-0.0181106,0.00395131,-0.00733663,-0.0320889,-0.0255923,0.000247624,0.0612834,-2.27106,0.0713962,0.870651,0.135005,0.697203,-0.0112298,0.135542,-0.000485595,0.213281,-1.95495,0.511387,0.124581,0.0142262,0.0357711,-0.0172421,0.0205849,-0.00835918,0.0622601,0.0787524,0.0014632,1.872,-0.0149864,-1.56142,-1.06612,0.829686,-1.78853,0.0349068,0.134464,-33.1972,0.211195,25.3323,3.32946,1.40893,-0.0301054,
0.135732,-0.0141274,0.213889,-1.95029,0.519242,0.157907,0.0135606,0.000514934,-0.0243865,0.00187617,0.006003,0.0145123,0.0474542,-0.00100021,-0.000112213,-0.00278901,-0.00366138,0.00681445,-0.0271814,0.0821927,-0.000356748,0.0612834,-2.27106,0.0713962,0.870651,0.135005,0.697203,-0.0112298,0.135542,-0.000485595,0.213281,-1.95495,0.511387,0.124581,0.0142262,0.0357711,-0.0172421,0.0205849,-0.00835918,0.0622601,0.0787524,0.0014632,0,0,0,0,0,0,0,0.134464,-33.1972,0.211195,25.3323,3.32946,1.40893,-0.0301054,
0.136664,-0.0150859,0.214865,-1.95059,0.521215,0.160005,0.0135575,0.000514691,-0.0244398,0.00188997,0.00597968,0.0144177,0.0473585,-0.000999391,-0.000151638,-0.0333302,0.00862472,-0.0145754,-0.0591452,-0.0598036,0.000512003,0.0612834,-2.27106,0.0713962,0.870651,0.135005,0.697203,-0.0112298,0.135542,-0.000485595,0.213281,-1.95495,0.511387,0.124581,0.0142262,0.0357711,-0.0172421,0.0205849,-0.00835918,0.0622601,0.0787524,0.0014632,0,0,0,0,0,0,0,0.134464,-33.1972,0.211195,25.3323,3.32946,1.40893,-0.0301054,
0.136668,-0.0152833,0.214881,-1.95054,0.521327,0.160379,0.0135495,0.000514517,-0.0244889,0.00190469,0.00595432,0.0143428,0.0472277,-0.000998443,-0.000108811,-0.0306806,0.00920245,-0.0158482,-0.046765,-0.0817881,0.000593098,0.0612834,-2.27106,0.0713962,0.870651,0.135005,0.697203,-0.0112298,0.135542,-0.000485595,0.213281,-1.95495,0.511387,0.124581,0.0142262,0.0357711,-0.0172421,0.0205849,-0.00835918,0.0622601,0.0787524,0.0014632,0,0,0,0,0,0,0,0.134464,-33.1972,0.211195,25.3323,3.32946,1.40893,-0.0301054,
0.136672,-0.0154811,0.214897,-1.95049,0.521439,0.16075,0.0135416,0.000514397,-0.0245346,0.00192016,0.00592736,0.0142838,0.0470689,-0.000997391,-7.46923e-05,-0.028589,0.00966789,-0.016851,-0.0368877,-0.099248,0.000657379,0.0606188,-2.28493,0.078857,0.846296,0.134432,0.679895,-0.0111071,0.136064,-0.00136805,0.214127,-1.95511,0.512435,0.127694,0.0142248,0.00829454,-0.0349681,0.0201188,-0.0041886,-0.00561004,0.123014,0.000257163,-3.43457,-2.21576,-0.0582726,0.521322,-8.48377,5.53272,-0.150755,-2.6585,-34.0978,-2.51036,27.1255,2.81677,2.12487,-0.0163725,
0.136654,-0.0157936,0.215219,-1.95079,0.520904,0.162101,0.0135884,0.000514419,-0.0245841,0.00193862,0.00589382,0.0143077,0.0468056,-0.000995953,1.32717e-05,-0.0309356,0.0115364,-0.0209638,0.0149324,-0.164573,0.00089878,0.0606188,-2.28493,0.078857,0.846296,0.134432,0.679895,-0.0111071,0.136064,-0.00136805,0.214127,-1.95511,0.512435,0.127694,0.0142248,0.00829454,-0.0349681,0.0201188,-0.0041886,-0.00561004,0.123014,0.000257163,0,0,0,0,0,0,0,-2.6585,-34.0978,-2.51036,27.1255,2.81677,2.12487,-0.0163725,
0.136659,-0.0159921,0.215235,-1.95075,0.521019,0.162465,0.0135805,0.000514454,-0.0246303,0.00195709,0.00586038,0.0143273,0.0465416,-0.000994513,2.23212e-05,-0.0288781,0.011546,-0.0208984,0.0122679,-0.164999,0.000899899,0.0606188,-2.28493,0.078857,0.846296,0.134432,0.679895,-0.0111071,0.136064,-0.00136805,0.214127,-1.95511,0.512435,0.127694,0.0142248,0.00829454,-0.0349681,0.0201188,-0.0041886,-0.00561004,0.123014,0.000257163,0,0,0,0,0,0,0,-2.6585,-34.0978,-2.51036,27.1255,2.81677,2.12487,-0.0163725,
0.136663,-0.0161909,0.215251,-1.9507,0.521134,0.162827,0.0135726,0.000514501,-0.024674,0.00197558,0.00582705,0.0143435,0.0462772,-0.000993072,2.94153e-05,-0.02726,0.0115571,-0.020831,0.0101102,-0.165216,0.000900211,0.0606188,-2.28493,0.078857,0.846296,0.134432,0.679895,-0.0111071,0.136064,-0.00136805,0.214127,-1.95511,0.512435,0.127694,0.0142248,0.00829454,-0.0349681,0.0201188,-0.0041886,-0.00561004,0.123014,0.000257163,0,0,0,0,0,0,0,-2.6585,-34.0978,-2.51036,27.1255,2.81677,2.12487,-0.0163725,
