xiao-wang007/linearmpc_panda/paper_data/panda_torque_PD_controller_opt_time_to_start_no_torque_ff/4/trajectory.csv
Commanded Joint 0 Position,Commanded Joint 1 Position,Commanded Joint 2 Position,Commanded Joint 3 Position,Commanded Joint 4 Position,Commanded Joint 5 Position,Commanded Joint 6 Position,Commanded Joint 0 Velocity,Commanded Joint 1 Velocity,Commanded Joint 2 Velocity,Commanded Joint 3 Velocity,Commanded Joint 4 Velocity,Commanded Joint 5 Velocity,Commanded Joint 6 Velocity,Commanded Joint 0 Acceleration,Commanded Joint 1 Acceleration,Commanded Joint 2 Acceleration,Commanded Joint 3 Acceleration,Commanded Joint 4 Acceleration,Commanded Joint 5 Acceleration,Commanded Joint 6 Acceleration,Commanded Joint 0 Torque,Commanded Joint 1 Torque,Commanded Joint 2 Torque,Commanded Joint 3 Torque,Commanded Joint 4 Torque,Commanded Joint 5 Torque,Commanded Joint 6 Torque,Actual Joint 0 Position,Actual Joint 1 Position,Actual Joint 2 Position,Actual Joint 3 Position,Actual Joint 4 Position,Actual Joint 5 Position,Actual Joint 6 Position,Actual Joint 0 Velocity,Actual Joint 1 Velocity,Actual Joint 2 Velocity,Actual Joint 3 Velocity,Actual Joint 4 Velocity,Actual Joint 5 Velocity,Actual Joint 6 Velocity,Actual Joint 0 Acceleration,Actual Joint 1 Acceleration,Actual Joint 2 Acceleration,Actual Joint 3 Acceleration,Actual Joint 4 Acceleration,Actual Joint 5 Acceleration,Actual Joint 6 Acceleration,Actual Joint 0 Torque,Actual Joint 1 Torque,Actual Joint 2 Torque,Actual Joint 3 Torque,Actual Joint 4 Torque,Actual Joint 5 Torque,Actual Joint 6 Torque,
0.0827764,0.0032195,-0.0919107,-1.90671,0.0164899,0.363752,-0.0169899,0.000446282,0.0235444,0.000411404,-0.0329839,-0.00372456,0.0580597,-0.000407183,0.278926,14.7153,0.257127,-20.6149,-2.32785,36.2873,-0.254489,0,0,0,0,0,0,0,0.0827294,0.00192931,-0.0919507,-1.90373,0.0166565,0.357545,-0.0169397,0.000959592,-0.000395785,0.00401143,-5.37688e-05,-0.00464715,-0.000691432,0.00078008,0,0,0,0,0,0,0,-0.0440639,-35.4942,-0.16173,27.2287,0.795284,3.13286,0.00376909,
0.0827616,0.00192806,-0.0919184,-1.90373,0.0166486,0.357543,-0.016941,0.000551984,0.0188424,0.000524255,-0.0263779,-0.00286052,0.0464701,-0.000333362,0.066064,-2.93873,0.0705318,4.12874,0.540023,-7.24352,0.0461383,0,0,0,0,0,0,0,0.0827295,0.00200769,-0.0919412,-1.9038,0.0166512,0.357546,-0.0169413,0.00157736,0.00415879,0.00244405,-0.000653544,-0.00563924,0.000172491,0.000674465,0.0772211,0.569321,-0.195922,-0.0749719,-0.124012,0.10799,-0.0132019,-0.0440639,-35.3197,-0.16173,27.2287,0.795284,3.15941,0.00376909,
0.0827675,0.00192864,-0.0919124,-1.90373,0.0166552,0.357545,-0.0169412,0.00059097,0.0150885,0.000569483,-0.0210921,-0.00212265,0.0372199,-0.000271621,0.0243657,-2.34623,0.0282679,3.30365,0.461168,-5.78136,0.038588,0,0,0,0,0,0,0,0.0827295,0.00200769,-0.0919412,-1.9038,0.0166512,0.357546,-0.0169413,0.00157736,0.00415879,0.00244405,-0.000653544,-0.00563924,0.000172491,0.000674465,0,0,0,0,0,0,0,-0.0440639,-35.3197,-0.16173,27.2287,0.795284,3.15941,0.00376909,
0.0827722,0.00192939,-0.0919077,-1.90373,0.0166621,0.357547,-0.0169414,0.000588848,0.0120896,0.000572698,-0.0168628,-0.0015258,0.0298339,-0.000220666,-0.00132605,-1.87431,0.00200882,2.64329,0.373034,-4.61629,0.0318468,0,0,0,0,0,0,0,0.0827295,0.00200769,-0.0919412,-1.9038,0.0166512,0.357546,-0.0169413,0.00157736,0.00415879,0.00244405,-0.000653544,-0.00563924,0.000172491,0.000674465,0,0,0,0,0,0,0,-0.0440639,-35.3197,-0.16173,27.2287,0.795284,3.15941,0.00376909,
0.0827758,0.00193024,-0.091904,-1.90373,0.0166685,0.35755,-0.0169415,0.000562174,0.0096929,0.000550523,-0.0134791,-0.0010596,0.0239343,-0.000178969,-0.0166714,-1.49793,-0.0138593,2.11485,0.291371,-3.6872,0.0260603,0,0,0,0,0,0,0,0.0827295,0.00200769,-0.0919412,-1.9038,0.0166512,0.357546,-0.0169413,0.00157736,0.00415879,0.00244405,-0.000653544,-0.00563924,0.000172491,0.000674465,0,0,0,0,0,0,0,-0.0440639,-35.3197,-0.16173,27.2287,0.795284,3.15941,0.00376909,
0.0825373,0.00205378,-0.0921337,-1.90363,0.0249387,0.352727,-0.0169846,-0.000226534,0.00760959,-0.000224417,-0.0103834,0.0509168,-0.0121422,-0.000199602,-0.492942,-1.30207,-0.484338,1.93479,32.4852,-22.5478,-0.0128953,0,0,0,0,0,0,0,0.082733,0.00212539,-0.0919429,-1.90411,0.016664,0.357754,-0.0169468,-0.00328211,0.00145943,0.00237216,-0.0176359,-0.00746646,0.0116978,-0.000836898,-0.607434,-0.33742,-0.00898675,-2.1228,-0.228403,1.44066,-0.18892,-0.0440639,-33.6971,-0.137926,25.7568,0.709225,2.84722,0.0577852,
0.0825211,0.0020474,-0.0921494,-1.90362,0.0270586,0.35142,-0.0169861,-0.000586086,0.0059281,-0.000573199,-0.0080992,0.0937303,-0.0423661,-0.000197345,-0.22472,-1.05093,-0.217988,1.42762,26.7584,-18.8899,0.00141042,0,0,0,0,0,0,0,0.082733,0.00212539,-0.0919429,-1.90411,0.016664,0.357754,-0.0169468,-0.00328211,0.00145943,0.00237216,-0.0176359,-0.00746646,0.0116978,-0.000836898,0,0,0,0,0,0,0,-0.0440639,-33.6971,-0.137926,25.7568,0.709225,2.84722,0.0577852,
0.0825148,0.00204192,-0.0921554,-1.90362,0.0292011,0.350081,-0.0169873,-0.000627447,0.00460543,-0.000606826,-0.00642502,0.128547,-0.0673816,-0.000186217,-0.0258506,-0.826665,-0.0210174,1.04637,21.7605,-15.6347,0.00695538,0,0,0,0,0,0,0,0.082733,0.00212539,-0.0919429,-1.90411,0.016664,0.357754,-0.0169468,-0.00328211,0.00145943,0.00237216,-0.0176359,-0.00746646,0.0116978,-0.000836898,0,0,0,0,0,0,0,-0.0440639,-33.6971,-0.137926,25.7568,0.709225,2.84722,0.0577852,
0.0824345,0.00211215,-0.0922404,-1.90342,0.0426776,0.337743,-0.0170551,7.4255e-05,0.00269484,0.000107861,-0.0039835,0.263108,-0.181364,-0.000227867,0.438564,-1.19412,0.44668,1.52595,84.1003,-71.239,-0.0260314,0,0,0,0,0,0,0,0.082733,0.00212539,-0.0919429,-1.90411,0.016664,0.357754,-0.0169468,-0.00328211,0.00145943,0.00237216,-0.0176359,-0.00746646,0.0116978,-0.000836898,0,0,0,0,0,0,0,-0.0440639,-33.6971,-0.137926,25.7568,0.709225,2.84722,0.0577852,
0.0825036,0.00207792,-0.0921704,-1.90341,0.0491854,0.33248,-0.0170564,0.00178537,0.00130014,0.00183528,-0.00302878,0.373181,-0.276673,-0.000215035,1.06945,-0.871684,1.07964,0.596698,68.7958,-59.5681,0.00801993,0,0,0,0,0,0,0,0.082733,0.00212539,-0.0919429,-1.90411,0.016664,0.357754,-0.0169468,-0.00328211,0.00145943,0.00237216,-0.0176359,-0.00746646,0.0116978,-0.000836898,0,0,0,0,0,0,0,-0.0440639,-33.6971,-0.137926,25.7568,0.709225,2.84722,0.0577852,
0.0826128,0.00205379,-0.0920603,-1.90344,0.0556965,0.32714,-0.0170568,0.00415903,0.000436805,0.00422139,-0.00304351,0.461323,-0.354835,-0.000182209,1.48354,-0.539585,1.49132,-0.0092037,55.0887,-48.8516,0.0205163,0,0,0,0,0,0,0,0.082727,0.00240409,-0.0919448,-1.90452,0.0170857,0.357788,-0.0169469,-0.000435792,0.0141424,-0.000669845,-0.0132332,0.0536244,0.0011895,-0.00265958,0.35579,1.58537,-0.380251,0.550341,7.63636,-1.31354,-0.227835,0.0551182,-35.3713,-0.0109729,27.2009,1.31439,2.91405,0.0843355,
0.0827557,0.00204154,-0.0919166,-1.90348,0.0621545,0.321785,-0.0170569,0.00690106,4.31993e-05,0.0069709,-0.00365588,0.530506,-0.417749,-0.000148703,1.71377,-0.246004,1.71844,-0.382734,43.2396,-39.3209,0.020941,0,0,0,0,0,0,0,0.082727,0.00240409,-0.0919448,-1.90452,0.0170857,0.357788,-0.0169469,-0.000435792,0.0141424,-0.000669845,-0.0132332,0.0536244,0.0011895,-0.00265958,0,0,0,0,0,0,0,0.0551182,-35.3713,-0.0109729,27.2009,1.31439,2.91405,0.0843355,
0.0849029,0.0022221,-0.0897974,-1.90451,0.0455965,0.322691,-0.0167127,0.0219996,-0.00435023,0.0219767,-0.0095796,0.608634,-0.565427,0.000208801,9.43658,-2.74589,9.37861,-3.70232,48.8301,-92.2989,0.22344,0,0,0,0,0,0,0,0.082727,0.00240409,-0.0919448,-1.90452,0.0170857,0.357788,-0.0169469,-0.000435792,0.0141424,-0.000669845,-0.0132332,0.0536244,0.0011895,-0.00265958,0,0,0,0,0,0,0,0.0551182,-35.3713,-0.0109729,27.2009,1.31439,2.91405,0.0843355,
0.0856355,0.00202918,-0.0890674,-1.90489,0.0533062,0.313129,-0.0166998,0.0359144,-0.00830308,0.0358322,-0.0171459,0.67965,-0.691384,0.000491533,8.69676,-2.47053,8.65972,-4.72892,44.385,-78.7229,0.176708,0,0,0,0,0,0,0,0.082727,0.00240409,-0.0919448,-1.90452,0.0170857,0.357788,-0.0169469,-0.000435792,0.0141424,-0.000669845,-0.0132332,0.0536244,0.0011895,-0.00265958,0,0,0,0,0,0,0,0.0551182,-35.3713,-0.0109729,27.2009,1.31439,2.91405,0.0843355,
0.0864251,0.00183606,-0.08828,-1.90537,0.0612547,0.303618,-0.016686,0.0484708,-0.0114706,0.0483494,-0.0258663,0.742434,-0.790888,0.000738115,7.84777,-1.97968,7.82324,-5.45029,39.24,-62.1903,0.154114,0,0,0,0,0,0,0,0.0825462,0.00266006,-0.0921373,-1.90451,0.0259274,0.354269,-0.0169465,-0.00991807,2.12562e-05,-0.00885946,0.00621936,0.463871,-0.22295,-0.0024152,-1.18529,-1.76514,-1.0237,2.43157,51.2809,-28.0174,0.0305476,1.83246,-35.2443,1.81398,25.6061,2.40753,1.6076,0.050461,
0.0872575,0.00165604,-0.0874496,-1.90594,0.0693711,0.294373,-0.0166714,0.0595868,-0.013677,0.0594391,-0.0348966,0.796857,-0.863821,0.00095451,6.9475,-1.37899,6.93105,-5.64394,34.014,-45.5829,0.135247,0,0,0,0,0,0,0,0.0825462,0.00266006,-0.0921373,-1.90451,0.0259274,0.354269,-0.0169465,-0.00991807,2.12562e-05,-0.00885946,0.00621936,0.463871,-0.22295,-0.0024152,0,0,0,0,0,0,0,1.83246,-35.2443,1.81398,25.6061,2.40753,1.6076,0.050461,
0.0861157,0.00203589,-0.0885297,-1.90625,0.0577741,0.317582,-0.0168582,0.0736011,-0.0139281,0.0735842,-0.0431275,0.824066,-0.923103,0.000927187,8.75894,-0.156936,8.8407,-5.14431,17.0056,-37.0517,-0.0170766,0,0,0,0,0,0,0,0.0825462,0.00266006,-0.0921373,-1.90451,0.0259274,0.354269,-0.0169465,-0.00991807,2.12562e-05,-0.00885946,0.00621936,0.463871,-0.22295,-0.0024152,0,0,0,0,0,0,0,1.83246,-35.2443,1.81398,25.6061,2.40753,1.6076,0.050461,
0.087234,0.00193925,-0.0874081,-1.90695,0.0655349,0.307912,-0.016853,0.0868402,-0.0135586,0.0869066,-0.0520306,0.853274,-0.980249,0.000871003,8.27443,0.230889,8.32649,-5.56442,18.2549,-35.7161,-0.0351149,0,0,0,0,0,0,0,0.0825462,0.00266006,-0.0921373,-1.90451,0.0259274,0.354269,-0.0169465,-0.00991807,2.12562e-05,-0.00885946,0.00621936,0.463871,-0.22295,-0.0024152,0,0,0,0,0,0,0,1.83246,-35.2443,1.81398,25.6061,2.40753,1.6076,0.050461,
0.0884099,0.00186612,-0.0862296,-1.90778,0.0735248,0.298359,-0.0168458,0.0988692,-0.0126751,0.0989873,-0.0622506,0.882367,-1.023,0.000876474,7.51812,0.552222,7.55046,-6.38747,18.1831,-26.7215,0.00341894,0,0,0,0,0,0,0,0.0823255,0.00259462,-0.0923226,-1.90428,0.045791,0.339588,-0.0169447,0.00141348,-0.00558851,0.00350156,0.00693621,0.683519,-0.602336,0.00287877,1.41644,-0.701221,1.54513,0.0896068,27.4559,-47.4233,0.661746,3.78437,-34.669,3.73811,23.7137,2.56042,-0.0302828,0.0641939,
0.0896251,0.00182602,-0.0850123,-1.90871,0.0816833,0.289196,-0.0168365,0.109474,-0.0111425,0.109622,-0.0729306,0.909854,-1.04748,0.000934682,6.62798,0.95784,6.64671,-6.67504,17.1793,-15.2982,0.03638,0,0,0,0,0,0,0,0.0823255,0.00259462,-0.0923226,-1.90428,0.045791,0.339588,-0.0169447,0.00141348,-0.00558851,0.00350156,0.00693621,0.683519,-0.602336,0.00287877,0,0,0,0,0,0,0,3.78437,-34.669,3.73811,23.7137,2.56042,-0.0302828,0.0641939,
0.0867086,0.00126508,-0.0879457,-1.90841,0.0799598,0.298787,-0.01701,0.11753,-0.0151132,0.117559,-0.0856425,0.9175,-1.07529,0.000155126,5.03482,-2.48164,4.96067,-7.94493,4.77916,-17.3834,-0.487222,0,0,0,0,0,0,0,0.0823255,0.00259462,-0.0923226,-1.90428,0.045791,0.339588,-0.0169447,0.00141348,-0.00558851,0.00350156,0.00693621,0.683519,-0.602336,0.00287877,0,0,0,0,0,0,0,3.78437,-34.669,3.73811,23.7137,2.56042,-0.0302828,0.0641939,
0.0879838,0.00103475,-0.0866745,-1.90965,0.0877956,0.28948,-0.0170306,0.125902,-0.0178488,0.125828,-0.0992921,0.929895,-1.0929,-0.000392331,5.23276,-1.70976,5.16808,-8.53098,7.74653,-11.0031,-0.342161,0,0,0,0,0,0,0,0.0823255,0.00259462,-0.0923226,-1.90428,0.045791,0.339588,-0.0169447,0.00141348,-0.00558851,0.00350156,0.00693621,0.683519,-0.602336,0.00287877,0,0,0,0,0,0,0,3.78437,-34.669,3.73811,23.7137,2.56042,-0.0302828,0.0641939,
0.0893127,0.000832332,-0.0853497,-1.91099,0.0958227,0.280659,-0.0170454,0.133946,-0.0193394,0.133782,-0.112982,0.944594,-1.09485,-0.000681933,5.02751,-0.931664,4.97118,-8.55606,9.18734,-1.2166,-0.181001,0,0,0,0,0,0,0,0.0825245,0.00219167,-0.0918292,-1.9046,0.0714752,0.314302,-0.0169456,0.0268682,-0.0161294,0.0273612,-0.0212982,0.806728,-0.814603,-0.000787159,3.18184,-1.31761,2.98246,-3.52931,15.4012,-26.5333,-0.458241,5.76404,-33.6495,5.56306,23.5153,2.58422,0.135428,0.0440523,
0.0906773,0.000662189,-0.0839895,-1.91241,0.103992,0.272484,-0.0170549,0.14127,-0.0197251,0.14103,-0.125832,0.959898,-1.08025,-0.000783086,4.57774,-0.241061,4.5298,-8.03127,9.56473,9.11995,-0.0632209,0,0,0,0,0,0,0,0.0825245,0.00219167,-0.0918292,-1.9046,0.0714752,0.314302,-0.0169456,0.0268682,-0.0161294,0.0273612,-0.0212982,0.806728,-0.814603,-0.000787159,0,0,0,0,0,0,0,5.76404,-33.6495,5.56306,23.5153,2.58422,0.135428,0.0440523,
0.0876158,0.00096517,-0.0867029,-1.91059,0.107373,0.272357,-0.0170895,0.145752,-0.0201851,0.145663,-0.138747,0.961078,-1.08268,-0.00140998,2.80068,-0.287497,2.89579,-8.07228,0.737414,-1.517,-0.391808,0,0,0,0,0,0,0,0.0825245,0.00219167,-0.0918292,-1.9046,0.0714752,0.314302,-0.0169456,0.0268682,-0.0161294,0.0273612,-0.0212982,0.806728,-0.814603,-0.000787159,0,0,0,0,0,0,0,5.76404,-33.6495,5.56306,23.5153,2.58422,0.135428,0.0440523,
0.088992,0.000834261,-0.0853232,-1.91222,0.115298,0.264165,-0.0171155,0.151005,-0.0194208,0.151024,-0.151934,0.966979,-1.07096,-0.00177717,3.28344,0.477686,3.35059,-8.24135,3.68843,7.32721,-0.229494,0,0,0,0,0,0,0,0.0825245,0.00219167,-0.0918292,-1.9046,0.0714752,0.314302,-0.0169456,0.0268682,-0.0161294,0.0273612,-0.0212982,0.806728,-0.814603,-0.000787159,0,0,0,0,0,0,0,5.76404,-33.6495,5.56306,23.5153,2.58422,0.135428,0.0440523,
0.0904124,0.000748973,-0.0838995,-1.91394,0.123374,0.256658,-0.0171326,0.156316,-0.0176689,0.15641,-0.164361,0.975492,-1.04444,-0.00184848,3.31904,1.09497,3.36634,-7.76686,5.3206,16.5731,-0.0445713,0,0,0,0,0,0,0,0.0839856,0.00138777,-0.0901816,-1.90654,0.100193,0.284293,-0.0169487,0.0539756,-0.0316355,0.0694815,-0.0951449,0.892066,-0.919765,-0.00145128,3.38842,-1.93826,5.26503,-9.23083,10.6672,-13.1452,-0.0830145,5.60932,-32.975,5.41231,23.3646,2.29766,0.904471,0.0706026,
0.0897118,-0.000232087,-0.0844594,-1.91524,0.137774,0.246979,-0.017115,0.159458,-0.0200419,0.159464,-0.182552,0.977471,-0.99772,-0.0021848,1.964,-1.48311,1.90859,-11.3696,1.23691,29.2006,-0.210197,0,0,0,0,0,0,0,0.0839856,0.00138777,-0.0901816,-1.90654,0.100193,0.284293,-0.0169487,0.0539756,-0.0316355,0.0694815,-0.0951449,0.892066,-0.919765,-0.00145128,0,0,0,0,0,0,0,5.60932,-32.975,5.41231,23.3646,2.29766,0.904471,0.0706026,
0.0911354,-0.000423125,-0.0830388,-1.91734,0.145795,0.241244,-0.0171372,0.163157,-0.0208094,0.163086,-0.198421,0.982491,-0.94156,-0.00230115,2.31163,-0.479746,2.26382,-9.91826,3.1373,35.0998,-0.0727207,0,0,0,0,0,0,0,0.0839856,0.00138777,-0.0901816,-1.90654,0.100193,0.284293,-0.0169487,0.0539756,-0.0316355,0.0694815,-0.0951449,0.892066,-0.919765,-0.00145128,0,0,0,0,0,0,0,5.60932,-32.975,5.41231,23.3646,2.29766,0.904471,0.0706026,
0.0925875,-0.000576572,-0.0815899,-1.91946,0.153921,0.236275,-0.01715,0.166826,-0.0204837,0.16669,-0.211705,0.989148,-0.877461,-0.00216195,2.29349,0.203574,2.25283,-8.30263,4.16082,40.0616,0.0870024,0,0,0,0,0,0,0,0.0839856,0.00138777,-0.0901816,-1.90654,0.100193,0.284293,-0.0169487,0.0539756,-0.0316355,0.0694815,-0.0951449,0.892066,-0.919765,-0.00145128,0,0,0,0,0,0,0,5.60932,-32.975,5.41231,23.3646,2.29766,0.904471,0.0706026,
0.0940536,-0.000700337,-0.080127,-1.92158,0.162125,0.232057,-0.0171522,0.170114,-0.0194811,0.169924,-0.222383,0.996432,-0.807415,-0.00178485,2.05502,0.626636,2.02109,-6.67365,4.55207,43.7787,0.235683,0,0,0,0,0,0,0,0.0867823,0.000703521,-0.0871291,-1.91069,0.130917,0.251736,-0.0169454,0.0982484,-0.0130327,0.106742,-0.148626,0.960758,-0.947077,-0.000786468,5.5341,2.32535,4.65751,-6.68517,8.58656,-3.41407,0.0831009,3.73279,-32.7251,3.51198,24.039,1.71722,2.05804,0.0376436,
0.0931378,-0.000196674,-0.0807543,-1.92124,0.170152,0.225398,-0.0170176,0.171581,-0.0179157,0.171483,-0.234158,0.998107,-0.743228,-0.00146178,0.91672,0.978351,0.974092,-7.3595,1.04723,40.1168,0.201919,0,0,0,0,0,0,0,0.0867823,0.000703521,-0.0871291,-1.91069,0.130917,0.251736,-0.0169454,0.0982484,-0.0130327,0.106742,-0.148626,0.960758,-0.947077,-0.000786468,0,0,0,0,0,0,0,3.73279,-32.7251,3.51198,24.039,1.71722,2.05804,0.0376436,
0.0945806,-0.00025686,-0.0793096,-1.92349,0.17827,0.22217,-0.0170106,0.173333,-0.0158373,0.173302,-0.243575,1.00144,-0.675281,-0.000995464,1.09527,1.29905,1.13714,-5.88532,2.08498,42.4675,0.291451,0,0,0,0,0,0,0,0.0867823,0.000703521,-0.0871291,-1.91069,0.130917,0.251736,-0.0169454,0.0982484,-0.0130327,0.106742,-0.148626,0.960758,-0.947077,-0.000786468,0,0,0,0,0,0,0,3.73279,-32.7251,3.51198,24.039,1.71722,2.05804,0.0376436,
0.0960323,-0.000291025,-0.0778562,-1.92573,0.18645,0.219565,-0.0169941,0.174959,-0.0135239,0.174977,-0.250706,1.00567,-0.605333,-0.000384206,1.01592,1.44584,1.04677,-4.45687,2.63924,43.7172,0.382036,0,0,0,0,0,0,0,0.0867823,0.000703521,-0.0871291,-1.91069,0.130917,0.251736,-0.0169454,0.0982484,-0.0130327,0.106742,-0.148626,0.960758,-0.947077,-0.000786468,0,0,0,0,0,0,0,3.73279,-32.7251,3.51198,24.039,1.71722,2.05804,0.0376436,
0.0974824,-0.000305281,-0.0764045,-1.92793,0.194677,0.217538,-0.0169665,0.17622,-0.0111756,0.176275,-0.255743,1.01019,-0.53495,0.000382506,0.788103,1.46773,0.811167,-3.14801,2.82675,43.9892,0.479195,0,0,0,0,0,0,0,0.0867823,0.000703521,-0.0871291,-1.91069,0.130917,0.251736,-0.0169454,0.0982484,-0.0130327,0.106742,-0.148626,0.960758,-0.947077,-0.000786468,0,0,0,0,0,0,0,3.73279,-32.7251,3.51198,24.039,1.71722,2.05804,0.0376436,
0.098,-0.000333317,-0.076161,-1.9305,0.203339,0.207774,-0.0168787,0.177726,-0.0106233,0.177753,-0.268238,1.0105,-0.470664,0.00103266,0.941498,0.345166,0.923835,-7.80977,0.195198,40.1788,0.406348,0,0,0,0,0,0,0,0.0910387,0.000233455,-0.0831207,-1.91786,0.163514,0.223023,-0.016942,0.153276,-0.00234978,0.123064,-0.238162,0.97573,-0.736128,-6.11998e-06,6.87849,1.33536,2.04034,-11.1919,1.87145,26.3687,0.0975435,2.08637,-33.8954,2.06392,26.2051,1.59546,2.75475,0.0101778,
0.0994724,-0.000386704,-0.0746895,-1.93301,0.211484,0.206614,-0.0168388,0.178991,-0.0098333,0.178992,-0.277443,1.01203,-0.405527,0.00182369,0.790433,0.493741,0.774547,-5.75314,0.953303,40.7108,0.494392,0,0,0,0,0,0,0,0.0910387,0.000233455,-0.0831207,-1.91786,0.163514,0.223023,-0.016942,0.153276,-0.00234978,0.123064,-0.238162,0.97573,-0.736128,-6.11998e-06,0,0,0,0,0,0,0,2.08637,-33.8954,2.06392,26.2051,1.59546,2.75475,0.0101778,
0.100936,-0.000430524,-0.0732263,-1.93549,0.219669,0.20595,-0.0167891,0.179793,-0.00896214,0.179773,-0.283857,1.01425,-0.34103,0.00269987,0.501348,0.544474,0.487701,-4.00833,1.38951,40.3104,0.547614,0,0,0,0,0,0,0,0.0910387,0.000233455,-0.0831207,-1.91786,0.163514,0.223023,-0.016942,0.153276,-0.00234978,0.123064,-0.238162,0.97573,-0.736128,-6.11998e-06,0,0,0,0,0,0,0,2.08637,-33.8954,2.06392,26.2051,1.59546,2.75475,0.0101778,
0.102384,-0.000467255,-0.0717799,-1.93792,0.227884,0.205729,-0.0167304,0.180016,-0.00808798,0.179978,-0.287923,1.01678,-0.278355,0.00362794,0.139281,0.546348,0.128121,-2.5416,1.58042,39.1723,0.580042,0,0,0,0,0,0,0,0.0910387,0.000233455,-0.0831207,-1.91786,0.163514,0.223023,-0.016942,0.153276,-0.00234978,0.123064,-0.238162,0.97573,-0.736128,-6.11998e-06,0,0,0,0,0,0,0,2.08637,-33.8954,2.06392,26.2051,1.59546,2.75475,0.0101778,
0.102679,-0.000491885,-0.0707676,-1.93964,0.236932,0.196747,-0.0166782,0.17856,-0.0071441,0.178515,-0.290767,1.01651,-0.222635,0.00464435,-0.909933,0.589926,-0.913834,-1.77754,-0.165341,34.8246,0.635257,0,0,0,0,0,0,0,0.095815,-0.000167038,-0.0776385,-1.92711,0.1968,0.202696,-0.0169366,0.118675,-0.0119629,0.197911,-0.300017,0.978273,-0.491268,-0.000644238,-4.32521,-1.20164,9.35589,-7.73197,0.31785,30.6075,-0.0797647,1.4516,-32.975,1.23872,27.2009,1.63757,3.07244,0.00376909,
0.104042,-0.000509196,-0.0694057,-1.94201,0.245089,0.197153,-0.0166056,0.176911,-0.00614805,0.176859,-0.291674,1.01714,-0.167954,0.00553023,-1.03083,0.622533,-1.03504,-0.566433,0.391597,34.1761,0.553676,0,0,0,0,0,0,0,0.095815,-0.000167038,-0.0776385,-1.92711,0.1968,0.202696,-0.0169366,0.118675,-0.0119629,0.197911,-0.300017,0.978273,-0.491268,-0.000644238,0,0,0,0,0,0,0,1.4516,-32.975,1.23872,27.2009,1.63757,3.07244,0.00376909,
0.105379,-0.000517173,-0.0680699,-1.94431,0.25327,0.197899,-0.0165339,0.174955,-0.00511786,0.174883,-0.291006,1.01825,-0.11571,0.00621665,-1.22234,0.643868,-1.23538,0.41729,0.692655,32.6524,0.429009,0,0,0,0,0,0,0,0.095815,-0.000167038,-0.0776385,-1.92711,0.1968,0.202696,-0.0169366,0.118675,-0.0119629,0.197911,-0.300017,0.978273,-0.491268,-0.000644238,0,0,0,0,0,0,0,1.4516,-32.975,1.23872,27.2009,1.63757,3.07244,0.00376909,
0.106703,-0.00051951,-0.0667475,-1.94655,0.261169,0.19893,-0.0164583,0.173056,-0.00415271,0.172966,-0.288756,1.01206,-0.0668003,0.00686413,-1.18676,0.60322,-1.19822,1.40632,-3.86921,30.5684,0.404678,0,0,0,0,0,0,0,0.095815,-0.000167038,-0.0776385,-1.92711,0.1968,0.202696,-0.0169366,0.118675,-0.0119629,0.197911,-0.300017,0.978273,-0.491268,-0.000644238,0,0,0,0,0,0,0,1.4516,-32.975,1.23872,27.2009,1.63757,3.07244,0.00376909,
0.102311,-0.000206646,-0.0711382,-1.93924,0.236077,0.200003,-0.0165548,0.171089,-0.00226509,0.170996,-0.287409,0.990859,-0.0358828,0.00749434,-1.22917,1.17976,-1.23116,0.841522,-13.2491,19.3235,0.393882,0,0,0,0,0,0,0,0.101491,0.000536296,-0.0721014,-1.93743,0.230392,0.191737,-0.0169422,0.199898,0.0499783,0.133877,-0.289177,0.994948,-0.207542,-0.002217,10.1529,7.74265,-8.00427,1.3551,2.08436,35.4657,-0.196595,-0.0956386,-36.5932,-0.185533,27.6254,2.11456,2.75475,0.0843355,
0.103624,-0.000165997,-0.0698259,-1.94141,0.242552,0.201058,-0.016474,0.169698,-0.000795858,0.169603,-0.284135,0.954556,-0.00233309,0.00801428,-0.869432,0.918271,-0.870327,2.0465,-22.6899,20.9686,0.324962,0,0,0,0,0,0,0,0.101491,0.000536296,-0.0721014,-1.93743,0.230392,0.191737,-0.0169422,0.199898,0.0499783,0.133877,-0.289177,0.994948,-0.207542,-0.002217,0,0,0,0,0,0,0,-0.0956386,-36.5932,-0.185533,27.6254,2.11456,2.75475,0.0843355,
0.104939,-0.000132219,-0.068512,-1.9435,0.248212,0.202395,-0.0163942,0.168627,0.000207771,0.16853,-0.2796,0.905135,0.031567,0.00840788,-0.669545,0.627269,-0.670752,2.83437,-30.888,21.1875,0.245998,0,0,0,0,0,0,0,0.101491,0.000536296,-0.0721014,-1.93743,0.230392,0.191737,-0.0169422,0.199898,0.0499783,0.133877,-0.289177,0.994948,-0.207542,-0.002217,0,0,0,0,0,0,0,-0.0956386,-36.5932,-0.185533,27.6254,2.11456,2.75475,0.0843355,
0.102311,-0.000206646,-0.0711382,-1.93924,0.236077,0.200003,-0.0165548,0.167546,0.00122329,0.167447,-0.280085,0.905321,0.0428111,0.00872934,-0.675543,0.634701,-0.676709,-0.302958,0.116329,7.02755,0.200913,0,0,0,0,0,0,0,0.101491,0.000536296,-0.0721014,-1.93743,0.230392,0.191737,-0.0169422,0.199898,0.0499783,0.133877,-0.289177,0.994948,-0.207542,-0.002217,0,0,0,0,0,0,0,-0.0956386,-36.5932,-0.185533,27.6254,2.11456,2.75475,0.0843355,
0.10955,0.00153589,-0.0640518,-1.95059,0.2622,0.196381,-0.0164598,0.166929,0.00319223,0.166826,-0.273729,0.808791,0.0756166,0.00903952,-0.386027,1.23058,-0.388487,3.97233,-60.3313,20.5034,0.193861,0,0,0,0,0,0,0,0.10743,0.000954295,-0.0664561,-1.94802,0.262953,0.189509,-0.0169251,0.151646,-0.0204801,0.193476,-0.305497,0.834082,0.000832834,-0.000884892,-6.03146,-8.80729,7.44991,-2.04001,-20.1082,26.0468,0.166513,-1.64288,-35.0221,-1.41142,27.2009,1.30798,2.28417,0.0303194,
0.110847,0.00160217,-0.0627566,-1.95251,0.264951,0.198223,-0.0163766,0.165947,0.00421058,0.16584,-0.267131,0.715827,0.106557,0.0093129,-0.613723,0.636468,-0.616278,4.12373,-58.1023,19.3379,0.170863,0,0,0,0,0,0,0,0.10743,0.000954295,-0.0664561,-1.94802,0.262953,0.189509,-0.0169251,0.151646,-0.0204801,0.193476,-0.305497,0.834082,0.000832834,-0.000884892,0,0,0,0,0,0,0,-1.64288,-35.0221,-1.41142,27.2009,1.30798,2.28417,0.0303194,
0.112122,0.00164959,-0.0614822,-1.95439,0.267144,0.200213,-0.0162914,0.164641,0.00455414,0.164531,-0.260518,0.627465,0.134995,0.00957843,-0.815776,0.214728,-0.818154,4.13339,-55.2264,17.7736,0.165956,0,0,0,0,0,0,0,0.10743,0.000954295,-0.0664561,-1.94802,0.262953,0.189509,-0.0169251,0.151646,-0.0204801,0.193476,-0.305497,0.834082,0.000832834,-0.000884892,0,0,0,0,0,0,0,-1.64288,-35.0221,-1.41142,27.2009,1.30798,2.28417,0.0303194,
0.114266,0.000916164,-0.0596215,-1.95782,0.279965,0.19605,-0.0164933,0.164629,0.00365171,0.164509,-0.254136,0.550269,0.155623,0.00982086,-0.00745204,-0.564022,-0.0136516,3.98873,-48.2475,12.8925,0.151521,0,0,0,0,0,0,0,0.10743,0.000954295,-0.0664561,-1.94802,0.262953,0.189509,-0.0169251,0.151646,-0.0204801,0.193476,-0.305497,0.834082,0.000832834,-0.000884892,0,0,0,0,0,0,0,-1.64288,-35.0221,-1.41142,27.2009,1.30798,2.28417,0.0303194,
0.115551,0.000912023,-0.0583376,-1.9596,0.281407,0.198111,-0.0164058,0.163833,0.00281784,0.163704,-0.247908,0.476264,0.17602,0.0100452,-0.49785,-0.521165,-0.502685,3.89202,-46.2532,12.7484,0.140241,0,0,0,0,0,0,0,0.112869,0.00197002,-0.0599333,-1.95771,0.288627,0.189916,-0.0169151,0.154027,0.0717006,0.198719,-0.248073,0.647975,0.040809,0.000542377,0.29752,11.5226,0.655332,7.17796,-23.2634,4.99702,0.178409,-0.603451,-35.5458,-0.986925,27.55,0.941769,2.50298,-0.0163725,
0.116806,0.000903027,-0.0570847,-1.96135,0.282445,0.200286,-0.0163176,0.162421,0.00202938,0.162287,-0.241914,0.406953,0.195188,0.0102408,-0.882573,-0.492789,-0.885967,3.74678,-43.319,11.9795,0.122236,0,0,0,0,0,0,0,0.112869,0.00197002,-0.0599333,-1.95771,0.288627,0.189916,-0.0169151,0.154027,0.0717006,0.198719,-0.248073,0.647975,0.040809,0.000542377,0,0,0,0,0,0,0,-0.603451,-35.5458,-0.986925,27.55,0.941769,2.50298,-0.0163725,
0.11803,0.000889316,-0.0558614,-1.96305,0.283148,0.202542,-0.0162285,0.160548,0.00128072,0.160411,-0.236174,0.343138,0.212549,0.0104199,-1.17067,-0.467915,-1.17272,3.58714,-39.8848,10.851,0.111932,0,0,0,0,0,0,0,0.112869,0.00197002,-0.0599333,-1.95771,0.288627,0.189916,-0.0169151,0.154027,0.0717006,0.198719,-0.248073,0.647975,0.040809,0.000542377,0,0,0,0,0,0,0,-0.603451,-35.5458,-0.986925,27.55,0.941769,2.50298,-0.0163725,
0.119694,0.00302836,-0.0531077,-1.96709,0.298163,0.197807,-0.0164561,0.160647,0.00347811,0.1605,-0.232759,0.291723,0.220215,0.0105791,0.0622466,1.37337,0.0556585,2.13424,-32.1341,4.79118,0.0994749,0,0,0,0,0,0,0,0.112869,0.00197002,-0.0599333,-1.95771,0.288627,0.189916,-0.0169151,0.154027,0.0717006,0.198719,-0.248073,0.647975,0.040809,0.000542377,0,0,0,0,0,0,0,-0.603451,-35.5458,-0.986925,27.55,0.941769,2.50298,-0.0163725,
0.120941,0.00309716,-0.0518623,-1.9688,0.298535,0.199922,-0.0163666,0.159692,0.0045023,0.159536,-0.228746,0.242682,0.229059,0.0107011,-0.596918,0.640117,-0.602496,2.50852,-30.6503,5.52746,0.0762618,0,0,0,0,0,0,0,0.11945,0.00293148,-0.0544958,-1.96619,0.304445,0.193926,-0.0169171,0.250436,-0.00777076,0.0942235,-0.246999,0.348964,0.154521,0.00124597,12.0511,-9.93392,-13.062,0.134319,-37.3763,14.2141,0.0879491,-2.75769,-37.2914,-2.56194,26.4035,0.471188,2.21734,0.0440523,
0.122149,0.00314335,-0.0506557,-1.97045,0.298669,0.202116,-0.0162776,0.157957,0.00475671,0.157794,-0.224374,0.197507,0.238095,0.0107856,-1.08444,0.159007,-1.08849,2.73254,-28.2349,5.64748,0.0528438,0,0,0,0,0,0,0,0.11945,0.00293148,-0.0544958,-1.96619,0.304445,0.193926,-0.0169171,0.250436,-0.00777076,0.0942235,-0.246999,0.348964,0.154521,0.00124597,0,0,0,0,0,0,0,-2.75769,-37.2914,-2.56194,26.4035,0.471188,2.21734,0.0440523,
0.123322,0.00317197,-0.0494849,-1.97206,0.298624,0.204364,-0.016189,0.155672,0.00452088,0.155505,-0.219801,0.156864,0.246676,0.0108426,-1.42801,-0.147392,-1.43048,2.85764,-25.4015,5.36324,0.0356242,0,0,0,0,0,0,0,0.11945,0.00293148,-0.0544958,-1.96619,0.304445,0.193926,-0.0169171,0.250436,-0.00777076,0.0942235,-0.246999,0.348964,0.154521,0.00124597,0,0,0,0,0,0,0,-2.75769,-37.2914,-2.56194,26.4035,0.471188,2.21734,0.0440523,
0.125869,0.00287537,-0.0480992,-1.97447,0.30815,0.203395,-0.0164619,0.154468,0.0031847,0.154293,-0.214898,0.126442,0.251698,0.0108681,-0.752429,-0.835115,-0.757369,3.06444,-19.0136,3.13869,0.0159388,0,0,0,0,0,0,0,0.11945,0.00293148,-0.0544958,-1.96619,0.304445,0.193926,-0.0169171,0.250436,-0.00777076,0.0942235,-0.246999,0.348964,0.154521,0.00124597,0,0,0,0,0,0,0,-2.75769,-37.2914,-2.56194,26.4035,0.471188,2.21734,0.0440523,
0.127026,0.00285449,-0.0469433,-1.976,0.308023,0.205626,-0.0163753,0.152513,0.00202573,0.152333,-0.210061,0.0979662,0.25714,0.0108604,-1.22222,-0.724356,-1.22516,3.02338,-17.7977,3.40103,-0.00482413,0,0,0,0,0,0,0,0.125452,0.00293326,-0.0487703,-1.97423,0.31207,0.200046,-0.0169107,0.2007,-0.0114136,0.142003,-0.227453,0.134467,0.189786,-0.00113386,-6.21699,-0.45535,5.9725,2.44323,-26.8122,4.40809,-0.297479,-2.78546,-32.1736,-2.16124,25.733,0.819088,2.4096,0.0303194,
0.128147,0.00283049,-0.0458238,-1.97749,0.307778,0.207891,-0.0162899,0.150034,0.00102052,0.149853,-0.205316,0.0722564,0.262323,0.0108209,-1.54918,-0.628254,-1.55029,2.96535,-16.0687,3.23983,-0.0247278,0,0,0,0,0,0,0,0.125452,0.00293326,-0.0487703,-1.97423,0.31207,0.200046,-0.0169107,0.2007,-0.0114136,0.142003,-0.227453,0.134467,0.189786,-0.00113386,0,0,0,0,0,0,0,-2.78546,-32.1736,-2.16124,25.733,0.819088,2.4096,0.0303194,
0.129235,0.0028038,-0.0447378,-1.97895,0.307451,0.21017,-0.016206,0.147214,0.000149136,0.147033,-0.200671,0.0496335,0.266848,0.0107556,-1.76261,-0.544616,-1.76222,2.90313,-14.1393,2.82794,-0.0407627,0,0,0,0,0,0,0,0.125452,0.00293326,-0.0487703,-1.97423,0.31207,0.200046,-0.0169107,0.2007,-0.0114136,0.142003,-0.227453,0.134467,0.189786,-0.00113386,0,0,0,0,0,0,0,-2.78546,-32.1736,-2.16124,25.733,0.819088,2.4096,0.0303194,
0.131521,0.00282908,-0.0427172,-1.98189,0.312464,0.20974,-0.0164858,0.145694,-0.000393362,0.145507,-0.196597,0.0334241,0.266622,0.0106523,-0.950072,-0.339061,-0.954029,2.54664,-10.1309,-0.141071,-0.0645839,0,0,0,0,0,0,0,0.125452,0.00293326,-0.0487703,-1.97423,0.31207,0.200046,-0.0169107,0.2007,-0.0114136,0.142003,-0.227453,0.134467,0.189786,-0.00113386,0,0,0,0,0,0,0,-2.78546,-32.1736,-2.16124,25.733,0.819088,2.4096,0.0303194,
0.132598,0.00280588,-0.0416412,-1.9833,0.312142,0.211898,-0.0164055,0.143494,-0.000894622,0.143304,-0.192423,0.018681,0.267254,0.010528,-1.37522,-0.313288,-1.37652,2.60873,-9.2144,0.394615,-0.0776992,0,0,0,0,0,0,0,0.125452,0.00293326,-0.0487703,-1.97423,0.31207,0.200046,-0.0169107,0.2007,-0.0114136,0.142003,-0.227453,0.134467,0.189786,-0.00113386,0,0,0,0,0,0,0,-2.78546,-32.1736,-2.16124,25.733,0.819088,2.4096,0.0303194,
0.13364,0.00278007,-0.0406007,-1.98467,0.311774,0.214071,-0.0163271,0.140845,-0.00136081,0.140657,-0.188203,0.00573522,0.268119,0.0103829,-1.65504,-0.291369,-1.65438,2.63734,-8.09113,0.54084,-0.0906978,0,0,0,0,0,0,0,0.131426,0.00416527,-0.0431933,-1.98103,0.314343,0.206521,-0.0169007,0.168301,0.0940875,0.153258,-0.162236,0.0142485,0.182135,0.00135861,-4.04989,13.1876,1.40684,8.15209,-15.0273,-0.956373,0.311559,-2.02374,-36.8431,-1.53838,28.1491,1.36932,2.75475,-0.0163725,
0.13465,0.00275187,-0.0395922,-1.986,0.311377,0.216244,-0.0162506,0.137923,-0.00179368,0.137738,-0.18397,-0.00532541,0.268828,0.0102199,-1.82657,-0.270539,-1.82452,2.64542,-6.9129,0.44283,-0.101883,0,0,0,0,0,0,0,0.131426,0.00416527,-0.0431933,-1.98103,0.314343,0.206521,-0.0169007,0.168301,0.0940875,0.153258,-0.162236,0.0142485,0.182135,0.00135861,0,0,0,0,0,0,0,-2.02374,-36.8431,-1.53838,28.1491,1.36932,2.75475,-0.0163725,
0.137016,0.00537426,-0.0376143,-1.98846,0.313024,0.216212,-0.0165167,0.13598,0.00127276,0.135787,-0.18188,-0.0142927,0.26477,0.010033,-1.21407,1.91652,-1.21922,1.30623,-5.60453,-2.53589,-0.116788,0,0,0,0,0,0,0,0.131426,0.00416527,-0.0431933,-1.98103,0.314343,0.206521,-0.0169007,0.168301,0.0940875,0.153258,-0.162236,0.0142485,0.182135,0.00135861,0,0,0,0,0,0,0,-2.02374,-36.8431,-1.53838,28.1491,1.36932,2.75475,-0.0163725,
0.138005,0.00545017,-0.0366262,-1.9898,0.312607,0.218208,-0.0164445,0.133529,0.00291589,0.133331,-0.178962,-0.0218658,0.261713,0.00983199,-1.53206,1.02696,-1.53491,1.82418,-4.73319,-1.91056,-0.12563,0,0,0,0,0,0,0,0.131426,0.00416527,-0.0431933,-1.98103,0.314343,0.206521,-0.0169007,0.168301,0.0940875,0.153258,-0.162236,0.0142485,0.182135,0.00135861,0,0,0,0,0,0,0,-2.02374,-36.8431,-1.53838,28.1491,1.36932,2.75475,-0.0163725,
0.138963,0.00550148,-0.0356703,-1.99109,0.312186,0.220206,-0.0163744,0.130763,0.00361544,0.130563,-0.175472,-0.0280154,0.259316,0.00961751,-1.72914,0.437216,-1.73022,2.18128,-3.84354,-1.4982,-0.134052,0,0,0,0,0,0,0,0.13668,0.00444897,-0.0377352,-1.98776,0.314176,0.213552,-0.0168996,0.157085,-0.0582081,0.132838,-0.218641,-0.000222759,0.204586,0.00204231,-1.40196,-19.037,-2.55249,-7.05069,-1.80891,2.80641,0.0854629,-1.89679,-35.1967,-1.36382,24.8087,1.83349,1.99853,-0.0163725,
0.139891,0.00553393,-0.0347435,-1.99234,0.311769,0.222199,-0.0163065,0.127819,0.00370367,0.12762,-0.1716,-0.0328386,0.257298,0.0093919,-1.83985,0.0551488,-1.83962,2.41976,-3.0145,-1.26126,-0.141005,0,0,0,0,0,0,0,0.13668,0.00444897,-0.0377352,-1.98776,0.314176,0.213552,-0.0168996,0.157085,-0.0582081,0.132838,-0.218641,-0.000222759,0.204586,0.00204231,0,0,0,0,0,0,0,-1.89679,-35.1967,-1.36382,24.8087,1.83349,1.99853,-0.0163725,
0.141777,0.00380575,-0.0326507,-1.99408,0.312981,0.222407,-0.0165507,0.125755,0.00125354,0.125555,-0.166607,-0.0335089,0.253754,0.00914167,-1.28957,-1.53133,-1.29024,3.12057,-0.418949,-2.21498,-0.156393,0,0,0,0,0,0,0,0.13668,0.00444897,-0.0377352,-1.98776,0.314176,0.213552,-0.0168996,0.157085,-0.0582081,0.132838,-0.218641,-0.000222759,0.204586,0.00204231,0,0,0,0,0,0,0,-1.89679,-35.1967,-1.36382,24.8087,1.83349,1.99853,-0.0163725,
0.142685,0.00374699,-0.0317442,-1.99522,0.31268,0.224341,-0.0164877,0.123304,-0.000466064,0.123106,-0.161816,-0.0343296,0.251354,0.00888892,-1.53223,-1.07476,-1.53072,2.99441,-0.512937,-1.50041,-0.157968,0,0,0,0,0,0,0,0.13668,0.00444897,-0.0377352,-1.98776,0.314176,0.213552,-0.0168996,0.157085,-0.0582081,0.132838,-0.218641,-0.000222759,0.204586,0.00204231,0,0,0,0,0,0,0,-1.89679,-35.1967,-1.36382,24.8087,1.83349,1.99853,-0.0163725,
0.143564,0.00369452,-0.0308668,-1.99633,0.312372,0.226276,-0.0164268,0.120612,-0.00168469,0.120419,-0.157198,-0.0351809,0.249457,0.00863349,-1.68267,-0.761643,-1.67976,2.88602,-0.532052,-1.18537,-0.159646,0,0,0,0,0,0,0,0.141557,0.00482789,-0.0330816,-1.99409,0.31299,0.220732,-0.0168997,0.165292,0.0191509,0.080234,-0.184169,-0.0329027,0.205585,0.000788254,1.02594,9.66987,-6.57553,4.309,-4.08499,0.12488,-0.156757,-1.46435,-32.9988,-0.788561,26.106,1.93695,2.09832,0.00376909,
0.144416,0.00364617,-0.0300163,-1.99741,0.312057,0.228201,-0.016368,0.117785,-0.00255629,0.117598,-0.152726,-0.0360034,0.247683,0.00837655,-1.76654,-0.544746,-1.76277,2.795,-0.514022,-1.10882,-0.160584,0,0,0,0,0,0,0,0.141557,0.00482789,-0.0330816,-1.99409,0.31299,0.220732,-0.0168997,0.165292,0.0191509,0.080234,-0.184169,-0.0329027,0.205585,0.000788254,0,0,0,0,0,0,0,-1.46435,-32.9988,-0.788561,26.106,1.93695,2.09832,0.00376909,
0.146013,0.00524145,-0.0286408,-2.00014,0.311167,0.229308,-0.0165934,0.115083,-0.00113539,0.114898,-0.149827,-0.0380157,0.242285,0.00812262,-1.68886,0.888058,-1.68772,1.81215,-1.25771,-3.37389,-0.158707,0,0,0,0,0,0,0,0.141557,0.00482789,-0.0330816,-1.99409,0.31299,0.220732,-0.0168997,0.165292,0.0191509,0.080234,-0.184169,-0.0329027,0.205585,0.000788254,0,0,0,0,0,0,0,-1.46435,-32.9988,-0.788561,26.106,1.93695,2.09832,0.00376909,
0.146823,0.00526298,-0.0278325,-2.00121,0.310802,0.231079,-0.0165386,0.112309,-0.000369924,0.112127,-0.146442,-0.0395301,0.238097,0.00786654,-1.73356,0.478419,-1.73194,2.11575,-0.946474,-2.61748,-0.16005,0,0,0,0,0,0,0,0.141557,0.00482789,-0.0330816,-1.99409,0.31299,0.220732,-0.0168997,0.165292,0.0191509,0.080234,-0.184169,-0.0329027,0.205585,0.000788254,0,0,0,0,0,0,0,-1.46435,-32.9988,-0.788561,26.106,1.93695,2.09832,0.00376909,
0.147609,0.00527271,-0.0270472,-2.00223,0.310439,0.232848,-0.016486,0.109513,-5.2707e-05,0.109334,-0.14273,-0.0406897,0.234702,0.00761011,-1.74743,0.19826,-1.74544,2.31972,-0.724787,-2.12161,-0.160268,0,0,0,0,0,0,0,0.145597,0.00616464,-0.0288384,-1.9994,0.311617,0.227818,-0.0169033,0.118588,0.0945822,0.0974474,-0.120929,-0.0260635,0.202949,0.000727171,-5.838,9.42892,2.15167,7.90507,0.854904,-0.329589,-0.00763545,-0.805783,-37.7397,-0.435472,28.1729,1.71081,2.21734,0.0101778,
0.146013,0.00524145,-0.0286408,-2.00014,0.311167,0.229308,-0.0165934,0.108466,0.000867469,0.108286,-0.14183,-0.0417648,0.2319,0.00750947,-0.65489,0.57511,-0.654701,0.562626,-0.671916,-1.75129,-0.062902,0,0,0,0,0,0,0,0.145597,0.00616464,-0.0288384,-1.9994,0.311617,0.227818,-0.0169033,0.118588,0.0945822,0.0974474,-0.120929,-0.0260635,0.202949,0.000727171,0,0,0,0,0,0,0,-0.805783,-37.7397,-0.435472,28.1729,1.71081,2.21734,0.0101778,
0.150296,0.00747982,-0.0241491,-2.0059,0.30943,0.238189,-0.0165937,0.104963,0.00260375,0.104782,-0.137565,-0.0438149,0.227209,0.00718909,-2.18921,1.08517,-2.18997,2.66541,-1.28132,-2.93201,-0.200236,0,0,0,0,0,0,0,0.145597,0.00616464,-0.0288384,-1.9994,0.311617,0.227818,-0.0169033,0.118588,0.0945822,0.0974474,-0.120929,-0.0260635,0.202949,0.000727171,0,0,0,0,0,0,0,-0.805783,-37.7397,-0.435472,28.1729,1.71081,2.21734,0.0101778,
0.151003,0.00753161,-0.0234431,-2.00682,0.309004,0.239847,-0.0165482,0.101657,0.00337788,0.101476,-0.133038,-0.0457104,0.223219,0.00688866,-2.06607,0.483832,-2.06658,2.82953,-1.18471,-2.49337,-0.187769,0,0,0,0,0,0,0,0.145597,0.00616464,-0.0288384,-1.9994,0.311617,0.227818,-0.0169033,0.118588,0.0945822,0.0974474,-0.120929,-0.0260635,0.202949,0.000727171,0,0,0,0,0,0,0,-0.805783,-37.7397,-0.435472,28.1729,1.71081,2.21734,0.0101778,
0.151691,0.00756482,-0.0227566,-2.0077,0.308564,0.241498,-0.0165044,0.0985261,0.0035324,0.0983447,-0.128369,-0.0475641,0.219835,0.00660812,-1.95687,0.0965758,-1.95703,2.91805,-1.15858,-2.11521,-0.17534,0,0,0,0,0,0,0,0.148822,0.00647453,-0.0246,-2.00463,0.310684,0.234743,-0.0169089,0.0226484,-0.0514916,0.171397,-0.174266,-0.0161137,0.178979,-0.000817195,-11.9925,-18.2592,9.24366,-6.66712,1.24372,-2.99628,-0.193046,-0.0956386,-34.7722,0.0882092,24.884,1.38763,1.67351,0.0577852,
0.152422,0.00596198,-0.0209937,-2.00913,0.309004,0.242094,-0.016677,0.0958567,0.00150556,0.0956781,-0.122942,-0.0479653,0.215671,0.00634435,-1.66836,-1.26678,-1.66664,3.39208,-0.2507,-2.60286,-0.164856,0,0,0,0,0,0,0,0.148822,0.00647453,-0.0246,-2.00463,0.310684,0.234743,-0.0169089,0.0226484,-0.0514916,0.171397,-0.174266,-0.0161137,0.178979,-0.000817195,0,0,0,0,0,0,0,-0.0956386,-34.7722,0.0882092,24.884,1.38763,1.67351,0.0577852,
0.153084,0.00591614,-0.0203337,-2.00991,0.308575,0.243706,-0.0166361,0.093218,5.84306e-05,0.0930427,-0.117785,-0.0491097,0.212825,0.00609903,-1.64922,-0.904454,-1.64707,3.22309,-0.715292,-1.77834,-0.153324,0,0,0,0,0,0,0,0.148822,0.00647453,-0.0246,-2.00463,0.310684,0.234743,-0.0169089,0.0226484,-0.0514916,0.171397,-0.174266,-0.0161137,0.178979,-0.000817195,0,0,0,0,0,0,0,-0.0956386,-34.7722,0.0882092,24.884,1.38763,1.67351,0.0577852,
0.153725,0.00587463,-0.0196934,-2.01066,0.30811,0.245324,-0.0165964,0.0906137,-0.000990941,0.0904424,-0.112857,-0.0509083,0.210718,0.00587241,-1.62767,-0.655857,-1.6252,3.0803,-1.12413,-1.31731,-0.141637,0,0,0,0,0,0,0,0.148822,0.00647453,-0.0246,-2.00463,0.310684,0.234743,-0.0169089,0.0226484,-0.0514916,0.171397,-0.174266,-0.0161137,0.178979,-0.000817195,0,0,0,0,0,0,0,-0.0956386,-34.7722,0.0882092,24.884,1.38763,1.67351,0.0577852,
0.154348,0.00583581,-0.0190723,-2.01137,0.307608,0.24694,-0.0165577,0.0880483,-0.00176324,0.0878814,-0.108117,-0.053267,0.20897,0.00566479,-1.60338,-0.482688,-1.60065,2.96241,-1.47416,-1.09232,-0.129763,0,0,0,0,0,0,0,0.151675,0.00704348,-0.020608,-2.00937,0.310046,0.240885,-0.0169136,0.00103545,0.0400673,0.198823,-0.116552,-0.0150932,0.168908,-0.00171308,-2.70162,11.4449,3.42827,7.21421,0.127565,-1.25886,-0.111985,0.309024,-34.3199,0.0366345,27.0026,1.36932,2.11114,0.0577852,
0.155695,0.00768982,-0.0165805,-2.01407,0.307353,0.249421,-0.0166871,0.0853948,-0.000565353,0.0852221,-0.103112,-0.0574669,0.203278,0.0054372,-1.65843,0.74868,-1.66202,3.12798,-2.62493,-3.5571,-0.142241,0,0,0,0,0,0,0,0.151675,0.00704348,-0.020608,-2.00937,0.310046,0.240885,-0.0169136,0.00103545,0.0400673,0.198823,-0.116552,-0.0150932,0.168908,-0.00171308,0,0,0,0,0,0,0,0.309024,-34.3199,0.0366345,27.0026,1.36932,2.11114,0.0577852,
0.156269,0.00770955,-0.0160077,-2.01469,0.306728,0.250857,-0.0166513,0.0826726,4.09869e-05,0.082497,-0.098072,-0.0616003,0.198519,0.00524533,-1.70138,0.378962,-1.70323,3.14994,-2.58337,-2.97452,-0.119924,0,0,0,0,0,0,0,0.151675,0.00704348,-0.020608,-2.00937,0.310046,0.240885,-0.0169136,0.00103545,0.0400673,0.198823,-0.116552,-0.0150932,0.168908,-0.00171308,0,0,0,0,0,0,0,0.309024,-34.3199,0.0366345,27.0026,1.36932,2.11114,0.0577852,
0.156821,0.00771848,-0.0154574,-2.01527,0.306083,0.252273,-0.0166156,0.079933,0.00025597,0.0797566,-0.0930466,-0.0653945,0.194222,0.00508847,-1.71222,0.134364,-1.71273,3.14089,-2.3714,-2.6857,-0.0980362,0,0,0,0,0,0,0,0.151675,0.00704348,-0.020608,-2.00937,0.310046,0.240885,-0.0169136,0.00103545,0.0400673,0.198823,-0.116552,-0.0150932,0.168908,-0.00171308,0,0,0,0,0,0,0,0.309024,-34.3199,0.0366345,27.0026,1.36932,2.11114,0.0577852,
0.157351,0.00771908,-0.0149282,-2.01582,0.305433,0.253657,-0.0165799,0.0772091,0.000219778,0.0770334,-0.0880683,-0.0685646,0.189973,0.00496265,-1.70247,-0.02262,-1.70199,3.11147,-1.98134,-2.65569,-0.0786329,0,0,0,0,0,0,0,0.154532,0.00845047,-0.017136,-2.01269,0.309104,0.246334,-0.016907,0.0653683,0.0803566,0.109472,-0.0672183,-0.0369106,0.150707,0.00133014,8.0416,5.03617,-11.1688,6.16674,-2.72718,-2.27512,0.380401,0.209842,-37.6167,-0.562425,26.9788,1.19171,2.19811,-0.0026396,
0.157547,0.00945727,-0.0141249,-2.0161,0.306325,0.253239,-0.0167298,0.0754674,0.00234659,0.0752833,-0.085287,-0.0712491,0.184975,0.00486389,-1.08853,1.32926,-1.09384,1.73828,-1.67777,-3.12344,-0.0617287,0,0,0,0,0,0,0,0.154532,0.00845047,-0.017136,-2.01269,0.309104,0.246334,-0.016907,0.0653683,0.0803566,0.109472,-0.0672183,-0.0369106,0.150707,0.00133014,0,0,0,0,0,0,0,0.209842,-37.6167,-0.562425,26.9788,1.19171,2.19811,-0.0026396,
0.158072,0.00951761,-0.0136024,-2.01664,0.305673,0.254516,-0.0166941,0.0734794,0.00338576,0.0732894,-0.0818965,-0.0733159,0.179894,0.00478469,-1.24249,0.649482,-1.24617,2.11908,-1.29177,-3.17563,-0.0494993,0,0,0,0,0,0,0,0.154532,0.00845047,-0.017136,-2.01269,0.309104,0.246334,-0.016907,0.0653683,0.0803566,0.109472,-0.0672183,-0.0369106,0.150707,0.00133014,0,0,0,0,0,0,0,0.209842,-37.6167,-0.562425,26.9788,1.19171,2.19811,-0.0026396,
0.158574,0.00955822,-0.013102,-2.01714,0.305044,0.255739,-0.0166578,0.0713354,0.0037237,0.0711418,-0.0780867,-0.0743695,0.174491,0.0047362,-1.34005,0.211214,-1.34226,2.38112,-0.658511,-3.3772,-0.0303035,0,0,0,0,0,0,0,0.154532,0.00845047,-0.017136,-2.01269,0.309104,0.246334,-0.016907,0.0653683,0.0803566,0.109472,-0.0672183,-0.0369106,0.150707,0.00133014,0,0,0,0,0,0,0,0.209842,-37.6167,-0.562425,26.9788,1.19171,2.19811,-0.0026396,
0.159055,0.00958398,-0.0126226,-2.01761,0.304464,0.256894,-0.01662,0.0690927,0.00362297,0.0688975,-0.0740016,-0.0739971,0.16847,0.00473317,-1.40168,-0.062954,-1.40267,2.55319,0.232784,-3.76297,-0.0018987,0,0,0,0,0,0,0,0.154532,0.00845047,-0.017136,-2.01269,0.309104,0.246334,-0.016907,0.0653683,0.0803566,0.109472,-0.0672183,-0.0369106,0.150707,0.00133014,0,0,0,0,0,0,0,0.209842,-37.6167,-0.562425,26.9788,1.19171,2.19811,-0.0026396,
0.160648,0.00785842,-0.0121992,-2.01846,0.30483,0.256764,-0.0167245,0.0674946,0.00127086,0.0673004,-0.0689817,-0.071692,0.161543,0.00474002,-0.998822,-1.47007,-0.998216,3.13746,1.44068,-4.32966,0.00428174,0,0,0,0,0,0,0,0.157921,0.00853247,-0.0149015,-2.01603,0.307621,0.251478,-0.0169132,0.161118,-0.0661091,-0.00504255,-0.13156,-0.045469,0.145685,0.00125532,11.9687,-18.3082,-14.3143,-8.04269,-1.0698,-0.627715,-0.00935178,-1.49212,-33.5463,-1.4868,24.4635,1.27777,1.82641,0.0239107,
0.161111,0.00780452,-0.0117372,-2.01882,0.304409,0.25777,-0.0166882,0.0655834,-0.000330788,0.0653925,-0.0641861,-0.0678585,0.154385,0.00469847,-1.19447,-1.00103,-1.19241,2.99724,2.39595,-4.47384,-0.0259686,0,0,0,0,0,0,0,0.157921,0.00853247,-0.0149015,-2.01603,0.307621,0.251478,-0.0169132,0.161118,-0.0661091,-0.00504255,-0.13156,-0.045469,0.145685,0.00125532,0,0,0,0,0,0,0,-1.49212,-33.5463,-1.4868,24.4635,1.27777,1.82641,0.0239107,
0.161553,0.00775793,-0.0112968,-2.01915,0.304052,0.258702,-0.0166502,0.0635085,-0.00142945,0.0633232,-0.059588,-0.0632106,0.146821,0.00470977,-1.29685,-0.686666,-1.29329,2.87381,2.90491,-4.7274,0.00706186,0,0,0,0,0,0,0,0.157921,0.00853247,-0.0149015,-2.01603,0.307621,0.251478,-0.0169132,0.161118,-0.0661091,-0.00504255,-0.13156,-0.045469,0.145685,0.00125532,0,0,0,0,0,0,0,-1.49212,-33.5463,-1.4868,24.4635,1.27777,1.82641,0.0239107,
0.161973,0.00771585,-0.0108776,-2.01945,0.303782,0.259556,-0.0166051,0.0613147,-0.00219544,0.0611376,-0.0552349,-0.0573349,0.13879,0.00489355,-1.37112,-0.478743,-1.36602,2.7207,3.67235,-5.01944,0.114867,0,0,0,0,0,0,0,0.157921,0.00853247,-0.0149015,-2.01603,0.307621,0.251478,-0.0169132,0.161118,-0.0661091,-0.00504255,-0.13156,-0.045469,0.145685,0.00125532,0,0,0,0,0,0,0,-1.49212,-33.5463,-1.4868,24.4635,1.27777,1.82641,0.0239107,
0.163015,0.00983168,-0.010034,-2.02057,0.302452,0.261427,-0.0166909,0.0600154,-0.000566575,0.0598351,-0.0526171,-0.0621548,0.137518,0.00510344,-0.812023,1.01804,-0.814088,1.63611,-3.01247,-0.794719,0.13118,0,0,0,0,0,0,0,0.160541,0.00925163,-0.0124961,-2.01849,0.305883,0.255797,-0.0169054,0.0991642,0.0464769,0.040773,-0.0502254,-0.0392279,0.11625,0.00337713,-7.74417,14.0733,5.72695,10.1668,0.780139,-3.67938,0.265226,-1.51593,-33.6495,-1.10991,26.106,1.65039,2.01226,-0.0301054,
0.163419,0.00986255,-0.00963196,-2.02087,0.301962,0.262428,-0.016671,0.0580995,0.000318465,0.0579197,-0.0496896,-0.06199,0.135025,0.00457975,-1.19743,0.55315,-1.1971,1.8297,0.103013,-1.55834,-0.327305,0,0,0,0,0,0,0,0.160541,0.00925163,-0.0124961,-2.01849,0.305883,0.255797,-0.0169054,0.0991642,0.0464769,0.040773,-0.0502254,-0.0392279,0.11625,0.00337713,0,0,0,0,0,0,0,-1.51593,-33.6495,-1.10991,26.106,1.65039,2.01226,-0.0301054,
0.163807,0.00988003,-0.00924443,-2.02114,0.301376,0.263477,-0.0166493,0.0562022,0.000691744,0.0560242,-0.0464975,-0.0642434,0.13425,0.00420646,-1.18581,0.233299,-1.18473,1.99505,-1.4084,-0.484167,-0.23331,0,0,0,0,0,0,0,0.160541,0.00925163,-0.0124961,-2.01849,0.305883,0.255797,-0.0169054,0.0991642,0.0464769,0.040773,-0.0502254,-0.0392279,0.11625,0.00337713,0,0,0,0,0,0,0,-1.51593,-33.6495,-1.10991,26.106,1.65039,2.01226,-0.0301054,
0.164175,0.00988721,-0.00887803,-2.02138,0.300828,0.264491,-0.0166192,0.0541554,0.000733049,0.0539794,-0.0431007,-0.0650937,0.132753,0.00411847,-1.27928,0.0258157,-1.278,2.12297,-0.53141,-0.935618,-0.0549954,0,0,0,0,0,0,0,0.160541,0.00925163,-0.0124961,-2.01849,0.305883,0.255797,-0.0169054,0.0991642,0.0464769,0.040773,-0.0502254,-0.0392279,0.11625,0.00337713,0,0,0,0,0,0,0,-1.51593,-33.6495,-1.10991,26.106,1.65039,2.01226,-0.0301054,
0.164785,0.010796,-0.00665369,-2.02216,0.297449,0.270197,-0.0167531,0.0544536,0.00118207,0.0542653,-0.0395402,-0.0841297,0.154882,0.0037329,0.186387,0.280638,0.178738,2.22532,-11.8975,13.8303,-0.240978,0,0,0,0,0,0,0,0.161882,0.0103801,-0.00956321,-2.02024,0.304463,0.259182,-0.0169137,-0.011198,0.0278861,0.131077,-0.0490838,-0.0484232,0.105964,0.000963526,-13.7953,-2.32385,11.288,0.142701,-1.14942,-1.28578,-0.3017,0.412174,-37.7913,-0.0387439,26.2051,1.46728,1.85296,0.017502,
0.165208,0.0108089,-0.0062319,-2.02233,0.296253,0.272061,-0.0167306,0.0541531,0.00126613,0.0539571,-0.0358041,-0.097204,0.170504,0.00354835,-0.187828,0.0525392,-0.192662,2.33507,-8.17144,9.76421,-0.115344,0,0,0,0,0,0,0,0.161882,0.0103801,-0.00956321,-2.02024,0.304463,0.259182,-0.0169137,-0.011198,0.0278861,0.131077,-0.0490838,-0.0484232,0.105964,0.000963526,0,0,0,0,0,0,0,0.412174,-37.7913,-0.0387439,26.2051,1.46728,1.85296,0.017502,
0.165601,0.0108138,-0.00584029,-2.02247,0.295307,0.273782,-0.0167156,0.0531489,0.00113624,0.0529559,-0.0321077,-0.101412,0.179438,0.00321472,-0.627638,-0.0811831,-0.625745,2.31029,-2.63016,5.58374,-0.208518,0,0,0,0,0,0,0,0.161882,0.0103801,-0.00956321,-2.02024,0.304463,0.259182,-0.0169137,-0.011198,0.0278861,0.131077,-0.0490838,-0.0484232,0.105964,0.000963526,0,0,0,0,0,0,0,0.412174,-37.7913,-0.0387439,26.2051,1.46728,1.85296,0.017502,
0.165969,0.0108111,-0.00547322,-2.02258,0.294587,0.275373,-0.01671,0.0517217,0.000840687,0.0515413,-0.0285696,-0.0991415,0.183324,0.00271105,-0.891999,-0.184721,-0.884102,2.21127,1.41922,2.42877,-0.314797,0,0,0,0,0,0,0,0.161882,0.0103801,-0.00956321,-2.02024,0.304463,0.259182,-0.0169137,-0.011198,0.0278861,0.131077,-0.0490838,-0.0484232,0.105964,0.000963526,0,0,0,0,0,0,0,0.412174,-37.7913,-0.0387439,26.2051,1.46728,1.85296,0.017502,
0.165717,0.0105531,-0.00571329,-2.02318,0.29628,0.278545,-0.0165023,0.0617088,0.00147899,0.0614814,-0.033823,-0.120038,0.253853,0.0037569,6.24194,0.398938,6.21258,-3.28334,-13.0606,44.0807,0.653655,0,0,0,0,0,0,0,0.161882,0.0103801,-0.00956321,-2.02024,0.304463,0.259182,-0.0169137,-0.011198,0.0278861,0.131077,-0.0490838,-0.0484232,0.105964,0.000963526,0,0,0,0,0,0,0,0.412174,-37.7913,-0.0387439,26.2051,1.46728,1.85296,0.017502,
0.166532,0.0105806,-0.00490053,-2.02356,0.29466,0.282794,-0.0164382,0.0697521,0.00187087,0.0695044,-0.0365108,-0.136543,0.309301,0.00460772,5.02708,0.244924,5.01432,-1.6799,-10.3152,34.6549,0.531765,0,0,0,0,0,0,0,0.161882,0.0103801,-0.00956321,-2.02024,0.304463,0.259182,-0.0169137,-0.011198,0.0278861,0.131077,-0.0490838,-0.0484232,0.105964,0.000963526,0,0,0,0,0,0,0,0.412174,-37.7913,-0.0387439,26.2051,1.46728,1.85296,0.017502,
0.167337,0.0106025,-0.00409836,-2.02389,0.293205,0.286875,-0.0163702,0.0759203,0.00204314,0.0756576,-0.0374198,-0.145622,0.349482,0.00538602,3.85513,0.107671,3.84575,-0.568139,-5.67421,25.1127,0.486435,0,0,0,0,0,0,0,0.161882,0.0103801,-0.00956321,-2.02024,0.304463,0.259182,-0.0169137,-0.011198,0.0278861,0.131077,-0.0490838,-0.0484232,0.105964,0.000963526,0,0,0,0,0,0,0,0.412174,-37.7913,-0.0387439,26.2051,1.46728,1.85296,0.017502,
0.16812,0.0106191,-0.00331837,-2.02418,0.292044,0.290698,-0.0163091,0.0803206,0.00204941,0.0800258,-0.0371426,-0.145501,0.375161,0.00583729,2.7502,0.0039164,2.73014,0.173263,0.075224,16.0496,0.282047,0,0,0,0,0,0,0,0.161882,0.0103801,-0.00956321,-2.02024,0.304463,0.259182,-0.0169137,-0.011198,0.0278861,0.131077,-0.0490838,-0.0484232,0.105964,0.000963526,0,0,0,0,0,0,0,0.412174,-37.7913,-0.0387439,26.2051,1.46728,1.85296,0.017502,
0.166292,0.0103111,-0.00512552,-2.02427,0.296485,0.280986,-0.0163737,0.0884288,0.00136405,0.0881737,-0.0462201,-0.155468,0.417397,0.00684777,5.06758,-0.428344,5.09245,-5.67343,-6.22946,26.3978,0.631548,0,0,0,0,0,0,0,0.163792,0.0103939,-0.00782022,-2.02226,0.302256,0.263061,-0.0169174,0.102576,-0.0201652,-0.00142529,-0.070261,-0.0875351,0.147919,0.000266547,14.2218,-6.00642,-16.5628,-2.64715,-4.88898,5.24445,-0.0871223,-0.424923,-32.7727,-0.435472,26.3797,1.39404,2.42974,0.050461,
0.167271,0.0102934,-0.00414965,-2.02486,0.294915,0.28551,-0.016286,0.0951948,0.000649577,0.0949356,-0.0518077,-0.163609,0.447007,0.00767231,4.22876,-0.446549,4.22617,-3.49225,-5.08818,18.5059,0.515339,0,0,0,0,0,0,0,0.163792,0.0103939,-0.00782022,-2.02226,0.302256,0.263061,-0.0169174,0.102576,-0.0201652,-0.00142529,-0.070261,-0.0875351,0.147919,0.000266547,0,0,0,0,0,0,0,-0.424923,-32.7727,-0.435472,26.3797,1.39404,2.42974,0.050461,
0.168244,0.0102668,-0.0031789,-2.0254,0.293498,0.289768,-0.016195,0.10049,-0.000144594,0.100217,-0.0550486,-0.166322,0.464053,0.008411,3.3095,-0.496357,3.30108,-2.02559,-1.69554,10.654,0.461683,0,0,0,0,0,0,0,0.163792,0.0103939,-0.00782022,-2.02226,0.302256,0.263061,-0.0169174,0.102576,-0.0201652,-0.00142529,-0.070261,-0.0875351,0.147919,0.000266547,0,0,0,0,0,0,0,-0.424923,-32.7727,-0.435472,26.3797,1.39404,2.42974,0.050461,
0.1692,0.0102315,-0.00222527,-2.02591,0.292361,0.293701,-0.016111,0.104298,-0.000999126,0.104015,-0.0567393,-0.161489,0.46958,0.00882883,2.38014,-0.534082,2.37325,-1.05669,3.02093,3.45423,0.261143,0,0,0,0,0,0,0,0.163792,0.0103939,-0.00782022,-2.02226,0.302256,0.263061,-0.0169174,0.102576,-0.0201652,-0.00142529,-0.070261,-0.0875351,0.147919,0.000266547,0,0,0,0,0,0,0,-0.424923,-32.7727,-0.435472,26.3797,1.39404,2.42974,0.050461,
0.168296,0.00988668,-0.0033175,-2.02669,0.294382,0.286385,-0.0163317,0.108927,-0.00110176,0.108669,-0.0642928,-0.165564,0.498875,0.00942009,2.89275,-0.0641447,2.90932,-4.72092,-2.5468,18.3092,0.369535,0,0,0,0,0,0,0,0.16564,0.011445,-0.00588452,-2.02372,0.298885,0.270152,-0.0169075,0.0398486,0.0792873,0.0967522,-0.0286859,-0.128003,0.294709,0.00178385,-7.84094,12.4316,12.2722,5.19689,-5.05846,18.3487,0.189662,0.511356,-36.2163,0.461134,27.7484,1.26495,3.03948,-0.00996382,
0.169337,0.00988839,-0.00227719,-2.02739,0.292934,0.291146,-0.0162385,0.113177,-0.000838652,0.112943,-0.0690833,-0.168646,0.518139,0.00986546,2.65624,0.164441,2.67118,-2.99404,-1.92661,12.0402,0.278361,0,0,0,0,0,0,0,0.16564,0.011445,-0.00588452,-2.02372,0.298885,0.270152,-0.0169075,0.0398486,0.0792873,0.0967522,-0.0286859,-0.128003,0.294709,0.00178385,0,0,0,0,0,0,0,0.511356,-36.2163,0.461134,27.7484,1.26495,3.03948,-0.00996382,
0.170384,0.00989771,-0.00123148,-2.02806,0.291618,0.29563,-0.0161445,0.116706,-0.000437995,0.116497,-0.071941,-0.167817,0.526598,0.0102423,2.20614,0.25041,2.2212,-1.78605,0.518522,5.2871,0.235526,0,0,0,0,0,0,0,0.16564,0.011445,-0.00588452,-2.02372,0.298885,0.270152,-0.0169075,0.0398486,0.0792873,0.0967522,-0.0286859,-0.128003,0.294709,0.00178385,0,0,0,0,0,0,0,0.511356,-36.2163,0.461134,27.7484,1.26495,3.03948,-0.00996382,
0.171423,0.00991201,-0.000192441,-2.0287,0.290523,0.299774,-0.0160558,0.119357,7.18006e-06,0.119174,-0.0734856,-0.161634,0.524882,0.010412,1.65638,0.278235,1.67287,-0.965376,3.86407,-1.07276,0.106064,0,0,0,0,0,0,0,0.16564,0.011445,-0.00588452,-2.02372,0.298885,0.270152,-0.0169075,0.0398486,0.0792873,0.0967522,-0.0286859,-0.128003,0.294709,0.00178385,0,0,0,0,0,0,0,0.511356,-36.2163,0.461134,27.7484,1.26495,3.03948,-0.00996382,
0.170406,0.0118839,-0.00111034,-2.02913,0.292038,0.296398,-0.0163317,0.121932,0.00063949,0.121707,-0.083458,-0.159723,0.54924,0.0107493,1.60955,0.395194,1.5831,-6.23279,1.19423,15.224,0.210798,0,0,0,0,0,0,0,0.16564,0.011445,-0.00588452,-2.02372,0.298885,0.270152,-0.0169075,0.0398486,0.0792873,0.0967522,-0.0286859,-0.128003,0.294709,0.00178385,0,0,0,0,0,0,0,0.511356,-36.2163,0.461134,27.7484,1.26495,3.03948,-0.00996382,
0.171482,0.0118882,-3.79547e-05,-2.03006,0.29084,0.30129,-0.0162348,0.124438,0.000617815,0.124175,-0.0900752,-0.157741,0.561704,0.0110231,1.5665,-0.013547,1.54265,-4.13574,1.23878,7.78992,0.17113,0,0,0,0,0,0,0,0.167536,0.0114896,-0.00308627,-2.02596,0.29449,0.282169,-0.0169104,0.0704585,-0.0431244,0.0874874,-0.0932996,-0.154115,0.400265,0.000769632,3.82624,-15.3015,-1.15809,-8.07672,-3.26398,13.1945,-0.126777,2.16175,-34.2961,1.7624,26.2051,1.44256,2.76757,0.0376436,
0.172562,0.0118732,0.00103852,-2.03095,0.289738,0.305866,-0.0161353,0.126551,0.000120264,0.126252,-0.0944093,-0.153723,0.563753,0.0113061,1.32038,-0.31097,1.29809,-2.70881,2.51167,1.2808,0.176897,0,0,0,0,0,0,0,0.167536,0.0114896,-0.00308627,-2.02596,0.29449,0.282169,-0.0169104,0.0704585,-0.0431244,0.0874874,-0.0932996,-0.154115,0.400265,0.000769632,0,0,0,0,0,0,0,2.16175,-34.2961,1.7624,26.2051,1.44256,2.76757,0.0376436,
0.173634,0.0118428,0.00210707,-2.03182,0.288806,0.310113,-0.0160436,0.128045,-0.000663784,0.127715,-0.0972022,-0.146289,0.557181,0.0113377,0.933852,-0.49003,0.914541,-1.74557,4.64574,-4.10794,0.019722,0,0,0,0,0,0,0,0.167536,0.0114896,-0.00308627,-2.02596,0.29449,0.282169,-0.0169104,0.0704585,-0.0431244,0.0874874,-0.0932996,-0.154115,0.400265,0.000769632,0,0,0,0,0,0,0,2.16175,-34.2961,1.7624,26.2051,1.44256,2.76757,0.0376436,
0.172487,0.0103745,0.00186428,-2.0315,0.28777,0.308059,-0.0163423,0.129446,-0.00331191,0.129114,-0.103748,-0.146426,0.572308,0.0112946,0.875389,-1.65508,0.873917,-4.09092,-0.0852329,9.45462,-0.0269339,0,0,0,0,0,0,0,0.167536,0.0114896,-0.00308627,-2.02596,0.29449,0.282169,-0.0169104,0.0704585,-0.0431244,0.0874874,-0.0932996,-0.154115,0.400265,0.000769632,0,0,0,0,0,0,0,2.16175,-34.2961,1.7624,26.2051,1.44256,2.76757,0.0376436,
0.173588,0.010287,0.00296203,-2.0325,0.286476,0.312927,-0.0162567,0.131084,-0.00483679,0.130735,-0.108228,-0.149487,0.579561,0.0111779,1.02397,-0.953051,1.01313,-2.80015,-1.91295,4.53331,-0.072918,0,0,0,0,0,0,0,0.170983,0.0119433,-0.000639149,-2.02847,0.289676,0.297061,-0.0169117,0.143122,0.0569098,0.045144,-0.0557882,-0.147255,0.458566,-0.00108721,9.08295,12.5043,-5.29293,4.68893,0.857433,7.28761,-0.232106,0.765262,-34.5699,1.03639,26.5305,1.72363,2.20452,0.0843355,
0.174695,0.0102158,0.0040661,-2.03349,0.285169,0.317533,-0.0161778,0.132552,-0.00565106,0.132189,-0.111231,-0.152285,0.578798,0.0109145,0.917233,-0.508917,0.90927,-1.87666,-1.74935,-0.477029,-0.164642,0,0,0,0,0,0,0,0.170983,0.0119433,-0.000639149,-2.02847,0.289676,0.297061,-0.0169117,0.143122,0.0569098,0.045144,-0.0557882,-0.147255,0.458566,-0.00108721,0,0,0,0,0,0,0,0.765262,-34.5699,1.03639,26.5305,1.72363,2.20452,0.0843355,
0.175802,0.0101556,0.00516981,-2.03446,0.283889,0.321849,-0.0161028,0.133715,-0.00602508,0.133344,-0.113178,-0.153824,0.570936,0.0106066,0.727254,-0.233768,0.721812,-1.21688,-0.961764,-4.91367,-0.192429,0,0,0,0,0,0,0,0.170983,0.0119433,-0.000639149,-2.02847,0.289676,0.297061,-0.0169117,0.143122,0.0569098,0.045144,-0.0557882,-0.147255,0.458566,-0.00108721,0,0,0,0,0,0,0,0.765262,-34.5699,1.03639,26.5305,1.72363,2.20452,0.0843355,
0.176131,0.0121416,0.00450191,-2.03475,0.28279,0.322893,-0.0164298,0.134578,-0.00477974,0.134237,-0.121199,-0.158403,0.577319,0.01059,0.539095,0.778343,0.557662,-5.01334,-2.86184,3.98921,-0.0103872,0,0,0,0,0,0,0,0.170983,0.0119433,-0.000639149,-2.02847,0.289676,0.297061,-0.0169117,0.143122,0.0569098,0.045144,-0.0557882,-0.147255,0.458566,-0.00108721,0,0,0,0,0,0,0,0.765262,-34.5699,1.03639,26.5305,1.72363,2.20452,0.0843355,
0.177243,0.0121315,0.00561163,-2.03594,0.281456,0.32739,-0.01635,0.135457,-0.00407552,0.135132,-0.126931,-0.160083,0.574291,0.0104687,0.549764,0.440137,0.559818,-3.5827,-1.04973,-1.89238,-0.0757913,0,0,0,0,0,0,0,0.173861,0.0123891,0.00329829,-2.03139,0.285257,0.314295,-0.0169086,0.0181737,-0.0148536,0.189655,-0.115244,-0.13415,0.536372,-0.0016293,-15.6186,-8.97043,18.0639,-7.43196,1.63809,9.7258,-0.0677608,1.27307,-35.768,1.13954,27.1255,1.83349,2.05804,0.0980684,
0.178356,0.0121106,0.00672279,-2.03712,0.28021,0.331565,-0.016274,0.136201,-0.00378459,0.135885,-0.13096,-0.159221,0.563796,0.0102731,0.465061,0.181829,0.47021,-2.51777,0.538743,-6.55966,-0.122272,0,0,0,0,0,0,0,0.173861,0.0123891,0.00329829,-2.03139,0.285257,0.314295,-0.0169086,0.0181737,-0.0148536,0.189655,-0.115244,-0.13415,0.536372,-0.0016293,0,0,0,0,0,0,0,1.27307,-35.768,1.13954,27.1255,1.83349,2.05804,0.0980684,
0.179467,0.01208,0.00783147,-2.03828,0.279052,0.335431,-0.0162017,0.136738,-0.00379098,0.136425,-0.133719,-0.156324,0.547686,0.0100259,0.335168,-0.00398978,0.337608,-1.72482,1.8107,-10.0688,-0.154486,0,0,0,0,0,0,0,0.173861,0.0123891,0.00329829,-2.03139,0.285257,0.314295,-0.0169086,0.0181737,-0.0148536,0.189655,-0.115244,-0.13415,0.536372,-0.0016293,0,0,0,0,0,0,0,1.27307,-35.768,1.13954,27.1255,1.83349,2.05804,0.0980684,
0.179141,0.0115678,0.00858418,-2.03801,0.27906,0.338243,-0.016455,0.137323,-0.00587298,0.136983,-0.139646,-0.153662,0.546523,0.0099901,0.366088,-1.30125,0.348863,-3.70422,1.66374,-0.726717,-0.0223807,0,0,0,0,0,0,0,0.173861,0.0123891,0.00329829,-2.03139,0.285257,0.314295,-0.0169086,0.0181737,-0.0148536,0.189655,-0.115244,-0.13415,0.536372,-0.0016293,0,0,0,0,0,0,0,1.27307,-35.768,1.13954,27.1255,1.83349,2.05804,0.0980684,
0.180264,0.0114688,0.00970267,-2.0393,0.278006,0.342282,-0.0163809,0.137915,-0.00717305,0.137548,-0.143991,-0.149294,0.538198,0.00984471,0.369776,-0.812542,0.353425,-2.71552,2.7298,-5.20297,-0.090869,0,0,0,0,0,0,0,0.176938,0.0125264,0.00768717,-2.03489,0.281063,0.332409,-0.0169081,0.0446337,0.0248396,0.186905,-0.0982034,-0.132338,0.528563,-0.00237039,3.30751,4.96166,-0.343809,2.13006,0.226591,-0.976076,-0.0926368,2.18555,-34.07,1.48866,25.3601,1.71081,2.06536,0.0980684,
0.181386,0.0113806,0.0108207,-2.04058,0.277036,0.346039,-0.0163109,0.138379,-0.00794311,0.13799,-0.147122,-0.143682,0.524487,0.00962631,0.29016,-0.481287,0.275908,-1.95696,3.50758,-8.56946,-0.136503,0,0,0,0,0,0,0,0.176938,0.0125264,0.00768717,-2.03489,0.281063,0.332409,-0.0169081,0.0446337,0.0248396,0.186905,-0.0982034,-0.132338,0.528563,-0.00237039,0,0,0,0,0,0,0,2.18555,-34.07,1.48866,25.3601,1.71081,2.06536,0.0980684,
0.182504,0.0113007,0.0119348,-2.04185,0.276142,0.349534,-0.0162446,0.138652,-0.0083523,0.138244,-0.149314,-0.1373,0.506979,0.00936,0.17047,-0.255744,0.158646,-1.36997,3.98853,-10.9428,-0.166443,0,0,0,0,0,0,0,0.176938,0.0125264,0.00768717,-2.03489,0.281063,0.332409,-0.0169081,0.0446337,0.0248396,0.186905,-0.0982034,-0.132338,0.528563,-0.00237039,0,0,0,0,0,0,0,2.18555,-34.07,1.48866,25.3601,1.71081,2.06536,0.0980684,
0.182117,0.0122723,0.0128664,-2.04108,0.2763,0.351785,-0.0165525,0.137622,-0.00831168,0.137206,-0.15061,-0.131493,0.488985,0.00909111,-0.643873,0.0253828,-0.648368,-0.81004,3.62935,-11.2457,-0.168053,0,0,0,0,0,0,0,0.176938,0.0125264,0.00768717,-2.03489,0.281063,0.332409,-0.0169081,0.0446337,0.0248396,0.186905,-0.0982034,-0.132338,0.528563,-0.00237039,0,0,0,0,0,0,0,2.18555,-34.07,1.48866,25.3601,1.71081,2.06536,0.0980684,
0.183187,0.0122097,0.0139321,-2.04232,0.275487,0.354891,-0.0164918,0.136833,-0.00821272,0.136408,-0.151394,-0.125534,0.468835,0.00879103,-0.493378,0.0618507,-0.498957,-0.489798,3.72447,-12.5942,-0.187553,0,0,0,0,0,0,0,0.180706,0.012837,0.0114938,-2.0386,0.276857,0.350006,-0.016904,0.153918,-0.00665808,0.0805837,-0.124206,-0.127728,0.505555,-0.000240067,13.6605,-3.93721,-13.2901,-3.25038,0.576247,-2.87601,0.266291,1.60236,-35.6926,0.961012,25.856,1.57714,2.15783,0.0577852,
0.184254,0.0121502,0.0149955,-2.04354,0.27472,0.357794,-0.0164341,0.136145,-0.00805713,0.135712,-0.151756,-0.119599,0.447648,0.0084753,-0.42944,0.0972466,-0.434981,-0.226272,3.70956,-13.2418,-0.197331,0,0,0,0,0,0,0,0.180706,0.012837,0.0114938,-2.0386,0.276857,0.350006,-0.016904,0.153918,-0.00665808,0.0805837,-0.124206,-0.127728,0.505555,-0.000240067,0,0,0,0,0,0,0,1.60236,-35.6926,0.961012,25.856,1.57714,2.15783,0.0577852,
0.185316,0.0120939,0.016054,-2.04476,0.273992,0.36052,-0.0163791,0.135473,-0.00785363,0.135032,-0.151767,-0.113862,0.426256,0.0081541,-0.420124,0.127184,-0.425114,-0.00674431,3.58534,-13.3696,-0.200747,0,0,0,0,0,0,0,0.180706,0.012837,0.0114938,-2.0386,0.276857,0.350006,-0.016904,0.153918,-0.00665808,0.0805837,-0.124206,-0.127728,0.505555,-0.000240067,0,0,0,0,0,0,0,1.60236,-35.6926,0.961012,25.856,1.57714,2.15783,0.0577852,
0.186645,0.0122622,0.017407,-2.04541,0.272142,0.368176,-0.0165813,0.13337,-0.00824884,0.13293,-0.149943,-0.108263,0.403067,0.00773116,-1.31441,-0.247004,-1.31355,1.13988,3.49932,-14.4936,-0.26434,0,0,0,0,0,0,0,0.180706,0.012837,0.0114938,-2.0386,0.276857,0.350006,-0.016904,0.153918,-0.00665808,0.0805837,-0.124206,-0.127728,0.505555,-0.000240067,0,0,0,0,0,0,0,1.60236,-35.6926,0.961012,25.856,1.57714,2.15783,0.0577852,
0.187641,0.0121914,0.0183997,-2.04655,0.271477,0.370517,-0.0165351,0.131603,-0.00836789,0.131163,-0.148316,-0.103247,0.380984,0.0073409,-1.10445,-0.0744022,-1.10431,1.01677,3.1354,-13.8016,-0.243911,0,0,0,0,0,0,0,0.185118,0.0126743,0.0151673,-2.04314,0.273111,0.366448,-0.0169017,0.218874,-0.00152265,0.0246509,-0.136285,-0.101014,0.453688,0.000335883,8.11943,0.641929,-6.99161,-1.50984,3.33924,-6.4834,0.0719937,-0.198788,-32.8996,-0.411669,24.3365,1.22284,2.2503,0.0376436,
0.188632,0.0121278,0.019387,-2.04767,0.270827,0.372739,-0.0164908,0.130052,-0.00828486,0.129612,-0.146796,-0.0988295,0.36032,0.00698019,-0.969191,0.0518931,-0.969396,0.949707,2.76084,-12.9151,-0.225443,0,0,0,0,0,0,0,0.185118,0.0126743,0.0151673,-2.04314,0.273111,0.366448,-0.0169017,0.218874,-0.00152265,0.0246509,-0.136285,-0.101014,0.453688,0.000335883,0,0,0,0,0,0,0,-0.198788,-32.8996,-0.411669,24.3365,1.22284,2.2503,0.0376436,
0.189615,0.0120705,0.0203671,-2.04879,0.27019,0.374857,-0.0164483,0.128632,-0.0080599,0.128192,-0.14532,-0.094997,0.341221,0.00664534,-0.887562,0.140599,-0.887864,0.922839,2.39526,-11.937,-0.209286,0,0,0,0,0,0,0,0.185118,0.0126743,0.0151673,-2.04314,0.273111,0.366448,-0.0169017,0.218874,-0.00152265,0.0246509,-0.136285,-0.101014,0.453688,0.000335883,0,0,0,0,0,0,0,-0.198788,-32.8996,-0.411669,24.3365,1.22284,2.2503,0.0376436,
0.190001,0.0123835,0.0200146,-2.04865,0.269613,0.379701,-0.0166734,0.127101,-0.00798534,0.126661,-0.143657,-0.0922416,0.328979,0.00637766,-0.956964,0.0466009,-0.956419,1.03954,1.72214,-7.6513,-0.167299,0,0,0,0,0,0,0,0.185118,0.0126743,0.0151673,-2.04314,0.273111,0.366448,-0.0169017,0.218874,-0.00152265,0.0246509,-0.136285,-0.101014,0.453688,0.000335883,0,0,0,0,0,0,0,-0.198788,-32.8996,-0.411669,24.3365,1.22284,2.2503,0.0376436,
0.190962,0.0123261,0.0209728,-2.04974,0.268976,0.381816,-0.0166326,0.125723,-0.00782305,0.125283,-0.142129,-0.0897255,0.316047,0.00612149,-0.861562,0.101429,-0.861191,0.955099,1.57259,-8.08215,-0.160107,0,0,0,0,0,0,0,0.185118,0.0126743,0.0151673,-2.04314,0.273111,0.366448,-0.0169017,0.218874,-0.00152265,0.0246509,-0.136285,-0.101014,0.453688,0.000335883,0,0,0,0,0,0,0,-0.198788,-32.8996,-0.411669,24.3365,1.22284,2.2503,0.0376436,
0.191916,0.0122733,0.0219235,-2.05081,0.268348,0.383827,-0.0165935,0.124434,-0.00757655,0.123995,-0.140658,-0.0874861,0.303116,0.00587571,-0.805683,0.154064,-0.805397,0.918927,1.3996,-8.08193,-0.15361,0,0,0,0,0,0,0,0.189639,0.0127711,0.019178,-2.04774,0.270525,0.379994,-0.01691,0.225388,-0.0091182,0.0219996,-0.133388,-0.0651199,0.355827,-0.00267618,0.814286,-0.949444,-0.331409,0.362179,4.48673,-12.2326,-0.376508,-1.46435,-34.5223,-1.38762,25.4077,1.17981,2.24389,0.110886,
0.192862,0.0122253,0.0228656,-2.05188,0.267726,0.385751,-0.0165559,0.123187,-0.00726133,0.122749,-0.139193,-0.0855306,0.2906,0.00563982,-0.778986,0.197012,-0.7787,0.916077,1.22217,-7.823,-0.147429,0,0,0,0,0,0,0,0.189639,0.0127711,0.019178,-2.04774,0.270525,0.379994,-0.01691,0.225388,-0.0091182,0.0219996,-0.133388,-0.0651199,0.355827,-0.00267618,0,0,0,0,0,0,0,-1.46435,-34.5223,-1.38762,25.4077,1.17981,2.24389,0.110886,
0.195334,0.0123911,0.0248324,-2.05389,0.267034,0.392595,-0.0166927,0.121452,-0.00709218,0.121013,-0.136489,-0.0832195,0.277563,0.00533609,-1.08417,0.105715,-1.08467,1.68957,1.44449,-8.14781,-0.189831,0,0,0,0,0,0,0,0.189639,0.0127711,0.019178,-2.04774,0.270525,0.379994,-0.01691,0.225388,-0.0091182,0.0219996,-0.133388,-0.0651199,0.355827,-0.00267618,0,0,0,0,0,0,0,-1.46435,-34.5223,-1.38762,25.4077,1.17981,2.24389,0.110886,
0.196238,0.0123455,0.0257326,-2.05489,0.266441,0.394327,-0.0166611,0.119754,-0.00681463,0.119315,-0.134029,-0.0814082,0.265351,0.00505912,-1.06139,0.173473,-1.06126,1.53744,1.13203,-7.63233,-0.173111,0,0,0,0,0,0,0,0.189639,0.0127711,0.019178,-2.04774,0.270525,0.379994,-0.01691,0.225388,-0.0091182,0.0219996,-0.133388,-0.0651199,0.355827,-0.00267618,0,0,0,0,0,0,0,-1.46435,-34.5223,-1.38762,25.4077,1.17981,2.24389,0.110886,
0.197129,0.0123051,0.0266202,-2.05587,0.265847,0.395998,-0.0166309,0.118081,-0.00646124,0.117643,-0.13173,-0.079971,0.254041,0.00480369,-1.04577,0.220867,-1.04519,1.43731,0.898228,-7.06877,-0.159641,0,0,0,0,0,0,0,0.193823,0.0128047,0.0232433,-2.05236,0.268395,0.391153,-0.0169095,0.15371,0.000152037,0.0666609,-0.130064,-0.0673012,0.285976,-0.000601446,-8.95968,1.15878,5.58266,0.41545,-0.272665,-8.73143,0.259342,-1.3374,-34.796,-0.887743,25.3839,1.12487,2.23748,0.0641939,
0.194418,0.0124424,0.0239198,-2.05289,0.267626,0.390792,-0.0167257,0.117675,-0.00659954,0.117235,-0.130773,-0.0787107,0.250428,0.00470179,-0.253658,-0.0864355,-0.254811,0.597707,0.787692,-2.25808,-0.0636853,0,0,0,0,0,0,0,0.193823,0.0128047,0.0232433,-2.05236,0.268395,0.391153,-0.0169095,0.15371,0.000152037,0.0666609,-0.130064,-0.0673012,0.285976,-0.000601446,0,0,0,0,0,0,0,-1.3374,-34.796,-0.887743,25.3839,1.12487,2.23748,0.0641939,
0.199051,0.0126651,0.028444,-2.05827,0.26472,0.401943,-0.016721,0.115425,-0.00591503,0.114989,-0.12836,-0.0782394,0.240144,0.00445743,-1.40608,0.427818,-1.40393,1.50833,0.294568,-6.42771,-0.152726,0,0,0,0,0,0,0,0.193823,0.0128047,0.0232433,-2.05236,0.268395,0.391153,-0.0169095,0.15371,0.000152037,0.0666609,-0.130064,-0.0673012,0.285976,-0.000601446,0,0,0,0,0,0,0,-1.3374,-34.796,-0.887743,25.3839,1.12487,2.23748,0.0641939,
0.199893,0.0126417,0.0292818,-2.0592,0.264115,0.403482,-0.0166945,0.113369,-0.00531837,0.112936,-0.126033,-0.0777088,0.230569,0.00422843,-1.28498,0.372913,-1.28332,1.45446,0.331661,-5.98413,-0.143127,0,0,0,0,0,0,0,0.193823,0.0128047,0.0232433,-2.05236,0.268395,0.391153,-0.0169095,0.15371,0.000152037,0.0666609,-0.130064,-0.0673012,0.285976,-0.000601446,0,0,0,0,0,0,0,-1.3374,-34.796,-0.887743,25.3839,1.12487,2.23748,0.0641939,
0.200723,0.0126204,0.0301087,-2.06012,0.263517,0.404971,-0.0166693,0.111451,-0.00478777,0.11102,-0.123759,-0.0771141,0.221703,0.004012,-1.19886,0.331623,-1.1975,1.42094,0.371682,-5.54167,-0.13527,0,0,0,0,0,0,0,0.197405,0.0128685,0.0273647,-2.05675,0.266435,0.399583,-0.016905,0.0551651,0.00287939,0.169173,-0.128403,-0.0625414,0.218991,0.000915874,-12.3182,0.340919,12.814,0.207595,0.594983,-8.37311,0.189665,0.435978,-35.0697,0.663466,25.983,1.21002,2.4096,0.0239107,
0.201678,0.0128803,0.0316304,-2.06149,0.263595,0.407166,-0.0167727,0.109864,-0.00396932,0.10943,-0.121742,-0.0761435,0.212822,0.00380597,-0.99234,0.511532,-0.993701,1.26089,0.606598,-5.55036,-0.128767,0,0,0,0,0,0,0,0.197405,0.0128685,0.0273647,-2.05675,0.266435,0.399583,-0.016905,0.0551651,0.00287939,0.169173,-0.128403,-0.0625414,0.218991,0.000915874,0,0,0,0,0,0,0,0.435978,-35.0697,0.663466,25.983,1.21002,2.4096,0.0239107,
0.202492,0.0128738,0.0324411,-2.06238,0.263021,0.408547,-0.0167501,0.108248,-0.00333955,0.107813,-0.119651,-0.0752739,0.20477,0.00360874,-1.00979,0.393603,-1.0106,1.30655,0.543537,-5.03288,-0.123267,0,0,0,0,0,0,0,0.197405,0.0128685,0.0273647,-2.05675,0.266435,0.399583,-0.016905,0.0551651,0.00287939,0.169173,-0.128403,-0.0625414,0.218991,0.000915874,0,0,0,0,0,0,0,0.435978,-35.0697,0.663466,25.983,1.21002,2.4096,0.0239107,
0.203293,0.0128669,0.0332381,-2.06325,0.262452,0.409891,-0.0167288,0.10661,-0.00284435,0.106175,-0.117502,-0.0744432,0.197431,0.0034197,-1.02342,0.309503,-1.02375,1.34359,0.519176,-4.58651,-0.118149,0,0,0,0,0,0,0,0.197405,0.0128685,0.0273647,-2.05675,0.266435,0.399583,-0.016905,0.0551651,0.00287939,0.169173,-0.128403,-0.0625414,0.218991,0.000915874,0,0,0,0,0,0,0,0.435978,-35.0697,0.663466,25.983,1.21002,2.4096,0.0239107,
0.204079,0.01286,0.0340214,-2.06411,0.261889,0.411201,-0.0167088,0.104956,-0.00244654,0.104521,-0.115305,-0.0736127,0.190697,0.00323732,-1.03401,0.24863,-1.03395,1.37308,0.519047,-4.20868,-0.113989,0,0,0,0,0,0,0,0.200654,0.0129648,0.031543,-2.06108,0.264831,0.406006,-0.0169084,-0.00368144,0.00509361,0.216322,-0.123992,-0.0449895,0.174145,-0.000729721,-7.35581,0.276777,5.89361,0.551435,2.19398,-5.60576,-0.205699,0.689884,-34.6452,0.512709,25.7568,1.06994,2.63482,0.050461,
0.205402,0.013089,0.0362904,-2.06625,0.261765,0.413457,-0.0167897,0.102807,-0.00175566,0.10237,-0.112375,-0.0721954,0.182003,0.00300157,-1.34325,0.431801,-1.34423,1.83116,0.885802,-5.43392,-0.147349,0,0,0,0,0,0,0,0.200654,0.0129648,0.031543,-2.06108,0.264831,0.406006,-0.0169084,-0.00368144,0.00509361,0.216322,-0.123992,-0.0449895,0.174145,-0.000729721,0,0,0,0,0,0,0,0.689884,-34.6452,0.512709,25.7568,1.06994,2.63482,0.050461,
0.206141,0.013095,0.0370253,-2.06704,0.261238,0.414608,-0.0167744,0.100707,-0.00125479,0.100269,-0.109506,-0.0709412,0.174383,0.00278275,-1.31254,0.313039,-1.31299,1.79322,0.783895,-4.76264,-0.13676,0,0,0,0,0,0,0,0.200654,0.0129648,0.031543,-2.06108,0.264831,0.406006,-0.0169084,-0.00368144,0.00509361,0.216322,-0.123992,-0.0449895,0.174145,-0.000729721,0,0,0,0,0,0,0,0.689884,-34.6452,0.512709,25.7568,1.06994,2.63482,0.050461,
0.206864,0.0130996,0.0377453,-2.0678,0.260716,0.415732,-0.0167603,0.0986532,-0.000889423,0.0982155,-0.106694,-0.0697863,0.167593,0.00257886,-1.28344,0.228357,-1.28346,1.75731,0.721784,-4.2433,-0.127431,0,0,0,0,0,0,0,0.200654,0.0129648,0.031543,-2.06108,0.264831,0.406006,-0.0169084,-0.00368144,0.00509361,0.216322,-0.123992,-0.0449895,0.174145,-0.000729721,0,0,0,0,0,0,0,0.689884,-34.6452,0.512709,25.7568,1.06994,2.63482,0.050461,
0.207573,0.0131032,0.0384507,-2.06855,0.260202,0.416827,-0.0167474,0.0966433,-0.000620381,0.0962061,-0.103937,-0.0686964,0.161447,0.00238717,-1.2562,0.168151,-1.25588,1.72338,0.681239,-3.84173,-0.119803,0,0,0,0,0,0,0,0.203732,0.0131201,0.0356315,-2.06503,0.263223,0.41115,-0.01691,0.0373008,0.0132066,0.179626,-0.103048,-0.0503549,0.130046,-0.00168843,5.12278,1.01412,-4.58697,2.61794,-0.670672,-5.51238,-0.119839,0.919986,-34.9944,0.286573,25.9314,0.984799,2.72179,0.0577852,
0.207634,0.0133056,0.0395266,-2.06903,0.260925,0.416482,-0.0168378,0.0956815,-8.10541e-06,0.0952367,-0.102065,-0.0670502,0.155149,0.00222766,-0.601082,0.382672,-0.605876,1.16964,1.02883,-3.93589,-0.0996939,0,0,0,0,0,0,0,0.203732,0.0131201,0.0356315,-2.06503,0.263223,0.41115,-0.01691,0.0373008,0.0132066,0.179626,-0.103048,-0.0503549,0.130046,-0.00168843,0,0,0,0,0,0,0,0.919986,-34.9944,0.286573,25.9314,0.984799,2.72179,0.0577852,
0.208349,0.0133212,0.0402377,-2.06977,0.260439,0.417502,-0.0168261,0.0944183,0.000382926,0.0939689,-0.100004,-0.0657936,0.149628,0.00207362,-0.789508,0.244394,-0.792376,1.28795,0.78542,-3.45077,-0.0962759,0,0,0,0,0,0,0,0.203732,0.0131201,0.0356315,-2.06503,0.263223,0.41115,-0.01691,0.0373008,0.0132066,0.179626,-0.103048,-0.0503549,0.130046,-0.00168843,0,0,0,0,0,0,0,0.919986,-34.9944,0.286573,25.9314,0.984799,2.72179,0.0577852,
0.209046,0.0133339,0.0409305,-2.07048,0.259952,0.418501,-0.0168155,0.0929457,0.000623742,0.0924939,-0.0978084,-0.0648024,0.144681,0.00192402,-0.92042,0.15051,-0.921888,1.37252,0.619502,-3.09215,-0.0935035,0,0,0,0,0,0,0,0.203732,0.0131201,0.0356315,-2.06503,0.263223,0.41115,-0.01691,0.0373008,0.0132066,0.179626,-0.103048,-0.0503549,0.130046,-0.00168843,0,0,0,0,0,0,0,0.919986,-34.9944,0.286573,25.9314,0.984799,2.72179,0.0577852,
0.209725,0.0133445,0.0416058,-2.07117,0.259465,0.419477,-0.0168059,0.091331,0.0007642,0.0908785,-0.095517,-0.0640079,0.140149,0.00177914,-1.00914,0.0877859,-1.00961,1.43215,0.496546,-2.83233,-0.0905481,0,0,0,0,0,0,0,0.207237,0.0132557,0.0386909,-2.06863,0.261844,0.415021,-0.0169129,0.0733896,0.00464346,0.112311,-0.100434,-0.0482511,0.104164,-0.000727225,4.51109,-1.07039,-8.41433,0.326752,0.262972,-3.23527,0.120151,0.717655,-35.0935,-0.110155,25.733,1.09466,2.5689,0.050461,
0.211324,0.0134099,0.0427605,-2.07283,0.258778,0.420342,-0.0168556,0.0890141,0.00104635,0.0885623,-0.0924009,-0.0647311,0.134066,0.00159295,-1.4481,0.176343,-1.4476,1.94754,-0.452037,-3.80155,-0.116369,0,0,0,0,0,0,0,0.207237,0.0132557,0.0386909,-2.06863,0.261844,0.415021,-0.0169129,0.0733896,0.00464346,0.112311,-0.100434,-0.0482511,0.104164,-0.000727225,0,0,0,0,0,0,0,0.717655,-35.0935,-0.110155,25.733,1.09466,2.5689,0.050461,
0.211946,0.0134252,0.0433787,-2.07344,0.25823,0.421205,-0.0168497,0.0867566,0.00122017,0.0863061,-0.0893591,-0.0654873,0.128821,0.00142214,-1.41095,0.108639,-1.41016,1.90115,-0.472619,-3.2782,-0.106756,0,0,0,0,0,0,0,0.207237,0.0132557,0.0386909,-2.06863,0.261844,0.415021,-0.0169129,0.0733896,0.00464346,0.112311,-0.100434,-0.0482511,0.104164,-0.000727225,0,0,0,0,0,0,0,0.717655,-35.0935,-0.110155,25.733,1.09466,2.5689,0.050461,
0.212552,0.0134389,0.0439814,-2.07404,0.257673,0.422051,-0.0168447,0.0845595,0.00131865,0.0841106,-0.0863917,-0.0663132,0.124211,0.0012648,-1.37319,0.061547,-1.37219,1.85463,-0.516184,-2.88153,-0.0983361,0,0,0,0,0,0,0,0.207237,0.0132557,0.0386909,-2.06863,0.261844,0.415021,-0.0169129,0.0733896,0.00464346,0.112311,-0.100434,-0.0482511,0.104164,-0.000727225,0,0,0,0,0,0,0,0.717655,-35.0935,-0.110155,25.733,1.09466,2.5689,0.050461,
0.213143,0.0134514,0.0445688,-2.07462,0.257105,0.42288,-0.0168403,0.082422,0.00136675,0.0819749,-0.0834949,-0.0672675,0.120096,0.00112078,-1.33593,0.0300651,-1.3348,1.81049,-0.596416,-2.57184,-0.0900116,0,0,0,0,0,0,0,0.210931,0.0133756,0.0413726,-2.07211,0.260573,0.418506,-0.0169167,0.179431,-0.00367051,0.00844931,-0.105711,-0.0309529,0.0896552,-0.00124358,13.2552,-1.03925,-12.9827,-0.659592,2.16228,-1.81356,-0.0645437,-0.984311,-34.3715,-1.10991,25.7092,0.990292,2.64855,0.0440523,
0.214362,0.0134726,0.0447687,-2.07534,0.256779,0.422412,-0.0168773,0.0818097,0.00157175,0.0813553,-0.0815655,-0.0762655,0.116906,0.00101214,-0.382654,0.128123,-0.387252,1.20589,-5.62375,-1.99353,-0.067905,0,0,0,0,0,0,0,0.210931,0.0133756,0.0413726,-2.07211,0.260573,0.418506,-0.0169167,0.179431,-0.00367051,0.00844931,-0.105711,-0.0309529,0.0896552,-0.00124358,0,0,0,0,0,0,0,-0.984311,-34.3715,-1.10991,25.7092,0.990292,2.64855,0.0440523,
0.214975,0.0134901,0.0453778,-2.07591,0.255842,0.423254,-0.0168734,0.0807708,0.00169475,0.0803117,-0.0794486,-0.0844229,0.114558,0.00090587,-0.649345,0.0768772,-0.652217,1.32307,-5.09839,-1.46749,-0.0664161,0,0,0,0,0,0,0,0.210931,0.0133756,0.0413726,-2.07211,0.260573,0.418506,-0.0169167,0.179431,-0.00367051,0.00844931,-0.105711,-0.0309529,0.0896552,-0.00124358,0,0,0,0,0,0,0,-0.984311,-34.3715,-1.10991,25.7092,0.990292,2.64855,0.0440523,
0.215568,0.0135061,0.0459666,-2.07646,0.25487,0.424099,-0.0168701,0.079429,0.00175722,0.0789676,-0.077199,-0.0918536,0.112776,0.000806301,-0.838592,0.0390404,-0.840062,1.40598,-4.64421,-1.11404,-0.0622309,0,0,0,0,0,0,0,0.210931,0.0133756,0.0413726,-2.07211,0.260573,0.418506,-0.0169167,0.179431,-0.00367051,0.00844931,-0.105711,-0.0309529,0.0896552,-0.00124358,0,0,0,0,0,0,0,-0.984311,-34.3715,-1.10991,25.7092,0.990292,2.64855,0.0440523,
0.216141,0.013521,0.0465363,-2.07698,0.25386,0.424946,-0.0168674,0.0778788,0.00177724,0.0774167,-0.0748581,-0.0987176,0.111395,0.000714587,-0.968908,0.0125142,-0.969323,1.46305,-4.29,-0.862959,-0.0573208,0,0,0,0,0,0,0,0.210931,0.0133756,0.0413726,-2.07211,0.260573,0.418506,-0.0169167,0.179431,-0.00367051,0.00844931,-0.105711,-0.0309529,0.0896552,-0.00124358,0,0,0,0,0,0,0,-0.984311,-34.3715,-1.10991,25.7092,0.990292,2.64855,0.0440523,
0.217731,0.0138286,0.0473653,-2.0781,0.253405,0.424617,-0.016869,0.0783566,0.00197527,0.0778892,-0.0732201,-0.115235,0.107773,0.000699034,0.298663,0.123771,0.295335,1.0238,-10.3236,-2.2636,-0.00972076,0,0,0,0,0,0,0,0.214342,0.0136165,0.0440013,-2.07518,0.259327,0.421183,-0.0169141,0.131262,0.0121378,0.0440702,-0.0855856,-0.0370977,0.0702871,0.000358854,-6.02117,1.97604,4.45261,2.51569,-0.768105,-2.42101,0.200304,-1.97216,-34.3715,-1.63756,25.8322,0.886837,2.78771,0.017502,
0.218354,0.0138462,0.047985,-2.07861,0.25188,0.425385,-0.0168645,0.0782765,0.00202176,0.0778045,-0.0713359,-0.130321,0.105405,0.000672855,-0.0500969,0.0290523,-0.052955,1.17761,-9.42869,-1.47988,-0.0163617,0,0,0,0,0,0,0,0.214342,0.0136165,0.0440013,-2.07518,0.259327,0.421183,-0.0169141,0.131262,0.0121378,0.0440702,-0.0855856,-0.0370977,0.0702871,0.000358854,0,0,0,0,0,0,0,-1.97216,-34.3715,-1.63756,25.8322,0.886837,2.78771,0.017502,
0.21896,0.0138607,0.048587,-2.07909,0.250284,0.426172,-0.0168602,0.0777678,0.00197964,0.0772926,-0.069267,-0.144147,0.104012,0.000646852,-0.317911,-0.0263219,-0.319981,1.29302,-8.64098,-0.871137,-0.0162518,0,0,0,0,0,0,0,0.214342,0.0136165,0.0440013,-2.07518,0.259327,0.421183,-0.0169141,0.131262,0.0121378,0.0440702,-0.0855856,-0.0370977,0.0702871,0.000358854,0,0,0,0,0,0,0,-1.97216,-34.3715,-1.63756,25.8322,0.886837,2.78771,0.017502,
0.219549,0.013873,0.049172,-2.07956,0.248619,0.426979,-0.0168558,0.0769361,0.00188927,0.0764587,-0.0670617,-0.156953,0.103386,0.000626293,-0.519843,-0.0564827,-0.521139,1.37836,-8.00403,-0.390892,-0.0128495,0,0,0,0,0,0,0,0.214342,0.0136165,0.0440013,-2.07518,0.259327,0.421183,-0.0169141,0.131262,0.0121378,0.0440702,-0.0855856,-0.0370977,0.0702871,0.000358854,0,0,0,0,0,0,0,-1.97216,-34.3715,-1.63756,25.8322,0.886837,2.78771,0.017502,
0.221079,0.0136139,0.051849,-2.08167,0.24862,0.428389,-0.0166837,0.0808478,-0.000114446,0.0804197,-0.0678269,-0.16558,0.107243,0.0013252,2.44485,-1.25232,2.47562,-0.47825,-5.39137,2.41048,0.436814,0,0,0,0,0,0,0,0.216562,0.0139191,0.0473241,-2.07794,0.257271,0.423229,-0.0169112,0.0089107,0.00727638,0.148297,-0.0722638,-0.0682207,0.0461276,0.00128593,-15.2939,-0.60768,13.0284,1.66522,-3.89037,-3.01994,0.115884,0.0313145,-34.796,-0.0109729,25.856,0.850216,2.79412,-0.00996382,
0.221846,0.0135477,0.0526138,-2.08221,0.24701,0.429395,-0.0166504,0.0838449,-0.00174609,0.0834565,-0.0678312,-0.172723,0.110943,0.00189241,1.87313,-1.01978,1.898,-0.00268409,-4.46439,2.31239,0.35451,0,0,0,0,0,0,0,0.216562,0.0139191,0.0473241,-2.07794,0.257271,0.423229,-0.0169112,0.0089107,0.00727638,0.148297,-0.0722638,-0.0682207,0.0461276,0.00128593,0,0,0,0,0,0,0,0.0313145,-34.796,-0.0109729,25.856,0.850216,2.79412,-0.00996382,
0.222605,0.0134807,0.0533716,-2.08273,0.245394,0.43042,-0.0166162,0.0860634,-0.00307354,0.0857089,-0.0672329,-0.178576,0.114374,0.00236867,1.3866,-0.829655,1.40775,0.373896,-3.65831,2.14426,0.297658,0,0,0,0,0,0,0,0.216562,0.0139191,0.0473241,-2.07794,0.257271,0.423229,-0.0169112,0.0089107,0.00727638,0.148297,-0.0722638,-0.0682207,0.0461276,0.00128593,0,0,0,0,0,0,0,0.0313145,-34.796,-0.0109729,25.856,0.850216,2.79412,-0.00996382,
0.223356,0.0134128,0.0541209,-2.08322,0.243779,0.431457,-0.0165813,0.0876254,-0.00415532,0.0873013,-0.0661606,-0.183227,0.117422,0.00276853,0.976264,-0.676113,0.995215,0.670223,-2.90687,1.90532,0.249916,0,0,0,0,0,0,0,0.216562,0.0139191,0.0473241,-2.07794,0.257271,0.423229,-0.0169112,0.0089107,0.00727638,0.148297,-0.0722638,-0.0682207,0.0461276,0.00128593,0,0,0,0,0,0,0,0.0313145,-34.796,-0.0109729,25.856,0.850216,2.79412,-0.00996382,
0.220628,0.0137818,0.051407,-2.08141,0.249783,0.428241,-0.0166017,0.0916047,-0.00401676,0.0913212,-0.0694222,-0.187583,0.121462,0.00360144,2.48703,0.0865965,2.51244,-2.0385,-2.72254,2.52489,0.520571,0,0,0,0,0,0,0,0.21877,0.0141129,0.0499974,-2.08044,0.253875,0.424652,-0.0169208,0.0923103,0.00340632,0.0460625,-0.0714056,-0.12581,0.0443495,-0.0018674,10.4249,-0.483757,-12.7794,0.107277,-7.19866,-0.222265,-0.394166,0.336795,-34.4469,-0.0625476,26.106,0.654293,2.90673,0.0641939,
0.221491,0.0137568,0.0522686,-2.08205,0.24817,0.429338,-0.0165465,0.0948545,-0.00383863,0.0945958,-0.0714169,-0.190386,0.124602,0.00426121,2.03115,0.111335,2.04664,-1.24674,-1.75175,1.96263,0.412353,0,0,0,0,0,0,0,0.21877,0.0141129,0.0499974,-2.08044,0.253875,0.424652,-0.0169208,0.0923103,0.00340632,0.0460625,-0.0714056,-0.12581,0.0443495,-0.0018674,0,0,0,0,0,0,0,0.336795,-34.4469,-0.0625476,26.106,0.654293,2.90673,0.0641939,
0.222353,0.0137342,0.0531285,-2.08266,0.246601,0.43042,-0.0164906,0.0974205,-0.00363581,0.0971759,-0.0723976,-0.19152,0.126722,0.00480601,1.60371,0.126759,1.61254,-0.612903,-0.708643,1.3248,0.340499,0,0,0,0,0,0,0,0.21877,0.0141129,0.0499974,-2.08044,0.253875,0.424652,-0.0169208,0.0923103,0.00340632,0.0460625,-0.0714056,-0.12581,0.0443495,-0.0018674,0,0,0,0,0,0,0,0.336795,-34.4469,-0.0625476,26.106,0.654293,2.90673,0.0641939,
0.22321,0.0137139,0.0539841,-2.08324,0.245093,0.431474,-0.016433,0.0993679,-0.00341743,0.0991299,-0.0725638,-0.190935,0.127737,0.00528496,1.21717,0.136488,1.2213,-0.103859,0.365227,0.63422,0.299349,0,0,0,0,0,0,0,0.21877,0.0141129,0.0499974,-2.08044,0.253875,0.424652,-0.0169208,0.0923103,0.00340632,0.0460625,-0.0714056,-0.12581,0.0443495,-0.0018674,0,0,0,0,0,0,0,0.336795,-34.4469,-0.0625476,26.106,0.654293,2.90673,0.0641939,
0.223611,0.0138092,0.0548195,-2.08476,0.245268,0.431386,-0.016483,0.101323,-0.00394839,0.101038,-0.0746909,-0.184511,0.131239,0.0058357,1.22205,-0.331853,1.19225,-1.32944,4.01514,2.18889,0.344209,0,0,0,0,0,0,0,0.221659,0.0144317,0.0520557,-2.08273,0.248673,0.426444,-0.0169186,0.0953084,0.0112386,0.0504995,-0.0647673,-0.154003,0.0523757,-0.00184058,0.374767,0.979032,0.55462,0.829784,-3.52414,1.00327,0.00335331,0.182071,-35.2443,0.488905,26.4313,0.697323,2.93328,0.0577852,
0.22449,0.0137604,0.0556946,-2.0854,0.244103,0.432516,-0.0164176,0.103034,-0.00437767,0.102707,-0.0757471,-0.17674,0.133248,0.00630229,1.06899,-0.268299,1.04347,-0.660176,4.85699,1.25577,0.291619,0,0,0,0,0,0,0,0.221659,0.0144317,0.0520557,-2.08273,0.248673,0.426444,-0.0169186,0.0953084,0.0112386,0.0504995,-0.0647673,-0.154003,0.0523757,-0.00184058,0,0,0,0,0,0,0,0.182071,-35.2443,0.488905,26.4313,0.697323,2.93328,0.0577852,
0.22537,0.0137112,0.0565715,-2.08602,0.243018,0.433622,-0.0163416,0.104447,-0.00473171,0.104089,-0.075981,-0.168515,0.134246,0.00694388,0.883407,-0.221272,0.863462,-0.146138,5.14048,0.623496,0.400996,0,0,0,0,0,0,0,0.221659,0.0144317,0.0520557,-2.08273,0.248673,0.426444,-0.0169186,0.0953084,0.0112386,0.0504995,-0.0647673,-0.154003,0.0523757,-0.00184058,0,0,0,0,0,0,0,0.182071,-35.2443,0.488905,26.4313,0.697323,2.93328,0.0577852,
0.226242,0.0136615,0.0574391,-2.08661,0.242068,0.434682,-0.0162871,0.105341,-0.00502798,0.10496,-0.0755538,-0.15855,0.133879,0.00691784,0.558412,-0.185168,0.544738,0.266986,6.22817,-0.229041,-0.0162779,0,0,0,0,0,0,0,0.221659,0.0144317,0.0520557,-2.08273,0.248673,0.426444,-0.0169186,0.0953084,0.0112386,0.0504995,-0.0647673,-0.154003,0.0523757,-0.00184058,0,0,0,0,0,0,0,0.182071,-35.2443,0.488905,26.4313,0.697323,2.93328,0.0577852,
0.225738,0.014214,0.0561349,-2.08667,0.242202,0.432563,-0.0164982,0.106284,-0.00516942,0.105957,-0.0793042,-0.154125,0.138623,0.00720639,0.58977,-0.0883998,0.6228,-2.34399,2.76551,2.96503,0.180346,0,0,0,0,0,0,0,0.223692,0.0145184,0.0553805,-2.08515,0.243226,0.428852,-0.0169152,0.00863069,0.00313101,0.152973,-0.0688952,-0.165498,0.0821069,-0.00144435,-10.8347,-1.01345,12.8092,-0.515987,-1.43692,3.71641,0.0495277,1.67774,-34.6214,1.23872,25.5585,0.93536,2.8344,0.0376436,
0.226634,0.0141687,0.057029,-2.0874,0.241053,0.433846,-0.0164365,0.107407,-0.00526757,0.10712,-0.0816082,-0.15203,0.142982,0.00730662,0.701985,-0.0613449,0.726997,-1.44005,1.30974,2.7241,0.0626429,0,0,0,0,0,0,0,0.223692,0.0145184,0.0553805,-2.08515,0.243226,0.428852,-0.0169152,0.00863069,0.00313101,0.152973,-0.0688952,-0.165498,0.0821069,-0.00144435,0,0,0,0,0,0,0,1.67774,-34.6214,1.23872,25.5585,0.93536,2.8344,0.0376436,
0.227537,0.0141234,0.057931,-2.0881,0.239892,0.435125,-0.0163664,0.108502,-0.00534819,0.108244,-0.082774,-0.150656,0.146365,0.00759787,0.684349,-0.0503897,0.702412,-0.72861,0.858622,2.1144,0.182033,0,0,0,0,0,0,0,0.223692,0.0145184,0.0553805,-2.08515,0.243226,0.428852,-0.0169152,0.00863069,0.00313101,0.152973,-0.0688952,-0.165498,0.0821069,-0.00144435,0,0,0,0,0,0,0,1.67774,-34.6214,1.23872,25.5585,0.93536,2.8344,0.0376436,
0.228439,0.0140782,0.058832,-2.08877,0.238786,0.436377,-0.0162875,0.109362,-0.00540694,0.109121,-0.0830639,-0.148162,0.148382,0.00805168,0.537114,-0.0367178,0.5484,-0.181174,1.55883,1.26044,0.283627,0,0,0,0,0,0,0,0.223692,0.0145184,0.0553805,-2.08515,0.243226,0.428852,-0.0169152,0.00863069,0.00313101,0.152973,-0.0688952,-0.165498,0.0821069,-0.00144435,0,0,0,0,0,0,0,1.67774,-34.6214,1.23872,25.5585,0.93536,2.8344,0.0376436,
0.227867,0.0141791,0.0595563,-2.08926,0.237361,0.436358,-0.0165129,0.109824,-0.00578567,0.109546,-0.0860756,-0.144159,0.157506,0.00820757,0.289201,-0.236707,0.265347,-1.88232,2.50142,5.70305,0.097432,0,0,0,0,0,0,0,0.226587,0.0145672,0.058355,-2.08773,0.238569,0.431671,-0.0169107,0.132846,-0.000140937,0.0452391,-0.0774764,-0.130423,0.0863648,-0.000941349,15.5269,-0.408993,-13.4667,-1.07264,4.38439,0.532227,0.0628756,1.12232,-34.5461,0.687269,25.7568,1.08825,2.79412,0.0303194,
0.228773,0.0141232,0.060459,-2.09002,0.236306,0.437926,-0.0164475,0.11052,-0.0060267,0.110205,-0.0878839,-0.141683,0.165193,0.00820103,0.434868,-0.15064,0.412,-1.13018,1.54778,4.80378,-0.00408561,0,0,0,0,0,0,0,0.226587,0.0145672,0.058355,-2.08773,0.238569,0.431671,-0.0169107,0.132846,-0.000140937,0.0452391,-0.0774764,-0.130423,0.0863648,-0.000941349,0,0,0,0,0,0,0,1.12232,-34.5461,0.687269,25.7568,1.08825,2.79412,0.0303194,
0.229686,0.0140685,0.0613678,-2.09076,0.235285,0.439474,-0.0163796,0.111228,-0.00618807,0.110884,-0.0887368,-0.138883,0.170863,0.00825882,0.442593,-0.100862,0.424414,-0.533083,1.75016,3.54378,0.0361197,0,0,0,0,0,0,0,0.226587,0.0145672,0.058355,-2.08773,0.238569,0.431671,-0.0169107,0.132846,-0.000140937,0.0452391,-0.0774764,-0.130423,0.0863648,-0.000941349,0,0,0,0,0,0,0,1.12232,-34.5461,0.687269,25.7568,1.08825,2.79412,0.0303194,
0.230946,0.0142041,0.062704,-2.09211,0.233924,0.439764,-0.0165201,0.111782,-0.00647073,0.111462,-0.0919402,-0.130117,0.178639,0.00815701,0.346351,-0.176662,0.361216,-2.00208,5.47874,4.86004,-0.06363,0,0,0,0,0,0,0,0.226587,0.0145672,0.058355,-2.08773,0.238569,0.431671,-0.0169107,0.132846,-0.000140937,0.0452391,-0.0774764,-0.130423,0.0863648,-0.000941349,0,0,0,0,0,0,0,1.12232,-34.5461,0.687269,25.7568,1.08825,2.79412,0.0303194,
0.231867,0.014145,0.0636226,-2.09292,0.233116,0.441426,-0.0164626,0.112435,-0.00665393,0.112134,-0.093792,-0.124308,0.184465,0.00796442,0.408053,-0.114498,0.420209,-1.1574,3.63039,3.64167,-0.120372,0,0,0,0,0,0,0,0.230257,0.0145571,0.0606982,-2.09035,0.234399,0.434719,-0.016901,0.173342,-0.00175045,0.00453283,-0.0798334,-0.112565,0.0963954,0.000879765,5.06199,-0.201189,-5.08829,-0.294633,2.23233,1.25383,0.227639,0.614505,-34.2961,0.814222,25.3085,0.948178,2.77489,-0.0163725,
0.23279,0.0140863,0.0645445,-2.0937,0.232307,0.443046,-0.0163967,0.113042,-0.00679023,0.112756,-0.0946187,-0.119656,0.188057,0.00801873,0.37941,-0.0851849,0.388716,-0.516681,2.90765,2.24473,0.0339467,0,0,0,0,0,0,0,0.230257,0.0145571,0.0606982,-2.09035,0.234399,0.434719,-0.016901,0.173342,-0.00175045,0.00453283,-0.0798334,-0.112565,0.0963954,0.000879765,0,0,0,0,0,0,0,0.614505,-34.2961,0.814222,25.3085,0.948178,2.77489,-0.0163725,
0.233711,0.0140278,0.0654631,-2.09446,0.231565,0.444602,-0.0163194,0.113443,-0.00689338,0.113168,-0.0946931,-0.114287,0.189345,0.00834848,0.250418,-0.0644738,0.257275,-0.0464966,3.35543,0.804821,0.206089,0,0,0,0,0,0,0,0.230257,0.0145571,0.0606982,-2.09035,0.234399,0.434719,-0.016901,0.173342,-0.00175045,0.00453283,-0.0798334,-0.112565,0.0963954,0.000879765,0,0,0,0,0,0,0,0.614505,-34.2961,0.814222,25.3085,0.948178,2.77489,-0.0163725,
0.234596,0.0141757,0.0650112,-2.0949,0.23065,0.443451,-0.016534,0.113403,-0.00700519,0.113108,-0.0974975,-0.106477,0.196069,0.00828046,-0.0248215,-0.069877,-0.0376917,-1.75277,4.88155,4.20248,-0.0425117,0,0,0,0,0,0,0,0.230257,0.0145571,0.0606982,-2.09035,0.234399,0.434719,-0.016901,0.173342,-0.00175045,0.00453283,-0.0798334,-0.112565,0.0963954,0.000879765,0,0,0,0,0,0,0,0.614505,-34.2961,0.814222,25.3085,0.948178,2.77489,-0.0163725,
0.23551,0.0141187,0.0659218,-2.09574,0.230023,0.445213,-0.0164746,0.113567,-0.0070286,0.11325,-0.099117,-0.100869,0.200906,0.00810952,0.102072,-0.0146328,0.0893315,-1.01217,3.50503,3.02354,-0.106834,0,0,0,0,0,0,0,0.230257,0.0145571,0.0606982,-2.09035,0.234399,0.434719,-0.016901,0.173342,-0.00175045,0.00453283,-0.0798334,-0.112565,0.0963954,0.000879765,0,0,0,0,0,0,0,0.614505,-34.2961,0.814222,25.3085,0.948178,2.77489,-0.0163725,
0.236426,0.0140627,0.0668348,-2.09656,0.229426,0.446918,-0.0164106,0.113757,-0.0070225,0.113425,-0.0998151,-0.095626,0.203352,0.00808736,0.11912,0.00381052,0.108962,-0.436342,3.27658,1.52889,-0.01385,0,0,0,0,0,0,0,0.23326,0.0145263,0.0639173,-2.09318,0.23071,0.438821,-0.0169029,0.0673664,-0.00324194,0.120236,-0.0895837,-0.0917355,0.142546,0.000815808,-13.2469,-0.186436,14.4628,-1.21879,2.60366,5.76878,-0.00799455,1.4516,-33.8716,1.68703,24.9118,0.843807,2.622,0.00376909,
0.237338,0.0140075,0.067744,-2.09736,0.228917,0.448548,-0.0163387,0.113812,-0.00699929,0.113471,-0.0998418,-0.0892226,0.203418,0.00826858,0.0344808,0.0145054,0.0286718,-0.016684,4.00211,0.041142,0.113261,0,0,0,0,0,0,0,0.23326,0.0145263,0.0639173,-2.09318,0.23071,0.438821,-0.0169029,0.0673664,-0.00324194,0.120236,-0.0895837,-0.0917355,0.142546,0.000815808,0,0,0,0,0,0,0,1.4516,-33.8716,1.68703,24.9118,0.843807,2.622,0.00376909,
0.237617,0.0141203,0.0682744,-2.09791,0.228161,0.448361,-0.0165502,0.113595,-0.00730368,0.113276,-0.102593,-0.0795118,0.209772,0.00802382,-0.135637,-0.190241,-0.121991,-1.71975,6.06924,3.97131,-0.152978,0,0,0,0,0,0,0,0.23326,0.0145263,0.0639173,-2.09318,0.23071,0.438821,-0.0169029,0.0673664,-0.00324194,0.120236,-0.0895837,-0.0917355,0.142546,0.000815808,0,0,0,0,0,0,0,1.4516,-33.8716,1.68703,24.9118,0.843807,2.622,0.00376909,
0.238524,0.0140538,0.06918,-2.09879,0.227792,0.450192,-0.0164981,0.113565,-0.00750417,0.113261,-0.104162,-0.0728209,0.213604,0.00772275,-0.019023,-0.125306,-0.00909498,-0.980538,4.18185,2.39481,-0.188168,0,0,0,0,0,0,0,0.23326,0.0145263,0.0639173,-2.09318,0.23071,0.438821,-0.0169029,0.0673664,-0.00324194,0.120236,-0.0895837,-0.0917355,0.142546,0.000815808,0,0,0,0,0,0,0,1.4516,-33.8716,1.68703,24.9118,0.843807,2.622,0.00376909,
0.239433,0.0139878,0.0700871,-2.09965,0.22742,0.451956,-0.0164378,0.113577,-0.00765308,0.113285,-0.104856,-0.0675735,0.214966,0.007686,0.00774412,-0.0930662,0.015213,-0.43375,3.27959,0.851456,-0.0229644,0,0,0,0,0,0,0,0.235775,0.0145388,0.0681144,-2.09636,0.228004,0.443919,-0.0168996,0.0229188,0.00251756,0.176914,-0.0998518,-0.0597557,0.166331,0.0017826,-5.55596,0.719937,7.08484,-1.2835,3.99747,2.97322,0.120848,1.57856,-34.1216,1.08797,25.4077,0.770565,2.78771,-0.0163725,
0.240338,0.0139222,0.0709896,-2.1005,0.227093,0.453643,-0.016365,0.113474,-0.007763,0.113193,-0.104937,-0.0622321,0.214149,0.00796826,-0.0643547,-0.0686999,-0.0576728,-0.0505582,3.33842,-0.511143,0.176413,0,0,0,0,0,0,0,0.235775,0.0145388,0.0681144,-2.09636,0.228004,0.443919,-0.0168996,0.0229188,0.00251756,0.176914,-0.0998518,-0.0597557,0.166331,0.0017826,0,0,0,0,0,0,0,1.57856,-34.1216,1.08797,25.4077,0.770565,2.78771,-0.0163725,
0.240202,0.0142704,0.0725436,-2.10129,0.226469,0.4535,-0.0165686,0.113408,-0.00749816,0.113107,-0.107607,-0.0548037,0.217941,0.00781558,-0.0412608,0.165519,-0.0539082,-1.66845,4.6427,2.37023,-0.0954312,0,0,0,0,0,0,0,0.235775,0.0145388,0.0681144,-2.09636,0.228004,0.443919,-0.0168996,0.0229188,0.00251756,0.176914,-0.0998518,-0.0597557,0.166331,0.0017826,0,0,0,0,0,0,0,1.57856,-34.1216,1.08797,25.4077,0.770565,2.78771,-0.0163725,
0.241109,0.0142181,0.073448,-2.10221,0.226186,0.455335,-0.0165138,0.113415,-0.00730544,0.113094,-0.1092,-0.0509374,0.220221,0.00762275,0.00392854,0.120452,-0.00771338,-0.996039,2.41644,1.42505,-0.120513,0,0,0,0,0,0,0,0.235775,0.0145388,0.0681144,-2.09636,0.228004,0.443919,-0.0168996,0.0229188,0.00251756,0.176914,-0.0998518,-0.0597557,0.166331,0.0017826,0,0,0,0,0,0,0,1.57856,-34.1216,1.08797,25.4077,0.770565,2.78771,-0.0163725,
0.242015,0.0141645,0.0743507,-2.10312,0.225856,0.457125,-0.0164547,0.113379,-0.00718373,0.113043,-0.109999,-0.0489923,0.220942,0.00757375,-0.0224001,0.0760727,-0.0319929,-0.499366,1.21573,0.450781,-0.030629,0,0,0,0,0,0,0,0.239353,0.0145609,0.0716168,-2.09983,0.226228,0.449319,-0.0169044,0.129444,4.26208e-05,0.0746625,-0.105203,-0.0395642,0.157299,0.000221859,13.3156,-0.309367,-12.7815,-0.668913,2.52394,-1.12906,-0.195092,0.412174,-34.3953,-0.0625476,25.5069,0.874935,2.82067,0.017502,
0.242915,0.0141102,0.0752469,-2.10401,0.225513,0.458869,-0.0163884,0.113185,-0.00710489,0.11284,-0.110228,-0.0477619,0.220354,0.00771666,-0.120854,0.0492727,-0.127221,-0.142634,0.76895,-0.367593,0.089323,0,0,0,0,0,0,0,0.239353,0.0145609,0.0716168,-2.09983,0.226228,0.449319,-0.0169044,0.129444,4.26208e-05,0.0746625,-0.105203,-0.0395642,0.157299,0.000221859,0,0,0,0,0,0,0,0.412174,-34.3953,-0.0625476,25.5069,0.874935,2.82067,0.017502,
0.243673,0.0143445,0.0759194,-2.10443,0.224686,0.457394,-0.0166227,0.112204,-0.00678638,0.111851,-0.11036,-0.0461765,0.216771,0.00721058,-0.613697,0.199071,-0.617827,-0.0830722,0.990874,-2.23952,-0.316302,0,0,0,0,0,0,0,0.239353,0.0145609,0.0716168,-2.09983,0.226228,0.449319,-0.0169044,0.129444,4.26208e-05,0.0746625,-0.105203,-0.0395642,0.157299,0.000221859,0,0,0,0,0,0,0,0.412174,-34.3953,-0.0625476,25.5069,0.874935,2.82067,0.017502,
0.24454,0.0142988,0.0767826,-2.1053,0.224184,0.459032,-0.0165823,0.111419,-0.00657091,0.11106,-0.109992,-0.0494842,0.214383,0.00677999,-0.490622,0.134669,-0.49464,0.230521,-2.06731,-1.49248,-0.269123,0,0,0,0,0,0,0,0.239353,0.0145609,0.0716168,-2.09983,0.226228,0.449319,-0.0169044,0.129444,4.26208e-05,0.0746625,-0.105203,-0.0395642,0.157299,0.000221859,0,0,0,0,0,0,0,0.412174,-34.3953,-0.0625476,25.5069,0.874935,2.82067,0.017502,
0.2454,0.0142517,0.0776402,-2.10615,0.223579,0.460662,-0.0165464,0.110653,-0.00643506,0.110288,-0.109242,-0.0547089,0.21224,0.00632115,-0.47846,0.0849037,-0.482144,0.468358,-3.2654,-1.33955,-0.286773,0,0,0,0,0,0,0,0.243082,0.014545,0.0749083,-2.10348,0.225409,0.454816,-0.0169029,0.190609,0.000454452,-0.00521631,-0.107101,-0.0147309,0.168314,0.000952205,7.64565,0.0514788,-9.98485,-0.237239,3.10416,1.37685,0.0912933,-0.730404,-34.1731,-0.812364,25.5585,0.850216,2.79412,0.00376909,
0.246254,0.0142033,0.0784902,-2.10698,0.22291,0.462266,-0.016513,0.10985,-0.00635816,0.10948,-0.108207,-0.0604949,0.209913,0.00589144,-0.501931,0.0480597,-0.504978,0.647283,-3.61624,-1.45402,-0.268564,0,0,0,0,0,0,0,0.243082,0.014545,0.0749083,-2.10348,0.225409,0.454816,-0.0169029,0.190609,0.000454452,-0.00521631,-0.107101,-0.0147309,0.168314,0.000952205,0,0,0,0,0,0,0,-0.730404,-34.1731,-0.812364,25.5585,0.850216,2.79412,0.00376909,
0.247119,0.0143808,0.0789158,-2.10777,0.222665,0.462556,-0.0167097,0.108328,-0.00609002,0.107962,-0.107144,-0.0668066,0.206817,0.00551443,-0.95117,0.167591,-0.949269,0.66416,-3.94484,-1.93537,-0.235636,0,0,0,0,0,0,0,0.243082,0.014545,0.0749083,-2.10348,0.225409,0.454816,-0.0169029,0.190609,0.000454452,-0.00521631,-0.107101,-0.0147309,0.168314,0.000952205,0,0,0,0,0,0,0,-0.730404,-34.1731,-0.812364,25.5585,0.850216,2.79412,0.00376909,
0.247934,0.0143385,0.0797277,-2.10857,0.221908,0.464081,-0.01668,0.107035,-0.00592981,0.106668,-0.105857,-0.0723647,0.203556,0.00515564,-0.808401,0.100133,-0.808275,0.804575,-3.47377,-2.03789,-0.224243,0,0,0,0,0,0,0,0.243082,0.014545,0.0749083,-2.10348,0.225409,0.454816,-0.0169029,0.190609,0.000454452,-0.00521631,-0.107101,-0.0147309,0.168314,0.000952205,0,0,0,0,0,0,0,-0.730404,-34.1731,-0.812364,25.5585,0.850216,2.79412,0.00376909,
0.248743,0.0142944,0.0805345,-2.10936,0.221146,0.465567,-0.0166525,0.105872,-0.00584519,0.105504,-0.10441,-0.0769374,0.200018,0.00481122,-0.726744,0.0528832,-0.727451,0.904216,-2.858,-2.21102,-0.215261,0,0,0,0,0,0,0,0.246814,0.0145584,0.0778622,-2.10705,0.224575,0.460249,-0.0169059,0.15976,0.00113991,0.0358514,-0.10595,-0.0314307,0.141533,-0.000290023,-3.85612,0.0856819,5.13347,0.143921,-2.08747,-3.34764,-0.155278,-0.0440639,-34.3477,0.361952,25.5585,0.825497,2.76116,0.0303194,
0.247119,0.0143808,0.0789158,-2.10777,0.222665,0.462556,-0.0167097,0.105146,-0.00567964,0.104781,-0.104107,-0.0799607,0.198901,0.00465025,-0.453907,0.10347,-0.45227,0.18957,-1.88952,-0.698513,-0.100608,0,0,0,0,0,0,0,0.246814,0.0145584,0.0778622,-2.10705,0.224575,0.460249,-0.0169059,0.15976,0.00113991,0.0358514,-0.10595,-0.0314307,0.141533,-0.000290023,0,0,0,0,0,0,0,-0.0440639,-34.3477,0.361952,25.5585,0.825497,2.76116,0.0303194,
0.251644,0.0144208,0.082665,-2.11188,0.220566,0.468196,-0.0167379,0.103885,-0.00537682,0.103515,-0.10219,-0.0820388,0.191873,0.00424233,-0.788163,0.189262,-0.790927,1.19802,-1.29884,-4.39209,-0.25495,0,0,0,0,0,0,0,0.246814,0.0145584,0.0778622,-2.10705,0.224575,0.460249,-0.0169059,0.15976,0.00113991,0.0358514,-0.10595,-0.0314307,0.141533,-0.000290023,0,0,0,0,0,0,0,-0.0440639,-34.3477,0.361952,25.5585,0.825497,2.76116,0.0303194,
0.252425,0.014385,0.0834431,-2.11261,0.219857,0.469479,-0.0167194,0.102638,-0.00519824,0.102265,-0.100226,-0.0833568,0.185576,0.00385675,-0.779103,0.111611,-0.78154,1.22761,-0.82375,-3.93573,-0.240988,0,0,0,0,0,0,0,0.246814,0.0145584,0.0778622,-2.10705,0.224575,0.460249,-0.0169059,0.15976,0.00113991,0.0358514,-0.10595,-0.0314307,0.141533,-0.000290023,0,0,0,0,0,0,0,-0.0440639,-34.3477,0.361952,25.5585,0.825497,2.76116,0.0303194,
0.253196,0.0143471,0.0842111,-2.11334,0.219166,0.470733,-0.0167032,0.101389,-0.00510591,0.101013,-0.0982427,-0.0839761,0.179809,0.00349126,-0.780761,0.0577083,-0.782675,1.23931,-0.387033,-3.60436,-0.228433,0,0,0,0,0,0,0,0.249673,0.0146014,0.0816944,-2.11059,0.223038,0.465473,-0.0169074,0.0232725,0.00296941,0.163713,-0.0999755,-0.0485423,0.144226,-0.00130036,-17.0609,0.228688,15.9827,0.746764,-2.13894,0.336718,-0.126292,0.233646,-34.4945,0.611891,26.0544,0.764157,2.88018,0.0440523,
