xiao-wang007/linearmpc_panda/paper_data/panda_inverse_dynamics_controller_error_match_to_start_low_pass_acceleration/1/trajectory.csv
Commanded Joint 0 Position,Commanded Joint 1 Position,Commanded Joint 2 Position,Commanded Joint 3 Position,Commanded Joint 4 Position,Commanded Joint 5 Position,Commanded Joint 6 Position,Commanded Joint 0 Velocity,Commanded Joint 1 Velocity,Commanded Joint 2 Velocity,Commanded Joint 3 Velocity,Commanded Joint 4 Velocity,Commanded Joint 5 Velocity,Commanded Joint 6 Velocity,Commanded Joint 0 Acceleration,Commanded Joint 1 Acceleration,Commanded Joint 2 Acceleration,Commanded Joint 3 Acceleration,Commanded Joint 4 Acceleration,Commanded Joint 5 Acceleration,Commanded Joint 6 Acceleration,Commanded Joint 0 Torque,Commanded Joint 1 Torque,Commanded Joint 2 Torque,Commanded Joint 3 Torque,Commanded Joint 4 Torque,Commanded Joint 5 Torque,Commanded Joint 6 Torque,Actual Joint 0 Position,Actual Joint 1 Position,Actual Joint 2 Position,Actual Joint 3 Position,Actual Joint 4 Position,Actual Joint 5 Position,Actual Joint 6 Position,Actual Joint 0 Velocity,Actual Joint 1 Velocity,Actual Joint 2 Velocity,Actual Joint 3 Velocity,Actual Joint 4 Velocity,Actual Joint 5 Velocity,Actual Joint 6 Velocity,Actual Joint 0 Acceleration,Actual Joint 1 Acceleration,Actual Joint 2 Acceleration,Actual Joint 3 Acceleration,Actual Joint 4 Acceleration,Actual Joint 5 Acceleration,Actual Joint 6 Acceleration,Actual Joint 0 Torque,Actual Joint 1 Torque,Actual Joint 2 Torque,Actual Joint 3 Torque,Actual Joint 4 Torque,Actual Joint 5 Torque,Actual Joint 6 Torque,
-0.0478718,-0.131748,0.0169446,-1.87414,0.00443086,0.227753,0.0280928,0.000513649,0.0177098,0.000726278,-0.0347143,-0.00493011,0.05113,-0.000367825,0.321031,11.0686,0.453924,-21.6965,-3.08132,31.9563,-0.229891,0.0566043,20.2131,0.25713,-24.395,-0.603042,1.84635,-0.0240291,-0.0478902,-0.132309,0.0168687,-1.87105,0.00470766,0.222227,0.0281341,0.00403759,-0.000969529,0.00256656,-2.52701e-05,-0.00630855,0.00061647,-0.00136454,0,0,0,0,0,0,0,-0.119442,-30.5034,-0.185533,27.1255,0.862118,3.0468,0.0440523,
-0.0478522,-0.132318,0.01691,-1.87105,0.00469408,0.222242,0.0281318,0.000631478,0.014126,0.000818136,-0.0277335,-0.00380754,0.0410424,-0.000303456,0.0736432,-2.23983,0.0574109,4.36302,0.701602,-6.30475,0.0402305,0.0508593,20.6538,0.246754,-24.3113,-0.603331,1.59537,-0.0225142,-0.0478902,-0.132309,0.0168687,-1.87105,0.00470766,0.222227,0.0281341,0.00403759,-0.000969529,0.00256656,-2.52701e-05,-0.00630855,0.00061647,-0.00136454,0,0,0,0,0,0,0,-0.119442,-30.5034,-0.185533,27.1255,0.862118,3.0468,0.0440523,
-0.0478456,-0.132319,0.016917,-1.87105,0.0047022,0.222248,0.0281315,0.00067001,0.011279,0.00082959,-0.0221523,-0.00284312,0.0329766,-0.000248744,0.0240828,-1.77937,0.00715929,3.48821,0.602765,-5.04116,0.0341952,0.0436529,21.2256,0.235004,-24.2032,-0.602832,1.24773,-0.0205456,-0.0478902,-0.132309,0.0168687,-1.87105,0.00470766,0.222227,0.0281341,0.00403759,-0.000969529,0.00256656,-2.52701e-05,-0.00630855,0.00061647,-0.00136454,0,0,0,0,0,0,0,-0.119442,-30.5034,-0.185533,27.1255,0.862118,3.0468,0.0440523,
-0.0478406,-0.132319,0.0169223,-1.87105,0.00471077,0.222253,0.0281314,0.000661376,0.00901579,0.000795432,-0.0176914,-0.00206026,0.0265245,-0.000203078,-0.00539639,-1.41453,-0.0213487,2.78811,0.489286,-4.03256,0.0285409,0.0377195,21.7496,0.225574,-24.0354,-0.600827,0.862471,-0.0185451,-0.0478902,-0.132309,0.0168687,-1.87105,0.00470766,0.222227,0.0281341,0.00403759,-0.000969529,0.00256656,-2.52701e-05,-0.00630855,0.00061647,-0.00136454,0,0,0,0,0,0,0,-0.119442,-30.5034,-0.185533,27.1255,0.862118,3.0468,0.0440523,
-0.0478696,-0.131766,0.0168884,-1.87177,0.00452613,0.222423,0.0281489,0.00112918,0.0179913,0.00129486,-0.0307275,-0.00658065,0.0262622,-4.23889e-05,0.29238,5.6097,0.312143,-8.14758,-2.82524,-0.163911,0.100431,-8.18797e-05,26.3673,0.203751,-23.2992,-1.01855,-2.37053,0.00138554,-0.0478936,-0.132197,0.0168621,-1.87111,0.00472343,0.222221,0.0281441,0.00281006,0.014035,-8.86735e-05,-0.0103103,-0.00394736,0.00167776,0.000354203,-0.153442,1.87557,-0.331905,-1.28562,0.29515,0.132661,0.214842,-0.0718349,-28.4563,-0.0625476,24.7372,0.715634,2.86736,-0.0163725,
-0.04792,-0.131335,0.0168601,-1.87206,0.00538543,0.221771,0.0281328,-0.000356035,0.0251695,0.000329237,-0.031853,0.0162181,0.00471291,-0.000435531,-0.928262,4.48639,-0.603515,-0.703422,14.2492,-13.4683,-0.245714,0.486346,0.189391,0.479128,-0.26795,3.39177,-1.70726,-0.00178395,-0.0478936,-0.132197,0.0168621,-1.87111,0.00472343,0.222221,0.0281441,0.00281006,0.014035,-8.86735e-05,-0.0103103,-0.00394736,0.00167776,0.000354203,0,0,0,0,0,0,0,-0.0718349,-28.4563,-0.0625476,24.7372,0.715634,2.86736,-0.0163725,
-0.0479878,-0.130984,0.0168029,-1.87225,0.0068833,0.22076,0.0281226,-0.00197842,0.0288986,-0.00116787,-0.0301236,0.0504211,-0.0215069,-0.000604144,-1.01399,2.33069,-0.935691,1.08083,21.3769,-16.3874,-0.105383,0.480481,0.188556,0.472961,-0.265307,3.36232,-1.69204,-0.00171719,-0.0478936,-0.132197,0.0168621,-1.87111,0.00472343,0.222221,0.0281441,0.00281006,0.014035,-8.86735e-05,-0.0103103,-0.00394736,0.00167776,0.000354203,0,0,0,0,0,0,0,-0.0718349,-28.4563,-0.0625476,24.7372,0.715634,2.86736,-0.0163725,
-0.0480535,-0.13071,0.0167408,-1.87239,0.00876195,0.219569,0.0281168,-0.00322643,0.029975,-0.00248586,-0.0276787,0.0873032,-0.0469666,-0.000629342,-0.780001,0.672709,-0.823746,1.52811,23.0513,-15.9123,-0.0157485,0.47415,0.187788,0.466341,-0.262622,3.33371,-1.67678,-0.00168398,-0.0478936,-0.132197,0.0168621,-1.87111,0.00472343,0.222221,0.0281441,0.00281006,0.014035,-8.86735e-05,-0.0103103,-0.00394736,0.00167776,0.000354203,0,0,0,0,0,0,0,-0.0718349,-28.4563,-0.0625476,24.7372,0.715634,2.86736,-0.0163725,
-0.0478513,-0.131067,0.0169206,-1.87282,0.00450436,0.222744,0.0281369,-0.00180406,0.0347376,-0.00115242,-0.0403374,0.0643239,-0.0335677,-0.000386166,0.888981,2.97663,0.833399,-7.9117,-14.362,8.3743,0.151985,-0.000121461,26.3893,0.202734,-23.297,-1.01828,-2.36453,0.00135116,-0.0478824,-0.131497,0.0168872,-1.87209,0.0047251,0.222584,0.0281322,0.00502769,0.00465003,-0.000309993,-0.0387777,-0.00622111,0.0170119,-0.00178869,0.277204,-1.17313,-0.0276649,-3.55843,-0.284219,1.91677,-0.267862,-0.0202602,-28.0834,-0.16173,22.3926,0.703732,2.622,0.0641939,
-0.0479856,-0.130595,0.0168465,-1.87292,0.00752104,0.219958,0.0280881,-0.00480109,0.0395886,-0.00277453,-0.0348031,0.126876,-0.096501,-0.00152767,-1.87315,3.03187,-1.01381,3.45894,39.0951,-39.3333,-0.713442,4.00629,1.19113,4.11072,-2.01854,10.9817,-9.45564,-0.0079405,-0.0478824,-0.131497,0.0168872,-1.87209,0.0047251,0.222584,0.0281322,0.00502769,0.00465003,-0.000309993,-0.0387777,-0.00622111,0.0170119,-0.00178869,0,0,0,0,0,0,0,-0.0202602,-28.0834,-0.16173,22.3926,0.703732,2.622,0.0641939,
-0.0481316,-0.130234,0.0167313,-1.87292,0.0125127,0.21562,0.0280586,-0.00748967,0.0407,-0.00509903,-0.0279772,0.226292,-0.185651,-0.00196001,-1.68036,0.694638,-1.45281,4.26616,62.135,-55.7184,-0.270212,3.94708,1.26584,4.06781,-1.95468,10.9817,-9.28884,-0.00676726,-0.0478824,-0.131497,0.0168872,-1.87209,0.0047251,0.222584,0.0281322,0.00502769,0.00465003,-0.000309993,-0.0387777,-0.00622111,0.0170119,-0.00178869,0,0,0,0,0,0,0,-0.0202602,-28.0834,-0.16173,22.3926,0.703732,2.622,0.0641939,
-0.0482433,-0.129969,0.0166342,-1.87294,0.0187128,0.21036,0.0280426,-0.00878442,0.0391767,-0.00650637,-0.0228525,0.336037,-0.280034,-0.00196824,-0.809217,-0.952069,-0.87959,3.20296,68.5905,-58.9899,-0.00513851,3.87698,1.31781,4.00514,-1.89753,10.9817,-9.11777,-0.00612343,-0.0478824,-0.131497,0.0168872,-1.87209,0.0047251,0.222584,0.0281322,0.00502769,0.00465003,-0.000309993,-0.0387777,-0.00622111,0.0170119,-0.00178869,0,0,0,0,0,0,0,-0.0202602,-28.0834,-0.16173,22.3926,0.703732,2.622,0.0641939,
-0.0478513,-0.131067,0.0169206,-1.87282,0.00450436,0.222744,0.0281369,-0.00625045,0.042099,-0.00436883,-0.0364764,0.263311,-0.220022,-0.00145728,1.58373,1.82642,1.33596,-8.51497,-45.4538,37.5078,0.319346,-0.00127247,26.4595,0.198718,-23.2813,-1.01922,-2.33979,0.00121755,-0.0478873,-0.129529,0.0168836,-1.87417,0.0052784,0.22226,0.0281406,0.00308514,0.0829479,0.00562717,-0.0848784,0.0218448,-0.000919375,0.000279014,-0.242819,9.78724,0.742145,-5.76258,3.50824,-2.24142,0.258464,0.233646,-24.5882,0.112013,19.1791,0.984799,1.44189,-0.00996382,
-0.0474575,-0.130684,0.0173486,-1.87317,0.00661748,0.218997,0.0282017,0.00484563,0.0432595,0.0072056,-0.0379817,0.263477,-0.269697,0.000454701,6.93505,0.725361,7.23402,-0.940812,0.1037,-31.0471,1.19499,27.4385,3.27468,28.5995,-12.4968,10.9808,-14.3398,0.082353,-0.0478873,-0.129529,0.0168836,-1.87417,0.0052784,0.22226,0.0281406,0.00308514,0.0829479,0.00562717,-0.0848784,0.0218448,-0.000919375,0.000279014,0,0,0,0,0,0,0,0.233646,-24.5882,0.112013,19.1791,0.984799,1.44189,-0.00996382,
-0.0467893,-0.13037,0.0181051,-1.87346,0.0104421,0.212834,0.0282679,0.0205809,0.0424535,0.0246755,-0.0376332,0.306398,-0.369831,0.00201872,9.83452,-0.503772,10.9187,0.217815,26.8254,-62.5836,0.97751,25.8242,4.25468,27.5431,-10.6512,10.9808,-14.3398,0.0781762,-0.0478873,-0.129529,0.0168836,-1.87417,0.0052784,0.22226,0.0281406,0.00308514,0.0829479,0.00562717,-0.0848784,0.0218448,-0.000919375,0.000279014,0,0,0,0,0,0,0,0.233646,-24.5882,0.112013,19.1791,0.984799,1.44189,-0.00996382,
-0.0458959,-0.130112,0.0191072,-1.87377,0.0155177,0.205087,0.0283313,0.0387992,0.0404251,0.0447946,-0.0379103,0.372007,-0.489551,0.00319964,11.3864,-1.26774,12.5744,-0.173165,41.0056,-74.825,0.738075,24.5503,3.8883,26.3918,-9.24313,10.9808,-14.3398,0.0727391,-0.0478873,-0.129529,0.0168836,-1.87417,0.0052784,0.22226,0.0281406,0.00308514,0.0829479,0.00562717,-0.0848784,0.0218448,-0.000919375,0.000279014,0,0,0,0,0,0,0,0.233646,-24.5882,0.112013,19.1791,0.984799,1.44189,-0.00996382,
-0.0478397,-0.128608,0.0169363,-1.87517,0.00517031,0.22216,0.0281458,0.0322298,0.0553645,0.0371522,-0.0554227,0.294903,-0.394137,0.00269069,-4.10584,9.33711,-4.77653,-10.9453,-48.1897,59.6338,-0.318091,-0.0146624,26.5477,0.185244,-23.2813,-1.04322,-2.29523,0.000997333,-0.0478045,-0.127606,0.0170697,-1.87748,0.010561,0.217782,0.0281419,0.0194712,0.104032,0.00746098,-0.112228,0.254442,-0.200722,0.000843282,2.04826,2.63547,0.229226,-3.41876,29.0747,-24.9753,0.0705334,1.80469,-31.1025,1.83778,25.011,1.64398,1.5078,0.017502,
-0.0471696,-0.128027,0.0176256,-1.87626,0.00693211,0.218563,0.0283767,0.0425359,0.0588116,0.0469546,-0.0715392,0.279967,-0.405217,0.00792403,6.44127,2.15448,6.12652,-10.0728,-9.33483,-6.92505,3.27084,39.1858,2.71215,40.7878,-23.0082,10.9568,-14.2952,0.270557,-0.0478045,-0.127606,0.0170697,-1.87748,0.010561,0.217782,0.0281419,0.0194712,0.104032,0.00746098,-0.112228,0.254442,-0.200722,0.000843282,0,0,0,0,0,0,0,1.80469,-31.1025,1.83778,25.011,1.64398,1.5078,0.017502,
-0.0460917,-0.12757,0.0187304,-1.87735,0.0103354,0.212561,0.0284902,0.0609769,0.0584889,0.0651846,-0.0845911,0.309056,-0.474239,0.00917736,11.5256,-0.201747,11.3938,-8.15743,18.1803,-43.1388,0.783329,34.942,5.2065,36.1366,-20.9535,10.9568,-14.2952,0.120269,-0.0478045,-0.127606,0.0170697,-1.87748,0.010561,0.217782,0.0281419,0.0194712,0.104032,0.00746098,-0.112228,0.254442,-0.200722,0.000843282,0,0,0,0,0,0,0,1.80469,-31.1025,1.83778,25.011,1.64398,1.5078,0.017502,
-0.0455998,-0.127221,0.0193455,-1.88062,0.0176044,0.207277,0.0285957,0.0817913,0.0499009,0.0866033,-0.108181,0.349829,-0.537172,0.0104204,13.009,-5.36744,13.3867,-14.7436,25.4832,-39.333,0.776903,44.7652,-1.54038,46.7652,-30.3335,10.9568,-14.2952,0.375471,-0.0478045,-0.127606,0.0170697,-1.87748,0.010561,0.217782,0.0281419,0.0194712,0.104032,0.00746098,-0.112228,0.254442,-0.200722,0.000843282,0,0,0,0,0,0,0,1.80469,-31.1025,1.83778,25.011,1.64398,1.5078,0.017502,
-0.0440145,-0.127103,0.0210115,-1.88225,0.0228041,0.199471,0.0285924,0.105065,0.0428785,0.110934,-0.127235,0.409858,-0.624892,0.00825274,14.5463,-4.38906,15.2066,-11.9086,37.5179,-54.8251,-1.35479,38.2038,1.73486,39.9522,-27.8361,10.932,-14.1826,0.117142,-0.0458506,-0.125844,0.0205518,-1.8823,0.0222667,0.205626,0.0281486,0.0749745,0.184317,0.0900221,-0.128187,0.259591,-0.375963,0.00185921,6.93792,10.0357,10.3201,-1.99477,0.643614,-21.9051,0.126991,3.60584,-27.8056,4.58711,25.0348,2.76184,1.36223,-0.0429228,
-0.0422624,-0.126971,0.0228589,-1.88389,0.0289105,0.190655,0.0285529,0.127854,0.0375811,0.134932,-0.142913,0.480545,-0.720331,0.00561485,14.243,-3.31085,14.9985,-9.79871,44.1796,-59.6492,-1.64868,34.1259,3.29423,35.7212,-25.9437,10.932,-14.1826,-0.0235426,-0.0458506,-0.125844,0.0205518,-1.8823,0.0222667,0.205626,0.0281486,0.0749745,0.184317,0.0900221,-0.128187,0.259591,-0.375963,0.00185921,0,0,0,0,0,0,0,3.60584,-27.8056,4.58711,25.0348,2.76184,1.36223,-0.0429228,
-0.0404102,-0.126868,0.0248165,-1.88561,0.0357358,0.181184,0.0285566,0.148589,0.0326425,0.156885,-0.157329,0.555069,-0.813017,0.00458524,12.9594,-3.08664,13.7212,-9.01041,46.5773,-57.9289,-0.643507,31.593,3.3285,33.1303,-24.6522,10.932,-14.1826,-0.058231,-0.0458506,-0.125844,0.0205518,-1.8823,0.0222667,0.205626,0.0281486,0.0749745,0.184317,0.0900221,-0.128187,0.259591,-0.375963,0.00185921,0,0,0,0,0,0,0,3.60584,-27.8056,4.58711,25.0348,2.76184,1.36223,-0.0429228,
-0.0420178,-0.123869,0.0246232,-1.88716,0.0364929,0.184937,0.0281063,0.156238,0.0371342,0.16519,-0.169091,0.588809,-0.858349,0.00380556,4.78032,2.80734,5.19065,-7.35124,21.0877,-28.3323,-0.487298,34.1259,3.29423,35.7212,-25.9437,10.932,-14.1826,-0.0235426,-0.0458506,-0.125844,0.0205518,-1.8823,0.0222667,0.205626,0.0281486,0.0749745,0.184317,0.0900221,-0.128187,0.259591,-0.375963,0.00185921,0,0,0,0,0,0,0,3.60584,-27.8056,4.58711,25.0348,2.76184,1.36223,-0.0429228,
-0.0404183,-0.123593,0.0263205,-1.889,0.0430749,0.175796,0.0280989,0.164977,0.0366069,0.174586,-0.181277,0.635596,-0.915181,0.00285907,5.46194,-0.329572,5.872,-7.61628,29.242,-35.5201,-0.591556,31.593,3.3285,33.1303,-24.6522,10.932,-14.1826,-0.058231,-0.0458506,-0.125844,0.0205518,-1.8823,0.0222667,0.205626,0.0281486,0.0749745,0.184317,0.0900221,-0.128187,0.259591,-0.375963,0.00185921,0,0,0,0,0,0,0,3.60584,-27.8056,4.58711,25.0348,2.76184,1.36223,-0.0429228,
-0.0387754,-0.123404,0.0280617,-1.89089,0.0502872,0.166131,0.0280416,0.173055,0.034,0.183198,-0.192233,0.688785,-0.973771,0.000855337,5.04918,-1.62931,5.38245,-6.84755,33.2432,-36.6187,-1.25233,29.8126,2.27041,31.3421,-24.2861,11.0473,-13.9131,0.00284878,-0.0409974,-0.124693,0.027613,-1.89003,0.0320576,0.18854,0.0281311,0.253071,0.0294925,0.378816,-0.330331,0.398327,-0.600831,-0.00149506,22.262,-19.3531,36.0993,-25.268,17.342,-28.1086,-0.419284,14.6904,-24.8381,14.8862,18.8815,4.81994,-1.37611,0.0706026,
-0.0371206,-0.123244,0.0298142,-1.89279,0.0579667,0.156208,0.0279656,0.179813,0.0311936,0.19037,-0.20113,0.743015,-1.02711,-0.00121747,4.22341,-1.754,4.4828,-5.56035,33.8934,-33.338,-1.2955,27.1718,0.651768,28.5722,-24.7123,11.0473,-13.9131,-0.0111208,-0.0409974,-0.124693,0.027613,-1.89003,0.0320576,0.18854,0.0281311,0.253071,0.0294925,0.378816,-0.330331,0.398327,-0.600831,-0.00149506,0,0,0,0,0,0,0,14.6904,-24.8381,14.8862,18.8815,4.81994,-1.37611,0.0706026,
-0.0344602,-0.123807,0.0346161,-1.89574,0.0514345,0.163279,0.027999,0.195527,0.0300196,0.207285,-0.208032,0.782613,-1.05458,-0.00281113,9.82156,-0.733757,10.5718,-4.31399,24.7492,-17.1704,-0.996037,29.8126,2.27041,31.3421,-24.2861,11.0473,-13.9131,0.00284878,-0.0409974,-0.124693,0.027613,-1.89003,0.0320576,0.18854,0.0281311,0.253071,0.0294925,0.378816,-0.330331,0.398327,-0.600831,-0.00149506,0,0,0,0,0,0,0,14.6904,-24.8381,14.8862,18.8815,4.81994,-1.37611,0.0706026,
-0.0324887,-0.123641,0.0367088,-1.89762,0.0595257,0.153596,0.0279123,0.205708,0.0281611,0.218148,-0.213452,0.828369,-1.08574,-0.00441643,6.36298,-1.16156,6.78917,-3.38728,28.5974,-19.472,-1.00331,27.1718,0.651768,28.5722,-24.7123,11.0473,-13.9131,-0.0111208,-0.0409974,-0.124693,0.027613,-1.89003,0.0320576,0.18854,0.0281311,0.253071,0.0294925,0.378816,-0.330331,0.398327,-0.600831,-0.00149506,0,0,0,0,0,0,0,14.6904,-24.8381,14.8862,18.8815,4.81994,-1.37611,0.0706026,
-0.0305986,-0.123486,0.038712,-1.8995,0.0679564,0.143864,0.0278263,0.211819,0.0264052,0.224596,-0.217782,0.873464,-1.1119,-0.00568238,3.81932,-1.09746,4.03041,-2.70645,28.184,-16.3488,-0.791218,24.7076,0.766983,26.0223,-24.4206,11.0452,-13.4134,-0.0727809,-0.0330318,-0.124403,0.0390548,-1.90333,0.0476946,0.159625,0.0281402,0.261916,0.0129599,0.353571,-0.448926,0.595263,-0.966753,0.000970665,1.10558,-2.06659,-3.15567,-14.8244,24.617,-45.7402,0.308216,6.97803,-30.3764,7.0627,32.7551,3.31115,1.41533,-0.00996382,
-0.0268948,-0.12313,0.0456288,-1.9101,0.0692425,0.129776,0.0278783,0.217483,0.0309943,0.230848,-0.226497,0.897463,-1.14272,-0.00680747,3.54018,2.86817,3.90754,-5.44685,14.9996,-19.2648,-0.703186,24.7076,0.766983,26.0223,-24.4206,11.0452,-13.4134,-0.0727809,-0.0330318,-0.124403,0.0390548,-1.90333,0.0476946,0.159625,0.0281402,0.261916,0.0129599,0.353571,-0.448926,0.595263,-0.966753,0.000970665,0,0,0,0,0,0,0,6.97803,-30.3764,7.0627,32.7551,3.31115,1.41533,-0.00996382,
-0.0250603,-0.122785,0.0475793,-1.9122,0.0775667,0.120284,0.0277994,0.219849,0.0334194,0.23344,-0.233589,0.926075,-1.1515,-0.00741859,1.47831,1.51572,1.61985,-4.43259,17.8823,-5.48472,-0.381949,23.0043,1.23604,24.2466,-23.7393,11.0452,-12.9475,-0.0947686,-0.0330318,-0.124403,0.0390548,-1.90333,0.0476946,0.159625,0.0281402,0.261916,0.0129599,0.353571,-0.448926,0.595263,-0.966753,0.000970665,0,0,0,0,0,0,0,6.97803,-30.3764,7.0627,32.7551,3.31115,1.41533,-0.00996382,
-0.023295,-0.122476,0.0494543,-1.91431,0.0861019,0.111719,0.0277308,0.220011,0.0344612,0.233627,-0.239572,0.95424,-1.13532,-0.00764923,0.101217,0.651116,0.116875,-3.73886,17.6031,10.1116,-0.144148,21.7854,1.56413,22.9718,-23.0766,11.0452,-12.1955,-0.0979874,-0.0330318,-0.124403,0.0390548,-1.90333,0.0476946,0.159625,0.0281402,0.261916,0.0129599,0.353571,-0.448926,0.595263,-0.966753,0.000970665,0,0,0,0,0,0,0,6.97803,-30.3764,7.0627,32.7551,3.31115,1.41533,-0.00996382,
-0.021588,-0.122194,0.0512666,-1.91642,0.0947463,0.104209,0.0276729,0.218683,0.0346144,0.23221,-0.24437,0.979502,-1.09601,-0.00756747,-0.829692,0.0957601,-0.885845,-2.99903,15.7888,24.5672,0.0511029,20.9017,1.48659,22.1199,-22.2368,11.0213,-9.71282,-0.0906542,-0.0232601,-0.124296,0.0530806,-1.91728,0.0699635,0.123054,0.028145,0.303844,0.0100878,0.439902,-0.361144,0.67171,-1.05918,0.00112693,5.24105,-0.359008,10.7914,10.9728,9.55581,-11.5538,0.0195333,-2.35302,-38.3388,-2.86345,37.4881,2.61535,2.80144,-0.00996382,
-0.0146905,-0.123122,0.0622718,-1.92597,0.102333,0.0924712,0.0278203,0.221865,0.0342709,0.235762,-0.248002,1.00282,-1.03378,-0.00751896,1.98847,-0.214688,2.22015,-2.26984,14.5748,38.8934,0.0303163,20.9017,1.48659,22.1199,-22.2368,11.0213,-9.71282,-0.0906542,-0.0232601,-0.124296,0.0530806,-1.91728,0.0699635,0.123054,0.028145,0.303844,0.0100878,0.439902,-0.361144,0.67171,-1.05918,0.00112693,0,0,0,0,0,0,0,-2.35302,-38.3388,-2.86345,37.4881,2.61535,2.80144,-0.00996382,
-0.0129209,-0.122886,0.0641555,-1.92804,0.111192,0.0872116,0.0277739,0.221733,0.0333093,0.2357,-0.250094,1.02375,-0.958516,-0.00717392,-0.0825353,-0.600997,-0.0385076,-1.30786,13.0777,47.0411,0.21565,20.0972,1.35315,21.2865,-21.8008,11.0213,-7.80966,-0.0813006,-0.0232601,-0.124296,0.0530806,-1.91728,0.0699635,0.123054,0.028145,0.303844,0.0100878,0.439902,-0.361144,0.67171,-1.05918,0.00112693,0,0,0,0,0,0,0,-2.35302,-38.3388,-2.86345,37.4881,2.61535,2.80144,-0.00996382,
-0.0112372,-0.122676,0.0659468,-1.93007,0.120063,0.0829316,0.027737,0.219478,0.0319081,0.233344,-0.250763,1.04077,-0.873813,-0.00666291,-1.40923,-0.875773,-1.47295,-0.418031,10.6415,52.9395,0.319384,19.3952,1.1238,20.5535,-21.4508,11.0213,-6.13989,-0.0695497,-0.0232601,-0.124296,0.0530806,-1.91728,0.0699635,0.123054,0.028145,0.303844,0.0100878,0.439902,-0.361144,0.67171,-1.05918,0.00112693,0,0,0,0,0,0,0,-2.35302,-38.3388,-2.86345,37.4881,2.61535,2.80144,-0.00996382,
-0.00962519,-0.122488,0.0676617,-1.93205,0.128905,0.0795672,0.0277097,0.215883,0.030211,0.229548,-0.25014,1.05367,-0.783159,-0.00601132,-2.24684,-1.0607,-2.37233,0.389251,8.05969,56.6588,0.407238,18.6877,0.48984,19.8772,-20.9458,10.8692,-4.48601,-0.0609605,-0.0141975,-0.12271,0.0677881,-1.92945,0.093916,0.0853876,0.0281428,0.239627,-0.00668128,0.401964,-0.332709,0.743867,-1.02091,0.000580593,-8.02709,-2.09613,-4.74232,3.55429,9.01965,4.78467,-0.0682923,-3.54321,-36.2441,-4.61302,37.7896,2.26104,4.25988,0.0101778,
-0.0065836,-0.122001,0.0759687,-1.93811,0.126175,0.0639626,0.0279446,0.214983,0.0288274,0.228779,-0.251131,1.05782,-0.718547,-0.00558465,-0.562497,-0.864709,-0.480348,-0.618993,2.5926,40.3823,0.266673,18.6877,0.48984,19.8772,-20.9458,10.8692,-4.48601,-0.0609605,-0.0141975,-0.12271,0.0677881,-1.92945,0.093916,0.0853876,0.0281428,0.239627,-0.00668128,0.401964,-0.332709,0.743867,-1.02091,0.000580593,0,0,0,0,0,0,0,-3.54321,-36.2441,-4.61302,37.7896,2.26104,4.25988,0.0101778,
-0.0049805,-0.12183,0.0776791,-1.94008,0.134845,0.0612245,0.0279228,0.212064,0.0273433,0.225782,-0.250255,1.06301,-0.643288,-0.00501246,-1.82444,-0.9276,-1.87335,0.547544,3.24534,47.0366,0.357619,18.122,0.289395,19.2782,-20.6591,10.8692,-3.21646,-0.0492269,-0.0141975,-0.12271,0.0677881,-1.92945,0.093916,0.0853876,0.0281428,0.239627,-0.00668128,0.401964,-0.332709,0.743867,-1.02091,0.000580593,0,0,0,0,0,0,0,-3.54321,-36.2441,-4.61302,37.7896,2.26104,4.25988,0.0101778,
-0.0034489,-0.121676,0.0793126,-1.94199,0.143528,0.0593197,0.0279102,0.207941,0.0257237,0.221464,-0.247932,1.06748,-0.562252,-0.00432687,-2.57664,-1.01222,-2.6988,1.45152,2.79779,50.6477,0.428494,17.6009,0.141703,18.7241,-20.3777,10.8692,-2.11896,-0.0394523,-0.0141975,-0.12271,0.0677881,-1.92945,0.093916,0.0853876,0.0281428,0.239627,-0.00668128,0.401964,-0.332709,0.743867,-1.02091,0.000580593,0,0,0,0,0,0,0,-3.54321,-36.2441,-4.61302,37.7896,2.26104,4.25988,0.0101778,
0.000404441,-0.121467,0.0880882,-1.94652,0.151346,0.0502437,0.0280794,0.20449,0.0199786,0.217942,-0.242356,1.06549,-0.475327,-0.00366765,-2.15666,-3.59073,-2.20107,3.48532,-1.24647,54.3284,0.412013,16.9979,-0.519188,18.1413,-19.7617,10.6699,-1.03359,-0.0300861,-0.00638873,-0.121125,0.0807814,-1.93932,0.119399,0.0591887,0.028177,0.19458,-0.0210709,0.36929,-0.19888,0.75714,-0.620819,0.00282369,-5.6309,-1.79871,-4.08421,16.7287,1.65911,50.0109,0.280387,-0.476498,-38.8902,-1.76055,35.3735,0.624081,6.64025,0.104477,
0.00185787,-0.12147,0.0896412,-1.94824,0.159879,0.0498449,0.0280799,0.199928,0.0159033,0.21318,-0.236808,1.06572,-0.39023,-0.00292211,-2.85144,-2.54703,-2.97656,3.4675,0.141325,53.1851,0.46596,16.5455,-0.560841,17.6571,-19.4781,10.6699,-0.224499,-0.0206241,-0.00638873,-0.121125,0.0807814,-1.93932,0.119399,0.0591887,0.028177,0.19458,-0.0210709,0.36929,-0.19888,0.75714,-0.620819,0.00282369,0,0,0,0,0,0,0,-0.476498,-38.8902,-1.76055,35.3735,0.624081,6.64025,0.104477,
0.00325204,-0.121461,0.0911309,-1.94991,0.168431,0.0499798,0.0280875,0.194797,0.0129615,0.207785,-0.231269,1.06635,-0.308814,-0.00214713,-3.2072,-1.83864,-3.37178,3.46203,0.398429,50.8853,0.484361,16.1205,-0.560462,17.201,-19.193,10.6699,0.465155,-0.0102363,-0.00638873,-0.121125,0.0807814,-1.93932,0.119399,0.0591887,0.028177,0.19458,-0.0210709,0.36929,-0.19888,0.75714,-0.620819,0.00282369,0,0,0,0,0,0,0,-0.476498,-38.8902,-1.76055,35.3735,0.624081,6.64025,0.104477,
0.00459546,-0.121444,0.0925666,-1.95154,0.176971,0.0505701,0.0281021,0.189423,0.0107928,0.202121,-0.225754,1.06659,-0.232293,-0.0013526,-3.35851,-1.3554,-3.53989,3.44662,0.146031,47.8256,0.496583,15.7137,-0.531482,16.7642,-18.9062,10.6699,1.0458,-0.00141371,-0.00638873,-0.121125,0.0807814,-1.93932,0.119399,0.0591887,0.028177,0.19458,-0.0210709,0.36929,-0.19888,0.75714,-0.620819,0.00282369,0,0,0,0,0,0,0,-0.476498,-38.8902,-1.76055,35.3735,0.624081,6.64025,0.104477,
-0.00448014,-0.121283,0.0828574,-1.94113,0.126662,0.0555931,0.0281357,0.199253,0.00467878,0.213596,-0.225824,1.03484,-0.275725,-0.00211561,6.1438,-3.82128,7.17178,-0.0438705,-19.8436,-27.1452,-0.476882,16.9386,-0.799129,18.1351,-19.6634,10.4613,-0.97044,-0.0317639,-0.000142298,-0.11987,0.0917765,-1.94655,0.151587,0.0480612,0.0281912,0.162798,-0.0583354,0.291452,-0.130159,0.963689,-0.125609,-0.000791278,-3.97271,-4.65806,-9.72983,8.59014,25.8186,61.9013,-0.451871,0.590702,-34.9944,-0.986925,30.3391,2.01019,5.51324,-0.00996382,
-0.00273866,-0.121386,0.084726,-1.94296,0.134598,0.053008,0.0281053,0.20294,0.00115646,0.217593,-0.226374,1.02629,-0.285208,-0.00245128,2.30407,-2.20145,2.49808,-0.343463,-5.34303,-5.92664,-0.20979,16.4862,-0.840782,17.6509,-19.3798,10.4613,-0.161346,-0.0223019,-0.000142298,-0.11987,0.0917765,-1.94655,0.151587,0.0480612,0.0281912,0.162798,-0.0583354,0.291452,-0.130159,0.963689,-0.125609,-0.000791278,0,0,0,0,0,0,0,0.590702,-34.9944,-0.986925,30.3391,2.01019,5.51324,-0.00996382,
-0.00112106,-0.121443,0.0864574,-1.94476,0.142886,0.0512647,0.0280876,0.202792,-0.000486897,0.217358,-0.226115,1.02823,-0.271748,-0.00240426,-0.0924836,-1.0271,-0.146634,0.161868,1.2113,8.41267,0.0293881,16.0613,-0.840403,17.1949,-19.0947,10.4613,0.528307,-0.0119141,-0.000142298,-0.11987,0.0917765,-1.94655,0.151587,0.0480612,0.0281912,0.162798,-0.0583354,0.291452,-0.130159,0.963689,-0.125609,-0.000791278,0,0,0,0,0,0,0,0.590702,-34.9944,-0.986925,30.3391,2.01019,5.51324,-0.00996382,
0.000404441,-0.121467,0.0880882,-1.94652,0.151346,0.0502437,0.0280794,0.200371,-0.000989938,0.214658,-0.224902,1.03408,-0.242923,-0.00212956,-1.51298,-0.314401,-1.68785,0.758116,3.66074,18.0154,0.171686,15.6545,-0.811423,16.758,-18.8078,10.4613,1.10895,-0.00309153,-0.000142298,-0.11987,0.0917765,-1.94655,0.151587,0.0480612,0.0281912,0.162798,-0.0583354,0.291452,-0.130159,0.963689,-0.125609,-0.000791278,0,0,0,0,0,0,0,0.590702,-34.9944,-0.986925,30.3391,2.01019,5.51324,-0.00996382,
0.00703017,-0.121224,0.0994536,-1.95369,0.193953,0.0521473,0.0282436,0.192732,-0.0042759,0.206383,-0.21591,1.04144,-0.156136,-0.00106711,-4.77436,-2.05372,-5.17143,5.61991,4.59629,54.242,0.66403,15.2669,-0.759768,16.3411,-18.5215,10.4613,1.59686,0.00623847,-0.000142298,-0.11987,0.0917765,-1.94655,0.151587,0.0480612,0.0281912,0.162798,-0.0583354,0.291452,-0.130159,0.963689,-0.125609,-0.000791278,0,0,0,0,0,0,0,0.590702,-34.9944,-0.986925,30.3391,2.01019,5.51324,-0.00996382,
0.00827967,-0.121327,0.10079,-1.95512,0.202487,0.0539113,0.0282753,0.185423,-0.00598482,0.198507,-0.208328,1.04651,-0.0808103,-6.12113e-05,-4.56803,-1.06808,-4.92254,4.73866,3.17092,47.0785,0.628687,14.8558,-0.808109,15.9398,-18.2893,10.3085,1.95968,0.014509,0.00466788,-0.119343,0.0995255,-1.94982,0.182999,0.0493462,0.0281831,0.112028,-0.0261528,0.207469,-0.0190192,0.886757,-0.0085145,-0.000679105,-6.34626,4.02283,-10.4978,13.8924,-9.61651,14.6368,0.0140217,-7.9588,-33.6217,-8.83422,23.5669,-0.85358,3.6895,0.0440523,
0.00948601,-0.121402,0.10208,-1.95652,0.210981,0.0558725,0.0283141,0.178497,-0.00666135,0.191076,-0.201811,1.04956,-0.0156172,0.000920518,-4.32885,-0.422835,-4.64448,4.07317,1.90537,40.7457,0.613581,14.4934,-0.735597,15.5497,-18.0067,10.3085,2.29487,0.0228009,0.00466788,-0.119343,0.0995255,-1.94982,0.182999,0.0493462,0.0281831,0.112028,-0.0261528,0.207469,-0.0190192,0.886757,-0.0085145,-0.000679105,0,0,0,0,0,0,0,-7.9588,-33.6217,-8.83422,23.5669,-0.85358,3.6895,0.0440523,
0.010282,-0.120765,0.105553,-1.9559,0.223315,0.0591695,0.0283703,0.169595,-0.00917026,0.181591,-0.193746,1.04585,0.0469972,0.00197399,-5.56398,-1.56806,-5.92832,5.04061,-2.31839,39.134,0.658418,13.7907,-0.584561,14.7928,-17.4528,10.3085,2.79653,0.0376913,0.00466788,-0.119343,0.0995255,-1.94982,0.182999,0.0493462,0.0281831,0.112028,-0.0261528,0.207469,-0.0190192,0.886757,-0.0085145,-0.000679105,0,0,0,0,0,0,0,-7.9588,-33.6217,-8.83422,23.5669,-0.85358,3.6895,0.0440523,
0.0113241,-0.120877,0.106674,-1.95719,0.23158,0.0616357,0.0284204,0.161728,-0.0101162,0.173297,-0.187157,1.04328,0.0992519,0.00283206,-4.91636,-0.591223,-5.18369,4.11827,-1.60552,32.6592,0.536295,13.4429,-0.509034,14.4182,-17.1831,10.3085,2.98374,0.0449727,0.00466788,-0.119343,0.0995255,-1.94982,0.182999,0.0493462,0.0281831,0.112028,-0.0261528,0.207469,-0.0190192,0.886757,-0.0085145,-0.000679105,0,0,0,0,0,0,0,-7.9588,-33.6217,-8.83422,23.5669,-0.85358,3.6895,0.0440523,
0.0123335,-0.120954,0.107767,-1.95846,0.239845,0.0641603,0.0284703,0.154617,-0.0100176,0.165962,-0.181598,1.04126,0.142518,0.00351202,-4.44467,0.0616246,-4.58419,3.47393,-1.26083,27.0415,0.424975,13.0779,-0.516442,14.0655,-16.918,10.1994,3.13976,0.0535617,0.00767,-0.119223,0.10792,-1.95147,0.210699,0.0494721,0.0281826,0.0616297,0.0227392,0.220694,-0.008336,0.785544,0.0443962,-0.00152448,-6.29983,6.1115,1.65312,1.3354,-12.6515,6.61384,-0.105672,-1.79364,-28.4563,-2.46276,21.8451,0.837399,3.49724,0.0376436,
0.0133318,-0.121003,0.108845,-1.95971,0.24779,0.0667168,0.0285224,0.148651,-0.00925189,0.159719,-0.176374,1.03163,0.177926,0.00411322,-3.72852,0.478576,-3.90232,3.26504,-6.0196,22.1295,0.375747,12.6858,-0.434454,13.6416,-16.6589,10.1994,3.25568,0.0609444,0.00767,-0.119223,0.10792,-1.95147,0.210699,0.0494721,0.0281826,0.0616297,0.0227392,0.220694,-0.008336,0.785544,0.0443962,-0.00152448,0,0,0,0,0,0,0,-1.79364,-28.4563,-2.46276,21.8451,0.837399,3.49724,0.0376436,
0.0125443,-0.11981,0.113222,-1.95741,0.248057,0.0608375,0.0284237,0.142851,-0.00874421,0.153602,-0.171265,1.00504,0.205778,0.00459895,-3.6251,0.317299,-3.82293,3.19309,-16.6234,17.4076,0.303587,12.2503,-0.350892,13.1774,-16.4123,10.1994,3.33788,0.065509,0.00767,-0.119223,0.10792,-1.95147,0.210699,0.0494721,0.0281826,0.0616297,0.0227392,0.220694,-0.008336,0.785544,0.0443962,-0.00152448,0,0,0,0,0,0,0,-1.79364,-28.4563,-2.46276,21.8451,0.837399,3.49724,0.0376436,
0.013504,-0.119845,0.114255,-1.95858,0.254656,0.0633976,0.0284753,0.138273,-0.00784809,0.148717,-0.166349,0.968988,0.228626,0.00496817,-2.8614,0.560077,-3.05293,3.0726,-22.53,14.2802,0.230762,11.7811,-0.255209,12.7109,-16.172,10.1994,3.39404,0.066434,0.00767,-0.119223,0.10792,-1.95147,0.210699,0.0494721,0.0281826,0.0616297,0.0227392,0.220694,-0.008336,0.785544,0.0443962,-0.00152448,0,0,0,0,0,0,0,-1.79364,-28.4563,-2.46276,21.8451,0.837399,3.49724,0.0376436,
0.0144624,-0.119867,0.115286,-1.95973,0.260602,0.0659607,0.0285258,0.134578,-0.00683777,0.144745,-0.161662,0.923862,0.246976,0.0052384,-2.309,0.63145,-2.48279,2.92971,-28.2039,11.4689,0.168894,11.3561,-0.13082,12.3648,-15.9979,10.1086,3.36583,0.0659337,0.00908887,-0.119232,0.113526,-1.95194,0.236175,0.057694,0.0281809,0.033165,0.0520466,0.143239,0.00619369,0.713648,0.415405,-0.00101532,-3.55809,3.66342,-9.6819,1.81621,-8.98708,46.3762,0.0636444,-5.37213,-26.1592,-6.28722,20.3018,0.324703,1.99212,0.050461,
0.0154157,-0.119883,0.116311,-1.96084,0.26588,0.0685106,0.0285763,0.131494,-0.00585947,0.141413,-0.157226,0.871025,0.261329,0.0054523,-1.92796,0.611438,-2.08235,2.77226,-33.0233,8.97032,0.133689,10.9422,0.0198425,11.9625,-15.7105,8.99205,3.37755,0.0661996,0.00908887,-0.119232,0.113526,-1.95194,0.236175,0.057694,0.0281809,0.033165,0.0520466,0.143239,0.00619369,0.713648,0.415405,-0.00101532,0,0,0,0,0,0,0,-5.37213,-26.1592,-6.28722,20.3018,0.324703,1.99212,0.050461,
0.0120438,-0.119373,0.116783,-1.95589,0.260186,0.0716708,0.0283798,0.125137,-0.00595457,0.134766,-0.152271,0.833276,0.288442,0.00566865,-3.97318,-0.0594399,-4.15445,3.0968,-23.5932,16.946,0.135213,10.9422,0.0198425,11.9625,-15.7105,8.99205,3.37755,0.0661996,0.00908887,-0.119232,0.113526,-1.95194,0.236175,0.057694,0.0281809,0.033165,0.0520466,0.143239,0.00619369,0.713648,0.415405,-0.00101532,0,0,0,0,0,0,0,-5.37213,-26.1592,-6.28722,20.3018,0.324703,1.99212,0.050461,
0.012867,-0.119415,0.117673,-1.95695,0.265094,0.0746712,0.028432,0.12069,-0.00581056,0.130073,-0.148135,0.789313,0.305763,0.00584049,-2.77926,0.09001,-2.93274,2.58513,-27.4768,10.8253,0.107401,10.5742,0.147399,11.5865,-15.4263,7.78246,3.36147,0.0644157,0.00908887,-0.119232,0.113526,-1.95194,0.236175,0.057694,0.0281809,0.033165,0.0520466,0.143239,0.00619369,0.713648,0.415405,-0.00101532,0,0,0,0,0,0,0,-5.37213,-26.1592,-6.28722,20.3018,0.324703,1.99212,0.050461,
0.013707,-0.119449,0.11858,-1.95799,0.269433,0.0775275,0.0284842,0.117552,-0.00551085,0.126733,-0.144587,0.739926,0.316018,0.00597549,-1.96106,0.187317,-2.08771,2.21719,-30.8669,6.40926,0.0843758,10.2394,0.328615,11.2588,-15.2325,6.6285,3.24612,0.0638784,0.00981182,-0.118586,0.118936,-1.95253,0.255829,0.0768346,0.0281811,0.0135707,0.0703928,0.160357,-0.0225435,0.417812,0.697843,-0.000178519,-2.44929,2.29327,2.13977,-3.59215,-36.9795,35.3047,0.104601,-3.31707,-25.8855,-4.06157,20.5756,0.6488,0.838553,0.0239107,
0.0125153,-0.118258,0.121954,-1.95618,0.270318,0.093628,0.02837,0.111995,-0.0040965,0.121004,-0.140112,0.673062,0.338711,0.00610111,-3.47303,0.883968,-3.58085,2.79714,-41.7898,14.1833,0.0785129,9.99114,0.405025,10.9895,-14.9546,5.66319,3.20002,0.0625152,0.00981182,-0.118586,0.118936,-1.95253,0.255829,0.0768346,0.0281811,0.0135707,0.0703928,0.160357,-0.0225435,0.417812,0.697843,-0.000178519,0,0,0,0,0,0,0,-3.31707,-25.8855,-4.06157,20.5756,0.6488,0.838553,0.0239107,
0.0132565,-0.118257,0.12276,-1.95716,0.273172,0.0967461,0.028424,0.108126,-0.00325086,0.116959,-0.1366,0.609796,0.34892,0.00623137,-2.41852,0.528528,-2.52798,2.19479,-39.5414,6.38063,0.08141,9.793,0.457104,10.7692,-14.679,4.78483,3.14499,0.0624555,0.00981182,-0.118586,0.118936,-1.95253,0.255829,0.0768346,0.0281811,0.0135707,0.0703928,0.160357,-0.0225435,0.417812,0.697843,-0.000178519,0,0,0,0,0,0,0,-3.31707,-25.8855,-4.06157,20.5756,0.6488,0.838553,0.0239107,
0.0140147,-0.118262,0.123583,-1.95814,0.275625,0.0996194,0.0284793,0.105456,-0.002718,0.11413,-0.133757,0.549158,0.350968,0.00636621,-1.66839,0.333032,-1.7684,1.77718,-37.8987,1.2804,0.0842747,9.63309,0.487174,10.5857,-14.4075,4.00466,3.08946,0.0625706,0.00981182,-0.118586,0.118936,-1.95253,0.255829,0.0768346,0.0281811,0.0135707,0.0703928,0.160357,-0.0225435,0.417812,0.697843,-0.000178519,0,0,0,0,0,0,0,-3.31707,-25.8855,-4.06157,20.5756,0.6488,0.838553,0.0239107,
0.0147839,-0.118269,0.124416,-1.95911,0.27769,0.1023,0.0285352,0.103594,-0.00235737,0.112128,-0.131391,0.490967,0.34779,0.00649223,-1.16377,0.225397,-1.25115,1.47865,-36.3695,-1.98674,0.078766,9.45001,0.664392,10.3882,-14.3121,3.28136,2.89427,0.0656158,0.0098899,-0.117753,0.122489,-1.95341,0.261363,0.104508,0.0281816,0.00987286,0.0521734,0.0950058,-0.0537603,0.00380767,0.85301,-0.00102973,-0.462226,-2.27742,-8.16892,-3.90211,-51.7505,19.3958,-0.106402,-1.59131,-30.7018,-2.63732,27.1771,0.984799,1.44829,0.00376909,
0.0111849,-0.117428,0.124017,-1.95599,0.265652,0.119084,0.0283239,0.0950689,-0.000596809,0.103525,-0.128064,0.434295,0.379899,0.00653915,-5.32827,1.10035,-5.37649,2.0795,-35.4196,20.0684,0.029321,9.5825,0.654762,10.5441,-14.5807,3.9847,2.95529,0.0645697,0.0098899,-0.117753,0.122489,-1.95341,0.261363,0.104508,0.0281816,0.00987286,0.0521734,0.0950058,-0.0537603,0.00380767,0.85301,-0.00102973,0,0,0,0,0,0,0,-1.59131,-30.7018,-2.63732,27.1771,0.984799,1.44829,0.00376909,
0.0117278,-0.117398,0.124622,-1.95693,0.267252,0.122622,0.0283804,0.0896279,0.000267621,0.0979349,-0.125796,0.387451,0.392376,0.00664451,-3.4006,0.540269,-3.49399,1.41717,-29.2778,7.79832,0.0658545,9.45001,0.664392,10.3882,-14.3121,3.28136,2.89427,0.0656158,0.0098899,-0.117753,0.122489,-1.95341,0.261363,0.104508,0.0281816,0.00987286,0.0521734,0.0950058,-0.0537603,0.00380767,0.85301,-0.00102973,0,0,0,0,0,0,0,-1.59131,-30.7018,-2.63732,27.1771,0.984799,1.44829,0.00376909,
0.012318,-0.117381,0.125272,-1.95787,0.268699,0.125766,0.0284383,0.0864568,0.000655174,0.094605,-0.124189,0.346134,0.392499,0.00676216,-1.98194,0.24222,-2.08119,1.00434,-25.8232,0.0767876,0.0735299,9.33561,0.656826,10.25,-14.0477,2.66624,2.834,0.0664985,0.0098899,-0.117753,0.122489,-1.95341,0.261363,0.104508,0.0281816,0.00987286,0.0521734,0.0950058,-0.0537603,0.00380767,0.85301,-0.00102973,0,0,0,0,0,0,0,-1.59131,-30.7018,-2.63732,27.1771,0.984799,1.44829,0.00376909,
0.0129461,-0.11737,0.12596,-1.95882,0.269947,0.128608,0.0284972,0.0848679,0.000798492,0.0928732,-0.12299,0.308099,0.385066,0.00688212,-0.993062,0.0895739,-1.08238,0.749724,-23.7716,-4.64567,0.074976,9.21686,0.776588,10.1088,-13.9149,2.1493,2.64483,0.0690334,0.0100565,-0.116789,0.125039,-1.95543,0.258388,0.132928,0.0281774,-0.00512273,0.0181291,0.0468855,-0.0997838,-0.184626,0.82017,-0.00183108,-1.87445,-4.25554,-6.01503,-5.75293,-23.5542,-4.10504,-0.100168,-4.76117,-31.6023,-5.33507,31.188,0.471188,2.8875,-0.0026396,
0.0124001,-0.11656,0.127718,-1.96047,0.256604,0.154398,0.0285344,0.0812025,0.000779005,0.0889102,-0.120198,0.243474,0.369735,0.00703735,-2.29088,-0.0121792,-2.47685,1.74482,-40.3905,-9.58208,0.0970193,9.02243,0.698357,9.86855,-13.4012,1.26791,2.51599,0.0714227,0.0100565,-0.116789,0.125039,-1.95543,0.258388,0.132928,0.0281774,-0.00512273,0.0181291,0.0468855,-0.0997838,-0.184626,0.82017,-0.00183108,0,0,0,0,0,0,0,-4.76117,-31.6023,-5.33507,31.188,0.471188,2.8875,-0.0026396,
0.0129632,-0.116556,0.128333,-1.96135,0.256455,0.156639,0.0285952,0.0790394,0.000716028,0.0865137,-0.118004,0.191076,0.351815,0.00714958,-1.35193,-0.0393607,-1.49782,1.37153,-32.7491,-11.1997,0.0701402,8.92432,0.647486,9.748,-13.1484,0.92141,2.45203,0.0722645,0.0100565,-0.116789,0.125039,-1.95543,0.258388,0.132928,0.0281774,-0.00512273,0.0181291,0.0468855,-0.0997838,-0.184626,0.82017,-0.00183108,0,0,0,0,0,0,0,-4.76117,-31.6023,-5.33507,31.188,0.471188,2.8875,-0.0026396,
0.0135481,-0.116553,0.128971,-1.96222,0.256275,0.158699,0.0286551,0.0778548,0.000650629,0.0851457,-0.116201,0.148353,0.332937,0.00721828,-0.740402,-0.0408746,-0.855029,1.12656,-26.7017,-11.7989,0.0429394,8.82286,0.591349,9.62496,-12.8974,0.623092,2.3862,0.073223,0.0100565,-0.116789,0.125039,-1.95543,0.258388,0.132928,0.0281774,-0.00512273,0.0181291,0.0468855,-0.0997838,-0.184626,0.82017,-0.00183108,0,0,0,0,0,0,0,-4.76117,-31.6023,-5.33507,31.188,0.471188,2.8875,-0.0026396,
0.0132446,-0.116671,0.128598,-1.9612,0.252352,0.156277,0.02863,0.074955,-1.90932e-05,0.0819229,-0.111658,0.107398,0.309868,0.00707556,-1.81237,-0.418576,-2.01423,2.83973,-25.597,-14.418,-0.0892031,8.23329,0.33781,8.93182,-11.7191,-0.179463,1.97713,0.0738512,0.00979871,-0.116276,0.126398,-1.95826,0.25123,0.156549,0.0281706,0.00326654,0.00749779,0.0235301,-0.0951813,-0.219938,0.612711,-0.000582407,1.04866,-1.32891,-2.91943,0.575311,-4.41402,-25.9323,0.156084,-2.88464,-30.2019,-3.26018,27.7246,-0.00488642,2.22375,0.017502,
0.0137605,-0.116691,0.129159,-1.96195,0.251955,0.157879,0.0286802,0.0728601,-0.000520787,0.0795696,-0.107906,0.0759921,0.287943,0.00691619,-1.30931,-0.313559,-1.4708,2.34487,-19.6284,-13.7033,-0.0996049,8.1001,0.279826,8.78067,-11.476,-0.256975,1.91902,0.0733025,0.00979871,-0.116276,0.126398,-1.95826,0.25123,0.156549,0.0281706,0.00326654,0.00749779,0.0235301,-0.0951813,-0.219938,0.612711,-0.000582407,0,0,0,0,0,0,0,-2.88464,-30.2019,-3.26018,27.7246,-0.00488642,2.22375,0.017502,
0.0142809,-0.116709,0.129725,-1.96268,0.251609,0.159368,0.0287286,0.0712983,-0.000878769,0.0777982,-0.104719,0.0521439,0.26758,0.00674383,-0.976152,-0.223739,-1.10713,1.99212,-14.9051,-12.7267,-0.107721,7.96241,0.224431,8.6255,-11.2338,-0.309033,1.86407,0.0723623,0.00979871,-0.116276,0.126398,-1.95826,0.25123,0.156549,0.0281706,0.00326654,0.00749779,0.0235301,-0.0951813,-0.219938,0.612711,-0.000582407,0,0,0,0,0,0,0,-2.88464,-30.2019,-3.26018,27.7246,-0.00488642,2.22375,0.017502,
0.0148023,-0.116726,0.130291,-1.96341,0.251312,0.160764,0.0287752,0.0700735,-0.00112207,0.0764006,-0.101929,0.0342914,0.248963,0.00655853,-0.765448,-0.152066,-0.873545,1.74357,-11.1578,-11.636,-0.115814,7.82102,0.171798,8.46745,-10.9922,-0.34433,1.81005,0.0713597,0.00979871,-0.116276,0.126398,-1.95826,0.25123,0.156549,0.0281706,0.00326654,0.00749779,0.0235301,-0.0951813,-0.219938,0.612711,-0.000582407,0,0,0,0,0,0,0,-2.88464,-30.2019,-3.26018,27.7246,-0.00488642,2.22375,0.017502,
0.0134039,-0.116296,0.130412,-1.96471,0.245737,0.176844,0.0285908,0.0661271,-0.00129149,0.0721091,-0.0954326,0.0275522,0.224857,0.00595073,-2.46654,-0.105884,-2.68217,4.0601,-4.21198,-15.0662,-0.379879,6.77965,-0.0990258,7.32349,-9.33293,-0.200325,1.43373,0.0591304,0.00997517,-0.116016,0.127609,-1.96146,0.242349,0.171506,0.0281673,0.0045175,-0.0123839,0.0351466,-0.0861612,-0.271635,0.308512,0.000182626,0.15637,-2.48521,1.45206,1.12751,-6.46212,-38.025,0.0956291,0.689884,-30.5272,0.187391,26.2567,0.667111,1.74035,0.00376909,
0.0138048,-0.11631,0.130849,-1.96526,0.245789,0.177817,0.028617,0.0629255,-0.00138982,0.0686257,-0.0898827,0.0233282,0.204215,0.00541629,-2.00098,-0.0614552,-2.17711,3.46871,-2.64,-12.901,-0.334023,6.62691,-0.125841,7.15887,-9.0949,-0.163255,1.3971,0.0569728,0.00997517,-0.116016,0.127609,-1.96146,0.242349,0.171506,0.0281673,0.0045175,-0.0123839,0.0351466,-0.0861612,-0.271635,0.308512,0.000182626,0,0,0,0,0,0,0,0.689884,-30.5272,0.187391,26.2567,0.667111,1.74035,0.00376909,
0.014202,-0.116323,0.131283,-1.96578,0.245881,0.178744,0.0286413,0.0602693,-0.00143591,0.0657365,-0.0850642,0.0209698,0.186538,0.00494119,-1.66011,-0.0288077,-1.80574,3.01156,-1.47403,-11.0481,-0.296938,6.47427,-0.149811,6.99477,-8.85725,-0.123379,1.36288,0.0546837,0.00997517,-0.116016,0.127609,-1.96146,0.242349,0.171506,0.0281673,0.0045175,-0.0123839,0.0351466,-0.0861612,-0.271635,0.308512,0.000182626,0,0,0,0,0,0,0,0.689884,-30.5272,0.187391,26.2567,0.667111,1.74035,0.00376909,
0.0145937,-0.116335,0.13171,-1.96629,0.246009,0.17963,0.0286638,0.0580087,-0.00144516,0.0632805,-0.0808095,0.0199843,0.171373,0.00451509,-1.41287,-0.00577922,-1.53505,2.65917,-0.615886,-9.4785,-0.266311,6.32197,-0.171189,6.83155,-8.61984,-0.0840136,1.33011,0.0523948,0.00997517,-0.116016,0.127609,-1.96146,0.242349,0.171506,0.0281673,0.0045175,-0.0123839,0.0351466,-0.0861612,-0.271635,0.308512,0.000182626,0,0,0,0,0,0,0,0.689884,-30.5272,0.187391,26.2567,0.667111,1.74035,0.00376909,
0.0123795,-0.11613,0.130322,-1.96604,0.23843,0.182689,0.0283882,0.0544381,-0.00130862,0.0594545,-0.0759533,0.0188598,0.158346,0.00405662,-2.23161,0.0853322,-2.39124,3.03515,-0.702855,-8.14178,-0.286543,5.56541,-0.244548,6.0256,-7.43611,0.0988044,1.1905,0.0404758,0.00997517,-0.116016,0.127609,-1.96146,0.242349,0.171506,0.0281673,0.0045175,-0.0123839,0.0351466,-0.0861612,-0.271635,0.308512,0.000182626,0,0,0,0,0,0,0,0.689884,-30.5272,0.187391,26.2567,0.667111,1.74035,0.00376909,
0.0127008,-0.116136,0.130675,-1.96648,0.238605,0.183487,0.0284042,0.0515825,-0.0011897,0.0563874,-0.0716496,0.0194491,0.146634,0.00364483,-1.78477,0.0743308,-1.91691,2.6898,0.368315,-7.31961,-0.257371,5.43105,-0.27702,5.88193,-7.18055,0.169382,1.15434,0.0379168,0.0102541,-0.115911,0.128997,-1.96447,0.235533,0.176949,0.028168,0.0084721,-0.011139,0.0370044,-0.0633714,-0.147093,0.0728996,0.00108636,0.494324,0.155618,0.232228,2.84873,15.5677,-29.4515,0.112967,-0.119442,-31.1501,-0.812364,25.2332,1.13678,1.22307,-0.0026396,
0.0130195,-0.116142,0.131025,-1.9669,0.238834,0.184237,0.0284184,0.0492341,-0.00108647,0.0538611,-0.0677714,0.0213027,0.136046,0.00327087,-1.46775,0.0645181,-1.57895,2.42388,1.15849,-6.61756,-0.233723,5.28057,-0.284583,5.72236,-6.94401,0.197794,1.13015,0.0355662,0.0102541,-0.115911,0.128997,-1.96447,0.235533,0.176949,0.028168,0.0084721,-0.011139,0.0370044,-0.0633714,-0.147093,0.0728996,0.00108636,0,0,0,0,0,0,0,-0.119442,-31.1501,-0.812364,25.2332,1.13678,1.22307,-0.0026396,
0.0133336,-0.116147,0.13137,-1.9673,0.239119,0.184938,0.0284309,0.0472379,-0.000996886,0.0517122,-0.0642194,0.0241464,0.126376,0.00292822,-1.24763,0.0559876,-1.34306,2.21999,1.77735,-6.04414,-0.214156,5.13018,-0.290764,5.56297,-6.70727,0.223768,1.10592,0.0332783,0.0102541,-0.115911,0.128997,-1.96447,0.235533,0.176949,0.028168,0.0084721,-0.011139,0.0370044,-0.0633714,-0.147093,0.0728996,0.00108636,0,0,0,0,0,0,0,-0.119442,-31.1501,-0.812364,25.2332,1.13678,1.22307,-0.0026396,
0.0120022,-0.11601,0.13096,-1.96763,0.234457,0.181867,0.0282821,0.0446981,-0.000733141,0.0490097,-0.0611104,0.0253937,0.11718,0.00262,-1.5874,0.164841,-1.68909,1.94316,0.77952,-5.74712,-0.192638,4.67982,-0.302108,5.08509,-5.9952,0.298766,1.02857,0.0265859,0.0102541,-0.115911,0.128997,-1.96447,0.235533,0.176949,0.028168,0.0084721,-0.011139,0.0370044,-0.0633714,-0.147093,0.0728996,0.00108636,0,0,0,0,0,0,0,-0.119442,-31.1501,-0.812364,25.2332,1.13678,1.22307,-0.0026396,
0.0122769,-0.116008,0.131264,-1.968,0.234789,0.182466,0.0282915,0.0426274,-0.000523194,0.0467989,-0.0581049,0.0286166,0.108716,0.0023289,-1.29417,0.131216,-1.38173,1.87839,2.01435,-5.29032,-0.181935,4.53391,-0.310967,4.93107,-5.75493,0.35131,0.996074,0.0244012,0.0103485,-0.1159,0.130248,-1.96631,0.229418,0.178469,0.0281655,-0.0026285,-0.000599548,0.0335657,-0.0422195,-0.187544,0.012018,-0.00115764,-1.38758,1.31743,-0.429839,2.64399,-5.05639,-7.61019,-0.2805,0.840641,-30.4796,-0.110155,24.6619,1.54052,1.43548,0.050461,
0.0125476,-0.116006,0.131563,-1.96835,0.235213,0.183013,0.028299,0.0408678,-0.000366062,0.0449158,-0.0551822,0.0334784,0.100651,0.00205178,-1.09975,0.0982078,-1.1769,1.82669,3.03859,-5.04042,-0.173203,4.38525,-0.311978,4.77267,-5.51604,0.382202,0.963255,0.0222929,0.0103485,-0.1159,0.130248,-1.96631,0.229418,0.178469,0.0281655,-0.0026285,-0.000599548,0.0335657,-0.0422195,-0.187544,0.012018,-0.00115764,0,0,0,0,0,0,0,0.840641,-30.4796,-0.110155,24.6619,1.54052,1.43548,0.050461,
0.0113918,-0.115863,0.131463,-1.96861,0.228716,0.181053,0.0282143,0.0377581,0.000117186,0.0416431,-0.0522071,0.0380372,0.0902448,0.00175778,-1.94358,0.30203,-2.04549,1.85948,2.84927,-6.50397,-0.183748,3.94797,-0.311402,4.3044,-4.79522,0.516801,0.834526,0.0162136,0.0103485,-0.1159,0.130248,-1.96631,0.229418,0.178469,0.0281655,-0.0026285,-0.000599548,0.0335657,-0.0422195,-0.187544,0.012018,-0.00115764,0,0,0,0,0,0,0,0.840641,-30.4796,-0.110155,24.6619,1.54052,1.43548,0.050461,
0.0115957,-0.115848,0.131692,-1.9689,0.229344,0.181375,0.0282172,0.0353028,0.000470637,0.0390455,-0.0492187,0.0461242,0.0802571,0.00147767,-1.53458,0.220907,-1.62347,1.86773,5.05435,-6.24231,-0.17507,3.80691,-0.310285,4.15225,-4.55356,0.585083,0.777007,0.0142452,0.0103485,-0.1159,0.130248,-1.96631,0.229418,0.178469,0.0281655,-0.0026285,-0.000599548,0.0335657,-0.0422195,-0.187544,0.012018,-0.00115764,0,0,0,0,0,0,0,0.840641,-30.4796,-0.110155,24.6619,1.54052,1.43548,0.050461,
0.0117975,-0.115835,0.131919,-1.96918,0.230157,0.181615,0.0282182,0.0332874,0.000709223,0.0369041,-0.0462357,0.0572239,0.0702115,0.00120898,-1.25961,0.149117,-1.33836,1.86435,6.93735,-6.2785,-0.167934,3.6667,-0.326957,4.00122,-4.29636,0.687755,0.715324,0.0122734,0.0103951,-0.115923,0.131123,-1.96746,0.224778,0.178397,0.0281674,-0.00913128,0.00590387,0.0146883,-0.0256051,-0.0960994,-0.00617121,0.00102088,-0.812847,0.812928,-2.35968,2.07679,11.4306,-2.27366,0.272315,1.90784,-29.6306,1.03639,24.7372,2.26654,2.16424,0.017502,
0.0119944,-0.115823,0.13214,-1.96943,0.231171,0.181758,0.0282176,0.0315536,0.00085566,0.0350566,-0.0432705,0.0711196,0.0597361,0.000950572,-1.08362,0.0915231,-1.15474,1.85323,8.68482,-6.54709,-0.161502,3.53318,-0.325037,3.85577,-4.05354,0.79385,0.636349,0.0103552,0.0103951,-0.115923,0.131123,-1.96746,0.224778,0.178397,0.0281674,-0.00913128,0.00590387,0.0146883,-0.0256051,-0.0960994,-0.00617121,0.00102088,0,0,0,0,0,0,0,1.90784,-29.6306,1.03639,24.7372,2.26654,2.16424,0.017502,
0.0109196,-0.115859,0.131764,-1.96896,0.226258,0.179497,0.0281858,0.0287461,0.00112332,0.0321116,-0.0411053,0.077958,0.0510464,0.000764687,-1.75466,0.16729,-1.84058,1.3533,4.27399,-5.43105,-0.116178,3.40446,-0.322622,3.7147,-3.81032,0.924636,0.544043,0.00846815,0.0103951,-0.115923,0.131123,-1.96746,0.224778,0.178397,0.0281674,-0.00913128,0.00590387,0.0146883,-0.0256051,-0.0960994,-0.00617121,0.00102088,0,0,0,0,0,0,0,1.90784,-29.6306,1.03639,24.7372,2.26654,2.16424,0.017502,
0.0110644,-0.115842,0.131931,-1.9692,0.227365,0.179524,0.0281841,0.0266178,0.00132117,0.0298674,-0.0387633,0.0900505,0.0415155,0.000570257,-1.33021,0.123654,-1.40266,1.46372,7.55781,-5.95681,-0.121518,3.28115,-0.319526,3.57855,-3.56691,1.08511,0.436312,0.00660393,0.0103951,-0.115923,0.131123,-1.96746,0.224778,0.178397,0.0281674,-0.00913128,0.00590387,0.0146883,-0.0256051,-0.0960994,-0.00617121,0.00102088,0,0,0,0,0,0,0,1.90784,-29.6306,1.03639,24.7372,2.26654,2.16424,0.017502,
0.0112095,-0.115826,0.132098,-1.96941,0.228753,0.179428,0.0281808,0.024921,0.0014501,0.0280693,-0.036298,0.106742,0.0308284,0.000372788,-1.06048,0.0805823,-1.12379,1.54082,10.4325,-6.67947,-0.123418,3.16268,-0.326131,3.44615,-3.31212,1.28662,0.319892,0.00473511,0.0104082,-0.115923,0.131259,-1.96861,0.222806,0.177673,0.0281721,-0.00327807,0.00869598,0.00698373,-0.0283665,-0.00846448,-0.0284871,0.000597432,0.731651,0.349013,-0.963068,-0.345175,10.9544,-2.78948,-0.0529309,0.816837,-29.7536,-0.0387439,26.6058,1.89483,2.50939,0.00376909,
0.0113511,-0.115811,0.132261,-1.9696,0.230444,0.179193,0.028176,0.0234784,0.00152385,0.0265347,-0.0337521,0.127656,0.0187882,0.000178112,-0.901648,0.0460935,-0.959148,1.59116,13.0707,-7.52513,-0.121673,3.05114,-0.320809,3.3208,-3.06897,1.51952,0.176364,0.00296122,0.0104082,-0.115923,0.131259,-1.96861,0.222806,0.177673,0.0281721,-0.00327807,0.00869598,0.00698373,-0.0283665,-0.00846448,-0.0284871,0.000597432,0,0,0,0,0,0,0,0.816837,-29.7536,-0.0387439,26.6058,1.89483,2.50939,0.00376909,
0.0106543,-0.115832,0.131566,-1.9695,0.224336,0.177757,0.0281817,0.0214707,0.00194055,0.0244377,-0.0339069,0.121557,0.0157392,0.000171117,-1.25481,0.260436,-1.31062,-0.0967451,-3.81192,-1.90563,-0.00437185,3.16268,-0.326131,3.44615,-3.31212,1.28662,0.319892,0.00473511,0.0104082,-0.115923,0.131259,-1.96861,0.222806,0.177673,0.0281721,-0.00327807,0.00869598,0.00698373,-0.0283665,-0.00846448,-0.0284871,0.000597432,0,0,0,0,0,0,0,0.816837,-29.7536,-0.0387439,26.6058,1.89483,2.50939,0.00376909,
0.0107747,-0.115804,0.131707,-1.96975,0.225387,0.177717,0.0281807,0.0201866,0.0022483,0.0230896,-0.03336,0.123536,0.0115849,0.000112534,-0.802551,0.192344,-0.842543,0.341847,1.23686,-2.5964,-0.0366146,3.05114,-0.320809,3.3208,-3.06897,1.51952,0.176364,0.00296122,0.0104082,-0.115923,0.131259,-1.96861,0.222806,0.177673,0.0281721,-0.00327807,0.00869598,0.00698373,-0.0283665,-0.00846448,-0.0284871,0.000597432,0,0,0,0,0,0,0,0.816837,-29.7536,-0.0387439,26.6058,1.89483,2.50939,0.00376909,
0.0109012,-0.115779,0.131855,-1.96997,0.226729,0.177577,0.0281778,0.0193135,0.00244534,0.022165,-0.0322623,0.132378,0.00576617,1.83899e-05,-0.545695,0.123153,-0.577858,0.686068,5.52675,-3.63673,-0.0588399,2.94402,-0.32521,3.19971,-2.81354,1.79142,0.0284542,0.00118794,0.0104596,-0.115863,0.131402,-1.96967,0.223321,0.17552,0.0281754,-0.000513028,0.00577856,-0.00687679,-0.032881,0.0364118,-0.0769209,-9.04294e-05,0.345631,-0.364677,-1.73256,-0.564307,5.60953,-6.05423,-0.0859827,1.01917,-30.8763,0.26277,27.2009,1.57714,2.7282,0.00376909,
0.0110288,-0.115755,0.132003,-1.97017,0.228383,0.177312,0.0281733,0.0186389,0.00254582,0.0214435,-0.0307504,0.147236,-0.00199557,-9.72766e-05,-0.421599,0.0627977,-0.450985,0.944887,9.28584,-4.85108,-0.0722916,2.84254,-0.315801,3.08341,-2.57163,2.11264,-0.155224,-0.000406233,0.0104596,-0.115863,0.131402,-1.96967,0.223321,0.17552,0.0281754,-0.000513028,0.00577856,-0.00687679,-0.032881,0.0364118,-0.0769209,-9.04294e-05,0,0,0,0,0,0,0,1.01917,-30.8763,0.26277,27.2009,1.57714,2.7282,0.00376909,
0.010608,-0.115757,0.131602,-1.9705,0.22603,0.174554,0.0281782,0.0168319,0.00296978,0.0195491,-0.0308539,0.148105,-0.00924634,-0.000113329,-1.12942,0.264973,-1.18401,-0.0646507,0.543412,-4.53173,-0.010033,2.94402,-0.32521,3.19971,-2.81354,1.79142,0.0284542,0.00118794,0.0104596,-0.115863,0.131402,-1.96967,0.223321,0.17552,0.0281754,-0.000513028,0.00577856,-0.00687679,-0.032881,0.0364118,-0.0769209,-9.04294e-05,0,0,0,0,0,0,0,1.01917,-30.8763,0.26277,27.2009,1.57714,2.7282,0.00376909,
0.010698,-0.11572,0.131711,-1.97072,0.227577,0.174179,0.0281747,0.0157153,0.00329608,0.0183752,-0.0301817,0.157147,-0.0167535,-0.000177448,-0.697844,0.203939,-0.733689,0.420128,5.65131,-4.69198,-0.0400745,2.84254,-0.315801,3.08341,-2.57163,2.11264,-0.155224,-0.000406233,0.0104596,-0.115863,0.131402,-1.96967,0.223321,0.17552,0.0281754,-0.000513028,0.00577856,-0.00687679,-0.032881,0.0364118,-0.0769209,-9.04294e-05,0,0,0,0,0,0,0,1.01917,-30.8763,0.26277,27.2009,1.57714,2.7282,0.00376909,
0.0107938,-0.115686,0.131826,-1.97091,0.229478,0.173699,0.0281697,0.0149679,0.00350692,0.0175831,-0.0289281,0.173248,-0.025418,-0.000268316,-0.467159,0.131772,-0.495037,0.783518,10.063,-5.4153,-0.0567921,2.74349,-0.30344,2.96905,-2.33064,2.48125,-0.358511,-0.00184259,0.0104596,-0.115863,0.131402,-1.96967,0.223321,0.17552,0.0281754,-0.000513028,0.00577856,-0.00687679,-0.032881,0.0364118,-0.0769209,-9.04294e-05,0,0,0,0,0,0,0,1.01917,-30.8763,0.26277,27.2009,1.57714,2.7282,0.00376909,
0.01089,-0.115653,0.131942,-1.97107,0.231754,0.173085,0.0281636,0.0143778,0.00361345,0.0169507,-0.0272558,0.195502,-0.0356822,-0.000367607,-0.368763,0.0665815,-0.395247,1.04516,13.909,-6.41512,-0.0620568,2.64341,-0.287451,2.85318,-2.09058,2.89706,-0.579734,-0.00305449,0.0104596,-0.115863,0.131402,-1.96967,0.223321,0.17552,0.0281754,-0.000513028,0.00577856,-0.00687679,-0.032881,0.0364118,-0.0769209,-9.04294e-05,0,0,0,0,0,0,0,1.01917,-30.8763,0.26277,27.2009,1.57714,2.7282,0.00376909,
0.0104774,-0.11583,0.131434,-1.96997,0.223919,0.175152,0.0281786,0.0119472,0.00370598,0.0143727,-0.0292823,0.171353,-0.0377304,-0.00021508,-1.51914,0.0578312,-1.61124,-1.26658,-15.0935,-1.28012,0.0953294,2.94402,-0.32521,3.19971,-2.81354,1.79142,0.0284542,0.00118794,0.0104596,-0.115863,0.131402,-1.96967,0.223321,0.17552,0.0281754,-0.000513028,0.00577856,-0.00687679,-0.032881,0.0364118,-0.0769209,-9.04294e-05,0,0,0,0,0,0,0,1.01917,-30.8763,0.26277,27.2009,1.57714,2.7282,0.00376909,
0.0105312,-0.115795,0.131506,-1.97025,0.224818,0.17486,0.0281796,0.0109022,0.00384936,0.0132867,-0.0304218,0.159534,-0.0375036,-0.000146762,-0.653159,0.0896163,-0.678759,-0.712149,-7.38652,0.141714,0.0426984,2.84254,-0.315801,3.08341,-2.57163,2.11264,-0.155224,-0.000406233,0.0104596,-0.115863,0.131402,-1.96967,0.223321,0.17552,0.0281754,-0.000513028,0.00577856,-0.00687679,-0.032881,0.0364118,-0.0769209,-9.04294e-05,0,0,0,0,0,0,0,1.01917,-30.8763,0.26277,27.2009,1.57714,2.7282,0.00376909,
0.010608,-0.115757,0.131602,-1.9705,0.22603,0.174554,0.0281782,0.0106425,0.00401261,0.0130236,-0.0305909,0.157944,-0.0376528,-0.000152918,-0.16232,0.10203,-0.164409,-0.105736,-0.993923,-0.0932252,-0.00384725,2.74349,-0.30344,2.96905,-2.33064,2.48125,-0.358511,-0.00184259,0.0104596,-0.115863,0.131402,-1.96967,0.223321,0.17552,0.0281754,-0.000513028,0.00577856,-0.00687679,-0.032881,0.0364118,-0.0769209,-9.04294e-05,0,0,0,0,0,0,0,1.01917,-30.8763,0.26277,27.2009,1.57714,2.7282,0.00376909,
0.0106901,-0.115663,0.131777,-1.97156,0.228246,0.172703,0.0281626,0.00998307,0.00441507,0.0123785,-0.0295564,0.16906,-0.0418169,-0.000250195,-0.412121,0.251538,-0.403236,0.646564,6.94767,-2.60255,-0.060798,2.74435,-0.318341,2.97054,-2.31566,2.47754,-0.343931,-0.00192996,0.0105572,-0.115811,0.131584,-1.97084,0.224448,0.173801,0.0281739,7.96231e-05,0.00420977,0.00295401,-0.0417884,0.0401524,-0.0274134,-0.000333839,0.0740814,-0.196098,1.22885,-1.11342,0.46757,6.18845,-0.0304262,-0.0956386,-30.9041,-0.788561,27.0264,1.48559,2.34368,0.017502,
0.0107554,-0.115619,0.131862,-1.97173,0.230384,0.1721,0.0281566,0.00961911,0.00463903,0.0120109,-0.0279878,0.188691,-0.048544,-0.000350527,-0.227472,0.139977,-0.2297,0.980416,12.2694,-4.20445,-0.0627079,2.64428,-0.302353,2.85467,-2.0756,2.89335,-0.565154,-0.00314186,0.0105572,-0.115811,0.131584,-1.97084,0.224448,0.173801,0.0281739,7.96231e-05,0.00420977,0.00295401,-0.0417884,0.0401524,-0.0274134,-0.000333839,0,0,0,0,0,0,0,-0.0956386,-30.9041,-0.788561,27.0264,1.48559,2.34368,0.017502,
0.0108224,-0.115579,0.131947,-1.97188,0.232951,0.171344,0.0281502,0.00937041,0.00471935,0.0117428,-0.026057,0.215128,-0.057736,-0.000440674,-0.155436,0.0501956,-0.167607,1.20674,16.523,-5.745,-0.0563414,2.53805,-0.282135,2.73219,-1.83641,3.35228,-0.800156,-0.00404068,0.0105572,-0.115811,0.131584,-1.97084,0.224448,0.173801,0.0281739,7.96231e-05,0.00420977,0.00295401,-0.0417884,0.0401524,-0.0274134,-0.000333839,0,0,0,0,0,0,0,-0.0956386,-30.9041,-0.788561,27.0264,1.48559,2.34368,0.017502,
0.0108871,-0.115542,0.132029,-1.972,0.235945,0.170426,0.028144,0.00911292,0.00469985,0.0114499,-0.02389,0.246963,-0.069122,-0.000506142,-0.160934,-0.0121844,-0.183053,1.3544,19.8965,-7.11629,-0.0409177,2.41836,-0.257221,2.59581,-1.59764,3.8462,-1.04342,-0.00451257,0.0105572,-0.115811,0.131584,-1.97084,0.224448,0.173801,0.0281739,7.96231e-05,0.00420977,0.00295401,-0.0417884,0.0401524,-0.0274134,-0.000333839,0,0,0,0,0,0,0,-0.0956386,-30.9041,-0.788561,27.0264,1.48559,2.34368,0.017502,
0.0106802,-0.115721,0.131955,-1.9728,0.231897,0.172397,0.0281505,0.00759713,0.0047911,0.00992332,-0.0226469,0.255282,-0.0712252,-0.000570834,-0.947371,0.0570312,-0.954104,0.776903,5.19949,-1.31445,-0.0404325,2.53844,-0.293128,2.73463,-1.83033,3.34526,-0.792211,-0.00408502,0.0106784,-0.115848,0.131894,-1.97228,0.226652,0.173706,0.0281706,0.00288708,0.00343233,-0.00632181,-0.0335656,0.0589171,0.00152833,9.16688e-05,0.350932,-0.097181,-1.15948,1.02784,2.3456,3.61771,0.0531884,-1.3136,-30.2019,-1.98668,26.9034,1.31439,2.14501,0.017502,
0.0106991,-0.115682,0.131991,-1.97292,0.234707,0.171568,0.0281444,0.00655111,0.00479091,0.00883807,-0.0210453,0.274491,-0.0777159,-0.000608744,-0.653757,-0.000121977,-0.678281,1.00103,12.0056,-4.05672,-0.0236939,2.41875,-0.268213,2.59825,-1.59156,3.83918,-1.03547,-0.00455692,0.0106784,-0.115848,0.131894,-1.97228,0.226652,0.173706,0.0281706,0.00288708,0.00343233,-0.00632181,-0.0335656,0.0589171,0.00152833,9.16688e-05,0,0,0,0,0,0,0,-1.3136,-30.2019,-1.98668,26.9034,1.31439,2.14501,0.017502,
0.0107205,-0.115646,0.132028,-1.97301,0.237986,0.170554,0.0281395,0.00577647,0.00472873,0.0080039,-0.019207,0.301558,-0.0875078,-0.000609386,-0.484154,-0.0388626,-0.521358,1.14891,16.9168,-6.11991,-0.000400959,2.27589,-0.238416,2.43831,-1.3527,4.354,-1.27825,-0.00446848,0.0106784,-0.115848,0.131894,-1.97228,0.226652,0.173706,0.0281706,0.00288708,0.00343233,-0.00632181,-0.0335656,0.0589171,0.00152833,9.16688e-05,0,0,0,0,0,0,0,-1.3136,-30.2019,-1.98668,26.9034,1.31439,2.14501,0.017502,
0.0107406,-0.115612,0.132063,-1.97308,0.241691,0.169371,0.0281366,0.00512266,0.00463303,0.00727254,-0.0172138,0.333867,-0.0995928,-0.000561919,-0.408629,-0.0598098,-0.457096,1.24574,20.1936,-7.55317,0.0296666,2.09741,-0.204013,2.24236,-1.11261,4.86885,-1.51082,-0.00367198,0.0106784,-0.115848,0.131894,-1.97228,0.226652,0.173706,0.0281706,0.00288708,0.00343233,-0.00632181,-0.0335656,0.0589171,0.00152833,9.16688e-05,0,0,0,0,0,0,0,-1.3136,-30.2019,-1.98668,26.9034,1.31439,2.14501,0.017502,
0.0108572,-0.115728,0.132353,-1.97372,0.231218,0.17288,0.0281569,0.00540587,0.0048571,0.00773539,-0.0174705,0.319643,-0.0937105,-0.000699495,0.177005,0.140041,0.289283,-0.16042,-8.89005,3.67649,-0.0859851,2.4192,-0.273768,2.59986,-1.58616,3.83643,-1.02899,-0.00458699,0.010739,-0.115824,0.132178,-1.9734,0.227718,0.173748,0.0281782,0.00332037,0.00613484,0.0250475,-0.0275391,0.0654722,-0.000179837,0.00108108,0.054162,0.337814,3.92116,0.753313,0.81938,-0.213521,0.123676,0.66608,-30.3764,-0.0387439,27.0779,1.43615,2.06536,-0.0227812,
0.010901,-0.115686,0.132418,-1.97384,0.233915,0.172093,0.0281488,0.00541908,0.00493286,0.00779952,-0.0170125,0.323141,-0.0946459,-0.000761798,0.0082541,0.0473541,0.0400771,0.286225,2.18597,-0.584631,-0.038939,2.27634,-0.24397,2.43992,-1.3473,4.35124,-1.27177,-0.00449855,0.010739,-0.115824,0.132178,-1.9734,0.227718,0.173748,0.0281782,0.00332037,0.00613484,0.0250475,-0.0275391,0.0654722,-0.000179837,0.00108108,0,0,0,0,0,0,0,0.66608,-30.3764,-0.0387439,27.0779,1.43615,2.06536,-0.0227812,
0.0109381,-0.115648,0.132473,-1.97394,0.237133,0.171103,0.0281427,0.0052629,0.00490674,0.00762,-0.0160534,0.338958,-0.100472,-0.000761512,-0.0976107,-0.0163256,-0.112196,0.599485,9.8857,-3.64162,0.000178388,2.09786,-0.209567,2.24397,-1.10721,4.86609,-1.50433,-0.00370205,0.010739,-0.115824,0.132178,-1.9734,0.227718,0.173748,0.0281782,0.00332037,0.00613484,0.0250475,-0.0275391,0.0654722,-0.000179837,0.00108108,0,0,0,0,0,0,0,0.66608,-30.3764,-0.0387439,27.0779,1.43615,2.06536,-0.0227812,
0.0109683,-0.115612,0.132519,-1.97402,0.240807,0.169932,0.028139,0.00496451,0.00482062,0.00725191,-0.0147401,0.363012,-0.109658,-0.000701334,-0.186491,-0.0538274,-0.230056,0.820803,15.0337,-5.74091,0.0376116,1.86886,-0.171586,1.99724,-0.864887,5.35212,-1.71423,-0.00208277,0.010739,-0.115824,0.132178,-1.9734,0.227718,0.173748,0.0281782,0.00332037,0.00613484,0.0250475,-0.0275391,0.0654722,-0.000179837,0.00108108,0,0,0,0,0,0,0,0.66608,-30.3764,-0.0387439,27.0779,1.43615,2.06536,-0.0227812,
0.0109634,-0.115593,0.132762,-1.97447,0.240411,0.171495,0.0281528,0.00402568,0.00486566,0.00629885,-0.0135397,0.376402,-0.113256,-0.00068239,-0.586774,0.0281486,-0.595666,0.750219,8.36901,-2.24871,0.0118396,2.09948,-0.210076,2.24856,-1.10946,4.85121,-1.49896,-0.00374564,0.0109274,-0.115723,0.13266,-1.97418,0.231958,0.173735,0.0281768,0.00661386,0.00363161,0.0106585,-0.02609,0.156959,-0.000168793,0.000898586,0.411686,-0.312904,-1.79863,0.181137,11.4359,0.00138055,-0.0228115,0.66608,-31.0509,-0.0387439,27.2009,1.93695,2.08459,0.00376909,
0.0109594,-0.115556,0.132773,-1.97452,0.244309,0.170273,0.0281511,0.0031225,0.00481445,0.00531237,-0.0120793,0.398591,-0.121136,-0.000588149,-0.564487,-0.0320042,-0.616551,0.912785,13.868,-4.92489,0.0589008,1.87048,-0.172095,2.00183,-0.867132,5.33724,-1.70886,-0.00212636,0.0109274,-0.115723,0.13266,-1.97418,0.231958,0.173735,0.0281768,0.00661386,0.00363161,0.0106585,-0.02609,0.156959,-0.000168793,0.000898586,0,0,0,0,0,0,0,0.66608,-31.0509,-0.0387439,27.2009,1.93695,2.08459,0.00376909,
0.0109499,-0.115523,0.132776,-1.97455,0.248539,0.168904,0.0281498,0.00225886,0.00468235,0.0043228,-0.010466,0.424616,-0.131132,-0.000503805,-0.53977,-0.0825605,-0.618479,1.00831,16.2657,-6.24744,0.0527149,1.57426,-0.133122,1.68787,-0.621326,5.75615,-1.88409,0.000297037,0.0109274,-0.115723,0.13266,-1.97418,0.231958,0.173735,0.0281768,0.00661386,0.00363161,0.0106585,-0.02609,0.156959,-0.000168793,0.000898586,0,0,0,0,0,0,0,0.66608,-31.0509,-0.0387439,27.2009,1.93695,2.08459,0.00376909,
0.0109394,-0.115496,0.132777,-1.97457,0.252896,0.167474,0.0281316,0.00154617,0.00441717,0.00348729,-0.00884527,0.448612,-0.140655,-0.000856883,-0.445432,-0.165738,-0.522192,1.01295,14.9976,-5.95193,-0.220673,1.19521,-0.0995516,1.29217,-0.373321,6.05798,-2.00932,0.00290808,0.0109274,-0.115723,0.13266,-1.97418,0.231958,0.173735,0.0281768,0.00661386,0.00363161,0.0106585,-0.02609,0.156959,-0.000168793,0.000898586,0,0,0,0,0,0,0,0.66608,-31.0509,-0.0387439,27.2009,1.93695,2.08459,0.00376909,
0.0109512,-0.115678,0.132711,-1.97431,0.234108,0.173285,0.0281659,0.00183117,0.00467137,0.00407339,-0.0102972,0.412648,-0.123767,-0.000958013,0.178122,0.158874,0.366309,-0.907433,-22.4777,10.5549,-0.0632065,2.09855,-0.215208,2.25113,-1.10658,4.83164,-1.49118,-0.00374319,0.0112022,-0.115654,0.133136,-1.97478,0.237527,0.173691,0.0281757,0.0111806,-0.000412418,0.0189712,-0.0140786,0.125967,-0.000239486,0.000900043,0.570842,-0.505503,1.03909,1.50143,-3.87407,-0.00883666,0.000182108,-0.119442,-30.3764,-0.788561,26.8796,2.15118,2.23107,0.00376909,
0.0109612,-0.115634,0.132743,-1.9744,0.236971,0.172516,0.0281577,0.00171602,0.00484202,0.00405176,-0.0105769,0.401691,-0.118256,-0.000972543,-0.071968,0.106655,-0.0135164,-0.174824,-6.84835,3.44398,-0.00908109,1.86955,-0.177227,2.0044,-0.864253,5.31767,-1.70108,-0.00212391,0.0112022,-0.115654,0.133136,-1.97478,0.237527,0.173691,0.0281757,0.0111806,-0.000412418,0.0189712,-0.0140786,0.125967,-0.000239486,0.000900043,0,0,0,0,0,0,0,-0.119442,-30.3764,-0.788561,26.8796,2.15118,2.23107,0.00376909,
0.0109634,-0.115593,0.132762,-1.97447,0.240411,0.171495,0.0281528,0.00142688,0.00488278,0.00373873,-0.0102092,0.407345,-0.120135,-0.000899358,-0.180712,0.0254737,-0.195647,0.229819,3.53416,-1.17389,0.0457407,1.57333,-0.138254,1.69044,-0.618446,5.73658,-1.87631,0.000299486,0.0112022,-0.115654,0.133136,-1.97478,0.237527,0.173691,0.0281757,0.0111806,-0.000412418,0.0189712,-0.0140786,0.125967,-0.000239486,0.000900043,0,0,0,0,0,0,0,-0.119442,-30.3764,-0.788561,26.8796,2.15118,2.23107,0.00376909,
0.0111826,-0.115595,0.133194,-1.9749,0.246801,0.171098,0.028149,0.000360972,0.00447078,0.0026471,-0.00869145,0.42046,-0.12496,-0.000834921,-0.666192,-0.257494,-0.682266,0.948573,8.19665,-3.01552,0.0402728,1.57333,-0.138254,1.69044,-0.618446,5.73658,-1.87631,0.000299486,0.0112022,-0.115654,0.133136,-1.97478,0.237527,0.173691,0.0281757,0.0111806,-0.000412418,0.0189712,-0.0140786,0.125967,-0.000239486,0.000900043,0,0,0,0,0,0,0,-0.119442,-30.3764,-0.788561,26.8796,2.15118,2.23107,0.00376909,
0.0111464,-0.115576,0.133172,-1.97491,0.250872,0.169816,0.0281292,-0.000616262,0.00405985,0.00156298,-0.00717854,0.438129,-0.132024,-0.00116426,-0.610771,-0.256833,-0.677574,0.945569,11.0433,-4.41547,-0.205835,1.19436,-0.109949,1.2985,-0.370287,6.02387,-1.99588,0.00289604,0.0114204,-0.115641,0.133726,-1.97533,0.241656,0.173539,0.0281689,0.00918122,0.000885881,0.0196399,-0.0124783,0.142382,-0.00956867,-0.000123605,-0.249921,0.162287,0.0835845,0.200027,2.05195,-1.16615,-0.127956,0.840641,-30.1543,0.0644055,27.1017,2.43225,2.19811,0.0376436,
0.0111469,-0.115568,0.133197,-1.97492,0.254527,0.168693,0.02813,-0.000480523,0.0034518,0.0018719,-0.00587833,0.441891,-0.133692,-0.000910286,0.084837,-0.380035,0.193075,0.812634,2.35098,-1.04254,0.158732,0.729653,-0.0986836,0.82094,-0.129658,6.13408,-2.04406,0.00193198,0.0114204,-0.115641,0.133726,-1.97533,0.241656,0.173539,0.0281689,0.00918122,0.000885881,0.0196399,-0.0124783,0.142382,-0.00956867,-0.000123605,0,0,0,0,0,0,0,0.840641,-30.1543,0.0644055,27.1017,2.43225,2.19811,0.0376436,
0.0112231,-0.115574,0.133289,-1.97492,0.257095,0.167987,0.0281376,0.00152195,0.00260969,0.00379288,-0.0046962,0.417702,-0.124607,-0.000539005,1.25155,-0.526314,1.20061,0.738832,-15.1178,5.67823,0.232051,0.256647,-0.15225,0.372501,0.0751979,5.82396,-1.90279,-0.0223421,0.0114204,-0.115641,0.133726,-1.97533,0.241656,0.173539,0.0281689,0.00918122,0.000885881,0.0196399,-0.0124783,0.142382,-0.00956867,-0.000123605,0,0,0,0,0,0,0,0.840641,-30.1543,0.0644055,27.1017,2.43225,2.19811,0.0376436,
0.0113991,-0.115591,0.133766,-1.97541,0.247469,0.171937,0.0281468,0.000455999,0.00276905,0.00287839,-0.00439798,0.417605,-0.124132,-0.000643197,-0.666222,0.0995955,-0.571559,0.186386,-0.0607745,0.296837,-0.06512,1.19436,-0.109949,1.2985,-0.370287,6.02387,-1.99588,0.00289604,0.0114204,-0.115641,0.133726,-1.97533,0.241656,0.173539,0.0281689,0.00918122,0.000885881,0.0196399,-0.0124783,0.142382,-0.00956867,-0.000123605,0,0,0,0,0,0,0,0.840641,-30.1543,0.0644055,27.1017,2.43225,2.19811,0.0376436,
0.0113539,-0.115567,0.133739,-1.97542,0.251257,0.17077,0.0281248,-0.000764192,0.0028148,0.00161614,-0.00379307,0.428792,-0.128497,-0.00106431,-0.76262,0.0285984,-0.788909,0.378069,6.99182,-2.72825,-0.263195,0.728321,-0.105248,0.821499,-0.126182,6.12302,-2.03973,0.00194346,0.0116047,-0.115617,0.133986,-1.97565,0.244773,0.173378,0.0281751,0.00730571,8.3537e-05,0.00818733,-0.00648789,0.0220488,0.00247365,-0.00350195,-0.23444,-0.100293,-1.43157,0.748806,-15.0417,1.50529,-0.422293,-0.119442,-30.2019,-0.911547,26.6296,2.15667,1.98571,-0.00996382,
0.0113418,-0.115554,0.133753,-1.97542,0.25473,0.169723,0.0281246,-0.000914544,0.0025589,0.00164766,-0.00319029,0.429859,-0.128966,-0.000857961,-0.09397,-0.159942,0.0197043,0.376737,0.666932,-0.293052,0.128967,0.255315,-0.158814,0.373059,0.0786735,5.8129,-1.89846,-0.0223306,0.0116047,-0.115617,0.133986,-1.97565,0.244773,0.173378,0.0281751,0.00730571,8.3537e-05,0.00818733,-0.00648789,0.0220488,0.00247365,-0.00350195,0,0,0,0,0,0,0,-0.119442,-30.2019,-0.911547,26.6296,2.15667,1.98571,-0.00996382,
0.0114049,-0.115557,0.133833,-1.97542,0.257177,0.169068,0.0281316,0.000844758,0.00198377,0.00330854,-0.00255386,0.40505,-0.119537,-0.000509914,1.09956,-0.359452,1.03805,0.397771,-15.5055,5.89338,0.21753,0.225772,-0.328339,0.656243,0.245257,3.80355,-1.00842,-0.0057969,0.0116047,-0.115617,0.133986,-1.97565,0.244773,0.173378,0.0281751,0.00730571,8.3537e-05,0.00818733,-0.00648789,0.0220488,0.00247365,-0.00350195,0,0,0,0,0,0,0,-0.119442,-30.2019,-0.911547,26.6296,2.15667,1.98571,-0.00996382,
0.0114396,-0.115581,0.133889,-1.97569,0.249533,0.171943,0.0281278,-0.00183291,0.00209887,0.000808946,-0.00240057,0.395645,-0.11769,-0.00110373,-1.67355,0.071934,-1.56224,0.0958039,-5.87829,1.15413,-0.371136,0.728321,-0.105248,0.821499,-0.126182,6.12302,-2.03973,0.00194346,0.0116047,-0.115617,0.133986,-1.97565,0.244773,0.173378,0.0281751,0.00730571,8.3537e-05,0.00818733,-0.00648789,0.0220488,0.00247365,-0.00350195,0,0,0,0,0,0,0,-0.119442,-30.2019,-0.911547,26.6296,2.15667,1.98571,-0.00996382,
0.0113679,-0.115567,0.133848,-1.9757,0.252401,0.171092,0.0281246,-0.00325859,0.0020199,-0.000377522,-0.00211517,0.388222,-0.115442,-0.000962345,-0.891046,-0.0493558,-0.741543,0.178375,-4.63949,1.40501,0.0883662,0.255315,-0.158814,0.373059,0.0786735,5.8129,-1.89846,-0.0223306,0.0116047,-0.115617,0.133986,-1.97565,0.244773,0.173378,0.0281751,0.00730571,8.3537e-05,0.00818733,-0.00648789,0.0220488,0.00247365,-0.00350195,0,0,0,0,0,0,0,-0.119442,-30.2019,-0.911547,26.6296,2.15667,1.98571,-0.00996382,
0.0113747,-0.115566,0.133873,-1.9757,0.254443,0.170573,0.0281304,-0.0024371,0.00165067,0.000327154,-0.00171463,0.361622,-0.105314,-0.000625701,0.513432,-0.230768,0.440423,0.250341,-16.6251,6.33009,0.210402,0.225658,-0.329494,0.657469,0.245159,3.80078,-1.00763,-0.00579679,0.0118215,-0.115578,0.134351,-1.97569,0.245586,0.173398,0.0281721,0.00740457,0.000658145,0.0087699,0.00208009,0.00821154,0.00154933,4.4245e-05,0.0123583,0.071826,0.0728206,1.071,-1.72966,-0.11554,0.443275,0.435978,-30.6264,-0.260912,26.7764,2.23632,2.01867,0.017502,
0.0117553,-0.115573,0.134327,-1.9757,0.247424,0.172875,0.0281527,-0.0036034,0.00143718,-0.000349481,-0.00155836,0.335251,-0.0973179,-0.000986574,-0.728938,-0.133429,-0.422897,0.0976662,-16.4815,4.99764,-0.225545,0.728206,-0.106403,0.822724,-0.126281,6.12025,-2.03893,0.00194357,0.0118215,-0.115578,0.134351,-1.97569,0.245586,0.173398,0.0281721,0.00740457,0.000658145,0.0087699,0.00208009,0.00821154,0.00154933,4.4245e-05,0,0,0,0,0,0,0,0.435978,-30.6264,-0.260912,26.7764,2.23632,2.01867,0.017502,
0.0116527,-0.115564,0.134251,-1.9757,0.250255,0.172024,0.0281245,-0.00544841,0.00137626,-0.00216829,-0.00131053,0.338972,-0.0991347,-0.0014942,-1.15314,-0.0380788,-1.13676,0.154895,2.32586,-1.13547,-0.317269,0.255201,-0.159969,0.374285,0.0785752,5.81014,-1.89767,-0.0223305,0.0118215,-0.115578,0.134351,-1.97569,0.245586,0.173398,0.0281721,0.00740457,0.000658145,0.0087699,0.00208009,0.00821154,0.00154933,4.4245e-05,0,0,0,0,0,0,0,0.435978,-30.6264,-0.260912,26.7764,2.23632,2.01867,0.017502,
0.0115786,-0.11556,0.134208,-1.9757,0.253103,0.171199,0.0281211,-0.00621202,0.00120392,-0.00281796,-0.00104599,0.34237,-0.0999404,-0.00127893,-0.477253,-0.107712,-0.406044,0.165337,2.12321,-0.503592,0.134544,0.225658,-0.329494,0.657469,0.245159,3.80078,-1.00763,-0.00579679,0.0118215,-0.115578,0.134351,-1.97569,0.245586,0.173398,0.0281721,0.00740457,0.000658145,0.0087699,0.00208009,0.00821154,0.00154933,4.4245e-05,0,0,0,0,0,0,0,0.435978,-30.6264,-0.260912,26.7764,2.23632,2.01867,0.017502,
0.0115831,-0.115566,0.134231,-1.9757,0.255131,0.170701,0.0281268,-0.00485666,0.000809112,-0.00168124,-0.000708192,0.324607,-0.0923839,-0.0008808,0.8471,-0.246754,0.71045,0.211122,-11.1014,4.72281,0.248833,0.068405,-0.437604,0.52792,0.440181,0.918776,0.186504,-0.00710096,0.0119603,-0.115622,0.134417,-1.97568,0.245837,0.17347,0.0281739,0.00771328,-0.00508284,0.000704308,0.00225805,-4.47823e-05,0.00431037,0.000174465,0.0385881,-0.717623,-1.0082,0.0222456,-1.03204,0.34513,0.0162774,-0.29797,-29.829,-1.08611,26.4313,1.94336,1.99212,0.0303194,
0.0118711,-0.115646,0.134367,-1.97568,0.247623,0.172964,0.028155,-0.00611342,3.26633e-05,-0.00259032,-0.000492391,0.304344,-0.086541,-0.00117774,-0.785479,-0.48528,-0.568176,0.134876,-12.6644,3.6518,-0.185589,0.728263,-0.10772,0.823375,-0.127085,6.1194,-2.03943,0.00194737,0.0119603,-0.115622,0.134417,-1.97568,0.245837,0.17347,0.0281739,0.00771328,-0.00508284,0.000704308,0.00225805,-4.47823e-05,0.00431037,0.000174465,0,0,0,0,0,0,0,-0.29797,-29.829,-1.08611,26.4313,1.94336,1.99212,0.0303194,
0.0117505,-0.115657,0.134273,-1.97567,0.250414,0.172132,0.0281271,-0.0079061,-0.000253313,-0.00443586,-0.000198264,0.313232,-0.0900461,-0.00163795,-1.12043,-0.178735,-1.15346,0.183829,5.55515,-2.19065,-0.287631,0.255258,-0.161286,0.374936,0.0777706,5.80928,-1.89817,-0.0223267,0.0119603,-0.115622,0.134417,-1.97568,0.245837,0.17347,0.0281739,0.00771328,-0.00508284,0.000704308,0.00225805,-4.47823e-05,0.00431037,0.000174465,0,0,0,0,0,0,0,-0.29797,-29.829,-1.08611,26.4313,1.94336,1.99212,0.0303194,
0.0116625,-0.115668,0.134215,-1.97566,0.25323,0.171326,0.0281241,-0.00852517,-0.000464373,-0.00499746,6.17479e-05,0.320995,-0.0921937,-0.00138764,-0.386918,-0.131912,-0.350999,0.162507,4.85189,-1.34224,0.156448,0.225715,-0.330811,0.65812,0.244354,3.79993,-1.00813,-0.00579299,0.0119603,-0.115622,0.134417,-1.97568,0.245837,0.17347,0.0281739,0.00771328,-0.00508284,0.000704308,0.00225805,-4.47823e-05,0.00431037,0.000174465,0,0,0,0,0,0,0,-0.29797,-29.829,-1.08611,26.4313,1.94336,1.99212,0.0303194,
0.0118784,-0.115654,0.134319,-1.97572,0.247463,0.173409,0.0281485,-0.00975816,-0.000693417,-0.00595225,-0.000155346,0.299543,-0.085792,-0.00157003,-0.770618,-0.143152,-0.596741,-0.135684,-13.4079,4.00106,-0.113995,0.72824,-0.106297,0.82335,-0.129068,6.11997,-2.04144,0.00195806,0.0119959,-0.115641,0.134397,-1.97571,0.245754,0.173891,0.0281669,0.00011744,-0.00420496,-0.000998177,-0.00136886,-0.0109189,0.0105518,-0.000415752,-0.94948,0.109735,-0.212811,-0.453364,-1.35927,0.780178,-0.0737771,-1.05969,-29.5552,-1.8637,26.5305,1.84539,2.18438,0.050461,
0.0117357,-0.115655,0.134202,-1.97572,0.250192,0.172591,0.0281211,-0.0113745,-0.000568407,-0.00769155,-8.35726e-05,0.307854,-0.0890887,-0.0019422,-1.01022,0.078131,-1.08707,0.0448585,5.19478,-2.06048,-0.23261,0.255234,-0.159864,0.374911,0.0757875,5.80986,-1.90017,-0.022316,0.0119959,-0.115641,0.134397,-1.97571,0.245754,0.173891,0.0281669,0.00011744,-0.00420496,-0.000998177,-0.00136886,-0.0109189,0.0105518,-0.000415752,0,0,0,0,0,0,0,-1.05969,-29.5552,-1.8637,26.5305,1.84539,2.18438,0.050461,
0.0116302,-0.115656,0.134126,-1.97571,0.25296,0.171794,0.0281183,-0.0117366,-0.00049715,-0.00805007,4.37957e-05,0.315474,-0.0911875,-0.00162379,-0.226327,0.044536,-0.224075,0.0796052,4.76197,-1.31173,0.199009,0.225692,-0.329388,0.658095,0.242371,3.8005,-1.01014,-0.0057823,0.0119959,-0.115641,0.134397,-1.97571,0.245754,0.173891,0.0281669,0.00011744,-0.00420496,-0.000998177,-0.00136886,-0.0109189,0.0105518,-0.000415752,0,0,0,0,0,0,0,-1.05969,-29.5552,-1.8637,26.5305,1.84539,2.18438,0.050461,
0.0116101,-0.115666,0.134123,-1.9757,0.254926,0.171322,0.0281244,-0.0098904,-0.000642863,-0.00650426,0.000252759,0.301522,-0.0847649,-0.001146,1.15389,-0.0910711,0.966129,0.130602,-8.71964,4.01412,0.298616,0.0683814,-0.436181,0.527895,0.438198,0.91935,0.184496,-0.00709027,0.0119959,-0.115641,0.134397,-1.97571,0.245754,0.173891,0.0281669,0.00011744,-0.00420496,-0.000998177,-0.00136886,-0.0109189,0.0105518,-0.000415752,0,0,0,0,0,0,0,-1.05969,-29.5552,-1.8637,26.5305,1.84539,2.18438,0.050461,
0.0117149,-0.115607,0.133964,-1.97573,0.247393,0.173536,0.0281563,-0.0120053,-0.000249809,-0.00844166,-6.34981e-05,0.284142,-0.0806288,-0.00134421,-1.32181,0.245659,-1.21087,-0.197661,-10.8629,2.5851,-0.12388,0.728259,-0.103053,0.822181,-0.129442,6.12027,-2.04195,0.00196039,0.0118786,-0.115618,0.134093,-1.97572,0.245676,0.174048,0.0281734,-0.000400678,0.00082362,-0.0170232,0.000710216,-0.00572409,0.00110697,-0.000522107,-0.0647647,0.628573,-2.00312,0.259884,0.649353,-1.1806,-0.0132943,-0.452694,-30.0551,-1.18529,26.5305,1.94976,2.31072,0.0303194,
0.0115378,-0.115591,0.13381,-1.97574,0.250106,0.172703,0.02813,-0.01403,0.000206283,-0.0105959,-0.000155163,0.29515,-0.0853082,-0.00173237,-1.26542,0.285057,-1.34639,-0.0572908,6.88047,-2.92464,-0.2426,0.255254,-0.156619,0.373741,0.0754142,5.81015,-1.90069,-0.0223137,0.0118786,-0.115618,0.134093,-1.97572,0.245676,0.174048,0.0281734,-0.000400678,0.00082362,-0.0170232,0.000710216,-0.00572409,0.00110697,-0.000522107,0,0,0,0,0,0,0,-0.452694,-30.0551,-1.18529,26.5305,1.94976,2.31072,0.0303194,
0.011407,-0.11558,0.133707,-1.97574,0.252849,0.1719,0.028128,-0.0144959,0.000445626,-0.0110446,-0.000155602,0.304687,-0.0883237,-0.00143585,-0.291192,0.149589,-0.280455,-0.000274005,5.96068,-1.88468,0.185325,0.225711,-0.326143,0.656925,0.241998,3.8008,-1.01065,-0.00577996,0.0118786,-0.115618,0.134093,-1.97572,0.245676,0.174048,0.0281734,-0.000400678,0.00082362,-0.0170232,0.000710216,-0.00572409,0.00110697,-0.000522107,0,0,0,0,0,0,0,-0.452694,-30.0551,-1.18529,26.5305,1.94976,2.31072,0.0303194,
0.0113678,-0.115579,0.133684,-1.97573,0.254787,0.171425,0.0281347,-0.0125744,0.000366389,-0.0094014,-2.9287e-05,0.292212,-0.0825425,-0.000982045,1.20091,-0.0495227,1.02701,0.0789467,-7.79711,3.61321,0.283629,0.068401,-0.432937,0.526725,0.437825,0.919647,0.183984,-0.00708794,0.0118786,-0.115618,0.134093,-1.97572,0.245676,0.174048,0.0281734,-0.000400678,0.00082362,-0.0170232,0.000710216,-0.00572409,0.00110697,-0.000522107,0,0,0,0,0,0,0,-0.452694,-30.0551,-1.18529,26.5305,1.94976,2.31072,0.0303194,
0.0117149,-0.115607,0.133964,-1.97573,0.247393,0.173536,0.0281563,-0.0141525,0.000557593,-0.0107594,-0.000289135,0.276693,-0.0788508,-0.00121304,-0.986312,0.119502,-0.848731,-0.162405,-9.69912,2.3073,-0.144375,0.728226,-0.0989419,0.820046,-0.129241,6.1201,-2.04167,0.00195918,0.0117596,-0.115584,0.133526,-1.97575,0.245654,0.174048,0.0281664,-0.00659177,-0.000458524,-0.00894588,-0.00210033,-0.00530398,0.001041,-0.000879683,-0.773887,-0.160268,1.00966,-0.351319,0.0525135,-0.0082463,-0.044697,0.539127,-30.4042,-0.33629,26.705,2.10815,2.25762,0.0641939,
0.0115378,-0.115591,0.13381,-1.97574,0.250106,0.172703,0.02813,-0.0157477,0.000852205,-0.0124501,-0.000335673,0.289192,-0.0838859,-0.00162744,-0.997014,0.184132,-1.05668,-0.0290862,7.81149,-3.14688,-0.258996,0.25522,-0.152508,0.371606,0.0756148,5.80998,-1.90041,-0.0223149,0.0117596,-0.115584,0.133526,-1.97575,0.245654,0.174048,0.0281664,-0.00659177,-0.000458524,-0.00894588,-0.00210033,-0.00530398,0.001041,-0.000879683,0,0,0,0,0,0,0,0.539127,-30.4042,-0.33629,26.705,2.10815,2.25762,0.0641939,
0.011407,-0.11558,0.133707,-1.97574,0.252849,0.1719,0.028128,-0.0158701,0.000962363,-0.012528,-0.000300009,0.299921,-0.0871858,-0.0013519,-0.076471,0.068849,-0.0486845,0.0222897,6.70549,-2.06247,0.172208,0.225678,-0.322033,0.65479,0.242199,3.80063,-1.01037,-0.00578118,0.0117596,-0.115584,0.133526,-1.97575,0.245654,0.174048,0.0281664,-0.00659177,-0.000458524,-0.00894588,-0.00210033,-0.00530398,0.001041,-0.000879683,0,0,0,0,0,0,0,0.539127,-30.4042,-0.33629,26.705,2.10815,2.25762,0.0641939,
0.0113678,-0.115579,0.133684,-1.97573,0.254787,0.171425,0.0281347,-0.0136738,0.000779779,-0.0105881,-0.000144813,0.288399,-0.0816322,-0.000914887,1.37269,-0.114115,1.21243,0.0969977,-7.20126,3.47098,0.273136,0.0683675,-0.428826,0.52459,0.438025,0.919474,0.184263,-0.00708915,0.0117596,-0.115584,0.133526,-1.97575,0.245654,0.174048,0.0281664,-0.00659177,-0.000458524,-0.00894588,-0.00210033,-0.00530398,0.001041,-0.000879683,0,0,0,0,0,0,0,0.539127,-30.4042,-0.33629,26.705,2.10815,2.25762,0.0641939,
0.0116021,-0.115576,0.133405,-1.97577,0.247368,0.173523,0.0281494,-0.014878,0.000847898,-0.0115031,-0.000561461,0.273578,-0.0784267,-0.00115717,-0.752628,0.042574,-0.571898,-0.260405,-9.26296,2.00345,-0.151427,0.728197,-0.0955078,0.818323,-0.12837,6.12006,-2.04078,0.00195462,0.0115161,-0.115532,0.133115,-1.97589,0.245634,0.174059,0.0281702,-0.0130981,0.00168851,-0.00664104,-0.00614823,-0.00717194,0.00197968,-0.000603935,-0.81329,0.26838,0.288106,-0.505987,-0.233495,0.117334,0.0344684,0.967594,-29.9043,0.0366345,26.6058,2.16308,2.15783,0.0303194,
0.0114303,-0.115559,0.133257,-1.97578,0.250082,0.172678,0.0281231,-0.0161964,0.00109212,-0.0129081,-0.000635037,0.286698,-0.0838575,-0.00158525,-0.823972,0.152639,-0.878122,-0.045985,8.19995,-3.39422,-0.26755,0.255192,-0.149074,0.369883,0.0764854,5.80994,-1.89951,-0.0223195,0.0115161,-0.115532,0.133115,-1.97589,0.245634,0.174059,0.0281702,-0.0130981,0.00168851,-0.00664104,-0.00614823,-0.00717194,0.00197968,-0.000603935,0,0,0,0,0,0,0,0.967594,-29.9043,0.0366345,26.6058,2.16308,2.15783,0.0303194,
0.0113034,-0.115547,0.133158,-1.97578,0.252826,0.171865,0.028121,-0.0161297,0.00117324,-0.012793,-0.000590355,0.297964,-0.0874215,-0.0013205,0.0416834,0.0506978,0.0719465,0.027926,7.04163,-2.22754,0.165466,0.225649,-0.318599,0.653067,0.243069,3.80059,-1.00947,-0.00578574,0.0115161,-0.115532,0.133115,-1.97589,0.245634,0.174059,0.0281702,-0.0130981,0.00168851,-0.00664104,-0.00614823,-0.00717194,0.00197968,-0.000603935,0,0,0,0,0,0,0,0.967594,-29.9043,0.0366345,26.6058,2.16308,2.15783,0.0303194,
0.0112673,-0.115546,0.133138,-1.97578,0.254767,0.171381,0.0281276,-0.0138061,0.000968925,-0.0107244,-0.000414346,0.28689,-0.0820248,-0.000891527,1.45221,-0.127695,1.2929,0.110006,-6.92131,3.37294,0.26811,0.0683388,-0.425392,0.522867,0.438896,0.919434,0.185162,-0.00709372,0.0115161,-0.115532,0.133115,-1.97589,0.245634,0.174059,0.0281702,-0.0130981,0.00168851,-0.00664104,-0.00614823,-0.00717194,0.00197968,-0.000603935,0,0,0,0,0,0,0,0.967594,-29.9043,0.0366345,26.6058,2.16308,2.15783,0.0303194,
0.0113466,-0.115505,0.132982,-1.97592,0.247324,0.173527,0.0281539,-0.0152836,0.00145966,-0.0118934,-0.00117198,0.271759,-0.0789246,-0.00112117,-0.923445,0.306708,-0.730632,-0.473521,-9.45721,1.93763,-0.14353,0.728251,-0.0938633,0.817106,-0.127668,6.12005,-2.04002,0.00195052,0.0113304,-0.115506,0.132789,-1.97606,0.245627,0.174068,0.028168,-0.00245684,0.00199534,-0.00143367,-0.00283837,-0.0110396,0.0024557,-0.000172934,1.33016,0.038354,0.650921,0.413733,-0.48346,0.0595029,0.0538752,0.919986,-30.1543,0.0644055,26.6772,2.1878,2.07818,0.050461,
0.011166,-0.115473,0.132825,-1.97594,0.250015,0.172672,0.0281278,-0.0167409,0.00196658,-0.0134463,-0.00138173,0.284665,-0.0845026,-0.00154983,-0.910792,0.316826,-0.970598,-0.131097,8.06612,-3.48623,-0.267911,0.255246,-0.14743,0.368667,0.0771879,5.80994,-1.89876,-0.0223236,0.0113304,-0.115506,0.132789,-1.97606,0.245627,0.174068,0.028168,-0.00245684,0.00199534,-0.00143367,-0.00283837,-0.0110396,0.0024557,-0.000172934,0,0,0,0,0,0,0,0.919986,-30.1543,0.0644055,26.6772,2.1878,2.07818,0.050461,
0.0110323,-0.115449,0.132719,-1.97595,0.252739,0.171849,0.0281258,-0.0167368,0.00217973,-0.0134001,-0.00138147,0.295836,-0.0881697,-0.00128818,0.00257835,0.133217,0.0288629,0.000167189,6.982,-2.29193,0.16353,0.225703,-0.316954,0.651851,0.243772,3.80058,-1.00872,-0.00578984,0.0113304,-0.115506,0.132789,-1.97606,0.245627,0.174068,0.028168,-0.00245684,0.00199534,-0.00143367,-0.00283837,-0.0110396,0.0024557,-0.000172934,0,0,0,0,0,0,0,0.919986,-30.1543,0.0644055,26.6772,2.1878,2.07818,0.050461,
0.0112044,-0.115484,0.132703,-1.97608,0.247329,0.173542,0.0281499,-0.016539,0.00229412,-0.0128942,-0.00173899,0.279218,-0.0836685,-0.00148182,0.123627,0.0714951,0.316235,-0.223453,-10.3864,2.81325,-0.121022,0.728251,-0.0938633,0.817106,-0.127668,6.12005,-2.04002,0.00195052,0.0113304,-0.115506,0.132789,-1.97606,0.245627,0.174068,0.028168,-0.00245684,0.00199534,-0.00143367,-0.00283837,-0.0110396,0.0024557,-0.000172934,0,0,0,0,0,0,0,0.919986,-30.1543,0.0644055,26.6772,2.1878,2.07818,0.050461,
0.0110556,-0.115458,0.132579,-1.9761,0.250046,0.17269,0.0281227,-0.0169524,0.0024807,-0.013411,-0.0017388,0.291308,-0.0882393,-0.00186587,-0.258411,0.116611,-0.323009,0.000120873,7.55632,-2.8568,-0.240031,0.255246,-0.14743,0.368667,0.0771879,5.80994,-1.89876,-0.0223236,0.0113304,-0.115506,0.132789,-1.97606,0.245627,0.174068,0.028168,-0.00245684,0.00199534,-0.00143367,-0.00283837,-0.0110396,0.0024557,-0.000172934,0,0,0,0,0,0,0,0.919986,-30.1543,0.0644055,26.6772,2.1878,2.07818,0.050461,
0.0109455,-0.115439,0.132498,-1.97611,0.252801,0.171866,0.0281201,-0.0163141,0.00245336,-0.0127517,-0.00160249,0.301923,-0.091191,-0.00155851,0.398955,-0.0170829,0.412036,0.0851951,6.63429,-1.84478,0.1921,0.225713,-0.31453,0.650843,0.244581,3.80067,-1.00792,-0.00579427,0.0111777,-0.11544,0.132607,-1.97617,0.245601,0.174073,0.0281723,-0.00351038,0.000618578,0.00406763,-0.00469377,-0.00712253,0.0013118,-0.00105665,-0.131692,-0.172096,0.687662,-0.231925,0.489636,-0.142987,-0.110464,0.995365,-30.3526,0.0882092,26.6296,2.22992,2.07177,0.0303194,
0.0109219,-0.115433,0.132491,-1.97611,0.254755,0.171372,0.0281263,-0.0136407,0.00211867,-0.010364,-0.00132518,0.290379,-0.0853191,-0.00109083,1.67086,-0.209181,1.4923,0.173319,-7.21463,3.66995,0.292299,0.0684033,-0.421323,0.520643,0.440408,0.919521,0.186708,-0.00710225,0.0111777,-0.11544,0.132607,-1.97617,0.245601,0.174073,0.0281723,-0.00351038,0.000618578,0.00406763,-0.00469377,-0.00712253,0.0013118,-0.00105665,0,0,0,0,0,0,0,0.995365,-30.3526,0.0882092,26.6296,2.22992,2.07177,0.0303194,
0.0110655,-0.115422,0.132536,-1.9762,0.247325,0.173532,0.0281539,-0.0137155,0.00213771,-0.0100859,-0.00179543,0.27542,-0.0817848,-0.00133222,-0.0467432,0.0118982,0.173861,-0.29391,-9.34973,2.20889,-0.15087,0.728262,-0.0914391,0.816098,-0.126859,6.12014,-2.03923,0.00194609,0.0111777,-0.11544,0.132607,-1.97617,0.245601,0.174073,0.0281723,-0.00351038,0.000618578,0.00406763,-0.00469377,-0.00712253,0.0013118,-0.00105665,0,0,0,0,0,0,0,0.995365,-30.3526,0.0882092,26.6296,2.22992,2.07177,0.0303194,
0.0109277,-0.115399,0.132423,-1.97622,0.250062,0.172665,0.0281265,-0.0144176,0.0022975,-0.0108786,-0.00181976,0.288757,-0.0870931,-0.00175119,-0.43878,0.0998706,-0.495436,-0.0152042,8.33597,-3.31769,-0.261851,0.255256,-0.145005,0.367659,0.0779969,5.81003,-1.89796,-0.022328,0.0111777,-0.11544,0.132607,-1.97617,0.245601,0.174073,0.0281723,-0.00351038,0.000618578,0.00406763,-0.00469377,-0.00712253,0.0013118,-0.00105665,0,0,0,0,0,0,0,0.995365,-30.3526,0.0882092,26.6296,2.22992,2.07177,0.0303194,
0.0108262,-0.115381,0.132351,-1.97623,0.252834,0.17183,0.0281237,-0.0140719,0.00226932,-0.0105047,-0.00168485,0.300299,-0.0905646,-0.00147078,0.21604,-0.0176127,0.233663,0.0843168,7.21343,-2.16964,0.175252,0.225694,-0.308186,0.648908,0.246129,3.80068,-1.00637,-0.0058023,0.0110201,-0.115244,0.132378,-1.9763,0.245596,0.174075,0.0281689,-0.00282763,0.00692393,0.000756817,-0.00535885,-0.00528683,0.00403076,-0.0014223,0.0853434,0.788169,-0.413851,-0.0831346,0.229463,0.339869,-0.0457064,0.435978,-29.7774,-0.487047,26.2051,2.02301,2.01867,0.0706026,
0.0108093,-0.115376,0.132352,-1.97623,0.254801,0.171326,0.0281298,-0.0116802,0.0019452,-0.0083948,-0.00140182,0.289429,-0.0850438,-0.00102377,1.49481,-0.202576,1.31869,0.176895,-6.7934,3.45046,0.279381,0.0683835,-0.414979,0.518708,0.441956,0.919523,0.18826,-0.00711027,0.0110201,-0.115244,0.132378,-1.9763,0.245596,0.174075,0.0281689,-0.00282763,0.00692393,0.000756817,-0.00535885,-0.00528683,0.00403076,-0.0014223,0,0,0,0,0,0,0,0.435978,-29.7774,-0.487047,26.2051,2.02301,2.01867,0.0706026,
0.0109,-0.115193,0.132298,-1.97634,0.247325,0.173549,0.0281505,-0.0123472,0.00284692,-0.00872986,-0.00211444,0.274776,-0.081187,-0.0012782,-0.416876,0.563575,-0.209414,-0.445389,-9.15838,2.41051,-0.159014,0.728242,-0.0850952,0.814163,-0.125311,6.12014,-2.03768,0.00193806,0.0110201,-0.115244,0.132378,-1.9763,0.245596,0.174075,0.0281689,-0.00282763,0.00692393,0.000756817,-0.00535885,-0.00528683,0.00403076,-0.0014223,0,0,0,0,0,0,0,0.435978,-29.7774,-0.487047,26.2051,2.02301,2.01867,0.0706026,
0.0107558,-0.115145,0.132179,-1.97636,0.250059,0.17269,0.0281233,-0.0134804,0.0034741,-0.00995669,-0.00231586,0.288177,-0.0864251,-0.00170377,-0.70822,0.391989,-0.766766,-0.125888,8.37607,-3.2738,-0.265986,0.255236,-0.138661,0.365724,0.079545,5.81003,-1.89641,-0.022336,0.0110201,-0.115244,0.132378,-1.9763,0.245596,0.174075,0.0281689,-0.00282763,0.00692393,0.000756817,-0.00535885,-0.00528683,0.00403076,-0.0014223,0,0,0,0,0,0,0,0.435978,-29.7774,-0.487047,26.2051,2.02301,2.01867,0.0706026,
0.0106494,-0.11511,0.132102,-1.97638,0.252825,0.171857,0.0281206,-0.0134443,0.00366117,-0.009893,-0.00228224,0.299682,-0.089969,-0.00142964,0.022559,0.116917,0.0398057,0.0210124,7.19015,-2.21497,0.171335,0.225716,-0.305903,0.648268,0.247263,3.80075,-1.0052,-0.00580888,0.0110194,-0.115141,0.132364,-1.97644,0.2456,0.174066,0.0281677,0.00318937,0.00100929,0.00380867,-0.00391258,-0.0100768,0.00296581,-0.00134822,0.752124,-0.739329,0.381481,0.180783,-0.598748,-0.133118,0.00925985,0.463749,-30.305,-0.288683,26.4551,2.07153,2.09191,0.0440523,
0.0109247,-0.115124,0.13231,-1.97647,0.247323,0.173534,0.0281484,-0.0131225,0.00337761,-0.00927143,-0.00251617,0.282816,-0.0852893,-0.00162637,0.201097,-0.177228,0.388481,-0.146202,-10.5409,2.92481,-0.122956,0.728264,-0.0828124,0.813523,-0.124176,6.12021,-2.03651,0.00193148,0.0110194,-0.115141,0.132364,-1.97644,0.2456,0.174066,0.0281677,0.00318937,0.00100929,0.00380867,-0.00391258,-0.0100768,0.00296581,-0.00134822,0,0,0,0,0,0,0,0.463749,-30.305,-0.288683,26.4551,2.07153,2.09191,0.0440523,
0.0107992,-0.1151,0.13221,-1.97649,0.250066,0.172672,0.0281205,-0.0136351,0.00328124,-0.00990553,-0.00237619,0.294828,-0.0897784,-0.00199835,-0.320343,-0.0602274,-0.396314,0.0874846,7.50768,-2.80565,-0.232491,0.255258,-0.136379,0.365084,0.0806795,5.8101,-1.89524,-0.0223426,0.0110194,-0.115141,0.132364,-1.97644,0.2456,0.174066,0.0281677,0.00318937,0.00100929,0.00380867,-0.00391258,-0.0100768,0.00296581,-0.00134822,0,0,0,0,0,0,0,0.463749,-30.305,-0.288683,26.4551,2.07153,2.09191,0.0440523,
0.0107068,-0.115084,0.132148,-1.97649,0.252847,0.171838,0.0281174,-0.0132191,0.00304619,-0.00949116,-0.00211546,0.305384,-0.0926552,-0.00167606,0.259942,-0.146907,0.25898,0.162956,6.59728,-1.79799,0.201435,0.225716,-0.305903,0.648268,0.247263,3.80075,-1.0052,-0.00580888,0.0110194,-0.115141,0.132364,-1.97644,0.2456,0.174066,0.0281677,0.00318937,0.00100929,0.00380867,-0.00391258,-0.0100768,0.00296581,-0.00134822,0,0,0,0,0,0,0,0.463749,-30.305,-0.288683,26.4551,2.07153,2.09191,0.0440523,
0.0106966,-0.115079,0.132155,-1.9765,0.254824,0.171336,0.0281233,-0.0108291,0.002558,-0.00740997,-0.00173337,0.29374,-0.0866907,-0.00119308,1.49379,-0.305122,1.30075,0.23881,-7.2779,3.72778,0.301863,0.0682645,-0.408382,0.517107,0.444547,0.919615,0.190854,-0.0071241,0.011067,-0.114961,0.132437,-1.97654,0.245625,0.174065,0.0281739,0.00644096,0.0114061,0.00557024,-0.00312345,-0.0065916,0.0040339,-0.000178357,0.406449,1.29961,0.220196,0.0986421,0.435652,0.133511,0.146233,-0.29797,-29.7298,-1.13768,25.9552,1.93695,2.08459,0.017502,
0.0109856,-0.114892,0.132397,-1.97659,0.247374,0.173542,0.0281543,-0.0106987,0.0037906,-0.00692537,-0.00241386,0.278728,-0.0824319,-0.00144526,0.0814828,0.77038,0.302872,-0.425305,-9.38215,2.66174,-0.157615,0.728123,-0.0784977,0.812562,-0.122719,6.12024,-2.03508,0.00192424,0.011067,-0.114961,0.132437,-1.97654,0.245625,0.174065,0.0281739,0.00644096,0.0114061,0.00557024,-0.00312345,-0.0065916,0.0040339,-0.000178357,0,0,0,0,0,0,0,-0.29797,-29.7298,-1.13768,25.9552,1.93695,2.08459,0.017502,
0.0108698,-0.114833,0.132308,-1.97661,0.250137,0.17268,0.0281261,-0.0114559,0.00450799,-0.00776618,-0.00266684,0.292046,-0.0874955,-0.00186085,-0.473232,0.448365,-0.525504,-0.158118,8.32343,-3.16472,-0.259741,0.255117,-0.132064,0.364123,0.0821367,5.81012,-1.89382,-0.0223499,0.011067,-0.114961,0.132437,-1.97654,0.245625,0.174065,0.0281739,0.00644096,0.0114061,0.00557024,-0.00312345,-0.0065916,0.0040339,-0.000178357,0,0,0,0,0,0,0,-0.29797,-29.7298,-1.13768,25.9552,1.93695,2.08459,0.017502,
0.0107844,-0.11479,0.132253,-1.97664,0.252931,0.17184,0.0281228,-0.011298,0.00467659,-0.00758556,-0.00266748,0.303492,-0.0910051,-0.00157027,0.0986645,0.105376,0.112888,-0.000396425,7.15413,-2.19353,0.181613,0.225575,-0.301589,0.647307,0.24872,3.80077,-1.00378,-0.00581612,0.011067,-0.114961,0.132437,-1.97654,0.245625,0.174065,0.0281739,0.00644096,0.0114061,0.00557024,-0.00312345,-0.0065916,0.0040339,-0.000178357,0,0,0,0,0,0,0,-0.29797,-29.7298,-1.13768,25.9552,1.93695,2.08459,0.017502,
0.0107796,-0.114766,0.132266,-1.97665,0.254917,0.171327,0.0281286,-0.00915963,0.00434329,-0.00574069,-0.00243356,0.292449,-0.0856325,-0.00111113,1.33649,-0.208313,1.15304,0.1462,-6.90167,3.3579,0.286958,0.0684518,-0.407205,0.517124,0.446216,0.919634,0.192586,-0.0071338,0.0110934,-0.114844,0.132588,-1.97676,0.245672,0.174026,0.0281702,-0.00164531,-0.000525757,0.0104863,-0.00811451,-0.00476472,0.000542614,-0.00109348,-1.01078,-1.49149,0.614504,-0.623883,0.228361,-0.436411,-0.114391,0.285221,-30.3288,-0.538622,27.0264,1.8637,2.29699,0.050461,
0.011006,-0.114827,0.132543,-1.9768,0.247416,0.173463,0.0281514,-0.00951397,0.00390018,-0.0057325,-0.00292156,0.277551,-0.082561,-0.00135888,-0.221465,-0.276942,0.005117,-0.305,-9.31151,1.91965,-0.15484,0.72831,-0.0773206,0.81258,-0.121051,6.12026,-2.03335,0.00191454,0.0110934,-0.114844,0.132588,-1.97676,0.245672,0.174026,0.0281702,-0.00164531,-0.000525757,0.0104863,-0.00811451,-0.00476472,0.000542614,-0.00109348,0,0,0,0,0,0,0,0.285221,-30.3288,-0.538622,27.0264,1.8637,2.29699,0.050461,
0.010887,-0.114802,0.13245,-1.97682,0.250173,0.172576,0.0281236,-0.0105845,0.00373706,-0.00690744,-0.00283824,0.290973,-0.0882293,-0.00178355,-0.669099,-0.101948,-0.734339,0.0520743,8.38902,-3.54269,-0.265424,0.255305,-0.130887,0.36414,0.0838051,5.81014,-1.89209,-0.0223596,0.0110934,-0.114844,0.132588,-1.97676,0.245672,0.174026,0.0281702,-0.00164531,-0.000525757,0.0104863,-0.00811451,-0.00476472,0.000542614,-0.00109348,0,0,0,0,0,0,0,0.285221,-30.3288,-0.538622,27.0264,1.8637,2.29699,0.050461,
0.0107999,-0.114783,0.132393,-1.97683,0.252965,0.171724,0.0281204,-0.0106471,0.0034602,-0.00695746,-0.00257324,0.302569,-0.0918987,-0.0015053,-0.039131,-0.173041,-0.0312618,0.165625,7.24716,-2.29333,0.173908,0.225762,-0.300411,0.647324,0.250389,3.80079,-1.00205,-0.00582582,0.0110934,-0.114844,0.132588,-1.97676,0.245672,0.174026,0.0281702,-0.00164531,-0.000525757,0.0104863,-0.00811451,-0.00476472,0.000542614,-0.00109348,0,0,0,0,0,0,0,0.285221,-30.3288,-0.538622,27.0264,1.8637,2.29699,0.050461,
0.0110352,-0.114585,0.132737,-1.97698,0.247436,0.173474,0.0281514,-0.0107169,0.00356752,-0.00675051,-0.00326478,0.285815,-0.0876132,-0.0016689,-0.0435972,0.0670729,0.129341,-0.432214,-10.4712,2.67843,-0.102247,0.728284,-0.072707,0.811867,-0.119197,6.12042,-2.03149,0.00190455,0.0111232,-0.114617,0.132785,-1.97693,0.245685,0.174037,0.02817,0.00324125,0.00177444,0.00544213,-0.0102008,-0.00326983,0.00169917,-0.000448305,0.61082,0.287525,-0.630517,-0.260784,0.186861,0.14457,0.0806474,0.614505,-30.0551,-0.137926,26.7526,1.8637,2.21093,0.0239107,
0.0109155,-0.114549,0.132644,-1.977,0.250195,0.172582,0.0281237,-0.0115655,0.00376137,-0.0077411,-0.00327448,0.297636,-0.0923816,-0.00202956,-0.53039,0.121157,-0.619117,-0.00606388,7.38843,-2.98024,-0.225414,0.255279,-0.126273,0.363428,0.0856589,5.8103,-1.89022,-0.0223696,0.0111232,-0.114617,0.132785,-1.97693,0.245685,0.174037,0.02817,0.00324125,0.00177444,0.00544213,-0.0102008,-0.00326983,0.00169917,-0.000448305,0,0,0,0,0,0,0,0.614505,-30.0551,-0.137926,26.7526,1.8637,2.21093,0.0239107,
0.0108278,-0.114521,0.132586,-1.97702,0.252986,0.171724,0.0281206,-0.0114459,0.00370285,-0.00763748,-0.00304532,0.307895,-0.0953462,-0.00170112,0.0747658,-0.0365723,0.0647612,0.143228,6.41145,-1.85292,0.205276,0.225736,-0.295798,0.646612,0.252243,3.80095,-1.00018,-0.00583581,0.0111232,-0.114617,0.132785,-1.97693,0.245685,0.174037,0.02817,0.00324125,0.00177444,0.00544213,-0.0102008,-0.00326983,0.00169917,-0.000448305,0,0,0,0,0,0,0,0.614505,-30.0551,-0.137926,26.7526,1.8637,2.21093,0.0239107,
0.0108214,-0.114507,0.132597,-1.97703,0.254971,0.171203,0.0281264,-0.00931754,0.00330454,-0.00582894,-0.0026369,0.295929,-0.0893176,-0.00121411,1.33022,-0.248947,1.13034,0.255264,-7.47852,3.76791,0.30438,0.0684259,-0.402591,0.516412,0.44807,0.919794,0.19445,-0.00714379,0.0111232,-0.114617,0.132785,-1.97693,0.245685,0.174037,0.02817,0.00324125,0.00177444,0.00544213,-0.0102008,-0.00326983,0.00169917,-0.000448305,0,0,0,0,0,0,0,0.614505,-30.0551,-0.137926,26.7526,1.8637,2.21093,0.0239107,
0.0110352,-0.114585,0.132737,-1.97698,0.247436,0.173474,0.0281514,-0.00965322,0.00344298,-0.0058477,-0.00331571,0.280503,-0.0855483,-0.00143594,-0.209797,0.0865307,-0.0117241,-0.424257,-9.64126,2.35579,-0.138646,0.728179,-0.0683209,0.811092,-0.117416,6.12064,-2.02975,0.00189555,0.0112396,-0.114403,0.132967,-1.97708,0.24567,0.174037,0.0281732,0.00548746,0.00912222,0.00380376,-0.00844635,-0.0108544,0.00275099,-0.000274056,0.280776,0.918472,-0.204796,0.219304,-0.948077,0.131477,0.0217812,-0.551876,-30.2297,-1.23686,26.5781,1.87652,2.22375,0.0239107,
0.0109155,-0.114549,0.132644,-1.977,0.250195,0.172582,0.0281237,-0.0107146,0.00366174,-0.00701885,-0.00331523,0.293387,-0.0907297,-0.0018432,-0.66335,0.136723,-0.731969,0.000301873,8.05241,-3.23835,-0.254533,0.255174,-0.121887,0.362652,0.0874399,5.81053,-1.88848,-0.0223785,0.0112396,-0.114403,0.132967,-1.97708,0.24567,0.174037,0.0281732,0.00548746,0.00912222,0.00380376,-0.00844635,-0.0108544,0.00275099,-0.000274056,0,0,0,0,0,0,0,-0.551876,-30.2297,-1.23686,26.5781,1.87652,2.22375,0.0239107,
0.0108278,-0.114521,0.132586,-1.97702,0.252986,0.171724,0.0281206,-0.0107651,0.00362315,-0.00705968,-0.00307791,0.304495,-0.0940247,-0.00155203,-0.0316022,-0.0241193,-0.0255202,0.14832,6.94264,-2.05941,0.18198,0.225631,-0.291412,0.645836,0.254024,3.80118,-0.998445,-0.00584481,0.0112396,-0.114403,0.132967,-1.97708,0.24567,0.174037,0.0281732,0.00548746,0.00912222,0.00380376,-0.00844635,-0.0108544,0.00275099,-0.000274056,0,0,0,0,0,0,0,-0.551876,-30.2297,-1.23686,26.5781,1.87652,2.22375,0.0239107,
0.0108214,-0.114507,0.132597,-1.97703,0.254971,0.171203,0.0281264,-0.00877294,0.00324078,-0.0053667,-0.00266297,0.293209,-0.0882604,-0.00109484,1.24513,-0.238984,1.05811,0.259338,-7.05358,3.60272,0.285744,0.0683209,-0.398205,0.515636,0.449851,0.920023,0.196187,-0.00715278,0.0112396,-0.114403,0.132967,-1.97708,0.24567,0.174037,0.0281732,0.00548746,0.00912222,0.00380376,-0.00844635,-0.0108544,0.00275099,-0.000274056,0,0,0,0,0,0,0,-0.551876,-30.2297,-1.23686,26.5781,1.87652,2.22375,0.0239107,
0.0111507,-0.114336,0.132919,-1.97713,0.247386,0.173488,0.028154,-0.00924,0.00426702,-0.0054918,-0.0035041,0.27747,-0.0843265,-0.00135512,-0.291914,0.641403,-0.0781872,-0.525703,-9.83716,2.45868,-0.162679,0.728179,-0.0683209,0.811092,-0.117416,6.12064,-2.02975,0.00189555,0.0112396,-0.114403,0.132967,-1.97708,0.24567,0.174037,0.0281732,0.00548746,0.00912222,0.00380376,-0.00844635,-0.0108544,0.00275099,-0.000274056,0,0,0,0,0,0,0,-0.551876,-30.2297,-1.23686,26.5781,1.87652,2.22375,0.0239107,
0.0110292,-0.114276,0.132824,-1.97717,0.250122,0.172605,0.028126,-0.0104315,0.0049234,-0.00676983,-0.0036994,0.290375,-0.0895365,-0.00178399,-0.744675,0.410237,-0.798767,-0.122062,8.06553,-3.25625,-0.268041,0.255218,-0.117449,0.361934,0.0891954,5.81066,-1.88677,-0.0223885,0.0112451,-0.114182,0.13313,-1.97722,0.245675,0.174038,0.0281737,0.00290396,0.00558348,0.00629323,-0.00089227,-0.00446685,0.0023823,0.000588299,-0.322938,-0.442343,0.311183,0.944261,0.79845,-0.0460857,0.107794,-0.0440639,-30.3526,-0.76079,26.5027,1.87652,2.21734,-0.00996382,
0.0109393,-0.114231,0.132765,-1.97719,0.252896,0.17175,0.0281229,-0.0105907,0.00507336,-0.00690488,-0.00359283,0.301654,-0.0930006,-0.00150669,-0.0995118,0.0937235,-0.0844073,0.0666039,7.04963,-2.16509,0.173309,0.225675,-0.286973,0.645117,0.255779,3.80131,-0.996733,-0.00585471,0.0112451,-0.114182,0.13313,-1.97722,0.245675,0.174038,0.0281737,0.00290396,0.00558348,0.00629323,-0.00089227,-0.00446685,0.0023823,0.000588299,0,0,0,0,0,0,0,-0.0440639,-30.3526,-0.76079,26.5027,1.87652,2.21734,-0.00996382,
0.0109309,-0.114204,0.132774,-1.97721,0.254867,0.171228,0.0281287,-0.00868361,0.00473298,-0.00528795,-0.00324446,0.290608,-0.0874601,-0.00105928,1.19193,-0.212737,1.01058,0.21773,-6.90392,3.46285,0.279633,0.068365,-0.393767,0.514917,0.451606,0.920156,0.1979,-0.00716268,0.0112451,-0.114182,0.13313,-1.97722,0.245675,0.174038,0.0281737,0.00290396,0.00558348,0.00629323,-0.00089227,-0.00446685,0.0023823,0.000588299,0,0,0,0,0,0,0,-0.0440639,-30.3526,-0.76079,26.5027,1.87652,2.21734,-0.00996382,
