xiao-wang007/linearmpc_panda/paper_data/panda_inverse_dynamics_controller_Start_at_0/2/trajectory.csv
Commanded Joint 0 Position,Commanded Joint 1 Position,Commanded Joint 2 Position,Commanded Joint 3 Position,Commanded Joint 4 Position,Commanded Joint 5 Position,Commanded Joint 6 Position,Commanded Joint 0 Velocity,Commanded Joint 1 Velocity,Commanded Joint 2 Velocity,Commanded Joint 3 Velocity,Commanded Joint 4 Velocity,Commanded Joint 5 Velocity,Commanded Joint 6 Velocity,Commanded Joint 0 Acceleration,Commanded Joint 1 Acceleration,Commanded Joint 2 Acceleration,Commanded Joint 3 Acceleration,Commanded Joint 4 Acceleration,Commanded Joint 5 Acceleration,Commanded Joint 6 Acceleration,Commanded Joint 0 Torque,Commanded Joint 1 Torque,Commanded Joint 2 Torque,Commanded Joint 3 Torque,Commanded Joint 4 Torque,Commanded Joint 5 Torque,Commanded Joint 6 Torque,Actual Joint 0 Position,Actual Joint 1 Position,Actual Joint 2 Position,Actual Joint 3 Position,Actual Joint 4 Position,Actual Joint 5 Position,Actual Joint 6 Position,Actual Joint 0 Velocity,Actual Joint 1 Velocity,Actual Joint 2 Velocity,Actual Joint 3 Velocity,Actual Joint 4 Velocity,Actual Joint 5 Velocity,Actual Joint 6 Velocity,Actual Joint 0 Acceleration,Actual Joint 1 Acceleration,Actual Joint 2 Acceleration,Actual Joint 3 Acceleration,Actual Joint 4 Acceleration,Actual Joint 5 Acceleration,Actual Joint 6 Acceleration,Actual Joint 0 Torque,Actual Joint 1 Torque,Actual Joint 2 Torque,Actual Joint 3 Torque,Actual Joint 4 Torque,Actual Joint 5 Torque,Actual Joint 6 Torque,
0.0458477,-0.00348751,-0.0500369,-1.79897,-0.00435813,0.263143,0.00916411,0.000128225,0.02217,8.64598e-05,-0.0329384,-0.00378852,0.0540892,-0.000373439,0.0801405,13.8563,0.0540373,-20.5865,-2.36782,33.8058,-0.233399,0.0583296,24.466,0.0541126,-24.4017,-0.576354,1.91351,-0.0244972,0.0458696,-0.00436569,-0.0500163,-1.79607,-0.00425712,0.257339,0.00921094,0.000447489,0.0144499,-8.34276e-05,0.00186783,-0.00885634,0.00439632,0.0010134,0,0,0,0,0,0,0,-0.0956386,-36.1925,-0.16173,27.7762,1.05804,3.16582,-0.0630644,
0.0458663,-0.00419519,-0.0500192,-1.79613,-0.00435129,0.257397,0.00920972,6.51137e-05,0.018772,3.37673e-05,-0.0268002,-0.0035478,0.0433753,-0.000305512,-0.0394444,-2.12376,-0.0329328,3.8364,0.150446,-6.69625,0.0424541,0.0525371,24.9066,0.0437267,-24.3181,-0.576672,1.66269,-0.0229808,0.0458696,-0.00436569,-0.0500163,-1.79607,-0.00425712,0.257339,0.00921094,0.000447489,0.0144499,-8.34276e-05,0.00186783,-0.00885634,0.00439632,0.0010134,0,0,0,0,0,0,0,-0.0956386,-36.1925,-0.16173,27.7762,1.05804,3.16582,-0.0630644,
0.0458648,-0.0041629,-0.0500207,-1.79614,-0.00436614,0.257394,0.00920954,1.4227e-05,0.0158248,-8.99314e-06,-0.0218151,-0.00320941,0.0346019,-0.000248772,-0.0318042,-1.84198,-0.0267253,3.1157,0.211493,-5.48335,0.0354624,0.0452888,25.4781,0.031957,-24.21,-0.576162,1.31521,-0.0210122,0.0458696,-0.00436569,-0.0500163,-1.79607,-0.00425712,0.257339,0.00921094,0.000447489,0.0144499,-8.34276e-05,0.00186783,-0.00885634,0.00439632,0.0010134,0,0,0,0,0,0,0,-0.0956386,-36.1925,-0.16173,27.7762,1.05804,3.16582,-0.0630644,
0.0458634,-0.00413735,-0.050022,-1.79615,-0.00437698,0.257386,0.00920943,-2.41216e-05,0.0132986,-4.09772e-05,-0.01776,-0.00283856,0.0274863,-0.00020199,-0.0239679,-1.5789,-0.01999,2.53441,0.231781,-4.44724,0.029239,0.0393161,26.002,0.0225022,-24.0422,-0.57415,0.930123,-0.0190108,0.0458696,-0.00436569,-0.0500163,-1.79607,-0.00425712,0.257339,0.00921094,0.000447489,0.0144499,-8.34276e-05,0.00186783,-0.00885634,0.00439632,0.0010134,0,0,0,0,0,0,0,-0.0956386,-36.1925,-0.16173,27.7762,1.05804,3.16582,-0.0630644,
0.0457853,-0.00312806,-0.0500981,-1.79686,-0.00182113,0.254076,0.00918217,-0.00131002,0.0165172,-0.00132292,-0.0170412,0.0362925,-0.00378656,-0.000412294,-0.803685,2.01161,-0.801215,0.449274,24.4569,-19.5455,-0.13144,0.49389,0.169155,0.494894,-0.246125,3.27807,-1.67791,-0.00159507,0.0458671,-0.00365364,-0.0500157,-1.79658,-0.0043074,0.255883,0.0092087,0.00331127,0.0378029,0.00413181,-0.0460574,-0.0105508,-0.0274357,0.000382933,0.357972,2.91912,0.526905,-5.99065,-0.21181,-3.979,-0.0788079,-0.0440639,-30.5034,-0.110155,23.5153,0.905148,2.16424,-0.0429228,
0.0457321,-0.0029434,-0.0501509,-1.79695,6.88555e-05,0.252908,0.00917659,-0.00237677,0.0178301,-0.0023795,-0.0159317,0.0762837,-0.0322239,-0.000469431,-0.666721,0.820565,-0.660362,0.693444,24.9945,-17.7733,-0.0357105,0.488873,0.169206,0.489887,-0.243118,3.24982,-1.66277,-0.00156948,0.0458671,-0.00365364,-0.0500157,-1.79658,-0.0043074,0.255883,0.0092087,0.00331127,0.0378029,0.00413181,-0.0460574,-0.0105508,-0.0274357,0.000382933,0,0,0,0,0,0,0,-0.0440639,-30.5034,-0.110155,23.5153,0.905148,2.16424,-0.0429228,
0.0456865,-0.00279813,-0.0501961,-1.79703,0.00216065,0.251664,0.00917348,-0.00304095,0.0178959,-0.00303291,-0.0147173,0.113322,-0.056861,-0.00045328,-0.415111,0.0410988,-0.408378,0.758953,23.1488,-15.3982,0.0100944,0.483862,0.168799,0.484862,-0.240266,3.2214,-1.64765,-0.00154096,0.0458671,-0.00365364,-0.0500157,-1.79658,-0.0043074,0.255883,0.0092087,0.00331127,0.0378029,0.00413181,-0.0460574,-0.0105508,-0.0274357,0.000382933,0,0,0,0,0,0,0,-0.0440639,-30.5034,-0.110155,23.5153,0.905148,2.16424,-0.0429228,
0.0456519,-0.00268257,-0.0502303,-1.7971,0.00436915,0.250382,0.00917169,-0.00329759,0.0172058,-0.00328035,-0.0134964,0.14587,-0.0775399,-0.000407427,-0.1604,-0.431296,-0.154652,0.76312,20.3426,-12.9243,0.0286585,0.478834,0.16806,0.479836,-0.237525,3.1929,-1.63258,-0.00151579,0.0458671,-0.00365364,-0.0500157,-1.79658,-0.0043074,0.255883,0.0092087,0.00331127,0.0378029,0.00413181,-0.0460574,-0.0105508,-0.0274357,0.000382933,0,0,0,0,0,0,0,-0.0440639,-30.5034,-0.110155,23.5153,0.905148,2.16424,-0.0429228,
0.0458095,-0.00263054,-0.0499129,-1.79753,0.00705058,0.245123,0.00914826,-0.00428509,0.0220708,-0.00425051,-0.0107055,0.258027,-0.179019,-0.000989966,-0.617191,3.04065,-0.606352,1.7443,70.0979,-63.4246,-0.364087,4.20606,1.02834,4.21203,-1.80104,11.0092,-9.26814,-0.00573605,0.0459198,-0.0034231,-0.0498036,-1.79752,-0.00257285,0.253235,0.0092197,0.00437494,0.0682682,0.0127158,-0.0368485,0.142769,-0.153113,0.000933692,0.132959,3.80816,1.073,1.15111,19.165,-15.7097,0.0688448,1.55078,-30.2297,1.41328,23.1186,1.60736,1.75316,-0.0703886,
0.0457648,-0.00239244,-0.0499561,-1.79755,0.013716,0.239684,0.00913396,-0.0045436,0.023609,-0.00448258,-0.00921247,0.373057,-0.279197,-0.00114946,-0.161566,0.96136,-0.14504,0.933121,71.8943,-62.611,-0.0996837,4.1315,1.07376,4.13742,-1.74248,11.0092,-9.08916,-0.00514074,0.0459198,-0.0034231,-0.0498036,-1.79752,-0.00257285,0.253235,0.0092197,0.00437494,0.0682682,0.0127158,-0.0368485,0.142769,-0.153113,0.000933692,0,0,0,0,0,0,0,1.55078,-30.2297,1.41328,23.1186,1.60736,1.75316,-0.0703886,
0.0457585,-0.00221397,-0.049961,-1.79761,0.0210025,0.233779,0.00912653,-0.00379312,0.023349,-0.00370655,-0.00880703,0.480608,-0.370981,-0.0011052,0.469048,-0.162511,0.485014,0.2534,67.2194,-57.3652,0.0276614,4.05181,1.0984,4.05733,-1.68909,11.0092,-8.9115,-0.00489915,0.0459198,-0.0034231,-0.0498036,-1.79752,-0.00257285,0.253235,0.0092197,0.00437494,0.0682682,0.0127158,-0.0368485,0.142769,-0.153113,0.000933692,0,0,0,0,0,0,0,1.55078,-30.2297,1.41328,23.1186,1.60736,1.75316,-0.0703886,
0.0457978,-0.00207131,-0.0499202,-1.79769,0.0286248,0.227599,0.00912371,-0.00205286,0.0222456,-0.00194504,-0.00911488,0.575044,-0.45128,-0.000954662,1.08767,-0.689604,1.10095,-0.192402,59.0222,-50.1867,0.0940872,3.97191,1.10139,3.97769,-1.63989,11.0092,-8.7478,-0.00459039,0.0459198,-0.0034231,-0.0498036,-1.79752,-0.00257285,0.253235,0.0092197,0.00437494,0.0682682,0.0127158,-0.0368485,0.142769,-0.153113,0.000933692,0,0,0,0,0,0,0,1.55078,-30.2297,1.41328,23.1186,1.60736,1.75316,-0.0703886,
0.0469795,-0.0029097,-0.0487235,-1.79791,0.00510107,0.24206,0.00940729,0.0149341,0.0221232,0.0152697,-0.0127526,0.573899,-0.52718,0.00194282,10.6169,-0.0765326,10.7592,-2.27356,-0.715818,-47.4378,1.81093,26.5818,1.40631,26.621,-9.74415,11.0092,-14.2621,0.104687,0.0459198,-0.0034231,-0.0498036,-1.79752,-0.00257285,0.253235,0.0092197,0.00437494,0.0682682,0.0127158,-0.0368485,0.142769,-0.153113,0.000933692,0,0,0,0,0,0,0,1.55078,-30.2297,1.41328,23.1186,1.60736,1.75316,-0.0703886,
0.0478446,-0.00290179,-0.0478494,-1.79826,0.010718,0.234041,0.00957007,0.0335767,0.0178962,0.0340669,-0.0189012,0.599542,-0.622218,0.0056238,11.6516,-2.64182,11.7482,-3.84288,16.0271,-59.3987,2.30061,25.1175,0.908962,25.1742,-8.67941,11.0092,-14.2621,0.134548,0.0459198,-0.0034231,-0.0498036,-1.79752,-0.00257285,0.253235,0.0092197,0.00437494,0.0682682,0.0127158,-0.0368485,0.142769,-0.153113,0.000933692,0,0,0,0,0,0,0,1.55078,-30.2297,1.41328,23.1186,1.60736,1.75316,-0.0703886,
0.0488432,-0.00308107,-0.046848,-1.79882,0.0171628,0.225142,0.00974335,0.0518255,0.00983498,0.0522897,-0.0289641,0.640753,-0.72025,0.00883102,11.4055,-5.03829,11.3893,-6.28932,25.7569,-61.2699,2.00451,23.5365,-1.1409,23.5932,-8.78513,11.0092,-14.2621,0.203064,0.0459198,-0.0034231,-0.0498036,-1.79752,-0.00257285,0.253235,0.0092197,0.00437494,0.0682682,0.0127158,-0.0368485,0.142769,-0.153113,0.000933692,0,0,0,0,0,0,0,1.55078,-30.2297,1.41328,23.1186,1.60736,1.75316,-0.0703886,
0.0499089,-0.00338435,-0.0457866,-1.79951,0.0242676,0.215607,0.00984119,0.0681022,0.000285912,0.0683658,-0.0405089,0.690224,-0.814594,0.00951084,10.1729,-5.96817,10.0475,-7.2155,30.9193,-58.9646,0.424888,21.269,-4.04441,21.2652,-10.1969,11.0092,-14.2621,0.216691,0.0459198,-0.0034231,-0.0498036,-1.79752,-0.00257285,0.253235,0.0092197,0.00437494,0.0682682,0.0127158,-0.0368485,0.142769,-0.153113,0.000933692,0,0,0,0,0,0,0,1.55078,-30.2297,1.41328,23.1186,1.60736,1.75316,-0.0703886,
0.0474723,-0.00302824,-0.0482389,-1.79877,0.00438069,0.242782,0.00953835,0.0785333,0.00353862,0.078868,-0.0499249,0.6563,-0.808345,0.0115709,6.51943,2.03294,6.56387,-5.88504,-21.2025,3.90521,1.28754,36.243,4.25456,36.1998,-18.2745,10.8902,-14.2059,0.188012,0.0465578,-0.00292634,-0.0484138,-1.79965,0.0119307,0.238494,0.00926993,0.0269023,0.027105,0.0606602,-0.106632,0.819467,-0.798532,-0.000795686,2.81592,-5.14539,5.99304,-8.72289,84.5872,-80.6774,-0.216172,7.05738,-27.5597,6.51124,18.2111,4.61853,-2.66883,0.205185,
0.0486809,-0.00299749,-0.047023,-1.79965,0.00968182,0.235124,0.00968668,0.0930422,0.00359953,0.0934917,-0.0620098,0.657568,-0.838117,0.0129649,9.06806,0.0380694,9.1398,-7.55304,0.792549,-18.6073,0.87127,33.0897,4.1453,33.0637,-17.4431,10.8902,-14.2059,0.185659,0.0465578,-0.00292634,-0.0484138,-1.79965,0.0119307,0.238494,0.00926993,0.0269023,0.027105,0.0606602,-0.106632,0.819467,-0.798532,-0.000795686,0,0,0,0,0,0,0,7.05738,-27.5597,6.51124,18.2111,4.61853,-2.66883,0.205185,
0.0500358,-0.00300826,-0.0456575,-1.80066,0.0159113,0.226488,0.00975933,0.108306,0.00261035,0.10893,-0.0749101,0.681793,-0.886405,0.0121881,9.53977,-0.618236,9.6489,-8.0627,15.1405,-30.1801,-0.485493,29.9106,2.77766,29.9414,-17.848,10.8902,-14.2059,0.179083,0.0465578,-0.00292634,-0.0484138,-1.79965,0.0119307,0.238494,0.00926993,0.0269023,0.027105,0.0606602,-0.106632,0.819467,-0.798532,-0.000795686,0,0,0,0,0,0,0,7.05738,-27.5597,6.51124,18.2111,4.61853,-2.66883,0.205185,
0.0514772,-0.00299478,-0.0442053,-1.80172,0.0228558,0.217136,0.00977909,0.12268,0.00242531,0.123449,-0.0864937,0.719046,-0.942932,0.0102444,8.98404,-0.11565,9.07424,-7.23973,23.2833,-35.3291,-1.21484,26.6128,2.42685,26.7095,-17.9214,10.8902,-14.2059,0.0862595,0.0465578,-0.00292634,-0.0484138,-1.79965,0.0119307,0.238494,0.00926993,0.0269023,0.027105,0.0606602,-0.106632,0.819467,-0.798532,-0.000795686,0,0,0,0,0,0,0,7.05738,-27.5597,6.51124,18.2111,4.61853,-2.66883,0.205185,
0.0489879,-0.00303472,-0.045985,-1.80255,0.0242534,0.222573,0.0096278,0.133532,-0.000237191,0.134039,-0.107903,0.731594,-0.965251,0.0118669,6.7825,-1.66407,6.61891,-13.381,7.8422,-13.9497,1.01408,40.769,3.63533,40.6144,-25.8475,10.9353,-13.771,0.20858,0.0495512,-0.00298393,-0.0430948,-1.80403,0.0448195,0.204002,0.00934785,0.247579,-0.0242608,0.380774,-0.171878,1.07046,-1.24047,0.0010359,27.5846,-6.42073,40.0142,-8.15582,31.3747,-55.2428,0.228948,23.9461,-36.1171,23.3365,31.2872,4.99115,0.194937,-0.0301054,
0.0506243,-0.00312456,-0.0443557,-1.8042,0.0309638,0.213423,0.00966567,0.147735,-0.00243588,0.147962,-0.127742,0.753034,-1.00093,0.0104404,8.87694,-1.37418,8.70186,-12.3993,13.4003,-22.3012,-0.89161,36.0936,2.81432,35.9489,-25.5785,10.9353,-13.771,0.146526,0.0495512,-0.00298393,-0.0430948,-1.80403,0.0448195,0.204002,0.00934785,0.247579,-0.0242608,0.380774,-0.171878,1.07046,-1.24047,0.0010359,0,0,0,0,0,0,0,23.9461,-36.1171,23.3365,31.2872,4.99115,0.194937,-0.0301054,
0.0523773,-0.00317583,-0.0426105,-1.8059,0.0381607,0.203741,0.00963075,0.162014,-0.00323041,0.162,-0.144626,0.782349,-1.0428,0.00747926,8.92389,-0.496584,8.77367,-10.5524,18.3218,-26.1679,-1.85068,31.8623,2.44212,31.7242,-25.2629,10.9353,-13.771,0.0273713,0.0495512,-0.00298393,-0.0430948,-1.80403,0.0448195,0.204002,0.00934785,0.247579,-0.0242608,0.380774,-0.171878,1.07046,-1.24047,0.0010359,0,0,0,0,0,0,0,23.9461,-36.1171,23.3365,31.2872,4.99115,0.194937,-0.0301054,
0.0541885,-0.00318534,-0.0408072,-1.80762,0.0457776,0.193682,0.00956296,0.17489,-0.00282203,0.174684,-0.158688,0.816302,-1.08572,0.00428862,8.04756,0.255237,7.92769,-8.78867,21.2206,-26.8269,-1.99415,28.8404,2.61423,28.7187,-24.5389,10.9353,-13.771,-0.0524306,0.0495512,-0.00298393,-0.0430948,-1.80403,0.0448195,0.204002,0.00934785,0.247579,-0.0242608,0.380774,-0.171878,1.07046,-1.24047,0.0010359,0,0,0,0,0,0,0,23.9461,-36.1171,23.3365,31.2872,4.99115,0.194937,-0.0301054,
0.0549366,-0.00340975,-0.0376959,-1.80808,0.0617423,0.184453,0.00943231,0.207566,-0.00660699,0.207421,-0.179714,0.866211,-1.1149,0.00282745,20.4225,-2.3656,20.4607,-13.1412,31.1932,-18.2337,-0.913232,40.6565,4.1365,40.625,-31.6425,10.8849,-13.6199,0.121349,0.0555537,-0.00358792,-0.0334344,-1.81154,0.0669681,0.162385,0.00933881,0.206328,0.0812871,0.329411,-0.21189,0.533979,-1.00955,0.00034457,-5.15642,13.1935,-6.42041,-5.0015,-67.0607,28.8659,-0.0864163,14.7658,-32.6497,14.5093,29.2957,3.32946,1.30913,0.0376436,
0.0575877,-0.00348662,-0.0350439,-1.81025,0.0704709,0.174386,0.00931949,0.23233,-0.00720742,0.232236,-0.198031,0.911184,-1.14359,-0.000558357,15.4775,-0.375268,15.5096,-11.4485,28.1078,-17.9295,-2.11613,35.2673,3.56851,35.2752,-31.1669,10.8849,-13.6199,-0.0387975,0.0555537,-0.00358792,-0.0334344,-1.81154,0.0669681,0.162385,0.00933881,0.206328,0.0812871,0.329411,-0.21189,0.533979,-1.00955,0.00034457,0,0,0,0,0,0,0,14.7658,-32.6497,14.5093,29.2957,3.32946,1.30913,0.0376436,
0.0601518,-0.00348778,-0.0324787,-1.81245,0.079371,0.164136,0.00916678,0.249965,-0.00579507,0.24992,-0.213467,0.951449,-1.17113,-0.00426452,11.0223,0.882714,11.0524,-9.64708,25.1661,-17.214,-2.31635,31.5217,3.38349,31.5487,-30.4335,10.8849,-13.6199,-0.139451,0.0555537,-0.00358792,-0.0334344,-1.81154,0.0669681,0.162385,0.00933881,0.206328,0.0812871,0.329411,-0.21189,0.533979,-1.00955,0.00034457,0,0,0,0,0,0,0,14.7658,-32.6497,14.5093,29.2957,3.32946,1.30913,0.0376436,
0.0626176,-0.00343913,-0.0300113,-1.81467,0.0883858,0.153742,0.00900055,0.261618,-0.00341982,0.261619,-0.226341,0.98653,-1.19676,-0.00756733,7.28286,1.48453,7.3117,-8.04608,21.9251,-16.0229,-2.06426,28.969,2.99437,29.0048,-29.8156,10.8849,-13.6199,-0.183965,0.0555537,-0.00358792,-0.0334344,-1.81154,0.0669681,0.162385,0.00933881,0.206328,0.0812871,0.329411,-0.21189,0.533979,-1.00955,0.00034457,0,0,0,0,0,0,0,14.7658,-32.6497,14.5093,29.2957,3.32946,1.30913,0.0376436,
0.059795,-0.00309657,-0.0291821,-1.81673,0.0796356,0.145611,0.0088791,0.262016,0.002268,0.262022,-0.248894,0.960301,-1.17113,-0.0126216,0.24905,3.55489,0.251688,-14.0957,-16.3927,16.0195,-3.15894,32.0681,4.07646,32.0455,-37.3519,10.8849,-13.2088,-0.235906,0.0555537,-0.00358792,-0.0334344,-1.81154,0.0669681,0.162385,0.00933881,0.206328,0.0812871,0.329411,-0.21189,0.533979,-1.00955,0.00034457,0,0,0,0,0,0,0,14.7658,-32.6497,14.5093,29.2957,3.32946,1.30913,0.0376436,
0.0618651,-0.00292865,-0.0271117,-1.81954,0.0871521,0.136908,0.00859728,0.261365,0.00601246,0.261377,-0.269302,0.956154,-1.15446,-0.0171428,-0.406991,2.34029,-0.402954,-12.7554,-2.59226,10.4181,-2.82576,28.9672,2.98007,28.9703,-36.4661,10.9449,-12.2113,-0.319864,0.063036,-0.00526483,-0.0199523,-1.82138,0.0779461,0.127545,0.00935754,0.224856,-0.00668451,0.444365,-0.304847,0.290909,-0.97408,0.000284319,2.31602,-10.9964,14.3693,-11.6196,-30.3837,4.43352,-0.00753139,6.01398,-30.4796,5.61067,26.1575,1.52221,1.29632,-0.0163725,
0.0638925,-0.00278119,-0.0250838,-1.82239,0.095108,0.128215,0.00831938,0.259778,0.00849637,0.259799,-0.286782,0.96382,-1.14091,-0.0206618,-0.992144,1.55245,-0.986199,-10.9248,4.79166,8.4719,-2.19936,26.8125,2.08473,26.8241,-35.9106,10.9449,-11.5175,-0.344978,0.063036,-0.00526483,-0.0199523,-1.82138,0.0779461,0.127545,0.00935754,0.224856,-0.00668451,0.444365,-0.304847,0.290909,-0.97408,0.000284319,0,0,0,0,0,0,0,6.01398,-30.4796,5.61067,26.1575,1.52221,1.29632,-0.0163725,
0.0677271,-0.00528663,-0.0152442,-1.82676,0.0892559,0.110875,0.00878273,0.264522,0.00691528,0.264522,-0.297859,0.931717,-1.12365,-0.02393,2.96496,-0.98818,2.95181,-6.92325,-20.0649,10.7894,-2.04259,28.9672,2.98007,28.9703,-36.4661,10.9449,-12.2113,-0.319864,0.063036,-0.00526483,-0.0199523,-1.82138,0.0779461,0.127545,0.00935754,0.224856,-0.00668451,0.444365,-0.304847,0.290909,-0.97408,0.000284319,0,0,0,0,0,0,0,6.01398,-30.4796,5.61067,26.1575,1.52221,1.29632,-0.0163725,
0.0698777,-0.00526297,-0.0130937,-1.82955,0.0966134,0.102416,0.00849625,0.265381,0.00612391,0.265381,-0.308107,0.92931,-1.1104,-0.026306,0.537349,-0.494607,0.536839,-6.40511,-1.50404,8.27709,-1.485,26.8125,2.08473,26.8241,-35.9106,10.9449,-11.5175,-0.344978,0.063036,-0.00526483,-0.0199523,-1.82138,0.0779461,0.127545,0.00935754,0.224856,-0.00668451,0.444365,-0.304847,0.290909,-0.97408,0.000284319,0,0,0,0,0,0,0,6.01398,-30.4796,5.61067,26.1575,1.52221,1.29632,-0.0163725,
0.0719386,-0.00523097,-0.0110323,-1.83237,0.104529,0.0940438,0.00823038,0.263829,0.0056991,0.263839,-0.316918,0.941342,-1.09762,-0.0276916,-0.97048,-0.265506,-0.963815,-5.50665,7.51968,7.99025,-0.866048,25.2096,1.12464,25.2297,-35.2611,10.8135,-10.6171,-0.34168,0.0715337,-0.00611892,-0.00425497,-1.8347,0.102815,0.0915581,0.00935909,0.221536,-0.0825016,0.41428,-0.415978,0.790835,-1.04829,-0.00162719,-0.41498,-9.47714,-3.7607,-13.8913,62.4907,-9.2757,-0.238938,4.34375,-34.1731,4.11104,29.6686,2.3526,2.7282,-0.0163725,
0.0739263,-0.00520125,-0.00904395,-1.83521,0.112779,0.0859763,0.00798753,0.260756,0.00530231,0.26078,-0.324544,0.959318,-1.07978,-0.0282244,-1.92046,-0.247993,-1.91164,-4.7662,11.2352,11.1471,-0.332989,23.9939,0.436831,24.0154,-34.7331,10.8135,-10.1155,-0.320645,0.0715337,-0.00611892,-0.00425497,-1.8347,0.102815,0.0915581,0.00935909,0.221536,-0.0825016,0.41428,-0.415978,0.790835,-1.04829,-0.00162719,0,0,0,0,0,0,0,4.34375,-34.1731,4.11104,29.6686,2.3526,2.7282,-0.0163725,
0.0761807,-0.00653493,0.000408145,-1.84036,0.118061,0.0738814,0.00879722,0.26524,0.000693276,0.265264,-0.329697,0.96591,-1.08368,-0.0296676,2.80268,-2.88065,2.80244,-3.22079,4.12013,-2.43748,-0.901972,26.7554,1.95423,26.7715,-35.7724,10.8135,-11.2221,-0.34556,0.0715337,-0.00611892,-0.00425497,-1.8347,0.102815,0.0915581,0.00935909,0.221536,-0.0825016,0.41428,-0.415978,0.790835,-1.04829,-0.00162719,0,0,0,0,0,0,0,4.34375,-34.1731,4.11104,29.6686,2.3526,2.7282,-0.0163725,
0.0783433,-0.00661837,0.0025714,-1.84317,0.126374,0.0653136,0.00853169,0.266258,-0.00153134,0.266293,-0.333816,0.980544,-1.08114,-0.0303723,0.636093,-1.39039,0.642789,-2.57404,9.14606,1.58948,-0.440456,25.2096,1.12464,25.2297,-35.2611,10.8135,-10.6171,-0.34168,0.0715337,-0.00611892,-0.00425497,-1.8347,0.102815,0.0915581,0.00935909,0.221536,-0.0825016,0.41428,-0.415978,0.790835,-1.04829,-0.00162719,0,0,0,0,0,0,0,4.34375,-34.1731,4.11104,29.6686,2.3526,2.7282,-0.0163725,
0.0804184,-0.00667592,0.00464742,-1.84599,0.134899,0.0571568,0.00828821,0.264884,-0.00266391,0.264935,-0.337555,0.997558,-1.06883,-0.030385,-0.858766,-0.707853,-0.848609,-2.33745,10.6336,7.691,-0.00791045,23.8145,-0.0875555,23.833,-34.5075,10.6066,-10.0393,-0.322125,0.07645,-0.00294472,0.00587924,-1.84688,0.121849,0.0637442,0.0093899,0.113814,0.0088761,0.275941,-0.310153,0.563075,-0.78766,-0.00588682,-13.4653,11.4222,-17.2924,13.2281,-28.4699,32.5782,-0.532454,-11.331,-38.0135,-11.4368,38.5593,-0.823368,6.18889,0.138352,
0.0824197,-0.00672757,0.00664973,-1.84886,0.143537,0.0498826,0.00806887,0.261938,-0.0034223,0.262005,-0.34198,1.014,-1.03692,-0.0297914,-1.84094,-0.473995,-1.83078,-2.76504,10.2773,19.9454,0.371006,22.756,-0.637881,22.7744,-33.9556,10.6066,-9.06295,-0.296452,0.07645,-0.00294472,0.00587924,-1.84688,0.121849,0.0637442,0.0093899,0.113814,0.0088761,0.275941,-0.310153,0.563075,-0.78766,-0.00588682,0,0,0,0,0,0,0,-11.331,-38.0135,-11.4368,38.5593,-0.823368,6.18889,0.138352,
0.0796234,-0.00292028,0.00907172,-1.85218,0.134173,0.0497906,0.00886138,0.249597,-0.0027138,0.249708,-0.340638,0.975587,-1.00761,-0.0303128,-7.71357,0.442811,-7.68588,0.838511,-24.009,18.3222,-0.325885,25.0303,0.600256,25.0474,-35.0355,10.6066,-10.5409,-0.343161,0.07645,-0.00294472,0.00587924,-1.84688,0.121849,0.0637442,0.0093899,0.113814,0.0088761,0.275941,-0.310153,0.563075,-0.78766,-0.00588682,0,0,0,0,0,0,0,-11.331,-38.0135,-11.4368,38.5593,-0.823368,6.18889,0.138352,
0.0812428,-0.00293667,0.0106932,-1.85491,0.141312,0.0426981,0.00862341,0.240163,-0.00258084,0.240302,-0.340756,0.958954,-0.983398,-0.0301995,-5.89583,0.0830986,-5.87858,-0.0740462,-10.3953,15.13,0.0708288,23.8145,-0.0875555,23.833,-34.5075,10.6066,-10.0393,-0.322125,0.07645,-0.00294472,0.00587924,-1.84688,0.121849,0.0637442,0.0093899,0.113814,0.0088761,0.275941,-0.310153,0.563075,-0.78766,-0.00588682,0,0,0,0,0,0,0,-11.331,-38.0135,-11.4368,38.5593,-0.823368,6.18889,0.138352,
0.0828752,-0.00297205,0.0123273,-1.85772,0.148843,0.036217,0.00840887,0.232939,-0.002949,0.233095,-0.342747,0.955421,-0.948745,-0.0295232,-4.51496,-0.2301,-4.50458,-1.24406,-2.20871,21.6581,0.422687,22.6865,-0.859418,22.7033,-33.8267,10.4746,-8.91164,-0.296995,0.081715,-0.0015937,0.0166287,-1.85712,0.140908,0.0375349,0.00944078,0.0683069,0.0442766,0.219093,-0.208071,0.64952,-0.814024,0.00307607,-5.68837,4.42507,-7.10596,12.7603,10.8055,-3.29552,1.12036,-9.52984,-48.8957,-9.28649,38.8092,1.65039,4.55102,-0.0163725,
0.0845148,-0.00302138,0.0139685,-1.8606,0.15664,0.0307747,0.0082169,0.227343,-0.0035925,0.227506,-0.346098,0.959278,-0.895055,-0.0284178,-3.49771,-0.402185,-3.49307,-2.0946,2.41094,33.5567,0.690857,21.7422,-1.29146,21.7573,-33.2363,10.4746,-6.60636,-0.269085,0.081715,-0.0015937,0.0166287,-1.85712,0.140908,0.0375349,0.00944078,0.0683069,0.0442766,0.219093,-0.208071,0.64952,-0.814024,0.00307607,0,0,0,0,0,0,0,-9.52984,-48.8957,-9.28649,38.8092,1.65039,4.55102,-0.0163725,
0.0843253,-0.00163512,0.0192613,-1.86207,0.153714,0.0247523,0.00896217,0.215763,-0.00444892,0.215987,-0.341407,0.934877,-0.876162,-0.0285693,-7.23762,-0.53526,-7.19933,2.93212,-15.2504,11.8078,-0.0946957,23.7451,-0.309092,23.7619,-34.3786,10.4746,-9.88796,-0.322668,0.081715,-0.0015937,0.0166287,-1.85712,0.140908,0.0375349,0.00944078,0.0683069,0.0442766,0.219093,-0.208071,0.64952,-0.814024,0.00307607,0,0,0,0,0,0,0,-9.52984,-48.8957,-9.28649,38.8092,1.65039,4.55102,-0.0163725,
0.0857528,-0.00172898,0.0206916,-1.86478,0.160839,0.0188347,0.00875112,0.208298,-0.00590553,0.208549,-0.340781,0.92603,-0.84887,-0.0281317,-4.66537,-0.910382,-4.64905,0.391003,-5.52926,17.0576,0.273472,22.6865,-0.859418,22.7033,-33.8267,10.4746,-8.91164,-0.296995,0.081715,-0.0015937,0.0166287,-1.85712,0.140908,0.0375349,0.00944078,0.0683069,0.0442766,0.219093,-0.208071,0.64952,-0.814024,0.00307607,0,0,0,0,0,0,0,-9.52984,-48.8957,-9.28649,38.8092,1.65039,4.55102,-0.0163725,
0.087233,-0.00183566,0.0221741,-1.86758,0.168277,0.0138457,0.00856179,0.203643,-0.00739153,0.2039,-0.342595,0.926772,-0.803821,-0.0272385,-2.90965,-0.928751,-2.90539,-1.13369,0.463432,28.1554,0.558285,21.7001,-1.6584,21.7152,-33.0283,10.3044,-6.46863,-0.270233,0.0848604,-0.00134064,0.0249157,-1.86612,0.17058,0.0107293,0.00942974,0.0369548,0.0034006,0.111569,-0.16535,0.654322,-0.620563,-0.00987776,-3.91902,-5.10951,-13.4405,5.34008,0.600284,24.1827,-1.61923,-16.0957,-37.9659,-16.0348,26.8518,-2.42371,4.10699,0.251877,
0.0887482,-0.00194582,0.0236911,-1.87043,0.175941,0.00998465,0.00839257,0.200794,-0.00866719,0.201045,-0.345324,0.933028,-0.739584,-0.0260215,-1.78069,-0.797287,-1.78444,-1.70544,3.91007,40.1486,0.760637,20.8599,-2.11333,20.8735,-32.517,10.3044,-3.95578,-0.242715,0.0848604,-0.00134064,0.0249157,-1.86612,0.17058,0.0107293,0.00942974,0.0369548,0.0034006,0.111569,-0.16535,0.654322,-0.620563,-0.00987776,0,0,0,0,0,0,0,-16.0957,-37.9659,-16.0348,26.8518,-2.42371,4.10699,0.251877,
0.0867046,-0.00191865,0.0267792,-1.87064,0.182964,0.00117429,0.00900431,0.186094,-0.0147489,0.186429,-0.336617,0.907414,-0.708064,-0.0259249,-9.18723,-3.80104,-9.13488,5.44163,-16.0086,19.7001,0.0603264,22.6444,-1.22636,22.6612,-33.6187,10.3044,-8.77391,-0.298143,0.0848604,-0.00134064,0.0249157,-1.86612,0.17058,0.0107293,0.00942974,0.0369548,0.0034006,0.111569,-0.16535,0.654322,-0.620563,-0.00987776,0,0,0,0,0,0,0,-16.0957,-37.9659,-16.0348,26.8518,-2.42371,4.10699,0.251877,
0.0878666,-0.00222121,0.0279452,-1.87323,0.18979,-0.0028078,0.00882037,0.177926,-0.0193632,0.178295,-0.333857,0.896594,-0.666003,-0.0253385,-5.10503,-2.88395,-5.08375,1.72508,-6.76255,26.2878,0.366552,21.7001,-1.6584,21.7152,-33.0283,10.3044,-6.46863,-0.270233,0.0848604,-0.00134064,0.0249157,-1.86612,0.17058,0.0107293,0.00942974,0.0369548,0.0034006,0.111569,-0.16535,0.654322,-0.620563,-0.00987776,0,0,0,0,0,0,0,-16.0957,-37.9659,-16.0348,26.8518,-2.42371,4.10699,0.251877,
0.0891339,-0.002499,0.0292157,-1.87591,0.196922,-0.00587112,0.00865536,0.174024,-0.0224351,0.174398,-0.334086,0.895556,-0.609386,-0.0243961,-2.43904,-1.91994,-2.43568,-0.142981,-0.649148,35.386,0.588946,20.8911,-2.40684,20.9033,-32.2599,10.2271,-3.82854,-0.243836,0.0864978,-0.000715186,0.0305246,-1.87286,0.194027,-0.00535721,0.00945724,0.053144,-0.14676,0.110916,-0.217256,0.454677,-0.347503,-0.00237452,2.02365,-18.77,-0.081601,-6.48818,-24.9556,34.1324,0.937905,-14.9809,-32.5981,-14.5352,20.3018,0.642391,1.49499,0.124619,
0.0904753,-0.00275095,0.0305597,-1.87864,0.204291,-0.0079095,0.0085084,0.172755,-0.0242469,0.173117,-0.335505,0.900681,-0.538468,-0.0231907,-0.793055,-1.1324,-0.800563,-0.887236,3.20352,44.3235,0.753372,20.1432,-2.85255,20.1542,-31.8277,10.2271,-1.72347,-0.217518,0.0864978,-0.000715186,0.0305246,-1.87286,0.194027,-0.00535721,0.00945724,0.053144,-0.14676,0.110916,-0.217256,0.454677,-0.347503,-0.00237452,0,0,0,0,0,0,0,-14.9809,-32.5981,-14.5352,20.3018,0.642391,1.49499,0.124619,
0.0883218,-0.00247329,0.032362,-1.87711,0.204724,-0.0112602,0.00907565,0.162984,-0.0392988,0.16337,-0.324321,0.865343,-0.500545,-0.0231466,-6.10644,-9.40746,-6.09172,6.99051,-22.0863,23.7015,0.0276003,21.7313,-1.95191,21.745,-32.7712,10.2271,-6.34139,-0.271354,0.0864978,-0.000715186,0.0305246,-1.87286,0.194027,-0.00535721,0.00945724,0.053144,-0.14676,0.110916,-0.217256,0.454677,-0.347503,-0.00237452,0,0,0,0,0,0,0,-14.9809,-32.5981,-14.5352,20.3018,0.642391,1.49499,0.124619,
0.0894389,-0.00313467,0.0334822,-1.87951,0.211144,-0.0133859,0.00891128,0.158313,-0.0479737,0.158702,-0.319456,0.852767,-0.45358,-0.0226267,-2.91958,-5.42176,-2.91751,3.04053,-7.85992,29.3535,0.324937,20.8911,-2.40684,20.9033,-32.2599,10.2271,-3.82854,-0.243836,0.0864978,-0.000715186,0.0305246,-1.87286,0.194027,-0.00535721,0.00945724,0.053144,-0.14676,0.110916,-0.217256,0.454677,-0.347503,-0.00237452,0,0,0,0,0,0,0,-14.9809,-32.5981,-14.5352,20.3018,0.642391,1.49499,0.124619,
0.0906527,-0.00368776,0.0346988,-1.88201,0.218012,-0.0146804,0.00876528,0.156996,-0.0522063,0.157376,-0.318213,0.853927,-0.395226,-0.0217511,-0.823011,-2.6454,-0.828917,0.777053,0.724738,36.4714,0.547215,20.1432,-2.85255,20.1542,-31.8277,10.2271,-1.72347,-0.217518,0.0864978,-0.000715186,0.0305246,-1.87286,0.194027,-0.00535721,0.00945724,0.053144,-0.14676,0.110916,-0.217256,0.454677,-0.347503,-0.00237452,0,0,0,0,0,0,0,-14.9809,-32.5981,-14.5352,20.3018,0.642391,1.49499,0.124619,
0.0919375,-0.00415436,0.0359859,-1.88458,0.225204,-0.0150956,0.00863675,0.157716,-0.0534298,0.158079,-0.31868,0.862935,-0.32656,-0.0206142,0.449965,-0.764709,0.439247,-0.292092,5.63003,42.9158,0.710582,19.4519,-3.35878,19.4635,-31.3454,10.1588,0.0857764,-0.19262,0.0881833,-0.0012616,0.0354147,-1.88033,0.208751,-0.00837094,0.0094879,0.046342,-0.0926248,0.0876699,-0.144963,0.206482,-0.022823,0.00139097,-0.850245,6.76687,-2.90577,9.03654,-31.0245,40.585,0.470686,-11.9896,-38.9894,-11.7105,33.4772,0.58746,3.88177,-0.00996382,
0.0896962,-0.00276492,0.0369398,-1.88436,0.21728,-0.0091077,0.00914065,0.146986,-0.0605082,0.147376,-0.309168,0.812996,-0.269635,-0.020625,-6.70664,-4.42395,-6.68925,5.94462,-31.2117,35.5781,-0.00674072,20.8698,-2.55551,20.8837,-32.1756,10.1588,-3.78461,-0.244318,0.0881833,-0.0012616,0.0354147,-1.88033,0.208751,-0.00837094,0.0094879,0.046342,-0.0926248,0.0876699,-0.144963,0.206482,-0.022823,0.00139097,0,0,0,0,0,0,0,-11.9896,-38.9894,-11.7105,33.4772,0.58746,3.88177,-0.00996382,
0.0906607,-0.00337803,0.0379078,-1.8867,0.223061,-0.00908624,0.00899544,0.141702,-0.0637342,0.142101,-0.305824,0.794929,-0.215172,-0.0201303,-3.30241,-2.01628,-3.29671,2.09004,-11.292,34.0397,0.309177,20.1218,-3.00121,20.1346,-31.7433,10.1588,-1.67954,-0.218,0.0881833,-0.0012616,0.0354147,-1.88033,0.208751,-0.00837094,0.0094879,0.046342,-0.0926248,0.0876699,-0.144963,0.206482,-0.022823,0.00139097,0,0,0,0,0,0,0,-11.9896,-38.9894,-11.7105,33.4772,0.58746,3.88177,-0.00996382,
0.0917333,-0.00390326,0.0389834,-1.88914,0.229456,-0.00853568,0.00886847,0.140175,-0.0641181,0.140571,-0.305608,0.795799,-0.158373,-0.0192784,-0.954334,-0.239943,-0.956812,0.135075,0.544011,35.4991,0.532431,19.4519,-3.35878,19.4635,-31.3454,10.1588,0.0857764,-0.19262,0.0881833,-0.0012616,0.0354147,-1.88033,0.208751,-0.00837094,0.0094879,0.046342,-0.0926248,0.0876699,-0.144963,0.206482,-0.022823,0.00139097,0,0,0,0,0,0,0,-11.9896,-38.9894,-11.7105,33.4772,0.58746,3.88177,-0.00996382,
0.0928897,-0.0043543,0.0401424,-1.89163,0.236287,-0.00737948,0.00875862,0.14105,-0.0625706,0.141433,-0.306722,0.807414,-0.0977939,-0.018169,0.546866,0.96721,0.538779,-0.695942,7.25877,37.8622,0.693415,18.8291,-3.59585,18.8401,-30.9691,10.1134,1.52445,-0.168099,0.0898449,-0.0013987,0.0391293,-1.88372,0.21724,-0.00444234,0.00947417,0.0667285,-0.0466271,0.0676268,-0.00342933,0.079783,0.16473,-0.00261474,2.54831,5.7497,-2.50539,17.6917,-15.8373,23.4441,-0.500713,-8.8197,-46.5749,-8.46129,32.6321,1.8518,2.622,0.0843355,
0.0912492,-0.00296365,0.0405422,-1.88724,0.224982,-0.00105744,0.00915263,0.132044,-0.06945,0.132446,-0.295381,0.761396,-0.0361684,-0.0182623,-5.62834,-4.29966,-5.61666,7.0878,-28.761,38.5159,-0.0583676,20.1008,-3.00137,20.1142,-31.7615,10.1134,-1.68236,-0.217869,0.0898449,-0.0013987,0.0391293,-1.88372,0.21724,-0.00444234,0.00947417,0.0667285,-0.0466271,0.0676268,-0.00342933,0.079783,0.16473,-0.00261474,0,0,0,0,0,0,0,-8.8197,-46.5749,-8.46129,32.6321,1.8518,2.622,0.0843355,
0.0921427,-0.00364633,0.041439,-1.88945,0.230582,0.00074841,0.0090249,0.127974,-0.0726269,0.128379,-0.29157,0.749137,0.0162116,-0.0178032,-2.54422,-1.98552,-2.54208,2.38231,-7.66173,32.7375,0.286952,19.4309,-3.35894,19.4431,-31.3636,10.1134,0.0829575,-0.192489,0.0898449,-0.0013987,0.0391293,-1.88372,0.21724,-0.00444234,0.00947417,0.0667285,-0.0466271,0.0676268,-0.00342933,0.079783,0.16473,-0.00261474,0,0,0,0,0,0,0,-8.8197,-46.5749,-8.46129,32.6321,1.8518,2.622,0.0843355,
0.0931431,-0.00423262,0.0424424,-1.89177,0.236857,0.00283556,0.00891551,0.127389,-0.0727587,0.127787,-0.291262,0.756165,0.065148,-0.0169774,-0.365362,-0.0823937,-0.36956,0.192264,4.39241,30.5852,0.516169,18.8291,-3.59585,18.8401,-30.9691,10.1134,1.52445,-0.168099,0.0898449,-0.0013987,0.0391293,-1.88372,0.21724,-0.00444234,0.00947417,0.0667285,-0.0466271,0.0676268,-0.00342933,0.079783,0.16473,-0.00261474,0,0,0,0,0,0,0,-8.8197,-46.5749,-8.46129,32.6321,1.8518,2.622,0.0843355,
0.0949093,-0.00360792,0.045733,-1.88957,0.225333,0.0132747,0.00918422,0.122154,-0.0786369,0.122537,-0.282205,0.705482,0.132362,-0.0169573,-3.27203,-3.6739,-3.28141,5.66093,-31.6766,42.0089,0.0125575,19.4106,-3.28388,19.4247,-31.4572,10.0884,0.0310212,-0.191924,0.0933583,-0.001918,0.044178,-1.88606,0.219179,0.00655975,0.0094792,0.0974499,-0.0741842,0.0880086,-0.0366227,-0.120922,0.449094,-0.00253116,3.84018,-3.44463,2.54772,-4.14918,-25.0881,35.5455,0.0104468,-9.45446,-35.9187,-9.11193,25.134,1.15509,2.43615,0.110886,
0.0958063,-0.00431539,0.0466328,-1.89173,0.23058,0.0163889,0.00907164,0.12015,-0.0805963,0.120524,-0.279651,0.695543,0.183745,-0.0163802,-1.25274,-1.22459,-1.25803,1.59567,-6.21204,32.1141,0.360662,18.8087,-3.52079,18.8217,-31.0627,10.0884,1.47251,-0.167534,0.0933583,-0.001918,0.044178,-1.88606,0.219179,0.00655975,0.0094792,0.0974499,-0.0741842,0.0880086,-0.0366227,-0.120922,0.449094,-0.00253116,0,0,0,0,0,0,0,-9.45446,-35.9187,-9.11193,25.134,1.15509,2.43615,0.110886,
0.0967879,-0.00491747,0.047617,-1.89398,0.236645,0.019583,0.00897782,0.120658,-0.0795289,0.121025,-0.280078,0.70808,0.226847,-0.0154497,0.317832,0.667111,0.312839,-0.266346,7.83523,26.9386,0.58155,18.262,-3.63682,18.2738,-30.6593,10.0884,2.65147,-0.143988,0.0933583,-0.001918,0.044178,-1.88606,0.219179,0.00655975,0.0094792,0.0974499,-0.0741842,0.0880086,-0.0366227,-0.120922,0.449094,-0.00253116,0,0,0,0,0,0,0,-9.45446,-35.9187,-9.11193,25.134,1.15509,2.43615,0.110886,
0.0978421,-0.0054291,0.0486738,-1.89629,0.243272,0.022961,0.00890074,0.122883,-0.0764139,0.12324,-0.281719,0.732128,0.265929,-0.0142867,1.39071,1.9469,1.38457,-1.02578,15.0305,24.4263,0.726859,17.7623,-3.65048,17.7731,-30.2429,10.0884,3.57835,-0.121482,0.0933583,-0.001918,0.044178,-1.88606,0.219179,0.00655975,0.0094792,0.0974499,-0.0741842,0.0880086,-0.0366227,-0.120922,0.449094,-0.00253116,0,0,0,0,0,0,0,-9.45446,-35.9187,-9.11193,25.134,1.15509,2.43615,0.110886,
0.0989544,-0.00586519,0.0497884,-1.89861,0.250289,0.026562,0.00883905,0.126112,-0.0720334,0.126457,-0.283559,0.761119,0.302768,-0.0129716,2.01812,2.7378,2.01085,-1.15035,18.1193,23.0247,0.821976,17.2869,-3.44876,17.3015,-29.9741,10.0813,4.21992,-0.0991402,0.096847,-0.00327203,0.0487328,-1.89004,0.217467,0.0282605,0.00949768,0.106377,-0.13191,0.106526,-0.0666091,-0.107762,0.741649,0.00230996,1.11585,-7.21567,2.31467,-3.74829,1.64498,36.5694,0.60514,-11.3548,-37.2914,-10.6869,24.1898,1.05804,1.99853,-0.0163725,
0.0984993,-0.00537404,0.0503886,-1.89335,0.223895,0.038174,0.00923421,0.122002,-0.0822304,0.122331,-0.272736,0.713238,0.358665,-0.0133797,-2.56908,-6.37313,-2.57883,6.76491,-29.9261,34.9356,-0.255085,18.7956,-3.38456,18.8135,-31.2216,10.0813,1.38284,-0.166695,0.096847,-0.00327203,0.0487328,-1.89004,0.217467,0.0282605,0.00949768,0.106377,-0.13191,0.106526,-0.0666091,-0.107762,0.741649,0.00230996,0,0,0,0,0,0,0,-11.3548,-37.2914,-10.6869,24.1898,1.05804,1.99853,-0.0163725,
0.0994088,-0.00620714,0.0513006,-1.89537,0.229302,0.0425012,0.00913651,0.120338,-0.0866118,0.120665,-0.268629,0.705777,0.395112,-0.0131462,-1.03975,-2.73841,-1.04145,2.56666,-4.66304,22.7794,0.145925,18.2489,-3.50058,18.2657,-30.8182,10.0813,2.5618,-0.143149,0.096847,-0.00327203,0.0487328,-1.89004,0.217467,0.0282605,0.00949768,0.106377,-0.13191,0.106526,-0.0666091,-0.107762,0.741649,0.00230996,0,0,0,0,0,0,0,-11.3548,-37.2914,-10.6869,24.1898,1.05804,1.99853,-0.0163725,
0.100388,-0.00690684,0.052282,-1.89749,0.235524,0.0467039,0.00905761,0.12074,-0.0867819,0.121067,-0.268007,0.720154,0.421159,-0.0124896,0.250973,-0.106271,0.251498,0.388879,8.98568,16.2791,0.410427,17.7492,-3.51424,17.7649,-30.4018,10.0813,3.48868,-0.120643,0.096847,-0.00327203,0.0487328,-1.89004,0.217467,0.0282605,0.00949768,0.106377,-0.13191,0.106526,-0.0666091,-0.107762,0.741649,0.00230996,0,0,0,0,0,0,0,-11.3548,-37.2914,-10.6869,24.1898,1.05804,1.99853,-0.0163725,
0.101429,-0.00749463,0.0533258,-1.89968,0.242292,0.0509016,0.00899525,0.122621,-0.0841204,0.122949,-0.269055,0.745331,0.441868,-0.0115507,1.17579,1.66344,1.17635,-0.654951,15.7358,12.9433,0.586762,17.2825,-3.3724,17.3043,-30.0561,10.0969,4.12528,-0.0991671,0.100037,-0.00515684,0.0539138,-1.89425,0.216984,0.0573067,0.00948233,0.120158,-0.0740689,0.211382,-0.120214,0.126663,0.832099,-0.00140009,1.72264,7.23007,13.107,-6.70065,29.3031,11.3063,-0.463757,9.08466,-29.8528,8.81227,14.0256,3.00628,-0.713266,0.0843355,
0.102354,-0.0065891,0.0562413,-1.89794,0.225841,0.0681975,0.00923716,0.126536,-0.0846305,0.126846,-0.264702,0.726675,0.480947,-0.0119853,2.44675,-0.318814,2.43517,2.72011,-11.6598,24.4241,-0.271599,18.2445,-3.42422,18.2685,-30.9002,10.0969,2.46716,-0.143176,0.100037,-0.00515684,0.0539138,-1.89425,0.216984,0.0573067,0.00948233,0.120158,-0.0740689,0.211382,-0.120214,0.126663,0.832099,-0.00140009,0,0,0,0,0,0,0,9.08466,-29.8528,8.81227,14.0256,3.00628,-0.713266,0.0843355,
0.10349,-0.00720149,0.0573796,-1.90005,0.232041,0.0728898,0.00915073,0.12963,-0.0830142,0.129934,-0.264454,0.736354,0.502066,-0.0117492,1.93372,1.01017,1.92985,0.155239,6.04906,13.1998,0.147562,17.7448,-3.43788,17.7677,-30.4838,10.0969,3.39404,-0.12067,0.100037,-0.00515684,0.0539138,-1.89425,0.216984,0.0573067,0.00948233,0.120158,-0.0740689,0.211382,-0.120214,0.126663,0.832099,-0.00140009,0,0,0,0,0,0,0,9.08466,-29.8528,8.81227,14.0256,3.00628,-0.713266,0.0843355,
0.104641,-0.00773283,0.0585338,-1.90222,0.23887,0.0773822,0.00908361,0.132498,-0.0796948,0.132802,-0.265995,0.759797,0.513964,-0.0110772,1.79284,2.07462,1.79308,-0.962815,14.6521,7.4357,0.419975,17.2825,-3.3724,17.3043,-30.0561,10.0969,4.12528,-0.0991671,0.100037,-0.00515684,0.0539138,-1.89425,0.216984,0.0573067,0.00948233,0.120158,-0.0740689,0.211382,-0.120214,0.126663,0.832099,-0.00140009,0,0,0,0,0,0,0,9.08466,-29.8528,8.81227,14.0256,3.00628,-0.713266,0.0843355,
0.104457,-0.00800089,0.0599761,-1.90273,0.228641,0.102471,0.00929188,0.128795,-0.0843072,0.129109,-0.25913,0.734015,0.557139,-0.0111146,-2.31464,-2.88276,-2.30841,4.29036,-16.114,26.9846,-0.0233709,17.7634,-3.32543,17.7912,-30.6818,10.1095,3.24034,-0.119676,0.102648,-0.00627281,0.0581565,-1.89932,0.220147,0.0900844,0.00949729,0.0966511,-0.097171,0.14547,-0.087226,0.0971595,0.906614,0.00119263,-2.93834,-2.88776,-8.23902,4.12353,-3.68793,9.31444,0.324091,4.89917,-40.4613,5.03541,26.5781,2.1878,1.79986,-0.0566557,
0.10541,-0.0087084,0.0609322,-1.90472,0.234696,0.107822,0.00922395,0.126865,-0.0851337,0.12719,-0.257174,0.73857,0.579491,-0.01059,-1.20639,-0.51656,-1.19939,1.22259,2.84671,13.97,0.327884,17.3011,-3.25995,17.3278,-30.2541,10.1095,3.97158,-0.0981729,0.102648,-0.00627281,0.0581565,-1.89932,0.220147,0.0900844,0.00949729,0.0966511,-0.097171,0.14547,-0.087226,0.0971595,0.906614,0.00119263,0,0,0,0,0,0,0,4.89917,-40.4613,5.03541,26.5781,2.1878,1.79986,-0.0566557,
0.106412,-0.00930937,0.0619367,-1.9068,0.241402,0.112872,0.00917407,0.126528,-0.083131,0.126864,-0.257594,0.758506,0.589828,-0.00971884,-0.2103,1.25169,-0.203444,-0.262799,12.4602,6.46081,0.544484,16.8706,-3.13952,16.8962,-29.8181,10.1095,4.51426,-0.0777586,0.102648,-0.00627281,0.0581565,-1.89932,0.220147,0.0900844,0.00949729,0.0966511,-0.097171,0.14547,-0.087226,0.0971595,0.906614,0.00119263,0,0,0,0,0,0,0,4.89917,-40.4613,5.03541,26.5781,2.1878,1.79986,-0.0566557,
0.107458,-0.00981842,0.062986,-1.90892,0.248537,0.117735,0.00913978,0.127377,-0.0792312,0.127723,-0.259051,0.785202,0.593435,-0.00863235,0.530342,2.43739,0.53648,-0.910254,16.685,2.25398,0.679057,16.4654,-2.98448,16.4901,-29.3774,10.1095,4.91833,-0.0584798,0.102648,-0.00627281,0.0581565,-1.89932,0.220147,0.0900844,0.00949729,0.0966511,-0.097171,0.14547,-0.087226,0.0971595,0.906614,0.00119263,0,0,0,0,0,0,0,4.89917,-40.4613,5.03541,26.5781,2.1878,1.79986,-0.0566557,
0.10444,-0.00798295,0.0599588,-1.90273,0.228667,0.102896,0.0093246,0.12442,-0.0836065,0.124764,-0.2534,0.754686,0.626819,-0.00875283,-1.84767,-2.73457,-1.84918,3.53179,-19.0723,20.8655,-0.0752959,17.2881,-3.2498,17.3169,-30.2676,10.1116,3.89062,-0.0982823,0.107069,-0.00653909,0.0643322,-1.90365,0.227358,0.11672,0.00948651,0.126138,-0.0029058,0.200658,-0.0847585,0.206326,0.726551,0.000907549,3.68589,11.7831,6.89855,0.308447,13.6458,-22.5079,-0.0356357,10.2748,-35.1689,9.61366,17.6874,3.61053,-0.434946,0.00376909,
0.105378,-0.00867239,0.0608992,-1.9047,0.234735,0.108502,0.00927191,0.122976,-0.0841213,0.123322,-0.252089,0.755447,0.641607,-0.0083193,-0.902692,-0.321737,-0.901561,0.819136,0.475686,9.242,0.270951,16.8575,-3.12937,16.8854,-29.8316,10.1116,4.4333,-0.077868,0.107069,-0.00653909,0.0643322,-1.90365,0.227358,0.11672,0.00948651,0.126138,-0.0029058,0.200658,-0.0847585,0.206326,0.726551,0.000907549,0,0,0,0,0,0,0,10.2748,-35.1689,9.61366,17.6874,3.61053,-0.434946,0.00376909,
0.10636,-0.00925347,0.0618843,-1.90675,0.241454,0.113783,0.00923636,0.122935,-0.0818239,0.123285,-0.25277,0.77232,0.645308,-0.00754443,-0.0256061,1.43584,-0.0231366,-0.425569,10.5454,2.31327,0.484296,16.4524,-2.97432,16.4792,-29.3909,10.1116,4.83737,-0.0585892,0.107069,-0.00653909,0.0643322,-1.90365,0.227358,0.11672,0.00948651,0.126138,-0.0029058,0.200658,-0.0847585,0.206326,0.726551,0.000907549,0,0,0,0,0,0,0,10.2748,-35.1689,9.61366,17.6874,3.61053,-0.434946,0.00376909,
0.107384,-0.00974309,0.0629113,-1.90883,0.248601,0.118842,0.00921549,0.123948,-0.0776998,0.124302,-0.254282,0.796531,0.642725,-0.00655725,0.633376,2.57761,0.636102,-0.945085,15.1318,-1.61404,0.616989,16.069,-2.80185,16.0948,-28.9487,10.1116,5.10726,-0.0403969,0.107069,-0.00653909,0.0643322,-1.90365,0.227358,0.11672,0.00948651,0.126138,-0.0029058,0.200658,-0.0847585,0.206326,0.726551,0.000907549,0,0,0,0,0,0,0,10.2748,-35.1689,9.61366,17.6874,3.61053,-0.434946,0.00376909,
0.10933,-0.00741596,0.0666046,-1.90746,0.237178,0.128147,0.00933073,0.126824,-0.0735262,0.12717,-0.254649,0.777885,0.652065,-0.00683294,1.79712,2.60849,1.79206,-0.229251,-11.6539,5.8373,-0.172305,16.8575,-3.12937,16.8854,-29.8316,10.1116,4.4333,-0.077868,0.107069,-0.00653909,0.0643322,-1.90365,0.227358,0.11672,0.00948651,0.126138,-0.0029058,0.200658,-0.0847585,0.206326,0.726551,0.000907549,0,0,0,0,0,0,0,10.2748,-35.1689,9.61366,17.6874,3.61053,-0.434946,0.00376909,
0.110427,-0.00782895,0.0677044,-1.9096,0.243671,0.133314,0.00928937,0.128891,-0.0691458,0.129232,-0.257063,0.78463,0.650818,-0.00650033,1.29211,2.73774,1.28885,-1.50849,4.21562,-0.779521,0.207878,16.4738,-2.95822,16.5085,-29.499,10.1324,4.72004,-0.0581371,0.110959,-0.00821168,0.0701802,-1.90867,0.23099,0.144277,0.00949487,0.0981585,0.0122927,0.197514,-0.127794,0.226775,0.733966,-0.000105081,-3.49746,1.89982,-0.393049,-5.37943,2.55618,0.926884,-0.126579,5.02613,-30.9755,4.61091,12.9028,0.813595,-0.965036,-0.0301054,
0.111532,-0.00819054,0.0688115,-1.91176,0.250708,0.138236,0.00926518,0.130724,-0.0643562,0.131063,-0.259691,0.803614,0.643713,-0.00580495,1.14577,2.99349,1.14457,-1.6424,11.8653,-4.44038,0.434614,16.0904,-2.78574,16.1241,-29.0568,10.1324,4.98993,-0.0399448,0.110959,-0.00821168,0.0701802,-1.90867,0.23099,0.144277,0.00949487,0.0981585,0.0122927,0.197514,-0.127794,0.226775,0.733966,-0.000105081,0,0,0,0,0,0,0,5.02613,-30.9755,4.61091,12.9028,0.813595,-0.965036,-0.0301054,
0.112648,-0.00850462,0.0699303,-1.91392,0.258092,0.142987,0.00925558,0.132481,-0.0593371,0.132819,-0.261915,0.827506,0.633737,-0.00488417,1.09788,3.13694,1.09753,-1.39037,14.9322,-6.235,0.57549,15.7246,-2.60853,15.7573,-28.6158,10.1324,5.1689,-0.0228626,0.110959,-0.00821168,0.0701802,-1.90867,0.23099,0.144277,0.00949487,0.0981585,0.0122927,0.197514,-0.127794,0.226775,0.733966,-0.000105081,0,0,0,0,0,0,0,5.02613,-30.9755,4.61091,12.9028,0.813595,-0.965036,-0.0301054,
0.113774,-0.00877784,0.0710593,-1.91608,0.265703,0.147611,0.00925918,0.134145,-0.0543002,0.134483,-0.263526,0.852277,0.622606,-0.00381717,1.03969,3.14806,1.03958,-1.00669,15.4821,-6.95723,0.666874,15.3739,-2.4362,15.4056,-28.1785,10.1324,5.26054,-0.00668399,0.110959,-0.00821168,0.0701802,-1.90867,0.23099,0.144277,0.00949487,0.0981585,0.0122927,0.197514,-0.127794,0.226775,0.733966,-0.000105081,0,0,0,0,0,0,0,5.02613,-30.9755,4.61091,12.9028,0.813595,-0.965036,-0.0301054,
0.113047,-0.00878744,0.0722849,-1.9127,0.240858,0.155612,0.00937147,0.133069,-0.0512459,0.13343,-0.263899,0.822474,0.634703,-0.00424743,-0.672354,1.90891,-0.658023,-0.233139,-18.6268,7.56092,-0.268917,16.4806,-2.94278,16.5226,-29.5916,10.1485,4.60815,-0.0574639,0.113832,-0.00966352,0.0752498,-1.9141,0.234683,0.171465,0.00949263,0.0924609,-0.00219663,0.188848,-0.189059,0.169213,0.68065,-0.00156614,-0.712209,-1.81117,-1.0832,-7.65812,-7.19532,-6.66456,-0.182633,3.53046,-28.8054,3.18666,15.3943,0.990292,-1.17744,-0.00996382,
0.11408,-0.00908174,0.0733214,-1.91487,0.24733,0.160727,0.00934468,0.132284,-0.0483545,0.132657,-0.265521,0.81976,0.635646,-0.0040676,-0.490614,1.80719,-0.48264,-1.01394,-1.69671,0.589293,0.112396,16.0972,-2.77031,16.1383,-29.1494,10.1485,4.87804,-0.0392716,0.113832,-0.00966352,0.0752498,-1.9141,0.234683,0.171465,0.00949263,0.0924609,-0.00219663,0.188848,-0.189059,0.169213,0.68065,-0.00156614,0,0,0,0,0,0,0,3.53046,-28.8054,3.18666,15.3943,0.990292,-1.17744,-0.00996382,
0.115129,-0.00934618,0.0743736,-1.91706,0.254336,0.165587,0.00933421,0.132049,-0.0452945,0.132432,-0.267022,0.830965,0.630009,-0.00351585,-0.14657,1.91248,-0.141144,-0.937733,7.00331,-3.52289,0.344847,15.7315,-2.5931,15.7715,-28.7084,10.1485,5.05701,-0.0221894,0.113832,-0.00966352,0.0752498,-1.9141,0.234683,0.171465,0.00949263,0.0924609,-0.00219663,0.188848,-0.189059,0.169213,0.68065,-0.00156614,0,0,0,0,0,0,0,3.53046,-28.8054,3.18666,15.3943,0.990292,-1.17744,-0.00996382,
0.116195,-0.00958131,0.0754437,-1.91923,0.261689,0.170262,0.0093378,0.132309,-0.0421138,0.132697,-0.268027,0.848596,0.620882,-0.0027229,0.162262,1.98794,0.165742,-0.628172,11.0195,-5.70451,0.495591,15.3808,-2.42077,15.4197,-28.2711,10.1485,5.14865,-0.00601082,0.113832,-0.00966352,0.0752498,-1.9141,0.234683,0.171465,0.00949263,0.0924609,-0.00219663,0.188848,-0.189059,0.169213,0.68065,-0.00156614,0,0,0,0,0,0,0,3.53046,-28.8054,3.18666,15.3943,0.990292,-1.17744,-0.00996382,
0.118577,-0.0095673,0.0826757,-1.92551,0.254692,0.198441,0.00941113,0.130518,-0.033623,0.130949,-0.274853,0.831768,0.598699,-0.00285069,-1.11925,5.30672,-1.09264,-4.2666,-10.5175,-13.8646,-0.0798654,16.1492,-2.77388,16.1919,-29.1715,10.1683,4.83244,-0.0397886,0.11662,-0.00965629,0.080703,-1.92076,0.243457,0.190323,0.0094881,0.0946737,0.0511834,0.156213,-0.219716,0.422625,0.442801,-0.000683598,0.276605,6.6725,-4.07942,-3.83219,31.6765,-29.7312,0.110318,5.12928,-25.6593,5.13856,19.7781,2.5238,-1.03828,0.0303194,
0.11959,-0.00959254,0.0836929,-1.9279,0.26143,0.202498,0.00940172,0.129737,-0.0275295,0.13019,-0.279756,0.833865,0.580381,-0.00251569,-0.487954,3.80846,-0.474176,-3.06418,1.31037,-11.4486,0.209374,15.7835,-2.59667,15.8251,-28.7305,10.1683,5.01141,-0.0227064,0.11662,-0.00965629,0.080703,-1.92076,0.243457,0.190323,0.0094881,0.0946737,0.0511834,0.156213,-0.219716,0.422625,0.442801,-0.000683598,0,0,0,0,0,0,0,5.12928,-25.6593,5.13856,19.7781,2.5238,-1.03828,0.0303194,
0.120629,-0.00963135,0.0847361,-1.93025,0.268575,0.206533,0.0094066,0.129768,-0.0229938,0.130231,-0.282568,0.845708,0.565193,-0.00189071,0.0189383,2.83482,0.0257509,-1.75783,7.40214,-9.49228,0.390613,15.4328,-2.42435,15.4734,-28.2932,10.1683,5.10305,-0.00652777,0.11662,-0.00965629,0.080703,-1.92076,0.243457,0.190323,0.0094881,0.0946737,0.0511834,0.156213,-0.219716,0.422625,0.442801,-0.000683598,0,0,0,0,0,0,0,5.12928,-25.6593,5.13856,19.7781,2.5238,-1.03828,0.0303194,
0.121689,-0.00967882,0.0858005,-1.93256,0.275993,0.210549,0.00942541,0.130327,-0.0195817,0.130795,-0.283624,0.862015,0.55254,-0.00104217,0.34988,2.13255,0.352289,-0.659802,10.1919,-7.90815,0.530333,15.0936,-2.26308,15.1332,-27.8617,10.1683,5.14569,0.00908912,0.11662,-0.00965629,0.080703,-1.92076,0.243457,0.190323,0.0094881,0.0946737,0.0511834,0.156213,-0.219716,0.422625,0.442801,-0.000683598,0,0,0,0,0,0,0,5.12928,-25.6593,5.13856,19.7781,2.5238,-1.03828,0.0303194,
0.12215,-0.00793617,0.0879969,-1.93194,0.262686,0.212667,0.00942352,0.131941,-0.00918216,0.132423,-0.290343,0.836816,0.536229,-0.00135625,1.00871,6.49971,1.01789,-4.19955,-15.7492,-10.1944,-0.196297,15.7348,-2.5325,15.7732,-28.7269,10.1486,5.00094,-0.0222291,0.119893,-0.00863014,0.0857236,-1.92697,0.252137,0.205253,0.00949486,0.125642,0.12257,0.194594,-0.200385,0.301886,0.349077,-0.00062942,3.87101,8.92339,4.79765,2.41641,-15.0924,-11.7155,0.0067722,6.14093,-32.5981,5.76143,27.9507,1.90033,0.533682,-0.0301054,
0.123244,-0.00776001,0.0890939,-1.93443,0.269311,0.216442,0.0094228,0.132885,-0.00294177,0.133364,-0.294617,0.835063,0.523374,-0.001103,0.589534,3.90025,0.587716,-2.67103,-1.09607,-8.03427,0.158283,15.3841,-2.36017,15.4215,-28.2896,10.1486,5.09258,-0.00605049,0.119893,-0.00863014,0.0857236,-1.92697,0.252137,0.205253,0.00949486,0.125642,0.12257,0.194594,-0.200385,0.301886,0.349077,-0.00062942,0,0,0,0,0,0,0,6.14093,-32.5981,5.76143,27.9507,1.90033,0.533682,-0.0301054,
0.124335,-0.00763775,0.0901891,-1.93686,0.2764,0.220217,0.00943874,0.133602,0.000703104,0.134071,-0.296293,0.845277,0.513068,-0.000483965,0.448424,2.27804,0.442073,-1.04759,6.38396,-6.44135,0.386895,15.0449,-2.1989,15.0813,-27.858,10.1486,5.13523,0.0095664,0.119893,-0.00863014,0.0857236,-1.92697,0.252137,0.205253,0.00949486,0.125642,0.12257,0.194594,-0.200385,0.301886,0.349077,-0.00062942,0,0,0,0,0,0,0,6.14093,-32.5981,5.76143,27.9507,1.90033,0.533682,-0.0301054,
0.125429,-0.00755577,0.0912855,-1.93921,0.283787,0.223992,0.00946787,0.134212,0.00261188,0.134667,-0.295909,0.8609,0.504828,0.000341184,0.381007,1.19299,0.372303,0.239952,9.7644,-5.14993,0.515718,14.7094,-2.05199,14.7449,-27.4346,10.1486,5.13239,0.0262673,0.119893,-0.00863014,0.0857236,-1.92697,0.252137,0.205253,0.00949486,0.125642,0.12257,0.194594,-0.200385,0.301886,0.349077,-0.00062942,0,0,0,0,0,0,0,6.14093,-32.5981,5.76143,27.9507,1.90033,0.533682,-0.0301054,
0.126531,-0.00750641,0.0923907,-1.94149,0.291181,0.22776,0.00951254,0.134925,0.00332359,0.135364,-0.293782,0.873577,0.49805,0.00138972,0.445522,0.444815,0.435569,1.32953,7.92291,-4.23629,0.655337,14.3614,-1.87802,14.3835,-27.0357,10.1222,5.10023,0.0412584,0.123628,-0.00556256,0.0909809,-1.93386,0.259027,0.212551,0.00949346,0.0974033,0.0731347,0.145159,-0.238803,0.188096,0.106103,-8.36744e-06,-3.52982,-6.17948,-6.1794,-4.80225,-14.2238,-30.3717,0.0776316,0.689884,-35.6688,0.762648,28.3713,2.08984,1.22948,-0.0301054,
0.125473,-0.00513524,0.0928367,-1.93903,0.268324,0.217657,0.00945903,0.131107,0.00707595,0.131536,-0.300191,0.832508,0.469335,0.00101875,-2.38575,2.34523,-2.39233,-4.00579,-25.6681,-17.9469,-0.231856,15.4019,-2.31974,15.4265,-28.303,10.1407,5.08909,-0.0055894,0.123628,-0.00556256,0.0909809,-1.93386,0.259027,0.212551,0.00949346,0.0974033,0.0731347,0.145159,-0.238803,0.188096,0.106103,-8.36744e-06,0,0,0,0,0,0,0,0.689884,-35.6688,0.762648,28.3713,2.08984,1.22948,-0.0301054,
0.126423,-0.00498756,0.0937898,-1.94156,0.274536,0.220803,0.00947478,0.128644,0.00935267,0.129057,-0.303507,0.821314,0.454114,0.00120873,-1.53934,1.42295,-1.54959,-2.07235,-6.99634,-9.51309,0.118738,15.0628,-2.15847,15.0863,-27.8714,10.1407,5.13174,0.0100275,0.123628,-0.00556256,0.0909809,-1.93386,0.259027,0.212551,0.00949346,0.0974033,0.0731347,0.145159,-0.238803,0.188096,0.106103,-8.36744e-06,0,0,0,0,0,0,0,0.689884,-35.6688,0.762648,28.3713,2.08984,1.22948,-0.0301054,
0.127399,-0.00486443,0.0947684,-1.94401,0.281307,0.224148,0.0095046,0.127316,0.0105605,0.127709,-0.303975,0.826316,0.446917,0.00171231,-0.830506,0.754879,-0.842318,-0.292619,3.12653,-4.4981,0.314735,14.7273,-2.01156,14.7499,-27.448,10.1407,5.1289,0.0267284,0.123628,-0.00556256,0.0909809,-1.93386,0.259027,0.212551,0.00949346,0.0974033,0.0731347,0.145159,-0.238803,0.188096,0.106103,-8.36744e-06,0,0,0,0,0,0,0,0.689884,-35.6688,0.762648,28.3713,2.08984,1.22948,-0.0301054,
0.128406,-0.00476736,0.0957772,-1.94636,0.288259,0.22762,0.00955015,0.127014,0.0108752,0.127388,-0.302076,0.834869,0.444339,0.00250873,-0.188802,0.196681,-0.200717,1.18691,5.34533,-1.61132,0.497761,14.3845,-1.87015,14.3935,-26.981,10.1146,5.1494,0.0409973,0.127175,-0.0026846,0.0963646,-1.9411,0.265329,0.214175,0.00949298,0.118362,0.00611474,0.169914,-0.216324,0.284249,0.0283151,0.00103458,2.61978,-8.37749,3.09446,2.80988,12.0192,-9.72344,0.130368,2.92347,-43.0321,3.06367,32.2354,3.0365,2.42974,-0.0227812,
0.129303,-0.00291565,0.098499,-1.94593,0.275706,0.218727,0.00948206,0.127972,0.00616994,0.12829,-0.302873,0.813486,0.421529,0.00221309,0.599186,-2.94077,0.563795,-0.49825,-13.3639,-14.2562,-0.184773,15.0859,-2.1506,15.0963,-27.8167,10.1331,5.1809,0.00976635,0.127175,-0.0026846,0.0963646,-1.9411,0.265329,0.214175,0.00949298,0.118362,0.00611474,0.169914,-0.216324,0.284249,0.0283151,0.00103458,0,0,0,0,0,0,0,2.92347,-43.0321,3.06367,32.2354,3.0365,2.42974,-0.0227812,
0.130355,-0.00297431,0.0995517,-1.94832,0.282295,0.221778,0.009508,0.128672,0.00346935,0.128948,-0.30223,0.815503,0.413507,0.00241877,0.437219,-1.68787,0.411653,0.401909,1.26054,-5.01406,0.128547,14.7504,-2.00369,14.7599,-27.3932,10.1331,5.17806,0.0264672,0.127175,-0.0026846,0.0963646,-1.9411,0.265329,0.214175,0.00949298,0.118362,0.00611474,0.169914,-0.216324,0.284249,0.0283151,0.00103458,0,0,0,0,0,0,0,2.92347,-43.0321,3.06367,32.2354,3.0365,2.42974,-0.0227812,
0.131418,-0.00300728,0.100616,-1.95064,0.289175,0.225079,0.0095512,0.129517,0.00195129,0.129766,-0.29976,0.824418,0.413334,0.00301501,0.527927,-0.948784,0.510945,1.54416,5.57194,-0.107968,0.372654,14.3845,-1.87015,14.3935,-26.981,10.1146,5.1494,0.0409973,0.127175,-0.0026846,0.0963646,-1.9411,0.265329,0.214175,0.00949298,0.118362,0.00611474,0.169914,-0.216324,0.284249,0.0283151,0.00103458,0,0,0,0,0,0,0,2.92347,-43.0321,3.06367,32.2354,3.0365,2.42974,-0.0227812,
0.132492,-0.00303167,0.101691,-1.95289,0.296094,0.228535,0.0096049,0.130461,0.00095118,0.130688,-0.295948,0.832503,0.41706,0.00375463,0.590595,-0.625069,0.576186,2.38198,5.05294,2.32855,0.462257,13.9822,-1.74783,13.9782,-26.5213,9.46651,5.14106,0.0567534,0.131022,-6.23585e-05,0.101511,-1.94772,0.268913,0.214198,0.00950141,0.115922,0.0328059,0.186005,-0.167731,0.135381,0.012292,0.0033995,-0.304952,3.33639,2.0113,6.07418,-18.6086,-2.00288,0.295616,5.83942,-42.8575,5.61067,36.1432,2.41943,2.75475,-0.0905302,
0.133145,-0.000183119,0.103636,-1.95241,0.278244,0.218964,0.00950039,0.130372,-0.000816209,0.130523,-0.296921,0.801787,0.402392,0.00338051,-0.0559187,-1.10462,-0.102941,-0.607687,-19.1972,-9.16717,-0.233822,14.7364,-2.00512,14.7331,-27.3351,10.1242,5.2199,0.0264461,0.131022,-6.23585e-05,0.101511,-1.94772,0.268913,0.214198,0.00950141,0.115922,0.0328059,0.186005,-0.167731,0.135381,0.012292,0.0033995,0,0,0,0,0,0,0,5.83942,-42.8575,5.61067,36.1432,2.41943,2.75475,-0.0905302,
0.134179,-0.000215161,0.10467,-1.95476,0.2844,0.222084,0.0095387,0.130159,-0.00145402,0.130267,-0.296456,0.795318,0.399914,0.00366194,-0.133375,-0.398631,-0.159935,0.290747,-4.04341,-1.54878,0.17589,14.3705,-1.87158,14.3666,-26.9229,10.1058,5.19123,0.0409762,0.131022,-6.23585e-05,0.101511,-1.94772,0.268913,0.214198,0.00950141,0.115922,0.0328059,0.186005,-0.167731,0.135381,0.012292,0.0033995,0,0,0,0,0,0,0,5.83942,-42.8575,5.61067,36.1432,2.41943,2.75475,-0.0905302,
0.135219,-0.000229363,0.10571,-1.95705,0.290853,0.225422,0.00959,0.130132,-0.00151827,0.130213,-0.2942,0.79758,0.403388,0.00421225,-0.0168854,-0.0401571,-0.0340671,1.40959,1.41344,2.17113,0.343948,13.9822,-1.74783,13.9782,-26.5213,9.46651,5.14106,0.0567534,0.131022,-6.23585e-05,0.101511,-1.94772,0.268913,0.214198,0.00950141,0.115922,0.0328059,0.186005,-0.167731,0.135381,0.012292,0.0033995,0,0,0,0,0,0,0,5.83942,-42.8575,5.61067,36.1432,2.41943,2.75475,-0.0905302,
0.136264,-0.00023845,0.106755,-1.95926,0.297376,0.228887,0.00965109,0.13023,-0.00144178,0.130286,-0.290587,0.801157,0.409341,0.00489701,0.0613968,0.0478048,0.0456614,2.25836,2.23563,3.72073,0.427975,13.5316,-1.63917,13.5269,-26.1477,8.92275,5.06852,0.0674341,0.131022,-6.23585e-05,0.101511,-1.94772,0.268913,0.214198,0.00950141,0.115922,0.0328059,0.186005,-0.167731,0.135381,0.012292,0.0033995,0,0,0,0,0,0,0,5.83942,-42.8575,5.61067,36.1432,2.41943,2.75475,-0.0905302,
0.137309,-0.000249348,0.107799,-1.9614,0.303819,0.232412,0.00971963,0.130306,-0.00142587,0.130335,-0.286018,0.801978,0.415587,0.00563114,0.047625,0.00994498,0.0306295,2.85523,0.513176,3.90352,0.458828,13.0443,-1.59004,13.0341,-25.7474,8.46022,4.99764,0.0775471,0.134754,0.000639904,0.106753,-1.95408,0.272722,0.213973,0.00949361,0.0767549,0.0517696,0.131026,-0.11305,0.16117,0.0126318,0.00017375,-4.89587,2.37047,-6.87238,6.83505,3.22372,0.0424747,-0.403219,1.37622,-42.0323,1.36171,29.7678,1.87011,2.4096,0.0101778,
0.136372,0.000536635,0.108376,-1.95848,0.281881,0.219263,0.00952729,0.124858,-0.00288492,0.124886,-0.286114,0.771583,0.407858,0.00537031,-3.40506,-0.911907,-3.40568,-0.0598339,-18.9966,-4.83059,-0.163019,14.3542,-1.95984,14.3467,-26.8978,10.0861,5.21362,0.0408669,0.134754,0.000639904,0.106753,-1.95408,0.272722,0.213973,0.00949361,0.0767549,0.0517696,0.131026,-0.11305,0.16117,0.0126318,0.00017375,0,0,0,0,0,0,0,1.37622,-42.0323,1.36171,29.7678,1.87011,2.4096,0.0101778,
0.137238,0.00048869,0.109242,-1.96074,0.287673,0.222608,0.00957855,0.121533,-0.00350657,0.121561,-0.285584,0.762056,0.409913,0.00557777,-2.07789,-0.388531,-2.07765,0.331548,-5.95431,1.28437,0.129664,13.9659,-1.8361,13.9583,-26.4962,9.4468,5.16344,0.0566442,0.134754,0.000639904,0.106753,-1.95408,0.272722,0.213973,0.00949361,0.0767549,0.0517696,0.131026,-0.11305,0.16117,0.0126318,0.00017375,0,0,0,0,0,0,0,1.37622,-42.0323,1.36171,29.7678,1.87011,2.4096,0.0101778,
0.138141,0.000458181,0.110145,-1.96295,0.293724,0.22612,0.00964045,0.119787,-0.00356799,0.119811,-0.283612,0.760928,0.415732,0.00600969,-1.09116,-0.0383852,-1.09437,1.23225,-0.704989,3.6368,0.269949,13.5154,-1.72743,13.5071,-26.1226,8.90305,5.0909,0.0673248,0.134754,0.000639904,0.106753,-1.95408,0.272722,0.213973,0.00949361,0.0767549,0.0517696,0.131026,-0.11305,0.16117,0.0126318,0.00017375,0,0,0,0,0,0,0,1.37622,-42.0323,1.36171,29.7678,1.87011,2.4096,0.0101778,
0.13907,0.000435377,0.111074,-1.96509,0.299823,0.229707,0.00970992,0.119062,-0.00342448,0.119072,-0.280401,0.76121,0.422262,0.0065444,-0.453175,0.08969,-0.46153,2.00716,0.176324,4.08121,0.334197,13.0426,-1.63182,13.028,-25.6955,8.45578,5.03471,0.0773857,0.137666,0.00142358,0.112135,-1.95946,0.275368,0.213658,0.00948844,0.0883295,0.0392502,0.166579,-0.0977738,0.118761,0.0499828,-0.00349348,1.44682,-1.56493,4.44417,1.90956,-5.30118,4.66888,-0.458404,-0.655026,-32.3482,-0.463243,20.9009,1.60736,1.48858,0.0706026,
0.14002,0.000413674,0.112023,-1.96716,0.305708,0.233298,0.00977976,0.119011,-0.00328216,0.118999,-0.276094,0.756099,0.427566,0.00698155,-0.0319436,0.0889519,-0.0459386,2.6914,-3.19458,3.31549,0.27322,12.5311,-1.46827,12.514,-25.3203,7.97676,4.91723,0.0856803,0.137666,0.00142358,0.112135,-1.95946,0.275368,0.213658,0.00948844,0.0883295,0.0392502,0.166579,-0.0977738,0.118761,0.0499828,-0.00349348,0,0,0,0,0,0,0,-0.655026,-32.3482,-0.463243,20.9009,1.60736,1.48858,0.0706026,
0.13951,0.00116755,0.113983,-1.96366,0.283945,0.219264,0.00953291,0.118137,-0.00610764,0.118095,-0.275936,0.727944,0.420487,0.00656811,-0.546323,-1.76593,-0.564924,0.0989091,-17.5971,-4.42448,-0.258402,13.9642,-1.87788,13.9522,-26.4443,9.44237,5.20051,0.0564828,0.137666,0.00142358,0.112135,-1.95946,0.275368,0.213658,0.00948844,0.0883295,0.0392502,0.166579,-0.0977738,0.118761,0.0499828,-0.00349348,0,0,0,0,0,0,0,-0.655026,-32.3482,-0.463243,20.9009,1.60736,1.48858,0.0706026,
0.140436,0.0010637,0.114908,-1.96585,0.289489,0.222676,0.00958928,0.117655,-0.00748243,0.117595,-0.275493,0.720938,0.421697,0.00666363,-0.301039,-0.859244,-0.312195,0.277192,-4.37816,0.755825,0.0597011,13.5137,-1.76921,13.501,-26.0707,8.89861,5.12796,0.0671634,0.137666,0.00142358,0.112135,-1.95946,0.275368,0.213658,0.00948844,0.0883295,0.0392502,0.166579,-0.0977738,0.118761,0.0499828,-0.00349348,0,0,0,0,0,0,0,-0.655026,-32.3482,-0.463243,20.9009,1.60736,1.48858,0.0706026,
0.141374,0.000989404,0.115845,-1.96799,0.295286,0.226211,0.00965582,0.117583,-0.00784339,0.117508,-0.273761,0.72169,0.425726,0.00699452,-0.0454332,-0.225598,-0.0544006,1.0824,0.469586,2.51828,0.206803,13.0464,-1.66848,13.0265,-25.6711,8.45651,5.05105,0.0773482,0.140117,0.00235981,0.117068,-1.96401,0.276279,0.214206,0.00948816,0.0558772,0.0338125,0.164436,-0.118189,0.0410906,0.0445911,-0.00108023,-4.05654,-0.679707,-0.267848,-2.55195,-9.70879,-0.673973,0.301656,4.87537,-32.8719,4.78547,22.2934,1.93145,1.26977,0.0303194,
0.142326,0.000932579,0.116796,-1.97005,0.300993,0.229776,0.00972397,0.117873,-0.00769533,0.117781,-0.270688,0.720022,0.429708,0.00729938,0.18148,0.0925379,0.170633,1.92027,-1.04252,2.48858,0.190537,12.5349,-1.50493,12.5125,-25.2959,7.97749,4.93357,0.0856428,0.140117,0.00235981,0.117068,-1.96401,0.276279,0.214206,0.00948816,0.0558772,0.0338125,0.164436,-0.118189,0.0410906,0.0445911,-0.00108023,0,0,0,0,0,0,0,4.87537,-32.8719,4.78547,22.2934,1.93145,1.26977,0.0303194,
0.1433,0.000883887,0.117769,-1.97204,0.306164,0.233313,0.00979333,0.118643,-0.00737356,0.118536,-0.266258,0.705289,0.432187,0.00757344,0.481267,0.201105,0.471494,2.76921,-9.20798,1.54985,0.171291,11.9797,-1.3108,11.9526,-24.9186,7.08058,4.771,0.0835599,0.140117,0.00235981,0.117068,-1.96401,0.276279,0.214206,0.00948816,0.0558772,0.0338125,0.164436,-0.118189,0.0410906,0.0445911,-0.00108023,0,0,0,0,0,0,0,4.87537,-32.8719,4.78547,22.2934,1.93145,1.26977,0.0303194,
0.14175,0.00214633,0.118706,-1.96825,0.283669,0.219562,0.00955405,0.115401,-0.00869347,0.115274,-0.268129,0.67321,0.421105,0.00727724,-2.02623,-0.82494,-2.03844,-1.1696,-20.0492,-6.92612,-0.185123,13.5175,-1.80587,13.4995,-26.0463,8.89934,5.14431,0.0671259,0.140117,0.00235981,0.117068,-1.96401,0.276279,0.214206,0.00948816,0.0558772,0.0338125,0.164436,-0.118189,0.0410906,0.0445911,-0.00108023,0,0,0,0,0,0,0,4.87537,-32.8719,4.78547,22.2934,1.93145,1.26977,0.0303194,
0.142589,0.00207181,0.119544,-1.97043,0.288689,0.22286,0.00961795,0.113314,-0.0088179,0.113175,-0.268977,0.664073,0.41934,0.00741922,-1.30444,-0.0777715,-1.31168,-0.529703,-5.71098,-1.10316,0.0887342,13.0429,-1.70798,13.02,-25.6397,8.45877,5.07338,0.0772497,0.142473,0.00281595,0.121636,-1.9689,0.277037,0.215005,0.00948816,0.0699846,0.0596687,0.138909,-0.122039,0.0245366,0.0345461,-0.000624825,1.76342,3.23202,-3.19089,-0.481221,-2.06925,-1.25563,0.0569255,5.6847,-33.9232,5.46388,23.2892,1.90033,1.28899,0.0303194,
0.143455,0.00202556,0.120409,-1.97254,0.293872,0.226276,0.00968521,0.112306,-0.00821066,0.112157,-0.267907,0.660823,0.420864,0.00761689,-0.630039,0.379523,-0.636769,0.668317,-2.03106,0.952483,0.123545,12.5314,-1.54443,12.5061,-25.2645,7.97975,4.9559,0.0855444,0.142473,0.00281595,0.121636,-1.9689,0.277037,0.215005,0.00948816,0.0699846,0.0596687,0.138909,-0.122039,0.0245366,0.0345461,-0.000624825,0,0,0,0,0,0,0,5.6847,-33.9232,5.46388,23.2892,1.90033,1.28899,0.0303194,
0.144357,0.00199388,0.121308,-1.97456,0.298683,0.229718,0.00975433,0.112372,-0.00736048,0.112215,-0.264895,0.648949,0.422752,0.00782149,0.0413426,0.531365,0.0365811,1.88254,-7.42143,1.17989,0.127877,11.9761,-1.3503,11.9461,-24.8872,7.08284,4.79333,0.0834614,0.142473,0.00281595,0.121636,-1.9689,0.277037,0.215005,0.00948816,0.0699846,0.0596687,0.138909,-0.122039,0.0245366,0.0345461,-0.000624825,0,0,0,0,0,0,0,5.6847,-33.9232,5.46388,23.2892,1.90033,1.28899,0.0303194,
0.144029,0.00286181,0.123194,-1.97318,0.283895,0.220149,0.00957067,0.109445,-0.00590858,0.109267,-0.267468,0.620614,0.410667,0.00766347,-1.82938,0.907439,-1.84225,-1.60818,-17.709,-7.5533,-0.0987652,13.0429,-1.70798,13.02,-25.6397,8.45877,5.07338,0.0772497,0.142473,0.00281595,0.121636,-1.9689,0.277037,0.215005,0.00948816,0.0699846,0.0596687,0.138909,-0.122039,0.0245366,0.0345461,-0.000624825,0,0,0,0,0,0,0,5.6847,-33.9232,5.46388,23.2892,1.90033,1.28899,0.0303194,
0.144837,0.00287231,0.124,-1.97536,0.28845,0.223307,0.00963518,0.107747,-0.0044643,0.107555,-0.268414,0.610372,0.4075,0.00774334,-1.06115,0.902671,-1.06997,-0.59132,-6.40144,-1.97915,0.0499176,12.5315,-1.59067,12.5027,-25.2394,7.98046,4.97304,0.0854694,0.144964,0.00339303,0.124843,-1.97378,0.277483,0.215693,0.00948592,0.0683406,0.0425984,0.067817,-0.148616,0.00291449,0.0204765,-0.000896899,-0.20549,-2.1338,-8.88653,-3.32204,-2.70276,-1.75869,-0.0340092,-4.55883,-30.1781,-4.31151,22.3688,1.18621,1.37505,0.050461,
0.145685,0.00289177,0.124846,-1.97744,0.29284,0.22657,0.00970321,0.10739,-0.00308497,0.107193,-0.266848,0.598053,0.40757,0.00789555,-0.223058,0.862083,-0.226688,0.978856,-7.69922,0.0434625,0.0951349,11.9763,-1.39654,11.9427,-24.8621,7.08356,4.81048,0.0833864,0.144964,0.00339303,0.124843,-1.97378,0.277483,0.215693,0.00948592,0.0683406,0.0425984,0.067817,-0.148616,0.00291449,0.0204765,-0.000896899,0,0,0,0,0,0,0,-4.55883,-30.1781,-4.31151,22.3688,1.18621,1.37505,0.050461,
0.146569,0.00291018,0.125729,-1.97944,0.296747,0.229861,0.00976956,0.108024,-0.00200773,0.107822,-0.263359,0.576118,0.408319,0.00797523,0.395721,0.673276,0.392996,2.1805,-13.7093,0.468343,0.049795,11.4958,-1.15592,11.4579,-24.4496,5.42658,4.64223,0.0791238,0.144964,0.00339303,0.124843,-1.97378,0.277483,0.215693,0.00948592,0.0683406,0.0425984,0.067817,-0.148616,0.00291449,0.0204765,-0.000896899,0,0,0,0,0,0,0,-4.55883,-30.1781,-4.31151,22.3688,1.18621,1.37505,0.050461,
0.146141,0.00340505,0.126017,-1.97806,0.283366,0.220475,0.0095886,0.101827,-0.00167794,0.101629,-0.265631,0.547722,0.394839,0.00791039,-3.87275,0.20612,-3.8704,-1.41946,-17.7476,-8.4252,-0.0405198,12.5315,-1.59067,12.5027,-25.2394,7.98046,4.97304,0.0854694,0.144964,0.00339303,0.124843,-1.97378,0.277483,0.215693,0.00948592,0.0683406,0.0425984,0.067817,-0.148616,0.00291449,0.0204765,-0.000896899,0,0,0,0,0,0,0,-4.55883,-30.1781,-4.31151,22.3688,1.18621,1.37505,0.050461,
0.146829,0.00342301,0.126704,-1.98019,0.287012,0.223489,0.00965645,0.0986741,-0.000893389,0.098484,-0.265711,0.529319,0.391216,0.00802478,-1.97067,0.490343,-1.96556,-0.0504109,-11.5019,-2.26438,0.0714892,11.9808,-1.41345,11.9408,-24.819,7.09108,4.83803,0.0832359,0.147773,0.00446027,0.127876,-1.97871,0.277433,0.216369,0.00948475,0.0795584,0.0355182,0.079413,-0.163165,0.00595915,0.0187921,-0.00101664,1.40222,-0.885024,1.4495,-1.81869,0.380583,-0.210556,-0.0149672,-1.82141,-31.0271,-1.53838,25.0864,1.40594,1.24322,0.0577852,
0.147584,0.00345197,0.127457,-1.98223,0.290394,0.226631,0.00972342,0.0977962,9.31837e-06,0.0976119,-0.263464,0.508007,0.391519,0.00809388,-0.548724,0.564192,-0.545088,1.40473,-13.3204,0.189177,0.0431887,11.5004,-1.17283,11.4559,-24.4066,5.43411,4.66978,0.0789733,0.147773,0.00446027,0.127876,-1.97871,0.277433,0.216369,0.00948475,0.0795584,0.0355182,0.079413,-0.163165,0.00595915,0.0187921,-0.00101664,0,0,0,0,0,0,0,-1.82141,-31.0271,-1.53838,25.0864,1.40594,1.24322,0.0577852,
0.148391,0.00348089,0.128263,-1.98418,0.293295,0.229818,0.00978856,0.0984286,0.000730529,0.0982452,-0.259558,0.478935,0.392899,0.00810372,0.395262,0.450757,0.395818,2.4412,-18.1697,0.862662,0.00614897,11.123,-0.925839,11.0783,-23.9702,4.06272,4.4903,0.0736476,0.147773,0.00446027,0.127876,-1.97871,0.277433,0.216369,0.00948475,0.0795584,0.0355182,0.079413,-0.163165,0.00595915,0.0187921,-0.00101664,0,0,0,0,0,0,0,-1.82141,-31.0271,-1.53838,25.0864,1.40594,1.24322,0.0577852,
0.149088,0.00447171,0.129186,-1.98294,0.282486,0.220823,0.0095869,0.0957867,0.00063214,0.0955782,-0.26145,0.454943,0.378062,0.00800164,-1.65118,-0.0614932,-1.66689,-1.18251,-14.9952,-9.27287,-0.0637984,11.9808,-1.41345,11.9408,-24.819,7.09108,4.83803,0.0832359,0.147773,0.00446027,0.127876,-1.97871,0.277433,0.216369,0.00948475,0.0795584,0.0355182,0.079413,-0.163165,0.00595915,0.0187921,-0.00101664,0,0,0,0,0,0,0,-1.82141,-31.0271,-1.53838,25.0864,1.40594,1.24322,0.0577852,
0.149826,0.00449461,0.129922,-1.98502,0.285384,0.223664,0.00965084,0.0950981,0.0010781,0.0948785,-0.261151,0.436389,0.373474,0.00799999,-0.430382,0.278727,-0.43733,0.186759,-11.5959,-2.86754,-0.00103192,11.4957,-1.21229,11.4445,-24.3702,5.43752,4.69094,0.0788778,0.149611,0.0055555,0.130231,-1.98395,0.276111,0.216803,0.00948339,0.0253956,0.0125636,0.0460936,-0.161296,-0.0368561,0.00316416,0.00093274,-6.77035,-2.86932,-4.16492,0.233648,-5.3519,-1.95349,0.243672,-1.5675,-35.4427,-1.36382,31.3388,1.49749,2.8875,0.0303194,
0.150616,0.00452829,0.13071,-1.98701,0.287975,0.226646,0.00971452,0.0958265,0.00170464,0.0956001,-0.258707,0.413883,0.373335,0.00799181,0.455256,0.391587,0.451025,1.52773,-14.0664,-0.0871125,-0.00511196,11.1183,-0.965297,11.0668,-23.9338,4.06613,4.51147,0.0735521,0.149611,0.0055555,0.130231,-1.98395,0.276111,0.216803,0.00948339,0.0253956,0.0125636,0.0460936,-0.161296,-0.0368561,0.00316416,0.00093274,0,0,0,0,0,0,0,-1.5675,-35.4427,-1.36382,31.3388,1.49749,2.8875,0.0303194,
0.151447,0.00456202,0.131539,-1.98893,0.2901,0.229689,0.00977722,0.097437,0.00220677,0.0972034,-0.25478,0.384252,0.374734,0.00796092,1.00656,0.313832,1.00204,2.4541,-18.5196,0.874401,-0.019307,10.8567,-0.747362,10.8062,-23.4867,2.8859,4.34446,0.0702785,0.149611,0.0055555,0.130231,-1.98395,0.276111,0.216803,0.00948339,0.0253956,0.0125636,0.0460936,-0.161296,-0.0368561,0.00316416,0.00093274,0,0,0,0,0,0,0,-1.5675,-35.4427,-1.36382,31.3388,1.49749,2.8875,0.0303194,
0.150484,0.00539639,0.131104,-1.988,0.279351,0.221104,0.0095969,0.0902619,0.000129065,0.0900486,-0.255243,0.35442,0.362176,0.00794185,-4.48445,-1.29857,-4.47172,-0.289671,-18.645,-7.84882,-0.0119185,11.4957,-1.21229,11.4445,-24.3702,5.43752,4.69094,0.0788778,0.149611,0.0055555,0.130231,-1.98395,0.276111,0.216803,0.00948339,0.0253956,0.0125636,0.0460936,-0.161296,-0.0368561,0.00316416,0.00093274,0,0,0,0,0,0,0,-1.5675,-35.4427,-1.36382,31.3388,1.49749,2.8875,0.0303194,
0.151075,0.00537356,0.131694,-1.99,0.281228,0.22392,0.00966164,0.0869854,-0.000467421,0.0867854,-0.254105,0.330481,0.360122,0.00797195,-2.04782,-0.372804,-2.0395,0.711744,-14.9616,-1.28362,0.0188108,11.1183,-0.965297,11.0668,-23.9338,4.06613,4.51147,0.0735521,0.149611,0.0055555,0.130231,-1.98395,0.276111,0.216803,0.00948339,0.0253956,0.0125636,0.0460936,-0.161296,-0.0368561,0.00316416,0.00093274,0,0,0,0,0,0,0,-1.5675,-35.4427,-1.36382,31.3388,1.49749,2.8875,0.0303194,
0.151747,0.00537616,0.132364,-1.99192,0.282843,0.226889,0.00972571,0.0863798,-0.00030906,0.0861846,-0.251315,0.30476,0.362341,0.00797931,-0.378498,0.0989757,-0.375524,1.74327,-16.0756,1.38672,0.00460266,10.8642,-0.763635,10.8049,-23.4386,2.89868,4.37144,0.0701151,0.151399,0.00699109,0.132684,-1.98872,0.274538,0.216906,0.00948375,0.0364498,-0.000201611,0.073381,-0.139446,-0.0447728,-0.032467,0.00221166,1.38178,-1.59565,3.41091,2.73127,-0.989591,-4.45389,0.159865,5.78785,-37.2914,5.91218,32.4576,2.0047,3.23907,-0.0163725,
0.152482,0.00538891,0.133097,-1.99377,0.28407,0.229924,0.00978952,0.0874737,7.16283e-05,0.0872747,-0.247394,0.27448,0.365741,0.00797877,0.683727,0.23793,0.681339,2.45101,-18.9252,2.12503,-0.000338033,10.6968,-0.594521,10.639,-22.9928,1.88831,4.21877,0.0683345,0.151399,0.00699109,0.132684,-1.98872,0.274538,0.216906,0.00948375,0.0364498,-0.000201611,0.073381,-0.139446,-0.0447728,-0.032467,0.00221166,0,0,0,0,0,0,0,5.78785,-37.2914,5.91218,32.4576,2.0047,3.23907,-0.0163725,
0.152499,0.00666601,0.133783,-1.99255,0.276933,0.220852,0.0095896,0.0848001,-0.00343582,0.0845859,-0.24688,0.254204,0.351075,0.00786437,-1.67105,-2.19216,-1.68049,0.321285,-12.6728,-9.16605,-0.0714987,11.1259,-0.98157,11.0655,-23.8857,4.0789,4.53844,0.0733887,0.151399,0.00699109,0.132684,-1.98872,0.274538,0.216906,0.00948375,0.0364498,-0.000201611,0.073381,-0.139446,-0.0447728,-0.032467,0.00221166,0,0,0,0,0,0,0,5.78785,-37.2914,5.91218,32.4576,2.0047,3.23907,-0.0163725,
0.153167,0.00658506,0.134449,-1.99446,0.278255,0.223537,0.00965146,0.0845502,-0.00477241,0.0843234,-0.245407,0.236423,0.347995,0.00783799,-0.156151,-0.835367,-0.164069,0.920453,-11.1127,-1.92505,-0.0164911,10.8642,-0.763635,10.8049,-23.4386,2.89868,4.37144,0.0701151,0.151399,0.00699109,0.132684,-1.98872,0.274538,0.216906,0.00948375,0.0364498,-0.000201611,0.073381,-0.139446,-0.0447728,-0.032467,0.00221166,0,0,0,0,0,0,0,5.78785,-37.2914,5.91218,32.4576,2.0047,3.23907,-0.0163725,
0.153897,0.0065427,0.135177,-1.99632,0.279306,0.226396,0.00971416,0.0858912,-0.00487698,0.0856508,-0.24269,0.215412,0.349874,0.00783802,0.838131,-0.0653531,0.82963,1.69822,-13.1321,1.1742,2.03138e-05,10.6889,-0.629165,10.6256,-22.9498,1.8998,4.2413,0.0682212,0.152976,0.00787609,0.134462,-1.9938,0.270829,0.217012,0.00948188,0.0183096,-0.00484417,0.0272289,-0.135049,-0.139871,0.0114631,0.00030465,-2.26753,-0.580319,-5.76901,0.549534,-11.8873,5.49126,-0.238377,-2.1745,-35.4427,-1.8637,28.399,1.11297,2.79412,0.0101778,
0.154675,0.00652069,0.135952,-1.99812,0.279996,0.229335,0.00977718,0.0881536,-0.00445189,0.0878967,-0.239095,0.189568,0.353361,0.00784587,1.41401,0.265682,1.40366,2.24657,-16.1523,2.17948,0.00491056,10.5931,-0.513412,10.5311,-22.5105,1.03116,4.10593,0.0684629,0.152976,0.00787609,0.134462,-1.9938,0.270829,0.217012,0.00948188,0.0183096,-0.00484417,0.0272289,-0.135049,-0.139871,0.0114631,0.00030465,0,0,0,0,0,0,0,-2.1745,-35.4427,-1.8637,28.399,1.11297,2.79412,0.0101778,
0.153726,0.00753355,0.13521,-1.99747,0.271375,0.221325,0.00959217,0.0814716,-0.00721149,0.0812401,-0.238289,0.162971,0.344925,0.00780061,-4.17627,-1.72476,-4.16033,0.503691,-16.6236,-5.27262,-0.0282934,10.8564,-0.79828,10.7915,-23.3956,2.91016,4.39397,0.0700018,0.152976,0.00787609,0.134462,-1.9938,0.270829,0.217012,0.00948188,0.0183096,-0.00484417,0.0272289,-0.135049,-0.139871,0.0114631,0.00030465,0,0,0,0,0,0,0,-2.1745,-35.4427,-1.8637,28.399,1.11297,2.79412,0.0101778,
0.15427,0.00744755,0.135753,-1.99932,0.271812,0.224116,0.00965593,0.0787853,-0.00791927,0.0785641,-0.236853,0.141312,0.345725,0.00783463,-1.67897,-0.442362,-1.67255,0.897945,-13.5369,0.500396,0.0212631,10.6889,-0.629165,10.6256,-22.9498,1.8998,4.2413,0.0682212,0.152976,0.00787609,0.134462,-1.9938,0.270829,0.217012,0.00948188,0.0183096,-0.00484417,0.0272289,-0.135049,-0.139871,0.0114631,0.00030465,0,0,0,0,0,0,0,-2.1745,-35.4427,-1.8637,28.399,1.11297,2.79412,0.0101778,
0.154899,0.0074008,0.13638,-2.00111,0.27206,0.227048,0.00972028,0.0787541,-0.0075041,0.0785303,-0.234427,0.119233,0.349869,0.00787646,-0.0194754,0.259486,-0.0211311,1.51587,-13.7994,2.58974,0.0261435,10.6018,-0.560069,10.5385,-22.4581,1.05274,4.13063,0.0682904,0.155278,0.00802502,0.13688,-1.99906,0.26718,0.217234,0.00947833,0.064019,-0.00427718,0.0687158,-0.135277,-0.0741553,0.0120778,0.00143593,5.71367,0.0708731,5.18586,-0.0283971,8.2145,0.076838,0.14141,3.30432,-34.1731,3.46437,25.7092,1.31988,2.03881,0.00376909,
0.155593,0.00737499,0.137072,-2.00286,0.272039,0.230033,0.00978531,0.0803664,-0.00664869,0.0801294,-0.231278,0.0948776,0.354522,0.007927,1.00768,0.534626,0.999454,1.9682,-15.2219,2.90822,0.031592,10.5523,-0.495343,10.4903,-22.0289,0.32673,4.00822,0.0692327,0.155278,0.00802502,0.13688,-1.99906,0.26718,0.217234,0.00947833,0.064019,-0.00427718,0.0687158,-0.135277,-0.0741553,0.0120778,0.00143593,0,0,0,0,0,0,0,3.30432,-34.1731,3.46437,25.7092,1.31988,2.03881,0.00376909,
0.156337,0.00735796,0.137813,-2.00457,0.271732,0.23302,0.00985082,0.0828857,-0.0057446,0.0826278,-0.227703,0.0682105,0.358307,0.00797923,1.57454,0.565058,1.5615,2.23446,-16.6669,2.36553,0.0326426,10.5325,-0.474447,10.4715,-21.6097,-0.279335,3.89921,0.0712556,0.155278,0.00802502,0.13688,-1.99906,0.26718,0.217234,0.00947833,0.064019,-0.00427718,0.0687158,-0.135277,-0.0741553,0.0120778,0.00143593,0,0,0,0,0,0,0,3.30432,-34.1731,3.46437,25.7092,1.31988,2.03881,0.00376909,
0.15653,0.00768558,0.138127,-2.00263,0.267833,0.221276,0.00958312,0.082806,-0.00831785,0.08253,-0.227914,0.0646445,0.345073,0.00784153,-0.0497748,-1.60828,-0.0611116,-0.131878,-2.22874,-8.2709,-0.0860642,10.6977,-0.675823,10.633,-22.8974,1.92138,4.266,0.0680487,0.155278,0.00802502,0.13688,-1.99906,0.26718,0.217234,0.00947833,0.064019,-0.00427718,0.0687158,-0.135277,-0.0741553,0.0120778,0.00143593,0,0,0,0,0,0,0,3.30432,-34.1731,3.46437,25.7092,1.31988,2.03881,0.00376909,
0.157248,0.00759022,0.138842,-2.00444,0.268112,0.22391,0.00964476,0.0842003,-0.00903832,0.0839065,-0.227428,0.0586872,0.341901,0.00781428,0.871413,-0.450294,0.860291,0.303628,-3.72327,-1.98258,-0.0170293,10.5965,-0.605755,10.532,-22.4218,1.06905,4.14742,0.068193,0.157316,0.00818995,0.138202,-2.0038,0.26246,0.217437,0.00947775,0.048676,0.0048047,0.0436005,-0.121777,-0.120579,0.0152424,-0.000791955,-1.91787,1.13524,-3.13941,1.68746,-5.80299,0.39557,-0.278486,2.84412,-31.9991,3.08748,23.8882,1.3446,1.74676,0.0376436,
0.158012,0.00753079,0.139603,-2.00619,0.268149,0.226691,0.00970809,0.0864668,-0.00871634,0.0861539,-0.225907,0.0478778,0.343035,0.00783465,1.41656,0.20124,1.40462,0.950909,-6.75593,0.708264,0.0127287,10.547,-0.541029,10.4838,-21.9926,0.343041,4.02501,0.0691354,0.157316,0.00818995,0.138202,-2.0038,0.26246,0.217437,0.00947775,0.048676,0.0048047,0.0436005,-0.121777,-0.120579,0.0152424,-0.000791955,0,0,0,0,0,0,0,2.84412,-31.9991,3.08748,23.8882,1.3446,1.74676,0.0376436,
0.158811,0.00749102,0.140398,-2.00791,0.267907,0.229536,0.00977237,0.0891393,-0.00796751,0.0888053,-0.223599,0.0322422,0.345565,0.00787486,1.67034,0.468016,1.65714,1.44258,-9.7722,1.58129,0.0251353,10.5272,-0.520132,10.465,-21.5733,-0.263024,3.916,0.0711583,0.157316,0.00818995,0.138202,-2.0038,0.26246,0.217437,0.00947775,0.048676,0.0048047,0.0436005,-0.121777,-0.120579,0.0152424,-0.000791955,0,0,0,0,0,0,0,2.84412,-31.9991,3.08748,23.8882,1.3446,1.74676,0.0376436,
0.158357,0.00791148,0.13924,-2.00725,0.261999,0.221547,0.0095891,0.0855277,-0.00953862,0.0852174,-0.223326,0.0213137,0.335588,0.00783539,-2.25726,-0.981944,-2.24245,0.170214,-6.83035,-6.23507,-0.0246712,10.5965,-0.605755,10.532,-22.4218,1.06905,4.14742,0.068193,0.157316,0.00818995,0.138202,-2.0038,0.26246,0.217437,0.00947775,0.048676,0.0048047,0.0436005,-0.121777,-0.120579,0.0152424,-0.000791955,0,0,0,0,0,0,0,2.84412,-31.9991,3.08748,23.8882,1.3446,1.74676,0.0376436,
0.159004,0.0078293,0.139884,-2.00901,0.261708,0.224194,0.0096536,0.0845898,-0.0096854,0.0842852,-0.222684,0.00976954,0.334645,0.00788091,-0.586157,-0.0917354,-0.58264,0.401286,-7.21509,-0.5894,0.0284515,10.5495,-0.576933,10.4836,-21.9437,0.358852,4.05077,0.0689712,0.16005,0.00857326,0.140693,-2.00836,0.259916,0.217772,0.00947598,0.0624397,0.0159871,0.0701652,-0.131492,-0.0281,-0.000178303,-0.00465672,1.72046,1.3978,3.32058,-1.21437,11.5599,-1.92758,-0.483095,3.80817,-33.6495,4.01185,24.162,1.70532,1.38878,0.0239107,
0.15971,0.00777743,0.140588,-2.01073,0.261224,0.226974,0.00971907,0.0853338,-0.00904497,0.0850223,-0.221191,-0.00427566,0.337219,0.00794145,0.464985,0.400267,0.460717,0.933591,-8.77825,1.60869,0.0378367,10.5297,-0.556037,10.4648,-21.5245,-0.247213,3.94176,0.0709941,0.16005,0.00857326,0.140693,-2.00836,0.259916,0.217772,0.00947598,0.0624397,0.0159871,0.0701652,-0.131492,-0.0281,-0.000178303,-0.00465672,0,0,0,0,0,0,0,3.80817,-33.6495,4.01185,24.162,1.70532,1.38878,0.0239107,
0.160461,0.00774156,0.141336,-2.01242,0.260526,0.229809,0.00978541,0.0870386,-0.00813264,0.0867117,-0.219007,-0.0208801,0.340636,0.00801176,1.06547,0.570208,1.05584,1.36461,-10.3778,2.13529,0.0439443,10.5231,-0.571283,10.4591,-21.1155,-0.733618,3.84213,0.073003,0.16005,0.00857326,0.140693,-2.00836,0.259916,0.217772,0.00947598,0.0624397,0.0159871,0.0701652,-0.131492,-0.0281,-0.000178303,-0.00465672,0,0,0,0,0,0,0,3.80817,-33.6495,4.01185,24.162,1.70532,1.38878,0.0239107,
0.161354,0.00842397,0.141994,-2.0118,0.259796,0.221489,0.00959175,0.0868549,-0.00834983,0.0865338,-0.219408,-0.0199163,0.326732,0.0079952,-0.114802,-0.135741,-0.111165,-0.250414,0.602389,-8.68994,-0.0103486,10.5495,-0.576933,10.4836,-21.9437,0.358852,4.05077,0.0689712,0.16005,0.00857326,0.140693,-2.00836,0.259916,0.217772,0.00947598,0.0624397,0.0159871,0.0701652,-0.131492,-0.0281,-0.000178303,-0.00465672,0,0,0,0,0,0,0,3.80817,-33.6495,4.01185,24.162,1.70532,1.38878,0.0239107,
0.162098,0.00837602,0.142735,-2.01355,0.259434,0.223956,0.00965721,0.0880953,-0.00787877,0.0877618,-0.21922,-0.0249695,0.323045,0.00803253,0.775228,0.294408,0.767525,0.117386,-3.15824,-2.3045,0.0233252,10.5258,-0.598701,10.4573,-21.4879,-0.241097,3.96081,0.0708988,0.162017,0.00908255,0.142826,-2.01273,0.258352,0.217843,0.00948222,0.0442005,0.0178783,0.0594938,-0.113216,-0.0731808,0.0108799,0.000783178,-2.27991,0.236407,-1.33392,2.28455,-5.63509,1.38228,0.679987,-1.94836,-32.5227,-1.56218,23.6383,1.14959,1.44829,-0.0026396,
0.162882,0.00834548,0.143516,-2.01526,0.258826,0.226575,0.00972354,0.0900755,-0.00706648,0.0897202,-0.218058,-0.035182,0.323908,0.00808426,1.23767,0.50768,1.22399,0.726099,-6.38281,0.539321,0.032332,10.5191,-0.613947,10.4515,-21.0789,-0.727501,3.86117,0.0729077,0.162017,0.00908255,0.142826,-2.01273,0.258352,0.217843,0.00948222,0.0442005,0.0178783,0.0594938,-0.113216,-0.0731808,0.0108799,0.000783178,0,0,0,0,0,0,0,-1.94836,-32.5227,-1.56218,23.6383,1.14959,1.44829,-0.0026396,
0.163693,0.00832224,0.144323,-2.01692,0.257991,0.229267,0.0097903,0.092331,-0.00623414,0.0919488,-0.216116,-0.0490344,0.326428,0.00813643,1.40964,0.520215,1.39287,1.21373,-8.65777,1.57533,0.0326077,10.5168,-0.656676,10.45,-20.6787,-1.11607,3.77139,0.0753414,0.162017,0.00908255,0.142826,-2.01273,0.258352,0.217843,0.00948222,0.0442005,0.0178783,0.0594938,-0.113216,-0.0731808,0.0108799,0.000783178,0,0,0,0,0,0,0,-1.94836,-32.5227,-1.56218,23.6383,1.14959,1.44829,-0.0026396,
0.163165,0.00890875,0.143973,-2.01602,0.257376,0.221746,0.00960596,0.0893977,-0.00721674,0.089048,-0.215396,-0.0532242,0.317436,0.00816637,-1.83326,-0.614124,-1.81302,0.450483,-2.61863,-5.6204,0.0187121,10.5258,-0.598701,10.4573,-21.4879,-0.241097,3.96081,0.0708988,0.162017,0.00908255,0.142826,-2.01273,0.258352,0.217843,0.00948222,0.0442005,0.0178783,0.0594938,-0.113216,-0.0731808,0.0108799,0.000783178,0,0,0,0,0,0,0,-1.94836,-32.5227,-1.56218,23.6383,1.14959,1.44829,-0.0026396,
0.163855,0.00884429,0.144661,-2.01771,0.256612,0.224272,0.00967392,0.0887833,-0.00738497,0.0884347,-0.214613,-0.0616756,0.317094,0.00823214,-0.384038,-0.105147,-0.383292,0.489185,-5.28213,-0.213376,0.0411083,10.5282,-0.637623,10.4548,-21.0308,-0.713057,3.88772,0.0727532,0.164207,0.00986971,0.146265,-2.01691,0.256677,0.217933,0.00947738,0.0541857,0.0141363,0.105473,-0.141215,-0.0513249,0.001922,0.000149535,1.24815,-0.467753,5.74735,-3.49998,2.73198,-1.11974,-0.0792054,3.17737,-33.2726,3.18666,26.951,1.75384,1.67351,0.0303194,
0.164595,0.00879783,0.145398,-2.01937,0.255651,0.226929,0.00974203,0.0895189,-0.0070696,0.0891546,-0.213175,-0.0733534,0.320115,0.00828848,0.459745,0.197108,0.449913,0.898796,-7.29858,1.88812,0.0352096,10.5259,-0.680352,10.4533,-20.6305,-1.10162,3.79794,0.0751869,0.164207,0.00986971,0.146265,-2.01691,0.256677,0.217933,0.00947738,0.0541857,0.0141363,0.105473,-0.141215,-0.0513249,0.001922,0.000149535,0,0,0,0,0,0,0,3.17737,-33.2726,3.18666,26.951,1.75384,1.67351,0.0303194,
0.165369,0.0087598,0.146167,-2.02099,0.25452,0.229643,0.00981037,0.0909528,-0.00660644,0.0905637,-0.211151,-0.0869561,0.323949,0.00833933,0.896183,0.289478,0.88071,1.26509,-8.5017,2.39632,0.0317838,10.5184,-0.743275,10.4465,-20.2382,-1.39497,3.715,0.0772443,0.164207,0.00986971,0.146265,-2.01691,0.256677,0.217933,0.00947738,0.0541857,0.0141363,0.105473,-0.141215,-0.0513249,0.001922,0.000149535,0,0,0,0,0,0,0,3.17737,-33.2726,3.18666,26.951,1.75384,1.67351,0.0303194,
0.166164,0.00872333,0.146959,-2.02258,0.253253,0.232371,0.00987875,0.092657,-0.00619672,0.092239,-0.208702,-0.10124,0.327337,0.00838095,1.06516,0.256075,1.0471,1.53042,-8.92753,2.11721,0.0260132,10.5021,-0.819395,10.4308,-19.8523,-1.61276,3.63946,0.0793561,0.164207,0.00986971,0.146265,-2.01691,0.256677,0.217933,0.00947738,0.0541857,0.0141363,0.105473,-0.141215,-0.0513249,0.001922,0.000149535,0,0,0,0,0,0,0,3.17737,-33.2726,3.18666,26.951,1.75384,1.67351,0.0303194,
0.165674,0.00974912,0.147731,-2.02027,0.255642,0.221356,0.00960205,0.0931742,-0.0064943,0.0927539,-0.209835,-0.0965307,0.312069,0.00836227,0.32325,-0.185991,0.321756,-0.708322,2.94338,-9.54233,-0.0116738,10.5282,-0.637623,10.4548,-21.0308,-0.713057,3.88772,0.0727532,0.165848,0.0100331,0.148779,-2.0218,0.255781,0.218089,0.00948186,0.0462865,0.0114842,0.08641,-0.140099,-0.0231435,0.0155225,0.000815379,-0.987391,-0.331515,-2.38282,0.139494,3.52268,1.70007,0.0832306,3.80817,-34.5461,3.96425,27.2525,1.79046,1.74035,-0.00996382,
0.166473,0.00970556,0.148526,-2.02196,0.254798,0.223663,0.00966956,0.0945231,-0.00628443,0.0940807,-0.21021,-0.0983247,0.307326,0.00837751,0.843037,0.131168,0.829276,-0.234089,-1.12122,-2.96464,0.00952089,10.5215,-0.740351,10.4473,-20.5882,-1.09677,3.82066,0.0750582,0.165848,0.0100331,0.148779,-2.0218,0.255781,0.218089,0.00948186,0.0462865,0.0114842,0.08641,-0.140099,-0.0231435,0.0155225,0.000815379,0,0,0,0,0,0,0,3.80817,-34.5461,3.96425,27.2525,1.79046,1.74035,-0.00996382,
0.167296,0.0096733,0.149344,-2.02362,0.253759,0.226131,0.00973746,0.0961919,-0.00583415,0.0957195,-0.209544,-0.104626,0.307571,0.00839946,1.04298,0.281426,1.02428,0.41616,-3.93861,0.15361,0.0137194,10.514,-0.803274,10.4405,-20.1959,-1.39011,3.73772,0.0771156,0.165848,0.0100331,0.148779,-2.0218,0.255781,0.218089,0.00948186,0.0462865,0.0114842,0.08641,-0.140099,-0.0231435,0.0155225,0.000815379,0,0,0,0,0,0,0,3.80817,-34.5461,3.96425,27.2525,1.79046,1.74035,-0.00996382,
0.168132,0.00964422,0.150175,-2.02523,0.252565,0.228684,0.00980541,0.0978625,-0.00539418,0.0973576,-0.208034,-0.113555,0.309884,0.00841836,1.04413,0.274982,1.02381,0.943667,-5.5804,1.44556,0.0118159,10.4977,-0.879395,10.4248,-19.81,-1.6079,3.66218,0.0792274,0.165848,0.0100331,0.148779,-2.0218,0.255781,0.218089,0.00948186,0.0462865,0.0114842,0.08641,-0.140099,-0.0231435,0.0155225,0.000815379,0,0,0,0,0,0,0,3.80817,-34.5461,3.96425,27.2525,1.79046,1.74035,-0.00996382,
0.167193,0.00989467,0.150125,-2.02505,0.254611,0.221591,0.0096175,0.0960821,-0.0060904,0.0956128,-0.208035,-0.109352,0.298843,0.00849428,-1.11272,-0.435137,-1.09051,-0.00033962,2.62711,-6.90104,0.0474451,10.5215,-0.740351,10.4473,-20.5882,-1.09677,3.82066,0.0750582,0.165848,0.0100331,0.148779,-2.0218,0.255781,0.218089,0.00948186,0.0462865,0.0114842,0.08641,-0.140099,-0.0231435,0.0155225,0.000815379,0,0,0,0,0,0,0,3.80817,-34.5461,3.96425,27.2525,1.79046,1.74035,-0.00996382,
0.167955,0.00983941,0.150883,-2.0267,0.253615,0.223916,0.00968783,0.0959153,-0.00625386,0.095445,-0.207614,-0.112382,0.297199,0.00855347,-0.104255,-0.102161,-0.104882,0.262948,-1.89369,-1.02724,0.0369987,10.5177,-0.845655,10.4406,-20.1522,-1.38186,3.76154,0.0769819,0.167977,0.0104733,0.151934,-2.02647,0.255349,0.218623,0.00947455,0.0612436,0.0114997,0.0905667,-0.142328,-0.00386833,-0.00661566,0.000232755,1.86964,0.00193559,0.519583,-0.278569,2.40939,-2.76727,-0.072828,1.60236,-33.2964,1.81398,26.4789,1.48559,1.79345,0.0376436,
0.168748,0.00979426,0.151672,-2.02832,0.252429,0.226394,0.00975741,0.096566,-0.0061318,0.096077,-0.206426,-0.11955,0.299694,0.00858244,0.406712,0.0762865,0.394993,0.742492,-4.48021,1.55922,0.0181054,10.5014,-0.921776,10.4249,-19.7663,-1.59965,3.68599,0.0790937,0.167977,0.0104733,0.151934,-2.02647,0.255349,0.218623,0.00947455,0.0612436,0.0114997,0.0905667,-0.142328,-0.00386833,-0.00661566,0.000232755,0,0,0,0,0,0,0,1.60236,-33.2964,1.81398,26.4789,1.48559,1.79345,0.0376436,
0.16956,0.00975204,0.152478,-2.02989,0.25111,0.228948,0.00982656,0.0975446,-0.00596108,0.0970287,-0.204585,-0.128618,0.303617,0.00859478,0.611563,0.106699,0.594839,1.15054,-5.6675,2.45188,0.00770912,10.4713,-1.00572,10.3953,-19.3859,-1.74563,3.61574,0.0806705,0.167977,0.0104733,0.151934,-2.02647,0.255349,0.218623,0.00947455,0.0612436,0.0114997,0.0905667,-0.142328,-0.00386833,-0.00661566,0.000232755,0,0,0,0,0,0,0,1.60236,-33.2964,1.81398,26.4789,1.48559,1.79345,0.0376436,
0.170381,0.00970777,0.153294,-2.03144,0.249705,0.231534,0.00989525,0.0985577,-0.0058755,0.0980127,-0.202259,-0.138007,0.307546,0.00859308,0.633241,0.0534908,0.614975,1.45349,-5.86836,2.45582,-0.0010608,10.4268,-1.09272,10.3514,-19.0095,-1.83629,3.55111,0.0821019,0.167977,0.0104733,0.151934,-2.02647,0.255349,0.218623,0.00947455,0.0612436,0.0114997,0.0905667,-0.142328,-0.00386833,-0.00661566,0.000232755,0,0,0,0,0,0,0,1.60236,-33.2964,1.81398,26.4789,1.48559,1.79345,0.0376436,
0.171674,0.0104621,0.156145,-2.03446,0.25423,0.221946,0.00960983,0.0986468,-0.00724937,0.0981164,-0.202356,-0.129493,0.294878,0.00862939,0.0556673,-0.858672,0.064832,-0.0603645,5.32145,-7.91754,0.0226948,10.5188,-0.900776,10.4396,-20.1073,-1.37747,3.78567,0.0768553,0.170143,0.0106655,0.154618,-2.03129,0.255428,0.218626,0.00947539,0.0731027,0.0067515,0.0926021,-0.133703,-0.01764,0.00139004,-0.00147649,1.48239,-0.593524,0.254425,1.07806,-1.72146,1.00071,-0.213655,1.14612,-34.1731,1.3141,27.3993,1.56433,1.84655,0.0577852,
0.172497,0.0103788,0.156963,-2.03607,0.253211,0.2242,0.00967977,0.0994922,-0.007884,0.0989476,-0.2021,-0.129082,0.29225,0.00865194,0.528402,-0.396641,0.519484,0.160272,0.256782,-1.64252,0.0140923,10.5025,-0.976896,10.424,-19.7213,-1.59526,3.71012,0.0789671,0.170143,0.0106655,0.154618,-2.03129,0.255428,0.218626,0.00947539,0.0731027,0.0067515,0.0926021,-0.133703,-0.01764,0.00139004,-0.00147649,0,0,0,0,0,0,0,1.14612,-34.1731,1.3141,27.3993,1.56433,1.84655,0.0577852,
0.173336,0.0103081,0.157796,-2.03765,0.25201,0.226617,0.00974906,0.100566,-0.00807365,0.0999945,-0.2011,-0.133278,0.294236,0.00865394,0.670885,-0.118531,0.65431,0.624704,-2.62229,1.24144,0.00124762,10.4724,-1.06084,10.3944,-19.3409,-1.74124,3.63987,0.0805439,0.170143,0.0106655,0.154618,-2.03129,0.255428,0.218626,0.00947539,0.0731027,0.0067515,0.0926021,-0.133703,-0.01764,0.00139004,-0.00147649,0,0,0,0,0,0,0,1.14612,-34.1731,1.3141,27.3993,1.56433,1.84655,0.0577852,
0.17418,0.0102427,0.158635,-2.03919,0.250691,0.229121,0.00981769,0.101571,-0.00809506,0.100969,-0.199448,-0.139589,0.297996,0.00863871,0.628128,-0.013383,0.609127,1.03277,-3.94441,2.34978,-0.00951577,10.4279,-1.14784,10.3505,-18.9645,-1.8319,3.57524,0.0819752,0.170143,0.0106655,0.154618,-2.03129,0.255428,0.218626,0.00947539,0.0731027,0.0067515,0.0926021,-0.133703,-0.01764,0.00139004,-0.00147649,0,0,0,0,0,0,0,1.14612,-34.1731,1.3141,27.3993,1.56433,1.84655,0.0577852,
0.175024,0.0101772,0.159473,-2.0407,0.249304,0.231666,0.00988583,0.102358,-0.00811347,0.101726,-0.197294,-0.14636,0.30201,0.00861448,0.49194,-0.011507,0.473272,1.34595,-4.232,2.50866,-0.0151442,10.3701,-1.28254,10.2899,-18.5471,-1.86524,3.53874,0.0827414,0.172957,0.0110394,0.157854,-2.03573,0.255235,0.218754,0.00947927,0.0802305,-0.00133903,0.097345,-0.148763,-0.0137799,0.0149099,-0.000176616,0.890968,-1.01132,0.592868,-1.88244,0.482513,1.68998,0.162484,2.87189,-31.9753,2.96449,23.0908,1.61926,0.977713,0.0239107,
0.174558,0.0108142,0.15945,-2.03888,0.253912,0.22198,0.00961767,0.102451,-0.00920434,0.101837,-0.197911,-0.137903,0.288918,0.00866887,0.0585097,-0.681792,0.0694322,-0.385457,5.28545,-8.18242,0.0339913,10.5059,-1.02494,10.424,-19.6768,-1.58925,3.73398,0.0788373,0.172957,0.0110394,0.157854,-2.03573,0.255235,0.218754,0.00947927,0.0802305,-0.00133903,0.097345,-0.148763,-0.0137799,0.0149099,-0.000176616,0,0,0,0,0,0,0,2.87189,-31.9753,2.96449,23.0908,1.61926,0.977713,0.0239107,
0.175403,0.0107246,0.160289,-2.04046,0.252833,0.22417,0.00968802,0.103086,-0.00960276,0.102461,-0.19793,-0.13729,0.285895,0.00869381,0.396618,-0.249016,0.389765,-0.0119515,0.383505,-1.88951,0.0155928,10.4758,-1.10888,10.3945,-19.2964,-1.73523,3.66373,0.0804141,0.172957,0.0110394,0.157854,-2.03573,0.255235,0.218754,0.00947927,0.0802305,-0.00133903,0.097345,-0.148763,-0.0137799,0.0149099,-0.000176616,0,0,0,0,0,0,0,2.87189,-31.9753,2.96449,23.0908,1.61926,0.977713,0.0239107,
0.176257,0.0106469,0.161137,-2.04202,0.251594,0.226528,0.00975726,0.103808,-0.00962402,0.103161,-0.197119,-0.140822,0.287665,0.00868624,0.451531,-0.0132887,0.437255,0.507003,-2.20776,1.10617,-0.00473672,10.4313,-1.19588,10.3505,-18.92,-1.82589,3.59909,0.0818454,0.172957,0.0110394,0.157854,-2.03573,0.255235,0.218754,0.00947927,0.0802305,-0.00133903,0.097345,-0.148763,-0.0137799,0.0149099,-0.000176616,0,0,0,0,0,0,0,2.87189,-31.9753,2.96449,23.0908,1.61926,0.977713,0.0239107,
0.17711,0.0105738,0.161984,-2.04353,0.250258,0.228978,0.0098257,0.104385,-0.00952685,0.10371,-0.195603,-0.14605,0.291388,0.00866003,0.360116,0.0607314,0.343638,0.947447,-3.26752,2.32692,-0.0163775,10.3694,-1.33989,10.2867,-18.5052,-1.86164,3.5615,0.0826196,0.175504,0.0112722,0.16109,-2.04011,0.255261,0.218692,0.00947632,0.0750675,-0.00294869,0.104446,-0.13607,-0.00420525,0.00686229,-0.00120602,-0.645375,-0.201208,0.887654,1.58665,1.19683,-1.00595,-0.128676,0.995365,-32.126,1.21095,22.4203,1.59546,1.01067,0.050461,
0.177119,0.0109953,0.1627,-2.04315,0.253962,0.221878,0.00961654,0.104222,-0.010993,0.103571,-0.195297,-0.13767,0.280037,0.00872993,-0.101796,-0.916362,-0.0868907,0.190927,5.23786,-7.09445,0.0436871,10.4752,-1.16623,10.3913,-19.2545,-1.73163,3.68649,0.0802923,0.175504,0.0112722,0.16109,-2.04011,0.255261,0.218692,0.00947632,0.0750675,-0.00294869,0.104446,-0.13607,-0.00420525,0.00686229,-0.00120602,0,0,0,0,0,0,0,0.995365,-32.126,1.21095,22.4203,1.59546,1.01067,0.050461,
0.177967,0.0108813,0.163543,-2.04469,0.252879,0.224054,0.00968729,0.10459,-0.0116447,0.103931,-0.194741,-0.137199,0.278431,0.00875282,0.229932,-0.40728,0.224793,0.347937,0.294189,-1.00316,0.0143053,10.4306,-1.25323,10.3474,-18.8781,-1.8223,3.62185,0.0817237,0.175504,0.0112722,0.16109,-2.04011,0.255261,0.218692,0.00947632,0.0750675,-0.00294869,0.104446,-0.13607,-0.00420525,0.00686229,-0.00120602,0,0,0,0,0,0,0,0.995365,-32.126,1.21095,22.4203,1.59546,1.01067,0.050461,
0.178822,0.0107816,0.164391,-2.0462,0.251643,0.226397,0.00975666,0.105032,-0.0118073,0.104352,-0.193564,-0.140657,0.281315,0.00873654,0.276189,-0.101631,0.26288,0.735322,-2.16114,1.80226,-0.0101712,10.3694,-1.33989,10.2867,-18.5052,-1.86164,3.5615,0.0826196,0.175504,0.0112722,0.16109,-2.04011,0.255261,0.218692,0.00947632,0.0750675,-0.00294869,0.104446,-0.13607,-0.00420525,0.00686229,-0.00120602,0,0,0,0,0,0,0,0.995365,-32.126,1.21095,22.4203,1.59546,1.01067,0.050461,
0.179673,0.0106889,0.165237,-2.04768,0.250325,0.228831,0.0098248,0.105317,-0.0117638,0.104612,-0.19182,-0.145481,0.285905,0.00869272,0.178548,0.0272002,0.162878,1.08989,-3.01487,2.86846,-0.0273897,10.3005,-1.48264,10.2159,-18.0872,-1.85529,3.53036,0.0831341,0.178176,0.0114495,0.165012,-2.04469,0.255211,0.21869,0.0094808,0.0786875,-0.0183221,0.120043,-0.15917,-0.00153716,0.00927376,0.000427265,0.452497,-1.92168,1.94955,-2.88753,0.333512,0.301434,0.204161,0.285221,-33.0226,0.488905,24.2136,1.35101,1.46844,0.0101778,
0.179897,0.0111107,0.166728,-2.04776,0.253875,0.22162,0.00962311,0.106118,-0.01329,0.105423,-0.192087,-0.137532,0.272343,0.00875375,0.5003,-0.953894,0.506684,-0.166424,4.96766,-8.47582,0.038142,10.4385,-1.31248,10.3528,-18.8307,-1.81485,3.64683,0.0815851,0.178176,0.0114495,0.165012,-2.04469,0.255211,0.21869,0.0094808,0.0786875,-0.0183221,0.120043,-0.15917,-0.00153716,0.00927376,0.000427265,0,0,0,0,0,0,0,0.285221,-33.0226,0.488905,24.2136,1.35101,1.46844,0.0101778,
0.180779,0.0109829,0.167604,-2.04928,0.2528,0.223682,0.00969335,0.106938,-0.0138264,0.106228,-0.191735,-0.136902,0.269405,0.00875901,0.512838,-0.335253,0.503328,0.220082,0.394227,-1.8367,0.00328893,10.3773,-1.39915,10.2922,-18.4578,-1.8542,3.58648,0.0824811,0.178176,0.0114495,0.165012,-2.04469,0.255211,0.21869,0.0094808,0.0786875,-0.0183221,0.120043,-0.15917,-0.00153716,0.00927376,0.000427265,0,0,0,0,0,0,0,0.285221,-33.0226,0.488905,24.2136,1.35101,1.46844,0.0101778,
0.181657,0.0108719,0.168475,-2.05077,0.251593,0.225929,0.00976191,0.107488,-0.0138344,0.106754,-0.190631,-0.139716,0.271704,0.00872118,0.343392,-0.00499744,0.328477,0.689525,-1.75879,1.43739,-0.0236452,10.3005,-1.48264,10.2159,-18.0872,-1.85529,3.53036,0.0831341,0.178176,0.0114495,0.165012,-2.04469,0.255211,0.21869,0.0094808,0.0786875,-0.0183221,0.120043,-0.15917,-0.00153716,0.00927376,0.000427265,0,0,0,0,0,0,0,0.285221,-33.0226,0.488905,24.2136,1.35101,1.46844,0.0101778,
0.182523,0.0107692,0.169335,-2.05223,0.25032,0.228284,0.00982917,0.107659,-0.0136365,0.106901,-0.188895,-0.143585,0.276244,0.00865851,0.107261,0.123695,0.0917794,1.08547,-2.41831,2.83695,-0.0391702,10.2103,-1.63051,10.1259,-17.6762,-1.8165,3.49921,0.083177,0.180677,0.0113492,0.168984,-2.04943,0.255255,0.218959,0.00947632,0.0761826,-0.0243903,0.132058,-0.164481,-0.0124499,0.0125985,-0.0012123,-0.313104,-0.758526,1.50196,-0.663927,-1.36409,0.415597,-0.204946,4.51831,-31.6023,4.48793,21.5475,1.66229,0.480581,0.050461,
0.182442,0.0109747,0.170744,-2.05246,0.253823,0.2218,0.00961778,0.108426,-0.0151474,0.107678,-0.18917,-0.136811,0.263358,0.0087164,0.478986,-0.944348,0.485795,-0.171953,4.23377,-8.05376,0.0361855,10.3804,-1.46852,10.2948,-18.4153,-1.84877,3.60794,0.0823685,0.180677,0.0113492,0.168984,-2.04943,0.255255,0.218959,0.00947632,0.0761826,-0.0243903,0.132058,-0.164481,-0.0124499,0.0125985,-0.0012123,0,0,0,0,0,0,0,4.51831,-31.6023,4.48793,21.5475,1.66229,0.480581,0.050461,
0.183334,0.0108346,0.17163,-2.05396,0.252747,0.223812,0.00968732,0.109036,-0.0156194,0.108277,-0.188746,-0.136369,0.260983,0.00871159,0.381682,-0.294966,0.374226,0.264641,0.276283,-1.48401,-0.00300892,10.3036,-1.55202,10.2185,-18.0448,-1.84987,3.55182,0.0830215,0.180677,0.0113492,0.168984,-2.04943,0.255255,0.218959,0.00947632,0.0761826,-0.0243903,0.132058,-0.164481,-0.0124499,0.0125985,-0.0012123,0,0,0,0,0,0,0,4.51831,-31.6023,4.48793,21.5475,1.66229,0.480581,0.050461,
0.184215,0.0107123,0.172505,-2.05542,0.251562,0.226014,0.00975511,0.109279,-0.0155529,0.1085,-0.187557,-0.138717,0.263834,0.00866392,0.15145,0.0415856,0.139571,0.743039,-1.46789,1.78181,-0.0297946,10.2103,-1.63051,10.1259,-17.6762,-1.8165,3.49921,0.083177,0.180677,0.0113492,0.168984,-2.04943,0.255255,0.218959,0.00947632,0.0761826,-0.0243903,0.132058,-0.164481,-0.0124499,0.0125985,-0.0012123,0,0,0,0,0,0,0,4.51831,-31.6023,4.48793,21.5475,1.66229,0.480581,0.050461,
0.185082,0.0105988,0.173365,-2.05685,0.250332,0.228328,0.0098214,0.109097,-0.0152805,0.108299,-0.185735,-0.141703,0.268929,0.00858845,-0.113571,0.17023,-0.125572,1.13883,-1.86571,3.18443,-0.0471695,10.1025,-1.70263,10.0186,-17.3088,-1.75848,3.44971,0.0830664,0.180677,0.0113492,0.168984,-2.04943,0.255255,0.218959,0.00947632,0.0761826,-0.0243903,0.132058,-0.164481,-0.0124499,0.0125985,-0.0012123,0,0,0,0,0,0,0,4.51831,-31.6023,4.48793,21.5475,1.66229,0.480581,0.050461,
0.1854,0.0111804,0.17458,-2.05702,0.253884,0.222091,0.00961652,0.109689,-0.0149894,0.108899,-0.186524,-0.134916,0.257664,0.00864375,0.369754,0.181916,0.374905,-0.493038,4.2415,-7.04072,0.0345649,10.3004,-1.612,10.2138,-18.0037,-1.84621,3.57446,0.0829113,0.183618,0.0114045,0.172806,-2.054,0.255294,0.2192,0.00947632,0.0965529,-0.00556627,0.116868,-0.160537,-0.0130207,0.0226446,-0.000813166,2.54628,2.35301,-1.89873,0.493034,-0.0713547,1.25576,0.0498923,2.03479,-31.9753,2.11152,22.1704,1.38763,0.334097,0.050461,
0.186291,0.0110789,0.175464,-2.05851,0.252834,0.224085,0.00968541,0.110038,-0.014528,0.109235,-0.186417,-0.134171,0.255997,0.0086373,0.218136,0.288396,0.210275,0.0667611,0.465931,-1.04169,-0.00403148,10.2071,-1.69049,10.1211,-17.6351,-1.81284,3.52186,0.0830669,0.183618,0.0114045,0.172806,-2.054,0.255294,0.2192,0.00947632,0.0965529,-0.00556627,0.116868,-0.160537,-0.0130207,0.0226446,-0.000813166,0,0,0,0,0,0,0,2.03479,-31.9753,2.11152,22.1704,1.38763,0.334097,0.050461,
0.187169,0.0109817,0.176335,-2.05996,0.25169,0.226257,0.00975235,0.109982,-0.0140516,0.109161,-0.185377,-0.135944,0.2591,0.00858326,-0.0349685,0.297714,-0.0468256,0.650211,-1.10826,1.93939,-0.0337749,10.0993,-1.76261,10.0139,-17.2678,-1.75482,3.47235,0.0829563,0.183618,0.0114045,0.172806,-2.054,0.255294,0.2192,0.00947632,0.0965529,-0.00556627,0.116868,-0.160537,-0.0130207,0.0226446,-0.000813166,0,0,0,0,0,0,0,2.03479,-31.9753,2.11152,22.1704,1.38763,0.334097,0.050461,
