xiao-wang007/linearmpc_panda/paper_data/panda_torque_PD_controller_opt_time_to_start_torque_rate_limiter_low_pass_filter/3/trajectory.csv
Commanded Joint 0 Position,Commanded Joint 1 Position,Commanded Joint 2 Position,Commanded Joint 3 Position,Commanded Joint 4 Position,Commanded Joint 5 Position,Commanded Joint 6 Position,Commanded Joint 0 Velocity,Commanded Joint 1 Velocity,Commanded Joint 2 Velocity,Commanded Joint 3 Velocity,Commanded Joint 4 Velocity,Commanded Joint 5 Velocity,Commanded Joint 6 Velocity,Commanded Joint 0 Acceleration,Commanded Joint 1 Acceleration,Commanded Joint 2 Acceleration,Commanded Joint 3 Acceleration,Commanded Joint 4 Acceleration,Commanded Joint 5 Acceleration,Commanded Joint 6 Acceleration,Commanded Joint 0 Torque,Commanded Joint 1 Torque,Commanded Joint 2 Torque,Commanded Joint 3 Torque,Commanded Joint 4 Torque,Commanded Joint 5 Torque,Commanded Joint 6 Torque,Actual Joint 0 Position,Actual Joint 1 Position,Actual Joint 2 Position,Actual Joint 3 Position,Actual Joint 4 Position,Actual Joint 5 Position,Actual Joint 6 Position,Actual Joint 0 Velocity,Actual Joint 1 Velocity,Actual Joint 2 Velocity,Actual Joint 3 Velocity,Actual Joint 4 Velocity,Actual Joint 5 Velocity,Actual Joint 6 Velocity,Actual Joint 0 Acceleration,Actual Joint 1 Acceleration,Actual Joint 2 Acceleration,Actual Joint 3 Acceleration,Actual Joint 4 Acceleration,Actual Joint 5 Acceleration,Actual Joint 6 Acceleration,Actual Joint 0 Torque,Actual Joint 1 Torque,Actual Joint 2 Torque,Actual Joint 3 Torque,Actual Joint 4 Torque,Actual Joint 5 Torque,Actual Joint 6 Torque,
0.0556126,0.100188,-0.0356145,-1.62266,-0.012113,0.16932,0.0146441,0.000478523,0.0243432,0.000464455,-0.0311433,-0.00249288,0.0534534,-0.00037856,0.299077,15.2145,0.290284,-19.4646,-1.55805,33.4083,-0.2366,0.0589042,27.5611,0.0697827,-24.1721,-0.523228,2.00186,-0.0250349,0.0555651,0.0989545,-0.0356509,-1.61978,-0.0120052,0.16368,0.0147013,-0.00166141,-3.78092e-06,-0.00555647,0.000606432,0.00969426,0.000280333,0.00127361,0,0,0,0,0,0,0,0.00751081,-38.7395,-0.110155,27.0541,0.447384,3.17223,-0.130813,
0.0555191,0.0989522,-0.0356927,-1.61978,-0.0119618,0.163693,0.0147037,0.000111774,0.0194609,0.000123999,-0.024878,-0.00199616,0.0428822,-0.000293917,-0.229218,-3.05143,-0.212785,3.91584,0.310453,-6.60697,0.0529017,0.0531552,28.0014,0.0594681,-24.0886,-0.523766,1.75118,-0.023516,0.0555651,0.0989545,-0.0356509,-1.61978,-0.0120052,0.16368,0.0147013,-0.00166141,-3.78092e-06,-0.00555647,0.000606432,0.00969426,0.000280333,0.00127361,0,0,0,0,0,0,0,0.00751081,-38.7395,-0.110155,27.0541,0.447384,3.17223,-0.130813,
0.0555109,0.098952,-0.0357003,-1.61978,-0.0119668,0.163698,0.0147039,-0.000115873,0.0155633,-8.99107e-05,-0.0198726,-0.00172134,0.0344259,-0.000229582,-0.142279,-2.43598,-0.133693,3.12835,0.17176,-5.2852,0.0402097,0.0459217,28.5754,0.0477541,-23.9804,-0.523377,1.40452,-0.0215517,0.0555684,0.0990497,-0.0356521,-1.61984,-0.0120089,0.163678,0.0146986,-0.00107064,0.0018636,0.000106906,-0.000715451,0.00876959,0.000375849,-0.00026283,0.0738466,0.233423,0.707921,-0.165235,-0.115584,0.0119395,-0.192055,-0.0440639,-38.5649,-0.137926,27.0541,0.484005,3.21892,-0.0969389,
0.0555045,0.098952,-0.0357062,-1.61978,-0.0119735,0.163703,0.014704,-0.00025162,0.0124529,-0.000219206,-0.0158736,-0.00154624,0.0276597,-0.00018014,-0.0848417,-1.94401,-0.0808093,2.4994,0.109437,-4.22887,0.0309011,0.0399626,29.0992,0.0383243,-23.8126,-0.521536,1.01956,-0.0195493,0.0555684,0.0990497,-0.0356521,-1.61984,-0.0120089,0.163678,0.0146986,-0.00107064,0.0018636,0.000106906,-0.000715451,0.00876959,0.000375849,-0.00026283,0,0,0,0,0,0,0,-0.0440639,-38.5649,-0.137926,27.0541,0.484005,3.21892,-0.0969389,
0.0553269,0.0990819,-0.0359078,-1.61971,-0.0044767,0.159623,0.0146762,-0.00113834,0.00987701,-0.0010591,-0.0124615,0.0459634,-0.00443639,-0.000168491,-0.554202,-1.60995,-0.524932,2.13252,29.6935,-20.0601,0.00728055,0.50306,0.151213,0.498262,-0.245542,2.81892,-1.64494,-0.00138261,0.0555684,0.0990497,-0.0356521,-1.61984,-0.0120089,0.163678,0.0146986,-0.00107064,0.0018636,0.000106906,-0.000715451,0.00876959,0.000375849,-0.00026283,0,0,0,0,0,0,0,-0.0440639,-38.5649,-0.137926,27.0541,0.484005,3.21892,-0.0969389,
0.055301,0.0990783,-0.0359314,-1.6197,-0.00253275,0.158511,0.0146756,-0.00155793,0.0078109,-0.00143868,-0.00988804,0.0853694,-0.0313442,-0.000149847,-0.262245,-1.29132,-0.23724,1.60844,24.6288,-16.8174,0.0116528,0.496105,0.149542,0.491616,-0.243103,2.7944,-1.63007,-0.00137121,0.0555684,0.0990497,-0.0356521,-1.61984,-0.0120089,0.163678,0.0146986,-0.00107064,0.0018636,0.000106906,-0.000715451,0.00876959,0.000375849,-0.00026283,0,0,0,0,0,0,0,-0.0440639,-38.5649,-0.137926,27.0541,0.484005,3.21892,-0.0969389,
0.0552859,0.0990755,-0.0359444,-1.6197,-0.000558312,0.157369,0.0146752,-0.00162248,0.00617845,-0.00147605,-0.00795084,0.117656,-0.0536299,-0.00013096,-0.0403401,-1.02028,-0.0233532,1.21075,20.1794,-13.9285,0.011804,0.489648,0.157054,0.485479,-0.241829,2.77006,-1.61514,-0.00136273,0.0555667,0.0992297,-0.0356607,-1.62012,-0.0120173,0.164275,0.0147009,-0.00132911,0.0120573,-0.00233185,-0.0461201,0.00719289,0.0854196,2.12586e-05,-0.0323085,1.27422,-0.304845,-5.67558,-0.197087,10.6305,0.0355111,-0.0202602,-34.6968,-0.0109729,23.1186,0.324703,3.3178,-0.117081,
0.0552805,0.099074,-0.0359481,-1.61971,0.00143027,0.156209,0.0146748,-0.0014336,0.00490594,-0.00127338,-0.00649505,0.14384,-0.0718871,-0.000114651,0.118051,-0.79532,0.126665,0.909864,16.3646,-11.4107,0.0101933,0.483116,0.155626,0.479188,-0.239318,2.74533,-1.60024,-0.00134879,0.0555667,0.0992297,-0.0356607,-1.62012,-0.0120173,0.164275,0.0147009,-0.00132911,0.0120573,-0.00233185,-0.0461201,0.00719289,0.0854196,2.12586e-05,0,0,0,0,0,0,0,-0.0202602,-34.6968,-0.0109729,23.1186,0.324703,3.3178,-0.117081,
0.0550606,0.0997136,-0.0362445,-1.61982,0.0143872,0.14591,0.0146422,-0.00178885,0.0046705,-0.00184909,-0.00550223,0.279724,-0.179056,-7.86126e-05,-0.222034,-0.147149,-0.35982,0.620512,84.9277,-66.9806,0.022524,3.90841,0.939931,3.7678,-1.62595,10.4729,-7.8138,4.71161e-06,0.0555667,0.0992297,-0.0356607,-1.62012,-0.0120173,0.164275,0.0147009,-0.00132911,0.0120573,-0.00233185,-0.0461201,0.00719289,0.0854196,2.12586e-05,0,0,0,0,0,0,0,-0.0202602,-34.6968,-0.0109729,23.1186,0.324703,3.3178,-0.117081,
0.055084,0.0997381,-0.0362235,-1.61986,0.0211026,0.140862,0.0146436,-0.000845451,0.00434747,-0.000954821,-0.0054962,0.391666,-0.269442,-2.71214e-05,0.589625,-0.20189,0.558921,0.00376954,69.9637,-56.4914,0.032182,3.79314,0.913494,3.65869,-1.60112,10.2378,-7.65294,-0.000602765,0.0555667,0.0992297,-0.0356607,-1.62012,-0.0120173,0.164275,0.0147009,-0.00132911,0.0120573,-0.00233185,-0.0461201,0.00719289,0.0854196,2.12586e-05,0,0,0,0,0,0,0,-0.0202602,-34.6968,-0.0109729,23.1186,0.324703,3.3178,-0.117081,
0.0551537,0.0997636,-0.0361561,-1.61993,0.0278454,0.135728,0.0146453,0.00106702,0.00411626,0.00092025,-0.00609857,0.481902,-0.343918,2.12418e-05,1.19529,-0.144508,1.17192,-0.37648,56.3975,-46.5476,0.030227,3.68455,0.884456,3.56434,-1.57806,9.99988,-7.49356,-0.00126543,0.0555667,0.0992297,-0.0356607,-1.62012,-0.0120173,0.164275,0.0147009,-0.00132911,0.0120573,-0.00233185,-0.0461201,0.00719289,0.0854196,2.12586e-05,0,0,0,0,0,0,0,-0.0202602,-34.6968,-0.0109729,23.1186,0.324703,3.3178,-0.117081,
0.0552638,0.0997936,-0.0360494,-1.62001,0.034552,0.130577,0.014647,0.00360648,0.00404246,0.00340441,-0.00704402,0.553187,-0.403909,5.75729e-05,1.58716,-0.0461251,1.5526,-0.590904,44.5532,-37.4941,0.022707,3.57205,0.915745,3.50219,-1.57102,9.74335,-7.31791,-0.00137213,0.0555553,0.0997736,-0.0356821,-1.62542,-0.0110051,0.168297,0.0147009,0.00274459,-0.0129488,-0.00420398,-0.218458,0.164846,-0.0144889,0.00112572,0.509212,-3.12577,-0.234017,-21.5422,19.7067,-12.4886,0.138058,0.233646,-30.4518,0.338148,21.3214,1.70532,1.31554,-0.117081,
0.0580799,0.100041,-0.0335485,-1.628,0.0164929,0.130253,0.0150086,0.0208351,0.00142863,0.0189855,-0.0204331,0.619776,-0.564965,0.000729969,10.7679,-1.63364,9.73818,-8.36817,41.6179,-100.66,0.420248,21.0695,2.24491,18.0471,-7.96823,11.0483,-14.1858,0.152527,0.0555553,0.0997736,-0.0356821,-1.62542,-0.0110051,0.168297,0.0147009,0.00274459,-0.0129488,-0.00420398,-0.218458,0.164846,-0.0144889,0.00112572,0,0,0,0,0,0,0,0.233646,-30.4518,0.338148,21.3214,1.70532,1.31554,-0.117081,
0.0588672,0.0999588,-0.032829,-1.62863,0.023971,0.120169,0.0150343,0.0363508,-0.000913716,0.0331745,-0.0320357,0.682773,-0.704081,0.00122534,9.69731,-1.46397,8.86814,-7.25164,39.3731,-86.9478,0.309604,18.3371,-2.11481,17.8806,-11.2076,11.0483,-14.1858,0.121978,0.0555553,0.0997736,-0.0356821,-1.62542,-0.0110051,0.168297,0.0147009,0.00274459,-0.0129488,-0.00420398,-0.218458,0.164846,-0.0144889,0.00112572,0,0,0,0,0,0,0,0.233646,-30.4518,0.338148,21.3214,1.70532,1.31554,-0.117081,
0.0597078,0.0998716,-0.0320564,-1.62933,0.0317402,0.110106,0.0150596,0.050094,-0.00290951,0.0458553,-0.0430448,0.740448,-0.814842,0.00161401,8.58953,-1.24737,7.92546,-6.88066,36.047,-69.2254,0.242923,16.9044,-0.794127,15.8127,-10.1686,11.0483,-14.1858,0.0444034,0.0555553,0.0997736,-0.0356821,-1.62542,-0.0110051,0.168297,0.0147009,0.00274459,-0.0129488,-0.00420398,-0.218458,0.164846,-0.0144889,0.00112572,0,0,0,0,0,0,0,0.233646,-30.4518,0.338148,21.3214,1.70532,1.31554,-0.117081,
0.0605881,0.0997927,-0.0312439,-1.63008,0.0397253,0.100309,0.0150845,0.062084,-0.00430143,0.0569971,-0.0532639,0.791986,-0.896797,0.00191413,7.49374,-0.869951,6.96364,-6.38699,32.2111,-51.2217,0.187574,16.0734,-0.442281,14.9446,-9.84815,10.9849,-14.1389,0.0338339,0.0554627,0.100261,-0.0356503,-1.63153,-0.00158544,0.161489,0.0146947,-0.00333426,0.0683942,0.00237544,-0.0674381,0.423809,-0.513278,-0.00121462,-0.759856,10.1679,0.822428,18.8774,32.3703,-62.3486,-0.292543,3.55426,-42.0323,3.36122,29.7916,2.59704,-0.242685,-0.0630644,
0.0591756,0.100906,-0.0320173,-1.63659,0.0281245,0.119833,0.0148718,0.0760785,-0.00208099,0.0709763,-0.0711378,0.811623,-0.964,0.00213167,8.74657,1.38777,8.73698,-11.1712,12.2735,-42.0024,0.135965,24.76,2.31164,23.987,-17.541,10.9849,-14.1389,0.051397,0.0554627,0.100261,-0.0356503,-1.63153,-0.00158544,0.161489,0.0146947,-0.00333426,0.0683942,0.00237544,-0.0674381,0.423809,-0.513278,-0.00121462,0,0,0,0,0,0,0,3.55426,-42.0323,3.36122,29.7916,2.59704,-0.242685,-0.0630644,
0.0603128,0.100951,-0.0309277,-1.63781,0.0356121,0.109959,0.0148943,0.0892925,-0.000542291,0.0840219,-0.0874575,0.83649,-1.01805,0.00226732,8.25874,0.961689,8.1535,-10.1998,15.5413,-33.7807,0.0847817,23.3921,2.18638,22.5863,-17.1461,10.9849,-14.1389,0.037089,0.0554627,0.100261,-0.0356503,-1.63153,-0.00158544,0.161489,0.0146947,-0.00333426,0.0683942,0.00237544,-0.0674381,0.423809,-0.513278,-0.00121462,0,0,0,0,0,0,0,3.55426,-42.0323,3.36122,29.7916,2.59704,-0.242685,-0.0630644,
0.0615074,0.100997,-0.029785,-1.63911,0.0433861,0.100449,0.0149175,0.101301,0.000732548,0.095786,-0.10252,0.863541,-1.05218,0.0023947,7.50527,0.796774,7.35258,-9.41413,16.9072,-21.3294,0.0796096,22.2184,1.97141,21.3966,-16.7994,10.9849,-14.1389,0.0294087,0.0554627,0.100261,-0.0356503,-1.63153,-0.00158544,0.161489,0.0146947,-0.00333426,0.0683942,0.00237544,-0.0674381,0.423809,-0.513278,-0.00121462,0,0,0,0,0,0,0,3.55426,-42.0323,3.36122,29.7916,2.59704,-0.242685,-0.0630644,
0.0600875,0.101752,-0.0310374,-1.63879,0.0731474,0.0824768,0.014867,0.114684,-0.00324203,0.108484,-0.126206,0.88356,-1.07539,0.00209509,8.36446,-2.48411,7.93601,-14.8038,12.512,-14.5065,-0.187255,26.9264,1.85641,25.5158,-24.2475,10.7072,-14.0485,0.0170828,0.0550641,0.102738,-0.035878,-1.63115,0.0351171,0.129861,0.0147522,-0.00896294,0.0398002,0.00856172,0.00712545,1.11189,-1.1897,0.00259981,-0.703585,-3.57425,0.773285,9.32045,86.0096,-84.5524,0.476803,9.771,-42.1593,9.21297,20.5994,2.5476,-2.93434,-0.0227812,
0.0615012,0.101635,-0.0297009,-1.64064,0.0810279,0.0738174,0.0148738,0.127089,-0.00550936,0.120201,-0.147085,0.903861,-1.07679,0.00184654,7.75324,-1.41708,7.32363,-13.0494,12.688,-0.879382,-0.155343,25.31,1.53297,23.9769,-23.8302,10.7072,-14.0485,0.00400483,0.0550641,0.102738,-0.035878,-1.63115,0.0351171,0.129861,0.0147522,-0.00896294,0.0398002,0.00856172,0.00712545,1.11189,-1.1897,0.00259981,0,0,0,0,0,0,0,9.771,-42.1593,9.21297,20.5994,2.5476,-2.93434,-0.0227812,
0.0629574,0.101556,-0.028325,-1.64253,0.0890595,0.0659639,0.0148833,0.138078,-0.00639797,0.130556,-0.164948,0.923881,-1.05777,0.00171418,6.86791,-0.555377,6.47193,-11.1644,12.5122,11.8888,-0.082724,23.9518,1.15611,22.6808,-23.4739,10.7072,-14.0485,-0.000745082,0.0550641,0.102738,-0.035878,-1.63115,0.0351171,0.129861,0.0147522,-0.00896294,0.0398002,0.00856172,0.00712545,1.11189,-1.1897,0.00259981,0,0,0,0,0,0,0,9.771,-42.1593,9.21297,20.5994,2.5476,-2.93434,-0.0227812,
0.0644376,0.101509,-0.0269272,-1.64444,0.0972152,0.0589619,0.014895,0.147467,-0.00627236,0.13939,-0.179767,0.942995,-1.02127,0.00166434,5.868,0.0785029,5.52097,-9.26169,11.9468,22.815,-0.0311505,22.785,0.764863,21.5678,-23.1672,10.7072,-13.0768,-0.00301548,0.0550641,0.102738,-0.035878,-1.63115,0.0351171,0.129861,0.0147522,-0.00896294,0.0398002,0.00856172,0.00712545,1.11189,-1.1897,0.00259981,0,0,0,0,0,0,0,9.771,-42.1593,9.21297,20.5994,2.5476,-2.93434,-0.0227812,
0.059941,0.101511,-0.0311515,-1.64115,0.0735003,0.0909187,0.0148412,0.150813,-0.00874855,0.142783,-0.201422,0.948277,-0.97848,0.00152842,2.09163,-1.54762,2.12087,-13.5343,3.30117,26.7422,-0.0849522,26.1915,3.2449,24.8317,-29.5905,10.6541,-13.4143,0.00273571,0.056235,0.102445,-0.0315122,-1.63513,0.0745731,0.0754654,0.0147581,0.0941379,-0.0435846,0.155222,-0.263172,1.0677,-1.65778,0.000712995,12.8876,-10.4231,18.3325,-33.7872,-5.52373,-58.5109,-0.235851,18.9751,-31.3524,17.0603,14.696,3.30566,-2.31727,-0.0703886,
0.0613233,0.101418,-0.0298374,-1.64349,0.081408,0.0853,0.0148504,0.155209,-0.00931262,0.147077,-0.219685,0.956314,-0.923253,0.00145311,2.74738,-0.35254,2.68352,-11.4144,5.02264,34.5172,-0.0470698,24.6552,2.48209,23.3894,-29.3008,10.6541,-11.2145,-0.00601088,0.056235,0.102445,-0.0315122,-1.63513,0.0745731,0.0754654,0.0147581,0.0941379,-0.0435846,0.155222,-0.263172,1.0677,-1.65778,0.000712995,0,0,0,0,0,0,0,18.9751,-31.3524,17.0603,14.696,3.30566,-2.31727,-0.0703886,
0.0627491,0.101373,-0.0284834,-1.64584,0.0894523,0.0805098,0.0148645,0.159813,-0.00858608,0.151514,-0.234588,0.966159,-0.858357,0.00151407,2.87737,0.454086,2.77288,-9.31449,6.15344,40.56,0.0381006,23.3797,1.8445,22.1848,-29.0229,10.6541,-9.28433,-0.00600471,0.056235,0.102445,-0.0315122,-1.63513,0.0745731,0.0754654,0.0147581,0.0941379,-0.0435846,0.155222,-0.263172,1.0677,-1.65778,0.000712995,0,0,0,0,0,0,0,18.9751,-31.3524,17.0603,14.696,3.30566,-2.31727,-0.0703886,
0.0641999,0.101365,-0.0271064,-1.64819,0.0976104,0.0765096,0.0148839,0.164119,-0.0070669,0.155636,-0.246336,0.97688,-0.78669,0.00169586,2.69129,0.949488,2.57655,-7.34236,6.70037,44.792,0.113619,22.2936,1.34319,21.1567,-28.7367,10.6541,-7.59522,-0.00514053,0.056235,0.102445,-0.0315122,-1.63513,0.0745731,0.0754654,0.0147581,0.0941379,-0.0435846,0.155222,-0.263172,1.0677,-1.65778,0.000712995,0,0,0,0,0,0,0,18.9751,-31.3524,17.0603,14.696,3.30566,-2.31727,-0.0703886,
0.0636892,0.101704,-0.0243885,-1.6492,0.115095,0.0313344,0.0148358,0.172009,-0.00561939,0.163164,-0.26935,0.985982,-0.790337,0.00166257,4.93138,0.904696,4.70468,-14.384,5.6892,-2.27929,-0.020806,26.0996,3.46304,24.7142,-34.8057,10.6671,-10.6923,0.00679828,0.0635034,0.100497,-0.0256762,-1.64867,0.1143,0.015909,0.0147643,0.175191,-0.0539394,0.321299,-0.431354,1.18145,-1.75539,-0.000793826,10.1316,-1.29435,20.7596,-21.0227,14.2188,-12.2005,-0.188353,17.0708,-30.4796,16.1359,20.7501,4.56909,-0.699533,-0.083206,
0.0653285,0.101742,-0.0228331,-1.65207,0.123347,0.025876,0.0148502,0.17859,-0.00353023,0.169415,-0.28724,0.995067,-0.76873,0.00168995,4.11298,1.30572,3.90716,-11.181,5.67775,13.5039,0.017113,24.6413,2.55562,23.3518,-34.5536,10.6671,-8.88472,-0.00163087,0.0635034,0.100497,-0.0256762,-1.64867,0.1143,0.015909,0.0147643,0.175191,-0.0539394,0.321299,-0.431354,1.18145,-1.75539,-0.000793826,0,0,0,0,0,0,0,17.0708,-30.4796,16.1359,20.7501,4.56909,-0.699533,-0.083206,
0.0669643,0.101806,-0.0212813,-1.65491,0.131656,0.021296,0.0148692,0.183768,-0.00123813,0.174328,-0.300675,1.0038,-0.729483,0.00182718,3.23648,1.43256,3.07051,-8.39691,5.45568,24.5293,0.0857687,23.4516,1.88285,22.2331,-34.2549,10.6671,-7.32431,-4.45691e-05,0.0635034,0.100497,-0.0256762,-1.64867,0.1143,0.015909,0.0147643,0.175191,-0.0539394,0.321299,-0.431354,1.18145,-1.75539,-0.000793826,0,0,0,0,0,0,0,17.0708,-30.4796,16.1359,20.7501,4.56909,-0.699533,-0.083206,
0.07334,0.0998811,-0.0162978,-1.66687,0.159205,-0.0123471,0.0147751,0.194151,-0.00085008,0.184212,-0.326925,1.0221,-0.637916,0.00168592,6.48888,0.24253,6.17732,-16.4065,11.4424,57.2296,-0.0882877,23.348,-0.036961,22.151,-40.1547,10.6671,-2.4184,-0.0088279,0.0635034,0.100497,-0.0256762,-1.64867,0.1143,0.015909,0.0147643,0.175191,-0.0539394,0.321299,-0.431354,1.18145,-1.75539,-0.000793826,0,0,0,0,0,0,0,17.0708,-30.4796,16.1359,20.7501,4.56909,-0.699533,-0.083206,
0.0751717,0.0998977,-0.0145599,-1.67023,0.167898,-0.0134389,0.0147936,0.201113,-0.000264652,0.190818,-0.345492,1.035,-0.537629,0.00181202,4.35134,0.365892,4.12911,-11.6043,8.06176,62.6797,0.0788144,22.5551,-1.07873,21.3709,-39.0011,10.6294,-0.663433,-0.0149353,0.075379,0.0984434,-0.0148258,-1.6674,0.155675,-0.0328975,0.0147799,0.474769,-0.0560007,0.249123,-0.723184,1.24827,-1.05466,0.000893196,37.4473,-0.257664,-9.02201,-36.4787,8.35308,87.5906,0.210878,9.51709,-30.1027,8.78847,24.9356,3.72039,2.48284,-0.137222,
0.0769483,0.0999142,-0.0128748,-1.6735,0.17653,-0.013651,0.01482,0.205305,0.000198866,0.194782,-0.35805,1.0438,-0.435405,0.00210771,2.62019,0.289699,2.47728,-7.84899,5.50139,63.89,0.184802,21.6761,-1.37476,20.5467,-38.5701,10.6294,0.347766,-0.00750278,0.075379,0.0984434,-0.0148258,-1.6674,0.155675,-0.0328975,0.0147799,0.474769,-0.0560007,0.249123,-0.723184,1.24827,-1.05466,0.000893196,0,0,0,0,0,0,0,9.51709,-30.1027,8.78847,24.9356,3.72039,2.48284,-0.137222,
0.0786696,0.0999248,-0.0112419,-1.67668,0.185108,-0.0131428,0.0148538,0.207277,0.000425716,0.196648,-0.365926,1.04948,-0.335619,0.00253316,1.23267,0.141781,1.16652,-4.92198,3.54854,62.3659,0.26591,20.9286,-1.52773,19.8454,-38.0982,10.6294,1.20211,0.000313214,0.075379,0.0984434,-0.0148258,-1.6674,0.155675,-0.0328975,0.0147799,0.474769,-0.0560007,0.249123,-0.723184,1.24827,-1.05466,0.000893196,0,0,0,0,0,0,0,9.51709,-30.1027,8.78847,24.9356,3.72039,2.48284,-0.137222,
0.0873563,0.0993876,-0.00347459,-1.68876,0.203001,-0.0367787,0.0147969,0.217729,0.00577566,0.206618,-0.388216,1.06767,-0.207844,0.00267798,6.53237,3.34371,6.23121,-13.9317,11.3649,79.8593,0.090511,20.4928,-1.6635,19.474,-43.6197,10.6294,6.28791,-0.0187377,0.075379,0.0984434,-0.0148258,-1.6674,0.155675,-0.0328975,0.0147799,0.474769,-0.0560007,0.249123,-0.723184,1.24827,-1.05466,0.000893196,0,0,0,0,0,0,0,9.51709,-30.1027,8.78847,24.9356,3.72039,2.48284,-0.137222,
0.0893136,0.0995764,-0.00161577,-1.69242,0.211967,-0.0335394,0.0148373,0.223114,0.00933932,0.211765,-0.402238,1.07827,-0.0852945,0.00315188,3.36554,2.22729,3.21687,-8.7633,6.62755,76.5935,0.296187,20.0013,-1.64545,19.0298,-43.0982,10.6294,6.66851,-0.00114372,0.075379,0.0984434,-0.0148258,-1.6674,0.155675,-0.0328975,0.0147799,0.474769,-0.0560007,0.249123,-0.723184,1.24827,-1.05466,0.000893196,0,0,0,0,0,0,0,9.51709,-30.1027,8.78847,24.9356,3.72039,2.48284,-0.137222,
0.0911634,0.0997352,0.000141178,-1.69596,0.220796,-0.0297186,0.0148856,0.224736,0.0114418,0.213336,-0.410159,1.08335,0.0272855,0.00372929,1.01403,1.31406,0.981593,-4.95075,3.17533,70.3625,0.360879,19.6024,-1.44903,18.6096,-42.1882,10.5474,7.42996,0.0105352,0.0889197,0.0981407,0.000640508,-1.69114,0.199845,-0.0695093,0.0147852,0.353575,-0.0187029,0.562528,-0.817469,1.39105,-0.920932,0.000619434,-15.1493,4.66223,39.1756,-11.7857,17.847,16.7165,-0.0342203,6.47419,-35.1967,6.13832,23.0154,3.33587,2.97997,-0.103348,
0.0929166,0.099867,0.00180509,-1.69938,0.229509,-0.025489,0.0149418,0.223619,0.0124498,0.212266,-0.413594,1.0845,0.127569,0.00438777,-0.698582,0.629996,-0.668332,-2.14721,0.71641,62.6772,0.41155,19.1446,-1.24282,18.1878,-41.5984,10.5474,7.59763,0.0246553,0.0889197,0.0981407,0.000640508,-1.69114,0.199845,-0.0695093,0.0147852,0.353575,-0.0187029,0.562528,-0.817469,1.39105,-0.920932,0.000619434,0,0,0,0,0,0,0,6.47419,-35.1967,6.13832,23.0154,3.33587,2.97997,-0.103348,
0.102412,0.0997598,0.0134757,-1.71446,0.250701,-0.0609334,0.0148824,0.233752,0.0168318,0.221901,-0.431986,1.10501,0.232559,0.00462621,6.33313,2.73875,6.02137,-11.4948,12.8233,65.6184,0.149026,17.4911,-3.41488,16.6443,-45.4534,10.5474,11.9053,0.00505437,0.0889197,0.0981407,0.000640508,-1.69114,0.199845,-0.0695093,0.0147852,0.353575,-0.0187029,0.562528,-0.817469,1.39105,-0.920932,0.000619434,0,0,0,0,0,0,0,6.47419,-35.1967,6.13832,23.0154,3.33587,2.97997,-0.103348,
0.104423,0.0999824,0.0153859,-1.7183,0.259935,-0.0549865,0.0149377,0.237286,0.0190308,0.225277,-0.441706,1.11486,0.33472,0.00508269,2.20916,1.37434,2.10997,-6.0749,6.15324,63.8507,0.285304,17.3281,-2.94915,16.5084,-44.7917,10.5474,11.9053,0.0316041,0.0889197,0.0981407,0.000640508,-1.69114,0.199845,-0.0695093,0.0147852,0.353575,-0.0187029,0.562528,-0.817469,1.39105,-0.920932,0.000619434,0,0,0,0,0,0,0,6.47419,-35.1967,6.13832,23.0154,3.33587,2.97997,-0.103348,
0.106276,0.100158,0.0171447,-1.72198,0.26895,-0.0485958,0.0149967,0.236135,0.0196063,0.224192,-0.445307,1.11724,0.427543,0.00554138,-0.719405,0.359717,-0.67797,-2.25059,1.49009,58.0148,0.28668,16.9531,-2.92292,16.1039,-43.4244,10.3097,12.2732,0.0392152,0.107734,0.0981087,0.0147566,-1.72613,0.248297,-0.0784791,0.0148016,0.567647,0.0265984,0.40939,-1.10797,1.49799,0.0318907,0.000949446,26.7591,5.66265,-19.1422,-36.3123,13.3676,119.103,0.0412514,2.0586,-37.9659,2.38923,32.8583,2.41943,5.64507,-0.117081,
0.121325,0.101611,0.0276547,-1.75129,0.295135,-0.0592918,0.0149298,0.242347,0.0254388,0.230255,-0.462039,1.07438,0.496394,0.00545791,3.88215,3.64532,3.78964,-10.4577,-26.7872,43.0316,-0.052168,13.0312,-6.26926,12.4387,-47.6472,10.3097,12.2732,0.014761,0.107734,0.0981087,0.0147566,-1.72613,0.248297,-0.0784791,0.0148016,0.567647,0.0265984,0.40939,-1.10797,1.49799,0.0318907,0.000949446,0,0,0,0,0,0,0,2.0586,-37.9659,2.38923,32.8583,2.41943,5.64507,-0.117081,
0.123292,0.101882,0.0295289,-1.75529,0.300994,-0.0524458,0.0149718,0.243057,0.0271297,0.231059,-0.469538,1.00598,0.568265,0.00541607,0.444181,1.05679,0.502019,-4.68716,-42.7551,44.9197,-0.0261495,13.1794,-5.29159,12.6146,-46.8618,9.51248,12.2732,0.0502929,0.107734,0.0981087,0.0147566,-1.72613,0.248297,-0.0784791,0.0148016,0.567647,0.0265984,0.40939,-1.10797,1.49799,0.0318907,0.000949446,0,0,0,0,0,0,0,2.0586,-37.9659,2.38923,32.8583,2.41943,5.64507,-0.117081,
0.125119,0.102062,0.0312694,-1.75909,0.305555,-0.0450869,0.0150139,0.240114,0.0262068,0.22836,-0.470728,0.918814,0.638584,0.00538539,-1.83978,-0.576793,-1.68646,-0.743315,-54.4763,43.9494,-0.0191777,13.001,-4.36774,12.4699,-46.1126,8.86163,12.2732,0.06583,0.107734,0.0981087,0.0147566,-1.72613,0.248297,-0.0784791,0.0148016,0.567647,0.0265984,0.40939,-1.10797,1.49799,0.0318907,0.000949446,0,0,0,0,0,0,0,2.0586,-37.9659,2.38923,32.8583,2.41943,5.64507,-0.117081,
0.126829,0.102174,0.032899,-1.76274,0.30892,-0.0373353,0.0150592,0.234844,0.0237738,0.223428,-0.467732,0.819182,0.704657,0.00544145,-3.29334,-1.52063,-3.0829,1.8725,-62.2697,41.2954,0.0350394,12.6363,-3.96048,11.9395,-44.9663,6.75859,12.4051,0.0651321,0.123565,0.0990656,0.0349122,-1.76084,0.300057,-0.0628335,0.0148175,0.539687,0.0485272,0.521269,-0.974345,1.51969,0.788865,-0.00122135,-3.49508,2.74111,13.9848,16.7028,2.71303,94.6217,-0.271349,-2.4046,-35.9941,-2.53813,27.677,1.70532,6.31524,-0.0026396,
0.137801,0.101188,0.048452,-1.7841,0.327441,-0.0312178,0.0148369,0.242189,0.0219795,0.230509,-0.474521,0.703966,0.745432,0.00511347,4.59031,-1.12148,4.42596,-4.24354,-72.0102,25.4843,-0.204987,8.9942,-8.14166,8.39029,-49.0955,2.97781,12.4051,0.0124974,0.123565,0.0990656,0.0349122,-1.76084,0.300057,-0.0628335,0.0148175,0.539687,0.0485272,0.521269,-0.974345,1.51969,0.788865,-0.00122135,0,0,0,0,0,0,0,-2.4046,-35.9941,-2.53813,27.677,1.70532,6.31524,-0.0026396,
0.139766,0.101226,0.0503256,-1.78795,0.328109,-0.0235859,0.0148794,0.242871,0.0185185,0.231246,-0.475859,0.579872,0.787142,0.0051546,0.426213,-2.16312,0.460528,-0.835731,-77.5588,26.0691,0.0257018,9.52645,-6.29328,8.88245,-47.9848,1.02815,12.4051,0.0245271,0.123565,0.0990656,0.0349122,-1.76084,0.300057,-0.0628335,0.0148175,0.539687,0.0485272,0.521269,-0.974345,1.51969,0.788865,-0.00122135,0,0,0,0,0,0,0,-2.4046,-35.9941,-2.53813,27.677,1.70532,6.31524,-0.0026396,
0.141563,0.101209,0.0520402,-1.79167,0.327733,-0.0156553,0.0149312,0.239234,0.014399,0.227862,-0.47367,0.454487,0.82798,0.0054187,-2.27298,-2.5747,-2.11515,1.36801,-78.3658,25.5235,0.165062,10.0437,-4.79104,9.38833,-46.9328,-0.454725,12.4051,0.0319092,0.123565,0.0990656,0.0349122,-1.76084,0.300057,-0.0628335,0.0148175,0.539687,0.0485272,0.521269,-0.974345,1.51969,0.788865,-0.00122135,0,0,0,0,0,0,0,-2.4046,-35.9941,-2.53813,27.677,1.70532,6.31524,-0.0026396,
0.143226,0.101158,0.0536266,-1.79528,0.326513,-0.00748264,0.0149923,0.232955,0.0102316,0.221949,-0.469272,0.333105,0.8667,0.00586085,-3.92465,-2.60457,-3.69525,2.74875,-75.8634,24.2002,0.276344,10.5927,-3.83985,9.86884,-45.9002,-1.8034,12.3051,0.0412906,0.142649,0.0988342,0.0511129,-1.79727,0.350665,-0.0215338,0.0148494,0.446143,0.0279826,0.559015,-1.08821,1.29533,1.35261,0.00127476,-11.693,-2.56808,4.71832,-14.2331,-28.0455,70.4682,0.312013,-9.17279,-39.4615,-8.40972,28.9941,-0.200809,4.24615,-0.0301054,
0.156625,0.102311,0.0644479,-1.81888,0.362171,0.0158919,0.0150536,0.240235,0.0160239,0.228853,-0.469235,0.249666,0.886392,0.00614737,4.55031,3.62017,4.31501,0.0228274,-52.1494,12.3072,0.179077,11.1056,-2.94935,10.3899,-44.9811,-2.69966,12.3051,0.0484702,0.142649,0.0988342,0.0511129,-1.79727,0.350665,-0.0215338,0.0148494,0.446143,0.0279826,0.559015,-1.08821,1.29533,1.35261,0.00127476,0,0,0,0,0,0,0,-9.17279,-39.4615,-8.40972,28.9941,-0.200809,4.24615,-0.0301054,
0.158573,0.102512,0.0663021,-1.82251,0.360694,0.0238269,0.0151204,0.240883,0.017825,0.229436,-0.466159,0.162802,0.907489,0.00658744,0.404772,1.1257,0.36394,1.92244,-54.2898,13.1855,0.275044,11.5988,-2.29853,10.8924,-44.1232,-3.40645,12.3051,0.0576187,0.142649,0.0988342,0.0511129,-1.79727,0.350665,-0.0215338,0.0148494,0.446143,0.0279826,0.559015,-1.08821,1.29533,1.35261,0.00127476,0,0,0,0,0,0,0,-9.17279,-39.4615,-8.40972,28.9941,-0.200809,4.24615,-0.0301054,
0.160353,0.102631,0.0679958,-1.82604,0.358631,0.0319527,0.015193,0.237197,0.0172548,0.225891,-0.461169,0.0786788,0.929138,0.00708598,-2.30376,-0.356408,-2.21549,3.11918,-52.5773,13.5305,0.311587,12.0463,-1.84074,11.3552,-43.3173,-3.89163,12.3051,0.0643161,0.142649,0.0988342,0.0511129,-1.79727,0.350665,-0.0215338,0.0148494,0.446143,0.0279826,0.559015,-1.08821,1.29533,1.35261,0.00127476,0,0,0,0,0,0,0,-9.17279,-39.4615,-8.40972,28.9941,-0.200809,4.24615,-0.0301054,
0.172153,0.103774,0.0790299,-1.85281,0.370276,0.0690715,0.0152287,0.238251,0.0239083,0.226657,-0.459135,0.0033968,0.940683,0.00753402,0.658938,4.15845,0.479058,1.27075,-47.0512,7.21614,0.280024,12.4782,-1.44638,11.767,-41.9927,-4.58689,12.0629,0.0880082,0.159484,0.0999501,0.0670485,-1.83211,0.376879,0.0290491,0.0148964,0.461784,0.0148673,0.474259,-1.06543,0.30064,1.57626,-0.000639783,1.95513,-1.63941,-10.5945,2.84776,-124.336,27.956,-0.239317,-10.6446,-41.4095,-9.90935,24.3127,-1.15937,2.16424,-0.0227812,
0.173914,0.10406,0.0806993,-1.8563,0.367662,0.0771104,0.0153074,0.234636,0.026267,0.223059,-0.454589,-0.0626328,0.95352,0.00799433,-2.25962,1.4742,-2.24868,2.84152,-41.2685,8.0231,0.287695,12.7703,-1.33411,12.0751,-41.2955,-4.68954,12.0629,0.093769,0.159484,0.0999501,0.0670485,-1.83211,0.376879,0.0290491,0.0148964,0.461784,0.0148673,0.474259,-1.06543,0.30064,1.57626,-0.000639783,0,0,0,0,0,0,0,-10.6446,-41.4095,-9.90935,24.3127,-1.15937,2.16424,-0.0227812,
0.175533,0.104257,0.0822343,-1.85969,0.364912,0.0852908,0.0153882,0.228192,0.025956,0.216822,-0.448422,-0.118867,0.967325,0.0084165,-4.02748,-0.194379,-3.89823,3.85458,-35.1465,8.62822,0.263856,13.0032,-1.27846,12.326,-40.6202,-4.68085,12.0629,0.097317,0.159484,0.0999501,0.0670485,-1.83211,0.376879,0.0290491,0.0148964,0.461784,0.0148673,0.474259,-1.06543,0.30064,1.57626,-0.000639783,0,0,0,0,0,0,0,-10.6446,-41.4095,-9.90935,24.3127,-1.15937,2.16424,-0.0227812,
0.177039,0.10439,0.083662,-1.86299,0.362095,0.0935999,0.0154711,0.220195,0.0240758,0.20915,-0.441239,-0.16552,0.981589,0.00880533,-4.99817,-1.17513,-4.79499,4.48939,-29.1582,8.9146,0.24302,13.1863,-1.26066,12.5248,-39.9618,-4.6181,12.0629,0.100895,0.159484,0.0999501,0.0670485,-1.83211,0.376879,0.0290491,0.0148964,0.461784,0.0148673,0.474259,-1.06543,0.30064,1.57626,-0.000639783,0,0,0,0,0,0,0,-10.6446,-41.4095,-9.90935,24.3127,-1.15937,2.16424,-0.0227812,
0.172232,0.103983,0.0791293,-1.852,0.371119,0.0687532,0.0152597,0.224895,0.0300824,0.213584,-0.438908,-0.182368,0.981561,0.00891874,2.9377,3.75412,2.77129,1.45685,-10.5299,-0.0173956,0.0708813,13.3053,-1.25144,12.6078,-39.6224,-4.52955,11.8371,0.107382,0.176048,0.0997077,0.0820132,-1.86787,0.378903,0.0870725,0.0149715,0.496113,-0.0522005,0.398875,-1.01821,-0.0795963,1.8088,0.00821728,4.29112,-8.38348,-9.42308,5.90196,-47.5296,29.0671,1.10713,-8.33569,-34.3199,-7.56072,25.4077,-0.670475,0.440298,-0.0703886,
0.173998,0.104294,0.0808061,-1.85531,0.368972,0.0767531,0.0153369,0.224055,0.0318278,0.212787,-0.434031,-0.19957,0.985248,0.00906426,-0.525169,1.09089,-0.498279,3.0482,-10.7511,2.30436,0.0909481,13.3951,-1.26685,12.7116,-38.9863,-4.36971,11.8371,0.108771,0.176048,0.0997077,0.0820132,-1.86787,0.378903,0.0870725,0.0149715,0.496113,-0.0522005,0.398875,-1.01821,-0.0795963,1.8088,0.00821728,0,0,0,0,0,0,0,-8.33569,-34.3199,-7.56072,25.4077,-0.670475,0.440298,-0.0703886,
0.175616,0.104515,0.0823429,-1.85852,0.366754,0.084897,0.0154149,0.219689,0.0309948,0.20865,-0.42747,-0.215092,0.991796,0.00920232,-2.72826,-0.520623,-2.58545,4.10054,-9.70117,4.09238,0.0862875,13.4468,-1.28437,12.777,-38.3582,-4.17731,11.8371,0.108652,0.176048,0.0997077,0.0820132,-1.86787,0.378903,0.0870725,0.0149715,0.496113,-0.0522005,0.398875,-1.01821,-0.0795963,1.8088,0.00821728,0,0,0,0,0,0,0,-8.33569,-34.3199,-7.56072,25.4077,-0.670475,0.440298,-0.0703886,
0.177114,0.104672,0.0837663,-1.86164,0.364526,0.0931713,0.0154931,0.21321,0.0287163,0.202504,-0.41983,-0.227787,1.00029,0.00931602,-4.04949,-1.42409,-3.84121,4.77512,-7.93469,5.31146,0.0710664,13.4703,-1.29921,12.8152,-37.7389,-3.99182,11.8371,0.109088,0.176048,0.0997077,0.0820132,-1.86787,0.378903,0.0870725,0.0149715,0.496113,-0.0522005,0.398875,-1.01821,-0.0795963,1.8088,0.00821728,0,0,0,0,0,0,0,-8.33569,-34.3199,-7.56072,25.4077,-0.670475,0.440298,-0.0703886,
0.187896,0.10263,0.0931811,-1.88619,0.369728,0.129819,0.0153293,0.215351,0.0312064,0.20443,-0.415064,-0.228071,1.00238,0.00920507,1.33774,1.55632,1.20364,2.97821,-0.177511,1.30583,-0.0693472,13.2889,-1.22862,12.6227,-37.3784,-3.76809,11.6247,0.111535,0.190393,0.100268,0.0968095,-1.89986,0.370897,0.150205,0.0151902,0.483517,0.0469192,0.335922,-0.909668,-0.297475,1.89378,0.00784451,-1.5745,12.39,-7.86908,13.5681,-27.2348,10.6233,-0.0465955,-5.92755,-37.2398,-5.38664,24.1144,0.116879,-0.660166,0.0980684,
0.189521,0.102869,0.0947212,-1.88925,0.367926,0.137971,0.0154003,0.212897,0.0309313,0.202047,-0.40857,-0.227499,1.00569,0.00913825,-1.53352,-0.171941,-1.48931,4.05925,0.357704,2.06423,-0.0417592,13.2423,-1.19376,12.5927,-36.756,-3.55455,11.6247,0.110629,0.190393,0.100268,0.0968095,-1.89986,0.370897,0.150205,0.0151902,0.483517,0.0469192,0.335922,-0.909668,-0.297475,1.89378,0.00784451,0,0,0,0,0,0,0,-5.92755,-37.2398,-5.38664,24.1144,0.116879,-0.660166,0.0980684,
0.191013,0.103041,0.0961367,-1.89221,0.366171,0.146205,0.0154711,0.207636,0.0290528,0.197024,-0.400978,-0.225862,1.01041,0.00908014,-3.28805,-1.17404,-3.13974,4.74487,1.02318,2.9525,-0.0363236,13.1682,-1.13173,12.5306,-36.1203,-3.32871,11.6247,0.108932,0.190393,0.100268,0.0968095,-1.89986,0.370897,0.150205,0.0151902,0.483517,0.0469192,0.335922,-0.909668,-0.297475,1.89378,0.00784451,0,0,0,0,0,0,0,-5.92755,-37.2398,-5.38664,24.1144,0.116879,-0.660166,0.0980684,
0.201032,0.104267,0.106762,-1.91728,0.360742,0.194638,0.0155049,0.206225,0.0343598,0.195424,-0.39594,-0.219773,1.01177,0.00881248,-0.88215,3.31689,-1,3.14857,3.80577,0.847452,-0.167283,12.9545,-0.980512,12.3339,-34.8269,-2.88551,11.6247,0.104521,0.190393,0.100268,0.0968095,-1.89986,0.370897,0.150205,0.0151902,0.483517,0.0469192,0.335922,-0.909668,-0.297475,1.89378,0.00784451,0,0,0,0,0,0,0,-5.92755,-37.2398,-5.38664,24.1144,0.116879,-0.660166,0.0980684,
0.202494,0.104599,0.108141,-1.92018,0.359302,0.20278,0.0155672,0.201528,0.0357817,0.190815,-0.389038,-0.211817,1.01297,0.00860621,-2.93569,0.888688,-2.88061,4.31358,4.97206,0.752124,-0.128922,12.8212,-0.907102,12.2076,-34.1755,-2.67509,11.6247,0.101851,0.190393,0.100268,0.0968095,-1.89986,0.370897,0.150205,0.0151902,0.483517,0.0469192,0.335922,-0.909668,-0.297475,1.89378,0.00784451,0,0,0,0,0,0,0,-5.92755,-37.2398,-5.38664,24.1144,0.116879,-0.660166,0.0980684,
0.20384,0.104849,0.10941,-1.92294,0.357962,0.21079,0.0156284,0.194876,0.0348771,0.184379,-0.380354,-0.202937,1.01062,0.00841504,-4.15723,-0.565405,-4.02212,5.42747,5.55059,-1.46808,-0.119478,12.6554,-0.865952,12.0095,-33.5341,-2.34713,11.4707,0.0993945,0.204087,0.1021,0.110047,-1.92947,0.359941,0.211895,0.0153701,0.434631,0.102323,0.338284,-0.886472,-0.309832,1.80314,0.00352222,-6.11064,6.92551,0.295205,2.89952,-1.5447,-11.3307,-0.540287,-3.13855,-40.612,-2.81188,27.2763,1.05804,1.6607,0.050461,
0.20509,0.105035,0.110589,-1.92559,0.356712,0.218572,0.0156883,0.187163,0.0325343,0.17696,-0.370435,-0.193606,1.00304,0.00822897,-4.82048,-1.46422,-4.63726,6.1998,5.83134,-4.73653,-0.116295,12.4971,-0.806768,11.8577,-32.8822,-2.15796,11.4707,0.0962681,0.204087,0.1021,0.110047,-1.92947,0.359941,0.211895,0.0153701,0.434631,0.102323,0.338284,-0.886472,-0.309832,1.80314,0.00352222,0,0,0,0,0,0,0,-3.13855,-40.612,-2.81188,27.2763,1.05804,1.6607,0.050461,
0.214036,0.10698,0.119307,-1.94629,0.351364,0.252699,0.0156339,0.186921,0.0396161,0.176392,-0.366427,-0.183616,0.977604,0.00788076,-0.151196,4.42612,-0.354817,2.50469,6.24389,-15.899,-0.21763,12.3297,-0.75526,11.6968,-32.2308,-1.97998,11.4707,0.0929541,0.204087,0.1021,0.110047,-1.92947,0.359941,0.211895,0.0153701,0.434631,0.102323,0.338284,-0.886472,-0.309832,1.80314,0.00352222,0,0,0,0,0,0,0,-3.13855,-40.612,-2.81188,27.2763,1.05804,1.6607,0.050461,
0.215384,0.107382,0.12057,-1.94895,0.350337,0.259381,0.0156864,0.183237,0.0417421,0.172693,-0.359575,-0.172568,0.949123,0.00761849,-2.30279,1.32875,-2.31176,4.28253,6.90525,-17.8006,-0.163924,12.1556,-0.71154,11.5292,-31.5807,-1.81478,11.4707,0.0895723,0.204087,0.1021,0.110047,-1.92947,0.359941,0.211895,0.0153701,0.434631,0.102323,0.338284,-0.886472,-0.309832,1.80314,0.00352222,0,0,0,0,0,0,0,-3.13855,-40.612,-2.81188,27.2763,1.05804,1.6607,0.050461,
0.216622,0.107675,0.121731,-1.95148,0.349399,0.265761,0.0157388,0.177546,0.0407166,0.167174,-0.350951,-0.161503,0.918812,0.00740375,-3.55707,-0.640956,-3.44945,5.39036,6.91546,-18.9442,-0.134208,11.9984,-0.708619,11.3329,-30.9837,-1.55572,10.6687,0.0868503,0.216633,0.10435,0.122482,-1.9582,0.349833,0.273466,0.015443,0.390408,0.0966768,0.344356,-0.860126,-0.313552,1.76982,0.00257879,-5.52796,-0.705802,0.758963,3.29316,-0.46488,-4.16413,-0.117929,-2.35302,-39.7392,-1.8637,29.5932,2.35901,2.24389,-0.0227812,
0.214036,0.10698,0.119307,-1.94629,0.351364,0.252699,0.0156339,0.179227,0.0461619,0.168564,-0.35084,-0.157934,0.91022,0.00722059,1.05102,3.40333,0.868387,0.0691737,2.23097,-5.37024,-0.114477,11.622,-0.654258,10.9709,-29.6789,-1.32163,9.40758,0.0810529,0.216633,0.10435,0.122482,-1.9582,0.349833,0.273466,0.015443,0.390408,0.0966768,0.344356,-0.860126,-0.313552,1.76982,0.00257879,0,0,0,0,0,0,0,-2.35302,-39.7392,-1.8637,29.5932,2.35901,2.24389,-0.0227812,
0.227131,0.109353,0.132213,-1.97606,0.34196,0.312523,0.0157003,0.174495,0.0459385,0.163906,-0.34113,-0.143948,0.855331,0.00689762,-2.95752,-0.139671,-2.91088,6.06884,8.74088,-34.3053,-0.201853,11.4207,-0.635019,10.7774,-29.0233,-1.22868,8.84584,0.0783333,0.216633,0.10435,0.122482,-1.9582,0.349833,0.273466,0.015443,0.390408,0.0966768,0.344356,-0.860126,-0.313552,1.76982,0.00257879,0,0,0,0,0,0,0,-2.35302,-39.7392,-1.8637,29.5932,2.35901,2.24389,-0.0227812,
0.228275,0.109611,0.133283,-1.97836,0.341322,0.317358,0.0157453,0.168215,0.0431926,0.157862,-0.330484,-0.131091,0.80513,0.00664274,-3.92515,-1.71617,-3.77757,6.65383,8.03567,-31.3755,-0.159303,11.211,-0.619677,10.5759,-28.3651,-1.14721,8.32664,0.0756142,0.216633,0.10435,0.122482,-1.9582,0.349833,0.273466,0.015443,0.390408,0.0966768,0.344356,-0.860126,-0.313552,1.76982,0.00257879,0,0,0,0,0,0,0,-2.35302,-39.7392,-1.8637,29.5932,2.35901,2.24389,-0.0227812,
0.22934,0.109791,0.134278,-1.98056,0.340728,0.321969,0.0157899,0.161202,0.0390478,0.15117,-0.319412,-0.119729,0.759393,0.00642871,-4.38304,-2.59052,-4.18267,6.91988,7.10152,-28.5857,-0.133769,11.017,-0.718429,10.3511,-27.7468,-0.967444,7.66265,0.0733379,0.228552,0.106289,0.133706,-1.98488,0.339779,0.332621,0.0154722,0.26876,0.0944315,0.399318,-0.804777,-0.273214,1.70989,0.000348237,-15.2059,-0.280666,6.87032,6.9186,5.04216,-7.49138,-0.278819,-0.754208,-38.7157,0.0644055,28.8712,3.40912,2.23748,0.017502,
0.236835,0.110513,0.141361,-1.99875,0.334062,0.361032,0.015647,0.159786,0.0419223,0.149593,-0.312668,-0.110296,0.712128,0.00608455,-0.885173,1.79656,-0.985443,4.21481,5.89554,-29.5408,-0.2151,10.7957,-0.709408,10.1385,-27.0841,-0.906621,7.21743,0.0706754,0.228552,0.106289,0.133706,-1.98488,0.339779,0.332621,0.0154722,0.26876,0.0944315,0.399318,-0.804777,-0.273214,1.70989,0.000348237,0,0,0,0,0,0,0,-0.754208,-38.7157,0.0644055,28.8712,3.40912,2.23748,0.017502,
0.237957,0.110816,0.142405,-2.00092,0.333559,0.364943,0.0156862,0.155881,0.0411183,0.145782,-0.304331,-0.100809,0.667463,0.00584759,-2.4402,-0.502456,-2.38207,5.21085,5.92908,-27.9156,-0.148097,10.571,-0.702997,9.92257,-26.4192,-0.856016,6.80472,0.0681272,0.228552,0.106289,0.133706,-1.98488,0.339779,0.332621,0.0154722,0.26876,0.0944315,0.399318,-0.804777,-0.273214,1.70989,0.000348237,0,0,0,0,0,0,0,-0.754208,-38.7157,0.0644055,28.8712,3.40912,2.23748,0.017502,
0.238993,0.111027,0.143369,-2.00299,0.333094,0.368644,0.0157259,0.150603,0.0381766,0.140735,-0.295058,-0.0922622,0.6265,0.00567189,-3.29935,-1.83857,-3.15432,5.79546,5.34186,-25.6018,-0.109817,10.3435,-0.698486,9.70409,-25.7516,-0.814357,6.42432,0.0656508,0.228552,0.106289,0.133706,-1.98488,0.339779,0.332621,0.0154722,0.26876,0.0944315,0.399318,-0.804777,-0.273214,1.70989,0.000348237,0,0,0,0,0,0,0,-0.754208,-38.7157,0.0644055,28.8712,3.40912,2.23748,0.017502,
0.23996,0.11117,0.14427,-2.00496,0.332645,0.372173,0.0157658,0.14466,0.0341075,0.135094,-0.285294,-0.0850443,0.589434,0.00553276,-3.71421,-2.54319,-3.52558,6.10249,4.51123,-23.1662,-0.0869549,10.211,-1.00949,9.55444,-24.9825,-0.635107,5.92714,0.062786,0.239897,0.108526,0.142352,-2.00922,0.332469,0.38105,0.015481,0.238173,0.0937299,0.326846,-0.71449,-0.206748,1.26588,-0.00117547,-3.82346,-0.0876973,-9.05904,11.2859,8.30833,-55.5014,-0.190464,-1.03589,-38.6125,0.112013,28.0222,3.06121,2.03881,0.0239107,
0.247162,0.112357,0.14905,-2.02197,0.327862,0.400787,0.0156452,0.143409,0.0371782,0.13373,-0.280396,-0.0804234,0.545472,0.00529817,-0.78182,1.91919,-0.852404,3.06105,2.88806,-27.4765,-0.146617,9.98116,-1.00829,9.33369,-24.3095,-0.611788,5.60405,0.0605783,0.239897,0.108526,0.142352,-2.00922,0.332469,0.38105,0.015481,0.238173,0.0937299,0.326846,-0.71449,-0.206748,1.26588,-0.00117547,0,0,0,0,0,0,0,-1.03589,-38.6125,0.112013,28.0222,3.06121,2.03881,0.0239107,
0.248176,0.112641,0.149991,-2.02394,0.327411,0.403604,0.0156815,0.140079,0.0368418,0.130493,-0.273513,-0.0756052,0.506792,0.00514765,-2.08118,-0.210279,-2.02311,4.3022,3.01133,-24.1751,-0.0940766,9.75125,-1.00862,9.11288,-23.634,-0.598151,5.30652,0.0585854,0.239897,0.108526,0.142352,-2.00922,0.332469,0.38105,0.015481,0.238173,0.0937299,0.326846,-0.71449,-0.206748,1.26588,-0.00117547,0,0,0,0,0,0,0,-1.03589,-38.6125,0.112013,28.0222,3.06121,2.03881,0.0239107,
0.249116,0.112842,0.150863,-2.0258,0.326973,0.40632,0.0157186,0.135575,0.0344777,0.126196,-0.265371,-0.0714433,0.473348,0.00504544,-2.81475,-1.47754,-2.6857,5.08892,2.60119,-20.9022,-0.0638819,9.52144,-1.00995,8.89226,-22.9554,-0.5923,5.03431,0.0567229,0.239897,0.108526,0.142352,-2.00922,0.332469,0.38105,0.015481,0.238173,0.0937299,0.326846,-0.71449,-0.206748,1.26588,-0.00117547,0,0,0,0,0,0,0,-1.03589,-38.6125,0.112013,28.0222,3.06121,2.03881,0.0239107,
0.256525,0.113664,0.156867,-2.04257,0.323638,0.432051,0.0156382,0.134872,0.0352294,0.12542,-0.258247,-0.0673001,0.432111,0.00485722,-0.439791,0.469819,-0.484684,4.45213,2.58955,-25.7734,-0.117638,9.16057,-1.26227,8.52001,-21.4779,-0.49806,4.46545,0.0532392,0.249578,0.11071,0.150478,-2.03126,0.327058,0.418197,0.0154825,0.349807,0.0565993,0.176605,-0.635518,-0.122735,0.956127,-0.000364335,13.9543,-4.64132,-18.78,9.87145,10.5016,-38.7193,0.101392,0.309024,-38.7157,1.61165,29.0219,2.48077,1.70739,0.0101778,
0.257489,0.11388,0.15776,-2.04429,0.323235,0.434136,0.0156729,0.131997,0.0335983,0.122652,-0.249751,-0.0639194,0.397825,0.00475371,-1.79642,-1.01944,-1.73012,5.31001,2.11294,-21.4286,-0.0646921,8.9353,-1.26656,8.30385,-20.7911,-0.516303,4.25758,0.0519839,0.249578,0.11071,0.150478,-2.03126,0.327058,0.418197,0.0154825,0.349807,0.0565993,0.176605,-0.635518,-0.122735,0.956127,-0.000364335,0,0,0,0,0,0,0,0.309024,-38.7157,1.61165,29.0219,2.48077,1.70739,0.0101778,
0.258379,0.114029,0.158583,-2.04592,0.322813,0.43619,0.0157089,0.127851,0.0306039,0.11871,-0.240442,-0.0616971,0.369605,0.00470183,-2.59135,-1.87153,-2.46386,5.81846,1.38894,-17.6372,-0.0324213,8.7127,-1.27132,8.09043,-20.1015,-0.539917,4.06826,0.05089,0.249578,0.11071,0.150478,-2.03126,0.327058,0.418197,0.0154825,0.349807,0.0565993,0.176605,-0.635518,-0.122735,0.956127,-0.000364335,0,0,0,0,0,0,0,0.309024,-38.7157,1.61165,29.0219,2.48077,1.70739,0.0101778,
0.259209,0.114127,0.15935,-2.04745,0.322362,0.438217,0.0157457,0.123026,0.0269172,0.114138,-0.230697,-0.0606275,0.346352,0.0046824,-3.01598,-2.30415,-2.85771,6.09054,0.668449,-14.5336,-0.0121497,8.49398,-1.27676,7.88084,-19.4098,-0.569375,3.89437,0.0500387,0.249578,0.11071,0.150478,-2.03126,0.327058,0.418197,0.0154825,0.349807,0.0565993,0.176605,-0.635518,-0.122735,0.956127,-0.000364335,0,0,0,0,0,0,0,0.309024,-38.7157,1.61165,29.0219,2.48077,1.70739,0.0101778,
0.256337,0.113794,0.156682,-2.04157,0.323221,0.429765,0.0156297,0.123579,0.029493,0.114576,-0.225225,-0.0609138,0.318221,0.00455491,0.346067,1.60988,0.273778,3.42,-0.178909,-17.5816,-0.0796785,8.29189,-1.51002,7.65341,-18.6442,-0.543187,3.67082,0.0493779,0.256753,0.112546,0.159583,-2.051,0.323486,0.446631,0.0154823,0.291054,0.0373954,0.161048,-0.548975,-0.083209,0.780787,0.000298726,-7.34411,-2.40049,-1.94463,10.8179,4.94072,-21.9175,0.0828826,-0.0956386,-38.5887,0.639662,27.8,1.6925,1.73394,-0.0026396,
0.257249,0.11402,0.157525,-2.04309,0.322732,0.431367,0.0156648,0.121656,0.0292426,0.112729,-0.218025,-0.0609634,0.294625,0.00452089,-1.20211,-0.156499,-1.15428,4.50012,-0.0310302,-14.7474,-0.0212598,8.08384,-1.51574,7.45456,-17.9495,-0.577557,3.5206,0.0489393,0.256753,0.112546,0.159583,-2.051,0.323486,0.446631,0.0154823,0.291054,0.0373954,0.161048,-0.548975,-0.083209,0.780787,0.000298726,0,0,0,0,0,0,0,-0.0956386,-38.5887,0.639662,27.8,1.6925,1.73394,-0.0026396,
0.258086,0.114176,0.158297,-2.0445,0.322237,0.432942,0.0157015,0.118234,0.0273021,0.10949,-0.209724,-0.0611591,0.275087,0.00453496,-2.13893,-1.21285,-2.02456,5.18762,-0.122308,-12.2111,0.00878958,7.88287,-1.52099,7.26286,-17.254,-0.610797,3.37785,0.0487201,0.256753,0.112546,0.159583,-2.051,0.323486,0.446631,0.0154823,0.291054,0.0373954,0.161048,-0.548975,-0.083209,0.780787,0.000298726,0,0,0,0,0,0,0,-0.0956386,-38.5887,0.639662,27.8,1.6925,1.73394,-0.0026396,
0.258861,0.11428,0.159012,-2.04582,0.32173,0.434492,0.0157398,0.11397,0.0244253,0.105463,-0.200757,-0.0615907,0.258809,0.00458662,-2.66496,-1.79797,-2.51646,5.60431,-0.269715,-10.1743,0.0322912,7.69019,-1.52575,7.07955,-16.559,-0.640898,3.23817,0.0487118,0.256753,0.112546,0.159583,-2.051,0.323486,0.446631,0.0154823,0.291054,0.0373954,0.161048,-0.548975,-0.083209,0.780787,0.000298726,0,0,0,0,0,0,0,-0.0956386,-38.5887,0.639662,27.8,1.6925,1.73394,-0.0026396,
0.262674,0.11494,0.165005,-2.05974,0.319993,0.45544,0.0156503,0.113502,0.0254908,0.104918,-0.194494,-0.0613704,0.237427,0.0045935,-0.292359,0.66591,-0.340957,3.91468,0.137688,-13.3634,0.00430056,7.51404,-1.67545,6.88301,-15.761,-0.613855,3.07402,0.0489033,0.265126,0.114387,0.166562,-2.06772,0.321518,0.468592,0.0154792,0.116291,0.0423821,0.336424,-0.469317,-0.0450167,0.560931,-4.4526e-06,-21.8454,0.62333,21.9219,9.95736,4.77405,-27.482,-0.0378973,-0.908932,-40.4375,0.139784,27.3001,1.13678,1.47484,-0.0026396,
0.263486,0.115103,0.16575,-2.06099,0.31954,0.456603,0.0156911,0.111082,0.0244531,0.102576,-0.186873,-0.0604127,0.219016,0.00469412,-1.51276,-0.648533,-1.46331,4.76304,0.598555,-11.5067,0.0628879,7.3396,-1.6776,6.71834,-15.0691,-0.62767,2.93035,0.0495362,0.265126,0.114387,0.166562,-2.06772,0.321518,0.468592,0.0154792,0.116291,0.0423821,0.336424,-0.469317,-0.0450167,0.560931,-4.4526e-06,0,0,0,0,0,0,0,-0.908932,-40.4375,0.139784,27.3001,1.13678,1.47484,-0.0026396,
0.26423,0.115208,0.166433,-2.06215,0.319125,0.457721,0.0157307,0.107473,0.0221922,0.0991334,-0.178439,-0.0587216,0.203162,0.00474684,-2.25532,-1.4131,-2.15195,5.27105,1.05694,-9.90876,0.0329448,7.17234,-1.6778,6.56122,-14.3803,-0.62598,2.77929,0.0499569,0.265126,0.114387,0.166562,-2.06772,0.321518,0.468592,0.0154792,0.116291,0.0423821,0.336424,-0.469317,-0.0450167,0.560931,-4.4526e-06,0,0,0,0,0,0,0,-0.908932,-40.4375,0.139784,27.3001,1.13678,1.47484,-0.0026396,
0.270894,0.116494,0.171888,-2.07519,0.319377,0.473357,0.0156634,0.107619,0.0228867,0.0991876,-0.171075,-0.0553317,0.178024,0.0048945,0.091401,0.434091,0.0338898,4.60252,2.1187,-15.7116,0.0922926,6.87512,-1.6711,6.28215,-13.0152,-0.607727,2.45807,0.0534725,0.265126,0.114387,0.166562,-2.06772,0.321518,0.468592,0.0154792,0.116291,0.0423821,0.336424,-0.469317,-0.0450167,0.560931,-4.4526e-06,0,0,0,0,0,0,0,-0.908932,-40.4375,0.139784,27.3001,1.13678,1.47484,-0.0026396,
0.271674,0.116632,0.172604,-2.07622,0.31903,0.474011,0.0157194,0.105605,0.0217613,0.0972425,-0.162801,-0.0529412,0.158778,0.00531457,-1.25888,-0.703358,-1.21566,5.1717,1.49406,-12.0285,0.262543,6.71378,-1.66101,6.13282,-12.34,-0.564295,2.28311,0.0563,0.265126,0.114387,0.166562,-2.06772,0.321518,0.468592,0.0154792,0.116291,0.0423821,0.336424,-0.469317,-0.0450167,0.560931,-4.4526e-06,0,0,0,0,0,0,0,-0.908932,-40.4375,0.139784,27.3001,1.13678,1.47484,-0.0026396,
0.272375,0.116718,0.173244,-2.07718,0.318784,0.474694,0.0157501,0.102006,0.0195576,0.0937954,-0.154154,-0.0485071,0.144103,0.00501984,-2.24978,-1.37733,-2.15444,5.40402,2.7713,-9.172,-0.184207,6.52205,-1.8306,5.93259,-11.5936,-0.452409,2.07894,0.0538908,0.273915,0.115587,0.17249,-2.08122,0.320107,0.484309,0.0154785,0.301714,0.0262984,0.105152,-0.381651,-0.0319801,0.427074,-8.56896e-05,23.1779,-2.01045,-28.909,10.9582,1.62957,-16.7321,-0.0101546,-1.44055,-38.065,-0.237108,26.4035,0.624081,1.86577,0.00376909,
0.273025,0.116768,0.173836,-2.07806,0.318339,0.475509,0.0157792,0.0978498,0.0168978,0.0898496,-0.145221,-0.0499355,0.135659,0.00474382,-2.5973,-1.6624,-2.46613,5.5835,-0.892731,-5.27774,-0.172514,6.36352,-1.80336,5.77219,-10.9295,-0.501666,1.96356,0.0532072,0.273915,0.115587,0.17249,-2.08122,0.320107,0.484309,0.0154785,0.301714,0.0262984,0.105152,-0.381651,-0.0319801,0.427074,-8.56896e-05,0,0,0,0,0,0,0,-1.44055,-38.065,-0.237108,26.4035,0.624081,1.86577,0.00376909,
0.279065,0.116387,0.17718,-2.08634,0.316466,0.490997,0.0151302,0.0962963,0.0101374,0.088304,-0.131396,-0.0598855,0.140987,0.00405493,-0.970937,-4.22522,-0.966004,8.64035,-6.21875,3.33033,-0.430556,6.22305,-1.78445,5.63356,-10.2904,-0.574586,1.8849,0.0611943,0.273915,0.115587,0.17249,-2.08122,0.320107,0.484309,0.0154785,0.301714,0.0262984,0.105152,-0.381651,-0.0319801,0.427074,-8.56896e-05,0,0,0,0,0,0,0,-1.44055,-38.065,-0.237108,26.4035,0.624081,1.86577,0.00376909,
0.279687,0.116155,0.177745,-2.08685,0.315695,0.492179,0.0151828,0.0925897,0.00232386,0.0847599,-0.11782,-0.0671929,0.142331,0.00455718,-2.31663,-4.88348,-2.21508,8.4853,-4.56717,0.839674,0.313909,5.95926,-1.76221,5.38863,-9.65558,-0.568898,1.84715,0.0749743,0.273915,0.115587,0.17249,-2.08122,0.320107,0.484309,0.0154785,0.301714,0.0262984,0.105152,-0.381651,-0.0319801,0.427074,-8.56896e-05,0,0,0,0,0,0,0,-1.44055,-38.065,-0.237108,26.4035,0.624081,1.86577,0.00376909,
0.280226,0.115854,0.178231,-2.08728,0.31497,0.493212,0.015263,0.0875473,-0.00568776,0.0799589,-0.104985,-0.0718692,0.139691,0.00565011,-3.15153,-5.00726,-3.00062,8.0216,-2.92263,-1.65008,0.683077,5.42159,-1.96153,4.87015,-8.94954,-0.226832,1.74782,0.0440149,0.279409,0.116525,0.180952,-2.09265,0.319327,0.494208,0.0154688,0.205381,0.0298799,0.179859,-0.288304,-0.011123,0.179143,-0.00301018,-12.0416,0.447683,9.33843,11.6683,2.60714,-30.9915,-0.365561,-1.46435,-37.7397,-1.01073,26.0306,0.410763,3.0468,0.0907442,
0.280716,0.115508,0.178674,-2.08764,0.314251,0.494148,0.0153824,0.0822732,-0.0131878,0.0750528,-0.0930584,-0.0754817,0.135176,0.0075075,-3.29627,-4.68752,-3.06631,7.45414,-2.25785,-2.82185,1.16087,5.29095,-1.91799,4.66864,-8.25205,-0.922925,2.06873,0.0328996,0.279409,0.116525,0.180952,-2.09265,0.319327,0.494208,0.0154688,0.205381,0.0298799,0.179859,-0.288304,-0.011123,0.179143,-0.00301018,0,0,0,0,0,0,0,-1.46435,-37.7397,-1.01073,26.0306,0.410763,3.0468,0.0907442,
0.28421,0.116263,0.185376,-2.09587,0.316696,0.499393,0.0151164,0.0822183,-0.0202024,0.0750935,-0.0803525,-0.0767965,0.132781,0.0088352,-0.0343541,-4.38411,0.0254447,7.9412,-0.821731,-1.49686,0.829815,5.29035,-1.94933,4.68906,-7.72784,-1.0002,1.91762,0.0382777,0.279409,0.116525,0.180952,-2.09265,0.319327,0.494208,0.0154688,0.205381,0.0298799,0.179859,-0.288304,-0.011123,0.179143,-0.00301018,0,0,0,0,0,0,0,-1.46435,-37.7397,-1.01073,26.0306,0.410763,3.0468,0.0907442,
0.284765,0.115778,0.185882,-2.09601,0.316058,0.500199,0.0152857,0.0796402,-0.0282989,0.072731,-0.0679994,-0.0773676,0.126371,0.0113004,-1.61129,-5.06033,-1.47659,7.72069,-0.356931,-4.00606,1.54078,5.01993,-1.93997,4.47165,-7.20335,-0.71467,1.7021,0.0413739,0.279409,0.116525,0.180952,-2.09265,0.319327,0.494208,0.0154688,0.205381,0.0298799,0.179859,-0.288304,-0.011123,0.179143,-0.00301018,0,0,0,0,0,0,0,-1.46435,-37.7397,-1.01073,26.0306,0.410763,3.0468,0.0907442,
0.285235,0.115224,0.186308,-2.0961,0.315461,0.500808,0.0154902,0.0754673,-0.0364863,0.0688457,-0.0565549,-0.0768304,0.116318,0.014154,-2.60805,-5.11712,-2.42829,7.15284,0.335737,-6.2833,1.78348,4.73524,-2.06999,4.1892,-6.60031,-0.531452,1.56488,0.0325635,0.28644,0.116658,0.186247,-2.10153,0.318159,0.49967,0.0154717,0.0936976,-0.0112689,0.271816,-0.244816,-0.0487816,0.143383,-0.00272441,-13.9604,-5.1436,11.4946,5.43604,-4.70732,-4.46994,0.0357209,-1.61908,-38.065,-0.76079,27.7246,0.782467,3.6364,0.0641939,
0.285654,0.114632,0.186689,-2.09614,0.314867,0.501288,0.0157379,0.0708516,-0.0439828,0.0645982,-0.0462225,-0.0763174,0.105052,0.0175136,-2.88485,-4.6853,-2.65469,6.45776,0.320591,-7.04091,2.09972,4.67167,-2.0055,4.0665,-6.00011,-1.11797,1.75307,0.0283519,0.28644,0.116658,0.186247,-2.10153,0.318159,0.49967,0.0154717,0.0936976,-0.0112689,0.271816,-0.244816,-0.0487816,0.143383,-0.00272441,0,0,0,0,0,0,0,-1.61908,-38.065,-0.76079,27.7246,0.782467,3.6364,0.0641939,
0.290881,0.115205,0.190398,-2.10307,0.315644,0.504419,0.0158895,0.0717347,-0.0501889,0.0656627,-0.0352585,-0.0766645,0.100777,0.0211209,0.55192,-3.87884,0.66532,6.85248,-0.216904,-2.67165,2.25458,4.77051,-1.99599,4.19067,-5.55631,-1.43989,1.69721,0.149051,0.28644,0.116658,0.186247,-2.10153,0.318159,0.49967,0.0154717,0.0936976,-0.0112689,0.271816,-0.244816,-0.0487816,0.143383,-0.00272441,0,0,0,0,0,0,0,-1.61908,-38.065,-0.76079,27.7246,0.782467,3.6364,0.0641939,
0.291386,0.114521,0.190864,-2.10294,0.31504,0.504939,0.0162668,0.0700147,-0.0572577,0.0641723,-0.024889,-0.0764354,0.0936031,0.0263293,-1.07499,-4.41801,-0.931483,6.48094,0.143212,-4.484,3.25525,4.54189,-1.96576,4.01561,-5.1027,-1.07531,1.4668,0.182593,0.28644,0.116658,0.186247,-2.10153,0.318159,0.49967,0.0154717,0.0936976,-0.0112689,0.271816,-0.244816,-0.0487816,0.143383,-0.00272441,0,0,0,0,0,0,0,-1.61908,-38.065,-0.76079,27.7246,0.782467,3.6364,0.0641939,
