xiao-wang007/linearmpc_panda/paper_data/panda_torque_PD_controller_opt_time_to_start_torque_rate_limiter_low_pass_filter/4/trajectory.csv
Commanded Joint 0 Position,Commanded Joint 1 Position,Commanded Joint 2 Position,Commanded Joint 3 Position,Commanded Joint 4 Position,Commanded Joint 5 Position,Commanded Joint 6 Position,Commanded Joint 0 Velocity,Commanded Joint 1 Velocity,Commanded Joint 2 Velocity,Commanded Joint 3 Velocity,Commanded Joint 4 Velocity,Commanded Joint 5 Velocity,Commanded Joint 6 Velocity,Commanded Joint 0 Acceleration,Commanded Joint 1 Acceleration,Commanded Joint 2 Acceleration,Commanded Joint 3 Acceleration,Commanded Joint 4 Acceleration,Commanded Joint 5 Acceleration,Commanded Joint 6 Acceleration,Commanded Joint 0 Torque,Commanded Joint 1 Torque,Commanded Joint 2 Torque,Commanded Joint 3 Torque,Commanded Joint 4 Torque,Commanded Joint 5 Torque,Commanded Joint 6 Torque,Actual Joint 0 Position,Actual Joint 1 Position,Actual Joint 2 Position,Actual Joint 3 Position,Actual Joint 4 Position,Actual Joint 5 Position,Actual Joint 6 Position,Actual Joint 0 Velocity,Actual Joint 1 Velocity,Actual Joint 2 Velocity,Actual Joint 3 Velocity,Actual Joint 4 Velocity,Actual Joint 5 Velocity,Actual Joint 6 Velocity,Actual Joint 0 Acceleration,Actual Joint 1 Acceleration,Actual Joint 2 Acceleration,Actual Joint 3 Acceleration,Actual Joint 4 Acceleration,Actual Joint 5 Acceleration,Actual Joint 6 Acceleration,Actual Joint 0 Torque,Actual Joint 1 Torque,Actual Joint 2 Torque,Actual Joint 3 Torque,Actual Joint 4 Torque,Actual Joint 5 Torque,Actual Joint 6 Torque,
0.108098,-0.0498803,-0.122903,-1.84884,-0.0127398,0.275556,-0.0239901,-1.05921e-05,0.0208298,-0.000257138,-0.0337362,-0.00334677,0.0535925,-0.00038356,-0.00662008,13.0186,-0.160711,-21.0851,-2.09173,33.4953,-0.239725,0.0584188,22.8641,-0.0858252,-24.4442,-0.560912,1.87726,-0.024273,0.1081,-0.050864,-0.122885,-1.8457,-0.0125625,0.269815,-0.023938,0.00441927,0.000930315,-0.00112147,-0.000919444,-0.0031742,0.000611182,0.000917435,0,0,0,0,0,0,0,0.00751081,-33.6217,0.286573,27.2763,0.635983,3.03307,-0.0566557,
0.108106,-0.0507937,-0.122879,-1.84576,-0.0125729,0.269823,-0.0239427,2.47819e-05,0.0167161,-0.00016766,-0.0269879,-0.00271125,0.0429841,-0.000309483,0.0221088,-2.57109,0.0559237,4.21765,0.397197,-6.63026,0.0462979,0.0526965,23.3064,-0.0959812,-24.3601,-0.561316,1.62695,-0.0227576,0.1081,-0.0508004,-0.122886,-1.84576,-0.0125582,0.269808,-0.0239419,0.000992286,0.000332868,0.000174697,5.18722e-06,-0.00241564,0.000795841,-0.000770037,-0.428374,-0.0746809,0.16202,0.115579,0.0948205,0.0230823,-0.210934,0.0551182,-33.4709,0.338148,27.1017,0.593868,3.07244,-0.0227812,
0.108107,-0.0507917,-0.122878,-1.84576,-0.0125729,0.269827,-0.0239427,4.36594e-05,0.0134216,-0.00010593,-0.0215883,-0.00216894,0.0344895,-0.000249373,0.0117984,-2.05904,0.0385812,3.37479,0.338948,-5.30912,0.0375691,0.0454837,23.878,-0.107728,-24.252,-0.560899,1.2794,-0.0207874,0.1081,-0.0508004,-0.122886,-1.84576,-0.0125582,0.269808,-0.0239419,0.000992286,0.000332868,0.000174697,5.18722e-06,-0.00241564,0.000795841,-0.000770037,0,0,0,0,0,0,0,0.0551182,-33.4709,0.338148,27.1017,0.593868,3.07244,-0.0227812,
0.108108,-0.0507899,-0.122877,-1.84576,-0.0125722,0.269831,-0.0239428,5.24904e-05,0.0107833,-6.30617e-05,-0.0172676,-0.00171898,0.0276888,-0.000200803,0.00551939,-1.64895,0.0267929,2.7004,0.281223,-4.2504,0.0303561,0.039526,24.402,-0.117173,-24.0842,-0.558957,0.894246,-0.0187856,0.1081,-0.0508004,-0.122886,-1.84576,-0.0125582,0.269808,-0.0239419,0.000992286,0.000332868,0.000174697,5.18722e-06,-0.00241564,0.000795841,-0.000770037,0,0,0,0,0,0,0,0.0551182,-33.4709,0.338148,27.1017,0.593868,3.07244,-0.0227812,
0.107833,-0.0507904,-0.123144,-1.8456,-0.00375349,0.265822,-0.0239764,-0.000893283,0.00845915,-0.000995771,-0.0135127,0.0539781,-0.00397682,-0.000193126,-0.591108,-1.4526,-0.582943,2.34681,34.8107,-19.791,0.00479797,0.480304,0.149725,0.480322,-0.251448,3.25239,-1.62313,-0.00130022,0.1081,-0.0508004,-0.122886,-1.84576,-0.0125582,0.269808,-0.0239419,0.000992286,0.000332868,0.000174697,5.18722e-06,-0.00241564,0.000795841,-0.000770037,0,0,0,0,0,0,0,0.0551182,-33.4709,0.338148,27.1017,0.593868,3.07244,-0.0227812,
0.107808,-0.050797,-0.123169,-1.8456,-0.0014784,0.264728,-0.0239771,-0.00132671,0.00660123,-0.0014221,-0.0106823,0.10006,-0.0305318,-0.000171759,-0.270889,-1.1612,-0.266458,1.76905,28.801,-16.5969,0.0133543,0.475053,0.164804,0.475753,-0.252238,3.22397,-1.6106,-0.00126824,0.10809,-0.0504739,-0.122896,-1.84609,-0.012558,0.271124,-0.0239433,-0.00167324,0.0318638,-0.00058811,-0.0388787,-0.00115777,0.153238,-0.00194014,-0.33319,3.94137,-0.0953508,-4.86049,0.157234,19.0553,-0.146262,0.182071,-28.7538,0.389723,22.7179,0.336605,3.3178,-0.00996382,
0.107795,-0.0508025,-0.123182,-1.8456,0.000827822,0.263603,-0.0239775,-0.00138264,0.00514327,-0.00147234,-0.0085536,0.137703,-0.0525362,-0.000147685,-0.0349603,-0.911222,-0.0313963,1.33042,23.5273,-13.7527,0.0150465,0.469723,0.162214,0.470261,-0.249891,3.19486,-1.59607,-0.00125136,0.10809,-0.0504739,-0.122896,-1.84609,-0.012558,0.271124,-0.0239433,-0.00167324,0.0318638,-0.00058811,-0.0388787,-0.00115777,0.153238,-0.00194014,0,0,0,0,0,0,0,0.182071,-28.7538,0.389723,22.7179,0.336605,3.3178,-0.00996382,
0.107792,-0.0508064,-0.123186,-1.8456,0.00314645,0.262461,-0.0239778,-0.00117741,0.00401882,-0.00126092,-0.00695618,0.168128,-0.0705752,-0.000125762,0.128268,-0.702779,0.132136,0.998388,19.0156,-11.2744,0.0137017,0.464531,0.159872,0.46493,-0.247515,3.16555,-1.58151,-0.00123196,0.10809,-0.0504739,-0.122896,-1.84609,-0.012558,0.271124,-0.0239433,-0.00167324,0.0318638,-0.00058811,-0.0388787,-0.00115777,0.153238,-0.00194014,0,0,0,0,0,0,0,0.182071,-28.7538,0.389723,22.7179,0.336605,3.3178,-0.00996382,
0.107553,-0.0497317,-0.123386,-1.8454,0.0170476,0.249544,-0.0240594,-0.00170731,0.00451212,-0.00165362,-0.00467482,0.324058,-0.203289,-0.000232149,-0.331185,0.308307,-0.245437,1.42585,97.4558,-82.9463,-0.0664916,3.79693,1.56972,3.85243,-1.76604,11.0253,-9.39545,-0.0044987,0.10809,-0.0504739,-0.122896,-1.84609,-0.012558,0.271124,-0.0239433,-0.00167324,0.0318638,-0.00058811,-0.0388787,-0.00115777,0.153238,-0.00194014,0,0,0,0,0,0,0,0.182071,-28.7538,0.389723,22.7179,0.336605,3.3178,-0.00996382,
0.107573,-0.0496856,-0.123363,-1.84541,0.0248553,0.243394,-0.0240624,-0.000872693,0.00476286,-0.000743613,-0.00394332,0.454438,-0.316389,-0.000259848,0.521635,0.156717,0.568754,0.457188,81.4878,-70.6872,-0.0173119,3.68765,1.61155,3.74551,-1.75096,11.0223,-9.24216,-0.0050802,0.108069,-0.0491011,-0.122908,-1.85074,-0.0113705,0.27488,-0.0239419,0.00160374,0.015096,-0.000256285,-0.181553,0.193924,-0.0333883,-0.000138682,0.409622,-2.09598,0.0414781,-17.8343,24.3853,-23.3283,0.225182,0.412174,-25.8617,0.564283,23.2178,1.69891,2.00493,-0.0227812,
0.107639,-0.0496368,-0.123293,-1.84545,0.0327301,0.237084,-0.0240639,0.000964529,0.00503008,0.00114153,-0.00420496,0.560422,-0.410857,-0.000245136,1.14826,0.167007,1.17821,-0.163521,66.2401,-59.0426,0.00919469,3.59525,1.56586,3.64911,-1.73449,11.0223,-9.10595,-0.00555555,0.108069,-0.0491011,-0.122908,-1.85074,-0.0113705,0.27488,-0.0239419,0.00160374,0.015096,-0.000256285,-0.181553,0.193924,-0.0333883,-0.000138682,0,0,0,0,0,0,0,0.412174,-25.8617,0.564283,23.2178,1.69891,2.00493,-0.0227812,
0.107746,-0.049581,-0.123183,-1.84552,0.040575,0.230698,-0.0240648,0.00345394,0.00541935,0.00366911,-0.0050621,0.64446,-0.488355,-0.000220175,1.55588,0.243297,1.57974,-0.535717,52.5235,-48.4363,0.0156012,3.53748,1.52434,3.57742,-1.72724,11.0223,-8.95758,-0.00450233,0.108069,-0.0491011,-0.122908,-1.85074,-0.0113705,0.27488,-0.0239419,0.00160374,0.015096,-0.000256285,-0.181553,0.193924,-0.0333883,-0.000138682,0,0,0,0,0,0,0,0.412174,-25.8617,0.564283,23.2178,1.69891,2.00493,-0.0227812,
0.110801,-0.0492037,-0.120072,-1.85336,0.0172384,0.236386,-0.0236346,0.0218106,-0.000781528,0.022529,-0.0195788,0.698046,-0.635228,-3.81586e-05,11.4729,-3.87555,11.7875,-9.07295,33.4911,-91.7955,0.11376,20.0332,2.14805,21.2397,-7.97668,11.0223,-14.3216,0.159788,0.108069,-0.0491011,-0.122908,-1.85074,-0.0113705,0.27488,-0.0239419,0.00160374,0.015096,-0.000256285,-0.181553,0.193924,-0.0333883,-0.000138682,0,0,0,0,0,0,0,0.412174,-25.8617,0.564283,23.2178,1.69891,2.00493,-0.0227812,
0.111623,-0.0494188,-0.119226,-1.85401,0.0249011,0.226172,-0.0236291,0.0379889,-0.00600346,0.0391659,-0.0319138,0.750003,-0.763532,0.000106766,10.1115,-3.26371,10.398,-7.70938,32.4731,-80.1901,0.0905781,19.0401,-3.25353,18.8524,-11.3434,10.9401,-14.2751,0.190683,0.107999,-0.0478176,-0.122853,-1.85565,0.000280668,0.266602,-0.0239455,0.00127633,0.0965961,0.00823778,-0.0253884,0.513025,-0.6076,-0.00164309,-0.0409256,10.1875,1.06176,19.5205,39.8876,-71.7765,-0.188051,3.42731,-38.5887,3.66273,30.2676,2.35901,-0.18226,0.0101778,
0.112489,-0.0496356,-0.118335,-1.85471,0.0328251,0.215852,-0.0236222,0.0520515,-0.0102213,0.0536214,-0.0430385,0.798103,-0.868841,0.000260112,8.78914,-2.63613,9.03474,-6.95293,30.0627,-65.8181,0.0958412,16.3444,-2.68552,16.4433,-10.9749,10.9401,-14.2751,0.037044,0.107999,-0.0478176,-0.122853,-1.85565,0.000280668,0.266602,-0.0239455,0.00127633,0.0965961,0.00823778,-0.0253884,0.513025,-0.6076,-0.00164309,0,0,0,0,0,0,0,3.42731,-38.5887,3.66273,30.2676,2.35901,-0.18226,0.0101778,
0.111653,-0.0466363,-0.119083,-1.85957,0.0323892,0.223434,-0.0239181,0.0667869,-0.00441046,0.0687241,-0.0575083,0.824603,-0.94506,0.000239292,9.20965,3.63175,9.43919,-9.04362,16.5626,-47.6367,-0.0130126,21.4748,3.56532,21.8722,-14.7888,10.9401,-14.2751,0.00779213,0.107999,-0.0478176,-0.122853,-1.85565,0.000280668,0.266602,-0.0239455,0.00127633,0.0965961,0.00823778,-0.0253884,0.513025,-0.6076,-0.00164309,0,0,0,0,0,0,0,3.42731,-38.5887,3.66273,30.2676,2.35901,-0.18226,0.0101778,
0.112726,-0.0464902,-0.117982,-1.86059,0.0401379,0.213575,-0.0239165,0.0802514,0.000123793,0.0825071,-0.0714675,0.853399,-1.00252,0.000231663,8.41527,2.83391,8.61437,-8.72452,17.9976,-35.915,-0.00476853,20.4328,3.49386,20.8257,-14.419,10.9401,-14.2751,-0.000847721,0.107999,-0.0478176,-0.122853,-1.85565,0.000280668,0.266602,-0.0239455,0.00127633,0.0965961,0.00823778,-0.0253884,0.513025,-0.6076,-0.00164309,0,0,0,0,0,0,0,3.42731,-38.5887,3.66273,30.2676,2.35901,-0.18226,0.0101778,
0.113845,-0.0463336,-0.116834,-1.86168,0.0481169,0.204146,-0.0239131,0.0921793,0.00401448,0.0947009,-0.0846055,0.882196,-1.03776,0.000270016,7.45495,2.43168,7.62108,-8.21123,17.9977,-22.0223,0.0239709,19.0331,4.09441,19.4329,-14.6322,10.5448,-14.1925,0.000424943,0.107539,-0.0453489,-0.123264,-1.85441,0.0421565,0.226348,-0.0239287,-0.000139421,0.0107494,-0.00297491,0.0265711,1.32611,-1.53668,-0.000288263,-0.176969,-10.7308,-1.40159,6.49494,101.635,-116.134,0.169354,10.0209,-37.6643,10.062,19.556,2.18139,-3.0204,-0.050247,
0.114994,-0.0461581,-0.115656,-1.86283,0.0562671,0.195305,-0.0239082,0.102476,0.00759939,0.105216,-0.0964674,0.90951,-1.05123,0.00033689,6.43555,2.24057,6.57211,-7.41367,17.0714,-8.41672,0.0417961,18.2234,3.85528,18.6195,-14.3683,10.5448,-14.1925,-0.000325059,0.107539,-0.0453489,-0.123264,-1.85441,0.0421565,0.226348,-0.0239287,-0.000139421,0.0107494,-0.00297491,0.0265711,1.32611,-1.53668,-0.000288263,0,0,0,0,0,0,0,10.0209,-37.6643,10.062,19.556,2.18139,-3.0204,-0.050247,
0.112687,-0.0466424,-0.118096,-1.8613,0.0834059,0.174285,-0.0239335,0.115525,0.00219831,0.118068,-0.117654,0.928259,-1.08089,-0.000232557,8.15526,-3.37567,8.03224,-13.2418,11.7179,-18.5389,-0.355904,24.3435,2.37507,24.5807,-21.8884,10.5448,-14.1925,-0.0209529,0.107539,-0.0453489,-0.123264,-1.85441,0.0421565,0.226348,-0.0239287,-0.000139421,0.0107494,-0.00297491,0.0265711,1.32611,-1.53668,-0.000288263,0,0,0,0,0,0,0,10.0209,-37.6643,10.062,19.556,2.18139,-3.0204,-0.050247,
0.114086,-0.0467491,-0.116682,-1.86298,0.0915215,0.165501,-0.0239532,0.127382,-0.000909785,0.129808,-0.136304,0.945497,-1.08431,-0.000680425,7.41059,-1.94256,7.33772,-11.6558,10.7739,-2.13778,-0.279917,22.9866,2.03807,23.22,-21.4769,10.5448,-14.1925,-0.0331461,0.107539,-0.0453489,-0.123264,-1.85441,0.0421565,0.226348,-0.0239287,-0.000139421,0.0107494,-0.00297491,0.0265711,1.32611,-1.53668,-0.000288263,0,0,0,0,0,0,0,10.0209,-37.6643,10.062,19.556,2.18139,-3.0204,-0.050247,
0.115518,-0.046814,-0.115234,-1.86471,0.0997247,0.15759,-0.0239694,0.1377,-0.00235027,0.140056,-0.152212,0.961477,-1.06522,-0.000948988,6.44879,-0.900303,6.40502,-9.94279,9.9877,11.9292,-0.167852,22.2349,1.63389,22.4777,-20.9224,10.5721,-13.7483,-0.0381813,0.110198,-0.046358,-0.119645,-1.85927,0.083584,0.168988,-0.0239394,0.164471,-0.0395624,0.0978945,-0.251363,1.13106,-1.69949,-0.00014194,20.5763,-6.28898,12.6087,-34.7418,-24.3803,-20.3523,0.0182903,16.3607,-26.5083,16.3858,16.8661,4.35577,-1.97303,-0.0026396,
0.117657,-0.0460617,-0.112018,-1.87047,0.125037,0.122591,-0.0240816,0.150304,0.00289105,0.153157,-0.1791,0.975936,-1.01825,-0.00158524,7.87773,3.27583,8.18783,-16.8052,9.03692,29.3545,-0.397657,24.3098,4.7904,24.8734,-26.1541,10.5721,-11.775,-0.0493775,0.110198,-0.046358,-0.119645,-1.85927,0.083584,0.168988,-0.0239394,0.164471,-0.0395624,0.0978945,-0.251363,1.13106,-1.69949,-0.00014194,0,0,0,0,0,0,0,16.3607,-26.5083,16.3858,16.8661,4.35577,-1.97303,-0.0026396,
0.119267,-0.0458458,-0.110369,-1.87274,0.133349,0.117064,-0.0241105,0.1605,0.00770958,0.163759,-0.200095,0.988548,-0.952802,-0.00199299,6.37282,3.01158,6.62634,-13.1218,7.88241,40.9083,-0.254848,22.9994,3.9108,23.5367,-25.9342,10.5721,-9.78063,-0.056738,0.110198,-0.046358,-0.119645,-1.85927,0.083584,0.168988,-0.0239394,0.164471,-0.0395624,0.0978945,-0.251363,1.13106,-1.69949,-0.00014194,0,0,0,0,0,0,0,16.3607,-26.5083,16.3858,16.8661,4.35577,-1.97303,-0.0026396,
0.12087,-0.0456158,-0.108727,-1.87498,0.141694,0.112543,-0.0241324,0.168466,0.0119182,0.17205,-0.216029,0.999482,-0.875243,-0.00214145,4.97817,2.63041,5.18174,-9.95883,6.83353,48.474,-0.0927823,21.9202,3.22263,22.4375,-25.7017,10.5721,-8.02625,-0.0543756,0.110198,-0.046358,-0.119645,-1.85927,0.083584,0.168988,-0.0239394,0.164471,-0.0395624,0.0978945,-0.251363,1.13106,-1.69949,-0.00014194,0,0,0,0,0,0,0,16.3607,-26.5083,16.3858,16.8661,4.35577,-1.97303,-0.0026396,
0.122456,-0.0453792,-0.107101,-1.87717,0.150063,0.108927,-0.0241477,0.174435,0.0154498,0.178277,-0.227684,1.00881,-0.790604,-0.00209547,3.73097,2.20723,3.89192,-7.28412,5.8316,52.8996,0.0287362,21.441,2.72613,21.9568,-25.0854,10.6452,-5.93515,-0.0534581,0.116901,-0.0495226,-0.112123,-1.87164,0.126638,0.109288,-0.0239376,0.264308,-0.121886,0.338,-0.452865,1.30432,-1.69801,0.00138285,12.4797,-10.2905,30.0131,-25.1877,21.6563,0.18571,0.190599,16.5154,-24.2153,16.5128,19.9289,3.98315,-0.0431002,-0.0905302,
0.127413,-0.049992,-0.101444,-1.88616,0.174052,0.0792249,-0.0241466,0.187499,0.0146823,0.191353,-0.248966,1.03352,-0.69568,-0.00239973,8.16467,-0.479663,8.17295,-13.3016,15.4415,59.3272,-0.190165,21.7571,0.685822,22.1302,-29.557,10.6452,-2.69704,-0.0697972,0.116901,-0.0495226,-0.112123,-1.87164,0.126638,0.109288,-0.0239376,0.264308,-0.121886,0.338,-0.452865,1.30432,-1.69801,0.00138285,0,0,0,0,0,0,0,16.5154,-24.2153,16.5128,19.9289,3.98315,-0.0431002,-0.0905302,
0.129251,-0.0498834,-0.0995759,-1.88874,0.182965,0.0777856,-0.0241665,0.195946,0.0144604,0.199793,-0.263614,1.04964,-0.592526,-0.00241589,5.27958,-0.138689,5.27488,-9.1548,10.0753,64.4711,-0.0100967,20.9245,0.332664,21.2812,-29.251,10.6452,-1.47904,-0.063206,0.116901,-0.0495226,-0.112123,-1.87164,0.126638,0.109288,-0.0239376,0.264308,-0.121886,0.338,-0.452865,1.30432,-1.69801,0.00138285,0,0,0,0,0,0,0,16.5154,-24.2153,16.5128,19.9289,3.98315,-0.0431002,-0.0905302,
0.131015,-0.0497722,-0.0977817,-1.89123,0.191754,0.0772263,-0.0241754,0.200867,0.0143498,0.204689,-0.273105,1.05944,-0.488002,-0.00215658,3.0757,-0.0691457,3.06008,-5.93209,6.12807,65.3279,0.162068,20.2185,0.144349,20.5603,-28.9082,10.6452,-0.455319,-0.0510437,0.116901,-0.0495226,-0.112123,-1.87164,0.126638,0.109288,-0.0239376,0.264308,-0.121886,0.338,-0.452865,1.30432,-1.69801,0.00138285,0,0,0,0,0,0,0,16.5154,-24.2153,16.5128,19.9289,3.98315,-0.0431002,-0.0905302,
0.132712,-0.0496655,-0.0960557,-1.89363,0.200439,0.0773814,-0.0241738,0.203119,0.0141456,0.206902,-0.278634,1.06466,-0.386524,-0.00168328,1.40719,-0.127609,1.38279,-3.45539,3.26109,63.4237,0.295813,19.5984,0.070046,19.9265,-28.5394,10.6452,0.403258,-0.0399656,0.116901,-0.0495226,-0.112123,-1.87164,0.126638,0.109288,-0.0239376,0.264308,-0.121886,0.338,-0.452865,1.30432,-1.69801,0.00138285,0,0,0,0,0,0,0,16.5154,-24.2153,16.5128,19.9289,3.98315,-0.0431002,-0.0905302,
0.141466,-0.0494733,-0.0887431,-1.90756,0.223491,0.063692,-0.0241469,0.212999,0.0179437,0.217093,-0.298196,1.08462,-0.241915,-0.00163653,6.17533,2.37378,6.36941,-12.226,12.4769,90.3804,0.0292172,18.8821,-0.575858,19.3677,-33.1003,10.56,6.78045,-0.085562,0.129594,-0.0504661,-0.100855,-1.89025,0.173374,0.0652746,-0.0239337,0.352934,-0.082593,0.427071,-0.648063,1.43686,-0.910324,-4.67539e-05,11.0782,4.91163,11.1339,-24.3997,16.5678,98.4605,-0.178701,10.0725,-24.612,10.062,22.7933,3.92822,3.07244,-0.110672,
0.14336,-0.0492309,-0.0868079,-1.91043,0.232566,0.0671311,-0.0241428,0.217755,0.0204146,0.222056,-0.310277,1.09456,-0.107554,-0.00120713,2.97266,1.54432,3.10163,-7.55071,6.21183,83.9758,0.268372,18.6076,-0.580008,19.0739,-32.7148,10.56,7.10271,-0.0641411,0.129594,-0.0504661,-0.100855,-1.89025,0.173374,0.0652746,-0.0239337,0.352934,-0.082593,0.427071,-0.648063,1.43686,-0.910324,-4.67539e-05,0,0,0,0,0,0,0,10.0725,-24.612,10.062,22.7933,3.92822,3.07244,-0.110672,
0.145146,-0.0490145,-0.0849828,-1.91318,0.241444,0.0710944,-0.024125,0.218842,0.0217408,0.22327,-0.316904,1.0976,0.013039,-0.000519834,0.679357,0.828849,0.758987,-4.14215,1.90067,75.3706,0.429562,18.3368,-0.456295,18.7857,-32.2858,10.56,7.29944,-0.0414857,0.129594,-0.0504661,-0.100855,-1.89025,0.173374,0.0652746,-0.0239337,0.352934,-0.082593,0.427071,-0.648063,1.43686,-0.910324,-4.67539e-05,0,0,0,0,0,0,0,10.0725,-24.612,10.062,22.7933,3.92822,3.07244,-0.110672,
0.146837,-0.0488231,-0.083254,-1.91582,0.250163,0.0754141,-0.0240958,0.217341,0.0221791,0.221838,-0.319584,1.09606,0.118424,0.000313918,-0.93809,0.273958,-0.895206,-1.67505,-0.968065,65.8657,0.521096,18.0562,-0.269235,18.4892,-31.8344,10.56,7.40796,-0.0209693,0.129594,-0.0504661,-0.100855,-1.89025,0.173374,0.0652746,-0.0239337,0.352934,-0.082593,0.427071,-0.648063,1.43686,-0.910324,-4.67539e-05,0,0,0,0,0,0,0,10.0725,-24.612,10.062,22.7933,3.92822,3.07244,-0.110672,
0.141089,-0.049994,-0.0891681,-1.90954,0.224045,0.0745555,-0.0239716,0.22195,0.022845,0.226341,-0.339616,1.11138,0.228379,0.00102107,2.8803,0.416215,2.8147,-12.5198,9.57904,68.7216,0.44197,16.0686,-2.87052,16.4534,-36.5803,10.3641,11.6186,-0.0620244,0.143018,-0.0491471,-0.0852933,-1.91305,0.224257,0.0500349,-0.0239369,0.465869,0.0978529,0.419178,-0.707924,1.55776,-0.0942153,0.000773282,14.1169,22.5557,-0.986631,-7.48271,15.1134,102.014,0.102504,0.435978,-28.2301,0.238966,23.8406,3.18939,4.37249,-0.110672,
0.142894,-0.0498034,-0.0873345,-1.91273,0.232991,0.0807536,-0.0239206,0.222686,0.0230427,0.226914,-0.351506,1.11277,0.337656,0.00209244,0.459816,0.123544,0.358182,-7.43153,0.869998,68.298,0.669607,16.2243,-2.40815,16.5906,-36.0434,10.3641,11.6186,-0.0276758,0.143018,-0.0491471,-0.0852933,-1.91305,0.224257,0.0500349,-0.0239369,0.465869,0.0978529,0.419178,-0.707924,1.55776,-0.0942153,0.000773282,0,0,0,0,0,0,0,0.435978,-28.2301,0.238966,23.8406,3.18939,4.37249,-0.110672,
0.144599,-0.0496339,-0.0856025,-1.91579,0.241492,0.0875711,-0.0238513,0.220783,0.0226719,0.22483,-0.357605,1.10275,0.440561,0.00340768,-1.18914,-0.231736,-1.3026,-3.81149,-6.26639,64.3159,0.822024,16.2362,-1.95042,16.584,-35.506,10.3641,11.6186,0.000759588,0.143018,-0.0491471,-0.0852933,-1.91305,0.224257,0.0500349,-0.0239369,0.465869,0.0978529,0.419178,-0.707924,1.55776,-0.0942153,0.000773282,0,0,0,0,0,0,0,0.435978,-28.2301,0.238966,23.8406,3.18939,4.37249,-0.110672,
0.155469,-0.0452862,-0.0726639,-1.93168,0.273253,0.0693764,-0.0236833,0.226862,0.0313993,0.230885,-0.364844,1.08556,0.498842,0.0044714,3.79943,5.4546,3.78441,-4.52486,-10.7417,36.4257,0.664825,16.0026,-1.10402,16.3159,-34.4308,10.3574,11.6186,0.0443066,0.143018,-0.0491471,-0.0852933,-1.91305,0.224257,0.0500349,-0.0239369,0.465869,0.0978529,0.419178,-0.707924,1.55776,-0.0942153,0.000773282,0,0,0,0,0,0,0,0.435978,-28.2301,0.238966,23.8406,3.18939,4.37249,-0.110672,
0.157329,-0.0448549,-0.0707741,-1.93462,0.280277,0.0755453,-0.0236132,0.227986,0.0359024,0.231953,-0.36548,1.04406,0.553298,0.00533071,0.702207,2.81447,0.667615,-0.39712,-25.9372,34.0348,0.53707,15.9118,-0.902867,16.2478,-33.5669,9.59374,11.7507,0.0625247,0.158608,-0.0476465,-0.0683557,-1.94246,0.27687,0.0632291,-0.0239399,0.490148,0.0624086,0.431485,-0.890799,1.5295,0.616311,0.000640766,3.03485,-4.43053,1.53849,-22.8593,-3.5332,88.8158,-0.0165646,-4.48346,-36.1925,-4.38689,30.0415,-0.407718,7.01104,-0.083206,
0.159066,-0.0445074,-0.0690081,-1.9374,0.286136,0.0818413,-0.0235458,0.225822,0.0374102,0.229714,-0.361672,0.981706,0.600038,0.00595,-1.3521,0.942366,-1.39975,2.37997,-38.9723,29.2127,0.387054,15.5927,-0.58693,15.9117,-33.0855,9.13525,11.7507,0.0840736,0.158608,-0.0476465,-0.0683557,-1.94246,0.27687,0.0632291,-0.0239399,0.490148,0.0624086,0.431485,-0.890799,1.5295,0.616311,0.000640766,0,0,0,0,0,0,0,-4.48346,-36.1925,-4.38689,30.0415,-0.407718,7.01104,-0.083206,
0.160701,-0.0442288,-0.0673456,-1.94003,0.290851,0.0881388,-0.0234785,0.22153,0.0368928,0.225332,-0.355089,0.903257,0.637469,0.00644223,-2.68253,-0.323385,-2.73834,4.11426,-49.0311,23.3942,0.307644,15.1067,-0.277287,15.4216,-32.6309,8.41589,11.4855,0.0949126,0.158608,-0.0476465,-0.0683557,-1.94246,0.27687,0.0632291,-0.0239399,0.490148,0.0624086,0.431485,-0.890799,1.5295,0.616311,0.000640766,0,0,0,0,0,0,0,-4.48346,-36.1925,-4.38689,30.0415,-0.407718,7.01104,-0.083206,
0.171195,-0.0430392,-0.0555885,-1.95981,0.312754,0.0854246,-0.0236437,0.227077,0.044335,0.230927,-0.354387,0.83163,0.636752,0.00664086,3.46659,4.65138,3.49669,0.438708,-44.7664,-0.447602,0.124142,14.5486,0.0891727,14.8672,-32.1512,7.42859,10.8985,0.0913805,0.158608,-0.0476465,-0.0683557,-1.94246,0.27687,0.0632291,-0.0239399,0.490148,0.0624086,0.431485,-0.890799,1.5295,0.616311,0.000640766,0,0,0,0,0,0,0,-4.48346,-36.1925,-4.38689,30.0415,-0.407718,7.01104,-0.083206,
0.173021,-0.0425714,-0.0537327,-1.96246,0.315981,0.0906083,-0.0235804,0.227298,0.047163,0.231138,-0.349912,0.74598,0.638996,0.00689624,0.138519,1.76748,0.131785,2.797,-53.5312,1.40209,0.159613,13.9714,0.377994,14.3392,-31.4991,5.41299,10.3052,0.0873002,0.174817,-0.0453347,-0.0514091,-1.97199,0.327669,0.098005,-0.0239229,0.55263,0.0828198,0.410252,-0.767822,1.33754,1.13413,0.00178357,7.8103,2.5514,-2.65413,15.3721,-23.9944,64.7279,0.142851,-5.37213,-36.9661,-5.28746,31.2119,0.299984,5.36675,-0.0227812,
0.174708,-0.042202,-0.0520169,-1.965,0.318226,0.0958275,-0.0235143,0.224015,0.0469652,0.227804,-0.343229,0.652906,0.641675,0.00716898,-2.05235,-0.123585,-2.08352,4.17694,-58.1718,1.67468,0.170466,13.6342,0.75417,14.0031,-30.9373,3.93644,9.75886,0.0806488,0.174817,-0.0453347,-0.0514091,-1.97199,0.327669,0.098005,-0.0239229,0.55263,0.0828198,0.410252,-0.767822,1.33754,1.13413,0.00178357,0,0,0,0,0,0,0,-5.37213,-36.9661,-5.28746,31.2119,0.299984,5.36675,-0.0227812,
0.171195,-0.0430392,-0.0555885,-1.95981,0.312754,0.0854246,-0.0236437,0.229064,0.052393,0.232905,-0.344899,0.63135,0.640118,0.00722226,3.15604,3.39232,3.1877,-1.04382,-13.4725,-0.973436,0.0332975,13.3291,1.26188,13.6842,-29.8161,1.61122,8.79575,0.0761001,0.174817,-0.0453347,-0.0514091,-1.97199,0.327669,0.098005,-0.0239229,0.55263,0.0828198,0.410252,-0.767822,1.33754,1.13413,0.00178357,0,0,0,0,0,0,0,-5.37213,-36.9661,-5.28746,31.2119,0.299984,5.36675,-0.0227812,
0.189243,-0.0408798,-0.0367833,-1.98893,0.350113,0.128452,-0.0235686,0.227463,0.0507238,0.23127,-0.33534,0.526115,0.628074,0.00755815,-1.00085,-1.04322,-1.02133,5.97418,-65.7718,-7.52765,0.209931,13.2995,1.38549,13.6451,-29.274,0.703767,8.37993,0.0777789,0.174817,-0.0453347,-0.0514091,-1.97199,0.327669,0.098005,-0.0239229,0.55263,0.0828198,0.410252,-0.767822,1.33754,1.13413,0.00178357,0,0,0,0,0,0,0,-5.37213,-36.9661,-5.28746,31.2119,0.299984,5.36675,-0.0227812,
0.190866,-0.0406097,-0.035132,-1.99123,0.350299,0.133017,-0.0234938,0.22256,0.0473308,0.2263,-0.325815,0.42554,0.616603,0.00791495,-3.06453,-2.12066,-3.10656,5.95315,-62.8592,-7.16894,0.223003,13.1002,1.42612,13.4578,-28.7855,-0.154028,7.88912,0.0842208,0.190428,-0.0428318,-0.0341152,-1.99727,0.364652,0.138708,-0.0238578,0.459635,0.0810626,0.509884,-0.697846,0.781719,1.15382,0.00209346,-11.6244,-0.219655,12.454,8.74698,-69.478,2.4603,0.0387357,-6.2846,-34.07,-6.68791,26.0068,-1.66657,3.20519,-0.00996382,
0.192373,-0.0404009,-0.033599,-1.99347,0.349971,0.137505,-0.0234154,0.21571,0.0430845,0.219363,-0.316597,0.332222,0.605466,0.00829231,-4.28082,-2.65391,-4.3355,5.76132,-58.3236,-6.96111,0.235846,13.134,1.41749,13.4809,-28.2741,-0.758134,7.54588,0.0876073,0.190428,-0.0428318,-0.0341152,-1.99727,0.364652,0.138708,-0.0238578,0.459635,0.0810626,0.509884,-0.697846,0.781719,1.15382,0.00209346,0,0,0,0,0,0,0,-6.2846,-34.07,-6.68791,26.0068,-1.66657,3.20519,-0.00996382,
0.202683,-0.0390769,-0.0216718,-2.01069,0.373082,0.161604,-0.0235346,0.218914,0.0447878,0.22259,-0.311316,0.266164,0.582899,0.00847381,2.00237,1.06454,2.01687,3.30075,-41.2865,-14.1038,0.113438,13.1709,1.36454,13.506,-27.7772,-1.20966,7.23546,0.0896113,0.190428,-0.0428318,-0.0341152,-1.99727,0.364652,0.138708,-0.0238578,0.459635,0.0810626,0.509884,-0.697846,0.781719,1.15382,0.00209346,0,0,0,0,0,0,0,-6.2846,-34.07,-6.68791,26.0068,-1.66657,3.20519,-0.00996382,
0.20436,-0.0387649,-0.0199665,-2.01294,0.372633,0.165469,-0.0234569,0.217062,0.043631,0.220706,-0.3052,0.201714,0.562943,0.00871995,-1.1577,-0.722958,-1.17774,3.82247,-40.2813,-12.4729,0.153841,13.2039,1.27977,13.5282,-27.2901,-1.57204,6.9483,0.0930829,0.190428,-0.0428318,-0.0341152,-1.99727,0.364652,0.138708,-0.0238578,0.459635,0.0810626,0.509884,-0.697846,0.781719,1.15382,0.00209346,0,0,0,0,0,0,0,-6.2846,-34.07,-6.68791,26.0068,-1.66657,3.20519,-0.00996382,
0.205897,-0.0385268,-0.0184032,-2.01512,0.371844,0.169278,-0.0233769,0.212068,0.0408577,0.215647,-0.298674,0.141637,0.545579,0.00897546,-3.12078,-1.73336,-3.16161,4.07884,-37.5476,-10.8525,0.159692,13.0958,1.18879,13.4246,-26.9721,-1.87571,6.52961,0.0994376,0.206254,-0.0402058,-0.0182511,-2.0209,0.380122,0.176005,-0.0237898,0.370664,0.0973364,0.527425,-0.651391,0.265079,1.09235,0.00604065,-11.1214,2.03423,2.19262,5.80686,-64.58,-7.6829,0.493398,-6.25683,-35.1213,-6.23564,26.6058,-0.945133,0.944754,-0.0703886,
0.207321,-0.0383433,-0.0169537,-2.01724,0.37081,0.173036,-0.023295,0.20526,0.0372741,0.208754,-0.291992,0.0874731,0.53043,0.00922987,-4.25551,-2.23974,-4.30798,4.17615,-33.8528,-9.46826,0.159004,13.0972,1.07189,13.4157,-26.5012,-2.05721,6.2869,0.102211,0.206254,-0.0402058,-0.0182511,-2.0209,0.380122,0.176005,-0.0237898,0.370664,0.0973364,0.527425,-0.651391,0.265079,1.09235,0.00604065,0,0,0,0,0,0,0,-6.25683,-35.1213,-6.23564,26.6058,-0.945133,0.944754,-0.0703886,
0.21738,-0.0363684,-0.00693499,-2.0338,0.379526,0.195902,-0.0234389,0.206248,0.0404095,0.209743,-0.289397,0.0497141,0.507079,0.00930144,0.617647,1.95965,0.617608,1.62212,-23.5994,-14.5943,0.0447313,13.0766,0.950692,13.3847,-26.0364,-2.15415,6.06632,0.10354,0.206254,-0.0402058,-0.0182511,-2.0209,0.380122,0.176005,-0.0237898,0.370664,0.0973364,0.527425,-0.651391,0.265079,1.09235,0.00604065,0,0,0,0,0,0,0,-6.25683,-35.1213,-6.23564,26.6058,-0.945133,0.944754,-0.0703886,
0.218906,-0.0360466,-0.00538226,-2.03595,0.37854,0.199155,-0.0233598,0.203165,0.0403744,0.206612,-0.285313,0.0151436,0.486986,0.00941896,-1.92662,-0.0219641,-1.95637,2.55219,-21.6065,-12.5581,0.0734524,13.0355,0.830062,13.3343,-25.5747,-2.20869,5.85971,0.105321,0.206254,-0.0402058,-0.0182511,-2.0209,0.380122,0.176005,-0.0237898,0.370664,0.0973364,0.527425,-0.651391,0.265079,1.09235,0.00604065,0,0,0,0,0,0,0,-6.25683,-35.1213,-6.23564,26.6058,-0.945133,0.944754,-0.0703886,
0.220311,-0.0357999,-0.00395319,-2.03803,0.377441,0.202378,-0.0232796,0.197644,0.0384649,0.201017,-0.280274,-0.0153607,0.470151,0.00953915,-3.45089,-1.19343,-3.49729,3.14935,-19.0652,-10.5215,0.0751162,12.9283,0.776046,13.2283,-25.2524,-2.20138,5.53345,0.108065,0.221561,-0.0372722,-0.00348999,-2.04219,0.383565,0.214817,-0.0237022,0.383693,0.0822378,0.482543,-0.603052,-0.00496111,1.05987,0.00369628,1.62871,-1.88733,-5.61024,6.04233,-33.7551,-4.0607,-0.293045,-4.58264,-35.8434,-4.61302,25.4077,0.776974,-0.467905,0.00376909,
0.221618,-0.0356095,-0.00262287,-2.04005,0.376276,0.205579,-0.0231989,0.190786,0.0355341,0.194071,-0.27464,-0.0414177,0.45614,0.00964846,-4.28606,-1.83176,-4.34088,3.52122,-16.2856,-8.75699,0.0683192,12.8446,0.667208,13.1363,-24.7953,-2.17299,5.35654,0.108828,0.221561,-0.0372722,-0.00348999,-2.04219,0.383565,0.214817,-0.0237022,0.383693,0.0822378,0.482543,-0.603052,-0.00496111,1.05987,0.00369628,0,0,0,0,0,0,0,-4.58264,-35.8434,-4.61302,25.4077,0.776974,-0.467905,0.00376909,
0.233385,-0.0336033,0.00852982,-2.05604,0.379448,0.234965,-0.0232981,0.187852,0.0354401,0.19107,-0.269054,-0.0533797,0.432729,0.00955615,-1.83403,-0.0586978,-1.87595,3.49125,-7.47623,-14.632,-0.057694,12.6196,0.476945,12.8955,-23.8844,-2.03061,5.04262,0.108434,0.221561,-0.0372722,-0.00348999,-2.04219,0.383565,0.214817,-0.0237022,0.383693,0.0822378,0.482543,-0.603052,-0.00496111,1.05987,0.00369628,0,0,0,0,0,0,0,-4.58264,-35.8434,-4.61302,25.4077,0.776974,-0.467905,0.00376909,
0.23468,-0.0333895,0.00984699,-2.05794,0.378619,0.23766,-0.0232242,0.182653,0.0336978,0.185785,-0.262837,-0.0634421,0.413574,0.00949129,-3.24936,-1.08898,-3.30298,3.88569,-6.289,-11.9716,-0.0405344,12.4819,0.396591,12.7506,-23.4296,-1.93228,4.90289,0.107502,0.221561,-0.0372722,-0.00348999,-2.04219,0.383565,0.214817,-0.0237022,0.383693,0.0822378,0.482543,-0.603052,-0.00496111,1.05987,0.00369628,0,0,0,0,0,0,0,-4.58264,-35.8434,-4.61302,25.4077,0.776974,-0.467905,0.00376909,
0.235884,-0.0332253,0.0110723,-2.05978,0.377787,0.240352,-0.0231508,0.176223,0.0310635,0.179262,-0.256268,-0.0715316,0.39814,0.00942733,-4.01874,-1.64641,-4.07714,4.10555,-5.05597,-9.64625,-0.0399735,12.3305,0.325711,12.5926,-22.9747,-1.82997,4.77052,0.106561,0.221561,-0.0372722,-0.00348999,-2.04219,0.383565,0.214817,-0.0237022,0.383693,0.0822378,0.482543,-0.603052,-0.00496111,1.05987,0.00369628,0,0,0,0,0,0,0,-4.58264,-35.8434,-4.61302,25.4077,0.776974,-0.467905,0.00376909,
0.237015,-0.0330984,0.0122234,-2.06156,0.37697,0.24304,-0.0230784,0.169241,0.0280224,0.172186,-0.24954,-0.0776709,0.385727,0.00935295,-4.36342,-1.9007,-4.42255,4.20537,-3.83706,-7.75843,-0.0464887,12.1638,0.168999,12.4251,-22.6201,-1.66681,4.51554,0.106056,0.234931,-0.0347382,0.00968364,-2.06156,0.38135,0.250329,-0.0235921,0.38627,0.0800073,0.349205,-0.552869,-0.111263,0.931371,0.003423,0.322132,-0.278813,-16.6673,6.27289,-13.2877,-16.0621,-0.03416,-2.80926,-35.3713,-2.7603,23.067,0.880428,-0.235361,0.0440523,
0.243922,-0.0316225,0.0188142,-2.07267,0.377266,0.265494,-0.0232735,0.16957,0.031001,0.172494,-0.247345,-0.079022,0.369022,0.00916507,0.205664,1.86162,0.1926,1.37159,-0.84441,-10.4406,-0.117429,11.9896,0.115965,12.245,-22.1652,-1.55662,4.3994,0.104502,0.234931,-0.0347382,0.00968364,-2.06156,0.38135,0.250329,-0.0235921,0.38627,0.0800073,0.349205,-0.552869,-0.111263,0.931371,0.003423,0,0,0,0,0,0,0,-2.80926,-35.3713,-2.7603,23.067,0.880428,-0.235361,0.0440523,
0.245171,-0.0313621,0.0200848,-2.0745,0.376615,0.267881,-0.0232058,0.166889,0.0313123,0.16976,-0.243617,-0.0794921,0.35489,0.00902434,-1.67579,0.194574,-1.70825,2.32972,-0.293812,-8.83246,-0.0879527,11.8063,0.0709716,12.0559,-21.7101,-1.44409,4.29152,0.102525,0.234931,-0.0347382,0.00968364,-2.06156,0.38135,0.250329,-0.0235921,0.38627,0.0800073,0.349205,-0.552869,-0.111263,0.931371,0.003423,0,0,0,0,0,0,0,-2.80926,-35.3713,-2.7603,23.067,0.880428,-0.235361,0.0440523,
0.246328,-0.0311631,0.0212619,-2.07625,0.375986,0.270264,-0.0231386,0.16243,0.0300248,0.165234,-0.238863,-0.0793151,0.343469,0.00890039,-2.78674,-0.804664,-2.82905,2.97137,0.110624,-7.13808,-0.0774717,11.6159,0.0328337,11.86,-21.2551,-1.33688,4.1884,0.100491,0.234931,-0.0347382,0.00968364,-2.06156,0.38135,0.250329,-0.0235921,0.38627,0.0800073,0.349205,-0.552869,-0.111263,0.931371,0.003423,0,0,0,0,0,0,0,-2.80926,-35.3713,-2.7603,23.067,0.880428,-0.235361,0.0440523,
0.254206,-0.0310269,0.030117,-2.0889,0.373998,0.292505,-0.0232579,0.16066,0.029677,0.163425,-0.233693,-0.074297,0.329587,0.00861158,-1.10638,-0.217422,-1.13061,3.23142,3.1363,-8.6764,-0.180505,11.2453,-0.166323,11.4857,-20.3902,-1.08368,3.90008,0.0961994,0.246213,-0.033011,0.0220094,-2.07903,0.377416,0.279185,-0.0235418,0.387389,0.0241663,0.258704,-0.490269,-0.152188,0.795519,0.00205672,0.139869,-6.98013,-11.3126,7.82498,-5.11562,-16.9816,-0.170786,-1.61908,-32.5743,-1.73674,21.0239,1.91864,0.0823271,0.0440523,
0.255333,-0.0308559,0.0312646,-2.09053,0.373596,0.29468,-0.0231983,0.156723,0.0280169,0.159429,-0.227854,-0.0694723,0.31804,0.00838062,-2.46055,-1.03755,-2.4976,3.64919,3.01546,-7.21657,-0.144352,11.0402,-0.187856,11.2757,-19.9353,-0.990972,3.8125,0.0935933,0.246213,-0.033011,0.0220094,-2.07903,0.377416,0.279185,-0.0235418,0.387389,0.0241663,0.258704,-0.490269,-0.152188,0.795519,0.00205672,0,0,0,0,0,0,0,-1.61908,-32.5743,-1.73674,21.0239,1.91864,0.0823271,0.0440523,
0.256382,-0.0307262,0.0323317,-2.09211,0.373215,0.296855,-0.0231394,0.151584,0.0256553,0.154221,-0.221631,-0.0651165,0.308797,0.00817666,-3.21233,-1.47599,-3.25517,3.8896,2.72237,-5.77705,-0.127472,10.8323,-0.205502,11.0632,-19.4808,-0.906339,3.72804,0.0909297,0.246213,-0.033011,0.0220094,-2.07903,0.377416,0.279185,-0.0235418,0.387389,0.0241663,0.258704,-0.490269,-0.152188,0.795519,0.00205672,0,0,0,0,0,0,0,-1.61908,-32.5743,-1.73674,21.0239,1.91864,0.0823271,0.0440523,
0.257366,-0.0306277,0.0333339,-2.09362,0.372848,0.299034,-0.0230818,0.145866,0.0229858,0.148431,-0.215216,-0.0612629,0.301517,0.00798115,-3.57356,-1.6684,-3.6182,4.00947,2.4085,-4.54994,-0.122195,10.6222,-0.219571,10.8485,-19.0264,-0.82813,3.64773,0.0881297,0.246213,-0.033011,0.0220094,-2.07903,0.377416,0.279185,-0.0235418,0.387389,0.0241663,0.258704,-0.490269,-0.152188,0.795519,0.00205672,0,0,0,0,0,0,0,-1.61908,-32.5743,-1.73674,21.0239,1.91864,0.0823271,0.0440523,
0.263021,-0.029029,0.0400099,-2.10568,0.369259,0.313249,-0.0232772,0.1444,0.025183,0.14693,-0.212311,-0.0570796,0.28593,0.00768916,-0.915865,1.37323,-0.93853,1.81572,2.61453,-9.74217,-0.182495,10.4218,-0.352475,10.6463,-18.5197,-0.680384,3.52955,0.0852374,0.255924,-0.0314254,0.0328058,-2.09621,0.372062,0.303036,-0.0235323,0.321691,0.0607096,0.238221,-0.45177,-0.133834,0.602155,0.000769405,-8.21224,4.56791,-2.56046,4.81245,2.2942,-24.1705,-0.160914,-1.05969,-33.6217,-1.31224,25.5347,2.65747,1.28899,0.0440523,
0.264043,-0.028822,0.0410496,-2.1072,0.368968,0.315069,-0.0232256,0.141061,0.0253207,0.143537,-0.208008,-0.0529487,0.274226,0.00744349,-2.08715,0.0860712,-2.12063,2.68944,2.58181,-7.31493,-0.15354,10.209,-0.361306,10.4293,-18.0659,-0.61755,3.45535,0.0823282,0.255924,-0.0314254,0.0328058,-2.09621,0.372062,0.303036,-0.0235323,0.321691,0.0607096,0.238221,-0.45177,-0.133834,0.602155,0.000769405,0,0,0,0,0,0,0,-1.05969,-33.6217,-1.31224,25.5347,2.65747,1.28899,0.0440523,
0.264995,-0.0286643,0.0420194,-2.10866,0.368693,0.316925,-0.0231749,0.13666,0.0242003,0.139074,-0.202793,-0.0492341,0.265776,0.00722056,-2.75072,-0.700236,-2.78925,3.2592,2.32166,-5.28086,-0.139331,9.9957,-0.368341,10.2118,-17.6124,-0.563012,3.38358,0.0794141,0.255924,-0.0314254,0.0328058,-2.09621,0.372062,0.303036,-0.0235323,0.321691,0.0607096,0.238221,-0.45177,-0.133834,0.602155,0.000769405,0,0,0,0,0,0,0,-1.05969,-33.6217,-1.31224,25.5347,2.65747,1.28899,0.0440523,
0.265891,-0.0285442,0.0429321,-2.11005,0.368426,0.318814,-0.0231257,0.131727,0.0223613,0.134077,-0.19701,-0.0460573,0.259855,0.00700654,-3.08288,-1.14941,-3.12311,3.61411,1.9855,-3.70068,-0.133765,9.78187,-0.373716,9.99382,-17.159,-0.51575,3.31485,0.0764653,0.255924,-0.0314254,0.0328058,-2.09621,0.372062,0.303036,-0.0235323,0.321691,0.0607096,0.238221,-0.45177,-0.133834,0.602155,0.000769405,0,0,0,0,0,0,0,-1.05969,-33.6217,-1.31224,25.5347,2.65747,1.28899,0.0440523,
0.262814,-0.0289255,0.0397974,-2.10507,0.36968,0.312161,-0.0233266,0.131737,0.0249818,0.134063,-0.194384,-0.0427563,0.246855,0.00667992,0.00631398,1.6378,-0.00852414,1.64141,2.06308,-8.12522,-0.204136,9.60321,-0.451441,9.81226,-16.6102,-0.406381,3.24897,0.073304,0.26495,-0.0296313,0.0424803,-2.1121,0.36812,0.320555,-0.0235257,0.24635,0.0859417,0.281783,-0.448122,-0.097659,0.428021,-0.000862078,-9.41768,3.15401,5.44529,0.456013,4.52191,-21.7667,-0.203935,-0.655026,-34.9468,-1.0623,27.2287,2.49267,2.55608,0.0577852,
0.263779,-0.0287098,0.0407793,-2.10646,0.369458,0.31376,-0.0232838,0.129517,0.0253794,0.131799,-0.190248,-0.0397596,0.237453,0.00641461,-1.38739,0.248516,-1.4151,2.58516,1.87297,-5.87635,-0.165823,9.3891,-0.454744,9.59421,-16.157,-0.374604,3.18553,0.0703796,0.26495,-0.0296313,0.0424803,-2.1121,0.36812,0.320555,-0.0235257,0.24635,0.0859417,0.281783,-0.448122,-0.097659,0.428021,-0.000862078,0,0,0,0,0,0,0,-0.655026,-34.9468,-1.0623,27.2287,2.49267,2.55608,0.0577852,
0.264673,-0.0285456,0.0416897,-2.10778,0.369232,0.315406,-0.0232417,0.125971,0.0244076,0.128198,-0.185122,-0.0374595,0.231116,0.00618371,-2.21667,-0.607381,-2.25078,3.2039,1.43752,-3.96044,-0.144309,9.1751,-0.45753,9.37635,-15.7037,-0.350929,3.12462,0.0675081,0.26495,-0.0296313,0.0424803,-2.1121,0.36812,0.320555,-0.0235257,0.24635,0.0859417,0.281783,-0.448122,-0.097659,0.428021,-0.000862078,0,0,0,0,0,0,0,-0.655026,-34.9468,-1.0623,27.2287,2.49267,2.55608,0.0577852,
0.26551,-0.028421,0.0425418,-2.10903,0.368992,0.317097,-0.0232007,0.121693,0.0226425,0.123862,-0.179373,-0.0359634,0.227172,0.00597117,-2.67338,-1.10316,-2.71013,3.59295,0.935063,-2.46493,-0.132839,8.9612,-0.459849,9.15864,-15.2501,-0.33449,3.0666,0.0646686,0.26495,-0.0296313,0.0424803,-2.1121,0.36812,0.320555,-0.0235257,0.24635,0.0859417,0.281783,-0.448122,-0.097659,0.428021,-0.000862078,0,0,0,0,0,0,0,-0.655026,-34.9468,-1.0623,27.2287,2.49267,2.55608,0.0577852,
0.271472,-0.026665,0.0491048,-2.12073,0.366066,0.326304,-0.0233519,0.122199,0.0266263,0.12434,-0.178138,-0.0347616,0.210058,0.00567217,0.316159,2.48983,0.298972,0.771731,0.751124,-10.6963,-0.186872,8.76647,-0.613574,8.95991,-14.7084,-0.288576,3.01584,0.0616402,0.273618,-0.0276482,0.0514693,-2.12677,0.365926,0.332685,-0.0235242,0.193275,0.0448669,0.286244,-0.405248,-0.0324384,0.315039,0.000954082,-6.63438,-5.13436,0.557626,5.35923,8.15257,-14.1227,0.22702,-1.13507,-35.1451,-1.41142,24.9356,1.8399,2.56249,0.0239107,
0.272378,-0.0264043,0.0500259,-2.12202,0.365822,0.327545,-0.0233161,0.120404,0.0278185,0.122499,-0.174766,-0.0339089,0.19907,0.00543082,-1.1221,0.745165,-1.15049,2.10733,0.532951,-6.86766,-0.150849,8.55313,-0.615791,8.74288,-14.2538,-0.287242,2.96354,0.0589339,0.273618,-0.0276482,0.0514693,-2.12677,0.365926,0.332685,-0.0235242,0.193275,0.0448669,0.286244,-0.405248,-0.0324384,0.315039,0.000954082,0,0,0,0,0,0,0,-1.13507,-35.1451,-1.41142,24.9356,1.8399,2.56249,0.0239107,
0.273213,-0.026205,0.0508758,-2.12323,0.365558,0.328887,-0.023281,0.117206,0.0272368,0.119247,-0.16997,-0.0337405,0.192807,0.005224,-1.99874,-0.363589,-2.03272,2.99741,0.105283,-3.91431,-0.129262,8.34031,-0.61832,8.52644,-13.7985,-0.29374,2.91412,0.0563408,0.273618,-0.0276482,0.0514693,-2.12677,0.365926,0.332685,-0.0235242,0.193275,0.0448669,0.286244,-0.405248,-0.0324384,0.315039,0.000954082,0,0,0,0,0,0,0,-1.13507,-35.1451,-1.41142,24.9356,1.8399,2.56249,0.0239107,
0.273991,-0.0260534,0.0516675,-2.12436,0.365264,0.330316,-0.0232466,0.113207,0.0255808,0.11519,-0.164258,-0.0343365,0.18999,0.00503792,-2.49934,-1.03503,-2.5356,3.57011,-0.372508,-1.76056,-0.116299,8.1281,-0.62117,8.31064,-13.3422,-0.306967,2.86763,0.0538301,0.273618,-0.0276482,0.0514693,-2.12677,0.365926,0.332685,-0.0235242,0.193275,0.0448669,0.286244,-0.405248,-0.0324384,0.315039,0.000954082,0,0,0,0,0,0,0,-1.13507,-35.1451,-1.41142,24.9356,1.8399,2.56249,0.0239107,
0.280398,-0.025241,0.0583556,-2.13522,0.36416,0.338025,-0.0233537,0.111055,0.0254142,0.112979,-0.158124,-0.0350553,0.179765,0.00475146,-1.3448,-0.104114,-1.3818,3.83397,-0.449288,-6.39034,-0.179038,7.72724,-0.734658,7.90258,-12.3289,-0.320451,2.8028,0.0489834,0.281744,-0.0260784,0.0595748,-2.14004,0.365045,0.34188,-0.023529,0.146798,0.0197693,0.311399,-0.406367,-0.0139176,0.246699,-0.000400178,-5.80961,-3.13719,3.1444,-0.139847,2.3151,-8.54259,-0.169282,-0.730404,-34.4945,-0.93535,28.6212,1.62567,2.96715,0.0577852,
0.28115,-0.0250919,0.0591201,-2.13621,0.36381,0.339246,-0.0233249,0.107634,0.0240593,0.109496,-0.151248,-0.036788,0.174331,0.00451973,-2.13825,-0.846782,-2.17687,4.29753,-1.08292,-3.39642,-0.144829,7.51893,-0.739683,7.69079,-11.8688,-0.353069,2.76384,0.0468557,0.281744,-0.0260784,0.0595748,-2.14004,0.365045,0.34188,-0.023529,0.146798,0.0197693,0.311399,-0.406367,-0.0139176,0.246699,-0.000400178,0,0,0,0,0,0,0,-0.730404,-34.4945,-0.93535,28.6212,1.62567,2.96715,0.0577852,
0.281845,-0.0249812,0.0598283,-2.13712,0.363415,0.340554,-0.0232965,0.1035,0.0220138,0.105301,-0.143972,-0.0393133,0.172178,0.00432676,-2.58381,-1.27842,-2.62219,4.54753,-1.57828,-1.34584,-0.120605,7.31286,-0.745608,7.48125,-11.4072,-0.390018,2.72639,0.0448565,0.281744,-0.0260784,0.0595748,-2.14004,0.365045,0.34188,-0.023529,0.146798,0.0197693,0.311399,-0.406367,-0.0139176,0.246699,-0.000400178,0,0,0,0,0,0,0,-0.730404,-34.4945,-0.93535,28.6212,1.62567,2.96715,0.0577852,
0.282494,-0.0249011,0.0604893,-2.13798,0.362979,0.341928,-0.0232684,0.0990242,0.0196146,0.100765,-0.13653,-0.042348,0.17208,0.00416378,-2.79741,-1.49952,-2.83455,4.65126,-1.89668,-0.0611904,-0.101862,7.10976,-0.752665,7.2747,-10.9442,-0.43084,2.68967,0.0430099,0.281744,-0.0260784,0.0595748,-2.14004,0.365045,0.34188,-0.023529,0.146798,0.0197693,0.311399,-0.406367,-0.0139176,0.246699,-0.000400178,0,0,0,0,0,0,0,-0.730404,-34.4945,-0.93535,28.6212,1.62567,2.96715,0.0577852,
0.288107,-0.0239329,0.0660377,-2.14745,0.362787,0.345174,-0.0233855,0.0979731,0.0202039,0.0996628,-0.1312,-0.0438045,0.159314,0.00395232,-0.656923,0.368329,-0.689093,3.331,-0.910314,-7.97851,-0.132166,6.66071,-0.87898,6.81624,-9.93577,-0.510097,2.62586,0.0397558,0.290162,-0.0244474,0.0662463,-2.1516,0.364271,0.350469,-0.0235303,0.208311,0.0488233,0.226287,-0.315336,-0.0188206,0.288831,-0.000340307,7.68916,3.63174,-10.639,11.3789,-0.612874,5.26649,0.00748394,-1.49212,-35.2443,-1.26067,27.7762,1.28326,2.64214,0.0376436,
0.288788,-0.0237992,0.0667303,-2.14825,0.362371,0.346145,-0.0233601,0.0954099,0.019505,0.0970457,-0.124913,-0.0454511,0.151728,0.00379676,-1.60197,-0.436828,-1.63574,3.9293,-1.02912,-4.74168,-0.0972251,6.47169,-0.889574,6.62372,-9.46895,-0.549795,2.58316,0.0384274,0.290162,-0.0244474,0.0662463,-2.1516,0.364271,0.350469,-0.0235303,0.208311,0.0488233,0.226287,-0.315336,-0.0188206,0.288831,-0.000340307,0,0,0,0,0,0,0,-1.49212,-35.2443,-1.26067,27.7762,1.28326,2.64214,0.0376436,
0.289413,-0.0237029,0.0673659,-2.14898,0.361949,0.347186,-0.0233345,0.0919433,0.0180108,0.093525,-0.118064,-0.0469161,0.147408,0.0036792,-2.16666,-0.933869,-2.20041,4.28056,-0.915637,-2.69956,-0.0734747,6.2893,-0.901428,6.43778,-9.0015,-0.584041,2.53486,0.0372689,0.290162,-0.0244474,0.0662463,-2.1516,0.364271,0.350469,-0.0235303,0.208311,0.0488233,0.226287,-0.315336,-0.0188206,0.288831,-0.000340307,0,0,0,0,0,0,0,-1.49212,-35.2443,-1.26067,27.7762,1.28326,2.64214,0.0376436,
0.28999,-0.0236367,0.0679539,-2.14964,0.361535,0.348265,-0.0233082,0.0879915,0.0160637,0.0895209,-0.110931,-0.0478722,0.144891,0.00360079,-2.46988,-1.21693,-2.50256,4.45841,-0.59761,-1.57342,-0.0490048,6.11452,-0.91432,6.2594,-8.53369,-0.609738,2.47866,0.0363494,0.290162,-0.0244474,0.0662463,-2.1516,0.364271,0.350469,-0.0235303,0.208311,0.0488233,0.226287,-0.315336,-0.0188206,0.288831,-0.000340307,0,0,0,0,0,0,0,-1.49212,-35.2443,-1.26067,27.7762,1.28326,2.64214,0.0376436,
0.295336,-0.0226065,0.0714848,-2.15683,0.362639,0.35393,-0.0234303,0.0892427,0.0177421,0.0907376,-0.107879,-0.0458261,0.133436,0.00345585,0.781995,1.04901,0.760423,1.90719,1.27881,-7.15945,-0.090591,5.948,-0.928204,6.08919,-8.06623,-0.622997,2.41231,0.0356094,0.290162,-0.0244474,0.0662463,-2.1516,0.364271,0.350469,-0.0235303,0.208311,0.0488233,0.226287,-0.315336,-0.0188206,0.288831,-0.000340307,0,0,0,0,0,0,0,-1.49212,-35.2443,-1.26067,27.7762,1.28326,2.64214,0.0376436,
0.296008,-0.0224663,0.0721676,-2.15752,0.362356,0.354681,-0.023405,0.088207,0.0176985,0.0896608,-0.10339,-0.0437421,0.125537,0.00339679,-0.647307,-0.0272564,-0.673013,2.80576,1.3025,-4.93644,-0.0369098,5.79014,-0.942707,5.92761,-7.59955,-0.621081,2.33341,0.0351834,0.290162,-0.0244474,0.0662463,-2.1516,0.364271,0.350469,-0.0235303,0.208311,0.0488233,0.226287,-0.315336,-0.0188206,0.288831,-0.000340307,0,0,0,0,0,0,0,-1.49212,-35.2443,-1.26067,27.7762,1.28326,2.64214,0.0376436,
0.296614,-0.022369,0.0727839,-2.15813,0.362112,0.355458,-0.023379,0.0857253,0.0165917,0.0871346,-0.0979762,-0.04111,0.119846,0.00336699,-1.55105,-0.691796,-1.57885,3.38378,1.64511,-3.55689,-0.0186271,5.64048,-0.957611,5.77411,-7.13468,-0.599162,2.24005,0.0349266,0.290162,-0.0244474,0.0662463,-2.1516,0.364271,0.350469,-0.0235303,0.208311,0.0488233,0.226287,-0.315336,-0.0188206,0.288831,-0.000340307,0,0,0,0,0,0,0,-1.49212,-35.2443,-1.26067,27.7762,1.28326,2.64214,0.0376436,
0.297167,-0.0223054,0.0733454,-2.15867,0.361916,0.356236,-0.0233538,0.0823813,0.0148622,0.0837459,-0.0920079,-0.0377704,0.11532,0.00332444,-2.08999,-1.08091,-2.11792,3.73015,2.08723,-2.82903,-0.0265917,5.49826,-0.972503,5.62802,-6.67244,-0.556611,2.13082,0.0347379,0.290162,-0.0244474,0.0662463,-2.1516,0.364271,0.350469,-0.0235303,0.208311,0.0488233,0.226287,-0.315336,-0.0188206,0.288831,-0.000340307,0,0,0,0,0,0,0,-1.49212,-35.2443,-1.26067,27.7762,1.28326,2.64214,0.0376436,
0.295166,-0.0225226,0.0713105,-2.15619,0.36329,0.352272,-0.0234313,0.0836079,0.0169546,0.0849479,-0.0892665,-0.0320902,0.0992846,0.00324437,0.766607,1.30777,0.751231,1.71338,3.5501,-10.0221,-0.0500411,5.36552,-0.986603,5.49166,-6.21343,-0.501775,2.01114,0.0352257,0.290162,-0.0244474,0.0662463,-2.1516,0.364271,0.350469,-0.0235303,0.208311,0.0488233,0.226287,-0.315336,-0.0188206,0.288831,-0.000340307,0,0,0,0,0,0,0,-1.49212,-35.2443,-1.26067,27.7762,1.28326,2.64214,0.0376436,
0.29579,-0.0223786,0.0719445,-2.15674,0.36326,0.352608,-0.0234009,0.0824995,0.0171625,0.0838064,-0.0851416,-0.0264228,0.0878402,0.00335496,-0.692744,0.12992,-0.713444,2.57804,3.54216,-7.15273,0.0691176,5.19627,-1.08243,5.31533,-5.6993,-0.395778,1.87114,0.0367513,0.29663,-0.0226164,0.0744256,-2.16075,0.363441,0.359228,-0.0235285,0.286598,0.0785222,0.123337,-0.227205,-0.0231442,0.224225,0.000991004,9.78582,3.71236,-12.8688,11.0163,-0.54045,-8.07573,0.166414,-3.36865,-36.2917,-3.46251,28.0737,0.960079,2.622,0.0101778,
0.296345,-0.0222792,0.0725075,-2.15723,0.363319,0.353003,-0.0233663,0.0798555,0.016214,0.0811213,-0.0802507,-0.0196649,0.0801392,0.00354931,-1.65253,-0.592794,-1.67819,3.05682,4.22365,-4.81316,0.121466,5.04715,-1.09239,5.16188,-5.25382,-0.275684,1.71144,0.036899,0.29663,-0.0226164,0.0744256,-2.16075,0.363441,0.359228,-0.0235285,0.286598,0.0785222,0.123337,-0.227205,-0.0231442,0.224225,0.000991004,0,0,0,0,0,0,0,-3.36865,-36.2917,-3.46251,28.0737,0.960079,2.622,0.0101778,
0.301208,-0.0207371,0.0790389,-2.16435,0.36387,0.360285,-0.0234489,0.0796571,0.0174381,0.0808846,-0.0764302,-0.0110567,0.0700141,0.00305714,-0.123997,0.765045,-0.147947,2.38781,5.38014,-6.32819,-0.307603,4.73111,-1.09418,4.84162,-4.38701,-0.171615,1.45395,0.0365087,0.29663,-0.0226164,0.0744256,-2.16075,0.363441,0.359228,-0.0235285,0.286598,0.0785222,0.123337,-0.227205,-0.0231442,0.224225,0.000991004,0,0,0,0,0,0,0,-3.36865,-36.2917,-3.46251,28.0737,0.960079,2.622,0.0101778,
0.301759,-0.0206152,0.0795978,-2.16477,0.364091,0.360605,-0.0234354,0.0775007,0.016997,0.0786812,-0.0716035,-0.00331691,0.0640076,0.00278338,-1.34774,-0.275661,-1.3771,3.0167,4.83738,-3.75402,-0.171103,4.56473,-1.09495,4.67175,-3.98595,-0.0512033,1.37069,0.0441045,0.29663,-0.0226164,0.0744256,-2.16075,0.363441,0.359228,-0.0235285,0.286598,0.0785222,0.123337,-0.227205,-0.0231442,0.224225,0.000991004,0,0,0,0,0,0,0,-3.36865,-36.2917,-3.46251,28.0737,0.960079,2.622,0.0101778,
0.30224,-0.0205379,0.0800855,-2.16513,0.364466,0.360937,-0.0234257,0.0740122,0.0155312,0.0751386,-0.0662169,0.00672189,0.0595235,0.00246906,-2.18029,-0.916123,-2.21415,3.36663,6.27425,-2.80262,-0.19645,4.2735,-1.19167,4.37313,-3.58044,0.16815,1.30335,0.0492871,0.301854,-0.0213191,0.0816386,-2.16792,0.362976,0.367114,-0.0235378,0.143389,0.0375329,0.183326,-0.170816,-0.0115743,0.232916,-0.000932236,-17.9012,-5.12366,7.49868,7.04863,1.44624,1.08646,-0.240405,-2.73388,-34.4231,-3.11339,26.0068,0.837399,1.77971,0.050461,
0.302664,-0.0204945,0.0805171,-2.16543,0.364978,0.361252,-0.0234208,0.0698247,0.0135087,0.0708985,-0.060466,0.0181789,0.0554955,0.00209722,-2.61717,-1.26409,-2.65006,3.59433,7.16062,-2.51745,-0.232399,3.89077,-1.27488,3.98429,-3.21004,0.415955,1.27213,0.0230363,0.301854,-0.0213191,0.0816386,-2.16792,0.362976,0.367114,-0.0235378,0.143389,0.0375329,0.183326,-0.170816,-0.0115743,0.232916,-0.000932236,0,0,0,0,0,0,0,-2.73388,-34.4231,-3.11339,26.0068,0.837399,1.77971,0.050461,
0.305493,-0.0203084,0.0853233,-2.17029,0.363886,0.369588,-0.0235225,0.0683446,0.0127046,0.069391,-0.0554607,0.0247533,0.0514526,0.00177737,-0.925082,-0.502554,-0.942136,3.1283,4.10902,-2.52686,-0.199904,3.73726,-1.23924,3.84271,-2.72092,-0.308134,1.78557,0.0150931,0.301854,-0.0213191,0.0816386,-2.16792,0.362976,0.367114,-0.0235378,0.143389,0.0375329,0.183326,-0.170816,-0.0115743,0.232916,-0.000932236,0,0,0,0,0,0,0,-2.73388,-34.4231,-3.11339,26.0068,0.837399,1.77971,0.050461,
0.305926,-0.0202697,0.0857636,-2.17052,0.364419,0.369811,-0.0235126,0.0655078,0.0111297,0.066521,-0.05011,0.0331327,0.0467503,0.00166993,-1.77303,-0.98434,-1.79379,3.34419,5.23712,-2.93889,-0.0671506,3.714,-1.30899,3.80922,-2.43503,0.0229311,1.53596,0.0227394,0.301854,-0.0213191,0.0816386,-2.16792,0.362976,0.367114,-0.0235378,0.143389,0.0375329,0.183326,-0.170816,-0.0115743,0.232916,-0.000932236,0,0,0,0,0,0,0,-2.73388,-34.4231,-3.11339,26.0068,0.837399,1.77971,0.050461,
0.306299,-0.0202593,0.0861434,-2.17071,0.365187,0.369949,-0.0235055,0.0617312,0.00916392,0.062711,-0.0447536,0.0457237,0.0408374,0.0015137,-2.36037,-1.22859,-2.38124,3.34776,7.86939,-3.69561,-0.0976451,3.55336,-1.41371,3.63805,-2.13966,0.486575,1.23507,0.0193393,0.307939,-0.0208063,0.086106,-2.17291,0.362899,0.3735,-0.0235356,0.0530227,-0.0103495,0.2556,-0.131348,-0.00949181,0.149252,-1.30825e-05,-11.2957,-5.9853,9.03421,4.93359,0.260315,-10.458,0.114894,-0.95654,-32.6259,-1.01073,24.2612,1.36291,1.14342,0.0303194,
0.306625,-0.0202691,0.0864768,-2.17085,0.366142,0.370021,-0.0235021,0.0575393,0.00708711,0.0585052,-0.0394869,0.0604464,0.034488,0.00129629,-2.61989,-1.29801,-2.62864,3.29169,9.20167,-3.96838,-0.135883,3.43864,-1.41034,3.52031,-1.83317,0.66195,1.03457,0.011921,0.307939,-0.0208063,0.086106,-2.17291,0.362899,0.3735,-0.0235356,0.0530227,-0.0103495,0.2556,-0.131348,-0.00949181,0.149252,-1.30825e-05,0,0,0,0,0,0,0,-0.95654,-32.6259,-1.01073,24.2612,1.36291,1.14342,0.0303194,
0.311426,-0.0206202,0.0896481,-2.17443,0.361847,0.376877,-0.0235193,0.0577848,0.0056288,0.0587342,-0.0355605,0.045899,0.0461603,0.00108519,0.153431,-0.911448,0.143166,2.45398,-9.09209,7.29523,-0.131936,3.28577,-1.45513,3.3807,-1.38045,-1.19718,2.27299,0.0114862,0.307939,-0.0208063,0.086106,-2.17291,0.362899,0.3735,-0.0235356,0.0530227,-0.0103495,0.2556,-0.131348,-0.00949181,0.149252,-1.30825e-05,0,0,0,0,0,0,0,-0.95654,-32.6259,-1.01073,24.2612,1.36291,1.14342,0.0303194,
0.311824,-0.020638,0.0900526,-2.17455,0.361883,0.377637,-0.0235155,0.0561755,0.00405887,0.0570998,-0.0314819,0.0376336,0.0559217,0.000963538,-1.00582,-0.981201,-1.02153,2.5491,-5.16592,6.10086,-0.0760327,3.19489,-1.43732,3.28171,-1.0936,-0.787022,2.00653,0.0206705,0.307939,-0.0208063,0.086106,-2.17291,0.362899,0.3735,-0.0235356,0.0530227,-0.0103495,0.2556,-0.131348,-0.00949181,0.149252,-1.30825e-05,0,0,0,0,0,0,0,-0.95654,-32.6259,-1.01073,24.2612,1.36291,1.14342,0.0303194,
0.312156,-0.0206682,0.090391,-2.17464,0.362177,0.378355,-0.0235159,0.0532398,0.00249193,0.054141,-0.0274394,0.037453,0.0626874,0.000761199,-1.83483,-0.979343,-1.84925,2.52659,-0.112843,4.22857,-0.126462,2.92044,-1.48141,3.00042,-0.825477,-0.260399,1.72351,0.0186185,0.312812,-0.0202448,0.0898221,-2.17645,0.363177,0.376547,-0.0235403,0.190772,0.0241651,0.0344959,-0.0916877,0.00347931,0.0790691,-0.00101667,17.2187,4.31432,-27.638,4.95751,1.62139,-8.77286,-0.125448,-1.13507,-33.0226,-1.10991,25.3085,1.66229,2.23107,0.0303194,
0.316002,-0.0196976,0.0930255,-2.17797,0.351967,0.389253,-0.023474,0.0541481,0.00312146,0.0550359,-0.0255086,-0.035977,0.128798,0.000655888,0.567715,0.393457,0.559339,1.20672,-45.8938,41.3191,-0.0658196,2.89986,-1.78132,2.99559,0.0256581,-4.84438,6.15563,0.0101266,0.312812,-0.0202448,0.0898221,-2.17645,0.363177,0.376547,-0.0235403,0.190772,0.0241651,0.0344959,-0.0916877,0.00347931,0.0790691,-0.00101667,0,0,0,0,0,0,0,-1.13507,-33.0226,-1.10991,25.3085,1.66229,2.23107,0.0303194,
0.316395,-0.0196746,0.0934244,-2.17806,0.349441,0.392456,-0.0234742,0.0531409,0.00307278,0.0540026,-0.0226449,-0.0919147,0.183111,0.000519808,-0.629496,-0.0304205,-0.645825,1.78982,-34.9611,33.9459,-0.0850498,2.86454,-1.72518,2.94889,0.190812,-4.2762,5.80482,0.0167302,0.312812,-0.0202448,0.0898221,-2.17645,0.363177,0.376547,-0.0235403,0.190772,0.0241651,0.0344959,-0.0916877,0.00347931,0.0790691,-0.00101667,0,0,0,0,0,0,0,-1.13507,-33.0226,-1.10991,25.3085,1.66229,2.23107,0.0303194,
0.316723,-0.019669,0.0937587,-2.1781,0.347186,0.39563,-0.0234785,0.0507297,0.00259918,0.0515592,-0.0192997,-0.129917,0.225824,0.000308713,-1.50705,-0.296004,-1.52715,2.09076,-23.7512,26.6955,-0.131935,2.6874,-1.66546,2.76574,0.340436,-3.66358,5.44368,0.0140354,0.312812,-0.0202448,0.0898221,-2.17645,0.363177,0.376547,-0.0235403,0.190772,0.0241651,0.0344959,-0.0916877,0.00347931,0.0790691,-0.00101667,0,0,0,0,0,0,0,-1.13507,-33.0226,-1.10991,25.3085,1.66229,2.23107,0.0303194,
0.317,-0.0196762,0.0940416,-2.17812,0.345203,0.398754,-0.0234841,0.0475125,0.0018978,0.048319,-0.0157332,-0.153514,0.258763,0.000108323,-2.01073,-0.438359,-2.02508,2.2291,-14.7487,20.5868,-0.125243,2.57742,-1.64937,2.65518,0.516604,-3.4285,5.23454,0.00629217,0.315034,-0.0197879,0.0947568,-2.17902,0.363899,0.378536,-0.0235393,0.146732,0.00848796,0.0564834,-0.0781197,-0.030145,0.0801887,-0.000110975,-5.50507,-1.95964,2.74843,1.696,-4.20304,0.139944,0.113211,-1.46435,-34.4707,-1.78832,26.9788,1.90673,2.97356,0.017502,
0.319136,-0.0195961,0.0988102,-2.18063,0.332656,0.405534,-0.0231429,0.0551756,0.00305935,0.0557051,-0.0173842,-0.300623,0.383438,0.00154088,4.78944,0.725963,4.6163,-1.03192,-91.9431,77.9218,0.895351,3.64313,-3.46701,3.6032,1.0219,-12.4245,11.0631,0.0568791,0.315034,-0.0197879,0.0947568,-2.17902,0.363899,0.378536,-0.0235393,0.146732,0.00848796,0.0564834,-0.0781197,-0.030145,0.0801887,-0.000110975,0,0,0,0,0,0,0,-1.46435,-34.4707,-1.78832,26.9788,1.90673,2.97356,0.017502,
0.319754,-0.0195139,0.0994257,-2.18078,0.325868,0.412983,-0.0230876,0.0596056,0.00450175,0.0599524,-0.0177011,-0.410208,0.492963,0.00261617,2.76875,0.901502,2.65456,-0.198044,-68.4907,68.4534,0.672052,4.20246,-2.81478,4.15184,1.14073,-11.3941,11.0631,0.0700687,0.315034,-0.0197879,0.0947568,-2.17902,0.363899,0.378536,-0.0235393,0.146732,0.00848796,0.0564834,-0.0781197,-0.030145,0.0801887,-0.000110975,0,0,0,0,0,0,0,-1.46435,-34.4707,-1.78832,26.9788,1.90673,2.97356,0.017502,
0.320312,-0.0194082,0.099982,-2.1809,0.319585,0.420713,-0.0230406,0.061613,0.00624415,0.0618687,-0.017112,-0.485235,0.587608,0.0032673,1.25463,1.089,1.19768,0.368183,-46.8916,59.153,0.406955,4.56266,-2.21721,4.49961,1.23236,-10.3183,11.0631,0.0743932,0.315034,-0.0197879,0.0947568,-2.17902,0.363899,0.378536,-0.0235393,0.146732,0.00848796,0.0564834,-0.0781197,-0.030145,0.0801887,-0.000110975,0,0,0,0,0,0,0,-1.46435,-34.4707,-1.78832,26.9788,1.90673,2.97356,0.017502,
0.320819,-0.0192802,0.100494,-2.18097,0.31376,0.428556,-0.0230027,0.0619789,0.00819589,0.0623069,-0.0154165,-0.533819,0.666186,0.0035608,0.228705,1.21984,0.273834,1.05968,-30.3648,49.1108,0.183441,4.83616,-1.5697,4.7591,1.22442,-9.51591,11.0148,0.0741835,0.318537,-0.0197185,0.0980366,-2.18117,0.360549,0.384857,-0.0235391,0.0275367,0.00455451,0.189701,-0.0688456,-0.347576,0.46521,-0.000187461,-14.8994,-0.491681,16.6522,1.15925,-39.6788,48.1276,-0.00956076,-1.66668,-33.5741,-1.81212,28.2245,0.733944,4.39904,-0.0227812,
0.3228,-0.0202111,0.102359,-2.18228,0.319133,0.417411,-0.0230087,0.0685017,0.00295816,0.0691414,-0.0161691,-0.656889,0.721685,0.0048636,4.07674,-3.27358,4.27162,-0.470372,-76.9189,34.687,0.81425,5.07631,-4.36267,5.24463,0.97271,-13.8263,11.0148,0.10347,0.318537,-0.0197185,0.0980366,-2.18117,0.360549,0.384857,-0.0235391,0.0275367,0.00455451,0.189701,-0.0688456,-0.347576,0.46521,-0.000187461,0,0,0,0,0,0,0,-1.66668,-33.5741,-1.81212,28.2245,0.733944,4.39904,-0.0227812,
0.323509,-0.0203532,0.103086,-2.18242,0.310211,0.425207,-0.0229314,0.0725194,-0.00118576,0.0735082,-0.0163561,-0.748578,0.77225,0.00582172,2.51103,-2.58995,2.7292,-0.116842,-57.306,31.6035,0.598825,5.81253,-4.18749,5.96018,0.940884,-13.8263,11.0148,0.114274,0.318537,-0.0197185,0.0980366,-2.18117,0.360549,0.384857,-0.0235391,0.0275367,0.00455451,0.189701,-0.0688456,-0.347576,0.46521,-0.000187461,0,0,0,0,0,0,0,-1.66668,-33.5741,-1.81212,28.2245,0.733944,4.39904,-0.0227812,
0.324173,-0.0204865,0.103774,-2.18254,0.301745,0.433176,-0.0228611,0.074625,-0.00428127,0.0759931,-0.0161375,-0.810507,0.817035,0.00641662,1.31605,-1.93469,1.55306,0.136573,-38.7051,27.9907,0.371809,6.31438,-4.00978,6.44007,0.891848,-12.792,11.0148,0.111574,0.318537,-0.0197185,0.0980366,-2.18117,0.360549,0.384857,-0.0235391,0.0275367,0.00455451,0.189701,-0.0688456,-0.347576,0.46521,-0.000187461,0,0,0,0,0,0,0,-1.66668,-33.5741,-1.81212,28.2245,0.733944,4.39904,-0.0227812,
0.3248,-0.0206103,0.104438,-2.18264,0.293709,0.441265,-0.0227952,0.0753703,-0.00651943,0.0773887,-0.0154939,-0.849306,0.855843,0.00677876,0.465793,-1.39885,0.872304,0.402289,-24.2494,24.2549,0.226343,6.78964,-3.8482,6.87659,0.844085,-11.8959,11.0148,0.0998763,0.318537,-0.0197185,0.0980366,-2.18117,0.360549,0.384857,-0.0235391,0.0275367,0.00455451,0.189701,-0.0688456,-0.347576,0.46521,-0.000187461,0,0,0,0,0,0,0,-1.66668,-33.5741,-1.81212,28.2245,0.733944,4.39904,-0.0227812,
0.323178,-0.0196212,0.102625,-2.18209,0.317109,0.417642,-0.0229435,0.0817239,-0.00514463,0.0829369,-0.0154808,-0.931037,0.874705,0.00754325,3.97101,0.859253,3.46758,0.00819787,-51.0821,11.7888,0.4778,6.3533,-1.72984,6.31271,0.464626,-13.9082,10.8145,0.120478,0.322538,-0.0196358,0.100683,-2.18288,0.34179,0.408045,-0.0235192,0.0951014,-0.00220921,0.139528,-0.0729175,-0.863276,1.03585,0.00301926,8.44559,-0.845465,-6.27165,-0.50898,-64.4626,71.3304,0.40084,-0.603451,-34.0462,-0.562425,29.4424,-0.676884,6.36193,-0.117081,
0.323985,-0.0196126,0.103416,-2.18221,0.307279,0.425488,-0.0228715,0.0855377,-0.00390168,0.0861311,-0.015552,-0.990577,0.895903,0.00783467,2.38362,0.776839,1.9964,-0.0445235,-37.2124,13.2484,0.182141,6.99819,-1.42265,6.92187,0.405862,-13.9082,10.8145,0.130144,0.322538,-0.0196358,0.100683,-2.18288,0.34179,0.408045,-0.0235192,0.0951014,-0.00220921,0.139528,-0.0729175,-0.863276,1.03585,0.00301926,0,0,0,0,0,0,0,-0.603451,-34.0462,-0.562425,29.4424,-0.676884,6.36193,-0.117081,
0.324747,-0.0195918,0.104163,-2.18234,0.297914,0.433504,-0.0228079,0.0874978,-0.00260028,0.0875885,-0.0156676,-1.02658,0.917128,0.0078569,1.22507,0.813379,0.910876,-0.0722224,-22.499,13.2655,0.0138957,7.3548,-1.15567,7.23897,0.347525,-13.9082,10.8145,0.127152,0.322538,-0.0196358,0.100683,-2.18288,0.34179,0.408045,-0.0235192,0.0951014,-0.00220921,0.139528,-0.0729175,-0.863276,1.03585,0.00301926,0,0,0,0,0,0,0,-0.603451,-34.0462,-0.562425,29.4424,-0.676884,6.36193,-0.117081,
0.32662,-0.0200067,0.104824,-2.18351,0.29238,0.448486,-0.023013,0.0887339,-0.00516665,0.0891154,-0.0154453,-1.08073,0.939432,0.00822756,0.772543,-1.60398,0.954311,0.138884,-33.8467,13.94,0.231658,6.40599,-2.57094,6.57136,-0.107228,-13.9082,10.8145,0.122199,0.322538,-0.0196358,0.100683,-2.18288,0.34179,0.408045,-0.0235192,0.0951014,-0.00220921,0.139528,-0.0729175,-0.863276,1.03585,0.00301926,0,0,0,0,0,0,0,-0.603451,-34.0462,-0.562425,29.4424,-0.676884,6.36193,-0.117081,
0.327338,-0.0201264,0.105554,-2.18365,0.282452,0.456763,-0.0229438,0.0889404,-0.0071256,0.0895645,-0.0157521,-1.11279,0.958475,0.00831313,0.129098,-1.22435,0.280703,-0.191752,-20.0343,11.9023,0.0534819,6.71991,-1.75151,6.87327,-0.968711,-13.9957,10.4191,0.124885,0.327346,-0.0195648,0.10571,-2.18473,0.298631,0.453805,-0.0235253,0.114718,0.00959947,0.18974,-0.0468989,-1.39661,1.43693,-0.000763698,2.45204,1.47608,6.27657,3.25233,-66.6667,50.1347,-0.472869,0.25745,-34.9944,0.163588,28.5736,0.624081,3.94768,0.0641939,
0.328031,-0.0202328,0.10626,-2.1838,0.273123,0.465068,-0.0228794,0.0884614,-0.00836202,0.08928,-0.0163055,-1.12345,0.974413,0.00825861,-0.299382,-0.772759,-0.177809,-0.345822,-6.66624,9.96125,-0.0340742,7.25782,-1.6682,7.40803,-1.12509,-13.9957,10.4191,0.120345,0.327346,-0.0195648,0.10571,-2.18473,0.298631,0.453805,-0.0235253,0.114718,0.00959947,0.18974,-0.0468989,-1.39661,1.43693,-0.000763698,0,0,0,0,0,0,0,0.25745,-34.9944,0.163588,28.5736,0.624081,3.94768,0.0641939,
0.328702,-0.02032,0.106944,-2.18395,0.264469,0.473387,-0.0228202,0.0875524,-0.00886809,0.0885273,-0.0168875,-1.11509,0.987491,0.00808855,-0.568163,-0.316296,-0.470436,-0.363789,5.22528,8.17365,-0.106285,7.68946,-1.54746,7.84148,-1.27011,-13.9957,10.4191,0.113492,0.327346,-0.0195648,0.10571,-2.18473,0.298631,0.453805,-0.0235253,0.114718,0.00959947,0.18974,-0.0468989,-1.39661,1.43693,-0.000763698,0,0,0,0,0,0,0,0.25745,-34.9944,0.163588,28.5736,0.624081,3.94768,0.0641939,
0.331496,-0.0197474,0.109932,-2.1852,0.251927,0.499584,-0.0232438,0.0875939,-0.00875398,0.0886891,-0.0162603,-1.08914,1.0046,0.00774227,0.0259645,0.0713171,0.101111,0.392014,16.2185,10.6935,-0.216429,8.04479,-1.38846,8.19791,-1.40727,-12.9612,10.4191,0.105587,0.327346,-0.0195648,0.10571,-2.18473,0.298631,0.453805,-0.0235253,0.114718,0.00959947,0.18974,-0.0468989,-1.39661,1.43693,-0.000763698,0,0,0,0,0,0,0,0.25745,-34.9944,0.163588,28.5736,0.624081,3.94768,0.0641939,
0.332166,-0.0198002,0.110615,-2.1853,0.244759,0.507959,-0.0231978,0.0868371,-0.00832426,0.0880268,-0.015553,-1.05051,1.01306,0.0073439,-0.472998,0.268578,-0.413971,0.442072,24.1437,5.28464,-0.248978,8.12734,-0.884317,8.2773,-1.82056,-11.7915,10.0813,0.102924,0.332955,-0.0194749,0.110892,-2.18578,0.247855,0.503756,-0.0234643,0.150127,0.00140962,0.214019,-0.0215151,-1.55899,1.45678,0.00413251,4.42616,-1.02373,3.03486,3.17297,-20.297,2.48118,0.612026,-0.246395,-35.1689,-0.0625476,26.7526,-0.56702,3.93487,0.0779268,
0.332807,-0.0198416,0.111269,-2.18536,0.238266,0.515858,-0.0231569,0.0854931,-0.00769279,0.0867567,-0.0137762,-1.00275,1.00793,0.00689715,-0.840039,0.394666,-0.793813,1.11051,29.8481,-3.20285,-0.27922,8.32069,-0.623449,8.46624,-1.91905,-10.7941,10.0813,0.0996344,0.332955,-0.0194749,0.110892,-2.18578,0.247855,0.503756,-0.0234643,0.150127,0.00140962,0.214019,-0.0215151,-1.55899,1.45678,0.00413251,0,0,0,0,0,0,0,-0.246395,-35.1689,-0.0625476,26.7526,-0.56702,3.93487,0.0779268,
0.333423,-0.0198804,0.111897,-2.18536,0.232406,0.523176,-0.0231204,0.0837982,-0.0071255,0.0851153,-0.0112291,-0.948703,0.989282,0.00642946,-1.05931,0.354558,-1.02585,1.59193,33.7817,-11.6558,-0.292305,8.4025,-0.31252,8.54605,-1.98008,-9.8409,10.0813,0.0945912,0.332955,-0.0194749,0.110892,-2.18578,0.247855,0.503756,-0.0234643,0.150127,0.00140962,0.214019,-0.0215151,-1.55899,1.45678,0.00413251,0,0,0,0,0,0,0,-0.246395,-35.1689,-0.0625476,26.7526,-0.56702,3.93487,0.0779268,
0.337226,-0.0196796,0.115237,-2.18581,0.211558,0.546448,-0.0233813,0.0838562,-0.00729907,0.0852102,-0.00731644,-0.891447,0.964163,0.00580733,0.0362621,-0.108482,0.0593241,2.4454,35.7855,-15.6997,-0.388829,8.40024,0.0072812,8.54315,-2.01572,-8.93868,10.0813,0.0881816,0.332955,-0.0194749,0.110892,-2.18578,0.247855,0.503756,-0.0234643,0.150127,0.00140962,0.214019,-0.0215151,-1.55899,1.45678,0.00413251,0,0,0,0,0,0,0,-0.246395,-35.1689,-0.0625476,26.7526,-0.56702,3.93487,0.0779268,
0.33786,-0.0197517,0.115884,-2.18573,0.206864,0.552651,-0.0233558,0.0829532,-0.00764193,0.0843267,-0.00378225,-0.830504,0.926412,0.00528509,-0.564375,-0.214287,-0.55222,2.20887,38.0891,-23.5941,-0.326401,8.17217,0.437633,8.31584,-2.14326,-7.94503,9.48911,0.0824902,0.338854,-0.0195776,0.116892,-2.18721,0.193242,0.555041,-0.0234472,0.245473,-0.00267035,0.0689194,-0.0576355,-1.54459,1.55522,-0.00104651,11.9183,-0.509997,-18.1375,-4.51506,1.80007,12.3053,-0.647377,-0.932736,-33.5225,-0.836168,27.2763,0.557247,3.87536,0.0980684,
0.338468,-0.01983,0.116503,-2.18564,0.202691,0.558202,-0.0233321,0.0815575,-0.0080708,0.0829393,-0.000766115,-0.768748,0.879906,0.0048194,-0.872281,-0.268046,-0.867104,1.88509,38.5975,-29.0667,-0.29106,8.07861,0.69195,8.22161,-2.15472,-7.17582,8.33665,0.0753589,0.338854,-0.0195776,0.116892,-2.18721,0.193242,0.555041,-0.0234472,0.245473,-0.00267035,0.0689194,-0.0576355,-1.54459,1.55522,-0.00104651,0,0,0,0,0,0,0,-0.932736,-33.5225,-0.836168,27.2763,0.557247,3.87536,0.0980684,
0.342301,-0.0198386,0.120393,-2.18661,0.165317,0.589304,-0.0235011,0.0793046,-0.00914071,0.0806924,0.00317632,-0.702738,0.8242,0.00414803,-1.40806,-0.668691,-1.4043,2.46402,41.2566,-34.8163,-0.419603,7.81662,1.04859,7.95632,-2.15642,-5.88391,6.41407,0.0636442,0.338854,-0.0195776,0.116892,-2.18721,0.193242,0.555041,-0.0234472,0.245473,-0.00267035,0.0689194,-0.0576355,-1.54459,1.55522,-0.00104651,0,0,0,0,0,0,0,-0.932736,-33.5225,-0.836168,27.2763,0.557247,3.87536,0.0980684,
0.342848,-0.0199528,0.120951,-2.18648,0.16229,0.593475,-0.0234885,0.0771232,-0.0101679,0.0785059,0.00593491,-0.637852,0.763649,0.00363218,-1.3634,-0.642013,-1.36656,1.72411,40.5532,-37.8444,-0.322406,7.65034,1.1539,7.78861,-2.1537,-5.33348,5.61215,0.0580856,0.338854,-0.0195776,0.116892,-2.18721,0.193242,0.555041,-0.0234472,0.245473,-0.00267035,0.0689194,-0.0576355,-1.54459,1.55522,-0.00104651,0,0,0,0,0,0,0,-0.932736,-33.5225,-0.836168,27.2763,0.557247,3.87536,0.0980684,
0.343386,-0.0200682,0.1215,-2.18636,0.159646,0.597103,-0.0234766,0.0751491,-0.0110174,0.0765219,0.00769489,-0.576387,0.70162,0.00320324,-1.23381,-0.530929,-1.24004,1.09999,38.4158,-38.7681,-0.268091,7.52114,1.13346,7.65668,-1.95862,-4.61368,4.76323,0.0527937,0.343451,-0.0193744,0.123852,-2.18918,0.147416,0.608487,-0.0234424,0.202627,0.011636,0.150615,-0.0630753,-1.14232,1.56263,0.000346121,-5.3558,1.78829,10.2119,-0.679971,50.2833,0.925448,0.174079,0.309024,-35.0221,-0.110155,28.0499,1.74194,3.70965,0.0577852,
0.343918,-0.0201811,0.122042,-2.18626,0.157317,0.600264,-0.0234661,0.073413,-0.0116374,0.074774,0.00864106,-0.519337,0.640306,0.00282583,-1.08507,-0.387507,-1.09242,0.591357,35.6564,-38.3209,-0.235882,7.33,1.16592,7.46464,-1.95432,-4.16821,4.13574,0.0475101,0.343451,-0.0193744,0.123852,-2.18918,0.147416,0.608487,-0.0234424,0.202627,0.011636,0.150615,-0.0630753,-1.14232,1.56263,0.000346121,0,0,0,0,0,0,0,0.309024,-35.0221,-0.110155,28.0499,1.74194,3.70965,0.0577852,
0.347321,-0.0197567,0.127779,-2.18801,0.129509,0.636184,-0.0235586,0.0739701,-0.0134967,0.0753165,0.0120615,-0.466866,0.596835,0.00229364,0.348204,-1.16203,0.339086,2.13778,32.7944,-27.1694,-0.332616,7.13438,1.17275,7.26832,-1.94922,-3.76956,3.58197,0.0425188,0.343451,-0.0193744,0.123852,-2.18918,0.147416,0.608487,-0.0234424,0.202627,0.011636,0.150615,-0.0630753,-1.14232,1.56263,0.000346121,0,0,0,0,0,0,0,0.309024,-35.0221,-0.110155,28.0499,1.74194,3.70965,0.0577852,
0.347901,-0.019925,0.128369,-2.18785,0.127748,0.639005,-0.0235553,0.0736942,-0.0150048,0.0750232,0.0138223,-0.417514,0.54799,0.00191611,-0.172421,-0.942595,-0.183293,1.1005,30.8448,-30.5284,-0.235955,6.93937,1.16001,7.07265,-1.94303,-3.41332,3.09766,0.0377861,0.343451,-0.0193744,0.123852,-2.18918,0.147416,0.608487,-0.0234424,0.202627,0.011636,0.150615,-0.0630753,-1.14232,1.56263,0.000346121,0,0,0,0,0,0,0,0.309024,-35.0221,-0.110155,28.0499,1.74194,3.70965,0.0577852,
0.348461,-0.0200856,0.128939,-2.18771,0.12621,0.641376,-0.0235517,0.0729592,-0.0160205,0.0742718,0.0143491,-0.372463,0.497679,0.00162309,-0.459411,-0.634769,-0.469662,0.329262,28.1569,-31.4441,-0.18314,7.09415,0.897244,7.22152,-1.75312,-2.83521,2.53677,0.0320577,0.348813,-0.0188034,0.129199,-2.19011,0.114566,0.654338,-0.0234482,0.0531372,0.013269,0.19932,0.00891296,-0.863724,1.17088,-0.000591204,-18.6862,0.20412,6.08814,8.99853,34.8243,-48.968,-0.117166,1.07074,-33.6217,0.711073,24.5349,2.7124,1.00426,0.0641939,
0.349006,-0.0202346,0.129494,-2.18761,0.124851,0.643381,-0.0235485,0.0719782,-0.0165403,0.0732767,0.0139915,-0.33196,0.448266,0.00137843,-0.613135,-0.324928,-0.621928,-0.223543,25.3145,-30.8831,-0.152912,6.90681,0.860481,7.03352,-1.74424,-2.55374,2.16819,0.0280355,0.348813,-0.0188034,0.129199,-2.19011,0.114566,0.654338,-0.0234482,0.0531372,0.013269,0.19932,0.00891296,-0.863724,1.17088,-0.000591204,0,0,0,0,0,0,0,1.07074,-33.6217,0.711073,24.5349,2.7124,1.00426,0.0641939,
0.351879,-0.0195204,0.132335,-2.1887,0.102681,0.674474,-0.023572,0.07076,-0.0182334,0.0720394,0.0160918,-0.297411,0.41611,0.00105052,-0.761373,-1.05819,-0.773304,1.31273,21.5934,-20.0977,-0.204942,6.72511,0.817509,6.85113,-1.73377,-2.30463,1.84715,0.0244029,0.348813,-0.0188034,0.129199,-2.19011,0.114566,0.654338,-0.0234482,0.0531372,0.013269,0.19932,0.00891296,-0.863724,1.17088,-0.000591204,0,0,0,0,0,0,0,1.07074,-33.6217,0.711073,24.5349,2.7124,1.00426,0.0641939,
0.352392,-0.0197091,0.132858,-2.18855,0.101595,0.676335,-0.0235725,0.069447,-0.0193048,0.070708,0.0166418,-0.26506,0.379419,0.000829315,-0.82061,-0.669626,-0.832125,0.343736,20.219,-22.9314,-0.138254,6.55022,0.771141,6.67548,-1.72168,-2.08433,1.57032,0.021099,0.348813,-0.0188034,0.129199,-2.19011,0.114566,0.654338,-0.0234482,0.0531372,0.013269,0.19932,0.00891296,-0.863724,1.17088,-0.000591204,0,0,0,0,0,0,0,1.07074,-33.6217,0.711073,24.5349,2.7124,1.00426,0.0641939,
0.352896,-0.0198811,0.133371,-2.18843,0.100648,0.677853,-0.0235725,0.0681466,-0.019745,0.0693919,0.0161092,-0.235727,0.341497,0.000662889,-0.812751,-0.27509,-0.822553,-0.332868,18.3334,-23.7014,-0.104016,6.38187,0.723635,6.50632,-1.70786,-1.89007,1.33053,0.0181549,0.348813,-0.0188034,0.129199,-2.19011,0.114566,0.654338,-0.0234482,0.0531372,0.013269,0.19932,0.00891296,-0.863724,1.17088,-0.000591204,0,0,0,0,0,0,0,1.07074,-33.6217,0.711073,24.5349,2.7124,1.00426,0.0641939,
0.355799,-0.0191534,0.135763,-2.18872,0.0857218,0.699871,-0.0235689,0.0674268,-0.0198599,0.0686499,0.0159238,-0.20756,0.307836,0.000428987,-0.449837,-0.0718307,-0.463781,-0.115899,17.6041,-21.0385,-0.146189,6.33699,0.490306,6.45688,-1.57311,-1.40484,0.849075,0.0123762,0.35284,-0.0185268,0.132743,-2.18969,0.0930205,0.686791,-0.0234617,0.0567811,0.00878011,0.166942,0.0073332,-0.572881,0.815437,-0.00140788,0.45549,-0.561106,-4.04726,-0.19747,36.3555,-44.4307,-0.102084,3.40351,-33.7209,3.16286,24.1382,2.24273,1.08391,0.0706026,
0.356299,-0.0193041,0.136273,-2.18863,0.0850694,0.700956,-0.0235716,0.0664545,-0.0196563,0.0676579,0.0148828,-0.182356,0.273387,0.000274476,-0.607719,0.127279,-0.620012,-0.650635,15.7524,-21.5306,-0.0965697,6.18815,0.447869,6.30702,-1.55443,-1.27239,0.698237,0.0102771,0.35284,-0.0185268,0.132743,-2.18969,0.0930205,0.686791,-0.0234617,0.0567811,0.00878011,0.166942,0.0073332,-0.572881,0.815437,-0.00140788,0,0,0,0,0,0,0,3.40351,-33.7209,3.16286,24.1382,2.24273,1.08391,0.0706026,
0.356787,-0.0194394,0.136769,-2.18858,0.0844935,0.701809,-0.0235739,0.0653593,-0.0191073,0.0665464,0.0132964,-0.160283,0.240038,0.000161553,-0.684519,0.343106,-0.694662,-0.991454,13.7958,-20.8432,-0.0705765,6.04491,0.408749,6.16273,-1.53419,-1.1562,0.568635,0.00843699,0.35284,-0.0185268,0.132743,-2.18969,0.0930205,0.686791,-0.0234617,0.0567811,0.00878011,0.166942,0.0073332,-0.572881,0.815437,-0.00140788,0,0,0,0,0,0,0,3.40351,-33.7209,3.16286,24.1382,2.24273,1.08391,0.0706026,
0.357264,-0.0195584,0.137255,-2.18855,0.0839768,0.70248,-0.0235763,0.0642109,-0.0182605,0.065385,0.0113993,-0.141143,0.208801,7.10884e-05,-0.717719,0.529239,-0.725852,-1.18574,11.9624,-19.5231,-0.0565406,5.90708,0.373324,6.02379,-1.5126,-1.05415,0.458823,0.0067957,0.35284,-0.0185268,0.132743,-2.18969,0.0930205,0.686791,-0.0234617,0.0567811,0.00878011,0.166942,0.0073332,-0.572881,0.815437,-0.00140788,0,0,0,0,0,0,0,3.40351,-33.7209,3.16286,24.1382,2.24273,1.08391,0.0706026,
0.359471,-0.0202777,0.138516,-2.188,0.0763274,0.716995,-0.0235495,0.0640219,-0.019408,0.0651845,0.0118305,-0.123826,0.189708,-6.66057e-05,-0.118102,-0.717184,-0.125366,0.26951,10.8234,-11.9331,-0.0860588,5.93509,0.283959,6.05371,-1.47744,-0.877688,0.291832,0.00510312,0.356579,-0.0191199,0.135576,-2.18896,0.0803819,0.708259,-0.02347,0.0938922,-0.0344488,0.108851,0.0187488,-0.324883,0.540745,-0.00156722,4.63889,-5.40362,-7.2613,1.42694,30.9997,-34.3365,-0.019918,3.53046,-29.7536,3.63893,23.4915,1.21002,1.65429,0.0577852,
0.359958,-0.0204442,0.139012,-2.18793,0.0759414,0.717684,-0.0235535,0.0633933,-0.0196902,0.0645474,0.0112987,-0.108709,0.168987,-0.000154546,-0.392882,-0.176358,-0.398138,-0.332357,9.44779,-12.9507,-0.0549628,5.80651,0.256347,5.92394,-1.45334,-0.799291,0.212296,0.00381988,0.356579,-0.0191199,0.135576,-2.18896,0.0803819,0.708259,-0.02347,0.0938922,-0.0344488,0.108851,0.0187488,-0.324883,0.540745,-0.00156722,0,0,0,0,0,0,0,3.53046,-29.7536,3.63893,23.4915,1.21002,1.65429,0.0577852,
0.360429,-0.0205868,0.139492,-2.18788,0.0755907,0.718202,-0.0235572,0.0624945,-0.0193162,0.063643,0.0101479,-0.0957347,0.148141,-0.000216125,-0.561757,0.233728,-0.565247,-0.719275,8.10902,-13.0284,-0.0384866,5.68186,0.232601,5.79807,-1.4281,-0.730799,0.14397,0.00270624,0.356579,-0.0191199,0.135576,-2.18896,0.0803819,0.708259,-0.02347,0.0938922,-0.0344488,0.108851,0.0187488,-0.324883,0.540745,-0.00156722,0,0,0,0,0,0,0,3.53046,-29.7536,3.63893,23.4915,1.21002,1.65429,0.0577852,
0.360887,-0.0207077,0.139959,-2.18786,0.0752673,0.718584,-0.0235609,0.0614341,-0.018475,0.0625792,0.0086325,-0.0846745,0.128061,-0.00026373,-0.662732,0.525752,-0.664913,-0.947101,6.91261,-12.5498,-0.029753,5.56088,0.212605,5.67583,-1.40192,-0.670745,0.0863579,0.00170044,0.356579,-0.0191199,0.135576,-2.18896,0.0803819,0.708259,-0.02347,0.0938922,-0.0344488,0.108851,0.0187488,-0.324883,0.540745,-0.00156722,0,0,0,0,0,0,0,3.53046,-29.7536,3.63893,23.4915,1.21002,1.65429,0.0577852,
0.359356,-0.0203092,0.138399,-2.18794,0.0770697,0.716425,-0.0235691,0.0610888,-0.0197297,0.0622163,0.00987887,-0.075152,0.12217,-0.000380224,-0.215873,-0.784197,-0.226788,0.778981,5.95158,-3.68183,-0.0728093,5.51086,0.165,5.63157,-1.40056,-0.578344,-0.0217435,0.000880223,0.359731,-0.0201505,0.139649,-2.1879,0.0729003,0.722756,-0.0234724,0.186225,-0.0171185,0.0322783,0.0333546,-0.159269,0.348915,7.83308e-05,11.5416,2.1663,-9.5716,1.82573,20.7017,-23.9787,0.205694,2.13398,-30.4518,1.98854,22.9163,1.11847,1.40893,0.0239107,
0.359814,-0.0204803,0.138865,-2.18786,0.076807,0.717006,-0.0235747,0.0603136,-0.0200631,0.061428,0.00997752,-0.0666879,0.112241,-0.000443245,-0.484458,-0.208377,-0.492676,0.0616513,5.29007,-6.20617,-0.0393879,5.396,0.151875,5.51541,-1.37271,-0.5325,-0.0638279,9.35386e-05,0.359731,-0.0201505,0.139649,-2.1879,0.0729003,0.722756,-0.0234724,0.186225,-0.0171185,0.0322783,0.0333546,-0.159269,0.348915,7.83308e-05,0,0,0,0,0,0,0,2.13398,-30.4518,1.98854,22.9163,1.11847,1.40893,0.0239107,
0.360255,-0.0206261,0.139315,-2.1878,0.0765637,0.717425,-0.0235797,0.0592841,-0.0196954,0.0603892,0.0093169,-0.0594347,0.100271,-0.000479401,-0.643423,0.229815,-0.649276,-0.412887,4.53325,-7.48106,-0.0225976,5.28369,0.141806,5.40177,-1.34411,-0.492707,-0.100617,-0.000582604,0.359731,-0.0201505,0.139649,-2.1879,0.0729003,0.722756,-0.0234724,0.186225,-0.0171185,0.0322783,0.0333546,-0.159269,0.348915,7.83308e-05,0,0,0,0,0,0,0,2.13398,-30.4518,1.98854,22.9163,1.11847,1.40893,0.0239107,
0.362716,-0.0210585,0.142663,-2.18716,0.0714912,0.727939,-0.0235511,0.059763,-0.0196128,0.0608603,0.00924857,-0.0511626,0.0911152,-0.00055924,0.2993,0.051625,0.29447,-0.0427026,5.17007,-5.72235,-0.0498991,5.06575,0.129818,5.18114,-1.2852,-0.427863,-0.159909,-0.00173571,0.359731,-0.0201505,0.139649,-2.1879,0.0729003,0.722756,-0.0234724,0.186225,-0.0171185,0.0322783,0.0333546,-0.159269,0.348915,7.83308e-05,0,0,0,0,0,0,0,2.13398,-30.4518,1.98854,22.9163,1.11847,1.40893,0.0239107,
0.36318,-0.021191,0.143136,-2.18711,0.0713463,0.728223,-0.0235572,0.0594085,-0.0190031,0.0605008,0.00851597,-0.0445514,0.0800028,-0.000600699,-0.221557,0.381063,-0.224711,-0.457875,4.132,-6.94521,-0.0259119,5.01065,0.0902889,5.13033,-1.25866,-0.376619,-0.211478,-0.0022067,0.362971,-0.0207733,0.144322,-2.18741,0.0695935,0.730191,-0.0234758,0.156628,-0.00908369,0.0932073,0.00331722,-0.0465734,0.13081,8.24189e-05,-3.6997,1.00435,7.61612,-3.75467,14.087,-27.2632,0.000511008,1.2215,-32.376,0.889601,24.2889,0.251461,2.81426,0.0101778,
0.36362,-0.021303,0.143584,-2.18709,0.0711973,0.728391,-0.0235629,0.058522,-0.0180012,0.0596113,0.00738056,-0.0393669,0.0681827,-0.000621415,-0.554102,0.626207,-0.555965,-0.70963,3.24031,-7.38755,-0.0129478,4.9061,0.0898555,5.0244,-1.228,-0.354264,-0.233571,-0.00262959,0.362971,-0.0207733,0.144322,-2.18741,0.0695935,0.730191,-0.0234758,0.156628,-0.00908369,0.0932073,0.00331722,-0.0465734,0.13081,8.24189e-05,0,0,0,0,0,0,0,1.2215,-32.376,0.889601,24.2889,0.251461,2.81426,0.0101778,
0.364039,-0.0213963,0.144012,-2.18708,0.0710434,0.728465,-0.0235683,0.0573086,-0.0167355,0.0583962,0.00603047,-0.0353399,0.0564116,-0.000631647,-0.758377,0.791033,-0.759422,-0.843811,2.51683,-7.35697,-0.00639457,4.80298,0.09121,4.91988,-1.19703,-0.334899,-0.253062,-0.00303392,0.362971,-0.0207733,0.144322,-2.18741,0.0695935,0.730191,-0.0234758,0.156628,-0.00908369,0.0932073,0.00331722,-0.0465734,0.13081,8.24189e-05,0,0,0,0,0,0,0,1.2215,-32.376,0.889601,24.2889,0.251461,2.81426,0.0101778,
0.366277,-0.0211962,0.147666,-2.18735,0.0694028,0.731353,-0.0235415,0.0588869,-0.0151477,0.0599714,0.00443324,-0.0294366,0.0444282,-0.000694347,0.98647,0.992414,0.984497,-0.99827,3.68958,-7.48961,-0.0391874,4.70108,0.0940877,4.81657,-1.16568,-0.318676,-0.271426,-0.00337444,0.362971,-0.0207733,0.144322,-2.18741,0.0695935,0.730191,-0.0234758,0.156628,-0.00908369,0.0932073,0.00331722,-0.0465734,0.13081,8.24189e-05,0,0,0,0,0,0,0,1.2215,-32.376,0.889601,24.2889,0.251461,2.81426,0.0101778,
0.366756,-0.0212559,0.148154,-2.18738,0.0693316,0.731261,-0.0235483,0.0591005,-0.0136097,0.0601826,0.00291167,-0.0253301,0.0332371,-0.000725081,0.133481,0.961217,0.132017,-0.95098,2.56655,-6.99446,-0.0192092,4.6173,0.065954,4.73538,-1.14133,-0.296488,-0.296597,-0.00366452,0.366774,-0.0210362,0.148802,-2.18743,0.0687584,0.731901,-0.023478,0.0763095,-0.00734106,0.158602,0.00340114,-0.0196501,0.00967165,0.000656548,-10.0398,0.217829,8.17431,0.01049,3.36542,-15.1422,0.0717661,0.134464,-32.0506,-0.288683,25.134,0.27618,4.12072,-0.050247,
0.367202,-0.0213054,0.148608,-2.18741,0.0692383,0.731119,-0.0235546,0.0584205,-0.0121266,0.0595007,0.00150422,-0.0225948,0.0230296,-0.000736931,-0.424974,0.926933,-0.426208,-0.879654,1.70958,-6.37969,-0.00740577,4.51742,0.0712642,4.63407,-1.10942,-0.285301,-0.31264,-0.00393961,0.366774,-0.0210362,0.148802,-2.18743,0.0687584,0.731901,-0.023478,0.0763095,-0.00734106,0.158602,0.00340114,-0.0196501,0.00967165,0.000656548,0,0,0,0,0,0,0,0.134464,-32.0506,-0.288683,25.134,0.27618,4.12072,-0.050247,
0.366277,-0.0211962,0.147666,-2.18735,0.0694028,0.731353,-0.0235415,0.0597765,-0.0114606,0.060855,0.000812239,-0.0192405,0.0177226,-0.000778574,0.847475,0.416301,0.846436,-0.432489,2.09643,-3.31686,-0.0260269,4.31999,0.0845073,4.43373,-1.0449,-0.269162,-0.341988,-0.00443479,0.366774,-0.0210362,0.148802,-2.18743,0.0687584,0.731901,-0.023478,0.0763095,-0.00734106,0.158602,0.00340114,-0.0196501,0.00967165,0.000656548,0,0,0,0,0,0,0,0.134464,-32.0506,-0.288683,25.134,0.27618,4.12072,-0.050247,
0.370329,-0.021344,0.152415,-2.18763,0.0687401,0.73096,-0.0235447,0.0590129,-0.00996399,0.0600871,-0.000491315,-0.0171129,0.00773777,-0.000794159,-0.477256,0.935361,-0.479907,-0.814721,1.32975,-6.24051,-0.00974108,4.22221,0.0920972,4.33449,-1.01233,-0.263937,-0.355565,-0.00465961,0.366774,-0.0210362,0.148802,-2.18743,0.0687584,0.731901,-0.023478,0.0763095,-0.00734106,0.158602,0.00340114,-0.0196501,0.00967165,0.000656548,0,0,0,0,0,0,0,0.134464,-32.0506,-0.288683,25.134,0.27618,4.12072,-0.050247,
0.370743,-0.0213692,0.152838,-2.18768,0.0686437,0.73068,-0.0235511,0.0575661,-0.00860159,0.0586362,-0.00158406,-0.0160983,-0.000803603,-0.000794611,-0.904255,0.8515,-0.906856,-0.682965,0.634102,-5.33836,-0.000282168,4.13381,0.0792785,4.24764,-0.949843,-0.256751,-0.356081,-0.00490489,0.371659,-0.0210631,0.153437,-2.18805,0.0687926,0.731644,-0.0234825,0.0611344,0.00193714,0.240804,-0.0166322,-0.00156474,-0.0104632,0.000711865,-1.89689,1.15977,10.2752,-2.50417,2.26067,-2.51686,0.00691467,-2.20227,-33.7209,-2.41118,27.8,-0.255741,4.37249,-0.0026396,
0.37113,-0.0213887,0.153233,-2.18773,0.0685236,0.730382,-0.0235571,0.0557192,-0.00736906,0.0567848,-0.0024884,-0.0158816,-0.00810153,-0.000786802,-1.15432,0.770329,-1.1571,-0.565216,0.135493,-4.5612,0.00488042,4.03693,0.0875963,4.14928,-0.916808,-0.255205,-0.368741,-0.00508635,0.371659,-0.0210631,0.153437,-2.18805,0.0687926,0.731644,-0.0234825,0.0611344,0.00193714,0.240804,-0.0166322,-0.00156474,-0.0104632,0.000711865,0,0,0,0,0,0,0,-2.20227,-33.7209,-2.41118,27.8,-0.255741,4.37249,-0.0026396,
0.375337,-0.0210863,0.157173,-2.18843,0.0693851,0.729935,-0.0235585,0.0580716,-0.00610617,0.0591278,-0.00358655,-0.0120472,-0.0161901,-0.000854345,1.47029,0.789307,1.46438,-0.686341,2.39649,-5.05535,-0.0422143,3.94039,0.0960561,4.05124,-0.883477,-0.255739,-0.381418,-0.00521774,0.371659,-0.0210631,0.153437,-2.18805,0.0687926,0.731644,-0.0234825,0.0611344,0.00193714,0.240804,-0.0166322,-0.00156474,-0.0104632,0.000711865,0,0,0,0,0,0,0,-2.20227,-33.7209,-2.41118,27.8,-0.255741,4.37249,-0.0026396,
0.375818,-0.0210933,0.157662,-2.18849,0.0693588,0.729543,-0.0235664,0.0584713,-0.00505772,0.0595192,-0.00438814,-0.0102956,-0.0227419,-0.000880845,0.249801,0.655282,0.244604,-0.500992,1.09473,-4.09489,-0.0165627,3.84411,0.104582,3.95346,-0.849942,-0.257733,-0.393112,-0.00535393,0.371659,-0.0210631,0.153437,-2.18805,0.0687926,0.731644,-0.0234825,0.0611344,0.00193714,0.240804,-0.0166322,-0.00156474,-0.0104632,0.000711865,0,0,0,0,0,0,0,-2.20227,-33.7209,-2.41118,27.8,-0.255741,4.37249,-0.0026396,
0.376251,-0.0210983,0.158103,-2.18854,0.0692864,0.72915,-0.0235735,0.0576029,-0.00417181,0.0586431,-0.00495685,-0.0100451,-0.0280182,-0.000881753,-0.542724,0.553692,-0.547517,-0.355443,0.156602,-3.29766,-0.00056732,3.75049,0.0745059,3.85957,-0.822587,-0.260813,-0.405112,-0.00543007,0.376729,-0.0209119,0.157073,-2.18875,0.0687997,0.730784,-0.0234853,0.134009,0.00869907,0.10951,-0.0167284,0.0033846,-0.0510651,-0.000586192,9.10928,0.845241,-16.4117,-0.0120216,0.618667,-5.07524,-0.162257,-2.55536,-34.2723,-2.43498,26.9272,-0.255741,4.16009,0.0101778,
0.376646,-0.0211014,0.158506,-2.1886,0.0691743,0.728757,-0.02358,0.0559463,-0.0034147,0.056979,-0.00534218,-0.0108384,-0.0322514,-0.000867545,-1.03541,0.473195,-1.04006,-0.240833,-0.495815,-2.64575,0.00887979,3.65458,0.0828081,3.76215,-0.7885,-0.266343,-0.415565,-0.00552119,0.376729,-0.0209119,0.157073,-2.18875,0.0687997,0.730784,-0.0234853,0.134009,0.00869907,0.10951,-0.0167284,0.0033846,-0.0510651,-0.000586192,0,0,0,0,0,0,0,-2.55536,-34.2723,-2.43498,26.9272,-0.255741,4.16009,0.0101778,
0.379786,-0.0207796,0.160167,-2.18919,0.0689951,0.728403,-0.0235462,0.0561742,-0.0023757,0.0571953,-0.0060299,-0.0101567,-0.0374672,-0.000885954,0.142446,0.649376,0.13519,-0.429826,0.426007,-3.25987,-0.0115053,3.55881,0.0908327,3.66486,-0.754058,-0.273979,-0.425726,-0.00555662,0.376729,-0.0209119,0.157073,-2.18875,0.0687997,0.730784,-0.0234853,0.134009,0.00869907,0.10951,-0.0167284,0.0033846,-0.0510651,-0.000586192,0,0,0,0,0,0,0,-2.55536,-34.2723,-2.43498,26.9272,-0.255741,4.16009,0.0101778,
0.380195,-0.0207673,0.160584,-2.18926,0.0688876,0.727947,-0.0235529,0.0551759,-0.0015937,0.056186,-0.00642416,-0.010814,-0.0413527,-0.000878248,-0.623967,0.488745,-0.630818,-0.24641,-0.41077,-2.42842,0.00481651,3.46314,0.0985491,3.56766,-0.719345,-0.283101,-0.434535,-0.00559048,0.376729,-0.0209119,0.157073,-2.18875,0.0687997,0.730784,-0.0234853,0.134009,0.00869907,0.10951,-0.0167284,0.0033846,-0.0510651,-0.000586192,0,0,0,0,0,0,0,-2.55536,-34.2723,-2.43498,26.9272,-0.255741,4.16009,0.0101778,
0.380567,-0.0207562,0.160963,-2.18931,0.0687374,0.727503,-0.023559,0.053422,-0.000997825,0.0544215,-0.00660068,-0.0124049,-0.0441925,-0.000853909,-1.09619,0.372425,-1.10281,-0.11033,-0.994304,-1.7749,0.0152115,3.36889,0.0660071,3.47287,-0.67358,-0.293863,-0.434392,-0.00561213,0.380488,-0.0205906,0.161906,-2.18938,0.068765,0.72903,-0.0234853,0.20323,0.00565587,0.0142888,-0.0181651,0.00236971,-0.0703865,-0.000877287,8.65272,-0.3804,-11.9026,-0.179579,-0.126861,-2.41517,-0.0363869,-2.02374,-33.6971,-2.21282,26.5305,0.0619471,3.83507,0.0101778,
0.383232,-0.0204659,0.16467,-2.1898,0.0686442,0.726344,-0.023538,0.0529419,-0.000371311,0.0539264,-0.00684985,-0.0131927,-0.0476671,-0.000847361,-0.300022,0.391571,-0.309453,-0.155731,-0.492412,-2.17165,0.00409248,3.17813,0.0791695,3.27905,-0.602418,-0.321339,-0.447122,-0.00548055,0.380488,-0.0205906,0.161906,-2.18938,0.068765,0.72903,-0.0234853,0.20323,0.00565587,0.0142888,-0.0181651,0.00236971,-0.0703865,-0.000877287,0,0,0,0,0,0,0,-2.02374,-33.6971,-2.21282,26.5305,0.0619471,3.83507,0.0101778,
0.383597,-0.0204508,0.165043,-2.18985,0.0684653,0.725871,-0.0235437,0.051485,8.00955e-05,0.0524557,-0.00687332,-0.0150265,-0.0499441,-0.000818774,-0.910586,0.282129,-0.919194,-0.014665,-1.14613,-1.42313,0.0178673,3.08305,0.0849673,3.18244,-0.566363,-0.337395,-0.45144,-0.00536751,0.380488,-0.0205906,0.161906,-2.18938,0.068765,0.72903,-0.0234853,0.20323,0.00565587,0.0142888,-0.0181651,0.00236971,-0.0703865,-0.000877287,0,0,0,0,0,0,0,-2.02374,-33.6971,-2.21282,26.5305,0.0619471,3.83507,0.0101778,
0.383928,-0.0204372,0.16538,-2.1899,0.0682446,0.725416,-0.0235485,0.0494476,0.000403687,0.0504054,-0.00673611,-0.0175395,-0.051333,-0.000775687,-1.27337,0.202245,-1.28143,0.0857544,-1.5706,-0.868027,0.0269294,2.98831,0.0901859,3.08616,-0.529956,-0.355221,-0.455012,-0.0051771,0.380488,-0.0205906,0.161906,-2.18938,0.068765,0.72903,-0.0234853,0.20323,0.00565587,0.0142888,-0.0181651,0.00236971,-0.0703865,-0.000877287,0,0,0,0,0,0,0,-2.02374,-33.6971,-2.21282,26.5305,0.0619471,3.83507,0.0101778,
0.384229,-0.0204248,0.165689,-2.18995,0.0679884,0.724976,-0.0235526,0.047101,0.000633226,0.0480465,-0.00648646,-0.0204358,-0.0520752,-0.000723958,-1.46662,0.143462,-1.47431,0.156035,-1.81018,-0.463862,0.0323302,2.89403,0.0948801,2.99036,-0.493326,-0.373866,-0.456959,-0.0049653,0.380488,-0.0205906,0.161906,-2.18938,0.068765,0.72903,-0.0234853,0.20323,0.00565587,0.0142888,-0.0181651,0.00236971,-0.0703865,-0.000877287,0,0,0,0,0,0,0,-2.02374,-33.6971,-2.21282,26.5305,0.0619471,3.83507,0.0101778,
0.385388,-0.020107,0.168913,-2.19036,0.0682485,0.724762,-0.0235261,0.0466747,0.000950008,0.0476053,-0.00631608,-0.0214423,-0.0529452,-0.000701639,-0.266429,0.197989,-0.275797,0.106487,-0.629097,-0.543752,0.0139493,2.79413,0.058097,2.88995,-0.443045,-0.395301,-0.448278,-0.00473541,0.382969,-0.0203124,0.166453,-2.19008,0.0687179,0.727027,-0.0234824,0.0644176,0.0181217,0.129434,-0.00291176,0.000140111,-0.0538643,0.000165417,-17.3516,1.55823,14.3932,1.90666,-0.2787,2.06527,0.130338,-0.932736,-33.9986,-1.4868,26.4035,0.386044,3.46429,-0.0163725,
0.385709,-0.0200929,0.169241,-2.1904,0.0680045,0.72432,-0.02353,0.0453676,0.00111138,0.0462844,-0.00602953,-0.0232521,-0.0533977,-0.000659278,-0.816945,0.100859,-0.825533,0.179093,-1.13109,-0.282856,0.026476,2.70146,0.0617869,2.79578,-0.406075,-0.414801,-0.448499,-0.00440417,0.382969,-0.0203124,0.166453,-2.19008,0.0687179,0.727027,-0.0234824,0.0644176,0.0181217,0.129434,-0.00291176,0.000140111,-0.0538643,0.000165417,0,0,0,0,0,0,0,-0.932736,-33.9986,-1.4868,26.4035,0.386044,3.46429,-0.0163725,
0.385999,-0.0200813,0.169538,-2.19044,0.067731,0.723887,-0.023533,0.0435345,0.0011802,0.0444386,-0.00566128,-0.0254408,-0.0535409,-0.000603548,-1.14567,0.0430082,-1.15365,0.230157,-1.36793,-0.0894704,0.0348311,2.61008,0.0650555,2.70289,-0.369036,-0.433956,-0.44884,-0.00397532,0.382969,-0.0203124,0.166453,-2.19008,0.0687179,0.727027,-0.0234824,0.0644176,0.0181217,0.129434,-0.00291176,0.000140111,-0.0538643,0.000165417,0,0,0,0,0,0,0,-0.932736,-33.9986,-1.4868,26.4035,0.386044,3.46429,-0.0163725,
0.386262,-0.0200713,0.169808,-2.19046,0.0674393,0.723461,-0.0235353,0.0414186,0.00119339,0.0423106,-0.00523731,-0.027644,-0.0534953,-0.000540164,-1.32246,0.00824431,-1.32997,0.264979,-1.37702,0.0284929,0.0396151,2.52038,0.0680557,2.6117,-0.332123,-0.450985,-0.448903,-0.00350797,0.382969,-0.0203124,0.166453,-2.19008,0.0687179,0.727027,-0.0234824,0.0644176,0.0181217,0.129434,-0.00291176,0.000140111,-0.0538643,0.000165417,0,0,0,0,0,0,0,-0.932736,-33.9986,-1.4868,26.4035,0.386044,3.46429,-0.0163725,
0.388762,-0.0198931,0.170704,-2.1907,0.0674011,0.724165,-0.0235131,0.0404882,0.00105454,0.0413645,-0.00467122,-0.028235,-0.0531278,-0.000495584,-0.581514,-0.0867791,-0.591295,0.353807,-0.369374,0.22967,0.0278627,2.43197,0.0486794,2.52098,-0.290434,-0.466356,-0.447836,-0.0029655,0.386822,-0.0199619,0.168717,-2.19055,0.0683453,0.726093,-0.0234853,-0.000825116,0.00613751,0.153,-0.00740076,-0.0117643,-0.030096,-0.000927872,-8.15534,-1.49803,2.9457,-0.561125,-1.48806,2.97104,-0.136661,-0.147213,-33.4987,-0.213304,26.4789,0.520626,3.05962,0.0101778,
0.389026,-0.0198902,0.170975,-2.19071,0.0671545,0.723745,-0.0235148,0.038989,0.000917055,0.0398516,-0.00411823,-0.0287538,-0.053006,-0.000438017,-0.936976,-0.0859277,-0.945576,0.345621,-0.324231,0.0761623,0.0359791,2.34725,0.0515291,2.43479,-0.254151,-0.475152,-0.450497,-0.00234777,0.386822,-0.0199619,0.168717,-2.19055,0.0683453,0.726093,-0.0234853,-0.000825116,0.00613751,0.153,-0.00740076,-0.0117643,-0.030096,-0.000927872,0,0,0,0,0,0,0,-0.147213,-33.4987,-0.213304,26.4789,0.520626,3.05962,0.0101778,
0.389265,-0.0198878,0.17122,-2.19072,0.0669246,0.723315,-0.0235157,0.0371677,0.000793781,0.038018,-0.00357627,-0.0287503,-0.0531597,-0.000373081,-1.13835,-0.0770464,-1.146,0.33872,0.00215843,-0.0960881,0.0405851,2.26602,0.054565,2.35209,-0.218439,-0.477039,-0.456344,-0.00161842,0.386822,-0.0199619,0.168717,-2.19055,0.0683453,0.726093,-0.0234853,-0.000825116,0.00613751,0.153,-0.00740076,-0.0117643,-0.030096,-0.000927872,0,0,0,0,0,0,0,-0.147213,-33.4987,-0.213304,26.4789,0.520626,3.05962,0.0101778,
0.388693,-0.0198897,0.170633,-2.19064,0.0678232,0.723926,-0.0235052,0.0365941,0.000731636,0.0374283,-0.00302192,-0.024568,-0.0548182,-0.000323507,-0.358474,-0.0388409,-0.368598,0.346472,2.61397,-1.03656,0.0309834,2.11708,0.0630983,2.20025,-0.15071,-0.454695,-0.489688,4.00616e-05,0.386822,-0.0199619,0.168717,-2.19055,0.0683453,0.726093,-0.0234853,-0.000825116,0.00613751,0.153,-0.00740076,-0.0117643,-0.030096,-0.000927872,0,0,0,0,0,0,0,-0.147213,-33.4987,-0.213304,26.4789,0.520626,3.05962,0.0101778,
0.388935,-0.0198871,0.170882,-2.19064,0.0678349,0.723407,-0.0235055,0.0353409,0.000651152,0.0361618,-0.00246611,-0.0193615,-0.0568396,-0.000266241,-0.783252,-0.0503026,-0.791507,0.347382,3.25404,-1.26335,0.0357913,2.04705,0.0528636,2.12867,-0.119107,-0.415873,-0.510912,0.000965109,0.389131,-0.0197519,0.170819,-2.19065,0.0675736,0.725755,-0.0234824,0.0351407,0.00539949,0.0757514,0.00153642,-0.0214285,-0.00287696,0.000619199,4.49573,-0.0922524,-9.65608,1.11715,-1.20802,3.40238,0.193384,0.66608,-33.0742,0.639662,25.4593,0.447384,2.78771,-0.0163725,
0.389152,-0.019885,0.171104,-2.19064,0.0679541,0.722854,-0.0235054,0.0336869,0.000572619,0.0344972,-0.00191441,-0.01251,-0.0592873,-0.000209222,-1.03376,-0.049083,-1.04038,0.34481,4.28219,-1.52983,0.035637,1.98746,0.059555,2.06765,-0.0876957,-0.35593,-0.539986,0.00199211,0.389131,-0.0197519,0.170819,-2.19065,0.0675736,0.725755,-0.0234824,0.0351407,0.00539949,0.0757514,0.00153642,-0.0214285,-0.00287696,0.000619199,0,0,0,0,0,0,0,0.66608,-33.0742,0.639662,25.4593,0.447384,2.78771,-0.0163725,
0.389347,-0.0198829,0.171306,-2.19063,0.0682134,0.722262,-0.0235048,0.0318241,0.000509804,0.0326261,-0.00136529,-0.00352427,-0.0622356,-0.000153952,-1.16421,-0.0392594,-1.16948,0.343202,5.61608,-1.8427,0.0345441,1.935,0.068557,2.01379,-0.0574184,-0.270008,-0.577506,0.00306043,0.389131,-0.0197519,0.170819,-2.19065,0.0675736,0.725755,-0.0234824,0.0351407,0.00539949,0.0757514,0.00153642,-0.0214285,-0.00287696,0.000619199,0,0,0,0,0,0,0,0.66608,-33.0742,0.639662,25.4593,0.447384,2.78771,-0.0163725,
0.390526,-0.0197659,0.172249,-2.19051,0.0682201,0.723467,-0.023492,0.0306728,0.000135034,0.0314644,-0.000410605,0.00727294,-0.0656117,-0.000122868,-0.719599,-0.234231,-0.726019,0.596677,6.74826,-2.11006,0.0194274,1.89041,0.0864746,1.96785,-0.0399491,-0.235535,-0.708226,0.00413485,0.389131,-0.0197519,0.170819,-2.19065,0.0675736,0.725755,-0.0234824,0.0351407,0.00539949,0.0757514,0.00153642,-0.0214285,-0.00287696,0.000619199,0,0,0,0,0,0,0,0.66608,-33.0742,0.639662,25.4593,0.447384,2.78771,-0.0163725,
0.390712,-0.0197753,0.17244,-2.19048,0.0688288,0.72276,-0.0234921,0.0291765,-0.000126582,0.0299606,0.00038718,0.0210353,-0.0701629,-9.94614e-05,-0.93515,-0.16351,-0.939911,0.498615,8.60147,-2.84447,0.0146291,1.85335,0.0891465,1.92973,-0.00864609,-0.0809028,-0.762421,0.0052722,0.390916,-0.0196037,0.172827,-2.19065,0.0668834,0.725411,-0.0234862,0.0593627,0.00379832,0.043698,-0.000138683,-0.00302109,-0.0209469,-0.000505265,3.02775,-0.200147,-4.00667,-0.209388,2.30093,-2.25874,-0.140558,0.511356,-32.8481,0.536512,25.6061,0.331112,2.92046,0.017502,
0.390878,-0.0197828,0.172612,-2.19045,0.0696712,0.721978,-0.0234929,0.0274957,-0.000289009,0.0282724,0.00106476,0.0378902,-0.0756843,-9.96297e-05,-1.05055,-0.101517,-1.05508,0.423485,10.5343,-3.45087,-0.000105176,1.82138,0.106047,1.89662,0.0176585,0.110841,-0.827861,0.00635196,0.390916,-0.0196037,0.172827,-2.19065,0.0668834,0.725411,-0.0234862,0.0593627,0.00379832,0.043698,-0.000138683,-0.00302109,-0.0209469,-0.000505265,0,0,0,0,0,0,0,0.511356,-32.8481,0.536512,25.6061,0.331112,2.92046,0.017502,
0.391028,-0.019788,0.172768,-2.19042,0.0707541,0.721119,-0.0234931,0.0257489,-0.00035984,0.0265129,0.00166852,0.0573833,-0.0820176,-8.62906e-05,-1.09173,-0.0442695,-1.09972,0.377351,12.1832,-3.95834,0.00833691,1.79409,0.129342,1.86829,0.0460108,0.339572,-0.90162,0.00747675,0.390916,-0.0196037,0.172827,-2.19065,0.0668834,0.725411,-0.0234862,0.0593627,0.00379832,0.043698,-0.000138683,-0.00302109,-0.0209469,-0.000505265,0,0,0,0,0,0,0,0.511356,-32.8481,0.536512,25.6061,0.331112,2.92046,0.017502,
0.392186,-0.0196661,0.174124,-2.19035,0.0691214,0.720364,-0.0234961,0.0251741,-0.000797813,0.0259115,0.00269332,0.0682589,-0.0983017,-9.67715e-05,-0.359226,-0.273734,-0.37585,0.640503,6.79725,-10.1776,-0.00655056,1.78715,0.206654,1.86034,-0.00990382,-0.0137169,-1.62294,0.00791058,0.390916,-0.0196037,0.172827,-2.19065,0.0668834,0.725411,-0.0234862,0.0593627,0.00379832,0.043698,-0.000138683,-0.00302109,-0.0209469,-0.000505265,0,0,0,0,0,0,0,0.511356,-32.8481,0.536512,25.6061,0.331112,2.92046,0.017502,
0.392343,-0.0196835,0.174286,-2.1903,0.0703025,0.718947,-0.0234999,0.0240698,-0.00107321,0.0247886,0.00344056,0.0841347,-0.114067,-0.00017089,-0.690219,-0.172121,-0.701818,0.467023,9.92236,-9.85349,-0.0463239,1.7586,0.217935,1.83143,0.031915,0.296335,-1.69869,0.00850201,0.392434,-0.0195272,0.174762,-2.19067,0.0670065,0.72368,-0.0234853,0.0291239,0.00258497,0.0671572,0.00280196,0.0189352,-0.074461,-0.000124323,-3.77985,-0.151669,2.9324,0.36758,2.74454,-6.68927,0.0476178,-0.0440639,-33.1734,-0.0625476,25.7806,0.233151,3.25188,0.0101778,
0.392477,-0.0196974,0.174427,-2.19025,0.0717532,0.717438,-0.0235088,0.0226005,-0.00120556,0.0233627,0.00394313,0.103576,-0.128972,-0.000359808,-0.918284,-0.0827212,-0.891194,0.314108,12.1506,-9.31529,-0.118074,1.71735,0.237474,1.78852,0.0617178,0.630036,-1.78739,0.00813105,0.392434,-0.0195272,0.174762,-2.19067,0.0670065,0.72368,-0.0234853,0.0291239,0.00258497,0.0671572,0.00280196,0.0189352,-0.074461,-0.000124323,0,0,0,0,0,0,0,-0.0440639,-33.1734,-0.0625476,25.7806,0.233151,3.25188,0.0101778,
0.392596,-0.0197046,0.174552,-2.1902,0.073336,0.715863,-0.0235147,0.0210657,-0.00114408,0.0218081,0.00433615,0.122429,-0.142562,-0.000435226,-0.959282,0.0384265,-0.971614,0.245638,11.7834,-8.49413,-0.0471366,1.6607,0.263218,1.72789,0.0980379,0.945465,-1.87542,0.00877249,0.392434,-0.0195272,0.174762,-2.19067,0.0670065,0.72368,-0.0234853,0.0291239,0.00258497,0.0671572,0.00280196,0.0189352,-0.074461,-0.000124323,0,0,0,0,0,0,0,-0.0440639,-33.1734,-0.0625476,25.7806,0.233151,3.25188,0.0101778,
0.393609,-0.019791,0.175962,-2.18985,0.0703786,0.710036,-0.0235257,0.0211191,-0.00240619,0.0218019,0.00629746,0.123604,-0.196023,-0.00060431,0.0333929,-0.788817,-0.00388709,1.22581,0.734559,-33.4127,-0.105677,1.97521,0.520094,2.02879,-0.160031,0.400995,-4.839,0.00798158,0.392434,-0.0195272,0.174762,-2.19067,0.0670065,0.72368,-0.0234853,0.0291239,0.00258497,0.0671572,0.00280196,0.0189352,-0.074461,-0.000124323,0,0,0,0,0,0,0,-0.0440639,-33.1734,-0.0625476,25.7806,0.233151,3.25188,0.0101778,
0.393755,-0.0198368,0.176112,-2.18975,0.0716761,0.706637,-0.0235412,0.0205551,-0.00306988,0.0211876,0.00734924,0.131321,-0.241788,-0.000872979,-0.352514,-0.414811,-0.38392,0.657365,4.82291,-28.6034,-0.167918,1.84126,0.517402,1.89464,-0.110403,0.755171,-4.83094,0.00562097,0.393853,-0.0193646,0.17669,-2.1906,0.0691155,0.719621,-0.0234846,0.0109608,0.00104012,0.0814201,0.00432669,0.0692913,-0.188817,-1.82112e-05,-2.27039,-0.193106,1.78287,0.190591,6.29451,-14.2945,0.0132639,-0.476498,-32.9988,-0.685411,25.1578,0.410763,2.88018,0.00376909,
0.393885,-0.0198682,0.176242,-2.18968,0.0731906,0.703166,-0.0235574,0.0197037,-0.00324122,0.0202028,0.00774635,0.14292,-0.280205,-0.00110321,-0.532092,-0.107087,-0.615507,0.248194,7.24904,-24.0105,-0.143892,1.67213,0.510694,1.74973,-0.091356,1.03222,-4.80519,-0.00181612,0.393853,-0.0193646,0.17669,-2.1906,0.0691155,0.719621,-0.0234846,0.0109608,0.00104012,0.0814201,0.00432669,0.0692913,-0.188817,-1.82112e-05,0,0,0,0,0,0,0,-0.476498,-32.9988,-0.685411,25.1578,0.410763,2.88018,0.00376909,
0.394004,-0.0198852,0.176361,-2.18962,0.074799,0.699665,-0.0235711,0.01872,-0.00301822,0.0191399,0.00772958,0.154547,-0.311684,-0.00122486,-0.614818,0.139376,-0.664333,-0.0104803,7.26691,-19.6746,-0.0760308,1.53834,0.545667,1.5949,-0.035002,1.00631,-4.71964,-0.00263696,0.393853,-0.0193646,0.17669,-2.1906,0.0691155,0.719621,-0.0234846,0.0109608,0.00104012,0.0814201,0.00432669,0.0692913,-0.188817,-1.82112e-05,0,0,0,0,0,0,0,-0.476498,-32.9988,-0.685411,25.1578,0.410763,2.88018,0.00376909,
0.395094,-0.0198436,0.177925,-2.18869,0.0807851,0.687312,-0.0235763,0.0206297,-0.00504337,0.0209069,0.0110078,0.190458,-0.430474,-0.00118209,1.19353,-1.26572,1.10437,2.04886,22.4445,-74.2438,0.0267262,3.47746,2.16684,3.42872,-0.296596,3.29111,-12.5633,0.00108322,0.393853,-0.0193646,0.17669,-2.1906,0.0691155,0.719621,-0.0234846,0.0109608,0.00104012,0.0814201,0.00432669,0.0692913,-0.188817,-1.82112e-05,0,0,0,0,0,0,0,-0.476498,-32.9988,-0.685411,25.1578,0.410763,2.88018,0.00376909,
0.395314,-0.0199228,0.178144,-2.18857,0.0835295,0.680133,-0.0235875,0.0219923,-0.00601554,0.022207,0.011774,0.220976,-0.523857,-0.00122642,0.851614,-0.607609,0.812564,0.478893,19.0738,-58.3645,-0.0277026,3.31478,1.92475,3.25431,-0.173728,3.47602,-11.8471,-0.00146459,0.393853,-0.0193646,0.17669,-2.1906,0.0691155,0.719621,-0.0234846,0.0109608,0.00104012,0.0814201,0.00432669,0.0692913,-0.188817,-1.82112e-05,0,0,0,0,0,0,0,-0.476498,-32.9988,-0.685411,25.1578,0.410763,2.88018,0.00376909,
