xiao-wang007/linearmpc_panda/paper_data/panda_inverse_dynamics_controller_error_match_to_start/3/trajectory.csv
Commanded Joint 0 Position,Commanded Joint 1 Position,Commanded Joint 2 Position,Commanded Joint 3 Position,Commanded Joint 4 Position,Commanded Joint 5 Position,Commanded Joint 6 Position,Commanded Joint 0 Velocity,Commanded Joint 1 Velocity,Commanded Joint 2 Velocity,Commanded Joint 3 Velocity,Commanded Joint 4 Velocity,Commanded Joint 5 Velocity,Commanded Joint 6 Velocity,Commanded Joint 0 Acceleration,Commanded Joint 1 Acceleration,Commanded Joint 2 Acceleration,Commanded Joint 3 Acceleration,Commanded Joint 4 Acceleration,Commanded Joint 5 Acceleration,Commanded Joint 6 Acceleration,Commanded Joint 0 Torque,Commanded Joint 1 Torque,Commanded Joint 2 Torque,Commanded Joint 3 Torque,Commanded Joint 4 Torque,Commanded Joint 5 Torque,Commanded Joint 6 Torque,Actual Joint 0 Position,Actual Joint 1 Position,Actual Joint 2 Position,Actual Joint 3 Position,Actual Joint 4 Position,Actual Joint 5 Position,Actual Joint 6 Position,Actual Joint 0 Velocity,Actual Joint 1 Velocity,Actual Joint 2 Velocity,Actual Joint 3 Velocity,Actual Joint 4 Velocity,Actual Joint 5 Velocity,Actual Joint 6 Velocity,Actual Joint 0 Acceleration,Actual Joint 1 Acceleration,Actual Joint 2 Acceleration,Actual Joint 3 Acceleration,Actual Joint 4 Acceleration,Actual Joint 5 Acceleration,Actual Joint 6 Acceleration,Actual Joint 0 Torque,Actual Joint 1 Torque,Actual Joint 2 Torque,Actual Joint 3 Torque,Actual Joint 4 Torque,Actual Joint 5 Torque,Actual Joint 6 Torque,
0.0196744,0.0852547,-0.0457598,-1.61931,0.0457708,0.151067,-0.0728275,0.00056513,0.0237722,0.000556636,-0.0313146,-0.0052042,0.0523541,-0.000399638,0.353207,14.8577,0.347898,-19.5716,-3.25263,32.7213,-0.249773,0.0594651,27.0629,0.0734379,-24.1323,-0.800214,1.98899,-0.0248001,0.0196019,0.0842762,-0.0458355,-1.61655,0.0461897,0.145534,-0.0727715,0.00284963,0.000243099,0.000704158,-0.00407492,0.00153211,-0.000993797,0.000469664,0,0,0,0,0,0,0,0.106693,-38.315,0.112013,27.0264,0.758663,3.09258,-0.0227812,
0.0196302,0.0843039,-0.0458089,-1.61657,0.0462252,0.145482,-0.0727719,0.000635426,0.0192345,0.000619417,-0.0251808,-0.00388007,0.0415472,-0.000323903,0.0439349,-2.83609,0.0392377,3.83358,0.827578,-6.75433,0.047334,0.0537333,27.5033,0.0631445,-24.0488,-0.800274,1.73843,-0.0232812,0.0196019,0.0842762,-0.0458355,-1.61655,0.0461897,0.145534,-0.0727715,0.00284963,0.000243099,0.000704158,-0.00407492,0.00153211,-0.000993797,0.000469664,0,0,0,0,0,0,0,0.106693,-38.315,0.112013,27.0264,0.758663,3.09258,-0.0227812,
0.0196361,0.0843115,-0.0458033,-1.61658,0.0462352,0.145472,-0.0727721,0.000655399,0.0155785,0.000635558,-0.0202472,-0.00285272,0.0329971,-0.000262507,0.0124827,-2.28497,0.0100884,3.08355,0.642098,-5.34377,0.0383726,0.0465124,28.0747,0.0514337,-23.9408,-0.799481,1.3912,-0.021312,0.0196019,0.0842762,-0.0458355,-1.61655,0.0461897,0.145534,-0.0727715,0.00284963,0.000243099,0.000704158,-0.00407492,0.00153211,-0.000993797,0.000469664,0,0,0,0,0,0,0,0.106693,-38.315,0.112013,27.0264,0.758663,3.09258,-0.0227812,
0.0196409,0.0843182,-0.0457988,-1.61658,0.0462439,0.145466,-0.0727722,0.000642974,0.0126308,0.000621643,-0.0162802,-0.00206617,0.0262332,-0.000212788,-0.00776558,-1.84236,-0.00869704,2.47935,0.491592,-4.22746,0.0310746,0.0405669,28.5985,0.0420196,-23.7731,-0.797184,1.00635,-0.0193085,0.0196019,0.0842762,-0.0458355,-1.61655,0.0461897,0.145534,-0.0727715,0.00284963,0.000243099,0.000704158,-0.00407492,0.00153211,-0.000993797,0.000469664,0,0,0,0,0,0,0,0.106693,-38.315,0.112013,27.0264,0.758663,3.09258,-0.0227812,
0.0196065,0.085621,-0.0458237,-1.61769,0.0460071,0.145052,-0.0727677,0.000911736,0.0294267,0.000943451,-0.0306063,-0.00545391,0.0224112,-7.56548e-05,0.167976,10.4974,0.20113,-8.95379,-2.11734,-2.38871,0.085708,-1.23509e-05,33.2428,0.0161575,-23.0318,-1.18827,-2.19092,0.000525069,0.0195906,0.0848481,-0.0458415,-1.61699,0.0461591,0.144995,-0.0727715,0.000166924,0.0456879,0.000800365,-0.0437468,0.00669224,0.00352778,-0.000256386,-0.335339,5.68061,0.0120259,-4.95899,0.645017,0.565197,-0.0907562,0.412174,-29.456,0.361952,17.8104,0.727535,1.41533,-0.0163725,
0.0195804,0.0863237,-0.0458612,-1.61804,0.0466151,0.144128,-0.0727789,7.58958e-05,0.041109,-0.000182581,-0.0331263,0.0108381,-0.00517595,-0.000339525,-0.5224,7.30145,-0.70377,-1.57501,10.1825,-17.242,-0.164919,0.518966,0.273011,0.512981,-0.31757,2.62818,-2.39242,-0.00229997,0.0195906,0.0848481,-0.0458415,-1.61699,0.0461591,0.144995,-0.0727715,0.000166924,0.0456879,0.000800365,-0.0437468,0.00669224,0.00352778,-0.000256386,0,0,0,0,0,0,0,0.412174,-29.456,0.361952,17.8104,0.727535,1.41533,-0.0163725,
0.0195335,0.0868898,-0.0459125,-1.61829,0.0476948,0.142748,-0.0727865,-0.00111156,0.0470402,-0.00142977,-0.0327833,0.0356623,-0.0386444,-0.000463234,-0.742158,3.707,-0.77949,0.214377,15.5152,-20.9178,-0.077318,0.512877,0.27026,0.507116,-0.314243,2.60507,-2.37322,-0.00222424,0.0195906,0.0848481,-0.0458415,-1.61699,0.0461591,0.144995,-0.0727715,0.000166924,0.0456879,0.000800365,-0.0437468,0.00669224,0.00352778,-0.000256386,0,0,0,0,0,0,0,0.412174,-29.456,0.361952,17.8104,0.727535,1.41533,-0.0163725,
0.0194836,0.0873383,-0.0459631,-1.6185,0.0490639,0.141118,-0.0727913,-0.00213715,0.0488446,-0.00240923,-0.0314283,0.0627578,-0.0716805,-0.000490167,-0.640995,1.12774,-0.612165,0.846839,16.9347,-20.6476,-0.0168334,0.5066,0.267016,0.501054,-0.311187,2.5824,-2.354,-0.00216985,0.0195906,0.0848481,-0.0458415,-1.61699,0.0461591,0.144995,-0.0727715,0.000166924,0.0456879,0.000800365,-0.0437468,0.00669224,0.00352778,-0.000256386,0,0,0,0,0,0,0,0.412174,-29.456,0.361952,17.8104,0.727535,1.41533,-0.0163725,
0.0196092,0.0852839,-0.045812,-1.6189,0.0462035,0.140691,-0.0727534,-0.00150764,0.0592458,-0.00161887,-0.047038,0.0481906,-0.093686,-0.000201709,0.393442,6.50075,0.493974,-9.75603,-9.10454,-13.7534,0.180286,-0.00178783,33.2613,0.0142441,-23.043,-1.19041,-2.17432,0.000532648,0.0196011,0.0844771,-0.0458244,-1.61802,0.0462841,0.142145,-0.072761,-0.00259179,0.0468514,-0.000486224,-0.0647428,0.0227415,-0.269963,0.00267252,-0.34484,0.145429,-0.160824,-2.6245,2.00616,-34.1864,0.366114,0.435978,-27.5835,0.361952,12.3077,0.288082,0.0493681,-0.110672,
0.019519,0.0860601,-0.0459436,-1.61924,0.048904,0.136969,-0.0727837,-0.00346065,0.0668016,-0.00458566,-0.0461952,0.106065,-0.168011,-0.000917875,-1.22063,4.72235,-1.85424,0.52673,36.1715,-46.4532,-0.447603,4.38612,0.437092,4.23835,-1.95622,9.98686,-8.98402,-0.00363614,0.0196011,0.0844771,-0.0458244,-1.61802,0.0462841,0.142145,-0.072761,-0.00259179,0.0468514,-0.000486224,-0.0647428,0.0227415,-0.269963,0.00267252,0,0,0,0,0,0,0,0.435978,-27.5835,0.361952,12.3077,0.288082,0.0493681,-0.110672,
0.0194004,0.0866767,-0.0460809,-1.61949,0.0532385,0.132092,-0.0727997,-0.00573371,0.0688562,-0.00710053,-0.0432314,0.193216,-0.256341,-0.00113578,-1.42066,1.28413,-1.57179,1.85238,54.4692,-55.206,-0.136194,4.3292,0.547683,4.17496,-1.87269,9.73853,-8.74894,-0.00285703,0.0196011,0.0844771,-0.0458244,-1.61802,0.0462841,0.142145,-0.072761,-0.00259179,0.0468514,-0.000486224,-0.0647428,0.0227415,-0.269963,0.00267252,0,0,0,0,0,0,0,0.435978,-27.5835,0.361952,12.3077,0.288082,0.0493681,-0.110672,
0.0193076,0.087156,-0.0461809,-1.61973,0.0585184,0.126559,-0.0728059,-0.00690668,0.0670694,-0.00817952,-0.0404722,0.286569,-0.343395,-0.00106341,-0.733108,-1.11674,-0.674367,1.72447,58.3458,-54.4092,0.0452321,4.26384,0.621193,4.10589,-1.8016,9.49714,-8.51502,-0.00217929,0.0196011,0.0844771,-0.0458244,-1.61802,0.0462841,0.142145,-0.072761,-0.00259179,0.0468514,-0.000486224,-0.0647428,0.0227415,-0.269963,0.00267252,0,0,0,0,0,0,0,0.435978,-27.5835,0.361952,12.3077,0.288082,0.0493681,-0.110672,
0.0196092,0.0852839,-0.045812,-1.6189,0.0462035,0.140691,-0.0727534,-0.00532327,0.0738256,-0.0062351,-0.0542731,0.227239,-0.311058,-0.000660306,0.989634,4.22265,1.21526,-8.62554,-37.0809,20.2109,0.251942,-0.014775,33.4753,0.00108945,-23.0783,-1.20291,-2.08946,0.000570265,0.0196746,0.0874726,-0.0455984,-1.62004,0.0486497,0.129815,-0.0727661,0.00881951,0.0963029,0.0228603,-0.103098,0.141142,-0.641453,-0.000528082,1.42641,6.18144,2.91832,-4.79437,14.8001,-46.4362,-0.400076,2.03479,-19.3196,2.01234,8.76892,1.20453,-1.79359,0.0101778,
0.0199907,0.085879,-0.0454376,-1.61955,0.048146,0.135981,-0.0726654,0.00527962,0.0739389,0.00437193,-0.0597456,0.230355,-0.366604,0.00167095,6.62681,0.0707954,6.6294,-3.42033,1.94745,-34.7165,1.45704,31.0078,0.204281,29.962,-11.9452,10.7971,-14.0895,0.0993693,0.0196746,0.0874726,-0.0455984,-1.62004,0.0486497,0.129815,-0.0727661,0.00881951,0.0963029,0.0228603,-0.103098,0.141142,-0.641453,-0.000528082,0,0,0,0,0,0,0,2.03479,-19.3196,2.01234,8.76892,1.20453,-1.79359,0.0101778,
0.020693,0.0863192,-0.0447755,-1.62012,0.0516108,0.129165,-0.0725624,0.0217805,0.0701562,0.0200505,-0.0621458,0.270903,-0.463688,0.00391348,10.3131,-2.36418,9.79909,-1.5001,25.3423,-60.6776,1.40158,29.7962,1.11773,28.4928,-10.1297,10.7971,-14.0895,0.114263,0.0196746,0.0874726,-0.0455984,-1.62004,0.0486497,0.129815,-0.0727661,0.00881951,0.0963029,0.0228603,-0.103098,0.141142,-0.641453,-0.000528082,0,0,0,0,0,0,0,2.03479,-19.3196,2.01234,8.76892,1.20453,-1.79359,0.0101778,
0.019814,0.0886042,-0.0454535,-1.62126,0.049213,0.126291,-0.072757,0.0209095,0.0844153,0.0196627,-0.080197,0.230806,-0.459049,0.00335887,-0.544392,8.91191,-0.242373,-11.282,-25.0607,2.89974,-0.346632,-0.014775,33.4753,0.00108945,-23.0783,-1.20291,-2.08946,0.000570265,0.0196746,0.0874726,-0.0455984,-1.62004,0.0486497,0.129815,-0.0727661,0.00881951,0.0963029,0.0228603,-0.103098,0.141142,-0.641453,-0.000528082,0,0,0,0,0,0,0,2.03479,-19.3196,2.01234,8.76892,1.20453,-1.79359,0.0101778,
0.0205547,0.0891679,-0.0447077,-1.62289,0.0511403,0.12062,-0.0724406,0.0352437,0.081626,0.0343751,-0.104958,0.232827,-0.509014,0.0105976,8.95889,-1.74331,9.19528,-15.4756,1.26294,-31.2283,4.52418,43.7764,-3.6505,42.1819,-23.6305,10.7102,-13.9298,0.367926,0.0193978,0.0905322,-0.0445492,-1.62364,0.0641909,0.104803,-0.0727542,0.00887492,0.167004,0.0477428,-0.201831,0.503514,-0.682656,-0.00442049,0.00692593,8.83762,3.1103,-12.3417,45.2966,-5.15032,-0.486551,6.14093,-33.1734,6.18593,19.9051,2.95135,-1.22321,0.00376909,
0.0217048,0.0895416,-0.0435827,-1.62449,0.0544093,0.113206,-0.0722368,0.0569485,0.0746427,0.0556257,-0.123996,0.267986,-0.592561,0.0135739,13.5655,-4.36455,13.2816,-11.8988,21.9745,-52.2167,1.8602,38.809,-0.919363,37.4113,-21.6727,10.7102,-13.9298,0.221275,0.0193978,0.0905322,-0.0445492,-1.62364,0.0641909,0.104803,-0.0727542,0.00887492,0.167004,0.0477428,-0.201831,0.503514,-0.682656,-0.00442049,0,0,0,0,0,0,0,6.14093,-33.1734,6.18593,19.9051,2.95135,-1.22321,0.00376909,
0.0231337,0.0898556,-0.042202,-1.62599,0.0588544,0.104576,-0.0720982,0.0812814,0.0675634,0.0790175,-0.136701,0.325517,-0.689793,0.0143238,15.208,-4.42457,14.6199,-7.94047,35.9568,-60.7702,0.468711,35.3893,0.929972,34.0613,-19.7842,10.7102,-13.9298,0.150786,0.0193978,0.0905322,-0.0445492,-1.62364,0.0641909,0.104803,-0.0727542,0.00887492,0.167004,0.0477428,-0.201831,0.503514,-0.682656,-0.00442049,0,0,0,0,0,0,0,6.14093,-33.1734,6.18593,19.9051,2.95135,-1.22321,0.00376909,
0.0196774,0.0922178,-0.0442472,-1.62525,0.0665467,0.100702,-0.0727388,0.0720162,0.0961899,0.0707623,-0.149758,0.319308,-0.654361,0.0118436,-5.79072,17.8916,-5.15949,-8.16048,-3.88066,22.1449,-1.55012,-0.0646555,33.6489,-0.0565503,-23.0469,-1.28981,-1.92975,-7.48498e-05,0.0193978,0.0905322,-0.0445492,-1.62364,0.0641909,0.104803,-0.0727542,0.00887492,0.167004,0.0477428,-0.201831,0.503514,-0.682656,-0.00442049,0,0,0,0,0,0,0,6.14093,-33.1734,6.18593,19.9051,2.95135,-1.22321,0.00376909,
0.0207527,0.0929033,-0.043206,-1.62781,0.069337,0.0950239,-0.0722804,0.0844948,0.0940902,0.0826407,-0.183863,0.325205,-0.665434,0.0209351,7.79909,-1.31232,7.42403,-21.3158,3.68579,-6.92072,5.68214,52.3584,-8.74623,49.6893,-34.0154,10.7681,-13.5457,0.533284,0.0218472,0.0945366,-0.0378475,-1.63087,0.0872045,0.075837,-0.0727578,0.160147,0.131735,0.388277,-0.263346,0.843514,-1.05915,0.000712176,18.909,-4.4086,42.5667,-7.68936,42.4999,-47.0612,0.641583,27.1636,-37.2676,26.1096,29.7916,6.82952,-0.269235,-0.050247,
0.0222886,0.093301,-0.0417446,-1.63033,0.0730514,0.087621,-0.0720396,0.105994,0.0852136,0.102648,-0.209945,0.353023,-0.71742,0.0227691,13.4371,-5.54789,12.5045,-16.3016,17.386,-32.4911,1.14628,44.3585,-4.24467,42.153,-31.0733,10.7681,-13.5457,0.255206,0.0218472,0.0945366,-0.0378475,-1.63087,0.0872045,0.075837,-0.0727578,0.160147,0.131735,0.388277,-0.263346,0.843514,-1.05915,0.000712176,0,0,0,0,0,0,0,27.1636,-37.2676,26.1096,29.7916,6.82952,-0.269235,-0.050247,
0.0240954,0.0936004,-0.0400303,-1.63268,0.0777686,0.0789858,-0.0719211,0.129965,0.0756578,0.124976,-0.226671,0.400347,-0.789817,0.0211777,14.982,-5.97237,13.9553,-10.4532,29.578,-45.2479,-0.994661,39.2822,-1.55933,37.3836,-28.7408,10.7681,-13.5457,0.121918,0.0218472,0.0945366,-0.0378475,-1.63087,0.0872045,0.075837,-0.0727578,0.160147,0.131735,0.388277,-0.263346,0.843514,-1.05915,0.000712176,0,0,0,0,0,0,0,27.1636,-37.2676,26.1096,29.7916,6.82952,-0.269235,-0.050247,
0.0275046,0.094427,-0.0324236,-1.63761,0.10036,0.0583192,-0.0720075,0.177259,0.0575383,0.169836,-0.264025,0.4884,-0.861521,0.022536,29.5589,-11.3247,28.0371,-23.3465,55.0328,-44.8154,0.84897,57.5008,-14.9231,54.4323,-44.2295,10.7681,-13.5457,0.646184,0.0218472,0.0945366,-0.0378475,-1.63087,0.0872045,0.075837,-0.0727578,0.160147,0.131735,0.388277,-0.263346,0.843514,-1.05915,0.000712176,0,0,0,0,0,0,0,27.1636,-37.2676,26.1096,29.7916,6.82952,-0.269235,-0.050247,
0.0304688,0.09434,-0.0296039,-1.64068,0.107598,0.0484865,-0.0719472,0.215913,0.0438559,0.206361,-0.287794,0.571664,-0.935034,0.0195373,24.1587,-8.55147,22.8283,-14.8559,52.0402,-45.9453,-1.87422,46.9266,-7.69992,44.6283,-39.7433,10.798,-13.2706,0.248448,0.0263423,0.0985169,-0.0218403,-1.64276,0.103264,0.040022,-0.0727474,0.101928,0.119203,0.513979,-0.446842,0.516018,-1.12641,0.000508441,-7.27735,-1.56655,15.7127,-22.9371,-40.937,-8.40749,-0.0254668,26.2511,-39.8106,24.8599,34.2508,3.20129,0.155569,-0.0163725,
0.0333904,0.0942899,-0.0268282,-1.64358,0.115334,0.0383878,-0.0719525,0.245769,0.0338336,0.234482,-0.30288,0.650739,-1.00049,0.0154965,18.6596,-6.26396,17.5755,-9.42835,49.4215,-40.9131,-2.52546,40.5919,-3.92508,38.687,-36.8738,10.798,-13.2706,0.0652479,0.0263423,0.0985169,-0.0218403,-1.64276,0.103264,0.040022,-0.0727474,0.101928,0.119203,0.513979,-0.446842,0.516018,-1.12641,0.000508441,0,0,0,0,0,0,0,26.2511,-39.8106,24.8599,34.2508,3.20129,0.155569,-0.0163725,
0.0362305,0.0942491,-0.0241312,-1.64643,0.123481,0.0283918,-0.0719598,0.267619,0.0260452,0.25501,-0.313388,0.724265,-1.0503,0.0122164,13.6561,-4.86774,12.8302,-6.56765,45.9542,-31.1261,-2.05008,36.4167,-2.26699,34.7174,-34.9782,10.798,-12.841,-0.00550993,0.0263423,0.0985169,-0.0218403,-1.64276,0.103264,0.040022,-0.0727474,0.101928,0.119203,0.513979,-0.446842,0.516018,-1.12641,0.000508441,0,0,0,0,0,0,0,26.2511,-39.8106,24.8599,34.2508,3.20129,0.155569,-0.0163725,
0.0314855,0.0992946,-0.0169464,-1.65067,0.115069,0.0221712,-0.0727696,0.278665,0.0292348,0.265034,-0.347596,0.738464,-1.06461,0.00785218,6.90418,1.99346,6.26506,-21.3802,8.87422,-8.94754,-2.72763,41.9639,-7.07316,39.7775,-46.4346,10.798,-11.5783,0.0742389,0.0263423,0.0985169,-0.0218403,-1.64276,0.103264,0.040022,-0.0727474,0.101928,0.119203,0.513979,-0.446842,0.516018,-1.12641,0.000508441,0,0,0,0,0,0,0,26.2511,-39.8106,24.8599,34.2508,3.20129,0.155569,-0.0163725,
0.0340245,0.0995856,-0.0145433,-1.65438,0.12215,0.0134118,-0.0728993,0.286408,0.0306618,0.272104,-0.370939,0.7678,-1.07068,0.00303827,4.8391,0.891922,4.41873,-14.5893,18.3348,-3.78922,-3.0087,36.0364,-3.5649,34.2992,-43.5392,10.798,-10.8529,-0.101584,0.0263423,0.0985169,-0.0218403,-1.64276,0.103264,0.040022,-0.0727474,0.101928,0.119203,0.513979,-0.446842,0.516018,-1.12641,0.000508441,0,0,0,0,0,0,0,26.2511,-39.8106,24.8599,34.2508,3.20129,0.155569,-0.0163725,
0.0364983,0.0998276,-0.0121997,-1.658,0.129764,0.00520731,-0.0730168,0.290971,0.0305793,0.276275,-0.38727,0.804596,-1.06165,-0.000507536,2.85176,-0.0515613,2.60635,-10.2067,22.9975,5.63924,-2.21613,32.3639,-2.1159,30.8526,-41.6288,10.798,-9.77602,-0.160751,0.0263423,0.0985169,-0.0218403,-1.64276,0.103264,0.040022,-0.0727474,0.101928,0.119203,0.513979,-0.446842,0.516018,-1.12641,0.000508441,0,0,0,0,0,0,0,26.2511,-39.8106,24.8599,34.2508,3.20129,0.155569,-0.0163725,
0.038888,0.100017,-0.00993427,-1.66156,0.13777,-0.00232039,-0.0731162,0.292519,0.0291916,0.277654,-0.398699,0.843811,-1.03751,-0.0028898,0.967923,-0.867369,0.86229,-7.14332,24.5095,15.0863,-1.48892,29.6974,-1.80742,28.3272,-40.458,10.798,-8.3779,-0.140658,0.0263423,0.0985169,-0.0218403,-1.64276,0.103264,0.040022,-0.0727474,0.101928,0.119203,0.513979,-0.446842,0.516018,-1.12641,0.000508441,0,0,0,0,0,0,0,26.2511,-39.8106,24.8599,34.2508,3.20129,0.155569,-0.0163725,
0.0289027,0.0989587,-0.0193874,-1.64679,0.108707,0.0311462,-0.0726927,0.298024,0.0343973,0.283445,-0.419711,0.811109,-1.05191,-0.00094619,3.44053,3.2536,3.61916,-13.1326,-20.439,-8.99432,1.21476,41.9639,-7.07316,39.7775,-46.4346,10.798,-11.5783,0.0742389,0.0263423,0.0985169,-0.0218403,-1.64276,0.103264,0.040022,-0.0727474,0.101928,0.119203,0.513979,-0.446842,0.516018,-1.12641,0.000508441,0,0,0,0,0,0,0,26.2511,-39.8106,24.8599,34.2508,3.20129,0.155569,-0.0163725,
0.0314855,0.0992946,-0.0169464,-1.65067,0.115069,0.0221712,-0.0727696,0.30299,0.0359164,0.287782,-0.432655,0.807939,-1.0659,-0.00267789,3.10348,0.949449,2.71074,-8.08977,-1.9812,-8.74643,-1.08231,36.0364,-3.5649,34.2992,-43.5392,10.798,-10.8529,-0.101584,0.0263423,0.0985169,-0.0218403,-1.64276,0.103264,0.040022,-0.0727474,0.101928,0.119203,0.513979,-0.446842,0.516018,-1.12641,0.000508441,0,0,0,0,0,0,0,26.2511,-39.8106,24.8599,34.2508,3.20129,0.155569,-0.0163725,
0.0340245,0.0995856,-0.0145433,-1.65438,0.12215,0.0134118,-0.0728993,0.305867,0.0360072,0.290302,-0.438986,0.82338,-1.07171,-0.00538579,1.79854,0.0567131,1.57527,-3.95693,9.65049,-3.62833,-1.69244,32.3639,-2.1159,30.8526,-41.6288,10.798,-9.77602,-0.160751,0.0263423,0.0985169,-0.0218403,-1.64276,0.103264,0.040022,-0.0727474,0.101928,0.119203,0.513979,-0.446842,0.516018,-1.12641,0.000508441,0,0,0,0,0,0,0,26.2511,-39.8106,24.8599,34.2508,3.20129,0.155569,-0.0163725,
0.0364983,0.0998276,-0.0121997,-1.658,0.129764,0.00520731,-0.0730168,0.306538,0.0348556,0.290833,-0.441707,0.84906,-1.06248,-0.00724678,0.419316,-0.719729,0.331582,-1.70079,16.05,5.76795,-1.16312,29.6974,-1.80742,28.3272,-40.458,10.798,-8.3779,-0.140658,0.0263423,0.0985169,-0.0218403,-1.64276,0.103264,0.040022,-0.0727474,0.101928,0.119203,0.513979,-0.446842,0.516018,-1.12641,0.000508441,0,0,0,0,0,0,0,26.2511,-39.8106,24.8599,34.2508,3.20129,0.155569,-0.0163725,
0.0289027,0.0989587,-0.0193874,-1.64679,0.108707,0.0311462,-0.0726927,0.309239,0.0389286,0.293988,-0.454118,0.815308,-1.07187,-0.00443177,1.68816,2.5456,1.97181,-7.75659,-21.095,-5.8741,1.75938,41.9639,-7.07316,39.7775,-46.4346,10.798,-11.5783,0.0742389,0.0263423,0.0985169,-0.0218403,-1.64276,0.103264,0.040022,-0.0727474,0.101928,0.119203,0.513979,-0.446842,0.516018,-1.12641,0.000508441,0,0,0,0,0,0,0,26.2511,-39.8106,24.8599,34.2508,3.20129,0.155569,-0.0163725,
0.0314855,0.0992946,-0.0169464,-1.65067,0.115069,0.0221712,-0.0727696,0.311962,0.0395414,0.296216,-0.46018,0.811298,-1.08188,-0.00546635,1.70158,0.383043,1.39286,-3.78896,-2.50605,-6.25025,-0.646613,36.0364,-3.5649,34.2992,-43.5392,10.798,-10.8529,-0.101584,0.0263423,0.0985169,-0.0218403,-1.64276,0.103264,0.040022,-0.0727474,0.101928,0.119203,0.513979,-0.446842,0.516018,-1.12641,0.000508441,0,0,0,0,0,0,0,26.2511,-39.8106,24.8599,34.2508,3.20129,0.155569,-0.0163725,
0.0340245,0.0995856,-0.0145433,-1.65438,0.12215,0.0134118,-0.0728993,0.313045,0.0389072,0.29705,-0.461006,0.826067,-1.08449,-0.00761656,0.677019,-0.396412,0.520967,-0.516278,9.2306,-1.63139,-1.34388,32.3639,-2.1159,30.8526,-41.6288,10.798,-9.77602,-0.160751,0.0263423,0.0985169,-0.0218403,-1.64276,0.103264,0.040022,-0.0727474,0.101928,0.119203,0.513979,-0.446842,0.516018,-1.12641,0.000508441,0,0,0,0,0,0,0,26.2511,-39.8106,24.8599,34.2508,3.20129,0.155569,-0.0163725,
0.0364983,0.0998276,-0.0121997,-1.658,0.129764,0.00520731,-0.0730168,0.31228,0.0371756,0.296231,-0.459323,0.851209,-1.0727,-0.0090314,-0.4779,-1.08223,-0.511862,1.05173,15.7141,7.36551,-0.884273,29.6974,-1.80742,28.3272,-40.458,10.798,-8.3779,-0.140658,0.0263423,0.0985169,-0.0218403,-1.64276,0.103264,0.040022,-0.0727474,0.101928,0.119203,0.513979,-0.446842,0.516018,-1.12641,0.000508441,0,0,0,0,0,0,0,26.2511,-39.8106,24.8599,34.2508,3.20129,0.155569,-0.0163725,
0.0289027,0.0989587,-0.0193874,-1.64679,0.108707,0.0311462,-0.0726927,0.313833,0.0407846,0.298306,-0.468211,0.817027,-1.08005,-0.00585947,0.970387,2.2556,1.29705,-5.55457,-21.3638,-4.59605,1.98246,41.9639,-7.07316,39.7775,-46.4346,10.798,-11.5783,0.0742389,0.0263423,0.0985169,-0.0218403,-1.64276,0.103264,0.040022,-0.0727474,0.101928,0.119203,0.513979,-0.446842,0.516018,-1.12641,0.000508441,0,0,0,0,0,0,0,26.2511,-39.8106,24.8599,34.2508,3.20129,0.155569,-0.0163725,
0.0314855,0.0992946,-0.0169464,-1.65067,0.115069,0.0221712,-0.0727696,0.315637,0.0410262,0.299671,-0.471454,0.812674,-1.08842,-0.00660851,1.12737,0.151043,0.853058,-2.02734,-2.72103,-5.22782,-0.468151,36.0364,-3.5649,34.2992,-43.5392,10.798,-10.8529,-0.101584,0.0263423,0.0985169,-0.0218403,-1.64276,0.103264,0.040022,-0.0727474,0.101928,0.119203,0.513979,-0.446842,0.516018,-1.12641,0.000508441,0,0,0,0,0,0,0,26.2511,-39.8106,24.8599,34.2508,3.20129,0.155569,-0.0163725,
0.0340245,0.0995856,-0.0145433,-1.65438,0.12215,0.0134118,-0.0728993,0.315985,0.040095,0.299814,-0.470026,0.827168,-1.08972,-0.00853029,0.217644,-0.582012,0.0891239,0.893014,9.05862,-0.813439,-1.20111,32.3639,-2.1159,30.8526,-41.6288,10.798,-9.77602,-0.160751,0.0263423,0.0985169,-0.0218403,-1.64276,0.103264,0.040022,-0.0727474,0.101928,0.119203,0.513979,-0.446842,0.516018,-1.12641,0.000508441,0,0,0,0,0,0,0,26.2511,-39.8106,24.8599,34.2508,3.20129,0.155569,-0.0163725,
0.0364983,0.0998276,-0.0121997,-1.658,0.129764,0.00520731,-0.0730168,0.314632,0.0381259,0.298442,-0.466539,0.85209,-1.07689,-0.00976238,-0.845399,-1.23071,-0.857337,2.17916,15.5765,8.01987,-0.770058,29.6974,-1.80742,28.3272,-40.458,10.798,-8.3779,-0.140658,0.0263423,0.0985169,-0.0218403,-1.64276,0.103264,0.040022,-0.0727474,0.101928,0.119203,0.513979,-0.446842,0.516018,-1.12641,0.000508441,0,0,0,0,0,0,0,26.2511,-39.8106,24.8599,34.2508,3.20129,0.155569,-0.0163725,
0.0289027,0.0989587,-0.0193874,-1.64679,0.108707,0.0311462,-0.0726927,0.315715,0.0415448,0.300075,-0.473983,0.817732,-1.0834,-0.00644425,0.676387,2.13681,1.02067,-4.65262,-21.4738,-4.07256,2.07383,41.9639,-7.07316,39.7775,-46.4346,10.798,-11.5783,0.0742389,0.0263423,0.0985169,-0.0218403,-1.64276,0.103264,0.040022,-0.0727474,0.101928,0.119203,0.513979,-0.446842,0.516018,-1.12641,0.000508441,0,0,0,0,0,0,0,26.2511,-39.8106,24.8599,34.2508,3.20129,0.155569,-0.0163725,
0.0314855,0.0992946,-0.0169464,-1.65067,0.115069,0.0221712,-0.0727696,0.317142,0.0416344,0.301086,-0.476072,0.813237,-1.0911,-0.00707634,0.892165,0.0560163,0.631954,-1.30578,-2.80909,-4.80903,-0.395053,36.0364,-3.5649,34.2992,-43.5392,10.798,-10.8529,-0.101584,0.0263423,0.0985169,-0.0218403,-1.64276,0.103264,0.040022,-0.0727474,0.101928,0.119203,0.513979,-0.446842,0.516018,-1.12641,0.000508441,0,0,0,0,0,0,0,26.2511,-39.8106,24.8599,34.2508,3.20129,0.155569,-0.0163725,
0.0340245,0.0995856,-0.0145433,-1.65438,0.12215,0.0134118,-0.0728993,0.317189,0.0405816,0.300946,-0.47372,0.827618,-1.09186,-0.00890455,0.0294848,-0.658034,-0.0877592,1.47026,8.98817,-0.478407,-1.14263,32.3639,-2.1159,30.8526,-41.6288,10.798,-9.77602,-0.160751,0.0263423,0.0985169,-0.0218403,-1.64276,0.103264,0.040022,-0.0727474,0.101928,0.119203,0.513979,-0.446842,0.516018,-1.12641,0.000508441,0,0,0,0,0,0,0,26.2511,-39.8106,24.8599,34.2508,3.20129,0.155569,-0.0163725,
0.0289027,0.0989587,-0.0193874,-1.64679,0.108707,0.0311462,-0.0726927,0.31776,0.0435093,0.302078,-0.479728,0.798155,-1.09539,-0.00575799,0.35678,1.82985,0.7077,-3.75499,-18.4149,-2.20056,1.9666,41.9639,-7.07316,39.7775,-46.4346,10.798,-11.5783,0.0742389,0.0263423,0.0985169,-0.0218403,-1.64276,0.103264,0.040022,-0.0727474,0.101928,0.119203,0.513979,-0.446842,0.516018,-1.12641,0.000508441,0,0,0,0,0,0,0,26.2511,-39.8106,24.8599,34.2508,3.20129,0.155569,-0.0163725,
0.0314855,0.0992946,-0.0169464,-1.65067,0.115069,0.0221712,-0.0727696,0.318778,0.043206,0.302689,-0.480668,0.797575,-1.10068,-0.00652733,0.636479,-0.189551,0.381575,-0.58768,-0.361929,-3.31143,-0.480836,36.0364,-3.5649,34.2992,-43.5392,10.798,-10.8529,-0.101584,0.0263423,0.0985169,-0.0218403,-1.64276,0.103264,0.040022,-0.0727474,0.101928,0.119203,0.513979,-0.446842,0.516018,-1.12641,0.000508441,0,0,0,0,0,0,0,26.2511,-39.8106,24.8599,34.2508,3.20129,0.155569,-0.0163725,
0.0340245,0.0995856,-0.0145433,-1.65438,0.12215,0.0134118,-0.0728993,0.318498,0.0418389,0.302228,-0.477397,0.815089,-1.09953,-0.00846534,-0.175064,-0.854487,-0.288062,2.04474,10.9459,0.719673,-1.21126,32.3639,-2.1159,30.8526,-41.6288,10.798,-9.77602,-0.160751,0.0263423,0.0985169,-0.0218403,-1.64276,0.103264,0.040022,-0.0727474,0.101928,0.119203,0.513979,-0.446842,0.516018,-1.12641,0.000508441,0,0,0,0,0,0,0,26.2511,-39.8106,24.8599,34.2508,3.20129,0.155569,-0.0163725,
0.0364983,0.0998276,-0.0121997,-1.658,0.129764,0.00520731,-0.0730168,0.316643,0.039521,0.300373,-0.472436,0.842427,-1.08474,-0.00971042,-1.15957,-1.44869,-1.15909,3.10055,17.0864,9.24636,-0.778176,29.6974,-1.80742,28.3272,-40.458,10.798,-8.3779,-0.140658,0.0263423,0.0985169,-0.0218403,-1.64276,0.103264,0.040022,-0.0727474,0.101928,0.119203,0.513979,-0.446842,0.516018,-1.12641,0.000508441,0,0,0,0,0,0,0,26.2511,-39.8106,24.8599,34.2508,3.20129,0.155569,-0.0163725,
0.038888,0.100017,-0.00993427,-1.66156,0.13777,-0.00232039,-0.0731162,0.313057,0.0363448,0.296933,-0.466832,0.874076,-1.05598,-0.0102521,-2.24114,-1.98507,-2.15005,3.50244,19.7806,17.972,-0.338554,27.1959,-1.93844,25.9605,-39.7964,10.798,-7.3085,-0.115511,0.0263423,0.0985169,-0.0218403,-1.64276,0.103264,0.040022,-0.0727474,0.101928,0.119203,0.513979,-0.446842,0.516018,-1.12641,0.000508441,0,0,0,0,0,0,0,26.2511,-39.8106,24.8599,34.2508,3.20129,0.155569,-0.0163725,
0.0289027,0.0989587,-0.0193874,-1.64679,0.108707,0.0311462,-0.0726927,0.314455,0.04012,0.298868,-0.474217,0.835321,-1.06668,-0.00683604,0.873282,2.35944,1.20929,-4.616,-24.2221,-6.68577,2.13504,41.9639,-7.07316,39.7775,-46.4346,10.798,-11.5783,0.0742389,0.0263423,0.0985169,-0.0218403,-1.64276,0.103264,0.040022,-0.0727474,0.101928,0.119203,0.513979,-0.446842,0.516018,-1.12641,0.000508441,0,0,0,0,0,0,0,26.2511,-39.8106,24.8599,34.2508,3.20129,0.155569,-0.0163725,
