xiao-wang007/linearmpc_panda/paper_data/panda_torque_PD_controller_Start_at_0/0/trajectory.csv
Commanded Joint 0 Position,Commanded Joint 1 Position,Commanded Joint 2 Position,Commanded Joint 3 Position,Commanded Joint 4 Position,Commanded Joint 5 Position,Commanded Joint 6 Position,Commanded Joint 0 Velocity,Commanded Joint 1 Velocity,Commanded Joint 2 Velocity,Commanded Joint 3 Velocity,Commanded Joint 4 Velocity,Commanded Joint 5 Velocity,Commanded Joint 6 Velocity,Commanded Joint 0 Acceleration,Commanded Joint 1 Acceleration,Commanded Joint 2 Acceleration,Commanded Joint 3 Acceleration,Commanded Joint 4 Acceleration,Commanded Joint 5 Acceleration,Commanded Joint 6 Acceleration,Commanded Joint 0 Torque,Commanded Joint 1 Torque,Commanded Joint 2 Torque,Commanded Joint 3 Torque,Commanded Joint 4 Torque,Commanded Joint 5 Torque,Commanded Joint 6 Torque,Actual Joint 0 Position,Actual Joint 1 Position,Actual Joint 2 Position,Actual Joint 3 Position,Actual Joint 4 Position,Actual Joint 5 Position,Actual Joint 6 Position,Actual Joint 0 Velocity,Actual Joint 1 Velocity,Actual Joint 2 Velocity,Actual Joint 3 Velocity,Actual Joint 4 Velocity,Actual Joint 5 Velocity,Actual Joint 6 Velocity,Actual Joint 0 Acceleration,Actual Joint 1 Acceleration,Actual Joint 2 Acceleration,Actual Joint 3 Acceleration,Actual Joint 4 Acceleration,Actual Joint 5 Acceleration,Actual Joint 6 Acceleration,Actual Joint 0 Torque,Actual Joint 1 Torque,Actual Joint 2 Torque,Actual Joint 3 Torque,Actual Joint 4 Torque,Actual Joint 5 Torque,Actual Joint 6 Torque,
0.0955112,0.0711798,-0.0995645,-1.75235,0.0205612,0.298087,-0.0341535,0.000130615,0.0246765,0.000288248,-0.0319426,-0.0040814,0.0549628,-0.000390741,0.0816346,15.4228,0.180155,-19.9641,-2.55087,34.3517,-0.244213,0.0596385,26.8746,0.198183,-24.4642,-0.654519,1.85328,-0.0242722,0.095494,0.0701748,-0.099599,-1.74955,0.0207818,0.292253,-0.0340753,0.000948239,0.00136487,0.0012743,-0.00110973,-0.00517973,0.000782538,0.000547373,0,0,0,0,0,0,0,0.00751081,-38.3666,-0.110155,27.5024,1.02691,3.02666,-0.0703886,
0.095507,0.0702014,-0.0995866,-1.74956,0.020746,0.292254,-0.0340761,0.000176385,0.0199297,0.00030164,-0.0256275,-0.00337622,0.0439601,-0.000317538,0.0286057,-2.96672,0.00837005,3.94698,0.440734,-6.87667,0.0457523,0.0538828,27.315,0.187859,-24.3806,-0.654784,1.60278,-0.0227517,0.095494,0.0701748,-0.099599,-1.74955,0.0207818,0.292253,-0.0340753,0.000948239,0.00136487,0.0012743,-0.00110973,-0.00517973,0.000782538,0.000547373,0,0,0,0,0,0,0,0.00751081,-38.3666,-0.110155,27.5024,1.02691,3.02666,-0.0703886,
0.0955091,0.0702079,-0.0995845,-1.74957,0.0207446,0.292253,-0.0340762,0.000193519,0.0161054,0.000294629,-0.0205603,-0.00273726,0.0351638,-0.000257292,0.0107092,-2.39018,-0.00438182,3.16699,0.399352,-5.49767,0.0376537,0.0466464,27.8864,0.176112,-24.2726,-0.654157,1.25562,-0.020781,0.095494,0.0701748,-0.099599,-1.74955,0.0207818,0.292253,-0.0340753,0.000948239,0.00136487,0.0012743,-0.00110973,-0.00517973,0.000782538,0.000547373,0,0,0,0,0,0,0,0.00751081,-38.3666,-0.110155,27.5024,1.02691,3.02666,-0.0703886,
0.0955106,0.0702135,-0.0995828,-1.74957,0.0207447,0.292254,-0.0340763,0.000194119,0.0130243,0.000276936,-0.0164943,-0.0021884,0.0281379,-0.000208123,0.000374678,-1.92569,-0.0110586,2.54121,0.343039,-4.39124,0.0307307,0.0406758,28.4142,0.166972,-24.1041,-0.651912,0.87165,-0.0187822,0.0954909,0.0703197,-0.0996058,-1.74959,0.0207826,0.292255,-0.0340767,0.00027948,0.00662063,-4.36065e-05,-0.00143796,-0.0127617,0.00110381,0.000827257,-0.083595,0.656969,-0.164739,-0.0410284,-0.947752,0.040159,0.0349854,0.0828892,-37.8151,-0.0109729,27.2763,1.0086,3.03307,-0.0566557,
0.0953779,0.0704033,-0.0997343,-1.74949,0.0232404,0.290726,-0.0341054,-0.00149619,0.0112084,-0.00153328,-0.0119986,0.0363357,-0.00101174,-0.00043567,-1.05644,-1.13494,-1.13139,2.80985,24.0775,-18.2185,-0.142217,0.507919,0.196669,0.514873,-0.289798,3.17258,-2.17479,-0.00203315,0.0954909,0.0703197,-0.0996058,-1.74959,0.0207826,0.292255,-0.0340767,0.00027948,0.00662063,-4.36065e-05,-0.00143796,-0.0127617,0.00110381,0.000827257,0,0,0,0,0,0,0,0.0828892,-37.8151,-0.0109729,27.2763,1.0086,3.03307,-0.0566557,
0.0953125,0.0704185,-0.0998001,-1.74945,0.0250996,0.289558,-0.0341114,-0.00283271,0.00934888,-0.00287123,-0.00872659,0.0755474,-0.0300119,-0.00049827,-0.835326,-1.16222,-0.836219,2.04499,24.5073,-18.1251,-0.0391245,0.502267,0.194394,0.509323,-0.28671,3.14534,-2.15645,-0.0019819,0.0954909,0.0703197,-0.0996058,-1.74959,0.0207826,0.292255,-0.0340767,0.00027948,0.00662063,-4.36065e-05,-0.00143796,-0.0127617,0.00110381,0.000827257,0,0,0,0,0,0,0,0.0828892,-37.8151,-0.0109729,27.2763,1.0086,3.03307,-0.0566557,
0.0952565,0.0704238,-0.0998547,-1.74943,0.0271502,0.28824,-0.0341148,-0.00366565,0.00761173,-0.00366155,-0.00641227,0.111704,-0.0569583,-0.000482969,-0.520587,-1.08572,-0.493951,1.44645,22.5979,-16.8415,0.00956303,0.496629,0.191683,0.503759,-0.283893,3.11814,-2.13807,-0.00194374,0.0954909,0.0703197,-0.0996058,-1.74959,0.0207826,0.292255,-0.0340767,0.00027948,0.00662063,-4.36065e-05,-0.00143796,-0.0127617,0.00110381,0.000827257,0,0,0,0,0,0,0,0.0828892,-37.8151,-0.0109729,27.2763,1.0086,3.03307,-0.0566557,
0.0952131,0.070424,-0.099896,-1.74942,0.0293093,0.286824,-0.0341168,-0.00401736,0.00609296,-0.00396189,-0.00480728,0.143341,-0.0809701,-0.000436222,-0.219819,-0.949232,-0.187708,1.00312,19.7732,-15.0074,0.0292165,0.492621,0.229045,0.501431,-0.271953,3.0929,-2.11382,-0.00193573,0.0954705,0.0710888,-0.0996238,-1.75048,0.0207418,0.294256,-0.0340676,-0.0014946,0.0818645,-0.00202621,-0.112757,-0.00241612,0.221725,0.000214745,-0.22176,9.40549,-0.247826,-13.9149,1.2932,27.5777,-0.0765639,0.360599,-23.0171,0.286573,12.756,0.263363,1.85937,-0.0969389,
0.0952028,0.0722835,-0.0999371,-1.75041,0.0291039,0.287354,-0.0341541,-0.0068814,0.0174357,-0.0071696,-0.00163269,0.24313,-0.177927,-0.00115725,-1.79002,7.08918,-2.00482,1.98412,62.3681,-60.5981,-0.450641,4.33588,1.3212,4.29265,-1.79997,10.9609,-11.135,-0.00383318,0.0954705,0.0710888,-0.0996238,-1.75048,0.0207418,0.294256,-0.0340676,-0.0014946,0.0818645,-0.00202621,-0.112757,-0.00241612,0.221725,0.000214745,0,0,0,0,0,0,0,0.360599,-23.0171,0.286573,12.756,0.263363,1.85937,-0.0969389,
0.0950847,0.0726256,-0.100058,-1.75035,0.0353122,0.281543,-0.0341703,-0.00845781,0.0225012,-0.00875837,4.1939e-05,0.349711,-0.287627,-0.00132995,-0.985257,3.16596,-0.992979,1.04664,66.6132,-68.5625,-0.107937,4.22371,1.32987,4.1674,-1.75361,10.8567,-10.9352,-0.00328362,0.0954705,0.0710888,-0.0996238,-1.75048,0.0207418,0.294256,-0.0340676,-0.0014946,0.0818645,-0.00202621,-0.112757,-0.00241612,0.221725,0.000214745,0,0,0,0,0,0,0,0.360599,-23.0171,0.286573,12.756,0.263363,1.85937,-0.0969389,
0.0950168,0.0728617,-0.100124,-1.75035,0.0420999,0.274935,-0.0341776,-0.00846347,0.0239025,-0.00865486,0.000165995,0.44946,-0.395307,-0.00124689,-0.00353392,0.875838,0.0646924,0.0775348,62.3433,-67.2999,0.051913,4.1045,1.31908,4.04406,-1.7167,10.6072,-10.7343,-0.00341546,0.0954705,0.0710888,-0.0996238,-1.75048,0.0207418,0.294256,-0.0340676,-0.0014946,0.0818645,-0.00202621,-0.112757,-0.00241612,0.221725,0.000214745,0,0,0,0,0,0,0,0.360599,-23.0171,0.286573,12.756,0.263363,1.85937,-0.0969389,
0.0950042,0.0730334,-0.100133,-1.75038,0.0491796,0.267842,-0.0341805,-0.00708682,0.0234154,-0.0071427,-0.000775864,0.536562,-0.493562,-0.00106919,0.860405,-0.304442,0.945102,-0.588662,54.4382,-61.4092,0.111058,3.97047,1.46881,3.92064,-1.69531,10.3508,-10.5187,-0.0039702,0.0954583,0.0760144,-0.0996411,-1.75565,0.0234084,0.298,-0.0340746,-0.00152937,0.098501,-0.000263336,-0.049852,0.220318,-0.226082,-1.37453e-05,-0.00434611,2.07956,0.22036,7.86313,27.8418,-55.9759,-0.0285613,0.511356,-36.1171,0.389723,33.9532,2.14477,3.99438,-0.0429228,
0.0964216,0.0768717,-0.098702,-1.75628,0.0317103,0.286061,-0.0339172,0.00992498,0.0272978,0.00936827,-0.00837397,0.549006,-0.569691,0.0010815,10.6324,2.42647,10.3194,-4.74882,7.77797,-47.5808,1.34419,27.2742,2.09442,26.5746,-10.2152,10.9485,-14.2973,0.104529,0.0954583,0.0760144,-0.0996411,-1.75565,0.0234084,0.298,-0.0340746,-0.00152937,0.098501,-0.000263336,-0.049852,0.220318,-0.226082,-1.37453e-05,0,0,0,0,0,0,0,0.511356,-36.1171,0.389723,33.9532,2.14477,3.99438,-0.0429228,
0.0972641,0.077081,-0.0978833,-1.75662,0.0374419,0.27772,-0.0338218,0.0290026,0.0270712,0.0279616,-0.015381,0.582496,-0.664294,0.00325119,11.9235,-0.141598,11.6208,-4.3794,20.9309,-59.1267,1.35605,25.8634,2.29817,25.0785,-8.62845,10.9485,-14.2973,0.0930708,0.0954583,0.0760144,-0.0996411,-1.75565,0.0234084,0.298,-0.0340746,-0.00152937,0.098501,-0.000263336,-0.049852,0.220318,-0.226082,-1.37453e-05,0,0,0,0,0,0,0,0.511356,-36.1171,0.389723,33.9532,2.14477,3.99438,-0.0429228,
0.0982682,0.0771251,-0.0969006,-1.7571,0.0438849,0.268522,-0.0336632,0.0483046,0.0227596,0.0469352,-0.0241371,0.627071,-0.761389,0.00656507,12.0637,-2.69473,11.8585,-5.47257,27.8594,-60.6846,2.07117,24.5551,1.12427,23.8394,-7.67087,10.9485,-14.2973,0.114718,0.0954583,0.0760144,-0.0996411,-1.75565,0.0234084,0.298,-0.0340746,-0.00152937,0.098501,-0.000263336,-0.049852,0.220318,-0.226082,-1.37453e-05,0,0,0,0,0,0,0,0.511356,-36.1171,0.389723,33.9532,2.14477,3.99438,-0.0429228,
0.0993845,0.0769628,-0.0958352,-1.75778,0.0509123,0.258795,-0.0335041,0.0665499,0.0141492,0.0641845,-0.0363339,0.677342,-0.85227,0.00922957,11.4034,-5.38152,10.7808,-7.62296,31.4197,-56.8008,1.66531,22.8095,-1.28758,22.2326,-8.3477,10.7519,-14.2637,0.198192,0.0951657,0.0801227,-0.0999272,-1.75578,0.0442896,0.279439,-0.03407,-0.0125214,0.10982,-0.0267322,-0.00349754,0.920529,-0.896014,0.00220266,-1.374,1.41489,-3.30861,5.79431,87.5264,-83.7415,0.277051,5.66089,-46.801,5.58687,22.1942,3.64074,-3.01399,-0.117081,
0.0966624,0.0806408,-0.0983755,-1.75765,0.057111,0.262863,-0.033723,0.0778214,0.016323,0.0760326,-0.0539249,0.700701,-0.900758,0.0108628,7.04463,1.35863,7.40506,-10.9944,14.599,-30.3046,1.0208,36.7374,2.38725,35.8252,-18.3032,10.7519,-14.2637,0.196027,0.0951657,0.0801227,-0.0999272,-1.75578,0.0442896,0.279439,-0.03407,-0.0125214,0.10982,-0.0267322,-0.00349754,0.920529,-0.896014,0.00220266,0,0,0,0,0,0,0,5.66089,-46.801,5.58687,22.1942,3.64074,-3.01399,-0.117081,
0.0979557,0.0807876,-0.0971108,-1.7587,0.0636914,0.253424,-0.0335779,0.0945917,0.0167291,0.092444,-0.0694851,0.72507,-0.95657,0.0123185,10.4815,0.253794,10.2571,-9.7251,15.2306,-34.8828,0.909772,33.5982,3.49432,32.6519,-16.648,10.7519,-14.2637,0.127376,0.0951657,0.0801227,-0.0999272,-1.75578,0.0442896,0.279439,-0.03407,-0.0125214,0.10982,-0.0267322,-0.00349754,0.920529,-0.896014,0.00220266,0,0,0,0,0,0,0,5.66089,-46.801,5.58687,22.1942,3.64074,-3.01399,-0.117081,
0.0994259,0.0808595,-0.0956677,-1.75987,0.0706488,0.243558,-0.0334508,0.112426,0.0151818,0.110033,-0.0847714,0.753991,-1.0119,0.0130329,11.1465,-0.967036,10.993,-9.55394,18.0757,-34.5836,0.446531,31.1588,2.76672,30.1635,-16.136,10.7519,-14.2637,0.156949,0.0951657,0.0801227,-0.0999272,-1.75578,0.0442896,0.279439,-0.03407,-0.0125214,0.10982,-0.0267322,-0.00349754,0.920529,-0.896014,0.00220266,0,0,0,0,0,0,0,5.66089,-46.801,5.58687,22.1942,3.64074,-3.01399,-0.117081,
0.100977,0.0809114,-0.0941274,-1.76108,0.0780152,0.233357,-0.0334041,0.128725,0.0134412,0.126535,-0.0980647,0.787354,-1.06457,0.0115934,10.1871,-1.08786,10.3139,-8.30835,20.8522,-32.9173,-0.899692,28.3361,1.46646,27.63,-16.7311,10.7915,-13.8598,0.147308,0.0973038,0.0824661,-0.0965172,-1.75735,0.0751546,0.237065,-0.0339848,0.247766,0.057177,0.199483,-0.0623217,0.899924,-1.40728,0.00700028,32.5359,-6.5804,28.2768,-7.35302,-2.57571,-63.9079,0.599702,18.1896,-39.3147,16.7865,22.4442,4.12323,-2.02613,0.131027,
0.101609,0.0825479,-0.0923889,-1.76029,0.0899843,0.21614,-0.0337275,0.158358,0.0111503,0.154423,-0.117275,0.818311,-1.1133,0.0122833,18.5201,-1.43184,17.43,-12.0061,19.3481,-30.4568,0.431175,38.0664,1.65545,36.4367,-22.0629,10.7915,-13.8598,0.155898,0.0973038,0.0824661,-0.0965172,-1.75735,0.0751546,0.237065,-0.0339848,0.247766,0.057177,0.199483,-0.0623217,0.899924,-1.40728,0.00700028,0,0,0,0,0,0,0,18.1896,-39.3147,16.7865,22.4442,4.12323,-2.02613,0.131027,
0.103861,0.082525,-0.090225,-1.76194,0.0978356,0.205606,-0.0336386,0.182972,0.00834805,0.177635,-0.13488,0.850931,-1.15401,0.012047,15.3838,-1.75141,14.5074,-11.0036,20.3872,-25.4406,-0.14769,34.4282,1.3375,33.082,-21.1829,10.7915,-13.8598,0.141612,0.0973038,0.0824661,-0.0965172,-1.75735,0.0751546,0.237065,-0.0339848,0.247766,0.057177,0.199483,-0.0623217,0.899924,-1.40728,0.00700028,0,0,0,0,0,0,0,18.1896,-39.3147,16.7865,22.4442,4.12323,-2.02613,0.131027,
0.106082,0.0825009,-0.0880876,-1.76359,0.105999,0.194967,-0.0336362,0.201909,0.00607556,0.195545,-0.149292,0.884827,-1.18917,0.00969874,11.836,-1.42031,11.1935,-9.00727,21.185,-21.9782,-1.46766,30.839,-0.10218,29.7003,-21.5383,10.7915,-13.8598,0.111331,0.0973038,0.0824661,-0.0965172,-1.75735,0.0751546,0.237065,-0.0339848,0.247766,0.057177,0.199483,-0.0623217,0.899924,-1.40728,0.00700028,0,0,0,0,0,0,0,18.1896,-39.3147,16.7865,22.4442,4.12323,-2.02613,0.131027,
0.10825,0.082504,-0.0860084,-1.76521,0.114405,0.184227,-0.0336808,0.215711,0.00493918,0.208416,-0.15991,0.918003,-1.21983,0.00664382,8.62613,-0.710239,8.04461,-6.63648,20.735,-19.1632,-1.90932,27.4176,-0.162263,26.4799,-21.2506,10.7915,-13.8598,0.00672353,0.0973038,0.0824661,-0.0965172,-1.75735,0.0751546,0.237065,-0.0339848,0.247766,0.057177,0.199483,-0.0623217,0.899924,-1.40728,0.00700028,0,0,0,0,0,0,0,18.1896,-39.3147,16.7865,22.4442,4.12323,-2.02613,0.131027,
0.111244,0.0846613,-0.0852391,-1.76852,0.127555,0.156969,-0.0335575,0.237995,0.0123452,0.229715,-0.188005,0.942838,-1.26708,0.0050572,13.9271,4.62874,13.3116,-17.5595,15.5221,-29.5302,-0.99164,34.4641,1.28234,33.1932,-27.055,10.8045,-13.4095,0.0222214,0.10597,0.0838688,-0.0903429,-1.76378,0.111134,0.180673,-0.0335623,0.199188,0.0899223,0.461381,-0.239657,0.959836,-1.62703,0.0118267,-6.07231,4.09316,32.7373,-22.1669,7.48907,-27.4693,0.603308,19.2806,-36.367,18.1116,27.5262,5.35736,-1.79359,0.11821,
0.113763,0.0849332,-0.0828158,-1.77089,0.13612,0.145613,-0.0336451,0.25335,0.0166734,0.244354,-0.209682,0.968396,-1.29756,0.00185615,9.59703,2.70516,9.14964,-13.5477,15.974,-19.0511,-2.00065,30.8438,-0.0363112,29.7507,-27.1128,10.8045,-13.4095,-0.00596161,0.10597,0.0838688,-0.0903429,-1.76378,0.111134,0.180673,-0.0335623,0.199188,0.0899223,0.461381,-0.239657,0.959836,-1.62703,0.0118267,0,0,0,0,0,0,0,19.2806,-36.367,18.1116,27.5262,5.35736,-1.79359,0.11821,
0.11617,0.0851713,-0.0804979,-1.77321,0.144844,0.134679,-0.0337696,0.262867,0.0192914,0.25343,-0.225765,0.99281,-1.3114,-0.00162731,5.94792,1.63621,5.67258,-10.0518,15.2588,-8.65001,-2.17717,27.5009,-0.202227,26.5633,-26.6684,10.8045,-13.1006,-0.101069,0.10597,0.0838688,-0.0903429,-1.76378,0.111134,0.180673,-0.0335623,0.199188,0.0899223,0.461381,-0.239657,0.959836,-1.62703,0.0118267,0,0,0,0,0,0,0,19.2806,-36.367,18.1116,27.5262,5.35736,-1.79359,0.11821,
0.118471,0.0853847,-0.0782826,-1.77548,0.153653,0.124245,-0.033902,0.267826,0.0207688,0.258127,-0.23734,1.01449,-1.30997,-0.0046133,3.09944,0.923403,2.93542,-7.23438,13.5485,0.894719,-1.86624,25.3292,0.0915363,24.492,-25.9017,10.8045,-12.2206,-0.14504,0.10597,0.0838688,-0.0903429,-1.76378,0.111134,0.180673,-0.0335623,0.199188,0.0899223,0.461381,-0.239657,0.959836,-1.62703,0.0118267,0,0,0,0,0,0,0,19.2806,-36.367,18.1116,27.5262,5.35736,-1.79359,0.11821,
0.110939,0.0841246,-0.0855429,-1.76975,0.128158,0.160627,-0.0338971,0.274936,0.0183303,0.264849,-0.265986,1.02806,-1.28334,-0.00857041,4.44397,-1.52406,4.20154,-17.9037,8.47995,16.6479,-2.47319,27.825,-4.18412,26.7509,-33.3293,10.7277,-8.79784,-0.162713,0.118094,0.0821885,-0.0780526,-1.7759,0.148942,0.118228,-0.033224,0.254761,0.000437667,0.478533,-0.307253,1.15956,-1.95094,-0.000862232,6.94663,-11.1856,2.14402,-8.44954,24.9652,-40.4884,-1.58612,16.8962,-34.3199,15.7868,23.5391,4.35577,-0.819467,0.0907442,
0.113243,0.0841658,-0.0833254,-1.77275,0.136971,0.152277,-0.0341101,0.27757,0.0156927,0.267317,-0.287579,1.04276,-1.23544,-0.0121818,1.64641,-1.64847,1.54258,-13.496,9.18912,29.9341,-2.25713,25.0031,-3.85116,24.0799,-32.626,10.7277,-7.92506,-0.232239,0.118094,0.0821885,-0.0780526,-1.7759,0.148942,0.118228,-0.033224,0.254761,0.000437667,0.478533,-0.307253,1.15956,-1.95094,-0.000862232,0,0,0,0,0,0,0,16.8962,-34.3199,15.7868,23.5391,4.35577,-0.819467,0.0907442,
0.115439,0.0841955,-0.0812127,-1.77566,0.145845,0.144936,-0.0343159,0.276935,0.0132978,0.26667,-0.302818,1.05607,-1.17188,-0.0148901,-0.397086,-1.49685,-0.404347,-9.52448,8.31973,39.7265,-1.69271,23.2671,-3.22973,22.4171,-31.7101,10.7277,-6.58721,-0.254623,0.118094,0.0821885,-0.0780526,-1.7759,0.148942,0.118228,-0.033224,0.254761,0.000437667,0.478533,-0.307253,1.15956,-1.95094,-0.000862232,0,0,0,0,0,0,0,16.8962,-34.3199,15.7868,23.5391,4.35577,-0.819467,0.0907442,
0.123467,0.0818677,-0.0728601,-1.78208,0.167978,0.0955708,-0.0336304,0.286698,0.00714563,0.276031,-0.319707,1.08245,-1.19427,-0.0172389,6.10188,-3.84509,5.85039,-10.5554,16.4877,-13.9947,-1.46799,25.0031,-3.85116,24.0799,-32.626,10.7277,-7.92506,-0.232239,0.118094,0.0821885,-0.0780526,-1.7759,0.148942,0.118228,-0.033224,0.254761,0.000437667,0.478533,-0.307253,1.15956,-1.95094,-0.000862232,0,0,0,0,0,0,0,16.8962,-34.3199,15.7868,23.5391,4.35577,-0.819467,0.0907442,
0.125919,0.0817799,-0.0705019,-1.78508,0.177385,0.0869697,-0.0338373,0.290637,0.00352179,0.27978,-0.330809,1.10113,-1.17044,-0.0189648,2.46163,-2.2649,2.34313,-6.93861,11.6774,14.8922,-1.0787,23.6279,-3.31139,22.7176,-31.2576,10.7441,-6.01541,-0.257996,0.13302,0.0809678,-0.0637047,-1.79168,0.19309,0.0536437,-0.0332579,0.407997,-0.0543102,0.507924,-0.495056,1.25279,-1.88992,-0.00612316,19.1545,-6.84349,3.67384,-23.4753,11.6541,7.62779,-0.657616,8.9339,-34.4707,8.33619,19.9527,4.09301,-1.25709,0.0706026,
0.128233,0.0817219,-0.0682762,-1.78797,0.186667,0.0797538,-0.0340259,0.290358,0.00136867,0.279467,-0.336952,1.11296,-1.11675,-0.0198867,-0.17384,-1.3457,-0.195492,-3.83974,7.38913,33.5569,-0.576167,22.5265,-2.9298,21.6565,-30.4954,10.7441,-4.87363,-0.248993,0.13302,0.0809678,-0.0637047,-1.79168,0.19309,0.0536437,-0.0332579,0.407997,-0.0543102,0.507924,-0.495056,1.25279,-1.88992,-0.00612316,0,0,0,0,0,0,0,8.9339,-34.4707,8.33619,19.9527,4.09301,-1.25709,0.0706026,
0.130425,0.0816755,-0.0661683,-1.79076,0.195816,0.0736882,-0.0341921,0.287089,-6.60538e-05,0.276271,-0.339157,1.11909,-1.04504,-0.0200649,-2.04335,-0.896705,-1.99759,-1.37807,3.83643,44.8181,-0.111365,21.7209,-2.69727,20.8799,-29.8508,10.7441,-3.93515,-0.22519,0.13302,0.0809678,-0.0637047,-1.79168,0.19309,0.0536437,-0.0332579,0.407997,-0.0543102,0.507924,-0.495056,1.25279,-1.88992,-0.00612316,0,0,0,0,0,0,0,8.9339,-34.4707,8.33619,19.9527,4.09301,-1.25709,0.0706026,
0.139418,0.0808189,-0.0575526,-1.79843,0.213292,0.0309332,-0.0336926,0.305878,-0.000451086,0.294188,-0.352657,1.14667,-1.09153,-0.0214549,11.7431,-0.240645,11.1979,-8.43728,17.2323,-29.0546,-0.868729,23.6279,-3.31139,22.7176,-31.2576,10.7441,-6.01541,-0.257996,0.13302,0.0809678,-0.0637047,-1.79168,0.19309,0.0536437,-0.0332579,0.407997,-0.0543102,0.507924,-0.495056,1.25279,-1.88992,-0.00612316,0,0,0,0,0,0,0,8.9339,-34.4707,8.33619,19.9527,4.09301,-1.25709,0.0706026,
0.142211,0.0808436,-0.0548707,-1.80151,0.223164,0.0225791,-0.0338893,0.314526,0.000256783,0.302397,-0.358907,1.16415,-1.08208,-0.0220817,5.4053,0.442418,5.13066,-3.90639,10.9256,5.90877,-0.391773,22.6566,-3.26925,21.722,-29.7624,10.6728,-4.28601,-0.255299,0.150912,0.0802884,-0.0457378,-1.81601,0.238195,0.00229842,-0.0335964,0.4906,0.00323404,0.598772,-0.675623,1.38688,-1.45122,-0.0157512,10.3254,7.19303,11.356,-22.5709,16.7613,54.8375,-1.20351,1.75708,-36.9661,1.48866,24.884,2.89001,-0.600656,-0.0429228,
0.144789,0.0808723,-0.052396,-1.80442,0.232817,0.0157346,-0.0340625,0.316063,0.000924021,0.303785,-0.359992,1.17264,-1.03677,-0.0219958,0.960337,0.417024,0.867834,-0.678346,5.30727,28.3136,0.0537061,21.8509,-3.03673,20.9454,-29.1178,10.6728,-3.34754,-0.231496,0.150912,0.0802884,-0.0457378,-1.81601,0.238195,0.00229842,-0.0335964,0.4906,0.00323404,0.598772,-0.675623,1.38688,-1.45122,-0.0157512,0,0,0,0,0,0,0,1.75708,-36.9661,1.48866,24.884,2.89001,-0.600656,-0.0429228,
0.147184,0.0808852,-0.0500967,-1.80721,0.242247,0.0102049,-0.0342107,0.312739,0.00106214,0.300509,-0.35766,1.17386,-0.967662,-0.0213014,-2.07754,0.0863211,-2.04752,1.45787,0.762855,43.1953,0.433977,21.1625,-2.83808,20.2846,-28.5279,10.6728,-2.61552,-0.203074,0.150912,0.0802884,-0.0457378,-1.81601,0.238195,0.00229842,-0.0335964,0.4906,0.00323404,0.598772,-0.675623,1.38688,-1.45122,-0.0157512,0,0,0,0,0,0,0,1.75708,-36.9661,1.48866,24.884,2.89001,-0.600656,-0.0429228,
0.158255,0.0812885,-0.0386901,-1.8234,0.259552,-0.0170545,-0.0340314,0.336582,0.0133844,0.323195,-0.372172,1.20244,-0.994779,-0.0222766,14.902,7.70141,14.1783,-9.07038,17.8633,-16.9479,-0.609484,22.6566,-3.26925,21.722,-29.7624,10.6728,-4.28601,-0.255299,0.150912,0.0802884,-0.0457378,-1.81601,0.238195,0.00229842,-0.0335964,0.4906,0.00323404,0.598772,-0.675623,1.38688,-1.45122,-0.0157512,0,0,0,0,0,0,0,1.75708,-36.9661,1.48866,24.884,2.89001,-0.600656,-0.0429228,
0.161354,0.081697,-0.0357203,-1.82656,0.269764,-0.0243217,-0.0342155,0.346749,0.0209204,0.332799,-0.3769,1.21726,-0.977503,-0.0224239,6.3542,4.70999,6.00266,-2.95455,9.26219,10.7971,-0.092096,21.9542,-3.43028,20.9742,-28.6895,10.5181,-2.92375,-0.233937,0.169739,0.0803631,-0.0265415,-1.84184,0.287493,-0.0429478,-0.034005,0.580865,-0.0162451,0.556983,-0.679748,1.51264,-1.4144,-0.00201229,11.2832,-2.43489,-5.22365,-0.515558,15.7193,4.60148,1.71737,0.336795,-38.4895,-0.185533,22.6187,2.22992,0.57305,-0.157364,
0.164162,0.0819993,-0.0330307,-1.82953,0.279648,-0.0301846,-0.0343725,0.347593,0.0242933,0.333481,-0.375809,1.22091,-0.928575,-0.0218645,0.527651,2.10805,0.426514,0.681773,2.28133,30.5802,0.349655,21.2658,-3.23163,20.3133,-28.0996,10.5181,-2.19173,-0.205515,0.169739,0.0803631,-0.0265415,-1.84184,0.287493,-0.0429478,-0.034005,0.580865,-0.0162451,0.556983,-0.679748,1.51264,-1.4144,-0.00201229,0,0,0,0,0,0,0,0.336795,-38.4895,-0.185533,22.6187,2.22992,0.57305,-0.157364,
0.166728,0.0822054,-0.0305734,-1.83234,0.289221,-0.0348153,-0.034502,0.342226,0.0245866,0.328216,-0.370893,1.21605,-0.858627,-0.0207282,-3.35445,0.183334,-3.29074,3.07266,-3.03492,43.7173,0.710207,20.638,-3.01943,19.7101,-27.5196,10.5181,-1.25886,-0.175473,0.169739,0.0803631,-0.0265415,-1.84184,0.287493,-0.0429478,-0.034005,0.580865,-0.0162451,0.556983,-0.679748,1.51264,-1.4144,-0.00201229,0,0,0,0,0,0,0,0.336795,-38.4895,-0.185533,22.6187,2.22992,0.57305,-0.157364,
0.177403,0.0811395,-0.0192017,-1.84909,0.309769,-0.0613086,-0.0343983,0.363606,0.0295815,0.348601,-0.380612,1.24482,-0.894179,-0.0213291,13.3629,3.12179,12.7407,-6.07431,17.9784,-22.2201,-0.375594,21.9542,-3.43028,20.9742,-28.6895,10.5181,-2.92375,-0.233937,0.169739,0.0803631,-0.0265415,-1.84184,0.287493,-0.0429478,-0.034005,0.580865,-0.0162451,0.556983,-0.679748,1.51264,-1.4144,-0.00201229,0,0,0,0,0,0,0,0.336795,-38.4895,-0.185533,22.6187,2.22992,0.57305,-0.157364,
0.180606,0.0814478,-0.0161352,-1.85216,0.320176,-0.0679147,-0.0345617,0.370965,0.031371,0.355544,-0.381396,1.25605,-0.880497,-0.0211469,4.59898,1.1185,4.339,-0.490543,7.02063,8.55171,0.113898,21.2385,-3.80122,20.2123,-27.5973,10.2804,-1.8314,-0.209307,0.189078,0.0808514,-0.00714786,-1.86738,0.340006,-0.0822464,-0.0342908,0.562095,-0.00961783,0.590997,-0.721173,1.62492,-1.1427,-0.0047633,-2.34625,0.828405,4.25182,-5.1782,14.0357,33.9633,-0.343877,-2.02374,-36.5416,-2.71269,18.6078,1.04522,-0.302194,-0.163772,
0.183488,0.0816562,-0.0133774,-1.85504,0.330153,-0.073055,-0.0346968,0.36883,0.0303066,0.353379,-0.376982,1.25424,-0.832905,-0.0202963,-1.33409,-0.665289,-1.35275,2.75873,-1.13087,29.7448,0.531616,20.6107,-3.58902,19.609,-27.0172,10.2804,-0.898518,-0.179265,0.189078,0.0808514,-0.00714786,-1.86738,0.340006,-0.0822464,-0.0342908,0.562095,-0.00961783,0.590997,-0.721173,1.62492,-1.1427,-0.0047633,0,0,0,0,0,0,0,-2.02374,-36.5416,-2.71269,18.6078,1.04522,-0.302194,-0.163772,
0.186103,0.081776,-0.0108778,-1.85774,0.339745,-0.0769827,-0.0348068,0.360425,0.0272408,0.345194,-0.369155,1.24321,-0.764517,-0.0189871,-5.25344,-1.91611,-5.11577,4.89232,-6.89673,42.7422,0.818233,20.0062,-3.38137,19.0317,-26.4606,10.2804,-0.0752364,-0.14797,0.189078,0.0808514,-0.00714786,-1.86738,0.340006,-0.0822464,-0.0342908,0.562095,-0.00961783,0.590997,-0.721173,1.62492,-1.1427,-0.0047633,0,0,0,0,0,0,0,-2.02374,-36.5416,-2.71269,18.6078,1.04522,-0.302194,-0.163772,
0.196812,0.0817746,0.000259599,-1.87458,0.362808,-0.097782,-0.0346434,0.378882,0.033044,0.362788,-0.377659,1.26986,-0.786558,-0.0193997,11.5355,3.62698,10.9963,-5.31507,16.6563,-13.7757,-0.25787,21.2385,-3.80122,20.2123,-27.5973,10.2804,-1.8314,-0.209307,0.189078,0.0808514,-0.00714786,-1.86738,0.340006,-0.0822464,-0.0342908,0.562095,-0.00961783,0.590997,-0.721173,1.62492,-1.1427,-0.0047633,0,0,0,0,0,0,0,-2.02374,-36.5416,-2.71269,18.6078,1.04522,-0.302194,-0.163772,
0.200027,0.0820988,0.0033336,-1.87757,0.373203,-0.103253,-0.0347842,0.383489,0.0345395,0.367081,-0.37689,1.27575,-0.766011,-0.0190408,2.87938,0.934709,2.68276,0.480262,3.68371,12.8425,0.224295,20.4681,-4.09718,19.3951,-26.5779,10.0144,-0.608411,-0.18231,0.209626,0.0823994,0.012564,-1.89246,0.394165,-0.112118,-0.0344271,0.563759,0.0746227,0.596735,-0.67849,1.67512,-0.886009,-0.0105011,0.208067,10.5301,0.717201,5.33545,6.27438,32.086,-0.71722,-0.932736,-38.1642,-1.43523,22.095,0.97839,-1.2104,-0.204056,
0.202906,0.0822981,0.00608288,-1.88035,0.383082,-0.107419,-0.0348992,0.378753,0.0326152,0.362396,-0.370887,1.26757,-0.716977,-0.018107,-2.95996,-1.2027,-2.92764,3.75203,-5.11328,30.6457,0.583645,19.8635,-3.88953,18.8178,-26.0212,10.0144,0.21487,-0.151015,0.209626,0.0823994,0.012564,-1.89246,0.394165,-0.112118,-0.0344271,0.563759,0.0746227,0.596735,-0.67849,1.67512,-0.886009,-0.0105011,0,0,0,0,0,0,0,-0.932736,-38.1642,-1.43523,22.095,0.97839,-1.2104,-0.204056,
0.205512,0.0823809,0.00857128,-1.88299,0.392532,-0.110105,-0.0349911,0.36817,0.0281616,0.352127,-0.362886,1.25031,-0.640717,-0.016782,-6.61425,-2.78352,-6.4182,5.00042,-10.7901,47.6626,0.828112,19.2461,-3.68053,18.2311,-25.4742,10.0144,0.78478,-0.122991,0.209626,0.0823994,0.012564,-1.89246,0.394165,-0.112118,-0.0344271,0.563759,0.0746227,0.596735,-0.67849,1.67512,-0.886009,-0.0105011,0,0,0,0,0,0,0,-0.932736,-38.1642,-1.43523,22.095,0.97839,-1.2104,-0.204056,
0.217358,0.0838951,0.0199571,-1.8995,0.417012,-0.12425,-0.0347422,0.384826,0.0390829,0.367916,-0.371094,1.2738,-0.648833,-0.0170959,10.4101,6.82584,9.86814,-5.12988,14.6807,-5.0727,-0.196183,20.4681,-4.09718,19.3951,-26.5779,10.0144,-0.608411,-0.18231,0.209626,0.0823994,0.012564,-1.89246,0.394165,-0.112118,-0.0344271,0.563759,0.0746227,0.596735,-0.67849,1.67512,-0.886009,-0.0105011,0,0,0,0,0,0,0,-0.932736,-38.1642,-1.43523,22.095,0.97839,-1.2104,-0.204056,
0.220548,0.0843464,0.0229986,-1.90242,0.427231,-0.128474,-0.0348628,0.38759,0.04255,0.37037,-0.369912,1.27453,-0.62467,-0.0166912,1.72748,2.16693,1.53387,0.738677,0.455704,15.102,0.252952,19.8635,-3.88953,18.8178,-26.0212,10.0144,0.21487,-0.151015,0.209626,0.0823994,0.012564,-1.89246,0.394165,-0.112118,-0.0344271,0.563759,0.0746227,0.596735,-0.67849,1.67512,-0.886009,-0.0105011,0,0,0,0,0,0,0,-0.932736,-38.1642,-1.43523,22.095,0.97839,-1.2104,-0.204056,
0.223398,0.0846066,0.0257152,-1.90517,0.436884,-0.131228,-0.0349592,0.381333,0.0405434,0.364213,-0.36456,1.26093,-0.568587,-0.0157619,-3.91073,-1.25413,-3.84841,3.34546,-8.49876,35.0522,0.580795,19.303,-4.23683,18.2078,-24.9514,9.85589,1.06308,-0.12527,0.231451,0.0832145,0.0332677,-1.91689,0.448752,-0.135219,-0.0344513,0.613823,-0.0269276,0.616651,-0.707431,1.65876,-0.66565,-0.000406564,6.25798,-12.6938,2.48957,-3.61764,-2.0445,27.5449,1.26181,-0.603451,-38.6125,-1.21306,21.4484,1.68701,-2.0655,-0.190323,
0.225974,0.0847159,0.0281681,-1.90778,0.446078,-0.132487,-0.035035,0.369462,0.0351669,0.352692,-0.356921,1.2386,-0.486334,-0.0145055,-7.41951,-3.36027,-7.20083,4.7744,-13.9575,51.4082,0.785239,18.686,-4.00886,17.605,-24.3748,9.85589,3.01274,-0.101636,0.231451,0.0832145,0.0332677,-1.91689,0.448752,-0.135219,-0.0344513,0.613823,-0.0269276,0.616651,-0.707431,1.65876,-0.66565,-0.000406564,0,0,0,0,0,0,0,-0.603451,-38.6125,-1.21306,21.4484,1.68701,-2.0655,-0.190323,
0.239528,0.0838721,0.0409699,-1.92356,0.471239,-0.145213,-0.0347215,0.389244,0.035907,0.371418,-0.360787,1.26041,-0.501869,-0.014799,12.3637,0.462559,11.704,-2.41633,13.6324,-9.70985,-0.183425,19.9204,-4.44584,18.7945,-25.4985,9.85589,0.493169,-0.153293,0.231451,0.0832145,0.0332677,-1.91689,0.448752,-0.135219,-0.0344513,0.613823,-0.0269276,0.616651,-0.707431,1.65876,-0.66565,-0.000406564,0,0,0,0,0,0,0,-0.603451,-38.6125,-1.21306,21.4484,1.68701,-2.0655,-0.190323,
0.242811,0.0840366,0.0440964,-1.92631,0.481335,-0.148256,-0.0348253,0.393451,0.0328384,0.375299,-0.357462,1.26072,-0.477587,-0.0144338,2.62966,-1.91788,2.42558,2.07815,0.193969,15.1763,0.228281,19.303,-4.23683,18.2078,-24.9514,9.85589,1.06308,-0.12527,0.231451,0.0832145,0.0332677,-1.91689,0.448752,-0.135219,-0.0344513,0.613823,-0.0269276,0.616651,-0.707431,1.65876,-0.66565,-0.000406564,0,0,0,0,0,0,0,-0.603451,-38.6125,-1.21306,21.4484,1.68701,-2.0655,-0.190323,
0.245722,0.084064,0.0468676,-1.92891,0.490874,-0.149751,-0.0349073,0.387542,0.0269552,0.369518,-0.35091,1.24706,-0.419446,-0.0135972,-3.6932,-3.67704,-3.61346,4.09457,-8.53627,36.3385,0.522845,18.5085,-4.45229,17.3604,-24.0309,9.62723,3.19464,-0.103546,0.252857,0.0837178,0.0546062,-1.94061,0.502333,-0.15056,-0.0344627,0.581625,0.0463578,0.667381,-0.685971,1.57787,-0.394077,-0.00105846,-4.02474,9.16067,6.34118,2.68251,-10.1109,33.9466,-0.0814866,-0.119442,-36.2441,-0.510851,22.4203,2.60894,-1.97303,-0.130813,
0.248333,0.0839827,0.0493508,-1.93138,0.499956,-0.149773,-0.0349704,0.375318,0.0195309,0.357694,-0.342591,1.22469,-0.336111,-0.0124553,-7.64004,-4.64017,-7.38992,5.19969,-13.9812,52.084,0.713718,17.9327,-4.36822,16.8044,-23.5675,9.62723,4.84391,-0.0831265,0.252857,0.0837178,0.0546062,-1.94061,0.502333,-0.15056,-0.0344627,0.581625,0.0463578,0.667381,-0.685971,1.57787,-0.394077,-0.00105846,0,0,0,0,0,0,0,-0.119442,-36.2441,-0.510851,22.4203,2.60894,-1.97303,-0.130813,
0.260933,0.0849304,0.0622915,-1.94725,0.523662,-0.157132,-0.0346964,0.393634,0.0286152,0.374896,-0.349754,1.23532,-0.339073,-0.0126859,11.4475,5.67768,10.7512,-4.4771,6.64173,-1.85073,-0.144173,19.1255,-4.68027,17.9633,-24.6075,9.62723,1.24497,-0.127179,0.252857,0.0837178,0.0546062,-1.94061,0.502333,-0.15056,-0.0344627,0.581625,0.0463578,0.667381,-0.685971,1.57787,-0.394077,-0.00105846,0,0,0,0,0,0,0,-0.119442,-36.2441,-0.510851,22.4203,2.60894,-1.97303,-0.130813,
0.264187,0.0852265,0.0653818,-1.95001,0.533241,-0.158586,-0.0347833,0.39625,0.0302944,0.377176,-0.348846,1.22772,-0.307598,-0.0123211,1.63503,1.04952,1.42529,0.567559,-4.75062,19.6716,0.228021,18.5085,-4.45229,17.3604,-24.0309,9.62723,3.19464,-0.103546,0.252857,0.0837178,0.0546062,-1.94061,0.502333,-0.15056,-0.0344627,0.581625,0.0463578,0.667381,-0.685971,1.57787,-0.394077,-0.00105846,0,0,0,0,0,0,0,-0.119442,-36.2441,-0.510851,22.4203,2.60894,-1.97303,-0.130813,
0.267059,0.0853359,0.0681067,-1.9526,0.54231,-0.158644,-0.0348501,0.388787,0.0269696,0.369863,-0.343756,1.2089,-0.24754,-0.0115271,-4.6643,-2.07801,-4.57058,3.18126,-11.7604,37.5361,0.496233,17.7667,-4.7622,16.5691,-23.3539,9.40994,4.96978,-0.0837293,0.274683,0.085082,0.0749223,-1.96336,0.553588,-0.158425,-0.0344555,0.458303,0.107039,0.780993,-0.612989,1.50403,-0.212323,0.00100933,-15.4152,7.58518,14.2015,9.12269,-9.22994,22.7193,0.258473,-1.36517,-40.8104,-1.58599,27.3755,3.24432,-0.574106,-0.143631,
0.269623,0.0853043,0.0705375,-1.95504,0.55097,-0.1574,-0.0348989,0.375144,0.0207846,0.35666,-0.336158,1.18361,-0.166918,-0.010441,-8.52701,-3.86561,-8.25182,4.74879,-15.8035,50.389,0.678847,17.2458,-4.73292,16.0713,-22.9701,9.40994,6.30898,-0.0654767,0.274683,0.085082,0.0749223,-1.96336,0.553588,-0.158425,-0.0344555,0.458303,0.107039,0.780993,-0.612989,1.50403,-0.212323,0.00100933,0,0,0,0,0,0,0,-1.36517,-40.8104,-1.58599,27.3755,3.24432,-0.574106,-0.143631,
0.282592,0.0865507,0.0824537,-1.96979,0.574044,-0.161599,-0.0346571,0.391516,0.0315337,0.371966,-0.342967,1.19168,-0.162005,-0.0106456,10.2324,6.71816,9.56598,-4.2554,5.0442,3.07048,-0.127865,18.3425,-4.84627,17.1251,-23.8173,9.40994,3.32051,-0.104148,0.274683,0.085082,0.0749223,-1.96336,0.553588,-0.158425,-0.0344555,0.458303,0.107039,0.780993,-0.612989,1.50403,-0.212323,0.00100933,0,0,0,0,0,0,0,-1.36517,-40.8104,-1.58599,27.3755,3.24432,-0.574106,-0.143631,
0.285767,0.0868783,0.0854604,-1.97249,0.583209,-0.161543,-0.034728,0.392581,0.0334185,0.372741,-0.342056,1.18247,-0.128225,-0.0102909,0.66578,1.17801,0.484192,0.569115,-5.75638,21.1126,0.221682,17.7667,-4.7622,16.5691,-23.3539,9.40994,4.96978,-0.0837293,0.274683,0.085082,0.0749223,-1.96336,0.553588,-0.158425,-0.0344555,0.458303,0.107039,0.780993,-0.612989,1.50403,-0.212323,0.00100933,0,0,0,0,0,0,0,-1.36517,-40.8104,-1.58599,27.3755,3.24432,-0.574106,-0.143631,
0.288561,0.0869968,0.0881038,-1.97502,0.591894,-0.160279,-0.0347798,0.383922,0.0296959,0.364278,-0.336855,1.1631,-0.0709759,-0.00952791,-5.41209,-2.32658,-5.28877,3.25045,-12.109,35.7806,0.47685,17.2511,-5.20903,16.0135,-22.7098,9.27409,6.39588,-0.0665322,0.296881,0.0852319,0.0936177,-1.98601,0.604275,-0.159097,-0.0344568,0.426442,-0.00210272,0.817746,-0.671255,1.43779,0.0710002,0.000600107,-3.98271,-13.6427,4.59418,-7.2832,-8.28035,35.4154,-0.0511528,0.209842,-39.3861,0.663466,25.0586,3.20129,-0.899118,-0.130813,
0.291052,0.0869627,0.0904566,-1.9774,0.600205,-0.157893,-0.0348145,0.369398,0.0229055,0.350242,-0.329048,1.13827,0.00286769,-0.00848996,-9.07697,-4.24405,-8.77257,4.87969,-15.5212,46.1522,0.64872,16.7861,-5.16158,15.5733,-22.3618,9.27409,7.44695,-0.0493069,0.296881,0.0852319,0.0936177,-1.98601,0.604275,-0.159097,-0.0344568,0.426442,-0.00210272,0.817746,-0.671255,1.43779,0.0710002,0.000600107,0,0,0,0,0,0,0,0.209842,-39.3861,0.663466,25.0586,3.20129,-0.899118,-0.130813,
0.304769,0.085905,0.101122,-1.99225,0.623632,-0.159218,-0.0346186,0.386446,0.0252491,0.366254,-0.333744,1.14282,0.00881932,-0.00865547,10.6548,1.46479,10.0073,-2.93508,2.84666,3.71977,-0.103443,17.7719,-5.23831,16.5112,-23.0937,9.27409,5.05667,-0.0847848,0.296881,0.0852319,0.0936177,-1.98601,0.604275,-0.159097,-0.0344568,0.426442,-0.00210272,0.817746,-0.671255,1.43779,0.0710002,0.000600107,0,0,0,0,0,0,0,0.209842,-39.3861,0.663466,25.0586,3.20129,-0.899118,-0.130813,
0.307911,0.0859977,0.104094,-1.99481,0.632396,-0.157946,-0.0346749,0.387709,0.022517,0.367292,-0.330946,1.13336,0.0388365,-0.00833019,0.789443,-1.70756,0.648993,1.74904,-5.9108,18.7607,0.2033,17.2511,-5.20903,16.0135,-22.7098,9.27409,6.39588,-0.0665322,0.296881,0.0852319,0.0936177,-1.98601,0.604275,-0.159097,-0.0344568,0.426442,-0.00210272,0.817746,-0.671255,1.43779,0.0710002,0.000600107,0,0,0,0,0,0,0,0.209842,-39.3861,0.663466,25.0586,3.20129,-0.899118,-0.130813,
0.310665,0.0859373,0.106695,-1.9972,0.640762,-0.155629,-0.0347132,0.379003,0.0165039,0.35886,-0.324535,1.11584,0.0890034,-0.00762224,-5.44114,-3.75818,-5.27015,4.00636,-10.9489,31.3543,0.442467,16.6954,-5.56883,15.4326,-22.3039,9.10155,7.46571,-0.0497712,0.319168,0.0849074,0.111826,-2.00774,0.653889,-0.153377,-0.0344492,0.570031,0.0398079,0.607135,-0.634446,1.43215,0.281785,0.000824913,17.9486,5.23883,-26.3265,4.60114,-0.705158,26.3481,0.0281008,-2.91241,-34.7722,-1.41142,26.106,2.62085,1.70006,-0.123489,
0.31311,0.0857661,0.109002,-1.99946,0.648816,-0.152348,-0.034735,0.364334,0.00892187,0.34475,-0.316109,1.09402,0.153227,-0.00664319,-9.1686,-4.73879,-8.81904,5.26668,-13.638,40.1396,0.611907,16.2783,-5.47192,15.0402,-21.9682,9.10155,8.28971,-0.0335345,0.319168,0.0849074,0.111826,-2.00774,0.653889,-0.153377,-0.0344492,0.570031,0.0398079,0.607135,-0.634446,1.43215,0.281785,0.000824913,0,0,0,0,0,0,0,-2.91241,-34.7722,-1.41142,26.106,2.62085,1.70006,-0.123489,
0.326702,0.08581,0.118947,-2.01383,0.67265,-0.150324,-0.0345729,0.378101,0.0160034,0.35761,-0.321931,1.0992,0.166006,-0.00674733,8.60426,4.42596,8.03799,-3.63913,3.2376,7.98733,-0.0650863,17.1604,-5.61629,15.8727,-22.6518,9.10155,6.41463,-0.0669965,0.319168,0.0849074,0.111826,-2.00774,0.653889,-0.153377,-0.0344492,0.570031,0.0398079,0.607135,-0.634446,1.43215,0.281785,0.000824913,0,0,0,0,0,0,0,-2.91241,-34.7722,-1.41142,26.106,2.62085,1.70006,-0.123489,
0.329696,0.0859447,0.121772,-2.01633,0.681071,-0.147805,-0.0346132,0.377323,0.0161694,0.356699,-0.320108,1.08989,0.195771,-0.0064059,-0.485834,0.103775,-0.569774,1.1398,-5.82094,18.603,0.213392,16.6954,-5.56883,15.4326,-22.3039,9.10155,7.46571,-0.0497712,0.319168,0.0849074,0.111826,-2.00774,0.653889,-0.153377,-0.0344492,0.570031,0.0398079,0.607135,-0.634446,1.43215,0.281785,0.000824913,0,0,0,0,0,0,0,-2.91241,-34.7722,-1.41142,26.106,2.62085,1.70006,-0.123489,
0.332321,0.0859078,0.124245,-2.01867,0.689108,-0.144454,-0.0346365,0.367482,0.0120128,0.347186,-0.314424,1.07284,0.240401,-0.00570757,-6.15061,-2.5979,-5.9458,3.55241,-10.6596,27.8936,0.436454,16.1792,-5.85318,14.8832,-21.8755,8.96732,8.30061,-0.0332318,0.339541,0.0851548,0.131845,-2.02842,0.702317,-0.137536,-0.0344525,0.86776,0.0136941,0.286972,-0.554641,1.35592,0.591884,0.000172699,37.2162,-3.26423,-40.0203,9.97562,-9.52892,38.7624,-0.0815268,-2.68231,-37.7397,-1.63756,25.0348,2.39563,0.971304,-0.083206,
0.334654,0.08575,0.12644,-2.02087,0.696861,-0.140324,-0.0346442,0.352327,0.00566629,0.33262,-0.306565,1.05209,0.295562,-0.00475927,-9.47214,-3.96658,-9.10367,4.91158,-12.9673,34.476,0.592689,15.8022,-5.70458,14.531,-21.5413,8.96732,8.90915,-0.0175008,0.339541,0.0851548,0.131845,-2.02842,0.702317,-0.137536,-0.0344525,0.86776,0.0136941,0.286972,-0.554641,1.35592,0.591884,0.000172699,0,0,0,0,0,0,0,-2.68231,-37.7397,-1.63756,25.0348,2.39563,0.971304,-0.083206,
0.34696,0.0856206,0.138777,-2.03394,0.720167,-0.130557,-0.0345472,0.366441,0.00834953,0.345708,-0.308452,1.05604,0.323306,-0.00493163,8.82108,1.67702,8.18044,-1.17903,2.4697,17.3399,-0.107728,16.5964,-5.9501,15.2756,-22.2111,8.96732,7.47661,-0.0494685,0.339541,0.0851548,0.131845,-2.02842,0.702317,-0.137536,-0.0344525,0.86776,0.0136941,0.286972,-0.554641,1.35592,0.591884,0.000172699,0,0,0,0,0,0,0,-2.68231,-37.7397,-1.63756,25.0348,2.39563,0.971304,-0.083206,
0.349865,0.0855952,0.14151,-2.03626,0.728297,-0.12668,-0.0345751,0.365761,0.00604289,0.344876,-0.304752,1.04808,0.355563,-0.00464322,-0.424675,-1.44165,-0.520004,2.31226,-4.97602,20.1607,0.180259,16.1792,-5.85318,14.8832,-21.8755,8.96732,8.30061,-0.0332318,0.339541,0.0851548,0.131845,-2.02842,0.702317,-0.137536,-0.0344525,0.86776,0.0136941,0.286972,-0.554641,1.35592,0.591884,0.000172699,0,0,0,0,0,0,0,-2.68231,-37.7397,-1.63756,25.0348,2.39563,0.971304,-0.083206,
0.352401,0.085435,0.143893,-2.03844,0.736108,-0.12227,-0.0345862,0.356023,0.000829,0.335483,-0.298416,1.03374,0.394705,-0.00399123,-6.08612,-3.25868,-5.87071,3.96016,-8.96241,24.4633,0.407491,15.9045,-6.02327,14.5716,-21.5041,8.92277,8.92567,-0.0177951,0.356024,0.0839225,0.155697,-2.04924,0.749862,-0.113785,-0.0344434,0.585688,-0.0962587,0.590448,-0.610715,1.33681,0.827793,0.00258001,-35.259,-13.7441,37.9344,-7.00923,-2.38903,29.4886,0.300914,-3.08697,-33.7486,-3.43474,21.5991,2.3645,0.732351,-0.050247,
0.354653,0.085182,0.146007,-2.04051,0.743542,-0.117326,-0.0345818,0.341114,-0.00566071,0.321241,-0.290339,1.01283,0.439351,-0.00308439,-9.31853,-4.05607,-8.90148,5.04823,-13.0668,27.9039,0.566776,15.5566,-5.83139,14.2477,-21.1691,8.92277,9.37493,-0.00268647,0.356024,0.0839225,0.155697,-2.04924,0.749862,-0.113785,-0.0344434,0.585688,-0.0962587,0.590448,-0.610715,1.33681,0.827793,0.00258001,0,0,0,0,0,0,0,-3.08697,-33.7486,-3.43474,21.5991,2.3645,0.732351,-0.050247,
0.363418,0.0835876,0.162657,-2.05458,0.767255,-0.104942,-0.0345073,0.357291,-0.00860465,0.336426,-0.292053,1.01902,0.457978,-0.00322341,10.1108,-1.83996,9.49046,-1.07147,3.86745,11.6421,-0.0868888,16.2815,-6.17187,14.9238,-21.8383,8.92277,8.31713,-0.0335261,0.356024,0.0839225,0.155697,-2.04924,0.749862,-0.113785,-0.0344434,0.585688,-0.0962587,0.590448,-0.610715,1.33681,0.827793,0.00258001,0,0,0,0,0,0,0,-3.08697,-33.7486,-3.43474,21.5991,2.3645,0.732351,-0.050247,
0.366305,0.0833386,0.165372,-2.05676,0.775209,-0.100455,-0.0345225,0.358002,-0.0131099,0.337015,-0.288202,1.01407,0.478554,-0.0029607,0.444191,-2.81581,0.368151,2.40701,-3.09439,12.8601,0.164194,15.9045,-6.02327,14.5716,-21.5041,8.92277,8.92567,-0.0177951,0.356024,0.0839225,0.155697,-2.04924,0.749862,-0.113785,-0.0344434,0.585688,-0.0962587,0.590448,-0.610715,1.33681,0.827793,0.00258001,0,0,0,0,0,0,0,-3.08697,-33.7486,-3.43474,21.5991,2.3645,0.732351,-0.050247,
0.368818,0.083013,0.167735,-2.05881,0.782747,-0.0955748,-0.0345216,0.349245,-0.018626,0.328682,-0.281838,0.999701,0.504852,-0.00234514,-5.47278,-3.44755,-5.20797,3.9773,-8.97907,16.4359,0.384726,15.5566,-5.83139,14.2477,-21.1691,8.92277,9.37493,-0.00268647,0.356024,0.0839225,0.155697,-2.04924,0.749862,-0.113785,-0.0344434,0.585688,-0.0962587,0.590448,-0.610715,1.33681,0.827793,0.00258001,0,0,0,0,0,0,0,-3.08697,-33.7486,-3.43474,21.5991,2.3645,0.732351,-0.050247,
0.385664,0.0831432,0.17732,-2.07388,0.812661,-0.0715769,-0.0344719,0.355907,-0.0127509,0.334682,-0.284484,0.999825,0.538975,-0.00221687,4.16374,3.67196,3.75004,-1.65379,0.0772523,21.3268,0.080171,15.768,-6.19531,14.4102,-21.7287,8.8259,8.85678,-0.0170402,0.378994,0.0828155,0.17101,-2.06872,0.795969,-0.082911,-0.0344321,0.254714,0.0118723,0.827974,-0.525604,1.25701,1.00536,-0.000736259,-41.3718,13.5164,29.6907,10.6389,-9.97425,22.1962,-0.414534,-1.71826,-35.5696,-0.911547,25.983,3.79364,0.37438,-0.0630644,
0.388293,0.0830625,0.179784,-2.07603,0.820132,-0.0661831,-0.0344703,0.350445,-0.0122199,0.329342,-0.28152,0.98665,0.566024,-0.00173272,-3.41384,0.331857,-3.33771,1.85234,-8.23427,16.9061,0.302597,15.4201,-6.00343,14.0863,-21.3936,8.8259,9.30604,-0.00193154,0.378994,0.0828155,0.17101,-2.06872,0.795969,-0.082911,-0.0344321,0.254714,0.0118723,0.827974,-0.525604,1.25701,1.00536,-0.000736259,0,0,0,0,0,0,0,-1.71826,-35.5696,-0.911547,25.983,3.79364,0.37438,-0.0630644,
0.390595,0.0828562,0.18194,-2.07806,0.827123,-0.0605996,-0.0344538,0.337906,-0.0149338,0.317368,-0.275806,0.964078,0.592406,-0.000973315,-7.83688,-1.69615,-7.48365,3.57163,-14.1073,16.4885,0.474626,15.0907,-5.78168,13.7809,-21.0588,8.28283,9.60412,0.0130947,0.378994,0.0828155,0.17101,-2.06872,0.795969,-0.082911,-0.0344321,0.254714,0.0118723,0.827974,-0.525604,1.25701,1.00536,-0.000736259,0,0,0,0,0,0,0,-1.71826,-35.5696,-0.911547,25.983,3.79364,0.37438,-0.0630644,
0.392645,0.0825654,0.183856,-2.07998,0.833682,-0.0547703,-0.0344251,0.32156,-0.0192151,0.301788,-0.268652,0.935236,0.619658,-6.25115e-05,-10.2163,-2.67583,-9.7376,4.47102,-18.0263,17.0325,0.569252,14.7625,-5.53961,13.4763,-20.7275,7.74419,9.78616,0.0273074,0.378994,0.0828155,0.17101,-2.06872,0.795969,-0.082911,-0.0344321,0.254714,0.0118723,0.827974,-0.525604,1.25701,1.00536,-0.000736259,0,0,0,0,0,0,0,-1.71826,-35.5696,-0.911547,25.983,3.79364,0.37438,-0.0630644,
0.406197,0.0817051,0.194282,-2.09269,0.85687,-0.0335367,-0.0344171,0.334575,-0.0133377,0.313916,-0.273092,0.941865,0.640543,-8.48898e-06,8.13467,3.67337,7.58053,-2.77464,4.14307,13.0532,0.0337641,15.5281,-6.19906,14.1653,-21.411,8.86505,9.2529,-0.00208584,0.399378,0.0814004,0.187944,-2.08754,0.840478,-0.0458763,-0.0344205,0.82817,-0.00364654,0.249432,-0.545581,1.31875,1.09012,0.000128785,71.6821,-1.93985,-72.3177,-2.49712,7.71669,10.5948,0.108131,-3.44403,-36.6924,-2.46276,24.2374,3.16467,0.0823271,-0.0703886,
0.408839,0.0816197,0.196759,-2.0948,0.863986,-0.0278978,-0.0344024,0.333704,-0.0128068,0.313036,-0.271295,0.931381,0.653407,0.000359582,-0.544866,0.331818,-0.550463,1.12292,-6.55283,8.03999,0.230044,15.1988,-5.97731,13.86,-21.0761,8.32199,9.55099,0.0129404,0.399378,0.0814004,0.187944,-2.08754,0.840478,-0.0458763,-0.0344205,0.82817,-0.00364654,0.249432,-0.545581,1.31875,1.09012,0.000128785,0,0,0,0,0,0,0,-3.44403,-36.6924,-2.46276,24.2374,3.16467,0.0823271,-0.0703886,
0.41114,0.0814087,0.198912,-2.09678,0.870597,-0.0221757,-0.0343752,0.324497,-0.0155185,0.304275,-0.266603,0.910378,0.665778,0.000967786,-5.75388,-1.69481,-5.47565,2.93258,-13.127,7.73186,0.380128,14.8705,-5.73524,13.5554,-20.7449,7.78334,9.73302,0.0271531,0.399378,0.0814004,0.187944,-2.08754,0.840478,-0.0458763,-0.0344205,0.82817,-0.00364654,0.249432,-0.545581,1.31875,1.09012,0.000128785,0,0,0,0,0,0,0,-3.44403,-36.6924,-2.46276,24.2374,3.16467,0.0823271,-0.0703886,
0.413182,0.0811134,0.200818,-2.09865,0.876612,-0.0162904,-0.0343364,0.310649,-0.0197993,0.291048,-0.259953,0.878686,0.679754,0.0017432,-8.6552,-2.67552,-8.26678,4.15596,-19.8075,8.73515,0.484633,14.5326,-5.47901,13.2356,-20.4191,7.35318,9.79858,0.0389247,0.399378,0.0814004,0.187944,-2.08754,0.840478,-0.0458763,-0.0344205,0.82817,-0.00364654,0.249432,-0.545581,1.31875,1.09012,0.000128785,0,0,0,0,0,0,0,-3.44403,-36.6924,-2.46276,24.2374,3.16467,0.0823271,-0.0703886,
0.420426,0.0775851,0.215261,-2.11098,0.897846,0.010181,-0.0343658,0.321477,-0.0271864,0.301333,-0.259178,0.886316,0.703211,0.00177507,6.76748,-4.61695,6.42803,0.484847,4.76908,14.6607,0.0199172,15.3934,-6.31391,14.0238,-21.2337,8.32702,9.46552,0.0140929,0.414012,0.0786215,0.209257,-2.10634,0.882291,-0.0035887,-0.0344023,0.596913,-0.17323,0.427613,-0.57329,1.28716,1.28858,0.00182537,-28.9071,-21.198,22.2726,-3.46373,-3.94816,24.8068,0.212073,-2.27765,-30.9279,-2.28819,18.7823,3.48236,-0.891794,0.0239107,
0.422921,0.0771247,0.217603,-2.11286,0.904623,0.0162411,-0.0343418,0.319564,-0.0332596,0.299601,-0.254148,0.878475,0.714071,0.00202081,-1.19583,-3.79574,-1.0826,3.14361,-4.90055,6.78757,0.15359,15.0651,-6.07184,13.7191,-20.9024,7.78837,9.64755,0.0283056,0.414012,0.0786215,0.209257,-2.10634,0.882291,-0.0035887,-0.0344023,0.596913,-0.17323,0.427613,-0.57329,1.28716,1.28858,0.00182537,0,0,0,0,0,0,0,-2.27765,-30.9279,-2.28819,18.7823,3.48236,-0.891794,0.0239107,
0.425101,0.0766438,0.219642,-2.11463,0.910785,0.0222583,-0.0343057,0.310145,-0.0386299,0.290676,-0.24759,0.856824,0.721687,0.00251896,-5.88674,-3.35641,-5.57802,4.0987,-13.5321,4.75979,0.311341,14.7272,-5.81561,13.3993,-20.5766,7.35821,9.71311,0.0400772,0.414012,0.0786215,0.209257,-2.10634,0.882291,-0.0035887,-0.0344023,0.596913,-0.17323,0.427613,-0.57329,1.28716,1.28858,0.00182537,0,0,0,0,0,0,0,-2.27765,-30.9279,-2.28819,18.7823,3.48236,-0.891794,0.0239107,
0.427038,0.07615,0.22145,-2.11632,0.916312,0.0283379,-0.034258,0.296535,-0.04325,0.277723,-0.240483,0.823626,0.72934,0.00320584,-8.50619,-2.8876,-8.0956,4.44213,-20.7484,4.78278,0.429301,14.4161,-5.54106,13.0512,-20.2464,6.34474,9.71379,0.0508136,0.414012,0.0786215,0.209257,-2.10634,0.882291,-0.0035887,-0.0344023,0.596913,-0.17323,0.427613,-0.57329,1.28716,1.28858,0.00182537,0,0,0,0,0,0,0,-2.27765,-30.9279,-2.28819,18.7823,3.48236,-0.891794,0.0239107,
0.439914,0.0761045,0.230268,-2.12914,0.937925,0.056744,-0.0343065,0.308791,-0.0398049,0.289231,-0.244577,0.831867,0.753389,0.00327193,7.65992,2.15323,7.19281,-2.55892,5.1502,15.031,0.0413094,14.9766,-6.13737,13.629,-21.0034,7.86612,9.59967,0.0282131,0.433629,0.0765211,0.224322,-2.12445,0.923101,0.0418754,-0.0343651,0.220602,-0.0910436,0.825705,-0.559405,1.252,1.44133,0.00177236,-47.0389,10.2733,49.7615,1.73567,-4.39533,19.0946,-0.00662566,-0.424923,-34.1731,0.611891,23.7891,4.11132,-1.07124,-0.050247,
0.44235,0.0758142,0.232546,-2.13103,0.944078,0.0630365,-0.0342695,0.30793,-0.0391001,0.288335,-0.242868,0.819337,0.760024,0.00354219,-0.537859,0.440484,-0.560194,1.06807,-7.83083,4.14683,0.168912,14.6387,-5.88115,13.3093,-20.6776,7.43596,9.66523,0.0399847,0.433629,0.0765211,0.224322,-2.12445,0.923101,0.0418754,-0.0343651,0.220602,-0.0910436,0.825705,-0.559405,1.252,1.44133,0.00177236,0,0,0,0,0,0,0,-0.424923,-34.1731,0.611891,23.7891,4.11132,-1.07124,-0.050247,
0.444468,0.0754538,0.234523,-2.13281,0.949543,0.0691585,-0.0342213,0.29931,-0.0402908,0.280089,-0.238767,0.792081,0.761067,0.00403881,-5.38763,-0.744175,-5.15389,2.56299,-17.0352,0.652186,0.310384,14.3276,-5.6066,12.9611,-20.3474,6.42249,9.66592,0.0507211,0.433629,0.0765211,0.224322,-2.12445,0.923101,0.0418754,-0.0343651,0.220602,-0.0910436,0.825705,-0.559405,1.252,1.44133,0.00177236,0,0,0,0,0,0,0,-0.424923,-34.1731,0.611891,23.7891,4.11132,-1.07124,-0.050247,
0.446344,0.0750481,0.236268,-2.13451,0.954386,0.0752544,-0.0341625,0.286343,-0.0423741,0.267717,-0.233618,0.754743,0.761252,0.00470128,-8.10438,-1.3021,-7.7326,3.21837,-23.3362,0.115244,0.414044,13.9916,-5.32646,12.6219,-20.0195,5.55286,9.59108,0.0615449,0.433629,0.0765211,0.224322,-2.12445,0.923101,0.0418754,-0.0343651,0.220602,-0.0910436,0.825705,-0.559405,1.252,1.44133,0.00177236,0,0,0,0,0,0,0,-0.424923,-34.1731,0.611891,23.7891,4.11132,-1.07124,-0.050247,
0.4399,0.076125,0.230256,-2.12906,0.937441,0.0567162,-0.0342871,0.300432,-0.0388407,0.281006,-0.237723,0.767789,0.778366,0.00470926,8.80557,2.20841,8.30573,-2.5657,8.15374,10.6964,0.00499075,14.6794,-6.02891,13.3412,-20.8529,7.50373,9.56025,0.04084,0.451965,0.0746975,0.239803,-2.14142,0.961611,0.0902398,-0.0343109,0.588017,-0.0349957,0.383772,-0.523849,1.25616,1.4388,-0.00145693,45.9269,7.00599,-55.2416,4.4445,0.520278,-0.31617,-0.403662,-5.11822,-35.1689,-3.51012,24.162,3.31115,-0.368112,0.050461,
0.442322,0.0758432,0.23252,-2.13089,0.94313,0.0629677,-0.0342413,0.300886,-0.0381189,0.281413,-0.236066,0.756455,0.778981,0.00491226,0.283707,0.451145,0.254511,1.03523,-7.08387,0.384262,0.126873,14.3683,-5.75436,12.9931,-20.5227,6.49026,9.56093,0.0515764,0.451965,0.0746975,0.239803,-2.14142,0.961611,0.0902398,-0.0343109,0.588017,-0.0349957,0.383772,-0.523849,1.25616,1.4388,-0.00145693,0,0,0,0,0,0,0,-5.11822,-35.1689,-3.51012,24.162,3.31115,-0.368112,0.050461,
0.44442,0.0754908,0.234478,-2.13263,0.948108,0.0690272,-0.0341849,0.293166,-0.0393042,0.274079,-0.232259,0.729627,0.774671,0.00533869,-4.82482,-0.740824,-4.58349,2.37954,-16.7674,-2.69356,0.266518,14.0324,-5.47423,12.6539,-20.1949,5.62064,9.48609,0.0624002,0.451965,0.0746975,0.239803,-2.14142,0.961611,0.0902398,-0.0343109,0.588017,-0.0349957,0.383772,-0.523849,1.25616,1.4388,-0.00145693,0,0,0,0,0,0,0,-5.11822,-35.1689,-3.51012,24.162,3.31115,-0.368112,0.050461,
0.446269,0.075097,0.236198,-2.1343,0.952514,0.0750193,-0.0341272,0.280757,-0.0412879,0.262252,-0.227598,0.693842,0.76954,0.00571566,-7.75572,-1.23985,-7.39198,2.9135,-22.3656,-3.2067,0.23561,13.6513,-5.203,12.2931,-19.8872,4.92664,9.36345,0.0729767,0.451965,0.0746975,0.239803,-2.14142,0.961611,0.0902398,-0.0343109,0.588017,-0.0349957,0.383772,-0.523849,1.25616,1.4388,-0.00145693,0,0,0,0,0,0,0,-5.11822,-35.1689,-3.51012,24.162,3.31115,-0.368112,0.050461,
0.4579,0.0747131,0.245327,-2.14595,0.974908,0.105477,-0.0341969,0.29161,-0.0340333,0.272351,-0.232512,0.704119,0.78894,0.00590301,6.78289,4.53417,6.31201,-3.07163,6.4228,12.1248,0.117094,14.31,-5.8821,12.9301,-20.7704,6.50585,9.48564,0.0544455,0.468503,0.0722536,0.25541,-2.15767,0.995744,0.139145,-0.0341847,0.668568,-0.0733676,0.244176,-0.467149,1.04976,1.39109,0.000518533,10.0689,-4.79649,-17.4496,7.08752,-25.8001,-5.96422,0.246933,-2.30145,-33.5225,-1.21306,22.6941,2.40753,-0.812143,-0.00996382,
0.460172,0.0745386,0.247445,-2.14778,0.979965,0.111808,-0.0341378,0.290086,-0.0315895,0.270838,-0.231842,0.689711,0.789449,0.00619958,-0.95259,1.52735,-0.946062,0.418885,-9.00487,0.318119,0.185351,13.9741,-5.60196,12.5909,-20.4425,5.63622,9.4108,0.0652693,0.468503,0.0722536,0.25541,-2.15767,0.995744,0.139145,-0.0341847,0.668568,-0.0733676,0.244176,-0.467149,1.04976,1.39109,0.000518533,0,0,0,0,0,0,0,-2.30145,-33.5225,-1.21306,22.6941,2.40753,-0.812143,-0.00996382,
0.46214,0.0742672,0.249275,-2.14952,0.984369,0.117867,-0.0340785,0.281282,-0.0320558,0.262424,-0.22897,0.661867,0.783016,0.0064432,-5.5025,-0.291438,-5.25876,1.79472,-17.4025,-4.02048,0.152266,13.593,-5.33073,12.2301,-20.1348,4.94222,9.28816,0.0758459,0.468503,0.0722536,0.25541,-2.15767,0.995744,0.139145,-0.0341847,0.668568,-0.0733676,0.244176,-0.467149,1.04976,1.39109,0.000518533,0,0,0,0,0,0,0,-2.30145,-33.5225,-1.21306,22.6941,2.40753,-0.812143,-0.00996382,
0.463879,0.0739374,0.250885,-2.15116,0.987926,0.123779,-0.0340173,0.268488,-0.0338916,0.250177,-0.224053,0.618421,0.774219,0.00668302,-7.99588,-1.14736,-7.65416,3.07358,-27.1539,-5.49808,0.149884,13.1397,-5.03218,11.8002,-19.8263,4.48729,9.06786,0.0749855,0.468503,0.0722536,0.25541,-2.15767,0.995744,0.139145,-0.0341847,0.668568,-0.0733676,0.244176,-0.467149,1.04976,1.39109,0.000518533,0,0,0,0,0,0,0,-2.30145,-33.5225,-1.21306,22.6941,2.40753,-0.812143,-0.00996382,
0.474106,0.0718269,0.2606,-2.16189,1.00677,0.154174,-0.0340514,0.27793,-0.0327358,0.259041,-0.226795,0.618921,0.790614,0.00690069,5.90108,0.722365,5.54001,-1.71416,0.312741,10.2467,0.136049,13.9741,-5.60196,12.5909,-20.4425,5.63622,9.4108,0.0652693,0.468503,0.0722536,0.25541,-2.15767,0.995744,0.139145,-0.0341847,0.668568,-0.0733676,0.244176,-0.467149,1.04976,1.39109,0.000518533,0,0,0,0,0,0,0,-2.30145,-33.5225,-1.21306,22.6941,2.40753,-0.812143,-0.00996382,
0.476248,0.0715304,0.262595,-2.16365,1.01107,0.160405,-0.0339925,0.275896,-0.0336005,0.257105,-0.225413,0.602802,0.788257,0.00699181,-1.27152,-0.540418,-1.2102,0.863682,-10.0743,-1.47309,0.056946,13.6104,-5.4988,12.2513,-20.3086,5.01018,9.20828,0.0777201,0.48282,0.0694046,0.271575,-2.17367,1.02461,0.185179,-0.0340848,0.627038,-0.111505,0.24068,-0.489071,0.888517,1.36022,-0.000813237,-5.19133,-4.76719,-0.436918,-2.74024,-20.1552,-3.85829,-0.166471,-1.84521,-32.0268,-1.0385,23.6661,2.98797,-1.09138,0.0440523,
0.478108,0.0711814,0.264321,-2.16529,1.01455,0.166318,-0.0339315,0.267217,-0.0356054,0.24883,-0.221472,0.56919,0.778434,0.00711838,-5.42407,-1.2531,-5.17153,2.46341,-21.0079,-6.13942,0.0791053,13.1571,-5.20025,11.8215,-20.0002,4.55524,8.98798,0.0768598,0.48282,0.0694046,0.271575,-2.17367,1.02461,0.185179,-0.0340848,0.627038,-0.111505,0.24068,-0.489071,0.888517,1.36022,-0.000813237,0,0,0,0,0,0,0,-1.84521,-32.0268,-1.0385,23.6661,2.98797,-1.09138,0.0440523,
0.479754,0.0707995,0.265842,-2.16685,1.01716,0.172061,-0.0338715,0.25492,-0.0380334,0.237105,-0.216086,0.520604,0.766328,0.00719435,-7.68583,-1.51747,-7.32845,3.36597,-30.3659,-7.56645,0.0474839,12.7948,-4.85421,11.4181,-19.6439,2.97779,8.7377,0.0741778,0.48282,0.0694046,0.271575,-2.17367,1.02461,0.185179,-0.0340848,0.627038,-0.111505,0.24068,-0.489071,0.888517,1.36022,-0.000813237,0,0,0,0,0,0,0,-1.84521,-32.0268,-1.0385,23.6661,2.98797,-1.09138,0.0440523,
0.488145,0.0687514,0.276504,-2.17794,1.03355,0.199684,-0.0339336,0.263967,-0.0379315,0.245623,-0.22076,0.517673,0.777869,0.00736563,5.65473,0.0637006,5.32382,-2.92104,-1.83183,7.21307,0.107052,13.6104,-5.4988,12.2513,-20.3086,5.01018,9.20828,0.0777201,0.48282,0.0694046,0.271575,-2.17367,1.02461,0.185179,-0.0340848,0.627038,-0.111505,0.24068,-0.489071,0.888517,1.36022,-0.000813237,0,0,0,0,0,0,0,-1.84521,-32.0268,-1.0385,23.6661,2.98797,-1.09138,0.0440523,
0.490185,0.0684198,0.278401,-2.17966,1.03679,0.205649,-0.0338718,0.262186,-0.038635,0.243917,-0.219647,0.495023,0.771431,0.00743921,-1.11336,-0.439675,-1.06633,0.69564,-14.1563,-4.02364,0.0459847,13.0148,-5.26866,11.6939,-20.1547,4.63979,8.93638,0.0782359,0.497987,0.0666431,0.285943,-2.18882,1.04995,0.231825,-0.0339214,0.259335,-0.0356235,0.617765,-0.452981,0.71084,1.38194,0.000271747,-45.9628,9.48519,47.1356,4.51122,-22.2097,2.71529,0.135623,1.67774,-32.2014,2.06392,25.011,2.84698,-1.3166,-0.0026396,
0.49196,0.0680536,0.280046,-2.18127,1.03921,0.211305,-0.0338115,0.254123,-0.0400635,0.236255,-0.215914,0.456494,0.758539,0.00745822,-5.03915,-0.89282,-4.78833,2.33309,-24.0806,-8.0576,0.0118806,12.6526,-4.92262,11.2905,-19.7985,3.06235,8.6861,0.0755539,0.497987,0.0666431,0.285943,-2.18882,1.04995,0.231825,-0.0339214,0.259335,-0.0356235,0.617765,-0.452981,0.71084,1.38194,0.000271747,0,0,0,0,0,0,0,1.67774,-32.2014,2.06392,25.011,2.84698,-1.3166,-0.0026396,
0.503151,0.0664887,0.29078,-2.19312,1.0569,0.246111,-0.0337752,0.261661,-0.0346928,0.243243,-0.221181,0.439359,0.767771,0.00765247,4.71101,3.35664,4.36729,-3.2916,-10.7093,5.77004,0.121405,13.0148,-5.26866,11.6939,-20.1547,4.63979,8.93638,0.0782359,0.497987,0.0666431,0.285943,-2.18882,1.04995,0.231825,-0.0339214,0.259335,-0.0356235,0.617765,-0.452981,0.71084,1.38194,0.000271747,0,0,0,0,0,0,0,1.67774,-32.2014,2.06392,25.011,2.84698,-1.3166,-0.0026396,
0.505126,0.066292,0.292611,-2.19487,1.05904,0.251868,-0.033713,0.258708,-0.0326706,0.24038,-0.220678,0.404884,0.758137,0.00767839,-1.84548,1.2639,-1.78937,0.31445,-21.5475,-6.02109,0.0162009,12.6526,-4.92262,11.2905,-19.7985,3.06235,8.6861,0.0755539,0.497987,0.0666431,0.285943,-2.18882,1.04995,0.231825,-0.0339214,0.259335,-0.0356235,0.617765,-0.452981,0.71084,1.38194,0.000271747,0,0,0,0,0,0,0,1.67774,-32.2014,2.06392,25.011,2.84698,-1.3166,-0.0026396,
0.506843,0.0660253,0.294198,-2.1965,1.06041,0.25729,-0.033652,0.249881,-0.0328044,0.231983,-0.217421,0.358212,0.742046,0.00766679,-5.51676,-0.0836102,-5.24818,2.03508,-29.1695,-10.0566,-0.0072483,12.3519,-4.70001,10.9996,-19.6086,1.8485,8.30676,0.0729327,0.51474,0.0644192,0.297407,-2.20409,1.07003,0.276635,-0.0338374,0.220332,-0.0533695,0.58473,-0.459627,0.523032,1.33932,0.00107996,-4.87537,-2.21825,-4.12942,-0.83076,-23.4759,-5.32833,0.101026,0.868412,-33.0742,1.61165,22.4442,2.01019,-1.19026,-0.0301054,
0.508369,0.065713,0.295605,-2.19806,1.06107,0.262541,-0.0335914,0.238059,-0.0340514,0.220751,-0.21277,0.303096,0.724919,0.00765016,-7.38873,-0.779374,-7.01968,2.90688,-34.4476,-10.7043,-0.010396,12.1477,-4.4132,10.807,-19.2229,0.748647,8.01294,0.0702563,0.51474,0.0644192,0.297407,-2.20409,1.07003,0.276635,-0.0338374,0.220332,-0.0533695,0.58473,-0.459627,0.523032,1.33932,0.00107996,0,0,0,0,0,0,0,0.868412,-33.0742,1.61165,22.4442,2.01019,-1.19026,-0.0301054,
0.519493,0.0641762,0.301846,-2.20838,1.07418,0.290456,-0.0336869,0.244277,-0.0304695,0.226473,-0.218461,0.283616,0.735711,0.00778687,3.88638,2.23865,3.57567,-3.55629,-12.175,6.74462,0.0854486,12.6502,-5.03495,11.2991,-19.9872,3.13462,8.59775,0.077343,0.51474,0.0644192,0.297407,-2.20409,1.07003,0.276635,-0.0338374,0.220332,-0.0533695,0.58473,-0.459627,0.523032,1.33932,0.00107996,0,0,0,0,0,0,0,0.868412,-33.0742,1.61165,22.4442,2.01019,-1.19026,-0.0301054,
0.521326,0.0639795,0.303541,-2.21012,1.07517,0.296035,-0.0336254,0.241245,-0.0292931,0.223546,-0.218312,0.251475,0.728052,0.00776528,-1.89512,0.73526,-1.82908,0.0925567,-20.0884,-4.78659,-0.0134987,12.3519,-4.70001,10.9996,-19.6086,1.8485,8.30676,0.0729327,0.51474,0.0644192,0.297407,-2.20409,1.07003,0.276635,-0.0338374,0.220332,-0.0533695,0.58473,-0.459627,0.523032,1.33932,0.00107996,0,0,0,0,0,0,0,0.868412,-33.0742,1.61165,22.4442,2.01019,-1.19026,-0.0301054,
0.522931,0.0637251,0.305021,-2.21175,1.07555,0.301291,-0.0335648,0.233123,-0.0297936,0.215843,-0.215422,0.21064,0.713838,0.00772908,-5.07652,-0.312774,-4.81449,1.8068,-25.5215,-8.88398,-0.0226218,12.2436,-4.46925,10.9143,-19.4633,0.78291,7.9052,0.0728329,0.53012,0.0616183,0.308682,-2.21961,1.08365,0.321186,-0.0337501,0.581907,-0.134628,0.194355,-0.484598,0.147462,1.18674,1.32703e-05,45.1968,-10.1574,-48.7969,-3.12139,-46.9464,-19.0717,-0.133336,-1.51593,-32.2014,-0.0625476,24.761,1.84539,-0.852426,0.0641939,
0.52437,0.0634307,0.306344,-2.2133,1.07535,0.30638,-0.033503,0.222475,-0.0311962,0.205755,-0.211139,0.163727,0.698293,0.00772654,-6.65519,-0.876667,-6.30499,2.67681,-29.3209,-9.71585,-0.00158811,12.1185,-4.2472,10.8074,-19.0826,-0.152588,7.61277,0.0714175,0.53012,0.0616183,0.308682,-2.21961,1.08365,0.321186,-0.0337501,0.581907,-0.134628,0.194355,-0.484598,0.147462,1.18674,1.32703e-05,0,0,0,0,0,0,0,-1.51593,-32.2014,-0.0625476,24.761,1.84539,-0.852426,0.0641939,
0.53488,0.0608812,0.313065,-2.22404,1.08359,0.333567,-0.0336115,0.231714,-0.0324142,0.21445,-0.218453,0.126783,0.698209,0.00765501,5.77442,-0.761223,5.43457,-4.57141,-23.0902,-0.0519819,-0.0447036,12.4478,-4.75606,11.1068,-19.849,1.88277,8.19903,0.0755093,0.53012,0.0616183,0.308682,-2.21961,1.08365,0.321186,-0.0337501,0.581907,-0.134628,0.194355,-0.484598,0.147462,1.18674,1.32703e-05,0,0,0,0,0,0,0,-1.51593,-32.2014,-0.0625476,24.761,1.84539,-0.852426,0.0641939,
0.536719,0.0605995,0.314769,-2.22582,1.08319,0.3386,-0.0335557,0.231349,-0.0329719,0.214169,-0.219197,0.0913008,0.684377,0.00752027,-0.227937,-0.348579,-0.175728,-0.464888,-22.1761,-8.64508,-0.0842181,12.2436,-4.46925,10.9143,-19.4633,0.78291,7.9052,0.0728329,0.53012,0.0616183,0.308682,-2.21961,1.08365,0.321186,-0.0337501,0.581907,-0.134628,0.194355,-0.484598,0.147462,1.18674,1.32703e-05,0,0,0,0,0,0,0,-1.51593,-32.2014,-0.0625476,24.761,1.84539,-0.852426,0.0641939,
0.538336,0.0603059,0.316264,-2.22748,1.08248,0.343381,-0.0334976,0.225499,-0.0337181,0.208712,-0.216834,0.0553841,0.667037,0.00746889,-3.65607,-0.466388,-3.41074,1.47689,-22.4479,-10.8374,-0.0321125,12.0012,-4.41521,10.7051,-19.2275,-0.0628739,7.5242,0.0722594,0.540099,0.0591593,0.324386,-2.23459,1.09074,0.36431,-0.0336696,0.59589,-0.0459032,0.123986,-0.40789,0.0319724,1.18457,0.00096347,1.7479,11.0906,-8.79603,9.58851,-14.4362,-0.271689,0.118775,-2.73388,-30.7533,-2.21282,23.0908,1.94336,-0.846018,0.0980684,
0.539789,0.0599962,0.317604,-2.22906,1.08144,0.348047,-0.0334369,0.21673,-0.0347176,0.200477,-0.212875,0.0181161,0.650273,0.00749125,-5.48091,-0.624643,-5.14655,2.4739,-23.2925,-10.4775,0.0139805,11.9375,-4.25976,10.6602,-18.8558,-0.863579,7.24533,0.0727593,0.540099,0.0591593,0.324386,-2.23459,1.09074,0.36431,-0.0336696,0.59589,-0.0459032,0.123986,-0.40789,0.0319724,1.18457,0.00096347,0,0,0,0,0,0,0,-2.73388,-30.7533,-2.21282,23.0908,1.94336,-0.846018,0.0980684,
0.544484,0.0589393,0.328397,-2.23884,1.08937,0.376908,-0.0335413,0.222739,-0.030617,0.20597,-0.219062,-0.00565105,0.66197,0.00743973,3.75606,2.56283,3.43323,-3.86684,-14.8545,7.31021,-0.0321999,12.1263,-4.63726,10.8119,-19.6082,0.872624,7.81664,0.0736748,0.540099,0.0591593,0.324386,-2.23459,1.09074,0.36431,-0.0336696,0.59589,-0.0459032,0.123986,-0.40789,0.0319724,1.18457,0.00096347,0,0,0,0,0,0,0,-2.73388,-30.7533,-2.21282,23.0908,1.94336,-0.846018,0.0980684,
0.546177,0.0587727,0.329959,-2.24062,1.08835,0.381968,-0.0334834,0.220533,-0.0286582,0.203844,-0.219639,-0.0299841,0.656084,0.00739934,-1.37923,1.22426,-1.32915,-0.360198,-15.2081,-3.67849,-0.0252463,12.0012,-4.41521,10.7051,-19.2275,-0.0628739,7.5242,0.0722594,0.540099,0.0591593,0.324386,-2.23459,1.09074,0.36431,-0.0336696,0.59589,-0.0459032,0.123986,-0.40789,0.0319724,1.18457,0.00096347,0,0,0,0,0,0,0,-2.73388,-30.7533,-2.21282,23.0908,1.94336,-0.846018,0.0980684,
0.547676,0.0585555,0.331339,-2.24228,1.08708,0.386727,-0.0334229,0.21388,-0.0283564,0.197565,-0.217312,-0.0557178,0.643832,0.00743043,-4.15786,0.188641,-3.92452,1.45449,-16.0836,-7.65758,0.0194313,11.8926,-4.40372,10.6255,-18.9002,-0.746109,7.15051,0.073306,0.55238,0.0575549,0.336505,-2.24929,1.09296,0.405127,-0.0336321,0.0555429,-0.0096838,0.647179,-0.413121,-0.0432964,1.17211,0.000487666,-67.5434,4.52743,65.3991,-0.653895,-9.4086,-1.55709,-0.0594755,-0.452694,-34.2723,-0.213304,23.5907,2.30957,-0.779184,0.124619,
0.549033,0.0582979,0.332586,-2.24386,1.08554,0.391331,-0.0333595,0.205048,-0.0291234,0.189237,-0.213397,-0.0831697,0.630162,0.00753047,-5.52001,-0.479373,-5.20473,2.4467,-17.1574,-8.54379,0.0625273,11.8662,-4.30974,10.6199,-18.5405,-1.40851,6.88038,0.074378,0.55238,0.0575549,0.336505,-2.24929,1.09296,0.405127,-0.0336321,0.0555429,-0.0096838,0.647179,-0.413121,-0.0432964,1.17211,0.000487666,0,0,0,0,0,0,0,-0.452694,-34.2723,-0.213304,23.5907,2.30957,-0.779184,0.124619,
0.556493,0.0575872,0.340357,-2.25359,1.09047,0.417048,-0.0335018,0.210948,-0.0236474,0.19468,-0.219996,-0.100954,0.638091,0.00754831,3.68765,3.42249,3.40162,-4.12456,-11.1154,4.95575,0.0111497,11.9563,-4.55917,10.6704,-19.2719,0.0545962,7.42938,0.0728061,0.55238,0.0575549,0.336505,-2.24929,1.09296,0.405127,-0.0336321,0.0555429,-0.0096838,0.647179,-0.413121,-0.0432964,1.17211,0.000487666,0,0,0,0,0,0,0,-0.452694,-34.2723,-0.213304,23.5907,2.30957,-0.779184,0.124619,
0.558112,0.057489,0.341848,-2.25538,1.08891,0.421833,-0.0334414,0.209238,-0.0213724,0.193038,-0.22083,-0.119605,0.630107,0.00754754,-1.06874,1.42188,-1.02603,-0.521096,-11.6568,-4.9901,-0.000485805,11.8926,-4.40372,10.6255,-18.9002,-0.746109,7.15051,0.073306,0.55238,0.0575549,0.336505,-2.24929,1.09296,0.405127,-0.0336321,0.0555429,-0.0096838,0.647179,-0.413121,-0.0432964,1.17211,0.000487666,0,0,0,0,0,0,0,-0.452694,-34.2723,-0.213304,23.5907,2.30957,-0.779184,0.124619,
0.559554,0.0573196,0.343174,-2.25706,1.08717,0.42634,-0.0333784,0.203436,-0.0213341,0.187576,-0.218611,-0.139296,0.616762,0.0076138,-3.62673,0.023959,-3.4138,1.38668,-12.3067,-8.34075,0.0414142,12.009,-4.52444,10.7957,-18.5761,-1.31371,6.7315,0.0750157,0.569006,0.0545643,0.343343,-2.26429,1.09101,0.443705,-0.0335868,0.419765,-0.148987,0.239381,-0.451227,-0.113352,1.09428,0.00227815,45.5278,-17.4129,-50.9748,-4.76322,-8.75696,-9.72871,0.22381,0.336795,-30.1781,1.91316,18.9331,1.88202,-0.706858,0.104477,
0.560869,0.0570952,0.344381,-2.25865,1.08523,0.430706,-0.0333129,0.195628,-0.0226767,0.180234,-0.214704,-0.160027,0.602551,0.00772696,-4.87988,-0.839141,-4.589,2.44215,-12.957,-8.88182,0.0707282,12.0062,-4.48304,10.8126,-18.2275,-1.86191,6.47773,0.0771931,0.569006,0.0545643,0.343343,-2.26429,1.09101,0.443705,-0.0335868,0.419765,-0.148987,0.239381,-0.451227,-0.113352,1.09428,0.00227815,0,0,0,0,0,0,0,0.336795,-30.1781,1.91316,18.9331,1.88202,-0.706858,0.104477,
0.57303,0.0536438,0.347061,-2.26843,1.08718,0.454853,-0.0334498,0.202236,-0.0275053,0.186604,-0.218065,-0.176981,0.60714,0.00763489,4.13006,-3.01785,3.98169,-2.10083,-10.5962,2.86784,-0.057549,12.0355,-4.61842,10.8013,-18.9357,-0.651317,7.00163,0.0739437,0.569006,0.0545643,0.343343,-2.26429,1.09101,0.443705,-0.0335868,0.419765,-0.148987,0.239381,-0.451227,-0.113352,1.09428,0.00227815,0,0,0,0,0,0,0,0.336795,-30.1781,1.91316,18.9331,1.88202,-0.706858,0.104477,
0.57462,0.0533091,0.348534,-2.2701,1.08521,0.459339,-0.0333924,0.201533,-0.0303723,0.186114,-0.216327,-0.190926,0.597882,0.00754224,-0.43944,-1.79189,-0.30618,1.08609,-8.71537,-5.78564,-0.0579035,12.009,-4.52444,10.7957,-18.5761,-1.31371,6.7315,0.0750157,0.569006,0.0545643,0.343343,-2.26429,1.09101,0.443705,-0.0335868,0.419765,-0.148987,0.239381,-0.451227,-0.113352,1.09428,0.00227815,0,0,0,0,0,0,0,0.336795,-30.1781,1.91316,18.9331,1.88202,-0.706858,0.104477,
0.576043,0.0529763,0.34985,-2.27168,1.08317,0.463582,-0.0333315,0.196797,-0.032616,0.181798,-0.212525,-0.203762,0.584362,0.00755653,-2.95997,-1.40233,-2.69753,2.37673,-8.02246,-8.45054,0.00892997,12.0062,-4.48304,10.8126,-18.2275,-1.86191,6.47773,0.0771931,0.569006,0.0545643,0.343343,-2.26429,1.09101,0.443705,-0.0335868,0.419765,-0.148987,0.239381,-0.451227,-0.113352,1.09428,0.00227815,0,0,0,0,0,0,0,0.336795,-30.1781,1.91316,18.9331,1.88202,-0.706858,0.104477,
0.57303,0.0536438,0.347061,-2.26843,1.08718,0.454853,-0.0334498,0.203171,-0.0354567,0.187856,-0.216322,-0.211969,0.592588,0.00749854,3.98393,-1.77544,3.78609,-2.37323,-5.12942,5.14151,-0.0362445,12.0052,-4.72169,10.8118,-18.5863,-1.20511,6.61953,0.0754908,0.57828,0.052121,0.356292,-2.27979,1.08495,0.480906,-0.0335324,0.610307,-0.111936,0.0349443,-0.442187,-0.19057,1.0283,0.00204882,23.8177,4.63144,-25.5546,1.12995,-9.65227,-8.24806,-0.0286664,-1.99597,-29.2299,-1.16149,19.6274,1.91314,-0.322336,0.0907442,
0.583831,0.0512197,0.361391,-2.28572,1.07768,0.495511,-0.0333333,0.201739,-0.0349542,0.18664,-0.215906,-0.229169,0.57812,0.0074716,-0.89512,0.314103,-0.760116,0.259844,-10.7503,-9.0427,-0.0168383,12.0024,-4.68028,10.8287,-18.2378,-1.75331,6.36576,0.0776682,0.57828,0.052121,0.356292,-2.27979,1.08495,0.480906,-0.0335324,0.610307,-0.111936,0.0349443,-0.442187,-0.19057,1.0283,0.00204882,0,0,0,0,0,0,0,-1.99597,-29.2299,-1.16149,19.6274,1.91314,-0.322336,0.0907442,
0.585238,0.0509337,0.362693,-2.28733,1.07531,0.499445,-0.0332706,0.196563,-0.0351134,0.181878,-0.212921,-0.242612,0.56084,0.00754606,-3.23505,-0.099537,-2.97595,1.86561,-8.40147,-10.7999,0.0465373,12.0066,-4.68195,10.8536,-17.9002,-2.18463,6.12301,0.079748,0.57828,0.052121,0.356292,-2.27979,1.08495,0.480906,-0.0335324,0.610307,-0.111936,0.0349443,-0.442187,-0.19057,1.0283,0.00204882,0,0,0,0,0,0,0,-1.99597,-29.2299,-1.16149,19.6274,1.91314,-0.322336,0.0907442,
0.586529,0.0506216,0.363886,-2.28887,1.07291,0.50327,-0.0332045,0.189525,-0.0358935,0.175334,-0.208678,-0.254106,0.544312,0.0076894,-4.39868,-0.487574,-4.09011,2.65171,-7.18427,-10.3302,0.0895922,12.0113,-4.717,10.8774,-17.5714,-2.52289,5.89716,0.0823169,0.57828,0.052121,0.356292,-2.27979,1.08495,0.480906,-0.0335324,0.610307,-0.111936,0.0349443,-0.442187,-0.19057,1.0283,0.00204882,0,0,0,0,0,0,0,-1.99597,-29.2299,-1.16149,19.6274,1.91314,-0.322336,0.0907442,
0.591461,0.050912,0.373106,-2.29916,1.07141,0.525854,-0.0333341,0.194887,-0.025963,0.180297,-0.218261,-0.273035,0.540842,0.00781868,3.351,6.20658,3.10201,-5.98898,-11.8303,-2.16858,0.0807984,11.8733,-4.88972,10.7139,-18.1636,-1.61836,6.27939,0.0779413,0.587681,0.0505768,0.369577,-2.29466,1.07694,0.516389,-0.0334821,0.148936,0.0220762,0.48648,-0.433217,-0.245862,0.97112,0.00246869,-57.6713,16.7515,56.4419,1.12128,-6.91145,-7.14744,0.0524845,-0.655026,-33.225,-0.812364,24.6857,1.54052,1.27617,0.11821,
0.592976,0.0508982,0.374506,-2.30101,1.06869,0.529622,-0.0332689,0.19378,-0.0211158,0.179239,-0.220812,-0.286456,0.526883,0.00788478,-0.691859,3.02949,-0.661771,-1.59477,-8.38793,-8.72445,0.0413107,11.8776,-4.89139,10.7388,-17.826,-2.04968,6.03664,0.0800211,0.587681,0.0505768,0.369577,-2.29466,1.07694,0.516389,-0.0334821,0.148936,0.0220762,0.48648,-0.433217,-0.245862,0.97112,0.00246869,0,0,0,0,0,0,0,-0.655026,-33.225,-0.812364,24.6857,1.54052,1.27617,0.11821,
0.594344,0.0507826,0.375768,-2.30272,1.06603,0.533201,-0.0332018,0.189217,-0.0197825,0.174954,-0.219484,-0.295775,0.510972,0.00798513,-2.85164,0.833351,-2.67779,0.830196,-5.82448,-9.94422,0.0627226,11.8823,-4.92644,10.7626,-17.4973,-2.38794,5.81079,0.08259,0.587681,0.0505768,0.369577,-2.29466,1.07694,0.516389,-0.0334821,0.148936,0.0220762,0.48648,-0.433217,-0.245862,0.97112,0.00246869,0,0,0,0,0,0,0,-0.655026,-33.225,-0.812364,24.6857,1.54052,1.27617,0.11821,
0.595607,0.0505878,0.376933,-2.30433,1.06339,0.536702,-0.0331323,0.182944,-0.0206946,0.169065,-0.215901,-0.302431,0.496308,0.00812412,-3.9208,-0.570103,-3.68082,2.23927,-4.16019,-9.16482,0.0868663,11.8775,-4.98633,10.7774,-17.1765,-2.63259,5.59722,0.084719,0.587681,0.0505768,0.369577,-2.29466,1.07694,0.516389,-0.0334821,0.148936,0.0220762,0.48648,-0.433217,-0.245862,0.97112,0.00246869,0,0,0,0,0,0,0,-0.655026,-33.225,-0.812364,24.6857,1.54052,1.27617,0.11821,
0.591446,0.0509142,0.373093,-2.29909,1.07101,0.525644,-0.0333255,0.189413,-0.0138274,0.175114,-0.223153,-0.317249,0.499428,0.00824112,4.04345,4.29204,3.78063,-4.5326,-9.26144,1.94958,0.0731249,11.8776,-4.89139,10.7388,-17.826,-2.04968,6.03664,0.0800211,0.587681,0.0505768,0.369577,-2.29466,1.07694,0.516389,-0.0334821,0.148936,0.0220762,0.48648,-0.433217,-0.245862,0.97112,0.00246869,0,0,0,0,0,0,0,-0.655026,-33.225,-0.812364,24.6857,1.54052,1.27617,0.11821,
0.592953,0.0508964,0.374487,-2.30091,1.06808,0.52928,-0.033259,0.189212,-0.0115058,0.17494,-0.223987,-0.327002,0.490445,0.0082563,-0.125792,1.45099,-0.108333,-0.521118,-6.09566,-5.6143,0.00948514,11.8823,-4.92644,10.7626,-17.4973,-2.38794,5.81079,0.08259,0.587681,0.0505768,0.369577,-2.29466,1.07694,0.516389,-0.0334821,0.148936,0.0220762,0.48648,-0.433217,-0.245862,0.97112,0.00246869,0,0,0,0,0,0,0,-0.655026,-33.225,-0.812364,24.6857,1.54052,1.27617,0.11821,
0.594314,0.0507756,0.375745,-2.3026,1.06524,0.532723,-0.0331908,0.185406,-0.0122256,0.171392,-0.221413,-0.332551,0.478431,0.00830887,-2.37872,-0.44987,-2.21807,1.60905,-3.46777,-7.50859,0.0328613,11.8775,-4.98633,10.7774,-17.1765,-2.63259,5.59722,0.084719,0.587681,0.0505768,0.369577,-2.29466,1.07694,0.516389,-0.0334821,0.148936,0.0220762,0.48648,-0.433217,-0.245862,0.97112,0.00246869,0,0,0,0,0,0,0,-0.655026,-33.225,-0.812364,24.6857,1.54052,1.27617,0.11821,
0.595572,0.0505753,0.376905,-2.30419,1.06248,0.536088,-0.033121,0.179763,-0.0147884,0.166114,-0.216929,-0.335122,0.466883,0.00839346,-3.52656,-1.60179,-3.29851,2.80213,-1.60682,-7.21782,0.0528677,11.8613,-5.06334,10.7794,-16.8616,-2.80574,5.40031,0.0869964,0.587681,0.0505768,0.369577,-2.29466,1.07694,0.516389,-0.0334821,0.148936,0.0220762,0.48648,-0.433217,-0.245862,0.97112,0.00246869,0,0,0,0,0,0,0,-0.655026,-33.225,-0.812364,24.6857,1.54052,1.27617,0.11821,
0.591431,0.0509149,0.373082,-2.29903,1.07069,0.525449,-0.033318,0.186673,-0.00914091,0.172595,-0.2232,-0.347644,0.473073,0.00851415,4.3187,3.52971,4.05038,-3.91947,-7.82644,3.86931,0.075433,11.8823,-4.92644,10.7626,-17.4973,-2.38794,5.81079,0.08259,0.587681,0.0505768,0.369577,-2.29466,1.07694,0.516389,-0.0334821,0.148936,0.0220762,0.48648,-0.433217,-0.245862,0.97112,0.00246869,0,0,0,0,0,0,0,-0.655026,-33.225,-0.812364,24.6857,1.54052,1.27617,0.11821,
0.592931,0.0508929,0.37447,-2.30082,1.06761,0.528962,-0.03325,0.186839,-0.00786181,0.172777,-0.223354,-0.355165,0.466266,0.00851103,0.10353,0.799442,0.114325,-0.0960752,-4.70027,-4.2547,-0.00195468,11.8775,-4.98633,10.7774,-17.1765,-2.63259,5.59722,0.084719,0.587681,0.0505768,0.369577,-2.29466,1.07694,0.516389,-0.0334821,0.148936,0.0220762,0.48648,-0.433217,-0.245862,0.97112,0.00246869,0,0,0,0,0,0,0,-0.655026,-33.225,-0.812364,24.6857,1.54052,1.27617,0.11821,
0.594286,0.0507667,0.375722,-2.30249,1.06465,0.532277,-0.0331813,0.183348,-0.00944546,0.169533,-0.22034,-0.358072,0.455896,0.00852743,-2.18196,-0.989784,-2.02783,1.88399,-1.81734,-6.48128,0.0102535,11.8613,-5.06334,10.7794,-16.8616,-2.80574,5.40031,0.0869964,0.587681,0.0505768,0.369577,-2.29466,1.07694,0.516389,-0.0334821,0.148936,0.0220762,0.48648,-0.433217,-0.245862,0.97112,0.00246869,0,0,0,0,0,0,0,-0.655026,-33.225,-0.812364,24.6857,1.54052,1.27617,0.11821,
0.595538,0.0505607,0.376878,-2.30406,1.06181,0.535515,-0.0331109,0.177977,-0.012706,0.164516,-0.21557,-0.357624,0.445673,0.00858121,-3.3566,-2.03783,-3.13583,2.98089,0.280313,-6.38935,0.0336109,11.8283,-5.15118,10.7645,-16.5517,-2.90792,5.2163,0.088664,0.587681,0.0505768,0.369577,-2.29466,1.07694,0.516389,-0.0334821,0.148936,0.0220762,0.48648,-0.433217,-0.245862,0.97112,0.00246869,0,0,0,0,0,0,0,-0.655026,-33.225,-0.812364,24.6857,1.54052,1.27617,0.11821,
0.591418,0.0509146,0.373071,-2.29897,1.07046,0.525268,-0.0333117,0.185058,-0.00751987,0.171161,-0.221425,-0.368779,0.453483,0.00872001,4.42541,3.24132,4.15355,-3.65923,-6.97185,4.8812,0.0867477,11.8775,-4.98633,10.7774,-17.1765,-2.63259,5.59722,0.084719,0.587681,0.0505768,0.369577,-2.29466,1.07694,0.516389,-0.0334821,0.148936,0.0220762,0.48648,-0.433217,-0.245862,0.97112,0.00246869,0,0,0,0,0,0,0,-0.655026,-33.225,-0.812364,24.6857,1.54052,1.27617,0.11821,
0.59291,0.0508885,0.374453,-2.30074,1.06727,0.528664,-0.0332428,0.185365,-0.00666989,0.171481,-0.221327,-0.374696,0.447684,0.00869825,0.191942,0.531237,0.199646,0.0613964,-3.69804,-3.62397,-0.0135975,11.8613,-5.06334,10.7794,-16.8616,-2.80574,5.40031,0.0869964,0.587681,0.0505768,0.369577,-2.29466,1.07694,0.516389,-0.0334821,0.148936,0.0220762,0.48648,-0.433217,-0.245862,0.97112,0.00246869,0,0,0,0,0,0,0,-0.655026,-33.225,-0.812364,24.6857,1.54052,1.27617,0.11821,
0.594259,0.050757,0.3757,-2.30239,1.06424,0.53186,-0.0331734,0.182003,-0.00862319,0.168359,-0.218181,-0.375577,0.43804,0.00869357,-2.10124,-1.22082,-1.95137,1.96623,-0.550978,-6.02803,-0.00292629,11.8283,-5.15118,10.7645,-16.5517,-2.90792,5.2163,0.088664,0.587681,0.0505768,0.369577,-2.29466,1.07694,0.516389,-0.0334821,0.148936,0.0220762,0.48648,-0.433217,-0.245862,0.97112,0.00246869,0,0,0,0,0,0,0,-0.655026,-33.225,-0.812364,24.6857,1.54052,1.27617,0.11821,
0.595505,0.0505455,0.37685,-2.30394,1.06135,0.534979,-0.0331029,0.176748,-0.012186,0.16345,-0.213357,-0.372656,0.428407,0.00871688,-3.28467,-2.22673,-3.06798,3.01462,1.82591,-6.02046,0.0145712,11.7791,-5.24451,10.732,-16.245,-2.9584,5.04812,0.0902914,0.587681,0.0505768,0.369577,-2.29466,1.07694,0.516389,-0.0334821,0.148936,0.0220762,0.48648,-0.433217,-0.245862,0.97112,0.00246869,0,0,0,0,0,0,0,-0.655026,-33.225,-0.812364,24.6857,1.54052,1.27617,0.11821,
0.591404,0.0509139,0.37306,-2.29893,1.07029,0.525101,-0.0333066,0.183891,-0.00715022,0.170154,-0.219048,-0.382937,0.437224,0.00886574,4.46457,3.14734,4.19029,-3.55667,-6.42601,5.51099,0.0930356,11.8613,-5.06334,10.7794,-16.8616,-2.80574,5.40031,0.0869964,0.587681,0.0505768,0.369577,-2.29466,1.07694,0.516389,-0.0334821,0.148936,0.0220762,0.48648,-0.433217,-0.245862,0.97112,0.00246869,0,0,0,0,0,0,0,-0.655026,-33.225,-0.812364,24.6857,1.54052,1.27617,0.11821,
0.59289,0.0508838,0.374436,-2.30067,1.06704,0.528388,-0.0332368,0.184248,-0.00647255,0.170519,-0.218866,-0.387659,0.431963,0.00883684,0.223041,0.423543,0.228097,0.113927,-2.95133,-3.28813,-0.0180617,11.8283,-5.15118,10.7645,-16.5517,-2.90792,5.2163,0.088664,0.587681,0.0505768,0.369577,-2.29466,1.07694,0.516389,-0.0334821,0.148936,0.0220762,0.48648,-0.433217,-0.245862,0.97112,0.00246869,0,0,0,0,0,0,0,-0.655026,-33.225,-0.812364,24.6857,1.54052,1.27617,0.11821,
0.594231,0.0507474,0.375677,-2.3023,1.06397,0.531472,-0.0331672,0.180933,-0.00858769,0.16744,-0.215704,-0.386846,0.422664,0.00880965,-2.07189,-1.32196,-1.92439,1.97588,0.5087,-5.81197,-0.0169931,11.7791,-5.24451,10.732,-16.245,-2.9584,5.04812,0.0902914,0.587681,0.0505768,0.369577,-2.29466,1.07694,0.516389,-0.0334821,0.148936,0.0220762,0.48648,-0.433217,-0.245862,0.97112,0.00246869,0,0,0,0,0,0,0,-0.655026,-33.225,-0.812364,24.6857,1.54052,1.27617,0.11821,
0.59547,0.0505308,0.376821,-2.30383,1.06108,0.53448,-0.0330966,0.175722,-0.0122857,0.162572,-0.210896,-0.38186,0.41333,0.0088127,-3.25649,-2.31123,-3.04288,3.00505,3.11606,-5.8342,0.00190506,11.711,-5.33926,10.6804,-15.9409,-2.95806,4.89282,0.0913265,0.587681,0.0505768,0.369577,-2.29466,1.07694,0.516389,-0.0334821,0.148936,0.0220762,0.48648,-0.433217,-0.245862,0.97112,0.00246869,0,0,0,0,0,0,0,-0.655026,-33.225,-0.812364,24.6857,1.54052,1.27617,0.11821,
0.591392,0.0509131,0.373049,-2.29889,1.07019,0.524945,-0.0333027,0.182889,-0.00727189,0.169295,-0.216534,-0.391616,0.422887,0.00897542,4.4794,3.1336,4.20207,-3.5236,-6.09751,5.97309,0.101702,11.8283,-5.15118,10.7645,-16.5517,-2.90792,5.2163,0.088664,0.587681,0.0505768,0.369577,-2.29466,1.07694,0.516389,-0.0334821,0.148936,0.0220762,0.48648,-0.433217,-0.245862,0.97112,0.00246869,0,0,0,0,0,0,0,-0.655026,-33.225,-0.812364,24.6857,1.54052,1.27617,0.11821,
0.592869,0.0508795,0.374418,-2.30061,1.0669,0.528131,-0.0332326,0.183256,-0.0066577,0.169667,-0.216339,-0.395351,0.417954,0.00893385,0.22935,0.383867,0.232854,0.122078,-2.33459,-3.08256,-0.02598,11.7791,-5.24451,10.732,-16.245,-2.9584,5.04812,0.0902914,0.587681,0.0505768,0.369577,-2.29466,1.07694,0.516389,-0.0334821,0.148936,0.0220762,0.48648,-0.433217,-0.245862,0.97112,0.00246869,0,0,0,0,0,0,0,-0.655026,-33.225,-0.812364,24.6857,1.54052,1.27617,0.11821,
0.594203,0.0507387,0.375653,-2.30222,1.06383,0.53111,-0.0331628,0.179952,-0.00884487,0.166596,-0.213192,-0.393113,0.408848,0.00889189,-2.06529,-1.36698,-1.91972,1.96653,1.3986,-5.69142,-0.0262295,11.711,-5.33926,10.6804,-15.9409,-2.95806,4.89282,0.0913265,0.587681,0.0505768,0.369577,-2.29466,1.07694,0.516389,-0.0334821,0.148936,0.0220762,0.48648,-0.433217,-0.245862,0.97112,0.00246869,0,0,0,0,0,0,0,-0.655026,-33.225,-0.812364,24.6857,1.54052,1.27617,0.11821,
0.591379,0.0509124,0.373038,-2.29885,1.07013,0.5248,-0.0332999,0.186091,-0.00455405,0.172354,-0.217883,-0.401215,0.417185,0.00905547,3.83663,2.68176,3.59867,-2.93143,-5.06321,5.21034,0.102236,11.7791,-5.24451,10.732,-16.245,-2.9584,5.04812,0.0902914,0.587681,0.0505768,0.369577,-2.29466,1.07694,0.516389,-0.0334821,0.148936,0.0220762,0.48648,-0.433217,-0.245862,0.97112,0.00246869,0,0,0,0,0,0,0,-0.655026,-33.225,-0.812364,24.6857,1.54052,1.27617,0.11821,
0.592849,0.0508759,0.3744,-2.30055,1.06684,0.527892,-0.0332295,0.185621,-0.00455728,0.171941,-0.216932,-0.403091,0.411032,0.00900493,-0.29355,-0.00201839,-0.257978,0.593904,-1.17262,-3.84556,-0.0315875,11.711,-5.33926,10.6804,-15.9409,-2.95806,4.89282,0.0913265,0.587681,0.0505768,0.369577,-2.29466,1.07694,0.516389,-0.0334821,0.148936,0.0220762,0.48648,-0.433217,-0.245862,0.97112,0.00246869,0,0,0,0,0,0,0,-0.655026,-33.225,-0.812364,24.6857,1.54052,1.27617,0.11821,
0.594175,0.0507314,0.375627,-2.30214,1.06379,0.530774,-0.03316,0.181643,-0.00725794,0.168237,-0.213194,-0.398747,0.400883,0.00894292,-2.48642,-1.68791,-2.31468,2.33617,2.71508,-6.34301,-0.0387532,11.6261,-5.4322,10.6108,-15.6382,-2.92278,4.75196,0.0922205,0.587681,0.0505768,0.369577,-2.29466,1.07694,0.516389,-0.0334821,0.148936,0.0220762,0.48648,-0.433217,-0.245862,0.97112,0.00246869,0,0,0,0,0,0,0,-0.655026,-33.225,-0.812364,24.6857,1.54052,1.27617,0.11821,
0.595398,0.0505062,0.376758,-2.30364,1.06096,0.533583,-0.0330899,0.175901,-0.0114367,0.162868,-0.207943,-0.389751,0.390927,0.00890507,-3.5887,-2.6117,-3.3562,3.28245,5.62249,-6.22246,-0.0236596,11.5233,-5.52103,10.523,-15.3364,-2.85346,4.62337,0.0925523,0.587681,0.0505768,0.369577,-2.29466,1.07694,0.516389,-0.0334821,0.148936,0.0220762,0.48648,-0.433217,-0.245862,0.97112,0.00246869,0,0,0,0,0,0,0,-0.655026,-33.225,-0.812364,24.6857,1.54052,1.27617,0.11821,
0.591366,0.0509122,0.373026,-2.29882,1.07011,0.524666,-0.0332982,0.182666,-0.00665169,0.169206,-0.213235,-0.398553,0.400881,0.00907781,4.22814,2.99061,3.96134,-3.30783,-5.50172,6.22112,0.107968,11.711,-5.33926,10.6804,-15.9409,-2.95806,4.89282,0.0913265,0.587681,0.0505768,0.369577,-2.29466,1.07694,0.516389,-0.0334821,0.148936,0.0220762,0.48648,-0.433217,-0.245862,0.97112,0.00246869,0,0,0,0,0,0,0,-0.655026,-33.225,-0.812364,24.6857,1.54052,1.27617,0.11821,
0.592828,0.0508733,0.374381,-2.3005,1.06685,0.52767,-0.033228,0.182676,-0.0062936,0.169239,-0.212757,-0.400417,0.39579,0.00901822,0.0065943,0.223804,0.0208958,0.298839,-1.16503,-3.18177,-0.0372483,11.6261,-5.4322,10.6108,-15.6382,-2.92278,4.75196,0.0922205,0.587681,0.0505768,0.369577,-2.29466,1.07694,0.516389,-0.0334821,0.148936,0.0220762,0.48648,-0.433217,-0.245862,0.97112,0.00246869,0,0,0,0,0,0,0,-0.655026,-33.225,-0.812364,24.6857,1.54052,1.27617,0.11821,
