xiao-wang007/linearmpc_panda/paper_data/panda_inverse_dynamics_controller_opt_time_to_start_low_pass_acceleration/2/trajectory.csv
Commanded Joint 0 Position,Commanded Joint 1 Position,Commanded Joint 2 Position,Commanded Joint 3 Position,Commanded Joint 4 Position,Commanded Joint 5 Position,Commanded Joint 6 Position,Commanded Joint 0 Velocity,Commanded Joint 1 Velocity,Commanded Joint 2 Velocity,Commanded Joint 3 Velocity,Commanded Joint 4 Velocity,Commanded Joint 5 Velocity,Commanded Joint 6 Velocity,Commanded Joint 0 Acceleration,Commanded Joint 1 Acceleration,Commanded Joint 2 Acceleration,Commanded Joint 3 Acceleration,Commanded Joint 4 Acceleration,Commanded Joint 5 Acceleration,Commanded Joint 6 Acceleration,Commanded Joint 0 Torque,Commanded Joint 1 Torque,Commanded Joint 2 Torque,Commanded Joint 3 Torque,Commanded Joint 4 Torque,Commanded Joint 5 Torque,Commanded Joint 6 Torque,Actual Joint 0 Position,Actual Joint 1 Position,Actual Joint 2 Position,Actual Joint 3 Position,Actual Joint 4 Position,Actual Joint 5 Position,Actual Joint 6 Position,Actual Joint 0 Velocity,Actual Joint 1 Velocity,Actual Joint 2 Velocity,Actual Joint 3 Velocity,Actual Joint 4 Velocity,Actual Joint 5 Velocity,Actual Joint 6 Velocity,Actual Joint 0 Acceleration,Actual Joint 1 Acceleration,Actual Joint 2 Acceleration,Actual Joint 3 Acceleration,Actual Joint 4 Acceleration,Actual Joint 5 Acceleration,Actual Joint 6 Acceleration,Actual Joint 0 Torque,Actual Joint 1 Torque,Actual Joint 2 Torque,Actual Joint 3 Torque,Actual Joint 4 Torque,Actual Joint 5 Torque,Actual Joint 6 Torque,
0.00695972,-0.0544232,0.021727,-1.9049,-0.0118265,0.330974,0.0118085,0.000659682,0.0214633,0.000739701,-0.0339354,-0.00473808,0.0551311,-0.00037824,0.412301,13.4146,0.462313,-21.2097,-2.9613,34.457,-0.2364,0.0550196,22.8212,0.144382,-24.4877,-0.557805,1.87846,-0.0241514,0.00687012,-0.05607,0.0216437,-1.90139,-0.0114181,0.325013,0.011858,-0.00336774,0.00050886,-0.000744106,0.000719966,0.00610142,-0.00064231,0.000544897,0,0,0,0,0,0,0,0.285221,-33.7486,0.112013,27.3279,0.599362,3.09899,-0.0703886,
0.00684594,-0.0560671,0.0216188,-1.90138,-0.0113889,0.325012,0.0118596,0.000389131,0.0171814,0.000448763,-0.0271426,-0.00377492,0.0441082,-0.00029594,-0.169094,-2.67618,-0.181837,4.24552,0.601978,-6.88933,0.0514375,0.0492807,23.267,0.133752,-24.4031,-0.557922,1.62826,-0.0226405,0.00687954,-0.0558861,0.0216474,-1.90141,-0.0114273,0.325014,0.0118595,-0.0028202,0.000765045,-0.000395868,-0.00712286,0.0112401,-0.00190035,0.00021101,0.0684424,0.0320232,0.0435297,-0.980353,0.642333,-0.157254,-0.0417359,0.106693,-32.975,0.0128308,27.1017,0.581051,3.13927,-0.0566557,
0.00684181,-0.0560669,0.0216146,-1.90138,-0.0113912,0.325012,0.0118598,0.000208163,0.0137517,0.000252995,-0.021712,-0.00307961,0.0352885,-0.000232746,-0.113105,-2.14356,-0.122355,3.39416,0.434569,-5.51232,0.0394958,0.0420951,23.8386,0.122035,-24.2951,-0.557259,1.2805,-0.0206718,0.00687954,-0.0558861,0.0216474,-1.90141,-0.0114273,0.325014,0.0118595,-0.0028202,0.000765045,-0.000395868,-0.00712286,0.0112401,-0.00190035,0.00021101,0,0,0,0,0,0,0,0.106693,-32.975,0.0128308,27.1017,0.581051,3.13927,-0.0566557,
0.00683868,-0.0560667,0.0216114,-1.90138,-0.0113947,0.325012,0.0118599,8.82284e-05,0.0110057,0.000122121,-0.0173691,-0.00255098,0.0282309,-0.00018371,-0.0749594,-1.71629,-0.0817967,2.71426,0.330395,-4.41096,0.0306477,0.0361715,24.3627,0.112631,-24.1273,-0.555081,0.895145,-0.0186715,0.00687954,-0.0558861,0.0216474,-1.90141,-0.0114273,0.325014,0.0118595,-0.0028202,0.000765045,-0.000395868,-0.00712286,0.0112401,-0.00190035,0.00021101,0,0,0,0,0,0,0,0.106693,-32.975,0.0128308,27.1017,0.581051,3.13927,-0.0566557,
0.00662189,-0.0558513,0.0213973,-1.90133,-0.00296062,0.32119,0.0118251,-0.000752015,0.00877502,-0.000745742,-0.0137325,0.0503262,-0.00182003,-0.000183693,-0.525152,-1.39416,-0.542414,2.27292,33.0482,-18.7819,1.06735e-05,0.468084,0.130492,0.463715,-0.23376,3.03995,-1.48181,-0.00141266,0.00687954,-0.0558861,0.0216474,-1.90141,-0.0114273,0.325014,0.0118595,-0.0028202,0.000765045,-0.000395868,-0.00712286,0.0112401,-0.00190035,0.00021101,0,0,0,0,0,0,0,0.106693,-32.975,0.0128308,27.1017,0.581051,3.13927,-0.0566557,
0.00660143,-0.0558527,0.0213759,-1.90133,-0.000814615,0.320175,0.0118242,-0.00111305,0.0069862,-0.00113144,-0.0109556,0.0939112,-0.0268216,-0.000168972,-0.225646,-1.11801,-0.241063,1.73557,27.2406,-15.626,0.00920093,0.461834,0.135639,0.457024,-0.230066,3.01342,-1.46695,-0.00141524,0.00687196,-0.0556545,0.0216396,-1.90142,-0.0114268,0.325,0.0118536,-0.0026826,0.0148195,0.000326873,0.000873488,0.00863418,0.000728243,-0.000984995,0.0172,1.75681,0.0903427,0.999543,-0.325738,0.328574,-0.149501,0.25745,-31.7491,0.163588,25.0864,0.532528,2.82799,-0.0227812,
0.00659195,-0.0558533,0.0213655,-1.90133,0.00135646,0.319137,0.0118236,-0.00112749,0.00557275,-0.00116494,-0.00884145,0.129406,-0.0473984,-0.000150534,-0.00902856,-0.883404,-0.0209345,1.32132,22.1841,-12.8604,0.0115233,0.455742,0.134371,0.450896,-0.227719,2.98669,-1.45328,-0.00141113,0.00687196,-0.0556545,0.0216396,-1.90142,-0.0114268,0.325,0.0118536,-0.0026826,0.0148195,0.000326873,0.000873488,0.00863418,0.000728243,-0.000984995,0,0,0,0,0,0,0,0.25745,-31.7491,0.163588,25.0864,0.532528,2.82799,-0.0227812,
0.00659176,-0.0558529,0.0213645,-1.90134,0.00353627,0.318087,0.0118231,-0.000906659,0.00446995,-0.000957209,-0.00723535,0.15802,-0.0641689,-0.000133282,0.138022,-0.689249,0.12983,1.00381,17.8838,-10.4816,0.0107826,0.449874,0.133091,0.445001,-0.225375,2.95979,-1.43963,-0.00140537,0.00687196,-0.0556545,0.0216396,-1.90142,-0.0114268,0.325,0.0118536,-0.0026826,0.0148195,0.000326873,0.000873488,0.00863418,0.000728243,-0.000984995,0,0,0,0,0,0,0,0.25745,-31.7491,0.163588,25.0864,0.532528,2.82799,-0.0227812,
0.00632345,-0.055523,0.0211249,-1.9006,0.019109,0.303376,0.0117176,-0.00158159,0.00330131,-0.00155793,-0.00436248,0.319614,-0.191372,-0.00030238,-0.421833,-0.730405,-0.375448,1.79554,100.996,-79.5019,-0.105686,3.56458,1.34726,3.59231,-1.5757,11.0588,-8.76346,-0.00637045,0.00687196,-0.0556545,0.0216396,-1.90142,-0.0114268,0.325,0.0118536,-0.0026826,0.0148195,0.000326873,0.000873488,0.00863418,0.000728243,-0.000984995,0,0,0,0,0,0,0,0.25745,-31.7491,0.163588,25.0864,0.532528,2.82799,-0.0227812,
0.00633771,-0.0555246,0.0211404,-1.90058,0.0270581,0.297538,0.0117125,-0.000908863,0.00260321,-0.000858458,-0.00313625,0.454419,-0.299045,-0.000368732,0.420455,-0.43631,0.437168,0.766393,84.2533,-67.2957,-0.0414702,3.46344,1.32249,3.48872,-1.55525,11.0588,-8.65315,-0.00688746,0.00687196,-0.0556545,0.0216396,-1.90142,-0.0114268,0.325,0.0118536,-0.0026826,0.0148195,0.000326873,0.000873488,0.00863418,0.000728243,-0.000984995,0,0,0,0,0,0,0,0.25745,-31.7491,0.163588,25.0864,0.532528,2.82799,-0.0227812,
0.00639718,-0.0555126,0.0212006,-1.9006,0.0350691,0.291558,0.0117093,0.000759603,0.00238086,0.000818148,-0.00298746,0.56381,-0.388726,-0.000375997,1.04279,-0.138968,1.04788,0.0929945,68.3697,-56.0506,-0.00454096,3.3783,1.32686,3.39385,-1.53012,11.0593,-8.53859,-0.00757507,0.00689404,-0.0546976,0.021648,-1.90237,-0.0114263,0.32555,0.0118596,-0.00458389,0.0130156,-0.00147318,-0.0304971,0.0112623,0.0148959,0.000546228,-0.237662,-0.225481,-0.225007,-3.92133,0.328514,1.77095,0.191403,0.233646,-33.4233,0.338148,25.2094,0.679012,2.95342,-0.0429228,
0.00649587,-0.0554865,0.0213001,-1.90065,0.0430464,0.285504,0.0117067,0.00307501,0.00255803,0.00314131,-0.00352084,0.65048,-0.462326,-0.000364275,1.44713,0.110735,1.45197,-0.333364,54.1687,-46.0001,0.00732624,3.36502,1.3333,3.27756,-1.49354,11.0593,-8.43499,-0.00443784,0.00689404,-0.0546976,0.021648,-1.90237,-0.0114263,0.32555,0.0118596,-0.00458389,0.0130156,-0.00147318,-0.0304971,0.0112623,0.0148959,0.000546228,0,0,0,0,0,0,0,0.233646,-33.4233,0.338148,25.2094,0.679012,2.95342,-0.0429228,
0.00883758,-0.0557147,0.0237544,-1.90327,0.0163838,0.290092,0.0118749,0.0181626,-0.00619711,0.0190666,-0.0126816,0.702868,-0.6047,-0.000270032,9.42976,-5.47197,9.9533,-5.72545,32.7421,-88.9833,0.0589021,16.3984,-0.471046,17.5826,-9.58465,11.0593,-14.3465,0.0648069,0.00689404,-0.0546976,0.021648,-1.90237,-0.0114263,0.32555,0.0118596,-0.00458389,0.0130156,-0.00147318,-0.0304971,0.0112623,0.0148959,0.000546228,0,0,0,0,0,0,0,0.233646,-33.4233,0.338148,25.2094,0.679012,2.95342,-0.0429228,
0.00954294,-0.0560503,0.0244935,-1.90376,0.0240535,0.280347,0.0118767,0.0321641,-0.0133487,0.0337323,-0.0223742,0.754037,-0.727382,-0.00017111,8.75091,-4.46972,9.1661,-6.05792,31.981,-76.6764,0.0618261,16.0401,0.0761636,15.6863,-8.58405,11.0593,-14.3465,0.0175495,0.00689404,-0.0546976,0.021648,-1.90237,-0.0114263,0.32555,0.0118596,-0.00458389,0.0130156,-0.00147318,-0.0304971,0.0112623,0.0148959,0.000546228,0,0,0,0,0,0,0,0.233646,-33.4233,0.338148,25.2094,0.679012,2.95342,-0.0429228,
0.0103067,-0.0563774,0.0252908,-1.90435,0.031989,0.270661,0.0118798,0.0448261,-0.0188566,0.0469172,-0.0326687,0.801618,-0.824059,-5.96826e-05,7.91375,-3.44248,8.24055,-6.43404,29.7381,-60.4235,0.0696423,15.0542,-1.39971,15.4944,-9.06084,11.0524,-14.3356,0.00679009,0.00706458,-0.0540771,0.0219873,-1.90301,-0.00966648,0.324421,0.0118592,0.010454,0.0233388,0.0310067,-0.018598,0.160655,-0.115746,0.0010641,1.87974,1.29039,4.05998,1.48739,18.6741,-16.3303,0.0647341,4.56989,-35.2205,4.53554,24.0152,1.8399,1.56823,0.00376909,
0.0111134,-0.0566833,0.0261306,-1.90502,0.0401145,0.261269,0.0118837,0.0560274,-0.0227311,0.0585298,-0.0429037,0.84443,-0.894051,5.0553e-05,7.0008,-2.42151,7.25787,-6.39687,26.7575,-43.7451,0.0688972,14.4709,-1.92187,14.9576,-9.02825,11.0524,-14.3356,0.00188582,0.00706458,-0.0540771,0.0219873,-1.90301,-0.00966648,0.324421,0.0118592,0.010454,0.0233388,0.0310067,-0.018598,0.160655,-0.115746,0.0010641,0,0,0,0,0,0,0,4.56989,-35.2205,4.53554,24.0152,1.8399,1.56823,0.00376909,
0.0104734,-0.0541106,0.0255032,-1.90489,0.0196906,0.288335,0.0118213,0.0680073,-0.0193102,0.0705794,-0.0501871,0.861127,-0.945166,-0.00014812,7.48747,2.13807,7.53101,-4.55212,10.4356,-31.9465,-0.12417,21.02,4.21994,21.3377,-12.7876,11.0524,-14.3356,0.0136536,0.00706458,-0.0540771,0.0219873,-1.90301,-0.00966648,0.324421,0.0118592,0.010454,0.0233388,0.0310067,-0.018598,0.160655,-0.115746,0.0010641,0,0,0,0,0,0,0,4.56989,-35.2205,4.53554,24.0152,1.8399,1.56823,0.00376909,
0.0114672,-0.054138,0.0265206,-1.90566,0.0274735,0.279144,0.011814,0.0792497,-0.0161338,0.0818995,-0.0594063,0.883474,-0.985917,-0.000299667,7.02649,1.98523,7.07503,-5.762,13.9667,-25.4691,-0.0947172,19.888,3.71021,20.2221,-12.5628,11.0524,-14.3356,0.00266477,0.00706458,-0.0540771,0.0219873,-1.90301,-0.00966648,0.324421,0.0118592,0.010454,0.0233388,0.0310067,-0.018598,0.160655,-0.115746,0.0010641,0,0,0,0,0,0,0,4.56989,-35.2205,4.53554,24.0152,1.8399,1.56823,0.00376909,
0.0125079,-0.0541349,0.0275857,-1.90654,0.0355121,0.270249,0.0118087,0.0894185,-0.0128283,0.0921467,-0.0694738,0.907744,-1.0111,-0.000373777,6.35546,2.06595,6.40455,-6.29222,15.1688,-15.7377,-0.0463184,18.764,3.41744,19.1128,-12.4942,10.9326,-14.2633,-0.00293753,0.00820858,-0.054313,0.0237897,-1.90511,0.00986043,0.307708,0.0119035,0.0548965,-0.0128463,0.0904451,-0.0801474,0.816546,-0.719833,-0.00146775,5.55531,-4.52313,7.4298,-7.69367,81.9864,-75.5108,-0.316482,13.9287,-31.0509,13.8626,18.1595,4.56909,-2.01972,0.0641939,
0.0135801,-0.0540959,0.0286828,-1.90749,0.0437322,0.26182,0.011805,0.0983399,-0.00928712,0.101145,-0.0794533,0.931696,-1.0196,-0.00039,5.57589,2.21322,5.62389,-6.23717,14.9702,-5.3164,-0.0101397,17.882,2.93644,18.2306,-12.3335,10.9326,-14.2633,-0.00828881,0.00820858,-0.054313,0.0237897,-1.90511,0.00986043,0.307708,0.0119035,0.0548965,-0.0128463,0.0904451,-0.0801474,0.816546,-0.719833,-0.00146775,0,0,0,0,0,0,0,13.9287,-31.0509,13.8626,18.1595,4.56909,-2.01972,0.0641939,
0.01389,-0.0549927,0.0295786,-1.91031,0.0472177,0.26361,0.0117324,0.111702,-0.0106868,0.114604,-0.0953904,0.946116,-1.05703,-0.0013615,8.35122,-0.874823,8.41213,-9.96069,9.01237,-23.3916,-0.607188,23.7872,3.29004,24.1677,-18.9148,10.9326,-14.2633,-0.0360282,0.00820858,-0.054313,0.0237897,-1.90511,0.00986043,0.307708,0.0119035,0.0548965,-0.0128463,0.0904451,-0.0801474,0.816546,-0.719833,-0.00146775,0,0,0,0,0,0,0,13.9287,-31.0509,13.8626,18.1595,4.56909,-2.01972,0.0641939,
0.0152458,-0.0551088,0.0309617,-1.9117,0.0554277,0.254332,0.0116937,0.123256,-0.0114511,0.126259,-0.111007,0.962144,-1.07758,-0.00205743,7.22155,-0.477681,7.2841,-9.76062,10.0172,-12.8463,-0.434953,22.4454,2.46273,22.824,-18.6504,10.9326,-14.2633,-0.0506305,0.00820858,-0.054313,0.0237897,-1.90511,0.00986043,0.307708,0.0119035,0.0548965,-0.0128463,0.0904451,-0.0801474,0.816546,-0.719833,-0.00146775,0,0,0,0,0,0,0,13.9287,-31.0509,13.8626,18.1595,4.56909,-2.01972,0.0641939,
0.016621,-0.0552029,0.0323646,-1.91317,0.0637695,0.24563,0.0116607,0.132986,-0.0115151,0.136081,-0.12555,0.978259,-1.0796,-0.00247198,6.08078,-0.0399961,6.13905,-9.08884,10.0719,-1.26268,-0.259097,21.2822,1.93867,21.6753,-18.5425,10.8146,-14.0215,-0.0555401,0.0115419,-0.0561854,0.0291065,-1.91113,0.0422718,0.270361,0.0119094,0.12729,-0.0160564,0.176446,-0.200763,1.05153,-1.26394,0.000618716,9.04924,-0.401271,10.7501,-15.077,29.3724,-68.0138,0.260809,12.1791,-28.9562,12.4384,19.3814,2.63366,-0.693125,-0.0163725,
0.018004,-0.0552735,0.0337757,-1.91469,0.0722048,0.23761,0.0116325,0.140963,-0.0109755,0.144143,-0.138462,0.993489,-1.0642,-0.00268095,4.98594,0.337232,5.03824,-8.07034,9.51902,9.62643,-0.130603,20.3422,1.20874,20.7282,-18.3554,10.8146,-14.0215,-0.0579762,0.0115419,-0.0561854,0.0291065,-1.91113,0.0422718,0.270361,0.0119094,0.12729,-0.0160564,0.176446,-0.200763,1.05153,-1.26394,0.000618716,0,0,0,0,0,0,0,12.1791,-28.9562,12.4384,19.3814,2.63366,-0.693125,-0.0163725,
0.019039,-0.0561103,0.0367643,-1.92016,0.0837931,0.221658,0.0115448,0.151917,-0.00723447,0.155323,-0.160147,1.00603,-1.06326,-0.00382285,6.84619,2.33818,6.98771,-13.5528,7.83809,0.588388,-0.713692,23.6232,3.30684,24.1042,-23.8292,10.8146,-14.0215,-0.106842,0.0115419,-0.0561854,0.0291065,-1.91113,0.0422718,0.270361,0.0119094,0.12729,-0.0160564,0.176446,-0.200763,1.05153,-1.26394,0.000618716,0,0,0,0,0,0,0,12.1791,-28.9562,12.4384,19.3814,2.63366,-0.693125,-0.0163725,
0.0206022,-0.0560281,0.0383622,-1.92217,0.0923003,0.214089,0.0114844,0.160613,-0.00373091,0.164207,-0.178289,1.0175,-1.03984,-0.00456733,5.43496,2.18972,5.55272,-11.3391,7.17068,14.6363,-0.465301,22.4365,2.55719,22.9005,-23.535,10.8146,-14.0215,-0.108347,0.0115419,-0.0561854,0.0291065,-1.91113,0.0422718,0.270361,0.0119094,0.12729,-0.0160564,0.176446,-0.200763,1.05153,-1.26394,0.000618716,0,0,0,0,0,0,0,12.1791,-28.9562,12.4384,19.3814,2.63366,-0.693125,-0.0163725,
0.0221539,-0.0559292,0.0399487,-1.92418,0.100847,0.207426,0.0114333,0.167282,-0.000514239,0.171028,-0.192978,1.02766,-0.998429,-0.00493198,4.16835,2.01042,4.26277,-9.18082,6.34759,25.8835,-0.227904,21.6531,1.62845,22.1249,-22.8864,10.8054,-11.7008,-0.10431,0.0175685,-0.0571109,0.0371021,-1.91939,0.0772129,0.227658,0.0119131,0.198803,-0.00841009,0.27732,-0.255592,0.938482,-1.15594,0.00066823,8.93901,0.955795,12.6093,-6.8536,-14.1304,13.5004,0.00618925,7.43427,-27.2066,7.1103,19.8535,2.51739,-0.494455,-0.050247,
0.0236877,-0.0558183,0.0415172,-1.92619,0.109416,0.201641,0.0113905,0.172172,0.00236241,0.176035,-0.204441,1.03637,-0.943379,-0.00501727,3.05617,1.79791,3.12938,-7.16415,5.44253,34.4063,-0.0533052,20.7726,1.09345,21.2299,-22.6202,10.8054,-9.93122,-0.0978406,0.0175685,-0.0571109,0.0371021,-1.91939,0.0772129,0.227658,0.0119131,0.198803,-0.00841009,0.27732,-0.255592,0.938482,-1.15594,0.00066823,0,0,0,0,0,0,0,7.43427,-27.2066,7.1103,19.8535,2.51739,-0.494455,-0.050247,
0.025946,-0.0567392,0.0456849,-1.92943,0.119416,0.194111,0.011633,0.177153,0.00465269,0.181157,-0.213024,1.0452,-0.878968,-0.00488726,3.11325,1.43143,3.20129,-5.36465,5.52266,40.2565,0.0812575,20.0017,0.69237,20.4449,-22.3494,10.8054,-8.36671,-0.0866911,0.0175685,-0.0571109,0.0371021,-1.91939,0.0772129,0.227658,0.0119131,0.198803,-0.00841009,0.27732,-0.255592,0.938482,-1.15594,0.00066823,0,0,0,0,0,0,0,7.43427,-27.2066,7.1103,19.8535,2.51739,-0.494455,-0.050247,
0.0274819,-0.0566229,0.0472565,-1.93137,0.128065,0.189915,0.011608,0.18012,0.0066294,0.184215,-0.219013,1.05238,-0.808069,-0.0045345,1.85411,1.23544,1.91158,-3.74297,4.48441,44.3117,0.220474,19.3115,0.411859,19.7412,-22.0677,10.8054,-6.98958,-0.0767556,0.0175685,-0.0571109,0.0371021,-1.91939,0.0772129,0.227658,0.0119131,0.198803,-0.00841009,0.27732,-0.255592,0.938482,-1.15594,0.00066823,0,0,0,0,0,0,0,7.43427,-27.2066,7.1103,19.8535,2.51739,-0.494455,-0.050247,
0.0289788,-0.056504,0.0487883,-1.93327,0.136702,0.186431,0.0115944,0.181517,0.0082777,0.185668,-0.222785,1.05784,-0.733572,-0.00396746,0.873261,1.03019,0.907672,-2.3571,3.4104,46.5609,0.3544,18.8407,-0.0187581,19.2821,-21.4355,10.7857,-5.49958,-0.0660565,0.0252129,-0.057126,0.0482589,-1.92913,0.105124,0.190487,0.0119109,0.233185,0.0194255,0.340781,-0.324717,0.763889,-1.01897,-0.00171242,4.29785,3.47945,7.9326,-8.64066,-21.8242,17.1216,-0.297581,3.07422,-27.9802,2.76216,22.8925,1.94976,1.26977,-0.0301054,
0.0339092,-0.0557856,0.0571945,-1.9399,0.145905,0.167201,0.0117884,0.183543,0.0127774,0.187826,-0.22719,1.06096,-0.657594,-0.00311003,1.26607,2.81231,1.34901,-2.75361,1.95491,47.4862,0.535893,17.7561,-0.124531,18.1726,-20.8232,10.7857,-3.51169,-0.0410387,0.0252129,-0.057126,0.0482589,-1.92913,0.105124,0.190487,0.0119109,0.233185,0.0194255,0.340781,-0.324717,0.763889,-1.01897,-0.00171242,0,0,0,0,0,0,0,3.07422,-27.9802,2.76216,22.8925,1.94976,1.26977,-0.0301054,
0.0353752,-0.0555618,0.0586977,-1.94178,0.154513,0.165038,0.0117999,0.183486,0.0158169,0.18784,-0.228792,1.06398,-0.580163,-0.00219994,-0.0354321,1.89968,0.00842113,-1.00119,1.88385,48.3944,0.568809,17.2691,-0.0937075,17.6738,-20.5095,10.7857,-2.70141,-0.0284612,0.0252129,-0.057126,0.0482589,-1.92913,0.105124,0.190487,0.0119109,0.233185,0.0194255,0.340781,-0.324717,0.763889,-1.01897,-0.00171242,0,0,0,0,0,0,0,3.07422,-27.9802,2.76216,22.8925,1.94976,1.26977,-0.0301054,
0.0367825,-0.0553588,0.0601396,-1.94359,0.163115,0.163447,0.0118181,0.18197,0.0177275,0.186319,-0.228315,1.06623,-0.503905,-0.00130503,-0.947604,1.19415,-0.950222,0.298178,1.4072,47.6614,0.559318,16.8039,-0.0235565,17.1969,-20.1946,10.7857,-1.99475,-0.0137706,0.0252129,-0.057126,0.0482589,-1.92913,0.105124,0.190487,0.0119109,0.233185,0.0194255,0.340781,-0.324717,0.763889,-1.01897,-0.00171242,0,0,0,0,0,0,0,3.07422,-27.9802,2.76216,22.8925,1.94976,1.26977,-0.0301054,
0.0381366,-0.0551734,0.0615259,-1.94534,0.171697,0.162347,0.0118423,0.179429,0.0188177,0.183713,-0.226296,1.06752,-0.430625,-0.000439364,-1.5884,0.681365,-1.62886,1.26226,0.804169,45.8,0.541039,16.3326,0.0726715,16.7149,-19.881,10.7857,-1.3867,-0.00191417,0.0252129,-0.057126,0.0482589,-1.92913,0.105124,0.190487,0.0119109,0.233185,0.0194255,0.340781,-0.324717,0.763889,-1.01897,-0.00171242,0,0,0,0,0,0,0,3.07422,-27.9802,2.76216,22.8925,1.94976,1.26977,-0.0301054,
0.0403243,-0.0535458,0.0671828,-1.95027,0.165396,0.15151,0.0119454,0.17662,0.0228644,0.180875,-0.226445,1.06009,-0.370605,0.000346813,-1.75552,2.5292,-1.774,-0.0936502,-4.64054,37.5126,0.491361,15.826,-0.311661,16.2224,-19.2159,10.667,-0.696291,0.00923017,0.0327542,-0.0555695,0.0593807,-1.94004,0.127847,0.163037,0.011909,0.200828,0.060739,0.318778,-0.323985,0.576262,-0.582591,-0.00156531,-4.0447,5.16419,-2.75032,0.0915478,-23.4534,54.547,0.0183884,-4.1026,-37.589,-4.31151,34.1,1.98639,4.26629,0.0303194,
0.0415906,-0.0532703,0.0684796,-1.95201,0.17373,0.150919,0.011982,0.172952,0.0251803,0.177121,-0.22448,1.05641,-0.311256,0.00119333,-2.29212,1.44745,-2.34594,1.22819,-2.29991,37.0928,0.52907,15.3427,-0.192068,15.7314,-18.9229,10.667,-0.240882,0.019537,0.0327542,-0.0555695,0.0593807,-1.94004,0.127847,0.163037,0.011909,0.200828,0.060739,0.318778,-0.323985,0.576262,-0.582591,-0.00156531,0,0,0,0,0,0,0,-4.1026,-37.589,-4.31151,34.1,1.98639,4.26629,0.0303194,
0.0428068,-0.0530255,0.0697246,-1.95367,0.182108,0.150712,0.0120232,0.168767,0.0262636,0.17282,-0.221089,1.0546,-0.254181,0.00198367,-2.6161,0.67705,-2.68815,2.11977,-1.13305,35.6719,0.493967,14.8681,-0.0455443,15.2321,-18.63,10.667,0.151774,0.0274694,0.0327542,-0.0555695,0.0593807,-1.94004,0.127847,0.163037,0.011909,0.200828,0.060739,0.318778,-0.323985,0.576262,-0.582591,-0.00156531,0,0,0,0,0,0,0,-4.1026,-37.589,-4.31151,34.1,1.98639,4.26629,0.0303194,
0.0439754,-0.0528054,0.0709242,-1.95526,0.190506,0.150827,0.0120665,0.164229,0.0265131,0.168247,-0.216757,1.05361,-0.200459,0.00267043,-2.83613,0.155959,-2.8582,2.7074,-0.618067,33.5763,0.429224,14.4156,0.126701,14.7524,-18.3256,10.667,0.485057,0.0348096,0.0327542,-0.0555695,0.0593807,-1.94004,0.127847,0.163037,0.011909,0.200828,0.060739,0.318778,-0.323985,0.576262,-0.582591,-0.00156531,0,0,0,0,0,0,0,-4.1026,-37.589,-4.31151,34.1,1.98639,4.26629,0.0303194,
0.0462458,-0.0516787,0.077212,-1.95842,0.189222,0.152261,0.0121782,0.160782,0.026628,0.164869,-0.212246,1.05168,-0.151134,0.00319535,-2.15411,0.0717721,-2.11096,2.81906,-1.20271,30.8284,0.328074,13.9185,0.0087913,14.2491,-17.8417,10.5289,0.866977,0.0409824,0.0394869,-0.0530271,0.0702587,-1.94991,0.149658,0.153441,0.0120227,0.190226,0.042705,0.266835,-0.255369,0.758936,-0.156565,0.00647061,-1.32516,-2.25425,-6.49296,8.57701,22.8343,53.2533,1.00449,-11.1287,-43.5042,-10.9369,42.471,-0.402225,7.96593,-0.0163725,
0.047381,-0.0514794,0.0783803,-1.95991,0.197378,0.15286,0.0122262,0.157005,0.0262855,0.161102,-0.206989,1.04526,-0.105936,0.00375627,-2.36048,-0.214073,-2.35468,3.28593,-4.01827,28.2482,0.350577,13.4907,0.177408,13.8045,-17.5416,10.5289,1.11515,0.0506589,0.0394869,-0.0530271,0.0702587,-1.94991,0.149658,0.153441,0.0120227,0.190226,0.042705,0.266835,-0.255369,0.758936,-0.156565,0.00647061,0,0,0,0,0,0,0,-11.1287,-43.5042,-10.9369,42.471,-0.402225,7.96593,-0.0163725,
0.0484962,-0.0512961,0.079526,-1.96133,0.205025,0.153657,0.0122784,0.153484,0.0256105,0.157524,-0.201106,1.02738,-0.0648235,0.00430884,-2.20075,-0.421865,-2.23642,3.67671,-11.1697,25.6956,0.345352,13.0341,0.338704,13.3326,-17.2541,10.5289,1.3239,0.0555773,0.0394869,-0.0530271,0.0702587,-1.94991,0.149658,0.153441,0.0120227,0.190226,0.042705,0.266835,-0.255369,0.758936,-0.156565,0.00647061,0,0,0,0,0,0,0,-11.1287,-43.5042,-10.9369,42.471,-0.402225,7.96593,-0.0163725,
0.0495976,-0.0511285,0.0806564,-1.96269,0.212016,0.154622,0.0123324,0.150324,0.0246795,0.15428,-0.194885,0.996675,-0.0277159,0.00479743,-1.97538,-0.581862,-2.02754,3.88786,-19.1932,23.1923,0.305369,12.5648,0.502798,12.897,-16.967,10.5289,1.49439,0.0579386,0.0394869,-0.0530271,0.0702587,-1.94991,0.149658,0.153441,0.0120227,0.190226,0.042705,0.266835,-0.255369,0.758936,-0.156565,0.00647061,0,0,0,0,0,0,0,-11.1287,-43.5042,-10.9369,42.471,-0.402225,7.96593,-0.0163725,
0.0461172,-0.0514592,0.0770881,-1.95798,0.185029,0.153557,0.0122308,0.149772,0.0261471,0.153688,-0.191428,0.954962,-0.0055354,0.00512927,-0.344638,0.917246,-0.369485,2.16123,-26.0706,13.8628,0.2074,12.1179,0.583708,12.4862,-16.6747,10.3968,1.66398,0.059305,0.0453247,-0.0502851,0.078456,-1.95646,0.177673,0.152676,0.0120437,0.142938,0.0246792,0.21255,-0.142007,0.834972,-0.00755844,0.00235542,-5.91102,-2.25323,-6.78564,14.1702,9.50449,18.6258,-0.514398,-8.94665,-39.6877,-9.06035,37.0398,-0.0900305,7.59514,-0.050247,
0.0472605,-0.0512308,0.0782598,-1.95934,0.190665,0.154432,0.0122845,0.148401,0.0266274,0.152244,-0.186959,0.904886,0.0174506,0.00544515,-0.857097,0.3002,-0.902775,2.79288,-31.2977,14.3662,0.197429,11.7452,0.757163,12.1225,-16.3732,9.5918,1.80227,0.062179,0.0453247,-0.0502851,0.078456,-1.95646,0.177673,0.152676,0.0120437,0.142938,0.0246792,0.21255,-0.142007,0.834972,-0.00755844,0.00235542,0,0,0,0,0,0,0,-8.94665,-39.6877,-9.06035,37.0398,-0.0900305,7.59514,-0.050247,
0.0483718,-0.0510266,0.0793983,-1.96063,0.195631,0.155477,0.0123394,0.146503,0.0264067,0.150257,-0.181942,0.848061,0.0400901,0.00573063,-1.18617,-0.137941,-1.24161,3.1357,-35.5151,14.1497,0.178425,11.4099,0.920003,11.7861,-16.0713,8.30045,1.91828,0.0630952,0.0453247,-0.0502851,0.078456,-1.95646,0.177673,0.152676,0.0120437,0.142938,0.0246792,0.21255,-0.142007,0.834972,-0.00755844,0.00235542,0,0,0,0,0,0,0,-8.94665,-39.6877,-9.06035,37.0398,-0.0900305,7.59514,-0.050247,
0.0494543,-0.0508428,0.080507,-1.96188,0.199949,0.156658,0.0123963,0.144265,0.025719,0.147924,-0.176684,0.786387,0.0615904,0.00600479,-1.39859,-0.429814,-1.45811,3.28624,-38.5462,13.4377,0.171351,11.1198,1.06347,11.4903,-15.7692,7.16283,1.99595,0.0635794,0.0453247,-0.0502851,0.078456,-1.95646,0.177673,0.152676,0.0120437,0.142938,0.0246792,0.21255,-0.142007,0.834972,-0.00755844,0.00235542,0,0,0,0,0,0,0,-8.94665,-39.6877,-9.06035,37.0398,-0.0900305,7.59514,-0.050247,
0.0512767,-0.0496998,0.0845569,-1.96266,0.202904,0.15759,0.0123037,0.142827,0.0234698,0.146397,-0.17068,0.72407,0.0819786,0.00623228,-0.898808,-1.40573,-0.954482,3.75247,-38.9487,12.7426,0.142177,10.8674,1.16172,11.2332,-15.5095,6.04284,2.03975,0.0637528,0.0492589,-0.0478382,0.0847887,-1.95952,0.206398,0.155181,0.0120484,0.087527,0.0573037,0.142245,-0.026482,0.785285,0.0714942,0.00143851,-6.9264,4.07806,-8.78807,14.4406,-6.21086,9.88158,-0.114615,-5.70141,-32.8481,-5.73577,23.5669,0.104977,4.00078,-0.0163725,
0.0523388,-0.0495858,0.0856439,-1.9638,0.206132,0.158984,0.0123629,0.140814,0.0216249,0.144292,-0.165076,0.659949,0.100435,0.00646376,-1.25827,-1.15307,-1.31568,3.50266,-40.0753,11.5354,0.144677,10.6796,1.25953,11.0358,-15.2133,5.13314,2.08529,0.0650002,0.0492589,-0.0478382,0.0847887,-1.95952,0.206398,0.155181,0.0120484,0.087527,0.0573037,0.142245,-0.026482,0.785285,0.0714942,0.00143851,0,0,0,0,0,0,0,-5.70141,-32.8481,-5.73577,23.5669,0.104977,4.00078,-0.0163725,
0.0533695,-0.0494741,0.0866988,-1.96491,0.208841,0.160442,0.0124233,0.138419,0.0200919,0.141805,-0.159875,0.595672,0.116807,0.00668316,-1.49696,-0.958148,-1.55421,3.25049,-40.1733,10.2323,0.137123,10.529,1.33505,10.8747,-14.9222,4.32898,2.12432,0.0660795,0.0492589,-0.0478382,0.0847887,-1.95952,0.206398,0.155181,0.0120484,0.087527,0.0573037,0.142245,-0.026482,0.785285,0.0714942,0.00143851,0,0,0,0,0,0,0,-5.70141,-32.8481,-5.73577,23.5669,0.104977,4.00078,-0.0163725,
0.0541263,-0.0474698,0.0897596,-1.96439,0.22315,0.163367,0.0123665,0.134773,0.0175549,0.138009,-0.153053,0.526478,0.136027,0.00695383,-2.27864,-1.5856,-2.37251,4.26392,-43.2461,12.0122,0.169169,10.3005,1.42477,10.6244,-14.3519,2.96725,2.16917,0.0698927,0.0492589,-0.0478382,0.0847887,-1.95952,0.206398,0.155181,0.0120484,0.087527,0.0573037,0.142245,-0.026482,0.785285,0.0714942,0.00143851,0,0,0,0,0,0,0,-5.70141,-32.8481,-5.73577,23.5669,0.104977,4.00078,-0.0163725,
0.055069,-0.0474048,0.0907232,-1.96538,0.224709,0.165056,0.0124312,0.131384,0.0156696,0.134498,-0.147316,0.460166,0.151043,0.00718017,-2.11791,-1.17832,-2.19474,3.58516,-41.4452,9.3853,0.141464,10.1718,1.41136,10.4832,-14.0403,2.32288,2.17392,0.0728105,0.0517434,-0.0458314,0.0883097,-1.96016,0.227396,0.157769,0.0120484,0.065857,0.0899375,0.0853559,-0.00701422,0.437237,0.0847967,0.000677491,-2.70876,4.07923,-7.11114,2.43347,-43.506,1.66281,-0.0951269,-6.23303,-30.0273,-6.11266,20.3256,-0.231022,2.37023,-0.0163725,
0.0559912,-0.0473344,0.0916661,-1.96637,0.225904,0.166726,0.012496,0.128163,0.0142953,0.131172,-0.142418,0.398007,0.162583,0.00736386,-2.01301,-0.858946,-2.0789,3.0617,-38.8489,7.21277,0.114807,10.0822,1.41737,10.3826,-13.7655,1.83365,2.17725,0.0744911,0.0517434,-0.0458314,0.0883097,-1.96016,0.227396,0.157769,0.0120484,0.065857,0.0899375,0.0853559,-0.00701422,0.437237,0.0847967,0.000677491,0,0,0,0,0,0,0,-6.23303,-30.0273,-6.11266,20.3256,-0.231022,2.37023,-0.0163725,
0.0568927,-0.0472593,0.0925879,-1.96734,0.226793,0.168373,0.012561,0.125067,0.0133126,0.127981,-0.138161,0.340627,0.171241,0.00751615,-1.93512,-0.614188,-1.99385,2.66058,-35.8631,5.4109,0.0951784,9.99398,1.4119,10.2836,-13.4936,1.40156,2.17064,0.0764402,0.0517434,-0.0458314,0.0883097,-1.96016,0.227396,0.157769,0.0120484,0.065857,0.0899375,0.0853559,-0.00701422,0.437237,0.0847967,0.000677491,0,0,0,0,0,0,0,-6.23303,-30.0273,-6.11266,20.3256,-0.231022,2.37023,-0.0163725,
0.055593,-0.0449766,0.0922428,-1.9648,0.234688,0.16631,0.012391,0.120282,0.0134782,0.123059,-0.134433,0.287363,0.179436,0.00768895,-2.99086,0.103476,-3.07672,2.3299,-33.2898,5.12192,0.108002,9.90359,1.39778,10.1825,-13.2251,1.0345,2.16014,0.0777191,0.0517434,-0.0458314,0.0883097,-1.96016,0.227396,0.157769,0.0120484,0.065857,0.0899375,0.0853559,-0.00701422,0.437237,0.0847967,0.000677491,0,0,0,0,0,0,0,-6.23303,-30.0273,-6.11266,20.3256,-0.231022,2.37023,-0.0163725,
0.0563998,-0.0448688,0.0930674,-1.96574,0.235042,0.167966,0.0124571,0.116395,0.0134775,0.11906,-0.13108,0.238761,0.184941,0.00780345,-2.42913,-0.000443383,-2.4993,2.0958,-30.3763,3.44089,0.0715627,9.78184,1.39901,10.0489,-12.966,0.691418,2.12559,0.0796729,0.0542585,-0.0445636,0.0911257,-1.96154,0.231835,0.162323,0.0120396,0.0664973,0.0558018,0.0676367,-0.0428589,-0.0446474,0.280456,2.55726e-05,0.0800421,-4.26696,-2.2149,-4.48059,-60.2356,24.4574,-0.0814898,-1.89679,-34.1454,-1.98668,26.4789,0.660702,0.62615,-0.0227812,
0.0571998,-0.0447643,0.0938848,-1.96667,0.23521,0.16958,0.0125221,0.113115,0.0133943,0.115683,-0.128005,0.195185,0.1883,0.0078684,-2.05023,-0.0519762,-2.11064,1.92173,-27.2349,2.0991,0.040592,9.68254,1.37246,9.93938,-12.7027,0.423638,2.10393,0.080372,0.0542585,-0.0445636,0.0911257,-1.96154,0.231835,0.162323,0.0120396,0.0664973,0.0558018,0.0676367,-0.0428589,-0.0446474,0.280456,2.55726e-05,0,0,0,0,0,0,0,-1.89679,-34.1454,-1.98668,26.4789,0.660702,0.62615,-0.0227812,
0.05799,-0.044662,0.0946921,-1.96758,0.235227,0.171152,0.0125862,0.110249,0.0132732,0.11273,-0.125136,0.156581,0.189942,0.00789614,-1.79115,-0.0756994,-1.84534,1.79289,-24.1276,1.02655,0.0173366,9.57769,1.34169,9.82468,-12.4412,0.193116,2.07577,0.0810232,0.0542585,-0.0445636,0.0911257,-1.96154,0.231835,0.162323,0.0120396,0.0664973,0.0558018,0.0676367,-0.0428589,-0.0446474,0.280456,2.55726e-05,0,0,0,0,0,0,0,-1.89679,-34.1454,-1.98668,26.4789,0.660702,0.62615,-0.0227812,
0.0573993,-0.0438936,0.0943478,-1.96579,0.230447,0.172703,0.0123617,0.105,0.0131525,0.10737,-0.121747,0.116334,0.196495,0.0079195,-3.28073,-0.0754334,-3.35012,2.11804,-25.1545,4.09526,0.0146034,9.4666,1.30834,9.70382,-12.182,0.00383669,2.04546,0.081075,0.0542585,-0.0445636,0.0911257,-1.96154,0.231835,0.162323,0.0120396,0.0664973,0.0558018,0.0676367,-0.0428589,-0.0446474,0.280456,2.55726e-05,0,0,0,0,0,0,0,-1.89679,-34.1454,-1.98668,26.4789,0.660702,0.62615,-0.0227812,
0.0580798,-0.043795,0.0950433,-1.96664,0.230052,0.17438,0.0124244,0.101012,0.0129882,0.103284,-0.118754,0.0832095,0.199132,0.00790387,-2.49246,-0.102669,-2.55379,1.87069,-20.7025,1.64818,-0.00976907,9.32138,1.42568,9.54818,-12.0589,-0.149787,1.92509,0.0819569,0.0563407,-0.0438239,0.0930977,-1.96288,0.226816,0.179362,0.0120395,0.0466997,0.0362379,0.0555895,-0.0511769,-0.254807,0.568723,0.000484053,-2.4747,-2.44549,-1.50589,-1.03975,-26.2699,36.0333,0.0573101,-4.50726,-32.7727,-4.48607,26.0068,0.709225,0.997854,-0.0227812,
0.058764,-0.0436979,0.0957422,-1.96748,0.229627,0.17597,0.0124855,0.0979153,0.0128169,0.100099,-0.116037,0.0559436,0.199043,0.00785129,-1.93543,-0.107072,-1.99078,1.69796,-17.0412,-0.0557658,-0.0328626,9.19847,1.38946,9.41601,-11.8027,-0.278594,1.88842,0.081382,0.0563407,-0.0438239,0.0930977,-1.96288,0.226816,0.179362,0.0120395,0.0466997,0.0362379,0.0555895,-0.0511769,-0.254807,0.568723,0.000484053,0,0,0,0,0,0,0,-4.50726,-32.7727,-4.48607,26.0068,0.709225,0.997854,-0.0227812,
0.0594483,-0.0436019,0.0964407,-1.96831,0.229178,0.177483,0.012545,0.0954385,0.0126539,0.0975405,-0.113509,0.0335056,0.197064,0.00776822,-1.54799,-0.101873,-1.59885,1.5801,-14.0238,-1.23664,-0.0519235,9.07022,1.35267,9.27889,-11.5478,-0.385752,1.84808,0.0806861,0.0563407,-0.0438239,0.0930977,-1.96288,0.226816,0.179362,0.0120395,0.0466997,0.0362379,0.0555895,-0.0511769,-0.254807,0.568723,0.000484053,0,0,0,0,0,0,0,-4.50726,-32.7727,-4.48607,26.0068,0.709225,0.997854,-0.0227812,
0.0587971,-0.0433886,0.095626,-1.96633,0.221567,0.193112,0.0123344,0.0901147,0.0116362,0.0921085,-0.109057,0.00777127,0.2072,0.00767967,-3.3274,-0.636055,-3.39498,2.78294,-16.0839,6.3351,-0.0553411,8.93682,1.31619,9.13673,-11.2942,-0.469276,1.80703,0.0795529,0.0563407,-0.0438239,0.0930977,-1.96288,0.226816,0.179362,0.0120395,0.0466997,0.0362379,0.0555895,-0.0511769,-0.254807,0.568723,0.000484053,0,0,0,0,0,0,0,-4.50726,-32.7727,-4.48607,26.0068,0.709225,0.997854,-0.0227812,
0.0593663,-0.0433265,0.0962073,-1.96706,0.220868,0.194882,0.0123914,0.086322,0.0108602,0.088219,-0.105537,-0.0112647,0.209992,0.00756655,-2.37042,-0.485023,-2.43096,2.19966,-11.8975,1.74503,-0.0706984,8.79891,1.2801,8.99042,-11.0415,-0.537108,1.76346,0.0782971,0.0563407,-0.0438239,0.0930977,-1.96288,0.226816,0.179362,0.0120395,0.0466997,0.0362379,0.0555895,-0.0511769,-0.254807,0.568723,0.000484053,0,0,0,0,0,0,0,-4.50726,-32.7727,-4.48607,26.0068,0.709225,0.997854,-0.0227812,
0.0599486,-0.0432613,0.0968013,-1.96779,0.220215,0.196484,0.0124463,0.0836156,0.0103177,0.0854256,-0.10266,-0.0253332,0.208053,0.00742737,-1.69152,-0.339025,-1.74585,1.79818,-8.79282,-1.21233,-0.0869883,8.64599,1.37283,8.82726,-10.9055,-0.538626,1.61786,0.0774305,0.0573028,-0.0432875,0.0949546,-1.96477,0.214651,0.200525,0.0120343,0.0184345,0.00551269,0.0391472,-0.0732574,-0.391763,0.620937,-0.000972696,-3.53315,-3.84065,-2.05529,-2.76007,-17.1195,6.52676,-0.182094,-2.86084,-32.3006,-2.7603,27.6254,0.819088,1.80627,0.0239107,
0.0590904,-0.0431097,0.096802,-1.96781,0.207082,0.213988,0.0122986,0.0779621,0.00921059,0.0796526,-0.0981553,-0.0443973,0.212619,0.00723583,-3.53341,-0.691966,-3.60816,2.81548,-11.915,2.85429,-0.119711,8.35109,1.30614,8.51648,-10.4044,-0.606506,1.52761,0.0737121,0.0573028,-0.0432875,0.0949546,-1.96477,0.214651,0.200525,0.0120343,0.0184345,0.00551269,0.0391472,-0.0732574,-0.391763,0.620937,-0.000972696,0,0,0,0,0,0,0,-2.86084,-32.3006,-2.7603,27.6254,0.819088,1.80627,0.0239107,
0.0595618,-0.0430646,0.0972827,-1.96846,0.206245,0.215606,0.0123484,0.0741554,0.00849535,0.0757408,-0.0946722,-0.0564448,0.210537,0.00703457,-2.37922,-0.447024,-2.44486,2.17693,-7.52967,-1.3016,-0.125787,8.19905,1.27485,8.35681,-10.1547,-0.627529,1.4819,0.0716425,0.0573028,-0.0432875,0.0949546,-1.96477,0.214651,0.200525,0.0120343,0.0184345,0.00551269,0.0391472,-0.0732574,-0.391763,0.620937,-0.000972696,0,0,0,0,0,0,0,-2.86084,-32.3006,-2.7603,27.6254,0.819088,1.80627,0.0239107,
0.0600547,-0.0430124,0.0977846,-1.96911,0.205504,0.217043,0.0123961,0.0716473,0.00810067,0.0731406,-0.091888,-0.0636945,0.204376,0.00682021,-1.56755,-0.246674,-1.62513,1.74009,-4.53109,-3.85039,-0.13398,8.04431,1.24519,8.19452,-9.90543,-0.64072,1.43684,0.0693737,0.0573028,-0.0432875,0.0949546,-1.96477,0.214651,0.200525,0.0120343,0.0184345,0.00551269,0.0391472,-0.0732574,-0.391763,0.620937,-0.000972696,0,0,0,0,0,0,0,-2.86084,-32.3006,-2.7603,27.6254,0.819088,1.80627,0.0239107,
0.0605629,-0.0429535,0.0983014,-1.96975,0.204835,0.218338,0.0124416,0.0700211,0.00795311,0.0714329,-0.0895654,-0.0676799,0.195854,0.00659422,-1.01639,-0.0922305,-1.06729,1.45161,-2.49086,-5.32625,-0.141242,7.89808,1.26087,8.0388,-9.69921,-0.58119,1.30757,0.0672496,0.0576073,-0.0429841,0.0964668,-1.96767,0.201133,0.220202,0.0120359,0.00679141,0.00303736,0.0235436,-0.0746196,-0.41479,0.502497,-0.000949631,-1.45539,-0.309417,-1.95045,-0.170275,-2.87844,-14.805,0.00288311,-0.984311,-34.5976,-1.01073,28.3475,1.6806,2.48925,0.0101778,
0.0590222,-0.0427527,0.0979281,-1.97056,0.193235,0.231143,0.0122656,0.0655026,0.00770018,0.0668156,-0.0864816,-0.0785649,0.194291,0.00637982,-2.82404,-0.158081,-2.88581,1.9274,-6.80316,-0.977032,-0.133997,7.73876,1.23435,7.87223,-9.45036,-0.585676,1.26334,0.0648048,0.0576073,-0.0429841,0.0964668,-1.96767,0.201133,0.220202,0.0120359,0.00679141,0.00303736,0.0235436,-0.0746196,-0.41479,0.502497,-0.000949631,0,0,0,0,0,0,0,-0.984311,-34.5976,-1.01073,28.3475,1.6806,2.48925,0.0101778,
0.0594328,-0.0426935,0.0983457,-1.97116,0.192402,0.232458,0.0123077,0.0626678,0.00763979,0.0638931,-0.0839978,-0.0836803,0.1883,0.00615787,-1.77175,-0.0377396,-1.82656,1.55239,-3.19713,-3.74425,-0.138718,7.57747,1.20929,7.70389,-9.20147,-0.588445,1.21949,0.0623449,0.0576073,-0.0429841,0.0964668,-1.96767,0.201133,0.220202,0.0120359,0.00679141,0.00303736,0.0235436,-0.0746196,-0.41479,0.502497,-0.000949631,0,0,0,0,0,0,0,-0.984311,-34.5976,-1.01073,28.3475,1.6806,2.48925,0.0101778,
0.0598668,-0.0426288,0.0987864,-1.97175,0.191676,0.233623,0.0123477,0.0609831,0.00773093,0.0621305,-0.0819011,-0.0851043,0.179758,0.00592682,-1.05296,0.0569576,-1.10163,1.31044,-0.889967,-5.33906,-0.144412,7.41432,1.18579,7.53372,-8.95244,-0.588737,1.17674,0.0598066,0.0576073,-0.0429841,0.0964668,-1.96767,0.201133,0.220202,0.0120359,0.00679141,0.00303736,0.0235436,-0.0746196,-0.41479,0.502497,-0.000949631,0,0,0,0,0,0,0,-0.984311,-34.5976,-1.01073,28.3475,1.6806,2.48925,0.0101778,
0.0603172,-0.0425589,0.0992433,-1.97233,0.19103,0.234667,0.0123856,0.0600485,0.0079317,0.061126,-0.080037,-0.0842367,0.1699,0.00568879,-0.584133,0.125487,-0.627826,1.16506,0.542219,-6.16092,-0.148766,7.27515,1.15938,7.38543,-8.70525,-0.517751,1.08077,0.0571089,0.057712,-0.0428753,0.0972458,-1.96999,0.186995,0.232737,0.0120347,-0.000539798,-0.0105529,0.0180549,-0.0590917,-0.394202,0.281987,-0.00119634,-0.916401,-1.69878,-0.686091,1.941,2.5735,-27.5637,-0.0308381,0.892215,-33.7486,0.988783,26.0822,1.6806,2.32995,0.0303194,
0.0589545,-0.0428412,0.0985214,-1.97268,0.179618,0.240081,0.0122288,0.0566363,0.00752488,0.057628,-0.0776071,-0.0899853,0.16347,0.00546797,-2.13262,-0.254262,-2.18625,1.51866,-3.59284,-4.01914,-0.138011,7.10868,1.13859,7.21215,-8.45546,-0.517037,1.03995,0.0545562,0.057712,-0.0428753,0.0972458,-1.96999,0.186995,0.232737,0.0120347,-0.000539798,-0.0105529,0.0180549,-0.0590917,-0.394202,0.281987,-0.00119634,0,0,0,0,0,0,0,0.892215,-33.7486,0.988783,26.0822,1.6806,2.32995,0.0303194,
0.059327,-0.0427831,0.0988989,-1.97322,0.178849,0.241064,0.0122635,0.0546233,0.00747225,0.0555395,-0.0755027,-0.0912064,0.155341,0.00524191,-1.25812,-0.0328977,-1.30533,1.31523,-0.763215,-5.08046,-0.141291,6.94072,1.1189,7.03752,-8.20505,-0.517279,1.00006,0.0520587,0.057712,-0.0428753,0.0972458,-1.96999,0.186995,0.232737,0.0120347,-0.000539798,-0.0105529,0.0180549,-0.0590917,-0.394202,0.281987,-0.00119634,0,0,0,0,0,0,0,0.892215,-33.7486,0.988783,26.0822,1.6806,2.32995,0.0303194,
0.0597204,-0.0427168,0.0992969,-1.97375,0.17818,0.241947,0.0122962,0.0535329,0.0076366,0.0543818,-0.0735905,-0.0896969,0.146345,0.00501116,-0.681495,0.102721,-0.723581,1.19515,0.943415,-5.62213,-0.144218,6.77137,1.10035,6.86154,-7.95391,-0.517589,0.96135,0.049568,0.057712,-0.0428753,0.0972458,-1.96999,0.186995,0.232737,0.0120347,-0.000539798,-0.0105529,0.0180549,-0.0590917,-0.394202,0.281987,-0.00119634,0,0,0,0,0,0,0,0.892215,-33.7486,0.988783,26.0822,1.6806,2.32995,0.0303194,
0.0590746,-0.0425121,0.0991849,-1.97454,0.169217,0.240586,0.0122021,0.0512599,0.00795626,0.0520231,-0.0717631,-0.0910971,0.133399,0.00475463,-1.42065,0.199786,-1.47413,1.14211,-0.875081,-8.09156,-0.160332,6.45663,1.04462,6.53129,-7.42238,-0.462905,0.872693,0.0444967,0.0577771,-0.0426568,0.0978651,-1.97187,0.175251,0.23733,0.0120392,-0.000120763,-0.00433436,0.0234594,-0.0442167,-0.312335,0.0276769,0.000571604,0.0523793,0.777312,0.675557,1.85937,10.2334,-31.7887,0.220992,3.07422,-31.4,3.18666,23.1424,1.8518,1.67351,-0.00996382,
0.0594321,-0.0424295,0.0995455,-1.97504,0.168549,0.241206,0.0122301,0.0499458,0.00843007,0.0506337,-0.0698632,-0.089576,0.122201,0.00450343,-0.821265,0.296128,-0.868414,1.18746,0.950693,-6.99896,-0.156999,6.28395,1.02839,6.35219,-7.16824,-0.466622,0.836886,0.0422097,0.0577771,-0.0426568,0.0978651,-1.97187,0.175251,0.23733,0.0120392,-0.000120763,-0.00433436,0.0234594,-0.0442167,-0.312335,0.0276769,0.000571604,0,0,0,0,0,0,0,3.07422,-31.4,3.18666,23.1424,1.8518,1.67351,-0.00996382,
0.059803,-0.0423417,0.0999191,-1.97552,0.16796,0.241788,0.0122563,0.0492289,0.00893906,0.0498485,-0.0678856,-0.0863712,0.112308,0.00425899,-0.4481,0.318121,-0.490741,1.23603,2.003,-6.18282,-0.152772,6.11052,1.01276,6.17234,-6.91288,-0.470606,0.801787,0.0399897,0.0577771,-0.0426568,0.0978651,-1.97187,0.175251,0.23733,0.0120392,-0.000120763,-0.00433436,0.0234594,-0.0442167,-0.312335,0.0276769,0.000571604,0,0,0,0,0,0,0,3.07422,-31.4,3.18666,23.1424,1.8518,1.67351,-0.00996382,
0.0601817,-0.0422509,0.1003,-1.97598,0.167434,0.24233,0.012281,0.0488509,0.00941937,0.0494072,-0.0658296,-0.0822697,0.103417,0.00402338,-0.236224,0.300195,-0.2758,1.28496,2.5634,-5.55688,-0.147259,5.93657,0.997517,5.99202,-6.65625,-0.475391,0.767152,0.0378856,0.0577771,-0.0426568,0.0978651,-1.97187,0.175251,0.23733,0.0120392,-0.000120763,-0.00433436,0.0234594,-0.0442167,-0.312335,0.0276769,0.000571604,0,0,0,0,0,0,0,3.07422,-31.4,3.18666,23.1424,1.8518,1.67351,-0.00996382,
0.0589252,-0.0424689,0.0990274,-1.97419,0.169276,0.240004,0.0121681,0.0464642,0.00945875,0.0469467,-0.0636072,-0.0847485,0.0958196,0.00381817,-1.4917,0.0246119,-1.53779,1.38898,-1.54921,-4.7484,-0.128254,5.75906,0.965529,5.80617,-6.36854,-0.448894,0.742174,0.0358415,0.0579079,-0.0423931,0.0984667,-1.97346,0.166927,0.237404,0.0120392,0.00339203,0.0116087,0.017667,-0.0499183,-0.20399,0.0136603,0.000165355,0.4391,1.99289,-0.724044,-0.712704,13.5432,-1.75207,-0.0507811,1.27307,-31.4516,1.36171,23.6383,1.76025,1.4016,-0.00996382,
0.0592373,-0.042385,0.0993407,-1.97461,0.168629,0.240491,0.0121907,0.0449754,0.00966525,0.0453903,-0.0613496,-0.083965,0.0888394,0.00361935,-0.930475,0.129063,-0.97277,1.41105,0.489678,-4.36264,-0.124267,5.58506,0.950905,5.62579,-6.10922,-0.452354,0.707328,0.0339523,0.0579079,-0.0423931,0.0984667,-1.97346,0.166927,0.237404,0.0120392,0.00339203,0.0116087,0.017667,-0.0499183,-0.20399,0.0136603,0.000165355,0,0,0,0,0,0,0,1.27307,-31.4516,1.36171,23.6383,1.76025,1.4016,-0.00996382,
0.0595602,-0.0422971,0.0996644,-1.97501,0.168071,0.240937,0.012212,0.0440524,0.00992917,0.0444039,-0.0590489,-0.081119,0.0822213,0.00342784,-0.576874,0.164952,-0.616529,1.43789,1.77872,-4.1363,-0.119693,5.41164,0.936549,5.44594,-5.84857,-0.453339,0.671523,0.0321722,0.0579079,-0.0423931,0.0984667,-1.97346,0.166927,0.237404,0.0120392,0.00339203,0.0116087,0.017667,-0.0499183,-0.20399,0.0136603,0.000165355,0,0,0,0,0,0,0,1.27307,-31.4516,1.36171,23.6383,1.76025,1.4016,-0.00996382,
0.0598888,-0.0422072,0.0999933,-1.97539,0.167589,0.241338,0.0122321,0.0434559,0.0101906,0.0437465,-0.0567014,-0.0769356,0.0757895,0.00324497,-0.372804,0.1634,-0.41083,1.46721,2.61462,-4.01991,-0.114291,5.23928,0.922321,5.26712,-5.58665,-0.451163,0.634101,0.0305249,0.0579079,-0.0423931,0.0984667,-1.97346,0.166927,0.237404,0.0120392,0.00339203,0.0116087,0.017667,-0.0499183,-0.20399,0.0136603,0.000165355,0,0,0,0,0,0,0,1.27307,-31.4516,1.36171,23.6383,1.76025,1.4016,-0.00996382,
0.0589873,-0.0418982,0.099548,-1.97554,0.162515,0.23907,0.0121502,0.0414861,0.0107968,0.0417038,-0.054669,-0.0758951,0.0685776,0.0030931,-1.23117,0.378853,-1.27672,1.27022,0.650332,-4.50739,-0.094916,5.06644,0.896667,5.08611,-5.29884,-0.42693,0.60518,0.0289415,0.05816,-0.041992,0.0993424,-1.97516,0.162669,0.2374,0.0120381,0.0193239,0.0250883,0.0175791,-0.0442014,-0.073137,-0.00112655,0.00100912,1.99148,1.68494,-0.0109828,0.714618,16.3566,-1.84836,0.105471,0.106693,-33.2488,0.26277,26.2051,1.81518,1.57464,0.00376909,
0.059267,-0.0417935,0.0998267,-1.97589,0.162051,0.239347,0.012169,0.0401811,0.0112531,0.04033,-0.0524397,-0.0722981,0.0617925,0.00294406,-0.815624,0.28522,-0.858589,1.39336,2.2481,-4.24073,-0.09315,4.89803,0.882778,4.91102,-5.03469,-0.412389,0.561589,0.0275561,0.05816,-0.041992,0.0993424,-1.97516,0.162669,0.2374,0.0120381,0.0193239,0.0250883,0.0175791,-0.0442014,-0.073137,-0.00112655,0.00100912,0,0,0,0,0,0,0,0.106693,-33.2488,0.26277,26.2051,1.81518,1.57464,0.00376909,
0.0595522,-0.0416909,0.10011,-1.97621,0.161695,0.239574,0.0121869,0.0392751,0.011568,0.0393574,-0.0500577,-0.0667528,0.0550998,0.00280182,-0.566239,0.19677,-0.607911,1.48874,3.46585,-4.18293,-0.0889012,4.73262,0.869128,4.73877,-4.76966,-0.388152,0.513076,0.0263136,0.05816,-0.041992,0.0993424,-1.97516,0.162669,0.2374,0.0120381,0.0193239,0.0250883,0.0175791,-0.0442014,-0.073137,-0.00112655,0.00100912,0,0,0,0,0,0,0,0.106693,-33.2488,0.26277,26.2051,1.81518,1.57464,0.00376909,
0.059348,-0.0413123,0.100519,-1.97688,0.160817,0.237976,0.0121355,0.0379755,0.012206,0.0379717,-0.0473618,-0.0575818,0.0454188,0.00266929,-0.812214,0.398777,-0.866046,1.6849,5.73184,-6.05061,-0.0828347,4.41364,0.842465,4.40548,-4.23801,-0.300157,0.39548,0.0242684,0.05816,-0.041992,0.0993424,-1.97516,0.162669,0.2374,0.0120381,0.0193239,0.0250883,0.0175791,-0.0442014,-0.073137,-0.00112655,0.00100912,0,0,0,0,0,0,0,0.106693,-33.2488,0.26277,26.2051,1.81518,1.57464,0.00376909,
0.0596104,-0.0412006,0.100779,-1.97714,0.160784,0.237963,0.0121519,0.0369394,0.0125581,0.0368526,-0.0445425,-0.0468853,0.0360036,0.00254671,-0.647577,0.220061,-0.699437,1.7621,6.68535,-5.88447,-0.0766132,4.2614,0.829492,4.24568,-3.97202,-0.229932,0.323097,0.0234669,0.05816,-0.041992,0.0993424,-1.97516,0.162669,0.2374,0.0120381,0.0193239,0.0250883,0.0175791,-0.0442014,-0.073137,-0.00112655,0.00100912,0,0,0,0,0,0,0,0.106693,-33.2488,0.26277,26.2051,1.81518,1.57464,0.00376909,
0.0598693,-0.0410945,0.101033,-1.97739,0.160904,0.23787,0.0121679,0.0360247,0.012699,0.0358553,-0.0416458,-0.0345261,0.0264781,0.00243772,-0.571684,0.0880739,-0.623333,1.81043,7.72447,-5.95345,-0.0681191,4.11367,0.820079,4.08775,-3.6923,-0.135229,0.248444,0.0227984,0.0583793,-0.0413439,0.100015,-1.97633,0.162075,0.237388,0.0120351,0.0140882,0.0305472,0.00989106,-0.0328364,-0.00887561,-0.0010887,-0.000516064,-0.654461,0.682367,-0.961011,1.42062,8.03268,0.00473053,-0.190648,-0.0202602,-33.8716,0.0882092,27.0264,1.59546,1.72661,0.017502,
0.0601221,-0.0409934,0.101281,-1.9776,0.161194,0.237686,0.0121839,0.0351391,0.0126871,0.0348857,-0.0387101,-0.0203731,0.0165865,0.00234979,-0.55354,-0.00742635,-0.605982,1.8348,8.84564,-6.18223,-0.0549515,3.9727,0.807574,3.93845,-3.42754,-0.0175305,0.151865,0.0223354,0.0583793,-0.0413439,0.100015,-1.97633,0.162075,0.237388,0.0120351,0.0140882,0.0305472,0.00989106,-0.0328364,-0.00887561,-0.0010887,-0.000516064,0,0,0,0,0,0,0,-0.0202602,-33.8716,0.0882092,27.0264,1.59546,1.72661,0.017502,
0.0593179,-0.0406157,0.100927,-1.97758,0.162693,0.236835,0.0121276,0.033323,0.0130703,0.0329697,-0.0359899,-0.00555334,0.00613197,0.00230667,-1.13504,0.239462,-1.19749,1.70013,9.26234,-6.53411,-0.0269536,3.83729,0.795273,3.79423,-3.16412,0.128454,0.0411997,0.0221009,0.0583793,-0.0413439,0.100015,-1.97633,0.162075,0.237388,0.0120351,0.0140882,0.0305472,0.00989106,-0.0328364,-0.00887561,-0.0010887,-0.000516064,0,0,0,0,0,0,0,-0.0202602,-33.8716,0.0882092,27.0264,1.59546,1.72661,0.017502,
0.0595239,-0.0405068,0.101126,-1.97776,0.163345,0.236436,0.0121438,0.0318062,0.013177,0.0313499,-0.0331917,0.0118478,-0.00505666,0.00225067,-0.947992,0.0667262,-1.01239,1.74887,10.8757,-6.99289,-0.0349989,3.7065,0.783035,3.65403,-2.90279,0.306213,-0.0838763,0.0220083,0.0583793,-0.0413439,0.100015,-1.97633,0.162075,0.237388,0.0120351,0.0140882,0.0305472,0.00989106,-0.0328364,-0.00887561,-0.0010887,-0.000516064,0,0,0,0,0,0,0,-0.0202602,-33.8716,0.0882092,27.0264,1.59546,1.72661,0.017502,
0.0597241,-0.0404051,0.101319,-1.97791,0.16423,0.235925,0.0121593,0.0304514,0.013084,0.0298871,-0.0303984,0.0316166,-0.0168372,0.00218693,-0.84674,-0.0581692,-0.914222,1.74583,12.3555,-7.36286,-0.0398347,3.58041,0.772418,3.5165,-2.63457,0.516567,-0.214805,0.022049,0.0587071,-0.0408629,0.100717,-1.97733,0.16223,0.237226,0.0120352,0.0155795,0.00503174,0.0215685,-0.0394035,0.00281128,-0.00717703,-0.000508367,0.186417,-3.18943,1.45968,-0.820884,1.46086,-0.761041,0.000962099,0.309024,-33.6495,0.512709,28.399,1.37573,2.57531,0.0303194,
0.0599168,-0.0403085,0.101503,-1.97804,0.165346,0.235307,0.0121757,0.0291783,0.0128835,0.0285092,-0.0276311,0.0531703,-0.0289091,0.0021591,-0.795719,-0.12531,-0.861238,1.72954,13.4711,-7.54491,-0.0173932,3.45442,0.760736,3.37994,-2.37976,0.757218,-0.363786,0.0225728,0.0587071,-0.0408629,0.100717,-1.97733,0.16223,0.237226,0.0120352,0.0155795,0.00503174,0.0215685,-0.0394035,0.00281128,-0.00717703,-0.000508367,0,0,0,0,0,0,0,0.309024,-33.6495,0.512709,28.399,1.37573,2.57531,0.0303194,
0.0595466,-0.0404312,0.101517,-1.97811,0.166196,0.234809,0.0121191,0.0274073,0.0124774,0.0266186,-0.0248785,0.0759297,-0.0405503,0.00216948,-1.10686,-0.253773,-1.18157,1.72037,14.2247,-7.27574,0.00648145,3.3236,0.750215,3.23643,-2.12906,1.04523,-0.530127,0.0233927,0.0587071,-0.0408629,0.100717,-1.97733,0.16223,0.237226,0.0120352,0.0155795,0.00503174,0.0215685,-0.0394035,0.00281128,-0.00717703,-0.000508367,0,0,0,0,0,0,0,0.309024,-33.6495,0.512709,28.399,1.37573,2.57531,0.0303194,
0.0596973,-0.0403442,0.101655,-1.9782,0.167849,0.234032,0.0121322,0.0256915,0.0121573,0.0247456,-0.0222842,0.102081,-0.0518787,0.00206295,-1.07239,-0.200071,-1.17067,1.62143,16.3446,-7.08029,-0.0665764,3.17603,0.743984,3.0744,-1.87952,1.36109,-0.704046,0.0231617,0.0587071,-0.0408629,0.100717,-1.97733,0.16223,0.237226,0.0120352,0.0155795,0.00503174,0.0215685,-0.0394035,0.00281128,-0.00717703,-0.000508367,0,0,0,0,0,0,0,0.309024,-33.6495,0.512709,28.399,1.37573,2.57531,0.0303194,
0.0598364,-0.0402614,0.101778,-1.97829,0.169777,0.233229,0.0121319,0.0240322,0.0117941,0.022889,-0.0200398,0.129857,-0.0615641,0.00164085,-1.03703,-0.227039,-1.16036,1.40276,17.3598,-6.05335,-0.263813,3.01439,0.719408,2.89798,-1.63855,1.66222,-0.847478,0.0226555,0.0590362,-0.0405222,0.101458,-1.97821,0.162715,0.236296,0.0120369,0.0085695,-0.000439487,0.0196782,-0.0243621,0.0273359,-0.0465993,-0.000452832,-0.876252,-0.683903,-0.236292,1.88018,3.06557,-4.92778,0.00694185,0.233646,-34.0224,0.286573,28.2245,1.60736,2.57531,0.0440523,
0.059523,-0.0402068,0.101892,-1.97864,0.17039,0.232934,0.0120567,0.0215333,0.0112528,0.020394,-0.0175687,0.155741,-0.066067,0.00122747,-1.56181,-0.338302,-1.55938,1.54444,16.1775,-2.81433,-0.258365,2.61109,0.745229,2.46491,-1.16122,2.34075,-1.06442,0.0262946,0.0590362,-0.0405222,0.101458,-1.97821,0.162715,0.236296,0.0120369,0.0085695,-0.000439487,0.0196782,-0.0243621,0.0273359,-0.0465993,-0.000452832,0,0,0,0,0,0,0,0.233646,-34.0224,0.286573,28.2245,1.60736,2.57531,0.0440523,
0.0596056,-0.0401332,0.101964,-1.97868,0.172765,0.232209,0.0120467,0.0192922,0.0108414,0.0181125,-0.0151357,0.183961,-0.070976,0.000730173,-1.40068,-0.257119,-1.42594,1.52066,17.6373,-3.06811,-0.310809,2.3203,0.763315,2.13949,-0.905023,2.78338,-1.12469,0.0211059,0.0590362,-0.0405222,0.101458,-1.97821,0.162715,0.236296,0.0120369,0.0085695,-0.000439487,0.0196782,-0.0243621,0.0273359,-0.0465993,-0.000452832,0,0,0,0,0,0,0,0.233646,-34.0224,0.286573,28.2245,1.60736,2.57531,0.0440523,
0.0596818,-0.0400637,0.102032,-1.97871,0.175345,0.23144,0.0120364,0.0173376,0.0104111,0.016197,-0.0128047,0.211682,-0.0760156,0.000328316,-1.22165,-0.268918,-1.19715,1.45687,17.3256,-3.14973,-0.251161,2.03027,0.635908,1.81562,-0.711987,3.02527,-1.0276,0.00324195,0.0590362,-0.0405222,0.101458,-1.97821,0.162715,0.236296,0.0120369,0.0085695,-0.000439487,0.0196782,-0.0243621,0.0273359,-0.0465993,-0.000452832,0,0,0,0,0,0,0,0.233646,-34.0224,0.286573,28.2245,1.60736,2.57531,0.0440523,
0.0597585,-0.0400003,0.102102,-1.97872,0.177974,0.23064,0.0120284,0.0157887,0.00991435,0.0147115,-0.0104968,0.235071,-0.0808231,6.13563e-05,-0.968069,-0.310484,-0.928473,1.44242,14.6183,-3.00471,-0.16685,1.79932,0.606443,1.68434,-0.437048,2.67165,-0.611319,-0.00194188,0.059478,-0.0401748,0.102159,-1.97876,0.165212,0.234226,0.0120421,0.0162067,0.00260488,0.0181447,-0.00706113,0.114232,-0.0703553,0.000720483,0.954649,0.380546,-0.191681,2.16262,10.862,-2.9695,0.146664,-0.452694,-34.0462,-0.288683,27.6254,1.58905,2.52953,-0.0026396,
0.0598585,-0.0399362,0.102504,-1.97887,0.176384,0.230636,0.0119904,0.0140857,0.0091381,0.0130713,-0.00821288,0.2556,-0.0853529,-0.000165089,-1.06436,-0.485156,-1.02509,1.42745,12.8304,-2.83111,-0.141528,1.68002,0.553909,1.55164,-0.283781,3.18451,-0.782756,-0.00135505,0.059478,-0.0401748,0.102159,-1.97876,0.165212,0.234226,0.0120421,0.0162067,0.00260488,0.0181447,-0.00706113,0.114232,-0.0703553,0.000720483,0,0,0,0,0,0,0,-0.452694,-34.0462,-0.288683,27.6254,1.58905,2.52953,-0.0026396,
0.0599052,-0.0398918,0.102544,-1.97885,0.17929,0.229749,0.0119766,0.0124369,0.00842012,0.011462,-0.00607747,0.277116,-0.090471,-0.000477828,-1.03049,-0.448737,-1.00582,1.33463,13.4478,-3.19885,-0.195462,1.49939,0.518866,1.34316,-0.10716,3.66933,-0.966743,-0.00855903,0.059478,-0.0401748,0.102159,-1.97876,0.165212,0.234226,0.0120421,0.0162067,0.00260488,0.0181447,-0.00706113,0.114232,-0.0703553,0.000720483,0,0,0,0,0,0,0,-0.452694,-34.0462,-0.288683,27.6254,1.58905,2.52953,-0.0026396,
0.0599515,-0.0398582,0.102584,-1.97883,0.182225,0.228877,0.0119675,0.0111073,0.00757676,0.0101699,-0.00432335,0.295089,-0.0941843,-0.000611178,-0.831033,-0.527099,-0.807602,1.09633,11.233,-2.32079,-0.0833433,1.37055,0.404485,1.25721,0.0430793,3.74116,-1.01594,-0.0100018,0.059478,-0.0401748,0.102159,-1.97876,0.165212,0.234226,0.0120421,0.0162067,0.00260488,0.0181447,-0.00706113,0.114232,-0.0703553,0.000720483,0,0,0,0,0,0,0,-0.452694,-34.0462,-0.288683,27.6254,1.58905,2.52953,-0.0026396,
0.0600042,-0.0398357,0.102634,-1.97881,0.184989,0.228106,0.0119588,0.0102019,0.00662278,0.00938009,-0.00292765,0.305158,-0.0946086,-0.000705426,-0.565847,-0.596236,-0.493611,0.872312,6.29338,-0.26518,-0.0589053,1.17524,0.31339,1.08754,0.219894,3.45191,-1.00631,-0.0096629,0.0597019,-0.0398696,0.102635,-1.979,0.171401,0.232422,0.0120409,0.0072606,0.0029001,0.0135047,0.0022884,0.217249,-0.0211439,-0.00206733,-1.11826,0.0369017,-0.580003,1.16869,12.8771,6.15142,-0.348476,-0.147213,-34.0462,0.0366345,27.1255,1.87011,2.2503,0.050461,
0.0598805,-0.0397921,0.102794,-1.97877,0.184303,0.229481,0.0119778,0.00896502,0.00531585,0.00825324,-0.00128237,0.310099,-0.0908486,-0.000879421,-0.773064,-0.816835,-0.704278,1.0283,3.08773,2.34997,-0.108747,0.987318,0.246668,0.895455,0.364121,3.82175,-1.12446,-0.00770098,0.0597019,-0.0398696,0.102635,-1.979,0.171401,0.232422,0.0120409,0.0072606,0.0029001,0.0135047,0.0022884,0.217249,-0.0211439,-0.00206733,0,0,0,0,0,0,0,-0.147213,-34.0462,0.0366345,27.1255,1.87011,2.2503,0.050461,
0.0599098,-0.0397973,0.102821,-1.97873,0.18692,0.2289,0.0119607,0.00790429,0.00412419,0.00727877,5.66331e-05,0.313485,-0.0872012,-0.0011312,-0.662951,-0.744786,-0.609042,0.836875,2.11656,2.27962,-0.157365,0.749615,0.192474,0.650065,0.525619,4.09458,-1.2071,-0.0141134,0.0597019,-0.0398696,0.102635,-1.979,0.171401,0.232422,0.0120409,0.0072606,0.0029001,0.0135047,0.0022884,0.217249,-0.0211439,-0.00206733,0,0,0,0,0,0,0,-0.147213,-34.0462,0.0366345,27.1255,1.87011,2.2503,0.050461,
0.0599434,-0.0398152,0.10286,-1.97869,0.189344,0.228418,0.0119467,0.00716441,0.00285031,0.00680446,0.000903036,0.311396,-0.0818275,-0.00125388,-0.462428,-0.796174,-0.296443,0.529002,-1.3058,3.35861,-0.0766711,0.655906,-0.018811,0.571953,0.592439,3.78591,-1.02595,-0.0108969,0.0597019,-0.0398696,0.102635,-1.979,0.171401,0.232422,0.0120409,0.0072606,0.0029001,0.0135047,0.0022884,0.217249,-0.0211439,-0.00206733,0,0,0,0,0,0,0,-0.147213,-34.0462,0.0366345,27.1255,1.87011,2.2503,0.050461,
0.0598805,-0.0397921,0.102794,-1.97877,0.184303,0.229481,0.0119778,0.00653501,0.00229787,0.00619274,0.00178218,0.315089,-0.0806237,-0.00131818,-0.393376,-0.345276,-0.382325,0.549466,2.30803,0.752331,-0.0401903,0.289286,-0.219389,0.260921,0.704612,3.27106,-0.690489,-0.0159435,0.0597969,-0.0398528,0.102808,-1.97896,0.179938,0.232209,0.0120381,0.000376042,-0.00335836,0.00241065,0.00278149,0.254422,0.00354932,-0.000922968,-0.86057,-0.782307,-1.38675,0.0616364,4.64672,3.08666,0.143045,-0.0718349,-33.225,0.0882092,26.7764,1.90033,2.07177,0.0440523,
0.0598836,-0.0400353,0.102916,-1.9786,0.191953,0.231015,0.0119537,0.00606252,0.00075733,0.00595196,0.00278273,0.291038,-0.0669407,-0.00138841,-0.295307,-0.962836,-0.150491,0.625342,-15.0316,8.55187,-0.0438935,0.176195,-0.290037,0.146263,0.739765,3.22593,-0.643378,-0.0216445,0.0597969,-0.0398528,0.102808,-1.97896,0.179938,0.232209,0.0120381,0.000376042,-0.00335836,0.00241065,0.00278149,0.254422,0.00354932,-0.000922968,0,0,0,0,0,0,0,-0.0718349,-33.225,0.0882092,26.7764,1.90033,2.07177,0.0440523,
0.0599155,-0.0400798,0.102955,-1.97855,0.193428,0.230942,0.0119396,0.00564629,-0.000506722,0.00572935,0.00358691,0.269718,-0.0553709,-0.00146279,-0.260146,-0.790033,-0.139133,0.502614,-13.325,7.23117,-0.0464873,0.146444,-0.526679,0.228123,0.666381,2.64521,-0.362929,-0.02036,0.0597969,-0.0398528,0.102808,-1.97896,0.179938,0.232209,0.0120381,0.000376042,-0.00335836,0.00241065,0.00278149,0.254422,0.00354932,-0.000922968,0,0,0,0,0,0,0,-0.0718349,-33.225,0.0882092,26.7764,1.90033,2.07177,0.0440523,
0.0599445,-0.040125,0.102991,-1.97849,0.19485,0.230887,0.0119251,0.00524317,-0.00153625,0.00548596,0.00423747,0.251313,-0.0456876,-0.00153209,-0.251947,-0.643457,-0.152117,0.406599,-11.5029,6.05203,-0.0433111,0.0916508,-0.558884,0.177952,0.712454,1.68086,-0.0248705,-0.0185421,0.0597969,-0.0398528,0.102808,-1.97896,0.179938,0.232209,0.0120381,0.000376042,-0.00335836,0.00241065,0.00278149,0.254422,0.00354932,-0.000922968,0,0,0,0,0,0,0,-0.0718349,-33.225,0.0882092,26.7764,1.90033,2.07177,0.0440523,
0.0599204,-0.0400356,0.102964,-1.97867,0.187698,0.232115,0.0119712,0.00476785,-0.00232104,0.0051364,0.00484838,0.236375,-0.0370907,-0.00159082,-0.297077,-0.490493,-0.218475,0.381822,-9.33644,5.37309,-0.036707,0.0881662,-0.564055,0.175877,0.713324,1.65523,-0.0203371,-0.0184822,0.0597921,-0.0399347,0.102811,-1.97873,0.187354,0.232305,0.0120436,0.00197861,-0.00497658,0.000295075,0.0137402,0.163405,-2.67363e-05,-0.000304885,0.20032,-0.202278,-0.264447,1.36984,-11.3771,-0.447007,0.0772604,-0.119442,-33.3995,-0.0387439,27.0264,1.66229,2.17797,-0.0026396,
0.0599409,-0.0400806,0.102992,-1.97862,0.189084,0.232093,0.0119565,0.00432833,-0.00298056,0.00479956,0.00532844,0.223739,-0.0302022,-0.00164084,-0.274698,-0.4122,-0.210525,0.300036,-7.89766,4.30531,-0.0312614,0.0881662,-0.564055,0.175877,0.713324,1.65523,-0.0203371,-0.0184822,0.0597921,-0.0399347,0.102811,-1.97873,0.187354,0.232305,0.0120436,0.00197861,-0.00497658,0.000295075,0.0137402,0.163405,-2.67363e-05,-0.000304885,0,0,0,0,0,0,0,-0.119442,-33.3995,-0.0387439,27.0264,1.66229,2.17797,-0.0026396,
0.0599593,-0.0401263,0.103017,-1.97856,0.19045,0.232073,0.0119417,0.00392156,-0.00352645,0.00447636,0.00570567,0.213143,-0.0246759,-0.00168224,-0.254234,-0.341182,-0.201999,0.235765,-6.62237,3.45391,-0.0258745,0.0881662,-0.564055,0.175877,0.713324,1.65523,-0.0203371,-0.0184822,0.0597921,-0.0399347,0.102811,-1.97873,0.187354,0.232305,0.0120436,0.00197861,-0.00497658,0.000295075,0.0137402,0.163405,-2.67363e-05,-0.000304885,0,0,0,0,0,0,0,-0.119442,-33.3995,-0.0387439,27.0264,1.66229,2.17797,-0.0026396,
0.0599757,-0.0401724,0.103041,-1.9785,0.191802,0.232053,0.0119269,0.00354774,-0.00397335,0.00417051,0.00600189,0.204306,-0.0202369,-0.00171587,-0.233633,-0.279308,-0.191157,0.185139,-5.52349,2.77436,-0.0210198,0.0881662,-0.564055,0.175877,0.713324,1.65523,-0.0203371,-0.0184822,0.0597921,-0.0399347,0.102811,-1.97873,0.187354,0.232305,0.0120436,0.00197861,-0.00497658,0.000295075,0.0137402,0.163405,-2.67363e-05,-0.000304885,0,0,0,0,0,0,0,-0.119442,-33.3995,-0.0387439,27.0264,1.66229,2.17797,-0.0026396,
0.05982,-0.0401955,0.102874,-1.97839,0.193956,0.232366,0.0119696,0.00299538,-0.00444481,0.00367133,0.00634411,0.196345,-0.0161472,-0.00174123,-0.345228,-0.294666,-0.311989,0.213886,-4.97524,2.5561,-0.0158513,0.0881662,-0.564055,0.175877,0.713324,1.65523,-0.0203371,-0.0184822,0.0597921,-0.0399347,0.102811,-1.97873,0.187354,0.232305,0.0120436,0.00197861,-0.00497658,0.000295075,0.0137402,0.163405,-2.67363e-05,-0.000304885,0,0,0,0,0,0,0,-0.119442,-33.3995,-0.0387439,27.0264,1.66229,2.17797,-0.0026396,
0.0598266,-0.0402453,0.102888,-1.97833,0.195269,0.232364,0.0119549,0.00256082,-0.00480022,0.00328038,0.00659089,0.189893,-0.0129669,-0.00176133,-0.271601,-0.222128,-0.244341,0.15424,-4.03251,1.98767,-0.012561,0.0859259,-0.560043,0.174412,0.705509,1.64982,-0.0277304,-0.0184079,0.0597666,-0.0400594,0.102791,-1.97828,0.189023,0.233811,0.0120386,0.00235519,-0.00805077,0.00129105,0.0120296,-0.00456005,0.0672135,-0.000922818,0.0470727,-0.384273,0.124497,-0.213824,-20.9957,8.40503,-0.0772417,-0.40112,-32.8243,-0.435472,26.6296,1.44256,2.25762,0.0303194,
0.0598334,-0.0402944,0.102902,-1.97827,0.196578,0.232359,0.0119402,0.00221923,-0.00506666,0.00297473,0.00676629,0.184645,-0.0104929,-0.00177728,-0.213493,-0.166526,-0.191032,0.109623,-3.28019,1.54625,-0.00996858,0.0859259,-0.560043,0.174412,0.705509,1.64982,-0.0277304,-0.0184079,0.0597666,-0.0400594,0.102791,-1.97828,0.189023,0.233811,0.0120386,0.00235519,-0.00805077,0.00129105,0.0120296,-0.00456005,0.0672135,-0.000922818,0,0,0,0,0,0,0,-0.40112,-32.8243,-0.435472,26.6296,1.44256,2.25762,0.0303194,
0.059619,-0.0403442,0.102685,-1.9779,0.193518,0.234801,0.0119502,0.00110849,-0.00536576,0.00189425,0.00711853,0.176704,-0.00639607,-0.00179998,-0.694209,-0.186941,-0.675301,0.22015,-4.96317,2.56054,-0.0141895,0.0859259,-0.560043,0.174412,0.705509,1.64982,-0.0277304,-0.0184079,0.0597666,-0.0400594,0.102791,-1.97828,0.189023,0.233811,0.0120386,0.00235519,-0.00805077,0.00129105,0.0120296,-0.00456005,0.0672135,-0.000922818,0,0,0,0,0,0,0,-0.40112,-32.8243,-0.435472,26.6296,1.44256,2.25762,0.0303194,
0.0595976,-0.0403953,0.10267,-1.97784,0.194722,0.234854,0.0119354,0.000350497,-0.0055713,0.00115855,0.00733976,0.171457,-0.0037925,-0.00181016,-0.473747,-0.128459,-0.459813,0.138272,-3.27939,1.62723,-0.00636131,0.0859259,-0.560043,0.174412,0.705509,1.64982,-0.0277304,-0.0184079,0.0597666,-0.0400594,0.102791,-1.97828,0.189023,0.233811,0.0120386,0.00235519,-0.00805077,0.00129105,0.0120296,-0.00456005,0.0672135,-0.000922818,0,0,0,0,0,0,0,-0.40112,-32.8243,-0.435472,26.6296,1.44256,2.25762,0.0303194,
0.0595811,-0.0404454,0.102661,-1.97777,0.195954,0.234887,0.0119207,-0.000132181,-0.00570832,0.00069336,0.00746539,0.167961,-0.0021965,-0.0018143,-0.301673,-0.0856386,-0.290743,0.0785186,-2.18458,0.997499,-0.00258641,0.0860323,-0.554295,0.175171,0.694822,1.65063,-0.0382637,-0.0183546,0.0597853,-0.0401962,0.102796,-1.97794,0.189024,0.235564,0.0120429,0.00491131,-0.0028,-0.00433178,0.0115362,-0.00598769,0.0429636,0.000732157,0.319516,0.656346,-0.702854,-0.0616855,-0.178456,-3.03124,0.206872,-0.829586,-32.5227,-0.685411,26.1575,1.13128,2.23748,-0.00996382,
0.059569,-0.0404946,0.102656,-1.97771,0.197204,0.234906,0.0119061,-0.000408571,-0.00579547,0.000431438,0.00752286,0.165614,-0.00127687,-0.00181577,-0.172744,-0.0544685,-0.163701,0.0359161,-1.46725,0.574768,-0.00091864,0.0860323,-0.554295,0.175171,0.694822,1.65063,-0.0382637,-0.0183546,0.0597853,-0.0401962,0.102796,-1.97794,0.189024,0.235564,0.0120429,0.00491131,-0.0028,-0.00433178,0.0115362,-0.00598769,0.0429636,0.000732157,0,0,0,0,0,0,0,-0.829586,-32.5227,-0.685411,26.1575,1.13128,2.23748,-0.00996382,
0.0596129,-0.0403873,0.102664,-1.97765,0.193464,0.236162,0.0119562,-0.00105281,-0.00564174,-0.000197958,0.00743848,0.16123,-0.000133424,-0.00182719,-0.402651,0.0960785,-0.393372,-0.0527367,-2.73994,0.714656,-0.00713519,0.0860323,-0.554295,0.175171,0.694822,1.65063,-0.0382637,-0.0183546,0.0597853,-0.0401962,0.102796,-1.97794,0.189024,0.235564,0.0120429,0.00491131,-0.0028,-0.00433178,0.0115362,-0.00598769,0.0429636,0.000732157,0,0,0,0,0,0,0,-0.829586,-32.5227,-0.685411,26.1575,1.13128,2.23748,-0.00996382,
0.0595897,-0.0404283,0.102648,-1.97759,0.19466,0.236179,0.0119415,-0.00142266,-0.00553701,-0.000558017,0.00736281,0.158866,0.00032249,-0.00182918,-0.231157,0.0654576,-0.225037,-0.0472931,-1.47724,0.284946,-0.00124549,0.0860323,-0.554295,0.175171,0.694822,1.65063,-0.0382637,-0.0183546,0.0597853,-0.0401962,0.102796,-1.97794,0.189024,0.235564,0.0120429,0.00491131,-0.0028,-0.00433178,0.0115362,-0.00598769,0.0429636,0.000732157,0,0,0,0,0,0,0,-0.829586,-32.5227,-0.685411,26.1575,1.13128,2.23748,-0.00996382,
0.0595718,-0.0404698,0.102637,-1.97754,0.195884,0.236184,0.0119269,-0.0015841,-0.00546931,-0.000712168,0.00729339,0.157714,0.000364665,-0.00182734,-0.100898,0.0423133,-0.0963447,-0.0433891,-0.720035,0.0263594,0.00114951,0.0861631,-0.549204,0.175488,0.687869,1.65132,-0.0451501,-0.0183196,0.0596223,-0.0402607,0.1027,-1.97773,0.188997,0.236743,0.0120433,-0.0038531,-0.000491318,-0.0018491,0.00597878,-0.00203562,0.0250532,0.000699421,-1.09555,0.288586,0.310335,-0.694672,0.49401,-2.2388,-0.00409203,-0.40112,-32.7251,-0.435472,26.5027,1.20453,2.27685,-0.00996382,
0.0595587,-0.040512,0.102631,-1.97748,0.197128,0.236179,0.0119124,-0.00159566,-0.00542881,-0.00071762,0.00722911,0.157274,0.000167991,-0.00182442,-0.00722432,0.0253122,-0.00340753,-0.0401703,-0.275025,-0.122921,0.00182562,0.0861631,-0.549204,0.175488,0.687869,1.65132,-0.0451501,-0.0183196,0.0596223,-0.0402607,0.1027,-1.97773,0.188997,0.236743,0.0120433,-0.0038531,-0.000491318,-0.0018491,0.00597878,-0.00203562,0.0250532,0.000699421,0,0,0,0,0,0,0,-0.40112,-32.7251,-0.435472,26.5027,1.20453,2.27685,-0.00996382,
0.0594023,-0.0403697,0.102521,-1.97753,0.193394,0.236983,0.0119592,-0.00211555,-0.00505705,-0.00123042,0.00693836,0.154253,2.71788e-05,-0.00182934,-0.324934,0.232352,-0.320498,-0.181723,-1.88825,-0.0880079,-0.00307364,0.0861631,-0.549204,0.175488,0.687869,1.65132,-0.0451501,-0.0183196,0.0596223,-0.0402607,0.1027,-1.97773,0.188997,0.236743,0.0120433,-0.0038531,-0.000491318,-0.0018491,0.00597878,-0.00203562,0.0250532,0.000699421,0,0,0,0,0,0,0,-0.40112,-32.7251,-0.435472,26.5027,1.20453,2.27685,-0.00996382,
0.0593756,-0.0404009,0.102502,-1.97748,0.194579,0.236968,0.0119447,-0.00235818,-0.00482638,-0.00146938,0.00674758,0.153017,-0.000333363,-0.00182751,-0.151643,0.144169,-0.149355,-0.119235,-0.772425,-0.225339,0.00114248,0.0861631,-0.549204,0.175488,0.687869,1.65132,-0.0451501,-0.0183196,0.0596223,-0.0402607,0.1027,-1.97773,0.188997,0.236743,0.0120433,-0.0038531,-0.000491318,-0.0018491,0.00597878,-0.00203562,0.0250532,0.000699421,0,0,0,0,0,0,0,-0.40112,-32.7251,-0.435472,26.5027,1.20453,2.27685,-0.00996382,
0.0593552,-0.0404345,0.102489,-1.97743,0.195794,0.236948,0.0119302,-0.00239765,-0.00469895,-0.00150652,0.00662644,0.152809,-0.000785377,-0.00182351,-0.024669,0.0796386,-0.0232102,-0.0757159,-0.130273,-0.282509,0.00250009,0.0860822,-0.546626,0.175389,0.685131,1.65162,-0.0479349,-0.0183054,0.0594599,-0.0402766,0.102626,-1.97767,0.188964,0.237251,0.0120392,-0.00526131,-0.00190516,-0.00601937,-0.0012965,-0.000859343,0.00612736,-0.00068965,-0.176027,-0.17673,-0.521284,-0.90941,0.147034,-2.36573,-0.173634,0.360599,-32.6497,0.211195,26.5305,1.41784,2.26403,0.0239107,
0.0591984,-0.0403483,0.102405,-1.97754,0.19329,0.23711,0.0119572,-0.00285616,-0.0042828,-0.00196096,0.00623825,0.150363,-0.00168737,-0.00182476,-0.286565,0.260096,-0.284023,-0.242615,-1.52876,-0.563744,-0.000781432,0.0860822,-0.546626,0.175389,0.685131,1.65162,-0.0479349,-0.0183054,0.0594599,-0.0402766,0.102626,-1.97767,0.188964,0.237251,0.0120392,-0.00526131,-0.00190516,-0.00601937,-0.0012965,-0.000859343,0.00612736,-0.00068965,0,0,0,0,0,0,0,0.360599,-32.6497,0.211195,26.5305,1.41784,2.26403,0.0239107,
0.0591688,-0.0403729,0.102382,-1.9775,0.194464,0.237067,0.0119427,-0.00302504,-0.00404036,-0.00212846,0.00601224,0.14964,-0.00241779,-0.00182121,-0.10555,0.151523,-0.104688,-0.14126,-0.451453,-0.456513,0.00221528,0.0860822,-0.546626,0.175389,0.685131,1.65162,-0.0479349,-0.0183054,0.0594599,-0.0402766,0.102626,-1.97767,0.188964,0.237251,0.0120392,-0.00526131,-0.00190516,-0.00601937,-0.0012965,-0.000859343,0.00612736,-0.00068965,0,0,0,0,0,0,0,0.360599,-32.6497,0.211195,26.5305,1.41784,2.26403,0.0239107,
0.0591461,-0.0404007,0.102367,-1.97746,0.195671,0.237025,0.0119283,-0.00298763,-0.00392706,-0.00209052,0.0058972,0.149891,-0.00299161,-0.00181663,0.0233792,0.0708136,0.0237095,-0.0718956,0.15693,-0.358638,0.00286316,0.0860822,-0.546626,0.175389,0.685131,1.65162,-0.0479349,-0.0183054,0.0594599,-0.0402766,0.102626,-1.97767,0.188964,0.237251,0.0120392,-0.00526131,-0.00190516,-0.00601937,-0.0012965,-0.000859343,0.00612736,-0.00068965,0,0,0,0,0,0,0,0.360599,-32.6497,0.211195,26.5305,1.41784,2.26403,0.0239107,
0.0591292,-0.0404312,0.102357,-1.97741,0.196901,0.236983,0.011914,-0.00281197,-0.00390621,-0.0019143,0.0058567,0.150656,-0.00343173,-0.00181265,0.109786,0.0130295,0.110137,-0.0253167,0.477628,-0.275075,0.00249181,0.0860607,-0.544967,0.174979,0.685797,1.65178,-0.0474796,-0.018308,0.0593086,-0.0402118,0.102565,-1.9777,0.188917,0.237244,0.0120421,-0.00455089,-0.000401383,0.000916506,-0.00400558,-0.00206549,0.000617237,-0.000625594,0.0888033,0.187972,0.866985,-0.338635,-0.150768,-0.688766,0.00800702,0.0313145,-33.1218,-0.16173,26.6296,1.54602,2.38305,-0.0026396,
0.0591174,-0.0402426,0.102416,-1.97762,0.193287,0.236948,0.0119584,-0.00299313,-0.00351788,-0.00209097,0.00549615,0.148886,-0.00430094,-0.00181982,-0.113224,0.242709,-0.110418,-0.225344,-1.1058,-0.543258,-0.00448644,0.0860607,-0.544967,0.174979,0.685797,1.65178,-0.0474796,-0.018308,0.0593086,-0.0402118,0.102565,-1.9777,0.188917,0.237244,0.0120421,-0.00455089,-0.000401383,0.000916506,-0.00400558,-0.00206549,0.000617237,-0.000625594,0,0,0,0,0,0,0,0.0313145,-33.1218,-0.16173,26.6296,1.54602,2.38305,-0.0026396,
0.0590938,-0.040263,0.102399,-1.97758,0.194469,0.23689,0.0119439,-0.00298294,-0.00332258,-0.00207975,0.00531837,0.148672,-0.0049041,-0.00181999,0.00637221,0.122061,0.00701399,-0.11111,-0.134258,-0.376973,-0.000105576,0.0860607,-0.544967,0.174979,0.685797,1.65178,-0.0474796,-0.018308,0.0593086,-0.0402118,0.102565,-1.9777,0.188917,0.237244,0.0120421,-0.00455089,-0.000401383,0.000916506,-0.00400558,-0.00206549,0.000617237,-0.000625594,0,0,0,0,0,0,0,0.0313145,-33.1218,-0.16173,26.6296,1.54602,2.38305,-0.0026396,
0.0590759,-0.0402873,0.102389,-1.97754,0.195683,0.236835,0.0119294,-0.00283513,-0.00326708,-0.0019322,0.00526277,0.149294,-0.00529257,-0.00181769,0.0923786,0.0346891,0.09222,-0.0347478,0.388915,-0.242795,0.00143811,0.0860607,-0.544967,0.174979,0.685797,1.65178,-0.0474796,-0.018308,0.0593086,-0.0402118,0.102565,-1.9777,0.188917,0.237244,0.0120421,-0.00455089,-0.000401383,0.000916506,-0.00400558,-0.00206549,0.000617237,-0.000625594,0,0,0,0,0,0,0,0.0313145,-33.1218,-0.16173,26.6296,1.54602,2.38305,-0.0026396,
0.0590628,-0.0403151,0.102383,-1.9775,0.196919,0.236784,0.0119149,-0.00259659,-0.00330866,-0.00169409,0.00528649,0.150323,-0.00551596,-0.00181505,0.149088,-0.0259857,0.148816,0.0148227,0.643142,-0.139617,0.00164843,0.0860572,-0.543891,0.174657,0.6867,1.65226,-0.0469385,-0.0183113,0.059186,-0.0401606,0.102521,-1.97777,0.18879,0.237236,0.0120385,0.000373288,0.00648682,-0.00166982,-0.00170362,-0.00450811,-0.00203549,-0.000749685,0.615522,0.861026,-0.323291,0.287745,-0.305328,-0.33159,-0.0155114,0.25745,-32.8481,0.139784,26.4035,1.63757,2.4096,0.0303194,
0.0590108,-0.0401021,0.102387,-1.97772,0.193151,0.23691,0.0119536,-0.00278473,-0.00281766,-0.00187838,0.00490722,0.148606,-0.00617538,-0.00182272,-0.11759,0.306875,-0.115181,-0.237045,-1.07306,-0.412143,-0.0047911,0.0860572,-0.543891,0.174657,0.6867,1.65226,-0.0469385,-0.0183113,0.059186,-0.0401606,0.102521,-1.97777,0.18879,0.237236,0.0120385,0.000373288,0.00648682,-0.00166982,-0.00170362,-0.00450811,-0.00203549,-0.000749685,0,0,0,0,0,0,0,0.25745,-32.8481,0.139784,26.4035,1.63757,2.4096,0.0303194,
0.0589883,-0.0401156,0.102372,-1.97769,0.194333,0.236843,0.0119391,-0.00278942,-0.00259105,-0.00188305,0.00474105,0.148435,-0.00659649,-0.00182295,-0.00292961,0.141632,-0.00291701,-0.103852,-0.106956,-0.263189,-0.00014638,0.0860572,-0.543891,0.174657,0.6867,1.65226,-0.0469385,-0.0183113,0.059186,-0.0401606,0.102521,-1.97777,0.18879,0.237236,0.0120385,0.000373288,0.00648682,-0.00166982,-0.00170362,-0.00450811,-0.00203549,-0.000749685,0,0,0,0,0,0,0,0.25745,-32.8481,0.139784,26.4035,1.63757,2.4096,0.0303194,
0.0589712,-0.0401346,0.102362,-1.97765,0.195547,0.236782,0.0119246,-0.00266021,-0.00254827,-0.00175527,0.00471636,0.149094,-0.00681639,-0.00182052,0.0807545,0.0267356,0.0798629,-0.0154363,0.411925,-0.137436,0.00152353,0.0860572,-0.543891,0.174657,0.6867,1.65226,-0.0469385,-0.0183113,0.059186,-0.0401606,0.102521,-1.97777,0.18879,0.237236,0.0120385,0.000373288,0.00648682,-0.00166982,-0.00170362,-0.00450811,-0.00203549,-0.000749685,0,0,0,0,0,0,0,0.25745,-32.8481,0.139784,26.4035,1.63757,2.4096,0.0303194,
0.0590108,-0.0401021,0.102387,-1.97772,0.193151,0.23691,0.0119536,-0.00283563,-0.00220935,-0.00192732,0.00445111,0.147623,-0.00721573,-0.00182709,-0.109637,0.211826,-0.107534,-0.165778,-0.919445,-0.249589,-0.00410831,0.0860525,-0.541007,0.174048,0.687767,1.6527,-0.0462887,-0.0183153,0.0591079,-0.0400476,0.102479,-1.97781,0.188678,0.237249,0.0120444,0.000377514,0.00762655,-0.00124368,-0.00147742,-0.00251466,-0.000295588,0.000238997,0.000528294,0.142466,0.0532676,0.0282749,0.249182,0.217487,0.123585,0.66608,-32.9234,0.588087,26.1298,1.61926,2.2503,-0.0227812,
0.0589883,-0.0401156,0.102372,-1.97769,0.194333,0.236843,0.0119391,-0.00283014,-0.0021044,-0.0019222,0.00437617,0.147648,-0.00742876,-0.00182645,0.00343287,0.0655935,0.00320058,-0.0468391,0.0159395,-0.133146,0.000399851,0.0860525,-0.541007,0.174048,0.687767,1.6527,-0.0462887,-0.0183153,0.0591079,-0.0400476,0.102479,-1.97781,0.188678,0.237249,0.0120444,0.000377514,0.00762655,-0.00124368,-0.00147742,-0.00251466,-0.000295588,0.000238997,0,0,0,0,0,0,0,0.66608,-32.9234,0.588087,26.1298,1.61926,2.2503,-0.0227812,
0.0589712,-0.0401346,0.102362,-1.97765,0.195547,0.236782,0.0119246,-0.00269279,-0.00215895,-0.00178659,0.00442445,0.148465,-0.0074822,-0.00182331,0.0858445,-0.0340955,0.0847569,0.0301743,0.510241,-0.0334019,0.00196052,0.0860525,-0.541007,0.174048,0.687767,1.6527,-0.0462887,-0.0183153,0.0591079,-0.0400476,0.102479,-1.97781,0.188678,0.237249,0.0120444,0.000377514,0.00762655,-0.00124368,-0.00147742,-0.00251466,-0.000295588,0.000238997,0,0,0,0,0,0,0,0.66608,-32.9234,0.588087,26.1298,1.61926,2.2503,-0.0227812,
0.0589586,-0.0401582,0.102356,-1.97761,0.196782,0.236725,0.0119101,-0.0024675,-0.00231698,-0.0015632,0.0045487,0.149651,-0.00741156,-0.00181989,0.140808,-0.0987707,0.139621,0.0776574,0.741482,0.0441508,0.00213658,0.0860525,-0.541007,0.174048,0.687767,1.6527,-0.0462887,-0.0183153,0.0591079,-0.0400476,0.102479,-1.97781,0.188678,0.237249,0.0120444,0.000377514,0.00762655,-0.00124368,-0.00147742,-0.00251466,-0.000295588,0.000238997,0,0,0,0,0,0,0,0.66608,-32.9234,0.588087,26.1298,1.61926,2.2503,-0.0227812,
0.0589376,-0.0399739,0.102351,-1.97777,0.193068,0.236947,0.0119598,-0.00266646,-0.00199008,-0.0017598,0.00431041,0.14813,-0.00765432,-0.00182681,-0.124352,0.204315,-0.122877,-0.148932,-0.950469,-0.151721,-0.00432372,0.0860525,-0.541007,0.174048,0.687767,1.6527,-0.0462887,-0.0183153,0.0591079,-0.0400476,0.102479,-1.97781,0.188678,0.237249,0.0120444,0.000377514,0.00762655,-0.00124368,-0.00147742,-0.00251466,-0.000295588,0.000238997,0,0,0,0,0,0,0,0.66608,-32.9234,0.588087,26.1298,1.61926,2.2503,-0.0227812,
0.0589156,-0.0399864,0.102336,-1.97774,0.194252,0.236882,0.0119452,-0.00268293,-0.00190302,-0.00177749,0.00425866,0.1481,-0.00775662,-0.00182644,-0.0102933,0.0544139,-0.0110554,-0.0323431,-0.0191212,-0.0639409,0.00023547,0.0860695,-0.539594,0.173687,0.688861,1.6529,-0.0454956,-0.0183199,0.059093,-0.0399698,0.10248,-1.9779,0.188637,0.237235,0.0120484,0.000287567,0.000659728,-0.00259624,-0.000779903,0.000297462,-0.00141947,0.00103819,-0.0112434,-0.870853,-0.16907,0.0871899,0.351515,-0.140485,0.0998996,0.309024,-33.2488,0.43733,26.8042,1.52221,2.39037,-0.0301054,
0.0588988,-0.0400046,0.102326,-1.9777,0.195467,0.236821,0.0119307,-0.00256564,-0.0019775,-0.00166266,0.00432684,0.14886,-0.00772982,-0.00182349,0.0733025,-0.0465493,0.0717671,0.0426148,0.475282,0.01675,0.00184076,0.0860695,-0.539594,0.173687,0.688861,1.6529,-0.0454956,-0.0183199,0.059093,-0.0399698,0.10248,-1.9779,0.188637,0.237235,0.0120484,0.000287567,0.000659728,-0.00259624,-0.000779903,0.000297462,-0.00141947,0.00103819,0,0,0,0,0,0,0,0.309024,-33.2488,0.43733,26.8042,1.52221,2.39037,-0.0301054,
0.0589156,-0.0400053,0.102343,-1.9778,0.193067,0.236962,0.0119647,-0.00275371,-0.00199928,-0.00184986,0.0043074,0.147619,-0.00763845,-0.0018292,-0.117544,-0.0136179,-0.116999,-0.0121542,-0.775595,0.0571086,-0.00357141,0.0860695,-0.539594,0.173687,0.688861,1.6529,-0.0454956,-0.0183199,0.059093,-0.0399698,0.10248,-1.9779,0.188637,0.237235,0.0120484,0.000287567,0.000659728,-0.00259624,-0.000779903,0.000297462,-0.00141947,0.00103819,0,0,0,0,0,0,0,0.309024,-33.2488,0.43733,26.8042,1.52221,2.39037,-0.0301054,
0.0588934,-0.0400264,0.102328,-1.97776,0.194255,0.236907,0.0119501,-0.00275739,-0.00212625,-0.00185535,0.0043965,0.147791,-0.00748751,-0.00182814,-0.00229437,-0.0793551,-0.00342986,0.0556873,0.107694,0.0943365,0.000663071,0.0860695,-0.539594,0.173687,0.688861,1.6529,-0.0454956,-0.0183199,0.059093,-0.0399698,0.10248,-1.9779,0.188637,0.237235,0.0120484,0.000287567,0.000659728,-0.00259624,-0.000779903,0.000297462,-0.00141947,0.00103819,0,0,0,0,0,0,0,0.309024,-33.2488,0.43733,26.8042,1.52221,2.39037,-0.0301054,
0.0588766,-0.0400513,0.102318,-1.97772,0.195474,0.236855,0.0119357,-0.00262746,-0.00232346,-0.00172793,0.00454972,0.148697,-0.00728393,-0.0018248,0.0812024,-0.123255,0.0796374,0.095765,0.565957,0.12724,0.00209213,0.0860732,-0.53741,0.173301,0.689486,1.65281,-0.0449996,-0.0183224,0.0591191,-0.0398794,0.102511,-1.97791,0.188674,0.237241,0.0120484,-0.00182364,-4.73541e-05,0.00405669,-4.83008e-05,0.00771276,-0.00234108,0.000690368,-0.263901,-0.0883852,0.831616,0.0914503,0.926913,-0.115202,-0.0434782,0.209842,-33.1218,0.211195,26.6058,1.30157,2.36382,-0.0301054,
0.0588643,-0.0400794,0.102313,-1.97768,0.196713,0.236807,0.0119212,-0.00240871,-0.00256286,-0.0015114,0.00473676,0.149933,-0.00704239,-0.00182126,0.136719,-0.149627,0.135328,0.116901,0.772311,0.150961,0.00221005,0.0860732,-0.53741,0.173301,0.689486,1.65281,-0.0449996,-0.0183224,0.0591191,-0.0398794,0.102511,-1.97791,0.188674,0.237241,0.0120484,-0.00182364,-4.73541e-05,0.00405669,-4.83008e-05,0.00771276,-0.00234108,0.000690368,0,0,0,0,0,0,0,0.209842,-33.1218,0.211195,26.6058,1.30157,2.36382,-0.0301054,
0.0589912,-0.0399327,0.102424,-1.9778,0.193245,0.236958,0.0119641,-0.00247697,-0.00252421,-0.00157754,0.00466914,0.148873,-0.00711033,-0.00182951,-0.042662,0.0241604,-0.041333,-0.0422631,-0.662369,-0.0424664,-0.00515314,0.0860732,-0.53741,0.173301,0.689486,1.65281,-0.0449996,-0.0183224,0.0591191,-0.0398794,0.102511,-1.97791,0.188674,0.237241,0.0120484,-0.00182364,-4.73541e-05,0.00405669,-4.83008e-05,0.00771276,-0.00234108,0.000690368,0,0,0,0,0,0,0,0.209842,-33.1218,0.211195,26.6058,1.30157,2.36382,-0.0301054,
0.0589738,-0.0399556,0.102414,-1.97776,0.194445,0.236902,0.0119494,-0.00241567,-0.00259156,-0.00151712,0.0047133,0.149102,-0.0070793,-0.00183009,0.0383105,-0.0420926,0.0377598,0.0275978,0.143415,0.0193965,-0.000364489,0.0860732,-0.53741,0.173301,0.689486,1.65281,-0.0449996,-0.0183224,0.0591191,-0.0398794,0.102511,-1.97791,0.188674,0.237241,0.0120484,-0.00182364,-4.73541e-05,0.00405669,-4.83008e-05,0.00771276,-0.00234108,0.000690368,0,0,0,0,0,0,0,0.209842,-33.1218,0.211195,26.6058,1.30157,2.36382,-0.0301054,
0.0589608,-0.0399819,0.102408,-1.97772,0.195674,0.23685,0.0119348,-0.00225843,-0.00273189,-0.00136169,0.00482542,0.149985,-0.00696592,-0.00182774,0.098279,-0.0877098,0.0971431,0.0700747,0.551809,0.0708651,0.00147009,0.0860734,-0.536147,0.173053,0.68997,1.65281,-0.0446501,-0.0183243,0.0591423,-0.0398246,0.102521,-1.97793,0.188683,0.237242,0.0120437,-0.000258504,0.00414102,-0.000881501,0.000305221,0.00167654,0.000855609,0.000471534,0.195642,0.523547,-0.617273,0.0441902,-0.754528,0.399587,-0.0273542,0.0313145,-33.3241,0.187391,26.7764,1.30798,2.3565,-0.0163725,
0.0589516,-0.0400112,0.102406,-1.97768,0.19692,0.236801,0.0119203,-0.00203747,-0.00291835,-0.00114246,0.00497542,0.151149,-0.00679219,-0.00182473,0.138102,-0.116535,0.137021,0.0937524,0.727552,0.10858,0.00187781,0.0860734,-0.536147,0.173053,0.68997,1.65281,-0.0446501,-0.0183243,0.0591423,-0.0398246,0.102521,-1.97793,0.188683,0.237242,0.0120437,-0.000258504,0.00414102,-0.000881501,0.000305221,0.00167654,0.000855609,0.000471534,0,0,0,0,0,0,0,0.0313145,-33.3241,0.187391,26.7764,1.30798,2.3565,-0.0163725,
0.0589746,-0.0398154,0.102394,-1.97784,0.193139,0.237006,0.0119595,-0.00230569,-0.00264828,-0.00140914,0.00478413,0.1495,-0.0068688,-0.00183076,-0.167642,0.168789,-0.166675,-0.119556,-1.03117,-0.0478852,-0.0037697,0.0860734,-0.536147,0.173053,0.68997,1.65281,-0.0446501,-0.0183243,0.0591423,-0.0398246,0.102521,-1.97793,0.188683,0.237242,0.0120437,-0.000258504,0.00414102,-0.000881501,0.000305221,0.00167654,0.000855609,0.000471534,0,0,0,0,0,0,0,0.0313145,-33.3241,0.187391,26.7764,1.30798,2.3565,-0.0163725,
0.0589532,-0.0398334,0.102379,-1.97781,0.194328,0.23695,0.0119449,-0.00237953,-0.0025668,-0.00148446,0.00474439,0.149327,-0.0068758,-0.00182982,-0.0461461,0.0509272,-0.047073,-0.0248367,-0.107537,-0.00437175,0.000592448,0.0860734,-0.536147,0.173053,0.68997,1.65281,-0.0446501,-0.0183243,0.0591423,-0.0398246,0.102521,-1.97793,0.188683,0.237242,0.0120437,-0.000258504,0.00414102,-0.000881501,0.000305221,0.00167654,0.000855609,0.000471534,0,0,0,0,0,0,0,0.0313145,-33.3241,0.187391,26.7764,1.30798,2.3565,-0.0163725,
0.058937,-0.0398558,0.10237,-1.97777,0.195547,0.236898,0.0119304,-0.00231027,-0.00261502,-0.00141759,0.0048016,0.149946,-0.00680917,-0.00182646,0.0432876,-0.0301337,0.0417923,0.0357556,0.386621,0.0416409,0.00209462,0.0860724,-0.536831,0.173185,0.689823,1.65279,-0.044736,-0.0183238,0.059146,-0.0398472,0.102541,-1.97793,0.188687,0.237233,0.0120402,0.000370013,0.00238976,0.00241053,-0.00124484,0.00143475,-4.08105e-05,-0.00151106,0.0785645,-0.218908,0.411503,-0.193757,-0.0302237,-0.112052,-0.247824,0.134464,-32.8719,0.139784,26.6296,1.28326,2.39678,0.0239107,
0.0589252,-0.0398821,0.102365,-1.97772,0.196787,0.236849,0.0119159,-0.00214347,-0.00274799,-0.00125305,0.00491754,0.150945,-0.00668027,-0.00182286,0.104246,-0.0831116,0.102837,0.0724611,0.624083,0.0805638,0.00225265,0.0860724,-0.536831,0.173185,0.689823,1.65279,-0.044736,-0.0183238,0.059146,-0.0398472,0.102541,-1.97793,0.188687,0.237233,0.0120402,0.000370013,0.00238976,0.00241053,-0.00124484,0.00143475,-4.08105e-05,-0.00151106,0,0,0,0,0,0,0,0.134464,-32.8719,0.139784,26.6296,1.28326,2.39678,0.0239107,
0.0590153,-0.0398553,0.102452,-1.97784,0.193174,0.236952,0.0119546,-0.00228718,-0.00254871,-0.00139299,0.00473896,0.149506,-0.0069023,-0.00183131,-0.0898174,0.124553,-0.0874618,-0.111611,-0.899382,-0.138768,-0.00528355,0.0860724,-0.536831,0.173185,0.689823,1.65279,-0.044736,-0.0183238,0.059146,-0.0398472,0.102541,-1.97793,0.188687,0.237233,0.0120402,0.000370013,0.00238976,0.00241053,-0.00124484,0.00143475,-4.08105e-05,-0.00151106,0,0,0,0,0,0,0,0.134464,-32.8719,0.139784,26.6296,1.28326,2.39678,0.0239107,
0.0589972,-0.0398744,0.102441,-1.9778,0.194369,0.236893,0.0119399,-0.00228389,-0.00251469,-0.0013896,0.00470954,0.149479,-0.00699418,-0.00183173,0.00205694,0.0212634,0.00211791,-0.0183873,-0.0163863,-0.0574233,-0.000263094,0.0860724,-0.536831,0.173185,0.689823,1.65279,-0.044736,-0.0183238,0.059146,-0.0398472,0.102541,-1.97793,0.188687,0.237233,0.0120402,0.000370013,0.00238976,0.00241053,-0.00124484,0.00143475,-4.08105e-05,-0.00151106,0,0,0,0,0,0,0,0.134464,-32.8719,0.139784,26.6296,1.28326,2.39678,0.0239107,
0.0589834,-0.0398977,0.102434,-1.97776,0.195593,0.236838,0.0119254,-0.00217026,-0.00259448,-0.00127723,0.00477495,0.150191,-0.00697217,-0.00182909,0.0710159,-0.0498717,0.0702286,0.0408804,0.444754,0.0137538,0.00165323,0.086063,-0.536407,0.173092,0.69004,1.65279,-0.0445643,-0.0183247,0.0591672,-0.0398268,0.102553,-1.97793,0.188689,0.237224,0.0120437,0.00690249,0.00136783,4.75923e-05,-0.000220054,0.0027265,-0.000560989,-0.000244234,0.81656,-0.127741,-0.295367,0.128098,0.161469,-0.0650223,0.158353,-0.0956386,-33.0504,-0.0109729,26.6772,1.29608,2.46911,-0.0163725,
0.0589736,-0.0399246,0.102432,-1.97772,0.196837,0.236786,0.0119109,-0.00198144,-0.0027482,-0.00108985,0.00489733,0.151242,-0.00686169,-0.00182578,0.118012,-0.0960734,0.117112,0.076484,0.656835,0.0690491,0.00206939,0.086063,-0.536407,0.173092,0.69004,1.65279,-0.0445643,-0.0183247,0.0591672,-0.0398268,0.102553,-1.97793,0.188689,0.237224,0.0120437,0.00690249,0.00136783,4.75923e-05,-0.000220054,0.0027265,-0.000560989,-0.000244234,0,0,0,0,0,0,0,-0.0956386,-33.0504,-0.0109729,26.6772,1.29608,2.46911,-0.0163725,
0.0590762,-0.0398594,0.102503,-1.97783,0.193242,0.236945,0.0119574,-0.00204598,-0.00262073,-0.0011502,0.00476319,0.149992,-0.00702982,-0.00183573,-0.0403319,0.0796681,-0.0377138,-0.0838383,-0.781155,-0.105081,-0.00622193,0.086063,-0.536407,0.173092,0.69004,1.65279,-0.0445643,-0.0183247,0.0591672,-0.0398268,0.102553,-1.97793,0.188689,0.237224,0.0120437,0.00690249,0.00136783,4.75923e-05,-0.000220054,0.0027265,-0.000560989,-0.000244234,0,0,0,0,0,0,0,-0.0956386,-33.0504,-0.0109729,26.6772,1.29608,2.46911,-0.0163725,
0.0590616,-0.0398807,0.102496,-1.97779,0.194445,0.236887,0.0119427,-0.00200319,-0.00262928,-0.00110708,0.00476152,0.150073,-0.00707954,-0.00183682,0.0267435,-0.00534574,0.0269468,-0.00103879,0.0505247,-0.0310736,-0.000678688,0.086063,-0.536407,0.173092,0.69004,1.65279,-0.0445643,-0.0183247,0.0591672,-0.0398268,0.102553,-1.97793,0.188689,0.237224,0.0120437,0.00690249,0.00136783,4.75923e-05,-0.000220054,0.0027265,-0.000560989,-0.000244234,0,0,0,0,0,0,0,-0.0956386,-33.0504,-0.0109729,26.6772,1.29608,2.46911,-0.0163725,
0.0590506,-0.0399058,0.102492,-1.97775,0.195676,0.236832,0.0119281,-0.00187653,-0.00273155,-0.000981571,0.00484282,0.150831,-0.0070253,-0.00183433,0.0791603,-0.063915,0.0784442,0.0508099,0.474134,0.0339024,0.00155853,0.086063,-0.536407,0.173092,0.69004,1.65279,-0.0445643,-0.0183247,0.0591672,-0.0398268,0.102553,-1.97793,0.188689,0.237224,0.0120437,0.00690249,0.00136783,4.75923e-05,-0.000220054,0.0027265,-0.000560989,-0.000244234,0,0,0,0,0,0,0,-0.0956386,-33.0504,-0.0109729,26.6772,1.29608,2.46911,-0.0163725,
0.0590762,-0.0398594,0.102503,-1.97783,0.193242,0.236945,0.0119574,-0.00196204,-0.00260741,-0.00106357,0.00471958,0.149664,-0.0071607,-0.00184257,-0.0534462,0.0775867,-0.0512492,-0.0770249,-0.729856,-0.0846306,-0.00515351,0.086063,-0.536407,0.173092,0.69004,1.65279,-0.0445643,-0.0183247,0.0591672,-0.0398268,0.102553,-1.97793,0.188689,0.237224,0.0120437,0.00690249,0.00136783,4.75923e-05,-0.000220054,0.0027265,-0.000560989,-0.000244234,0,0,0,0,0,0,0,-0.0956386,-33.0504,-0.0109729,26.6772,1.29608,2.46911,-0.0163725,
0.0590616,-0.0398807,0.102496,-1.97779,0.194445,0.236887,0.0119427,-0.00193604,-0.00261863,-0.00103778,0.00472664,0.14981,-0.00718425,-0.00184229,0.016252,-0.00701092,0.0161184,0.00441196,0.0915641,-0.0147132,0.000176047,0.086063,-0.536407,0.173092,0.69004,1.65279,-0.0445643,-0.0183247,0.0591672,-0.0398268,0.102553,-1.97793,0.188689,0.237224,0.0120437,0.00690249,0.00136783,4.75923e-05,-0.000220054,0.0027265,-0.000560989,-0.000244234,0,0,0,0,0,0,0,-0.0956386,-33.0504,-0.0109729,26.6772,1.29608,2.46911,-0.0163725,
0.0590506,-0.0399058,0.102492,-1.97775,0.195676,0.236832,0.0119281,-0.00182281,-0.00272302,-0.00092613,0.00481491,0.150621,-0.00710906,-0.0018387,0.0707671,-0.0652472,0.0697815,0.0551705,0.506965,0.0469907,0.00224231,0.086063,-0.536407,0.173092,0.69004,1.65279,-0.0445643,-0.0183247,0.0591672,-0.0398268,0.102553,-1.97793,0.188689,0.237224,0.0120437,0.00690249,0.00136783,4.75923e-05,-0.000220054,0.0027265,-0.000560989,-0.000244234,0,0,0,0,0,0,0,-0.0956386,-33.0504,-0.0109729,26.6772,1.29608,2.46911,-0.0163725,
0.059043,-0.0399342,0.102491,-1.97771,0.196925,0.236781,0.0119136,-0.00164885,-0.00288734,-0.000753901,0.00495045,0.151719,-0.00695778,-0.00183436,0.108728,-0.1027,0.107643,0.0847117,0.68616,0.0945524,0.00271363,0.086063,-0.536407,0.173092,0.69004,1.65279,-0.0445643,-0.0183247,0.0591672,-0.0398268,0.102553,-1.97793,0.188689,0.237224,0.0120437,0.00690249,0.00136783,4.75923e-05,-0.000220054,0.0027265,-0.000560989,-0.000244234,0,0,0,0,0,0,0,-0.0956386,-33.0504,-0.0109729,26.6772,1.29608,2.46911,-0.0163725,
0.0590653,-0.039873,0.102497,-1.97784,0.193156,0.236965,0.0119573,-0.00188223,-0.00277114,-0.000984649,0.00483421,0.150154,-0.0070025,-0.00184104,-0.145866,0.0726232,-0.144217,-0.0726473,-0.977961,-0.0279537,-0.00417751,0.0860749,-0.536554,0.173115,0.690161,1.65284,-0.0444865,-0.0183252,0.0591919,-0.0398224,0.102582,-1.97794,0.188678,0.237223,0.0120429,0.00124571,-0.0002308,0.00208213,-0.000802037,-0.000416643,0.000405996,-0.000509736,-0.707098,-0.199829,0.254318,-0.0727479,-0.392893,0.120873,-0.0331878,0.0313145,-33.0226,0.0128308,26.705,1.35101,2.42974,-0.00996382,
0.0590474,-0.0398955,0.102486,-1.9778,0.194353,0.23691,0.0119427,-0.00195287,-0.00277834,-0.00105598,0.00484121,0.150032,-0.0069654,-0.00183987,-0.0441481,-0.00449572,-0.0445808,0.00437429,-0.076482,0.0231907,0.000733008,0.0860749,-0.536554,0.173115,0.690161,1.65284,-0.0444865,-0.0183252,0.0591919,-0.0398224,0.102582,-1.97794,0.188678,0.237223,0.0120429,0.00124571,-0.0002308,0.00208213,-0.000802037,-0.000416643,0.000405996,-0.000509736,0,0,0,0,0,0,0,0.0313145,-33.0226,0.0128308,26.705,1.35101,2.42974,-0.00996382,
0.0590339,-0.0399215,0.10248,-1.97776,0.195578,0.236859,0.0119281,-0.00189996,-0.00287217,-0.00100486,0.00492484,0.150666,-0.0068548,-0.00183584,0.0330695,-0.0586476,0.0319495,0.0522686,0.396417,0.0691239,0.00252102,0.0860749,-0.536554,0.173115,0.690161,1.65284,-0.0444865,-0.0183252,0.0591919,-0.0398224,0.102582,-1.97794,0.188678,0.237223,0.0120429,0.00124571,-0.0002308,0.00208213,-0.000802037,-0.000416643,0.000405996,-0.000509736,0,0,0,0,0,0,0,0.0313145,-33.0226,0.0128308,26.705,1.35101,2.42974,-0.00996382,
0.0590242,-0.0399505,0.102477,-1.97771,0.196823,0.236811,0.0119136,-0.00176088,-0.00302279,-0.000867562,0.00505297,0.151653,-0.00668802,-0.00183134,0.086924,-0.0941326,0.085811,0.0800794,0.616469,0.104239,0.00281017,0.0860749,-0.536554,0.173115,0.690161,1.65284,-0.0444865,-0.0183252,0.0591919,-0.0398224,0.102582,-1.97794,0.188678,0.237223,0.0120429,0.00124571,-0.0002308,0.00208213,-0.000802037,-0.000416643,0.000405996,-0.000509736,0,0,0,0,0,0,0,0.0313145,-33.0226,0.0128308,26.705,1.35101,2.42974,-0.00996382,
0.0590653,-0.039873,0.102497,-1.97784,0.193156,0.236965,0.0119573,-0.00197186,-0.0028795,-0.00107558,0.00491623,0.150101,-0.00678669,-0.00183863,-0.131862,0.0895538,-0.13001,-0.0854623,-0.96965,-0.0616737,-0.00455485,0.0860759,-0.53577,0.172981,0.690311,1.65285,-0.0443718,-0.0183257,0.059186,-0.0397948,0.102579,-1.97794,0.188677,0.237227,0.0120429,-0.00146349,0.00123761,0.00567343,-3.79131e-05,0.00679939,-0.00375945,-0.000170393,-0.33865,0.183551,0.448912,0.0955155,0.902004,-0.52068,0.0424179,0.25745,-33.0504,0.26277,26.6296,1.35742,2.40319,-0.00996382,
0.0590474,-0.0398955,0.102486,-1.9778,0.194353,0.23691,0.0119427,-0.00202457,-0.00286502,-0.00112872,0.00490683,0.14999,-0.00679275,-0.00183794,-0.0329448,0.0090487,-0.0332148,-0.0058777,-0.0698329,-0.00378536,0.000431138,0.0860759,-0.53577,0.172981,0.690311,1.65285,-0.0443718,-0.0183257,0.059186,-0.0397948,0.102579,-1.97794,0.188677,0.237227,0.0120429,-0.00146349,0.00123761,0.00567343,-3.79131e-05,0.00679939,-0.00375945,-0.000170393,0,0,0,0,0,0,0,0.25745,-33.0504,0.26277,26.6296,1.35742,2.40319,-0.00996382,
0.0590339,-0.0399215,0.10248,-1.97776,0.195578,0.236859,0.0119281,-0.00195732,-0.00294152,-0.00106305,0.00497733,0.150632,-0.00671668,-0.00183429,0.0420322,-0.047812,0.0410423,0.044067,0.401737,0.0475431,0.00227952,0.0860759,-0.53577,0.172981,0.690311,1.65285,-0.0443718,-0.0183257,0.059186,-0.0397948,0.102579,-1.97794,0.188677,0.237227,0.0120429,-0.00146349,0.00123761,0.00567343,-3.79131e-05,0.00679939,-0.00375945,-0.000170393,0,0,0,0,0,0,0,0.25745,-33.0504,0.26277,26.6296,1.35742,2.40319,-0.00996382,
0.0590752,-0.0398284,0.10251,-1.97785,0.193254,0.236914,0.0119578,-0.00207029,-0.00277219,-0.0011733,0.00482241,0.14948,-0.00695803,-0.00184095,-0.0706029,0.105832,-0.0689015,-0.0968252,-0.720488,-0.150845,-0.00416275,0.0860759,-0.53577,0.172981,0.690311,1.65285,-0.0443718,-0.0183257,0.059186,-0.0397948,0.102579,-1.97794,0.188677,0.237227,0.0120429,-0.00146349,0.00123761,0.00567343,-3.79131e-05,0.00679939,-0.00375945,-0.000170393,0,0,0,0,0,0,0,0.25745,-33.0504,0.26277,26.6296,1.35742,2.40319,-0.00996382,
0.0590593,-0.0398495,0.102501,-1.97781,0.194456,0.236855,0.0119431,-0.00205508,-0.00274618,-0.0011587,0.00480497,0.149629,-0.00704611,-0.00183998,0.00950677,0.0162534,0.00912457,-0.0108993,0.0933791,-0.0550462,0.000606343,0.0860782,-0.535524,0.172926,0.690472,1.65288,-0.0442727,-0.0183264,0.0591938,-0.0397801,0.102591,-1.97796,0.188673,0.23723,0.0120421,-0.00164125,0.00141875,2.2398e-05,0.000586097,0.0021573,0.000637265,-0.000979061,-0.02222,0.0226422,-0.706379,0.0780013,-0.580261,0.549589,-0.101083,0.209842,-33.1734,0.139784,26.7288,1.38122,2.37023,0.0101778,
0.0590473,-0.0398744,0.102496,-1.97777,0.195685,0.2368,0.0119285,-0.00194252,-0.00282042,-0.00104789,0.00487444,0.150441,-0.00701009,-0.0018362,0.0703474,-0.0463955,0.0692522,0.0434191,0.507747,0.0225113,0.00236262,0.0860782,-0.535524,0.172926,0.690472,1.65288,-0.0442727,-0.0183264,0.0591938,-0.0397801,0.102591,-1.97796,0.188673,0.23723,0.0120421,-0.00164125,0.00141875,2.2398e-05,0.000586097,0.0021573,0.000637265,-0.000979061,0,0,0,0,0,0,0,0.209842,-33.1734,0.139784,26.7288,1.38122,2.37023,0.0101778,
0.0590389,-0.0399026,0.102495,-1.97772,0.196933,0.236749,0.011914,-0.0017633,-0.00296062,-0.000870461,0.00499565,0.151543,-0.00688248,-0.00183193,0.112014,-0.0876289,0.110895,0.0757504,0.688435,0.0797557,0.00266911,0.0860782,-0.535524,0.172926,0.690472,1.65288,-0.0442727,-0.0183264,0.0591938,-0.0397801,0.102591,-1.97796,0.188673,0.23723,0.0120421,-0.00164125,0.00141875,2.2398e-05,0.000586097,0.0021573,0.000637265,-0.000979061,0,0,0,0,0,0,0,0.209842,-33.1734,0.139784,26.7288,1.38122,2.37023,0.0101778,
0.0590235,-0.0398134,0.102461,-1.97785,0.193138,0.237009,0.0119577,-0.0020904,-0.00279158,-0.00119619,0.00486884,0.149851,-0.00682849,-0.00183644,-0.204437,0.105654,-0.203582,-0.0792519,-1.05761,0.033746,-0.00281643,0.0860782,-0.535524,0.172926,0.690472,1.65288,-0.0442727,-0.0183264,0.0591938,-0.0397801,0.102591,-1.97796,0.188673,0.23723,0.0120421,-0.00164125,0.00141875,2.2398e-05,0.000586097,0.0021573,0.000637265,-0.000979061,0,0,0,0,0,0,0,0.209842,-33.1734,0.139784,26.7288,1.38122,2.37023,0.0101778,
0.059002,-0.0398347,0.102447,-1.97781,0.194328,0.236958,0.0119431,-0.00220983,-0.00276558,-0.00131704,0.0048673,0.149641,-0.00673833,-0.00183433,-0.0746471,0.0162494,-0.0755306,-0.00096614,-0.131254,0.056349,0.00131633,0.0860816,-0.535703,0.172984,0.690257,1.65287,-0.0444333,-0.0183256,0.0591906,-0.0397927,0.102586,-1.97794,0.188672,0.237237,0.0120447,-0.000959459,0.000457913,-0.000529364,0.00118402,0.0080762,-4.48386e-05,2.71745e-05,0.0852241,-0.120104,-0.0689703,0.0747404,0.739863,-0.0852629,0.125779,0.209842,-32.975,0.163588,26.5543,1.36291,2.32354,-0.0227812,
0.0589857,-0.0398598,0.102438,-1.97777,0.195549,0.236909,0.0119285,-0.0021761,-0.00283926,-0.00128549,0.00494423,0.150225,-0.00660529,-0.00183008,0.0210838,-0.0460503,0.0197215,0.0480842,0.364998,0.0831462,0.00265457,0.0860816,-0.535703,0.172984,0.690257,1.65287,-0.0444333,-0.0183256,0.0591906,-0.0397927,0.102586,-1.97794,0.188672,0.237237,0.0120447,-0.000959459,0.000457913,-0.000529364,0.00118402,0.0080762,-4.48386e-05,2.71745e-05,0,0,0,0,0,0,0,0.209842,-32.975,0.163588,26.5543,1.36291,2.32354,-0.0227812,
0.0589738,-0.0398881,0.102433,-1.97772,0.196789,0.236863,0.0119141,-0.00203712,-0.00297833,-0.00114847,0.00506722,0.151191,-0.00643591,-0.00182578,0.0868631,-0.0869181,0.0856343,0.0768673,0.604245,0.105865,0.00269234,0.0860816,-0.535703,0.172984,0.690257,1.65287,-0.0444333,-0.0183256,0.0591906,-0.0397927,0.102586,-1.97794,0.188672,0.237237,0.0120447,-0.000959459,0.000457913,-0.000529364,0.00118402,0.0080762,-4.48386e-05,2.71745e-05,0,0,0,0,0,0,0,0.209842,-32.975,0.163588,26.5543,1.36291,2.32354,-0.0227812,
0.0590279,-0.0398458,0.102464,-1.97782,0.193217,0.237019,0.011961,-0.00227705,-0.00286433,-0.00138629,0.00496453,0.149738,-0.00642837,-0.00183131,-0.149957,0.0712455,-0.148638,-0.0641779,-0.90864,0.00471601,-0.00345811,0.0860816,-0.535703,0.172984,0.690257,1.65287,-0.0444333,-0.0183256,0.0591906,-0.0397927,0.102586,-1.97794,0.188672,0.237237,0.0120447,-0.000959459,0.000457913,-0.000529364,0.00118402,0.0080762,-4.48386e-05,2.71745e-05,0,0,0,0,0,0,0,0.209842,-32.975,0.163588,26.5543,1.36291,2.32354,-0.0227812,
0.0590075,-0.0398689,0.102451,-1.97778,0.194412,0.236969,0.0119464,-0.00233186,-0.00287052,-0.00144174,0.00497441,0.149672,-0.00637847,-0.00183024,-0.0342569,-0.00386295,-0.0346557,0.00617066,-0.0411521,0.0311859,0.000670326,0.0860536,-0.535634,0.172942,0.690356,1.65285,-0.0443591,-0.0183257,0.0591853,-0.0397889,0.102589,-1.97795,0.18868,0.237234,0.0120389,-0.00128566,-0.00638662,-0.000936737,0.00192149,0.00421077,-0.000692843,-0.00121351,-0.0407753,-0.855567,-0.0509216,0.0921836,-0.483179,-0.0810005,-0.155085,0.360599,-32.9988,0.238966,26.6296,1.32629,2.37023,0.0303194,
0.0589921,-0.0398955,0.102442,-1.97774,0.195636,0.236922,0.0119319,-0.00225114,-0.00296062,-0.00136247,0.0050542,0.150339,-0.00628263,-0.00182691,0.0504499,-0.0563179,0.0495468,0.0498718,0.416865,0.0598993,0.00207977,0.0860536,-0.535634,0.172942,0.690356,1.65285,-0.0443591,-0.0183257,0.0591853,-0.0397889,0.102589,-1.97795,0.18868,0.237234,0.0120389,-0.00128566,-0.00638662,-0.000936737,0.00192149,0.00421077,-0.000692843,-0.00121351,0,0,0,0,0,0,0,0.360599,-32.9988,0.238966,26.6296,1.32629,2.37023,0.0303194,
0.0590151,-0.0399489,0.102459,-1.97778,0.193189,0.237048,0.0119548,-0.00247051,-0.0031225,-0.00158044,0.00511673,0.149047,-0.00604774,-0.00183234,-0.137107,-0.101171,-0.136233,0.0390775,-0.80737,0.146806,-0.0033941,0.0860536,-0.535634,0.172942,0.690356,1.65285,-0.0443591,-0.0183257,0.0591853,-0.0397889,0.102589,-1.97795,0.18868,0.237234,0.0120389,-0.00128566,-0.00638662,-0.000936737,0.00192149,0.00421077,-0.000692843,-0.00121351,0,0,0,0,0,0,0,0.360599,-32.9988,0.238966,26.6296,1.32629,2.37023,0.0303194,
0.058994,-0.0399804,0.102445,-1.97773,0.194385,0.237008,0.0119402,-0.00250389,-0.00328605,-0.00161461,0.00522666,0.149132,-0.00583361,-0.0018311,-0.020861,-0.102219,-0.0213544,0.0687082,0.0534047,0.133833,0.00077811,0.0860536,-0.535634,0.172942,0.690356,1.65285,-0.0443591,-0.0183257,0.0591853,-0.0397889,0.102589,-1.97795,0.18868,0.237234,0.0120389,-0.00128566,-0.00638662,-0.000936737,0.00192149,0.00421077,-0.000692843,-0.00121351,0,0,0,0,0,0,0,0.360599,-32.9988,0.238966,26.6296,1.32629,2.37023,0.0303194,
0.0589781,-0.0400135,0.102436,-1.97768,0.19561,0.236969,0.0119257,-0.0024021,-0.00345508,-0.00151405,0.00536049,0.14993,-0.00563383,-0.00182758,0.0636155,-0.105642,0.0628458,0.0836443,0.498742,0.124864,0.00219789,0.086073,-0.535032,0.172833,0.690604,1.65284,-0.0441572,-0.0183269,0.0591967,-0.0397615,0.10259,-1.97796,0.188683,0.237227,0.0120436,0.00234856,-0.000326642,0.00142622,0.000366455,0.00457069,-0.000587277,-0.000316753,0.454278,0.757498,0.295369,-0.194379,0.0449901,0.0131958,0.112094,0.182071,-32.9234,0.139784,26.6296,1.30157,2.40319,-0.0163725,
0.0589665,-0.040048,0.102431,-1.97763,0.196854,0.236932,0.0119112,-0.00220976,-0.00362785,-0.00132258,0.00550297,0.151049,-0.00544742,-0.00182386,0.120214,-0.107982,0.119672,0.0890517,0.69895,0.116501,0.00232694,0.086073,-0.535032,0.172833,0.690604,1.65284,-0.0441572,-0.0183269,0.0591967,-0.0397615,0.10259,-1.97796,0.188683,0.237227,0.0120436,0.00234856,-0.000326642,0.00142622,0.000366455,0.00457069,-0.000587277,-0.000316753,0,0,0,0,0,0,0,0.182071,-32.9234,0.139784,26.6296,1.30157,2.40319,-0.0163725,
0.0590793,-0.0398221,0.102513,-1.97784,0.193235,0.236975,0.0119583,-0.00229618,-0.00339712,-0.00140547,0.00530366,0.149775,-0.00575391,-0.00183265,-0.0540097,0.144202,-0.0518052,-0.124573,-0.796358,-0.191555,-0.00549815,0.086073,-0.535032,0.172833,0.690604,1.65284,-0.0441572,-0.0183269,0.0591967,-0.0397615,0.10259,-1.97796,0.188683,0.237227,0.0120436,0.00234856,-0.000326642,0.00142622,0.000366455,0.00457069,-0.000587277,-0.000316753,0,0,0,0,0,0,0,0.182071,-32.9234,0.139784,26.6296,1.30157,2.40319,-0.0163725,
