xiao-wang007/linearmpc_panda/paper_data/panda_torque_PD_controller_error_match_to_start_torque_rate_limiter_low_pass_filter/1/trajectory.csv
Commanded Joint 0 Position,Commanded Joint 1 Position,Commanded Joint 2 Position,Commanded Joint 3 Position,Commanded Joint 4 Position,Commanded Joint 5 Position,Commanded Joint 6 Position,Commanded Joint 0 Velocity,Commanded Joint 1 Velocity,Commanded Joint 2 Velocity,Commanded Joint 3 Velocity,Commanded Joint 4 Velocity,Commanded Joint 5 Velocity,Commanded Joint 6 Velocity,Commanded Joint 0 Acceleration,Commanded Joint 1 Acceleration,Commanded Joint 2 Acceleration,Commanded Joint 3 Acceleration,Commanded Joint 4 Acceleration,Commanded Joint 5 Acceleration,Commanded Joint 6 Acceleration,Commanded Joint 0 Torque,Commanded Joint 1 Torque,Commanded Joint 2 Torque,Commanded Joint 3 Torque,Commanded Joint 4 Torque,Commanded Joint 5 Torque,Commanded Joint 6 Torque,Actual Joint 0 Position,Actual Joint 1 Position,Actual Joint 2 Position,Actual Joint 3 Position,Actual Joint 4 Position,Actual Joint 5 Position,Actual Joint 6 Position,Actual Joint 0 Velocity,Actual Joint 1 Velocity,Actual Joint 2 Velocity,Actual Joint 3 Velocity,Actual Joint 4 Velocity,Actual Joint 5 Velocity,Actual Joint 6 Velocity,Actual Joint 0 Acceleration,Actual Joint 1 Acceleration,Actual Joint 2 Acceleration,Actual Joint 3 Acceleration,Actual Joint 4 Acceleration,Actual Joint 5 Acceleration,Actual Joint 6 Acceleration,Actual Joint 0 Torque,Actual Joint 1 Torque,Actual Joint 2 Torque,Actual Joint 3 Torque,Actual Joint 4 Torque,Actual Joint 5 Torque,Actual Joint 6 Torque,
0.0692012,0.0108602,-0.102203,-1.70097,0.0332311,0.224002,-0.0194123,0.000120809,0.0216577,0.000110388,-0.0324543,-0.00461342,0.0494504,-0.000368884,0.0755057,13.536,0.0689925,-20.2839,-2.88339,30.9065,-0.230552,0.0612803,24.9176,0.0786456,-24.4479,-0.745809,1.65128,-0.0232727,0.0692031,0.00984994,-0.102169,-1.69798,0.0334949,0.218702,-0.0193685,0.000370676,0.00188356,-0.000449695,0.00108188,-0.000278839,-0.000668832,-0.000854494,0,0,0,0,0,0,0,-0.0956386,-35.9703,-0.185533,27.3993,0.807186,3.23174,0.017502,
0.0692026,0.0098703,-0.102169,-1.69798,0.0334915,0.21871,-0.0193689,9.35182e-05,0.017457,8.7871e-05,-0.0260045,-0.0037127,0.0396192,-0.000295837,-0.0170568,-2.62544,-0.0140731,4.03112,0.562948,-6.14451,0.0456541,0.0555183,25.358,0.0682902,-24.3642,-0.745994,1.40121,-0.0217534,0.0692031,0.00984994,-0.102169,-1.69798,0.0334949,0.218702,-0.0193685,0.000370676,0.00188356,-0.000449695,0.00108188,-0.000278839,-0.000668832,-0.000854494,0,0,0,0,0,0,0,-0.0956386,-35.9703,-0.185533,27.3993,0.807186,3.23174,0.017502,
0.0692025,0.00987472,-0.102169,-1.69798,0.0334909,0.218712,-0.019369,7.2248e-05,0.0140761,7.03926e-05,-0.0208384,-0.00298673,0.0317432,-0.000237307,-0.0132939,-2.11307,-0.010924,3.2288,0.453735,-4.92244,0.036581,0.0482715,25.9295,0.0565325,-24.2561,-0.745346,1.05445,-0.0197816,0.0692031,0.00984994,-0.102169,-1.69798,0.0334949,0.218702,-0.0193685,0.000370676,0.00188356,-0.000449695,0.00108188,-0.000278839,-0.000668832,-0.000854494,0,0,0,0,0,0,0,-0.0956386,-35.9703,-0.185533,27.3993,0.807186,3.23174,0.017502,
0.0692024,0.00987854,-0.102169,-1.69798,0.0334904,0.218714,-0.019369,5.5649e-05,0.0113564,5.68167e-05,-0.0166993,-0.00240103,0.025438,-0.000190439,-0.0103743,-1.69982,-0.00848494,2.58694,0.366059,-3.94075,0.0292925,0.0422949,26.4555,0.0472148,-24.0881,-0.743108,0.670633,-0.0177809,0.069206,0.00992321,-0.102162,-1.69803,0.0334897,0.2187,-0.0193639,0.0020741,0.00108219,0.000866154,-0.000930287,-0.00121955,-0.000923079,0.000801668,0.212928,-0.100171,0.164481,-0.251521,-0.117588,-0.0317809,0.20702,-0.147213,-35.6688,-0.185533,27.3755,0.825497,3.25188,-0.0227812,
0.0692199,0.0103364,-0.102149,-1.69857,0.0333428,0.21888,-0.0193599,0.000391823,0.0194149,0.000371092,-0.0269184,-0.005592,0.0248483,-5.20571e-05,0.210109,5.03661,0.196422,-6.38689,-1.99435,-0.368605,0.0864889,-7.38419e-07,31.0745,0.0198264,-23.347,-1.14061,-2.49071,0.0021865,0.069206,0.00992321,-0.102162,-1.69803,0.0334897,0.2187,-0.0193639,0.0020741,0.00108219,0.000866154,-0.000930287,-0.00121955,-0.000923079,0.000801668,0,0,0,0,0,0,0,-0.147213,-35.6688,-0.185533,27.3755,0.825497,3.25188,-0.0227812,
0.0691753,0.0107541,-0.102196,-1.69877,0.034169,0.21804,-0.0193754,-0.000800776,0.0259755,-0.000876165,-0.0264976,0.0161799,-0.00111798,-0.000427699,-0.745374,4.10033,-0.779535,0.262973,13.6074,-16.2289,-0.234776,0.512532,0.238394,0.515658,-0.342717,3.16109,-2.54419,-0.00240635,0.069206,0.00992321,-0.102162,-1.69803,0.0334897,0.2187,-0.0193639,0.0020741,0.00108219,0.000866154,-0.000930287,-0.00121955,-0.000923079,0.000801668,0,0,0,0,0,0,0,-0.147213,-35.6688,-0.185533,27.3755,0.825497,3.25188,-0.0227812,
0.069111,0.0110901,-0.10226,-1.69889,0.0355746,0.216723,-0.0193854,-0.0022489,0.0291794,-0.00231548,-0.0243264,0.0480849,-0.0338031,-0.000591449,-0.905075,2.00249,-0.899573,1.35702,19.9406,-20.4282,-0.102344,0.507303,0.237034,0.510447,-0.338965,3.13431,-2.52239,-0.00235921,0.069206,0.00992321,-0.102162,-1.69803,0.0334897,0.2187,-0.0193639,0.0020741,0.00108219,0.000866154,-0.000930287,-0.00121955,-0.000923079,0.000801668,0,0,0,0,0,0,0,-0.147213,-35.6688,-0.185533,27.3755,0.825497,3.25188,-0.0227812,
0.0690469,0.0113505,-0.102324,-1.699,0.0373235,0.215139,-0.0193913,-0.00340112,0.0298543,-0.00343673,-0.0220377,0.0821901,-0.066665,-0.000620831,-0.72014,0.421797,-0.700779,1.43044,21.3158,-20.5386,-0.0183635,0.502231,0.258832,0.506236,-0.338083,3.10817,-2.5007,-0.00230757,0.069198,0.0103462,-0.102156,-1.69872,0.0334743,0.220336,-0.019365,-0.000329927,0.0344303,0.000685935,-0.0714437,-0.00355373,0.133959,0.000835312,-0.300503,4.16851,-0.0225274,-8.81417,-0.291773,16.8603,0.00420556,0.00751081,-28.7538,-0.137926,20.7263,0.60577,2.73461,-0.0227812,
0.0692043,0.0110682,-0.10215,-1.69947,0.0332573,0.220927,-0.0193604,-0.00256321,0.041934,-0.00260127,-0.036278,0.0603279,-0.0385451,-0.000380595,0.523695,7.54983,0.522159,-8.90022,-13.6639,17.5749,0.150147,0.000138319,31.0982,0.0208195,-23.3497,-1.1398,-2.49082,0.00219174,0.069198,0.0103462,-0.102156,-1.69872,0.0334743,0.220336,-0.019365,-0.000329927,0.0344303,0.000685935,-0.0714437,-0.00355373,0.133959,0.000835312,0,0,0,0,0,0,0,0.00751081,-28.7538,-0.137926,20.7263,0.60577,2.73461,-0.0227812,
0.0690697,0.0117944,-0.102291,-1.69946,0.036242,0.217458,-0.0194119,-0.00541535,0.0517006,-0.00561885,-0.0288863,0.12288,-0.117561,-0.00159266,-1.78259,6.10409,-1.88599,4.61984,39.0949,-49.3848,-0.757543,4.23418,1.61463,4.23718,-2.29351,10.8602,-12.9033,-0.00902441,0.069198,0.0103462,-0.102156,-1.69872,0.0334743,0.220336,-0.019365,-0.000329927,0.0344303,0.000685935,-0.0714437,-0.00355373,0.133959,0.000835312,0,0,0,0,0,0,0,0.00751081,-28.7538,-0.137926,20.7263,0.60577,2.73461,-0.0227812,
0.0689054,0.0123309,-0.102457,-1.69939,0.041162,0.211808,-0.0194439,-0.00844008,0.0547735,-0.00862958,-0.0213297,0.221304,-0.235302,-0.0020743,-1.89046,1.92056,-1.88171,4.72285,61.5151,-73.5882,-0.301025,4.1742,1.68671,4.17426,-2.21515,10.8602,-12.665,-0.0081972,0.069198,0.0103462,-0.102156,-1.69872,0.0334743,0.220336,-0.019365,-0.000329927,0.0344303,0.000685935,-0.0714437,-0.00355373,0.133959,0.000835312,0,0,0,0,0,0,0,0.00751081,-28.7538,-0.137926,20.7263,0.60577,2.73461,-0.0227812,
0.0700737,0.0113245,-0.101279,-1.70039,0.0398727,0.212883,-0.0192582,0.00847443,0.0551046,0.0084762,-0.0337835,0.273542,-0.321197,0.000356599,10.5716,0.206929,10.6911,-7.78361,32.6491,-53.6846,1.51931,0.000138319,31.0982,0.0208195,-23.3497,-1.1398,-2.49082,0.00219174,0.069198,0.0103462,-0.102156,-1.69872,0.0334743,0.220336,-0.019365,-0.000329927,0.0344303,0.000685935,-0.0714437,-0.00355373,0.133959,0.000835312,0,0,0,0,0,0,0,0.00751081,-28.7538,-0.137926,20.7263,0.60577,2.73461,-0.0227812,
0.0695504,0.011612,-0.101798,-1.69996,0.0353104,0.217524,-0.0192918,0.0154309,0.0576772,0.0155853,-0.0393796,0.270161,-0.342046,0.00200041,4.34777,1.6079,4.44319,-3.49759,-2.11345,-13.0304,1.02738,28.9182,3.49396,28.8002,-13.9191,10.8599,-14.459,0.0903761,0.0691959,0.0113759,-0.102147,-1.70495,0.0339602,0.222529,-0.0193669,-0.000943021,0.0142699,0.00078652,-0.251472,0.0927747,-0.0364328,-0.000112483,-0.0766367,-2.52005,0.0125732,-22.5035,12.0411,-21.299,-0.118474,0.0828892,-24.8103,-0.110155,21.2222,1.80236,1.85296,0.00376909,
0.0701899,0.0120272,-0.101159,-1.70041,0.0390029,0.211566,-0.0192158,0.0283332,0.0565233,0.028448,-0.0426492,0.308441,-0.422576,0.00349894,8.06394,-0.721195,8.03917,-2.04346,23.925,-50.3316,0.936579,27.6808,4.57626,27.5064,-11.9986,10.8599,-14.459,0.0909559,0.0691959,0.0113759,-0.102147,-1.70495,0.0339602,0.222529,-0.0193669,-0.000943021,0.0142699,0.00078652,-0.251472,0.0927747,-0.0364328,-0.000112483,0,0,0,0,0,0,0,0.0828892,-24.8103,-0.110155,21.2222,1.80236,1.85296,0.00376909,
0.0710664,0.0123646,-0.100286,-1.70086,0.0438956,0.20391,-0.019144,0.0445804,0.0536531,0.044579,-0.0453083,0.369072,-0.529466,0.00459533,10.1545,-1.79387,10.0819,-1.66193,37.8941,-66.8061,0.685246,26.4435,4.50779,26.2572,-10.4153,10.8599,-14.459,0.0824926,0.0691959,0.0113759,-0.102147,-1.70495,0.0339602,0.222529,-0.0193669,-0.000943021,0.0142699,0.00078652,-0.251472,0.0927747,-0.0364328,-0.000112483,0,0,0,0,0,0,0,0.0828892,-24.8103,-0.110155,21.2222,1.80236,1.85296,0.00376909,
0.0692188,0.0123036,-0.102123,-1.70625,0.0341341,0.221474,-0.0193531,0.0362381,0.0661132,0.036239,-0.0685915,0.299606,-0.449947,0.00402327,-5.21391,7.78757,-5.21247,-14.552,-43.4158,49.6993,-0.357543,-0.00227884,31.1851,0.0204994,-23.3559,-1.14013,-2.45898,0.00198122,0.0691959,0.0113759,-0.102147,-1.70495,0.0339602,0.222529,-0.0193669,-0.000943021,0.0142699,0.00078652,-0.251472,0.0927747,-0.0364328,-0.000112483,0,0,0,0,0,0,0,0.0828892,-24.8103,-0.110155,21.2222,1.80236,1.85296,0.00376909,
0.0698504,0.0128413,-0.101475,-1.70769,0.035924,0.217241,-0.019055,0.0447799,0.0663343,0.0451907,-0.0909432,0.284432,-0.465773,0.010669,5.33864,0.138197,5.59483,-13.9698,-9.48389,-9.89143,4.15357,42.2553,2.06439,42.0809,-25.5195,10.834,-14.3884,0.353773,0.0691559,0.0124428,-0.102031,-1.71399,0.0397117,0.217339,-0.0193708,-0.000134232,0.0753166,0.016162,-0.228723,0.198809,-0.322503,0.00106492,0.101099,7.63084,1.92194,2.84361,13.2543,-35.7588,0.147176,3.09803,-35.0221,2.88911,26.8518,2.15118,-0.427622,-0.0026396,
0.0708906,0.0132631,-0.100428,-1.7091,0.0392285,0.210751,-0.0188849,0.0618285,0.0636122,0.0623369,-0.10801,0.310157,-0.534865,0.0127879,10.6553,-1.70134,10.7163,-10.667,16.0779,-43.1821,1.32431,37.3184,4.9379,37.1594,-23.3913,10.834,-14.3884,0.187815,0.0691559,0.0124428,-0.102031,-1.71399,0.0397117,0.217339,-0.0193708,-0.000134232,0.0753166,0.016162,-0.228723,0.198809,-0.322503,0.00106492,0,0,0,0,0,0,0,3.09803,-35.0221,2.88911,26.8518,2.15118,-0.427622,-0.0026396,
0.0722093,0.0136859,-0.0991073,-1.71045,0.0438014,0.202724,-0.0188002,0.0824292,0.061459,0.0828908,-0.12008,0.36245,-0.628578,0.0123486,12.8754,-1.34572,12.8462,-7.54353,32.6833,-58.5707,-0.274543,33.9955,6.87011,33.855,-21.3569,10.834,-14.3884,0.0895925,0.0691559,0.0124428,-0.102031,-1.71399,0.0397117,0.217339,-0.0193708,-0.000134232,0.0753166,0.016162,-0.228723,0.198809,-0.322503,0.00106492,0,0,0,0,0,0,0,3.09803,-35.0221,2.88911,26.8518,2.15118,-0.427622,-0.0026396,
0.069252,0.0136503,-0.101932,-1.71544,0.0404373,0.214927,-0.019354,0.0683463,0.0793537,0.0687889,-0.132435,0.308099,-0.56315,0.0102999,-8.80179,11.1841,-8.81366,-7.72188,-33.9692,40.8927,-1.28047,-0.0143872,31.2818,0.0102786,-23.3682,-1.16604,-2.38838,0.00181234,0.0691559,0.0124428,-0.102031,-1.71399,0.0397117,0.217339,-0.0193708,-0.000134232,0.0753166,0.016162,-0.228723,0.198809,-0.322503,0.00106492,0,0,0,0,0,0,0,3.09803,-35.0221,2.88911,26.8518,2.15118,-0.427622,-0.0026396,
0.0700832,0.0141535,-0.101111,-1.71755,0.0423864,0.210121,-0.0189525,0.0754567,0.076064,0.0755582,-0.158525,0.295208,-0.570675,0.0182767,4.44399,-2.05604,4.23075,-16.3059,-8.05726,-4.70359,4.98554,47.7133,-1.52679,47.1065,-33.6096,10.6277,-14.2761,0.47748,0.0694043,0.0169219,-0.102036,-1.71876,0.057743,0.189779,-0.0193654,0.0208076,0.0912382,0.0129589,-0.0935962,0.901961,-1.32531,0.000890786,2.61773,1.99021,-0.400397,16.8909,87.894,-125.351,-0.0217671,8.90613,-36.5416,8.73689,22.6187,3.40912,-1.97944,0.0440523,
0.0713507,0.0144765,-0.0998622,-1.71965,0.0457296,0.20326,-0.0187603,0.0920538,0.0689258,0.0916673,-0.179386,0.319747,-0.628052,0.0194262,10.3732,-4.46135,10.0682,-13.0386,15.337,-35.8604,0.718456,40.5558,2.02943,40.0468,-30.9395,10.6277,-14.2761,0.209846,0.0694043,0.0169219,-0.102036,-1.71876,0.057743,0.189779,-0.0193654,0.0208076,0.0912382,0.0129589,-0.0935962,0.901961,-1.32531,0.000890786,0,0,0,0,0,0,0,8.90613,-36.5416,8.73689,22.6187,3.40912,-1.97944,0.0440523,
0.0728904,0.0147753,-0.0983447,-1.72166,0.0503282,0.194963,-0.0186969,0.112136,0.0626098,0.11127,-0.193829,0.370762,-0.709888,0.0171275,12.5515,-3.94753,12.2515,-9.02646,31.8842,-51.1473,-1.43669,36.0345,4.12713,35.5905,-28.6908,10.6277,-14.2761,0.06374,0.0694043,0.0169219,-0.102036,-1.71876,0.057743,0.189779,-0.0193654,0.0208076,0.0912382,0.0129589,-0.0935962,0.901961,-1.32531,0.000890786,0,0,0,0,0,0,0,8.90613,-36.5416,8.73689,22.6187,3.40912,-1.97944,0.0440523,
0.0696971,0.0179294,-0.101732,-1.72024,0.0620547,0.182727,-0.0193212,0.0970297,0.0752767,0.0966065,-0.19211,0.404404,-0.744225,0.0148052,-9.44155,7.91681,-9.16442,1.07432,21.0263,-21.4609,-1.45147,-0.322886,32.0088,-0.289157,-23.7649,-1.37234,-2.27608,0.00456403,0.0694043,0.0169219,-0.102036,-1.71876,0.057743,0.189779,-0.0193654,0.0208076,0.0912382,0.0129589,-0.0935962,0.901961,-1.32531,0.000890786,0,0,0,0,0,0,0,8.90613,-36.5416,8.73689,22.6187,3.40912,-1.97944,0.0440523,
0.0709045,0.0179957,-0.100513,-1.72312,0.066073,0.175416,-0.0187872,0.107807,0.061879,0.107749,-0.225651,0.42398,-0.778155,0.0251954,6.73598,-8.37357,6.96425,-20.9633,12.2354,-21.2063,6.49386,54.9019,-5.51487,54.3304,-43.2493,10.681,-13.9182,0.610273,0.0711212,0.0200953,-0.100265,-1.7263,0.0820227,0.144353,-0.0191292,0.098951,0.062035,0.118475,-0.37459,0.59195,-1.20599,0.00181347,9.76793,-3.65041,13.1895,-35.1242,-38.7514,14.9151,0.115335,14.0041,-29.0038,13.4104,16.2671,2.37732,-1.96662,0.0706026,
0.072594,0.0179772,-0.0988276,-1.72602,0.0706975,0.166971,-0.0185725,0.128483,0.04904,0.128343,-0.253049,0.454797,-0.83364,0.0255227,12.9226,-8.02438,12.871,-17.1235,19.2602,-34.6779,0.204591,44.9495,-0.160061,44.5522,-39.4083,10.681,-13.9182,0.213188,0.0711212,0.0200953,-0.100265,-1.7263,0.0820227,0.144353,-0.0191292,0.098951,0.062035,0.118475,-0.37459,0.59195,-1.20599,0.00181347,0,0,0,0,0,0,0,14.0041,-29.0038,13.4104,16.2671,2.37732,-1.96662,0.0706026,
0.0749459,0.0199559,-0.0964978,-1.73387,0.0915332,0.125051,-0.018393,0.15537,0.0381533,0.154529,-0.295158,0.490612,-0.914959,0.0248261,16.8041,-6.80415,16.366,-26.3185,22.3845,-50.8244,-0.435407,57.4109,-6.16528,56.341,-51.0793,10.681,-13.9182,0.646887,0.0711212,0.0200953,-0.100265,-1.7263,0.0820227,0.144353,-0.0191292,0.098951,0.062035,0.118475,-0.37459,0.59195,-1.20599,0.00181347,0,0,0,0,0,0,0,14.0041,-29.0038,13.4104,16.2671,2.37732,-1.96662,0.0706026,
0.0772151,0.0200212,-0.0942579,-1.73739,0.0974436,0.114733,-0.0184382,0.181024,0.0321543,0.17962,-0.324293,0.540251,-0.989912,0.0187313,16.034,-3.74939,15.682,-18.2089,31.0245,-46.8457,-3.8092,45.5671,-0.509838,44.9105,-46.6422,10.681,-13.9182,0.16731,0.0711212,0.0200953,-0.100265,-1.7263,0.0820227,0.144353,-0.0191292,0.098951,0.062035,0.118475,-0.37459,0.59195,-1.20599,0.00181347,0,0,0,0,0,0,0,14.0041,-29.0038,13.4104,16.2671,2.37732,-1.96662,0.0706026,
0.0795453,0.0201616,-0.0919569,-1.7408,0.104113,0.10418,-0.0186025,0.203075,0.0292336,0.201219,-0.344506,0.598934,-1.05575,0.010876,13.7815,-1.82544,13.4998,-12.6334,36.677,-41.149,-4.90957,38.8977,1.76385,38.4133,-44.0017,10.7586,-13.5199,-0.0805497,0.0762097,0.0206894,-0.0943604,-1.74316,0.101834,0.102732,-0.0188506,0.217833,0.0350461,0.254029,-0.536765,0.641918,-1.35758,-0.00150316,14.8603,-3.3736,16.9442,-20.272,6.24606,-18.9483,-0.414578,17.6818,-30.678,17.0603,23.7891,3.83667,-0.593332,0.104477,
0.0818863,0.0203319,-0.0896449,-1.74412,0.111377,0.0934964,-0.0187893,0.220986,0.0276448,0.218776,-0.358755,0.66074,-1.11169,0.0040319,11.1944,-0.992982,10.9728,-8.90584,38.6285,-34.96,-4.27758,34.6294,2.11309,34.2269,-42.2181,10.7586,-13.5199,-0.214327,0.0762097,0.0206894,-0.0943604,-1.74316,0.101834,0.102732,-0.0188506,0.217833,0.0350461,0.254029,-0.536765,0.641918,-1.35758,-0.00150316,0,0,0,0,0,0,0,17.6818,-30.678,17.0603,23.7891,3.83667,-0.593332,0.104477,
0.0827195,0.0215092,-0.0879099,-1.75568,0.121394,0.0727553,-0.0195021,0.232245,0.0289686,0.229915,-0.389305,0.706929,-1.12667,-0.00364407,7.03705,0.827343,6.96216,-19.0932,28.8685,-9.3659,-4.79748,37.7505,1.02414,37.354,-50.364,10.7586,-11.9825,-0.183154,0.0762097,0.0206894,-0.0943604,-1.74316,0.101834,0.102732,-0.0188506,0.217833,0.0350461,0.254029,-0.536765,0.641918,-1.35758,-0.00150316,0,0,0,0,0,0,0,17.6818,-30.678,17.0603,23.7891,3.83667,-0.593332,0.104477,
0.0849301,0.021744,-0.0857221,-1.75974,0.128968,0.0639847,-0.0197404,0.241062,0.029046,0.238627,-0.41287,0.754888,-1.1206,-0.00887388,5.51041,0.0483903,5.44482,-14.7284,29.9743,3.79232,-3.26863,33.319,1.03458,32.9912,-48.7087,10.7586,-11.0584,-0.326069,0.0762097,0.0206894,-0.0943604,-1.74316,0.101834,0.102732,-0.0188506,0.217833,0.0350461,0.254029,-0.536765,0.641918,-1.35758,-0.00150316,0,0,0,0,0,0,0,17.6818,-30.678,17.0603,23.7891,3.83667,-0.593332,0.104477,
0.0870972,0.021934,-0.0835777,-1.76377,0.136892,0.0560801,-0.0199819,0.247025,0.0279859,0.244513,-0.431048,0.802012,-1.0941,-0.0131354,3.72709,-0.662558,3.67892,-11.361,29.452,16.5667,-2.66348,31.1774,0.992357,30.8711,-47.0816,11.0352,-9.59381,-0.348721,0.0869296,0.0210211,-0.0813255,-1.76525,0.126472,0.0521467,-0.0180667,0.409954,-0.125016,0.494541,-0.781192,0.803944,-1.55118,0.000997898,24.0151,-20.0078,30.0641,-30.5533,20.2532,-24.2002,0.312632,24.6801,-28.3055,23.7332,13.1528,4.84466,-2.82173,0.245468,
0.0891995,0.0221045,-0.0814972,-1.76773,0.145074,0.0490547,-0.020239,0.250179,0.0266516,0.247623,-0.443804,0.846145,-1.05091,-0.0169357,1.97124,-0.833937,1.94369,-7.97248,27.5836,26.9901,-2.37515,28.9574,0.00180189,28.6747,-46.24,11.0352,-8.2689,-0.296692,0.0869296,0.0210211,-0.0813255,-1.76525,0.126472,0.0521467,-0.0180667,0.409954,-0.125016,0.494541,-0.781192,0.803944,-1.55118,0.000997898,0,0,0,0,0,0,0,24.6801,-28.3055,23.7332,13.1528,4.84466,-2.82173,0.245468,
0.10041,0.0216198,-0.0680149,-1.7863,0.169948,0.0105031,-0.0192895,0.25717,0.0267361,0.254469,-0.451125,0.90448,-0.97889,-0.0186831,4.36953,0.0527923,4.27846,-4.57602,36.459,45.0147,-1.09215,26.4627,-0.626422,26.2137,-45.5734,11.0352,-6.81413,-0.298984,0.0869296,0.0210211,-0.0813255,-1.76525,0.126472,0.0521467,-0.0180667,0.409954,-0.125016,0.494541,-0.781192,0.803944,-1.55118,0.000997898,0,0,0,0,0,0,0,24.6801,-28.3055,23.7332,13.1528,4.84466,-2.82173,0.245468,
0.102559,0.0218172,-0.0658902,-1.79005,0.178996,0.00623648,-0.0194655,0.259458,0.0263244,0.256692,-0.454554,0.949776,-0.889778,-0.0193457,1.42965,-0.257272,1.38919,-2.143,28.31,55.695,-0.414137,24.4166,-0.503792,24.1961,-44.557,11.0352,-5.57899,-0.317129,0.0869296,0.0210211,-0.0813255,-1.76525,0.126472,0.0521467,-0.0180667,0.409954,-0.125016,0.494541,-0.781192,0.803944,-1.55118,0.000997898,0,0,0,0,0,0,0,24.6801,-28.3055,23.7332,13.1528,4.84466,-2.82173,0.245468,
0.104596,0.0219921,-0.0638753,-1.79371,0.187956,0.00318625,-0.0196138,0.258506,0.0254314,0.255728,-0.45505,0.983816,-0.788078,-0.0191829,-0.595023,-0.558151,-0.602316,-0.309975,21.2754,63.5625,0.101758,23.313,0.284441,23.0953,-43.266,11.1,-3.83433,-0.309088,0.10572,0.0203981,-0.0664823,-1.797,0.160486,-0.00405551,-0.0184657,0.572933,-0.0113865,0.509159,-1.02546,1.0815,-1.55081,-0.0257262,20.3724,14.2037,1.82717,-30.5331,34.6945,0.0455413,-3.34051,16.0591,-29.4283,15.7352,21.0992,4.08111,-0.825876,0.0779268,
0.120647,0.0247682,-0.0517655,-1.82009,0.208254,-0.0379899,-0.019281,0.266546,0.0372106,0.263579,-0.462583,1.02324,-0.703524,-0.0179953,5.02501,7.36201,4.90722,-4.70804,24.6371,52.8464,0.742268,21.6457,0.480557,21.4428,-41.5119,11.1,-1.92607,-0.244763,0.10572,0.0203981,-0.0664823,-1.797,0.160486,-0.00405551,-0.0184657,0.572933,-0.0113865,0.509159,-1.02546,1.0815,-1.55081,-0.0257262,0,0,0,0,0,0,0,16.0591,-29.4283,15.7352,21.0992,4.08111,-0.825876,0.0779268,
0.122847,0.0253232,-0.0495926,-1.82383,0.217514,-0.0395085,-0.0193624,0.268232,0.0436419,0.265186,-0.463791,1.05007,-0.600784,-0.0164315,1.05397,4.01957,1.0039,-0.755305,16.772,64.2125,0.977391,20.9776,0.566971,20.7798,-40.7023,11.1,-0.472378,-0.209861,0.10572,0.0203981,-0.0664823,-1.797,0.160486,-0.00405551,-0.0184657,0.572933,-0.0113865,0.509159,-1.02546,1.0815,-1.55081,-0.0257262,0,0,0,0,0,0,0,16.0591,-29.4283,15.7352,21.0992,4.08111,-0.825876,0.0779268,
0.124891,0.0257707,-0.0475728,-1.82745,0.226591,-0.039558,-0.0194241,0.265697,0.0461011,0.262642,-0.461359,1.06699,-0.481863,-0.0146888,-1.58448,1.537,-1.58955,1.52028,10.5742,74.3253,1.08919,20.365,0.619344,20.1734,-39.9601,11.1,0.85596,-0.176437,0.10572,0.0203981,-0.0664823,-1.797,0.160486,-0.00405551,-0.0184657,0.572933,-0.0113865,0.509159,-1.02546,1.0815,-1.55081,-0.0257262,0,0,0,0,0,0,0,16.0591,-29.4283,15.7352,21.0992,4.08111,-0.825876,0.0779268,
0.126805,0.02613,-0.0456816,-1.83094,0.235498,-0.0382299,-0.0194688,0.26041,0.0458638,0.257394,-0.456375,1.07627,-0.352288,-0.012868,-3.3044,-0.148366,-3.28008,3.11464,5.80169,80.9844,1.13795,19.7933,0.658477,19.6098,-39.2847,11.1,1.81937,-0.14244,0.10572,0.0203981,-0.0664823,-1.797,0.160486,-0.00405551,-0.0184657,0.572933,-0.0113865,0.509159,-1.02546,1.0815,-1.55081,-0.0257262,0,0,0,0,0,0,0,16.0591,-29.4283,15.7352,21.0992,4.08111,-0.825876,0.0779268,
0.139939,0.028583,-0.024948,-1.85605,0.25324,-0.0643491,-0.0198308,0.272591,0.0588631,0.26925,-0.461919,1.10861,-0.263608,-0.0114563,7.613,8.12461,7.40982,-3.46504,20.214,55.4249,0.882308,19.2384,0.609138,19.0446,-37.6909,11.0565,3.19152,-0.119047,0.122905,0.0218595,-0.041763,-1.83284,0.20079,-0.0473656,-0.0193834,0.452736,0.125199,0.879255,-1.0672,1.33495,-1.11322,-0.0245685,-15.0246,17.0731,46.262,-5.21765,31.6807,54.6992,0.144707,5.12928,-37.9421,4.71406,31.2357,3.26263,1.79986,-0.0630644,
0.142251,0.0292848,-0.0226698,-1.8597,0.262807,-0.0621396,-0.0198605,0.275853,0.0646362,0.272354,-0.460687,1.12606,-0.155649,-0.00990601,2.03896,3.60817,1.94034,0.770508,10.906,67.4744,0.968959,18.6589,0.786295,18.4728,-36.9892,11.0565,4.21877,-0.0909542,0.122905,0.0218595,-0.041763,-1.83284,0.20079,-0.0473656,-0.0193834,0.452736,0.125199,0.879255,-1.0672,1.33495,-1.11322,-0.0245685,0,0,0,0,0,0,0,5.12928,-37.9421,4.71406,31.2357,3.26263,1.79986,-0.0630644,
0.144351,0.0298365,-0.0205996,-1.86315,0.272073,-0.0587416,-0.0198755,0.273181,0.0655,0.269638,-0.454749,1.13249,-0.0395697,-0.00830073,-1.66996,0.539847,-1.69771,3.71113,4.01847,72.5498,1.0033,18.0808,0.95657,17.8996,-36.2839,11.0565,5.99416,-0.0692648,0.122905,0.0218595,-0.041763,-1.83284,0.20079,-0.0473656,-0.0193834,0.452736,0.125199,0.879255,-1.0672,1.33495,-1.11322,-0.0245685,0,0,0,0,0,0,0,5.12928,-37.9421,4.71406,31.2357,3.26263,1.79986,-0.0630644,
0.127368,0.0235921,-0.0373329,-1.83867,0.211663,-0.0552197,-0.0195236,0.330123,0.095715,0.326463,-0.50973,1.17781,-0.228008,-0.0101445,35.5885,18.8844,35.5156,-34.3635,28.324,-117.774,-1.15237,19.2384,0.609138,19.0446,-37.6909,11.0565,3.19152,-0.119047,0.122905,0.0218595,-0.041763,-1.83284,0.20079,-0.0473656,-0.0193834,0.452736,0.125199,0.879255,-1.0672,1.33495,-1.11322,-0.0245685,0,0,0,0,0,0,0,5.12928,-37.9421,4.71406,31.2357,3.26263,1.79986,-0.0630644,
0.13118,0.0252193,-0.0335786,-1.84359,0.222489,-0.0608052,-0.0196344,0.359402,0.117251,0.355028,-0.530657,1.2129,-0.322045,-0.0108869,18.2994,13.4602,17.853,-13.0793,21.9272,-58.7728,-0.46402,18.3872,-0.403716,18.168,-36.058,10.6621,4.54349,-0.096901,0.141997,0.0249774,-0.0123403,-1.86972,0.252014,-0.0733768,-0.0198483,0.60436,0.0966535,0.749037,-0.988242,1.47925,-0.419189,-0.0051886,18.9531,-3.56813,-16.2772,9.86942,18.0377,86.7538,2.42249,-4.20575,-36.4662,-4.56145,29.0219,2.27935,4.10058,-0.0566557,
0.134477,0.0265863,-0.0303313,-1.84805,0.233078,-0.0640055,-0.0197203,0.369931,0.127976,0.365205,-0.535974,1.23506,-0.337643,-0.0108568,6.58079,6.70327,6.36073,-3.32299,13.8519,-9.74867,0.0188276,17.8092,-0.233441,17.5949,-35.3527,10.6621,6.31888,-0.0752115,0.141997,0.0249774,-0.0123403,-1.86972,0.252014,-0.0733768,-0.0198483,0.60436,0.0966535,0.749037,-0.988242,1.47925,-0.419189,-0.0051886,0,0,0,0,0,0,0,-4.20575,-36.4662,-4.56145,29.0219,2.27935,4.10058,-0.0566557,
0.137369,0.0276961,-0.0274814,-1.85218,0.243337,-0.065078,-0.0197843,0.368249,0.130128,0.363411,-0.532183,1.2445,-0.296926,-0.0102861,-1.05096,1.34443,-1.12145,2.36914,5.9016,25.4479,0.356699,17.2869,-0.198682,17.0795,-34.769,10.6621,7.67461,-0.0556645,0.141997,0.0249774,-0.0123403,-1.86972,0.252014,-0.0733768,-0.0198483,0.60436,0.0966535,0.749037,-0.988242,1.47925,-0.419189,-0.0051886,0,0,0,0,0,0,0,-4.20575,-36.4662,-4.56145,29.0219,2.27935,4.10058,-0.0566557,
0.16112,0.0310321,0.00648172,-1.89372,0.31413,-0.0639361,-0.0199432,0.349892,0.117611,0.345178,-0.505037,1.2202,-0.123543,-0.00752491,-11.4731,-7.82306,-11.3954,16.9664,-15.1888,108.365,1.72575,16.4379,-0.164049,16.2454,-33.7655,10.6621,9.38092,-0.023251,0.141997,0.0249774,-0.0123403,-1.86972,0.252014,-0.0733768,-0.0198483,0.60436,0.0966535,0.749037,-0.988242,1.47925,-0.419189,-0.0051886,0,0,0,0,0,0,0,-4.20575,-36.4662,-4.56145,29.0219,2.27935,4.10058,-0.0566557,
0.163113,0.0314456,0.00844519,-1.89671,0.322444,-0.058827,-0.0199001,0.329753,0.104427,0.325229,-0.478643,1.18403,0.0288944,-0.00494212,-12.5869,-8.24007,-12.468,16.4965,-22.6063,95.2731,1.61424,15.8454,-0.668143,15.6248,-32.8701,10.2856,9.96811,-0.0128781,0.164398,0.0299264,0.00916269,-1.90325,0.307288,-0.0749027,-0.0198761,0.609075,0.178079,0.659687,-0.972085,1.57067,0.161244,-0.000952141,0.5893,10.1781,-11.1687,2.01966,11.428,72.5542,0.529558,-10.4423,-41.0603,-9.96092,32.3068,0.709225,4.21319,-0.0630644,
0.164924,0.0317611,0.0102284,-1.89953,0.330096,-0.0533773,-0.0198568,0.309072,0.0914284,0.304763,-0.453518,1.1385,0.159358,-0.00287137,-12.9261,-8.12382,-12.7911,15.7029,-28.4535,81.5395,1.29422,15.5408,-0.538393,15.327,-32.3912,10.2856,10.244,0.00446498,0.164398,0.0299264,0.00916269,-1.90325,0.307288,-0.0749027,-0.0198761,0.609075,0.178079,0.659687,-0.972085,1.57067,0.161244,-0.000952141,0,0,0,0,0,0,0,-10.4423,-41.0603,-9.96092,32.3068,0.709225,4.21319,-0.0630644,
0.166597,0.0320006,0.0118764,-1.9022,0.336763,-0.0477582,-0.0198163,0.289086,0.0791315,0.285011,-0.429442,1.07748,0.267963,-0.00128348,-12.4907,-7.6856,-12.3452,15.0479,-38.1396,67.8782,0.99243,15.2233,-0.371378,15.017,-31.9138,10.0625,10.3702,0.0199904,0.164398,0.0299264,0.00916269,-1.90325,0.307288,-0.0749027,-0.0198761,0.609075,0.178079,0.659687,-0.972085,1.57067,0.161244,-0.000952141,0,0,0,0,0,0,0,-10.4423,-41.0603,-9.96092,32.3068,0.709225,4.21319,-0.0630644,
0.185917,0.0346861,0.0295041,-1.90485,0.484142,-0.0685693,-0.021097,0.231506,0.0609353,0.227955,-0.339985,0.894681,0.234182,-0.0013528,-35.9877,-11.3726,-35.6603,55.9104,-114.25,-21.113,-0.0433275,4.0009,0.122083,3.96021,-1.47816,3.55451,0.796318,-0.0332682,0.164398,0.0299264,0.00916269,-1.90325,0.307288,-0.0749027,-0.0198761,0.609075,0.178079,0.659687,-0.972085,1.57067,0.161244,-0.000952141,0,0,0,0,0,0,0,-10.4423,-41.0603,-9.96092,32.3068,0.709225,4.21319,-0.0630644,
0.185926,0.0345916,0.029502,-1.9047,0.485447,-0.0677799,-0.02111,0.185442,0.0463856,0.18231,-0.268433,0.748358,0.207082,-0.00140771,-28.7902,-9.09353,-28.528,44.7198,-91.4516,-16.9376,-0.0343195,4.0736,-0.262068,3.99132,-1.00425,4.27814,0.22002,-0.0351255,0.186253,0.0353894,0.0296451,-1.93643,0.360309,-0.0703796,-0.0198867,0.61241,0.172313,0.535434,-0.979456,1.65208,0.261062,-0.000347396,0.41685,-0.720641,-15.5317,-0.921395,10.1755,12.4773,0.0755931,-5.41974,-37.1922,-5.18828,29.2679,1.23474,3.81585,-0.0301054,
0.185936,0.0344974,0.0294998,-1.90456,0.486748,-0.0669934,-0.021123,0.14859,0.0347532,0.145794,-0.211206,0.631218,0.185326,-0.0014511,-23.0322,-7.27028,-22.8222,35.7672,-73.2127,-13.5971,-0.0271145,4.07929,-0.276896,4.00081,-0.626383,5.30176,-0.413591,-0.0343938,0.186253,0.0353894,0.0296451,-1.93643,0.360309,-0.0703796,-0.0198867,0.61241,0.172313,0.535434,-0.979456,1.65208,0.261062,-0.000347396,0,0,0,0,0,0,0,-5.41974,-37.1922,-5.18828,29.2679,1.23474,3.81585,-0.0301054,
0.200869,0.0449718,0.0438289,-1.9446,0.417345,-0.0936016,-0.0201889,0.137955,0.0347028,0.134962,-0.173185,0.586786,0.127595,-0.00181336,-6.64675,-0.0314674,-6.77008,23.763,-27.7698,-36.0824,-0.226411,1.96891,-0.0819349,1.92625,1.27787,10.0647,-2.92703,0.022519,0.186253,0.0353894,0.0296451,-1.93643,0.360309,-0.0703796,-0.0198867,0.61241,0.172313,0.535434,-0.979456,1.65208,0.261062,-0.000347396,0,0,0,0,0,0,0,-5.41974,-37.1922,-5.18828,29.2679,1.23474,3.81585,-0.0301054,
0.201482,0.0451475,0.0444139,-1.94469,0.420174,-0.0940473,-0.0202127,0.125687,0.0321557,0.122594,-0.140783,0.540165,0.0909328,-0.002047,-7.66796,-1.59193,-7.73013,20.2512,-29.1383,-22.9136,-0.146027,0.91189,-0.348983,0.789212,1.3465,10.0647,-2.73971,-0.0247566,0.186253,0.0353894,0.0296451,-1.93643,0.360309,-0.0703796,-0.0198867,0.61241,0.172313,0.535434,-0.979456,1.65208,0.261062,-0.000347396,0,0,0,0,0,0,0,-5.41974,-37.1922,-5.18828,29.2679,1.23474,3.81585,-0.0301054,
0.201973,0.0452494,0.0448792,-1.94471,0.422678,-0.0941894,-0.0202347,0.112829,0.0282727,0.109709,-0.113331,0.494717,0.0691924,-0.00218767,-8.03629,-2.42689,-8.05333,17.1571,-28.4047,-13.5878,-0.0879216,0.265851,-0.494801,0.0698432,2.36154,8.64705,-1.6414,-0.0561372,0.202665,0.0403041,0.0523291,-1.96767,0.410542,-0.0445433,-0.0198731,0.527915,0.160547,0.599332,-0.760462,1.27042,0.929566,0.000151645,-10.5618,-1.47081,7.98722,27.3742,-47.7072,83.5629,0.0623801,-7.65332,-40.4375,-7.78685,30.9619,-0.13306,0.96398,-0.0566557,
0.202366,0.0452969,0.0452484,-1.9447,0.424938,-0.0940896,-0.0202552,0.100094,0.0238045,0.0969972,-0.0901896,0.452296,0.0578502,-0.00226256,-7.95937,-2.79263,-7.94476,14.4637,-26.5132,-7.08887,-0.0468038,0.3812,-0.431419,0.200297,2.93053,3.14909,1.34612,-0.030205,0.202665,0.0403041,0.0523291,-1.96767,0.410542,-0.0445433,-0.0198731,0.527915,0.160547,0.599332,-0.760462,1.27042,0.929566,0.000151645,0,0,0,0,0,0,0,-7.65332,-40.4375,-7.78685,30.9619,-0.13306,0.96398,-0.0566557,
0.215542,0.0474879,0.064751,-1.97267,0.44198,-0.0443851,-0.020176,0.099021,0.0259722,0.0956053,-0.0751753,0.429875,0.0406882,-0.00247378,-0.670386,1.35483,-0.869964,9.3839,-14.013,-10.7262,-0.132014,0.332683,-0.461085,0.149333,2.98831,2.24792,1.78586,-0.029365,0.202665,0.0403041,0.0523291,-1.96767,0.410542,-0.0445433,-0.0198731,0.527915,0.160547,0.599332,-0.760462,1.27042,0.929566,0.000151645,0,0,0,0,0,0,0,-7.65332,-40.4375,-7.78685,30.9619,-0.13306,0.96398,-0.0566557,
0.216137,0.0476618,0.0653124,-1.97273,0.444425,-0.0444388,-0.0201996,0.0940866,0.0251246,0.0905183,-0.0615463,0.40503,0.0312075,-0.00256886,-3.08402,-0.529753,-3.17936,8.51814,-15.5283,-5.92545,-0.0594228,0.332683,-0.461085,0.149333,2.98831,2.24792,1.78586,-0.029365,0.202665,0.0403041,0.0523291,-1.96767,0.410542,-0.0445433,-0.0198731,0.527915,0.160547,0.599332,-0.760462,1.27042,0.929566,0.000151645,0,0,0,0,0,0,0,-7.65332,-40.4375,-7.78685,30.9619,-0.13306,0.96398,-0.0566557,
0.216606,0.0477608,0.0657504,-1.97273,0.446655,-0.0443301,-0.020221,0.0869782,0.0225742,0.0833666,-0.0493745,0.379773,0.0276832,-0.00258987,-4.44273,-1.59399,-4.46978,7.60741,-15.7858,-2.20269,-0.01313,0.0148369,-0.883841,-0.216852,2.5004,1.99867,1.52325,-0.0199428,0.222161,0.0482854,0.0640339,-1.97995,0.446594,-0.0357163,-0.0198683,0.503015,0.27897,0.255322,-0.0447548,0.956598,-0.320985,6.55057e-06,-3.11253,14.8029,-43.0012,89.4634,-39.2275,-156.319,-0.0181368,-15.5641,-51.5181,-14.3844,38.2101,1.66229,-0.514597,-0.0566557,
0.216976,0.0478053,0.0660926,-1.9727,0.448717,-0.0440743,-0.0202407,0.0788317,0.0191715,0.075246,-0.0386426,0.355375,0.0285407,-0.00256528,-5.09158,-2.12673,-5.0754,6.70745,-15.2488,0.535938,0.0153691,0.0148369,-0.883841,-0.216852,2.5004,1.99867,1.52325,-0.0199428,0.222161,0.0482854,0.0640339,-1.97995,0.446594,-0.0357163,-0.0198683,0.503015,0.27897,0.255322,-0.0447548,0.956598,-0.320985,6.55057e-06,0,0,0,0,0,0,0,-15.5641,-51.5181,-14.3844,38.2101,1.66229,-0.514597,-0.0566557,
0.232437,0.0523755,0.0738233,-1.98172,0.479914,-0.0418298,-0.0201765,0.0702548,0.0147912,0.0666601,-0.0288264,0.330869,0.033243,-0.00250992,-5.36055,-2.73767,-5.36621,6.13508,-15.3163,2.93893,0.0345975,0.0148369,-0.883841,-0.216852,2.5004,1.99867,1.52325,-0.0199428,0.222161,0.0482854,0.0640339,-1.97995,0.446594,-0.0357163,-0.0198683,0.503015,0.27897,0.255322,-0.0447548,0.956598,-0.320985,6.55057e-06,0,0,0,0,0,0,0,-15.5641,-51.5181,-14.3844,38.2101,1.66229,-0.514597,-0.0566557,
0.232667,0.052332,0.0740251,-1.98162,0.481675,-0.0412911,-0.0201939,0.0619405,0.0107434,0.0583736,-0.0204368,0.308712,0.040063,-0.00244419,-5.19645,-2.52983,-5.17902,5.2435,-13.8481,4.26252,0.0410829,0.0148369,-0.883841,-0.216852,2.5004,1.99867,1.52325,-0.0199428,0.222161,0.0482854,0.0640339,-1.97995,0.446594,-0.0357163,-0.0198683,0.503015,0.27897,0.255322,-0.0447548,0.956598,-0.320985,6.55057e-06,0,0,0,0,0,0,0,-15.5641,-51.5181,-14.3844,38.2101,1.66229,-0.514597,-0.0566557,
0.232851,0.0522724,0.0741822,-1.98149,0.483356,-0.0406524,-0.0202107,0.0541424,0.00710677,0.0506256,-0.013307,0.288998,0.0480167,-0.00237478,-4.8738,-2.27292,-4.84249,4.45614,-12.3214,4.97108,0.0433808,0.0222977,-1.11493,-0.269185,2.45468,1.81767,1.43571,-0.0190854,0.231405,0.0547259,0.076975,-1.97859,0.466704,-0.041445,-0.0198766,0.23344,0.167942,0.292771,0.0489618,0.570012,0.091768,-0.00112062,-33.6968,-13.8786,4.68111,11.7146,-48.3232,51.5941,-0.140897,-17.1629,-45.0554,-17.0346,27.5739,0.19653,0.692984,0.017502,
0.237014,0.0564484,0.0822768,-1.97855,0.484826,-0.0389727,-0.0200752,0.0547126,0.00624684,0.0509659,-0.00873788,0.286346,0.0491673,-0.0024461,0.356361,-0.537458,0.212691,2.85569,-1.65702,0.719116,-0.0445784,0.0222977,-1.11493,-0.269185,2.45468,1.81767,1.43571,-0.0190854,0.231405,0.0547259,0.076975,-1.97859,0.466704,-0.041445,-0.0198766,0.23344,0.167942,0.292771,0.0489618,0.570012,0.091768,-0.00112062,0,0,0,0,0,0,0,-17.1629,-45.0554,-17.0346,27.5739,0.19653,0.692984,0.017502,
0.237373,0.0564338,0.0826012,-1.97845,0.486852,-0.0384625,-0.0200953,0.0527441,0.00463124,0.0488833,-0.00452079,0.279725,0.0520883,-0.00245814,-1.23032,-1.00975,-1.30167,2.63568,-4.13811,1.82564,-0.00752345,0.0222977,-1.11493,-0.269185,2.45468,1.81767,1.43571,-0.0190854,0.231405,0.0547259,0.076975,-1.97859,0.466704,-0.041445,-0.0198766,0.23344,0.167942,0.292771,0.0489618,0.570012,0.091768,-0.00112062,0,0,0,0,0,0,0,-17.1629,-45.0554,-17.0346,27.5739,0.19653,0.692984,0.017502,
0.237657,0.0563935,0.0828525,-1.97833,0.488737,-0.0378729,-0.020114,0.0492893,0.002699,0.0453898,-0.000705874,0.270908,0.0564107,-0.00243411,-2.15927,-1.20765,-2.18343,2.38432,-5.51072,2.7015,0.0150224,0.0222977,-1.11493,-0.269185,2.45468,1.81767,1.43571,-0.0190854,0.231405,0.0547259,0.076975,-1.97859,0.466704,-0.041445,-0.0198766,0.23344,0.167942,0.292771,0.0489618,0.570012,0.091768,-0.00112062,0,0,0,0,0,0,0,-17.1629,-45.0554,-17.0346,27.5739,0.19653,0.692984,0.017502,
0.237882,0.0563356,0.0830469,-1.9782,0.490512,-0.0372099,-0.0201317,0.0450618,0.000711713,0.0411714,0.00269089,0.261097,0.0617039,-0.00238942,-2.64218,-1.24205,-2.63646,2.12298,-6.13172,3.30821,0.0279308,0.0222977,-1.11493,-0.269185,2.45468,1.81767,1.43571,-0.0190854,0.231405,0.0547259,0.076975,-1.97859,0.466704,-0.041445,-0.0198766,0.23344,0.167942,0.292771,0.0489618,0.570012,0.091768,-0.00112062,0,0,0,0,0,0,0,-17.1629,-45.0554,-17.0346,27.5739,0.19653,0.692984,0.017502,
0.241711,0.0553067,0.081581,-1.97813,0.496402,-0.035211,-0.0199882,0.041114,-0.00198892,0.03728,0.00619232,0.25477,0.0671279,-0.00234574,-2.46737,-1.6879,-2.43218,2.1884,-3.95465,3.39003,0.0273005,0.126786,-1.19786,-0.179028,2.28369,1.75928,1.33258,-0.018215,0.239444,0.055734,0.0795084,-1.97895,0.482014,-0.0381575,-0.019869,0.10077,0.00181682,0.0845091,-0.000817335,0.489159,0.0225733,0.000894348,-16.5838,-20.7656,-26.0327,-6.22239,-10.1067,-8.64934,0.251871,-11.5056,-37.1684,-10.8099,27.5024,0.831906,1.82,-0.050247,
0.241874,0.0552021,0.0817159,-1.97797,0.49813,-0.0344406,-0.0200049,0.0369644,-0.0042064,0.0331964,0.00908684,0.247009,0.072962,-0.00229404,-2.59347,-1.38592,-2.55222,1.80907,-4.85046,3.64628,0.0323069,0.126786,-1.19786,-0.179028,2.28369,1.75928,1.33258,-0.018215,0.239444,0.055734,0.0795084,-1.97895,0.482014,-0.0381575,-0.019869,0.10077,0.00181682,0.0845091,-0.000817335,0.489159,0.0225733,0.000894348,0,0,0,0,0,0,0,-11.5056,-37.1684,-10.8099,27.5024,0.831906,1.82,-0.050247,
0.242005,0.0550968,0.08182,-1.9778,0.499775,-0.033621,-0.0200211,0.0328565,-0.00599864,0.0291583,0.0114707,0.238728,0.0788591,-0.0022393,-2.56745,-1.12015,-2.5238,1.4899,-5.17556,3.6857,0.0342182,0.126786,-1.19786,-0.179028,2.28369,1.75928,1.33258,-0.018215,0.239444,0.055734,0.0795084,-1.97895,0.482014,-0.0381575,-0.019869,0.10077,0.00181682,0.0845091,-0.000817335,0.489159,0.0225733,0.000894348,0,0,0,0,0,0,0,-11.5056,-37.1684,-10.8099,27.5024,0.831906,1.82,-0.050247,
0.242112,0.0549916,0.0818995,-1.97763,0.501356,-0.0327614,-0.0200368,0.0289437,-0.00742808,0.0253152,0.0134269,0.230499,0.0845774,-0.00218477,-2.44554,-0.893405,-2.40197,1.22266,-5.14325,3.57393,0.0340805,0.126786,-1.19786,-0.179028,2.28369,1.75928,1.33258,-0.018215,0.239444,0.055734,0.0795084,-1.97895,0.482014,-0.0381575,-0.019869,0.10077,0.00181682,0.0845091,-0.000817335,0.489159,0.0225733,0.000894348,0,0,0,0,0,0,0,-11.5056,-37.1684,-10.8099,27.5024,0.831906,1.82,-0.050247,
0.240073,0.056238,0.0801212,-1.97939,0.484596,-0.0376247,-0.0198972,0.0388921,0.00665894,0.0355724,-0.000354065,0.248949,0.0809816,-0.00245224,6.2178,8.80439,6.41075,-8.61313,11.5313,-2.24734,-0.167174,0.0112395,29.7163,-0.289999,-20.8276,-2.77493,0.522297,-0.0109207,0.240122,0.0552247,0.0830628,-1.97895,0.494137,-0.0374262,-0.019869,0.0469631,-0.0304719,0.010162,0.0146035,0.321067,-0.00200121,0.000676194,-6.72581,-4.03609,-9.29338,1.92761,-21.0116,-3.07182,-0.0272691,-4.3565,-31.4516,-4.23613,27.3755,2.34069,2.7813,-0.050247,
0.24058,0.0566311,0.0805873,-1.97958,0.48678,-0.0372558,-0.0199165,0.0437704,0.0151529,0.0401099,-0.00503059,0.253742,0.0740077,-0.00244401,3.04891,5.30875,2.83594,-2.92283,2.9955,-4.35871,0.00514587,0.121416,-1.23978,-0.189245,2.24924,1.71219,1.32064,-0.0178364,0.240122,0.0552247,0.0830628,-1.97895,0.494137,-0.0374262,-0.019869,0.0469631,-0.0304719,0.010162,0.0146035,0.321067,-0.00200121,0.000676194,0,0,0,0,0,0,0,-4.3565,-31.4516,-4.23613,27.3755,2.34069,2.7813,-0.050247,
0.240978,0.0569052,0.0809487,-1.97966,0.488723,-0.0368712,-0.0199353,0.0449803,0.0189749,0.0411224,-0.00605881,0.251574,0.0688219,-0.00242573,0.756207,2.3887,0.632795,-0.642637,-1.35469,-3.24109,0.011425,0.121425,-1.23977,-0.189236,2.24924,1.71222,1.3206,-0.0178364,0.240122,0.0552247,0.0830628,-1.97895,0.494137,-0.0374262,-0.019869,0.0469631,-0.0304719,0.010162,0.0146035,0.321067,-0.00200121,0.000676194,0,0,0,0,0,0,0,-4.3565,-31.4516,-4.23613,27.3755,2.34069,2.7813,-0.050247,
0.24107,0.0541742,0.0838265,-1.97772,0.506463,-0.0326809,-0.0199773,0.0378162,0.0121611,0.0340859,-0.00038983,0.238411,0.0781783,-0.00231823,-4.47757,-4.2586,-4.39777,3.54311,-8.22704,5.84771,0.067191,0.120388,-1.24224,-0.190399,2.25212,1.67504,1.36031,-0.017808,0.240122,0.0552247,0.0830628,-1.97895,0.494137,-0.0374262,-0.019869,0.0469631,-0.0304719,0.010162,0.0146035,0.321067,-0.00200121,0.000676194,0,0,0,0,0,0,0,-4.3565,-31.4516,-4.23613,27.3755,2.34069,2.7813,-0.050247,
0.241131,0.0540581,0.0838617,-1.97754,0.507909,-0.031725,-0.0199922,0.0317733,0.00682516,0.0281501,0.00413291,0.226897,0.0864414,-0.00222734,-3.77684,-3.33496,-3.70989,2.82671,-7.19668,5.16447,0.056806,0.118339,-1.25479,-0.187385,2.2175,1.64607,1.34872,-0.0177018,0.24108,0.0539479,0.0833016,-1.97816,0.502807,-0.0360532,-0.0198698,0.0230419,-0.0166883,0.00435483,0.041723,0.245297,0.0788953,0.000142933,-2.99015,1.72294,-0.725895,3.38993,-9.47118,10.1121,-0.0666577,0.689884,-32.2252,0.838026,23.7653,2.63916,1.08391,-0.0429228,
0.241182,0.0539456,0.083887,-1.97736,0.509325,-0.0307464,-0.0200069,0.0266849,0.0026482,0.023152,0.00773679,0.216915,0.0936181,-0.00215037,-3.18022,-2.6106,-3.12378,2.25243,-6.23819,4.48544,0.0481053,0.118371,-1.25473,-0.187351,2.21747,1.64637,1.34826,-0.0177023,0.24108,0.0539479,0.0833016,-1.97816,0.502807,-0.0360532,-0.0198698,0.0230419,-0.0166883,0.00435483,0.041723,0.245297,0.0788953,0.000142933,0,0,0,0,0,0,0,0.689884,-32.2252,0.838026,23.7653,2.63916,1.08391,-0.0429228,
0.241224,0.0538361,0.0839042,-1.97719,0.510717,-0.0297514,-0.0200215,0.0224084,-0.000619507,0.0189519,0.0106044,0.208322,0.0997685,-0.00208513,-2.67283,-2.04232,-2.62511,1.79228,-5.37078,3.84396,0.0407745,0.1184,-1.25468,-0.18732,2.21744,1.64668,1.3478,-0.0177027,0.24108,0.0539479,0.0833016,-1.97816,0.502807,-0.0360532,-0.0198698,0.0230419,-0.0166883,0.00435483,0.041723,0.245297,0.0788953,0.000142933,0,0,0,0,0,0,0,0.689884,-32.2252,0.838026,23.7653,2.63916,1.08391,-0.0429228,
0.241565,0.0530643,0.0836392,-1.97694,0.511167,-0.029224,-0.0199594,0.0192351,-0.00369068,0.0158491,0.0131733,0.196136,0.111398,-0.00203221,-1.98329,-1.91948,-1.93922,1.60551,-7.61663,7.26843,0.0330727,0.109185,-1.27643,-0.197632,2.24477,1.27748,1.72662,-0.0174267,0.24108,0.0539479,0.0833016,-1.97816,0.502807,-0.0360532,-0.0198698,0.0230419,-0.0166883,0.00435483,0.041723,0.245297,0.0788953,0.000142933,0,0,0,0,0,0,0,0.689884,-32.2252,0.838026,23.7653,2.63916,1.08391,-0.0429228,
0.241609,0.0529421,0.0836584,-1.97676,0.512309,-0.0279457,-0.0199738,0.0164879,-0.00600809,0.01316,0.0151638,0.185449,0.121076,-0.0019864,-1.71703,-1.44838,-1.68071,1.24409,-6.67895,6.04871,0.0286336,0.122419,-1.23683,-0.188912,2.20822,1.2699,1.69995,-0.017454,0.241889,0.0544221,0.0839204,-1.97767,0.508568,-0.0312499,-0.019875,0.00653628,0.0199304,0.00121628,0.00720642,0.277374,0.16313,0.000258622,-2.06321,4.57734,-0.392319,-4.31457,4.00965,10.5293,0.0144612,0.765262,-35.9187,1.11177,26.3797,3.83667,0.500723,0.00376909,
0.241646,0.0528244,0.0836708,-1.97658,0.513423,-0.0266585,-0.0199881,0.0141159,-0.00774759,0.0108367,0.0167,0.176205,0.129039,-0.00194654,-1.4825,-1.08719,-1.45205,0.960108,-5.77788,4.97693,0.0249091,0.122663,-1.23655,-0.188658,2.20784,1.27288,1.69551,-0.0174589,0.241889,0.0544221,0.0839204,-1.97767,0.508568,-0.0312499,-0.019875,0.00653628,0.0199304,0.00121628,0.00720642,0.277374,0.16313,0.000258622,0,0,0,0,0,0,0,0.765262,-35.9187,1.11177,26.3797,3.83667,0.500723,0.00376909,
0.241677,0.0527106,0.0836775,-1.9764,0.514516,-0.025367,-0.0200023,0.0120746,-0.00904521,0.00883674,0.0178795,0.168289,0.135521,-0.00191179,-1.27582,-0.811013,-1.24997,0.737209,-4.94755,4.05102,0.0217213,0.122882,-1.23627,-0.18843,2.20748,1.27591,1.69106,-0.0174644,0.241889,0.0544221,0.0839204,-1.97767,0.508568,-0.0312499,-0.019875,0.00653628,0.0199304,0.00121628,0.00720642,0.277374,0.16313,0.000258622,0,0,0,0,0,0,0,0.765262,-35.9187,1.11177,26.3797,3.83667,0.500723,0.00376909,
0.242958,0.0476486,0.0827372,-1.96411,0.625169,0.0528072,-0.0211032,0.0098873,-0.00874911,0.00672358,0.0172837,0.162737,0.127548,-0.00183334,-1.36705,0.185064,-1.32072,-0.372389,-3.4695,-4.98261,0.0490323,0.122882,-1.23627,-0.18843,2.20748,1.27591,1.69106,-0.0174644,0.241889,0.0544221,0.0839204,-1.97767,0.508568,-0.0312499,-0.019875,0.00653628,0.0199304,0.00121628,0.00720642,0.277374,0.16313,0.000258622,0,0,0,0,0,0,0,0.765262,-35.9187,1.11177,26.3797,3.83667,0.500723,0.00376909,
0.242958,0.0476486,0.0827372,-1.96411,0.625169,0.0528072,-0.0211032,0.00813748,-0.00851223,0.00503306,0.016807,0.158296,0.121171,-0.00177058,-1.09364,0.148051,-1.05658,-0.297911,-2.7756,-3.98609,0.0392258,0.114335,-1.18279,-0.199645,2.16159,1.25952,1.66602,-0.0171805,0.242358,0.0545999,0.0843217,-1.97749,0.51495,-0.0234941,-0.0198728,0.0249531,-0.00446707,0.00742576,0.01162,0.16434,0.251649,0.000492719,2.3021,-3.04969,0.776186,0.551702,-14.1293,11.0649,0.0292621,-1.23822,-35.4189,-0.93535,26.2805,3.28094,-0.0568331,-0.0163725,
0.242958,0.0476486,0.0827372,-1.96411,0.625169,0.0528072,-0.0211032,0.00673762,-0.00832272,0.00368064,0.0164257,0.154744,0.116069,-0.00172037,-0.874911,0.118441,-0.845262,-0.238329,-2.22048,-3.18887,0.0313807,0.114335,-1.18279,-0.199645,2.16159,1.25952,1.66602,-0.0171805,0.242358,0.0545999,0.0843217,-1.97749,0.51495,-0.0234941,-0.0198728,0.0249531,-0.00446707,0.00742576,0.01162,0.16434,0.251649,0.000492719,0,0,0,0,0,0,0,-1.23822,-35.4189,-0.93535,26.2805,3.28094,-0.0568331,-0.0163725,
0.247409,0.0504047,0.0873373,-1.96671,0.335492,0.323668,-0.0206368,0.00504773,-0.00608352,0.00209672,0.0144691,0.172539,0.0830432,-0.00158733,-1.05618,1.3995,-0.989948,-1.22289,11.122,-20.6408,0.0831515,0.114335,-1.18279,-0.199645,2.16159,1.25952,1.66602,-0.0171805,0.242358,0.0545999,0.0843217,-1.97749,0.51495,-0.0234941,-0.0198728,0.0249531,-0.00446707,0.00742576,0.01162,0.16434,0.251649,0.000492719,0,0,0,0,0,0,0,-1.23822,-35.4189,-0.93535,26.2805,3.28094,-0.0568331,-0.0163725,
0.243543,0.0474627,0.0831405,-1.96356,0.635466,0.061906,-0.021149,0.00426865,-0.00626925,0.00133356,0.0144213,0.166132,0.084746,-0.00157032,-0.486927,-0.116085,-0.476974,-0.0298611,-4.00455,1.06423,0.010631,0.114335,-1.18279,-0.199645,2.16159,1.25952,1.66602,-0.0171805,0.242358,0.0545999,0.0843217,-1.97749,0.51495,-0.0234941,-0.0198728,0.0249531,-0.00446707,0.00742576,0.01162,0.16434,0.251649,0.000492719,0,0,0,0,0,0,0,-1.23822,-35.4189,-0.93535,26.2805,3.28094,-0.0568331,-0.0163725,
0.243543,0.0474627,0.0831405,-1.96356,0.635466,0.061906,-0.021149,0.00364538,-0.00641784,0.000723037,0.0143831,0.161006,0.0861082,-0.00155671,-0.389542,-0.0928679,-0.381579,-0.0238889,-3.20364,0.851383,0.00850478,0.183449,-1.0932,-0.131434,2.0592,1.25622,1.61486,-0.0174319,0.242672,0.0543009,0.0845115,-1.97688,0.52299,-0.0133885,-0.019874,-0.00141811,0.000506155,-0.00462552,0.0139372,0.455815,0.384465,-0.000208085,-3.2964,0.621653,-1.50641,0.289646,36.4344,16.6021,-0.0876005,0.0313145,-34.2723,0.488905,26.828,4.63684,0.957571,-0.00996382,
0.243543,0.0474627,0.0831405,-1.96356,0.635466,0.061906,-0.021149,0.00314677,-0.00653671,0.000234616,0.0143525,0.156905,0.087198,-0.00154582,-0.311633,-0.0742943,-0.305264,-0.0191111,-2.56291,0.681107,0.00680383,0.183449,-1.0932,-0.131434,2.0592,1.25622,1.61486,-0.0174319,0.242672,0.0543009,0.0845115,-1.97688,0.52299,-0.0133885,-0.019874,-0.00141811,0.000506155,-0.00462552,0.0139372,0.455815,0.384465,-0.000208085,0,0,0,0,0,0,0,0.0313145,-34.2723,0.488905,26.828,4.63684,0.957571,-0.00996382,
0.288542,0.0476791,0.131609,-1.9642,0.223795,0.408863,-0.0201025,0.00237242,-0.00477853,-0.00053254,0.0121337,0.191604,0.041949,-0.00144364,-0.483965,1.09886,-0.479472,-1.38674,21.6869,-28.2806,0.0638623,0.183449,-1.0932,-0.131434,2.0592,1.25622,1.61486,-0.0174319,0.242672,0.0543009,0.0845115,-1.97688,0.52299,-0.0133885,-0.019874,-0.00141811,0.000506155,-0.00462552,0.0139372,0.455815,0.384465,-0.000208085,0,0,0,0,0,0,0,0.0313145,-34.2723,0.488905,26.828,4.63684,0.957571,-0.00996382,
0.243587,0.0473786,0.0830956,-1.96296,0.661469,0.0627875,-0.0211796,0.00215783,-0.00512977,-0.000743799,0.0124158,0.184397,0.0494667,-0.00146611,-0.134119,-0.219522,-0.132036,0.176319,-4.50444,4.69861,-0.0140416,0.183449,-1.0932,-0.131434,2.0592,1.25622,1.61486,-0.0174319,0.242672,0.0543009,0.0845115,-1.97688,0.52299,-0.0133885,-0.019874,-0.00141811,0.000506155,-0.00462552,0.0139372,0.455815,0.384465,-0.000208085,0,0,0,0,0,0,0,0.0313145,-34.2723,0.488905,26.828,4.63684,0.957571,-0.00996382,
0.243587,0.0473786,0.0830956,-1.96296,0.661469,0.0627875,-0.0211796,0.00198616,-0.00541076,-0.000912805,0.0126415,0.178631,0.055481,-0.00148408,-0.107295,-0.175618,-0.105629,0.141055,-3.60355,3.75889,-0.0112333,0.156005,-1.01172,-0.160219,1.98028,1.23511,1.55861,-0.0168281,0.242817,0.0543501,0.0845897,-1.97606,0.532695,0.00152321,-0.0198798,-0.00348307,-0.0016912,-0.00477986,0.0298918,0.333234,0.354349,0.00029371,-0.25812,-0.274669,-0.0192927,1.99433,-15.3226,-3.76452,0.0627243,-1.00811,-35.3713,-0.836168,25.1578,3.06671,-0.142893,0.00376909,
0.243587,0.0473786,0.0830956,-1.96296,0.661469,0.0627875,-0.0211796,0.00184882,-0.00563555,-0.00104801,0.0128221,0.174019,0.0602923,-0.00149846,-0.085836,-0.140494,-0.0845033,0.112844,-2.88284,3.00711,-0.00898665,0.156005,-1.01172,-0.160219,1.98028,1.23511,1.55861,-0.0168281,0.242817,0.0543501,0.0845897,-1.97606,0.532695,0.00152321,-0.0198798,-0.00348307,-0.0016912,-0.00477986,0.0298918,0.333234,0.354349,0.00029371,0,0,0,0,0,0,0,-1.00811,-35.3713,-0.836168,25.1578,3.06671,-0.142893,0.00376909,
0.243627,0.0479887,0.0830455,-1.9628,0.68273,0.0658163,-0.0212147,0.00176875,-0.00568169,-0.00113637,0.0128407,0.173515,0.061833,-0.00151987,-0.0500464,-0.0288384,-0.0552239,0.0116324,-0.314681,0.962889,-0.0133801,0.156005,-1.01172,-0.160219,1.98028,1.23511,1.55861,-0.0168281,0.242817,0.0543501,0.0845897,-1.97606,0.532695,0.00152321,-0.0198798,-0.00348307,-0.0016912,-0.00477986,0.0298918,0.333234,0.354349,0.00029371,0,0,0,0,0,0,0,-1.00811,-35.3713,-0.836168,25.1578,3.06671,-0.142893,0.00376909,
0.243627,0.0479887,0.0830455,-1.9628,0.68273,0.0658163,-0.0212147,0.00170469,-0.0057186,-0.00120706,0.0128556,0.173113,0.0630655,-0.001537,-0.0400371,-0.0230707,-0.0441791,0.00930593,-0.251745,0.770311,-0.0107041,0.156005,-1.01172,-0.160219,1.98028,1.23511,1.55861,-0.0168281,0.242817,0.0543501,0.0845897,-1.97606,0.532695,0.00152321,-0.0198798,-0.00348307,-0.0016912,-0.00477986,0.0298918,0.333234,0.354349,0.00029371,0,0,0,0,0,0,0,-1.00811,-35.3713,-0.836168,25.1578,3.06671,-0.142893,0.00376909,
0.243627,0.0479887,0.0830455,-1.9628,0.68273,0.0658163,-0.0212147,0.00165344,-0.00574813,-0.0012636,0.0128675,0.17279,0.0640515,-0.0015507,-0.0320297,-0.0184566,-0.0353433,0.00744474,-0.201396,0.616249,-0.00856329,0.156005,-1.01172,-0.160219,1.98028,1.23511,1.55861,-0.0168281,0.242817,0.0543501,0.0845897,-1.97606,0.532695,0.00152321,-0.0198798,-0.00348307,-0.0016912,-0.00477986,0.0298918,0.333234,0.354349,0.00029371,0,0,0,0,0,0,0,-1.00811,-35.3713,-0.836168,25.1578,3.06671,-0.142893,0.00376909,
0.243627,0.0479887,0.0830455,-1.9628,0.68273,0.0658163,-0.0212147,0.00161245,-0.00577176,-0.00130884,0.012877,0.172533,0.0648403,-0.00156166,-0.0256237,-0.0147653,-0.0282746,0.00595579,-0.161117,0.492999,-0.00685063,0.178525,-0.933307,-0.139079,1.88816,1.2036,1.51364,-0.0167838,0.242782,0.0541872,0.084322,-1.9756,0.547506,0.0128414,-0.0198761,-0.000945167,0.011177,-0.00470991,0.0324183,0.514847,0.257088,-0.000360102,0.317238,1.60852,0.0087434,0.315813,22.7016,-12.1577,-0.0817264,-0.198788,-34.3715,-0.0625476,26.0068,2.77374,0.0164091,0.0101778,
0.244095,0.05329,0.0855089,-1.97507,0.540859,0.0243767,-0.0198005,0.0210756,-0.0180443,0.0176289,0.0178366,0.00952412,0.21752,-0.000324655,12.1645,-7.67033,11.8361,3.09974,-101.88,95.425,0.773127,11.0772,-10.1063,8.90572,3.72534,-14.887,12.3115,-0.00397697,0.242782,0.0541872,0.084322,-1.9756,0.547506,0.0128414,-0.0198761,-0.000945167,0.011177,-0.00470991,0.0324183,0.514847,0.257088,-0.000360102,0,0,0,0,0,0,0,-0.198788,-34.3715,-0.0625476,26.0068,2.77374,0.0164091,0.0101778,
0.245035,0.0526991,0.0864187,-1.97471,0.533388,0.0320668,-0.0197707,0.0403711,-0.0292073,0.0368471,0.0232022,-0.179176,0.36627,0.000485748,12.0597,-6.97691,12.0114,3.35348,-117.937,92.9682,0.506502,11.3878,-8.27881,10.1493,3.99651,-14.887,12.3115,0.0108336,0.242782,0.0541872,0.084322,-1.9756,0.547506,0.0128414,-0.0198761,-0.000945167,0.011177,-0.00470991,0.0324183,0.514847,0.257088,-0.000360102,0,0,0,0,0,0,0,-0.198788,-34.3715,-0.0625476,26.0068,2.77374,0.0164091,0.0101778,
0.246048,0.0521139,0.087408,-1.97433,0.524418,0.0404222,-0.0197471,0.0576267,-0.0379955,0.0542115,0.0281218,-0.367581,0.5019,0.000977432,10.7847,-5.49259,10.8527,3.07479,-117.754,84.7693,0.307302,11.4882,-6.91401,10.7008,4.16208,-14.887,12.3115,0.0146,0.242782,0.0541872,0.084322,-1.9756,0.547506,0.0128414,-0.0198761,-0.000945167,0.011177,-0.00470991,0.0324183,0.514847,0.257088,-0.000360102,0,0,0,0,0,0,0,-0.198788,-34.3715,-0.0625476,26.0068,2.77374,0.0164091,0.0101778,
0.24378,0.0537243,0.0853291,-1.97385,0.557187,0.0338904,-0.019758,0.0625582,-0.0356259,0.059879,0.0351348,-0.425038,0.566291,0.00200135,3.08222,1.481,3.54218,4.38309,-35.9101,40.2443,0.639947,8.28723,-0.650452,7.53473,4.57965,-14.9267,12.2845,0.0290047,0.24273,0.0541027,0.0842486,-1.97479,0.564194,0.0224236,-0.0198729,-0.00941181,-0.00853434,-0.00690969,0.0271582,0.462777,0.279161,0.00136119,-1.05833,-2.46391,-0.274972,-0.657513,-6.50865,2.75913,0.215162,0.793033,-34.669,0.961012,25.2847,3.14636,-0.461496,-0.0301054,
0.244573,0.053517,0.0861117,-1.97334,0.549715,0.0415726,-0.0197197,0.0698557,-0.0336841,0.0674689,0.0408176,-0.526848,0.645087,0.00256023,4.56092,1.21363,4.74371,3.5518,-63.6316,49.2473,0.349305,8.53538,0.0377943,7.90196,4.66974,-14.9267,12.2845,0.0279557,0.24273,0.0541027,0.0842486,-1.97479,0.564194,0.0224236,-0.0198729,-0.00941181,-0.00853434,-0.00690969,0.0271582,0.462777,0.279161,0.00136119,0,0,0,0,0,0,0,0.793033,-34.669,0.961012,25.2847,3.14636,-0.461496,-0.0301054,
0.245425,0.0533337,0.0869484,-1.97286,0.540788,0.0499405,-0.0196869,0.0771948,-0.0315287,0.0748925,0.0447289,-0.644639,0.725266,0.00286832,4.58693,1.34713,4.63974,2.44455,-73.6191,50.1121,0.192553,8.6817,0.34852,8.17567,4.62603,-14.9267,12.2845,0.028492,0.24273,0.0541027,0.0842486,-1.97479,0.564194,0.0224236,-0.0198729,-0.00941181,-0.00853434,-0.00690969,0.0271582,0.462777,0.279161,0.00136119,0,0,0,0,0,0,0,0.793033,-34.669,0.961012,25.2847,3.14636,-0.461496,-0.0301054,
0.246297,0.0531833,0.0878013,-1.97241,0.530907,0.0587341,-0.0196563,0.0835479,-0.0289824,0.0812361,0.0469357,-0.762736,0.800053,0.00305876,3.97071,1.59142,3.96478,1.37926,-73.8107,46.7415,0.119022,8.79203,0.447918,8.37677,4.52644,-14.9267,12.2845,0.0290668,0.24273,0.0541027,0.0842486,-1.97479,0.564194,0.0224236,-0.0198729,-0.00941181,-0.00853434,-0.00690969,0.0271582,0.462777,0.279161,0.00136119,0,0,0,0,0,0,0,0.793033,-34.669,0.961012,25.2847,3.14636,-0.461496,-0.0301054,
0.248684,0.052333,0.0902074,-1.97223,0.529045,0.0880052,-0.0197246,0.0902305,-0.026039,0.0878266,0.0492161,-0.869664,0.882774,0.00315042,4.17661,1.83965,4.11907,1.42522,-66.8303,51.701,0.0572906,8.73919,1.11622,8.31808,3.88332,-15.0976,12.119,0.033722,0.244697,0.0528396,0.0863055,-1.97435,0.565129,0.0484066,-0.0198442,0.124899,-0.0327124,0.141025,0.0186669,-0.602364,1.34551,0.000716943,16.7888,-3.02225,18.4918,-1.06142,-133.143,133.293,-0.0805313,7.46204,-38.7633,7.0865,30.3906,-0.352787,3.90191,-0.0630644,
0.249582,0.0522371,0.0910838,-1.97182,0.518221,0.0976339,-0.019696,0.0946453,-0.0232282,0.0921719,0.0496298,-0.966334,0.946937,0.00323438,2.75927,1.75672,2.71579,0.258572,-60.4187,40.1015,0.0524719,8.82643,1.10351,8.46546,3.74747,-15.0976,12.119,0.035048,0.244697,0.0528396,0.0863055,-1.97435,0.565129,0.0484066,-0.0198442,0.124899,-0.0327124,0.141025,0.0186669,-0.602364,1.34551,0.000716943,0,0,0,0,0,0,0,7.46204,-38.7633,7.0865,30.3906,-0.352787,3.90191,-0.0630644,
0.250448,0.0521616,0.091928,-1.97146,0.507094,0.107191,-0.0196669,0.0973677,-0.0204696,0.0948433,0.0487234,-1.05124,0.996483,0.00331358,1.70145,1.72415,1.66962,-0.5665,-53.0668,30.9665,0.0495018,8.89477,1.03152,8.57311,3.60132,-15.0976,12.119,0.035992,0.244697,0.0528396,0.0863055,-1.97435,0.565129,0.0484066,-0.0198442,0.124899,-0.0327124,0.141025,0.0186669,-0.602364,1.34551,0.000716943,0,0,0,0,0,0,0,7.46204,-38.7633,7.0865,30.3906,-0.352787,3.90191,-0.0630644,
0.251287,0.052106,0.092745,-1.97114,0.495761,0.116684,-0.0196377,0.0988588,-0.0177656,0.0962981,0.0469344,-1.12431,1.0345,0.00338096,0.931949,1.68997,0.909275,-1.11814,-45.6701,23.7617,0.0421166,8.94824,0.931073,8.65148,3.44844,-15.0976,12.119,0.0369376,0.244697,0.0528396,0.0863055,-1.97435,0.565129,0.0484066,-0.0198442,0.124899,-0.0327124,0.141025,0.0186669,-0.602364,1.34551,0.000716943,0,0,0,0,0,0,0,7.46204,-38.7633,7.0865,30.3906,-0.352787,3.90191,-0.0630644,
0.246773,0.0525663,0.0883489,-1.97324,0.549147,0.0685069,-0.0197787,0.10461,-0.0175482,0.102097,0.0516944,-1.11798,1.07607,0.00345768,3.59448,0.135874,3.62451,2.975,3.95864,25.9823,0.0479457,8.82816,2.24174,8.45677,2.50694,-15.2155,11.5424,0.0406886,0.249926,0.0519938,0.0916785,-1.97107,0.514268,0.100529,-0.0198001,0.179285,-0.0447517,0.207993,0.0608299,-1.63635,1.6645,-0.00105647,6.79826,-1.50491,8.37105,5.27038,-129.248,39.8745,-0.221676,1.60236,-29.456,1.7386,23.9874,0.715634,3.424,0.0577852,
0.247752,0.0524342,0.0893082,-1.97273,0.539425,0.0783184,-0.0197501,0.108175,-0.0173428,0.105661,0.0542421,-1.13744,1.10615,0.00348247,2.22803,0.128378,2.22741,1.59234,-12.1603,18.7954,0.0154964,8.89649,2.16975,8.56442,2.36078,-15.2155,11.5424,0.0416326,0.249926,0.0519938,0.0916785,-1.97107,0.514268,0.100529,-0.0198001,0.179285,-0.0447517,0.207993,0.0608299,-1.63635,1.6645,-0.00105647,0,0,0,0,0,0,0,1.60236,-29.456,1.7386,23.9874,0.715634,3.424,0.0577852,
0.248691,0.0523129,0.0902259,-1.97227,0.529046,0.0880328,-0.0197216,0.110006,-0.0169058,0.107472,0.0547571,-1.16943,1.12778,0.003498,1.14471,0.273104,1.13177,0.321866,-19.9963,13.5191,0.00970452,8.94996,2.06931,8.64279,2.20791,-15.2155,11.5424,0.0425782,0.249926,0.0519938,0.0916785,-1.97107,0.514268,0.100529,-0.0198001,0.179285,-0.0447517,0.207993,0.0608299,-1.63635,1.6645,-0.00105647,0,0,0,0,0,0,0,1.60236,-29.456,1.7386,23.9874,0.715634,3.424,0.0577852,
0.256705,0.0511575,0.0982484,-1.96876,0.431165,0.17207,-0.0196626,0.107866,-0.0146873,0.105401,0.0486971,-1.22677,1.13641,0.00345026,-1.33744,1.38661,-1.29432,-3.78748,-35.8359,5.39623,-0.029837,9.08584,1.63099,8.80977,1.62998,-15.2155,11.5424,0.0423246,0.249926,0.0519938,0.0916785,-1.97107,0.514268,0.100529,-0.0198001,0.179285,-0.0447517,0.207993,0.0608299,-1.63635,1.6645,-0.00105647,0,0,0,0,0,0,0,1.60236,-29.456,1.7386,23.9874,0.715634,3.424,0.0577852,
0.257482,0.0511231,0.0990088,-1.96859,0.419525,0.181332,-0.0196371,0.105721,-0.0126087,0.103332,0.0431457,-1.27242,1.14067,0.00339866,-1.34065,1.29912,-1.29293,-3.46965,-28.5302,2.66539,-0.0322518,8.89016,1.98969,8.61412,1.04925,-15.094,11.1046,0.0428924,0.257653,0.0516259,0.0991638,-1.96897,0.4563,0.160239,-0.0197681,0.25398,-0.0168786,0.224357,0.0646872,-1.78424,1.68899,0.00163752,9.33688,3.48414,2.04542,0.482153,-18.4866,3.06061,0.336749,-2.6585,-32.1736,-2.58574,24.6619,-0.316166,2.60918,-0.00996382,
0.258247,0.0510991,0.0997578,-1.96845,0.407893,0.190508,-0.0196124,0.103706,-0.0106875,0.101391,0.038106,-1.30871,1.14194,0.00333516,-1.25938,1.20076,-1.21334,-3.14984,-22.6858,0.788309,-0.0396867,8.93055,1.89706,8.65367,0.926849,-15.094,11.1046,0.0412758,0.257653,0.0516259,0.0991638,-1.96897,0.4563,0.160239,-0.0197681,0.25398,-0.0168786,0.224357,0.0646872,-1.78424,1.68899,0.00163752,0,0,0,0,0,0,0,-2.6585,-32.1736,-2.58574,24.6619,-0.316166,2.60918,-0.00996382,
0.259005,0.0510843,0.100499,-1.96833,0.396273,0.19961,-0.0195889,0.101891,-0.00892059,0.0996433,0.0335612,-1.33748,1.14112,0.00325703,-1.13436,1.1043,-1.09235,-2.84047,-17.9773,-0.509155,-0.0488326,8.98457,1.80298,8.7163,0.809363,-15.094,11.1046,0.0414877,0.257653,0.0516259,0.0991638,-1.96897,0.4563,0.160239,-0.0197681,0.25398,-0.0168786,0.224357,0.0646872,-1.78424,1.68899,0.00163752,0,0,0,0,0,0,0,-2.6585,-32.1736,-2.58574,24.6619,-0.316166,2.60918,-0.00996382,
0.264429,0.0511045,0.105723,-1.96741,0.384379,0.221154,-0.0197094,0.103388,-0.00842975,0.10106,0.0304845,-1.35613,1.14266,0.00304715,0.935093,0.306776,0.885434,-1.92292,-11.657,0.961752,-0.13117,9.04527,1.60411,8.82159,0.565673,-15.094,11.1046,0.0417583,0.257653,0.0516259,0.0991638,-1.96897,0.4563,0.160239,-0.0197681,0.25398,-0.0168786,0.224357,0.0646872,-1.78424,1.68899,0.00163752,0,0,0,0,0,0,0,-2.6585,-32.1736,-2.58574,24.6619,-0.316166,2.60918,-0.00996382,
0.265254,0.0510709,0.106527,-1.96731,0.373316,0.230214,-0.019695,0.103353,-0.00758591,0.100936,0.0268907,-1.36149,1.14062,0.00279813,-0.0212903,0.527402,-0.077517,-2.24613,-3.34977,-1.27379,-0.155637,8.80026,1.96997,8.57644,-0.00488941,-14.9588,10.7209,0.0433819,0.265483,0.0519359,0.106614,-1.96758,0.402726,0.220312,-0.0197307,0.254213,0.027279,0.203032,0.00711585,-1.9235,1.82909,0.00727029,0.0291023,5.5197,-2.66559,-7.19641,-17.4067,17.5122,0.704095,-1.59131,-34.3953,-1.33605,27.3001,-1.11634,2.58904,-0.217789,
0.266038,0.0510584,0.107288,-1.96725,0.362769,0.239175,-0.0196813,0.102267,-0.00638126,0.0997802,0.0230676,-1.35286,1.13653,0.00258097,-0.679019,0.752905,-0.722375,-2.38948,5.3907,-2.55828,-0.135729,8.83525,1.89629,8.61185,-0.1361,-14.9588,10.7209,0.0416617,0.265483,0.0519359,0.106614,-1.96758,0.402726,0.220312,-0.0197307,0.254213,0.027279,0.203032,0.00711585,-1.9235,1.82909,0.00727029,0,0,0,0,0,0,0,-1.59131,-34.3953,-1.33605,27.3001,-1.11634,2.58904,-0.217789,
0.266786,0.0510673,0.108015,-1.96722,0.352804,0.248059,-0.0196673,0.10053,-0.00488213,0.0980016,0.0192761,-1.3314,1.13132,0.00241403,-1.08563,0.936956,-1.1116,-2.36964,13.4151,-3.25298,-0.10434,8.87786,1.84758,8.65359,-0.26132,-14.9588,10.7209,0.0397742,0.265483,0.0519359,0.106614,-1.96758,0.402726,0.220312,-0.0197307,0.254213,0.027279,0.203032,0.00711585,-1.9235,1.82909,0.00727029,0,0,0,0,0,0,0,-1.59131,-34.3953,-1.33605,27.3001,-1.11634,2.58904,-0.217789,
0.2716,0.0525984,0.112479,-1.96708,0.336657,0.281594,-0.0197344,0.0993432,-0.00204029,0.0966902,0.0155989,-1.28564,1.13067,0.00219598,-0.741811,1.77615,-0.819647,-2.29825,28.598,-0.411945,-0.136279,8.98208,1.81915,8.75558,-0.492514,-14.7613,10.7209,0.0357519,0.265483,0.0519359,0.106614,-1.96758,0.402726,0.220312,-0.0197307,0.254213,0.027279,0.203032,0.00711585,-1.9235,1.82909,0.00727029,0,0,0,0,0,0,0,-1.59131,-34.3953,-1.33605,27.3001,-1.11634,2.58904,-0.217789,
0.27232,0.0526767,0.113175,-1.96709,0.328505,0.290464,-0.0197227,0.0974642,0.000326653,0.0947631,0.0122316,-1.23231,1.12626,0.0020478,-1.17434,1.47934,-1.20445,-2.10459,33.3354,-2.75036,-0.0926102,9.04093,1.83121,8.81402,-0.598727,-13.7055,10.7209,0.0340471,0.265483,0.0519359,0.106614,-1.96758,0.402726,0.220312,-0.0197307,0.254213,0.027279,0.203032,0.00711585,-1.9235,1.82909,0.00727029,0,0,0,0,0,0,0,-1.59131,-34.3953,-1.33605,27.3001,-1.11634,2.58904,-0.217789,
0.273014,0.0527606,0.113847,-1.96712,0.320977,0.299224,-0.019711,0.0953097,0.00235724,0.0926048,0.00920902,-1.17405,1.12002,0.00193224,-1.34659,1.26912,-1.34894,-1.88911,36.4085,-3.90501,-0.0722277,8.74264,2.18991,8.51149,-0.947526,-12.542,10.3452,0.0360871,0.27378,0.0531446,0.114546,-1.96738,0.331101,0.284814,-0.0197214,0.260655,0.0367363,0.187671,-0.0350595,-1.93169,1.91982,-0.00257589,0.805276,1.18216,-1.9201,-5.27192,-1.0238,11.3418,-1.23077,-3.44403,-37.466,-2.53813,28.399,3.03009,1.9262,-0.0026396,
0.28337,0.0549808,0.123666,-1.96522,0.277624,0.337679,-0.0199524,0.0877486,0.00338514,0.0852369,0.00865063,-0.968766,0.90306,0.00145865,-4.72569,0.642441,-4.60496,-0.348999,128.304,-135.598,-0.295994,7.7,3.30892,7.48335,-1.72395,-4.64126,4.40689,0.0227038,0.27378,0.0531446,0.114546,-1.96738,0.331101,0.284814,-0.0197214,0.260655,0.0367363,0.187671,-0.0350595,-1.93169,1.91982,-0.00257589,0,0,0,0,0,0,0,-3.44403,-37.466,-2.53813,28.399,3.03009,1.9262,-0.0026396,
0.283824,0.0550412,0.124107,-1.96518,0.276503,0.337847,-0.019956,0.0815528,0.00421811,0.0791977,0.00805951,-0.803015,0.726646,0.00107522,-3.87236,0.520605,-3.77449,-0.369446,103.594,-110.259,-0.239641,7.53421,3.35482,7.31759,-1.72943,-4.36173,3.8368,0.0213187,0.27378,0.0531446,0.114546,-1.96738,0.331101,0.284814,-0.0197214,0.260655,0.0367363,0.187671,-0.0350595,-1.93169,1.91982,-0.00257589,0,0,0,0,0,0,0,-3.44403,-37.466,-2.53813,28.399,3.03009,1.9262,-0.0026396,
0.284272,0.0551018,0.124541,-1.96514,0.275438,0.337916,-0.0199599,0.076433,0.00488998,0.0742054,0.00745823,-0.66905,0.583032,0.000764437,-3.19984,0.41992,-3.12021,-0.375803,83.7277,-89.7583,-0.194241,7.36463,3.38326,7.14828,-1.73498,-4.10681,3.31874,0.0198644,0.27378,0.0531446,0.114546,-1.96738,0.331101,0.284814,-0.0197214,0.260655,0.0367363,0.187671,-0.0350595,-1.93169,1.91982,-0.00257589,0,0,0,0,0,0,0,-3.44403,-37.466,-2.53813,28.399,3.03009,1.9262,-0.0026396,
0.284713,0.0551624,0.124968,-1.9651,0.274421,0.337898,-0.0199638,0.0721601,0.00542778,0.0700366,0.00686334,-0.560657,0.465993,0.000512579,-2.67059,0.33612,-2.60546,-0.371804,67.7457,-73.15,-0.157412,7.05889,3.25565,6.8443,-1.5123,-3.50417,2.62587,0.018399,0.280522,0.0546992,0.121326,-1.96868,0.262474,0.349144,-0.0197289,0.224838,0.0494722,0.134692,-0.0460504,-1.66873,1.85228,-0.0036679,-4.47707,1.59198,-6.62237,-1.37386,32.869,-8.44215,-0.136501,-0.373349,-37.6921,0.512709,28.9941,5.15594,2.03881,0.0843355,
0.286985,0.0556261,0.127371,-1.96588,0.231065,0.369499,-0.020074,0.0633913,0.00531321,0.061451,0.0057946,-0.458301,0.362101,0.000322424,-5.48048,-0.071602,-5.36602,-0.667965,63.9723,-64.9321,-0.118847,4.32737,2.72173,4.15,-1.4953,-1.75949,-0.712436,0.00636583,0.280522,0.0546992,0.121326,-1.96868,0.262474,0.349144,-0.0197289,0.224838,0.0494722,0.134692,-0.0460504,-1.66873,1.85228,-0.0036679,0,0,0,0,0,0,0,-0.373349,-37.6921,0.512709,28.9941,5.15594,2.03881,0.0843355,
0.287202,0.0556653,0.127578,-1.96587,0.230714,0.369077,-0.0200776,0.0561412,0.00523123,0.0543493,0.0049113,-0.375406,0.279138,0.000168378,-4.53136,-0.0512371,-4.43853,-0.552057,51.8097,-51.852,-0.0962783,4.18054,2.68613,4.00575,-1.48763,-1.72373,-0.75666,0.00618772,0.280522,0.0546992,0.121326,-1.96868,0.262474,0.349144,-0.0197289,0.224838,0.0494722,0.134692,-0.0460504,-1.66873,1.85228,-0.0036679,0,0,0,0,0,0,0,-0.373349,-37.6921,0.512709,28.9941,5.15594,2.03881,0.0843355,
0.28741,0.0557046,0.127776,-1.96586,0.230411,0.368662,-0.0200813,0.0500956,0.0051671,0.0484249,0.00418723,-0.307915,0.212927,4.25158e-05,-3.77851,-0.0400816,-3.70277,-0.452546,42.182,-41.3817,-0.0786641,4.03466,2.65153,3.86244,-1.47949,-1.69101,-0.792823,0.00603987,0.280522,0.0546992,0.121326,-1.96868,0.262474,0.349144,-0.0197289,0.224838,0.0494722,0.134692,-0.0460504,-1.66873,1.85228,-0.0036679,0,0,0,0,0,0,0,-0.373349,-37.6921,0.512709,28.9941,5.15594,2.03881,0.0843355,
0.287607,0.0557437,0.127964,-1.96585,0.230162,0.368252,-0.0200851,0.0450046,0.00511066,0.0434336,0.00359997,-0.252545,0.160105,-6.14101e-05,-3.18187,-0.0352796,-3.11959,-0.367039,34.6059,-33.0139,-0.0649537,4.6614,1.36862,4.50539,-0.313373,-1.00974,-0.750581,-0.00117627,0.284078,0.0567927,0.125201,-1.96855,0.23077,0.391308,-0.0197354,0.129646,0.0641517,0.0435044,0.0393667,-0.686906,0.716415,0.000110053,-11.899,1.83495,-11.3985,10.6771,122.729,-141.984,0.472245,4.44294,-35.7958,4.98781,21.2738,3.63525,-1.58851,0.0843355,
0.287112,0.0575021,0.128022,-1.9671,0.219276,0.397624,-0.019898,0.0402727,0.00481194,0.0387826,0.00350604,-0.205808,0.117748,-0.000135944,-2.9574,-0.186696,-2.90682,-0.0587079,29.2112,-26.473,-0.0465835,3.38926,1.10463,3.25512,-0.221847,-0.810916,-0.77994,-0.00137098,0.284078,0.0567927,0.125201,-1.96855,0.23077,0.391308,-0.0197354,0.129646,0.0641517,0.0435044,0.0393667,-0.686906,0.716415,0.000110053,0,0,0,0,0,0,0,4.44294,-35.7958,4.98781,21.2738,3.63525,-1.58851,0.0843355,
0.287275,0.0575342,0.128175,-1.96707,0.219205,0.397192,-0.0199017,0.036292,0.00465119,0.0348682,0.00333148,-0.16641,0.0834081,-0.000200772,-2.48793,-0.100468,-2.44653,-0.109097,24.6233,-21.4625,-0.0405179,3.25133,1.07893,3.11956,-0.210518,-0.789926,-0.766697,-0.00133118,0.284078,0.0567927,0.125201,-1.96855,0.23077,0.391308,-0.0197354,0.129646,0.0641517,0.0435044,0.0393667,-0.686906,0.716415,0.000110053,0,0,0,0,0,0,0,4.44294,-35.7958,4.98781,21.2738,3.63525,-1.58851,0.0843355,
0.287429,0.0575687,0.12832,-1.96706,0.219228,0.396743,-0.0199056,0.0328919,0.00458518,0.0315233,0.00311947,-0.13255,0.0555004,-0.00025921,-2.1251,-0.0412592,-2.09056,-0.132507,21.1627,-17.4423,-0.0365235,3.11422,1.05381,2.98481,-0.199008,-0.767398,-0.751696,-0.0012886,0.284078,0.0567927,0.125201,-1.96855,0.23077,0.391308,-0.0197354,0.129646,0.0641517,0.0435044,0.0393667,-0.686906,0.716415,0.000110053,0,0,0,0,0,0,0,4.44294,-35.7958,4.98781,21.2738,3.63525,-1.58851,0.0843355,
0.287574,0.0576052,0.128456,-1.96704,0.219361,0.396275,-0.0199099,0.0299377,0.00458078,0.0286166,0.00290074,-0.102718,0.0326982,-0.000313518,-1.84638,-0.00274872,-1.81669,-0.136703,18.645,-14.2514,-0.0339425,3.15139,0.859765,3.01972,-0.00354521,-0.597964,-0.74179,-0.00228646,0.286392,0.05828,0.127021,-1.96762,0.216233,0.402195,-0.0197464,0.0508716,0.0271535,0.0339766,0.0139548,-0.255907,0.20678,-0.00599359,-9.84684,-4.62478,-1.19097,-3.17648,53.8749,-63.7044,-0.762956,4.56989,-36.9661,4.88862,24.0866,2.5238,0.129019,0.0980684,
0.287955,0.0587929,0.128469,-1.96712,0.213299,0.401979,-0.0198219,0.0271033,0.00454545,0.0258184,0.00296143,-0.0755702,0.0150105,-0.000366883,-1.77149,-0.0220788,-1.74885,0.0379287,16.9674,-11.0548,-0.0333529,2.4903,0.743779,2.37105,0.0576532,-0.412034,-0.655342,-0.00205413,0.286392,0.05828,0.127021,-1.96762,0.216233,0.402195,-0.0197464,0.0508716,0.0271535,0.0339766,0.0139548,-0.255907,0.20678,-0.00599359,0,0,0,0,0,0,0,4.56989,-36.9661,4.88862,24.0866,2.5238,0.129019,0.0980684,
0.288072,0.0588294,0.128577,-1.9671,0.213718,0.401488,-0.0198269,0.0246026,0.00454912,0.0233534,0.00294621,-0.0499796,-0.000268803,-0.000417484,-1.56293,0.00229088,-1.54064,-0.00951294,15.9941,-9.54959,-0.0316262,2.36365,0.721857,2.24712,0.0704812,-0.352797,-0.641339,-0.00201953,0.286392,0.05828,0.127021,-1.96762,0.216233,0.402195,-0.0197464,0.0508716,0.0271535,0.0339766,0.0139548,-0.255907,0.20678,-0.00599359,0,0,0,0,0,0,0,4.56989,-36.9661,4.88862,24.0866,2.5238,0.129019,0.0980684,
0.288178,0.0588671,0.128676,-1.96708,0.214314,0.400948,-0.0198322,0.0223512,0.00458305,0.0211396,0.00289453,-0.0250732,-0.0136934,-0.000467692,-1.40711,0.0212065,-1.38365,-0.0322975,15.5665,-8.39039,-0.0313796,2.23954,0.700377,2.12587,0.083495,-0.282179,-0.630256,-0.00199808,0.286392,0.05828,0.127021,-1.96762,0.216233,0.402195,-0.0197464,0.0508716,0.0271535,0.0339766,0.0139548,-0.255907,0.20678,-0.00599359,0,0,0,0,0,0,0,4.56989,-36.9661,4.88862,24.0866,2.5238,0.129019,0.0980684,
0.287935,0.0580081,0.128656,-1.96665,0.209956,0.407369,-0.0197792,0.0207768,0.00332372,0.0195966,0.00414455,-0.0138268,-0.0174884,-0.000502913,-0.984006,-0.787084,-0.964338,0.781261,7.02899,-2.37185,-0.0220132,2.0176,0.652322,1.91049,0.107838,-0.0863662,-0.641856,-0.00195008,0.287247,0.058163,0.128017,-1.96719,0.210379,0.407126,-0.0197453,0.017568,-0.00855764,0.0307296,0.0136841,-0.100334,0.119382,0.000858378,-4.16295,-4.46389,-0.405884,-0.0338328,19.4467,-10.9247,0.856497,2.82032,-32.9234,3.13905,23.0432,2.3645,0.248038,0.0440523,
0.288043,0.058003,0.128755,-1.96659,0.21037,0.407015,-0.0197844,0.0193067,0.00253249,0.0181605,0.00485282,-0.000732609,-0.0228393,-0.000532338,-0.91885,-0.494519,-0.897568,0.442665,8.18385,-3.34431,-0.0183906,1.90337,0.632471,1.79986,0.121334,0.0332699,-0.646528,-0.00195148,0.287247,0.058163,0.128017,-1.96719,0.210379,0.407126,-0.0197453,0.017568,-0.00855764,0.0307296,0.0136841,-0.100334,0.119382,0.000858378,0,0,0,0,0,0,0,2.82032,-32.9234,3.13905,23.0432,2.3645,0.248038,0.0440523,
0.288141,0.0580058,0.128846,-1.96654,0.210965,0.406577,-0.0197899,0.0179091,0.00209531,0.0167998,0.00519218,0.0142884,-0.0292107,-0.000561922,-0.873478,-0.273234,-0.850474,0.212103,9.38815,-3.98211,-0.0184902,1.79308,0.613382,1.69359,0.134873,0.175482,-0.659464,-0.00196705,0.287247,0.058163,0.128017,-1.96719,0.210379,0.407126,-0.0197453,0.017568,-0.00855764,0.0307296,0.0136841,-0.100334,0.119382,0.000858378,0,0,0,0,0,0,0,2.82032,-32.9234,3.13905,23.0432,2.3645,0.248038,0.0440523,
0.28823,0.0580154,0.128928,-1.96649,0.211764,0.406059,-0.0197957,0.0165524,0.00191707,0.0154855,0.00529048,0.0314157,-0.0363313,-0.000594136,-0.847923,-0.111402,-0.821422,0.0614359,10.7046,-4.45038,-0.0201339,1.68702,0.595238,1.59209,0.148378,0.343576,-0.682534,-0.001979,0.287247,0.058163,0.128017,-1.96719,0.210379,0.407126,-0.0197453,0.017568,-0.00855764,0.0307296,0.0136841,-0.100334,0.119382,0.000858378,0,0,0,0,0,0,0,2.82032,-32.9234,3.13905,23.0432,2.3645,0.248038,0.0440523,
0.2874,0.0586113,0.128155,-1.9676,0.209823,0.408237,-0.0197603,0.0170778,0.0127401,0.0158356,-0.0060289,0.0112285,-0.00127652,-0.000851679,0.32836,6.7644,0.218836,-7.07461,-12.617,21.9092,-0.160964,-7.40232e-05,31.6056,-0.325431,-22.7472,-1.53964,-1.8461,-0.000739863,0.28824,0.0581322,0.128711,-1.96681,0.209113,0.408924,-0.019738,0.0298859,0.00604736,0.0163516,0.00278473,-0.00203273,-0.00904885,0.000977641,1.53974,1.82562,-1.79725,-1.36243,12.2876,-16.0539,0.0149079,0.816837,-34.3715,1.23872,25.5823,1.5158,1.7669,0.017502,
0.287535,0.0590043,0.128275,-1.96775,0.209363,0.408527,-0.0197639,0.0170212,0.0200195,0.0156658,-0.00862484,-0.00252521,0.00621728,-0.000771727,-0.0353724,4.54961,-0.10616,-1.62246,-8.59609,4.68362,0.0499701,1.91447,0.630547,1.80934,0.113152,-0.127588,-0.649937,-0.00191206,0.28824,0.0581322,0.128711,-1.96681,0.209113,0.408924,-0.019738,0.0298859,0.00604736,0.0163516,0.00278473,-0.00203273,-0.00904885,0.000977641,0,0,0,0,0,0,0,0.816837,-34.3715,1.23872,25.5823,1.5158,1.7669,0.017502,
0.287655,0.0593104,0.128383,-1.96783,0.209058,0.408434,-0.0197688,0.0166222,0.0236677,0.0152256,-0.0090125,-0.00964535,0.0026586,-0.000739143,-0.249355,2.28017,-0.275089,-0.242288,-4.45008,-2.22417,0.0203653,1.80419,0.6113,1.70306,0.126771,0.0147249,-0.66226,-0.00192524,0.28824,0.0581322,0.128711,-1.96681,0.209113,0.408924,-0.019738,0.0298859,0.00604736,0.0163516,0.00278473,-0.00203273,-0.00904885,0.000977641,0,0,0,0,0,0,0,0.816837,-34.3715,1.23872,25.5823,1.5158,1.7669,0.017502,
0.287766,0.0595466,0.128482,-1.96789,0.208914,0.40813,-0.0197737,0.0160621,0.0248383,0.0146631,-0.00870574,-0.0113108,-0.00546853,-0.000712858,-0.350103,0.73158,-0.351551,0.191724,-1.0409,-5.07946,0.016428,1.69812,0.592992,1.60156,0.140352,0.182971,-0.684729,-0.00193917,0.28824,0.0581322,0.128711,-1.96681,0.209113,0.408924,-0.019738,0.0298859,0.00604736,0.0163516,0.00278473,-0.00203273,-0.00904885,0.000977641,0,0,0,0,0,0,0,0.816837,-34.3715,1.23872,25.5823,1.5158,1.7669,0.017502,
0.288631,0.0582082,0.129087,-1.96671,0.208106,0.408342,-0.0197316,0.0176879,0.0206977,0.0163663,-0.00574675,-0.0237243,-0.0127914,-0.00055199,1.01611,-2.58788,1.06446,1.84937,-7.75844,-4.57681,0.100542,2.00285,0.604195,1.88436,0.0700742,-1.23144,-0.657303,-0.00183979,0.288843,0.0589323,0.129397,-1.967,0.209577,0.40723,-0.0197344,0.0233652,0.0407072,0.0276456,-0.0201906,0.00457047,-0.0912777,0.000151479,-0.815092,4.33249,1.41175,-2.87192,0.8254,-10.2786,-0.10327,0.590702,-35.3197,0.937208,25.9076,0.410763,3.49084,-0.00996382,
0.288815,0.0582359,0.129261,-1.96667,0.207481,0.407942,-0.0197335,0.018731,0.0172512,0.0174454,-0.00361121,-0.0346063,-0.020242,-0.000488082,0.651937,-2.15403,0.674447,1.33472,-6.80124,-4.6566,0.0399424,1.89182,0.592034,1.77718,0.0863665,-1.09119,-0.662126,-0.00178825,0.288843,0.0589323,0.129397,-1.967,0.209577,0.40723,-0.0197344,0.0233652,0.0407072,0.0276456,-0.0201906,0.00457047,-0.0912777,0.000151479,0,0,0,0,0,0,0,0.590702,-35.3197,0.937208,25.9076,0.410763,3.49084,-0.00996382,
0.288985,0.0582621,0.129422,-1.96664,0.206899,0.40749,-0.0197369,0.0192321,0.0144553,0.0179656,-0.00209729,-0.0422436,-0.027498,-0.000474088,0.313239,-1.74742,0.325129,0.946196,-4.77332,-4.53503,0.00874682,1.78482,0.57892,1.67463,0.102086,-0.924146,-0.677639,-0.00181062,0.288843,0.0589323,0.129397,-1.967,0.209577,0.40723,-0.0197344,0.0233652,0.0407072,0.0276456,-0.0201906,0.00457047,-0.0912777,0.000151479,0,0,0,0,0,0,0,0.590702,-35.3197,0.937208,25.9076,0.410763,3.49084,-0.00996382,
0.28903,0.0596916,0.12957,-1.96767,0.209471,0.407114,-0.0197407,0.0200542,0.030547,0.0186896,-0.0184846,-0.0364424,-0.024906,-0.000535042,0.513812,10.0573,0.45253,-10.2421,3.62577,1.62,-0.0380967,0.001389,31.6192,-0.329733,-22.7336,-1.5406,-1.83257,-0.000794553,0.288843,0.0589323,0.129397,-1.967,0.209577,0.40723,-0.0197344,0.0233652,0.0407072,0.0276456,-0.0201906,0.00457047,-0.0912777,0.000151479,0,0,0,0,0,0,0,0.590702,-35.3197,0.937208,25.9076,0.410763,3.49084,-0.00996382,
0.289268,0.0603302,0.129804,-1.96798,0.208047,0.406211,-0.0197136,0.0219841,0.040404,0.0207886,-0.0224541,-0.064742,-0.0424885,0.000249984,1.20615,6.1606,1.31184,-2.48092,-17.6873,-10.989,0.490642,2.91621,0.58443,2.76734,-0.307646,-3.56868,-1.54634,0.000993314,0.288843,0.0589323,0.129397,-1.967,0.209577,0.40723,-0.0197344,0.0233652,0.0407072,0.0276456,-0.0201906,0.00457047,-0.0912777,0.000151479,0,0,0,0,0,0,0,0.590702,-35.3197,0.937208,25.9076,0.410763,3.49084,-0.00996382,
0.289524,0.0608179,0.13005,-1.96819,0.206031,0.405022,-0.0197015,0.0239816,0.0445143,0.0227825,-0.0232316,-0.102205,-0.0637161,0.000502556,1.24848,2.56894,1.2462,-0.485935,-23.4143,-13.2673,0.157857,2.82069,0.564427,2.6718,-0.247348,-3.38002,-1.49881,0.000317225,0.289931,0.0599731,0.130534,-1.96813,0.20943,0.403451,-0.0197344,0.0449483,0.0161823,0.0344243,-0.0439529,-0.0127614,-0.132449,0.000470703,2.69789,-3.06561,0.847337,-2.97029,-2.16648,-5.14639,0.039903,0.336795,-36.6686,0.738844,28.5736,0.202938,3.8424,-0.00996382,
0.289779,0.0611884,0.130292,-1.96836,0.203776,0.403711,-0.0196972,0.0255645,0.0448761,0.0242943,-0.0228968,-0.13814,-0.0837533,0.00050902,0.989267,0.226155,0.94486,0.209221,-22.4592,-12.5232,0.00404002,2.72848,0.541864,2.58688,-0.222953,-3.17109,-1.4917,4.50968e-05,0.289931,0.0599731,0.130534,-1.96813,0.20943,0.403451,-0.0197344,0.0449483,0.0161823,0.0344243,-0.0439529,-0.0127614,-0.132449,0.000470703,0,0,0,0,0,0,0,0.336795,-36.6686,0.738844,28.5736,0.202938,3.8424,-0.00996382,
0.290211,0.0606422,0.130794,-1.96886,0.209257,0.403013,-0.019742,0.0274444,0.0526275,0.0259461,-0.0365609,-0.114854,-0.077936,0.000217381,1.17497,4.84462,1.03239,-8.54002,14.5533,3.63582,-0.182274,0.00843536,31.6173,-0.330585,-22.6997,-1.53915,-1.80501,-0.000943655,0.289931,0.0599731,0.130534,-1.96813,0.20943,0.403451,-0.0197344,0.0449483,0.0161823,0.0344243,-0.0439529,-0.0127614,-0.132449,0.000470703,0,0,0,0,0,0,0,0.336795,-36.6686,0.738844,28.5736,0.202938,3.8424,-0.00996382,
0.290725,0.0609994,0.131326,-1.96934,0.205777,0.401625,-0.0196147,0.034822,0.0510307,0.0340359,-0.0411119,-0.178864,-0.0970635,0.00335657,4.61097,-0.997994,5.0561,-2.84438,-40.0063,-11.9547,1.96199,10.7347,-5.67314,10.429,-4.45622,-9.04915,-3.11693,0.0759299,0.289931,0.0599731,0.130534,-1.96813,0.20943,0.403451,-0.0197344,0.0449483,0.0161823,0.0344243,-0.0439529,-0.0127614,-0.132449,0.000470703,0,0,0,0,0,0,0,0.336795,-36.6686,0.738844,28.5736,0.202938,3.8424,-0.00996382,
0.291357,0.0611113,0.131958,-1.96977,0.200841,0.399814,-0.019523,0.0436426,0.0436239,0.0430421,-0.0438409,-0.266512,-0.122926,0.00497731,5.51292,-4.62925,5.62893,-1.70564,-54.7796,-16.164,1.01297,9.84426,-5.3691,9.63266,-4.26446,-8.27072,-2.90256,0.0744311,0.291715,0.0609356,0.132347,-1.96924,0.206589,0.397348,-0.0197256,0.0761887,0.0289378,0.0590853,-0.0317054,-0.237153,-0.178287,-0.000318435,3.90505,1.59443,3.08262,1.53094,-28.0489,-5.72978,-0.0986422,-0.528073,-35.3951,-0.237108,27.3755,-0.121158,3.02025,-0.0365141,
0.292026,0.0610642,0.132622,-1.97021,0.195426,0.397794,-0.0194587,0.0516367,0.0337201,0.0510235,-0.0460197,-0.348565,-0.148841,0.00558937,4.99628,-6.18985,4.98831,-1.36176,-51.2831,-16.197,0.382536,9.03639,-5.10803,8.91009,-4.16319,-7.44601,-2.74127,0.0671886,0.291715,0.0609356,0.132347,-1.96924,0.206589,0.397348,-0.0197256,0.0761887,0.0289378,0.0590853,-0.0317054,-0.237153,-0.178287,-0.000318435,0,0,0,0,0,0,0,-0.528073,-35.3951,-0.237108,27.3755,-0.121158,3.02025,-0.0365141,
0.292138,0.0616497,0.132736,-1.97001,0.205484,0.396724,-0.0197538,0.0518983,0.0448287,0.0505493,-0.0560236,-0.306475,-0.134674,0.00376838,0.163542,6.94285,-0.296351,-6.25241,26.3063,8.8541,-1.13812,0.0395539,31.6151,-0.307745,-22.6669,-1.52377,-1.7787,-0.00124557,0.291715,0.0609356,0.132347,-1.96924,0.206589,0.397348,-0.0197256,0.0761887,0.0289378,0.0590853,-0.0317054,-0.237153,-0.178287,-0.000318435,0,0,0,0,0,0,0,-0.528073,-35.3951,-0.237108,27.3755,-0.121158,3.02025,-0.0365141,
0.292815,0.0619155,0.133381,-1.97074,0.200724,0.395221,-0.019587,0.0584341,0.0425071,0.0565588,-0.0630994,-0.364194,-0.145325,0.00718413,4.08484,-1.45101,3.75595,-4.42242,-36.0745,-6.6567,2.13484,12.1404,-7.41867,11.1712,-9.34392,-11.5334,-3.72027,0.12529,0.291715,0.0609356,0.132347,-1.96924,0.206589,0.397348,-0.0197256,0.0761887,0.0289378,0.0590853,-0.0317054,-0.237153,-0.178287,-0.000318435,0,0,0,0,0,0,0,-0.528073,-35.3951,-0.237108,27.3755,-0.121158,3.02025,-0.0365141,
0.293573,0.0619797,0.134104,-1.97145,0.194796,0.393312,-0.0195082,0.0656994,0.0356113,0.0633158,-0.0682319,-0.439539,-0.163994,0.00771622,4.54081,-4.30985,4.22309,-3.20781,-47.0908,-11.6681,0.33256,10.7697,-4.46883,10.1554,-8.25597,-9.14534,-3.10675,0.0647662,0.293904,0.0616479,0.134778,-1.97137,0.199146,0.39154,-0.0196962,0.0728757,-0.00500547,0.130301,-0.089183,-0.517012,-0.18107,0.00190675,-0.41413,-4.24291,8.90197,-7.1847,-34.9824,-0.347869,0.278148,5.35541,-37.1922,5.36073,26.0306,-1.40931,1.40893,-0.0969389,
0.294345,0.0619719,0.134845,-1.97214,0.188703,0.391312,-0.0194654,0.0718713,0.0282934,0.0691916,-0.071807,-0.503959,-0.181189,0.00724407,3.85747,-4.57372,3.67242,-2.2344,-40.2622,-10.7468,-0.295099,10.0882,-2.61097,9.68355,-7.51872,-7.80671,-2.47276,0.0471294,0.293904,0.0616479,0.134778,-1.97137,0.199146,0.39154,-0.0196962,0.0728757,-0.00500547,0.130301,-0.089183,-0.517012,-0.18107,0.00190675,0,0,0,0,0,0,0,5.35541,-37.1922,5.36073,26.0306,-1.40931,1.40893,-0.0969389,
0.295788,0.0608787,0.136632,-1.97321,0.18557,0.388227,-0.0194945,0.0809621,0.0127733,0.0783974,-0.0803821,-0.576974,-0.187091,0.00708588,5.68176,-9.70004,5.75363,-5.35947,-45.6348,-3.68866,-0.0988663,12.0615,-9.77821,11.4546,-13.4908,-12.6303,-2.96248,0.138734,0.293904,0.0616479,0.134778,-1.97137,0.199146,0.39154,-0.0196962,0.0728757,-0.00500547,0.130301,-0.089183,-0.517012,-0.18107,0.00190675,0,0,0,0,0,0,0,5.35541,-37.1922,5.36073,26.0306,-1.40931,1.40893,-0.0969389,
0.296686,0.0605498,0.137515,-1.9741,0.17897,0.386708,-0.0194708,0.0872256,0.00199726,0.0848033,-0.0865356,-0.626598,-0.187665,0.00625998,3.91465,-6.73503,4.00365,-3.8459,-31.0148,-0.358925,-0.516185,10.4829,-5.30988,10.2602,-11.5444,-9.41655,-2.12938,0.0550069,0.293904,0.0616479,0.134778,-1.97137,0.199146,0.39154,-0.0196962,0.0728757,-0.00500547,0.130301,-0.089183,-0.517012,-0.18107,0.00190675,0,0,0,0,0,0,0,5.35541,-37.1922,5.36073,26.0306,-1.40931,1.40893,-0.0969389,
0.297541,0.0602967,0.138357,-1.97498,0.172936,0.385488,-0.019453,0.0911536,-0.00472978,0.0888947,-0.0910654,-0.652117,-0.180624,0.00545223,2.45499,-4.2044,2.55712,-2.83115,-15.9494,4.40084,-0.504846,10.0169,-3.06786,9.90472,-10.4524,-7.74382,-1.33378,0.0381215,0.297928,0.0616883,0.139159,-1.97542,0.171735,0.386491,-0.0196418,0.134578,0.0249064,0.117993,-0.135892,-0.759983,-0.118961,0.000232509,7.71275,3.73898,-1.53848,-5.83865,-30.3714,7.76363,-0.20928,4.74842,-36.6924,4.71406,25.2847,0.434567,0.268179,0.017502,
0.301436,0.0622591,0.142578,-1.97995,0.15257,0.386651,-0.019587,0.0931512,-0.000719853,0.0908171,-0.100729,-0.620767,-0.131285,0.0048053,1.24853,2.5062,1.2015,-6.03974,19.5938,30.8365,-0.40433,9.73843,0.399633,9.59767,-11.9645,-6.44415,0.681395,0.0263575,0.297928,0.0616883,0.139159,-1.97542,0.171735,0.386491,-0.0196418,0.134578,0.0249064,0.117993,-0.135892,-0.759983,-0.118961,0.000232509,0,0,0,0,0,0,0,4.74842,-36.6924,4.71406,25.2847,0.434567,0.268179,0.017502,
0.302214,0.0623655,0.143335,-1.98105,0.149145,0.387425,-0.0195672,0.0939628,0.00208226,0.0915796,-0.107896,-0.582257,-0.0856702,0.0043388,0.507205,1.75132,0.476597,-4.47937,24.0684,28.5095,-0.291566,9.71301,0.277348,9.57444,-11.728,-5.54381,1.10872,0.0299902,0.297928,0.0616883,0.139159,-1.97542,0.171735,0.386491,-0.0196418,0.134578,0.0249064,0.117993,-0.135892,-0.759983,-0.118961,0.000232509,0,0,0,0,0,0,0,4.74842,-36.6924,4.71406,25.2847,0.434567,0.268179,0.017502,
0.302966,0.0624556,0.144067,-1.98211,0.14624,0.3884,-0.0195465,0.093968,0.00392015,0.0915584,-0.112992,-0.538433,-0.0441746,0.0039884,0.00328677,1.14868,-0.0133012,-3.18513,27.3901,25.9347,-0.218999,9.69926,0.0322584,9.55667,-11.5875,-4.74754,1.42815,0.0329755,0.297928,0.0616883,0.139159,-1.97542,0.171735,0.386491,-0.0196418,0.134578,0.0249064,0.117993,-0.135892,-0.759983,-0.118961,0.000232509,0,0,0,0,0,0,0,4.74842,-36.6924,4.71406,25.2847,0.434567,0.268179,0.017502,
0.303696,0.0625309,0.144778,-1.98315,0.143832,0.389528,-0.0195247,0.093439,0.0050188,0.0910235,-0.116363,-0.490926,-0.00713004,0.00373455,-0.330615,0.686652,-0.33426,-2.10669,29.6923,23.1529,-0.158656,9.6953,-0.209091,9.54912,-11.4791,-3.91698,1.64529,0.0347451,0.303563,0.060651,0.144565,-1.9824,0.135581,0.383138,-0.0196155,0.191553,0.0124283,0.175948,-0.207676,-0.947375,0.00131079,-0.00211551,7.12188,-1.55976,7.24435,-8.97294,-23.424,15.034,-0.293502,1.34845,-34.8952,1.71083,24.7849,1.97998,1.94543,0.0843355,
0.314726,0.0627522,0.155206,-1.99653,0.119943,0.397258,-0.0195884,0.0872738,0.00486747,0.0848292,-0.108232,-0.403418,0.0162447,0.00312509,-3.8533,-0.0945799,-3.87149,5.08187,54.6925,14.6092,-0.380914,7.61154,0.15319,7.35479,-9.84836,-0.547481,2.01799,0.0214893,0.303563,0.060651,0.144565,-1.9824,0.135581,0.383138,-0.0196155,0.191553,0.0124283,0.175948,-0.207676,-0.947375,0.00131079,-0.00211551,0,0,0,0,0,0,0,1.34845,-34.8952,1.71083,24.7849,1.97998,1.94543,0.0843355,
0.315219,0.0627832,0.155678,-1.99712,0.119512,0.398108,-0.0195835,0.0821243,0.00466809,0.0796647,-0.101409,-0.333519,0.0342426,0.00262075,-3.21843,-0.124614,-3.22777,4.26444,43.6865,11.2487,-0.315211,7.51857,0.216636,7.25987,-9.71345,-0.532815,1.94607,0.0207358,0.303563,0.060651,0.144565,-1.9824,0.135581,0.383138,-0.0196155,0.191553,0.0124283,0.175948,-0.207676,-0.947375,0.00131079,-0.00211551,0,0,0,0,0,0,0,1.34845,-34.8952,1.71083,24.7849,1.97998,1.94543,0.0843355,
0.315702,0.0628116,0.156142,-1.9977,0.119077,0.398931,-0.0195793,0.0777926,0.00444505,0.0753293,-0.0956466,-0.277698,0.0479547,0.00220131,-2.70733,-0.139401,-2.70962,3.60134,34.8881,8.57006,-0.26215,7.42412,0.273895,7.16425,-9.5788,-0.524321,1.87024,0.0199995,0.303563,0.060651,0.144565,-1.9824,0.135581,0.383138,-0.0196155,0.191553,0.0124283,0.175948,-0.207676,-0.947375,0.00131079,-0.00211551,0,0,0,0,0,0,0,1.34845,-34.8952,1.71083,24.7849,1.97998,1.94543,0.0843355,
0.316178,0.062838,0.156598,-1.99827,0.118638,0.399727,-0.0195758,0.074119,0.00421485,0.071661,-0.0907456,-0.233122,0.0582651,0.00184925,-2.29599,-0.143876,-2.29271,3.06313,27.8601,6.44397,-0.220038,7.24617,0.0635743,6.98427,-9.18428,-0.462727,1.90182,0.0191678,0.309678,0.0603732,0.150397,-1.99134,0.1139,0.386041,-0.0196043,0.16129,-0.00752558,0.192595,-0.244768,-0.51865,0.0862554,1.01715e-05,-3.78287,-2.49424,2.08082,-4.63648,53.5906,10.6181,0.26571,0.892215,-33.1972,1.46089,28.4229,2.65197,4.06121,-0.0163725,
0.317028,0.0619089,0.157422,-1.99958,0.106541,0.390495,-0.0196441,0.0725439,0.00515113,0.0700529,-0.0882121,-0.195401,0.0635087,0.00156092,-0.984414,0.58518,-1.00505,1.58348,23.5755,3.27725,-0.180207,6.6468,0.253305,6.39715,-8.38394,-0.484942,1.45494,0.0137389,0.309678,0.0603732,0.150397,-1.99134,0.1139,0.386041,-0.0196043,0.16129,-0.00752558,0.192595,-0.244768,-0.51865,0.0862554,1.01715e-05,0,0,0,0,0,0,0,0.892215,-33.1972,1.46089,28.4229,2.65197,4.06121,-0.0163725,
0.31754,0.061969,0.157913,-2.00019,0.106173,0.39118,-0.0196413,0.0708333,0.00562292,0.0683327,-0.0856612,-0.165506,0.0679243,0.00131867,-1.06913,0.294866,-1.07515,1.59426,18.6843,2.75979,-0.151405,6.54639,0.268987,6.3002,-8.25133,-0.49371,1.38977,0.01286,0.309678,0.0603732,0.150397,-1.99134,0.1139,0.386041,-0.0196043,0.16129,-0.00752558,0.192595,-0.244768,-0.51865,0.0862554,1.01715e-05,0,0,0,0,0,0,0,0.892215,-33.1972,1.46089,28.4229,2.65197,4.06121,-0.0163725,
0.318036,0.06202,0.15839,-2.00077,0.105796,0.391868,-0.019639,0.06907,0.00577176,0.0665763,-0.0831503,-0.14185,0.0715357,0.00111246,-1.10204,0.0930232,-1.09772,1.56935,14.7851,2.25709,-0.128882,6.44617,0.281317,6.20371,-8.11892,-0.502278,1.32881,0.0119397,0.309678,0.0603732,0.150397,-1.99134,0.1139,0.386041,-0.0196043,0.16129,-0.00752558,0.192595,-0.244768,-0.51865,0.0862554,1.01715e-05,0,0,0,0,0,0,0,0.892215,-33.1972,1.46089,28.4229,2.65197,4.06121,-0.0163725,
0.310847,0.0605708,0.151504,-1.9926,0.111497,0.386167,-0.019635,0.0844745,0.00955873,0.0809363,-0.0981084,-0.173553,0.0603906,0.000123716,9.62776,2.36686,8.97499,-9.34885,-19.8143,-6.96569,-0.617963,6.6468,0.253305,6.39715,-8.38394,-0.484942,1.45494,0.0137389,0.309678,0.0603732,0.150397,-1.99134,0.1139,0.386041,-0.0196043,0.16129,-0.00752558,0.192595,-0.244768,-0.51865,0.0862554,1.01715e-05,0,0,0,0,0,0,0,0.892215,-33.1972,1.46089,28.4229,2.65197,4.06121,-0.0163725,
0.311825,0.060807,0.152433,-1.99363,0.110104,0.386303,-0.0196529,0.0920168,0.0135501,0.0879699,-0.104263,-0.173657,0.0517187,-0.000349406,4.71396,2.4946,4.39602,-3.84641,-0.0646832,-5.41994,-0.295701,6.52086,0.121627,6.26691,-8.12495,-0.463568,1.4503,0.0125692,0.314818,0.060857,0.155298,-1.99906,0.105892,0.388109,-0.0196106,0.118049,0.0339625,0.178055,-0.200787,-0.261675,0.0172901,-0.00238833,-5.40505,5.18601,-1.81739,5.49759,32.1219,-8.62066,-0.299812,-0.0202602,-36.5694,0.639662,26.9034,1.55243,4.12713,0.0303194,
0.312672,0.0610286,0.153242,-1.99455,0.109261,0.386556,-0.0196608,0.0947996,0.01638,0.0905995,-0.106368,-0.160022,0.0476822,-0.000476985,1.73928,1.76871,1.64347,-1.31611,8.52179,-2.52279,-0.0797372,6.42064,0.133957,6.17042,-7.99254,-0.472136,1.38934,0.0116489,0.314818,0.060857,0.155298,-1.99906,0.105892,0.388109,-0.0196106,0.118049,0.0339625,0.178055,-0.200787,-0.261675,0.0172901,-0.00238833,0,0,0,0,0,0,0,-0.0202602,-36.5694,0.639662,26.9034,1.55243,4.12713,0.0303194,
0.313429,0.0612236,0.153967,-1.99539,0.108701,0.386925,-0.0196627,0.0947711,0.0179795,0.0906036,-0.106214,-0.142019,0.0473791,-0.00042863,-0.0178069,0.999688,0.00258616,0.0965972,11.2517,-0.189435,0.0302222,6.32091,0.143396,6.07461,-7.86017,-0.481362,1.33174,0.0107822,0.314818,0.060857,0.155298,-1.99906,0.105892,0.388109,-0.0196106,0.118049,0.0339625,0.178055,-0.200787,-0.261675,0.0172901,-0.00238833,0,0,0,0,0,0,0,-0.0202602,-36.5694,0.639662,26.9034,1.55243,4.12713,0.0303194,
0.321272,0.062824,0.161482,-2.00633,0.101063,0.389966,-0.0196711,0.0873383,0.0162128,0.0835403,-0.0983282,-0.122354,0.0501437,-0.000406191,-4.64553,-1.10421,-4.41456,4.9286,12.291,1.72786,0.0140244,5.73194,0.158781,5.51197,-7.06652,-0.5257,1.06605,0.00566645,0.314818,0.060857,0.155298,-1.99906,0.105892,0.388109,-0.0196106,0.118049,0.0339625,0.178055,-0.200787,-0.261675,0.0172901,-0.00238833,0,0,0,0,0,0,0,-0.0202602,-36.5694,0.639662,26.9034,1.55243,4.12713,0.0303194,
0.321715,0.0628846,0.161907,-2.00684,0.100705,0.390482,-0.0196741,0.080944,0.0144847,0.0774586,-0.0914732,-0.106825,0.0530206,-0.000399086,-3.99646,-1.08004,-3.80111,4.28432,9.70536,1.7981,0.00444034,5.60741,0.071649,5.37758,-6.83991,-0.515843,1.0749,0.00461376,0.319887,0.0622253,0.160027,-2.00643,0.100001,0.39015,-0.0196106,0.130953,0.0611258,0.123389,-0.19073,-0.13069,0.0607476,-9.97952e-05,1.61297,3.39541,-6.83325,1.25709,16.3731,5.43219,0.286067,0.638309,-37.466,1.3141,26.951,0.855709,3.29125,-0.0026396,
0.322142,0.0629349,0.162317,-2.00734,0.100342,0.391018,-0.0196775,0.0754352,0.0128455,0.0722148,-0.0854981,-0.0945486,0.0558225,-0.000405492,-3.44298,-1.02451,-3.27738,3.73448,7.67274,1.75117,-0.0040036,5.51129,0.0693433,5.28618,-6.70751,-0.519672,1.04522,0.00382257,0.319887,0.0622253,0.160027,-2.00643,0.100001,0.39015,-0.0196106,0.130953,0.0611258,0.123389,-0.19073,-0.13069,0.0607476,-9.97952e-05,0,0,0,0,0,0,0,0.638309,-37.466,1.3141,26.951,0.855709,3.29125,-0.0026396,
0.322556,0.0629768,0.162714,-2.00781,0.0999745,0.391569,-0.0196815,0.0706778,0.0113246,0.0676828,-0.0802704,-0.0848207,0.0584295,-0.000422873,-2.97338,-0.950575,-2.83251,3.26731,6.07994,1.62937,-0.0108631,5.41549,0.0665629,5.19514,-6.5751,-0.522164,1.01851,0.00300825,0.319887,0.0622253,0.160027,-2.00643,0.100001,0.39015,-0.0196106,0.130953,0.0611258,0.123389,-0.19073,-0.13069,0.0607476,-9.97952e-05,0,0,0,0,0,0,0,0.638309,-37.466,1.3141,26.951,0.855709,3.29125,-0.0026396,
0.325806,0.0646572,0.165689,-2.01309,0.0963714,0.392023,-0.019719,0.0656797,0.0105867,0.0628944,-0.0743642,-0.0754071,0.0577942,-0.000550612,-3.12382,-0.461179,-2.99274,3.69139,5.88348,-0.39708,-0.079837,4.75323,0.0434519,4.5665,-5.64743,-0.514588,0.887521,-0.00237814,0.319887,0.0622253,0.160027,-2.00643,0.100001,0.39015,-0.0196106,0.130953,0.0611258,0.123389,-0.19073,-0.13069,0.0607476,-9.97952e-05,0,0,0,0,0,0,0,0.638309,-37.466,1.3141,26.951,0.855709,3.29125,-0.0026396,
0.326157,0.0647072,0.166024,-2.01347,0.0960663,0.39249,-0.0197278,0.0612987,0.00971974,0.0586957,-0.0691336,-0.0679528,0.0579165,-0.000661653,-2.7381,-0.54185,-2.62418,3.2691,4.65895,0.0764497,-0.0694006,4.66826,-0.0321636,4.47138,-5.43789,-0.496867,0.903494,-0.00335446,0.32447,0.0634485,0.164502,-2.01296,0.0970101,0.392457,-0.0196145,0.194618,0.0199162,0.0711473,-0.181673,-0.0451604,0.067102,-0.000156937,7.95807,-5.1512,-6.53026,1.1321,10.6912,0.79429,-0.00714273,-0.0202602,-37.3668,0.512709,26.4789,0.422665,2.64855,-0.00996382,
0.326493,0.0647483,0.166346,-2.01384,0.0957599,0.392977,-0.019737,0.0574527,0.00880325,0.0550084,-0.0644894,-0.0620229,0.0584995,-0.000759146,-2.40378,-0.572809,-2.30453,2.9026,3.70617,0.364406,-0.0609332,4.57461,-0.0348239,4.38248,-5.30542,-0.491974,0.891453,-0.00406738,0.32447,0.0634485,0.164502,-2.01296,0.0970101,0.392457,-0.0196145,0.194618,0.0199162,0.0711473,-0.181673,-0.0451604,0.067102,-0.000156937,0,0,0,0,0,0,0,-0.0202602,-37.3668,0.512709,26.4789,0.422665,2.64855,-0.00996382,
0.326817,0.0647822,0.166657,-2.01419,0.0954535,0.393478,-0.0197466,0.0540669,0.00788995,0.0517614,-0.0603523,-0.0572771,0.0593328,-0.000845888,-2.11612,-0.570815,-2.02936,2.58571,2.96615,0.520772,-0.0542135,4.48101,-0.0371998,4.29362,-5.17305,-0.486289,0.880441,-0.00478771,0.32447,0.0634485,0.164502,-2.01296,0.0970101,0.392457,-0.0196145,0.194618,0.0199162,0.0711473,-0.181673,-0.0451604,0.067102,-0.000156937,0,0,0,0,0,0,0,-0.0202602,-37.3668,0.512709,26.4789,0.422665,2.64855,-0.00996382,
0.329583,0.064919,0.169394,-2.01759,0.0958008,0.39364,-0.0197399,0.0523151,0.00782098,0.0500887,-0.0569741,-0.0507595,0.0568393,-0.000963658,-1.09488,-0.0431014,-1.04545,2.11137,4.07351,-1.55844,-0.0736066,4.0138,-0.0447001,3.8496,-4.51268,-0.45303,0.833535,-0.00814445,0.32447,0.0634485,0.164502,-2.01296,0.0970101,0.392457,-0.0196145,0.194618,0.0199162,0.0711473,-0.181673,-0.0451604,0.067102,-0.000156937,0,0,0,0,0,0,0,-0.0202602,-37.3668,0.512709,26.4789,0.422665,2.64855,-0.00996382,
0.329921,0.0649676,0.169718,-2.01791,0.0955844,0.394049,-0.0197514,0.0503141,0.00747185,0.0481708,-0.0537304,-0.0460186,0.0556965,-0.00105823,-1.25062,-0.218206,-1.19872,2.02735,2.96304,-0.714202,-0.0591044,3.92031,-0.0452426,3.76061,-4.38112,-0.445642,0.825141,-0.0087683,0.32447,0.0634485,0.164502,-2.01296,0.0970101,0.392457,-0.0196145,0.194618,0.0199162,0.0711473,-0.181673,-0.0451604,0.067102,-0.000156937,0,0,0,0,0,0,0,-0.0202602,-37.3668,0.512709,26.4789,0.422665,2.64855,-0.00996382,
0.330239,0.0650068,0.170022,-2.01822,0.0953525,0.394485,-0.0197629,0.048201,0.00695653,0.046141,-0.0506485,-0.0426129,0.0554538,-0.00113454,-1.32068,-0.322075,-1.26862,1.92617,2.1286,-0.151727,-0.0476988,3.82677,-0.0455129,3.67153,-4.24975,-0.438499,0.816701,-0.00935611,0.32447,0.0634485,0.164502,-2.01296,0.0970101,0.392457,-0.0196145,0.194618,0.0199162,0.0711473,-0.181673,-0.0451604,0.067102,-0.000156937,0,0,0,0,0,0,0,-0.0202602,-37.3668,0.512709,26.4789,0.422665,2.64855,-0.00996382,
0.325338,0.0643518,0.16531,-2.01407,0.0967974,0.392467,-0.0196333,0.0602697,0.0281496,0.0571188,-0.0682066,-0.0394087,0.044626,-0.00137807,7.54297,13.2457,6.86116,-10.9738,2.00258,-6.76737,-0.152202,0.0312858,31.0711,-0.365891,-22.1081,-1.19623,-1.57028,-0.00273958,0.32447,0.0634485,0.164502,-2.01296,0.0970101,0.392457,-0.0196145,0.194618,0.0199162,0.0711473,-0.181673,-0.0451604,0.067102,-0.000156937,0,0,0,0,0,0,0,-0.0202602,-37.3668,0.512709,26.4789,0.422665,2.64855,-0.00996382,
0.326065,0.0650671,0.166003,-2.01494,0.0966463,0.392265,-0.0196507,0.0664044,0.0404005,0.063022,-0.0764619,-0.035304,0.0306528,-0.00153636,3.83415,7.65676,3.68948,-5.15959,2.56545,-8.73322,-0.0989363,3.92005,-0.0463472,3.76037,-4.38054,-0.450867,0.83412,-0.00876404,0.32447,0.0634485,0.164502,-2.01296,0.0970101,0.392457,-0.0196145,0.194618,0.0199162,0.0711473,-0.181673,-0.0451604,0.067102,-0.000156937,0,0,0,0,0,0,0,-0.0202602,-37.3668,0.512709,26.4789,0.422665,2.64855,-0.00996382,
0.326693,0.0656207,0.166602,-2.01569,0.0965158,0.392055,-0.0196657,0.0688126,0.0461607,0.0653802,-0.0798787,-0.0315066,0.0192779,-0.00160592,1.50512,3.60015,1.47388,-2.13549,2.37338,-7.10931,-0.0434743,3.81849,-0.111756,3.64773,-4.20109,-0.44254,0.838991,-0.00945165,0.328518,0.06447,0.169547,-2.0183,0.0957832,0.395671,-0.0196136,0.197021,0.000781833,0.0612673,-0.138587,-0.00079604,0.088649,0.000757775,0.300436,-2.3918,-1.23501,5.38582,5.54555,2.69338,0.114339,-1.94836,-36.1171,-1.51061,25.1578,-0.13306,2.4627,-0.0301054,
0.327244,0.0660495,0.167128,-2.01635,0.0963775,0.391909,-0.019679,0.068833,0.0476481,0.0654531,-0.0803375,-0.0286618,0.0117637,-0.00161729,0.0127976,0.92962,0.0455482,-0.286766,1.77798,-4.69639,-0.00710385,3.72489,-0.111673,3.55854,-4.06997,-0.435448,0.830933,-0.0100235,0.328518,0.06447,0.169547,-2.0183,0.0957832,0.395671,-0.0196136,0.197021,0.000781833,0.0612673,-0.138587,-0.00079604,0.088649,0.000757775,0,0,0,0,0,0,0,-1.94836,-36.1171,-1.51061,25.1578,-0.13306,2.4627,-0.0301054,
0.332968,0.0651937,0.173806,-2.02142,0.0954194,0.39806,-0.019742,0.063718,0.0390379,0.0606454,-0.071008,-0.0274389,0.0207283,-0.00161178,-3.19687,-5.38138,-3.0048,5.83093,0.764333,5.60288,0.00344281,3.34945,-0.118816,3.20004,-3.54194,-0.463437,0.887854,-0.0118813,0.328518,0.06447,0.169547,-2.0183,0.0957832,0.395671,-0.0196136,0.197021,0.000781833,0.0612673,-0.138587,-0.00079604,0.088649,0.000757775,0,0,0,0,0,0,0,-1.94836,-36.1171,-1.51061,25.1578,-0.13306,2.4627,-0.0301054,
0.333284,0.0652224,0.174109,-2.02167,0.0952043,0.398541,-0.0197544,0.0588808,0.0319501,0.0560763,-0.0630721,-0.0273275,0.0286217,-0.00159767,-3.02325,-4.42986,-2.8557,4.95993,0.0696177,4.93335,0.00882253,3.25512,-0.117314,3.10975,-3.41212,-0.459911,0.880042,-0.0122616,0.328518,0.06447,0.169547,-2.0183,0.0957832,0.395671,-0.0196136,0.197021,0.000781833,0.0612673,-0.138587,-0.00079604,0.088649,0.000757775,0,0,0,0,0,0,0,-1.94836,-36.1171,-1.51061,25.1578,-0.13306,2.4627,-0.0301054,
0.333575,0.0652449,0.174387,-2.0219,0.0949599,0.399046,-0.0197663,0.0543842,0.0261211,0.0518126,-0.0562937,-0.0279724,0.0355082,-0.0015775,-2.81041,-3.64313,-2.66481,4.23649,-0.403035,4.30404,0.0126051,3.15146,-0.148213,2.99474,-3.26289,-0.455178,0.877674,-0.012616,0.332193,0.0654896,0.174481,-2.02193,0.0957307,0.398482,-0.0196195,0.0821457,0.0371808,0.145808,-0.101166,-0.00403067,0.022965,0.000336433,-14.3594,4.54987,10.5676,4.67762,-0.404328,-8.2105,-0.0526677,-2.68231,-35.8196,-2.53813,23.8406,-0.109257,1.72661,-0.00996382,
0.333845,0.0652623,0.174644,-2.02212,0.0946911,0.399568,-0.019778,0.0502526,0.0213312,0.047883,-0.0504761,-0.0290986,0.0414654,-0.00155333,-2.58225,-2.99369,-2.45598,3.63602,-0.703889,3.72329,0.0151065,3.05666,-0.14666,2.90383,-3.13364,-0.453728,0.870483,-0.0128963,0.332193,0.0654896,0.174481,-2.02193,0.0957307,0.398482,-0.0196195,0.0821457,0.0371808,0.145808,-0.101166,-0.00403067,0.022965,0.000336433,0,0,0,0,0,0,0,-2.68231,-35.8196,-2.53813,23.8406,-0.109257,1.72661,-0.00996382,
0.335358,0.0670528,0.176434,-2.02112,0.210792,0.36682,-0.0203474,0.0406132,0.0169437,0.0377971,-0.038451,0.0616,0.0125841,-0.00179519,-6.02458,-2.7422,-6.3037,7.51567,56.6866,-18.0508,-0.151166,1.3045,0.054085,1.21598,0.50239,4.51093,-1.53068,0.0191691,0.332193,0.0654896,0.174481,-2.02193,0.0957307,0.398482,-0.0196195,0.0821457,0.0371808,0.145808,-0.101166,-0.00403067,0.022965,0.000336433,0,0,0,0,0,0,0,-2.68231,-35.8196,-2.53813,23.8406,-0.109257,1.72661,-0.00996382,
