xiao-wang007/linearmpc_panda/paper_data/panda_torque_PD_controller_opt_time_to_start_no_torque_ff/2/trajectory.csv
Commanded Joint 0 Position,Commanded Joint 1 Position,Commanded Joint 2 Position,Commanded Joint 3 Position,Commanded Joint 4 Position,Commanded Joint 5 Position,Commanded Joint 6 Position,Commanded Joint 0 Velocity,Commanded Joint 1 Velocity,Commanded Joint 2 Velocity,Commanded Joint 3 Velocity,Commanded Joint 4 Velocity,Commanded Joint 5 Velocity,Commanded Joint 6 Velocity,Commanded Joint 0 Acceleration,Commanded Joint 1 Acceleration,Commanded Joint 2 Acceleration,Commanded Joint 3 Acceleration,Commanded Joint 4 Acceleration,Commanded Joint 5 Acceleration,Commanded Joint 6 Acceleration,Commanded Joint 0 Torque,Commanded Joint 1 Torque,Commanded Joint 2 Torque,Commanded Joint 3 Torque,Commanded Joint 4 Torque,Commanded Joint 5 Torque,Commanded Joint 6 Torque,Actual Joint 0 Position,Actual Joint 1 Position,Actual Joint 2 Position,Actual Joint 3 Position,Actual Joint 4 Position,Actual Joint 5 Position,Actual Joint 6 Position,Actual Joint 0 Velocity,Actual Joint 1 Velocity,Actual Joint 2 Velocity,Actual Joint 3 Velocity,Actual Joint 4 Velocity,Actual Joint 5 Velocity,Actual Joint 6 Velocity,Actual Joint 0 Acceleration,Actual Joint 1 Acceleration,Actual Joint 2 Acceleration,Actual Joint 3 Acceleration,Actual Joint 4 Acceleration,Actual Joint 5 Acceleration,Actual Joint 6 Acceleration,Actual Joint 0 Torque,Actual Joint 1 Torque,Actual Joint 2 Torque,Actual Joint 3 Torque,Actual Joint 4 Torque,Actual Joint 5 Torque,Actual Joint 6 Torque,
-0.0795628,-0.0996286,0.0350737,-1.88621,-0.0116319,0.268512,-0.0321302,0.000425669,0.0192199,0.000641068,-0.0344012,-0.00420873,0.0525521,-0.000360453,0.266043,12.0124,0.400667,-21.5007,-2.63046,32.8451,-0.225283,0,0,0,0,0,0,0,-0.0795915,-0.100378,0.0350499,-1.88311,-0.0113937,0.262843,-0.0320919,-0.000239778,0.000199303,0.000159104,0.000838591,0.00213585,-0.000464692,-0.00127551,0,0,0,0,0,0,0,0.233646,-32.3244,-0.387865,27.5024,0.465695,3.15209,0.0706026,
-0.0795904,-0.100378,0.0350506,-1.8831,-0.0113717,0.262853,-0.0320922,0.000351898,0.0153864,0.000520971,-0.0274959,-0.00325455,0.0421527,-0.000288176,-0.0461071,-2.39592,-0.0750606,4.3158,0.596362,-6.49961,0.0451735,0,0,0,0,0,0,0,-0.0795915,-0.100378,0.0350499,-1.88311,-0.0113937,0.262843,-0.0320919,-0.000239778,0.000199303,0.000159104,0.000838591,0.00213585,-0.000464692,-0.00127551,0,0,0,0,0,0,0,0.233646,-32.3244,-0.387865,27.5024,0.465695,3.15209,0.0706026,
-0.07959,-0.100377,0.0350509,-1.8831,-0.0113686,0.262858,-0.0320922,0.000292359,0.0123251,0.00042481,-0.0219759,-0.00252686,0.033837,-0.00023073,-0.0372115,-1.91331,-0.0601006,3.44998,0.454812,-5.19732,0.0359037,0,0,0,0,0,0,0,-0.0795915,-0.100378,0.0350499,-1.88311,-0.0113937,0.262843,-0.0320919,-0.000239778,0.000199303,0.000159104,0.000838591,0.00213585,-0.000464692,-0.00127551,0,0,0,0,0,0,0,0.233646,-32.3244,-0.387865,27.5024,0.465695,3.15209,0.0706026,
-0.0795896,-0.100376,0.0350512,-1.8831,-0.0113664,0.262863,-0.0320922,0.000243552,0.00988061,0.000346931,-0.0175627,-0.00196693,0.0271849,-0.000184987,-0.0305044,-1.52781,-0.0486739,2.75824,0.349952,-4.15754,0.0285892,0,0,0,0,0,0,0,-0.0795853,-0.10026,0.0350484,-1.88317,-0.0113909,0.26284,-0.0320906,-0.00147373,0.00594326,-0.000114447,0.00105078,0.00370805,0.000522618,-0.000168859,-0.154244,0.717994,-0.0341939,0.0265239,0.196525,0.123414,0.138331,0.233646,-31.9237,-0.411669,27.3993,0.440975,3.17223,0.0577852,
-0.0795893,-0.100375,0.0350514,-1.8831,-0.0113648,0.262867,-0.0320922,0.00020314,0.00792863,0.000283372,-0.0140343,-0.00153331,0.0218623,-0.000148504,-0.0252576,-1.21999,-0.0397248,2.20528,0.271012,-3.32663,0.0228018,0,0,0,0,0,0,0,-0.0795853,-0.10026,0.0350484,-1.88317,-0.0113909,0.26284,-0.0320906,-0.00147373,0.00594326,-0.000114447,0.00105078,0.00370805,0.000522618,-0.000168859,0,0,0,0,0,0,0,0.233646,-31.9237,-0.411669,27.3993,0.440975,3.17223,0.0577852,
-0.0798797,-0.100189,0.0347694,-1.88306,-0.00235977,0.258964,-0.0321234,-0.000800569,0.00639415,-0.000784162,-0.0110293,0.0553779,-0.0079868,-0.000146933,-0.627318,-0.959049,-0.667208,1.87811,35.5695,-18.6557,0.000982059,0,0,0,0,0,0,0,-0.0795853,-0.10026,0.0350484,-1.88317,-0.0113909,0.26284,-0.0320906,-0.00147373,0.00594326,-0.000114447,0.00105078,0.00370805,0.000522618,-0.000168859,0,0,0,0,0,0,0,0.233646,-31.9237,-0.411669,27.3993,0.440975,3.17223,0.0577852,
-0.0799043,-0.100187,0.0347426,-1.88305,-3.25081e-05,0.257899,-0.032124,-0.00125643,0.00515088,-0.00129559,-0.00877407,0.102484,-0.0330303,-0.000131298,-0.284915,-0.77704,-0.319642,1.40953,29.4412,-15.6522,0.00977142,0,0,0,0,0,0,0,-0.0795853,-0.10026,0.0350484,-1.88317,-0.0113909,0.26284,-0.0320906,-0.00147373,0.00594326,-0.000114447,0.00105078,0.00370805,0.000522618,-0.000168859,0,0,0,0,0,0,0,0.233646,-31.9237,-0.411669,27.3993,0.440975,3.17223,0.0577852,
-0.0799167,-0.100185,0.0347283,-1.88306,0.00232749,0.256804,-0.0321243,-0.00131421,0.00416679,-0.0013953,-0.00708955,0.140987,-0.0537787,-0.000112461,-0.0361127,-0.615059,-0.0623212,1.05283,24.0644,-12.9678,0.0117731,0,0,0,0,0,0,0,-0.0795836,-0.100187,0.0350449,-1.88354,-0.0113903,0.263079,-0.0320887,0.000150873,0.00132932,-0.000234424,-0.0282446,0.00534546,0.018267,0.000875897,0.203076,-0.576742,-0.0149971,-3.66193,0.204676,2.21805,0.130595,0.209842,-30.1781,-0.360094,26.0544,0.434567,2.97997,0.0376436,
-0.0799186,-0.100183,0.0347246,-1.88306,0.00470101,0.255694,-0.0321245,-0.00110006,0.00340295,-0.00120913,-0.00583622,0.172128,-0.0707784,-9.52166e-05,0.133845,-0.4774,0.116358,0.783331,19.4629,-10.6248,0.010778,0,0,0,0,0,0,0,-0.0795836,-0.100187,0.0350449,-1.88354,-0.0113903,0.263079,-0.0320887,0.000150873,0.00132932,-0.000234424,-0.0282446,0.00534546,0.018267,0.000875897,0,0,0,0,0,0,0,0.209842,-30.1781,-0.360094,26.0544,0.434567,2.97997,0.0376436,
-0.0800974,-0.100023,0.0346072,-1.8828,0.0183621,0.239847,-0.0322007,-0.00146605,0.00276687,-0.00140556,-0.00358041,0.32797,-0.206637,-0.000224146,-0.228744,-0.397549,-0.12277,1.40988,97.4014,-84.9117,-0.0805808,0,0,0,0,0,0,0,-0.0795836,-0.100187,0.0350449,-1.88354,-0.0113903,0.263079,-0.0320887,0.000150873,0.00132932,-0.000234424,-0.0282446,0.00534546,0.018267,0.000875897,0,0,0,0,0,0,0,0.209842,-30.1781,-0.360094,26.0544,0.434567,2.97997,0.0376436,
-0.0800733,-0.100012,0.0346351,-1.8828,0.0262644,0.2336,-0.0322053,-0.000571385,0.00250229,-0.000428482,-0.00290995,0.459933,-0.32149,-0.000292603,0.559168,-0.165365,0.610675,0.419033,82.4771,-71.7832,-0.0427857,0,0,0,0,0,0,0,-0.0795836,-0.100187,0.0350449,-1.88354,-0.0113903,0.263079,-0.0320887,0.000150873,0.00132932,-0.000234424,-0.0282446,0.00534546,0.018267,0.000875897,0,0,0,0,0,0,0,0.209842,-30.1781,-0.360094,26.0544,0.434567,2.97997,0.0376436,
-0.0800088,-0.0999863,0.0347032,-1.88284,0.0343579,0.227207,-0.0322091,0.00115493,0.00264178,0.00136121,-0.00327451,0.570285,-0.417014,-0.000330881,1.07895,0.0871826,1.11856,-0.22785,68.97,-59.7026,-0.0239241,0,0,0,0,0,0,0,-0.0795864,-0.0998169,0.0350484,-1.884,-0.0110833,0.263175,-0.0320895,-0.00116371,0.0197706,-0.0006597,-0.00462539,0.0587151,-0.000305182,0.000200526,-0.164322,2.30516,-0.0531595,2.95241,6.6712,-2.32152,-0.0844214,0.209842,-32.3482,-0.411669,27.7008,0.93536,3.11913,0.0440523,
-0.0752713,-0.101216,0.0398866,-1.88534,0.0218751,0.218405,-0.0315725,0.0278291,-0.00506173,0.0274371,-0.0177931,0.643766,-0.578544,0.000446089,16.6713,-4.81469,16.2974,-9.07412,45.9254,-100.956,0.485606,0,0,0,0,0,0,0,-0.0795864,-0.0998169,0.0350484,-1.884,-0.0110833,0.263175,-0.0320895,-0.00116371,0.0197706,-0.0006597,-0.00462539,0.0587151,-0.000305182,0.000200526,0,0,0,0,0,0,0,0.209842,-32.3482,-0.411669,27.7008,0.93536,3.11913,0.0440523,
-0.0764073,-0.10168,0.0386746,-1.88591,0.0238203,0.218328,-0.0320144,0.0427598,-0.0146433,0.0439668,-0.0284559,0.704278,-0.70976,0.000569192,9.33167,-5.98846,10.3311,-6.66422,37.82,-82.0099,0.0769396,0,0,0,0,0,0,0,-0.0795864,-0.0998169,0.0350484,-1.884,-0.0110833,0.263175,-0.0320895,-0.00116371,0.0197706,-0.0006597,-0.00462539,0.0587151,-0.000305182,0.000200526,0,0,0,0,0,0,0,0.209842,-32.3482,-0.411669,27.7008,0.93536,3.11913,0.0440523,
-0.0755333,-0.102094,0.0396142,-1.88656,0.0316836,0.208315,-0.0320055,0.0560589,-0.0220518,0.0586645,-0.0390608,0.760005,-0.818123,0.000676982,8.31198,-4.63034,9.18606,-6.6281,34.8294,-67.727,0.0673688,0,0,0,0,0,0,0,-0.0795864,-0.0998169,0.0350484,-1.884,-0.0110833,0.263175,-0.0320895,-0.00116371,0.0197706,-0.0006597,-0.00462539,0.0587151,-0.000305182,0.000200526,0,0,0,0,0,0,0,0.209842,-32.3482,-0.411669,27.7008,0.93536,3.11913,0.0440523,
-0.0746203,-0.102486,0.0405946,-1.88729,0.0397624,0.198497,-0.0319962,0.0676709,-0.0274526,0.0714399,-0.0495818,0.809972,-0.89994,0.000773864,7.2575,-3.37547,7.9846,-6.57562,31.2295,-51.1358,0.0605508,0,0,0,0,0,0,0,-0.0798124,-0.0994282,0.0349355,-1.88415,-0.00438936,0.261547,-0.0320976,-0.0177727,0.00361108,-0.00699225,-0.000145946,0.437032,-0.165047,-0.00681867,-2.07612,-2.01994,-0.791569,0.55993,47.2896,-20.5927,-0.877399,1.2215,-32.3244,0.536512,26.9788,2.48718,1.54809,0.0779268,
-0.0762399,-0.0998859,0.0386944,-1.88641,0.0264515,0.225361,-0.0320473,0.0799085,-0.023718,0.0841745,-0.0576498,0.831881,-0.953007,0.000621349,7.64846,2.33411,7.95913,-5.04247,13.6931,-33.1671,-0.0953218,0,0,0,0,0,0,0,-0.0798124,-0.0994282,0.0349355,-1.88415,-0.00438936,0.261547,-0.0320976,-0.0177727,0.00361108,-0.00699225,-0.000145946,0.437032,-0.165047,-0.00681867,0,0,0,0,0,0,0,1.2215,-32.3244,0.536512,26.9788,2.48718,1.54809,0.0779268,
-0.0751344,-0.0999262,0.039853,-1.88726,0.0341552,0.215844,-0.0320488,0.0915629,-0.0199819,0.0963058,-0.0672185,0.858097,-1.00035,0.000460043,7.28404,2.33504,7.58209,-5.98046,16.3853,-29.5889,-0.100816,0,0,0,0,0,0,0,-0.0798124,-0.0994282,0.0349355,-1.88415,-0.00438936,0.261547,-0.0320976,-0.0177727,0.00361108,-0.00699225,-0.000145946,0.437032,-0.165047,-0.00681867,0,0,0,0,0,0,0,1.2215,-32.3244,0.536512,26.9788,2.48718,1.54809,0.0779268,
-0.0739784,-0.0999306,0.0410643,-1.88822,0.042123,0.206527,-0.0320493,0.102152,-0.0160953,0.107327,-0.0778254,0.885673,-1.03319,0.000354269,6.618,2.42915,6.88793,-6.62928,17.2347,-20.5258,-0.0661086,0,0,0,0,0,0,0,-0.0798124,-0.0994282,0.0349355,-1.88415,-0.00438936,0.261547,-0.0320976,-0.0177727,0.00361108,-0.00699225,-0.000145946,0.437032,-0.165047,-0.00681867,0,0,0,0,0,0,0,1.2215,-32.3244,0.536512,26.9788,2.48718,1.54809,0.0779268,
-0.0727898,-0.0998938,0.0423095,-1.88927,0.0502859,0.197635,-0.0320488,0.111436,-0.0119558,0.116992,-0.0885297,0.912611,-1.04884,0.000295842,5.8027,2.58718,6.041,-6.69019,16.8364,-9.78242,-0.0365166,0,0,0,0,0,0,0,-0.0801622,-0.0993583,0.0347062,-1.88388,0.0164084,0.247345,-0.0320968,0.000668233,0.00249212,-0.00201848,0.00366988,0.717715,-0.616415,0.000478328,2.30511,-0.13987,0.621721,0.476978,35.0853,-56.4211,0.912124,4.62146,-31.7491,3.98805,23.8129,2.22992,0.135428,0.0706026,
-0.0754913,-0.100391,0.039552,-1.88915,0.050306,0.206248,-0.0322121,0.120742,-0.0139596,0.126545,-0.104341,0.918154,-1.0802,-0.000697091,5.81601,-1.25238,5.97056,-9.88219,3.46457,-19.5985,-0.620583,0,0,0,0,0,0,0,-0.0801622,-0.0993583,0.0347062,-1.88388,0.0164084,0.247345,-0.0320968,0.000668233,0.00249212,-0.00201848,0.00366988,0.717715,-0.616415,0.000478328,0,0,0,0,0,0,0,4.62146,-31.7491,3.98805,23.8129,2.22992,0.135428,0.0706026,
-0.0741551,-0.100551,0.0409461,-1.89063,0.0581072,0.196729,-0.0322469,0.129999,-0.0151559,0.136087,-0.120464,0.929554,-1.10213,-0.00142805,5.78556,-0.747677,5.96346,-10.0766,7.1245,-13.7079,-0.456848,0,0,0,0,0,0,0,-0.0801622,-0.0993583,0.0347062,-1.88388,0.0164084,0.247345,-0.0320968,0.000668233,0.00249212,-0.00201848,0.00366988,0.717715,-0.616415,0.000478328,0,0,0,0,0,0,0,4.62146,-31.7491,3.98805,23.8129,2.22992,0.135428,0.0706026,
-0.0727703,-0.100685,0.0423908,-1.89222,0.066125,0.187656,-0.0322762,0.138618,-0.0154813,0.144988,-0.136114,0.944089,-1.10853,-0.00187355,5.38714,-0.203374,5.56369,-9.78148,9.08438,-4.00002,-0.278441,0,0,0,0,0,0,0,-0.0801622,-0.0993583,0.0347062,-1.88388,0.0164084,0.247345,-0.0320968,0.000668233,0.00249212,-0.00201848,0.00366988,0.717715,-0.616415,0.000478328,0,0,0,0,0,0,0,4.62146,-31.7491,3.98805,23.8129,2.22992,0.135428,0.0706026,
-0.0713554,-0.10079,0.0438673,-1.89388,0.0743059,0.179203,-0.0323008,0.146267,-0.015006,0.152901,-0.150487,0.959795,-1.09816,-0.00211388,4.78056,0.297049,4.94555,-8.98306,9.81615,6.48481,-0.150205,0,0,0,0,0,0,0,-0.0801622,-0.0993583,0.0347062,-1.88388,0.0164084,0.247345,-0.0320968,0.000668233,0.00249212,-0.00201848,0.00366988,0.717715,-0.616415,0.000478328,0,0,0,0,0,0,0,4.62146,-31.7491,3.98805,23.8129,2.22992,0.135428,0.0706026,
-0.0744558,-0.101055,0.0408947,-1.89234,0.0772336,0.180058,-0.0323706,0.151597,-0.0156698,0.158456,-0.167877,0.958913,-1.09565,-0.00314807,3.33111,-0.414855,3.47154,-10.8684,-0.550712,1.56433,-0.64637,0,0,0,0,0,0,0,-0.0798397,-0.0997865,0.03529,-1.88464,0.0419795,0.221786,-0.0320971,0.0122527,-0.0278253,0.0333113,-0.0470179,0.806671,-0.804516,0.0018568,1.44806,-3.78968,4.41622,-6.33597,11.1195,-23.5126,0.172309,5.81165,-29.9281,5.58687,23.5391,2.48077,0.0759184,0.0303194,
-0.0730077,-0.101147,0.0424083,-1.89435,0.0851093,0.171941,-0.032424,0.15748,-0.0148365,0.164603,-0.184681,0.964026,-1.07947,-0.00385464,3.67707,0.520775,3.84192,-10.503,3.19507,10.1184,-0.441603,0,0,0,0,0,0,0,-0.0798397,-0.0997865,0.03529,-1.88464,0.0419795,0.221786,-0.0320971,0.0122527,-0.0278253,0.0333113,-0.0470179,0.806671,-0.804516,0.0018568,0,0,0,0,0,0,0,5.81165,-29.9281,5.58687,23.5391,2.48077,0.0759184,0.0303194,
-0.0715187,-0.101187,0.0439648,-1.89644,0.0931666,0.16453,-0.0324696,0.163208,-0.0128681,0.170596,-0.199963,0.972652,-1.04884,-0.00422201,3.58005,1.23024,3.74553,-9.55079,5.39179,19.1413,-0.229608,0,0,0,0,0,0,0,-0.0798397,-0.0997865,0.03529,-1.88464,0.0419795,0.221786,-0.0320971,0.0122527,-0.0278253,0.0333113,-0.0470179,0.806671,-0.804516,0.0018568,0,0,0,0,0,0,0,5.81165,-29.9281,5.58687,23.5391,2.48077,0.0759184,0.0303194,
-0.070007,-0.101181,0.0455454,-1.89857,0.101361,0.157888,-0.0325082,0.168359,-0.010145,0.175992,-0.213175,0.982982,-1.00513,-0.00434387,3.21907,1.70197,3.37265,-8.25763,6.45625,27.3211,-0.0761643,0,0,0,0,0,0,0,-0.0798397,-0.0997865,0.03529,-1.88464,0.0419795,0.221786,-0.0320971,0.0122527,-0.0278253,0.0333113,-0.0470179,0.806671,-0.804516,0.0018568,0,0,0,0,0,0,0,5.81165,-29.9281,5.58687,23.5391,2.48077,0.0759184,0.0303194,
-0.071974,-0.102222,0.0437535,-1.89801,0.107694,0.15509,-0.0324471,0.171568,-0.0130669,0.17928,-0.233558,0.983241,-0.963921,-0.00512838,2.00567,-1.82618,2.05488,-12.7394,0.161847,25.7525,-0.490317,0,0,0,0,0,0,0,-0.0781983,-0.100715,0.0372813,-1.88716,0.0702717,0.191986,-0.0320975,0.0657767,-0.0173355,0.0747476,-0.0931734,0.890834,-0.948091,0.000584188,6.69051,1.31123,5.17953,-5.76944,10.5203,-17.9468,-0.159076,5.43079,-28.7062,5.06318,23.7891,2.02301,1.19012,0.0303194,
-0.0704563,-0.102369,0.0453382,-1.90059,0.115724,0.149462,-0.0325063,0.175196,-0.0141355,0.183041,-0.251218,0.987338,-0.911849,-0.00558139,2.26789,-0.667862,2.35084,-11.0376,2.56025,32.5453,-0.283128,0,0,0,0,0,0,0,-0.0781983,-0.100715,0.0372813,-1.88716,0.0702717,0.191986,-0.0320975,0.0657767,-0.0173355,0.0747476,-0.0931734,0.890834,-0.948091,0.000584188,0,0,0,0,0,0,0,5.43079,-28.7062,5.06318,23.7891,2.02301,1.19012,0.0303194,
-0.0689156,-0.102475,0.0469476,-1.90319,0.123875,0.144612,-0.0325554,0.178676,-0.0139568,0.186668,-0.265879,0.99364,-0.850727,-0.00569209,2.17478,0.111673,2.26681,-9.16335,3.93904,38.201,-0.0691915,0,0,0,0,0,0,0,-0.0781983,-0.100715,0.0372813,-1.88716,0.0702717,0.191986,-0.0320975,0.0657767,-0.0173355,0.0747476,-0.0931734,0.890834,-0.948091,0.000584188,0,0,0,0,0,0,0,5.43079,-28.7062,5.06318,23.7891,2.02301,1.19012,0.0303194,
-0.0673661,-0.102549,0.0485667,-1.90578,0.132115,0.140522,-0.0325952,0.181679,-0.0130124,0.189811,-0.277544,1.00094,-0.782837,-0.00555003,1.87682,0.59024,1.96448,-7.29063,4.55948,42.4311,0.0887894,0,0,0,0,0,0,0,-0.0781983,-0.100715,0.0372813,-1.88716,0.0702717,0.191986,-0.0320975,0.0657767,-0.0173355,0.0747476,-0.0931734,0.890834,-0.948091,0.000584188,0,0,0,0,0,0,0,5.43079,-28.7062,5.06318,23.7891,2.02301,1.19012,0.0303194,
-0.0721521,-0.102194,0.0435617,-1.90002,0.108095,0.167021,-0.0324173,0.181133,-0.0134907,0.189154,-0.293276,0.99866,-0.719372,-0.00580413,-0.341233,-0.298941,-0.41043,-9.83228,-1.4219,39.6659,-0.158816,0,0,0,0,0,0,0,-0.075082,-0.101425,0.0407571,-1.89234,0.100775,0.159585,-0.0321162,0.109715,-0.0161813,0.110776,-0.182863,0.927086,-0.948803,-0.00016484,5.4923,0.144275,4.50358,-11.2112,4.53153,-0.0890343,-0.0936284,4.03827,-29.6306,3.71431,23.8406,1.76574,2.05163,0.0440523,
-0.070679,-0.102252,0.045098,-1.90289,0.116153,0.163938,-0.0324616,0.181733,-0.0122408,0.189732,-0.306414,1.00037,-0.652567,-0.00575146,0.374982,0.781178,0.360751,-8.21147,1.07142,41.7533,0.0329244,0,0,0,0,0,0,0,-0.075082,-0.101425,0.0407571,-1.89234,0.100775,0.159585,-0.0321162,0.109715,-0.0161813,0.110776,-0.182863,0.927086,-0.948803,-0.00016484,0,0,0,0,0,0,0,4.03827,-29.6306,3.71431,23.8406,1.76574,2.05163,0.0440523,
-0.0691832,-0.102258,0.0466586,-1.90576,0.124322,0.161465,-0.0324935,0.182783,-0.00995829,0.190802,-0.316863,1.00453,-0.583865,-0.00539938,0.656249,1.42658,0.668825,-6.53036,2.59537,42.9386,0.220047,0,0,0,0,0,0,0,-0.075082,-0.101425,0.0407571,-1.89234,0.100775,0.159585,-0.0321162,0.109715,-0.0161813,0.110776,-0.182863,0.927086,-0.948803,-0.00016484,0,0,0,0,0,0,0,4.03827,-29.6306,3.71431,23.8406,1.76574,2.05163,0.0440523,
-0.0676785,-0.102225,0.048229,-1.90861,0.132576,0.159562,-0.0325123,0.183844,-0.00714592,0.191901,-0.324735,1.00995,-0.514684,-0.00479027,0.66321,1.75773,0.686855,-4.92016,3.39105,43.238,0.380694,0,0,0,0,0,0,0,-0.075082,-0.101425,0.0407571,-1.89234,0.100775,0.159585,-0.0321162,0.109715,-0.0161813,0.110776,-0.182863,0.927086,-0.948803,-0.00016484,0,0,0,0,0,0,0,4.03827,-29.6306,3.71431,23.8406,1.76574,2.05163,0.0440523,
-0.0683273,-0.102836,0.0477812,-1.90752,0.139721,0.135601,-0.0323554,0.184724,-0.00935337,0.192788,-0.340565,1.00883,-0.501285,-0.00467604,0.550209,-1.37966,0.5545,-9.89368,-0.701779,8.37435,0.0713964,0,0,0,0,0,0,0,-0.0705877,-0.10255,0.0456518,-1.90096,0.132902,0.130097,-0.0321478,0.136469,-0.0549143,0.165367,-0.314511,0.965677,-0.788598,-0.00116834,3.34419,-4.84162,6.82388,-16.4559,4.82394,20.0256,-0.125438,2.11017,-28.6824,1.96077,26.4789,1.5094,3.20519,0.017502,
-0.0667997,-0.102935,0.0493756,-1.91075,0.147852,0.132583,-0.0323801,0.185971,-0.00994466,0.194091,-0.353229,1.01035,-0.476483,-0.00435936,0.779479,-0.369562,0.814099,-7.9149,0.951667,15.5013,0.197925,0,0,0,0,0,0,0,-0.0705877,-0.10255,0.0456518,-1.90096,0.132902,0.130097,-0.0321478,0.136469,-0.0549143,0.165367,-0.314511,0.965677,-0.788598,-0.00116834,0,0,0,0,0,0,0,2.11017,-28.6824,1.96077,26.4789,1.5094,3.20519,0.017502,
-0.0652645,-0.102998,0.0509786,-1.91396,0.156058,0.130099,-0.032394,0.187157,-0.00954137,0.195347,-0.362884,1.01341,-0.443287,-0.00383429,0.740704,0.252058,0.785462,-6.03472,1.91343,20.7473,0.328163,0,0,0,0,0,0,0,-0.0705877,-0.10255,0.0456518,-1.90096,0.132902,0.130097,-0.0321478,0.136469,-0.0549143,0.165367,-0.314511,0.965677,-0.788598,-0.00116834,0,0,0,0,0,0,0,2.11017,-28.6824,1.96077,26.4789,1.5094,3.20519,0.017502,
-0.0631421,-0.103926,0.0533929,-1.91831,0.17295,0.117239,-0.0322932,0.1889,-0.010234,0.197099,-0.378646,1.01476,-0.381106,-0.00336656,1.08938,-0.432916,1.09496,-9.85121,0.844082,38.8635,0.292337,0,0,0,0,0,0,0,-0.0705877,-0.10255,0.0456518,-1.90096,0.132902,0.130097,-0.0321478,0.136469,-0.0549143,0.165367,-0.314511,0.965677,-0.788598,-0.00116834,0,0,0,0,0,0,0,2.11017,-28.6824,1.96077,26.4789,1.5094,3.20519,0.017502,
-0.0615749,-0.103986,0.055027,-1.92182,0.181162,0.116744,-0.0322937,0.190301,-0.00968246,0.198533,-0.390488,1.01712,-0.317271,-0.00270341,0.876039,0.344737,0.896115,-7.40101,1.47357,39.8968,0.414464,0,0,0,0,0,0,0,-0.065285,-0.102483,0.051628,-1.91181,0.163521,0.109988,-0.0321733,0.163513,0.0432963,0.18183,-0.306679,0.926628,-0.430485,-0.00561737,3.38048,12.2763,2.05791,0.978964,-4.88116,44.7641,-0.556129,1.17389,-30.9517,0.611891,27.4509,1.83349,3.29125,-0.0026396,
-0.0600173,-0.104015,0.0566518,-1.92528,0.189411,0.116753,-0.0322816,0.191181,-0.00847181,0.199446,-0.398933,1.01992,-0.2536,-0.00186155,0.549928,0.756657,0.570497,-5.27831,1.74844,39.7944,0.526161,0,0,0,0,0,0,0,-0.065285,-0.102483,0.051628,-1.91181,0.163521,0.109988,-0.0321733,0.163513,0.0432963,0.18183,-0.306679,0.926628,-0.430485,-0.00561737,0,0,0,0,0,0,0,1.17389,-30.9517,0.611891,27.4509,1.83349,3.29125,-0.0026396,
-0.0584768,-0.104023,0.0582588,-1.92869,0.197685,0.117211,-0.0322578,0.191455,-0.0069718,0.199733,-0.404482,1.02277,-0.191424,-0.000893547,0.171376,0.937507,0.179722,-3.46833,1.77891,38.8599,0.605005,0,0,0,0,0,0,0,-0.065285,-0.102483,0.051628,-1.91181,0.163521,0.109988,-0.0321733,0.163513,0.0432963,0.18183,-0.306679,0.926628,-0.430485,-0.00561737,0,0,0,0,0,0,0,1.17389,-30.9517,0.611891,27.4509,1.83349,3.29125,-0.0026396,
-0.0580669,-0.10253,0.0591567,-1.92884,0.203435,0.108791,-0.0321089,0.189604,-0.00521702,0.197793,-0.407782,1.02143,-0.132271,0.000246332,-1.157,1.09674,-1.21289,-2.06189,-0.833933,36.9703,0.712424,0,0,0,0,0,0,0,-0.065285,-0.102483,0.051628,-1.91181,0.163521,0.109988,-0.0321733,0.163513,0.0432963,0.18183,-0.306679,0.926628,-0.430485,-0.00561737,0,0,0,0,0,0,0,1.17389,-30.9517,0.611891,27.4509,1.83349,3.29125,-0.0026396,
-0.0566255,-0.102504,0.0606602,-1.93215,0.211604,0.109994,-0.0320615,0.187716,-0.00353271,0.195822,-0.408954,1.02136,-0.0757393,0.00138182,-1.18012,1.0527,-1.23195,-0.733033,-0.0441543,35.3325,0.709678,0,0,0,0,0,0,0,-0.0593522,-0.102792,0.0576376,-1.92384,0.194431,0.0974439,-0.0321879,0.196289,-0.06526,0.160187,-0.384388,0.934735,-0.310587,-6.8756e-05,4.0971,-13.5695,-2.70546,-9.71367,1.01334,14.9872,0.693577,-0.476498,-30.8525,-0.736986,24.9356,1.63208,2.4096,0.0706026,
-0.0552082,-0.102471,0.0621382,-1.9354,0.219802,0.111513,-0.032011,0.185606,-0.00198453,0.193607,-0.408385,1.02206,-0.0226241,0.00236769,-1.31887,0.967612,-1.38417,0.355969,0.435827,33.197,0.61617,0,0,0,0,0,0,0,-0.0593522,-0.102792,0.0576376,-1.92384,0.194431,0.0974439,-0.0321879,0.196289,-0.06526,0.160187,-0.384388,0.934735,-0.310587,-6.8756e-05,0,0,0,0,0,0,0,-0.476498,-30.8525,-0.736986,24.9356,1.63208,2.4096,0.0706026,
-0.0538184,-0.10243,0.063584,-1.93858,0.22802,0.113303,-0.0319547,0.18323,-0.000563087,0.191032,-0.406378,1.0231,0.0266464,0.00330128,-1.4851,0.888399,-1.6095,1.25449,0.649633,30.7941,0.583494,0,0,0,0,0,0,0,-0.0593522,-0.102792,0.0576376,-1.92384,0.194431,0.0974439,-0.0321879,0.196289,-0.06526,0.160187,-0.384388,0.934735,-0.310587,-6.8756e-05,0,0,0,0,0,0,0,-0.476498,-30.8525,-0.736986,24.9356,1.63208,2.4096,0.0706026,
-0.0524021,-0.103825,0.0648617,-1.93991,0.234554,0.100524,-0.0319304,0.18036,-0.0018305,0.187903,-0.402927,1.02282,0.064707,0.00406315,-1.79379,-0.792134,-1.95558,2.15641,-0.174609,23.7879,0.47617,0,0,0,0,0,0,0,-0.0593522,-0.102792,0.0576376,-1.92384,0.194431,0.0974439,-0.0321879,0.196289,-0.06526,0.160187,-0.384388,0.934735,-0.310587,-6.8756e-05,0,0,0,0,0,0,0,-0.476498,-30.8525,-0.736986,24.9356,1.63208,2.4096,0.0706026,
-0.0510881,-0.103843,0.0662368,-1.94296,0.24275,0.102568,-0.031874,0.177138,-0.00189933,0.184701,-0.398623,1.02316,0.102857,0.00465937,-2.01334,-0.0430196,-2.00126,2.69039,0.214013,23.8439,0.372638,0,0,0,0,0,0,0,-0.0593522,-0.102792,0.0576376,-1.92384,0.194431,0.0974439,-0.0321879,0.196289,-0.06526,0.160187,-0.384388,0.934735,-0.310587,-6.8756e-05,0,0,0,0,0,0,0,-0.476498,-30.8525,-0.736986,24.9356,1.63208,2.4096,0.0706026,
-0.0498097,-0.103831,0.0675814,-1.94595,0.250952,0.10486,-0.0318187,0.17367,-0.00123494,0.181374,-0.393651,1.02359,0.139584,0.00511051,-2.16754,0.415249,-2.07923,3.10715,0.269642,22.9545,0.281962,0,0,0,0,0,0,0,-0.0533236,-0.103137,0.0640065,-1.93834,0.225984,0.0924113,-0.03219,0.155769,-0.0434837,0.213257,-0.434665,0.915314,-0.0496397,0.0016125,-5.06502,2.72204,6.63374,-6.28456,-2.42759,32.6184,0.210157,0.765262,-29.8528,0.536512,26.8518,2.43774,2.05804,0.050461,
-0.0485376,-0.1038,0.0689146,-1.94886,0.258734,0.107352,-0.0317582,0.170738,-0.000205303,0.17843,-0.387679,1.01341,0.173969,0.00560185,-1.8327,0.643521,-1.83995,3.73246,-6.36108,21.4906,0.30709,0,0,0,0,0,0,0,-0.0533236,-0.103137,0.0640065,-1.93834,0.225984,0.0924113,-0.03219,0.155769,-0.0434837,0.213257,-0.434665,0.915314,-0.0496397,0.0016125,0,0,0,0,0,0,0,0.765262,-29.8528,0.536512,26.8518,2.43774,2.05804,0.050461,
-0.0466869,-0.103255,0.0709622,-1.95373,0.264131,0.0999984,-0.0319008,0.168792,0.00125573,0.176428,-0.382256,0.986811,0.197692,0.00599701,-1.2164,0.913147,-1.25155,3.38941,-16.6273,14.8265,0.246975,0,0,0,0,0,0,0,-0.0533236,-0.103137,0.0640065,-1.93834,0.225984,0.0924113,-0.03219,0.155769,-0.0434837,0.213257,-0.434665,0.915314,-0.0496397,0.0016125,0,0,0,0,0,0,0,0.765262,-29.8528,0.536512,26.8518,2.43774,2.05804,0.050461,
-0.0454033,-0.103192,0.072303,-1.95653,0.270463,0.102576,-0.0318395,0.167124,0.00258256,0.174662,-0.375794,0.947741,0.222604,0.00633002,-1.04234,0.829268,-1.10365,4.03911,-24.4189,15.57,0.208128,0,0,0,0,0,0,0,-0.0533236,-0.103137,0.0640065,-1.93834,0.225984,0.0924113,-0.03219,0.155769,-0.0434837,0.213257,-0.434665,0.915314,-0.0496397,0.0016125,0,0,0,0,0,0,0,0.765262,-29.8528,0.536512,26.8518,2.43774,2.05804,0.050461,
-0.0441273,-0.103129,0.0736347,-1.95925,0.276059,0.105341,-0.0317787,0.165599,0.00364455,0.173024,-0.368735,0.898101,0.247184,0.00658335,-0.952922,0.663745,-1.02376,4.41159,-31.0246,15.3629,0.158335,0,0,0,0,0,0,0,-0.0476626,-0.102189,0.0707106,-1.95178,0.257469,0.0934783,-0.0321849,0.172414,0.100322,0.187489,-0.35862,0.920488,0.0565135,0.00185634,2.08065,17.9757,-3.22092,9.50567,0.646691,13.2692,0.0304802,-0.984311,-32.0744,-2.06206,28.8474,2.61535,2.57531,0.0440523,
-0.0428618,-0.103069,0.0749548,-1.96191,0.280933,0.10825,-0.0317167,0.164115,0.00442167,0.171421,-0.361379,0.840321,0.270474,0.00681642,-0.927258,0.485699,-1.00147,4.5975,-36.1124,14.556,0.145665,0,0,0,0,0,0,0,-0.0476626,-0.102189,0.0707106,-1.95178,0.257469,0.0934783,-0.0321849,0.172414,0.100322,0.187489,-0.35862,0.920488,0.0565135,0.00185634,0,0,0,0,0,0,0,-0.984311,-32.0744,-2.06206,28.8474,2.61535,2.57531,0.0440523,
-0.0410522,-0.100479,0.0776268,-1.96629,0.285109,0.104225,-0.0318872,0.163278,0.00888688,0.170526,-0.356912,0.775829,0.283981,0.00700609,-0.523607,2.79076,-0.559764,2.79183,-40.308,8.44166,0.118544,0,0,0,0,0,0,0,-0.0476626,-0.102189,0.0707106,-1.95178,0.257469,0.0934783,-0.0321849,0.172414,0.100322,0.187489,-0.35862,0.920488,0.0565135,0.00185634,0,0,0,0,0,0,0,-0.984311,-32.0744,-2.06206,28.8474,2.61535,2.57531,0.0440523,
-0.0397946,-0.100302,0.078939,-1.96892,0.288635,0.107088,-0.0318233,0.162064,0.0115391,0.169225,-0.35128,0.708814,0.298756,0.00720121,-0.758352,1.65765,-0.812667,3.52011,-41.8845,9.23481,0.121952,0,0,0,0,0,0,0,-0.0476626,-0.102189,0.0707106,-1.95178,0.257469,0.0934783,-0.0321849,0.172414,0.100322,0.187489,-0.35862,0.920488,0.0565135,0.00185634,0,0,0,0,0,0,0,-0.984311,-32.0744,-2.06206,28.8474,2.61535,2.57531,0.0440523,
-0.0385591,-0.100154,0.0802275,-1.97148,0.291608,0.110073,-0.0317585,0.160539,0.0129323,0.167594,-0.344944,0.641363,0.313648,0.00738064,-0.953357,0.870707,-1.01951,3.96016,-42.1568,9.30711,0.112144,0,0,0,0,0,0,0,-0.0413727,-0.101059,0.0765041,-1.96514,0.288426,0.0969777,-0.0321839,0.206898,0.00822498,0.131012,-0.382803,0.866552,0.146173,-0.00124296,4.31042,-11.5122,-7.05971,-3.02289,-6.74189,11.2074,-0.387413,-1.97216,-32.5981,-2.18505,24.5627,1.83349,2.15783,0.124619,
-0.0373456,-0.100029,0.0814927,-1.97397,0.294086,0.113151,-0.0316921,0.158767,0.0134755,0.165704,-0.338214,0.575042,0.327859,0.00756377,-1.10761,0.339507,-1.1816,4.20645,-41.4505,8.8817,0.114456,0,0,0,0,0,0,0,-0.0413727,-0.101059,0.0765041,-1.96514,0.288426,0.0969777,-0.0321839,0.206898,0.00822498,0.131012,-0.382803,0.866552,0.146173,-0.00124296,0,0,0,0,0,0,0,-1.97216,-32.5981,-2.18505,24.5627,1.83349,2.15783,0.124619,
-0.0347961,-0.100504,0.0833146,-1.97815,0.307104,0.108956,-0.0318491,0.158508,0.0130247,0.165335,-0.331609,0.518105,0.335007,0.00772342,-0.161569,-0.28174,-0.230518,4.12779,-35.5853,4.46785,0.0997824,0,0,0,0,0,0,0,-0.0413727,-0.101059,0.0765041,-1.96514,0.288426,0.0969777,-0.0321839,0.206898,0.00822498,0.131012,-0.382803,0.866552,0.146173,-0.00124296,0,0,0,0,0,0,0,-1.97216,-32.5981,-2.18505,24.5627,1.83349,2.15783,0.124619,
-0.0335688,-0.100424,0.0845923,-1.98053,0.308964,0.111983,-0.0317814,0.157488,0.0124243,0.16421,-0.324818,0.460984,0.343669,0.00787028,-0.637614,-0.375213,-0.703142,4.24469,-35.7012,5.41337,0.0917839,0,0,0,0,0,0,0,-0.0413727,-0.101059,0.0765041,-1.96514,0.288426,0.0969777,-0.0321839,0.206898,0.00822498,0.131012,-0.382803,0.866552,0.146173,-0.00124296,0,0,0,0,0,0,0,-1.97216,-32.5981,-2.18505,24.5627,1.83349,2.15783,0.124619,
-0.0323731,-0.100351,0.0858375,-1.98285,0.31044,0.115086,-0.0317136,0.155883,0.0117515,0.162498,-0.317984,0.405698,0.352513,0.00799236,-1.00344,-0.420508,-1.07,4.27086,-34.5531,5.5277,0.0762998,0,0,0,0,0,0,0,-0.0355448,-0.100678,0.0823775,-1.97768,0.313268,0.103457,-0.0321743,0.101116,-0.0547496,0.262869,-0.400617,0.623402,0.227694,0.00152067,-13.2227,-7.87182,16.4822,-2.22676,-30.3938,10.1901,0.345454,-1.36517,-28.6308,-1.73674,24.6619,1.35742,2.17156,0.0779268,
-0.0288657,-0.10081,0.089315,-1.98958,0.324402,0.115885,-0.0318251,0.155634,0.00998615,0.162158,-0.310065,0.354495,0.354423,0.00806823,-0.155254,-1.10336,-0.212283,4.94966,-32.0024,1.19417,0.0474209,0,0,0,0,0,0,0,-0.0355448,-0.100678,0.0823775,-1.97768,0.313268,0.103457,-0.0321743,0.101116,-0.0547496,0.262869,-0.400617,0.623402,0.227694,0.00152067,0,0,0,0,0,0,0,-1.36517,-28.6308,-1.73674,24.6619,1.35742,2.17156,0.0779268,
-0.0276733,-0.10078,0.0905557,-1.99176,0.325293,0.118863,-0.0317584,0.154316,0.00873003,0.160744,-0.302453,0.305873,0.357974,0.00812149,-0.824036,-0.785073,-0.883591,4.75702,-30.3882,2.2191,0.0332898,0,0,0,0,0,0,0,-0.0355448,-0.100678,0.0823775,-1.97768,0.313268,0.103457,-0.0321743,0.101116,-0.0547496,0.262869,-0.400617,0.623402,0.227694,0.00152067,0,0,0,0,0,0,0,-1.36517,-28.6308,-1.73674,24.6619,1.35742,2.17156,0.0779268,
-0.0265217,-0.100746,0.0917547,-1.99388,0.325939,0.121882,-0.0316924,0.152245,0.00783235,0.158571,-0.295141,0.260841,0.36186,0.00814674,-1.29438,-0.561052,-1.35852,4.56999,-28.1455,2.42893,0.0157781,0,0,0,0,0,0,0,-0.0355448,-0.100678,0.0823775,-1.97768,0.313268,0.103457,-0.0321743,0.101116,-0.0547496,0.262869,-0.400617,0.623402,0.227694,0.00152067,0,0,0,0,0,0,0,-1.36517,-28.6308,-1.73674,24.6619,1.35742,2.17156,0.0779268,
-0.0254067,-0.100709,0.0929159,-1.99596,0.326385,0.124914,-0.0316272,0.14967,0.00719205,0.155886,-0.288102,0.219846,0.365282,0.00814868,-1.60905,-0.400184,-1.67786,4.39999,-25.6215,2.13836,0.00121228,0,0,0,0,0,0,0,-0.0300756,-0.0993209,0.0887497,-1.98925,0.329539,0.111945,-0.0321733,0.054151,0.0909177,0.305214,-0.292986,0.381714,0.286186,-0.000862494,-5.87059,18.2084,5.2931,13.4538,-30.211,7.3115,-0.297895,-0.603451,-31.4516,-1.16149,28.0222,1.3446,2.50298,0.110886,
-0.0238238,-0.0978063,0.0952775,-2.00052,0.335278,0.125691,-0.0318449,0.148363,0.0100522,0.154509,-0.283304,0.186863,0.36324,0.00811293,-0.817275,1.78762,-0.860851,2.99852,-20.6148,-1.27587,-0.0223439,0,0,0,0,0,0,0,-0.0300756,-0.0993209,0.0887497,-1.98925,0.329539,0.111945,-0.0321733,0.054151,0.0909177,0.305214,-0.292986,0.381714,0.286186,-0.000862494,0,0,0,0,0,0,0,-0.603451,-31.4516,-1.16149,28.0222,1.3446,2.50298,0.110886,
-0.0227216,-0.0976647,0.0964251,-2.00257,0.33553,0.128536,-0.0317823,0.146245,0.0115829,0.152297,-0.27789,0.155772,0.361721,0.00805407,-1.32342,0.956685,-1.38249,3.3835,-19.4316,-0.949802,-0.036787,0,0,0,0,0,0,0,-0.0300756,-0.0993209,0.0887497,-1.98925,0.329539,0.111945,-0.0321733,0.054151,0.0909177,0.305214,-0.292986,0.381714,0.286186,-0.000862494,0,0,0,0,0,0,0,-0.603451,-31.4516,-1.16149,28.0222,1.3446,2.50298,0.110886,
-0.0216575,-0.0975449,0.0975331,-2.00456,0.335637,0.131371,-0.0317212,0.143598,0.0122599,0.149537,-0.272086,0.127312,0.360254,0.00797073,-1.65434,0.423106,-1.72493,3.6274,-17.7873,-0.916402,-0.0520895,0,0,0,0,0,0,0,-0.0300756,-0.0993209,0.0887497,-1.98925,0.329539,0.111945,-0.0321733,0.054151,0.0909177,0.305214,-0.292986,0.381714,0.286186,-0.000862494,0,0,0,0,0,0,0,-0.603451,-31.4516,-1.16149,28.0222,1.3446,2.50298,0.110886,
-0.0206275,-0.0974411,0.0986056,-2.00649,0.335634,0.134184,-0.0316616,0.140629,0.0124037,0.146442,-0.26605,0.101762,0.35851,0.00786705,-1.85575,0.0898474,-1.93427,3.77277,-15.9688,-1.08997,-0.0647948,0,0,0,0,0,0,0,-0.0242084,-0.0977634,0.0947355,-1.99921,0.338865,0.122259,-0.0321697,0.0353704,0.0728202,0.324226,-0.257925,0.166984,0.314543,-0.00111968,-2.34757,-2.26219,2.37649,4.38261,-26.8413,3.54467,-0.0321479,-0.829586,-33.0226,-1.58599,26.1813,1.43615,1.85937,0.11821,
-0.0182867,-0.0965607,0.100934,-2.0094,0.340934,0.135741,-0.0318768,0.139181,0.0135002,0.144923,-0.260733,0.0825677,0.353593,0.00771599,-0.90503,0.68537,-0.949268,3.3234,-11.9966,-3.07322,-0.0944173,0,0,0,0,0,0,0,-0.0242084,-0.0977634,0.0947355,-1.99921,0.338865,0.122259,-0.0321697,0.0353704,0.0728202,0.324226,-0.257925,0.166984,0.314543,-0.00111968,0,0,0,0,0,0,0,-0.829586,-33.0226,-1.58599,26.1813,1.43615,1.85937,0.11821,
-0.0172623,-0.0964395,0.102,-2.01126,0.340874,0.138385,-0.0318213,0.136953,0.0138308,0.142594,-0.255021,0.0645608,0.348974,0.00755902,-1.39229,0.206604,-1.45608,3.56992,-11.2543,-2.88695,-0.0981026,0,0,0,0,0,0,0,-0.0242084,-0.0977634,0.0947355,-1.99921,0.338865,0.122259,-0.0321697,0.0353704,0.0728202,0.324226,-0.257925,0.166984,0.314543,-0.00111968,0,0,0,0,0,0,0,-0.829586,-33.0226,-1.58599,26.1813,1.43615,1.85937,0.11821,
-0.0162752,-0.096334,0.103027,-2.01306,0.340731,0.140995,-0.0317675,0.13424,0.0137016,0.139758,-0.249068,0.0480825,0.344415,0.00739291,-1.69582,-0.0807671,-1.77206,3.72051,-10.2989,-2.84937,-0.103818,0,0,0,0,0,0,0,-0.0242084,-0.0977634,0.0947355,-1.99921,0.338865,0.122259,-0.0321697,0.0353704,0.0728202,0.324226,-0.257925,0.166984,0.314543,-0.00111968,0,0,0,0,0,0,0,-0.829586,-33.0226,-1.58599,26.1813,1.43615,1.85937,0.11821,
-0.015321,-0.0962399,0.10402,-2.01481,0.340523,0.143563,-0.0317153,0.131247,0.0133131,0.136632,-0.242981,0.0332467,0.339731,0.0072189,-1.87054,-0.242783,-1.95416,3.80406,-9.27239,-2.92732,-0.10876,0,0,0,0,0,0,0,-0.0186038,-0.0973929,0.100636,-2.00908,0.343039,0.133048,-0.0321714,0.0397833,-0.0574868,0.301464,-0.334937,0.0414183,0.324376,-0.00153119,0.551603,-16.2884,-2.84519,-9.62652,-15.6957,1.22909,-0.051439,-1.74603,-29.8805,-2.46276,25.4077,1.93145,1.82641,0.138352,
-0.0121409,-0.0973675,0.107389,-2.01973,0.342365,0.146358,-0.0318711,0.128485,0.0119318,0.133735,-0.23455,0.0204993,0.328318,0.00691993,-1.72621,-0.863318,-1.81014,5.26948,-7.96715,-7.13327,-0.186858,0,0,0,0,0,0,0,-0.0186038,-0.0973929,0.100636,-2.00908,0.343039,0.133048,-0.0321714,0.0397833,-0.0574868,0.301464,-0.334937,0.0414183,0.324376,-0.00153119,0,0,0,0,0,0,0,-1.74603,-29.8805,-2.46276,25.4077,1.93145,1.82641,0.138352,
-0.0112387,-0.0973132,0.108327,-2.02129,0.34207,0.148599,-0.0318267,0.125344,0.0109026,0.13045,-0.226578,0.00902779,0.318687,0.00664739,-1.96303,-0.643287,-2.05367,4.98272,-7.16967,-6.01951,-0.170335,0,0,0,0,0,0,0,-0.0186038,-0.0973929,0.100636,-2.00908,0.343039,0.133048,-0.0321714,0.0397833,-0.0574868,0.301464,-0.334937,0.0414183,0.324376,-0.00153119,0,0,0,0,0,0,0,-1.74603,-29.8805,-2.46276,25.4077,1.93145,1.82641,0.138352,
-0.0103692,-0.0972571,0.109231,-2.0228,0.341727,0.150809,-0.0317836,0.122013,0.010125,0.126969,-0.218999,-0.00134928,0.310191,0.00639471,-2.08205,-0.486,-2.17563,4.73694,-6.48566,-5.31027,-0.157924,0,0,0,0,0,0,0,-0.0186038,-0.0973929,0.100636,-2.00908,0.343039,0.133048,-0.0321714,0.0397833,-0.0574868,0.301464,-0.334937,0.0414183,0.324376,-0.00153119,0,0,0,0,0,0,0,-1.74603,-29.8805,-2.46276,25.4077,1.93145,1.82641,0.138352,
-0.00952888,-0.0971999,0.110105,-2.02426,0.341338,0.152979,-0.0317419,0.118617,0.00953082,0.123422,-0.211753,-0.0107955,0.302395,0.00615933,-2.12232,-0.37134,-2.21644,4.52848,-5.90389,-4.87209,-0.147113,0,0,0,0,0,0,0,-0.0186038,-0.0973929,0.100636,-2.00908,0.343039,0.133048,-0.0321714,0.0397833,-0.0574868,0.301464,-0.334937,0.0414183,0.324376,-0.00153119,0,0,0,0,0,0,0,-1.74603,-29.8805,-2.46276,25.4077,1.93145,1.82641,0.138352,
-0.00866638,-0.0953801,0.110641,-2.02604,0.341932,0.154035,-0.0319508,0.116331,0.011282,0.121047,-0.207313,-0.0190501,0.294153,0.0059644,-1.42883,1.09451,-1.48449,2.77515,-5.15911,-5.15157,-0.121831,0,0,0,0,0,0,0,-0.0133792,-0.0964983,0.105705,-2.01778,0.34358,0.143064,-0.0321692,0.041975,0.0502602,0.242701,-0.240398,-0.013386,0.310416,-0.00128334,0.273973,13.4684,-7.34535,11.8174,-6.85054,-1.74503,0.0309812,-1.13507,-29.8805,-1.71294,27.8238,2.62085,2.09832,0.11821,
-0.00783993,-0.0952539,0.111501,-2.0275,0.341476,0.156086,-0.0319106,0.113726,0.0121805,0.118328,-0.202306,-0.026654,0.286576,0.00577822,-1.62812,0.56155,-1.6994,3.12941,-4.75242,-4.73546,-0.116364,0,0,0,0,0,0,0,-0.0133792,-0.0964983,0.105705,-2.01778,0.34358,0.143064,-0.0321692,0.041975,0.0502602,0.242701,-0.240398,-0.013386,0.310416,-0.00128334,0,0,0,0,0,0,0,-1.13507,-29.8805,-1.71294,27.8238,2.62085,2.09832,0.11821,
-0.00704102,-0.0951427,0.112331,-2.02891,0.340979,0.158096,-0.0318715,0.110954,0.0125254,0.115427,-0.196915,-0.033732,0.279523,0.00560066,-1.7328,0.215527,-1.81312,3.36902,-4.42378,-4.40802,-0.110977,0,0,0,0,0,0,0,-0.0133792,-0.0964983,0.105705,-2.01778,0.34358,0.143064,-0.0321692,0.041975,0.0502602,0.242701,-0.240398,-0.013386,0.310416,-0.00128334,0,0,0,0,0,0,0,-1.13507,-29.8805,-1.71294,27.8238,2.62085,2.09832,0.11821,
-0.00626703,-0.0950426,0.113135,-2.03026,0.340443,0.160066,-0.0318334,0.108113,0.0125214,0.11245,-0.191274,-0.0403971,0.272861,0.00543088,-1.77566,-0.00248011,-1.86084,3.52617,-4.16566,-4.16372,-0.106108,0,0,0,0,0,0,0,-0.0133792,-0.0964983,0.105705,-2.01778,0.34358,0.143064,-0.0321692,0.041975,0.0502602,0.242701,-0.240398,-0.013386,0.310416,-0.00128334,0,0,0,0,0,0,0,-1.13507,-29.8805,-1.71294,27.8238,2.62085,2.09832,0.11821,
-0.00490203,-0.0931153,0.114528,-2.03248,0.340826,0.163021,-0.03198,0.105635,0.0147359,0.109861,-0.186742,-0.0469079,0.265643,0.00526563,-1.54845,1.38408,-1.61808,2.83237,-4.0693,-4.51115,-0.103282,0,0,0,0,0,0,0,-0.00907049,-0.0947378,0.11016,-2.02512,0.343177,0.152685,-0.0321669,0.026572,0.102188,0.22298,-0.175382,-0.0359769,0.281806,-0.00351607,-1.92538,6.49096,-2.46521,8.12703,-2.82386,-3.57625,-0.279092,-0.274166,-33.824,-1.01073,27.9507,2.49908,1.99212,0.0980684,
-0.00416169,-0.0929572,0.115297,-2.03377,0.340194,0.164862,-0.031944,0.103017,0.015743,0.107111,-0.181598,-0.0533066,0.258553,0.00511268,-1.63662,0.629438,-1.71859,3.21482,-3.99918,-4.43169,-0.0955913,0,0,0,0,0,0,0,-0.00907049,-0.0947378,0.11016,-2.02512,0.343177,0.152685,-0.0321669,0.026572,0.102188,0.22298,-0.175382,-0.0359769,0.281806,-0.00351607,0,0,0,0,0,0,0,-0.274166,-33.824,-1.01073,27.9507,2.49908,1.99212,0.0980684,
-0.00344437,-0.0928213,0.116041,-2.035,0.339517,0.166658,-0.0319087,0.100346,0.0159917,0.104299,-0.176042,-0.0595752,0.251724,0.00497172,-1.66893,0.155391,-1.75752,3.47228,-3.91783,-4.26809,-0.088104,0,0,0,0,0,0,0,-0.00907049,-0.0947378,0.11016,-2.02512,0.343177,0.152685,-0.0321669,0.026572,0.102188,0.22298,-0.175382,-0.0359769,0.281806,-0.00351607,0,0,0,0,0,0,0,-0.274166,-33.824,-1.01073,27.9507,2.49908,1.99212,0.0980684,
-0.00274828,-0.0927018,0.116763,-2.03617,0.338795,0.168409,-0.0318741,0.0976793,0.0157807,0.101485,-0.17022,-0.0657154,0.245167,0.00484256,-1.66686,-0.131877,-1.75854,3.63884,-3.83764,-4.09794,-0.0807243,0,0,0,0,0,0,0,-0.00907049,-0.0947378,0.11016,-2.02512,0.343177,0.152685,-0.0321669,0.026572,0.102188,0.22298,-0.175382,-0.0359769,0.281806,-0.00351607,0,0,0,0,0,0,0,-0.274166,-33.824,-1.01073,27.9507,2.49908,1.99212,0.0980684,
-0.00507825,-0.0929854,0.114339,-2.0317,0.340242,0.161848,-0.0320021,0.0960622,0.0177177,0.0997776,-0.165625,-0.0709856,0.237226,0.00470849,-1.01068,1.21066,-1.06735,2.87232,-3.29387,-4.96284,-0.0837933,0,0,0,0,0,0,0,-0.00623294,-0.0940085,0.115047,-2.03233,0.341859,0.160917,-0.032164,0.0130586,-0.0265063,0.205838,-0.226992,-0.0452607,0.223053,0.000926887,-1.68918,-16.0868,-2.14276,-6.45129,-1.16048,-7.34404,0.55537,0.638309,-31.9237,-0.288683,26.3559,2.08984,1.90606,0.0706026,
-0.00439028,-0.0928158,0.115052,-2.03282,0.339448,0.163441,-0.0319689,0.094049,0.0184142,0.0976446,-0.160373,-0.0766293,0.229612,0.00459632,-1.25829,0.43528,-1.33314,3.28247,-3.52734,-4.75927,-0.0701053,0,0,0,0,0,0,0,-0.00623294,-0.0940085,0.115047,-2.03233,0.341859,0.160917,-0.032164,0.0130586,-0.0265063,0.205838,-0.226992,-0.0452607,0.223053,0.000926887,0,0,0,0,0,0,0,0.638309,-31.9237,-0.288683,26.3559,2.08984,1.90606,0.0706026,
-0.00372771,-0.092671,0.115738,-2.03387,0.338605,0.164988,-0.0319359,0.0918035,0.0183504,0.0952626,-0.154684,-0.0823761,0.222354,0.00450252,-1.40339,-0.0398615,-1.48873,3.55526,-3.59176,-4.53585,-0.0586228,0,0,0,0,0,0,0,-0.00623294,-0.0940085,0.115047,-2.03233,0.341859,0.160917,-0.032164,0.0130586,-0.0265063,0.205838,-0.226992,-0.0452607,0.223053,0.000926887,0,0,0,0,0,0,0,0.638309,-31.9237,-0.288683,26.3559,2.08984,1.90606,0.0706026,
-0.00308804,-0.0925445,0.116399,-2.03487,0.337721,0.166486,-0.0319028,0.0894345,0.0178434,0.092748,-0.148718,-0.0879991,0.215341,0.00442738,-1.48067,-0.316855,-1.57165,3.72909,-3.51433,-4.38298,-0.0469686,0,0,0,0,0,0,0,-0.00623294,-0.0940085,0.115047,-2.03233,0.341859,0.160917,-0.032164,0.0130586,-0.0265063,0.205838,-0.226992,-0.0452607,0.223053,0.000926887,0,0,0,0,0,0,0,0.638309,-31.9237,-0.288683,26.3559,2.08984,1.90606,0.0706026,
-0.00198556,-0.0935403,0.119462,-2.03845,0.337054,0.168557,-0.0319642,0.0870267,0.0163887,0.0901777,-0.140198,-0.0925238,0.202666,0.0043583,-1.50486,-0.909191,-1.60641,5.32465,-2.82794,-7.92188,-0.04317,0,0,0,0,0,0,0,-0.0032381,-0.0933803,0.119145,-2.03869,0.340303,0.168135,-0.0321709,0.0135002,0.0119295,0.190025,-0.178391,-0.0482933,0.21133,-0.000120919,0.0552026,4.80448,-1.97655,6.07516,-0.379073,-1.46541,-0.130976,0.717655,-28.8292,-0.510851,26.3559,1.85821,1.83282,0.0907442,
-0.00139246,-0.0934589,0.120074,-2.03925,0.336163,0.169717,-0.03193,0.084449,0.0151456,0.0874361,-0.132105,-0.096283,0.191111,0.00434128,-1.61107,-0.776947,-1.71351,5.05844,-2.34956,-7.22218,-0.0106417,0,0,0,0,0,0,0,-0.0032381,-0.0933803,0.119145,-2.03869,0.340303,0.168135,-0.0321709,0.0135002,0.0119295,0.190025,-0.178391,-0.0482933,0.21133,-0.000120919,0,0,0,0,0,0,0,0.717655,-28.8292,-0.510851,26.3559,1.85821,1.83282,0.0907442,
-0.000823673,-0.0933801,0.12066,-2.03999,0.335287,0.1708,-0.0318956,0.0817788,0.0140857,0.0846008,-0.124389,-0.0989197,0.179966,0.00433462,-1.66889,-0.662416,-1.77208,4.82229,-1.64791,-6.96567,-0.00415803,0,0,0,0,0,0,0,-0.0032381,-0.0933803,0.119145,-2.03869,0.340303,0.168135,-0.0321709,0.0135002,0.0119295,0.190025,-0.178391,-0.0482933,0.21133,-0.000120919,0,0,0,0,0,0,0,0.717655,-28.8292,-0.510851,26.3559,1.85821,1.83282,0.0907442,
-0.000277603,-0.093304,0.121222,-2.0407,0.334438,0.171794,-0.0318629,0.0790747,0.0131714,0.0817319,-0.117029,-0.10036,0.168825,0.00428417,-1.69001,-0.571471,-1.79306,4.59988,-0.900335,-6.96294,-0.0315308,0,0,0,0,0,0,0,-0.0032381,-0.0933803,0.119145,-2.03869,0.340303,0.168135,-0.0321709,0.0135002,0.0119295,0.190025,-0.178391,-0.0482933,0.21133,-0.000120919,0,0,0,0,0,0,0,0.717655,-28.8292,-0.510851,26.3559,1.85821,1.83282,0.0907442,
0.000558798,-0.092475,0.123083,-2.0435,0.335739,0.17382,-0.0319656,0.0768631,0.0132298,0.0793774,-0.109642,-0.0999943,0.153917,0.00439564,-1.38229,0.0364923,-1.47155,4.61723,0.228688,-9.3174,0.069664,0,0,0,0,0,0,0,3.44284e-06,-0.0914194,0.122291,-2.04317,0.338497,0.174055,-0.0321722,0.10698,0.114363,0.0763207,-0.0950175,-0.0639172,0.162818,4.85587e-05,11.6849,12.8041,-14.2131,10.4217,-1.95298,-6.06405,0.0211848,-0.349545,-33.5741,-1.71294,27.7484,1.60736,2.05163,0.0706026,
0.00107563,-0.0923759,0.123613,-2.0441,0.334988,0.174533,-0.0319218,0.0744112,0.0130604,0.0767643,-0.102616,-0.0987639,0.140966,0.00461212,-1.53241,-0.105832,-1.63318,4.39094,0.769012,-8.0945,0.135299,0,0,0,0,0,0,0,3.44284e-06,-0.0914194,0.122291,-2.04317,0.338497,0.174055,-0.0321722,0.10698,0.114363,0.0763207,-0.0950175,-0.0639172,0.162818,4.85587e-05,0,0,0,0,0,0,0,-0.349545,-33.5741,-1.71294,27.7484,1.60736,2.05163,0.0706026,
0.00156181,-0.0922862,0.12411,-2.04466,0.334328,0.175214,-0.0318992,0.0716836,0.0126917,0.0738263,-0.0960714,-0.0955147,0.129808,0.00425363,-1.70475,-0.230464,-1.83626,4.0905,2.03077,-6.9737,-0.224054,0,0,0,0,0,0,0,3.44284e-06,-0.0914194,0.122291,-2.04317,0.338497,0.174055,-0.0321722,0.10698,0.114363,0.0763207,-0.0950175,-0.0639172,0.162818,4.85587e-05,0,0,0,0,0,0,0,-0.349545,-33.5741,-1.71294,27.7484,1.60736,2.05163,0.0706026,
0.00279898,-0.0895257,0.125171,-2.04671,0.335098,0.178125,-0.032027,0.0695735,0.015536,0.0716174,-0.0915983,-0.0957096,0.121352,0.00377342,-1.3188,1.77769,-1.38054,2.79567,-0.121805,-5.28504,-0.300128,0,0,0,0,0,0,0,3.44284e-06,-0.0914194,0.122291,-2.04317,0.338497,0.174055,-0.0321722,0.10698,0.114363,0.0763207,-0.0950175,-0.0639172,0.162818,4.85587e-05,0,0,0,0,0,0,0,-0.349545,-33.5741,-1.71294,27.7484,1.60736,2.05163,0.0706026,
0.00326549,-0.0893477,0.125649,-2.04724,0.334313,0.178816,-0.0320063,0.0673217,0.0168785,0.0692458,-0.0866308,-0.0961843,0.114365,0.00353726,-1.40738,0.839098,-1.48228,3.10468,-0.296702,-4.36685,-0.147601,0,0,0,0,0,0,0,0.00352108,-0.090427,0.124683,-2.04749,0.336113,0.178081,-0.0321748,0.150757,-0.0182301,0.00539848,-0.141912,-0.0698684,0.0937404,-7.61892e-05,5.47215,-16.5741,-8.86528,-5.86187,-0.743904,-8.63467,-0.0155935,-1.74603,-32.2014,-2.41118,25.6815,1.39953,1.7669,0.0843355,
0.00370547,-0.0891961,0.126097,-2.04773,0.333632,0.17944,-0.0319875,0.0648568,0.0172918,0.0666166,-0.0813477,-0.0939788,0.107103,0.00329876,-1.54058,0.258286,-1.64326,3.30196,1.37847,-4.53877,-0.149063,0,0,0,0,0,0,0,0.00352108,-0.090427,0.124683,-2.04749,0.336113,0.178081,-0.0321748,0.150757,-0.0182301,0.00539848,-0.141912,-0.0698684,0.0937404,-7.61892e-05,0,0,0,0,0,0,0,-1.74603,-32.2014,-2.41118,25.6815,1.39953,1.7669,0.0843355,
0.0041216,-0.0890652,0.126521,-2.04816,0.333061,0.179976,-0.0319752,0.0622888,0.0171059,0.0638738,-0.0758852,-0.0894629,0.0990756,0.00294672,-1.60498,-0.116202,-1.71422,3.41408,2.82242,-5.01724,-0.220027,0,0,0,0,0,0,0,0.00352108,-0.090427,0.124683,-2.04749,0.336113,0.178081,-0.0321748,0.150757,-0.0182301,0.00539848,-0.141912,-0.0698684,0.0937404,-7.61892e-05,0,0,0,0,0,0,0,-1.74603,-32.2014,-2.41118,25.6815,1.39953,1.7669,0.0843355,
0.0060234,-0.0900363,0.127223,-2.05005,0.332488,0.180575,-0.0320958,0.0607258,0.0158637,0.0622157,-0.0701533,-0.0878373,0.0903228,0.00263776,-0.976875,-0.77637,-1.03633,3.58239,1.01601,-5.47054,-0.193099,0,0,0,0,0,0,0,0.00352108,-0.090427,0.124683,-2.04749,0.336113,0.178081,-0.0321748,0.150757,-0.0182301,0.00539848,-0.141912,-0.0698684,0.0937404,-7.61892e-05,0,0,0,0,0,0,0,-1.74603,-32.2014,-2.41118,25.6815,1.39953,1.7669,0.0843355,
0.0064356,-0.0899528,0.127643,-2.05038,0.331916,0.180951,-0.0320744,0.0588855,0.0147784,0.0602692,-0.0645227,-0.0845697,0.0816688,0.00264678,-1.15019,-0.678312,-1.21652,3.51917,2.04219,-5.40873,0.00563513,0,0,0,0,0,0,0,0.00572755,-0.0899625,0.127379,-2.05111,0.333973,0.18062,-0.032175,0.0310385,0.00888086,0.106562,-0.104483,-0.0614238,0.0735059,0.000150448,-14.9648,3.38887,12.6455,4.67865,1.05558,-2.52931,0.0283296,-1.69445,-28.7538,-2.18505,26.8796,1.57074,2.05804,0.0843355,
0.00681869,-0.0898712,0.128031,-2.05068,0.331549,0.181222,-0.0320545,0.0566859,0.0138615,0.0579077,-0.0591165,-0.0768221,0.0721046,0.00261492,-1.37478,-0.573076,-1.47598,3.37884,4.84227,-5.97761,-0.0199075,0,0,0,0,0,0,0,0.00572755,-0.0899625,0.127379,-2.05111,0.333973,0.18062,-0.032175,0.0310385,0.00888086,0.106562,-0.104483,-0.0614238,0.0735059,0.000150448,0,0,0,0,0,0,0,-1.69445,-28.7538,-2.18505,26.8796,1.57074,2.05804,0.0843355,
0.00717761,-0.0897944,0.128392,-2.05095,0.331369,0.181408,-0.0320397,0.0543215,0.0130093,0.0553544,-0.0540545,-0.0659719,0.0623219,0.00246268,-1.47774,-0.532594,-1.5958,3.16374,6.78136,-6.11418,-0.0951531,0,0,0,0,0,0,0,0.00572755,-0.0899625,0.127379,-2.05111,0.333973,0.18062,-0.032175,0.0310385,0.00888086,0.106562,-0.104483,-0.0614238,0.0735059,0.000150448,0,0,0,0,0,0,0,-1.69445,-28.7538,-2.18505,26.8796,1.57074,2.05804,0.0843355,
0.00804212,-0.0893068,0.129739,-2.05306,0.329327,0.18352,-0.0320861,0.0534527,0.0130588,0.0544539,-0.0502649,-0.0741849,0.0653459,0.00221371,-0.542991,0.0309238,-0.562818,2.36853,-5.1331,1.88996,-0.155605,0,0,0,0,0,0,0,0.00572755,-0.0899625,0.127379,-2.05111,0.333973,0.18062,-0.032175,0.0310385,0.00888086,0.106562,-0.104483,-0.0614238,0.0735059,0.000150448,0,0,0,0,0,0,0,-1.69445,-28.7538,-2.18505,26.8796,1.57074,2.05804,0.0843355,
0.00841418,-0.0892108,0.130117,-2.05331,0.328618,0.184125,-0.0320722,0.0520636,0.0128466,0.0530115,-0.0463721,-0.0770729,0.0674039,0.00211973,-0.868231,-0.132621,-0.901508,2.43299,-1.80499,1.28628,-0.0587408,0,0,0,0,0,0,0,0.00572755,-0.0899625,0.127379,-2.05111,0.333973,0.18062,-0.032175,0.0310385,0.00888086,0.106562,-0.104483,-0.0614238,0.0735059,0.000150448,0,0,0,0,0,0,0,-1.69445,-28.7538,-2.18505,26.8796,1.57074,2.05804,0.0843355,
0.00875423,-0.0891211,0.13046,-2.05352,0.32818,0.184658,-0.0320613,0.0501521,0.01252,0.0509891,-0.0424494,-0.0725956,0.0672599,0.00196769,-1.19463,-0.204138,-1.26399,2.45168,2.79827,-0.0900025,-0.0950245,0,0,0,0,0,0,0,0.00706671,-0.0882183,0.130233,-2.0532,0.331841,0.182089,-0.0321813,0.0180459,0.115205,0.0904119,-0.0183445,-0.0613123,0.0203977,-0.000838563,-1.62408,13.2905,-2.01882,10.7673,0.0139379,-6.63852,-0.123626,0.919986,-33.3479,-0.538622,27.6254,1.66229,2.13128,0.0980684,
0.00906631,-0.0890397,0.130774,-2.05371,0.327993,0.185117,-0.0320564,0.0479237,0.0120491,0.0486573,-0.0386126,-0.0627516,0.0652891,0.00169675,-1.3928,-0.29427,-1.45739,2.398,6.15252,-1.23172,-0.169334,0,0,0,0,0,0,0,0.00706671,-0.0882183,0.130233,-2.0532,0.331841,0.182089,-0.0321813,0.0180459,0.115205,0.0904119,-0.0183445,-0.0613123,0.0203977,-0.000838563,0,0,0,0,0,0,0,0.919986,-33.3479,-0.538622,27.6254,1.66229,2.13128,0.0980684,
0.00944886,-0.086529,0.132668,-2.05521,0.32444,0.1916,-0.0320975,0.0495066,0.01442,0.0503967,-0.0380458,-0.0894297,0.107146,0.00156735,0.989337,1.48178,1.08718,0.354246,-16.6738,26.1604,-0.0808766,0,0,0,0,0,0,0,0.00706671,-0.0882183,0.130233,-2.0532,0.331841,0.182089,-0.0321813,0.0180459,0.115205,0.0904119,-0.0183445,-0.0613123,0.0203977,-0.000838563,0,0,0,0,0,0,0,0.919986,-33.3479,-0.538622,27.6254,1.66229,2.13128,0.0980684,
0.00987,-0.0863738,0.1331,-2.05544,0.323031,0.193786,-0.0320853,0.0501338,0.015415,0.0511209,-0.0363051,-0.106783,0.14035,0.00155919,0.391999,0.621902,0.452566,1.08797,-10.8458,20.7526,-0.00510083,0,0,0,0,0,0,0,0.00706671,-0.0882183,0.130233,-2.0532,0.331841,0.182089,-0.0321813,0.0180459,0.115205,0.0904119,-0.0183445,-0.0613123,0.0203977,-0.000838563,0,0,0,0,0,0,0,0.919986,-33.3479,-0.538622,27.6254,1.66229,2.13128,0.0980684,
0.0102589,-0.0862439,0.133497,-2.05563,0.321933,0.195895,-0.0320763,0.0498289,0.0155795,0.0508196,-0.0338171,-0.112863,0.165006,0.00147328,-0.190556,0.102805,-0.188295,1.55497,-3.79997,15.4103,-0.0536899,0,0,0,0,0,0,0,0.00914429,-0.0873804,0.131444,-2.05516,0.329783,0.182678,-0.0321794,0.0975221,-0.0318935,-0.00293217,-0.0794909,-0.058164,0.0231268,6.45568e-05,9.93452,-18.3873,-11.668,-7.6433,0.393528,0.341133,0.11289,-0.730404,-31.3246,-1.26067,25.9076,1.55243,1.97198,0.0706026,
0.0106214,-0.0861374,0.133865,-2.05579,0.321129,0.197946,-0.0320688,0.0489251,0.0151265,0.0498612,-0.0310427,-0.110382,0.183288,0.00136499,-0.564852,-0.283145,-0.599002,1.73404,1.55071,11.4261,-0.0676853,0,0,0,0,0,0,0,0.00914429,-0.0873804,0.131444,-2.05516,0.329783,0.182678,-0.0321794,0.0975221,-0.0318935,-0.00293217,-0.0794909,-0.058164,0.0231268,6.45568e-05,0,0,0,0,0,0,0,-0.730404,-31.3246,-1.26067,25.9076,1.55243,1.97198,0.0706026,
0.0130665,-0.08852,0.135452,-2.05875,0.319408,0.208588,-0.0317764,0.0599994,0.00818294,0.0615496,-0.0376873,-0.141677,0.300991,0.00272606,6.92141,-4.33972,7.30523,-4.15288,-19.5592,73.5642,0.850667,0,0,0,0,0,0,0,0.00914429,-0.0873804,0.131444,-2.05516,0.329783,0.182678,-0.0321794,0.0975221,-0.0318935,-0.00293217,-0.0794909,-0.058164,0.0231268,6.45568e-05,0,0,0,0,0,0,0,-0.730404,-31.3246,-1.26067,25.9076,1.55243,1.97198,0.0706026,
0.0138823,-0.0886614,0.136301,-2.05918,0.317496,0.214682,-0.0317096,0.0683938,0.00301028,0.0704737,-0.0411203,-0.16114,0.393147,0.00385143,5.24648,-3.23291,5.57759,-2.14566,-12.1644,57.5975,0.703362,0,0,0,0,0,0,0,0.00914429,-0.0873804,0.131444,-2.05516,0.329783,0.182678,-0.0321794,0.0975221,-0.0318935,-0.00293217,-0.0794909,-0.058164,0.0231268,6.45568e-05,0,0,0,0,0,0,0,-0.730404,-31.3246,-1.26067,25.9076,1.55243,1.97198,0.0706026,
0.0146672,-0.0887901,0.137123,-2.05956,0.315925,0.220546,-0.0316476,0.0743398,-0.000808312,0.0769288,-0.0423858,-0.168186,0.461121,0.00463003,3.71624,-2.38662,4.03443,-0.790944,-4.40393,42.4839,0.486625,0,0,0,0,0,0,0,0.0101647,-0.0865004,0.133637,-2.05678,0.327103,0.184532,-0.0321807,-0.00233994,0.0454937,0.101461,-0.0330428,-0.0874915,0.0959305,0.000337181,-12.4828,9.67341,13.0492,5.80602,-3.66594,9.10046,0.034078,-0.222592,-30.0789,-1.0623,27.7762,1.5039,2.74834,0.050461,
0.0154316,-0.0889076,0.137913,-2.0599,0.314653,0.226124,-0.0315923,0.0785818,-0.00358428,0.0812798,-0.0422267,-0.166362,0.508333,0.00508697,2.65125,-1.73498,2.71937,0.0994543,1.13983,29.5072,0.285585,0,0,0,0,0,0,0,0.0101647,-0.0865004,0.133637,-2.05678,0.327103,0.184532,-0.0321807,-0.00233994,0.0454937,0.101461,-0.0330428,-0.0874915,0.0959305,0.000337181,0,0,0,0,0,0,0,-0.222592,-30.0789,-1.0623,27.7762,1.5039,2.74834,0.050461,
0.014561,-0.0859851,0.138162,-2.0614,0.316501,0.215083,-0.0316357,0.0871924,-1.5304e-05,0.0903771,-0.0539666,-0.18792,0.5894,0.00643098,5.38164,2.23061,5.68585,-7.33742,-13.4734,50.667,0.840004,0,0,0,0,0,0,0,0.0101647,-0.0865004,0.133637,-2.05678,0.327103,0.184532,-0.0321807,-0.00233994,0.0454937,0.101461,-0.0330428,-0.0874915,0.0959305,0.000337181,0,0,0,0,0,0,0,-0.222592,-30.0789,-1.0623,27.7762,1.5039,2.74834,0.050461,
0.0155233,-0.0858817,0.139168,-2.06212,0.314505,0.222229,-0.0315388,0.0938093,0.00257247,0.0974638,-0.0611987,-0.200237,0.650157,0.00756559,4.13557,1.61736,4.42918,-4.52011,-7.69835,37.973,0.709134,0,0,0,0,0,0,0,0.0101647,-0.0865004,0.133637,-2.05678,0.327103,0.184532,-0.0321807,-0.00233994,0.0454937,0.101461,-0.0330428,-0.0874915,0.0959305,0.000337181,0,0,0,0,0,0,0,-0.222592,-30.0789,-1.0623,27.7762,1.5039,2.74834,0.050461,
0.0164599,-0.0857984,0.14015,-2.06277,0.312842,0.229017,-0.0314498,0.0984641,0.00414154,0.10252,-0.0652816,-0.20176,0.689843,0.00827873,2.90927,0.980669,3.16019,-2.55177,-0.952004,24.8043,0.445713,0,0,0,0,0,0,0,0.0121326,-0.0850625,0.135419,-2.0584,0.322685,0.193703,-0.0321813,0.104573,0.0601721,0.0141339,-0.0468051,-0.138201,0.409432,-0.000974155,13.3641,1.8348,-10.9159,-1.72029,-6.33864,39.1877,-0.163917,0.106693,-34.1969,-0.510851,28.399,1.22284,3.51739,0.0980684,
0.016771,-0.0846783,0.140067,-2.06376,0.311851,0.229097,-0.0315698,0.104726,0.00525845,0.108173,-0.0771603,-0.215686,0.748933,0.00923681,3.9135,0.698068,3.53273,-7.4242,-8.70376,36.9311,0.598797,0,0,0,0,0,0,0,0.0121326,-0.0850625,0.135419,-2.0584,0.322685,0.193703,-0.0321813,0.104573,0.0601721,0.0141339,-0.0468051,-0.138201,0.409432,-0.000974155,0,0,0,0,0,0,0,0.106693,-34.1969,-0.510851,28.399,1.22284,3.51739,0.0980684,
0.0178124,-0.0845891,0.141115,-2.06468,0.309848,0.236774,-0.0314691,0.109815,0.00643557,0.11273,-0.0847049,-0.222631,0.79109,0.00990742,3.18064,0.735699,2.84852,-4.71539,-4.34049,26.3482,0.419135,0,0,0,0,0,0,0,0.0121326,-0.0850625,0.135419,-2.0584,0.322685,0.193703,-0.0321813,0.104573,0.0601721,0.0141339,-0.0468051,-0.138201,0.409432,-0.000974155,0,0,0,0,0,0,0,0.106693,-34.1969,-0.510851,28.399,1.22284,3.51739,0.0980684,
0.0188434,-0.0844943,0.14215,-2.06554,0.308099,0.244079,-0.0313822,0.113627,0.00751849,0.116056,-0.0891384,-0.221837,0.815497,0.0100996,2.38282,0.676828,2.07885,-2.77094,0.496469,15.2542,0.120087,0,0,0,0,0,0,0,0.0121326,-0.0850625,0.135419,-2.0584,0.322685,0.193703,-0.0321813,0.104573,0.0601721,0.0141339,-0.0468051,-0.138201,0.409432,-0.000974155,0,0,0,0,0,0,0,0.106693,-34.1969,-0.510851,28.399,1.22284,3.51739,0.0980684,
0.0198745,-0.0844,0.143169,-2.06634,0.306505,0.250966,-0.0313061,0.116679,0.00837344,0.118315,-0.0914411,-0.217327,0.824565,0.0099814,1.90764,0.534346,1.41192,-1.43918,2.81849,5.66722,-0.0738533,0,0,0,0,0,0,0,0.0146842,-0.0850064,0.138022,-2.06144,0.317023,0.211986,-0.0321702,0.0537016,-0.0490915,0.120153,-0.127969,-0.168489,0.625251,-0.00066638,-6.35891,-13.6579,13.2524,-10.1455,-3.78601,26.9774,0.0384718,0.816837,-29.2537,0.389723,26.6058,1.1615,3.74901,0.0843355,
0.0197792,-0.0860516,0.143348,-2.06752,0.30673,0.249447,-0.0315916,0.12067,0.00421967,0.123429,-0.101788,-0.226232,0.857699,0.0102119,2.49383,-2.59611,3.19572,-6.46674,-5.5656,20.709,0.144093,0,0,0,0,0,0,0,0.0146842,-0.0850064,0.138022,-2.06144,0.317023,0.211986,-0.0321702,0.0537016,-0.0490915,0.120153,-0.127969,-0.168489,0.625251,-0.00066638,0,0,0,0,0,0,0,0.816837,-29.2537,0.389723,26.6058,1.1615,3.74901,0.0843355,
0.0208729,-0.0861266,0.1445,-2.0686,0.304663,0.257039,-0.0315104,0.123879,0.00150028,0.127556,-0.108513,-0.232654,0.875964,0.0102002,2.00579,-1.69962,2.57992,-4.20321,-4.01374,11.4154,-0.00734997,0,0,0,0,0,0,0,0.0146842,-0.0850064,0.138022,-2.06144,0.317023,0.211986,-0.0321702,0.0537016,-0.0490915,0.120153,-0.127969,-0.168489,0.625251,-0.00066638,0,0,0,0,0,0,0,0.816837,-29.2537,0.389723,26.6058,1.1615,3.74901,0.0843355,
0.02196,-0.0861902,0.145646,-2.06964,0.302687,0.264185,-0.0314345,0.126278,-0.000389082,0.130695,-0.112709,-0.23553,0.87942,0.0100585,1.49966,-1.18085,1.96144,-2.62219,-1.79733,2.1599,-0.0885584,0,0,0,0,0,0,0,0.0146842,-0.0850064,0.138022,-2.06144,0.317023,0.211986,-0.0321702,0.0537016,-0.0490915,0.120153,-0.127969,-0.168489,0.625251,-0.00066638,0,0,0,0,0,0,0,0.816837,-29.2537,0.389723,26.6058,1.1615,3.74901,0.0843355,
0.0230377,-0.0862499,0.146782,-2.07064,0.300827,0.270831,-0.0313623,0.127967,-0.00180228,0.132966,-0.115183,-0.234909,0.869682,0.00985075,1.05542,-0.883247,1.41976,-1.54638,0.387995,-6.08577,-0.129838,0,0,0,0,0,0,0,0.0173911,-0.0841342,0.142082,-2.06469,0.309876,0.23689,-0.0321589,0.078326,0.0796409,0.129926,-0.0691798,-0.193554,0.781654,0.00153805,3.07805,16.0915,1.22156,7.34868,-3.13311,19.5504,0.275554,1.90784,-31.1263,0.639662,27.3279,1.52221,3.02025,0.0706026,
0.0227507,-0.0833236,0.147509,-2.07132,0.298905,0.275529,-0.031697,0.130402,0.00142703,0.134855,-0.124071,-0.242537,0.876229,0.0098684,1.52182,2.01832,1.18064,-5.55504,-4.76776,4.09176,0.0110322,0,0,0,0,0,0,0,0.0173911,-0.0841342,0.142082,-2.06469,0.309876,0.23689,-0.0321589,0.078326,0.0796409,0.129926,-0.0691798,-0.193554,0.781654,0.00153805,0,0,0,0,0,0,0,1.90784,-31.1263,0.639662,27.3279,1.52221,3.02025,0.0706026,
0.0238697,-0.0832215,0.148646,-2.07255,0.296854,0.282204,-0.0316221,0.132296,0.00369408,0.136328,-0.130098,-0.245303,0.867862,0.00976855,1.18396,1.4169,0.92055,-3.76722,-1.72841,-5.22934,-0.0624054,0,0,0,0,0,0,0,0.0173911,-0.0841342,0.142082,-2.06469,0.309876,0.23689,-0.0321589,0.078326,0.0796409,0.129926,-0.0691798,-0.193554,0.781654,0.00153805,0,0,0,0,0,0,0,1.90784,-31.1263,0.639662,27.3279,1.52221,3.02025,0.0706026,
0.0249829,-0.0831316,0.149778,-2.07375,0.294952,0.288326,-0.0315513,0.133669,0.00520286,0.137367,-0.134098,-0.243802,0.847348,0.00958514,0.857806,0.942988,0.649416,-2.50007,0.937992,-12.8218,-0.114631,0,0,0,0,0,0,0,0.0173911,-0.0841342,0.142082,-2.06469,0.309876,0.23689,-0.0321589,0.078326,0.0796409,0.129926,-0.0691798,-0.193554,0.781654,0.00153805,0,0,0,0,0,0,0,1.90784,-31.1263,0.639662,27.3279,1.52221,3.02025,0.0706026,
0.0260886,-0.0830524,0.150903,-2.07493,0.293201,0.293912,-0.0314843,0.134575,0.00614223,0.138005,-0.13668,-0.238815,0.817512,0.00934131,0.566643,0.587106,0.398661,-1.61366,3.11668,-18.647,-0.152397,0,0,0,0,0,0,0,0.0173911,-0.0841342,0.142082,-2.06469,0.309876,0.23689,-0.0321589,0.078326,0.0796409,0.129926,-0.0691798,-0.193554,0.781654,0.00153805,0,0,0,0,0,0,0,1.90784,-31.1263,0.639662,27.3279,1.52221,3.02025,0.0706026,
0.0268079,-0.0838238,0.150791,-2.07548,0.292495,0.30001,-0.0317412,0.135068,0.00248673,0.138807,-0.144416,-0.233762,0.802445,0.00927245,0.308073,-2.28469,0.500902,-4.83502,3.15841,-9.41701,-0.0430339,0,0,0,0,0,0,0,0.0215413,-0.0831912,0.145368,-2.06835,0.302042,0.265685,-0.032155,0.192478,0.00545533,0.0260828,-0.112072,-0.242411,0.850172,0.000410341,14.269,-9.2732,-12.9804,-5.36154,-6.10715,8.56469,-0.140964,0.435978,-33.098,-0.213304,25.011,1.28967,1.70739,0.0779268,
0.0279049,-0.0839111,0.151929,-2.07686,0.290944,0.305426,-0.031674,0.13548,-0.000192581,0.139473,-0.150169,-0.225785,0.777353,0.0090995,0.257097,-1.67457,0.416713,-3.59542,4.98529,-15.6827,-0.108093,0,0,0,0,0,0,0,0.0215413,-0.0831912,0.145368,-2.06835,0.302042,0.265685,-0.032155,0.192478,0.00545533,0.0260828,-0.112072,-0.242411,0.850172,0.000410341,0,0,0,0,0,0,0,0.435978,-33.098,-0.213304,25.011,1.28967,1.70739,0.0779268,
0.0289985,-0.0839913,0.153062,-2.07824,0.289547,0.310355,-0.0316109,0.135726,-0.00215922,0.139924,-0.154442,-0.215565,0.7451,0.008856,0.15389,-1.22915,0.281832,-2.67065,6.3877,-20.1579,-0.152189,0,0,0,0,0,0,0,0.0215413,-0.0831912,0.145368,-2.06835,0.302042,0.265685,-0.032155,0.192478,0.00545533,0.0260828,-0.112072,-0.242411,0.850172,0.000410341,0,0,0,0,0,0,0,0.435978,-33.098,-0.213304,25.011,1.28967,1.70739,0.0779268,
0.0300863,-0.0840661,0.15419,-2.0796,0.288293,0.314838,-0.0315517,0.135776,-0.00359814,0.140133,-0.157602,-0.203802,0.708172,0.00856408,0.0310259,-0.899324,0.130763,-1.97521,7.35173,-23.0798,-0.18245,0,0,0,0,0,0,0,0.0215413,-0.0831912,0.145368,-2.06835,0.302042,0.265685,-0.032155,0.192478,0.00545533,0.0260828,-0.112072,-0.242411,0.850172,0.000410341,0,0,0,0,0,0,0,0.435978,-33.098,-0.213304,25.011,1.28967,1.70739,0.0779268,
0.0311141,-0.0843626,0.154452,-2.08026,0.285925,0.322755,-0.0317827,0.136243,-0.00502877,0.140293,-0.162655,-0.198026,0.676289,0.00842615,0.292199,-0.894143,0.0996848,-3.15781,3.61006,-19.927,-0.0862087,0,0,0,0,0,0,0,0.0257576,-0.0833699,0.149011,-2.07311,0.29407,0.295747,-0.0321569,0.144911,-0.065415,0.0854635,-0.171721,-0.213607,0.849266,0.00473533,-5.94585,-8.8588,7.42259,-7.45617,3.60042,-0.113268,0.540623,-0.325741,-28.8054,-0.360094,23.4161,1.38122,1.19012,0.104477,
0.0322191,-0.0844215,0.15558,-2.08174,0.284651,0.326707,-0.031724,0.136618,-0.00549626,0.140437,-0.166936,-0.190273,0.639834,0.00820872,0.23465,-0.292181,0.0897435,-2.67585,4.84562,-22.7842,-0.135889,0,0,0,0,0,0,0,0.0257576,-0.0833699,0.149011,-2.07311,0.29407,0.295747,-0.0321569,0.144911,-0.065415,0.0854635,-0.171721,-0.213607,0.849266,0.00473533,0,0,0,0,0,0,0,-0.325741,-28.8054,-0.360094,23.4161,1.38122,1.19012,0.104477,
0.0333205,-0.0844603,0.156705,-2.08321,0.28349,0.330274,-0.031669,0.136831,-0.00536632,0.14047,-0.17052,-0.181234,0.601041,0.00794193,0.132803,0.0812112,0.0209305,-2.23968,5.6492,-24.2458,-0.166745,0,0,0,0,0,0,0,0.0257576,-0.0833699,0.149011,-2.07311,0.29407,0.295747,-0.0321569,0.144911,-0.065415,0.0854635,-0.171721,-0.213607,0.849266,0.00473533,0,0,0,0,0,0,0,-0.325741,-28.8054,-0.360094,23.4161,1.38122,1.19012,0.104477,
0.034416,-0.0844837,0.157823,-2.0847,0.28243,0.333507,-0.0316174,0.13685,-0.00487955,0.140348,-0.173464,-0.171495,0.561655,0.00764389,0.0121546,0.30423,-0.07635,-1.84,6.0873,-24.6166,-0.186275,0,0,0,0,0,0,0,0.0257576,-0.0833699,0.149011,-2.07311,0.29407,0.295747,-0.0321569,0.144911,-0.065415,0.0854635,-0.171721,-0.213607,0.849266,0.00473533,0,0,0,0,0,0,0,-0.325741,-28.8054,-0.360094,23.4161,1.38122,1.19012,0.104477,
0.0346735,-0.0823855,0.158974,-2.08596,0.281252,0.34326,-0.0318402,0.136241,-0.0036772,0.139901,-0.181139,-0.163565,0.527985,0.00748635,-0.380816,0.751468,-0.279196,-4.79675,4.95601,-21.0438,-0.0984628,0,0,0,0,0,0,0,0.0294564,-0.0828577,0.153569,-2.07785,0.287313,0.322458,-0.0321544,0.0466846,0.0735422,0.196605,-0.115708,-0.176599,0.716731,-0.000135427,-12.2783,17.3697,13.8927,7.00168,4.62602,-16.5668,-0.608844,0.793033,-30.9041,0.163588,26.3043,1.33819,1.42815,0.0577852,
0.0357459,-0.0823888,0.160081,-2.08766,0.280286,0.346085,-0.031789,0.135801,-0.00302309,0.139586,-0.187392,-0.154998,0.493011,0.00726896,-0.274936,0.408822,-0.197065,-3.90812,5.35433,-21.8586,-0.135873,0,0,0,0,0,0,0,0.0294564,-0.0828577,0.153569,-2.07785,0.287313,0.322458,-0.0321544,0.0466846,0.0735422,0.196605,-0.115708,-0.176599,0.716731,-0.000135427,0,0,0,0,0,0,0,0.793033,-30.9041,0.163588,26.3043,1.33819,1.42815,0.0577852,
0.0368169,-0.0823997,0.161186,-2.08936,0.279402,0.348659,-0.0317409,0.135416,-0.00269119,0.139293,-0.192379,-0.146108,0.458767,0.00701707,-0.24076,0.207435,-0.182806,-3.11738,5.55629,-21.4024,-0.157431,0,0,0,0,0,0,0,0.0294564,-0.0828577,0.153569,-2.07785,0.287313,0.322458,-0.0321544,0.0466846,0.0735422,0.196605,-0.115708,-0.176599,0.716731,-0.000135427,0,0,0,0,0,0,0,0.793033,-30.9041,0.163588,26.3043,1.33819,1.42815,0.0577852,
0.037884,-0.0824153,0.162287,-2.09105,0.27859,0.35104,-0.0316956,0.13501,-0.00254455,0.138954,-0.196247,-0.13719,0.426523,0.00674552,-0.253837,0.0916515,-0.212316,-2.41709,5.57414,-20.1522,-0.169717,0,0,0,0,0,0,0,0.0294564,-0.0828577,0.153569,-2.07785,0.287313,0.322458,-0.0321544,0.0466846,0.0735422,0.196605,-0.115708,-0.176599,0.716731,-0.000135427,0,0,0,0,0,0,0,0.793033,-30.9041,0.163588,26.3043,1.33819,1.42815,0.0577852,
0.0343389,-0.0825857,0.158634,-2.08554,0.282431,0.341079,-0.0319259,0.132902,-0.00294927,0.136841,-0.197203,-0.130319,0.410465,0.006472,-1.3172,-0.252951,-1.32026,-0.597631,4.29421,-10.0368,-0.17095,0,0,0,0,0,0,0,0.032752,-0.0822164,0.158298,-2.08274,0.282016,0.343121,-0.0321571,-0.00357069,0.0437825,0.227447,-0.135203,-0.124972,0.525927,0.000195311,-6.28191,-3.71997,3.85525,-2.43692,6.45344,-23.8505,0.0413423,2.54261,-32.2768,1.38948,23.8644,1.24115,1.47484,0.0577852,
0.0353386,-0.0826297,0.159664,-2.08715,0.281666,0.343603,-0.031885,0.131314,-0.00345902,0.135242,-0.198055,-0.123381,0.391455,0.00619917,-0.99256,-0.318593,-0.99942,-0.532482,4.33594,-11.8808,-0.170521,0,0,0,0,0,0,0,0.032752,-0.0822164,0.158298,-2.08274,0.282016,0.343121,-0.0321571,-0.00357069,0.0437825,0.227447,-0.135203,-0.124972,0.525927,0.000195311,0,0,0,0,0,0,0,2.54261,-32.2768,1.38948,23.8644,1.24115,1.47484,0.0577852,
0.0363393,-0.0826758,0.160696,-2.08876,0.280951,0.345947,-0.0318461,0.130069,-0.00392129,0.133982,-0.198679,-0.116583,0.37176,0.00593208,-0.778347,-0.288917,-0.78738,-0.389829,4.24903,-12.3093,-0.166931,0,0,0,0,0,0,0,0.032752,-0.0822164,0.158298,-2.08274,0.282016,0.343121,-0.0321571,-0.00357069,0.0437825,0.227447,-0.135203,-0.124972,0.525927,0.000195311,0,0,0,0,0,0,0,2.54261,-32.2768,1.38948,23.8644,1.24115,1.47484,0.0577852,
0.0373869,-0.0822057,0.163109,-2.0903,0.278212,0.358016,-0.0319665,0.127774,-0.00437273,0.131634,-0.197685,-0.109952,0.357137,0.00564454,-1.43436,-0.282153,-1.46772,0.621287,4.14419,-9.1397,-0.179712,0,0,0,0,0,0,0,0.032752,-0.0822164,0.158298,-2.08274,0.282016,0.343121,-0.0321571,-0.00357069,0.0437825,0.227447,-0.135203,-0.124972,0.525927,0.000195311,0,0,0,0,0,0,0,2.54261,-32.2768,1.38948,23.8644,1.24115,1.47484,0.0577852,
0.0383386,-0.0822564,0.164089,-2.09184,0.27758,0.360258,-0.0319321,0.12601,-0.00476392,0.129824,-0.196758,-0.103773,0.341772,0.00537584,-1.10249,-0.244494,-1.13153,0.579087,3.86171,-9.60313,-0.167937,0,0,0,0,0,0,0,0.036353,-0.0824525,0.162549,-2.08877,0.278428,0.358371,-0.032156,0.0474056,-0.0722176,0.175499,-0.212328,-0.0772168,0.357961,0.00102403,6.37203,-14.5,-6.49349,-9.64055,5.96938,-20.9957,0.10359,1.65393,-29.0791,0.286573,21.972,1.00311,1.38238,0.0440523,
0.0392901,-0.0823053,0.16507,-2.09338,0.276978,0.362395,-0.0318991,0.124595,-0.00503491,0.128368,-0.195775,-0.0980678,0.326844,0.0051255,-0.884188,-0.169372,-0.909744,0.614607,3.56601,-9.32969,-0.156459,0,0,0,0,0,0,0,0.036353,-0.0824525,0.162549,-2.08877,0.278428,0.358371,-0.032156,0.0474056,-0.0722176,0.175499,-0.212328,-0.0772168,0.357961,0.00102403,0,0,0,0,0,0,0,1.65393,-29.0791,0.286573,21.972,1.00311,1.38238,0.0440523,
0.0402388,-0.0823513,0.166047,-2.0949,0.276402,0.364456,-0.0318675,0.123395,-0.00517746,0.127131,-0.194658,-0.0928421,0.312996,0.00489164,-0.750058,-0.089092,-0.773109,0.698043,3.26604,-8.65541,-0.146162,0,0,0,0,0,0,0,0.036353,-0.0824525,0.162549,-2.08877,0.278428,0.358371,-0.032156,0.0474056,-0.0722176,0.175499,-0.212328,-0.0772168,0.357961,0.00102403,0,0,0,0,0,0,0,1.65393,-29.0791,0.286573,21.972,1.00311,1.38238,0.0440523,
0.0411827,-0.0823939,0.16702,-2.09641,0.27585,0.366461,-0.0318371,0.122313,-0.00520691,0.126014,-0.193363,-0.0880947,0.300527,0.00467396,-0.676442,-0.018404,-0.697894,0.809188,2.96716,-7.79303,-0.136055,0,0,0,0,0,0,0,0.036353,-0.0824525,0.162549,-2.08877,0.278428,0.358371,-0.032156,0.0474056,-0.0722176,0.175499,-0.212328,-0.0772168,0.357961,0.00102403,0,0,0,0,0,0,0,1.65393,-29.0791,0.286573,21.972,1.00311,1.38238,0.0440523,
0.0418779,-0.0836205,0.168246,-2.09741,0.274907,0.371725,-0.0319639,0.120821,-0.00665644,0.124468,-0.190218,-0.0831958,0.291629,0.00444222,-0.932077,-0.90596,-0.966695,1.96594,3.06181,-5.56126,-0.144832,0,0,0,0,0,0,0,0.0403854,-0.0826215,0.166439,-2.09498,0.275856,0.369817,-0.032159,0.171061,-0.00036252,0.062316,-0.184483,-0.0536979,0.309987,0.000648048,15.4569,8.98189,-14.1479,3.48056,2.93986,-5.99672,-0.0469981,-0.198788,-29.1069,-1.18529,25.8322,1.19171,2.26403,0.0706026,
0.0427897,-0.0837033,0.169185,-2.09882,0.274415,0.373729,-0.0319368,0.119451,-0.00739476,0.123053,-0.187396,-0.0788743,0.283396,0.0042311,-0.856742,-0.461449,-0.884302,1.76319,2.70096,-5.14551,-0.131951,0,0,0,0,0,0,0,0.0403854,-0.0826215,0.166439,-2.09498,0.275856,0.369817,-0.032159,0.171061,-0.00036252,0.062316,-0.184483,-0.0536979,0.309987,0.000648048,0,0,0,0,0,0,0,-0.198788,-29.1069,-1.18529,25.8322,1.19171,2.26403,0.0706026,
0.0436929,-0.0837731,0.170116,-2.10021,0.273935,0.375694,-0.0319107,0.118141,-0.0076615,0.121706,-0.184761,-0.075086,0.275851,0.00403811,-0.818506,-0.16671,-0.841659,1.64724,2.36767,-4.71553,-0.120622,0,0,0,0,0,0,0,0.0403854,-0.0826215,0.166439,-2.09498,0.275856,0.369817,-0.032159,0.171061,-0.00036252,0.062316,-0.184483,-0.0536979,0.309987,0.000648048,0,0,0,0,0,0,0,-0.198788,-29.1069,-1.18529,25.8322,1.19171,2.26403,0.0706026,
0.0445865,-0.0838329,0.171037,-2.10159,0.273467,0.377626,-0.0318855,0.116853,-0.00762414,0.120385,-0.182215,-0.0717641,0.26898,0.0038595,-0.805146,0.0233507,-0.825749,1.59131,2.07616,-4.2945,-0.111629,0,0,0,0,0,0,0,0.0403854,-0.0826215,0.166439,-2.09498,0.275856,0.369817,-0.032159,0.171061,-0.00036252,0.062316,-0.184483,-0.0536979,0.309987,0.000648048,0,0,0,0,0,0,0,-0.198788,-29.1069,-1.18529,25.8322,1.19171,2.26403,0.0706026,
0.0457275,-0.0827947,0.171929,-2.10331,0.273096,0.382052,-0.0320046,0.115164,-0.0068874,0.118641,-0.179246,-0.0687425,0.262473,0.00367336,-1.05576,0.460461,-1.08994,1.85567,1.88849,-4.06694,-0.116335,0,0,0,0,0,0,0,0.0444568,-0.0816528,0.169995,-2.10072,0.273833,0.378465,-0.032165,0.204422,0.0987819,0.00635926,-0.127779,-0.052633,0.208641,-0.000739585,4.17013,12.3931,-6.99459,7.08805,0.133114,-12.6683,-0.173454,-0.984311,-33.3479,-1.68517,27.0541,1.13678,2.82067,0.0779268,
0.046584,-0.0828248,0.172812,-2.10463,0.272652,0.383911,-0.031982,0.113544,-0.00626024,0.116971,-0.176305,-0.0660854,0.256455,0.00350168,-1.01224,0.391977,-1.044,1.83786,1.66074,-3.76148,-0.107302,0,0,0,0,0,0,0,0.0444568,-0.0816528,0.169995,-2.10072,0.273833,0.378465,-0.032165,0.204422,0.0987819,0.00635926,-0.127779,-0.052633,0.208641,-0.000739585,0,0,0,0,0,0,0,-0.984311,-33.3479,-1.68517,27.0541,1.13678,2.82067,0.0779268,
0.0474293,-0.0828532,0.173682,-2.10592,0.272219,0.385741,-0.0319604,0.111967,-0.00571899,0.115345,-0.173368,-0.0636965,0.250922,0.00334125,-0.985899,0.338281,-1.01591,1.8358,1.49305,-3.45753,-0.10027,0,0,0,0,0,0,0,0.0444568,-0.0816528,0.169995,-2.10072,0.273833,0.378465,-0.032165,0.204422,0.0987819,0.00635926,-0.127779,-0.052633,0.208641,-0.000739585,0,0,0,0,0,0,0,-0.984311,-33.3479,-1.68517,27.0541,1.13678,2.82067,0.0779268,
0.0482629,-0.0828801,0.174541,-2.10719,0.271797,0.387545,-0.0319397,0.110412,-0.00524846,0.113745,-0.170418,-0.06151,0.245833,0.00319115,-0.971489,0.294076,-1.00024,1.84389,1.36655,-3.18104,-0.0938146,0,0,0,0,0,0,0,0.0444568,-0.0816528,0.169995,-2.10072,0.273833,0.378465,-0.032165,0.204422,0.0987819,0.00635926,-0.127779,-0.052633,0.208641,-0.000739585,0,0,0,0,0,0,0,-0.984311,-33.3479,-1.68517,27.0541,1.13678,2.82067,0.0779268,
0.0490844,-0.0829057,0.175388,-2.10844,0.271387,0.389323,-0.0319199,0.108868,-0.0048385,0.112156,-0.167446,-0.0594703,0.241124,0.00304868,-0.965394,0.256229,-0.993273,1.85725,1.27479,-2.94283,-0.089038,0,0,0,0,0,0,0,0.0444568,-0.0816528,0.169995,-2.10072,0.273833,0.378465,-0.032165,0.204422,0.0987819,0.00635926,-0.127779,-0.052633,0.208641,-0.000739585,0,0,0,0,0,0,0,-0.984311,-33.3479,-1.68517,27.0541,1.13678,2.82067,0.0779268,
0.0498936,-0.0829301,0.176221,-2.10966,0.270988,0.391077,-0.0319009,0.107324,-0.00448134,0.110569,-0.164448,-0.0575393,0.236728,0.00291362,-0.964624,0.223222,-0.991896,1.87349,1.20687,-2.74788,-0.0844144,0,0,0,0,0,0,0,0.0478887,-0.0812343,0.173955,-2.10657,0.2724,0.385617,-0.0321666,0.144223,-0.0178411,0.0517489,-0.176101,-0.0357343,0.19847,-2.30671e-05,-7.52482,-14.5779,5.6737,-6.04023,2.11233,-1.27135,0.0895647,-1.15887,-30.5034,-1.53838,23.0154,1.01501,2.4627,0.0843355,
0.0541376,-0.0815269,0.180374,-2.11626,0.269294,0.399022,-0.0320091,0.104683,-0.00406674,0.107839,-0.159521,-0.054854,0.230593,0.00272431,-1.65073,0.259127,-1.70591,3.07988,1.67832,-3.83391,-0.118321,0,0,0,0,0,0,0,0.0478887,-0.0812343,0.173955,-2.10657,0.2724,0.385617,-0.0321666,0.144223,-0.0178411,0.0517489,-0.176101,-0.0357343,0.19847,-2.30671e-05,0,0,0,0,0,0,0,-1.15887,-30.5034,-1.53838,23.0154,1.01501,2.4627,0.0843355,
0.0548789,-0.0815454,0.181138,-2.11735,0.268958,0.400646,-0.0319942,0.102279,-0.00371671,0.105358,-0.154935,-0.0522997,0.225053,0.00255105,-1.50224,0.218769,-1.55099,2.8663,1.59647,-3.46295,-0.108283,0,0,0,0,0,0,0,0.0478887,-0.0812343,0.173955,-2.10657,0.2724,0.385617,-0.0321666,0.144223,-0.0178411,0.0517489,-0.176101,-0.0357343,0.19847,-2.30671e-05,0,0,0,0,0,0,0,-1.15887,-30.5034,-1.53838,23.0154,1.01501,2.4627,0.0843355,
0.0556082,-0.0815635,0.181889,-2.11842,0.268637,0.402241,-0.0319802,0.100056,-0.003425,0.103064,-0.150623,-0.0498536,0.219935,0.00239247,-1.38938,0.182316,-1.43318,2.69497,1.52879,-3.19884,-0.0991163,0,0,0,0,0,0,0,0.0478887,-0.0812343,0.173955,-2.10657,0.2724,0.385617,-0.0321666,0.144223,-0.0178411,0.0517489,-0.176101,-0.0357343,0.19847,-2.30671e-05,0,0,0,0,0,0,0,-1.15887,-30.5034,-1.53838,23.0154,1.01501,2.4627,0.0843355,
0.0563253,-0.0815813,0.182627,-2.11946,0.268333,0.403808,-0.0319669,0.097971,-0.00318409,0.100915,-0.146532,-0.0474949,0.215117,0.00224548,-1.30343,0.15057,-1.34339,2.55663,1.47418,-3.01098,-0.0918651,0,0,0,0,0,0,0,0.0509214,-0.0814665,0.178162,-2.11273,0.2714,0.392019,-0.032168,0.0312019,-0.0623044,0.184111,-0.207617,-0.0161747,0.178124,0.000309531,-14.1277,-5.55792,16.5453,-3.9395,2.44495,-2.54321,0.0415747,-0.476498,-29.3529,-1.21306,25.3085,1.01501,2.65496,0.0641939,
0.0533847,-0.0815077,0.179599,-2.11514,0.269645,0.397374,-0.0320248,0.0974773,-0.00305861,0.1004,-0.145833,-0.0472269,0.213867,0.0022113,-0.308538,0.0784253,-0.321974,0.437068,0.167527,-0.780938,-0.0213635,0,0,0,0,0,0,0,0.0509214,-0.0814665,0.178162,-2.11273,0.2714,0.392019,-0.032168,0.0312019,-0.0623044,0.184111,-0.207617,-0.0161747,0.178124,0.000309531,0,0,0,0,0,0,0,-0.476498,-29.3529,-1.21306,25.3085,1.01501,2.65496,0.0641939,
0.0564096,-0.0820843,0.183822,-2.12055,0.269306,0.401953,-0.032058,0.0961296,-0.00318698,0.0990124,-0.142104,-0.0443445,0.20829,0.00207343,-0.842318,-0.0802289,-0.867123,2.3302,1.80147,-3.48568,-0.0861673,0,0,0,0,0,0,0,0.0509214,-0.0814665,0.178162,-2.11273,0.2714,0.392019,-0.032168,0.0312019,-0.0623044,0.184111,-0.207617,-0.0161747,0.178124,0.000309531,0,0,0,0,0,0,0,-0.476498,-29.3529,-1.21306,25.3085,1.01501,2.65496,0.0641939,
0.0571185,-0.0821102,0.184553,-2.12154,0.269053,0.403427,-0.0320466,0.0946251,-0.00319714,0.0974679,-0.138473,-0.0417932,0.203473,0.00194589,-0.940317,-0.00635212,-0.965355,2.2699,1.59459,-3.01062,-0.0797157,0,0,0,0,0,0,0,0.0509214,-0.0814665,0.178162,-2.11273,0.2714,0.392019,-0.032168,0.0312019,-0.0623044,0.184111,-0.207617,-0.0161747,0.178124,0.000309531,0,0,0,0,0,0,0,-0.476498,-29.3529,-1.21306,25.3085,1.01501,2.65496,0.0641939,
0.0578111,-0.0821337,0.185267,-2.1225,0.26881,0.40488,-0.0320357,0.0930152,-0.00314626,0.0958175,-0.134921,-0.0395161,0.199118,0.00182805,-1.00621,0.0317994,-1.03149,2.21974,1.42315,-2.72241,-0.0736521,0,0,0,0,0,0,0,0.053703,-0.0804135,0.182406,-2.11767,0.270586,0.397587,-0.0321653,0.0266116,0.0919357,0.179104,-0.0984229,-0.0179428,0.149268,0.000784907,-0.573789,19.28,-0.625883,13.6492,-0.221018,-3.607,0.0594221,1.40003,-32.7251,-0.0625476,29.3948,1.17981,3.13286,0.0303194,
0.0573646,-0.0793745,0.186202,-2.12312,0.269515,0.404665,-0.0321072,0.0917807,-0.000384722,0.0945533,-0.133649,-0.0380603,0.193081,0.00174395,-0.771549,1.72596,-0.790122,0.794796,0.909873,-3.77286,-0.0525593,0,0,0,0,0,0,0,0.053703,-0.0804135,0.182406,-2.11767,0.270586,0.397587,-0.0321653,0.0266116,0.0919357,0.179104,-0.0984229,-0.0179428,0.149268,0.000784907,0,0,0,0,0,0,0,1.40003,-32.7251,-0.0625476,29.3948,1.17981,3.13286,0.0303194,
0.0580431,-0.0793142,0.186901,-2.12411,0.26926,0.405998,-0.0320967,0.0903871,0.00120135,0.0931173,-0.131678,-0.0368398,0.187794,0.00165693,-0.871019,0.991293,-0.897514,1.23222,0.762837,-3.30407,-0.0543856,0,0,0,0,0,0,0,0.053703,-0.0804135,0.182406,-2.11767,0.270586,0.397587,-0.0321653,0.0266116,0.0919357,0.179104,-0.0984229,-0.0179428,0.149268,0.000784907,0,0,0,0,0,0,0,1.40003,-32.7251,-0.0625476,29.3948,1.17981,3.13286,0.0303194,
0.0587062,-0.0792718,0.187584,-2.12506,0.26901,0.407316,-0.0320869,0.0888868,0.00202175,0.091567,-0.129204,-0.0357078,0.183176,0.00157041,-0.937642,0.512749,-0.96889,1.54616,0.707509,-2.88641,-0.0540803,0,0,0,0,0,0,0,0.053703,-0.0804135,0.182406,-2.11767,0.270586,0.397587,-0.0321653,0.0266116,0.0919357,0.179104,-0.0984229,-0.0179428,0.149268,0.000784907,0,0,0,0,0,0,0,1.40003,-32.7251,-0.0625476,29.3948,1.17981,3.13286,0.0303194,
0.0593545,-0.0792425,0.188251,-2.12598,0.268768,0.408619,-0.0320778,0.0873163,0.00234949,0.0899424,-0.126379,-0.0346148,0.179104,0.00148498,-0.981565,0.20484,-1.01543,1.76536,0.683093,-2.54515,-0.0533892,0,0,0,0,0,0,0,0.0558283,-0.0794161,0.186601,-2.12215,0.2701,0.402602,-0.032169,0.0268961,0.0552835,0.15172,-0.111207,-0.021935,0.138764,0.00165105,0.0355637,-4.58153,-3.42295,-1.59802,-0.499024,-1.31306,0.108268,2.01099,-33.5741,0.413527,26.4789,1.22284,2.8875,0.0303194,
0.0591317,-0.0787271,0.190021,-2.12706,0.268743,0.408937,-0.0321184,0.0856905,0.00336504,0.0882727,-0.123949,-0.0351295,0.174321,0.00141059,-1.01615,0.634719,-1.04353,1.51893,-0.321656,-2.9894,-0.046495,0,0,0,0,0,0,0,0.0558283,-0.0794161,0.186601,-2.12215,0.2701,0.402602,-0.032169,0.0268961,0.0552835,0.15172,-0.111207,-0.021935,0.138764,0.00165105,0,0,0,0,0,0,0,2.01099,-33.5741,0.413527,26.4789,1.22284,2.8875,0.0303194,
0.0597515,-0.0786851,0.19066,-2.12794,0.268445,0.410167,-0.0321101,0.0840469,0.00374398,0.0865795,-0.121113,-0.0355457,0.170198,0.00133559,-1.02727,0.236835,-1.05823,1.77231,-0.26012,-2.57694,-0.0468763,0,0,0,0,0,0,0,0.0558283,-0.0794161,0.186601,-2.12215,0.2701,0.402602,-0.032169,0.0268961,0.0552835,0.15172,-0.111207,-0.021935,0.138764,0.00165105,0,0,0,0,0,0,0,2.01099,-33.5741,0.413527,26.4789,1.22284,2.8875,0.0303194,
0.0603577,-0.0786557,0.191284,-2.12878,0.268146,0.411384,-0.0321023,0.0823938,0.00372771,0.0848737,-0.118001,-0.0359056,0.166602,0.00126396,-1.03316,-0.0101659,-1.06613,1.94505,-0.224931,-2.24757,-0.0447678,0,0,0,0,0,0,0,0.0558283,-0.0794161,0.186601,-2.12215,0.2701,0.402602,-0.032169,0.0268961,0.0552835,0.15172,-0.111207,-0.021935,0.138764,0.00165105,0,0,0,0,0,0,0,2.01099,-33.5741,0.413527,26.4789,1.22284,2.8875,0.0303194,
0.0609506,-0.078636,0.191895,-2.1296,0.267843,0.41259,-0.0320949,0.0807372,0.00347574,0.0831629,-0.11471,-0.0362958,0.163415,0.00119675,-1.03542,-0.157482,-1.06929,2.05724,-0.243873,-1.9914,-0.0420092,0,0,0,0,0,0,0,0.0589436,-0.0794167,0.189388,-2.12689,0.26979,0.407355,-0.032175,0.0924094,-0.0593949,0.0790309,-0.166696,-0.0121834,0.134879,-0.0018128,8.18916,-14.3348,-9.08618,-6.93607,1.21895,-0.485534,-0.432982,0.463749,-28.7062,-0.887743,24.4635,1.20453,2.52221,0.0843355,
0.0621907,-0.0799535,0.192718,-2.13109,0.266882,0.412623,-0.0321223,0.0799132,0.00168422,0.0823021,-0.110841,-0.0458879,0.15953,0.00113637,-0.514999,-1.1197,-0.538001,2.41799,-5.99511,-2.42861,-0.0377337,0,0,0,0,0,0,0,0.0589436,-0.0794167,0.189388,-2.12689,0.26979,0.407355,-0.032175,0.0924094,-0.0593949,0.0790309,-0.166696,-0.0121834,0.134879,-0.0018128,0,0,0,0,0,0,0,0.463749,-28.7062,-0.887743,24.4635,1.20453,2.52221,0.0843355,
0.0627854,-0.079988,0.193331,-2.13183,0.266176,0.413786,-0.0321154,0.0787987,0.000484146,0.0811547,-0.107116,-0.0543696,0.156696,0.0010819,-0.696522,-0.750047,-0.71711,2.32826,-5.30102,-1.77119,-0.0340464,0,0,0,0,0,0,0,0.0589436,-0.0794167,0.189388,-2.12689,0.26979,0.407355,-0.032175,0.0924094,-0.0593949,0.0790309,-0.166696,-0.0121834,0.134879,-0.0018128,0,0,0,0,0,0,0,0.463749,-28.7062,-0.887743,24.4635,1.20453,2.52221,0.0843355,
0.0633628,-0.0800165,0.193926,-2.13254,0.265434,0.41495,-0.0321085,0.0774732,-0.00032633,0.0797973,-0.103507,-0.0620502,0.154458,0.00103758,-0.828423,-0.506548,-0.848357,2.25573,-4.80041,-1.39842,-0.027696,0,0,0,0,0,0,0,0.0589436,-0.0794167,0.189388,-2.12689,0.26979,0.407355,-0.032175,0.0924094,-0.0593949,0.0790309,-0.166696,-0.0121834,0.134879,-0.0018128,0,0,0,0,0,0,0,0.463749,-28.7062,-0.887743,24.4635,1.20453,2.52221,0.0843355,
0.0639236,-0.0800412,0.194504,-2.13323,0.264651,0.41611,-0.0321015,0.0759999,-0.00087736,0.0782918,-0.0999899,-0.0692083,0.152562,0.00100391,-0.920847,-0.344394,-0.940945,2.19791,-4.47376,-1.18526,-0.0210459,0,0,0,0,0,0,0,0.0621787,-0.0786511,0.191521,-2.13078,0.269201,0.411298,-0.0321761,0.155675,0.0821401,-0.00635769,-0.0871334,-0.0366868,0.0975084,-0.00011093,7.9082,17.6919,-10.6736,9.94527,-3.06292,-4.67138,0.212734,-1.28582,-31.0033,-1.98668,27.8238,1.10016,3.01293,0.0641939,
0.0651743,-0.0776208,0.19459,-2.13482,0.264109,0.415378,-0.0321168,0.0755518,0.00152841,0.0778359,-0.0985045,-0.0875222,0.141473,0.00105609,-0.280068,1.5036,-0.284911,0.928343,-11.4462,-6.93066,0.032612,0,0,0,0,0,0,0,0.0621787,-0.0786511,0.191521,-2.13078,0.269201,0.411298,-0.0321761,0.155675,0.0821401,-0.00635769,-0.0871334,-0.0366868,0.0975084,-0.00011093,0,0,0,0,0,0,0,-1.28582,-31.0033,-1.98668,27.8238,1.10016,3.01293,0.0641939,
0.0657555,-0.077556,0.195189,-2.13552,0.262747,0.416157,-0.0321069,0.0749713,0.00284193,0.0772382,-0.0964084,-0.104059,0.132636,0.00109337,-0.362811,0.820951,-0.373566,1.31008,-10.3352,-5.52305,0.0233005,0,0,0,0,0,0,0,0.0621787,-0.0786511,0.191521,-2.13078,0.269201,0.411298,-0.0321761,0.155675,0.0821401,-0.00635769,-0.0871334,-0.0366868,0.0975084,-0.00011093,0,0,0,0,0,0,0,-1.28582,-31.0033,-1.98668,27.8238,1.10016,3.01293,0.0641939,
0.0663269,-0.0775087,0.195778,-2.13619,0.261314,0.416941,-0.0320967,0.0742602,0.00345586,0.076502,-0.0938684,-0.119079,0.125728,0.00112909,-0.444419,0.383708,-0.460142,1.58747,-9.38769,-4.31778,0.0223221,0,0,0,0,0,0,0,0.0621787,-0.0786511,0.191521,-2.13078,0.269201,0.411298,-0.0321761,0.155675,0.0821401,-0.00635769,-0.0871334,-0.0366868,0.0975084,-0.00011093,0,0,0,0,0,0,0,-1.28582,-31.0033,-1.98668,27.8238,1.10016,3.01293,0.0641939,
0.0668877,-0.0774741,0.196355,-2.13683,0.259809,0.417735,-0.0320861,0.0734286,0.00362876,0.0756391,-0.0910137,-0.132887,0.120419,0.0011687,-0.519771,0.108058,-0.539343,1.7842,-8.63023,-3.31776,0.0247598,0,0,0,0,0,0,0,0.0621787,-0.0786511,0.191521,-2.13078,0.269201,0.411298,-0.0321761,0.155675,0.0821401,-0.00635769,-0.0871334,-0.0366868,0.0975084,-0.00011093,0,0,0,0,0,0,0,-1.28582,-31.0033,-1.98668,27.8238,1.10016,3.01293,0.0641939,
0.0681109,-0.0772362,0.197814,-2.13833,0.261195,0.418851,-0.0319664,0.0774895,0.00295805,0.0795646,-0.0928788,-0.137336,0.120146,0.0018913,2.53806,-0.419192,2.45349,-1.16564,-2.78064,-0.170746,0.451627,0,0,0,0,0,0,0,0.0645318,-0.0775924,0.194181,-2.13404,0.267122,0.414274,-0.0321788,0.0823306,0.0622603,0.0658442,-0.0692718,-0.103087,0.0602515,0.00054127,-9.16805,-2.48497,9.02523,2.2327,-8.30007,-4.65711,0.081525,-0.932736,-33.824,-1.38762,27.1771,1.00311,2.93328,0.0779268,
0.0688629,-0.0772409,0.198578,-2.13909,0.259962,0.419826,-0.0319286,0.0807928,0.00224923,0.0827566,-0.0934448,-0.140698,0.120485,0.00245819,2.06455,-0.443013,1.99499,-0.353769,-2.10098,0.211989,0.354304,0,0,0,0,0,0,0,0.0645318,-0.0775924,0.194181,-2.13404,0.267122,0.414274,-0.0321788,0.0823306,0.0622603,0.0658442,-0.0692718,-0.103087,0.0602515,0.00054127,0,0,0,0,0,0,0,-0.932736,-33.824,-1.38762,27.1771,1.00311,2.93328,0.0779268,
0.0696136,-0.0772488,0.199341,-2.13982,0.258735,0.420823,-0.0318905,0.0834013,0.00160073,0.085271,-0.0930118,-0.143222,0.121323,0.0029192,1.63036,-0.405308,1.57149,0.270595,-1.57752,0.523773,0.288132,0,0,0,0,0,0,0,0.0645318,-0.0775924,0.194181,-2.13404,0.267122,0.414274,-0.0321788,0.0823306,0.0622603,0.0658442,-0.0692718,-0.103087,0.0602515,0.00054127,0,0,0,0,0,0,0,-0.932736,-33.824,-1.38762,27.1771,1.00311,2.93328,0.0779268,
0.0703604,-0.077258,0.200099,-2.14052,0.257516,0.42184,-0.0318517,0.0853897,0.00105157,0.0871774,-0.0918152,-0.14507,0.122474,0.00330353,1.24272,-0.343228,1.19147,0.747885,-1.15506,0.719281,0.240207,0,0,0,0,0,0,0,0.0645318,-0.0775924,0.194181,-2.13404,0.267122,0.414274,-0.0321788,0.0823306,0.0622603,0.0658442,-0.0692718,-0.103087,0.0602515,0.00054127,0,0,0,0,0,0,0,-0.932736,-33.824,-1.38762,27.1771,1.00311,2.93328,0.0779268,
0.0703392,-0.0782074,0.201544,-2.14185,0.257344,0.421199,-0.0318611,0.0894388,-0.001016,0.0915979,-0.0937108,-0.143993,0.125506,0.00408092,2.53067,-1.29223,2.76285,-1.18471,0.673204,1.89491,0.485864,0,0,0,0,0,0,0,0.0662829,-0.077442,0.19735,-2.13752,0.263274,0.416329,-0.032174,0.0421177,-0.0542934,0.124571,-0.130262,-0.118707,0.0687385,0.000542743,-5.02661,-14.5692,7.3408,-7.62379,-1.95246,1.06087,0.000184188,0.995365,-29.6782,-0.0863513,25.6815,1.13678,2.86095,0.0706026,
0.0711847,-0.0782652,0.202419,-2.14263,0.256281,0.422305,-0.0318039,0.0926897,-0.00225957,0.0951558,-0.0945737,-0.141782,0.128065,0.00469423,2.03186,-0.777231,2.22367,-0.539355,1.38189,1.59965,0.383321,0,0,0,0,0,0,0,0.0662829,-0.077442,0.19735,-2.13752,0.263274,0.416329,-0.032174,0.0421177,-0.0542934,0.124571,-0.130262,-0.118707,0.0687385,0.000542743,0,0,0,0,0,0,0,0.995365,-29.6782,-0.0863513,25.6815,1.13678,2.86095,0.0706026,
0.0720275,-0.0783117,0.203292,-2.14339,0.255275,0.423403,-0.0317458,0.0952216,-0.00296948,0.0979371,-0.0945951,-0.138574,0.12989,0.0052094,1.5824,-0.443694,1.73829,-0.0133415,2.00472,1.14073,0.321983,0,0,0,0,0,0,0,0.0662829,-0.077442,0.19735,-2.13752,0.263274,0.416329,-0.032174,0.0421177,-0.0542934,0.124571,-0.130262,-0.118707,0.0687385,0.000542743,0,0,0,0,0,0,0,0.995365,-29.6782,-0.0863513,25.6815,1.13678,2.86095,0.0706026,
0.0728649,-0.0783501,0.204159,-2.14412,0.254337,0.42448,-0.0316863,0.0971125,-0.00333593,0.100028,-0.0939312,-0.134307,0.130836,0.00565496,1.18182,-0.229031,1.30696,0.414954,2.66725,0.591196,0.278474,0,0,0,0,0,0,0,0.0662829,-0.077442,0.19735,-2.13752,0.263274,0.416329,-0.032174,0.0421177,-0.0542934,0.124571,-0.130262,-0.118707,0.0687385,0.000542743,0,0,0,0,0,0,0,0.995365,-29.6782,-0.0863513,25.6815,1.13678,2.86095,0.0706026,
0.0704928,-0.0779477,0.201599,-2.14197,0.258427,0.422261,-0.0318098,0.0997678,-0.00323778,0.102329,-0.0961931,-0.127161,0.13734,0.00620348,1.65957,0.0613432,1.4383,-1.41375,4.46614,4.06501,0.342822,0,0,0,0,0,0,0,0.0662829,-0.077442,0.19735,-2.13752,0.263274,0.416329,-0.032174,0.0421177,-0.0542934,0.124571,-0.130262,-0.118707,0.0687385,0.000542743,0,0,0,0,0,0,0,0.995365,-29.6782,-0.0863513,25.6815,1.13678,2.86095,0.0706026,
0.0713782,-0.0779588,0.202494,-2.14279,0.257735,0.42355,-0.0317471,0.10195,-0.00286935,0.104234,-0.0973684,-0.119034,0.142105,0.00652986,1.36362,0.230272,1.19031,-0.734504,5.07909,2.97811,0.203988,0,0,0,0,0,0,0,0.0662829,-0.077442,0.19735,-2.13752,0.263274,0.416329,-0.032174,0.0421177,-0.0542934,0.124571,-0.130262,-0.118707,0.0687385,0.000542743,0,0,0,0,0,0,0,0.995365,-29.6782,-0.0863513,25.6815,1.13678,2.86095,0.0706026,
0.0722638,-0.0779628,0.203389,-2.14358,0.257107,0.42482,-0.0316812,0.103701,-0.00239535,0.105768,-0.0976605,-0.110906,0.14543,0.00687169,1.09488,0.296252,0.958741,-0.182586,5.07995,2.07819,0.213644,0,0,0,0,0,0,0,0.0662829,-0.077442,0.19735,-2.13752,0.263274,0.416329,-0.032174,0.0421177,-0.0542934,0.124571,-0.130262,-0.118707,0.0687385,0.000542743,0,0,0,0,0,0,0,0.995365,-29.6782,-0.0863513,25.6815,1.13678,2.86095,0.0706026,
0.0731463,-0.0779617,0.204281,-2.14434,0.256524,0.426068,-0.0316053,0.105021,-0.00188677,0.106912,-0.0972094,-0.103314,0.14754,0.00739497,0.825058,0.317858,0.715315,0.281942,4.74522,1.31822,0.327048,0,0,0,0,0,0,0,0.0662829,-0.077442,0.19735,-2.13752,0.263274,0.416329,-0.032174,0.0421177,-0.0542934,0.124571,-0.130262,-0.118707,0.0687385,0.000542743,0,0,0,0,0,0,0,0.995365,-29.6782,-0.0863513,25.6815,1.13678,2.86095,0.0706026,
0.0704796,-0.0780918,0.201679,-2.14218,0.259194,0.421906,-0.0317709,0.106064,-0.00287035,0.108275,-0.0999117,-0.0983061,0.148082,0.00762019,0.651697,-0.614738,0.851432,-1.68892,3.12991,0.338787,0.140769,0,0,0,0,0,0,0,0.069231,-0.076787,0.199621,-2.14058,0.259012,0.418425,-0.0321753,0.131979,0.0762794,0.0232187,-0.0574412,-0.136341,0.0604682,0.000103803,11.2327,16.3216,-12.669,9.10261,-2.20422,-1.03379,-0.0548675,0.285221,-30.9041,-0.213304,27.0779,1.35101,3.15941,0.0980684,
0.0713689,-0.0781341,0.202596,-2.14304,0.258469,0.42312,-0.0317099,0.107084,-0.00335377,0.109556,-0.101353,-0.096779,0.148819,0.00762199,0.637553,-0.302133,0.800999,-0.900646,0.954413,0.460722,0.00112042,0,0,0,0,0,0,0,0.069231,-0.076787,0.199621,-2.14058,0.259012,0.418425,-0.0321753,0.131979,0.0762794,0.0232187,-0.0574412,-0.136341,0.0604682,0.000103803,0,0,0,0,0,0,0,0.285221,-30.9041,-0.213304,27.0779,1.35101,3.15941,0.0980684,
0.0722618,-0.0781685,0.203517,-2.14387,0.25768,0.424337,-0.0316373,0.107989,-0.0035451,0.110666,-0.101852,-0.0971495,0.149481,0.00791333,0.565266,-0.11958,0.693533,-0.312344,-0.231534,0.414022,0.182091,0,0,0,0,0,0,0,0.069231,-0.076787,0.199621,-2.14058,0.259012,0.418425,-0.0321753,0.131979,0.0762794,0.0232187,-0.0574412,-0.136341,0.0604682,0.000103803,0,0,0,0,0,0,0,0.285221,-30.9041,-0.213304,27.0779,1.35101,3.15941,0.0980684,
0.0731495,-0.0781973,0.204433,-2.14467,0.256905,0.42553,-0.0315578,0.108585,-0.00355474,0.111425,-0.101594,-0.0970805,0.149413,0.00831635,0.372564,-0.0060282,0.474086,0.16171,0.0431359,-0.0429374,0.251885,0,0,0,0,0,0,0,0.069231,-0.076787,0.199621,-2.14058,0.259012,0.418425,-0.0321753,0.131979,0.0762794,0.0232187,-0.0574412,-0.136341,0.0604682,0.000103803,0,0,0,0,0,0,0,0.285221,-30.9041,-0.213304,27.0779,1.35101,3.15941,0.0980684,
0.0732296,-0.0760229,0.203668,-2.14555,0.254491,0.42492,-0.0317755,0.108405,-0.0010276,0.111003,-0.105391,-0.0989909,0.151892,0.00853891,-0.112185,1.57946,-0.263163,-2.37317,-1.19401,1.54963,0.139103,0,0,0,0,0,0,0,0.0716345,-0.0759339,0.202704,-2.1435,0.255396,0.420983,-0.032174,0.0311181,0.043874,0.144265,-0.0742407,-0.100031,0.0784245,-0.0015366,-12.6076,-4.05068,15.1308,-2.09994,4.53875,2.24453,-0.20505,1.2215,-33.1972,0.338148,25.8084,1.43066,2.88018,0.11821,
0.0741057,-0.0759668,0.204557,-2.14648,0.253577,0.426228,-0.0317076,0.108626,0.000582176,0.111036,-0.107623,-0.102043,0.154207,0.00852888,0.138079,1.00611,0.0205445,-1.39542,-1.90733,1.447,-0.00626936,0,0,0,0,0,0,0,0.0716345,-0.0759339,0.202704,-2.1435,0.255396,0.420983,-0.032174,0.0311181,0.043874,0.144265,-0.0742407,-0.100031,0.0784245,-0.0015366,0,0,0,0,0,0,0,1.2215,-33.1972,0.338148,25.8084,1.43066,2.88018,0.11821,
0.0749901,-0.0759227,0.205455,-2.14739,0.252665,0.427543,-0.0316358,0.10901,0.00156818,0.111268,-0.108678,-0.104439,0.156249,0.00861891,0.239972,0.61625,0.144786,-0.659382,-1.49753,1.27616,0.0562696,0,0,0,0,0,0,0,0.0716345,-0.0759339,0.202704,-2.1435,0.255396,0.420983,-0.032174,0.0311181,0.043874,0.144265,-0.0742407,-0.100031,0.0784245,-0.0015366,0,0,0,0,0,0,0,1.2215,-33.1972,0.338148,25.8084,1.43066,2.88018,0.11821,
0.0773736,-0.0770473,0.208,-2.1508,0.250332,0.433952,-0.0312976,0.110496,-0.000177403,0.112953,-0.111982,-0.0963377,0.167104,0.00857091,0.928444,-1.09099,1.05338,-2.06495,5.06313,6.78441,-0.030005,0,0,0,0,0,0,0,0.0716345,-0.0759339,0.202704,-2.1435,0.255396,0.420983,-0.032174,0.0311181,0.043874,0.144265,-0.0742407,-0.100031,0.0784245,-0.0015366,0,0,0,0,0,0,0,1.2215,-33.1972,0.338148,25.8084,1.43066,2.88018,0.11821,
0.0758535,-0.0758683,0.207049,-2.14879,0.252014,0.428969,-0.0317694,0.110544,-0.000775738,0.113123,-0.115022,-0.0909707,0.175438,0.00857305,0.0301185,-0.373959,0.106,-1.89958,3.35437,5.20865,0.00133751,0,0,0,0,0,0,0,0.074172,-0.0764113,0.206122,-2.14715,0.252847,0.424114,-0.0321654,0.103736,-0.092022,0.0796085,-0.147836,-0.0694512,0.0892663,0.000290259,9.07729,-16.987,-8.08204,-9.19938,3.82245,1.35522,0.228357,1.65393,-29.2299,0.564283,24.8087,1.47277,2.60186,0.0843355,
0.0767473,-0.075898,0.207968,-2.14976,0.251391,0.430639,-0.0317073,0.11078,-0.00136329,0.113457,-0.116467,-0.0883621,0.182101,0.00841104,0.147518,-0.36722,0.208983,-0.903495,1.63039,4.16469,-0.101256,0,0,0,0,0,0,0,0.074172,-0.0764113,0.206122,-2.14715,0.252847,0.424114,-0.0321654,0.103736,-0.092022,0.0796085,-0.147836,-0.0694512,0.0892663,0.000290259,0,0,0,0,0,0,0,1.65393,-29.2299,0.564283,24.8087,1.47277,2.60186,0.0843355,
0.0776454,-0.0759303,0.20889,-2.15071,0.25074,0.432307,-0.0316341,0.111075,-0.00189633,0.113826,-0.116788,-0.0869539,0.187365,0.00855882,0.184395,-0.333149,0.230406,-0.200126,0.880097,3.28943,0.0923654,0,0,0,0,0,0,0,0.074172,-0.0764113,0.206122,-2.14715,0.252847,0.424114,-0.0321654,0.103736,-0.092022,0.0796085,-0.147836,-0.0694512,0.0892663,0.000290259,0,0,0,0,0,0,0,1.65393,-29.2299,0.564283,24.8087,1.47277,2.60186,0.0843355,
0.0786003,-0.0776146,0.210597,-2.15221,0.249893,0.432227,-0.0317634,0.111727,-0.00403094,0.114274,-0.117498,-0.0819321,0.195103,0.00865506,0.407746,-1.33413,0.279702,-0.444315,3.13861,4.83633,0.0601474,0,0,0,0,0,0,0,0.074172,-0.0764113,0.206122,-2.14715,0.252847,0.424114,-0.0321654,0.103736,-0.092022,0.0796085,-0.147836,-0.0694512,0.0892663,0.000290259,0,0,0,0,0,0,0,1.65393,-29.2299,0.564283,24.8087,1.47277,2.60186,0.0843355,
0.0795174,-0.0776886,0.211528,-2.15315,0.249337,0.434042,-0.0316976,0.112309,-0.00507484,0.114708,-0.117515,-0.0794472,0.201457,0.00857,0.363601,-0.652443,0.271809,-0.0106377,1.55309,3.97149,-0.0531586,0,0,0,0,0,0,0,0.0777851,-0.0762701,0.208612,-2.15061,0.250218,0.427631,-0.0321651,0.152192,0.0431991,0.0307338,-0.0917157,-0.0805305,0.116725,-0.00127021,6.05696,16.9026,-6.10933,7.01501,-1.38492,3.43233,-0.195059,0.182071,-29.9797,-0.16173,27.2763,1.39404,3.08617,0.124619,
0.080433,-0.0777443,0.212459,-2.15407,0.248777,0.43584,-0.031626,0.112738,-0.0054528,0.11503,-0.117041,-0.0775588,0.206103,0.00864574,0.268173,-0.236223,0.200716,0.296394,1.18022,2.90397,0.0473337,0,0,0,0,0,0,0,0.0777851,-0.0762701,0.208612,-2.15061,0.250218,0.427631,-0.0321651,0.152192,0.0431991,0.0307338,-0.0917157,-0.0805305,0.116725,-0.00127021,0,0,0,0,0,0,0,0.182071,-29.9797,-0.16173,27.2763,1.39404,3.08617,0.124619,
0.0813403,-0.0777867,0.213381,-2.15497,0.248288,0.437587,-0.0315537,0.112873,-0.00542209,0.11508,-0.116155,-0.0742722,0.20857,0.00872408,0.08403,0.0191932,0.0313028,0.553855,2.05415,1.54142,0.0489643,0,0,0,0,0,0,0,0.0777851,-0.0762701,0.208612,-2.15061,0.250218,0.427631,-0.0321651,0.152192,0.0431991,0.0307338,-0.0917157,-0.0805305,0.116725,-0.00127021,0,0,0,0,0,0,0,0.182071,-29.9797,-0.16173,27.2763,1.39404,3.08617,0.124619,
0.0820153,-0.0758009,0.21293,-2.15608,0.247783,0.436896,-0.0317873,0.112258,-0.00317178,0.114549,-0.119356,-0.0695013,0.213481,0.00860778,-0.384218,1.40644,-0.33175,-2.00085,2.98179,3.06965,-0.0726898,0,0,0,0,0,0,0,0.0777851,-0.0762701,0.208612,-2.15061,0.250218,0.427631,-0.0321651,0.152192,0.0431991,0.0307338,-0.0917157,-0.0805305,0.116725,-0.00127021,0,0,0,0,0,0,0,0.182071,-29.9797,-0.16173,27.2763,1.39404,3.08617,0.124619,
0.0828995,-0.0757689,0.213835,-2.1571,0.247307,0.438714,-0.031729,0.111912,-0.00173518,0.114271,-0.121053,-0.0675035,0.216234,0.00834471,-0.216079,0.897877,-0.173754,-1.06038,1.24866,1.7206,-0.164419,0,0,0,0,0,0,0,0.0777851,-0.0762701,0.208612,-2.15061,0.250218,0.427631,-0.0321651,0.152192,0.0431991,0.0307338,-0.0917157,-0.0805305,0.116725,-0.00127021,0,0,0,0,0,0,0,0.182071,-29.9797,-0.16173,27.2763,1.39404,3.08617,0.124619,
0.083787,-0.0757484,0.214744,-2.1581,0.246801,0.440489,-0.031658,0.111717,-0.000875655,0.114122,-0.1217,-0.0666345,0.217351,0.00844918,-0.121711,0.537203,-0.0932803,-0.404094,0.543116,0.698273,0.0652984,0,0,0,0,0,0,0,0.0806662,-0.0752354,0.212242,-2.15398,0.24812,0.432163,-0.0321609,0.0292456,0.0660928,0.165458,-0.0834184,-0.0596036,0.130263,0.00119165,-15.3683,2.86172,16.8405,1.03716,2.61587,1.69226,0.307732,0.539127,-32.2768,-0.110155,25.4077,1.07635,2.85363,0.0577852,
0.0846704,-0.0757364,0.215647,-2.15907,0.246352,0.442204,-0.0315774,0.111459,-0.000401707,0.113886,-0.121573,-0.0645479,0.216768,0.00877458,-0.161702,0.296217,-0.147164,0.0788349,1.30409,-0.364392,0.203373,0,0,0,0,0,0,0,0.0806662,-0.0752354,0.212242,-2.15398,0.24812,0.432163,-0.0321609,0.0292456,0.0660928,0.165458,-0.0834184,-0.0596036,0.130263,0.00119165,0,0,0,0,0,0,0,0.539127,-32.2768,-0.110155,25.4077,1.07635,2.85363,0.0577852,
0.0849849,-0.0747733,0.216654,-2.15977,0.246357,0.442266,-0.0317912,0.111293,0.00024807,0.113639,-0.124929,-0.0581341,0.223993,0.00870766,-0.103581,0.406111,-0.154171,-2.09696,4.00866,4.51558,-0.0418281,0,0,0,0,0,0,0,0.0806662,-0.0752354,0.212242,-2.15398,0.24812,0.432163,-0.0321609,0.0292456,0.0660928,0.165458,-0.0834184,-0.0596036,0.130263,0.00119165,0,0,0,0,0,0,0,0.539127,-32.2768,-0.110155,25.4077,1.07635,2.85363,0.0577852,
0.0858718,-0.0747632,0.217557,-2.16084,0.246061,0.444256,-0.0317312,0.111207,0.000451252,0.113488,-0.126663,-0.0538928,0.228945,0.00846494,-0.0537825,0.126989,-0.094476,-1.0839,2.65077,3.09466,-0.151699,0,0,0,0,0,0,0,0.0806662,-0.0752354,0.212242,-2.15398,0.24812,0.432163,-0.0321609,0.0292456,0.0660928,0.165458,-0.0834184,-0.0596036,0.130263,0.00119165,0,0,0,0,0,0,0,0.539127,-32.2768,-0.110155,25.4077,1.07635,2.85363,0.0577852,
0.0867582,-0.0747618,0.21846,-2.16187,0.245774,0.446206,-0.0316641,0.111126,0.000394947,0.113353,-0.127249,-0.0503019,0.231909,0.0084491,-0.0502712,-0.0351905,-0.0847257,-0.366083,2.24432,1.85294,-0.00989534,0,0,0,0,0,0,0,0.0833607,-0.075489,0.216598,-2.15819,0.246645,0.437055,-0.0321597,0.0258633,-0.0777751,0.18412,-0.158902,-0.0295238,0.156524,0.000451064,-0.422784,-17.9835,2.33268,-9.43551,3.75997,3.28262,-0.0925733,1.09455,-29.8052,-0.213304,23.9398,1.08184,2.54876,0.0907442,
0.0876386,-0.074766,0.219356,-2.16288,0.245554,0.448102,-0.0315899,0.110911,0.000211349,0.113086,-0.127012,-0.0457398,0.232938,0.00861659,-0.134645,-0.114749,-0.16675,0.148062,2.8513,0.642834,0.104679,0,0,0,0,0,0,0,0.0833607,-0.075489,0.216598,-2.15819,0.246645,0.437055,-0.0321597,0.0258633,-0.0777751,0.18412,-0.158902,-0.0295238,0.156524,0.000451064,0,0,0,0,0,0,0,1.09455,-29.8052,-0.213304,23.9398,1.08184,2.54876,0.0907442,
0.087901,-0.076612,0.221236,-2.16381,0.245624,0.447382,-0.0317971,0.111426,-0.00262228,0.113637,-0.128262,-0.0383221,0.24094,0.00840898,0.321544,-1.77102,0.344192,-0.781524,4.63611,5.00159,-0.129756,0,0,0,0,0,0,0,0.0833607,-0.075489,0.216598,-2.15819,0.246645,0.437055,-0.0321597,0.0258633,-0.0777751,0.18412,-0.158902,-0.0295238,0.156524,0.000451064,0,0,0,0,0,0,0,1.09455,-29.8052,-0.213304,23.9398,1.08184,2.54876,0.0907442,
