xiao-wang007/linearmpc_panda/paper_data/panda_torque_PD_controller_error_match_to_start_low_pass_filter/0/trajectory.csv
Commanded Joint 0 Position,Commanded Joint 1 Position,Commanded Joint 2 Position,Commanded Joint 3 Position,Commanded Joint 4 Position,Commanded Joint 5 Position,Commanded Joint 6 Position,Commanded Joint 0 Velocity,Commanded Joint 1 Velocity,Commanded Joint 2 Velocity,Commanded Joint 3 Velocity,Commanded Joint 4 Velocity,Commanded Joint 5 Velocity,Commanded Joint 6 Velocity,Commanded Joint 0 Acceleration,Commanded Joint 1 Acceleration,Commanded Joint 2 Acceleration,Commanded Joint 3 Acceleration,Commanded Joint 4 Acceleration,Commanded Joint 5 Acceleration,Commanded Joint 6 Acceleration,Commanded Joint 0 Torque,Commanded Joint 1 Torque,Commanded Joint 2 Torque,Commanded Joint 3 Torque,Commanded Joint 4 Torque,Commanded Joint 5 Torque,Commanded Joint 6 Torque,Actual Joint 0 Position,Actual Joint 1 Position,Actual Joint 2 Position,Actual Joint 3 Position,Actual Joint 4 Position,Actual Joint 5 Position,Actual Joint 6 Position,Actual Joint 0 Velocity,Actual Joint 1 Velocity,Actual Joint 2 Velocity,Actual Joint 3 Velocity,Actual Joint 4 Velocity,Actual Joint 5 Velocity,Actual Joint 6 Velocity,Actual Joint 0 Acceleration,Actual Joint 1 Acceleration,Actual Joint 2 Acceleration,Actual Joint 3 Acceleration,Actual Joint 4 Acceleration,Actual Joint 5 Acceleration,Actual Joint 6 Acceleration,Actual Joint 0 Torque,Actual Joint 1 Torque,Actual Joint 2 Torque,Actual Joint 3 Torque,Actual Joint 4 Torque,Actual Joint 5 Torque,Actual Joint 6 Torque,
-0.0421694,-0.0992541,-0.00211516,-1.84985,0.0111094,0.186542,-0.0809303,0.00045634,0.0187236,0.000529295,-0.0342584,-0.0047737,0.0533524,-0.000390664,0.285212,11.7023,0.330809,-21.4115,-2.98356,33.3453,-0.244165,0.0560412,21.1053,0.152873,-24.1932,-0.629814,2.08896,-0.0251708,-0.0422001,-0.100054,-0.00214901,-1.84661,0.0114193,0.180844,-0.0808845,0.0052347,-0.000913224,0.000421728,-0.000881413,-0.0017309,-0.00126114,-0.000294559,0,0,0,0,0,0,0,-0.0956386,-31.9753,-0.16173,27.1255,0.727535,3.00011,-0.123489,
-0.0421645,-0.100059,-0.00211195,-1.84661,0.0114439,0.180825,-0.0808859,0.000579782,0.0149702,0.000648572,-0.0274094,-0.00352424,0.0425969,-0.000319274,0.077151,-2.34592,0.0745485,4.28067,0.780911,-6.72221,0.0446189,0.0502936,21.5483,0.142434,-24.1092,-0.630132,1.83832,-0.0236593,-0.0421966,-0.0999767,-0.00214414,-1.84667,0.0114178,0.180843,-0.0808815,0.00139275,0.00280899,6.42004e-06,-0.00333283,-0.00269753,-0.00114007,0.000678147,-0.480243,0.465277,-0.0519135,-0.306427,-0.120829,0.0151343,0.121588,-0.147213,-31.4754,-0.185533,27.0026,0.740353,3.00652,-0.150955,
-0.0421579,-0.100059,-0.00210508,-1.84661,0.0114556,0.180824,-0.0808861,0.000628355,0.0119811,0.000690468,-0.0219262,-0.00252739,0.0340443,-0.000260125,0.0303585,-1.86819,0.0261851,3.42699,0.623034,-5.34535,0.0369679,0.0430976,22.12,0.130697,-24.0012,-0.629683,1.49037,-0.0216922,-0.0421966,-0.0999767,-0.00214414,-1.84667,0.0114178,0.180843,-0.0808815,0.00139275,0.00280899,6.42004e-06,-0.00333283,-0.00269753,-0.00114007,0.000678147,0,0,0,0,0,0,0,-0.147213,-31.4754,-0.185533,27.0026,0.740353,3.00652,-0.150955,
-0.0421528,-0.100058,-0.00209978,-1.84661,0.0114662,0.180824,-0.0808863,0.000630249,0.00959848,0.000684845,-0.0175377,-0.00175719,0.0272387,-0.000211521,0.00118378,-1.48911,-0.00351465,2.74283,0.48137,-4.25351,0.0303776,0.0371753,22.6441,0.12128,-23.8334,-0.627738,1.10482,-0.0196918,-0.0421966,-0.0999767,-0.00214414,-1.84667,0.0114178,0.180843,-0.0808815,0.00139275,0.00280899,6.42004e-06,-0.00333283,-0.00269753,-0.00114007,0.000678147,0,0,0,0,0,0,0,-0.147213,-31.4754,-0.185533,27.0026,0.740353,3.00652,-0.150955,
-0.0421775,-0.0995948,-0.00212551,-1.84728,0.0112371,0.181077,-0.0808773,0.000981184,0.0172261,0.0010137,-0.0293072,-0.00592247,0.0276473,-6.40788e-05,0.219334,4.76724,0.205532,-7.35593,-2.6033,0.255398,0.0921514,-3.43292e-06,27.2623,0.0997869,-23.1006,-1.0544,-2.15397,0.00015926,-0.0421966,-0.0999767,-0.00214414,-1.84667,0.0114178,0.180843,-0.0808815,0.00139275,0.00280899,6.42004e-06,-0.00333283,-0.00269753,-0.00114007,0.000678147,0,0,0,0,0,0,0,-0.147213,-31.4754,-0.185533,27.0026,0.740353,3.00652,-0.150955,
-0.0422187,-0.0992018,-0.00215297,-1.84753,0.0119517,0.180446,-0.0808897,-0.000244611,0.0236067,0.000124335,-0.0297306,0.0131261,0.00635353,-0.000362795,-0.766122,3.9879,-0.555851,-0.264663,11.9054,-13.3086,-0.186697,0.489766,0.289867,0.489049,-0.262246,2.96556,-1.81218,-0.0017669,-0.042209,-0.0987108,-0.0021566,-1.84841,0.0114598,0.183828,-0.0808815,0.00122278,0.110844,0.00217635,-0.160603,-0.00220477,0.261429,0.000257147,-0.0212464,13.5044,0.271241,-19.6588,0.0615951,32.8211,-0.052625,0.0313145,-11.5596,-0.0387439,7.12646,0.233151,0.659109,-0.150955,
-0.0422755,-0.0988815,-0.00220297,-1.84769,0.0132195,0.17944,-0.0808979,-0.00161492,0.0268922,-0.00115034,-0.0276797,0.0421969,-0.0200765,-0.000493186,-0.856441,2.05341,-0.796674,1.28185,18.1693,-16.5188,-0.081495,0.483703,0.288501,0.482765,-0.25952,2.93929,-1.79736,-0.00169714,-0.042209,-0.0987108,-0.0021566,-1.84841,0.0114598,0.183828,-0.0808815,0.00122278,0.110844,0.00217635,-0.160603,-0.00220477,0.261429,0.000257147,0,0,0,0,0,0,0,0.0313145,-11.5596,-0.0387439,7.12646,0.233151,0.659109,-0.150955,
-0.0423308,-0.0986315,-0.00225576,-1.84781,0.0148237,0.178237,-0.0809026,-0.00267623,0.0277643,-0.00223999,-0.0251471,0.0738609,-0.0461254,-0.000511998,-0.663321,0.545094,-0.681027,1.58285,19.79,-16.2806,-0.0117575,0.477245,0.28699,0.476093,-0.256806,2.91382,-1.78251,-0.0016589,-0.042209,-0.0987108,-0.0021566,-1.84841,0.0114598,0.183828,-0.0808815,0.00122278,0.110844,0.00217635,-0.160603,-0.00220477,0.261429,0.000257147,0,0,0,0,0,0,0,0.0313145,-11.5596,-0.0387439,7.12646,0.233151,0.659109,-0.150955,
-0.0421788,-0.0974834,-0.00212484,-1.84956,0.0111695,0.184817,-0.0808781,-0.00138521,0.0528965,-0.000997865,-0.0490677,0.0518323,-0.0121739,-0.000324515,0.806891,15.7076,0.776326,-14.9503,-13.7679,21.2197,0.117177,-0.00287652,27.3373,0.0955437,-23.0835,-1.05284,-2.13922,8.62035e-05,-0.042209,-0.0987108,-0.0021566,-1.84841,0.0114598,0.183828,-0.0808815,0.00122278,0.110844,0.00217635,-0.160603,-0.00220477,0.261429,0.000257147,0,0,0,0,0,0,0,0.0313145,-11.5596,-0.0387439,7.12646,0.233151,0.659109,-0.150955,
-0.0423064,-0.0964072,-0.00220531,-1.8501,0.0140294,0.183368,-0.0809172,-0.00429748,0.0692214,-0.00281009,-0.0525853,0.112962,-0.0459817,-0.00123641,-1.82017,10.2031,-1.13264,-2.1985,38.2061,-21.1299,-0.569932,4.0264,0.425188,4.13332,-1.69256,10.9472,-5.97351,-0.00226938,-0.042209,-0.0987108,-0.0021566,-1.84841,0.0114598,0.183828,-0.0808815,0.00122278,0.110844,0.00217635,-0.160603,-0.00220477,0.261429,0.000257147,0,0,0,0,0,0,0,0.0313145,-11.5596,-0.0387439,7.12646,0.233151,0.659109,-0.150955,
-0.0424505,-0.095573,-0.00232361,-1.85047,0.0188395,0.180676,-0.0809392,-0.00704207,0.0762321,-0.00520561,-0.0513776,0.210622,-0.104074,-0.00153988,-1.71537,4.38167,-1.4972,0.754799,61.0373,-36.3078,-0.189672,3.96336,0.68173,4.07438,-1.62653,10.9444,-5.76486,-0.001578,-0.0421934,-0.0935954,-0.00209086,-1.85428,0.0125691,0.186872,-0.0808836,-0.00258198,0.202926,0.000142008,-0.11314,0.152574,-0.0809394,-0.00123947,-0.475596,11.5102,-0.254293,5.93284,19.3473,-42.7961,-0.187078,0.0313145,-22.0928,-0.0387439,28.6728,1.72912,3.19878,-0.103348,
-0.0425639,-0.0949372,-0.00242296,-1.85079,0.0248649,0.177286,-0.0809493,-0.00846903,0.0768819,-0.00664817,-0.0490166,0.319134,-0.168026,-0.00148421,-0.891852,0.406097,-0.901595,1.4756,67.8202,-39.9699,0.0347931,3.89261,0.733288,4.00716,-1.57243,10.9444,-5.59638,-0.000852991,-0.0421934,-0.0935954,-0.00209086,-1.85428,0.0125691,0.186872,-0.0808836,-0.00258198,0.202926,0.000142008,-0.11314,0.152574,-0.0809394,-0.00123947,0,0,0,0,0,0,0,0.0313145,-22.0928,-0.0387439,28.6728,1.72912,3.19878,-0.103348,
-0.0421524,-0.0919697,-0.00205384,-1.85558,0.0130722,0.186315,-0.0808762,-0.00574926,0.102149,-0.00439308,-0.0716925,0.267884,-0.148361,-0.00100212,1.69986,15.7919,1.40943,-14.1724,-32.0311,12.2903,0.301305,-0.00491591,27.5268,0.0890812,-23.0746,-1.05555,-2.09745,-0.000197218,-0.0421934,-0.0935954,-0.00209086,-1.85428,0.0125691,0.186872,-0.0808836,-0.00258198,0.202926,0.000142008,-0.11314,0.152574,-0.0809394,-0.00123947,0,0,0,0,0,0,0,0.0313145,-22.0928,-0.0387439,28.6728,1.72912,3.19878,-0.103348,
-0.0416598,-0.0907726,-0.00154079,-1.8565,0.0153886,0.181962,-0.0808092,0.00771454,0.111646,0.00931197,-0.0802755,0.272218,-0.227511,0.000873751,8.41487,5.93541,8.56566,-5.36437,2.70829,-49.4686,1.17242,31.0722,-0.535127,31.9582,-12.1935,10.9444,-14.0975,0.0681332,-0.0421934,-0.0935954,-0.00209086,-1.85428,0.0125691,0.186872,-0.0808836,-0.00258198,0.202926,0.000142008,-0.11314,0.152574,-0.0809394,-0.00123947,0,0,0,0,0,0,0,0.0313145,-22.0928,-0.0387439,28.6728,1.72912,3.19878,-0.103348,
-0.0408268,-0.089882,-0.000654681,-1.85726,0.0191486,0.175246,-0.0807205,0.0269965,0.111582,0.0296022,-0.0832172,0.311773,-0.349897,0.00291603,12.0512,-0.0398471,12.6814,-1.83861,24.7224,-76.4909,1.27642,29.695,1.31507,30.8391,-10.4165,10.9066,-14.0537,0.0953745,-0.0421934,-0.0878247,-0.00193481,-1.85598,0.0180618,0.179773,-0.0808844,0.00529063,0.18358,0.00761419,-0.0858751,0.566302,-0.275956,0.000499379,0.984077,-2.41829,0.934023,3.40816,51.7161,-24.377,0.217357,3.53046,-39.886,3.38899,27.8992,3.66546,-0.613474,-0.123489,
-0.039734,-0.0892087,0.000506285,-1.85795,0.0240492,0.16705,-0.080613,0.0489176,0.106097,0.0527059,-0.0838778,0.371935,-0.484811,0.00501945,13.7007,-3.42809,14.4398,-0.412859,37.6008,-84.3212,1.31464,28.2876,1.55245,29.4891,-9.07647,10.9066,-13.9425,0.121385,-0.0421934,-0.0878247,-0.00193481,-1.85598,0.0180618,0.179773,-0.0808844,0.00529063,0.18358,0.00761419,-0.0858751,0.566302,-0.275956,0.000499379,0,0,0,0,0,0,0,3.53046,-39.886,3.38899,27.8992,3.66546,-0.613474,-0.123489,
-0.0420233,-0.0863531,-0.00178225,-1.85722,0.0206843,0.178297,-0.0808633,0.0433882,0.121665,0.0459786,-0.0981267,0.363111,-0.424729,0.00454339,-3.45589,9.73025,-4.20459,-8.90557,-5.51453,37.5509,-0.297538,-0.033783,27.7523,0.056966,-23.1215,-1.09336,-2.05367,-0.000647869,-0.0421934,-0.0878247,-0.00193481,-1.85598,0.0180618,0.179773,-0.0808844,0.00529063,0.18358,0.00761419,-0.0858751,0.566302,-0.275956,0.000499379,0,0,0,0,0,0,0,3.53046,-39.886,3.38899,27.8992,3.66546,-0.613474,-0.123489,
-0.0411347,-0.0857035,-0.000877089,-1.85883,0.0239703,0.173908,-0.0805789,0.0569256,0.113573,0.059412,-0.118734,0.372639,-0.449512,0.0107445,8.46089,-5.05765,8.39589,-12.8794,5.95445,-15.4889,3.87567,43.1579,-9.21902,44.4351,-23.8211,10.9066,-14.0537,0.314344,-0.0421934,-0.0878247,-0.00193481,-1.85598,0.0180618,0.179773,-0.0808844,0.00529063,0.18358,0.00761419,-0.0858751,0.566302,-0.275956,0.000499379,0,0,0,0,0,0,0,3.53046,-39.886,3.38899,27.8992,3.66546,-0.613474,-0.123489,
-0.0398039,-0.0854251,0.000495254,-1.86044,0.0282099,0.167332,-0.0804048,0.0788087,0.0978177,0.0818382,-0.135218,0.404102,-0.524014,0.0129462,13.6769,-9.84711,14.0164,-10.3024,19.6645,-46.5638,1.37611,38.229,-5.8879,39.3757,-22.1834,10.836,-13.8931,0.182206,-0.0421204,-0.0823621,-0.00107803,-1.86048,0.0427421,0.165357,-0.0808638,0.0734304,0.0596631,0.153521,-0.203382,0.646759,-0.741452,0.00196072,8.51747,-15.4896,18.2384,-14.6884,10.0571,-58.1871,0.182668,17.1224,-34.6968,17.4094,24.5349,3.34777,-4.17396,-0.00996382,
-0.0384841,-0.082826,0.00269543,-1.86505,0.0533049,0.150023,-0.0803192,0.113246,0.0714549,0.117489,-0.164564,0.46193,-0.62656,0.01423,21.5234,-16.4767,22.2816,-18.3417,36.1428,-64.0916,0.802365,50.0087,-11.9493,51.7977,-33.8814,10.836,-13.8931,0.43701,-0.0421204,-0.0823621,-0.00107803,-1.86048,0.0427421,0.165357,-0.0808638,0.0734304,0.0596631,0.153521,-0.203382,0.646759,-0.741452,0.00196072,0,0,0,0,0,0,0,17.1224,-34.6968,17.4094,24.5349,3.34777,-4.17396,-0.00996382,
-0.0362924,-0.0830216,0.00496779,-1.86715,0.0595586,0.140832,-0.0803002,0.14539,0.0522744,0.1508,-0.184084,0.525887,-0.731035,0.0118588,20.0898,-11.9878,20.8195,-12.1997,39.9728,-65.2969,-1.48201,42.1695,-5.73787,43.603,-30.6406,10.836,-13.8931,0.149833,-0.0421204,-0.0823621,-0.00107803,-1.86048,0.0427421,0.165357,-0.0808638,0.0734304,0.0596631,0.153521,-0.203382,0.646759,-0.741452,0.00196072,0,0,0,0,0,0,0,17.1224,-34.6968,17.4094,24.5349,3.34777,-4.17396,-0.00996382,
-0.0340205,-0.0831263,0.0073238,-1.86915,0.0664794,0.131228,-0.0803335,0.173108,0.0392018,0.17954,-0.197377,0.59373,-0.824939,0.00865562,17.3242,-8.17038,17.9627,-8.30846,42.4018,-58.6901,-2.00199,37.0887,-1.81354,38.3216,-28.1144,10.836,-13.8931,0.0035006,-0.0421204,-0.0823621,-0.00107803,-1.86048,0.0427421,0.165357,-0.0808638,0.0734304,0.0596631,0.153521,-0.203382,0.646759,-0.741452,0.00196072,0,0,0,0,0,0,0,17.1224,-34.6968,17.4094,24.5349,3.34777,-4.17396,-0.00996382,
-0.0317276,-0.0831765,0.00970144,-1.87118,0.0739595,0.121909,-0.0803561,0.195809,0.030105,0.203073,-0.208723,0.661987,-0.892912,0.0063596,14.1879,-5.68549,14.7081,-7.09122,42.661,-42.4827,-1.43501,33.8778,0.657113,34.9995,-26.2247,10.922,-12.9589,-0.0492702,-0.0342963,-0.0742218,0.00337382,-1.86495,0.0618686,0.126578,-0.0805294,0.337589,0.0112816,0.170722,-0.397252,0.606263,-1.10994,0.020694,33.0198,-6.04769,2.15014,-24.2337,-5.06203,-46.0609,2.34166,26.505,-22.4181,26.6095,11.2842,5.43701,-4.00184,0.0239107,
-0.0296393,-0.0740918,0.00818674,-1.87075,0.073874,0.107536,-0.0805002,0.216165,0.0264039,0.224177,-0.236806,0.689521,-0.955582,0.00365611,12.7222,-2.31319,13.1898,-17.5516,17.2084,-39.1693,-1.68968,42.275,-4.18658,43.682,-35.321,10.922,-12.6,0.080744,-0.0342963,-0.0742218,0.00337382,-1.86495,0.0618686,0.126578,-0.0805294,0.337589,0.0112816,0.170722,-0.397252,0.606263,-1.10994,0.020694,0,0,0,0,0,0,0,26.505,-22.4181,26.6095,11.2842,5.43701,-4.00184,0.0239107,
-0.0272326,-0.0739483,0.0106814,-1.87342,0.0809594,0.0980047,-0.080617,0.233097,0.0247106,0.241709,-0.256067,0.72875,-1.00274,7.02406e-06,10.5829,-1.05828,10.9576,-12.0384,24.5185,-29.4746,-2.28068,36.7934,-0.82989,37.9862,-32.8549,10.922,-12.2367,-0.0871192,-0.0342963,-0.0742218,0.00337382,-1.86495,0.0618686,0.126578,-0.0805294,0.337589,0.0112816,0.170722,-0.397252,0.606263,-1.10994,0.020694,0,0,0,0,0,0,0,26.505,-22.4181,26.6095,11.2842,5.43701,-4.00184,0.0239107,
-0.0248444,-0.0737936,0.0131564,-1.87607,0.0885891,0.0891902,-0.0807238,0.246184,0.0236347,0.255241,-0.271249,0.773744,-1.02255,-0.00266465,8.17936,-0.672444,8.45775,-9.48863,28.1211,-12.383,-1.6698,33.2126,0.57552,34.2886,-31.1372,10.922,-11.3387,-0.149447,-0.0342963,-0.0742218,0.00337382,-1.86495,0.0618686,0.126578,-0.0805294,0.337589,0.0112816,0.170722,-0.397252,0.606263,-1.10994,0.020694,0,0,0,0,0,0,0,26.505,-22.4181,26.6095,11.2842,5.43701,-4.00184,0.0239107,
-0.0225067,-0.0736569,0.0155785,-1.87876,0.0966315,0.0814087,-0.0808025,0.25539,0.0223257,0.264746,-0.284285,0.820055,-1.01258,-0.00410086,5.7539,-0.818119,5.94051,-8.14777,28.9445,6.23306,-0.897632,30.7289,1.47955,31.7697,-30.185,11.0228,-8.51306,-0.13164,-0.0222743,-0.0780276,0.0181372,-1.88806,0.0932448,0.0818608,-0.0802764,0.484628,0.185302,0.366318,-0.500603,1.14338,-1.54574,-0.000177673,18.3799,21.7526,24.4495,-12.9189,67.1399,-54.4752,-2.60896,20.6493,-26.6353,20.9601,22.5949,4.76501,-1.49513,-0.0301054,
-0.00910527,-0.0743221,0.0317151,-1.90764,0.140528,0.0606656,-0.0811958,0.260793,0.0298139,0.270086,-0.315812,0.888651,-0.82235,-0.00753063,3.37638,4.68012,3.3373,-19.7042,42.8722,118.895,-2.1436,27.3051,-1.09176,28.101,-36.3087,11.0228,-0.559241,-0.227302,-0.0222743,-0.0780276,0.0181372,-1.88806,0.0932448,0.0818608,-0.0802764,0.484628,0.185302,0.366318,-0.500603,1.14338,-1.54574,-0.000177673,0,0,0,0,0,0,0,20.6493,-26.6353,20.9601,22.5949,4.76501,-1.49513,-0.0301054,
-0.00698014,-0.0739368,0.0339084,-1.91101,0.149701,0.0614404,-0.0813475,0.261762,0.0334851,0.270902,-0.33678,0.940228,-0.63851,-0.00981659,0.606099,2.29448,0.510245,-13.1051,32.2358,114.9,-1.42873,25.1405,-1.42661,25.877,-35.9847,11.0228,1.28594,-0.210149,-0.0222743,-0.0780276,0.0181372,-1.88806,0.0932448,0.0818608,-0.0802764,0.484628,0.185302,0.366318,-0.500603,1.14338,-1.54574,-0.000177673,0,0,0,0,0,0,0,20.6493,-26.6353,20.9601,22.5949,4.76501,-1.49513,-0.0301054,
-0.00496858,-0.0736323,0.0359847,-1.91422,0.158743,0.0632482,-0.0814774,0.259699,0.0344008,0.268629,-0.349791,0.978233,-0.465614,-0.0110995,-1.28957,0.572333,-1.42098,-8.13148,23.7529,108.06,-0.801824,23.275,-1.29401,23.9592,-35.4816,11.0228,2.79264,-0.214272,-0.0222743,-0.0780276,0.0181372,-1.88806,0.0932448,0.0818608,-0.0802764,0.484628,0.185302,0.366318,-0.500603,1.14338,-1.54574,-0.000177673,0,0,0,0,0,0,0,20.6493,-26.6353,20.9601,22.5949,4.76501,-1.49513,-0.0301054,
-0.0192079,-0.0769497,0.0212893,-1.89231,0.102733,0.0730946,-0.0804703,0.28442,0.054466,0.293705,-0.386146,1.01979,-0.591645,-0.0137269,15.4505,12.5407,15.6729,-22.7218,25.9709,-78.7698,-1.64209,27.5501,-1.38817,28.4157,-35.5456,11.0248,0.0707043,-0.232995,-0.00529542,-0.0778933,0.0385729,-1.91041,0.131124,0.0323302,-0.0803063,0.479762,0.126005,0.623025,-0.630804,1.39821,-1.18521,-0.00129092,-0.60824,-7.41223,32.0884,-16.2751,31.8536,45.0665,-0.139156,8.65223,-31.1778,7.96327,21.1746,4.26422,3.424,-0.244339,
-0.0163879,-0.0760892,0.0241995,-1.89644,0.112284,0.0670323,-0.0806546,0.298035,0.0650867,0.307719,-0.41228,1.0546,-0.624873,-0.0155894,8.50916,6.6379,8.75877,-16.3338,21.7583,-20.767,-1.1641,25.3855,-1.72301,26.1917,-35.2215,11.0248,1.91588,-0.215843,-0.00529542,-0.0778933,0.0385729,-1.91041,0.131124,0.0323302,-0.0803063,0.479762,0.126005,0.623025,-0.630804,1.39821,-1.18521,-0.00129092,0,0,0,0,0,0,0,8.65223,-31.1778,7.96327,21.1746,4.26422,3.424,-0.244339,
-0.0137827,-0.0753834,0.026888,-1.90038,0.121799,0.0631765,-0.0808411,0.303559,0.0697142,0.313388,-0.428227,1.08157,-0.596293,-0.0171332,3.45265,2.89224,3.54274,-9.96683,16.8548,17.8624,-0.964848,23.5199,-1.59042,24.2739,-34.7184,11.0248,3.42258,-0.219965,-0.00529542,-0.0778933,0.0385729,-1.91041,0.131124,0.0323302,-0.0803063,0.479762,0.126005,0.623025,-0.630804,1.39821,-1.18521,-0.00129092,0,0,0,0,0,0,0,8.65223,-31.1778,7.96327,21.1746,4.26422,3.424,-0.244339,
-0.0113645,-0.0748003,0.0293835,-1.90411,0.131224,0.061157,-0.0810258,0.303302,0.0703499,0.313098,-0.43578,1.10088,-0.527523,-0.0183253,-0.160707,0.397286,-0.181324,-4.72114,12.0712,42.9813,-0.745044,22.2033,-1.30073,22.9216,-34.129,11.0248,4.61637,-0.218806,-0.00529542,-0.0778933,0.0385729,-1.91041,0.131124,0.0323302,-0.0803063,0.479762,0.126005,0.623025,-0.630804,1.39821,-1.18521,-0.00129092,0,0,0,0,0,0,0,8.65223,-31.1778,7.96327,21.1746,4.26422,3.424,-0.244339,
0.00952233,-0.0742976,0.053897,-1.92964,0.184213,0.0242364,-0.0810478,0.301682,0.0678487,0.311453,-0.431078,1.12887,-0.378877,-0.0172051,-1.01212,-1.56324,-1.02782,2.93897,17.4922,92.9038,0.700113,21.3198,-1.09236,22.0127,-33.5831,11.0248,5.53212,-0.201122,-0.00529542,-0.0778933,0.0385729,-1.91041,0.131124,0.0323302,-0.0803063,0.479762,0.126005,0.623025,-0.630804,1.39821,-1.18521,-0.00129092,0,0,0,0,0,0,0,8.65223,-31.1778,7.96327,21.1746,4.26422,3.424,-0.244339,
0.0116941,-0.0739391,0.0561402,-1.93275,0.193825,0.0268903,-0.0811298,0.295639,0.0632416,0.305243,-0.422585,1.14341,-0.236753,-0.0158135,-3.77719,-2.87945,-3.88128,5.30794,9.08572,88.8272,0.86976,20.8721,-1.56941,21.6232,-32.0745,10.9122,6.65321,-0.186418,0.014413,-0.0779006,0.0602628,-1.94288,0.178616,0.0229556,-0.0804521,0.651916,-0.0228099,0.685078,-0.907931,1.28617,-0.285508,-0.00799308,21.5192,-18.6018,7.7566,-34.6408,-14.0045,112.463,-0.837769,3.1258,-25.338,1.93696,27.2763,3.45214,1.38238,-0.0969389,
0.0137093,-0.073667,0.0582223,-1.9357,0.203169,0.0302325,-0.0811927,0.286892,0.057394,0.296246,-0.411764,1.14831,-0.105848,-0.0142227,-5.46699,-3.65474,-5.62346,6.76314,3.06387,81.8155,0.994249,20.3447,-1.46232,21.0756,-31.6268,10.9122,7.16882,-0.160035,0.014413,-0.0779006,0.0602628,-1.94288,0.178616,0.0229556,-0.0804521,0.651916,-0.0228099,0.685078,-0.907931,1.28617,-0.285508,-0.00799308,0,0,0,0,0,0,0,3.1258,-25.338,1.93696,27.2763,3.45214,1.38238,-0.0969389,
0.0155939,-0.0734651,0.0601699,-1.93851,0.212286,0.0340725,-0.081239,0.276629,0.0509625,0.285687,-0.399665,1.14659,0.0113218,-0.0125349,-6.41421,-4.01971,-6.59904,7.562,-1.07514,73.2313,1.05488,19.8702,-1.33922,20.5812,-31.1922,10.9122,7.53236,-0.136355,0.014413,-0.0779006,0.0602628,-1.94288,0.178616,0.0229556,-0.0804521,0.651916,-0.0228099,0.685078,-0.907931,1.28617,-0.285508,-0.00799308,0,0,0,0,0,0,0,3.1258,-25.338,1.93696,27.2763,3.45214,1.38238,-0.0969389,
0.0361842,-0.0738201,0.0827972,-1.96862,0.25918,0.0350267,-0.0806336,0.264913,0.0456037,0.273671,-0.38123,1.14576,0.0987469,-0.00913478,-7.32246,-3.34921,-7.51031,11.5221,-0.518464,54.6407,2.12505,18.1778,-0.607129,18.811,-29.4388,10.9122,7.87,-0.0509985,0.014413,-0.0779006,0.0602628,-1.94288,0.178616,0.0229556,-0.0804521,0.651916,-0.0228099,0.685078,-0.907931,1.28617,-0.285508,-0.00799308,0,0,0,0,0,0,0,3.1258,-25.338,1.93696,27.2763,3.45214,1.38238,-0.0969389,
0.037797,-0.0736819,0.0844667,-1.97098,0.268106,0.0387732,-0.0805871,0.252251,0.0399375,0.260674,-0.364022,1.13978,0.172659,-0.00614722,-7.91394,-3.5414,-8.12256,10.7547,-3.73675,46.1948,1.86723,17.5583,-0.84889,18.23,-28.853,10.5781,7.92634,-0.0368222,0.0346533,-0.0762952,0.0820083,-1.973,0.230334,0.0164841,-0.080641,0.515631,0.111554,0.70812,-0.858598,1.60421,0.057315,-0.000328367,-17.0356,16.7955,2.88021,6.16656,39.7544,42.8529,0.958089,-0.147213,-31.2532,-1.41142,31.2872,1.56433,5.3402,-0.244339,
0.0393,-0.0735867,0.0860233,-1.97326,0.276856,0.0426149,-0.0805297,0.239376,0.0343289,0.247456,-0.348195,1.13057,0.23417,-0.00348326,-8.04687,-3.50537,-8.26167,9.89184,-5.75441,38.4449,1.66497,17.1697,-0.662231,17.8237,-28.4127,10.5781,7.78849,-0.020671,0.0346533,-0.0762952,0.0820083,-1.973,0.230334,0.0164841,-0.080641,0.515631,0.111554,0.70812,-0.858598,1.60421,0.057315,-0.000328367,0,0,0,0,0,0,0,-0.147213,-31.2532,-1.41142,31.2872,1.56433,5.3402,-0.244339,
0.0544366,-0.0703284,0.102481,-1.99646,0.307836,0.0287945,-0.0802942,0.230618,0.0329811,0.238411,-0.332328,1.07567,0.259273,-0.00108502,-5.47349,-0.842391,-5.65296,9.91723,-34.3134,15.6889,1.4989,15.3002,0.0195204,15.872,-26.2818,10.5781,6.88312,0.0506775,0.0346533,-0.0762952,0.0820083,-1.973,0.230334,0.0164841,-0.080641,0.515631,0.111554,0.70812,-0.858598,1.60421,0.057315,-0.000328367,0,0,0,0,0,0,0,-0.147213,-31.2532,-1.41142,31.2872,1.56433,5.3402,-0.244339,
0.0558896,-0.0701771,0.103984,-1.9985,0.313607,0.031789,-0.0802287,0.220818,0.030168,0.228309,-0.316753,1.00482,0.282279,0.000769293,-6.12503,-1.75818,-6.314,9.73435,-44.2848,14.3788,1.15894,14.8933,0.113322,15.449,-25.8756,10.5781,6.70681,0.0613129,0.0346533,-0.0762952,0.0820083,-1.973,0.230334,0.0164841,-0.080641,0.515631,0.111554,0.70812,-0.858598,1.60421,0.057315,-0.000328367,0,0,0,0,0,0,0,-0.147213,-31.2532,-1.41142,31.2872,1.56433,5.3402,-0.244339,
0.0572508,-0.0700784,0.105393,-2.00044,0.318333,0.0348544,-0.0801642,0.210685,0.0266035,0.217874,-0.30192,0.922003,0.30246,0.00222748,-6.33334,-2.22781,-6.52158,9.27056,-51.7574,12.6133,0.911365,14.307,-0.159575,14.8838,-25.2169,10.2636,6.63434,0.0706506,0.0549004,-0.071643,0.102063,-2.00109,0.28671,0.0291477,-0.0806504,0.384869,0.202643,0.842539,-0.705118,1.66953,0.536366,-0.000618013,-16.3452,11.3861,16.8024,19.185,8.16444,59.8814,-0.0362057,-7.22088,-37.8667,-8.03679,34.9728,0.575558,5.71831,-0.117081,
0.0585354,-0.070019,0.106723,-2.0023,0.322084,0.0379592,-0.0801003,0.200663,0.0227675,0.207563,-0.288126,0.831392,0.319588,0.00337917,-6.26363,-2.39751,-6.44429,8.6213,-56.6319,10.7049,0.719808,13.8641,-0.0723508,14.4224,-24.8258,9.94133,6.4855,0.081165,0.0549004,-0.071643,0.102063,-2.00109,0.28671,0.0291477,-0.0806504,0.384869,0.202643,0.842539,-0.705118,1.66953,0.536366,-0.000618013,0,0,0,0,0,0,0,-7.22088,-37.8667,-8.03679,34.9728,0.575558,5.71831,-0.117081,
0.0746756,-0.0674761,0.123396,-2.00537,0.43751,0.0281881,-0.0816755,0.160775,0.0167469,0.166906,-0.228186,0.693538,0.268906,0.00238188,-24.9296,-3.76284,-25.4111,37.4627,-86.1593,-31.6761,-0.623308,3.63707,-0.00229792,3.73254,-2.86656,0.694659,2.10671,-0.00681646,0.0549004,-0.071643,0.102063,-2.00109,0.28671,0.0291477,-0.0806504,0.384869,0.202643,0.842539,-0.705118,1.66953,0.536366,-0.000618013,0,0,0,0,0,0,0,-7.22088,-37.8667,-8.03679,34.9728,0.575558,5.71831,-0.117081,
0.0746854,-0.0675346,0.12343,-2.00527,0.438644,0.0287158,-0.0816883,0.128865,0.0119347,0.134381,-0.180243,0.583182,0.228316,0.00158445,-19.9438,-3.00767,-20.3281,29.9642,-68.9719,-25.3687,-0.498394,3.6021,-0.0308479,3.68655,-2.51402,1.12045,1.84822,-0.0103198,0.0549004,-0.071643,0.102063,-2.00109,0.28671,0.0291477,-0.0806504,0.384869,0.202643,0.842539,-0.705118,1.66953,0.536366,-0.000618013,0,0,0,0,0,0,0,-7.22088,-37.8667,-8.03679,34.9728,0.575558,5.71831,-0.117081,
0.0746952,-0.0675929,0.123465,-2.00518,0.439775,0.0292417,-0.0817012,0.103337,0.00808898,0.108362,-0.141898,0.494828,0.1958,0.000946906,-15.9551,-2.40355,-16.2616,23.9655,-55.2218,-20.3226,-0.398463,3.44739,-0.693474,3.53548,-2.40619,1.36184,1.23807,-0.00900067,0.0738133,-0.0671347,0.118769,-2.02488,0.338697,0.0494394,-0.0805776,0.341027,0.159535,0.596862,-0.584188,1.27552,0.600341,0.00580561,-5.48024,-5.38845,-30.7096,15.1163,-49.2507,7.99687,0.802953,-9.73217,-36.0933,-10.0601,32.8583,-0.54871,3.99438,-0.103348,
0.074705,-0.0676511,0.123499,-2.00509,0.440904,0.0297658,-0.081714,0.0829145,0.00501656,0.0875484,-0.111232,0.424073,0.169743,0.000437275,-12.7641,-1.92026,-13.0085,19.1665,-44.2216,-16.2856,-0.318519,3.4441,-0.721699,3.52017,-2.06697,1.9787,0.886341,-0.0123532,0.0738133,-0.0671347,0.118769,-2.02488,0.338697,0.0494394,-0.0805776,0.341027,0.159535,0.596862,-0.584188,1.27552,0.600341,0.00580561,0,0,0,0,0,0,0,-9.73217,-36.0933,-10.0601,32.8583,-0.54871,3.99438,-0.103348,
0.0852093,-0.0612463,0.130558,-2.02992,0.401417,0.0326678,-0.0808737,0.0758919,0.00469672,0.0801888,-0.0892049,0.405109,0.12391,-8.07866e-05,-4.38913,-0.199904,-4.59975,13.7666,-11.8523,-28.6458,-0.323789,2.88604,-0.596321,2.89527,-0.213782,7.1082,-1.54426,-0.0123942,0.0738133,-0.0671347,0.118769,-2.02488,0.338697,0.0494394,-0.0805776,0.341027,0.159535,0.596862,-0.584188,1.27552,0.600341,0.00580561,0,0,0,0,0,0,0,-9.73217,-36.0933,-10.0601,32.8583,-0.54871,3.99438,-0.103348,
0.0855217,-0.0612468,0.130895,-2.0299,0.403675,0.032435,-0.0808907,0.068523,0.00374535,0.072557,-0.070924,0.380543,0.0933077,-0.000489284,-4.60554,-0.594603,-4.76983,11.4256,-15.3538,-19.1262,-0.255311,2.41022,-0.47247,2.40953,0.120082,7.92194,-1.85099,0.0002598,0.0738133,-0.0671347,0.118769,-2.02488,0.338697,0.0494394,-0.0805776,0.341027,0.159535,0.596862,-0.584188,1.27552,0.600341,0.00580561,0,0,0,0,0,0,0,-9.73217,-36.0933,-10.0601,32.8583,-0.54871,3.99438,-0.103348,
0.0857753,-0.0612662,0.131172,-2.02986,0.405666,0.0323875,-0.0809073,0.0611571,0.00250985,0.0649801,-0.0557945,0.354211,0.0734592,-0.000805645,-4.60369,-0.772189,-4.73555,9.45595,-16.4573,-12.4054,-0.197726,1.48494,-0.948318,1.46713,0.0939936,8.43728,-2.4768,0.0255287,0.0859903,-0.0617523,0.134984,-2.03538,0.369285,0.0579057,-0.0805718,0.304546,0.0694395,0.168982,-0.211189,0.795784,0.0891152,-0.000585841,-4.56019,-11.262,-53.485,46.6249,-59.967,-63.9032,-0.798932,-20.7652,-40.4851,-21.4581,27.9745,-0.359196,1.36864,-0.0905302,
0.0904175,-0.0599415,0.139578,-2.0369,0.392939,0.052225,-0.0807557,0.0625489,0.00541427,0.0662851,-0.0465597,0.359548,0.0418143,-0.00113777,0.869853,1.81526,0.815622,5.77172,3.33542,-19.778,-0.207581,0.0211164,-0.987807,0.107753,0.545685,7.83134,-2.04418,-0.0432926,0.0859903,-0.0617523,0.134984,-2.03538,0.369285,0.0579057,-0.0805718,0.304546,0.0694395,0.168982,-0.211189,0.795784,0.0891152,-0.000585841,0,0,0,0,0,0,0,-20.7652,-40.4851,-21.4581,27.9745,-0.359196,1.36864,-0.0905302,
0.0908549,-0.0598646,0.140042,-2.03693,0.395518,0.0517875,-0.0807746,0.0609754,0.0062529,0.0646265,-0.0381388,0.352108,0.0225122,-0.00138102,-0.983426,0.524145,-1.03668,5.26307,-4.6503,-12.0638,-0.152029,-0.121002,-0.593978,0.143899,1.13266,4.16861,-0.490352,-0.0522243,0.0859903,-0.0617523,0.134984,-2.03538,0.369285,0.0579057,-0.0805718,0.304546,0.0694395,0.168982,-0.211189,0.795784,0.0891152,-0.000585841,0,0,0,0,0,0,0,-20.7652,-40.4851,-21.4581,27.9745,-0.359196,1.36864,-0.0905302,
0.0912051,-0.0598288,0.140418,-2.03693,0.397761,0.0515464,-0.0807925,0.0575345,0.00589793,0.0611008,-0.0306178,0.337756,0.0119839,-0.00155286,-2.15059,-0.221857,-2.20352,4.70067,-8.96992,-6.58021,-0.107402,0.224929,-0.485853,0.492879,1.3288,2.66182,0.345565,-0.0197126,0.0859903,-0.0617523,0.134984,-2.03538,0.369285,0.0579057,-0.0805718,0.304546,0.0694395,0.168982,-0.211189,0.795784,0.0891152,-0.000585841,0,0,0,0,0,0,0,-20.7652,-40.4851,-21.4581,27.9745,-0.359196,1.36864,-0.0905302,
0.091485,-0.0598213,0.140723,-2.03692,0.399759,0.0514652,-0.0808096,0.053025,0.00490509,0.0565084,-0.023997,0.32017,0.00755632,-0.00166957,-2.81842,-0.620523,-2.87028,4.138,-10.991,-2.76723,-0.0729434,0.168753,-0.573044,0.446393,1.37656,1.64741,0.784182,-0.0176789,0.094555,-0.0589439,0.143657,-2.03863,0.397453,0.0580171,-0.0805726,0.268478,-0.0306458,0.152852,-0.102351,0.743008,-0.0350493,-0.00318342,-4.50845,-12.5107,-2.01617,13.6047,-6.597,-15.5206,-0.324697,-18.7855,-35.7442,-18.7088,25.2847,-0.46265,0.427481,-0.083206,
0.0997233,-0.059467,0.149054,-2.03853,0.420453,0.0554923,-0.0807596,0.0484421,0.00192599,0.0518701,-0.0171523,0.301177,0.00967885,-0.00176448,-2.86427,-1.86194,-2.89892,4.27788,-11.8706,1.32658,-0.059314,0.168753,-0.573044,0.446393,1.37656,1.64741,0.784182,-0.0176789,0.094555,-0.0589439,0.143657,-2.03863,0.397453,0.0580171,-0.0805726,0.268478,-0.0306458,0.152852,-0.102351,0.743008,-0.0350493,-0.00318342,0,0,0,0,0,0,0,-18.7855,-35.7442,-18.7088,25.2847,-0.46265,0.427481,-0.083206,
0.0999145,-0.0595452,0.14927,-2.03845,0.422126,0.0557207,-0.0807759,0.0435338,-0.000415642,0.0469065,-0.0115618,0.282768,0.013454,-0.00181858,-3.06774,-1.46352,-3.10226,3.49409,-11.5058,2.35948,-0.0338179,0.168753,-0.573044,0.446393,1.37656,1.64741,0.784182,-0.0176789,0.094555,-0.0589439,0.143657,-2.03863,0.397453,0.0580171,-0.0805726,0.268478,-0.0306458,0.152852,-0.102351,0.743008,-0.0350493,-0.00318342,0,0,0,0,0,0,0,-18.7855,-35.7442,-18.7088,25.2847,-0.46265,0.427481,-0.083206,
0.100067,-0.0596215,0.149447,-2.03836,0.423698,0.0560169,-0.0807915,0.0386344,-0.00223851,0.0419549,-0.0070013,0.265525,0.0181684,-0.00184488,-3.06213,-1.13929,-3.09474,2.85031,-10.7764,2.94651,-0.0164368,0.168753,-0.573044,0.446393,1.37656,1.64741,0.784182,-0.0176789,0.094555,-0.0589439,0.143657,-2.03863,0.397453,0.0580171,-0.0805726,0.268478,-0.0306458,0.152852,-0.102351,0.743008,-0.0350493,-0.00318342,0,0,0,0,0,0,0,-18.7855,-35.7442,-18.7088,25.2847,-0.46265,0.427481,-0.083206,
0.100189,-0.0596956,0.149594,-2.03826,0.425192,0.056368,-0.0808066,0.0339523,-0.00364511,0.0372254,-0.00328566,0.249759,0.0233105,-0.00185264,-2.92627,-0.879122,-2.95596,2.32227,-9.85409,3.2138,-0.0048474,0.133503,-0.691292,0.415533,1.29745,1.56478,0.718115,-0.0168404,0.10001,-0.0583864,0.147969,-2.03892,0.413418,0.0588165,-0.080569,0.21219,-0.0138783,-0.0462972,-0.0192529,0.428033,0.0618371,0.00151221,-7.03604,2.09593,-24.8937,10.3872,-39.3718,12.1108,0.586953,-7.29626,-31.3008,-7.58452,26.106,1.28967,0.719534,-0.157364,
0.101835,-0.0588403,0.14992,-2.03838,0.426157,0.0604659,-0.080676,0.031058,-0.00492125,0.0342852,-3.70626e-05,0.240614,0.0275913,-0.00187456,-1.80895,-0.797592,-1.83762,2.03037,-5.71559,2.67548,-0.0136976,0.133503,-0.691292,0.415533,1.29745,1.56478,0.718115,-0.0168404,0.10001,-0.0583864,0.147969,-2.03892,0.413418,0.0588165,-0.080569,0.21219,-0.0138783,-0.0462972,-0.0192529,0.428033,0.0618371,0.00151221,0,0,0,0,0,0,0,-7.29626,-31.3008,-7.58452,26.106,1.28967,0.719534,-0.157364,
0.10196,-0.0589185,0.150069,-2.03827,0.427693,0.0608582,-0.0806911,0.0279581,-0.00589082,0.0311438,0.00254995,0.230889,0.0318799,-0.00187788,-1.93745,-0.605981,-1.96335,1.61689,-6.07793,2.68037,-0.00207597,0.133503,-0.691292,0.415533,1.29745,1.56478,0.718115,-0.0168404,0.10001,-0.0583864,0.147969,-2.03892,0.413418,0.0588165,-0.080569,0.21219,-0.0138783,-0.0462972,-0.0192529,0.428033,0.0618371,0.00151221,0,0,0,0,0,0,0,-7.29626,-31.3008,-7.58452,26.106,1.28967,0.719534,-0.157364,
0.10206,-0.0589941,0.150193,-2.03817,0.429154,0.0612801,-0.0807058,0.0248636,-0.00660449,0.0280129,0.00460697,0.22125,0.0360515,-0.00186936,-1.93407,-0.446044,-1.95682,1.28563,-6.02478,2.60725,0.00532195,0.133503,-0.691292,0.415533,1.29745,1.56478,0.718115,-0.0168404,0.10001,-0.0583864,0.147969,-2.03892,0.413418,0.0588165,-0.080569,0.21219,-0.0138783,-0.0462972,-0.0192529,0.428033,0.0618371,0.00151221,0,0,0,0,0,0,0,-7.29626,-31.3008,-7.58452,26.106,1.28967,0.719534,-0.157364,
0.100527,-0.0584538,0.148486,-2.03888,0.416266,0.0590613,-0.0805888,0.0327991,-0.00696918,0.0353423,0.00474821,0.248204,0.0349608,-0.00198916,4.95971,-0.227929,4.58085,0.0882743,16.8465,-0.68168,-0.0748759,0.133503,-0.691292,0.415533,1.29745,1.56478,0.718115,-0.0168404,0.10001,-0.0583864,0.147969,-2.03892,0.413418,0.0588165,-0.080569,0.21219,-0.0138783,-0.0462972,-0.0192529,0.428033,0.0618371,0.00151221,0,0,0,0,0,0,0,-7.29626,-31.3008,-7.58452,26.106,1.28967,0.719534,-0.157364,
0.100923,-0.0585227,0.148909,-2.03879,0.418703,0.0592747,-0.0806081,0.0361581,-0.00729853,0.0388397,0.00604507,0.259471,0.0333037,-0.00207602,2.0994,-0.205844,2.18591,0.810542,7.04203,-1.03568,-0.0542844,0.121875,-0.713041,0.409377,1.27923,1.52597,0.715414,-0.016566,0.101887,-0.0583696,0.150328,-2.03879,0.424746,0.0592594,-0.0805736,0.110703,-0.00236365,-0.00275477,0.00499395,0.309253,-0.00863674,6.52602e-05,-12.6859,1.43933,5.4428,3.03085,-14.8475,-8.80923,-0.180868,-3.41626,-29.7536,-3.43474,26.106,1.49109,2.53594,-0.117081,
0.101236,-0.0585987,0.149247,-2.03869,0.420844,0.0595124,-0.0806265,0.0367458,-0.00773948,0.0395289,0.00736681,0.261113,0.0325847,-0.00212042,0.367277,-0.275594,0.43074,0.826084,1.02638,-0.449408,-0.0277514,0.121875,-0.713041,0.409377,1.27923,1.52597,0.715414,-0.016566,0.101887,-0.0583696,0.150328,-2.03879,0.424746,0.0592594,-0.0805736,0.110703,-0.00236365,-0.00275477,0.00499395,0.309253,-0.00863674,6.52602e-05,0,0,0,0,0,0,0,-3.41626,-29.7536,-3.43474,26.106,1.49109,2.53594,-0.117081,
0.101483,-0.0586789,0.149519,-2.03858,0.422767,0.0597895,-0.0806438,0.0355764,-0.0081961,0.0384279,0.00848662,0.25696,0.0329957,-0.00212938,-0.730849,-0.285391,-0.688141,0.699881,-2.59569,0.256874,-0.00559663,0.121875,-0.713041,0.409377,1.27923,1.52597,0.715414,-0.016566,0.101887,-0.0583696,0.150328,-2.03879,0.424746,0.0592594,-0.0805736,0.110703,-0.00236365,-0.00275477,0.00499395,0.309253,-0.00863674,6.52602e-05,0,0,0,0,0,0,0,-3.41626,-29.7536,-3.43474,26.106,1.49109,2.53594,-0.117081,
0.103101,-0.0587122,0.151679,-2.03831,0.435196,0.0605758,-0.0806701,0.031148,-0.00817565,0.0340385,0.00904884,0.241731,0.0357434,-0.0020702,-2.76775,0.0127859,-2.74337,0.351391,-9.51839,1.71736,0.0369826,0.121875,-0.713041,0.409377,1.27923,1.52597,0.715414,-0.016566,0.101887,-0.0583696,0.150328,-2.03879,0.424746,0.0592594,-0.0805736,0.110703,-0.00236365,-0.00275477,0.00499395,0.309253,-0.00863674,6.52602e-05,0,0,0,0,0,0,0,-3.41626,-29.7536,-3.43474,26.106,1.49109,2.53594,-0.117081,
0.103187,-0.0587768,0.15179,-2.03822,0.436583,0.0609874,-0.0806845,0.0270885,-0.00815492,0.0300072,0.00955174,0.228077,0.038884,-0.00201447,-2.5372,0.0129533,-2.51957,0.314313,-8.53378,1.96284,0.0348361,0.118441,-0.763457,0.417336,1.27151,1.49944,0.716742,-0.0164614,0.102832,-0.0593416,0.152311,-2.0388,0.432727,0.0585289,-0.0805759,-0.0279734,-0.042326,0.0963899,-0.0140539,0.234522,-0.00881347,-0.000769609,-17.3345,-4.99529,12.3931,-2.38098,-9.3414,-0.0220914,-0.104359,0.0551182,-28.7816,-0.260912,26.1575,3.0365,2.62841,-0.0969389,
0.103258,-0.0588408,0.151885,-2.03813,0.437925,0.0614293,-0.0806985,0.0234333,-0.00812541,0.0263725,0.00999372,0.216012,0.0421535,-0.00196313,-2.28448,0.0184422,-2.27167,0.276233,-7.54029,2.04345,0.0320866,0.118441,-0.763457,0.417336,1.27151,1.49944,0.716742,-0.0164614,0.102832,-0.0593416,0.152311,-2.0388,0.432727,0.0585289,-0.0805759,-0.0279734,-0.042326,0.0963899,-0.0140539,0.234522,-0.00881347,-0.000769609,0,0,0,0,0,0,0,0.0551182,-28.7816,-0.260912,26.1575,3.0365,2.62841,-0.0969389,
0.103316,-0.0589042,0.151967,-2.03803,0.439232,0.0618953,-0.0807124,0.0201879,-0.00808512,0.0231421,0.0103765,0.205468,0.0453727,-0.00191663,-2.0284,0.0251844,-2.019,0.239214,-6.59028,2.01204,0.02906,0.118441,-0.763457,0.417336,1.27151,1.49944,0.716742,-0.0164614,0.102832,-0.0593416,0.152311,-2.0388,0.432727,0.0585289,-0.0805759,-0.0279734,-0.042326,0.0963899,-0.0140539,0.234522,-0.00881347,-0.000769609,0,0,0,0,0,0,0,0.0551182,-28.7816,-0.260912,26.1575,3.0365,2.62841,-0.0969389,
0.103485,-0.0599276,0.153077,-2.03847,0.438851,0.0591416,-0.0806334,0.0190642,-0.00912813,0.0220547,0.010761,0.19993,0.0438293,-0.0019029,-0.702334,-0.651881,-0.679649,0.240348,-3.46147,-0.964629,0.0085838,0.11843,-0.763633,0.417346,1.27169,1.4967,0.719527,-0.0164591,0.102832,-0.0593416,0.152311,-2.0388,0.432727,0.0585289,-0.0805759,-0.0279734,-0.042326,0.0963899,-0.0140539,0.234522,-0.00881347,-0.000769609,0,0,0,0,0,0,0,0.0551182,-28.7816,-0.260912,26.1575,3.0365,2.62841,-0.0969389,
0.10358,-0.0600222,0.153197,-2.03837,0.440224,0.0595068,-0.0806479,0.017612,-0.00966816,0.020631,0.0110811,0.194271,0.0441917,-0.00188381,-0.90762,-0.33752,-0.889795,0.200063,-3.5367,0.226447,0.0119275,0.118585,-0.754317,0.418783,1.25994,1.47039,0.724986,-0.0164724,0.103789,-0.0589225,0.153804,-2.03854,0.440536,0.0587849,-0.0805709,0.021759,0.0373146,0.0474838,0.0102829,0.213495,0.0243613,0.0004558,6.21655,9.95507,-6.11326,3.0421,-2.62837,4.14685,0.153176,-0.805783,-33.225,-1.56218,26.2051,2.75543,1.34209,-0.130813,
0.103657,-0.0601085,0.153299,-2.03827,0.441557,0.0599196,-0.0806621,0.0160097,-0.00989228,0.0190511,0.0113394,0.188733,0.0456756,-0.00186147,-1.00142,-0.140075,-0.987434,0.161446,-3.46146,0.927466,0.0139659,0.118587,-0.754315,0.418785,1.25994,1.4704,0.724959,-0.0164724,0.103789,-0.0589225,0.153804,-2.03854,0.440536,0.0587849,-0.0805709,0.021759,0.0373146,0.0474838,0.0102829,0.213495,0.0243613,0.0004558,0,0,0,0,0,0,0,-0.805783,-33.225,-1.56218,26.2051,2.75543,1.34209,-0.130813,
0.104452,-0.05862,0.154603,-2.03838,0.447544,0.0605627,-0.0806459,0.0147964,-0.00805729,0.0178667,0.0104607,0.182672,0.0470187,-0.00183815,-0.758324,1.14687,-0.740226,-0.549198,-3.78795,0.839412,0.0145739,0.118516,-0.75599,0.418922,1.2617,1.4426,0.752361,-0.0164499,0.103789,-0.0589225,0.153804,-2.03854,0.440536,0.0587849,-0.0805709,0.021759,0.0373146,0.0474838,0.0102829,0.213495,0.0243613,0.0004558,0,0,0,0,0,0,0,-0.805783,-33.225,-1.56218,26.2051,2.75543,1.34209,-0.130813,
0.104516,-0.0586402,0.154692,-2.03832,0.448777,0.0610107,-0.0806597,0.0134455,-0.00695107,0.0165314,0.00999507,0.176961,0.0488146,-0.001814,-0.844289,0.691392,-0.834554,-0.291032,-3.56911,1.12246,0.0150946,0.118533,-0.755974,0.418935,1.26167,1.4428,0.75206,-0.0164502,0.103789,-0.0589225,0.153804,-2.03854,0.440536,0.0587849,-0.0805709,0.021759,0.0373146,0.0474838,0.0102829,0.213495,0.0243613,0.0004558,0,0,0,0,0,0,0,-0.805783,-33.225,-1.56218,26.2051,2.75543,1.34209,-0.130813,
0.104569,-0.0586707,0.15477,-2.03825,0.449985,0.0614841,-0.0806733,0.0120693,-0.00632434,0.0151623,0.00980722,0.171753,0.0508881,-0.00179051,-0.860127,0.391704,-0.85569,-0.117406,-3.25534,1.29593,0.0146804,0.121296,-0.754596,0.425185,1.24428,1.42526,0.746758,-0.0163457,0.104797,-0.0590612,0.154499,-2.03856,0.446534,0.0605529,-0.0805677,0.0260167,-0.0231142,0.00622556,-0.00263639,0.162772,0.0888304,0.00112281,0.532216,-7.5536,-5.15728,-1.61491,-6.34043,8.05863,0.083376,-0.0718349,-29.706,-0.487047,26.1298,3.06671,0.62615,-0.157364,
0.104612,-0.0587087,0.154838,-2.03817,0.451173,0.0619793,-0.0806867,0.010738,-0.00600884,0.013833,0.00979974,0.167103,0.0530899,-0.00176848,-0.832079,0.19719,-0.830857,-0.00467446,-2.9058,1.37615,0.0137692,0.121306,-0.754576,0.425192,1.24426,1.42547,0.746456,-0.0163461,0.104797,-0.0590612,0.154499,-2.03856,0.446534,0.0605529,-0.0805677,0.0260167,-0.0231142,0.00622556,-0.00263639,0.162772,0.0888304,0.00112281,0,0,0,0,0,0,0,-0.0718349,-29.706,-0.487047,26.1298,3.06671,0.62615,-0.157364,
0.105136,-0.0595266,0.15496,-2.03807,0.451946,0.0640239,-0.0806339,0.00969251,-0.00672661,0.0127933,0.0104237,0.158972,0.0607518,-0.00175035,-0.653428,-0.44861,-0.649803,0.38997,-5.08207,4.78869,0.0113309,0.12118,-0.771672,0.427011,1.26079,1.15389,1.01019,-0.0161308,0.104797,-0.0590612,0.154499,-2.03856,0.446534,0.0605529,-0.0805677,0.0260167,-0.0231142,0.00622556,-0.00263639,0.162772,0.0888304,0.00112281,0,0,0,0,0,0,0,-0.0718349,-29.706,-0.487047,26.1298,3.06671,0.62615,-0.157364,
0.105173,-0.0595999,0.155022,-2.03797,0.452937,0.0647656,-0.0806472,0.00867226,-0.00721421,0.0117785,0.0108991,0.151973,0.0671442,-0.00173257,-0.637656,-0.304748,-0.634263,0.297153,-4.37428,3.99521,0.0111097,0.121323,-0.771286,0.427117,1.2606,1.15587,1.00729,-0.0161336,0.104797,-0.0590612,0.154499,-2.03856,0.446534,0.0605529,-0.0805677,0.0260167,-0.0231142,0.00622556,-0.00263639,0.162772,0.0888304,0.00112281,0,0,0,0,0,0,0,-0.0718349,-29.706,-0.487047,26.1298,3.06671,0.62615,-0.157364,
0.105203,-0.0596705,0.155078,-2.03787,0.453914,0.0655142,-0.0806604,0.00771011,-0.0075372,0.0108215,0.0112574,0.145986,0.0724321,-0.00171558,-0.601348,-0.201871,-0.598114,0.22394,-3.74209,3.30498,0.0106181,0.125342,-0.739136,0.433333,1.22182,1.14383,0.983577,-0.0160281,0.105096,-0.0589915,0.15538,-2.0379,0.452346,0.0654862,-0.0805714,0.00138356,0.0153982,0.023785,0.0295123,0.176769,0.160848,0.00134728,-3.07915,4.81405,2.19493,4.01859,1.74968,9.00226,0.0280593,-0.171017,-31.6261,-0.685411,24.7372,2.45056,0.12261,-0.137222,
0.10523,-0.0597391,0.15513,-2.03777,0.454878,0.0662671,-0.0806735,0.00682469,-0.00774281,0.00994109,0.0115241,0.14089,0.0767685,-0.00169968,-0.553388,-0.128502,-0.550244,0.166664,-3.1848,2.71022,0.00993976,0.125435,-0.738825,0.433394,1.22162,1.14587,0.980646,-0.0160314,0.105096,-0.0589915,0.15538,-2.0379,0.452346,0.0654862,-0.0805714,0.00138356,0.0153982,0.023785,0.0295123,0.176769,0.160848,0.00134728,0,0,0,0,0,0,0,-0.171017,-31.6261,-0.685411,24.7372,2.45056,0.12261,-0.137222,
0.106028,-0.0629956,0.158491,-2.031,0.537931,0.109307,-0.0815859,0.00570005,-0.0072998,0.00890772,0.0109044,0.137198,0.0722926,-0.00165434,-0.702897,0.276881,-0.645856,-0.387284,-2.30786,-2.7974,0.0283411,0.125435,-0.738825,0.433394,1.22162,1.14587,0.980646,-0.0160314,0.105096,-0.0589915,0.15538,-2.0379,0.452346,0.0654862,-0.0805714,0.00138356,0.0153982,0.023785,0.0295123,0.176769,0.160848,0.00134728,0,0,0,0,0,0,0,-0.171017,-31.6261,-0.685411,24.7372,2.45056,0.12261,-0.137222,
0.106028,-0.0629956,0.158491,-2.031,0.537931,0.109307,-0.0815859,0.00480034,-0.00694539,0.00808103,0.0104087,0.134244,0.068712,-0.00161806,-0.562318,0.221505,-0.516685,-0.309828,-1.84629,-2.23792,0.0226729,0.125435,-0.738825,0.433394,1.22162,1.14587,0.980646,-0.0160314,0.105096,-0.0589915,0.15538,-2.0379,0.452346,0.0654862,-0.0805714,0.00138356,0.0153982,0.023785,0.0295123,0.176769,0.160848,0.00134728,0,0,0,0,0,0,0,-0.171017,-31.6261,-0.685411,24.7372,2.45056,0.12261,-0.137222,
0.106028,-0.0629956,0.158491,-2.031,0.537931,0.109307,-0.0815859,0.00408058,-0.00666186,0.00741967,0.0100121,0.13188,0.0658474,-0.00158904,-0.449854,0.177204,-0.413348,-0.247862,-1.47703,-1.79034,0.0181383,0.137411,-0.702642,0.448459,1.17405,1.13571,0.952328,-0.0159278,0.105314,-0.0591641,0.155688,-2.03727,0.458028,0.0714225,-0.0805766,0.00128587,-0.0137134,0.00326867,0.00271707,0.251293,0.192518,-0.000666052,-0.0122101,-3.63895,-2.56454,-3.3494,9.31549,3.95869,-0.251667,0.134464,-30.1265,-0.185533,25.5347,3.59863,1.18279,-0.0905302,
0.112004,-0.0600961,0.164661,-2.03334,0.338991,0.304693,-0.0813083,0.00313219,-0.00470894,0.00641103,0.00840835,0.145711,0.042912,-0.00150236,-0.592742,1.22058,-0.630397,-1.00237,8.64427,-14.3346,0.0541709,0.137411,-0.702642,0.448459,1.17405,1.13571,0.952328,-0.0159278,0.105314,-0.0591641,0.155688,-2.03727,0.458028,0.0714225,-0.0805766,0.00128587,-0.0137134,0.00326867,0.00271707,0.251293,0.192518,-0.000666052,0,0,0,0,0,0,0,0.134464,-30.1265,-0.185533,25.5347,3.59863,1.18279,-0.0905302,
0.106265,-0.0640975,0.159312,-2.02947,0.563161,0.118657,-0.0817719,0.00274946,-0.00479244,0.00611671,0.00821997,0.140374,0.0445019,-0.00149198,-0.239204,-0.0521866,-0.183955,-0.117739,-3.33549,0.993667,0.00649044,0.137411,-0.702642,0.448459,1.17405,1.13571,0.952328,-0.0159278,0.105314,-0.0591641,0.155688,-2.03727,0.458028,0.0714225,-0.0805766,0.00128587,-0.0137134,0.00326867,0.00271707,0.251293,0.192518,-0.000666052,0,0,0,0,0,0,0,0.134464,-30.1265,-0.185533,25.5347,3.59863,1.18279,-0.0905302,
0.106265,-0.0640975,0.159312,-2.02947,0.563161,0.118657,-0.0817719,0.00244328,-0.00485923,0.00588124,0.00806926,0.136105,0.0457738,-0.00148367,-0.191363,-0.0417493,-0.147164,-0.0941913,-2.66839,0.794934,0.00519235,0.137411,-0.702642,0.448459,1.17405,1.13571,0.952328,-0.0159278,0.105314,-0.0591641,0.155688,-2.03727,0.458028,0.0714225,-0.0805766,0.00128587,-0.0137134,0.00326867,0.00271707,0.251293,0.192518,-0.000666052,0,0,0,0,0,0,0,0.134464,-30.1265,-0.185533,25.5347,3.59863,1.18279,-0.0905302,
0.106265,-0.0640975,0.159312,-2.02947,0.563161,0.118657,-0.0817719,0.00219834,-0.00491267,0.00569287,0.00794869,0.132689,0.0467913,-0.00147703,-0.153091,-0.0333994,-0.117731,-0.0753531,-2.13471,0.635947,0.00415388,0.137411,-0.702642,0.448459,1.17405,1.13571,0.952328,-0.0159278,0.105314,-0.0591641,0.155688,-2.03727,0.458028,0.0714225,-0.0805766,0.00128587,-0.0137134,0.00326867,0.00271707,0.251293,0.192518,-0.000666052,0,0,0,0,0,0,0,0.134464,-30.1265,-0.185533,25.5347,3.59863,1.18279,-0.0905302,
0.122182,-0.0562888,0.170128,-2.03539,0.416792,0.150391,-0.0805262,0.0048162,-0.00386193,0.00780941,0.00749097,0.105854,0.0564808,-0.00129096,1.63616,0.656714,1.32284,-0.286077,-16.772,6.05594,0.11629,7.99617,1.81876,6.73505,0.125698,-1.87699,3.90761,0.00384522,0.105314,-0.0591641,0.155688,-2.03727,0.458028,0.0714225,-0.0805766,0.00128587,-0.0137134,0.00326867,0.00271707,0.251293,0.192518,-0.000666052,0,0,0,0,0,0,0,0.134464,-30.1265,-0.185533,25.5347,3.59863,1.18279,-0.0905302,
0.122291,-0.0562901,0.170248,-2.03534,0.416935,0.151076,-0.080531,0.00655947,-0.00312202,0.00924083,0.00714857,0.0882623,0.0622897,-0.00115084,1.08954,0.462441,0.89464,-0.214002,-10.995,3.63055,0.0875764,7.85167,1.77616,6.60956,0.139565,-1.84675,3.76979,0.0036386,0.105314,-0.0591641,0.155688,-2.03727,0.458028,0.0714225,-0.0805766,0.00128587,-0.0137134,0.00326867,0.00271707,0.251293,0.192518,-0.000666052,0,0,0,0,0,0,0,0.134464,-30.1265,-0.185533,25.5347,3.59863,1.18279,-0.0905302,
0.122385,-0.0562954,0.170357,-2.03529,0.41725,0.151675,-0.080536,0.00759879,-0.00262971,0.0101221,0.00689613,0.078478,0.0648056,-0.00104668,0.649576,0.307694,0.55077,-0.157772,-6.11516,1.57242,0.0650967,7.70655,1.73269,6.48436,0.153966,-1.81961,3.64112,0.00344279,0.105314,-0.0591641,0.155688,-2.03727,0.458028,0.0714225,-0.0805766,0.00128587,-0.0137134,0.00326867,0.00271707,0.251293,0.192518,-0.000666052,0,0,0,0,0,0,0,0.134464,-30.1265,-0.185533,25.5347,3.59863,1.18279,-0.0905302,
0.122464,-0.0563046,0.170456,-2.03525,0.417752,0.152181,-0.0805413,0.00807206,-0.00233304,0.0105623,0.0067119,0.0753411,0.0645097,-0.000969979,0.295796,0.185424,0.275152,-0.115148,-1.96058,-0.184891,0.0479406,7.56087,1.68846,6.35943,0.168873,-1.79524,3.52086,0.00325737,0.105314,-0.0591641,0.155688,-2.03727,0.458028,0.0714225,-0.0805766,0.00128587,-0.0137134,0.00326867,0.00271707,0.251293,0.192518,-0.000666052,0,0,0,0,0,0,0,0.134464,-30.1265,-0.185533,25.5347,3.59863,1.18279,-0.0905302,
0.106469,-0.0640997,0.159534,-2.02974,0.608308,0.0994859,-0.0820281,0.00678674,-0.0029622,0.00953767,0.0068287,0.0943689,0.0581571,-0.00113349,-0.803326,-0.39323,-0.640401,0.0730005,11.8924,-3.97043,-0.102195,7.53718,1.75277,6.33714,0.104531,-1.81565,3.48393,0.0037846,0.105522,-0.0590812,0.156167,-2.03727,0.463503,0.0809979,-0.0805744,0.0194423,0.00681107,0.0357545,0.0104843,-0.0839266,0.327466,2.40593e-05,2.26956,2.56556,4.06072,0.970904,-41.9025,16.8685,0.086264,-2.04754,-31.1263,-2.3358,26.2567,2.10815,0.885245,-0.110672,
0.106469,-0.0640997,0.159534,-2.02974,0.608308,0.0994859,-0.0820281,0.00575848,-0.00346554,0.00871796,0.00692214,0.109591,0.0530749,-0.0012643,-0.642661,-0.314584,-0.512321,0.0584004,9.51391,-3.17634,-0.0817557,7.53718,1.75277,6.33714,0.104531,-1.81565,3.48393,0.0037846,0.105522,-0.0590812,0.156167,-2.03727,0.463503,0.0809979,-0.0805744,0.0194423,0.00681107,0.0357545,0.0104843,-0.0839266,0.327466,2.40593e-05,0,0,0,0,0,0,0,-2.04754,-31.1263,-2.3358,26.2567,2.10815,0.885245,-0.110672,
0.106469,-0.0640997,0.159534,-2.02974,0.608308,0.0994859,-0.0820281,0.00493588,-0.00386821,0.00806219,0.00699689,0.121769,0.0490092,-0.00136895,-0.514129,-0.251667,-0.409856,0.0467203,7.61113,-2.54107,-0.0654046,7.53718,1.75277,6.33714,0.104531,-1.81565,3.48393,0.0037846,0.105522,-0.0590812,0.156167,-2.03727,0.463503,0.0809979,-0.0805744,0.0194423,0.00681107,0.0357545,0.0104843,-0.0839266,0.327466,2.40593e-05,0,0,0,0,0,0,0,-2.04754,-31.1263,-2.3358,26.2567,2.10815,0.885245,-0.110672,
0.121128,-0.055631,0.169411,-2.03535,0.421135,0.160311,-0.0806193,0.00611202,-0.00307576,0.00899582,0.00672718,0.108971,0.0530587,-0.00128284,0.735093,0.495279,0.583522,-0.168568,-7.99884,2.53094,0.0538168,7.46163,1.87063,6.14679,0.254465,-1.82253,3.7603,0.00360078,0.105522,-0.0590812,0.156167,-2.03727,0.463503,0.0809979,-0.0805744,0.0194423,0.00681107,0.0357545,0.0104843,-0.0839266,0.327466,2.40593e-05,0,0,0,0,0,0,0,-2.04754,-31.1263,-2.3358,26.2567,2.10815,0.885245,-0.110672,
0.1212,-0.0556341,0.169502,-2.03531,0.421807,0.16076,-0.0806271,0.00670215,-0.00253751,0.00948694,0.00651728,0.103984,0.0536729,-0.00122247,0.368827,0.336409,0.306946,-0.131186,-3.1165,0.383902,0.037733,7.31165,1.94797,6.02427,0.139721,-1.83494,3.57498,0.0039746,0.106651,-0.0590416,0.157351,-2.03718,0.469051,0.0898169,-0.0805608,0.121706,-0.000776682,0.0733294,-0.012203,-0.411054,0.440058,-0.000345396,12.7829,-0.948469,4.69686,-2.83591,-40.891,14.0741,-0.046182,4.82379,-29.5274,4.33717,26.6534,1.29608,2.31713,-0.190323,
0.121259,-0.0556408,0.169584,-2.03526,0.422707,0.161096,-0.0806352,0.00682191,-0.00219792,0.0096243,0.0063485,0.105686,0.0513565,-0.00118031,0.074851,0.21224,0.0858556,-0.105491,1.06351,-1.44777,0.0263479,7.17242,1.90159,5.90862,0.152547,-1.81081,3.45643,0.00372314,0.106651,-0.0590416,0.157351,-2.03718,0.469051,0.0898169,-0.0805608,0.121706,-0.000776682,0.0733294,-0.012203,-0.411054,0.440058,-0.000345396,0,0,0,0,0,0,0,4.82379,-29.5274,4.33717,26.6534,1.29608,2.31713,-0.190323,
0.121303,-0.0556508,0.169655,-2.03522,0.423849,0.161316,-0.0806434,0.00656759,-0.00200961,0.00948218,0.00620307,0.113096,0.0465743,-0.00114952,-0.158947,0.117693,-0.088825,-0.090896,4.63141,-2.98888,0.019244,7.03267,1.8546,5.7932,0.16575,-1.78907,3.34575,0.00348124,0.106651,-0.0590416,0.157351,-2.03718,0.469051,0.0898169,-0.0805608,0.121706,-0.000776682,0.0733294,-0.012203,-0.411054,0.440058,-0.000345396,0,0,0,0,0,0,0,4.82379,-29.5274,4.33717,26.6534,1.29608,2.31713,-0.190323,
0.109074,-0.0626056,0.16254,-2.03125,0.65412,0.0972143,-0.0822804,0.00567216,-0.00257853,0.00876185,0.00625225,0.134794,0.0395509,-0.00133104,-0.559644,-0.355574,-0.450211,0.0307407,13.561,-4.38963,-0.113447,7.03267,1.8546,5.7932,0.16575,-1.78907,3.34575,0.00348124,0.106651,-0.0590416,0.157351,-2.03718,0.469051,0.0898169,-0.0805608,0.121706,-0.000776682,0.0733294,-0.012203,-0.411054,0.440058,-0.000345396,0,0,0,0,0,0,0,4.82379,-29.5274,4.33717,26.6534,1.29608,2.31713,-0.190323,
0.109074,-0.0626056,0.16254,-2.03125,0.65412,0.0972143,-0.0822804,0.00495582,-0.00303367,0.00818558,0.0062916,0.152152,0.0339322,-0.00147625,-0.447716,-0.284459,-0.360169,0.0245926,10.8488,-3.5117,-0.0907579,7.05178,1.82851,5.80936,0.203756,-1.75146,3.32713,0.003006,0.108852,-0.0584671,0.159091,-2.03722,0.473689,0.102494,-0.0805655,0.0672651,0.0126348,0.0446154,-0.00604424,0.189603,0.273978,0.00196082,-6.80507,1.67644,-3.58924,0.769843,75.0822,-20.7601,0.288277,2.51484,-30.4518,2.01234,26.951,4.17816,0.758902,-0.190323,
0.109074,-0.0626056,0.16254,-2.03125,0.65412,0.0972143,-0.0822804,0.00438274,-0.00339777,0.00772456,0.00632308,0.166039,0.0294372,-0.00159242,-0.358172,-0.227567,-0.288135,0.0196741,8.67907,-2.80936,-0.0726063,7.05178,1.82851,5.80936,0.203756,-1.75146,3.32713,0.003006,0.108852,-0.0584671,0.159091,-2.03722,0.473689,0.102494,-0.0805655,0.0672651,0.0126348,0.0446154,-0.00604424,0.189603,0.273978,0.00196082,0,0,0,0,0,0,0,2.51484,-30.4518,2.01234,26.951,4.17816,0.758902,-0.190323,
0.109074,-0.0626056,0.16254,-2.03125,0.65412,0.0972143,-0.0822804,0.00392428,-0.00368906,0.00735575,0.00634826,0.177148,0.0258412,-0.00168536,-0.286538,-0.182054,-0.230508,0.0157393,6.94326,-2.24749,-0.058085,7.05178,1.82851,5.80936,0.203756,-1.75146,3.32713,0.003006,0.108852,-0.0584671,0.159091,-2.03722,0.473689,0.102494,-0.0805655,0.0672651,0.0126348,0.0446154,-0.00604424,0.189603,0.273978,0.00196082,0,0,0,0,0,0,0,2.51484,-30.4518,2.01234,26.951,4.17816,0.758902,-0.190323,
0.126142,-0.0540418,0.172703,-2.03559,0.430985,0.177291,-0.0805128,0.00763067,-0.00184058,0.00984722,0.0059555,0.128459,0.0456163,-0.00146929,2.31649,1.1553,1.55717,-0.245473,-30.4307,12.3594,0.13504,7.61769,2.19202,5.82648,0.266881,-2.04784,3.79689,0.00789709,0.108852,-0.0584671,0.159091,-2.03722,0.473689,0.102494,-0.0805655,0.0672651,0.0126348,0.0446154,-0.00604424,0.189603,0.273978,0.00196082,0,0,0,0,0,0,0,2.51484,-30.4518,2.01234,26.951,4.17816,0.758902,-0.190323,
0.126309,-0.054001,0.172853,-2.03556,0.430542,0.178241,-0.0805181,0.0102991,-0.000453655,0.0116369,0.00564915,0.091699,0.060246,-0.00130844,1.66777,0.866826,1.11852,-0.191472,-22.9748,9.14358,0.100533,7.45269,2.27457,5.68437,0.190837,-2.00354,3.59943,0.00804257,0.111822,-0.057349,0.162332,-2.03705,0.47224,0.117165,-0.0805673,0.0690327,0.0379473,0.139593,0.0138155,-0.024912,0.458512,0.00143837,0.220945,3.16406,11.8722,2.48247,-26.8144,23.0668,-0.0653065,-1.18664,-31.3524,-1.81212,24.6103,1.67419,-0.0431002,-0.130813,
0.126465,-0.053964,0.172995,-2.03552,0.4302,0.179138,-0.0805239,0.012133,0.000563193,0.0128625,0.00541171,0.0648023,0.0706255,-0.00119256,1.14618,0.63553,0.766012,-0.148399,-16.8104,6.48717,0.0724254,7.32161,2.22832,5.5801,0.202906,-1.96147,3.47318,0.00759025,0.111822,-0.057349,0.162332,-2.03705,0.47224,0.117165,-0.0805673,0.0690327,0.0379473,0.139593,0.0138155,-0.024912,0.458512,0.00143837,0,0,0,0,0,0,0,-1.18664,-31.3524,-1.81212,24.6103,1.67419,-0.0431002,-0.130813,
0.114483,-0.0578709,0.165606,-2.03754,0.4533,0.136844,-0.0803291,0.0320009,-0.00638905,0.0375185,-0.000242515,-0.155011,0.241326,0.00084939,12.4174,-4.34515,15.41,-3.53389,-137.383,106.688,1.27622,4.75352,-4.30971,7.75523,-1.84589,-14.6015,11.5258,0.0779925,0.111822,-0.057349,0.162332,-2.03705,0.47224,0.117165,-0.0805673,0.0690327,0.0379473,0.139593,0.0138155,-0.024912,0.458512,0.00143837,0,0,0,0,0,0,0,-1.18664,-31.3524,-1.81212,24.6103,1.67419,-0.0431002,-0.130813,
0.115343,-0.0581752,0.166655,-2.03772,0.443928,0.144688,-0.0802593,0.0471092,-0.0127188,0.056257,-0.0048396,-0.358307,0.389174,0.00242341,9.44267,-3.95609,11.7116,-2.87318,-127.06,92.4046,0.983764,5.23213,-4.20916,8.01518,-1.8303,-14.6015,11.5258,0.0753286,0.111822,-0.057349,0.162332,-2.03705,0.47224,0.117165,-0.0805673,0.0690327,0.0379473,0.139593,0.0138155,-0.024912,0.458512,0.00143837,0,0,0,0,0,0,0,-1.18664,-31.3524,-1.81212,24.6103,1.67419,-0.0431002,-0.130813,
0.116167,-0.058488,0.16766,-2.03791,0.43383,0.152832,-0.0801901,0.0582728,-0.017995,0.0701211,-0.00859232,-0.539088,0.51492,0.00366944,6.9773,-3.29765,8.66506,-2.34545,-112.988,78.5916,0.778767,5.7759,-4.09861,8.36436,-1.84801,-14.5936,11.4947,0.0763281,0.11432,-0.0565425,0.164363,-2.03717,0.482865,0.127765,-0.0805721,0.104437,0.0200922,0.0222457,0.0016633,0.337315,0.290041,0.0004267,4.42559,-2.23189,-14.6684,-1.51903,45.2784,-21.0589,-0.126458,2.13398,-31.6261,1.43709,26.6058,3.2196,0.274588,-0.130813,
0.116955,-0.0587971,0.168621,-2.0381,0.423251,0.161173,-0.0801209,0.066316,-0.0221254,0.0801314,-0.0116825,-0.695756,0.620483,0.00466514,5.02696,-2.58145,6.25639,-1.93138,-97.9172,65.9767,0.622315,6.22989,-4.01454,8.65265,-1.83613,-14.5936,11.4947,0.0785951,0.11432,-0.0565425,0.164363,-2.03717,0.482865,0.127765,-0.0805721,0.104437,0.0200922,0.0222457,0.0016633,0.337315,0.290041,0.0004267,0,0,0,0,0,0,0,2.13398,-31.6261,1.43709,26.6058,3.2196,0.274588,-0.130813,
0.116032,-0.056663,0.166015,-2.03745,0.475169,0.138712,-0.0803717,0.0758112,-0.019892,0.0864614,-0.0132043,-0.692905,0.651633,0.00612707,5.93455,1.39587,3.95625,-0.951134,1.78176,19.4689,0.913705,5.53377,-0.188493,5.71968,-3.50867,-14.5936,11.4947,0.0778335,0.11432,-0.0565425,0.164363,-2.03717,0.482865,0.127765,-0.0805721,0.104437,0.0200922,0.0222457,0.0016633,0.337315,0.290041,0.0004267,0,0,0,0,0,0,0,2.13398,-31.6261,1.43709,26.6058,3.2196,0.274588,-0.130813,
0.116979,-0.0567539,0.166957,-2.03763,0.467635,0.145851,-0.0802807,0.0843196,-0.0181857,0.0927201,-0.0149328,-0.742685,0.699793,0.00717592,5.31773,1.0664,3.91173,-1.08031,-31.1123,30.0996,0.655529,6.40741,0.356276,6.59945,-3.32537,-14.5936,11.4947,0.0838924,0.11432,-0.0565425,0.164363,-2.03717,0.482865,0.127765,-0.0805721,0.104437,0.0200922,0.0222457,0.0016633,0.337315,0.290041,0.0004267,0,0,0,0,0,0,0,2.13398,-31.6261,1.43709,26.6058,3.2196,0.274588,-0.130813,
0.117926,-0.0568267,0.167904,-2.03782,0.458739,0.153586,-0.0801914,0.0911185,-0.0163688,0.0978526,-0.0168589,-0.816546,0.753206,0.00797505,4.24933,1.13556,3.20779,-1.20377,-46.1636,33.3834,0.499456,7.13231,0.839258,7.30691,-3.45719,-14.6255,11.3968,0.0936789,0.117826,-0.0559483,0.16729,-2.03734,0.479635,0.144481,-0.0805675,0.0578052,-0.0342699,0.135622,-0.0563801,-0.291022,0.757005,0.00277123,-5.82903,-6.79527,14.1721,-7.25543,-78.5421,58.3705,0.293066,0.233646,-33.4471,0.338148,27.3993,0.294491,4.92913,-0.117081,
0.118856,-0.0568737,0.168836,-2.03804,0.448946,0.161704,-0.0801024,0.0961526,-0.0142699,0.101602,-0.0189641,-0.89806,0.80551,0.00860449,3.14625,1.31185,2.34339,-1.31575,-50.9463,32.6902,0.3934,7.78148,0.94933,7.92536,-3.41789,-14.6255,11.3968,0.0997869,0.117826,-0.0559483,0.16729,-2.03734,0.479635,0.144481,-0.0805675,0.0578052,-0.0342699,0.135622,-0.0563801,-0.291022,0.757005,0.00277123,0,0,0,0,0,0,0,0.233646,-33.4471,0.338148,27.3993,0.294491,4.92913,-0.117081,
0.120407,-0.0563896,0.169971,-2.0383,0.457616,0.167183,-0.0801746,0.0985585,-0.0143947,0.103698,-0.0240538,-0.941073,0.846613,0.0101251,1.50369,-0.0779898,1.30973,-3.18109,-26.8827,25.6893,0.95037,4.91506,1.60783,5.6733,-6.20477,-14.6255,11.3968,0.136059,0.117826,-0.0559483,0.16729,-2.03734,0.479635,0.144481,-0.0805675,0.0578052,-0.0342699,0.135622,-0.0563801,-0.291022,0.757005,0.00277123,0,0,0,0,0,0,0,0.233646,-33.4471,0.338148,27.3993,0.294491,4.92913,-0.117081,
0.121257,-0.0564888,0.170853,-2.03871,0.447827,0.175557,-0.0800442,0.100112,-0.0139953,0.105006,-0.0293479,-0.997604,0.88664,0.01136,0.971137,0.249566,0.817861,-3.30884,-35.3321,25.0168,0.771835,5.98461,1.32747,6.59228,-6.19868,-14.6255,11.3968,0.144712,0.117826,-0.0559483,0.16729,-2.03734,0.479635,0.144481,-0.0805675,0.0578052,-0.0342699,0.135622,-0.0563801,-0.291022,0.757005,0.00277123,0,0,0,0,0,0,0,0.233646,-33.4471,0.338148,27.3993,0.294491,4.92913,-0.117081,
0.122091,-0.0565714,0.17172,-2.03915,0.437443,0.184108,-0.0799124,0.100933,-0.0132604,0.105678,-0.0346699,-1.05766,0.923074,0.0123815,0.512777,0.459317,0.419586,-3.32623,-37.5372,22.7713,0.638423,6.68801,1.73095,7.23647,-7.07213,-14.6905,11.0186,0.155554,0.121807,-0.0567914,0.173658,-2.03935,0.43579,0.1874,-0.0804693,0.0708628,0.00179345,0.27482,-0.0477068,-1.07646,1.38308,0.00908144,1.63221,4.50792,17.3998,1.08417,-98.1802,78.2595,0.788777,-1.76983,-29.2061,-2.23662,23.8406,2.20611,2.32354,-0.183914,
0.128848,-0.0574459,0.180991,-2.04255,0.361282,0.252316,-0.0796712,0.103229,-0.0133901,0.107791,-0.0417152,-1.12758,0.95758,0.0125134,1.43529,-0.0810333,1.32112,-4.40331,-43.6979,21.5662,0.0824657,8.87224,0.391536,9.38445,-7.37779,-14.6905,11.0186,0.162624,0.121807,-0.0567914,0.173658,-2.03935,0.43579,0.1874,-0.0804693,0.0708628,0.00179345,0.27482,-0.0477068,-1.07646,1.38308,0.00908144,0,0,0,0,0,0,0,-1.76983,-29.2061,-2.23662,23.8406,2.20611,2.32354,-0.183914,
0.129739,-0.0575538,0.181912,-2.04313,0.349965,0.261008,-0.0795717,0.104869,-0.0134105,0.109253,-0.0478947,-1.18497,0.983383,0.0124963,1.02481,-0.0127506,0.913572,-3.86219,-35.8687,16.1267,-0.0107384,9.19177,0.158404,9.7183,-7.44229,-14.6905,11.0186,0.157631,0.121807,-0.0567914,0.173658,-2.03935,0.43579,0.1874,-0.0804693,0.0708628,0.00179345,0.27482,-0.0477068,-1.07646,1.38308,0.00908144,0,0,0,0,0,0,0,-1.76983,-29.2061,-2.23662,23.8406,2.20611,2.32354,-0.183914,
0.130615,-0.0576555,0.182818,-2.04375,0.338873,0.269644,-0.0794803,0.105776,-0.0132692,0.110055,-0.053645,-1.22529,1.0026,0.0122833,0.566983,0.0883207,0.501309,-3.59395,-25.2017,12.0126,-0.133125,9.49111,-0.0423361,10.0257,-7.49451,-14.6905,11.0186,0.150387,0.121807,-0.0567914,0.173658,-2.03935,0.43579,0.1874,-0.0804693,0.0708628,0.00179345,0.27482,-0.0477068,-1.07646,1.38308,0.00908144,0,0,0,0,0,0,0,-1.76983,-29.2061,-2.23662,23.8406,2.20611,2.32354,-0.183914,
0.131468,-0.0577445,0.183703,-2.04439,0.328292,0.27823,-0.0793945,0.10595,-0.0128419,0.110169,-0.0590857,-1.24475,1.01673,0.0119717,0.108756,0.267058,0.0708637,-3.40041,-12.1606,8.82661,-0.194739,9.80698,-0.219811,10.3246,-7.534,-14.6905,11.0186,0.146282,0.121807,-0.0567914,0.173658,-2.03935,0.43579,0.1874,-0.0804693,0.0708628,0.00179345,0.27482,-0.0477068,-1.07646,1.38308,0.00908144,0,0,0,0,0,0,0,-1.76983,-29.2061,-2.23662,23.8406,2.20611,2.32354,-0.183914,
0.135287,-0.0574175,0.187993,-2.04604,0.319174,0.299151,-0.0796859,0.10593,-0.0115423,0.11012,-0.0621733,-1.20388,1.01661,0.0114555,-0.0122399,0.812248,-0.0300516,-1.92974,25.5451,-0.0721081,-0.32262,10.4851,-0.441502,10.8807,-8.04635,-14.5546,10.7174,0.133197,0.128146,-0.0569211,0.180596,-2.04205,0.388326,0.235173,-0.0802848,0.0944216,-0.00831428,0.264024,-0.105599,-1.23818,1.47651,0.00834005,2.94485,-1.26347,-1.34958,-7.23647,-20.2141,11.6785,-0.0926735,-3.62256,-28.857,-4.71221,23.9874,-0.310673,4.02093,0.017502,
0.136095,-0.0574517,0.188833,-2.0466,0.311556,0.306693,-0.0796133,0.104941,-0.0100903,0.109096,-0.0637264,-1.15354,1.00184,0.0109793,-0.618387,0.907493,-0.639983,-0.970689,31.4638,-9.23219,-0.297592,10.6855,-0.534156,11.0655,-8.12978,-14.5546,10.7174,0.126506,0.128146,-0.0569211,0.180596,-2.04205,0.388326,0.235173,-0.0802848,0.0944216,-0.00831428,0.264024,-0.105599,-1.23818,1.47651,0.00834005,0,0,0,0,0,0,0,-3.62256,-28.857,-4.71221,23.9874,-0.310673,4.02093,0.017502,
0.136871,-0.057476,0.18964,-2.04712,0.304628,0.313606,-0.079543,0.103346,-0.00867878,0.107457,-0.0641898,-1.09605,0.974293,0.0105397,-0.996899,0.882199,-1.0249,-0.289643,35.9298,-17.2161,-0.274771,10.8718,-0.540938,11.2434,-8.19719,-13.7103,10.7174,0.120532,0.128146,-0.0569211,0.180596,-2.04205,0.388326,0.235173,-0.0802848,0.0944216,-0.00831428,0.264024,-0.105599,-1.23818,1.47651,0.00834005,0,0,0,0,0,0,0,-3.62256,-28.857,-4.71221,23.9874,-0.310673,4.02093,0.017502,
0.137621,-0.0574946,0.190421,-2.04763,0.298356,0.319886,-0.0794752,0.101422,-0.00740819,0.10548,-0.0639527,-1.03364,0.936441,0.010128,-1.20235,0.794117,-1.2354,0.148175,39.0055,-23.6574,-0.257335,11.0402,-0.469941,11.3956,-8.24565,-12.4903,10.7174,0.117854,0.128146,-0.0569211,0.180596,-2.04205,0.388326,0.235173,-0.0802848,0.0944216,-0.00831428,0.264024,-0.105599,-1.23818,1.47651,0.00834005,0,0,0,0,0,0,0,-3.62256,-28.857,-4.71221,23.9874,-0.310673,4.02093,0.017502,
0.143075,-0.0572348,0.195806,-2.05059,0.277483,0.341817,-0.0796413,0.0985552,-0.00638412,0.102535,-0.0621995,-0.919093,0.841775,0.00941807,-1.79193,0.640048,-1.84081,1.09572,71.5916,-59.1663,-0.443683,10.6693,1.11805,11.0201,-8.94864,-8.53881,7.76023,0.111513,0.135717,-0.0574152,0.188099,-2.04654,0.328985,0.2903,-0.0800125,0.214732,-0.0127861,0.27056,-0.175128,-1.73638,1.75725,0.00523106,15.0388,-0.558983,0.816984,-8.69119,-62.2759,35.0922,-0.388624,-0.40112,-29.7298,-1.16149,26.7526,1.06994,3.74261,0.0303194,
0.143755,-0.0572545,0.196515,-2.05103,0.274208,0.345075,-0.0795904,0.0958684,-0.00560099,0.0997684,-0.0607999,-0.817163,0.754867,0.00880493,-1.67921,0.489454,-1.72891,0.874758,63.7058,-54.3176,-0.383214,10.5333,1.30866,10.8843,-8.86944,-7.75896,6.83812,0.108468,0.135717,-0.0574152,0.188099,-2.04654,0.328985,0.2903,-0.0800125,0.214732,-0.0127861,0.27056,-0.175128,-1.73638,1.75725,0.00523106,0,0,0,0,0,0,0,-0.40112,-29.7298,-1.16149,26.7526,1.06994,3.74261,0.0303194,
0.144424,-0.0572747,0.197212,-2.05148,0.271289,0.347943,-0.0795416,0.0934061,-0.00498555,0.0972304,-0.0597041,-0.726699,0.675597,0.00826621,-1.53897,0.384648,-1.58629,0.684872,56.5404,-49.5437,-0.336701,10.3562,1.46399,10.7084,-8.78267,-7.05122,6.01459,0.105039,0.135717,-0.0574152,0.188099,-2.04654,0.328985,0.2903,-0.0800125,0.214732,-0.0127861,0.27056,-0.175128,-1.73638,1.75725,0.00523106,0,0,0,0,0,0,0,-0.40112,-29.7298,-1.16149,26.7526,1.06994,3.74261,0.0303194,
0.145082,-0.0572948,0.197898,-2.05192,0.26868,0.350472,-0.0794945,0.0911713,-0.00449111,0.0949258,-0.0588614,-0.646588,0.603705,0.00778934,-1.39676,0.309028,-1.44035,0.526703,50.069,-44.9325,-0.298042,10.1469,1.58313,10.5006,-8.69178,-6.40826,5.27814,0.101168,0.135717,-0.0574152,0.188099,-2.04654,0.328985,0.2903,-0.0800125,0.214732,-0.0127861,0.27056,-0.175128,-1.73638,1.75725,0.00523106,0,0,0,0,0,0,0,-0.40112,-29.7298,-1.16149,26.7526,1.06994,3.74261,0.0303194,
0.137145,-0.0573335,0.189608,-2.04728,0.317992,0.301049,-0.079989,0.108631,-0.00155193,0.113663,-0.0656649,-0.79208,0.751672,0.00681823,10.9122,1.83699,11.711,-4.25216,-90.9326,92.4791,-0.606943,10.4879,1.07009,10.8267,-8.82204,-8.25704,7.54451,0.111837,0.143499,-0.0567302,0.195859,-2.05248,0.269534,0.350304,-0.0798892,0.31748,0.0529292,0.151067,-0.167982,-1.53718,1.73311,0.00359111,12.8434,8.21441,-14.9366,0.893291,24.9009,-3.01712,-0.204994,1.14612,-35.3197,0.238966,29.5694,2.22992,2.97997,-0.0227812,
0.13829,-0.0572573,0.19081,-2.04784,0.309112,0.309818,-0.0799544,0.115527,0.000664437,0.120995,-0.0665325,-0.855662,0.820574,0.00632111,4.31001,1.38523,4.58245,-0.542241,-39.7384,43.064,-0.310701,10.3519,1.2607,10.6908,-8.74284,-7.47719,6.6224,0.108792,0.143499,-0.0567302,0.195859,-2.05248,0.269534,0.350304,-0.0798892,0.31748,0.0529292,0.151067,-0.167982,-1.53718,1.73311,0.00359111,0,0,0,0,0,0,0,1.14612,-35.3197,0.238966,29.5694,2.22992,2.97997,-0.0227812,
0.139259,-0.0572125,0.191826,-2.04834,0.301741,0.317214,-0.079909,0.11666,0.00165114,0.122182,-0.065655,-0.86882,0.841351,0.00619049,0.708211,0.616691,0.741711,0.54842,-8.22379,12.9853,-0.081637,10.1749,1.41603,10.5149,-8.65607,-6.76945,5.79887,0.105363,0.143499,-0.0567302,0.195859,-2.05248,0.269534,0.350304,-0.0798892,0.31748,0.0529292,0.151067,-0.167982,-1.53718,1.73311,0.00359111,0,0,0,0,0,0,0,1.14612,-35.3197,0.238966,29.5694,2.22992,2.97997,-0.0227812,
0.151344,-0.0561423,0.204111,-2.05703,0.237968,0.3848,-0.0796423,0.106458,0.000481849,0.111365,-0.0623385,-0.719756,0.694257,0.00586615,-6.3764,-0.730808,-6.76093,2.07282,93.1651,-91.9334,-0.202711,7.93971,1.61793,8.28653,-7.76893,-2.95972,1.67162,0.0708819,0.143499,-0.0567302,0.195859,-2.05248,0.269534,0.350304,-0.0798892,0.31748,0.0529292,0.151067,-0.167982,-1.53718,1.73311,0.00359111,0,0,0,0,0,0,0,1.14612,-35.3197,0.238966,29.5694,2.22992,2.97997,-0.0227812,
0.151863,-0.0561726,0.204647,-2.05742,0.237092,0.385536,-0.0796066,0.0981347,-0.000371148,0.102507,-0.0596207,-0.597701,0.573798,0.00558607,-5.20188,-0.533123,-5.53613,1.69858,76.2844,-75.2873,-0.175052,8.15659,0.908485,8.48273,-7.02456,-2.2805,1.42549,0.0643311,0.149695,-0.0559322,0.203518,-2.05828,0.227717,0.397888,-0.0798777,0.266734,-0.0165932,0.108336,-0.195843,-1.01753,1.11776,0.000227047,-6.34321,-8.6903,-5.34133,-3.48265,64.9562,-76.9191,-0.420508,1.09455,-33.098,-0.185533,27.3755,4.15435,0.301138,0.00376909,
0.152374,-0.0561998,0.205174,-2.0578,0.236356,0.386156,-0.0795722,0.0912897,-0.000976891,0.0951743,-0.05733,-0.496556,0.474528,0.00532694,-4.27812,-0.378589,-4.58277,1.43174,63.2155,-62.0437,-0.161957,7.92081,0.863041,8.24487,-6.91739,-2.11459,1.26532,0.0619474,0.149695,-0.0559322,0.203518,-2.05828,0.227717,0.397888,-0.0798777,0.266734,-0.0165932,0.108336,-0.195843,-1.01753,1.11776,0.000227047,0,0,0,0,0,0,0,1.09455,-33.098,-0.185533,27.3755,4.15435,0.301138,0.00376909,
0.152877,-0.0562244,0.205689,-2.05818,0.235801,0.386649,-0.0795409,0.0856066,-0.00139584,0.0890151,-0.0553436,-0.411132,0.391953,0.00504431,-3.55193,-0.261844,-3.84954,1.24144,53.3901,-51.6093,-0.176646,7.69321,0.8164,8.0146,-6.80915,-1.97815,1.13496,0.059913,0.149695,-0.0559322,0.203518,-2.05828,0.227717,0.397888,-0.0798777,0.266734,-0.0165932,0.108336,-0.195843,-1.01753,1.11776,0.000227047,0,0,0,0,0,0,0,1.09455,-33.098,-0.185533,27.3755,4.15435,0.301138,0.00376909,
0.157924,-0.0561332,0.211916,-2.06317,0.220033,0.416522,-0.0799545,0.077654,-0.00132018,0.0803637,-0.0510688,-0.333159,0.325798,0.00436437,-4.97036,0.0472873,-5.4071,2.67176,48.7328,-41.3469,-0.42496,6.05152,0.546262,6.12372,-5.47316,-0.220418,-0.101822,0.0406926,0.149695,-0.0559322,0.203518,-2.05828,0.227717,0.397888,-0.0798777,0.266734,-0.0165932,0.108336,-0.195843,-1.01753,1.11776,0.000227047,0,0,0,0,0,0,0,1.09455,-33.098,-0.185533,27.3755,4.15435,0.301138,0.00376909,
0.15828,-0.0561399,0.21227,-2.06343,0.219826,0.417011,-0.079941,0.0710153,-0.00122345,0.0731588,-0.0475172,-0.271713,0.272875,0.00382874,-4.14921,0.0604568,-4.50304,2.21977,38.4037,-33.0767,-0.334771,6.09214,0.559725,6.05797,-5.36011,0.343089,-0.415623,0.0270417,0.156443,-0.0547483,0.208313,-2.06382,0.193812,0.434592,-0.0798821,0.177154,0.00182599,0.184444,-0.169823,-0.941093,1.04002,-0.00161182,-11.1975,2.3024,9.51352,3.25247,9.55418,-9.71699,-0.229859,6.70032,-30.8287,5.58687,25.856,4.56909,0.0100004,0.0440523,
0.158624,-0.0561454,0.212614,-2.06369,0.219587,0.417501,-0.0799273,0.0654319,-0.00111612,0.0671209,-0.0445286,-0.223344,0.230547,0.0034048,-3.48961,0.0670792,-3.7737,1.86786,30.2311,-26.4554,-0.264961,6.18116,0.534378,6.0433,-5.25743,0.694429,-0.493683,0.0055332,0.156443,-0.0547483,0.208313,-2.06382,0.193812,0.434592,-0.0798821,0.177154,0.00182599,0.184444,-0.169823,-0.941093,1.04002,-0.00161182,0,0,0,0,0,0,0,6.70032,-30.8287,5.58687,25.856,4.56909,0.0100004,0.0440523,
0.158958,-0.0561499,0.212947,-2.06395,0.219322,0.417991,-0.0799136,0.0606962,-0.00100546,0.0620235,-0.041978,-0.185303,0.196689,0.0030673,-2.95978,0.0691649,-3.18588,1.59415,23.7753,-21.161,-0.210937,6.27212,0.501897,6.12046,-5.15588,0.843858,-0.370645,-0.0162496,0.156443,-0.0547483,0.208313,-2.06382,0.193812,0.434592,-0.0798821,0.177154,0.00182599,0.184444,-0.169823,-0.941093,1.04002,-0.00161182,0,0,0,0,0,0,0,6.70032,-30.8287,5.58687,25.856,4.56909,0.0100004,0.0440523,
0.160566,-0.0538698,0.213046,-2.06505,0.288802,0.408444,-0.0804634,0.0491506,0.000312324,0.0508326,-0.0341696,-0.050351,0.118159,0.00196532,-7.21605,0.823615,-6.99432,4.88022,84.3451,-49.0812,-0.688737,1.63807,0.586936,1.66314,-2.11639,-0.25266,0.189948,0.0150297,0.156443,-0.0547483,0.208313,-2.06382,0.193812,0.434592,-0.0798821,0.177154,0.00182599,0.184444,-0.169823,-0.941093,1.04002,-0.00161182,0,0,0,0,0,0,0,6.70032,-30.8287,5.58687,25.856,4.56909,0.0100004,0.0440523,
0.160589,-0.0538254,0.213094,-2.06507,0.292708,0.406885,-0.080483,0.0399076,0.00135836,0.0418742,-0.0279162,0.0573627,0.0555546,0.00108312,-5.77683,0.653773,-5.59903,3.90838,67.3211,-39.1278,-0.551373,1.87432,0.221886,1.88621,-1.67423,0.136921,0.139427,0.0120124,0.161024,-0.0536267,0.212451,-2.06665,0.176618,0.455081,-0.0798965,0.215853,0.0820932,0.0367117,-0.0524338,-0.38045,0.384689,-0.00442156,4.83731,10.0334,-18.4666,14.6737,70.0803,-81.9165,-0.351218,1.50318,-32.3244,0.762648,25.6339,4.14795,0.526358,0.131027,
0.160613,-0.0537814,0.213142,-2.0651,0.296604,0.405335,-0.0805026,0.0325085,0.00218607,0.0347033,-0.0229062,0.14329,0.00569085,0.000376738,-4.62446,0.51732,-4.4818,3.13127,53.7045,-31.1648,-0.441491,1.81238,0.219698,1.82898,-1.57994,0.316469,0.0484793,0.0110406,0.161024,-0.0536267,0.212451,-2.06665,0.176618,0.455081,-0.0798965,0.215853,0.0820932,0.0367117,-0.0524338,-0.38045,0.384689,-0.00442156,0,0,0,0,0,0,0,1.50318,-32.3244,0.762648,25.6339,4.14795,0.526358,0.131027,
0.160636,-0.0537379,0.213191,-2.06512,0.30049,0.403793,-0.0805222,0.0265857,0.0028384,0.0289637,-0.0188904,0.211791,-0.0339801,-0.000189011,-3.70177,0.407702,-3.58723,2.50985,42.8133,-24.7943,-0.353593,1.76194,0.217595,1.78375,-1.48712,0.540493,-0.0635291,0.0099627,0.161024,-0.0536267,0.212451,-2.06665,0.176618,0.455081,-0.0798965,0.215853,0.0820932,0.0367117,-0.0524338,-0.38045,0.384689,-0.00442156,0,0,0,0,0,0,0,1.50318,-32.3244,0.762648,25.6339,4.14795,0.526358,0.131027,
0.163151,-0.0524758,0.214671,-2.0675,0.182506,0.455926,-0.0800517,0.0253939,0.0035943,0.0276591,-0.0170584,0.229908,-0.0468239,-0.000493473,-0.744853,0.472437,-0.815385,1.14503,11.3231,-8.02737,-0.190289,1.69766,0.214122,1.73257,-1.30848,1.14665,-0.363148,0.00745413,0.161024,-0.0536267,0.212451,-2.06665,0.176618,0.455081,-0.0798965,0.215853,0.0820932,0.0367117,-0.0524338,-0.38045,0.384689,-0.00442156,0,0,0,0,0,0,0,1.50318,-32.3244,0.762648,25.6339,4.14795,0.526358,0.131027,
0.163284,-0.0524375,0.214819,-2.06757,0.185378,0.454939,-0.0800639,0.0236506,0.00383254,0.0258366,-0.0153487,0.255722,-0.0621313,-0.000700483,-1.08954,0.148906,-1.13908,1.06858,16.1335,-9.56714,-0.129381,1.68289,0.213395,1.72684,-1.22469,1.54126,-0.55463,0.00597749,0.161024,-0.0536267,0.212451,-2.06665,0.176618,0.455081,-0.0798965,0.215853,0.0820932,0.0367117,-0.0524338,-0.38045,0.384689,-0.00442156,0,0,0,0,0,0,0,1.50318,-32.3244,0.762648,25.6339,4.14795,0.526358,0.131027,
0.163394,-0.0524058,0.214941,-2.06763,0.188708,0.453771,-0.0800725,0.0216608,0.00385882,0.0236968,-0.0137645,0.287823,-0.0789061,-0.000774357,-1.24364,0.0164211,-1.33734,0.990124,20.063,-10.4843,-0.0461713,1.788,0.132736,1.84587,-1.08423,2.05207,-0.761437,0.00380941,0.165005,-0.0533553,0.215381,-2.06884,0.17449,0.46184,-0.0799028,0.251886,-0.0244297,-0.0495861,-0.0628408,0.139971,0.0755527,-0.00136673,4.50421,-13.3154,-10.7872,-1.30088,65.0527,-38.6421,0.381855,-1.86902,-32.7727,-2.36357,28.6728,2.84698,2.15142,0.0577852,
0.166143,-0.0534756,0.216512,-2.06911,0.177543,0.461384,-0.0799274,0.0297489,0.00194534,0.0316618,-0.0132765,0.271821,-0.0725022,-0.000919126,5.05506,-1.19592,4.97812,0.30496,-10.0012,4.00246,-0.0904809,1.79419,0.131322,1.83999,-1.16282,1.57705,-0.544199,0.00550489,0.165005,-0.0533553,0.215381,-2.06884,0.17449,0.46184,-0.0799028,0.251886,-0.0244297,-0.0495861,-0.0628408,0.139971,0.0755527,-0.00136673,0,0,0,0,0,0,0,-1.86902,-32.7727,-2.36357,28.6728,2.84698,2.15142,0.0577852,
0.16654,-0.0535134,0.216921,-2.06917,0.179503,0.460811,-0.0799394,0.033723,0.000611911,0.0355493,-0.012261,0.266439,-0.0723105,-0.00103496,2.48378,-0.833394,2.42968,0.634731,-3.36354,0.119771,-0.0723959,1.78842,0.132623,1.84639,-1.085,2.03517,-0.761793,0.00380472,0.165005,-0.0533553,0.215381,-2.06884,0.17449,0.46184,-0.0799028,0.251886,-0.0244297,-0.0495861,-0.0628408,0.139971,0.0755527,-0.00136673,0,0,0,0,0,0,0,-1.86902,-32.7727,-2.36357,28.6728,2.84698,2.15142,0.0577852,
0.166858,-0.0535469,0.217253,-2.06923,0.181789,0.460067,-0.079952,0.0349512,-0.000346768,0.0367392,-0.0111914,0.270316,-0.076445,-0.00114415,0.767647,-0.599174,0.743719,0.6685,2.42287,-2.58405,-0.0682417,1.78717,0.13847,1.86241,-1.01554,2.55292,-0.998341,0.00178385,0.165005,-0.0533553,0.215381,-2.06884,0.17449,0.46184,-0.0799028,0.251886,-0.0244297,-0.0495861,-0.0628408,0.139971,0.0755527,-0.00136673,0,0,0,0,0,0,0,-1.86902,-32.7727,-2.36357,28.6728,2.84698,2.15142,0.0577852,
0.167116,-0.0535757,0.217525,-2.06928,0.184436,0.459162,-0.0799655,0.0343899,-0.000998808,0.0361973,-0.0101991,0.282416,-0.0837954,-0.00125095,-0.350802,-0.407525,-0.33869,0.62019,7.56248,-4.59398,-0.0667501,1.76966,0.118081,1.87453,-0.97198,3.08609,-1.23491,-0.000500022,0.16713,-0.0534222,0.217479,-2.06997,0.186706,0.461388,-0.0798959,0.149311,0.01638,-0.0343316,-0.0246324,0.195044,-0.0334432,-3.49598e-05,-12.8219,5.10122,1.90681,4.77606,6.88415,-13.6245,0.166471,-1.51593,-29.8805,-2.13744,26.2805,0.990292,2.8344,-0.0905302,
0.168216,-0.0530876,0.218612,-2.07038,0.209311,0.453205,-0.0799736,0.0295217,0.000151496,0.0310864,-0.00917528,0.344391,-0.111793,-0.00133376,-3.04263,0.71894,-3.19435,0.639857,38.7346,-17.4985,-0.0517606,1.71553,0.217652,1.86583,-0.875657,4.11308,-1.67526,-0.00183131,0.16713,-0.0534222,0.217479,-2.06997,0.186706,0.461388,-0.0798959,0.149311,0.01638,-0.0343316,-0.0246324,0.195044,-0.0334432,-3.49598e-05,0,0,0,0,0,0,0,-1.51593,-29.8805,-2.13744,26.2805,0.990292,2.8344,-0.0905302,
0.16828,-0.0530486,0.218682,-2.07042,0.214145,0.451346,-0.0799948,0.0252078,0.00109475,0.0266216,-0.00819363,0.396358,-0.135892,-0.00159716,-2.6962,0.589532,-2.79046,0.613536,32.4797,-15.0617,-0.164626,1.63736,0.31313,1.74789,-0.81125,4.72865,-1.88262,0.0023407,0.16713,-0.0534222,0.217479,-2.06997,0.186706,0.461388,-0.0798959,0.149311,0.01638,-0.0343316,-0.0246324,0.195044,-0.0334432,-3.49598e-05,0,0,0,0,0,0,0,-1.51593,-29.8805,-2.13744,26.2805,0.990292,2.8344,-0.0905302,
0.168336,-0.0530034,0.21876,-2.07044,0.218799,0.449475,-0.0800123,0.0215598,0.00200625,0.0232581,-0.00707965,0.433447,-0.155501,-0.00171545,-2.27996,0.569688,-2.10224,0.696236,23.18,-12.2558,-0.0739314,1.48702,0.430256,1.5262,-0.730825,5.35893,-2.10481,0.00734421,0.16713,-0.0534222,0.217479,-2.06997,0.186706,0.461388,-0.0798959,0.149311,0.01638,-0.0343316,-0.0246324,0.195044,-0.0334432,-3.49598e-05,0,0,0,0,0,0,0,-1.51593,-29.8805,-2.13744,26.2805,0.990292,2.8344,-0.0905302,
0.169915,-0.0519618,0.220268,-2.07098,0.210484,0.451288,-0.0799861,0.0202295,0.0035999,0.0217872,-0.00729755,0.442882,-0.172251,-0.00194912,-0.831453,0.996032,-0.9193,-0.136189,5.89692,-10.4689,-0.146039,1.29789,0.544361,1.31725,-0.686949,4.68468,-2.36743,0.0104267,0.169157,-0.0524391,0.219472,-2.07066,0.196575,0.458186,-0.0799141,0.045447,0.03534,0.0564824,-0.00437525,0.250525,-0.147178,-0.0023918,-12.983,2.36999,11.3517,2.53214,6.93509,-14.2169,-0.294606,-0.655026,-33.3479,-0.836168,26.3043,0.843807,3.37823,0.0303194,
0.170014,-0.051887,0.22039,-2.07103,0.21416,0.449359,-0.0800046,0.0186605,0.004751,0.0204924,-0.00700103,0.446209,-0.186031,-0.00202278,-0.980652,0.71944,-0.809245,0.185324,2.07964,-8.61222,-0.0460383,1.0021,0.57034,1.02649,-0.614599,5.06053,-2.5034,0.0032892,0.169157,-0.0524391,0.219472,-2.07066,0.196575,0.458186,-0.0799141,0.045447,0.03534,0.0564824,-0.00437525,0.250525,-0.147178,-0.0023918,0,0,0,0,0,0,0,-0.655026,-33.3479,-0.836168,26.3043,0.843807,3.37823,0.0303194,
0.170111,-0.0518179,0.22051,-2.07107,0.217529,0.447489,-0.0800186,0.0173476,0.00552673,0.0193791,-0.00661022,0.441197,-0.195567,-0.00196765,-0.820515,0.484831,-0.695819,0.244261,-3.13225,-5.96033,0.0344529,0.69758,0.498898,0.734056,-0.573998,4.9506,-2.43956,-0.0103198,0.169157,-0.0524391,0.219472,-2.07066,0.196575,0.458186,-0.0799141,0.045447,0.03534,0.0564824,-0.00437525,0.250525,-0.147178,-0.0023918,0,0,0,0,0,0,0,-0.655026,-33.3479,-0.836168,26.3043,0.843807,3.37823,0.0303194,
0.170199,-0.0517546,0.220621,-2.07111,0.22072,0.44567,-0.080035,0.0160886,0.00600518,0.0183,-0.00628305,0.432731,-0.201928,-0.00198492,-0.786907,0.299031,-0.674418,0.204481,-5.29151,-3.97551,-0.0107948,0.535568,0.559849,0.603092,-0.503845,4.94929,-2.47354,-0.0229925,0.169157,-0.0524391,0.219472,-2.07066,0.196575,0.458186,-0.0799141,0.045447,0.03534,0.0564824,-0.00437525,0.250525,-0.147178,-0.0023918,0,0,0,0,0,0,0,-0.655026,-33.3479,-0.836168,26.3043,0.843807,3.37823,0.0303194,
0.171532,-0.0521296,0.223059,-2.0717,0.226246,0.442207,-0.0799006,0.0219469,0.00474731,0.0242085,-0.00528865,0.409826,-0.22946,-0.00178251,3.66147,-0.786172,3.69279,0.621497,-14.3159,-17.2073,0.126509,1.74869,0.443934,1.82867,-1.04747,2.34531,-3.42274,-0.00751129,0.170333,-0.0521215,0.221832,-2.07167,0.216248,0.450494,-0.0799122,0.0252365,-0.00495594,0.0830769,-0.0178046,0.721527,-0.329962,0.00109602,-2.52632,-5.03699,3.32431,-1.67867,58.8753,-22.848,0.435979,-0.0718349,-31.2532,-0.887743,26.106,0.532528,3.23907,-0.0630644,
0.171867,-0.05213,0.223415,-2.07172,0.228144,0.439617,-0.0799086,0.0259452,0.00378795,0.0282713,-0.0047909,0.375312,-0.248322,-0.00162624,2.49893,-0.599596,2.53926,0.311096,-21.5708,-11.789,0.0976659,1.58475,0.501353,1.6893,-0.968776,2.31345,-3.3879,-0.0199719,0.170333,-0.0521215,0.221832,-2.07167,0.216248,0.450494,-0.0799122,0.0252365,-0.00495594,0.0830769,-0.0178046,0.721527,-0.329962,0.00109602,0,0,0,0,0,0,0,-0.0718349,-31.2532,-0.887743,26.106,0.532528,3.23907,-0.0630644,
0.17217,-0.0521277,0.223739,-2.07176,0.22965,0.437135,-0.0799213,0.028321,0.00308756,0.0307319,-0.00471639,0.337895,-0.260721,-0.00161874,1.48482,-0.437748,1.53787,0.0465656,-23.3857,-7.74951,0.00468931,1.43004,0.610118,1.71859,-0.840744,1.63861,-3.19899,-0.0225177,0.170333,-0.0521215,0.221832,-2.07167,0.216248,0.450494,-0.0799122,0.0252365,-0.00495594,0.0830769,-0.0178046,0.721527,-0.329962,0.00109602,0,0,0,0,0,0,0,-0.0718349,-31.2532,-0.887743,26.106,0.532528,3.23907,-0.0630644,
0.172441,-0.0521214,0.224033,-2.0718,0.230905,0.434744,-0.0799364,0.0294362,0.00262954,0.0319279,-0.00489069,0.301694,-0.268335,-0.00167207,0.697033,-0.286257,0.74752,-0.108933,-22.626,-4.75842,-0.0333308,1.38592,0.587722,1.67911,-0.80297,1.01281,-2.9368,-0.0208249,0.170333,-0.0521215,0.221832,-2.07167,0.216248,0.450494,-0.0799122,0.0252365,-0.00495594,0.0830769,-0.0178046,0.721527,-0.329962,0.00109602,0,0,0,0,0,0,0,-0.0718349,-31.2532,-0.887743,26.106,0.532528,3.23907,-0.0630644,
0.170821,-0.051654,0.222322,-2.07232,0.219441,0.449081,-0.0798699,0.0357466,0.0137928,0.0378062,-0.0201661,0.321177,-0.250009,-0.000279107,3.94402,6.97703,3.6739,-9.54716,12.1771,11.4538,0.870602,-0.0495113,27.7011,0.379726,-23.0323,-1.57246,-2.00278,0.000701724,0.172433,-0.0512491,0.223234,-2.07209,0.238612,0.438483,-0.0799126,0.0805976,0.0362321,0.0177375,0.00631069,0.655555,-0.370475,0.00014527,6.92014,5.1485,-8.16743,3.01441,-8.24653,-5.06411,-0.118844,-2.68231,-31.8007,-2.98644,26.4789,0.312802,2.79412,-0.0703886,
0.171349,-0.0512475,0.222863,-2.07252,0.220358,0.446011,-0.079798,0.0418065,0.021195,0.0437755,-0.0213408,0.27988,-0.276745,0.00157381,3.78739,4.62637,3.73082,-0.734162,-25.8107,-16.7101,1.15807,4.83381,1.71794,5.11687,-4.09826,-2.44581,-6.48093,0.0365144,0.172433,-0.0512491,0.223234,-2.07209,0.238612,0.438483,-0.0799126,0.0805976,0.0362321,0.0177375,0.00631069,0.655555,-0.370475,0.00014527,0,0,0,0,0,0,0,-2.68231,-31.8007,-2.98644,26.4789,0.312802,2.79412,-0.0703886,
0.171891,-0.0509617,0.223405,-2.07269,0.219984,0.442332,-0.079754,0.0470101,0.0241012,0.0485584,-0.0212532,0.214542,-0.313367,0.00236059,3.25224,1.81639,2.9893,0.054756,-40.836,-22.889,0.491736,4.8828,1.68754,4.94341,-3.88649,-2.84001,-5.86959,0.0267349,0.172433,-0.0512491,0.223234,-2.07209,0.238612,0.438483,-0.0799126,0.0805976,0.0362321,0.0177375,0.00631069,0.655555,-0.370475,0.00014527,0,0,0,0,0,0,0,-2.68231,-31.8007,-2.98644,26.4789,0.312802,2.79412,-0.0703886,
0.172434,-0.0507625,0.223944,-2.0729,0.21874,0.438502,-0.0797174,0.0511788,0.0242612,0.0523132,-0.0221718,0.140551,-0.346468,0.00280259,2.60549,0.100019,2.34677,-0.574108,-46.2446,-20.6876,0.276252,4.94273,1.51579,4.94834,-3.75974,-3.30398,-5.19067,0.0284317,0.172433,-0.0512491,0.223234,-2.07209,0.238612,0.438483,-0.0799126,0.0805976,0.0362321,0.0177375,0.00631069,0.655555,-0.370475,0.00014527,0,0,0,0,0,0,0,-2.68231,-31.8007,-2.98644,26.4789,0.312802,2.79412,-0.0703886,
0.172878,-0.0506129,0.223672,-2.07275,0.241576,0.436972,-0.0798794,0.0520705,0.0353129,0.0528025,-0.0341038,0.186534,-0.314949,0.00307132,0.557302,6.9073,0.305795,-7.45751,28.7396,19.699,0.167956,-0.0119424,27.5574,0.419341,-22.9003,-1.59197,-1.90761,0.000323013,0.174035,-0.0510622,0.225448,-2.07245,0.251664,0.424669,-0.0799119,0.0106334,0.00180467,0.0895119,-0.0165046,0.264776,-0.375655,0.00105216,-8.74553,-4.30343,8.97181,-2.85192,-48.8473,-0.647515,0.113361,-0.881161,-31.3762,-1.31224,25.5069,0.447384,2.52953,-0.0767973,
0.173446,-0.050267,0.224249,-2.07313,0.241322,0.433544,-0.0797416,0.0558582,0.0368976,0.0566478,-0.0367552,0.142869,-0.337645,0.00590123,2.36729,0.990453,2.40331,-1.65715,-27.2905,-14.1847,1.7687,7.68065,-2.32438,7.99658,-8.14702,-5.35587,-8.12686,0.098391,0.174035,-0.0510622,0.225448,-2.07245,0.251664,0.424669,-0.0799119,0.0106334,0.00180467,0.0895119,-0.0165046,0.264776,-0.375655,0.00105216,0,0,0,0,0,0,0,-0.881161,-31.3762,-1.31224,25.5069,0.447384,2.52953,-0.0767973,
0.174056,-0.0501251,0.224876,-2.07353,0.239513,0.429388,-0.0796568,0.059928,0.0330649,0.0610036,-0.0394785,0.0690761,-0.374028,0.00684093,2.54364,-2.39547,2.72237,-1.70207,-46.1209,-22.7396,0.587309,7.13277,-1.30542,7.4683,-7.62108,-4.98242,-7.00366,0.069014,0.174035,-0.0510622,0.225448,-2.07245,0.251664,0.424669,-0.0799119,0.0106334,0.00180467,0.0895119,-0.0165046,0.264776,-0.375655,0.00105216,0,0,0,0,0,0,0,-0.881161,-31.3762,-1.31224,25.5069,0.447384,2.52953,-0.0767973,
0.174427,-0.0505696,0.225855,-2.0732,0.252808,0.423075,-0.0799032,0.0577337,0.0387656,0.0589794,-0.0501591,0.0838721,-0.339063,0.00568948,-1.37143,3.56294,-1.26512,-6.67534,9.24749,21.8532,-0.719653,-0.0119424,27.5574,0.419341,-22.9003,-1.59197,-1.90761,0.000323013,0.174035,-0.0510622,0.225448,-2.07245,0.251664,0.424669,-0.0799119,0.0106334,0.00180467,0.0895119,-0.0165046,0.264776,-0.375655,0.00105216,0,0,0,0,0,0,0,-0.881161,-31.3762,-1.31224,25.5069,0.447384,2.52953,-0.0767973,
0.175003,-0.0504185,0.226442,-2.07378,0.250239,0.419694,-0.0797096,0.0605878,0.0347906,0.0618572,-0.0546004,0.00285782,-0.355779,0.00939045,1.78378,-2.48435,1.79862,-2.77585,-50.6339,-10.4474,2.3131,8.80493,-4.58308,9.2149,-12.094,-9.13221,-8.27247,0.16018,0.176107,-0.0502392,0.227754,-2.07355,0.251731,0.409819,-0.0799164,0.0853586,0.0391042,0.034442,-0.0215608,-0.0300044,-0.497727,-0.00291336,9.34065,4.66244,-6.88374,-0.632022,-36.8476,-15.259,-0.49569,0.384403,-27.9802,-0.110155,20.2264,1.21002,1.88592,0.050461,
0.175639,-0.0504228,0.227087,-2.0744,0.246199,0.415691,-0.0796072,0.0643801,0.0277262,0.0656028,-0.0591619,-0.0987203,-0.384703,0.0100735,2.37022,-4.41526,2.34105,-2.85092,-63.4863,-18.0774,0.4269,7.94886,-1.74796,8.17125,-10.8182,-7.63188,-6.72136,0.0908656,0.176107,-0.0502392,0.227754,-2.07355,0.251731,0.409819,-0.0799164,0.0853586,0.0391042,0.034442,-0.0215608,-0.0300044,-0.497727,-0.00291336,0,0,0,0,0,0,0,0.384403,-27.9802,-0.110155,20.2264,1.21002,1.88592,0.050461,
0.176302,-0.0504624,0.227756,-2.07508,0.241519,0.411693,-0.079536,0.0680801,0.0211913,0.0692219,-0.064424,-0.195961,-0.407704,0.00983771,2.31249,-4.08432,2.26191,-3.28882,-60.7752,-14.3759,-0.147362,7.76413,-0.240501,7.91075,-9.94067,-7.11192,-5.19871,0.0738793,0.176107,-0.0502392,0.227754,-2.07355,0.251731,0.409819,-0.0799164,0.0853586,0.0391042,0.034442,-0.0215608,-0.0300044,-0.497727,-0.00291336,0,0,0,0,0,0,0,0.384403,-27.9802,-0.110155,20.2264,1.21002,1.88592,0.050461,
0.176515,-0.0495578,0.228174,-2.07447,0.251579,0.407596,-0.079931,0.0646652,0.033988,0.0658748,-0.0745058,-0.16056,-0.381746,0.00750472,-2.13433,7.99796,-2.09192,-6.3011,22.125,16.224,-1.45812,0.0400917,27.5075,0.467244,-22.8222,-1.57867,-1.83205,-0.00019259,0.176107,-0.0502392,0.227754,-2.07355,0.251731,0.409819,-0.0799164,0.0853586,0.0391042,0.034442,-0.0215608,-0.0300044,-0.497727,-0.00291336,0,0,0,0,0,0,0,0.384403,-27.9802,-0.110155,20.2264,1.21002,1.88592,0.050461,
0.177137,-0.049316,0.228806,-2.0754,0.247386,0.404301,-0.0797119,0.0673056,0.0332361,0.0685204,-0.0829054,-0.233286,-0.387763,0.0114818,1.65028,-0.469952,1.6535,-5.24975,-45.4533,-3.76092,2.48567,9.13999,-5.17455,9.56813,-15.4572,-11.9629,-6.84663,0.188777,0.176107,-0.0502392,0.227754,-2.07355,0.251731,0.409819,-0.0799164,0.0853586,0.0391042,0.034442,-0.0215608,-0.0300044,-0.497727,-0.00291336,0,0,0,0,0,0,0,0.384403,-27.9802,-0.110155,20.2264,1.21002,1.88592,0.050461,
0.177823,-0.0492161,0.229506,-2.07637,0.241715,0.400766,-0.0795992,0.0709885,0.0290863,0.0723052,-0.0904018,-0.328403,-0.398591,0.0120016,2.30179,-2.59361,2.36549,-4.68528,-59.4485,-6.76719,0.324864,8.17121,-1.18738,8.45365,-13.3625,-9.72307,-5.00366,0.101994,0.178769,-0.0489297,0.230269,-2.07766,0.248556,0.395361,-0.0798971,0.0733829,0.000385055,0.0369095,-0.193312,-0.0208241,-0.423999,-0.00178385,-1.49696,-4.8399,0.308437,-21.4689,1.14754,9.21608,0.141188,-1.86902,-27.5081,-2.18505,15.6918,0.886837,-0.374521,0.0440523,
0.180265,-0.049269,0.231775,-2.0804,0.237474,0.388939,-0.0795259,0.0763951,0.0193494,0.0776526,-0.105764,-0.421205,-0.39349,0.0125991,3.37913,-6.08559,3.34211,-9.60118,-58.001,3.18811,0.373453,9.24551,-7.67093,9.69796,-18.5685,-13.5793,-4.06089,0.211821,0.178769,-0.0489297,0.230269,-2.07766,0.248556,0.395361,-0.0798971,0.0733829,0.000385055,0.0369095,-0.193312,-0.0208241,-0.423999,-0.00178385,0,0,0,0,0,0,0,-1.86902,-27.5081,-2.18505,15.6918,0.886837,-0.374521,0.0440523,
0.181065,-0.049358,0.232585,-2.08173,0.23064,0.386713,-0.079445,0.0811057,0.0132556,0.0823611,-0.11796,-0.507813,-0.370446,0.0121031,2.94412,-3.80864,2.94285,-7.62297,-54.1299,14.4021,-0.309996,8.19116,-2.46247,8.42714,-16.0069,-10.8045,-2.34316,0.104644,0.178769,-0.0489297,0.230269,-2.07766,0.248556,0.395361,-0.0798971,0.0733829,0.000385055,0.0369095,-0.193312,-0.0208241,-0.423999,-0.00178385,0,0,0,0,0,0,0,-1.86902,-27.5081,-2.18505,15.6918,0.886837,-0.374521,0.0440523,
0.181853,-0.0493923,0.233383,-2.08309,0.223925,0.385307,-0.0793772,0.0845865,0.00974652,0.085858,-0.128303,-0.574108,-0.33151,0.0113775,2.17549,-2.19315,2.18555,-6.46389,-41.4342,24.3353,-0.453499,8.19689,-0.685244,8.36267,-14.7968,-9.59826,-0.707762,0.0873095,0.178769,-0.0489297,0.230269,-2.07766,0.248556,0.395361,-0.0798971,0.0733829,0.000385055,0.0369095,-0.193312,-0.0208241,-0.423999,-0.00178385,0,0,0,0,0,0,0,-1.86902,-27.5081,-2.18505,15.6918,0.886837,-0.374521,0.0440523,
0.182622,-0.049393,0.234163,-2.08447,0.217597,0.384684,-0.0793118,0.0868847,0.00777901,0.0881726,-0.137118,-0.617485,-0.280788,0.0107353,1.43636,-1.2297,1.44664,-5.50951,-27.1106,31.7015,-0.401371,8.50484,-0.431769,8.61021,-14.1179,-8.2915,0.59994,0.0856591,0.182906,-0.0475942,0.233538,-2.08415,0.234134,0.376288,-0.0798671,0.142598,0.072422,0.081226,-0.272053,-0.155331,-0.400495,0.005584,8.6519,9.00462,5.53957,-9.84268,-16.8134,2.93803,0.920982,-1.49212,-27.5597,-1.71294,18.4848,0.129696,0.063101,0.0239107,
0.185839,-0.0462302,0.236485,-2.08976,0.219377,0.374561,-0.0795918,0.0932697,0.0154933,0.0945646,-0.155156,-0.631389,-0.210025,0.0104194,3.99068,4.82145,3.99498,-11.2736,-8.69038,44.2265,-0.197414,7.81066,0.103292,7.98916,-16.5017,-10.1267,2.76119,0.0808217,0.182906,-0.0475942,0.233538,-2.08415,0.234134,0.376288,-0.0798671,0.142598,0.072422,0.081226,-0.272053,-0.155331,-0.400495,0.005584,0,0,0,0,0,0,0,-1.49212,-27.5597,-1.71294,18.4848,0.129696,0.063101,0.0239107,
0.186742,-0.0459331,0.2374,-2.09154,0.214009,0.376033,-0.0795226,0.0972053,0.0198223,0.0985208,-0.168449,-0.639304,-0.131219,0.0100651,2.45974,2.70563,2.4726,-8.30863,-4.94662,49.254,-0.221454,8.25086,-0.103736,8.3694,-16.1502,-8.69331,3.69223,0.0797035,0.182906,-0.0475942,0.233538,-2.08415,0.234134,0.376288,-0.0798671,0.142598,0.072422,0.081226,-0.272053,-0.155331,-0.400495,0.005584,0,0,0,0,0,0,0,-1.49212,-27.5597,-1.71294,18.4848,0.129696,0.063101,0.0239107,
0.1876,-0.0456973,0.238269,-2.09325,0.208992,0.378216,-0.0794548,0.0992015,0.021752,0.10053,-0.177723,-0.636884,-0.0503994,0.00974824,1.2476,1.20603,1.2556,-5.79628,1.51251,50.5122,-0.198045,8.66152,-0.598082,8.74852,-16.0159,-7.55831,4.40738,0.0849647,0.182906,-0.0475942,0.233538,-2.08415,0.234134,0.376288,-0.0798671,0.142598,0.072422,0.081226,-0.272053,-0.155331,-0.400495,0.005584,0,0,0,0,0,0,0,-1.49212,-27.5597,-1.71294,18.4848,0.129696,0.063101,0.0239107,
0.188416,-0.0455112,0.239095,-2.09491,0.204432,0.380958,-0.0793877,0.0997649,0.0220555,0.101093,-0.183606,-0.623493,0.0282397,0.00947495,0.352134,0.189716,0.351836,-3.67684,8.36943,49.1494,-0.170809,9.19087,-0.945824,9.26861,-15.9872,-6.40168,4.92011,0.0885436,0.187966,-0.047932,0.239208,-2.09399,0.198349,0.359203,-0.0796519,0.0827942,0.116164,0.271846,-0.304784,-1.01894,-0.274635,-0.000670295,-7.47549,5.46772,23.8275,-4.09131,-107.951,15.7325,-0.781787,1.78089,-32.4513,1.3379,31.9339,0.984799,4.25988,0.0843355,
0.200622,-0.0432063,0.252134,-2.12076,0.1768,0.380636,-0.0792807,0.0892545,0.0175647,0.0903997,-0.164742,-0.509651,0.0547529,0.00789803,-6.56898,-2.80677,-6.68312,11.7903,71.1512,16.5708,-0.985574,7.1849,0.555312,7.30078,-13.709,-0.369562,2.81915,0.0419664,0.187966,-0.047932,0.239208,-2.09399,0.198349,0.359203,-0.0796519,0.0827942,0.116164,0.271846,-0.304784,-1.01894,-0.274635,-0.000670295,0,0,0,0,0,0,0,1.78089,-32.4513,1.3379,31.9339,0.984799,4.25988,0.0843355,
0.200992,-0.0432111,0.252507,-2.12146,0.176374,0.381914,-0.0792687,0.0806527,0.0139326,0.0816487,-0.149229,-0.418391,0.0757569,0.00661913,-5.37617,-2.27008,-5.46934,9.69593,57.0374,13.1275,-0.799312,7.05367,0.562501,7.16821,-13.507,-0.381489,2.64414,0.0401641,0.187966,-0.047932,0.239208,-2.09399,0.198349,0.359203,-0.0796519,0.0827942,0.116164,0.271846,-0.304784,-1.01894,-0.274635,-0.000670295,0,0,0,0,0,0,0,1.78089,-32.4513,1.3379,31.9339,0.984799,4.25988,0.0843355,
0.201354,-0.0432171,0.252873,-2.12214,0.175955,0.383183,-0.0792574,0.0735789,0.0109949,0.0744528,-0.136401,-0.345185,0.0923305,0.0055785,-4.42114,-1.83602,-4.49743,8.01738,45.7539,10.3585,-0.650395,6.92683,0.562342,7.03985,-13.3051,-0.397968,2.4879,0.0385877,0.187966,-0.047932,0.239208,-2.09399,0.198349,0.359203,-0.0796519,0.0827942,0.116164,0.271846,-0.304784,-1.01894,-0.274635,-0.000670295,0,0,0,0,0,0,0,1.78089,-32.4513,1.3379,31.9339,0.984799,4.25988,0.0843355,
0.201709,-0.0432242,0.25323,-2.12281,0.175544,0.384442,-0.0792467,0.0677287,0.00861906,0.0685023,-0.125725,-0.286414,0.105335,0.00472884,-3.65634,-1.48491,-3.71907,6.67227,36.7318,8.12811,-0.53104,6.65973,0.352153,6.77367,-13.0104,-0.414809,2.34445,0.0373491,0.193796,-0.0473429,0.247239,-2.10807,0.169401,0.360101,-0.0796218,0.118131,-0.0242101,0.292798,-0.398736,-1.14845,0.197416,-0.00162414,4.4171,-17.5467,2.61897,-11.744,-16.1888,59.0063,-0.119231,0.717655,-29.5036,-0.237108,28.3475,0.452877,5.16167,0.0577852,
0.199582,-0.0451847,0.254013,-2.11144,0.417276,0.291623,-0.0818388,0.0550029,0.00606181,0.0562132,-0.099574,-0.101833,0.0541756,0.00272131,-7.95365,-1.59829,-7.68069,16.3444,115.363,-31.9749,-1.25471,2.26037,0.442025,2.29162,-1.87267,-0.138396,0.571666,0.00193455,0.193796,-0.0473429,0.247239,-2.10807,0.169401,0.360101,-0.0796218,0.118131,-0.0242101,0.292798,-0.398736,-1.14845,0.197416,-0.00162414,0,0,0,0,0,0,0,0.717655,-29.5036,-0.237108,28.3475,0.452877,5.16167,0.0577852,
0.199615,-0.0452185,0.254069,-2.1114,0.422356,0.290429,-0.0818813,0.0448236,0.00400394,0.0463856,-0.0786528,0.0455347,0.0134724,0.00111486,-6.36206,-1.28617,-6.14228,13.0757,92.1047,-25.4395,-1.00403,2.40337,0.492633,2.42815,-1.68437,0.509138,0.337038,0.00371787,0.193796,-0.0473429,0.247239,-2.10807,0.169401,0.360101,-0.0796218,0.118131,-0.0242101,0.292798,-0.398736,-1.14845,0.197416,-0.00162414,0,0,0,0,0,0,0,0.717655,-29.5036,-0.237108,28.3475,0.452877,5.16167,0.0577852,
0.199648,-0.0452528,0.254126,-2.11136,0.427425,0.289243,-0.0819238,0.0366814,0.00234572,0.038527,-0.0619157,0.163133,-0.0188653,-0.000170727,-5.08884,-1.03639,-4.9116,10.4607,73.4988,-20.2111,-0.80349,2.55561,0.549305,2.57348,-1.49962,1.29695,0.0628257,0.00555055,0.193796,-0.0473429,0.247239,-2.10807,0.169401,0.360101,-0.0796218,0.118131,-0.0242101,0.292798,-0.398736,-1.14845,0.197416,-0.00162414,0,0,0,0,0,0,0,0.717655,-29.5036,-0.237108,28.3475,0.452877,5.16167,0.0577852,
0.199681,-0.0452876,0.254183,-2.11132,0.432481,0.288066,-0.0819663,0.0301689,0.00100736,0.0322437,-0.0485259,0.256916,-0.0445106,-0.00119961,-4.07029,-0.836473,-3.92708,8.3686,58.6148,-16.0283,-0.643054,2.65497,0.181386,2.65808,-0.855609,2.26155,-0.0358761,0.00592436,0.199746,-0.0464122,0.254054,-2.12107,0.158674,0.365758,-0.0796191,0.110212,-0.0584398,0.262726,-0.395998,-0.409848,0.15254,0.00134457,-0.989839,-4.27871,-3.75897,0.342253,92.325,-5.60955,0.371089,-1.53973,-30.3288,-2.71269,27.55,1.10016,4.03466,-0.0365141,
0.212863,-0.042391,0.264472,-2.12574,0.174995,0.386984,-0.0801393,0.0301272,0.00242952,0.0299602,-0.0386484,0.21354,-0.0136567,-0.00122462,-0.0260642,0.888846,-1.42716,6.17342,-27.1101,19.2837,-0.0156305,5.0182,0.976056,3.9112,-0.750746,2.29991,2.45749,-0.0324333,0.199746,-0.0464122,0.254054,-2.12107,0.158674,0.365758,-0.0796191,0.110212,-0.0584398,0.262726,-0.395998,-0.409848,0.15254,0.00134457,0,0,0,0,0,0,0,-1.53973,-30.3288,-2.71269,27.55,1.10016,4.03466,-0.0365141,
0.213097,-0.0423269,0.264636,-2.12573,0.17528,0.38785,-0.0801501,0.0299413,0.00354554,0.0280612,-0.030726,0.177959,0.010716,-0.00125045,-0.116214,0.697515,-1.18692,4.95152,-22.238,15.2329,-0.0161402,5.71856,1.21577,4.19134,-0.607562,2.56172,2.31744,-0.0505623,0.199746,-0.0464122,0.254054,-2.12107,0.158674,0.365758,-0.0796191,0.110212,-0.0584398,0.262726,-0.395998,-0.409848,0.15254,0.00134457,0,0,0,0,0,0,0,-1.53973,-30.3288,-2.71269,27.55,1.10016,4.03466,-0.0365141,
0.213325,-0.0422635,0.264797,-2.12572,0.175534,0.388704,-0.0801612,0.029648,0.00441986,0.0264725,-0.0243686,0.148706,0.0299293,-0.00127783,-0.183288,0.54645,-0.992892,3.97337,-18.2832,12.0083,-0.0171176,6.52348,1.34626,4.52469,-0.424528,2.59078,2.18839,-0.0667393,0.199746,-0.0464122,0.254054,-2.12107,0.158674,0.365758,-0.0796191,0.110212,-0.0584398,0.262726,-0.395998,-0.409848,0.15254,0.00134457,0,0,0,0,0,0,0,-1.53973,-30.3288,-2.71269,27.55,1.10016,4.03466,-0.0365141,
0.213547,-0.0422009,0.264955,-2.12571,0.175759,0.389548,-0.0801726,0.0292751,0.00510282,0.0251343,-0.0192637,0.124599,0.0450376,-0.00130689,-0.233107,0.426849,-0.836387,3.19056,-15.0668,9.44266,-0.0181587,7.20651,1.21433,4.7767,-0.235549,2.2204,2.12272,-0.0741178,0.203725,-0.0433492,0.257973,-2.12736,0.176763,0.359384,-0.079671,0.0737837,-0.00221079,0.0811812,-0.186262,0.81059,-0.208161,0.000838167,-4.55357,7.02862,-22.6932,26.217,152.555,-45.0875,-0.0633,-1.89679,-35.2959,-3.06182,29.4186,2.64557,3.22533,-0.130813,
0.210941,-0.0436969,0.26549,-2.12822,0.33619,0.322518,-0.0813744,0.0242034,0.00312434,0.0214529,-0.0142516,0.237163,0.000458255,-0.00215499,-3.16983,-1.23655,-2.30092,3.13254,70.352,-27.8621,-0.530064,1.90115,-0.619503,2.01918,-0.670096,-1.28465,0.869117,-0.0092191,0.203725,-0.0433492,0.257973,-2.12736,0.176763,0.359384,-0.079671,0.0737837,-0.00221079,0.0811812,-0.186262,0.81059,-0.208161,0.000838167,0,0,0,0,0,0,0,-1.89679,-35.2959,-3.06182,29.4186,2.64557,3.22533,-0.130813,
0.210973,-0.0437358,0.265544,-2.12817,0.341677,0.321103,-0.0814189,0.0201573,0.00152748,0.0185215,-0.0102429,0.326907,-0.0349943,-0.00283408,-2.52877,-0.998037,-1.8321,2.50547,56.0903,-22.1578,-0.424428,1.88833,-0.549092,1.95272,-0.64082,-1.20419,0.819264,-0.00969488,0.203725,-0.0433492,0.257973,-2.12736,0.176763,0.359384,-0.079671,0.0737837,-0.00221079,0.0811812,-0.186262,0.81059,-0.208161,0.000838167,0,0,0,0,0,0,0,-1.89679,-35.2959,-3.06182,29.4186,2.64557,3.22533,-0.130813,
0.211005,-0.0437752,0.265599,-2.12813,0.347152,0.319698,-0.0814633,0.0169298,0.00023578,0.0161881,-0.00703629,0.398394,-0.0631403,-0.00337792,-2.01723,-0.807314,-1.45835,2.00412,44.6793,-17.5913,-0.339903,1.8972,-0.463096,1.89926,-0.610877,-1.06948,0.770634,-0.0106537,0.203725,-0.0433492,0.257973,-2.12736,0.176763,0.359384,-0.079671,0.0737837,-0.00221079,0.0811812,-0.186262,0.81059,-0.208161,0.000838167,0,0,0,0,0,0,0,-1.89679,-35.2959,-3.06182,29.4186,2.64557,3.22533,-0.130813,
0.215058,-0.0410131,0.268588,-2.12942,0.205215,0.378588,-0.0802699,0.0166427,0.00100323,0.0157323,-0.00482757,0.32231,-0.0293534,-0.00326907,-0.179406,0.479658,-0.284907,1.38046,-47.5523,21.1168,0.0680322,5.79771,-1.80366,5.85359,0.179276,0.322551,1.60265,-0.00667351,0.207957,-0.0399874,0.260016,-2.13025,0.184834,0.363957,-0.0797276,0.160322,0.113949,-0.023117,-0.0480433,0.317836,0.199313,-0.00536195,10.8173,14.52,-13.0373,17.2773,-61.5942,50.9342,-0.775015,-0.603451,-36.1171,-1.13768,31.1642,3.87329,1.34942,0.0779268,
