xiao-wang007/linearmpc_panda/paper_data/panda_torque_PD_controller_Start_at_0/1/trajectory.csv
Commanded Joint 0 Position,Commanded Joint 1 Position,Commanded Joint 2 Position,Commanded Joint 3 Position,Commanded Joint 4 Position,Commanded Joint 5 Position,Commanded Joint 6 Position,Commanded Joint 0 Velocity,Commanded Joint 1 Velocity,Commanded Joint 2 Velocity,Commanded Joint 3 Velocity,Commanded Joint 4 Velocity,Commanded Joint 5 Velocity,Commanded Joint 6 Velocity,Commanded Joint 0 Acceleration,Commanded Joint 1 Acceleration,Commanded Joint 2 Acceleration,Commanded Joint 3 Acceleration,Commanded Joint 4 Acceleration,Commanded Joint 5 Acceleration,Commanded Joint 6 Acceleration,Commanded Joint 0 Torque,Commanded Joint 1 Torque,Commanded Joint 2 Torque,Commanded Joint 3 Torque,Commanded Joint 4 Torque,Commanded Joint 5 Torque,Commanded Joint 6 Torque,Actual Joint 0 Position,Actual Joint 1 Position,Actual Joint 2 Position,Actual Joint 3 Position,Actual Joint 4 Position,Actual Joint 5 Position,Actual Joint 6 Position,Actual Joint 0 Velocity,Actual Joint 1 Velocity,Actual Joint 2 Velocity,Actual Joint 3 Velocity,Actual Joint 4 Velocity,Actual Joint 5 Velocity,Actual Joint 6 Velocity,Actual Joint 0 Acceleration,Actual Joint 1 Acceleration,Actual Joint 2 Acceleration,Actual Joint 3 Acceleration,Actual Joint 4 Acceleration,Actual Joint 5 Acceleration,Actual Joint 6 Acceleration,Actual Joint 0 Torque,Actual Joint 1 Torque,Actual Joint 2 Torque,Actual Joint 3 Torque,Actual Joint 4 Torque,Actual Joint 5 Torque,Actual Joint 6 Torque,
0.0941494,0.112534,-0.148681,-1.61413,0.0567906,0.187054,-0.0826374,2.52328e-05,0.0246592,0.000473679,-0.0310496,-0.00413088,0.0523796,-0.000401904,0.0157705,15.412,0.296049,-19.406,-2.5818,32.7372,-0.25119,0.0625656,27.8732,0.428248,-24.2605,-0.775186,1.8853,-0.02445,0.094125,0.111418,-0.148733,-1.61144,0.0571287,0.181518,-0.0825914,-0.00130317,-0.000554155,-0.000282129,0.000739078,0.000291931,0.000519031,-0.00176034,0,0,0,0,0,0,0,0.233646,-39.4377,-0.487047,27.1771,0.679012,3.15209,0.0376436,
0.0941125,0.111409,-0.148744,-1.61143,0.0571227,0.181541,-0.0825917,-5.90948e-05,0.019677,0.000309654,-0.0247837,-0.00337732,0.0421015,-0.000320234,-0.0527048,-3.11388,-0.102516,3.91623,0.470979,-6.4238,0.0510435,0.0568262,28.3158,0.418223,-24.1767,-0.775386,1.63581,-0.0229316,0.094125,0.111499,-0.148733,-1.6115,0.0571333,0.181507,-0.0825938,-0.00184629,0.000670455,0.00093368,-0.00107675,0.00268356,-0.000670924,-0.00187897,-0.06789,0.153076,0.151976,-0.226979,0.298954,-0.148744,-0.0148283,0.233646,-38.7871,-0.538622,27.0264,0.642391,3.25188,0.0303194,
0.09411,0.111408,-0.148746,-1.61143,0.0571198,0.181548,-0.0825917,-0.000110499,0.0157091,0.000193218,-0.0197797,-0.00277463,0.0338736,-0.000255427,-0.0321275,-2.47994,-0.0727726,3.12746,0.376681,-5.14245,0.0405041,0.0495822,28.8871,0.40649,-24.0687,-0.774742,1.28895,-0.0209599,0.094125,0.111499,-0.148733,-1.6115,0.0571333,0.181507,-0.0825938,-0.00184629,0.000670455,0.00093368,-0.00107675,0.00268356,-0.000670924,-0.00187897,0,0,0,0,0,0,0,0.233646,-38.7871,-0.538622,27.0264,0.642391,3.25188,0.0303194,
0.094108,0.111407,-0.148748,-1.61142,0.0571171,0.181556,-0.0825917,-0.000139276,0.0125491,0.000111547,-0.0157839,-0.0022864,0.0272831,-0.000203944,-0.0179857,-1.97497,-0.0510445,2.49742,0.305144,-4.11908,0.0321772,0.0435999,29.4108,0.397042,-23.9009,-0.772577,0.904468,-0.0189549,0.094125,0.111499,-0.148733,-1.6115,0.0571333,0.181507,-0.0825938,-0.00184629,0.000670455,0.00093368,-0.00107675,0.00268356,-0.000670924,-0.00187897,0,0,0,0,0,0,0,0.233646,-38.7871,-0.538622,27.0264,0.642391,3.25188,0.0303194,
0.0940147,0.111538,-0.148864,-1.61135,0.0593933,0.179604,-0.0826152,-0.00171794,0.0103358,-0.00165398,-0.0108122,0.0326615,-0.00727479,-0.000361121,-0.986663,-1.38332,-1.10345,3.10732,21.8424,-21.5987,-0.098236,0.541337,0.25771,0.543154,-0.33962,2.90639,-2.70437,-0.00254931,0.094125,0.111499,-0.148733,-1.6115,0.0571333,0.181507,-0.0825938,-0.00184629,0.000670455,0.00093368,-0.00107675,0.00268356,-0.000670924,-0.00187897,0,0,0,0,0,0,0,0.233646,-38.7871,-0.538622,27.0264,0.642391,3.25188,0.0303194,
0.0939507,0.111537,-0.148928,-1.61129,0.0610655,0.178163,-0.0826198,-0.00297313,0.00823094,-0.00293276,-0.00732421,0.0679328,-0.0418417,-0.000404538,-0.784497,-1.31554,-0.799242,2.17997,22.0446,-21.6043,-0.0271352,0.536499,0.273661,0.539737,-0.334157,2.8816,-2.67984,-0.00247491,0.0941154,0.111893,-0.148736,-1.61204,0.0571011,0.182458,-0.0825931,-0.000714141,0.0481397,-0.00129366,-0.0776962,0.000735752,0.130909,-0.00167452,0.141519,5.93365,-0.278417,-9.57743,-0.243476,16.4476,0.0255563,0.360599,-28.2579,-0.213304,16.6916,0.221249,2.58904,0.0239107,
0.0938956,0.111528,-0.148981,-1.61126,0.0629098,0.176537,-0.0826226,-0.00375673,0.00635985,-0.00367683,-0.00496433,0.100456,-0.0741193,-0.000394027,-0.489747,-1.16943,-0.46504,1.47493,20.3267,-20.1735,0.00656935,0.529855,0.269189,0.533189,-0.331113,2.8562,-2.65835,-0.00240749,0.0941154,0.111893,-0.148736,-1.61204,0.0571011,0.182458,-0.0825931,-0.000714141,0.0481397,-0.00129366,-0.0776962,0.000735752,0.130909,-0.00167452,0,0,0,0,0,0,0,0.360599,-28.2579,-0.213304,16.6916,0.221249,2.58904,0.0239107,
0.0938525,0.111516,-0.149022,-1.61124,0.0648556,0.174788,-0.0826245,-0.00408365,0.00479113,-0.00394948,-0.00341578,0.129008,-0.103017,-0.000361791,-0.204325,-0.980445,-0.170409,0.967848,17.845,-18.0611,0.0201475,0.522833,0.264742,0.526344,-0.328258,2.83135,-2.63674,-0.00235351,0.0941154,0.111893,-0.148736,-1.61204,0.0571011,0.182458,-0.0825931,-0.000714141,0.0481397,-0.00129366,-0.0776962,0.000735752,0.130909,-0.00167452,0,0,0,0,0,0,0,0.360599,-28.2579,-0.213304,16.6916,0.221249,2.58904,0.0239107,
0.0938742,0.112726,-0.149043,-1.61178,0.0643242,0.174992,-0.0826472,-0.00658347,0.0125739,-0.00696418,0.000934346,0.213851,-0.200911,-0.000759991,-1.56239,4.86423,-1.88418,2.71883,53.0269,-61.1837,-0.248875,4.60493,1.44769,4.46535,-1.91757,9.9343,-11.5218,-0.0010694,0.0941154,0.111893,-0.148736,-1.61204,0.0571011,0.182458,-0.0825931,-0.000714141,0.0481397,-0.00129366,-0.0776962,0.000735752,0.130909,-0.00167452,0,0,0,0,0,0,0,0.360599,-28.2579,-0.213304,16.6916,0.221249,2.58904,0.0239107,
0.09377,0.112958,-0.149153,-1.6117,0.0696873,0.169022,-0.0826552,-0.00787267,0.015872,-0.00832786,0.00290086,0.305158,-0.309979,-0.000808523,-0.805749,2.06132,-0.852302,1.22907,57.0675,-68.1676,-0.0303328,4.48123,1.63829,4.34056,-1.88974,9.68967,-11.2573,-0.000962931,0.0940869,0.11693,-0.148785,-1.6167,0.0585552,0.186771,-0.0825924,-0.00253679,0.120423,-0.00617347,-0.0627955,0.187681,-0.16357,-5.67705e-05,-0.227832,9.03537,-0.609976,1.86259,23.3682,-36.81,0.202219,0.689884,-29.5036,0.314344,28.0222,1.91864,2.66869,0.017502,
0.0937151,0.113115,-0.149208,-1.61167,0.0755774,0.162282,-0.0826575,-0.00766909,0.0166213,-0.00803457,0.00292478,0.391378,-0.416471,-0.00070321,0.127233,0.468329,0.183306,0.0149505,53.8872,-66.5575,0.065821,4.3559,1.61219,4.21042,-1.85472,9.46066,-11.0159,-0.00121352,0.0940869,0.11693,-0.148785,-1.6167,0.0585552,0.186771,-0.0825924,-0.00253679,0.120423,-0.00617347,-0.0627955,0.187681,-0.16357,-5.67705e-05,0,0,0,0,0,0,0,0.689884,-29.5036,0.314344,28.0222,1.91864,2.66869,0.017502,
0.093715,0.113229,-0.149206,-1.6117,0.0817472,0.155077,-0.0826569,-0.00613897,0.0161337,-0.00637754,0.0016935,0.467349,-0.51331,-0.000548502,0.956327,-0.304789,1.03564,-0.76955,47.4819,-60.5245,0.0966925,4.23238,1.57432,4.08945,-1.82519,9.23373,-10.7773,-0.00173626,0.0940869,0.11693,-0.148785,-1.6167,0.0585552,0.186771,-0.0825924,-0.00253679,0.120423,-0.00617347,-0.0627955,0.187681,-0.16357,-5.67705e-05,0,0,0,0,0,0,0,0.689884,-29.5036,0.314344,28.0222,1.91864,2.66869,0.017502,
0.0950383,0.118157,-0.147918,-1.61749,0.0659789,0.175552,-0.08234,0.0106434,0.0259679,0.00896932,-0.00831114,0.482149,-0.57758,0.00260604,10.489,6.14641,9.59179,-6.2529,9.24991,-40.1688,1.97159,28.3938,3.72579,26.8476,-10.289,10.8235,-14.2382,0.158239,0.0940869,0.11693,-0.148785,-1.6167,0.0585552,0.186771,-0.0825924,-0.00253679,0.120423,-0.00617347,-0.0627955,0.187681,-0.16357,-5.67705e-05,0,0,0,0,0,0,0,0.689884,-29.5036,0.314344,28.0222,1.91864,2.66869,0.017502,
0.0958801,0.11852,-0.14714,-1.61792,0.0712619,0.16746,-0.0821921,0.0295584,0.0298498,0.0266282,-0.0174007,0.517794,-0.664373,0.00578121,11.8219,2.42616,11.0368,-5.68096,22.2783,-54.2454,1.98448,26.631,3.91421,24.9304,-8.88202,10.6848,-14.2071,0.141777,0.0938915,0.120194,-0.148865,-1.61695,0.0713767,0.172534,-0.0825956,-0.0181686,0.207807,-0.0147891,0.060658,0.85696,-0.808445,0.00255985,-1.95397,10.923,-1.07696,15.4317,83.6598,-80.6093,0.327078,5.81165,-47.3485,5.18617,20.7501,4.0747,-3.49098,0.017502,
0.0968783,0.118659,-0.146194,-1.61854,0.077297,0.158494,-0.0819615,0.0486015,0.0273601,0.0449694,-0.0294249,0.565112,-0.755631,0.0103894,11.9019,-1.55606,11.4633,-7.51513,29.5738,-57.0364,2.88009,25.1592,2.20003,23.6129,-8.05035,10.6848,-14.2071,0.176856,0.0938915,0.120194,-0.148865,-1.61695,0.0713767,0.172534,-0.0825956,-0.0181686,0.207807,-0.0147891,0.060658,0.85696,-0.808445,0.00255985,0,0,0,0,0,0,0,5.81165,-47.3485,5.18617,20.7501,4.0747,-3.49098,0.017502,
0.0971109,0.117596,-0.145813,-1.62004,0.069457,0.168785,-0.0817449,0.0727605,0.0249556,0.0683911,-0.0516824,0.570505,-0.798274,0.0134281,15.0994,-1.50283,14.6386,-13.9109,3.37047,-26.6516,1.8992,38.9216,1.68702,37.2664,-19.9493,10.6848,-14.2071,0.302123,0.0938915,0.120194,-0.148865,-1.61695,0.0713767,0.172534,-0.0825956,-0.0181686,0.207807,-0.0147891,0.060658,0.85696,-0.808445,0.00255985,0,0,0,0,0,0,0,5.81165,-47.3485,5.18617,20.7501,4.0747,-3.49098,0.017502,
0.0968739,0.121476,-0.145872,-1.62049,0.0894422,0.148588,-0.0818356,0.0923525,0.0260378,0.0872587,-0.0741297,0.611271,-0.862615,0.0169979,12.245,0.676392,11.7922,-14.0296,25.479,-40.2134,2.23116,35.2702,2.53237,33.5905,-18.2997,10.6848,-14.2071,0.237601,0.0938915,0.120194,-0.148865,-1.61695,0.0713767,0.172534,-0.0825956,-0.0181686,0.207807,-0.0147891,0.060658,0.85696,-0.808445,0.00255985,0,0,0,0,0,0,0,5.81165,-47.3485,5.18617,20.7501,4.0747,-3.49098,0.017502,
0.098385,0.121605,-0.144408,-1.62191,0.0961044,0.13904,-0.0816836,0.111661,0.0240601,0.106383,-0.094729,0.655574,-0.928797,0.0173998,12.068,-1.23606,11.9527,-12.8745,27.689,-41.3639,0.251168,32.4029,1.81726,30.5614,-18.4324,10.6117,-13.9261,0.291908,0.0939693,0.124291,-0.147421,-1.61773,0.0994782,0.133521,-0.0825864,0.037995,0.0685677,0.19148,-0.0496164,0.918683,-1.37608,0.000825608,7.02045,-17.4049,25.7836,-13.7843,7.71542,-70.9545,-0.21678,20.0899,-38.2158,18.2623,13.4265,3.71399,-3.77662,0.0779268,
0.0999614,0.121736,-0.142862,-1.62329,0.103233,0.129007,-0.081619,0.128738,0.0225097,0.123756,-0.110343,0.70268,-0.993863,0.0155333,10.6728,-0.969024,10.8583,-9.75856,29.4411,-40.666,-1.16656,28.2397,0.648102,27.1101,-19.3135,10.6117,-13.9261,0.176722,0.0939693,0.124291,-0.147421,-1.61773,0.0994782,0.133521,-0.0825864,0.037995,0.0685677,0.19148,-0.0496164,0.918683,-1.37608,0.000825608,0,0,0,0,0,0,0,20.0899,-38.2158,18.2623,13.4265,3.71399,-3.77662,0.0779268,
0.0972782,0.123981,-0.144318,-1.62144,0.113037,0.113487,-0.0820566,0.148422,0.0130387,0.141483,-0.137253,0.731268,-1.04673,0.0189097,12.3023,-5.91936,11.0795,-16.8187,17.8677,-33.0429,2.11024,42.6482,-0.91654,39.2959,-27.6733,10.6117,-13.9261,0.301956,0.0939693,0.124291,-0.147421,-1.61773,0.0994782,0.133521,-0.0825864,0.037995,0.0685677,0.19148,-0.0496164,0.918683,-1.37608,0.000825608,0,0,0,0,0,0,0,20.0899,-38.2158,18.2623,13.4265,3.71399,-3.77662,0.0779268,
0.0992551,0.12377,-0.142488,-1.62347,0.120103,0.103244,-0.0819197,0.168159,0.00514459,0.158947,-0.160487,0.761651,-1.09346,0.0185513,12.3358,-4.93382,10.915,-14.5214,18.9895,-29.2045,-0.224024,37.7437,-0.795345,35.133,-26.7173,10.6117,-13.9261,0.294188,0.0939693,0.124291,-0.147421,-1.61773,0.0994782,0.133521,-0.0825864,0.037995,0.0685677,0.19148,-0.0496164,0.918683,-1.37608,0.000825608,0,0,0,0,0,0,0,20.0899,-38.2158,18.2623,13.4265,3.71399,-3.77662,0.0779268,
0.101292,0.123622,-0.140611,-1.62544,0.127541,0.0927948,-0.0818837,0.18546,0.000406125,0.174072,-0.177724,0.79527,-1.136,0.0157391,10.8134,-2.96154,9.45276,-10.773,21.0116,-26.5903,-1.7576,32.8873,-1.36322,30.5557,-26.8606,10.6117,-13.9261,0.154087,0.0939693,0.124291,-0.147421,-1.61773,0.0994782,0.133521,-0.0825864,0.037995,0.0685677,0.19148,-0.0496164,0.918683,-1.37608,0.000825608,0,0,0,0,0,0,0,20.0899,-38.2158,18.2623,13.4265,3.71399,-3.77662,0.0779268,
0.103336,0.123535,-0.138714,-1.62736,0.135299,0.0822069,-0.081878,0.199465,-0.00185002,0.186693,-0.19018,0.830187,-1.1735,0.0127348,8.75309,-1.41009,7.88833,-7.78494,21.8233,-23.4356,-1.87768,29.6794,0.191963,27.488,-25.6895,10.6371,-13.5088,0.0367648,0.101735,0.125139,-0.13968,-1.62562,0.129391,0.0852417,-0.0822244,0.1103,0.0559864,0.379359,-0.290951,0.98138,-1.58717,0.0190416,9.03807,-1.57266,23.4849,-30.1668,7.83717,-26.386,2.277,22.0934,-35.5934,19.635,25.4831,4.31915,-1.29646,0.0440523,
0.106355,0.125658,-0.135291,-1.63102,0.144752,0.0619969,-0.0818768,0.218936,0.00451451,0.20533,-0.220227,0.857,-1.22461,0.0129159,12.1694,3.97783,11.6483,-18.7797,16.7584,-31.9424,0.113167,40.6159,2.66815,37.9288,-32.6922,10.6371,-13.5088,0.27729,0.101735,0.125139,-0.13968,-1.62562,0.129391,0.0852417,-0.0822244,0.1103,0.0559864,0.379359,-0.290951,0.98138,-1.58717,0.0190416,0,0,0,0,0,0,0,22.0934,-35.5934,19.635,25.4831,4.31915,-1.29646,0.0440523,
0.108742,0.125923,-0.133043,-1.63366,0.152683,0.0507376,-0.0818776,0.234812,0.0102346,0.220454,-0.242167,0.883861,-1.26117,0.0103123,9.92262,3.57506,9.45243,-13.7125,16.7875,-22.8515,-1.62723,34.9145,1.82396,32.8123,-32.6018,10.6371,-13.5088,0.119208,0.101735,0.125139,-0.13968,-1.62562,0.129391,0.0852417,-0.0822244,0.1103,0.0559864,0.379359,-0.290951,0.98138,-1.58717,0.0190416,0,0,0,0,0,0,0,22.0934,-35.5934,19.635,25.4831,4.31915,-1.29646,0.0440523,
0.1111,0.126205,-0.130828,-1.63622,0.160826,0.039605,-0.0819128,0.246812,0.0152323,0.231739,-0.257744,0.910664,-1.28725,0.00736976,7.49974,3.12355,7.05287,-9.73572,16.7521,-16.3006,-1.83911,30.9452,2.31152,29.1941,-31.5162,10.6371,-13.5088,-0.00654498,0.101735,0.125139,-0.13968,-1.62562,0.129391,0.0852417,-0.0822244,0.1103,0.0559864,0.379359,-0.290951,0.98138,-1.58717,0.0190416,0,0,0,0,0,0,0,22.0934,-35.5934,19.635,25.4831,4.31915,-1.29646,0.0440523,
0.113408,0.126484,-0.128663,-1.63873,0.169139,0.0285815,-0.0819633,0.255154,0.019166,0.23952,-0.268766,0.936354,-1.30539,0.00463336,5.21368,2.45857,4.86299,-6.88865,16.0565,-11.3347,-1.71025,29.0229,2.82796,27.3185,-30.5553,10.7542,-12.9374,-0.0420426,0.114977,0.122518,-0.128853,-1.64005,0.163554,0.0262614,-0.0819272,0.322883,0.0333489,0.470515,-0.38911,1.05885,-1.88726,0.00109848,26.5729,-2.8297,11.3946,-12.2699,9.68347,-37.5119,-2.24289,16.2853,-33.7209,14.2594,27.3001,4.81994,0.0759184,0.0706026,
0.121101,0.122731,-0.123137,-1.64709,0.18138,0.00203958,-0.0819933,0.278775,0.018183,0.26114,-0.302562,0.97407,-1.32898,0.00170439,14.7634,-0.614368,13.5129,-21.1227,23.5722,-14.745,-1.83061,33.6326,-1.51049,31.25,-39.3058,10.7542,-10.548,0.0295948,0.114977,0.122518,-0.128853,-1.64005,0.163554,0.0262614,-0.0819272,0.322883,0.0333489,0.470515,-0.38911,1.05885,-1.88726,0.00109848,0,0,0,0,0,0,0,16.2853,-33.7209,14.2594,27.3001,4.81994,0.0759184,0.0706026,
0.123925,0.122861,-0.120505,-1.65049,0.190464,-0.0081965,-0.0820988,0.2936,0.0178088,0.274709,-0.327023,1.00635,-1.31909,-0.00127272,9.26523,-0.233862,8.4804,-15.2876,20.1762,6.18379,-1.86069,29.6823,-1.09891,27.6873,-38.1899,10.7542,-9.7129,-0.092125,0.114977,0.122518,-0.128853,-1.64005,0.163554,0.0262614,-0.0819272,0.322883,0.0333489,0.470515,-0.38911,1.05885,-1.88726,0.00109848,0,0,0,0,0,0,0,16.2853,-33.7209,14.2594,27.3001,4.81994,0.0759184,0.0706026,
0.126593,0.122986,-0.118017,-1.65379,0.199564,-0.0174701,-0.0822111,0.301602,0.0173594,0.281985,-0.344123,1.03259,-1.28711,-0.00382694,5.00166,-0.280885,4.54747,-10.6878,16.398,19.9856,-1.59639,27.4201,-1.04625,25.6232,-37.3323,10.7542,-8.96414,-0.118555,0.114977,0.122518,-0.128853,-1.64005,0.163554,0.0262614,-0.0819272,0.322883,0.0333489,0.470515,-0.38911,1.05885,-1.88726,0.00109848,0,0,0,0,0,0,0,16.2853,-33.7209,14.2594,27.3001,4.81994,0.0759184,0.0706026,
0.137558,0.121928,-0.10817,-1.66705,0.223942,-0.0580263,-0.0823307,0.323044,0.0181631,0.302156,-0.382701,1.07672,-1.24342,-0.00833506,13.4011,0.502319,12.6068,-24.1112,27.5837,27.3067,-2.81758,24.7191,-1.91507,23.1934,-43.3122,10.7791,-2.12431,-0.244276,0.130674,0.121651,-0.114612,-1.65829,0.203948,-0.0380241,-0.0819113,0.49705,0.00845745,0.476933,-0.547638,1.19131,-1.93932,0.00129945,21.7709,-3.11143,0.802147,-19.816,16.5584,-6.50747,0.0251213,11.9768,-33.8954,10.8634,23.1186,4.0747,-0.374521,0.0706026,
0.140544,0.12212,-0.105372,-1.67115,0.23385,-0.0643759,-0.0825277,0.333062,0.019327,0.311687,-0.408628,1.10909,-1.15347,-0.0115922,6.26137,0.72742,5.95724,-16.2045,20.2275,56.2154,-2.03572,23.414,-1.81776,21.9988,-42.5002,10.7791,-1.12218,-0.238841,0.130674,0.121651,-0.114612,-1.65829,0.203948,-0.0380241,-0.0819113,0.49705,0.00845745,0.476933,-0.547638,1.19131,-1.93932,0.00129945,0,0,0,0,0,0,0,11.9768,-33.8954,10.8634,23.1186,4.0747,-0.374521,0.0706026,
0.143293,0.122299,-0.102792,-1.67508,0.243562,-0.0688368,-0.0827007,0.335195,0.0199216,0.313835,-0.425282,1.13006,-1.0343,-0.0136,1.33322,0.371601,1.34211,-10.4088,13.1097,74.4817,-1.2549,22.4929,-1.76257,21.155,-41.817,10.7791,-0.374009,-0.221598,0.130674,0.121651,-0.114612,-1.65829,0.203948,-0.0380241,-0.0819113,0.49705,0.00845745,0.476933,-0.547638,1.19131,-1.93932,0.00129945,0,0,0,0,0,0,0,11.9768,-33.8954,10.8634,23.1186,4.0747,-0.374521,0.0706026,
0.145846,0.122452,-0.100397,-1.67887,0.253049,-0.0717036,-0.0828475,0.331975,0.0197646,0.310945,-0.434825,1.14123,-0.899111,-0.0145494,-2.01254,-0.0981056,-1.80601,-5.9639,6.97885,84.4943,-0.593367,21.8076,-1.55431,20.5201,-41.0832,10.7791,0.930493,-0.193131,0.130674,0.121651,-0.114612,-1.65829,0.203948,-0.0380241,-0.0819113,0.49705,0.00845745,0.476933,-0.547638,1.19131,-1.93932,0.00129945,0,0,0,0,0,0,0,11.9768,-33.8954,10.8634,23.1186,4.0747,-0.374521,0.0706026,
0.159731,0.120294,-0.0910387,-1.69785,0.27421,-0.105169,-0.0827904,0.356693,0.0201644,0.33407,-0.478529,1.19785,-0.784092,-0.019785,15.4485,0.249845,14.4529,-27.3152,35.3904,71.8869,-3.27223,15.3832,-5.13018,14.319,-47.2032,10.7157,10.8825,-0.43516,0.151868,0.120111,-0.0983663,-1.68678,0.251076,-0.0960491,-0.0821029,0.749979,-0.0898423,0.428804,-0.92344,1.4992,-1.39175,-0.0100649,31.6161,-12.2875,-6.01609,-46.9753,38.4859,68.4473,-1.42054,6.87885,-32.2252,6.81276,25.257,3.20129,2.32354,-0.0365141,
0.162942,0.120476,-0.0880297,-1.7027,0.285133,-0.104624,-0.0830625,0.365616,0.0206879,0.342482,-0.504031,1.23136,-0.613645,-0.0226312,5.57664,0.327243,5.2575,-15.9387,20.9436,106.53,-1.7789,16.1428,-5.06116,15.0514,-46.6098,10.7157,11.3183,-0.368496,0.151868,0.120111,-0.0983663,-1.68678,0.251076,-0.0960491,-0.0821029,0.749979,-0.0898423,0.428804,-0.92344,1.4992,-1.39175,-0.0100649,0,0,0,0,0,0,0,6.87885,-32.2252,6.81276,25.257,3.20129,2.32354,-0.0365141,
0.165807,0.120624,-0.0853435,-1.70724,0.29556,-0.101765,-0.0832848,0.364135,0.020259,0.341139,-0.516655,1.24576,-0.41945,-0.0236625,-0.925295,-0.268111,-0.838942,-7.89031,8.99848,121.371,-0.644559,16.7157,-4.63786,15.6083,-45.8621,10.7157,12.167,-0.304698,0.151868,0.120111,-0.0983663,-1.68678,0.251076,-0.0960491,-0.0821029,0.749979,-0.0898423,0.428804,-0.92344,1.4992,-1.39175,-0.0100649,0,0,0,0,0,0,0,6.87885,-32.2252,6.81276,25.257,3.20129,2.32354,-0.0365141,
0.168394,0.120726,-0.0829188,-1.71151,0.305524,-0.0972418,-0.083461,0.355985,0.0187476,0.33353,-0.520133,1.2457,-0.222479,-0.0233339,-5.09371,-0.944576,-4.756,-2.17343,-0.0378228,123.107,0.205413,17.0992,-4.10967,15.9966,-45.1047,10.7157,12.3995,-0.246732,0.151868,0.120111,-0.0983663,-1.68678,0.251076,-0.0960491,-0.0821029,0.749979,-0.0898423,0.428804,-0.92344,1.4992,-1.39175,-0.0100649,0,0,0,0,0,0,0,6.87885,-32.2252,6.81276,25.257,3.20129,2.32354,-0.0365141,
0.159263,0.120022,-0.0914871,-1.69845,0.274912,-0.104163,-0.0830103,0.368801,0.0158409,0.345493,-0.554404,1.29066,-0.229271,-0.028866,8.01015,-1.8167,7.47719,-21.4198,28.103,-4.24519,-3.45757,5.15835,-8.52047,4.63498,-49.8021,10.3148,12.8609,-0.607436,0.17193,0.119494,-0.0765993,-1.72216,0.305174,-0.125461,-0.0829417,0.817244,-0.0380528,0.399901,-1.14845,1.75722,-0.262717,-0.0353787,8.40816,6.47368,-3.6128,-28.1265,32.2527,141.129,-3.16422,-3.57098,-34.6968,-3.76006,25.6577,1.61926,7.13097,-0.150955,
0.162169,0.120071,-0.0887421,-1.70353,0.285574,-0.10325,-0.083324,0.367677,0.0138756,0.345018,-0.570723,1.29907,-0.160591,-0.0309333,-0.702628,-1.22834,-0.297273,-10.1989,5.25586,42.925,-1.29205,8.19137,-7.89515,7.52265,-49.1254,10.3148,12.8609,-0.470785,0.17193,0.119494,-0.0765993,-1.72216,0.305174,-0.125461,-0.0829417,0.817244,-0.0380528,0.399901,-1.14845,1.75722,-0.262717,-0.0353787,0,0,0,0,0,0,0,-3.57098,-34.6968,-3.76006,25.6577,1.61926,7.13097,-0.150955,
0.164747,0.120086,-0.0862944,-1.70827,0.294915,-0.10017,-0.0835621,0.358598,0.0114907,0.337207,-0.574874,1.27278,-0.0514712,-0.0306999,-5.6745,-1.49057,-4.88188,-2.59448,-16.4306,68.2,0.14585,10.2993,-6.91574,9.57035,-48.3146,8.20292,12.8609,-0.361368,0.17193,0.119494,-0.0765993,-1.72216,0.305174,-0.125461,-0.0829417,0.817244,-0.0380528,0.399901,-1.14845,1.75722,-0.262717,-0.0353787,0,0,0,0,0,0,0,-3.57098,-34.6968,-3.76006,25.6577,1.61926,7.13097,-0.150955,
0.159263,0.120022,-0.0914871,-1.69845,0.274912,-0.104163,-0.0830103,0.370892,0.0100353,0.348435,-0.598197,1.31233,-0.0924651,-0.0347588,7.68354,-0.909581,7.01759,-14.5772,24.7174,-25.6212,-2.53682,8.19137,-7.89515,7.52265,-49.1254,10.3148,12.8609,-0.470785,0.17193,0.119494,-0.0765993,-1.72216,0.305174,-0.125461,-0.0829417,0.817244,-0.0380528,0.399901,-1.14845,1.75722,-0.262717,-0.0353787,0,0,0,0,0,0,0,-3.57098,-34.6968,-3.76006,25.6577,1.61926,7.13097,-0.150955,
0.182853,0.12116,-0.0663696,-1.7389,0.33928,-0.121431,-0.0839243,0.374362,0.0194335,0.352112,-0.601916,1.29729,0.00944765,-0.0340833,2.16906,5.87387,2.298,-2.32413,-9.40413,63.6954,0.422176,10.1292,-7.64375,9.27871,-47.7341,7.8753,12.9896,-0.365677,0.19144,0.118782,-0.053559,-1.76306,0.363007,-0.113102,-0.0842393,0.581712,-0.130456,0.687247,-1.22261,1.63007,0.621676,-0.0558597,-29.4415,-11.5504,35.9182,-9.2696,-15.8945,110.549,-2.56012,-8.71655,-37.9143,-9.11193,23.0908,0.715634,3.58971,-0.0163725,
0.185594,0.121463,-0.0637762,-1.74348,0.34778,-0.116638,-0.0841127,0.368006,0.0231063,0.346525,-0.59614,1.25031,0.127379,-0.0319767,-3.97282,2.2955,-3.49165,3.60976,-29.3628,73.7074,1.31665,11.5639,-6.55266,10.6917,-46.8995,6.44713,12.9896,-0.27876,0.19144,0.118782,-0.053559,-1.76306,0.363007,-0.113102,-0.0842393,0.581712,-0.130456,0.687247,-1.22261,1.63007,0.621676,-0.0558597,0,0,0,0,0,0,0,-8.71655,-37.9143,-9.11193,23.0908,0.715634,3.58971,-0.0163725,
0.188058,0.12164,-0.0614448,-1.74778,0.354831,-0.110748,-0.0842475,0.355995,0.0229195,0.335505,-0.584329,1.17654,0.24915,-0.0289528,-7.5063,-0.11676,-6.88732,7.38223,-46.1035,76.1066,1.88995,12.5259,-5.43211,11.6485,-46.068,5.53712,12.9896,-0.209638,0.19144,0.118782,-0.053559,-1.76306,0.363007,-0.113102,-0.0842393,0.581712,-0.130456,0.687247,-1.22261,1.63007,0.621676,-0.0558597,0,0,0,0,0,0,0,-8.71655,-37.9143,-9.11193,23.0908,0.715634,3.58971,-0.0163725,
0.199429,0.119501,-0.0460591,-1.77413,0.384273,-0.105317,-0.0848294,0.376408,0.0285457,0.35445,-0.59273,1.18901,0.306632,-0.0296394,12.758,3.51637,11.8407,-5.2506,7.79317,35.9265,-0.429155,10.1292,-7.64375,9.27871,-47.7341,7.8753,12.9896,-0.365677,0.19144,0.118782,-0.053559,-1.76306,0.363007,-0.113102,-0.0842393,0.581712,-0.130456,0.687247,-1.22261,1.63007,0.621676,-0.0558597,0,0,0,0,0,0,0,-8.71655,-37.9143,-9.11193,23.0908,0.715634,3.58971,-0.0163725,
0.202587,0.11979,-0.0430856,-1.77869,0.392856,-0.100005,-0.0850255,0.380093,0.0300681,0.357898,-0.588176,1.16578,0.378116,-0.0286143,2.30284,0.951509,2.15463,2.84605,-14.5182,44.6773,0.640693,11.5639,-6.55266,10.6917,-46.8995,6.44713,12.9896,-0.27876,0.19144,0.118782,-0.053559,-1.76306,0.363007,-0.113102,-0.0842393,0.581712,-0.130456,0.687247,-1.22261,1.63007,0.621676,-0.0558597,0,0,0,0,0,0,0,-8.71655,-37.9143,-9.11193,23.0908,0.715634,3.58971,-0.0163725,
0.205366,0.11995,-0.0404681,-1.78295,0.400019,-0.093819,-0.0851662,0.373539,0.0280649,0.351755,-0.577024,1.11169,0.457143,-0.0264086,-4.09642,-1.252,-3.83902,6.96978,-33.805,49.392,1.37859,12.4457,-5.71097,11.4912,-45.9724,5.35944,12.949,-0.209983,0.210095,0.117864,-0.035332,-1.8045,0.416883,-0.088039,-0.0855958,0.51542,-0.0139492,0.648576,-1.27606,1.48498,0.872761,-0.033723,-8.28655,14.5633,-4.8339,-6.68169,-18.1365,31.3856,2.76709,-6.00293,-41.1357,-5.68816,30.9381,0.709225,4.47869,-0.150955,
0.207848,0.120009,-0.0381292,-1.78698,0.405819,-0.0869329,-0.0852605,0.36089,0.0239238,0.339876,-0.562339,1.03436,0.537867,-0.0234854,-7.90555,-2.58817,-7.42473,9.17849,-48.3316,50.4526,1.827,13.1461,-4.5838,12.109,-45.104,3.8507,12.949,-0.150667,0.210095,0.117864,-0.035332,-1.8045,0.416883,-0.088039,-0.0855958,0.51542,-0.0139492,0.648576,-1.27606,1.48498,0.872761,-0.033723,0,0,0,0,0,0,0,-6.00293,-41.1357,-5.68816,30.9381,0.709225,4.47869,-0.150955,
0.21755,0.119875,-0.0283185,-1.81592,0.434601,-0.0782731,-0.0860261,0.374664,0.0434401,0.352651,-0.578402,1.03038,0.556601,-0.0235596,8.60918,12.1977,7.98471,-10.0396,-2.48913,11.7083,-0.0464053,11.4837,-6.83152,10.5345,-46.8039,6.26945,12.949,-0.279104,0.210095,0.117864,-0.035332,-1.8045,0.416883,-0.088039,-0.0855958,0.51542,-0.0139492,0.648576,-1.27606,1.48498,0.872761,-0.033723,0,0,0,0,0,0,0,-6.00293,-41.1357,-5.68816,30.9381,0.709225,4.47869,-0.150955,
0.220543,0.120601,-0.0255059,-1.82055,0.441304,-0.0724859,-0.0861649,0.374558,0.0528996,0.352437,-0.578481,0.991862,0.589962,-0.0223197,-0.0666754,5.91219,-0.134157,-0.0494346,-24.073,20.8507,0.774941,12.4457,-5.71097,11.4912,-45.9724,5.35944,12.949,-0.209983,0.210095,0.117864,-0.035332,-1.8045,0.416883,-0.088039,-0.0855958,0.51542,-0.0139492,0.648576,-1.27606,1.48498,0.872761,-0.033723,0,0,0,0,0,0,0,-6.00293,-41.1357,-5.68816,30.9381,0.709225,4.47869,-0.150955,
0.22319,0.121103,-0.0230194,-1.82485,0.446686,-0.0659977,-0.0862581,0.365803,0.0548584,0.344112,-0.570371,0.928034,0.634175,-0.020184,-5.47141,1.22423,-5.20263,5.06878,-39.8923,27.6335,1.33484,12.9886,-5.0565,11.87,-45.0689,3.64781,12.8304,-0.147911,0.229824,0.118195,-0.0161721,-1.8444,0.463386,-0.0509467,-0.0865026,0.421644,0.0502986,0.659098,-1.10537,1.22663,1.27579,-0.0260456,-11.722,8.03099,1.3152,21.3371,-32.2935,50.3785,0.959678,-7.70489,-40.136,-7.68767,27.0541,0.404354,1.76049,-0.123489,
0.225557,0.121436,-0.0207958,-1.82891,0.450929,-0.0589193,-0.0863178,0.351818,0.0522198,0.330878,-0.557708,0.848508,0.684299,-0.0176407,-8.74066,-1.6491,-8.27156,7.91476,-49.7036,31.3275,1.58952,13.4062,-4.02791,12.2628,-44.23,2.46334,12.8304,-0.0982683,0.229824,0.118195,-0.0161721,-1.8444,0.463386,-0.0509467,-0.0865026,0.421644,0.0502986,0.659098,-1.10537,1.22663,1.27579,-0.0260456,0,0,0,0,0,0,0,-7.70489,-40.136,-7.68767,27.0541,0.404354,1.76049,-0.123489,
0.23671,0.1203,-0.0097089,-1.85491,0.477619,-0.0365283,-0.0868206,0.361004,0.0660405,0.339105,-0.56575,0.838327,0.722971,-0.0175395,5.7411,8.63791,5.14224,-5.02624,-6.36316,24.1701,0.0632361,12.2882,-6.18367,11.2522,-45.9373,5.15655,12.8304,-0.207227,0.229824,0.118195,-0.0161721,-1.8444,0.463386,-0.0509467,-0.0865026,0.421644,0.0502986,0.659098,-1.10537,1.22663,1.27579,-0.0260456,0,0,0,0,0,0,0,-7.70489,-40.136,-7.68767,27.0541,0.404354,1.76049,-0.123489,
0.239484,0.121001,-0.00711363,-1.85927,0.482716,-0.0293306,-0.0869135,0.358138,0.0703569,0.336166,-0.561653,0.798088,0.758318,-0.0163556,-1.79112,2.69774,-1.837,2.5606,-25.1494,22.0917,0.73995,12.9886,-5.0565,11.87,-45.0689,3.64781,12.8304,-0.147911,0.229824,0.118195,-0.0161721,-1.8444,0.463386,-0.0509467,-0.0865026,0.421644,0.0502986,0.659098,-1.10537,1.22663,1.27579,-0.0260456,0,0,0,0,0,0,0,-7.70489,-40.136,-7.68767,27.0541,0.404354,1.76049,-0.123489,
0.241936,0.12148,-0.0048181,-1.86336,0.486717,-0.0218371,-0.0869729,0.347826,0.0682619,0.326321,-0.551631,0.738503,0.793992,-0.0145679,-6.44495,-1.30937,-6.15321,6.26323,-37.241,22.2961,1.11736,13.3221,-4.08931,12.1087,-44.2103,2.40448,12.7632,-0.0945274,0.24916,0.118424,0.00120028,-1.88326,0.502399,-0.000190524,-0.086936,0.337132,0.0565371,0.749449,-1.10568,0.856408,1.60584,-0.00703281,-10.564,0.779803,11.2939,-0.0391034,-46.2775,41.2564,2.37659,-3.44403,-40.8342,-3.33556,30.4144,0.60577,0.771719,-0.110672,
0.255941,0.120706,0.00753516,-1.89353,0.511949,0.0167782,-0.0871503,0.356245,0.0810528,0.333502,-0.557947,0.696941,0.835277,-0.0139452,5.26147,7.99434,4.48794,-3.94722,-25.9761,25.803,0.389133,12.9045,-5.1179,11.7159,-45.0492,3.58895,12.7632,-0.14417,0.24916,0.118424,0.00120028,-1.88326,0.502399,-0.000190524,-0.086936,0.337132,0.0565371,0.749449,-1.10568,0.856408,1.60584,-0.00703281,0,0,0,0,0,0,0,-3.44403,-40.8342,-3.33556,30.4144,0.60577,0.771719,-0.110672,
0.258635,0.12149,0.0100412,-1.89779,0.515333,0.0245954,-0.0872107,0.352337,0.084441,0.329453,-0.552965,0.642146,0.86365,-0.0126656,-2.44258,2.11759,-2.53021,3.1135,-34.2467,17.7334,0.79976,13.3221,-4.08931,12.1087,-44.2103,2.40448,12.7632,-0.0945274,0.24916,0.118424,0.00120028,-1.88326,0.502399,-0.000190524,-0.086936,0.337132,0.0565371,0.749449,-1.10568,0.856408,1.60584,-0.00703281,0,0,0,0,0,0,0,-3.44403,-40.8342,-3.33556,30.4144,0.60577,0.771719,-0.110672,
0.261008,0.122042,0.0122514,-1.9018,0.517825,0.0324796,-0.0872441,0.341207,0.0813566,0.318817,-0.542552,0.576019,0.888027,-0.0109672,-6.95577,-1.92777,-6.64752,6.50853,-41.3295,15.2354,1.06149,13.4979,-3.12697,12.311,-43.3429,1.64508,12.7632,-0.0594724,0.24916,0.118424,0.00120028,-1.88326,0.502399,-0.000190524,-0.086936,0.337132,0.0565371,0.749449,-1.10568,0.856408,1.60584,-0.00703281,0,0,0,0,0,0,0,-3.44403,-40.8342,-3.33556,30.4144,0.60577,0.771719,-0.110672,
0.263138,0.122416,0.0142355,-1.90562,0.519422,0.0405283,-0.0872557,0.326221,0.0744496,0.304655,-0.52938,0.50073,0.911638,-0.00906511,-9.36682,-4.31685,-8.85165,8.23228,-47.0559,14.7573,1.18883,13.8367,-2.65919,12.5765,-42.6547,0.56358,12.5684,-0.0306097,0.271492,0.118955,0.014307,-1.92059,0.534062,0.057084,-0.0871761,0.581872,-0.0200949,0.385231,-1.05659,0.803417,1.67831,0.00494035,30.5926,-9.57899,-45.5272,6.13628,-6.62397,9.05925,1.49665,-4.83654,-39.6361,-3.23638,24.6619,1.5094,1.13061,-0.190323,
0.277761,0.120436,0.0201014,-1.9302,0.54172,0.0749404,-0.0872878,0.332937,0.0775036,0.310534,-0.532552,0.483657,0.938899,-0.00862047,4.19803,1.90873,3.67447,-1.98216,-10.6701,17.0379,0.277895,13.5363,-4.3944,12.2614,-44.3318,2.412,12.5684,-0.0923055,0.271492,0.118955,0.014307,-1.92059,0.534062,0.057084,-0.0871761,0.581872,-0.0200949,0.385231,-1.05659,0.803417,1.67831,0.00494035,0,0,0,0,0,0,0,-4.83654,-39.6361,-3.23638,24.6619,1.5094,1.13061,-0.190323,
0.280266,0.120966,0.0224305,-1.93421,0.544153,0.0830531,-0.0873204,0.32896,0.075245,0.306654,-0.526209,0.447745,0.953938,-0.00771143,-2.48609,-1.41161,-2.42508,3.96396,-22.4453,9.39912,0.568155,13.7122,-3.43206,12.4637,-43.4643,1.6526,12.5684,-0.0572505,0.271492,0.118955,0.014307,-1.92059,0.534062,0.057084,-0.0871761,0.581872,-0.0200949,0.385231,-1.05659,0.803417,1.67831,0.00494035,0,0,0,0,0,0,0,-4.83654,-39.6361,-3.23638,24.6619,1.5094,1.13061,-0.190323,
0.28249,0.121324,0.0245001,-1.93801,0.545708,0.0911748,-0.0873316,0.318771,0.0691604,0.297064,-0.51593,0.397071,0.966194,-0.00644918,-6.36791,-3.80286,-5.99386,6.42478,-31.6712,7.66025,0.788904,13.8367,-2.65919,12.5765,-42.6547,0.56358,12.5684,-0.0306097,0.271492,0.118955,0.014307,-1.92059,0.534062,0.057084,-0.0871761,0.581872,-0.0200949,0.385231,-1.05659,0.803417,1.67831,0.00494035,0,0,0,0,0,0,0,-4.83654,-39.6361,-3.23638,24.6619,1.5094,1.13061,-0.190323,
0.293069,0.121821,0.0396935,-1.96696,0.554462,0.138223,-0.0872791,0.326184,0.0775314,0.303085,-0.523037,0.343492,0.987768,-0.00593858,4.63294,5.23184,3.76308,-4.44188,-33.4869,13.4836,0.319127,13.6783,-3.3114,12.3551,-43.5332,1.68442,12.4573,-0.0521343,0.286804,0.120002,0.0340033,-1.95719,0.551984,0.119622,-0.0872269,0.772556,-0.0069281,0.196977,-1.08463,0.352059,1.81584,0.000379085,23.8354,1.64585,-23.5317,-3.50462,-56.4197,17.1903,-0.570158,-4.73736,-36.0179,-4.31151,21.25,2.67028,0.977713,-0.0301054,
0.295525,0.122504,0.0419588,-1.971,0.555049,0.146384,-0.0872927,0.32234,0.0790876,0.2991,-0.519506,0.289471,0.994238,-0.00509014,-2.40261,0.972672,-2.49062,2.20664,-33.7628,4.04412,0.530271,13.8028,-2.53853,12.468,-42.7235,0.595399,12.4573,-0.0254935,0.286804,0.120002,0.0340033,-1.95719,0.551984,0.119622,-0.0872269,0.772556,-0.0069281,0.196977,-1.08463,0.352059,1.81584,0.000379085,0,0,0,0,0,0,0,-4.73736,-36.0179,-4.31151,21.25,2.67028,0.977713,-0.0301054,
0.297695,0.122996,0.0439636,-1.97483,0.555128,0.154473,-0.0872866,0.312122,0.0755769,0.2894,-0.511373,0.233547,0.99761,-0.00391817,-6.38617,-2.19422,-6.06208,5.08327,-34.9528,2.10707,0.732484,13.93,-1.97865,12.5877,-42.0113,-0.421222,12.4573,-0.00422481,0.286804,0.120002,0.0340033,-1.95719,0.551984,0.119622,-0.0872269,0.772556,-0.0069281,0.196977,-1.08463,0.352059,1.81584,0.000379085,0,0,0,0,0,0,0,-4.73736,-36.0179,-4.31151,21.25,2.67028,0.977713,-0.0301054,
0.299652,0.123341,0.0457727,-1.97851,0.554698,0.162638,-0.087262,0.298627,0.06909,0.276748,-0.501007,0.176079,1.00222,-0.00252103,-8.43408,-4.05428,-7.90772,6.47847,-35.9173,2.87965,0.873209,14.0806,-1.55282,12.7462,-41.3537,-1.19856,12.4573,0.0148585,0.286804,0.120002,0.0340033,-1.95719,0.551984,0.119622,-0.0872269,0.772556,-0.0069281,0.196977,-1.08463,0.352059,1.81584,0.000379085,0,0,0,0,0,0,0,-4.73736,-36.0179,-4.31151,21.25,2.67028,0.977713,-0.0301054,
0.293098,0.121878,0.0397317,-1.9668,0.553646,0.138166,-0.0872365,0.310513,0.0781722,0.287356,-0.509141,0.154398,1.01604,-0.00232917,7.42868,5.67633,6.63006,-5.08359,-13.5508,8.63843,0.119916,13.676,-2.46975,12.2783,-42.7493,0.656118,12.3835,-0.0241072,0.301974,0.1217,0.0519212,-1.99408,0.564941,0.183209,-0.0872286,0.290284,0.0676208,0.693976,-1.05066,0.26471,1.95575,-0.000481121,-60.284,9.31861,62.1248,4.24553,-10.9185,17.4895,-0.107526,-1.94836,-34.5461,-1.68517,22.1704,2.31598,0.34783,0.0239107,
0.295572,0.122585,0.0420168,-1.97078,0.553703,0.146319,-0.0872345,0.310262,0.0802052,0.287011,-0.506741,0.124949,1.01667,-0.00181231,-0.156626,1.27061,-0.215419,1.49976,-18.4059,0.39301,0.323039,13.8032,-1.90988,12.3981,-42.0371,-0.360504,12.3835,-0.00283856,0.301974,0.1217,0.0519212,-1.99408,0.564941,0.183209,-0.0872286,0.290284,0.0676208,0.693976,-1.05066,0.26471,1.95575,-0.000481121,0,0,0,0,0,0,0,-1.94836,-34.5461,-1.68517,22.1704,2.31598,0.34783,0.0239107,
0.297759,0.1231,0.0440387,-1.97456,0.553282,0.154408,-0.0872138,0.302877,0.07703,0.280156,-0.499813,0.0894246,1.01556,-0.000934394,-4.61607,-1.98445,-4.28439,4.33034,-22.2026,-0.693293,0.548695,13.9538,-1.48405,12.5566,-41.3794,-1.13784,12.3835,0.0162447,0.301974,0.1217,0.0519212,-1.99408,0.564941,0.183209,-0.0872286,0.290284,0.0676208,0.693976,-1.05066,0.26471,1.95575,-0.000481121,0,0,0,0,0,0,0,-1.94836,-34.5461,-1.68517,22.1704,2.31598,0.34783,0.0239107,
0.29973,0.123466,0.0458617,-1.97819,0.552419,0.162576,-0.0871732,0.291579,0.0707938,0.269701,-0.490654,0.0499767,1.01665,0.000267826,-7.06091,-3.89767,-6.53446,5.72424,-24.6549,0.683441,0.751388,14.1327,-1.1563,12.7501,-40.7566,-1.71528,12.3835,0.0346306,0.301974,0.1217,0.0519212,-1.99408,0.564941,0.183209,-0.0872286,0.290284,0.0676208,0.693976,-1.05066,0.26471,1.95575,-0.000481121,0,0,0,0,0,0,0,-1.94836,-34.5461,-1.68517,22.1704,2.31598,0.34783,0.0239107,
0.308051,0.124113,0.0575376,-2.00357,0.565442,0.202623,-0.0872119,0.302921,0.0847628,0.279758,-0.499998,0.0376937,1.03552,0.000383418,7.08848,8.73064,6.28542,-5.83976,-7.67687,11.7955,0.0722453,13.7538,-2.0217,12.3109,-42.027,-0.27912,12.2326,-0.000774553,0.324413,0.124289,0.0623672,-2.02825,0.569063,0.245298,-0.0872245,0.422552,0.122413,0.517331,-0.955565,0.120531,1.78413,0.00026514,16.5335,6.84898,-22.0806,11.8871,-18.0224,-21.4524,0.0932826,-0.932736,-38.0888,0.461134,23.1662,1.63208,0.427481,0.0303194,
0.310458,0.124964,0.0597535,-2.00752,0.564873,0.210939,-0.0871917,0.302522,0.0890834,0.279204,-0.498894,0.0159311,1.03632,0.000812706,-0.249358,2.70039,-0.345964,0.68998,-13.6016,0.494112,0.268305,13.9043,-1.59587,12.4695,-41.3694,-1.05646,12.2326,0.0183087,0.324413,0.124289,0.0623672,-2.02825,0.569063,0.245298,-0.0872245,0.422552,0.122413,0.517331,-0.955565,0.120531,1.78413,0.00026514,0,0,0,0,0,0,0,-0.932736,-38.0888,0.461134,23.1662,1.63208,0.427481,0.0303194,
0.312589,0.125583,0.0617157,-2.01128,0.563897,0.219094,-0.0871518,0.295269,0.0867504,0.27242,-0.493141,-0.0116544,1.03291,0.00164724,-4.53321,-1.45815,-4.24033,3.59526,-17.2409,-2.12722,0.521586,14.0833,-1.26812,12.6629,-40.7465,-1.63389,12.2326,0.0366946,0.324413,0.124289,0.0623672,-2.02825,0.569063,0.245298,-0.0872245,0.422552,0.122413,0.517331,-0.955565,0.120531,1.78413,0.00026514,0,0,0,0,0,0,0,-0.932736,-38.0888,0.461134,23.1662,1.63208,0.427481,0.0303194,
0.330313,0.126896,0.0677793,-2.03754,0.567777,0.26373,-0.0871739,0.303756,0.0990848,0.279865,-0.501003,-0.0316542,1.0389,0.00189116,5.30442,7.70899,4.65354,-4.91363,-12.4999,3.74467,0.152447,13.9043,-1.59587,12.4695,-41.3694,-1.05646,12.2326,0.0183087,0.324413,0.124289,0.0623672,-2.02825,0.569063,0.245298,-0.0872245,0.422552,0.122413,0.517331,-0.955565,0.120531,1.78413,0.00026514,0,0,0,0,0,0,0,-0.932736,-38.0888,0.461134,23.1662,1.63208,0.427481,0.0303194,
0.332655,0.127792,0.0699305,-2.04148,0.566568,0.271755,-0.0871355,0.30155,0.101675,0.277674,-0.499417,-0.0555464,1.03174,0.00247468,-1.37838,1.61881,-1.36952,0.990941,-14.9326,-4.47832,0.364699,14.0833,-1.26812,12.6629,-40.7465,-1.63389,12.2326,0.0366946,0.324413,0.124289,0.0623672,-2.02825,0.569063,0.245298,-0.0872245,0.422552,0.122413,0.517331,-0.955565,0.120531,1.78413,0.00026514,0,0,0,0,0,0,0,-0.932736,-38.0888,0.461134,23.1662,1.63208,0.427481,0.0303194,
0.334732,0.128452,0.0718398,-2.04524,0.565139,0.279675,-0.0870777,0.293171,0.0978423,0.269871,-0.493487,-0.0801676,1.02338,0.00342328,-5.23684,-2.39535,-4.87685,3.70682,-15.3882,-5.22118,0.592873,14.4185,-1.00818,12.9478,-40.0892,-1.89018,12.0944,0.0596923,0.339087,0.126871,0.0795696,-2.06272,0.568484,0.306376,-0.0872124,0.784546,0.085761,0.14655,-1.0337,-0.0472379,1.83668,-0.00130853,45.2492,-4.58146,-46.3476,-9.76703,-20.9712,6.56807,-0.196708,-1.89679,-38.0888,-1.23686,24.5627,1.33819,0.679251,0.050461,
0.336611,0.128937,0.073566,-2.04885,0.5635,0.287647,-0.0870065,0.281507,0.0903922,0.259053,-0.485123,-0.105106,1.01802,0.00451992,-7.29054,-4.65632,-6.76155,5.22717,-15.5865,-3.35425,0.685401,14.5404,-0.823372,13.1038,-39.5287,-2.02958,12.0944,0.0811609,0.339087,0.126871,0.0795696,-2.06272,0.568484,0.306376,-0.0872124,0.784546,0.085761,0.14655,-1.0337,-0.0472379,1.83668,-0.00130853,0,0,0,0,0,0,0,-1.89679,-38.0888,-1.23686,24.5627,1.33819,0.679251,0.050461,
0.345074,0.129445,0.0849463,-2.07226,0.564619,0.324549,-0.0871132,0.29303,0.102372,0.269027,-0.496263,-0.133763,1.02151,0.00458081,7.20208,7.48717,6.23384,-6.96255,-17.9104,2.18373,0.0380579,14.2323,-1.25575,12.7413,-40.6829,-1.49351,12.0944,0.0388013,0.339087,0.126871,0.0795696,-2.06272,0.568484,0.306376,-0.0872124,0.784546,0.085761,0.14655,-1.0337,-0.0472379,1.83668,-0.00130853,0,0,0,0,0,0,0,-1.89679,-38.0888,-1.23686,24.5627,1.33819,0.679251,0.050461,
0.347412,0.130374,0.0870828,-2.07624,0.562688,0.332322,-0.0870607,0.292878,0.105134,0.268634,-0.496501,-0.155261,1.01151,0.00497651,-0.094765,1.72616,-0.24565,-0.148594,-13.4368,-6.24996,0.247311,14.4185,-1.00818,12.9478,-40.0892,-1.89018,12.0944,0.0596923,0.339087,0.126871,0.0795696,-2.06272,0.568484,0.306376,-0.0872124,0.784546,0.085761,0.14655,-1.0337,-0.0472379,1.83668,-0.00130853,0,0,0,0,0,0,0,-1.89679,-38.0888,-1.23686,24.5627,1.33819,0.679251,0.050461,
0.34948,0.131072,0.0889736,-2.08001,0.560752,0.339992,-0.0869937,0.285982,0.101548,0.262177,-0.491537,-0.172612,1.00096,0.00565637,-4.31032,-2.24092,-4.03522,3.1023,-10.844,-6.59397,0.424914,14.4259,-0.876043,12.9047,-39.6059,-1.98354,11.9297,0.083371,0.35194,0.129864,0.098195,-2.09652,0.564987,0.369711,-0.0871751,0.31176,0.0869466,0.607191,-0.990429,-0.232516,1.83168,-0.000626176,-59.0983,0.148212,57.5801,5.40906,-23.1598,-0.624532,0.0852939,-1.5675,-38.8902,-1.63756,28.645,1.87652,1.0244,0.0577852,
0.351348,0.131593,0.0906823,-2.08362,0.558672,0.347728,-0.086916,0.275488,0.094258,0.25246,-0.483469,-0.190096,0.994183,0.00646826,-6.55858,-4.55631,-6.07356,5.0426,-10.9279,-4.2361,0.507431,14.4343,-0.718172,12.9298,-39.0634,-2.22002,11.9297,0.0965286,0.35194,0.129864,0.098195,-2.09652,0.564987,0.369711,-0.0871751,0.31176,0.0869466,0.607191,-0.990429,-0.232516,1.83168,-0.000626176,0,0,0,0,0,0,0,-1.5675,-38.8902,-1.63756,28.645,1.87652,1.0244,0.0577852,
0.357599,0.132261,0.103348,-2.10583,0.560026,0.387604,-0.0870644,0.285064,0.103321,0.260629,-0.492849,-0.212223,0.999636,0.00649003,5.9849,5.66446,5.10561,-5.86233,-13.8294,3.40824,0.0136057,14.304,-1.06085,12.7487,-40.1664,-1.84414,11.9297,0.0619024,0.35194,0.129864,0.098195,-2.09652,0.564987,0.369711,-0.0871751,0.31176,0.0869466,0.607191,-0.990429,-0.232516,1.83168,-0.000626176,0,0,0,0,0,0,0,-1.5675,-38.8902,-1.63756,28.645,1.87652,1.0244,0.0577852,
0.359835,0.133124,0.105382,-2.10974,0.557799,0.395282,-0.0870017,0.28396,0.104242,0.259352,-0.491999,-0.225444,0.991671,0.00676096,-0.689963,0.575272,-0.797972,0.531397,-8.26296,-4.97843,0.169332,14.4259,-0.876043,12.9047,-39.6059,-1.98354,11.9297,0.083371,0.35194,0.129864,0.098195,-2.09652,0.564987,0.369711,-0.0871751,0.31176,0.0869466,0.607191,-0.990429,-0.232516,1.83168,-0.000626176,0,0,0,0,0,0,0,-1.5675,-38.8902,-1.63756,28.645,1.87652,1.0244,0.0577852,
0.361822,0.133772,0.107191,-2.11344,0.555565,0.402865,-0.0869272,0.276828,0.0996029,0.2527,-0.486126,-0.236198,0.982888,0.00727111,-4.4573,-2.89913,-4.1574,3.67029,-6.72117,-5.48906,0.318843,14.3909,-0.865731,12.8498,-38.9911,-2.10621,11.7595,0.0975366,0.373806,0.13323,0.106748,-2.12928,0.558027,0.431578,-0.0871248,0.296227,0.10922,0.580361,-0.923126,-0.296302,1.77729,0.0057211,-1.94166,2.78419,-3.35384,8.41285,-7.97327,-6.79846,0.79341,-1.05969,-39.6361,0.536512,26.1813,1.41235,0.99053,0.0239107,
0.363627,0.134255,0.108835,-2.11698,0.553131,0.410517,-0.0868389,0.266594,0.0917443,0.243266,-0.4773,-0.249802,0.977619,0.00802225,-6.39641,-4.91162,-5.89649,5.51606,-8.50245,-3.29345,0.469462,14.3626,-0.709731,12.8139,-38.4404,-2.57128,11.7595,0.104662,0.373806,0.13323,0.106748,-2.12928,0.558027,0.431578,-0.0871248,0.296227,0.10922,0.580361,-0.923126,-0.296302,1.77729,0.0057211,0,0,0,0,0,0,0,-1.05969,-39.6361,0.536512,26.1813,1.41235,0.99053,0.0239107,
0.37911,0.135029,0.111603,-2.13745,0.555495,0.451505,-0.0876108,0.273012,0.0900263,0.249143,-0.470311,-0.223778,1.01646,0.00266899,4.01116,-1.07378,3.67294,4.36811,16.2651,24.2783,-3.34579,14.3826,-1.0236,12.8248,-39.5336,-1.86972,11.7595,0.084379,0.373806,0.13323,0.106748,-2.12928,0.558027,0.431578,-0.0871248,0.296227,0.10922,0.580361,-0.923126,-0.296302,1.77729,0.0057211,0,0,0,0,0,0,0,-1.05969,-39.6361,0.536512,26.1813,1.41235,0.99053,0.0239107,
0.381079,0.135102,0.113413,-2.14036,0.554942,0.460023,-0.0874159,0.267636,0.0738481,0.244552,-0.448932,-0.192859,1.02612,0.00700839,-3.3596,-10.1114,-2.86891,13.362,19.3241,6.03778,2.71212,14.3909,-0.865731,12.8498,-38.9911,-2.10621,11.7595,0.0975366,0.373806,0.13323,0.106748,-2.12928,0.558027,0.431578,-0.0871248,0.296227,0.10922,0.580361,-0.923126,-0.296302,1.77729,0.0057211,0,0,0,0,0,0,0,-1.05969,-39.6361,0.536512,26.1813,1.41235,0.99053,0.0239107,
0.382734,0.134639,0.114949,-2.14285,0.554627,0.467684,-0.0868987,0.255478,0.0475012,0.234043,-0.421332,-0.162153,1.01242,0.0185351,-7.59893,-16.4668,-6.56856,17.25,19.1917,-8.56283,7.20419,14.6266,-1.06931,13.0116,-38.0923,-2.35407,11.6087,0.104232,0.386095,0.136619,0.124259,-2.16236,0.549129,0.488794,-0.0870942,0.809268,0.0519134,0.0663377,-0.949272,-0.261433,1.50881,-0.00140955,64.1302,-7.16334,-64.2529,-3.2683,4.35864,-33.5604,-0.891332,-1.51593,-37.6405,-1.73674,23.6383,-0.768436,3.7362,0.151169,
0.384154,0.133729,0.116284,-2.14504,0.554445,0.474492,-0.0861131,0.239898,0.0152484,0.22061,-0.391917,-0.13426,0.980118,0.0344687,-9.73736,-20.158,-8.39554,18.3846,17.4331,-20.1914,9.95854,14.6161,-0.939586,12.9865,-37.5418,-2.98511,11.6087,0.11412,0.386095,0.136619,0.124259,-2.16236,0.549129,0.488794,-0.0870942,0.809268,0.0519134,0.0663377,-0.949272,-0.261433,1.50881,-0.00140955,0,0,0,0,0,0,0,-1.51593,-37.6405,-1.73674,23.6383,-0.768436,3.7362,0.151169,
0.39106,0.136495,0.128685,-2.16941,0.546492,0.505403,-0.0869166,0.245872,0.00325221,0.226033,-0.384736,-0.130487,0.972435,0.0314252,3.73345,-7.49764,3.38937,4.48773,2.35798,-4.80206,-1.90219,14.6549,-1.22531,13.0474,-38.643,-1.88899,11.6087,0.0971064,0.386095,0.136619,0.124259,-2.16236,0.549129,0.488794,-0.0870942,0.809268,0.0519134,0.0663377,-0.949272,-0.261433,1.50881,-0.00140955,0,0,0,0,0,0,0,-1.51593,-37.6405,-1.73674,23.6383,-0.768436,3.7362,0.151169,
0.392775,0.13542,0.130291,-2.17151,0.546038,0.51149,-0.0866084,0.239556,-0.0242832,0.220967,-0.360335,-0.115751,0.930124,0.0328462,-3.94755,-17.2096,-3.16585,15.2507,9.21007,-26.4442,0.888077,14.6266,-1.06931,13.0116,-38.0923,-2.35407,11.6087,0.104232,0.386095,0.136619,0.124259,-2.16236,0.549129,0.488794,-0.0870942,0.809268,0.0519134,0.0663377,-0.949272,-0.261433,1.50881,-0.00140955,0,0,0,0,0,0,0,-1.51593,-37.6405,-1.73674,23.6383,-0.768436,3.7362,0.151169,
0.39417,0.133709,0.131627,-2.17316,0.545849,0.516343,-0.0861361,0.226533,-0.0621993,0.210187,-0.32955,-0.0973103,0.865412,0.0380828,-8.13916,-23.6976,-6.73786,19.2409,11.5252,-40.4448,3.27293,14.5192,-1.37642,12.8336,-37.341,-2.87384,11.508,0.113392,0.39939,0.138115,0.140615,-2.19384,0.546636,0.543151,-0.0866966,0.0966187,0.00387303,0.796873,-0.857845,-0.0562751,1.57253,0.0359555,-89.0812,-6.00505,91.3169,11.4284,25.6447,7.96469,4.67063,-1.79364,-37.0177,-1.23686,24.0152,-1.8982,2.82799,0.0843355,
0.404574,0.137625,0.145551,-2.2,0.549704,0.561868,-0.087094,0.238172,-0.0673058,0.221927,-0.320137,-0.0389045,0.897153,0.0272721,7.2743,-3.19157,7.33766,5.88316,36.5037,19.8382,-6.75669,14.5297,-1.50614,12.8586,-37.8914,-2.24279,11.508,0.103504,0.39939,0.138115,0.140615,-2.19384,0.546636,0.543151,-0.0866966,0.0966187,0.00387303,0.796873,-0.857845,-0.0562751,1.57253,0.0359555,0,0,0,0,0,0,0,-1.79364,-37.0177,-1.23686,24.0152,-1.8982,2.82799,0.0843355,
0.40634,0.135927,0.147259,-2.20139,0.551128,0.567945,-0.0870441,0.234676,-0.0962899,0.220249,-0.290883,0.00448498,0.869661,0.0230643,-2.18485,-18.115,-1.04852,18.2837,27.1184,-17.1824,-2.62988,14.5192,-1.37642,12.8336,-37.341,-2.87384,11.508,0.113392,0.39939,0.138115,0.140615,-2.19384,0.546636,0.543151,-0.0866966,0.0966187,0.00387303,0.796873,-0.857845,-0.0562751,1.57253,0.0359555,0,0,0,0,0,0,0,-1.79364,-37.0177,-1.23686,24.0152,-1.8982,2.82799,0.0843355,
0.407731,0.133403,0.148645,-2.2023,0.552365,0.572294,-0.0868012,0.222525,-0.140118,0.210851,-0.255371,0.0345112,0.804454,0.0245238,-7.59458,-27.3927,-5.87406,22.195,18.7664,-40.7545,0.912144,14.4404,-1.29099,12.7898,-36.824,-3.20822,11.508,0.126786,0.39939,0.138115,0.140615,-2.19384,0.546636,0.543151,-0.0866966,0.0966187,0.00387303,0.796873,-0.857845,-0.0562751,1.57253,0.0359555,0,0,0,0,0,0,0,-1.79364,-37.0177,-1.23686,24.0152,-1.8982,2.82799,0.0843355,
0.408875,0.130277,0.149822,-2.20291,0.553348,0.57531,-0.0863633,0.206608,-0.190254,0.198098,-0.219444,0.0521717,0.71896,0.0305672,-9.94839,-31.3346,-7.97061,22.4541,11.0378,-53.4338,3.77714,14.1572,-1.6302,12.5759,-36.4203,-3.2758,11.2876,0.124367,0.420604,0.135887,0.148598,-2.21897,0.544803,0.596957,-0.0856904,0.630742,-0.0796407,0.123671,-0.684029,-0.0299029,1.59475,0.0337131,66.7654,-10.4392,-84.1502,21.727,3.29653,2.77714,-0.280299,-1.41278,-31.9753,-0.237108,16.9891,0.367733,3.52379,0.0779268,
0.424505,0.132309,0.152178,-2.22288,0.544114,0.611894,-0.0848727,0.206134,-0.208329,0.197386,-0.208861,0.0396718,0.729467,0.0363713,-0.296059,-11.2968,-0.44505,6.61448,-7.8124,6.56696,3.62756,14.4954,-1.80098,12.804,-37.4265,-2.8185,11.2876,0.114559,0.420604,0.135887,0.148598,-2.21897,0.544803,0.596957,-0.0856904,0.630742,-0.0796407,0.123671,-0.684029,-0.0299029,1.59475,0.0337131,0,0,0,0,0,0,0,-1.41278,-31.9753,-0.237108,16.9891,0.367733,3.52379,0.0779268,
0.425721,0.129208,0.153386,-2.22356,0.544301,0.615947,-0.0842376,0.195305,-0.244189,0.1881,-0.184268,0.0364335,0.684907,0.0449725,-6.76789,-22.413,-5.8037,15.3708,-2.02395,-27.8502,5.37576,14.4166,-1.71556,12.7602,-36.9095,-3.15288,11.2876,0.127953,0.420604,0.135887,0.148598,-2.21897,0.544803,0.596957,-0.0856904,0.630742,-0.0796407,0.123671,-0.684029,-0.0299029,1.59475,0.0337131,0,0,0,0,0,0,0,-1.41278,-31.9753,-0.237108,16.9891,0.367733,3.52379,0.0779268,
0.426673,0.125451,0.154378,-2.22388,0.544539,0.618376,-0.0834366,0.180052,-0.289267,0.175282,-0.155231,0.0350915,0.608634,0.0560044,-9.53305,-28.1735,-8.01093,18.1478,-0.838746,-47.6707,6.89495,14.1572,-1.6302,12.5759,-36.4203,-3.2758,11.2876,0.124367,0.420604,0.135887,0.148598,-2.21897,0.544803,0.596957,-0.0856904,0.630742,-0.0796407,0.123671,-0.684029,-0.0299029,1.59475,0.0337131,0,0,0,0,0,0,0,-1.41278,-31.9753,-0.237108,16.9891,0.367733,3.52379,0.0779268,
0.427469,0.121243,0.155242,-2.22398,0.544699,0.619618,-0.0824666,0.16395,-0.336618,0.161835,-0.126689,0.0320782,0.51797,0.0690519,-10.0643,-29.5944,-8.40484,17.839,-1.88333,-56.6649,8.15468,13.9523,-2.29446,12.366,-35.8631,-4.08194,11.1047,0.117778,0.425258,0.125849,0.167423,-2.23972,0.544316,0.640039,-0.0848396,0.340133,-0.403874,0.296278,-0.555192,-0.0266059,1.19056,0.0513449,-36.3261,-40.5292,21.5759,16.1046,0.412115,-50.5237,2.20397,-2.37683,-24.4374,-3.78783,12.3315,-0.261234,6.87829,0.0101778,
0.428773,0.119375,0.170825,-2.2424,0.544807,0.651759,-0.0837102,0.168982,-0.356211,0.16678,-0.120974,0.03393,0.532667,0.0711729,3.14514,-12.2455,3.09097,3.57184,1.15741,9.18551,1.32561,14.3685,-2.53748,12.7263,-36.9021,-3.09057,11.1047,0.12825,0.425258,0.125849,0.167423,-2.23972,0.544316,0.640039,-0.0848396,0.340133,-0.403874,0.296278,-0.555192,-0.0266059,1.19056,0.0513449,0,0,0,0,0,0,0,-2.37683,-24.4374,-3.78783,12.3315,-0.261234,6.87829,0.0101778,
0.429957,0.115357,0.172038,-2.24265,0.545109,0.654698,-0.0829036,0.164772,-0.385411,0.163736,-0.103104,0.0346827,0.499603,0.077103,-2.63131,-18.2501,-1.90237,11.1686,0.470432,-20.6648,3.70635,14.1091,-2.45212,12.542,-36.4129,-3.21349,11.1047,0.124664,0.425258,0.125849,0.167423,-2.23972,0.544316,0.640039,-0.0848396,0.340133,-0.403874,0.296278,-0.555192,-0.0266059,1.19056,0.0513449,0,0,0,0,0,0,0,-2.37683,-24.4374,-3.78783,12.3315,-0.261234,6.87829,0.0101778,
0.430931,0.110914,0.17307,-2.24264,0.545287,0.656308,-0.0819222,0.156163,-0.419397,0.156801,-0.0822511,0.0321895,0.439951,0.0862184,-5.38057,-21.241,-4.33463,13.0332,-1.55827,-37.2823,5.69709,13.9523,-2.29446,12.366,-35.8631,-4.08194,11.1047,0.117778,0.425258,0.125849,0.167423,-2.23972,0.544316,0.640039,-0.0848396,0.340133,-0.403874,0.296278,-0.555192,-0.0266059,1.19056,0.0513449,0,0,0,0,0,0,0,-2.37683,-24.4374,-3.78783,12.3315,-0.261234,6.87829,0.0101778,
0.43178,0.106196,0.173993,-2.24251,0.545299,0.656987,-0.0807716,0.146175,-0.453473,0.148519,-0.0626311,0.026062,0.368919,0.0977394,-6.24251,-21.2979,-5.17639,12.2625,-3.82967,-44.3953,7.20061,13.8721,-2.13725,12.2986,-35.2799,-4.63331,11.1047,0.111954,0.425258,0.125849,0.167423,-2.23972,0.544316,0.640039,-0.0848396,0.340133,-0.403874,0.296278,-0.555192,-0.0266059,1.19056,0.0513449,0,0,0,0,0,0,0,-2.37683,-24.4374,-3.78783,12.3315,-0.261234,6.87829,0.0101778,
0.428785,0.119419,0.170852,-2.24232,0.544728,0.651747,-0.0837172,0.155123,-0.449,0.1567,-0.0683667,0.027366,0.413253,0.0939886,5.5928,2.79556,5.11349,-3.58476,0.814992,27.7086,-2.34424,14.1091,-2.45212,12.542,-36.4129,-3.21349,11.1047,0.124664,0.425258,0.125849,0.167423,-2.23972,0.544316,0.640039,-0.0848396,0.340133,-0.403874,0.296278,-0.555192,-0.0266059,1.19056,0.0513449,0,0,0,0,0,0,0,-2.37683,-24.4374,-3.78783,12.3315,-0.261234,6.87829,0.0101778,
0.42999,0.115426,0.172092,-2.24251,0.544932,0.654674,-0.082917,0.154228,-0.459002,0.156365,-0.0595417,0.0269809,0.403764,0.0951967,-0.5594,-6.25118,-0.209902,5.51562,-0.24066,-5.93013,0.755079,13.9523,-2.29446,12.366,-35.8631,-4.08194,11.1047,0.117778,0.425258,0.125849,0.167423,-2.23972,0.544316,0.640039,-0.0848396,0.340133,-0.403874,0.296278,-0.555192,-0.0266059,1.19056,0.0513449,0,0,0,0,0,0,0,-2.37683,-24.4374,-3.78783,12.3315,-0.261234,6.87829,0.0101778,
0.430986,0.111003,0.17315,-2.24245,0.545004,0.656269,-0.0819406,0.148291,-0.477781,0.151556,-0.0460723,0.0233901,0.3629,0.100568,-3.71055,-11.7369,-3.00554,8.41835,-2.2443,-25.5406,3.35731,13.8721,-2.13725,12.2986,-35.2799,-4.63331,11.1047,0.111954,0.425258,0.125849,0.167423,-2.23972,0.544316,0.640039,-0.0848396,0.340133,-0.403874,0.296278,-0.555192,-0.0266059,1.19056,0.0513449,0,0,0,0,0,0,0,-2.37683,-24.4374,-3.78783,12.3315,-0.261234,6.87829,0.0101778,
0.431857,0.106299,0.174096,-2.24228,0.544915,0.656931,-0.0807931,0.140397,-0.499838,0.144887,-0.0325582,0.0164888,0.306874,0.109141,-4.93407,-13.7856,-4.16775,8.4463,-4.31328,-35.0162,5.35763,13.8769,-2.0321,12.3268,-34.6945,-4.9499,11.1047,0.107207,0.425258,0.125849,0.167423,-2.23972,0.544316,0.640039,-0.0848396,0.340133,-0.403874,0.296278,-0.555192,-0.0266059,1.19056,0.0513449,0,0,0,0,0,0,0,-2.37683,-24.4374,-3.78783,12.3315,-0.261234,6.87829,0.0101778,
0.428821,0.119466,0.170903,-2.24222,0.544572,0.65174,-0.0837271,0.151046,-0.485486,0.154491,-0.0429029,0.0174078,0.363472,0.102974,6.65585,8.97027,6.0024,-6.46541,0.574335,35.3743,-3.85393,13.9523,-2.29446,12.366,-35.8631,-4.08194,11.1047,0.117778,0.425258,0.125849,0.167423,-2.23972,0.544316,0.640039,-0.0848396,0.340133,-0.403874,0.296278,-0.555192,-0.0266059,1.19056,0.0513449,0,0,0,0,0,0,0,-2.37683,-24.4374,-3.78783,12.3315,-0.261234,6.87829,0.0101778,
0.430049,0.115493,0.172169,-2.24236,0.544676,0.654656,-0.0829316,0.151534,-0.487704,0.155255,-0.0378622,0.0165137,0.363683,0.102267,0.304719,-1.38623,0.477122,3.15044,-0.558793,0.131735,-0.442102,13.8721,-2.13725,12.2986,-35.2799,-4.63331,11.1047,0.111954,0.425258,0.125849,0.167423,-2.23972,0.544316,0.640039,-0.0848396,0.340133,-0.403874,0.296278,-0.555192,-0.0266059,1.19056,0.0513449,0,0,0,0,0,0,0,-2.37683,-24.4374,-3.78783,12.3315,-0.261234,6.87829,0.0101778,
0.431067,0.111084,0.173251,-2.24225,0.544651,0.656239,-0.0819582,0.146661,-0.50039,0.151239,-0.0276021,0.0125846,0.330526,0.10615,-3.04521,-7.92895,-2.50988,6.41257,-2.45568,-20.7235,2.42679,13.8769,-2.0321,12.3268,-34.6945,-4.9499,11.1047,0.107207,0.425258,0.125849,0.167423,-2.23972,0.544316,0.640039,-0.0848396,0.340133,-0.403874,0.296278,-0.555192,-0.0266059,1.19056,0.0513449,0,0,0,0,0,0,0,-2.37683,-24.4374,-3.78783,12.3315,-0.261234,6.87829,0.0101778,
0.431954,0.106389,0.174213,-2.24204,0.544479,0.656888,-0.0808119,0.139513,-0.517697,0.145061,-0.0168842,0.00576245,0.280646,0.113577,-4.46797,-10.8171,-3.86122,6.69872,-4.26385,-31.1745,4.64169,13.9526,-1.99415,12.4252,-34.1193,-5.11788,11.1047,0.105771,0.425258,0.125849,0.167423,-2.23972,0.544316,0.640039,-0.0848396,0.340133,-0.403874,0.296278,-0.555192,-0.0266059,1.19056,0.0513449,0,0,0,0,0,0,0,-2.37683,-24.4374,-3.78783,12.3315,-0.261234,6.87829,0.0101778,
0.428846,0.11951,0.170939,-2.24213,0.544466,0.651733,-0.0837338,0.150712,-0.499207,0.155116,-0.0292186,0.00727666,0.342356,0.106435,6.99936,11.5565,6.28459,-7.70901,0.94638,38.5685,-4.46333,13.8721,-2.13725,12.2986,-35.2799,-4.63331,11.1047,0.111954,0.425258,0.125849,0.167423,-2.23972,0.544316,0.640039,-0.0848396,0.340133,-0.403874,0.296278,-0.555192,-0.0266059,1.19056,0.0513449,0,0,0,0,0,0,0,-2.37683,-24.4374,-3.78783,12.3315,-0.261234,6.87829,0.0101778,
0.43009,0.115556,0.172224,-2.24223,0.544502,0.65464,-0.0829408,0.151671,-0.498227,0.15622,-0.0258462,0.00671145,0.346574,0.104972,0.599657,0.612641,0.690212,2.10773,-0.353256,2.63614,-0.914364,13.8769,-2.0321,12.3268,-34.6945,-4.9499,11.1047,0.107207,0.425258,0.125849,0.167423,-2.23972,0.544316,0.640039,-0.0848396,0.340133,-0.403874,0.296278,-0.555192,-0.0266059,1.19056,0.0513449,0,0,0,0,0,0,0,-2.37683,-24.4374,-3.78783,12.3315,-0.261234,6.87829,0.0101778,
0.431121,0.111159,0.17332,-2.24209,0.544416,0.656213,-0.0819684,0.147118,-0.508494,0.152374,-0.0171086,0.00321754,0.316577,0.108288,-2.84582,-6.4172,-2.40383,5.461,-2.1837,-18.7482,2.07259,13.9526,-1.99415,12.4252,-34.1193,-5.11788,11.1047,0.105771,0.425258,0.125849,0.167423,-2.23972,0.544316,0.640039,-0.0848396,0.340133,-0.403874,0.296278,-0.555192,-0.0266059,1.19056,0.0513449,0,0,0,0,0,0,0,-2.37683,-24.4374,-3.78783,12.3315,-0.261234,6.87829,0.0101778,
0.432019,0.106473,0.174293,-2.24185,0.544196,0.656851,-0.0808216,0.140133,-0.523967,0.146212,-0.00778876,-0.00293521,0.269211,0.1153,-4.36561,-9.67045,-3.85118,5.8249,-3.84547,-29.604,4.3825,14.0597,-2.02207,12.5564,-33.563,-5.128,11.1047,0.104847,0.425258,0.125849,0.167423,-2.23972,0.544316,0.640039,-0.0848396,0.340133,-0.403874,0.296278,-0.555192,-0.0266059,1.19056,0.0513449,0,0,0,0,0,0,0,-2.37683,-24.4374,-3.78783,12.3315,-0.261234,6.87829,0.0101778,
0.428864,0.119549,0.170965,-2.24206,0.544395,0.651727,-0.0837378,0.151485,-0.503725,0.156391,-0.0210079,-0.000734643,0.333102,0.107766,7.09539,12.6515,6.3616,-8.26195,1.37535,39.9325,-4.709,13.8769,-2.0321,12.3268,-34.6945,-4.9499,11.1047,0.107207,0.425258,0.125849,0.167423,-2.23972,0.544316,0.640039,-0.0848396,0.340133,-0.403874,0.296278,-0.555192,-0.0266059,1.19056,0.0513449,0,0,0,0,0,0,0,-2.37683,-24.4374,-3.78783,12.3315,-0.261234,6.87829,0.0101778,
0.430118,0.11561,0.172262,-2.24213,0.544389,0.654628,-0.0829455,0.152561,-0.501453,0.157536,-0.0184466,-0.000741922,0.338999,0.106021,0.672283,1.42001,0.715785,1.6008,-0.00454972,3.68563,-1.09074,13.9526,-1.99415,12.4252,-34.1193,-5.11788,11.1047,0.105771,0.425258,0.125849,0.167423,-2.23972,0.544316,0.640039,-0.0848396,0.340133,-0.403874,0.296278,-0.555192,-0.0266059,1.19056,0.0513449,0,0,0,0,0,0,0,-2.37683,-24.4374,-3.78783,12.3315,-0.261234,6.87829,0.0101778,
0.431158,0.111225,0.173366,-2.24196,0.544269,0.656192,-0.0819724,0.14804,-0.510797,0.153629,-0.0105048,-0.00358392,0.310306,0.109144,-2.82585,-5.84021,-2.44186,4.9636,-1.77625,-17.9335,1.95185,14.0597,-2.02207,12.5564,-33.563,-5.128,11.1047,0.104847,0.425258,0.125849,0.167423,-2.23972,0.544316,0.640039,-0.0848396,0.340133,-0.403874,0.296278,-0.555192,-0.0266059,1.19056,0.0513449,0,0,0,0,0,0,0,-2.37683,-24.4374,-3.78783,12.3315,-0.261234,6.87829,0.0101778,
0.43206,0.106546,0.174341,-2.2417,0.544031,0.656821,-0.0808238,0.140968,-0.525616,0.147282,-0.00199081,-0.00882447,0.263957,0.116031,-4.41963,-9.26182,-3.96727,5.32127,-3.27534,-28.968,4.30449,14.1823,-2.10257,12.7003,-33.0241,-5.03725,11.1047,0.10591,0.425258,0.125849,0.167423,-2.23972,0.544316,0.640039,-0.0848396,0.340133,-0.403874,0.296278,-0.555192,-0.0266059,1.19056,0.0513449,0,0,0,0,0,0,0,-2.37683,-24.4374,-3.78783,12.3315,-0.261234,6.87829,0.0101778,
0.428876,0.119582,0.170983,-2.24201,0.54435,0.651723,-0.0837396,0.152342,-0.504628,0.157469,-0.0156467,-0.00606596,0.328815,0.108335,7.1087,13.1175,6.36694,-8.53491,1.72407,40.5359,-4.80988,13.9526,-1.99415,12.4252,-34.1193,-5.11788,11.1047,0.105771,0.425258,0.125849,0.167423,-2.23972,0.544316,0.640039,-0.0848396,0.340133,-0.403874,0.296278,-0.555192,-0.0266059,1.19056,0.0513449,0,0,0,0,0,0,0,-2.37683,-24.4374,-3.78783,12.3315,-0.261234,6.87829,0.0101778,
0.430138,0.115657,0.172286,-2.24205,0.544322,0.654618,-0.0829464,0.15341,-0.501841,0.158559,-0.0135156,-0.00554222,0.335431,0.106496,0.66746,1.74199,0.681129,1.33189,0.327336,4.13545,-1.14922,14.0597,-2.02207,12.5564,-33.563,-5.128,11.1047,0.104847,0.425258,0.125849,0.167423,-2.23972,0.544316,0.640039,-0.0848396,0.340133,-0.403874,0.296278,-0.555192,-0.0266059,1.19056,0.0513449,0,0,0,0,0,0,0,-2.37683,-24.4374,-3.78783,12.3315,-0.261234,6.87829,0.0101778,
0.43118,0.111281,0.173392,-2.24186,0.544194,0.656175,-0.0819715,0.14879,-0.510865,0.154486,-0.00606057,-0.00764077,0.307269,0.10957,-2.88745,-5.64044,-2.54513,4.65941,-1.31159,-17.6014,1.92093,14.1823,-2.10257,12.7003,-33.0241,-5.03725,11.1047,0.10591,0.425258,0.125849,0.167423,-2.23972,0.544316,0.640039,-0.0848396,0.340133,-0.403874,0.296278,-0.555192,-0.0266059,1.19056,0.0513449,0,0,0,0,0,0,0,-2.37683,-24.4374,-3.78783,12.3315,-0.261234,6.87829,0.0101778,
0.432079,0.10662,0.17436,-2.24157,0.543962,0.656782,-0.0808231,0.141484,-0.525218,0.147782,0.00225898,-0.0119052,0.260979,0.116366,-4.56614,-8.97071,-4.19011,5.19972,-2.66528,-28.9311,4.24755,14.2936,-2.22251,12.8338,-32.5031,-4.83434,11.1047,0.10655,0.425258,0.125849,0.167423,-2.23972,0.544316,0.640039,-0.0848396,0.340133,-0.403874,0.296278,-0.555192,-0.0266059,1.19056,0.0513449,0,0,0,0,0,0,0,-2.37683,-24.4374,-3.78783,12.3315,-0.261234,6.87829,0.0101778,
0.428884,0.11961,0.170992,-2.24197,0.544331,0.65172,-0.0837397,0.152859,-0.503954,0.157976,-0.0116941,-0.00877387,0.326357,0.108611,7.10935,13.2901,6.37102,-8.72069,1.95709,40.8612,-4.84661,14.0597,-2.02207,12.5564,-33.563,-5.128,11.1047,0.104847,0.425258,0.125849,0.167423,-2.23972,0.544316,0.640039,-0.0848396,0.340133,-0.403874,0.296278,-0.555192,-0.0266059,1.19056,0.0513449,0,0,0,0,0,0,0,-2.37683,-24.4374,-3.78783,12.3315,-0.261234,6.87829,0.0101778,
