xiao-wang007/linearmpc_panda/paper_data/panda_torque_PD_controller_error_match_to_start_torque_rate_limiter/4/trajectory.csv
Commanded Joint 0 Position,Commanded Joint 1 Position,Commanded Joint 2 Position,Commanded Joint 3 Position,Commanded Joint 4 Position,Commanded Joint 5 Position,Commanded Joint 6 Position,Commanded Joint 0 Velocity,Commanded Joint 1 Velocity,Commanded Joint 2 Velocity,Commanded Joint 3 Velocity,Commanded Joint 4 Velocity,Commanded Joint 5 Velocity,Commanded Joint 6 Velocity,Commanded Joint 0 Acceleration,Commanded Joint 1 Acceleration,Commanded Joint 2 Acceleration,Commanded Joint 3 Acceleration,Commanded Joint 4 Acceleration,Commanded Joint 5 Acceleration,Commanded Joint 6 Acceleration,Commanded Joint 0 Torque,Commanded Joint 1 Torque,Commanded Joint 2 Torque,Commanded Joint 3 Torque,Commanded Joint 4 Torque,Commanded Joint 5 Torque,Commanded Joint 6 Torque,Actual Joint 0 Position,Actual Joint 1 Position,Actual Joint 2 Position,Actual Joint 3 Position,Actual Joint 4 Position,Actual Joint 5 Position,Actual Joint 6 Position,Actual Joint 0 Velocity,Actual Joint 1 Velocity,Actual Joint 2 Velocity,Actual Joint 3 Velocity,Actual Joint 4 Velocity,Actual Joint 5 Velocity,Actual Joint 6 Velocity,Actual Joint 0 Acceleration,Actual Joint 1 Acceleration,Actual Joint 2 Acceleration,Actual Joint 3 Acceleration,Actual Joint 4 Acceleration,Actual Joint 5 Acceleration,Actual Joint 6 Acceleration,Actual Joint 0 Torque,Actual Joint 1 Torque,Actual Joint 2 Torque,Actual Joint 3 Torque,Actual Joint 4 Torque,Actual Joint 5 Torque,Actual Joint 6 Torque,
0.0251819,-0.0224373,-0.0503121,-1.78033,0.0371315,0.263734,-0.0187661,0.000348733,0.0211765,0.000290762,-0.0330412,-0.00523417,0.0512126,-0.000368927,0.217958,13.2353,0.181726,-20.6507,-3.27135,32.0079,-0.230579,0.0591853,23.9646,0.0476347,-24.5311,-0.771079,1.69783,-0.0233958,0.0251785,-0.0238958,-0.0503139,-1.77696,0.0373622,0.258223,-0.0187357,0.00207847,0.00133157,0.00134272,-0.0026754,-0.00520041,0.00104274,-0.00218843,0,0,0,0,0,0,0,-0.171017,-34.6214,-0.237108,27.3517,1.14959,3.35168,0.104477,
0.0251991,-0.0238647,-0.0502932,-1.77699,0.0373309,0.258201,-0.0187375,0.000396833,0.0171556,0.000351952,-0.0265633,-0.00424928,0.0407587,-0.000300772,0.0300627,-2.51304,0.0382438,4.04864,0.615556,-6.5337,0.0425969,0.053424,24.4051,0.0372661,-24.4474,-0.771096,1.44753,-0.0218784,0.0251785,-0.0238958,-0.0503139,-1.77696,0.0373622,0.258223,-0.0187357,0.00207847,0.00133157,0.00134272,-0.0026754,-0.00520041,0.00104274,-0.00218843,0,0,0,0,0,0,0,-0.171017,-34.6214,-0.237108,27.3517,1.14959,3.35168,0.104477,
0.0252026,-0.0238577,-0.0502896,-1.77699,0.0373314,0.258193,-0.0187377,0.000405036,0.0138994,0.000370205,-0.0213557,-0.00338744,0.0324134,-0.000244167,0.00512707,-2.03512,0.011408,3.25478,0.538651,-5.21585,0.0353781,0.0461785,24.9816,0.0255632,-24.3386,-0.770186,1.10189,-0.0199151,0.0251751,-0.0237216,-0.0503153,-1.77709,0.0373555,0.258214,-0.0187385,0.00235555,0.00527373,0.000567903,-0.00549491,-0.0104881,0.00222289,-0.00233738,0.0346351,0.49277,-0.0968521,-0.352438,-0.660964,0.147519,-0.0186193,-0.0718349,-35.3713,-0.16173,27.7246,1.1679,3.40478,0.0907442,
0.0252052,-0.023852,-0.0502869,-1.77699,0.0373332,0.258187,-0.0187378,0.00039049,0.0112625,0.000363435,-0.0171699,-0.00266518,0.0257616,-0.000197658,-0.00909121,-1.64808,-0.0042312,2.6161,0.451408,-4.15734,0.0290679,0.0402216,25.5055,0.0161173,-24.1707,-0.767882,0.717301,-0.0179121,0.0251751,-0.0237216,-0.0503153,-1.77709,0.0373555,0.258214,-0.0187385,0.00235555,0.00527373,0.000567903,-0.00549491,-0.0104881,0.00222289,-0.00233738,0,0,0,0,0,0,0,-0.0718349,-35.3713,-0.16173,27.7246,1.1679,3.40478,0.0907442,
0.0251926,-0.0232829,-0.0502998,-1.77767,0.0371441,0.258431,-0.0187358,0.000749173,0.019977,0.000678302,-0.0281983,-0.00741795,0.0260483,-9.18951e-05,0.224177,5.44658,0.196792,-6.89274,-2.97048,0.179186,0.0661018,-2.05022e-05,30.1239,-0.00928965,-23.4311,-1.15119,-2.46393,0.00205,0.0251751,-0.0237216,-0.0503153,-1.77709,0.0373555,0.258214,-0.0187385,0.00235555,0.00527373,0.000567903,-0.00549491,-0.0104881,0.00222289,-0.00233738,0,0,0,0,0,0,0,-0.0718349,-35.3713,-0.16173,27.7246,1.1679,3.40478,0.0907442,
0.0251506,-0.0228499,-0.0503396,-1.77789,0.037902,0.257617,-0.0187524,-0.000449425,0.0268059,-0.000452587,-0.0281453,0.0130133,0.00048141,-0.000488122,-0.749124,4.26804,-0.706805,0.0331271,12.7696,-15.9793,-0.247642,0.505394,0.231489,0.505559,-0.331427,3.04026,-2.434,-0.00242586,0.0251751,-0.0237216,-0.0503153,-1.77709,0.0373555,0.258214,-0.0187385,0.00235555,0.00527373,0.000567903,-0.00549491,-0.0104881,0.00222289,-0.00233738,0,0,0,0,0,0,0,-0.0718349,-35.3713,-0.16173,27.7246,1.1679,3.40478,0.0907442,
0.0250898,-0.0225034,-0.0503992,-1.77803,0.0392406,0.256328,-0.0187632,-0.00188103,0.0301075,-0.00185125,-0.0260175,0.0438766,-0.03183,-0.000660409,-0.894752,2.06352,-0.874165,1.32987,19.2895,-20.1946,-0.10768,0.498786,0.251784,0.499094,-0.327172,3.01572,-2.41184,-0.00235639,0.0251816,-0.0232012,-0.0503005,-1.77766,0.0370637,0.259311,-0.0187338,0.00143892,0.0389257,0.00183891,-0.0611553,-0.0195892,0.104881,7.1546e-05,-0.114579,4.20649,0.158875,-6.95755,-1.13764,12.8323,0.301116,-0.119442,-28.1825,-0.260912,20.6985,0.727535,2.94701,0.0440523,
0.0250292,-0.0222357,-0.0504591,-1.77814,0.0409218,0.25478,-0.0187696,-0.0030187,0.0307787,-0.00297885,-0.0236236,0.0771306,-0.0641852,-0.000688238,-0.711043,0.419525,-0.704749,1.49616,20.7837,-20.222,-0.0173929,0.49301,0.248549,0.493281,-0.323952,2.9899,-2.39147,-0.00230596,0.0251816,-0.0232012,-0.0503005,-1.77766,0.0370637,0.259311,-0.0187338,0.00143892,0.0389257,0.00183891,-0.0611553,-0.0195892,0.104881,7.1546e-05,0,0,0,0,0,0,0,-0.119442,-28.1825,-0.260912,20.6985,0.727535,2.94701,0.0440523,
0.0251998,-0.0224835,-0.0502843,-1.77841,0.0367614,0.259829,-0.0187304,-0.00196115,0.0425652,-0.00197616,-0.0378051,0.0541487,-0.0383962,-0.000464636,0.660969,7.36652,0.626679,-8.86339,-14.3637,16.1181,0.139751,-0.000956852,30.1469,-0.0100511,-23.4304,-1.14972,-2.46211,0.00205073,0.0251816,-0.0232012,-0.0503005,-1.77766,0.0370637,0.259311,-0.0187338,0.00143892,0.0389257,0.00183891,-0.0611553,-0.0195892,0.104881,7.1546e-05,0,0,0,0,0,0,0,-0.119442,-28.1825,-0.260912,20.6985,0.727535,2.94701,0.0440523,
0.0250695,-0.0217841,-0.0504064,-1.77845,0.039743,0.256496,-0.0187865,-0.00482552,0.0515374,-0.00463363,-0.0311323,0.117857,-0.114044,-0.00177634,-1.79023,5.60767,-1.66092,4.17045,39.8179,-47.2801,-0.819814,4.18483,1.41082,4.21013,-2.16538,10.8503,-12.1154,-0.00899488,0.0251816,-0.0232012,-0.0503005,-1.77766,0.0370637,0.259311,-0.0187338,0.00143892,0.0389257,0.00183891,-0.0611553,-0.0195892,0.104881,7.1546e-05,0,0,0,0,0,0,0,-0.119442,-28.1825,-0.260912,20.6985,0.727535,2.94701,0.0440523,
0.0249118,-0.0212695,-0.0505587,-1.7784,0.0447043,0.251111,-0.0188215,-0.00780251,0.0540937,-0.00751429,-0.0237755,0.218319,-0.225854,-0.00229477,-1.86062,1.59764,-1.80041,4.59801,62.7887,-69.8811,-0.324023,4.12348,1.59689,4.15093,-2.08532,10.8547,-11.8489,-0.00833061,0.0251793,-0.0214256,-0.0502787,-1.78383,0.0367408,0.262062,-0.0187354,-9.2778e-06,0.041578,0.00319748,-0.248438,0.0431736,-0.0228358,-0.000452574,-0.181025,0.331539,0.169821,-23.4103,7.84535,-15.9646,-0.065515,0.182071,-22.065,0.0366345,19.7543,1.41784,1.53435,0.0577852,
0.0247805,-0.020904,-0.0506865,-1.77839,0.0508574,0.244497,-0.018841,-0.00952628,0.052413,-0.00920844,-0.0187453,0.328482,-0.346039,-0.00232414,-1.07736,-1.05044,-1.05884,3.14392,68.852,-75.1155,-0.0183539,4.05305,1.63871,4.08054,-2.02062,10.8547,-11.6172,-0.00781726,0.0251793,-0.0214256,-0.0502787,-1.78383,0.0367408,0.262062,-0.0187354,-9.2778e-06,0.041578,0.00319748,-0.248438,0.0431736,-0.0228358,-0.000452574,0,0,0,0,0,0,0,0.182071,-22.065,0.0366345,19.7543,1.41784,1.53435,0.0577852,
0.0252159,-0.0203716,-0.0502457,-1.78519,0.0366339,0.261124,-0.0187232,-0.00670576,0.0682789,-0.00654019,-0.0490681,0.260113,-0.300272,-0.00155441,1.76282,9.91618,1.66765,-18.9518,-42.7306,28.6046,0.481084,-0.00165542,30.26,-0.0101139,-23.4262,-1.14525,-2.42656,0.00185337,0.0251793,-0.0214256,-0.0502787,-1.78383,0.0367408,0.262062,-0.0187354,-9.2778e-06,0.041578,0.00319748,-0.248438,0.0431736,-0.0228358,-0.000452574,0,0,0,0,0,0,0,0.182071,-22.065,0.0366345,19.7543,1.41784,1.53435,0.0577852,
0.0255851,-0.0194747,-0.0498641,-1.78602,0.0388151,0.256377,-0.0186588,0.00386529,0.0770473,0.0043083,-0.059919,0.262622,-0.358902,0.000367014,6.60691,5.48025,6.78031,-6.78182,1.56788,-36.6443,1.20089,28.2893,2.94043,28.4807,-13.1846,10.8547,-14.4266,0.0867975,0.0251793,-0.0214256,-0.0502787,-1.78383,0.0367408,0.262062,-0.0187354,-9.2778e-06,0.041578,0.00319748,-0.248438,0.0431736,-0.0228358,-0.000452574,0,0,0,0,0,0,0,0.182071,-22.065,0.0366345,19.7543,1.41784,1.53435,0.0577852,
0.026237,-0.0187489,-0.0491937,-1.78669,0.0426462,0.249363,-0.0185867,0.0193912,0.0797822,0.0202051,-0.064769,0.305874,-0.462467,0.00209527,9.70369,1.70933,9.9355,-3.03123,27.0325,-64.7277,1.08016,26.9571,4.11435,27.2121,-11.2381,10.8447,-14.3495,0.088094,0.0251986,-0.0195733,-0.0502387,-1.79286,0.0404793,0.257916,-0.0187361,0.0028788,0.120536,0.00440414,-0.247636,0.00448605,-0.184743,-0.00103924,0.361009,9.86976,0.150832,0.100152,-4.83594,-20.2384,-0.0733337,1.65393,-30.0551,1.48866,24.2612,1.38122,0.699392,0.0641939,
0.0271176,-0.018154,-0.0482923,-1.78731,0.0476732,0.2409,-0.0185179,0.0375265,0.078699,0.0387001,-0.0672877,0.370375,-0.58155,0.00339542,11.3346,-0.677007,11.5594,-1.5742,40.3128,-74.4272,0.812598,25.6627,3.95641,25.9414,-9.67612,10.8447,-14.3495,0.0802508,0.0251986,-0.0195733,-0.0502387,-1.79286,0.0404793,0.257916,-0.0187361,0.0028788,0.120536,0.00440414,-0.247636,0.00448605,-0.184743,-0.00103924,0,0,0,0,0,0,0,1.65393,-30.0551,1.48866,24.2612,1.38122,0.699392,0.0641939,
0.0252419,-0.0180984,-0.0501981,-1.79443,0.0401828,0.256186,-0.0187271,0.031102,0.0998303,0.0319752,-0.093073,0.288887,-0.508492,0.00294271,-4.01533,13.207,-4.20304,-16.1158,-50.9299,45.6613,-0.282946,-0.000190096,30.3499,-0.00760757,-23.3963,-1.15535,-2.34946,0.00159335,0.0251986,-0.0195733,-0.0502387,-1.79286,0.0404793,0.257916,-0.0187361,0.0028788,0.120536,0.00440414,-0.247636,0.00448605,-0.184743,-0.00103924,0,0,0,0,0,0,0,1.65393,-30.0551,1.48866,24.2612,1.38122,0.699392,0.0641939,
0.0258892,-0.0172249,-0.0495327,-1.79611,0.0417365,0.251356,-0.0184228,0.0410642,0.101704,0.0422141,-0.116396,0.269951,-0.527554,0.0099617,6.2264,1.17083,6.3993,-14.5771,-11.8351,-11.9136,4.38687,42.1636,-2.97493,42.4302,-23.932,10.8447,-14.3495,0.368956,0.0251986,-0.0195733,-0.0502387,-1.79286,0.0404793,0.257916,-0.0187361,0.0028788,0.120536,0.00440414,-0.247636,0.00448605,-0.184743,-0.00103924,0,0,0,0,0,0,0,1.65393,-30.0551,1.48866,24.2612,1.38122,0.699392,0.0641939,
0.0269432,-0.0166568,-0.0484663,-1.79776,0.0449313,0.244373,-0.018227,0.0592015,0.0955649,0.0604334,-0.134259,0.295832,-0.596622,0.0128629,11.3358,-3.83671,11.387,-11.164,16.176,-43.1674,1.81326,37.0494,-0.899011,37.2202,-22.5494,10.8447,-14.3495,0.22596,0.0251986,-0.0195733,-0.0502387,-1.79286,0.0404793,0.257916,-0.0187361,0.0028788,0.120536,0.00440414,-0.247636,0.00448605,-0.184743,-0.00103924,0,0,0,0,0,0,0,1.65393,-30.0551,1.48866,24.2612,1.38122,0.699392,0.0641939,
0.025645,-0.0114281,-0.0498865,-1.79745,0.0562281,0.224288,-0.0186997,0.0523906,0.1141,0.0533202,-0.144814,0.321841,-0.632166,0.0112552,-4.25682,11.5842,-4.44573,-6.59728,16.2555,-22.215,-1.00483,-0.265692,31.0036,-0.270304,-23.6975,-1.32197,-2.22947,0.00356805,0.0254438,-0.012934,-0.0500855,-1.79595,0.0528211,0.230483,-0.0187383,0.00926136,0.199042,0.00370696,-0.0422928,0.732048,-1.2199,0.00102432,0.79782,9.81329,-0.087147,25.668,90.9453,-129.394,0.257946,4.82379,-32.3244,4.53554,19.429,3.7268,-1.88697,0.0843355,
0.0266855,-0.0109767,-0.0488401,-1.80002,0.0598154,0.217203,-0.018194,0.0679245,0.102566,0.0688172,-0.180217,0.347156,-0.682856,0.0216469,9.70872,-7.20825,9.68565,-22.1264,15.822,-31.6813,6.49482,50.6812,-10.521,50.6911,-35.3998,10.678,-14.2295,0.588763,0.0254438,-0.012934,-0.0500855,-1.79595,0.0528211,0.230483,-0.0187383,0.00926136,0.199042,0.00370696,-0.0422928,0.732048,-1.2199,0.00102432,0,0,0,0,0,0,0,4.82379,-32.3244,4.53554,19.429,3.7268,-1.88697,0.0843355,
0.0281906,-0.0108419,-0.047331,-1.80264,0.0642039,0.208814,-0.0179489,0.0919689,0.0854214,0.0927816,-0.209739,0.387438,-0.756025,0.0234448,15.0277,-10.7156,14.9777,-18.4513,25.1759,-45.7309,1.1237,41.9215,-6.48617,41.9351,-33.1026,10.678,-14.2295,0.262734,0.0254438,-0.012934,-0.0500855,-1.79595,0.0528211,0.230483,-0.0187383,0.00926136,0.199042,0.00370696,-0.0422928,0.732048,-1.2199,0.00102432,0,0,0,0,0,0,0,4.82379,-32.3244,4.53554,19.429,3.7268,-1.88697,0.0843355,
0.0299519,-0.0107736,-0.0455654,-1.8051,0.0695203,0.199425,-0.017881,0.117607,0.0700452,0.118366,-0.229297,0.442859,-0.839536,0.0204533,16.024,-9.61013,15.9901,-12.2243,34.6384,-52.1941,-1.86972,36.3031,-3.0698,36.3368,-30.6133,10.678,-14.2295,0.0635119,0.0254438,-0.012934,-0.0500855,-1.79595,0.0528211,0.230483,-0.0187383,0.00926136,0.199042,0.00370696,-0.0422928,0.732048,-1.2199,0.00102432,0,0,0,0,0,0,0,4.82379,-32.3244,4.53554,19.429,3.7268,-1.88697,0.0843355,
0.0300901,-0.00997573,-0.045753,-1.81212,0.0867633,0.168383,-0.0177703,0.141767,0.0527245,0.142621,-0.269706,0.48694,-0.933051,0.0219879,15.1,-10.8255,15.1597,-25.2551,27.5505,-58.4468,0.959136,55.1284,-13.1641,55.1716,-43.9765,10.653,-13.9194,0.657966,0.0267193,-0.00970634,-0.0491424,-1.80489,0.0765006,0.188714,-0.0185806,0.0704725,0.0327512,0.0679034,-0.464511,0.722845,-1.17179,0.013667,7.65139,-20.7864,8.02455,-52.7773,-1.15037,6.01406,1.58033,10.8342,-33.3241,10.4865,17.3145,1.74743,-2.05909,0.104477,
0.0322052,-0.0100166,-0.0436281,-1.81527,0.0927606,0.157572,-0.0177671,0.166289,0.0411577,0.167218,-0.294599,0.539484,-1.01671,0.0176695,15.3263,-7.22921,15.373,-15.5585,32.8404,-52.2889,-2.699,44.0873,-6.49022,44.1816,-40.0667,10.653,-13.9194,0.220742,0.0267193,-0.00970634,-0.0491424,-1.80489,0.0765006,0.188714,-0.0185806,0.0704725,0.0327512,0.0679034,-0.464511,0.722845,-1.17179,0.013667,0,0,0,0,0,0,0,10.8342,-33.3241,10.4865,17.3145,1.74743,-2.05909,0.104477,
0.0344106,-0.0099738,-0.0414127,-1.81821,0.0994399,0.146593,-0.0178706,0.188166,0.0339963,0.18916,-0.309178,0.598571,-1.08786,0.01155,13.6731,-4.47588,13.7134,-9.11138,36.9292,-44.4644,-3.82466,37.4503,-2.51606,37.5589,-37.1817,10.653,-13.9194,-0.0237732,0.0267193,-0.00970634,-0.0491424,-1.80489,0.0765006,0.188714,-0.0185806,0.0704725,0.0327512,0.0679034,-0.464511,0.722845,-1.17179,0.013667,0,0,0,0,0,0,0,10.8342,-33.3241,10.4865,17.3145,1.74743,-2.05909,0.104477,
0.0366464,-0.0098962,-0.0391665,-1.82104,0.106684,0.13569,-0.0179685,0.206428,0.029137,0.207482,-0.318183,0.659961,-1.14286,0.00679192,11.4135,-3.03707,11.4517,-5.62866,38.3686,-34.3744,-2.97382,33.4224,-0.622322,33.5389,-35.0399,10.653,-13.9194,-0.139532,0.0267193,-0.00970634,-0.0491424,-1.80489,0.0765006,0.188714,-0.0185806,0.0704725,0.0327512,0.0679034,-0.464511,0.722845,-1.17179,0.013667,0,0,0,0,0,0,0,10.8342,-33.3241,10.4865,17.3145,1.74743,-2.05909,0.104477,
0.0273086,-0.00835906,-0.0485584,-1.80733,0.079902,0.180974,-0.0185401,0.179874,0.0569915,0.180584,-0.315571,0.613002,-1.10779,0.00644633,-16.5964,17.4091,-16.8114,1.63287,-29.3489,21.9158,-0.21599,0.0539203,31.5402,0.0538401,-23.583,-1.33716,-1.54014,0.0015907,0.0303439,-0.00989311,-0.0452883,-1.82408,0.100208,0.144692,-0.0180325,0.137809,-0.0358887,0.176796,-0.644344,0.765596,-1.54551,0.009849,8.41706,-8.57998,13.6116,-22.479,5.3439,-46.7158,-0.477246,17.7809,-34.2207,17.5125,23.9636,4.69177,-1.79359,0.14476,
0.0285073,-0.00787557,-0.0473483,-1.81077,0.0839171,0.17324,-0.0183734,0.173866,0.0576805,0.174722,-0.338572,0.590781,-1.07957,0.00932389,-3.75466,0.43061,-3.66394,-14.3757,-13.8881,17.6381,1.79848,43.9254,-6.51045,43.9727,-44.4863,10.6628,-12.202,0.169465,0.0303439,-0.00989311,-0.0452883,-1.82408,0.100208,0.144692,-0.0180325,0.137809,-0.0358887,0.176796,-0.644344,0.765596,-1.54551,0.009849,0,0,0,0,0,0,0,17.7809,-34.2207,17.5125,23.9636,4.69177,-1.79359,0.14476,
0.0300444,-0.00760764,-0.0458017,-1.81424,0.0887998,0.164955,-0.0184237,0.177521,0.0528426,0.178442,-0.357426,0.594691,-1.07078,0.0062027,2.28449,-3.02371,2.32529,-11.7836,2.4435,5.49091,-1.95075,36.8713,-3.0497,36.9401,-41.7199,10.6628,-11.657,-0.0963665,0.0303439,-0.00989311,-0.0452883,-1.82408,0.100208,0.144692,-0.0180325,0.137809,-0.0358887,0.176796,-0.644344,0.765596,-1.54551,0.009849,0,0,0,0,0,0,0,17.7809,-34.2207,17.5125,23.9636,4.69177,-1.79359,0.14476,
0.0359721,-0.00984735,-0.0396525,-1.83689,0.119637,0.111516,-0.0184922,0.192599,0.0443772,0.193397,-0.387288,0.648649,-1.10915,-0.000447908,9.4238,-5.29085,9.34696,-18.6642,33.7237,-23.976,-4.15663,38.9972,-5.1527,38.9778,-48.5993,10.6628,-12.0319,-0.113753,0.0303439,-0.00989311,-0.0452883,-1.82408,0.100208,0.144692,-0.0180325,0.137809,-0.0358887,0.176796,-0.644344,0.765596,-1.54551,0.009849,0,0,0,0,0,0,0,17.7809,-34.2207,17.5125,23.9636,4.69177,-1.79359,0.14476,
0.0380321,-0.00976362,-0.0375895,-1.84086,0.126993,0.102603,-0.0186937,0.205579,0.037595,0.206293,-0.409141,0.702812,-1.11016,-0.00539551,8.1125,-4.23884,8.05984,-13.6578,33.8519,-0.636075,-3.09225,34.4792,-2.14642,34.4917,-45.9831,10.9841,-10.0937,-0.282894,0.039705,-0.0121971,-0.0344395,-1.84993,0.130657,0.0856441,-0.0176995,0.429783,-0.00098415,0.395474,-0.769621,0.975619,-1.87911,-0.00111969,36.4968,4.36306,27.3347,-15.6597,26.2528,-41.7003,-1.37109,22.7004,-27.9802,22.1622,26.2805,4.45922,0.632559,0.131027,
0.0400729,-0.00967681,-0.0355452,-1.84474,0.134727,0.0948231,-0.0189305,0.215484,0.0322462,0.216142,-0.424272,0.755598,-1.08262,-0.010236,6.19047,-3.34304,6.15562,-9.45667,32.9913,17.2163,-3.02533,31.3412,-1.43399,31.3664,-44.3882,10.9841,-8.62844,-0.284999,0.039705,-0.0121971,-0.0344395,-1.84993,0.130657,0.0856441,-0.0176995,0.429783,-0.00098415,0.395474,-0.769621,0.975619,-1.87911,-0.00111969,0,0,0,0,0,0,0,22.7004,-27.9802,22.1622,26.2805,4.45922,0.632559,0.131027,
0.0420703,-0.00957585,-0.0335441,-1.8485,0.142741,0.0880817,-0.0191816,0.222321,0.028321,0.222941,-0.433409,0.804843,-1.03463,-0.0144648,4.27287,-2.45324,4.24915,-5.71082,30.778,29.9922,-2.64299,28.525,-1.58271,28.559,-43.5589,10.9841,-6.96276,-0.256204,0.039705,-0.0121971,-0.0344395,-1.84993,0.130657,0.0856441,-0.0176995,0.429783,-0.00098415,0.395474,-0.769621,0.975619,-1.87911,-0.00111969,0,0,0,0,0,0,0,22.7004,-27.9802,22.1622,26.2805,4.45922,0.632559,0.131027,
0.0525681,-0.0103227,-0.0215506,-1.87366,0.175013,0.0525958,-0.019038,0.233229,0.0306602,0.233877,-0.452132,0.868269,-0.891302,-0.0171284,6.81791,1.462,6.83514,-11.7022,39.6414,89.5794,-1.66471,25.1663,-3.19425,25.2426,-46.8015,10.9841,-1.42207,-0.351285,0.039705,-0.0121971,-0.0344395,-1.84993,0.130657,0.0856441,-0.0176995,0.429783,-0.00098415,0.395474,-0.769621,0.975619,-1.87911,-0.00111969,0,0,0,0,0,0,0,22.7004,-27.9802,22.1622,26.2805,4.45922,0.632559,0.131027,
0.0546569,-0.0100649,-0.0194557,-1.87768,0.18391,0.0513632,-0.0192274,0.238805,0.0309739,0.239474,-0.462247,0.917037,-0.743857,-0.0184387,3.4848,0.196053,3.49832,-6.3218,30.4797,92.1529,-0.818939,23.6517,-3.16164,23.7388,-44.8293,11.0462,0.21246,-0.365427,0.0550951,-0.0122911,-0.0192542,-1.87648,0.160742,0.027921,-0.0179184,0.494515,-0.0604726,0.528789,-0.914251,1.02936,-1.5275,-0.0209094,8.09149,-7.43605,16.6644,-18.0788,6.71748,43.9522,-2.47372,15.0435,-30.1027,14.8108,19.0085,4.45922,-0.819467,0.0980684,
0.0566346,-0.00986589,-0.0174721,-1.88152,0.192719,0.0511432,-0.0193872,0.240485,0.0297541,0.241171,-0.465871,0.953867,-0.600586,-0.0187452,1.04994,-0.762361,1.06016,-2.26491,23.0189,89.5447,-0.191582,22.5321,-2.75324,22.6188,-43.8531,11.0462,1.09765,-0.341839,0.0550951,-0.0122911,-0.0192542,-1.87648,0.160742,0.027921,-0.0179184,0.494515,-0.0604726,0.528789,-0.914251,1.02936,-1.5275,-0.0209094,0,0,0,0,0,0,0,15.0435,-30.1027,14.8108,19.0085,4.45922,-0.819467,0.0980684,
0.0585164,-0.00972275,-0.0155843,-1.88524,0.201446,0.0519684,-0.0195202,0.239434,0.0273817,0.240131,-0.465581,0.981272,-0.459839,-0.0183228,-0.656784,-1.48277,-0.649621,0.181091,17.1283,87.9667,0.263963,21.7244,-2.45158,21.8096,-42.9706,11.0462,2.38227,-0.306523,0.0550951,-0.0122911,-0.0192542,-1.87648,0.160742,0.027921,-0.0179184,0.494515,-0.0604726,0.528789,-0.914251,1.02936,-1.5275,-0.0209094,0,0,0,0,0,0,0,15.0435,-30.1027,14.8108,19.0085,4.45922,-0.819467,0.0980684,
0.0691503,-0.0111726,-0.0051567,-1.90251,0.207585,0.0258556,-0.019,0.247835,0.0276734,0.248591,-0.482697,1.01705,-0.261569,-0.0182743,5.25061,0.182292,5.28763,-10.6971,22.3586,123.919,0.0303235,19.4467,-6.39009,19.5637,-47.7218,11.0462,11.6834,-0.348006,0.0550951,-0.0122911,-0.0192542,-1.87648,0.160742,0.027921,-0.0179184,0.494515,-0.0604726,0.528789,-0.914251,1.02936,-1.5275,-0.0209094,0,0,0,0,0,0,0,15.0435,-30.1027,14.8108,19.0085,4.45922,-0.819467,0.0980684,
0.0712236,-0.0109977,-0.00307562,-1.90667,0.216702,0.0312999,-0.0191169,0.250098,0.026512,0.2509,-0.490194,1.04154,-0.0731471,-0.0175432,1.41441,-0.725815,1.44282,-4.6855,15.3109,117.763,0.456964,19.4424,-5.65594,19.5651,-45.8357,11.0422,12.468,-0.299447,0.075005,-0.011637,0.00158705,-1.9124,0.202101,-0.0139492,-0.01892,0.633495,-0.0217754,0.638903,-1.20533,1.42165,-0.871916,-0.035584,17.3725,4.83715,13.7643,-36.3844,49.0359,81.9476,-1.83433,4.74842,-33.0226,4.48793,25.9552,3.03009,3.74901,-0.0630644,
0.0731498,-0.0108798,-0.00114156,-1.91063,0.225659,0.0376203,-0.0192096,0.248236,0.0241563,0.249072,-0.491177,1.05716,0.0994908,-0.0163517,-1.16395,-1.47233,-1.14268,-0.614819,9.76214,107.899,0.744707,19.1596,-4.77573,19.2783,-44.9954,11.0422,12.2161,-0.248588,0.075005,-0.011637,0.00158705,-1.9124,0.202101,-0.0139492,-0.01892,0.633495,-0.0217754,0.638903,-1.20533,1.42165,-0.871916,-0.035584,0,0,0,0,0,0,0,4.74842,-33.0226,4.48793,25.9552,3.03009,3.74901,-0.0630644,
0.0987941,-0.00559518,0.0254111,-1.95134,0.287956,0.0138344,-0.0189312,0.240356,0.0250342,0.241132,-0.471749,1.02372,0.242605,-0.011806,-4.92515,0.548674,-4.96205,12.1425,-20.9038,89.4464,2.84106,17.2399,-1.45373,17.3392,-40.6807,11.0422,12.579,-0.05726,0.075005,-0.011637,0.00158705,-1.9124,0.202101,-0.0139492,-0.01892,0.633495,-0.0217754,0.638903,-1.20533,1.42165,-0.871916,-0.035584,0,0,0,0,0,0,0,4.74842,-33.0226,4.48793,25.9552,3.03009,3.74901,-0.0630644,
0.100361,-0.00543303,0.026983,-1.95433,0.294004,0.0202923,-0.018884,0.231465,0.0240811,0.232202,-0.452219,0.970172,0.355531,-0.0082639,-5.55648,-0.595664,-5.5813,12.2061,-33.4653,70.5788,2.21379,17.0003,-1.07751,17.0966,-40.081,11.0422,12.579,-0.0339786,0.075005,-0.011637,0.00158705,-1.9124,0.202101,-0.0139492,-0.01892,0.633495,-0.0217754,0.638903,-1.20533,1.42165,-0.871916,-0.035584,0,0,0,0,0,0,0,4.74842,-33.0226,4.48793,25.9552,3.03009,3.74901,-0.0630644,
0.101844,-0.00532378,0.0284699,-1.95719,0.298921,0.0265954,-0.0188409,0.222226,0.021996,0.222935,-0.433225,0.899048,0.442001,-0.0055351,-5.77463,-1.30321,-5.7922,11.8716,-44.4524,54.044,1.7055,16.3982,-2.00201,16.4969,-38.59,10.587,12.74,-0.019205,0.0970307,-0.00993694,0.0222056,-1.95318,0.250611,-0.0188083,-0.0196544,0.633451,0.0352001,0.55899,-1.20462,1.51642,0.311561,-0.0157385,-0.00546885,7.12193,-9.98914,0.0887671,11.8474,147.935,2.48069,-8.18493,-35.2959,-8.40972,33.0289,1.6925,6.49376,-0.183914,
0.103254,-0.00525591,0.0298849,-1.95994,0.302738,0.0326925,-0.0187998,0.213035,0.0192937,0.213723,-0.415276,0.814664,0.50603,-0.00339904,-5.74446,-1.68894,-5.75758,11.2177,-52.7405,40.018,1.33504,16.1443,-1.65854,16.2404,-38.0049,10.587,12.74,0.00299397,0.0970307,-0.00993694,0.0222056,-1.95318,0.250611,-0.0188083,-0.0196544,0.633451,0.0352001,0.55899,-1.20462,1.51642,0.311561,-0.0157385,0,0,0,0,0,0,0,-8.18493,-35.2959,-8.40972,33.0289,1.6925,6.49376,-0.183914,
0.117484,-0.00675581,0.0426568,-1.95656,0.469022,-0.0333857,-0.0213745,0.170783,0.0124133,0.171404,-0.328761,0.704885,0.414073,-0.0033119,-26.4076,-4.30026,-26.4493,54.0722,-68.6116,-57.4734,0.0544622,4.59611,0.348643,4.57692,-2.40187,1.16342,2.33095,-0.021619,0.0970307,-0.00993694,0.0222056,-1.95318,0.250611,-0.0188083,-0.0196544,0.633451,0.0352001,0.55899,-1.20462,1.51642,0.311561,-0.0157385,0,0,0,0,0,0,0,-8.18493,-35.2959,-8.40972,33.0289,1.6925,6.49376,-0.183914,
0.117498,-0.00687656,0.0426739,-1.95642,0.471142,-0.0330167,-0.0213982,0.136981,0.00691185,0.13755,-0.25956,0.616918,0.340482,-0.00324175,-21.1262,-3.43839,-21.1588,43.2505,-54.9797,-45.9942,0.0438415,4.7172,0.336732,4.6942,-1.93858,2.02354,1.75331,-0.022446,0.0970307,-0.00993694,0.0222056,-1.95318,0.250611,-0.0188083,-0.0196544,0.633451,0.0352001,0.55899,-1.20462,1.51642,0.311561,-0.0157385,0,0,0,0,0,0,0,-8.18493,-35.2959,-8.40972,33.0289,1.6925,6.49376,-0.183914,
0.117512,-0.0069972,0.042691,-1.95628,0.473257,-0.0326487,-0.0214218,0.109939,0.0025136,0.110467,-0.204211,0.546399,0.281585,-0.0031852,-16.9011,-2.74891,-16.9265,34.5931,-44.0738,-36.8106,0.0353439,4.83049,0.328116,4.80351,-1.49055,3.0168,1.11313,-0.0221391,0.0970307,-0.00993694,0.0222056,-1.95318,0.250611,-0.0188083,-0.0196544,0.633451,0.0352001,0.55899,-1.20462,1.51642,0.311561,-0.0157385,0,0,0,0,0,0,0,-8.18493,-35.2959,-8.40972,33.0289,1.6925,6.49376,-0.183914,
0.117526,-0.00711772,0.0427081,-1.95615,0.475366,-0.0322817,-0.0214455,0.0883053,-0.00100213,0.0888022,-0.159944,0.489841,0.234443,-0.00313953,-13.521,-2.19733,-13.5407,27.6673,-35.3487,-29.4637,0.0285451,4.5166,-0.336163,4.4804,-0.807383,3.75021,0.357898,-0.0210242,0.116891,-0.00655186,0.0423935,-1.99192,0.302006,0.0109205,-0.0197511,0.589178,0.179899,0.531952,-0.955488,1.35079,1.0854,0.000715977,-5.53421,18.0873,-3.37973,31.141,-20.7047,96.7299,2.05681,-12.8505,-42.0839,-12.7856,39.682,0.0802576,6.26214,-0.0365141,
0.133293,-0.00384775,0.0587607,-1.99016,0.486006,0.0381748,-0.021756,0.0710052,-0.00351929,0.0714528,-0.124762,0.446663,0.193685,-0.00308986,-10.8125,-1.57322,-10.8434,21.9887,-26.9867,-25.4736,0.0310422,0.990382,-0.493028,1.02374,2.82921,1.52001,3.0425,-0.0424698,0.116891,-0.00655186,0.0423935,-1.99192,0.302006,0.0109205,-0.0197511,0.589178,0.179899,0.531952,-0.955488,1.35079,1.0854,0.000715977,0,0,0,0,0,0,0,-12.8505,-42.0839,-12.7856,39.682,0.0802576,6.26214,-0.0365141,
0.133307,-0.00395635,0.0587772,-1.99003,0.488192,0.0384199,-0.0217791,0.0571649,-0.00553022,0.0575741,-0.0966269,0.411979,0.161076,-0.00304979,-8.65017,-1.25683,-8.67418,17.5841,-21.6771,-20.3807,0.0250436,0.970851,-0.489143,1.00409,2.82812,1.57562,2.96439,-0.042506,0.116891,-0.00655186,0.0423935,-1.99192,0.302006,0.0109205,-0.0197511,0.589178,0.179899,0.531952,-0.955488,1.35079,1.0854,0.000715977,0,0,0,0,0,0,0,-12.8505,-42.0839,-12.7856,39.682,0.0802576,6.26214,-0.0365141,
0.133322,-0.00406482,0.0587937,-1.98991,0.490372,0.0386649,-0.0218022,0.0460925,-0.00713617,0.046472,-0.0741301,0.384093,0.134986,-0.0030174,-6.92026,-1.00372,-6.9388,14.0605,-17.4291,-16.3062,0.0202442,0.95145,-0.485262,0.984576,2.82697,1.63516,2.88491,-0.0425409,0.116891,-0.00655186,0.0423935,-1.99192,0.302006,0.0109205,-0.0197511,0.589178,0.179899,0.531952,-0.955488,1.35079,1.0854,0.000715977,0,0,0,0,0,0,0,-12.8505,-42.0839,-12.7856,39.682,0.0802576,6.26214,-0.0365141,
0.133336,-0.00417319,0.0588103,-1.98978,0.492547,0.0389098,-0.0218253,0.0372344,-0.00841814,0.0375912,-0.0561436,0.361645,0.114112,-0.00299115,-5.53634,-0.801233,-5.55049,11.2416,-14.0302,-13.0465,0.016404,0.572861,-1.16264,0.584731,2.24964,1.38093,2.38291,-0.0326845,0.130793,-0.000504214,0.059511,-2.01532,0.341524,0.037561,-0.0197514,0.336645,0.304717,0.355255,-0.29661,1.04832,0.0811337,0.000366335,-31.5666,15.6022,-22.0872,82.3597,-37.808,-125.533,-0.0437053,-18.2023,-46.1781,-18.4588,39.3845,0.612179,2.66137,-0.0301054,
0.155325,0.00377275,0.0838725,-2.0155,0.372617,0.0876055,-0.0207332,0.0302139,-0.00924022,0.030477,-0.0416685,0.359411,0.0884299,-0.00298398,-4.38777,-0.513801,-4.4464,9.04698,-1.39632,-16.0513,0.00448235,8.14567,0.0433868,8.14291,0.883988,-1.09649,3.915,-0.0207588,0.130793,-0.000504214,0.059511,-2.01532,0.341524,0.037561,-0.0197514,0.336645,0.304717,0.355255,-0.29661,1.04832,0.0811337,0.000366335,0,0,0,0,0,0,0,-18.2023,-46.1781,-18.4588,39.3845,0.612179,2.66137,-0.0301054,
0.155342,0.00367174,0.0838888,-2.01537,0.375413,0.0874974,-0.0207569,0.0245986,-0.00991761,0.0247875,-0.0300719,0.357445,0.0680422,-0.00297851,-3.50957,-0.423365,-3.55596,7.24785,-1.22826,-12.7424,0.00341939,7.97293,0.0200123,7.97027,0.908471,-1.12464,3.78872,-0.0207795,0.130793,-0.000504214,0.059511,-2.01532,0.341524,0.037561,-0.0197514,0.336645,0.304717,0.355255,-0.29661,1.04832,0.0811337,0.000366335,0,0,0,0,0,0,0,-18.2023,-46.1781,-18.4588,39.3845,0.612179,2.66137,-0.0301054,
0.155359,0.00357005,0.083905,-2.01524,0.378203,0.0873944,-0.0207805,0.020106,-0.0104762,0.0202363,-0.0207835,0.355696,0.0518571,-0.00297424,-2.80789,-0.349142,-2.84445,5.80528,-1.09303,-10.1156,0.00267012,7.79927,-0.00329621,7.79672,0.93363,-1.15105,3.6707,-0.0207973,0.130793,-0.000504214,0.059511,-2.01532,0.341524,0.037561,-0.0197514,0.336645,0.304717,0.355255,-0.29661,1.04832,0.0811337,0.000366335,0,0,0,0,0,0,0,-18.2023,-46.1781,-18.4588,39.3845,0.612179,2.66137,-0.0301054,
0.173038,-0.00404792,0.102024,-2.02735,0.316449,0.406303,-0.0196417,0.0299624,-0.00715724,0.0301286,-0.0176236,0.280442,0.0727669,-0.00256782,6.16027,2.07437,6.18268,1.97492,-47.0343,13.0686,0.254013,6.58754,-0.0096205,6.55909,0.858902,-0.797907,3.39133,-0.02007,0.142216,0.00926383,0.0691604,-2.01583,0.371162,0.0323658,-0.019754,0.163045,0.155125,0.391629,0.00941276,0.932979,0.13203,0.00112497,-21.7,-18.6989,4.54682,38.2529,-14.4181,6.36202,0.094829,-18.0992,-53.2915,-17.7844,35.3458,-1.30585,2.38305,-0.0365141,
0.160552,0.00747689,0.0872498,-2.01024,0.449706,0.0740592,-0.0210098,0.0244213,-0.00808472,0.02449,-0.0108745,0.295311,0.0531462,-0.00267305,-3.46321,-0.579676,-3.52415,4.21818,9.29315,-12.2629,-0.0657706,6.4257,-0.0421285,6.39676,0.888445,-0.862564,3.30146,-0.0200373,0.142216,0.00926383,0.0691604,-2.01583,0.371162,0.0323658,-0.019754,0.163045,0.155125,0.391629,0.00941276,0.932979,0.13203,0.00112497,0,0,0,0,0,0,0,-18.0992,-53.2915,-17.7844,35.3458,-1.30585,2.38305,-0.0365141,
0.16057,0.00738247,0.0872653,-2.01011,0.452537,0.0738588,-0.0210345,0.0199883,-0.00882831,0.0199798,-0.00548193,0.30702,0.0375051,-0.00275711,-2.77065,-0.464748,-2.81888,3.37035,7.31849,-9.77566,-0.0525371,6.26251,-0.0734012,6.23311,0.918678,-0.921835,3.21686,-0.0200068,0.142216,0.00926383,0.0691604,-2.01583,0.371162,0.0323658,-0.019754,0.163045,0.155125,0.391629,0.00941276,0.932979,0.13203,0.00112497,0,0,0,0,0,0,0,-18.0992,-53.2915,-17.7844,35.3458,-1.30585,2.38305,-0.0365141,
0.160588,0.00728799,0.0872809,-2.00998,0.45536,0.0736605,-0.0210593,0.0164417,-0.00942447,0.0163723,-0.00117487,0.316203,0.025047,-0.00282423,-2.21662,-0.372596,-2.25468,2.69191,5.73894,-7.78633,-0.0419483,6.09805,-0.103639,6.06825,0.94956,-0.975839,3.13747,-0.0199811,0.142216,0.00926383,0.0691604,-2.01583,0.371162,0.0323658,-0.019754,0.163045,0.155125,0.391629,0.00941276,0.932979,0.13203,0.00112497,0,0,0,0,0,0,0,-18.0992,-53.2915,-17.7844,35.3458,-1.30585,2.38305,-0.0365141,
0.160358,0.0090452,0.0915258,-2.00858,0.444625,0.0981848,-0.0209061,0.0136409,-0.00956103,0.0135039,0.00197067,0.330432,0.00804012,-0.00288563,-1.7505,-0.0853551,-1.79274,1.96596,8.89337,-10.6293,-0.0383791,6.62444,-0.00593928,6.61126,0.942359,-1.04929,3.27538,-0.0174894,0.146544,0.0124193,0.0779283,-2.01551,0.386041,0.0482522,-0.0197453,0.127328,0.0021325,0.173262,-0.0023873,0.103493,0.665971,0.000305265,-4.46452,-19.1241,-27.2959,-1.47501,-103.686,66.7426,-0.102463,-7.1217,-36.5178,-7.08464,23.4161,-0.151371,0.818411,-0.0566557,
0.160377,0.00896416,0.0915421,-2.00846,0.447716,0.0977085,-0.0209312,0.0114016,-0.00967476,0.0112111,0.00448357,0.341615,-0.00547514,-0.0029348,-1.39958,-0.0710802,-1.43297,1.57056,6.98926,-8.44704,-0.0307308,6.46198,-0.0366632,6.4472,0.963841,-1.09267,3.18639,-0.0175107,0.146544,0.0124193,0.0779283,-2.01551,0.386041,0.0482522,-0.0197453,0.127328,0.0021325,0.173262,-0.0023873,0.103493,0.665971,0.000305265,0,0,0,0,0,0,0,-7.1217,-36.5178,-7.08464,23.4161,-0.151371,0.818411,-0.0566557,
0.160397,0.00888296,0.0915585,-2.00835,0.450799,0.0972358,-0.0209562,0.00961108,-0.00976974,0.00937859,0.00648997,0.35036,-0.0161978,-0.00297417,-1.11904,-0.0593612,-1.14535,1.254,5.4657,-6.70169,-0.0246064,6.29863,-0.0669132,6.28233,0.985828,-1.13236,3.10318,-0.0175344,0.146544,0.0124193,0.0779283,-2.01551,0.386041,0.0482522,-0.0197453,0.127328,0.0021325,0.173262,-0.0023873,0.103493,0.665971,0.000305265,0,0,0,0,0,0,0,-7.1217,-36.5178,-7.08464,23.4161,-0.151371,0.818411,-0.0566557,
0.160417,0.00880162,0.0915749,-2.00823,0.453873,0.0967666,-0.0209813,0.00817945,-0.00984933,0.00791396,0.00809086,0.357155,-0.0246871,-0.0030057,-0.894768,-0.0497408,-0.915394,1.00056,4.24675,-5.3058,-0.0197023,6.13447,-0.096756,6.1167,1.00825,-1.16843,3.02497,-0.0175588,0.146544,0.0124193,0.0779283,-2.01551,0.386041,0.0482522,-0.0197453,0.127328,0.0021325,0.173262,-0.0023873,0.103493,0.665971,0.000305265,0,0,0,0,0,0,0,-7.1217,-36.5178,-7.08464,23.4161,-0.151371,0.818411,-0.0566557,
0.16115,0.00989323,0.0923589,-2.00893,0.43591,0.0993525,-0.0208409,0.00705149,-0.00982465,0.00674985,0.00932898,0.369491,-0.0361224,-0.00305118,-0.704979,0.01542,-0.727566,0.773824,7.70999,-7.14702,-0.0284253,6.94635,0.417892,6.96153,0.795824,-0.956164,3.02884,-0.0173717,0.150398,0.0125016,0.081723,-2.01498,0.399366,0.0673396,-0.0197529,0.0805094,-0.0141155,0.0821523,0.0224499,0.640459,0.390863,-0.00196395,-5.85237,-2.031,-11.3887,3.10466,67.1207,-34.3885,-0.283652,0.717655,-31.9991,0.611891,22.5195,2.0047,-0.541147,-0.0163725,
0.16117,0.00981509,0.0923759,-2.00882,0.439253,0.098702,-0.0208667,0.00615489,-0.00981311,0.00582488,0.0103188,0.379152,-0.0451609,-0.00308776,-0.560372,0.00721411,-0.578109,0.618625,6.03816,-5.64907,-0.0228659,6.78519,0.378805,6.79776,0.818054,-1.00433,2.95524,-0.0174095,0.150398,0.0125016,0.081723,-2.01498,0.399366,0.0673396,-0.0197529,0.0805094,-0.0141155,0.0821523,0.0224499,0.640459,0.390863,-0.00196395,0,0,0,0,0,0,0,0.717655,-31.9991,0.611891,22.5195,2.0047,-0.541147,-0.0163725,
0.161191,0.00973666,0.0923931,-2.0087,0.442587,0.0980558,-0.0208926,0.00544214,-0.00981116,0.00508997,0.0111092,0.38667,-0.0522827,-0.00311721,-0.445472,0.00122207,-0.459316,0.494028,4.69877,-4.45116,-0.0184012,6.62371,0.339701,6.63376,0.840657,-1.0486,2.88641,-0.0174488,0.150398,0.0125016,0.081723,-2.01498,0.399366,0.0673396,-0.0197529,0.0805094,-0.0141155,0.0821523,0.0224499,0.640459,0.390863,-0.00196395,0,0,0,0,0,0,0,0.717655,-31.9991,0.611891,22.5195,2.0047,-0.541147,-0.0163725,
0.193228,0.00986321,0.124712,-2.01734,0.309574,0.396275,-0.0193801,0.00388485,-0.00774311,0.00350175,0.00945079,0.412936,-0.0935117,-0.00311273,-0.973303,1.29253,-0.992636,-1.03652,16.4166,-25.7681,0.00279554,6.62371,0.339701,6.63376,0.840657,-1.0486,2.88641,-0.0174488,0.150398,0.0125016,0.081723,-2.01498,0.399366,0.0673396,-0.0197529,0.0805094,-0.0141155,0.0821523,0.0224499,0.640459,0.390863,-0.00196395,0,0,0,0,0,0,0,0.717655,-31.9991,0.611891,22.5195,2.0047,-0.541147,-0.0163725,
0.154327,0.00304204,0.085375,-2.00214,0.72017,0.0239143,-0.0224836,0.00366337,-0.00847416,0.00333721,0.0101759,0.401609,-0.0831642,-0.00317093,-0.138429,-0.456908,-0.102842,0.453198,-7.07982,6.46719,-0.0363758,6.56741,0.320213,6.58104,0.811603,-1.0823,2.84465,-0.0166214,0.153155,0.01155,0.0849154,-2.01465,0.409903,0.0777121,-0.0197525,0.0748884,-0.0223851,0.112949,0.0114002,0.41096,0.260525,-0.0023879,-0.702632,-1.0337,3.84962,-1.38122,-28.6873,-16.2923,-0.0529937,1.85627,-29.3529,1.66322,24.5627,3.23791,0.493399,0.0101778,
0.154327,0.00304204,0.085375,-2.00214,0.72017,0.0239143,-0.0224836,0.00348618,-0.00905901,0.00320557,0.010756,0.392546,-0.0748862,-0.0032175,-0.110743,-0.365526,-0.0822734,0.362558,-5.66386,5.17375,-0.0291006,6.56741,0.320213,6.58104,0.811603,-1.0823,2.84465,-0.0166214,0.153155,0.01155,0.0849154,-2.01465,0.409903,0.0777121,-0.0197525,0.0748884,-0.0223851,0.112949,0.0114002,0.41096,0.260525,-0.0023879,0,0,0,0,0,0,0,1.85627,-29.3529,1.66322,24.5627,3.23791,0.493399,0.0101778,
0.154327,0.00304204,0.085375,-2.00214,0.72017,0.0239143,-0.0224836,0.00334443,-0.00952688,0.00310026,0.0112201,0.385297,-0.0682638,-0.00325474,-0.0885945,-0.292421,-0.0658187,0.290047,-4.53109,4.139,-0.0232805,6.56741,0.320213,6.58104,0.811603,-1.0823,2.84465,-0.0166214,0.153155,0.01155,0.0849154,-2.01465,0.409903,0.0777121,-0.0197525,0.0748884,-0.0223851,0.112949,0.0114002,0.41096,0.260525,-0.0023879,0,0,0,0,0,0,0,1.85627,-29.3529,1.66322,24.5627,3.23791,0.493399,0.0101778,
0.171363,0.00935871,0.103039,-2.00796,0.386074,0.159898,-0.0204856,0.00390409,-0.00933953,0.00360496,0.0117151,0.34676,-0.0523472,-0.00313898,0.349788,0.117092,0.315439,0.309408,-24.0852,9.9479,0.0723553,7.69028,0.122978,7.70671,1.86259,-1.57216,3.95154,-0.0159146,0.153155,0.01155,0.0849154,-2.01465,0.409903,0.0777121,-0.0197525,0.0748884,-0.0223851,0.112949,0.0114002,0.41096,0.260525,-0.0023879,0,0,0,0,0,0,0,1.85627,-29.3529,1.66322,24.5627,3.23791,0.493399,0.0101778,
0.171395,0.00928803,0.103067,-2.00785,0.387971,0.159779,-0.0205071,0.00392507,-0.0092385,0.00358057,0.0120771,0.324811,-0.0448496,-0.00305075,0.0131161,0.0631461,-0.0152447,0.226261,-13.7183,4.686,0.0551396,7.51481,0.10442,7.52824,1.81126,-1.57807,3.77552,-0.0154533,0.156097,0.011534,0.0880402,-2.01359,0.414623,0.0855908,-0.0197475,0.0884286,0.016306,0.0776608,0.0290134,0.0741945,0.185049,0.000474772,1.69253,4.83638,-4.41106,2.20165,-42.0957,-9.43448,0.357834,-0.222592,-35.8434,-0.411669,24.8364,3.11615,-0.235361,-0.0365141,
0.171411,0.00921594,0.103078,-2.00775,0.390244,0.159442,-0.0205288,0.00352584,-0.00919308,0.00314424,0.0123058,0.316694,-0.0443021,-0.00298137,-0.249518,0.0283856,-0.272704,0.142903,-5.07342,0.342172,0.0433639,7.36776,0.0758642,7.37913,1.81024,-1.57089,3.66082,-0.0156126,0.156097,0.011534,0.0880402,-2.01359,0.414623,0.0855908,-0.0197475,0.0884286,0.016306,0.0776608,0.0290134,0.0741945,0.185049,0.000474772,0,0,0,0,0,0,0,-0.222592,-35.8434,-0.411669,24.8364,3.11615,-0.235361,-0.0365141,
0.17141,0.00914331,0.103074,-2.00765,0.392908,0.158888,-0.0205504,0.00281645,-0.00917039,0.00240524,0.0123901,0.319954,-0.0492787,-0.0029255,-0.443373,0.0141833,-0.461879,0.0526919,2.03776,-3.11038,0.0349174,7.22019,0.0473672,7.22952,1.8094,-1.56469,3.55387,-0.0157631,0.156097,0.011534,0.0880402,-2.01359,0.414623,0.0855908,-0.0197475,0.0884286,0.016306,0.0776608,0.0290134,0.0741945,0.185049,0.000474772,0,0,0,0,0,0,0,-0.222592,-35.8434,-0.411669,24.8364,3.11615,-0.235361,-0.0365141,
0.159674,0.00354797,0.0913101,-2.00281,0.760126,0.0151067,-0.0225975,0.00289087,-0.00960229,0.00253568,0.0123953,0.335402,-0.0523434,-0.00305362,0.0465167,-0.26994,0.0815286,0.00327606,9.65514,-1.91545,-0.0800724,7.22019,0.0473672,7.22952,1.8094,-1.56469,3.55387,-0.0157631,0.156097,0.011534,0.0880402,-2.01359,0.414623,0.0855908,-0.0197475,0.0884286,0.016306,0.0776608,0.0290134,0.0741945,0.185049,0.000474772,0,0,0,0,0,0,0,-0.222592,-35.8434,-0.411669,24.8364,3.11615,-0.235361,-0.0365141,
0.159674,0.00354797,0.0913101,-2.00281,0.760126,0.0151067,-0.0225975,0.00295042,-0.00994781,0.00264004,0.0123995,0.347761,-0.0547952,-0.00315611,0.0372134,-0.215952,0.0652229,0.00262085,7.72411,-1.53236,-0.0640579,7.22019,0.0473672,7.22952,1.8094,-1.56469,3.55387,-0.0157631,0.156097,0.011534,0.0880402,-2.01359,0.414623,0.0855908,-0.0197475,0.0884286,0.016306,0.0776608,0.0290134,0.0741945,0.185049,0.000474772,0,0,0,0,0,0,0,-0.222592,-35.8434,-0.411669,24.8364,3.11615,-0.235361,-0.0365141,
0.159674,0.00354797,0.0913101,-2.00281,0.760126,0.0151067,-0.0225975,0.00299805,-0.0102242,0.00272353,0.0124029,0.357648,-0.0567566,-0.00323811,0.0297707,-0.172761,0.0521783,0.00209668,6.17929,-1.22589,-0.0512463,7.24934,0.101932,7.25404,1.77098,-1.59363,3.55229,-0.0160436,0.158695,0.012136,0.0903968,-2.01371,0.427661,0.090948,-0.0197385,0.11522,0.00329709,0.0635815,-0.0265607,0.327157,0.339413,0.00076229,3.34888,-1.62611,-1.75992,-6.94676,31.6204,19.2956,0.0359396,0.967594,-35.2681,0.961012,30.5414,2.40753,2.97356,-0.103348,
0.17587,0.0116495,0.107477,-2.00745,0.397684,0.174519,-0.0204505,0.00418361,-0.00947231,0.00383627,0.0125906,0.311168,-0.0350862,-0.0031466,0.740973,0.469948,0.695468,0.117322,-29.0497,13.544,0.0571904,7.2763,0.370837,7.30776,1.98831,-1.64386,3.86292,-0.0152264,0.158695,0.012136,0.0903968,-2.01371,0.427661,0.090948,-0.0197385,0.11522,0.00329709,0.0635815,-0.0265607,0.327157,0.339413,0.00076229,0,0,0,0,0,0,0,0.967594,-35.2681,0.961012,30.5414,2.40753,2.97356,-0.103348,
0.175925,0.0115952,0.107527,-2.00735,0.398998,0.174744,-0.0204732,0.00473054,-0.00893563,0.00432179,0.0127209,0.281772,-0.02244,-0.003085,0.341833,0.335429,0.30345,0.0814539,-18.3728,7.90387,0.0384997,7.13808,0.33807,7.16696,1.98561,-1.63082,3.74814,-0.0154422,0.158695,0.012136,0.0903968,-2.01371,0.427661,0.090948,-0.0197385,0.11522,0.00329709,0.0635815,-0.0265607,0.327157,0.339413,0.00076229,0,0,0,0,0,0,0,0.967594,-35.2681,0.961012,30.5414,2.40753,2.97356,-0.103348,
0.175964,0.0115384,0.107561,-2.00724,0.400656,0.174763,-0.0204963,0.0047597,-0.00856759,0.00429894,0.0127949,0.266879,-0.0174993,-0.00304478,0.0182256,0.230023,-0.0142847,0.0462416,-9.30778,3.08789,0.0251404,6.99941,0.305357,7.02572,1.98294,-1.61926,3.64119,-0.0156462,0.158695,0.012136,0.0903968,-2.01371,0.427661,0.090948,-0.0197385,0.11522,0.00329709,0.0635815,-0.0265607,0.327157,0.339413,0.00076229,0,0,0,0,0,0,0,0.967594,-35.2681,0.961012,30.5414,2.40753,2.97356,-0.103348,
0.175987,0.0114795,0.107578,-2.00714,0.40269,0.174557,-0.0205195,0.00437406,-0.00832651,0.00386927,0.012806,0.264361,-0.0191288,-0.00301802,-0.241023,0.150677,-0.268544,0.00690742,-1.57415,-1.01842,0.016721,6.84666,0.291453,6.86897,1.93804,-1.61971,3.51256,-0.0154379,0.161697,0.0122096,0.0932152,-2.01266,0.432388,0.0969374,-0.0197553,0.0841242,0.00819356,0.0633995,0.0437205,0.350366,0.0588937,0.000602984,-3.88693,0.612058,-0.0227487,8.78515,2.90109,-35.065,-0.0199132,0.840641,-32.6259,1.08797,24.8364,6.04126,0.699392,0.00376909,
0.16578,0.00418301,0.0969633,-2.00239,0.81146,0.00656682,-0.0226946,0.00421673,-0.00885932,0.00377777,0.0125509,0.29793,-0.0317267,-0.00315584,-0.0983358,-0.333006,-0.0571844,-0.159426,20.9808,-7.87366,-0.086139,6.84666,0.291453,6.86897,1.93804,-1.61971,3.51256,-0.0154379,0.161697,0.0122096,0.0932152,-2.01266,0.432388,0.0969374,-0.0197553,0.0841242,0.00819356,0.0633995,0.0437205,0.350366,0.0588937,0.000602984,0,0,0,0,0,0,0,0.840641,-32.6259,1.08797,24.8364,6.04126,0.699392,0.00376909,
0.16578,0.00418301,0.0969633,-2.00239,0.81146,0.00656682,-0.0226946,0.00409086,-0.00928557,0.00370458,0.0123468,0.324785,-0.0418049,-0.0032661,-0.0786687,-0.266405,-0.0457475,-0.127541,16.7846,-6.29893,-0.0689112,6.84666,0.291453,6.86897,1.93804,-1.61971,3.51256,-0.0154379,0.161697,0.0122096,0.0932152,-2.01266,0.432388,0.0969374,-0.0197553,0.0841242,0.00819356,0.0633995,0.0437205,0.350366,0.0588937,0.000602984,0,0,0,0,0,0,0,0.840641,-32.6259,1.08797,24.8364,6.04126,0.699392,0.00376909,
0.16578,0.00418301,0.0969633,-2.00239,0.81146,0.00656682,-0.0226946,0.00399016,-0.00962656,0.00364602,0.0121836,0.34627,-0.0498676,-0.00335431,-0.0629349,-0.213124,-0.036598,-0.102033,13.4277,-5.03914,-0.055129,6.84666,0.291453,6.86897,1.93804,-1.61971,3.51256,-0.0154379,0.161697,0.0122096,0.0932152,-2.01266,0.432388,0.0969374,-0.0197553,0.0841242,0.00819356,0.0633995,0.0437205,0.350366,0.0588937,0.000602984,0,0,0,0,0,0,0,0.840641,-32.6259,1.08797,24.8364,6.04126,0.699392,0.00376909,
0.16578,0.00418301,0.0969633,-2.00239,0.81146,0.00656682,-0.0226946,0.0039096,-0.00989936,0.00359917,0.012053,0.363457,-0.0563177,-0.00342487,-0.0503479,-0.170499,-0.0292784,-0.0816264,10.7421,-4.03131,-0.0441032,6.81456,0.382867,6.83436,1.85594,-1.66038,3.46857,-0.0148911,0.164806,0.0123639,0.0966069,-2.01229,0.440387,0.107294,-0.0197483,0.104951,-0.0100878,0.132936,0.0318042,0.00137896,0.384782,-0.000454073,2.6033,-2.28517,8.69201,-1.48953,-43.6234,40.736,-0.132132,-0.528073,-34.0978,-0.360094,24.6619,1.5094,-0.0568331,-0.0566557,
0.169263,0.00455973,0.100699,-2.00236,0.827533,0.0114574,-0.0227223,0.00388172,-0.0100377,0.0035926,0.0118162,0.380294,-0.0634802,-0.00348146,-0.017427,-0.0864361,-0.0041065,-0.148003,10.523,-4.47657,-0.0353668,6.81456,0.382867,6.83436,1.85594,-1.66038,3.46857,-0.0148911,0.164806,0.0123639,0.0966069,-2.01229,0.440387,0.107294,-0.0197483,0.104951,-0.0100878,0.132936,0.0318042,0.00137896,0.384782,-0.000454073,0,0,0,0,0,0,0,-0.528073,-34.0978,-0.360094,24.6619,1.5094,-0.0568331,-0.0566557,
0.169263,0.00455973,0.100699,-2.00236,0.827533,0.0114574,-0.0227223,0.00385941,-0.0101483,0.00358735,0.0116267,0.393763,-0.0692102,-0.00352673,-0.0139416,-0.0691489,-0.0032852,-0.118402,8.41843,-3.58125,-0.0282934,6.81456,0.382867,6.83436,1.85594,-1.66038,3.46857,-0.0148911,0.164806,0.0123639,0.0966069,-2.01229,0.440387,0.107294,-0.0197483,0.104951,-0.0100878,0.132936,0.0318042,0.00137896,0.384782,-0.000454073,0,0,0,0,0,0,0,-0.528073,-34.0978,-0.360094,24.6619,1.5094,-0.0568331,-0.0566557,
0.169263,0.00455973,0.100699,-2.00236,0.827533,0.0114574,-0.0227223,0.00384157,-0.0102368,0.00358314,0.0114752,0.404539,-0.0737942,-0.00356295,-0.0111533,-0.0553191,-0.00262816,-0.0947217,6.73474,-2.865,-0.0226348,6.81456,0.382867,6.83436,1.85594,-1.66038,3.46857,-0.0148911,0.164806,0.0123639,0.0966069,-2.01229,0.440387,0.107294,-0.0197483,0.104951,-0.0100878,0.132936,0.0318042,0.00137896,0.384782,-0.000454073,0,0,0,0,0,0,0,-0.528073,-34.0978,-0.360094,24.6619,1.5094,-0.0568331,-0.0566557,
0.207709,0.022957,0.139683,-2.00132,0.279065,0.404834,-0.0204843,0.00203198,-0.00773658,0.00154553,0.010177,0.447792,-0.118339,-0.00357039,-1.13099,1.56265,-1.27351,-0.811333,27.0331,-27.8402,-0.00465282,7.03758,0.561404,7.05308,1.60184,-1.69638,3.41374,-0.0163541,0.167229,0.0126428,0.0989938,-2.01146,0.462114,0.110755,-0.019745,0.0254099,0.00701119,0.0754309,-0.0171587,1.19697,-0.0027586,0.0058661,-9.94259,2.13737,-7.18808,-6.12037,149.449,-48.4425,0.790021,2.84412,-33.4709,2.91292,28.2483,8.33191,0.791861,-0.217789,
0.172193,0.00507245,0.103599,-2.00192,0.871402,0.0061713,-0.0226377,0.00241077,-0.00822972,0.00197249,0.0101916,0.449251,-0.113307,-0.00360068,0.236749,-0.308212,0.266845,0.00907853,0.911654,3.14495,-0.018931,7.03758,0.561404,7.05308,1.60184,-1.69638,3.41374,-0.0163541,0.167229,0.0126428,0.0989938,-2.01146,0.462114,0.110755,-0.019745,0.0254099,0.00701119,0.0754309,-0.0171587,1.19697,-0.0027586,0.0058661,0,0,0,0,0,0,0,2.84412,-33.4709,2.91292,28.2483,8.33191,0.791861,-0.217789,
0.172193,0.00507245,0.103599,-2.00192,0.871402,0.0061713,-0.0226377,0.00271381,-0.00862423,0.00231405,0.0102032,0.450418,-0.109281,-0.00362491,0.189399,-0.24657,0.213476,0.00726283,0.729323,2.51596,-0.0151448,7.03758,0.561404,7.05308,1.60184,-1.69638,3.41374,-0.0163541,0.167229,0.0126428,0.0989938,-2.01146,0.462114,0.110755,-0.019745,0.0254099,0.00701119,0.0754309,-0.0171587,1.19697,-0.0027586,0.0058661,0,0,0,0,0,0,0,2.84412,-33.4709,2.91292,28.2483,8.33191,0.791861,-0.217789,
0.172193,0.00507245,0.103599,-2.00192,0.871402,0.0061713,-0.0226377,0.00295624,-0.00893984,0.0025873,0.0102125,0.451351,-0.106061,-0.0036443,0.151519,-0.197256,0.170781,0.00581026,0.583459,2.01277,-0.0121159,7.03758,0.561404,7.05308,1.60184,-1.69638,3.41374,-0.0163541,0.167229,0.0126428,0.0989938,-2.01146,0.462114,0.110755,-0.019745,0.0254099,0.00701119,0.0754309,-0.0171587,1.19697,-0.0027586,0.0058661,0,0,0,0,0,0,0,2.84412,-33.4709,2.91292,28.2483,8.33191,0.791861,-0.217789,
0.204722,0.0213214,0.136692,-1.9987,0.275164,0.400666,-0.0199668,0.00122553,-0.00674034,0.000676537,0.0091744,0.487385,-0.144945,-0.00364054,-1.0817,1.37468,-1.19422,-0.648798,22.5215,-24.3027,0.00234775,6.94344,0.508332,6.95383,1.7116,-1.79567,3.51391,-0.0161209,0.169756,0.0131256,0.102217,-2.01097,0.498548,0.112306,-0.0197742,0.0643946,0.0163498,0.151617,0.0192634,0.91567,0.127437,-0.00870593,4.87309,1.16732,9.52322,4.55276,-35.1628,16.2744,-1.8215,1.55078,-34.07,1.3379,24.6381,2.34069,0.771719,0.017502,
0.175677,0.00584917,0.107717,-2.00184,0.910331,0.00630075,-0.022718,0.001796,-0.00732313,0.00129491,0.00923887,0.482622,-0.135029,-0.00365738,0.356544,-0.364244,0.386483,0.0402971,-2.97715,6.19728,-0.010523,6.94344,0.508332,6.95383,1.7116,-1.79567,3.51391,-0.0161209,0.169756,0.0131256,0.102217,-2.01097,0.498548,0.112306,-0.0197742,0.0643946,0.0163498,0.151617,0.0192634,0.91567,0.127437,-0.00870593,0,0,0,0,0,0,0,1.55078,-34.07,1.3379,24.6381,2.34069,0.771719,0.017502,
0.175677,0.00584917,0.107717,-2.00184,0.910331,0.00630075,-0.022718,0.00225238,-0.00778936,0.00178961,0.00929045,0.478811,-0.127097,-0.00367085,0.285235,-0.291395,0.309187,0.0322377,-2.38172,4.95782,-0.00841836,6.94344,0.508332,6.95383,1.7116,-1.79567,3.51391,-0.0161209,0.169756,0.0131256,0.102217,-2.01097,0.498548,0.112306,-0.0197742,0.0643946,0.0163498,0.151617,0.0192634,0.91567,0.127437,-0.00870593,0,0,0,0,0,0,0,1.55078,-34.07,1.3379,24.6381,2.34069,0.771719,0.017502,
0.175677,0.00584917,0.107717,-2.00184,0.910331,0.00630075,-0.022718,0.00261748,-0.00816235,0.00218537,0.00933172,0.475763,-0.120751,-0.00368162,0.228188,-0.233116,0.247349,0.0257901,-1.90538,3.96626,-0.00673469,6.94344,0.508332,6.95383,1.7116,-1.79567,3.51391,-0.0161209,0.169756,0.0131256,0.102217,-2.01097,0.498548,0.112306,-0.0197742,0.0643946,0.0163498,0.151617,0.0192634,0.91567,0.127437,-0.00870593,0,0,0,0,0,0,0,1.55078,-34.07,1.3379,24.6381,2.34069,0.771719,0.017502,
0.171604,0.0127977,0.10412,-2.01045,0.496329,0.121054,-0.0196742,0.0249456,-0.011653,0.0251017,0.0148044,0.301172,0.0337416,-0.00195889,13.9551,-2.18166,14.3227,3.42043,-109.119,96.5577,1.07671,-2.75975,-2.4916,-2.60639,2.69422,-14.7394,11.8286,0.0295331,0.172076,0.0131699,0.103827,-2.01069,0.533836,0.113188,-0.0197616,0.057678,-0.00886281,0.104018,0.00065121,0.98833,0.022202,0.000765476,-0.839586,-3.15157,-5.94985,-2.32652,9.08253,-13.1544,1.18393,3.22498,-33.1734,3.38899,27.1533,4.44091,-0.222544,-0.0630644,
0.17245,0.0125988,0.104982,-2.01012,0.490432,0.127421,-0.0196468,0.0411067,-0.0142952,0.0416411,0.0200909,0.0935038,0.186182,-0.000883433,10.1007,-1.65137,10.3371,3.30409,-129.792,95.2754,0.67216,-1.53037,-0.760309,-1.36266,2.92971,-14.7394,11.8286,0.0193317,0.172076,0.0131699,0.103827,-2.01069,0.533836,0.113188,-0.0197616,0.057678,-0.00886281,0.104018,0.00065121,0.98833,0.022202,0.000765476,0,0,0,0,0,0,0,3.22498,-33.1734,3.38899,27.1533,4.44091,-0.222544,-0.0630644,
0.17322,0.0124464,0.105767,-2.00977,0.482721,0.134598,-0.0196229,0.0521361,-0.0152459,0.0529401,0.0246132,-0.117962,0.328371,-0.000108208,6.89335,-0.594159,7.06188,2.82641,-132.166,88.8679,0.484515,-0.17867,0.513877,-0.00240703,3.11978,-14.7394,11.8286,0.0172523,0.172076,0.0131699,0.103827,-2.01069,0.533836,0.113188,-0.0197616,0.057678,-0.00886281,0.104018,0.00065121,0.98833,0.022202,0.000765476,0,0,0,0,0,0,0,3.22498,-33.1734,3.38899,27.1533,4.44091,-0.222544,-0.0630644,
0.173922,0.0123546,0.106484,-2.00944,0.473786,0.14235,-0.019599,0.0592661,-0.0144926,0.0602804,0.0281094,-0.317754,0.456477,0.000511501,4.45627,0.47081,4.58772,2.18513,-124.87,80.0665,0.387318,1.13817,1.36351,1.32108,3.24339,-14.7394,11.8286,0.019746,0.172076,0.0131699,0.103827,-2.01069,0.533836,0.113188,-0.0197616,0.057678,-0.00886281,0.104018,0.00065121,0.98833,0.022202,0.000765476,0,0,0,0,0,0,0,3.22498,-33.1734,3.38899,27.1533,4.44091,-0.222544,-0.0630644,
0.173761,0.0128707,0.105521,-2.01011,0.531969,0.121062,-0.0196062,0.0690454,-0.0155707,0.0698575,0.0307177,-0.33124,0.487843,0.00218943,6.11203,-0.673834,5.98566,1.63019,-8.4289,19.6035,1.0487,-2.05207,1.10254,-2.24546,2.1408,-14.7394,11.8286,0.0434972,0.172076,0.0131699,0.103827,-2.01069,0.533836,0.113188,-0.0197616,0.057678,-0.00886281,0.104018,0.00065121,0.98833,0.022202,0.000765476,0,0,0,0,0,0,0,3.22498,-33.1734,3.38899,27.1533,4.44091,-0.222544,-0.0630644,
0.17461,0.0127235,0.106366,-2.00978,0.526075,0.127303,-0.0195387,0.0764498,-0.0161381,0.0770208,0.0330022,-0.412342,0.546297,0.00343807,4.62774,-0.354643,4.4771,1.42778,-50.6888,36.5337,0.7804,-0.184366,1.89242,-0.311133,2.40709,-14.8368,11.8599,0.0517708,0.175151,0.0136198,0.106137,-2.01056,0.574261,0.114216,-0.0197469,0.0594092,0.0125529,0.0747024,-0.00641806,1.00039,0.192522,0.00386282,0.216409,2.67696,-3.66442,-0.883659,1.50783,21.29,0.387168,-3.21392,-36.2441,-2.91106,30.1407,1.75384,4.00811,-0.0429228,
0.175421,0.0125986,0.107172,-2.00946,0.518309,0.134463,-0.0194714,0.0814427,-0.0160325,0.0817587,0.0341987,-0.524009,0.616026,0.00443252,3.12059,0.0660232,2.96118,0.747815,-69.7917,43.5811,0.621536,1.49628,1.98235,1.39378,2.52645,-14.8368,11.8599,0.0627583,0.175151,0.0136198,0.106137,-2.01056,0.574261,0.114216,-0.0197469,0.0594092,0.0125529,0.0747024,-0.00641806,1.00039,0.192522,0.00386282,0,0,0,0,0,0,0,-3.21392,-36.2441,-2.91106,30.1407,1.75384,4.00811,-0.0429228,
0.176194,0.0124952,0.107937,-2.00919,0.509282,0.142255,-0.0194034,0.0844711,-0.015412,0.0845335,0.0341708,-0.644903,0.687634,0.0052479,1.89275,0.387789,1.73424,-0.0174356,-75.5587,44.7545,0.509608,2.98858,1.66716,2.88642,2.51119,-14.8368,11.8599,0.0704108,0.175151,0.0136198,0.106137,-2.01056,0.574261,0.114216,-0.0197469,0.0594092,0.0125529,0.0747024,-0.00641806,1.00039,0.192522,0.00386282,0,0,0,0,0,0,0,-3.21392,-36.2441,-2.91106,30.1407,1.75384,4.00811,-0.0429228,
0.177601,0.0135183,0.108613,-2.00978,0.566237,0.130733,-0.0193065,0.0889363,-0.0145373,0.0891117,0.0332683,-0.666336,0.721805,0.00772158,2.79075,0.546701,2.86137,-0.564022,-13.3958,21.3574,1.54605,-0.0257364,3.60377,-0.147289,0.535679,-14.8368,11.8599,0.126812,0.175151,0.0136198,0.106137,-2.01056,0.574261,0.114216,-0.0197469,0.0594092,0.0125529,0.0747024,-0.00641806,1.00039,0.192522,0.00386282,0,0,0,0,0,0,0,-3.21392,-36.2441,-2.91106,30.1407,1.75384,4.00811,-0.0429228,
0.178441,0.013413,0.109457,-2.00961,0.558338,0.138389,-0.0191681,0.0921513,-0.0142612,0.0923935,0.0308848,-0.730533,0.768841,0.00963591,2.00939,0.172532,2.05114,-1.48972,-40.1228,29.3971,1.19646,1.64451,3.81557,1.58,-0.398248,-15.0699,11.589,0.149317,0.178528,0.0138016,0.110069,-2.00997,0.570339,0.147995,-0.0196217,0.148739,-0.00596674,0.156755,0.0721059,-0.992891,1.26285,0.00384351,11.1663,-2.31495,10.2566,9.8155,-249.161,133.791,-0.00241305,-5.09045,-31.5508,-4.86296,24.5349,-3.48664,3.82226,0.0641939,
0.179258,0.0133074,0.110278,-2.0095,0.549177,0.146568,-0.0190332,0.0941487,-0.0140505,0.0944365,0.0273517,-0.813462,0.819548,0.0110818,1.24833,0.131707,1.27683,-2.20819,-51.8308,31.6921,0.903699,3.23014,3.08551,3.20663,-0.60637,-15.0699,11.589,0.15916,0.178528,0.0138016,0.110069,-2.00997,0.570339,0.147995,-0.0196217,0.148739,-0.00596674,0.156755,0.0721059,-0.992891,1.26285,0.00384351,0,0,0,0,0,0,0,-5.09045,-31.5508,-4.86296,24.5349,-3.48664,3.82226,0.0641939,
0.18278,0.0131557,0.114265,-2.00981,0.519488,0.195627,-0.0187044,0.0936561,-0.0138467,0.0937056,0.0181557,-0.92745,0.888343,0.0134369,-0.307839,0.127411,-0.456807,-5.74747,-71.2427,42.9966,1.4719,4.05477,2.80594,3.91061,-2.92586,-15.0699,11.589,0.241216,0.178528,0.0138016,0.110069,-2.00997,0.570339,0.147995,-0.0196217,0.148739,-0.00596674,0.156755,0.0721059,-0.992891,1.26285,0.00384351,0,0,0,0,0,0,0,-5.09045,-31.5508,-4.86296,24.5349,-3.48664,3.82226,0.0641939,
0.183495,0.0130667,0.114974,-2.01002,0.508201,0.204875,-0.0185268,0.0928091,-0.0133006,0.0926913,0.00945284,-1.02412,0.941861,0.0151904,-0.529401,0.341304,-0.633905,-5.4393,-60.4192,33.4491,1.09593,5.2093,2.17792,5.08285,-3.17173,-15.0699,11.589,0.242635,0.178528,0.0138016,0.110069,-2.00997,0.570339,0.147995,-0.0196217,0.148739,-0.00596674,0.156755,0.0721059,-0.992891,1.26285,0.00384351,0,0,0,0,0,0,0,-5.09045,-31.5508,-4.86296,24.5349,-3.48664,3.82226,0.0641939,
0.184201,0.0129916,0.115675,-2.01026,0.496762,0.214066,-0.0183563,0.0919041,-0.0125188,0.0916707,0.00141401,-1.10527,0.98328,0.0164148,-0.565639,0.488596,-0.637893,-5.02427,-50.7204,25.8867,0.76525,6.0771,2.15218,5.96784,-3.9681,-14.9856,11.2037,0.243448,0.184019,0.0136367,0.11605,-2.0085,0.519509,0.19563,-0.0193086,0.147629,-0.00665482,0.182311,-0.0229397,-1.40431,1.45045,0.0178392,-0.138794,-0.0860094,3.19442,-11.8807,-51.4271,23.45,1.74946,-3.87249,-29.706,-3.63707,25.983,-0.432438,3.95501,0.017502,
0.184905,0.0129286,0.116373,-2.01054,0.48522,0.223204,-0.0181947,0.0911037,-0.0115906,0.0907923,-0.00587959,-1.17278,1.01506,0.0171701,-0.500227,0.580122,-0.548992,-4.5585,-42.1917,19.8638,0.472065,6.82132,1.68403,6.72399,-4.20023,-14.9856,11.2037,0.239286,0.184019,0.0136367,0.11605,-2.0085,0.519509,0.19563,-0.0193086,0.147629,-0.00665482,0.182311,-0.0229397,-1.40431,1.45045,0.0178392,0,0,0,0,0,0,0,-3.87249,-29.706,-3.63707,25.983,-0.432438,3.95501,0.017502,
0.1895,0.0132918,0.121478,-2.00995,0.450988,0.253197,-0.0184002,0.0928332,-0.0106987,0.0924156,-0.0128531,-1.22689,1.03806,0.0171523,1.08093,0.557421,1.01459,-4.35844,-33.8194,14.3763,-0.0110919,7.88168,1.01603,7.79904,-4.59492,-14.9856,11.2037,0.225111,0.184019,0.0136367,0.11605,-2.0085,0.519509,0.19563,-0.0193086,0.147629,-0.00665482,0.182311,-0.0229397,-1.40431,1.45045,0.0178392,0,0,0,0,0,0,0,-3.87249,-29.706,-3.63707,25.983,-0.432438,3.95501,0.017502,
0.190288,0.013239,0.122259,-2.0103,0.439415,0.262148,-0.0182708,0.0939554,-0.00987871,0.0934597,-0.0189743,-1.27085,1.05423,0.0169563,0.701373,0.512523,0.652568,-3.82573,-27.4764,10.1021,-0.122512,8.25264,0.796409,8.17571,-4.75059,-14.9856,11.2037,0.215367,0.184019,0.0136367,0.11605,-2.0085,0.519509,0.19563,-0.0193086,0.147629,-0.00665482,0.182311,-0.0229397,-1.40431,1.45045,0.0178392,0,0,0,0,0,0,0,-3.87249,-29.706,-3.63707,25.983,-0.432438,3.95501,0.017502,
0.191071,0.01319,0.123036,-2.01066,0.427826,0.271026,-0.0181489,0.0947436,-0.00912707,0.0941873,-0.0243248,-1.3064,1.06534,0.016612,0.492609,0.469773,0.454746,-3.3441,-22.2162,6.94587,-0.21517,8.335,1.62583,8.25733,-5.90642,-15.0621,10.685,0.208175,0.190255,0.0138503,0.122966,-2.00935,0.470501,0.25133,-0.018725,0.161395,-0.00267439,0.234428,0.00618698,-1.92854,1.76967,0.0153085,1.72074,0.497554,6.51474,3.64083,-65.5287,39.9027,-0.316332,-1.92059,-32.6259,-2.21282,22.1704,-1.41571,2.60918,0.138352,
0.191854,0.0131446,0.123812,-2.01105,0.416232,0.279842,-0.0180357,0.0953719,-0.00843721,0.0947614,-0.0289851,-1.33496,1.07267,0.0161191,0.39271,0.431163,0.358786,-2.91268,-17.8485,4.58251,-0.308108,8.62228,1.49147,8.5477,-6.00921,-15.0621,10.685,0.196743,0.190255,0.0138503,0.122966,-2.00935,0.470501,0.25133,-0.018725,0.161395,-0.00267439,0.234428,0.00618698,-1.92854,1.76967,0.0153085,0,0,0,0,0,0,0,-1.92059,-32.6259,-2.21282,22.1704,-1.41571,2.60918,0.138352,
0.195966,0.0133391,0.128605,-2.0108,0.396177,0.312746,-0.0181196,0.0965638,-0.00870031,0.0959002,-0.031692,-1.35983,1.08507,0.015285,0.744925,-0.164434,0.711731,-1.69179,-15.5475,7.74735,-0.521252,9.15127,1.24438,9.06442,-6.16515,-15.0621,10.685,0.178365,0.190255,0.0138503,0.122966,-2.00935,0.470501,0.25133,-0.018725,0.161395,-0.00267439,0.234428,0.00618698,-1.92854,1.76967,0.0153085,0,0,0,0,0,0,0,-1.92059,-32.6259,-2.21282,22.1704,-1.41571,2.60918,0.138352,
0.196772,0.0132716,0.129408,-2.01116,0.38457,0.321652,-0.0180254,0.097415,-0.00864921,0.0967937,-0.0343856,-1.37805,1.0907,0.0145816,0.53203,0.0319345,0.558426,-1.68353,-11.3865,3.51984,-0.439643,9.36071,1.12905,9.27257,-6.23462,-15.0621,10.685,0.168272,0.190255,0.0138503,0.122966,-2.00935,0.470501,0.25133,-0.018725,0.161395,-0.00267439,0.234428,0.00618698,-1.92854,1.76967,0.0153085,0,0,0,0,0,0,0,-1.92059,-32.6259,-2.21282,22.1704,-1.41571,2.60918,0.138352,
0.197582,0.0132161,0.130216,-2.01154,0.373009,0.330427,-0.0179337,0.0981672,-0.008306,0.0976181,-0.0369459,-1.39145,1.09195,0.0139594,0.470095,0.214507,0.515276,-1.60017,-8.37656,0.781135,-0.388891,9.28381,1.21854,9.19588,-6.45642,-14.8263,10.3284,0.159936,0.196881,0.013629,0.12952,-2.01168,0.405778,0.313615,-0.0182961,0.178628,-0.00258264,0.231021,-0.0912862,-1.93514,1.78733,0.0154682,2.15414,0.011469,-0.425964,-12.1841,-0.825733,2.20765,0.0199644,0.487552,-32.0268,0.211195,25.6815,-1.66016,3.14568,-0.050247,
0.198393,0.013175,0.131025,-2.01191,0.361483,0.338962,-0.0178453,0.0988152,-0.00767214,0.0983317,-0.0388065,-1.40132,1.08693,0.0133776,0.405041,0.396164,0.445978,-1.1629,-6.16512,-3.13907,-0.363591,9.46805,1.14751,9.37478,-6.52307,-14.8263,10.3284,0.148501,0.196881,0.013629,0.12952,-2.01168,0.405778,0.313615,-0.0182961,0.178628,-0.00258264,0.231021,-0.0912862,-1.93514,1.78733,0.0154682,0,0,0,0,0,0,0,0.487552,-32.0268,0.211195,25.6815,-1.66016,3.14568,-0.050247,
0.203691,0.0136879,0.136274,-2.01375,0.321065,0.375106,-0.0178229,0.0987465,-0.00688396,0.0982374,-0.0371141,-1.39145,1.02298,0.0122057,-0.042987,0.492615,-0.0589049,1.05773,6.16964,-39.9691,-0.732483,10.1227,1.14181,10.0709,-6.64088,-14.8263,10.3284,0.125795,0.196881,0.013629,0.12952,-2.01168,0.405778,0.313615,-0.0182961,0.178628,-0.00258264,0.231021,-0.0912862,-1.93514,1.78733,0.0154682,0,0,0,0,0,0,0,0.487552,-32.0268,0.211195,25.6815,-1.66016,3.14568,-0.050247,
0.204444,0.0136594,0.137021,-2.01401,0.310976,0.380524,-0.0177678,0.0978126,-0.00621948,0.0972816,-0.0360038,-1.36539,0.953829,0.0111405,-0.583641,0.4153,-0.597353,0.693988,16.2847,-43.2179,-0.665707,10.2862,1.20352,10.2494,-6.66749,-14.8263,10.3284,0.121629,0.196881,0.013629,0.12952,-2.01168,0.405778,0.313615,-0.0182961,0.178628,-0.00258264,0.231021,-0.0912862,-1.93514,1.78733,0.0154682,0,0,0,0,0,0,0,0.487552,-32.0268,0.211195,25.6815,-1.66016,3.14568,-0.050247,
0.205168,0.0136364,0.137741,-2.01427,0.301661,0.385286,-0.0177159,0.0963526,-0.00555103,0.0958085,-0.0353163,-1.32518,0.882126,0.0102109,-0.912554,0.417779,-0.920694,0.429696,25.1339,-44.8144,-0.581044,10.0671,1.66488,10.0309,-7.0066,-14.6516,9.42796,0.119205,0.204726,0.0140994,0.137159,-2.01563,0.336677,0.37587,-0.0182081,0.235471,0.0212805,0.205232,-0.141916,-2.12174,1.80645,-0.00859424,7.1054,2.98289,-3.22358,-6.32877,-23.3249,2.38901,-3.00781,-1.76983,-36.1171,-1.53838,27.55,1.08184,2.45629,0.14476,
0.203691,0.0136879,0.136274,-2.01375,0.321065,0.375106,-0.0178229,0.0967763,-0.00518707,0.0962189,-0.0343219,-1.33053,0.859136,0.00967226,0.264849,0.227477,0.256486,0.621449,-3.348,-14.3688,-0.336636,10.1462,2.1901,10.1035,-6.84701,-13.0353,5.1924,0.0996314,0.204726,0.0140994,0.137159,-2.01563,0.336677,0.37587,-0.0182081,0.235471,0.0212805,0.205232,-0.141916,-2.12174,1.80645,-0.00859424,0,0,0,0,0,0,0,-1.76983,-36.1171,-1.53838,27.55,1.08184,2.45629,0.14476,
0.211503,0.0148852,0.143842,-2.01775,0.263474,0.41848,-0.0179749,0.0936909,-0.00384708,0.0931259,-0.0340333,-1.20953,0.749716,0.00862262,-1.92839,0.837494,-1.93312,0.180408,75.6286,-68.3872,-0.656026,10.0738,2.29361,10.0299,-6.77783,-11.9023,4.44497,0.095994,0.204726,0.0140994,0.137159,-2.01563,0.336677,0.37587,-0.0182081,0.235471,0.0212805,0.205232,-0.141916,-2.12174,1.80645,-0.00859424,0,0,0,0,0,0,0,-1.76983,-36.1171,-1.53838,27.55,1.08184,2.45629,0.14476,
0.212143,0.0148969,0.144477,-2.01802,0.258259,0.42059,-0.0179417,0.0909587,-0.00278705,0.0903956,-0.0339484,-1.09801,0.652526,0.00772591,-1.7076,0.662515,-1.70645,0.0530529,69.6976,-60.7436,-0.560442,9.95399,2.37624,9.90906,-6.70427,-10.8806,3.79371,0.0927533,0.204726,0.0140994,0.137159,-2.01563,0.336677,0.37587,-0.0182081,0.235471,0.0212805,0.205232,-0.141916,-2.12174,1.80645,-0.00859424,0,0,0,0,0,0,0,-1.76983,-36.1171,-1.53838,27.55,1.08184,2.45629,0.14476,
0.212776,0.0149097,0.145105,-2.01829,0.253571,0.422375,-0.0179112,0.0885698,-0.00190991,0.0880136,-0.0339999,-0.995609,0.566628,0.00694378,-1.49308,0.548215,-1.48877,-0.0321959,64.0016,-53.6863,-0.488827,10.0875,1.78146,10.0368,-6.01203,-9.39575,3.0482,0.0845557,0.212068,0.015604,0.143962,-2.02036,0.266266,0.429034,-0.0182042,0.21176,0.0490979,0.135237,-0.0976826,-1.92213,1.20133,-0.000998967,-2.96386,3.47717,-8.74936,5.52922,24.9511,-75.64,0.94941,1.55078,-36.2917,1.7624,25.9076,4.34936,-0.103525,0.191452,
0.217663,0.016751,0.149456,-2.02283,0.22177,0.450403,-0.0182111,0.0843153,-0.000707681,0.08377,-0.0338139,-0.854347,0.469668,0.00593658,-2.65905,0.751392,-2.65223,0.116276,88.2885,-60.6002,-0.629503,8.93084,1.86576,8.8797,-5.61716,-5.83237,1.12775,0.0606818,0.212068,0.015604,0.143962,-2.02036,0.266266,0.429034,-0.0182042,0.21176,0.0490979,0.135237,-0.0976826,-1.92213,1.20133,-0.000998967,0,0,0,0,0,0,0,1.55078,-36.2917,1.7624,25.9076,4.34936,-0.103525,0.191452,
0.218202,0.0167824,0.149991,-2.0231,0.219702,0.450931,-0.018197,0.0809199,0.000218314,0.0803851,-0.0336918,-0.735171,0.388948,0.0051006,-2.12214,0.578747,-2.11555,0.0762805,74.4853,-50.4499,-0.522485,8.67987,1.85562,8.6291,-5.53678,-5.30961,0.890624,0.0559,0.212068,0.015604,0.143962,-2.02036,0.266266,0.429034,-0.0182042,0.21176,0.0490979,0.135237,-0.0976826,-1.92213,1.20133,-0.000998967,0,0,0,0,0,0,0,1.55078,-36.2917,1.7624,25.9076,4.34936,-0.103525,0.191452,
0.21874,0.0168136,0.150525,-2.02336,0.217846,0.451362,-0.0181842,0.078178,0.000954299,0.0776527,-0.0335947,-0.634534,0.321914,0.00440142,-1.71371,0.459991,-1.70778,0.0607267,62.8982,-41.8964,-0.43699,8.432,1.84134,8.38171,-5.45605,-4.84227,0.691115,0.0514963,0.212068,0.015604,0.143962,-2.02036,0.266266,0.429034,-0.0182042,0.21176,0.0490979,0.135237,-0.0976826,-1.92213,1.20133,-0.000998967,0,0,0,0,0,0,0,1.55078,-36.2917,1.7624,25.9076,4.34936,-0.103525,0.191452,
0.219275,0.0168452,0.151056,-2.02363,0.216174,0.451714,-0.0181725,0.0759231,0.0015546,0.0754061,-0.0334929,-0.549424,0.266355,0.00381186,-1.40932,0.37519,-1.40411,0.0635844,53.1934,-34.7241,-0.368476,8.18896,1.82442,8.13927,-5.37518,-4.4221,0.523624,0.0472506,0.212068,0.015604,0.143962,-2.02036,0.266266,0.429034,-0.0182042,0.21176,0.0490979,0.135237,-0.0976826,-1.92213,1.20133,-0.000998967,0,0,0,0,0,0,0,1.55078,-36.2917,1.7624,25.9076,4.34936,-0.103525,0.191452,
0.222293,0.0184974,0.153756,-2.02623,0.196479,0.467157,-0.0182757,0.0717667,0.00224243,0.0712595,-0.0323287,-0.458899,0.216092,0.00316535,-2.59773,0.429889,-2.59165,0.727641,56.5782,-31.4143,-0.404065,7.15377,0.795976,7.10428,-3.82887,-2.01095,0.125321,0.022175,0.21727,0.0175349,0.148811,-2.02362,0.217175,0.45878,-0.0182428,0.146824,0.0437929,0.0409424,-0.0450418,-0.958839,0.510896,-0.00134481,-8.11703,-0.663117,-11.7869,6.5801,120.412,-86.3038,-0.0432307,3.50666,-36.2441,3.68654,23.19,1.49749,0.944754,0.251877,
0.22273,0.0185374,0.154189,-2.02645,0.195767,0.467256,-0.0182716,0.0683419,0.00279408,0.0678425,-0.0312982,-0.384924,0.175336,0.00263486,-2.14051,0.344785,-2.1356,0.644068,46.2346,-25.4727,-0.33156,6.9646,0.783886,6.91617,-3.74879,-1.84595,0.0963313,0.0201383,0.21727,0.0175349,0.148811,-2.02362,0.217175,0.45878,-0.0182428,0.146824,0.0437929,0.0409424,-0.0450418,-0.958839,0.510896,-0.00134481,0,0,0,0,0,0,0,3.50666,-36.2441,3.68654,23.19,1.49749,0.944754,0.251877,
0.223162,0.0185776,0.154617,-2.02666,0.195108,0.467338,-0.018268,0.0654701,0.00324009,0.0649773,-0.0303643,-0.32442,0.142316,0.00219777,-1.79486,0.278753,-1.79077,0.583672,37.8151,-20.6378,-0.27318,6.78103,0.773443,6.73367,-3.66907,-1.70001,0.0745557,0.0183206,0.21727,0.0175349,0.148811,-2.02362,0.217175,0.45878,-0.0182428,0.146824,0.0437929,0.0409424,-0.0450418,-0.958839,0.510896,-0.00134481,0,0,0,0,0,0,0,3.50666,-36.2441,3.68654,23.19,1.49749,0.944754,0.251877,
0.223587,0.018618,0.155039,-2.02687,0.194494,0.467407,-0.0182649,0.0630139,0.00360208,0.0625268,-0.0294993,-0.274886,0.115577,0.0018359,-1.5351,0.226247,-1.53155,0.540653,30.9585,-16.7114,-0.22617,6.60249,0.764546,6.55624,-3.58985,-1.5703,0.0579971,0.016659,0.21727,0.0175349,0.148811,-2.02362,0.217175,0.45878,-0.0182428,0.146824,0.0437929,0.0409424,-0.0450418,-0.958839,0.510896,-0.00134481,0,0,0,0,0,0,0,3.50666,-36.2441,3.68654,23.19,1.49749,0.944754,0.251877,
0.225697,0.0181677,0.157724,-2.02726,0.191621,0.470064,-0.0182999,0.0618709,0.00350095,0.0613806,-0.0284956,-0.233032,0.0938374,0.00151383,-0.71438,-0.0632037,-0.716403,0.627299,26.1591,-13.5875,-0.201293,6.07356,0.5353,6.02817,-3.03736,-1.05554,0.0643742,0.0105984,0.221141,0.0181163,0.153228,-2.02557,0.199259,0.468169,-0.018261,0.151202,-0.00929274,0.0768109,-0.042771,-0.404138,0.145641,-0.00592864,0.547218,-6.63571,4.48355,0.283847,69.3376,-45.6569,-0.572978,0.816837,-34.1454,0.913405,24.0866,0.941769,2.70165,0.104477,
0.226139,0.0181951,0.158162,-2.02745,0.191122,0.470108,-0.0182983,0.0605414,0.00348654,0.0600525,-0.0276012,-0.198897,0.0761606,0.00125269,-0.830982,-0.00900868,-0.830016,0.559017,21.3339,-11.048,-0.163212,5.91401,0.532593,5.86977,-2.96105,-0.985308,0.0611844,0.00958705,0.221141,0.0181163,0.153228,-2.02557,0.199259,0.468169,-0.018261,0.151202,-0.00929274,0.0768109,-0.042771,-0.404138,0.145641,-0.00592864,0,0,0,0,0,0,0,0.816837,-34.1454,0.913405,24.0866,0.941769,2.70165,0.104477,
0.226565,0.0182247,0.158585,-2.02764,0.190643,0.470143,-0.0182968,0.0590978,0.00352881,0.0586136,-0.0267848,-0.171089,0.0618116,0.00103833,-0.9022,0.0264201,-0.899353,0.510239,17.3801,-8.96813,-0.133976,5.7571,0.530671,5.714,-2.88545,-0.923291,0.0585793,0.00865261,0.221141,0.0181163,0.153228,-2.02557,0.199259,0.468169,-0.018261,0.151202,-0.00929274,0.0768109,-0.042771,-0.404138,0.145641,-0.00592864,0,0,0,0,0,0,0,0.816837,-34.1454,0.913405,24.0866,0.941769,2.70165,0.104477,
0.226978,0.018256,0.158994,-2.02782,0.19018,0.470172,-0.0182956,0.0575888,0.00360526,0.057111,-0.0260228,-0.148453,0.0501772,0.000860431,-0.943162,0.0477777,-0.939128,0.476231,14.1476,-7.27152,-0.111186,5.60254,0.529429,5.5606,-2.81051,-0.868924,0.0566068,0.00779743,0.221141,0.0181163,0.153228,-2.02557,0.199259,0.468169,-0.018261,0.151202,-0.00929274,0.0768109,-0.042771,-0.404138,0.145641,-0.00592864,0,0,0,0,0,0,0,0.816837,-34.1454,0.913405,24.0866,0.941769,2.70165,0.104477,
0.221806,0.018615,0.153865,-2.02622,0.197529,0.469092,-0.0183138,0.0626984,0.0153519,0.0616319,-0.0370591,-0.162023,0.0632127,-0.000633711,3.19352,7.34166,2.8256,-6.8977,-8.48111,8.14722,-0.933838,0.00813569,30.2989,-0.106175,-22.8334,-1.41817,-2.04563,0.000196086,0.225157,0.017986,0.157683,-2.02717,0.190968,0.470574,-0.0183188,0.188375,-0.00402237,0.0811259,-0.024491,-0.183574,0.0310718,-0.000476361,4.64665,0.658796,0.539373,2.28501,27.5705,-14.3212,0.681534,-0.908932,-31.3008,-0.713182,23.19,1.0086,2.80785,0.110886,
0.222394,0.0190251,0.154445,-2.02668,0.196163,0.469436,-0.0183186,0.0648722,0.0225341,0.0637992,-0.0411018,-0.16377,0.0591677,-0.000625611,1.35859,4.48889,1.35453,-2.52668,-1.09188,-2.52815,0.00506216,5.9312,0.472901,5.88599,-2.90458,-1.06317,0.058961,0.0094379,0.225157,0.017986,0.157683,-2.02717,0.190968,0.470574,-0.0183188,0.188375,-0.00402237,0.0811259,-0.024491,-0.183574,0.0310718,-0.000476361,0,0,0,0,0,0,0,-0.908932,-31.3008,-0.713182,23.19,1.0086,2.80785,0.110886,
0.222937,0.0193445,0.154981,-2.02706,0.195044,0.469524,-0.0183193,0.0654645,0.0260128,0.0644294,-0.0425507,-0.158983,0.0495453,-0.000518086,0.370237,2.17414,0.393871,-0.905525,2.99161,-6.01399,0.0672033,5.77457,0.470813,5.73048,-2.82887,-1.0016,0.0574938,0.00851426,0.225157,0.017986,0.157683,-2.02717,0.190968,0.470574,-0.0183188,0.188375,-0.00402237,0.0811259,-0.024491,-0.183574,0.0310718,-0.000476361,0,0,0,0,0,0,0,-0.908932,-31.3008,-0.713182,23.19,1.0086,2.80785,0.110886,
0.228851,0.0179117,0.161326,-2.02812,0.185953,0.470231,-0.0183452,0.0671424,0.0207944,0.0661729,-0.0387455,-0.151079,0.0362834,-0.000434469,1.04868,-3.26148,1.08968,2.37819,4.9402,-8.28872,0.0522603,5.51466,0.456168,5.47165,-2.74488,-1.61174,-0.132596,0.00695701,0.225157,0.017986,0.157683,-2.02717,0.190968,0.470574,-0.0183188,0.188375,-0.00402237,0.0811259,-0.024491,-0.183574,0.0310718,-0.000476361,0,0,0,0,0,0,0,-0.908932,-31.3008,-0.713182,23.19,1.0086,2.80785,0.110886,
0.229396,0.0179174,0.161866,-2.0283,0.184981,0.470097,-0.0183455,0.0673424,0.0167781,0.066439,-0.0356536,-0.145172,0.02566,-0.000354059,0.12501,-2.51021,0.166333,1.93246,3.6918,-6.63959,0.0502564,5.36404,0.459011,5.32213,-2.66905,-1.57479,-0.122671,0.00624316,0.225157,0.017986,0.157683,-2.02717,0.190968,0.470574,-0.0183188,0.188375,-0.00402237,0.0811259,-0.024491,-0.183574,0.0310718,-0.000476361,0,0,0,0,0,0,0,-0.908932,-31.3008,-0.713182,23.19,1.0086,2.80785,0.110886,
0.229903,0.0179285,0.162369,-2.02849,0.18399,0.469967,-0.0183455,0.0665537,0.0137019,0.0657135,-0.0331153,-0.140902,0.0172722,-0.000283597,-0.492974,-1.9226,-0.4534,1.58645,2.66878,-5.24241,0.0440388,5.21483,0.461139,5.17405,-2.59419,-1.54367,-0.113142,0.00557065,0.225157,0.017986,0.157683,-2.02717,0.190968,0.470574,-0.0183188,0.188375,-0.00402237,0.0811259,-0.024491,-0.183574,0.0310718,-0.000476361,0,0,0,0,0,0,0,-0.908932,-31.3008,-0.713182,23.19,1.0086,2.80785,0.110886,
0.230378,0.0179443,0.16284,-2.02867,0.182982,0.469844,-0.0183454,0.0651212,0.011356,0.0643399,-0.0310051,-0.137928,0.0107421,-0.000225476,-0.895316,-1.46618,-0.85852,1.31885,1.85859,-4.08129,0.0363255,5.06688,0.462716,5.02723,-2.52015,-1.51807,-0.103674,0.00493874,0.225157,0.017986,0.157683,-2.02717,0.190968,0.470574,-0.0183188,0.188375,-0.00402237,0.0811259,-0.024491,-0.183574,0.0310718,-0.000476361,0,0,0,0,0,0,0,-0.908932,-31.3008,-0.713182,23.19,1.0086,2.80785,0.110886,
0.225988,0.0184816,0.158484,-2.02779,0.190325,0.470974,-0.018359,0.0728539,0.0214739,0.0715083,-0.0403276,-0.126423,0.0185836,-0.00118507,4.83295,6.32369,4.48026,-5.82653,7.19052,4.90095,-0.599749,0.00813569,30.2989,-0.106175,-22.8334,-1.41817,-2.04563,0.000196086,0.225157,0.017986,0.157683,-2.02717,0.190968,0.470574,-0.0183188,0.188375,-0.00402237,0.0811259,-0.024491,-0.183574,0.0310718,-0.000476361,0,0,0,0,0,0,0,-0.908932,-31.3008,-0.713182,23.19,1.0086,2.80785,0.110886,
0.22673,0.0188775,0.159219,-2.02813,0.189205,0.470308,-0.0183552,0.0768501,0.0270782,0.0755892,-0.0409713,-0.129122,-0.00177449,-0.000852697,2.49762,3.50265,2.55053,-0.402302,-1.68653,-12.7238,0.207736,5.86904,0.57697,5.82651,-3.11992,-2.26005,-2.18093,0.00274584,0.228361,0.0179383,0.163431,-2.02874,0.186419,0.470982,-0.0183712,0.119725,0.0152975,0.129571,-0.0391284,-0.0968594,0.00143445,-0.000267127,-8.58128,2.41498,6.0556,-1.82968,10.8393,-3.70467,0.0261543,-2.57916,-31.2016,-2.71269,25.011,0.19653,3.33153,0.104477,
0.227409,0.0191614,0.159892,-2.02842,0.187854,0.469162,-0.0183536,0.0784497,0.0287595,0.0772764,-0.0399774,-0.137072,-0.0300817,-0.000641247,0.999765,1.05084,1.05451,0.62115,-4.96858,-17.692,0.132156,5.76779,0.565234,5.72491,-3.03509,-2.27077,-2.09558,0.00332922,0.228361,0.0179383,0.163431,-2.02874,0.186419,0.470982,-0.0183712,0.119725,0.0152975,0.129571,-0.0391284,-0.0968594,0.00143445,-0.000267127,0,0,0,0,0,0,0,-2.57916,-31.2016,-2.71269,25.011,0.19653,3.33153,0.104477,
0.228037,0.0193648,0.160514,-2.0287,0.186368,0.467779,-0.0183525,0.0784651,0.0280913,0.0773727,-0.0387933,-0.146822,-0.0586278,-0.000486475,0.0096141,-0.417604,0.0601724,0.740095,-6.0939,-17.8413,0.0967324,5.65518,0.552482,5.61265,-2.95181,-2.27912,-2.01386,0.0036029,0.228361,0.0179383,0.163431,-2.02874,0.186419,0.470982,-0.0183712,0.119725,0.0152975,0.129571,-0.0391284,-0.0968594,0.00143445,-0.000267127,0,0,0,0,0,0,0,-2.57916,-31.2016,-2.71269,25.011,0.19653,3.33153,0.104477,
0.230139,0.0176422,0.165203,-2.02905,0.183185,0.46494,-0.0183304,0.0842364,0.0171405,0.0832859,-0.0354357,-0.161419,-0.137326,0.000109191,3.60708,-6.84427,3.69575,2.09845,-9.12331,-49.1861,0.372291,9.03918,-3.13572,9.02112,-7.1693,-3.17991,-8.514,0.0241907,0.228361,0.0179383,0.163431,-2.02874,0.186419,0.470982,-0.0183712,0.119725,0.0152975,0.129571,-0.0391284,-0.0968594,0.00143445,-0.000267127,0,0,0,0,0,0,0,-2.57916,-31.2016,-2.71269,25.011,0.19653,3.33153,0.104477,
0.23095,0.0173799,0.166012,-2.0293,0.181347,0.460753,-0.0183132,0.0876786,0.00715315,0.0868504,-0.0346221,-0.175089,-0.214541,0.000517414,2.15138,-6.2421,2.22784,0.508495,-8.54353,-48.2596,0.255139,8.77098,-2.3679,8.74719,-6.78877,-2.98979,-7.7289,0.0290562,0.232369,0.0182632,0.167633,-2.0299,0.180755,0.471031,-0.0183938,0.0712844,0.0366128,0.162907,-0.0120464,-0.156526,0.00482015,-0.00136225,-6.05504,2.66441,4.167,3.38525,-7.45828,0.423212,-0.13689,1.4516,-34.8952,1.03639,23.317,0.715634,2.8344,0.138352,
0.231725,0.0171186,0.166784,-2.02961,0.179524,0.456349,-0.0182981,0.0895103,-0.000808596,0.0887892,-0.0356196,-0.185646,-0.281741,0.000791159,1.14478,-4.97609,1.21174,-0.623403,-6.59811,-42.0001,0.171091,8.49195,-1.78935,8.46924,-6.46633,-2.75443,-7.04148,0.0274692,0.232369,0.0182632,0.167633,-2.0299,0.180755,0.471031,-0.0183938,0.0712844,0.0366128,0.162907,-0.0120464,-0.156526,0.00482015,-0.00136225,0,0,0,0,0,0,0,1.4516,-34.8952,1.03639,23.317,0.715634,2.8344,0.138352,
0.233079,0.0189513,0.168334,-2.03055,0.180212,0.471369,-0.0184306,0.0893414,0.0165558,0.0885387,-0.0447384,-0.162095,-0.216948,-0.000288316,-0.105563,10.8527,-0.156576,-5.69923,14.7193,40.4955,-0.674672,0.00391154,30.209,-0.116831,-22.8061,-1.39016,-2.04073,0.000145401,0.232369,0.0182632,0.167633,-2.0299,0.180755,0.471031,-0.0183938,0.0712844,0.0366128,0.162907,-0.0120464,-0.156526,0.00482015,-0.00136225,0,0,0,0,0,0,0,1.4516,-34.8952,1.03639,23.317,0.715634,2.8344,0.138352,
0.233778,0.019392,0.169028,-2.03089,0.178901,0.46876,-0.0184152,0.0889547,0.0242617,0.0881804,-0.0444646,-0.162432,-0.238772,0.000156566,-0.241704,4.81622,-0.223949,0.171091,-0.210829,-13.6399,0.278051,9.67336,1.25373,9.60201,-9.53789,-2.60278,-9.68121,0.0101469,0.232369,0.0182632,0.167633,-2.0299,0.180755,0.471031,-0.0183938,0.0712844,0.0366128,0.162907,-0.0120464,-0.156526,0.00482015,-0.00136225,0,0,0,0,0,0,0,1.4516,-34.8952,1.03639,23.317,0.715634,2.8344,0.138352,
0.234476,0.0196547,0.169721,-2.03128,0.177306,0.464867,-0.0183974,0.0886245,0.0259765,0.0878837,-0.0451169,-0.16982,-0.288335,0.000568092,-0.206377,1.07174,-0.185414,-0.407709,-4.61759,-30.9767,0.257204,9.52733,1.96007,9.46032,-8.89553,-2.46896,-8.29256,0.0204732,0.232369,0.0182632,0.167633,-2.0299,0.180755,0.471031,-0.0183938,0.0712844,0.0366128,0.162907,-0.0120464,-0.156526,0.00482015,-0.00136225,0,0,0,0,0,0,0,1.4516,-34.8952,1.03639,23.317,0.715634,2.8344,0.138352,
0.235178,0.0198252,0.170418,-2.03175,0.175635,0.460478,-0.0183777,0.0884474,0.0250427,0.0877273,-0.0478753,-0.177633,-0.340402,0.000948175,-0.110672,-0.583651,-0.0977864,-1.72398,-4.8827,-32.5418,0.237552,9.35418,2.07529,9.2851,-8.44637,-2.26621,-7.13283,0.0256715,0.236947,0.0186978,0.17017,-2.03134,0.175536,0.468606,-0.0184065,0.0686127,0.0340768,0.164774,-0.0194824,-0.176114,-0.140896,-0.000500238,-0.333966,-0.317002,0.233458,-0.929496,-2.44851,-18.2145,0.107751,1.75708,-33.0742,1.91316,23.4637,0.336605,2.08459,0.11821,
0.238701,0.0183559,0.171928,-2.03208,0.17148,0.459772,-0.0183376,0.092371,0.0140823,0.0917163,-0.0495814,-0.193436,-0.397745,0.00147989,2.45228,-6.85022,2.49315,-1.0663,-9.87691,-35.8397,0.33232,11.3651,-2.93956,11.3272,-13.3086,-3.70161,-12.1288,0.0532655,0.236947,0.0186978,0.17017,-2.03134,0.175536,0.468606,-0.0184065,0.0686127,0.0340768,0.164774,-0.0194824,-0.176114,-0.140896,-0.000500238,0,0,0,0,0,0,0,1.75708,-33.0742,1.91316,23.4637,0.336605,2.08459,0.11821,
0.239543,0.0181032,0.172766,-2.03268,0.169578,0.454375,-0.0183145,0.0949481,0.00494866,0.094343,-0.0544715,-0.202284,-0.453125,0.00176214,1.61064,-5.70854,1.64172,-3.0563,-5.53008,-34.6124,0.176407,10.7245,-1.02879,10.6824,-12.1722,-2.93519,-10.1248,0.0438239,0.236947,0.0186978,0.17017,-2.03134,0.175536,0.468606,-0.0184065,0.0686127,0.0340768,0.164774,-0.0194824,-0.176114,-0.140896,-0.000500238,0,0,0,0,0,0,0,1.75708,-33.0742,1.91316,23.4637,0.336605,2.08459,0.11821,
0.240368,0.0178819,0.173588,-2.03338,0.167881,0.449055,-0.0182931,0.0965716,-0.00157276,0.0960198,-0.0612906,-0.204246,-0.495508,0.00194352,1.01472,-4.07588,1.04798,-4.26193,-1.22671,-26.4895,0.113365,10.2404,-0.211788,10.2022,-11.4225,-2.4037,-8.4809,0.0378991,0.236947,0.0186978,0.17017,-2.03134,0.175536,0.468606,-0.0184065,0.0686127,0.0340768,0.164774,-0.0194824,-0.176114,-0.140896,-0.000500238,0,0,0,0,0,0,0,1.75708,-33.0742,1.91316,23.4637,0.336605,2.08459,0.11821,
0.241177,0.017703,0.174396,-2.03418,0.16639,0.444061,-0.0182728,0.097497,-0.00572968,0.0970026,-0.0690395,-0.200691,-0.521258,0.00206261,0.578356,-2.59808,0.614227,-4.8431,2.22235,-16.0938,0.0744316,9.96256,-0.0934821,9.9347,-10.9184,-1.97455,-7.00332,0.0344268,0.241468,0.0180527,0.174191,-2.03269,0.168213,0.449642,-0.0184102,0.243226,-0.000926656,0.00313427,-0.0665227,-0.0837511,-0.680905,0.00228907,21.8267,-4.37543,-20.205,-5.88003,11.5453,-67.5011,0.348664,2.23713,-30.1265,2.1869,18.334,0.434567,1.26977,0.0239107,
0.243403,0.0177843,0.176099,-2.03408,0.165462,0.437228,-0.0183403,0.101695,-0.00816305,0.101213,-0.073888,-0.196802,-0.5729,0.00238055,2.62399,-1.52086,2.63138,-3.03031,2.43018,-32.2758,0.19871,10.8279,-1.04412,10.7882,-12.1304,-2.88327,-10.032,0.0435559,0.241468,0.0180527,0.174191,-2.03269,0.168213,0.449642,-0.0184102,0.243226,-0.000926656,0.00313427,-0.0665227,-0.0837511,-0.680905,0.00228907,0,0,0,0,0,0,0,2.23713,-30.1265,2.1869,18.334,0.434567,1.26977,0.0239107,
0.244321,0.0176618,0.177013,-2.03491,0.164046,0.431296,-0.0183161,0.104305,-0.00959385,0.103839,-0.0799643,-0.192828,-0.606623,0.00250933,1.63134,-0.894245,1.64115,-3.79765,2.48431,-21.077,0.0804894,10.3438,-0.227123,10.308,-11.3807,-2.35178,-8.38806,0.0376311,0.241468,0.0180527,0.174191,-2.03269,0.168213,0.449642,-0.0184102,0.243226,-0.000926656,0.00313427,-0.0665227,-0.0837511,-0.680905,0.00228907,0,0,0,0,0,0,0,2.23713,-30.1265,2.1869,18.334,0.434567,1.26977,0.0239107,
0.245209,0.0175682,0.177899,-2.03582,0.162737,0.425852,-0.0182946,0.105666,-0.0100141,0.105222,-0.0865249,-0.187001,-0.621393,0.00254416,0.850327,-0.262633,0.864309,-4.10039,3.6415,-9.23132,0.0217681,9.96256,-0.0934821,9.9347,-10.9184,-1.97455,-7.00332,0.0344268,0.241468,0.0180527,0.174191,-2.03269,0.168213,0.449642,-0.0184102,0.243226,-0.000926656,0.00313427,-0.0665227,-0.0837511,-0.680905,0.00228907,0,0,0,0,0,0,0,2.23713,-30.1265,2.1869,18.334,0.434567,1.26977,0.0239107,
0.246723,0.0174316,0.181182,-2.0377,0.157601,0.414062,-0.018396,0.115873,-0.0140911,0.115467,-0.0945969,-0.20411,-0.696255,0.00256967,6.37906,-2.54812,6.40323,-5.04501,-10.6929,-46.7886,0.0159436,11.0705,-1.06791,11.0306,-12.0468,-2.77817,-9.90759,0.0424221,0.245469,0.0176748,0.179931,-2.03668,0.159782,0.422027,-0.0184173,0.130732,-0.0493124,0.212505,-0.15545,-0.299335,-0.959606,-0.00130674,-14.0618,-6.04822,26.1714,-11.1159,-26.948,-34.8377,-0.449477,4.26441,-29.456,3.91267,17.9373,0.6488,0.0429594,0.124619,
0.247881,0.0172789,0.182333,-2.0387,0.155731,0.406508,-0.0183782,0.121649,-0.0150905,0.121129,-0.100603,-0.21006,-0.74585,0.00250072,3.61019,-0.624622,3.53898,-3.75382,-3.7187,-30.9971,-0.0430921,10.5864,-0.250907,10.5504,-11.2971,-2.24668,-8.26367,0.0364974,0.245469,0.0176748,0.179931,-2.03668,0.159782,0.422027,-0.0184173,0.130732,-0.0493124,0.212505,-0.15545,-0.299335,-0.959606,-0.00130674,0,0,0,0,0,0,0,4.26441,-29.456,3.91267,17.9373,0.6488,0.0429594,0.124619,
0.248958,0.0171922,0.183404,-2.03972,0.154138,0.399624,-0.0183609,0.124251,-0.0142416,0.123678,-0.10599,-0.207864,-0.768788,0.00243339,1.62661,0.530537,1.593,-3.36708,1.37228,-14.3361,-0.0420871,10.2051,-0.117266,10.1771,-10.8348,-1.86945,-6.87893,0.0332931,0.245469,0.0176748,0.179931,-2.03668,0.159782,0.422027,-0.0184173,0.130732,-0.0493124,0.212505,-0.15545,-0.299335,-0.959606,-0.00130674,0,0,0,0,0,0,0,4.26441,-29.456,3.91267,17.9373,0.6488,0.0429594,0.124619,
0.249969,0.0171505,0.18441,-2.04076,0.152775,0.393498,-0.0183437,0.124673,-0.0124335,0.124089,-0.110918,-0.20037,-0.768179,0.00237687,0.26334,1.13006,0.257039,-3.08002,4.68368,0.380869,-0.035325,9.88723,-0.312362,9.8675,-10.5422,-1.57385,-5.68728,0.0306055,0.245469,0.0176748,0.179931,-2.03668,0.159782,0.422027,-0.0184173,0.130732,-0.0493124,0.212505,-0.15545,-0.299335,-0.959606,-0.00130674,0,0,0,0,0,0,0,4.26441,-29.456,3.91267,17.9373,0.6488,0.0429594,0.124619,
0.246723,0.0174316,0.181182,-2.0377,0.157601,0.414062,-0.018396,0.131078,-0.0160266,0.130561,-0.114112,-0.214805,-0.813683,0.00243583,4.00322,-2.24569,4.04478,-1.99582,-9.02179,-28.4404,0.0368557,11.1395,-1.23164,11.1052,-11.8902,-2.73213,-9.72231,0.0415123,0.251926,0.0165641,0.185492,-2.04233,0.151464,0.387144,-0.0184126,0.101959,-0.0557921,0.277142,-0.19922,-0.281097,-1.09582,0.00291962,-3.5966,-0.809965,8.07961,-5.4712,2.27985,-17.0263,0.528295,3.50666,-30.1265,3.41279,20.8493,0.923458,1.52794,0.0577852,
0.247881,0.0172789,0.182333,-2.0387,0.155731,0.406508,-0.0183782,0.133813,-0.0166389,0.133204,-0.116215,-0.218616,-0.839793,0.00239365,1.70951,-0.382679,1.65222,-1.31447,-2.3818,-16.3186,-0.0263624,10.6554,-0.414639,10.625,-11.1405,-2.20064,-8.07839,0.0355875,0.251926,0.0165641,0.185492,-2.04233,0.151464,0.387144,-0.0184126,0.101959,-0.0557921,0.277142,-0.19922,-0.281097,-1.09582,0.00291962,0,0,0,0,0,0,0,3.50666,-30.1265,3.41279,20.8493,0.923458,1.52794,0.0577852,
0.248958,0.0171922,0.183404,-2.03972,0.154138,0.399624,-0.0183609,0.133983,-0.0154803,0.133338,-0.11848,-0.214709,-0.843942,0.00234773,0.106069,0.724092,0.0835952,-1.4156,2.44181,-2.59322,-0.0287033,10.2742,-0.280998,10.2517,-10.6782,-1.82342,-6.69365,0.0323832,0.251926,0.0165641,0.185492,-2.04233,0.151464,0.387144,-0.0184126,0.101959,-0.0557921,0.277142,-0.19922,-0.281097,-1.09582,0.00291962,0,0,0,0,0,0,0,3.50666,-30.1265,3.41279,20.8493,0.923458,1.52794,0.0577852,
0.253293,0.0163501,0.186865,-2.04354,0.149393,0.37833,-0.0183896,0.141377,-0.0177345,0.140997,-0.12506,-0.223542,-0.895516,0.00245243,4.62122,-1.40882,4.78666,-4.11248,-5.52044,-32.2334,0.0654392,11.1395,-1.23164,11.1052,-11.8902,-2.73213,-9.72231,0.0415123,0.251926,0.0165641,0.185492,-2.04233,0.151464,0.387144,-0.0184126,0.101959,-0.0557921,0.277142,-0.19922,-0.281097,-1.09582,0.00291962,0,0,0,0,0,0,0,3.50666,-30.1265,3.41279,20.8493,0.923458,1.52794,0.0577852,
0.254547,0.016247,0.18811,-2.04467,0.147613,0.370163,-0.0183723,0.144434,-0.0167644,0.143919,-0.128354,-0.223339,-0.920582,0.00239523,1.91062,0.606283,1.82633,-2.05898,0.126505,-15.6664,-0.035753,10.6523,-0.602414,10.6238,-10.9236,-2.16729,-7.85219,0.0347218,0.25988,0.0159582,0.192442,-2.04869,0.143346,0.349262,-0.0184106,0.212092,0.0210366,0.244184,-0.173493,-0.200952,-1.14708,0.000249634,13.7666,9.60359,-4.11983,3.21577,10.018,-6.4073,-0.333748,3.09803,-33.4471,3.23823,22.2458,0.654293,1.9793,0.0980684,
0.255699,0.0162102,0.189255,-2.04579,0.146097,0.36285,-0.0183558,0.144364,-0.0143311,0.143781,-0.130708,-0.216561,-0.919293,0.00232721,-0.0435853,1.52081,-0.0861159,-1.47135,4.2364,0.805639,-0.0425103,10.2711,-0.468772,10.2505,-10.4614,-1.79007,-6.46745,0.0315176,0.25988,0.0159582,0.192442,-2.04869,0.143346,0.349262,-0.0184106,0.212092,0.0210366,0.244184,-0.173493,-0.200952,-1.14708,0.000249634,0,0,0,0,0,0,0,3.09803,-33.4471,3.23823,22.2458,0.654293,1.9793,0.0980684,
0.256769,0.0162117,0.19032,-2.04691,0.144799,0.356433,-0.0183396,0.142235,-0.0114292,0.141634,-0.132592,-0.205706,-0.895853,0.00226739,-1.33078,1.81372,-1.34171,-1.17743,6.78431,14.65,-0.0373853,9.95318,-0.663868,9.94085,-10.1688,-1.49447,-5.2758,0.02883,0.25988,0.0159582,0.192442,-2.04869,0.143346,0.349262,-0.0184106,0.212092,0.0210366,0.244184,-0.173493,-0.200952,-1.14708,0.000249634,0,0,0,0,0,0,0,3.09803,-33.4471,3.23823,22.2458,0.654293,1.9793,0.0980684,
0.261489,0.016085,0.194041,-2.04996,0.141826,0.340329,-0.0183957,0.154021,-0.00597342,0.153296,-0.137843,-0.202555,-0.940004,0.00218797,7.36608,3.40984,7.28833,-3.28194,1.96942,-27.5947,-0.0496386,11.1364,-1.41942,11.104,-11.6734,-2.69878,-9.49611,0.0406466,0.25988,0.0159582,0.192442,-2.04869,0.143346,0.349262,-0.0184106,0.212092,0.0210366,0.244184,-0.173493,-0.200952,-1.14708,0.000249634,0,0,0,0,0,0,0,3.09803,-33.4471,3.23823,22.2458,0.654293,1.9793,0.0980684,
0.262922,0.0161989,0.195464,-2.05118,0.140467,0.332085,-0.018382,0.159051,-0.00193094,0.158202,-0.140954,-0.196011,-0.958111,0.00209341,3.14411,2.52655,3.0666,-1.94397,4.09011,-11.3165,-0.0590996,10.7016,-0.912716,10.6746,-10.6479,-2.12554,-7.62532,0.033407,0.267732,0.0153512,0.200565,-2.05625,0.135835,0.310801,-0.0184123,0.28997,-0.0196982,0.22028,-0.216675,-0.16919,-1.14749,0.000219175,9.73476,-5.09185,-2.98794,-5.39767,3.97034,-0.0523525,-0.00380736,0.689884,-32.3998,0.988783,23.3646,0.0747645,1.26977,0.0843355,
0.264213,0.0163073,0.196746,-2.05239,0.139265,0.324705,-0.0183679,0.159518,0.00116611,0.15862,-0.142864,-0.186855,-0.950993,0.00202688,0.291983,1.93566,0.261188,-1.1941,5.7222,4.44857,-0.041586,10.3204,-0.779075,10.3013,-10.1857,-1.74831,-6.24058,0.0302027,0.267732,0.0153512,0.200565,-2.05625,0.135835,0.310801,-0.0184123,0.28997,-0.0196982,0.22028,-0.216675,-0.16919,-1.14749,0.000219175,0,0,0,0,0,0,0,0.689884,-32.3998,0.988783,23.3646,0.0747645,1.26977,0.0843355,
0.265389,0.0164064,0.197915,-2.05357,0.138201,0.318237,-0.0183536,0.157018,0.00340983,0.156123,-0.143923,-0.176101,-0.922474,0.00197845,-1.56286,1.40233,-1.5604,-0.66198,6.72166,17.8243,-0.0302687,10.0025,-0.974171,9.99168,-9.89305,-1.45271,-5.04893,0.0275152,0.267732,0.0153512,0.200565,-2.05625,0.135835,0.310801,-0.0184123,0.28997,-0.0196982,0.22028,-0.216675,-0.16919,-1.14749,0.000219175,0,0,0,0,0,0,0,0.689884,-32.3998,0.988783,23.3646,0.0747645,1.26977,0.0843355,
0.26952,0.0153238,0.202333,-2.05761,0.134501,0.301723,-0.0183983,0.170326,0.00204315,0.169082,-0.148974,-0.174226,-0.964924,0.00193247,8.31767,-0.854174,8.09927,-3.15686,1.17189,-26.5312,-0.0287369,11.1858,-1.72972,11.1548,-11.3976,-2.65703,-9.26924,0.0393318,0.267732,0.0153512,0.200565,-2.05625,0.135835,0.310801,-0.0184123,0.28997,-0.0196982,0.22028,-0.216675,-0.16919,-1.14749,0.000219175,0,0,0,0,0,0,0,0.689884,-32.3998,0.988783,23.3646,0.0747645,1.26977,0.0843355,
0.271087,0.0153418,0.203887,-2.05885,0.133316,0.293382,-0.0183874,0.175437,0.00208383,0.174136,-0.15024,-0.168989,-0.980473,0.00181724,3.19415,0.0254279,3.15825,-0.790851,3.27282,-9.71786,-0.0720182,10.7113,-1.29618,10.6877,-10.3818,-2.10787,-7.39065,0.0320231,0.275924,0.0144341,0.210333,-2.0645,0.128202,0.26846,-0.0184168,0.328023,-0.0465601,0.171851,-0.264505,-0.172516,-1.12926,-0.00382695,4.75661,-3.35774,-6.05367,-5.97875,-0.415845,2.27903,-0.505766,-1.15887,-31.4754,-1.08611,22.3688,0.312802,2.34368,0.151169,
0.27248,0.0153789,0.20527,-2.06005,0.132275,0.285972,-0.018376,0.175157,0.00259354,0.173876,-0.150171,-0.161233,-0.969623,0.00173874,-0.174625,0.318567,-0.16205,0.042858,4.84776,6.78098,-0.0490634,10.33,-1.16253,10.3144,-9.91957,-1.73064,-6.0059,0.0288188,0.275924,0.0144341,0.210333,-2.0645,0.128202,0.26846,-0.0184168,0.328023,-0.0465601,0.171851,-0.264505,-0.172516,-1.12926,-0.00382695,0,0,0,0,0,0,0,-1.15887,-31.4754,-1.08611,22.3688,0.312802,2.34368,0.151169,
0.273732,0.0154189,0.206515,-2.06122,0.131351,0.27953,-0.018364,0.171438,0.00307628,0.170226,-0.149448,-0.152083,-0.936734,0.00169168,-2.32438,0.301712,-2.28135,0.4519,5.7187,20.556,-0.0294127,10.0121,-1.35763,10.0048,-9.62695,-1.43504,-4.81426,0.0261313,0.275924,0.0144341,0.210333,-2.0645,0.128202,0.26846,-0.0184168,0.328023,-0.0465601,0.171851,-0.264505,-0.172516,-1.12926,-0.00382695,0,0,0,0,0,0,0,-1.15887,-31.4754,-1.08611,22.3688,0.312802,2.34368,0.151169,
0.27769,0.0143346,0.212071,-2.06596,0.126777,0.259342,-0.0184009,0.181314,-2.53505e-05,0.179632,-0.156203,-0.157289,-0.977329,0.00175059,6.17235,-1.93852,5.87868,-4.22154,-3.25361,-25.3718,0.0368193,11.1954,-2.11318,11.1679,-11.1316,-2.63936,-9.03457,0.0379479,0.275924,0.0144341,0.210333,-2.0645,0.128202,0.26846,-0.0184168,0.328023,-0.0465601,0.171851,-0.264505,-0.172516,-1.12926,-0.00382695,0,0,0,0,0,0,0,-1.15887,-31.4754,-1.08611,22.3688,0.312802,2.34368,0.151169,
0.279235,0.0143172,0.213604,-2.06724,0.125514,0.250977,-0.0183898,0.183664,-0.000455715,0.182024,-0.156969,-0.15741,-0.990994,0.0016783,1.4689,-0.268978,1.49511,-0.479207,-0.0760055,-8.54115,-0.045181,10.7113,-1.29618,10.6877,-10.3818,-2.10787,-7.39065,0.0320231,0.275924,0.0144341,0.210333,-2.0645,0.128202,0.26846,-0.0184168,0.328023,-0.0465601,0.171851,-0.264505,-0.172516,-1.12926,-0.00382695,0,0,0,0,0,0,0,-1.15887,-31.4754,-1.08611,22.3688,0.312802,2.34368,0.151169,
0.280606,0.0143275,0.214966,-2.06845,0.124413,0.24359,-0.0183789,0.181212,-0.000107417,0.179676,-0.155866,-0.153453,-0.977464,0.00161704,-1.53237,0.217686,-1.46791,0.68974,2.4732,8.45626,-0.0382864,10.3137,-1.55913,10.3017,-9.61912,-1.71458,-5.76825,0.0274465,0.284184,0.013599,0.219887,-2.07288,0.122132,0.228027,-0.0184019,0.270143,-0.0483463,0.250114,-0.277514,-0.162337,-1.07199,0.00424288,-7.23503,-0.22327,9.78287,-1.62611,1.27245,7.15855,1.00873,0.336795,-29.7536,0.26277,19.6274,-0.0900305,1.62041,0.0101778,
0.285998,0.0134975,0.221685,-2.07437,0.120786,0.219212,-0.0183864,0.190342,-0.00262393,0.188695,-0.161869,-0.156423,-1.00233,0.00167982,5.70606,-1.57282,5.63714,-3.75176,-1.85606,-15.5427,0.039239,11.179,-2.50977,11.1552,-10.8311,-2.62329,-8.79691,0.0365755,0.284184,0.013599,0.219887,-2.07288,0.122132,0.228027,-0.0184019,0.270143,-0.0483463,0.250114,-0.277514,-0.162337,-1.07199,0.00424288,0,0,0,0,0,0,0,0.336795,-29.7536,0.26277,19.6274,-0.0900305,1.62041,0.0101778,
0.287579,0.0134699,0.223254,-2.07564,0.119589,0.211086,-0.0183772,0.191794,-0.00278933,0.190181,-0.16137,-0.15506,-1.00502,0.00157351,0.907286,-0.103375,0.929045,0.311568,0.851569,-1.67698,-0.0664421,10.6949,-1.69277,10.675,-10.0814,-2.0918,-7.15299,0.0306508,0.284184,0.013599,0.219887,-2.07288,0.122132,0.228027,-0.0184019,0.270143,-0.0483463,0.250114,-0.277514,-0.162337,-1.07199,0.00424288,0,0,0,0,0,0,0,0.336795,-29.7536,0.26277,19.6274,-0.0900305,1.62041,0.0101778,
0.288974,0.0134601,0.22464,-2.07684,0.118543,0.203909,-0.0183679,0.1883,-0.00247545,0.186787,-0.158994,-0.150194,-0.983447,0.00149234,-2.18366,0.196179,-2.12167,1.48513,3.04174,13.4808,-0.0507327,10.3137,-1.55913,10.3017,-9.61912,-1.71458,-5.76825,0.0274465,0.284184,0.013599,0.219887,-2.07288,0.122132,0.228027,-0.0184019,0.270143,-0.0483463,0.250114,-0.277514,-0.162337,-1.07199,0.00424288,0,0,0,0,0,0,0,0.336795,-29.7536,0.26277,19.6274,-0.0900305,1.62041,0.0101778,
0.290221,0.0134463,0.22588,-2.07799,0.117621,0.197728,-0.0183579,0.181817,-0.00232656,0.18044,-0.155995,-0.143213,-0.941279,0.0014446,-4.05181,0.0930565,-3.9666,1.87454,4.36305,26.3551,-0.0298377,10.0301,-2.03386,10.0267,-9.068,-1.36634,-4.33317,0.0233574,0.293517,0.0132457,0.22951,-2.08132,0.116037,0.187602,-0.0184128,0.222772,-0.0119799,0.351054,-0.281133,-0.193777,-1.09707,-0.00507646,-5.92141,4.5458,12.6176,-0.4524,-3.93001,-3.13417,-1.16492,-0.932736,-30.305,-1.01073,21.6229,0.0381434,1.56823,0.0376436,
0.295467,0.0133137,0.231454,-2.0829,0.114638,0.178715,-0.018409,0.194207,-0.000162619,0.192956,-0.164263,-0.149522,-0.975212,0.00125,7.74395,1.35246,7.82232,-5.16781,-3.94363,-21.2087,-0.121624,11.2134,-2.78941,11.1898,-10.5726,-2.57065,-8.55348,0.035174,0.293517,0.0132457,0.22951,-2.08132,0.116037,0.187602,-0.0184128,0.222772,-0.0119799,0.351054,-0.281133,-0.193777,-1.09707,-0.00507646,0,0,0,0,0,0,0,-0.932736,-30.305,-1.01073,21.6229,0.0381434,1.56823,0.0376436,
0.297145,0.0133933,0.233118,-2.08426,0.11346,0.170556,-0.0184049,0.197306,0.00185959,0.195966,-0.165285,-0.149077,-0.984132,0.00110335,1.93701,1.26388,1.88133,-0.638522,0.278363,-5.57498,-0.0916594,10.7293,-1.97241,10.7096,-9.82289,-2.03916,-6.90956,0.0292493,0.293517,0.0132457,0.22951,-2.08132,0.116037,0.187602,-0.0184128,0.222772,-0.0119799,0.351054,-0.281133,-0.193777,-1.09707,-0.00507646,0,0,0,0,0,0,0,-0.932736,-30.305,-1.01073,21.6229,0.0381434,1.56823,0.0376436,
0.298606,0.0134508,0.234569,-2.08551,0.112458,0.163375,-0.0183987,0.194373,0.00292604,0.193041,-0.163567,-0.144314,-0.966834,0.00103572,-1.83348,0.666531,-1.82791,1.07368,2.97673,10.8115,-0.0422692,10.3481,-1.83877,10.3363,-9.36061,-1.66193,-5.52482,0.026045,0.293517,0.0132457,0.22951,-2.08132,0.116037,0.187602,-0.0184128,0.222772,-0.0119799,0.351054,-0.281133,-0.193777,-1.09707,-0.00507646,0,0,0,0,0,0,0,-0.932736,-30.305,-1.01073,21.6229,0.0381434,1.56823,0.0376436,
0.306268,0.0130701,0.240715,-2.09153,0.107877,0.131926,-0.0184333,0.206474,0.00491939,0.205313,-0.171777,-0.147569,-1.02617,0.000807831,7.56316,1.24585,7.67002,-5.13117,-2.03389,-37.0874,-0.142428,11.2979,-2.98031,11.274,-10.3993,-2.48326,-8.28495,0.0338889,0.304229,0.0129669,0.238679,-2.08989,0.109162,0.142034,-0.0184325,0.222543,0.00807233,0.384653,-0.253425,-0.195519,-1.36874,-0.00498134,-0.0285742,2.50652,4.19979,3.46347,-0.217762,-33.9594,0.0118896,1.2215,-31.0271,1.28633,22.7695,0.685421,0.725943,0.26561,
0.308011,0.0131626,0.242444,-2.09298,0.106816,0.123014,-0.0184308,0.208764,0.00624774,0.207477,-0.173665,-0.144576,-1.04374,0.000710072,1.43136,0.830215,1.35243,-1.18025,1.87014,-10.9757,-0.0610994,10.8137,-2.16331,10.7938,-9.64964,-1.95177,-6.64103,0.0279641,0.304229,0.0129669,0.238679,-2.08989,0.109162,0.142034,-0.0184325,0.222543,0.00807233,0.384653,-0.253425,-0.195519,-1.36874,-0.00498134,0,0,0,0,0,0,0,1.2215,-31.0271,1.28633,22.7695,0.685421,0.725943,0.26561,
0.309521,0.0132277,0.243942,-2.09431,0.105913,0.115362,-0.0184256,0.204745,0.00662577,0.20344,-0.172259,-0.138249,-1.02629,0.000696039,-2.51198,0.236274,-2.52353,0.878869,3.95457,10.9019,-0.00877066,10.4325,-2.02967,10.4205,-9.18736,-1.57455,-5.25629,0.0247598,0.304229,0.0129669,0.238679,-2.08989,0.109162,0.142034,-0.0184325,0.222543,0.00807233,0.384653,-0.253425,-0.195519,-1.36874,-0.00498134,0,0,0,0,0,0,0,1.2215,-31.0271,1.28633,22.7695,0.685421,0.725943,0.26561,
0.310848,0.0132557,0.245261,-2.09556,0.105118,0.108925,-0.018419,0.196986,0.00600122,0.195735,-0.16897,-0.130452,-0.981947,0.000723869,-4.84953,-0.390344,-4.81569,2.05571,4.87314,27.716,0.0173935,10.1146,-2.22477,10.1109,-8.89475,-1.27895,-4.06464,0.0220723,0.304229,0.0129669,0.238679,-2.08989,0.109162,0.142034,-0.0184325,0.222543,0.00807233,0.384653,-0.253425,-0.195519,-1.36874,-0.00498134,0,0,0,0,0,0,0,1.2215,-31.0271,1.28633,22.7695,0.685421,0.725943,0.26561,
0.324873,-0.00875544,0.257764,-2.0884,0.689597,-0.0527543,-0.02304,0.158634,-0.00278265,0.15785,-0.131097,0.0375559,-0.810974,-0.000644908,-23.9698,-5.48992,-23.6778,23.6706,105.005,106.858,-0.855486,10.0629,-2.68269,10.059,-8.55124,-1.27802,-3.81907,0.0206173,0.315164,0.0127338,0.248284,-2.09886,0.103293,0.100645,-0.0184314,0.412845,0.00849757,0.198046,-0.245498,-0.196168,-1.28539,-0.00259519,23.7878,0.0531545,-23.3259,0.990897,-0.0811515,10.4191,0.298269,0.967594,-31.0033,1.16334,23.2654,0.960079,-0.593332,0.205185,
0.324873,-0.00875544,0.257764,-2.0884,0.689597,-0.0527543,-0.02304,0.127953,-0.00980976,0.127543,-0.100798,0.171962,-0.674197,-0.00173993,-19.1758,-4.39194,-18.9422,18.9365,84.004,85.4861,-0.684388,10.0629,-2.68269,10.059,-8.55124,-1.27802,-3.81907,0.0206173,0.315164,0.0127338,0.248284,-2.09886,0.103293,0.100645,-0.0184314,0.412845,0.00849757,0.198046,-0.245498,-0.196168,-1.28539,-0.00259519,0,0,0,0,0,0,0,0.967594,-31.0033,1.16334,23.2654,0.960079,-0.593332,0.205185,
0.324873,-0.00875544,0.257764,-2.0884,0.689597,-0.0527543,-0.02304,0.103408,-0.0154314,0.103296,-0.0765595,0.279487,-0.564774,-0.00261595,-15.3407,-3.51355,-15.1538,15.1492,67.2032,68.3889,-0.547511,10.0629,-2.68269,10.059,-8.55124,-1.27802,-3.81907,0.0206173,0.315164,0.0127338,0.248284,-2.09886,0.103293,0.100645,-0.0184314,0.412845,0.00849757,0.198046,-0.245498,-0.196168,-1.28539,-0.00259519,0,0,0,0,0,0,0,0.967594,-31.0033,1.16334,23.2654,0.960079,-0.593332,0.205185,
0.324873,-0.00875544,0.257764,-2.0884,0.689597,-0.0527543,-0.02304,0.0837715,-0.0199288,0.0838997,-0.0571685,0.365507,-0.477237,-0.00331676,-12.2725,-2.81084,-12.123,12.1194,53.7625,54.7111,-0.438009,10.0629,-2.68269,10.059,-8.55124,-1.27802,-3.81907,0.0206173,0.315164,0.0127338,0.248284,-2.09886,0.103293,0.100645,-0.0184314,0.412845,0.00849757,0.198046,-0.245498,-0.196168,-1.28539,-0.00259519,0,0,0,0,0,0,0,0.967594,-31.0033,1.16334,23.2654,0.960079,-0.593332,0.205185,
0.317021,0.0135416,0.25009,-2.10082,0.102793,0.093575,-0.018474,0.113459,0.00425327,0.112269,-0.0949781,0.279903,-0.558551,-0.00371682,18.5546,15.1138,17.7306,-23.631,-53.5028,-50.8215,-0.250039,0.546354,27.3072,0.440486,-20.2543,-0.88111,0.356915,-0.0127463,0.323833,0.0122386,0.262053,-2.10749,0.098099,0.055608,-0.0184065,0.314975,-0.0125834,0.362021,-0.267911,-0.0858131,-1.22266,0.00597343,-12.2338,-2.63512,20.4969,-2.8016,13.7944,7.84133,1.07108,2.76874,-31.4278,2.36146,23.5391,0.532528,2.08459,0.017502,
