xiao-wang007/linearmpc_panda/paper_data/panda_torque_PD_controller_opt_time_to_start_torque_rate_limiter/3/trajectory.csv
Commanded Joint 0 Position,Commanded Joint 1 Position,Commanded Joint 2 Position,Commanded Joint 3 Position,Commanded Joint 4 Position,Commanded Joint 5 Position,Commanded Joint 6 Position,Commanded Joint 0 Velocity,Commanded Joint 1 Velocity,Commanded Joint 2 Velocity,Commanded Joint 3 Velocity,Commanded Joint 4 Velocity,Commanded Joint 5 Velocity,Commanded Joint 6 Velocity,Commanded Joint 0 Acceleration,Commanded Joint 1 Acceleration,Commanded Joint 2 Acceleration,Commanded Joint 3 Acceleration,Commanded Joint 4 Acceleration,Commanded Joint 5 Acceleration,Commanded Joint 6 Acceleration,Commanded Joint 0 Torque,Commanded Joint 1 Torque,Commanded Joint 2 Torque,Commanded Joint 3 Torque,Commanded Joint 4 Torque,Commanded Joint 5 Torque,Commanded Joint 6 Torque,Actual Joint 0 Position,Actual Joint 1 Position,Actual Joint 2 Position,Actual Joint 3 Position,Actual Joint 4 Position,Actual Joint 5 Position,Actual Joint 6 Position,Actual Joint 0 Velocity,Actual Joint 1 Velocity,Actual Joint 2 Velocity,Actual Joint 3 Velocity,Actual Joint 4 Velocity,Actual Joint 5 Velocity,Actual Joint 6 Velocity,Actual Joint 0 Acceleration,Actual Joint 1 Acceleration,Actual Joint 2 Acceleration,Actual Joint 3 Acceleration,Actual Joint 4 Acceleration,Actual Joint 5 Acceleration,Actual Joint 6 Acceleration,Actual Joint 0 Torque,Actual Joint 1 Torque,Actual Joint 2 Torque,Actual Joint 3 Torque,Actual Joint 4 Torque,Actual Joint 5 Torque,Actual Joint 6 Torque,
0.0184139,0.0828222,0.0257061,-1.71445,-0.00568607,0.223921,-0.0160518,0.000395694,0.0246904,0.000194006,-0.031722,-0.00464911,0.0565551,-0.000384347,0.247309,15.4315,0.121254,-19.8262,-2.9057,35.347,-0.240217,0.0556478,26.9862,-0.0895498,-24.2182,-0.590913,2.13112,-0.0254619,0.0183949,0.0809607,0.0257063,-1.71151,-0.00537596,0.21798,-0.016007,0.000706212,0.00212449,0.000541829,-0.0015619,-0.00271637,-0.0018872,0.00122822,0,0,0,0,0,0,0,-0.0440639,-37.8389,0.187391,27.0541,1.06994,2.92046,-0.0767973,
0.0184023,0.0809956,0.0257129,-1.71154,-0.00539731,0.21794,-0.0160071,0.000357018,0.0199852,0.000191221,-0.025527,-0.00380188,0.0449514,-0.000309984,-0.0241727,-2.94074,-0.00174074,3.87189,0.529519,-7.25231,0.046477,0.0498419,27.4266,-0.0999209,-24.1346,-0.591112,1.87996,-0.0239475,0.0183949,0.0809607,0.0257063,-1.71151,-0.00537596,0.21798,-0.016007,0.000706212,0.00212449,0.000541829,-0.0015619,-0.00271637,-0.0018872,0.00122822,0,0,0,0,0,0,0,-0.0440639,-37.8389,0.187391,27.0541,1.06994,2.92046,-0.0767973,
0.0184035,0.0810032,0.0257139,-1.71154,-0.00539903,0.21793,-0.0160072,0.000314235,0.0161773,0.000178409,-0.0205431,-0.00308435,0.0357155,-0.000249658,-0.0267393,-2.37993,-0.00800739,3.11495,0.448457,-5.77248,0.0377034,0.0425964,27.998,-0.111673,-24.0267,-0.590489,1.53215,-0.0219822,0.0183949,0.0809607,0.0257063,-1.71151,-0.00537596,0.21798,-0.016007,0.000706212,0.00212449,0.000541829,-0.0015619,-0.00271637,-0.0018872,0.00122822,0,0,0,0,0,0,0,-0.0440639,-37.8389,0.187391,27.0541,1.06994,2.92046,-0.0767973,
0.0184043,0.0810093,0.0257146,-1.71155,-0.00539991,0.217922,-0.0160073,0.000272058,0.0130959,0.000160983,-0.0165332,-0.00248958,0.0283704,-0.000200891,-0.0263606,-1.92592,-0.0108914,2.50613,0.371734,-4.59064,0.0304794,0.0366403,28.5249,-0.121303,-23.8579,-0.588265,1.14816,-0.01999,0.0183939,0.0810882,0.0256998,-1.7117,-0.00539457,0.217978,-0.0160071,0.00060486,-0.00064575,0.00122317,-0.00335602,-0.00504487,0.000681658,-0.000411773,-0.012669,-0.34628,0.085168,-0.224265,-0.291062,0.321108,-0.205,0.0313145,-38.3388,0.238966,26.9788,1.13678,2.91405,-0.0767973,
0.0184049,0.0810144,0.0257151,-1.71155,-0.00540037,0.217915,-0.0160073,0.000232829,0.0106024,0.000142043,-0.0133068,-0.00200328,0.0225337,-0.00016157,-0.0245178,-1.55843,-0.0118373,2.0165,0.303937,-3.64797,0.0245754,0.0343725,28.8476,-0.125518,-23.5936,-0.583413,0.775095,-0.0182705,0.0183939,0.0810882,0.0256998,-1.7117,-0.00539457,0.217978,-0.0160071,0.00060486,-0.00064575,0.00122317,-0.00335602,-0.00504487,0.000681658,-0.000411773,0,0,0,0,0,0,0,0.0313145,-38.3388,0.238966,26.9788,1.13678,2.91405,-0.0767973,
0.0181195,0.0810805,0.0254115,-1.71153,0.00466237,0.212228,-0.0160384,-0.000536453,0.00832727,-0.000560139,-0.0104725,0.0503992,-0.0126936,-0.000151303,-0.480802,-1.42194,-0.438864,1.77146,32.7516,-22.0171,0.00641699,0.451277,0.176591,0.451612,-0.260808,2.9973,-1.81484,-0.00165798,0.0183939,0.0810882,0.0256998,-1.7117,-0.00539457,0.217978,-0.0160071,0.00060486,-0.00064575,0.00122317,-0.00335602,-0.00504487,0.000681658,-0.000411773,0,0,0,0,0,0,0,0.0313145,-38.3388,0.238966,26.9788,1.13678,2.91405,-0.0767973,
0.0181015,0.081076,0.0253954,-1.71153,0.00677313,0.210966,-0.016039,-0.000878416,0.00654873,-0.000850925,-0.00835109,0.0930882,-0.041693,-0.00013692,-0.213727,-1.11159,-0.181741,1.32589,26.6806,-18.1246,0.00898935,0.446401,0.174189,0.446823,-0.258388,2.9702,-1.79946,-0.00162463,0.0183939,0.0810882,0.0256998,-1.7117,-0.00539457,0.217978,-0.0160071,0.00060486,-0.00064575,0.00122317,-0.00335602,-0.00504487,0.000681658,-0.000411773,0,0,0,0,0,0,0,0.0313145,-38.3388,0.238966,26.9788,1.13678,2.91405,-0.0767973,
0.0180933,0.0810735,0.0253888,-1.71154,0.00889687,0.209686,-0.0160396,-0.000908883,0.00517614,-0.000846197,-0.00676922,0.127564,-0.0653594,-0.000123091,-0.0190422,-0.857868,0.00295488,0.988671,21.5474,-14.7915,0.00864353,0.438857,0.191728,0.438749,-0.257937,2.94305,-1.7849,-0.0015629,0.0183964,0.0814642,0.0257062,-1.71227,-0.00555229,0.219458,-0.0160064,0.00255509,0.0370315,0.00338554,-0.0524917,-0.0295449,0.157207,-0.000211067,0.243779,4.70965,0.270295,-6.14197,-3.0625,19.5656,0.0250882,-0.0202602,-31.7015,0.163588,21.373,0.782467,2.90673,-0.083206,
0.0180934,0.081073,0.0253902,-1.71154,0.0110221,0.208397,-0.0160401,-0.000724405,0.00412928,-0.000640447,-0.00559365,0.155182,-0.0845119,-0.000111684,0.115299,-0.654287,0.128594,0.734733,17.2613,-11.9703,0.00712927,0.434007,0.18948,0.433985,-0.255504,2.9158,-1.76937,-0.00152986,0.0183964,0.0814642,0.0257062,-1.71227,-0.00555229,0.219458,-0.0160064,0.00255509,0.0370315,0.00338554,-0.0524917,-0.0295449,0.157207,-0.000211067,0,0,0,0,0,0,0,-0.0202602,-31.7015,0.163588,21.373,0.782467,2.90673,-0.083206,
0.0179776,0.0823855,0.0251958,-1.71243,0.0268414,0.203461,-0.0160809,-0.000120279,0.00468249,-8.89743e-05,-0.00621979,0.289932,-0.158472,-7.06311e-05,0.377579,0.345756,0.34467,-0.391337,84.2184,-46.225,0.0256579,3.51718,0.482288,3.43042,-1.39274,10.1793,-5.66223,-0.000221496,0.0183964,0.0814642,0.0257062,-1.71227,-0.00555229,0.219458,-0.0160064,0.00255509,0.0370315,0.00338554,-0.0524917,-0.0295449,0.157207,-0.000211067,0,0,0,0,0,0,0,-0.0202602,-31.7015,0.163588,21.373,0.782467,2.90673,-0.083206,
0.0180385,0.082431,0.0252553,-1.71251,0.0335129,0.199749,-0.0160795,0.00142564,0.00488422,0.00141612,-0.00707022,0.398734,-0.219573,-2.27523e-05,0.966198,0.126082,0.940685,-0.531519,68.0018,-38.1882,0.0299243,3.41895,0.457436,3.34169,-1.37437,9.96062,-5.53298,-0.00090128,0.0183964,0.0814642,0.0257062,-1.71227,-0.00555229,0.219458,-0.0160064,0.00255509,0.0370315,0.00338554,-0.0524917,-0.0295449,0.157207,-0.000211067,0,0,0,0,0,0,0,-0.0202602,-31.7015,0.163588,21.373,0.782467,2.90673,-0.083206,
0.0181364,0.0824718,0.0253512,-1.71261,0.0401611,0.196014,-0.0160781,0.00358875,0.00492596,0.00353045,-0.00800567,0.485191,-0.269039,1.78984e-05,1.35194,0.0260841,1.32145,-0.584662,54.0354,-30.916,0.0254067,3.32964,0.536868,3.2742,-1.35329,9.73436,-5.38277,-0.00158455,0.0183959,0.0830893,0.0257157,-1.71804,-0.00529472,0.224658,-0.0160106,0.00234965,0.0398011,0.000593955,-0.236802,0.0878479,0.0168082,-1.25225e-05,-0.0256805,0.346208,-0.348948,-23.0388,14.6741,-17.5498,0.0248181,0.0828892,-25.9371,0.286573,19.7781,1.93145,0.48699,-0.0365141,
0.0182656,0.0825105,0.0254775,-1.71271,0.046745,0.192292,-0.0160768,0.00610047,0.00490817,0.00598107,-0.00893352,0.552751,-0.308281,4.64291e-05,1.56983,-0.0111177,1.53164,-0.579903,42.2246,-24.5268,0.0178317,3.39348,0.561224,3.07524,-1.29763,9.49296,-5.2753,0.00143074,0.0183959,0.0830893,0.0257157,-1.71804,-0.00529472,0.224658,-0.0160106,0.00234965,0.0398011,0.000593955,-0.236802,0.0878479,0.0168082,-1.25225e-05,0,0,0,0,0,0,0,0.0828892,-25.9371,0.286573,19.7781,1.93145,0.48699,-0.0365141,
0.0209029,0.0841246,0.0279799,-1.72095,0.0215798,0.18703,-0.0155261,0.0221295,0.0033778,0.0206762,-0.0237274,0.620679,-0.478297,0.000719835,10.0181,-0.956478,9.18444,-9.24615,42.4556,-106.26,0.420878,21.5965,1.66301,20.357,-6.47478,11.0165,-14.0909,0.217168,0.0183959,0.0830893,0.0257157,-1.71804,-0.00529472,0.224658,-0.0160106,0.00234965,0.0398011,0.000593955,-0.236802,0.0878479,0.0168082,-1.25225e-05,0,0,0,0,0,0,0,0.0828892,-25.9371,0.286573,19.7781,1.93145,0.48699,-0.0365141,
0.0216527,0.0840926,0.0286763,-1.72165,0.029118,0.177793,-0.0154996,0.0364468,0.00190318,0.0339498,-0.036518,0.684998,-0.613556,0.00123879,8.94832,-0.921638,8.29601,-7.99416,40.1994,-84.5367,0.324345,19.2287,-3.16433,18.7303,-9.74768,11.0165,-14.0909,0.263815,0.0183959,0.0830893,0.0257157,-1.71804,-0.00529472,0.224658,-0.0160106,0.00234965,0.0398011,0.000593955,-0.236802,0.0878479,0.0168082,-1.25225e-05,0,0,0,0,0,0,0,0.0828892,-25.9371,0.286573,19.7781,1.93145,0.48699,-0.0365141,
0.0224496,0.0840666,0.0294206,-1.72238,0.0369389,0.168794,-0.0154731,0.049081,0.000871248,0.0457679,-0.0475191,0.743522,-0.715825,0.00165249,7.89637,-0.644959,7.38631,-6.87568,36.577,-63.918,0.258565,16.2993,-3.00906,15.5104,-10.0204,11.0165,-14.0909,0.0779815,0.0183959,0.0830893,0.0257157,-1.71804,-0.00529472,0.224658,-0.0160106,0.00234965,0.0398011,0.000593955,-0.236802,0.0878479,0.0168082,-1.25225e-05,0,0,0,0,0,0,0,0.0828892,-25.9371,0.286573,19.7781,1.93145,0.48699,-0.0365141,
0.0232823,0.0840541,0.0302013,-1.72314,0.0449624,0.160157,-0.0154466,0.0600831,0.000385838,0.0561312,-0.0568478,0.795406,-0.788579,0.00198485,6.87631,-0.303381,6.47705,-5.83042,32.4274,-45.4713,0.207724,15.1054,-1.73677,14.2567,-9.36625,10.9611,-13.5818,0.0397349,0.0183038,0.0845025,0.0256352,-1.72526,0.00377421,0.218771,-0.0160116,0.0019044,0.0686016,-0.00311047,-0.133734,0.381324,-0.419741,-0.00023107,-0.0556565,3.60006,-0.463053,12.8835,36.6845,-54.5686,-0.0273184,2.97107,-43.3058,3.11128,30.589,2.72522,0.354239,-0.0365141,
0.02237,0.0849015,0.0296435,-1.73222,0.0414257,0.175293,-0.0159065,0.0725746,-0.00107437,0.0687919,-0.0786027,0.825283,-0.80757,0.0020098,7.80719,-0.912631,7.91295,-13.5968,18.6735,-11.8695,0.0155961,21.3357,-1.41055,20.903,-16.1392,10.9611,-14.0404,0.024028,0.0183038,0.0845025,0.0256352,-1.72526,0.00377421,0.218771,-0.0160116,0.0019044,0.0686016,-0.00311047,-0.133734,0.381324,-0.419741,-0.00023107,0,0,0,0,0,0,0,2.97107,-43.3058,3.11128,30.589,2.72522,0.354239,-0.0365141,
0.0234102,0.0848471,0.0306554,-1.73357,0.0492361,0.168785,-0.0158885,0.0840651,-0.00221893,0.0803324,-0.0964927,0.855485,-0.808756,0.00205631,7.18158,-0.715347,7.21284,-11.1813,18.8761,-0.741445,0.0290644,20.2728,-1.42317,19.8137,-15.7905,10.9611,-12.9564,0.016648,0.0183038,0.0845025,0.0256352,-1.72526,0.00377421,0.218771,-0.0160116,0.0019044,0.0686016,-0.00311047,-0.133734,0.381324,-0.419741,-0.00023107,0,0,0,0,0,0,0,2.97107,-43.3058,3.11128,30.589,2.72522,0.354239,-0.0365141,
0.0244931,0.0847976,0.0317074,-1.73492,0.057238,0.162885,-0.0158683,0.0943238,-0.00301462,0.090566,-0.110943,0.884436,-0.794491,0.00215047,6.41168,-0.497308,6.39598,-9.03139,18.0944,8.91582,0.0588543,19.3542,-1.5401,18.8832,-15.5206,10.9611,-11.5079,0.0121347,0.0183038,0.0845025,0.0256352,-1.72526,0.00377421,0.218771,-0.0160116,0.0019044,0.0686016,-0.00311047,-0.133734,0.381324,-0.419741,-0.00023107,0,0,0,0,0,0,0,2.97107,-43.3058,3.11128,30.589,2.72522,0.354239,-0.0365141,
0.0256046,0.0847538,0.0327861,-1.73626,0.0653849,0.157608,-0.0158459,0.103246,-0.00350511,0.0994192,-0.12237,0.911223,-0.767526,0.00228149,5.57636,-0.306555,5.53327,-7.1422,16.7419,16.853,0.081883,18.3762,-1.36952,17.8843,-15.4551,10.7447,-10.1152,0.0121716,0.0179647,0.0880462,0.025364,-1.72613,0.0378276,0.195827,-0.0159547,-0.00253446,0.0601868,-0.000792863,-0.0306598,0.973407,-0.8232,0.0057744,-0.554857,-1.05185,0.289701,12.8843,74.0104,-50.4324,0.750684,8.47766,-43.9287,8.38777,22.4203,2.66388,-1.94007,0.0239107,
0.0220351,0.0878546,0.0293377,-1.73279,0.074927,0.161429,-0.0158171,0.110591,-0.00408684,0.106483,-0.135937,0.921127,-0.772059,0.00225771,4.59085,-0.363582,4.4146,-8.47882,6.18993,-2.83325,-0.014859,22.8244,0.124672,21.9485,-19.4968,10.7447,-12.2287,0.0201892,0.0179647,0.0880462,0.025364,-1.72613,0.0378276,0.195827,-0.0159547,-0.00253446,0.0601868,-0.000792863,-0.0306598,0.973407,-0.8232,0.0057744,0,0,0,0,0,0,0,8.47766,-43.9287,8.38777,22.4203,2.66388,-1.94007,0.0239107,
0.0232233,0.0878282,0.0304795,-1.73434,0.0827835,0.155652,-0.0157989,0.118177,-0.00392827,0.113732,-0.147409,0.933314,-0.762072,0.00226185,4.74082,0.0991053,4.53115,-7.17044,7.61679,6.2421,0.00258635,21.6149,0.0325924,20.7799,-19.1846,10.7447,-10.7145,0.0129264,0.0179647,0.0880462,0.025364,-1.72613,0.0378276,0.195827,-0.0159547,-0.00253446,0.0601868,-0.000792863,-0.0306598,0.973407,-0.8232,0.0057744,0,0,0,0,0,0,0,8.47766,-43.9287,8.38777,22.4203,2.66388,-1.94007,0.0239107,
0.0244566,0.0878264,0.0316636,-1.73589,0.0907864,0.150449,-0.0157779,0.125373,-0.00318893,0.120589,-0.156784,0.946723,-0.73973,0.00233501,4.49801,0.462086,4.28506,-5.85904,8.38107,13.9636,0.0457241,20.5811,-0.0707701,19.7832,-18.9083,10.7447,-9.37187,0.00992878,0.0179647,0.0880462,0.025364,-1.72613,0.0378276,0.195827,-0.0159547,-0.00253446,0.0601868,-0.000792863,-0.0306598,0.973407,-0.8232,0.0057744,0,0,0,0,0,0,0,8.47766,-43.9287,8.38777,22.4203,2.66388,-1.94007,0.0239107,
0.0264267,0.0874141,0.034471,-1.74072,0.11663,0.109531,-0.0157771,0.137122,-0.00362016,0.131869,-0.179406,0.959836,-0.740412,0.00230822,7.3429,-0.269515,7.05009,-14.1391,8.1956,-0.426357,-0.0167397,23.699,0.0312657,22.7487,-25.1492,10.6121,-9.65627,0.0227762,0.0197764,0.0881378,0.0280404,-1.72991,0.0766618,0.149943,-0.0159049,0.104953,-0.0523566,0.10183,-0.251062,1.05588,-1.49106,0.000791831,13.436,-14.0679,12.8278,-27.5503,10.3091,-83.4827,-0.622821,19.4075,-35.1451,18.3615,16.4178,3.75702,-0.832285,-0.0767973,
0.0279134,0.0873894,0.0358986,-1.74285,0.124812,0.10445,-0.015759,0.146864,-0.00351418,0.141184,-0.196775,0.972436,-0.71935,0.00229847,6.08879,0.066237,5.82189,-10.8553,7.8747,13.1639,-0.00609892,22.374,-0.341751,21.4914,-24.8579,10.6121,-8.24311,0.0139789,0.0197764,0.0881378,0.0280404,-1.72991,0.0766618,0.149943,-0.0159049,0.104953,-0.0523566,0.10183,-0.251062,1.05588,-1.49106,0.000791831,0,0,0,0,0,0,0,19.4075,-35.1451,18.3615,16.4178,3.75702,-0.832285,-0.0767973,
0.0293994,0.0873742,0.0373245,-1.74494,0.133064,0.100143,-0.0157386,0.154643,-0.00319168,0.148594,-0.209738,0.984253,-0.683149,0.00234892,4.86203,0.201559,4.63133,-8.102,7.3859,22.6257,0.031534,21.2715,-0.637721,20.4402,-24.5687,10.6121,-7.0012,0.0124591,0.0197764,0.0881378,0.0280404,-1.72991,0.0766618,0.149943,-0.0159049,0.104953,-0.0523566,0.10183,-0.251062,1.05588,-1.49106,0.000791831,0,0,0,0,0,0,0,19.4075,-35.1451,18.3615,16.4178,3.75702,-0.832285,-0.0767973,
0.0308751,0.0873624,0.0387396,-1.74699,0.141369,0.0965317,-0.0157152,0.160605,-0.00284815,0.154253,-0.219066,0.995021,-0.636815,0.00246501,3.72608,0.214706,3.53672,-5.82983,6.72983,28.9588,0.0725571,20.3251,-0.854803,19.536,-24.276,10.6121,-5.89755,0.0156328,0.0197764,0.0881378,0.0280404,-1.72991,0.0766618,0.149943,-0.0159049,0.104953,-0.0523566,0.10183,-0.251062,1.05588,-1.49106,0.000791831,0,0,0,0,0,0,0,19.4075,-35.1451,18.3615,16.4178,3.75702,-0.832285,-0.0767973,
0.0340728,0.0859026,0.0422567,-1.75585,0.16159,0.0813979,-0.0158702,0.17194,-0.00210495,0.165163,-0.240366,1.01079,-0.560441,0.00222934,7.08447,0.464499,6.81903,-13.3128,9.85774,47.7337,-0.147296,22.1359,-1.55989,21.2685,-29.5082,10.591,-2.46512,0.000410238,0.0250385,0.0862701,0.0335584,-1.74199,0.118146,0.104671,-0.015904,0.224977,-0.0430071,0.222113,-0.358853,1.12816,-1.33182,-0.000549657,15.0029,1.16869,15.0354,-13.4738,9.03491,19.9046,-0.167686,16.3131,-31.6261,15.513,24.7849,3.67187,0.255362,-0.0566557,
0.0357643,0.0859142,0.0438817,-1.75838,0.17015,0.0802023,-0.015854,0.179841,-0.00139405,0.172755,-0.255374,1.02265,-0.478244,0.00218689,4.93804,0.444316,4.74511,-9.37967,7.40757,51.3733,-0.0265304,21.0743,-1.73853,20.2651,-29.1999,10.591,-1.48635,-0.000472113,0.0250385,0.0862701,0.0335584,-1.74199,0.118146,0.104671,-0.015904,0.224977,-0.0430071,0.222113,-0.358853,1.12816,-1.33182,-0.000549657,0,0,0,0,0,0,0,16.3131,-31.6261,15.513,24.7849,3.67187,0.255362,-0.0566557,
0.0374086,0.0859243,0.0454609,-1.76082,0.17868,0.0797045,-0.0158303,0.18498,-0.000861767,0.177684,-0.265462,1.03135,-0.395041,0.00234336,3.21163,0.332676,3.08036,-6.305,5.44309,52.0019,0.0977955,20.1867,-1.77834,19.4237,-28.8509,10.591,-0.661394,0.00396546,0.0250385,0.0862701,0.0335584,-1.74199,0.118146,0.104671,-0.015904,0.224977,-0.0430071,0.222113,-0.358853,1.12816,-1.33182,-0.000549657,0,0,0,0,0,0,0,16.3131,-31.6261,15.513,24.7849,3.67187,0.255362,-0.0566557,
0.0390061,0.0859298,0.0469949,-1.7632,0.187178,0.0797916,-0.0157982,0.187922,-0.000550872,0.180497,-0.271758,1.03754,-0.313853,0.00267572,1.83892,0.19431,1.75852,-3.93487,3.86303,50.742,0.207723,19.4304,-1.72544,18.705,-28.4782,10.591,0.0512816,0.00970036,0.0250385,0.0862701,0.0335584,-1.74199,0.118146,0.104671,-0.015904,0.224977,-0.0430071,0.222113,-0.358853,1.12816,-1.33182,-0.000549657,0,0,0,0,0,0,0,16.3131,-31.6261,15.513,24.7849,3.67187,0.255362,-0.0566557,
0.0336817,0.0855543,0.0419117,-1.75808,0.162177,0.0952808,-0.0158313,0.191456,-0.00056639,0.184064,-0.291385,1.04623,-0.223658,0.00297664,2.20882,-0.00969883,2.22935,-12.2672,5.43348,56.3723,0.188073,19.3524,-3.04179,18.6418,-33.5811,10.5223,4.15399,-0.0151119,0.0342772,0.0842229,0.043508,-1.75797,0.161585,0.0643597,-0.0159036,0.316106,-0.0376104,0.327809,-0.536494,1.30222,-0.988246,-0.000447659,11.3911,0.674588,13.212,-22.2052,21.7572,42.9474,0.0127498,8.62842,-32.6973,8.16163,25.0586,3.41552,1.88592,-0.0163725,
0.0352779,0.0855623,0.0434513,-1.76093,0.170774,0.0971172,-0.0157866,0.19307,-0.00025465,0.185741,-0.304242,1.0519,-0.133017,0.0034987,1.00868,0.194837,1.04765,-8.03577,3.54489,56.6502,0.326293,18.8217,-2.86398,18.1438,-33.1458,10.5223,4.52164,-0.00238806,0.0342772,0.0842229,0.043508,-1.75797,0.161585,0.0643597,-0.0159036,0.316106,-0.0376104,0.327809,-0.536494,1.30222,-0.988246,-0.000447659,0,0,0,0,0,0,0,8.62842,-32.6973,8.16163,25.0586,3.41552,1.88592,-0.0163725,
0.0368246,0.0855719,0.0449432,-1.76368,0.179328,0.0994941,-0.0157324,0.193122,3.69044e-05,0.18589,-0.312043,1.05538,-0.0469917,0.0041554,0.0326553,0.182221,0.0933483,-4.87536,2.17499,53.766,0.410432,18.3523,-2.62579,17.702,-32.6852,10.5223,4.78926,0.0125253,0.0342772,0.0842229,0.043508,-1.75797,0.161585,0.0643597,-0.0159036,0.316106,-0.0376104,0.327809,-0.536494,1.30222,-0.988246,-0.000447659,0,0,0,0,0,0,0,8.62842,-32.6973,8.16163,25.0586,3.41552,1.88592,-0.0163725,
0.0383219,0.0855778,0.0463865,-1.76633,0.187847,0.102266,-0.0156689,0.191931,0.000177689,0.184796,-0.316099,1.05727,0.0317076,0.00491155,-0.744733,0.0879901,-0.683627,-2.53491,1.18391,49.1871,0.472597,17.9213,-2.36279,17.2951,-32.2156,10.5223,5.00157,0.027423,0.0342772,0.0842229,0.043508,-1.75797,0.161585,0.0643597,-0.0159036,0.316106,-0.0376104,0.327809,-0.536494,1.30222,-0.988246,-0.000447659,0,0,0,0,0,0,0,8.62842,-32.6973,8.16163,25.0586,3.41552,1.88592,-0.0163725,
0.0467427,0.0845887,0.0555072,-1.77903,0.21822,0.062831,-0.0155965,0.197381,0.00262423,0.189846,-0.32998,1.06946,0.083576,0.00556981,3.40615,1.52909,3.15631,-8.67594,7.61585,32.4178,0.411411,18.5416,-3.0364,17.8307,-36.6072,10.3698,6.04022,0.030093,0.0466806,0.0832251,0.0557618,-1.77927,0.209702,0.0421962,-0.0158984,0.395904,0.0111919,0.366433,-0.695104,1.40805,-0.340582,-0.000575496,9.9748,6.10028,4.82796,-19.8261,13.2297,80.958,-0.0159796,2.94727,-36.1171,2.81373,24.9118,2.44415,3.13927,-0.0630644,
0.0483937,0.0846761,0.0570815,-1.782,0.227041,0.0655312,-0.0155337,0.199179,0.00428669,0.191234,-0.338138,1.07609,0.134366,0.00602435,1.12422,1.03904,0.867574,-5.09882,4.14444,31.744,0.284087,18.1088,-2.72812,17.4248,-36.1096,10.3698,6.00661,0.047286,0.0466806,0.0832251,0.0557618,-1.77927,0.209702,0.0421962,-0.0158984,0.395904,0.0111919,0.366433,-0.695104,1.40805,-0.340582,-0.000575496,0,0,0,0,0,0,0,2.94727,-36.1171,2.81373,24.9118,2.44415,3.13927,-0.0630644,
0.0499713,0.0847503,0.0585898,-1.78484,0.235352,0.0684726,-0.0154706,0.198783,0.00528405,0.190695,-0.341653,1.06866,0.181029,0.00639678,-0.247605,0.623348,-0.337058,-2.19664,-4.64716,29.1642,0.232768,17.6417,-2.38459,16.9895,-35.597,10.3698,5.96774,0.064777,0.0466806,0.0832251,0.0557618,-1.77927,0.209702,0.0421962,-0.0158984,0.395904,0.0111919,0.366433,-0.695104,1.40805,-0.340582,-0.000575496,0,0,0,0,0,0,0,2.94727,-36.1171,2.81373,24.9118,2.44415,3.13927,-0.0630644,
0.0514991,0.0848079,0.060055,-1.78758,0.242859,0.0715657,-0.0154073,0.197222,0.00566694,0.189186,-0.341649,1.0426,0.222151,0.00670143,-0.975723,0.239305,-0.943169,0.00282891,-16.2851,25.7012,0.19041,17.1007,-2.02664,16.4842,-35.08,10.3698,5.89938,0.0820371,0.0466806,0.0832251,0.0557618,-1.77927,0.209702,0.0421962,-0.0158984,0.395904,0.0111919,0.366433,-0.695104,1.40805,-0.340582,-0.000575496,0,0,0,0,0,0,0,2.94727,-36.1171,2.81373,24.9118,2.44415,3.13927,-0.0630644,
0.0582329,0.0848744,0.0668553,-1.79876,0.25857,0.0540192,-0.0156748,0.205502,0.0102847,0.19711,-0.357507,1.05416,0.285529,0.00663097,5.1749,2.88613,4.95248,-9.91163,7.22493,39.6113,-0.0440412,15.9163,-3.94004,15.3737,-38.5137,10.3698,9.88323,0.0597182,0.0466806,0.0832251,0.0557618,-1.77927,0.209702,0.0421962,-0.0158984,0.395904,0.0111919,0.366433,-0.695104,1.40805,-0.340582,-0.000575496,0,0,0,0,0,0,0,2.94727,-36.1171,2.81373,24.9118,2.44415,3.13927,-0.0630644,
0.0600252,0.0850446,0.0685771,-1.80194,0.266437,0.0587181,-0.0156226,0.209209,0.0124836,0.200733,-0.365545,1.04001,0.345895,0.00660983,2.3173,1.37431,2.26443,-5.02372,-8.84406,37.7286,-0.0132109,15.5622,-3.7475,14.9918,-37.6064,10.2201,9.72565,0.0650771,0.0605664,0.0832089,0.069368,-1.80584,0.256634,0.0438843,-0.0158972,0.436416,-0.0110558,0.386316,-0.817788,1.43365,0.192997,-0.00105396,5.06398,-2.78097,2.48539,-15.3355,3.19916,66.6973,-0.0598079,-3.08697,-39.1402,-2.7603,31.9855,1.52221,5.88402,-0.0301054,
0.0617244,0.0851595,0.070211,-1.80496,0.273285,0.0636483,-0.0155691,0.209847,0.0128582,0.201436,-0.368107,1.00322,0.399972,0.00662446,0.398541,0.234072,0.439412,-1.60106,-22.9945,33.7981,0.00914413,15.1034,-3.19662,14.5501,-37.0305,10.2201,9.37053,0.0682503,0.0605664,0.0832089,0.069368,-1.80584,0.256634,0.0438843,-0.0158972,0.436416,-0.0110558,0.386316,-0.817788,1.43365,0.192997,-0.00105396,0,0,0,0,0,0,0,-3.08697,-39.1402,-2.7603,31.9855,1.52221,5.88402,-0.0301054,
0.0633452,0.0852258,0.0717705,-1.80786,0.27913,0.0687006,-0.0155153,0.208397,0.0119441,0.200136,-0.366981,0.948684,0.446284,0.00664396,-0.906554,-0.571268,-0.812872,0.703693,-34.0839,28.945,0.0121866,14.7274,-2.64177,14.1143,-36.4237,10.2201,9.0317,0.0674486,0.0605664,0.0832089,0.069368,-1.80584,0.256634,0.0438843,-0.0158972,0.436416,-0.0110558,0.386316,-0.817788,1.43365,0.192997,-0.00105396,0,0,0,0,0,0,0,-3.08697,-39.1402,-2.7603,31.9855,1.52221,5.88402,-0.0301054,
0.0726618,0.0845408,0.0810074,-1.82617,0.293734,0.0673294,-0.0157408,0.216443,0.012625,0.208047,-0.380606,0.877218,0.520194,0.006415,5.02868,0.425519,4.94459,-8.51583,-44.666,46.1939,-0.143096,12.3877,-6.13245,11.9298,-40.983,8.40137,11.7204,0.0356759,0.0605664,0.0832089,0.069368,-1.80584,0.256634,0.0438843,-0.0158972,0.436416,-0.0110558,0.386316,-0.817788,1.43365,0.192997,-0.00105396,0,0,0,0,0,0,0,-3.08697,-39.1402,-2.7603,31.9855,1.52221,5.88402,-0.0301054,
0.0745104,0.0846073,0.0827899,-1.82949,0.297333,0.0743903,-0.0156913,0.219367,0.0117641,0.211,-0.387454,0.791731,0.592678,0.00636867,1.82787,-0.538021,1.84585,-4.27989,-53.4293,45.3021,-0.0289569,12.5308,-5.32948,11.9531,-40.036,6.13342,11.7885,0.0428032,0.0755042,0.0828032,0.0839567,-1.83399,0.305658,0.0578688,-0.0158678,0.434422,-0.0288796,0.401714,-0.796637,1.37759,0.48775,0.00239042,-0.249232,-2.22797,1.92472,2.64384,-7.00682,36.8442,0.430548,-4.50726,-37.5176,-4.03777,29.0457,1.52221,4.23974,0.0101778,
0.0762423,0.0846319,0.0844603,-1.83267,0.29994,0.0818598,-0.0156359,0.218793,0.0100262,0.21056,-0.389644,0.698567,0.660879,0.00648056,-0.358802,-1.08623,-0.275413,-1.36896,-58.2275,42.6256,0.0699298,12.6537,-4.32222,12.0471,-39.2682,4.45716,11.7885,0.0483246,0.0755042,0.0828032,0.0839567,-1.83399,0.305658,0.0578688,-0.0158678,0.434422,-0.0288796,0.401714,-0.796637,1.37759,0.48775,0.00239042,0,0,0,0,0,0,0,-4.50726,-37.5176,-4.03777,29.0457,1.52221,4.23974,0.0101778,
0.0778768,0.0846262,0.0860367,-1.83575,0.301701,0.0896416,-0.0155756,0.215895,0.00787712,0.207859,-0.388713,0.602878,0.723247,0.00669214,-1.81113,-1.34315,-1.68786,0.582215,-59.8057,38.9805,0.132237,12.8047,-3.47324,12.1919,-38.5229,3.11489,11.7885,0.0516642,0.0755042,0.0828032,0.0839567,-1.83399,0.305658,0.0578688,-0.0158678,0.434422,-0.0288796,0.401714,-0.796637,1.37759,0.48775,0.00239042,0,0,0,0,0,0,0,-4.50726,-37.5176,-4.03777,29.0457,1.52221,4.23974,0.0101778,
0.0881422,0.0842168,0.0961516,-1.85223,0.329031,0.0854759,-0.0156175,0.224163,0.00984797,0.215859,-0.390443,0.533398,0.752101,0.00680355,5.16724,1.23178,4.99993,-1.08107,-43.4252,18.0336,0.0696329,12.9939,-2.78303,12.3836,-37.8026,1.9945,11.7885,0.0565549,0.0755042,0.0828032,0.0839567,-1.83399,0.305658,0.0578688,-0.0158678,0.434422,-0.0288796,0.401714,-0.796637,1.37759,0.48775,0.00239042,0,0,0,0,0,0,0,-4.50726,-37.5176,-4.03777,29.0457,1.52221,4.23974,0.0101778,
0.0900363,0.084304,0.0979761,-1.85529,0.33025,0.092846,-0.0155546,0.226684,0.010058,0.2183,-0.388895,0.457207,0.785935,0.00701506,1.57585,0.131244,1.52574,0.967338,-47.6195,21.1464,0.132191,13.2278,-2.41922,12.5796,-37.0276,0.973147,11.7826,0.0590316,0.0901539,0.0827323,0.0985163,-1.86217,0.352166,0.0895578,-0.0158285,0.406998,-0.00364439,0.432178,-0.825264,1.31195,1.04962,0.00136229,-3.42801,3.1544,3.80802,-3.57833,-8.20567,70.2342,-0.128516,-5.39593,-37.466,-5.03752,23.3923,0.178219,2.02508,-0.0026396,
0.0917908,0.0843531,0.0996648,-1.85824,0.33081,0.100393,-0.0154876,0.225209,0.00927369,0.216857,-0.384702,0.379752,0.817417,0.007288,-0.922129,-0.490169,-0.901998,2.62028,-48.4093,19.6763,0.17059,13.44,-2.00304,12.8032,-36.3663,0.229381,11.7826,0.0642922,0.0901539,0.0827323,0.0985163,-1.86217,0.352166,0.0895578,-0.0158285,0.406998,-0.00364439,0.432178,-0.825264,1.31195,1.04962,0.00136229,0,0,0,0,0,0,0,-5.39593,-37.466,-5.03752,23.3923,0.178219,2.02508,-0.0026396,
0.0934264,0.0843711,0.101238,-1.86108,0.330848,0.107957,-0.0154171,0.221058,0.00786794,0.212826,-0.378787,0.304769,0.843051,0.00759195,-2.59438,-0.878591,-2.51929,3.6971,-46.8645,16.0208,0.189971,13.6389,-1.69345,13.0163,-35.733,-0.351636,11.7826,0.068616,0.0901539,0.0827323,0.0985163,-1.86217,0.352166,0.0895578,-0.0158285,0.406998,-0.00364439,0.432178,-0.825264,1.31195,1.04962,0.00136229,0,0,0,0,0,0,0,-5.39593,-37.466,-5.03752,23.3923,0.178219,2.02508,-0.0026396,
0.102758,0.0848878,0.110686,-1.87888,0.36809,0.122939,-0.0154976,0.227431,0.0110554,0.218916,-0.375326,0.262529,0.84479,0.00777594,3.98323,1.99218,3.80611,2.16341,-26.3996,1.08696,0.11499,13.8205,-1.47038,13.2121,-35.1221,-0.814454,11.7826,0.0733303,0.0901539,0.0827323,0.0985163,-1.86217,0.352166,0.0895578,-0.0158285,0.406998,-0.00364439,0.432178,-0.825264,1.31195,1.04962,0.00136229,0,0,0,0,0,0,0,-5.39593,-37.466,-5.03752,23.3923,0.178219,2.02508,-0.0026396,
0.104605,0.0849994,0.112461,-1.88167,0.368225,0.129699,-0.0154264,0.228117,0.0116362,0.21951,-0.369966,0.213384,0.844825,0.00800035,0.428895,0.362997,0.37123,3.34983,-30.7154,0.0220162,0.140258,13.661,-1.34818,13.032,-34.5871,-1.29388,11.6569,0.0837747,0.104992,0.0825082,0.112947,-1.89219,0.37941,0.137876,-0.0157892,0.446629,4.59101e-05,0.405096,-0.839037,0.49194,1.48973,0.000139248,4.9539,0.461288,-3.3853,-1.72166,-102.501,55.0135,-0.15288,-5.32055,-35.4189,-5.03752,24.9356,-0.0717199,2.49566,0.0303194,
0.106305,0.0850531,0.114094,-1.88437,0.367906,0.136351,-0.0153527,0.224991,0.0106505,0.21643,-0.363491,0.162749,0.842184,0.00824328,-1.95387,-0.616074,-1.92465,4.0465,-31.6471,-1.65081,0.15183,13.7847,-1.24397,13.1702,-34.0125,-1.5505,11.0996,0.0873109,0.104992,0.0825082,0.112947,-1.89219,0.37941,0.137876,-0.0157892,0.446629,4.59101e-05,0.405096,-0.839037,0.49194,1.48973,0.000139248,0,0,0,0,0,0,0,-5.32055,-35.4189,-5.03752,24.9356,-0.0717199,2.49566,0.0303194,
0.107882,0.0850642,0.115609,-1.88699,0.367258,0.14286,-0.0152773,0.219432,0.00879797,0.211014,-0.356423,0.113998,0.836454,0.00847921,-3.47448,-1.15783,-3.38512,4.41786,-30.4698,-3.58136,0.147457,13.8747,-1.17822,13.2754,-33.4489,-1.73672,10.5737,0.0902564,0.104992,0.0825082,0.112947,-1.89219,0.37941,0.137876,-0.0157892,0.446629,4.59101e-05,0.405096,-0.839037,0.49194,1.48973,0.000139248,0,0,0,0,0,0,0,-5.32055,-35.4189,-5.03752,24.9356,-0.0717199,2.49566,0.0303194,
0.116754,0.0851031,0.124191,-1.90793,0.381777,0.171636,-0.0154397,0.221238,0.013004,0.212561,-0.353188,0.0789984,0.817738,0.00856291,1.12878,2.62876,0.966941,2.02204,-21.8744,-11.6975,0.0523104,13.9289,-1.14001,13.3442,-32.8929,-1.86946,10.0818,0.0930136,0.104992,0.0825082,0.112947,-1.89219,0.37941,0.137876,-0.0157892,0.446629,4.59101e-05,0.405096,-0.839037,0.49194,1.48973,0.000139248,0,0,0,0,0,0,0,-5.32055,-35.4189,-5.03752,24.9356,-0.0717199,2.49566,0.0303194,
0.118421,0.0852522,0.125787,-1.91056,0.381046,0.17739,-0.0153667,0.218662,0.0141297,0.209955,-0.348291,0.0449281,0.798052,0.00867577,-1.61001,0.703571,-1.62896,3.06012,-21.2939,-12.3034,0.0705358,13.7696,-1.05024,13.1628,-32.556,-2.00083,9.45038,0.0988555,0.119347,0.0824129,0.127645,-1.9208,0.388994,0.192428,-0.0157097,0.472,0.0306016,0.388036,-0.757396,0.11432,1.59751,0.00517139,3.17138,3.81946,-2.13248,10.2051,-47.2025,13.4726,0.629018,-4.15417,-35.1967,-3.71245,24.6619,0.422665,1.82641,-0.00996382,
0.119958,0.0853359,0.127259,-1.91311,0.380141,0.182972,-0.0152927,0.213361,0.0133953,0.204768,-0.342359,0.0133044,0.777983,0.00879059,-3.31334,-0.459021,-3.24163,3.70797,-19.7648,-12.5435,0.0717646,13.7501,-1.04226,13.1569,-32.01,-2.04124,9.01858,0.100218,0.119347,0.0824129,0.127645,-1.9208,0.388994,0.192428,-0.0157097,0.472,0.0306016,0.388036,-0.757396,0.11432,1.59751,0.00517139,0,0,0,0,0,0,0,-4.15417,-35.1967,-3.71245,24.6619,0.422665,1.82641,-0.00996382,
0.12139,0.0853717,0.12863,-1.91559,0.379115,0.188387,-0.0152184,0.206483,0.0116132,0.198093,-0.335813,-0.0150132,0.757755,0.00888829,-4.29854,-1.11379,-4.17181,4.091,-17.6985,-12.6423,0.0610606,13.6971,-1.04095,13.1173,-31.4669,-2.04668,8.61387,0.100759,0.119347,0.0824129,0.127645,-1.9208,0.388994,0.192428,-0.0157097,0.472,0.0306016,0.388036,-0.757396,0.11432,1.59751,0.00517139,0,0,0,0,0,0,0,-4.15417,-35.1967,-3.71245,24.6619,0.422665,1.82641,-0.00996382,
0.130595,0.085053,0.138339,-1.93535,0.386579,0.223809,-0.0153832,0.20789,0.0149306,0.199254,-0.332099,-0.0308647,0.73232,0.00879138,0.879349,2.07334,0.725571,2.3211,-9.90714,-15.897,-0.0605632,13.6158,-1.04296,13.0488,-30.9253,-2.02949,8.23446,0.100846,0.119347,0.0824129,0.127645,-1.9208,0.388994,0.192428,-0.0157097,0.472,0.0306016,0.388036,-0.757396,0.11432,1.59751,0.00517139,0,0,0,0,0,0,0,-4.15417,-35.1967,-3.71245,24.6619,0.422665,1.82641,-0.00996382,
0.13215,0.0851902,0.139824,-1.9378,0.385734,0.228618,-0.0153147,0.205169,0.0153744,0.196532,-0.327031,-0.0458109,0.706091,0.00874721,-1.70031,0.277377,-1.70147,3.16751,-9.34141,-16.3931,-0.0276086,13.4656,-1.13327,12.8768,-30.4963,-1.93621,7.71239,0.101836,0.133345,0.0832643,0.1415,-1.94665,0.390879,0.245684,-0.0156211,0.410832,0.0723282,0.377085,-0.695305,0.00663388,1.49847,0.000890643,-7.64604,5.21582,-1.36884,7.76136,-13.4608,-12.3802,-0.535093,-2.32922,-38.315,-1.93511,25.6577,0.990292,1.26244,-0.0163725,
0.133582,0.0852641,0.141193,-1.94018,0.384821,0.233243,-0.0152458,0.19995,0.0141449,0.191456,-0.321102,-0.05948,0.680485,0.00872014,-3.26222,-0.768383,-3.17219,3.70602,-8.54321,-16.0036,-0.0169193,13.3374,-1.13512,12.7603,-29.9561,-1.88816,7.37905,0.100932,0.133345,0.0832643,0.1415,-1.94665,0.390879,0.245684,-0.0156211,0.410832,0.0723282,0.377085,-0.695305,0.00663388,1.49847,0.000890643,0,0,0,0,0,0,0,-2.32922,-38.315,-1.93511,25.6577,0.990292,1.26244,-0.0163725,
0.134917,0.0852923,0.142469,-1.94249,0.38386,0.23771,-0.0151772,0.193329,0.012022,0.185062,-0.314649,-0.0716055,0.656067,0.00868983,-4.13789,-1.32682,-3.99627,4.0331,-7.57843,-15.2612,-0.0189461,13.1907,-1.13502,12.6248,-29.4157,-1.83154,7.06646,0.0996099,0.133345,0.0832643,0.1415,-1.94665,0.390879,0.245684,-0.0156211,0.410832,0.0723282,0.377085,-0.695305,0.00663388,1.49847,0.000890643,0,0,0,0,0,0,0,-2.32922,-38.315,-1.93511,25.6577,0.990292,1.26244,-0.0163725,
0.143559,0.0862251,0.151184,-1.96036,0.387337,0.272747,-0.0153166,0.193547,0.0159212,0.185083,-0.31139,-0.0762792,0.628526,0.00850331,0.136322,2.437,0.0129357,2.03693,-2.92102,-17.213,-0.116573,13.0289,-1.13248,12.4739,-28.8752,-1.77077,6.7734,0.0979921,0.133345,0.0832643,0.1415,-1.94665,0.390879,0.245684,-0.0156211,0.410832,0.0723282,0.377085,-0.695305,0.00663388,1.49847,0.000890643,0,0,0,0,0,0,0,-2.32922,-38.315,-1.93511,25.6577,0.990292,1.26244,-0.0163725,
0.144979,0.0863839,0.152537,-1.96266,0.386542,0.27668,-0.0152538,0.190338,0.0167064,0.181898,-0.306655,-0.080906,0.601147,0.00837213,-2.00585,0.490754,-1.99078,2.95891,-2.89178,-17.1124,-0.081988,12.8546,-1.12722,12.3101,-28.3341,-1.70834,6.4983,0.0961214,0.133345,0.0832643,0.1415,-1.94665,0.390879,0.245684,-0.0156211,0.410832,0.0723282,0.377085,-0.695305,0.00663388,1.49847,0.000890643,0,0,0,0,0,0,0,-2.32922,-38.315,-1.93511,25.6577,0.990292,1.26244,-0.0163725,
0.146292,0.0864759,0.153789,-1.96489,0.385717,0.280457,-0.0151912,0.185102,0.0156669,0.176815,-0.300955,-0.0853479,0.575341,0.00826255,-3.27231,-0.649724,-3.17649,3.56249,-2.77616,-16.1287,-0.0684849,12.7421,-1.22987,12.1693,-27.7983,-1.55307,6.11232,0.0949432,0.146829,0.0844293,0.154652,-1.97091,0.388517,0.291724,-0.0155271,0.366171,0.0249586,0.418166,-0.698981,-0.090573,1.27365,0.00305103,-5.58268,-5.9212,5.13517,-0.45944,-12.1509,-28.1022,0.270048,-1.82141,-38.188,-1.463,25.5069,0.911556,1.49499,-0.0566557,
0.156834,0.0868311,0.164128,-1.98393,0.384622,0.312344,-0.0152646,0.185792,0.0178868,0.177318,-0.296581,-0.0838108,0.539365,0.00795739,0.431122,1.38745,0.31378,2.73372,0.960651,-22.4847,-0.190724,12.3514,-1.20646,11.7979,-26.714,-1.43576,5.64122,0.0903341,0.146829,0.0844293,0.154652,-1.97091,0.388517,0.291724,-0.0155271,0.366171,0.0249586,0.418166,-0.698981,-0.090573,1.27365,0.00305103,0,0,0,0,0,0,0,-1.82141,-38.188,-1.463,25.5069,0.911556,1.49499,-0.0566557,
0.158205,0.0869658,0.165433,-1.98608,0.38399,0.315389,-0.0152098,0.18292,0.0176786,0.174478,-0.290889,-0.0828582,0.507603,0.00773654,-1.79519,-0.130136,-1.77465,3.55798,0.595412,-19.851,-0.138031,12.1484,-1.19151,11.6042,-26.1711,-1.38277,5.4261,0.0879182,0.146829,0.0844293,0.154652,-1.97091,0.388517,0.291724,-0.0155271,0.366171,0.0249586,0.418166,-0.698981,-0.090573,1.27365,0.00305103,0,0,0,0,0,0,0,-1.82141,-38.188,-1.463,25.5069,0.911556,1.49499,-0.0566557,
0.159468,0.087043,0.166635,-1.98814,0.383337,0.318353,-0.015155,0.177916,0.0160726,0.169635,-0.284366,-0.0826182,0.480207,0.00755868,-3.12703,-1.00376,-3.02709,4.07677,0.150013,-17.1227,-0.111165,11.9419,-1.17479,11.4068,-25.6279,-1.3332,5.22328,0.0854029,0.146829,0.0844293,0.154652,-1.97091,0.388517,0.291724,-0.0155271,0.366171,0.0249586,0.418166,-0.698981,-0.090573,1.27365,0.00305103,0,0,0,0,0,0,0,-1.82141,-38.188,-1.463,25.5069,0.911556,1.49499,-0.0566557,
0.160644,0.0870781,0.167754,-1.99014,0.382661,0.321257,-0.0151009,0.171736,0.013736,0.163683,-0.277349,-0.0829837,0.456758,0.0074017,-3.86266,-1.46035,-3.71986,4.3855,-0.228499,-14.6559,-0.0981152,11.8122,-1.38571,11.257,-25.0837,-1.19638,4.91197,0.08352,0.159868,0.0852726,0.165886,-1.99414,0.383327,0.329712,-0.0154962,0.302588,-0.0317208,0.400269,-0.687924,-0.156996,1.05444,-0.000494111,-7.94776,-7.08492,-2.23722,1.38214,-8.30281,-27.4022,-0.443143,0.106693,-36.2679,0.961012,25.5585,2.24823,1.42174,0.0239107,
0.168928,0.086929,0.17446,-2.00628,0.378869,0.345374,-0.0152644,0.171847,0.0149247,0.163674,-0.273159,-0.0810977,0.42725,0.00709956,0.0694487,0.742972,-0.00577432,2.61861,1.1788,-18.4423,-0.188835,11.6016,-1.36631,11.0552,-24.5398,-1.15574,4.73095,0.0809719,0.159868,0.0852726,0.165886,-1.99414,0.383327,0.329712,-0.0154962,0.302588,-0.0317208,0.400269,-0.687924,-0.156996,1.05444,-0.000494111,0,0,0,0,0,0,0,0.106693,-36.2679,0.961012,25.5585,2.24823,1.42174,0.0239107,
0.170185,0.0870251,0.175654,-2.00825,0.378293,0.347798,-0.0152164,0.168899,0.014342,0.160791,-0.267645,-0.0792719,0.40241,0.00688129,-1.84279,-0.364204,-1.80171,3.44669,1.14113,-15.5247,-0.136423,11.3903,-1.34597,10.8525,-23.9955,-1.12053,4.5597,0.0784946,0.159868,0.0852726,0.165886,-1.99414,0.383327,0.329712,-0.0154962,0.302588,-0.0317208,0.400269,-0.687924,-0.156996,1.05444,-0.000494111,0,0,0,0,0,0,0,0.106693,-36.2679,0.961012,25.5585,2.24823,1.42174,0.0239107,
0.171345,0.0870756,0.176756,-2.01013,0.377709,0.350194,-0.0151683,0.164128,0.0127348,0.15619,-0.261291,-0.078022,0.38184,0.006707,-2.98201,-1.0045,-2.87551,3.97071,0.781181,-12.8562,-0.108931,11.1783,-1.32494,10.649,-23.4509,-1.08889,4.39749,0.0759744,0.159868,0.0852726,0.165886,-1.99414,0.383327,0.329712,-0.0154962,0.302588,-0.0317208,0.400269,-0.687924,-0.156996,1.05444,-0.000494111,0,0,0,0,0,0,0,0.106693,-36.2679,0.961012,25.5585,2.24823,1.42174,0.0239107,
0.172427,0.0870919,0.177784,-2.01195,0.377107,0.35257,-0.0151207,0.158357,0.0105953,0.150644,-0.254432,-0.0774578,0.364849,0.00655553,-3.60671,-1.33719,-3.46608,4.28684,0.352602,-10.6194,-0.0946646,10.9724,-1.48887,10.4269,-22.8301,-0.9745,4.18849,0.0734894,0.17137,0.0859784,0.176941,-2.0157,0.378112,0.361344,-0.0154853,0.293355,0.0162388,0.367773,-0.628915,-0.136788,0.848839,-0.00108471,-1.15417,5.99494,-4.06192,7.37605,2.52593,-25.6996,-0.0738244,0.336795,-36.9423,1.16334,24.9356,1.80877,1.10406,0.0577852,
0.179895,0.0881166,0.184992,-2.02722,0.374222,0.372885,-0.0152853,0.159067,0.0136649,0.151184,-0.251575,-0.0751608,0.337897,0.00627602,0.443867,1.91851,0.337143,1.78592,1.4356,-16.8451,-0.174698,10.7603,-1.46707,10.223,-22.2847,-0.951634,4.04291,0.0710648,0.17137,0.0859784,0.176941,-2.0157,0.378112,0.361344,-0.0154853,0.293355,0.0162388,0.367773,-0.628915,-0.136788,0.848839,-0.00108471,0,0,0,0,0,0,0,0.336795,-36.9423,1.16334,24.9356,1.80877,1.10406,0.0577852,
0.181075,0.0882527,0.186109,-2.02904,0.373696,0.374733,-0.0152431,0.156737,0.0143338,0.148871,-0.246905,-0.0732893,0.316508,0.0060751,-1.45653,0.418011,-1.44568,2.91857,1.16972,-13.368,-0.125574,10.5485,-1.44515,10.0194,-21.7388,-0.933954,3.90517,0.0687663,0.17137,0.0859784,0.176941,-2.0157,0.378112,0.361344,-0.0154853,0.293355,0.0162388,0.367773,-0.628915,-0.136788,0.848839,-0.00108471,0,0,0,0,0,0,0,0.336795,-36.9423,1.16334,24.9356,1.80877,1.10406,0.0577852,
0.182162,0.0883351,0.187138,-2.03079,0.373152,0.376601,-0.0152008,0.15256,0.0135268,0.144821,-0.241045,-0.0722277,0.299912,0.00591648,-2.61047,-0.504324,-2.53125,3.66289,0.6635,-10.3727,-0.0991367,10.3369,-1.42331,9.81581,-21.1923,-0.919659,3.7748,0.0664734,0.17137,0.0859784,0.176941,-2.0157,0.378112,0.361344,-0.0154853,0.293355,0.0162388,0.367773,-0.628915,-0.136788,0.848839,-0.00108471,0,0,0,0,0,0,0,0.336795,-36.9423,1.16334,24.9356,1.80877,1.10406,0.0577852,
0.183173,0.0883769,0.188095,-2.03245,0.372582,0.37849,-0.0151589,0.147338,0.0118657,0.139786,-0.234428,-0.072021,0.28717,0.00578123,-3.26356,-1.03821,-3.14664,4.13541,0.129167,-7.96391,-0.084531,10.1138,-1.61043,9.57623,-20.5735,-0.842088,3.61441,0.0642384,0.181701,0.08699,0.186925,-2.03525,0.373672,0.385928,-0.0154751,0.279766,0.0680759,0.288062,-0.569535,-0.109089,0.645618,0.000542746,-1.69868,6.47965,-9.96394,7.42255,3.46234,-25.4026,0.203432,1.52698,-39.1124,2.26228,28.6966,1.8518,1.87951,-0.0227812,
0.189207,0.0897042,0.19398,-2.04615,0.369784,0.394078,-0.0152872,0.146796,0.0162208,0.139094,-0.232321,-0.0724889,0.263793,0.00556242,-0.33857,2.72194,-0.432446,1.31668,-0.292438,-14.6107,-0.136755,9.90285,-1.58914,9.37315,-20.0254,-0.836333,3.49852,0.0621008,0.181701,0.08699,0.186925,-2.03525,0.373672,0.385928,-0.0154751,0.279766,0.0680759,0.288062,-0.569535,-0.109089,0.645618,0.000542746,0,0,0,0,0,0,0,1.52698,-39.1124,2.26228,28.6966,1.8518,1.87951,-0.0227812,
0.190265,0.0898892,0.194978,-2.04783,0.369188,0.395498,-0.0152491,0.143895,0.0176033,0.136209,-0.228007,-0.0728869,0.246522,0.00540289,-1.81334,0.864029,-1.80344,2.69647,-0.248729,-10.794,-0.0997064,9.69248,-1.56829,9.17049,-19.4762,-0.83568,3.38996,0.0601031,0.181701,0.08699,0.186925,-2.03525,0.373672,0.385928,-0.0154751,0.279766,0.0680759,0.288062,-0.569535,-0.109089,0.645618,0.000542746,0,0,0,0,0,0,0,1.52698,-39.1124,2.26228,28.6966,1.8518,1.87951,-0.0227812,
0.191244,0.0900106,0.1959,-2.04942,0.368575,0.39698,-0.0152109,0.139589,0.0171162,0.132017,-0.222227,-0.0736195,0.234269,0.00527555,-2.69126,-0.304437,-2.62011,3.61244,-0.457895,-7.65822,-0.0795885,9.4824,-1.54806,8.9681,-18.9259,-0.838461,3.28832,0.0581397,0.181701,0.08699,0.186925,-2.03525,0.373672,0.385928,-0.0154751,0.279766,0.0680759,0.288062,-0.569535,-0.109089,0.645618,0.000542746,0,0,0,0,0,0,0,1.52698,-39.1124,2.26228,28.6966,1.8518,1.87951,-0.0227812,
0.192158,0.0900832,0.19676,-2.05093,0.367939,0.398519,-0.0151731,0.134516,0.0155087,0.127113,-0.215507,-0.0748107,0.2259,0.00516738,-3.17045,-1.00468,-3.06488,4.20029,-0.744502,-5.23053,-0.0676075,9.30196,-1.7797,8.76846,-18.2821,-0.798834,3.16725,0.0562236,0.191085,0.0877688,0.196727,-2.05324,0.370181,0.405226,-0.0154716,0.254046,0.0213306,0.291963,-0.502733,-0.0735398,0.53739,-4.07232e-05,-3.21501,-5.84317,0.487614,8.3502,4.44369,-13.5285,-0.0729336,-0.222592,-38.0135,0.187391,26.951,1.03973,1.99212,-0.0227812,
0.19826,0.0894636,0.203484,-2.06266,0.367086,0.411861,-0.0153109,0.135058,0.016291,0.127556,-0.211005,-0.0729503,0.210038,0.00495796,0.33872,0.488952,0.276824,2.81339,1.16277,-9.9138,-0.130888,9.09325,-1.761,8.56728,-17.729,-0.809875,3.0796,0.0544546,0.191085,0.0877688,0.196727,-2.05324,0.370181,0.405226,-0.0154716,0.254046,0.0213306,0.291963,-0.502733,-0.0735398,0.53739,-4.07232e-05,0,0,0,0,0,0,0,-0.222592,-38.0135,0.187391,26.951,1.03973,1.99212,-0.0227812,
0.19926,0.0895593,0.204425,-2.06412,0.366532,0.413106,-0.015277,0.133028,0.0154252,0.125569,-0.205094,-0.0721991,0.199147,0.00481568,-1.26917,-0.541089,-1.24197,3.69477,0.469499,-6.80699,-0.0889206,8.88581,-1.74315,8.36724,-17.1743,-0.825576,2.99887,0.0528539,0.191085,0.0877688,0.196727,-2.05324,0.370181,0.405226,-0.0154716,0.254046,0.0213306,0.291963,-0.502733,-0.0735398,0.53739,-4.07232e-05,0,0,0,0,0,0,0,-0.222592,-38.0135,0.187391,26.951,1.03973,1.99212,-0.0227812,
0.200179,0.0896096,0.20529,-2.06549,0.36594,0.414421,-0.0152426,0.129414,0.0135985,0.122081,-0.198288,-0.0725706,0.192196,0.00471272,-2.25858,-1.1417,-2.17954,4.25324,-0.232156,-4.34423,-0.0643508,8.67963,-1.72625,8.16846,-16.618,-0.843809,2.92428,0.0513122,0.191085,0.0877688,0.196727,-2.05324,0.370181,0.405226,-0.0154716,0.254046,0.0213306,0.291963,-0.502733,-0.0735398,0.53739,-4.07232e-05,0,0,0,0,0,0,0,-0.222592,-38.0135,0.187391,26.951,1.03973,1.99212,-0.0227812,
0.201034,0.0896252,0.206092,-2.06678,0.365307,0.415796,-0.0152079,0.124889,0.0112672,0.117728,-0.190946,-0.0738868,0.188151,0.00463642,-2.82814,-1.45709,-2.72063,4.58911,-0.822678,-2.52846,-0.0476862,8.50541,-1.92165,7.97894,-15.9493,-0.817841,2.85423,0.0498442,0.200827,0.088365,0.205398,-2.06975,0.367705,0.419495,-0.0154746,0.187334,-0.00610785,0.347865,-0.459648,-0.0730374,0.373554,0.000179502,-8.33898,-3.42981,6.98782,5.38568,0.0628004,-20.4794,0.0275281,-2.09912,-37.5414,-1.16149,26.7764,0.703732,2.31713,-0.0365141,
0.207783,0.0895315,0.211964,-2.07814,0.364763,0.423573,-0.015334,0.126272,0.0116491,0.119002,-0.186503,-0.0723321,0.172492,0.00446524,0.86462,0.238691,0.795998,2.7766,0.971722,-9.78681,-0.106992,8.30376,-1.90657,7.78461,-15.3899,-0.840882,2.79008,0.0485573,0.200827,0.088365,0.205398,-2.06975,0.367705,0.419495,-0.0154746,0.187334,-0.00610785,0.347865,-0.459648,-0.0730374,0.373554,0.000179502,0,0,0,0,0,0,0,-2.09912,-37.5414,-1.16149,26.7764,0.703732,2.31713,-0.0365141,
0.208736,0.0895893,0.21286,-2.0794,0.364199,0.424561,-0.0153022,0.124855,0.0107638,0.117612,-0.180667,-0.0719653,0.162685,0.00436787,-0.88599,-0.553297,-0.868734,3.64784,0.229214,-6.12922,-0.0608531,8.10566,-1.89225,7.59374,-14.829,-0.86592,2.72952,0.0474877,0.200827,0.088365,0.205398,-2.06975,0.367705,0.419495,-0.0154746,0.187334,-0.00610785,0.347865,-0.459648,-0.0730374,0.373554,0.000179502,0,0,0,0,0,0,0,-2.09912,-37.5414,-1.16149,26.7764,0.703732,2.31713,-0.0365141,
0.209608,0.0896098,0.213678,-2.08057,0.363599,0.425638,-0.0152696,0.121672,0.00912483,0.114539,-0.173938,-0.0725794,0.157076,0.00431001,-1.98902,-1.02436,-1.92084,4.20528,-0.383803,-3.5056,-0.0361648,7.91149,-1.8785,7.40686,-14.2671,-0.889524,2.67059,0.0465046,0.200827,0.088365,0.205398,-2.06975,0.367705,0.419495,-0.0154746,0.187334,-0.00610785,0.347865,-0.459648,-0.0730374,0.373554,0.000179502,0,0,0,0,0,0,0,-2.09912,-37.5414,-1.16149,26.7764,0.703732,2.31713,-0.0365141,
0.210412,0.0896011,0.214432,-2.08167,0.362966,0.426781,-0.015236,0.117444,0.00708269,0.110465,-0.166662,-0.073892,0.15424,0.00428828,-2.6427,-1.27634,-2.54573,4.54745,-0.820389,-1.77227,-0.0135809,7.69785,-2.04619,7.18203,-13.624,-0.885969,2.61009,0.0457655,0.210517,0.0888558,0.212824,-2.08412,0.365632,0.432038,-0.0154741,0.221904,0.0169044,0.256425,-0.419731,-0.0650964,0.327516,0.00764556,4.32131,2.87653,-11.43,4.98962,0.992628,-5.75471,0.933257,-1.99597,-37.2914,-0.736986,27.8992,0.569149,2.42974,-0.0429228,
0.216781,0.090245,0.218702,-2.09163,0.362346,0.435169,-0.0153275,0.117671,0.00870393,0.110591,-0.162652,-0.0737381,0.140135,0.00421041,0.141791,1.01328,0.0782093,2.5066,0.0962444,-8.81607,-0.0486671,7.51468,-2.03261,7.00623,-13.0615,-0.903725,2.54799,0.045224,0.210517,0.0888558,0.212824,-2.08412,0.365632,0.432038,-0.0154741,0.221904,0.0169044,0.256425,-0.419731,-0.0650964,0.327516,0.00764556,0,0,0,0,0,0,0,-1.99597,-37.2914,-0.736986,27.8992,0.569149,2.42974,-0.0429228,
0.217639,0.0903132,0.219504,-2.09271,0.361758,0.435924,-0.0152934,0.115579,0.00866836,0.108524,-0.157085,-0.0736935,0.130973,0.00422087,-1.30728,-0.0222282,-1.29134,3.47933,0.0278571,-5.72627,0.0065383,7.33799,-2.01846,6.83697,-12.4995,-0.915666,2.47983,0.0450312,0.210517,0.0888558,0.212824,-2.08412,0.365632,0.432038,-0.0154741,0.221904,0.0169044,0.256425,-0.419731,-0.0650964,0.327516,0.00764556,0,0,0,0,0,0,0,-1.99597,-37.2914,-0.736986,27.8992,0.569149,2.42974,-0.0429228,
0.218422,0.0903401,0.220236,-2.0937,0.361173,0.43674,-0.0152568,0.112051,0.00760784,0.105099,-0.150515,-0.0735878,0.125193,0.00429188,-2.20489,-0.662828,-2.14107,4.10623,0.0660786,-3.61249,0.0443826,7.16744,-2.00338,6.67414,-11.9395,-0.915194,2.40248,0.0446622,0.210517,0.0888558,0.212824,-2.08412,0.365632,0.432038,-0.0154741,0.221904,0.0169044,0.256425,-0.419731,-0.0650964,0.327516,0.00764556,0,0,0,0,0,0,0,-1.99597,-37.2914,-0.736986,27.8992,0.569149,2.42974,-0.0429228,
0.219144,0.0903346,0.220907,-2.09462,0.360607,0.437593,-0.0152212,0.107676,0.00594781,0.100868,-0.143352,-0.0730207,0.121481,0.00432412,-2.73473,-1.03752,-2.64395,4.47648,0.354403,-2.32005,0.0201464,7.00901,-1.98657,6.52263,-11.3813,-0.912981,2.31645,0.044977,0.210517,0.0888558,0.212824,-2.08412,0.365632,0.432038,-0.0154741,0.221904,0.0169044,0.256425,-0.419731,-0.0650964,0.327516,0.00764556,0,0,0,0,0,0,0,-1.99597,-37.2914,-0.736986,27.8992,0.569149,2.42974,-0.0429228,
