xiao-wang007/linearmpc_panda/paper_data/panda_torque_PD_controller_Start_at_0_no_torque_ff/2/trajectory.csv
Commanded Joint 0 Position,Commanded Joint 1 Position,Commanded Joint 2 Position,Commanded Joint 3 Position,Commanded Joint 4 Position,Commanded Joint 5 Position,Commanded Joint 6 Position,Commanded Joint 0 Velocity,Commanded Joint 1 Velocity,Commanded Joint 2 Velocity,Commanded Joint 3 Velocity,Commanded Joint 4 Velocity,Commanded Joint 5 Velocity,Commanded Joint 6 Velocity,Commanded Joint 0 Acceleration,Commanded Joint 1 Acceleration,Commanded Joint 2 Acceleration,Commanded Joint 3 Acceleration,Commanded Joint 4 Acceleration,Commanded Joint 5 Acceleration,Commanded Joint 6 Acceleration,Commanded Joint 0 Torque,Commanded Joint 1 Torque,Commanded Joint 2 Torque,Commanded Joint 3 Torque,Commanded Joint 4 Torque,Commanded Joint 5 Torque,Commanded Joint 6 Torque,Actual Joint 0 Position,Actual Joint 1 Position,Actual Joint 2 Position,Actual Joint 3 Position,Actual Joint 4 Position,Actual Joint 5 Position,Actual Joint 6 Position,Actual Joint 0 Velocity,Actual Joint 1 Velocity,Actual Joint 2 Velocity,Actual Joint 3 Velocity,Actual Joint 4 Velocity,Actual Joint 5 Velocity,Actual Joint 6 Velocity,Actual Joint 0 Acceleration,Actual Joint 1 Acceleration,Actual Joint 2 Acceleration,Actual Joint 3 Acceleration,Actual Joint 4 Acceleration,Actual Joint 5 Acceleration,Actual Joint 6 Acceleration,Actual Joint 0 Torque,Actual Joint 1 Torque,Actual Joint 2 Torque,Actual Joint 3 Torque,Actual Joint 4 Torque,Actual Joint 5 Torque,Actual Joint 6 Torque,
-0.0417231,0.017697,0.00553046,-1.76565,0.0507492,0.259468,-0.0655352,0.000720719,0.0226672,0.000657059,-0.0325682,-0.00614814,0.0532483,-0.000387076,0.45045,14.167,0.410662,-20.3551,-3.84259,33.2802,-0.241923,0,0,0,0,0,0,0,-0.0417945,0.0168324,0.00545941,-1.763,0.0511774,0.25379,-0.0654768,0.00116867,-7.58953e-06,0.00193853,-0.000340743,-0.00192257,0.000542697,0.000771938,0,0,0,0,0,0,0,0.134464,-36.3432,0.112013,27.3517,0.776974,3.03948,-0.0767973,
-0.0417733,0.016837,0.00547988,-1.763,0.0511812,0.2538,-0.0654775,0.000706497,0.0181783,0.000650868,-0.0260536,-0.00479923,0.0426852,-0.000314422,-0.0088887,-2.80554,-0.00386897,4.0716,0.843071,-6.60191,0.0454088,0,0,0,0,0,0,0,-0.0417916,0.0169335,0.00546177,-1.76313,0.0511786,0.253794,-0.0654725,0.000629582,0.00409783,-0.000918337,-0.00390144,-0.0001753,0.000508739,0.000555728,-0.0673855,0.513177,-0.357108,-0.445088,0.218409,-0.00424465,-0.0270263,0.134464,-36.1449,0.163588,27.2009,0.727535,3.00652,-0.083206,
-0.0417693,0.0168389,0.00548375,-1.763,0.0511867,0.253804,-0.0654776,0.000666014,0.0145889,0.000617467,-0.0208394,-0.00370269,0.0342448,-0.000254945,-0.0253024,-2.24339,-0.0208761,3.25888,0.685337,-5.27525,0.0371735,0,0,0,0,0,0,0,-0.0417916,0.0169335,0.00546177,-1.76313,0.0511786,0.253794,-0.0654725,0.000629582,0.00409783,-0.000918337,-0.00390144,-0.0001753,0.000508739,0.000555728,0,0,0,0,0,0,0,0.134464,-36.1449,0.163588,27.2009,0.727535,3.00652,-0.083206,
-0.0417661,0.0168408,0.00548678,-1.763,0.051192,0.253808,-0.0654777,0.000612073,0.0117181,0.000569619,-0.0166664,-0.00282866,0.0275009,-0.000206529,-0.0337126,-1.79425,-0.0299051,2.60813,0.546267,-4.21496,0.0302601,0,0,0,0,0,0,0,-0.0417916,0.0169335,0.00546177,-1.76313,0.0511786,0.253794,-0.0654725,0.000629582,0.00409783,-0.000918337,-0.00390144,-0.0001753,0.000508739,0.000555728,0,0,0,0,0,0,0,0.134464,-36.1449,0.163588,27.2009,0.727535,3.00652,-0.083206,
-0.0418951,0.016997,0.00535332,-1.76301,0.0533723,0.252017,-0.0654962,-0.000984087,0.00994933,-0.00105143,-0.0119026,0.0313559,-0.00519926,-0.000393693,-0.9976,-1.10549,-1.01315,2.97741,21.3654,-20.4376,-0.116978,0,0,0,0,0,0,0,-0.0417916,0.0169335,0.00546177,-1.76313,0.0511786,0.253794,-0.0654725,0.000629582,0.00409783,-0.000918337,-0.00390144,-0.0001753,0.000508739,0.000555728,0,0,0,0,0,0,0,0.134464,-36.1449,0.163588,27.2009,0.727535,3.00652,-0.083206,
-0.0419519,0.017006,0.00529625,-1.76297,0.0550044,0.250675,-0.0655016,-0.00220732,0.00818264,-0.00226787,-0.00842914,0.0658883,-0.0377075,-0.000448573,-0.764521,-1.10419,-0.760277,2.17089,21.5827,-20.3176,-0.0342999,0,0,0,0,0,0,0,-0.0417916,0.0169335,0.00546177,-1.76313,0.0511786,0.253794,-0.0654725,0.000629582,0.00409783,-0.000918337,-0.00390144,-0.0001753,0.000508739,0.000555728,0,0,0,0,0,0,0,0.134464,-36.1449,0.163588,27.2009,0.727535,3.00652,-0.083206,
-0.0419993,0.0170069,0.00524911,-1.76294,0.0568031,0.249166,-0.0655048,-0.00294962,0.00657061,-0.00299281,-0.00599293,0.0976782,-0.0678776,-0.000439682,-0.463934,-1.00751,-0.453091,1.52263,19.8687,-18.8563,0.00555665,0,0,0,0,0,0,0,-0.0417891,0.0172134,0.00546937,-1.76362,0.0511796,0.254429,-0.0654739,1.83337e-05,0.0166904,0.00146376,-0.0253178,-0.000601703,0.0255346,9.91828e-05,-0.076406,1.57408,0.297762,-2.67704,-0.0533005,3.12823,-0.0570682,0.134464,-35.0935,0.112013,27.4509,0.715634,3.25188,-0.0703886,
-0.0420347,0.0170045,0.00521408,-1.76292,0.0586979,0.247549,-0.0655069,-0.00324499,0.00519643,-0.00326995,-0.00433284,0.125511,-0.0947426,-0.000404658,-0.184611,-0.858864,-0.173207,1.03756,17.3956,-16.7907,0.0218906,0,0,0,0,0,0,0,-0.0417891,0.0172134,0.00546937,-1.76362,0.0511796,0.254429,-0.0654739,1.83337e-05,0.0166904,0.00146376,-0.0253178,-0.000601703,0.0255346,9.91828e-05,0,0,0,0,0,0,0,0.134464,-35.0935,0.112013,27.4509,0.715634,3.25188,-0.0703886,
-0.0420127,0.0174945,0.00523057,-1.76313,0.0585982,0.246624,-0.0655416,-0.0056183,0.00667028,-0.00574629,0.00274039,0.213999,-0.195677,-0.000930684,-1.48332,0.921154,-1.54772,4.42076,55.3049,-63.0842,-0.328766,0,0,0,0,0,0,0,-0.0417891,0.0172134,0.00546937,-1.76362,0.0511796,0.254429,-0.0654739,1.83337e-05,0.0166904,0.00146376,-0.0253178,-0.000601703,0.0255346,9.91828e-05,0,0,0,0,0,0,0,0.134464,-35.0935,0.112013,27.4509,0.715634,3.25188,-0.0703886,
-0.0421032,0.0175331,0.00513894,-1.76295,0.0640833,0.240728,-0.0655529,-0.00675663,0.00630072,-0.00688767,0.00661282,0.308326,-0.303959,-0.00102646,-0.711457,-0.230969,-0.713364,2.42027,58.9545,-67.6761,-0.0598617,0,0,0,0,0,0,0,-0.0417891,0.0172134,0.00546937,-1.76362,0.0511796,0.254429,-0.0654739,1.83337e-05,0.0166904,0.00146376,-0.0253178,-0.000601703,0.0255346,9.91828e-05,0,0,0,0,0,0,0,0.134464,-35.0935,0.112013,27.4509,0.715634,3.25188,-0.0703886,
-0.0421442,0.0175401,0.00509812,-1.76284,0.070085,0.234137,-0.0655573,-0.00643017,0.00521597,-0.00653056,0.00791197,0.396703,-0.407926,-0.000931119,0.204036,-0.677971,0.223196,0.811968,55.2356,-64.9795,0.0595897,0,0,0,0,0,0,0,-0.0418091,0.0176707,0.00543154,-1.76411,0.0519387,0.254451,-0.0654728,-0.000981598,0.0200308,-0.00158141,-0.00875775,0.0834942,-0.00955105,0.000814812,-0.124992,0.417541,-0.380646,2.07,10.512,-4.38571,0.0894537,0.25745,-36.4662,0.314344,27.6016,1.31439,3.01293,-0.0905302,
-0.0421316,0.0175373,0.00511129,-1.7628,0.0763532,0.22712,-0.0655584,-0.00483039,0.00410299,-0.00489535,0.00744022,0.474069,-0.501769,-0.000773049,0.999862,-0.695613,1.02201,-0.294844,48.3536,-58.6515,0.0987938,0,0,0,0,0,0,0,-0.0418091,0.0176707,0.00543154,-1.76411,0.0519387,0.254451,-0.0654728,-0.000981598,0.0200308,-0.00158141,-0.00875775,0.0834942,-0.00955105,0.000814812,0,0,0,0,0,0,0,0.25745,-36.4662,0.314344,27.6016,1.31439,3.01293,-0.0905302,
-0.041153,0.0177397,0.00606761,-1.7642,0.0594363,0.244981,-0.0651893,0.00680431,0.00293732,0.00647522,0.00337001,0.49285,-0.548105,0.00248203,7.27169,-0.728547,7.1066,-2.54388,11.7382,-28.9602,2.03443,0,0,0,0,0,0,0,-0.0418091,0.0176707,0.00543154,-1.76411,0.0519387,0.254451,-0.0654728,-0.000981598,0.0200308,-0.00158141,-0.00875775,0.0834942,-0.00955105,0.000814812,0,0,0,0,0,0,0,0.25745,-36.4662,0.314344,27.6016,1.31439,3.01293,-0.0905302,
-0.0405692,0.0176526,0.00664631,-1.76445,0.0650854,0.237578,-0.0650931,0.0200382,0.00017327,0.0196475,-0.00360813,0.535509,-0.623541,0.00439096,8.27118,-1.72753,8.23267,-4.36134,26.6618,-47.1476,1.19308,0,0,0,0,0,0,0,-0.0418091,0.0176707,0.00543154,-1.76411,0.0519387,0.254451,-0.0654728,-0.000981598,0.0200308,-0.00158141,-0.00875775,0.0834942,-0.00955105,0.000814812,0,0,0,0,0,0,0,0.25745,-36.4662,0.314344,27.6016,1.31439,3.01293,-0.0905302,
-0.0398353,0.0175363,0.00732688,-1.7648,0.0715104,0.229086,-0.0650186,0.0343785,-0.00276945,0.0327324,-0.011747,0.589031,-0.711154,0.00537642,8.96268,-1.8392,8.17807,-5.08681,33.4513,-54.758,0.615913,0,0,0,0,0,0,0,-0.0420565,0.0182841,0.00510147,-1.76406,0.0590955,0.250477,-0.065477,-0.0122159,0.0146478,-0.0196242,0.0174285,0.400008,-0.26244,-0.000850525,-1.40428,-0.672869,-2.25534,3.27328,39.5642,-31.6111,-0.208167,0.868412,-36.5694,0.889601,25.6061,2.37091,1.29632,-0.0429228,
-0.0390184,0.0173773,0.00811729,-1.76528,0.0784907,0.219853,-0.0649679,0.0479261,-0.00619081,0.0459461,-0.0213865,0.645734,-0.79973,0.00556855,8.46726,-2.13835,8.25857,-6.02468,35.4393,-55.3603,0.120079,0,0,0,0,0,0,0,-0.0420565,0.0182841,0.00510147,-1.76406,0.0590955,0.250477,-0.065477,-0.0122159,0.0146478,-0.0196242,0.0174285,0.400008,-0.26244,-0.000850525,0,0,0,0,0,0,0,0.868412,-36.5694,0.889601,25.6061,2.37091,1.29632,-0.0429228,
-0.0409078,0.0181888,0.00629027,-1.76496,0.068212,0.23981,-0.0650375,0.057376,-0.00625227,0.0560509,-0.0313704,0.641712,-0.795647,0.00906183,5.90622,-0.0384157,6.31549,-6.23991,-2.514,2.55217,2.1833,0,0,0,0,0,0,0,-0.0420565,0.0182841,0.00510147,-1.76406,0.0590955,0.250477,-0.065477,-0.0122159,0.0146478,-0.0196242,0.0174285,0.400008,-0.26244,-0.000850525,0,0,0,0,0,0,0,0.868412,-36.5694,0.889601,25.6061,2.37091,1.29632,-0.0429228,
-0.0399159,0.0181822,0.00733681,-1.76568,0.074004,0.232251,-0.0649128,0.0706989,-0.00516762,0.0710042,-0.0430747,0.658169,-0.825502,0.0103675,8.3268,0.677911,9.34582,-7.3152,10.2859,-18.6593,0.816027,0,0,0,0,0,0,0,-0.0420565,0.0182841,0.00510147,-1.76406,0.0590955,0.250477,-0.065477,-0.0122159,0.0146478,-0.0196242,0.0174285,0.400008,-0.26244,-0.000850525,0,0,0,0,0,0,0,0.868412,-36.5694,0.889601,25.6061,2.37091,1.29632,-0.0429228,
-0.0387319,0.0182075,0.00854008,-1.76655,0.0804524,0.22376,-0.064835,0.0861577,-0.00350291,0.086885,-0.0561788,0.687745,-0.872685,0.010238,9.66175,1.04045,9.92553,-8.19009,18.4851,-29.4892,-0.0808919,0,0,0,0,0,0,0,-0.0423967,0.0186206,0.0047478,-1.76391,0.0745776,0.236227,-0.0654726,-0.00794231,0.00417713,-0.00716739,0.00527376,0.552071,-0.53774,0.003821,0.534193,-1.30884,1.55709,-1.51934,19.0079,-34.4125,0.58394,3.73279,-36.3432,3.68654,25.7806,2.40753,0.732351,-0.0301054,
-0.0408208,0.018153,0.00626786,-1.76594,0.0846764,0.2238,-0.0650288,0.0939755,-0.00868492,0.0934067,-0.0743493,0.683739,-0.870159,0.012408,4.88611,-3.23876,4.07606,-11.3566,-2.50374,1.57836,1.3562,0,0,0,0,0,0,0,-0.0423967,0.0186206,0.0047478,-1.76391,0.0745776,0.236227,-0.0654726,-0.00794231,0.00417713,-0.00716739,0.00527376,0.552071,-0.53774,0.003821,0,0,0,0,0,0,0,3.73279,-36.3432,3.68654,25.7806,2.40753,0.732351,-0.0301054,
-0.0395598,0.0179416,0.00750009,-1.76733,0.0906541,0.215876,-0.0649455,0.106704,-0.0122319,0.105531,-0.0942103,0.696433,-0.894215,0.0120104,7.95545,-2.21684,7.5778,-12.4131,7.93384,-15.0351,-0.248488,0,0,0,0,0,0,0,-0.0423967,0.0186206,0.0047478,-1.76391,0.0745776,0.236227,-0.0654726,-0.00794231,0.00417713,-0.00716739,0.00527376,0.552071,-0.53774,0.003821,0,0,0,0,0,0,0,3.73279,-36.3432,3.68654,25.7806,2.40753,0.732351,-0.0301054,
-0.0381222,0.0177627,0.00890643,-1.76886,0.0972086,0.207155,-0.0649114,0.121304,-0.0142574,0.119583,-0.113714,0.72101,-0.933385,0.0104591,9.12515,-1.26595,8.78264,-12.19,15.3605,-24.4808,-0.969527,0,0,0,0,0,0,0,-0.0423967,0.0186206,0.0047478,-1.76391,0.0745776,0.236227,-0.0654726,-0.00794231,0.00417713,-0.00716739,0.00527376,0.552071,-0.53774,0.003821,0,0,0,0,0,0,0,3.73279,-36.3432,3.68654,25.7806,2.40753,0.732351,-0.0301054,
-0.0365767,0.0176123,0.0104313,-1.7705,0.104245,0.197837,-0.0649085,0.135682,-0.0151666,0.13379,-0.131924,0.752726,-0.979669,0.00844094,8.98601,-0.568292,8.87886,-11.3809,19.8222,-28.928,-1.26137,0,0,0,0,0,0,0,-0.0422658,0.0185348,0.00497098,-1.76442,0.0931614,0.21563,-0.065324,0.0135446,-0.00497741,0.0168037,-0.0255584,0.632495,-0.651423,0.00819594,2.68587,-1.14432,2.99638,-3.85402,10.053,-14.2105,0.546869,5.6847,-34.669,5.63844,24.162,2.52929,0.533682,0.00376909,
-0.0404174,0.0180747,0.00683386,-1.76705,0.104076,0.202398,-0.0649858,0.136609,-0.0177288,0.135101,-0.143124,0.744393,-0.962561,0.00953596,0.579348,-1.60135,0.819327,-7.00037,-5.20785,10.693,0.684385,0,0,0,0,0,0,0,-0.0422658,0.0185348,0.00497098,-1.76442,0.0931614,0.21563,-0.065324,0.0135446,-0.00497741,0.0168037,-0.0255584,0.632495,-0.651423,0.00819594,0,0,0,0,0,0,0,5.6847,-34.669,5.63844,24.162,2.52929,0.533682,0.00376909,
-0.0390422,0.0179018,0.00820285,-1.76877,0.110305,0.194332,-0.0649494,0.143668,-0.0185055,0.142305,-0.157438,0.751241,-0.971706,0.00853823,4.41154,-0.485452,4.50288,-8.94636,4.28013,-5.71582,-0.623577,0,0,0,0,0,0,0,-0.0422658,0.0185348,0.00497098,-1.76442,0.0931614,0.21563,-0.065324,0.0135446,-0.00497741,0.0168037,-0.0255584,0.632495,-0.651423,0.00819594,0,0,0,0,0,0,0,5.6847,-34.669,5.63844,24.162,2.52929,0.533682,0.00376909,
-0.0375067,0.0177776,0.00972858,-1.77063,0.117043,0.18555,-0.0649596,0.153322,-0.0179088,0.151987,-0.172508,0.769428,-0.996903,0.0065751,6.03386,0.372993,6.05146,-9.4188,11.3664,-15.7482,-1.22696,0,0,0,0,0,0,0,-0.0422658,0.0185348,0.00497098,-1.76442,0.0931614,0.21563,-0.065324,0.0135446,-0.00497741,0.0168037,-0.0255584,0.632495,-0.651423,0.00819594,0,0,0,0,0,0,0,5.6847,-34.669,5.63844,24.162,2.52929,0.533682,0.00376909,
-0.0358716,0.0176933,0.0113518,-1.77259,0.124211,0.176221,-0.0649955,0.163536,-0.0164339,0.162172,-0.187092,0.794748,-1.03075,0.00436277,6.38364,0.921788,6.36504,-9.11461,15.8254,-21.1562,-1.3827,0,0,0,0,0,0,0,-0.0408261,0.0178644,0.00646439,-1.76695,0.114087,0.191073,-0.0652239,0.0611475,-0.0177097,0.0560965,-0.0991117,0.678177,-0.784143,0.000509962,5.95036,-1.59154,4.91161,-9.19417,5.71017,-16.59,-0.960748,5.81165,-33.6971,5.66224,23.7653,2.10815,1.4547,-0.0365141,
-0.0384421,0.0173192,0.00883552,-1.77075,0.125699,0.176718,-0.0649939,0.164868,-0.01949,0.163566,-0.201754,0.786317,-1.01444,0.00495777,0.832515,-1.91009,0.8716,-9.16388,-5.26951,10.1968,0.371873,0,0,0,0,0,0,0,-0.0408261,0.0178644,0.00646439,-1.76695,0.114087,0.191073,-0.0652239,0.0611475,-0.0177097,0.0560965,-0.0991117,0.678177,-0.784143,0.000509962,0,0,0,0,0,0,0,5.81165,-33.6971,5.66224,23.7653,2.10815,1.4547,-0.0365141,
-0.0368751,0.0171218,0.0103912,-1.77304,0.132218,0.168374,-0.0650114,0.171071,-0.0205265,0.169745,-0.218731,0.792015,-1.02015,0.00352811,3.87726,-0.647785,3.8621,-10.6106,3.56159,-3.57281,-0.893537,0,0,0,0,0,0,0,-0.0408261,0.0178644,0.00646439,-1.76695,0.114087,0.191073,-0.0652239,0.0611475,-0.0177097,0.0560965,-0.0991117,0.678177,-0.784143,0.000509962,0,0,0,0,0,0,0,5.81165,-33.6971,5.66224,23.7653,2.10815,1.4547,-0.0365141,
-0.0351866,0.0169707,0.0120665,-1.77547,0.139197,0.159421,-0.0650716,0.179069,-0.0201994,0.177679,-0.23573,0.808099,-1.03996,0.00131706,4.99843,0.204434,4.95827,-10.6247,10.0519,-12.3804,-1.38191,0,0,0,0,0,0,0,-0.0408261,0.0178644,0.00646439,-1.76695,0.114087,0.191073,-0.0652239,0.0611475,-0.0177097,0.0560965,-0.0991117,0.678177,-0.784143,0.000509962,0,0,0,0,0,0,0,5.81165,-33.6971,5.66224,23.7653,2.10815,1.4547,-0.0365141,
-0.0334307,0.0168536,0.0138082,-1.77799,0.146561,0.149989,-0.0651524,0.187152,-0.0190876,0.185686,-0.251578,0.830579,-1.06776,-0.000966427,5.05219,0.694881,5.00448,-9.9046,14.05,-17.373,-1.42718,0,0,0,0,0,0,0,-0.0408261,0.0178644,0.00646439,-1.76695,0.114087,0.191073,-0.0652239,0.0611475,-0.0177097,0.0560965,-0.0991117,0.678177,-0.784143,0.000509962,0,0,0,0,0,0,0,5.81165,-33.6971,5.66224,23.7653,2.10815,1.4547,-0.0365141,
-0.0353436,0.0166953,0.012055,-1.77678,0.148993,0.147342,-0.0650994,0.187463,-0.0208302,0.186109,-0.266206,0.821151,-1.05158,-0.00103868,0.194369,-1.08913,0.264593,-9.14262,-5.89225,10.1155,-0.0451609,0,0,0,0,0,0,0,-0.0380864,0.0171848,0.00931976,-1.77195,0.136924,0.162474,-0.0651831,0.0874669,-0.0169559,0.105795,-0.162392,0.684399,-0.876978,0.00113371,3.28993,0.0942272,6.21227,-7.91,0.777812,-11.6044,0.0779687,4.49451,-33.7724,4.31337,23.8644,1.99829,1.80627,-0.0566557,
-0.0336748,0.0165308,0.0137137,-1.77958,0.15574,0.138811,-0.0651741,0.191691,-0.0207752,0.190355,-0.282905,0.825594,-1.05454,-0.00269893,2.64249,0.0343426,2.65354,-10.437,2.77707,-1.85599,-1.03765,0,0,0,0,0,0,0,-0.0380864,0.0171848,0.00931976,-1.77195,0.136924,0.162474,-0.0651831,0.0874669,-0.0169559,0.105795,-0.162392,0.684399,-0.876978,0.00113371,0,0,0,0,0,0,0,4.49451,-33.7724,4.31337,23.8644,1.99829,1.80627,-0.0566557,
-0.0319189,0.0164119,0.015458,-1.7825,0.162909,0.129747,-0.0652807,0.197251,-0.0195927,0.19589,-0.299335,0.839689,-1.07023,-0.00482263,3.47474,0.739094,3.45919,-10.2689,8.80942,-9.80145,-1.32731,0,0,0,0,0,0,0,-0.0380864,0.0171848,0.00931976,-1.77195,0.136924,0.162474,-0.0651831,0.0874669,-0.0169559,0.105795,-0.162392,0.684399,-0.876978,0.00113371,0,0,0,0,0,0,0,4.49451,-33.7724,4.31337,23.8644,1.99829,1.80627,-0.0566557,
-0.035484,0.016397,0.0119177,-1.77749,0.149299,0.147817,-0.0652462,0.193431,-0.0252505,0.192208,-0.31427,0.832455,-1.04732,-0.00569808,-2.38736,-3.53612,-2.30125,-9.33407,-4.52122,14.3169,-0.547161,0,0,0,0,0,0,0,-0.0380864,0.0171848,0.00931976,-1.77195,0.136924,0.162474,-0.0651831,0.0874669,-0.0169559,0.105795,-0.162392,0.684399,-0.876978,0.00113371,0,0,0,0,0,0,0,4.49451,-33.7724,4.31337,23.8644,1.99829,1.80627,-0.0566557,
-0.0339121,0.0160722,0.0134818,-1.78073,0.156186,0.139725,-0.0653654,0.194042,-0.0283197,0.192868,-0.332411,0.838149,-1.04015,-0.00753774,0.382106,-1.91827,0.412994,-11.3383,3.55875,4.47903,-1.14979,0,0,0,0,0,0,0,-0.0340405,0.0166544,0.0135999,-1.77921,0.161357,0.132107,-0.0651892,0.130936,-0.0093079,0.132979,-0.21258,0.724687,-0.924257,-1.00275e-05,5.43361,0.956003,3.39803,-6.27359,5.03594,-5.90988,-0.142967,3.20118,-34.1216,3.11128,23.7375,1.74194,1.5078,-0.0301054,
-0.0322568,0.0158048,0.0151279,-1.78412,0.163464,0.131387,-0.0655022,0.196615,-0.029342,0.195447,-0.350719,0.852466,-1.04057,-0.00944982,1.60787,-0.638944,1.61158,-11.4423,8.94788,-0.257367,-1.19504,0,0,0,0,0,0,0,-0.0340405,0.0166544,0.0135999,-1.77921,0.161357,0.132107,-0.0651892,0.130936,-0.0093079,0.132979,-0.21258,0.724687,-0.924257,-1.00275e-05,0,0,0,0,0,0,0,3.20118,-34.1216,3.11128,23.7375,1.74194,1.5078,-0.0301054,
-0.030558,0.0155849,0.0168169,-1.78762,0.171052,0.123054,-0.065638,0.199764,-0.0289698,0.198581,-0.367953,0.871671,-1.04078,-0.0109558,1.96808,0.232605,1.95907,-10.7711,12.003,-0.131593,-0.941257,0,0,0,0,0,0,0,-0.0340405,0.0166544,0.0135999,-1.77921,0.161357,0.132107,-0.0651892,0.130936,-0.0093079,0.132979,-0.21258,0.724687,-0.924257,-1.00275e-05,0,0,0,0,0,0,0,3.20118,-34.1216,3.11128,23.7375,1.74194,1.5078,-0.0301054,
-0.0312185,0.0159622,0.0164126,-1.78514,0.174517,0.116918,-0.0653847,0.197211,-0.031821,0.196102,-0.373323,0.867379,-1.0272,-0.0117346,-1.59564,-1.78196,-1.54959,-3.35637,-2.68218,8.4826,-0.486738,0,0,0,0,0,0,0,-0.0340405,0.0166544,0.0135999,-1.77921,0.161357,0.132107,-0.0651892,0.130936,-0.0093079,0.132979,-0.21258,0.724687,-0.924257,-1.00275e-05,0,0,0,0,0,0,0,3.20118,-34.1216,3.11128,23.7375,1.74194,1.5078,-0.0301054,
-0.0296213,0.0156639,0.0180013,-1.78848,0.181692,0.108859,-0.0655207,0.197697,-0.0329146,0.196601,-0.382253,0.873294,-1.02323,-0.0127891,0.304057,-0.683532,0.312091,-5.58126,3.69671,2.48258,-0.659076,0,0,0,0,0,0,0,-0.029005,0.0157883,0.0188268,-1.78903,0.18602,0.102503,-0.0651951,0.154988,-0.0465436,0.161673,-0.313623,0.699372,-0.82508,0.00172257,3.00657,-4.65446,3.58671,-12.6303,-3.16437,12.3972,0.216575,1.60236,-33.947,1.48866,23.2178,1.81518,0.865103,-0.0767973,
-0.027967,0.0154129,0.0196462,-1.79194,0.189171,0.100766,-0.065656,0.199515,-0.0326048,0.198403,-0.392272,0.885595,-1.02091,-0.0136143,1.13581,0.193658,1.12598,-6.26224,7.68845,1.44998,-0.515753,0,0,0,0,0,0,0,-0.029005,0.0157883,0.0188268,-1.78903,0.18602,0.102503,-0.0651951,0.154988,-0.0465436,0.161673,-0.313623,0.699372,-0.82508,0.00172257,0,0,0,0,0,0,0,1.60236,-33.947,1.48866,23.2178,1.81518,0.865103,-0.0767973,
-0.0262845,0.0152027,0.0213188,-1.79548,0.196883,0.0928801,-0.0657799,0.201675,-0.0313404,0.200536,-0.402173,0.901275,-1.01389,-0.013987,1.35,0.790247,1.33298,-6.18772,9.79961,4.39008,-0.232911,0,0,0,0,0,0,0,-0.029005,0.0157883,0.0188268,-1.78903,0.18602,0.102503,-0.0651951,0.154988,-0.0465436,0.161673,-0.313623,0.699372,-0.82508,0.00172257,0,0,0,0,0,0,0,1.60236,-33.947,1.48866,23.2178,1.81518,0.865103,-0.0767973,
-0.0260349,0.0150049,0.021782,-1.79531,0.199154,0.0879157,-0.0654515,0.199777,-0.0342963,0.198654,-0.403048,0.891708,-0.998655,-0.0146278,-1.18589,-1.84747,-1.17599,-0.546813,-5.97913,9.52057,-0.400526,0,0,0,0,0,0,0,-0.029005,0.0157883,0.0188268,-1.78903,0.18602,0.102503,-0.0651951,0.154988,-0.0465436,0.161673,-0.313623,0.699372,-0.82508,0.00172257,0,0,0,0,0,0,0,1.60236,-33.947,1.48866,23.2178,1.81518,0.865103,-0.0767973,
-0.0244334,0.014689,0.0233742,-1.79869,0.206373,0.0802647,-0.0655875,0.199859,-0.0353342,0.198728,-0.40712,0.893852,-0.990199,-0.015104,0.0510216,-0.648669,0.0464437,-2.54535,1.33962,5.28458,-0.297604,0,0,0,0,0,0,0,-0.0232283,0.0150201,0.0246639,-1.80117,0.211642,0.0741964,-0.065224,0.164513,-0.0123363,0.174926,-0.3728,0.769666,-0.84702,-0.000555443,1.19055,4.27591,1.65672,-7.39712,8.78684,-2.74252,-0.284752,0.638309,-33.7962,0.687269,25.4315,1.84539,1.50139,-0.0365141,
-0.0227958,0.0144203,0.0250021,-1.80217,0.213883,0.0727339,-0.0657118,0.200827,-0.034985,0.199679,-0.412585,0.902822,-0.980429,-0.0151882,0.605072,0.218233,0.594157,-3.41532,5.6067,6.10686,-0.0526423,0,0,0,0,0,0,0,-0.0232283,0.0150201,0.0246639,-1.80117,0.211642,0.0741964,-0.065224,0.164513,-0.0123363,0.174926,-0.3728,0.769666,-0.84702,-0.000555443,0,0,0,0,0,0,0,0.638309,-33.7962,0.687269,25.4315,1.84539,1.50139,-0.0365141,
-0.0201935,0.0146808,0.0276831,-1.80789,0.225374,0.0595616,-0.0654932,0.199557,-0.0322993,0.198418,-0.415931,0.898721,-0.969921,-0.0155435,-0.793947,1.67856,-0.788109,-2.09116,-2.56362,6.56722,-0.222058,0,0,0,0,0,0,0,-0.0232283,0.0150201,0.0246639,-1.80117,0.211642,0.0741964,-0.065224,0.164513,-0.0123363,0.174926,-0.3728,0.769666,-0.84702,-0.000555443,0,0,0,0,0,0,0,0.638309,-33.7962,0.687269,25.4315,1.84539,1.50139,-0.0365141,
-0.0185918,0.0145168,0.0292754,-1.81141,0.232723,0.0522091,-0.0656172,0.199689,-0.0299385,0.198542,-0.420628,0.902706,-0.959748,-0.0155352,0.0830041,1.47551,0.0772445,-2.93594,2.49065,6.35781,0.00516807,0,0,0,0,0,0,0,-0.0232283,0.0150201,0.0246639,-1.80117,0.211642,0.0741964,-0.065224,0.164513,-0.0123363,0.174926,-0.3728,0.769666,-0.84702,-0.000555443,0,0,0,0,0,0,0,0.638309,-33.7962,0.687269,25.4315,1.84539,1.50139,-0.0365141,
-0.0169655,0.0143649,0.0308919,-1.81497,0.240289,0.045185,-0.0657193,0.200407,-0.0277502,0.199244,-0.425563,0.911295,-0.9434,-0.0149798,0.448751,1.36771,0.439124,-3.08406,5.36855,10.2176,0.347145,0,0,0,0,0,0,0,-0.0172425,0.0148247,0.0308035,-1.81415,0.238181,0.0460548,-0.0652574,0.17711,0.00298797,0.180659,-0.381359,0.805206,-0.796548,0.00101641,1.57459,1.91554,0.716563,-1.06995,4.4425,6.30904,0.196482,0.840641,-35.4942,0.639662,23.7653,1.96167,0.865103,-0.0630644,
-0.015333,0.0142252,0.0325144,-1.81855,0.248013,0.0386634,-0.0658019,0.201139,-0.0256923,0.19996,-0.429976,0.922154,-0.917761,-0.014048,0.457272,1.28617,0.447334,-2.75861,6.78664,16.0247,0.582381,0,0,0,0,0,0,0,-0.0172425,0.0148247,0.0308035,-1.81415,0.238181,0.0460548,-0.0652574,0.17711,0.00298797,0.180659,-0.381359,0.805206,-0.796548,0.00101641,0,0,0,0,0,0,0,0.840641,-35.4942,0.639662,23.7653,1.96167,0.865103,-0.0630644,
-0.0141671,0.0146025,0.0338612,-1.82096,0.252278,0.0325667,-0.0655153,0.199994,-0.0237575,0.198816,-0.430665,0.917849,-0.903922,-0.0143631,-0.715643,1.20923,-0.714929,-0.430629,-2.69055,8.649,-0.196936,0,0,0,0,0,0,0,-0.0172425,0.0148247,0.0308035,-1.81415,0.238181,0.0460548,-0.0652574,0.17711,0.00298797,0.180659,-0.381359,0.805206,-0.796548,0.00101641,0,0,0,0,0,0,0,0.840641,-35.4942,0.639662,23.7653,1.96167,0.865103,-0.0630644,
-0.0125734,0.0144647,0.0354452,-1.82449,0.259711,0.0259788,-0.065618,0.199838,-0.0224516,0.198652,-0.432697,0.920113,-0.887836,-0.0140583,-0.0973609,0.816215,-0.102358,-1.26968,1.4148,10.0541,0.190475,0,0,0,0,0,0,0,-0.0172425,0.0148247,0.0308035,-1.81415,0.238181,0.0460548,-0.0652574,0.17711,0.00298797,0.180659,-0.381359,0.805206,-0.796548,0.00101641,0,0,0,0,0,0,0,0.840641,-35.4942,0.639662,23.7653,1.96167,0.865103,-0.0630644,
-0.0109677,0.0143262,0.037041,-1.82804,0.267313,0.0198006,-0.065701,0.200014,-0.021424,0.198818,-0.434931,0.92614,-0.864723,-0.0133219,0.110013,0.642239,0.103258,-1.39613,3.76709,14.4455,0.460249,0,0,0,0,0,0,0,-0.0110411,0.0142953,0.0368928,-1.82859,0.265789,0.0184945,-0.0653065,0.163203,-0.0298196,0.182463,-0.441471,0.841752,-0.820386,-0.00222584,-1.73831,-4.10095,0.225504,-7.51395,4.56825,-2.97985,-0.405282,0.717655,-34.07,0.762648,25.011,2.42584,0.832144,-0.00996382,
-0.00935686,0.0141841,0.0386419,-1.83164,0.275041,0.0145837,-0.0657663,0.200282,-0.0206927,0.199076,-0.437966,0.934097,-0.822202,-0.01229,0.167258,0.457069,0.161209,-1.89718,4.97279,26.5757,0.644952,0,0,0,0,0,0,0,-0.0110411,0.0142953,0.0368928,-1.82859,0.265789,0.0184945,-0.0653065,0.163203,-0.0298196,0.182463,-0.441471,0.841752,-0.820386,-0.00222584,0,0,0,0,0,0,0,0.717655,-34.07,0.762648,25.011,2.42584,0.832144,-0.00996382,
-0.00804681,0.0139382,0.0398716,-1.83562,0.280024,0.00522806,-0.0655243,0.198338,-0.0208375,0.197151,-0.438551,0.928105,-0.820906,-0.0123485,-1.21514,-0.0904809,-1.20299,-0.365529,-3.74456,0.809538,-0.0365182,0,0,0,0,0,0,0,-0.0110411,0.0142953,0.0368928,-1.82859,0.265789,0.0184945,-0.0653065,0.163203,-0.0298196,0.182463,-0.441471,0.841752,-0.820386,-0.00222584,0,0,0,0,0,0,0,0.717655,-34.07,0.762648,25.011,2.42584,0.832144,-0.00996382,
-0.00649319,0.0137745,0.041416,-1.83917,0.28744,-0.000864745,-0.0656062,0.197511,-0.0207645,0.196329,-0.439424,0.927896,-0.809045,-0.0119266,-0.516916,0.045624,-0.513529,-0.545461,-0.130593,7.41317,0.263687,0,0,0,0,0,0,0,-0.0110411,0.0142953,0.0368928,-1.82859,0.265789,0.0184945,-0.0653065,0.163203,-0.0298196,0.182463,-0.441471,0.841752,-0.820386,-0.00222584,0,0,0,0,0,0,0,0.717655,-34.07,0.762648,25.011,2.42584,0.832144,-0.00996382,
-0.00492127,0.0136099,0.0429784,-1.84276,0.294999,-0.00598019,-0.0656709,0.197306,-0.0207255,0.196125,-0.441277,0.93128,-0.775122,-0.0111571,-0.127573,0.0243552,-0.12757,-1.1585,2.11467,21.2018,0.480897,0,0,0,0,0,0,0,-0.00485882,0.0145207,0.0432225,-1.84306,0.294205,-0.00685383,-0.0653085,0.189307,0.0438784,0.170663,-0.406734,0.873495,-0.676313,-0.000688807,3.263,9.21225,-1.47494,4.3421,3.96783,18.0092,0.192129,0.562931,-35.1967,0.361952,25.3839,2.43774,0.924612,-0.00996382,
-0.00184197,0.0146899,0.0462195,-1.85009,0.308756,-0.017599,-0.0654928,0.195923,-0.0157441,0.194742,-0.441527,0.928736,-0.752496,-0.0110205,-0.86463,3.11336,-0.864642,-0.15597,-1.58999,14.1415,0.0853762,0,0,0,0,0,0,0,-0.00485882,0.0145207,0.0432225,-1.84306,0.294205,-0.00685383,-0.0653085,0.189307,0.0438784,0.170663,-0.406734,0.873495,-0.676313,-0.000688807,0,0,0,0,0,0,0,0.562931,-35.1967,0.361952,25.3839,2.43774,0.924612,-0.00996382,
-0.000297008,0.0146564,0.0477548,-1.85368,0.31622,-0.0221311,-0.0655585,0.195363,-0.0134326,0.194176,-0.442996,0.929585,-0.7153,-0.0104601,-0.350297,1.44468,-0.353756,-0.918204,0.530821,23.2476,0.350279,0,0,0,0,0,0,0,-0.00485882,0.0145207,0.0432225,-1.84306,0.294205,-0.00685383,-0.0653085,0.189307,0.0438784,0.170663,-0.406734,0.873495,-0.676313,-0.000688807,0,0,0,0,0,0,0,0.562931,-35.1967,0.361952,25.3839,2.43774,0.924612,-0.00996382,
0.00126291,0.0145753,0.0493049,-1.85731,0.32377,-0.0254218,-0.0656085,0.195288,-0.0127731,0.194093,-0.445272,0.932418,-0.654508,-0.00961798,-0.0465974,0.412216,-0.0517395,-1.42231,1.77062,37.9949,0.526308,0,0,0,0,0,0,0,-0.00485882,0.0145207,0.0432225,-1.84306,0.294205,-0.00685383,-0.0653085,0.189307,0.0438784,0.170663,-0.406734,0.873495,-0.676313,-0.000688807,0,0,0,0,0,0,0,0.562931,-35.1967,0.361952,25.3839,2.43774,0.924612,-0.00996382,
0.00282797,0.0144613,0.05086,-1.86096,0.331378,-0.027303,-0.0656453,0.195357,-0.01307,0.194152,-0.44737,0.93615,-0.570635,-0.00861285,0.043006,-0.185562,0.0368276,-1.31136,2.33232,52.4207,0.628206,0,0,0,0,0,0,0,-0.00485882,0.0145207,0.0432225,-1.84306,0.294205,-0.00685383,-0.0653085,0.189307,0.0438784,0.170663,-0.406734,0.873495,-0.676313,-0.000688807,0,0,0,0,0,0,0,0.562931,-35.1967,0.361952,25.3839,2.43774,0.924612,-0.00996382,
0.004662,0.0143067,0.0526117,-1.86535,0.337008,-0.0398703,-0.0654501,0.195215,-0.0135849,0.193995,-0.44708,0.931432,-0.568576,-0.00853436,-0.0889363,-0.321825,-0.0980144,0.181404,-2.94862,1.28699,0.049054,0,0,0,0,0,0,0,0.00156635,0.0145352,0.049535,-1.85823,0.32258,-0.0301373,-0.0653053,0.179464,-0.015853,0.19808,-0.457956,0.865848,-0.660089,0.000273721,-1.23035,-7.46643,3.42709,-6.40276,-0.955849,2.02803,0.120316,-0.500302,-35.5458,-0.387865,26.8042,2.77374,1.40893,-0.0365141,
0.00623198,0.0141556,0.0541716,-1.86896,0.344434,-0.0430911,-0.0655005,0.195421,-0.0146471,0.194192,-0.447801,0.930792,-0.535381,-0.0080869,0.12911,-0.663851,0.123114,-0.451051,-0.400097,20.7465,0.279664,0,0,0,0,0,0,0,0.00156635,0.0145352,0.049535,-1.85823,0.32258,-0.0301373,-0.0653053,0.179464,-0.015853,0.19808,-0.457956,0.865848,-0.660089,0.000273721,0,0,0,0,0,0,0,-0.500302,-35.5458,-0.387865,26.8042,2.77374,1.40893,-0.0365141,
0.00780597,0.013984,0.0557354,-1.87257,0.351943,-0.0448846,-0.0655377,0.195687,-0.0160067,0.19445,-0.448662,0.932354,-0.473144,-0.00739842,0.165986,-0.849754,0.161199,-0.538224,0.976562,38.8984,0.430302,0,0,0,0,0,0,0,0.00156635,0.0145352,0.049535,-1.85823,0.32258,-0.0301373,-0.0653053,0.179464,-0.015853,0.19808,-0.457956,0.865848,-0.660089,0.000273721,0,0,0,0,0,0,0,-0.500302,-35.5458,-0.387865,26.8042,2.77374,1.40893,-0.0365141,
0.00937489,0.0137967,0.0572942,-1.87617,0.359504,-0.0452535,-0.0655621,0.195772,-0.0174866,0.19453,-0.448869,0.934902,-0.387736,-0.00653103,0.0535678,-0.924969,0.0498271,-0.129273,1.59201,53.3797,0.54212,0,0,0,0,0,0,0,0.00156635,0.0145352,0.049535,-1.85823,0.32258,-0.0301373,-0.0653053,0.179464,-0.015853,0.19808,-0.457956,0.865848,-0.660089,0.000273721,0,0,0,0,0,0,0,-0.500302,-35.5458,-0.387865,26.8042,2.77374,1.40893,-0.0365141,
0.010662,0.0149658,0.0593124,-1.88075,0.366321,-0.0540464,-0.0654199,0.195129,-0.0133257,0.193866,-0.449404,0.928557,-0.371946,-0.00652083,-0.402172,2.60059,-0.414513,-0.334503,-3.96521,9.86868,0.00637111,0,0,0,0,0,0,0,0.00759051,0.014798,0.0562623,-1.87358,0.35202,-0.0481342,-0.0653051,0.188256,0.0400002,0.192138,-0.432856,0.855605,-0.480597,0.010309,1.09893,6.98165,-0.742734,3.13753,-1.28046,22.4364,1.25441,-0.0718349,-34.9944,-0.33629,27.3993,2.64557,0.885245,-0.0365141,
0.0122074,0.0149143,0.0608473,-1.88438,0.373647,-0.0552951,-0.0654579,0.194741,-0.0119477,0.193465,-0.450088,0.925991,-0.328774,-0.00616656,-0.242737,0.861238,-0.250913,-0.427458,-1.60411,26.9825,0.221422,0,0,0,0,0,0,0,0.00759051,0.014798,0.0562623,-1.87358,0.35202,-0.0481342,-0.0653051,0.188256,0.0400002,0.192138,-0.432856,0.855605,-0.480597,0.010309,0,0,0,0,0,0,0,-0.0718349,-34.9944,-0.33629,27.3993,2.64557,0.885245,-0.0365141,
0.013751,0.0148076,0.0623802,-1.88798,0.38104,-0.0552604,-0.0654828,0.19438,-0.0122249,0.193095,-0.450071,0.925616,-0.262152,-0.00555579,-0.225342,-0.173272,-0.231351,0.0110232,-0.234135,41.6391,0.381731,0,0,0,0,0,0,0,0.00759051,0.014798,0.0562623,-1.87358,0.35202,-0.0481342,-0.0653051,0.188256,0.0400002,0.192138,-0.432856,0.855605,-0.480597,0.010309,0,0,0,0,0,0,0,-0.0718349,-34.9944,-0.33629,27.3993,2.64557,0.885245,-0.0365141,
0.010661,0.0149354,0.0593122,-1.88088,0.36635,-0.0522211,-0.0653897,0.19395,-0.00939047,0.192659,-0.451634,0.921411,-0.24473,-0.00538396,-0.268645,1.77154,-0.272542,-0.977012,-2.62801,10.8885,0.107391,0,0,0,0,0,0,0,0.00759051,0.014798,0.0562623,-1.87358,0.35202,-0.0481342,-0.0653051,0.188256,0.0400002,0.192138,-0.432856,0.855605,-0.480597,0.010309,0,0,0,0,0,0,0,-0.0718349,-34.9944,-0.33629,27.3993,2.64557,0.885245,-0.0365141,
0.0121974,0.0148815,0.0608381,-1.88452,0.37368,-0.0523055,-0.0654142,0.19357,-0.00885998,0.192274,-0.452256,0.920392,-0.197895,-0.00491998,-0.23749,0.331559,-0.240655,-0.388851,-0.637122,29.2716,0.289991,0,0,0,0,0,0,0,0.0142967,0.0150767,0.062448,-1.88941,0.380939,-0.0614379,-0.0652974,0.211479,-0.025372,0.161734,-0.467605,0.851136,-0.289817,0.00241822,2.9029,-8.17153,-3.80059,-4.34368,-0.558579,23.8475,-0.986343,-0.476498,-35.0935,-0.411669,25.1102,2.8598,0.560232,-0.0630644,
0.0137252,0.0147789,0.0623553,-1.8881,0.381074,-0.0511418,-0.0654258,0.193051,-0.009653,0.191751,-0.451387,0.92116,-0.129223,-0.00422541,-0.324335,-0.495637,-0.326545,0.542945,0.479871,42.9202,0.434105,0,0,0,0,0,0,0,0.0142967,0.0150767,0.062448,-1.88941,0.380939,-0.0614379,-0.0652974,0.211479,-0.025372,0.161734,-0.467605,0.851136,-0.289817,0.00241822,0,0,0,0,0,0,0,-0.476498,-35.0935,-0.411669,25.1102,2.8598,0.560232,-0.0630644,
0.0152383,0.0146418,0.063858,-1.89161,0.388511,-0.0488481,-0.0654227,0.192269,-0.0111501,0.190968,-0.448892,0.922855,-0.0460347,-0.00330205,-0.488852,-0.935677,-0.48962,1.55936,1.05953,51.9927,0.577098,0,0,0,0,0,0,0,0.0142967,0.0150767,0.062448,-1.88941,0.380939,-0.0614379,-0.0652974,0.211479,-0.025372,0.161734,-0.467605,0.851136,-0.289817,0.00241822,0,0,0,0,0,0,0,-0.476498,-35.0935,-0.411669,25.1102,2.8598,0.560232,-0.0630644,
0.0173291,0.0147132,0.0654544,-1.89661,0.395085,-0.0625476,-0.0653546,0.191742,-0.0136343,0.190433,-0.448529,0.917004,-0.0347013,-0.00323983,-0.329272,-1.55266,-0.333901,0.227372,-3.65691,7.08339,0.0388903,0,0,0,0,0,0,0,0.0142967,0.0150767,0.062448,-1.88941,0.380939,-0.0614379,-0.0652974,0.211479,-0.025372,0.161734,-0.467605,0.851136,-0.289817,0.00241822,0,0,0,0,0,0,0,-0.476498,-35.0935,-0.411669,25.1102,2.8598,0.560232,-0.0630644,
0.018842,0.0145074,0.0669568,-1.90014,0.40234,-0.0612252,-0.065366,0.191215,-0.0160521,0.189905,-0.446973,0.914985,0.00530027,-0.00287856,-0.32929,-1.51111,-0.330098,0.972473,-1.26148,25.001,0.225792,0,0,0,0,0,0,0,0.0206476,0.0152191,0.0691105,-1.90499,0.408865,-0.0674434,-0.0652971,0.13874,0.00672312,0.248721,-0.468824,0.819608,-0.0973606,0.00104721,-9.09232,4.0119,10.8734,-0.15232,-3.94095,24.057,-0.171376,-0.730404,-32.8481,-0.836168,25.6339,3.18298,1.14983,-0.0227812,
0.0203439,0.0142883,0.0684482,-1.9036,0.409667,-0.0587797,-0.0653629,0.190519,-0.0183194,0.189211,-0.444129,0.915173,0.0653773,-0.00222521,-0.435092,-1.41708,-0.433976,1.77707,0.117092,37.5481,0.408343,0,0,0,0,0,0,0,0.0206476,0.0152191,0.0691105,-1.90499,0.408865,-0.0674434,-0.0652971,0.13874,0.00672312,0.248721,-0.468824,0.819608,-0.0973606,0.00104721,0,0,0,0,0,0,0,-0.730404,-32.8481,-0.836168,25.6339,3.18298,1.14983,-0.0227812,
0.0218285,0.014061,0.0699226,-1.90699,0.417044,-0.0553629,-0.0653458,0.189531,-0.0203364,0.188228,-0.439975,0.916545,0.137722,-0.00135163,-0.61791,-1.26058,-0.614625,2.59641,0.857682,45.2157,0.545988,0,0,0,0,0,0,0,0.0206476,0.0152191,0.0691105,-1.90499,0.408865,-0.0674434,-0.0652971,0.13874,0.00672312,0.248721,-0.468824,0.819608,-0.0973606,0.00104721,0,0,0,0,0,0,0,-0.730404,-32.8481,-0.836168,25.6339,3.18298,1.14983,-0.0227812,
0.0237066,0.0151313,0.0721559,-1.91224,0.422666,-0.0656009,-0.0653322,0.189746,-0.0181423,0.188416,-0.441677,0.907942,0.147614,-0.00137607,0.134917,1.37131,0.11773,-1.06342,-5.37716,6.18204,-0.0152707,0,0,0,0,0,0,0,0.0206476,0.0152191,0.0691105,-1.90499,0.408865,-0.0674434,-0.0652971,0.13874,0.00672312,0.248721,-0.468824,0.819608,-0.0973606,0.00104721,0,0,0,0,0,0,0,-0.730404,-32.8481,-0.836168,25.6339,3.18298,1.14983,-0.0227812,
0.0252148,0.0150085,0.0736528,-1.91574,0.429776,-0.0630303,-0.0653292,0.189503,-0.017584,0.188156,-0.441051,0.904113,0.182355,-0.00102669,-0.151902,0.348951,-0.162535,0.390977,-2.39317,21.7135,0.218361,0,0,0,0,0,0,0,0.0269976,0.0157352,0.075854,-1.92021,0.436545,-0.0671725,-0.0652925,0.217839,0.0163999,0.163792,-0.435255,0.842355,0.0441002,0.000897551,9.88734,1.2096,-10.616,4.19613,2.84328,17.6826,-0.0187077,-0.857357,-35.3713,-1.16149,24.2374,2.91473,0.705801,-0.0163725,
0.0267026,0.0148516,0.0751295,-1.91916,0.436973,-0.0595176,-0.0653121,0.188798,-0.0179912,0.187443,-0.438378,0.903197,0.233702,-0.000393234,-0.441071,-0.25454,-0.445541,1.67052,-0.572218,32.0919,0.395909,0,0,0,0,0,0,0,0.0269976,0.0157352,0.075854,-1.92021,0.436545,-0.0671725,-0.0652925,0.217839,0.0163999,0.163792,-0.435255,0.842355,0.0441002,0.000897551,0,0,0,0,0,0,0,-0.857357,-35.3713,-1.16149,24.2374,2.91473,0.705801,-0.0163725,
0.0300257,0.0156169,0.0788538,-1.92726,0.45055,-0.0628732,-0.0653018,0.188675,-0.0168326,0.187298,-0.438171,0.899107,0.254151,-0.000247446,-0.0766847,0.724117,-0.0907828,0.129535,-2.55645,12.7803,0.0911175,0,0,0,0,0,0,0,0.0269976,0.0157352,0.075854,-1.92021,0.436545,-0.0671725,-0.0652925,0.217839,0.0163999,0.163792,-0.435255,0.842355,0.0441002,0.000897551,0,0,0,0,0,0,0,-0.857357,-35.3713,-1.16149,24.2374,2.91473,0.705801,-0.0163725,
0.0315124,0.0154726,0.0803289,-1.93067,0.457692,-0.0592575,-0.0652847,0.188106,-0.0170725,0.186716,-0.435979,0.897829,0.293715,0.000229268,-0.355681,-0.149926,-0.36349,1.37028,-0.79884,24.7278,0.297946,0,0,0,0,0,0,0,0.0269976,0.0157352,0.075854,-1.92021,0.436545,-0.0671725,-0.0652925,0.217839,0.0163999,0.163792,-0.435255,0.842355,0.0441002,0.000897551,0,0,0,0,0,0,0,-0.857357,-35.3713,-1.16149,24.2374,2.91473,0.705801,-0.0163725,
0.032976,0.0152983,0.0817813,-1.934,0.464892,-0.0548535,-0.0652518,0.187076,-0.0180162,0.185682,-0.432003,0.898258,0.345072,0.00100603,-0.643544,-0.589821,-0.64633,2.48485,0.268632,32.0983,0.485473,0,0,0,0,0,0,0,0.0342126,0.0158338,0.0818534,-1.93594,0.464586,-0.0628072,-0.0652874,0.302347,0.0191287,0.0697041,-0.442665,0.822759,0.182393,0.000730289,10.5635,0.341099,-11.761,-0.926274,-2.4495,17.2866,-0.0209077,-2.47998,-34.6968,-2.18505,27.1533,3.47046,1.35583,0.0101778,
0.0344168,0.0151036,0.0832113,-1.93724,0.472018,-0.0498064,-0.065205,0.185681,-0.0192806,0.184296,-0.426388,0.896773,0.402233,0.00197439,-0.872056,-0.790216,-0.865974,3.50903,-0.928135,35.7254,0.605226,0,0,0,0,0,0,0,0.0342126,0.0158338,0.0818534,-1.93594,0.464586,-0.0628072,-0.0652874,0.302347,0.0191287,0.0697041,-0.442665,0.822759,0.182393,0.000730289,0,0,0,0,0,0,0,-2.47998,-34.6968,-2.18505,27.1533,3.47046,1.35583,0.0101778,
0.0371879,0.0157765,0.084784,-1.94295,0.478272,-0.0565802,-0.0652652,0.185413,-0.017117,0.184004,-0.427699,0.890182,0.411603,0.00202586,-0.167184,1.35224,-0.182648,-0.819407,-4.1196,5.85642,0.0321679,0,0,0,0,0,0,0,0.0342126,0.0158338,0.0818534,-1.93594,0.464586,-0.0628072,-0.0652874,0.302347,0.0191287,0.0697041,-0.442665,0.822759,0.182393,0.000730289,0,0,0,0,0,0,0,-2.47998,-34.6968,-2.18505,27.1533,3.47046,1.35583,0.0101778,
0.0386423,0.0156587,0.0862269,-1.94632,0.48528,-0.0521835,-0.0652316,0.184693,-0.0166369,0.183274,-0.426322,0.88736,0.439201,0.00246049,-0.450521,0.300074,-0.456597,0.861127,-1.76351,17.2483,0.271648,0,0,0,0,0,0,0,0.0342126,0.0158338,0.0818534,-1.93594,0.464586,-0.0628072,-0.0652874,0.302347,0.0191287,0.0697041,-0.442665,0.822759,0.182393,0.000730289,0,0,0,0,0,0,0,-2.47998,-34.6968,-2.18505,27.1533,3.47046,1.35583,0.0101778,
0.040076,0.0155062,0.0876494,-1.94958,0.492247,-0.0471328,-0.0651842,0.183596,-0.0171237,0.182182,-0.422569,0.884049,0.477628,0.00315236,-0.685115,-0.304286,-0.682114,2.34547,-2.06942,24.0173,0.432414,0,0,0,0,0,0,0,0.0404746,0.015879,0.088179,-1.95042,0.492186,-0.0531182,-0.0652699,0.308899,-0.0197228,0.0501824,-0.425839,0.799415,0.353236,0.00163278,0.818976,-4.85644,-2.44021,2.10319,-2.91796,21.3554,0.112811,-2.02374,-34.2961,-1.58599,25.733,3.29284,0.891653,-0.00996382,
0.0414911,0.0153273,0.0890533,-1.95273,0.49895,-0.0415673,-0.0651211,0.182253,-0.0181709,0.180844,-0.416755,0.87482,0.521239,0.0041004,-0.83945,-0.654508,-0.836699,3.63381,-5.76812,27.2569,0.592527,0,0,0,0,0,0,0,0.0404746,0.015879,0.088179,-1.95042,0.492186,-0.0531182,-0.0652699,0.308899,-0.0197228,0.0501824,-0.425839,0.799415,0.353236,0.00163278,0,0,0,0,0,0,0,-2.02374,-34.2961,-1.58599,25.733,3.29284,0.891653,-0.00996382,
0.0433524,0.0154568,0.0910099,-1.9571,0.505667,-0.0447655,-0.0652175,0.181449,-0.020044,0.180023,-0.41601,0.870649,0.531122,0.00412294,-0.502923,-1.17069,-0.513054,0.465485,-2.60679,6.17637,0.0140887,0,0,0,0,0,0,0,0.0404746,0.015879,0.088179,-1.95042,0.492186,-0.0531182,-0.0652699,0.308899,-0.0197228,0.0501824,-0.425839,0.799415,0.353236,0.00163278,0,0,0,0,0,0,0,-2.02374,-34.2961,-1.58599,25.733,3.29284,0.891653,-0.00996382,
0.0447624,0.0152261,0.0924088,-1.96032,0.512509,-0.0395723,-0.06517,0.180408,-0.0218009,0.17899,-0.413126,0.86756,0.554728,0.00448661,-0.650217,-1.09805,-0.645357,1.80253,-1.93117,14.7543,0.227291,0,0,0,0,0,0,0,0.0404746,0.015879,0.088179,-1.95042,0.492186,-0.0531182,-0.0652699,0.308899,-0.0197228,0.0501824,-0.425839,0.799415,0.353236,0.00163278,0,0,0,0,0,0,0,-2.02374,-34.2961,-1.58599,25.733,3.29284,0.891653,-0.00996382,
0.046158,0.0149874,0.0937933,-1.96343,0.51912,-0.033887,-0.0651066,0.179215,-0.0234094,0.177805,-0.408259,0.859321,0.585916,0.00517362,-0.745658,-1.00528,-0.740975,3.04178,-5.14922,19.492,0.429382,0,0,0,0,0,0,0,0.0404746,0.015879,0.088179,-1.95042,0.492186,-0.0531182,-0.0652699,0.308899,-0.0197228,0.0501824,-0.425839,0.799415,0.353236,0.00163278,0,0,0,0,0,0,0,-2.02374,-34.2961,-1.58599,25.733,3.29284,0.891653,-0.00996382,
0.0475293,0.0147436,0.0951537,-1.96644,0.525436,-0.0278534,-0.0650341,0.177655,-0.0248222,0.176254,-0.401982,0.845353,0.619571,0.00595253,-0.974973,-0.882992,-0.969252,3.92342,-8.72959,21.0346,0.486818,0,0,0,0,0,0,0,0.0467678,0.0158918,0.0943378,-1.96516,0.518884,-0.0392479,-0.0652591,0.318271,0.00170322,0.0395746,-0.404108,0.795392,0.44414,-0.00113504,1.17147,2.67825,-1.32597,2.71643,-0.502877,11.3629,-0.345977,-1.92059,-34.0978,-1.53838,24.9832,3.44574,0.93743,0.0239107,
0.0496192,0.0156166,0.0971404,-1.97171,0.532218,-0.0295718,-0.0651796,0.177401,-0.0239132,0.175984,-0.402639,0.843641,0.624914,0.00595045,-0.158701,0.568115,-0.168859,-0.410773,-1.07012,3.33938,-0.00129548,0,0,0,0,0,0,0,0.0467678,0.0158918,0.0943378,-1.96516,0.518884,-0.0392479,-0.0652591,0.318271,0.00170322,0.0395746,-0.404108,0.795392,0.44414,-0.00113504,0,0,0,0,0,0,0,-1.92059,-34.0978,-1.53838,24.9832,3.44574,0.93743,0.0239107,
0.0510151,0.0154265,0.0985247,-1.97485,0.538707,-0.0238998,-0.0651158,0.176818,-0.0238823,0.175394,-0.400586,0.83714,0.641732,0.00635562,-0.364868,0.0193007,-0.368263,1.28293,-4.06319,10.5111,0.25323,0,0,0,0,0,0,0,0.0467678,0.0158918,0.0943378,-1.96516,0.518884,-0.0392479,-0.0652591,0.318271,0.00170322,0.0395746,-0.404108,0.795392,0.44414,-0.00113504,0,0,0,0,0,0,0,-1.92059,-34.0978,-1.53838,24.9832,3.44574,0.93743,0.0239107,
0.0523862,0.0152186,0.0998845,-1.97789,0.544919,-0.0178752,-0.0650427,0.175734,-0.0243036,0.174309,-0.396429,0.825014,0.664002,0.00691038,-0.677458,-0.263297,-0.6782,2.59844,-7.57897,13.9187,0.346723,0,0,0,0,0,0,0,0.0467678,0.0158918,0.0943378,-1.96516,0.518884,-0.0392479,-0.0652591,0.318271,0.00170322,0.0395746,-0.404108,0.795392,0.44414,-0.00113504,0,0,0,0,0,0,0,-1.92059,-34.0978,-1.53838,24.9832,3.44574,0.93743,0.0239107,
0.0556172,0.015513,0.103371,-1.98539,0.557597,-0.0103387,-0.0651288,0.175317,-0.0237331,0.173864,-0.396368,0.814672,0.671981,0.00714032,-0.260672,0.356521,-0.277996,0.0376161,-6.4634,4.98679,0.143716,0,0,0,0,0,0,0,0.0528075,0.0158297,0.100615,-1.97894,0.545136,-0.0210899,-0.0652412,0.338218,-0.0123935,0.0141215,-0.418335,0.758841,0.552927,0.00043383,2.49347,-1.76209,-3.18164,-1.77845,-4.56892,13.5984,0.196109,-1.89679,-33.6495,-1.51061,25.5069,3.35418,0.758902,0.0239107,
0.056981,0.0153227,0.104723,-1.98845,0.563586,-0.00434675,-0.0650551,0.174349,-0.023745,0.17289,-0.393661,0.80146,0.687384,0.00755522,-0.60452,-0.00740453,-0.60905,1.69222,-8.25756,9.62686,0.259313,0,0,0,0,0,0,0,0.0528075,0.0158297,0.100615,-1.97894,0.545136,-0.0210899,-0.0652412,0.338218,-0.0123935,0.0141215,-0.418335,0.758841,0.552927,0.00043383,0,0,0,0,0,0,0,-1.89679,-33.6495,-1.51061,25.5069,3.35418,0.758902,0.0239107,
0.0583166,0.0151191,0.106046,-1.9914,0.569138,0.00185737,-0.0649848,0.172868,-0.024085,0.171403,-0.388636,0.779968,0.70501,0.00780044,-0.925771,-0.212504,-0.929177,3.14044,-13.4326,11.0165,0.153261,0,0,0,0,0,0,0,0.0528075,0.0158297,0.100615,-1.97894,0.545136,-0.0210899,-0.0652412,0.338218,-0.0123935,0.0141215,-0.418335,0.758841,0.552927,0.00043383,0,0,0,0,0,0,0,-1.89679,-33.6495,-1.51061,25.5069,3.35418,0.758902,0.0239107,
0.0596277,0.0149049,0.107345,-1.99422,0.573915,0.00815302,-0.0649208,0.171072,-0.0246251,0.169601,-0.381493,0.743387,0.721399,0.00784237,-1.12264,-0.337561,-1.12625,4.46455,-22.8632,10.2433,0.0262071,0,0,0,0,0,0,0,0.0528075,0.0158297,0.100615,-1.97894,0.545136,-0.0210899,-0.0652412,0.338218,-0.0123935,0.0141215,-0.418335,0.758841,0.552927,0.00043383,0,0,0,0,0,0,0,-1.89679,-33.6495,-1.51061,25.5069,3.35418,0.758902,0.0239107,
0.0556166,0.0155397,0.10337,-1.9853,0.557033,-0.0102794,-0.0651024,0.171462,-0.0236013,0.169974,-0.383195,0.741522,0.718436,0.00813105,0.243696,0.639863,0.233092,-1.06359,-1.16536,-1.85194,0.180426,0,0,0,0,0,0,0,0.0528075,0.0158297,0.100615,-1.97894,0.545136,-0.0210899,-0.0652412,0.338218,-0.0123935,0.0141215,-0.418335,0.758841,0.552927,0.00043383,0,0,0,0,0,0,0,-1.89679,-33.6495,-1.51061,25.5069,3.35418,0.758902,0.0239107,
0.0569703,0.0153669,0.104712,-1.98829,0.562501,-0.004321,-0.0650318,0.171013,-0.0232006,0.169519,-0.381407,0.729935,0.723708,0.00826881,-0.280507,0.250459,-0.28426,1.11699,-7.2422,3.29473,0.0860972,0,0,0,0,0,0,0,0.0528075,0.0158297,0.100615,-1.97894,0.545136,-0.0210899,-0.0652412,0.338218,-0.0123935,0.0141215,-0.418335,0.758841,0.552927,0.00043383,0,0,0,0,0,0,0,-1.89679,-33.6495,-1.51061,25.5069,3.35418,0.758902,0.0239107,
0.0582975,0.0151796,0.106027,-1.99115,0.567219,0.00179575,-0.0649677,0.16999,-0.0232431,0.16849,-0.376617,0.701898,0.731885,0.00821845,-0.639411,-0.0265693,-0.643193,2.99412,-17.5233,5.11073,-0.0314756,0,0,0,0,0,0,0,0.0528075,0.0158297,0.100615,-1.97894,0.545136,-0.0210899,-0.0652412,0.338218,-0.0123935,0.0141215,-0.418335,0.758841,0.552927,0.00043383,0,0,0,0,0,0,0,-1.89679,-33.6495,-1.51061,25.5069,3.35418,0.758902,0.0239107,
0.0556062,0.0155726,0.10336,-1.98519,0.556458,-0.0103647,-0.0650955,0.170435,-0.0220496,0.168924,-0.377607,0.697901,0.725197,0.00835661,0.27845,0.745924,0.271105,-0.618802,-2.49808,-4.17986,0.0863526,0,0,0,0,0,0,0,0.0528075,0.0158297,0.100615,-1.97894,0.545136,-0.0210899,-0.0652412,0.338218,-0.0123935,0.0141215,-0.418335,0.758841,0.552927,0.00043383,0,0,0,0,0,0,0,-1.89679,-33.6495,-1.51061,25.5069,3.35418,0.758902,0.0239107,
0.0569562,0.0154157,0.104698,-1.98809,0.561162,-0.0045157,-0.0650311,0.170099,-0.0215628,0.168582,-0.374706,0.675931,0.726382,0.00829569,-0.21023,0.304233,-0.213825,1.81333,-13.7311,0.740582,-0.0380744,0,0,0,0,0,0,0,0.0573293,0.0158984,0.108362,-1.99259,0.570541,-0.000901106,-0.0652254,0.315299,0.0117409,0.0334202,-0.391443,0.740453,0.66695,-0.00139608,-2.86491,3.01681,2.41233,3.36153,-2.29844,14.2529,-0.228739,-3.2893,-34.2723,-3.33556,24.1898,3.08502,0.672842,0.0641939,
0.0582769,0.0152421,0.106007,-1.99087,0.564977,0.00146292,-0.0649727,0.169097,-0.0215887,0.167579,-0.369154,0.636109,0.730571,0.00809702,-0.626581,-0.0161674,-0.626571,3.46952,-24.889,2.61828,-0.124171,0,0,0,0,0,0,0,0.0573293,0.0158984,0.108362,-1.99259,0.570541,-0.000901106,-0.0652254,0.315299,0.0117409,0.0334202,-0.391443,0.740453,0.66695,-0.00139608,0,0,0,0,0,0,0,-3.2893,-34.2723,-3.33556,24.1898,3.08502,0.672842,0.0641939,
0.0595674,0.0150562,0.107285,-1.99354,0.56787,0.00747555,-0.0649182,0.16754,-0.0219192,0.166032,-0.362013,0.581215,0.734773,0.00784163,-0.972957,-0.206547,-0.967386,4.46343,-34.3085,2.62583,-0.159621,0,0,0,0,0,0,0,0.0573293,0.0158984,0.108362,-1.99259,0.570541,-0.000901106,-0.0652254,0.315299,0.0117409,0.0334202,-0.391443,0.740453,0.66695,-0.00139608,0,0,0,0,0,0,0,-3.2893,-34.2723,-3.33556,24.1898,3.08502,0.672842,0.0641939,
0.0600651,0.0158075,0.111047,-1.99857,0.580708,0.0108492,-0.0650924,0.167695,-0.0194402,0.166161,-0.362673,0.582321,0.73726,0.00789325,0.0969903,1.54936,0.0808663,-0.412317,0.69122,1.55455,0.0322615,0,0,0,0,0,0,0,0.0573293,0.0158984,0.108362,-1.99259,0.570541,-0.000901106,-0.0652254,0.315299,0.0117409,0.0334202,-0.391443,0.740453,0.66695,-0.00139608,0,0,0,0,0,0,0,-3.2893,-34.2723,-3.33556,24.1898,3.08502,0.672842,0.0641939,
0.0613804,0.0156892,0.112349,-2.00136,0.584492,0.0169115,-0.0650332,0.16704,-0.0185101,0.165497,-0.359931,0.560454,0.741367,0.0077955,-0.409256,0.581318,-0.41504,1.71324,-13.6666,2.56698,-0.061088,0,0,0,0,0,0,0,0.063024,0.0157913,0.114823,-2.00521,0.592761,0.0219313,-0.0652091,0.239357,-0.00713488,0.118766,-0.376512,0.619758,0.653914,0.000174196,-9.49281,-2.35947,10.6682,1.86644,-15.0869,-1.62949,0.196285,-1.97216,-33.4709,-2.28819,25.4831,3.29925,0.354239,0.0440523,
0.0626646,0.0155416,0.113621,-2.00405,0.587343,0.0229771,-0.0649777,0.165737,-0.0184965,0.164196,-0.354954,0.519632,0.744733,0.00762279,-0.81431,0.0085013,-0.813212,3.11092,-25.5137,2.10369,-0.107947,0,0,0,0,0,0,0,0.063024,0.0157913,0.114823,-2.00521,0.592761,0.0219313,-0.0652091,0.239357,-0.00713488,0.118766,-0.376512,0.619758,0.653914,0.000174196,0,0,0,0,0,0,0,-1.97216,-33.4709,-2.28819,25.4831,3.29925,0.354239,0.0440523,
0.0639193,0.0153746,0.114864,-2.00663,0.589292,0.0289918,-0.064923,0.163956,-0.0189725,0.162426,-0.348685,0.464429,0.746155,0.00746539,-1.11346,-0.29752,-1.10635,3.91784,-34.502,0.888465,-0.0983755,0,0,0,0,0,0,0,0.063024,0.0157913,0.114823,-2.00521,0.592761,0.0219313,-0.0652091,0.239357,-0.00713488,0.118766,-0.376512,0.619758,0.653914,0.000174196,0,0,0,0,0,0,0,-1.97216,-33.4709,-2.28819,25.4831,3.29925,0.354239,0.0440523,
0.0657794,0.0155292,0.11754,-2.01095,0.600698,0.0333577,-0.065088,0.165003,-0.0188154,0.163439,-0.349221,0.460761,0.742036,0.00745402,0.654786,0.0982417,0.6336,-0.334801,-2.29241,-2.57426,-0.00710779,0,0,0,0,0,0,0,0.063024,0.0157913,0.114823,-2.00521,0.592761,0.0219313,-0.0652091,0.239357,-0.00713488,0.118766,-0.376512,0.619758,0.653914,0.000174196,0,0,0,0,0,0,0,-1.97216,-33.4709,-2.28819,25.4831,3.29925,0.354239,0.0440523,
0.0670926,0.0153653,0.118841,-2.01365,0.603401,0.0392298,-0.0650321,0.164835,-0.0191508,0.163261,-0.346841,0.436196,0.740432,0.00735972,-0.105282,-0.209665,-0.111595,1.48727,-15.3534,-1.0024,-0.0589371,0,0,0,0,0,0,0,0.0686103,0.0158561,0.120683,-2.01716,0.610271,0.0432421,-0.0652021,0.115194,0.00169884,0.236534,-0.327448,0.439853,0.64727,0.00035975,-15.5203,1.10421,14.721,6.13292,-22.4881,-0.830582,0.0231942,-0.424923,-34.2723,-1.10991,24.3365,2.79846,0.0823271,0.0239107,
0.0683694,0.015189,0.120105,-2.01626,0.605246,0.0450971,-0.0649769,0.163787,-0.0197294,0.162219,-0.342582,0.395077,0.739028,0.00726724,-0.654772,-0.361622,-0.651311,2.66244,-25.6996,-0.877401,-0.0577981,0,0,0,0,0,0,0,0.0686103,0.0158561,0.120683,-2.01716,0.610271,0.0432421,-0.0652021,0.115194,0.00169884,0.236534,-0.327448,0.439853,0.64727,0.00035975,0,0,0,0,0,0,0,-0.424923,-34.2723,-1.10991,24.3365,2.79846,0.0823271,0.0239107,
0.0712681,0.0155713,0.123324,-2.02261,0.615765,0.0546636,-0.0650944,0.163758,-0.019808,0.162168,-0.341552,0.376047,0.735831,0.00719032,-0.0183288,-0.0491392,-0.0318648,0.643245,-11.8938,-1.99803,-0.0480727,0,0,0,0,0,0,0,0.0686103,0.0158561,0.120683,-2.01716,0.610271,0.0432421,-0.0652021,0.115194,0.00169884,0.236534,-0.327448,0.439853,0.64727,0.00035975,0,0,0,0,0,0,0,-0.424923,-34.2723,-1.10991,24.3365,2.79846,0.0823271,0.0239107,
0.072539,0.0153972,0.124582,-2.02523,0.617402,0.0604716,-0.0650389,0.162777,-0.0201979,0.161183,-0.338654,0.341756,0.733866,0.00713973,-0.612866,-0.243667,-0.615197,1.81117,-21.4313,-1.22846,-0.0316195,0,0,0,0,0,0,0,0.0686103,0.0158561,0.120683,-2.01716,0.610271,0.0432421,-0.0652021,0.115194,0.00169884,0.236534,-0.327448,0.439853,0.64727,0.00035975,0,0,0,0,0,0,0,-0.424923,-34.2723,-1.10991,24.3365,2.79846,0.0823271,0.0239107,
0.0737766,0.015217,0.125807,-2.02777,0.618294,0.0662382,-0.0649825,0.161162,-0.0206639,0.15958,-0.334435,0.295714,0.731257,0.00712225,-1.00953,-0.29127,-1.00187,2.63729,-28.7763,-1.63033,-0.0109261,0,0,0,0,0,0,0,0.0748546,0.0157103,0.125444,-2.02834,0.624227,0.0652438,-0.0651963,0.12433,-0.0127956,0.215852,-0.317076,0.297863,0.639174,0.000399288,1.142,-1.81181,-2.58526,1.2966,-17.7487,-1.01197,0.00494231,0.412174,-32.9472,-0.260912,24.2136,2.7005,-0.109934,0.0101778,
0.0749857,0.0150336,0.127005,-2.03025,0.618498,0.0719246,-0.0649236,0.159158,-0.0211165,0.157599,-0.329472,0.241673,0.727165,0.00716819,-1.25271,-0.282847,-1.23871,3.10192,-33.7761,-2.55736,0.0287101,0,0,0,0,0,0,0,0.0748546,0.0157103,0.125444,-2.02834,0.624227,0.0652438,-0.0651963,0.12433,-0.0127956,0.215852,-0.317076,0.297863,0.639174,0.000399288,0,0,0,0,0,0,0,0.412174,-32.9472,-0.260912,24.2136,2.7005,-0.109934,0.0101778,
0.0774364,0.0153181,0.128007,-2.03361,0.627612,0.0764053,-0.0650915,0.159141,-0.0219311,0.157566,-0.328988,0.227968,0.722803,0.00710659,-0.0105324,-0.509136,-0.020444,0.302122,-8.56518,-2.72622,-0.0384997,0,0,0,0,0,0,0,0.0748546,0.0157103,0.125444,-2.02834,0.624227,0.0652438,-0.0651963,0.12433,-0.0127956,0.215852,-0.317076,0.297863,0.639174,0.000399288,0,0,0,0,0,0,0,0.412174,-32.9472,-0.260912,24.2136,2.7005,-0.109934,0.0101778,
0.0786746,0.0151198,0.129233,-2.03616,0.628338,0.0820568,-0.0650349,0.158268,-0.0225011,0.156695,-0.326908,0.200526,0.71953,0.00710106,-0.545653,-0.35626,-0.544289,1.3003,-17.1517,-2.04587,-0.00345705,0,0,0,0,0,0,0,0.0748546,0.0157103,0.125444,-2.02834,0.624227,0.0652438,-0.0651963,0.12433,-0.0127956,0.215852,-0.317076,0.297863,0.639174,0.000399288,0,0,0,0,0,0,0,0.412174,-32.9472,-0.260912,24.2136,2.7005,-0.109934,0.0101778,
0.0798836,0.014926,0.13043,-2.03865,0.628429,0.0876585,-0.0649756,0.15684,-0.0228468,0.155283,-0.323674,0.162697,0.715666,0.00716139,-0.892268,-0.21602,-0.882281,2.02098,-23.6427,-2.41511,0.0377097,0,0,0,0,0,0,0,0.0748546,0.0157103,0.125444,-2.02834,0.624227,0.0652438,-0.0651963,0.12433,-0.0127956,0.215852,-0.317076,0.297863,0.639174,0.000399288,0,0,0,0,0,0,0,0.412174,-32.9472,-0.260912,24.2136,2.7005,-0.109934,0.0101778,
0.0810677,0.0147358,0.131602,-2.04108,0.627947,0.0931732,-0.0649138,0.155073,-0.0230305,0.153541,-0.319768,0.118109,0.710401,0.00727449,-1.10479,-0.114842,-1.08921,2.4412,-27.8677,-3.29082,0.0706853,0,0,0,0,0,0,0,0.080011,0.0156888,0.13075,-2.03952,0.634642,0.0866482,-0.065199,0.162325,0.00177982,0.152837,-0.315336,0.260217,0.636892,-0.00160004,4.74932,1.82193,-7.87683,0.217405,-4.70573,-0.285177,-0.249916,0.412174,-33.5741,-0.312487,24.6857,3.15277,0.175711,0.0440523,
0.0824706,0.0154526,0.133185,-2.0447,0.63687,0.0976224,-0.0650887,0.1545,-0.0218207,0.15297,-0.320106,0.113639,0.70662,0.0072648,-0.35779,0.756118,-0.356469,-0.210898,-2.79351,-2.3629,-0.00605632,0,0,0,0,0,0,0,0.080011,0.0156888,0.13075,-2.03952,0.634642,0.0866482,-0.065199,0.162325,0.00177982,0.152837,-0.315336,0.260217,0.636892,-0.00160004,0,0,0,0,0,0,0,0.412174,-33.5741,-0.312487,24.6857,3.15277,0.175711,0.0440523,
0.0836659,0.0153019,0.134368,-2.04721,0.636973,0.103142,-0.0650282,0.153481,-0.0212231,0.15196,-0.318823,0.0934894,0.703296,0.00732503,-0.636934,0.373524,-0.631662,0.801603,-12.5937,-2.07712,0.0376464,0,0,0,0,0,0,0,0.080011,0.0156888,0.13075,-2.03952,0.634642,0.0866482,-0.065199,0.162325,0.00177982,0.152837,-0.315336,0.260217,0.636892,-0.00160004,0,0,0,0,0,0,0,0.412174,-33.5741,-0.312487,24.6857,3.15277,0.175711,0.0440523,
0.0848403,0.0151432,0.135531,-2.04967,0.636487,0.108597,-0.0649653,0.152147,-0.0209471,0.15064,-0.316383,0.0626421,0.699004,0.0074323,-0.834051,0.172493,-0.82497,1.52529,-19.2796,-2.68302,0.0670431,0,0,0,0,0,0,0,0.080011,0.0156888,0.13075,-2.03952,0.634642,0.0866482,-0.065199,0.162325,0.00177982,0.152837,-0.315336,0.260217,0.636892,-0.00160004,0,0,0,0,0,0,0,0.412174,-33.5741,-0.312487,24.6857,3.15277,0.175711,0.0440523,
0.087542,0.0153306,0.138504,-2.05507,0.641356,0.118824,-0.0650774,0.151643,-0.0205842,0.150138,-0.315896,0.0514978,0.693599,0.00745714,-0.314459,0.226812,-0.313466,0.30394,-6.96519,-3.37819,0.0155251,0,0,0,0,0,0,0,0.0851245,0.0156127,0.136115,-2.05002,0.640625,0.108144,-0.065192,0.182471,-0.00470493,0.12556,-0.306879,0.156419,0.624398,-0.000268566,2.51826,-0.810594,-3.40968,1.05712,-12.9748,-1.56179,0.166435,-1.66668,-33.225,-2.01048,23.4399,3.0484,0.37438,0.0239107,
0.0887189,0.0151696,0.139669,-2.05753,0.640842,0.124177,-0.0650141,0.150738,-0.0204935,0.149241,-0.31423,0.0283492,0.688681,0.00754783,-0.5658,0.0566513,-0.560566,1.04146,-14.4679,-3.07314,0.0566823,0,0,0,0,0,0,0,0.0851245,0.0156127,0.136115,-2.05002,0.640625,0.108144,-0.065192,0.182471,-0.00470493,0.12556,-0.306879,0.156419,0.624398,-0.000268566,0,0,0,0,0,0,0,-1.66668,-33.225,-2.01048,23.4399,3.0484,0.37438,0.0239107,
0.0898773,0.0150048,0.140816,-2.05995,0.639835,0.129458,-0.0649478,0.14955,-0.0205145,0.148066,-0.311702,-0.00249468,0.682969,0.0076958,-0.742419,-0.0131086,-0.734194,1.57998,-19.2774,-3.57027,0.0924823,0,0,0,0,0,0,0,0.0851245,0.0156127,0.136115,-2.05002,0.640625,0.108144,-0.065192,0.182471,-0.00470493,0.12556,-0.306879,0.156419,0.624398,-0.000268566,0,0,0,0,0,0,0,-1.66668,-33.225,-2.01048,23.4399,3.0484,0.37438,0.0239107,
0.0910187,0.0148378,0.141946,-2.06232,0.638421,0.134639,-0.0648789,0.148174,-0.0205865,0.146707,-0.308648,-0.037336,0.675903,0.00787815,-0.860261,-0.0449611,-0.849458,1.90894,-21.7758,-4.41612,0.113967,0,0,0,0,0,0,0,0.0851245,0.0156127,0.136115,-2.05002,0.640625,0.108144,-0.065192,0.182471,-0.00470493,0.12556,-0.306879,0.156419,0.624398,-0.000268566,0,0,0,0,0,0,0,-1.66668,-33.225,-2.01048,23.4399,3.0484,0.37438,0.0239107,
0.093134,0.0153274,0.142759,-2.06539,0.641782,0.139767,-0.0650696,0.14749,-0.019377,0.146022,-0.309116,-0.0455738,0.672132,0.00789611,-0.427316,0.755925,-0.428468,-0.292385,-5.14859,-2.357,0.0112247,0,0,0,0,0,0,0,0.0907982,0.0155296,0.140458,-2.06038,0.642524,0.129284,-0.0651913,0.209472,0.000511292,0.084563,-0.306803,0.0488499,0.623938,0.00015548,3.37513,0.652028,-5.12462,0.00948856,-13.4461,-0.0574921,0.0530058,-1.05969,-33.4471,-1.10991,24.6381,3.25622,0.62615,0.017502,
0.0942779,0.0151964,0.143892,-2.06782,0.640694,0.144976,-0.0650025,0.146589,-0.0187771,0.145126,-0.308268,-0.0636759,0.667946,0.00799313,-0.56316,0.374935,-0.559701,0.529977,-11.3138,-2.6165,0.0606378,0,0,0,0,0,0,0,0.0907982,0.0155296,0.140458,-2.06038,0.642524,0.129284,-0.0651913,0.209472,0.000511292,0.084563,-0.306803,0.0488499,0.623938,0.00015548,0,0,0,0,0,0,0,-1.05969,-33.4471,-1.10991,24.6381,3.25622,0.62615,0.017502,
0.095408,0.0150559,0.14501,-2.07022,0.639222,0.1501,-0.064933,0.145525,-0.0185338,0.144072,-0.306448,-0.0877433,0.662451,0.00813301,-0.664919,0.152048,-0.658776,1.1372,-15.0421,-3.43414,0.0874238,0,0,0,0,0,0,0,0.0907982,0.0155296,0.140458,-2.06038,0.642524,0.129284,-0.0651913,0.209472,0.000511292,0.084563,-0.306803,0.0488499,0.623938,0.00015548,0,0,0,0,0,0,0,-1.05969,-33.4471,-1.10991,24.6381,3.25622,0.62615,0.017502,
0.0965253,0.0149085,0.146117,-2.07257,0.637444,0.155117,-0.0648608,0.144351,-0.0185132,0.142911,-0.303987,-0.11464,0.655382,0.00831036,-0.734085,0.0128837,-0.725835,1.53834,-16.8102,-4.418,0.110846,0,0,0,0,0,0,0,0.0907982,0.0155296,0.140458,-2.06038,0.642524,0.129284,-0.0651913,0.209472,0.000511292,0.084563,-0.306803,0.0488499,0.623938,0.00015548,0,0,0,0,0,0,0,-1.05969,-33.4471,-1.10991,24.6381,3.25622,0.62615,0.017502,
0.0931414,0.0153428,0.142768,-2.06528,0.641373,0.139556,-0.0650616,0.144535,-0.0175819,0.143099,-0.30406,-0.113288,0.652687,0.00833388,0.115173,0.58205,0.117817,-0.0458897,0.844614,-1.68437,0.0146958,0,0,0,0,0,0,0,0.0959616,0.0155517,0.145046,-2.07057,0.642539,0.150274,-0.0651899,0.247576,-0.000964808,0.0415958,-0.289151,-0.0200509,0.619485,-0.000422117,4.76304,-0.184512,-5.3709,2.2066,-8.61259,-0.55659,-0.0721997,-1.86902,-33.6971,-1.81212,23.8129,2.60254,0.5996,0.0376436,
0.0942887,0.0152127,0.143904,-2.06767,0.640049,0.14463,-0.0649918,0.144311,-0.0173186,0.142882,-0.30304,-0.123728,0.649004,0.0084124,-0.139817,0.164543,-0.135741,0.637886,-6.5249,-2.30187,0.0490741,0,0,0,0,0,0,0,0.0959616,0.0155517,0.145046,-2.07057,0.642539,0.150274,-0.0651899,0.247576,-0.000964808,0.0415958,-0.289151,-0.0200509,0.619485,-0.000422117,0,0,0,0,0,0,0,-1.86902,-33.6971,-1.81212,23.8129,2.60254,0.5996,0.0376436,
0.0954212,0.0150704,0.145025,-2.07003,0.638368,0.149613,-0.0649196,0.143762,-0.0174119,0.14234,-0.301231,-0.141005,0.643775,0.00853664,-0.34343,-0.0582782,-0.338556,1.13048,-10.7979,-3.26832,0.0776533,0,0,0,0,0,0,0,0.0959616,0.0155517,0.145046,-2.07057,0.642539,0.150274,-0.0651899,0.247576,-0.000964808,0.0415958,-0.289151,-0.0200509,0.619485,-0.000422117,0,0,0,0,0,0,0,-1.86902,-33.6971,-1.81212,23.8129,2.60254,0.5996,0.0376436,
0.0982735,0.0153195,0.147317,-2.07533,0.640573,0.160414,-0.0650558,0.143633,-0.0172499,0.142213,-0.300306,-0.143445,0.641357,0.00857477,-0.0804229,0.101218,-0.0797035,0.577771,-1.5252,-1.51149,0.023829,0,0,0,0,0,0,0,0.0959616,0.0155517,0.145046,-2.07057,0.642539,0.150274,-0.0651899,0.247576,-0.000964808,0.0415958,-0.289151,-0.0200509,0.619485,-0.000422117,0,0,0,0,0,0,0,-1.86902,-33.6971,-1.81212,23.8129,2.60254,0.5996,0.0376436,
0.0994046,0.0151712,0.148437,-2.07767,0.638968,0.165382,-0.0649832,0.143183,-0.017508,0.141769,-0.298786,-0.154898,0.637275,0.00867459,-0.281154,-0.161264,-0.277566,0.950458,-7.1581,-2.55101,0.0623876,0,0,0,0,0,0,0,0.101058,0.0153532,0.14944,-2.08044,0.64057,0.171173,-0.0651865,0.254436,-0.00673607,0.0133475,-0.275118,-0.101331,0.595586,-0.000830489,0.857474,-0.721408,-3.53104,1.75402,-10.16,-2.98737,-0.0510465,-1.3136,-32.5505,-1.01073,24.0866,2.24823,0.798269,0.017502,
0.100522,0.0150143,0.149544,-2.07998,0.637082,0.17024,-0.0649087,0.142476,-0.0179291,0.141069,-0.296765,-0.171056,0.631288,0.00880211,-0.442025,-0.263213,-0.437405,1.26318,-10.0984,-3.74191,0.0797041,0,0,0,0,0,0,0,0.101058,0.0153532,0.14944,-2.08044,0.64057,0.171173,-0.0651865,0.254436,-0.00673607,0.0133475,-0.275118,-0.101331,0.595586,-0.000830489,0,0,0,0,0,0,0,-1.3136,-32.5505,-1.01073,24.0866,2.24823,0.798269,0.017502,
0.101625,0.0148521,0.150636,-2.08226,0.635002,0.17498,-0.0648324,0.141573,-0.0183984,0.140176,-0.294378,-0.188854,0.623529,0.00895037,-0.564523,-0.293319,-0.558399,1.49141,-11.1241,-4.84947,0.092662,0,0,0,0,0,0,0,0.101058,0.0153532,0.14944,-2.08044,0.64057,0.171173,-0.0651865,0.254436,-0.00673607,0.0133475,-0.275118,-0.101331,0.595586,-0.000830489,0,0,0,0,0,0,0,-1.3136,-32.5505,-1.01073,24.0866,2.24823,0.798269,0.017502,
0.103251,0.0150508,0.151591,-2.08509,0.637741,0.181049,-0.0650468,0.140548,-0.0187834,0.139164,-0.293572,-0.190993,0.622017,0.00898398,-0.640309,-0.24062,-0.632167,0.503698,-1.33666,-0.945058,0.0210054,0,0,0,0,0,0,0,0.101058,0.0153532,0.14944,-2.08044,0.64057,0.171173,-0.0651865,0.254436,-0.00673607,0.0133475,-0.275118,-0.101331,0.595586,-0.000830489,0,0,0,0,0,0,0,-1.3136,-32.5505,-1.01073,24.0866,2.24823,0.798269,0.017502,
0.104339,0.0148813,0.152668,-2.08739,0.635869,0.185892,-0.0649717,0.139632,-0.0192641,0.138261,-0.292352,-0.199609,0.618677,0.00906557,-0.572603,-0.300422,-0.564446,0.762485,-5.3854,-2.08737,0.0509955,0,0,0,0,0,0,0,0.105818,0.0154746,0.153703,-2.09044,0.636669,0.189602,-0.0651832,0.226923,-0.0091034,0.0274838,-0.29809,-0.134571,0.531922,-0.000430148,-3.43909,-0.295916,1.76704,-2.87139,-4.15509,-7.95805,0.0500427,-1.03589,-33.7486,-0.510851,24.3127,2.15667,0.87792,0.0303194,
0.10542,0.0147093,0.153739,-2.08966,0.633803,0.190624,-0.0648948,0.138742,-0.0197131,0.137382,-0.290687,-0.211329,0.613246,0.0091747,-0.556147,-0.28065,-0.549333,1.04088,-7.32503,-3.39403,0.0682052,0,0,0,0,0,0,0,0.105818,0.0154746,0.153703,-2.09044,0.636669,0.189602,-0.0651832,0.226923,-0.0091034,0.0274838,-0.29809,-0.134571,0.531922,-0.000430148,0,0,0,0,0,0,0,-1.03589,-33.7486,-0.510851,24.3127,2.15667,0.87792,0.0303194,
0.106494,0.0145359,0.154802,-2.0919,0.631618,0.195235,-0.0648168,0.137832,-0.0201046,0.136483,-0.288655,-0.223701,0.605878,0.00929051,-0.568784,-0.244676,-0.561714,1.26983,-7.73226,-4.60532,0.0723812,0,0,0,0,0,0,0,0.105818,0.0154746,0.153703,-2.09044,0.636669,0.189602,-0.0651832,0.226923,-0.0091034,0.0274838,-0.29809,-0.134571,0.531922,-0.000430148,0,0,0,0,0,0,0,-1.03589,-33.7486,-0.510851,24.3127,2.15667,0.87792,0.0303194,
0.107955,0.0152353,0.155803,-2.09517,0.633301,0.198614,-0.0650318,0.137033,-0.019283,0.135697,-0.289649,-0.225002,0.59804,0.00936458,-0.499707,0.51351,-0.491302,-0.621089,-0.813306,-4.89893,0.0462948,0,0,0,0,0,0,0,0.105818,0.0154746,0.153703,-2.09044,0.636669,0.189602,-0.0651832,0.226923,-0.0091034,0.0274838,-0.29809,-0.134571,0.531922,-0.000430148,0,0,0,0,0,0,0,-1.03589,-33.7486,-0.510851,24.3127,2.15667,0.87792,0.0303194,
0.109029,0.015097,0.156867,-2.09748,0.631247,0.203127,-0.0649535,0.136472,-0.0188843,0.135143,-0.28949,-0.231338,0.591265,0.00944986,-0.350187,0.249148,-0.346133,0.0997217,-3.95974,-4.23442,0.0532997,0,0,0,0,0,0,0,0.105818,0.0154746,0.153703,-2.09044,0.636669,0.189602,-0.0651832,0.226923,-0.0091034,0.0274838,-0.29809,-0.134571,0.531922,-0.000430148,0,0,0,0,0,0,0,-1.03589,-33.7486,-0.510851,24.3127,2.15667,0.87792,0.0303194,
0.1101,0.0149508,0.157927,-2.09976,0.629067,0.207579,-0.0648746,0.135959,-0.0187619,0.134632,-0.288447,-0.239579,0.584308,0.00953362,-0.321152,0.0765031,-0.31979,0.651599,-5.15074,-4.34763,0.0523455,0,0,0,0,0,0,0,0.110293,0.0154849,0.158155,-2.0999,0.631953,0.208005,-0.0651739,0.190979,0.0189984,0.0641862,-0.265727,-0.14914,0.536756,0.000841228,-4.49299,3.51273,4.5878,4.04538,-1.82114,0.604306,0.158922,-1.44055,-33.1972,-0.661608,24.6381,1.91864,0.918204,-0.00996382,
0.112406,0.0153951,0.160238,-2.10449,0.628534,0.21708,-0.0650215,0.13523,-0.0169458,0.133913,-0.288235,-0.238085,0.580929,0.00959916,-0.455458,1.13506,-0.449013,0.1325,0.933711,-2.11201,0.0409628,0,0,0,0,0,0,0,0.110293,0.0154849,0.158155,-2.0999,0.631953,0.208005,-0.0651739,0.190979,0.0189984,0.0641862,-0.265727,-0.14914,0.536756,0.000841228,0,0,0,0,0,0,0,-1.44055,-33.1972,-0.661608,24.6381,1.91864,0.918204,-0.00996382,
0.113466,0.0152844,0.161288,-2.10677,0.626486,0.221551,-0.0649417,0.134683,-0.0163245,0.133367,-0.287413,-0.241672,0.5765,0.00967582,-0.342098,0.38834,-0.341359,0.513527,-2.2419,-2.76822,0.0479133,0,0,0,0,0,0,0,0.110293,0.0154849,0.158155,-2.0999,0.631953,0.208005,-0.0651739,0.190979,0.0189984,0.0641862,-0.265727,-0.14914,0.536756,0.000841228,0,0,0,0,0,0,0,-1.44055,-33.1972,-0.661608,24.6381,1.91864,0.918204,-0.00996382,
0.114523,0.0151533,0.162334,-2.10901,0.624335,0.225926,-0.0648613,0.134163,-0.0163369,0.132845,-0.285931,-0.247117,0.570595,0.0097493,-0.324544,-0.0077542,-0.326109,0.926184,-3.4032,-3.6907,0.045927,0,0,0,0,0,0,0,0.110293,0.0154849,0.158155,-2.0999,0.631953,0.208005,-0.0651739,0.190979,0.0189984,0.0641862,-0.265727,-0.14914,0.536756,0.000841228,0,0,0,0,0,0,0,-1.44055,-33.1972,-0.661608,24.6381,1.91864,0.918204,-0.00996382,
0.115573,0.0150084,0.163373,-2.11121,0.62215,0.230199,-0.0647809,0.133589,-0.0166932,0.13227,-0.2839,-0.252328,0.563279,0.00980976,-0.358697,-0.222701,-0.359737,1.26952,-3.25658,-4.57245,0.0377888,0,0,0,0,0,0,0,0.114451,0.0153893,0.162457,-2.10913,0.626101,0.225602,-0.0651696,0.134879,-0.0313614,0.108736,-0.292596,-0.180235,0.491355,-0.000372101,-7.01256,-6.29498,5.56869,-3.3587,-3.88687,-5.67513,-0.151666,-0.0202602,-33.4471,0.762648,24.4873,1.94336,0.752493,0.0376436,
0.116512,0.0149644,0.164498,-2.11368,0.622323,0.233939,-0.0650094,0.132876,-0.0184568,0.131581,-0.283581,-0.25163,0.555756,0.00987493,-0.445761,-1.10226,-0.430194,0.199459,0.435879,-4.70171,0.0407294,0,0,0,0,0,0,0,0.114451,0.0153893,0.162457,-2.10913,0.626101,0.225602,-0.0651696,0.134879,-0.0313614,0.108736,-0.292596,-0.180235,0.491355,-0.000372101,0,0,0,0,0,0,0,-0.0202602,-33.4471,0.762648,24.4873,1.94336,0.752493,0.0376436,
0.11756,0.0147698,0.165536,-2.11591,0.620225,0.238143,-0.0649285,0.132483,-0.0196317,0.131199,-0.282501,-0.253741,0.549703,0.00992333,-0.245413,-0.73426,-0.239344,0.674762,-1.31929,-3.78294,0.0302496,0,0,0,0,0,0,0,0.114451,0.0153893,0.162457,-2.10913,0.626101,0.225602,-0.0651696,0.134879,-0.0313614,0.108736,-0.292596,-0.180235,0.491355,-0.000372101,0,0,0,0,0,0,0,-0.0202602,-33.4471,0.762648,24.4873,1.94336,0.752493,0.0376436,
0.118606,0.0145802,0.166572,-2.1181,0.618091,0.242301,-0.0648478,0.132154,-0.0204442,0.130873,-0.280843,-0.256341,0.543723,0.00995563,-0.206055,-0.507822,-0.203657,1.03623,-1.62464,-3.73762,0.0201891,0,0,0,0,0,0,0,0.114451,0.0153893,0.162457,-2.10913,0.626101,0.225602,-0.0651696,0.134879,-0.0313614,0.108736,-0.292596,-0.180235,0.491355,-0.000372101,0,0,0,0,0,0,0,-0.0202602,-33.4471,0.762648,24.4873,1.94336,0.752493,0.0376436,
0.119648,0.0143931,0.167603,-2.12027,0.615972,0.24639,-0.0647673,0.131757,-0.021034,0.130479,-0.278725,-0.258072,0.537201,0.00997796,-0.247762,-0.368623,-0.245807,1.32434,-1.08228,-4.07641,0.0139528,0,0,0,0,0,0,0,0.118384,0.015384,0.166894,-2.11876,0.619473,0.242438,-0.0651623,0.0774877,0.0120688,0.154138,-0.265258,-0.182915,0.482402,0.000267962,-7.17389,5.42877,5.67534,3.41726,-0.334997,-1.11912,0.0800079,0.66608,-32.5981,1.18715,23.7137,1.79687,0.672842,0.0577852,
0.120354,0.0152532,0.168853,-2.12325,0.615781,0.250747,-0.0650005,0.130391,-0.0191495,0.129139,-0.279096,-0.255133,0.534239,0.0100567,-0.853936,1.17782,-0.837657,-0.231952,1.83738,-1.85107,0.0492324,0,0,0,0,0,0,0,0.118384,0.015384,0.166894,-2.11876,0.619473,0.242438,-0.0651623,0.0774877,0.0120688,0.154138,-0.265258,-0.182915,0.482402,0.000267962,0,0,0,0,0,0,0,0.66608,-32.5981,1.18715,23.7137,1.79687,0.672842,0.0577852,
0.121365,0.0151311,0.169855,-2.12546,0.613733,0.254892,-0.064918,0.129607,-0.0183727,0.128358,-0.278659,-0.255292,0.531006,0.0101086,-0.490055,0.485482,-0.488077,0.273093,-0.0998308,-2.02087,0.032427,0,0,0,0,0,0,0,0.118384,0.015384,0.166894,-2.11876,0.619473,0.242438,-0.0651623,0.0774877,0.0120688,0.154138,-0.265258,-0.182915,0.482402,0.000267962,0,0,0,0,0,0,0,0.66608,-32.5981,1.18715,23.7137,1.79687,0.672842,0.0577852,
0.122381,0.0149903,0.170861,-2.12764,0.611663,0.258968,-0.0648361,0.129074,-0.0182188,0.127821,-0.277426,-0.255994,0.526708,0.0101334,-0.33323,0.0961519,-0.335932,0.77048,-0.438819,-2.68591,0.0154839,0,0,0,0,0,0,0,0.118384,0.015384,0.166894,-2.11876,0.619473,0.242438,-0.0651623,0.0774877,0.0120688,0.154138,-0.265258,-0.182915,0.482402,0.000267962,0,0,0,0,0,0,0,0.66608,-32.5981,1.18715,23.7137,1.79687,0.672842,0.0577852,
0.123395,0.0148362,0.171864,-2.12979,0.609624,0.262962,-0.0647551,0.128602,-0.0184273,0.127343,-0.275533,-0.255752,0.521203,0.0101322,-0.29509,-0.130313,-0.298298,1.18298,0.151223,-3.441,-0.000758302,0,0,0,0,0,0,0,0.122054,0.0154025,0.171539,-2.1278,0.612333,0.259022,-0.0651499,0.0178676,-0.00231567,0.220632,-0.267612,-0.201069,0.454764,0.000526743,-7.45251,-1.79805,8.31174,-0.294228,-2.26915,-3.45478,0.0323476,0.816837,-33.5225,0.937208,24.4357,1.76025,0.474173,-0.00996382,
0.124046,0.0151638,0.173532,-2.13223,0.608586,0.26688,-0.0649874,0.128152,-0.0181279,0.126913,-0.275684,-0.253093,0.516058,0.010181,-0.281123,0.187179,-0.268916,-0.0941002,1.66236,-3.21535,0.0305041,0,0,0,0,0,0,0,0.122054,0.0154025,0.171539,-2.1278,0.612333,0.259022,-0.0651499,0.0178676,-0.00231567,0.220632,-0.267612,-0.201069,0.454764,0.000526743,0,0,0,0,0,0,0,0.816837,-33.5225,0.937208,24.4357,1.76025,0.474173,-0.00996382,
0.125065,0.0150118,0.174541,-2.13441,0.606598,0.270832,-0.0649051,0.127985,-0.0183039,0.126744,-0.27503,-0.252187,0.511647,0.0102044,-0.104263,-0.110026,-0.105767,0.408805,0.565999,-2.75721,0.0146554,0,0,0,0,0,0,0,0.122054,0.0154025,0.171539,-2.1278,0.612333,0.259022,-0.0651499,0.0178676,-0.00231567,0.220632,-0.267612,-0.201069,0.454764,0.000526743,0,0,0,0,0,0,0,0.816837,-33.5225,0.937208,24.4357,1.76025,0.474173,-0.00996382,
0.126083,0.0148487,0.175549,-2.13655,0.604624,0.274735,-0.0648237,0.127846,-0.0187192,0.126598,-0.273617,-0.251094,0.506896,0.0101973,-0.086803,-0.259577,-0.0910585,0.883128,0.683274,-2.96905,-0.00443048,0,0,0,0,0,0,0,0.122054,0.0154025,0.171539,-2.1278,0.612333,0.259022,-0.0651499,0.0178676,-0.00231567,0.220632,-0.267612,-0.201069,0.454764,0.000526743,0,0,0,0,0,0,0,0.816837,-33.5225,0.937208,24.4357,1.76025,0.474173,-0.00996382,
0.127097,0.0146774,0.176552,-2.13866,0.602708,0.278572,-0.0647433,0.127607,-0.0192585,0.126353,-0.271572,-0.248779,0.501445,0.0101677,-0.149505,-0.337046,-0.153082,1.27821,1.44693,-3.40728,-0.0185256,0,0,0,0,0,0,0,0.125552,0.0154063,0.176096,-2.13699,0.604892,0.274962,-0.0651463,0.011218,0.0157188,0.226736,-0.276471,-0.216867,0.464344,-0.00108226,-0.831198,2.25431,0.762926,-1.10741,-1.97483,1.19741,-0.201125,1.24927,-33.5463,1.06416,25.4077,1.75384,0.752493,0.0440523,
0.127521,0.0153549,0.178066,-2.14146,0.601018,0.2827,-0.0649822,0.127021,-0.0168256,0.125776,-0.272868,-0.248543,0.498103,0.0102295,-0.366065,1.52054,-0.360564,-0.810306,0.147591,-2.0885,0.038601,0,0,0,0,0,0,0,0.125552,0.0154063,0.176096,-2.13699,0.604892,0.274962,-0.0651463,0.011218,0.0157188,0.226736,-0.276471,-0.216867,0.464344,-0.00108226,0,0,0,0,0,0,0,1.24927,-33.5463,1.06416,25.4077,1.75384,0.752493,0.0440523,
0.128524,0.0152593,0.179059,-2.14365,0.59903,0.286543,-0.0648996,0.126701,-0.0158515,0.125447,-0.27284,-0.248523,0.494567,0.0102482,-0.200365,0.60885,-0.205907,0.0178107,0.0124562,-2.21004,0.0116973,0,0,0,0,0,0,0,0.125552,0.0154063,0.176096,-2.13699,0.604892,0.274962,-0.0651463,0.011218,0.0157188,0.226736,-0.276471,-0.216867,0.464344,-0.00108226,0,0,0,0,0,0,0,1.24927,-33.5463,1.06416,25.4077,1.75384,0.752493,0.0440523,
0.129527,0.0151365,0.180051,-2.14578,0.597092,0.29033,-0.0648184,0.126421,-0.0157496,0.125157,-0.271704,-0.247287,0.490328,0.01023,-0.174637,0.0636618,-0.181367,0.710003,0.772414,-2.64919,-0.0113296,0,0,0,0,0,0,0,0.125552,0.0154063,0.176096,-2.13699,0.604892,0.274962,-0.0651463,0.011218,0.0157188,0.226736,-0.276471,-0.216867,0.464344,-0.00108226,0,0,0,0,0,0,0,1.24927,-33.5463,1.06416,25.4077,1.75384,0.752493,0.0440523,
0.127521,0.0153607,0.178067,-2.14141,0.600833,0.282737,-0.0649793,0.126061,-0.013965,0.124814,-0.27223,-0.250062,0.489919,0.0102997,-0.225015,1.11542,-0.214461,-0.328855,-1.73465,-0.256068,0.0435362,0,0,0,0,0,0,0,0.129336,0.0154805,0.180153,-2.14606,0.597405,0.29015,-0.0651285,0.0754322,0.00535302,0.163546,-0.258244,-0.214072,0.461998,0.00152528,8.02678,-1.29572,-7.89874,2.27842,0.349428,-0.293205,0.325943,1.52698,-34.1969,1.03639,25.3601,1.82068,1.04363,-0.0301054,
0.128522,0.0152656,0.179058,-2.14356,0.598723,0.286626,-0.0648965,0.125873,-0.0135502,0.124621,-0.271532,-0.25282,0.489163,0.0103092,-0.117686,0.259194,-0.120337,0.436353,-1.72345,-0.472441,0.00592939,0,0,0,0,0,0,0,0.129336,0.0154805,0.180153,-2.14606,0.597405,0.29015,-0.0651285,0.0754322,0.00535302,0.163546,-0.258244,-0.214072,0.461998,0.00152528,0,0,0,0,0,0,0,1.52698,-34.1969,1.03639,25.3601,1.82068,1.04363,-0.0301054,
0.12952,0.0151424,0.180045,-2.14567,0.596655,0.290473,-0.0648156,0.125643,-0.0139209,0.124383,-0.269831,-0.253952,0.487504,0.01027,-0.143674,-0.23164,-0.148622,1.06267,-0.707415,-1.03655,-0.0244806,0,0,0,0,0,0,0,0.129336,0.0154805,0.180153,-2.14606,0.597405,0.29015,-0.0651285,0.0754322,0.00535302,0.163546,-0.258244,-0.214072,0.461998,0.00152528,0,0,0,0,0,0,0,1.52698,-34.1969,1.03639,25.3601,1.82068,1.04363,-0.0301054,
0.13051,0.0149987,0.181025,-2.14773,0.594669,0.294266,-0.0647364,0.12527,-0.0147277,0.124004,-0.267353,-0.252812,0.484827,0.0101973,-0.23343,-0.504243,-0.237341,1.54918,0.712463,-1.67305,-0.0454324,0,0,0,0,0,0,0,0.129336,0.0154805,0.180153,-2.14606,0.597405,0.29015,-0.0651285,0.0754322,0.00535302,0.163546,-0.258244,-0.214072,0.461998,0.00152528,0,0,0,0,0,0,0,1.52698,-34.1969,1.03639,25.3601,1.82068,1.04363,-0.0301054,
0.131393,0.0152719,0.182205,-2.1503,0.591731,0.299035,-0.0649439,0.12628,-0.0150713,0.125072,-0.266657,-0.279517,0.50259,0.0104331,0.631835,-0.214751,0.667933,0.434506,-16.6909,11.1014,0.147374,0,0,0,0,0,0,0,0.133481,0.0153232,0.183697,-2.15489,0.590302,0.304648,-0.0651176,0.172532,-0.0140304,0.044052,-0.263935,-0.211732,0.428812,0.000617717,12.1375,-2.42293,-14.9367,-0.711355,0.292416,-4.1482,-0.113446,0.384403,-32.126,0.163588,23.0908,1.79046,0.805594,-0.00996382,
0.132437,0.0151114,0.183239,-2.15237,0.588381,0.303761,-0.0648577,0.127114,-0.0160711,0.125917,-0.265269,-0.307365,0.520227,0.0105034,0.521187,-0.624913,0.527666,0.867655,-17.4049,11.0236,0.0439238,0,0,0,0,0,0,0,0.133481,0.0153232,0.183697,-2.15489,0.590302,0.304648,-0.0651176,0.172532,-0.0140304,0.044052,-0.263935,-0.211732,0.428812,0.000617717,0,0,0,0,0,0,0,0.384403,-32.126,0.163588,23.0908,1.79046,0.805594,-0.00996382,
0.133469,0.0149338,0.184262,-2.15441,0.584929,0.308539,-0.0647749,0.1275,-0.0172966,0.126295,-0.263215,-0.332206,0.535632,0.0104716,0.240934,-0.765949,0.236549,1.28411,-15.5257,9.62768,-0.0198884,0,0,0,0,0,0,0,0.133481,0.0153232,0.183697,-2.15489,0.590302,0.304648,-0.0651176,0.172532,-0.0140304,0.044052,-0.263935,-0.211732,0.428812,0.000617717,0,0,0,0,0,0,0,0.384403,-32.126,0.163588,23.0908,1.79046,0.805594,-0.00996382,
0.132861,0.0149577,0.18368,-2.15231,0.577749,0.310134,-0.0647712,0.131992,-0.0192873,0.130855,-0.262347,-0.462723,0.617124,0.0109376,2.80731,-1.24415,2.8502,0.54212,-81.5733,50.9328,0.291251,0,0,0,0,0,0,0,0.133481,0.0153232,0.183697,-2.15489,0.590302,0.304648,-0.0651176,0.172532,-0.0140304,0.044052,-0.263935,-0.211732,0.428812,0.000617717,0,0,0,0,0,0,0,0.384403,-32.126,0.163588,23.0908,1.79046,0.805594,-0.00996382,
0.136868,0.0146624,0.18707,-2.16106,0.571088,0.324214,-0.0647601,0.134617,-0.0214288,0.133548,-0.260769,-0.562033,0.679461,0.0112951,1.64086,-1.33846,1.68321,0.986378,-62.0687,38.9604,0.223473,0,0,0,0,0,0,0,0.133481,0.0153232,0.183697,-2.15489,0.590302,0.304648,-0.0651176,0.172532,-0.0140304,0.044052,-0.263935,-0.211732,0.428812,0.000617717,0,0,0,0,0,0,0,0.384403,-32.126,0.163588,23.0908,1.79046,0.805594,-0.00996382,
0.138004,0.0144235,0.188197,-2.16307,0.562901,0.332041,-0.0646679,0.136082,-0.0231148,0.135009,-0.258672,-0.654296,0.739247,0.0113417,0.915624,-1.05376,0.912692,1.3106,-57.6641,37.3662,0.0290889,0,0,0,0,0,0,0,0.137664,0.01541,0.186978,-2.16368,0.583322,0.318416,-0.0651109,0.210779,0.0112611,0.00693691,-0.257446,-0.213631,0.388755,0.000846662,4.78089,3.16144,-4.63939,0.811109,-0.237268,-5.00711,0.0286181,-0.95654,-33.1972,-0.788561,25.7092,1.46728,1.43548,-0.0163725,
0.139098,0.01419,0.189281,-2.16503,0.5545,0.340057,-0.0645817,0.136223,-0.0243303,0.13512,-0.256082,-0.733456,0.7918,0.0112283,0.0881827,-0.759667,0.0693668,1.61854,-49.4754,32.846,-0.0708563,0,0,0,0,0,0,0,0.137664,0.01541,0.186978,-2.16368,0.583322,0.318416,-0.0651109,0.210779,0.0112611,0.00693691,-0.257446,-0.213631,0.388755,0.000846662,0,0,0,0,0,0,0,-0.95654,-33.1972,-0.788561,25.7092,1.46728,1.43548,-0.0163725,
0.139628,0.0152409,0.188908,-2.16752,0.570119,0.32962,-0.064792,0.133529,-0.022606,0.132463,-0.252262,-0.780224,0.789065,0.0128073,-1.68388,1.07771,-1.6607,2.3878,-29.23,-1.7092,0.986851,0,0,0,0,0,0,0,0.137664,0.01541,0.186978,-2.16368,0.583322,0.318416,-0.0651109,0.210779,0.0112611,0.00693691,-0.257446,-0.213631,0.388755,0.000846662,0,0,0,0,0,0,0,-0.95654,-33.1972,-0.788561,25.7092,1.46728,1.43548,-0.0163725,
0.140583,0.0150716,0.189857,-2.16938,0.560975,0.336678,-0.0646473,0.130717,-0.0223153,0.129694,-0.248316,-0.852786,0.807697,0.0138621,-1.75724,0.181651,-1.73056,2.46622,-45.3509,11.6444,0.659254,0,0,0,0,0,0,0,0.137664,0.01541,0.186978,-2.16368,0.583322,0.318416,-0.0651109,0.210779,0.0112611,0.00693691,-0.257446,-0.213631,0.388755,0.000846662,0,0,0,0,0,0,0,-0.95654,-33.1972,-0.788561,25.7092,1.46728,1.43548,-0.0163725,
0.1415,0.0148833,0.190767,-2.17121,0.550953,0.344294,-0.0645062,0.127489,-0.0225616,0.126504,-0.244334,-0.932776,0.83657,0.0146161,-2.0176,-0.15393,-1.9934,2.48897,-49.9939,18.046,0.471265,0,0,0,0,0,0,0,0.141894,0.0154013,0.190633,-2.17233,0.571354,0.333776,-0.0650867,0.18377,-0.0109065,0.0509749,-0.247151,-0.552286,0.538535,0.000628567,-3.3761,-2.77095,5.50475,1.28684,-42.332,18.7224,-0.0272619,-0.0718349,-33.0226,0.536512,24.6381,0.526119,2.07177,-0.0227812,
0.142376,0.0146899,0.191636,-2.173,0.54038,0.352288,-0.0643667,0.123884,-0.0228827,0.122934,-0.240302,-1.01053,0.869098,0.0151815,-2.25312,-0.200695,-2.2312,2.5196,-48.5978,20.3301,0.353358,0,0,0,0,0,0,0,0.141894,0.0154013,0.190633,-2.17233,0.571354,0.333776,-0.0650867,0.18377,-0.0109065,0.0509749,-0.247151,-0.552286,0.538535,0.000628567,0,0,0,0,0,0,0,-0.0718349,-33.0226,0.536512,24.6381,0.526119,2.07177,-0.0227812,
0.143856,0.015065,0.192572,-2.17608,0.555484,0.346306,-0.0647819,0.123394,-0.0229682,0.122487,-0.238648,-1.02729,0.864143,0.0158729,-0.306458,-0.0533991,-0.279897,1.03365,-10.4741,-3.09689,0.432121,0,0,0,0,0,0,0,0.141894,0.0154013,0.190633,-2.17233,0.571354,0.333776,-0.0650867,0.18377,-0.0109065,0.0509749,-0.247151,-0.552286,0.538535,0.000628567,0,0,0,0,0,0,0,-0.0718349,-33.0226,0.536512,24.6381,0.526119,2.07177,-0.0227812,
0.144792,0.0148629,0.193502,-2.17791,0.545714,0.353714,-0.0646384,0.122131,-0.0234277,0.121252,-0.236501,-1.06607,0.876511,0.0162873,-0.789004,-0.287196,-0.771495,1.34203,-24.2398,7.7297,0.259027,0,0,0,0,0,0,0,0.141894,0.0154013,0.190633,-2.17233,0.571354,0.333776,-0.0650867,0.18377,-0.0109065,0.0509749,-0.247151,-0.552286,0.538535,0.000628567,0,0,0,0,0,0,0,-0.0718349,-33.0226,0.536512,24.6381,0.526119,2.07177,-0.0227812,
0.145688,0.0146582,0.194392,-2.1797,0.535311,0.36156,-0.0644975,0.120102,-0.02386,0.119242,-0.233959,-1.11294,0.897355,0.0165521,-1.2682,-0.270231,-1.25628,1.58852,-29.2918,13.0276,0.165497,0,0,0,0,0,0,0,0.146346,0.0153215,0.195114,-2.18062,0.547881,0.355957,-0.0650545,0.108514,0.0017181,0.144157,-0.235514,-0.782167,0.667504,0.00498851,-9.40705,1.57807,11.6478,1.45457,-28.7351,16.1212,0.544993,-0.452694,-32.3006,0.211195,24.3604,0.60577,1.93902,0.017502,
0.146545,0.0144582,0.195242,-2.18145,0.524511,0.369701,-0.0643583,0.117495,-0.0240888,0.11665,-0.231063,-1.16035,0.921401,0.0167204,-1.62932,-0.142956,-1.61983,1.81055,-29.6284,15.0289,0.105156,0,0,0,0,0,0,0,0.146346,0.0153215,0.195114,-2.18062,0.547881,0.355957,-0.0650545,0.108514,0.0017181,0.144157,-0.235514,-0.782167,0.667504,0.00498851,0,0,0,0,0,0,0,-0.452694,-32.3006,0.211195,24.3604,0.60577,1.93902,0.017502,
0.148317,0.0150935,0.197078,-2.18435,0.530236,0.369571,-0.064757,0.118219,-0.0227553,0.117398,-0.231021,-1.164,0.916325,0.017055,0.452512,0.833424,0.467115,0.026276,-2.28144,-3.17249,0.209171,0,0,0,0,0,0,0,0.146346,0.0153215,0.195114,-2.18062,0.547881,0.355957,-0.0650545,0.108514,0.0017181,0.144157,-0.235514,-0.782167,0.667504,0.00498851,0,0,0,0,0,0,0,-0.452694,-32.3006,0.211195,24.3604,0.60577,1.93902,0.017502,
0.149242,0.0149307,0.197997,-2.18616,0.520055,0.377221,-0.0646139,0.117697,-0.0222751,0.116881,-0.230117,-1.18571,0.924318,0.0172218,-0.32665,0.300098,-0.323146,0.564994,-13.5715,4.99574,0.104253,0,0,0,0,0,0,0,0.146346,0.0153215,0.195114,-2.18062,0.547881,0.355957,-0.0650545,0.108514,0.0017181,0.144157,-0.235514,-0.782167,0.667504,0.00498851,0,0,0,0,0,0,0,-0.452694,-32.3006,0.211195,24.3604,0.60577,1.93902,0.017502,
0.150123,0.0147593,0.198871,-2.18793,0.509408,0.385198,-0.0644735,0.116187,-0.0221052,0.115371,-0.228447,-1.21474,0.938861,0.0172881,-0.943466,0.106186,-0.943499,1.04327,-18.1435,9.0892,0.0414138,0,0,0,0,0,0,0,0.150465,0.0153681,0.200385,-2.18852,0.516795,0.379508,-0.0649553,0.0420359,0.00823765,0.226913,-0.227052,-0.955609,0.684717,0.00422588,-8.30977,0.814944,10.3445,1.05784,-21.6803,2.15157,-0.0953283,-1.15887,-33.1972,-0.93535,25.8322,0.782467,1.98571,0.0440523,
0.15248,0.0152047,0.202405,-2.19226,0.497887,0.393208,-0.0646658,0.117609,-0.0203676,0.116801,-0.229228,-1.21917,0.930518,0.0174573,0.888756,1.08603,0.893398,-0.487975,-2.76722,-5.2144,0.105775,0,0,0,0,0,0,0,0.150465,0.0153681,0.200385,-2.18852,0.516795,0.379508,-0.0649553,0.0420359,0.00823765,0.226913,-0.227052,-0.955609,0.684717,0.00422588,0,0,0,0,0,0,0,-1.15887,-33.1972,-0.93535,25.8322,0.782467,1.98571,0.0440523,
0.153414,0.0150742,0.203333,-2.19408,0.487441,0.400817,-0.064524,0.117449,-0.0195575,0.11663,-0.22882,-1.23649,0.934644,0.0175107,-0.0998274,0.506311,-0.106709,0.25478,-10.8244,2.57854,0.0333661,0,0,0,0,0,0,0,0.150465,0.0153681,0.200385,-2.18852,0.516795,0.379508,-0.0649553,0.0420359,0.00823765,0.226913,-0.227052,-0.955609,0.684717,0.00422588,0,0,0,0,0,0,0,-1.15887,-33.1972,-0.93535,25.8322,0.782467,1.98571,0.0440523,
0.154301,0.0149336,0.204212,-2.19585,0.476655,0.408721,-0.0643849,0.116126,-0.0191596,0.115294,-0.227336,-1.25886,0.945302,0.017487,-0.826871,0.248711,-0.835109,0.92794,-13.9817,6.66143,-0.0148029,0,0,0,0,0,0,0,0.150465,0.0153681,0.200385,-2.18852,0.516795,0.379508,-0.0649553,0.0420359,0.00823765,0.226913,-0.227052,-0.955609,0.684717,0.00422588,0,0,0,0,0,0,0,-1.15887,-33.1972,-0.93535,25.8322,0.782467,1.98571,0.0440523,
0.155146,0.0147901,0.205051,-2.19757,0.465659,0.416828,-0.0642483,0.114036,-0.0189159,0.113192,-0.224974,-1.28196,0.958908,0.0174039,-1.30672,0.152264,-1.31377,1.47599,-14.4409,8.50353,-0.0519977,0,0,0,0,0,0,0,0.154218,0.0153882,0.205351,-2.19647,0.481242,0.405225,-0.0648463,0.0223908,0.00495819,0.222345,-0.210289,-1.07518,0.780338,0.00353253,-2.45563,-0.409932,-0.571021,2.09539,-14.9467,11.9527,-0.0866693,0.285221,-33.2964,0.0882092,24.8087,0.850216,2.07177,0.00376909,
0.15606,0.0151805,0.2072,-2.20005,0.461445,0.419859,-0.0645608,0.113866,-0.0182751,0.113042,-0.224717,-1.28114,0.956104,0.0175194,-0.106238,0.400554,-0.0937181,0.160909,0.517338,-1.7525,0.0722458,0,0,0,0,0,0,0,0.154218,0.0153882,0.205351,-2.19647,0.481242,0.405225,-0.0648463,0.0223908,0.00495819,0.222345,-0.210289,-1.07518,0.780338,0.00353253,0,0,0,0,0,0,0,0.285221,-33.2964,0.0882092,24.8087,0.850216,2.07177,0.00376909,
0.156925,0.0150382,0.208059,-2.20181,0.450817,0.427724,-0.0644199,0.112735,-0.0181766,0.111909,-0.223647,-1.29061,0.961508,0.0175366,-0.706786,0.061555,-0.708229,0.668809,-5.91942,3.37792,0.0107284,0,0,0,0,0,0,0,0.154218,0.0153882,0.205351,-2.19647,0.481242,0.405225,-0.0648463,0.0223908,0.00495819,0.222345,-0.210289,-1.07518,0.780338,0.00353253,0,0,0,0,0,0,0,0.285221,-33.2964,0.0882092,24.8087,0.850216,2.07177,0.00376909,
0.157755,0.0148906,0.208881,-2.20352,0.439942,0.435792,-0.0642822,0.110924,-0.0182303,0.11009,-0.221734,-1.30437,0.970896,0.0174721,-1.13204,-0.0335914,-1.13669,1.19514,-8.59984,5.86714,-0.0403428,0,0,0,0,0,0,0,0.154218,0.0153882,0.205351,-2.19647,0.481242,0.405225,-0.0648463,0.0223908,0.00495819,0.222345,-0.210289,-1.07518,0.780338,0.00353253,0,0,0,0,0,0,0,0.285221,-33.2964,0.0882092,24.8087,0.850216,2.07177,0.00376909,
0.158553,0.0147433,0.209672,-2.20519,0.428919,0.443995,-0.0641475,0.108699,-0.0182679,0.107857,-0.219108,-1.31907,0.981806,0.0173462,-1.39058,-0.0234921,-1.39566,1.64149,-9.18767,6.81885,-0.0786707,0,0,0,0,0,0,0,0.157992,0.0153806,0.20955,-2.20412,0.441454,0.433392,-0.0647394,0.0664229,-0.00230203,0.15318,-0.226133,-1.22571,0.886696,0.000472717,5.50402,-0.907528,-8.64569,-1.98057,-18.8164,13.2947,-0.382476,0.967594,-33.0504,0.461134,24.5111,1.43066,2.19811,0.0440523,
0.159657,0.0151913,0.21121,-2.20771,0.420409,0.448779,-0.0644605,0.107434,-0.0173255,0.106598,-0.219666,-1.32261,0.981321,0.017398,-0.790395,0.589002,-0.787017,-0.348681,-2.2167,-0.302785,0.0323966,0,0,0,0,0,0,0,0.157992,0.0153806,0.20955,-2.20412,0.441454,0.433392,-0.0647394,0.0664229,-0.00230203,0.15318,-0.226133,-1.22571,0.886696,0.000472717,0,0,0,0,0,0,0,0.967594,-33.0504,0.461134,24.5111,1.43066,2.19811,0.0440523,
0.160448,0.0150696,0.211994,-2.20944,0.409509,0.456799,-0.0643224,0.105721,-0.0169026,0.104881,-0.218945,-1.3306,0.985565,0.0173697,-1.07058,0.264329,-1.07289,0.450445,-4.99287,2.65212,-0.0176988,0,0,0,0,0,0,0,0.157992,0.0153806,0.20955,-2.20412,0.441454,0.433392,-0.0647394,0.0664229,-0.00230203,0.15318,-0.226133,-1.22571,0.886696,0.000472717,0,0,0,0,0,0,0,0.967594,-33.0504,0.461134,24.5111,1.43066,2.19811,0.0440523,
0.161215,0.014942,0.212754,-2.21112,0.398489,0.464943,-0.0641873,0.103747,-0.0167133,0.102902,-0.217169,-1.33997,0.992057,0.0172737,-1.23351,0.118267,-1.2371,1.10993,-5.85439,4.05778,-0.0599997,0,0,0,0,0,0,0,0.157992,0.0153806,0.20955,-2.20412,0.441454,0.433392,-0.0647394,0.0664229,-0.00230203,0.15318,-0.226133,-1.22571,0.886696,0.000472717,0,0,0,0,0,0,0,0.967594,-33.0504,0.461134,24.5111,1.43066,2.19811,0.0440523,
0.161962,0.0148126,0.213494,-2.21275,0.387405,0.47317,-0.0640554,0.101671,-0.0166042,0.100819,-0.214573,-1.34909,0.999313,0.0171173,-1.29757,0.068234,-1.30142,1.62272,-5.69916,4.53484,-0.097749,0,0,0,0,0,0,0,0.161743,0.0154212,0.21291,-2.21188,0.399654,0.462401,-0.0646534,0.118369,0.000283865,0.0703831,-0.220698,-1.34417,0.850084,0.000697298,6.49321,0.323237,-10.3496,0.679379,-14.8069,-4.57657,0.0280726,-0.373349,-33.4471,-0.713182,25.6339,1.35742,2.19811,0.0376436,
0.163239,0.015279,0.214389,-2.21548,0.377762,0.47748,-0.0643822,0.0998722,-0.015323,0.0990266,-0.216174,-1.35426,0.991908,0.0171348,-1.12451,0.800722,-1.12042,-1.00094,-3.23304,-4.62823,0.0109559,0,0,0,0,0,0,0,0.161743,0.0154212,0.21291,-2.21188,0.399654,0.462401,-0.0646534,0.118369,0.000283865,0.0703831,-0.220698,-1.34417,0.850084,0.000697298,0,0,0,0,0,0,0,-0.373349,-33.4471,-0.713182,25.6339,1.35742,2.19811,0.0376436,
0.164003,0.0150596,0.215154,-2.21702,0.369173,0.484366,-0.0638571,0.0990075,-0.0177438,0.0983251,-0.211522,-1.29814,0.96567,0.0268342,-0.54042,-1.51298,-0.438419,2.90803,35.0787,-16.3984,6.06211,0,0,0,0,0,0,0,0.161743,0.0154212,0.21291,-2.21188,0.399654,0.462401,-0.0646534,0.118369,0.000283865,0.0703831,-0.220698,-1.34417,0.850084,0.000697298,0,0,0,0,0,0,0,-0.373349,-33.4471,-0.713182,25.6339,1.35742,2.19811,0.0376436,
0.164828,0.0146935,0.215983,-2.21837,0.362263,0.490334,-0.0630993,0.0998258,-0.0233466,0.0993848,-0.20291,-1.21126,0.921744,0.0404129,0.511413,-3.50178,0.662334,5.38222,54.2964,-27.4537,8.4867,0,0,0,0,0,0,0,0.161743,0.0154212,0.21291,-2.21188,0.399654,0.462401,-0.0646534,0.118369,0.000283865,0.0703831,-0.220698,-1.34417,0.850084,0.000697298,0,0,0,0,0,0,0,-0.373349,-33.4471,-0.713182,25.6339,1.35742,2.19811,0.0376436,
0.165733,0.0141912,0.216895,-2.21957,0.356522,0.495463,-0.0621898,0.102497,-0.0312348,0.102318,-0.192379,-1.11254,0.865605,0.0550692,1.66945,-4.93014,1.83307,6.58168,61.7031,-35.0868,9.16014,0,0,0,0,0,0,0,0.161743,0.0154212,0.21291,-2.21188,0.399654,0.462401,-0.0646534,0.118369,0.000283865,0.0703831,-0.220698,-1.34417,0.850084,0.000697298,0,0,0,0,0,0,0,-0.373349,-33.4471,-0.713182,25.6339,1.35742,2.19811,0.0376436,
0.167193,0.0148248,0.217264,-2.22258,0.341757,0.503921,-0.0632883,0.102992,-0.0359281,0.103,-0.186439,-1.05026,0.834499,0.0636098,0.309276,-2.9333,0.426146,3.71286,38.9197,-19.4416,5.33791,0,0,0,0,0,0,0,0.165578,0.015497,0.215656,-2.21975,0.356108,0.49178,-0.0645847,0.178789,-0.00161718,-0.000328356,-0.226752,-1.26305,0.870754,0.00131284,7.55252,-0.23763,-8.83893,-0.756688,10.1404,2.58383,0.076943,-1.38897,-33.5463,-1.13768,26.0306,1.44256,2.55608,0.11821,
0.168117,0.014203,0.218196,-2.2237,0.336374,0.508821,-0.062331,0.105482,-0.044287,0.105702,-0.177288,-0.974783,0.790089,0.0748196,1.55632,-5.22429,1.68908,5.71915,47.1759,-27.7561,7.0061,0,0,0,0,0,0,0,0.165578,0.015497,0.215656,-2.21975,0.356108,0.49178,-0.0645847,0.178789,-0.00161718,-0.000328356,-0.226752,-1.26305,0.870754,0.00131284,0,0,0,0,0,0,0,-1.38897,-33.5463,-1.13768,26.0306,1.44256,2.55608,0.11821,
0.169126,0.013423,0.219214,-2.22469,0.331664,0.513027,-0.0612524,0.109604,-0.0549307,0.110022,-0.166635,-0.897572,0.737223,0.0868203,2.57608,-6.6523,2.69971,6.65798,48.2573,-33.0417,7.50048,0,0,0,0,0,0,0,0.165578,0.015497,0.215656,-2.21975,0.356108,0.49178,-0.0645847,0.178789,-0.00161718,-0.000328356,-0.226752,-1.26305,0.870754,0.00131284,0,0,0,0,0,0,0,-1.38897,-33.5463,-1.13768,26.0306,1.44256,2.55608,0.11821,
0.167203,0.0148564,0.217273,-2.22254,0.341734,0.503901,-0.0632968,0.108819,-0.0544349,0.109299,-0.165277,-0.878601,0.731527,0.0888997,-0.490092,0.309891,-0.451388,0.848787,11.8566,-3.55971,1.2996,0,0,0,0,0,0,0,0.165578,0.015497,0.215656,-2.21975,0.356108,0.49178,-0.0645847,0.178789,-0.00161718,-0.000328356,-0.226752,-1.26305,0.870754,0.00131284,0,0,0,0,0,0,0,-1.38897,-33.5463,-1.13768,26.0306,1.44256,2.55608,0.11821,
0.168133,0.0142537,0.218211,-2.22364,0.336338,0.508789,-0.0623436,0.110297,-0.0586141,0.110888,-0.159735,-0.837803,0.707429,0.094949,0.923295,-2.61203,0.99256,3.4637,25.4987,-15.061,3.7808,0,0,0,0,0,0,0,0.168619,0.0156102,0.218375,-2.2267,0.317527,0.519649,-0.0639802,0.0931252,-0.00273317,0.0634834,-0.18768,-0.915173,0.732345,0.0434826,-10.708,-0.139499,7.97646,4.88394,43.4842,-17.3012,5.27121,0.285221,-33.6217,1.03639,24.4357,1.35742,2.49566,0.104477,
0.169147,0.0134928,0.219235,-2.2246,0.331613,0.512983,-0.0612689,0.113602,-0.0659146,0.114309,-0.151945,-0.788363,0.670778,0.102828,2.0658,-4.56284,2.13829,4.86907,30.8999,-22.9073,4.92422,0,0,0,0,0,0,0,0.168619,0.0156102,0.218375,-2.2267,0.317527,0.519649,-0.0639802,0.0931252,-0.00273317,0.0634834,-0.18768,-0.915173,0.732345,0.0434826,0,0,0,0,0,0,0,0.285221,-33.6217,1.03639,24.4357,1.35742,2.49566,0.104477,
0.170241,0.0126022,0.220339,-2.22547,0.327316,0.516589,-0.0601079,0.118237,-0.0749967,0.119043,-0.143193,-0.738101,0.626769,0.111287,2.89694,-5.67629,2.95865,5.47013,31.4136,-27.5058,5.28724,0,0,0,0,0,0,0,0.168619,0.0156102,0.218375,-2.2267,0.317527,0.519649,-0.0639802,0.0931252,-0.00273317,0.0634834,-0.18768,-0.915173,0.732345,0.0434826,0,0,0,0,0,0,0,0.285221,-33.6217,1.03639,24.4357,1.35742,2.49566,0.104477,
0.170256,0.0144125,0.220034,-2.22882,0.306495,0.5281,-0.0630392,0.116678,-0.079103,0.117648,-0.138288,-0.717134,0.59583,0.101787,-0.974476,-2.56645,-0.871894,3.06527,13.1047,-19.3367,-5.9378,0,0,0,0,0,0,0,0.168619,0.0156102,0.218375,-2.2267,0.317527,0.519649,-0.0639802,0.0931252,-0.00273317,0.0634834,-0.18768,-0.915173,0.732345,0.0434826,0,0,0,0,0,0,0,0.285221,-33.6217,1.03639,24.4357,1.35742,2.49566,0.104477,
0.171262,0.0133976,0.221053,-2.22961,0.302004,0.53119,-0.0624543,0.118478,-0.0886562,0.11959,-0.130375,-0.685971,0.553924,0.0960519,1.12532,-5.9707,1.21424,4.94572,19.4768,-26.1912,-3.58431,0,0,0,0,0,0,0,0.170704,0.0152876,0.2218,-2.23256,0.290326,0.541687,-0.0622334,0.00202097,-0.0151802,0.148497,-0.156554,-0.700654,0.604073,0.055062,-11.388,-1.55587,10.6268,3.89074,26.8148,-16.034,1.44743,2.46723,-33.1496,2.38923,23.8882,1.61377,1.88592,0.245468,
0.172375,0.0122015,0.222178,-2.23029,0.297867,0.533762,-0.0617998,0.122602,-0.100827,0.123813,-0.121266,-0.652208,0.507436,0.0932065,2.57733,-7.60688,2.63932,5.69331,21.1022,-29.0549,-1.77839,0,0,0,0,0,0,0,0.170704,0.0152876,0.2218,-2.23256,0.290326,0.541687,-0.0622334,0.00202097,-0.0151802,0.148497,-0.156554,-0.700654,0.604073,0.055062,0,0,0,0,0,0,0,2.46723,-33.1496,2.38923,23.8882,1.61377,1.88592,0.245468,
0.173578,0.0108815,0.223394,-2.23089,0.293933,0.535947,-0.0610804,0.128172,-0.113662,0.129434,-0.112083,-0.620116,0.460559,0.0925491,3.4813,-8.02146,3.51274,5.73911,20.0569,-29.2985,-0.410864,0,0,0,0,0,0,0,0.170704,0.0152876,0.2218,-2.23256,0.290326,0.541687,-0.0622334,0.00202097,-0.0151802,0.148497,-0.156554,-0.700654,0.604073,0.055062,0,0,0,0,0,0,0,2.46723,-33.1496,2.38923,23.8882,1.61377,1.88592,0.245468,
0.172414,0.0136942,0.223555,-2.23426,0.281324,0.548642,-0.0611565,0.125999,-0.115394,0.127411,-0.108281,-0.602621,0.445281,0.0882613,-1.35829,-1.08304,-1.26434,2.37604,10.9344,-9.54871,-2.67991,0,0,0,0,0,0,0,0.170704,0.0152876,0.2218,-2.23256,0.290326,0.541687,-0.0622334,0.00202097,-0.0151802,0.148497,-0.156554,-0.700654,0.604073,0.055062,0,0,0,0,0,0,0,2.46723,-33.1496,2.38923,23.8882,1.61377,1.88592,0.245468,
0.173488,0.0124548,0.224643,-2.23486,0.277337,0.551104,-0.0605272,0.127645,-0.1233,0.129147,-0.101762,-0.581758,0.417789,0.0863399,1.02856,-4.94116,1.08515,4.07478,13.0399,-17.1825,-1.20088,0,0,0,0,0,0,0,0.173381,0.0144219,0.2246,-2.2374,0.268328,0.560644,-0.0601766,0.117797,-0.0257905,0.04307,-0.128622,-0.643623,0.498727,0.0447974,14.4721,-1.32629,-13.1784,3.4915,7.12882,-13.1683,-1.28307,1.83246,-34.1969,1.61165,24.0628,1.60736,1.82,0.352585,
0.174672,0.0110373,0.225841,-2.23537,0.27349,0.553113,-0.0598393,0.131728,-0.134076,0.133263,-0.0942458,-0.561573,0.384441,0.0862701,2.55218,-6.73496,2.57246,4.69749,12.6151,-20.8423,-0.0435877,0,0,0,0,0,0,0,0.173381,0.0144219,0.2246,-2.2374,0.268328,0.560644,-0.0601766,0.117797,-0.0257905,0.04307,-0.128622,-0.643623,0.498727,0.0447974,0,0,0,0,0,0,0,1.83246,-34.1969,1.61165,24.0628,1.60736,1.82,0.352585,
0.175945,0.00950664,0.227126,-2.23583,0.269697,0.554789,-0.0590954,0.137207,-0.145528,0.138722,-0.0867874,-0.544106,0.349456,0.0876149,3.4245,-7.15732,3.41176,4.66156,10.9173,-21.8655,0.840478,0,0,0,0,0,0,0,0.173381,0.0144219,0.2246,-2.2374,0.268328,0.560644,-0.0601766,0.117797,-0.0257905,0.04307,-0.128622,-0.643623,0.498727,0.0447974,0,0,0,0,0,0,0,1.83246,-34.1969,1.61165,24.0628,1.60736,1.82,0.352585,
0.175214,0.012501,0.226459,-2.23882,0.259542,0.566151,-0.0592615,0.134707,-0.145245,0.136323,-0.0849534,-0.540518,0.340212,0.0823786,-1.56298,0.176622,-1.49898,1.14621,2.24213,-5.77755,-3.27271,0,0,0,0,0,0,0,0.173381,0.0144219,0.2246,-2.2374,0.268328,0.560644,-0.0601766,0.117797,-0.0257905,0.04307,-0.128622,-0.643623,0.498727,0.0447974,0,0,0,0,0,0,0,1.83246,-34.1969,1.61165,24.0628,1.60736,1.82,0.352585,
0.176347,0.0110897,0.227608,-2.23932,0.255531,0.568084,-0.0587036,0.136106,-0.151478,0.137765,-0.0803999,-0.532667,0.320493,0.0798482,0.874819,-3.89533,0.900815,2.84593,4.90729,-12.3246,-1.58151,0,0,0,0,0,0,0,0.176975,0.0124255,0.227058,-2.24108,0.250567,0.572855,-0.0589839,0.144439,-0.0784273,0.0379648,-0.106705,-0.506073,0.307213,0.0331858,3.33023,-6.5796,-0.638155,2.7397,17.1938,-23.9392,-1.45145,1.2215,-34.3199,1.71083,24.4119,0.97839,2.39037,0.467026,
0.177589,0.00951195,0.228862,-2.23973,0.25161,0.569652,-0.0580817,0.139934,-0.160626,0.141575,-0.074757,-0.52416,0.295595,0.0794277,2.39241,-5.71767,2.38122,3.52682,5.31654,-15.561,-0.262806,0,0,0,0,0,0,0,0.176975,0.0124255,0.227058,-2.24108,0.250567,0.572855,-0.0589839,0.144439,-0.0784273,0.0379648,-0.106705,-0.506073,0.307213,0.0331858,0,0,0,0,0,0,0,1.2215,-34.3199,1.71083,24.4119,0.97839,2.39037,0.467026,
0.178915,0.0078352,0.230199,-2.2401,0.247708,0.570956,-0.0573984,0.145097,-0.170419,0.146669,-0.0690605,-0.516876,0.26907,0.080625,3.22672,-6.12083,3.18419,3.56031,4.55249,-16.5781,0.74832,0,0,0,0,0,0,0,0.176975,0.0124255,0.227058,-2.24108,0.250567,0.572855,-0.0589839,0.144439,-0.0784273,0.0379648,-0.106705,-0.506073,0.307213,0.0331858,0,0,0,0,0,0,0,1.2215,-34.3199,1.71083,24.4119,0.97839,2.39037,0.467026,
0.179029,0.00994097,0.229136,-2.24226,0.242903,0.576372,-0.058229,0.143833,-0.17122,0.145481,-0.0681934,-0.508071,0.254744,0.0748891,-0.789975,-0.500546,-0.742822,0.541957,5.503,-8.95376,-3.58491,0,0,0,0,0,0,0,0.176975,0.0124255,0.227058,-2.24108,0.250567,0.572855,-0.0589839,0.144439,-0.0784273,0.0379648,-0.106705,-0.506073,0.307213,0.0331858,0,0,0,0,0,0,0,1.2215,-34.3199,1.71083,24.4119,0.97839,2.39037,0.467026,
0.180269,0.00834778,0.230389,-2.24268,0.239134,0.577679,-0.0577383,0.146057,-0.176806,0.1477,-0.0650793,-0.500664,0.236463,0.0721811,1.39011,-3.49104,1.38719,1.94634,4.62955,-11.4254,-1.69254,0,0,0,0,0,0,0,0.179926,0.00907926,0.230956,-2.24394,0.235343,0.580824,-0.0579873,0.04024,-0.120341,0.195297,-0.0915051,-0.449656,0.232644,0.0120404,-13.0249,-5.23925,19.6666,1.89994,7.05208,-9.32112,-2.64318,1.4516,-34.0224,1.56404,25.6339,0.752255,2.81426,0.446884,
0.181605,0.00663602,0.231735,-2.24305,0.23533,0.578783,-0.0571751,0.150246,-0.184239,0.151821,-0.0611256,-0.495642,0.216788,0.0718248,2.61816,-4.64552,2.57549,2.47107,3.13878,-12.2969,-0.222697,0,0,0,0,0,0,0,0.179926,0.00907926,0.230956,-2.24394,0.235343,0.580824,-0.0579873,0.04024,-0.120341,0.195297,-0.0915051,-0.449656,0.232644,0.0120404,0,0,0,0,0,0,0,1.4516,-34.0224,1.56404,25.6339,0.752255,2.81426,0.446884,
0.183012,0.00486419,0.23315,-2.24338,0.231461,0.579744,-0.0565437,0.155363,-0.191687,0.156824,-0.0572142,-0.493224,0.197445,0.0732439,3.19809,-4.65494,3.12707,2.4446,1.51123,-12.0896,0.886945,0,0,0,0,0,0,0,0.179926,0.00907926,0.230956,-2.24394,0.235343,0.580824,-0.0579873,0.04024,-0.120341,0.195297,-0.0915051,-0.449656,0.232644,0.0120404,0,0,0,0,0,0,0,1.4516,-34.0224,1.56404,25.6339,0.752255,2.81426,0.446884,
