xiao-wang007/linearmpc_panda/paper_data/panda_torque_PD_controller_error_match_to_start/1/trajectory.csv
Commanded Joint 0 Position,Commanded Joint 1 Position,Commanded Joint 2 Position,Commanded Joint 3 Position,Commanded Joint 4 Position,Commanded Joint 5 Position,Commanded Joint 6 Position,Commanded Joint 0 Velocity,Commanded Joint 1 Velocity,Commanded Joint 2 Velocity,Commanded Joint 3 Velocity,Commanded Joint 4 Velocity,Commanded Joint 5 Velocity,Commanded Joint 6 Velocity,Commanded Joint 0 Acceleration,Commanded Joint 1 Acceleration,Commanded Joint 2 Acceleration,Commanded Joint 3 Acceleration,Commanded Joint 4 Acceleration,Commanded Joint 5 Acceleration,Commanded Joint 6 Acceleration,Commanded Joint 0 Torque,Commanded Joint 1 Torque,Commanded Joint 2 Torque,Commanded Joint 3 Torque,Commanded Joint 4 Torque,Commanded Joint 5 Torque,Commanded Joint 6 Torque,Actual Joint 0 Position,Actual Joint 1 Position,Actual Joint 2 Position,Actual Joint 3 Position,Actual Joint 4 Position,Actual Joint 5 Position,Actual Joint 6 Position,Actual Joint 0 Velocity,Actual Joint 1 Velocity,Actual Joint 2 Velocity,Actual Joint 3 Velocity,Actual Joint 4 Velocity,Actual Joint 5 Velocity,Actual Joint 6 Velocity,Actual Joint 0 Acceleration,Actual Joint 1 Acceleration,Actual Joint 2 Acceleration,Actual Joint 3 Acceleration,Actual Joint 4 Acceleration,Actual Joint 5 Acceleration,Actual Joint 6 Acceleration,Actual Joint 0 Torque,Actual Joint 1 Torque,Actual Joint 2 Torque,Actual Joint 3 Torque,Actual Joint 4 Torque,Actual Joint 5 Torque,Actual Joint 6 Torque,
-0.00019502,0.0497738,-0.00497568,-1.76685,-0.0485004,0.293228,0.144503,0.0003421,0.0241948,0.000264266,-0.032338,-0.00297421,0.0546604,-0.000369737,0.213813,15.1217,0.165166,-20.2113,-1.85888,34.1628,-0.231086,0.0616093,26.2264,0.0275212,-24.4473,-0.375765,1.8693,-0.0242876,-0.000242725,0.0489015,-0.00498478,-1.76425,-0.0481571,0.287403,0.144559,-0.00287206,0.00487994,0.000467293,0.000918923,0.000285563,-0.000340154,-0.000393772,0,0,0,0,0,0,0,0.134464,-36.9185,-0.237108,27.0264,0.226742,3.20519,-0.0301054,
-0.0002611,0.0489606,-0.0050023,-1.76427,-0.048173,0.28741,0.144559,0.000158322,0.019729,9.85796e-05,-0.0260184,-0.0025548,0.0437261,-0.000294867,-0.114861,-2.79115,-0.103554,3.94977,0.262126,-6.83399,0.0467941,0.0557938,26.6668,0.0171167,-24.3637,-0.376582,1.61865,-0.0227683,-0.000242725,0.0489015,-0.00498478,-1.76425,-0.0481571,0.287403,0.144559,-0.00287206,0.00487994,0.000467293,0.000918923,0.000285563,-0.000340154,-0.000393772,0,0,0,0,0,0,0,0.134464,-36.9185,-0.237108,27.0264,0.226742,3.20519,-0.0301054,
-0.000264761,0.0489727,-0.00500591,-1.76428,-0.0481799,0.287409,0.144559,3.51295e-05,0.0160856,-1.12332e-05,-0.0209377,-0.00221653,0.0349511,-0.000235602,-0.0769951,-2.27713,-0.068633,3.17541,0.211421,-5.48437,0.0370401,0.0485034,27.2383,0.00530968,-24.2556,-0.3765,1.27136,-0.0207995,-0.000242725,0.0489015,-0.00498478,-1.76425,-0.0481571,0.287403,0.144559,-0.00287206,0.00487994,0.000467293,0.000918923,0.000285563,-0.000340154,-0.000393772,0,0,0,0,0,0,0,0.134464,-36.9185,-0.237108,27.0264,0.226742,3.20519,-0.0301054,
-0.000267701,0.0489827,-0.00500882,-1.76428,-0.0481862,0.287407,0.144559,-4.53982e-05,0.0131182,-8.17758e-05,-0.0168504,-0.00193064,0.0279263,-0.000188576,-0.0503298,-1.85462,-0.0440891,2.55459,0.178682,-4.39045,0.0293914,0.0424879,27.7621,-0.00418437,-24.0878,-0.37492,0.886474,-0.0187981,-0.000242725,0.0489015,-0.00498478,-1.76425,-0.0481571,0.287403,0.144559,-0.00287206,0.00487994,0.000467293,0.000918923,0.000285563,-0.000340154,-0.000393772,0,0,0,0,0,0,0,0.134464,-36.9185,-0.237108,27.0264,0.226742,3.20519,-0.0301054,
-0.000270082,0.0489911,-0.00501119,-1.76428,-0.0481918,0.287406,0.144559,-9.58471e-05,0.0107041,-0.000124728,-0.013561,-0.00168237,0.0223154,-0.000151185,-0.0315306,-1.50876,-0.026845,2.05585,0.155168,-3.50682,0.0233692,0.0401556,28.0849,-0.00846987,-23.8234,-0.370595,0.51394,-0.0170754,-0.000242725,0.0489015,-0.00498478,-1.76425,-0.0481571,0.287403,0.144559,-0.00287206,0.00487994,0.000467293,0.000918923,0.000285563,-0.000340154,-0.000393772,0,0,0,0,0,0,0,0.134464,-36.9185,-0.237108,27.0264,0.226742,3.20519,-0.0301054,
-0.000261895,0.0508721,-0.00502284,-1.76642,-0.0482965,0.290803,0.144565,-5.02691e-05,0.0367501,-5.96217e-05,-0.0341951,-0.0057226,0.0419933,8.08493e-05,0.0284863,16.2787,0.0406913,-12.8963,-2.52514,12.2987,0.145022,0.000875389,32.4317,-0.0330604,-23.3397,-0.816012,-2.31676,0.00112273,-0.000262952,0.0497446,-0.00502445,-1.76549,-0.0481214,0.289838,0.144557,-0.00423631,0.0823904,-0.00333621,-0.128941,0.0150036,0.238244,0.000530433,-0.170532,9.68881,-0.475438,-16.2325,1.83975,29.823,0.115526,0.463749,-19.6449,0.238966,9.99084,-0.157779,1.36223,-0.0301054,
-0.000303981,0.0518387,-0.00507363,-1.7669,-0.047461,0.290465,0.144545,-0.00109236,0.0535652,-0.00131734,-0.0393063,0.0163105,0.0251391,-0.000430824,-0.65131,10.5094,-0.786072,-3.19448,13.7707,-10.5339,-0.319796,0.54508,0.199197,0.543983,-0.256418,3.20483,-1.79802,-0.00218603,-0.000262952,0.0497446,-0.00502445,-1.76549,-0.0481214,0.289838,0.144557,-0.00423631,0.0823904,-0.00333621,-0.128941,0.0150036,0.238244,0.000530433,0,0,0,0,0,0,0,0.463749,-19.6449,0.238966,9.99084,-0.157779,1.36223,-0.0301054,
-0.000364947,0.0525955,-0.00513823,-1.76724,-0.046022,0.289526,0.144532,-0.00239805,0.0617732,-0.00266902,-0.039988,0.0490218,-0.00336037,-0.00067538,-0.816052,5.13003,-0.844801,-0.426085,20.4446,-17.8122,-0.152847,0.539035,0.199263,0.538025,-0.253579,3.17651,-1.7816,-0.00215345,-0.000262952,0.0497446,-0.00502445,-1.76549,-0.0481214,0.289838,0.144557,-0.00423631,0.0823904,-0.00333621,-0.128941,0.0150036,0.238244,0.000530433,0,0,0,0,0,0,0,0.463749,-19.6449,0.238966,9.99084,-0.157779,1.36223,-0.0301054,
-0.000261895,0.0508721,-0.00502284,-1.76642,-0.0482965,0.290803,0.144565,-0.00189203,0.0776054,-0.00209505,-0.0553367,0.0348407,0.0214527,-0.000338506,0.316261,9.89509,0.358728,-9.59293,-8.86316,15.5082,0.210546,0.000875389,32.4317,-0.0330604,-23.3397,-0.816012,-2.31676,0.00112273,-0.000262952,0.0497446,-0.00502445,-1.76549,-0.0481214,0.289838,0.144557,-0.00423631,0.0823904,-0.00333621,-0.128941,0.0150036,0.238244,0.000530433,0,0,0,0,0,0,0,0.463749,-19.6449,0.238966,9.99084,-0.157779,1.36223,-0.0301054,
-0.000364705,0.0518263,-0.00515299,-1.76672,-0.0450653,0.288672,0.144505,-0.00408386,0.0859404,-0.00492974,-0.0517921,0.108654,-0.0361294,-0.00178418,-1.36989,5.2094,-1.77168,2.21535,46.1332,-35.9888,-0.903548,4.41978,0.226853,4.36477,-1.81938,11.1892,-8.42175,-0.00865845,-0.000178618,0.054637,-0.00494965,-1.7724,-0.0483999,0.29558,0.144557,0.00831616,0.151657,0.00123591,-0.227817,0.0144531,-0.00324438,0.00103504,1.56906,8.65838,0.571515,-12.3595,-0.0688186,-30.186,0.0630758,-0.424923,-15.1302,-0.637804,14.7238,0.484005,1.23589,-0.0301054,
-0.000493562,0.0525249,-0.00529398,-1.76691,-0.0398122,0.284903,0.144467,-0.00648852,0.0862162,-0.00746855,-0.0460041,0.218249,-0.123119,-0.00236714,-1.50291,0.172382,-1.58676,3.61753,68.4971,-54.3682,-0.36435,4.36402,0.405443,4.30453,-1.72328,11.1892,-8.23997,-0.00798945,-0.000178618,0.054637,-0.00494965,-1.7724,-0.0483999,0.29558,0.144557,0.00831616,0.151657,0.00123591,-0.227817,0.0144531,-0.00324438,0.00103504,0,0,0,0,0,0,0,-0.424923,-15.1302,-0.637804,14.7238,0.484005,1.23589,-0.0301054,
-0.000597259,0.053027,-0.00540216,-1.76707,-0.0333532,0.280175,0.144446,-0.00778325,0.0815254,-0.00867938,-0.0409742,0.336075,-0.216702,-0.00242031,-0.809205,-2.93176,-0.756769,3.14368,73.6409,-58.4899,-0.0332291,4.30143,0.527137,4.2382,-1.64829,11.1892,-8.05601,-0.00708935,-0.000178618,0.054637,-0.00494965,-1.7724,-0.0483999,0.29558,0.144557,0.00831616,0.151657,0.00123591,-0.227817,0.0144531,-0.00324438,0.00103504,0,0,0,0,0,0,0,-0.424923,-15.1302,-0.637804,14.7238,0.484005,1.23589,-0.0301054,
-0.000124132,0.056308,-0.00489762,-1.77384,-0.0485741,0.294902,0.144565,-0.00486445,0.106995,-0.00564274,-0.0689515,0.264505,-0.190304,-0.00173538,1.82425,15.9184,1.8979,-17.4858,-44.7312,16.4988,0.428081,-0.00363998,32.6454,-0.0407465,-23.313,-0.810841,-2.27057,0.000964302,-0.000178618,0.054637,-0.00494965,-1.7724,-0.0483999,0.29558,0.144557,0.00831616,0.151657,0.00123591,-0.227817,0.0144531,-0.00324438,0.00103504,0,0,0,0,0,0,0,-0.424923,-15.1302,-0.637804,14.7238,0.484005,1.23589,-0.0301054,
0.000293446,0.05755,-0.00447269,-1.77477,-0.0463165,0.290129,0.144582,0.00654789,0.116647,0.00610897,-0.0783693,0.268045,-0.271582,-0.000975558,7.13271,6.03237,7.34482,-5.88614,2.21263,-50.7983,0.474889,30.3081,-0.87864,29.8959,-11.438,11.1709,-14.1802,0.0371432,-6.27668e-05,0.0642191,-0.004679,-1.77437,-0.0448384,0.288732,0.144552,0.0128951,0.350102,0.0262916,-0.0128428,0.27284,-0.469054,0.00064772,0.572365,24.8056,3.13196,26.8717,32.2984,-58.2262,-0.0484148,3.65741,-32.3482,3.33742,18.3856,2.52929,-1.95289,0.0239107,
0.00102401,0.0584552,-0.0037513,-1.77552,-0.0423378,0.282927,0.144617,0.0235023,0.115948,0.0229219,-0.0813668,0.313902,-0.397314,0.000110097,10.5965,-0.436916,10.5081,-1.8734,28.6606,-78.583,0.678535,29.1686,0.650904,28.61,-9.63152,11.1709,-14.1802,0.0508264,-6.27668e-05,0.0642191,-0.004679,-1.77437,-0.0448384,0.288732,0.144552,0.0128951,0.350102,0.0262916,-0.0128428,0.27284,-0.469054,0.00064772,0,0,0,0,0,0,0,3.65741,-32.3482,3.33742,18.3856,2.52929,-1.95289,0.0239107,
0.00200333,0.059122,-0.00279127,-1.77618,-0.0371236,0.274218,0.14467,0.043285,0.109429,0.0423384,-0.0817418,0.381477,-0.535574,0.00139487,12.3642,-4.07436,12.1354,-0.234383,42.2343,-86.4125,0.802983,27.9297,0.940209,27.3251,-8.29149,11.1709,-14.1802,0.0654695,-6.27668e-05,0.0642191,-0.004679,-1.77437,-0.0448384,0.288732,0.144552,0.0128951,0.350102,0.0262916,-0.0128428,0.27284,-0.469054,0.00064772,0,0,0,0,0,0,0,3.65741,-32.3482,3.33742,18.3856,2.52929,-1.95289,0.0239107,
0.000104488,0.0665777,-0.00450581,-1.77572,-0.0436176,0.286635,0.144563,0.0388094,0.146506,0.0382006,-0.0990366,0.335702,-0.48089,0.00138538,-2.79727,23.1735,-2.58614,-10.8093,-28.6093,34.1777,-0.00593155,-0.048318,32.9559,-0.0922474,-23.2618,-0.829097,-2.18024,0.00095863,-6.27668e-05,0.0642191,-0.004679,-1.77437,-0.0448384,0.288732,0.144552,0.0128951,0.350102,0.0262916,-0.0128428,0.27284,-0.469054,0.00064772,0,0,0,0,0,0,0,3.65741,-32.3482,3.33742,18.3856,2.52929,-1.95289,0.0239107,
0.000891151,0.0678786,-0.00368484,-1.77748,-0.0409824,0.281487,0.14473,0.0507141,0.149727,0.0510847,-0.123373,0.33444,-0.513395,0.00527836,7.44042,2.01305,8.05256,-15.2105,-0.788599,-20.3158,2.43311,44.6629,-8.20122,43.9603,-22.1069,11.0805,-14.0381,0.196728,7.78865e-05,0.0717137,-0.00468444,-1.77901,-0.0187847,0.271107,0.144553,0.0636173,0.207342,0.0739245,-0.229084,0.501583,-0.688669,-0.000100221,6.34028,-17.845,5.95411,-27.0301,28.5929,-27.4519,-0.0934926,12.3299,-45.9758,12.0853,24.2136,2.28485,-3.38477,0.050461,
0.00212554,0.0686362,-0.00245103,-1.77924,-0.0370211,0.274105,0.144822,0.0714311,0.138723,0.071713,-0.142577,0.366585,-0.595283,0.00653124,12.9481,-6.87744,12.8926,-12.0023,20.0908,-51.1798,0.783052,40.2742,-6.1319,39.5048,-20.6206,11.0805,-14.0381,0.100903,7.78865e-05,0.0717137,-0.00468444,-1.77901,-0.0187847,0.271107,0.144553,0.0636173,0.207342,0.0739245,-0.229084,0.501583,-0.688669,-0.000100221,0,0,0,0,0,0,0,12.3299,-45.9758,12.0853,24.2136,2.28485,-3.38477,0.050461,
0.00365635,0.0691029,-0.000943207,-1.78088,-0.0319052,0.265243,0.14484,0.095415,0.122647,0.095066,-0.155151,0.421165,-0.697774,0.0056768,14.9899,-10.0478,14.5956,-7.85847,34.1121,-64.0569,-0.534026,36.5054,-4.20352,35.7283,-18.9743,11.0805,-14.0381,0.013392,7.78865e-05,0.0717137,-0.00468444,-1.77901,-0.0187847,0.271107,0.144553,0.0636173,0.207342,0.0739245,-0.229084,0.501583,-0.688669,-0.000100221,0,0,0,0,0,0,0,12.3299,-45.9758,12.0853,24.2136,2.28485,-3.38477,0.050461,
0.00323438,0.0723533,-0.00155379,-1.78425,-0.00982351,0.255387,0.144926,0.121838,0.100813,0.120618,-0.189147,0.457964,-0.773875,0.0064759,16.5146,-13.6463,15.9698,-21.2479,22.9997,-47.5631,0.499438,55.154,-16.7335,53.7142,-32.4908,11.0805,-14.0381,0.327759,7.78865e-05,0.0717137,-0.00468444,-1.77901,-0.0187847,0.271107,0.144553,0.0636173,0.207342,0.0739245,-0.229084,0.501583,-0.688669,-0.000100221,0,0,0,0,0,0,0,12.3299,-45.9758,12.0853,24.2136,2.28485,-3.38477,0.050461,
0.00532208,0.072319,0.000477566,-1.78663,-0.00410675,0.245703,0.144851,0.149663,0.0797933,0.147278,-0.210893,0.50929,-0.861215,0.00330005,17.3906,-13.1372,16.6628,-13.5912,32.0788,-54.5872,-1.9849,47.285,-11.6587,45.9171,-30.094,11.1456,-13.6884,0.0598915,0.00632601,0.0790878,0.00189907,-1.78495,0.00424824,0.230892,0.144601,0.228895,-0.0127211,0.224403,-0.469654,0.611603,-1.25606,0.00216299,20.6597,-27.5079,18.8099,-30.0713,13.7525,-70.9244,0.282901,28.6354,-39.9138,27.2363,17.7112,3.92181,-2.57636,0.050461,
0.00755546,0.0722416,0.00264691,-1.78881,0.00241378,0.235381,0.144707,0.175565,0.0619002,0.172056,-0.223264,0.570446,-0.947014,-0.000957943,16.1887,-11.1832,15.4862,-7.73171,38.2221,-53.6248,-2.66125,41.4088,-7.57763,40.2303,-27.4574,11.1456,-13.6884,-0.111725,0.00632601,0.0790878,0.00189907,-1.78495,0.00424824,0.230892,0.144601,0.228895,-0.0127211,0.224403,-0.469654,0.611603,-1.25606,0.00216299,0,0,0,0,0,0,0,28.6354,-39.9138,27.2363,17.7112,3.92181,-2.57636,0.050461,
0.00986006,0.0721334,0.00488392,-1.79087,0.00959984,0.224722,0.144564,0.198067,0.0468158,0.19357,-0.23003,0.636008,-1.02409,-0.0043321,14.0637,-9.42779,13.4463,-4.22863,40.9764,-48.17,-2.10885,37.4192,-5.09572,36.3783,-25.3293,11.1456,-13.6884,-0.186067,0.00632601,0.0790878,0.00189907,-1.78495,0.00424824,0.230892,0.144601,0.228895,-0.0127211,0.224403,-0.469654,0.611603,-1.25606,0.00216299,0,0,0,0,0,0,0,28.6354,-39.9138,27.2363,17.7112,3.92181,-2.57636,0.050461,
0.0130052,0.0793442,0.00838727,-1.79251,0.023476,0.196796,0.144247,0.216467,0.0392932,0.211128,-0.240519,0.686676,-1.10626,-0.00699748,11.5002,-4.70161,10.9738,-6.55557,31.6677,-51.3572,-1.66586,41.4088,-7.57763,40.2303,-27.4574,11.1456,-13.6884,-0.111725,0.00632601,0.0790878,0.00189907,-1.78495,0.00424824,0.230892,0.144601,0.228895,-0.0127211,0.224403,-0.469654,0.611603,-1.25606,0.00216299,0,0,0,0,0,0,0,28.6354,-39.9138,27.2363,17.7112,3.92181,-2.57636,0.050461,
0.0153376,0.0793584,0.0106481,-1.79467,0.0311319,0.185405,0.144115,0.231485,0.0317903,0.225423,-0.246446,0.74074,-1.16978,-0.00889095,9.3859,-4.68933,8.93416,-3.70426,33.7896,-39.7029,-1.18342,37.8462,-4.48898,36.7669,-25.1506,11.3263,-13.095,-0.186113,0.0198324,0.0775929,0.0150839,-1.80418,0.0310259,0.182149,0.144686,0.506567,-0.0556528,0.336627,-0.595222,0.948857,-1.68455,0.00229074,34.7089,-5.36647,14.0279,-15.6959,42.1567,-53.561,0.0159686,20.2922,-35.3197,19.0875,26.7526,4.41711,-1.37611,-0.00996382,
0.0176367,0.0793201,0.0128751,-1.79677,0.0392223,0.174202,0.143961,0.242665,0.0244745,0.236015,-0.249632,0.794851,-1.2159,-0.010984,6.98768,-4.57232,6.62006,-1.99139,33.8195,-28.8258,-1.30813,34.8496,-3.60196,33.8661,-23.9278,11.3263,-13.095,-0.177062,0.0198324,0.0775929,0.0150839,-1.80418,0.0310259,0.182149,0.144686,0.506567,-0.0556528,0.336627,-0.595222,0.948857,-1.68455,0.00229074,0,0,0,0,0,0,0,20.2922,-35.3197,19.0875,26.7526,4.41711,-1.37611,-0.00996382,
0.0198769,0.0792641,0.0150444,-1.7988,0.0476384,0.16335,0.143782,0.250137,0.0181801,0.243042,-0.250613,0.846282,-1.24403,-0.0132561,4.67007,-3.93404,4.39208,-0.613033,32.1446,-17.5775,-1.42011,31.9925,-3.64985,31.0993,-23.5187,11.3263,-13.095,-0.160345,0.0198324,0.0775929,0.0150839,-1.80418,0.0310259,0.182149,0.144686,0.506567,-0.0556528,0.336627,-0.595222,0.948857,-1.68455,0.00229074,0,0,0,0,0,0,0,20.2922,-35.3197,19.0875,26.7526,4.41711,-1.37611,-0.00996382,
0.0335104,0.0789896,0.0282572,-1.81667,0.0763783,0.122515,0.143795,0.259302,0.0210355,0.251592,-0.254023,0.911847,-1.24097,-0.0147941,5.7282,1.78466,5.3437,-2.13152,40.9779,1.91021,-0.961205,29.1448,-3.39092,28.3405,-23.2002,11.3263,-12.8004,-0.187851,0.0198324,0.0775929,0.0150839,-1.80418,0.0310259,0.182149,0.144686,0.506567,-0.0556528,0.336627,-0.595222,0.948857,-1.68455,0.00229074,0,0,0,0,0,0,0,20.2922,-35.3197,19.0875,26.7526,4.41711,-1.37611,-0.00996382,
0.0357513,0.0792137,0.0304213,-1.81876,0.0857319,0.113949,0.143647,0.263463,0.0224321,0.255375,-0.255286,0.963319,-1.20692,-0.0155418,2.60064,0.872868,2.36453,-0.789126,32.17,21.2827,-0.467341,26.8942,-2.34732,26.111,-22.1958,11.3184,-11.4308,-0.218351,0.0356851,0.0775121,0.0320765,-1.82101,0.0671983,0.120067,0.144601,0.560829,0.0831839,0.461153,-0.483198,1.18684,-1.8807,-0.00199482,6.78275,17.3546,15.5657,14.0029,29.7482,-24.5184,-0.535695,7.43427,-38.188,6.6858,27.0264,4.15985,-0.733408,-0.0301054,
0.0378833,0.079405,0.03248,-1.82079,0.0950143,0.106678,0.143514,0.26407,0.0227261,0.255769,-0.255013,1.00272,-1.14732,-0.0157409,0.379301,0.183726,0.245808,0.170504,24.6226,37.2462,-0.124465,25.2833,-1.41762,24.5406,-21.4053,11.3184,-10.5008,-0.222896,0.0356851,0.0775121,0.0320765,-1.82101,0.0671983,0.120067,0.144601,0.560829,0.0831839,0.461153,-0.483198,1.18684,-1.8807,-0.00199482,0,0,0,0,0,0,0,7.43427,-38.188,6.6858,27.0264,4.15985,-0.733408,-0.0301054,
0.0399198,0.0795647,0.0344462,-1.82277,0.104211,0.100658,0.143398,0.26217,0.0221745,0.25377,-0.253484,1.03209,-1.06835,-0.0154925,-1.1878,-0.344764,-1.24933,0.955617,18.3584,49.3571,0.155286,24.0894,-0.732721,23.369,-20.6862,11.3184,-9.19127,-0.213515,0.0356851,0.0775121,0.0320765,-1.82101,0.0671983,0.120067,0.144601,0.560829,0.0831839,0.461153,-0.483198,1.18684,-1.8807,-0.00199482,0,0,0,0,0,0,0,7.43427,-38.188,6.6858,27.0264,4.15985,-0.733408,-0.0301054,
0.0505257,0.0808723,0.046333,-1.83396,0.117988,0.0729745,0.143866,0.27046,0.0295399,0.261473,-0.258596,1.07378,-1.00333,-0.0151812,5.18161,4.60342,4.81439,-3.19535,26.0595,40.642,0.194573,23.1518,-0.319687,22.4484,-20.0857,11.3184,-8.12298,-0.19759,0.0356851,0.0775121,0.0320765,-1.82101,0.0671983,0.120067,0.144601,0.560829,0.0831839,0.461153,-0.483198,1.18684,-1.8807,-0.00199482,0,0,0,0,0,0,0,7.43427,-38.188,6.6858,27.0264,4.15985,-0.733408,-0.0301054,
0.0527796,0.0812502,0.0485027,-1.83607,0.127697,0.0683771,0.14377,0.272716,0.0330785,0.263422,-0.259519,1.10176,-0.917596,-0.014545,1.41016,2.21161,1.21814,-0.576693,17.4876,53.5813,0.397597,22.3609,-0.0877413,21.6722,-19.5626,11.3184,-6.21785,-0.175136,0.0356851,0.0775121,0.0320765,-1.82101,0.0671983,0.120067,0.144601,0.560829,0.0831839,0.461153,-0.483198,1.18684,-1.8807,-0.00199482,0,0,0,0,0,0,0,7.43427,-38.188,6.6858,27.0264,4.15985,-0.733408,-0.0301054,
0.0548859,0.0815455,0.05053,-1.83806,0.137203,0.0649514,0.143686,0.270831,0.0338456,0.261419,-0.25738,1.11905,-0.81972,-0.0137241,-1.17843,0.479416,-1.25143,1.33687,10.8068,61.1725,0.513074,21.8282,-0.404097,21.086,-18.5378,11.2449,-3.97363,-0.159838,0.0551857,0.0788092,0.0500721,-1.83906,0.114536,0.0543205,0.144442,0.650492,0.0378197,0.512701,-0.529397,1.42996,-1.77288,-0.0014522,11.2079,-5.67054,6.44359,-5.7748,30.3892,13.4778,0.0678286,-2.70611,-37.8151,-1.8637,26.6534,3.10333,2.32995,-0.123489,
0.056866,0.0817701,0.0524353,-1.83994,0.146524,0.062539,0.143616,0.266167,0.0326921,0.256768,-0.253052,1.12828,-0.716087,-0.0127373,-2.915,-0.720897,-2.9072,2.70514,5.76841,64.7706,0.61674,21.1515,-0.446793,20.4276,-18.2193,11.2449,-2.56578,-0.139575,0.0551857,0.0788092,0.0500721,-1.83906,0.114536,0.0543205,0.144442,0.650492,0.0378197,0.512701,-0.529397,1.42996,-1.77288,-0.0014522,0,0,0,0,0,0,0,-2.70611,-37.8151,-1.8637,26.6534,3.10333,2.32995,-0.123489,
0.0734253,0.0819345,0.0675651,-1.85388,0.179648,0.0213015,0.143959,0.26937,0.0340362,0.259595,-0.250108,1.15239,-0.610385,-0.0113786,2.00193,0.840055,1.76695,1.84,15.0677,66.0637,0.849182,19.9142,-0.522207,19.2292,-17.6811,11.2449,-0.339561,-0.105743,0.0551857,0.0788092,0.0500721,-1.83906,0.114536,0.0543205,0.144442,0.650492,0.0378197,0.512701,-0.529397,1.42996,-1.77288,-0.0014522,0,0,0,0,0,0,0,-2.70611,-37.8151,-1.8637,26.6534,3.10333,2.32995,-0.123489,
0.0754927,0.0821718,0.069549,-1.85565,0.189332,0.0206914,0.143923,0.26718,0.0331623,0.257274,-0.244287,1.16401,-0.503562,-0.0100029,-1.36898,-0.54619,-1.45068,3.63792,7.26356,66.7647,0.859835,19.3442,-0.501837,18.6786,-17.426,11.2449,0.52244,-0.0913413,0.0551857,0.0788092,0.0500721,-1.83906,0.114536,0.0543205,0.144442,0.650492,0.0378197,0.512701,-0.529397,1.42996,-1.77288,-0.0014522,0,0,0,0,0,0,0,-2.70611,-37.8151,-1.8637,26.6534,3.10333,2.32995,-0.123489,
0.0774006,0.0823434,0.071379,-1.8573,0.198752,0.0207892,0.143896,0.261441,0.0308201,0.251569,-0.236688,1.16672,-0.400404,-0.00865624,-3.58651,-1.4639,-3.56559,4.74946,1.6893,64.4738,0.841658,18.6919,-1.60197,17.9648,-16.3593,10.8682,1.58514,-0.0827858,0.0751497,0.0807386,0.0692336,-1.85882,0.168875,0.00711739,0.144377,0.535317,-0.00904699,0.58509,-0.624053,1.57862,-1.02686,0.00203886,-14.3969,-5.85833,9.04851,-11.832,18.5824,93.2524,0.436382,-2.60693,-38.7157,-1.76055,32.7075,1.94976,5.22759,-0.130813,
0.0791735,0.082461,0.0730786,-1.85885,0.207948,0.0214517,0.14388,0.253478,0.0275948,0.243746,-0.228109,1.16329,-0.303762,-0.00733709,-4.97733,-2.01583,-4.88925,5.36221,-2.14394,60.4013,0.824469,18.1741,-1.49714,17.4656,-16.1015,10.8682,2.1816,-0.0696754,0.0751497,0.0807386,0.0692336,-1.85882,0.168875,0.00711739,0.144377,0.535317,-0.00904699,0.58509,-0.624053,1.57862,-1.02686,0.00203886,0,0,0,0,0,0,0,-2.60693,-38.7157,-1.76055,32.7075,1.94976,5.22759,-0.130813,
0.0923892,0.0834792,0.0857521,-1.87221,0.234154,-0.00870153,0.144167,0.254804,0.0283519,0.244775,-0.223561,1.17577,-0.236008,-0.00607087,0.829257,0.473185,0.642903,2.84249,7.804,42.3459,0.791384,17.2011,-1.20346,16.5281,-15.5785,10.8682,3.06528,-0.0438326,0.0751497,0.0807386,0.0692336,-1.85882,0.168875,0.00711739,0.144377,0.535317,-0.00904699,0.58509,-0.624053,1.57862,-1.02686,0.00203886,0,0,0,0,0,0,0,-2.60693,-38.7157,-1.76055,32.7075,1.94976,5.22759,-0.130813,
0.0942777,0.0836583,0.0875579,-1.87373,0.243641,-0.00780879,0.144169,0.251056,0.0271585,0.240965,-0.216876,1.17779,-0.166488,-0.00481329,-2.34281,-0.745849,-2.3811,4.17763,1.25848,43.4501,0.785986,16.7404,-1.03256,16.0843,-15.3144,10.8682,3.38033,-0.0315606,0.0751497,0.0807386,0.0692336,-1.85882,0.168875,0.00711739,0.144377,0.535317,-0.00904699,0.58509,-0.624053,1.57862,-1.02686,0.00203886,0,0,0,0,0,0,0,-2.60693,-38.7157,-1.76055,32.7075,1.94976,5.22759,-0.130813,
0.0960057,0.0837785,0.0892092,-1.87515,0.252859,-0.0064416,0.144181,0.244045,0.0247323,0.234053,-0.209027,1.17269,-0.0990107,-0.00354844,-4.38169,-1.51639,-4.3201,4.90614,-3.18803,42.1735,0.790532,15.9897,-1.50931,15.2756,-14.4813,10.4695,3.87955,-0.0271661,0.0943127,0.0836413,0.0877834,-1.87771,0.227755,-0.0140888,0.144381,0.521375,0.13241,0.618417,-0.525019,1.66799,-0.333008,-0.00137208,-1.74266,17.6821,4.16588,12.3792,11.1714,86.7312,-0.426368,-4.45569,-42.5084,-3.48631,37.9126,0.966488,5.79156,-0.0566557,
0.112609,0.088145,0.105254,-1.8908,0.302608,-0.014219,0.144414,0.237744,0.0253095,0.22779,-0.200429,1.17106,-0.039353,-0.00203677,-3.93832,0.360804,-3.91409,5.37361,-1.01844,37.2861,0.944798,14.3165,-0.858462,13.6652,-13.4413,10.4695,4.45407,0.0122052,0.0943127,0.0836413,0.0877834,-1.87771,0.227755,-0.0140888,0.144381,0.521375,0.13241,0.618417,-0.525019,1.66799,-0.333008,-0.00137208,0,0,0,0,0,0,0,-4.45569,-42.5084,-3.48631,37.9126,0.966488,5.79156,-0.0566557,
0.114144,0.0882968,0.106717,-1.89203,0.311536,-0.0123732,0.14445,0.228588,0.0240434,0.218831,-0.191171,1.16004,0.0146629,-0.000730087,-5.72256,-0.791333,-5.59992,5.78642,-6.88346,33.7599,0.816675,13.9059,-0.722685,13.2724,-13.2009,10.4695,4.52683,0.0229869,0.0943127,0.0836413,0.0877834,-1.87771,0.227755,-0.0140888,0.144381,0.521375,0.13241,0.618417,-0.525019,1.66799,-0.333008,-0.00137208,0,0,0,0,0,0,0,-4.45569,-42.5084,-3.48631,37.9126,0.966488,5.79156,-0.0566557,
0.11556,0.0883941,0.108066,-1.89317,0.319761,-0.0103475,0.144489,0.218267,0.0216668,0.208783,-0.181329,1.13365,0.0623736,0.000384627,-6.45076,-1.48538,-6.27962,6.15091,-16.4934,29.8192,0.696696,13.4573,-0.594835,12.8459,-12.9741,10.4695,4.55411,0.0294693,0.0943127,0.0836413,0.0877834,-1.87771,0.227755,-0.0140888,0.144381,0.521375,0.13241,0.618417,-0.525019,1.66799,-0.333008,-0.00137208,0,0,0,0,0,0,0,-4.45569,-42.5084,-3.48631,37.9126,0.966488,5.79156,-0.0566557,
0.116882,0.0884467,0.109324,-1.89422,0.327149,-0.00819635,0.144528,0.207651,0.018648,0.198478,-0.171348,1.09162,0.103677,0.00126893,-6.6348,-1.88678,-6.44051,6.23843,-26.2713,25.8146,0.552687,12.8703,-0.998609,12.2218,-12.7308,10.0838,4.51815,0.0327423,0.112637,0.0873596,0.10483,-1.89345,0.286985,-0.0169865,0.144391,0.505809,0.14367,0.483299,-0.370297,1.80276,0.0535879,6.78144e-05,-1.94584,1.40747,-16.8897,19.3403,16.8464,48.3245,0.179987,-7.39941,-41.4333,-6.00951,28.4982,1.37573,3.46429,-0.0026396,
0.128737,0.0907866,0.120184,-1.90337,0.351604,-0.00950337,0.144537,0.204668,0.0176952,0.195441,-0.162041,1.0141,0.125858,0.00177874,-1.86454,-0.595487,-1.89807,5.8163,-48.4505,13.8633,0.318632,11.5688,-0.563697,11.0094,-12.0651,10.0838,4.42464,0.0501026,0.112637,0.0873596,0.10483,-1.89345,0.286985,-0.0169865,0.144391,0.505809,0.14367,0.483299,-0.370297,1.80276,0.0535879,6.78144e-05,0,0,0,0,0,0,0,-7.39941,-41.4333,-6.00951,28.4982,1.37573,3.46429,-0.0026396,
0.130142,0.0908442,0.121519,-1.9043,0.356251,-0.00768094,0.14457,0.198857,0.0155963,0.189725,-0.152877,0.927437,0.146247,0.00223412,-3.63144,-1.31177,-3.57288,5.72799,-54.1637,12.7432,0.284613,11.1212,-0.408573,10.5573,-11.8529,9.66695,4.36353,0.0516325,0.112637,0.0873596,0.10483,-1.89345,0.286985,-0.0169865,0.144391,0.505809,0.14367,0.483299,-0.370297,1.80276,0.0535879,6.78144e-05,0,0,0,0,0,0,0,-7.39941,-41.4333,-6.00951,28.4982,1.37573,3.46429,-0.0026396,
0.131434,0.0908635,0.122745,-1.90518,0.360006,-0.00578501,0.144604,0.191383,0.0129587,0.182437,-0.144159,0.835844,0.164396,0.00265316,-4.67112,-1.64851,-4.55494,5.44831,-57.2451,11.3429,0.261899,10.7271,-0.233938,10.0975,-11.6292,8.16525,4.28528,0.0513902,0.112637,0.0873596,0.10483,-1.89345,0.286985,-0.0169865,0.144391,0.505809,0.14367,0.483299,-0.370297,1.80276,0.0535879,6.78144e-05,0,0,0,0,0,0,0,-7.39941,-41.4333,-6.00951,28.4982,1.37573,3.46429,-0.0026396,
0.132632,0.0908558,0.123881,-1.90601,0.362966,-0.00384145,0.144641,0.183056,0.0101742,0.174348,-0.136073,0.742664,0.180106,0.00303279,-5.20461,-1.74036,-5.0557,5.05384,-58.2377,9.81868,0.23727,10.4195,-0.514104,9.68891,-11.3679,6.6409,4.06254,0.0492188,0.129111,0.089763,0.120155,-1.90691,0.343723,-0.00822444,0.14442,0.631883,-0.00751282,0.225426,-0.400245,1.56998,0.336571,0.00404011,15.7593,-18.8978,-32.2341,-3.74356,-29.0976,35.3728,0.496536,-9.27594,-40.1122,-7.93761,27.1533,0.593868,1.9793,0.0376436,
0.151416,0.0884783,0.140791,-1.91213,0.406335,0.00170532,0.144219,0.149379,0.00480829,0.141298,-0.105127,0.611764,0.162576,0.00199722,-21.0484,-3.35367,-20.6563,19.3412,-81.8128,-10.9564,-0.647228,6.20795,-0.243228,5.79573,-4.20508,-1.37972,2.40978,0.021623,0.129111,0.089763,0.120155,-1.90691,0.343723,-0.00822444,0.14442,0.631883,-0.00751282,0.225426,-0.400245,1.56998,0.336571,0.00404011,0,0,0,0,0,0,0,-9.27594,-40.1122,-7.93761,27.1533,0.593868,1.9793,0.0376436,
0.151518,0.0883455,0.140848,-1.91197,0.406891,0.0025423,0.144202,0.122042,0.000526288,0.114443,-0.0802742,0.503315,0.150985,0.00116412,-17.0852,-2.67625,-16.7842,15.5332,-67.7802,-7.24403,-0.520692,6.03272,-0.271552,5.62617,-3.98749,-1.32552,2.40995,0.0196139,0.129111,0.089763,0.120155,-1.90691,0.343723,-0.00822444,0.14442,0.631883,-0.00751282,0.225426,-0.400245,1.56998,0.336571,0.00404011,0,0,0,0,0,0,0,-9.27594,-40.1122,-7.93761,27.1533,0.593868,1.9793,0.0376436,
0.151604,0.0882137,0.140888,-1.91182,0.407344,0.00344777,0.144184,0.0997925,-0.00287409,0.092571,-0.0603238,0.413965,0.143425,0.000496905,-13.9061,-2.12523,-13.6699,12.469,-55.8439,-4.72523,-0.417007,5.85618,-0.299438,5.45524,-3.76973,-1.26953,2.4096,0.0175774,0.129111,0.089763,0.120155,-1.90691,0.343723,-0.00822444,0.14442,0.631883,-0.00751282,0.225426,-0.400245,1.56998,0.336571,0.00404011,0,0,0,0,0,0,0,-9.27594,-40.1122,-7.93761,27.1533,0.593868,1.9793,0.0376436,
0.151677,0.0880832,0.140915,-1.91166,0.407723,0.00440178,0.144167,0.0816477,-0.00556299,0.0747281,-0.0443163,0.340652,0.13859,-3.55463e-05,-11.3405,-1.68056,-11.1518,10.0047,-45.8204,-3.0217,-0.332782,5.2525,-0.697195,4.80906,-3.56574,-1.42778,2.21262,0.0211724,0.141359,0.0918934,0.136946,-1.91571,0.376543,0.00464617,0.144436,0.562995,0.0823185,0.206829,-0.121076,0.486035,0.313643,0.00123968,-8.61102,11.2289,-2.32457,34.8962,-135.493,-2.86598,-0.350054,-14.5009,-40.7588,-13.5354,31.3626,-0.93964,0.719534,0.0303194,
0.153278,0.0912844,0.147237,-1.91403,0.423802,0.00956876,0.143882,0.0658255,-0.00746774,0.0590824,-0.0313503,0.276542,0.138537,-0.000450189,-9.88887,-1.19047,-9.7786,8.10374,-40.069,-0.0334106,-0.259152,2.12491,-0.883585,1.82074,0.928801,4.17184,-1.01953,-0.0110741,0.141359,0.0918934,0.136946,-1.91571,0.376543,0.00464617,0.144436,0.562995,0.0823185,0.206829,-0.121076,0.486035,0.313643,0.00123968,0,0,0,0,0,0,0,-14.5009,-40.7588,-13.5354,31.3626,-0.93964,0.719534,0.0303194,
0.153295,0.0911644,0.147206,-1.91387,0.423956,0.0106763,0.143865,0.0530861,-0.00897434,0.0464886,-0.0209844,0.225085,0.138518,-0.000780178,-7.96216,-0.941629,-7.87112,6.47869,-32.1608,-0.0115238,-0.206243,1.85839,-0.852608,1.5618,1.14756,4.70679,-1.30541,-0.00951889,0.141359,0.0918934,0.136946,-1.91571,0.376543,0.00464617,0.144436,0.562995,0.0823185,0.206829,-0.121076,0.486035,0.313643,0.00123968,0,0,0,0,0,0,0,-14.5009,-40.7588,-13.5354,31.3626,-0.93964,0.719534,0.0303194,
0.153309,0.091045,0.147172,-1.9137,0.424104,0.0117836,0.143848,0.0428289,-0.0101639,0.0363519,-0.0127005,0.183785,0.138497,-0.00104266,-6.41072,-0.743444,-6.33541,5.17747,-25.8122,-0.0133627,-0.164052,1.50918,-0.819333,1.21931,1.37508,5.1786,-1.52638,-0.00709633,0.141359,0.0918934,0.136946,-1.91571,0.376543,0.00464617,0.144436,0.562995,0.0823185,0.206829,-0.121076,0.486035,0.313643,0.00123968,0,0,0,0,0,0,0,-14.5009,-40.7588,-13.5354,31.3626,-0.93964,0.719534,0.0303194,
0.153322,0.0909263,0.147137,-1.91354,0.424249,0.0128897,0.143831,0.0345706,-0.0111009,0.0281935,-0.00608352,0.15064,0.138449,-0.00125132,-5.16147,-0.585656,-5.09901,4.1356,-20.7158,-0.0301913,-0.130409,1.05542,-0.787726,0.770223,1.61255,5.55063,-1.65416,-0.00429947,0.141359,0.0918934,0.136946,-1.91571,0.376543,0.00464617,0.144436,0.562995,0.0823185,0.206829,-0.121076,0.486035,0.313643,0.00123968,0,0,0,0,0,0,0,-14.5009,-40.7588,-13.5354,31.3626,-0.93964,0.719534,0.0303194,
0.143823,0.0924741,0.139204,-1.91613,0.380829,0.00514527,0.144387,0.0892508,0.00563735,0.0790042,-0.0152971,0.227675,0.123236,-0.00222733,34.1752,10.4614,31.7567,-5.75849,48.1469,-9.50776,-0.61001,2.12491,-0.883585,1.82074,0.928801,4.17184,-1.01953,-0.0110741,0.141359,0.0918934,0.136946,-1.91571,0.376543,0.00464617,0.144436,0.562995,0.0823185,0.206829,-0.121076,0.486035,0.313643,0.00123968,0,0,0,0,0,0,0,-14.5009,-40.7588,-13.5354,31.3626,-0.93964,0.719534,0.0303194,
0.145687,0.0928851,0.140935,-1.91636,0.385495,0.00454341,0.144344,0.118005,0.014786,0.106481,-0.0180833,0.298783,0.0835426,-0.00287724,17.971,5.71789,17.1727,-1.74138,44.4427,-24.8085,-0.40619,1.85839,-0.852608,1.5618,1.14756,4.70679,-1.30541,-0.00951889,0.141359,0.0918934,0.136946,-1.91571,0.376543,0.00464617,0.144436,0.562995,0.0823185,0.206829,-0.121076,0.486035,0.313643,0.00123968,0,0,0,0,0,0,0,-14.5009,-40.7588,-13.5354,31.3626,-0.93964,0.719534,0.0303194,
0.147116,0.0931551,0.142259,-1.91651,0.390408,0.00329666,0.144311,0.130129,0.0185794,0.118292,-0.0180649,0.361858,0.0356653,-0.00311636,7.57757,2.37089,7.38222,0.0114764,39.4215,-29.9233,-0.149452,1.50918,-0.819333,1.21931,1.37508,5.1786,-1.52638,-0.00709633,0.141359,0.0918934,0.136946,-1.91571,0.376543,0.00464617,0.144436,0.562995,0.0823185,0.206829,-0.121076,0.486035,0.313643,0.00123968,0,0,0,0,0,0,0,-14.5009,-40.7588,-13.5354,31.3626,-0.93964,0.719534,0.0303194,
0.148216,0.093323,0.143274,-1.91659,0.395479,0.00167148,0.144288,0.131602,0.0190595,0.120002,-0.0165312,0.416248,-0.0120972,-0.0030717,0.92065,0.300067,1.0689,0.958596,33.994,-29.8515,0.0279132,1.05542,-0.787726,0.770223,1.61255,5.55063,-1.65416,-0.00429947,0.141359,0.0918934,0.136946,-1.91571,0.376543,0.00464617,0.144436,0.562995,0.0823185,0.206829,-0.121076,0.486035,0.313643,0.00123968,0,0,0,0,0,0,0,-14.5009,-40.7588,-13.5354,31.3626,-0.93964,0.719534,0.0303194,
0.158164,0.0853802,0.150736,-1.90544,0.427055,0.0982528,0.142767,0.10538,0.0129685,0.0949731,-0.010192,0.337293,0.00904907,-0.00282722,-16.3888,-3.80688,-15.6433,3.96196,-49.3473,13.2164,0.152796,1.13952,-0.911557,0.801604,1.36998,5.47098,-1.7576,-0.00346522,0.150145,0.0938742,0.147679,-1.9185,0.393034,0.0131492,0.144437,0.031358,0.115569,0.471559,0.00871358,0.612152,0.0811211,0.000962401,-66.4546,4.1563,33.0912,16.2237,15.7645,-29.0652,-0.0346594,-14.2192,-43.0321,-12.861,29.2203,2.10174,-0.533823,0.00376909,
0.158164,0.0853802,0.150736,-1.90544,0.427055,0.0982528,0.142767,0.0844018,0.00809568,0.0749497,-0.00512073,0.274128,0.025966,-0.00263165,-13.1111,-3.0455,-12.5146,3.16957,-39.4778,10.5731,0.122237,1.13952,-0.911557,0.801604,1.36998,5.47098,-1.7576,-0.00346522,0.150145,0.0938742,0.147679,-1.9185,0.393034,0.0131492,0.144437,0.031358,0.115569,0.471559,0.00871358,0.612152,0.0811211,0.000962401,0,0,0,0,0,0,0,-14.2192,-43.0321,-12.861,29.2203,2.10174,-0.533823,0.00376909,
0.158164,0.0853802,0.150736,-1.90544,0.427055,0.0982528,0.142767,0.0676197,0.00419744,0.058931,-0.00106368,0.223596,0.0394996,-0.00247518,-10.4888,-2.4364,-10.0117,2.53566,-31.5823,8.45849,0.0977894,1.13952,-0.911557,0.801604,1.36998,5.47098,-1.7576,-0.00346522,0.150145,0.0938742,0.147679,-1.9185,0.393034,0.0131492,0.144437,0.031358,0.115569,0.471559,0.00871358,0.612152,0.0811211,0.000962401,0,0,0,0,0,0,0,-14.2192,-43.0321,-12.861,29.2203,2.10174,-0.533823,0.00376909,
0.158164,0.0853802,0.150736,-1.90544,0.427055,0.0982528,0.142767,0.0541939,0.00107884,0.046116,0.00218196,0.183171,0.0503265,-0.00235001,-8.39108,-1.94912,-8.00936,2.02853,-25.2658,6.76679,0.0782316,1.13952,-0.911557,0.801604,1.36998,5.47098,-1.7576,-0.00346522,0.150145,0.0938742,0.147679,-1.9185,0.393034,0.0131492,0.144437,0.031358,0.115569,0.471559,0.00871358,0.612152,0.0811211,0.000962401,0,0,0,0,0,0,0,-14.2192,-43.0321,-12.861,29.2203,2.10174,-0.533823,0.00376909,
0.158164,0.0853802,0.150736,-1.90544,0.427055,0.0982528,0.142767,0.0434534,-0.00141604,0.035864,0.00477848,0.150831,0.058988,-0.00224988,-6.71286,-1.5593,-6.40749,1.62282,-20.2127,5.41343,0.0625852,1.17167,-1.02359,0.819329,1.29314,5.41145,-1.81044,-0.00287727,0.159877,0.0943536,0.150155,-1.91886,0.411113,0.0137503,0.144426,0.0704604,-0.0290591,0.237966,-0.0128793,0.588863,-0.00177822,7.91566e-05,4.8878,-18.0785,-29.1992,-2.69911,-2.91112,-10.3624,-0.110406,-8.8197,-34.9944,-7.03703,23.912,2.06512,-0.408396,0.0706026,
0.158164,0.0853802,0.150736,-1.90544,0.427055,0.0982528,0.142767,0.0348609,-0.00341194,0.0276625,0.00685569,0.124959,0.0659172,-0.00216977,-5.37029,-1.24744,-5.12599,1.29826,-16.1701,4.33075,0.0500682,1.17167,-1.02359,0.819329,1.29314,5.41145,-1.81044,-0.00287727,0.159877,0.0943536,0.150155,-1.91886,0.411113,0.0137503,0.144426,0.0704604,-0.0290591,0.237966,-0.0128793,0.588863,-0.00177822,7.91566e-05,0,0,0,0,0,0,0,-8.8197,-34.9944,-7.03703,23.912,2.06512,-0.408396,0.0706026,
0.158164,0.0853802,0.150736,-1.90544,0.427055,0.0982528,0.142767,0.0279869,-0.00500866,0.0211012,0.00851746,0.104261,0.0714605,-0.00210568,-4.29623,-0.997951,-4.10079,1.03861,-12.9361,3.4646,0.0400546,1.17167,-1.02359,0.819329,1.29314,5.41145,-1.81044,-0.00287727,0.159877,0.0943536,0.150155,-1.91886,0.411113,0.0137503,0.144426,0.0704604,-0.0290591,0.237966,-0.0128793,0.588863,-0.00177822,7.91566e-05,0,0,0,0,0,0,0,-8.8197,-34.9944,-7.03703,23.912,2.06512,-0.408396,0.0706026,
0.158164,0.0853802,0.150736,-1.90544,0.427055,0.0982528,0.142767,0.0224878,-0.00628604,0.0158522,0.00984687,0.0877026,0.0758952,-0.00205441,-3.43699,-0.79836,-3.28063,0.830884,-10.3489,2.77168,0.0320436,1.17167,-1.02359,0.819329,1.29314,5.41145,-1.81044,-0.00287727,0.159877,0.0943536,0.150155,-1.91886,0.411113,0.0137503,0.144426,0.0704604,-0.0290591,0.237966,-0.0128793,0.588863,-0.00177822,7.91566e-05,0,0,0,0,0,0,0,-8.8197,-34.9944,-7.03703,23.912,2.06512,-0.408396,0.0706026,
0.165548,0.0831595,0.151057,-1.90497,0.43908,0.0991806,0.142816,0.0180872,-0.00739015,0.0116746,0.0108345,0.0736736,0.0793328,-0.00201207,-2.75033,-0.69007,-2.611,0.617289,-8.76813,2.14847,0.0264653,1.15596,-1.08724,0.787334,1.24664,5.33762,-1.83041,-0.00261344,0.16378,0.0945712,0.153954,-1.91897,0.42985,0.013244,0.144427,0.0859192,0.0302005,0.0962384,0.0382305,0.418694,0.0105828,-0.000433936,1.93235,7.40745,-17.7159,6.38872,-21.2711,1.54513,-0.0641366,-1.92059,-34.8436,-0.586229,25.011,2.84698,2.15783,0.017502,
0.165548,0.0831595,0.151057,-1.90497,0.43908,0.0991806,0.142816,0.0145668,-0.00827344,0.0083325,0.0116247,0.0624504,0.0820828,-0.00197819,-2.20026,-0.552056,-2.0888,0.493831,-7.01451,1.71878,0.0211722,1.15596,-1.08724,0.787334,1.24664,5.33762,-1.83041,-0.00261344,0.16378,0.0945712,0.153954,-1.91897,0.42985,0.013244,0.144427,0.0859192,0.0302005,0.0962384,0.0382305,0.418694,0.0105828,-0.000433936,0,0,0,0,0,0,0,-1.92059,-34.8436,-0.586229,25.011,2.84698,2.15783,0.017502,
0.165548,0.0831595,0.151057,-1.90497,0.43908,0.0991806,0.142816,0.0117505,-0.00898007,0.00565884,0.0122568,0.0534718,0.0842828,-0.00195109,-1.76021,-0.441645,-1.67104,0.395065,-5.61161,1.37502,0.0169378,1.15596,-1.08724,0.787334,1.24664,5.33762,-1.83041,-0.00261344,0.16378,0.0945712,0.153954,-1.91897,0.42985,0.013244,0.144427,0.0859192,0.0302005,0.0962384,0.0382305,0.418694,0.0105828,-0.000433936,0,0,0,0,0,0,0,-1.92059,-34.8436,-0.586229,25.011,2.84698,2.15783,0.017502,
0.165548,0.0831595,0.151057,-1.90497,0.43908,0.0991806,0.142816,0.00949739,-0.00954537,0.00351991,0.0127624,0.046289,0.0860429,-0.00192941,-1.40817,-0.353316,-1.33683,0.316052,-4.48928,1.10002,0.0135502,1.15596,-1.08724,0.787334,1.24664,5.33762,-1.83041,-0.00261344,0.16378,0.0945712,0.153954,-1.91897,0.42985,0.013244,0.144427,0.0859192,0.0302005,0.0962384,0.0382305,0.418694,0.0105828,-0.000433936,0,0,0,0,0,0,0,-1.92059,-34.8436,-0.586229,25.011,2.84698,2.15783,0.017502,
0.167421,0.0845837,0.152732,-1.90533,0.449903,0.101695,0.142844,0.00769406,-0.00991907,0.00177301,0.0131434,0.0399314,0.0876245,-0.00191219,-1.12708,-0.233562,-1.09181,0.238089,-3.97348,0.988519,0.0107609,1.15467,-1.13239,0.776838,1.22777,5.29981,-1.83795,-0.00241897,0.165723,0.094245,0.157046,-1.91891,0.441525,0.0138662,0.144428,-0.00920292,-0.0399088,0.12687,0.000206633,0.262457,-0.00424425,0.000414447,-11.8903,-8.76367,3.82901,-4.75298,-19.5296,-1.85338,0.106048,-2.09912,-34.8436,-1.0385,26.1575,3.10333,2.46911,-0.0026396,
0.167421,0.0845837,0.152732,-1.90533,0.449903,0.101695,0.142844,0.0062514,-0.010218,0.000375498,0.0134481,0.0348454,0.0888898,-0.00189842,-0.901665,-0.18685,-0.873448,0.190471,-3.17879,0.790815,0.00860872,1.15467,-1.13239,0.776838,1.22777,5.29981,-1.83795,-0.00241897,0.165723,0.094245,0.157046,-1.91891,0.441525,0.0138662,0.144428,-0.00920292,-0.0399088,0.12687,0.000206633,0.262457,-0.00424425,0.000414447,0,0,0,0,0,0,0,-2.09912,-34.8436,-1.0385,26.1575,3.10333,2.46911,-0.0026396,
0.167421,0.0845837,0.152732,-1.90533,0.449903,0.101695,0.142844,0.00509727,-0.0104572,-0.000742515,0.0136919,0.0307765,0.0899021,-0.0018874,-0.721332,-0.14948,-0.698758,0.152377,-2.54303,0.632652,0.00688698,1.15467,-1.13239,0.776838,1.22777,5.29981,-1.83795,-0.00241897,0.165723,0.094245,0.157046,-1.91891,0.441525,0.0138662,0.144428,-0.00920292,-0.0399088,0.12687,0.000206633,0.262457,-0.00424425,0.000414447,0,0,0,0,0,0,0,-2.09912,-34.8436,-1.0385,26.1575,3.10333,2.46911,-0.0026396,
0.167421,0.0845837,0.152732,-1.90533,0.449903,0.101695,0.142844,0.00417396,-0.0106485,-0.00163693,0.013887,0.0275214,0.0907118,-0.00187858,-0.577065,-0.119584,-0.559006,0.121901,-2.03442,0.506122,0.00550958,1.15467,-1.13239,0.776838,1.22777,5.29981,-1.83795,-0.00241897,0.165723,0.094245,0.157046,-1.91891,0.441525,0.0138662,0.144428,-0.00920292,-0.0399088,0.12687,0.000206633,0.262457,-0.00424425,0.000414447,0,0,0,0,0,0,0,-2.09912,-34.8436,-1.0385,26.1575,3.10333,2.46911,-0.0026396,
0.168319,0.0831256,0.154846,-1.90529,0.456229,0.102154,0.142867,0.00343461,-0.0108903,-0.00234595,0.0140017,0.0245018,0.091304,-0.00187081,-0.462095,-0.151113,-0.44314,0.0717192,-1.88725,0.370078,0.00486057,1.15509,-1.1363,0.76858,1.20345,5.27146,-1.84409,-0.00241107,0.167374,0.0943785,0.158935,-1.91861,0.449719,0.0149773,0.14442,0.0457311,0.0270398,0.0283213,0.01816,0.222458,0.0394503,0.00335945,6.86675,8.36858,-12.3187,2.24417,-4.99981,5.46182,0.368125,-1.44055,-37.7913,-0.986925,25.4077,3.00628,1.29632,0.0376436,
0.168319,0.0831256,0.154846,-1.90529,0.456229,0.102154,0.142867,0.00284313,-0.0110837,-0.00291317,0.0140935,0.0220861,0.0917777,-0.00186458,-0.369676,-0.12089,-0.354512,0.0573753,-1.5098,0.296062,0.00388845,1.15509,-1.1363,0.76858,1.20345,5.27146,-1.84409,-0.00241107,0.167374,0.0943785,0.158935,-1.91861,0.449719,0.0149773,0.14442,0.0457311,0.0270398,0.0283213,0.01816,0.222458,0.0394503,0.00335945,0,0,0,0,0,0,0,-1.44055,-37.7913,-0.986925,25.4077,3.00628,1.29632,0.0376436,
0.168319,0.0831256,0.154846,-1.90529,0.456229,0.102154,0.142867,0.00236994,-0.0112385,-0.00336694,0.014167,0.0201536,0.0921566,-0.00185961,-0.295741,-0.0967122,-0.28361,0.0459003,-1.20784,0.23685,0.00311076,1.15509,-1.1363,0.76858,1.20345,5.27146,-1.84409,-0.00241107,0.167374,0.0943785,0.158935,-1.91861,0.449719,0.0149773,0.14442,0.0457311,0.0270398,0.0283213,0.01816,0.222458,0.0394503,0.00335945,0,0,0,0,0,0,0,-1.44055,-37.7913,-0.986925,25.4077,3.00628,1.29632,0.0376436,
0.168319,0.0831256,0.154846,-1.90529,0.456229,0.102154,0.142867,0.0019914,-0.0113623,-0.00372996,0.0142257,0.0186076,0.0924598,-0.00185563,-0.236593,-0.0773697,-0.226888,0.0367202,-0.966273,0.18948,0.00248861,1.15509,-1.1363,0.76858,1.20345,5.27146,-1.84409,-0.00241107,0.167374,0.0943785,0.158935,-1.91861,0.449719,0.0149773,0.14442,0.0457311,0.0270398,0.0283213,0.01816,0.222458,0.0394503,0.00335945,0,0,0,0,0,0,0,-1.44055,-37.7913,-0.986925,25.4077,3.00628,1.29632,0.0376436,
0.169248,0.0848269,0.155882,-1.90545,0.461373,0.10477,0.142871,0.0016883,-0.0113632,-0.00405349,0.014262,0.017128,0.0927602,-0.00185238,-0.189433,-0.000566356,-0.202204,0.0226636,-0.924753,0.187745,0.00203099,1.16182,-1.13056,0.775599,1.17113,5.24869,-1.8556,-0.00232965,0.168983,0.0938188,0.159226,-1.91857,0.457521,0.0179819,0.144425,0.0413559,-0.034671,-0.00246645,-0.000355685,0.211843,0.102759,0.00159084,-0.546908,-7.71384,-3.84846,-2.31446,-1.32685,7.91361,-0.221076,-1.5675,-34.3477,-0.185533,26.0544,3.06671,0.871512,-0.00996382,
0.169248,0.0848269,0.155882,-1.90545,0.461373,0.10477,0.142871,0.00144583,-0.0113639,-0.00431231,0.014291,0.0159443,0.0930005,-0.00184978,-0.151546,-0.000453085,-0.161763,0.0181309,-0.739802,0.150196,0.00162479,1.16182,-1.13056,0.775599,1.17113,5.24869,-1.8556,-0.00232965,0.168983,0.0938188,0.159226,-1.91857,0.457521,0.0179819,0.144425,0.0413559,-0.034671,-0.00246645,-0.000355685,0.211843,0.102759,0.00159084,0,0,0,0,0,0,0,-1.5675,-34.3477,-0.185533,26.0544,3.06671,0.871512,-0.00996382,
0.169248,0.0848269,0.155882,-1.90545,0.461373,0.10477,0.142871,0.00125185,-0.0113645,-0.00451937,0.0143142,0.0149973,0.0931928,-0.0018477,-0.121237,-0.000362468,-0.12941,0.0145047,-0.591842,0.120157,0.00129983,1.16182,-1.13056,0.775599,1.17113,5.24869,-1.8556,-0.00232965,0.168983,0.0938188,0.159226,-1.91857,0.457521,0.0179819,0.144425,0.0413559,-0.034671,-0.00246645,-0.000355685,0.211843,0.102759,0.00159084,0,0,0,0,0,0,0,-1.5675,-34.3477,-0.185533,26.0544,3.06671,0.871512,-0.00996382,
0.170362,0.0831256,0.155788,-1.90515,0.467398,0.107782,0.142893,0.0010963,-0.0114047,-0.00466317,0.01426,0.0139084,0.0930026,-0.00184394,-0.0972162,-0.0251226,-0.0898791,-0.033861,-0.680552,-0.118865,0.00234876,1.16182,-1.13056,0.775599,1.17113,5.24869,-1.8556,-0.00232965,0.168983,0.0938188,0.159226,-1.91857,0.457521,0.0179819,0.144425,0.0413559,-0.034671,-0.00246645,-0.000355685,0.211843,0.102759,0.00159084,0,0,0,0,0,0,0,-1.5675,-34.3477,-0.185533,26.0544,3.06671,0.871512,-0.00996382,
0.170362,0.0831256,0.155788,-1.90515,0.467398,0.107782,0.142893,0.000971866,-0.0114368,-0.00477822,0.0142167,0.0130373,0.0928504,-0.00184093,-0.077773,-0.0200981,-0.0719033,-0.0270888,-0.544442,-0.0950918,0.00187901,1.16182,-1.13056,0.775599,1.17113,5.24869,-1.8556,-0.00232965,0.168983,0.0938188,0.159226,-1.91857,0.457521,0.0179819,0.144425,0.0413559,-0.034671,-0.00246645,-0.000355685,0.211843,0.102759,0.00159084,0,0,0,0,0,0,0,-1.5675,-34.3477,-0.185533,26.0544,3.06671,0.871512,-0.00996382,
0.170362,0.0831256,0.155788,-1.90515,0.467398,0.107782,0.142893,0.000872317,-0.0114626,-0.00487026,0.014182,0.0123404,0.0927287,-0.00183853,-0.0622184,-0.0160785,-0.0575226,-0.0216711,-0.435553,-0.0760734,0.00150321,1.16352,-1.10323,0.773276,1.13027,5.2278,-1.87468,-0.00224231,0.169535,0.0937708,0.15994,-1.91777,0.465198,0.0223989,0.144422,0.00790662,0.0100664,0.0106998,0.0344677,0.210951,0.119292,-8.07175e-06,-4.18115,5.59217,1.64578,4.35292,-0.111506,2.06664,-0.199864,-0.476498,-36.9185,0.187391,24.5865,2.63916,-0.0165499,0.0239107,
0.170362,0.0831256,0.155788,-1.90515,0.467398,0.107782,0.142893,0.000792678,-0.0114831,-0.00494388,0.0141543,0.0117829,0.0926313,-0.0018366,-0.0497747,-0.0128628,-0.0460181,-0.0173369,-0.348443,-0.0608587,0.00120256,1.16352,-1.10323,0.773276,1.13027,5.2278,-1.87468,-0.00224231,0.169535,0.0937708,0.15994,-1.91777,0.465198,0.0223989,0.144422,0.00790662,0.0100664,0.0106998,0.0344677,0.210951,0.119292,-8.07175e-06,0,0,0,0,0,0,0,-0.476498,-36.9185,0.187391,24.5865,2.63916,-0.0165499,0.0239107,
0.170516,0.0839894,0.156061,-1.90462,0.473509,0.1121,0.142898,0.000728824,-0.0114027,-0.0050203,0.01408,0.0110583,0.0923286,-0.00183354,-0.0399086,0.0502439,-0.0477603,-0.0464407,-0.452891,-0.189202,0.00191155,1.16352,-1.10323,0.773276,1.13027,5.2278,-1.87468,-0.00224231,0.169535,0.0937708,0.15994,-1.91777,0.465198,0.0223989,0.144422,0.00790662,0.0100664,0.0106998,0.0344677,0.210951,0.119292,-8.07175e-06,0,0,0,0,0,0,0,-0.476498,-36.9185,0.187391,24.5865,2.63916,-0.0165499,0.0239107,
0.170516,0.0839894,0.156061,-1.90462,0.473509,0.1121,0.142898,0.000677741,-0.0113384,-0.00508143,0.0140205,0.0104786,0.0920864,-0.0018311,-0.0319269,0.0401951,-0.0382082,-0.0371526,-0.362313,-0.151362,0.00152924,1.16352,-1.10323,0.773276,1.13027,5.2278,-1.87468,-0.00224231,0.169535,0.0937708,0.15994,-1.91777,0.465198,0.0223989,0.144422,0.00790662,0.0100664,0.0106998,0.0344677,0.210951,0.119292,-8.07175e-06,0,0,0,0,0,0,0,-0.476498,-36.9185,0.187391,24.5865,2.63916,-0.0165499,0.0239107,
0.170516,0.0839894,0.156061,-1.90462,0.473509,0.1121,0.142898,0.000636874,-0.011287,-0.00513034,0.013973,0.0100149,0.0918927,-0.00182914,-0.0255415,0.0321561,-0.0305666,-0.0297221,-0.28985,-0.121089,0.00122339,1.16594,-1.07922,0.776652,1.08778,5.20807,-1.89481,-0.0021192,0.170114,0.0932818,0.159981,-1.9171,0.472642,0.0270932,0.144418,0.0074075,-0.0282883,0.000429784,0.013493,0.220735,0.131083,-0.00114468,-0.0623894,-4.79433,-1.28375,-2.62183,1.22289,1.47385,-0.142077,-0.0202602,-34.9468,0.86183,24.7095,2.99347,0.288321,0.0641939,
0.170516,0.0839894,0.156061,-1.90462,0.473509,0.1121,0.142898,0.000604181,-0.0112458,-0.00516947,0.0139349,0.00964384,0.0917377,-0.00182757,-0.0204332,0.0257249,-0.0244533,-0.0237776,-0.23188,-0.0968716,0.000978716,1.16594,-1.07922,0.776652,1.08778,5.20807,-1.89481,-0.0021192,0.170114,0.0932818,0.159981,-1.9171,0.472642,0.0270932,0.144418,0.0074075,-0.0282883,0.000429784,0.013493,0.220735,0.131083,-0.00114468,0,0,0,0,0,0,0,-0.0202602,-34.9468,0.86183,24.7095,2.99347,0.288321,0.0641939,
0.171002,0.082962,0.156065,-1.90404,0.479679,0.115414,0.142908,0.000577749,-0.0112139,-0.00518916,0.0138342,0.00902283,0.0912916,-0.0018243,-0.0165201,0.019955,-0.0123113,-0.0629374,-0.388135,-0.278835,0.00204461,1.16594,-1.07922,0.776652,1.08778,5.20807,-1.89481,-0.0021192,0.170114,0.0932818,0.159981,-1.9171,0.472642,0.0270932,0.144418,0.0074075,-0.0282883,0.000429784,0.013493,0.220735,0.131083,-0.00114468,0,0,0,0,0,0,0,-0.0202602,-34.9468,0.86183,24.7095,2.99347,0.288321,0.0641939,
0.171002,0.082962,0.156065,-1.90404,0.479679,0.115414,0.142908,0.000556603,-0.0111884,-0.00520492,0.0137537,0.00852601,0.0909346,-0.00182169,-0.0132161,0.015964,-0.00984903,-0.0503499,-0.310508,-0.223068,0.00163569,1.16594,-1.07922,0.776652,1.08778,5.20807,-1.89481,-0.0021192,0.170114,0.0932818,0.159981,-1.9171,0.472642,0.0270932,0.144418,0.0074075,-0.0282883,0.000429784,0.013493,0.220735,0.131083,-0.00114468,0,0,0,0,0,0,0,-0.0202602,-34.9468,0.86183,24.7095,2.99347,0.288321,0.0641939,
0.171002,0.082962,0.156065,-1.90404,0.479679,0.115414,0.142908,0.000539687,-0.0111679,-0.00521753,0.0136892,0.00812856,0.0906491,-0.00181959,-0.0105729,0.0127712,-0.00787922,-0.04028,-0.248406,-0.178454,0.00130855,1.16344,-1.05736,0.773091,1.05515,5.18902,-1.91109,-0.00202086,0.170437,0.0931392,0.159997,-1.91646,0.479689,0.0311819,0.144419,0.00935692,0.00836076,0.0031096,0.0212176,0.204864,0.108316,-0.000577771,0.243678,4.58113,0.334977,0.96557,-1.98386,-2.84584,0.0708642,0.106693,-36.0417,0.786451,25.3601,3.02459,0.552908,0.0440523,
0.171002,0.082962,0.156065,-1.90404,0.479679,0.115414,0.142908,0.000526154,-0.0111516,-0.00522761,0.0136377,0.0078106,0.0904207,-0.00181792,-0.00845829,0.010217,-0.00630338,-0.032224,-0.198725,-0.142764,0.00104684,1.16344,-1.05736,0.773091,1.05515,5.18902,-1.91109,-0.00202086,0.170437,0.0931392,0.159997,-1.91646,0.479689,0.0311819,0.144419,0.00935692,0.00836076,0.0031096,0.0212176,0.204864,0.108316,-0.000577771,0,0,0,0,0,0,0,0.106693,-36.0417,0.786451,25.3601,3.02459,0.552908,0.0440523,
0.171356,0.083789,0.156046,-1.90391,0.4851,0.118479,0.142913,0.000515151,-0.011058,-0.00525092,0.0135635,0.00730959,0.0901538,-0.00181578,-0.00687679,0.0584656,-0.0145631,-0.0463786,-0.313135,-0.166821,0.00133337,1.16344,-1.05736,0.773091,1.05515,5.18902,-1.91109,-0.00202086,0.170437,0.0931392,0.159997,-1.91646,0.479689,0.0311819,0.144419,0.00935692,0.00836076,0.0031096,0.0212176,0.204864,0.108316,-0.000577771,0,0,0,0,0,0,0,0.106693,-36.0417,0.786451,25.3601,3.02459,0.552908,0.0440523,
0.171356,0.083789,0.156046,-1.90391,0.4851,0.118479,0.142913,0.000506348,-0.0109832,-0.00526956,0.0135041,0.00690877,0.0899403,-0.00181408,-0.00550143,0.0467725,-0.0116504,-0.0371029,-0.250508,-0.133457,0.0010667,1.16344,-1.05736,0.773091,1.05515,5.18902,-1.91109,-0.00202086,0.170437,0.0931392,0.159997,-1.91646,0.479689,0.0311819,0.144419,0.00935692,0.00836076,0.0031096,0.0212176,0.204864,0.108316,-0.000577771,0,0,0,0,0,0,0,0.106693,-36.0417,0.786451,25.3601,3.02459,0.552908,0.0440523,
0.171356,0.083789,0.156046,-1.90391,0.4851,0.118479,0.142913,0.000499307,-0.0109233,-0.00528447,0.0134566,0.00658812,0.0897694,-0.00181271,-0.00440115,0.037418,-0.00932035,-0.0296823,-0.200406,-0.106765,0.000853357,1.16191,-1.04524,0.773488,1.02448,5.17114,-1.92398,-0.00190394,0.170721,0.0926159,0.159972,-1.91603,0.486116,0.0345243,0.144422,0.0097864,-0.0273836,-0.00266202,0.00545145,0.191864,0.0970891,-0.000255093,0.053685,-4.46805,-0.721453,-1.97076,-1.62492,-1.40342,0.0403347,0.336795,-35.4189,1.08797,25.5585,3.29284,0.705801,0.017502,
0.171356,0.083789,0.156046,-1.90391,0.4851,0.118479,0.142913,0.000493673,-0.0108754,-0.0052964,0.0134186,0.0063316,0.0896328,-0.00181162,-0.00352092,0.0299344,-0.00745628,-0.0237459,-0.160325,-0.0854123,0.000682685,1.16191,-1.04524,0.773488,1.02448,5.17114,-1.92398,-0.00190394,0.170721,0.0926159,0.159972,-1.91603,0.486116,0.0345243,0.144422,0.0097864,-0.0273836,-0.00266202,0.00545145,0.191864,0.0970891,-0.000255093,0,0,0,0,0,0,0,0.336795,-35.4189,1.08797,25.5585,3.29284,0.705801,0.017502,
0.17161,0.082674,0.156051,-1.90355,0.490181,0.120554,0.142925,0.000488883,-0.0108594,-0.00529236,0.0133347,0.00584897,0.0893075,-0.00180931,-0.0029938,0.0100448,0.00252455,-0.0524199,-0.301645,-0.203271,0.00144312,1.16191,-1.04524,0.773488,1.02448,5.17114,-1.92398,-0.00190394,0.170721,0.0926159,0.159972,-1.91603,0.486116,0.0345243,0.144422,0.0097864,-0.0273836,-0.00266202,0.00545145,0.191864,0.0970891,-0.000255093,0,0,0,0,0,0,0,0.336795,-35.4189,1.08797,25.5585,3.29284,0.705801,0.017502,
0.17161,0.082674,0.156051,-1.90355,0.490181,0.120554,0.142925,0.000485051,-0.0108465,-0.00528913,0.0132676,0.00546286,0.0890473,-0.00180746,-0.00239504,0.0080358,0.00201964,-0.0419359,-0.241316,-0.162617,0.0011545,1.16191,-1.04524,0.773488,1.02448,5.17114,-1.92398,-0.00190394,0.170721,0.0926159,0.159972,-1.91603,0.486116,0.0345243,0.144422,0.0097864,-0.0273836,-0.00266202,0.00545145,0.191864,0.0970891,-0.000255093,0,0,0,0,0,0,0,0.336795,-35.4189,1.08797,25.5585,3.29284,0.705801,0.017502,
0.17161,0.082674,0.156051,-1.90355,0.490181,0.120554,0.142925,0.000481985,-0.0108362,-0.00528654,0.013214,0.00515398,0.0888392,-0.00180599,-0.00191603,0.00642864,0.00161571,-0.0335488,-0.193053,-0.130094,0.000923599,1.1627,-1.02419,0.773317,0.995191,5.15579,-1.93733,-0.00184383,0.170962,0.092497,0.159969,-1.91564,0.492214,0.0381244,0.14442,0.0094797,0.00759823,-0.000317714,0.0177353,0.192413,0.104463,-0.000646118,-0.0383375,4.37273,0.293039,1.53548,0.068581,0.921695,-0.0488781,0.360599,-36.2163,1.03639,25.4831,3.27453,0.552908,0.0376436,
0.17161,0.082674,0.156051,-1.90355,0.490181,0.120554,0.142925,0.000479533,-0.010828,-0.00528447,0.013171,0.00490687,0.0886727,-0.0018048,-0.00153282,0.00514291,0.00129257,-0.026839,-0.154442,-0.104075,0.000738879,1.1627,-1.02419,0.773317,0.995191,5.15579,-1.93733,-0.00184383,0.170962,0.092497,0.159969,-1.91564,0.492214,0.0381244,0.14442,0.0094797,0.00759823,-0.000317714,0.0177353,0.192413,0.104463,-0.000646118,0,0,0,0,0,0,0,0.360599,-36.2163,1.03639,25.4831,3.27453,0.552908,0.0376436,
0.171826,0.0834038,0.15597,-1.90352,0.495157,0.123763,0.142926,0.000477454,-0.0107452,-0.00529595,0.0131033,0.00450021,0.0884364,-0.001803,-0.00129932,0.0517687,-0.00717378,-0.0423163,-0.25416,-0.147679,0.00112898,1.1627,-1.02419,0.773317,0.995191,5.15579,-1.93733,-0.00184383,0.170962,0.092497,0.159969,-1.91564,0.492214,0.0381244,0.14442,0.0094797,0.00759823,-0.000317714,0.0177353,0.192413,0.104463,-0.000646118,0,0,0,0,0,0,0,0.360599,-36.2163,1.03639,25.4831,3.27453,0.552908,0.0376436,
0.171826,0.0834038,0.15597,-1.90352,0.495157,0.123763,0.142926,0.000475791,-0.0106789,-0.00530514,0.0130491,0.00417489,0.0882474,-0.00180155,-0.00103946,0.041415,-0.00573902,-0.0338531,-0.203328,-0.118143,0.000903186,1.1627,-1.02419,0.773317,0.995191,5.15579,-1.93733,-0.00184383,0.170962,0.092497,0.159969,-1.91564,0.492214,0.0381244,0.14442,0.0094797,0.00759823,-0.000317714,0.0177353,0.192413,0.104463,-0.000646118,0,0,0,0,0,0,0,0.360599,-36.2163,1.03639,25.4831,3.27453,0.552908,0.0376436,
0.171826,0.0834038,0.15597,-1.90352,0.495157,0.123763,0.142926,0.00047446,-0.0106259,-0.00531248,0.0130058,0.00391463,0.0880961,-0.0018004,-0.000831565,0.033132,-0.00459122,-0.0270825,-0.162662,-0.0945143,0.000722549,1.16243,-1.00471,0.772729,0.966835,5.14001,-1.94887,-0.0017527,0.17118,0.0922874,0.159954,-1.91535,0.498334,0.0416107,0.144424,0.00796371,-0.0179442,-0.00155225,0.00437952,0.189476,0.101815,-8.57296e-05,-0.189499,-3.19281,-0.154317,-1.66947,-0.367119,-0.330934,0.0700485,0.487552,-35.7442,1.16334,25.6061,3.23791,0.560232,0.00376909,
0.17204,0.0828648,0.155977,-1.90332,0.500196,0.12626,0.142938,0.000473179,-0.0105756,-0.00531314,0.0129242,0.0034582,0.0877979,-0.00179823,-0.00080064,0.0314559,-0.000411246,-0.0509959,-0.28527,-0.18639,0.0013564,1.16243,-1.00471,0.772729,0.966835,5.14001,-1.94887,-0.0017527,0.17118,0.0922874,0.159954,-1.91535,0.498334,0.0416107,0.144424,0.00796371,-0.0179442,-0.00155225,0.00437952,0.189476,0.101815,-8.57296e-05,0,0,0,0,0,0,0,0.487552,-35.7442,1.16334,25.6061,3.23791,0.560232,0.00376909,
0.17204,0.0828648,0.155977,-1.90332,0.500196,0.12626,0.142938,0.000472154,-0.0105353,-0.00531367,0.0128589,0.00309305,0.0875593,-0.00179649,-0.000640512,0.0251647,-0.000328997,-0.0407967,-0.228216,-0.149112,0.00108512,1.16243,-1.00471,0.772729,0.966835,5.14001,-1.94887,-0.0017527,0.17118,0.0922874,0.159954,-1.91535,0.498334,0.0416107,0.144424,0.00796371,-0.0179442,-0.00155225,0.00437952,0.189476,0.101815,-8.57296e-05,0,0,0,0,0,0,0,0.487552,-35.7442,1.16334,25.6061,3.23791,0.560232,0.00376909,
0.17204,0.0828648,0.155977,-1.90332,0.500196,0.12626,0.142938,0.000471335,-0.0105031,-0.00531409,0.0128067,0.00280094,0.0873685,-0.0017951,-0.00051241,0.0201317,-0.000263197,-0.0326373,-0.182573,-0.119289,0.000868097,1.16243,-1.00471,0.772729,0.966835,5.14001,-1.94887,-0.0017527,0.17118,0.0922874,0.159954,-1.91535,0.498334,0.0416107,0.144424,0.00796371,-0.0179442,-0.00155225,0.00437952,0.189476,0.101815,-8.57296e-05,0,0,0,0,0,0,0,0.487552,-35.7442,1.16334,25.6061,3.23791,0.560232,0.00376909,
0.17204,0.0828648,0.155977,-1.90332,0.500196,0.12626,0.142938,0.000470679,-0.0104773,-0.00531442,0.012765,0.00256724,0.0872158,-0.00179399,-0.000409928,0.0161054,-0.000210558,-0.0261099,-0.146058,-0.0954315,0.000694478,1.16401,-0.980704,0.77276,0.937662,5.12511,-1.96151,-0.0016904,0.171403,0.0922447,0.159951,-1.91494,0.504484,0.0452085,0.144418,0.00270538,0.0079474,-0.000237773,0.0164276,0.188632,0.115617,-0.000490791,-0.657291,3.23645,0.164309,1.50602,-0.105554,1.7252,-0.0506327,0.539127,-36.5416,1.08797,25.5069,3.0429,0.480581,0.0577852,
0.172147,0.0834945,0.155821,-1.90318,0.505228,0.129602,0.142936,0.000470067,-0.0103812,-0.00532595,0.0126938,0.00217417,0.0869642,-0.0017921,-0.000382503,0.0600766,-0.00720334,-0.0444865,-0.245673,-0.15722,0.00118309,1.16401,-0.980704,0.77276,0.937662,5.12511,-1.96151,-0.0016904,0.171403,0.0922447,0.159951,-1.91494,0.504484,0.0452085,0.144418,0.00270538,0.0079474,-0.000237773,0.0164276,0.188632,0.115617,-0.000490791,0,0,0,0,0,0,0,0.539127,-36.5416,1.08797,25.5069,3.0429,0.480581,0.0577852,
0.172147,0.0834945,0.155821,-1.90318,0.505228,0.129602,0.142936,0.000469577,-0.0103043,-0.00533517,0.0126368,0.0018597,0.086763,-0.00179058,-0.000306002,0.0480613,-0.00576267,-0.0355892,-0.196539,-0.125776,0.000946476,1.16401,-0.980704,0.77276,0.937662,5.12511,-1.96151,-0.0016904,0.171403,0.0922447,0.159951,-1.91494,0.504484,0.0452085,0.144418,0.00270538,0.0079474,-0.000237773,0.0164276,0.188632,0.115617,-0.000490791,0,0,0,0,0,0,0,0.539127,-36.5416,1.08797,25.5069,3.0429,0.480581,0.0577852,
0.172147,0.0834945,0.155821,-1.90318,0.505228,0.129602,0.142936,0.000469185,-0.0102428,-0.00534255,0.0125913,0.00160814,0.086602,-0.00178937,-0.000244802,0.038449,-0.00461014,-0.0284714,-0.157231,-0.100621,0.00075718,1.16401,-0.980704,0.77276,0.937662,5.12511,-1.96151,-0.0016904,0.171403,0.0922447,0.159951,-1.91494,0.504484,0.0452085,0.144418,0.00270538,0.0079474,-0.000237773,0.0164276,0.188632,0.115617,-0.000490791,0,0,0,0,0,0,0,0.539127,-36.5416,1.08797,25.5069,3.0429,0.480581,0.0577852,
0.172147,0.0834945,0.155821,-1.90318,0.505228,0.129602,0.142936,0.000468872,-0.0101936,-0.00534845,0.0125548,0.00140688,0.0864732,-0.0017884,-0.000195841,0.0307592,-0.00368811,-0.0227771,-0.125785,-0.0804966,0.000605744,1.16401,-0.980704,0.77276,0.937662,5.12511,-1.96151,-0.0016904,0.171403,0.0922447,0.159951,-1.91494,0.504484,0.0452085,0.144418,0.00270538,0.0079474,-0.000237773,0.0164276,0.188632,0.115617,-0.000490791,0,0,0,0,0,0,0,0.539127,-36.5416,1.08797,25.5069,3.0429,0.480581,0.0577852,
0.172498,0.0830694,0.155942,-1.90303,0.510071,0.131983,0.142949,0.000468422,-0.0101443,-0.00535002,0.0124826,0.0010136,0.0862189,-0.00178651,-0.000281107,0.0307679,-0.000984942,-0.0451467,-0.245801,-0.158942,0.0011796,1.16081,-0.961261,0.768973,0.910727,5.1094,-1.97233,-0.0015848,0.171659,0.0920796,0.159967,-1.91465,0.510545,0.0487672,0.144425,0.00551474,-0.0142437,0.00200233,0.00504654,0.168226,0.101279,0.000965844,0.35117,-2.77388,0.280013,-1.42264,-2.55067,-1.79217,0.182079,0.158268,-35.7204,0.838026,25.5823,2.96966,0.679251,-0.00996382,
0.172498,0.0830694,0.155942,-1.90303,0.510071,0.131983,0.142949,0.000468062,-0.0101049,-0.00535128,0.0124248,0.000698972,0.0860155,-0.001785,-0.000224885,0.0246144,-0.000787953,-0.0361174,-0.196641,-0.127153,0.000943679,1.16081,-0.961261,0.768973,0.910727,5.1094,-1.97233,-0.0015848,0.171659,0.0920796,0.159967,-1.91465,0.510545,0.0487672,0.144425,0.00551474,-0.0142437,0.00200233,0.00504654,0.168226,0.101279,0.000965844,0,0,0,0,0,0,0,0.158268,-35.7204,0.838026,25.5823,2.96966,0.679251,-0.00996382,
0.172498,0.0830694,0.155942,-1.90303,0.510071,0.131983,0.142949,0.000467775,-0.0100734,-0.00535229,0.0123786,0.000447271,0.0858527,-0.0017838,-0.000179908,0.0196915,-0.000630363,-0.0288939,-0.157313,-0.101723,0.000754943,1.16081,-0.961261,0.768973,0.910727,5.1094,-1.97233,-0.0015848,0.171659,0.0920796,0.159967,-1.91465,0.510545,0.0487672,0.144425,0.00551474,-0.0142437,0.00200233,0.00504654,0.168226,0.101279,0.000965844,0,0,0,0,0,0,0,0.158268,-35.7204,0.838026,25.5823,2.96966,0.679251,-0.00996382,
0.172498,0.0830694,0.155942,-1.90303,0.510071,0.131983,0.142949,0.000467544,-0.0100482,-0.0053531,0.0123416,0.000245911,0.0857225,-0.00178283,-0.000143927,0.0157532,-0.00050429,-0.0231151,-0.12585,-0.0813781,0.000603955,1.16081,-0.961261,0.768973,0.910727,5.1094,-1.97233,-0.0015848,0.171659,0.0920796,0.159967,-1.91465,0.510545,0.0487672,0.144425,0.00551474,-0.0142437,0.00200233,0.00504654,0.168226,0.101279,0.000965844,0,0,0,0,0,0,0,0.158268,-35.7204,0.838026,25.5823,2.96966,0.679251,-0.00996382,
0.172498,0.0830694,0.155942,-1.90303,0.510071,0.131983,0.142949,0.00046736,-0.0100281,-0.00535374,0.012312,8.48223e-05,0.0856183,-0.00178206,-0.000115141,0.0126025,-0.000403432,-0.0184921,-0.10068,-0.0651024,0.000483164,1.1615,-0.938461,0.768043,0.883811,5.09505,-1.98315,-0.00152576,0.171948,0.0920593,0.159963,-1.91437,0.516567,0.052243,0.144418,0.00904434,0.00607885,-0.000336488,0.01282,0.173597,0.103816,-0.00174814,0.4412,2.54032,-0.292353,0.971676,0.671376,0.31706,-0.339247,0.25745,-36.0695,0.937208,25.5347,3.01818,0.73876,0.0577852,
0.172498,0.0830694,0.155942,-1.90303,0.510071,0.131983,0.142949,0.000467213,-0.0100119,-0.00535426,0.0122883,-4.40485e-05,0.085535,-0.00178144,-9.2113e-05,0.010082,-0.000322746,-0.0147937,-0.0805442,-0.052082,0.000386531,1.1615,-0.938461,0.768043,0.883811,5.09505,-1.98315,-0.00152576,0.171948,0.0920593,0.159963,-1.91437,0.516567,0.052243,0.144418,0.00904434,0.00607885,-0.000336488,0.01282,0.173597,0.103816,-0.00174814,0,0,0,0,0,0,0,0.25745,-36.0695,0.937208,25.5347,3.01818,0.73876,0.0577852,
0.172498,0.0830694,0.155942,-1.90303,0.510071,0.131983,0.142949,0.000467095,-0.00999903,-0.00535467,0.0122694,-0.000147145,0.0854683,-0.00178094,-7.36904e-05,0.00806563,-0.000258197,-0.0118349,-0.0644354,-0.0416656,0.000309225,1.1615,-0.938461,0.768043,0.883811,5.09505,-1.98315,-0.00152576,0.171948,0.0920593,0.159963,-1.91437,0.516567,0.052243,0.144418,0.00904434,0.00607885,-0.000336488,0.01282,0.173597,0.103816,-0.00174814,0,0,0,0,0,0,0,0.25745,-36.0695,0.937208,25.5347,3.01818,0.73876,0.0577852,
0.172498,0.0830694,0.155942,-1.90303,0.510071,0.131983,0.142949,0.000467001,-0.00998871,-0.005355,0.0122543,-0.000229622,0.085415,-0.00178055,-5.89523e-05,0.0064525,-0.000206557,-0.00946795,-0.0515483,-0.0333325,0.00024738,1.1615,-0.938461,0.768043,0.883811,5.09505,-1.98315,-0.00152576,0.171948,0.0920593,0.159963,-1.91437,0.516567,0.052243,0.144418,0.00904434,0.00607885,-0.000336488,0.01282,0.173597,0.103816,-0.00174814,0,0,0,0,0,0,0,0.25745,-36.0695,0.937208,25.5347,3.01818,0.73876,0.0577852,
0.172783,0.0836089,0.155894,-1.90302,0.515145,0.135035,0.142945,0.000466805,-0.00991553,-0.00536575,0.0122077,-0.000503763,0.0852789,-0.00177939,-0.000122199,0.0457345,-0.00671406,-0.029121,-0.171338,-0.0850879,0.000723351,1.16052,-0.920104,0.766194,0.858941,5.08044,-1.99232,-0.00144826,0.172241,0.0919482,0.159955,-1.91417,0.5225,0.0554067,0.144424,0.00683019,-0.000359438,-0.000863477,0.00572501,0.164998,0.0912696,0.00181957,-0.276768,-0.804786,-0.0658736,-0.886868,-1.07495,-1.56828,0.445963,0.412174,-35.9425,1.01259,25.8798,3.12164,0.785452,0.00376909,
0.172783,0.0836089,0.155894,-1.90302,0.515145,0.135035,0.142945,0.000466649,-0.00985699,-0.00537434,0.0121704,-0.000723076,0.0851699,-0.00177846,-9.77595e-05,0.0365876,-0.00537125,-0.0232968,-0.13707,-0.0680703,0.000578681,1.16052,-0.920104,0.766194,0.858941,5.08044,-1.99232,-0.00144826,0.172241,0.0919482,0.159955,-1.91417,0.5225,0.0554067,0.144424,0.00683019,-0.000359438,-0.000863477,0.00572501,0.164998,0.0912696,0.00181957,0,0,0,0,0,0,0,0.412174,-35.9425,1.01259,25.8798,3.12164,0.785452,0.00376909,
0.172783,0.0836089,0.155894,-1.90302,0.515145,0.135035,0.142945,0.000466523,-0.00981016,-0.00538122,0.0121406,-0.000898526,0.0850828,-0.00177772,-7.82076e-05,0.0292701,-0.004297,-0.0186374,-0.109656,-0.0544562,0.000462945,1.16052,-0.920104,0.766194,0.858941,5.08044,-1.99232,-0.00144826,0.172241,0.0919482,0.159955,-1.91417,0.5225,0.0554067,0.144424,0.00683019,-0.000359438,-0.000863477,0.00572501,0.164998,0.0912696,0.00181957,0,0,0,0,0,0,0,0.412174,-35.9425,1.01259,25.8798,3.12164,0.785452,0.00376909,
0.172783,0.0836089,0.155894,-1.90302,0.515145,0.135035,0.142945,0.000466423,-0.0097727,-0.00538672,0.0121167,-0.00103889,0.0850131,-0.00177713,-6.25661e-05,0.0234161,-0.0034376,-0.01491,-0.087725,-0.043565,0.000370356,1.16052,-0.920104,0.766194,0.858941,5.08044,-1.99232,-0.00144826,0.172241,0.0919482,0.159955,-1.91417,0.5225,0.0554067,0.144424,0.00683019,-0.000359438,-0.000863477,0.00572501,0.164998,0.0912696,0.00181957,0,0,0,0,0,0,0,0.412174,-35.9425,1.01259,25.8798,3.12164,0.785452,0.00376909,
0.173056,0.0835686,0.155863,-1.90301,0.519916,0.137409,0.142958,0.000466172,-0.00971368,-0.00539288,0.0120622,-0.00136459,0.0848612,-0.00177582,-0.000157311,0.0368854,-0.00385451,-0.0340449,-0.203567,-0.0949667,0.000819768,1.15927,-0.898949,0.763091,0.836729,5.06782,-2.00053,-0.00137839,0.172529,0.0919922,0.159959,-1.91391,0.527734,0.0583846,0.144418,0.00446293,0.00562126,0.00185036,0.0122271,0.154271,0.0813937,-0.000134423,-0.295908,0.747587,0.339229,0.812765,-1.34087,-1.23448,-0.244249,0.233646,-36.617,0.889601,25.8322,3.06121,0.639883,0.0239107,
0.173056,0.0835686,0.155863,-1.90301,0.519916,0.137409,0.142958,0.00046597,-0.00966647,-0.00539782,0.0120187,-0.00162516,0.0847396,-0.00177477,-0.000125849,0.0295083,-0.00308361,-0.0272359,-0.162854,-0.0759734,0.000655814,1.15927,-0.898949,0.763091,0.836729,5.06782,-2.00053,-0.00137839,0.172529,0.0919922,0.159959,-1.91391,0.527734,0.0583846,0.144418,0.00446293,0.00562126,0.00185036,0.0122271,0.154271,0.0813937,-0.000134423,0,0,0,0,0,0,0,0.233646,-36.617,0.889601,25.8322,3.06121,0.639883,0.0239107,
0.173056,0.0835686,0.155863,-1.90301,0.519916,0.137409,0.142958,0.000465809,-0.0096287,-0.00540176,0.0119838,-0.00183361,0.0846424,-0.00177393,-0.000100679,0.0236066,-0.00246689,-0.0217887,-0.130283,-0.0607787,0.000524651,1.15927,-0.898949,0.763091,0.836729,5.06782,-2.00053,-0.00137839,0.172529,0.0919922,0.159959,-1.91391,0.527734,0.0583846,0.144418,0.00446293,0.00562126,0.00185036,0.0122271,0.154271,0.0813937,-0.000134423,0,0,0,0,0,0,0,0.233646,-36.617,0.889601,25.8322,3.06121,0.639883,0.0239107,
0.173334,0.0838537,0.155835,-1.90292,0.524195,0.139843,0.142954,0.000465577,-0.00955239,-0.00541127,0.0119246,-0.00217904,0.0844768,-0.0017725,-0.000145126,0.0476918,-0.00594267,-0.0370197,-0.215896,-0.103495,0.000896492,1.15927,-0.898949,0.763091,0.836729,5.06782,-2.00053,-0.00137839,0.172529,0.0919922,0.159959,-1.91391,0.527734,0.0583846,0.144418,0.00446293,0.00562126,0.00185036,0.0122271,0.154271,0.0813937,-0.000134423,0,0,0,0,0,0,0,0.233646,-36.617,0.889601,25.8322,3.06121,0.639883,0.0239107,
0.173334,0.0838537,0.155835,-1.90292,0.524195,0.139843,0.142954,0.000465391,-0.00949134,-0.00541888,0.0118772,-0.00245539,0.0843443,-0.00177135,-0.000116101,0.0381534,-0.00475414,-0.0296157,-0.172716,-0.0827956,0.000717193,1.15853,-0.882121,0.761353,0.815531,5.05541,-2.00765,-0.00131607,0.172759,0.0919267,0.15996,-1.91374,0.53287,0.0610806,0.14442,0.0057865,-0.00094353,0.000502161,0.00872004,0.148635,0.0741249,-0.00144489,0.165447,-0.820598,-0.168524,-0.438385,-0.704391,-0.908596,-0.163808,0.182071,-36.0179,0.889601,25.9314,3.0429,0.672842,0.0376436,
0.173334,0.0838537,0.155835,-1.90292,0.524195,0.139843,0.142954,0.000465243,-0.00944251,-0.00542496,0.0118393,-0.00267647,0.0842383,-0.00177043,-9.28805e-05,0.0305227,-0.00380331,-0.0236926,-0.138173,-0.0662365,0.000573755,1.15853,-0.882121,0.761353,0.815531,5.05541,-2.00765,-0.00131607,0.172759,0.0919267,0.15996,-1.91374,0.53287,0.0610806,0.14442,0.0057865,-0.00094353,0.000502161,0.00872004,0.148635,0.0741249,-0.00144489,0,0,0,0,0,0,0,0.182071,-36.0179,0.889601,25.9314,3.0429,0.672842,0.0376436,
0.173334,0.0838537,0.155835,-1.90292,0.524195,0.139843,0.142954,0.000465124,-0.00940344,-0.00542983,0.0118089,-0.00285333,0.0841535,-0.0017697,-7.43044e-05,0.0244182,-0.00304265,-0.0189541,-0.110539,-0.0529892,0.000459004,1.15853,-0.882121,0.761353,0.815531,5.05541,-2.00765,-0.00131607,0.172759,0.0919267,0.15996,-1.91374,0.53287,0.0610806,0.14442,0.0057865,-0.00094353,0.000502161,0.00872004,0.148635,0.0741249,-0.00144489,0,0,0,0,0,0,0,0.182071,-36.0179,0.889601,25.9314,3.0429,0.672842,0.0376436,
0.173578,0.0837951,0.155847,-1.90288,0.528431,0.14194,0.14296,0.000464885,-0.00934772,-0.00543511,0.0117526,-0.00318169,0.0839995,-0.00176835,-0.000149493,0.0348239,-0.00329806,-0.0352084,-0.205225,-0.096265,0.000839794,1.15853,-0.882121,0.761353,0.815531,5.05541,-2.00765,-0.00131607,0.172759,0.0919267,0.15996,-1.91374,0.53287,0.0610806,0.14442,0.0057865,-0.00094353,0.000502161,0.00872004,0.148635,0.0741249,-0.00144489,0,0,0,0,0,0,0,0.182071,-36.0179,0.889601,25.9314,3.0429,0.672842,0.0376436,
0.173578,0.0837951,0.155847,-1.90288,0.528431,0.14194,0.14296,0.000464693,-0.00930315,-0.00543933,0.0117075,-0.00344438,0.0838763,-0.00176728,-0.000119595,0.0278591,-0.00263845,-0.0281667,-0.16418,-0.077012,0.000671835,1.16024,-0.862199,0.761356,0.793621,5.0433,-2.01463,-0.00127428,0.172981,0.0919448,0.159959,-1.91353,0.538088,0.0637114,0.144424,0.00299108,-0.000752931,-0.00134108,0.00899321,0.165208,0.0777203,-0.000617251,-0.349428,0.023825,-0.230405,0.0341461,2.07155,0.44942,0.103455,0.336795,-36.367,0.961012,25.9314,3.00628,0.692984,0.00376909,
0.173578,0.0837951,0.155847,-1.90288,0.528431,0.14194,0.14296,0.00046454,-0.00926749,-0.00544271,0.0116715,-0.00365453,0.0837777,-0.00176642,-9.56758e-05,0.0222873,-0.00211076,-0.0225334,-0.131344,-0.0616096,0.000537468,1.16024,-0.862199,0.761356,0.793621,5.0433,-2.01463,-0.00127428,0.172981,0.0919448,0.159959,-1.91353,0.538088,0.0637114,0.144424,0.00299108,-0.000752931,-0.00134108,0.00899321,0.165208,0.0777203,-0.000617251,0,0,0,0,0,0,0,0.336795,-36.367,0.961012,25.9314,3.00628,0.692984,0.00376909,
0.173578,0.0837951,0.155847,-1.90288,0.528431,0.14194,0.14296,0.000464418,-0.00923896,-0.00544541,0.0116427,-0.00382265,0.0836989,-0.00176573,-7.65406e-05,0.0178298,-0.00168861,-0.0180267,-0.105075,-0.0492877,0.000429974,1.16024,-0.862199,0.761356,0.793621,5.0433,-2.01463,-0.00127428,0.172981,0.0919448,0.159959,-1.91353,0.538088,0.0637114,0.144424,0.00299108,-0.000752931,-0.00134108,0.00899321,0.165208,0.0777203,-0.000617251,0,0,0,0,0,0,0,0.336795,-36.367,0.961012,25.9314,3.00628,0.692984,0.00376909,
0.17375,0.0839448,0.155787,-1.90278,0.533011,0.14429,0.142969,0.000464192,-0.00917638,-0.00545188,0.0115863,-0.00415267,0.0835523,-0.00176441,-0.000141319,0.0391142,-0.00404566,-0.0352502,-0.20626,-0.0916226,0.000825628,1.16024,-0.862199,0.761356,0.793621,5.0433,-2.01463,-0.00127428,0.172981,0.0919448,0.159959,-1.91353,0.538088,0.0637114,0.144424,0.00299108,-0.000752931,-0.00134108,0.00899321,0.165208,0.0777203,-0.000617251,0,0,0,0,0,0,0,0.336795,-36.367,0.961012,25.9314,3.00628,0.692984,0.00376909,
0.17375,0.0839448,0.155787,-1.90278,0.533011,0.14429,0.142969,0.000464011,-0.00912631,-0.00545706,0.0115411,-0.00441668,0.083435,-0.00176335,-0.000113055,0.0312914,-0.00323653,-0.0282001,-0.165008,-0.073298,0.000660503,1.16024,-0.862199,0.761356,0.793621,5.0433,-2.01463,-0.00127428,0.172981,0.0919448,0.159959,-1.91353,0.538088,0.0637114,0.144424,0.00299108,-0.000752931,-0.00134108,0.00899321,0.165208,0.0777203,-0.000617251,0,0,0,0,0,0,0,0.336795,-36.367,0.961012,25.9314,3.00628,0.692984,0.00376909,
0.17375,0.0839448,0.155787,-1.90278,0.533011,0.14429,0.142969,0.000463866,-0.00908626,-0.0054612,0.011505,-0.00462789,0.0833412,-0.00176251,-9.04442e-05,0.0250331,-0.00258922,-0.0225601,-0.132006,-0.0586384,0.000528402,1.15984,-0.845276,0.759606,0.774005,5.03142,-2.02072,-0.00122491,0.173185,0.0919378,0.159947,-1.91337,0.543144,0.0662235,0.144425,0.00347117,0.0020624,-0.00108962,0.00535891,0.159349,0.0764047,-0.00058589,0.0600108,0.351916,0.0314326,-0.454288,-0.732348,-0.164452,0.00392007,0.562931,-36.2679,1.08797,25.8084,3.00628,0.719534,-0.0026396,
0.17375,0.0839448,0.155787,-1.90278,0.533011,0.14429,0.142969,0.00046375,-0.00905421,-0.00546452,0.0114762,-0.00479686,0.0832661,-0.00176183,-7.23554e-05,0.0200265,-0.00207138,-0.0180481,-0.105605,-0.0469107,0.000422722,1.15984,-0.845276,0.759606,0.774005,5.03142,-2.02072,-0.00122491,0.173185,0.0919378,0.159947,-1.91337,0.543144,0.0662235,0.144425,0.00347117,0.0020624,-0.00108962,0.00535891,0.159349,0.0764047,-0.00058589,0,0,0,0,0,0,0,0.562931,-36.2679,1.08797,25.8084,3.00628,0.719534,-0.0026396,
0.17396,0.0841781,0.15576,-1.90281,0.537132,0.146397,0.142973,0.000463538,-0.00899004,-0.00547266,0.0114262,-0.00510189,0.0831546,-0.00176071,-0.000132501,0.0401076,-0.00509,-0.0312299,-0.190648,-0.069676,0.000699215,1.15984,-0.845276,0.759606,0.774005,5.03142,-2.02072,-0.00122491,0.173185,0.0919378,0.159947,-1.91337,0.543144,0.0662235,0.144425,0.00347117,0.0020624,-0.00108962,0.00535891,0.159349,0.0764047,-0.00058589,0,0,0,0,0,0,0,0.562931,-36.2679,1.08797,25.8084,3.00628,0.719534,-0.0026396,
0.17396,0.0841781,0.15576,-1.90281,0.537132,0.146397,0.142973,0.000463369,-0.0089387,-0.00547918,0.0113862,-0.00534592,0.0830654,-0.00175982,-0.000106001,0.0320861,-0.004072,-0.0249839,-0.152518,-0.0557408,0.000559372,1.15984,-0.845276,0.759606,0.774005,5.03142,-2.02072,-0.00122491,0.173185,0.0919378,0.159947,-1.91337,0.543144,0.0662235,0.144425,0.00347117,0.0020624,-0.00108962,0.00535891,0.159349,0.0764047,-0.00058589,0,0,0,0,0,0,0,0.562931,-36.2679,1.08797,25.8084,3.00628,0.719534,-0.0026396,
0.17396,0.0841781,0.15576,-1.90281,0.537132,0.146397,0.142973,0.000463233,-0.00889763,-0.00548439,0.0113542,-0.00554114,0.0829941,-0.0017591,-8.48004e-05,0.0256688,-0.0032576,-0.0199871,-0.122014,-0.0445926,0.000447497,1.15924,-0.828636,0.757534,0.755235,5.01998,-2.02623,-0.0011763,0.173377,0.0919484,0.159955,-1.91324,0.54802,0.0686425,0.144426,0.00406561,0.00305637,-3.03148e-05,0.00187044,0.158373,0.0660854,0.000142058,0.0743059,0.124247,0.132413,-0.436059,-0.121995,-1.28991,0.0909936,0.285221,-36.4186,0.961012,26.2567,3.02459,0.891653,-0.0163725,
0.17396,0.0841781,0.15576,-1.90281,0.537132,0.146397,0.142973,0.000463124,-0.00886478,-0.00548856,0.0113287,-0.00569732,0.082937,-0.00175853,-6.78403e-05,0.0205351,-0.00260608,-0.0159897,-0.0976116,-0.0356741,0.000357998,1.15924,-0.828636,0.757534,0.755235,5.01998,-2.02623,-0.0011763,0.173377,0.0919484,0.159955,-1.91324,0.54802,0.0686425,0.144426,0.00406561,0.00305637,-3.03148e-05,0.00187044,0.158373,0.0660854,0.000142058,0,0,0,0,0,0,0,0.285221,-36.4186,0.961012,26.2567,3.02459,0.891653,-0.0163725,
0.174193,0.08437,0.155789,-1.90286,0.541192,0.148313,0.142978,0.000462903,-0.00880502,-0.00549703,0.011283,-0.00599252,0.0828543,-0.00175756,-0.000138285,0.0373514,-0.00529651,-0.0285612,-0.1845,-0.051687,0.000602287,1.15924,-0.828636,0.757534,0.755235,5.01998,-2.02623,-0.0011763,0.173377,0.0919484,0.159955,-1.91324,0.54802,0.0686425,0.144426,0.00406561,0.00305637,-3.03148e-05,0.00187044,0.158373,0.0660854,0.000142058,0,0,0,0,0,0,0,0.285221,-36.4186,0.961012,26.2567,3.02459,0.891653,-0.0163725,
0.174193,0.08437,0.155789,-1.90286,0.541192,0.148313,0.142978,0.000462726,-0.00875721,-0.00550381,0.0112464,-0.00622868,0.0827882,-0.00175679,-0.000110628,0.0298811,-0.00423721,-0.022849,-0.1476,-0.0413496,0.00048183,1.15924,-0.828636,0.757534,0.755235,5.01998,-2.02623,-0.0011763,0.173377,0.0919484,0.159955,-1.91324,0.54802,0.0686425,0.144426,0.00406561,0.00305637,-3.03148e-05,0.00187044,0.158373,0.0660854,0.000142058,0,0,0,0,0,0,0,0.285221,-36.4186,0.961012,26.2567,3.02459,0.891653,-0.0163725,
0.174193,0.08437,0.155789,-1.90286,0.541192,0.148313,0.142978,0.000462584,-0.00871896,-0.00550924,0.0112172,-0.00641761,0.0827352,-0.00175618,-8.85025e-05,0.0239049,-0.00338977,-0.0182792,-0.11808,-0.0330797,0.000385464,1.15919,-0.811212,0.756132,0.735363,5.00874,-2.03224,-0.00112454,0.173554,0.0919415,0.159958,-1.9131,0.552982,0.0711964,0.144423,0.000617135,0.00190569,3.12495e-05,0.00224509,0.152969,0.0674751,-0.000293767,-0.43106,-0.143835,0.00769554,0.0468306,-0.675522,0.173705,-0.0544782,0.309024,-36.3194,0.937208,26.0544,2.98797,0.832144,0.0101778,
0.174193,0.08437,0.155789,-1.90286,0.541192,0.148313,0.142978,0.000462471,-0.00868836,-0.00551358,0.0111938,-0.00656875,0.0826929,-0.00175568,-7.0802e-05,0.0191239,-0.00271181,-0.0146233,-0.0944641,-0.0264638,0.000308371,1.15919,-0.811212,0.756132,0.735363,5.00874,-2.03224,-0.00112454,0.173554,0.0919415,0.159958,-1.9131,0.552982,0.0711964,0.144423,0.000617135,0.00190569,3.12495e-05,0.00224509,0.152969,0.0674751,-0.000293767,0,0,0,0,0,0,0,0.309024,-36.3194,0.937208,26.0544,2.98797,0.832144,0.0101778,
0.174311,0.0844736,0.155727,-1.90284,0.545306,0.150562,0.142979,0.000462284,-0.00862904,-0.00552033,0.0111443,-0.00685432,0.0825801,-0.00175457,-0.00011684,0.0370727,-0.00422336,-0.0309137,-0.178477,-0.0704759,0.000696323,1.15919,-0.811212,0.756132,0.735363,5.00874,-2.03224,-0.00112454,0.173554,0.0919415,0.159958,-1.9131,0.552982,0.0711964,0.144423,0.000617135,0.00190569,3.12495e-05,0.00224509,0.152969,0.0674751,-0.000293767,0,0,0,0,0,0,0,0.309024,-36.3194,0.937208,26.0544,2.98797,0.832144,0.0101778,
0.174311,0.0844736,0.155727,-1.90284,0.545306,0.150562,0.142979,0.000462135,-0.00858159,-0.00552574,0.0111047,-0.00708277,0.0824899,-0.00175368,-9.34718e-05,0.0296582,-0.00337869,-0.024731,-0.142782,-0.0563808,0.000557058,1.15919,-0.811212,0.756132,0.735363,5.00874,-2.03224,-0.00112454,0.173554,0.0919415,0.159958,-1.9131,0.552982,0.0711964,0.144423,0.000617135,0.00190569,3.12495e-05,0.00224509,0.152969,0.0674751,-0.000293767,0,0,0,0,0,0,0,0.309024,-36.3194,0.937208,26.0544,2.98797,0.832144,0.0101778,
0.174311,0.0844736,0.155727,-1.90284,0.545306,0.150562,0.142979,0.000462015,-0.00854363,-0.00553006,0.0110731,-0.00726553,0.0824177,-0.00175296,-7.47774e-05,0.0237265,-0.00270295,-0.0197848,-0.114225,-0.0451046,0.000445646,1.15905,-0.793981,0.754718,0.715956,4.99794,-2.03803,-0.00107637,0.173724,0.0919342,0.15995,-1.91299,0.557864,0.0737672,0.144428,0.00180596,0.00158558,-0.000627771,0.00147925,0.145296,0.0758742,0.0016144,0.148603,-0.040014,-0.0823775,-0.0957289,-0.959173,1.04989,0.238521,0.412174,-36.2163,1.03639,26.0306,3.0429,0.779043,-0.0301054,
0.174468,0.0846043,0.155692,-1.90286,0.549361,0.152874,0.142987,0.000461834,-0.00847747,-0.00553729,0.0110175,-0.00756819,0.0822821,-0.00175168,-0.000113099,0.0413478,-0.00451874,-0.034756,-0.189163,-0.0847986,0.000799922,1.15905,-0.793981,0.754718,0.715956,4.99794,-2.03803,-0.00107637,0.173724,0.0919342,0.15995,-1.91299,0.557864,0.0737672,0.144428,0.00180596,0.00158558,-0.000627771,0.00147925,0.145296,0.0758742,0.0016144,0,0,0,0,0,0,0,0.412174,-36.2163,1.03639,26.0306,3.0429,0.779043,-0.0301054,
0.174468,0.0846043,0.155692,-1.90286,0.549361,0.152874,0.142987,0.000461689,-0.00842455,-0.00554308,0.010973,-0.00781032,0.0821735,-0.00175066,-9.0479e-05,0.0330782,-0.00361499,-0.0278048,-0.151331,-0.0678389,0.000639937,1.15905,-0.793981,0.754718,0.715956,4.99794,-2.03803,-0.00107637,0.173724,0.0919342,0.15995,-1.91299,0.557864,0.0737672,0.144428,0.00180596,0.00158558,-0.000627771,0.00147925,0.145296,0.0758742,0.0016144,0,0,0,0,0,0,0,0.412174,-36.2163,1.03639,26.0306,3.0429,0.779043,-0.0301054,
0.174468,0.0846043,0.155692,-1.90286,0.549361,0.152874,0.142987,0.000461574,-0.00838221,-0.0055477,0.0109374,-0.00800402,0.0820867,-0.00174984,-7.23832e-05,0.0264626,-0.00289199,-0.0222438,-0.121065,-0.0542711,0.00051195,1.15905,-0.793981,0.754718,0.715956,4.99794,-2.03803,-0.00107637,0.173724,0.0919342,0.15995,-1.91299,0.557864,0.0737672,0.144428,0.00180596,0.00158558,-0.000627771,0.00147925,0.145296,0.0758742,0.0016144,0,0,0,0,0,0,0,0.412174,-36.2163,1.03639,26.0306,3.0429,0.779043,-0.0301054,
0.174468,0.0846043,0.155692,-1.90286,0.549361,0.152874,0.142987,0.000461481,-0.00834833,-0.00555141,0.0109089,-0.00815899,0.0820172,-0.00174919,-5.79066e-05,0.0211701,-0.00231359,-0.0177951,-0.0968517,-0.0434169,0.00040956,1.15907,-0.776196,0.753378,0.696544,4.98747,-2.04368,-0.00102981,0.173849,0.0919403,0.159941,-1.91291,0.562666,0.0763557,0.144428,0.000468323,-0.000206948,0.00270512,0.00213846,0.145631,0.0788036,0.00111765,-0.167204,-0.224066,0.416611,0.0824009,0.0419697,0.366174,-0.0620943,0.590702,-36.2917,1.16334,25.9552,3.13995,0.76531,-0.0301054,
0.174616,0.0846826,0.155697,-1.90288,0.553513,0.155136,0.14299,0.00046131,-0.00828893,-0.00555759,0.0108553,-0.00844511,0.0818873,-0.00174796,-0.000106972,0.0371264,-0.00386357,-0.0334751,-0.178826,-0.0812274,0.000768445,1.15907,-0.776196,0.753378,0.696544,4.98747,-2.04368,-0.00102981,0.173849,0.0919403,0.159941,-1.91291,0.562666,0.0763557,0.144428,0.000468323,-0.000206948,0.00270512,0.00213846,0.145631,0.0788036,0.00111765,0,0,0,0,0,0,0,0.590702,-36.2917,1.16334,25.9552,3.13995,0.76531,-0.0301054,
0.174616,0.0846826,0.155697,-1.90288,0.553513,0.155136,0.14299,0.000461173,-0.00824141,-0.00556253,0.0108125,-0.008674,0.0817833,-0.00174697,-8.55774e-05,0.0297012,-0.00309086,-0.0267801,-0.143061,-0.064982,0.000614756,1.15907,-0.776196,0.753378,0.696544,4.98747,-2.04368,-0.00102981,0.173849,0.0919403,0.159941,-1.91291,0.562666,0.0763557,0.144428,0.000468323,-0.000206948,0.00270512,0.00213846,0.145631,0.0788036,0.00111765,0,0,0,0,0,0,0,0.590702,-36.2917,1.16334,25.9552,3.13995,0.76531,-0.0301054,
0.174616,0.0846826,0.155697,-1.90288,0.553513,0.155136,0.14299,0.000461063,-0.00820339,-0.00556649,0.0107782,-0.00885712,0.0817001,-0.00174619,-6.84619e-05,0.0237609,-0.00247268,-0.021424,-0.114449,-0.0519856,0.000491805,1.15907,-0.776196,0.753378,0.696544,4.98747,-2.04368,-0.00102981,0.173849,0.0919403,0.159941,-1.91291,0.562666,0.0763557,0.144428,0.000468323,-0.000206948,0.00270512,0.00213846,0.145631,0.0788036,0.00111765,0,0,0,0,0,0,0,0.590702,-36.2917,1.16334,25.9552,3.13995,0.76531,-0.0301054,
0.174616,0.0846826,0.155697,-1.90288,0.553513,0.155136,0.14299,0.000460976,-0.00817298,-0.00556965,0.0107508,-0.00900362,0.0816336,-0.00174556,-5.47696e-05,0.0190087,-0.00197815,-0.0171392,-0.091559,-0.0415885,0.000393444,1.15758,-0.760724,0.750627,0.679063,4.97714,-2.0485,-0.000973673,0.173988,0.0919447,0.159945,-1.91283,0.567273,0.0787042,0.144427,0.000306651,0.00117679,0.000346301,0.00313951,0.129952,0.0637257,0.00141511,-0.0202089,0.172968,-0.294852,0.125131,-1.95995,-1.88473,0.0371825,0.463749,-36.3194,1.03639,25.983,3.14636,0.771719,-0.0227812,
0.174721,0.0848527,0.155652,-1.90296,0.557183,0.157034,0.142992,0.000460813,-0.00811609,-0.00557634,0.0107048,-0.00926209,0.0815399,-0.00174455,-0.000101397,0.0355554,-0.00417595,-0.0287583,-0.161544,-0.0585413,0.000626262,1.15758,-0.760724,0.750627,0.679063,4.97714,-2.0485,-0.000973673,0.173988,0.0919447,0.159945,-1.91283,0.567273,0.0787042,0.144427,0.000306651,0.00117679,0.000346301,0.00313951,0.129952,0.0637257,0.00141511,0,0,0,0,0,0,0,0.463749,-36.3194,1.03639,25.983,3.14636,0.771719,-0.0227812,
0.174721,0.0848527,0.155652,-1.90296,0.557183,0.157034,0.142992,0.000460684,-0.00807058,-0.00558168,0.010668,-0.00946886,0.081465,-0.00174375,-8.11177e-05,0.0284443,-0.00334076,-0.0230067,-0.129235,-0.046833,0.000501009,1.15758,-0.760724,0.750627,0.679063,4.97714,-2.0485,-0.000973673,0.173988,0.0919447,0.159945,-1.91283,0.567273,0.0787042,0.144427,0.000306651,0.00117679,0.000346301,0.00313951,0.129952,0.0637257,0.00141511,0,0,0,0,0,0,0,0.463749,-36.3194,1.03639,25.983,3.14636,0.771719,-0.0227812,
0.174721,0.0848527,0.155652,-1.90296,0.557183,0.157034,0.142992,0.00046058,-0.00803417,-0.00558596,0.0106385,-0.00963428,0.081405,-0.00174311,-6.48942e-05,0.0227554,-0.00267261,-0.0184053,-0.103388,-0.0374664,0.000400807,1.15758,-0.760724,0.750627,0.679063,4.97714,-2.0485,-0.000973673,0.173988,0.0919447,0.159945,-1.91283,0.567273,0.0787042,0.144427,0.000306651,0.00117679,0.000346301,0.00313951,0.129952,0.0637257,0.00141511,0,0,0,0,0,0,0,0.463749,-36.3194,1.03639,25.983,3.14636,0.771719,-0.0227812,
0.174721,0.0848527,0.155652,-1.90296,0.557183,0.157034,0.142992,0.000460497,-0.00800504,-0.00558938,0.010615,-0.00976662,0.0813571,-0.0017426,-5.19153e-05,0.0182044,-0.00213809,-0.0147243,-0.0827103,-0.0299731,0.000320646,1.15758,-0.760724,0.750627,0.679063,4.97714,-2.0485,-0.000973673,0.17413,0.091941,0.159938,-1.91278,0.57186,0.0810081,0.144424,-0.000342378,-0.000985579,-0.00287915,-0.00247741,0.129014,0.0679196,-0.000256208,-0.0811287,-0.270297,-0.403182,-0.702114,-0.117246,0.524238,-0.208914,0.309024,-36.2679,0.961012,25.9552,3.18298,0.73876,0.00376909,
0.174809,0.0849853,0.155582,-1.90305,0.561009,0.159105,0.142993,0.000460345,-0.00794887,-0.0055956,0.0105697,-0.0100157,0.0812666,-0.00174162,-9.49227e-05,0.0351091,-0.00388926,-0.0282961,-0.155681,-0.0565422,0.000613192,1.15798,-0.745211,0.74983,0.6614,4.96739,-2.05323,-0.000934495,0.17413,0.091941,0.159938,-1.91278,0.57186,0.0810081,0.144424,-0.000342378,-0.000985579,-0.00287915,-0.00247741,0.129014,0.0679196,-0.000256208,0,0,0,0,0,0,0,0.309024,-36.2679,0.961012,25.9552,3.18298,0.73876,0.00376909,
0.174809,0.0849853,0.155582,-1.90305,0.561009,0.159105,0.142993,0.000460223,-0.00790393,-0.00560058,0.0105335,-0.010215,0.0811942,-0.00174083,-7.59382e-05,0.0280873,-0.00311141,-0.0226369,-0.124545,-0.0452338,0.000490554,1.15798,-0.745211,0.74983,0.6614,4.96739,-2.05323,-0.000934495,0.17413,0.091941,0.159938,-1.91278,0.57186,0.0810081,0.144424,-0.000342378,-0.000985579,-0.00287915,-0.00247741,0.129014,0.0679196,-0.000256208,0,0,0,0,0,0,0,0.309024,-36.2679,0.961012,25.9552,3.18298,0.73876,0.00376909,
0.174809,0.0849853,0.155582,-1.90305,0.561009,0.159105,0.142993,0.000460126,-0.00786798,-0.00560456,0.0105045,-0.0103744,0.0811363,-0.0017402,-6.07505e-05,0.0224698,-0.00248913,-0.0181095,-0.0996356,-0.036187,0.000392443,1.15798,-0.745211,0.74983,0.6614,4.96739,-2.05323,-0.000934495,0.17413,0.091941,0.159938,-1.91278,0.57186,0.0810081,0.144424,-0.000342378,-0.000985579,-0.00287915,-0.00247741,0.129014,0.0679196,-0.000256208,0,0,0,0,0,0,0,0.309024,-36.2679,0.961012,25.9552,3.18298,0.73876,0.00376909,
0.174809,0.0849853,0.155582,-1.90305,0.561009,0.159105,0.142993,0.000460048,-0.00783922,-0.00560775,0.0104813,-0.0105019,0.08109,-0.0017397,-4.86004e-05,0.0179759,-0.0019913,-0.0144876,-0.0797085,-0.0289496,0.000313954,1.15798,-0.745211,0.74983,0.6614,4.96739,-2.05323,-0.000934495,0.17413,0.091941,0.159938,-1.91278,0.57186,0.0810081,0.144424,-0.000342378,-0.000985579,-0.00287915,-0.00247741,0.129014,0.0679196,-0.000256208,0,0,0,0,0,0,0,0.309024,-36.2679,0.961012,25.9552,3.18298,0.73876,0.00376909,
0.175119,0.0851176,0.155667,-1.9031,0.564982,0.161042,0.142994,0.000459875,-0.00778634,-0.00561468,0.0104368,-0.0107588,0.0810152,-0.00173878,-0.000108131,0.033047,-0.00432917,-0.027834,-0.160531,-0.046741,0.000574491,1.15741,-0.729365,0.747993,0.644019,4.95746,-2.05747,-0.000893813,0.174328,0.0919479,0.159931,-1.91271,0.576417,0.0833074,0.144424,0.00550441,0.000976516,-0.00117318,-0.000714907,0.12917,0.0646285,-0.000281961,0.730848,0.245262,0.213246,0.220313,0.0195244,-0.411383,-0.00321908,0.435978,-36.3194,1.03639,25.9552,3.28094,0.76531,0.00376909,
0.175119,0.0851176,0.155667,-1.9031,0.564982,0.161042,0.142994,0.000459737,-0.00774404,-0.00562022,0.0104012,-0.0109643,0.0809554,-0.00173805,-8.65047e-05,0.0264376,-0.00346333,-0.0222672,-0.128425,-0.0373928,0.000459593,1.15741,-0.729365,0.747993,0.644019,4.95746,-2.05747,-0.000893813,0.174328,0.0919479,0.159931,-1.91271,0.576417,0.0833074,0.144424,0.00550441,0.000976516,-0.00117318,-0.000714907,0.12917,0.0646285,-0.000281961,0,0,0,0,0,0,0,0.435978,-36.3194,1.03639,25.9552,3.28094,0.76531,0.00376909,
0.175119,0.0851176,0.155667,-1.9031,0.564982,0.161042,0.142994,0.000459626,-0.0077102,-0.00562465,0.0103727,-0.0111286,0.0809075,-0.00173746,-6.92038e-05,0.0211501,-0.00277067,-0.0178137,-0.10274,-0.0299142,0.000367674,1.15741,-0.729365,0.747993,0.644019,4.95746,-2.05747,-0.000893813,0.174328,0.0919479,0.159931,-1.91271,0.576417,0.0833074,0.144424,0.00550441,0.000976516,-0.00117318,-0.000714907,0.12917,0.0646285,-0.000281961,0,0,0,0,0,0,0,0.435978,-36.3194,1.03639,25.9552,3.28094,0.76531,0.00376909,
0.175119,0.0851176,0.155667,-1.9031,0.564982,0.161042,0.142994,0.000459538,-0.00768313,-0.0056282,0.0103499,-0.0112602,0.0808692,-0.00173699,-5.5363e-05,0.0169201,-0.00221653,-0.014251,-0.0821919,-0.0239314,0.00029414,1.15741,-0.729365,0.747993,0.644019,4.95746,-2.05747,-0.000893813,0.174328,0.0919479,0.159931,-1.91271,0.576417,0.0833074,0.144424,0.00550441,0.000976516,-0.00117318,-0.000714907,0.12917,0.0646285,-0.000281961,0,0,0,0,0,0,0,0.435978,-36.3194,1.03639,25.9552,3.28094,0.76531,0.00376909,
0.175119,0.0851176,0.155667,-1.9031,0.564982,0.161042,0.142994,0.000459467,-0.00766147,-0.00563103,0.0103316,-0.0113654,0.0808386,-0.00173661,-4.42904e-05,0.0135361,-0.00177323,-0.0114008,-0.0657535,-0.0191451,0.000235312,1.15687,-0.714812,0.746253,0.627297,4.94793,-2.06146,-0.000850745,0.174465,0.0919435,0.159951,-1.91268,0.580899,0.0855426,0.144426,0.00319411,0.000306476,0.000587721,-0.00166079,0.120219,0.0626183,-0.000542353,-0.288788,-0.0837549,0.220113,-0.118236,-1.11882,-0.251271,-0.032549,0.134464,-36.2679,0.838026,25.983,3.28735,0.818411,0.017502,
0.175119,0.0851176,0.155667,-1.9031,0.564982,0.161042,0.142994,0.00045941,-0.00764414,-0.0056333,0.010317,-0.0114495,0.0808141,-0.00173631,-3.54323e-05,0.0108289,-0.00141858,-0.00912064,-0.0526028,-0.0153161,0.000188249,1.15687,-0.714812,0.746253,0.627297,4.94793,-2.06146,-0.000850745,0.174465,0.0919435,0.159951,-1.91268,0.580899,0.0855426,0.144426,0.00319411,0.000306476,0.000587721,-0.00166079,0.120219,0.0626183,-0.000542353,0,0,0,0,0,0,0,0.134464,-36.2679,0.838026,25.983,3.28735,0.818411,0.017502,
0.175119,0.0851176,0.155667,-1.9031,0.564982,0.161042,0.142994,0.000459365,-0.00763028,-0.00563512,0.0103053,-0.0115169,0.0807945,-0.00173607,-2.83459e-05,0.00866308,-0.00113487,-0.00729651,-0.0420822,-0.0122529,0.000150599,1.15687,-0.714812,0.746253,0.627297,4.94793,-2.06146,-0.000850745,0.174465,0.0919435,0.159951,-1.91268,0.580899,0.0855426,0.144426,0.00319411,0.000306476,0.000587721,-0.00166079,0.120219,0.0626183,-0.000542353,0,0,0,0,0,0,0,0.134464,-36.2679,0.838026,25.983,3.28735,0.818411,0.017502,
0.175119,0.0851176,0.155667,-1.9031,0.564982,0.161042,0.142994,0.000459328,-0.00761919,-0.00563657,0.010296,-0.0115707,0.0807788,-0.00173588,-2.26767e-05,0.00693047,-0.000907892,-0.00583721,-0.0336658,-0.00980229,0.00012048,1.15687,-0.714812,0.746253,0.627297,4.94793,-2.06146,-0.000850745,0.174465,0.0919435,0.159951,-1.91268,0.580899,0.0855426,0.144426,0.00319411,0.000306476,0.000587721,-0.00166079,0.120219,0.0626183,-0.000542353,0,0,0,0,0,0,0,0.134464,-36.2679,0.838026,25.983,3.28735,0.818411,0.017502,
0.17524,0.0852287,0.155661,-1.90321,0.568691,0.163002,0.142998,0.000459213,-0.00758088,-0.00564114,0.0102633,-0.0117508,0.0807224,-0.0017352,-7.21046e-05,0.023947,-0.00285773,-0.0204269,-0.112566,-0.0352768,0.000424168,1.1568,-0.700493,0.745057,0.611543,4.93894,-2.06493,-0.000814969,0.174636,0.0919495,0.159932,-1.91265,0.585159,0.087593,0.144428,0.00451828,-6.43114e-06,-0.00138171,-0.0019089,0.117957,0.0629656,0.00116885,0.165521,-0.0391134,-0.246179,-0.0310135,-0.282763,0.0434116,0.2139,0.360599,-36.3432,1.06416,26.0544,3.3844,0.779043,-0.0301054,
0.17524,0.0852287,0.155661,-1.90321,0.568691,0.163002,0.142998,0.000459121,-0.00755023,-0.0056448,0.0102372,-0.0118949,0.0806772,-0.00173466,-5.76837e-05,0.0191576,-0.00228619,-0.0163415,-0.0900528,-0.0282214,0.000339334,1.1568,-0.700493,0.745057,0.611543,4.93894,-2.06493,-0.000814969,0.174636,0.0919495,0.159932,-1.91265,0.585159,0.087593,0.144428,0.00451828,-6.43114e-06,-0.00138171,-0.0019089,0.117957,0.0629656,0.00116885,0,0,0,0,0,0,0,0.360599,-36.3432,1.06416,26.0544,3.3844,0.779043,-0.0301054,
0.17524,0.0852287,0.155661,-1.90321,0.568691,0.163002,0.142998,0.000459047,-0.00752571,-0.00564773,0.0102163,-0.0120102,0.0806411,-0.00173422,-4.61469e-05,0.0153261,-0.00182895,-0.0130732,-0.0720423,-0.0225771,0.000271467,1.1568,-0.700493,0.745057,0.611543,4.93894,-2.06493,-0.000814969,0.174636,0.0919495,0.159932,-1.91265,0.585159,0.087593,0.144428,0.00451828,-6.43114e-06,-0.00138171,-0.0019089,0.117957,0.0629656,0.00116885,0,0,0,0,0,0,0,0.360599,-36.3432,1.06416,26.0544,3.3844,0.779043,-0.0301054,
0.17524,0.0852287,0.155661,-1.90321,0.568691,0.163002,0.142998,0.000458988,-0.00750609,-0.00565007,0.0101995,-0.0121024,0.0806122,-0.00173387,-3.69175e-05,0.0122609,-0.00146316,-0.0104586,-0.0576338,-0.0180617,0.000217174,1.1568,-0.700493,0.745057,0.611543,4.93894,-2.06493,-0.000814969,0.174636,0.0919495,0.159932,-1.91265,0.585159,0.087593,0.144428,0.00451828,-6.43114e-06,-0.00138171,-0.0019089,0.117957,0.0629656,0.00116885,0,0,0,0,0,0,0,0.360599,-36.3432,1.06416,26.0544,3.3844,0.779043,-0.0301054,
0.1754,0.0853414,0.155621,-1.90328,0.572308,0.164859,0.143003,0.000458857,-0.00746107,-0.00565517,0.0101617,-0.0123102,0.0805499,-0.0017331,-8.15923e-05,0.0281357,-0.00318538,-0.0236112,-0.129906,-0.0389079,0.000483367,1.15719,-0.686757,0.744319,0.596122,4.9307,-2.06853,-0.000782881,0.174784,0.0919539,0.159945,-1.91263,0.589167,0.0895911,0.144424,0.00123732,0.00104822,-6.61483e-05,-0.000371693,0.124305,0.0603184,0.000560274,-0.41012,0.131832,0.164445,0.192151,0.793428,-0.330911,-0.0760715,0.134464,-36.3948,0.889601,26.1298,3.51898,0.791861,0.00376909,
0.1754,0.0853414,0.155621,-1.90328,0.572308,0.164859,0.143003,0.000458753,-0.00742506,-0.00565924,0.0101315,-0.0124765,0.0805001,-0.00173248,-6.52738e-05,0.0225086,-0.0025483,-0.018889,-0.103925,-0.0311263,0.000386694,1.15719,-0.686757,0.744319,0.596122,4.9307,-2.06853,-0.000782881,0.174784,0.0919539,0.159945,-1.91263,0.589167,0.0895911,0.144424,0.00123732,0.00104822,-6.61483e-05,-0.000371693,0.124305,0.0603184,0.000560274,0,0,0,0,0,0,0,0.134464,-36.3948,0.889601,26.1298,3.51898,0.791861,0.00376909,
0.1754,0.0853414,0.155621,-1.90328,0.572308,0.164859,0.143003,0.000458669,-0.00739625,-0.0056625,0.0101073,-0.0126095,0.0804603,-0.00173199,-5.22191e-05,0.0180069,-0.00203864,-0.0151112,-0.0831401,-0.024901,0.000309355,1.15719,-0.686757,0.744319,0.596122,4.9307,-2.06853,-0.000782881,0.174784,0.0919539,0.159945,-1.91263,0.589167,0.0895911,0.144424,0.00123732,0.00104822,-6.61483e-05,-0.000371693,0.124305,0.0603184,0.000560274,0,0,0,0,0,0,0,0.134464,-36.3948,0.889601,26.1298,3.51898,0.791861,0.00376909,
0.1754,0.0853414,0.155621,-1.90328,0.572308,0.164859,0.143003,0.000458602,-0.0073732,-0.00566511,0.010088,-0.012716,0.0804284,-0.00173159,-4.17753e-05,0.0144055,-0.00163091,-0.0120889,-0.0665121,-0.0199208,0.000247484,1.15719,-0.686757,0.744319,0.596122,4.9307,-2.06853,-0.000782881,0.174784,0.0919539,0.159945,-1.91263,0.589167,0.0895911,0.144424,0.00123732,0.00104822,-6.61483e-05,-0.000371693,0.124305,0.0603184,0.000560274,0,0,0,0,0,0,0,0.134464,-36.3948,0.889601,26.1298,3.51898,0.791861,0.00376909,
0.175528,0.0854495,0.155605,-1.90335,0.575839,0.16667,0.143002,0.000458469,-0.00732653,-0.00567042,0.0100487,-0.0129308,0.0803656,-0.00173079,-8.33517e-05,0.0291647,-0.00331865,-0.0245858,-0.134251,-0.0392712,0.000499794,1.15652,-0.67329,0.742615,0.581216,4.92259,-2.07186,-0.000746146,0.174923,0.0919544,0.159948,-1.91263,0.593116,0.0916341,0.144428,0.00589109,-7.60773e-05,0.00085568,-0.000124401,0.120824,0.056589,0.00283518,0.581721,-0.140537,0.115228,0.0309115,-0.435062,-0.466164,0.284363,0.0551182,-36.367,0.838026,26.1298,3.61053,0.82482,-0.0365141,
0.175528,0.0854495,0.155605,-1.90335,0.575839,0.16667,0.143002,0.000458362,-0.0072892,-0.00567467,0.0100172,-0.0131026,0.0803153,-0.00173015,-6.66814e-05,0.0233318,-0.00265492,-0.0196687,-0.107401,-0.0314169,0.000399835,1.15652,-0.67329,0.742615,0.581216,4.92259,-2.07186,-0.000746146,0.174923,0.0919544,0.159948,-1.91263,0.593116,0.0916341,0.144428,0.00589109,-7.60773e-05,0.00085568,-0.000124401,0.120824,0.056589,0.00283518,0,0,0,0,0,0,0,0.0551182,-36.367,0.838026,26.1298,3.61053,0.82482,-0.0365141,
0.175528,0.0854495,0.155605,-1.90335,0.575839,0.16667,0.143002,0.000458277,-0.00725934,-0.00567807,0.00999202,-0.0132401,0.0802751,-0.00172964,-5.33451e-05,0.0186654,-0.00212393,-0.0157349,-0.0859205,-0.0251336,0.000319868,1.15652,-0.67329,0.742615,0.581216,4.92259,-2.07186,-0.000746146,0.174923,0.0919544,0.159948,-1.91263,0.593116,0.0916341,0.144428,0.00589109,-7.60773e-05,0.00085568,-0.000124401,0.120824,0.056589,0.00283518,0,0,0,0,0,0,0,0.0551182,-36.367,0.838026,26.1298,3.61053,0.82482,-0.0365141,
0.175528,0.0854495,0.155605,-1.90335,0.575839,0.16667,0.143002,0.000458209,-0.00723545,-0.00568079,0.00997188,-0.0133501,0.0802429,-0.00172923,-4.26761e-05,0.0149324,-0.00169915,-0.0125879,-0.0687364,-0.0201068,0.000255895,1.15652,-0.67329,0.742615,0.581216,4.92259,-2.07186,-0.000746146,0.174923,0.0919544,0.159948,-1.91263,0.593116,0.0916341,0.144428,0.00589109,-7.60773e-05,0.00085568,-0.000124401,0.120824,0.056589,0.00283518,0,0,0,0,0,0,0,0.0551182,-36.367,0.838026,26.1298,3.61053,0.82482,-0.0365141,
0.175752,0.0855098,0.155681,-1.90345,0.57926,0.168385,0.143008,0.000458067,-0.00719336,-0.00568586,0.00993282,-0.0135638,0.0801843,-0.00172845,-8.85138e-05,0.0263022,-0.0031697,-0.02441,-0.133612,-0.0366629,0.000487568,1.15713,-0.659253,0.742102,0.565691,4.91428,-2.07514,-0.000715353,0.175044,0.0919628,0.159939,-1.91262,0.597254,0.0936297,0.144428,0.000136048,0.000110126,0.00161447,7.21814e-05,0.126106,0.0566161,0.000476232,-0.71938,0.0232755,0.0948482,0.0245728,0.660193,0.00337865,-0.294868,0.233646,-36.4424,0.937208,26.1298,3.5675,0.858694,-0.0301054,
0.175752,0.0855098,0.155681,-1.90345,0.57926,0.168385,0.143008,0.000457954,-0.0071597,-0.00568992,0.00990158,-0.0137349,0.0801374,-0.00172783,-7.0811e-05,0.0210418,-0.00253576,-0.019528,-0.106889,-0.0293303,0.000390054,1.15713,-0.659253,0.742102,0.565691,4.91428,-2.07514,-0.000715353,0.175044,0.0919628,0.159939,-1.91262,0.597254,0.0936297,0.144428,0.000136048,0.000110126,0.00161447,7.21814e-05,0.126106,0.0566161,0.000476232,0,0,0,0,0,0,0,0.233646,-36.4424,0.937208,26.1298,3.5675,0.858694,-0.0301054,
0.175752,0.0855098,0.155681,-1.90345,0.57926,0.168385,0.143008,0.000457863,-0.00713276,-0.00569316,0.00987658,-0.0138717,0.0800998,-0.00172733,-5.66488e-05,0.0168334,-0.00202861,-0.0156224,-0.0855115,-0.0234643,0.000312043,1.15713,-0.659253,0.742102,0.565691,4.91428,-2.07514,-0.000715353,0.175044,0.0919628,0.159939,-1.91262,0.597254,0.0936297,0.144428,0.000136048,0.000110126,0.00161447,7.21814e-05,0.126106,0.0566161,0.000476232,0,0,0,0,0,0,0,0.233646,-36.4424,0.937208,26.1298,3.5675,0.858694,-0.0301054,
0.175805,0.0856281,0.155598,-1.90353,0.582865,0.170273,0.14301,0.000457719,-0.00708074,-0.0056988,0.00983217,-0.0141086,0.0800327,-0.00172644,-8.99521e-05,0.0325117,-0.00352463,-0.0277609,-0.148061,-0.0419423,0.000555436,1.15713,-0.659253,0.742102,0.565691,4.91428,-2.07514,-0.000715353,0.175044,0.0919628,0.159939,-1.91262,0.597254,0.0936297,0.144428,0.000136048,0.000110126,0.00161447,7.21814e-05,0.126106,0.0566161,0.000476232,0,0,0,0,0,0,0,0.233646,-36.4424,0.937208,26.1298,3.5675,0.858694,-0.0301054,
0.175805,0.0856281,0.155598,-1.90353,0.582865,0.170273,0.14301,0.000457604,-0.00703913,-0.00570331,0.00979663,-0.0142981,0.079979,-0.00172573,-7.19617e-05,0.0260094,-0.0028197,-0.0222087,-0.118449,-0.0335539,0.000444348,1.15713,-0.659253,0.742102,0.565691,4.91428,-2.07514,-0.000715353,0.175044,0.0919628,0.159939,-1.91262,0.597254,0.0936297,0.144428,0.000136048,0.000110126,0.00161447,7.21814e-05,0.126106,0.0566161,0.000476232,0,0,0,0,0,0,0,0.233646,-36.4424,0.937208,26.1298,3.5675,0.858694,-0.0301054,
