xiao-wang007/linearmpc_panda/paper_data/panda_torque_PD_controller_opt_time_to_start_torque_rate_limiter/1/trajectory.csv
Commanded Joint 0 Position,Commanded Joint 1 Position,Commanded Joint 2 Position,Commanded Joint 3 Position,Commanded Joint 4 Position,Commanded Joint 5 Position,Commanded Joint 6 Position,Commanded Joint 0 Velocity,Commanded Joint 1 Velocity,Commanded Joint 2 Velocity,Commanded Joint 3 Velocity,Commanded Joint 4 Velocity,Commanded Joint 5 Velocity,Commanded Joint 6 Velocity,Commanded Joint 0 Acceleration,Commanded Joint 1 Acceleration,Commanded Joint 2 Acceleration,Commanded Joint 3 Acceleration,Commanded Joint 4 Acceleration,Commanded Joint 5 Acceleration,Commanded Joint 6 Acceleration,Commanded Joint 0 Torque,Commanded Joint 1 Torque,Commanded Joint 2 Torque,Commanded Joint 3 Torque,Commanded Joint 4 Torque,Commanded Joint 5 Torque,Commanded Joint 6 Torque,Actual Joint 0 Position,Actual Joint 1 Position,Actual Joint 2 Position,Actual Joint 3 Position,Actual Joint 4 Position,Actual Joint 5 Position,Actual Joint 6 Position,Actual Joint 0 Velocity,Actual Joint 1 Velocity,Actual Joint 2 Velocity,Actual Joint 3 Velocity,Actual Joint 4 Velocity,Actual Joint 5 Velocity,Actual Joint 6 Velocity,Actual Joint 0 Acceleration,Actual Joint 1 Acceleration,Actual Joint 2 Acceleration,Actual Joint 3 Acceleration,Actual Joint 4 Acceleration,Actual Joint 5 Acceleration,Actual Joint 6 Acceleration,Actual Joint 0 Torque,Actual Joint 1 Torque,Actual Joint 2 Torque,Actual Joint 3 Torque,Actual Joint 4 Torque,Actual Joint 5 Torque,Actual Joint 6 Torque,
0.00492289,-0.0708029,0.0121373,-1.74456,0.0309627,0.166741,-0.0846226,0.000587543,0.018719,0.000676879,-0.0334444,-0.00611341,0.0491319,-0.000365107,0.367214,11.6994,0.423049,-20.9027,-3.82088,30.7074,-0.228192,0.0546532,22.0716,0.160472,-24.2361,-0.762436,1.79213,-0.0236535,0.00488776,-0.0715843,0.0120842,-1.74139,0.0313932,0.161443,-0.0845815,0.00171566,0.00320974,-0.000207232,-0.00330754,-0.000669145,0.0010268,-8.24309e-05,0,0,0,0,0,0,0,-0.0202602,-33.1972,0.0882092,27.1771,0.654293,3.29857,0.0440523,
0.0048973,-0.0715259,0.0120939,-1.74142,0.0313902,0.161418,-0.084582,0.00052592,0.0153674,0.000599248,-0.0269661,-0.00488776,0.039065,-0.00029499,-0.0385142,-2.09475,-0.0485191,4.04892,0.766029,-6.29177,0.043823,0.0489282,22.5122,0.150118,-24.1524,-0.762303,1.54142,-0.0221394,0.00488776,-0.0715843,0.0120842,-1.74139,0.0313932,0.161443,-0.0845815,0.00171566,0.00320974,-0.000207232,-0.00330754,-0.000669145,0.0010268,-8.24309e-05,0,0,0,0,0,0,0,-0.0202602,-33.1972,0.0882092,27.1771,0.654293,3.29857,0.0440523,
0.00489897,-0.0715131,0.0120956,-1.74143,0.0313906,0.161409,-0.0845821,0.000462365,0.0126139,0.000521871,-0.021743,-0.00389855,0.0310342,-0.000238179,-0.0397221,-1.72094,-0.0483609,3.26445,0.618254,-5.01923,0.035507,0.041739,23.0838,0.138396,-24.0444,-0.761408,1.19403,-0.0201712,0.00488776,-0.0715843,0.0120842,-1.74139,0.0313932,0.161443,-0.0845815,0.00171566,0.00320974,-0.000207232,-0.00330754,-0.000669145,0.0010268,-8.24309e-05,0,0,0,0,0,0,0,-0.0202602,-33.1972,0.0882092,27.1771,0.654293,3.29857,0.0440523,
0.00490022,-0.0715026,0.0120969,-1.74143,0.0313912,0.161402,-0.0845821,0.000401186,0.0103545,0.000448913,-0.0175324,-0.00310509,0.024643,-0.000192243,-0.0382372,-1.41211,-0.0455984,2.63161,0.495913,-3.99456,0.0287097,0.03583,23.6166,0.128578,-23.8761,-0.758991,0.810973,-0.0181811,0.00488572,-0.0713033,0.0120911,-1.74154,0.0313966,0.161441,-0.0845818,8.46808e-05,0.0121794,0.00132295,0.00298953,-0.000790278,0.00509828,0.000321778,-0.203872,1.12121,0.191272,0.787134,-0.0151417,0.508935,0.0505261,0.00751081,-33.1496,0.139784,27.1017,0.593868,3.3178,0.017502,
0.00490117,-0.0714938,0.0120978,-1.74144,0.0313917,0.161396,-0.0845822,0.000344636,0.00850268,0.000382425,-0.0141379,-0.00247125,0.0195664,-0.00015517,-0.0353433,-1.15739,-0.0415555,2.12155,0.396152,-3.17287,0.0231706,0.0336004,23.9394,0.124383,-23.6117,-0.753849,0.438295,-0.0164602,0.00488572,-0.0713033,0.0120911,-1.74154,0.0313966,0.161441,-0.0845818,8.46808e-05,0.0121794,0.00132295,0.00298953,-0.000790278,0.00509828,0.000321778,0,0,0,0,0,0,0,0.00751081,-33.1496,0.139784,27.1017,0.593868,3.3178,0.017502,
0.00461724,-0.0711117,0.0118321,-1.74142,0.0390641,0.156582,-0.0846073,-0.000704707,0.00719642,-0.000707705,-0.0111713,0.0466209,-0.0166971,-0.000151535,-0.655839,-0.816412,-0.681331,1.85414,30.6826,-22.6647,0.00227198,0.441721,0.244734,0.439974,-0.299512,2.91566,-2.00695,-0.00159805,0.00488572,-0.0713033,0.0120911,-1.74154,0.0313966,0.161441,-0.0845818,8.46808e-05,0.0121794,0.00132295,0.00298953,-0.000790278,0.00509828,0.000321778,0,0,0,0,0,0,0,0.00751081,-33.1496,0.139784,27.1017,0.593868,3.3178,0.017502,
0.00459042,-0.071099,0.0118039,-1.74142,0.0410691,0.155225,-0.084608,-0.00123421,0.00607582,-0.00127212,-0.00896308,0.0874214,-0.0472675,-0.000138207,-0.330937,-0.700372,-0.352759,1.38015,25.5003,-19.1065,0.00833037,0.437056,0.241858,0.435257,-0.296592,2.88995,-1.98966,-0.00156547,0.00488572,-0.0713033,0.0120911,-1.74154,0.0313966,0.161441,-0.0845818,8.46808e-05,0.0121794,0.00132295,0.00298953,-0.000790278,0.00509828,0.000321778,0,0,0,0,0,0,0,0.00751081,-33.1496,0.139784,27.1017,0.593868,3.3178,0.017502,
0.0045749,-0.0710875,0.011787,-1.74142,0.0431079,0.153831,-0.0846085,-0.00137551,0.00514818,-0.00143893,-0.00732498,0.120908,-0.0726858,-0.000123276,-0.0883126,-0.579778,-0.104259,1.02381,20.929,-15.8864,0.00933183,0.43183,0.273554,0.428898,-0.295994,2.86493,-1.9708,-0.00154048,0.00488573,-0.0706049,0.0120931,-1.74233,0.0313511,0.163239,-0.0845825,0.000612628,0.0524516,0.000198884,-0.0659768,0.00049209,0.140972,-0.000295233,0.0659934,5.03402,-0.140508,-8.62079,0.160296,16.9842,-0.0771263,0.00751081,-24.2629,0.0882092,19.429,0.299984,2.7282,0.0239107,
0.00432396,-0.069162,0.0115848,-1.74216,0.0569878,0.140389,-0.0846482,-0.00180253,0.00804154,-0.00179988,-0.00683805,0.256646,-0.211675,-2.17924e-05,-0.266889,1.80835,-0.225591,0.304333,84.8364,-86.8685,0.063427,3.53678,1.91155,3.62288,-2.01467,10.3165,-9.74587,-0.0035087,0.00488573,-0.0706049,0.0120931,-1.74233,0.0313511,0.163239,-0.0845825,0.000612628,0.0524516,0.000198884,-0.0659768,0.00049209,0.140972,-0.000295233,0,0,0,0,0,0,0,0.00751081,-24.2629,0.0882092,19.429,0.299984,2.7282,0.0239107,
0.00434499,-0.0690264,0.0116087,-1.74224,0.0635312,0.13399,-0.084647,-0.000916489,0.00982332,-0.000840445,-0.00736251,0.368902,-0.329329,1.23695e-05,0.553775,1.11361,0.599647,-0.327787,70.1602,-73.5333,0.0213512,3.43585,1.8805,3.51897,-1.97192,10.0617,-9.58791,-0.00397209,0.00488573,-0.0706049,0.0120931,-1.74233,0.0313511,0.163239,-0.0845825,0.000612628,0.0524516,0.000198884,-0.0659768,0.00049209,0.140972,-0.000295233,0,0,0,0,0,0,0,0.00751081,-24.2629,0.0882092,19.429,0.299984,2.7282,0.0239107,
0.00440971,-0.0688996,0.0116766,-1.74234,0.0701242,0.127451,-0.0846465,0.00088487,0.0110294,0.00102475,-0.00842318,0.459948,-0.426938,2.17559e-05,1.12585,0.75378,1.16575,-0.662919,56.9034,-61.0059,0.00586654,3.34859,1.84499,3.42615,-1.92957,9.78915,-9.44127,-0.00350246,0.00488573,-0.0706049,0.0120931,-1.74233,0.0313511,0.163239,-0.0845825,0.000612628,0.0524516,0.000198884,-0.0659768,0.00049209,0.140972,-0.000295233,0,0,0,0,0,0,0,0.00751081,-24.2629,0.0882092,19.429,0.299984,2.7282,0.0239107,
0.00451191,-0.0687751,0.0117824,-1.74246,0.0766984,0.120856,-0.0846464,0.00326297,0.0119354,0.00346407,-0.00973802,0.532312,-0.506416,1.911e-05,1.48631,0.566243,1.52458,-0.821778,45.2277,-49.6736,-0.00165369,3.27182,1.93017,3.34275,-1.92275,9.48994,-9.26414,-0.000215799,0.00488648,-0.0686903,0.0121075,-1.74871,0.0322905,0.166621,-0.084587,-0.00397597,0.0417789,-0.00291569,-0.241445,0.159291,-0.0446862,-0.00102676,-0.573575,-1.33408,-0.389322,-21.9335,19.8499,-23.2073,-0.0914412,0.134464,-22.7672,0.112013,21.7459,1.90033,1.59386,0.0641939,
0.0075946,-0.0678965,0.0150162,-1.75278,0.0586003,0.127621,-0.0840483,0.0211013,0.00623866,0.0224349,-0.0304039,0.599726,-0.652059,0.000907946,11.149,-3.56044,11.8567,-12.9162,42.1335,-91.027,0.555523,21.9859,1.31008,22.8344,-10.0252,10.8534,-14.3741,0.196695,0.00488648,-0.0686903,0.0121075,-1.74871,0.0322905,0.166621,-0.084587,-0.00397597,0.0417789,-0.00291569,-0.241445,0.159291,-0.0446862,-0.00102676,0,0,0,0,0,0,0,0.134464,-22.7672,0.112013,21.7459,1.90033,1.59386,0.0641939,
0.00838132,-0.0680636,0.0158511,-1.75368,0.0659809,0.117295,-0.084021,0.036549,0.000813467,0.0388202,-0.0469164,0.664296,-0.779807,0.00140818,9.6548,-3.39075,10.2408,-10.3203,40.3564,-79.8427,0.312646,20.0375,-2.52568,20.6834,-11.7253,10.8534,-14.3741,0.220258,0.00488648,-0.0686903,0.0121075,-1.74871,0.0322905,0.166621,-0.084587,-0.00397597,0.0417789,-0.00291569,-0.241445,0.159291,-0.0446862,-0.00102676,0,0,0,0,0,0,0,0.134464,-22.7672,0.112013,21.7459,1.90033,1.59386,0.0641939,
0.00920225,-0.0682467,0.0167206,-1.75459,0.0736677,0.106716,-0.0839963,0.0497625,-0.00392712,0.0527928,-0.0601694,0.723606,-0.888317,0.00174388,8.2584,-2.96287,8.73287,-8.28311,37.0687,-67.8188,0.209816,17.4028,-4.23239,18.0105,-12.6778,10.8534,-14.3741,0.130993,0.00488648,-0.0686903,0.0121075,-1.74871,0.0322905,0.166621,-0.084587,-0.00397597,0.0417789,-0.00291569,-0.241445,0.159291,-0.0446862,-0.00102676,0,0,0,0,0,0,0,0.134464,-22.7672,0.112013,21.7459,1.90033,1.59386,0.0641939,
0.0100483,-0.0684398,0.017615,-1.75554,0.0815786,0.0963338,-0.0839712,0.0609621,-0.00796941,0.0645945,-0.071921,0.776658,-0.970214,0.00202205,6.99978,-2.52643,7.3761,-7.3448,33.1577,-51.1851,0.173851,15.279,-3.58755,15.918,-12.9639,10.656,-14.3471,0.0702369,0.00462457,-0.066946,0.0119591,-1.75493,0.0492421,0.15212,-0.0845916,-0.00131705,0.0946714,-0.00546428,-0.0527887,1.01195,-1.02125,0.0010349,0.332365,6.61156,-0.318574,23.582,106.582,-122.071,0.257707,4.2168,-38.065,4.21419,29.6924,3.34228,-0.136484,0.0641939,
0.00843496,-0.0655164,0.015881,-1.7608,0.0867458,0.103253,-0.0843433,0.0740881,8.17504e-05,0.0779302,-0.0886309,0.814323,-1.03991,0.00250339,8.20371,5.03198,8.33481,-10.4437,23.5405,-43.5583,0.300843,20.0821,3.06216,20.6543,-18.6506,10.656,-14.3471,0.0566612,0.00462457,-0.066946,0.0119591,-1.75493,0.0492421,0.15212,-0.0845916,-0.00131705,0.0946714,-0.00546428,-0.0527887,1.01195,-1.02125,0.0010349,0,0,0,0,0,0,0,4.2168,-38.065,4.21419,29.6924,3.34228,-0.136484,0.0641939,
0.00949638,-0.0652593,0.0169821,-1.76211,0.094633,0.0929407,-0.0843091,0.0858059,0.00649457,0.0898728,-0.103666,0.848639,-1.08974,0.00285737,7.32367,4.00801,7.4641,-9.39682,21.4478,-31.1468,0.221238,18.8803,3.49995,19.4512,-18.0791,10.656,-14.3471,0.0430057,0.00462457,-0.066946,0.0119591,-1.75493,0.0492421,0.15212,-0.0845916,-0.00131705,0.0946714,-0.00546428,-0.0527887,1.01195,-1.02125,0.0010349,0,0,0,0,0,0,0,4.2168,-38.065,4.21419,29.6924,3.34228,-0.136484,0.0641939,
0.0105886,-0.0649947,0.0181153,-1.76348,0.102661,0.0831746,-0.0842749,0.0959499,0.0118087,0.100226,-0.117261,0.879606,-1.11595,0.00314136,6.33997,3.32133,6.47079,-8.49716,19.3539,-16.3785,0.177491,17.9084,3.70975,18.4766,-17.6083,10.656,-14.3471,0.0375122,0.00462457,-0.066946,0.0119591,-1.75493,0.0492421,0.15212,-0.0845916,-0.00131705,0.0946714,-0.00546428,-0.0527887,1.01195,-1.02125,0.0010349,0,0,0,0,0,0,0,4.2168,-38.065,4.21419,29.6924,3.34228,-0.136484,0.0641939,
0.00993168,-0.0648228,0.0179678,-1.76363,0.125171,0.0508938,-0.0843669,0.109137,0.00663704,0.113492,-0.144944,0.903534,-1.12466,0.00325197,8.24201,-3.23228,8.29151,-17.3018,14.9554,-5.44732,0.069133,21.7669,1.87921,22.3938,-26.2082,10.4773,-14.0837,0.0445994,0.0044839,-0.0636379,0.0123845,-1.75445,0.0852226,0.104742,-0.0845763,0.0284557,-0.00743169,0.0727571,-0.0502793,1.11557,-1.70404,-5.20403e-05,3.72159,-12.7629,9.77768,0.313673,12.9526,-85.3484,-0.135867,12.076,-41.3103,12.363,22.7417,2.87811,-1.97944,0.0980684,
0.0112602,-0.0648902,0.0193356,-1.76572,0.133248,0.0426599,-0.0843382,0.120523,0.00362576,0.124988,-0.168177,0.924752,-1.10558,0.00331773,7.11588,-1.88205,7.1848,-14.5206,13.2609,11.9284,0.041102,20.5538,1.65061,21.1445,-25.7179,10.4773,-14.0837,0.0341763,0.0044839,-0.0636379,0.0123845,-1.75445,0.0852226,0.104742,-0.0845763,0.0284557,-0.00743169,0.0727571,-0.0502793,1.11557,-1.70404,-5.20403e-05,0,0,0,0,0,0,0,12.076,-41.3103,12.363,22.7417,2.87811,-1.97944,0.0980684,
0.0126051,-0.0649221,0.0207208,-1.76782,0.141396,0.035483,-0.0843081,0.130041,0.00210329,0.134622,-0.187187,0.943498,-1.06388,0.00340831,5.94936,-0.95154,6.02128,-11.8813,11.7161,26.0588,0.0566094,19.5478,1.33936,20.1133,-25.2981,10.4773,-13.4862,0.0308281,0.0044839,-0.0636379,0.0123845,-1.75445,0.0852226,0.104742,-0.0845763,0.0284557,-0.00743169,0.0727571,-0.0502793,1.11557,-1.70404,-5.20403e-05,0,0,0,0,0,0,0,12.076,-41.3103,12.363,22.7417,2.87811,-1.97944,0.0980684,
0.0139541,-0.0649277,0.0221107,-1.76992,0.149599,0.0293385,-0.0842762,0.137758,0.00154196,0.142445,-0.202313,0.959861,-1.00472,0.00352478,4.82287,-0.350831,4.88943,-9.45332,10.2274,36.9767,0.0727924,18.6928,1.00178,19.2372,-24.9293,10.4773,-11.4148,0.0297864,0.0044839,-0.0636379,0.0123845,-1.75445,0.0852226,0.104742,-0.0845763,0.0284557,-0.00743169,0.0727571,-0.0502793,1.11557,-1.70404,-5.20403e-05,0,0,0,0,0,0,0,12.076,-41.3103,12.363,22.7417,2.87811,-1.97944,0.0980684,
0.00989533,-0.0645281,0.0179743,-1.76643,0.125546,0.0680796,-0.0843521,0.142522,0.00224839,0.147407,-0.226758,0.968664,-0.91982,0.00372593,2.97731,0.441514,3.10086,-15.2783,5.50193,53.0632,0.125723,21.2609,5.08659,22.0335,-31.8077,10.4109,-9.11099,0.0392631,0.00817017,-0.063785,0.0165405,-1.76258,0.126145,0.0456175,-0.0845808,0.108298,-0.0219184,0.156575,-0.349722,1.19635,-1.75771,-0.000463048,9.98025,-1.81084,10.4773,-37.4303,10.0971,-6.70872,-0.051376,13.8771,-27.5835,14.4101,19.9289,3.87329,-2.53608,0.138352,
0.0112204,-0.0644209,0.0193465,-1.76902,0.133646,0.0645006,-0.084315,0.147144,0.00447711,0.152229,-0.246233,0.977423,-0.825329,0.00391004,2.8887,1.39295,3.01416,-12.1719,5.47438,59.0567,0.115067,20.1807,4.29853,20.913,-31.5274,10.4109,-7.09614,0.0316833,0.00817017,-0.063785,0.0165405,-1.76258,0.126145,0.0456175,-0.0845808,0.108298,-0.0219184,0.156575,-0.349722,1.19635,-1.75771,-0.000463048,0,0,0,0,0,0,0,13.8771,-27.5835,14.4101,19.9289,3.87329,-2.53608,0.138352,
0.0125598,-0.0642655,0.0207344,-1.7716,0.141808,0.0618679,-0.0842748,0.1512,0.00746726,0.156482,-0.261279,0.985994,-0.726082,0.00413241,2.53497,1.86885,2.65771,-9.40413,5.35659,62.0296,0.138981,19.2967,3.70979,19.9963,-31.2261,10.4109,-5.35539,0.031597,0.00817017,-0.063785,0.0165405,-1.76258,0.126145,0.0456175,-0.0845808,0.108298,-0.0219184,0.156575,-0.349722,1.19635,-1.75771,-0.000463048,0,0,0,0,0,0,0,13.8771,-27.5835,14.4101,19.9289,3.87329,-2.53608,0.138352,
0.0139009,-0.0640757,0.022125,-1.77413,0.150021,0.0600751,-0.0842299,0.154487,0.0107191,0.159949,-0.272498,0.994118,-0.625685,0.00442728,2.05465,2.03241,2.16699,-7.01137,5.07767,62.7477,0.184291,18.5503,3.29209,19.2227,-30.8998,10.4109,-3.84292,0.0329104,0.00817017,-0.063785,0.0165405,-1.76258,0.126145,0.0456175,-0.0845808,0.108298,-0.0219184,0.156575,-0.349722,1.19635,-1.75771,-0.000463048,0,0,0,0,0,0,0,13.8771,-27.5835,14.4101,19.9289,3.87329,-2.53608,0.138352,
0.0153551,-0.063512,0.0239092,-1.77906,0.168545,0.00796234,-0.084348,0.161469,0.0129207,0.166895,-0.299373,1.00233,-0.615439,0.00459838,4.36353,1.37599,4.34152,-16.7974,5.13203,6.40414,0.106937,21.0828,4.16082,21.7159,-38.4879,10.4109,-7.21962,0.0468705,0.00817017,-0.063785,0.0165405,-1.76258,0.126145,0.0456175,-0.0845808,0.108298,-0.0219184,0.156575,-0.349722,1.19635,-1.75771,-0.000463048,0,0,0,0,0,0,0,13.8771,-27.5835,14.4101,19.9289,3.87329,-2.53608,0.138352,
0.0168615,-0.063323,0.0254589,-1.78226,0.176819,0.00439095,-0.0843038,0.166833,0.0150621,0.172258,-0.31939,1.00872,-0.581636,0.00478187,3.35276,1.33836,3.3518,-12.5106,3.99344,21.1268,0.114682,20.4913,3.17628,21.1223,-37.8654,10.4417,-5.152,0.0377084,0.0159447,-0.0658267,0.0236792,-1.77871,0.169351,-0.0155255,-0.0845712,0.329414,-0.0363123,0.218551,-0.52403,1.34239,-1.67038,-0.00231591,27.6395,-1.79924,7.74697,-21.7885,18.2558,10.9163,-0.231608,12.5084,-22.9418,12.7597,23.317,3.83026,1.21667,0.0641939,
0.0183487,-0.0631287,0.0269902,-1.78539,0.185092,0.00169223,-0.0842557,0.170647,0.0169063,0.176088,-0.333771,1.01378,-0.532776,0.00502899,2.38378,1.15263,2.39363,-8.9877,3.1655,30.537,0.154454,19.7132,2.54743,20.3106,-37.5131,10.4417,-3.87848,0.038999,0.0159447,-0.0658267,0.0236792,-1.77871,0.169351,-0.0155255,-0.0845712,0.329414,-0.0363123,0.218551,-0.52403,1.34239,-1.67038,-0.00231591,0,0,0,0,0,0,0,12.5084,-22.9418,12.7597,23.317,3.83026,1.21667,0.0641939,
0.0257537,-0.0658161,0.0337589,-1.79931,0.216565,-0.0326881,-0.0844015,0.181303,0.0162594,0.187048,-0.362276,1.03355,-0.416095,0.00513665,6.65975,-0.40431,6.84993,-17.8156,12.3554,72.9257,0.0672855,19.4816,0.08563,20.1446,-44.1271,10.4417,2.53925,0.0306156,0.0159447,-0.0658267,0.0236792,-1.77871,0.169351,-0.0155255,-0.0845712,0.329414,-0.0363123,0.218551,-0.52403,1.34239,-1.67038,-0.00231591,0,0,0,0,0,0,0,12.5084,-22.9418,12.7597,23.317,3.83026,1.21667,0.0641939,
0.0274587,-0.0657049,0.0355185,-1.80299,0.225314,-0.0312181,-0.0843549,0.187668,0.0157877,0.193627,-0.381783,1.04558,-0.296128,0.00527396,3.9781,-0.29478,4.11203,-12.1923,7.51545,74.9794,0.0858186,18.8302,-0.162318,19.4564,-43.6497,10.4417,3.38607,0.0344523,0.0159447,-0.0658267,0.0236792,-1.77871,0.169351,-0.0155255,-0.0845712,0.329414,-0.0363123,0.218551,-0.52403,1.34239,-1.67038,-0.00231591,0,0,0,0,0,0,0,12.5084,-22.9418,12.7597,23.317,3.83026,1.21667,0.0641939,
0.0290824,-0.065598,0.037193,-1.80655,0.233942,-0.0289314,-0.0843053,0.190727,0.0153024,0.196764,-0.394396,1.05216,-0.179734,0.00545786,1.91229,-0.303339,1.96041,-7.8826,4.11436,72.7467,0.11494,18.3324,-1.00347,18.9693,-42.1725,10.3363,4.53881,0.0340032,0.0255301,-0.0671726,0.0375958,-1.80146,0.212605,-0.0505749,-0.084554,0.350401,0.0267688,0.39598,-0.73917,1.30729,-0.6731,-0.0012585,2.62333,7.88514,22.1786,-26.8925,-4.38724,124.66,0.132177,7.41046,-24.1399,7.16188,25.6815,3.61053,3.21892,0.0641939,
0.0306285,-0.0654971,0.0387868,-1.81,0.242471,-0.0260217,-0.0842564,0.191233,0.0147653,0.197256,-0.40176,1.05496,-0.0710442,0.00559002,0.316181,-0.335683,0.307966,-4.60256,1.74857,67.9309,0.0825961,17.8185,-0.960225,18.4294,-41.6135,10.3363,5.10845,0.0471349,0.0255301,-0.0671726,0.0375958,-1.80146,0.212605,-0.0505749,-0.084554,0.350401,0.0267688,0.39598,-0.73917,1.30729,-0.6731,-0.0012585,0,0,0,0,0,0,0,7.41046,-24.1399,7.16188,25.6815,3.61053,3.21892,0.0641939,
0.036544,-0.065174,0.0489792,-1.82491,0.260289,-0.0376985,-0.0844139,0.198804,0.020428,0.205144,-0.425546,1.069,0.0813646,0.00558608,4.73181,3.53917,4.92975,-14.8668,8.77355,95.2555,-0.00246371,16.6108,-1.10677,17.249,-47.8303,10.3363,11.3592,0.0248069,0.0255301,-0.0671726,0.0375958,-1.80146,0.212605,-0.0505749,-0.084554,0.350401,0.0267688,0.39598,-0.73917,1.30729,-0.6731,-0.0012585,0,0,0,0,0,0,0,7.41046,-24.1399,7.16188,25.6815,3.61053,3.21892,0.0641939,
0.0382522,-0.0648716,0.0507415,-1.82889,0.268944,-0.031553,-0.0843653,0.201749,0.0239037,0.208173,-0.439896,1.07159,0.218729,0.00568502,1.84027,2.17233,1.8931,-8.9682,1.6224,85.8526,0.0618413,16.3425,-0.928426,16.9473,-47.2383,10.3363,11.3592,0.0386731,0.0255301,-0.0671726,0.0375958,-1.80146,0.212605,-0.0505749,-0.084554,0.350401,0.0267688,0.39598,-0.73917,1.30729,-0.6731,-0.0012585,0,0,0,0,0,0,0,7.41046,-24.1399,7.16188,25.6815,3.61053,3.21892,0.0641939,
0.039871,-0.0646101,0.052412,-1.83269,0.276932,-0.0250327,-0.0843164,0.201869,0.0256589,0.208299,-0.447019,1.05696,0.337992,0.00576895,0.0749488,1.097,0.0786733,-4.45228,-9.14702,74.5393,0.0524573,16.0987,-0.634072,16.7241,-46.2132,10.2036,11.7662,0.0473133,0.038938,-0.0665085,0.0519409,-1.82922,0.258873,-0.0705743,-0.0845393,0.386247,0.0476515,0.477024,-0.977096,1.46713,-0.238168,0.00254136,4.48076,2.61033,10.1305,-29.7407,19.9796,54.3666,0.474982,1.63013,-31.6499,1.03639,23.6145,2.63366,4.39263,-0.0630644,
0.0414245,-0.0643878,0.054016,-1.83634,0.284015,-0.0183147,-0.0842677,0.200332,0.026086,0.206741,-0.448808,1.02266,0.438344,0.00583257,-0.960106,0.266948,-0.973869,-1.11817,-21.4382,62.7201,0.0397593,15.7204,-0.299177,16.322,-45.5624,10.2036,11.5616,0.0565498,0.038938,-0.0665085,0.0519409,-1.82922,0.258873,-0.0705743,-0.0845393,0.386247,0.0476515,0.477024,-0.977096,1.46713,-0.238168,0.00254136,0,0,0,0,0,0,0,1.63013,-31.6499,1.03639,23.6145,2.63366,4.39263,-0.0630644,
0.0508152,-0.0635775,0.0641875,-1.855,0.302385,-0.0538682,-0.0844152,0.208519,0.0298798,0.21508,-0.469903,0.973427,0.498351,0.0054561,5.11646,2.37108,5.21201,-13.1839,-30.7676,37.5044,-0.235293,13.6522,-3.64625,14.1262,-51.659,10.2036,11.7663,0.0357113,0.038938,-0.0665085,0.0519409,-1.82922,0.258873,-0.0705743,-0.0845393,0.386247,0.0476515,0.477024,-0.977096,1.46713,-0.238168,0.00254136,0,0,0,0,0,0,0,1.63013,-31.6499,1.03639,23.6145,2.63366,4.39263,-0.0630644,
0.0526071,-0.0633041,0.0660326,-1.85922,0.30734,-0.047254,-0.0843798,0.211613,0.0307393,0.218191,-0.481455,0.902612,0.564035,0.00524959,1.93368,0.537235,1.94414,-7.22044,-44.2595,41.0527,-0.129069,13.4997,-2.85419,13.9789,-50.8676,9.05056,11.7663,0.0517203,0.038938,-0.0665085,0.0519409,-1.82922,0.258873,-0.0705743,-0.0845393,0.386247,0.0476515,0.477024,-0.977096,1.46713,-0.238168,0.00254136,0,0,0,0,0,0,0,1.63013,-31.6499,1.03639,23.6145,2.63366,4.39263,-0.0630644,
0.0542847,-0.0630976,0.0677599,-1.86327,0.311155,-0.0401063,-0.0843415,0.211229,0.0297537,0.217735,-0.486378,0.81747,0.62992,0.00515674,-0.239986,-0.615988,-0.284703,-3.07699,-53.2135,41.1784,-0.0580303,13.3479,-2.50421,13.9038,-49.6456,7.01664,11.9566,0.0475273,0.0541617,-0.0660135,0.0671888,-1.86807,0.308959,-0.0630045,-0.0845448,0.385208,-0.0287663,0.49659,-1.16302,1.58179,0.570849,-0.000554597,-0.129867,-9.55222,2.44576,-23.2399,14.3321,101.127,-0.386995,-2.98779,-29.9797,-3.26018,25.8798,0.135189,7.08428,0.0303194,
0.0662714,-0.0636977,0.079646,-1.89368,0.334397,-0.0368137,-0.0844862,0.216708,0.0297438,0.223262,-0.49924,0.697549,0.67199,0.00500434,3.42478,-0.00624542,3.45449,-8.03818,-74.9508,26.2932,-0.0952532,10.2636,-4.66232,10.7808,-53.622,2.37505,11.9566,0.00436554,0.0541617,-0.0660135,0.0671888,-1.86807,0.308959,-0.0630045,-0.0845448,0.385208,-0.0287663,0.49659,-1.16302,1.58179,0.570849,-0.000554597,0,0,0,0,0,0,0,-2.98779,-29.9797,-3.26018,25.8798,0.135189,7.08428,0.0303194,
0.0680191,-0.0635345,0.0814435,-1.89791,0.335041,-0.0295968,-0.0844393,0.217061,0.0278742,0.223549,-0.505356,0.574146,0.718015,0.00517454,0.220308,-1.16844,0.179101,-3.82264,-77.1268,28.7656,0.10638,10.7781,-3.31456,11.2977,-52.556,0.840727,11.9566,0.0193901,0.0541617,-0.0660135,0.0671888,-1.86807,0.308959,-0.0630045,-0.0845448,0.385208,-0.0287663,0.49659,-1.16302,1.58179,0.570849,-0.000554597,0,0,0,0,0,0,0,-2.98779,-29.9797,-3.26018,25.8798,0.135189,7.08428,0.0303194,
0.0696369,-0.0634231,0.0831078,-1.90202,0.334812,-0.0219933,-0.0843839,0.214094,0.0250858,0.220447,-0.506904,0.45359,0.764499,0.00552613,-1.85453,-1.74281,-1.93887,-0.967802,-75.3476,29.0528,0.219739,11.2611,-2.24973,11.7738,-51.5473,-0.320549,11.9566,0.0296881,0.0541617,-0.0660135,0.0671888,-1.86807,0.308959,-0.0630045,-0.0845448,0.385208,-0.0287663,0.49659,-1.16302,1.58179,0.570849,-0.000554597,0,0,0,0,0,0,0,-2.98779,-29.9797,-3.26018,25.8798,0.135189,7.08428,0.0303194,
0.0711501,-0.0633467,0.0846649,-1.90601,0.333895,-0.01409,-0.0843199,0.209104,0.0219765,0.215284,-0.505386,0.33996,0.809183,0.00601968,-3.11815,-1.94328,-3.22641,0.94882,-71.0185,27.9274,0.30847,11.5752,-1.71048,12.1077,-50.4151,-1.45049,11.958,0.042818,0.0696102,-0.064212,0.0829697,-1.90489,0.356954,-0.0289904,-0.0845316,0.401066,0.021231,0.520608,-1.05566,1.25949,1.15126,0.000410287,1.98223,6.24966,3.00229,13.4189,-40.287,72.5513,0.120611,-6.74084,-34.4945,-7.36235,32.7313,0.514218,6.43426,0.0440523,
0.0820579,-0.0611432,0.0957566,-1.92793,0.369452,0.00622349,-0.0843163,0.215505,0.0253204,0.221768,-0.50595,0.266968,0.835153,0.00632108,4.0001,2.08995,4.0522,-0.352513,-45.6201,16.2315,0.188376,11.9974,-1.11031,12.5178,-49.5149,-2.13033,11.958,0.0513339,0.0696102,-0.064212,0.0829697,-1.90489,0.356954,-0.0289904,-0.0845316,0.401066,0.021231,0.520608,-1.05566,1.25949,1.15126,0.000410287,0,0,0,0,0,0,0,-6.74084,-34.4945,-7.36235,32.7313,0.514218,6.43426,0.0440523,
0.0838119,-0.0609236,0.0975593,-1.93188,0.368544,0.0139928,-0.0842484,0.216253,0.0257472,0.222482,-0.503447,0.190897,0.862356,0.00675615,0.467443,0.266752,0.446047,1.56469,-47.5446,17.002,0.271921,12.3811,-0.683445,12.8898,-48.6601,-2.66007,11.958,0.061137,0.0696102,-0.064212,0.0829697,-1.90489,0.356954,-0.0289904,-0.0845316,0.401066,0.021231,0.520608,-1.05566,1.25949,1.15126,0.000410287,0,0,0,0,0,0,0,-6.74084,-34.4945,-7.36235,32.7313,0.514218,6.43426,0.0440523,
0.085426,-0.0607665,0.099219,-1.93572,0.367127,0.0219792,-0.0841752,0.213355,0.0245232,0.219477,-0.498961,0.117284,0.889544,0.00723443,-1.8107,-0.765003,-1.87776,2.80355,-46.0081,16.9923,0.298926,12.7133,-0.392817,13.208,-47.8442,-3.00448,11.958,0.0679431,0.0696102,-0.064212,0.0829697,-1.90489,0.356954,-0.0289904,-0.0845316,0.401066,0.021231,0.520608,-1.05566,1.25949,1.15126,0.000410287,0,0,0,0,0,0,0,-6.74084,-34.4945,-7.36235,32.7313,0.514218,6.43426,0.0440523,
0.0869287,-0.0606528,0.100765,-1.93949,0.365346,0.0301444,-0.0840968,0.208252,0.022462,0.21422,-0.493208,0.0492923,0.915766,0.00774767,-3.18992,-1.28825,-3.28551,3.59551,-42.4947,16.3885,0.320773,12.7742,-0.168031,13.2863,-47.0824,-3.32815,11.8634,0.0832665,0.0848852,-0.0640369,0.0993224,-1.94331,0.380324,0.0179235,-0.0845262,0.406912,0.00820845,0.529005,-1.14424,0.387135,1.54174,-0.00108039,0.730762,-1.62782,1.04961,-11.0721,-109.045,48.8095,-0.186334,-8.28808,-31.9991,-8.73503,21.5991,-2.44202,3.05321,0.0303194,
0.0967257,-0.0600533,0.111539,-1.96601,0.377329,0.0564279,-0.0842001,0.211506,0.0292958,0.217604,-0.493169,-0.000642986,0.924224,0.00805933,2.0341,4.27108,2.11487,0.0243983,-31.2096,5.28654,0.194788,13.0058,-0.0563095,13.5041,-46.324,-3.44129,11.8634,0.0881276,0.0848852,-0.0640369,0.0993224,-1.94331,0.380324,0.0179235,-0.0845262,0.406912,0.00820845,0.529005,-1.14424,0.387135,1.54174,-0.00108039,0,0,0,0,0,0,0,-8.28808,-31.9991,-8.73503,21.5991,-2.44202,3.05321,0.0303194,
0.0983599,-0.0597132,0.113221,-1.96982,0.375494,0.0642713,-0.0841207,0.21006,0.0319381,0.216133,-0.489958,-0.0463925,0.935463,0.00843137,-0.903836,1.65148,-0.919658,2.00667,-28.5935,7.02435,0.232522,13.1923,0.0021091,13.6782,-45.586,-3.49251,11.8634,0.0931507,0.0848852,-0.0640369,0.0993224,-1.94331,0.380324,0.0179235,-0.0845262,0.406912,0.00820845,0.529005,-1.14424,0.387135,1.54174,-0.00108039,0,0,0,0,0,0,0,-8.28808,-31.9991,-8.73503,21.5991,-2.44202,3.05321,0.0303194,
0.0998674,-0.0594542,0.114773,-1.97353,0.373516,0.0722816,-0.0840384,0.205737,0.0320254,0.211697,-0.484638,-0.0865557,0.948629,0.00880292,-2.70176,0.0545736,-2.77236,3.32519,-25.102,8.22848,0.232219,13.3349,0.0256389,13.8084,-44.8648,-3.4653,11.8634,0.0959893,0.0848852,-0.0640369,0.0993224,-1.94331,0.380324,0.0179235,-0.0845262,0.406912,0.00820845,0.529005,-1.14424,0.387135,1.54174,-0.00108039,0,0,0,0,0,0,0,-8.28808,-31.9991,-8.73503,21.5991,-2.44202,3.05321,0.0303194,
0.0967652,-0.0598391,0.111563,-1.96512,0.378026,0.0560377,-0.0841651,0.209412,0.0378136,0.215451,-0.481397,-0.101271,0.94904,0.00894533,2.29657,3.6176,2.34647,2.02582,-9.19694,0.256974,0.0890109,13.438,0.0121827,13.906,-43.723,-3.33289,11.6845,0.106408,0.0996112,-0.0634324,0.114493,-1.98135,0.383372,0.0738327,-0.0845049,0.364088,0.0205542,0.483028,-1.10166,-0.0071501,1.68195,0.005223,-5.35294,1.54321,-5.7472,5.32298,-49.2857,17.5273,0.787923,-4.86432,-31.7769,-5.38664,27.1771,-0.365604,2.49566,-0.0703886,
0.0983891,-0.059467,0.113233,-1.96874,0.37659,0.0638287,-0.0840863,0.208127,0.0395532,0.214109,-0.475493,-0.116911,0.954008,0.00912622,-0.802951,1.08722,-0.838709,3.68975,-9.77505,3.10515,0.113052,13.4663,0.0278128,13.9218,-43.0276,-3.20816,11.6845,0.108435,0.0996112,-0.0634324,0.114493,-1.98135,0.383372,0.0738327,-0.0845049,0.364088,0.0205542,0.483028,-1.10166,-0.0071501,1.68195,0.005223,0,0,0,0,0,0,0,-4.86432,-31.7769,-5.38664,27.1771,-0.365604,2.49566,-0.0703886,
0.0998801,-0.0591788,0.114767,-1.97224,0.37507,0.0717927,-0.0840063,0.203778,0.0388476,0.209624,-0.467911,-0.131527,0.962305,0.00930269,-2.71828,-0.440986,-2.80311,4.73916,-9.13506,5.18569,0.110293,13.4564,0.060142,13.9013,-42.3258,-3.04759,11.6845,0.109126,0.0996112,-0.0634324,0.114493,-1.98135,0.383372,0.0738327,-0.0845049,0.364088,0.0205542,0.483028,-1.10166,-0.0071501,1.68195,0.005223,0,0,0,0,0,0,0,-4.86432,-31.7769,-5.38664,27.1771,-0.365604,2.49566,-0.0703886,
0.101266,-0.0589514,0.116192,-1.97564,0.373519,0.0799084,-0.0839257,0.197661,0.0367632,0.203331,-0.459314,-0.143998,0.972738,0.00945567,-3.82294,-1.30271,-3.93347,5.37289,-7.79427,6.52073,0.0956135,13.4158,0.0992861,13.852,-41.6204,-2.87888,11.6845,0.109622,0.0996112,-0.0634324,0.114493,-1.98135,0.383372,0.0738327,-0.0845049,0.364088,0.0205542,0.483028,-1.10166,-0.0071501,1.68195,0.005223,0,0,0,0,0,0,0,-4.86432,-31.7769,-5.38664,27.1771,-0.365604,2.49566,-0.0703886,
0.11013,-0.0590238,0.125368,-2.00219,0.376424,0.113744,-0.0841302,0.197936,0.0426312,0.203691,-0.45628,-0.149997,0.971032,0.00941655,0.171566,3.66751,0.225371,1.89626,-3.74966,-1.06672,-0.0244496,13.3472,0.139526,13.7754,-40.9136,-2.69504,11.6845,0.109127,0.0996112,-0.0634324,0.114493,-1.98135,0.383372,0.0738327,-0.0845049,0.364088,0.0205542,0.483028,-1.10166,-0.0071501,1.68195,0.005223,0,0,0,0,0,0,0,-4.86432,-31.7769,-5.38664,27.1771,-0.365604,2.49566,-0.0703886,
0.111582,-0.0586141,0.126864,-2.00561,0.375066,0.121592,-0.0840552,0.194649,0.0443461,0.200355,-0.450462,-0.153947,0.973026,0.00940891,-2.05394,1.07179,-2.08511,3.63614,-2.46848,1.24627,-0.00477414,13.1849,0.263974,13.6185,-40.3681,-2.47788,11.5419,0.110582,0.113641,-0.0616086,0.128973,-2.01836,0.379336,0.135166,-0.0844324,0.344679,0.0721889,0.488565,-1.03044,-0.152823,1.80291,0.00760115,-2.4261,6.45434,0.69217,8.90265,-18.2091,15.1192,0.297269,-2.70611,-32.3244,-3.26018,27.3279,0.0619471,0.5996,0.017502,
0.112925,-0.0582928,0.128248,-2.00891,0.373753,0.129577,-0.0839803,0.1893,0.0435101,0.19488,-0.442871,-0.155976,0.978042,0.00939919,-3.34332,-0.522477,-3.4222,4.74452,-1.26835,3.13495,-0.00607569,13.0744,0.29657,13.5013,-39.6626,-2.29429,11.5419,0.109162,0.113641,-0.0616086,0.128973,-2.01836,0.379336,0.135166,-0.0844324,0.344679,0.0721889,0.488565,-1.03044,-0.152823,1.80291,0.00760115,0,0,0,0,0,0,0,-2.70611,-32.3244,-3.26018,27.3279,0.0619471,0.5996,0.017502,
0.114182,-0.058037,0.129543,-2.0121,0.372496,0.137688,-0.0839063,0.182876,0.041202,0.188291,-0.434198,-0.156201,0.985199,0.00936989,-4.01467,-1.44262,-4.11806,5.4208,-0.140802,4.47354,-0.0183106,12.9485,0.323631,13.3692,-38.9591,-2.11893,11.5419,0.107534,0.113641,-0.0616086,0.128973,-2.01836,0.379336,0.135166,-0.0844324,0.344679,0.0721889,0.488565,-1.03044,-0.152823,1.80291,0.00760115,0,0,0,0,0,0,0,-2.70611,-32.3244,-3.26018,27.3279,0.0619471,0.5996,0.017502,
0.123596,-0.0567423,0.139283,-2.0381,0.372274,0.176524,-0.0841003,0.18351,0.0471219,0.189003,-0.431061,-0.151981,0.981622,0.00913598,0.395884,3.69998,0.445199,1.96056,2.63749,-2.23597,-0.146194,12.8093,0.345918,13.2239,-38.2573,-1.94798,11.5419,0.105393,0.113641,-0.0616086,0.128973,-2.01836,0.379336,0.135166,-0.0844324,0.344679,0.0721889,0.488565,-1.03044,-0.152823,1.80291,0.00760115,0,0,0,0,0,0,0,-2.70611,-32.3244,-3.26018,27.3279,0.0619471,0.5996,0.017502,
0.124948,-0.0563027,0.140677,-2.04129,0.371278,0.184187,-0.0840347,0.180608,0.0486875,0.186055,-0.424566,-0.146473,0.976881,0.00895028,-1.81382,0.978489,-1.84251,4.05917,3.44302,-2.96302,-0.116065,12.6426,0.228309,13.0562,-37.7747,-1.7415,11.3252,0.104369,0.127185,-0.0594569,0.142011,-2.05051,0.372723,0.196024,-0.0843889,0.428253,0.0473352,0.302181,-0.903681,-0.166964,1.86118,0.0025764,10.4467,-3.10671,-23.2979,15.8444,-1.76765,7.28441,-0.628094,-2.22607,-32.8719,-2.78807,19.6036,0.135189,-0.0696505,-0.0026396,
0.126193,-0.0559603,0.141961,-2.04434,0.370352,0.191708,-0.0839695,0.175605,0.0475107,0.180933,-0.415833,-0.140334,0.969534,0.00878854,-3.12654,-0.735521,-3.20131,5.45811,3.83678,-4.59167,-0.101085,12.4849,0.242119,12.8928,-37.0774,-1.58874,11.3252,0.101672,0.127185,-0.0594569,0.142011,-2.05051,0.372723,0.196024,-0.0843889,0.428253,0.0473352,0.302181,-0.903681,-0.166964,1.86118,0.0025764,0,0,0,0,0,0,0,-2.22607,-32.8719,-2.78807,19.6036,0.135189,-0.0696505,-0.0026396,
0.123596,-0.0567423,0.139283,-2.0381,0.372274,0.176524,-0.0841003,0.177693,0.0521689,0.183117,-0.416369,-0.139287,0.96909,0.0086709,1.30478,2.91139,1.36492,-0.335011,0.654029,-0.27784,-0.073525,12.1527,0.260339,12.5498,-35.6895,-1.31371,11.3252,0.0956872,0.127185,-0.0594569,0.142011,-2.05051,0.372723,0.196024,-0.0843889,0.428253,0.0473352,0.302181,-0.903681,-0.166964,1.86118,0.0025764,0,0,0,0,0,0,0,-2.22607,-32.8719,-2.78807,19.6036,0.135189,-0.0696505,-0.0026396,
0.137074,-0.0553751,0.152225,-2.07076,0.366486,0.243742,-0.0840455,0.171947,0.0496267,0.177233,-0.403692,-0.127764,0.941209,0.00837135,-3.59141,-1.58889,-3.6777,7.92325,7.20213,-17.4252,-0.187218,11.9812,0.265949,12.3729,-34.9989,-1.19083,10.7479,0.09244,0.127185,-0.0594569,0.142011,-2.05051,0.372723,0.196024,-0.0843889,0.428253,0.0473352,0.302181,-0.903681,-0.166964,1.86118,0.0025764,0,0,0,0,0,0,0,-2.22607,-32.8719,-2.78807,19.6036,0.135189,-0.0696505,-0.0026396,
0.13818,-0.0551389,0.153365,-2.07348,0.365888,0.250109,-0.0839886,0.165199,0.0456061,0.170301,-0.390847,-0.117176,0.91214,0.00811879,-4.21758,-2.51287,-4.33212,8.02832,6.61753,-18.1682,-0.157852,11.8459,0.296725,12.2277,-34.3359,-0.975187,10.0434,0.0904249,0.138503,-0.0559663,0.15583,-2.08139,0.365878,0.258228,-0.0843699,0.41216,0.0338918,0.29349,-0.918851,-0.204051,1.79884,-0.000601059,-2.01164,-1.68042,-1.08648,-1.89626,-4.63592,-7.79305,-0.397183,-2.47998,-33.4987,-3.06182,24.4357,1.83349,0.99053,0.0376436,
0.139218,-0.054962,0.154436,-2.0761,0.365332,0.256222,-0.0839329,0.158112,0.0409058,0.163014,-0.378173,-0.107645,0.882548,0.007887,-4.42904,-2.9377,-4.55455,7.92119,5.95653,-18.4953,-0.144868,11.6669,0.298096,12.0433,-33.6432,-0.891886,9.52876,0.0877059,0.138503,-0.0559663,0.15583,-2.08139,0.365878,0.258228,-0.0843699,0.41216,0.0338918,0.29349,-0.918851,-0.204051,1.79884,-0.000601059,0,0,0,0,0,0,0,-2.47998,-33.4987,-3.06182,24.4357,1.83349,0.99053,0.0376436,
0.146699,-0.0522546,0.164292,-2.09781,0.360576,0.292079,-0.0841315,0.156931,0.0430581,0.161797,-0.370866,-0.0995405,0.842317,0.00749512,-0.73814,1.34522,-0.760496,4.56643,5.0656,-25.1439,-0.244922,11.4803,0.297754,11.8512,-32.9497,-0.818989,9.05,0.0849081,0.138503,-0.0559663,0.15583,-2.08139,0.365878,0.258228,-0.0843699,0.41216,0.0338918,0.29349,-0.918851,-0.204051,1.79884,-0.000601059,0,0,0,0,0,0,0,-2.47998,-33.4987,-3.06182,24.4357,1.83349,0.99053,0.0376436,
0.147812,-0.051947,0.165439,-2.10042,0.360129,0.297282,-0.0840836,0.153357,0.0421359,0.158099,-0.361968,-0.0908148,0.803929,0.00719566,-2.23395,-0.576348,-2.31141,5.56152,5.45354,-23.9927,-0.187166,11.2871,0.295551,11.6523,-32.256,-0.754636,8.60168,0.0819923,0.138503,-0.0559663,0.15583,-2.08139,0.365878,0.258228,-0.0843699,0.41216,0.0338918,0.29349,-0.918851,-0.204051,1.79884,-0.000601059,0,0,0,0,0,0,0,-2.47998,-33.4987,-3.06182,24.4357,1.83349,0.99053,0.0376436,
0.148844,-0.0517175,0.166502,-2.10293,0.359736,0.30228,-0.0840361,0.148491,0.0394465,0.153066,-0.35219,-0.0824673,0.768072,0.00694417,-3.04098,-1.68093,-3.14527,6.11132,5.21724,-22.4106,-0.157182,11.1143,0.128249,11.4656,-31.5343,-0.57147,8.03804,0.079036,0.148894,-0.0533238,0.167429,-2.11162,0.358984,0.315214,-0.0843649,0.275169,0.0582523,0.335571,-0.854189,-0.164353,1.62351,0.00360016,-17.1238,3.04506,5.26024,8.08277,4.96231,-21.9157,0.525153,-0.805783,-32.8719,-1.76055,28.6966,2.50549,2.5158,0.017502,
0.149813,-0.051546,0.167501,-2.10534,0.359379,0.307092,-0.0839897,0.143026,0.0358449,0.147418,-0.341995,-0.0749144,0.73476,0.00671549,-3.41553,-2.25095,-3.53021,6.37203,4.72054,-20.82,-0.142926,10.9115,0.123439,11.2568,-30.8396,-0.521534,7.64619,0.0759305,0.148894,-0.0533238,0.167429,-2.11162,0.358984,0.315214,-0.0843649,0.275169,0.0582523,0.335571,-0.854189,-0.164353,1.62351,0.00360016,0,0,0,0,0,0,0,-0.805783,-32.8719,-1.76055,28.6966,2.50549,2.5158,0.017502,
0.156062,-0.0495849,0.174846,-2.12679,0.3545,0.343027,-0.0841578,0.141493,0.0387341,0.145832,-0.336282,-0.0702132,0.695791,0.00636401,-0.958581,1.80575,-0.991398,3.57054,2.93825,-24.3554,-0.21967,10.7056,0.117785,11.0449,-30.1438,-0.47811,7.28048,0.072783,0.148894,-0.0533238,0.167429,-2.11162,0.358984,0.315214,-0.0843649,0.275169,0.0582523,0.335571,-0.854189,-0.164353,1.62351,0.00360016,0,0,0,0,0,0,0,-0.805783,-32.8719,-1.76055,28.6966,2.50549,2.5158,0.017502,
0.157059,-0.0492872,0.175872,-2.12918,0.354169,0.347146,-0.0841177,0.138106,0.038428,0.142321,-0.328737,-0.0644466,0.659598,0.006094,-2.11668,-0.191314,-2.1942,4.71532,3.60414,-22.6207,-0.168761,10.498,0.111089,10.8312,-29.4476,-0.441386,6.93748,0.0696474,0.148894,-0.0533238,0.167429,-2.11162,0.358984,0.315214,-0.0843649,0.275169,0.0582523,0.335571,-0.854189,-0.164353,1.62351,0.00360016,0,0,0,0,0,0,0,-0.805783,-32.8719,-1.76055,28.6966,2.50549,2.5158,0.017502,
0.157989,-0.0490663,0.17683,-2.13146,0.353883,0.351108,-0.084078,0.133745,0.0362661,0.137803,-0.320095,-0.0586983,0.626725,0.00586667,-2.72552,-1.35122,-2.82404,5.40163,3.59267,-20.5457,-0.14208,10.3109,-0.0609188,10.6232,-28.6356,-0.287142,6.51482,0.0662933,0.15886,-0.0503298,0.177475,-2.13928,0.353164,0.36373,-0.0843732,0.282266,0.0938994,0.285479,-0.790068,-0.138868,1.2785,0.000346282,0.887071,4.45589,-6.26162,8.01519,3.18557,-43.1263,-0.406735,0.66608,-36.5178,-0.0387439,28.3237,2.8598,2.00493,0.110886,
0.158867,-0.048902,0.177734,-2.13365,0.353623,0.354934,-0.0840393,0.128953,0.0331195,0.132841,-0.310839,-0.0534813,0.597041,0.00566156,-2.99527,-1.9666,-3.10116,5.78455,3.26061,-18.5526,-0.128193,10.1015,-0.0689892,10.4077,-27.9376,-0.262946,6.21421,0.0632584,0.15886,-0.0503298,0.177475,-2.13928,0.353164,0.36373,-0.0843732,0.282266,0.0938994,0.285479,-0.790068,-0.138868,1.2785,0.000346282,0,0,0,0,0,0,0,0.66608,-36.5178,-0.0387439,28.3237,2.8598,2.00493,0.110886,
0.165566,-0.0463281,0.184394,-2.15361,0.349481,0.383793,-0.0842052,0.128571,0.0372976,0.132403,-0.307106,-0.0507346,0.556124,0.00534513,-0.238683,2.61128,-0.273772,2.33316,1.71668,-25.5728,-0.197771,9.8919,-0.0774517,10.192,-27.2381,-0.244408,5.93326,0.0602922,0.15886,-0.0503298,0.177475,-2.13928,0.353164,0.36373,-0.0843732,0.282266,0.0938994,0.285479,-0.790068,-0.138868,1.2785,0.000346282,0,0,0,0,0,0,0,0.66608,-36.5178,-0.0387439,28.3237,2.8598,2.00493,0.110886,
0.1665,-0.0460053,0.185355,-2.15582,0.349221,0.386843,-0.0841719,0.126222,0.037908,0.129935,-0.300906,-0.0470791,0.521155,0.00510797,-1.46785,0.381544,-1.54212,3.87488,2.28471,-21.8561,-0.14822,9.68244,-0.0865548,9.97643,-26.5376,-0.232383,5.66962,0.0574511,0.15886,-0.0503298,0.177475,-2.13928,0.353164,0.36373,-0.0843732,0.282266,0.0938994,0.285479,-0.790068,-0.138868,1.2785,0.000346282,0,0,0,0,0,0,0,0.66608,-36.5178,-0.0387439,28.3237,2.8598,2.00493,0.110886,
0.167372,-0.0457635,0.18625,-2.15791,0.348987,0.38983,-0.0841388,0.122762,0.0363734,0.126327,-0.293134,-0.04351,0.491613,0.00491458,-2.16243,-0.959123,-2.25524,4.85793,2.23071,-18.4636,-0.120869,9.52136,-0.325819,9.79475,-25.7418,-0.133136,5.34302,0.0544114,0.167474,-0.0474443,0.18663,-2.16407,0.35016,0.401389,-0.0843728,0.270306,0.0692786,0.213284,-0.726429,-0.0663447,1.01681,0.000768267,-1.49504,-3.07759,-9.02436,7.95482,9.06546,-32.7119,0.0527481,0.66608,-35.4427,-0.0387439,27.55,1.8637,2.19079,0.0779268,
0.168193,-0.0455821,0.187093,-2.15991,0.34876,0.392764,-0.0841062,0.118732,0.0336318,0.122138,-0.284398,-0.0405048,0.466625,0.00474663,-2.51884,-1.71352,-2.61826,5.45984,1.87821,-15.6176,-0.104969,9.3125,-0.335759,9.57989,-25.0381,-0.133308,5.11196,0.0518475,0.167474,-0.0474443,0.18663,-2.16407,0.35016,0.401389,-0.0843728,0.270306,0.0692786,0.213284,-0.726429,-0.0663447,1.01681,0.000768267,0,0,0,0,0,0,0,0.66608,-35.4427,-0.0387439,27.55,1.8637,2.19079,0.0779268,
0.173402,-0.0440174,0.192726,-2.17704,0.347253,0.416255,-0.0842182,0.117906,0.0363239,0.12124,-0.279846,-0.0398514,0.433152,0.00450263,-0.516251,1.68256,-0.560964,2.84534,0.408368,-20.9206,-0.152504,9.10397,-0.345908,9.36539,-24.3325,-0.138977,4.89616,0.049405,0.167474,-0.0474443,0.18663,-2.16407,0.35016,0.401389,-0.0843728,0.270306,0.0692786,0.213284,-0.726429,-0.0663447,1.01681,0.000768267,0,0,0,0,0,0,0,0.66608,-35.4427,-0.0387439,27.55,1.8637,2.19079,0.0779268,
0.174249,-0.0437358,0.193595,-2.17901,0.346984,0.418627,-0.0841893,0.115496,0.0360999,0.118714,-0.273085,-0.0386075,0.405817,0.00432443,-1.50612,-0.139981,-1.57915,4.22518,0.77744,-17.0846,-0.11137,8.89607,-0.356564,9.15159,-23.6251,-0.151616,4.69403,0.0471612,0.167474,-0.0474443,0.18663,-2.16407,0.35016,0.401389,-0.0843728,0.270306,0.0692786,0.213284,-0.726429,-0.0663447,1.01681,0.000768267,0,0,0,0,0,0,0,0.66608,-35.4427,-0.0387439,27.55,1.8637,2.19079,0.0779268,
0.175041,-0.0435253,0.194407,-2.18087,0.346718,0.420988,-0.0841603,0.112192,0.0341413,0.115271,-0.264929,-0.0375547,0.383694,0.00418453,-2.06533,-1.22414,-2.15131,5.09772,0.658004,-13.8267,-0.0874406,8.72582,-0.600939,8.96776,-22.819,-0.108038,4.44796,0.0449798,0.175043,-0.0453885,0.195532,-2.18658,0.348301,0.431333,-0.0843764,0.17654,0.0308441,0.278927,-0.637313,-0.0211136,0.829982,0.00134686,-11.7208,-4.80431,8.20541,11.1394,5.65388,-23.3532,0.0723247,0.463749,-32.5227,-0.260912,26.1575,1.19171,2.07818,0.0706026,
0.180645,-0.0429008,0.201289,-2.19784,0.346065,0.442942,-0.0842435,0.111304,0.0341544,0.114292,-0.257074,-0.0371403,0.354848,0.00396568,-0.554593,0.0081501,-0.612013,4.90914,0.258991,-18.0289,-0.136782,8.31427,-0.623818,8.5447,-21.3935,-0.163596,4.1068,0.0413434,0.175043,-0.0453885,0.195532,-2.18658,0.348301,0.431333,-0.0843764,0.17654,0.0308441,0.278927,-0.637313,-0.0211136,0.829982,0.00134686,0,0,0,0,0,0,0,0.463749,-32.5227,-0.260912,26.1575,1.19171,2.07818,0.0706026,
0.181438,-0.0426996,0.202101,-2.19953,0.345774,0.444865,-0.0842176,0.108852,0.0323535,0.111719,-0.247962,-0.0369708,0.331953,0.00381909,-1.53271,-1.12552,-1.60855,5.69486,0.105937,-14.309,-0.0916188,8.11079,-0.635858,8.33556,-20.6778,-0.200356,3.95236,0.0398134,0.175043,-0.0453885,0.195532,-2.18658,0.348301,0.431333,-0.0843764,0.17654,0.0308441,0.278927,-0.637313,-0.0211136,0.829982,0.00134686,0,0,0,0,0,0,0,0.463749,-32.5227,-0.260912,26.1575,1.19171,2.07818,0.0706026,
0.182175,-0.0425531,0.202855,-2.20113,0.34546,0.446798,-0.0841911,0.105509,0.0295473,0.108243,-0.238147,-0.0374292,0.313878,0.00371782,-2.08936,-1.75386,-2.1724,6.13498,-0.286459,-11.2968,-0.0632932,7.90957,-0.648075,8.12868,-19.96,-0.241262,3.80751,0.0384428,0.175043,-0.0453885,0.195532,-2.18658,0.348301,0.431333,-0.0843764,0.17654,0.0308441,0.278927,-0.637313,-0.0211136,0.829982,0.00134686,0,0,0,0,0,0,0,0.463749,-32.5227,-0.260912,26.1575,1.19171,2.07818,0.0706026,
0.182867,-0.0424482,0.203564,-2.20262,0.345115,0.448732,-0.0841643,0.10171,0.0262599,0.104309,-0.227988,-0.0385662,0.29945,0.00364551,-2.37454,-2.05465,-2.45848,6.34898,-0.710632,-9.01745,-0.0451914,7.71144,-0.660786,7.92495,-19.2407,-0.286696,3.67032,0.0372857,0.175043,-0.0453885,0.195532,-2.18658,0.348301,0.431333,-0.0843764,0.17654,0.0308441,0.278927,-0.637313,-0.0211136,0.829982,0.00134686,0,0,0,0,0,0,0,0.463749,-32.5227,-0.260912,26.1575,1.19171,2.07818,0.0706026,
0.19038,-0.0407653,0.207317,-2.21658,0.345407,0.462946,-0.0842692,0.102422,0.0274481,0.104943,-0.221781,-0.0388356,0.274097,0.00349308,0.445119,0.742636,0.395887,3.87972,-0.168372,-15.8462,-0.0952687,7.5156,-0.812587,7.71066,-18.384,-0.281766,3.5259,0.0362284,0.184748,-0.0432138,0.201549,-2.2066,0.347403,0.454729,-0.084379,0.175311,0.0547983,0.297104,-0.552687,-0.0117099,0.648833,0.000583453,-0.153573,2.99426,2.27216,10.5783,1.17547,-22.6436,-0.0954265,-0.500302,-33.7209,-0.76079,26.0544,1.0086,1.89232,0.0907442,
0.191144,-0.0405787,0.208098,-2.21804,0.345068,0.464364,-0.0842443,0.101055,0.0266246,0.103469,-0.21396,-0.039529,0.254733,0.0034151,-0.854428,-0.514674,-0.921021,4.88768,-0.433377,-12.1024,-0.0487383,7.32636,-0.825807,7.51582,-17.6626,-0.330036,3.39926,0.0354501,0.184748,-0.0432138,0.201549,-2.2066,0.347403,0.454729,-0.084379,0.175311,0.0547983,0.297104,-0.552687,-0.0117099,0.648833,0.000583453,0,0,0,0,0,0,0,-0.500302,-33.7209,-0.76079,26.0544,1.0086,1.89232,0.0907442,
0.191848,-0.0404456,0.208816,-2.2194,0.344707,0.46581,-0.0842185,0.0984278,0.024625,0.100724,-0.205148,-0.0406453,0.239933,0.00337684,-1.64203,-1.24975,-1.7158,5.50798,-0.697674,-9.2496,-0.0239148,7.14316,-0.838968,7.32699,-16.9407,-0.376406,3.27496,0.0348827,0.184748,-0.0432138,0.201549,-2.2066,0.347403,0.454729,-0.084379,0.175311,0.0547983,0.297104,-0.552687,-0.0117099,0.648833,0.000583453,0,0,0,0,0,0,0,-0.500302,-33.7209,-0.76079,26.0544,1.0086,1.89232,0.0907442,
0.192502,-0.0403537,0.209483,-2.22067,0.344325,0.467266,-0.0841918,0.0950889,0.0219979,0.0972649,-0.195762,-0.0420713,0.228349,0.00337133,-2.08681,-1.64197,-2.16172,5.86616,-0.891254,-7.24006,-0.00344072,6.96686,-0.852216,7.145,-16.2194,-0.418731,3.15005,0.0344938,0.184748,-0.0432138,0.201549,-2.2066,0.347403,0.454729,-0.084379,0.175311,0.0547983,0.297104,-0.552687,-0.0117099,0.648833,0.000583453,0,0,0,0,0,0,0,-0.500302,-33.7209,-0.76079,26.0544,1.0086,1.89232,0.0907442,
0.190214,-0.0406468,0.207145,-2.21558,0.344915,0.460964,-0.0842687,0.0960198,0.024289,0.0981609,-0.190529,-0.0433077,0.205826,0.00330758,0.581833,1.43195,0.559998,3.27064,-0.772745,-14.0768,-0.0398451,6.7449,-1.03693,6.90394,-15.3814,-0.416077,3.01489,0.0343919,0.191426,-0.0407897,0.210156,-2.22388,0.346846,0.473619,-0.0843831,0.32208,0.0973683,0.105949,-0.458036,-0.0113286,0.490186,0.000529108,18.3462,5.32126,-23.8944,11.8314,0.0476604,-19.8309,-0.00679305,-2.50378,-35.0459,-3.01024,28.7958,0.538937,2.65496,0.0843355,
0.190932,-0.040454,0.207877,-2.21682,0.344542,0.46191,-0.0842414,0.0947633,0.0242519,0.0968309,-0.183447,-0.043984,0.188302,0.00332875,-0.785317,-0.0231646,-0.831282,4.42581,-0.422692,-10.9528,0.0132312,6.58367,-1.04913,6.73683,-14.6638,-0.441295,2.8813,0.0345245,0.191426,-0.0407897,0.210156,-2.22388,0.346846,0.473619,-0.0843831,0.32208,0.0973683,0.105949,-0.458036,-0.0113286,0.490186,0.000529108,0,0,0,0,0,0,0,-2.50378,-35.0459,-3.01024,28.7958,0.538937,2.65496,0.0843355,
0.191586,-0.0403179,0.208544,-2.21796,0.344182,0.462867,-0.0842148,0.0921605,0.0228037,0.0941351,-0.175235,-0.0441812,0.174576,0.00332781,-1.62677,-0.905149,-1.68485,5.13301,-0.123258,-8.57877,-0.000590149,6.42876,-1.06063,6.57595,-13.9501,-0.453416,2.7397,0.0345224,0.191426,-0.0407897,0.210156,-2.22388,0.346846,0.473619,-0.0843831,0.32208,0.0973683,0.105949,-0.458036,-0.0113286,0.490186,0.000529108,0,0,0,0,0,0,0,-2.50378,-35.0459,-3.01024,28.7958,0.538937,2.65496,0.0843355,
0.19637,-0.0380713,0.215175,-2.23157,0.344702,0.477092,-0.0842603,0.0917098,0.024896,0.0936078,-0.168588,-0.044476,0.151101,0.00339411,-0.281657,1.30768,-0.329554,4.15394,-0.18427,-14.672,0.0414386,6.14606,-1.07656,6.28196,-12.5382,-0.456525,2.43384,0.0369421,0.191426,-0.0407897,0.210156,-2.22388,0.346846,0.473619,-0.0843831,0.32208,0.0973683,0.105949,-0.458036,-0.0113286,0.490186,0.000529108,0,0,0,0,0,0,0,-2.50378,-35.0459,-3.01024,28.7958,0.538937,2.65496,0.0843355,
0.197016,-0.0378813,0.215832,-2.2326,0.344334,0.477632,-0.0842198,0.089536,0.0246672,0.0913289,-0.16057,-0.0447957,0.134378,0.00372796,-1.35863,-0.142975,-1.42434,5.01111,-0.199803,-10.4516,0.208658,5.99543,-1.25891,6.11591,-11.7504,-0.402849,2.25032,0.0386273,0.197974,-0.0387714,0.218258,-2.2385,0.346344,0.488651,-0.0843823,0.157668,0.0737656,0.232614,-0.368111,-0.00234334,0.362023,0.000632297,-20.5516,-2.95034,15.8332,11.2405,1.12316,-16.0203,0.0128986,-1.05969,-34.2961,-1.8875,27.2525,0.324703,2.27044,0.0779268,
0.197597,-0.0377513,0.216423,-2.23354,0.344037,0.478254,-0.0841991,0.0861573,0.0229824,0.0878273,-0.15194,-0.0432512,0.123058,0.00349999,-2.11172,-1.05303,-2.18848,5.3942,0.965287,-7.0752,-0.142483,5.81645,-1.26702,5.93057,-11.0773,-0.364396,2.07966,0.0365452,0.197974,-0.0387714,0.218258,-2.2385,0.346344,0.488651,-0.0843823,0.157668,0.0737656,0.232614,-0.368111,-0.00234334,0.362023,0.000632297,0,0,0,0,0,0,0,-1.05969,-34.2961,-1.8875,27.2525,0.324703,2.27044,0.0779268,
0.198136,-0.0376618,0.216971,-2.23439,0.34359,0.479036,-0.0841843,0.0823932,0.0206238,0.0839593,-0.142894,-0.0457678,0.117994,0.00316944,-2.35252,-1.47413,-2.4175,5.65344,-1.57287,-3.16517,-0.206591,5.65436,-1.25286,5.76725,-10.404,-0.422351,1.95448,0.0356998,0.197974,-0.0387714,0.218258,-2.2385,0.346344,0.488651,-0.0843823,0.157668,0.0737656,0.232614,-0.368111,-0.00234334,0.362023,0.000632297,0,0,0,0,0,0,0,-1.05969,-34.2961,-1.8875,27.2525,0.324703,2.27044,0.0779268,
0.202461,-0.0367304,0.222827,-2.24463,0.344445,0.49103,-0.0842743,0.0821387,0.0212372,0.083633,-0.136649,-0.0473907,0.105953,0.00297453,-0.159077,0.383383,-0.20397,3.90345,-1.01428,-7.52516,-0.121818,5.5088,-1.23738,5.618,-9.75306,-0.445496,1.89012,0.0417319,0.197974,-0.0387714,0.218258,-2.2385,0.346344,0.488651,-0.0843823,0.157668,0.0737656,0.232614,-0.368111,-0.00234334,0.362023,0.000632297,0,0,0,0,0,0,0,-1.05969,-34.2961,-1.8875,27.2525,0.324703,2.27044,0.0779268,
0.203038,-0.0366045,0.223411,-2.24543,0.344067,0.491549,-0.0842544,0.0801178,0.0201375,0.081511,-0.12924,-0.0473749,0.0977173,0.00287545,-1.26305,-0.687326,-1.32625,4.63039,0.00984429,-5.14743,-0.0619257,5.28909,-1.39294,5.38408,-9.00076,-0.422678,1.87035,0.0544484,0.204681,-0.0374056,0.223963,-2.25011,0.345634,0.496675,-0.0843831,0.0763555,0.022898,0.277201,-0.295202,-0.0159062,0.183643,0.000284816,-10.164,-6.35845,5.57337,9.11366,-1.69535,-22.2976,-0.0434351,-0.730404,-32.9472,-1.28844,25.2332,0.471188,2.5158,0.0843355,
0.203555,-0.0365274,0.223935,-2.24614,0.343748,0.492085,-0.0842408,0.0770184,0.018038,0.0783063,-0.121112,-0.0458751,0.0915908,0.00264007,-1.93713,-1.31216,-2.00289,5.08025,0.937396,-3.8291,-0.147117,4.8624,-1.481,4.94193,-8.39462,-0.216369,1.8205,0.0297797,0.204681,-0.0374056,0.223963,-2.25011,0.345634,0.496675,-0.0843831,0.0763555,0.022898,0.277201,-0.295202,-0.0159062,0.183643,0.000284816,0,0,0,0,0,0,0,-0.730404,-32.9472,-1.28844,25.2332,0.471188,2.5158,0.0843355,
0.20403,-0.0364856,0.224417,-2.24676,0.343333,0.492632,-0.0842274,0.0734968,0.015476,0.074693,-0.112414,-0.0470698,0.0869349,0.0024475,-2.20099,-1.60124,-2.25836,5.43637,-0.746721,-2.90995,-0.120356,4.68407,-1.46534,4.78363,-7.70986,-0.745959,2.10086,0.0158334,0.204681,-0.0374056,0.223963,-2.25011,0.345634,0.496675,-0.0843831,0.0763555,0.022898,0.277201,-0.295202,-0.0159062,0.183643,0.000284816,0,0,0,0,0,0,0,-0.730404,-32.9472,-1.28844,25.2332,0.471188,2.5158,0.0843355,
0.208789,-0.0362836,0.228143,-2.25484,0.343805,0.497178,-0.084313,0.0735475,0.0148297,0.0746768,-0.106143,-0.0462818,0.0725954,0.00246296,0.0316559,-0.40396,-0.0101131,3.91913,0.492501,-8.96216,0.00966247,4.69803,-1.49829,4.78122,-7.17166,-0.649857,1.93665,0.0258905,0.204681,-0.0374056,0.223963,-2.25011,0.345634,0.496675,-0.0843831,0.0763555,0.022898,0.277201,-0.295202,-0.0159062,0.183643,0.000284816,0,0,0,0,0,0,0,-0.730404,-32.9472,-1.28844,25.2332,0.471188,2.5158,0.0843355,
0.209307,-0.0362285,0.228666,-2.25541,0.343576,0.497328,-0.0842891,0.0717866,0.0132411,0.072824,-0.0990921,-0.0427516,0.0618225,0.00256813,-1.10055,-0.99287,-1.15796,4.40677,2.20637,-6.73305,0.0657336,4.5398,-1.65714,4.6025,-6.56722,-0.396404,1.71262,0.0298651,0.210988,-0.0366978,0.228626,-2.25928,0.344774,0.502415,-0.0843815,0.134394,-0.000395212,0.170446,-0.255084,-0.0147003,0.155933,0.00113998,7.25482,-2.91165,-13.3444,5.0148,0.150728,-3.4637,0.106895,-1.84521,-31.3246,-1.9113,26.2289,0.471188,2.78771,0.0706026,
0.209767,-0.0362067,0.229131,-2.2559,0.343455,0.497505,-0.0842696,0.0689235,0.0111358,0.0698742,-0.0916927,-0.0372294,0.0538862,0.00254055,-1.78943,-1.31582,-1.84362,4.62463,3.4514,-4.96022,-0.0172369,4.37203,-1.67547,4.42929,-6.03836,-0.290343,1.50406,0.02096,0.210988,-0.0366978,0.228626,-2.25928,0.344774,0.502415,-0.0843815,0.134394,-0.000395212,0.170446,-0.255084,-0.0147003,0.155933,0.00113998,0,0,0,0,0,0,0,-1.84521,-31.3246,-1.9113,26.2289,0.471188,2.78771,0.0706026,
0.214541,-0.0360251,0.23222,-2.26284,0.343174,0.502215,-0.0842845,0.0677939,0.0100753,0.068671,-0.0849682,-0.0349725,0.0445927,0.00255894,-0.706004,-0.662829,-0.752028,4.20276,1.41058,-5.80843,0.0114922,4.21126,-1.61835,4.26684,-4.91527,-0.685023,1.39125,0.0309579,0.210988,-0.0366978,0.228626,-2.25928,0.344774,0.502415,-0.0843815,0.134394,-0.000395212,0.170446,-0.255084,-0.0147003,0.155933,0.00113998,0,0,0,0,0,0,0,-1.84521,-31.3246,-1.9113,26.2289,0.471188,2.78771,0.0706026,
0.214982,-0.0360128,0.232664,-2.26324,0.343165,0.502314,-0.0842609,0.065256,0.00836783,0.0660443,-0.0779723,-0.028217,0.0381499,0.00263678,-1.5862,-1.06714,-1.64169,4.37243,4.22216,-4.02671,0.04865,3.98591,-1.60951,4.02211,-4.40546,-0.342264,1.17732,0.0373268,0.210988,-0.0366978,0.228626,-2.25928,0.344774,0.502415,-0.0843815,0.134394,-0.000395212,0.170446,-0.255084,-0.0147003,0.155933,0.00113998,0,0,0,0,0,0,0,-1.84521,-31.3246,-1.9113,26.2289,0.471188,2.78771,0.0706026,
0.215368,-0.03603,0.233054,-2.26358,0.343354,0.502422,-0.0842467,0.061872,0.00626401,0.0625806,-0.0709378,-0.0178574,0.0332293,0.00246426,-2.11501,-1.31489,-2.1648,4.39656,6.47479,-3.07537,-0.107822,3.73534,-1.74059,3.76756,-3.84984,-0.189236,1.10166,0.030052,0.215224,-0.0358517,0.234424,-2.26613,0.34393,0.50569,-0.0843894,0.240119,0.0522862,0.0318872,-0.156093,0.0015289,0.0469657,0.00095352,13.2156,6.58518,-17.3198,12.3738,2.02866,-13.6209,-0.0233075,-2.32922,-32.7489,-2.68492,27.1771,0.593868,3.09258,0.0843355,
0.215718,-0.0360715,0.233407,-2.26385,0.343494,0.502561,-0.0842356,0.0582477,0.00397331,0.0588889,-0.0636033,-0.0107764,0.030062,0.00224877,-2.26514,-1.43169,-2.30731,4.58408,4.42561,-1.97961,-0.134683,3.57,-1.74536,3.61627,-3.36644,-0.536835,1.26367,0.0219845,0.215224,-0.0358517,0.234424,-2.26613,0.34393,0.50569,-0.0843894,0.240119,0.0522862,0.0318872,-0.156093,0.0015289,0.0469657,0.00095352,0,0,0,0,0,0,0,-2.32922,-32.7489,-2.68492,27.1771,0.593868,3.09258,0.0843355,
0.218777,-0.0356311,0.23797,-2.26819,0.341641,0.507576,-0.0854583,0.0553616,-0.00057317,0.0559123,-0.053338,-0.0166664,0.0400394,0.00223527,-1.80381,-2.84155,-1.86037,6.41582,-3.68128,6.23593,-0.00843888,3.33742,-1.78709,3.35573,-2.59233,-1.43255,2.0751,-0.00950449,0.215224,-0.0358517,0.234424,-2.26613,0.34393,0.50569,-0.0843894,0.240119,0.0522862,0.0318872,-0.156093,0.0015289,0.0469657,0.00095352,0,0,0,0,0,0,0,-2.32922,-32.7489,-2.68492,27.1771,0.593868,3.09258,0.0843355,
0.219073,-0.0358039,0.238267,-2.26824,0.341366,0.508249,-0.0853432,0.0516815,-0.0047782,0.0521482,-0.0440039,-0.0201927,0.0488682,0.00466471,-2.30011,-2.62814,-2.35257,5.83379,-2.2039,5.51797,1.5184,3.15196,-1.85287,3.16413,-2.22111,-1.22854,1.86739,-0.60236,0.215224,-0.0358517,0.234424,-2.26613,0.34393,0.50569,-0.0843894,0.240119,0.0522862,0.0318872,-0.156093,0.0015289,0.0469657,0.00095352,0,0,0,0,0,0,0,-2.32922,-32.7489,-2.68492,27.1771,0.593868,3.09258,0.0843355,
0.219323,-0.0360075,0.238516,-2.26824,0.341354,0.509232,-0.0849253,0.0475884,-0.00891221,0.0479554,-0.0350714,-0.0164538,0.0636566,0.0141806,-2.55818,-2.58376,-2.62047,5.58281,2.33682,9.24276,5.94745,3.02559,-1.93921,3.05084,-1.77622,-1.39366,1.76505,-0.630391,0.218314,-0.0353007,0.239718,-2.27108,0.343204,0.507043,-0.0843853,0.0800508,0.00465366,0.123828,-0.114495,-0.0229705,0.0257652,-9.44525e-05,-20.0085,-5.95407,11.4925,5.19975,-3.06242,-2.65006,-0.130997,-1.23822,-33.098,-2.08586,26.5781,1.11297,3.05321,0.0577852,
0.219515,-0.0362412,0.238707,-2.26819,0.341517,0.510025,-0.0844208,0.0428777,-0.0129719,0.0431226,-0.0267775,-0.0090934,0.0707579,0.0239565,-2.94418,-2.53732,-3.02056,5.1837,4.60022,4.43831,6.10991,2.99798,-1.93848,3.00169,-1.4631,-0.700252,1.41825,-0.0413131,0.218314,-0.0353007,0.239718,-2.27108,0.343204,0.507043,-0.0843853,0.0800508,0.00465366,0.123828,-0.114495,-0.0229705,0.0257652,-9.44525e-05,0,0,0,0,0,0,0,-1.23822,-33.098,-2.08586,26.5781,1.11297,3.05321,0.0577852,
0.220945,-0.0366856,0.242329,-2.27054,0.340319,0.513193,-0.0752764,0.042686,-0.0237072,0.0427355,-0.0140756,-0.0283703,0.0261872,0.0506413,-0.119829,-6.70954,-0.241923,7.93871,-12.048,-27.8567,16.678,3.3037,-1.99441,3.29294,-1.0602,-1.56927,1.79736,2.18775,0.218314,-0.0353007,0.239718,-2.27108,0.343204,0.507043,-0.0843853,0.0800508,0.00465366,0.123828,-0.114495,-0.0229705,0.0257652,-9.44525e-05,0,0,0,0,0,0,0,-1.23822,-33.098,-2.08586,26.5781,1.11297,3.05321,0.0577852,
0.221292,-0.0371779,0.242666,-2.27038,0.339567,0.513264,-0.0735675,0.042811,-0.031273,0.0426091,-0.00725969,-0.041501,0.0227339,0.0832349,0.0781244,-4.72862,-0.0790088,4.25993,-8.20672,-2.1583,20.371,3.19863,-1.87989,3.18712,-0.68267,-1.53592,1.61939,2.76727,0.218314,-0.0353007,0.239718,-2.27108,0.343204,0.507043,-0.0843853,0.0800508,0.00465366,0.123828,-0.114495,-0.0229705,0.0257652,-9.44525e-05,0,0,0,0,0,0,0,-1.23822,-33.098,-2.08586,26.5781,1.11297,3.05321,0.0577852,
0.221648,-0.0378808,0.243013,-2.26974,0.338837,0.517181,-0.068805,0.0431581,-0.0425913,0.0427587,0.00999984,-0.0514576,0.116104,0.18565,0.216945,-7.07395,0.09353,10.7872,-6.22287,58.3562,64.0094,3.1284,-1.77508,3.10133,-0.304258,-2.03776,1.72495,3.70478,0.218314,-0.0353007,0.239718,-2.27108,0.343204,0.507043,-0.0843853,0.0800508,0.00465366,0.123828,-0.114495,-0.0229705,0.0257652,-9.44525e-05,0,0,0,0,0,0,0,-1.23822,-33.098,-2.08586,26.5781,1.11297,3.05321,0.0577852,
0.221943,-0.0385099,0.243301,-2.26918,0.338239,0.519853,-0.0642161,0.0419078,-0.0498019,0.0414062,0.022019,-0.0561042,0.159675,0.263243,-0.781407,-4.50663,-0.845336,7.51198,-2.90415,27.2322,48.4956,3.13728,-1.74624,3.09906,-0.257357,-1.98768,2.07278,2.37445,0.222488,-0.0351822,0.242378,-2.27423,0.34111,0.509885,-0.0846158,0.0108623,-0.0047927,0.1711,-0.0624289,-0.00822549,0.0663912,0.0163955,-8.64856,-1.18079,5.90911,6.50827,1.84313,5.07825,2.06124,-0.881161,-31.9515,-1.10991,26.7288,1.25305,2.96715,0.0907442,
0.227365,-0.0387966,0.247119,-2.26655,0.326937,0.543603,-0.0394715,0.060528,-0.0646046,0.0591396,0.0448412,-0.152755,0.269571,0.469965,11.6376,-9.25167,11.0834,14.2639,-60.4065,68.6844,129.201,5.68409,3.94358,5.70687,4.54189,-9.67761,3.33907,11.9966,0.222488,-0.0351822,0.242378,-2.27423,0.34111,0.509885,-0.0846158,0.0108623,-0.0047927,0.1711,-0.0624289,-0.00822549,0.0663912,0.0163955,0,0,0,0,0,0,0,-0.881161,-31.9515,-1.10991,26.7288,1.25305,2.96715,0.0907442,
0.228426,-0.0396812,0.248155,-2.26582,0.321449,0.549494,-0.0296883,0.0749444,-0.0737973,0.073215,0.0543533,-0.259394,0.36292,0.62055,9.01022,-5.74543,8.79711,5.94503,-66.6497,58.3431,94.1159,5.8184,3.54755,5.86544,5.29379,-9.79696,2.97358,11.9966,0.222488,-0.0351822,0.242378,-2.27423,0.34111,0.509885,-0.0846158,0.0108623,-0.0047927,0.1711,-0.0624289,-0.00822549,0.0663912,0.0163955,0,0,0,0,0,0,0,-0.881161,-31.9515,-1.10991,26.7288,1.25305,2.96715,0.0907442,
0.229389,-0.0403254,0.249114,-2.2654,0.315607,0.556581,-0.0283192,0.084023,-0.075142,0.082542,0.0538897,-0.353582,0.467511,0.530669,5.67417,-0.840464,5.82937,-0.289704,-58.8673,65.3694,-56.1758,7.20852,1.90958,7.19616,4.97755,-12.186,3.99219,11.9966,0.222488,-0.0351822,0.242378,-2.27423,0.34111,0.509885,-0.0846158,0.0108623,-0.0047927,0.1711,-0.0624289,-0.00822549,0.0663912,0.0163955,0,0,0,0,0,0,0,-0.881161,-31.9515,-1.10991,26.7288,1.25305,2.96715,0.0907442,
0.230232,-0.0407333,0.249958,-2.26508,0.309941,0.564212,-0.0263155,0.0883048,-0.0703111,0.0871255,0.0511729,-0.424508,0.564791,0.474627,2.67608,3.01932,2.86468,-1.69802,-44.3288,60.8004,-35.0259,7.8082,-0.587244,7.95486,3.87001,-13.0453,6.89902,11.9967,0.225565,-0.0351012,0.244655,-2.27505,0.336768,0.51329,-0.0704973,0.0313913,0.011248,0.116577,-0.00585256,-0.151383,0.203507,0.559415,2.56612,2.00509,-6.81546,7.07204,-17.8947,17.1394,67.8774,0.463749,-33.225,0.361952,28.7958,0.452877,4.58489,0.285752,
0.229983,-0.0381572,0.248943,-2.27035,0.321648,0.520109,-0.0380383,0.0925927,-0.0798821,0.0908319,0.0574974,-0.428119,0.394445,0.492514,2.67993,-5.98186,2.31649,3.95284,-2.2568,-106.466,11.1791,7.32984,1.23514,7.4837,5.62228,-10.214,9.5611,11.9967,0.225565,-0.0351012,0.244655,-2.27505,0.336768,0.51329,-0.0704973,0.0313913,0.011248,0.116577,-0.00585256,-0.151383,0.203507,0.559415,0,0,0,0,0,0,0,0.463749,-33.225,0.361952,28.7958,0.452877,4.58489,0.285752,
0.230856,-0.0390473,0.249785,-2.26985,0.31817,0.517893,-0.0339584,0.0958793,-0.086156,0.0937357,0.0584416,-0.429436,0.260166,0.496009,2.05412,-3.92122,1.81487,0.590069,-0.823221,-83.9247,2.18461,6.37121,2.79012,6.48748,4.58318,-13.0773,10.7669,11.9967,0.225565,-0.0351012,0.244655,-2.27505,0.336768,0.51329,-0.0704973,0.0313913,0.011248,0.116577,-0.00585256,-0.151383,0.203507,0.559415,0,0,0,0,0,0,0,0.463749,-33.225,0.361952,28.7958,0.452877,4.58489,0.285752,
0.231685,-0.0400035,0.250586,-2.26936,0.314633,0.51387,-0.0312304,0.0974428,-0.0928311,0.0949933,0.0589054,-0.431982,0.107547,0.465006,0.977189,-4.17193,0.786048,0.28992,-1.59108,-95.3863,-19.3769,5.76983,3.03682,5.87509,3.6512,-13.4982,10.7669,1.28246,0.225565,-0.0351012,0.244655,-2.27505,0.336768,0.51329,-0.0704973,0.0313913,0.011248,0.116577,-0.00585256,-0.151383,0.203507,0.559415,0,0,0,0,0,0,0,0.463749,-33.225,0.361952,28.7958,0.452877,4.58489,0.285752,
0.232516,-0.0409304,0.251388,-2.26899,0.311164,0.50984,-0.0291783,0.0987346,-0.0974382,0.09606,0.0563621,-0.432307,-0.014708,0.423307,0.807418,-2.87941,0.666638,-1.58961,-0.203232,-76.4097,-26.0619,4.68189,3.50788,4.74253,3.24296,-12.3129,10.3643,2.54206,0.227838,-0.0352916,0.249533,-2.27395,0.30606,0.534413,-0.021249,0.189567,-0.0262445,0.0907733,0.0370521,-1.45245,0.851208,2.19915,19.772,-4.68656,-3.22543,5.36308,-162.633,80.9627,204.967,4.18903,-32.6497,4.41255,28.772,-2.12433,6.52032,0.185044,
0.230608,-0.0405675,0.252287,-2.27004,0.272611,0.512483,0.0351095,0.0929265,-0.104563,0.0909644,0.0564096,-0.463066,-0.0916808,0.590379,-3.63005,-4.45302,-3.18473,0.0297421,-19.2244,-48.108,104.42,3.22076,2.0688,3.4114,7.87861,-12.518,10.3643,11.9992,0.227838,-0.0352916,0.249533,-2.27395,0.30606,0.534413,-0.021249,0.189567,-0.0262445,0.0907733,0.0370521,-1.45245,0.851208,2.19915,0,0,0,0,0,0,0,4.18903,-32.6497,4.41255,28.772,-2.12433,6.52032,0.185044,
0.231176,-0.0414923,0.252863,-2.26965,0.268532,0.509879,0.0448044,0.0885233,-0.106771,0.0871749,0.0547612,-0.472438,-0.138433,0.714675,-2.75204,-1.38018,-2.36844,-1.03025,-5.85777,-29.2204,77.6853,2.91679,1.37187,3.10315,7.7168,-11.266,10.3643,11.4814,0.227838,-0.0352916,0.249533,-2.27395,0.30606,0.534413,-0.021249,0.189567,-0.0262445,0.0907733,0.0370521,-1.45245,0.851208,2.19915,0,0,0,0,0,0,0,4.18903,-32.6497,4.41255,28.772,-2.12433,6.52032,0.185044,
0.231694,-0.0425724,0.253373,-2.26908,0.264954,0.505351,0.0528915,0.0837753,-0.112418,0.0824821,0.0582733,-0.467389,-0.223953,0.773918,-2.9675,-3.52924,-2.93299,2.19501,3.15587,-53.45,37.0266,3.07209,0.985718,3.26428,7.58694,-11.3011,10.3113,8.90324,0.227838,-0.0352916,0.249533,-2.27395,0.30606,0.534413,-0.021249,0.189567,-0.0262445,0.0907733,0.0370521,-1.45245,0.851208,2.19915,0,0,0,0,0,0,0,4.18903,-32.6497,4.41255,28.772,-2.12433,6.52032,0.185044,
0.232185,-0.0438276,0.253848,-2.26847,0.261701,0.499133,0.0592926,0.0792949,-0.121316,0.0778762,0.061841,-0.455243,-0.334611,0.779163,-2.80024,-5.56088,-2.8787,2.22981,7.59111,-69.1612,3.27805,3.38148,0.305047,3.56603,7.43333,-9.52512,9.23988,8.85921,0.233016,-0.0357654,0.254463,-2.27091,0.270195,0.561255,0.0187078,0.182903,-0.00954454,0.0760242,0.118989,-0.673872,0.531885,-0.231158,-0.833,2.0875,-1.84363,10.2421,97.3222,-39.9154,-303.789,-0.655026,-32.5505,-1.0623,26.9034,0.434567,2.90032,-0.270889,
0.236884,-0.0399823,0.25837,-2.26141,0.238451,0.617247,0.062707,0.0776173,-0.11438,0.0766789,0.0818671,-0.515367,-0.0141789,0.862646,-1.04853,4.33457,-0.74831,12.5163,-37.5777,200.27,52.1769,3.6012,-0.0932859,3.84328,12.1102,-10.5303,7.65122,11.9981,0.233016,-0.0357654,0.254463,-2.27091,0.270195,0.561255,0.0187078,0.182903,-0.00954454,0.0760242,0.118989,-0.673872,0.531885,-0.231158,0,0,0,0,0,0,0,-0.655026,-32.5505,-1.0623,26.9034,0.434567,2.90032,-0.270889,
0.237358,-0.0405795,0.258852,-2.26037,0.233415,0.627089,0.0700091,0.0739562,-0.106433,0.0733913,0.0913437,-0.538202,0.234695,0.872669,-2.28815,4.96714,-2.05471,5.9229,-14.2713,155.546,6.2646,3.75915,-0.915989,3.97813,11.9719,-10.0788,8.21446,11.9981,0.233016,-0.0357654,0.254463,-2.27091,0.270195,0.561255,0.0187078,0.182903,-0.00954454,0.0760242,0.118989,-0.673872,0.531885,-0.231158,0,0,0,0,0,0,0,-0.655026,-32.5505,-1.0623,26.9034,0.434567,2.90032,-0.270889,
0.237784,-0.0411348,0.259283,-2.25954,0.228959,0.636621,0.0721523,0.0698108,-0.099029,0.0694792,0.0939911,-0.541941,0.426059,0.751714,-2.59089,4.62736,-2.4451,1.65463,-2.33742,119.603,-75.5968,4.49502,-0.755272,4.93203,11.3507,-11.4089,9.28235,11.9981,0.233016,-0.0357654,0.254463,-2.27091,0.270195,0.561255,0.0187078,0.182903,-0.00954454,0.0760242,0.118989,-0.673872,0.531885,-0.231158,0,0,0,0,0,0,0,-0.655026,-32.5505,-1.0623,26.9034,0.434567,2.90032,-0.270889,
0.24162,-0.039952,0.263547,-2.25885,0.209396,0.610544,0.0246777,0.0695043,-0.0875607,0.0692052,0.0992765,-0.548219,0.488696,0.687965,-0.191587,7.16766,-0.171214,3.30334,-3.92352,39.1481,-39.8435,6.2181,4.22934,6.27287,9.56603,-8.77317,6.45401,11.979,0.237815,-0.0374549,0.259768,-2.26552,0.237145,0.574157,0.00219807,0.201174,-0.0320721,0.0775986,0.19814,-0.969806,0.308343,0.233508,2.28386,-2.81595,0.196793,9.89389,-36.9918,-27.9428,58.0833,-2.35302,-34.8198,-2.68492,31.2872,0.715634,4.42559,0.339768,
0.242125,-0.0402244,0.264051,-2.25796,0.204934,0.615664,0.0282927,0.0682386,-0.0768593,0.0679683,0.101777,-0.550135,0.518964,0.640747,-0.791063,6.68838,-0.773079,1.56296,-1.19726,18.9172,-29.5109,5.90936,3.61792,5.92109,8.08179,-6.97328,6.20905,9.04002,0.237815,-0.0374549,0.259768,-2.26552,0.237145,0.574157,0.00219807,0.201174,-0.0320721,0.0775986,0.19814,-0.969806,0.308343,0.233508,0,0,0,0,0,0,0,-2.35302,-34.8198,-2.68492,31.2872,0.715634,4.42559,0.339768,
0.242603,-0.040449,0.264527,-2.25712,0.200622,0.619938,0.0318398,0.0665245,-0.067103,0.0662837,0.102426,-0.547898,0.522027,0.601275,-1.07131,6.09769,-1.05291,0.405745,1.39771,1.91453,-24.6704,6.3878,1.60911,6.39245,6.97695,-6.69204,6.03727,2.44197,0.237815,-0.0374549,0.259768,-2.26552,0.237145,0.574157,0.00219807,0.201174,-0.0320721,0.0775986,0.19814,-0.969806,0.308343,0.233508,0,0,0,0,0,0,0,-2.35302,-34.8198,-2.68492,31.2872,0.715634,4.42559,0.339768,
0.243058,-0.0406356,0.264981,-2.25636,0.196596,0.623525,0.0349894,0.0645982,-0.0583479,0.064383,0.100984,-0.538968,0.507291,0.55976,-1.20394,5.47197,-1.18793,-0.901536,5.58145,-9.20972,-25.9467,5.38192,1.20609,5.37189,6.63549,-5.85761,5.89872,2.87166,0.237815,-0.0374549,0.259768,-2.26552,0.237145,0.574157,0.00219807,0.201174,-0.0320721,0.0775986,0.19814,-0.969806,0.308343,0.233508,0,0,0,0,0,0,0,-2.35302,-34.8198,-2.68492,31.2872,0.715634,4.42559,0.339768,
0.241777,-0.0381834,0.26373,-2.26121,0.209643,0.589884,0.0202663,0.0679363,-0.0480114,0.0678466,0.0979555,-0.552457,0.45803,0.550011,2.08635,6.46027,2.16478,-1.89276,-8.43083,-30.7882,-6.09326,5.93078,4.88404,6.03409,6.3974,-8.13536,5.08117,4.41931,0.241526,-0.039003,0.264724,-2.26086,0.204165,0.598496,0.0828064,0.133005,-0.016984,0.10062,0.131475,-0.856898,0.893768,3.12411,-8.52115,1.88601,2.87763,-8.33315,14.1135,73.1782,361.325,0.309024,-29.2299,-0.411669,29.8431,1.54602,4.31298,0.272019,
0.242387,-0.0382126,0.264343,-2.26061,0.20521,0.59173,0.0234085,0.069581,-0.0391386,0.0696076,0.0931596,-0.552789,0.412568,0.518564,1.02791,5.54552,1.10064,-2.99744,-0.207161,-28.4135,-19.6544,6.41483,4.38136,6.51981,5.69003,-7.95292,3.78182,4.55469,0.241526,-0.039003,0.264724,-2.26086,0.204165,0.598496,0.0828064,0.133005,-0.016984,0.10062,0.131475,-0.856898,0.893768,3.12411,0,0,0,0,0,0,0,0.309024,-29.2299,-0.411669,29.8431,1.54602,4.31298,0.272019,
0.242951,-0.038231,0.264911,-2.2601,0.201391,0.593334,0.023397,0.0697781,-0.0317707,0.0699049,0.0873223,-0.537701,0.370167,0.414563,0.123216,4.60496,0.185801,-3.64831,9.42999,-26.5012,-65.0006,6.60123,4.04226,6.69966,5.16162,-7.56604,2.47649,4.46093,0.241526,-0.039003,0.264724,-2.26086,0.204165,0.598496,0.0828064,0.133005,-0.016984,0.10062,0.131475,-0.856898,0.893768,3.12411,0,0,0,0,0,0,0,0.309024,-29.2299,-0.411669,29.8431,1.54602,4.31298,0.272019,
0.24348,-0.0382438,0.265445,-2.25962,0.198025,0.594596,0.0231043,0.0690444,-0.0257375,0.0692563,0.0818707,-0.514317,0.32767,0.324335,-0.458608,3.77071,-0.405406,-3.40729,14.6147,-26.5601,-56.3924,6.56553,3.6598,6.6533,4.73752,-6.92621,1.8128,3.95376,0.241526,-0.039003,0.264724,-2.26086,0.204165,0.598496,0.0828064,0.133005,-0.016984,0.10062,0.131475,-0.856898,0.893768,3.12411,0,0,0,0,0,0,0,0.309024,-29.2299,-0.411669,29.8431,1.54602,4.31298,0.272019,
0.244554,-0.0399127,0.267774,-2.25719,0.181377,0.619843,0.0892962,0.0678184,-0.0249342,0.0680718,0.0804734,-0.497476,0.333997,0.227846,-0.766198,0.50212,-0.740284,-0.873254,10.5258,3.95404,-60.3057,6.53837,2.56312,6.61823,4.4885,-6.80874,3.19551,5.16417,0.245634,-0.0394226,0.269156,-2.25572,0.174953,0.626143,0.0947486,0.0773721,-0.0205193,0.181306,0.170086,-0.810574,0.587821,-1.41828,-6.95408,-0.441901,10.0858,4.82647,5.79053,-38.2434,-567.799,0.919986,-27.8572,0.187391,22.9678,0.538937,1.60119,-0.298355,
0.245032,-0.0400784,0.268255,-2.25665,0.178332,0.622249,0.0885329,0.0661833,-0.0240893,0.0664672,0.0779745,-0.474124,0.327339,0.163195,-1.02195,0.528035,-1.00286,-1.56181,14.5947,-4.16137,-40.4065,7.03409,1.90736,7.09655,4.13329,-5.97518,2.97936,3.90678,0.245634,-0.0394226,0.269156,-2.25572,0.174953,0.626143,0.0947486,0.0773721,-0.0205193,0.181306,0.170086,-0.810574,0.587821,-1.41828,0,0,0,0,0,0,0,0.919986,-27.8572,0.187391,22.9678,0.538937,1.60119,-0.298355,
0.245495,-0.0402333,0.268722,-2.25616,0.175554,0.624349,0.0897934,0.0645408,-0.0231449,0.0648481,0.0745049,-0.448746,0.314367,0.162068,-1.0266,0.590227,-1.01199,-2.16854,15.8617,-8.10758,-0.70489,6.84831,1.42759,6.89067,3.82087,-4.92844,2.67516,-0.136343,0.245634,-0.0394226,0.269156,-2.25572,0.174953,0.626143,0.0947486,0.0773721,-0.0205193,0.181306,0.170086,-0.810574,0.587821,-1.41828,0,0,0,0,0,0,0,0.919986,-27.8572,0.187391,22.9678,0.538937,1.60119,-0.298355,
0.245945,-0.0403772,0.269174,-2.25572,0.173081,0.626187,0.0908304,0.0628719,-0.0221143,0.0631977,0.0705293,-0.420801,0.297448,0.15558,-1.04301,0.64417,-1.03146,-2.48475,17.4654,-10.5744,-4.05496,6.45341,1.03921,6.49745,3.63937,-4.40542,2.07113,-0.349163,0.245634,-0.0394226,0.269156,-2.25572,0.174953,0.626143,0.0947486,0.0773721,-0.0205193,0.181306,0.170086,-0.810574,0.587821,-1.41828,0,0,0,0,0,0,0,0.919986,-27.8572,0.187391,22.9678,0.538937,1.60119,-0.298355,
0.249036,-0.0403091,0.272577,-2.252,0.15579,0.640889,0.0945765,0.0642587,-0.020608,0.0645485,0.0706764,-0.408523,0.287977,0.125469,0.866729,0.941426,0.844223,0.0919403,7.67354,-5.91902,-18.819,6.77111,2.84488,6.79273,4.30098,-5.05121,1.83039,-1.60179,0.245634,-0.0394226,0.269156,-2.25572,0.174953,0.626143,0.0947486,0.0773721,-0.0205193,0.181306,0.170086,-0.810574,0.587821,-1.41828,0,0,0,0,0,0,0,0.919986,-27.8572,0.187391,22.9678,0.538937,1.60119,-0.298355,
0.249563,-0.040403,0.273106,-2.25147,0.153243,0.642491,0.0945791,0.064597,-0.0188327,0.0648584,0.0697543,-0.390504,0.270428,0.100442,0.211453,1.10954,0.193668,-0.57629,11.2623,-10.9679,-15.642,6.55797,2.561,6.58202,4.11439,-4.5054,1.47804,-0.903613,0.250624,-0.0393325,0.272918,-2.25058,0.150613,0.644065,0.0460178,0.0505478,0.00300102,0.201833,0.117429,-0.613886,0.548796,-0.563404,-3.35304,2.94003,2.56595,-6.58218,24.586,-4.87809,106.86,1.95942,-29.5036,1.41328,23.2892,1.11847,2.46911,0.211594,
0.250067,-0.0404792,0.273611,-2.25098,0.150985,0.643734,0.0945797,0.0642742,-0.0169705,0.0645137,0.0681421,-0.368838,0.247414,0.0803688,-0.201743,1.16386,-0.215383,-1.00764,13.5411,-14.3841,-12.5457,6.4385,2.21411,6.46746,3.91292,-4.22668,1.40757,1.69702,0.250624,-0.0393325,0.272918,-2.25058,0.150613,0.644065,0.0460178,0.0505478,0.00300102,0.201833,0.117429,-0.613886,0.548796,-0.563404,0,0,0,0,0,0,0,1.95942,-29.5036,1.41328,23.2892,1.11847,2.46911,0.211594,
0.25386,-0.0399385,0.276181,-2.24748,0.138186,0.654167,0.045769,0.0646821,-0.0163825,0.0648865,0.0673002,-0.338025,0.222273,0.0641931,0.254923,0.367508,0.232967,-0.526185,19.2579,-15.7131,-10.1098,6.24467,1.70006,6.25956,3.66251,-3.31575,0.915435,0.0201478,0.250624,-0.0393325,0.272918,-2.25058,0.150613,0.644065,0.0460178,0.0505478,0.00300102,0.201833,0.117429,-0.613886,0.548796,-0.563404,0,0,0,0,0,0,0,1.95942,-29.5036,1.41328,23.2892,1.11847,2.46911,0.211594,
0.254362,-0.0400346,0.276683,-2.24701,0.136672,0.654827,0.0457653,0.0642944,-0.0155073,0.0644701,0.0656121,-0.308267,0.19432,0.0512629,-0.242324,0.547039,-0.260253,-1.05507,18.5991,-17.4706,-8.08135,6.11206,1.50446,6.12612,3.56796,-2.93521,0.551838,0.0169235,0.250624,-0.0393325,0.272918,-2.25058,0.150613,0.644065,0.0460178,0.0505478,0.00300102,0.201833,0.117429,-0.613886,0.548796,-0.563404,0,0,0,0,0,0,0,1.95942,-29.5036,1.41328,23.2892,1.11847,2.46911,0.211594,
0.254842,-0.0401153,0.277164,-2.24658,0.135327,0.655236,0.0457616,0.0634335,-0.0144227,0.0635876,0.0633615,-0.280238,0.165678,0.0409157,-0.538087,0.677842,-0.551561,-1.40659,17.5181,-17.9014,-6.46705,6.03975,1.38484,6.05089,3.46511,-2.54165,0.187067,0.014134,0.254575,-0.038963,0.27678,-2.24623,0.131523,0.658282,0.0816653,0.0655105,-0.00398638,0.175707,0.11051,-0.512589,0.407325,1.41894,1.87034,-0.873424,-3.26573,-0.864835,12.662,-17.6839,247.792,2.34027,-29.3053,1.83778,24.4635,1.24115,2.01867,0.14476,
0.255304,-0.0401821,0.277627,-2.24617,0.134124,0.655443,0.0457574,0.0623062,-0.0132105,0.0624451,0.0607664,-0.254267,0.137732,0.0326297,-0.704503,0.757653,-0.714026,-1.62195,16.2316,-17.4662,-5.17873,5.89567,1.26527,5.90599,3.4047,-2.25485,-0.0400389,0.0114438,0.254575,-0.038963,0.27678,-2.24623,0.131523,0.658282,0.0816653,0.0655105,-0.00398638,0.175707,0.11051,-0.512589,0.407325,1.41894,0,0,0,0,0,0,0,2.34027,-29.3053,1.83778,24.4635,1.24115,2.01867,0.14476,
0.25759,-0.0397194,0.279815,-2.24341,0.123651,0.664235,0.0820084,0.0623348,-0.0137323,0.0624429,0.0600917,-0.229318,0.119564,0.0259221,0.0178469,-0.326136,-0.00138656,-0.421691,15.5935,-11.3551,-4.19222,5.75019,1.15233,5.75973,3.34831,-2.00594,-0.222016,0.00886619,0.254575,-0.038963,0.27678,-2.24623,0.131523,0.658282,0.0816653,0.0655105,-0.00398638,0.175707,0.11051,-0.512589,0.407325,1.41894,0,0,0,0,0,0,0,2.34027,-29.3053,1.83778,24.4635,1.24115,2.01867,0.14476,
0.258064,-0.0398259,0.280288,-2.24299,0.122724,0.664395,0.082002,0.0617118,-0.01365,0.061797,0.058553,-0.206639,0.0996617,0.0205776,-0.389383,0.0514215,-0.403692,-0.961699,14.174,-12.4387,-3.34036,5.60696,1.04368,5.61572,3.29349,-1.79178,-0.364019,0.00647203,0.254575,-0.038963,0.27678,-2.24623,0.131523,0.658282,0.0816653,0.0655105,-0.00398638,0.175707,0.11051,-0.512589,0.407325,1.41894,0,0,0,0,0,0,0,2.34027,-29.3053,1.83778,24.4635,1.24115,2.01867,0.14476,
0.258517,-0.0399141,0.280742,-2.24261,0.12188,0.664392,0.081996,0.0607078,-0.0131246,0.0607779,0.0564617,-0.186405,0.0796444,0.016311,-0.627484,0.328411,-0.636954,-1.30703,12.6461,-12.5108,-2.66662,5.5587,0.899027,5.56813,3.26324,-1.54168,-0.500744,0.0042158,0.258919,-0.0389967,0.280739,-2.24286,0.118909,0.666639,0.079691,0.0968932,-0.0060387,0.142752,0.0948664,-0.27625,0.162771,-1.05812,3.92283,-0.25654,-4.11942,-1.95549,29.5425,-30.5692,-309.632,1.2215,-28.98,0.988783,24.884,1.01501,1.8731,-0.150955,
0.258955,-0.0399861,0.281179,-2.24225,0.121103,0.664263,0.0819901,0.0594961,-0.0122991,0.0595574,0.0540519,-0.168548,0.0604994,0.0129015,-0.757348,0.515888,-0.762812,-1.50617,11.1609,-11.9656,-2.13096,5.42527,0.802761,5.43378,3.21088,-1.38614,-0.582633,0.00230377,0.258919,-0.0389967,0.280739,-2.24286,0.118909,0.666639,0.079691,0.0968932,-0.0060387,0.142752,0.0948664,-0.27625,0.162771,-1.05812,0,0,0,0,0,0,0,1.2215,-28.98,0.988783,24.884,1.01501,1.8731,-0.150955,
0.262076,-0.0396123,0.283905,-2.2406,0.114267,0.668232,0.0792697,0.0603445,-0.0122438,0.0603947,0.0523845,-0.150827,0.0457369,0.0101104,0.530294,0.0345619,0.523285,-1.04211,11.0758,-9.22657,-1.7444,5.29793,0.714703,5.30545,3.15996,-1.25468,-0.64263,0.000650567,0.258919,-0.0389967,0.280739,-2.24286,0.118909,0.666639,0.079691,0.0968932,-0.0060387,0.142752,0.0948664,-0.27625,0.162771,-1.05812,0,0,0,0,0,0,0,1.2215,-28.98,0.988783,24.884,1.01501,1.8731,-0.150955,
0.262554,-0.0396914,0.284382,-2.24026,0.113666,0.668019,0.0792623,0.0602042,-0.0117713,0.0602468,0.0503551,-0.135689,0.0312535,0.00790477,-0.0877111,0.295363,-0.0923837,-1.2684,9.46086,-9.0521,-1.37853,5.17695,0.6356,5.18346,3.11032,-1.14449,-0.683116,-0.00073944,0.258919,-0.0389967,0.280739,-2.24286,0.118909,0.666639,0.079691,0.0968932,-0.0060387,0.142752,0.0948664,-0.27625,0.162771,-1.05812,0,0,0,0,0,0,0,1.2215,-28.98,0.988783,24.884,1.01501,1.8731,-0.150955,
0.263005,-0.0397553,0.284834,-2.23995,0.113092,0.667727,0.0792557,0.0594452,-0.0110159,0.0594842,0.0481391,-0.122913,0.0177036,0.00615679,-0.474381,0.472113,-0.476675,-1.38498,7.98518,-8.46872,-1.09249,5.08916,0.568145,5.09705,3.02701,-1.03105,-0.7372,-0.00173863,0.262688,-0.0388965,0.284538,-2.23904,0.111289,0.669777,0.0654915,0.133694,0.00365427,0.0834424,0.104278,-0.177897,0.0605592,0.522985,4.60006,1.21162,-7.41371,1.17642,12.2941,-12.7764,197.638,0.793033,-30.5034,0.564283,23.912,0.740353,1.98571,0.305893,
0.263435,-0.0398064,0.285264,-2.23965,0.112537,0.667377,0.0792494,0.0583165,-0.0100887,0.0583549,0.0458628,-0.112186,0.00542522,0.0047695,-0.705411,0.579478,-0.705813,-1.42269,6.70437,-7.67397,-0.867056,4.98027,0.506937,4.98709,2.98002,-0.954555,-0.750991,-0.00266741,0.262688,-0.0388965,0.284538,-2.23904,0.111289,0.669777,0.0654915,0.133694,0.00365427,0.0834424,0.104278,-0.177897,0.0605592,0.522985,0,0,0,0,0,0,0,0.793033,-30.5034,0.564283,23.912,0.740353,1.98571,0.305893,
0.265582,-0.0394199,0.287429,-2.23702,0.108571,0.669978,0.0655784,0.0585321,-0.0101468,0.0585583,0.044736,-0.101315,-0.00155774,0.00362992,0.134722,-0.0363147,0.127165,-0.704266,6.79462,-4.36435,-0.712239,4.87688,0.454113,4.8826,2.93431,-0.891178,-0.756418,-0.00339166,0.262688,-0.0388965,0.284538,-2.23904,0.111289,0.669777,0.0654915,0.133694,0.00365427,0.0834424,0.104278,-0.177897,0.0605592,0.522985,0,0,0,0,0,0,0,0.793033,-30.5034,0.564283,23.912,0.740353,1.98571,0.305893,
0.266028,-0.0394876,0.287875,-2.23672,0.108109,0.669672,0.0655718,0.0579701,-0.00981061,0.0579894,0.0432534,-0.0925858,-0.0088958,0.0027397,-0.351225,0.210124,-0.355594,-0.926627,5.45552,-4.58629,-0.556383,4.77855,0.409199,4.78318,2.88964,-0.838835,-0.754454,-0.00394417,0.262688,-0.0388965,0.284538,-2.23904,0.111289,0.669777,0.0654915,0.133694,0.00365427,0.0834424,0.104278,-0.177897,0.0605592,0.522985,0,0,0,0,0,0,0,0.793033,-30.5034,0.564283,23.912,0.740353,1.98571,0.305893,
0.26645,-0.0395419,0.288297,-2.23644,0.107648,0.669315,0.0655658,0.0569326,-0.00920407,0.0569489,0.0415809,-0.0856016,-0.0160379,0.00204328,-0.648469,0.379091,-0.650309,-1.04526,4.36514,-4.46381,-0.435264,4.70669,0.353807,4.71449,2.82466,-0.781754,-0.760566,-0.00426184,0.266106,-0.0389427,0.288442,-2.23623,0.106628,0.670232,0.0749518,0.159917,-0.00427721,0.0510773,0.0605083,-0.109017,-0.00380027,-0.349069,3.27787,-0.991436,-4.04565,-5.47118,8.60997,-8.04493,-109.007,-0.325741,-29.7774,-0.463243,25.6577,0.532528,2.75475,-0.143631,
0.268963,-0.0392919,0.291291,-2.23472,0.104537,0.668832,0.0747784,0.0570971,-0.0086026,0.0571137,0.0397344,-0.0780223,-0.0228757,0.0014666,0.102818,0.375919,0.10301,-1.15409,4.73705,-4.27361,-0.360427,4.53117,0.297331,4.53675,2.73999,-0.716799,-0.739154,-0.00466888,0.266106,-0.0389427,0.288442,-2.23623,0.106628,0.670232,0.0749518,0.159917,-0.00427721,0.0510773,0.0605083,-0.109017,-0.00380027,-0.349069,0,0,0,0,0,0,0,-0.325741,-29.7774,-0.463243,25.6577,0.532528,2.75475,-0.143631,
0.269394,-0.0393311,0.291722,-2.23448,0.104144,0.668403,0.0747726,0.0564467,-0.00786084,0.0564641,0.0379229,-0.0722289,-0.0290187,0.00102901,-0.406479,0.4636,-0.406006,-1.13221,3.6209,-3.8394,-0.273493,4.44849,0.277218,4.45299,2.69876,-0.692306,-0.726246,-0.00472778,0.266106,-0.0389427,0.288442,-2.23623,0.106628,0.670232,0.0749518,0.159917,-0.00427721,0.0510773,0.0605083,-0.109017,-0.00380027,-0.349069,0,0,0,0,0,0,0,-0.325741,-29.7774,-0.463243,25.6577,0.532528,2.75475,-0.143631,
0.2698,-0.0393613,0.292128,-2.23424,0.103742,0.667956,0.0747676,0.0553007,-0.00704461,0.0553194,0.0361883,-0.0678336,-0.0344013,0.000696866,-0.716257,0.510145,-0.715433,-1.08409,2.74705,-3.36409,-0.207591,4.36867,0.261583,4.37209,2.65823,-0.671938,-0.713682,-0.00468598,0.266106,-0.0389427,0.288442,-2.23623,0.106628,0.670232,0.0749518,0.159917,-0.00427721,0.0510773,0.0605083,-0.109017,-0.00380027,-0.349069,0,0,0,0,0,0,0,-0.325741,-29.7774,-0.463243,25.6577,0.532528,2.75475,-0.143631,
0.270185,-0.0393841,0.292514,-2.23402,0.103333,0.667495,0.0747631,0.0538752,-0.00620507,0.0538955,0.0345557,-0.0644939,-0.0390342,0.00044487,-0.890956,0.524712,-0.889927,-1.0204,2.08727,-2.8956,-0.157498,4.29701,0.226227,4.30258,2.61114,-0.648751,-0.701903,-0.00457136,0.269318,-0.0388495,0.292452,-2.23447,0.104128,0.66921,0.0729061,0.184553,0.00328617,0.0317913,0.052962,-0.0644703,-0.042909,-0.0212547,3.07961,0.945423,-2.41074,-0.943297,5.56839,-4.88859,40.9767,-0.171017,-31.0271,-0.637804,26.3559,0.386044,2.89391,0.0303194,
0.272184,-0.0390507,0.295306,-2.2332,0.102728,0.667166,0.0728447,0.0544588,-0.00574337,0.0544796,0.0332186,-0.0595116,-0.0428616,0.000215445,0.364768,0.288563,0.365077,-0.835658,3.11397,-2.39213,-0.143391,4.22184,0.217818,4.22634,2.57171,-0.633877,-0.690603,-0.00440243,0.269318,-0.0388495,0.292452,-2.23447,0.104128,0.66921,0.0729061,0.184553,0.00328617,0.0317913,0.052962,-0.0644703,-0.042909,-0.0212547,0,0,0,0,0,0,0,-0.171017,-31.0271,-0.637804,26.3559,0.386044,2.89391,0.0303194,
0.272604,-0.0390751,0.295726,-2.23299,0.102389,0.66669,0.07284,0.0540664,-0.00520454,0.0540872,0.0319342,-0.0560827,-0.0461838,5.42922e-05,-0.245256,0.336768,-0.24524,-0.802748,2.14305,-2.07636,-0.10072,4.14851,0.21224,4.15195,2.53271,-0.62056,-0.679964,-0.00420641,0.269318,-0.0388495,0.292452,-2.23447,0.104128,0.66921,0.0729061,0.184553,0.00328617,0.0317913,0.052962,-0.0644703,-0.042909,-0.0212547,0,0,0,0,0,0,0,-0.171017,-31.0271,-0.637804,26.3559,0.386044,2.89391,0.0303194,
0.272996,-0.0390935,0.296119,-2.23278,0.102033,0.666207,0.072836,0.0530661,-0.00462491,0.0530868,0.0307202,-0.0537671,-0.0490077,-5.66374e-05,-0.625197,0.362269,-0.625295,-0.758756,1.44728,-1.76496,-0.069331,4.07676,0.208926,4.07915,2.49418,-0.608806,-0.671121,-0.00394758,0.269318,-0.0388495,0.292452,-2.23447,0.104128,0.66921,0.0729061,0.184553,0.00328617,0.0317913,0.052962,-0.0644703,-0.042909,-0.0212547,0,0,0,0,0,0,0,-0.171017,-31.0271,-0.637804,26.3559,0.386044,2.89391,0.0303194,
0.272184,-0.0390507,0.295306,-2.2332,0.102728,0.667166,0.0728447,0.0538115,-0.00447924,0.0538326,0.0301503,-0.0509301,-0.0508404,-0.000185761,0.465905,0.0910431,0.466168,-0.356226,1.77311,-1.14544,-0.0807023,3.93699,0.207579,3.93733,2.41821,-0.587588,-0.65715,-0.00337602,0.269318,-0.0388495,0.292452,-2.23447,0.104128,0.66921,0.0729061,0.184553,0.00328617,0.0317913,0.052962,-0.0644703,-0.042909,-0.0212547,0,0,0,0,0,0,0,-0.171017,-31.0271,-0.637804,26.3559,0.386044,2.89391,0.0303194,
0.272523,-0.039087,0.295644,-2.23305,0.102601,0.666787,0.0728436,0.0531006,-0.00421127,0.0531136,0.0292171,-0.0483823,-0.0522652,-0.000238948,-0.444301,0.167482,-0.449375,-0.583218,1.59236,-0.890457,-0.0332417,3.86856,0.208813,3.86788,2.38072,-0.577631,-0.651975,-0.00307113,0.269318,-0.0388495,0.292452,-2.23447,0.104128,0.66921,0.0729061,0.184553,0.00328617,0.0317913,0.052962,-0.0644703,-0.042909,-0.0212547,0,0,0,0,0,0,0,-0.171017,-31.0271,-0.637804,26.3559,0.386044,2.89391,0.0303194,
0.272897,-0.0391059,0.296018,-2.23286,0.102276,0.666315,0.0728408,0.051826,-0.00384091,0.0518323,0.0282864,-0.0468219,-0.053628,-0.000261879,-0.796673,0.231472,-0.800815,-0.581713,0.975293,-0.851771,-0.0143322,3.80084,0.210839,3.79918,2.34359,-0.568317,-0.648485,-0.00271983,0.269318,-0.0388495,0.292452,-2.23447,0.104128,0.66921,0.0729061,0.184553,0.00328617,0.0317913,0.052962,-0.0644703,-0.042909,-0.0212547,0,0,0,0,0,0,0,-0.171017,-31.0271,-0.637804,26.3559,0.386044,2.89391,0.0303194,
0.273248,-0.0391195,0.296369,-2.23267,0.101937,0.665836,0.0728386,0.0502362,-0.00341293,0.0502371,0.0273781,-0.045929,-0.054876,-0.000264534,-0.993589,0.267488,-0.997001,-0.567704,0.558066,-0.77996,-0.00165937,3.73368,0.213491,3.73102,2.30672,-0.558988,-0.6456,-0.00238137,0.269318,-0.0388495,0.292452,-2.23447,0.104128,0.66921,0.0729061,0.184553,0.00328617,0.0317913,0.052962,-0.0644703,-0.042909,-0.0212547,0,0,0,0,0,0,0,-0.171017,-31.0271,-0.637804,26.3559,0.386044,2.89391,0.0303194,
0.272061,-0.039071,0.295181,-2.2333,0.10306,0.667293,0.072851,0.0507182,-0.00355945,0.0507076,0.0269546,-0.0430191,-0.0550337,-0.000296403,0.301236,-0.0915732,0.294042,-0.264649,1.81867,-0.0985942,-0.019918,3.66693,0.216446,3.6633,2.27018,-0.550289,-0.64405,-0.00199959,0.269318,-0.0388495,0.292452,-2.23447,0.104128,0.66921,0.0729061,0.184553,0.00328617,0.0317913,0.052962,-0.0644703,-0.042909,-0.0212547,0,0,0,0,0,0,0,-0.171017,-31.0271,-0.637804,26.3559,0.386044,2.89391,0.0303194,
0.272446,-0.0390966,0.295565,-2.23311,0.102782,0.666834,0.0728487,0.0501904,-0.00348922,0.0501702,0.0264032,-0.0413767,-0.0555038,-0.000295475,-0.329898,0.0438945,-0.335856,-0.344637,1.02648,-0.293806,0.000579975,3.60774,0.178383,3.60838,2.22466,-0.53851,-0.64172,-0.00163517,0.27202,-0.0388828,0.297103,-2.23294,0.102545,0.667153,0.0727915,0.102026,-0.0037673,0.0969307,0.0352167,-0.0450254,-0.067571,0.000301713,-10.3159,-0.881683,8.14242,-2.21816,2.43061,-3.08275,2.69456,-0.373349,-30.0551,-1.10991,25.5347,0.367733,3.07244,0.050461,
0.272801,-0.0391158,0.29592,-2.23292,0.102481,0.666365,0.0728472,0.0490418,-0.00327065,0.049014,0.0257747,-0.0406353,-0.0561134,-0.00027319,-0.717842,0.136605,-0.722656,-0.392824,0.463415,-0.381021,0.0139284,3.54141,0.181492,3.54111,2.18869,-0.530752,-0.641259,-0.00122957,0.27202,-0.0388828,0.297103,-2.23294,0.102545,0.667153,0.0727915,0.102026,-0.0037673,0.0969307,0.0352167,-0.0450254,-0.067571,0.000301713,0,0,0,0,0,0,0,-0.373349,-30.0551,-1.10991,25.5347,0.367733,3.07244,0.050461,
0.273133,-0.0391295,0.296252,-2.23275,0.102161,0.665891,0.0728465,0.047538,-0.0029591,0.0475039,0.0251045,-0.0405108,-0.0567543,-0.000237768,-0.9399,0.194718,-0.943819,-0.418857,0.0777618,-0.400525,0.0221385,3.4751,0.184512,3.47387,2.15296,-0.52339,-0.640534,-0.000848308,0.27202,-0.0388828,0.297103,-2.23294,0.102545,0.667153,0.0727915,0.102026,-0.0037673,0.0969307,0.0352167,-0.0450254,-0.067571,0.000301713,0,0,0,0,0,0,0,-0.373349,-30.0551,-1.10991,25.5347,0.367733,3.07244,0.050461,
0.274566,-0.0390676,0.299649,-2.23199,0.10154,0.664651,0.0727583,0.0478333,-0.00292483,0.0478004,0.0244361,-0.0386628,-0.0579755,-0.000230348,0.18458,0.0214207,0.185355,-0.417739,1.15505,-0.763253,0.00463764,3.40874,0.187229,3.40659,2.11754,-0.517357,-0.640177,-0.000422507,0.27202,-0.0388828,0.297103,-2.23294,0.102545,0.667153,0.0727915,0.102026,-0.0037673,0.0969307,0.0352167,-0.0450254,-0.067571,0.000301713,0,0,0,0,0,0,0,-0.373349,-30.0551,-1.10991,25.5347,0.367733,3.07244,0.050461,
0.274923,-0.039084,0.300007,-2.23182,0.101259,0.664151,0.0727577,0.0472091,-0.00275061,0.0471764,0.0237658,-0.0379601,-0.0588755,-0.000198383,-0.390135,0.108884,-0.390055,-0.41894,0.439185,-0.562491,0.0199784,3.345,0.1654,3.34181,2.0868,-0.510968,-0.629925,-5.70473e-05,0.275508,-0.0385328,0.300263,-2.23206,0.101641,0.664514,0.0727928,0.0283514,0.0183623,0.165778,0.0211589,-0.0272431,-0.0768513,0.000335408,-9.20935,2.7662,8.60595,-1.75722,2.22279,-1.16004,0.00421177,0.209842,-31.3008,-0.463243,27.4271,0.25787,3.37823,0.0376436,
0.275254,-0.0390957,0.300337,-2.23166,0.10095,0.663656,0.072758,0.0460229,-0.00249159,0.0459896,0.0231039,-0.0381002,-0.0594899,-0.000150519,-0.741385,0.161889,-0.741733,-0.413728,-0.0875572,-0.383999,0.0299145,3.27824,0.167368,3.27416,2.05193,-0.507857,-0.628647,0.00039515,0.275508,-0.0385328,0.300263,-2.23206,0.101641,0.664514,0.0727928,0.0283514,0.0183623,0.165778,0.0211589,-0.0272431,-0.0768513,0.000335408,0,0,0,0,0,0,0,0.209842,-31.3008,-0.463243,27.4271,0.25787,3.37823,0.0376436,
0.274923,-0.039084,0.300007,-2.23182,0.101257,0.66415,0.0727577,0.0457608,-0.00240413,0.0457277,0.0227001,-0.037518,-0.060091,-0.000134524,-0.163797,0.0546588,-0.163662,-0.252351,0.363842,-0.375691,0.00999738,3.14367,0.169963,3.1379,1.98293,-0.508185,-0.623156,0.0013101,0.275508,-0.0385328,0.300263,-2.23206,0.101641,0.664514,0.0727928,0.0283514,0.0183623,0.165778,0.0211589,-0.0272431,-0.0768513,0.000335408,0,0,0,0,0,0,0,0.209842,-31.3008,-0.463243,27.4271,0.25787,3.37823,0.0376436,
0.278284,-0.0383202,0.303054,-2.2313,0.100375,0.660921,0.0727732,0.0450372,-0.00157501,0.0449974,0.0214217,-0.0378851,-0.0620118,-7.01195e-05,-0.452251,0.518205,-0.456439,-0.799004,-0.229405,-1.20054,0.0402525,3.07579,0.170532,3.06919,1.94884,-0.512057,-0.618281,0.00177222,0.275508,-0.0385328,0.300263,-2.23206,0.101641,0.664514,0.0727928,0.0283514,0.0183623,0.165778,0.0211589,-0.0272431,-0.0768513,0.000335408,0,0,0,0,0,0,0,0.209842,-31.3008,-0.463243,27.4271,0.25787,3.37823,0.0376436,
0.278594,-0.0383083,0.303363,-2.23117,0.100019,0.660387,0.0727756,0.0437724,-0.000960196,0.0437243,0.0204034,-0.0391933,-0.0629647,5.47471e-06,-0.790523,0.384257,-0.795722,-0.636433,-0.817648,-0.595514,0.0472464,3.00865,0.136968,3.00187,1.9279,-0.519547,-0.601713,0.00222657,0.279235,-0.0382839,0.303237,-2.2316,0.101103,0.662031,0.0727943,0.0162694,-0.00684201,0.179576,0.00921216,-0.0209684,-0.0598378,0.00133046,-1.51025,-3.15054,1.72474,-1.49334,0.784348,2.12669,0.124381,-0.349545,-30.7771,-0.736986,26.9034,0.294491,2.91405,0.0239107,
0.278881,-0.0382975,0.30365,-2.23104,0.0996251,0.659876,0.0727789,0.0422068,-0.000499869,0.0421496,0.0195776,-0.0412069,-0.0631535,8.68131e-05,-0.978449,0.287704,-0.984142,-0.516153,-1.25852,-0.118013,0.0508365,2.93991,0.136567,2.93235,1.8943,-0.530498,-0.593748,0.00273167,0.279235,-0.0382839,0.303237,-2.2316,0.101103,0.662031,0.0727943,0.0162694,-0.00684201,0.179576,0.00921216,-0.0209684,-0.0598378,0.00133046,0,0,0,0,0,0,0,-0.349545,-30.7771,-0.736986,26.9034,0.294491,2.91405,0.0239107,
0.281658,-0.0383776,0.305674,-2.23093,0.0999647,0.659331,0.0727844,0.0427986,-0.000645422,0.042737,0.0190362,-0.041325,-0.0631021,0.000129533,0.369835,-0.0909704,0.367091,-0.338332,-0.0737749,0.0320815,0.0266996,2.87063,0.135675,2.86235,1.86062,-0.551172,-0.586001,0.00329553,0.279235,-0.0382839,0.303237,-2.2316,0.101103,0.662031,0.0727943,0.0162694,-0.00684201,0.179576,0.00921216,-0.0209684,-0.0598378,0.00133046,0,0,0,0,0,0,0,-0.349545,-30.7771,-0.736986,26.9034,0.294491,2.91405,0.0239107,
0.281983,-0.0383845,0.305998,-2.2308,0.099572,0.658852,0.072788,0.0423562,-0.000688282,0.0422891,0.0185505,-0.0428778,-0.0624566,0.000194849,-0.276496,-0.0267876,-0.279908,-0.303554,-0.970527,0.403442,0.040823,2.80126,0.134472,2.79224,1.82745,-0.570715,-0.574456,0.00384792,0.279235,-0.0382839,0.303237,-2.2316,0.101103,0.662031,0.0727943,0.0162694,-0.00684201,0.179576,0.00921216,-0.0209684,-0.0598378,0.00133046,0,0,0,0,0,0,0,-0.349545,-30.7771,-0.736986,26.9034,0.294491,2.91405,0.0239107,
0.282278,-0.0383889,0.306293,-2.23067,0.0991239,0.658397,0.0727927,0.0412741,-0.000662382,0.0412011,0.0181033,-0.0455042,-0.0613558,0.000274217,-0.676308,0.0161876,-0.679997,-0.279527,-1.64148,0.688029,0.0496051,2.72393,0.119685,2.71222,1.7869,-0.597533,-0.560626,0.0044625,0.283125,-0.0378725,0.305327,-2.2309,0.10041,0.660812,0.0727851,0.115563,0.0188494,0.0407824,0.0212462,-0.0211205,-0.0182981,-0.00139481,12.4117,3.21143,-17.3492,1.50426,-0.019019,5.19246,-0.340658,-0.881161,-31.2016,-1.08611,26.7288,0.502316,2.45629,0.0980684,
0.28255,-0.0383915,0.306564,-2.23054,0.098624,0.657964,0.0727984,0.0398225,-0.000593322,0.0397434,0.0176836,-0.0489001,-0.0599147,0.000360598,-0.907254,0.0431628,-0.911062,-0.262289,-2.12246,0.900693,0.0539877,2.6545,0.118015,2.64207,1.7541,-0.626285,-0.545605,0.00506502,0.283125,-0.0378725,0.305327,-2.2309,0.10041,0.660812,0.0727851,0.115563,0.0188494,0.0407824,0.0212462,-0.0211205,-0.0182981,-0.00139481,0,0,0,0,0,0,0,-0.881161,-31.2016,-1.08611,26.7288,0.502316,2.45629,0.0980684,
0.28512,-0.0377333,0.307312,-2.23023,0.098511,0.658956,0.0727956,0.0394658,-0.000386911,0.0393715,0.0173182,-0.0524133,-0.0580926,0.000430346,-0.22293,0.129006,-0.232458,-0.228411,-2.19576,1.13882,0.0435923,2.58294,0.115995,2.57015,1.71892,-0.720273,-0.540802,0.00571498,0.283125,-0.0378725,0.305327,-2.2309,0.10041,0.660812,0.0727851,0.115563,0.0188494,0.0407824,0.0212462,-0.0211205,-0.0182981,-0.00139481,0,0,0,0,0,0,0,-0.881161,-31.2016,-1.08611,26.7288,0.502316,2.45629,0.0980684,
0.285397,-0.0377316,0.307587,-2.2301,0.09792,0.65856,0.0728022,0.0384808,-0.000268107,0.0383719,0.0169549,-0.0567055,-0.0563721,0.000509939,-0.615611,0.0742525,-0.62476,-0.227028,-2.6826,1.07529,0.0497462,2.51487,0.114273,2.50135,1.68648,-0.75746,-0.522429,0.00637519,0.283125,-0.0378725,0.305327,-2.2309,0.10041,0.660812,0.0727851,0.115563,0.0188494,0.0407824,0.0212462,-0.0211205,-0.0182981,-0.00139481,0,0,0,0,0,0,0,-0.881161,-31.2016,-1.08611,26.7288,0.502316,2.45629,0.0980684,
0.285651,-0.0377304,0.30784,-2.22998,0.0972788,0.658178,0.0728097,0.037131,-0.000184763,0.0370085,0.0165962,-0.0613929,-0.0546465,0.00059452,-0.843613,0.0520905,-0.852116,-0.224235,-2.92964,1.07851,0.0528628,2.4503,0.0925225,2.43497,1.65265,-0.797023,-0.502856,0.00709383,0.285264,-0.0374348,0.308458,-2.23028,0.0995566,0.6601,0.0727859,0.136056,0.00388601,0.00208816,0.015156,-0.0329898,-0.0152987,-0.00162247,2.56157,-1.87042,-4.83678,-0.761275,-1.48366,0.37492,-0.0284568,-0.603451,-31.3524,-1.08611,26.5781,0.520626,2.38305,0.0907442,
0.285886,-0.037729,0.308074,-2.22986,0.0965984,0.657811,0.0728178,0.035593,-0.000113191,0.035458,0.016243,-0.0661265,-0.0528896,0.000677852,-0.961244,0.0447321,-0.969077,-0.220708,-2.95848,1.09804,0.0520829,2.3851,0.091542,2.369,1.6206,-0.838453,-0.483145,0.0078014,0.285264,-0.0374348,0.308458,-2.23028,0.0995566,0.6601,0.0727859,0.136056,0.00388601,0.00208816,0.015156,-0.0329898,-0.0152987,-0.00162247,0,0,0,0,0,0,0,-0.603451,-31.3524,-1.08611,26.5781,0.520626,2.38305,0.0907442,
0.287088,-0.0374665,0.310261,-2.22959,0.0954665,0.658326,0.0728209,0.0354373,-0.000391684,0.0352914,0.0161564,-0.0780749,-0.051835,0.000738984,-0.0973256,-0.174058,-0.104139,-0.0541303,-7.4678,0.659139,0.0382074,2.31017,0.0880144,2.29588,1.56895,-1.34827,-0.55192,0.00846812,0.285264,-0.0374348,0.308458,-2.23028,0.0995566,0.6601,0.0727859,0.136056,0.00388601,0.00208816,0.015156,-0.0329898,-0.0152987,-0.00162247,0,0,0,0,0,0,0,-0.603451,-31.3524,-1.08611,26.5781,0.520626,2.38305,0.0907442,
0.28734,-0.0374768,0.310512,-2.22947,0.0944228,0.657951,0.0728291,0.034655,-0.00057321,0.0344997,0.0159567,-0.0885533,-0.0508301,0.000796266,-0.48893,-0.113454,-0.49479,-0.124822,-6.54895,0.628089,0.0358008,2.25224,0.0879082,2.23707,1.53781,-1.39008,-0.527947,0.00923514,0.285264,-0.0374348,0.308458,-2.23028,0.0995566,0.6601,0.0727859,0.136056,0.00388601,0.00208816,0.015156,-0.0329898,-0.0152987,-0.00162247,0,0,0,0,0,0,0,-0.603451,-31.3524,-1.08611,26.5781,0.520626,2.38305,0.0907442,
0.287571,-0.0374851,0.310741,-2.22935,0.093363,0.657584,0.0728375,0.0334972,-0.000666069,0.0333336,0.0156905,-0.0973365,-0.0498477,0.000845872,-0.72365,-0.058037,-0.728788,-0.166346,-5.48951,0.613961,0.0310042,2.19789,0.0661235,2.18368,1.50477,-1.42424,-0.505714,0.0100336,0.287335,-0.03738,0.310982,-2.22982,0.0982611,0.659338,0.0727873,0.113851,0.00944877,0.0138819,0.0180781,-0.0518656,-0.0226785,-0.00184597,-2.77559,0.695345,1.47422,0.36526,-2.35947,-0.922465,-0.0279379,-0.452694,-30.2535,-1.08611,26.2289,0.471188,2.50298,0.0779268,
0.289073,-0.0373978,0.312702,-2.22906,0.091856,0.655831,0.0728377,0.033528,-0.000993774,0.0333583,0.01573,-0.114727,-0.0598492,0.000877408,0.0192727,-0.204815,0.0154499,0.0246487,-10.8692,-6.25094,0.0197097,2.23238,0.122591,2.22,1.36685,-2.06729,-1.23825,0.0104888,0.287335,-0.03738,0.310982,-2.22982,0.0982611,0.659338,0.0727873,0.113851,0.00944877,0.0138819,0.0180781,-0.0518656,-0.0226785,-0.00184597,0,0,0,0,0,0,0,-0.452694,-30.2535,-1.08611,26.2289,0.471188,2.50298,0.0779268,
0.289318,-0.0374136,0.312945,-2.22894,0.0903837,0.655025,0.0728446,0.0329407,-0.00119032,0.0327673,0.0155665,-0.12859,-0.0680338,0.000874132,-0.367078,-0.122841,-0.369436,-0.102169,-8.66436,-5.11536,-0.00204771,2.20605,0.118587,2.19235,1.34107,-2.08618,-1.18779,0.0113324,0.287335,-0.03738,0.310982,-2.22982,0.0982611,0.659338,0.0727873,0.113851,0.00944877,0.0138819,0.0180781,-0.0518656,-0.0226785,-0.00184597,0,0,0,0,0,0,0,-0.452694,-30.2535,-1.08611,26.2289,0.471188,2.50298,0.0779268,
0.289543,-0.0374272,0.313169,-2.22882,0.0889268,0.654223,0.0728528,0.0319851,-0.00129094,0.0318092,0.0152358,-0.139294,-0.0744726,0.000903095,-0.597264,-0.0628885,-0.598806,-0.20667,-6.6898,-4.02424,0.0181021,2.18019,0.117975,2.16515,1.3191,-2.08701,-1.144,0.0119138,0.287335,-0.03738,0.310982,-2.22982,0.0982611,0.659338,0.0727873,0.113851,0.00944877,0.0138819,0.0180781,-0.0518656,-0.0226785,-0.00184597,0,0,0,0,0,0,0,-0.452694,-30.2535,-1.08611,26.2289,0.471188,2.50298,0.0779268,
0.289753,-0.0374375,0.313377,-2.22872,0.0874864,0.653431,0.0728637,0.0308302,-0.00129147,0.0306527,0.0148257,-0.147445,-0.0793691,0.000995717,-0.721775,-0.000330438,-0.72277,-0.25636,-5.09438,-3.06035,0.0578888,2.15676,0.117366,2.14017,1.29964,-2.06118,-1.10648,0.0122084,0.287335,-0.03738,0.310982,-2.22982,0.0982611,0.659338,0.0727873,0.113851,0.00944877,0.0138819,0.0180781,-0.0518656,-0.0226785,-0.00184597,0,0,0,0,0,0,0,-0.452694,-30.2535,-1.08611,26.2289,0.471188,2.50298,0.0779268,
0.290765,-0.0372454,0.314931,-2.22833,0.0921985,0.648161,0.0728078,0.0313001,-0.00193892,0.0311361,0.0159272,-0.13325,-0.12046,0.00110704,0.293644,-0.40466,0.302133,0.688431,8.87157,-25.6821,0.0695741,2.77674,0.497044,2.77125,1.36459,-0.969483,-4.03055,0.00740849,0.289184,-0.0371103,0.313359,-2.22943,0.0957106,0.658371,0.0727919,0.0917424,0.0043156,0.0243119,0.00747393,-0.130191,-0.0385045,-0.000461531,-2.76357,-0.641646,1.30375,-1.32552,-9.79072,-1.97825,0.173055,-0.424923,-31.0787,-0.911547,26.3043,0.281674,2.79412,0.017502,
0.291016,-0.0372698,0.315181,-2.22819,0.0916259,0.645929,0.0728182,0.0313078,-0.0021613,0.0311608,0.0162238,-0.120915,-0.152163,0.00114647,0.00485272,-0.138982,0.0154397,0.185418,7.70966,-19.8138,0.024645,2.78091,0.459427,2.77432,1.37864,-0.918905,-3.76861,0.00785692,0.289184,-0.0371103,0.313359,-2.22943,0.0957106,0.658371,0.0727919,0.0917424,0.0043156,0.0243119,0.00747393,-0.130191,-0.0385045,-0.000461531,0,0,0,0,0,0,0,-0.424923,-31.0787,-0.911547,26.3043,0.281674,2.79412,0.017502,
0.291255,-0.0372891,0.31542,-2.22807,0.0910549,0.643789,0.0728266,0.0310256,-0.0022125,0.0308987,0.0157879,-0.111006,-0.175238,0.00112707,-0.176389,-0.0320008,-0.163853,-0.27242,6.1928,-14.4221,-0.0121263,2.77645,0.377737,2.76965,1.36439,-0.883899,-3.51122,0.0102417,0.289184,-0.0371103,0.313359,-2.22943,0.0957106,0.658371,0.0727919,0.0917424,0.0043156,0.0243119,0.00747393,-0.130191,-0.0385045,-0.000461531,0,0,0,0,0,0,0,-0.424923,-31.0787,-0.911547,26.3043,0.281674,2.79412,0.017502,
0.291488,-0.0372986,0.315653,-2.22798,0.0903622,0.641766,0.0728393,0.0306583,-0.00200656,0.0305491,0.0150549,-0.106123,-0.190761,0.00121922,-0.229555,0.128712,-0.218496,-0.458173,3.05208,-9.70203,0.057595,2.74688,0.321969,2.74045,1.3568,-0.875195,-3.26902,0.014267,0.289184,-0.0371103,0.313359,-2.22943,0.0957106,0.658371,0.0727919,0.0917424,0.0043156,0.0243119,0.00747393,-0.130191,-0.0385045,-0.000461531,0,0,0,0,0,0,0,-0.424923,-31.0787,-0.911547,26.3043,0.281674,2.79412,0.017502,
