xiao-wang007/linearmpc_panda/paper_data/panda_torque_PD_controller_error_match_to_start_torque_rate_limiter/2/trajectory.csv
Commanded Joint 0 Position,Commanded Joint 1 Position,Commanded Joint 2 Position,Commanded Joint 3 Position,Commanded Joint 4 Position,Commanded Joint 5 Position,Commanded Joint 6 Position,Commanded Joint 0 Velocity,Commanded Joint 1 Velocity,Commanded Joint 2 Velocity,Commanded Joint 3 Velocity,Commanded Joint 4 Velocity,Commanded Joint 5 Velocity,Commanded Joint 6 Velocity,Commanded Joint 0 Acceleration,Commanded Joint 1 Acceleration,Commanded Joint 2 Acceleration,Commanded Joint 3 Acceleration,Commanded Joint 4 Acceleration,Commanded Joint 5 Acceleration,Commanded Joint 6 Acceleration,Commanded Joint 0 Torque,Commanded Joint 1 Torque,Commanded Joint 2 Torque,Commanded Joint 3 Torque,Commanded Joint 4 Torque,Commanded Joint 5 Torque,Commanded Joint 6 Torque,Actual Joint 0 Position,Actual Joint 1 Position,Actual Joint 2 Position,Actual Joint 3 Position,Actual Joint 4 Position,Actual Joint 5 Position,Actual Joint 6 Position,Actual Joint 0 Velocity,Actual Joint 1 Velocity,Actual Joint 2 Velocity,Actual Joint 3 Velocity,Actual Joint 4 Velocity,Actual Joint 5 Velocity,Actual Joint 6 Velocity,Actual Joint 0 Acceleration,Actual Joint 1 Acceleration,Actual Joint 2 Acceleration,Actual Joint 3 Acceleration,Actual Joint 4 Acceleration,Actual Joint 5 Acceleration,Actual Joint 6 Acceleration,Actual Joint 0 Torque,Actual Joint 1 Torque,Actual Joint 2 Torque,Actual Joint 3 Torque,Actual Joint 4 Torque,Actual Joint 5 Torque,Actual Joint 6 Torque,
0.0331937,0.100143,-0.0265012,-1.65143,0.00179825,0.191112,0.0068245,0.000378871,0.0244399,0.00034167,-0.0311383,-0.00298277,0.0546267,-0.000379757,0.236794,15.2749,0.213544,-19.4614,-1.86423,34.1417,-0.237348,0.05901,27.5831,0.0371311,-24.2107,-0.589459,2.03447,-0.0251579,0.0331795,0.0984053,-0.0265092,-1.64833,0.00183246,0.185382,0.00685708,0.000702071,0.00111478,0.000453823,-0.00290359,-0.00569806,-0.00135122,-0.00338538,0,0,0,0,0,0,0,-0.147213,-38.3666,-0.237108,26.951,1.12487,3.05962,0.110886,
0.0331844,0.0984359,-0.0265053,-1.64835,0.00177975,0.185334,0.00685544,0.000319933,0.0197717,0.000285677,-0.0250572,-0.00262306,0.0433604,-0.000306715,-0.0368362,-2.91759,-0.0349952,3.80069,0.224818,-7.04144,0.0456511,0.0532151,28.0234,0.0267824,-24.1272,-0.58987,1.78372,-0.0236403,0.0331795,0.0984053,-0.0265092,-1.64833,0.00183246,0.185382,0.00685708,0.000702071,0.00111478,0.000453823,-0.00290359,-0.00569806,-0.00135122,-0.00338538,0,0,0,0,0,0,0,-0.147213,-38.3666,-0.237108,26.951,1.12487,3.05962,0.110886,
0.0331847,0.0984433,-0.0265052,-1.64836,0.00177411,0.185323,0.00685537,0.000262422,0.016002,0.000232627,-0.0201642,-0.00223959,0.034413,-0.000247126,-0.0359446,-2.35609,-0.0331564,3.05807,0.23967,-5.59209,0.0372429,0.0459439,28.5997,0.0149735,-24.0184,-0.589309,1.43786,-0.0216815,0.0331879,0.0985862,-0.0265052,-1.64848,0.0018233,0.185374,0.00684849,0.00192214,0.0058205,0.00175671,-0.00429459,-0.00443337,-0.00102079,-0.000756247,0.152508,0.588216,0.162861,-0.173875,0.158085,0.0413029,0.328642,-0.222592,-39.0132,-0.312487,27.5024,1.19171,3.13286,0.14476,
0.0331847,0.0984495,-0.0265052,-1.64836,0.00177074,0.185314,0.00685532,0.000210961,0.0129563,0.000185906,-0.0162279,-0.001876,0.0273113,-0.000198813,-0.032163,-1.90352,-0.0292009,2.46019,0.227246,-4.43855,0.0301958,0.0399722,29.1234,0.00553456,-23.8506,-0.587377,1.05284,-0.0196794,0.0331879,0.0985862,-0.0265052,-1.64848,0.0018233,0.185374,0.00684849,0.00192214,0.0058205,0.00175671,-0.00429459,-0.00443337,-0.00102079,-0.000756247,0,0,0,0,0,0,0,-0.222592,-39.0132,-0.312487,27.5024,1.19171,3.13286,0.14476,
0.0332106,0.0990906,-0.0264833,-1.649,0.0016591,0.185592,0.00685278,0.0007347,0.0229753,0.000694653,-0.0259387,-0.00560581,0.0272971,-5.17315e-05,0.327337,6.26187,0.317967,-6.06923,-2.33113,-0.00892739,0.091926,-1.15506e-05,33.7507,-0.0208092,-23.116,-1.00417,-2.17078,0.000212045,0.0331879,0.0985862,-0.0265052,-1.64848,0.0018233,0.185374,0.00684849,0.00192214,0.0058205,0.00175671,-0.00429459,-0.00443337,-0.00102079,-0.000756247,0,0,0,0,0,0,0,-0.222592,-39.0132,-0.312487,27.5024,1.19171,3.13286,0.14476,
0.0331808,0.0995608,-0.0265303,-1.64924,0.00248849,0.185041,0.00683873,-0.000155055,0.0301358,-0.000617409,-0.0267582,0.0162502,0.00807,-0.000392648,-0.556097,4.47527,-0.820039,-0.512203,13.66,-12.0169,-0.213073,0.496469,0.136161,0.4967,-0.251352,3.21072,-1.68609,-0.00137174,0.0331879,0.0985862,-0.0265052,-1.64848,0.0018233,0.185374,0.00684849,0.00192214,0.0058205,0.00175671,-0.00429459,-0.00443337,-0.00102079,-0.000756247,0,0,0,0,0,0,0,-0.222592,-39.0132,-0.312487,27.5024,1.19171,3.13286,0.14476,
0.033124,0.0999397,-0.0265942,-1.64941,0.00391048,0.184133,0.00682991,-0.00154491,0.0335804,-0.00209179,-0.0256386,0.0485499,-0.0162558,-0.000534454,-0.868661,2.15288,-0.921489,0.699771,20.1873,-15.2036,-0.0886283,0.489975,0.157324,0.490307,-0.249783,3.18365,-1.6703,-0.00133461,0.033169,0.0990371,-0.0264985,-1.64918,0.0016846,0.186779,0.006841,-0.000223584,0.0342533,0.00202115,-0.0712556,-0.0199169,0.147044,-0.000773644,-0.268215,3.5541,0.0330548,-8.37013,-1.93544,18.5081,-0.00217455,0.00751081,-31.8007,-0.137926,20.6747,0.800778,2.80785,0.131027,
0.0330622,0.100238,-0.0266575,-1.64955,0.00568426,0.183026,0.00682493,-0.00278122,0.0343254,-0.00325745,-0.0239904,0.0831844,-0.0406673,-0.000552234,-0.772693,0.465656,-0.728538,1.03015,21.6466,-15.2572,-0.0111125,0.48489,0.155932,0.485333,-0.247293,3.15594,-1.6554,-0.00131131,0.033169,0.0990371,-0.0264985,-1.64918,0.0016846,0.186779,0.006841,-0.000223584,0.0342533,0.00202115,-0.0712556,-0.0199169,0.147044,-0.000773644,0,0,0,0,0,0,0,0.00751081,-31.8007,-0.137926,20.6747,0.800778,2.80785,0.131027,
0.033185,0.099822,-0.0264831,-1.64988,0.00139641,0.187499,0.00684484,-0.0018241,0.0470829,-0.00222037,-0.0365926,0.0593429,-0.0145471,-0.000345773,0.598199,7.97343,0.648173,-7.8764,-14.901,16.3252,0.129038,-0.00140661,33.7732,-0.02222,-23.117,-1.00364,-2.16979,0.000222843,0.033169,0.0990371,-0.0264985,-1.64918,0.0016846,0.186779,0.006841,-0.000223584,0.0342533,0.00202115,-0.0712556,-0.0199169,0.147044,-0.000773644,0,0,0,0,0,0,0,0.00751081,-31.8007,-0.137926,20.6747,0.800778,2.80785,0.131027,
0.0330863,0.10054,-0.0266356,-1.65006,0.00435691,0.185523,0.00680199,-0.00392675,0.0556206,-0.00559071,-0.0338681,0.121487,-0.061042,-0.0013479,-1.31416,5.33609,-2.10646,1.70282,38.84,-29.0594,-0.62633,4.31089,0.437337,4.18028,-1.76497,10.9964,-8.00848,-0.00420004,0.033169,0.0990371,-0.0264985,-1.64918,0.0016846,0.186779,0.006841,-0.000223584,0.0342533,0.00202115,-0.0712556,-0.0199169,0.147044,-0.000773644,0,0,0,0,0,0,0,0.00751081,-31.8007,-0.137926,20.6747,0.800778,2.80785,0.131027,
0.0329426,0.101082,-0.0268047,-1.65018,0.009285,0.182092,0.00677717,-0.00673473,0.0580518,-0.00869996,-0.0299579,0.220392,-0.134606,-0.00169887,-1.75499,1.51944,-1.94328,2.4439,61.8156,-45.9772,-0.219353,4.25742,0.607124,4.115,-1.69846,10.9995,-7.78174,-0.00347027,0.0331787,0.100314,-0.0264612,-1.65583,0.00160224,0.190711,0.00683194,7.3575e-05,0.0433262,0.00420077,-0.229848,0.0633436,-0.0245229,-0.00124962,0.0371448,1.13411,0.272452,-19.8241,10.4076,-21.4459,-0.0594973,-0.0440639,-27.159,-0.16173,21.8213,1.63208,1.76049,0.164902,
0.0328179,0.101482,-0.0269385,-1.6503,0.0153386,0.177788,0.00676577,-0.00850585,0.0564412,-0.0103052,-0.0269612,0.327654,-0.215285,-0.00164417,-1.10695,-1.00658,-1.00328,1.87288,67.0392,-50.4249,0.0341866,4.19111,0.662322,4.04266,-1.63818,10.7463,-7.57913,-0.00286384,0.0331787,0.100314,-0.0264612,-1.65583,0.00160224,0.190711,0.00683194,7.3575e-05,0.0433262,0.00420077,-0.229848,0.0633436,-0.0245229,-0.00124962,0,0,0,0,0,0,0,-0.0440639,-27.159,-0.16173,21.8213,1.63208,1.76049,0.164902,
0.0332203,0.10143,-0.0264154,-1.65706,0.00166083,0.189883,0.00684239,-0.00576459,0.0730619,-0.00710012,-0.0522199,0.263588,-0.192913,-0.00105413,1.71328,10.3879,2.00318,-15.7867,-40.0415,13.9827,0.368773,-0.00172486,33.8643,-0.0226975,-23.1183,-1.00055,-2.14019,4.29107e-05,0.0331787,0.100314,-0.0264612,-1.65583,0.00160224,0.190711,0.00683194,7.3575e-05,0.0433262,0.00420077,-0.229848,0.0633436,-0.0245229,-0.00124962,0,0,0,0,0,0,0,-0.0440639,-27.159,-0.16173,21.8213,1.63208,1.76049,0.164902,
0.0336031,0.102335,-0.0260335,-1.65781,0.00385984,0.185312,0.00691851,0.00495774,0.0810655,0.00386656,-0.0605918,0.265846,-0.268598,0.00105971,6.70146,5.00225,6.85418,-5.23246,1.41111,-47.3033,1.32115,29.617,0.791239,28.679,-11.5355,10.9995,-14.1402,0.0958784,0.0331787,0.100314,-0.0264612,-1.65583,0.00160224,0.190711,0.00683194,7.3575e-05,0.0433262,0.00420077,-0.229848,0.0633436,-0.0245229,-0.00124962,0,0,0,0,0,0,0,-0.0440639,-27.159,-0.16173,21.8213,1.63208,1.76049,0.164902,
0.0342867,0.103041,-0.0253927,-1.65842,0.00764078,0.178468,0.00700698,0.0210568,0.0825042,0.0191143,-0.0636263,0.3072,-0.385986,0.00305956,10.0619,0.899222,9.52984,-1.89654,25.8464,-73.367,1.2499,28.4207,2.17814,27.0929,-9.61121,10.9872,-14.0729,0.104714,0.0332127,0.102752,-0.0263814,-1.66318,0.00597304,0.186929,0.00683011,0.010257,0.136272,0.0178382,-0.167286,0.045779,-0.255668,0.00129098,1.27293,11.6183,1.70468,7.82024,-2.19557,-28.8932,0.317575,2.97107,-34.8952,2.6114,25.4077,2.06512,-0.381845,0.0980684,
0.0352047,0.1036,-0.0245377,-1.65896,0.0125984,0.170165,0.00710005,0.039793,0.0799681,0.0366664,-0.0645881,0.369701,-0.516379,0.00477442,11.7101,-1.58505,10.9701,-0.60116,39.0631,-81.4957,1.07179,27.0759,2.26256,25.6513,-8.13778,10.9872,-14.0729,0.108291,0.0332127,0.102752,-0.0263814,-1.66318,0.00597304,0.186929,0.00683011,0.010257,0.136272,0.0178382,-0.167286,0.045779,-0.255668,0.00129098,0,0,0,0,0,0,0,2.97107,-34.8952,2.6114,25.4077,2.06512,-0.381845,0.0980684,
0.0333233,0.104254,-0.0262719,-1.66449,0.00601696,0.18521,0.00683636,0.0346007,0.101515,0.0320703,-0.0845763,0.296859,-0.456082,0.00397556,-3.24523,13.4669,-2.87253,-12.4926,-45.5264,37.6854,-0.499288,-0.00226822,33.9616,-0.0253027,-23.0992,-1.01281,-2.07288,-0.00012477,0.0332127,0.102752,-0.0263814,-1.66318,0.00597304,0.186929,0.00683011,0.010257,0.136272,0.0178382,-0.167286,0.045779,-0.255668,0.00129098,0,0,0,0,0,0,0,2.97107,-34.8952,2.6114,25.4077,2.06512,-0.381845,0.0980684,
0.0340073,0.10507,-0.0255767,-1.66607,0.00773439,0.180517,0.00710232,0.0447796,0.101609,0.0430371,-0.107163,0.280423,-0.482188,0.00982952,6.36185,0.0585059,6.85422,-14.1166,-10.2724,-16.3159,3.65872,43.4811,-5.93253,41.9133,-22.0681,10.9872,-14.0729,0.317672,0.0332127,0.102752,-0.0263814,-1.66318,0.00597304,0.186929,0.00683011,0.010257,0.136272,0.0178382,-0.167286,0.045779,-0.255668,0.00129098,0,0,0,0,0,0,0,2.97107,-34.8952,2.6114,25.4077,2.06512,-0.381845,0.0980684,
0.0351017,0.105548,-0.0245086,-1.66764,0.0109654,0.173669,0.00728561,0.0631836,0.0932417,0.061132,-0.124815,0.305114,-0.556968,0.0124459,11.5025,-5.22942,11.3093,-11.0325,15.4316,-46.7381,1.63522,38.5359,-3.47937,37.0541,-20.7791,10.8231,-13.9656,0.209217,0.0331539,0.10992,-0.0265986,-1.66348,0.0242455,0.162217,0.00680351,-0.00683731,0.20373,-0.00249837,0.0156818,0.695675,-1.01888,0.000493194,-2.13679,8.43217,-2.54207,22.871,81.237,-95.4018,-0.0997234,4.64527,-37.9659,4.56331,21.3214,2.95684,-1.86683,0.11821,
0.0332471,0.111423,-0.0264576,-1.66469,0.0275369,0.157296,0.00683387,0.0528792,0.112169,0.0524304,-0.129958,0.326375,-0.568588,0.0107158,-6.44023,11.8295,-5.43849,-3.21454,13.2886,-7.2622,-1.08131,-0.213246,34.469,-0.243015,-23.2846,-1.17685,-1.96559,0.00124983,0.0331539,0.10992,-0.0265986,-1.66348,0.0242455,0.162217,0.00680351,-0.00683731,0.20373,-0.00249837,0.0156818,0.695675,-1.01888,0.000493194,0,0,0,0,0,0,0,4.64527,-37.9659,4.56331,21.3214,2.95684,-1.86683,0.11821,
0.034191,0.111854,-0.0254967,-1.66702,0.0309286,0.151114,0.00726329,0.0658993,0.100507,0.065968,-0.162356,0.345893,-0.609432,0.0193081,8.13757,-7.28879,8.46096,-20.2486,12.1985,-25.5275,5.37022,53.259,-11.6797,50.7337,-32.549,10.8231,-13.9656,0.491248,0.0331539,0.10992,-0.0265986,-1.66348,0.0242455,0.162217,0.00680351,-0.00683731,0.20373,-0.00249837,0.0156818,0.695675,-1.01888,0.000493194,0,0,0,0,0,0,0,4.64527,-37.9659,4.56331,21.3214,2.95684,-1.86683,0.11821,
0.0356575,0.111971,-0.0240805,-1.66939,0.0350557,0.143372,0.00748103,0.0893824,0.0833357,0.0881798,-0.189085,0.379893,-0.681087,0.02089,14.6769,-10.732,13.8824,-16.7058,21.25,-44.7845,0.988639,45.0838,-7.47486,42.8931,-30.0627,10.8231,-13.9656,0.226516,0.0331539,0.10992,-0.0265986,-1.66348,0.0242455,0.162217,0.00680351,-0.00683731,0.20373,-0.00249837,0.0156818,0.695675,-1.01888,0.000493194,0,0,0,0,0,0,0,4.64527,-37.9659,4.56331,21.3214,2.95684,-1.86683,0.11821,
0.0374272,0.112011,-0.0223929,-1.6716,0.0400922,0.134483,0.00755488,0.11575,0.0676829,0.112733,-0.206423,0.429827,-0.767101,0.0185582,16.4795,-9.78303,15.346,-10.8361,31.2089,-53.7586,-1.45734,39.4507,-4.12335,37.5495,-27.5934,10.8231,-13.9656,0.0670966,0.0331539,0.10992,-0.0265986,-1.66348,0.0242455,0.162217,0.00680351,-0.00683731,0.20373,-0.00249837,0.0156818,0.695675,-1.01888,0.000493194,0,0,0,0,0,0,0,4.64527,-37.9659,4.56331,21.3214,2.95684,-1.86683,0.11821,
0.0366795,0.112471,-0.0219593,-1.67655,0.0565565,0.102616,0.00754431,0.138492,0.0460891,0.13381,-0.24594,0.465401,-0.869159,0.0199873,14.2142,-13.4961,13.1727,-24.6981,22.2337,-63.786,0.893174,58.7895,-15.5826,54.9171,-41.694,10.7752,-13.6833,0.572918,0.033512,0.113128,-0.0249808,-1.66977,0.0472036,0.122445,0.00682747,0.00889774,0.00817996,0.0897262,-0.424334,0.650157,-1.13903,-0.000718981,1.96688,-24.4437,11.5281,-55.002,-5.68978,-15.018,-0.151522,9.74323,-38.4142,8.96303,17.1121,2.75543,-2.35114,0.205185,
0.0387743,0.112239,-0.0199722,-1.6795,0.0621519,0.0920956,0.00755912,0.163162,0.0310734,0.156726,-0.270482,0.512206,-0.958335,0.0163602,15.4186,-9.38483,14.3225,-15.3385,29.2527,-55.7352,-2.26695,47.6545,-8.99136,44.9736,-37.6545,10.7752,-13.6833,0.195019,0.033512,0.113128,-0.0249808,-1.66977,0.0472036,0.122445,0.00682747,0.00889774,0.00817996,0.0897262,-0.424334,0.650157,-1.13903,-0.000718981,0,0,0,0,0,0,0,9.74323,-38.4142,8.96303,17.1121,2.75543,-2.35114,0.205185,
0.0409993,0.112085,-0.0178648,-1.68228,0.0684994,0.0817013,0.00748642,0.186155,0.0210146,0.178064,-0.285904,0.56845,-1.02653,0.0112707,14.3707,-6.28676,13.3361,-9.63908,35.1529,-42.6197,-3.18092,40.6446,-5.0592,38.555,-34.7478,10.7752,-13.4541,-0.0135458,0.033512,0.113128,-0.0249808,-1.66977,0.0472036,0.122445,0.00682747,0.00889774,0.00817996,0.0897262,-0.424334,0.650157,-1.13903,-0.000718981,0,0,0,0,0,0,0,9.74323,-38.4142,8.96303,17.1121,2.75543,-2.35114,0.205185,
0.0432805,0.111973,-0.0157061,-1.68498,0.0754922,0.0716608,0.00741864,0.205954,0.0140031,0.196419,-0.296078,0.62958,-1.07223,0.00732201,12.3743,-4.38221,11.4719,-6.35856,38.2064,-28.5669,-2.46793,36.1549,-3.13213,34.3547,-32.6661,10.7752,-12.5153,-0.105954,0.033512,0.113128,-0.0249808,-1.66977,0.0472036,0.122445,0.00682747,0.00889774,0.00817996,0.0897262,-0.424334,0.650157,-1.13903,-0.000718981,0,0,0,0,0,0,0,9.74323,-38.4142,8.96303,17.1121,2.75543,-2.35114,0.205185,
0.0387999,0.111889,-0.0161914,-1.69522,0.0824087,0.0593427,0.00715783,0.218739,0.00748045,0.20876,-0.32853,0.6664,-1.10808,0.00483034,7.9908,-4.07663,7.71302,-20.2824,23.0121,-22.403,-1.55729,48.5985,-7.25009,45.9029,-43.0275,10.7826,-10.0903,0.154281,0.034793,0.1123,-0.0200576,-1.68763,0.0695785,0.0803145,0.00703179,0.0757903,-0.0342363,0.240965,-0.505089,0.849175,-1.52159,-0.000349076,8.36157,-5.30203,18.9049,-10.0943,24.8773,-47.8206,0.0462381,16.1107,-35.4189,15.5844,23.067,4.77691,-2.01972,0.272019,
0.0410982,0.111827,-0.0140028,-1.69871,0.0893438,0.0503928,0.00700779,0.232448,0.00445062,0.221721,-0.350053,0.706499,-1.11021,0.00011305,8.56821,-1.89364,8.10106,-13.4519,25.0618,-1.33182,-2.94831,40.6914,-4.09667,38.6375,-40.3693,10.7826,-9.31603,-0.0941303,0.034793,0.1123,-0.0200576,-1.68763,0.0695785,0.0803145,0.00703179,0.0757903,-0.0342363,0.240965,-0.505089,0.849175,-1.52159,-0.000349076,0,0,0,0,0,0,0,16.1107,-35.4189,15.5844,23.067,4.77691,-2.01972,0.272019,
0.0434473,0.111808,-0.0117707,-1.70208,0.0967177,0.0425131,0.00685456,0.244688,0.00306654,0.233181,-0.364406,0.749547,-1.08516,-0.00374021,7.64969,-0.865049,7.16262,-8.97087,26.9055,15.6554,-2.40829,35.762,-2.67548,34.0373,-38.4546,10.7826,-7.90002,-0.207779,0.034793,0.1123,-0.0200576,-1.68763,0.0695785,0.0803145,0.00703179,0.0757903,-0.0342363,0.240965,-0.505089,0.849175,-1.52159,-0.000349076,0,0,0,0,0,0,0,16.1107,-35.4189,15.5844,23.067,4.77691,-2.01972,0.272019,
0.0457855,0.111784,-0.00955115,-1.70539,0.104487,0.0356065,0.00671862,0.254205,0.00185529,0.242033,-0.374209,0.79386,-1.04079,-0.00639063,5.94844,-0.757032,5.5322,-6.12653,27.6955,27.7296,-1.65651,32.4529,-2.46861,30.9151,-37.307,10.7826,-6.72198,-0.196521,0.034793,0.1123,-0.0200576,-1.68763,0.0695785,0.0803145,0.00703179,0.0757903,-0.0342363,0.240965,-0.505089,0.849175,-1.52159,-0.000349076,0,0,0,0,0,0,0,16.1107,-35.4189,15.5844,23.067,4.77691,-2.01972,0.272019,
0.0359362,0.113433,-0.0189197,-1.69009,0.0741497,0.070604,0.00704932,0.231943,0.02981,0.222074,-0.360755,0.74937,-1.0754,-0.00467412,-13.9139,17.4717,-12.4746,8.40858,-27.8066,-21.6273,1.07282,0.582758,35.3768,0.44853,-22.9367,-0.975473,-0.642191,-0.00214535,0.0416585,0.109032,-0.00671059,-1.71051,0.10031,0.0235996,0.0071949,0.355658,-0.127074,0.390848,-0.788286,1.01216,-1.64985,-0.0020661,34.9834,-11.6047,18.7353,-35.3996,20.3736,-16.0323,-0.214629,24.7554,-32.8719,22.5867,19.5798,4.23309,-0.779184,0.218918,
0.0374991,0.113747,-0.0174295,-1.69404,0.0793865,0.0642181,0.00694354,0.224627,0.0316858,0.214913,-0.387368,0.730415,-1.01997,-0.00638391,-4.57263,1.17237,-4.47563,-16.633,-11.8466,34.645,-1.06862,40.1056,-4.65142,37.9009,-45.5135,11.0245,-2.20695,-0.173153,0.0416585,0.109032,-0.00671059,-1.71051,0.10031,0.0235996,0.0071949,0.355658,-0.127074,0.390848,-0.788286,1.01216,-1.64985,-0.0020661,0,0,0,0,0,0,0,24.7554,-32.8719,22.5867,19.5798,4.23309,-0.779184,0.218918,
0.0392843,0.113908,-0.0157296,-1.69813,0.085284,0.0595401,0.00672086,0.224333,0.0293797,0.214429,-0.412094,0.73177,-0.932923,-0.010674,-0.183564,-1.44136,-0.302332,-15.4539,0.846778,54.4011,-2.68128,34.8154,-3.71189,33.063,-43.844,11.0245,-0.757891,-0.306436,0.0416585,0.109032,-0.00671059,-1.71051,0.10031,0.0235996,0.0071949,0.355658,-0.127074,0.390848,-0.788286,1.01216,-1.64985,-0.0020661,0,0,0,0,0,0,0,24.7554,-32.8719,22.5867,19.5798,4.23309,-0.779184,0.218918,
0.0562545,0.109369,0.00715651,-1.73546,0.153932,0.00273639,0.00595533,0.231711,0.0263534,0.221199,-0.420986,0.809959,-0.70459,-0.0124954,4.61092,-1.89139,4.23122,-5.5579,48.8679,142.708,-1.13838,25.8261,-3.78255,24.6891,-41.7161,11.0245,1.62621,-0.284905,0.0416585,0.109032,-0.00671059,-1.71051,0.10031,0.0235996,0.0071949,0.355658,-0.127074,0.390848,-0.788286,1.01216,-1.64985,-0.0020661,0,0,0,0,0,0,0,24.7554,-32.8719,22.5867,19.5798,4.23309,-0.779184,0.218918,
0.0582452,0.10945,0.00904861,-1.73898,0.162834,0.00572252,0.00581845,0.235137,0.0231117,0.224262,-0.424815,0.870519,-0.489019,-0.0134182,2.14157,-2.02608,1.91431,-2.39262,37.8501,134.732,-0.57674,23.9423,-3.71031,22.8584,-40.0245,10.9724,2.87915,-0.301089,0.057843,0.106675,0.00663851,-1.73891,0.136206,-0.0259815,0.00683435,0.521414,-0.0292502,0.426248,-0.764331,1.075,-1.26607,0.0061407,20.7195,12.228,4.42502,2.99437,7.85418,47.9729,1.02585,18.0864,-29.8528,16.8857,23.9874,3.88519,2.56249,0.0843355,
0.0601472,0.109498,0.0108563,-1.74238,0.171653,0.0097436,0.00570379,0.235658,0.0196954,0.224602,-0.424749,0.916882,-0.290688,-0.0136012,0.32576,-2.13521,0.212659,0.0409716,28.977,123.957,-0.114382,22.6712,-3.19503,21.6435,-39.1665,10.9724,3.77418,-0.284563,0.057843,0.106675,0.00663851,-1.73891,0.136206,-0.0259815,0.00683435,0.521414,-0.0292502,0.426248,-0.764331,1.075,-1.26607,0.0061407,0,0,0,0,0,0,0,18.0864,-29.8528,16.8857,23.9874,3.88519,2.56249,0.0843355,
0.0619688,0.109516,0.0125877,-1.74566,0.180391,0.0145505,0.00560826,0.234067,0.0162108,0.222966,-0.421725,0.951955,-0.112378,-0.0132691,-0.99443,-2.17785,-1.02273,1.88983,21.9206,111.444,0.207524,21.7712,-2.84745,20.7705,-38.3792,10.9724,5.57249,-0.252045,0.057843,0.106675,0.00663851,-1.73891,0.136206,-0.0259815,0.00683435,0.521414,-0.0292502,0.426248,-0.764331,1.075,-1.26607,0.0061407,0,0,0,0,0,0,0,18.0864,-29.8528,16.8857,23.9874,3.88519,2.56249,0.0843355,
0.0718464,0.108413,0.0198704,-1.75978,0.183511,-0.0312734,0.00610546,0.244576,0.0199002,0.232711,-0.427744,0.995947,-0.0136286,-0.0132076,6.56777,2.3059,6.09069,-3.76193,27.4947,61.7181,0.038435,21.0252,-2.7523,20.0538,-37.7904,10.9724,6.9694,-0.221096,0.057843,0.106675,0.00663851,-1.73891,0.136206,-0.0259815,0.00683435,0.521414,-0.0292502,0.426248,-0.764331,1.075,-1.26607,0.0061407,0,0,0,0,0,0,0,18.0864,-29.8528,16.8857,23.9874,3.88519,2.56249,0.0843355,
0.0739715,0.108624,0.0218856,-1.76321,0.192725,-0.0271405,0.00602266,0.248787,0.0211853,0.236548,-0.427799,1.02712,0.0924195,-0.0126363,2.63218,0.803148,2.39851,-0.0342957,19.4817,66.2801,0.357108,20.4137,-3.03376,19.3828,-36.1947,10.8759,8.69285,-0.199425,0.0765941,0.107003,0.0276859,-1.76938,0.172515,-0.050718,0.00615089,0.509734,-0.0606034,0.732487,-1.10258,1.33829,-0.238051,-0.0245183,-1.45997,-3.91915,38.2799,-42.2811,32.9116,128.502,-3.83237,8.65223,-35.1689,8.58613,25.257,5.57067,3.11913,0.104477,
0.0759548,0.108774,0.0237667,-1.76646,0.201781,-0.0222476,0.00595808,0.248613,0.0206951,0.236267,-0.423698,1.0481,0.196258,-0.0117234,-0.109137,-0.306387,-0.175773,2.56304,13.1145,64.8993,0.570531,19.8307,-2.97472,18.8344,-35.7418,10.8759,9.41582,-0.172455,0.0765941,0.107003,0.0276859,-1.76938,0.172515,-0.050718,0.00615089,0.509734,-0.0606034,0.732487,-1.10258,1.33829,-0.238051,-0.0245183,0,0,0,0,0,0,0,8.65223,-35.1689,8.58613,25.257,5.57067,3.11913,0.104477,
0.0778171,0.108871,0.0255333,-1.76958,0.210692,-0.016849,0.00591177,0.245448,0.0189877,0.233177,-0.416803,1.06124,0.291972,-0.0105364,-1.97812,-1.06711,-1.93123,4.30965,8.21419,59.8207,0.741871,19.3067,-2.8473,18.3452,-35.291,10.8759,9.87545,-0.144377,0.0765941,0.107003,0.0276859,-1.76938,0.172515,-0.050718,0.00615089,0.509734,-0.0606034,0.732487,-1.10258,1.33829,-0.238051,-0.0245183,0,0,0,0,0,0,0,8.65223,-35.1689,8.58613,25.257,5.57067,3.11913,0.104477,
0.100611,0.111995,0.0503825,-1.80054,0.259651,-0.0293296,0.00619956,0.23893,0.0186667,0.226852,-0.398078,1.04171,0.34149,-0.00672185,-4.07326,-0.200652,-3.95327,11.7031,-12.2086,30.9489,2.3841,17.203,-1.60697,16.3983,-32.9067,10.8759,9.66708,-0.0337765,0.0765941,0.107003,0.0276859,-1.76938,0.172515,-0.050718,0.00615089,0.509734,-0.0606034,0.732487,-1.10258,1.33829,-0.238051,-0.0245183,0,0,0,0,0,0,0,8.65223,-35.1689,8.58613,25.257,5.57067,3.11913,0.104477,
0.102198,0.112074,0.0518839,-1.80303,0.266702,-0.0250131,0.0062684,0.230801,0.0169106,0.219016,-0.380566,1.00965,0.381103,-0.00365639,-5.08114,-1.09751,-4.89716,10.9451,-20.035,24.7583,1.91592,16.5897,-1.67738,15.6987,-31.8366,10.5561,9.68644,-0.0210234,0.0936788,0.107845,0.0551471,-1.80745,0.221072,-0.0445607,0.00560809,0.53762,0.0893138,0.81776,-1.03794,1.50865,0.444009,-0.0109047,3.48575,18.7397,10.6591,8.07949,21.2952,85.2574,1.70169,-1.15887,-42.2585,-0.963121,35.921,1.84539,6.4013,0.0577852,
0.103695,0.112106,0.0533003,-1.80541,0.272837,-0.0207674,0.00633317,0.222079,0.0143282,0.210624,-0.363979,0.961097,0.411025,-0.00130587,-5.45132,-1.61402,-5.24558,10.3671,-30.3474,18.701,1.46907,16.2401,-1.44006,15.375,-31.3531,10.5561,9.34571,-0.00398836,0.0936788,0.107845,0.0551471,-1.80745,0.221072,-0.0445607,0.00560809,0.53762,0.0893138,0.81776,-1.03794,1.50865,0.444009,-0.0109047,0,0,0,0,0,0,0,-1.15887,-42.2585,-0.963121,35.921,1.84539,6.4013,0.0577852,
0.145359,0.106162,0.092639,-1.87939,0.248511,0.118824,0.00859748,0.184068,0.00912049,0.174512,-0.299763,0.773634,0.354594,-0.00120843,-23.7564,-3.25483,-22.5698,40.1345,-117.165,-35.2691,0.0609048,3.83881,0.198175,3.82811,-2.87239,1.26459,2.45767,-0.0222161,0.0936788,0.107845,0.0551471,-1.80745,0.221072,-0.0445607,0.00560809,0.53762,0.0893138,0.81776,-1.03794,1.50865,0.444009,-0.0109047,0,0,0,0,0,0,0,-1.15887,-42.2585,-0.963121,35.921,1.84539,6.4013,0.0577852,
0.118715,0.110522,0.0766497,-1.81158,0.407853,-0.0767222,0.00432018,0.14747,0.00401421,0.138837,-0.236679,0.654507,0.288724,-0.00133321,-22.8741,-3.19142,-22.2966,39.4277,-74.4542,-41.1686,-0.0779904,3.87455,0.203796,3.88144,-2.47482,1.80962,2.01252,-0.024561,0.0936788,0.107845,0.0551471,-1.80745,0.221072,-0.0445607,0.00560809,0.53762,0.0893138,0.81776,-1.03794,1.50865,0.444009,-0.0109047,0,0,0,0,0,0,0,-1.15887,-42.2585,-0.963121,35.921,1.84539,6.4013,0.0577852,
0.118724,0.110391,0.0766189,-1.81146,0.409273,-0.0765212,0.00430554,0.118191,-7.18253e-05,0.110298,-0.186219,0.5591,0.236003,-0.00143273,-18.2994,-2.55377,-17.8372,31.5373,-59.6294,-32.9508,-0.0621996,3.79023,-0.576819,3.71613,-2.25735,2.09612,1.17178,-0.0270961,0.112366,0.111561,0.074675,-1.83653,0.270215,-0.0203355,0.00545614,0.594044,0.15302,0.473466,-0.859261,1.56843,0.897567,-0.00107544,7.05298,7.96333,-43.0368,22.3353,7.47231,56.6949,1.22866,-13.509,-41.8855,-12.012,30.2399,1.04522,3.83507,0.0779268,
0.118732,0.110259,0.076588,-1.81133,0.410688,-0.0763213,0.0042909,0.0947675,-0.00334168,0.0874663,-0.145859,0.482669,0.193801,-0.00151204,-14.6396,-2.04366,-14.2697,25.225,-47.7693,-26.3765,-0.0495675,3.85523,-0.563336,3.80012,-1.87724,2.86108,0.555745,-0.0285172,0.112366,0.111561,0.074675,-1.83653,0.270215,-0.0203355,0.00545614,0.594044,0.15302,0.473466,-0.859261,1.56843,0.897567,-0.00107544,0,0,0,0,0,0,0,-13.509,-41.8855,-12.012,30.2399,1.04522,3.83507,0.0779268,
0.127407,0.120315,0.088564,-1.84304,0.341846,-0.0431422,0.00517019,0.0930127,0.000697873,0.0855328,-0.119641,0.48619,0.117847,-0.00178974,-1.09676,2.52472,-1.20843,16.3867,2.20041,-47.4708,-0.173563,3.51063,-0.338095,3.54493,-0.0594379,7.61143,-3.04396,-0.0110625,0.112366,0.111561,0.074675,-1.83653,0.270215,-0.0203355,0.00545614,0.594044,0.15302,0.473466,-0.859261,1.56843,0.897567,-0.00107544,0,0,0,0,0,0,0,-13.509,-41.8855,-12.012,30.2399,1.04522,3.83507,0.0779268,
0.127983,0.120382,0.0890747,-1.84311,0.345231,-0.0442503,0.00514776,0.0888093,0.00223598,0.0811917,-0.0972499,0.473582,0.0665736,-0.00199253,-2.62707,0.961315,-2.71318,13.9943,-7.87978,-32.0461,-0.126741,2.9783,-0.235967,3.03437,0.342941,8.51132,-3.58989,0.00945506,0.112366,0.111561,0.074675,-1.83653,0.270215,-0.0203355,0.00545614,0.594044,0.15302,0.473466,-0.859261,1.56843,0.897567,-0.00107544,0,0,0,0,0,0,0,-13.509,-41.8855,-12.012,30.2399,1.04522,3.83507,0.0779268,
0.12846,0.1204,0.0894886,-1.84312,0.348175,-0.04507,0.00512628,0.0829898,0.00222645,0.0753026,-0.0782361,0.452481,0.0327677,-0.0021312,-3.63719,-0.00595122,-3.6807,11.8836,-13.1881,-21.1287,-0.0866696,2.02671,-0.162225,2.14309,0.763681,9.5313,-4.06503,0.0303258,0.112366,0.111561,0.074675,-1.83653,0.270215,-0.0203355,0.00545614,0.594044,0.15302,0.473466,-0.859261,1.56843,0.897567,-0.00107544,0,0,0,0,0,0,0,-13.509,-41.8855,-12.012,30.2399,1.04522,3.83507,0.0779268,
0.128854,0.120381,0.0898207,-1.84311,0.3508,-0.0456677,0.00510575,0.0762329,0.00130574,0.068545,-0.0621713,0.427595,0.0112718,-0.0022182,-4.22308,-0.575448,-4.22349,10.0406,-15.5538,-13.435,-0.0543774,0.553973,-0.7296,0.466628,0.8036,9.95574,-4.53937,0.00761551,0.127445,0.116507,0.0944221,-1.85959,0.30942,-0.00177644,0.00545886,0.334343,0.220416,0.523347,-0.345052,1.00233,-0.0205734,-0.00365794,-32.4627,8.42443,6.23506,64.2761,-70.7628,-114.768,-0.322813,-18.7101,-49.0981,-17.2845,37.7142,-0.292362,1.05736,0.017502,
0.136466,0.12158,0.102615,-1.86317,0.340937,-0.0142342,0.00519823,0.0889672,0.0128016,0.0802298,-0.0580596,0.448729,-0.036015,-0.00254897,7.95893,7.18494,7.30299,2.56979,13.209,-29.5542,-0.206733,0.437348,-0.787771,-0.743534,1.19951,9.16942,-3.60555,-0.0334586,0.127445,0.116507,0.0944221,-1.85959,0.30942,-0.00177644,0.00545886,0.334343,0.220416,0.523347,-0.345052,1.00233,-0.0205734,-0.00365794,0,0,0,0,0,0,0,-18.7101,-49.0981,-17.2845,37.7142,-0.292362,1.05736,0.017502,
0.137373,0.1219,0.103427,-1.8634,0.344589,-0.0156877,0.00517024,0.0938459,0.0182449,0.0844931,-0.0522642,0.450288,-0.0651497,-0.00273913,3.0492,3.40203,2.66457,3.62212,0.974242,-18.2092,-0.118849,-0.0284517,-0.645541,-0.702526,1.80223,4.96704,-1.01097,-0.0527308,0.127445,0.116507,0.0944221,-1.85959,0.30942,-0.00177644,0.00545886,0.334343,0.220416,0.523347,-0.345052,1.00233,-0.0205734,-0.00365794,0,0,0,0,0,0,0,-18.7101,-49.0981,-17.2845,37.7142,-0.292362,1.05736,0.017502,
0.138107,0.122109,0.104074,-1.86355,0.347782,-0.0168471,0.00514471,0.0934179,0.0198111,0.083768,-0.0456539,0.440042,-0.081105,-0.00282958,-0.267529,0.978872,-0.453177,4.13146,-6.40412,-9.97208,-0.0565316,0.20042,-0.793733,-0.324179,1.87474,3.192,-0.00972182,-0.0234882,0.127445,0.116507,0.0944221,-1.85959,0.30942,-0.00177644,0.00545886,0.334343,0.220416,0.523347,-0.345052,1.00233,-0.0205734,-0.00365794,0,0,0,0,0,0,0,-18.7101,-49.0981,-17.2845,37.7142,-0.292362,1.05736,0.017502,
0.148706,0.125826,0.110069,-1.86265,0.373191,-0.019598,0.00523438,0.0875643,0.0158522,0.0778537,-0.0361609,0.418863,-0.0781733,-0.00283458,-3.6585,-2.47429,-3.69644,5.93312,-13.2369,1.83232,-0.00312152,0.0955912,-1.10142,-0.525973,1.75482,2.13608,0.419519,-0.0198558,0.141234,0.123705,0.103327,-1.8618,0.343393,-0.0120098,0.00546486,0.271499,0.189019,0.28475,0.0234272,1.02742,-0.315564,-0.00310436,-7.85547,-3.92465,-29.8246,46.0599,3.13698,-36.8739,0.0691978,-20.1027,-51.6411,-17.3361,31.5848,0.025326,-1.11061,0.0843355,
0.149121,0.125792,0.110409,-1.86261,0.375626,-0.019999,0.00521311,0.0804076,0.0118238,0.0707712,-0.027896,0.395981,-0.0725624,-0.00279938,-4.47295,-2.51777,-4.42661,5.16557,-14.3011,3.50683,0.0219945,0.0955912,-1.10142,-0.525973,1.75482,2.13608,0.419519,-0.0198558,0.141234,0.123705,0.103327,-1.8618,0.343393,-0.0120098,0.00546486,0.271499,0.189019,0.28475,0.0234272,1.02742,-0.315564,-0.00310436,0,0,0,0,0,0,0,-20.1027,-51.6411,-17.3361,31.5848,0.025326,-1.11061,0.0843355,
0.149455,0.125733,0.110673,-1.86255,0.377877,-0.0202882,0.00519309,0.0726921,0.00798202,0.0632146,-0.0207584,0.373042,-0.0652792,-0.00273988,-4.82217,-2.4011,-4.72286,4.46097,-14.3366,4.55201,0.0371929,0.0955912,-1.10142,-0.525973,1.75482,2.13608,0.419519,-0.0198558,0.141234,0.123705,0.103327,-1.8618,0.343393,-0.0120098,0.00546486,0.271499,0.189019,0.28475,0.0234272,1.02742,-0.315564,-0.00310436,0,0,0,0,0,0,0,-20.1027,-51.6411,-17.3361,31.5848,0.025326,-1.11061,0.0843355,
0.149726,0.125656,0.110876,-1.86247,0.379982,-0.0204828,0.00517408,0.0649198,0.00446301,0.0556498,-0.0146367,0.351051,-0.0570904,-0.00266716,-4.85772,-2.19938,-4.72797,3.82607,-13.7443,5.11799,0.0454464,0.0955912,-1.10142,-0.525973,1.75482,2.13608,0.419519,-0.0198558,0.141234,0.123705,0.103327,-1.8618,0.343393,-0.0120098,0.00546486,0.271499,0.189019,0.28475,0.0234272,1.02742,-0.315564,-0.00310436,0,0,0,0,0,0,0,-20.1027,-51.6411,-17.3361,31.5848,0.025326,-1.11061,0.0843355,
0.152777,0.128104,0.11651,-1.86206,0.390749,-0.0154381,0.00526555,0.0599044,0.0016851,0.0506401,-0.00955227,0.335176,-0.0493193,-0.00263378,-3.13461,-1.73619,-3.13106,3.17777,-9.92227,4.85693,0.0208622,0.0879436,-1.33531,-0.600518,1.78915,2.00189,0.347822,-0.0194999,0.147924,0.127667,0.112352,-1.86218,0.370214,-0.013883,0.00545137,0.279225,0.0589479,0.0900144,-0.0238954,0.593039,0.0278417,-0.00146822,0.965811,-16.2588,-24.3419,-5.91532,-54.2982,42.9258,0.204517,-12.902,-41.0088,-11.9604,24.6619,-1.19599,-0.846018,0.131027,
0.153033,0.128014,0.116696,-1.86196,0.39279,-0.0155286,0.00524663,0.0543397,-0.000897562,0.0451659,-0.00521241,0.31916,-0.0417178,-0.00258003,-3.47793,-1.61416,-3.4214,2.71241,-10.0097,4.75094,0.0335942,0.0879436,-1.33531,-0.600518,1.78915,2.00189,0.347822,-0.0194999,0.147924,0.127667,0.112352,-1.86218,0.370214,-0.013883,0.00545137,0.279225,0.0589479,0.0900144,-0.0238954,0.593039,0.0278417,-0.00146822,0,0,0,0,0,0,0,-12.902,-41.0088,-11.9604,24.6619,-1.19599,-0.846018,0.131027,
0.153241,0.127914,0.116836,-1.86185,0.394724,-0.0155681,0.00522855,0.0486525,-0.00320943,0.0396181,-0.00152778,0.303686,-0.0343627,-0.00251594,-3.55453,-1.44492,-3.46739,2.3029,-9.67164,4.59695,0.0400556,0.0879436,-1.33531,-0.600518,1.78915,2.00189,0.347822,-0.0194999,0.147924,0.127667,0.112352,-1.86218,0.370214,-0.013883,0.00545137,0.279225,0.0589479,0.0900144,-0.0238954,0.593039,0.0278417,-0.00146822,0,0,0,0,0,0,0,-12.902,-41.0088,-11.9604,24.6619,-1.19599,-0.846018,0.131027,
0.153408,0.127808,0.116938,-1.86174,0.396573,-0.0155624,0.00521113,0.0431174,-0.00522556,0.0342471,0.00158562,0.289163,-0.0273478,-0.00244812,-3.45942,-1.26008,-3.35684,1.94588,-9.07689,4.38431,0.0423889,0.0879436,-1.33531,-0.600518,1.78915,2.00189,0.347822,-0.0194999,0.147924,0.127667,0.112352,-1.86218,0.370214,-0.013883,0.00545137,0.279225,0.0589479,0.0900144,-0.0238954,0.593039,0.0278417,-0.00146822,0,0,0,0,0,0,0,-12.902,-41.0088,-11.9604,24.6619,-1.19599,-0.846018,0.131027,
0.149179,0.127974,0.113457,-1.86227,0.374239,-0.0139815,0.00541731,0.065881,0.00349038,0.0550162,-0.00100101,0.331945,-0.0243417,-0.00280998,14.2273,5.44747,12.9807,-1.61665,26.7388,1.87881,-0.226162,0.114045,-1.39731,-0.592104,1.69621,1.92428,0.293051,-0.0188203,0.152325,0.12801,0.113811,-1.86211,0.387837,-0.0136377,0.00546003,0.0336319,-0.0103392,0.0882903,0.0128859,0.465627,0.00900342,-0.000816124,-30.6992,-8.66088,-0.215512,4.59766,-15.9265,-2.35479,0.081512,-3.90026,-35.1213,-2.46276,23.8406,0.929867,-0.560373,0.0303194,
0.150164,0.128151,0.114327,-1.8623,0.377764,-0.0142356,0.00538455,0.0773182,0.00722198,0.0657543,-0.00167845,0.353683,-0.0258246,-0.00306692,7.14824,2.33225,6.71129,-0.423401,13.5864,-0.926788,-0.160586,0.114045,-1.39731,-0.592104,1.69621,1.92428,0.293051,-0.0188203,0.152325,0.12801,0.113811,-1.86211,0.387837,-0.0136377,0.00546003,0.0336319,-0.0103392,0.0882903,0.0128859,0.465627,0.00900342,-0.000816124,0,0,0,0,0,0,0,-3.90026,-35.1213,-2.46276,23.8406,0.929867,-0.560373,0.0303194,
0.150944,0.128236,0.115005,-1.8623,0.380889,-0.014539,0.00535578,0.0813663,0.0079018,0.0695776,-0.0012646,0.361064,-0.0282461,-0.00317278,2.53002,0.424883,2.38959,0.25866,4.613,-1.51344,-0.0661627,0.114045,-1.39731,-0.592104,1.69621,1.92428,0.293051,-0.0188203,0.152325,0.12801,0.113811,-1.86211,0.387837,-0.0136377,0.00546003,0.0336319,-0.0103392,0.0882903,0.0128859,0.465627,0.00900342,-0.000816124,0,0,0,0,0,0,0,-3.90026,-35.1213,-2.46276,23.8406,0.929867,-0.560373,0.0303194,
0.15411,0.127081,0.115143,-1.8611,0.40422,-0.013279,0.00532799,0.0683492,0.0028408,0.0573694,0.00252898,0.334677,-0.0198813,-0.00295946,-8.13564,-3.16313,-7.63014,2.37099,-16.4918,5.22797,0.133322,0.114045,-1.39731,-0.592104,1.69621,1.92428,0.293051,-0.0188203,0.152325,0.12801,0.113811,-1.86211,0.387837,-0.0136377,0.00546003,0.0336319,-0.0103392,0.0882903,0.0128859,0.465627,0.00900342,-0.000816124,0,0,0,0,0,0,0,-3.90026,-35.1213,-2.46276,23.8406,0.929867,-0.560373,0.0303194,
0.154217,0.126944,0.115189,-1.86096,0.405978,-0.0131526,0.00531154,0.0573515,-0.00114695,0.0470417,0.00552881,0.311699,-0.0127454,-0.00277881,-6.87357,-2.49234,-6.45484,1.87489,-14.3614,4.45997,0.112906,0.107593,-1.41605,-0.609031,1.67584,1.87457,0.292008,-0.01868,0.154222,0.127527,0.115762,-1.8616,0.402006,-0.0128844,0.00546063,0.0202228,-0.00463149,0.0929201,0.00135438,0.385213,-0.00130273,0.000448531,-1.67614,0.713462,0.578717,-1.44144,-10.0517,-1.28827,0.158082,0.539127,-35.4942,0.961012,24.8087,1.33819,0.334097,0.0376436,
0.154305,0.12681,0.115217,-1.86082,0.407678,-0.0130107,0.00529542,0.0480799,-0.00427292,0.0383252,0.00789754,0.291847,-0.00664762,-0.0026261,-5.79475,-1.95373,-5.44778,1.48046,-12.4072,3.8111,0.0954427,0.107593,-1.41605,-0.609031,1.67584,1.87457,0.292008,-0.01868,0.154222,0.127527,0.115762,-1.8616,0.402006,-0.0128844,0.00546063,0.0202228,-0.00463149,0.0929201,0.00135438,0.385213,-0.00130273,0.000448531,0,0,0,0,0,0,0,0.539127,-35.4942,0.961012,24.8087,1.33819,0.334097,0.0376436,
0.154377,0.126678,0.11523,-1.86068,0.409331,-0.0128554,0.00527956,0.0402796,-0.00671166,0.0309849,0.00976488,0.274799,-0.00143527,-0.00249724,-4.87522,-1.52421,-4.58771,1.16709,-10.6551,3.25772,0.0805369,0.107593,-1.41605,-0.609031,1.67584,1.87457,0.292008,-0.01868,0.154222,0.127527,0.115762,-1.8616,0.402006,-0.0128844,0.00546063,0.0202228,-0.00463149,0.0929201,0.00135438,0.385213,-0.00130273,0.000448531,0,0,0,0,0,0,0,0.539127,-35.4942,0.961012,24.8087,1.33819,0.334097,0.0376436,
0.155718,0.126951,0.116858,-1.86093,0.414956,-0.0129422,0.00534945,0.0357678,-0.00833864,0.0267348,0.0109162,0.264673,0.000514712,-0.00241988,-2.81986,-1.01686,-2.65628,0.719596,-6.32869,1.21874,0.0483555,0.107585,-1.41626,-0.609064,1.67607,1.87174,0.295203,-0.0186772,0.154222,0.127527,0.115762,-1.8616,0.402006,-0.0128844,0.00546063,0.0202228,-0.00463149,0.0929201,0.00135438,0.385213,-0.00130273,0.000448531,0,0,0,0,0,0,0,0.539127,-35.4942,0.961012,24.8087,1.33819,0.334097,0.0376436,
0.155834,0.126831,0.116911,-1.86081,0.416676,-0.0128492,0.00533298,0.0315144,-0.00969262,0.0227194,0.0118859,0.254741,0.00273788,-0.00234754,-2.65836,-0.846238,-2.50964,0.60606,-6.20734,1.38948,0.0452088,0.0981295,-1.43482,-0.626797,1.66804,1.82967,0.29894,-0.0185019,0.155794,0.127468,0.116849,-1.8613,0.413628,-0.0136746,0.00546063,0.0180364,0.00951837,0.049276,0.013287,0.243135,-0.0510858,-0.000455169,-0.273303,1.76873,-5.45551,1.49157,-17.7597,-6.22289,-0.112962,-0.222592,-37.7159,0.913405,24.7372,3.71399,1.93902,0.0376436,
0.155929,0.126709,0.116945,-1.86068,0.418339,-0.0127331,0.00531685,0.0275913,-0.0107995,0.0190103,0.0126971,0.245359,0.00509125,-0.00228118,-2.45193,-0.691804,-2.31823,0.506969,-5.86433,1.47086,0.041476,0.0981313,-1.43482,-0.626795,1.66803,1.82968,0.29891,-0.0185019,0.155794,0.127468,0.116849,-1.8613,0.413628,-0.0136746,0.00546063,0.0180364,0.00951837,0.049276,0.013287,0.243135,-0.0510858,-0.000455169,0,0,0,0,0,0,0,-0.222592,-37.7159,0.913405,24.7372,3.71399,1.93902,0.0376436,
0.156008,0.126587,0.116962,-1.86055,0.419956,-0.0125975,0.005301,0.0240328,-0.0116913,0.0156422,0.0133713,0.236711,0.00746365,-0.00222119,-2.22409,-0.557397,-2.10506,0.421389,-5.40448,1.48275,0.037497,0.0981328,-1.43482,-0.626793,1.66803,1.8297,0.298879,-0.018502,0.155794,0.127468,0.116849,-1.8613,0.413628,-0.0136746,0.00546063,0.0180364,0.00951837,0.049276,0.013287,0.243135,-0.0510858,-0.000455169,0,0,0,0,0,0,0,-0.222592,-37.7159,0.913405,24.7372,3.71399,1.93902,0.0376436,
0.156626,0.127227,0.11735,-1.86092,0.422188,-0.0140446,0.00537507,0.0218911,-0.011398,0.0135828,0.0130927,0.229095,0.00729417,-0.00217827,-1.33853,0.183363,-1.28711,-0.17414,-4.76051,-0.105929,0.0268235,0.0979825,-1.43689,-0.627202,1.67031,1.79991,0.330931,-0.018475,0.155794,0.127468,0.116849,-1.8613,0.413628,-0.0136746,0.00546063,0.0180364,0.00951837,0.049276,0.013287,0.243135,-0.0510858,-0.000455169,0,0,0,0,0,0,0,-0.222592,-37.7159,0.913405,24.7372,3.71399,1.93902,0.0376436,
0.156713,0.127137,0.117374,-1.86082,0.42374,-0.0139514,0.00535927,0.0197003,-0.0113722,0.0114842,0.0130625,0.222067,0.00816476,-0.0021375,-1.36923,0.0160957,-1.31161,-0.0188371,-4.392,0.54412,0.0254793,0.0980088,-1.43686,-0.627172,1.67029,1.80011,0.330603,-0.0184754,0.155794,0.127468,0.116849,-1.8613,0.413628,-0.0136746,0.00546063,0.0180364,0.00951837,0.049276,0.013287,0.243135,-0.0510858,-0.000455169,0,0,0,0,0,0,0,-0.222592,-37.7159,0.913405,24.7372,3.71399,1.93902,0.0376436,
0.156786,0.127041,0.117385,-1.86071,0.425261,-0.0138255,0.00534369,0.0175629,-0.0115091,0.00944192,0.0131896,0.215697,0.00967894,-0.00209967,-1.33591,-0.0855382,-1.27642,0.0794261,-3.98167,0.946363,0.0236457,0.098011,-1.44109,-0.635638,1.66878,1.77055,0.342101,-0.018478,0.15759,0.127624,0.117775,-1.86145,0.422244,-0.0145732,0.00546145,0.054982,-0.00294262,0.00839315,-0.00238895,0.225143,-0.0458607,0.000519286,4.6182,-1.55762,-5.11035,-1.95949,-2.24907,0.653141,0.121807,-1.94836,-38.6879,-1.18529,28.2999,3.26812,2.19811,0.0303194,
0.156845,0.12694,0.117383,-1.86059,0.426759,-0.0136732,0.00532827,0.0155429,-0.0117377,0.00751542,0.0134092,0.209993,0.0115517,-0.00206514,-1.26252,-0.142898,-1.20406,0.137225,-3.56506,1.17047,0.0215785,0.0980287,-1.44105,-0.635616,1.66875,1.77075,0.341768,-0.0184784,0.15759,0.127624,0.117775,-1.86145,0.422244,-0.0145732,0.00546145,0.054982,-0.00294262,0.00839315,-0.00238895,0.225143,-0.0458607,0.000519286,0,0,0,0,0,0,0,-1.94836,-38.6879,-1.18529,28.2999,3.26812,2.19811,0.0303194,
0.158547,0.127202,0.118326,-1.86103,0.430889,-0.0139656,0.0053655,0.0147418,-0.0117499,0.00672596,0.0132859,0.200676,0.0166928,-0.00204238,-0.500694,-0.00761582,-0.493415,-0.0770606,-5.82298,3.2132,0.0142232,0.0978576,-1.46091,-0.638191,1.69022,1.48113,0.646537,-0.0182258,0.15759,0.127624,0.117775,-1.86145,0.422244,-0.0145732,0.00546145,0.054982,-0.00294262,0.00839315,-0.00238895,0.225143,-0.0458607,0.000519286,0,0,0,0,0,0,0,-1.94836,-38.6879,-1.18529,28.2999,3.26812,2.19811,0.0303194,
0.158623,0.127103,0.11834,-1.86092,0.432168,-0.0136269,0.00535008,0.0136953,-0.0118907,0.00571033,0.0133538,0.19252,0.0218202,-0.00201935,-0.654017,-0.0879845,-0.634771,0.0424191,-5.09721,3.20462,0.0143991,0.0980076,-1.46058,-0.638011,1.68999,1.48313,0.643322,-0.0182301,0.15759,0.127624,0.117775,-1.86145,0.422244,-0.0145732,0.00546145,0.054982,-0.00294262,0.00839315,-0.00238895,0.225143,-0.0458607,0.000519286,0,0,0,0,0,0,0,-1.94836,-38.6879,-1.18529,28.2999,3.26812,2.19811,0.0303194,
0.158686,0.126999,0.11834,-1.8608,0.433425,-0.0132572,0.00533483,0.0125288,-0.0121051,0.00458636,0.0135373,0.185437,0.0267,-0.00199684,-0.729054,-0.134023,-0.70248,0.1147,-4.42715,3.04986,0.0140659,0.0979558,-1.46988,-0.640708,1.68176,1.46166,0.642764,-0.0182159,0.158593,0.127393,0.118066,-1.86139,0.428855,-0.0149942,0.00545925,0.0147736,-0.00888091,0.00533151,0.0016388,0.181631,0.00243543,-0.000113637,-5.02605,-0.742287,-0.382704,0.503469,-5.43902,6.03701,-0.0791154,-0.627255,-36.617,0.413527,26.2051,3.76342,0.672842,0.050461,
0.159749,0.120294,0.115839,-1.85365,0.429996,0.081066,0.00455,0.0100511,-0.0119419,0.00232113,0.0132283,0.165338,0.0353509,-0.00191511,-1.5486,0.102007,-1.41577,-0.193118,-12.5619,5.40681,0.0510815,0.121225,-1.48905,-0.618588,1.7105,0.805691,1.16265,-0.018136,0.158593,0.127393,0.118066,-1.86139,0.428855,-0.0149942,0.00545925,0.0147736,-0.00888091,0.00533151,0.0016388,0.181631,0.00243543,-0.000113637,0,0,0,0,0,0,0,-0.627255,-36.617,0.413527,26.2051,3.76342,0.672842,0.050461,
0.159607,0.119694,0.115,-1.85319,0.510934,0.00746839,0.00445824,0.00824685,-0.0123493,0.000638143,0.013298,0.162933,0.0324255,-0.00188099,-1.12765,-0.254655,-1.05186,0.0435946,-1.50304,-1.82838,0.0213257,0.120718,-1.48699,-0.618714,1.70857,0.836664,1.13329,-0.0181496,0.158593,0.127393,0.118066,-1.86139,0.428855,-0.0149942,0.00545925,0.0147736,-0.00888091,0.00533151,0.0016388,0.181631,0.00243543,-0.000113637,0,0,0,0,0,0,0,-0.627255,-36.617,0.413527,26.2051,3.76342,0.672842,0.050461,
0.159616,0.119582,0.114951,-1.85308,0.512157,0.00763369,0.0044443,0.00680337,-0.0126751,-0.000707586,0.0133463,0.160931,0.0300728,-0.00185346,-0.902175,-0.203587,-0.841081,0.0301368,-1.25117,-1.47041,0.0172063,0.12022,-1.48492,-0.618825,1.70664,0.868002,1.10376,-0.0181625,0.158593,0.127393,0.118066,-1.86139,0.428855,-0.0149942,0.00545925,0.0147736,-0.00888091,0.00533151,0.0016388,0.181631,0.00243543,-0.000113637,0,0,0,0,0,0,0,-0.627255,-36.617,0.413527,26.2051,3.76342,0.672842,0.050461,
0.159624,0.11947,0.114903,-1.85297,0.513378,0.0077985,0.00443036,0.00564849,-0.0129355,-0.00178351,0.0133773,0.159252,0.0281784,-0.0018312,-0.721799,-0.16274,-0.672452,0.0193818,-1.0495,-1.18398,0.0139104,0.124704,-1.46428,-0.61666,1.68049,0.88034,1.06666,-0.0181387,0.159255,0.127278,0.118131,-1.86082,0.435152,-0.0130641,0.0054568,0.015412,0.00213904,-0.00897977,0.0257436,0.168231,0.130003,0.000684251,0.0798036,1.37749,-1.78891,3.0131,-1.67489,15.9459,0.0997361,-0.325741,-38.1404,0.361952,25.4593,2.48718,0.725943,0.0706026,
0.160097,0.116425,0.113281,-1.84945,0.559667,0.00758159,0.00405862,0.00472387,-0.0131489,-0.00263173,0.0131974,0.155447,0.0266549,-0.00180861,-0.577889,-0.133396,-0.530139,-0.112395,-2.37796,-0.952217,0.0141198,0.124704,-1.46428,-0.61666,1.68049,0.88034,1.06666,-0.0181387,0.159255,0.127278,0.118131,-1.86082,0.435152,-0.0130641,0.0054568,0.015412,0.00213904,-0.00897977,0.0257436,0.168231,0.130003,0.000684251,0,0,0,0,0,0,0,-0.325741,-38.1404,0.361952,25.4593,2.48718,0.725943,0.0706026,
0.160097,0.116425,0.113281,-1.84945,0.559667,0.00758159,0.00405862,0.00398417,-0.0133196,-0.00331031,0.0130536,0.152403,0.0254361,-0.00179054,-0.462311,-0.106717,-0.424111,-0.089916,-1.90237,-0.761774,0.0112958,0.124704,-1.46428,-0.61666,1.68049,0.88034,1.06666,-0.0181387,0.159255,0.127278,0.118131,-1.86082,0.435152,-0.0130641,0.0054568,0.015412,0.00213904,-0.00897977,0.0257436,0.168231,0.130003,0.000684251,0,0,0,0,0,0,0,-0.325741,-38.1404,0.361952,25.4593,2.48718,0.725943,0.0706026,
0.160097,0.116425,0.113281,-1.84945,0.559667,0.00758159,0.00405862,0.00339241,-0.0134562,-0.00385317,0.0129385,0.149968,0.024461,-0.00177608,-0.369849,-0.0853737,-0.339289,-0.0719328,-1.5219,-0.609419,0.00903665,0.124704,-1.46428,-0.61666,1.68049,0.88034,1.06666,-0.0181387,0.159255,0.127278,0.118131,-1.86082,0.435152,-0.0130641,0.0054568,0.015412,0.00213904,-0.00897977,0.0257436,0.168231,0.130003,0.000684251,0,0,0,0,0,0,0,-0.325741,-38.1404,0.361952,25.4593,2.48718,0.725943,0.0706026,
0.160097,0.116425,0.113281,-1.84945,0.559667,0.00758159,0.00405862,0.00291901,-0.0135655,-0.00428746,0.0128464,0.14802,0.0236809,-0.00176451,-0.295879,-0.0682989,-0.271431,-0.0575462,-1.21752,-0.487535,0.00722932,0.160206,-1.39784,-0.585209,1.61058,0.862193,1.03243,-0.0182045,0.159325,0.127253,0.11775,-1.8606,0.444487,-0.00559263,0.00544439,-0.00137882,0.00325488,-0.0166507,0.00931833,0.357005,0.226749,-0.000522182,-2.09886,0.13948,-0.958871,-2.05316,23.5967,12.0933,-0.150804,1.01917,-38.7871,1.96077,26.2289,3.63525,-0.891794,0.0980684,
0.159317,0.1278,0.117745,-1.86092,0.446132,-0.00383368,0.00543105,0.00213522,0.00282011,-0.00355113,0.0022801,0.159527,0.0629184,-0.00174495,-0.489869,10.241,0.460205,-6.60394,7.19187,24.5234,0.0122269,0.0448729,32.2782,-0.757987,-21.2962,-2.67606,0.103318,-0.00980613,0.159325,0.127253,0.11775,-1.8606,0.444487,-0.00559263,0.00544439,-0.00137882,0.00325488,-0.0166507,0.00931833,0.357005,0.226749,-0.000522182,0,0,0,0,0,0,0,1.01917,-38.7871,1.96077,26.2289,3.63525,-0.891794,0.0980684,
0.159776,0.127979,0.118392,-1.86114,0.442769,0.000681103,0.00549072,0.0131871,0.00672675,0.0133315,-0.00379485,0.0435415,0.163204,9.57792e-05,6.90745,2.44165,10.5516,-3.79685,-72.4912,62.6787,1.15046,14.1464,-6.55133,14.114,2.30501,-14.6761,12.1033,0.0195875,0.159325,0.127253,0.11775,-1.8606,0.444487,-0.00559263,0.00544439,-0.00137882,0.00325488,-0.0166507,0.00931833,0.357005,0.226749,-0.000522182,0,0,0,0,0,0,0,1.01917,-38.7871,1.96077,26.2289,3.63525,-0.891794,0.0980684,
0.160623,0.127923,0.119276,-1.86129,0.436298,0.00692016,0.00553471,0.0317172,0.00399334,0.0327815,-0.00660808,-0.126936,0.28654,0.00117642,11.5813,-1.70838,12.1562,-1.75827,-106.549,77.0847,0.6754,14.4517,-6.77976,13.5065,2.1118,-14.6761,12.1033,0.0184625,0.159325,0.127253,0.11775,-1.8606,0.444487,-0.00559263,0.00544439,-0.00137882,0.00325488,-0.0166507,0.00931833,0.357005,0.226749,-0.000522182,0,0,0,0,0,0,0,1.01917,-38.7871,1.96077,26.2289,3.63525,-0.891794,0.0980684,
0.160804,0.126303,0.118413,-1.8599,0.450024,0.0102442,0.00556413,0.0462254,-0.0085718,0.0450055,-0.00575312,-0.247558,0.380458,0.00197354,9.06761,-7.85321,7.64004,0.534351,-75.3887,58.6988,0.498201,14.7724,-7.55721,9.26573,-0.48434,-14.7228,12.089,0.0485256,0.15937,0.127188,0.117294,-1.85982,0.458434,4.91184e-05,0.00544662,-0.00169472,-0.00506761,-0.0125177,0.0323417,0.310607,0.0984779,0.000105013,-0.0394874,-1.04031,0.516633,2.87792,-5.79975,-16.0339,0.0783993,0.336795,-36.617,0.762648,22.468,1.04522,-0.295786,0.0376436,
0.161791,0.125846,0.119346,-1.85987,0.44211,0.0174794,0.00559141,0.0616607,-0.0182707,0.0593194,-0.00392069,-0.395898,0.485247,0.00226075,9.64712,-6.06184,8.94617,1.14527,-92.7122,65.4929,0.179504,12.9564,-5.18475,10.4475,0.313275,-14.7228,12.089,0.0157068,0.15937,0.127188,0.117294,-1.85982,0.458434,4.91184e-05,0.00544662,-0.00169472,-0.00506761,-0.0125177,0.0323417,0.310607,0.0984779,0.000105013,0,0,0,0,0,0,0,0.336795,-36.617,0.762648,22.468,1.04522,-0.295786,0.0376436,
0.162865,0.125426,0.120365,-1.85983,0.432876,0.0254699,0.00561147,0.0761658,-0.0251299,0.0729234,-0.0019396,-0.54757,0.587959,0.00231031,9.06565,-4.28699,8.50252,1.23818,-94.7954,64.1952,0.030979,12.6573,-4.15915,11.1045,0.528339,-14.7228,12.089,0.0119719,0.15937,0.127188,0.117294,-1.85982,0.458434,4.91184e-05,0.00544662,-0.00169472,-0.00506761,-0.0125177,0.0323417,0.310607,0.0984779,0.000105013,0,0,0,0,0,0,0,0.336795,-36.617,0.762648,22.468,1.04522,-0.295786,0.0376436,
0.16398,0.125048,0.121422,-1.85977,0.422796,0.0339408,0.00562744,0.0888206,-0.029533,0.0847657,-0.000267363,-0.690054,0.682139,0.0022475,7.90926,-2.75192,7.40139,1.04515,-89.0524,58.8628,-0.0392578,12.676,-3.55617,11.4883,0.590666,-14.7228,12.089,0.010912,0.15937,0.127188,0.117294,-1.85982,0.458434,4.91184e-05,0.00544662,-0.00169472,-0.00506761,-0.0125177,0.0323417,0.310607,0.0984779,0.000105013,0,0,0,0,0,0,0,0.336795,-36.617,0.762648,22.468,1.04522,-0.295786,0.0376436,
0.167471,0.124522,0.125531,-1.86017,0.386004,0.065745,0.00554163,0.0996471,-0.0282606,0.095045,-0.000244436,-0.835614,0.776975,0.00214925,6.76654,0.795224,6.42458,0.0143293,-90.9751,59.2724,-0.0614032,12.7495,-2.38056,11.7129,-0.173969,-14.8607,11.8405,0.0150936,0.161528,0.125606,0.119911,-1.86017,0.440132,0.019547,0.00547202,0.151268,-0.0469629,0.148483,-0.0448961,-1.13323,1.1796,-0.00219176,19.1203,-5.23691,20.1251,-9.65473,-180.48,135.14,-0.287097,7.46204,-37.7913,6.28908,27.8992,-3.11402,5.35393,0.050461,
0.168596,0.124352,0.126604,-1.86019,0.374566,0.0749833,0.00555531,0.107844,-0.0268579,0.10288,-0.000559658,-0.954442,0.852536,0.00206142,5.12325,0.87673,4.89672,-0.197013,-74.2673,47.2253,-0.0548984,12.8753,-2.07971,11.9332,-0.197013,-14.8607,11.8405,0.0156378,0.161528,0.125606,0.119911,-1.86017,0.440132,0.019547,0.00547202,0.151268,-0.0469629,0.148483,-0.0448961,-1.13323,1.1796,-0.00219176,0,0,0,0,0,0,0,7.46204,-37.7913,6.28908,27.8992,-3.11402,5.35393,0.050461,
0.169706,0.124197,0.127665,-1.86021,0.363069,0.0842015,0.00556831,0.11401,-0.0253665,0.108807,-0.00114461,-1.05096,0.912484,0.00197402,3.85366,0.932114,3.70464,-0.365595,-60.3228,37.4677,-0.0546249,12.9633,-1.85497,12.1417,-0.237487,-14.8607,11.8405,0.0175626,0.161528,0.125606,0.119911,-1.86017,0.440132,0.019547,0.00547202,0.151268,-0.0469629,0.148483,-0.0448961,-1.13323,1.1796,-0.00219176,0,0,0,0,0,0,0,7.46204,-37.7913,6.28908,27.8992,-3.11402,5.35393,0.050461,
0.170792,0.124057,0.128697,-1.86027,0.351814,0.0933975,0.0055786,0.118368,-0.0237718,0.112849,-0.00234171,-1.12215,0.959888,0.00183665,2.72345,0.996701,2.5264,-0.748187,-44.4974,29.6273,-0.085855,13.0207,-1.69309,12.2919,-0.294686,-14.8607,11.8405,0.0184709,0.161528,0.125606,0.119911,-1.86017,0.440132,0.019547,0.00547202,0.151268,-0.0469629,0.148483,-0.0448961,-1.13323,1.1796,-0.00219176,0,0,0,0,0,0,0,7.46204,-37.7913,6.28908,27.8992,-3.11402,5.35393,0.050461,
0.16276,0.125351,0.121069,-1.86021,0.4301,0.0287751,0.00548713,0.125491,-0.0253934,0.119236,-0.00309867,-1.14851,0.998613,0.00184713,4.45193,-1.01356,3.99161,-0.473101,-16.475,24.2035,0.00655049,12.5827,-1.11645,11.5137,-1.45488,-14.9912,11.2916,0.0214418,0.168026,0.123991,0.125996,-1.86096,0.389368,0.0715989,0.0054734,0.263779,-0.016642,0.189414,0.000303083,-1.88512,1.71609,0.000748885,14.0639,3.79012,5.11639,5.6499,-93.9864,67.0613,0.367581,4.03827,-36.0933,4.31337,27.2009,0.0866663,3.41118,0.0101778,
0.163973,0.125123,0.122211,-1.8602,0.4195,0.0379988,0.00550007,0.130726,-0.0260317,0.123929,-0.00214535,-1.18383,1.02948,0.00180117,3.27217,-0.398915,2.93295,0.595826,-22.0698,19.2937,-0.0287273,12.7085,-0.815602,11.7341,-1.47793,-14.9912,11.2916,0.0219859,0.168026,0.123991,0.125996,-1.86096,0.389368,0.0715989,0.0054734,0.263779,-0.016642,0.189414,0.000303083,-1.88512,1.71609,0.000748885,0,0,0,0,0,0,0,4.03827,-36.0933,4.31337,27.2009,0.0866663,3.41118,0.0101778,
0.165162,0.124908,0.123335,-1.86018,0.408539,0.0472417,0.00551353,0.134304,-0.0261996,0.127246,-0.00123541,-1.22107,1.05466,0.00177746,2.23595,-0.104945,2.07348,0.568711,-23.2774,15.7342,-0.0148196,12.7965,-0.590863,11.9425,-1.5184,-14.9912,11.2916,0.0239108,0.168026,0.123991,0.125996,-1.86096,0.389368,0.0715989,0.0054734,0.263779,-0.016642,0.189414,0.000303083,-1.88512,1.71609,0.000748885,0,0,0,0,0,0,0,4.03827,-36.0933,4.31337,27.2009,0.0866663,3.41118,0.0101778,
0.166327,0.124707,0.124441,-1.86017,0.397346,0.0564945,0.00552758,0.136569,-0.0259772,0.129457,-0.00071277,-1.25668,1.07505,0.00177331,1.41559,0.139028,1.38167,0.326651,-22.2544,12.7428,-0.00259354,12.8539,-0.428983,12.0928,-1.5756,-14.9912,11.2916,0.0248191,0.168026,0.123991,0.125996,-1.86096,0.389368,0.0715989,0.0054734,0.263779,-0.016642,0.189414,0.000303083,-1.88512,1.71609,0.000748885,0,0,0,0,0,0,0,4.03827,-36.0933,4.31337,27.2009,0.0866663,3.41118,0.0101778,
0.175573,0.123438,0.132993,-1.86109,0.318941,0.133865,0.00548032,0.135296,-0.0227207,0.127945,-0.00315563,-1.25168,1.09501,0.00161256,-0.795457,2.03533,-0.945101,-1.52679,3.12615,12.4771,-0.100464,12.9341,-0.223891,12.2712,-1.725,-14.9912,11.2916,0.0239189,0.168026,0.123991,0.125996,-1.86096,0.389368,0.0715989,0.0054734,0.263779,-0.016642,0.189414,0.000303083,-1.88512,1.71609,0.000748885,0,0,0,0,0,0,0,4.03827,-36.0933,4.31337,27.2009,0.0866663,3.41118,0.0101778,
0.176579,0.123372,0.133936,-1.86121,0.309762,0.14312,0.00548961,0.133386,-0.0198234,0.125915,-0.0055866,-1.23082,1.10737,0.00152215,-1.19361,1.8108,-1.26838,-1.51936,13.0362,7.7244,-0.0565115,12.7221,-0.179979,12.0954,-1.75071,-14.753,11.0017,0.022622,0.17736,0.12307,0.135011,-1.86166,0.33111,0.128157,0.00547901,0.319539,-0.00978481,0.232826,-0.0252316,-1.67808,1.60095,0.00248916,6.97001,0.857144,5.4265,-3.19183,25.8805,-14.3923,0.217534,-0.551876,-37.2914,0.211195,25.6339,0.514218,3.06603,-0.0026396,
0.177558,0.123317,0.134854,-1.86135,0.301226,0.152268,0.00549967,0.131202,-0.0172253,0.123685,-0.00789384,-1.19806,1.11461,0.0014693,-1.36506,1.6238,-1.39417,-1.44202,20.4746,4.52836,-0.0330296,12.7607,-0.11845,12.1456,-1.8337,-13.7807,11.0017,0.0213721,0.17736,0.12307,0.135011,-1.86166,0.33111,0.128157,0.00547901,0.319539,-0.00978481,0.232826,-0.0252316,-1.67808,1.60095,0.00248916,0,0,0,0,0,0,0,-0.551876,-37.2914,0.211195,25.6339,0.514218,3.06603,-0.0026396,
0.196654,0.122517,0.15272,-1.86212,0.274879,0.178879,0.00519145,0.118127,-0.0144499,0.111199,-0.00748559,-0.985753,0.897888,0.00103824,-8.17204,1.73464,-7.8034,0.255155,132.69,-135.454,-0.269413,10.2072,1.56384,9.57857,-2.67059,-3.19696,3.53356,0.00898284,0.17736,0.12307,0.135011,-1.86166,0.33111,0.128157,0.00547901,0.319539,-0.00978481,0.232826,-0.0252316,-1.67808,1.60095,0.00248916,0,0,0,0,0,0,0,-0.551876,-37.2914,0.211195,25.6339,0.514218,3.06603,-0.0026396,
0.197169,0.122491,0.153199,-1.86217,0.273803,0.17911,0.005186,0.107353,-0.0122278,0.10091,-0.00711872,-0.815517,0.72409,0.000694333,-6.73367,1.3888,-6.4309,0.229296,106.398,-108.624,-0.21494,10.0099,1.56939,9.38653,-2.65284,-3.08025,3.14337,0.00818215,0.17736,0.12307,0.135011,-1.86166,0.33111,0.128157,0.00547901,0.319539,-0.00978481,0.232826,-0.0252316,-1.67808,1.60095,0.00248916,0,0,0,0,0,0,0,-0.551876,-37.2914,0.211195,25.6339,0.514218,3.06603,-0.0026396,
0.19767,0.122464,0.153664,-1.86221,0.272742,0.179328,0.0051806,0.0984171,-0.0104493,0.0923745,-0.0067804,-0.678944,0.584722,0.00042035,-5.58485,1.11157,-5.33457,0.211448,85.3582,-87.1045,-0.171239,9.4618,2.01575,8.83238,-3.03146,-2.85798,2.43361,0.0103115,0.187316,0.122728,0.144684,-1.86296,0.26943,0.185396,0.00547634,0.348952,0.00377278,0.237295,-0.0607178,-1.74338,1.79778,0.00118358,3.67657,1.6947,0.558545,-4.43578,-8.16255,24.6047,-0.163198,-1.49212,-37.9659,-0.312487,27.3993,0.660702,3.27843,0.0303194,
0.198159,0.122437,0.154118,-1.86225,0.271696,0.179536,0.00517524,0.0909492,-0.00902625,0.08524,-0.00646059,-0.569305,0.472976,0.00020229,-4.66748,0.88939,-4.45907,0.199879,68.5246,-69.8414,-0.136288,9.26607,2.00949,8.64247,-3.01109,-2.76603,2.11733,0.00959492,0.187316,0.122728,0.144684,-1.86296,0.26943,0.185396,0.00547634,0.348952,0.00377278,0.237295,-0.0607178,-1.74338,1.79778,0.00118358,0,0,0,0,0,0,0,-1.49212,-37.9659,-0.312487,27.3993,0.660702,3.27843,0.0303194,
0.197477,0.12203,0.153471,-1.86081,0.254394,0.207851,0.00507648,0.0725962,-0.00757944,0.0675947,-0.0035837,-0.38305,0.347917,0.000121011,-11.4706,0.904256,-11.0283,1.79806,116.409,-78.1619,-0.0507991,4.30359,1.68354,3.88424,-2.05322,-1.95037,-0.157926,0.00478576,0.187316,0.122728,0.144684,-1.86296,0.26943,0.185396,0.00547634,0.348952,0.00377278,0.237295,-0.0607178,-1.74338,1.79778,0.00118358,0,0,0,0,0,0,0,-1.49212,-37.9659,-0.312487,27.3993,0.660702,3.27843,0.0303194,
0.197484,0.121999,0.153418,-1.86076,0.257407,0.206606,0.00506126,0.058256,-0.00685582,0.0527402,-0.00178189,-0.231103,0.24722,-0.000283802,-8.96262,0.452262,-9.28408,1.12613,94.9668,-62.9358,-0.253008,4.13572,1.68137,3.72454,-2.01272,-1.93274,-0.152193,0.00485081,0.187316,0.122728,0.144684,-1.86296,0.26943,0.185396,0.00547634,0.348952,0.00377278,0.237295,-0.0607178,-1.74338,1.79778,0.00118358,0,0,0,0,0,0,0,-1.49212,-37.9659,-0.312487,27.3993,0.660702,3.27843,0.0303194,
0.197501,0.121957,0.15338,-1.86073,0.260215,0.20546,0.00505069,0.0470256,-0.0065181,0.0412594,-0.000499023,-0.114695,0.169121,-0.000491107,-7.01901,0.211073,-7.17548,0.801792,72.755,-48.8117,-0.129566,4.53074,0.242888,4.17434,-0.660634,-1.20641,-0.00251148,-0.00259744,0.19654,0.124033,0.152426,-1.8647,0.230979,0.230236,0.0054482,0.233835,0.0436461,0.154157,-0.00433644,-0.56129,0.733294,0.000625496,-14.3896,4.98416,-10.3923,7.04767,147.761,-133.061,-0.0697599,-1.3374,-39.287,0.988783,24.1382,4.87487,-2.81532,0.14476,
0.197524,0.121911,0.153347,-1.86069,0.262895,0.204375,0.00503912,0.03821,-0.00637046,0.0321813,0.000538938,-0.0247644,0.108185,-0.000682235,-5.50975,0.0922779,-5.67383,0.648726,56.2066,-38.0848,-0.119455,4.36388,0.241638,4.01571,-0.619979,-1.18579,0.00495572,-0.0025343,0.19654,0.124033,0.152426,-1.8647,0.230979,0.230236,0.0054482,0.233835,0.0436461,0.154157,-0.00433644,-0.56129,0.733294,0.000625496,0,0,0,0,0,0,0,-1.3374,-39.287,0.988783,24.1382,4.87487,-2.81532,0.14476,
0.201353,0.123806,0.156036,-1.86319,0.269115,0.223179,0.00513322,0.0312191,-0.00637228,0.0248552,0.00149803,0.0428196,0.0608943,-0.000870093,-4.36929,-0.00113612,-4.57883,0.599431,42.24,-29.557,-0.117411,1.78902,0.250633,1.59044,0.079995,0.300208,-0.210443,-0.00283623,0.19654,0.124033,0.152426,-1.8647,0.230979,0.230236,0.0054482,0.233835,0.0436461,0.154157,-0.00433644,-0.56129,0.733294,0.000625496,0,0,0,0,0,0,0,-1.3374,-39.287,0.988783,24.1382,4.87487,-2.81532,0.14476,
0.201376,0.123755,0.155998,-1.86314,0.271605,0.222162,0.00512024,0.0255625,-0.00637918,0.0189306,0.00227559,0.0965085,0.0232989,-0.00102075,-3.53541,-0.00431704,-3.70285,0.485976,33.5556,-23.4971,-0.0941633,1.66264,0.248266,1.4743,0.122667,0.546877,-0.296924,-0.00284227,0.19654,0.124033,0.152426,-1.8647,0.230979,0.230236,0.0054482,0.233835,0.0436461,0.154157,-0.00433644,-0.56129,0.733294,0.000625496,0,0,0,0,0,0,0,-1.3374,-39.287,0.988783,24.1382,4.87487,-2.81532,0.14476,
0.201397,0.123703,0.155958,-1.8631,0.274082,0.221154,0.00510724,0.0209834,-0.00639089,0.0141376,0.002907,0.139135,-0.00656589,-0.00114147,-2.8619,-0.00731882,-2.99559,0.394634,26.6414,-18.6655,-0.0754471,1.72679,-0.000828875,1.53789,0.336053,0.97851,-0.404562,-0.00386537,0.201967,0.125499,0.156748,-1.86491,0.222265,0.24245,0.00544899,0.121988,0.014212,0.0352365,0.00191581,0.0366359,0.196306,0.00385066,-13.9809,-3.67925,-14.865,0.781531,74.7408,-67.1235,0.403145,-1.94836,-41.8102,0.0644055,25.0586,2.60894,0.725943,0.0577852,
0.203458,0.12561,0.158061,-1.86459,0.2271,0.243181,0.0053983,0.0230261,-0.00530303,0.0167197,0.00429944,0.152535,-0.013678,-0.0010967,1.27666,0.679917,1.61378,0.870273,8.37514,-4.44508,0.0279833,1.599,-0.00826287,1.41961,0.378754,1.27735,-0.532525,-0.00352935,0.201967,0.125499,0.156748,-1.86491,0.222265,0.24245,0.00544899,0.121988,0.014212,0.0352365,0.00191581,0.0366359,0.196306,0.00385066,0,0,0,0,0,0,0,-1.94836,-41.8102,0.0644055,25.0586,2.60894,0.725943,0.0577852,
0.203655,0.125593,0.158223,-1.86451,0.229029,0.242605,0.00539457,0.0233363,-0.00466794,0.0174313,0.00532752,0.170244,-0.0253513,-0.000970703,0.193857,0.396927,0.444742,0.642547,11.0683,-7.29579,0.0787461,1.46635,-0.0194398,1.29412,0.420105,1.60274,-0.687038,-0.00276066,0.201967,0.125499,0.156748,-1.86491,0.222265,0.24245,0.00544899,0.121988,0.014212,0.0352365,0.00191581,0.0366359,0.196306,0.00385066,0,0,0,0,0,0,0,-1.94836,-41.8102,0.0644055,25.0586,2.60894,0.725943,0.0577852,
0.203808,0.125571,0.158336,-1.86444,0.231262,0.241819,0.00539261,0.0224916,-0.00428412,0.0167741,0.00604389,0.192035,-0.0399095,-0.000825471,-0.527891,0.239891,-0.410764,0.447731,13.6195,-9.09888,0.0907699,1.32533,-0.035149,1.15383,0.457642,1.95422,-0.866699,-0.00124469,0.201967,0.125499,0.156748,-1.86491,0.222265,0.24245,0.00544899,0.121988,0.014212,0.0352365,0.00191581,0.0366359,0.196306,0.00385066,0,0,0,0,0,0,0,-1.94836,-41.8102,0.0644055,25.0586,2.60894,0.725943,0.0577852,
0.203922,0.125548,0.158406,-1.86437,0.23382,0.240847,0.00538916,0.0208393,-0.00400906,0.0151821,0.00653562,0.217582,-0.056232,-0.000746639,-1.0327,0.171909,-0.994947,0.307331,15.9667,-10.2016,0.04927,1.18871,-0.0631221,0.987394,0.472979,2.30859,-1.06038,0.00138239,0.203889,0.125996,0.158532,-1.86466,0.232942,0.2414,0.00545667,0.0497959,0.00560058,0.00970576,0.0245427,0.256824,-0.0429352,-0.000582257,-9.02395,-1.07643,-3.19134,2.82836,27.5235,-29.9051,-0.554115,-0.932736,-37.343,0.0366345,23.5153,0.00701543,2.36382,0.0303194,
0.204584,0.125741,0.158849,-1.86413,0.253009,0.23423,0.00538475,0.0181962,-0.00456656,0.0121019,0.00642535,0.241821,-0.0721361,-0.000907277,-1.65196,-0.348439,-1.92512,-0.068914,15.1492,-9.94006,-0.100399,0.653481,-0.0956793,0.266728,0.530757,3.70216,-1.64906,0.00391551,0.203889,0.125996,0.158532,-1.86466,0.232942,0.2414,0.00545667,0.0497959,0.00560058,0.00970576,0.0245427,0.256824,-0.0429352,-0.000582257,0,0,0,0,0,0,0,-0.932736,-37.343,0.0366345,23.5153,0.00701543,2.36382,0.0303194,
0.204638,0.125687,0.15884,-1.86409,0.255653,0.233161,0.00537203,0.0159044,-0.00500324,0.00944804,0.00630781,0.259556,-0.0844294,-0.00104383,-1.43236,-0.272924,-1.65869,-0.0734625,11.0847,-7.68329,-0.0853456,0.40099,-0.0847014,0.0690584,0.602733,4.07692,-1.81668,0.000118932,0.203889,0.125996,0.158532,-1.86466,0.232942,0.2414,0.00545667,0.0497959,0.00560058,0.00970576,0.0245427,0.256824,-0.0429352,-0.000582257,0,0,0,0,0,0,0,-0.932736,-37.343,0.0366345,23.5153,0.00701543,2.36382,0.0303194,
0.204685,0.125633,0.158824,-1.86404,0.25825,0.232106,0.00535915,0.0139035,-0.00533655,0.00715232,0.00619494,0.272572,-0.0939237,-0.00115712,-1.25059,-0.208315,-1.43482,-0.0705471,8.13488,-5.93397,-0.070804,0.115936,-0.134673,-0.0596306,0.690008,4.19503,-1.92997,0.00249819,0.203889,0.125996,0.158532,-1.86466,0.232942,0.2414,0.00545667,0.0497959,0.00560058,0.00970576,0.0245427,0.256824,-0.0429352,-0.000582257,0,0,0,0,0,0,0,-0.932736,-37.343,0.0366345,23.5153,0.00701543,2.36382,0.0303194,
0.204726,0.125581,0.158802,-1.86399,0.260812,0.231062,0.00534619,0.0121531,-0.00558587,0.00516485,0.00609213,0.282119,-0.101237,-0.00124959,-1.09398,-0.155826,-1.24217,-0.064252,5.96711,-4.57056,-0.0577971,0.167931,-0.510131,-0.601845,0.468914,4.03396,-1.76219,-0.0167608,0.205066,0.125624,0.159588,-1.86423,0.243729,0.23822,0.00545716,0.00885815,-0.0310131,0.0236029,0.0184057,0.443033,-0.18329,0.00081193,-5.11722,-4.57671,1.73714,-0.76712,23.2761,-17.5444,0.174273,-1.36517,-34.6214,0.0644055,23.6661,2.74902,1.15624,0.0577852,
0.20555,0.124977,0.159832,-1.86385,0.255851,0.233447,0.00540994,0.0123511,-0.00758175,0.00519801,0.00682969,0.293484,-0.107228,-0.0013067,0.123773,-1.24743,0.0207265,0.460973,7.10295,-3.74452,-0.035692,0.172993,-0.518564,-0.598143,0.473709,3.83956,-1.64776,-0.0166184,0.205066,0.125624,0.159588,-1.86423,0.243729,0.23822,0.00545716,0.00885815,-0.0310131,0.0236029,0.0184057,0.443033,-0.18329,0.00081193,0,0,0,0,0,0,0,-1.36517,-34.6214,0.0644055,23.6661,2.74902,1.15624,0.0577852,
0.205642,0.124869,0.159861,-1.86377,0.258458,0.23244,0.00539715,0.0121752,-0.00878232,0.00486693,0.00724803,0.299956,-0.110946,-0.00136505,-0.109927,-0.750353,-0.206926,0.261464,4.04514,-2.32413,-0.0364697,0.119303,-0.553475,-0.662299,0.530113,2.93679,-1.18473,-0.0156835,0.205066,0.125624,0.159588,-1.86423,0.243729,0.23822,0.00545716,0.00885815,-0.0310131,0.0236029,0.0184057,0.443033,-0.18329,0.00081193,0,0,0,0,0,0,0,-1.36517,-34.6214,0.0644055,23.6661,2.74902,1.15624,0.0577852,
0.205721,0.124772,0.159876,-1.86371,0.26099,0.231462,0.00538412,0.0117195,-0.00943791,0.00427715,0.00744812,0.303273,-0.113206,-0.00141764,-0.284819,-0.409749,-0.368608,0.125057,2.07278,-1.41208,-0.0328671,0.11927,-0.553412,-0.662322,0.530107,2.93727,-1.18519,-0.0156859,0.205066,0.125624,0.159588,-1.86423,0.243729,0.23822,0.00545716,0.00885815,-0.0310131,0.0236029,0.0184057,0.443033,-0.18329,0.00081193,0,0,0,0,0,0,0,-1.36517,-34.6214,0.0644055,23.6661,2.74902,1.15624,0.0577852,
0.205789,0.124685,0.15988,-1.86365,0.263468,0.230504,0.00537101,0.0110736,-0.00972706,0.00352112,0.00750162,0.304556,-0.114522,-0.00146196,-0.403711,-0.180719,-0.472522,0.0334317,0.801862,-0.822546,-0.0277035,0.124656,-0.60553,-0.659586,0.536967,2.88109,-1.15203,-0.0158383,0.205863,0.124678,0.160029,-1.86374,0.260097,0.231862,0.00546038,0.0203144,-0.0311455,-0.00256367,0.0196629,0.443049,-0.146583,0.00166806,1.43203,-0.0165546,-3.27082,0.157156,0.00203538,4.58841,0.107017,-1.08349,-36.1171,-0.562425,24.0628,0.422665,1.96557,-0.0026396,
0.206787,0.12349,0.160408,-1.86299,0.275723,0.227625,0.00536976,0.0103701,-0.00989818,0.00271288,0.00749776,0.276764,-0.09988,-0.00148385,-0.439674,-0.10695,-0.505151,-0.00240975,-17.37,9.1512,-0.0136802,0.213755,-0.65882,-0.580084,0.558378,1.52484,-0.388815,-0.0149683,0.205863,0.124678,0.160029,-1.86374,0.260097,0.231862,0.00546038,0.0203144,-0.0311455,-0.00256367,0.0196629,0.443049,-0.146583,0.00166806,0,0,0,0,0,0,0,-1.08349,-36.1171,-0.562425,24.0628,0.422665,1.96557,-0.0026396,
0.206839,0.12341,0.160396,-1.86293,0.277023,0.227299,0.00535721,0.0096076,-0.00991427,0.00187033,0.00743456,0.253917,-0.0880625,-0.00150066,-0.476573,-0.0100519,-0.526591,-0.0395029,-14.2793,7.38589,-0.0105068,0.212896,-0.659168,-0.58095,0.558359,1.52712,-0.392307,-0.0149688,0.205863,0.124678,0.160029,-1.86374,0.260097,0.231862,0.00546038,0.0203144,-0.0311455,-0.00256367,0.0196629,0.443049,-0.146583,0.00166806,0,0,0,0,0,0,0,-1.08349,-36.1171,-0.562425,24.0628,0.422665,1.96557,-0.0026396,
0.206885,0.123334,0.160378,-1.86287,0.278305,0.226975,0.00534471,0.00883014,-0.00983112,0.00103291,0.00733534,0.235178,-0.0785529,-0.00151319,-0.485912,0.0519656,-0.523391,-0.0620087,-11.7117,5.94356,-0.0078277,0.211864,-0.659328,-0.581982,0.558355,1.5298,-0.395895,-0.0149709,0.205863,0.124678,0.160029,-1.86374,0.260097,0.231862,0.00546038,0.0203144,-0.0311455,-0.00256367,0.0196629,0.443049,-0.146583,0.00166806,0,0,0,0,0,0,0,-1.08349,-36.1171,-0.562425,24.0628,0.422665,1.96557,-0.0026396,
0.206014,0.125014,0.160191,-1.8641,0.262151,0.23162,0.00547124,0.0108226,0.00054638,0.00487298,-0.00325971,0.239509,-0.0688929,-0.000939035,1.24531,6.48594,2.40005,-6.62191,2.70702,6.03747,0.358845,0.00125829,33.0252,-0.848734,-22.2877,-1.90315,-1.16187,-0.00418462,0.205863,0.124678,0.160029,-1.86374,0.260097,0.231862,0.00546038,0.0203144,-0.0311455,-0.00256367,0.0196629,0.443049,-0.146583,0.00166806,0,0,0,0,0,0,0,-1.08349,-36.1171,-0.562425,24.0628,0.422665,1.96557,-0.0026396,
0.206259,0.12529,0.160399,-1.86432,0.262703,0.231792,0.00548351,0.0148027,0.00733944,0.00911306,-0.00803583,0.205412,-0.0508145,-0.000444527,2.48756,4.24566,2.65005,-2.98507,-21.3111,11.299,0.309068,1.60862,-0.49484,0.799495,0.361954,-2.22962,1.93462,-0.0116994,0.205863,0.124678,0.160029,-1.86374,0.260097,0.231862,0.00546038,0.0203144,-0.0311455,-0.00256367,0.0196629,0.443049,-0.146583,0.00166806,0,0,0,0,0,0,0,-1.08349,-36.1171,-0.562425,24.0628,0.422665,1.96557,-0.0026396,
0.206534,0.125497,0.160621,-1.86448,0.262393,0.232291,0.00548475,0.0187038,0.0110401,0.0128375,-0.0103476,0.156559,-0.0281889,-0.000324517,2.43815,2.31294,2.32777,-1.44485,-30.5326,14.141,0.0750058,1.60332,-0.524999,0.821356,0.363061,-2.1718,1.87913,-0.0126456,0.205863,0.124678,0.160029,-1.86374,0.260097,0.231862,0.00546038,0.0203144,-0.0311455,-0.00256367,0.0196629,0.443049,-0.146583,0.00166806,0,0,0,0,0,0,0,-1.08349,-36.1171,-0.562425,24.0628,0.422665,1.96557,-0.0026396,
0.206809,0.125647,0.160836,-1.86459,0.261577,0.233017,0.00547987,0.0218391,0.0125801,0.0156455,-0.011251,0.104855,-0.00439399,-0.000381575,1.9596,0.962459,1.75503,-0.564615,-32.3156,14.8718,-0.0356612,1.61079,-0.556848,0.847501,0.363607,-2.12921,1.82896,-0.0131228,0.205863,0.124678,0.160029,-1.86374,0.260097,0.231862,0.00546038,0.0203144,-0.0311455,-0.00256367,0.0196629,0.443049,-0.146583,0.00166806,0,0,0,0,0,0,0,-1.08349,-36.1171,-0.562425,24.0628,0.422665,1.96557,-0.0026396,
0.206014,0.125014,0.160191,-1.8641,0.262151,0.23162,0.00547124,0.0212298,0.0184753,0.0165631,-0.0181288,0.135251,-0.00956581,-3.37456e-05,-0.380811,3.68454,0.573468,-4.29862,18.9975,-3.23238,0.217394,0.00125829,33.0252,-0.848734,-22.2877,-1.90315,-1.16187,-0.00418462,0.205863,0.124678,0.160029,-1.86374,0.260097,0.231862,0.00546038,0.0203144,-0.0311455,-0.00256367,0.0196629,0.443049,-0.146583,0.00166806,0,0,0,0,0,0,0,-1.08349,-36.1171,-0.562425,24.0628,0.422665,1.96557,-0.0026396,
0.206483,0.125021,0.160739,-1.86473,0.259591,0.233774,0.00562071,0.0287082,0.0149425,0.0269561,-0.0301156,0.0442007,0.0461932,0.00370968,4.67397,-2.20802,6.49565,-7.49176,-56.9061,34.8494,2.33964,7.03991,-7.30187,6.41917,-3.66156,-12.2238,8.28093,0.104496,0.206261,0.124316,0.16,-1.86297,0.273094,0.22826,0.00545668,0.0134031,0.00932386,-0.00149852,0.0254719,0.257438,-0.0579783,0.000110171,-0.863909,5.05867,0.133143,0.726121,-23.2014,11.0756,-0.194737,-0.325741,-36.5416,0.461134,24.2612,1.40594,1.52794,0.0303194,
0.207093,0.1249,0.161402,-1.86534,0.254763,0.237087,0.00571122,0.0382319,0.00894097,0.0381337,-0.0393953,-0.0853453,0.119791,0.00523049,5.95232,-3.75096,6.98599,-5.7998,-80.9663,45.9987,0.950509,5.96914,-6.26539,5.99518,-3.74654,-10.59,7.49836,0.0679623,0.206261,0.124316,0.16,-1.86297,0.273094,0.22826,0.00545668,0.0134031,0.00932386,-0.00149852,0.0254719,0.257438,-0.0579783,0.000110171,0,0,0,0,0,0,0,-0.325741,-36.5416,0.461134,24.2612,1.40594,1.52794,0.0303194,
0.207729,0.124735,0.162087,-1.86588,0.248916,0.240967,0.0057672,0.0464827,0.00303434,0.0476397,-0.0450255,-0.214441,0.192827,0.00558386,5.15674,-3.69164,5.94122,-3.5189,-80.6849,45.6472,0.220854,5.48918,-5.06074,5.9583,-3.67428,-9.4703,6.9001,0.0504869,0.206261,0.124316,0.16,-1.86297,0.273094,0.22826,0.00545668,0.0134031,0.00932386,-0.00149852,0.0254719,0.257438,-0.0579783,0.000110171,0,0,0,0,0,0,0,-0.325741,-36.5416,0.461134,24.2612,1.40594,1.52794,0.0303194,
0.206362,0.124857,0.160098,-1.86338,0.274226,0.228522,0.00545774,0.0397075,0.015964,0.0405578,-0.0461455,-0.143245,0.160802,0.00449358,-4.23452,8.08102,-4.42619,-0.699992,44.4979,-20.0153,-0.681424,0.00261968,32.9764,-0.849125,-22.2614,-1.94203,-1.13437,-0.0043286,0.206261,0.124316,0.16,-1.86297,0.273094,0.22826,0.00545668,0.0134031,0.00932386,-0.00149852,0.0254719,0.257438,-0.0579783,0.000110171,0,0,0,0,0,0,0,-0.325741,-36.5416,0.461134,24.2612,1.40594,1.52794,0.0303194,
0.206931,0.124939,0.160526,-1.86434,0.270594,0.231934,0.00561547,0.0459974,0.0148226,0.0431399,-0.0610277,-0.205395,0.21393,0.0075383,3.93119,-0.713343,1.61385,-9.30141,-38.8441,33.2047,1.90295,9.68893,-6.68787,6.04915,-8.34772,-13.9535,10.8727,0.112734,0.206967,0.124059,0.160348,-1.86302,0.27713,0.22819,0.0054684,0.0198119,0.0554966,0.0219551,0.012197,0.0221123,0.0816883,0.00271983,0.801091,5.77159,2.9317,-1.65937,-29.4158,17.4583,0.326207,1.4516,-38.1166,1.51246,25.134,0.697323,1.67351,-0.0365141,
0.207664,0.124915,0.161175,-1.86531,0.264205,0.237016,0.00571745,0.0551077,0.0112482,0.0507436,-0.0731608,-0.324056,0.298208,0.00858006,5.69394,-2.234,4.75231,-7.58316,-74.1631,52.6742,0.6511,8.36959,-4.62942,6.46346,-7.73244,-13.3571,10.8727,0.0694546,0.206967,0.124059,0.160348,-1.86302,0.27713,0.22819,0.0054684,0.0198119,0.0554966,0.0219551,0.012197,0.0221123,0.0816883,0.00271983,0,0,0,0,0,0,0,1.4516,-38.1166,1.51246,25.134,0.697323,1.67351,-0.0365141,
0.209675,0.124217,0.163555,-1.86841,0.238905,0.254498,0.00614929,0.0657486,0.00653302,0.0620562,-0.0848861,-0.502278,0.416819,0.00854603,6.65057,-2.947,7.07037,-7.32832,-111.389,74.1315,-0.021267,8.18708,-3.36364,6.90626,-7.38656,-11.7938,10.7383,0.0556862,0.206967,0.124059,0.160348,-1.86302,0.27713,0.22819,0.0054684,0.0198119,0.0554966,0.0219551,0.012197,0.0221123,0.0816883,0.00271983,0,0,0,0,0,0,0,1.4516,-38.1166,1.51246,25.134,0.697323,1.67351,-0.0365141,
0.207123,0.124867,0.160474,-1.86353,0.277113,0.229126,0.00545747,0.0565139,0.0254165,0.0527974,-0.0805255,-0.40224,0.356849,0.00656365,-5.77164,11.8022,-5.78679,2.72536,62.5242,-37.4815,-1.23899,-0.00288817,32.954,-0.85505,-22.2494,-1.95353,-1.12729,-0.00433457,0.206967,0.124059,0.160348,-1.86302,0.27713,0.22819,0.0054684,0.0198119,0.0554966,0.0219551,0.012197,0.0221123,0.0816883,0.00271983,0,0,0,0,0,0,0,1.4516,-38.1166,1.51246,25.134,0.697323,1.67351,-0.0365141,
0.207582,0.125045,0.161049,-1.86479,0.272776,0.233117,0.00563004,0.0566898,0.0248038,0.0566242,-0.0961426,-0.430207,0.385259,0.00956506,0.10992,-0.382948,2.3918,-9.76066,-17.4796,17.7565,1.87588,8.81518,-7.89657,8.6065,-12.5814,-13.9753,10.803,0.143448,0.208028,0.12202,0.161316,-1.86497,0.271599,0.23317,0.00549258,0.0417783,-0.0610154,0.0835835,-0.109047,-0.590249,0.43585,-0.000119664,2.74581,-14.564,7.70355,-15.1555,-76.5452,44.2703,-0.354937,7.08118,-38.1166,7.1103,25.4831,-1.25092,4.59771,-0.00996382,
0.208292,0.125088,0.161759,-1.86605,0.265741,0.23857,0.00574092,0.0630906,0.0209023,0.0630377,-0.108309,-0.52006,0.444523,0.010424,4.00047,-2.43842,4.00843,-7.60407,-56.1578,37.0403,0.536813,8.68859,-4.75158,7.81539,-11.3233,-13.9753,10.803,0.0816289,0.208028,0.12202,0.161316,-1.86497,0.271599,0.23317,0.00549258,0.0417783,-0.0610154,0.0835835,-0.109047,-0.590249,0.43585,-0.000119664,0,0,0,0,0,0,0,7.08118,-38.1166,7.1103,25.4831,-1.25092,4.59771,-0.00996382,
0.2091,0.12509,0.162561,-1.86722,0.257071,0.244927,0.00582471,0.0706675,0.0167874,0.0704952,-0.11582,-0.632802,0.514545,0.0104341,4.73559,-2.57186,4.6609,-4.6941,-70.4638,43.7636,0.00636619,8.84216,-3.39951,8.35981,-10.9072,-13.9753,10.803,0.069927,0.208028,0.12202,0.161316,-1.86497,0.271599,0.23317,0.00549258,0.0417783,-0.0610154,0.0835835,-0.109047,-0.590249,0.43585,-0.000119664,0,0,0,0,0,0,0,7.08118,-38.1166,7.1103,25.4831,-1.25092,4.59771,-0.00996382,
0.209674,0.120617,0.162639,-1.8677,0.255814,0.245259,0.00576858,0.0774479,-0.0027501,0.0750527,-0.125808,-0.723117,0.574544,0.0108793,4.23776,-12.2109,2.84846,-6.24273,-56.4473,37.4993,0.278215,11.0337,-11.0722,7.02921,-17.3809,-13.9753,10.803,0.183642,0.208028,0.12202,0.161316,-1.86497,0.271599,0.23317,0.00549258,0.0417783,-0.0610154,0.0835835,-0.109047,-0.590249,0.43585,-0.000119664,0,0,0,0,0,0,0,7.08118,-38.1166,7.1103,25.4831,-1.25092,4.59771,-0.00996382,
0.210543,0.120087,0.163441,-1.86895,0.246195,0.252384,0.00584357,0.0836931,-0.0154339,0.0800955,-0.131807,-0.818963,0.637779,0.0105782,3.90325,-7.9274,3.15177,-3.74912,-59.9033,39.5217,-0.188163,8.86707,-5.87208,7.25928,-15.7907,-14.0026,10.5958,0.0940233,0.210937,0.120877,0.164595,-1.87023,0.239769,0.26466,0.00556382,0.12813,-0.0752609,0.089787,-0.19283,-0.886564,1.1723,0.00210004,10.7939,-1.78069,0.775432,-10.4728,-37.0394,92.0557,0.277463,5.71247,-35.9941,6.43587,26.8518,1.73553,3.46429,0.0101778,
0.211428,0.119652,0.164273,-1.87015,0.235997,0.25993,0.00591203,0.0890859,-0.0232278,0.0848722,-0.135486,-0.910131,0.698858,0.0101741,3.37047,-4.87115,2.98541,-2.29962,-56.98,38.1745,-0.25259,9.07623,-4.15265,7.96364,-15.1683,-14.0026,10.5958,0.0757544,0.210937,0.120877,0.164595,-1.87023,0.239769,0.26466,0.00556382,0.12813,-0.0752609,0.089787,-0.19283,-0.886564,1.1723,0.00210004,0,0,0,0,0,0,0,5.71247,-35.9941,6.43587,26.8518,1.73553,3.46429,0.0101778,
0.214785,0.119883,0.168328,-1.87486,0.20236,0.299435,0.00587973,0.0948992,-0.0228586,0.0906533,-0.138078,-0.961874,0.769272,0.00985147,3.63333,0.230747,3.61321,-1.62025,-32.3392,44.0089,-0.20163,10.2308,0.0872499,9.56904,-16.4637,-14.0026,10.5958,0.0860731,0.210937,0.120877,0.164595,-1.87023,0.239769,0.26466,0.00556382,0.12813,-0.0752609,0.089787,-0.19283,-0.886564,1.1723,0.00210004,0,0,0,0,0,0,0,5.71247,-35.9941,6.43587,26.8518,1.73553,3.46429,0.0101778,
0.215698,0.119749,0.169204,-1.87603,0.193656,0.307261,0.00594444,0.0987379,-0.0216488,0.0944199,-0.139718,-0.987117,0.811059,0.00949877,2.39919,0.756106,2.3541,-1.02476,-15.7772,26.1167,-0.220438,10.8789,0.0261757,10.3158,-16.465,-14.0026,10.5958,0.0881991,0.210937,0.120877,0.164595,-1.87023,0.239769,0.26466,0.00556382,0.12813,-0.0752609,0.089787,-0.19283,-0.886564,1.1723,0.00210004,0,0,0,0,0,0,0,5.71247,-35.9941,6.43587,26.8518,1.73553,3.46429,0.0101778,
0.21658,0.119639,0.170049,-1.87718,0.18573,0.31439,0.00600505,0.101051,-0.0200544,0.0966722,-0.140512,-0.987833,0.82708,0.0091142,1.44552,0.996487,1.40769,-0.496237,-0.447374,10.0135,-0.24036,11.2755,0.20783,10.8503,-16.7898,-12.5798,10.3356,0.0938398,0.214806,0.119102,0.168392,-1.87745,0.204096,0.304571,0.00564257,0.150721,-0.00289391,0.156486,-0.192649,-1.17421,1.22448,0.00520607,2.82388,9.04587,8.33738,0.0225209,-35.9561,6.52292,0.388255,3.96289,-35.5458,4.13881,22.8171,-0.206302,2.25762,0.0907442,
0.217438,0.119547,0.17087,-1.87831,0.178633,0.320789,0.00606117,0.102281,-0.0183568,0.097865,-0.140702,-0.967686,0.821647,0.00869436,0.768768,1.06102,0.7455,-0.118665,12.5916,-3.39598,-0.262396,11.7583,0.181153,11.4127,-16.8122,-11.0565,9.45729,0.0957651,0.214806,0.119102,0.168392,-1.87745,0.204096,0.304571,0.00564257,0.150721,-0.00289391,0.156486,-0.192649,-1.17421,1.22448,0.00520607,0,0,0,0,0,0,0,3.96289,-35.5458,4.13881,22.8171,-0.206302,2.25762,0.0907442,
0.219061,0.119044,0.172467,-1.88291,0.171347,0.333276,0.00588165,0.106158,-0.0156447,0.10164,-0.146241,-0.950031,0.800505,0.0083543,2.42299,1.6951,2.35924,-3.46175,11.0348,-13.2138,-0.212541,12.1756,1.41224,11.7576,-20.0047,-11.4726,8.35247,0.0929573,0.214806,0.119102,0.168392,-1.87745,0.204096,0.304571,0.00564257,0.150721,-0.00289391,0.156486,-0.192649,-1.17421,1.22448,0.00520607,0,0,0,0,0,0,0,3.96289,-35.5458,4.13881,22.8171,-0.206302,2.25762,0.0907442,
0.219996,0.118997,0.173365,-1.88425,0.165165,0.33816,0.00593285,0.108297,-0.013694,0.103752,-0.150604,-0.914579,0.762497,0.00796328,1.33709,1.21914,1.32027,-2.72678,22.1573,-23.7546,-0.244385,12.6013,1.12734,12.2715,-20.0358,-9.99642,6.91714,0.0959916,0.214806,0.119102,0.168392,-1.87745,0.204096,0.304571,0.00564257,0.150721,-0.00289391,0.156486,-0.192649,-1.17421,1.22448,0.00520607,0,0,0,0,0,0,0,3.96289,-35.5458,4.13881,22.8171,-0.206302,2.25762,0.0907442,
0.220902,0.118945,0.174235,-1.8856,0.15981,0.34229,0.00597878,0.109279,-0.012249,0.104754,-0.154065,-0.865539,0.713242,0.00751889,0.614054,0.903126,0.626275,-2.16315,30.6502,-30.7848,-0.277744,12.5506,1.42606,12.2556,-20.4649,-8.63188,5.37754,0.0987931,0.220211,0.116666,0.173524,-1.88747,0.156156,0.351094,0.00586317,0.122965,-0.0335324,0.178484,-0.283905,-1.57921,1.44946,0.00421522,-3.46952,-3.82981,2.74981,-11.407,-50.6246,28.1225,-0.123857,2.43946,-35.2443,2.86134,23.4399,0.263363,3.72887,0.110886,
0.221785,0.118891,0.175084,-1.88694,0.155236,0.345758,0.00601826,0.109502,-0.011137,0.105022,-0.156845,-0.806784,0.657296,0.00700222,0.139151,0.69504,0.167063,-1.73802,36.7217,-34.9661,-0.322921,12.6435,1.38076,12.3545,-20.3513,-7.43453,4.35002,0.0957118,0.220211,0.116666,0.173524,-1.88747,0.156156,0.351094,0.00586317,0.122965,-0.0335324,0.178484,-0.283905,-1.57921,1.44946,0.00421522,0,0,0,0,0,0,0,2.43946,-35.2443,2.86134,23.4399,0.263363,3.72887,0.110886,
0.226106,0.116131,0.179012,-1.8974,0.127065,0.37787,0.00582523,0.104854,-0.0112373,0.100678,-0.157249,-0.671153,0.555853,0.00550456,-2.90477,-0.062742,-2.71459,-0.252326,84.7692,-63.4017,-0.936038,11.8502,1.30224,11.53,-19.6253,-3.78488,1.70799,0.0630955,0.220211,0.116666,0.173524,-1.88747,0.156156,0.351094,0.00586317,0.122965,-0.0335324,0.178484,-0.283905,-1.57921,1.44946,0.00421522,0,0,0,0,0,0,0,2.43946,-35.2443,2.86134,23.4399,0.263363,3.72887,0.110886,
0.226802,0.116044,0.179685,-1.89868,0.126283,0.378882,0.00581859,0.101291,-0.0111563,0.0973657,-0.15775,-0.556472,0.469976,0.00423778,-2.22737,0.0506418,-2.07031,-0.313036,71.6758,-53.6733,-0.791735,11.4996,1.24962,11.1729,-19.4158,-3.14555,1.33205,0.0533136,0.220211,0.116666,0.173524,-1.88747,0.156156,0.351094,0.00586317,0.122965,-0.0335324,0.178484,-0.283905,-1.57921,1.44946,0.00421522,0,0,0,0,0,0,0,2.43946,-35.2443,2.86134,23.4399,0.263363,3.72887,0.110886,
0.227502,0.115964,0.180362,-1.89996,0.125686,0.379761,0.00580924,0.098542,-0.0109228,0.0948196,-0.15823,-0.460086,0.397978,0.00315655,-1.71786,0.145961,-1.59132,-0.300116,60.2412,-44.9989,-0.675771,11.1316,1.18324,10.7998,-19.2013,-2.61271,1.04036,0.0442717,0.220211,0.116666,0.173524,-1.88747,0.156156,0.351094,0.00586317,0.122965,-0.0335324,0.178484,-0.283905,-1.57921,1.44946,0.00421522,0,0,0,0,0,0,0,2.43946,-35.2443,2.86134,23.4399,0.263363,3.72887,0.110886,
0.227502,0.115964,0.180362,-1.89996,0.125686,0.379761,0.00580924,0.0963431,-0.010736,0.0927827,-0.158614,-0.382977,0.340379,0.00229156,-1.37429,0.116769,-1.27306,-0.240092,48.193,-35.9991,-0.540617,8.85439,0.407321,8.54157,-17.3862,-0.637861,0.372687,-0.00254313,0.226414,0.115457,0.179871,-1.89833,0.109542,0.402544,0.00589686,0.157265,-0.0138385,0.220771,-0.305465,-1.1927,1.35277,-0.00014747,4.28753,2.46173,5.28583,-2.69496,48.3141,-12.0859,-0.545336,4.36756,-33.8478,5.08699,20.9009,1.06353,1.64055,0.0779268,
0.23468,0.114792,0.187637,-1.91094,0.0956814,0.426433,0.00550186,0.0929611,-0.0106233,0.0896257,-0.155402,-0.31148,0.294061,0.00130075,-2.11374,0.0704292,-1.97313,2.00749,44.6859,-28.9489,-0.619259,8.59343,0.351008,8.28489,-17.1575,-0.581166,0.40716,-0.00622279,0.226414,0.115457,0.179871,-1.89833,0.109542,0.402544,0.00589686,0.157265,-0.0138385,0.220771,-0.305465,-1.1927,1.35277,-0.00014747,0,0,0,0,0,0,0,4.36756,-33.8478,5.08699,20.9009,1.06353,1.64055,0.0779268,
0.235309,0.114719,0.188246,-1.91207,0.0954628,0.42729,0.00548036,0.0900884,-0.0103267,0.0869382,-0.152615,-0.254647,0.25667,0.000502925,-1.79546,0.185325,-1.67969,1.74193,35.5203,-23.369,-0.498638,8.35089,0.302711,8.04734,-16.9281,-0.547774,0.453217,-0.00946713,0.226414,0.115457,0.179871,-1.89833,0.109542,0.402544,0.00589686,0.157265,-0.0138385,0.220771,-0.305465,-1.1927,1.35277,-0.00014747,0,0,0,0,0,0,0,4.36756,-33.8478,5.08699,20.9009,1.06353,1.64055,0.0779268,
0.23593,0.114653,0.188849,-1.9132,0.0952264,0.428143,0.00545862,0.0876084,-0.00990657,0.0846115,-0.150114,-0.209628,0.226661,-0.000141068,-1.54998,0.26261,-1.45415,1.56309,28.1367,-18.756,-0.402495,8.12587,0.262028,7.82771,-16.6977,-0.536364,0.506262,-0.0120854,0.226414,0.115457,0.179871,-1.89833,0.109542,0.402544,0.00589686,0.157265,-0.0138385,0.220771,-0.305465,-1.1927,1.35277,-0.00014747,0,0,0,0,0,0,0,4.36756,-33.8478,5.08699,20.9009,1.06353,1.64055,0.0779268,
0.242321,0.114414,0.195118,-1.92226,0.0748195,0.444519,0.00555413,0.0850256,-0.00867236,0.0821571,-0.14508,-0.173676,0.20212,-0.000687243,-1.61425,0.771377,-1.53405,3.14675,22.4704,-15.3381,-0.34136,7.5497,-0.521514,7.31859,-14.5,-0.299604,0.967112,-0.0253552,0.233353,0.114408,0.186563,-1.90976,0.0791611,0.432801,0.00590412,0.193595,-0.0352339,0.175804,-0.316678,-0.377626,0.534078,0.000631222,4.54126,-2.67443,-5.62091,-1.40159,101.884,-102.337,0.0973365,2.84412,-33.3479,3.41279,19.0799,1.91864,1.28258,0.0980684,
0.2429,0.114385,0.195678,-1.92324,0.074562,0.445352,0.00553132,0.0824871,-0.00767988,0.0797414,-0.140562,-0.145379,0.182508,-0.00111989,-1.5866,0.620302,-1.50977,2.82335,17.6857,-12.2573,-0.270407,7.41091,-0.5166,7.18679,-14.268,-0.332941,1.00781,-0.0257707,0.233353,0.114408,0.186563,-1.90976,0.0791611,0.432801,0.00590412,0.193595,-0.0352339,0.175804,-0.316678,-0.377626,0.534078,0.000631222,0,0,0,0,0,0,0,2.84412,-33.3479,3.41279,19.0799,1.91864,1.28258,0.0980684,
0.243461,0.114356,0.196223,-1.9242,0.0742902,0.446184,0.00550863,0.0800295,-0.00687574,0.0774,-0.136461,-0.123097,0.166799,-0.00146314,-1.53602,0.502588,-1.4634,2.5635,13.9259,-9.81831,-0.214528,7.27729,-0.50852,7.06025,-14.0362,-0.363815,1.04381,-0.0261187,0.233353,0.114408,0.186563,-1.90976,0.0791611,0.432801,0.00590412,0.193595,-0.0352339,0.175804,-0.316678,-0.377626,0.534078,0.000631222,0,0,0,0,0,0,0,2.84412,-33.3479,3.41279,19.0799,1.91864,1.28258,0.0980684,
0.244007,0.114327,0.196752,-1.92515,0.0740081,0.447012,0.00548607,0.077673,-0.00621968,0.0751526,-0.132692,-0.10553,0.154158,-0.00173464,-1.47277,0.410039,-1.40463,2.35524,10.9793,-7.90073,-0.169686,7.1481,-0.497918,6.93806,-13.8046,-0.392819,1.07405,-0.0263366,0.233353,0.114408,0.186563,-1.90976,0.0791611,0.432801,0.00590412,0.193595,-0.0352339,0.175804,-0.316678,-0.377626,0.534078,0.000631222,0,0,0,0,0,0,0,2.84412,-33.3479,3.41279,19.0799,1.91864,1.28258,0.0980684,
0.234634,0.114456,0.187747,-1.91126,0.0774873,0.435006,0.00584773,0.0941417,-0.00376037,0.0897321,-0.14375,-0.126269,0.178437,-0.00279755,10.2929,1.53707,9.11218,-6.91112,-12.9614,15.1743,-0.664324,7.6779,-0.686031,7.43852,-14.3583,-0.206717,1.0118,-0.0262272,0.240493,0.113471,0.193172,-1.92078,0.069371,0.443829,0.00587513,0.200491,-0.0320654,0.197068,-0.33761,-0.021368,0.292275,0.000888713,0.861999,0.396071,2.65802,-2.6165,44.5322,-30.2254,0.0321864,-1.5675,-34.9944,-0.911547,21.9205,0.0802576,2.35009,0.104477,
0.235722,0.114523,0.188769,-1.91252,0.0766435,0.436479,0.00579856,0.102527,-0.00133253,0.0973472,-0.146444,-0.122109,0.179575,-0.00346731,5.24111,1.5174,4.75947,-1.68374,2.59964,0.711275,-0.418596,7.53911,-0.681117,7.30672,-14.1263,-0.240054,1.05249,-0.0266427,0.240493,0.113471,0.193172,-1.92078,0.069371,0.443829,0.00587513,0.200491,-0.0320654,0.197068,-0.33761,-0.021368,0.292275,0.000888713,0,0,0,0,0,0,0,-1.5675,-34.9944,-0.911547,21.9205,0.0802576,2.35009,0.104477,
0.236679,0.114562,0.189678,-1.9137,0.076232,0.437627,0.00575943,0.105948,-9.69764e-05,0.100595,-0.146712,-0.107976,0.172367,-0.00375207,2.13753,0.772222,2.02983,-0.167689,8.83357,-4.50461,-0.177977,7.40549,-0.673037,7.18018,-13.8946,-0.270929,1.08849,-0.0269907,0.240493,0.113471,0.193172,-1.92078,0.069371,0.443829,0.00587513,0.200491,-0.0320654,0.197068,-0.33761,-0.021368,0.292275,0.000888713,0,0,0,0,0,0,0,-1.5675,-34.9944,-0.911547,21.9205,0.0802576,2.35009,0.104477,
0.241724,0.114444,0.194539,-1.92127,0.0750585,0.443688,0.0055771,0.100227,-0.000820317,0.0954506,-0.142848,-0.0917854,0.158636,-0.0035811,-3.57511,-0.452088,-3.21525,2.41511,10.1188,-8.58223,0.106855,6.55629,-0.566084,6.3793,-12.2793,-0.406374,1.19817,-0.0275494,0.240493,0.113471,0.193172,-1.92078,0.069371,0.443829,0.00587513,0.200491,-0.0320654,0.197068,-0.33761,-0.021368,0.292275,0.000888713,0,0,0,0,0,0,0,-1.5675,-34.9944,-0.911547,21.9205,0.0802576,2.35009,0.104477,
0.249854,0.114191,0.202143,-1.9324,0.0694602,0.450352,0.00556426,0.0939456,-0.000730991,0.0896728,-0.135561,-0.07722,0.143714,-0.00343451,-3.92606,0.0558287,-3.61112,4.55412,9.10337,-9.32603,0.0916205,6.43765,-0.653671,6.24972,-12.0073,-0.392528,1.20315,-0.0275488,0.247289,0.113549,0.199339,-1.93152,0.0661848,0.451066,0.0058525,0.213212,0.00720378,0.148795,-0.29421,-0.0325734,0.164798,-0.000922509,1.59005,4.90864,-6.03412,5.42501,-1.40068,-15.9346,-0.226403,-1.94836,-36.9185,-0.93535,26.8796,0.471188,3.3178,0.0907442,
0.250378,0.114183,0.202651,-1.93322,0.0692921,0.451028,0.00554187,0.0882577,-0.000776139,0.0844172,-0.129123,-0.0659783,0.131881,-0.00330742,-3.55496,-0.0282177,-3.2847,4.02421,7.02607,-7.39594,0.0794315,6.32319,-0.634739,6.14182,-11.7779,-0.396371,1.19769,-0.027476,0.247289,0.113549,0.199339,-1.93152,0.0661848,0.451066,0.0058525,0.213212,0.00720378,0.148795,-0.29421,-0.0325734,0.164798,-0.000922509,0,0,0,0,0,0,0,-1.94836,-36.9185,-0.93535,26.8796,0.471188,3.3178,0.0907442,
0.250879,0.114172,0.203136,-1.93403,0.0691131,0.451704,0.00551987,0.0831285,-0.000902787,0.0796592,-0.123389,-0.0572578,0.122398,-0.00319572,-3.20579,-0.0791549,-2.9738,3.58382,5.45032,-5.92667,0.0698133,6.20909,-0.615669,6.03425,-11.5488,-0.397137,1.18949,-0.0274184,0.247289,0.113549,0.199339,-1.93152,0.0661848,0.451066,0.0058525,0.213212,0.00720378,0.148795,-0.29421,-0.0325734,0.164798,-0.000922509,0,0,0,0,0,0,0,-1.94836,-36.9185,-0.93535,26.8796,0.471188,3.3178,0.0907442,
0.25542,0.115077,0.207103,-1.94157,0.066726,0.454001,0.00556451,0.0777744,-0.000183021,0.0746135,-0.115665,-0.0473035,0.109001,-0.0030352,-3.34628,0.449854,-3.15354,4.82743,6.22144,-8.3729,0.100323,5.4117,-0.486701,5.28036,-9.94991,-0.347168,1.06411,-0.0263415,0.247289,0.113549,0.199339,-1.93152,0.0661848,0.451066,0.0058525,0.213212,0.00720378,0.148795,-0.29421,-0.0325734,0.164798,-0.000922509,0,0,0,0,0,0,0,-1.94836,-36.9185,-0.93535,26.8796,0.471188,3.3178,0.0907442,
0.255846,0.115091,0.207514,-1.94222,0.0666502,0.454455,0.00554614,0.0728558,0.000183318,0.0699713,-0.108812,-0.0397365,0.0985433,-0.00288728,-3.07411,0.228962,-2.9014,4.28298,4.72939,-6.53626,0.0924504,5.2906,-0.598703,5.14843,-9.66851,-0.329661,1.05085,-0.0261711,0.25377,0.113183,0.205435,-1.94113,0.0641684,0.456858,0.00582219,0.183677,-0.00951646,0.171979,-0.278968,-0.0311955,0.199394,-0.00275246,-3.69177,-2.09003,2.89801,1.90516,0.172247,4.32443,-0.228744,-0.349545,-35.8949,0.611891,24.6381,0.226742,2.9406,0.0641939,
0.256249,0.115097,0.207904,-1.94284,0.0665614,0.454914,0.00552858,0.0683653,0.000310117,0.0657273,-0.102697,-0.0340094,0.0903113,-0.00274898,-2.80661,0.0792494,-2.65249,3.82155,3.57944,-5.14501,0.086442,5.17571,-0.581744,5.03939,-9.44071,-0.316671,1.02522,-0.0258586,0.25377,0.113183,0.205435,-1.94113,0.0641684,0.456858,0.00582219,0.183677,-0.00951646,0.171979,-0.278968,-0.0311955,0.199394,-0.00275246,0,0,0,0,0,0,0,-0.349545,-35.8949,0.611891,24.6381,0.226742,2.9406,0.0641939,
0.256633,0.115098,0.208276,-1.94344,0.0664615,0.455374,0.00551179,0.0642807,0.00027979,0.0618622,-0.097209,-0.0297053,0.0837682,-0.00261882,-2.55285,-0.0189544,-2.41565,3.4303,2.69004,-4.08944,0.0813458,5.06044,-0.56506,4.92993,-9.21307,-0.302903,0.99926,-0.0255336,0.25377,0.113183,0.205435,-1.94113,0.0641684,0.456858,0.00582219,0.183677,-0.00951646,0.171979,-0.278968,-0.0311955,0.199394,-0.00275246,0,0,0,0,0,0,0,-0.349545,-35.8949,0.611891,24.6381,0.226742,2.9406,0.0641939,
0.261064,0.114348,0.212402,-1.94891,0.065464,0.458765,0.00558692,0.0604721,0.000538349,0.0582397,-0.0900012,-0.0256095,0.0749102,-0.00239943,-2.38041,0.1616,-2.26406,4.5049,2.55985,-5.53625,0.13712,4.24059,-0.457703,4.14881,-7.62341,-0.220505,0.810876,-0.0218046,0.25377,0.113183,0.205435,-1.94113,0.0641684,0.456858,0.00582219,0.183677,-0.00951646,0.171979,-0.278968,-0.0311955,0.199394,-0.00275246,0,0,0,0,0,0,0,-0.349545,-35.8949,0.611891,24.6381,0.226742,2.9406,0.0641939,
0.2614,0.114355,0.212727,-1.94938,0.0653488,0.4591,0.00557566,0.0567733,0.000586224,0.0547196,-0.0836178,-0.0233677,0.0683007,-0.00220102,-2.31169,0.0299217,-2.20008,3.98959,1.40115,-4.13094,0.124004,4.09808,-0.55955,3.99463,-7.36818,-0.212727,0.787742,-0.0211233,0.259177,0.113217,0.211119,-1.94947,0.0633309,0.462563,0.0058115,0.114742,0.0141872,0.19003,-0.215286,-0.0107488,0.156477,0.00123497,-8.61698,2.96296,2.25635,7.96028,2.55584,-5.36458,0.498429,-0.829586,-37.3906,0.0882092,25.8322,0.410763,3.10631,0.0303194,
0.261713,0.114356,0.21303,-1.94982,0.0651946,0.459451,0.00556527,0.0532466,0.000500411,0.0513614,-0.0779281,-0.0225512,0.0634094,-0.00202065,-2.20419,-0.0536333,-2.09891,3.55606,0.510277,-3.05703,0.112736,3.97799,-0.545966,3.87975,-7.1422,-0.208986,0.763826,-0.020346,0.259177,0.113217,0.211119,-1.94947,0.0633309,0.462563,0.0058115,0.114742,0.0141872,0.19003,-0.215286,-0.0107488,0.156477,0.00123497,0,0,0,0,0,0,0,-0.829586,-37.3906,0.0882092,25.8322,0.410763,3.10631,0.0303194,
0.265311,0.11457,0.21699,-1.95522,0.0633798,0.463707,0.00565349,0.0476036,0.000564384,0.0459537,-0.0677696,-0.0158007,0.052237,-0.00180047,-3.52689,0.0399833,-3.37981,6.34906,4.21908,-6.98273,0.137608,2.75929,-0.431616,2.71147,-4.90291,-0.349313,0.638828,-0.0118754,0.259177,0.113217,0.211119,-1.94947,0.0633309,0.462563,0.0058115,0.114742,0.0141872,0.19003,-0.215286,-0.0107488,0.156477,0.00123497,0,0,0,0,0,0,0,-0.829586,-37.3906,0.0882092,25.8322,0.410763,3.10631,0.0303194,
0.265493,0.114572,0.217166,-1.95541,0.0636375,0.463674,0.00564565,0.0426248,0.000511204,0.0411833,-0.0589897,-0.00619759,0.0409748,-0.00163634,-3.11177,-0.0332373,-2.98149,5.48743,6.00195,-7.03887,0.102584,2.64153,-0.421629,2.59883,-4.68145,-0.378415,0.637195,-0.0111131,0.259177,0.113217,0.211119,-1.94947,0.0633309,0.462563,0.0058115,0.114742,0.0141872,0.19003,-0.215286,-0.0107488,0.156477,0.00123497,0,0,0,0,0,0,0,-0.829586,-37.3906,0.0882092,25.8322,0.410763,3.10631,0.0303194,
0.265658,0.114571,0.217327,-1.95558,0.0641192,0.463516,0.00563726,0.0382256,0.000384531,0.0369681,-0.0513134,0.00708634,0.0288443,-0.00151888,-2.74952,-0.0791706,-2.63446,4.79772,8.30246,-7.58158,0.0734125,2.53781,-0.508229,2.48295,-4.41519,-0.399201,0.649262,-0.0104282,0.264095,0.113358,0.216278,-1.95657,0.063186,0.465942,0.00579705,0.0729819,-0.004424,0.221882,-0.19114,0.00734951,0.0622426,0.000996628,-5.21996,-2.3264,3.98147,3.01829,2.26229,-11.7793,-0.0297921,-1.15887,-37.2398,-0.137926,27.1771,0.507809,3.35808,0.0440523,
0.265807,0.114567,0.217474,-1.95572,0.0648866,0.463199,0.00562813,0.0343274,0.000215175,0.0332321,-0.0445156,0.0248526,0.0151496,-0.00144323,-2.43634,-0.105847,-2.33505,4.24863,11.1039,-8.55922,0.0472836,2.42728,-0.497509,2.37776,-4.19523,-0.424715,0.645956,-0.00972178,0.264095,0.113358,0.216278,-1.95657,0.063186,0.465942,0.00579705,0.0729819,-0.004424,0.221882,-0.19114,0.00734951,0.0622426,0.000996628,0,0,0,0,0,0,0,-1.15887,-37.2398,-0.137926,27.1771,0.507809,3.35808,0.0440523,
0.269046,0.114379,0.221014,-1.9596,0.0779551,0.456718,0.00566304,0.0315397,0.000459293,0.030507,-0.0365464,0.0982643,-0.0314731,-0.00110793,-1.74229,0.152574,-1.70317,4.98072,45.8823,-29.1392,0.20956,1.9026,-0.369631,1.89851,-2.7042,-0.167118,0.359013,-0.00553949,0.264095,0.113358,0.216278,-1.95657,0.063186,0.465942,0.00579705,0.0729819,-0.004424,0.221882,-0.19114,0.00734951,0.0622426,0.000996628,0,0,0,0,0,0,0,-1.15887,-37.2398,-0.137926,27.1771,0.507809,3.35808,0.0440523,
0.269179,0.114383,0.221142,-1.95961,0.0816588,0.454665,0.00567246,0.0285637,0.000480479,0.0276144,-0.0294472,0.171205,-0.0765045,-0.000650909,-1.86001,0.0132414,-1.80787,4.43699,45.5877,-28.1446,0.285637,1.88599,-0.336042,1.89043,-2.5027,0.0131606,0.232383,-0.00512194,0.264095,0.113358,0.216278,-1.95657,0.063186,0.465942,0.00579705,0.0729819,-0.004424,0.221882,-0.19114,0.00734951,0.0622426,0.000996628,0,0,0,0,0,0,0,-1.15887,-37.2398,-0.137926,27.1771,0.507809,3.35808,0.0440523,
0.269284,0.114386,0.221238,-1.95958,0.0859633,0.452277,0.00568071,0.0254723,0.000448679,0.0244779,-0.022912,0.244575,-0.120885,-0.000314386,-1.93212,-0.0198749,-1.96031,4.08453,45.8564,-27.7379,0.210327,1.86202,-0.394761,1.86162,-2.28952,0.247583,0.0703032,-0.00470446,0.26857,0.113497,0.220593,-1.96103,0.0632237,0.467097,0.00579544,0.0637838,0.0200321,0.158187,-0.0830868,0.0071103,0.0112498,0.00112454,-1.14976,3.05701,-7.96186,13.5066,-0.0299003,-6.3741,0.0159891,-2.91241,-37.9897,-1.66136,27.1533,0.245053,3.70232,0.0577852,
0.269373,0.11439,0.221301,-1.95952,0.0907152,0.449558,0.0057218,0.0226156,0.000467438,0.0211637,-0.016677,0.314457,-0.164694,0.000775642,-1.78544,0.0117241,-2.07138,3.89686,43.6766,-27.3803,0.681268,1.8843,-0.348803,1.8938,-2.09507,0.562282,-0.135871,-0.00435032,0.26857,0.113497,0.220593,-1.96103,0.0632237,0.467097,0.00579544,0.0637838,0.0200321,0.158187,-0.0830868,0.0071103,0.0112498,0.00112454,0,0,0,0,0,0,0,-2.91241,-37.9897,-1.66136,27.1533,0.245053,3.70232,0.0577852,
0.270756,0.11396,0.222678,-1.96219,0.0670213,0.464964,0.00572171,0.0280368,0.00213931,0.0264291,-0.0182588,0.286911,-0.150992,0.000254424,3.38824,1.04492,3.29086,-0.988649,-17.2164,8.56373,-0.325761,1.88409,-0.349573,1.89347,-2.09498,0.548775,-0.130306,-0.00434831,0.26857,0.113497,0.220593,-1.96103,0.0632237,0.467097,0.00579544,0.0637838,0.0200321,0.158187,-0.0830868,0.0071103,0.0112498,0.00112454,0,0,0,0,0,0,0,-2.91241,-37.9897,-1.66136,27.1533,0.245053,3.70232,0.0577852,
0.271087,0.11401,0.222995,-1.96235,0.0688019,0.464001,0.0057085,0.0307084,0.0029566,0.0290652,-0.0184118,0.274044,-0.144883,-0.000126641,1.66971,0.510808,1.64758,-0.0955888,-8.04185,3.81811,-0.238166,1.92478,-0.296863,1.94451,-1.90289,0.942005,-0.383764,-0.00389785,0.26857,0.113497,0.220593,-1.96103,0.0632237,0.467097,0.00579544,0.0637838,0.0200321,0.158187,-0.0830868,0.0071103,0.0112498,0.00112454,0,0,0,0,0,0,0,-2.91241,-37.9897,-1.66136,27.1533,0.245053,3.70232,0.0577852,
0.271364,0.114044,0.223261,-1.96246,0.0710007,0.462806,0.00569761,0.0314971,0.00320878,0.0298906,-0.0175154,0.274205,-0.145788,-0.000373426,0.492949,0.157612,0.515895,0.56022,0.100547,-0.565936,-0.154241,1.98019,-0.237446,2.01074,-1.71147,1.42111,-0.68781,-0.00350423,0.26857,0.113497,0.220593,-1.96103,0.0632237,0.467097,0.00579544,0.0637838,0.0200321,0.158187,-0.0830868,0.0071103,0.0112498,0.00112454,0,0,0,0,0,0,0,-2.91241,-37.9897,-1.66136,27.1533,0.245053,3.70232,0.0577852,
0.271597,0.114065,0.223484,-1.96253,0.0736652,0.461344,0.00569121,0.0310159,0.00309436,0.0294877,-0.015864,0.285976,-0.153166,-0.000458873,-0.300741,-0.0715136,-0.251819,1.03215,7.35674,-4.61126,-0.0534038,2.04061,-0.238676,2.07125,-1.51809,1.97,-1.03923,-0.00293389,0.271693,0.113486,0.223524,-1.96324,0.066028,0.46723,0.00579652,0.0409865,-0.0194763,0.090881,-0.0495813,0.248655,-0.0189259,0.00119679,-2.84966,-4.93855,-8.41325,4.18818,30.193,-3.77196,0.00903122,-2.47998,-36.9661,-1.0385,25.2332,1.1734,2.82799,0.0779268,
0.273155,0.113292,0.224951,-1.9636,0.0749132,0.46349,0.00576777,0.031816,0.00148065,0.0303641,-0.0135194,0.296264,-0.155746,-0.000512811,0.500104,-1.00857,0.547733,1.46536,6.42987,-1.61227,-0.0337114,2.03921,-0.245933,2.06854,-1.51675,1.82896,-0.980404,-0.00289397,0.271693,0.113486,0.223524,-1.96324,0.066028,0.46723,0.00579652,0.0409865,-0.0194763,0.090881,-0.0495813,0.248655,-0.0189259,0.00119679,0,0,0,0,0,0,0,-2.47998,-36.9661,-1.0385,25.2332,1.1734,2.82799,0.0779268,
0.273389,0.113253,0.225177,-1.9636,0.0780779,0.461857,0.0057692,0.0313093,0.000206419,0.0299484,-0.0109953,0.316128,-0.165414,-0.000374545,-0.316688,-0.796394,-0.259798,1.57756,12.4155,-6.04287,0.0864164,2.10762,-0.179656,2.14585,-1.3216,2.45629,-1.37963,-0.00158551,0.271693,0.113486,0.223524,-1.96324,0.066028,0.46723,0.00579652,0.0409865,-0.0194763,0.090881,-0.0495813,0.248655,-0.0189259,0.00119679,0,0,0,0,0,0,0,-2.47998,-36.9661,-1.0385,25.2332,1.1734,2.82799,0.0779268,
0.273581,0.113214,0.225362,-1.96359,0.0817756,0.459905,0.00577811,0.0298305,-0.000797896,0.0285795,-0.00838638,0.345344,-0.181138,-7.68728e-05,-0.924289,-0.627696,-0.855584,1.63058,18.2599,-9.82739,0.186045,2.16493,-0.115302,2.21101,-1.12139,3.14096,-1.82312,0.00139464,0.271693,0.113486,0.223524,-1.96324,0.066028,0.46723,0.00579652,0.0409865,-0.0194763,0.090881,-0.0495813,0.248655,-0.0189259,0.00119679,0,0,0,0,0,0,0,-2.47998,-36.9661,-1.0385,25.2332,1.1734,2.82799,0.0779268,
0.273733,0.11318,0.225503,-1.96354,0.0860485,0.457609,0.00578587,0.027666,-0.00149452,0.0263962,-0.00555265,0.383097,-0.202295,0.000132582,-1.3528,-0.435392,-1.36456,1.77108,23.5954,-13.2232,0.13091,2.17543,-0.0969569,2.22008,-0.908865,3.83363,-2.27475,0.00734126,0.273555,0.113386,0.225441,-1.96402,0.0759833,0.463607,0.0057968,0.0382678,0.00730667,0.0547257,-0.00885626,0.242312,-0.112891,0.000150022,-0.339838,3.34787,-4.51941,5.09063,-0.792819,-11.7456,-0.130846,-0.805783,-34.5461,0.314344,23.8406,0.862118,1.88592,0.104477,
