xiao-wang007/linearmpc_panda/paper_data/panda_torque_PD_controller_Start_at_0_no_torque_ff/4/trajectory.csv
Commanded Joint 0 Position,Commanded Joint 1 Position,Commanded Joint 2 Position,Commanded Joint 3 Position,Commanded Joint 4 Position,Commanded Joint 5 Position,Commanded Joint 6 Position,Commanded Joint 0 Velocity,Commanded Joint 1 Velocity,Commanded Joint 2 Velocity,Commanded Joint 3 Velocity,Commanded Joint 4 Velocity,Commanded Joint 5 Velocity,Commanded Joint 6 Velocity,Commanded Joint 0 Acceleration,Commanded Joint 1 Acceleration,Commanded Joint 2 Acceleration,Commanded Joint 3 Acceleration,Commanded Joint 4 Acceleration,Commanded Joint 5 Acceleration,Commanded Joint 6 Acceleration,Commanded Joint 0 Torque,Commanded Joint 1 Torque,Commanded Joint 2 Torque,Commanded Joint 3 Torque,Commanded Joint 4 Torque,Commanded Joint 5 Torque,Commanded Joint 6 Torque,Actual Joint 0 Position,Actual Joint 1 Position,Actual Joint 2 Position,Actual Joint 3 Position,Actual Joint 4 Position,Actual Joint 5 Position,Actual Joint 6 Position,Actual Joint 0 Velocity,Actual Joint 1 Velocity,Actual Joint 2 Velocity,Actual Joint 3 Velocity,Actual Joint 4 Velocity,Actual Joint 5 Velocity,Actual Joint 6 Velocity,Actual Joint 0 Acceleration,Actual Joint 1 Acceleration,Actual Joint 2 Acceleration,Actual Joint 3 Acceleration,Actual Joint 4 Acceleration,Actual Joint 5 Acceleration,Actual Joint 6 Acceleration,Actual Joint 0 Torque,Actual Joint 1 Torque,Actual Joint 2 Torque,Actual Joint 3 Torque,Actual Joint 4 Torque,Actual Joint 5 Torque,Actual Joint 6 Torque,
-0.0257261,0.0588221,-0.0106008,-1.84643,-0.00288188,0.381769,-0.0374105,0.000304853,0.0250848,0.000235375,-0.0320727,-0.00389451,0.0572731,-0.000376129,0.190533,15.678,0.147109,-20.0455,-2.43407,35.7957,-0.23508,0,0,0,0,0,0,0,-0.0257396,0.0576607,-0.0106063,-1.84364,-0.00269635,0.375664,-0.0373505,0.00205637,-0.000345628,-0.000962616,-0.00036594,-0.0033813,0.00103872,0.000147737,0,0,0,0,0,0,0,0.0551182,-37.9659,0.0366345,27.3517,0.672604,3.17223,-0.0905302,
-0.025733,0.057661,-0.0106007,-1.84364,-0.00271973,0.375679,-0.0373511,0.000277776,0.0200839,0.000218738,-0.0256367,-0.00318207,0.0459437,-0.000304291,-0.0169228,-3.12554,-0.010398,4.02253,0.445279,-7.08085,0.0448985,0,0,0,0,0,0,0,-0.0257396,0.0576607,-0.0106063,-1.84364,-0.00269635,0.375664,-0.0373505,0.00205637,-0.000345628,-0.000962616,-0.00036594,-0.0033813,0.00103872,0.000147737,0,0,0,0,0,0,0,0.0551182,-37.9659,0.0366345,27.3517,0.672604,3.17223,-0.0905302,
-0.0257321,0.0576619,-0.0105998,-1.84364,-0.00272039,0.375685,-0.0373512,0.000246117,0.0160892,0.000196332,-0.0204878,-0.00256208,0.0368818,-0.000245644,-0.0197873,-2.49668,-0.0140035,3.21803,0.38749,-5.6637,0.0366543,0,0,0,0,0,0,0,-0.0257365,0.0577748,-0.0106098,-1.8437,-0.00269467,0.375658,-0.0373538,0.00399776,0.00414004,0.000351104,-0.00202146,-0.00375629,0.00127682,-0.000303682,0.242674,0.560708,0.164215,-0.20694,-0.0468742,0.029762,-0.0564274,0.0551182,-37.466,0.0366345,27.1017,0.654293,3.22533,-0.0630644,
-0.0257314,0.0576629,-0.0105992,-1.84364,-0.00272007,0.37569,-0.0373513,0.00021436,0.0128974,0.000172486,-0.0163694,-0.00204163,0.0296327,-0.000198075,-0.0198478,-1.99486,-0.0149038,2.57401,0.325283,-4.53067,0.0297309,0,0,0,0,0,0,0,-0.0257365,0.0577748,-0.0106098,-1.8437,-0.00269467,0.375658,-0.0373538,0.00399776,0.00414004,0.000351104,-0.00202146,-0.00375629,0.00127682,-0.000303682,0,0,0,0,0,0,0,0.0551182,-37.466,0.0366345,27.1017,0.654293,3.22533,-0.0630644,
-0.0258172,0.0578185,-0.0107055,-1.8436,4.77544e-05,0.374259,-0.0373885,-0.00108111,0.0106552,-0.00121925,-0.0119301,0.0402483,0.00221546,-0.000476009,-0.809667,-1.4014,-0.869833,2.7746,26.4312,-17.1358,-0.173709,0,0,0,0,0,0,0,-0.0257365,0.0577748,-0.0106098,-1.8437,-0.00269467,0.375658,-0.0373538,0.00399776,0.00414004,0.000351104,-0.00202146,-0.00375629,0.00127682,-0.000303682,0,0,0,0,0,0,0,0.0551182,-37.466,0.0366345,27.1017,0.654293,3.22533,-0.0630644,
-0.0258673,0.0578196,-0.0107565,-1.84357,0.00205894,0.373195,-0.0373954,-0.00211817,0.00855177,-0.00225131,-0.00862946,0.0824783,-0.0248202,-0.000552395,-0.648162,-1.31465,-0.645042,2.06289,26.3938,-16.8973,-0.0477415,0,0,0,0,0,0,0,-0.0257365,0.0577748,-0.0106098,-1.8437,-0.00269467,0.375658,-0.0373538,0.00399776,0.00414004,0.000351104,-0.00202146,-0.00375629,0.00127682,-0.000303682,0,0,0,0,0,0,0,0.0551182,-37.466,0.0366345,27.1017,0.654293,3.22533,-0.0630644,
-0.025909,0.0578139,-0.0107976,-1.84354,0.00425474,0.371999,-0.0373991,-0.00273578,0.00669864,-0.00282681,-0.00625846,0.120877,-0.0497752,-0.000535305,-0.38601,-1.15821,-0.359682,1.48188,23.9995,-15.5968,0.0106813,0,0,0,0,0,0,0,-0.0257365,0.0580517,-0.0106062,-1.84395,-0.00268725,0.375895,-0.0373548,0.00889599,0.0112626,0.00114495,-0.0199968,-0.00111715,0.0122262,-0.00127502,0.612279,0.890323,0.0992308,-2.24692,0.329892,1.36867,-0.121417,0.0551182,-35.8949,0.0366345,25.5069,0.58746,2.90673,-0.050247,
-0.0259392,0.0578054,-0.0108265,-1.84352,0.00655013,0.370715,-0.0374012,-0.00294414,0.00514743,-0.00298593,-0.00459732,0.154087,-0.0719014,-0.000480871,-0.130223,-0.969502,-0.0994517,1.03821,20.7559,-13.8289,0.0340212,0,0,0,0,0,0,0,-0.0257365,0.0580517,-0.0106062,-1.84395,-0.00268725,0.375895,-0.0373548,0.00889599,0.0112626,0.00114495,-0.0199968,-0.00111715,0.0122262,-0.00127502,0,0,0,0,0,0,0,0.0551182,-35.8949,0.0366345,25.5069,0.58746,2.90673,-0.050247,
-0.0258935,0.0581911,-0.0108092,-1.84334,0.00633178,0.367841,-0.0374646,-0.00468034,0.00478754,-0.00506413,0.00395596,0.261296,-0.180489,-0.00140389,-1.08513,-0.224934,-1.29887,5.3458,67.0054,-67.8671,-0.576887,0,0,0,0,0,0,0,-0.0257365,0.0580517,-0.0106062,-1.84395,-0.00268725,0.375895,-0.0373548,0.00889599,0.0112626,0.00114495,-0.0199968,-0.00111715,0.0122262,-0.00127502,0,0,0,0,0,0,0,0.0551182,-35.8949,0.0366345,25.5069,0.58746,2.90673,-0.050247,
-0.0259648,0.0581574,-0.0108857,-1.84311,0.0130185,0.361828,-0.0374868,-0.00552634,0.00298633,-0.00596379,0.00894497,0.376206,-0.294722,-0.00167667,-0.52875,-1.12576,-0.56229,3.11813,71.8187,-71.3955,-0.17049,0,0,0,0,0,0,0,-0.0257365,0.0580517,-0.0106062,-1.84395,-0.00268725,0.375895,-0.0373548,0.00889599,0.0112626,0.00114495,-0.0199968,-0.00111715,0.0122262,-0.00127502,0,0,0,0,0,0,0,0.0551182,-35.8949,0.0366345,25.5069,0.58746,2.90673,-0.050247,
-0.0259947,0.0580973,-0.0109167,-1.84296,0.0203872,0.355123,-0.0374988,-0.00516731,0.000886251,-0.00554714,0.0110006,0.48518,-0.403396,-0.00164094,0.224393,-1.31255,0.26041,1.28474,68.109,-67.9215,0.0223311,0,0,0,0,0,0,0,-0.0257521,0.0584863,-0.0106201,-1.84443,-0.00203044,0.375984,-0.0373464,-0.00113504,0.0161743,-0.00177696,-0.0108271,0.0850861,-0.00604264,0.000304823,-1.25388,0.613957,-0.365238,1.14622,10.7754,-2.28361,0.19748,0.182071,-37.9143,0.139784,27.7008,1.1615,3.13927,-0.0969389,
-0.0259787,0.0580342,-0.0109002,-1.84287,0.0281637,0.347987,-0.0375053,-0.00373515,-0.00086866,-0.00402507,0.010979,0.582556,-0.501125,-0.00147704,0.895104,-1.09682,0.951292,-0.013453,60.8603,-61.0805,0.102438,0,0,0,0,0,0,0,-0.0257521,0.0584863,-0.0106201,-1.84443,-0.00203044,0.375984,-0.0373464,-0.00113504,0.0161743,-0.00177696,-0.0108271,0.0850861,-0.00604264,0.000304823,0,0,0,0,0,0,0,0.182071,-37.9143,0.139784,27.7008,1.1615,3.13927,-0.0969389,
-0.0249156,0.0582782,-0.0099034,-1.84453,0.00598978,0.366296,-0.0373104,0.0104183,-0.00534005,0.00874791,0.00541819,0.587069,-0.550157,-0.00114108,8.84592,-2.79462,7.98311,-3.47553,2.82023,-30.6449,0.209974,0,0,0,0,0,0,0,-0.0257521,0.0584863,-0.0106201,-1.84443,-0.00203044,0.375984,-0.0373464,-0.00113504,0.0161743,-0.00177696,-0.0108271,0.0850861,-0.00604264,0.000304823,0,0,0,0,0,0,0,0.182071,-37.9143,0.139784,27.7008,1.1615,3.13927,-0.0969389,
-0.0241957,0.0580281,-0.00920043,-1.84479,0.0119238,0.358783,-0.0371923,0.0263339,-0.0105262,0.0245727,-0.00213857,0.618006,-0.627955,0.00203782,9.94726,-3.24137,9.8905,-4.72297,19.3355,-48.6238,1.98681,0,0,0,0,0,0,0,-0.0257521,0.0584863,-0.0106201,-1.84443,-0.00203044,0.375984,-0.0373464,-0.00113504,0.0161743,-0.00177696,-0.0108271,0.0850861,-0.00604264,0.000304823,0,0,0,0,0,0,0,0.182071,-37.9143,0.139784,27.7008,1.1615,3.13927,-0.0969389,
-0.0233292,0.0578969,-0.0083482,-1.84495,0.0186275,0.350077,-0.0369744,0.0427279,-0.0116987,0.0409639,-0.00573401,0.661998,-0.720022,0.0070801,10.2462,-0.732806,10.2445,-2.24715,27.4954,-57.5417,3.15142,0,0,0,0,0,0,0,-0.0259693,0.0590907,-0.0108021,-1.84436,0.00570315,0.372975,-0.0373516,-0.0163293,0.00608426,-0.00837163,0.0123962,0.448166,-0.218359,-0.000322701,-1.89929,-1.26125,-0.824334,2.90291,45.385,-26.5395,-0.0784405,0.66608,-38.3388,0.711073,26.0068,2.26104,1.5078,-0.050247,
-0.0246583,0.0587249,-0.00940569,-1.84504,0.0155051,0.362229,-0.0370526,0.0561321,-0.0145839,0.0548922,-0.0156097,0.662832,-0.734183,0.0101798,8.37765,-1.80322,8.70522,-6.17234,0.52089,-8.85097,1.93732,0,0,0,0,0,0,0,-0.0259693,0.0590907,-0.0108021,-1.84436,0.00570315,0.372975,-0.0373516,-0.0163293,0.00608426,-0.00837163,0.0123962,0.448166,-0.218359,-0.000322701,0,0,0,0,0,0,0,0.66608,-38.3388,0.711073,26.0068,2.26104,1.5078,-0.050247,
-0.0234938,0.0586259,-0.00825386,-1.84548,0.0216079,0.354468,-0.0368275,0.0740194,-0.0141412,0.0727094,-0.0235821,0.682835,-0.781382,0.0137724,11.1796,0.276659,11.1357,-4.9827,12.5019,-29.4991,2.24537,0,0,0,0,0,0,0,-0.0259693,0.0590907,-0.0108021,-1.84436,0.00570315,0.372975,-0.0373516,-0.0163293,0.00608426,-0.00837163,0.0123962,0.448166,-0.218359,-0.000322701,0,0,0,0,0,0,0,0.66608,-38.3388,0.711073,26.0068,2.26104,1.5078,-0.050247,
-0.0221784,0.0585765,-0.00693162,-1.84603,0.0284151,0.345787,-0.036761,0.0920996,-0.0125488,0.0912235,-0.0326136,0.716447,-0.842107,0.0126808,11.3001,0.995267,11.5713,-5.64473,21.0074,-37.9533,-0.68225,0,0,0,0,0,0,0,-0.0259693,0.0590907,-0.0108021,-1.84436,0.00570315,0.372975,-0.0373516,-0.0163293,0.00608426,-0.00837163,0.0123962,0.448166,-0.218359,-0.000322701,0,0,0,0,0,0,0,0.66608,-38.3388,0.711073,26.0068,2.26104,1.5078,-0.050247,
-0.0207446,0.0585285,-0.00552157,-1.84673,0.035763,0.336492,-0.0367744,0.109525,-0.011237,0.10823,-0.043578,0.756856,-0.906065,0.00980937,10.8911,0.819889,10.6292,-6.85272,25.2559,-39.9736,-1.79465,0,0,0,0,0,0,0,-0.0262429,0.0592174,-0.0111768,-1.84403,0.0234631,0.35936,-0.0373523,0.00125528,0.00664663,-0.00156539,0.00354193,0.578226,-0.490481,-0.00141418,2.19808,0.0702964,0.85078,-1.10679,16.2574,-34.0153,-0.136435,3.40351,-37.9421,3.28584,25.7092,1.99188,0.812002,-0.0026396,
-0.0244674,0.058768,-0.00942567,-1.84556,0.0339897,0.346759,-0.0368832,0.115297,-0.0143204,0.113836,-0.0560535,0.744704,-0.901323,0.0135433,3.6072,-1.92715,3.50371,-7.79722,-7.59483,2.96368,2.3337,0,0,0,0,0,0,0,-0.0262429,0.0592174,-0.0111768,-1.84403,0.0234631,0.35936,-0.0373523,0.00125528,0.00664663,-0.00156539,0.00354193,0.578226,-0.490481,-0.00141418,0,0,0,0,0,0,0,3.40351,-37.9421,3.28584,25.7092,1.99188,0.812002,-0.0026396,
-0.0230922,0.0585691,-0.00808779,-1.84657,0.0402708,0.338635,-0.0368505,0.126616,-0.0164292,0.124516,-0.0701731,0.752791,-0.924179,0.0116534,7.07429,-1.31796,6.67487,-8.82473,5.05403,-14.285,-1.18115,0,0,0,0,0,0,0,-0.0262429,0.0592174,-0.0111768,-1.84403,0.0234631,0.35936,-0.0373523,0.00125528,0.00664663,-0.00156539,0.00354193,0.578226,-0.490481,-0.00141418,0,0,0,0,0,0,0,3.40351,-37.9421,3.28584,25.7092,1.99188,0.812002,-0.0026396,
-0.0215548,0.05836,-0.00658333,-1.84775,0.0471657,0.329758,-0.036919,0.139728,-0.0183711,0.137224,-0.0856313,0.774605,-0.961258,0.0076101,8.19534,-1.21374,7.94273,-9.66134,13.6338,-23.1747,-2.52709,0,0,0,0,0,0,0,-0.0262429,0.0592174,-0.0111768,-1.84403,0.0234631,0.35936,-0.0373523,0.00125528,0.00664663,-0.00156539,0.00354193,0.578226,-0.490481,-0.00141418,0,0,0,0,0,0,0,3.40351,-37.9421,3.28584,25.7092,1.99188,0.812002,-0.0026396,
-0.019906,0.0581495,-0.00497282,-1.84905,0.0545375,0.320316,-0.0370277,0.153002,-0.0199577,0.150042,-0.100891,0.803978,-1.00506,0.00337079,8.29623,-0.991638,8.01128,-9.53732,18.3579,-27.3762,-2.64957,0,0,0,0,0,0,0,-0.0262429,0.0592174,-0.0111768,-1.84403,0.0234631,0.35936,-0.0373523,0.00125528,0.00664663,-0.00156539,0.00354193,0.578226,-0.490481,-0.00141418,0,0,0,0,0,0,0,3.40351,-37.9421,3.28584,25.7092,1.99188,0.812002,-0.0026396,
-0.0240433,0.0584205,-0.00892485,-1.84561,0.0555766,0.324246,-0.0369019,0.150252,-0.0232258,0.147229,-0.10313,0.797963,-0.997882,0.00372903,-1.71876,-2.04256,-1.75817,-1.39946,-3.7591,4.48658,0.223897,0,0,0,0,0,0,0,-0.0259188,0.0589929,-0.0107743,-1.84409,0.0436986,0.338708,-0.0371743,0.023878,-0.0173055,0.0293445,-0.00489508,0.682379,-0.70021,0.00146623,2.82784,-2.99402,3.86374,-1.05463,13.0191,-26.2161,0.360051,6.80347,-35.8672,6.56282,23.7891,2.35901,0.34783,-0.0163725,
-0.0227068,0.0581263,-0.00761389,-1.84671,0.0622892,0.315694,-0.0369647,0.153612,-0.0259356,0.150557,-0.109951,0.806186,-1.01211,0.00141357,2.1001,-1.69357,2.08012,-4.26335,5.13941,-8.88975,-1.44716,0,0,0,0,0,0,0,-0.0259188,0.0589929,-0.0107743,-1.84409,0.0436986,0.338708,-0.0371743,0.023878,-0.0173055,0.0293445,-0.00489508,0.682379,-0.70021,0.00146623,0,0,0,0,0,0,0,6.80347,-35.8672,6.56282,23.7891,2.35901,0.34783,-0.0163725,
-0.0212151,0.0578422,-0.00615508,-1.84794,0.0694492,0.306525,-0.0370697,0.160184,-0.0278527,0.156916,-0.118746,0.82395,-1.03891,-0.00149479,4.1076,-1.19821,3.9742,-5.49664,11.1022,-16.7511,-1.81773,0,0,0,0,0,0,0,-0.0259188,0.0589929,-0.0107743,-1.84409,0.0436986,0.338708,-0.0371743,0.023878,-0.0173055,0.0293445,-0.00489508,0.682379,-0.70021,0.00146623,0,0,0,0,0,0,0,6.80347,-35.8672,6.56282,23.7891,2.35901,0.34783,-0.0163725,
-0.0242493,0.0583075,-0.0091275,-1.84566,0.0558882,0.324208,-0.0371899,0.152964,-0.0314574,0.150014,-0.118382,0.817613,-1.02535,-0.00261143,-4.51251,-2.25293,-4.31364,0.227401,-3.96038,8.47267,-0.6979,0,0,0,0,0,0,0,-0.0259188,0.0589929,-0.0107743,-1.84409,0.0436986,0.338708,-0.0371743,0.023878,-0.0173055,0.0293445,-0.00489508,0.682379,-0.70021,0.00146623,0,0,0,0,0,0,0,6.80347,-35.8672,6.56282,23.7891,2.35901,0.34783,-0.0163725,
-0.0230302,0.0579408,-0.00793244,-1.84677,0.0626892,0.315616,-0.0372903,0.152848,-0.0343318,0.149888,-0.12246,0.824115,-1.03508,-0.00459822,-0.0727491,-1.79652,-0.0789914,-2.54848,4.06352,-6.07884,-1.24175,0,0,0,0,0,0,0,-0.024207,0.0582105,-0.00897554,-1.84561,0.0662647,0.313196,-0.0370309,0.0716401,-0.0254858,0.0651674,-0.0595791,0.746684,-0.818293,0.00405034,5.97026,-1.02254,4.47786,-6.83551,8.03812,-14.7604,0.323014,6.44641,-35.2681,6.11055,23.5153,2.09625,1.14983,-0.050247,
-0.0216503,0.0575942,-0.00658417,-1.84799,0.0698893,0.306401,-0.037408,0.156775,-0.03613,0.153617,-0.128533,0.839293,-1.05845,-0.0066212,2.45453,-1.12389,2.33071,-3.79577,9.48658,-14.6052,-1.26436,0,0,0,0,0,0,0,-0.024207,0.0582105,-0.00897554,-1.84561,0.0662647,0.313196,-0.0370309,0.0716401,-0.0254858,0.0651674,-0.0595791,0.746684,-0.818293,0.00405034,0,0,0,0,0,0,0,6.44641,-35.2681,6.11055,23.5153,2.09625,1.14983,-0.050247,
-0.0201582,0.057274,-0.00512777,-1.84929,0.0774175,0.296722,-0.0375313,0.162723,-0.03691,0.159304,-0.135275,0.85964,-1.08873,-0.0083784,3.7176,-0.487509,3.55421,-4.21349,12.7168,-18.9292,-1.09825,0,0,0,0,0,0,0,-0.024207,0.0582105,-0.00897554,-1.84561,0.0662647,0.313196,-0.0370309,0.0716401,-0.0254858,0.0651674,-0.0595791,0.746684,-0.818293,0.00405034,0,0,0,0,0,0,0,6.44641,-35.2681,6.11055,23.5153,2.09625,1.14983,-0.050247,
-0.02216,0.0575396,-0.00695983,-1.8476,0.07935,0.297302,-0.0371832,0.158886,-0.038199,0.155614,-0.135513,0.856266,-1.08031,-0.00916018,-2.39837,-0.805573,-2.30609,-0.14886,-2.10854,5.26385,-0.488614,0,0,0,0,0,0,0,-0.024207,0.0582105,-0.00897554,-1.84561,0.0662647,0.313196,-0.0370309,0.0716401,-0.0254858,0.0651674,-0.0595791,0.746684,-0.818293,0.00405034,0,0,0,0,0,0,0,6.44641,-35.2681,6.11055,23.5153,2.09625,1.14983,-0.050247,
-0.0208342,0.0572026,-0.00566412,-1.84881,0.0864621,0.288269,-0.0372997,0.160252,-0.038985,0.156884,-0.138686,0.862816,-1.09007,-0.0102392,0.853571,-0.491301,0.793713,-1.98317,4.09346,-6.09987,-0.674412,0,0,0,0,0,0,0,-0.0211281,0.0575849,-0.00600689,-1.84859,0.0899441,0.283778,-0.037033,0.11567,-0.00898811,0.0884899,-0.109517,0.679846,-0.85331,-0.000273427,5.50376,2.06221,2.91531,-6.24226,-8.3547,-4.37706,-0.540471,1.80469,-36.4424,1.83778,25.5347,1.37573,2.5689,-0.0703886,
-0.0193841,0.0568862,-0.00424875,-1.8501,0.0938925,0.278743,-0.0374222,0.164454,-0.0390983,0.160891,-0.143167,0.876014,-1.11021,-0.011255,2.62609,-0.0707854,2.5046,-2.8009,8.24847,-12.5868,-0.634824,0,0,0,0,0,0,0,-0.0211281,0.0575849,-0.00600689,-1.84859,0.0899441,0.283778,-0.037033,0.11567,-0.00898811,0.0884899,-0.109517,0.679846,-0.85331,-0.000273427,0,0,0,0,0,0,0,1.80469,-36.4424,1.83778,25.5347,1.37573,2.5689,-0.0703886,
-0.0178487,0.0565927,-0.00275076,-1.85144,0.101585,0.268853,-0.0375436,0.16995,-0.0386151,0.166163,-0.148034,0.893118,-1.13542,-0.0120399,3.43503,0.302,3.29468,-3.04183,10.6905,-15.7564,-0.490567,0,0,0,0,0,0,0,-0.0211281,0.0575849,-0.00600689,-1.84859,0.0899441,0.283778,-0.037033,0.11567,-0.00898811,0.0884899,-0.109517,0.679846,-0.85331,-0.000273427,0,0,0,0,0,0,0,1.80469,-36.4424,1.83778,25.5347,1.37573,2.5689,-0.0703886,
-0.0187992,0.0571872,-0.0037347,-1.85094,0.102751,0.267245,-0.0372528,0.167337,-0.0363611,0.163539,-0.149315,0.881422,-1.12508,-0.0126049,-1.63293,1.40872,-1.63999,-0.80035,-7.31039,6.46347,-0.353134,0,0,0,0,0,0,0,-0.0211281,0.0575849,-0.00600689,-1.84859,0.0899441,0.283778,-0.037033,0.11567,-0.00898811,0.0884899,-0.109517,0.679846,-0.85331,-0.000273427,0,0,0,0,0,0,0,1.80469,-36.4424,1.83778,25.5347,1.37573,2.5689,-0.0703886,
-0.0174115,0.0569556,-0.00238182,-1.85225,0.109857,0.257981,-0.0373766,0.168561,-0.0348772,0.164653,-0.152193,0.882802,-1.13165,-0.0131795,0.765302,0.927477,0.696381,-1.79863,0.862434,-4.1105,-0.359149,0,0,0,0,0,0,0,-0.0174357,0.0572006,-0.00160969,-1.85264,0.114334,0.252604,-0.0370352,0.0856505,-0.00526093,0.160079,-0.115354,0.713091,-0.928536,0.00026201,-3.75245,0.465898,8.94864,-0.729539,4.15564,-9.40328,0.0669296,1.72931,-37.4898,1.48866,25.733,1.31988,2.17156,-0.103348,
-0.0159295,0.0567234,-0.000937076,-1.85361,0.117299,0.248287,-0.0374987,0.171901,-0.0337069,0.167841,-0.15567,0.892273,-1.14767,-0.0135956,2.0871,0.731431,1.99253,-2.1734,5.91996,-10.0113,-0.260069,0,0,0,0,0,0,0,-0.0174357,0.0572006,-0.00160969,-1.85264,0.114334,0.252604,-0.0370352,0.0856505,-0.00526093,0.160079,-0.115354,0.713091,-0.928536,0.00026201,0,0,0,0,0,0,0,1.72931,-37.4898,1.48866,25.733,1.31988,2.17156,-0.103348,
-0.0149321,0.0568268,0.000836285,-1.8551,0.127594,0.235458,-0.0372768,0.170664,-0.0321602,0.166558,-0.156556,0.885668,-1.14085,-0.013982,-0.772702,0.966675,-0.801765,-0.553751,-4.12833,4.26242,-0.241475,0,0,0,0,0,0,0,-0.0174357,0.0572006,-0.00160969,-1.85264,0.114334,0.252604,-0.0370352,0.0856505,-0.00526093,0.160079,-0.115354,0.713091,-0.928536,0.00026201,0,0,0,0,0,0,0,1.72931,-37.4898,1.48866,25.733,1.31988,2.17156,-0.103348,
-0.0135012,0.0566047,0.00223018,-1.85644,0.134843,0.226049,-0.0373991,0.172305,-0.0312801,0.168094,-0.158653,0.889738,-1.1479,-0.0142424,1.02543,0.550095,0.959863,-1.31081,2.54334,-4.40528,-0.16273,0,0,0,0,0,0,0,-0.0174357,0.0572006,-0.00160969,-1.85264,0.114334,0.252604,-0.0370352,0.0856505,-0.00526093,0.160079,-0.115354,0.713091,-0.928536,0.00026201,0,0,0,0,0,0,0,1.72931,-37.4898,1.48866,25.733,1.31988,2.17156,-0.103348,
-0.0119963,0.0563794,0.00369629,-1.85781,0.142379,0.216278,-0.0375153,0.175467,-0.0306555,0.171128,-0.16112,0.900195,-1.16259,-0.0142972,1.9759,0.390348,1.89614,-1.54136,6.53606,-9.18086,-0.0343058,0,0,0,0,0,0,0,-0.0129033,0.0567689,0.00286125,-1.85722,0.139998,0.220073,-0.0370458,0.163713,-0.0193733,0.108257,-0.133951,0.719735,-0.941775,0.00125092,9.75783,-1.76405,-6.47778,-2.32474,0.830463,-1.65483,0.123614,1.4516,-36.9661,1.3141,24.9356,1.55883,1.39519,-0.117081,
-0.0104422,0.0561557,0.00521041,-1.85919,0.150136,0.206248,-0.0376221,0.179225,-0.0301188,0.174755,-0.163487,0.914086,-1.18082,-0.0141081,2.34898,0.33546,2.2672,-1.47992,8.68182,-11.3923,0.118207,0,0,0,0,0,0,0,-0.0129033,0.0567689,0.00286125,-1.85722,0.139998,0.220073,-0.0370458,0.163713,-0.0193733,0.108257,-0.133951,0.719735,-0.941775,0.00125092,0,0,0,0,0,0,0,1.4516,-36.9661,1.3141,24.9356,1.55883,1.39519,-0.117081,
-0.010276,0.0563076,0.00541045,-1.85972,0.153344,0.202757,-0.0372905,0.177595,-0.030139,0.17308,-0.16297,0.904261,-1.16885,-0.0143716,-1.01841,-0.0126641,-1.04694,0.323592,-6.14072,7.47877,-0.164693,0,0,0,0,0,0,0,-0.0129033,0.0567689,0.00286125,-1.85722,0.139998,0.220073,-0.0370458,0.163713,-0.0193733,0.108257,-0.133951,0.719735,-0.941775,0.00125092,0,0,0,0,0,0,0,1.4516,-36.9661,1.3141,24.9356,1.55883,1.39519,-0.117081,
-0.00882498,0.0560596,0.00682259,-1.86105,0.160628,0.193338,-0.0374074,0.178353,-0.0303108,0.173768,-0.163565,0.905531,-1.17055,-0.0144185,0.473541,-0.107351,0.429646,-0.371952,0.793578,-1.06296,-0.0293294,0,0,0,0,0,0,0,-0.0129033,0.0567689,0.00286125,-1.85722,0.139998,0.220073,-0.0370458,0.163713,-0.0193733,0.108257,-0.133951,0.719735,-0.941775,0.00125092,0,0,0,0,0,0,0,1.4516,-36.9661,1.3141,24.9356,1.55883,1.39519,-0.117081,
-0.00731629,0.0558122,0.00829132,-1.8624,0.168186,0.183596,-0.0375146,0.1804,-0.0304334,0.175732,-0.164595,0.913361,-1.18001,-0.0142158,1.27915,-0.0766245,1.22788,-0.643722,4.89371,-5.90842,0.126721,0,0,0,0,0,0,0,-0.00774091,0.0564643,0.0075468,-1.86221,0.166456,0.187228,-0.0370617,0.140978,-0.00566499,0.158665,-0.160401,0.792484,-0.977442,-0.000306854,-2.84192,1.71354,6.30101,-3.30618,9.09368,-4.4584,-0.194722,0.487552,-35.9425,0.762648,24.8087,1.72912,1.07751,-0.0703886,
-0.00577055,0.0555681,0.0097965,-1.86375,0.175947,0.173622,-0.0376101,0.182963,-0.0304491,0.178215,-0.165637,0.924724,-1.19334,-0.0137603,1.60214,-0.00983802,1.55195,-0.65113,7.10195,-8.33408,0.284673,0,0,0,0,0,0,0,-0.00774091,0.0564643,0.0075468,-1.86221,0.166456,0.187228,-0.0370617,0.140978,-0.00566499,0.158665,-0.160401,0.792484,-0.977442,-0.000306854,0,0,0,0,0,0,0,0.487552,-35.9425,0.762648,24.8087,1.72912,1.07751,-0.0703886,
-0.00498203,0.0561997,0.010231,-1.86489,0.180428,0.169467,-0.0372973,0.181983,-0.0281929,0.177206,-0.166368,0.918872,-1.18353,-0.0139263,-0.612332,1.41017,-0.630744,-0.45697,-3.65753,6.13161,-0.103746,0,0,0,0,0,0,0,-0.00774091,0.0564643,0.0075468,-1.86221,0.166456,0.187228,-0.0370617,0.140978,-0.00566499,0.158665,-0.160401,0.792484,-0.977442,-0.000306854,0,0,0,0,0,0,0,0.487552,-35.9425,0.762648,24.8087,1.72912,1.07751,-0.0703886,
-0.00349464,0.0560202,0.011678,-1.86626,0.187865,0.159929,-0.0374047,0.182772,-0.0270413,0.17794,-0.16733,0.92101,-1.18528,-0.0138263,0.492595,0.719715,0.458555,-0.601559,1.33612,-1.09511,0.0625172,0,0,0,0,0,0,0,-0.00774091,0.0564643,0.0075468,-1.86221,0.166456,0.187228,-0.0370617,0.140978,-0.00566499,0.158665,-0.160401,0.792484,-0.977442,-0.000306854,0,0,0,0,0,0,0,0.487552,-35.9425,0.762648,24.8087,1.72912,1.07751,-0.0703886,
-0.00196598,0.0558244,0.0131656,-1.86763,0.19551,0.150122,-0.0375005,0.184434,-0.0265281,0.179541,-0.168183,0.927937,-1.19341,-0.013455,1.03881,0.320732,1.00051,-0.532783,4.32996,-5.07869,0.23207,0,0,0,0,0,0,0,-0.00318127,0.0563585,0.0131351,-1.86748,0.193914,0.15333,-0.0370712,0.109097,0.00137483,0.184749,-0.160189,0.83436,-0.997289,-0.000295837,-3.98508,0.879977,3.26053,0.0265451,5.23445,-2.48085,0.00137709,2.66956,-36.7439,2.11152,25.011,1.79687,0.93743,-0.0566557,
-0.00041389,0.0556171,0.0146763,-1.869,0.203314,0.140128,-0.0375835,0.186349,-0.0264065,0.181399,-0.16874,0.937456,-1.20457,-0.0128394,1.19718,0.076041,1.16171,-0.348287,5.94927,-6.97479,0.384744,0,0,0,0,0,0,0,-0.00318127,0.0563585,0.0131351,-1.86748,0.193914,0.15333,-0.0370712,0.109097,0.00137483,0.184749,-0.160189,0.83436,-0.997289,-0.000295837,0,0,0,0,0,0,0,2.66956,-36.7439,2.11152,25.011,1.79687,0.93743,-0.0566557,
-0.000481425,0.0561431,0.0157677,-1.87016,0.208175,0.135512,-0.0372887,0.183976,-0.0245011,0.179055,-0.168859,0.931402,-1.1925,-0.0129229,-1.48329,1.19087,-1.46507,-0.0746234,-3.78372,7.53977,-0.0521812,0,0,0,0,0,0,0,-0.00318127,0.0563585,0.0131351,-1.86748,0.193914,0.15333,-0.0370712,0.109097,0.00137483,0.184749,-0.160189,0.83436,-0.997289,-0.000295837,0,0,0,0,0,0,0,2.66956,-36.7439,2.11152,25.011,1.79687,0.93743,-0.0566557,
0.000975147,0.0559735,0.0171843,-1.87152,0.215641,0.126013,-0.0373836,0.183595,-0.023839,0.178659,-0.169087,0.931767,-1.19149,-0.0127129,-0.238052,0.413801,-0.247739,-0.142007,0.227698,0.633779,0.131238,0,0,0,0,0,0,0,-0.00318127,0.0563585,0.0131351,-1.86748,0.193914,0.15333,-0.0370712,0.109097,0.00137483,0.184749,-0.160189,0.83436,-0.997289,-0.000295837,0,0,0,0,0,0,0,2.66956,-36.7439,2.11152,25.011,1.79687,0.93743,-0.0566557,
0.00247017,0.0557804,0.0186385,-1.87288,0.223275,0.116272,-0.0374662,0.184252,-0.0239003,0.179282,-0.169165,0.936255,-1.1967,-0.0122344,0.410342,-0.0382989,0.389574,-0.0491514,2.80506,-3.25374,0.299047,0,0,0,0,0,0,0,-0.00318127,0.0563585,0.0131351,-1.86748,0.193914,0.15333,-0.0370712,0.109097,0.00137483,0.184749,-0.160189,0.83436,-0.997289,-0.000295837,0,0,0,0,0,0,0,2.66956,-36.7439,2.11152,25.011,1.79687,0.93743,-0.0566557,
0.00550344,0.0562054,0.0205387,-1.87569,0.235649,0.100502,-0.0372654,0.182797,-0.0214391,0.177795,-0.169885,0.92849,-1.18843,-0.0121717,-0.908837,1.53822,-0.929605,-0.449837,-4.85309,5.16571,0.0392139,0,0,0,0,0,0,0,0.00272963,0.0563254,0.0178619,-1.87293,0.221574,0.118572,-0.0370691,0.242416,0.00965488,0.063711,-0.168229,0.822142,-1.03224,0.00130549,16.6649,1.03501,-15.1298,-1.00511,-1.52729,-4.36866,0.200166,0.209842,-37.2398,0.413527,26.3043,2.25464,0.904471,-0.0905302,
0.00696337,0.0560671,0.0219571,-1.87707,0.243049,0.0909701,-0.0373483,0.182736,-0.0206093,0.177696,-0.170221,0.92779,-1.18904,-0.0118104,-0.0382881,0.51866,-0.0617246,-0.209892,-0.437178,-0.382462,0.225798,0,0,0,0,0,0,0,0.00272963,0.0563254,0.0178619,-1.87293,0.221574,0.118572,-0.0370691,0.242416,0.00965488,0.063711,-0.168229,0.822142,-1.03224,0.00130549,0,0,0,0,0,0,0,0.209842,-37.2398,0.413527,26.3043,2.25464,0.904471,-0.0905302,
0.00845254,0.0558907,0.0234043,-1.87845,0.250622,0.0814201,-0.0374192,0.183418,-0.020897,0.178338,-0.170741,0.931561,-1.18998,-0.0112198,0.426266,-0.17983,0.401393,-0.325463,2.35657,-0.587985,0.369113,0,0,0,0,0,0,0,0.00272963,0.0563254,0.0178619,-1.87293,0.221574,0.118572,-0.0370691,0.242416,0.00965488,0.063711,-0.168229,0.822142,-1.03224,0.00130549,0,0,0,0,0,0,0,0.209842,-37.2398,0.413527,26.3043,2.25464,0.904471,-0.0905302,
0.00996491,0.0556774,0.0248753,-1.87989,0.258331,0.0724198,-0.0374782,0.184544,-0.0220517,0.179444,-0.172746,0.937979,-1.17699,-0.010451,0.703495,-0.72168,0.690831,-1.25264,4.01161,8.11822,0.48051,0,0,0,0,0,0,0,0.00272963,0.0563254,0.0178619,-1.87293,0.221574,0.118572,-0.0370691,0.242416,0.00965488,0.063711,-0.168229,0.822142,-1.03224,0.00130549,0,0,0,0,0,0,0,0.209842,-37.2398,0.413527,26.3043,2.25464,0.904471,-0.0905302,
0.0116067,0.0562692,0.0258808,-1.88143,0.264155,0.0646147,-0.0372423,0.183688,-0.0206262,0.178541,-0.172449,0.931821,-1.1734,-0.0104353,-0.534884,0.890932,-0.564339,0.185303,-3.84923,2.2489,0.00983589,0,0,0,0,0,0,0,0.0087606,0.056456,0.0231384,-1.87867,0.249874,0.0827986,-0.0370699,0.266132,-0.0018305,0.0554077,-0.182262,0.849602,-1.04436,0.000161674,2.96445,-1.43567,-1.03791,-1.75411,3.43256,-1.51469,-0.142977,-0.627255,-37.6643,-0.185533,26.7526,2.1997,0.838553,-0.083206,
0.0130811,0.0561034,0.0273124,-1.88281,0.271599,0.0552823,-0.0373135,0.18381,-0.0206453,0.178623,-0.172349,0.931563,-1.17203,-0.0101286,0.0760746,-0.0119302,0.0511915,0.0625946,-0.160826,0.856644,0.19165,0,0,0,0,0,0,0,0.0087606,0.056456,0.0231384,-1.87867,0.249874,0.0827986,-0.0370699,0.266132,-0.0018305,0.0554077,-0.182262,0.849602,-1.04436,0.000161674,0,0,0,0,0,0,0,-0.627255,-37.6643,-0.185533,26.7526,2.1997,0.838553,-0.083206,
0.014582,0.055893,0.0287712,-1.88424,0.279191,0.0464703,-0.0373729,0.184571,-0.0217754,0.179367,-0.173779,0.935033,-1.15792,-0.00958698,0.476087,-0.706286,0.465405,-0.893491,2.16837,8.81445,0.338528,0,0,0,0,0,0,0,0.0087606,0.056456,0.0231384,-1.87867,0.249874,0.0827986,-0.0370699,0.266132,-0.0018305,0.0554077,-0.182262,0.849602,-1.04436,0.000161674,0,0,0,0,0,0,0,-0.627255,-37.6643,-0.185533,26.7526,2.1997,0.838553,-0.083206,
0.0161013,0.0556538,0.0302484,-1.88572,0.286887,0.0384643,-0.037422,0.185639,-0.0234003,0.180423,-0.176076,0.940434,-1.12649,-0.00889673,0.667495,-1.0156,0.659887,-1.43611,3.37577,19.6472,0.43141,0,0,0,0,0,0,0,0.0087606,0.056456,0.0231384,-1.87867,0.249874,0.0827986,-0.0370699,0.266132,-0.0018305,0.0554077,-0.182262,0.849602,-1.04436,0.000161674,0,0,0,0,0,0,0,-0.627255,-37.6643,-0.185533,26.7526,2.1997,0.838553,-0.083206,
0.0115711,0.0562641,0.0258459,-1.88142,0.264196,0.0647458,-0.037218,0.18403,-0.0218525,0.178804,-0.175245,0.934411,-1.12918,-0.00888634,-1.00591,0.967365,-1.01189,0.519631,-3.76463,-1.6822,0.00649205,0,0,0,0,0,0,0,0.0150339,0.0564849,0.0286779,-1.88465,0.280625,0.0446931,-0.0370721,0.235478,-0.00260456,0.0956401,-0.168461,0.858403,-1.02531,0.000890284,-3.83171,-0.0967582,5.02904,1.72516,1.1001,2.38073,0.0910762,0.840641,-36.1925,1.48866,25.3323,1.99829,0.692984,-0.0630644,
0.0130258,0.0560837,0.0272594,-1.88286,0.271669,0.0560679,-0.037277,0.183593,-0.0219936,0.178381,-0.176085,0.934342,-1.12029,-0.00858427,-0.273219,-0.0881726,-0.264444,-0.524739,-0.0427428,5.55524,0.18879,0,0,0,0,0,0,0,0.0150339,0.0564849,0.0286779,-1.88465,0.280625,0.0446931,-0.0370721,0.235478,-0.00260456,0.0956401,-0.168461,0.858403,-1.02531,0.000890284,0,0,0,0,0,0,0,0.840641,-36.1925,1.48866,25.3323,1.99829,0.692984,-0.0630644,
0.0145059,0.0558671,0.0286982,-1.88434,0.279278,0.0481437,-0.0373257,0.183875,-0.0230089,0.178676,-0.177947,0.937718,-1.09434,-0.00808377,0.176469,-0.634547,0.184204,-1.16378,2.10996,16.2197,0.312815,0,0,0,0,0,0,0,0.0150339,0.0564849,0.0286779,-1.88465,0.280625,0.0446931,-0.0370721,0.235478,-0.00260456,0.0956401,-0.168461,0.858403,-1.02531,0.000890284,0,0,0,0,0,0,0,0.840641,-36.1925,1.48866,25.3323,1.99829,0.692984,-0.0630644,
0.0178722,0.0562133,0.031418,-1.8874,0.295048,0.027882,-0.0371992,0.182956,-0.022694,0.177736,-0.177429,0.933124,-1.08166,-0.00795926,-0.574495,0.196771,-0.587355,0.32364,-2.8711,7.92256,0.0778188,0,0,0,0,0,0,0,0.0150339,0.0564849,0.0286779,-1.88465,0.280625,0.0446931,-0.0370721,0.235478,-0.00260456,0.0956401,-0.168461,0.858403,-1.02531,0.000890284,0,0,0,0,0,0,0,0.840641,-36.1925,1.48866,25.3323,1.99829,0.692984,-0.0630644,
0.0193348,0.055994,0.0328386,-1.88885,0.30252,0.0203013,-0.0372485,0.18293,-0.0236382,0.177704,-0.178251,0.933294,-1.05485,-0.00760008,-0.0162978,-0.590091,-0.020101,-0.514127,0.10585,16.7594,0.224487,0,0,0,0,0,0,0,0.0213166,0.0564244,0.0339127,-1.89059,0.309006,0.0103862,-0.0370674,0.300385,-0.0111132,0.0345462,-0.182671,0.75851,-0.944739,0.000519141,8.11328,-1.06358,-7.63674,-1.77622,-12.4866,10.0713,-0.0463929,0.614505,-35.7442,1.11177,26.0544,1.78405,1.22948,-0.0630644,
0.020816,0.0557436,0.0342778,-1.89033,0.310101,0.0135711,-0.0372883,0.183374,-0.0251705,0.178142,-0.179581,0.936161,-1.01213,-0.00707504,0.27731,-0.957694,0.274013,-0.830872,1.79206,26.6971,0.328147,0,0,0,0,0,0,0,0.0213166,0.0564244,0.0339127,-1.89059,0.309006,0.0103862,-0.0370674,0.300385,-0.0111132,0.0345462,-0.182671,0.75851,-0.944739,0.000519141,0,0,0,0,0,0,0,0.614505,-35.7442,1.11177,26.0544,1.78405,1.22948,-0.0630644,
0.0223056,0.0554725,0.0357253,-1.89181,0.317758,0.00776756,-0.0373195,0.183939,-0.0269129,0.178701,-0.180776,0.940373,-0.954794,-0.0064403,0.353423,-1.08903,0.349408,-0.747249,2.63245,35.836,0.396719,0,0,0,0,0,0,0,0.0213166,0.0564244,0.0339127,-1.89059,0.309006,0.0103862,-0.0370674,0.300385,-0.0111132,0.0345462,-0.182671,0.75851,-0.944739,0.000519141,0,0,0,0,0,0,0,0.614505,-35.7442,1.11177,26.0544,1.78405,1.22948,-0.0630644,
0.0241582,0.056105,0.036637,-1.89346,0.322441,-0.00429723,-0.0371743,0.18278,-0.0262094,0.177453,-0.180801,0.924912,-0.9414,-0.00641334,-0.724376,0.439726,-0.780249,-0.0156667,-9.66317,8.37142,0.016846,0,0,0,0,0,0,0,0.0213166,0.0564244,0.0339127,-1.89059,0.309006,0.0103862,-0.0370674,0.300385,-0.0111132,0.0345462,-0.182671,0.75851,-0.944739,0.000519141,0,0,0,0,0,0,0,0.614505,-35.7442,1.11177,26.0544,1.78405,1.22948,-0.0630644,
0.025601,0.055875,0.0380359,-1.89493,0.329603,-0.0106643,-0.0372149,0.182294,-0.0267165,0.176935,-0.181348,0.918986,-0.912296,-0.00614449,-0.303648,-0.316948,-0.323417,-0.341269,-3.70341,18.19,0.16803,0,0,0,0,0,0,0,0.0270573,0.0564044,0.0399035,-1.89662,0.336407,-0.020302,-0.0370696,0.328836,-0.00481853,0.0100523,-0.177211,0.816745,-0.880268,0.000547433,3.55641,0.786834,-3.06173,0.682412,7.27934,8.05894,0.00353659,-0.754208,-35.5934,-0.33629,24.6857,2.48077,0.480581,-0.0429228,
0.0270551,0.0556142,0.0394468,-1.8964,0.336942,-0.0161796,-0.0372465,0.182188,-0.0278944,0.17682,-0.181869,0.918661,-0.867721,-0.00570564,-0.0662215,-0.736201,-0.072104,-0.325762,-0.203465,27.8594,0.274284,0,0,0,0,0,0,0,0.0270573,0.0564044,0.0399035,-1.89662,0.336407,-0.020302,-0.0370696,0.328836,-0.00481853,0.0100523,-0.177211,0.816745,-0.880268,0.000547433,0,0,0,0,0,0,0,-0.754208,-35.5934,-0.33629,24.6857,2.48077,0.480581,-0.0429228,
0.0285128,0.0553307,0.0408616,-1.89786,0.344402,-0.0208024,-0.0372695,0.182193,-0.0294027,0.176827,-0.18199,0.921434,-0.809746,-0.00513991,0.00314077,-0.942705,0.00448485,-0.0760198,1.73319,36.2347,0.353579,0,0,0,0,0,0,0,0.0270573,0.0564044,0.0399035,-1.89662,0.336407,-0.020302,-0.0370696,0.328836,-0.00481853,0.0100523,-0.177211,0.816745,-0.880268,0.000547433,0,0,0,0,0,0,0,-0.754208,-35.5934,-0.33629,24.6857,2.48077,0.480581,-0.0429228,
0.0299386,0.0560861,0.0426634,-1.89952,0.350297,-0.0330283,-0.0371568,0.181799,-0.028335,0.176365,-0.182066,0.913943,-0.798911,-0.00513732,-0.246711,0.667348,-0.289033,-0.04717,-4.68173,6.77193,0.00162346,0,0,0,0,0,0,0,0.0270573,0.0564044,0.0399035,-1.89662,0.336407,-0.020302,-0.0370696,0.328836,-0.00481853,0.0100523,-0.177211,0.816745,-0.880268,0.000547433,0,0,0,0,0,0,0,-0.754208,-35.5934,-0.33629,24.6857,2.48077,0.480581,-0.0429228,
0.031391,0.0558457,0.0440714,-1.90098,0.357545,-0.0382876,-0.037189,0.18175,-0.0286779,0.176291,-0.182163,0.912358,-0.770611,-0.00491348,-0.0303971,-0.214304,-0.0462395,-0.0606752,-0.990753,17.6872,0.139896,0,0,0,0,0,0,0,0.0325108,0.0564412,0.0467801,-1.90306,0.36417,-0.0477112,-0.0370636,0.324599,0.0115625,0.0221881,-0.192711,0.807872,-0.746072,0.000864015,-0.52961,2.04763,1.51697,-1.93745,-1.10916,16.7745,0.0395727,-2.47998,-36.1171,-2.18505,25.4077,2.60254,0.798269,-0.0566557,
0.0328472,0.0555706,0.0454836,-1.90243,0.364916,-0.0426993,-0.0372125,0.181804,-0.0298178,0.176337,-0.181911,0.914153,-0.726781,-0.00451779,0.0337941,-0.712475,0.0289651,0.157206,1.12169,27.3938,0.247309,0,0,0,0,0,0,0,0.0325108,0.0564412,0.0467801,-1.90306,0.36417,-0.0477112,-0.0370636,0.324599,0.0115625,0.0221881,-0.192711,0.807872,-0.746072,0.000864015,0,0,0,0,0,0,0,-2.47998,-36.1171,-2.18505,25.4077,2.60254,0.798269,-0.0566557,
0.0342996,0.0552705,0.0468924,-1.90385,0.372372,-0.0462611,-0.0372279,0.181755,-0.0313574,0.176291,-0.181084,0.917712,-0.670471,-0.00399916,-0.0308811,-0.962207,-0.0290534,0.517395,2.22491,35.1937,0.324142,0,0,0,0,0,0,0,0.0325108,0.0564412,0.0467801,-1.90306,0.36417,-0.0477112,-0.0370636,0.324599,0.0115625,0.0221881,-0.192711,0.807872,-0.746072,0.000864015,0,0,0,0,0,0,0,-2.47998,-36.1171,-2.18505,25.4077,2.60254,0.798269,-0.0566557,
0.0354137,0.0562951,0.0495587,-1.90607,0.377869,-0.0581585,-0.0371338,0.181575,-0.0280836,0.176011,-0.182323,0.908429,-0.658957,-0.00401592,-0.112123,2.0461,-0.174623,-0.774487,-5.80195,7.1965,-0.0104759,0,0,0,0,0,0,0,0.0325108,0.0564412,0.0467801,-1.90306,0.36417,-0.0477112,-0.0370636,0.324599,0.0115625,0.0221881,-0.192711,0.807872,-0.746072,0.000864015,0,0,0,0,0,0,0,-2.47998,-36.1171,-2.18505,25.4077,2.60254,0.798269,-0.0566557,
0.0368613,0.0561054,0.05096,-1.90755,0.38501,-0.062305,-0.0371577,0.181448,-0.0272103,0.175842,-0.182683,0.90528,-0.630829,-0.00381041,-0.0793131,0.54579,-0.105878,-0.225275,-1.96863,17.5797,0.128443,0,0,0,0,0,0,0,0.0382349,0.0565176,0.05291,-1.90942,0.391501,-0.0706557,-0.0370648,0.306761,0.00321359,0.0172444,-0.185518,0.83278,-0.614549,0.000935982,-2.22971,-1.04361,-0.617966,0.899185,3.11361,16.4403,0.00899582,-1.69445,-36.8669,-1.56218,26.1298,2.62725,0.918204,-0.0429228,
0.0383044,0.0558644,0.0523578,-1.90899,0.392273,-0.06566,-0.0371734,0.181237,-0.0277931,0.175616,-0.182127,0.905785,-0.588538,-0.0034398,-0.131889,-0.364233,-0.140974,0.347894,0.315647,26.4318,0.23163,0,0,0,0,0,0,0,0.0382349,0.0565176,0.05291,-1.90942,0.391501,-0.0706557,-0.0370648,0.306761,0.00321359,0.0172444,-0.185518,0.83278,-0.614549,0.000935982,0,0,0,0,0,0,0,-1.69445,-36.8669,-1.56218,26.1298,2.62725,0.918204,-0.0429228,
0.0410021,0.0562528,0.0555587,-1.91233,0.405313,-0.0788157,-0.0371159,0.179628,-0.0266153,0.173983,-0.181826,0.899409,-0.564756,-0.00333194,-1.00552,0.736138,-1.02066,0.188106,-3.98483,14.8639,0.0674173,0,0,0,0,0,0,0,0.0382349,0.0565176,0.05291,-1.90942,0.391501,-0.0706557,-0.0370648,0.306761,0.00321359,0.0172444,-0.185518,0.83278,-0.614549,0.000935982,0,0,0,0,0,0,0,-1.69445,-36.8669,-1.56218,26.1298,2.62725,0.918204,-0.0429228,
0.0423958,0.0560156,0.0569072,-1.91375,0.412432,-0.0818605,-0.0371311,0.178545,-0.027223,0.1729,-0.18081,0.8975,-0.527923,-0.00304664,-0.677189,-0.379796,-0.677092,0.634626,-1.19325,23.0206,0.178311,0,0,0,0,0,0,0,0.0382349,0.0565176,0.05291,-1.90942,0.391501,-0.0706557,-0.0370648,0.306761,0.00321359,0.0172444,-0.185518,0.83278,-0.614549,0.000935982,0,0,0,0,0,0,0,-1.69445,-36.8669,-1.56218,26.1298,2.62725,0.918204,-0.0429228,
0.0437897,0.0557336,0.0582564,-1.91512,0.419646,-0.0841783,-0.0371384,0.177684,-0.028829,0.17205,-0.179081,0.898349,-0.480285,-0.00261894,-0.537912,-1.00375,-0.531368,1.08093,0.530628,29.774,0.267311,0,0,0,0,0,0,0,0.0382349,0.0565176,0.05291,-1.90942,0.391501,-0.0706557,-0.0370648,0.306761,0.00321359,0.0172444,-0.185518,0.83278,-0.614549,0.000935982,0,0,0,0,0,0,0,-1.69445,-36.8669,-1.56218,26.1298,2.62725,0.918204,-0.0429228,
0.0451766,0.0554195,0.0595989,-1.91646,0.42693,-0.0857926,-0.0371381,0.176819,-0.0309142,0.171203,-0.176678,0.900785,-0.424584,-0.00208754,-0.541019,-1.30325,-0.529463,1.50198,1.5225,34.8127,0.332128,0,0,0,0,0,0,0,0.0438009,0.0563346,0.059195,-1.91578,0.418793,-0.0885454,-0.0370648,0.269253,-0.0115076,0.0723751,-0.189847,0.802066,-0.466801,0.000650406,-4.68852,-1.84015,6.89134,-0.541233,-3.8393,18.4685,-0.035697,-1.59131,-34.669,-1.76055,24.9118,2.99347,0.215079,-0.0429228,
0.046618,0.0559452,0.0618961,-1.91863,0.432332,-0.094562,-0.0371021,0.176515,-0.0304175,0.170813,-0.176403,0.89254,-0.407587,-0.0020689,-0.189805,0.310415,-0.243639,0.171382,-5.15306,10.6231,0.0116501,0,0,0,0,0,0,0,0.0438009,0.0563346,0.059195,-1.91578,0.418793,-0.0885454,-0.0370648,0.269253,-0.0115076,0.0723751,-0.189847,0.802066,-0.466801,0.000650406,0,0,0,0,0,0,0,-1.59131,-34.669,-1.76055,24.9118,2.99347,0.215079,-0.0429228,
0.048014,0.0556672,0.0632451,-1.92,0.439362,-0.0966329,-0.0371099,0.17611,-0.0312837,0.170377,-0.175235,0.889772,-0.377842,-0.00185083,-0.252954,-0.541377,-0.272491,0.730087,-1.72991,18.5908,0.136292,0,0,0,0,0,0,0,0.0438009,0.0563346,0.059195,-1.91578,0.418793,-0.0885454,-0.0370648,0.269253,-0.0115076,0.0723751,-0.189847,0.802066,-0.466801,0.000650406,0,0,0,0,0,0,0,-1.59131,-34.669,-1.76055,24.9118,2.99347,0.215079,-0.0429228,
0.0493995,0.0553524,0.0645847,-1.92132,0.4465,-0.0980537,-0.03711,0.175526,-0.0328972,0.169791,-0.173295,0.890273,-0.337793,-0.00148231,-0.365152,-1.00843,-0.366047,1.21243,0.313294,25.0306,0.230327,0,0,0,0,0,0,0,0.0438009,0.0563346,0.059195,-1.91578,0.418793,-0.0885454,-0.0370648,0.269253,-0.0115076,0.0723751,-0.189847,0.802066,-0.466801,0.000650406,0,0,0,0,0,0,0,-1.59131,-34.669,-1.76055,24.9118,2.99347,0.215079,-0.0429228,
0.0507703,0.0550112,0.0659104,-1.9226,0.453715,-0.0988468,-0.0371024,0.174691,-0.0348457,0.168975,-0.17071,0.892597,-0.290061,-0.000996051,-0.522056,-1.2178,-0.509911,1.61591,1.45237,29.8323,0.303909,0,0,0,0,0,0,0,0.0491312,0.0561611,0.0652693,-1.922,0.446459,-0.102252,-0.0370608,0.234716,0.00734266,0.11161,-0.17899,0.808781,-0.307379,0.000925297,-4.31716,2.35629,4.9044,1.35719,0.83931,19.9277,0.0343615,-0.40112,-35.4427,-0.788561,25.4077,3.24981,0.115286,-0.0365141,
0.0519316,0.055901,0.0679577,-1.92479,0.460029,-0.105984,-0.0370849,0.174519,-0.0323437,0.168708,-0.170924,0.885908,-0.272796,-0.00101207,-0.107237,1.56374,-0.166739,-0.133913,-4.18086,10.7907,-0.0100124,0,0,0,0,0,0,0,0.0491312,0.0561611,0.0652693,-1.922,0.446459,-0.102252,-0.0370608,0.234716,0.00734266,0.11161,-0.17899,0.808781,-0.307379,0.000925297,0,0,0,0,0,0,0,-0.40112,-35.4427,-0.788561,25.4077,3.24981,0.115286,-0.0365141,
0.0533085,0.055654,0.0692868,-1.92612,0.467028,-0.107084,-0.0370854,0.174038,-0.0320501,0.168193,-0.170028,0.883697,-0.245729,-0.000822234,-0.300838,0.183501,-0.322139,0.560212,-1.38187,16.9171,0.118648,0,0,0,0,0,0,0,0.0491312,0.0561611,0.0652693,-1.922,0.446459,-0.102252,-0.0370608,0.234716,0.00734266,0.11161,-0.17899,0.808781,-0.307379,0.000925297,0,0,0,0,0,0,0,-0.40112,-35.4427,-0.788561,25.4077,3.24981,0.115286,-0.0365141,
0.0546697,0.0553588,0.0706014,-1.9274,0.474118,-0.107638,-0.037078,0.173261,-0.0330198,0.167419,-0.168209,0.88419,-0.210427,-0.00047318,-0.485333,-0.606084,-0.483565,1.13679,0.308617,22.0634,0.218159,0,0,0,0,0,0,0,0.0491312,0.0561611,0.0652693,-1.922,0.446459,-0.102252,-0.0370608,0.234716,0.00734266,0.11161,-0.17899,0.808781,-0.307379,0.000925297,0,0,0,0,0,0,0,-0.40112,-35.4427,-0.788561,25.4077,3.24981,0.115286,-0.0365141,
0.0519316,0.055901,0.0679577,-1.92479,0.460029,-0.105984,-0.0370849,0.173376,-0.030883,0.167464,-0.168923,0.879182,-0.209089,-0.000593774,0.0714446,1.33551,0.0277493,-0.446531,-3.13004,0.83643,-0.0753712,0,0,0,0,0,0,0,0.0547209,0.056104,0.0711924,-1.92814,0.473546,-0.111017,-0.0370645,0.181964,-0.0114621,0.179099,-0.187438,0.775872,-0.209573,-0.000656868,-6.59405,-2.3506,8.43603,-1.05596,-4.11359,12.2258,-0.197771,-0.373349,-35.8949,-1.0623,25.6815,3.45764,-0.249094,-0.0026396,
0.0589368,0.0554228,0.0752534,-1.93218,0.493705,-0.113754,-0.0370672,0.173153,-0.0318047,0.167192,-0.167459,0.875797,-0.17804,-0.000299434,-0.139323,-0.576038,-0.169815,0.915165,-2.11612,19.4056,0.183963,0,0,0,0,0,0,0,0.0547209,0.056104,0.0711924,-1.92814,0.473546,-0.111017,-0.0370645,0.181964,-0.0114621,0.179099,-0.187438,0.775872,-0.209573,-0.000656868,0,0,0,0,0,0,0,-0.373349,-35.8949,-1.0623,25.6815,3.45764,-0.249094,-0.0026396,
0.0602901,0.0551015,0.0765591,-1.93342,0.500711,-0.113683,-0.0370525,0.172354,-0.033475,0.166395,-0.165127,0.875807,-0.140657,0.000128161,-0.498887,-1.04398,-0.497921,1.45746,0.00676298,23.3642,0.267247,0,0,0,0,0,0,0,0.0547209,0.056104,0.0711924,-1.92814,0.473546,-0.111017,-0.0370645,0.181964,-0.0114621,0.179099,-0.187438,0.775872,-0.209573,-0.000656868,0,0,0,0,0,0,0,-0.373349,-35.8949,-1.0623,25.6815,3.45764,-0.249094,-0.0026396,
0.0616181,0.0547541,0.0778408,-1.93463,0.507794,-0.113129,-0.0370299,0.171083,-0.0354663,0.165159,-0.162165,0.877713,-0.0986636,0.000666916,-0.794867,-1.24454,-0.772974,1.85152,1.19133,26.2461,0.336722,0,0,0,0,0,0,0,0.0547209,0.056104,0.0711924,-1.92814,0.473546,-0.111017,-0.0370645,0.181964,-0.0114621,0.179099,-0.187438,0.775872,-0.209573,-0.000656868,0,0,0,0,0,0,0,-0.373349,-35.8949,-1.0623,25.6815,3.45764,-0.249094,-0.0026396,
0.0631661,0.0557101,0.0799533,-1.93668,0.513564,-0.116619,-0.0370567,0.171617,-0.0336497,0.165569,-0.162214,0.870515,-0.0816286,0.000684131,0.333879,1.13537,0.256507,-0.0308577,-4.49883,10.6469,0.0107591,0,0,0,0,0,0,0,0.0603507,0.0560427,0.0772386,-1.93404,0.500302,-0.116032,-0.0370593,0.145881,0.00292505,0.218992,-0.165947,0.77374,-0.0959595,-0.000361625,-4.51026,1.7984,4.98665,2.68626,-0.266433,14.2017,0.0369053,-0.349545,-35.2205,-0.736986,24.884,3.84857,-0.494455,-0.0163725,
0.0645241,0.0554387,0.0812613,-1.93793,0.520436,-0.116317,-0.0370425,0.171243,-0.0337042,0.165154,-0.161122,0.868222,-0.057761,0.000903643,-0.233866,-0.0340863,-0.259194,0.682762,-1.43321,14.9172,0.137195,0,0,0,0,0,0,0,0.0603507,0.0560427,0.0772386,-1.93404,0.500302,-0.116032,-0.0370593,0.145881,0.00292505,0.218992,-0.165947,0.77374,-0.0959595,-0.000361625,0,0,0,0,0,0,0,-0.349545,-35.2205,-0.736986,24.884,3.84857,-0.494455,-0.0163725,
0.0658528,0.0551257,0.0825418,-1.93914,0.527405,-0.115595,-0.0370201,0.170212,-0.0347892,0.164138,-0.159117,0.868788,-0.0281572,0.0012824,-0.644106,-0.67807,-0.635332,1.25289,0.353474,18.5024,0.236725,0,0,0,0,0,0,0,0.0603507,0.0560427,0.0772386,-1.93404,0.500302,-0.116032,-0.0370593,0.145881,0.00292505,0.218992,-0.165947,0.77374,-0.0959595,-0.000361625,0,0,0,0,0,0,0,-0.349545,-35.2205,-0.736986,24.884,3.84857,-0.494455,-0.0163725,
0.0671527,0.0547844,0.0837951,-1.9403,0.53444,-0.114466,-0.036989,0.168667,-0.0363641,0.162643,-0.156434,0.870923,0.00570468,0.00180363,-0.9655,-0.984315,-0.934479,1.67709,1.33445,21.1637,0.325769,0,0,0,0,0,0,0,0.0603507,0.0560427,0.0772386,-1.93404,0.500302,-0.116032,-0.0370593,0.145881,0.00292505,0.218992,-0.165947,0.77374,-0.0959595,-0.000361625,0,0,0,0,0,0,0,-0.349545,-35.2205,-0.736986,24.884,3.84857,-0.494455,-0.0163725,
0.0631574,0.0557165,0.0799466,-1.93669,0.513577,-0.11618,-0.0370404,0.169531,-0.0342186,0.163424,-0.157704,0.865248,0.00842096,0.00179649,0.540121,1.3409,0.488258,-0.793781,-3.54677,1.69768,-0.00446468,0,0,0,0,0,0,0,0.0658353,0.0559293,0.0827163,-1.93955,0.528065,-0.117261,-0.0370611,0.18682,-0.0080021,0.150933,-0.158483,0.796086,-0.0032994,-0.000169455,5.11732,-1.36589,-8.5073,0.933071,2.79319,11.5825,0.0240213,0.463749,-35.2205,0.0644055,24.4873,3.59222,-0.726084,0.0101778,
0.064505,0.0554553,0.0812449,-1.93794,0.520456,-0.115576,-0.0370179,0.169315,-0.033905,0.163197,-0.157406,0.864171,0.0218515,0.00199879,-0.135287,0.195996,-0.141952,0.185969,-0.67296,8.39406,0.126436,0,0,0,0,0,0,0,0.0658353,0.0559293,0.0827163,-1.93955,0.528065,-0.117261,-0.0370611,0.18682,-0.0080021,0.150933,-0.158483,0.796086,-0.0032994,-0.000169455,0,0,0,0,0,0,0,0.463749,-35.2205,0.0644055,24.4873,3.59222,-0.726084,0.0101778,
0.0658188,0.0551552,0.0825113,-1.93914,0.527431,-0.114541,-0.0369867,0.168296,-0.0346257,0.162216,-0.155888,0.865716,0.0433441,0.00237959,-0.63664,-0.450436,-0.613032,0.948853,0.965192,13.4329,0.238001,0,0,0,0,0,0,0,0.0658353,0.0559293,0.0827163,-1.93955,0.528065,-0.117261,-0.0370611,0.18682,-0.0080021,0.150933,-0.158483,0.796086,-0.0032994,-0.000169455,0,0,0,0,0,0,0,0.463749,-35.2205,0.0644055,24.4873,3.59222,-0.726084,0.0101778,
0.0670988,0.0548286,0.0837456,-1.94029,0.534474,-0.113108,-0.036947,0.166637,-0.0358656,0.160631,-0.153491,0.868657,0.0704967,0.00289458,-1.03717,-0.774924,-0.990742,1.49814,1.83825,16.9704,0.321872,0,0,0,0,0,0,0,0.0658353,0.0559293,0.0827163,-1.93955,0.528065,-0.117261,-0.0370611,0.18682,-0.0080021,0.150933,-0.158483,0.796086,-0.0032994,-0.000169455,0,0,0,0,0,0,0,0.463749,-35.2205,0.0644055,24.4873,3.59222,-0.726084,0.0101778,
0.0684974,0.0554981,0.0852743,-1.94207,0.541431,-0.116069,-0.0370243,0.166201,-0.034936,0.160156,-0.153712,0.863953,0.0762976,0.00288452,-0.27245,0.581013,-0.296866,-0.137943,-2.94017,3.62557,-0.00628691,0,0,0,0,0,0,0,0.0711933,0.0554413,0.0883684,-1.94485,0.554003,-0.116773,-0.0370551,0.174493,-0.0255388,0.166258,-0.162296,0.755131,0.04982,8.77072e-05,-1.5409,-2.19209,1.91561,-0.476577,-5.11933,6.63992,0.0321453,-1.18664,-34.0224,-1.56218,23.4399,3.68377,-0.600656,-0.0026396,
0.0697853,0.0552038,0.0865144,-1.94326,0.548301,-0.114885,-0.0369927,0.165157,-0.0353069,0.159127,-0.152719,0.862898,0.0906534,0.00309718,-0.652216,-0.231829,-0.643199,0.620139,-0.659135,8.97234,0.132913,0,0,0,0,0,0,0,0.0711933,0.0554413,0.0883684,-1.94485,0.554003,-0.116773,-0.0370551,0.174493,-0.0255388,0.166258,-0.162296,0.755131,0.04982,8.77072e-05,0,0,0,0,0,0,0,-1.18664,-34.0224,-1.56218,23.4399,3.68377,-0.600656,-0.0026396,
0.0710445,0.0548796,0.0877275,-1.9444,0.555248,-0.113333,-0.0369528,0.163606,-0.0363483,0.157629,-0.150796,0.864004,0.111314,0.00347721,-0.969677,-0.650893,-0.935838,1.20235,0.691376,12.913,0.237516,0,0,0,0,0,0,0,0.0711933,0.0554413,0.0883684,-1.94485,0.554003,-0.116773,-0.0370551,0.174493,-0.0255388,0.166258,-0.162296,0.755131,0.04982,8.77072e-05,0,0,0,0,0,0,0,-1.18664,-34.0224,-1.56218,23.4399,3.68377,-0.600656,-0.0026396,
0.0738453,0.0548834,0.0909167,-1.94732,0.566961,-0.114811,-0.0370011,0.163555,-0.0365268,0.157515,-0.150781,0.855953,0.118413,0.00357395,-0.0317309,-0.111532,-0.0713743,0.00941894,-5.03209,4.43653,0.06046,0,0,0,0,0,0,0,0.0711933,0.0554413,0.0883684,-1.94485,0.554003,-0.116773,-0.0370551,0.174493,-0.0255388,0.166258,-0.162296,0.755131,0.04982,8.77072e-05,0,0,0,0,0,0,0,-1.18664,-34.0224,-1.56218,23.4399,3.68377,-0.600656,-0.0026396,
0.0751169,0.054559,0.0921404,-1.94847,0.573704,-0.113267,-0.0369609,0.162635,-0.0373326,0.156604,-0.14957,0.85333,0.133327,0.00386272,-0.575266,-0.503657,-0.569591,0.756378,-1.63936,9.32155,0.180481,0,0,0,0,0,0,0,0.0711933,0.0554413,0.0883684,-1.94485,0.554003,-0.116773,-0.0370551,0.174493,-0.0255388,0.166258,-0.162296,0.755131,0.04982,8.77072e-05,0,0,0,0,0,0,0,-1.18664,-34.0224,-1.56218,23.4399,3.68377,-0.600656,-0.0026396,
0.0763528,0.0542167,0.0933313,-1.94959,0.580554,-0.111387,-0.0369151,0.161005,-0.038423,0.155055,-0.147493,0.853915,0.15366,0.00423578,-1.01882,-0.681466,-0.967906,1.29824,0.36578,12.708,0.233168,0,0,0,0,0,0,0,0.0760745,0.055101,0.0940707,-1.9499,0.579457,-0.114221,-0.0370497,0.0919732,0.00764932,0.241398,-0.145713,0.76408,0.0994172,0.000974631,-10.315,4.14852,9.39246,2.07287,1.11862,6.19965,0.110866,-0.147213,-34.4945,-0.562425,24.3365,3.89801,-0.335153,-0.0163725,
0.0775527,0.0538638,0.0944867,-1.95066,0.58748,-0.109209,-0.0368676,0.158801,-0.0395605,0.152931,-0.144819,0.85629,0.177384,0.00457634,-1.37703,-0.710956,-1.32745,1.67129,1.48402,14.8277,0.212848,0,0,0,0,0,0,0,0.0760745,0.055101,0.0940707,-1.9499,0.579457,-0.114221,-0.0370497,0.0919732,0.00764932,0.241398,-0.145713,0.76408,0.0994172,0.000974631,0,0,0,0,0,0,0,-0.147213,-34.4945,-0.562425,24.3365,3.89801,-0.335153,-0.0163725,
0.0786388,0.0547908,0.0965477,-1.95235,0.59249,-0.111382,-0.0369805,0.158727,-0.0366103,0.152793,-0.146082,0.850061,0.181923,0.00466763,-0.0468006,1.84391,-0.086597,-0.789505,-3.89258,2.83645,0.057058,0,0,0,0,0,0,0,0.0760745,0.055101,0.0940707,-1.9499,0.579457,-0.114221,-0.0370497,0.0919732,0.00764932,0.241398,-0.145713,0.76408,0.0994172,0.000974631,0,0,0,0,0,0,0,-0.147213,-34.4945,-0.562425,24.3365,3.89801,-0.335153,-0.0163725,
0.0798705,0.0545392,0.0977328,-1.95351,0.599208,-0.109462,-0.0369342,0.157774,-0.0355773,0.151863,-0.145846,0.848014,0.193541,0.00489237,-0.595045,0.645613,-0.581028,0.147824,-1.2794,7.26156,0.140463,0,0,0,0,0,0,0,0.0760745,0.055101,0.0940707,-1.9499,0.579457,-0.114221,-0.0370497,0.0919732,0.00764932,0.241398,-0.145713,0.76408,0.0994172,0.000974631,0,0,0,0,0,0,0,-0.147213,-34.4945,-0.562425,24.3365,3.89801,-0.335153,-0.0163725,
0.0810667,0.0542532,0.0988831,-1.95462,0.606014,-0.107256,-0.0368862,0.156123,-0.035612,0.150247,-0.144427,0.848542,0.209978,0.00511482,-1.03187,-0.0217302,-1.01002,0.887044,0.329877,10.273,0.13903,0,0,0,0,0,0,0,0.0814776,0.0548946,0.0991388,-1.95489,0.605403,-0.110406,-0.0370523,0.0817966,-0.00336817,0.243576,-0.152935,0.753961,0.152534,-7.0068e-05,-1.27208,-1.37719,0.27229,-0.90275,-1.26494,6.63966,-0.130587,0.158268,-35.768,-0.110155,25.6577,4.00787,-0.0101412,0.017502,
0.0822285,0.0539469,0.0999958,-1.95569,0.612883,-0.104799,-0.0368378,0.153945,-0.0361491,0.148015,-0.142126,0.850564,0.229418,0.00530199,-1.36163,-0.335658,-1.39497,1.43773,1.26346,12.1497,0.116978,0,0,0,0,0,0,0,0.0814776,0.0548946,0.0991388,-1.95489,0.605403,-0.110406,-0.0370523,0.0817966,-0.00336817,0.243576,-0.152935,0.753961,0.152534,-7.0068e-05,0,0,0,0,0,0,0,0.158268,-35.768,-0.110155,25.6577,4.00787,-0.0101412,0.017502,
0.0839757,0.054529,0.101553,-1.9573,0.618267,-0.106896,-0.0369678,0.153995,-0.0343288,0.148051,-0.143301,0.843496,0.231481,0.00540649,0.0315992,1.13766,0.0226179,-0.734257,-4.41719,1.28994,0.0653117,0,0,0,0,0,0,0,0.0814776,0.0548946,0.0991388,-1.95489,0.605403,-0.110406,-0.0370523,0.0817966,-0.00336817,0.243576,-0.152935,0.753961,0.152534,-7.0068e-05,0,0,0,0,0,0,0,0.158268,-35.768,-0.110155,25.6577,4.00787,-0.0101412,0.017502,
0.0851725,0.0542699,0.102702,-1.95843,0.624917,-0.104691,-0.0369194,0.153116,-0.033942,0.147179,-0.142936,0.841034,0.240322,0.00553673,-0.549755,0.241786,-0.544772,0.228007,-1.53905,5.52548,0.0814,0,0,0,0,0,0,0,0.0814776,0.0548946,0.0991388,-1.95489,0.605403,-0.110406,-0.0370523,0.0817966,-0.00336817,0.243576,-0.152935,0.753961,0.152534,-7.0068e-05,0,0,0,0,0,0,0,0.158268,-35.768,-0.110155,25.6577,4.00787,-0.0101412,0.017502,
0.0863344,0.0539843,0.103814,-1.95951,0.631659,-0.102232,-0.0368706,0.15154,-0.0342926,0.145533,-0.141382,0.84139,0.253725,0.00564937,-0.985062,-0.219142,-1.02904,0.97156,0.222538,8.37661,0.0703996,0,0,0,0,0,0,0,0.0872145,0.0544632,0.104164,-1.95976,0.631516,-0.104794,-0.0370472,0.0896535,-0.0140534,0.219185,-0.139224,0.720667,0.196622,-0.00041291,0.982118,-1.33566,-3.04887,1.71382,-4.16176,5.51096,-0.0428553,-0.222592,-34.5223,-0.463243,24.9594,4.25781,0.102469,0.017502,
0.0874629,0.0536829,0.104893,-1.96054,0.638383,-0.0995521,-0.0368212,0.149446,-0.0349686,0.14339,-0.138784,0.84119,0.269977,0.00575425,-1.3084,-0.422479,-1.33925,1.62339,-0.124809,10.1576,0.0655523,0,0,0,0,0,0,0,0.0872145,0.0544632,0.104164,-1.95976,0.631516,-0.104794,-0.0370472,0.0896535,-0.0140534,0.219185,-0.139224,0.720667,0.196622,-0.00041291,0,0,0,0,0,0,0,-0.222592,-34.5223,-0.463243,24.9594,4.25781,0.102469,0.017502,
0.0895957,0.0539853,0.106461,-1.96206,0.644071,-0.1006,-0.0369548,0.148965,-0.0345302,0.142922,-0.139321,0.832779,0.272112,0.00582149,-0.300615,0.274009,-0.292753,-0.335638,-5.25709,1.33436,0.0420245,0,0,0,0,0,0,0,0.0872145,0.0544632,0.104164,-1.95976,0.631516,-0.104794,-0.0370472,0.0896535,-0.0140534,0.219185,-0.139224,0.720667,0.196622,-0.00041291,0,0,0,0,0,0,0,-0.222592,-34.5223,-0.463243,24.9594,4.25781,0.102469,0.017502,
0.0907402,0.0536983,0.107554,-1.96314,0.650622,-0.0981051,-0.0369055,0.147785,-0.0347992,0.141676,-0.13861,0.830008,0.280069,0.00589012,-0.737865,-0.168152,-0.778573,0.444354,-1.73183,4.97348,0.0428923,0,0,0,0,0,0,0,0.0872145,0.0544632,0.104164,-1.95976,0.631516,-0.104794,-0.0370472,0.0896535,-0.0140534,0.219185,-0.139224,0.720667,0.196622,-0.00041291,0,0,0,0,0,0,0,-0.222592,-34.5223,-0.463243,24.9594,4.25781,0.102469,0.017502,
0.0918543,0.0533971,0.108618,-1.96418,0.657198,-0.0953935,-0.0368556,0.14608,-0.0353694,0.139929,-0.136702,0.828401,0.291845,0.00595946,-1.06559,-0.356357,-1.09209,1.193,-1.00418,7.35998,0.0433384,0,0,0,0,0,0,0,0.0872145,0.0544632,0.104164,-1.95976,0.631516,-0.104794,-0.0370472,0.0896535,-0.0140534,0.219185,-0.139224,0.720667,0.196622,-0.00041291,0,0,0,0,0,0,0,-0.222592,-34.5223,-0.463243,24.9594,4.25781,0.102469,0.017502,
0.0929457,0.053083,0.109663,-1.96513,0.663444,-0.0924982,-0.0368057,0.144148,-0.0361467,0.138058,-0.133335,0.818868,0.305858,0.00601656,-1.20755,-0.485811,-1.16914,2.1043,-5.95814,8.7579,0.0356866,0,0,0,0,0,0,0,0.0872145,0.0544632,0.104164,-1.95976,0.631516,-0.104794,-0.0370472,0.0896535,-0.0140534,0.219185,-0.139224,0.720667,0.196622,-0.00041291,0,0,0,0,0,0,0,-0.222592,-34.5223,-0.463243,24.9594,4.25781,0.102469,0.017502,
0.0895781,0.0540046,0.106439,-1.96204,0.644084,-0.100471,-0.0369525,0.144457,-0.0351551,0.138286,-0.134701,0.815115,0.302748,0.00604613,0.193497,0.619741,0.142242,-0.853711,-2.34543,-1.94353,0.0184823,0,0,0,0,0,0,0,0.0872145,0.0544632,0.104164,-1.95976,0.631516,-0.104794,-0.0370472,0.0896535,-0.0140534,0.219185,-0.139224,0.720667,0.196622,-0.00041291,0,0,0,0,0,0,0,-0.222592,-34.5223,-0.463243,24.9594,4.25781,0.102469,0.017502,
0.0907086,0.0537333,0.107518,-1.96311,0.650556,-0.0978877,-0.0369024,0.143828,-0.0349059,0.137604,-0.134353,0.813898,0.306783,0.00608994,-0.393021,0.155717,-0.425935,0.217215,-0.760662,2.52134,0.0273824,0,0,0,0,0,0,0,0.0872145,0.0544632,0.104164,-1.95976,0.631516,-0.104794,-0.0370472,0.0896535,-0.0140534,0.219185,-0.139224,0.720667,0.196622,-0.00041291,0,0,0,0,0,0,0,-0.222592,-34.5223,-0.463243,24.9594,4.25781,0.102469,0.017502,
0.091813,0.0534439,0.108575,-1.96409,0.656731,-0.0950892,-0.0368522,0.142672,-0.0351603,0.136506,-0.13209,0.805479,0.315388,0.00612515,-0.723008,-0.158992,-0.686344,1.41434,-5.26212,5.37847,0.0220083,0,0,0,0,0,0,0,0.0921451,0.054322,0.109027,-1.96415,0.656916,-0.0978763,-0.037045,0.102246,0.00296463,0.193817,-0.127419,0.732101,0.229335,-0.00149619,1.574,2.12726,-3.1711,1.47569,1.42932,4.08909,-0.13541,-0.246395,-34.8714,-0.510851,24.6857,4.10492,-0.149301,0.0376436,
0.0928946,0.0531356,0.109612,-1.965,0.662411,-0.0921108,-0.0368033,0.14118,-0.0358338,0.13513,-0.128473,0.786385,0.32677,0.0061229,-0.932469,-0.42089,-0.859984,2.26064,-11.9335,7.11371,-0.00140921,0,0,0,0,0,0,0,0.0921451,0.054322,0.109027,-1.96415,0.656916,-0.0978763,-0.037045,0.102246,0.00296463,0.193817,-0.127419,0.732101,0.229335,-0.00149619,0,0,0,0,0,0,0,-0.246395,-34.8714,-0.510851,24.6857,4.10492,-0.149301,0.0376436,
0.094426,0.0539984,0.111211,-1.96638,0.669463,-0.093024,-0.0369495,0.141076,-0.0335113,0.134919,-0.130187,0.787301,0.325707,0.00615451,-0.0651047,1.45155,-0.131679,-1.07142,0.572042,-0.664446,0.0197557,0,0,0,0,0,0,0,0.0921451,0.054322,0.109027,-1.96415,0.656916,-0.0978763,-0.037045,0.102246,0.00296463,0.193817,-0.127419,0.732101,0.229335,-0.00149619,0,0,0,0,0,0,0,-0.246395,-34.8714,-0.510851,24.6857,4.10492,-0.149301,0.0376436,
0.0955257,0.0537647,0.112262,-1.96739,0.675513,-0.0902311,-0.0368988,0.140352,-0.0326511,0.13421,-0.12955,0.781092,0.330388,0.00619226,-0.452433,0.537627,-0.443505,0.398627,-3.88066,2.92594,0.0235932,0,0,0,0,0,0,0,0.0921451,0.054322,0.109027,-1.96415,0.656916,-0.0978763,-0.037045,0.102246,0.00296463,0.193817,-0.127419,0.732101,0.229335,-0.00149619,0,0,0,0,0,0,0,-0.246395,-34.8714,-0.510851,24.6857,4.10492,-0.149301,0.0376436,
0.096603,0.0534981,0.113294,-1.96833,0.681084,-0.0872566,-0.0368492,0.139214,-0.0327857,0.133155,-0.127091,0.764148,0.338674,0.00619276,-0.710727,-0.0841379,-0.659199,1.53654,-10.5897,5.17876,0.000313623,0,0,0,0,0,0,0,0.0969554,0.053889,0.113799,-1.96873,0.681822,-0.0897149,-0.0370342,0.148855,-0.0216678,0.128127,-0.131353,0.658134,0.257456,0.000818204,5.82624,-3.07905,-8.21125,-0.4918,-9.24592,3.51515,0.289299,-1.23822,-34.07,-1.26067,24.4873,3.62243,-0.341562,-0.0163725,
0.094426,0.0539984,0.111211,-1.96638,0.669463,-0.093024,-0.0369495,0.139503,-0.0310728,0.133339,-0.129082,0.769511,0.33523,0.0062104,0.180548,1.07054,0.115197,-1.24417,3.3517,-2.1525,0.0110232,0,0,0,0,0,0,0,0.0969554,0.053889,0.113799,-1.96873,0.681822,-0.0897149,-0.0370342,0.148855,-0.0216678,0.128127,-0.131353,0.658134,0.257456,0.000818204,0,0,0,0,0,0,0,-1.23822,-34.07,-1.26067,24.4873,3.62243,-0.341562,-0.0163725,
0.100194,0.0531142,0.116885,-1.9718,0.69838,-0.0815882,-0.0368831,0.138059,-0.0318644,0.13196,-0.127058,0.747034,0.341569,0.00623012,-0.902472,-0.494734,-0.861943,1.26508,-14.048,3.96167,0.0123259,0,0,0,0,0,0,0,0.0969554,0.053889,0.113799,-1.96873,0.681822,-0.0897149,-0.0370342,0.148855,-0.0216678,0.128127,-0.131353,0.658134,0.257456,0.000818204,0,0,0,0,0,0,0,-1.23822,-34.07,-1.26067,24.4873,3.62243,-0.341562,-0.0163725,
0.101233,0.0528142,0.11788,-1.97268,0.703141,-0.0784896,-0.036834,0.136424,-0.0329904,0.130437,-0.123754,0.716648,0.35072,0.00621157,-1.02225,-0.70377,-0.952052,2.06455,-18.9911,5.71951,-0.0115918,0,0,0,0,0,0,0,0.0969554,0.053889,0.113799,-1.96873,0.681822,-0.0897149,-0.0370342,0.148855,-0.0216678,0.128127,-0.131353,0.658134,0.257456,0.000818204,0,0,0,0,0,0,0,-1.23822,-34.07,-1.26067,24.4873,3.62243,-0.341562,-0.0163725,
0.102253,0.0524969,0.118857,-1.97351,0.707332,-0.0752624,-0.0367854,0.134627,-0.034326,0.128779,-0.119718,0.67811,0.361256,0.00618494,-1.12283,-0.834698,-1.03645,2.52299,-24.0866,6.58507,-0.0166408,0,0,0,0,0,0,0,0.1017,0.0537213,0.118135,-1.97282,0.704162,-0.0802139,-0.0370312,0.173388,0.0117285,0.0933969,-0.100897,0.613733,0.286505,0.000526099,3.06654,4.17454,-4.34121,3.80694,-5.55006,3.63108,-0.0365131,-1.23822,-34.8714,-1.26067,24.2889,3.82476,-0.414804,-0.00996382,
0.103812,0.053438,0.120139,-1.97482,0.714211,-0.0744654,-0.0369335,0.133775,-0.0319751,0.127871,-0.120489,0.665479,0.363656,0.00620925,-0.532412,1.46931,-0.567269,-0.481873,-7.89399,1.49993,0.0151898,0,0,0,0,0,0,0,0.1017,0.0537213,0.118135,-1.97282,0.704162,-0.0802139,-0.0370312,0.173388,0.0117285,0.0933969,-0.100897,0.613733,0.286505,0.000526099,0,0,0,0,0,0,0,-1.23822,-34.8714,-1.26067,24.2889,3.82476,-0.414804,-0.00996382,
0.104836,0.0532111,0.121116,-1.97575,0.718717,-0.0713289,-0.0368836,0.132605,-0.0312536,0.12673,-0.119527,0.645041,0.369338,0.00621513,-0.731335,0.450896,-0.712975,0.601073,-12.7739,3.55125,0.00367335,0,0,0,0,0,0,0,0.1017,0.0537213,0.118135,-1.97282,0.704162,-0.0802139,-0.0370312,0.173388,0.0117285,0.0933969,-0.100897,0.613733,0.286505,0.000526099,0,0,0,0,0,0,0,-1.23822,-34.8714,-1.26067,24.2889,3.82476,-0.414804,-0.00996382,
0.10584,0.0529501,0.122077,-1.97661,0.722711,-0.0680768,-0.036834,0.131205,-0.0315286,0.12541,-0.117223,0.615867,0.376773,0.00621075,-0.875241,-0.171825,-0.825108,1.43974,-18.2339,4.64682,-0.00273512,0,0,0,0,0,0,0,0.1017,0.0537213,0.118135,-1.97282,0.704162,-0.0802139,-0.0370312,0.173388,0.0117285,0.0933969,-0.100897,0.613733,0.286505,0.000526099,0,0,0,0,0,0,0,-1.23822,-34.8714,-1.26067,24.2889,3.82476,-0.414804,-0.00996382,
0.106827,0.0526631,0.123022,-1.97743,0.726149,-0.0647349,-0.0367845,0.129622,-0.0323983,0.123939,-0.114088,0.578657,0.384966,0.00620739,-0.989112,-0.54358,-0.919664,1.95969,-23.2559,5.12066,-0.00210212,0,0,0,0,0,0,0,0.1017,0.0537213,0.118135,-1.97282,0.704162,-0.0802139,-0.0370312,0.173388,0.0117285,0.0933969,-0.100897,0.613733,0.286505,0.000526099,0,0,0,0,0,0,0,-1.23822,-34.8714,-1.26067,24.2889,3.82476,-0.414804,-0.00996382,
0.10826,0.0528786,0.124587,-1.97869,0.734639,-0.0646513,-0.0369329,0.129754,-0.0330278,0.124037,-0.114264,0.572677,0.38231,0.00621618,0.0826023,-0.393425,0.0614506,-0.110134,-3.73774,-1.65994,0.00549621,0,0,0,0,0,0,0,0.106148,0.053426,0.122582,-1.97679,0.725507,-0.0703787,-0.0370327,0.189746,-0.0276584,0.0738519,-0.123573,0.60905,0.300638,0.0011469,2.04484,-4.92336,-2.44312,-2.83447,-0.585408,1.76665,0.0776005,-1.59131,-34.0462,-1.38762,23.9636,4.00787,-0.381845,-0.0163725,
0.109281,0.0525774,0.125563,-1.97955,0.738554,-0.0615151,-0.0368832,0.129321,-0.0339523,0.123638,-0.112926,0.556022,0.384253,0.00621471,-0.270645,-0.577849,-0.249474,0.836308,-10.4094,1.21415,-0.00091611,0,0,0,0,0,0,0,0.106148,0.053426,0.122582,-1.97679,0.725507,-0.0703787,-0.0370327,0.189746,-0.0276584,0.0738519,-0.123573,0.60905,0.300638,0.0011469,0,0,0,0,0,0,0,-1.59131,-34.0462,-1.38762,23.9636,4.00787,-0.381845,-0.0163725,
0.11028,0.052262,0.12652,-1.98036,0.741938,-0.0582564,-0.0368335,0.128444,-0.0350477,0.122836,-0.110598,0.529415,0.388872,0.00621363,-0.548467,-0.684632,-0.50132,1.45512,-16.6294,2.88671,-0.000680175,0,0,0,0,0,0,0,0.106148,0.053426,0.122582,-1.97679,0.725507,-0.0703787,-0.0370327,0.189746,-0.0276584,0.0738519,-0.123573,0.60905,0.300638,0.0011469,0,0,0,0,0,0,0,-1.59131,-34.0462,-1.38762,23.9636,4.00787,-0.381845,-0.0163725,
0.108261,0.0528838,0.124593,-1.97862,0.733938,-0.0646506,-0.0369337,0.128817,-0.0351262,0.123217,-0.110463,0.522677,0.385544,0.00621358,0.233428,-0.0490344,0.238575,0.0843706,-4.21106,-2.07991,-3.09049e-05,0,0,0,0,0,0,0,0.106148,0.053426,0.122582,-1.97679,0.725507,-0.0703787,-0.0370327,0.189746,-0.0276584,0.0738519,-0.123573,0.60905,0.300638,0.0011469,0,0,0,0,0,0,0,-1.59131,-34.0462,-1.38762,23.9636,4.00787,-0.381845,-0.0163725,
0.10928,0.0525813,0.12557,-1.97944,0.737356,-0.0615066,-0.036884,0.128526,-0.0356632,0.122979,-0.108996,0.503595,0.387036,0.00621232,-0.182387,-0.335621,-0.148926,0.916416,-11.9264,0.932885,-0.000783448,0,0,0,0,0,0,0,0.110854,0.0533831,0.126807,-1.98058,0.744809,-0.059671,-0.0370309,0.221295,0.0200788,0.0354759,-0.0920593,0.54485,0.313621,1.03606e-05,3.94361,5.96715,-4.797,3.93923,-8.02507,1.62286,-0.142068,-2.15069,-34.7444,-1.9113,23.9874,3.59222,-0.228952,-0.0026396,
0.110275,0.0522643,0.126524,-1.98022,0.740215,-0.0582402,-0.0368337,0.127706,-0.0364542,0.122241,-0.106711,0.474347,0.391287,0.006228,-0.512399,-0.494391,-0.461168,1.42855,-18.2799,2.65672,0.00979706,0,0,0,0,0,0,0,0.110854,0.0533831,0.126807,-1.98058,0.744809,-0.059671,-0.0370309,0.221295,0.0200788,0.0354759,-0.0920593,0.54485,0.313621,1.03606e-05,0,0,0,0,0,0,0,-2.15069,-34.7444,-1.9113,23.9874,3.59222,-0.228952,-0.0026396,
0.111248,0.0519372,0.127457,-1.98097,0.742528,-0.0548859,-0.0367825,0.126475,-0.0373423,0.121112,-0.103991,0.437285,0.396887,0.00626358,-0.769173,-0.555068,-0.70583,1.69989,-23.1635,3.50001,0.0222382,0,0,0,0,0,0,0,0.110854,0.0533831,0.126807,-1.98058,0.744809,-0.059671,-0.0370309,0.221295,0.0200788,0.0354759,-0.0920593,0.54485,0.313621,1.03606e-05,0,0,0,0,0,0,0,-2.15069,-34.7444,-1.9113,23.9874,3.59222,-0.228952,-0.0026396,
0.112913,0.0531737,0.12876,-1.98235,0.752063,-0.0535696,-0.0369341,0.126509,-0.0337187,0.121113,-0.105145,0.433609,0.396214,0.0062614,0.0214948,2.26474,0.000554241,-0.721018,-2.29789,-0.420941,-0.00136236,0,0,0,0,0,0,0,0.110854,0.0533831,0.126807,-1.98058,0.744809,-0.059671,-0.0370309,0.221295,0.0200788,0.0354759,-0.0920593,0.54485,0.313621,1.03606e-05,0,0,0,0,0,0,0,-2.15069,-34.7444,-1.9113,23.9874,3.59222,-0.228952,-0.0026396,
0.113903,0.0529625,0.129707,-1.98318,0.754846,-0.0503006,-0.0368828,0.125954,-0.032256,0.120573,-0.104903,0.416445,0.398694,0.0062908,-0.347391,0.914175,-0.337116,0.151292,-10.7274,1.55016,0.0183729,0,0,0,0,0,0,0,0.11538,0.0531709,0.130656,-1.98402,0.760824,-0.0487255,-0.037033,0.229989,-0.0236376,-0.00267745,-0.108726,0.44362,0.337309,-0.00119134,1.08671,-5.46455,-4.76916,-2.08335,-12.6537,2.96106,-0.150213,-1.61908,-34.2485,-1.26067,24.4119,3.58032,0.0429594,0.0303194,
0.11487,0.0527133,0.130633,-1.98397,0.757078,-0.0469483,-0.0368306,0.124944,-0.0320343,0.119614,-0.103598,0.38897,0.402763,0.00633733,-0.630718,0.138575,-0.599393,0.815411,-17.1717,2.54315,0.0290861,0,0,0,0,0,0,0,0.11538,0.0531709,0.130656,-1.98402,0.760824,-0.0487255,-0.037033,0.229989,-0.0236376,-0.00267745,-0.108726,0.44362,0.337309,-0.00119134,0,0,0,0,0,0,0,-1.61908,-34.2485,-1.26067,24.4119,3.58032,0.0429594,0.0303194,
0.115816,0.0524384,0.131539,-1.98472,0.758793,-0.0435378,-0.0367773,0.123594,-0.0324999,0.118338,-0.101631,0.354056,0.407474,0.00640406,-0.844077,-0.290957,-0.797909,1.22917,-21.8214,2.94443,0.0417026,0,0,0,0,0,0,0,0.11538,0.0531709,0.130656,-1.98402,0.760824,-0.0487255,-0.037033,0.229989,-0.0236376,-0.00267745,-0.108726,0.44362,0.337309,-0.00119134,0,0,0,0,0,0,0,-1.61908,-34.2485,-1.26067,24.4119,3.58032,0.0429594,0.0303194,
0.11728,0.0526612,0.132451,-1.9857,0.7665,-0.042487,-0.0369301,0.12241,-0.0327266,0.117169,-0.101788,0.348135,0.406176,0.00643073,-0.739935,-0.141728,-0.73032,-0.0979984,-3.70056,-0.811125,0.0166692,0,0,0,0,0,0,0,0.11538,0.0531709,0.130656,-1.98402,0.760824,-0.0487255,-0.037033,0.229989,-0.0236376,-0.00267745,-0.108726,0.44362,0.337309,-0.00119134,0,0,0,0,0,0,0,-1.61908,-34.2485,-1.26067,24.4119,3.58032,0.0429594,0.0303194,
0.11821,0.0523734,0.133341,-1.98648,0.768603,-0.0391625,-0.0368771,0.121191,-0.0333768,0.115996,-0.100885,0.33107,0.408053,0.00646909,-0.76182,-0.40635,-0.733486,0.564438,-10.6653,1.17324,0.0239785,0,0,0,0,0,0,0,0.120123,0.0529736,0.134048,-1.98706,0.773194,-0.0373939,-0.0370306,0.240608,-0.000280359,-0.0044269,-0.0737597,0.301138,0.319232,-0.000894724,1.32737,2.91965,-0.218682,4.3708,-17.8102,-2.25963,0.0370776,-1.46435,-34.2485,-0.859972,23.9874,3.47046,-0.255503,0.0376436,
0.119128,0.0520726,0.13422,-1.98722,0.770226,-0.0357609,-0.0368231,0.119889,-0.0342214,0.114756,-0.0993038,0.30543,0.411484,0.006525,-0.814113,-0.527873,-0.774619,0.988188,-16.0252,2.14419,0.0349408,0,0,0,0,0,0,0,0.120123,0.0529736,0.134048,-1.98706,0.773194,-0.0373939,-0.0370306,0.240608,-0.000280359,-0.0044269,-0.0737597,0.301138,0.319232,-0.000894724,0,0,0,0,0,0,0,-1.46435,-34.2485,-0.859972,23.9874,3.47046,-0.255503,0.0376436,
0.122045,0.052578,0.135862,-1.98867,0.777222,-0.0311511,-0.0369302,0.119577,-0.0330548,0.114409,-0.0997109,0.290235,0.409562,0.00653181,-0.194441,0.729101,-0.216788,-0.254424,-9.49725,-1.20143,0.00425706,0,0,0,0,0,0,0,0.120123,0.0529736,0.134048,-1.98706,0.773194,-0.0373939,-0.0370306,0.240608,-0.000280359,-0.0044269,-0.0737597,0.301138,0.319232,-0.000894724,0,0,0,0,0,0,0,-1.46435,-34.2485,-0.859972,23.9874,3.47046,-0.255503,0.0376436,
0.122974,0.0523223,0.13675,-1.98945,0.778654,-0.0278318,-0.0368758,0.118883,-0.0328355,0.113729,-0.0992968,0.267995,0.410632,0.00658399,-0.434182,0.137082,-0.42531,0.258803,-13.8996,0.668693,0.0326126,0,0,0,0,0,0,0,0.120123,0.0529736,0.134048,-1.98706,0.773194,-0.0373939,-0.0370306,0.240608,-0.000280359,-0.0044269,-0.0737597,0.301138,0.319232,-0.000894724,0,0,0,0,0,0,0,-1.46435,-34.2485,-0.859972,23.9874,3.47046,-0.255503,0.0376436,
0.123885,0.0520492,0.137622,-1.9902,0.779684,-0.0244484,-0.0368203,0.117888,-0.0330976,0.11278,-0.0981593,0.240142,0.41309,0.00665488,-0.621744,-0.163812,-0.593201,0.710907,-17.408,1.53649,0.0443079,0,0,0,0,0,0,0,0.124196,0.0528185,0.13794,-1.98995,0.782948,-0.0254375,-0.0370275,0.196867,-0.00560831,0.0386166,-0.0804269,0.240493,0.351686,-0.00119472,-5.46756,-0.665994,5.38043,-0.833398,-7.58072,4.05674,-0.0374995,-1.53973,-34.5223,-0.637804,24.2374,3.25622,-0.189585,0.0239107,
0.124779,0.0517646,0.138478,-1.99092,0.780331,-0.0210266,-0.0367637,0.11666,-0.0335927,0.111619,-0.0965515,0.208286,0.416017,0.00673954,-0.767704,-0.309442,-0.725563,1.00492,-19.9101,1.82909,0.0529072,0,0,0,0,0,0,0,0.124196,0.0528185,0.13794,-1.98995,0.782948,-0.0254375,-0.0370275,0.196867,-0.00560831,0.0386166,-0.0804269,0.240493,0.351686,-0.00119472,0,0,0,0,0,0,0,-1.53973,-34.5223,-0.637804,24.2374,3.25622,-0.189585,0.0239107,
0.126087,0.0524128,0.139732,-1.99153,0.785962,-0.0190004,-0.0369243,0.116632,-0.0325701,0.111551,-0.0970264,0.199949,0.414934,0.00674301,-0.0170052,0.639138,-0.0422742,-0.296835,-5.21075,-0.676928,0.00217027,0,0,0,0,0,0,0,0.124196,0.0528185,0.13794,-1.98995,0.782948,-0.0254375,-0.0370275,0.196867,-0.00560831,0.0386166,-0.0804269,0.240493,0.351686,-0.00119472,0,0,0,0,0,0,0,-1.53973,-34.5223,-0.637804,24.2374,3.25622,-0.189585,0.0239107,
0.127,0.0521594,0.140605,-1.9923,0.786921,-0.0156443,-0.0368685,0.116135,-0.0323888,0.111063,-0.0967076,0.183924,0.415851,0.00678804,-0.310885,0.113294,-0.305176,0.199274,-10.0157,0.573137,0.0281437,0,0,0,0,0,0,0,0.124196,0.0528185,0.13794,-1.98995,0.782948,-0.0254375,-0.0370275,0.196867,-0.00560831,0.0386166,-0.0804269,0.240493,0.351686,-0.00119472,0,0,0,0,0,0,0,-1.53973,-34.5223,-0.637804,24.2374,3.25622,-0.189585,0.0239107,
0.127895,0.0518904,0.141461,-1.99303,0.787514,-0.0122469,-0.0368116,0.115284,-0.0326366,0.110253,-0.0957283,0.161975,0.417616,0.00685436,-0.53177,-0.154882,-0.506161,0.612028,-13.7181,1.10344,0.0414527,0,0,0,0,0,0,0,0.127804,0.0524397,0.14171,-1.993,0.790623,-0.0136449,-0.0370258,0.0832502,-0.0198448,0.120806,-0.0906375,0.20126,0.329043,-0.00132629,-14.2022,-1.77956,10.2736,-1.27633,-4.90409,-2.83039,-0.0164458,-0.0440639,-33.2488,0.838026,23.3646,3.45214,-0.467905,0.0376436,
0.128773,0.0516114,0.142301,-1.99374,0.787767,-0.00882825,-0.0367537,0.114166,-0.0330851,0.109198,-0.0943215,0.13589,0.419559,0.00693017,-0.69889,-0.280308,-0.659227,0.879243,-16.3028,1.21395,0.047378,0,0,0,0,0,0,0,0.127804,0.0524397,0.14171,-1.993,0.790623,-0.0136449,-0.0370258,0.0832502,-0.0198448,0.120806,-0.0906375,0.20126,0.329043,-0.00132629,0,0,0,0,0,0,0,-0.0440639,-33.2488,0.838026,23.3646,3.45214,-0.467905,0.0376436,
0.129506,0.0519482,0.14334,-1.99456,0.79285,-0.00745526,-0.0369159,0.112711,-0.0329434,0.107798,-0.0946924,0.131919,0.415458,0.00697199,-0.909518,0.0885526,-0.875078,-0.231791,-2.48192,-2.56296,0.0261378,0,0,0,0,0,0,0,0.127804,0.0524397,0.14171,-1.993,0.790623,-0.0136449,-0.0370258,0.0832502,-0.0198448,0.120806,-0.0906375,0.20126,0.329043,-0.00132629,0,0,0,0,0,0,0,-0.0440639,-33.2488,0.838026,23.3646,3.45214,-0.467905,0.0376436,
0.13036,0.0516759,0.144157,-1.9953,0.793414,-0.00415202,-0.0368578,0.111522,-0.0331624,0.106661,-0.0942874,0.119653,0.414947,0.00703084,-0.742727,-0.136846,-0.711005,0.253126,-7.66679,-0.319077,0.0367834,0,0,0,0,0,0,0,0.127804,0.0524397,0.14171,-1.993,0.790623,-0.0136449,-0.0370258,0.0832502,-0.0198448,0.120806,-0.0906375,0.20126,0.329043,-0.00132629,0,0,0,0,0,0,0,-0.0440639,-33.2488,0.838026,23.3646,3.45214,-0.467905,0.0376436,
0.131209,0.0513957,0.144969,-1.99601,0.793641,-0.000787368,-0.036799,0.110424,-0.0335345,0.105617,-0.0933149,0.101378,0.416074,0.00709329,-0.686575,-0.232568,-0.652102,0.607823,-11.4213,0.704262,0.0390276,0,0,0,0,0,0,0,0.131217,0.0523453,0.145611,-1.99598,0.795366,-0.00123724,-0.0370207,0.0185089,0.00690184,0.192237,-0.0813035,0.128466,0.360375,-0.00118838,-8.09266,3.34333,8.92889,1.16675,-9.09923,3.91646,0.0172386,0.614505,-34.1731,1.01259,23.5907,3.69018,-0.560373,0.0239107,
0.132048,0.051111,0.145772,-1.99671,0.79356,0.00260661,-0.0367397,0.109321,-0.0339449,0.104576,-0.0919916,0.0790788,0.417709,0.00715783,-0.689564,-0.25649,-0.65104,0.827044,-13.9373,1.02169,0.0403432,0,0,0,0,0,0,0,0.131217,0.0523453,0.145611,-1.99598,0.795366,-0.00123724,-0.0370207,0.0185089,0.00690184,0.192237,-0.0813035,0.128466,0.360375,-0.00118838,0,0,0,0,0,0,0,0.614505,-34.1731,1.01259,23.5907,3.69018,-0.560373,0.0239107,
0.132908,0.0520712,0.147241,-1.99755,0.796642,0.00522001,-0.0369106,0.108669,-0.031406,0.103913,-0.0931611,0.0750541,0.41649,0.00718261,-0.407235,1.58678,-0.414222,-0.730943,-2.51539,-0.761846,0.0154841,0,0,0,0,0,0,0,0.131217,0.0523453,0.145611,-1.99598,0.795366,-0.00123724,-0.0370207,0.0185089,0.00690184,0.192237,-0.0813035,0.128466,0.360375,-0.00118838,0,0,0,0,0,0,0,0.614505,-34.1731,1.01259,23.5907,3.69018,-0.560373,0.0239107,
0.133751,0.051865,0.148046,-1.99831,0.796789,0.00857243,-0.0368512,0.108006,-0.0302785,0.103253,-0.0934098,0.0637308,0.417002,0.00723257,-0.414256,0.704704,-0.412235,-0.155432,-7.07709,0.320339,0.031226,0,0,0,0,0,0,0,0.131217,0.0523453,0.145611,-1.99598,0.795366,-0.00123724,-0.0370207,0.0185089,0.00690184,0.192237,-0.0813035,0.128466,0.360375,-0.00118838,0,0,0,0,0,0,0,0.614505,-34.1731,1.01259,23.5907,3.69018,-0.560373,0.0239107,
0.134585,0.051636,0.148843,-1.99903,0.796641,0.0119505,-0.0367911,0.107264,-0.0299486,0.102534,-0.092901,0.047283,0.418054,0.00728711,-0.463849,0.206199,-0.449769,0.317981,-10.2799,0.657291,0.0340851,0,0,0,0,0,0,0,0.131217,0.0523453,0.145611,-1.99598,0.795366,-0.00123724,-0.0370207,0.0185089,0.00690184,0.192237,-0.0813035,0.128466,0.360375,-0.00118838,0,0,0,0,0,0,0,0.614505,-34.1731,1.01259,23.5907,3.69018,-0.560373,0.0239107,
0.136106,0.0517288,0.151324,-2.00048,0.798424,0.0173568,-0.0369026,0.10715,-0.0299168,0.102423,-0.0929793,0.0411932,0.414575,0.00730489,-0.0711573,0.0198573,-0.0690204,-0.0489178,-3.80611,-2.17411,0.011115,0,0,0,0,0,0,0,0.134401,0.0521748,0.14968,-1.99898,0.797865,0.0110785,-0.0370157,0.0243291,-0.0151627,0.189057,-0.0842743,0.0791152,0.352773,0.00071379,0.727529,-2.75807,-0.397512,-0.371357,-6.16885,-0.950215,0.237771,0.0313145,-34.07,0.139784,23.8129,3.5556,-0.347971,-0.00996382,
0.13695,0.0514757,0.152132,-2.0012,0.798278,0.0206291,-0.0368426,0.10684,-0.0302607,0.102127,-0.0924788,0.0292968,0.413468,0.0073436,-0.193963,-0.21496,-0.185219,0.312796,-7.43527,-0.692195,0.0241924,0,0,0,0,0,0,0,0.134401,0.0521748,0.14968,-1.99898,0.797865,0.0110785,-0.0370157,0.0243291,-0.0151627,0.189057,-0.0842743,0.0791152,0.352773,0.00071379,0,0,0,0,0,0,0,0.0313145,-34.07,0.139784,23.8129,3.5556,-0.347971,-0.00996382,
0.137784,0.0512143,0.152929,-2.0019,0.797877,0.0239325,-0.0367822,0.106311,-0.0307448,0.101629,-0.0915163,0.013401,0.413359,0.00738372,-0.330455,-0.302545,-0.311366,0.601572,-9.93485,-0.0680769,0.0250747,0,0,0,0,0,0,0,0.134401,0.0521748,0.14968,-1.99898,0.797865,0.0110785,-0.0370157,0.0243291,-0.0151627,0.189057,-0.0842743,0.0791152,0.352773,0.00071379,0,0,0,0,0,0,0,0.0313145,-34.07,0.139784,23.8129,3.5556,-0.347971,-0.00996382,
0.138605,0.0509482,0.153714,-2.00258,0.79725,0.0272441,-0.0367217,0.105573,-0.0312472,0.100936,-0.0902544,-0.00494931,0.413477,0.00742044,-0.461189,-0.313977,-0.433141,0.788674,-11.4689,0.0736901,0.0229537,0,0,0,0,0,0,0,0.134401,0.0521748,0.14968,-1.99898,0.797865,0.0110785,-0.0370157,0.0243291,-0.0151627,0.189057,-0.0842743,0.0791152,0.352773,0.00071379,0,0,0,0,0,0,0,0.0313145,-34.07,0.139784,23.8129,3.5556,-0.347971,-0.00996382,
0.139869,0.0518789,0.15443,-2.00342,0.797946,0.0295883,-0.0368974,0.104875,-0.0288622,0.100217,-0.091545,-0.0120762,0.410925,0.00745151,-0.436227,1.49058,-0.448907,-0.806618,-4.45431,-1.59516,0.0194153,0,0,0,0,0,0,0,0.138232,0.0521267,0.152875,-2.00187,0.798382,0.0233007,-0.037014,0.135447,0.00726202,0.0619136,-0.0777069,0.00255336,0.343295,-7.73629e-05,13.8897,2.80309,-15.8929,0.820924,-9.57023,-1.18471,-0.0988941,-0.452694,-34.5223,-0.16173,24.6857,3.61694,-0.302194,0.017502,
0.140681,0.0516912,0.155204,-2.00416,0.797406,0.0328464,-0.036836,0.104193,-0.0277831,0.0995369,-0.0919305,-0.0231444,0.410193,0.00749539,-0.426258,0.674489,-0.425274,-0.240913,-6.91765,-0.457529,0.027429,0,0,0,0,0,0,0,0.138232,0.0521267,0.152875,-2.00187,0.798382,0.0233007,-0.037014,0.135447,0.00726202,0.0619136,-0.0777069,0.00255336,0.343295,-7.73629e-05,0,0,0,0,0,0,0,-0.452694,-34.5223,-0.16173,24.6857,3.61694,-0.302194,0.017502,
0.141484,0.0514823,0.155972,-2.00488,0.796672,0.0361231,-0.0367745,0.103453,-0.0274483,0.0988176,-0.0915459,-0.0368825,0.41007,0.00753266,-0.462476,0.209204,-0.449598,0.240388,-8.58628,-0.0768578,0.0232919,0,0,0,0,0,0,0,0.138232,0.0521267,0.152875,-2.00187,0.798382,0.0233007,-0.037014,0.135447,0.00726202,0.0619136,-0.0777069,0.00255336,0.343295,-7.73629e-05,0,0,0,0,0,0,0,-0.452694,-34.5223,-0.16173,24.6857,3.61694,-0.302194,0.017502,
0.142279,0.0512593,0.156731,-2.00558,0.795766,0.0393982,-0.0367133,0.102619,-0.0275335,0.0980204,-0.0906251,-0.0521373,0.409935,0.00755706,-0.521545,-0.0532006,-0.498241,0.575476,-9.53428,-0.0844464,0.015246,0,0,0,0,0,0,0,0.138232,0.0521267,0.152875,-2.00187,0.798382,0.0233007,-0.037014,0.135447,0.00726202,0.0619136,-0.0777069,0.00255336,0.343295,-7.73629e-05,0,0,0,0,0,0,0,-0.452694,-34.5223,-0.16173,24.6857,3.61694,-0.302194,0.017502,
0.143197,0.0518721,0.157409,-2.0063,0.797569,0.0422852,-0.036883,0.101708,-0.0261345,0.0971092,-0.0911684,-0.0539448,0.410308,0.0075906,-0.569003,0.874326,-0.569472,-0.339549,-1.12964,0.233271,0.020967,0,0,0,0,0,0,0,0.141623,0.0521519,0.155925,-2.00479,0.79831,0.0357498,-0.0370044,0.183245,-0.00192118,0.00190023,-0.0878248,0.00126613,0.380156,0.000209313,5.97476,-1.1479,-7.50167,-1.26473,-0.160904,4.60757,0.0358345,-0.829586,-34.9706,-0.360094,25.3323,3.36609,0.0100004,0.00376909,
0.14398,0.0516789,0.158155,-2.00702,0.796867,0.0455908,-0.0368211,0.10093,-0.0257387,0.0963468,-0.0909698,-0.0607092,0.410886,0.00762123,-0.486764,0.247404,-0.47653,0.124141,-4.22778,0.3617,0.019142,0,0,0,0,0,0,0,0.141623,0.0521519,0.155925,-2.00479,0.79831,0.0357498,-0.0370044,0.183245,-0.00192118,0.00190023,-0.0878248,0.00126613,0.380156,0.000209313,0,0,0,0,0,0,0,-0.829586,-34.9706,-0.360094,25.3323,3.36609,0.0100004,0.00376909,
0.144757,0.0514669,0.158897,-2.00772,0.795983,0.0488867,-0.0367594,0.100176,-0.0258892,0.0956227,-0.0902074,-0.0706579,0.411108,0.00763852,-0.47095,-0.0941012,-0.452553,0.47645,-6.21793,0.138597,0.0108093,0,0,0,0,0,0,0,0.141623,0.0521519,0.155925,-2.00479,0.79831,0.0357498,-0.0370044,0.183245,-0.00192118,0.00190023,-0.0878248,0.00126613,0.380156,0.000209313,0,0,0,0,0,0,0,-0.829586,-34.9706,-0.360094,25.3323,3.36609,0.0100004,0.00376909,
0.145527,0.0512429,0.159632,-2.0084,0.794948,0.0521607,-0.0366982,0.0993863,-0.0263128,0.0948743,-0.0890699,-0.0824061,0.410735,0.00764094,-0.493558,-0.264714,-0.467762,0.710982,-7.3426,-0.233286,0.00150983,0,0,0,0,0,0,0,0.141623,0.0521519,0.155925,-2.00479,0.79831,0.0357498,-0.0370044,0.183245,-0.00192118,0.00190023,-0.0878248,0.00126613,0.380156,0.000209313,0,0,0,0,0,0,0,-0.829586,-34.9706,-0.360094,25.3323,3.36609,0.0100004,0.00376909,
0.143193,0.0518774,0.157407,-2.00626,0.797382,0.0422356,-0.0368817,0.0990473,-0.0251064,0.0945456,-0.0894183,-0.0809101,0.410239,0.0076679,-0.211886,0.754003,-0.205406,-0.217767,0.934949,-0.309825,0.0168481,0,0,0,0,0,0,0,0.145272,0.0521457,0.158525,-2.00764,0.797166,0.0480754,-0.0370062,0.122494,-0.000896622,0.0627453,-0.0792472,-0.0567339,0.357422,-0.000634356,-7.5938,0.12807,7.60564,1.0722,-7.25001,-2.84179,-0.105459,0.00751081,-34.7444,1.03639,24.5111,3.10333,-0.0302828,0.0303194,
0.143971,0.0516854,0.15815,-2.00697,0.796561,0.0455092,-0.0368197,0.0986867,-0.0248857,0.0942056,-0.0891012,-0.0852497,0.410032,0.00768277,-0.225407,0.137895,-0.21251,0.198158,-2.71221,-0.129781,0.00929468,0,0,0,0,0,0,0,0.145272,0.0521457,0.158525,-2.00764,0.797166,0.0480754,-0.0370062,0.122494,-0.000896622,0.0627453,-0.0792472,-0.0567339,0.357422,-0.000634356,0,0,0,0,0,0,0,0.00751081,-34.7444,1.03639,24.5111,3.10333,-0.0302828,0.0303194,
0.144742,0.0514746,0.158886,-2.00765,0.795562,0.0487707,-0.0367583,0.0982314,-0.0251784,0.0937797,-0.0882894,-0.0931577,0.409562,0.00768097,-0.284553,-0.182895,-0.266168,0.507368,-4.94248,-0.293289,-0.00112298,0,0,0,0,0,0,0,0.145272,0.0521457,0.158525,-2.00764,0.797166,0.0480754,-0.0370062,0.122494,-0.000896622,0.0627453,-0.0792472,-0.0567339,0.357422,-0.000634356,0,0,0,0,0,0,0,0.00751081,-34.7444,1.03639,24.5111,3.10333,-0.0302828,0.0303194,
0.146817,0.0518626,0.159995,-2.00908,0.795662,0.0543174,-0.0368852,0.0978782,-0.0242788,0.0934385,-0.0885717,-0.0958136,0.406601,0.00769575,-0.220713,0.562231,-0.213288,-0.176398,-1.65999,-1.8507,0.0092341,0,0,0,0,0,0,0,0.145272,0.0521457,0.158525,-2.00764,0.797166,0.0480754,-0.0370062,0.122494,-0.000896622,0.0627453,-0.0792472,-0.0567339,0.357422,-0.000634356,0,0,0,0,0,0,0,0.00751081,-34.7444,1.03639,24.5111,3.10333,-0.0302828,0.0303194,
0.147585,0.0516712,0.160728,-2.00978,0.794642,0.0574968,-0.0368234,0.0975022,-0.0242085,0.0930799,-0.0882748,-0.102137,0.404767,0.00770161,-0.235026,0.0439197,-0.224129,0.185565,-3.95184,-1.14654,0.00366297,0,0,0,0,0,0,0,0.147935,0.0521266,0.16217,-2.01049,0.795133,0.0605969,-0.0369975,0.0076346,1.6622e-05,0.170748,-0.0846299,-0.077491,0.347542,0.000379844,-14.3575,0.114155,13.5003,-0.672844,-2.59464,-1.235,0.126775,0.336795,-34.2961,0.86183,24.2889,2.80487,-0.242685,-0.0026396,
0.148346,0.051464,0.161455,-2.01045,0.793489,0.0606724,-0.0367624,0.0970259,-0.0245477,0.0926302,-0.0874924,-0.110543,0.403202,0.00768726,-0.297661,-0.212005,-0.281039,0.489016,-5.25375,-0.977916,-0.00896903,0,0,0,0,0,0,0,0.147935,0.0521266,0.16217,-2.01049,0.795133,0.0605969,-0.0369975,0.0076346,1.6622e-05,0.170748,-0.0846299,-0.077491,0.347542,0.000379844,0,0,0,0,0,0,0,0.336795,-34.2961,0.86183,24.2889,2.80487,-0.242685,-0.0026396,
0.149097,0.051247,0.162173,-2.01111,0.792232,0.0638297,-0.0367023,0.0964165,-0.0250632,0.0920574,-0.0863719,-0.119863,0.401495,0.00765224,-0.380896,-0.322187,-0.357998,0.700272,-5.82496,-1.0672,-0.0218857,0,0,0,0,0,0,0,0.147935,0.0521266,0.16217,-2.01049,0.795133,0.0605969,-0.0369975,0.0076346,1.6622e-05,0.170748,-0.0846299,-0.077491,0.347542,0.000379844,0,0,0,0,0,0,0,0.336795,-34.2961,0.86183,24.2889,2.80487,-0.242685,-0.0026396,
0.149406,0.051872,0.16359,-2.01194,0.793348,0.0666374,-0.0368754,0.0957238,-0.0238249,0.0913919,-0.0870327,-0.12059,0.397848,0.00768867,-0.432928,0.773981,-0.41596,-0.412991,-0.454774,-2.27881,0.0227719,0,0,0,0,0,0,0,0.147935,0.0521266,0.16217,-2.01049,0.795133,0.0605969,-0.0369975,0.0076346,1.6622e-05,0.170748,-0.0846299,-0.077491,0.347542,0.000379844,0,0,0,0,0,0,0,0.336795,-34.2961,0.86183,24.2889,2.80487,-0.242685,-0.0026396,
0.150151,0.051694,0.1643,-2.01263,0.79221,0.0697371,-0.0368135,0.0951916,-0.0235114,0.0908756,-0.0869698,-0.124931,0.395772,0.00769863,-0.332619,0.195915,-0.322635,0.0393261,-2.71288,-1.29768,0.00622373,0,0,0,0,0,0,0,0.150701,0.0521806,0.165313,-2.01306,0.792764,0.0720754,-0.0370003,0.0804561,0.00433082,0.0875266,-0.0755312,-0.0794072,0.352445,-0.00126474,9.10269,0.539275,-10.4027,1.13734,-0.239519,0.612882,-0.205573,0.741459,-35.0459,0.762648,25.134,2.74353,-0.0165499,0.0239107,
0.150891,0.0514989,0.165007,-2.0133,0.790959,0.0728403,-0.0367527,0.0946653,-0.0236862,0.0903692,-0.0863392,-0.131218,0.394196,0.00767783,-0.328988,-0.109215,-0.316532,0.394119,-3.92962,-0.984815,-0.0130003,0,0,0,0,0,0,0,0.150701,0.0521806,0.165313,-2.01306,0.792764,0.0720754,-0.0370003,0.0804561,0.00433082,0.0875266,-0.0755312,-0.0794072,0.352445,-0.00126474,0,0,0,0,0,0,0,0.741459,-35.0459,0.762648,25.134,2.74353,-0.0165499,0.0239107,
0.149406,0.051872,0.16359,-2.01194,0.793348,0.0666374,-0.0368754,0.0943228,-0.0227232,0.0900413,-0.0870065,-0.129675,0.39201,0.00770915,-0.214021,0.601845,-0.204935,-0.417081,0.964683,-1.36655,0.0195728,0,0,0,0,0,0,0,0.150701,0.0521806,0.165313,-2.01306,0.792764,0.0720754,-0.0370003,0.0804561,0.00433082,0.0875266,-0.0755312,-0.0794072,0.352445,-0.00126474,0,0,0,0,0,0,0,0.741459,-35.0459,0.762648,25.134,2.74353,-0.0165499,0.0239107,
0.152845,0.0517767,0.16736,-2.01512,0.789691,0.0813004,-0.0368172,0.0934662,-0.0224935,0.0892082,-0.0864537,-0.133411,0.391217,0.00770182,-0.535361,0.143543,-0.520708,0.345535,-2.33506,-0.495911,-0.00458053,0,0,0,0,0,0,0,0.150701,0.0521806,0.165313,-2.01306,0.792764,0.0720754,-0.0370003,0.0804561,0.00433082,0.0875266,-0.0755312,-0.0794072,0.352445,-0.00126474,0,0,0,0,0,0,0,0.741459,-35.0459,0.762648,25.134,2.74353,-0.0165499,0.0239107,
0.153563,0.0515862,0.168045,-2.01578,0.7884,0.0843914,-0.0367572,0.0927242,-0.0227593,0.0884897,-0.0854975,-0.138989,0.39025,0.00766148,-0.463804,-0.166082,-0.449056,0.597629,-3.48666,-0.604297,-0.025211,0,0,0,0,0,0,0,0.154195,0.0521284,0.167393,-2.01561,0.790005,0.0837061,-0.0369934,0.15045,-0.00632798,-0.000384079,-0.0789167,-0.0796153,0.339975,0.000322702,8.74927,-1.33235,-10.9888,-0.423177,-0.0260175,-1.55877,0.198431,0.106693,-34.2723,0.786451,24.4873,2.58422,0.0493681,0.00376909,
0.154276,0.0513845,0.168724,-2.01641,0.78704,0.0874564,-0.0366987,0.0919913,-0.023248,0.0877856,-0.084257,-0.145202,0.388823,0.00759213,-0.458013,-0.305444,-0.440051,0.775314,-3.88266,-0.891676,-0.0433432,0,0,0,0,0,0,0,0.154195,0.0521284,0.167393,-2.01561,0.790005,0.0837061,-0.0369934,0.15045,-0.00632798,-0.000384079,-0.0789167,-0.0796153,0.339975,0.000322702,0,0,0,0,0,0,0,0.106693,-34.2723,0.786451,24.4873,2.58422,0.0493681,0.00376909,
0.155544,0.0518307,0.168667,-2.01696,0.787998,0.0896966,-0.036869,0.0906142,-0.0227863,0.0864637,-0.0841662,-0.143621,0.386896,0.00763371,-0.860722,0.288574,-0.826177,0.0567484,0.987845,-1.20409,0.0259857,0,0,0,0,0,0,0,0.154195,0.0521284,0.167393,-2.01561,0.790005,0.0837061,-0.0369934,0.15045,-0.00632798,-0.000384079,-0.0789167,-0.0796153,0.339975,0.000322702,0,0,0,0,0,0,0,0.106693,-34.2723,0.786451,24.4873,2.58422,0.0493681,0.00376909,
0.156233,0.0516428,0.169325,-2.01761,0.786767,0.0927496,-0.0368082,0.0897374,-0.0229276,0.0856208,-0.0836328,-0.145677,0.385842,0.00762733,-0.547961,-0.0883552,-0.526846,0.333379,-1.28519,-0.658812,-0.003986,0,0,0,0,0,0,0,0.154195,0.0521284,0.167393,-2.01561,0.790005,0.0837061,-0.0369934,0.15045,-0.00632798,-0.000384079,-0.0789167,-0.0796153,0.339975,0.000322702,0,0,0,0,0,0,0,0.106693,-34.2723,0.786451,24.4873,2.58422,0.0493681,0.00376909,
0.156925,0.0514428,0.169985,-2.01824,0.785447,0.0957932,-0.0367491,0.0890893,-0.0233404,0.0849977,-0.0827436,-0.14953,0.384764,0.00757929,-0.405056,-0.257998,-0.389411,0.555752,-2.40761,-0.673999,-0.030025,0,0,0,0,0,0,0,0.154195,0.0521284,0.167393,-2.01561,0.790005,0.0837061,-0.0369934,0.15045,-0.00632798,-0.000384079,-0.0789167,-0.0796153,0.339975,0.000322702,0,0,0,0,0,0,0,0.106693,-34.2723,0.786451,24.4873,2.58422,0.0493681,0.00376909,
0.157615,0.051236,0.170643,-2.01886,0.784073,0.0988119,-0.0366917,0.0885102,-0.0238434,0.0844439,-0.0816055,-0.153988,0.383279,0.00749776,-0.361947,-0.314369,-0.346156,0.711307,-2.78647,-0.927878,-0.0509609,0,0,0,0,0,0,0,0.156856,0.0521276,0.170308,-2.01824,0.786752,0.0952611,-0.0369885,0.0302809,-0.000382745,0.132001,-0.0844028,-0.0893939,0.336155,0.000927363,-15.0212,0.743154,16.5481,-0.685769,-1.22233,-0.47745,0.0755826,0.209842,-34.2207,0.86183,24.3604,2.51098,0.149161,0.00376909,
0.158227,0.0518981,0.171626,-2.01961,0.784656,0.101034,-0.0368664,0.0881534,-0.022509,0.0841093,-0.0822382,-0.151724,0.379692,0.00753921,-0.223007,0.834025,-0.209068,-0.395473,1.4147,-2.24211,0.0259094,0,0,0,0,0,0,0,0.156856,0.0521276,0.170308,-2.01824,0.786752,0.0952611,-0.0369885,0.0302809,-0.000382745,0.132001,-0.0844028,-0.0893939,0.336155,0.000927363,0,0,0,0,0,0,0,0.209842,-34.2207,0.86183,24.3604,2.51098,0.149161,0.00376909,
0.158924,0.051734,0.172292,-2.02026,0.783392,0.103979,-0.0368066,0.0879586,-0.0221096,0.0839187,-0.0821816,-0.15299,0.377379,0.00752681,-0.121742,0.249627,-0.119131,0.0353727,-0.790836,-1.44539,-0.0077497,0,0,0,0,0,0,0,0.156856,0.0521276,0.170308,-2.01824,0.786752,0.0952611,-0.0369885,0.0302809,-0.000382745,0.132001,-0.0844028,-0.0893939,0.336155,0.000927363,0,0,0,0,0,0,0,0.209842,-34.2207,0.86183,24.3604,2.51098,0.149161,0.00376909,
0.159619,0.0515533,0.172955,-2.0209,0.782051,0.10692,-0.0367487,0.0877501,-0.0222062,0.0837141,-0.0816018,-0.155894,0.375427,0.00746855,-0.130341,-0.0604033,-0.127909,0.362383,-1.8152,-1.22016,-0.0364125,0,0,0,0,0,0,0,0.156856,0.0521276,0.170308,-2.01824,0.786752,0.0952611,-0.0369885,0.0302809,-0.000382745,0.132001,-0.0844028,-0.0893939,0.336155,0.000927363,0,0,0,0,0,0,0,0.209842,-34.2207,0.86183,24.3604,2.51098,0.149161,0.00376909,
0.160309,0.0513622,0.173613,-2.02151,0.78067,0.109842,-0.0366927,0.0874404,-0.0225415,0.0834144,-0.0806529,-0.159264,0.373394,0.00737398,-0.193539,-0.209563,-0.187297,0.59307,-2.10622,-1.27038,-0.0591056,0,0,0,0,0,0,0,0.158901,0.0521666,0.173873,-2.02089,0.782914,0.106196,-0.0369862,0.0205579,0.0044756,0.140909,-0.0828686,-0.118986,0.335463,0.000596343,-1.21537,0.607293,1.11353,0.19178,-3.699,-0.0865034,-0.0413775,1.1977,-34.7722,1.18715,24.884,2.67028,0.0823271,-0.0163725,
0.16025,0.0519861,0.17517,-2.02226,0.780548,0.111901,-0.0368668,0.0870117,-0.0209212,0.0829903,-0.0814852,-0.158699,0.370743,0.00741,-0.26796,1.01267,-0.265059,-0.520201,0.353189,-1.65738,0.0225109,0,0,0,0,0,0,0,0.158901,0.0521666,0.173873,-2.02089,0.782914,0.106196,-0.0369862,0.0205579,0.0044756,0.140909,-0.0828686,-0.118986,0.335463,0.000596343,0,0,0,0,0,0,0,1.1977,-34.7722,1.18715,24.884,2.67028,0.0823271,-0.0163725,
0.160935,0.0518404,0.175823,-2.02292,0.779211,0.114795,-0.0368082,0.0867257,-0.0203787,0.0826985,-0.081555,-0.160385,0.368942,0.00739202,-0.178725,0.33909,-0.18236,-0.0435881,-1.05389,-1.12538,-0.011237,0,0,0,0,0,0,0,0.158901,0.0521666,0.173873,-2.02089,0.782914,0.106196,-0.0369862,0.0205579,0.0044756,0.140909,-0.0828686,-0.118986,0.335463,0.000596343,0,0,0,0,0,0,0,1.1977,-34.7722,1.18715,24.884,2.67028,0.0823271,-0.0163725,
0.161617,0.0516754,0.176472,-2.02355,0.777828,0.117679,-0.0367518,0.0864279,-0.0204266,0.0823992,-0.081032,-0.16289,0.367266,0.00732594,-0.186128,-0.0299104,-0.187093,0.326858,-1.56536,-1.04731,-0.0412998,0,0,0,0,0,0,0,0.158901,0.0521666,0.173873,-2.02089,0.782914,0.106196,-0.0369862,0.0205579,0.0044756,0.140909,-0.0828686,-0.118986,0.335463,0.000596343,0,0,0,0,0,0,0,1.1977,-34.7722,1.18715,24.884,2.67028,0.0823271,-0.0163725,
0.163259,0.0518973,0.177511,-2.02504,0.776471,0.12302,-0.0368668,0.0856882,-0.0194593,0.0816701,-0.0815355,-0.16305,0.364985,0.00734914,-0.462349,0.604511,-0.455708,-0.314675,-0.100279,-1.42603,0.0145017,0,0,0,0,0,0,0,0.161941,0.0521109,0.176267,-2.02367,0.77898,0.117363,-0.0369867,0.136289,-0.00450402,0.0143491,-0.0909979,-0.123649,0.336473,-0.000732807,14.4663,-1.12245,-15.82,-1.01617,-0.582869,0.126245,-0.166144,-0.754208,-33.947,-0.312487,24.9118,2.5238,0.168387,0.0303194,
0.163924,0.0517485,0.178144,-2.02568,0.775103,0.125872,-0.0368096,0.0851821,-0.019288,0.0811702,-0.0812708,-0.164627,0.363279,0.00730857,-0.316305,0.107112,-0.312407,0.165418,-0.985485,-1.06576,-0.0253597,0,0,0,0,0,0,0,0.161941,0.0521109,0.176267,-2.02367,0.77898,0.117363,-0.0369867,0.136289,-0.00450402,0.0143491,-0.0909979,-0.123649,0.336473,-0.000732807,0,0,0,0,0,0,0,-0.754208,-33.947,-0.312487,24.9118,2.5238,0.168387,0.0303194,
0.164587,0.0515835,0.178776,-2.0263,0.773712,0.12871,-0.0367547,0.0847361,-0.0195557,0.0807324,-0.0804747,-0.166481,0.361587,0.00721989,-0.278765,-0.167355,-0.273657,0.497584,-1.15862,-1.05763,-0.055421,0,0,0,0,0,0,0,0.161941,0.0521109,0.176267,-2.02367,0.77898,0.117363,-0.0369867,0.136289,-0.00450402,0.0143491,-0.0909979,-0.123649,0.336473,-0.000732807,0,0,0,0,0,0,0,-0.754208,-33.947,-0.312487,24.9118,2.5238,0.168387,0.0303194,
0.165246,0.0514077,0.179403,-2.0269,0.77232,0.131525,-0.036702,0.0842544,-0.0200381,0.080265,-0.0793154,-0.167981,0.359651,0.00709458,-0.301061,-0.301477,-0.292083,0.724553,-0.937838,-1.21022,-0.078319,0,0,0,0,0,0,0,0.161941,0.0521109,0.176267,-2.02367,0.77898,0.117363,-0.0369867,0.136289,-0.00450402,0.0143491,-0.0909979,-0.123649,0.336473,-0.000732807,0,0,0,0,0,0,0,-0.754208,-33.947,-0.312487,24.9118,2.5238,0.168387,0.0303194,
0.166268,0.0520421,0.179562,-2.0276,0.77194,0.133563,-0.0368653,0.083564,-0.0185632,0.0795868,-0.0800205,-0.167766,0.356998,0.0071249,-0.431448,0.921831,-0.423877,-0.440697,0.134292,-1.65803,0.0189456,0,0,0,0,0,0,0,0.164985,0.0521967,0.178345,-2.02626,0.774529,0.128074,-0.0369813,0.0974507,0.00482288,0.0506205,-0.0814125,-0.140634,0.318942,0.000808405,-4.85475,1.16586,4.53392,1.19818,-2.12309,-2.19136,0.192651,-0.500302,-34.9706,0.413527,25.6577,2.63366,0.466849,-0.0163725,
0.166919,0.0519114,0.180181,-2.02824,0.770565,0.136345,-0.0368096,0.0831138,-0.0181182,0.0791405,-0.079952,-0.168589,0.355149,0.00709217,-0.281415,0.278089,-0.278945,0.0427869,-0.514049,-1.15573,-0.0204513,0,0,0,0,0,0,0,0.164985,0.0521967,0.178345,-2.02626,0.774529,0.128074,-0.0369813,0.0974507,0.00482288,0.0506205,-0.0814125,-0.140634,0.318942,0.000808405,0,0,0,0,0,0,0,-0.500302,-34.9706,0.413527,25.6577,2.63366,0.466849,-0.0163725,
0.167568,0.0517614,0.180798,-2.02885,0.769181,0.139117,-0.0367563,0.0827245,-0.0182457,0.0787566,-0.0792874,-0.169476,0.353424,0.0070069,-0.243311,-0.0796833,-0.239971,0.415377,-0.554358,-1.07781,-0.0532989,0,0,0,0,0,0,0,0.164985,0.0521967,0.178345,-2.02626,0.774529,0.128074,-0.0369813,0.0974507,0.00482288,0.0506205,-0.0814125,-0.140634,0.318942,0.000808405,0,0,0,0,0,0,0,-0.500302,-34.9706,0.413527,25.6577,2.63366,0.466849,-0.0163725,
0.168213,0.0515983,0.181412,-2.02944,0.767808,0.141869,-0.0367052,0.0822978,-0.0186723,0.0783413,-0.0781993,-0.1699,0.351532,0.0068815,-0.266705,-0.266621,-0.259518,0.680094,-0.265322,-1.18257,-0.0783748,0,0,0,0,0,0,0,0.164985,0.0521967,0.178345,-2.02626,0.774529,0.128074,-0.0369813,0.0974507,0.00482288,0.0506205,-0.0814125,-0.140634,0.318942,0.000808405,0,0,0,0,0,0,0,-0.500302,-34.9706,0.413527,25.6577,2.63366,0.466849,-0.0163725,
0.166259,0.0520507,0.179553,-2.02758,0.771939,0.133514,-0.0368683,0.0818564,-0.0173567,0.0779143,-0.0788,-0.16925,0.349796,0.00691231,-0.27582,0.822234,-0.266896,-0.37542,0.406364,-1.08496,0.0192585,0,0,0,0,0,0,0,0.166803,0.0522106,0.181446,-2.02889,0.769815,0.138982,-0.0369789,0.00308518,0.00214786,0.132336,-0.0734934,-0.161743,0.297814,-0.000127455,-11.7957,-0.334377,10.2144,0.989891,-2.63869,-2.64098,-0.116983,0.892215,-34.7206,1.13954,25.2847,2.7124,0.23522,0.00376909,
0.166902,0.0519244,0.180165,-2.0282,0.770573,0.136265,-0.0368145,0.0815633,-0.0170434,0.0776275,-0.078636,-0.169561,0.348614,0.00687607,-0.183243,0.195844,-0.179244,0.102445,-0.194216,-0.738947,-0.0226513,0,0,0,0,0,0,0,0.166803,0.0522106,0.181446,-2.02889,0.769815,0.138982,-0.0369789,0.00308518,0.00214786,0.132336,-0.0734934,-0.161743,0.297814,-0.000127455,0,0,0,0,0,0,0,0.892215,-34.7206,1.13954,25.2847,2.7124,0.23522,0.00376909,
0.167543,0.0517786,0.180775,-2.0288,0.769204,0.139006,-0.0367631,0.0812694,-0.0172816,0.0773412,-0.0778922,-0.169882,0.347416,0.00678591,-0.183682,-0.14887,-0.178925,0.464882,-0.20057,-0.748532,-0.0563502,0,0,0,0,0,0,0,0.166803,0.0522106,0.181446,-2.02889,0.769815,0.138982,-0.0369789,0.00308518,0.00214786,0.132336,-0.0734934,-0.161743,0.297814,-0.000127455,0,0,0,0,0,0,0,0.892215,-34.7206,1.13954,25.2847,2.7124,0.23522,0.00376909,
0.167977,0.0520241,0.182574,-2.03016,0.767146,0.144226,-0.0368709,0.0800126,-0.0166598,0.0761314,-0.0780268,-0.169732,0.344552,0.00679375,-0.785484,0.388618,-0.75613,-0.0840982,0.0939002,-1.79025,0.00490103,0,0,0,0,0,0,0,0.166803,0.0522106,0.181446,-2.02889,0.769815,0.138982,-0.0369789,0.00308518,0.00214786,0.132336,-0.0734934,-0.161743,0.297814,-0.000127455,0,0,0,0,0,0,0,0.892215,-34.7206,1.13954,25.2847,2.7124,0.23522,0.00376909,
0.168586,0.0518876,0.183154,-2.03077,0.765784,0.146919,-0.0368187,0.0792483,-0.0167407,0.0753863,-0.0775679,-0.169825,0.342953,0.00674004,-0.477684,-0.0505925,-0.465663,0.286804,-0.058133,-0.999267,-0.0335715,0,0,0,0,0,0,0,0.169579,0.0522682,0.183407,-2.03151,0.764916,0.149195,-0.0369753,0.127947,-0.00504145,0.00646617,-0.0822256,-0.132646,0.294192,-0.00017921,15.6077,-0.898664,-15.7337,-1.09153,3.63714,-0.452759,-0.00646932,-0.40112,-34.9944,0.139784,25.4315,2.77374,0.314871,0.0101778,
0.169199,0.051736,0.183735,-2.03135,0.764437,0.149611,-0.036769,0.078705,-0.0171814,0.0748551,-0.0766206,-0.169542,0.341666,0.00663282,-0.33953,-0.275403,-0.332056,0.592087,0.17669,-0.804784,-0.0670106,0,0,0,0,0,0,0,0.169579,0.0522682,0.183407,-2.03151,0.764916,0.149195,-0.0369753,0.127947,-0.00504145,0.00646617,-0.0822256,-0.132646,0.294192,-0.00017921,0,0,0,0,0,0,0,-0.40112,-34.9944,0.139784,25.4315,2.77374,0.314871,0.0101778,
0.169809,0.0515743,0.184316,-2.03191,0.763119,0.152288,-0.0367218,0.0782257,-0.0177893,0.0743883,-0.0753221,-0.168589,0.340265,0.0064857,-0.299611,-0.379944,-0.291703,0.81157,0.595771,-0.875332,-0.0919466,0,0,0,0,0,0,0,0.169579,0.0522682,0.183407,-2.03151,0.764916,0.149195,-0.0369753,0.127947,-0.00504145,0.00646617,-0.0822256,-0.132646,0.294192,-0.00017921,0,0,0,0,0,0,0,-0.40112,-34.9944,0.139784,25.4315,2.77374,0.314871,0.0101778,
0.17078,0.0520603,0.184538,-2.03277,0.762439,0.154318,-0.0368674,0.0777125,-0.0172105,0.0738977,-0.0756719,-0.166585,0.337088,0.006517,-0.320754,0.361731,-0.306658,-0.218677,1.2523,-1.98562,0.0195588,0,0,0,0,0,0,0,0.169579,0.0522682,0.183407,-2.03151,0.764916,0.149195,-0.0369753,0.127947,-0.00504145,0.00646617,-0.0822256,-0.132646,0.294192,-0.00017921,0,0,0,0,0,0,0,-0.40112,-34.9944,0.139784,25.4315,2.77374,0.314871,0.0101778,
0.171391,0.0519211,0.185119,-2.03336,0.761154,0.156938,-0.0368171,0.0774463,-0.0172493,0.0736397,-0.0753067,-0.165389,0.335173,0.00646958,-0.166373,-0.0242236,-0.161242,0.228268,0.747537,-1.1969,-0.0296391,0,0,0,0,0,0,0,0.169579,0.0522682,0.183407,-2.03151,0.764916,0.149195,-0.0369753,0.127947,-0.00504145,0.00646617,-0.0822256,-0.132646,0.294192,-0.00017921,0,0,0,0,0,0,0,-0.40112,-34.9944,0.139784,25.4315,2.77374,0.314871,0.0101778,
0.172002,0.0517682,0.1857,-2.03393,0.75988,0.15956,-0.0367696,0.0772289,-0.0176219,0.0734264,-0.0744288,-0.164163,0.33368,0.00636477,-0.135862,-0.232873,-0.133289,0.548708,0.766098,-0.933125,-0.0655006,0,0,0,0,0,0,0,0.171925,0.052365,0.185628,-2.03395,0.760165,0.158999,-0.0369737,0.0287224,0.00268236,0.100884,-0.0664963,-0.142097,0.278958,0.0014755,-12.4031,0.965477,11.8022,1.96616,-1.18137,-1.90426,0.206839,0.134464,-34.5461,0.913405,25.011,2.72522,0.23522,-0.0301054,
0.172609,0.0516059,0.186277,-2.03448,0.758633,0.162169,-0.0367245,0.0769534,-0.0181538,0.0731577,-0.0731929,-0.162506,0.332192,0.00621813,-0.172164,-0.332484,-0.16798,0.772397,1.03582,-0.929755,-0.0916519,0,0,0,0,0,0,0,0.171925,0.052365,0.185628,-2.03395,0.760165,0.158999,-0.0369737,0.0287224,0.00268236,0.100884,-0.0664963,-0.142097,0.278958,0.0014755,0,0,0,0,0,0,0,0.134464,-34.5461,0.913405,25.011,2.72522,0.23522,-0.0301054,
0.173061,0.052179,0.186715,-2.03515,0.757765,0.164005,-0.036872,0.0760458,-0.017354,0.0722889,-0.0734047,-0.160557,0.329474,0.00624777,-0.567291,0.499924,-0.542997,-0.132344,1.21808,-1.69911,0.018522,0,0,0,0,0,0,0,0.171925,0.052365,0.185628,-2.03395,0.760165,0.158999,-0.0369737,0.0287224,0.00268236,0.100884,-0.0664963,-0.142097,0.278958,0.0014755,0,0,0,0,0,0,0,0.134464,-34.5461,0.913405,25.011,2.72522,0.23522,-0.0301054,
