xiao-wang007/linearmpc_panda/paper_data/panda_torque_PD_controller_opt_time_to_start_low_pass_filter/3/trajectory.csv
Commanded Joint 0 Position,Commanded Joint 1 Position,Commanded Joint 2 Position,Commanded Joint 3 Position,Commanded Joint 4 Position,Commanded Joint 5 Position,Commanded Joint 6 Position,Commanded Joint 0 Velocity,Commanded Joint 1 Velocity,Commanded Joint 2 Velocity,Commanded Joint 3 Velocity,Commanded Joint 4 Velocity,Commanded Joint 5 Velocity,Commanded Joint 6 Velocity,Commanded Joint 0 Acceleration,Commanded Joint 1 Acceleration,Commanded Joint 2 Acceleration,Commanded Joint 3 Acceleration,Commanded Joint 4 Acceleration,Commanded Joint 5 Acceleration,Commanded Joint 6 Acceleration,Commanded Joint 0 Torque,Commanded Joint 1 Torque,Commanded Joint 2 Torque,Commanded Joint 3 Torque,Commanded Joint 4 Torque,Commanded Joint 5 Torque,Commanded Joint 6 Torque,Actual Joint 0 Position,Actual Joint 1 Position,Actual Joint 2 Position,Actual Joint 3 Position,Actual Joint 4 Position,Actual Joint 5 Position,Actual Joint 6 Position,Actual Joint 0 Velocity,Actual Joint 1 Velocity,Actual Joint 2 Velocity,Actual Joint 3 Velocity,Actual Joint 4 Velocity,Actual Joint 5 Velocity,Actual Joint 6 Velocity,Actual Joint 0 Acceleration,Actual Joint 1 Acceleration,Actual Joint 2 Acceleration,Actual Joint 3 Acceleration,Actual Joint 4 Acceleration,Actual Joint 5 Acceleration,Actual Joint 6 Acceleration,Actual Joint 0 Torque,Actual Joint 1 Torque,Actual Joint 2 Torque,Actual Joint 3 Torque,Actual Joint 4 Torque,Actual Joint 5 Torque,Actual Joint 6 Torque,
-0.0366339,-0.153229,0.00247422,-1.85071,-0.00376291,0.154852,-0.0541049,0.000543667,0.0166542,0.000714852,-0.0349838,-0.00465064,0.0506014,-0.000383788,0.339792,10.4089,0.446783,-21.8649,-2.90665,31.6259,-0.239867,0.0552585,19.269,0.216626,-24.1512,-0.567012,1.9887,-0.0246964,-0.036702,-0.153975,0.00241302,-1.84719,-0.00344464,0.149379,-0.0540506,-0.00263652,-0.000231984,-0.000379912,0.000223913,0.012541,-0.000424873,0.00123537,0,0,0,0,0,0,0,0.158268,-29.9043,-0.260912,26.705,0.624081,3.29857,-0.0703886,
-0.0367106,-0.153978,0.00240158,-1.84719,-0.00333659,0.149378,-0.0540489,0.000410096,0.0133093,0.000533496,-0.0279579,-0.00324362,0.0405073,-0.000301746,-0.0834818,-2.09057,-0.113348,4.39117,0.879385,-6.30884,0.0512759,0.0495671,19.7121,0.206233,-24.0673,-0.567385,1.73809,-0.0231842,-0.0366984,-0.153899,0.00241593,-1.84725,-0.00344947,0.149373,-0.0540514,-0.0031158,-0.000425237,-0.000717722,-2.16111e-05,0.011285,-0.000577095,0.000881358,-0.0599096,-0.0241565,-0.0422262,-0.0306905,-0.157003,-0.0190278,-0.0442511,0.106693,-29.5274,-0.312487,26.828,0.667111,3.34435,-0.0630644,
-0.0367109,-0.153978,0.00240099,-1.84719,-0.00332527,0.14938,-0.0540488,0.000320848,0.0106408,0.000411936,-0.0223435,-0.00231194,0.0324474,-0.000238653,-0.0557799,-1.66784,-0.0759749,3.50902,0.582305,-5.0374,0.0394332,0.0423931,20.2839,0.194514,-23.9592,-0.566988,1.39018,-0.0212164,-0.0366984,-0.153899,0.00241593,-1.84725,-0.00344947,0.149373,-0.0540514,-0.0031158,-0.000425237,-0.000717722,-2.16111e-05,0.011285,-0.000577095,0.000881358,0,0,0,0,0,0,0,0.106693,-29.5274,-0.312487,26.828,0.667111,3.34435,-0.0630644,
-0.0367108,-0.153978,0.00240086,-1.84719,-0.00331846,0.149382,-0.0540487,0.000257956,0.00851225,0.000326431,-0.0178566,-0.00167917,0.026008,-0.000189571,-0.0393073,-1.33033,-0.0534406,2.80429,0.395478,-4.02462,0.0306766,0.0364867,20.8081,0.185108,-23.7914,-0.565082,1.00465,-0.0192163,-0.0366984,-0.153899,0.00241593,-1.84725,-0.00344947,0.149373,-0.0540514,-0.0031158,-0.000425237,-0.000717722,-2.16111e-05,0.011285,-0.000577095,0.000881358,0,0,0,0,0,0,0,0.106693,-29.5274,-0.312487,26.828,0.667111,3.34435,-0.0630644,
-0.0370267,-0.153882,0.00210804,-1.84716,0.00543424,0.14622,-0.0540704,-0.000868772,0.00683865,-0.000892306,-0.0141736,0.0546455,8.8928e-05,-0.000155941,-0.704206,-1.046,-0.761711,2.30191,35.2029,-16.1994,0.0210188,0.445035,0.156411,0.444656,-0.232461,3.35872,-1.28679,-0.000845419,-0.0366984,-0.153899,0.00241593,-1.84725,-0.00344947,0.149373,-0.0540514,-0.0031158,-0.000425237,-0.000717722,-2.16111e-05,0.011285,-0.000577095,0.000881358,0,0,0,0,0,0,0,0.106693,-29.5274,-0.312487,26.828,0.667111,3.34435,-0.0630644,
-0.0370553,-0.153881,0.00207614,-1.84716,0.00774579,0.145352,-0.0540703,-0.00141043,0.00551504,-0.00151142,-0.0113564,0.101505,-0.0216326,-0.000120993,-0.338539,-0.827254,-0.386948,1.76074,29.2872,-13.576,0.0218421,0.442972,0.18979,0.434053,-0.220933,3.32926,-1.26824,-0.000761925,-0.0366948,-0.153221,0.00242056,-1.84791,-0.00358468,0.150463,-0.0540514,-0.000715455,0.0879185,-0.00177787,-0.0862679,0.00362504,0.139549,0.000748416,0.300043,11.043,-0.132519,-10.7808,-0.957494,17.5157,-0.0166177,0.0551182,-16.975,-0.110155,13.4265,0.233151,2.37664,-0.0630644,
-0.0370712,-0.153878,0.00205717,-1.84717,0.0100978,0.144459,-0.05407,-0.0015268,0.00448061,-0.00168332,-0.00920419,0.140005,-0.0396276,-9.04735e-05,-0.0727257,-0.64652,-0.107437,1.34512,24.0628,-11.2469,0.019075,0.436449,0.186793,0.428889,-0.218748,3.30013,-1.25695,-0.000750755,-0.0366948,-0.153221,0.00242056,-1.84791,-0.00358468,0.150463,-0.0540514,-0.000715455,0.0879185,-0.00177787,-0.0862679,0.00362504,0.139549,0.000748416,0,0,0,0,0,0,0,0.0551182,-16.975,-0.110155,13.4265,0.233151,2.37664,-0.0630644,
-0.0370764,-0.153874,0.00204937,-1.84718,0.0124698,0.143552,-0.0540698,-0.00135136,0.00368068,-0.00154158,-0.00756073,0.171303,-0.054381,-6.62049e-05,0.109645,-0.499953,0.08859,1.02716,19.5611,-9.22091,0.0151679,0.430933,0.183937,0.423614,-0.216621,3.27058,-1.24562,-0.000740113,-0.0366948,-0.153221,0.00242056,-1.84791,-0.00358468,0.150463,-0.0540514,-0.000715455,0.0879185,-0.00177787,-0.0862679,0.00362504,0.139549,0.000748416,0,0,0,0,0,0,0,0.0551182,-16.975,-0.110155,13.4265,0.233151,2.37664,-0.0630644,
-0.0372963,-0.151104,0.00195601,-1.84846,0.0245693,0.132884,-0.054111,-0.00183143,0.00895701,-0.00166599,-0.00910093,0.31705,-0.162444,1.3141e-05,-0.300044,3.2977,-0.0777587,-0.962626,91.092,-67.5396,0.0495912,3.63075,1.52218,3.81823,-1.80208,11.0013,-7.42377,-0.000767889,-0.0366948,-0.153221,0.00242056,-1.84791,-0.00358468,0.150463,-0.0540514,-0.000715455,0.0879185,-0.00177787,-0.0862679,0.00362504,0.139549,0.000748416,0,0,0,0,0,0,0,0.0551182,-16.975,-0.110155,13.4265,0.233151,2.37664,-0.0630644,
-0.037271,-0.150902,0.0019905,-1.8486,0.0319689,0.127936,-0.0541096,-0.000833858,0.0122113,-0.00047066,-0.0106744,0.438629,-0.25366,4.34796e-05,0.623485,2.03395,0.747083,-0.983387,75.9869,-57.0095,0.0189616,3.51819,1.60922,3.69754,-1.81318,10.9874,-7.2855,-0.0016221,-0.0367436,-0.15082,0.00245113,-1.85432,-0.0012309,0.154736,-0.0540562,-0.01163,0.023222,-0.00726515,-0.126993,0.253301,-0.115062,-0.000911145,-1.36431,-8.08706,-0.68591,-5.09067,31.2095,-31.8264,-0.207445,0.892215,-28.9562,0.286573,33.8263,2.27935,3.65014,-0.0227812,
-0.0371974,-0.150725,0.00207232,-1.84874,0.0394381,0.122895,-0.0541082,0.00117367,0.0141964,0.001669,-0.0121587,0.537633,-0.328947,6.96477e-05,1.25471,1.24065,1.33729,-0.927722,61.8772,-47.0544,0.016355,3.42785,1.58174,3.59077,-1.7807,10.9874,-7.16476,-0.001922,-0.0367436,-0.15082,0.00245113,-1.85432,-0.0012309,0.154736,-0.0540562,-0.01163,0.023222,-0.00726515,-0.126993,0.253301,-0.115062,-0.000911145,0,0,0,0,0,0,0,0.892215,-28.9562,0.286573,33.8263,2.27935,3.65014,-0.0227812,
-0.0370832,-0.150564,0.00219522,-1.84889,0.046892,0.117829,-0.054107,0.00379309,0.0153773,0.00440771,-0.013497,0.616454,-0.389794,8.61431e-05,1.63714,0.738111,1.71169,-0.83642,49.2633,-38.0295,0.0103096,3.36374,1.55582,3.48849,-1.74418,10.8105,-7.05056,0.000481916,-0.0367436,-0.15082,0.00245113,-1.85432,-0.0012309,0.154736,-0.0540562,-0.01163,0.023222,-0.00726515,-0.126993,0.253301,-0.115062,-0.000911145,0,0,0,0,0,0,0,0.892215,-28.9562,0.286573,33.8263,2.27935,3.65014,-0.0227812,
-0.0334971,-0.151341,0.0060872,-1.8577,0.0264346,0.120433,-0.0534267,0.024724,0.00430728,0.0277108,-0.0341177,0.672053,-0.507183,0.00123543,13.0818,-6.91878,14.5644,-12.8879,34.7493,-73.3684,0.718301,23.1583,0.0996248,25.041,-9.79615,10.9874,-14.2314,0.202575,-0.0367436,-0.15082,0.00245113,-1.85432,-0.0012309,0.154736,-0.0540562,-0.01163,0.023222,-0.00726515,-0.126993,0.253301,-0.115062,-0.000911145,0,0,0,0,0,0,0,0.892215,-28.9562,0.286573,33.8263,2.27935,3.65014,-0.0227812,
-0.032592,-0.15165,0.00709621,-1.85867,0.0340236,0.112825,-0.0533966,0.0424074,-0.00427649,0.0473938,-0.0514452,0.727366,-0.595947,0.00174261,11.0521,-5.36486,12.3019,-10.8297,34.5707,-55.4772,0.316991,21.247,-2.62931,22.6813,-11.2907,10.8369,-13.866,0.228662,-0.0370943,-0.148196,0.00222819,-1.85509,0.0162855,0.144863,-0.0540562,-0.0249494,0.133796,-0.0215091,0.0128672,1.10772,-0.571188,0.00310882,-1.66493,13.8218,-1.78049,17.4826,106.802,-57.0157,0.502496,6.04175,-35.4704,5.18617,23.7375,4.32556,-1.24336,-0.0630644,
-0.0316621,-0.151931,0.00813117,-1.85965,0.0419212,0.105572,-0.0533738,0.0571728,-0.0104499,0.0637891,-0.0656987,0.779335,-0.65809,0.00196385,9.2284,-3.85837,10.247,-8.90845,32.4802,-38.8397,0.138277,18.7179,-4.48159,20.0348,-12.3126,10.8369,-12.4979,0.165627,-0.0370943,-0.148196,0.00222819,-1.85509,0.0162855,0.144863,-0.0540562,-0.0249494,0.133796,-0.0215091,0.0128672,1.10772,-0.571188,0.00310882,0,0,0,0,0,0,0,6.04175,-35.4704,5.18617,23.7375,4.32556,-1.24336,-0.0630644,
-0.0330826,-0.146652,0.00646634,-1.86034,0.0548568,0.111812,-0.053826,0.07299,-0.00245763,0.0803871,-0.0845443,0.81979,-0.6939,0.00211365,9.88571,4.99516,10.3738,-11.7785,25.2849,-22.3808,0.0936202,21.4869,3.12574,22.9233,-17.6001,10.8369,-13.0804,0.0614421,-0.0370943,-0.148196,0.00222819,-1.85509,0.0162855,0.144863,-0.0540562,-0.0249494,0.133796,-0.0215091,0.0128672,1.10772,-0.571188,0.00310882,0,0,0,0,0,0,0,6.04175,-35.4704,5.18617,23.7375,4.32556,-1.24336,-0.0630644,
-0.0319405,-0.146399,0.00769872,-1.86166,0.0628684,0.105508,-0.0538071,0.0869462,0.00435127,0.0951194,-0.100634,0.856123,-0.712706,0.00216419,8.72265,4.25556,9.20767,-10.0564,22.7077,-11.7541,0.0315918,20.0412,3.42649,21.4272,-17.1695,10.8369,-11.6766,0.037081,-0.0370943,-0.148196,0.00222819,-1.85509,0.0162855,0.144863,-0.0540562,-0.0249494,0.133796,-0.0215091,0.0128672,1.10772,-0.571188,0.00310882,0,0,0,0,0,0,0,6.04175,-35.4704,5.18617,23.7375,4.32556,-1.24336,-0.0630644,
-0.0307676,-0.146128,0.00896522,-1.86301,0.0710162,0.0996778,-0.0537884,0.0988791,0.0102695,0.107758,-0.114078,0.888593,-0.715927,0.00219835,7.45804,3.69891,7.89908,-8.40191,20.2937,-2.01286,0.0213456,18.9104,3.9003,20.2808,-16.8533,10.7155,-10.1274,0.0277866,-0.0365311,-0.146765,0.0037919,-1.85675,0.0526237,0.112294,-0.0540337,0.0875631,-0.0626716,0.156929,-0.13898,1.17075,-1.27191,0.00653372,14.0641,-24.5585,22.3047,-18.9809,7.87934,-87.5904,0.428112,20.447,-30.8763,20.9601,13.4265,4.14795,-4.18769,-0.0630644,
-0.0295792,-0.145839,0.010249,-1.86436,0.0792728,0.0943569,-0.0537693,0.108812,0.015444,0.118302,-0.125054,0.917288,-0.705766,0.00223443,6.20834,3.23407,6.5898,-6.86057,17.9348,6.35065,0.0225532,18.0116,3.92902,19.3472,-16.5557,10.7155,-8.97919,0.0215631,-0.0365311,-0.146765,0.0037919,-1.85675,0.0526237,0.112294,-0.0540337,0.0875631,-0.0626716,0.156929,-0.13898,1.17075,-1.27191,0.00653372,0,0,0,0,0,0,0,20.447,-30.8763,20.9601,13.4265,4.14795,-4.18769,-0.0630644,
-0.0293873,-0.148027,0.0113734,-1.86594,0.0949603,0.0733992,-0.0539812,0.125408,0.0104775,0.13561,-0.149772,0.944338,-0.720056,0.00176188,10.372,-3.10411,10.8176,-15.4485,16.906,-8.93151,-0.295344,23.1739,2.17058,24.762,-25.3005,10.7155,-11.2003,0.00870881,-0.0365311,-0.146765,0.0037919,-1.85675,0.0526237,0.112294,-0.0540337,0.0875631,-0.0626716,0.156929,-0.13898,1.17075,-1.27191,0.00653372,0,0,0,0,0,0,0,20.447,-30.8763,20.9601,13.4265,4.14795,-4.18769,-0.0630644,
-0.0278517,-0.148051,0.0130157,-1.86794,0.103418,0.0679393,-0.0539813,0.138716,0.00778518,0.149546,-0.169907,0.966902,-0.712543,0.00140668,8.31771,-1.68268,8.71026,-12.5842,14.1026,4.6955,-0.221997,21.9972,1.88225,23.4912,-24.9379,10.7155,-9.67582,-0.00247929,-0.0365311,-0.146765,0.0037919,-1.85675,0.0526237,0.112294,-0.0540337,0.0875631,-0.0626716,0.156929,-0.13898,1.17075,-1.27191,0.00653372,0,0,0,0,0,0,0,20.447,-30.8763,20.9601,13.4265,4.14795,-4.18769,-0.0630644,
-0.0263257,-0.148038,0.0146493,-1.86994,0.111904,0.0631989,-0.0539781,0.149122,0.00654709,0.160476,-0.185972,0.985677,-0.688545,0.00120566,6.50393,-0.773803,6.8313,-10.0408,11.7345,14.999,-0.125642,21.0269,1.58824,22.4516,-24.6106,10.7155,-8.31238,-0.00559608,-0.0365311,-0.146765,0.0037919,-1.85675,0.0526237,0.112294,-0.0540337,0.0875631,-0.0626716,0.156929,-0.13898,1.17075,-1.27191,0.00653372,0,0,0,0,0,0,0,20.447,-30.8763,20.9601,13.4265,4.14795,-4.18769,-0.0630644,
-0.0248166,-0.148,0.0162659,-1.87193,0.120408,0.0591312,-0.0539715,0.157024,0.00618437,0.168796,-0.198481,1.00115,-0.652528,0.00112982,4.93856,-0.2267,5.20004,-7.81815,9.66802,22.5102,-0.0473988,20.3219,1.32365,21.7366,-24.1444,10.6163,-6.79265,-0.0089155,-0.0319698,-0.14632,0.00843942,-1.8654,0.0919156,0.0709536,-0.0540227,0.205699,0.0168774,0.13399,-0.318892,1.22244,-1.15176,0.000825698,14.767,9.94362,-2.86732,-22.489,6.46068,15.0183,-0.713503,14.1826,-23.1917,14.1602,26.9788,4.18457,0.96398,-0.0630644,
-0.0240396,-0.144997,0.0169188,-1.87889,0.135498,0.0453044,-0.0541074,0.166156,0.0126346,0.178673,-0.225151,1.01337,-0.598207,0.00053864,5.70732,4.03136,6.17293,-16.669,7.64158,33.9507,-0.369487,22.297,4.45815,24.0371,-31.1435,10.6163,-5.28617,-0.0382729,-0.0319698,-0.14632,0.00843942,-1.8654,0.0919156,0.0709536,-0.0540227,0.205699,0.0168774,0.13399,-0.318892,1.22244,-1.15176,0.000825698,0,0,0,0,0,0,0,14.1826,-23.1917,14.1602,26.9788,4.18457,0.96398,-0.0630644,
-0.0224354,-0.144689,0.0186471,-1.8815,0.143974,0.0430424,-0.0541166,0.173029,0.0178067,0.186145,-0.245307,1.02262,-0.535116,0.000200957,4.29604,3.23261,4.6699,-12.5974,5.77866,39.432,-0.211052,21.3764,3.79857,23.0317,-30.8776,10.6163,-4.05517,-0.0388594,-0.0319698,-0.14632,0.00843942,-1.8654,0.0919156,0.0709536,-0.0540227,0.205699,0.0168774,0.13399,-0.318892,1.22244,-1.15176,0.000825698,0,0,0,0,0,0,0,14.1826,-23.1917,14.1602,26.9788,4.18457,0.96398,-0.0630644,
-0.0208551,-0.144385,0.0203504,-1.88405,0.152436,0.0414658,-0.0541187,0.17793,0.0218474,0.1915,-0.260131,1.02963,-0.467508,0.000109918,3.0629,2.52544,3.34692,-9.26515,4.37956,42.2551,-0.0568993,20.6013,3.33039,22.1865,-30.5733,10.6163,-2.98835,-0.0329418,-0.0319698,-0.14632,0.00843942,-1.8654,0.0919156,0.0709536,-0.0540227,0.205699,0.0168774,0.13399,-0.318892,1.22244,-1.15176,0.000825698,0,0,0,0,0,0,0,14.1826,-23.1917,14.1602,26.9788,4.18457,0.96398,-0.0630644,
-0.0124737,-0.146458,0.0287156,-1.89667,0.183116,0.022062,-0.0541883,0.18875,0.0233537,0.202836,-0.289794,1.04959,-0.363692,-0.000285462,6.76241,0.941421,7.08511,-18.5391,12.4752,64.8853,-0.247113,20.9449,-0.124051,22.4417,-37.688,10.5787,1.63882,-0.0566624,-0.0227289,-0.148058,0.0177891,-1.87916,0.135149,0.0316951,-0.0540196,0.352143,0.0909234,0.265419,-0.401416,1.34462,-1.01309,0.00101844,18.3054,9.25576,16.4286,-10.3155,15.2732,17.3344,0.0240932,5.1015,-24.3144,5.813,26.4313,4.05639,2.58904,-0.0905302,
-0.0106973,-0.146258,0.030617,-1.89983,0.191985,0.0231618,-0.0541935,0.19541,0.023681,0.209802,-0.31073,1.06139,-0.26346,-0.000358391,4.16258,0.204567,4.35378,-13.0849,7.37519,62.6448,-0.0455806,20.2854,-0.239306,21.7107,-37.2254,10.5787,2.31758,-0.0473592,-0.0227289,-0.148058,0.0177891,-1.87916,0.135149,0.0316951,-0.0540196,0.352143,0.0909234,0.265419,-0.401416,1.34462,-1.01309,0.00101844,0,0,0,0,0,0,0,5.1015,-24.3144,5.813,26.4313,4.05639,2.58904,-0.0905302,
-0.00899255,-0.14609,0.0324426,-1.90288,0.200718,0.0248039,-0.0541882,0.198948,0.023147,0.213483,-0.324966,1.06745,-0.169716,-0.000154847,2.21118,-0.333761,2.30039,-8.89756,3.7888,58.5903,0.127215,19.7097,-0.261692,21.0759,-36.7381,10.5787,2.8645,-0.034384,-0.0227289,-0.148058,0.0177891,-1.87916,0.135149,0.0316951,-0.0540196,0.352143,0.0909234,0.265419,-0.401416,1.34462,-1.01309,0.00101844,0,0,0,0,0,0,0,5.1015,-24.3144,5.813,26.4313,4.05639,2.58904,-0.0905302,
-0.00735204,-0.14595,0.0342001,-1.90585,0.209341,0.0268748,-0.0541721,0.200171,0.0220153,0.214725,-0.3341,1.06952,-0.083999,0.000278057,0.764496,-0.707303,0.776154,-5.70903,1.29416,53.5729,0.270565,19.1894,-0.230254,20.5044,-36.2361,10.5787,3.3046,-0.022405,-0.0227289,-0.148058,0.0177891,-1.87916,0.135149,0.0316951,-0.0540196,0.352143,0.0909234,0.265419,-0.401416,1.34462,-1.01309,0.00101844,0,0,0,0,0,0,0,5.1015,-24.3144,5.813,26.4313,4.05639,2.58904,-0.0905302,
0.00152903,-0.145868,0.0437387,-1.92069,0.234438,0.0179889,-0.0541908,0.208688,0.0276756,0.223833,-0.358379,1.08868,0.0309563,0.000242136,5.32345,3.5377,5.693,-15.1738,11.9774,71.847,-0.022451,18.4679,-0.771706,19.8842,-42.1945,10.4643,8.31174,-0.0671359,-0.0100101,-0.148536,0.0313995,-1.90014,0.183554,0.00820793,-0.0540252,0.435123,0.0694734,0.361886,-0.674765,1.50173,-0.365891,0.000145546,10.3726,-2.68126,12.0584,-34.1686,19.6381,80.8998,-0.109112,1.4516,-24.1399,2.31386,24.5627,2.85339,5.47936,-0.083206,
0.00334741,-0.14552,0.0456894,-1.92418,0.243493,0.0223741,-0.0541748,0.21241,0.0308435,0.227835,-0.373993,1.09731,0.134395,0.000593768,2.32607,1.97991,2.50077,-9.75871,5.3924,64.6489,0.21977,18.2342,-0.321623,19.5998,-41.5507,10.4643,8.32649,-0.0455228,-0.0100101,-0.148536,0.0313995,-1.90014,0.183554,0.00820793,-0.0540252,0.435123,0.0694734,0.361886,-0.674765,1.50173,-0.365891,0.000145546,0,0,0,0,0,0,0,1.4516,-24.1399,2.31386,24.5627,2.85339,5.47936,-0.083206,
0.00506111,-0.145217,0.0475288,-1.92755,0.252334,0.0270666,-0.0541455,0.212771,0.0322498,0.228252,-0.383288,1.09887,0.224828,0.00120776,0.225289,0.878961,0.260882,-5.80988,0.973642,56.5211,0.383742,17.9874,0.098581,19.3082,-40.9093,10.4643,8.26917,-0.02453,-0.0100101,-0.148536,0.0313995,-1.90014,0.183554,0.00820793,-0.0540252,0.435123,0.0694734,0.361886,-0.674765,1.50173,-0.365891,0.000145546,0,0,0,0,0,0,0,1.4516,-24.1399,2.31386,24.5627,2.85339,5.47936,-0.083206,
0.00668526,-0.14495,0.0492725,-1.9308,0.261004,0.0319542,-0.0541048,0.21082,0.0324694,0.226193,-0.388006,1.09585,0.302054,0.00198531,-1.21904,0.137241,-1.2868,-2.94879,-1.8858,48.2662,0.48597,17.7289,0.473997,19.0091,-40.2753,10.4643,8.17069,-0.00472333,-0.0100101,-0.148536,0.0313995,-1.90014,0.183554,0.00820793,-0.0540252,0.435123,0.0694734,0.361886,-0.674765,1.50173,-0.365891,0.000145546,0,0,0,0,0,0,0,1.4516,-24.1399,2.31386,24.5627,2.85339,5.47936,-0.083206,
0.00109852,-0.146627,0.0432203,-1.92267,0.234945,0.0258436,-0.0540372,0.214677,0.0327267,0.229922,-0.410944,1.1092,0.390676,0.00262028,2.41026,0.160802,2.33034,-14.3361,8.34111,55.3887,0.396858,15.9431,-3.19745,17.1712,-46.2633,10.3366,11.5205,-0.0457714,0.00483807,-0.148076,0.0472102,-1.9298,0.23665,0.00808677,-0.0540316,0.60882,-0.00696948,0.357531,-0.914506,1.62675,0.25336,-0.00158076,21.7121,-9.55536,-0.544431,-29.9676,15.6278,77.4064,-0.215789,-1.53973,-29.7536,-1.38762,31.5094,1.87652,7.59514,-0.0301054,
0.00282335,-0.146406,0.0450526,-1.92652,0.243756,0.0324274,-0.0539771,0.214862,0.0317054,0.229744,-0.4251,1.10765,0.477136,0.00359792,0.115843,-0.638336,-0.111056,-8.84754,-0.967811,54.0375,0.611024,16.0561,-2.4655,17.2516,-45.4758,10.3366,11.5205,-0.0135819,0.00483807,-0.148076,0.0472102,-1.9298,0.23665,0.00808677,-0.0540316,0.60882,-0.00696948,0.357531,-0.914506,1.62675,0.25336,-0.00158076,0,0,0,0,0,0,0,-1.53973,-29.7536,-1.38762,31.5094,1.87652,7.59514,-0.0301054,
0.00445264,-0.146229,0.0467825,-1.93023,0.25202,0.0394711,-0.0539024,0.212622,0.0298086,0.227042,-0.43286,1.09272,0.557802,0.00474577,-1.40008,-1.18545,-1.68847,-4.84959,-9.32931,50.416,0.717409,16.0375,-1.8626,17.1975,-44.7273,10.3366,11.5205,0.012717,0.00483807,-0.148076,0.0472102,-1.9298,0.23665,0.00808677,-0.0540316,0.60882,-0.00696948,0.357531,-0.914506,1.62675,0.25336,-0.00158076,0,0,0,0,0,0,0,-1.53973,-29.7536,-1.38762,31.5094,1.87652,7.59514,-0.0301054,
0.0173877,-0.145457,0.0605353,-1.9515,0.286203,0.0303661,-0.0537892,0.219323,0.0328893,0.234094,-0.439364,1.07243,0.598666,0.00533492,4.18818,1.92544,4.40707,-4.06534,-12.6836,25.5399,0.368215,15.755,-0.941445,16.8449,-43.3072,9.98612,11.5205,0.0570101,0.00483807,-0.148076,0.0472102,-1.9298,0.23665,0.00808677,-0.0540316,0.60882,-0.00696948,0.357531,-0.914506,1.62675,0.25336,-0.00158076,0,0,0,0,0,0,0,-1.53973,-29.7536,-1.38762,31.5094,1.87652,7.59514,-0.0301054,
0.0191981,-0.145171,0.0624658,-1.95503,0.292891,0.0367391,-0.053729,0.220718,0.0334436,0.235537,-0.43963,1.02513,0.638257,0.00577391,0.872128,0.346414,0.90224,-0.16619,-29.5608,24.7446,0.274371,15.5665,-0.936198,16.7365,-42.4564,9.28487,11.5274,0.0754403,0.0190083,-0.147442,0.0655823,-1.96256,0.288805,0.0312257,-0.0540326,0.654919,-0.0850682,0.29318,-1.04351,1.48976,0.95158,-0.00142712,5.76238,-9.76234,-8.04377,-16.1259,-17.1233,87.2775,0.0192057,-4.81274,-28.9046,-5.91033,25.0586,0.941769,5.48668,-0.0163725,
0.0208797,-0.14495,0.0642598,-1.95839,0.298349,0.0432254,-0.0536713,0.218614,0.0322952,0.233282,-0.435771,0.956553,0.672762,0.00605984,-1.31525,-0.717751,-1.40982,2.41201,-42.861,21.5657,0.178706,15.1284,-0.644989,16.283,-41.8294,8.57273,11.5274,0.0913848,0.0190083,-0.147442,0.0655823,-1.96256,0.288805,0.0312257,-0.0540326,0.654919,-0.0850682,0.29318,-1.04351,1.48976,0.95158,-0.00142712,0,0,0,0,0,0,0,-4.81274,-28.9046,-5.91033,25.0586,0.941769,5.48668,-0.0163725,
0.0224556,-0.14478,0.065942,-1.96162,0.302641,0.0497166,-0.0536127,0.21429,0.0300913,0.228679,-0.42935,0.872562,0.70049,0.00631308,-2.70255,-1.37742,-2.87668,4.01285,-52.4944,17.3302,0.158276,14.5448,-0.367929,15.6794,-41.2313,8.02507,11.4795,0.091152,0.0190083,-0.147442,0.0655823,-1.96256,0.288805,0.0312257,-0.0540326,0.654919,-0.0850682,0.29318,-1.04351,1.48976,0.95158,-0.00142712,0,0,0,0,0,0,0,-4.81274,-28.9046,-5.91033,25.0586,0.941769,5.48668,-0.0163725,
0.0310995,-0.145059,0.0784495,-1.98228,0.322516,0.0575883,-0.0537912,0.218331,0.0320357,0.233075,-0.426193,0.797418,0.699588,0.00632593,2.52545,1.2152,2.74767,1.97351,-46.9652,-0.564056,0.0080271,13.9582,-0.0416521,15.1723,-40.6003,6.31711,10.9193,0.0835484,0.0190083,-0.147442,0.0655823,-1.96256,0.288805,0.0312257,-0.0540326,0.654919,-0.0850682,0.29318,-1.04351,1.48976,0.95158,-0.00142712,0,0,0,0,0,0,0,-4.81274,-28.9046,-5.91033,25.0586,0.941769,5.48668,-0.0163725,
0.0328132,-0.144819,0.080282,-1.98546,0.325393,0.0632204,-0.053735,0.217507,0.0316376,0.232272,-0.420365,0.709848,0.700473,0.00646518,-0.514679,-0.248798,-0.502222,3.64254,-54.7309,0.552986,0.087036,13.5242,0.181583,14.8743,-39.9242,4.51005,10.3111,0.0779241,0.0341289,-0.146596,0.0851336,-1.99801,0.340107,0.0762883,-0.0540286,0.428233,-0.0568461,0.533736,-0.971757,1.33253,1.40138,0.000567637,-28.3358,3.52776,30.0695,8.96943,-19.6538,56.2252,0.249344,-4.70959,-28.5793,-6.3864,21.7459,0.0985682,2.48925,0.00376909,
0.0343968,-0.144639,0.0819761,-1.98853,0.327331,0.0688605,-0.0536754,0.213594,0.0298115,0.228169,-0.413068,0.616331,0.701382,0.00666155,-2.44557,-1.14128,-2.56386,4.56044,-58.4485,0.568149,0.122728,13.2549,0.484154,14.6007,-39.2394,3.15901,9.81605,0.0711013,0.0341289,-0.146596,0.0851336,-1.99801,0.340107,0.0762883,-0.0540286,0.428233,-0.0568461,0.533736,-0.971757,1.33253,1.40138,0.000567637,0,0,0,0,0,0,0,-4.70959,-28.5793,-6.3864,21.7459,0.0985682,2.48925,0.00376909,
0.0462106,-0.144211,0.0980597,-2.01548,0.360256,0.104983,-0.0537752,0.216675,0.0302036,0.23152,-0.405608,0.530811,0.689415,0.00680552,1.92534,0.245034,2.0941,4.6624,-53.4498,-7.47912,0.0899812,13.0783,0.86698,14.3789,-37.882,1.05563,8.97237,0.0679048,0.0341289,-0.146596,0.0851336,-1.99801,0.340107,0.0762883,-0.0540286,0.428233,-0.0568461,0.533736,-0.971757,1.33253,1.40138,0.000567637,0,0,0,0,0,0,0,-4.70959,-28.5793,-6.3864,21.7459,0.0985682,2.48925,0.00376909,
0.0478716,-0.144035,0.0998377,-2.0184,0.36099,0.11004,-0.0537102,0.214864,0.0285654,0.229664,-0.397547,0.443006,0.677973,0.00706923,-1.13148,-1.02386,-1.15992,5.03844,-54.8782,-7.15142,0.164821,13.0975,0.944242,14.3684,-37.2239,0.259506,8.61557,0.0701605,0.0341289,-0.146596,0.0851336,-1.99801,0.340107,0.0762883,-0.0540286,0.428233,-0.0568461,0.533736,-0.971757,1.33253,1.40138,0.000567637,0,0,0,0,0,0,0,-4.70959,-28.5793,-6.3864,21.7459,0.0985682,2.48925,0.00376909,
0.0493976,-0.143914,0.101473,-2.02125,0.361122,0.115031,-0.0536415,0.210041,0.0258663,0.224606,-0.389354,0.357702,0.667153,0.00737227,-3.01438,-1.68697,-3.1612,5.12018,-53.3147,-6.76231,0.189401,12.8391,1.00915,14.1218,-36.6264,-0.479207,8.1868,0.0777482,0.0514554,-0.144316,0.100631,-2.02981,0.37335,0.124866,-0.0539999,0.212384,0.077855,0.750616,-0.875924,0.692005,1.45974,-0.000378815,-26.9811,16.8376,27.11,11.9792,-80.0657,7.29448,-0.118307,-6.45916,-30.4518,-6.71172,24.8087,-0.224613,0.566641,0.0440523,
0.0508164,-0.143833,0.102994,-2.02405,0.360791,0.119953,-0.0535691,0.203503,0.0227208,0.217726,-0.381273,0.277887,0.656778,0.0077073,-4.08639,-1.96588,-4.30016,5.05083,-49.8847,-6.48429,0.209392,12.9029,0.975067,14.1518,-35.9998,-0.97516,7.89529,0.0812312,0.0514554,-0.144316,0.100631,-2.02981,0.37335,0.124866,-0.0539999,0.212384,0.077855,0.750616,-0.875924,0.692005,1.45974,-0.000378815,0,0,0,0,0,0,0,-6.45916,-30.4518,-6.71172,24.8087,-0.224613,0.566641,0.0440523,
0.0629461,-0.140371,0.113078,-2.04678,0.379507,0.151732,-0.0537059,0.205537,0.0279758,0.220065,-0.37846,0.219386,0.63604,0.00784176,1.27122,3.28433,1.46167,1.75806,-36.5631,-12.9613,0.0840355,12.963,0.905686,14.1744,-35.3878,-1.32142,7.6305,0.0830105,0.0514554,-0.144316,0.100631,-2.02981,0.37335,0.124866,-0.0539999,0.212384,0.077855,0.750616,-0.875924,0.692005,1.45974,-0.000378815,0,0,0,0,0,0,0,-6.45916,-30.4518,-6.71172,24.8087,-0.224613,0.566641,0.0440523,
0.0644935,-0.140092,0.114739,-2.04963,0.37902,0.15606,-0.0536345,0.203114,0.0293632,0.217593,-0.373882,0.163329,0.617029,0.00805846,-1.5146,0.867163,-1.54467,2.86113,-35.0355,-11.8821,0.135439,13.0133,0.812205,14.1905,-34.7858,-1.58814,7.38633,0.0863069,0.0514554,-0.144316,0.100631,-2.02981,0.37335,0.124866,-0.0539999,0.212384,0.077855,0.750616,-0.875924,0.692005,1.45974,-0.000378815,0,0,0,0,0,0,0,-6.45916,-30.4518,-6.71172,24.8087,-0.224613,0.566641,0.0440523,
0.0659154,-0.139893,0.116267,-2.05239,0.378269,0.160327,-0.0535608,0.198039,0.0284634,0.212267,-0.368217,0.111887,0.600316,0.00829118,-3.17151,-0.562412,-3.32871,3.54103,-32.1512,-10.4457,0.145453,13.0442,0.704992,14.1856,-34.1937,-1.74472,7.16279,0.0878925,0.0514554,-0.144316,0.100631,-2.02981,0.37335,0.124866,-0.0539999,0.212384,0.077855,0.750616,-0.875924,0.692005,1.45974,-0.000378815,0,0,0,0,0,0,0,-6.45916,-30.4518,-6.71172,24.8087,-0.224613,0.566641,0.0440523,
0.067239,-0.139752,0.11769,-2.05509,0.377337,0.164549,-0.0534851,0.191521,0.0263003,0.205388,-0.361895,0.0662312,0.585782,0.00852512,-4.07404,-1.3519,-4.29975,3.95088,-28.5349,-9.08346,0.146212,12.7996,0.680465,13.9371,-33.8415,-1.91346,6.7975,0.09554,0.0682301,-0.141507,0.114416,-2.05831,0.386439,0.170446,-0.0539289,0.425193,0.13381,0.500627,-0.785124,0.145544,1.28487,0.00283494,26.6011,6.99441,-31.2487,11.35,-68.3076,-21.8579,0.401719,-5.09045,-31.4,-5.41045,23.6661,0.166317,0.334097,0.0641939,
0.0787877,-0.137213,0.125845,-2.07474,0.384666,0.193143,-0.0536254,0.192318,0.0318122,0.206413,-0.360592,0.0343173,0.561344,0.00855837,0.498426,3.44492,0.640786,0.814705,-19.9462,-15.274,0.0207768,12.7858,0.566627,13.8907,-33.2615,-1.94059,6.60529,0.0965,0.0682301,-0.141507,0.114416,-2.05831,0.386439,0.170446,-0.0539289,0.425193,0.13381,0.500627,-0.785124,0.145544,1.28487,0.00283494,0,0,0,0,0,0,0,-5.09045,-31.4,-5.41045,23.6661,0.166317,0.334097,0.0641939,
0.0802084,-0.1369,0.127374,-2.07748,0.383818,0.196801,-0.0535531,0.189371,0.0332675,0.203362,-0.35692,0.00624755,0.540541,0.00865406,-1.84177,0.909538,-1.90677,2.29454,-17.5436,-13.0019,0.0598059,12.7494,0.45635,13.8248,-32.6849,-1.93547,6.424,0.0979543,0.0682301,-0.141507,0.114416,-2.05831,0.386439,0.170446,-0.0539289,0.425193,0.13381,0.500627,-0.785124,0.145544,1.28487,0.00283494,0,0,0,0,0,0,0,-5.09045,-31.4,-5.41045,23.6661,0.166317,0.334097,0.0641939,
0.0815189,-0.136673,0.128785,-2.08012,0.382911,0.200443,-0.0534796,0.18426,0.0322912,0.197962,-0.351696,-0.0176733,0.523477,0.00876,-3.19484,-0.610146,-3.37531,3.26499,-14.9505,-10.665,0.066214,12.6888,0.353165,13.7353,-32.1115,-1.88138,6.25622,0.0981769,0.0682301,-0.141507,0.114416,-2.05831,0.386439,0.170446,-0.0539289,0.425193,0.13381,0.500627,-0.785124,0.145544,1.28487,0.00283494,0,0,0,0,0,0,0,-5.09045,-31.4,-5.41045,23.6661,0.166317,0.334097,0.0641939,
0.0895625,-0.135961,0.139579,-2.09986,0.384719,0.230747,-0.0535257,0.181672,0.0342313,0.195351,-0.347458,-0.0330911,0.500337,0.00873253,-1.61741,1.21256,-1.63173,2.64912,-9.63611,-14.4623,-0.0171685,12.5225,-0.034362,13.5587,-31.1406,-1.67062,5.79137,0.0998912,0.0805867,-0.139172,0.129927,-2.08444,0.388429,0.211349,-0.0538513,0.628554,0.057702,0.141683,-0.783811,-0.0141046,1.15476,0.00140644,25.4202,-9.51354,-44.8679,0.164123,-19.9561,-16.264,-0.178562,-4.30493,-30.5788,-5.78734,21.5714,0.703732,0.09606,0.017502,
0.0908227,-0.135718,0.140939,-2.1024,0.383974,0.233996,-0.0534556,0.176843,0.0334627,0.19028,-0.341559,-0.0450862,0.481491,0.00873771,-3.01829,-0.480381,-3.16926,3.68651,-7.49694,-11.7786,0.00323699,12.4025,-0.110077,13.4155,-30.571,-1.56613,5.64966,0.0995541,0.0805867,-0.139172,0.129927,-2.08444,0.388429,0.211349,-0.0538513,0.628554,0.057702,0.141683,-0.783811,-0.0141046,1.15476,0.00140644,0,0,0,0,0,0,0,-4.30493,-30.5788,-5.78734,21.5714,0.703732,0.09606,0.017502,
0.0919973,-0.135543,0.142207,-2.10486,0.383255,0.23725,-0.0533855,0.17084,0.031145,0.183922,-0.334638,-0.0540601,0.466548,0.00874269,-3.75176,-1.44857,-3.97356,4.32581,-5.60872,-9.33926,0.00311694,12.2659,-0.175878,13.2564,-30.0022,-1.44748,5.5172,0.0985055,0.0805867,-0.139172,0.129927,-2.08444,0.388429,0.211349,-0.0538513,0.628554,0.057702,0.141683,-0.783811,-0.0141046,1.15476,0.00140644,0,0,0,0,0,0,0,-4.30493,-30.5788,-5.78734,21.5714,0.703732,0.09606,0.017502,
0.0931042,-0.135419,0.143402,-2.10724,0.38257,0.240512,-0.0533159,0.164342,0.0280295,0.17702,-0.327119,-0.0603626,0.454777,0.00873445,-4.06081,-1.94717,-4.31398,4.69972,-3.93903,-7.3571,-0.00515522,12.1157,-0.232864,13.0854,-29.4336,-1.33074,5.38996,0.09751,0.0805867,-0.139172,0.129927,-2.08444,0.388429,0.211349,-0.0538513,0.628554,0.057702,0.141683,-0.783811,-0.0141046,1.15476,0.00140644,0,0,0,0,0,0,0,-4.30493,-30.5788,-5.78734,21.5714,0.703732,0.09606,0.017502,
0.097326,-0.135698,0.155331,-2.12493,0.38296,0.26096,-0.0534235,0.163053,0.0290618,0.175795,-0.323379,-0.0618432,0.43205,0.00858289,-0.806045,0.645155,-0.765677,2.33699,-0.925372,-14.2047,-0.0947208,12.1029,-0.505874,13.1109,-28.8841,-1.12126,5.17633,0.096462,0.0891873,-0.138046,0.146494,-2.11033,0.386806,0.245781,-0.0537509,0.320446,-0.0117765,0.349216,-0.774668,-0.0551408,0.931209,0.00640777,-38.5136,-8.68482,25.9415,1.14284,-5.12952,-27.9442,0.625166,-4.43188,-27.5081,-6.56096,24.039,1.19812,1.22948,0.0303194,
0.0984913,-0.135506,0.156593,-2.12729,0.382478,0.263743,-0.0533593,0.159574,0.0280418,0.172171,-0.317837,-0.0615399,0.415209,0.00847177,-2.17421,-0.637493,-2.26472,3.46392,0.189552,-10.5254,-0.0694496,11.9305,-0.546749,12.9198,-28.3161,-1.00622,5.0609,0.0949493,0.0891873,-0.138046,0.146494,-2.11033,0.386806,0.245781,-0.0537509,0.320446,-0.0117765,0.349216,-0.774668,-0.0551408,0.931209,0.00640777,0,0,0,0,0,0,0,-4.43188,-27.5081,-6.56096,24.039,1.19812,1.22948,0.0303194,
0.09958,-0.13537,0.157772,-2.12957,0.382045,0.266578,-0.0532955,0.154877,0.0258315,0.167216,-0.311164,-0.0600647,0.403037,0.00837199,-2.93539,-1.38144,-3.09708,4.17066,0.921991,-7.60764,-0.0623661,11.7493,-0.580523,12.7206,-27.7483,-0.892711,4.95173,0.0930742,0.0891873,-0.138046,0.146494,-2.11033,0.386806,0.245781,-0.0537509,0.320446,-0.0117765,0.349216,-0.774668,-0.0551408,0.931209,0.00640777,0,0,0,0,0,0,0,-4.43188,-27.5081,-6.56096,24.039,1.19812,1.22948,0.0303194,
0.100608,-0.135277,0.158886,-2.13176,0.381656,0.269454,-0.0532327,0.149589,0.0230027,0.161613,-0.303813,-0.05777,0.39432,0.00826876,-3.3053,-1.76801,-3.50196,4.59417,1.43419,-5.44798,-0.0645172,11.5615,-0.608572,12.5157,-27.1809,-0.787567,4.84594,0.0911675,0.0891873,-0.138046,0.146494,-2.11033,0.386806,0.245781,-0.0537509,0.320446,-0.0117765,0.349216,-0.774668,-0.0551408,0.931209,0.00640777,0,0,0,0,0,0,0,-4.43188,-27.5081,-6.56096,24.039,1.19812,1.22948,0.0303194,
0.0971008,-0.135593,0.155098,-2.12418,0.383969,0.259447,-0.0534618,0.149848,0.0252995,0.161965,-0.300536,-0.0535687,0.375415,0.00801926,0.161922,1.43548,0.219783,2.0484,2.62584,-11.8159,-0.155938,11.3872,-0.687583,12.349,-26.5385,-0.618923,4.73207,0.0892686,0.102538,-0.136517,0.157219,-2.13468,0.383056,0.273255,-0.0536903,0.0391567,0.0780276,0.643939,-0.687679,-0.126873,0.767356,9.69702e-05,-35.1611,11.2255,36.8404,10.8736,-8.96655,-20.4816,-0.788849,-0.754208,-28.0834,-1.26067,26.6772,2.65197,2.73461,0.050461,
0.0982084,-0.135395,0.156297,-2.12638,0.383726,0.261907,-0.0534053,0.147568,0.0252071,0.159554,-0.295286,-0.0489281,0.361833,0.00782755,-1.42502,-0.0577373,-1.50683,3.28134,2.90033,-8.48848,-0.119818,11.1897,-0.705957,12.1356,-25.9719,-0.527876,4.63411,0.0871124,0.102538,-0.136517,0.157219,-2.13468,0.383056,0.273255,-0.0536903,0.0391567,0.0780276,0.643939,-0.687679,-0.126873,0.767356,9.69702e-05,0,0,0,0,0,0,0,-0.754208,-28.0834,-1.26067,26.6772,2.65197,2.73461,0.050461,
0.0992385,-0.135254,0.157413,-2.12848,0.383518,0.264429,-0.0533493,0.143806,0.0236791,0.15554,-0.288787,-0.0443564,0.35252,0.00766106,-2.35124,-0.955005,-2.50873,4.06142,2.85736,-5.82039,-0.104058,10.9888,-0.720312,11.9193,-25.4057,-0.443398,4.54029,0.0847866,0.102538,-0.136517,0.157219,-2.13468,0.383056,0.273255,-0.0536903,0.0391567,0.0780276,0.643939,-0.687679,-0.126873,0.767356,9.69702e-05,0,0,0,0,0,0,0,-0.754208,-28.0834,-1.26067,26.6772,2.65197,2.73461,0.050461,
0.110358,-0.133142,0.165834,-2.14802,0.38024,0.284096,-0.0534588,0.144152,0.0278251,0.156018,-0.285763,-0.0392153,0.329858,0.00731559,0.216053,2.59129,0.298902,1.89018,3.21318,-14.164,-0.215919,10.5809,-0.740243,11.4819,-24.2753,-0.299794,4.36059,0.0799353,0.102538,-0.136517,0.157219,-2.13468,0.383056,0.273255,-0.0536903,0.0391567,0.0780276,0.643939,-0.687679,-0.126873,0.767356,9.69702e-05,0,0,0,0,0,0,0,-0.754208,-28.0834,-1.26067,26.6772,2.65197,2.73461,0.050461,
0.111418,-0.132884,0.166984,-2.15009,0.380147,0.286109,-0.0534108,0.141806,0.0286933,0.15355,-0.280319,-0.0336923,0.314216,0.00705363,-1.46626,0.542585,-1.54229,3.40283,3.45186,-9.77651,-0.163727,10.277,-0.873317,11.1535,-23.6452,-0.184874,4.27688,0.0771612,0.115685,-0.134002,0.16513,-2.15727,0.380047,0.295447,-0.053637,0.472629,0.102711,0.174614,-0.624626,-0.0914259,0.619891,3.80871e-05,54.1841,3.08541,-58.6656,7.88162,4.43091,-18.433,-0.00736038,-0.119442,-32.3998,-1.0385,29.5416,2.85339,2.2503,0.00376909,
0.112396,-0.1327,0.168046,-2.15205,0.380084,0.288221,-0.0533632,0.137902,0.0275498,0.149388,-0.273346,-0.0285266,0.304165,0.00683386,-2.43954,-0.714684,-2.60137,4.35793,3.22856,-6.28189,-0.137354,10.0705,-0.877871,10.9331,-23.0816,-0.132503,4.19359,0.0745919,0.115685,-0.134002,0.16513,-2.15727,0.380047,0.295447,-0.053637,0.472629,0.102711,0.174614,-0.624626,-0.0914259,0.619891,3.80871e-05,0,0,0,0,0,0,0,-0.119442,-32.3998,-1.0385,29.5416,2.85339,2.2503,0.00376909,
0.11331,-0.132572,0.169039,-2.15392,0.380037,0.290418,-0.0533165,0.133174,0.0252434,0.144333,-0.265458,-0.0240093,0.298254,0.00663325,-2.95546,-1.44151,-3.15932,4.92979,2.82331,-3.69427,-0.125382,9.86374,-0.88114,10.7128,-22.5188,-0.0883443,4.11206,0.0720192,0.115685,-0.134002,0.16513,-2.15727,0.380047,0.295447,-0.053637,0.472629,0.102711,0.174614,-0.624626,-0.0914259,0.619891,3.80871e-05,0,0,0,0,0,0,0,-0.119442,-32.3998,-1.0385,29.5416,2.85339,2.2503,0.00376909,
0.122944,-0.130691,0.172987,-2.1696,0.378892,0.303864,-0.0534491,0.133497,0.0287288,0.144706,-0.262487,-0.0190531,0.278824,0.00631923,0.202123,2.17838,0.233312,1.85703,3.09761,-12.1434,-0.196261,9.65688,-0.883056,10.4926,-21.9565,-0.051184,4.03312,0.0694011,0.115685,-0.134002,0.16513,-2.15727,0.380047,0.295447,-0.053637,0.472629,0.102711,0.174614,-0.624626,-0.0914259,0.619891,3.80871e-05,0,0,0,0,0,0,0,-0.119442,-32.3998,-1.0385,29.5416,2.85339,2.2503,0.00376909,
0.123925,-0.130446,0.174051,-2.17149,0.378915,0.305604,-0.0534085,0.131318,0.0291238,0.14237,-0.257071,-0.0146508,0.266556,0.00607082,-1.36201,0.246917,-1.46023,3.38485,2.75147,-7.66793,-0.155257,9.52518,-1.18285,10.3833,-21.3353,0.0195332,3.93194,0.0665318,0.122152,-0.132272,0.178369,-2.17792,0.378334,0.314,-0.0536219,0.467744,-0.00947751,0.0725755,-0.625834,-0.0165681,0.574491,0.000948541,-0.610622,-14.0236,-12.7548,-0.150922,9.35722,-5.67508,0.113807,-2.22607,-32.0744,-4.38689,28.5736,1.88842,1.93261,-0.0026396,
0.12483,-0.130272,0.175033,-2.17326,0.378938,0.307465,-0.0533686,0.127672,0.0276409,0.138457,-0.250108,-0.0111462,0.259762,0.00585554,-2.27848,-0.926806,-2.44588,4.35221,2.19034,-4.24598,-0.134548,9.31869,-1.1831,10.1639,-20.7741,0.0419638,3.85724,0.0638853,0.122152,-0.132272,0.178369,-2.17792,0.378334,0.314,-0.0536219,0.467744,-0.00947751,0.0725755,-0.625834,-0.0165681,0.574491,0.000948541,0,0,0,0,0,0,0,-2.22607,-32.0744,-4.38689,28.5736,1.88842,1.93261,-0.0026396,
0.125674,-0.130153,0.175951,-2.17495,0.378951,0.309428,-0.0533297,0.123236,0.0250898,0.133699,-0.242215,-0.00861397,0.256877,0.00565598,-2.77293,-1.59447,-2.97335,4.93285,1.58266,-1.80306,-0.124729,9.11256,-1.18296,9.94513,-20.2135,0.0566698,3.78443,0.0612619,0.122152,-0.132272,0.178369,-2.17792,0.378334,0.314,-0.0536219,0.467744,-0.00947751,0.0725755,-0.625834,-0.0165681,0.574491,0.000948541,0,0,0,0,0,0,0,-2.22607,-32.0744,-4.38689,28.5736,1.88842,1.93261,-0.0026396,
0.128463,-0.130433,0.185178,-2.1888,0.377716,0.321528,-0.0534461,0.122506,0.0251556,0.132968,-0.237239,-0.00608516,0.244116,0.00536571,-0.45631,0.0411001,-0.457017,3.11032,1.58051,-7.97595,-0.181413,8.90672,-1.18228,9.72681,-19.6531,0.0645474,3.7141,0.0586283,0.122152,-0.132272,0.178369,-2.17792,0.378334,0.314,-0.0536219,0.467744,-0.00947751,0.0725755,-0.625834,-0.0165681,0.574491,0.000948541,0,0,0,0,0,0,0,-2.22607,-32.0744,-4.38689,28.5736,1.88842,1.93261,-0.0026396,
0.129337,-0.130293,0.18613,-2.19043,0.377746,0.323205,-0.0534126,0.119867,0.023626,0.130177,-0.230618,-0.00411867,0.237228,0.00512921,-1.64936,-0.955953,-1.74425,4.13777,1.22906,-4.30468,-0.147816,8.69322,-1.35953,9.52191,-19.0107,0.0995116,3.64202,0.0559654,0.129705,-0.131112,0.188893,-2.19671,0.377652,0.331297,-0.0536193,0.124797,0.0329038,0.368326,-0.52517,-0.00491345,0.486987,-0.000100155,-42.8685,5.29766,36.9688,12.5829,1.45683,-10.9379,-0.131087,-0.0718349,-29.7774,-1.9113,28.645,1.25305,2.27044,0.017502,
0.130147,-0.130202,0.187013,-2.19197,0.377755,0.324996,-0.0533799,0.11613,0.0211812,0.126209,-0.223013,-0.00305413,0.234558,0.00492152,-2.33534,-1.52802,-2.48042,4.75349,0.665337,-1.6689,-0.129804,8.48829,-1.35848,9.30486,-18.4504,0.0927834,3.57626,0.0533667,0.129705,-0.131112,0.188893,-2.19671,0.377652,0.331297,-0.0536193,0.124797,0.0329038,0.368326,-0.52517,-0.00491345,0.486987,-0.000100155,0,0,0,0,0,0,0,-0.0718349,-29.7774,-1.9113,28.645,1.25305,2.27044,0.017502,
0.135493,-0.129105,0.195245,-2.20645,0.376795,0.338257,-0.0534782,0.114756,0.0218841,0.124822,-0.217096,-0.0035918,0.222944,0.00460456,-0.858968,0.439307,-0.866892,3.69783,-0.336048,-7.25868,-0.198104,8.0805,-1.35665,8.87332,-17.3293,0.0570755,3.45163,0.048329,0.129705,-0.131112,0.188893,-2.19671,0.377652,0.331297,-0.0536193,0.124797,0.0329038,0.368326,-0.52517,-0.00491345,0.486987,-0.000100155,0,0,0,0,0,0,0,-0.0718349,-29.7774,-1.9113,28.645,1.25305,2.27044,0.017502,
0.13629,-0.128974,0.196116,-2.20789,0.37673,0.339793,-0.0534515,0.111721,0.0207884,0.121631,-0.209737,-0.00450205,0.216732,0.00435095,-1.89696,-0.684805,-1.99423,4.59955,-0.568901,-3.88228,-0.158507,7.87808,-1.35612,8.65922,-16.7681,0.028423,3.39265,0.0458894,0.129705,-0.131112,0.188893,-2.19671,0.377652,0.331297,-0.0536193,0.124797,0.0329038,0.368326,-0.52517,-0.00491345,0.486987,-0.000100155,0,0,0,0,0,0,0,-0.0718349,-29.7774,-1.9113,28.645,1.25305,2.27044,0.017502,
0.137025,-0.128893,0.196922,-2.20924,0.37663,0.341435,-0.0534253,0.107765,0.0186506,0.117444,-0.201544,-0.00609429,0.214445,0.00413455,-2.47232,-1.33612,-2.61647,5.12028,-0.995153,-1.42966,-0.135249,7.67703,-1.35588,8.44659,-16.206,-0.00627002,3.33578,0.0434886,0.129705,-0.131112,0.188893,-2.19671,0.377652,0.331297,-0.0536193,0.124797,0.0329038,0.368326,-0.52517,-0.00491345,0.486987,-0.000100155,0,0,0,0,0,0,0,-0.0718349,-29.7774,-1.9113,28.645,1.25305,2.27044,0.017502,
0.137711,-0.128851,0.197675,-2.21051,0.376489,0.343164,-0.0534,0.103364,0.015972,0.112779,-0.192925,-0.00840777,0.21477,0.00394021,-2.75027,-1.67411,-2.91593,5.38729,-1.44592,0.203442,-0.121463,7.42952,-1.46196,8.19371,-15.5637,-0.0304643,3.2914,0.0411494,0.139067,-0.129116,0.1965,-2.2126,0.377785,0.346357,-0.0536234,0.006832,0.122457,0.454371,-0.404632,0.00798992,0.412721,-0.00044149,-14.7456,11.1941,10.7557,15.0672,1.61292,-9.2833,-0.0426669,0.158268,-31.9237,-0.685411,30.4898,0.990292,3.24547,0.0101778,
0.144382,-0.126487,0.20238,-2.22122,0.376897,0.353021,-0.053519,0.10257,0.0184449,0.111988,-0.188513,-0.0107319,0.204089,0.00368278,-0.496174,1.54552,-0.494511,2.75707,-1.45257,-6.67607,-0.160892,7.23285,-1.46291,7.98554,-14.9995,-0.0760613,3.23734,0.0389009,0.139067,-0.129116,0.1965,-2.2126,0.377785,0.346357,-0.0536234,0.006832,0.122457,0.454371,-0.404632,0.00798992,0.412721,-0.00044149,0,0,0,0,0,0,0,0.158268,-31.9237,-0.685411,30.4898,0.990292,3.24547,0.0101778,
0.145104,-0.126339,0.203172,-2.22248,0.376701,0.354412,-0.0534977,0.100115,0.0184539,0.109393,-0.182308,-0.0134815,0.198058,0.00347847,-1.53491,0.00562821,-1.62142,3.87841,-1.71853,-3.76928,-0.127692,7.03939,-1.46476,7.7806,-14.4341,-0.125736,3.18366,0.0367571,0.139067,-0.129116,0.1965,-2.2126,0.377785,0.346357,-0.0536234,0.006832,0.122457,0.454371,-0.404632,0.00798992,0.412721,-0.00044149,0,0,0,0,0,0,0,0.158268,-31.9237,-0.685411,30.4898,0.990292,3.24547,0.0101778,
0.145769,-0.126249,0.203903,-2.22365,0.376468,0.355893,-0.0534768,0.0967161,0.0170028,0.105782,-0.174988,-0.016617,0.195463,0.00330649,-2.12407,-0.906921,-2.25715,4.57487,-1.9597,-1.6217,-0.107489,6.84994,-1.46742,7.57961,-13.8672,-0.177051,3.12949,0.0347065,0.139067,-0.129116,0.1965,-2.2126,0.377785,0.346357,-0.0536234,0.006832,0.122457,0.454371,-0.404632,0.00798992,0.412721,-0.00044149,0,0,0,0,0,0,0,0.158268,-31.9237,-0.685411,30.4898,0.990292,3.24547,0.0101778,
0.146388,-0.126204,0.204584,-2.22473,0.376202,0.357443,-0.0534564,0.092838,0.0147454,0.101656,-0.167022,-0.0199429,0.195117,0.00315421,-2.42384,-1.41089,-2.57857,4.97858,-2.07866,-0.21652,-0.095178,6.71329,-1.62474,7.43759,-13.1999,-0.186079,3.07076,0.0326424,0.147769,-0.127753,0.20323,-2.22692,0.377912,0.35887,-0.0536256,0.117991,-0.00876851,0.378026,-0.416067,0.00210294,0.384202,-0.00169303,13.8949,-16.4031,-9.54318,-1.4293,-0.735873,-3.56491,-0.156443,-1.11126,-31.2532,-2.06206,26.1813,0.905148,2.62841,0.0303194,
0.153293,-0.12678,0.209257,-2.23412,0.37701,0.364155,-0.0535593,0.0940661,0.0137552,0.102896,-0.161157,-0.0193075,0.183838,0.00289577,0.767604,-0.61884,0.77456,3.66582,0.397113,-7.04919,-0.161522,6.53466,-1.62944,7.24719,-12.6302,-0.234708,3.01172,0.0308414,0.147769,-0.127753,0.20323,-2.22692,0.377912,0.35887,-0.0536256,0.117991,-0.00876851,0.378026,-0.416067,0.00210294,0.384202,-0.00169303,0,0,0,0,0,0,0,-1.11126,-31.2532,-2.06206,26.1813,0.905148,2.62841,0.0303194,
0.154,-0.126744,0.210029,-2.23513,0.376853,0.365362,-0.0535434,0.0929129,0.0119052,0.101629,-0.15418,-0.019378,0.177225,0.00271569,-0.720804,-1.15625,-0.791301,4.36061,-0.0440555,-4.13333,-0.112552,6.36282,-1.63526,7.06336,-12.0594,-0.277715,2.94788,0.029154,0.147769,-0.127753,0.20323,-2.22692,0.377912,0.35887,-0.0536256,0.117991,-0.00876851,0.378026,-0.416067,0.00210294,0.384202,-0.00169303,0,0,0,0,0,0,0,-1.11126,-31.2532,-2.06206,26.1813,0.905148,2.62841,0.0303194,
0.154639,-0.12674,0.210731,-2.23606,0.376679,0.366638,-0.053527,0.0903152,0.00960604,0.0988542,-0.146557,-0.0198476,0.173681,0.00258197,-1.62351,-1.437,-1.73455,4.76424,-0.293487,-2.21464,-0.0835702,6.19865,-1.64195,6.88702,-11.4874,-0.312078,2.8774,0.0276751,0.147769,-0.127753,0.20323,-2.22692,0.377912,0.35887,-0.0536256,0.117991,-0.00876851,0.378026,-0.416067,0.00210294,0.384202,-0.00169303,0,0,0,0,0,0,0,-1.11126,-31.2532,-2.06206,26.1813,0.905148,2.62841,0.0303194,
0.159261,-0.127497,0.214896,-2.24536,0.376639,0.374604,-0.0535578,0.0886272,0.00779651,0.0970791,-0.138852,-0.0192738,0.162938,0.00244846,-1.05506,-1.13096,-1.10945,4.81573,0.358633,-6.71467,-0.083446,5.87395,-1.84768,6.55579,-10.3277,-0.331148,2.6909,0.0254542,0.154838,-0.127662,0.210104,-2.23946,0.377883,0.370155,-0.0536311,0.294423,-0.0666374,0.0857986,-0.396365,-0.00282304,0.338413,-0.0015478,22.054,-7.23361,-36.5284,2.46269,-0.615747,-5.72355,0.0181542,-2.78546,-27.6827,-3.98619,25.6815,0.813595,2.26403,0.0376436,
0.159851,-0.127518,0.215547,-2.24615,0.376554,0.375613,-0.0535414,0.0856477,0.00570242,0.0939439,-0.130668,-0.0175456,0.155577,0.00236832,-1.86215,-1.30881,-1.95945,5.11506,1.08009,-4.60037,-0.0500902,5.73387,-1.85577,6.40256,-9.75582,-0.31774,2.58933,0.0246312,0.154838,-0.127662,0.210104,-2.23946,0.377883,0.370155,-0.0536311,0.294423,-0.0666374,0.0857986,-0.396365,-0.00282304,0.338413,-0.0015478,0,0,0,0,0,0,0,-2.78546,-27.6827,-3.98619,25.6815,0.813595,2.26403,0.0376436,
0.160388,-0.127561,0.216143,-2.24686,0.376521,0.376644,-0.0535257,0.0819529,0.00348066,0.0900619,-0.122332,-0.014865,0.150241,0.00228715,-2.30923,-1.3886,-2.42625,5.21005,1.67537,-3.33497,-0.0507314,5.60004,-1.86382,6.25559,-9.18632,-0.283803,2.47479,0.0238728,0.154838,-0.127662,0.210104,-2.23946,0.377883,0.370155,-0.0536311,0.294423,-0.0666374,0.0857986,-0.396365,-0.00282304,0.338413,-0.0015478,0,0,0,0,0,0,0,-2.78546,-27.6827,-3.98619,25.6815,0.813595,2.26403,0.0376436,
0.160884,-0.127622,0.216696,-2.24751,0.376516,0.377686,-0.053509,0.0779673,0.00127555,0.0858742,-0.114028,-0.0120215,0.14624,0.00224744,-2.49102,-1.37819,-2.61737,5.18972,1.77723,-2.50087,-0.0248147,5.47472,-1.86987,6.11778,-8.6201,-0.235932,2.3517,0.0237318,0.154838,-0.127662,0.210104,-2.23946,0.377883,0.370155,-0.0536311,0.294423,-0.0666374,0.0857986,-0.396365,-0.00282304,0.338413,-0.0015478,0,0,0,0,0,0,0,-2.78546,-27.6827,-3.98619,25.6815,0.813595,2.26403,0.0376436,
0.159087,-0.127399,0.214716,-2.24461,0.37727,0.372831,-0.0535573,0.0776477,0.00138052,0.0855227,-0.108812,-0.00799463,0.131192,0.00230468,-0.199758,0.0656076,-0.219676,3.26038,2.51678,-9.405,0.0357754,5.24653,-1.99078,5.88118,-7.99765,-0.147086,2.22738,0.0248947,0.160191,-0.126825,0.217763,-2.24973,0.37722,0.379098,-0.0536274,0.361163,0.082566,-0.0181451,-0.24184,-0.00767814,0.248034,-0.000206294,8.34253,18.6504,-12.993,19.3157,-0.606887,-11.2974,0.167688,-3.19012,-30.4796,-4.48607,29.1965,1.20453,2.86736,0.00376909,
0.159629,-0.127412,0.215316,-2.24523,0.377425,0.373485,-0.0535314,0.0756642,0.00077878,0.0834138,-0.102784,-0.00253364,0.121287,0.00249154,-1.23967,-0.37609,-1.31805,3.76759,3.41312,-6.19064,0.116785,5.10277,-1.9921,5.7223,-7.44729,-0.0419109,2.07474,0.0250438,0.160191,-0.126825,0.217763,-2.24973,0.37722,0.379098,-0.0536274,0.361163,0.082566,-0.0181451,-0.24184,-0.00767814,0.248034,-0.000206294,0,0,0,0,0,0,0,-3.19012,-30.4796,-4.48607,29.1965,1.20453,2.86736,0.00376909,
0.160111,-0.127451,0.215854,-2.2458,0.37768,0.374211,-0.0535199,0.0725743,-0.000358431,0.0801751,-0.0964439,0.00434997,0.115189,0.00228104,-1.93124,-0.710757,-2.02417,3.96237,4.30226,-3.81141,-0.131564,4.94406,-1.99862,5.55297,-6.91976,0.0497117,1.93105,0.0232684,0.160191,-0.126825,0.217763,-2.24973,0.37722,0.379098,-0.0536274,0.361163,0.082566,-0.0181451,-0.24184,-0.00767814,0.248034,-0.000206294,0,0,0,0,0,0,0,-3.19012,-30.4796,-4.48607,29.1965,1.20453,2.86736,0.00376909,
0.159632,-0.127412,0.215319,-2.24524,0.377343,0.373543,-0.053531,0.0716128,-0.00061196,0.0791437,-0.0928924,0.00691701,0.108793,0.00247304,-0.600899,-0.158455,-0.644652,2.2197,1.6044,-3.99736,0.120002,4.64093,-1.95241,5.23302,-5.89042,0.120857,1.79902,0.0319943,0.160191,-0.126825,0.217763,-2.24973,0.37722,0.379098,-0.0536274,0.361163,0.082566,-0.0181451,-0.24184,-0.00767814,0.248034,-0.000206294,0,0,0,0,0,0,0,-3.19012,-30.4796,-4.48607,29.1965,1.20453,2.86736,0.00376909,
0.164261,-0.125382,0.222219,-2.25442,0.378371,0.38214,-0.0535752,0.0685246,0.000190529,0.0759288,-0.0868609,0.0146941,0.100876,0.00212279,-1.93013,0.501556,-2.00932,3.76968,4.86067,-4.94779,-0.218904,4.36495,-2.03496,4.94199,-5.35666,0.309276,1.72772,0.0383194,0.164058,-0.12565,0.224842,-2.25722,0.37705,0.38675,-0.05363,0.257769,0.0916149,0.00908821,-0.162588,0.00920552,0.168101,0.000505298,-12.9243,1.13111,3.40417,9.90649,2.11046,-9.99163,0.088949,-2.78546,-32.1498,-4.46227,28.9465,1.54602,2.96715,-0.0026396,
0.164661,-0.125395,0.222672,-2.25485,0.37888,0.382691,-0.0535717,0.0648362,-0.00018483,0.0720798,-0.0802963,0.0244725,0.094465,0.00178728,-2.30528,-0.2346,-2.40559,4.10287,6.11154,-4.00708,-0.209694,4.00425,-2.141,4.5725,-4.915,0.467497,1.68827,0.0189914,0.164058,-0.12565,0.224842,-2.25722,0.37705,0.38675,-0.05363,0.257769,0.0916149,0.00908821,-0.162588,0.00920552,0.168101,0.000505298,0,0,0,0,0,0,0,-2.78546,-32.1498,-4.46227,28.9465,1.54602,2.96715,-0.0026396,
0.165028,-0.125437,0.223089,-2.25521,0.379406,0.383221,-0.0535685,0.0610426,-0.0012044,0.0680908,-0.0732724,0.0327352,0.0888212,0.00150952,-2.37097,-0.637229,-2.49315,4.38993,5.16418,-3.52737,-0.173605,3.81258,-2.0946,4.41578,-4.36854,0.00625458,1.9098,0.00566698,0.164058,-0.12565,0.224842,-2.25722,0.37705,0.38675,-0.05363,0.257769,0.0916149,0.00908821,-0.162588,0.00920552,0.168101,0.000505298,0,0,0,0,0,0,0,-2.78546,-32.1498,-4.46227,28.9465,1.54602,2.96715,-0.0026396,
0.166926,-0.124435,0.228013,-2.26032,0.378758,0.388915,-0.0536173,0.0590727,0.000210029,0.0660598,-0.0686976,0.0395312,0.0791731,0.00142447,-1.2312,0.884016,-1.26934,2.85926,4.24748,-6.03001,-0.0531547,3.8243,-2.11424,4.38217,-3.95057,0.11115,1.88368,0.0142265,0.164058,-0.12565,0.224842,-2.25722,0.37705,0.38675,-0.05363,0.257769,0.0916149,0.00908821,-0.162588,0.00920552,0.168101,0.000505298,0,0,0,0,0,0,0,-2.78546,-32.1498,-4.46227,28.9465,1.54602,2.96715,-0.0026396,
0.167282,-0.124437,0.22842,-2.26066,0.379546,0.389193,-0.0536098,0.056152,0.000110949,0.0630215,-0.0634317,0.0513309,0.0703092,0.00132818,-1.82544,-0.0619248,-1.89893,3.29122,7.37483,-5.53999,-0.060179,3.73163,-2.24957,4.27027,-3.55304,0.548897,1.60956,0.0136874,0.168049,-0.12567,0.230113,-2.2629,0.377279,0.391802,-0.0536337,0.155651,-0.0480272,0.0677251,-0.156225,0.017453,0.132224,-0.000398943,-12.7647,-17.4553,7.32961,0.795374,1.03093,-4.48459,-0.11303,-0.908932,-28.9046,-2.63732,24.7372,1.42425,2.53594,0.017502,
0.167596,-0.124474,0.228785,-2.26094,0.380541,0.389437,-0.0536017,0.0527848,-0.000826371,0.0595287,-0.0577669,0.0659319,0.0623388,0.00126499,-2.10447,-0.585825,-2.18304,3.54048,9.12559,-4.98148,-0.0394941,3.62316,-2.26873,4.16335,-3.17354,0.721535,1.41457,0.00962304,0.168049,-0.12567,0.230113,-2.2629,0.377279,0.391802,-0.0536337,0.155651,-0.0480272,0.0677251,-0.156225,0.017453,0.132224,-0.000398943,0,0,0,0,0,0,0,-0.908932,-28.9046,-2.63732,24.7372,1.42425,2.53594,0.017502,
0.167885,-0.124535,0.22912,-2.26117,0.381588,0.389693,-0.0535968,0.0494305,-0.0021899,0.0559941,-0.0519294,0.0789067,0.0562741,0.00113257,-2.09644,-0.852205,-2.20909,3.64846,8.10928,-3.79043,-0.0827639,3.48864,-2.23048,4.04552,-2.74708,0.531241,1.26587,0.00576594,0.168049,-0.12567,0.230113,-2.2629,0.377279,0.391802,-0.0536337,0.155651,-0.0480272,0.0677251,-0.156225,0.017453,0.132224,-0.000398943,0,0,0,0,0,0,0,-0.908932,-28.9046,-2.63732,24.7372,1.42425,2.53594,0.017502,
0.170647,-0.126168,0.232975,-2.26478,0.37716,0.395748,-0.0535901,0.0486374,-0.0042089,0.0551401,-0.0469386,0.0676574,0.0685481,0.00107547,-0.495731,-1.26187,-0.533756,3.11924,-7.03084,7.67124,-0.0356842,3.38984,-2.28872,3.92133,-2.28215,-0.626537,2.38614,0.0180763,0.168049,-0.12567,0.230113,-2.2629,0.377279,0.391802,-0.0536337,0.155651,-0.0480272,0.0677251,-0.156225,0.017453,0.132224,-0.000398943,0,0,0,0,0,0,0,-0.908932,-28.9046,-2.63732,24.7372,1.42425,2.53594,0.017502,
0.170952,-0.126276,0.23333,-2.26496,0.377647,0.396672,-0.0535857,0.0465403,-0.00608881,0.0529694,-0.0419975,0.0663074,0.0779402,0.000970031,-1.3107,-1.17494,-1.35669,3.0882,-0.843746,5.87005,-0.0659021,3.145,-2.36289,3.65738,-1.92185,-0.0886484,2.11706,0.0184966,0.171775,-0.126333,0.233931,-2.26715,0.379211,0.395165,-0.0536303,0.162945,-0.0456894,0.0271474,-0.118506,0.0707105,0.0683791,0.000515962,0.911687,0.292227,-5.07221,4.71483,6.65719,-7.98067,0.114363,-0.627255,-27.2344,-2.38738,26.3559,1.58905,2.64855,-0.0163725,
0.171212,-0.126395,0.233637,-2.2651,0.378392,0.397564,-0.0535846,0.0437305,-0.00784332,0.0500692,-0.0371816,0.0716804,0.0846523,0.000802464,-1.75607,-1.09657,-1.81263,3.00995,3.35815,4.1951,-0.104729,2.95741,-2.32956,3.48996,-1.57564,0.0972382,1.98993,0.0174042,0.171775,-0.126333,0.233931,-2.26715,0.379211,0.395165,-0.0536303,0.162945,-0.0456894,0.0271474,-0.118506,0.0707105,0.0683791,0.000515962,0,0,0,0,0,0,0,-0.627255,-27.2344,-2.38738,26.3559,1.58905,2.64855,-0.0163725,
0.171674,-0.126112,0.233994,-2.2654,0.362233,0.411617,-0.0535103,0.0449936,-0.00825017,0.051326,-0.0351282,-0.00988506,0.16821,0.00086297,0.789396,-0.25428,0.785495,1.28336,-50.9784,52.2236,0.037816,3.0286,-2.426,3.52897,-0.711071,-3.71115,6.22536,0.0195212,0.171775,-0.126333,0.233931,-2.26715,0.379211,0.395165,-0.0536303,0.162945,-0.0456894,0.0271474,-0.118506,0.0707105,0.0683791,0.000515962,0,0,0,0,0,0,0,-0.627255,-27.2344,-2.38738,26.3559,1.58905,2.64855,-0.0163725,
0.174879,-0.126866,0.237261,-2.26889,0.369702,0.41152,-0.05354,0.0443196,-0.00870926,0.0505704,-0.0311034,-0.0484776,0.217795,0.000673067,-0.421246,-0.286929,-0.47228,2.51549,-24.1203,30.9905,-0.118689,2.878,-2.37586,3.34541,-0.49864,-3.05785,5.86788,0.0192114,0.171775,-0.126333,0.233931,-2.26715,0.379211,0.395165,-0.0536303,0.162945,-0.0456894,0.0271474,-0.118506,0.0707105,0.0683791,0.000515962,0,0,0,0,0,0,0,-0.627255,-27.2344,-2.38738,26.3559,1.58905,2.64855,-0.0163725,
0.17516,-0.126955,0.23759,-2.26897,0.368289,0.414862,-0.0535379,0.0424782,-0.00919036,0.0486685,-0.0268211,-0.0740868,0.257784,0.000591756,-1.15088,-0.300689,-1.18868,2.67644,-16.0058,24.993,-0.0508196,2.75031,-2.3743,3.2262,-0.312316,-2.7669,5.63703,0.0133024,0.171775,-0.126333,0.233931,-2.26715,0.379211,0.395165,-0.0536303,0.162945,-0.0456894,0.0271474,-0.118506,0.0707105,0.0683791,0.000515962,0,0,0,0,0,0,0,-0.627255,-27.2344,-2.38738,26.3559,1.58905,2.64855,-0.0163725,
0.175405,-0.127047,0.237879,-2.26901,0.366945,0.418232,-0.0535379,0.0401159,-0.00965269,0.0461624,-0.022454,-0.0928737,0.29047,0.000472196,-1.47639,-0.288958,-1.56632,2.72941,-11.7418,20.4291,-0.0747249,2.57248,-2.2627,3.08207,-0.0440695,-2.98542,5.50415,0.00757086,0.171775,-0.126333,0.233931,-2.26715,0.379211,0.395165,-0.0536303,0.162945,-0.0456894,0.0271474,-0.118506,0.0707105,0.0683791,0.000515962,0,0,0,0,0,0,0,-0.627255,-27.2344,-2.38738,26.3559,1.58905,2.64855,-0.0163725,
0.175873,-0.125777,0.237756,-2.26872,0.354057,0.421473,-0.0532901,0.0495423,-0.00245226,0.0536825,-0.0225549,-0.22121,0.407178,0.00136414,5.89146,4.50027,4.70012,-0.0630306,-80.2104,72.9422,0.557468,4.15065,-0.488104,3.86899,0.710322,-10.3074,10.8948,0.0549329,0.171775,-0.126333,0.233931,-2.26715,0.379211,0.395165,-0.0536303,0.162945,-0.0456894,0.0271474,-0.118506,0.0707105,0.0683791,0.000515962,0,0,0,0,0,0,0,-0.627255,-27.2344,-2.38738,26.3559,1.58905,2.64855,-0.0163725,
0.176515,-0.125542,0.238368,-2.26887,0.348495,0.42886,-0.0532592,0.0556744,0.0039022,0.0582654,-0.021749,-0.316035,0.510399,0.00186601,3.83255,3.97153,2.8643,0.503688,-59.2652,64.5135,0.313666,4.6906,0.0219376,4.29181,0.842158,-9.2299,10.8948,0.05695,0.171775,-0.126333,0.233931,-2.26715,0.379211,0.395165,-0.0536303,0.162945,-0.0456894,0.0271474,-0.118506,0.0707105,0.0683791,0.000515962,0,0,0,0,0,0,0,-0.627255,-27.2344,-2.38738,26.3559,1.58905,2.64855,-0.0163725,
0.177114,-0.12529,0.238942,-2.26898,0.343223,0.43652,-0.0532304,0.0595354,0.00942182,0.0609594,-0.0201142,-0.384617,0.599834,0.00221189,2.41316,3.44976,1.68372,1.02172,-42.864,55.8968,0.216178,5.19923,0.524417,4.74952,0.991066,-8.5522,10.8948,0.0591326,0.171775,-0.126333,0.233931,-2.26715,0.379211,0.395165,-0.0536303,0.162945,-0.0456894,0.0271474,-0.118506,0.0707105,0.0683791,0.000515962,0,0,0,0,0,0,0,-0.627255,-27.2344,-2.38738,26.3559,1.58905,2.64855,-0.0163725,
0.177696,-0.125027,0.239488,-2.26904,0.338055,0.444368,-0.053205,0.0621678,0.0141317,0.0623965,-0.0176479,-0.436894,0.676065,0.00240529,1.64526,2.94365,0.898172,1.54143,-32.673,47.6442,0.120873,5.43907,0.973058,5.04996,1.06539,-8.30037,10.868,0.0507126,0.175195,-0.12582,0.237304,-2.26956,0.378665,0.401417,-0.0536225,0.181961,0.0898947,-0.00970803,-0.0393452,-0.21343,0.416672,5.33428e-05,2.37704,16.948,-4.60693,9.89515,-35.5175,43.5366,-0.0578273,-2.20227,-31.0787,-3.5855,29.5178,0.0134241,5.69176,-0.083206,
0.179078,-0.125061,0.241314,-2.27081,0.342668,0.433337,-0.0531885,0.0677162,0.0111627,0.0693336,-0.0187918,-0.551675,0.726572,0.00350465,3.46772,-1.85561,4.33575,-0.714905,-71.7381,31.567,0.687099,5.72065,-3.42098,6.28707,1.01374,-12.9942,10.868,0.0795929,0.175195,-0.12582,0.237304,-2.26956,0.378665,0.401417,-0.0536225,0.181961,0.0898947,-0.00970803,-0.0393452,-0.21343,0.416672,5.33428e-05,0,0,0,0,0,0,0,-2.20227,-31.0787,-3.5855,29.5178,0.0134241,5.69176,-0.083206,
0.179763,-0.12509,0.24206,-2.27097,0.33485,0.441007,-0.0531286,0.0712913,0.00820244,0.0741214,-0.0190457,-0.636785,0.773011,0.00430264,2.23445,-1.85016,2.99235,-0.158686,-53.1938,29.0245,0.498742,6.42275,-3.25419,6.93201,0.997746,-11.7771,10.868,0.0814244,0.175195,-0.12582,0.237304,-2.26956,0.378665,0.401417,-0.0536225,0.181961,0.0898947,-0.00970803,-0.0393452,-0.21343,0.416672,5.33428e-05,0,0,0,0,0,0,0,-2.20227,-31.0787,-3.5855,29.5178,0.0134241,5.69176,-0.083206,
0.180416,-0.125131,0.242788,-2.2711,0.327317,0.448846,-0.0530651,0.0733626,0.00554767,0.0774768,-0.0184967,-0.697762,0.814381,0.00502975,1.29457,-1.65923,2.09711,0.343089,-38.1107,25.8561,0.454444,6.98685,-3.13567,7.49845,0.968721,-11.0372,10.868,0.0797582,0.175195,-0.12582,0.237304,-2.26956,0.378665,0.401417,-0.0536225,0.181961,0.0898947,-0.00970803,-0.0393452,-0.21343,0.416672,5.33428e-05,0,0,0,0,0,0,0,-2.20227,-31.0787,-3.5855,29.5178,0.0134241,5.69176,-0.083206,
0.179507,-0.125721,0.241682,-2.27088,0.325848,0.44058,-0.0529751,0.0759792,0.00316301,0.0790138,-0.0169052,-0.822756,0.842267,0.00623174,1.63536,-1.49041,0.960666,0.994741,-78.1211,17.4284,0.751244,6.78909,-2.03857,6.75401,0.583338,-13.8734,10.671,0.103194,0.179039,-0.12548,0.240416,-2.27157,0.367086,0.423205,-0.0536162,0.214124,0.0180572,-0.00250429,-0.0561704,-0.872021,0.962233,-0.00163649,4.02034,-8.97969,0.900467,-2.10314,-82.324,68.1952,-0.211229,-1.61908,-29.5552,-2.56194,27.3755,-1.23261,7.50908,-0.0969389,
0.183504,-0.125321,0.24478,-2.27202,0.310656,0.470541,-0.0531326,0.0773493,0.00276018,0.0796107,-0.0151772,-0.882477,0.877111,0.00630841,0.856294,-0.251774,0.37304,1.07996,-37.326,21.7778,0.0479196,7.25194,-1.51479,7.13104,0.603454,-13.7083,10.671,0.105007,0.179039,-0.12548,0.240416,-2.27157,0.367086,0.423205,-0.0536162,0.214124,0.0180572,-0.00250429,-0.0561704,-0.872021,0.962233,-0.00163649,0,0,0,0,0,0,0,-1.61908,-29.5552,-2.56194,27.3755,-1.23261,7.50908,-0.0969389,
0.184151,-0.125296,0.245417,-2.27209,0.302287,0.478717,-0.0530848,0.0780325,0.00282142,0.0796151,-0.0138918,-0.915188,0.906092,0.0062401,0.427055,0.0382772,0.00275956,0.803389,-20.444,18.113,-0.042693,7.61841,-1.13212,7.43291,0.57792,-12.8872,10.671,0.109182,0.179039,-0.12548,0.240416,-2.27157,0.367086,0.423205,-0.0536162,0.214124,0.0180572,-0.00250429,-0.0561704,-0.872021,0.962233,-0.00163649,0,0,0,0,0,0,0,-1.61908,-29.5552,-2.56194,27.3755,-1.23261,7.50908,-0.0969389,
0.184786,-0.125252,0.246041,-2.27216,0.29455,0.48692,-0.0530418,0.0783055,0.00335411,0.0792987,-0.0128562,-0.925595,0.92994,0.00606734,0.170589,0.332928,-0.197768,0.647266,-6.50465,14.9053,-0.107974,7.77575,-0.823696,7.61438,0.541083,-12.4418,10.671,0.0921422,0.179039,-0.12548,0.240416,-2.27157,0.367086,0.423205,-0.0536162,0.214124,0.0180572,-0.00250429,-0.0561704,-0.872021,0.962233,-0.00163649,0,0,0,0,0,0,0,-1.61908,-29.5552,-2.56194,27.3755,-1.23261,7.50908,-0.0969389,
0.188124,-0.125699,0.248746,-2.27374,0.294579,0.509497,-0.0534013,0.0798876,0.00212226,0.0804126,-0.0100632,-0.915858,0.954662,0.00574827,0.988801,-0.769903,0.696184,1.74562,6.08585,15.4512,-0.199422,7.86351,0.0395549,7.69121,-0.141385,-11.4357,10.3452,0.0868193,0.184127,-0.124985,0.244789,-2.27376,0.336201,0.465891,-0.0536142,0.233414,-0.0806526,0.0525527,-0.084618,-1.24974,1.31744,-0.000757399,2.41135,-12.3387,6.88213,-3.55596,-47.2143,44.4002,0.109886,-1.49212,-29.579,-1.98668,27.5739,-1.02478,5.14794,-0.0429228,
0.188791,-0.125682,0.249402,-2.27374,0.288169,0.517851,-0.0533688,0.0805851,0.00212501,0.0807307,-0.00804915,-0.892948,0.972567,0.00541076,0.435961,0.00171781,0.198794,1.25877,14.3186,11.1903,-0.210942,8.13087,0.317145,7.94291,-0.239024,-10.4912,10.3452,0.0812485,0.184127,-0.124985,0.244789,-2.27376,0.336201,0.465891,-0.0536142,0.233414,-0.0806526,0.0525527,-0.084618,-1.24974,1.31744,-0.000757399,0,0,0,0,0,0,0,-1.49212,-29.579,-1.98668,27.5739,-1.02478,5.14794,-0.0429228,
0.189433,-0.125637,0.250034,-2.2737,0.282315,0.525807,-0.0533401,0.0805143,0.00283567,0.0804036,-0.00540339,-0.860705,0.976951,0.00504595,-0.0442606,0.444165,-0.204443,1.6536,20.1518,2.74049,-0.228006,8.33849,0.598172,8.11646,-0.332908,-9.62027,10.3452,0.0759492,0.184127,-0.124985,0.244789,-2.27376,0.336201,0.465891,-0.0536142,0.233414,-0.0806526,0.0525527,-0.084618,-1.24974,1.31744,-0.000757399,0,0,0,0,0,0,0,-1.49212,-29.579,-1.98668,27.5739,-1.02478,5.14794,-0.0429228,
0.190053,-0.125578,0.250646,-2.27362,0.276983,0.533225,-0.0533147,0.0799127,0.00373427,0.0796202,-0.00223738,-0.821858,0.967019,0.00467262,-0.375984,0.561621,-0.489617,1.97876,24.2797,-6.20787,-0.23333,8.46878,0.909318,8.22888,-0.399097,-8.81023,10.3452,0.0702416,0.184127,-0.124985,0.244789,-2.27376,0.336201,0.465891,-0.0536142,0.233414,-0.0806526,0.0525527,-0.084618,-1.24974,1.31744,-0.000757399,0,0,0,0,0,0,0,-1.49212,-29.579,-1.98668,27.5739,-1.02478,5.14794,-0.0429228,
0.187928,-0.125431,0.248587,-2.27364,0.303362,0.507069,-0.0535301,0.0799106,0.0034351,0.0795655,0.00155075,-0.783881,0.949592,0.00420403,-0.00130676,-0.186982,-0.0341747,2.36758,23.7352,-10.8916,-0.292872,8.14142,1.67973,7.91944,-0.928017,-8.07109,9.98007,0.0674959,0.189902,-0.124216,0.250556,-2.27464,0.287312,0.513856,-0.0535865,0.283436,0.0686473,0.0865793,-0.0245495,-1.57666,1.52827,0.00515695,6.25264,18.6625,4.25331,7.50856,-40.8651,26.3542,0.739293,-2.30145,-30.8763,-2.93486,27.6492,0.0619471,4.49883,-0.0767973,
0.18854,-0.125403,0.249193,-2.27349,0.298816,0.513475,-0.0535128,0.0792232,0.00345982,0.0788042,0.00506431,-0.740749,0.919809,0.00379613,-0.429643,0.0154556,-0.475828,2.19597,26.9579,-18.6147,-0.254934,8.1547,1.95754,7.94526,-0.962557,-7.38082,9.91675,0.0615861,0.189902,-0.124216,0.250556,-2.27464,0.287312,0.513856,-0.0535865,0.283436,0.0686473,0.0865793,-0.0245495,-1.57666,1.52827,0.00515695,0,0,0,0,0,0,0,-2.30145,-30.8763,-2.93486,27.6492,0.0619471,4.49883,-0.0767973,
0.189132,-0.12537,0.249778,-2.27332,0.294717,0.519265,-0.0534974,0.0781796,0.00359405,0.0776793,0.00813207,-0.695086,0.880602,0.00342255,-0.652249,0.0838937,-0.703064,1.91735,28.5388,-24.5045,-0.233486,8.12777,2.18712,7.93731,-0.994237,-6.75004,8.77966,0.0559419,0.189902,-0.124216,0.250556,-2.27464,0.287312,0.513856,-0.0535865,0.283436,0.0686473,0.0865793,-0.0245495,-1.57666,1.52827,0.00515695,0,0,0,0,0,0,0,-2.30145,-30.8763,-2.93486,27.6492,0.0619471,4.49883,-0.0767973,
0.193517,-0.123383,0.254301,-2.2741,0.259069,0.548352,-0.0537001,0.076884,0.00452378,0.0764324,0.0107435,-0.646037,0.826858,0.00281461,-0.809759,0.581081,-0.779311,1.63211,30.6556,-33.59,-0.379965,7.97016,2.48822,7.82768,-1.04583,-5.68543,6.84291,0.0473137,0.189902,-0.124216,0.250556,-2.27464,0.287312,0.513856,-0.0535865,0.283436,0.0686473,0.0865793,-0.0245495,-1.57666,1.52827,0.00515695,0,0,0,0,0,0,0,-2.30145,-30.8763,-2.93486,27.6492,0.0619471,4.49883,-0.0767973,
0.194073,-0.123333,0.254851,-2.27393,0.255936,0.552621,-0.0536956,0.0754151,0.00488857,0.0749007,0.0128097,-0.595148,0.768203,0.0023632,-0.918047,0.227989,-0.957268,1.29143,31.8057,-36.6592,-0.282129,7.77479,2.65894,7.63658,-0.978457,-5.02451,5.86929,0.0439637,0.196088,-0.122673,0.25679,-2.27562,0.242415,0.568728,-0.0535833,0.325096,0.0478885,0.0254309,-0.0362575,-1.20397,1.69413,0.00139557,5.20754,-2.59484,-7.64354,-1.46349,46.5858,20.7321,-0.470172,-0.551876,-30.8763,-1.8637,26.9788,1.36932,3.3178,0.0376436,
0.19462,-0.12329,0.255389,-2.27377,0.253169,0.556353,-0.0536913,0.0739906,0.00496745,0.0733705,0.0142967,-0.545304,0.707847,0.00199695,-0.890295,0.0493021,-0.956423,0.929364,31.1525,-37.7226,-0.228907,7.62873,2.70353,7.50612,-0.999899,-4.60459,5.12624,0.0396962,0.196088,-0.122673,0.25679,-2.27562,0.242415,0.568728,-0.0535833,0.325096,0.0478885,0.0254309,-0.0362575,-1.20397,1.69413,0.00139557,0,0,0,0,0,0,0,-0.551876,-30.8763,-1.8637,26.9788,1.36932,3.3178,0.0376436,
0.19516,-0.123252,0.25592,-2.27362,0.250701,0.559616,-0.0536881,0.0726916,0.00491979,0.0719568,0.015236,-0.497938,0.647857,0.00167828,-0.811903,-0.029786,-0.883562,0.587067,29.6037,-37.4938,-0.199167,7.46949,2.71808,7.35917,-1.01965,-4.22181,4.46219,0.0353894,0.196088,-0.122673,0.25679,-2.27562,0.242415,0.568728,-0.0535833,0.325096,0.0478885,0.0254309,-0.0362575,-1.20397,1.69413,0.00139557,0,0,0,0,0,0,0,-0.551876,-30.8763,-1.8637,26.9788,1.36932,3.3178,0.0376436,
0.199495,-0.122487,0.260267,-2.27399,0.223105,0.598794,-0.0537414,0.0717844,0.00254232,0.070974,0.0197145,-0.455482,0.609555,0.00120984,-0.567023,-1.48592,-0.614201,2.79905,26.5351,-23.9384,-0.292781,7.302,2.70875,7.20101,-1.03783,-3.87517,3.86995,0.031261,0.196088,-0.122673,0.25679,-2.27562,0.242415,0.568728,-0.0535833,0.325096,0.0478885,0.0254309,-0.0362575,-1.20397,1.69413,0.00139557,0,0,0,0,0,0,0,-0.551876,-30.8763,-1.8637,26.9788,1.36932,3.3178,0.0376436,
0.200026,-0.122541,0.260786,-2.27372,0.221128,0.60183,-0.0537446,0.070704,0.000697694,0.0697652,0.0222826,-0.413799,0.56354,0.000889708,-0.675207,-1.15289,-0.755498,1.60505,26.0519,-28.7592,-0.20008,7.45372,2.4658,7.3359,-0.799274,-3.26682,3.19132,0.0257475,0.201092,-0.12212,0.262788,-2.27631,0.210064,0.620659,-0.0535868,0.308574,0.00308314,-0.0243837,-0.0113124,-0.848371,1.33776,0.00159262,-2.06519,-5.60068,-6.22683,3.11813,44.4499,-44.5458,0.0246314,-0.0718349,-27.159,-1.68517,25.3601,2.38922,1.07751,0.017502,
0.200549,-0.122585,0.261297,-2.2735,0.219384,0.604372,-0.0537471,0.0696375,-0.000544386,0.0685693,0.0233939,-0.374648,0.514399,0.000647422,-0.666572,-0.776301,-0.747449,0.694555,24.4695,-30.7137,-0.151429,7.28227,2.42408,7.16987,-0.813791,-2.98407,2.72726,0.0220585,0.201092,-0.12212,0.262788,-2.27631,0.210064,0.620659,-0.0535868,0.308574,0.00308314,-0.0243837,-0.0113124,-0.848371,1.33776,0.00159262,0,0,0,0,0,0,0,-0.0718349,-27.159,-1.68517,25.3601,2.38922,1.07751,0.017502,
0.201067,-0.122617,0.261801,-2.27331,0.217825,0.60651,-0.05375,0.0686503,-0.00123344,0.0674729,0.0234343,-0.338688,0.464965,0.000446836,-0.616989,-0.430661,-0.685278,0.0252727,22.4753,-30.8962,-0.125366,7.11276,2.37236,7.00461,-0.826332,-2.72929,2.31966,0.0186058,0.201092,-0.12212,0.262788,-2.27631,0.210064,0.620659,-0.0535868,0.308574,0.00308314,-0.0243837,-0.0113124,-0.848371,1.33776,0.00159262,0,0,0,0,0,0,0,-0.0718349,-27.159,-1.68517,25.3601,2.38922,1.07751,0.017502,
0.204219,-0.122652,0.265909,-2.27436,0.197591,0.6426,-0.0537402,0.0680776,-0.00403999,0.0668177,0.0264727,-0.306558,0.433601,0.00014223,-0.357983,-1.75409,-0.409506,1.89901,20.0808,-19.602,-0.190379,6.94613,2.31379,6.84118,-0.836912,-2.50074,1.96214,0.015478,0.201092,-0.12212,0.262788,-2.27631,0.210064,0.620659,-0.0535868,0.308574,0.00308314,-0.0243837,-0.0113124,-0.848371,1.33776,0.00159262,0,0,0,0,0,0,0,-0.0718349,-27.159,-1.68517,25.3601,2.38922,1.07751,0.017502,
0.204734,-0.122754,0.266409,-2.27411,0.196355,0.644581,-0.0537469,0.0673166,-0.00576705,0.0659661,0.027574,-0.276154,0.396392,-5.28135e-05,-0.475579,-1.07942,-0.532235,0.688303,19.0029,-23.2561,-0.121902,6.78365,2.25104,6.68127,-0.845515,-2.29551,1.65089,0.012616,0.201092,-0.12212,0.262788,-2.27631,0.210064,0.620659,-0.0535868,0.308574,0.00308314,-0.0243837,-0.0113124,-0.848371,1.33776,0.00159262,0,0,0,0,0,0,0,-0.0718349,-27.159,-1.68517,25.3601,2.38922,1.07751,0.017502,
0.20524,-0.122832,0.266902,-2.2739,0.195257,0.64618,-0.0537529,0.0665052,-0.00657641,0.0650832,0.027295,-0.248368,0.35709,-0.000191861,-0.507125,-0.505849,-0.551793,-0.174403,17.3658,-24.5633,-0.0869049,6.92537,1.99075,6.79323,-0.658823,-1.89517,1.26433,0.00884179,0.204994,-0.120846,0.26737,-2.27528,0.187172,0.65681,-0.0535981,0.228627,0.0668979,-0.0457096,0.0682664,-0.573828,0.846275,0.000202252,-9.99336,7.97684,-2.66573,9.94735,34.3179,-61.4354,-0.173796,2.26093,-28.3333,0.588087,22.0474,2.16949,0.705801,0.0440523,
0.207439,-0.120732,0.269768,-2.27369,0.179209,0.670901,-0.0537222,0.0646925,-0.00645616,0.0632064,0.0270642,-0.222354,0.32207,-0.000356909,-1.13296,0.0751559,-1.173,-0.144216,16.259,-21.8874,-0.103155,6.62308,1.861,6.49398,-0.666509,-1.58376,0.829589,0.00450894,0.204994,-0.120846,0.26737,-2.27528,0.187172,0.65681,-0.0535981,0.228627,0.0668979,-0.0457096,0.0682664,-0.573828,0.846275,0.000202252,0,0,0,0,0,0,0,2.26093,-28.3333,0.588087,22.0474,2.16949,0.705801,0.0440523,
0.207899,-0.12077,0.270213,-2.27353,0.178379,0.672018,-0.0537294,0.0632419,-0.00612802,0.0617007,0.0258463,-0.198653,0.285588,-0.000464052,-0.90664,0.205088,-0.941053,-0.761236,14.813,-22.8018,-0.0669646,6.47884,1.79839,6.35098,-0.667727,-1.45232,0.657863,0.00269856,0.204994,-0.120846,0.26737,-2.27528,0.187172,0.65681,-0.0535981,0.228627,0.0668979,-0.0457096,0.0682664,-0.573828,0.846275,0.000202252,0,0,0,0,0,0,0,2.26093,-28.3333,0.588087,22.0474,2.16949,0.705801,0.0440523,
0.208358,-0.120795,0.270659,-2.27339,0.177635,0.672875,-0.0537362,0.0620774,-0.005527,0.0605022,0.0239931,-0.177502,0.249899,-0.000542107,-0.727794,0.37564,-0.749072,-1.15821,13.2192,-22.3054,-0.0487846,6.33885,1.73831,6.21205,-0.6673,-1.33511,0.511285,0.0011285,0.204994,-0.120846,0.26737,-2.27528,0.187172,0.65681,-0.0535981,0.228627,0.0668979,-0.0457096,0.0682664,-0.573828,0.846275,0.000202252,0,0,0,0,0,0,0,2.26093,-28.3333,0.588087,22.0474,2.16949,0.705801,0.0440523,
0.208817,-0.120806,0.271104,-2.27329,0.176963,0.673529,-0.0537431,0.0611203,-0.00468236,0.0595333,0.0217708,-0.158812,0.216256,-0.000605072,-0.598158,0.527899,-0.605552,-1.38893,11.6818,-21.0268,-0.039353,6.33636,1.68207,6.21025,-0.664602,-1.14151,0.289282,-0.000352461,0.208459,-0.120366,0.270885,-2.27417,0.172094,0.681698,-0.0536038,0.207613,-0.0262843,-0.0334104,0.0170403,-0.391878,0.603786,-0.00116708,-2.62681,-11.6478,1.5374,-6.40327,22.7436,-30.3112,-0.171167,3.1258,-27.032,1.56404,23.19,1.8518,1.29632,0.050461,
0.210989,-0.121062,0.273345,-2.27282,0.166804,0.690834,-0.0537103,0.0605486,-0.00595416,0.0589358,0.0220094,-0.142191,0.195401,-0.000717846,-0.357331,-0.794877,-0.373441,0.149082,10.3878,-13.0345,-0.0704834,6.20429,1.62846,6.07914,-0.661277,-1.0482,0.18505,-0.00154523,0.208459,-0.120366,0.270885,-2.27417,0.172094,0.681698,-0.0536038,0.207613,-0.0262843,-0.0334104,0.0170403,-0.391878,0.603786,-0.00116708,0,0,0,0,0,0,0,3.1258,-27.032,1.56404,23.19,1.8518,1.29632,0.050461,
0.211448,-0.121124,0.27379,-2.27268,0.166269,0.691494,-0.0537186,0.0599101,-0.00631024,0.0582887,0.0211996,-0.127125,0.172825,-0.000781498,-0.399098,-0.22255,-0.404455,-0.506125,9.41613,-14.11,-0.039783,6.0758,1.57846,5.95163,-0.656711,-0.964833,0.098545,-0.00259346,0.208459,-0.120366,0.270885,-2.27417,0.172094,0.681698,-0.0536038,0.207613,-0.0262843,-0.0334104,0.0170403,-0.391878,0.603786,-0.00116708,0,0,0,0,0,0,0,3.1258,-27.032,1.56404,23.19,1.8518,1.29632,0.050461,
0.211901,-0.121162,0.27423,-2.27257,0.165785,0.691971,-0.0537264,0.0592401,-0.00599798,0.0576304,0.0197119,-0.113796,0.150192,-0.00081991,-0.418727,0.195164,-0.411461,-0.9298,8.33066,-14.1457,-0.024007,5.9505,1.53212,5.82729,-0.65096,-0.890709,0.0265441,-0.00347289,0.208459,-0.120366,0.270885,-2.27417,0.172094,0.681698,-0.0536038,0.207613,-0.0262843,-0.0334104,0.0170403,-0.391878,0.603786,-0.00116708,0,0,0,0,0,0,0,3.1258,-27.032,1.56404,23.19,1.8518,1.29632,0.050461,
0.212347,-0.121179,0.274665,-2.27249,0.165341,0.692305,-0.053734,0.0585505,-0.00522738,0.0569699,0.0178252,-0.102131,0.12849,-0.000845393,-0.431006,0.481625,-0.412804,-1.17918,7.29097,-13.5636,-0.0159269,5.8987,1.4557,5.77757,-0.625046,-0.768187,-0.0884654,-0.00435858,0.212333,-0.120287,0.274221,-2.27302,0.162995,0.696783,-0.0536094,0.215765,0.0264694,-0.00421361,0.0447635,-0.225801,0.331313,-0.00167748,1.01902,6.59421,3.6496,3.46541,20.7596,-34.0591,-0.0637993,0.384403,-25.9609,-0.510851,23.317,0.941769,2.41692,0.0577852,
0.215232,-0.120313,0.277065,-2.27221,0.160299,0.701476,-0.0537075,0.0592688,-0.00451807,0.0577506,0.0165235,-0.0904134,0.111568,-0.000912484,0.448927,0.44332,0.487946,-0.813563,7.32329,-10.5766,-0.0419322,5.77909,1.41666,5.65894,-0.617332,-0.709476,-0.136425,-0.0049914,0.212333,-0.120287,0.274221,-2.27302,0.162995,0.696783,-0.0536094,0.215765,0.0264694,-0.00421361,0.0447635,-0.225801,0.331313,-0.00167748,0,0,0,0,0,0,0,0.384403,-25.9609,-0.510851,23.317,0.941769,2.41692,0.0577852,
0.215708,-0.120314,0.277531,-2.27214,0.159973,0.701688,-0.053716,0.0593117,-0.00363177,0.057846,0.0148666,-0.0804797,0.0945569,-0.000943819,0.0268524,0.553939,0.0596294,-1.03554,6.20859,-10.6316,-0.019584,5.66199,1.38115,5.54286,-0.608829,-0.657103,-0.17445,-0.00554018,0.212333,-0.120287,0.274221,-2.27302,0.162995,0.696783,-0.0536094,0.215765,0.0264694,-0.00421361,0.0447635,-0.225801,0.331313,-0.00167748,0,0,0,0,0,0,0,0.384403,-25.9609,-0.510851,23.317,0.941769,2.41692,0.0577852,
0.216166,-0.120302,0.277979,-2.2721,0.159664,0.701796,-0.053724,0.0589122,-0.00259784,0.0574965,0.0130349,-0.0721212,0.0783553,-0.000955621,-0.249721,0.646207,-0.218433,-1.14481,5.22406,-10.126,-0.00737679,5.54709,1.34897,5.42897,-0.599566,-0.610782,-0.204881,-0.00597173,0.212333,-0.120287,0.274221,-2.27302,0.162995,0.696783,-0.0536094,0.215765,0.0264694,-0.00421361,0.0447635,-0.225801,0.331313,-0.00167748,0,0,0,0,0,0,0,0.384403,-25.9609,-0.510851,23.317,0.941769,2.41692,0.0577852,
0.219937,-0.120347,0.281534,-2.27194,0.157803,0.704785,-0.0536957,0.0604881,-0.00203166,0.0591869,0.0112652,-0.0621758,0.062034,-0.00101279,0.984948,0.353858,1.0565,-1.10607,6.21585,-10.2008,-0.03573,5.38,1.27525,5.27443,-0.569218,-0.504358,-0.269554,-0.00662657,0.216615,-0.120138,0.278252,-2.27226,0.158997,0.703766,-0.0536101,0.210041,-0.0174411,0.0411601,-0.0017554,-0.106225,0.134979,-0.00206281,-0.715461,-5.48881,5.67171,-5.81487,14.947,-24.5418,-0.0481661,-1.49212,-28.5555,-2.23662,25.6339,0.104977,3.46429,0.050461,
0.220435,-0.12033,0.282025,-2.27192,0.157617,0.704708,-0.0537046,0.0608293,-0.00119743,0.0596175,0.0094994,-0.0543894,0.0476805,-0.00103276,0.21327,0.521394,0.269142,-1.10363,4.86653,-8.97089,-0.0124837,5.27062,1.25203,5.16612,-0.558342,-0.472088,-0.282501,-0.00685373,0.216615,-0.120138,0.278252,-2.27226,0.158997,0.703766,-0.0536101,0.210041,-0.0174411,0.0411601,-0.0017554,-0.106225,0.134979,-0.00206281,0,0,0,0,0,0,0,-1.49212,-28.5555,-2.23662,25.6339,0.104977,3.46429,0.050461,
0.220903,-0.1203,0.282486,-2.27192,0.157424,0.70459,-0.0537127,0.0603648,-0.000213821,0.0592264,0.00780103,-0.0483311,0.0352191,-0.0010309,-0.290358,0.614757,-0.244436,-1.06148,3.78646,-7.78841,0.00116199,5.16268,1.23138,5.05926,-0.547027,-0.443887,-0.292083,-0.00699732,0.216615,-0.120138,0.278252,-2.27226,0.158997,0.703766,-0.0536101,0.210041,-0.0174411,0.0411601,-0.0017554,-0.106225,0.134979,-0.00206281,0,0,0,0,0,0,0,-1.49212,-28.5555,-2.23662,25.6339,0.104977,3.46429,0.050461,
0.221347,-0.12026,0.282923,-2.27192,0.157226,0.704444,-0.0537204,0.0593901,0.000831903,0.0583144,0.00621272,-0.0436151,0.0245025,-0.00101682,-0.609156,0.653578,-0.570043,-0.992693,2.94747,-6.69786,0.00880192,5.05609,1.21312,4.95377,-0.535413,-0.418942,-0.298198,-0.00711502,0.216615,-0.120138,0.278252,-2.27226,0.158997,0.703766,-0.0536101,0.210041,-0.0174411,0.0411601,-0.0017554,-0.106225,0.134979,-0.00206281,0,0,0,0,0,0,0,-1.49212,-28.5555,-2.23662,25.6339,0.104977,3.46429,0.050461,
0.225175,-0.119502,0.285509,-2.27222,0.157338,0.70432,-0.0536899,0.0608195,0.00219063,0.0598658,0.00429484,-0.0371265,0.0126711,-0.00104664,0.893383,0.849206,0.969641,-1.19868,4.05538,-7.39463,-0.0186374,4.96296,1.17154,4.86894,-0.50971,-0.384103,-0.302422,-0.00716936,0.221749,-0.119844,0.282113,-2.27213,0.157516,0.705385,-0.0536105,0.254473,0.0222774,0.0150833,0.00293321,-0.0418803,0.0117049,-0.000568459,5.55396,4.96482,-3.25959,0.586077,8.04313,-15.4093,0.186794,-1.23822,-28.4047,-2.21282,26.0822,-0.0964392,3.67669,0.0239107,
0.225664,-0.119438,0.285993,-2.27225,0.157222,0.70404,-0.0536983,0.0608758,0.00334928,0.0600066,0.00270735,-0.0326184,0.00315939,-0.00104671,0.0351472,0.724158,0.0880258,-0.992183,2.81756,-5.94483,-4.48922e-05,4.85861,1.15742,4.76568,-0.497582,-0.365188,-0.304288,-0.007195,0.221749,-0.119844,0.282113,-2.27213,0.157516,0.705385,-0.0536105,0.254473,0.0222774,0.0150833,0.00293321,-0.0418803,0.0117049,-0.000568459,0,0,0,0,0,0,0,-1.23822,-28.4047,-2.21282,26.0822,-0.0964392,3.67669,0.0239107,
0.226118,-0.119372,0.286443,-2.27228,0.157083,0.703763,-0.0537059,0.0600535,0.00435155,0.0592444,0.00140107,-0.0295527,-0.00440458,-0.00102863,-0.513896,0.626415,-0.476386,-0.816427,1.91608,-4.72748,0.0113036,4.75518,1.14507,4.66335,-0.485224,-0.349151,-0.305185,-0.00715544,0.221749,-0.119844,0.282113,-2.27213,0.157516,0.705385,-0.0536105,0.254473,0.0222774,0.0150833,0.00293321,-0.0418803,0.0117049,-0.000568459,0,0,0,0,0,0,0,-1.23822,-28.4047,-2.21282,26.0822,-0.0964392,3.67669,0.0239107,
0.226544,-0.119302,0.286864,-2.27232,0.156928,0.703489,-0.053713,0.0586931,0.00522186,0.0579276,0.000333413,-0.0275162,-0.0103677,-0.00100026,-0.850276,0.543944,-0.82304,-0.667284,1.27279,-3.72693,0.0177322,4.65261,1.13435,4.56186,-0.472752,-0.335278,-0.304678,-0.00710505,0.221749,-0.119844,0.282113,-2.27213,0.157516,0.705385,-0.0536105,0.254473,0.0222774,0.0150833,0.00293321,-0.0418803,0.0117049,-0.000568459,0,0,0,0,0,0,0,-1.23822,-28.4047,-2.21282,26.0822,-0.0964392,3.67669,0.0239107,
0.225081,-0.119515,0.285418,-2.27221,0.157535,0.704289,-0.053691,0.0596364,0.00564433,0.0589409,-0.000327077,-0.0234417,-0.0153145,-0.0010197,0.589601,0.264043,0.633323,-0.412806,2.54656,-3.09175,-0.0121503,4.56043,1.08285,4.48382,-0.453629,-0.321365,-0.301798,-0.00701142,0.226265,-0.119494,0.286903,-2.27228,0.157144,0.705353,-0.0536075,0.233039,-0.00612732,0.0218003,-0.010663,-0.00573941,-0.00268282,-1.4424e-05,-2.67922,-3.5506,0.839617,-1.69953,4.51761,-1.79846,0.0692544,-2.63073,-28.2063,-3.53789,26.3281,0.0619471,3.72887,-0.0026396,
0.225543,-0.119453,0.285877,-2.27224,0.157443,0.704008,-0.0536986,0.0592665,0.00606068,0.0586124,-0.000900798,-0.0210354,-0.019277,-0.00100806,-0.231242,0.260222,-0.205301,-0.358576,1.50395,-2.47661,0.00726992,4.45925,1.07484,4.3837,-0.440942,-0.31179,-0.300237,-0.00689867,0.226265,-0.119494,0.286903,-2.27228,0.157144,0.705353,-0.0536075,0.233039,-0.00612732,0.0218003,-0.010663,-0.00573941,-0.00268282,-1.4424e-05,0,0,0,0,0,0,0,-2.63073,-28.2063,-3.53789,26.3281,0.0619471,3.72887,-0.0026396,
0.225969,-0.119388,0.286299,-2.27227,0.157324,0.70373,-0.0537055,0.0580757,0.00647538,0.0574461,-0.0013897,-0.0198156,-0.0223706,-0.000977899,-0.744235,0.259188,-0.728912,-0.305566,0.762386,-1.93346,0.018853,4.35863,1.06795,4.28413,-0.428141,-0.304419,-0.298897,-0.00673043,0.226265,-0.119494,0.286903,-2.27228,0.157144,0.705353,-0.0536075,0.233039,-0.00612732,0.0218003,-0.010663,-0.00573941,-0.00268282,-1.4424e-05,0,0,0,0,0,0,0,-2.63073,-28.2063,-3.53789,26.3281,0.0619471,3.72887,-0.0026396,
0.229431,-0.119445,0.290042,-2.27232,0.157356,0.704052,-0.0536736,0.0583917,0.00610773,0.0578257,-0.00139232,-0.0170545,-0.0247522,-0.000975651,0.197513,-0.229784,0.237204,-0.00163857,1.72566,-1.48853,0.00140511,4.15883,1.05703,4.08637,-0.402438,-0.294756,-0.295884,-0.00633384,0.226265,-0.119494,0.286903,-2.27228,0.157144,0.705353,-0.0536075,0.233039,-0.00612732,0.0218003,-0.010663,-0.00573941,-0.00268282,-1.4424e-05,0,0,0,0,0,0,0,-2.63073,-28.2063,-3.53789,26.3281,0.0619471,3.72887,-0.0026396,
0.229863,-0.119399,0.290472,-2.27234,0.157269,0.703783,-0.0536803,0.0575205,0.00602413,0.0569951,-0.00147242,-0.0158374,-0.0265404,-0.000946286,-0.544499,-0.0522495,-0.519069,-0.050062,0.760671,-1.11761,0.0183532,4.05261,1.01997,3.98893,-0.382245,-0.289885,-0.291224,-0.00612856,0.230381,-0.119005,0.291223,-2.2725,0.156895,0.705141,-0.0536082,0.214147,0.0323841,0.030811,-0.000410643,-0.0115639,-0.0165597,-0.000180569,-2.36155,4.81393,1.12634,1.28155,-0.728056,-1.73461,-0.0207682,-1.38897,-28.4325,-2.48656,26.3797,0.447384,3.424,0.00376909,
0.230259,-0.119347,0.290865,-2.27235,0.157148,0.703518,-0.053686,0.0559267,0.00612459,0.0554277,-0.00159397,-0.0156946,-0.0278613,-0.000900526,-0.99612,0.0627864,-0.97963,-0.0759645,0.0892905,-0.825535,0.0286002,3.95363,1.01632,3.89092,-0.369302,-0.289236,-0.290421,-0.00585609,0.230381,-0.119005,0.291223,-2.2725,0.156895,0.705141,-0.0536082,0.214147,0.0323841,0.030811,-0.000410643,-0.0115639,-0.0165597,-0.000180569,0,0,0,0,0,0,0,-1.38897,-28.4325,-2.48656,26.3797,0.447384,3.424,0.00376909,
0.230627,-0.11929,0.291229,-2.27237,0.156999,0.703256,-0.053691,0.0539258,0.0063365,0.0534441,-0.00173143,-0.0162681,-0.0288226,-0.000846021,-1.25058,0.132447,-1.23975,-0.0859147,-0.35842,-0.60085,0.0340655,3.85496,1.01324,3.79316,-0.356388,-0.289774,-0.289504,-0.00558799,0.230381,-0.119005,0.291223,-2.2725,0.156895,0.705141,-0.0536082,0.214147,0.0323841,0.030811,-0.000410643,-0.0115639,-0.0165597,-0.000180569,0,0,0,0,0,0,0,-1.38897,-28.4325,-2.48656,26.3797,0.447384,3.424,0.00376909,
0.233337,-0.118506,0.294171,-2.27269,0.157062,0.703513,-0.0536704,0.0541284,0.00694496,0.0537209,-0.00226831,-0.0147556,-0.0316697,-0.000831048,0.12663,0.380284,0.172976,-0.33555,0.945287,-1.7794,0.00935795,3.75654,1.01061,3.69563,-0.343423,-0.292032,-0.289281,-0.00526628,0.230381,-0.119005,0.291223,-2.2725,0.156895,0.705141,-0.0536082,0.214147,0.0323841,0.030811,-0.000410643,-0.0115639,-0.0165597,-0.000180569,0,0,0,0,0,0,0,-1.38897,-28.4325,-2.48656,26.3797,0.447384,3.424,0.00376909,
0.233733,-0.118432,0.294566,-2.27273,0.156949,0.703182,-0.0536754,0.0532052,0.0073926,0.0528395,-0.00263598,-0.0146173,-0.033631,-0.000791504,-0.576988,0.279779,-0.550851,-0.229795,0.0864528,-1.22586,0.0247153,3.65835,1.00837,3.59828,-0.330491,-0.29533,-0.288945,-0.00494569,0.230381,-0.119005,0.291223,-2.2725,0.156895,0.705141,-0.0536082,0.214147,0.0323841,0.030811,-0.000410643,-0.0115639,-0.0165597,-0.000180569,0,0,0,0,0,0,0,-1.38897,-28.4325,-2.48656,26.3797,0.447384,3.424,0.00376909,
0.234094,-0.118359,0.294925,-2.27276,0.156801,0.702863,-0.0536796,0.0516013,0.00774118,0.0512573,-0.00287211,-0.0153949,-0.0348665,-0.0007371,-1.00245,0.217863,-0.988896,-0.14758,-0.486026,-0.77216,0.0340021,3.5651,0.972147,3.51152,-0.31074,-0.299008,-0.285955,-0.00459438,0.233763,-0.118222,0.295346,-2.27289,0.156718,0.70455,-0.0536075,0.191233,0.0217703,0.0139943,-0.0091788,-0.0153309,-0.0268825,-0.000195023,-2.86426,-1.32672,-2.10209,-1.09602,-0.47088,-1.29035,-0.00180669,-1.05969,-28.8808,-2.08586,26.6296,0.690914,3.38463,-0.0026396,
0.234428,-0.118286,0.295256,-2.27279,0.156624,0.702557,-0.053683,0.0496173,0.00802275,0.0492825,-0.00300703,-0.0167479,-0.0355415,-0.000674791,-1.24,0.17598,-1.23426,-0.0843282,-0.845626,-0.421876,0.0389437,3.46734,0.970492,3.4145,-0.29779,-0.304763,-0.28612,-0.00422451,0.233763,-0.118222,0.295346,-2.27289,0.156718,0.70455,-0.0536075,0.191233,0.0217703,0.0139943,-0.0091788,-0.0153309,-0.0268825,-0.000195023,0,0,0,0,0,0,0,-1.05969,-28.8808,-2.08586,26.6296,0.690914,3.38463,-0.0026396,
0.236292,-0.117781,0.297864,-2.2731,0.156517,0.702779,-0.0536534,0.0492105,0.00828028,0.0489209,-0.00322287,-0.0165827,-0.0370752,-0.000641793,-0.254242,0.160954,-0.226025,-0.134894,0.103271,-0.958577,0.0206236,3.36978,0.969027,3.31766,-0.284792,-0.311914,-0.286883,-0.00379787,0.233763,-0.118222,0.295346,-2.27289,0.156718,0.70455,-0.0536075,0.191233,0.0217703,0.0139943,-0.0091788,-0.0153309,-0.0268825,-0.000195023,0,0,0,0,0,0,0,-1.05969,-28.8808,-2.08586,26.6296,0.690914,3.38463,-0.0026396,
0.236636,-0.117708,0.298207,-2.27313,0.156353,0.702449,-0.0536564,0.0479728,0.00846076,0.0477047,-0.00331607,-0.0173627,-0.037906,-0.000589546,-0.773572,0.112803,-0.760076,-0.058254,-0.487541,-0.519238,0.032654,3.27247,0.967756,3.22098,-0.271823,-0.319673,-0.287429,-0.00337279,0.233763,-0.118222,0.295346,-2.27289,0.156718,0.70455,-0.0536075,0.191233,0.0217703,0.0139943,-0.0091788,-0.0153309,-0.0268825,-0.000195023,0,0,0,0,0,0,0,-1.05969,-28.8808,-2.08586,26.6296,0.690914,3.38463,-0.0026396,
0.236951,-0.117635,0.29852,-2.27316,0.156159,0.702134,-0.0536586,0.0462473,0.0085959,0.0459864,-0.00331965,-0.0187398,-0.0382054,-0.000525558,-1.07846,0.0844624,-1.07398,-0.00223768,-0.860643,-0.187106,0.0399929,3.17624,0.938082,3.13079,-0.250119,-0.328289,-0.284556,-0.00292048,0.236898,-0.117691,0.298618,-2.27329,0.156449,0.704049,-0.0536067,0.101754,0.00925242,0.0790359,-0.0103783,-0.00966599,-0.0166236,-4.40058e-05,-11.1849,-1.56474,8.1302,-0.149942,0.708114,1.28236,0.0188771,-1.26202,-28.5555,-2.03826,26.5781,0.672604,3.35168,-0.00996382,
0.239144,-0.117382,0.30087,-2.27342,0.155977,0.702518,-0.0536377,0.045436,0.00841285,0.0452031,-0.00309748,-0.0191409,-0.0383159,-0.000471929,-0.507054,-0.114409,-0.48956,0.138858,-0.250726,-0.0690836,0.033518,2.98322,0.936222,2.93868,-0.224178,-0.347708,-0.287536,-0.00189393,0.236898,-0.117691,0.298618,-2.27329,0.156449,0.704049,-0.0536067,0.101754,0.00925242,0.0790359,-0.0103783,-0.00966599,-0.0166236,-4.40058e-05,0,0,0,0,0,0,0,-1.26202,-28.5555,-2.03826,26.5781,0.672604,3.35168,-0.00996382,
0.239449,-0.117319,0.301173,-2.27343,0.155782,0.702217,-0.0536387,0.0439512,0.00830407,0.0437288,-0.00288542,-0.0201815,-0.0381743,-0.000402584,-0.927992,-0.0679847,-0.921421,0.132539,-0.650336,0.0884873,0.0433406,2.88745,0.935446,2.8432,-0.211141,-0.356748,-0.288679,-0.00134814,0.236898,-0.117691,0.298618,-2.27329,0.156449,0.704049,-0.0536067,0.101754,0.00925242,0.0790359,-0.0103783,-0.00966599,-0.0166236,-4.40058e-05,0,0,0,0,0,0,0,-1.26202,-28.5555,-2.03826,26.5781,0.672604,3.35168,-0.00996382,
0.239726,-0.117254,0.301448,-2.27345,0.155566,0.701924,-0.0536388,0.042086,0.00825329,0.0418637,-0.0026826,-0.0215394,-0.0378581,-0.000324386,-1.16573,-0.0317423,-1.16568,0.126763,-0.84867,0.197649,0.0488735,2.79232,0.934772,2.74826,-0.198051,-0.365427,-0.290432,-0.000738021,0.236898,-0.117691,0.298618,-2.27329,0.156449,0.704049,-0.0536067,0.101754,0.00925242,0.0790359,-0.0103783,-0.00966599,-0.0166236,-4.40058e-05,0,0,0,0,0,0,0,-1.26202,-28.5555,-2.03826,26.5781,0.672604,3.35168,-0.00996382,
0.23998,-0.117189,0.301701,-2.27346,0.155338,0.701638,-0.0536381,0.0400354,0.00824367,0.0398069,-0.0024878,-0.0229417,-0.0374451,-0.000242737,-1.28167,-0.00601123,-1.2855,0.121748,-0.876497,0.258126,0.051031,2.69636,0.912377,2.6559,-0.171761,-0.372028,-0.285636,-0.000165407,0.239319,-0.116947,0.302033,-2.27358,0.156333,0.703529,-0.0536072,0.000327374,0.0298121,0.171024,-0.0038116,6.46179e-05,-0.0146704,-4.12558e-05,-12.6783,2.56996,11.4985,0.820841,1.21633,0.244152,0.000343742,0.106693,-28.5079,-1.08611,25.983,0.379635,3.30498,-0.0026396,
0.241393,-0.116381,0.304144,-2.27377,0.15579,0.701907,-0.0536258,0.0396607,0.00862358,0.0394683,-0.00265028,-0.0225278,-0.0387269,-0.000192673,-0.234128,0.237444,-0.211592,-0.10155,0.258687,-0.801137,0.0312899,2.60299,0.912465,2.56258,-0.159695,-0.386567,-0.295515,0.000502997,0.239319,-0.116947,0.302033,-2.27358,0.156333,0.703529,-0.0536072,0.000327374,0.0298121,0.171024,-0.0038116,6.46179e-05,-0.0146704,-4.12558e-05,0,0,0,0,0,0,0,0.106693,-28.5079,-1.08611,25.983,0.379635,3.30498,-0.0026396,
0.241665,-0.116304,0.304415,-2.27379,0.155611,0.701565,-0.0536247,0.0385342,0.00882368,0.0383538,-0.00268017,-0.0224796,-0.0395519,-0.000127253,-0.704099,0.125066,-0.696592,-0.0186792,0.0301593,-0.515614,0.0408876,2.51105,0.912304,2.47035,-0.146532,-0.388232,-0.29829,0.00118375,0.239319,-0.116947,0.302033,-2.27358,0.156333,0.703529,-0.0536072,0.000327374,0.0298121,0.171024,-0.0038116,6.46179e-05,-0.0146704,-4.12558e-05,0,0,0,0,0,0,0,0.106693,-28.5079,-1.08611,25.983,0.379635,3.30498,-0.0026396,
0.241911,-0.116229,0.304659,-2.27381,0.155436,0.701229,-0.0536228,0.0369643,0.0089227,0.0367814,-0.0026163,-0.0223733,-0.0400237,-5.38034e-05,-0.981154,0.0618843,-0.982722,0.039918,0.0664548,-0.29491,0.0459058,2.42071,0.912364,2.37954,-0.133313,-0.385802,-0.302339,0.0019311,0.239319,-0.116947,0.302033,-2.27358,0.156333,0.703529,-0.0536072,0.000327374,0.0298121,0.171024,-0.0038116,6.46179e-05,-0.0146704,-4.12558e-05,0,0,0,0,0,0,0,0.106693,-28.5079,-1.08611,25.983,0.379635,3.30498,-0.0026396,
0.242134,-0.116156,0.304881,-2.27383,0.155278,0.700899,-0.0536202,0.0351579,0.00896376,0.0349638,-0.00248758,-0.0218335,-0.0402732,2.15982e-05,-1.12905,0.0256613,-1.13606,0.0804504,0.337338,-0.155935,0.047126,2.33313,0.894232,2.29241,-0.107437,-0.37629,-0.301148,0.00264065,0.241919,-0.116175,0.304901,-2.27383,0.156332,0.702916,-0.0536045,-0.00118721,0.0195244,0.160306,-0.00534017,-0.00069275,-0.0178722,0.00089694,-0.189323,-1.28597,-1.33974,-0.191071,-0.094671,-0.400225,0.117274,0.134464,-28.8292,-1.26067,26.2051,0.159909,3.27843,-0.0301054,
0.243815,-0.115736,0.306829,-2.27394,0.155706,0.701089,-0.0536101,0.0349471,0.00889927,0.0347741,-0.00233509,-0.0206821,-0.0422099,6.25718e-05,-0.131711,-0.0403037,-0.118516,0.0953049,0.719664,-1.21041,0.0256085,2.24583,0.898553,2.20563,-0.104134,-0.460916,-0.372574,0.0033684,0.241919,-0.116175,0.304901,-2.27383,0.156332,0.702916,-0.0536045,-0.00118721,0.0195244,0.160306,-0.00534017,-0.00069275,-0.0178722,0.00089694,0,0,0,0,0,0,0,0.134464,-28.8292,-1.26067,26.2051,0.159909,3.27843,-0.0301054,
0.244055,-0.115669,0.307068,-2.27395,0.155614,0.700687,-0.0536075,0.0339687,0.00880765,0.0337977,-0.00215279,-0.0188361,-0.0438032,0.000115441,-0.611508,-0.0572628,-0.610271,0.113933,1.15372,-0.995855,0.0330434,2.16301,0.899624,2.12149,-0.0905744,-0.434348,-0.380092,0.00418669,0.241919,-0.116175,0.304901,-2.27383,0.156332,0.702916,-0.0536045,-0.00118721,0.0195244,0.160306,-0.00534017,-0.00069275,-0.0178722,0.00089694,0,0,0,0,0,0,0,0.134464,-28.8292,-1.26067,26.2051,0.159909,3.27843,-0.0301054,
0.244269,-0.115602,0.307281,-2.27396,0.155585,0.700282,-0.0536043,0.03253,0.00871763,0.0323496,-0.0019528,-0.0158042,-0.0451751,0.000172976,-0.89921,-0.0562602,-0.905033,0.124997,1.89494,-0.857437,0.0359595,2.08359,0.901088,2.04043,-0.0769344,-0.395285,-0.390507,0.0050683,0.241919,-0.116175,0.304901,-2.27383,0.156332,0.702916,-0.0536045,-0.00118721,0.0195244,0.160306,-0.00534017,-0.00069275,-0.0178722,0.00089694,0,0,0,0,0,0,0,0.134464,-28.8292,-1.26067,26.2051,0.159909,3.27843,-0.0301054,
0.246037,-0.115178,0.309251,-2.27398,0.154245,0.699044,-0.0535924,0.0319859,0.00835549,0.031822,-0.00147298,-0.0216532,-0.0546142,0.000204221,-0.340078,-0.226343,-0.32977,0.299889,-3.65566,-5.89942,0.0195281,1.9359,0.913174,1.9016,-0.112235,-1.04159,-0.884152,0.00625355,0.244338,-0.115536,0.307558,-2.27402,0.156303,0.702242,-0.0536052,0.107219,0.0186285,0.0363195,-0.00582565,-0.00826242,-0.022241,0.00108918,13.5508,-0.111987,-15.4983,-0.0606853,-0.946209,-0.546098,0.0240297,-0.452694,-28.6308,-2.16124,26.4035,0.17181,3.23907,-0.0227812,
0.246245,-0.115123,0.309457,-2.27398,0.154015,0.698281,-0.0535898,0.030779,0.00807681,0.0306187,-0.00113563,-0.023092,-0.0627599,0.000227714,-0.754257,-0.174171,-0.752043,0.210844,-0.899214,-5.09106,0.014683,1.87253,0.915713,1.8352,-0.096764,-0.946879,-0.895312,0.00720528,0.244338,-0.115536,0.307558,-2.27402,0.156303,0.702242,-0.0536052,0.107219,0.0186285,0.0363195,-0.00582565,-0.00826242,-0.022241,0.00108918,0,0,0,0,0,0,0,-0.452694,-28.6308,-2.16124,26.4035,0.17181,3.23907,-0.0227812,
0.246427,-0.115066,0.309638,-2.27398,0.153957,0.697496,-0.0535873,0.0291853,0.00788325,0.0290226,-0.000902961,-0.0199115,-0.0698361,0.000243666,-0.996074,-0.120979,-0.997558,0.145416,1.98777,-4.42261,0.00996976,1.81465,0.918346,1.77381,-0.0812921,-0.823749,-0.911532,0.00820473,0.244338,-0.115536,0.307558,-2.27402,0.156303,0.702242,-0.0536052,0.107219,0.0186285,0.0363195,-0.00582565,-0.00826242,-0.022241,0.00108918,0,0,0,0,0,0,0,-0.452694,-28.6308,-2.16124,26.4035,0.17181,3.23907,-0.0227812,
0.246589,-0.115007,0.309798,-2.27398,0.154116,0.696687,-0.0535855,0.0273907,0.00776739,0.0272221,-0.00073371,-0.0119656,-0.0761051,0.000241878,-1.12162,-0.0724125,-1.12532,0.105782,4.96622,-3.91815,-0.00111734,1.76257,0.922319,1.71756,-0.064785,-0.66633,-0.933494,0.00913018,0.244338,-0.115536,0.307558,-2.27402,0.156303,0.702242,-0.0536052,0.107219,0.0186285,0.0363195,-0.00582565,-0.00826242,-0.022241,0.00108918,0,0,0,0,0,0,0,-0.452694,-28.6308,-2.16124,26.4035,0.17181,3.23907,-0.0227812,
0.246064,-0.115342,0.309273,-2.27355,0.151559,0.693718,-0.0535755,0.027975,0.00663354,0.0278431,0.000649203,-0.0301405,-0.111827,0.000207661,0.365166,-0.708655,0.388134,0.864321,-11.3593,-22.326,-0.0213853,2.00737,1.03239,1.99335,-0.242874,-2.07715,-3.01022,0.00847086,0.247049,-0.114795,0.309139,-2.27411,0.156291,0.701465,-0.0536017,0.0885212,0.0265101,0.0208442,0.000346524,-0.000297376,-0.0354055,0.000381104,-2.33725,0.985209,-1.9344,0.771522,0.995631,-1.64557,-0.0885091,-1.21045,-28.5555,-2.18505,26.1575,0.0619471,3.05962,-0.0163725,
0.246276,-0.115318,0.309485,-2.27352,0.150971,0.691626,-0.0535781,0.0276721,0.00589469,0.0275746,0.00134574,-0.0388124,-0.141763,0.000101586,-0.189284,-0.46178,-0.167829,0.435336,-5.41998,-18.7103,-0.066297,1.98409,1.02694,1.96471,-0.21701,-1.87169,-2.96476,0.00950283,0.247049,-0.114795,0.309139,-2.27411,0.156291,0.701465,-0.0536017,0.0885212,0.0265101,0.0208442,0.000346524,-0.000297376,-0.0354055,0.000381104,0,0,0,0,0,0,0,-1.21045,-28.5555,-2.18505,26.1575,0.0619471,3.05962,-0.0163725,
0.246463,-0.115288,0.309674,-2.2735,0.150649,0.689506,-0.0535811,0.0268203,0.00547139,0.026776,0.00154336,-0.0391181,-0.166394,5.31516e-06,-0.532416,-0.264563,-0.499169,0.12351,-0.191035,-15.3945,-0.0601694,1.96357,1.01654,1.93956,-0.193448,-1.6193,-2.92489,0.0105066,0.247049,-0.114795,0.309139,-2.27411,0.156291,0.701465,-0.0536017,0.0885212,0.0265101,0.0208442,0.000346524,-0.000297376,-0.0354055,0.000381104,0,0,0,0,0,0,0,-1.21045,-28.5555,-2.18505,26.1575,0.0619471,3.05962,-0.0163725,
0.246631,-0.115251,0.309843,-2.27349,0.150605,0.687369,-0.053585,0.0256544,0.00530648,0.0256643,0.00148014,-0.0323863,-0.186562,-9.15627e-05,-0.728696,-0.10307,-0.694765,-0.0395113,4.20737,-12.6047,-0.0605487,1.94316,1.01141,1.91403,-0.164492,-1.31745,-2.89425,0.0109408,0.247049,-0.114795,0.309139,-2.27411,0.156291,0.701465,-0.0536017,0.0885212,0.0265101,0.0208442,0.000346524,-0.000297376,-0.0354055,0.000381104,0,0,0,0,0,0,0,-1.21045,-28.5555,-2.18505,26.1575,0.0619471,3.05962,-0.0163725,
0.248571,-0.114855,0.310655,-2.27264,0.154544,0.679698,-0.0535681,0.0271581,0.0028192,0.0271261,0.00473186,-0.0273265,-0.275162,5.5214e-05,0.939822,-1.55455,0.913623,2.03233,3.16238,-55.3753,0.0917355,3.37813,1.69539,3.43143,-0.144608,-1.14677,-8.82258,0.0149518,0.249171,-0.114113,0.310916,-2.27411,0.15534,0.698859,-0.0536052,0.0121045,0.0114481,0.0934027,-0.0026477,-0.0445522,-0.13027,-0.00135527,-9.55208,-1.88276,9.06981,-0.374278,-5.53185,-11.8581,-0.217047,-0.424923,-28.4325,-1.41142,26.2289,0.0683558,2.29058,0.0101778,
0.248827,-0.114896,0.310907,-2.27255,0.154703,0.67467,-0.0535696,0.0281171,0.00124901,0.0280116,0.0059609,-0.0178739,-0.345833,8.45549e-06,0.599404,-0.981374,0.553392,0.768148,5.90789,-44.1689,-0.0292241,3.35603,1.46808,3.39753,-0.0886563,-0.828162,-8.29757,0.0129722,0.249171,-0.114113,0.310916,-2.27411,0.15534,0.698859,-0.0536052,0.0121045,0.0114481,0.0934027,-0.0026477,-0.0445522,-0.13027,-0.00135527,0,0,0,0,0,0,0,-0.424923,-28.4325,-1.41142,26.2289,0.0683558,2.29058,0.0101778,
0.249076,-0.11492,0.311155,-2.27251,0.154993,0.66975,-0.0535644,0.0287347,0.000380387,0.0286163,0.00568946,-0.00706216,-0.39965,0.000136483,0.385996,-0.542886,0.377944,-0.169652,6.75731,-33.6358,0.0800173,3.34347,1.20287,3.3677,-0.073646,-0.526325,-7.80503,0.0132975,0.249171,-0.114113,0.310916,-2.27411,0.15534,0.698859,-0.0536052,0.0121045,0.0114481,0.0934027,-0.0026477,-0.0445522,-0.13027,-0.00135527,0,0,0,0,0,0,0,-0.424923,-28.4325,-1.41142,26.2289,0.0683558,2.29058,0.0101778,
0.250727,-0.114167,0.312562,-2.27259,0.153782,0.673776,-0.0535439,0.030142,-0.000772947,0.0304556,0.00764548,-0.00786621,-0.455225,0.000416011,0.879558,-0.720834,1.14957,1.22251,-0.502529,-34.7341,0.174705,4.01641,2.58948,4.24512,0.142847,-0.753963,-10.2021,0.0282989,0.249171,-0.114113,0.310916,-2.27411,0.15534,0.698859,-0.0536052,0.0121045,0.0114481,0.0934027,-0.0026477,-0.0445522,-0.13027,-0.00135527,0,0,0,0,0,0,0,-0.424923,-28.4325,-1.41142,26.2289,0.0683558,2.29058,0.0101778,
0.251006,-0.114198,0.312856,-2.27253,0.153887,0.668521,-0.0535458,0.0310795,-0.00139645,0.0317217,0.00754634,-0.00366487,-0.495547,0.00028358,0.585915,-0.389692,0.791323,-0.0619611,2.62583,-25.2018,-0.0827694,3.81368,2.09851,4.03569,0.225974,-0.392331,-9.3378,0.0185397,0.249171,-0.114113,0.310916,-2.27411,0.15534,0.698859,-0.0536052,0.0121045,0.0114481,0.0934027,-0.0026477,-0.0445522,-0.13027,-0.00135527,0,0,0,0,0,0,0,-0.424923,-28.4325,-1.41142,26.2289,0.0683558,2.29058,0.0101778,
0.251267,-0.11422,0.313169,-2.27253,0.15407,0.663532,-0.0535391,0.0313936,-0.00165178,0.0332076,0.00606533,0.00164003,-0.521174,0.000394282,0.196327,-0.159576,0.92869,-0.925632,3.31557,-16.0164,0.0691888,3.73792,1.4474,3.9504,0.206365,-0.277648,-8.41186,0.0218018,0.250221,-0.113734,0.313123,-2.27373,0.152677,0.68839,-0.0536061,0.0302759,0.0180735,0.0631269,0.0199971,-0.0513194,-0.464707,-0.000900374,2.27141,0.82818,-3.78448,2.8306,-0.845907,-41.8046,0.0568624,2.16175,-27.3573,0.389723,24.6619,0.697323,-0.0568331,0.017502,
0.251532,-0.114228,0.313486,-2.27256,0.154225,0.658842,-0.0535334,0.0317321,-0.00153753,0.0344935,0.00400836,0.00519578,-0.5342,0.000459462,0.211557,0.0714051,0.803668,-1.28561,2.22234,-8.14164,0.040738,3.54083,1.0196,3.77173,0.237679,-0.357924,-7.68938,0.0202919,0.250221,-0.113734,0.313123,-2.27373,0.152677,0.68839,-0.0536061,0.0302759,0.0180735,0.0631269,0.0199971,-0.0513194,-0.464707,-0.000900374,0,0,0,0,0,0,0,2.16175,-27.3573,0.389723,24.6619,0.697323,-0.0568331,0.017502,
0.251759,-0.113549,0.314685,-2.27289,0.152134,0.661337,-0.0535776,0.0328824,-0.000708567,0.0351175,0.00368477,0.00541726,-0.557486,0.000355988,0.718973,0.5181,0.390032,-0.202242,0.138428,-14.5539,-0.0646714,3.85655,2.03681,3.96312,0.424602,-0.383886,-9.40709,0.0279201,0.250221,-0.113734,0.313123,-2.27373,0.152677,0.68839,-0.0536061,0.0302759,0.0180735,0.0631269,0.0199971,-0.0513194,-0.464707,-0.000900374,0,0,0,0,0,0,0,2.16175,-27.3573,0.389723,24.6619,0.697323,-0.0568331,0.017502,
0.252059,-0.113517,0.314985,-2.27292,0.152294,0.656486,-0.0536131,0.0338219,0.000227064,0.0355934,0.0021574,0.00834082,-0.567254,-0.000603167,0.587145,0.584769,0.297438,-0.954609,1.82722,-6.10485,-0.599472,3.7166,1.60441,3.7772,0.457847,-0.00148154,-8.54986,0.00826995,0.250221,-0.113734,0.313123,-2.27373,0.152677,0.68839,-0.0536061,0.0302759,0.0180735,0.0631269,0.0199971,-0.0513194,-0.464707,-0.000900374,0,0,0,0,0,0,0,2.16175,-27.3573,0.389723,24.6619,0.697323,-0.0568331,0.017502,
0.252373,-0.11347,0.315302,-2.27299,0.152278,0.652067,-0.0536137,0.0348995,0.00136138,0.0363957,0.000107785,0.00627888,-0.56427,-0.000497175,0.673524,0.708949,0.501453,-1.28101,-1.28871,1.86513,0.0662451,3.76222,1.13107,3.81126,0.403433,-0.018458,-7.50855,0.0159377,0.252173,-0.113536,0.314315,-2.27178,0.152128,0.657882,-0.0536052,0.0770934,0.0188068,0.0159392,0.0526866,0.0032414,-1.03148,0.000991573,5.85219,0.0916557,-5.89847,4.08618,6.8201,-70.8462,0.236493,1.67774,-26.7345,0.838026,23.6145,0.422665,0.911795,-0.00996382,
