xiao-wang007/linearmpc_panda/paper_data/panda_inverse_dynamics_controller_error_match_to_start/2/trajectory.csv
Commanded Joint 0 Position,Commanded Joint 1 Position,Commanded Joint 2 Position,Commanded Joint 3 Position,Commanded Joint 4 Position,Commanded Joint 5 Position,Commanded Joint 6 Position,Commanded Joint 0 Velocity,Commanded Joint 1 Velocity,Commanded Joint 2 Velocity,Commanded Joint 3 Velocity,Commanded Joint 4 Velocity,Commanded Joint 5 Velocity,Commanded Joint 6 Velocity,Commanded Joint 0 Acceleration,Commanded Joint 1 Acceleration,Commanded Joint 2 Acceleration,Commanded Joint 3 Acceleration,Commanded Joint 4 Acceleration,Commanded Joint 5 Acceleration,Commanded Joint 6 Acceleration,Commanded Joint 0 Torque,Commanded Joint 1 Torque,Commanded Joint 2 Torque,Commanded Joint 3 Torque,Commanded Joint 4 Torque,Commanded Joint 5 Torque,Commanded Joint 6 Torque,Actual Joint 0 Position,Actual Joint 1 Position,Actual Joint 2 Position,Actual Joint 3 Position,Actual Joint 4 Position,Actual Joint 5 Position,Actual Joint 6 Position,Actual Joint 0 Velocity,Actual Joint 1 Velocity,Actual Joint 2 Velocity,Actual Joint 3 Velocity,Actual Joint 4 Velocity,Actual Joint 5 Velocity,Actual Joint 6 Velocity,Actual Joint 0 Acceleration,Actual Joint 1 Acceleration,Actual Joint 2 Acceleration,Actual Joint 3 Acceleration,Actual Joint 4 Acceleration,Actual Joint 5 Acceleration,Actual Joint 6 Acceleration,Actual Joint 0 Torque,Actual Joint 1 Torque,Actual Joint 2 Torque,Actual Joint 3 Torque,Actual Joint 4 Torque,Actual Joint 5 Torque,Actual Joint 6 Torque,
-0.0591144,-0.13011,0.00248428,-1.92,-0.00475367,0.264113,-0.025233,0.000440318,0.0183234,0.000559709,-0.0348567,-0.00406545,0.0526757,-0.000371174,0.275199,11.4521,0.349818,-21.7854,-2.54091,32.9223,-0.231984,0.0579285,20.3163,0.194295,-24.4235,-0.556211,1.90004,-0.0243432,-0.059133,-0.1306,0.00249152,-1.91744,-0.00464817,0.25845,-0.0251947,0.00170941,0.00212887,-0.000104461,-0.00876132,-0.00515259,0.00164057,-0.000941297,0,0,0,0,0,0,0,-0.119442,-30.5034,-0.312487,27.2009,0.948178,2.9937,0.0779268,
-0.059126,-0.13053,0.00249955,-1.9175,-0.00469969,0.258368,-0.0251958,0.00038193,0.015159,0.00048348,-0.0282194,-0.00348653,0.041493,-0.000301842,-0.0364921,-1.97776,-0.0476432,4.1483,0.361824,-6.9892,0.0433323,0.0521673,20.7571,0.183903,-24.3399,-0.556641,1.64901,-0.022828,-0.059133,-0.1306,0.00249152,-1.91744,-0.00464817,0.25845,-0.0251947,0.00170941,0.00212887,-0.000104461,-0.00876132,-0.00515259,0.00164057,-0.000941297,0,0,0,0,0,0,0,-0.119442,-30.5034,-0.312487,27.2009,0.948178,2.9937,0.0779268,
-0.0591253,-0.130513,0.00250033,-1.91751,-0.00470521,0.258347,-0.0251959,0.00032175,0.0125398,0.000406165,-0.0228355,-0.0029272,0.0326713,-0.000244899,-0.0376125,-1.63701,-0.0483216,3.36491,0.349581,-5.51355,0.0355895,0.0449486,21.3288,0.172139,-24.2318,-0.55627,1.30131,-0.0208595,-0.059133,-0.1306,0.00249152,-1.91744,-0.00464817,0.25845,-0.0251947,0.00170941,0.00212887,-0.000104461,-0.00876132,-0.00515259,0.00164057,-0.000941297,0,0,0,0,0,0,0,-0.119442,-30.5034,-0.312487,27.2009,0.948178,2.9937,0.0779268,
-0.059125,-0.1305,0.00250071,-1.91752,-0.00470845,0.258331,-0.025196,0.000265738,0.0103726,0.000334644,-0.0184742,-0.00242281,0.0257317,-0.000198411,-0.0350077,-1.3545,-0.0447012,2.72582,0.315247,-4.33725,0.0290547,0.039006,21.8533,0.162673,-24.0628,-0.554333,0.917587,-0.0188687,-0.0591363,-0.130553,0.00249547,-1.91775,-0.00464223,0.258449,-0.0251909,0.00049987,0.00272908,0.00111238,-0.00597751,-0.00510303,0.000624442,2.56471e-05,-0.151193,0.0750258,0.152105,0.347976,0.00619488,-0.127016,0.120868,-0.0718349,-30.7018,-0.312487,27.0779,0.923458,3.00011,0.0440523,
-0.0591172,-0.130173,0.00251526,-1.91838,-0.00483998,0.258701,-0.0251861,0.000690974,0.0177837,0.000762392,-0.030532,-0.00688202,0.0268675,-3.82535e-05,0.265773,4.63193,0.267343,-7.53611,-2.78701,0.709923,0.100099,1.43008e-07,26.4686,0.140023,-23.3272,-0.98115,-2.31874,0.00104422,-0.0591363,-0.130553,0.00249547,-1.91775,-0.00464223,0.258449,-0.0251909,0.00049987,0.00272908,0.00111238,-0.00597751,-0.00510303,0.000624442,2.56471e-05,0,0,0,0,0,0,0,-0.0718349,-30.7018,-0.312487,27.0779,0.923458,3.00011,0.0440523,
-0.0591707,-0.129788,0.00248283,-1.91865,-0.00393581,0.258125,-0.0252034,-0.000784416,0.0238504,-0.000200711,-0.0311992,0.0170985,0.00711183,-0.000463195,-0.922119,3.79172,-0.601939,-0.417019,14.9878,-12.3473,-0.265589,0.490362,0.158875,0.480237,-0.247474,3.4816,-1.56819,-0.00132615,-0.0591363,-0.130553,0.00249547,-1.91775,-0.00464223,0.258449,-0.0251909,0.00049987,0.00272908,0.00111238,-0.00597751,-0.00510303,0.000624442,2.56471e-05,0,0,0,0,0,0,0,-0.0718349,-30.7018,-0.312487,27.0779,0.923458,3.00011,0.0440523,
-0.0592398,-0.129476,0.00242356,-1.91882,-0.00237187,0.257204,-0.0252141,-0.00235684,0.026895,-0.00164231,-0.0291821,0.0527775,-0.0173338,-0.000638912,-0.982764,1.90285,-0.901001,1.26072,22.2994,-15.2785,-0.109823,0.485428,0.157619,0.475268,-0.244861,3.45141,-1.55436,-0.00130014,-0.0591363,-0.130553,0.00249547,-1.91775,-0.00464223,0.258449,-0.0251909,0.00049987,0.00272908,0.00111238,-0.00597751,-0.00510303,0.000624442,2.56471e-05,0,0,0,0,0,0,0,-0.0718349,-30.7018,-0.312487,27.0779,0.923458,3.00011,0.0440523,
-0.0593057,-0.129233,0.00236104,-1.91895,-0.000417705,0.256113,-0.0252201,-0.00353277,0.0275944,-0.00287707,-0.0265612,0.091076,-0.0411636,-0.000659137,-0.734954,0.437154,-0.771724,1.63805,23.9366,-14.8936,-0.012641,0.476472,0.256353,0.464007,-0.212372,3.42367,-1.50647,-0.00145329,-0.0590899,-0.128181,0.00261246,-1.92138,-0.004923,0.259816,-0.0251932,0.00280968,0.0636724,0.00558086,-0.208403,-0.0141875,0.246693,-0.000682157,0.288726,7.61791,0.55856,-25.3032,-1.13556,30.7586,-0.0884756,-0.476498,-20.6209,-0.812364,25.856,0.850216,3.88177,0.0641939,
-0.0590433,-0.127143,0.00266267,-1.92263,-0.00528499,0.260495,-0.0251874,-0.00166062,0.0480203,-0.00104665,-0.0525296,0.0638109,-0.0159487,-0.000384162,1.17009,12.7662,1.14401,-16.2302,-17.0407,15.7593,0.17186,-0.00400712,26.5687,0.133752,-23.2972,-0.97861,-2.28473,0.000869644,-0.0590899,-0.128181,0.00261246,-1.92138,-0.004923,0.259816,-0.0251932,0.00280968,0.0636724,0.00558086,-0.208403,-0.0141875,0.246693,-0.000682157,0,0,0,0,0,0,0,-0.476498,-20.6209,-0.812364,25.856,0.850216,3.88177,0.0641939,
-0.0591572,-0.126177,0.00260998,-1.92304,-0.00233334,0.257865,-0.0252412,-0.00417485,0.0625778,-0.00215453,-0.0521875,0.12484,-0.0784961,-0.00165162,-1.57139,9.09841,-0.692423,0.213769,38.1432,-39.0921,-0.792161,4.1654,1.07271,4.25589,-1.86159,11.0214,-9.05629,-0.00695118,-0.0590899,-0.128181,0.00261246,-1.92138,-0.004923,0.259816,-0.0251932,0.00280968,0.0636724,0.00558086,-0.208403,-0.0141875,0.246693,-0.000682157,0,0,0,0,0,0,0,-0.476498,-20.6209,-0.812364,25.856,0.850216,3.88177,0.0641939,
-0.0592824,-0.125436,0.00251771,-1.92326,0.00264398,0.253571,-0.0252742,-0.00647071,0.0685755,-0.00403039,-0.0472799,0.224305,-0.170167,-0.00214536,-1.43491,3.74857,-1.17241,3.06727,62.1656,-57.2943,-0.308591,4.10099,1.14676,4.20813,-1.7983,11.0214,-8.89646,-0.00588887,-0.0590899,-0.128181,0.00261246,-1.92138,-0.004923,0.259816,-0.0251932,0.00280968,0.0636724,0.00558086,-0.208403,-0.0141875,0.246693,-0.000682157,0,0,0,0,0,0,0,-0.476498,-20.6209,-0.812364,25.856,0.850216,3.88177,0.0641939,
-0.059374,-0.124884,0.00244308,-1.92344,0.00885814,0.248328,-0.0252922,-0.00746703,0.0686658,-0.00509008,-0.0424207,0.334798,-0.267193,-0.00216756,-0.622699,0.0564471,-0.662308,3.03702,69.058,-60.641,-0.0138744,4.03065,1.16686,4.14641,-1.75318,11.0185,-8.72742,-0.00545493,-0.0590889,-0.128287,0.00266956,-1.92838,-0.003776,0.263493,-0.0251883,0.000632904,0.00389039,0.000709139,-0.128379,0.101016,-0.0154924,0.000872063,-0.272097,-7.47275,-0.608965,10.003,14.4004,-32.7732,0.194277,1.27307,-41.7824,1.11177,37.5912,1.38763,4.57116,0.0303194,
-0.0590406,-0.127699,0.00271171,-1.92939,-0.00352615,0.263144,-0.0251754,-0.00476731,0.0696447,-0.00301843,-0.0592452,0.274085,-0.222477,-0.0014119,1.68733,0.611782,1.29478,-10.5153,-37.9457,27.947,0.47229,-0.000340666,26.5383,0.138386,-23.3086,-0.981533,-2.28145,0.000793855,-0.0590889,-0.128287,0.00266956,-1.92838,-0.003776,0.263493,-0.0251883,0.000632904,0.00389039,0.000709139,-0.128379,0.101016,-0.0154924,0.000872063,0,0,0,0,0,0,0,1.27307,-41.7824,1.11177,37.5912,1.38763,4.57116,0.0303194,
-0.0585761,-0.127286,0.00319693,-1.92996,-0.00111745,0.258902,-0.025143,0.00779836,0.0660406,0.00971584,-0.0616128,0.279485,-0.284037,-0.000318053,7.85354,-2.25256,7.95892,-1.47973,3.37533,-38.4746,0.683654,29.223,-1.12245,30.177,-12.2979,11.0185,-14.2815,0.036535,-0.0590889,-0.128287,0.00266956,-1.92838,-0.003776,0.263493,-0.0251883,0.000632904,0.00389039,0.000709139,-0.128379,0.101016,-0.0154924,0.000872063,0,0,0,0,0,0,0,1.27307,-41.7824,1.11177,37.5912,1.38763,4.57116,0.0303194,
-0.057791,-0.127028,0.004039,-1.93042,0.00289548,0.252311,-0.0250925,0.0258662,0.0592869,0.0288243,-0.0607902,0.323911,-0.392002,0.00100667,11.2924,-4.22106,11.9428,0.514129,27.7662,-67.4782,0.827953,28.0167,0.161472,29.2991,-10.6041,11.0185,-14.2815,0.0567689,-0.0590889,-0.128287,0.00266956,-1.92838,-0.003776,0.263493,-0.0251883,0.000632904,0.00389039,0.000709139,-0.128379,0.101016,-0.0154924,0.000872063,0,0,0,0,0,0,0,1.27307,-41.7824,1.11177,37.5912,1.38763,4.57116,0.0303194,
-0.0567541,-0.126881,0.00514912,-1.93087,0.00810002,0.24422,-0.0250236,0.0466158,0.0511011,0.0508126,-0.059902,0.389243,-0.515874,0.00252873,12.9685,-5.11611,13.7427,0.555094,40.8321,-77.42,0.951286,26.8338,0.144701,28.187,-9.39447,11.0185,-14.2815,0.0792498,-0.0590889,-0.128287,0.00266956,-1.92838,-0.003776,0.263493,-0.0251883,0.000632904,0.00389039,0.000709139,-0.128379,0.101016,-0.0154924,0.000872063,0,0,0,0,0,0,0,1.27307,-41.7824,1.11177,37.5912,1.38763,4.57116,0.0303194,
-0.0560384,-0.124924,0.00593352,-1.9334,0.0159277,0.234334,-0.0248746,0.0731628,0.0357535,0.0776153,-0.0739174,0.452764,-0.616429,0.00429925,16.5919,-9.59225,16.7517,-8.75962,39.7009,-62.847,1.10657,40.4682,-1.96642,42.1029,-22.0854,10.9422,-14.2022,0.217381,-0.0584865,-0.124474,0.00343485,-1.93138,0.00512547,0.249415,-0.0251835,0.0405737,0.00677553,0.0345811,-0.0569929,0.635016,-0.699909,0.00312535,4.9926,0.360642,4.23399,8.92331,66.7501,-85.552,0.281661,4.34375,-34.5461,4.38875,32.0331,2.79846,1.6671,-0.0227812,
-0.0543441,-0.125015,0.00770129,-1.93443,0.0222007,0.225317,-0.0248478,0.100888,0.0263098,0.106286,-0.0848932,0.519038,-0.718585,0.00410842,17.3284,-5.90234,17.9195,-6.85989,41.4213,-63.8475,-0.119264,36.3009,1.61525,37.7601,-19.8028,10.9422,-14.2022,0.0714355,-0.0584865,-0.124474,0.00343485,-1.93138,0.00512547,0.249415,-0.0251835,0.0405737,0.00677553,0.0345811,-0.0569929,0.635016,-0.699909,0.00312535,0,0,0,0,0,0,0,4.34375,-34.5461,4.38875,32.0331,2.79846,1.6671,-0.0227812,
-0.0524913,-0.125013,0.00964993,-1.93548,0.0290569,0.215722,-0.0248392,0.12703,0.0211054,0.133745,-0.0940128,0.586635,-0.814743,0.00350207,16.3386,-3.25272,17.1617,-5.69976,42.2479,-60.0987,-0.37897,33.4646,3.4987,34.9207,-18.1046,10.9422,-14.2022,0.0101474,-0.0584865,-0.124474,0.00343485,-1.93138,0.00512547,0.249415,-0.0251835,0.0405737,0.00677553,0.0345811,-0.0569929,0.635016,-0.699909,0.00312535,0,0,0,0,0,0,0,4.34375,-34.5461,4.38875,32.0331,2.79846,1.6671,-0.0227812,
-0.0505494,-0.124967,0.0117022,-1.93658,0.0364156,0.205755,-0.0248162,0.150171,0.0180284,0.158304,-0.102699,0.653275,-0.900951,0.0033758,14.4633,-1.92315,15.3493,-5.429,41.65,-53.8797,-0.0789192,31.3205,3.80805,32.8229,-17.0745,10.9422,-14.2022,-0.0008228,-0.0584865,-0.124474,0.00343485,-1.93138,0.00512547,0.249415,-0.0251835,0.0405737,0.00677553,0.0345811,-0.0569929,0.635016,-0.699909,0.00312535,0,0,0,0,0,0,0,4.34375,-34.5461,4.38875,32.0331,2.79846,1.6671,-0.0227812,
-0.0514557,-0.125007,0.010528,-1.93907,0.0451606,0.204905,-0.0252685,0.1768,0.00621833,0.185689,-0.117961,0.726097,-0.963468,0.00201139,16.6433,-7.38127,17.1154,-9.53857,45.5138,-39.0736,-0.852754,38.6759,2.2447,40.5265,-24.9384,10.9062,-13.9411,0.045847,-0.0558074,-0.124145,0.0060068,-1.93621,0.0287566,0.223909,-0.0253096,0.200673,-0.0953346,0.230021,-0.177116,1.12558,-1.08991,-0.0149696,20.0124,-12.7638,24.4299,-15.0154,61.3206,-48.7502,-2.26186,23.1606,-39.1402,23.1342,23.2892,6.70684,-3.41865,0.151169,
-0.0491157,-0.125192,0.0129773,-1.94053,0.0533993,0.194913,-0.0253385,0.199941,0.000340568,0.209783,-0.130888,0.786845,-1.02058,-0.000140589,14.4625,-3.6736,15.0592,-8.07938,37.9673,-35.6962,-1.34499,35.0185,3.40486,36.6602,-23.3911,10.9062,-13.9411,-0.0603237,-0.0558074,-0.124145,0.0060068,-1.93621,0.0287566,0.223909,-0.0253096,0.200673,-0.0953346,0.230021,-0.177116,1.12558,-1.08991,-0.0149696,0,0,0,0,0,0,0,23.1606,-39.1402,23.1342,23.2892,6.70684,-3.41865,0.151169,
-0.0467643,-0.125307,0.0154452,-1.94207,0.0618066,0.184894,-0.0254045,0.218737,-0.00259151,0.229525,-0.143322,0.839659,-1.06694,-0.0017608,11.7478,-1.83255,12.3383,-7.77097,33.0089,-28.9723,-1.01263,32.4315,3.22259,33.9669,-22.4353,10.9062,-13.9411,-0.096459,-0.0558074,-0.124145,0.0060068,-1.93621,0.0287566,0.223909,-0.0253096,0.200673,-0.0953346,0.230021,-0.177116,1.12558,-1.08991,-0.0149696,0,0,0,0,0,0,0,23.1606,-39.1402,23.1342,23.2892,6.70684,-3.41865,0.151169,
-0.0444461,-0.125398,0.0178818,-1.94371,0.0703903,0.17497,-0.0254646,0.232943,-0.00436491,0.244535,-0.155612,0.88632,-1.10165,-0.00291266,8.87894,-1.10837,9.38137,-7.68128,29.163,-21.6938,-0.719915,30.317,2.1628,31.7747,-22.0834,10.9062,-13.3481,-0.0815204,-0.0558074,-0.124145,0.0060068,-1.93621,0.0287566,0.223909,-0.0253096,0.200673,-0.0953346,0.230021,-0.177116,1.12558,-1.08991,-0.0149696,0,0,0,0,0,0,0,23.1606,-39.1402,23.1342,23.2892,6.70684,-3.41865,0.151169,
-0.0543223,-0.124027,0.00751416,-1.93763,0.0349014,0.217773,-0.0252948,0.223483,-0.000538984,0.233312,-0.159996,0.862676,-1.03473,-0.00196188,-5.91281,2.3912,-7.01435,-2.74047,-14.7771,41.8219,0.594239,0.150974,27.244,0.394681,-23.2588,-1.1204,-1.56199,0.00198855,-0.043653,-0.12687,0.0189765,-1.94693,0.0697348,0.179627,-0.0254019,0.312856,-0.155086,0.315478,-0.299679,1.22208,-1.41208,-0.00187737,14.0229,-7.46894,10.6821,-15.3204,12.0625,-40.2708,1.63652,18.1142,-30.2535,20.2619,20.401,4.01977,-1.3166,0.131027,
-0.052578,-0.123931,0.00936116,-1.93929,0.0414606,0.210587,-0.0254398,0.222394,0.00196954,0.232824,-0.16958,0.854119,-1.00744,-0.00519242,-0.680755,1.56783,-0.304753,-5.98967,-5.34799,17.0567,-2.01909,34.7812,6.53664,36.7739,-28.9546,10.8796,-12.7638,-0.209154,-0.043653,-0.12687,0.0189765,-1.94693,0.0697348,0.179627,-0.0254019,0.312856,-0.155086,0.315478,-0.299679,1.22208,-1.41208,-0.00187737,0,0,0,0,0,0,0,18.1142,-30.2535,20.2619,20.401,4.01977,-1.3166,0.131027,
-0.0506676,-0.123827,0.0113805,-1.94112,0.0485027,0.202771,-0.0256425,0.225674,0.00415939,0.236743,-0.181369,0.859349,-1.00133,-0.00922367,2.05038,1.36865,2.44905,-7.3684,3.26866,3.8192,-2.51953,32.0059,5.37087,33.7605,-28.2687,10.8796,-12.0914,-0.264569,-0.043653,-0.12687,0.0189765,-1.94693,0.0697348,0.179627,-0.0254019,0.312856,-0.155086,0.315478,-0.299679,1.22208,-1.41208,-0.00187737,0,0,0,0,0,0,0,18.1142,-30.2535,20.2619,20.401,4.01977,-1.3166,0.131027,
-0.0291809,-0.128598,0.0341868,-1.96304,0.135021,0.143698,-0.0264873,0.226053,0.00383876,0.237355,-0.201699,0.912591,-0.83789,-0.0102498,0.236741,-0.200394,0.382812,-12.7058,33.2763,102.151,-0.641316,24.3174,1.17777,25.5798,-27.2682,10.8796,-7.32455,-0.227191,-0.043653,-0.12687,0.0189765,-1.94693,0.0697348,0.179627,-0.0254019,0.312856,-0.155086,0.315478,-0.299679,1.22208,-1.41208,-0.00187737,0,0,0,0,0,0,0,18.1142,-30.2535,20.2619,20.401,4.01977,-1.3166,0.131027,
-0.0274235,-0.128557,0.0360396,-1.96526,0.143932,0.143052,-0.0265871,0.224778,0.00410428,0.236204,-0.216864,0.952842,-0.686467,-0.010695,-0.796884,0.165955,-0.719764,-9.47841,25.1564,94.6395,-0.278248,23.2368,0.521614,24.5121,-26.0936,10.9156,-4.91298,-0.226991,-0.0308768,-0.129273,0.0335495,-1.95812,0.1082,0.134914,-0.0253608,0.392318,-0.0694119,0.49797,-0.224099,0.690777,-1.08885,0.00507408,9.93265,10.7093,22.8115,9.44748,-66.4131,40.4035,0.868931,-1.79364,-31.9515,-2.03826,32.533,0.0198328,5.48668,-0.0301054,
-0.0257242,-0.128503,0.0378318,-1.96743,0.152759,0.143109,-0.0266717,0.222305,0.00462726,0.233768,-0.227759,0.982938,-0.547754,-0.01067,-1.54547,0.326862,-1.52222,-6.80939,18.8104,86.6956,0.0156368,22.1936,0.357849,23.4193,-25.6497,10.9156,-3.19367,-0.215076,-0.0308768,-0.129273,0.0335495,-1.95812,0.1082,0.134914,-0.0253608,0.392318,-0.0694119,0.49797,-0.224099,0.690777,-1.08885,0.00507408,0,0,0,0,0,0,0,-1.79364,-31.9515,-2.03826,32.533,0.0198328,5.48668,-0.0301054,
-0.0240789,-0.128442,0.0395676,-1.96955,0.161511,0.143756,-0.0267426,0.218977,0.00522406,0.230411,-0.235159,1.00515,-0.422019,-0.0103087,-2.08029,0.373,-2.0982,-4.62521,13.8816,78.5841,0.225802,21.3781,0.165155,22.5624,-25.2611,10.9156,-1.73472,-0.199507,-0.0308768,-0.129273,0.0335495,-1.95812,0.1082,0.134914,-0.0253608,0.392318,-0.0694119,0.49797,-0.224099,0.690777,-1.08885,0.00507408,0,0,0,0,0,0,0,-1.79364,-31.9515,-2.03826,32.533,0.0198328,5.48668,-0.0301054,
-0.0190871,-0.13028,0.0460912,-1.96956,0.15138,0.120879,-0.0260379,0.224043,0.00357038,0.235999,-0.243248,1.03152,-0.348066,-0.0105481,3.16659,-1.03355,3.49235,-5.05528,16.4793,46.2206,-0.14965,20.7104,-0.0135709,21.856,-24.9118,10.9156,-0.511107,-0.178954,-0.0308768,-0.129273,0.0335495,-1.95812,0.1082,0.134914,-0.0253608,0.392318,-0.0694119,0.49797,-0.224099,0.690777,-1.08885,0.00507408,0,0,0,0,0,0,0,-1.79364,-31.9515,-2.03826,32.533,0.0198328,5.48668,-0.0301054,
-0.0172496,-0.130272,0.0480336,-1.9717,0.160418,0.121208,-0.0261141,0.225172,0.00304033,0.237359,-0.24814,1.05116,-0.270224,-0.0103439,0.70529,-0.331283,0.849948,-3.05755,12.2789,48.6515,0.127627,19.7515,-0.895453,20.9122,-24.3542,10.6518,0.430316,-0.161268,-0.0215631,-0.126844,0.0500456,-1.96378,0.109506,0.118189,-0.0252967,0.229447,0.0454372,0.431535,-0.117148,0.246468,-0.0540182,-0.000759208,-20.3588,14.3561,-8.30435,13.3689,-55.5386,129.354,-0.729161,-13.8661,-34.1731,-14.8367,38.4125,0.550839,9.61754,0.218918,
-0.0155085,-0.130246,0.049874,-1.97378,0.169371,0.122138,-0.0261754,0.223664,0.00308902,0.235898,-0.250503,1.06475,-0.192939,-0.00980694,-0.942649,0.0304295,-0.913218,-1.47673,8.49515,48.3034,0.335606,19.2267,-0.961409,20.3511,-24.0288,10.6518,1.27181,-0.140055,-0.0215631,-0.126844,0.0500456,-1.96378,0.109506,0.118189,-0.0252967,0.229447,0.0454372,0.431535,-0.117148,0.246468,-0.0540182,-0.000759208,0,0,0,0,0,0,0,-13.8661,-34.1731,-14.8367,38.4125,0.550839,9.61754,0.218918,
-0.0138492,-0.130209,0.0516285,-1.9758,0.178232,0.123546,-0.0262236,0.220415,0.00340509,0.232579,-0.250895,1.07333,-0.119159,-0.00904958,-2.0303,0.197548,-2.07405,-0.245308,5.36065,46.1124,0.473349,18.7353,-0.965573,19.8243,-23.7009,10.6518,1.95678,-0.120994,-0.0215631,-0.126844,0.0500456,-1.96378,0.109506,0.118189,-0.0252967,0.229447,0.0454372,0.431535,-0.117148,0.246468,-0.0540182,-0.000759208,0,0,0,0,0,0,0,-13.8661,-34.1731,-14.8367,38.4125,0.550839,9.61754,0.218918,
-0.0194335,-0.126839,0.0523914,-1.96552,0.114302,0.118266,-0.0254838,0.229571,0.0028445,0.244707,-0.244283,0.978579,-0.0933908,-0.0119174,5.72248,-0.350372,7.57974,4.13239,-59.2202,16.105,-1.79237,20.3337,-0.762634,21.5313,-24.6853,10.6518,-0.592477,-0.180987,-0.0215631,-0.126844,0.0500456,-1.96378,0.109506,0.118189,-0.0252967,0.229447,0.0454372,0.431535,-0.117148,0.246468,-0.0540182,-0.000759208,0,0,0,0,0,0,0,-13.8661,-34.1731,-14.8367,38.4125,0.550839,9.61754,0.218918,
-0.0175217,-0.12691,0.0544548,-1.96748,0.120709,0.118534,-0.0256425,0.231451,0.000505758,0.247351,-0.244265,0.943023,-0.0680304,-0.0135018,1.17514,-1.46171,1.65274,0.0117467,-22.2223,15.8503,-0.990273,19.7732,-0.861868,20.9934,-24.3589,10.5906,0.496827,-0.162588,-0.0152079,-0.125036,0.0643152,-1.96911,0.123879,0.125041,-0.0252852,0.189759,0.0120255,0.430984,-0.171005,0.814153,0.162176,-0.00157608,-4.96095,-4.17647,-0.0688194,-6.73204,70.9607,27.0243,-0.102109,-2.27765,-31.0033,-3.71245,21.123,-1.14106,5.01519,0.0440523,
-0.0157506,-0.126987,0.0563528,-1.96949,0.128029,0.11904,-0.0257725,0.22944,-0.00152429,0.24533,-0.245688,0.937421,-0.0417691,-0.0140501,-1.25698,-1.26878,-1.2629,-0.889572,-3.50128,16.4133,-0.342698,19.2484,-0.927824,20.4322,-24.0336,10.5906,1.33832,-0.141375,-0.0152079,-0.125036,0.0643152,-1.96911,0.123879,0.125041,-0.0252852,0.189759,0.0120255,0.430984,-0.171005,0.814153,0.162176,-0.00157608,0,0,0,0,0,0,0,-2.27765,-31.0033,-3.71245,21.123,-1.14106,5.01519,0.0440523,
-0.0140715,-0.127054,0.0581442,-1.97151,0.13587,0.119851,-0.0258806,0.225529,-0.00288616,0.24105,-0.24707,0.945972,-0.0131321,-0.0139438,-2.44437,-0.851168,-2.67536,-0.863967,5.34447,17.8981,0.0664235,18.757,-0.931988,19.9054,-23.7057,10.5906,2.02329,-0.122314,-0.0152079,-0.125036,0.0643152,-1.96911,0.123879,0.125041,-0.0252852,0.189759,0.0120255,0.430984,-0.171005,0.814153,0.162176,-0.00157608,0,0,0,0,0,0,0,-2.27765,-31.0033,-3.71245,21.123,-1.14106,5.01519,0.0440523,
-0.00770702,-0.125397,0.0723486,-1.97656,0.156862,0.132477,-0.0256591,0.222563,-0.00428829,0.237616,-0.244878,0.972678,0.0418021,-0.0127721,-1.85369,-0.87633,-2.14597,1.3702,16.6912,34.3338,0.732342,18.757,-0.931988,19.9054,-23.7057,10.5906,2.02329,-0.122314,-0.0152079,-0.125036,0.0643152,-1.96911,0.123879,0.125041,-0.0252852,0.189759,0.0120255,0.430984,-0.171005,0.814153,0.162176,-0.00157608,0,0,0,0,0,0,0,-2.27765,-31.0033,-3.71245,21.123,-1.14106,5.01519,0.0440523,
-0.00610061,-0.125457,0.0740542,-1.97843,0.165536,0.134734,-0.025709,0.218211,-0.00493261,0.232733,-0.24262,0.994999,0.0898877,-0.0114665,-2.72021,-0.402701,-3.05193,1.41092,13.9504,30.0536,0.815989,18.2934,-0.878615,19.4073,-23.3746,10.5906,2.56943,-0.102955,-0.0152079,-0.125036,0.0643152,-1.96911,0.123879,0.125041,-0.0252852,0.189759,0.0120255,0.430984,-0.171005,0.814153,0.162176,-0.00157608,0,0,0,0,0,0,0,-2.27765,-31.0033,-3.71245,21.123,-1.14106,5.01519,0.0440523,
-0.00455916,-0.125499,0.0756904,-1.98028,0.174203,0.137142,-0.0257455,0.213105,-0.00499544,0.227092,-0.240167,1.01268,0.132108,-0.010085,-3.19115,-0.0392677,-3.52593,1.53323,11.049,26.3877,0.863456,17.8248,-0.902841,18.9402,-23.189,10.4612,2.88931,-0.0845987,-0.0097911,-0.122348,0.0732812,-1.97269,0.153469,0.127639,-0.0253231,0.142381,0.00439405,0.210013,-0.0919,0.737534,0.0200814,-0.00178568,-5.92235,-0.95393,-27.6214,9.88809,-9.57739,-17.7619,-0.0262007,-5.70141,-34.3199,-6.88628,20.2264,-0.0781286,1.16997,0.0239107,
-0.00307329,-0.125525,0.0772677,-1.98209,0.182841,0.139675,-0.0257702,0.207631,-0.00463688,0.221105,-0.237474,1.02609,0.169011,-0.00868564,-3.4215,0.224101,-3.74152,1.68329,8.38079,23.0646,0.874586,17.3966,-0.778541,18.4795,-22.8518,10.4612,3.21273,-0.0674819,-0.0097911,-0.122348,0.0732812,-1.97269,0.153469,0.127639,-0.0253231,0.142381,0.00439405,0.210013,-0.0919,0.737534,0.0200814,-0.00178568,0,0,0,0,0,0,0,-5.70141,-34.3199,-6.88628,20.2264,-0.0781286,1.16997,0.0239107,
-0.00336699,-0.123055,0.0801463,-1.98123,0.191773,0.139166,-0.0254457,0.197674,-0.00503401,0.210477,-0.233166,1.02366,0.203059,-0.00698772,-6.22299,-0.248212,-6.64288,2.69218,-1.51728,21.2799,1.0612,16.9805,-0.639236,18.0317,-22.5131,10.4612,3.44786,-0.0521716,-0.0097911,-0.122348,0.0732812,-1.97269,0.153469,0.127639,-0.0253231,0.142381,0.00439405,0.210013,-0.0919,0.737534,0.0200814,-0.00178568,0,0,0,0,0,0,0,-5.70141,-34.3199,-6.88628,20.2264,-0.0781286,1.16997,0.0239107,
-0.00211868,-0.123079,0.0814742,-1.98293,0.19996,0.141939,-0.0254382,0.189347,-0.00460838,0.201579,-0.229062,1.02361,0.231763,-0.00540141,-5.20446,0.266019,-5.561,2.5656,-0.0282928,17.9398,0.991447,16.5781,-0.490163,17.5987,-22.1757,10.4612,3.60901,-0.037163,-0.0097911,-0.122348,0.0732812,-1.97269,0.153469,0.127639,-0.0253231,0.142381,0.00439405,0.210013,-0.0919,0.737534,0.0200814,-0.00178568,0,0,0,0,0,0,0,-5.70141,-34.3199,-6.88628,20.2264,-0.0781286,1.16997,0.0239107,
-0.000887423,-0.12308,0.0827838,-1.98461,0.208193,0.144735,-0.0254222,0.182259,-0.00371429,0.194005,-0.225093,1.02472,0.255307,-0.00392291,-4.42988,0.55881,-4.73401,2.48012,0.689427,14.7152,0.92406,16.2102,-0.307456,17.2318,-21.9344,10.3585,3.68308,-0.024085,-0.005593,-0.121265,0.0790948,-1.97476,0.180653,0.130361,-0.0253341,0.120079,0.0405324,0.143834,-0.0820938,0.917664,0.0822444,-0.00163271,-2.78769,4.5173,-8.27233,1.22578,22.5162,7.77037,0.019121,-4.91589,-27.0836,-5.18828,22.095,0.397946,3.05962,0.124619,
0.000324615,-0.123064,0.0840731,-1.98625,0.216451,0.147528,-0.0253982,0.176108,-0.00258387,0.187435,-0.221237,1.02623,0.274074,-0.00253705,-3.84427,0.706509,-4.10612,2.41045,0.945689,11.7293,0.866167,15.8288,-0.163141,16.8217,-21.6015,10.3585,3.73139,-0.0109582,-0.005593,-0.121265,0.0790948,-1.97476,0.180653,0.130361,-0.0253341,0.120079,0.0405324,0.143834,-0.0820938,0.917664,0.0822444,-0.00163271,0,0,0,0,0,0,0,-4.91589,-27.0836,-5.18828,22.095,0.397946,3.05962,0.124619,
-7.02302e-05,-0.121308,0.0849747,-1.98282,0.220497,0.142945,-0.025248,0.169002,-0.00150469,0.179866,-0.217533,1.02385,0.28756,-0.0011935,-4.44115,0.674491,-4.7308,2.31457,-1.48546,8.42858,0.839717,15.4555,-0.0291476,16.4202,-21.2715,10.3585,3.7378,0.000977245,-0.005593,-0.121265,0.0790948,-1.97476,0.180653,0.130361,-0.0253341,0.120079,0.0405324,0.143834,-0.0820938,0.917664,0.0822444,-0.00163271,0,0,0,0,0,0,0,-4.91589,-27.0836,-5.18828,22.095,0.397946,3.05962,0.124619,
0.00104855,-0.121271,0.0861649,-1.98441,0.228626,0.145669,-0.0252068,0.163171,-0.00028335,0.173646,-0.213912,1.02233,0.298142,7.67772e-05,-3.64431,0.763337,-3.88705,2.26338,-0.953347,6.61374,0.793923,15.0917,0.0955889,16.0291,-20.9456,10.3585,3.71382,0.0125113,-0.005593,-0.121265,0.0790948,-1.97476,0.180653,0.130361,-0.0253341,0.120079,0.0405324,0.143834,-0.0820938,0.917664,0.0822444,-0.00163271,0,0,0,0,0,0,0,-4.91589,-27.0836,-5.18828,22.095,0.397946,3.05962,0.124619,
0.00216771,-0.121224,0.0873513,-1.98598,0.236577,0.148366,-0.0251544,0.158516,0.000934308,0.168578,-0.210176,1.01663,0.305945,0.00136954,-2.9096,0.761036,-3.16787,2.33523,-3.56187,4.87702,0.807975,14.7623,0.215502,15.7021,-20.6511,10.2509,3.66879,0.0226457,-0.00210198,-0.120899,0.0834491,-1.97804,0.212816,0.134986,-0.0253214,0.105433,0.0729988,0.148591,-0.111947,0.956159,0.188261,0.00304158,-1.83076,4.0583,0.594645,-3.73163,4.81183,13.2521,0.584287,-0.452694,-26.2862,-1.33605,23.4637,0.123287,2.11846,-0.0026396,
0.00311548,-0.120151,0.0889947,-1.98585,0.251261,0.147676,-0.0250661,0.153419,0.00330841,0.162982,-0.20638,0.994753,0.308656,0.0027678,-3.18548,1.48382,-3.49749,2.37193,-13.6723,1.69442,0.873912,14.0653,0.403735,14.9533,-20.0219,10.2509,3.54009,0.0427286,-0.00210198,-0.120899,0.0834491,-1.97804,0.212816,0.134986,-0.0253214,0.105433,0.0729988,0.148591,-0.111947,0.956159,0.188261,0.00304158,0,0,0,0,0,0,0,-0.452694,-26.2862,-1.33605,23.4637,0.123287,2.11846,-0.0026396,
0.00416836,-0.120056,0.090105,-1.98734,0.258261,0.150169,-0.0250005,0.149057,0.00502359,0.158142,-0.2025,0.970808,0.309249,0.00385449,-2.72618,1.07199,-3.02503,2.42538,-14.9656,0.370387,0.679187,13.7192,0.483229,14.5819,-19.7159,10.1891,3.47702,0.0529544,-0.00210198,-0.120899,0.0834491,-1.97804,0.212816,0.134986,-0.0253214,0.105433,0.0729988,0.148591,-0.111947,0.956159,0.188261,0.00304158,0,0,0,0,0,0,0,-0.452694,-26.2862,-1.33605,23.4637,0.123287,2.11846,-0.0026396,
0.00521795,-0.119966,0.0912147,-1.98879,0.264676,0.152579,-0.0249337,0.145486,0.0062861,0.154255,-0.198144,0.937026,0.307635,0.00475173,-2.23228,0.789069,-2.42892,2.72234,-21.1141,-1.0085,0.560771,13.3599,0.555968,14.1965,-19.4165,9.53152,3.41805,0.0651021,-0.00210198,-0.120899,0.0834491,-1.97804,0.212816,0.134986,-0.0253214,0.105433,0.0729988,0.148591,-0.111947,0.956159,0.188261,0.00304158,0,0,0,0,0,0,0,-0.452694,-26.2862,-1.33605,23.4637,0.123287,2.11846,-0.0026396,
0.0062653,-0.119879,0.0923243,-1.99019,0.27034,0.154898,-0.0248689,0.142572,0.00718516,0.151145,-0.193434,0.891218,0.304103,0.00542284,-1.82084,0.56191,-1.94404,2.94408,-28.6299,-2.20736,0.419443,12.9273,0.607533,13.7541,-19.0997,8.86357,3.33586,0.0755637,0.00122505,-0.119957,0.0877872,-1.98228,0.241913,0.145105,-0.025324,0.097762,0.104156,0.155544,-0.111655,0.712138,0.431002,0.000665526,-0.958878,3.89464,0.869039,0.0364552,-30.5026,30.3427,-0.297007,1.34845,-30.9041,-0.137926,27.0779,2.03491,1.54809,-0.00996382,
0.00596698,-0.118665,0.0928586,-1.98938,0.270049,0.15982,-0.0250154,0.138194,0.00950289,0.146613,-0.188859,0.827327,0.304674,0.00592954,-2.73664,1.44858,-2.83243,2.85933,-39.932,0.357082,0.316686,12.4675,0.68506,13.2439,-18.8279,8.3862,3.23029,0.0821927,0.00122505,-0.119957,0.0877872,-1.98228,0.241913,0.145105,-0.025324,0.097762,0.104156,0.155544,-0.111655,0.712138,0.431002,0.000665526,0,0,0,0,0,0,0,1.34845,-30.9041,-0.137926,27.0779,2.03491,1.54809,-0.00996382,
0.00693736,-0.118535,0.0938913,-1.9907,0.273882,0.162113,-0.0249531,0.134814,0.0108578,0.14311,-0.184231,0.75769,0.30106,0.00630168,-2.112,0.84682,-2.18947,2.89209,-43.5231,-2.25905,0.232591,11.9837,0.798977,12.6894,-18.5537,8.08867,3.09526,0.0815653,0.00122505,-0.119957,0.0877872,-1.98228,0.241913,0.145105,-0.025324,0.097762,0.104156,0.155544,-0.111655,0.712138,0.431002,0.000665526,0,0,0,0,0,0,0,1.34845,-30.9041,-0.137926,27.0779,2.03491,1.54809,-0.00996382,
0.00790797,-0.118418,0.094924,-1.99199,0.276986,0.164271,-0.0248908,0.132117,0.0116151,0.140305,-0.179699,0.683744,0.294786,0.00660022,-1.68614,0.473289,-1.75285,2.83245,-46.2163,-3.92101,0.186586,11.4653,0.956284,12.2675,-18.2541,6.6218,2.96227,0.0793297,0.00122505,-0.119957,0.0877872,-1.98228,0.241913,0.145105,-0.025324,0.097762,0.104156,0.155544,-0.111655,0.712138,0.431002,0.000665526,0,0,0,0,0,0,0,1.34845,-30.9041,-0.137926,27.0779,2.03491,1.54809,-0.00996382,
0.00887433,-0.118309,0.0959521,-1.99326,0.279402,0.166313,-0.0248284,0.129852,0.0120169,0.137945,-0.175371,0.607397,0.286899,0.00683821,-1.41511,0.251126,-1.47534,2.70505,-47.7167,-4.9298,0.148746,10.9534,1.16326,11.8089,-17.9757,5.23255,2.76184,0.0774344,0.00361111,-0.117762,0.091375,-1.98584,0.252858,0.159904,-0.0253369,0.0525158,0.0986397,0.0794621,-0.0971614,0.0353361,0.485297,0.000379065,-5.65577,-0.689532,-9.51019,1.81173,-84.6002,6.78687,-0.0358076,-1.86902,-30.4042,-2.48656,26.3559,0.905148,0.918204,0.0239107,
0.00522713,-0.116786,0.0932105,-1.98998,0.260292,0.170056,-0.0251691,0.118975,0.0158132,0.127025,-0.175122,0.554527,0.304127,0.00704682,-6.79821,2.37269,-6.82509,0.155545,-33.044,10.7676,0.130378,11.3759,0.987894,12.1816,-18.2923,6.56739,2.90068,0.0815318,0.00361111,-0.117762,0.091375,-1.98584,0.252858,0.159904,-0.0253369,0.0525158,0.0986397,0.0794621,-0.0971614,0.0353361,0.485297,0.000379065,0,0,0,0,0,0,0,-1.86902,-30.4042,-2.48656,26.3559,0.905148,0.918204,0.0239107,
0.00589512,-0.116573,0.0939381,-1.99134,0.262821,0.172731,-0.0251053,0.11188,0.0179614,0.119808,-0.173971,0.506842,0.310165,0.00723261,-4.43462,1.34263,-4.51014,0.71991,-29.8028,3.77367,0.116123,10.9534,1.16326,11.8089,-17.9757,5.23255,2.76184,0.0774344,0.00361111,-0.117762,0.091375,-1.98584,0.252858,0.159904,-0.0253369,0.0525158,0.0986397,0.0794621,-0.0971614,0.0353361,0.485297,0.000379065,0,0,0,0,0,0,0,-1.86902,-30.4042,-2.48656,26.3559,0.905148,0.918204,0.0239107,
0.00661748,-0.116386,0.0947183,-1.99266,0.26498,0.175163,-0.0250407,0.107563,0.01905,0.115352,-0.172133,0.45944,0.308941,0.00740124,-2.69816,0.680403,-2.78538,1.14877,-29.6266,-0.764745,0.105392,10.6385,1.3316,11.5085,-17.6475,4.05942,2.62893,0.0749217,0.00361111,-0.117762,0.091375,-1.98584,0.252858,0.159904,-0.0253369,0.0525158,0.0986397,0.0794621,-0.0971614,0.0353361,0.485297,0.000379065,0,0,0,0,0,0,0,-1.86902,-30.4042,-2.48656,26.3559,0.905148,0.918204,0.0239107,
0.00738253,-0.116217,0.0955403,-1.99394,0.266703,0.177403,-0.0249759,0.105177,0.0194607,0.112833,-0.169867,0.410626,0.303162,0.00753919,-1.49132,0.256695,-1.57422,1.41595,-30.5084,-3.61207,0.0862206,10.3681,1.64555,11.2386,-17.4502,3.04695,2.4293,0.0742899,0.00488295,-0.115982,0.0955447,-1.9899,0.245473,0.176656,-0.025349,0.0124889,0.0650117,0.110095,-0.133355,-0.435368,0.563732,0.000536289,-5.00336,-4.20349,3.82912,-4.52423,-58.838,9.80436,0.0196531,-5.41974,-29.5274,-6.16026,30.6882,0.507809,3.50365,-0.00996382,
0.00681562,-0.114887,0.0977867,-1.99513,0.243671,0.189126,-0.0251355,0.0984529,0.0210898,0.106038,-0.167878,0.330698,0.304598,0.00763019,-4.20243,1.01814,-4.24686,1.24311,-49.9548,0.897837,0.0568703,10.3681,1.64555,11.2386,-17.4502,3.04695,2.4293,0.0742899,0.00488295,-0.115982,0.0955447,-1.9899,0.245473,0.176656,-0.025349,0.0124889,0.0650117,0.110095,-0.133355,-0.435368,0.563732,0.000536289,0,0,0,0,0,0,0,-5.41974,-29.5274,-6.16026,30.6882,0.507809,3.50365,-0.00996382,
0.00744462,-0.114686,0.0984707,-1.99638,0.243686,0.191353,-0.0250694,0.0944873,0.0218975,0.101932,-0.165621,0.26492,0.299337,0.00775734,-2.47851,0.504837,-2.5666,1.41085,-41.1116,-3.28815,0.0794719,10.2085,1.75495,11.065,-17.1197,2.14148,2.32158,0.0745566,0.00488295,-0.115982,0.0955447,-1.9899,0.245473,0.176656,-0.025349,0.0124889,0.0650117,0.110095,-0.133355,-0.435368,0.563732,0.000536289,0,0,0,0,0,0,0,-5.41974,-29.5274,-6.16026,30.6882,0.507809,3.50365,-0.00996382,
0.00812045,-0.1145,0.0991997,-1.99761,0.243539,0.193381,-0.0250014,0.0924856,0.0221528,0.0997702,-0.163221,0.208266,0.290168,0.00790515,-1.25104,0.159567,-1.35086,1.49986,-35.4088,-5.7311,0.0923815,10.094,1.82913,10.9301,-16.7938,1.36647,2.22476,0.0749396,0.00488295,-0.115982,0.0955447,-1.9899,0.245473,0.176656,-0.025349,0.0124889,0.0650117,0.110095,-0.133355,-0.435368,0.563732,0.000536289,0,0,0,0,0,0,0,-5.41974,-29.5274,-6.16026,30.6882,0.507809,3.50365,-0.00996382,
0.0069291,-0.114858,0.0978645,-1.99476,0.239743,0.188471,-0.0251133,0.0886673,0.0231541,0.0958345,-0.160572,0.141157,0.289796,0.00800124,-2.38646,0.625819,-2.45976,1.65579,-41.9431,-0.231969,0.0600527,10.024,1.94087,10.8345,-16.5104,0.769589,2.08436,0.0768974,0.00486341,-0.114717,0.0987523,-1.9953,0.229684,0.192991,-0.025351,-0.022709,0.0486386,0.0640027,-0.174705,-0.566123,0.459351,0.000263343,-4.39974,-2.04665,-5.76154,-5.16871,-16.3444,-13.0476,-0.0341183,-7.39941,-28.3571,-7.56072,24.039,0.0317347,2.82799,0.017502,
0.00756083,-0.114664,0.0985471,-1.99595,0.238726,0.190522,-0.0250441,0.0867271,0.0233933,0.0937318,-0.157999,0.0875059,0.283113,0.00813167,-1.2126,0.149463,-1.3142,1.60759,-33.5319,-4.17689,0.0815225,9.95646,1.95378,10.7411,-16.1961,0.207288,2.00388,0.0782599,0.00486341,-0.114717,0.0987523,-1.9953,0.229684,0.192991,-0.025351,-0.022709,0.0486386,0.0640027,-0.174705,-0.566123,0.459351,0.000263343,0,0,0,0,0,0,0,-7.39941,-28.3571,-7.56072,24.039,0.0317347,2.82799,0.017502,
0.00822845,-0.114485,0.0992639,-1.99711,0.237661,0.192378,-0.024974,0.0860721,0.0231664,0.0929057,-0.155509,0.0433677,0.272875,0.00825767,-0.409368,-0.141785,-0.516324,1.55653,-27.5864,-6.399,0.0787484,9.89757,1.94335,10.6558,-15.8872,-0.271531,1.92918,0.0804457,0.00486341,-0.114717,0.0987523,-1.9953,0.229684,0.192991,-0.025351,-0.022709,0.0486386,0.0640027,-0.174705,-0.566123,0.459351,0.000263343,0,0,0,0,0,0,0,-7.39941,-28.3571,-7.56072,24.039,0.0317347,2.82799,0.017502,
0.00892336,-0.11432,0.100007,-1.99826,0.236526,0.194079,-0.0249031,0.0862305,0.0226701,0.0928984,-0.153091,0.00633483,0.260825,0.00837711,0.0989615,-0.310213,-0.00454279,1.51103,-23.1455,-7.53157,0.0746499,9.8388,1.9149,10.5695,-15.5836,-0.656524,1.85979,0.0819305,0.00486341,-0.114717,0.0987523,-1.9953,0.229684,0.192991,-0.025351,-0.022709,0.0486386,0.0640027,-0.174705,-0.566123,0.459351,0.000263343,0,0,0,0,0,0,0,-7.39941,-28.3571,-7.56072,24.039,0.0317347,2.82799,0.017502,
0.0100595,-0.112338,0.104345,-2.00637,0.207465,0.209209,-0.0246151,0.0834864,0.0214505,0.0895663,-0.144564,-0.0229021,0.231216,0.00820205,-1.71504,-0.762237,-2.08256,5.32948,-18.2731,-18.5053,-0.109411,9.21059,1.52382,9.76151,-13.5453,-1.73251,1.47011,0.08825,0.00486341,-0.114717,0.0987523,-1.9953,0.229684,0.192991,-0.025351,-0.022709,0.0486386,0.0640027,-0.174705,-0.566123,0.459351,0.000263343,0,0,0,0,0,0,0,-7.39941,-28.3571,-7.56072,24.039,0.0317347,2.82799,0.017502,
0.0106376,-0.112211,0.104952,-2.00723,0.206443,0.210069,-0.0245569,0.0812428,0.0203395,0.0868306,-0.137176,-0.0438719,0.206471,0.00801653,-1.40222,-0.694353,-1.70986,4.61776,-13.1061,-15.4656,-0.115954,9.12942,1.46858,9.65018,-13.2557,-1.62763,1.37775,0.0872985,0.00429966,-0.113519,0.101428,-2.00066,0.208479,0.203883,-0.0253797,0.00792477,0.000783403,0.0881324,-0.137872,-0.54373,0.174533,0.000680445,3.82922,-5.9819,3.01621,4.60416,2.79912,-35.6023,0.0521378,-1.44055,-34.3715,-1.33605,29.8431,-0.383915,3.39745,0.0907442,
0.0112111,-0.112088,0.105553,-2.00807,0.20551,0.210892,-0.0245005,0.0793321,0.0193378,0.0845034,-0.130697,-0.0584332,0.185745,0.00782302,-1.1942,-0.626079,-1.45444,4.04943,-9.1008,-12.9535,-0.120939,8.98991,1.41616,9.48902,-12.9716,-1.61148,1.33462,0.0869229,0.00429966,-0.113519,0.101428,-2.00066,0.208479,0.203883,-0.0253797,0.00792477,0.000783403,0.0881324,-0.137872,-0.54373,0.174533,0.000680445,0,0,0,0,0,0,0,-1.44055,-34.3715,-1.33605,29.8431,-0.383915,3.39745,0.0907442,
0.0100595,-0.112338,0.104345,-2.00637,0.207465,0.209209,-0.0246151,0.0779677,0.0187847,0.0828504,-0.126648,-0.0747165,0.171153,0.00775878,-0.852746,-0.345703,-1.03319,2.53015,-10.1771,-9.12045,-0.0401505,7.63939,1.1244,7.99086,-10.7107,-1.11692,1.0553,0.0759657,0.00429966,-0.113519,0.101428,-2.00066,0.208479,0.203883,-0.0253797,0.00792477,0.000783403,0.0881324,-0.137872,-0.54373,0.174533,0.000680445,0,0,0,0,0,0,0,-1.44055,-34.3715,-1.33605,29.8431,-0.383915,3.39745,0.0907442,
0.00951425,-0.112059,0.106954,-2.01001,0.193092,0.213379,-0.024794,0.0736314,0.0176856,0.0779896,-0.117264,-0.0714008,0.152193,0.00718503,-2.71022,-0.686917,-3.03799,5.86557,2.0723,-11.8497,-0.358597,7.45274,1.10081,7.78837,-10.429,-1.04385,1.02677,0.073936,0.00429966,-0.113519,0.101428,-2.00066,0.208479,0.203883,-0.0253797,0.00792477,0.000783403,0.0881324,-0.137872,-0.54373,0.174533,0.000680445,0,0,0,0,0,0,0,-1.44055,-34.3715,-1.33605,29.8431,-0.383915,3.39745,0.0907442,
0.00995626,-0.111956,0.107413,-2.01063,0.192676,0.21397,-0.024757,0.0699553,0.016726,0.0738727,-0.10917,-0.0674988,0.13655,0.00667346,-2.29757,-0.599741,-2.57306,5.05831,2.43876,-9.77712,-0.319727,7.28677,1,7.60785,-10.0494,-0.911504,1.03883,0.0714234,0.00457613,-0.112863,0.104754,-2.00487,0.19788,0.203587,-0.0253785,0.0104332,-0.00882639,0.0991804,-0.114228,-0.21477,-0.0847759,0.000574135,0.31356,-1.20122,1.381,2.95551,41.12,-32.4136,-0.0132887,3.88752,-33.1734,2.96449,29.4186,1.47918,2.87377,0.00376909,
0.0103888,-0.111856,0.107862,-2.01122,0.192304,0.214544,-0.0247221,0.0667765,0.0158839,0.0703197,-0.102114,-0.0633012,0.123588,0.0062113,-1.98671,-0.526318,-2.22061,4.41006,2.62352,-8.1012,-0.288849,7.09684,0.979787,7.40297,-9.76805,-0.843813,1.01244,0.0692169,0.00457613,-0.112863,0.104754,-2.00487,0.19788,0.203587,-0.0253785,0.0104332,-0.00882639,0.0991804,-0.114228,-0.21477,-0.0847759,0.000574135,0,0,0,0,0,0,0,3.88752,-33.1734,2.96449,29.4186,1.47918,2.87377,0.00376909,
0.00734194,-0.112351,0.107662,-2.00951,0.192494,0.204862,-0.0250997,0.0649109,0.0155735,0.0682379,-0.0988878,-0.0647461,0.110747,0.00599947,-1.16601,-0.194005,-1.30114,2.01647,-0.903056,-8.02531,-0.132399,6.7144,0.942692,6.99185,-9.20601,-0.720841,0.962239,0.0646264,0.00457613,-0.112863,0.104754,-2.00487,0.19788,0.203587,-0.0253785,0.0104332,-0.00882639,0.0991804,-0.114228,-0.21477,-0.0847759,0.000574135,0,0,0,0,0,0,0,3.88752,-33.1734,2.96449,29.4186,1.47918,2.87377,0.00376909,
0.00779448,-0.112238,0.108133,-2.01017,0.192001,0.205367,-0.0250606,0.0632423,0.0152865,0.0663741,-0.0955693,-0.0641149,0.101227,0.00577585,-1.04289,-0.179374,-1.16488,2.0741,0.394476,-5.95006,-0.139761,6.52257,0.925261,6.78624,-8.92526,-0.666232,0.938523,0.0622598,0.00457613,-0.112863,0.104754,-2.00487,0.19788,0.203587,-0.0253785,0.0104332,-0.00882639,0.0991804,-0.114228,-0.21477,-0.0847759,0.000574135,0,0,0,0,0,0,0,3.88752,-33.1734,2.96449,29.4186,1.47918,2.87377,0.00376909,
0.00823841,-0.112127,0.108595,-2.0108,0.191567,0.205889,-0.0250237,0.0616921,0.0149829,0.0646451,-0.0922104,-0.0621514,0.0940346,0.00554368,-0.968891,-0.189766,-1.08058,2.09931,1.2272,-4.49537,-0.145104,6.31418,0.852659,6.5688,-8.59462,-0.604228,0.948201,0.0596658,0.00503423,-0.112489,0.107527,-2.00799,0.19369,0.201272,-0.0253848,0.00065365,-0.00705994,0.0913477,-0.0599375,-0.0142356,-0.0807526,-0.000332374,-1.22245,0.220806,-0.979087,6.78626,25.0668,0.502918,-0.113314,-0.829586,-31.3246,-1.71294,25.4315,1.21643,2.23748,0.0641939,
0.0086725,-0.112021,0.109046,-2.0114,0.191181,0.206419,-0.0249889,0.0602059,0.0146493,0.0629932,-0.0888466,-0.0593636,0.0884792,0.00530453,-0.928842,-0.208484,-1.03248,2.10238,1.74237,-3.47212,-0.149469,6.12267,0.835858,6.36406,-8.3142,-0.559002,0.926614,0.0572088,0.00503423,-0.112489,0.107527,-2.00799,0.19369,0.201272,-0.0253848,0.00065365,-0.00705994,0.0913477,-0.0599375,-0.0142356,-0.0807526,-0.000332374,0,0,0,0,0,0,0,-0.829586,-31.3246,-1.71294,25.4315,1.21643,2.23748,0.0641939,
0.00719468,-0.112416,0.109767,-2.01105,0.192106,0.202707,-0.0251783,0.0590167,0.0131714,0.0616409,-0.0856298,-0.0555943,0.0831749,0.00512919,-0.743264,-0.9237,-0.845187,2.01047,2.35582,-3.31514,-0.10959,5.93172,0.819095,6.16004,-8.0339,-0.517883,0.906337,0.0546892,0.00503423,-0.112489,0.107527,-2.00799,0.19369,0.201272,-0.0253848,0.00065365,-0.00705994,0.0913477,-0.0599375,-0.0142356,-0.0807526,-0.000332374,0,0,0,0,0,0,0,-0.829586,-31.3246,-1.71294,25.4315,1.21643,2.23748,0.0641939,
0.00761974,-0.11235,0.110208,-2.01161,0.191802,0.203229,-0.0251453,0.0578397,0.0122021,0.0603264,-0.0825082,-0.0520691,0.079579,0.00492806,-0.73562,-0.605786,-0.821574,1.951,2.2032,-2.24749,-0.125704,5.74162,0.802024,5.95715,-7.75366,-0.481656,0.886631,0.0521624,0.00503423,-0.112489,0.107527,-2.00799,0.19369,0.201272,-0.0253848,0.00065365,-0.00705994,0.0913477,-0.0599375,-0.0142356,-0.0807526,-0.000332374,0,0,0,0,0,0,0,-0.829586,-31.3246,-1.71294,25.4315,1.21643,2.23748,0.0641939,
0.00803393,-0.112278,0.110637,-2.01215,0.191522,0.203761,-0.0251146,0.0566266,0.0115506,0.0589898,-0.0794552,-0.0486666,0.0769687,0.0047095,-0.758213,-0.407207,-0.835345,1.90812,2.12657,-1.63139,-0.136604,5.54787,0.756532,5.75835,-7.44675,-0.449182,0.889886,0.049471,0.00495068,-0.111983,0.110739,-2.01045,0.193582,0.199577,-0.0253789,-0.0101601,0.00327228,0.0859433,-0.0596596,0.0021795,-0.00590124,0.000218814,-1.35172,1.29153,-0.675546,0.0347457,2.05189,9.35642,0.0688985,0.539127,-30.1543,-0.16173,24.0866,1.54602,1.69366,0.0440523,
0.00843611,-0.112204,0.111053,-2.01266,0.191266,0.204294,-0.0250861,0.0553557,0.0110937,0.0576032,-0.0764523,-0.0453163,0.0748895,0.00447919,-0.794266,-0.285523,-0.866631,1.87683,2.094,-1.29953,-0.143942,5.3604,0.738393,5.55839,-7.16652,-0.420039,0.871322,0.0469145,0.00495068,-0.111983,0.110739,-2.01045,0.193582,0.199577,-0.0253789,-0.0101601,0.00327228,0.0859433,-0.0596596,0.0021795,-0.00590124,0.000218814,0,0,0,0,0,0,0,0.539127,-30.1543,-0.16173,24.0866,1.54602,1.69366,0.0440523,
0.00678261,-0.111738,0.112637,-2.01307,0.192431,0.20172,-0.025214,0.0535302,0.010533,0.0556372,-0.0734044,-0.0423036,0.0727734,0.00425857,-1.14098,-0.350448,-1.22875,1.90494,1.88294,-1.32255,-0.137886,5.17481,0.719491,5.36035,-6.88622,-0.392694,0.852976,0.0443279,0.00495068,-0.111983,0.110739,-2.01045,0.193582,0.199577,-0.0253789,-0.0101601,0.00327228,0.0859433,-0.0596596,0.0021795,-0.00590124,0.000218814,0,0,0,0,0,0,0,0.539127,-30.1543,-0.16173,24.0866,1.54602,1.69366,0.0440523,
0.00714451,-0.111668,0.113011,-2.01354,0.192216,0.202233,-0.0251894,0.0518718,0.0101526,0.0538576,-0.0704141,-0.0392247,0.0710398,0.00402062,-1.0365,-0.237738,-1.11226,1.8689,1.92431,-1.08351,-0.14872,4.99153,0.699528,5.16472,-6.60579,-0.366623,0.833952,0.041749,0.00495068,-0.111983,0.110739,-2.01045,0.193582,0.199577,-0.0253789,-0.0101601,0.00327228,0.0859433,-0.0596596,0.0021795,-0.00590124,0.000218814,0,0,0,0,0,0,0,0.539127,-30.1543,-0.16173,24.0866,1.54602,1.69366,0.0440523,
0.00749654,-0.111598,0.113374,-2.01399,0.192037,0.202733,-0.0251672,0.0502982,0.00987398,0.0521728,-0.0674615,-0.0358604,0.0693496,0.00377117,-0.983514,-0.174167,-1.05295,1.8454,2.10266,-1.05639,-0.155902,4.80707,0.671488,4.97246,-6.3197,-0.330744,0.816019,0.0391395,0.00470276,-0.111592,0.113132,-2.01162,0.190989,0.199932,-0.0253803,-0.00272029,0.0421526,0.0599318,-0.015502,-0.0849283,0.0303287,0.00054446,0.929978,4.86004,-3.25144,5.5197,-10.8885,4.52875,0.0407058,2.11017,-29.8528,1.26253,24.2612,1.66229,1.42174,0.0376436,
0.00783736,-0.111528,0.113726,-2.01441,0.191904,0.203213,-0.0251474,0.048759,0.00964754,0.0505276,-0.0645322,-0.0320209,0.0674713,0.0035137,-0.961971,-0.141528,-1.02826,1.83081,2.39968,-1.17392,-0.160921,4.63015,0.64899,4.78315,-6.03884,-0.300906,0.793558,0.0365497,0.00470276,-0.111592,0.113132,-2.01162,0.190989,0.199932,-0.0253803,-0.00272029,0.0421526,0.0599318,-0.015502,-0.0849283,0.0303287,0.00054446,0,0,0,0,0,0,0,2.11017,-29.8528,1.26253,24.2612,1.66229,1.42174,0.0376436,
0.00647725,-0.110835,0.114968,-2.01422,0.190126,0.202937,-0.0252722,0.0451984,0.00957562,0.0467569,-0.0593997,-0.0185121,0.0600162,0.00302041,-2.22541,-0.0449509,-2.35673,3.2078,8.44299,-4.65942,-0.308303,4.12866,0.571752,4.24339,-5.19459,-0.163832,0.69952,0.0287162,0.00470276,-0.111592,0.113132,-2.01162,0.190989,0.199932,-0.0253803,-0.00272029,0.0421526,0.0599318,-0.015502,-0.0849283,0.0303287,0.00054446,0,0,0,0,0,0,0,2.11017,-29.8528,1.26253,24.2612,1.66229,1.42174,0.0376436,
0.00671586,-0.110767,0.115212,-2.0145,0.190606,0.203082,-0.0252665,0.0421239,0.00937905,0.0434955,-0.0546664,-0.00281774,0.0516443,0.00256068,-1.92155,-0.122854,-2.03838,2.95833,9.80899,-5.23243,-0.287337,3.97451,0.542174,4.07595,-4.91262,-0.0897424,0.653108,0.026086,0.00470276,-0.111592,0.113132,-2.01162,0.190989,0.199932,-0.0253803,-0.00272029,0.0421526,0.0599318,-0.015502,-0.0849283,0.0303287,0.00054446,0,0,0,0,0,0,0,2.11017,-29.8528,1.26253,24.2612,1.66229,1.42174,0.0376436,
0.00694384,-0.110703,0.115444,-2.01477,0.191318,0.203114,-0.0252633,0.0393985,0.00909517,0.0406011,-0.050254,0.0155492,0.0421205,0.00212844,-1.70338,-0.177424,-1.80898,2.75771,11.4794,-5.9524,-0.270145,3.82967,0.514517,3.91894,-4.62182,0.016543,0.599464,0.0233983,0.00471552,-0.110905,0.115013,-2.01243,0.188865,0.200515,-0.0253781,-0.0126425,0.0327189,0.0425928,-0.0201828,-0.0337254,0.00981588,0.00135471,-1.24027,-1.17921,-2.16737,-0.585106,6.40037,-2.56411,0.101281,0.412174,-31.3762,-0.538622,26.106,1.71081,1.70006,0.017502,
0.00573627,-0.110289,0.116057,-2.0141,0.191988,0.200805,-0.0253449,0.0358601,0.0090398,0.0368681,-0.0457017,0.0433491,0.0274426,0.0016717,-2.2115,-0.0346082,-2.3331,2.84523,17.3749,-9.17372,-0.285464,3.45532,0.406075,3.50022,-3.77572,0.503461,0.32821,0.0153235,0.00471552,-0.110905,0.115013,-2.01243,0.188865,0.200515,-0.0253781,-0.0126425,0.0327189,0.0425928,-0.0201828,-0.0337254,0.00981588,0.00135471,0,0,0,0,0,0,0,0.412174,-31.3762,-0.538622,26.106,1.71081,1.70006,0.017502,
0.00590209,-0.110226,0.116224,-2.0143,0.193613,0.200384,-0.0253485,0.0328338,0.00881585,0.0336713,-0.0414076,0.0753037,0.0114155,0.00124664,-1.89143,-0.139969,-1.99802,2.68376,19.9716,-10.0169,-0.265664,3.35487,0.365725,3.38368,-3.4946,0.755246,0.194591,0.012619,0.00471552,-0.110905,0.115013,-2.01243,0.188865,0.200515,-0.0253781,-0.0126425,0.0327189,0.0425928,-0.0201828,-0.0337254,0.00981588,0.00135471,0,0,0,0,0,0,0,0.412174,-31.3762,-0.538622,26.106,1.71081,1.70006,0.017502,
0.00605773,-0.110168,0.11638,-2.01446,0.195675,0.199772,-0.0253541,0.030158,0.00848346,0.0308436,-0.0373429,0.111793,-0.00615093,0.000856827,-1.67238,-0.20774,-1.76728,2.54049,22.806,-10.979,-0.243632,3.26722,0.32368,3.27925,-3.2145,1.06453,0.03414,0.0099046,0.00471552,-0.110905,0.115013,-2.01243,0.188865,0.200515,-0.0253781,-0.0126425,0.0327189,0.0425928,-0.0201828,-0.0337254,0.00981588,0.00135471,0,0,0,0,0,0,0,0.412174,-31.3762,-0.538622,26.106,1.71081,1.70006,0.017502,
0.00620122,-0.110116,0.116523,-2.01461,0.19822,0.198956,-0.0253612,0.0277135,0.00808999,0.0282628,-0.033489,0.153047,-0.0253163,0.000508703,-1.52781,-0.24592,-1.61304,2.40866,25.7838,-11.9784,-0.217578,3.19197,0.280577,3.18651,-2.93579,1.43803,-0.155196,0.00726155,0.00471552,-0.110905,0.115013,-2.01243,0.188865,0.200515,-0.0253781,-0.0126425,0.0327189,0.0425928,-0.0201828,-0.0337254,0.00981588,0.00135471,0,0,0,0,0,0,0,0.412174,-31.3762,-0.538622,26.106,1.71081,1.70006,0.017502,
0.00543595,-0.110152,0.116841,-2.01351,0.198436,0.198351,-0.0253955,0.0255747,0.00768011,0.0260032,-0.0302638,0.186214,-0.0400933,0.000237859,-1.33675,-0.256174,-1.41224,2.01578,20.7291,-9.23559,-0.169278,3.127,0.242293,3.10512,-2.65641,1.87917,-0.370733,0.00464318,0.00470484,-0.110476,0.116109,-2.01263,0.18984,0.200429,-0.0253823,0.0040831,0.0202539,0.0287153,-0.0125043,0.096799,-0.0135205,-0.00060518,2.09069,-1.55812,-1.73469,0.959814,16.3155,-2.91705,-0.244986,0.233646,-30.7256,-0.387865,25.983,1.53412,1.64055,0.0843355,
0.00556027,-0.110107,0.116965,-2.01362,0.201501,0.197339,-0.025403,0.0235677,0.00726371,0.0238903,-0.0271476,0.225613,-0.0573642,3.36517e-06,-1.25435,-0.260255,-1.32056,1.94759,24.6244,-10.7943,-0.146559,3.06905,0.199981,3.02868,-2.38168,2.39647,-0.619623,0.00226036,0.00470484,-0.110476,0.116109,-2.01263,0.18984,0.200429,-0.0253823,0.0040831,0.0202539,0.0287153,-0.0125043,0.096799,-0.0135205,-0.00060518,0,0,0,0,0,0,0,0.233646,-30.7256,-0.387865,25.983,1.53412,1.64055,0.0843355,
0.00567065,-0.110064,0.117074,-2.01372,0.205108,0.19611,-0.0254099,0.0216136,0.00687253,0.0218423,-0.0241466,0.270651,-0.0766181,-0.000169951,-1.2213,-0.244482,-1.28,1.87561,28.1488,-12.0337,-0.108323,3.01206,0.160289,2.95311,-2.10934,2.98732,-0.894897,0.000114304,0.00470484,-0.110476,0.116109,-2.01263,0.18984,0.200429,-0.0253823,0.0040831,0.0202539,0.0287153,-0.0125043,0.096799,-0.0135205,-0.00060518,0,0,0,0,0,0,0,0.233646,-30.7256,-0.387865,25.983,1.53412,1.64055,0.0843355,
0.00576503,-0.110023,0.117167,-2.0138,0.209261,0.194673,-0.0254143,0.0196504,0.00653404,0.0197968,-0.0212665,0.320343,-0.0972162,-0.000246107,-1.22702,-0.211558,-1.27845,1.80008,31.0578,-12.8739,-0.0475974,2.94746,0.125358,2.87024,-1.83941,3.64513,-1.18983,-0.00159014,0.00470484,-0.110476,0.116109,-2.01263,0.18984,0.200429,-0.0253823,0.0040831,0.0202539,0.0287153,-0.0125043,0.096799,-0.0135205,-0.00060518,0,0,0,0,0,0,0,0.233646,-30.7256,-0.387865,25.983,1.53412,1.64055,0.0843355,
0.00485072,-0.110383,0.116257,-2.01282,0.190847,0.200335,-0.0253804,0.0193673,0.00755469,0.0195405,-0.0218986,0.281449,-0.0801225,-0.000147885,-0.176929,0.637906,-0.16015,-0.395049,-24.3092,10.6836,0.0613886,3.12859,0.258012,3.11312,-2.67409,1.84441,-0.360285,0.00458929,0.0048267,-0.110188,0.117174,-2.01291,0.198625,0.198549,-0.0253808,0.00559365,0.00274905,0.0236048,-0.00332169,0.35316,-0.0835764,-0.000474201,0.188819,-2.18811,-0.638818,1.14782,32.0451,-8.75699,0.0163723,1.17389,-31.0509,0.687269,26.8042,1.94336,1.89232,0.0706026,
0.00500315,-0.110313,0.116409,-2.01302,0.192147,0.200117,-0.0253807,0.0193045,0.00780041,0.0194395,-0.0225084,0.257676,-0.069548,-0.000126392,-0.0392634,0.153573,-0.0631618,-0.381117,-14.8577,6.60907,0.0134331,3.07064,0.215699,3.03668,-2.39936,2.36171,-0.609175,0.00220648,0.0048267,-0.110188,0.117174,-2.01291,0.198625,0.198549,-0.0253808,0.00559365,0.00274905,0.0236048,-0.00332169,0.35316,-0.0835764,-0.000474201,0,0,0,0,0,0,0,1.17389,-31.0509,0.687269,26.8042,1.94336,1.89232,0.0706026,
0.00515439,-0.110253,0.11656,-2.01321,0.193806,0.199728,-0.0253836,0.0192247,0.00773429,0.0193322,-0.0225718,0.247616,-0.06536,-0.000174154,-0.0498896,-0.0413261,-0.0670377,-0.0396634,-6.28748,2.61749,-0.0298508,3.01365,0.176007,2.96112,-2.12702,2.95256,-0.884449,6.04214e-05,0.0048267,-0.110188,0.117174,-2.01291,0.198625,0.198549,-0.0253808,0.00559365,0.00274905,0.0236048,-0.00332169,0.35316,-0.0835764,-0.000474201,0,0,0,0,0,0,0,1.17389,-31.0509,0.687269,26.8042,1.94336,1.89232,0.0706026,
0.00529722,-0.110098,0.117626,-2.01313,0.225442,0.18998,-0.0254026,0.0159962,0.00683426,0.0158954,-0.0182273,0.339555,-0.100645,-0.000463671,-2.01777,-0.562518,-2.14799,2.71533,57.4615,-22.0533,-0.180948,2.7432,0.0962706,2.63961,-1.3233,5.06494,-1.78327,-0.00293137,0.0048267,-0.110188,0.117174,-2.01291,0.198625,0.198549,-0.0253808,0.00559365,0.00274905,0.0236048,-0.00332169,0.35316,-0.0835764,-0.000474201,0,0,0,0,0,0,0,1.17389,-31.0509,0.687269,26.8042,1.94336,1.89232,0.0706026,
0.00531822,-0.110079,0.117642,-2.01314,0.231085,0.188053,-0.0254319,0.013322,0.00594138,0.0131022,-0.0147118,0.412712,-0.128684,-0.00110303,-1.67137,-0.558045,-1.74577,2.1972,45.7233,-17.524,-0.399598,2.56238,0.0783661,2.44834,-1.02532,5.76652,-2.03474,-0.00175233,0.00479457,-0.109399,0.117922,-2.01289,0.210602,0.196318,-0.0253774,0.000125875,0.0115372,0.0249288,-0.00166582,0.099926,0.0121689,0.0015563,-0.683472,1.09851,0.165511,0.206984,-31.6542,11.9682,0.253813,-4.15417,-30.6542,-4.63683,26.5305,0.990292,1.96557,0.0303194,
0.00538352,-0.110066,0.117712,-2.01313,0.235869,0.186441,-0.0254537,0.0122902,0.00507431,0.0122302,-0.0116619,0.449783,-0.143263,-0.00142879,-0.644908,-0.541921,-0.545013,1.90618,23.1692,-9.11185,-0.203604,2.29462,0.0924271,2.17127,-0.758976,6.46827,-2.27379,0.0016695,0.00479457,-0.109399,0.117922,-2.01289,0.210602,0.196318,-0.0253774,0.000125875,0.0115372,0.0249288,-0.00166582,0.099926,0.0121689,0.0015563,0,0,0,0,0,0,0,-4.15417,-30.6542,-4.63683,26.5305,0.990292,1.96557,0.0303194,
0.00549503,-0.110068,0.117839,-2.01314,0.239669,0.185268,-0.0254544,0.0126197,0.00401261,0.0129707,-0.00942139,0.454816,-0.143942,-0.00116063,0.205941,-0.663563,0.462846,1.40032,3.14542,-0.424551,0.167604,1.89698,0.124517,1.76968,-0.489073,7.09594,-2.47007,0.00847217,0.00479457,-0.109399,0.117922,-2.01289,0.210602,0.196318,-0.0253774,0.000125875,0.0115372,0.0249288,-0.00166582,0.099926,0.0121689,0.0015563,0,0,0,0,0,0,0,-4.15417,-30.6542,-4.63683,26.5305,0.990292,1.96557,0.0303194,
0.0045679,-0.109176,0.117725,-2.01291,0.226772,0.191571,-0.0254435,0.00812663,0.00420109,0.00831711,-0.00741578,0.489549,-0.155341,-0.00171321,-2.80817,0.117801,-2.90852,1.25351,21.7082,-7.12479,-0.345362,1.89698,0.124517,1.76968,-0.489073,7.09594,-2.47007,0.00847217,0.00479457,-0.109399,0.117922,-2.01289,0.210602,0.196318,-0.0253774,0.000125875,0.0115372,0.0249288,-0.00166582,0.099926,0.0121689,0.0015563,0,0,0,0,0,0,0,-4.15417,-30.6542,-4.63683,26.5305,0.990292,1.96557,0.0303194,
0.00454651,-0.109148,0.117708,-2.0129,0.231133,0.190184,-0.025466,0.00596644,0.00408304,0.00624006,-0.00562057,0.500678,-0.158959,-0.00193265,-1.35012,-0.0737803,-1.29815,1.12201,6.95569,-2.26087,-0.137155,1.31506,0.191024,1.20034,-0.269835,7.59678,-2.64351,0.0159017,0.00505604,-0.109577,0.11981,-2.01312,0.222064,0.193476,-0.0253737,0.00889746,-0.00961668,0.0244775,-0.00106723,0.540837,-0.126035,0.000676169,1.09645,-2.64423,-0.0564228,0.0748238,55.1138,-17.2755,-0.110017,-1.64288,-31.7015,-2.06206,28.399,1.84539,2.85363,0.050461,
0.00458502,-0.109136,0.117762,-2.0129,0.234636,0.189171,-0.0254666,0.00573594,0.00354273,0.00633711,-0.00443302,0.488106,-0.152494,-0.00156151,-0.144062,-0.337697,0.0606557,0.742219,-7.8572,4.04025,0.231967,0.566139,0.179118,0.364261,-0.0146425,8.01093,-2.82485,-0.00995608,0.00505604,-0.109577,0.11981,-2.01312,0.222064,0.193476,-0.0253737,0.00889746,-0.00961668,0.0244775,-0.00106723,0.540837,-0.126035,0.000676169,0,0,0,0,0,0,0,-1.64288,-31.7015,-2.06206,28.399,1.84539,2.85363,0.050461,
0.00466597,-0.109137,0.117863,-2.01289,0.237327,0.188478,-0.0254673,0.00661246,0.00282849,0.00757984,-0.00334838,0.45776,-0.139305,-0.00126681,0.547822,-0.446398,0.776707,0.677903,-18.9666,8.24371,0.184184,0.132401,-0.027901,0.0582994,0.138844,7.0374,-2.3597,-0.0374051,0.00505604,-0.109577,0.11981,-2.01312,0.222064,0.193476,-0.0253737,0.00889746,-0.00961668,0.0244775,-0.00106723,0.540837,-0.126035,0.000676169,0,0,0,0,0,0,0,-1.64288,-31.7015,-2.06206,28.399,1.84539,2.85363,0.050461,
0.0054441,-0.109735,0.120262,-2.01296,0.237474,0.189409,-0.0254445,0.00861762,0.00125916,0.00995801,-0.00181925,0.434587,-0.126821,-0.00107997,1.25323,-0.980829,1.48636,0.955705,-14.4828,7.80239,0.116774,0.132401,-0.027901,0.0582994,0.138844,7.0374,-2.3597,-0.0374051,0.00505604,-0.109577,0.11981,-2.01312,0.222064,0.193476,-0.0253737,0.00889746,-0.00961668,0.0244775,-0.00106723,0.540837,-0.126035,0.000676169,0,0,0,0,0,0,0,-1.64288,-31.7015,-2.06206,28.399,1.84539,2.85363,0.050461,
0.0055744,-0.109775,0.120422,-2.01293,0.239721,0.188981,-0.0254512,0.0101517,-2.09429e-06,0.0119472,-0.000578243,0.403828,-0.112144,-0.00103074,0.958828,-0.788286,1.24326,0.77563,-19.2246,9.17288,0.0307731,-0.0375859,-0.110728,0.214765,0.513406,4.13576,-1.1491,-0.0405618,0.00466662,-0.109244,0.120121,-2.013,0.235058,0.191711,-0.0253671,-0.0100072,0.00760688,0.0144081,0.00495837,0.186457,0.0204069,0.00131135,-2.36308,2.15295,-1.25867,0.7532,-44.2975,18.3053,0.079398,-1.3374,-30.4518,-2.16124,27.4271,1.44256,2.07818,-0.00996382,
0.00569255,-0.109815,0.120572,-2.01289,0.241655,0.18868,-0.0254602,0.0110752,-0.00099715,0.0133214,0.000446802,0.371422,-0.0972537,-0.00104945,0.577132,-0.62191,0.858846,0.640653,-20.2538,9.30651,-0.0116928,0.166245,-0.326378,0.58162,0.524323,2.59505,-0.321792,-0.0148141,0.00466662,-0.109244,0.120121,-2.013,0.235058,0.191711,-0.0253671,-0.0100072,0.00760688,0.0144081,0.00495837,0.186457,0.0204069,0.00131135,0,0,0,0,0,0,0,-1.3374,-30.4518,-2.16124,27.4271,1.44256,2.07818,-0.00996382,
0.00469781,-0.109213,0.12029,-2.01284,0.24045,0.191954,-0.0254078,0.00908712,-0.00104764,0.0117384,0.00137955,0.329763,-0.0771588,-0.00110591,-1.24253,-0.031554,-0.989394,0.582965,-26.0368,12.5593,-0.0352893,0.105123,-0.363631,0.530376,0.57617,1.60752,0.00164123,-0.0135378,0.00466662,-0.109244,0.120121,-2.013,0.235058,0.191711,-0.0253671,-0.0100072,0.00760688,0.0144081,0.00495837,0.186457,0.0204069,0.00131135,0,0,0,0,0,0,0,-1.3374,-30.4518,-2.16124,27.4271,1.44256,2.07818,-0.00996382,
0.00470699,-0.109229,0.120334,-2.0128,0.241741,0.19197,-0.0254185,0.00749922,-0.00123341,0.0104764,0.00215016,0.296098,-0.0613333,-0.00115224,-0.992433,-0.116106,-0.788735,0.481636,-21.0408,9.89094,-0.0289554,0.105123,-0.363631,0.530376,0.57617,1.60752,0.00164123,-0.0135378,0.00466662,-0.109244,0.120121,-2.013,0.235058,0.191711,-0.0253671,-0.0100072,0.00760688,0.0144081,0.00495837,0.186457,0.0204069,0.00131135,0,0,0,0,0,0,0,-1.3374,-30.4518,-2.16124,27.4271,1.44256,2.07818,-0.00996382,
0.00471618,-0.109249,0.120377,-2.01276,0.243023,0.191979,-0.0254292,0.00622912,-0.00148128,0.00946852,0.00278595,0.268927,-0.0488228,-0.00118991,-0.793816,-0.154924,-0.629914,0.397368,-16.9816,7.81909,-0.0235434,0.105123,-0.363631,0.530376,0.57617,1.60752,0.00164123,-0.0135378,0.00466662,-0.109244,0.120121,-2.013,0.235058,0.191711,-0.0253671,-0.0100072,0.00760688,0.0144081,0.00495837,0.186457,0.0204069,0.00131135,0,0,0,0,0,0,0,-1.3374,-30.4518,-2.16124,27.4271,1.44256,2.07818,-0.00996382,
0.00472534,-0.109271,0.120421,-2.01271,0.244298,0.191986,-0.02544,0.0052123,-0.00174806,0.00866285,0.00330959,0.247013,-0.0389001,-0.00122034,-0.635511,-0.166732,-0.503543,0.32727,-13.6965,6.20166,-0.0190199,0.105123,-0.363631,0.530376,0.57617,1.60752,0.00164123,-0.0135378,0.00466662,-0.109244,0.120121,-2.013,0.235058,0.191711,-0.0253671,-0.0100072,0.00760688,0.0144081,0.00495837,0.186457,0.0204069,0.00131135,0,0,0,0,0,0,0,-1.3374,-30.4518,-2.16124,27.4271,1.44256,2.07818,-0.00996382,
0.00467192,-0.109213,0.120162,-2.01296,0.236463,0.191818,-0.0253762,0.00430221,-0.000622504,0.00796251,0.00358366,0.232735,-0.0284383,-0.00120404,-0.568808,0.70347,-0.437715,0.171299,-8.92364,6.53865,0.0101888,0.105123,-0.363631,0.530376,0.57617,1.60752,0.00164123,-0.0135378,0.00466662,-0.109244,0.120121,-2.013,0.235058,0.191711,-0.0253671,-0.0100072,0.00760688,0.0144081,0.00495837,0.186457,0.0204069,0.00131135,0,0,0,0,0,0,0,-1.3374,-30.4518,-2.16124,27.4271,1.44256,2.07818,-0.00996382,
0.00467996,-0.109202,0.120204,-2.01292,0.237819,0.191886,-0.0253866,0.00364275,-0.000211229,0.00741885,0.0038258,0.220091,-0.0210578,-0.00122268,-0.412163,0.257047,-0.339788,0.151336,-7.90262,4.61282,-0.0116523,0.105123,-0.363631,0.530376,0.57617,1.60752,0.00164123,-0.0135378,0.00466662,-0.109244,0.120121,-2.013,0.235058,0.191711,-0.0253671,-0.0100072,0.00760688,0.0144081,0.00495837,0.186457,0.0204069,0.00131135,0,0,0,0,0,0,0,-1.3374,-30.4518,-2.16124,27.4271,1.44256,2.07818,-0.00996382,
0.00468873,-0.109203,0.120247,-2.01288,0.239145,0.191928,-0.0253971,0.00313356,-0.000203864,0.00700593,0.00405281,0.209201,-0.015796,-0.00124234,-0.31824,0.00460349,-0.25807,0.141881,-6.80607,3.28857,-0.0122904,0.100954,-0.359665,0.528923,0.569611,1.60652,-0.00599268,-0.0134229,0.00481594,-0.109251,0.120963,-2.01258,0.235559,0.193459,-0.0253683,-0.0115732,-0.00399354,-0.0103323,0.00219661,-0.0479195,0.101372,0.00115996,-0.195752,-1.45005,-3.09255,-0.345219,-29.297,10.1206,-0.0189245,-5.85217,-30.4042,-6.16026,27.923,0.379635,3.20519,0.0101778,
0.00470052,-0.10927,0.120889,-2.01253,0.235738,0.193995,-0.0253831,-0.00037856,-0.000630959,0.00374382,0.00446712,0.17185,0.000758573,-0.00136456,-2.19508,-0.266935,-2.03882,0.258945,-23.3444,10.3466,-0.0763816,0.100954,-0.359665,0.528923,0.569611,1.60652,-0.00599268,-0.0134229,0.00481594,-0.109251,0.120963,-2.01258,0.235559,0.193459,-0.0253683,-0.0115732,-0.00399354,-0.0103323,0.00219661,-0.0479195,0.101372,0.00115996,0,0,0,0,0,0,0,-5.85217,-30.4042,-6.16026,27.923,0.379635,3.20519,0.0101778,
0.0045944,-0.109288,0.12082,-2.01247,0.236276,0.194365,-0.0253963,-0.00295581,-0.000941672,0.00127451,0.00495424,0.150928,0.00986721,-0.00142193,-1.61078,-0.194196,-1.54332,0.304446,-13.0764,5.6929,-0.0358588,0.100954,-0.359665,0.528923,0.569611,1.60652,-0.00599268,-0.0134229,0.00481594,-0.109251,0.120963,-2.01258,0.235559,0.193459,-0.0253683,-0.0115732,-0.00399354,-0.0103323,0.00219661,-0.0479195,0.101372,0.00115996,0,0,0,0,0,0,0,-5.85217,-30.4042,-6.16026,27.923,0.379635,3.20519,0.0101778,
0.00450287,-0.109307,0.120764,-2.01242,0.237045,0.194627,-0.025408,-0.00465289,-0.00122637,-0.000391803,0.00534638,0.139957,0.0144564,-0.00143072,-1.06067,-0.177938,-1.04145,0.245086,-6.85691,2.86824,-0.00549321,0.100954,-0.359665,0.528923,0.569611,1.60652,-0.00599268,-0.0134229,0.00481594,-0.109251,0.120963,-2.01258,0.235559,0.193459,-0.0253683,-0.0115732,-0.00399354,-0.0103323,0.00219661,-0.0479195,0.101372,0.00115996,0,0,0,0,0,0,0,-5.85217,-30.4042,-6.16026,27.923,0.379635,3.20519,0.0101778,
0.00442697,-0.109327,0.120722,-2.01236,0.237964,0.194816,-0.0254189,-0.00562001,-0.00149921,-0.00136153,0.00562666,0.134948,0.0162886,-0.00141742,-0.604452,-0.170523,-0.606077,0.175178,-3.13009,1.14512,0.00830906,0.100954,-0.359665,0.528923,0.569611,1.60652,-0.00599268,-0.0134229,0.00481594,-0.109251,0.120963,-2.01258,0.235559,0.193459,-0.0253683,-0.0115732,-0.00399354,-0.0103323,0.00219661,-0.0479195,0.101372,0.00115996,0,0,0,0,0,0,0,-5.85217,-30.4042,-6.16026,27.923,0.379635,3.20519,0.0101778,
0.00427409,-0.109255,0.120814,-2.01228,0.236301,0.197088,-0.025425,-0.00540657,-0.00084534,-0.00106383,0.00523947,0.129991,0.0167579,-0.00145309,0.133401,0.408669,0.186059,-0.241993,-3.09847,0.293305,-0.0222939,0.10023,-0.349258,0.527675,0.556183,1.61156,-0.0220473,-0.0133548,0.00436755,-0.109353,0.120783,-2.01237,0.234407,0.196343,-0.0253787,-0.000117499,0.0139065,0.0102142,0.0117951,-0.0294547,0.0634828,-0.00100704,1.43196,2.23751,2.56831,1.19981,2.3081,-4.73609,-0.270875,-1.94836,-28.73,-2.53813,25.0348,1.5039,2.07818,0.0843355,
0.00424093,-0.109251,0.120817,-2.01225,0.237311,0.197181,-0.0254366,-0.00515436,-0.000577006,-0.000786469,0.00500169,0.129237,0.0157122,-0.00145279,0.157632,0.167709,0.173351,-0.148616,-0.471413,-0.653567,0.000190075,0.10023,-0.349258,0.527675,0.556183,1.61156,-0.0220473,-0.0133548,0.00436755,-0.109353,0.120783,-2.01237,0.234407,0.196343,-0.0253787,-0.000117499,0.0139065,0.0102142,0.0117951,-0.0294547,0.0634828,-0.00100704,0,0,0,0,0,0,0,-1.94836,-28.73,-2.53813,25.0348,1.5039,2.07818,0.0843355,
0.00421301,-0.109255,0.120824,-2.01221,0.238402,0.197236,-0.0254476,-0.00482162,-0.000548134,-0.000455824,0.00487352,0.130679,0.0139532,-0.00143745,0.207963,0.0180449,0.206653,-0.080102,0.901256,-1.09934,0.00959025,0.10023,-0.349258,0.527675,0.556183,1.61156,-0.0220473,-0.0133548,0.00436755,-0.109353,0.120783,-2.01237,0.234407,0.196343,-0.0253787,-0.000117499,0.0139065,0.0102142,0.0117951,-0.0294547,0.0634828,-0.00100704,0,0,0,0,0,0,0,-1.94836,-28.73,-2.53813,25.0348,1.5039,2.07818,0.0843355,
0.00419076,-0.109264,0.120836,-2.01217,0.239547,0.197267,-0.0254584,-0.00441352,-0.000663716,-6.03661e-05,0.00481886,0.133158,0.0119456,-0.00141748,0.255064,-0.0722387,0.247161,-0.034166,1.54974,-1.25474,0.0124792,0.10023,-0.349258,0.527675,0.556183,1.61156,-0.0220473,-0.0133548,0.00436755,-0.109353,0.120783,-2.01237,0.234407,0.196343,-0.0253787,-0.000117499,0.0139065,0.0102142,0.0117951,-0.0294547,0.0634828,-0.00100704,0,0,0,0,0,0,0,-1.94836,-28.73,-2.53813,25.0348,1.5039,2.07818,0.0843355,
0.00360213,-0.109312,0.119842,-2.01214,0.234382,0.19975,-0.0254033,-0.00704747,-0.00141246,-0.00272539,0.00549867,0.12184,0.0172558,-0.00141493,-1.64622,-0.467966,-1.66564,0.424884,-7.07412,3.31888,0.00159388,0.102158,-0.326857,0.526309,0.544474,1.61768,-0.0342898,-0.0132938,0.0039098,-0.109234,0.120081,-2.01227,0.23345,0.199014,-0.0253801,-0.0225074,-0.00749672,-0.020109,0.00720689,-0.0165147,0.0764796,0.000939253,-2.79874,-2.6754,-3.79039,-0.573523,1.61749,1.6246,0.243287,-2.4046,-30.551,-2.81188,27.6016,0.733944,2.84722,0.0641939,
0.00348693,-0.109343,0.11976,-2.01208,0.235189,0.199974,-0.0254138,-0.00851809,-0.0019122,-0.0042448,0.00595507,0.117658,0.0194041,-0.00139328,-0.919132,-0.312338,-0.949628,0.285252,-2.61334,1.34269,0.0135324,0.102158,-0.326857,0.526309,0.544474,1.61768,-0.0342898,-0.0132938,0.0039098,-0.109234,0.120081,-2.01227,0.23345,0.199014,-0.0253801,-0.0225074,-0.00749672,-0.020109,0.00720689,-0.0165147,0.0764796,0.000939253,0,0,0,0,0,0,0,-2.4046,-30.551,-2.81188,27.6016,0.733944,2.84722,0.0641939,
0.00339446,-0.109372,0.119699,-2.01202,0.236128,0.200137,-0.0254238,-0.00912629,-0.00225646,-0.00489983,0.0062317,0.117604,0.0196002,-0.00136667,-0.38013,-0.215159,-0.409398,0.172892,-0.0340088,0.122538,0.0166299,0.102158,-0.326857,0.526309,0.544474,1.61768,-0.0342898,-0.0132938,0.0039098,-0.109234,0.120081,-2.01227,0.23345,0.199014,-0.0253801,-0.0225074,-0.00749672,-0.020109,0.00720689,-0.0165147,0.0764796,0.000939253,0,0,0,0,0,0,0,-2.4046,-30.551,-2.81188,27.6016,0.733944,2.84722,0.0641939,
0.00332143,-0.1094,0.119659,-2.01197,0.237158,0.200255,-0.0254338,-0.00912659,-0.00249964,-0.00493709,0.00637525,0.119823,0.0186281,-0.00134214,-0.000185439,-0.151988,-0.0232847,0.0897208,1.38714,-0.607565,0.0153285,0.102158,-0.326857,0.526309,0.544474,1.61768,-0.0342898,-0.0132938,0.0039098,-0.109234,0.120081,-2.01227,0.23345,0.199014,-0.0253801,-0.0225074,-0.00749672,-0.020109,0.00720689,-0.0165147,0.0764796,0.000939253,0,0,0,0,0,0,0,-2.4046,-30.551,-2.81188,27.6016,0.733944,2.84722,0.0641939,
0.0037428,-0.109277,0.119949,-2.01221,0.233769,0.199442,-0.0253921,-0.0114763,-0.00307314,-0.00723837,0.00677801,0.103823,0.0256042,-0.00137344,-1.46857,-0.358438,-1.4383,0.251725,-10.0001,4.36009,-0.0195576,0.100853,-0.321717,0.523593,0.543855,1.61653,-0.0360983,-0.0132911,0.00353645,-0.109039,0.119956,-2.01216,0.233533,0.19936,-0.0253779,0.00655546,0.00636658,0.00589996,-0.000542773,-0.0089001,0.000400315,0.000586269,3.63286,1.73291,3.25111,-0.968708,0.951832,-9.50991,-0.0441229,1.1977,-31.1025,0.738844,26.4551,1.84539,2.02508,0.0440523,
0.00360213,-0.109312,0.119842,-2.01214,0.234382,0.19975,-0.0254033,-0.0126977,-0.00334,-0.0084678,0.007066,0.0983716,0.0281827,-0.00137969,-0.763374,-0.166788,-0.768389,0.179989,-3.40723,1.61156,-0.00391153,0.100853,-0.321717,0.523593,0.543855,1.61653,-0.0360983,-0.0132911,0.00353645,-0.109039,0.119956,-2.01216,0.233533,0.19936,-0.0253779,0.00655546,0.00636658,0.00589996,-0.000542773,-0.0089001,0.000400315,0.000586269,0,0,0,0,0,0,0,1.1977,-31.1025,0.738844,26.4551,1.84539,2.02508,0.0440523,
0.00348693,-0.109343,0.11976,-2.01208,0.235189,0.199974,-0.0254138,-0.0130383,-0.00345423,-0.00883872,0.00720893,0.0988839,0.0281457,-0.00136509,-0.212853,-0.0713955,-0.231828,0.089336,0.320172,-0.0231715,0.00912808,0.100853,-0.321717,0.523593,0.543855,1.61653,-0.0360983,-0.0132911,0.00353645,-0.109039,0.119956,-2.01216,0.233533,0.19936,-0.0253779,0.00655546,0.00636658,0.00589996,-0.000542773,-0.0089001,0.000400315,0.000586269,0,0,0,0,0,0,0,1.1977,-31.1025,0.738844,26.4551,1.84539,2.02508,0.0440523,
0.00339446,-0.109372,0.119699,-2.01202,0.236128,0.200137,-0.0254238,-0.0127424,-0.00349008,-0.00857497,0.00723479,0.102584,0.0265934,-0.00134412,0.184893,-0.0224052,0.164843,0.0161592,2.3128,-0.97015,0.0131064,0.100853,-0.321717,0.523593,0.543855,1.61653,-0.0360983,-0.0132911,0.00353645,-0.109039,0.119956,-2.01216,0.233533,0.19936,-0.0253779,0.00655546,0.00636658,0.00589996,-0.000542773,-0.0089001,0.000400315,0.000586269,0,0,0,0,0,0,0,1.1977,-31.1025,0.738844,26.4551,1.84539,2.02508,0.0440523,
0.00351096,-0.108982,0.120014,-2.01218,0.234708,0.19929,-0.0254084,-0.0106653,-0.00219258,-0.00633928,0.00565555,0.100543,0.0201352,-0.00142678,1.29823,0.81094,1.39731,-0.987027,-1.27563,-4.03636,-0.0516641,0.100779,-0.317195,0.52193,0.541891,1.61811,-0.0383147,-0.0132814,0.00321541,-0.109045,0.1195,-2.01211,0.233087,0.199738,-0.0253771,-0.0123553,-0.00760863,0.00484708,0.00984856,-0.01641,0.0145117,0.000751948,-2.36384,-1.7469,-0.13161,1.29892,-0.938733,1.76393,0.0207098,2.82032,-30.7256,1.61165,26.9034,2.21161,1.75316,0.0376436,
0.00348929,-0.108965,0.120029,-2.01217,0.235633,0.199235,-0.0254207,-0.00907401,-0.00133905,-0.00468678,0.00463034,0.103553,0.0147227,-0.00144975,0.994545,0.533454,1.03281,-0.640754,1.88108,-3.38281,-0.0143576,0.100779,-0.317195,0.52193,0.541891,1.61811,-0.0383147,-0.0132814,0.00321541,-0.109045,0.1195,-2.01211,0.233087,0.199738,-0.0253771,-0.0123553,-0.00760863,0.00484708,0.00984856,-0.01641,0.0145117,0.000751948,0,0,0,0,0,0,0,2.82032,-30.7256,1.61165,26.9034,2.21161,1.75316,0.0376436,
0.00346911,-0.108955,0.120045,-2.01216,0.236674,0.199177,-0.0254321,-0.00776387,-0.000822785,-0.00336427,0.00401211,0.108864,0.010336,-0.0014448,0.818834,0.322665,0.826567,-0.386391,3.31933,-2.74169,0.00309769,0.100779,-0.317195,0.52193,0.541891,1.61811,-0.0383147,-0.0132814,0.00321541,-0.109045,0.1195,-2.01211,0.233087,0.199738,-0.0253771,-0.0123553,-0.00760863,0.00484708,0.00984856,-0.01641,0.0145117,0.000751948,0,0,0,0,0,0,0,2.82032,-30.7256,1.61165,26.9034,2.21161,1.75316,0.0376436,
0.00345222,-0.108951,0.120063,-2.01214,0.237788,0.199121,-0.0254431,-0.00663332,-0.000558729,-0.00224378,0.00367796,0.114958,0.00687053,-0.00142854,0.706596,0.165035,0.700307,-0.208849,3.8088,-2.16594,0.0101603,0.100779,-0.317195,0.52193,0.541891,1.61811,-0.0383147,-0.0132814,0.00321541,-0.109045,0.1195,-2.01211,0.233087,0.199738,-0.0253771,-0.0123553,-0.00760863,0.00484708,0.00984856,-0.01641,0.0145117,0.000751948,0,0,0,0,0,0,0,2.82032,-30.7256,1.61165,26.9034,2.21161,1.75316,0.0376436,
0.00315137,-0.109097,0.119477,-2.01206,0.233465,0.199836,-0.0253922,-0.00690762,-0.00174295,-0.00235029,0.00413525,0.101419,0.00794516,-0.00151846,-0.171438,-0.740139,-0.0665681,0.285806,-8.46186,0.671644,-0.0562005,0.10048,-0.308821,0.520926,0.533287,1.62563,-0.0483132,-0.0132349,0.00270711,-0.109079,0.119464,-2.01201,0.231125,0.201439,-0.0253802,-0.017449,-0.00556658,0.0142293,0.00191732,-0.0520556,0.0435374,-0.00100023,-0.636707,0.255256,1.17277,-0.991406,-4.45571,3.62821,-0.219023,3.9867,-29.9797,2.96449,26.1298,2.24273,1.78612,0.0779268,
0.00308986,-0.109137,0.119453,-2.01202,0.234155,0.199904,-0.0254054,-0.00706392,-0.0024075,-0.00249709,0.00435989,0.0984002,0.00807379,-0.00154446,-0.0976858,-0.415345,-0.0917472,0.1404,-1.88679,0.0803905,-0.0162488,0.10048,-0.308821,0.520926,0.533287,1.62563,-0.0483132,-0.0132349,0.00270711,-0.109079,0.119464,-2.01201,0.231125,0.201439,-0.0253802,-0.017449,-0.00556658,0.0142293,0.00191732,-0.0520556,0.0435374,-0.00100023,0,0,0,0,0,0,0,3.9867,-29.9797,2.96449,26.1298,2.24273,1.78612,0.0779268,
0.00303562,-0.10917,0.119433,-2.01198,0.235041,0.19995,-0.0254171,-0.00700696,-0.00273946,-0.00248048,0.00452721,0.100865,0.0075896,-0.00152873,0.0356009,-0.207476,0.0103786,0.104579,1.54071,-0.302617,0.00983257,0.10048,-0.308821,0.520926,0.533287,1.62563,-0.0483132,-0.0132349,0.00270711,-0.109079,0.119464,-2.01201,0.231125,0.201439,-0.0253802,-0.017449,-0.00556658,0.0142293,0.00191732,-0.0520556,0.0435374,-0.00100023,0,0,0,0,0,0,0,3.9867,-29.9797,2.96449,26.1298,2.24273,1.78612,0.0779268,
0.00264726,-0.109107,0.119451,-2.01199,0.231317,0.201654,-0.0253971,-0.00710186,-0.00288552,-0.0023103,0.00425708,0.0854934,0.0114447,-0.0016443,-0.0593146,-0.091284,0.106366,-0.168835,-9.60747,2.40944,-0.0722319,0.10048,-0.308821,0.520926,0.533287,1.62563,-0.0483132,-0.0132349,0.00270711,-0.109079,0.119464,-2.01201,0.231125,0.201439,-0.0253802,-0.017449,-0.00556658,0.0142293,0.00191732,-0.0520556,0.0435374,-0.00100023,0,0,0,0,0,0,0,3.9867,-29.9797,2.96449,26.1298,2.24273,1.78612,0.0779268,
0.00258497,-0.109127,0.119427,-2.01196,0.231891,0.201785,-0.0254113,-0.00723872,-0.00281338,-0.00243657,0.00418243,0.08275,0.0124533,-0.00167165,-0.0855392,0.0450849,-0.0789241,-0.0466547,-1.71463,0.63037,-0.0170954,0.100721,-0.305529,0.519951,0.536022,1.62747,-0.0473257,-0.0132452,0.00251152,-0.108927,0.119402,-2.01221,0.230742,0.201596,-0.0253786,0.00486002,0.0145149,-0.000266765,-0.0120464,-0.00430378,-0.00073878,-8.56766e-05,2.78862,2.51019,-1.812,-1.74546,5.96898,-5.53452,0.11432,4.72065,-29.3291,4.13881,26.1298,2.26654,1.91887,0.050461,
0.00252731,-0.109144,0.119406,-2.01192,0.232704,0.201865,-0.0254236,-0.00723242,-0.00267325,-0.00249211,0.00420765,0.0865283,0.0119485,-0.00164551,0.00393857,0.0875847,-0.0347103,0.0157634,2.36142,-0.315517,0.0163369,0.100721,-0.305529,0.519951,0.536022,1.62747,-0.0473257,-0.0132452,0.00251152,-0.108927,0.119402,-2.01221,0.230742,0.201596,-0.0253786,0.00486002,0.0145149,-0.000266765,-0.0120464,-0.00430378,-0.00073878,-8.56766e-05,0,0,0,0,0,0,0,4.72065,-29.3291,4.13881,26.1298,2.26654,1.91887,0.050461,
0.00247775,-0.10916,0.119391,-2.01189,0.233669,0.20191,-0.0254349,-0.00702508,-0.00253573,-0.00237042,0.0042814,0.0933426,0.0106902,-0.00159826,0.129588,0.0859489,0.0760558,0.0460916,4.25893,-0.786437,0.0295355,0.100721,-0.305529,0.519951,0.536022,1.62747,-0.0473257,-0.0132452,0.00251152,-0.108927,0.119402,-2.01221,0.230742,0.201596,-0.0253786,0.00486002,0.0145149,-0.000266765,-0.0120464,-0.00430378,-0.00073878,-8.56766e-05,0,0,0,0,0,0,0,4.72065,-29.3291,4.13881,26.1298,2.26654,1.91887,0.050461,
0.00244799,-0.108761,0.11942,-2.01231,0.231903,0.201424,-0.0254072,-0.00649715,-0.000204206,-0.00179341,0.0024738,0.0928013,0.00606975,-0.0016113,0.329954,1.4572,0.360633,-1.12975,-0.338258,-2.88777,-0.00814993,0.100721,-0.305529,0.519951,0.536022,1.62747,-0.0473257,-0.0132452,0.00251152,-0.108927,0.119402,-2.01221,0.230742,0.201596,-0.0253786,0.00486002,0.0145149,-0.000266765,-0.0120464,-0.00430378,-0.00073878,-8.56766e-05,0,0,0,0,0,0,0,4.72065,-29.3291,4.13881,26.1298,2.26654,1.91887,0.050461,
0.00241412,-0.108705,0.119423,-2.01233,0.23281,0.201318,-0.0254191,-0.00604448,0.00121248,-0.00136378,0.00146105,0.096925,0.00222072,-0.00158562,0.28292,0.885427,0.268518,-0.632966,2.57732,-2.40564,0.0160494,0.100721,-0.305529,0.519951,0.536022,1.62747,-0.0473257,-0.0132452,0.00251152,-0.108927,0.119402,-2.01221,0.230742,0.201596,-0.0253786,0.00486002,0.0145149,-0.000266765,-0.0120464,-0.00430378,-0.00073878,-8.56766e-05,0,0,0,0,0,0,0,4.72065,-29.3291,4.13881,26.1298,2.26654,1.91887,0.050461,
0.00238464,-0.108665,0.119429,-2.01234,0.233834,0.201216,-0.0254302,-0.00557259,0.00197078,-0.000945808,0.000983169,0.103146,-0.000775703,-0.00154545,0.294931,0.473938,0.261233,-0.298678,3.88837,-1.87276,0.0251059,0.100921,-0.304244,0.519699,0.536741,1.62812,-0.046871,-0.0132499,0.00262529,-0.108854,0.119403,-2.0123,0.230559,0.20159,-0.0253823,-0.0022665,0.00697262,0.0140486,0.00250323,-0.0269363,0.0043939,-0.00191789,-0.890816,-0.942786,1.78942,1.8187,-2.82907,0.641585,-0.229027,0.00751081,-31.1263,-1.08611,26.5305,1.74743,2.09191,0.0843355,
0.0023606,-0.108638,0.119439,-2.01234,0.234935,0.201121,-0.0254409,-0.005059,0.00226881,-0.000495095,0.000859853,0.110032,-0.00298728,-0.00150323,0.320995,0.186273,0.281696,-0.0770725,4.30342,-1.38224,0.0263882,0.100921,-0.304244,0.519699,0.536741,1.62812,-0.046871,-0.0132499,0.00262529,-0.108854,0.119403,-2.0123,0.230559,0.20159,-0.0253823,-0.0022665,0.00697262,0.0140486,0.00250323,-0.0269363,0.0043939,-0.00191789,0,0,0,0,0,0,0,0.00751081,-31.1263,-1.08611,26.5305,1.74743,2.09191,0.0843355,
0.002613,-0.108821,0.119437,-2.01231,0.230907,0.201598,-0.0254003,-0.00435448,0.00263184,0.000451515,0.000552841,0.0967446,-0.00218853,-0.00165123,0.440324,0.226894,0.591631,-0.191883,-8.30455,0.499219,-0.0925007,0.100921,-0.304244,0.519699,0.536741,1.62812,-0.046871,-0.0132499,0.00262529,-0.108854,0.119403,-2.0123,0.230559,0.20159,-0.0253823,-0.0022665,0.00697262,0.0140486,0.00250323,-0.0269363,0.0043939,-0.00191789,0,0,0,0,0,0,0,0.00751081,-31.1263,-1.08611,26.5305,1.74743,2.09191,0.0843355,
0.00258859,-0.108798,0.119452,-2.01231,0.231595,0.201576,-0.0254148,-0.00409363,0.00267672,0.000747058,0.000403384,0.0945795,-0.00230702,-0.00168423,0.163033,0.0280452,0.184714,-0.0934104,-1.3532,-0.0740575,-0.0206261,0.100921,-0.304244,0.519699,0.536741,1.62812,-0.046871,-0.0132499,0.00262529,-0.108854,0.119403,-2.0123,0.230559,0.20159,-0.0253823,-0.0022665,0.00697262,0.0140486,0.00250323,-0.0269363,0.0043939,-0.00191789,0,0,0,0,0,0,0,0.00751081,-31.1263,-1.08611,26.5305,1.74743,2.09191,0.0843355,
0.00256151,-0.108783,0.119462,-2.0123,0.232489,0.201535,-0.0254273,-0.00395212,0.00253655,0.000843185,0.000487623,0.0980291,-0.00285365,-0.00166067,0.0884425,-0.0876047,0.0600793,0.0526493,2.15597,-0.341644,0.0147229,0.10083,-0.300113,0.519201,0.539733,1.62844,-0.0445163,-0.0132616,0.0027067,-0.108606,0.119704,-2.0124,0.230523,0.201489,-0.0253754,-0.00361458,0.0198544,0.00288616,-0.00661961,-0.00395185,0.00142595,0.000372054,-0.168509,1.61022,-1.39531,-1.14036,2.87306,-0.370993,0.286243,0.158268,-27.2582,-0.387865,23.6383,1.35742,2.03148,0.050461,
0.00266232,-0.108492,0.119702,-2.01245,0.230957,0.201454,-0.0253905,-0.00427115,0.00487163,0.000639577,-0.000891598,0.0892696,-0.00315606,-0.00170568,-0.199395,1.45943,-0.127255,-0.862013,-5.47468,-0.189005,-0.0281282,0.10083,-0.300113,0.519201,0.539733,1.62844,-0.0445163,-0.0132616,0.0027067,-0.108606,0.119704,-2.0124,0.230523,0.201489,-0.0253754,-0.00361458,0.0198544,0.00288616,-0.00661961,-0.00395185,0.00142595,0.000372054,0,0,0,0,0,0,0,0.158268,-27.2582,-0.387865,23.6383,1.35742,2.03148,0.050461,
0.00261555,-0.108408,0.119694,-2.01249,0.231676,0.201388,-0.0254036,-0.00458614,0.00600925,0.000309818,-0.00160046,0.0893974,-0.00416947,-0.0016923,-0.196866,0.71101,-0.206099,-0.443038,0.0799042,-0.633382,0.00835899,0.10083,-0.300113,0.519201,0.539733,1.62844,-0.0445163,-0.0132616,0.0027067,-0.108606,0.119704,-2.0124,0.230523,0.201489,-0.0253754,-0.00361458,0.0198544,0.00288616,-0.00661961,-0.00395185,0.00142595,0.000372054,0,0,0,0,0,0,0,0.158268,-27.2582,-0.387865,23.6383,1.35742,2.03148,0.050461,
0.00257271,-0.108345,0.119688,-2.01251,0.232576,0.201308,-0.0254153,-0.00474002,0.00637055,8.43751e-05,-0.00177904,0.0940046,-0.00533111,-0.00164604,-0.0961745,0.225813,-0.140902,-0.111616,2.87947,-0.726021,0.0289122,0.10083,-0.300113,0.519201,0.539733,1.62844,-0.0445163,-0.0132616,0.0027067,-0.108606,0.119704,-2.0124,0.230523,0.201489,-0.0253754,-0.00361458,0.0198544,0.00288616,-0.00661961,-0.00395185,0.00142595,0.000372054,0,0,0,0,0,0,0,0.158268,-27.2582,-0.387865,23.6383,1.35742,2.03148,0.050461,
0.00253629,-0.1083,0.119686,-2.01251,0.233592,0.201225,-0.0254262,-0.00470242,0.00622719,3.13662e-05,-0.00160015,0.100602,-0.00634153,-0.00159051,0.0234996,-0.0895969,-0.0331306,0.111811,4.12336,-0.631511,0.0347056,0.10068,-0.288947,0.516833,0.543612,1.62603,-0.0403437,-0.0132797,0.00266914,-0.108139,0.119716,-2.01265,0.231277,0.201417,-0.0253801,0.00526522,0.0159331,0.00481385,-0.00823552,-0.00730143,0.0116526,-0.00108452,1.10998,-0.49016,0.24096,-0.201989,-0.418698,1.27834,-0.182072,1.1977,-30.6026,0.461134,26.0068,1.62567,2.09191,0.0641939,
0.00262965,-0.107971,0.119759,-2.01272,0.23244,0.201382,-0.0254106,-0.00439184,0.00677964,0.0003842,-0.00200015,0.0987356,-0.00610263,-0.00162007,0.194112,0.345281,0.220521,-0.250005,-1.16648,0.149312,-0.0184698,0.10068,-0.288947,0.516833,0.543612,1.62603,-0.0403437,-0.0132797,0.00266914,-0.108139,0.119716,-2.01265,0.231277,0.201417,-0.0253801,0.00526522,0.0159331,0.00481385,-0.00823552,-0.00730143,0.0116526,-0.00108452,0,0,0,0,0,0,0,1.1977,-30.6026,0.461134,26.0068,1.62567,2.09191,0.0641939,
0.00260273,-0.107918,0.119769,-2.01274,0.233355,0.201319,-0.0254228,-0.00418651,0.00675111,0.00055466,-0.00194222,0.101872,-0.00645771,-0.0016017,0.128328,-0.0178309,0.106538,0.0362089,1.96041,-0.221927,0.0114783,0.10068,-0.288947,0.516833,0.543612,1.62603,-0.0403437,-0.0132797,0.00266914,-0.108139,0.119716,-2.01265,0.231277,0.201417,-0.0253801,0.00526522,0.0159331,0.00481385,-0.00823552,-0.00730143,0.0116526,-0.00108452,0,0,0,0,0,0,0,1.1977,-30.6026,0.461134,26.0068,1.62567,2.09191,0.0641939,
0.00257823,-0.10788,0.11978,-2.01274,0.234388,0.201248,-0.0254342,-0.00396172,0.00635039,0.000712525,-0.00159811,0.107313,-0.00693467,-0.00156422,0.140495,-0.250451,0.0986654,0.215071,3.40062,-0.2981,0.0234243,0.10068,-0.288947,0.516833,0.543612,1.62603,-0.0403437,-0.0132797,0.00266914,-0.108139,0.119716,-2.01265,0.231277,0.201417,-0.0253801,0.00526522,0.0159331,0.00481385,-0.00823552,-0.00730143,0.0116526,-0.00108452,0,0,0,0,0,0,0,1.1977,-30.6026,0.461134,26.0068,1.62567,2.09191,0.0641939,
0.00255782,-0.107854,0.119794,-2.01273,0.235496,0.201177,-0.025445,-0.00367954,0.00572636,0.000919356,-0.00108958,0.113556,-0.00732143,-0.00152228,0.176365,-0.390018,0.129269,0.317828,3.90172,-0.241723,0.0262123,0.10093,-0.26987,0.513665,0.548279,1.62623,-0.0361866,-0.0133017,0.00289999,-0.107401,0.119885,-2.01276,0.231333,0.201415,-0.0253759,0.00794425,0.0108634,0.00866011,-0.0135499,-0.00367748,-0.00815686,-3.66775e-05,0.334879,-0.633713,0.480783,-0.664297,0.452994,-2.47619,0.13098,-0.754208,-30.551,-1.51061,27.1771,1.41784,2.21093,0.0641939,
0.00290716,-0.107323,0.119936,-2.01283,0.231787,0.201293,-0.0253921,-0.00276428,0.00651645,0.00201156,-0.0024711,0.102208,-0.00892232,-0.00162345,0.572034,0.493807,0.682625,-0.863446,-7.09239,-1.00056,-0.063232,0.10093,-0.26987,0.513665,0.548279,1.62623,-0.0361866,-0.0133017,0.00289999,-0.107401,0.119885,-2.01276,0.231333,0.201415,-0.0253759,0.00794425,0.0108634,0.00866011,-0.0135499,-0.00367748,-0.00815686,-3.66775e-05,0,0,0,0,0,0,0,-0.754208,-30.551,-1.51061,27.1771,1.41784,2.21093,0.0641939,
0.00289929,-0.10726,0.119968,-2.01287,0.232538,0.201157,-0.0254061,-0.0024082,0.00679192,0.00240545,-0.00292961,0.10053,-0.0105202,-0.00164966,0.222554,0.172167,0.246184,-0.286572,-1.04879,-0.998702,-0.0163819,0.10093,-0.26987,0.513665,0.548279,1.62623,-0.0361866,-0.0133017,0.00289999,-0.107401,0.119885,-2.01276,0.231333,0.201415,-0.0253759,0.00794425,0.0108634,0.00866011,-0.0135499,-0.00367748,-0.00815686,-3.66775e-05,0,0,0,0,0,0,0,-0.754208,-30.551,-1.51061,27.1771,1.41784,2.21093,0.0641939,
0.00288621,-0.107211,0.119991,-2.01289,0.233472,0.201027,-0.0254185,-0.00225364,0.0066614,0.00252056,-0.00284634,0.103772,-0.0116735,-0.00162959,0.0965994,-0.0815771,0.0719448,0.0520428,2.02647,-0.720764,0.0125444,0.10093,-0.26987,0.513665,0.548279,1.62623,-0.0361866,-0.0133017,0.00289999,-0.107401,0.119885,-2.01276,0.231333,0.201415,-0.0253759,0.00794425,0.0108634,0.00866011,-0.0135499,-0.00367748,-0.00815686,-3.66775e-05,0,0,0,0,0,0,0,-0.754208,-30.551,-1.51061,27.1771,1.41784,2.21093,0.0641939,
0.00290716,-0.107323,0.119936,-2.01283,0.231787,0.201293,-0.0253921,-0.00162356,0.00726448,0.00329252,-0.00387651,0.0943814,-0.0124039,-0.0017093,0.393797,0.376927,0.482475,-0.643851,-5.86945,-0.456552,-0.0498181,0.100918,-0.2621,0.512379,0.551074,1.62604,-0.0338919,-0.0133145,0.00300727,-0.10702,0.120125,-2.01286,0.231417,0.201394,-0.0253774,-0.000211384,-0.00522313,0.00227009,-0.0108703,-0.000579465,-0.00102464,-0.000102843,-1.01945,-2.01082,-0.798752,0.334944,0.387251,0.891528,-0.00827071,0.562931,-31.6499,-0.0863513,28.0499,1.57714,2.31072,0.0440523,
0.00289929,-0.10726,0.119968,-2.01287,0.232538,0.201157,-0.0254061,-0.00149562,0.00739034,0.00343022,-0.00405394,0.0942687,-0.0133055,-0.00171834,0.0799642,0.0786634,0.0860636,-0.110896,-0.070435,-0.563499,-0.00565074,0.100918,-0.2621,0.512379,0.551074,1.62604,-0.0338919,-0.0133145,0.00300727,-0.10702,0.120125,-2.01286,0.231417,0.201394,-0.0253774,-0.000211384,-0.00522313,0.00227009,-0.0108703,-0.000579465,-0.00102464,-0.000102843,0,0,0,0,0,0,0,0.562931,-31.6499,-0.0863513,28.0499,1.57714,2.31072,0.0440523,
0.00288621,-0.107211,0.119991,-2.01289,0.233472,0.201027,-0.0254185,-0.00152358,0.00714013,0.00334038,-0.00374581,0.0987633,-0.0139017,-0.00168454,-0.0174726,-0.15638,-0.0561518,0.192584,2.80916,-0.372601,0.0211293,0.100918,-0.2621,0.512379,0.551074,1.62604,-0.0338919,-0.0133145,0.00300727,-0.10702,0.120125,-2.01286,0.231417,0.201394,-0.0253774,-0.000211384,-0.00522313,0.00227009,-0.0108703,-0.000579465,-0.00102464,-0.000102843,0,0,0,0,0,0,0,0.562931,-31.6499,-0.0863513,28.0499,1.57714,2.31072,0.0440523,
0.00287273,-0.107175,0.120013,-2.01289,0.234521,0.200909,-0.02543,-0.00155591,0.00662863,0.00321827,-0.00316134,0.105235,-0.014082,-0.00163431,-0.0202062,-0.319692,-0.0763224,0.365294,4.04467,-0.112677,0.0313925,0.100918,-0.2621,0.512379,0.551074,1.62604,-0.0338919,-0.0133145,0.00300727,-0.10702,0.120125,-2.01286,0.231417,0.201394,-0.0253774,-0.000211384,-0.00522313,0.00227009,-0.0108703,-0.000579465,-0.00102464,-0.000102843,0,0,0,0,0,0,0,0.562931,-31.6499,-0.0863513,28.0499,1.57714,2.31072,0.0440523,
0.00297533,-0.107028,0.120133,-2.01289,0.231868,0.201323,-0.0253919,-0.00204324,0.00511775,0.00278928,-0.00316881,0.0954603,-0.0130447,-0.00167154,-0.304586,-0.944295,-0.268116,-0.00467377,-6.10906,0.648314,-0.0232684,0.101205,-0.24711,0.50992,0.555314,1.62633,-0.0303471,-0.0133339,0.00309116,-0.106418,0.120286,-2.01293,0.23142,0.201322,-0.0253797,0.00436354,-0.00894634,0.00904867,-0.0130168,-0.00929853,-0.0105086,-0.00114883,0.571866,-0.465402,0.847322,-0.268308,-1.08988,-1.1855,-0.130748,-0.171017,-31.1025,-0.859972,28.5974,1.60736,2.59545,0.0706026,
0.00293917,-0.107025,0.120134,-2.01289,0.232607,0.201243,-0.025405,-0.00253869,0.00415949,0.0022586,-0.00260227,0.0948488,-0.0124325,-0.00166486,-0.309654,-0.598914,-0.331673,0.354087,-0.382173,0.382623,0.00417349,0.101205,-0.24711,0.50992,0.555314,1.62633,-0.0303471,-0.0133339,0.00309116,-0.106418,0.120286,-2.01293,0.23142,0.201322,-0.0253797,0.00436354,-0.00894634,0.00904867,-0.0130168,-0.00929853,-0.0105086,-0.00114883,0,0,0,0,0,0,0,-0.171017,-31.1025,-0.859972,28.5974,1.60736,2.59545,0.0706026,
0.00290519,-0.107021,0.120136,-2.01288,0.233529,0.201169,-0.0254169,-0.00288042,0.00343873,0.00183722,-0.00185224,0.0989176,-0.011809,-0.00162798,-0.21358,-0.450475,-0.263363,0.468769,2.54302,0.389659,0.0230473,0.101205,-0.24711,0.50992,0.555314,1.62633,-0.0303471,-0.0133339,0.00309116,-0.106418,0.120286,-2.01293,0.23142,0.201322,-0.0253797,0.00436354,-0.00894634,0.00904867,-0.0130168,-0.00929853,-0.0105086,-0.00114883,0,0,0,0,0,0,0,-0.171017,-31.1025,-0.859972,28.5974,1.60736,2.59545,0.0706026,
0.00309113,-0.106441,0.120329,-2.01296,0.231842,0.201187,-0.0253957,-0.00230515,0.00215566,0.00252918,-0.00229127,0.089686,-0.0128155,-0.00170179,0.359544,-0.80192,0.432477,-0.274392,-5.76975,-0.629053,-0.0461262,0.101205,-0.24711,0.50992,0.555314,1.62633,-0.0303471,-0.0133339,0.00309116,-0.106418,0.120286,-2.01293,0.23142,0.201322,-0.0253797,0.00436354,-0.00894634,0.00904867,-0.0130168,-0.00929853,-0.0105086,-0.00114883,0,0,0,0,0,0,0,-0.171017,-31.1025,-0.859972,28.5974,1.60736,2.59545,0.0706026,
0.00307846,-0.106449,0.120354,-2.01297,0.232575,0.201058,-0.0254096,-0.00216073,0.00154826,0.0026637,-0.0019912,0.0900825,-0.0134618,-0.00170951,0.0902585,-0.379628,0.0840716,0.187546,0.247794,-0.403928,-0.00482888,0.100879,-0.243285,0.508583,0.558823,1.62679,-0.0274803,-0.0133493,0.00315975,-0.106173,0.120411,-2.01326,0.231329,0.201284,-0.025378,0.00190098,0.00413959,-0.000243921,0.00863836,-0.000955273,0.00117388,-0.00182433,-0.307821,1.63574,-1.16157,2.7069,1.04291,1.46031,-0.0844382,0.134464,-31.4516,-0.562425,28.522,1.68701,2.74834,0.0779268,
0.003062,-0.10645,0.120374,-2.01296,0.233502,0.200948,-0.025422,-0.00214024,0.00120621,0.00261472,-0.00142231,0.0952422,-0.0135289,-0.00167726,0.0128118,-0.213777,-0.0306141,0.355554,3.22478,-0.0419055,0.0201578,0.100879,-0.243285,0.508583,0.558823,1.62679,-0.0274803,-0.0133493,0.00315975,-0.106173,0.120411,-2.01326,0.231329,0.201284,-0.025378,0.00190098,0.00413959,-0.000243921,0.00863836,-0.000955273,0.00117388,-0.00182433,0,0,0,0,0,0,0,0.134464,-31.4516,-0.562425,28.522,1.68701,2.74834,0.0779268,
0.00304611,-0.10645,0.120392,-2.01295,0.23455,0.200856,-0.0254335,-0.00210951,0.000961117,0.0025554,-0.000754902,0.102397,-0.0131283,-0.00162898,0.0192021,-0.153185,-0.0370741,0.417129,4.47186,0.250331,0.0301734,0.100879,-0.243285,0.508583,0.558823,1.62679,-0.0274803,-0.0133493,0.00315975,-0.106173,0.120411,-2.01326,0.231329,0.201284,-0.025378,0.00190098,0.00413959,-0.000243921,0.00863836,-0.000955273,0.00117388,-0.00182433,0,0,0,0,0,0,0,0.134464,-31.4516,-0.562425,28.522,1.68701,2.74834,0.0779268,
0.00312417,-0.106163,0.120415,-2.01324,0.231806,0.201307,-0.0253946,-0.00257708,0.00103504,0.0021411,-2.06221e-05,0.0938235,-0.00993285,-0.00171669,-0.292229,0.0462019,-0.258933,0.458925,-5.35849,1.99717,-0.0548146,0.100879,-0.243285,0.508583,0.558823,1.62679,-0.0274803,-0.0133493,0.00315975,-0.106173,0.120411,-2.01326,0.231329,0.201284,-0.025378,0.00190098,0.00413959,-0.000243921,0.00863836,-0.000955273,0.00117388,-0.00182433,0,0,0,0,0,0,0,0.134464,-31.4516,-0.562425,28.522,1.68701,2.74834,0.0779268,
0.00308444,-0.106157,0.120412,-2.01322,0.232567,0.201315,-0.0254081,-0.00305485,0.000969935,0.00163507,0.00045722,0.0940985,-0.00774738,-0.00171054,-0.298605,-0.0406903,-0.316269,0.298651,0.171835,1.36592,0.00384257,0.100855,-0.238273,0.507703,0.558381,1.62742,-0.0281187,-0.0133471,0.00309923,-0.106047,0.120372,-2.0131,0.231135,0.201366,-0.0253762,0.000750378,-0.00889565,0.00391763,0.00476866,-0.00676787,0.0010299,0.00060507,-0.143825,-1.6294,0.520194,-0.483712,-0.726575,-0.0179978,0.303675,0.717655,-31.277,0.0128308,26.3797,1.54602,2.17797,0.0303194,
0.00304753,-0.106154,0.12041,-2.0132,0.233505,0.201309,-0.02542,-0.00336667,0.000856806,0.00125038,0.000928525,0.0987175,-0.00632429,-0.00166668,-0.194891,-0.0707054,-0.240431,0.294566,2.88688,0.889431,0.0274139,0.100855,-0.238273,0.507703,0.558381,1.62742,-0.0281187,-0.0133471,0.00309923,-0.106047,0.120372,-2.0131,0.231135,0.201366,-0.0253762,0.000750378,-0.00889565,0.00391763,0.00476866,-0.00676787,0.0010299,0.00060507,0,0,0,0,0,0,0,0.717655,-31.277,0.0128308,26.3797,1.54602,2.17797,0.0303194,
0.00301606,-0.106153,0.120412,-2.01317,0.234553,0.201296,-0.0254311,-0.00348014,0.000704666,0.00105188,0.00141205,0.105193,-0.00538491,-0.00161202,-0.0709153,-0.0950877,-0.124064,0.302204,4.04715,0.587114,0.0341631,0.100855,-0.238273,0.507703,0.558381,1.62742,-0.0281187,-0.0133471,0.00309923,-0.106047,0.120372,-2.0131,0.231135,0.201366,-0.0253762,0.000750378,-0.00889565,0.00391763,0.00476866,-0.00676787,0.0010299,0.00060507,0,0,0,0,0,0,0,0.717655,-31.277,0.0128308,26.3797,1.54602,2.17797,0.0303194,
0.00307304,-0.106098,0.120386,-2.01307,0.231581,0.201368,-0.0253919,-0.00343881,-0.000687119,0.00118877,0.001885,0.0953061,-0.00426827,-0.0016822,0.0258321,-0.869866,0.0855563,0.295591,-6.17929,0.697901,-0.0438656,0.100855,-0.238273,0.507703,0.558381,1.62742,-0.0281187,-0.0133471,0.00309923,-0.106047,0.120372,-2.0131,0.231135,0.201366,-0.0253762,0.000750378,-0.00889565,0.00391763,0.00476866,-0.00676787,0.0010299,0.00060507,0,0,0,0,0,0,0,0.717655,-31.277,0.0128308,26.3797,1.54602,2.17797,0.0303194,
0.00304051,-0.106132,0.12039,-2.01304,0.232329,0.201362,-0.0254056,-0.00356417,-0.00141775,0.0010525,0.00230293,0.0949553,-0.00355878,-0.00168766,-0.0783525,-0.456641,-0.0851705,0.261207,-0.219231,0.443431,-0.00341418,0.100855,-0.238273,0.507703,0.558381,1.62742,-0.0281187,-0.0133471,0.00305909,-0.105937,0.120279,-2.01302,0.231158,0.201361,-0.0253763,-0.0023931,0.00596259,-0.0114402,0.0114076,-0.00488446,0.00219139,0.000790357,-0.392934,1.85728,-1.91972,0.829864,0.235427,0.145186,0.0231609,-1.3374,-30.1027,-1.8875,26.3043,1.52771,2.34368,0.0303194,
0.00300898,-0.106158,0.120393,-2.01301,0.233264,0.201352,-0.0254177,-0.00363959,-0.00176684,0.000917063,0.0027043,0.0993381,-0.003098,-0.00165347,-0.0471357,-0.218187,-0.0846469,0.250855,2.73927,0.287988,0.0213702,0.101045,-0.234353,0.507033,0.55865,1.62736,-0.0278869,-0.013348,0.00305909,-0.105937,0.120279,-2.01302,0.231158,0.201361,-0.0253763,-0.0023931,0.00596259,-0.0114402,0.0114076,-0.00488446,0.00219139,0.000790357,0,0,0,0,0,0,0,-1.3374,-30.1027,-1.8875,26.3043,1.52771,2.34368,0.0303194,
0.00298159,-0.106178,0.120399,-2.01297,0.234316,0.20134,-0.025429,-0.00359657,-0.00191257,0.000885088,0.00308132,0.105766,-0.00278417,-0.00160518,0.0268882,-0.0910811,-0.0199849,0.235642,4.01715,0.19614,0.0301804,0.101045,-0.234353,0.507033,0.55865,1.62736,-0.0278869,-0.013348,0.00305909,-0.105937,0.120279,-2.01302,0.231158,0.201361,-0.0253763,-0.0023931,0.00596259,-0.0114402,0.0114076,-0.00488446,0.00219139,0.000790357,0,0,0,0,0,0,0,-1.3374,-30.1027,-1.8875,26.3043,1.52771,2.34368,0.0303194,
0.00297839,-0.10592,0.120234,-2.01299,0.231596,0.201408,-0.025391,-0.00489451,-0.00110167,-0.000400582,0.00323429,0.0955556,-0.00103589,-0.00165151,-0.811218,0.506812,-0.803543,0.0956055,-6.3812,1.09268,-0.028956,0.101045,-0.234353,0.507033,0.55865,1.62736,-0.0278869,-0.013348,0.00305909,-0.105937,0.120279,-2.01302,0.231158,0.201361,-0.0253763,-0.0023931,0.00596259,-0.0114402,0.0114076,-0.00488446,0.00219139,0.000790357,0,0,0,0,0,0,0,-1.3374,-30.1027,-1.8875,26.3043,1.52771,2.34368,0.0303194,
0.00290445,-0.105911,0.120195,-2.01297,0.232316,0.201443,-0.0254036,-0.00576417,-0.00063623,-0.0012953,0.00314722,0.0944552,2.74937e-05,-0.00163553,-0.543533,0.290903,-0.559201,-0.0544203,-0.687794,0.664612,0.00998788,0.101045,-0.234353,0.507033,0.55865,1.62736,-0.0278869,-0.013348,0.00305909,-0.105937,0.120279,-2.01302,0.231158,0.201361,-0.0253763,-0.0023931,0.00596259,-0.0114402,0.0114076,-0.00488446,0.00219139,0.000790357,0,0,0,0,0,0,0,-1.3374,-30.1027,-1.8875,26.3043,1.52771,2.34368,0.0303194,
0.00284155,-0.105904,0.120166,-2.01295,0.233215,0.201461,-0.0254149,-0.00618384,-0.000349233,-0.00177365,0.00313268,0.0980293,0.000484949,-0.00159096,-0.262297,0.179373,-0.298967,-0.00908556,2.23383,0.28591,0.0278568,0.100993,-0.236623,0.507404,0.557495,1.62717,-0.0288378,-0.0133428,0.00299397,-0.106049,0.120214,-2.01296,0.231172,0.201378,-0.0253773,0.0082641,-0.0100432,0.000301633,3.17362e-05,-0.00291016,-0.00456348,0.00014153,1.33215,-2.00072,1.46773,-1.42198,0.246788,-0.844358,-0.0811035,-0.528073,-30.305,-1.0385,26.9034,1.49109,2.50298,0.0440523,
0.00279018,-0.105901,0.120147,-2.01292,0.234229,0.201468,-0.0254256,-0.00623143,-0.000195041,-0.00188748,0.00321175,0.103782,0.00056091,-0.00154041,-0.0297463,0.09637,-0.0711409,0.0494195,3.59568,0.0474756,0.031591,0.100993,-0.236623,0.507404,0.557495,1.62717,-0.0288378,-0.0133428,0.00299397,-0.106049,0.120214,-2.01296,0.231172,0.201378,-0.0253773,0.0082641,-0.0100432,0.000301633,3.17362e-05,-0.00291016,-0.00456348,0.00014153,0,0,0,0,0,0,0,-0.528073,-30.305,-1.0385,26.9034,1.49109,2.50298,0.0440523,
0.0029802,-0.106098,0.120239,-2.01294,0.23164,0.201329,-0.0253932,-0.00532943,-0.00138983,-0.000877175,0.00294635,0.0947254,-0.000795336,-0.00162829,0.563753,-0.746741,0.631439,-0.165875,-5.66063,-0.847654,-0.0549207,0.100993,-0.236623,0.507404,0.557495,1.62717,-0.0288378,-0.0133428,0.00299397,-0.106049,0.120214,-2.01296,0.231172,0.201378,-0.0253773,0.0082641,-0.0100432,0.000301633,3.17362e-05,-0.00291016,-0.00456348,0.00014153,0,0,0,0,0,0,0,-0.528073,-30.305,-1.0385,26.9034,1.49109,2.50298,0.0440523,
0.00295712,-0.10613,0.120253,-2.01292,0.232405,0.20128,-0.0254069,-0.00484064,-0.0019059,-0.00035732,0.00293679,0.0948925,-0.00184791,-0.00164549,0.305496,-0.322543,0.324909,-0.00598048,0.104475,-0.657859,-0.0107542,0.100993,-0.236623,0.507404,0.557495,1.62717,-0.0288378,-0.0133428,0.00299397,-0.106049,0.120214,-2.01296,0.231172,0.201378,-0.0253773,0.0082641,-0.0100432,0.000301633,3.17362e-05,-0.00291016,-0.00456348,0.00014153,0,0,0,0,0,0,0,-0.528073,-30.305,-1.0385,26.9034,1.49109,2.50298,0.0440523,
0.00293309,-0.106152,0.120263,-2.01289,0.233352,0.201237,-0.0254191,-0.00447316,-0.00207657,-1.70917e-05,0.00305955,0.0995997,-0.00256202,-0.00162138,0.229671,-0.106669,0.212643,0.0767285,2.94199,-0.446321,0.0150698,0.101032,-0.226766,0.505134,0.558677,1.62735,-0.0283029,-0.0133459,0.00285098,-0.105763,0.119968,-2.01281,0.231121,0.201421,-0.0253767,-0.00158766,0.0246262,-0.0155035,0.00926957,3.79741e-05,0.00168548,6.76856e-05,-1.23147,4.33368,-1.97565,1.15473,0.368516,0.781119,-0.00923049,-2.04754,-29.9281,-2.66112,25.3601,1.08184,2.16424,0.0376436,
0.0029802,-0.106098,0.120239,-2.01294,0.23164,0.201329,-0.0253932,-0.00392281,-0.00289505,0.000619133,0.00282459,0.0913792,-0.00329368,-0.00169306,0.343969,-0.51155,0.39764,-0.14685,-5.1378,-0.457287,-0.0447997,0.101032,-0.226766,0.505134,0.558677,1.62735,-0.0283029,-0.0133459,0.00285098,-0.105763,0.119968,-2.01281,0.231121,0.201421,-0.0253767,-0.00158766,0.0246262,-0.0155035,0.00926957,3.79741e-05,0.00168548,6.76856e-05,0,0,0,0,0,0,0,-2.04754,-29.9281,-2.66112,25.3601,1.08184,2.16424,0.0376436,
0.00267776,-0.105566,0.119866,-2.01282,0.232296,0.201482,-0.0254038,-0.00519105,-0.000296552,-0.000677516,0.00199652,0.0911052,-0.00217951,-0.00166132,-0.79265,1.62406,-0.810406,-0.517544,-0.171232,0.696356,0.019839,0.101032,-0.226766,0.505134,0.558677,1.62735,-0.0283029,-0.0133459,0.00285098,-0.105763,0.119968,-2.01281,0.231121,0.201421,-0.0253767,-0.00158766,0.0246262,-0.0155035,0.00926957,3.79741e-05,0.00168548,6.76856e-05,0,0,0,0,0,0,0,-2.04754,-29.9281,-2.66112,25.3601,1.08184,2.16424,0.0376436,
0.00260857,-0.105507,0.11983,-2.01282,0.233185,0.201477,-0.0254149,-0.00588254,0.00123221,-0.00143224,0.00152645,0.0951103,-0.00186272,-0.00160524,-0.43218,0.955476,-0.471704,-0.293795,2.50317,0.197995,0.035051,0.101032,-0.226766,0.505134,0.558677,1.62735,-0.0283029,-0.0133459,0.00285098,-0.105763,0.119968,-2.01281,0.231121,0.201421,-0.0253767,-0.00158766,0.0246262,-0.0155035,0.00926957,3.79741e-05,0.00168548,6.76856e-05,0,0,0,0,0,0,0,-2.04754,-29.9281,-2.66112,25.3601,1.08184,2.16424,0.0376436,
0.0025523,-0.105464,0.119807,-2.01282,0.234186,0.201458,-0.0254254,-0.00611266,0.00205479,-0.00173429,0.00137311,0.10111,-0.00196589,-0.00154718,-0.143825,0.514112,-0.188777,-0.0958348,3.74973,-0.0644821,0.036288,0.100894,-0.224871,0.504838,0.558791,1.62718,-0.0276761,-0.0133487,0.0028648,-0.105679,0.120061,-2.01282,0.231147,0.201373,-0.025379,0.00499783,0.00382184,0.00420308,-0.00407503,0.00589978,-0.00363878,-0.000701939,0.823186,-2.60055,2.46333,-1.66808,0.732726,-0.665531,-0.0962031,0.285221,-31.1025,-0.288683,26.9034,1.40594,2.45629,0.0641939,
0.00285316,-0.10565,0.12009,-2.01284,0.231652,0.201315,-0.0253949,-0.00518096,0.00235964,-0.00066648,0.000646582,0.0935134,-0.00301806,-0.00163422,0.582312,0.190532,0.667378,-0.454083,-4.74781,-0.657606,-0.0544006,0.100894,-0.224871,0.504838,0.558791,1.62718,-0.0276761,-0.0133487,0.0028648,-0.105679,0.120061,-2.01282,0.231147,0.201373,-0.025379,0.00499783,0.00382184,0.00420308,-0.00407503,0.00589978,-0.00363878,-0.000701939,0,0,0,0,0,0,0,0.285221,-31.1025,-0.288683,26.9034,1.40594,2.45629,0.0641939,
