xiao-wang007/linearmpc_panda/paper_data/panda_torque_PD_controller_opt_time_to_start/3/trajectory.csv
Commanded Joint 0 Position,Commanded Joint 1 Position,Commanded Joint 2 Position,Commanded Joint 3 Position,Commanded Joint 4 Position,Commanded Joint 5 Position,Commanded Joint 6 Position,Commanded Joint 0 Velocity,Commanded Joint 1 Velocity,Commanded Joint 2 Velocity,Commanded Joint 3 Velocity,Commanded Joint 4 Velocity,Commanded Joint 5 Velocity,Commanded Joint 6 Velocity,Commanded Joint 0 Acceleration,Commanded Joint 1 Acceleration,Commanded Joint 2 Acceleration,Commanded Joint 3 Acceleration,Commanded Joint 4 Acceleration,Commanded Joint 5 Acceleration,Commanded Joint 6 Acceleration,Commanded Joint 0 Torque,Commanded Joint 1 Torque,Commanded Joint 2 Torque,Commanded Joint 3 Torque,Commanded Joint 4 Torque,Commanded Joint 5 Torque,Commanded Joint 6 Torque,Actual Joint 0 Position,Actual Joint 1 Position,Actual Joint 2 Position,Actual Joint 3 Position,Actual Joint 4 Position,Actual Joint 5 Position,Actual Joint 6 Position,Actual Joint 0 Velocity,Actual Joint 1 Velocity,Actual Joint 2 Velocity,Actual Joint 3 Velocity,Actual Joint 4 Velocity,Actual Joint 5 Velocity,Actual Joint 6 Velocity,Actual Joint 0 Acceleration,Actual Joint 1 Acceleration,Actual Joint 2 Acceleration,Actual Joint 3 Acceleration,Actual Joint 4 Acceleration,Actual Joint 5 Acceleration,Actual Joint 6 Acceleration,Actual Joint 0 Torque,Actual Joint 1 Torque,Actual Joint 2 Torque,Actual Joint 3 Torque,Actual Joint 4 Torque,Actual Joint 5 Torque,Actual Joint 6 Torque,
0.16262,0.060459,-0.152986,-1.84483,-0.0185664,0.348639,-0.0105062,-0.000192527,0.0250254,8.10758e-05,-0.0322486,-0.0019358,0.0587438,-0.000398104,-0.120329,15.6409,0.0506724,-20.1554,-1.20988,36.7149,-0.248815,0.0584539,26.1701,0.281364,-24.278,-0.463745,2.04844,-0.0251704,0.162632,0.0594036,-0.152995,-1.84224,-0.0184795,0.342421,-0.0104528,-0.00172912,0.00249716,-0.000754712,-0.00542546,0.00278893,0.000493027,0.000489149,0,0,0,0,0,0,0,-0.0718349,-37.1684,-0.260912,27.2287,0.715634,2.89391,-0.0630644,
0.162616,0.0594624,-0.15301,-1.84228,-0.0184782,0.34236,-0.0104519,-0.000254347,0.0204289,-2.13913e-05,-0.0260418,-0.00164468,0.046516,-0.000315737,-0.0386377,-2.8728,-0.0640419,3.87925,0.18195,-7.64238,0.0514792,0.0527005,26.6106,0.27104,-24.1944,-0.464354,1.79737,-0.0236495,0.162632,0.0594036,-0.152995,-1.84224,-0.0184795,0.342421,-0.0104528,-0.00172912,0.00249716,-0.000754712,-0.00542546,0.00278893,0.000493027,0.000489149,0,0,0,0,0,0,0,-0.0718349,-37.1684,-0.260912,27.2287,0.715634,2.89391,-0.0630644,
0.162613,0.0594759,-0.153013,-1.84229,-0.0184828,0.342344,-0.0104518,-0.000280238,0.0166808,-8.15835e-05,-0.0210254,-0.00143118,0.0368224,-0.000251386,-0.0161814,-2.34256,-0.0376201,3.13528,0.133437,-6.05853,0.0402194,0.0454686,27.1821,0.259283,-24.0865,-0.46403,1.44965,-0.0216801,0.162632,0.0594036,-0.152995,-1.84224,-0.0184795,0.342421,-0.0104528,-0.00172912,0.00249716,-0.000754712,-0.00542546,0.00278893,0.000493027,0.000489149,0,0,0,0,0,0,0,-0.0718349,-37.1684,-0.260912,27.2287,0.715634,2.89391,-0.0630644,
0.16261,0.0594871,-0.153015,-1.8423,-0.0184873,0.342332,-0.0104518,-0.000284036,0.0136256,-0.000113956,-0.0169731,-0.00125631,0.0291532,-0.000200741,-0.00237437,-1.9095,-0.0202327,2.53269,0.109298,-4.79324,0.0316531,0.0394871,27.706,0.24983,-23.9187,-0.462188,1.06436,-0.0196786,0.162632,0.0594036,-0.152995,-1.84224,-0.0184795,0.342421,-0.0104528,-0.00172912,0.00249716,-0.000754712,-0.00542546,0.00278893,0.000493027,0.000489149,0,0,0,0,0,0,0,-0.0718349,-37.1684,-0.260912,27.2287,0.715634,2.89391,-0.0630644,
0.162327,0.0630021,-0.153275,-1.84506,-0.0113666,0.342496,-0.0104894,-0.000974336,0.0179212,-0.000729667,-0.0171181,0.0438594,-0.00768493,-0.00022018,-0.431437,2.68473,-0.384819,-0.0906176,28.1973,-23.0238,-0.0121493,0.513769,0.190461,0.524699,-0.210411,2.731,-1.62082,-0.00166072,0.162589,0.0604188,-0.153031,-1.84382,-0.0184367,0.34588,-0.0104542,-0.00660922,0.100782,-0.00611068,-0.157769,0.0145651,0.287954,0.000922681,-0.610011,12.2856,-0.669496,-19.0429,1.47202,35.9326,0.0541915,0.463749,-17.3241,0.413527,8.16986,0.116879,0.818411,-0.050247,
0.162309,0.0632203,-0.153289,-1.84519,-0.00951012,0.341196,-0.010491,-0.00122988,0.0197932,-0.000932017,-0.0167072,0.0815006,-0.0386543,-0.000215991,-0.159712,1.17,-0.126469,0.256816,23.5258,-19.3559,0.00261789,0.508223,0.189707,0.519198,-0.207919,2.70579,-1.6062,-0.00163385,0.162589,0.0604188,-0.153031,-1.84382,-0.0184367,0.34588,-0.0104542,-0.00660922,0.100782,-0.00611068,-0.157769,0.0145651,0.287954,0.000922681,0,0,0,0,0,0,0,0.463749,-17.3241,0.413527,8.16986,0.116879,0.818411,-0.050247,
0.162301,0.0633927,-0.153293,-1.84529,-0.00761784,0.339873,-0.0104922,-0.00117456,0.0201427,-0.000841931,-0.0159372,0.112507,-0.0639804,-0.000201651,0.0345702,0.218476,0.0563037,0.481212,19.3793,-15.8288,0.00896255,0.502726,0.188721,0.51374,-0.205502,2.68049,-1.59162,-0.00160495,0.162589,0.0604188,-0.153031,-1.84382,-0.0184367,0.34588,-0.0104542,-0.00660922,0.100782,-0.00611068,-0.157769,0.0145651,0.287954,0.000922681,0,0,0,0,0,0,0,0.463749,-17.3241,0.413527,8.16986,0.116879,0.818411,-0.050247,
0.162302,0.0635309,-0.153288,-1.84538,-0.00570703,0.338552,-0.0104931,-0.000909409,0.01957,-0.000556779,-0.0149503,0.137776,-0.0842246,-0.000184324,0.165721,-0.357958,0.17822,0.616796,15.793,-12.6526,0.0108298,0.49726,0.187576,0.508303,-0.203143,2.65515,-1.57707,-0.00157672,0.162589,0.0604188,-0.153031,-1.84382,-0.0184367,0.34588,-0.0104542,-0.00660922,0.100782,-0.00611068,-0.157769,0.0145651,0.287954,0.000922681,0,0,0,0,0,0,0,0.463749,-17.3241,0.413527,8.16986,0.116879,0.818411,-0.050247,
0.162363,0.0656577,-0.153262,-1.85012,0.017536,0.330841,-0.0105525,-0.000155652,0.019635,0.000212646,-0.0161467,0.308238,-0.17089,-0.000199897,0.471098,0.0406311,0.480891,-0.747713,106.539,-54.1656,-0.00973312,3.79667,0.167873,3.77744,-1.284,11.1172,-5.93467,-0.00271675,0.162571,0.0642197,-0.15303,-1.84914,-0.0154319,0.349426,-0.0104573,0.000843282,0.0521,0.00176304,-0.0953387,0.202606,-0.168561,-0.000161851,0.931562,-6.08527,0.984215,7.80375,23.5051,-57.0643,-0.135567,0.309024,-38.6879,0.163588,35.6711,1.85821,4.13994,-0.0227812,
0.162425,0.0657854,-0.153197,-1.85029,0.0256786,0.326714,-0.0105528,0.00142919,0.0189003,0.00180432,-0.017078,0.450154,-0.239902,-0.000165705,0.990527,-0.459185,0.994797,-0.582043,88.6975,-43.1327,0.0213695,3.72973,0.188508,3.71089,-1.23825,11.1172,-5.74636,-0.00233928,0.162571,0.0642197,-0.15303,-1.84914,-0.0154319,0.349426,-0.0104573,0.000843282,0.0521,0.00176304,-0.0953387,0.202606,-0.168561,-0.000161851,0,0,0,0,0,0,0,0.309024,-38.6879,0.163588,35.6711,1.85821,4.13994,-0.0227812,
0.162525,0.0658901,-0.153093,-1.85045,0.0338831,0.322644,-0.010551,0.00365265,0.0177389,0.00403858,-0.0177509,0.565236,-0.293678,-8.73148e-05,1.38966,-0.725911,1.39642,-0.420569,71.9263,-33.6101,0.0489941,3.66237,0.189367,3.64436,-1.20026,11.1172,-5.56672,-0.00196275,0.162571,0.0642197,-0.15303,-1.84914,-0.0154319,0.349426,-0.0104573,0.000843282,0.0521,0.00176304,-0.0953387,0.202606,-0.168561,-0.000161851,0,0,0,0,0,0,0,0.309024,-38.6879,0.163588,35.6711,1.85821,4.13994,-0.0227812,
0.16266,0.065978,-0.152956,-1.85061,0.0420564,0.318661,-0.0105485,0.00629119,0.0163865,0.00667149,-0.0181942,0.656521,-0.334514,-8.79465e-06,1.64909,-0.845209,1.64557,-0.2771,57.0533,-25.5226,0.0490751,3.5943,0.175082,3.57638,-1.16993,11.1172,-5.39283,-0.00152726,0.162571,0.0642197,-0.15303,-1.84914,-0.0154319,0.349426,-0.0104573,0.000843282,0.0521,0.00176304,-0.0953387,0.202606,-0.168561,-0.000161851,0,0,0,0,0,0,0,0.309024,-38.6879,0.163588,35.6711,1.85821,4.13994,-0.0227812,
0.165593,0.0635088,-0.150217,-1.85094,0.0141586,0.309887,-0.00998328,0.0254609,0.00541101,0.0242579,-0.024982,0.712959,-0.512576,0.000500399,11.9811,-6.8597,10.9915,-4.24233,35.2733,-111.289,0.318246,22.8434,-3.39612,22.4376,-6.88883,10.9549,-14.2001,0.252059,0.162365,0.0681795,-0.153089,-1.85023,0.00640945,0.336805,-0.010458,-0.00788261,0.156829,-0.0244546,-0.0395251,1.22509,-0.508061,0.0014047,-1.09074,13.0911,-3.27721,6.9767,127.81,-42.4375,0.195819,5.30384,-48.8204,5.16237,27.9984,4.62402,-0.388254,-0.0163725,
0.166458,0.0632298,-0.149408,-1.85139,0.0220287,0.300002,-0.00996795,0.0420012,-0.00264738,0.0396341,-0.0314486,0.767117,-0.657184,0.00078366,10.3376,-5.03649,9.61015,-4.04167,33.8492,-90.3801,0.177038,20.0647,-5.26078,19.4544,-8.30769,10.9549,-14.2001,0.204489,0.162365,0.0681795,-0.153089,-1.85023,0.00640945,0.336805,-0.010458,-0.00788261,0.156829,-0.0244546,-0.0395251,1.22509,-0.508061,0.0014047,0,0,0,0,0,0,0,5.30384,-48.8204,5.16237,27.9984,4.62402,-0.388254,-0.0163725,
0.167359,0.0629972,-0.148559,-1.85189,0.030147,0.290288,-0.00995326,0.0561107,-0.00793386,0.0529116,-0.0376256,0.816653,-0.76861,0.000993992,8.81846,-3.30405,8.29841,-3.86064,30.9596,-69.6413,0.131458,17.6442,-4.79545,16.8011,-8.51919,10.9549,-14.2001,0.10446,0.162365,0.0681795,-0.153089,-1.85023,0.00640945,0.336805,-0.010458,-0.00788261,0.156829,-0.0244546,-0.0395251,1.22509,-0.508061,0.0014047,0,0,0,0,0,0,0,5.30384,-48.8204,5.16237,27.9984,4.62402,-0.388254,-0.0163725,
0.168284,0.0628174,-0.147683,-1.85242,0.038436,0.280891,-0.00993797,0.0680197,-0.0108399,0.0642386,-0.0433485,0.860547,-0.849802,0.00117751,7.44316,-1.81626,7.07937,-3.57676,27.4339,-50.7449,0.114696,16.0969,-3.48858,15.2288,-8.09133,10.9549,-14.2001,0.0474122,0.162365,0.0681795,-0.153089,-1.85023,0.00640945,0.336805,-0.010458,-0.00788261,0.156829,-0.0244546,-0.0395251,1.22509,-0.508061,0.0014047,0,0,0,0,0,0,0,5.30384,-48.8204,5.16237,27.9984,4.62402,-0.388254,-0.0163725,
0.166518,0.0693596,-0.148843,-1.85425,0.0462749,0.295243,-0.0104315,0.0831385,-0.00867321,0.0798697,-0.0586967,0.888092,-0.910141,0.000443067,9.44925,1.35417,9.76949,-9.59265,17.2159,-37.7117,-0.459024,23.3706,-0.144378,23.1919,-13.4118,10.9549,-14.2001,0.00320275,0.162365,0.0681795,-0.153089,-1.85023,0.00640945,0.336805,-0.010458,-0.00788261,0.156829,-0.0244546,-0.0395251,1.22509,-0.508061,0.0014047,0,0,0,0,0,0,0,5.30384,-48.8204,5.16237,27.9984,4.62402,-0.388254,-0.0163725,
0.16773,0.0693338,-0.147646,-1.85528,0.0544038,0.28641,-0.0104527,0.0968293,-0.00758396,0.093839,-0.0726673,0.913696,-0.948935,-0.000177359,8.55671,0.680778,8.73078,-8.73161,16.0024,-24.2463,-0.387767,21.9714,0.0673568,21.7626,-12.9078,10.9549,-14.2001,-0.0159207,0.162365,0.0681795,-0.153089,-1.85023,0.00640945,0.336805,-0.010458,-0.00788261,0.156829,-0.0244546,-0.0395251,1.22509,-0.508061,0.0014047,0,0,0,0,0,0,0,5.30384,-48.8204,5.16237,27.9984,4.62402,-0.388254,-0.0163725,
0.168984,0.0692986,-0.14641,-1.85635,0.062657,0.278115,-0.0104721,0.108816,-0.0069485,0.10596,-0.0849926,0.937289,-0.96651,-0.00062552,7.49198,0.397165,7.57553,-7.70332,14.7452,-10.9842,-0.2801,20.8329,-0.0623269,20.5969,-12.5718,10.9549,-14.2001,-0.0265466,0.162365,0.0681795,-0.153089,-1.85023,0.00640945,0.336805,-0.010458,-0.00788261,0.156829,-0.0244546,-0.0395251,1.22509,-0.508061,0.0014047,0,0,0,0,0,0,0,5.30384,-48.8204,5.16237,27.9984,4.62402,-0.388254,-0.0163725,
0.166631,0.0693284,-0.148842,-1.8552,0.0462951,0.299069,-0.0105817,0.116618,-0.0049003,0.113727,-0.0978784,0.949268,-0.967624,-0.00135505,4.87593,1.28012,4.85455,-8.05365,7.48692,-0.696657,-0.455955,23.5258,0.401163,22.9387,-15.2299,10.9549,-14.2001,-0.0591533,0.162365,0.0681795,-0.153089,-1.85023,0.00640945,0.336805,-0.010458,-0.00788261,0.156829,-0.0244546,-0.0395251,1.22509,-0.508061,0.0014047,0,0,0,0,0,0,0,5.30384,-48.8204,5.16237,27.9984,4.62402,-0.388254,-0.0163725,
0.167883,0.0693491,-0.147618,-1.85644,0.0544109,0.291777,-0.0106128,0.124589,-0.00340356,0.12159,-0.109209,0.962309,-0.956391,-0.00185934,4.98187,0.935467,4.91411,-7.08162,8.15093,7.02085,-0.31518,22.1037,0.700998,21.5563,-15.0203,10.7598,-13.2997,-0.0606762,0.163771,0.0690639,-0.151027,-1.85179,0.0451004,0.302286,-0.0104518,0.144621,-0.00647389,0.0927714,-0.0498184,1.21638,-1.47966,0.000739521,19.0629,-20.4129,14.6532,-1.28667,-1.08804,-121.449,-0.0831473,17.0708,-39.2394,15.636,18.5324,4.43542,-3.84895,0.0706026,
0.169181,0.0693765,-0.14635,-1.8577,0.0626506,0.285062,-0.0106379,0.132105,-0.00203692,0.128969,-0.118794,0.975842,-0.932997,-0.00211666,4.69744,0.854145,4.61219,-5.99049,8.45789,14.6213,-0.160826,21.118,0.488365,20.602,-14.78,10.7598,-11.7419,-0.0589091,0.163771,0.0690639,-0.151027,-1.85179,0.0451004,0.302286,-0.0104518,0.144621,-0.00647389,0.0927714,-0.0498184,1.21638,-1.47966,0.000739521,0,0,0,0,0,0,0,17.0708,-39.2394,15.636,18.5324,4.43542,-3.84895,0.0706026,
0.170506,0.0694158,-0.145055,-1.85896,0.070993,0.278959,-0.0106575,0.138821,-0.000647891,0.135545,-0.126588,0.989232,-0.89898,-0.00218344,4.19764,0.868145,4.11017,-4.8711,8.36867,21.2604,-0.0417375,20.2651,0.291017,19.7734,-14.568,10.7598,-10.3509,-0.0558549,0.163771,0.0690639,-0.151027,-1.85179,0.0451004,0.302286,-0.0104518,0.144621,-0.00647389,0.0927714,-0.0498184,1.21638,-1.47966,0.000739521,0,0,0,0,0,0,0,17.0708,-39.2394,15.636,18.5324,4.43542,-3.84895,0.0706026,
0.171076,0.0676412,-0.14391,-1.85912,0.0879006,0.253574,-0.0107153,0.150923,-0.0053711,0.147152,-0.141903,1.00304,-0.927558,-0.00307903,7.56393,-2.952,7.25382,-9.57233,8.63098,-17.8609,-0.559744,24.9963,-0.828077,24.2645,-20.1705,10.7598,-13.9246,-0.0853831,0.163771,0.0690639,-0.151027,-1.85179,0.0451004,0.302286,-0.0104518,0.144621,-0.00647389,0.0927714,-0.0498184,1.21638,-1.47966,0.000739521,0,0,0,0,0,0,0,17.0708,-39.2394,15.636,18.5324,4.43542,-3.84895,0.0706026,
0.172682,0.0674911,-0.14235,-1.86076,0.0964077,0.246038,-0.0107623,0.160909,-0.00805107,0.156714,-0.154543,1.01511,-0.930439,-0.00363919,6.2413,-1.67498,5.97645,-7.90001,7.54354,-1.8008,-0.350103,23.8667,-0.736011,23.1658,-19.6894,10.6979,-12.5887,-0.0900955,0.167951,0.0690576,-0.147171,-1.85702,0.0872266,0.246424,-0.0104477,0.294308,0.000893913,0.0867379,-0.19706,1.2105,-1.72452,0.000654691,18.7109,0.920976,-0.754184,-18.4053,-0.735282,-30.6082,-0.0106037,14.9681,-34.5699,14.1364,27.923,4.2395,-0.361704,-0.0227812,
0.174288,0.0673761,-0.140792,-1.8624,0.104951,0.239283,-0.0107995,0.168875,-0.00931613,0.16433,-0.164641,1.02568,-0.913222,-0.00384103,4.97854,-0.790666,4.75996,-6.31097,6.60523,10.7606,-0.12615,22.7677,-0.887967,22.1018,-19.3675,10.6979,-10.9997,-0.0853107,0.167951,0.0690576,-0.147171,-1.85702,0.0872266,0.246424,-0.0104477,0.294308,0.000893913,0.0867379,-0.19706,1.2105,-1.72452,0.000654691,0,0,0,0,0,0,0,14.9681,-34.5699,14.1364,27.923,4.2395,-0.361704,-0.0227812,
0.175884,0.0672879,-0.139244,-1.86403,0.113523,0.233271,-0.0108273,0.174981,-0.00965733,0.170155,-0.172401,1.03484,-0.880877,-0.00376866,3.81614,-0.21325,3.64068,-4.84985,5.72311,20.2157,0.0452346,21.8229,-1.02744,21.1848,-19.073,10.6979,-9.59639,-0.0794763,0.167951,0.0690576,-0.147171,-1.85702,0.0872266,0.246424,-0.0104477,0.294308,0.000893913,0.0867379,-0.19706,1.2105,-1.72452,0.000654691,0,0,0,0,0,0,0,14.9681,-34.5699,14.1364,27.923,4.2395,-0.361704,-0.0227812,
0.176191,0.0691761,-0.139166,-1.86637,0.13155,0.204213,-0.0106008,0.180689,-0.00602544,0.175669,-0.18209,1.04475,-0.856233,-0.00347207,3.56739,2.26993,3.44624,-6.05575,6.19795,15.4025,0.185369,20.9995,-1.12801,20.3851,-18.7912,10.6979,-8.34871,-0.0686547,0.167951,0.0690576,-0.147171,-1.85702,0.0872266,0.246424,-0.0104477,0.294308,0.000893913,0.0867379,-0.19706,1.2105,-1.72452,0.000654691,0,0,0,0,0,0,0,14.9681,-34.5699,14.1364,27.923,4.2395,-0.361704,-0.0227812,
0.17779,0.0692428,-0.137613,-1.86807,0.140195,0.199003,-0.0106129,0.184527,-0.00315385,0.179347,-0.188264,1.05191,-0.815254,-0.00308069,2.39868,1.79474,2.29878,-3.85909,4.47522,25.6119,0.244612,20.2624,-1.18788,19.6696,-18.5148,10.6979,-7.24811,-0.0582323,0.167951,0.0690576,-0.147171,-1.85702,0.0872266,0.246424,-0.0104477,0.294308,0.000893913,0.0867379,-0.19706,1.2105,-1.72452,0.000654691,0,0,0,0,0,0,0,14.9681,-34.5699,14.1364,27.923,4.2395,-0.361704,-0.0227812,
0.179356,0.0693026,-0.136094,-1.86971,0.148815,0.194532,-0.0106179,0.186771,-0.00102668,0.181467,-0.191687,1.05704,-0.763981,-0.00258952,1.40253,1.32948,1.32498,-2.13919,3.2046,32.0455,0.306982,19.9405,-1.68973,19.3225,-17.6704,10.6828,-5.84696,-0.0475453,0.176714,0.0664319,-0.138827,-1.86609,0.129432,0.192206,-0.0104558,0.38249,-0.089354,0.183239,-0.312664,1.2428,-1.42761,-0.000923937,11.0227,-11.281,12.0626,-14.4505,4.0366,37.1139,-0.197329,6.70032,-31.527,6.51124,20.8017,3.05481,-0.109934,-0.0026396,
0.186393,0.0659837,-0.129456,-1.87517,0.176181,0.160469,-0.0104874,0.192682,-0.000170126,0.187113,-0.193761,1.07177,-0.711587,-0.001903,3.69468,0.535349,3.52861,-1.29609,9.20774,32.7465,0.429069,18.6856,-1.63583,18.1078,-17.1407,10.6828,-4.23735,-0.0224641,0.176714,0.0664319,-0.138827,-1.86609,0.129432,0.192206,-0.0104558,0.38249,-0.089354,0.183239,-0.312664,1.2428,-1.42761,-0.000923937,0,0,0,0,0,0,0,6.70032,-31.527,6.51124,20.8017,3.05481,-0.109934,-0.0026396,
0.188044,0.0660125,-0.127856,-1.87672,0.185107,0.15719,-0.0104734,0.195413,0.000585588,0.189675,-0.193658,1.08057,-0.651238,-0.00117029,1.70681,0.472321,1.60116,0.0645232,5.49794,37.7181,0.45795,18.105,-1.55693,17.5453,-16.8678,10.6828,-3.58693,-0.0128073,0.176714,0.0664319,-0.138827,-1.86609,0.129432,0.192206,-0.0104558,0.38249,-0.089354,0.183239,-0.312664,1.2428,-1.42761,-0.000923937,0,0,0,0,0,0,0,6.70032,-31.527,6.51124,20.8017,3.05481,-0.109934,-0.0026396,
0.189623,0.0660357,-0.126327,-1.8782,0.193929,0.154526,-0.0104515,0.195802,0.00104871,0.189968,-0.192025,1.08502,-0.587595,-0.000390699,0.243171,0.289454,0.183144,1.02063,2.77836,39.7766,0.487242,17.5699,-1.46287,17.0274,-16.5953,10.6828,-3.01118,-0.00243696,0.176714,0.0664319,-0.138827,-1.86609,0.129432,0.192206,-0.0104558,0.38249,-0.089354,0.183239,-0.312664,1.2428,-1.42761,-0.000923937,0,0,0,0,0,0,0,6.70032,-31.527,6.51124,20.8017,3.05481,-0.109934,-0.0026396,
0.191136,0.0660492,-0.124862,-1.87963,0.202662,0.152381,-0.0104218,0.194487,0.00117662,0.188611,-0.189339,1.08633,-0.523693,0.000430141,-0.822211,0.0799412,-0.847602,1.67872,0.823717,39.9387,0.513025,17.3571,-1.4493,16.7872,-15.9205,10.6615,-2.05587,0.00413881,0.188847,0.0640859,-0.127299,-1.87887,0.173812,0.142949,-0.0104619,0.473538,-0.100119,0.281956,-0.466498,1.31097,-1.34359,-0.000535232,11.3811,-1.34567,12.3396,-19.2292,8.52232,10.5022,0.0485881,3.83594,-32.8719,4.26179,22.7695,3.0365,1.85296,-0.0227812,
0.200172,0.0646698,-0.116344,-1.88874,0.222704,0.114582,-0.0103809,0.202442,0.00526437,0.196261,-0.192079,1.10218,-0.49634,0.00117588,4.97197,2.55484,4.78123,-1.71298,9.90391,17.0958,0.466084,16.8937,-1.3544,16.3397,-15.6605,10.6615,-1.60438,0.0142471,0.188847,0.0640859,-0.127299,-1.87887,0.173812,0.142949,-0.0104619,0.473538,-0.100119,0.281956,-0.466498,1.31097,-1.34359,-0.000535232,0,0,0,0,0,0,0,3.83594,-32.8719,4.26179,22.7695,3.0365,1.85296,-0.0227812,
0.20191,0.0648138,-0.114662,-1.89026,0.231834,0.112272,-0.0103377,0.205403,0.00781156,0.199062,-0.191844,1.10999,-0.454826,0.00202054,1.85065,1.592,1.75052,0.147042,4.88316,25.9459,0.527914,16.4535,-1.26323,15.915,-15.4078,10.6615,-1.20946,0.0238044,0.188847,0.0640859,-0.127299,-1.87887,0.173812,0.142949,-0.0104619,0.473538,-0.100119,0.281956,-0.466498,1.31097,-1.34359,-0.000535232,0,0,0,0,0,0,0,3.83594,-32.8719,4.26179,22.7695,3.0365,1.85296,-0.0227812,
0.203531,0.0649277,-0.113097,-1.89171,0.240798,0.110594,-0.0102912,0.204835,0.00909787,0.198372,-0.18958,1.1121,-0.405805,0.00278032,-0.3547,0.803939,-0.43134,1.41489,1.31515,30.6385,0.474863,16.0312,-1.17218,15.5079,-15.1651,10.6615,-0.843211,0.0337043,0.188847,0.0640859,-0.127299,-1.87887,0.173812,0.142949,-0.0104619,0.473538,-0.100119,0.281956,-0.466498,1.31097,-1.34359,-0.000535232,0,0,0,0,0,0,0,3.83594,-32.8719,4.26179,22.7695,3.0365,1.85296,-0.0227812,
0.205049,0.0650159,-0.111636,-1.89308,0.249621,0.10943,-0.0102435,0.201834,0.00948118,0.195217,-0.185907,1.11026,-0.353748,0.00341573,-1.87604,0.239571,-1.97207,2.29552,-1.15022,32.5354,0.397133,15.5537,-1.33523,15.0089,-14.4793,10.4771,-0.145803,0.0393106,0.20297,0.0649812,-0.113577,-1.89416,0.222708,0.103984,-0.0104551,0.569265,0.0673396,0.255293,-0.431132,1.49318,-0.991522,0.000324532,11.9658,20.9324,-3.33288,4.42073,22.7762,44.0089,0.107471,0.0828892,-38.8902,0.314344,31.311,2.39563,4.76342,-0.0429228,
0.214851,0.0678636,-0.10211,-1.904,0.273648,0.0841659,-0.0102746,0.208648,0.017281,0.201579,-0.188255,1.12357,-0.330894,0.00378425,4.25884,4.87489,3.97663,-1.46716,8.32058,14.2842,0.230324,15.1328,-1.23845,14.6046,-14.2579,10.4771,0.172841,0.0507916,0.20297,0.0649812,-0.113577,-1.89416,0.222708,0.103984,-0.0104551,0.569265,0.0673396,0.255293,-0.431132,1.49318,-0.991522,0.000324532,0,0,0,0,0,0,0,0.0828892,-38.8902,0.314344,31.311,2.39563,4.76342,-0.0429228,
0.21657,0.0681738,-0.100458,-1.90546,0.282799,0.0828997,-0.0102299,0.209885,0.0215788,0.202544,-0.187171,1.12764,-0.296369,0.00414473,0.773084,2.68611,0.602923,0.677248,2.54694,21.5777,0.2253,14.6771,-1.13031,14.1662,-14.0485,10.4771,0.464676,0.0624057,0.20297,0.0649812,-0.113577,-1.89416,0.222708,0.103984,-0.0104551,0.569265,0.0673396,0.255293,-0.431132,1.49318,-0.991522,0.000324532,0,0,0,0,0,0,0,0.0828892,-38.8902,0.314344,31.311,2.39563,4.76342,-0.0429228,
0.218163,0.0684127,-0.0989251,-1.90681,0.291381,0.082166,-0.0101802,0.207727,0.023235,0.200371,-0.183454,1.11666,-0.255439,0.004558,-1.34829,1.03513,-1.35813,2.32318,-6.86362,25.5816,0.258295,14.1781,-0.985971,13.6533,-13.8384,10.4771,0.725318,0.0657122,0.20297,0.0649812,-0.113577,-1.89416,0.222708,0.103984,-0.0104551,0.569265,0.0673396,0.255293,-0.431132,1.49318,-0.991522,0.000324532,0,0,0,0,0,0,0,0.0828892,-38.8902,0.314344,31.311,2.39563,4.76342,-0.0429228,
0.229887,0.0697827,-0.0864245,-1.91815,0.322988,0.0647147,-0.0102706,0.214414,0.0270964,0.206842,-0.180697,1.09138,-0.226848,0.00474346,4.17886,2.41338,4.04456,1.72317,-15.8006,17.8696,0.11591,13.2571,-0.89986,12.6394,-12.8463,10.2937,1.46888,0.0636957,0.217526,0.0668954,-0.0983154,-1.90951,0.274109,0.0772689,-0.0104525,0.649629,0.0910659,0.246548,-0.377346,1.53193,-0.686458,0.000366512,10.0455,2.9658,-1.09303,6.72329,4.84319,38.133,0.00524748,-4.40808,-41.1833,-4.41069,32.0847,1.38763,4.16009,-0.0227812,
0.231647,0.0700285,-0.0847274,-1.9194,0.329948,0.0643408,-0.0102246,0.215518,0.0278241,0.207903,-0.17563,1.04711,-0.190823,0.004945,0.690022,0.454838,0.662869,3.16666,-27.6673,22.515,0.125964,12.8657,-0.710889,12.2567,-12.5711,10.2937,1.6652,0.0651212,0.217526,0.0668954,-0.0983154,-1.90951,0.274109,0.0772689,-0.0104525,0.649629,0.0910659,0.246548,-0.377346,1.53193,-0.686458,0.000366512,0,0,0,0,0,0,0,-4.40808,-41.1833,-4.41069,32.0847,1.38763,4.16009,-0.0227812,
0.233266,0.0701958,-0.0831665,-1.92055,0.336009,0.0643995,-0.010177,0.212895,0.0264414,0.205345,-0.16924,0.989201,-0.151193,0.00514653,-1.63923,-0.864204,-1.59862,3.99431,-36.1956,24.7688,0.125959,12.5119,-0.558998,11.918,-12.301,9.04434,1.85962,0.066607,0.217526,0.0668954,-0.0983154,-1.90951,0.274109,0.0772689,-0.0104525,0.649629,0.0910659,0.246548,-0.377346,1.53193,-0.686458,0.000366512,0,0,0,0,0,0,0,-4.40808,-41.1833,-4.41069,32.0847,1.38763,4.16009,-0.0227812,
0.234769,0.0702987,-0.0817191,-1.92162,0.341239,0.0648138,-0.0101273,0.207877,0.0237253,0.200459,-0.162197,0.922124,-0.110596,0.00535833,-3.1361,-1.69755,-3.05391,4.40139,-41.923,25.3731,0.132374,12.1882,-0.447268,11.6097,-12.0384,7.87259,2.00817,0.0664818,0.217526,0.0668954,-0.0983154,-1.90951,0.274109,0.0772689,-0.0104525,0.649629,0.0910659,0.246548,-0.377346,1.53193,-0.686458,0.000366512,0,0,0,0,0,0,0,-4.40808,-41.1833,-4.41069,32.0847,1.38763,4.16009,-0.0227812,
0.230005,0.0697674,-0.0862674,-1.91767,0.31332,0.0658573,-0.0102593,0.214617,0.0272001,0.207062,-0.161446,0.876372,-0.103818,0.00539191,4.21252,2.1717,4.12685,0.469463,-28.5954,4.23668,0.020987,11.9742,-0.74129,11.3542,-11.5505,6.61394,2.26677,0.0628972,0.231482,0.068084,-0.0824872,-1.92352,0.32669,0.063276,-0.0104465,0.508372,-0.0109178,0.346722,-0.406749,1.57813,-0.28579,0.000669309,-17.6572,-12.748,12.5217,-3.67542,5.77522,50.0835,0.0378497,-4.58264,-39.5885,-5.08513,26.4551,1.73553,1.7138,0.0101778,
0.231752,0.070003,-0.0845807,-1.91883,0.317986,0.0657646,-0.0102119,0.215368,0.0276512,0.207819,-0.158224,0.817743,-0.0853736,0.00549929,0.469593,0.281957,0.47316,2.01359,-36.643,11.5275,0.0671124,11.7509,-0.693932,11.1457,-11.3032,5.68768,2.37846,0.0628186,0.231482,0.068084,-0.0824872,-1.92352,0.32669,0.063276,-0.0104465,0.508372,-0.0109178,0.346722,-0.406749,1.57813,-0.28579,0.000669309,0,0,0,0,0,0,0,-4.58264,-39.5885,-5.08513,26.4551,1.73553,1.7138,0.0101778,
0.233345,0.0701623,-0.0830437,-1.91991,0.321885,0.0660914,-0.0101619,0.212128,0.0261026,0.204678,-0.153512,0.751671,-0.0601277,0.00564956,-2.02558,-0.967844,-1.9628,2.94519,-41.2946,15.7787,0.0939156,11.5697,-0.670932,10.9794,-11.0635,4.86573,2.48572,0.0627774,0.231482,0.068084,-0.0824872,-1.92352,0.32669,0.063276,-0.0104465,0.508372,-0.0109178,0.346722,-0.406749,1.57813,-0.28579,0.000669309,0,0,0,0,0,0,0,-4.58264,-39.5885,-5.08513,26.4551,1.73553,1.7138,0.0101778,
0.234811,0.0702596,-0.0816313,-1.92092,0.325118,0.0667569,-0.0101094,0.206343,0.0233155,0.199054,-0.147979,0.682161,-0.0314656,0.00583271,-3.61511,-1.74194,-3.51501,3.45818,-43.4442,17.9138,0.11447,11.422,-0.668279,10.8456,-10.8284,4.12404,2.57738,0.0637442,0.231482,0.068084,-0.0824872,-1.92352,0.32669,0.063276,-0.0104465,0.508372,-0.0109178,0.346722,-0.406749,1.57813,-0.28579,0.000669309,0,0,0,0,0,0,0,-4.58264,-39.5885,-5.08513,26.4551,1.73553,1.7138,0.0101778,
0.243503,0.0692681,-0.0708484,-1.93006,0.35877,0.0582647,-0.0102289,0.211597,0.0210901,0.204154,-0.143747,0.64265,-0.0204994,0.00584879,3.28381,-1.39089,3.1875,2.64505,-24.6945,6.85389,0.0100491,11.1537,-0.941901,10.5481,-10.4053,3.25962,2.73561,0.064266,0.245285,0.0699879,-0.0677424,-1.93643,0.376746,0.0596986,-0.0104362,0.179769,0.0418658,0.650162,-0.333423,1.28657,0.00510081,0.00037957,-41.0753,6.59795,37.93,9.16579,-36.4454,36.3613,-0.0362174,-3.57098,-37.1922,-4.08537,26.705,0.612179,1.35583,0.00376909,
0.245178,0.0693105,-0.069234,-1.93101,0.36185,0.0588447,-0.0101787,0.21115,0.0179312,0.203683,-0.138722,0.591114,-0.00189847,0.00593394,-0.279702,-1.97433,-0.294395,3.14045,-32.2097,11.6256,0.0532199,11.0448,-0.966788,10.4521,-10.1795,2.67791,2.81066,0.0657188,0.245285,0.0699879,-0.0677424,-1.93643,0.376746,0.0596986,-0.0104362,0.179769,0.0418658,0.650162,-0.333423,1.28657,0.00510081,0.00037957,0,0,0,0,0,0,0,-3.57098,-37.1922,-4.08537,26.705,0.612179,1.35583,0.00376909,
0.246698,0.0693096,-0.0677707,-1.9319,0.364278,0.0597416,-0.0101263,0.206927,0.0143218,0.19953,-0.133361,0.533604,0.0209045,0.00605818,-2.6393,-2.25584,-2.59617,3.3511,-35.944,14.2518,0.077651,10.9441,-0.99996,10.3643,-9.95813,2.17411,2.8825,0.0668198,0.245285,0.0699879,-0.0677424,-1.93643,0.376746,0.0596986,-0.0104362,0.179769,0.0418658,0.650162,-0.333423,1.28657,0.00510081,0.00037957,0,0,0,0,0,0,0,-3.57098,-37.1922,-4.08537,26.705,0.612179,1.35583,0.00376909,
0.243503,0.0692681,-0.0708484,-1.93006,0.35877,0.0582647,-0.0102289,0.212064,0.0138952,0.204534,-0.132052,0.523804,0.0213967,0.00602917,3.21085,-0.266675,3.12811,0.817732,-6.12481,0.307626,-0.0181349,10.7513,-1.08138,10.1954,-9.52317,1.3518,2.99942,0.0692322,0.245285,0.0699879,-0.0677424,-1.93643,0.376746,0.0596986,-0.0104362,0.179769,0.0418658,0.650162,-0.333423,1.28657,0.00510081,0.00037957,0,0,0,0,0,0,0,-3.57098,-37.1922,-4.08537,26.705,0.612179,1.35583,0.00376909,
0.258101,0.0714486,-0.0553093,-1.94294,0.401954,0.061339,-0.0101604,0.20853,0.0116868,0.200988,-0.126838,0.46498,0.0434367,0.00612325,-2.20905,-1.38021,-2.21672,3.25854,-36.7649,13.775,0.0588003,10.4427,-1.32552,9.87361,-9.17461,0.878288,3.02998,0.0723441,0.263129,0.0723432,-0.0583354,-1.94601,0.408305,0.0625067,-0.0104375,0.306251,0.124411,0.49937,-0.208569,0.691702,0.152969,-0.00206972,15.8103,10.3182,-18.849,15.6068,-74.3583,18.4835,-0.306162,-4.86432,-39.5369,-4.23613,26.0306,0.862118,0.971304,0.0577852,
0.25951,0.0714276,-0.0539579,-1.94375,0.403298,0.0626146,-0.0101069,0.202039,0.00882465,0.194574,-0.121561,0.405592,0.0666405,0.00623712,-4.05668,-1.78886,-4.0089,3.29833,-37.1172,14.5024,0.0711688,10.3391,-1.36934,9.78093,-8.96236,0.60272,3.07391,0.0729881,0.263129,0.0723432,-0.0583354,-1.94601,0.408305,0.0625067,-0.0104375,0.306251,0.124411,0.49937,-0.208569,0.691702,0.152969,-0.00206972,0,0,0,0,0,0,0,-4.86432,-39.5369,-4.23613,26.0306,0.862118,0.971304,0.0577852,
0.260797,0.0713744,-0.0527249,-1.94451,0.404252,0.0640756,-0.0100521,0.193814,0.00572962,0.186483,-0.116388,0.348338,0.0898368,0.0063587,-5.14094,-1.9344,-5.05627,3.23335,-35.7843,14.4977,0.0759911,10.23,-1.41218,9.68222,-8.75103,0.366673,3.10904,0.0736666,0.263129,0.0723432,-0.0583354,-1.94601,0.408305,0.0625067,-0.0104375,0.306251,0.124411,0.49937,-0.208569,0.691702,0.152969,-0.00206972,0,0,0,0,0,0,0,-4.86432,-39.5369,-4.23613,26.0306,0.862118,0.971304,0.0577852,
0.2736,0.0744086,-0.0482477,-1.95113,0.420969,0.0670911,-0.0102276,0.194363,0.00804335,0.186862,-0.114472,0.309669,0.10157,0.0063283,0.343081,1.44608,0.236579,1.19713,-24.1677,7.33308,-0.0190023,10.1139,-1.45285,9.57641,-8.54113,0.172951,3.14187,0.0738873,0.263129,0.0723432,-0.0583354,-1.94601,0.408305,0.0625067,-0.0104375,0.306251,0.124411,0.49937,-0.208569,0.691702,0.152969,-0.00206972,0,0,0,0,0,0,0,-4.86432,-39.5369,-4.23613,26.0306,0.862118,0.971304,0.0577852,
0.275008,0.0744758,-0.046901,-1.95193,0.421825,0.0684453,-0.0101762,0.190677,0.00811484,0.183159,-0.1116,0.269138,0.115112,0.00634828,-2.30366,0.0446812,-2.31421,1.79546,-25.3318,8.46412,0.0124886,9.99127,-1.49103,9.46343,-8.33173,0.00981776,3.16729,0.0741065,0.263129,0.0723432,-0.0583354,-1.94601,0.408305,0.0625067,-0.0104375,0.306251,0.124411,0.49937,-0.208569,0.691702,0.152969,-0.00206972,0,0,0,0,0,0,0,-4.86432,-39.5369,-4.23613,26.0306,0.862118,0.971304,0.0577852,
0.276281,0.0744907,-0.0456844,-1.95269,0.42238,0.0699521,-0.0101237,0.184374,0.00686487,0.17694,-0.108149,0.229195,0.129761,0.00639019,-3.939,-0.781231,-3.88688,2.15645,-24.9649,9.15517,0.0261915,9.94571,-1.62488,9.38517,-8.15668,-0.176199,3.13338,0.0749767,0.274816,0.0736059,-0.0438388,-1.95454,0.427002,0.0693616,-0.0104312,0.69114,-0.0221254,0.0451321,-0.271001,0.396855,0.205705,7.69197e-08,48.111,-18.3171,-56.7798,-7.80402,-36.8558,6.59204,0.258725,-5.59826,-38.2396,-5.48583,23.1662,0.722042,0.666434,0.0440523,
0.277445,0.0744671,-0.0445746,-1.9534,0.4227,0.0715933,-0.0100706,0.176587,0.00490031,0.169299,-0.104383,0.191346,0.144838,0.00643933,-4.86714,-1.22785,-4.77605,2.35389,-23.6553,9.42327,0.0307138,9.80886,-1.65665,9.25743,-7.94843,-0.283707,3.15072,0.0747532,0.274816,0.0736059,-0.0438388,-1.95454,0.427002,0.0693616,-0.0104312,0.69114,-0.0221254,0.0451321,-0.271001,0.396855,0.205705,7.69197e-08,0,0,0,0,0,0,0,-5.59826,-38.2396,-5.48583,23.1662,0.722042,0.666434,0.0440523,
0.284506,0.0739532,-0.0346244,-1.95902,0.433812,0.0742139,-0.0102133,0.177152,0.00357646,0.169703,-0.101719,0.169684,0.148,0.00632961,0.352963,-0.827409,0.252997,1.66491,-13.5391,1.9761,-0.0685721,9.66492,-1.68482,9.12251,-7.74077,-0.366643,3.16649,0.0741842,0.274816,0.0736059,-0.0438388,-1.95454,0.427002,0.0693616,-0.0104312,0.69114,-0.0221254,0.0451321,-0.271001,0.396855,0.205705,7.69197e-08,0,0,0,0,0,0,0,-5.59826,-38.2396,-5.48583,23.1662,0.722042,0.666434,0.0440523,
0.285789,0.0739081,-0.0334011,-1.95971,0.434237,0.0756688,-0.0101648,0.173796,0.00173334,0.166344,-0.098574,0.146367,0.154773,0.00627595,-2.09736,-1.15195,-2.09989,1.96576,-14.5727,4.23311,-0.0335387,9.51476,-1.7096,8.98097,-7.53317,-0.433044,3.17714,0.0735796,0.274816,0.0736059,-0.0438388,-1.95454,0.427002,0.0693616,-0.0104312,0.69114,-0.0221254,0.0451321,-0.271001,0.396855,0.205705,7.69197e-08,0,0,0,0,0,0,0,-5.59826,-38.2396,-5.48583,23.1662,0.722042,0.666434,0.0440523,
0.286949,0.0738392,-0.0322972,-1.96036,0.434467,0.077271,-0.0101156,0.168031,-0.000334611,0.160673,-0.0951601,0.122852,0.163874,0.00624958,-3.6028,-1.29247,-3.54422,2.13371,-14.6969,5.68845,-0.0164816,9.28446,-1.77959,8.725,-7.38973,-0.539618,3.15436,0.0733002,0.283449,0.0739749,-0.0286566,-1.96272,0.438286,0.0782793,-0.0104248,0.151391,0.000659707,0.549579,-0.218218,0.197869,0.274457,8.52036e-06,-67.4685,2.84813,63.0559,6.59783,-24.8733,8.59399,0.00105543,-4.40808,-34.9468,-4.78758,24.8364,2.33429,1.22307,0.0440523,
0.288008,0.0737525,-0.0312908,-1.96098,0.434542,0.0789975,-0.0100662,0.160905,-0.0024366,0.153698,-0.0916202,0.100137,0.174261,0.00623457,-4.45415,-1.31374,-4.35906,2.21244,-14.1969,6.49211,-0.00938195,9.1225,-1.79751,8.57129,-7.18247,-0.576773,3.15948,0.0723811,0.283449,0.0739749,-0.0286566,-1.96272,0.438286,0.0782793,-0.0104248,0.151391,0.000659707,0.549579,-0.218218,0.197869,0.274457,8.52036e-06,0,0,0,0,0,0,0,-4.40808,-34.9468,-4.78758,24.8364,2.33429,1.22307,0.0440523,
0.292197,0.0744033,-0.0202778,-1.96674,0.442281,0.0846541,-0.0102344,0.161126,-0.00227242,0.153772,-0.0897546,0.0888732,0.175534,0.00608396,0.138012,0.102612,0.0461846,1.16599,-7.03983,0.79557,-0.09413,8.95511,-1.81207,8.41207,-6.97538,-0.601407,3.16354,0.0712285,0.283449,0.0739749,-0.0286566,-1.96272,0.438286,0.0782793,-0.0104248,0.151391,0.000659707,0.549579,-0.218218,0.197869,0.274457,8.52036e-06,0,0,0,0,0,0,0,-4.40808,-34.9468,-4.78758,24.8364,2.33429,1.22307,0.0440523,
0.293354,0.0743584,-0.0191787,-1.96735,0.442464,0.0862257,-0.0101896,0.157846,-0.00294231,0.150494,-0.0872751,0.0756882,0.179719,0.00598717,-2.04988,-0.418681,-2.04902,1.54967,-8.24063,2.61562,-0.0604934,8.78312,-1.82366,8.24799,-6.76822,-0.618879,3.16413,0.0700606,0.283449,0.0739749,-0.0286566,-1.96272,0.438286,0.0782793,-0.0104248,0.151391,0.000659707,0.549579,-0.218218,0.197869,0.274457,8.52036e-06,0,0,0,0,0,0,0,-4.40808,-34.9468,-4.78758,24.8364,2.33429,1.22307,0.0440523,
0.294401,0.0742894,-0.0181876,-1.96794,0.44251,0.0879116,-0.0101445,0.152433,-0.00407806,0.145174,-0.0844085,0.0616966,0.185921,0.00591744,-3.38329,-0.709843,-3.325,1.79162,-8.74474,3.87616,-0.04358,8.56824,-1.87097,8.02706,-6.59823,-0.651957,3.12946,0.0691149,0.299643,0.0749647,-0.0230452,-1.96932,0.443482,0.0876763,-0.0104153,0.173845,0.0720905,0.455169,-0.156663,0.11467,0.281575,-0.000603774,2.80673,8.92885,-11.8013,7.69442,-10.3999,0.889782,-0.0765368,-2.07531,-38.5887,-1.61376,26.0822,2.22992,1.48125,0.0303194,
0.30749,0.0761439,-0.015558,-1.9731,0.44578,0.0950559,-0.0102419,0.150951,-0.00182835,0.143621,-0.0830668,0.0527564,0.186972,0.0057368,-0.926261,1.40607,-0.970478,0.838593,-5.58767,0.656997,-0.112905,8.20396,-1.88039,7.67806,-6.18382,-0.657768,3.12261,0.0662446,0.299643,0.0749647,-0.0230452,-1.96932,0.443482,0.0876763,-0.0104153,0.173845,0.0720905,0.455169,-0.156663,0.11467,0.281575,-0.000603774,0,0,0,0,0,0,0,-2.07531,-38.5887,-1.61376,26.0822,2.22992,1.48125,0.0303194,
0.308527,0.0761532,-0.0145782,-1.97368,0.445793,0.0966776,-0.0102013,0.146665,-0.00122923,0.13939,-0.0808478,0.0425241,0.190121,0.00560551,-2.6782,0.37445,-2.6441,1.38687,-6.39515,1.96794,-0.0820538,8.01698,-1.88163,7.49853,-5.97648,-0.656897,3.11658,0.0647358,0.299643,0.0749647,-0.0230452,-1.96932,0.443482,0.0876763,-0.0104153,0.173845,0.0720905,0.455169,-0.156663,0.11467,0.281575,-0.000603774,0,0,0,0,0,0,0,-2.07531,-38.5887,-1.61376,26.0822,2.22992,1.48125,0.0303194,
0.309463,0.0761269,-0.0136951,-1.97421,0.445704,0.0983886,-0.0101607,0.140735,-0.0016419,0.13359,-0.078058,0.0317834,0.194872,0.0054998,-3.70642,-0.257923,-3.62524,1.74364,-6.71297,2.96955,-0.0660683,7.82708,-1.8807,7.31605,-5.76905,-0.653702,3.11006,0.0631102,0.299643,0.0749647,-0.0230452,-1.96932,0.443482,0.0876763,-0.0104153,0.173845,0.0720905,0.455169,-0.156663,0.11467,0.281575,-0.000603774,0,0,0,0,0,0,0,-2.07531,-38.5887,-1.61376,26.0822,2.22992,1.48125,0.0303194,
0.310317,0.0760739,-0.0128911,-1.97471,0.44553,0.10018,-0.0101204,0.133945,-0.00263754,0.126972,-0.074919,0.0210912,0.200679,0.0054061,-4.24367,-0.62227,-4.13605,1.96183,-6.68262,3.62942,-0.0585653,7.74144,-1.9706,7.20941,-5.60831,-0.645391,3.04047,0.0619322,0.309342,0.0747099,-0.0125182,-1.97597,0.444652,0.0982171,-0.0104114,0.556031,-0.0786017,-0.00806237,-0.226593,0.0167295,0.312261,-0.000187178,47.7733,-18.8365,-57.9039,-8.74124,-12.2425,3.83573,0.0520745,-3.16235,-36.1925,-2.68492,23.0908,2.10815,1.01067,0.0376436,
0.316404,0.0741506,-0.00588626,-1.97905,0.444935,0.105354,-0.0102453,0.132946,-0.00458176,0.125926,-0.0719489,0.0172548,0.199328,0.00519317,-0.624382,-1.21514,-0.654096,1.85633,-2.39775,-0.844458,-0.133079,7.54705,-1.96613,7.02227,-5.4006,-0.642325,3.03179,0.0602258,0.309342,0.0747099,-0.0125182,-1.97597,0.444652,0.0982171,-0.0104114,0.556031,-0.0786017,-0.00806237,-0.226593,0.0167295,0.312261,-0.000187178,0,0,0,0,0,0,0,-3.16235,-36.1925,-2.68492,23.0908,2.10815,1.01067,0.0376436,
0.317324,0.0740432,-0.00501944,-1.9795,0.444876,0.107005,-0.0102101,0.129364,-0.00634926,0.122411,-0.0687925,0.0123243,0.200739,0.0050351,-2.23883,-1.10469,-2.19656,1.97272,-3.08157,0.881674,-0.0987972,7.35103,-1.96025,6.83341,-5.19269,-0.641138,3.02164,0.0585336,0.309342,0.0747099,-0.0125182,-1.97597,0.444652,0.0982171,-0.0104114,0.556031,-0.0786017,-0.00806237,-0.226593,0.0167295,0.312261,-0.000187178,0,0,0,0,0,0,0,-3.16235,-36.1925,-2.68492,23.0908,2.10815,1.01067,0.0376436,
0.318155,0.0739287,-0.00423918,-1.97992,0.444743,0.108742,-0.010175,0.124254,-0.00794316,0.117436,-0.0655491,0.00652392,0.204025,0.00490667,-3.19378,-0.99619,-3.10984,2.02716,-3.62523,2.05397,-0.0802653,7.15351,-1.953,6.64304,-4.98461,-0.640732,3.01119,0.0567654,0.309342,0.0747099,-0.0125182,-1.97597,0.444652,0.0982171,-0.0104114,0.556031,-0.0786017,-0.00806237,-0.226593,0.0167295,0.312261,-0.000187178,0,0,0,0,0,0,0,-3.16235,-36.1925,-2.68492,23.0908,2.10815,1.01067,0.0376436,
0.318912,0.0738083,-0.0035299,-1.98032,0.444541,0.110551,-0.0101403,0.118329,-0.0093644,0.11168,-0.0622847,0.000164397,0.208438,0.00479285,-3.70324,-0.888276,-3.59699,2.04023,-3.9747,2.7579,-0.0711361,6.85459,-1.97367,6.3306,-4.79964,-0.642048,2.97438,0.0552095,0.315685,0.0747364,-0.000310353,-1.98218,0.444388,0.109768,-0.0104075,0.285151,0.0254161,0.247433,-0.158706,-0.0173741,0.35954,0.000528126,-33.86,13.0022,31.937,8.48586,-4.26295,5.90982,0.089413,-2.70611,-35.8196,-3.26018,26.6296,2.91473,1.44829,0.00376909,
0.322992,0.0753304,0.00656904,-1.98543,0.444167,0.119555,-0.010258,0.115209,-0.0082081,0.10857,-0.059811,-0.00365498,0.207239,0.00454196,-1.94967,0.722691,-1.94428,1.54605,-2.38711,-0.749428,-0.156808,6.45603,-1.95434,5.94611,-4.38239,-0.65153,2.94865,0.0515981,0.315685,0.0747364,-0.000310353,-1.98218,0.444388,0.109768,-0.0104075,0.285151,0.0254161,0.247433,-0.158706,-0.0173741,0.35954,0.000528126,0,0,0,0,0,0,0,-2.70611,-35.8196,-3.26018,26.6296,2.91473,1.44829,0.00376909,
0.323727,0.0752756,0.00725485,-1.9858,0.443951,0.121229,-0.0102299,0.110554,-0.0079364,0.104001,-0.0569282,-0.00832168,0.207641,0.00433442,-2.90992,0.169811,-2.8554,1.8018,-2.91669,0.251309,-0.12971,6.25679,-1.94365,5.7539,-4.17343,-0.658596,2.93424,0.049746,0.315685,0.0747364,-0.000310353,-1.98218,0.444388,0.109768,-0.0104075,0.285151,0.0254161,0.247433,-0.158706,-0.0173741,0.35954,0.000528126,0,0,0,0,0,0,0,-2.70611,-35.8196,-3.26018,26.6296,2.91473,1.44829,0.00376909,
0.324392,0.0752013,0.00787259,-1.98613,0.443681,0.12295,-0.0102026,0.105065,-0.00820631,0.0986441,-0.0538033,-0.0134244,0.209141,0.00415142,-3.43068,-0.168694,-3.34802,1.95302,-3.18919,0.937735,-0.114375,6.05832,-1.93255,5.56242,-3.96426,-0.6673,2.91797,0.047902,0.315685,0.0747364,-0.000310353,-1.98218,0.444388,0.109768,-0.0104075,0.285151,0.0254161,0.247433,-0.158706,-0.0173741,0.35954,0.000528126,0,0,0,0,0,0,0,-2.70611,-35.8196,-3.26018,26.6296,2.91473,1.44829,0.00376909,
0.324999,0.0751125,0.00843376,-1.98643,0.443367,0.124707,-0.0101762,0.0992093,-0.00878552,0.0929444,-0.0505563,-0.018574,0.211237,0.00398114,-3.65955,-0.362005,-3.56227,2.02938,-3.2185,1.30946,-0.106428,5.83538,-1.89748,5.32878,-3.81394,-0.683111,2.85627,0.0463389,0.325578,0.0758141,0.00622231,-1.98647,0.443749,0.12256,-0.010409,-0.0203191,0.0925667,0.500727,-0.0744771,-0.0367266,0.383219,0.000648243,-38.1838,8.39382,31.6617,10.5286,-2.41907,2.95991,0.0150146,-1.08349,-39.2632,-0.859972,28.1729,2.78564,1.08391,0.017502,
0.331844,0.0769639,0.0121427,-1.98902,0.443453,0.133333,-0.0103093,0.0967792,-0.00702929,0.0905124,-0.0482498,-0.0191276,0.208642,0.0037086,-1.51881,1.09764,-1.52001,1.44159,-0.346017,-1.6218,-0.170338,5.44706,-1.87419,4.95461,-3.39471,-0.696784,2.81107,0.0424937,0.325578,0.0758141,0.00622231,-1.98647,0.443749,0.12256,-0.010409,-0.0203191,0.0925667,0.500727,-0.0744771,-0.0367266,0.383219,0.000648243,0,0,0,0,0,0,0,-1.08349,-39.2632,-0.859972,28.1729,2.78564,1.08391,0.017502,
0.332464,0.0769317,0.0127149,-1.9893,0.443253,0.134915,-0.010289,0.092911,-0.00642878,0.0867149,-0.0455078,-0.0202955,0.206483,0.00347383,-2.41761,0.375322,-2.37348,1.71375,-0.729904,-1.34904,-0.146733,5.25742,-1.8626,4.77211,-3.18498,-0.698593,2.78209,0.0405359,0.325578,0.0758141,0.00622231,-1.98647,0.443749,0.12256,-0.010409,-0.0203191,0.0925667,0.500727,-0.0744771,-0.0367266,0.383219,0.000648243,0,0,0,0,0,0,0,-1.08349,-39.2632,-0.859972,28.1729,2.78564,1.08391,0.017502,
0.33302,0.0768762,0.0132263,-1.98954,0.443046,0.13649,-0.0102698,0.0882387,-0.00653037,0.0821548,-0.0425012,-0.0214141,0.20456,0.00326025,-2.92019,-0.063495,-2.85,1.8791,-0.69912,-1.20231,-0.133486,5.07174,-1.85116,4.59368,-2.97524,-0.69384,2.74735,0.038528,0.325578,0.0758141,0.00622231,-1.98647,0.443749,0.12256,-0.010409,-0.0203191,0.0925667,0.500727,-0.0744771,-0.0367266,0.383219,0.000648243,0,0,0,0,0,0,0,-1.08349,-39.2632,-0.859972,28.1729,2.78564,1.08391,0.017502,
0.333524,0.0768039,0.0136866,-1.98976,0.442855,0.138045,-0.0102518,0.0831837,-0.00703249,0.0772337,-0.039353,-0.0218957,0.202524,0.00305763,-3.15936,-0.313825,-3.07569,1.96761,-0.301021,-1.27204,-0.126638,4.89093,-1.84002,4.42018,-2.76563,-0.680483,2.70518,0.0364965,0.325578,0.0758141,0.00622231,-1.98647,0.443749,0.12256,-0.010409,-0.0203191,0.0925667,0.500727,-0.0744771,-0.0367266,0.383219,0.000648243,0,0,0,0,0,0,0,-1.08349,-39.2632,-0.859972,28.1729,2.78564,1.08391,0.017502,
0.339783,0.0750587,0.0156524,-1.99178,0.442854,0.144109,-0.0103451,0.0833161,-0.00873106,0.0773277,-0.0362471,-0.0165212,0.198577,0.00280461,0.0827286,-1.0616,0.0587315,1.94123,3.35908,-2.46711,-0.158134,4.76098,-1.88592,4.28741,-2.60184,-0.627276,2.5899,0.0346312,0.335035,0.0757247,0.0112248,-1.99041,0.442877,0.135848,-0.010412,0.244224,-0.055429,0.14705,-0.127977,-0.0153691,0.378801,-0.000835678,33.0679,-18.4995,-44.2096,-6.68751,2.66969,-0.552235,-0.18549,-1.5675,-37.589,-0.463243,23.5391,1.81518,0.566641,0.0440523,
0.340371,0.0749327,0.0161944,-1.99195,0.442912,0.14553,-0.0103312,0.0813533,-0.0101347,0.075412,-0.0332355,-0.0117525,0.194381,0.00259194,-1.22675,-0.877307,-1.1973,1.88224,2.98044,-2.62236,-0.13292,4.59212,-1.87552,4.12609,-2.39283,-0.586826,2.52738,0.0325207,0.335035,0.0757247,0.0112248,-1.99041,0.442877,0.135848,-0.010412,0.244224,-0.055429,0.14705,-0.127977,-0.0153691,0.378801,-0.000835678,0,0,0,0,0,0,0,-1.5675,-37.589,-0.463243,23.5391,1.81518,0.566641,0.0440523,
0.340892,0.0748061,0.0166713,-1.99209,0.443012,0.146898,-0.0103181,0.0780986,-0.0112744,0.0722529,-0.0303105,-0.00690818,0.189705,0.00240116,-2.03416,-0.712273,-1.97448,1.82813,3.02767,-2.92235,-0.11924,4.43017,-1.86551,3.97181,-2.1843,-0.52751,2.45125,0.0303783,0.335035,0.0757247,0.0112248,-1.99041,0.442877,0.135848,-0.010412,0.244224,-0.055429,0.14705,-0.127977,-0.0153691,0.378801,-0.000835678,0,0,0,0,0,0,0,-1.5675,-37.589,-0.463243,23.5391,1.81518,0.566641,0.0440523,
0.341357,0.0746796,0.0170941,-1.99222,0.443181,0.148196,-0.0103061,0.0740959,-0.0121813,0.0683703,-0.0274653,-0.00129847,0.184216,0.00221981,-2.50169,-0.566811,-2.42659,1.77825,3.50607,-3.43068,-0.113341,4.2756,-1.85597,3.82503,-1.97651,-0.445623,2.35944,0.0282031,0.335035,0.0757247,0.0112248,-1.99041,0.442877,0.135848,-0.010412,0.244224,-0.055429,0.14705,-0.127977,-0.0153691,0.378801,-0.000835678,0,0,0,0,0,0,0,-1.5675,-37.589,-0.463243,23.5391,1.81518,0.566641,0.0440523,
0.344185,0.0749237,0.0216613,-1.99508,0.442418,0.155682,-0.010366,0.0729527,-0.0118587,0.0672028,-0.0253499,0.00827069,0.175218,0.0019731,-0.714508,0.201613,-0.729701,1.32211,5.98073,-5.62378,-0.154192,4.11964,-1.87643,3.66581,-1.82052,-0.320279,2.19537,0.0262782,0.34025,0.0751849,0.0180552,-1.99402,0.441669,0.148395,-0.0104075,0.361257,-0.0176432,-0.0433316,-0.0907471,-0.0129607,0.347478,0.000233697,14.6292,4.72323,-23.7976,4.65375,0.301048,-3.91538,0.133672,-3.97564,-34.2961,-3.31175,24.7849,1.83349,1.30273,0.00376909,
0.344661,0.0748294,0.0220933,-1.99519,0.442915,0.156674,-0.0103584,0.0702666,-0.0118448,0.0645613,-0.0230638,0.0190331,0.164966,0.00176741,-1.67884,0.00870759,-1.65093,1.42882,6.72649,-6.40786,-0.128559,3.97935,-1.86763,3.53346,-1.61466,-0.182447,2.06462,0.0240863,0.34025,0.0751849,0.0180552,-1.99402,0.441669,0.148395,-0.0104075,0.361257,-0.0176432,-0.0433316,-0.0907471,-0.0129607,0.347478,0.000233697,0,0,0,0,0,0,0,-3.97564,-34.2961,-3.31175,24.7849,1.83349,1.30273,0.00376909,
0.345078,0.0747286,0.0224686,-1.99528,0.443562,0.157533,-0.0103514,0.0666553,-0.0119974,0.0610307,-0.0206745,0.0314049,0.153442,0.00158977,-2.25707,-0.0954098,-2.20659,1.49329,7.73239,-7.20214,-0.111024,3.8448,-1.85902,3.4068,-1.41001,-0.0126408,1.91072,0.0219397,0.34025,0.0751849,0.0180552,-1.99402,0.441669,0.148395,-0.0104075,0.361257,-0.0176432,-0.0433316,-0.0907471,-0.0129607,0.347478,0.000233697,0,0,0,0,0,0,0,-3.97564,-34.2961,-3.31175,24.7849,1.83349,1.30273,0.00376909,
0.345447,0.0746234,0.0227957,-1.99535,0.444384,0.158246,-0.0103456,0.0625309,-0.0122278,0.0570023,-0.0182375,0.0456625,0.140594,0.00141723,-2.57769,-0.143974,-2.51781,1.52315,8.91098,-8.02995,-0.10784,3.714,-1.8505,3.28374,-1.20696,0.19104,1.73324,0.0197834,0.34025,0.0751849,0.0180552,-1.99402,0.441669,0.148395,-0.0104075,0.361257,-0.0176432,-0.0433316,-0.0907471,-0.0129607,0.347478,0.000233697,0,0,0,0,0,0,0,-3.97564,-34.2961,-3.31175,24.7849,1.83349,1.30273,0.00376909,
0.343953,0.0750168,0.0214244,-1.99478,0.444924,0.153445,-0.0104068,0.0621584,-0.0115332,0.0565636,-0.0163671,0.064411,0.124614,0.00113763,-0.232868,0.434115,-0.274183,1.16898,11.7178,-9.9878,-0.174748,3.55348,-1.83553,3.11178,-1.03515,0.441212,1.49048,0.0177478,0.342297,0.0759349,0.0267639,-1.99602,0.441208,0.159959,-0.0104135,0.22441,0.050704,0.0661361,-0.0302884,-0.00366037,0.307529,-0.000975443,-17.1059,8.5434,13.6835,7.55734,1.16254,-4.99357,-0.151142,-3.54321,-39.3147,-4.11315,27.0026,1.96808,1.28258,0.0239107,
0.344365,0.0749344,0.0217931,-1.99483,0.446205,0.153768,-0.0104043,0.0600316,-0.0112863,0.0544689,-0.0143041,0.0835594,0.107782,0.000972733,-1.32921,0.154319,-1.30914,1.28939,11.9678,-10.5199,-0.103061,3.42256,-1.82619,2.98762,-0.836158,0.699991,1.268,0.0160593,0.342297,0.0759349,0.0267639,-1.99602,0.441208,0.159959,-0.0104135,0.22441,0.050704,0.0661361,-0.0302884,-0.00366037,0.307529,-0.000975443,0,0,0,0,0,0,0,-3.54321,-39.3147,-4.11315,27.0026,1.96808,1.28258,0.0239107,
0.344716,0.0748431,0.0221021,-1.99485,0.44767,0.153934,-0.0103972,0.0567912,-0.0113113,0.0513006,-0.0121804,0.103469,0.090359,0.000957175,-2.02527,-0.0156414,-1.98018,1.32729,12.4436,-10.8894,-0.0097235,3.28029,-1.81785,2.85188,-0.642884,0.998628,1.01859,0.0146536,0.342297,0.0759349,0.0267639,-1.99602,0.441208,0.159959,-0.0104135,0.22441,0.050704,0.0661361,-0.0302884,-0.00366037,0.307529,-0.000975443,0,0,0,0,0,0,0,-3.54321,-39.3147,-4.11315,27.0026,1.96808,1.28258,0.0239107,
0.345012,0.0747464,0.0223549,-1.99487,0.44936,0.153945,-0.0103936,0.0528358,-0.0114677,0.0473594,-0.0101293,0.125029,0.0725794,0.000855297,-2.4721,-0.0977183,-2.46329,1.28198,13.4747,-11.1122,-0.0636738,3.11492,-1.80586,2.69099,-0.454263,1.30973,0.762035,0.0126107,0.342297,0.0759349,0.0267639,-1.99602,0.441208,0.159959,-0.0104135,0.22441,0.050704,0.0661361,-0.0302884,-0.00366037,0.307529,-0.000975443,0,0,0,0,0,0,0,-3.54321,-39.3147,-4.11315,27.0026,1.96808,1.28258,0.0239107,
0.345371,0.0764857,0.0295246,-1.99652,0.447727,0.162661,-0.0104458,0.0515291,-0.00929265,0.0460738,-0.00922181,0.14638,0.0553726,0.000446577,-0.816745,1.35938,-0.803472,0.567163,13.3444,-10.7542,-0.25545,2.9515,-1.80184,2.5228,-0.310893,1.61202,0.47116,0.00952621,0.347373,0.0753443,0.0301808,-1.99797,0.441841,0.169222,-0.0104122,-0.0129146,-0.0517377,0.252144,-0.0692458,0.0320684,0.257811,6.75884e-05,-29.6656,-12.8052,23.251,-4.86967,4.46609,-6.2148,0.130379,-0.627255,-36.3948,-0.661608,25.4315,2.58422,0.752493,0.00376909,
0.345687,0.0764547,0.0297989,-1.99653,0.449512,0.162482,-0.0104535,0.0491176,-0.00820921,0.0437154,-0.00766897,0.161721,0.0398224,0.000165312,-1.50716,0.677154,-1.47402,0.970526,9.58859,-9.7189,-0.175791,2.7377,-1.77342,2.31567,-0.131247,1.80468,0.271373,0.0106545,0.347373,0.0753443,0.0301808,-1.99797,0.441841,0.169222,-0.0104122,-0.0129146,-0.0517377,0.252144,-0.0692458,0.0320684,0.257811,6.75884e-05,0,0,0,0,0,0,0,-0.627255,-36.3948,-0.661608,25.4315,2.58422,0.752493,0.00376909,
0.34595,0.076406,0.030024,-1.99652,0.451363,0.162212,-0.0104601,0.0458685,-0.00778586,0.0406019,-0.00590896,0.175639,0.0251162,-3.33267e-05,-2.03069,0.264592,-1.94592,1.10001,8.69843,-9.19135,-0.124149,2.46375,-1.75387,2.04938,0.0137898,2.11679,0.0244049,0.0158891,0.347373,0.0753443,0.0301808,-1.99797,0.441841,0.169222,-0.0104122,-0.0129146,-0.0517377,0.252144,-0.0692458,0.0320684,0.257811,6.75884e-05,0,0,0,0,0,0,0,-0.627255,-36.3948,-0.661608,25.4315,2.58422,0.752493,0.00376909,
0.349659,0.0746985,0.0322331,-1.99788,0.449995,0.169738,-0.0104984,0.0433626,-0.00892045,0.0381522,-0.0032824,0.192899,0.0124227,-0.000421446,-1.56617,-0.709117,-1.53107,1.6416,10.7879,-7.93346,-0.242575,1.77059,-1.64807,1.40714,0.313982,2.54182,-0.250594,-0.00393603,0.347373,0.0753443,0.0301808,-1.99797,0.441841,0.169222,-0.0104122,-0.0129146,-0.0517377,0.252144,-0.0692458,0.0320684,0.257811,6.75884e-05,0,0,0,0,0,0,0,-0.627255,-36.3948,-0.661608,25.4315,2.58422,0.752493,0.00376909,
0.349884,0.0745933,0.0324223,-1.99782,0.452048,0.169494,-0.0105134,0.040326,-0.00976602,0.0352513,-0.00109047,0.205632,0.00384323,-0.000712972,-1.89787,-0.528481,-1.81304,1.36996,7.95776,-5.36215,-0.182204,1.58547,-1.49621,1.15205,0.551984,1.94987,-0.0971292,-0.00611398,0.351545,0.0755478,0.0326902,-1.99871,0.445292,0.174457,-0.010413,-0.0128673,0.0500059,0.194214,0.00751739,0.145007,0.0962671,-0.00103609,0.0059056,12.718,-7.24122,9.5954,14.1173,-20.193,-0.13796,0.463749,-37.7397,0.314344,24.6619,2.64557,0.380789,0.0101778,
0.350069,0.0744937,0.0325735,-1.99775,0.45416,0.16924,-0.0105288,0.0368775,-0.010303,0.0319797,0.000849324,0.217304,-0.00328052,-0.000955577,-2.15533,-0.335601,-2.04476,1.21237,7.29516,-4.45235,-0.151628,1.3912,-1.45464,1.01474,0.659641,2.35666,-0.334853,-0.00363263,0.351545,0.0755478,0.0326902,-1.99871,0.445292,0.174457,-0.010413,-0.0128673,0.0500059,0.194214,0.00751739,0.145007,0.0962671,-0.00103609,0,0,0,0,0,0,0,0.463749,-37.7397,0.314344,24.6619,2.64557,0.380789,0.0101778,
0.350216,0.0743994,0.0326889,-1.99768,0.456376,0.168941,-0.010548,0.0331837,-0.0106,0.0284683,0.00257815,0.229255,-0.0101065,-0.00124236,-2.3086,-0.185642,-2.19461,1.08052,7.46947,-4.26621,-0.179241,1.14386,-1.40862,0.794147,0.762681,2.75609,-0.479193,-0.00932655,0.351545,0.0755478,0.0326902,-1.99871,0.445292,0.174457,-0.010413,-0.0128673,0.0500059,0.194214,0.00751739,0.145007,0.0962671,-0.00103609,0,0,0,0,0,0,0,0.463749,-37.7397,0.314344,24.6619,2.64557,0.380789,0.0101778,
0.353278,0.0760155,0.0342185,-1.9987,0.455302,0.173967,-0.0105273,0.031456,-0.00838307,0.0268211,0.00295065,0.239117,-0.0170926,-0.00153147,-1.07982,1.38559,-1.02949,0.23281,6.16379,-4.36632,-0.180692,1.04964,-1.36549,0.666913,0.884704,2.71728,-0.363134,-0.012936,0.351545,0.0755478,0.0326902,-1.99871,0.445292,0.174457,-0.010413,-0.0128673,0.0500059,0.194214,0.00751739,0.145007,0.0962671,-0.00103609,0,0,0,0,0,0,0,0.463749,-37.7397,0.314344,24.6619,2.64557,0.380789,0.0101778,
0.353441,0.0759972,0.0343464,-1.99864,0.457416,0.173597,-0.010547,0.0292316,-0.00716237,0.024655,0.00383157,0.244127,-0.0229349,-0.00171738,-1.39024,0.762938,-1.35386,0.550576,3.13081,-3.65147,-0.116193,0.897852,-1.26157,0.494502,1.04236,2.29572,0.0446315,-0.0159916,0.354382,0.0751866,0.0348179,-1.99919,0.452333,0.175576,-0.0104111,0.0309902,-0.0406502,0.100898,-0.0194227,0.239805,-0.00528956,0.00121373,5.4822,-11.332,-11.6645,-3.36751,11.8499,-12.6946,0.281227,-0.147213,-35.7442,-0.213304,25.3085,3.02459,0.719534,-0.050247,
0.353572,0.0759633,0.0344435,-1.99857,0.459481,0.173218,-0.0105677,0.0266601,-0.00657866,0.0221518,0.00490034,0.246937,-0.0278079,-0.00189254,-1.60721,0.364817,-1.56449,0.667977,1.75624,-3.04559,-0.109476,0.750013,-1.22835,0.394115,1.0886,2.6379,-0.172754,-0.0155234,0.354382,0.0751866,0.0348179,-1.99919,0.452333,0.175576,-0.0104111,0.0309902,-0.0406502,0.100898,-0.0194227,0.239805,-0.00528956,0.00121373,0,0,0,0,0,0,0,-0.147213,-35.7442,-0.213304,25.3085,3.02459,0.719534,-0.050247,
0.353677,0.0759175,0.0345158,-1.99849,0.461494,0.17286,-0.0105914,0.0239572,-0.0064064,0.019529,0.00600953,0.247874,-0.0312041,-0.00210451,-1.68932,0.107663,-1.63922,0.693248,0.585728,-2.12264,-0.13248,0.569537,-1.19735,0.235596,1.13651,2.90118,-0.343433,-0.0200887,0.354382,0.0751866,0.0348179,-1.99919,0.452333,0.175576,-0.0104111,0.0309902,-0.0406502,0.100898,-0.0194227,0.239805,-0.00528956,0.00121373,0,0,0,0,0,0,0,-0.147213,-35.7442,-0.213304,25.3085,3.02459,0.719534,-0.050247,
0.355741,0.0744969,0.0359823,-1.99873,0.462776,0.173557,-0.0105339,0.0234072,-0.00783886,0.018868,0.00766497,0.246172,-0.0328183,-0.0022565,-0.343772,-0.895291,-0.413122,1.03465,-1.06389,-1.00889,-0.0949981,0.469073,-1.14776,0.137398,1.21343,2.79091,-0.339514,-0.0225716,0.354382,0.0751866,0.0348179,-1.99919,0.452333,0.175576,-0.0104111,0.0309902,-0.0406502,0.100898,-0.0194227,0.239805,-0.00528956,0.00121373,0,0,0,0,0,0,0,-0.147213,-35.7442,-0.213304,25.3085,3.02459,0.719534,-0.050247,
0.355897,0.0743867,0.0361017,-1.99861,0.464286,0.173481,-0.0105523,0.0226158,-0.00902619,0.0180799,0.00901857,0.234681,-0.0281421,-0.00226364,-0.494579,-0.742076,-0.492554,0.845998,-7.18191,2.92267,-0.00445893,0.328746,-1.08377,-0.0610862,1.3004,2.27576,-0.233084,-0.0233899,0.35685,0.0753797,0.0358303,-1.99906,0.461689,0.175472,-0.0104155,0.12207,0.0224354,-0.0350126,0.0158439,0.269597,0.00112449,-0.000191878,11.3849,7.8857,-16.9888,4.40832,3.72391,0.801757,-0.175701,-1.84521,-37.4898,-1.68517,25.134,2.70691,0.865103,-0.0429228,
0.356035,0.0742786,0.0362022,-1.99849,0.465532,0.173567,-0.0105719,0.0215605,-0.00992325,0.0169764,0.0101555,0.218885,-0.0203634,-0.00230172,-0.659592,-0.560662,-0.689715,0.710601,-9.87242,4.86168,-0.0238029,0.189365,-1.05501,-0.186728,1.36861,2.37529,-0.290549,-0.0242587,0.35685,0.0753797,0.0358303,-1.99906,0.461689,0.175472,-0.0104155,0.12207,0.0224354,-0.0350126,0.0158439,0.269597,0.00112449,-0.000191878,0,0,0,0,0,0,0,-1.84521,-37.4898,-1.68517,25.134,2.70691,0.865103,-0.0429228,
0.357941,0.0753765,0.0366903,-1.99863,0.468529,0.176133,-0.0105246,0.0208126,-0.00923039,0.0160943,0.0105533,0.199413,-0.00969498,-0.00237897,-0.467449,0.433036,-0.551326,0.248635,-12.1698,6.66774,-0.0482793,0.116633,-1.01505,-0.360345,1.5273,1.76739,0.0863183,-0.0279368,0.35685,0.0753797,0.0358303,-1.99906,0.461689,0.175472,-0.0104155,0.12207,0.0224354,-0.0350126,0.0158439,0.269597,0.00112449,-0.000191878,0,0,0,0,0,0,0,-1.84521,-37.4898,-1.68517,25.134,2.70691,0.865103,-0.0429228,
0.358058,0.0753156,0.0367653,-1.99853,0.469415,0.176441,-0.010546,0.0195678,-0.0089088,0.014751,0.010998,0.181663,-3.90136e-05,-0.00244003,-0.777991,0.200993,-0.839539,0.277912,-11.0935,6.03498,-0.0381641,0.0723903,-1.03422,-0.412945,1.58614,0.826571,0.657846,-0.0258971,0.35685,0.0753797,0.0358303,-1.99906,0.461689,0.175472,-0.0104155,0.12207,0.0224354,-0.0350126,0.0158439,0.269597,0.00112449,-0.000191878,0,0,0,0,0,0,0,-1.84521,-37.4898,-1.68517,25.134,2.70691,0.865103,-0.0429228,
0.358153,0.0752484,0.0368194,-1.99842,0.470238,0.176788,-0.0105674,0.0180404,-0.00880578,0.0131543,0.0114558,0.165917,0.00862525,-0.00248668,-0.95458,0.0643852,-0.997923,0.286113,-9.84138,5.41517,-0.0291577,0.0723933,-1.03422,-0.412942,1.58614,0.826598,0.65782,-0.0258972,0.35685,0.0753797,0.0358303,-1.99906,0.461689,0.175472,-0.0104155,0.12207,0.0224354,-0.0350126,0.0158439,0.269597,0.00112449,-0.000191878,0,0,0,0,0,0,0,-1.84521,-37.4898,-1.68517,25.134,2.70691,0.865103,-0.0429228,
0.358231,0.0751771,0.0368566,-1.99831,0.471017,0.177165,-0.0105887,0.0163848,-0.00882705,0.0114522,0.011904,0.152198,0.0163374,-0.00252125,-1.03476,-0.0132895,-1.06383,0.280154,-8.57429,4.8201,-0.0216051,0.0769795,-1.03523,-0.412203,1.56862,0.796241,0.669088,-0.0258432,0.358126,0.0750643,0.0368086,-1.99903,0.471918,0.17488,-0.0104197,0.0161787,-0.0234274,0.0498963,-0.006698,0.262258,-0.0320892,-0.000968418,-13.2364,-5.73285,10.6136,-2.81774,-0.917326,-4.15171,-0.0970675,-1.49212,-35.0221,-0.661608,26.3559,2.48718,1.43548,-0.0163725,
0.359024,0.0745154,0.0375052,-1.99851,0.477802,0.1754,-0.0105212,0.016144,-0.00951336,0.0111632,0.0124328,0.143724,0.0205161,-0.00255383,-0.150489,-0.428948,-0.180651,0.330485,-5.29671,2.61169,-0.0203626,0.0762376,-1.03653,-0.413122,1.57023,0.763391,0.693989,-0.0258197,0.358126,0.0750643,0.0368086,-1.99903,0.471918,0.17488,-0.0104197,0.0161787,-0.0234274,0.0498963,-0.006698,0.262258,-0.0320892,-0.000968418,0,0,0,0,0,0,0,-1.49212,-35.0221,-0.661608,26.3559,2.48718,1.43548,-0.0163725,
0.359124,0.0744203,0.0375641,-1.99839,0.478611,0.175752,-0.0105426,0.0154163,-0.00998681,0.0104028,0.0128854,0.13522,0.0252087,-0.00257866,-0.454873,-0.295907,-0.475243,0.28284,-5.31494,2.93289,-0.015515,0.0762693,-1.0365,-0.413088,1.57021,0.763685,0.693723,-0.0258199,0.358126,0.0750643,0.0368086,-1.99903,0.471918,0.17488,-0.0104197,0.0161787,-0.0234274,0.0498963,-0.006698,0.262258,-0.0320892,-0.000968418,0,0,0,0,0,0,0,-1.49212,-35.0221,-0.661608,26.3559,2.48718,1.43548,-0.0163725,
0.359206,0.0743278,0.0376055,-1.99828,0.47937,0.176145,-0.0105639,0.0143894,-0.0103035,0.00935673,0.0132691,0.12715,0.0299911,-0.00259608,-0.641808,-0.197949,-0.653783,0.239861,-5.04333,2.989,-0.010888,0.0762968,-1.03648,-0.413056,1.57019,0.763983,0.693454,-0.0258202,0.358126,0.0750643,0.0368086,-1.99903,0.471918,0.17488,-0.0104197,0.0161787,-0.0234274,0.0498963,-0.006698,0.262258,-0.0320892,-0.000968418,0,0,0,0,0,0,0,-1.49212,-35.0221,-0.661608,26.3559,2.48718,1.43548,-0.0163725,
0.359274,0.0742372,0.0376325,-1.99816,0.480092,0.176569,-0.0105852,0.013202,-0.0105066,0.00816086,0.0135927,0.119749,0.0346054,-0.0026072,-0.742116,-0.126945,-0.747415,0.202233,-4.62582,2.88392,-0.0069503,0.0703714,-1.03055,-0.4241,1.56477,0.743887,0.700324,-0.0257931,0.358682,0.0753463,0.0379881,-1.99845,0.478831,0.174703,-0.0104212,0.0267788,0.0089089,0.0267804,0.019893,0.129813,0.0257978,-0.00113444,1.32501,4.04203,-2.8895,3.32388,-16.5557,7.23587,-0.0207531,-0.452694,-37.7913,-0.562425,24.8087,1.8399,0.911795,-0.0026396,
0.359361,0.0751537,0.0384544,-1.99797,0.482028,0.177084,-0.0105281,0.0127389,-0.00998784,0.00765894,0.0134625,0.108006,0.0418378,-0.0026139,-0.289417,0.324255,-0.313703,-0.0814075,-7.33969,4.52027,-0.00418786,0.0636291,-1.04228,-0.43251,1.57996,0.421283,0.938861,-0.0255688,0.358682,0.0753463,0.0379881,-1.99845,0.478831,0.174703,-0.0104212,0.0267788,0.0089089,0.0267804,0.019893,0.129813,0.0257978,-0.00113444,0,0,0,0,0,0,0,-0.452694,-37.7913,-0.562425,24.8087,1.8399,0.911795,-0.0026396,
0.359432,0.0750856,0.0384839,-1.99786,0.482482,0.177679,-0.0105491,0.0119675,-0.00969311,0.00686551,0.0134525,0.0977338,0.0483216,-0.00261663,-0.482135,0.184205,-0.495889,-0.00621315,-6.41982,4.05235,-0.00170928,0.0639254,-1.04211,-0.432184,1.57976,0.424182,0.936258,-0.0255709,0.358682,0.0753463,0.0379881,-1.99845,0.478831,0.174703,-0.0104212,0.0267788,0.0089089,0.0267804,0.019893,0.129813,0.0257978,-0.00113444,0,0,0,0,0,0,0,-0.452694,-37.7913,-0.562425,24.8087,1.8399,0.911795,-0.0026396,
0.35949,0.0750141,0.0385008,-1.99775,0.48291,0.178295,-0.01057,0.0110251,-0.0095416,0.00591359,0.0135203,0.0888904,0.0540689,-0.00261623,-0.588999,0.0946941,-0.594953,0.0423527,-5.52715,3.59207,0.00024944,0.0641845,-1.04194,-0.431896,1.57956,0.427123,0.933638,-0.0255743,0.358682,0.0753463,0.0379881,-1.99845,0.478831,0.174703,-0.0104212,0.0267788,0.0089089,0.0267804,0.019893,0.129813,0.0257978,-0.00113444,0,0,0,0,0,0,0,-0.452694,-37.7913,-0.562425,24.8087,1.8399,0.911795,-0.0026396,
0.360599,0.0746814,0.0387262,-1.9977,0.480341,0.182363,-0.0104978,0.0118529,-0.00971308,0.00671648,0.0134762,0.0441012,0.0851533,-0.00257278,0.517406,-0.107178,0.501808,-0.0275612,-27.9933,19.4277,0.0271595,0.0645691,-1.12206,-0.439476,1.66755,-1.84814,2.62523,-0.0240703,0.359807,0.0750347,0.0381241,-1.99815,0.483351,0.175659,-0.0104184,0.0287315,0.000977722,0.00897654,0.0125504,0.125686,0.0325735,0.00135368,0.244089,-0.991397,-2.22548,-0.917828,-0.515891,0.84696,0.311015,-1.46435,-34.8198,-0.887743,25.7568,2.08984,1.48125,-0.0566557,
0.3607,0.0745974,0.0387854,-1.99758,0.479178,0.184105,-0.0105173,0.0120144,-0.00986926,0.00685136,0.0135561,0.00621273,0.111689,-0.00254681,0.100907,-0.0976088,0.0842996,0.0499353,-23.6803,16.5847,0.0162303,0.0680649,-1.12072,-0.436169,1.66628,-1.82721,2.60464,-0.0240761,0.359807,0.0750347,0.0381241,-1.99815,0.483351,0.175659,-0.0104184,0.0287315,0.000977722,0.00897654,0.0125504,0.125686,0.0325735,0.00135368,0,0,0,0,0,0,0,-1.46435,-34.8198,-0.887743,25.7568,2.08984,1.48125,-0.0566557,
0.360784,0.0745133,0.0388267,-1.99747,0.477966,0.185891,-0.010537,0.0116986,-0.00999738,0.00651486,0.0137063,-0.0253316,0.133987,-0.00252958,-0.197377,-0.0800773,-0.210316,0.0938609,-19.7152,13.9364,0.0107698,0.0709293,-1.11988,-0.433715,1.66485,-1.80608,2.58383,-0.0240836,0.359807,0.0750347,0.0381241,-1.99815,0.483351,0.175659,-0.0104184,0.0287315,0.000977722,0.00897654,0.0125504,0.125686,0.0325735,0.00135368,0,0,0,0,0,0,0,-1.46435,-34.8198,-0.887743,25.7568,2.08984,1.48125,-0.0566557,
0.360852,0.0744294,0.0388529,-1.99735,0.476726,0.187702,-0.0105567,0.0110628,-0.0100954,0.00586672,0.013891,-0.0512601,0.152472,-0.00251644,-0.397348,-0.0612894,-0.405087,0.115444,-16.2053,11.5533,0.00820946,0.0731383,-1.11921,-0.431969,1.66328,-1.78468,2.56285,-0.0240889,0.359807,0.0750347,0.0381241,-1.99815,0.483351,0.175659,-0.0104184,0.0287315,0.000977722,0.00897654,0.0125504,0.125686,0.0325735,0.00135368,0,0,0,0,0,0,0,-1.46435,-34.8198,-0.887743,25.7568,2.08984,1.48125,-0.0566557,
0.361598,0.0744601,0.0398237,-1.99787,0.462243,0.19627,-0.0104297,0.0171594,-0.0107977,0.0120292,0.013397,-0.182598,0.251598,-0.00237621,3.81037,-0.438894,3.85156,-0.308703,-82.0863,61.9535,0.0876483,0.871724,-1.18126,0.444296,1.90926,-8.76919,8.28331,-0.0213471,0.360305,0.0751011,0.0385782,-1.99764,0.485974,0.177984,-0.0104222,0.0156472,-0.0137756,0.00814465,0.00892238,0.0123372,0.122402,-0.00024068,-1.63554,-1.84416,-0.103986,-0.453502,-14.1686,11.2286,-0.199295,-0.655026,-36.9185,-0.586229,25.1102,1.14318,1.91887,-0.0365141,
0.36189,0.0743587,0.0400739,-1.99777,0.456391,0.201595,-0.0104457,0.0210385,-0.0111726,0.0158773,0.0132358,-0.292383,0.334417,-0.00230036,2.42445,-0.234351,2.40506,-0.10079,-68.6156,51.7622,0.0474043,0.954862,-1.19409,0.52431,1.90431,-8.59752,8.11293,-0.0214193,0.360305,0.0751011,0.0385782,-1.99764,0.485974,0.177984,-0.0104222,0.0156472,-0.0137756,0.00814465,0.00892238,0.0123372,0.122402,-0.00024068,0,0,0,0,0,0,0,-0.655026,-36.9185,-0.586229,25.1102,1.14318,1.91887,-0.0365141,
0.362144,0.0742634,0.0402834,-1.99766,0.45046,0.206974,-0.0104623,0.0231732,-0.0113209,0.0179387,0.013273,-0.382173,0.402009,-0.00225667,1.33418,-0.0926786,1.28839,0.0232946,-56.1184,42.2446,0.0273074,1.02777,-1.21885,0.587973,1.89772,-8.43445,7.9442,-0.0213403,0.360305,0.0751011,0.0385782,-1.99764,0.485974,0.177984,-0.0104222,0.0156472,-0.0137756,0.00814465,0.00892238,0.0123372,0.122402,-0.00024068,0,0,0,0,0,0,0,-0.655026,-36.9185,-0.586229,25.1102,1.14318,1.91887,-0.0365141,
0.362362,0.0741727,0.0404566,-1.99755,0.444523,0.212348,-0.0104792,0.0239989,-0.0113222,0.0186814,0.0134243,-0.454175,0.455943,-0.00222825,0.516022,-0.000821248,0.464204,0.0945583,-45.0017,33.7088,0.0177611,1.0872,-1.25141,0.633119,1.88866,-8.27672,7.77492,-0.0211003,0.360305,0.0751011,0.0385782,-1.99764,0.485974,0.177984,-0.0104222,0.0156472,-0.0137756,0.00814465,0.00892238,0.0123372,0.122402,-0.00024068,0,0,0,0,0,0,0,-0.655026,-36.9185,-0.586229,25.1102,1.14318,1.91887,-0.0365141,
0.362643,0.0749432,0.0413745,-1.99732,0.44709,0.209812,-0.0101575,0.0322213,-0.00710756,0.0303538,0.0123876,-0.617852,0.5661,-0.00103779,5.13901,2.63417,7.29522,-0.647973,-102.298,68.8479,0.744037,1.2657,1.83878,1.62525,1.2344,-14.4731,11.6567,0.0402405,0.361136,0.0748489,0.03885,-1.99752,0.48153,0.187825,-0.0104105,0.0253204,0.0108285,0.0121736,0.0133023,-0.328771,0.456065,0.00115487,1.20914,3.07551,0.503617,0.547487,-42.6385,41.7079,0.174444,0.106693,-35.4189,0.361952,26.1298,-0.432438,4.25347,-0.103348,
0.363156,0.0750732,0.0419937,-1.99726,0.436447,0.2182,-0.0101355,0.0385988,-0.00243618,0.0397638,0.011447,-0.760358,0.662571,-0.000278611,3.98593,2.91962,5.88123,-0.587839,-89.0665,60.2944,0.474487,1.9639,2.01022,2.51803,1.11522,-14.4731,11.6567,0.0401744,0.361136,0.0748489,0.03885,-1.99752,0.48153,0.187825,-0.0104105,0.0253204,0.0108285,0.0121736,0.0133023,-0.328771,0.456065,0.00115487,0,0,0,0,0,0,0,0.106693,-35.4189,0.361952,26.1298,-0.432438,4.25347,-0.103348,
0.363664,0.0752481,0.0426187,-1.99721,0.425496,0.226808,-0.0101198,0.0435764,0.00242475,0.0474361,0.0105647,-0.882075,0.745246,0.000168097,3.11103,3.03808,4.79521,-0.551446,-76.0729,51.6723,0.279192,2.64642,2.23639,3.38618,1.02026,-14.4731,11.6567,0.0375794,0.361136,0.0748489,0.03885,-1.99752,0.48153,0.187825,-0.0104105,0.0253204,0.0108285,0.0121736,0.0133023,-0.328771,0.456065,0.00115487,0,0,0,0,0,0,0,0.106693,-35.4189,0.361952,26.1298,-0.432438,4.25347,-0.103348,
0.364075,0.0738329,0.0413393,-1.99808,0.437627,0.224722,-0.00999377,0.0520525,-0.00408317,0.0525057,0.00496732,-0.972069,0.807739,0.00172792,5.29754,-4.06745,3.16851,-3.49838,-56.2463,39.0579,0.974892,4.41429,-2.24227,2.90404,-0.367529,-14.4731,11.6567,0.087359,0.361136,0.0748489,0.03885,-1.99752,0.48153,0.187825,-0.0104105,0.0253204,0.0108285,0.0121736,0.0133023,-0.328771,0.456065,0.00115487,0,0,0,0,0,0,0,0.106693,-35.4189,0.361952,26.1298,-0.432438,4.25347,-0.103348,
0.364775,0.0735953,0.0419371,-1.99822,0.426632,0.233374,-0.00993545,0.0591429,-0.0092064,0.0569487,0.000247257,-1.05254,0.862488,0.00284024,4.43153,-3.20201,2.77683,-2.95004,-50.2945,34.2181,0.695196,5.39615,-1.94597,3.8907,-1.29838,-14.5394,11.3799,0.0858729,0.362785,0.0748017,0.0407002,-1.99769,0.45304,0.218938,-0.0104079,0.0386385,-0.00118955,0.0828996,-0.0175489,-1.08143,1.15768,0.00230423,1.66476,-1.50226,8.84075,-3.8564,-94.082,87.7024,0.14367,0.336795,-34.8952,0.564283,25.9076,-1.06781,4.81652,-0.123489,
0.365482,0.0733629,0.0425474,-1.99838,0.415424,0.242139,-0.00988185,0.0649901,-0.013176,0.0608159,-0.00376741,-1.12222,0.909126,0.00361219,3.65448,-2.48099,2.417,-2.50917,-43.5491,29.1489,0.482468,6.33747,-2.21295,4.83874,-1.49676,-14.5394,11.3799,0.0806636,0.362785,0.0748017,0.0407002,-1.99769,0.45304,0.218938,-0.0104079,0.0386385,-0.00118955,0.0828996,-0.0175489,-1.08143,1.15768,0.00230423,0,0,0,0,0,0,0,0.336795,-34.8952,0.564283,25.9076,-1.06781,4.81652,-0.123489,
0.366194,0.073136,0.0431686,-1.99855,0.404087,0.250967,-0.00983344,0.069773,-0.0162129,0.0641839,-0.00720952,-1.18119,0.947991,0.00410005,2.98933,-1.89808,2.10505,-2.15132,-36.8593,24.2906,0.304916,7.12428,-2.3736,5.65192,-1.65716,-14.5394,11.3799,0.0758931,0.362785,0.0748017,0.0407002,-1.99769,0.45304,0.218938,-0.0104079,0.0386385,-0.00118955,0.0828996,-0.0175489,-1.08143,1.15768,0.00230423,0,0,0,0,0,0,0,0.336795,-34.8952,0.564283,25.9076,-1.06781,4.81652,-0.123489,
0.366016,0.0739708,0.0434828,-1.9983,0.39938,0.264632,-0.0101223,0.0729236,-0.0181859,0.0664317,-0.00953494,-1.22792,0.984817,0.00439624,1.96909,-1.23313,1.40487,-1.45338,-29.2021,23.0162,0.185117,7.75059,-2.4707,6.32995,-1.78768,-14.5394,11.3799,0.0716879,0.362785,0.0748017,0.0407002,-1.99769,0.45304,0.218938,-0.0104079,0.0386385,-0.00118955,0.0828996,-0.0175489,-1.08143,1.15768,0.00230423,0,0,0,0,0,0,0,0.336795,-34.8952,0.564283,25.9076,-1.06781,4.81652,-0.123489,
0.366709,0.0737596,0.0441041,-1.99846,0.387976,0.273639,-0.0100818,0.0756484,-0.0198299,0.0686787,-0.0117281,-1.26744,1.01304,0.0045297,1.703,-1.02747,1.40436,-1.37074,-24.7028,17.6382,0.0834143,8.00144,-1.62743,6.64981,-2.80047,-14.5871,10.9082,0.0721133,0.366393,0.0746633,0.0439397,-1.99859,0.399113,0.268429,-0.0104071,0.132809,0.00770217,0.0934633,-0.0376354,-1.69316,1.52814,0.00114702,11.7713,1.11146,1.32046,-2.51081,-76.466,46.3064,-0.144651,1.2215,-37.1407,1.58784,26.1813,0.245053,3.51006,-0.0429228,
0.367407,0.073548,0.044743,-1.99864,0.376528,0.282597,-0.0100438,0.077983,-0.0211544,0.0709161,-0.0138137,-1.30015,1.03438,0.00457334,1.45917,-0.827822,1.3984,-1.30347,-20.4419,13.3387,0.0272761,8.35368,-1.6703,7.09139,-2.89866,-14.5871,10.9082,0.0677668,0.366393,0.0746633,0.0439397,-1.99859,0.399113,0.268429,-0.0104071,0.132809,0.00770217,0.0934633,-0.0376354,-1.69316,1.52814,0.00114702,0,0,0,0,0,0,0,1.2215,-37.1407,1.58784,26.1813,0.245053,3.51006,-0.0429228,
0.370083,0.0742881,0.0472586,-1.99952,0.338526,0.317627,-0.0102525,0.0796594,-0.0205749,0.0728686,-0.0161665,-1.33169,1.0555,0.00452021,1.04775,0.362196,1.22027,-1.47054,-19.7126,13.1977,-0.0332087,8.81984,-1.71497,7.75687,-3.06302,-14.5871,10.9082,0.0562424,0.366393,0.0746633,0.0439397,-1.99859,0.399113,0.268429,-0.0104071,0.132809,0.00770217,0.0934633,-0.0376354,-1.69316,1.52814,0.00114702,0,0,0,0,0,0,0,1.2215,-37.1407,1.58784,26.1813,0.245053,3.51006,-0.0429228,
0.370776,0.0741313,0.0479112,-1.99973,0.326962,0.326584,-0.0102191,0.0810547,-0.0203796,0.0746088,-0.0182766,-1.35445,1.06833,0.0044532,0.872041,0.122041,1.08764,-1.31877,-14.2243,8.02163,-0.0418795,8.98831,-1.72506,8.05586,-3.13244,-14.5871,10.9082,0.0519155,0.366393,0.0746633,0.0439397,-1.99859,0.399113,0.268429,-0.0104071,0.132809,0.00770217,0.0934633,-0.0376354,-1.69316,1.52814,0.00114702,0,0,0,0,0,0,0,1.2215,-37.1407,1.58784,26.1813,0.245053,3.51006,-0.0429228,
0.371474,0.0739734,0.0485709,-1.99995,0.315475,0.335419,-0.010188,0.0823038,-0.0202522,0.0761791,-0.0201081,-1.37074,1.07552,0.00433832,0.780659,0.0796123,0.98144,-1.14472,-10.182,4.49141,-0.0717999,9.12113,-1.7483,8.33518,-3.21978,-14.5871,10.9082,0.0492767,0.366393,0.0746633,0.0439397,-1.99859,0.399113,0.268429,-0.0104071,0.132809,0.00770217,0.0934633,-0.0376354,-1.69316,1.52814,0.00114702,0,0,0,0,0,0,0,1.2215,-37.1407,1.58784,26.1813,0.245053,3.51006,-0.0429228,
0.372179,0.0738215,0.0492369,-2.00017,0.30405,0.344156,-0.0101606,0.0834599,-0.0199993,0.077593,-0.0216573,-1.38219,1.07884,0.00415655,0.722563,0.1581,0.883698,-0.968248,-7.15982,2.07487,-0.113608,8.92414,-1.24209,8.26193,-3.81997,-14.5022,10.4894,0.0513279,0.371322,0.0746903,0.0483671,-2.0006,0.337107,0.324402,-0.010398,0.129964,0.0133182,0.158624,-0.0735032,-1.90882,1.68267,-0.00123911,-0.355533,0.702002,8.14511,-4.48347,-26.9575,19.3163,-0.298267,1.34845,-39.3385,1.23872,26.6058,-0.0296057,2.73461,0.00376909,
0.375353,0.0746934,0.0520996,-2.00178,0.275119,0.374009,-0.0103238,0.0845621,-0.0178269,0.0787049,-0.0231386,-1.39106,1.08672,0.00373976,0.688883,1.3577,0.694944,-0.925831,-5.53911,4.92764,-0.260493,9.00059,-1.20234,8.43215,-3.92489,-14.5022,10.4894,0.0509869,0.371322,0.0746903,0.0483671,-2.0006,0.337107,0.324402,-0.010398,0.129964,0.0133182,0.158624,-0.0735032,-1.90882,1.68267,-0.00123911,0,0,0,0,0,0,0,1.34845,-39.3385,1.23872,26.6058,-0.0296057,2.73461,0.00376909,
0.376035,0.0746197,0.0527318,-2.00199,0.264346,0.382485,-0.0103149,0.0847133,-0.0161059,0.0787713,-0.0237825,-1.38218,1.08127,0.00321429,0.0945038,1.07568,0.0415004,-0.402389,5.55089,-3.4089,-0.328418,9.03918,-1.07294,8.51604,-4.00094,-14.5022,10.4894,0.048484,0.371322,0.0746903,0.0483671,-2.0006,0.337107,0.324402,-0.010398,0.129964,0.0133182,0.158624,-0.0735032,-1.90882,1.68267,-0.00123911,0,0,0,0,0,0,0,1.34845,-39.3385,1.23872,26.6058,-0.0296057,2.73461,0.00376909,
0.376688,0.074548,0.0533345,-2.00218,0.254305,0.390397,-0.0103092,0.0840982,-0.0146772,0.0780835,-0.023595,-1.35677,1.06281,0.00271232,-0.384448,0.892903,-0.42987,0.117148,15.8765,-11.5364,-0.313732,9.05739,-0.87656,8.54767,-4.04998,-14.5022,10.4894,0.0446906,0.371322,0.0746903,0.0483671,-2.0006,0.337107,0.324402,-0.010398,0.129964,0.0133182,0.158624,-0.0735032,-1.90882,1.68267,-0.00123911,0,0,0,0,0,0,0,1.34845,-39.3385,1.23872,26.6058,-0.0296057,2.73461,0.00376909,
0.377316,0.0744773,0.0539135,-2.00233,0.245021,0.397714,-0.010305,0.0829814,-0.0135087,0.0769425,-0.0228354,-1.31751,1.03318,0.00227467,-0.697978,0.73032,-0.713155,0.474768,24.5363,-18.5174,-0.273532,8.69731,-0.262842,8.18526,-4.41481,-14.3682,10.0964,0.0421963,0.377027,0.0747424,0.0538076,-2.00357,0.269603,0.384821,-0.0103863,0.183906,0.0188356,0.133224,-0.0893555,-2.0211,1.79199,0.00152089,6.74275,0.689683,-3.17495,-1.98155,-14.0361,13.6657,0.344999,1.4278,-39.2394,1.83778,27.4271,0.941769,2.04522,-0.0566557,
0.38093,0.0750621,0.0573517,-2.00441,0.214152,0.430884,-0.0104483,0.0818417,-0.0115394,0.0757093,-0.0209325,-1.27221,1.00438,0.00176041,-0.712336,1.23083,-0.770767,1.18929,28.3164,-18.0023,-0.321413,8.70914,-0.0133146,8.18304,-4.42814,-13.83,10.0964,0.0370913,0.377027,0.0747424,0.0538076,-2.00357,0.269603,0.384821,-0.0103863,0.183906,0.0188356,0.133224,-0.0893555,-2.0211,1.79199,0.00152089,0,0,0,0,0,0,0,1.4278,-39.2394,1.83778,27.4271,0.941769,2.04522,-0.0566557,
0.381523,0.0750112,0.0578961,-2.00451,0.206265,0.437254,-0.0104489,0.0802833,-0.0105052,0.074177,-0.0191812,-1.21494,0.962749,0.0013925,-0.973994,0.646381,-0.957643,1.09456,35.7933,-26.0175,-0.229943,8.72132,0.236347,8.18267,-4.4294,-12.6462,9.12855,0.032503,0.377027,0.0747424,0.0538076,-2.00357,0.269603,0.384821,-0.0103863,0.183906,0.0188356,0.133224,-0.0893555,-2.0211,1.79199,0.00152089,0,0,0,0,0,0,0,1.4278,-39.2394,1.83778,27.4271,0.941769,2.04522,-0.0566557,
0.3821,0.0749462,0.0584282,-2.0046,0.199128,0.442962,-0.0104489,0.0786608,-0.0100284,0.0726441,-0.0176421,-1.15039,0.912909,0.00111454,-1.01403,0.297997,-0.958116,0.961977,40.3446,-31.15,-0.173724,8.72636,0.476373,8.18841,-4.41356,-11.6085,8.19365,0.030897,0.377027,0.0747424,0.0538076,-2.00357,0.269603,0.384821,-0.0103863,0.183906,0.0188356,0.133224,-0.0893555,-2.0211,1.79199,0.00152089,0,0,0,0,0,0,0,1.4278,-39.2394,1.83778,27.4271,0.941769,2.04522,-0.0566557,
0.386659,0.0755178,0.0624999,-2.00682,0.157921,0.482989,-0.0105415,0.0772681,-0.00961891,0.071282,-0.0147455,-1.07143,0.857595,0.000682179,-0.870473,0.25591,-0.851298,1.81033,49.3515,-34.5714,-0.270226,8.42986,0.873226,7.9128,-4.33353,-9.55971,6.28862,0.029599,0.383073,0.0752347,0.0592704,-2.00661,0.200631,0.446041,-0.0103924,0.153805,0.0272927,0.163215,-0.0785903,-1.94158,1.74073,0.000416195,-3.7627,1.05713,3.74881,1.34566,9.9401,-6.40824,-0.138086,0.919986,-39.5369,1.41328,26.5305,2.64557,2.39037,-0.0026396,
0.387219,0.075433,0.0630162,-2.00686,0.152578,0.487398,-0.0105477,0.0758099,-0.00981637,0.0699327,-0.0127366,-0.990708,0.79628,0.000391127,-0.911377,-0.12341,-0.843271,1.25556,50.4482,-38.3217,-0.181908,8.33684,1.01664,7.82636,-4.30924,-8.76814,5.58947,0.0281352,0.383073,0.0752347,0.0592704,-2.00661,0.200631,0.446041,-0.0103924,0.153805,0.0272927,0.163215,-0.0785903,-1.94158,1.74073,0.000416195,0,0,0,0,0,0,0,0.919986,-39.5369,1.41328,26.5305,2.64557,2.39037,-0.0026396,
0.387773,0.0753376,0.0635287,-2.00691,0.147824,0.491234,-0.0105532,0.0745003,-0.0102376,0.0687583,-0.0114379,-0.911421,0.732943,0.000174877,-0.818502,-0.263288,-0.734042,0.811745,49.5546,-39.5857,-0.135156,8.2166,1.13042,7.71087,-4.28535,-8.04038,4.95048,0.0264139,0.383073,0.0752347,0.0592704,-2.00661,0.200631,0.446041,-0.0103924,0.153805,0.0272927,0.163215,-0.0785903,-1.94158,1.74073,0.000416195,0,0,0,0,0,0,0,0.919986,-39.5369,1.41328,26.5305,2.64557,2.39037,-0.0026396,
0.388326,0.0752383,0.0640404,-2.00697,0.143579,0.494584,-0.0105591,0.073406,-0.0106715,0.0677997,-0.0107004,-0.835261,0.670089,-6.50843e-06,-0.683897,-0.27114,-0.599128,0.460924,47.5999,-39.2841,-0.113366,8.0756,1.21862,7.57291,-4.26178,-7.36755,4.37265,0.0241515,0.383073,0.0752347,0.0592704,-2.00661,0.200631,0.446041,-0.0103924,0.153805,0.0272927,0.163215,-0.0785903,-1.94158,1.74073,0.000416195,0,0,0,0,0,0,0,0.919986,-39.5369,1.41328,26.5305,2.64557,2.39037,-0.0026396,
0.390869,0.0758797,0.066832,-2.00883,0.1116,0.528444,-0.0105605,0.0719542,-0.0112355,0.0664138,-0.00834837,-0.767216,0.622621,-0.000307777,-0.907379,-0.352541,-0.866136,1.47001,42.5285,-29.6673,-0.188293,8.22044,0.762243,7.73525,-3.72233,-6.32106,3.75204,0.0195305,0.38783,0.0758819,0.0640939,-2.00903,0.141283,0.501122,-0.0103992,0.110713,0.0295485,0.132124,-0.0419255,-1.49763,1.41105,-0.00011021,-5.38641,0.281977,-3.88636,4.5831,55.4944,-41.2094,-0.0658006,4.01447,-38.5133,4.31337,24.4873,2.93304,0.68566,0.017502,
0.391396,0.0757609,0.0673192,-2.00884,0.108149,0.531349,-0.0105709,0.0707473,-0.0119585,0.0653116,-0.00709439,-0.700062,0.570722,-0.000504696,-0.754354,-0.451851,-0.688882,0.783734,41.9713,-32.4372,-0.123074,8.0537,0.811793,7.56894,-3.69809,-5.75395,3.28048,0.0168671,0.38783,0.0758819,0.0640939,-2.00903,0.141283,0.501122,-0.0103992,0.110713,0.0295485,0.132124,-0.0419255,-1.49763,1.41105,-0.00011021,0,0,0,0,0,0,0,4.01447,-38.5133,4.31337,24.4873,2.93304,0.68566,0.017502,
0.391925,0.0756407,0.0678091,-2.00888,0.105113,0.533802,-0.0105807,0.0698209,-0.0125719,0.0644967,-0.00664731,-0.635931,0.517909,-0.000649835,-0.578988,-0.383393,-0.509325,0.279423,40.0815,-33.0077,-0.0907118,7.88015,0.847297,7.39509,-3.67283,-5.23716,2.85452,0.0142719,0.38783,0.0758819,0.0640939,-2.00903,0.141283,0.501122,-0.0103992,0.110713,0.0295485,0.132124,-0.0419255,-1.49763,1.41105,-0.00011021,0,0,0,0,0,0,0,4.01447,-38.5133,4.31337,24.4873,2.93304,0.68566,0.017502,
0.392456,0.0755245,0.068302,-2.00894,0.102431,0.535881,-0.0105908,0.0691384,-0.0129613,0.0639191,-0.00677879,-0.575793,0.466317,-0.000772501,-0.42655,-0.243398,-0.361039,-0.0821754,37.5866,-32.2453,-0.0766664,7.70293,0.871563,7.2174,-3.64659,-4.76425,2.47477,0.0115744,0.38783,0.0758819,0.0640939,-2.00903,0.141283,0.501122,-0.0103992,0.110713,0.0295485,0.132124,-0.0419255,-1.49763,1.41105,-0.00011021,0,0,0,0,0,0,0,4.01447,-38.5133,4.31337,24.4873,2.93304,0.68566,0.017502,
0.390562,0.07583,0.0665103,-2.0086,0.116914,0.524913,-0.010629,0.0669777,-0.0134701,0.0617852,-0.00455612,-0.531074,0.439962,-0.00107286,-1.35044,-0.317951,-1.33364,1.38917,27.9492,-16.4716,-0.187727,7.9579,0.449958,7.48376,-3.22623,-3.99671,2.07824,0.00671031,0.392206,0.0766239,0.0673441,-2.01009,0.0999303,0.539458,-0.0103982,0.136689,0.0277991,0.0663047,-0.0158844,-1.05027,0.927817,0.00110021,3.24698,-0.218678,-8.22742,3.25514,55.9197,-60.4041,0.151303,4.51831,-38.4657,4.98781,24.7095,2.29126,1.23589,-0.0365141,
0.391032,0.0756972,0.0669422,-2.0086,0.114529,0.527072,-0.0106442,0.0653347,-0.0140961,0.0602268,-0.00359978,-0.48449,0.405936,-0.00123881,-1.02687,-0.39129,-0.974033,0.59771,29.1147,-21.2663,-0.103715,7.7792,0.458648,7.30512,-3.19718,-3.60607,1.77617,0.00420427,0.392206,0.0766239,0.0673441,-2.01009,0.0999303,0.539458,-0.0103982,0.136689,0.0277991,0.0663047,-0.0158844,-1.05027,0.927817,0.00110021,0,0,0,0,0,0,0,4.51831,-38.4657,4.98781,24.7095,2.29126,1.23589,-0.0365141,
0.391508,0.0755659,0.0673819,-2.00863,0.112474,0.52883,-0.0106582,0.0641793,-0.0145595,0.0591732,-0.00353922,-0.43897,0.368711,-0.00133961,-0.72212,-0.289581,-0.658508,0.0378505,28.45,-23.2655,-0.0630017,7.60168,0.462241,7.12824,-3.1664,-3.25339,1.50626,0.0019319,0.392206,0.0766239,0.0673441,-2.01009,0.0999303,0.539458,-0.0103982,0.136689,0.0277991,0.0663047,-0.0158844,-1.05027,0.927817,0.00110021,0,0,0,0,0,0,0,4.51831,-38.4657,4.98781,24.7095,2.29126,1.23589,-0.0365141,
0.391991,0.0754418,0.0678288,-2.00868,0.110684,0.530272,-0.0106718,0.0634141,-0.0147513,0.0585098,-0.00408789,-0.395912,0.33102,-0.00141232,-0.478251,-0.119912,-0.414587,-0.342915,26.9116,-23.5573,-0.0454445,7.42627,0.462139,6.95433,-3.13417,-2.93324,1.26876,-0.000264195,0.392206,0.0766239,0.0673441,-2.01009,0.0999303,0.539458,-0.0103982,0.136689,0.0277991,0.0663047,-0.0158844,-1.05027,0.927817,0.00110021,0,0,0,0,0,0,0,4.51831,-38.4657,4.98781,24.7095,2.29126,1.23589,-0.0365141,
0.394882,0.0764976,0.069742,-2.00992,0.0842123,0.554536,-0.0106034,0.0626992,-0.0144365,0.0578306,-0.00370804,-0.359556,0.304289,-0.00159723,-0.446783,0.196784,-0.424508,0.237406,22.7226,-16.7066,-0.115567,7.52686,0.249035,7.06144,-2.91939,-2.45618,1.02331,-0.00324299,0.395661,0.0765172,0.0708625,-2.01057,0.0735492,0.56477,-0.0103982,0.0579658,-0.0118488,0.134625,-0.00568793,-0.591048,0.588424,0.000791112,-9.84042,-4.95599,8.54005,1.27455,57.4027,-42.4242,-0.0386372,4.41913,-35.5696,4.73787,23.3646,2.12005,1.32287,-0.0365141,
0.395361,0.0763896,0.0701848,-2.00997,0.0827826,0.555762,-0.0106198,0.0621257,-0.0142501,0.0573349,-0.00404852,-0.323388,0.274101,-0.00168822,-0.358442,0.116477,-0.309804,-0.212804,22.6047,-18.8677,-0.0568679,7.35693,0.244733,6.89492,-2.8839,-2.19544,0.838657,-0.00509051,0.395661,0.0765172,0.0708625,-2.01057,0.0735492,0.56477,-0.0103982,0.0579658,-0.0118488,0.134625,-0.00568793,-0.591048,0.588424,0.000791112,0,0,0,0,0,0,0,4.41913,-35.5696,4.73787,23.3646,2.12005,1.32287,-0.0365141,
0.395841,0.076286,0.0706303,-2.01003,0.0815665,0.55672,-0.0106352,0.0617016,-0.0139892,0.0570042,-0.00486342,-0.289112,0.243221,-0.00173519,-0.26507,0.163045,-0.206738,-0.509311,21.423,-19.3001,-0.0293577,7.18999,0.239505,6.73242,-2.84666,-1.96158,0.675149,-0.00669587,0.395661,0.0765172,0.0708625,-2.01057,0.0735492,0.56477,-0.0103982,0.0579658,-0.0118488,0.134625,-0.00568793,-0.591048,0.588424,0.000791112,0,0,0,0,0,0,0,4.41913,-35.5696,4.73787,23.3646,2.12005,1.32287,-0.0365141,
0.394882,0.0764976,0.069742,-2.00992,0.0842123,0.554536,-0.0106034,0.0613293,-0.0138268,0.0566261,-0.00432846,-0.274115,0.23405,-0.00185553,-0.232724,0.101522,-0.236298,0.334348,9.37254,-5.73171,-0.0752089,6.86532,0.228581,6.41986,-2.76775,-1.56128,0.407984,-0.00948618,0.395661,0.0765172,0.0708625,-2.01057,0.0735492,0.56477,-0.0103982,0.0579658,-0.0118488,0.134625,-0.00568793,-0.591048,0.588424,0.000791112,0,0,0,0,0,0,0,4.41913,-35.5696,4.73787,23.3646,2.12005,1.32287,-0.0365141,
0.399,0.0756974,0.0739521,-2.01044,0.0642772,0.574762,-0.0105747,0.0616089,-0.0142778,0.0570213,-0.00467419,-0.238179,0.204323,-0.00190197,0.174757,-0.281859,0.24703,-0.216081,22.4604,-18.5793,-0.0290267,6.8079,0.168119,6.36766,-2.69094,-1.31126,0.257341,-0.0108734,0.399208,0.0764014,0.0743836,-2.01063,0.0585897,0.579611,-0.0103982,0.14003,0.00410861,0.0654752,0.0015819,-0.382651,0.370755,0.00154107,10.2581,1.99468,-8.64373,0.908728,26.0495,-27.2086,0.0937452,3.1496,-35.9187,3.13905,23.19,1.06353,1.90606,-0.050247,
0.399493,0.0755836,0.0744138,-2.01051,0.0636412,0.575262,-0.0105906,0.0616229,-0.0142652,0.0571607,-0.00547401,-0.206445,0.175947,-0.0019207,0.00873611,0.00787587,0.0871126,-0.499886,19.8339,-17.7352,-0.0117067,6.65269,0.163957,6.22113,-2.64788,-1.15906,0.162571,-0.0118599,0.399208,0.0764014,0.0743836,-2.01063,0.0585897,0.579611,-0.0103982,0.14003,0.00410861,0.0654752,0.0015819,-0.382651,0.370755,0.00154107,0,0,0,0,0,0,0,3.1496,-35.9187,3.13905,23.19,1.06353,1.90606,-0.050247,
0.399979,0.0754849,0.074869,-2.01059,0.0631017,0.575617,-0.0106063,0.06144,-0.0138793,0.0571073,-0.00653941,-0.178642,0.149641,-0.00192742,-0.114262,0.241138,-0.0333948,-0.665876,17.3766,-16.4408,-0.00419993,6.50008,0.160773,6.07822,-2.60367,-1.02187,0.0815947,-0.0127697,0.399208,0.0764014,0.0743836,-2.01063,0.0585897,0.579611,-0.0103982,0.14003,0.00410861,0.0654752,0.0015819,-0.382651,0.370755,0.00154107,0,0,0,0,0,0,0,3.1496,-35.9187,3.13905,23.19,1.06353,1.90606,-0.050247,
0.402265,0.0760235,0.0772262,-2.01076,0.0538278,0.584984,-0.0105452,0.0624414,-0.013346,0.0581714,-0.00699056,-0.153871,0.130429,-0.00199787,0.625872,0.333347,0.665068,-0.281968,15.482,-12.0076,-0.0440312,6.34979,0.158619,5.9386,-2.5581,-0.899691,0.0107436,-0.0134998,0.399208,0.0764014,0.0743836,-2.01063,0.0585897,0.579611,-0.0103982,0.14003,0.00410861,0.0654752,0.0015819,-0.382651,0.370755,0.00154107,0,0,0,0,0,0,0,3.1496,-35.9187,3.13905,23.19,1.06353,1.90606,-0.050247,
0.402776,0.0759419,0.077707,-2.01085,0.0534794,0.585255,-0.0105621,0.0627288,-0.0127166,0.0585588,-0.00775172,-0.131807,0.111122,-0.00202077,0.17963,0.393364,0.242124,-0.475722,13.7901,-12.0668,-0.0143157,6.20166,0.157639,5.80211,-2.51153,-0.789617,-0.0491628,-0.0141666,0.399208,0.0764014,0.0743836,-2.01063,0.0585897,0.579611,-0.0103982,0.14003,0.00410861,0.0654752,0.0015819,-0.382651,0.370755,0.00154107,0,0,0,0,0,0,0,3.1496,-35.9187,3.13905,23.19,1.06353,1.90606,-0.050247,
0.40327,0.0758702,0.0781723,-2.01095,0.0531976,0.585408,-0.0105782,0.0625267,-0.0119651,0.0584788,-0.00868094,-0.112491,0.0927058,-0.00201915,-0.126331,0.469679,-0.0499641,-0.580768,12.0724,-11.5103,0.00101765,6.12495,0.121932,5.73437,-2.44334,-0.644656,-0.121854,-0.0147618,0.403423,0.076152,0.0774975,-2.01106,0.050144,0.588241,-0.0104045,0.123056,-0.00807043,0.0959774,-0.0160267,-0.200263,0.179063,0.000580144,-2.12177,-1.52238,3.81276,-2.20108,22.7985,-23.9615,-0.120116,1.75708,-35.8949,2.46461,24.4119,0.672604,2.68792,-0.0227812,
0.403749,0.0758089,0.0786239,-2.01106,0.0529689,0.585469,-0.0105938,0.0619842,-0.0111056,0.0580728,-0.00967693,-0.095709,0.0756952,-0.00200601,-0.339089,0.53722,-0.253746,-0.622491,10.4887,-10.6317,0.00820993,5.98044,0.123306,5.60333,-2.3947,-0.55655,-0.165402,-0.0152167,0.403423,0.076152,0.0774975,-2.01106,0.050144,0.588241,-0.0104045,0.123056,-0.00807043,0.0959774,-0.0160267,-0.200263,0.179063,0.000580144,0,0,0,0,0,0,0,1.75708,-35.8949,2.46461,24.4119,0.672604,2.68792,-0.0227812,
0.406654,0.0758319,0.0805433,-2.0115,0.0482547,0.590185,-0.0105315,0.063234,-0.0103168,0.0593947,-0.0103865,-0.0793234,0.061902,-0.00204364,0.78117,0.492961,0.826136,-0.443469,10.241,-8.62071,-0.0235194,5.8374,0.125793,5.47462,-2.34501,-0.478451,-0.203168,-0.0155315,0.403423,0.076152,0.0774975,-2.01106,0.050144,0.588241,-0.0104045,0.123056,-0.00807043,0.0959774,-0.0160267,-0.200263,0.179063,0.000580144,0,0,0,0,0,0,0,1.75708,-35.8949,2.46461,24.4119,0.672604,2.68792,-0.0227812,
0.40717,0.0757824,0.0810327,-2.01161,0.0481824,0.590158,-0.0105479,0.0634748,-0.00948972,0.05975,-0.0111423,-0.0652665,0.0488536,-0.00204498,0.150464,0.516946,0.222072,-0.472417,8.78557,-8.15529,-0.000839758,5.69567,0.129421,5.34808,-2.29459,-0.408119,-0.234094,-0.0158057,0.403423,0.076152,0.0774975,-2.01106,0.050144,0.588241,-0.0104045,0.123056,-0.00807043,0.0959774,-0.0160267,-0.200263,0.179063,0.000580144,0,0,0,0,0,0,0,1.75708,-35.8949,2.46461,24.4119,0.672604,2.68792,-0.0227812,
0.40766,0.0757411,0.0814984,-2.01173,0.0481368,0.590071,-0.0105635,0.0630254,-0.00862578,0.0594434,-0.0118893,-0.0533535,0.0369,-0.00202618,-0.280846,0.539959,-0.191583,-0.466855,7.4456,-7.47095,0.011752,5.58486,0.114378,5.24344,-2.22133,-0.325285,-0.255681,-0.0160187,0.406827,0.0762516,0.0821452,-2.01152,0.0468031,0.590805,-0.0104052,0.0292398,0.00194958,0.213905,-0.0170469,-0.0227894,0.0287539,-0.000212707,-11.7271,1.2525,14.7409,-0.127521,22.1842,-18.7886,-0.0991064,1.17389,-37.1922,1.48866,25.0586,-0.0662268,3.29125,-0.0163725,
0.408127,0.0757075,0.0819438,-2.01185,0.0481122,0.589938,-0.0105786,0.0621092,-0.00773994,0.0586897,-0.0125901,-0.0432959,0.0261879,-0.00199714,-0.572646,0.55365,-0.471083,-0.438018,6.28599,-6.69509,0.0181522,5.4451,0.120036,5.12054,-2.16942,-0.269348,-0.276896,-0.0161356,0.406827,0.0762516,0.0821452,-2.01152,0.0468031,0.590805,-0.0104052,0.0292398,0.00194958,0.213905,-0.0170469,-0.0227894,0.0287539,-0.000212707,0,0,0,0,0,0,0,1.17389,-37.1922,1.48866,25.0586,-0.0662268,3.29125,-0.0163725,
0.41029,0.0761903,0.0854694,-2.0122,0.047464,0.590302,-0.0105105,0.0638693,-0.00651964,0.06052,-0.0135149,-0.0311648,0.0157167,-0.00200871,1.10007,0.762689,1.14395,-0.577971,7.58195,-6.54454,-0.00723384,5.30602,0.126555,4.99912,-2.11676,-0.220127,-0.295004,-0.0161424,0.406827,0.0762516,0.0821452,-2.01152,0.0468031,0.590805,-0.0104052,0.0292398,0.00194958,0.213905,-0.0170469,-0.0227894,0.0287539,-0.000212707,0,0,0,0,0,0,0,1.17389,-37.1922,1.48866,25.0586,-0.0662268,3.29125,-0.0163725,
0.410815,0.0761801,0.0859727,-2.01234,0.0475928,0.590069,-0.0105261,0.0642256,-0.00547,0.0609981,-0.0142342,-0.0217116,0.00675437,-0.0019954,0.222708,0.656028,0.298808,-0.449573,5.90826,-5.60143,0.00832214,5.16751,0.133932,4.87909,-2.06364,-0.175894,-0.308767,-0.0161263,0.406827,0.0762516,0.0821452,-2.01152,0.0468031,0.590805,-0.0104052,0.0292398,0.00194958,0.213905,-0.0170469,-0.0227894,0.0287539,-0.000212707,0,0,0,0,0,0,0,1.17389,-37.1922,1.48866,25.0586,-0.0662268,3.29125,-0.0163725,
0.411305,0.0761732,0.0864429,-2.01248,0.0477132,0.58982,-0.0105409,0.0636223,-0.00454833,0.0605536,-0.0147753,-0.0143598,-0.000826509,-0.00196586,-0.377064,0.576042,-0.277853,-0.338186,4.59484,-4.73805,0.0184603,5.03714,0.118542,4.75625,-1.99417,-0.133696,-0.31219,-0.0160526,0.41074,0.0763122,0.087122,-2.01262,0.0464735,0.590803,-0.0104051,0.0257099,0.00357484,0.232026,-0.0325981,-7.58713e-05,-0.00241789,-0.000510135,-0.441235,0.203157,2.26509,-1.94389,2.83919,-3.89647,-0.0371784,0.435978,-37.4898,0.488905,26.2805,0.141598,3.72887,-0.0163725,
0.414249,0.0764141,0.0905147,-2.01343,0.0478829,0.58943,-0.0105099,0.0647972,-0.0033144,0.0618608,-0.015445,-0.00513216,-0.00849632,-0.00196443,0.734305,0.771203,0.817019,-0.418571,5.76729,-4.79363,0.000891874,4.76147,0.136637,4.52149,-1.88574,-0.069009,-0.326842,-0.0157113,0.41074,0.0763122,0.087122,-2.01262,0.0464735,0.590803,-0.0104051,0.0257099,0.00357484,0.232026,-0.0325981,-7.58713e-05,-0.00241789,-0.000510135,0,0,0,0,0,0,0,0.435978,-37.4898,0.488905,26.2805,0.141598,3.72887,-0.0163725,
0.414757,0.0764263,0.091006,-2.01357,0.0481106,0.589116,-0.0105245,0.0645264,-0.00234548,0.0617723,-0.0158464,0.00158678,-0.0146295,-0.00193655,-0.169246,0.605576,-0.0552787,-0.250874,4.19934,-3.83322,0.0174269,4.62373,0.146504,4.40538,-1.83117,-0.0422297,-0.330613,-0.0154876,0.41074,0.0763122,0.087122,-2.01262,0.0464735,0.590803,-0.0104051,0.0257099,0.00357484,0.232026,-0.0325981,-7.58713e-05,-0.00241789,-0.000510135,0,0,0,0,0,0,0,0.435978,-37.4898,0.488905,26.2805,0.141598,3.72887,-0.0163725,
0.415224,0.0764386,0.0914595,-2.01371,0.0483153,0.588806,-0.0105383,0.0632939,-0.00156907,0.0607565,-0.0160397,0.00638559,-0.0194713,-0.00189259,-0.770359,0.485258,-0.634905,-0.120823,2.99926,-3.02613,0.0274725,4.48592,0.156784,4.28995,-1.77635,-0.0192968,-0.333504,-0.0151909,0.41074,0.0763122,0.087122,-2.01262,0.0464735,0.590803,-0.0104051,0.0257099,0.00357484,0.232026,-0.0325981,-7.58713e-05,-0.00241789,-0.000510135,0,0,0,0,0,0,0,0.435978,-37.4898,0.488905,26.2805,0.141598,3.72887,-0.0163725,
0.415656,0.0764514,0.0918812,-2.01384,0.0485011,0.588499,-0.0105513,0.0614442,-0.000935008,0.0591473,-0.0160722,0.00975409,-0.0232422,-0.00184016,-1.15602,0.396287,-1.00575,-0.020283,2.10532,-2.35682,0.0327706,4.35007,0.139695,4.16552,-1.70532,0.00162537,-0.325325,-0.0149432,0.415097,0.0766124,0.0916861,-2.01374,0.0465593,0.590055,-0.0104068,0.0693995,0.00610616,0.181249,-0.0315242,0.00277193,-0.0235733,-0.000725751,5.46119,0.316415,-6.34711,0.134231,0.355975,-2.64443,-0.026952,-0.702633,-37.5652,-0.93535,25.733,0.336605,3.36449,-0.0026396,
0.418438,0.076785,0.094931,-2.01454,0.0482008,0.588362,-0.0105074,0.0620829,-0.000135689,0.0599394,-0.0162753,0.0153328,-0.0271678,-0.00183438,0.399195,0.499574,0.495054,-0.126971,3.48669,-2.45348,0.00361324,4.21202,0.150726,4.05134,-1.65044,0.0188227,-0.32567,-0.0145906,0.415097,0.0766124,0.0916861,-2.01374,0.0465593,0.590055,-0.0104068,0.0693995,0.00610616,0.181249,-0.0315242,0.00277193,-0.0235733,-0.000725751,0,0,0,0,0,0,0,-0.702633,-37.5652,-0.93535,25.733,0.336605,3.36449,-0.0026396,
0.418905,0.0768074,0.0953897,-2.01466,0.0484704,0.588028,-0.0105208,0.0613577,0.000452638,0.0594191,-0.0162561,0.0190069,-0.030073,-0.00180219,-0.45327,0.367704,-0.325164,0.012039,2.2963,-1.81579,0.0201185,4.07387,0.162121,3.93779,-1.59574,0.0340555,-0.324356,-0.0142501,0.415097,0.0766124,0.0916861,-2.01374,0.0465593,0.590055,-0.0104068,0.0693995,0.00610616,0.181249,-0.0315242,0.00277193,-0.0235733,-0.000725751,0,0,0,0,0,0,0,-0.702633,-37.5652,-0.93535,25.733,0.336605,3.36449,-0.0026396,
0.419332,0.0768287,0.09581,-2.01479,0.0487125,0.587704,-0.0105333,0.0597415,0.000894326,0.0580424,-0.0160735,0.0212575,-0.0321615,-0.00175528,-1.01011,0.276055,-0.860442,0.114139,1.40666,-1.30526,0.029317,3.93562,0.17379,3.82478,-1.54112,0.0468505,-0.323274,-0.0138666,0.415097,0.0766124,0.0916861,-2.01374,0.0465593,0.590055,-0.0104068,0.0693995,0.00610616,0.181249,-0.0315242,0.00277193,-0.0235733,-0.000725751,0,0,0,0,0,0,0,-0.702633,-37.5652,-0.93535,25.733,0.336605,3.36449,-0.0026396,
0.419723,0.0768494,0.0961979,-2.0149,0.0489323,0.587389,-0.0105452,0.0575691,0.00123369,0.0561321,-0.0157719,0.0225015,-0.0336123,-0.00170179,-1.35778,0.212104,-1.19394,0.188488,0.777454,-0.906804,0.0334324,3.80192,0.155043,3.70661,-1.46897,0.0587721,-0.311244,-0.0135608,0.419563,0.0768692,0.0956649,-2.01507,0.0468877,0.589054,-0.0104002,0.153892,0.00196774,0.0837033,-0.0461115,0.00217038,-0.0315946,-0.000501897,10.5615,-0.517302,-12.1932,-1.82341,-0.0751935,-1.00266,0.0279817,-1.69445,-37.6921,-1.68517,26.6058,0.813595,3.29857,-0.0227812,
0.422696,0.0771146,0.0987192,-2.01591,0.0485189,0.586984,-0.010494,0.0578697,0.00197437,0.0566072,-0.0159093,0.0260613,-0.0364928,-0.00169909,0.187891,0.462925,0.296924,-0.0858835,2.2249,-1.80027,0.00168588,3.66379,0.16733,3.59486,-1.41485,0.0686505,-0.309927,-0.0131741,0.419563,0.0768692,0.0956649,-2.01507,0.0468877,0.589054,-0.0104002,0.153892,0.00196774,0.0837033,-0.0461115,0.00217038,-0.0315946,-0.000501897,0,0,0,0,0,0,0,-1.69445,-37.6921,-1.68517,26.6058,0.813595,3.29857,-0.0227812,
0.423119,0.0771504,0.0991412,-2.01603,0.0488132,0.586619,-0.0105065,0.0568744,0.00247272,0.0558356,-0.0157676,0.0282061,-0.0383356,-0.00167042,-0.622045,0.311467,-0.482269,0.0885353,1.34053,-1.15177,0.0179181,3.52594,0.179985,3.48383,-1.36112,0.078069,-0.308206,-0.0128227,0.419563,0.0768692,0.0956649,-2.01507,0.0468877,0.589054,-0.0104002,0.153892,0.00196774,0.0837033,-0.0461115,0.00217038,-0.0315946,-0.000501897,0,0,0,0,0,0,0,-1.69445,-37.6921,-1.68517,26.6058,0.813595,3.29857,-0.0227812,
0.423501,0.0771833,0.0995248,-2.01614,0.0490838,0.586268,-0.0105182,0.0550443,0.00280105,0.0542598,-0.0154296,0.0293293,-0.0394393,-0.00162855,-1.14381,0.205208,-0.984831,0.211272,0.702,-0.689776,0.0261703,3.38851,0.192989,3.37355,-1.30764,0.0868286,-0.307998,-0.0124593,0.419563,0.0768692,0.0956649,-2.01507,0.0468877,0.589054,-0.0104002,0.153892,0.00196774,0.0837033,-0.0461115,0.00217038,-0.0315946,-0.000501897,0,0,0,0,0,0,0,-1.69445,-37.6921,-1.68517,26.6058,0.813595,3.29857,-0.0227812,
0.422696,0.0771146,0.0987192,-2.01591,0.0485189,0.586984,-0.010494,0.0558499,0.00322826,0.0551094,-0.0156355,0.0315236,-0.0411543,-0.0016405,0.503483,0.267005,0.530959,-0.128668,1.37142,-1.0719,-0.00746898,3.10574,0.196849,3.13572,-1.19065,0.10293,-0.304497,-0.0118604,0.423921,0.0773363,0.0991071,-2.01618,0.047129,0.58847,-0.0104037,0.162441,0.0179404,0.0461553,-0.0321012,0.00122981,-0.00580337,0.000352652,1.06865,1.99658,-4.6935,1.75129,-0.117571,3.2239,0.106819,-1.97216,-37.2398,-1.81212,26.4313,1.14318,2.89391,-0.0301054,
0.426995,0.0777842,0.102149,-2.01699,0.0490428,0.586507,-0.0105019,0.0536701,0.00369015,0.0532477,-0.0150331,0.0332528,-0.0418979,-0.00160416,-1.36237,0.28868,-1.16354,0.376494,1.08073,-0.464745,0.0227163,2.97108,0.211348,3.02828,-1.13811,0.114785,-0.308146,-0.0115856,0.423921,0.0773363,0.0991071,-2.01618,0.047129,0.58847,-0.0104037,0.162441,0.0179404,0.0461553,-0.0321012,0.00122981,-0.00580337,0.000352652,0,0,0,0,0,0,0,-1.97216,-37.2398,-1.81212,26.4313,1.14318,2.89391,-0.0301054,
0.427317,0.0778238,0.102481,-2.01708,0.0493581,0.586147,-0.010513,0.0509943,0.00394225,0.0508929,-0.0143236,0.0344833,-0.042523,-0.00155996,-1.67241,0.157561,-1.47178,0.443452,0.76905,-0.390704,0.0276242,2.83789,0.226449,2.92196,-1.08572,0.128813,-0.314929,-0.0113086,0.423921,0.0773363,0.0991071,-2.01618,0.047129,0.58847,-0.0104037,0.162441,0.0179404,0.0461553,-0.0321012,0.00122981,-0.00580337,0.000352652,0,0,0,0,0,0,0,-1.97216,-37.2398,-1.81212,26.4313,1.14318,2.89391,-0.0301054,
0.427608,0.0778602,0.102783,-2.01716,0.0496767,0.585782,-0.0105237,0.0480603,0.00406309,0.0482749,-0.0135461,0.0355521,-0.0431205,-0.0015146,-1.83372,0.0755283,-1.63622,0.485891,0.668037,-0.373442,0.0283505,2.70652,0.242253,2.81696,-1.03355,0.146561,-0.323924,-0.0110708,0.423921,0.0773363,0.0991071,-2.01618,0.047129,0.58847,-0.0104037,0.162441,0.0179404,0.0461553,-0.0321012,0.00122981,-0.00580337,0.000352652,0,0,0,0,0,0,0,-1.97216,-37.2398,-1.81212,26.4313,1.14318,2.89391,-0.0301054,
0.426516,0.077764,0.101699,-2.01681,0.0491098,0.586674,-0.0104912,0.0477555,0.00464773,0.0481953,-0.0131531,0.0396755,-0.0449036,-0.00152399,-0.190502,0.365398,-0.0497316,0.245638,2.57709,-1.1144,-0.00587342,2.57741,0.241605,2.70493,-0.971452,0.167251,-0.331581,-0.0108544,0.427708,0.0778083,0.101845,-2.01712,0.0474364,0.588064,-0.010406,0.174004,0.0091275,0.00849126,-0.0271297,0.0101101,-0.0125067,-9.39677e-05,1.44541,-1.10161,-4.70801,0.621431,1.11004,-0.837912,-0.0558274,-0.95654,-37.216,-0.185533,26.1575,1.14318,2.84722,-0.00996382,
0.426842,0.0778129,0.102039,-2.01689,0.0495694,0.586245,-0.0105029,0.0463477,0.00494075,0.0470367,-0.0125703,0.0432295,-0.0466507,-0.00150992,-0.879863,0.183139,-0.724178,0.364279,2.22128,-1.09194,0.00879735,2.45076,0.258902,2.60309,-0.919446,0.195279,-0.347979,-0.0106368,0.427708,0.0778083,0.101845,-2.01712,0.0474364,0.588064,-0.010406,0.174004,0.0091275,0.00849126,-0.0271297,0.0101101,-0.0125067,-9.39677e-05,0,0,0,0,0,0,0,-0.95654,-37.216,-0.185533,26.1575,1.14318,2.84722,-0.00996382,
0.427129,0.0778569,0.102341,-2.01696,0.0500509,0.5858,-0.0105139,0.0442495,0.00505306,0.0451965,-0.01186,0.0466202,-0.0484404,-0.00148473,-1.31142,0.0701899,-1.1501,0.443927,2.11919,-1.11856,0.0157454,2.32706,0.276928,2.50321,-0.867404,0.230174,-0.369533,-0.0103975,0.427708,0.0778083,0.101845,-2.01712,0.0474364,0.588064,-0.010406,0.174004,0.0091275,0.00849126,-0.0271297,0.0101101,-0.0125067,-9.39677e-05,0,0,0,0,0,0,0,-0.95654,-37.216,-0.185533,26.1575,1.14318,2.84722,-0.00996382,
0.427383,0.0778975,0.102613,-2.01702,0.050569,0.585335,-0.0105247,0.0417481,0.00505659,0.0429529,-0.0110667,0.0502507,-0.0503836,-0.00145639,-1.56333,0.00220809,-1.40224,0.495772,2.26906,-1.21452,0.0177068,2.20677,0.295646,2.40569,-0.815431,0.274024,-0.395639,-0.0101764,0.427708,0.0778083,0.101845,-2.01712,0.0474364,0.588064,-0.010406,0.174004,0.0091275,0.00849126,-0.0271297,0.0101101,-0.0125067,-9.39677e-05,0,0,0,0,0,0,0,-0.95654,-37.216,-0.185533,26.1575,1.14318,2.84722,-0.00996382,
0.429937,0.0781013,0.104101,-2.01756,0.0500751,0.585985,-0.0104893,0.0411924,0.00511734,0.0425721,-0.0103428,0.0567305,-0.0528653,-0.00147452,-0.347341,0.0379682,-0.238018,0.45249,4.04985,-1.55105,-0.0113271,2.09031,0.3149,2.3109,-0.76342,0.327954,-0.428126,-0.00992561,0.427708,0.0778083,0.101845,-2.01712,0.0474364,0.588064,-0.010406,0.174004,0.0091275,0.00849126,-0.0271297,0.0101101,-0.0125067,-9.39677e-05,0,0,0,0,0,0,0,-0.95654,-37.216,-0.185533,26.1575,1.14318,2.84722,-0.00996382,
0.430206,0.0781404,0.104389,-2.01761,0.0507962,0.585446,-0.010501,0.0396876,0.00506955,0.0412654,-0.00953164,0.0634117,-0.0557684,-0.00147271,-0.940483,-0.0298653,-0.816703,0.506951,4.17577,-1.81443,0.00113303,1.97806,0.318813,2.20975,-0.70535,0.391726,-0.461214,-0.00971783,0.429966,0.0782642,0.104916,-2.01794,0.048232,0.587575,-0.0104008,0.0247473,0.0184934,0.125362,-0.0276237,0.0254698,-0.0231219,0.000978073,-18.6571,1.17074,14.6088,-0.0617443,1.91996,-1.32691,0.134005,-0.246395,-36.7915,0.611891,26.3281,1.01501,2.93328,-0.0566557,
