xiao-wang007/linearmpc_panda/paper_data/panda_torque_PD_controller_opt_time_to_start_no_torque_ff/3/trajectory.csv
Commanded Joint 0 Position,Commanded Joint 1 Position,Commanded Joint 2 Position,Commanded Joint 3 Position,Commanded Joint 4 Position,Commanded Joint 5 Position,Commanded Joint 6 Position,Commanded Joint 0 Velocity,Commanded Joint 1 Velocity,Commanded Joint 2 Velocity,Commanded Joint 3 Velocity,Commanded Joint 4 Velocity,Commanded Joint 5 Velocity,Commanded Joint 6 Velocity,Commanded Joint 0 Acceleration,Commanded Joint 1 Acceleration,Commanded Joint 2 Acceleration,Commanded Joint 3 Acceleration,Commanded Joint 4 Acceleration,Commanded Joint 5 Acceleration,Commanded Joint 6 Acceleration,Commanded Joint 0 Torque,Commanded Joint 1 Torque,Commanded Joint 2 Torque,Commanded Joint 3 Torque,Commanded Joint 4 Torque,Commanded Joint 5 Torque,Commanded Joint 6 Torque,Actual Joint 0 Position,Actual Joint 1 Position,Actual Joint 2 Position,Actual Joint 3 Position,Actual Joint 4 Position,Actual Joint 5 Position,Actual Joint 6 Position,Actual Joint 0 Velocity,Actual Joint 1 Velocity,Actual Joint 2 Velocity,Actual Joint 3 Velocity,Actual Joint 4 Velocity,Actual Joint 5 Velocity,Actual Joint 6 Velocity,Actual Joint 0 Acceleration,Actual Joint 1 Acceleration,Actual Joint 2 Acceleration,Actual Joint 3 Acceleration,Actual Joint 4 Acceleration,Actual Joint 5 Acceleration,Actual Joint 6 Acceleration,Actual Joint 0 Torque,Actual Joint 1 Torque,Actual Joint 2 Torque,Actual Joint 3 Torque,Actual Joint 4 Torque,Actual Joint 5 Torque,Actual Joint 6 Torque,
-0.137241,0.00409861,0.072897,-1.84612,0.0452959,0.294154,-0.0841714,0.000989535,0.0229383,0.000939582,-0.0330144,-0.00649615,0.056441,-0.000402401,0.61846,14.3365,0.587239,-20.634,-4.0601,35.2756,-0.251501,0,0,0,0,0,0,0,-0.137337,0.0023595,0.0728093,-1.84287,0.0457785,0.288173,-0.084132,0.00365369,0.00270502,0.000334719,-0.010503,-0.00547223,0.00239294,0.000226723,0,0,0,0,0,0,0,-0.0718349,-34.4231,-0.185533,26.5027,0.874935,2.71447,0.110886,
-0.137311,0.00244295,0.0728348,-1.84294,0.0457293,0.288065,-0.0841329,0.000940506,0.0189333,0.000898663,-0.0268315,-0.00537115,0.044242,-0.000328915,-0.0306431,-2.50318,-0.0255744,3.86435,0.70313,-7.62434,0.0459287,0,0,0,0,0,0,0,-0.137337,0.0023595,0.0728093,-1.84287,0.0457785,0.288173,-0.084132,0.00365369,0.00270502,0.000334719,-0.010503,-0.00547223,0.00239294,0.000226723,0,0,0,0,0,0,0,-0.0718349,-34.4231,-0.185533,26.5027,0.874935,2.71447,0.110886,
-0.137307,0.00246179,0.0728391,-1.84296,0.0457264,0.288033,-0.0841331,0.0008608,0.0156176,0.000825779,-0.0217986,-0.00436926,0.0346038,-0.000267702,-0.0498166,-2.07231,-0.0455528,3.14556,0.626181,-6.0239,0.0382583,0,0,0,0,0,0,0,-0.137337,0.0023595,0.0728093,-1.84287,0.0457785,0.288173,-0.084132,0.00365369,0.00270502,0.000334719,-0.010503,-0.00547223,0.00239294,0.000226723,0,0,0,0,0,0,0,-0.0718349,-34.4231,-0.185533,26.5027,0.874935,2.71447,0.110886,
-0.137303,0.00247699,0.0728422,-1.84297,0.0457255,0.288007,-0.0841332,0.00076887,0.0128742,0.000739464,-0.0177077,-0.00351691,0.0270169,-0.000217151,-0.0574562,-1.71461,-0.0539467,2.55678,0.532715,-4.7418,0.0315944,0,0,0,0,0,0,0,-0.137337,0.0023595,0.0728093,-1.84287,0.0457785,0.288173,-0.084132,0.00365369,0.00270502,0.000334719,-0.010503,-0.00547223,0.00239294,0.000226723,0,0,0,0,0,0,0,-0.0718349,-34.4231,-0.185533,26.5027,0.874935,2.71447,0.110886,
-0.137501,0.00243054,0.072643,-1.84273,0.0526661,0.282552,-0.0841658,4.01225e-05,0.0102724,1.86062e-05,-0.0138374,0.0407501,-0.0144441,-0.00022249,-0.455467,-1.62611,-0.450536,2.41896,27.6669,-25.9131,-0.00333667,0,0,0,0,0,0,0,-0.137337,0.0023595,0.0728093,-1.84287,0.0457785,0.288173,-0.084132,0.00365369,0.00270502,0.000334719,-0.010503,-0.00547223,0.00239294,0.000226723,0,0,0,0,0,0,0,-0.0718349,-34.4231,-0.185533,26.5027,0.874935,2.71447,0.110886,
-0.137514,0.00242858,0.0726303,-1.84273,0.0544563,0.281051,-0.0841672,-0.000287875,0.00816879,-0.000302932,-0.0109311,0.0773532,-0.0490638,-0.000211998,-0.204999,-1.31476,-0.200962,1.81646,22.8769,-21.6373,0.00655702,0,0,0,0,0,0,0,-0.13734,0.00244362,0.0728136,-1.84299,0.0457868,0.288165,-0.0841372,0.000286366,0.000886993,0.00100745,-0.00237277,-0.00485191,0.00271413,-0.00164048,-0.420916,-0.227253,0.0840917,1.01628,0.0775398,0.0401489,-0.233401,-0.0202602,-35.3435,-0.237108,27.0541,0.813595,2.82799,0.14476,
-0.137517,0.00242718,0.0726269,-1.84273,0.05627,0.279516,-0.0841682,-0.00031558,0.00650005,-0.000325977,-0.00875935,0.107227,-0.0776384,-0.000196484,-0.0173156,-1.04296,-0.0144027,1.35732,18.6713,-17.8591,0.00969667,0,0,0,0,0,0,0,-0.13734,0.00244362,0.0728136,-1.84299,0.0457868,0.288165,-0.0841372,0.000286366,0.000886993,0.00100745,-0.00237277,-0.00485191,0.00271413,-0.00164048,0,0,0,0,0,0,0,-0.0202602,-35.3435,-0.237108,27.0541,0.813595,2.82799,0.14476,
-0.137512,0.00242707,0.0726317,-1.84273,0.0580927,0.277961,-0.0841692,-0.000133206,0.00519719,-0.000140625,-0.00714363,0.131348,-0.100982,-0.00018104,0.113984,-0.814292,0.115845,1.00982,15.0756,-14.5897,0.00965216,0,0,0,0,0,0,0,-0.13734,0.00244362,0.0728136,-1.84299,0.0457868,0.288165,-0.0841372,0.000286366,0.000886993,0.00100745,-0.00237277,-0.00485191,0.00271413,-0.00164048,0,0,0,0,0,0,0,-0.0202602,-35.3435,-0.237108,27.0541,0.813595,2.82799,0.14476,
-0.137599,0.00225453,0.0725519,-1.84227,0.0695861,0.267654,-0.0842188,0.000594045,0.00256847,0.000603956,-0.0046705,0.25317,-0.211945,-0.000171629,0.454532,-1.64294,0.465363,1.54571,76.1387,-69.3522,0.00588184,0,0,0,0,0,0,0,-0.13734,0.00244362,0.0728136,-1.84299,0.0457868,0.288165,-0.0841372,0.000286366,0.000886993,0.00100745,-0.00237277,-0.00485191,0.00271413,-0.00164048,0,0,0,0,0,0,0,-0.0202602,-35.3435,-0.237108,27.0541,0.813595,2.82799,0.14476,
-0.137523,0.00220056,0.0726279,-1.84227,0.075616,0.262233,-0.0842184,0.00235826,0.000705714,0.00238114,-0.00370984,0.353283,-0.30507,-0.000126498,1.10263,-1.16423,1.11074,0.600412,62.5708,-58.2027,0.0282073,0,0,0,0,0,0,0,-0.137334,0.00267149,0.0728131,-1.84357,0.0457919,0.289122,-0.0841412,0.00013588,8.96798e-05,-0.000514783,-0.0132799,-0.0033845,0.00516704,-0.00192822,-0.0188107,-0.0996641,-0.190279,-1.36339,0.183426,0.306614,-0.0359678,-0.0718349,-35.1213,-0.185533,27.55,0.782467,3.01293,0.151169,
-0.137407,0.00215939,0.072745,-1.8423,0.0816656,0.256732,-0.0842174,0.00480414,-0.000464828,0.0048343,-0.00374749,0.433867,-0.381604,-7.70999e-05,1.52868,-0.731589,1.53323,-0.0235311,50.3646,-47.8342,0.0308735,0,0,0,0,0,0,0,-0.137334,0.00267149,0.0728131,-1.84357,0.0457919,0.289122,-0.0841412,0.00013588,8.96798e-05,-0.000514783,-0.0132799,-0.0033845,0.00516704,-0.00192822,0,0,0,0,0,0,0,-0.0718349,-35.1213,-0.185533,27.55,0.782467,3.01293,0.151169,
-0.137255,0.00213164,0.0728969,-1.84236,0.087681,0.251212,-0.0842164,0.00763125,-0.00106551,0.0076636,-0.00440522,0.49748,-0.443265,-3.65759e-05,1.76694,-0.375427,1.76831,-0.41108,39.7584,-38.5381,0.0253275,0,0,0,0,0,0,0,-0.137334,0.00267149,0.0728131,-1.84357,0.0457919,0.289122,-0.0841412,0.00013588,8.96798e-05,-0.000514783,-0.0132799,-0.0033845,0.00516704,-0.00192822,0,0,0,0,0,0,0,-0.0718349,-35.1213,-0.185533,27.55,0.782467,3.01293,0.151169,
-0.135122,0.0024505,0.0750143,-1.84384,0.072448,0.254687,-0.0837323,0.0227446,-0.00507642,0.0227428,-0.0122167,0.575736,-0.582971,0.000717211,9.44584,-2.50682,9.42451,-4.88217,48.91,-87.3159,0.471117,0,0,0,0,0,0,0,-0.137334,0.00267149,0.0728131,-1.84357,0.0457919,0.289122,-0.0841412,0.00013588,8.96798e-05,-0.000514783,-0.0132799,-0.0033845,0.00516704,-0.00192822,0,0,0,0,0,0,0,-0.0718349,-35.1213,-0.185533,27.55,0.782467,3.01293,0.151169,
-0.134379,0.00225985,0.0757559,-1.84428,0.079927,0.245016,-0.0837043,0.0367541,-0.00882731,0.0367342,-0.0206494,0.647564,-0.708136,0.00127495,8.75597,-2.34431,8.74463,-5.27047,44.8925,-78.2285,0.348585,0,0,0,0,0,0,0,-0.137395,0.00288565,0.0727652,-1.84392,0.0479727,0.28847,-0.0841398,-0.00034816,0.00896582,-2.14394e-05,-0.00274624,0.111327,-0.054214,-0.00169906,-0.0605051,1.10952,0.061668,1.31671,14.3389,-7.42263,0.0286452,0.614505,-35.4704,0.361952,27.0026,1.42425,2.52221,0.138352,
-0.133577,0.00205932,0.0765574,-1.84478,0.0876648,0.234962,-0.0836765,0.0494558,-0.0120753,0.0494252,-0.0289596,0.711497,-0.817874,0.00171538,7.93853,-2.02997,7.93185,-5.19388,39.9583,-68.5861,0.275271,0,0,0,0,0,0,0,-0.137395,0.00288565,0.0727652,-1.84392,0.0479727,0.28847,-0.0841398,-0.00034816,0.00896582,-2.14394e-05,-0.00274624,0.111327,-0.054214,-0.00169906,0,0,0,0,0,0,0,0.614505,-35.4704,0.361952,27.0026,1.42425,2.52221,0.138352,
-0.132729,0.00185348,0.0774052,-1.84536,0.0955925,0.224898,-0.0836476,0.0607715,-0.0148061,0.0607359,-0.0376957,0.767389,-0.905885,0.00209368,7.0723,-1.70677,7.06921,-5.46002,34.9324,-55.0066,0.236438,0,0,0,0,0,0,0,-0.137395,0.00288565,0.0727652,-1.84392,0.0479727,0.28847,-0.0841398,-0.00034816,0.00896582,-2.14394e-05,-0.00274624,0.111327,-0.054214,-0.00169906,0,0,0,0,0,0,0,0.614505,-35.4704,0.361952,27.0026,1.42425,2.52221,0.138352,
-0.133949,0.00215403,0.0762549,-1.84654,0.0749265,0.254667,-0.083929,0.0740326,-0.0160083,0.0741644,-0.0498938,0.788827,-0.950387,0.00258867,8.28818,-0.751375,8.39284,-7.62381,13.3988,-27.8137,0.309368,0,0,0,0,0,0,0,-0.137395,0.00288565,0.0727652,-1.84392,0.0479727,0.28847,-0.0841398,-0.00034816,0.00896582,-2.14394e-05,-0.00274624,0.111327,-0.054214,-0.00169906,0,0,0,0,0,0,0,0.614505,-35.4704,0.361952,27.0026,1.42425,2.52221,0.138352,
-0.132841,0.00200377,0.0773694,-1.84741,0.0823193,0.2451,-0.0838939,0.0869476,-0.0165631,0.0871954,-0.0616703,0.815883,-0.999488,0.00294821,8.07192,-0.346764,8.14435,-7.36031,16.9101,-30.688,0.22471,0,0,0,0,0,0,0,-0.137665,0.00304106,0.0725153,-1.84374,0.0603989,0.280906,-0.0841424,-0.010076,0.00105839,-0.00898531,0.00729032,0.469161,-0.358038,-0.000469899,-1.21598,-0.98843,-1.12048,1.25457,44.7293,-37.9781,0.153646,2.18555,-35.1213,1.91316,24.2374,2.41943,0.71221,0.11821,
-0.131666,0.00187041,0.0785494,-1.84834,0.0900054,0.235145,-0.0838584,0.0989279,-0.0165845,0.0992546,-0.0726256,0.844859,-1.04847,0.00324506,7.48763,-0.0133985,7.53698,-6.84709,18.1101,-30.6163,0.185537,0,0,0,0,0,0,0,-0.137665,0.00304106,0.0725153,-1.84374,0.0603989,0.280906,-0.0841424,-0.010076,0.00105839,-0.00898531,0.00729032,0.469161,-0.358038,-0.000469899,0,0,0,0,0,0,0,2.18555,-35.1213,1.91316,24.2374,2.41943,0.71221,0.11821,
-0.133507,0.00156411,0.0766759,-1.84859,0.0909595,0.244149,-0.0839945,0.109046,-0.0205177,0.109264,-0.0895836,0.855425,-1.06905,0.00301176,6.3236,-2.45825,6.2556,-10.5987,6.60337,-12.8632,-0.145813,0,0,0,0,0,0,0,-0.137665,0.00304106,0.0725153,-1.84374,0.0603989,0.280906,-0.0841424,-0.010076,0.00105839,-0.00898531,0.00729032,0.469161,-0.358038,-0.000469899,0,0,0,0,0,0,0,2.18555,-35.1213,1.91316,24.2374,2.41943,0.71221,0.11821,
-0.132221,0.00129218,0.0779597,-1.84993,0.0984649,0.234468,-0.083978,0.119387,-0.0232124,0.119506,-0.105009,0.871975,-1.09726,0.00282233,6.46307,-1.68417,6.40149,-9.6406,10.3437,-17.628,-0.118398,0,0,0,0,0,0,0,-0.137665,0.00304106,0.0725153,-1.84374,0.0603989,0.280906,-0.0841424,-0.010076,0.00105839,-0.00898531,0.00729032,0.469161,-0.358038,-0.000469899,0,0,0,0,0,0,0,2.18555,-35.1213,1.91316,24.2374,2.41943,0.71221,0.11821,
-0.130872,0.00103288,0.0793071,-1.85136,0.106226,0.224764,-0.0839573,0.129253,-0.0250525,0.129288,-0.119888,0.891602,-1.1204,0.00277691,6.1668,-1.15003,6.11387,-9.29945,12.2669,-14.4658,-0.0283863,0,0,0,0,0,0,0,-0.137785,0.00288076,0.0725079,-1.84367,0.0818928,0.26093,-0.0841424,0.00498442,-0.00646763,0.00500249,0.00602232,0.692515,-0.76648,-0.000179238,1.88256,-0.940751,1.74847,-0.158499,27.9193,-51.0552,0.0363326,4.95075,-34.2961,4.81325,22.944,2.55401,-0.0165499,0.11821,
-0.129477,0.000790338,0.0806993,-1.85291,0.114182,0.215474,-0.0839319,0.138272,-0.0261054,0.138236,-0.134506,0.912198,-1.12858,0.00285579,5.6365,-0.658088,5.59214,-9.13625,12.8723,-5.109,0.0492988,0,0,0,0,0,0,0,-0.137785,0.00288076,0.0725079,-1.84367,0.0818928,0.26093,-0.0841424,0.00498442,-0.00646763,0.00500249,0.00602232,0.692515,-0.76648,-0.000179238,0,0,0,0,0,0,0,4.95075,-34.2961,4.81325,22.944,2.55401,-0.0165499,0.11821,
-0.132948,0.00127165,0.0773922,-1.85073,0.115287,0.219594,-0.084045,0.143534,-0.027302,0.143649,-0.15,0.91419,-1.14086,0.00256012,3.28873,-0.74786,3.38365,-9.68369,1.24495,-7.6784,-0.18479,0,0,0,0,0,0,0,-0.137785,0.00288076,0.0725079,-1.84367,0.0818928,0.26093,-0.0841424,0.00498442,-0.00646763,0.00500249,0.00602232,0.692515,-0.76648,-0.000179238,0,0,0,0,0,0,0,4.95075,-34.2961,4.81325,22.944,2.55401,-0.0165499,0.11821,
-0.131551,0.00103889,0.0787943,-1.85254,0.122927,0.210091,-0.0840303,0.14975,-0.0276607,0.149973,-0.165286,0.922342,-1.15027,0.00241586,3.88499,-0.224171,3.95201,-9.55412,5.0954,-5.87993,-0.0901627,0,0,0,0,0,0,0,-0.137785,0.00288076,0.0725079,-1.84367,0.0818928,0.26093,-0.0841424,0.00498442,-0.00646763,0.00500249,0.00602232,0.692515,-0.76648,-0.000179238,0,0,0,0,0,0,0,4.95075,-34.2961,4.81325,22.944,2.55401,-0.0165499,0.11821,
-0.130098,0.000831809,0.0802518,-1.85447,0.130776,0.201044,-0.0840102,0.156119,-0.0273055,0.156416,-0.180419,0.934098,-1.14638,0.0024349,3.98086,0.221967,4.02704,-9.45773,7.34752,2.43036,0.0118967,0,0,0,0,0,0,0,-0.137785,0.00288076,0.0725079,-1.84367,0.0818928,0.26093,-0.0841424,0.00498442,-0.00646763,0.00500249,0.00602232,0.692515,-0.76648,-0.000179238,0,0,0,0,0,0,0,4.95075,-34.2961,4.81325,22.944,2.55401,-0.0165499,0.11821,
-0.128609,0.000656787,0.0817456,-1.85648,0.138783,0.19268,-0.0839861,0.162131,-0.0262199,0.162476,-0.194558,0.947448,-1.12623,0.00255033,3.75725,0.678477,3.78767,-8.83748,8.34377,12.5993,0.0721464,0,0,0,0,0,0,0,-0.137077,0.00216616,0.0734018,-1.84489,0.106329,0.233781,-0.0841431,0.0333095,-0.0402658,0.0443369,-0.0600452,0.742901,-0.857114,-0.000106516,3.54063,-4.22477,4.9168,-8.25844,6.29826,-11.3293,0.00909024,5.96637,-33.2488,5.66224,22.9916,2.59704,0.46044,0.124619,
-0.131631,-0.000186405,0.0788665,-1.85423,0.141077,0.19293,-0.0840814,0.164204,-0.0304679,0.16452,-0.211481,0.94661,-1.1087,0.00228061,1.29593,-2.65495,1.27748,-10.5767,-0.524059,10.9523,-0.168577,0,0,0,0,0,0,0,-0.137077,0.00216616,0.0734018,-1.84489,0.106329,0.233781,-0.0841431,0.0333095,-0.0402658,0.0443369,-0.0600452,0.742901,-0.857114,-0.000106516,0,0,0,0,0,0,0,5.96637,-33.2488,5.66224,22.9916,2.59704,0.46044,0.124619,
-0.130182,-0.000515984,0.0803163,-1.85658,0.148831,0.185293,-0.0840674,0.167577,-0.0326138,0.167862,-0.227804,0.95113,-1.07787,0.00217674,2.1081,-1.34119,2.08844,-10.2014,2.82506,19.2714,-0.0649189,0,0,0,0,0,0,0,-0.137077,0.00216616,0.0734018,-1.84489,0.106329,0.233781,-0.0841431,0.0333095,-0.0402658,0.0443369,-0.0600452,0.742901,-0.857114,-0.000106516,0,0,0,0,0,0,0,5.96637,-33.2488,5.66224,22.9916,2.59704,0.46044,0.124619,
-0.128688,-0.000797536,0.0818117,-1.85899,0.156743,0.178463,-0.0840444,0.17142,-0.0331298,0.171674,-0.24256,0.958722,-1.03306,0.00231465,2.40196,-0.322529,2.38282,-9.22286,4.7452,28.004,0.0861972,0,0,0,0,0,0,0,-0.137077,0.00216616,0.0734018,-1.84489,0.106329,0.233781,-0.0841431,0.0333095,-0.0402658,0.0443369,-0.0600452,0.742901,-0.857114,-0.000106516,0,0,0,0,0,0,0,5.96637,-33.2488,5.66224,22.9916,2.59704,0.46044,0.124619,
-0.128785,-0.000569307,0.0819057,-1.86026,0.169826,0.166023,-0.0840162,0.173918,-0.0323099,0.174235,-0.261628,0.959554,-0.980527,0.00249164,1.56079,0.512456,1.60078,-11.9176,0.519651,32.8338,0.110615,0,0,0,0,0,0,0,-0.13503,0.00110332,0.0756288,-1.84832,0.133618,0.202452,-0.0841371,0.0790392,-0.0329722,0.0830616,-0.146116,0.79948,-0.957234,0.00152398,5.71622,0.911705,4.84059,-10.7588,7.07241,-12.5149,0.203812,5.18085,-32.4236,5.03541,23.4915,2.07153,1.20293,0.0706026,
-0.127268,-0.000754578,0.0834265,-1.863,0.177682,0.160666,-0.0839862,0.177047,-0.0304797,0.177409,-0.278015,0.964028,-0.918359,0.00274382,1.95567,1.14388,1.98341,-10.2415,2.79645,38.8551,0.157616,0,0,0,0,0,0,0,-0.13503,0.00110332,0.0756288,-1.84832,0.133618,0.202452,-0.0841371,0.0790392,-0.0329722,0.0830616,-0.146116,0.79948,-0.957234,0.00152398,0,0,0,0,0,0,0,5.18085,-32.4236,5.03541,23.4915,2.07153,1.20293,0.0706026,
-0.125726,-0.000901132,0.0849734,-1.86577,0.185653,0.156122,-0.0839478,0.180205,-0.0280476,0.180597,-0.291467,0.970506,-0.848273,0.00315492,1.97406,1.52005,1.99276,-8.40781,4.04858,43.8033,0.256933,0,0,0,0,0,0,0,-0.13503,0.00110332,0.0756288,-1.84832,0.133618,0.202452,-0.0841371,0.0790392,-0.0329722,0.0830616,-0.146116,0.79948,-0.957234,0.00152398,0,0,0,0,0,0,0,5.18085,-32.4236,5.03541,23.4915,2.07153,1.20293,0.0706026,
-0.124172,-0.00101706,0.0865312,-1.86852,0.193711,0.152368,-0.0839007,0.183013,-0.0253364,0.183424,-0.301999,0.977847,-0.772477,0.00370278,1.75465,1.69451,1.76693,-6.58209,4.58847,47.3726,0.342412,0,0,0,0,0,0,0,-0.13503,0.00110332,0.0756288,-1.84832,0.133618,0.202452,-0.0841371,0.0790392,-0.0329722,0.0830616,-0.146116,0.79948,-0.957234,0.00152398,0,0,0,0,0,0,0,5.18085,-32.4236,5.03541,23.4915,2.07153,1.20293,0.0706026,
-0.124848,-0.00119578,0.0859571,-1.86923,0.200235,0.145439,-0.0839607,0.184128,-0.0263082,0.184544,-0.319625,0.97759,-0.69401,0.00405806,0.697055,-0.607396,0.699834,-11.0165,-0.160923,49.0418,0.222055,0,0,0,0,0,0,0,-0.131652,0.000372223,0.0791282,-1.85437,0.162789,0.168676,-0.0841409,0.106766,-0.00833417,0.128059,-0.20371,0.839817,-0.971892,-0.000224798,3.46583,3.07975,5.62469,-7.19926,5.04209,-1.83224,-0.218597,3.42731,-33.4987,3.28584,25.0348,1.82068,2.08459,0.104477,
-0.123316,-0.00140879,0.087492,-1.87234,0.208152,0.143147,-0.0839087,0.18559,-0.0263718,0.186007,-0.333409,0.980005,-0.612505,0.00454568,0.913731,-0.0397766,0.91433,-8.61506,1.50981,50.9409,0.304761,0,0,0,0,0,0,0,-0.131652,0.000372223,0.0791282,-1.85437,0.162789,0.168676,-0.0841409,0.106766,-0.00833417,0.128059,-0.20371,0.839817,-0.971892,-0.000224798,0,0,0,0,0,0,0,3.42731,-33.4987,3.28584,25.0348,1.82068,2.08459,0.104477,
-0.121777,-0.00159999,0.0890343,-1.87541,0.216151,0.141554,-0.0838493,0.186948,-0.0258774,0.187363,-0.343689,0.983961,-0.529831,0.00512237,0.849028,0.309005,0.84777,-6.4251,2.47246,51.6714,0.36043,0,0,0,0,0,0,0,-0.131652,0.000372223,0.0791282,-1.85437,0.162789,0.168676,-0.0841409,0.106766,-0.00833417,0.128059,-0.20371,0.839817,-0.971892,-0.000224798,0,0,0,0,0,0,0,3.42731,-33.4987,3.28584,25.0348,1.82068,2.08459,0.104477,
-0.120242,-0.00177468,0.0905723,-1.87845,0.22421,0.140602,-0.0837825,0.187932,-0.025069,0.188341,-0.350877,0.988642,-0.447669,0.00576793,0.615061,0.505252,0.611205,-4.4922,2.9256,51.3512,0.403476,0,0,0,0,0,0,0,-0.131652,0.000372223,0.0791282,-1.85437,0.162789,0.168676,-0.0841409,0.106766,-0.00833417,0.128059,-0.20371,0.839817,-0.971892,-0.000224798,0,0,0,0,0,0,0,3.42731,-33.4987,3.28584,25.0348,1.82068,2.08459,0.104477,
-0.124971,-0.00117434,0.0858348,-1.87073,0.200589,0.156002,-0.0838096,0.187151,-0.0243724,0.187565,-0.364139,0.987276,-0.376698,0.00654923,-0.488059,0.43537,-0.485499,-8.28868,-0.85384,44.357,0.488309,0,0,0,0,0,0,0,-0.127057,-0.000388431,0.0839254,-1.86342,0.193802,0.139193,-0.0841386,0.149079,-0.0287828,0.157245,-0.305235,0.93568,-0.773209,0.000621804,5.28916,-2.55608,3.6482,-12.6907,11.9829,24.8354,0.105825,1.85627,-32.5981,1.63942,24.6103,1.64398,2.09191,0.0843355,
-0.123482,-0.0013052,0.0873265,-1.87403,0.208543,0.155872,-0.0837245,0.186936,-0.0227695,0.187346,-0.373701,0.988678,-0.3046,0.00736603,-0.134798,1.00182,-0.136583,-5.97617,0.876248,45.0607,0.510502,0,0,0,0,0,0,0,-0.127057,-0.000388431,0.0839254,-1.86342,0.193802,0.139193,-0.0841386,0.149079,-0.0287828,0.157245,-0.305235,0.93568,-0.773209,0.000621804,0,0,0,0,0,0,0,1.85627,-32.5981,1.63942,24.6103,1.64398,2.09191,0.0843355,
-0.121993,-0.00140565,0.0888185,-1.87727,0.216577,0.156262,-0.0836362,0.186772,-0.0207268,0.187176,-0.380082,0.991805,-0.23394,0.00810217,-0.102641,1.27673,-0.10638,-3.98859,1.95401,44.1627,0.460088,0,0,0,0,0,0,0,-0.127057,-0.000388431,0.0839254,-1.86342,0.193802,0.139193,-0.0841386,0.149079,-0.0287828,0.157245,-0.305235,0.93568,-0.773209,0.000621804,0,0,0,0,0,0,0,1.85627,-32.5981,1.63942,24.6103,1.64398,2.09191,0.0843355,
-0.119669,-0.00213405,0.0913416,-1.88127,0.233205,0.13052,-0.0836824,0.187785,-0.022432,0.188229,-0.393253,0.993933,-0.192979,0.00881692,0.633368,-1.06579,0.658086,-8.23186,1.33036,25.6004,0.446721,0,0,0,0,0,0,0,-0.127057,-0.000388431,0.0839254,-1.86342,0.193802,0.139193,-0.0841386,0.149079,-0.0287828,0.157245,-0.305235,0.93568,-0.773209,0.000621804,0,0,0,0,0,0,0,1.85627,-32.5981,1.63942,24.6103,1.64398,2.09191,0.0843355,
-0.118148,-0.0023339,0.092868,-1.88478,0.241278,0.130756,-0.0835942,0.188275,-0.0229417,0.188743,-0.402418,0.996972,-0.14847,0.00925694,0.306052,-0.318556,0.321409,-5.72819,1.89933,27.8185,0.275008,0,0,0,0,0,0,0,-0.121584,-0.0011124,0.0895945,-1.87492,0.225474,0.118907,-0.084138,0.160949,-0.0188223,0.174821,-0.38883,0.933903,-0.456224,-0.000542826,1.48371,1.24506,2.19697,-10.4493,-0.222184,39.6231,-0.145579,0.793033,-32.8005,0.762648,27.5024,2.03491,2.95342,0.11821,
-0.116647,-0.00250685,0.0943727,-1.88823,0.249389,0.131392,-0.0835116,0.188137,-0.0226773,0.188613,-0.408238,1.00034,-0.102892,0.00947119,-0.0857312,0.165265,-0.0814797,-3.63755,2.10708,28.4861,0.133906,0,0,0,0,0,0,0,-0.121584,-0.0011124,0.0895945,-1.87492,0.225474,0.118907,-0.084138,0.160949,-0.0188223,0.174821,-0.38883,0.933903,-0.456224,-0.000542826,0,0,0,0,0,0,0,0.793033,-32.8005,0.762648,27.5024,2.03491,2.95342,0.11821,
-0.115171,-0.00265734,0.0958526,-1.89162,0.257513,0.132373,-0.0834304,0.187409,-0.0219039,0.187889,-0.411285,1.00338,-0.0577747,0.00960874,-0.455581,0.483361,-0.452403,-1.90432,1.89753,28.1983,0.0859729,0,0,0,0,0,0,0,-0.121584,-0.0011124,0.0895945,-1.87492,0.225474,0.118907,-0.084138,0.160949,-0.0188223,0.174821,-0.38883,0.933903,-0.456224,-0.000542826,0,0,0,0,0,0,0,0.793033,-32.8005,0.762648,27.5024,2.03491,2.95342,0.11821,
-0.114131,-0.00216569,0.097065,-1.89402,0.264831,0.12207,-0.0836596,0.187529,-0.0204992,0.187958,-0.422251,1.00249,0.00370151,0.00985732,0.0750479,0.877946,0.0433396,-6.8533,-0.552784,38.4227,0.155363,0,0,0,0,0,0,0,-0.121584,-0.0011124,0.0895945,-1.87492,0.225474,0.118907,-0.084138,0.160949,-0.0188223,0.174821,-0.38883,0.933903,-0.456224,-0.000542826,0,0,0,0,0,0,0,0.793033,-32.8005,0.762648,27.5024,2.03491,2.95342,0.11821,
-0.112632,-0.00226185,0.0985652,-1.89766,0.272619,0.124448,-0.0835725,0.187482,-0.0188033,0.187871,-0.428869,0.996703,0.0624166,0.0100642,-0.0288388,1.05991,-0.0541761,-4.13636,-3.61981,36.6969,0.129267,0,0,0,0,0,0,0,-0.115701,-0.00090807,0.0957724,-1.8881,0.255403,0.11035,-0.084142,0.18269,0.0161659,0.180199,-0.395731,0.918585,-0.114162,-0.000846765,2.71759,4.37353,0.672274,-0.862672,-1.91478,42.7577,-0.0379924,-0.274166,-35.2205,-0.610033,26.8518,2.14477,2.24389,0.158493,
-0.111128,-0.00234573,0.100071,-1.90121,0.279849,0.127135,-0.0834852,0.187591,-0.0171397,0.187954,-0.431745,0.978108,0.117104,0.0102326,0.068098,1.03979,0.0517502,-1.79781,-11.6219,34.1799,0.105273,0,0,0,0,0,0,0,-0.115701,-0.00090807,0.0957724,-1.8881,0.255403,0.11035,-0.084142,0.18269,0.0161659,0.180199,-0.395731,0.918585,-0.114162,-0.000846765,0,0,0,0,0,0,0,-0.274166,-35.2205,-0.610033,26.8518,2.14477,2.24389,0.158493,
-0.109618,-0.00242598,0.101584,-1.90466,0.286359,0.130075,-0.0833981,0.187822,-0.0157179,0.188165,-0.43174,0.945241,0.167178,0.0103642,0.144355,0.888594,0.131671,0.00333325,-20.5418,31.2959,0.0822464,0,0,0,0,0,0,0,-0.115701,-0.00090807,0.0957724,-1.8881,0.255403,0.11035,-0.084142,0.18269,0.0161659,0.180199,-0.395731,0.918585,-0.114162,-0.000846765,0,0,0,0,0,0,0,-0.274166,-35.2205,-0.610033,26.8518,2.14477,2.24389,0.158493,
-0.108191,-0.00180865,0.103318,-1.90801,0.292144,0.125771,-0.0836658,0.188438,-0.0163296,0.188879,-0.440846,0.915843,0.236505,0.0105718,0.384901,-0.382317,0.446059,-5.69124,-18.3738,43.3296,0.129756,0,0,0,0,0,0,0,-0.115701,-0.00090807,0.0957724,-1.8881,0.255403,0.11035,-0.084142,0.18269,0.0161659,0.180199,-0.395731,0.918585,-0.114162,-0.000846765,0,0,0,0,0,0,0,-0.274166,-35.2205,-0.610033,26.8518,2.14477,2.24389,0.158493,
-0.10666,-0.00195712,0.104856,-1.91173,0.297751,0.130101,-0.0835759,0.189017,-0.0167755,0.189534,-0.445578,0.872844,0.297451,0.0107027,0.361763,-0.278648,0.409569,-2.95748,-26.8747,38.0911,0.0818467,0,0,0,0,0,0,0,-0.115701,-0.00090807,0.0957724,-1.8881,0.255403,0.11035,-0.084142,0.18269,0.0161659,0.180199,-0.395731,0.918585,-0.114162,-0.000846765,0,0,0,0,0,0,0,-0.274166,-35.2205,-0.610033,26.8518,2.14477,2.24389,0.158493,
-0.105133,-0.00210792,0.106389,-1.91535,0.30259,0.134582,-0.0834881,0.189389,-0.0171904,0.189965,-0.447072,0.819255,0.349978,0.0107592,0.232597,-0.259307,0.26966,-0.93366,-33.493,32.8295,0.0353007,0,0,0,0,0,0,0,-0.109294,-0.00105392,0.101788,-1.90228,0.286215,0.108946,-0.0841373,0.197511,-0.00192825,0.155091,-0.448172,0.936387,-0.00428384,-0.00110508,1.85266,-2.26176,-3.13852,-6.55508,2.2253,13.7348,-0.0322893,-0.908932,-34.1969,-0.610033,28.1491,2.05322,2.32995,0.158493,
-0.103615,-0.00226251,0.107914,-1.91889,0.306696,0.139162,-0.0833997,0.18947,-0.017617,0.190092,-0.446187,0.758054,0.394499,0.0108159,0.0502088,-0.266651,0.0789253,0.553161,-38.2508,27.8256,0.0353987,0,0,0,0,0,0,0,-0.109294,-0.00105392,0.101788,-1.90228,0.286215,0.108946,-0.0841373,0.197511,-0.00192825,0.155091,-0.448172,0.936387,-0.00428384,-0.00110508,0,0,0,0,0,0,0,-0.908932,-34.1969,-0.610033,28.1491,2.05322,2.32995,0.158493,
-0.101502,-0.00186818,0.109585,-1.92257,0.312299,0.130244,-0.0836545,0.191104,-0.0169174,0.191622,-0.453344,0.696594,0.44772,0.0109511,1.02174,0.437239,0.956569,-4.4732,-38.4124,33.2628,0.0845355,0,0,0,0,0,0,0,-0.109294,-0.00105392,0.101788,-1.90228,0.286215,0.108946,-0.0841373,0.197511,-0.00192825,0.155091,-0.448172,0.936387,-0.00428384,-0.00110508,0,0,0,0,0,0,0,-0.908932,-34.1969,-0.610033,28.1491,2.05322,2.32995,0.158493,
-0.099933,-0.00197458,0.111154,-1.92633,0.315219,0.135664,-0.083562,0.192098,-0.0161939,0.19253,-0.456629,0.630289,0.49368,0.0110728,0.621057,0.452224,0.567494,-2.05327,-41.4404,28.7252,0.0760737,0,0,0,0,0,0,0,-0.109294,-0.00105392,0.101788,-1.90228,0.286215,0.108946,-0.0841373,0.197511,-0.00192825,0.155091,-0.448172,0.936387,-0.00428384,-0.00110508,0,0,0,0,0,0,0,-0.908932,-34.1969,-0.610033,28.1491,2.05322,2.32995,0.158493,
-0.0983819,-0.00207898,0.112706,-1.93,0.317533,0.141136,-0.0834695,0.192455,-0.0155651,0.192817,-0.45708,0.562087,0.531742,0.0111696,0.222952,0.393004,0.178996,-0.282062,-42.6261,23.7888,0.0604941,0,0,0,0,0,0,0,-0.103748,-0.000744251,0.108446,-1.91719,0.315619,0.11256,-0.084132,0.123575,0.013012,0.247269,-0.438368,0.825134,0.219681,0.000814348,-9.24201,1.86753,11.5223,1.22544,-13.9067,27.9956,0.239928,0.638309,-34.1454,0.238966,24.9118,1.40594,2.05804,0.110886,
-0.0968509,-0.00218353,0.114237,-1.93359,0.319312,0.146602,-0.0833758,0.19224,-0.0150658,0.192545,-0.455462,0.494147,0.562039,0.0112789,-0.133961,0.312065,-0.169979,1.01139,-42.4628,18.9359,0.0682665,0,0,0,0,0,0,0,-0.103748,-0.000744251,0.108446,-1.91719,0.315619,0.11256,-0.084132,0.123575,0.013012,0.247269,-0.438368,0.825134,0.219681,0.000814348,0,0,0,0,0,0,0,0.638309,-34.1454,0.238966,24.9118,1.40594,2.05804,0.110886,
-0.095716,-0.00174378,0.116526,-1.93774,0.332397,0.142636,-0.0836449,0.193715,-0.0165683,0.194118,-0.462538,0.439618,0.62042,0.0114433,0.921542,-0.939074,0.983191,-4.42231,-34.0804,36.4876,0.102754,0,0,0,0,0,0,0,-0.103748,-0.000744251,0.108446,-1.91719,0.315619,0.11256,-0.084132,0.123575,0.013012,0.247269,-0.438368,0.825134,0.219681,0.000814348,0,0,0,0,0,0,0,0.638309,-34.1454,0.238966,24.9118,1.40594,2.05804,0.110886,
-0.0941465,-0.00192148,0.118102,-1.94157,0.333661,0.149479,-0.0835473,0.194211,-0.0176971,0.19469,-0.46585,0.383287,0.667415,0.0115961,0.309831,-0.70549,0.357848,-2.07039,-35.2069,29.3718,0.0955408,0,0,0,0,0,0,0,-0.103748,-0.000744251,0.108446,-1.91719,0.315619,0.11256,-0.084132,0.123575,0.013012,0.247269,-0.438368,0.825134,0.219681,0.000814348,0,0,0,0,0,0,0,0.638309,-34.1454,0.238966,24.9118,1.40594,2.05804,0.110886,
-0.0926064,-0.00209899,0.119649,-1.94532,0.334515,0.156254,-0.0834494,0.193871,-0.0185956,0.194411,-0.46638,0.327977,0.703296,0.0117226,-0.212244,-0.561578,-0.17437,-0.331186,-34.5688,22.4262,0.079016,0,0,0,0,0,0,0,-0.0972798,-0.000757474,0.115063,-1.93265,0.338657,0.124367,-0.0841303,0.259726,0.00154982,0.127604,-0.468235,0.577111,0.391945,0.000644391,17.0189,-1.43277,-14.958,-3.73332,-31.0029,21.533,-0.0212446,-1.08349,-33.7486,-1.33605,26.7764,1.30157,2.4627,0.124619,
-0.0910957,-0.00227746,0.121166,-1.94899,0.335036,0.162908,-0.083351,0.192864,-0.019338,0.193453,-0.464853,0.275418,0.728989,0.0118396,-0.629324,-0.464033,-0.599142,0.954406,-32.8494,16.0578,0.073133,0,0,0,0,0,0,0,-0.0972798,-0.000757474,0.115063,-1.93265,0.338657,0.124367,-0.0841303,0.259726,0.00154982,0.127604,-0.468235,0.577111,0.391945,0.000644391,0,0,0,0,0,0,0,-1.08349,-33.7486,-1.33605,26.7764,1.30157,2.4627,0.124619,
-0.0889802,-0.00157541,0.123356,-1.95312,0.344249,0.158164,-0.0836038,0.194966,-0.0186267,0.195439,-0.469888,0.21454,0.77055,0.0120765,1.31376,0.444608,1.24116,-3.14645,-38.0489,25.9758,0.148101,0,0,0,0,0,0,0,-0.0972798,-0.000757474,0.115063,-1.93265,0.338657,0.124367,-0.0841303,0.259726,0.00154982,0.127604,-0.468235,0.577111,0.391945,0.000644391,0,0,0,0,0,0,0,-1.08349,-33.7486,-1.33605,26.7764,1.30157,2.4627,0.124619,
-0.0873899,-0.00169195,0.124946,-1.95694,0.343688,0.165587,-0.0834994,0.195729,-0.017815,0.196106,-0.47156,0.157618,0.802013,0.0122715,0.476925,0.507304,0.417466,-1.0453,-35.5762,19.6644,0.121839,0,0,0,0,0,0,0,-0.0972798,-0.000757474,0.115063,-1.93265,0.338657,0.124367,-0.0841303,0.259726,0.00154982,0.127604,-0.468235,0.577111,0.391945,0.000644391,0,0,0,0,0,0,0,-1.08349,-33.7486,-1.33605,26.7764,1.30157,2.4627,0.124619,
-0.0858366,-0.0018033,0.1265,-1.96068,0.342895,0.172852,-0.0833953,0.195417,-0.0170356,0.195717,-0.47075,0.106263,0.823253,0.0124202,-0.195297,0.48708,-0.243484,0.506162,-32.097,13.2748,0.0929643,0,0,0,0,0,0,0,-0.0898966,-0.00059427,0.1212,-1.94784,0.35306,0.14171,-0.0841303,0.317408,0.0197589,0.0788026,-0.443156,0.364955,0.57427,5.23167e-05,7.21029,2.27613,-6.10022,3.13485,-26.5194,22.7906,-0.0740093,-2.37683,-33.9986,-2.23662,25.4593,0.855709,2.26403,0.138352,
-0.0816784,-0.00158817,0.129432,-1.96821,0.351451,0.179008,-0.0835815,0.196284,-0.0185606,0.196674,-0.475604,0.0502906,0.861197,0.0126614,0.542044,-0.953111,0.598081,-3.03377,-34.9824,23.7149,0.150734,0,0,0,0,0,0,0,-0.0898966,-0.00059427,0.1212,-1.94784,0.35306,0.14171,-0.0841303,0.317408,0.0197589,0.0788026,-0.443156,0.364955,0.57427,5.23167e-05,0,0,0,0,0,0,0,-2.37683,-33.9986,-2.23662,25.4593,0.855709,2.26403,0.138352,
-0.0801199,-0.00177333,0.130996,-1.97207,0.349895,0.187046,-0.0834737,0.195989,-0.0194777,0.196447,-0.477144,0.00133506,0.889916,0.0128238,-0.184275,-0.573167,-0.141577,-0.962532,-30.5972,17.9493,0.101507,0,0,0,0,0,0,0,-0.0898966,-0.00059427,0.1212,-1.94784,0.35306,0.14171,-0.0841303,0.317408,0.0197589,0.0788026,-0.443156,0.364955,0.57427,5.23167e-05,0,0,0,0,0,0,0,-2.37683,-33.9986,-2.23662,25.4593,0.855709,2.26403,0.138352,
-0.0786012,-0.00195115,0.132521,-1.97585,0.348261,0.194909,-0.0833671,0.194757,-0.0200275,0.19527,-0.476117,-0.0397756,0.908495,0.0129246,-0.769929,-0.34363,-0.736049,0.642232,-25.6942,11.6118,0.0629729,0,0,0,0,0,0,0,-0.0898966,-0.00059427,0.1212,-1.94784,0.35306,0.14171,-0.0841303,0.317408,0.0197589,0.0788026,-0.443156,0.364955,0.57427,5.23167e-05,0,0,0,0,0,0,0,-2.37683,-33.9986,-2.23662,25.4593,0.855709,2.26403,0.138352,
-0.0771203,-0.0021253,0.134008,-1.97954,0.346609,0.202532,-0.0832615,0.192829,-0.0203758,0.193385,-0.47317,-0.0731212,0.917385,0.01298,-1.20532,-0.217666,-1.17783,1.84175,-20.841,5.55666,0.0346286,0,0,0,0,0,0,0,-0.0834766,-0.000583216,0.128958,-1.96375,0.359924,0.16378,-0.0841294,0.347326,-0.00797385,0.0408782,-0.461486,0.134513,0.684678,0.000827563,3.73971,-3.46659,-4.74055,-2.29132,-28.8053,13.801,0.0969058,-2.83307,-34.4469,-2.81188,26.6058,1.0086,2.52953,0.131027,
-0.0756522,-0.00152575,0.136785,-1.98271,0.355663,0.19917,-0.0835807,0.191821,-0.0207376,0.1924,-0.469302,-0.0929619,0.911002,0.0130118,-0.629971,-0.226117,-0.615779,2.4178,-12.4004,-3.98986,0.0198809,0,0,0,0,0,0,0,-0.0834766,-0.000583216,0.128958,-1.96375,0.359924,0.16378,-0.0841294,0.347326,-0.00797385,0.0408782,-0.461486,0.134513,0.684678,0.000827563,0,0,0,0,0,0,0,-2.83307,-34.4469,-2.81188,26.6058,1.0086,2.52953,0.131027,
-0.0741876,-0.00170038,0.138255,-1.98626,0.354247,0.206054,-0.0834777,0.190072,-0.0209558,0.190668,-0.464192,-0.109768,0.900912,0.0129861,-1.09331,-0.136415,-1.08211,3.19346,-10.5035,-6.30619,-0.0160245,0,0,0,0,0,0,0,-0.0834766,-0.000583216,0.128958,-1.96375,0.359924,0.16378,-0.0841294,0.347326,-0.00797385,0.0408782,-0.461486,0.134513,0.684678,0.000827563,0,0,0,0,0,0,0,-2.83307,-34.4469,-2.81188,26.6058,1.0086,2.52953,0.131027,
-0.0727589,-0.00187357,0.139689,-1.98973,0.352842,0.212709,-0.0833767,0.187776,-0.0210944,0.188388,-0.458181,-0.122929,0.887096,0.0129138,-1.43469,-0.086594,-1.42536,3.75665,-8.226,-8.63464,-0.0451951,0,0,0,0,0,0,0,-0.0834766,-0.000583216,0.128958,-1.96375,0.359924,0.16378,-0.0841294,0.347326,-0.00797385,0.0408782,-0.461486,0.134513,0.684678,0.000827563,0,0,0,0,0,0,0,-2.83307,-34.4469,-2.81188,26.6058,1.0086,2.52953,0.131027,
-0.0713634,-0.00204603,0.14109,-1.99313,0.351479,0.21912,-0.0832777,0.185108,-0.0211869,0.185733,-0.451517,-0.132417,0.86994,0.012806,-1.66751,-0.0578633,-1.65949,4.16506,-5.93011,-10.7228,-0.0673698,0,0,0,0,0,0,0,-0.0769318,-0.000653348,0.136369,-1.97975,0.360412,0.190951,-0.0841261,0.350423,0.00221917,0.0412861,-0.483714,-0.022268,0.841052,0.00103318,0.387138,1.27413,0.0509921,-2.77838,-19.5976,19.5468,0.0257026,-2.98779,-33.7486,-2.98644,26.4551,1.36932,2.39037,0.110886,
-0.0695449,-0.00105334,0.143753,-1.99744,0.355129,0.22291,-0.0836146,0.183097,-0.0200139,0.183714,-0.445288,-0.135982,0.846592,0.0126747,-1.25709,0.733154,-1.26139,3.89342,-2.22767,-14.5924,-0.0820684,0,0,0,0,0,0,0,-0.0769318,-0.000653348,0.136369,-1.97975,0.360412,0.190951,-0.0841261,0.350423,0.00221917,0.0412861,-0.483714,-0.022268,0.841052,0.00103318,0,0,0,0,0,0,0,-2.98779,-33.7486,-2.98644,26.4551,1.36932,2.39037,0.110886,
-0.0681783,-0.00118693,0.145124,-2.00073,0.353961,0.228723,-0.0835196,0.180643,-0.0193507,0.181255,-0.438351,-0.137998,0.822604,0.0125142,-1.53351,0.414495,-1.53703,4.33525,-1.26019,-14.9926,-0.100322,0,0,0,0,0,0,0,-0.0769318,-0.000653348,0.136369,-1.97975,0.360412,0.190951,-0.0841261,0.350423,0.00221917,0.0412861,-0.483714,-0.022268,0.841052,0.00103318,0,0,0,0,0,0,0,-2.98779,-33.7486,-2.98644,26.4551,1.36932,2.39037,0.110886,
-0.0668427,-0.00132848,0.146464,-2.00394,0.352845,0.234325,-0.0834268,0.177903,-0.0190193,0.178511,-0.430914,-0.138301,0.798128,0.0123323,-1.71248,0.207112,-1.71514,4.64816,-0.189213,-15.2974,-0.113682,0,0,0,0,0,0,0,-0.0769318,-0.000653348,0.136369,-1.97975,0.360412,0.190951,-0.0841261,0.350423,0.00221917,0.0412861,-0.483714,-0.022268,0.841052,0.00103318,0,0,0,0,0,0,0,-2.98779,-33.7486,-2.98644,26.4551,1.36932,2.39037,0.110886,
-0.0698215,-0.000824889,0.143472,-1.99614,0.356257,0.219002,-0.0836598,0.175608,-0.0176283,0.176197,-0.422047,-0.133258,0.767554,0.0120791,-1.43429,0.869373,-1.44626,5.54229,3.15161,-19.1085,-0.158261,0,0,0,0,0,0,0,-0.0711795,-0.000575744,0.144327,-1.99576,0.357403,0.219718,-0.0841293,0.279784,-0.000780318,0.105252,-0.458627,-0.117775,0.839622,0.000939417,-8.82984,-0.374936,7.99571,3.13577,-11.9384,-0.178753,-0.0117208,-2.93621,-34.1454,-3.43474,23.9398,1.43615,1.48125,0.131027,
-0.0685248,-0.000937361,0.144772,-1.99916,0.355381,0.223982,-0.083573,0.172905,-0.0169145,0.173479,-0.413025,-0.1285,0.738531,0.0118341,-1.6894,0.446163,-1.69875,5.63833,2.97363,-18.1395,-0.153101,0,0,0,0,0,0,0,-0.0711795,-0.000575744,0.144327,-1.99576,0.357403,0.219718,-0.0841293,0.279784,-0.000780318,0.105252,-0.458627,-0.117775,0.839622,0.000939417,0,0,0,0,0,0,0,-2.93621,-34.1454,-3.43474,23.9398,1.43615,1.48125,0.131027,
-0.0672592,-0.0010609,0.146042,-2.0021,0.354543,0.228791,-0.0834878,0.169963,-0.01662,0.170526,-0.403934,-0.123733,0.711041,0.0115986,-1.83867,0.184029,-1.84587,5.68207,2.97926,-17.1814,-0.147236,0,0,0,0,0,0,0,-0.0711795,-0.000575744,0.144327,-1.99576,0.357403,0.219718,-0.0841293,0.279784,-0.000780318,0.105252,-0.458627,-0.117775,0.839622,0.000939417,0,0,0,0,0,0,0,-2.93621,-34.1454,-3.43474,23.9398,1.43615,1.48125,0.131027,
-0.066022,-0.00119203,0.147284,-2.00497,0.353748,0.233439,-0.0834038,0.166903,-0.0165743,0.167456,-0.394824,-0.118877,0.685033,0.0113765,-1.91299,0.0285645,-1.9185,5.69352,3.03501,-16.2547,-0.138794,0,0,0,0,0,0,0,-0.0711795,-0.000575744,0.144327,-1.99576,0.357403,0.219718,-0.0841293,0.279784,-0.000780318,0.105252,-0.458627,-0.117775,0.839622,0.000939417,0,0,0,0,0,0,0,-2.93621,-34.1454,-3.43474,23.9398,1.43615,1.48125,0.131027,
-0.0645121,-0.000711977,0.150995,-2.01076,0.353088,0.244954,-0.0837112,0.164472,-0.0155205,0.165006,-0.386229,-0.113762,0.660968,0.0111477,-1.51933,0.658649,-1.53152,5.37188,3.19722,-15.0405,-0.142965,0,0,0,0,0,0,0,-0.0711795,-0.000575744,0.144327,-1.99576,0.357403,0.219718,-0.0841293,0.279784,-0.000780318,0.105252,-0.458627,-0.117775,0.839622,0.000939417,0,0,0,0,0,0,0,-2.93621,-34.1454,-3.43474,23.9398,1.43615,1.48125,0.131027,
-0.0633057,-0.000818544,0.152205,-2.0135,0.352385,0.249305,-0.08363,0.161737,-0.0150805,0.162257,-0.377467,-0.1086,0.637543,0.0109472,-1.70896,0.27496,-1.71799,5.47658,3.22599,-14.6411,-0.125358,0,0,0,0,0,0,0,-0.0651414,-0.000106411,0.151026,-2.01061,0.352957,0.247045,-0.084131,0.101881,0.0324795,0.266768,-0.417894,-0.150462,0.722999,-0.000546446,-22.2379,4.15748,20.1895,5.09162,-4.08592,-14.5778,-0.185733,-0.0718349,-35.3197,-0.963121,28.2483,2.15667,1.62041,0.158493,
-0.062127,-0.000936065,0.153387,-2.01617,0.351717,0.25351,-0.0835496,0.158856,-0.0150025,0.159365,-0.368611,-0.103568,0.61515,0.0107692,-1.80072,0.0487928,-1.80749,5.53476,3.14501,-13.9951,-0.111226,0,0,0,0,0,0,0,-0.0651414,-0.000106411,0.151026,-2.01061,0.352957,0.247045,-0.084131,0.101881,0.0324795,0.266768,-0.417894,-0.150462,0.722999,-0.000546446,0,0,0,0,0,0,0,-0.0718349,-35.3197,-0.963121,28.2483,2.15667,1.62041,0.158493,
-0.0609734,-0.00106092,0.154545,-2.01876,0.351079,0.257583,-0.0834696,0.155926,-0.0151235,0.156426,-0.359709,-0.0988038,0.593958,0.0106134,-1.8313,-0.0756239,-1.83644,5.56394,2.97782,-13.2451,-0.0973786,0,0,0,0,0,0,0,-0.0651414,-0.000106411,0.151026,-2.01061,0.352957,0.247045,-0.084131,0.101881,0.0324795,0.266768,-0.417894,-0.150462,0.722999,-0.000546446,0,0,0,0,0,0,0,-0.0718349,-35.3197,-0.963121,28.2483,2.15667,1.62041,0.158493,
-0.0589063,0.00025694,0.157288,-2.02449,0.348868,0.268673,-0.0837425,0.15367,-0.0129091,0.15414,-0.352219,-0.0955003,0.572345,0.0104577,-1.41,1.38396,-1.42927,4.68144,2.06466,-13.508,-0.0973058,0,0,0,0,0,0,0,-0.0651414,-0.000106411,0.151026,-2.01061,0.352957,0.247045,-0.084131,0.101881,0.0324795,0.266768,-0.417894,-0.150462,0.722999,-0.000546446,0,0,0,0,0,0,0,-0.0718349,-35.3197,-0.963121,28.2483,2.15667,1.62041,0.158493,
-0.0577785,0.000198133,0.158419,-2.02699,0.348246,0.272438,-0.0836637,0.151133,-0.0117975,0.151579,-0.344157,-0.0919544,0.551996,0.0103351,-1.58553,0.694786,-1.6007,5.03873,2.21617,-12.7181,-0.0766177,0,0,0,0,0,0,0,-0.0593772,0.000407424,0.156249,-2.02371,0.349469,0.26886,-0.0841294,0.0199393,0.0103544,0.304284,-0.382408,-0.107764,0.63075,-0.0056055,-10.2427,-2.76565,4.68951,4.43581,5.33722,-11.5311,-0.632382,1.95942,-35.5458,1.21095,25.011,1.80236,1.48858,0.131027,
-0.0566762,0.000120489,0.159524,-2.0294,0.34765,0.276097,-0.0835849,0.148462,-0.0113791,0.148888,-0.33571,-0.088463,0.533076,0.010239,-1.66924,0.261506,-1.68138,5.27933,2.18215,-11.825,-0.0600669,0,0,0,0,0,0,0,-0.0593772,0.000407424,0.156249,-2.02371,0.349469,0.26886,-0.0841294,0.0199393,0.0103544,0.304284,-0.382408,-0.107764,0.63075,-0.0056055,0,0,0,0,0,0,0,1.95942,-35.5458,1.21095,25.011,1.80236,1.48858,0.131027,
-0.0537086,0.000467447,0.161954,-2.03607,0.346073,0.287969,-0.0837439,0.145467,-0.0105352,0.145867,-0.325644,-0.0853086,0.513308,0.0101597,-1.87193,0.527434,-1.88806,6.29129,1.97153,-12.3555,-0.0496045,0,0,0,0,0,0,0,-0.0593772,0.000407424,0.156249,-2.02371,0.349469,0.26886,-0.0841294,0.0199393,0.0103544,0.304284,-0.382408,-0.107764,0.63075,-0.0056055,0,0,0,0,0,0,0,1.95942,-35.5458,1.21095,25.011,1.80236,1.48858,0.131027,
-0.0526645,0.000392285,0.163,-2.03827,0.345519,0.291334,-0.0836642,0.142476,-0.0103072,0.142856,-0.315616,-0.0821008,0.49477,0.0101219,-1.86945,0.142494,-1.88235,6.2671,2.00484,-11.586,-0.0235961,0,0,0,0,0,0,0,-0.0593772,0.000407424,0.156249,-2.02371,0.349469,0.26886,-0.0841294,0.0199393,0.0103544,0.304284,-0.382408,-0.107764,0.63075,-0.0056055,0,0,0,0,0,0,0,1.95942,-35.5458,1.21095,25.011,1.80236,1.48858,0.131027,
-0.0516424,0.000304555,0.164025,-2.0404,0.344996,0.294594,-0.0835841,0.139535,-0.010439,0.139898,-0.305672,-0.0787434,0.477308,0.0100993,-1.8381,-0.0823763,-1.8486,6.21496,2.09842,-10.9136,-0.0141033,0,0,0,0,0,0,0,-0.0541153,0.000567452,0.160845,-2.03612,0.346835,0.287856,-0.084128,0.00520425,0.00422887,0.302215,-0.36601,-0.0783075,0.503647,0.000299644,-1.84188,-0.765688,-0.258572,2.04978,3.68211,-15.8879,0.738144,1.98322,-33.2964,1.56404,26.7526,1.72363,2.26403,0.11821,
-0.0506406,0.000208028,0.165029,-2.04245,0.344511,0.297747,-0.0835041,0.136671,-0.0107644,0.13702,-0.295836,-0.0751351,0.460675,0.0100792,-1.78987,-0.203368,-1.79851,6.14793,2.25517,-10.3957,-0.0125854,0,0,0,0,0,0,0,-0.0541153,0.000567452,0.160845,-2.03612,0.346835,0.287856,-0.084128,0.00520425,0.00422887,0.302215,-0.36601,-0.0783075,0.503647,0.000299644,0,0,0,0,0,0,0,1.98322,-33.2964,1.56404,26.7526,1.72363,2.26403,0.11821,
-0.048719,0.000698115,0.166276,-2.0473,0.344001,0.303507,-0.0837318,0.134666,-0.00951891,0.134991,-0.287405,-0.0716072,0.441136,0.0100789,-1.25357,0.778418,-1.26847,5.26896,2.20493,-12.2118,-0.000203316,0,0,0,0,0,0,0,-0.0541153,0.000567452,0.160845,-2.03612,0.346835,0.287856,-0.084128,0.00520425,0.00422887,0.302215,-0.36601,-0.0783075,0.503647,0.000299644,0,0,0,0,0,0,0,1.98322,-33.2964,1.56404,26.7526,1.72363,2.26403,0.11821,
-0.0477301,0.000643109,0.167267,-2.04925,0.343588,0.306321,-0.0836454,0.132454,-0.00899027,0.13276,-0.27858,-0.0676263,0.423249,0.0102237,-1.38232,0.330399,-1.39434,5.51589,2.48809,-11.1795,0.0905247,0,0,0,0,0,0,0,-0.0541153,0.000567452,0.160845,-2.03612,0.346835,0.287856,-0.084128,0.00520425,0.00422887,0.302215,-0.36601,-0.0783075,0.503647,0.000299644,0,0,0,0,0,0,0,1.98322,-33.2964,1.56404,26.7526,1.72363,2.26403,0.11821,
-0.0467667,0.000574367,0.168232,-2.05112,0.343257,0.309023,-0.0835617,0.130049,-0.00891079,0.130339,-0.269518,-0.0623603,0.406156,0.0102725,-1.50343,0.0496761,-1.51331,5.6638,3.29121,-10.6833,0.0305112,0,0,0,0,0,0,0,-0.0494653,0.00132767,0.165564,-2.04681,0.344827,0.303313,-0.084128,-0.00532726,0.041913,0.293329,-0.29441,-0.0449124,0.433314,0.000472014,-1.31644,4.71051,-1.11073,8.95001,4.1744,-8.79168,0.0215462,1.70551,-35.4189,1.23872,26.5305,1.46087,2.03881,0.11821,
-0.0458271,0.000495446,0.169174,-2.0529,0.343006,0.311611,-0.0834851,0.127529,-0.00910163,0.127806,-0.26034,-0.0561624,0.389616,0.0101309,-1.57493,-0.119277,-1.58286,5.73636,3.87368,-10.3374,-0.0885273,0,0,0,0,0,0,0,-0.0494653,0.00132767,0.165564,-2.04681,0.344827,0.303313,-0.084128,-0.00532726,0.041913,0.293329,-0.29441,-0.0449124,0.433314,0.000472014,0,0,0,0,0,0,0,1.70551,-35.4189,1.23872,26.5305,1.46087,2.03881,0.11821,
-0.0444373,0.00179306,0.170624,-2.05658,0.343284,0.316816,-0.0837257,0.125596,-0.00747593,0.125839,-0.252371,-0.0503701,0.372238,0.0100938,-1.20796,1.01607,-1.22903,4.98046,3.62019,-10.8612,-0.0231611,0,0,0,0,0,0,0,-0.0494653,0.00132767,0.165564,-2.04681,0.344827,0.303313,-0.084128,-0.00532726,0.041913,0.293329,-0.29441,-0.0449124,0.433314,0.000472014,0,0,0,0,0,0,0,1.70551,-35.4189,1.23872,26.5305,1.46087,2.03881,0.11821,
-0.0435111,0.00176089,0.171551,-2.05826,0.343021,0.319207,-0.0836127,0.123633,-0.00678507,0.12385,-0.244069,-0.046888,0.357568,0.0109008,-1.2266,0.431784,-1.2435,5.18843,2.17631,-9.16872,0.504375,0,0,0,0,0,0,0,-0.0494653,0.00132767,0.165564,-2.04681,0.344827,0.303313,-0.084128,-0.00532726,0.041913,0.293329,-0.29441,-0.0449124,0.433314,0.000472014,0,0,0,0,0,0,0,1.70551,-35.4189,1.23872,26.5305,1.46087,2.03881,0.11821,
-0.0426228,0.00171156,0.17244,-2.05988,0.342921,0.321492,-0.0835414,0.121115,-0.00666135,0.121308,-0.235585,-0.0399915,0.343181,0.010501,-1.57401,0.077324,-1.58898,5.30276,4.31031,-8.99172,-0.249868,0,0,0,0,0,0,0,-0.0449578,0.00139282,0.170465,-2.05671,0.343609,0.316297,-0.0841271,0.00989267,-0.0306912,0.264281,-0.312441,-0.0201291,0.336204,0.00311639,1.90249,-9.07552,-3.63101,-2.25389,3.09791,-12.1387,0.330547,1.24927,-33.4987,0.814222,26.6058,1.28967,2.10473,0.110886,
-0.0417533,0.0016492,0.17331,-2.06142,0.342722,0.323792,-0.0834865,0.11863,-0.00688786,0.118807,-0.227023,-0.0369706,0.332027,0.00977375,-1.55339,-0.141567,-1.56305,5.35143,1.88809,-6.97182,-0.454558,0,0,0,0,0,0,0,-0.0449578,0.00139282,0.170465,-2.05671,0.343609,0.316297,-0.0841271,0.00989267,-0.0306912,0.264281,-0.312441,-0.0201291,0.336204,0.00311639,0,0,0,0,0,0,0,1.24927,-33.4987,0.814222,26.6058,1.28967,2.10473,0.110886,
-0.0401472,0.00117189,0.175301,-2.0652,0.342404,0.326887,-0.0837303,0.117332,-0.00690813,0.117495,-0.219194,-0.0372954,0.3195,0.00974544,-0.810879,-0.0126697,-0.820054,4.89307,-0.202997,-7.82881,-0.0176889,0,0,0,0,0,0,0,-0.0449578,0.00139282,0.170465,-2.05671,0.343609,0.316297,-0.0841271,0.00989267,-0.0306912,0.264281,-0.312441,-0.0201291,0.336204,0.00311639,0,0,0,0,0,0,0,1.24927,-33.4987,0.814222,26.6058,1.28967,2.10473,0.110886,
-0.039277,0.00110761,0.176172,-2.06663,0.342087,0.329039,-0.0836361,0.115621,-0.00713346,0.115771,-0.211137,-0.0377593,0.309404,0.0101515,-1.06952,-0.140832,-1.07719,5.03523,-0.289937,-6.31052,0.253783,0,0,0,0,0,0,0,-0.0449578,0.00139282,0.170465,-2.05671,0.343609,0.316297,-0.0841271,0.00989267,-0.0306912,0.264281,-0.312441,-0.0201291,0.336204,0.00311639,0,0,0,0,0,0,0,1.24927,-33.4987,0.814222,26.6058,1.28967,2.10473,0.110886,
-0.0384443,0.00103659,0.177005,-2.06799,0.341889,0.33111,-0.083571,0.113313,-0.00748233,0.113456,-0.202938,-0.0351577,0.299284,0.0097505,-1.44246,-0.21804,-1.44716,5.12489,1.62601,-6.32453,-0.25062,0,0,0,0,0,0,0,-0.040865,0.00213599,0.17493,-2.06534,0.342834,0.326604,-0.0841294,0.0497234,0.0595012,0.209283,-0.225825,-0.0240299,0.294538,-0.000163178,4.97884,11.2741,-6.87482,10.827,-0.487604,-5.20826,-0.409946,0.638309,-34.3953,-0.0387439,27.5024,1.6687,2.19811,0.131027,
-0.0376315,0.000959844,0.177819,-2.06928,0.341569,0.333171,-0.0835179,0.11097,-0.00790446,0.11111,-0.194635,-0.036108,0.290967,0.00912672,-1.46405,-0.263829,-1.46601,5.18936,-0.593934,-5.19853,-0.389863,0,0,0,0,0,0,0,-0.040865,0.00213599,0.17493,-2.06534,0.342834,0.326604,-0.0841294,0.0497234,0.0595012,0.209283,-0.225825,-0.0240299,0.294538,-0.000163178,0,0,0,0,0,0,0,0.638309,-34.3953,-0.0387439,27.5024,1.6687,2.19811,0.131027,
-0.0364251,0.00288902,0.179383,-2.07276,0.340795,0.336742,-0.0837696,0.109344,-0.00556301,0.109447,-0.188269,-0.0422989,0.281366,0.009148,-1.01635,1.46341,-1.03935,3.97859,-3.86931,-6.00057,0.0132957,0,0,0,0,0,0,0,-0.040865,0.00213599,0.17493,-2.06534,0.342834,0.326604,-0.0841294,0.0497234,0.0595012,0.209283,-0.225825,-0.0240299,0.294538,-0.000163178,0,0,0,0,0,0,0,0.638309,-34.3953,-0.0387439,27.5024,1.6687,2.19811,0.131027,
-0.0356292,0.00289081,0.180178,-2.07399,0.34028,0.338654,-0.0836838,0.107374,-0.00440571,0.107444,-0.18136,-0.0467159,0.272877,0.00946512,-1.23155,0.723313,-1.25169,4.31796,-2.76068,-5.3055,0.198204,0,0,0,0,0,0,0,-0.040865,0.00213599,0.17493,-2.06534,0.342834,0.326604,-0.0841294,0.0497234,0.0595012,0.209283,-0.225825,-0.0240299,0.294538,-0.000163178,0,0,0,0,0,0,0,0.638309,-34.3953,-0.0387439,27.5024,1.6687,2.19811,0.131027,
-0.0348687,0.00287133,0.180938,-2.07515,0.339897,0.34048,-0.0836251,0.104913,-0.00401162,0.10496,-0.174107,-0.046941,0.263967,0.00903795,-1.53818,0.246305,-1.55286,4.53323,-0.140644,-5.56875,-0.266984,0,0,0,0,0,0,0,-0.0367341,0.00272025,0.178988,-2.07256,0.34252,0.335511,-0.0841316,0.120849,-0.0121676,0.102781,-0.216913,-0.0131047,0.225424,-0.000785177,8.89065,-8.9586,-13.3127,1.11401,1.36566,-8.63922,-0.0777498,-0.57568,-35.9941,-1.26067,27.0026,1.53412,2.13128,0.151169,
-0.032586,0.00259784,0.183134,-2.07863,0.337816,0.344861,-0.0837767,0.103329,-0.00433759,0.103357,-0.165694,-0.0672841,0.260824,0.00898615,-0.989904,-0.203734,-1.00149,5.25844,-12.7145,-1.9642,-0.0323703,0,0,0,0,0,0,0,-0.0367341,0.00272025,0.178988,-2.07256,0.34252,0.335511,-0.0841316,0.120849,-0.0121676,0.102781,-0.216913,-0.0131047,0.225424,-0.000785177,0,0,0,0,0,0,0,-0.57568,-35.9941,-1.26067,27.0026,1.53412,2.13128,0.151169,
-0.0318382,0.00254487,0.183881,-2.07962,0.336633,0.346849,-0.0836964,0.101359,-0.0047944,0.101372,-0.157495,-0.0834007,0.25834,0.00919564,-1.23104,-0.285506,-1.2411,5.12431,-10.0728,-1.55244,0.130926,0,0,0,0,0,0,0,-0.0367341,0.00272025,0.178988,-2.07256,0.34252,0.335511,-0.0841316,0.120849,-0.0121676,0.102781,-0.216913,-0.0131047,0.225424,-0.000785177,0,0,0,0,0,0,0,-0.57568,-35.9941,-1.26067,27.0026,1.53412,2.13128,0.151169,
-0.0311263,0.00248522,0.184593,-2.08056,0.335554,0.348774,-0.0836424,0.0988857,-0.00532691,0.0988914,-0.149501,-0.0937194,0.254808,0.00870731,-1.54595,-0.332815,-1.55016,4.99609,-6.44921,-2.20797,-0.3052,0,0,0,0,0,0,0,-0.0367341,0.00272025,0.178988,-2.07256,0.34252,0.335511,-0.0841316,0.120849,-0.0121676,0.102781,-0.216913,-0.0131047,0.225424,-0.000785177,0,0,0,0,0,0,0,-0.57568,-35.9941,-1.26067,27.0026,1.53412,2.13128,0.151169,
-0.0304323,0.00242015,0.185287,-2.08145,0.334322,0.350711,-0.0835943,0.0964565,-0.00588827,0.0964592,-0.141656,-0.105764,0.252265,0.008166,-1.51825,-0.350852,-1.52009,4.90306,-7.52799,-1.58945,-0.338323,0,0,0,0,0,0,0,-0.032763,0.00271333,0.182192,-2.07913,0.341756,0.343025,-0.0841305,0.181233,0.00573446,0.015367,-0.176869,-0.0414998,0.217932,-3.77538e-05,7.548,2.23775,-10.9267,5.00553,-3.54939,-0.93652,0.0934279,-1.41278,-32.1736,-1.33605,26.828,1.62567,2.33727,0.131027,
-0.0287115,0.00272474,0.18623,-2.08426,0.332245,0.353687,-0.0837664,0.0966294,-0.00571346,0.0966239,-0.135424,-0.143637,0.258762,0.00823144,0.108046,0.109254,0.102922,3.89493,-23.6707,4.06111,0.0409014,0,0,0,0,0,0,0,-0.032763,0.00271333,0.182192,-2.07913,0.341756,0.343025,-0.0841305,0.181233,0.00573446,0.015367,-0.176869,-0.0414998,0.217932,-3.77538e-05,0,0,0,0,0,0,0,-1.41278,-32.1736,-1.33605,26.828,1.62567,2.33727,0.131027,
-0.0279579,0.00267366,0.186983,-2.08509,0.329864,0.355962,-0.0836923,0.096143,-0.00584776,0.09613,-0.129077,-0.174435,0.263877,0.0084376,-0.303989,-0.083936,-0.308709,3.96669,-19.2483,3.19653,0.128851,0,0,0,0,0,0,0,-0.032763,0.00271333,0.182192,-2.07913,0.341756,0.343025,-0.0841305,0.181233,0.00573446,0.015367,-0.176869,-0.0414998,0.217932,-3.77538e-05,0,0,0,0,0,0,0,-1.41278,-32.1736,-1.33605,26.828,1.62567,2.33727,0.131027,
-0.0272367,0.00261361,0.187704,-2.08587,0.327554,0.358184,-0.0836424,0.0949451,-0.0061795,0.0949347,-0.122705,-0.197275,0.26666,0.0079973,-0.74865,-0.207337,-0.74704,3.9826,-14.275,1.73933,-0.275191,0,0,0,0,0,0,0,-0.032763,0.00271333,0.182192,-2.07913,0.341756,0.343025,-0.0841305,0.181233,0.00573446,0.015367,-0.176869,-0.0414998,0.217932,-3.77538e-05,0,0,0,0,0,0,0,-1.41278,-32.1736,-1.33605,26.828,1.62567,2.33727,0.131027,
-0.0265307,0.00254681,0.18841,-2.0866,0.325077,0.360442,-0.0835972,0.0936066,-0.00661352,0.093596,-0.11636,-0.21976,0.26977,0.00752802,-0.836575,-0.271262,-0.836676,3.9658,-14.0535,1.94422,-0.293297,0,0,0,0,0,0,0,-0.032763,0.00271333,0.182192,-2.07913,0.341756,0.343025,-0.0841305,0.181233,0.00573446,0.015367,-0.176869,-0.0414998,0.217932,-3.77538e-05,0,0,0,0,0,0,0,-1.41278,-32.1736,-1.33605,26.828,1.62567,2.33727,0.131027,
-0.0242026,0.00391255,0.189863,-2.08959,0.325146,0.365046,-0.0835948,0.0993647,-0.00606959,0.0991912,-0.115954,-0.256214,0.298756,0.00844024,3.59882,0.339953,3.49698,0.253512,-22.7836,18.116,0.570136,0,0,0,0,0,0,0,-0.0290105,0.0036873,0.185092,-2.08429,0.339364,0.349779,-0.0841298,0.167605,0.0460293,0.0247734,-0.132807,-0.105766,0.187194,0.000561136,-1.70346,5.03686,1.1758,5.50773,-8.03329,-3.84226,0.0748612,-0.881161,-36.2163,-0.637804,27.5739,1.23474,2.73461,0.124619,
-0.0232387,0.00386619,0.19082,-2.09044,0.322042,0.368312,-0.0834931,0.103587,-0.00601472,0.103277,-0.113998,-0.282576,0.320653,0.00929435,2.63899,0.0342938,2.55346,1.22245,-16.4761,13.6859,0.533823,0,0,0,0,0,0,0,-0.0290105,0.0036873,0.185092,-2.08429,0.339364,0.349779,-0.0841298,0.167605,0.0460293,0.0247734,-0.132807,-0.105766,0.187194,0.000561136,0,0,0,0,0,0,0,-0.881161,-36.2163,-0.637804,27.5739,1.23474,2.73461,0.124619,
-0.0222995,0.00380815,0.191752,-2.09123,0.319141,0.371454,-0.0834156,0.106352,-0.0062627,0.105914,-0.110898,-0.298584,0.335071,0.00937146,1.72787,-0.154988,1.64842,1.93749,-10.0049,9.01079,0.0481911,0,0,0,0,0,0,0,-0.0290105,0.0036873,0.185092,-2.08429,0.339364,0.349779,-0.0841298,0.167605,0.0460293,0.0247734,-0.132807,-0.105766,0.187194,0.000561136,0,0,0,0,0,0,0,-0.881161,-36.2163,-0.637804,27.5739,1.23474,2.73461,0.124619,
-0.0213706,0.00374156,0.192673,-2.09196,0.316199,0.374531,-0.0833436,0.108304,-0.00667512,0.107767,-0.106947,-0.312406,0.344993,0.00929897,1.22028,-0.257758,1.15831,2.46954,-8.63881,6.20124,-0.0453063,0,0,0,0,0,0,0,-0.0290105,0.0036873,0.185092,-2.08429,0.339364,0.349779,-0.0841298,0.167605,0.0460293,0.0247734,-0.132807,-0.105766,0.187194,0.000561136,0,0,0,0,0,0,0,-0.881161,-36.2163,-0.637804,27.5739,1.23474,2.73461,0.124619,
-0.0238363,0.0037692,0.190321,-2.08986,0.324271,0.36615,-0.0834999,0.113514,-0.0068565,0.11337,-0.109626,-0.33333,0.362527,0.0102331,3.25639,-0.113363,3.50153,-1.67406,-13.078,10.9589,0.583838,0,0,0,0,0,0,0,-0.0259658,0.00354717,0.188637,-2.08891,0.333204,0.356338,-0.0841345,0.0402915,-0.0466155,0.161195,-0.142759,-0.220814,0.206514,-0.000612889,-15.9142,-11.5806,17.0527,-1.24401,-14.381,2.41499,-0.146753,-0.881161,-32.2768,-0.788561,25.4315,1.02142,2.71447,0.138352,
-0.0227721,0.00369275,0.191396,-2.09076,0.321104,0.369507,-0.0833816,0.117416,-0.00739664,0.117585,-0.110155,-0.345849,0.373947,0.0111439,2.43879,-0.337588,2.63466,-0.330516,-7.82379,7.13793,0.569241,0,0,0,0,0,0,0,-0.0259658,0.00354717,0.188637,-2.08891,0.333204,0.356338,-0.0841345,0.0402915,-0.0466155,0.161195,-0.142759,-0.220814,0.206514,-0.000612889,0,0,0,0,0,0,0,-0.881161,-32.2768,-0.788561,25.4315,1.02142,2.71447,0.138352,
-0.02173,0.00360348,0.192451,-2.0916,0.318208,0.372694,-0.0832872,0.119987,-0.00814904,0.120423,-0.109117,-0.34906,0.378831,0.0112754,1.60647,-0.470253,1.77326,0.64865,-2.00731,3.05199,0.0822038,0,0,0,0,0,0,0,-0.0259658,0.00354717,0.188637,-2.08891,0.333204,0.356338,-0.0841345,0.0402915,-0.0466155,0.161195,-0.142759,-0.220814,0.206514,-0.000612889,0,0,0,0,0,0,0,-0.881161,-32.2768,-0.788561,25.4315,1.02142,2.71447,0.138352,
-0.0205112,0.0024898,0.194066,-2.09404,0.317099,0.373569,-0.0834837,0.124483,-0.0102543,0.124614,-0.109903,-0.360884,0.394565,0.0119068,2.81011,-1.31576,2.61934,-0.491691,-7.38999,9.83393,0.394629,0,0,0,0,0,0,0,-0.0259658,0.00354717,0.188637,-2.08891,0.333204,0.356338,-0.0841345,0.0402915,-0.0466155,0.161195,-0.142759,-0.220814,0.206514,-0.000612889,0,0,0,0,0,0,0,-0.881161,-32.2768,-0.788561,25.4315,1.02142,2.71447,0.138352,
-0.0193812,0.00235427,0.195187,-2.09489,0.314068,0.377083,-0.083367,0.127836,-0.0115915,0.127716,-0.109218,-0.364475,0.40351,0.0124443,2.09589,-0.835777,1.939,0.428444,-2.24411,5.59037,0.335896,0,0,0,0,0,0,0,-0.0229909,0.00443374,0.192833,-2.09252,0.323677,0.365411,-0.0841309,0.00447654,0.0780381,0.206509,-0.0744645,-0.301713,0.288907,-0.00082636,-4.47687,15.5817,5.66417,8.53682,-10.1124,10.2991,-0.026684,1.04694,-34.3477,0.588087,26.4313,1.24115,2.80785,0.14476,
-0.0182698,0.00222721,0.196289,-2.09569,0.311322,0.380385,-0.083271,0.130054,-0.0124499,0.129714,-0.107439,-0.36023,0.405358,0.0123544,1.38569,-0.536466,1.24865,1.11184,2.65286,1.15508,-0.0561635,0,0,0,0,0,0,0,-0.0229909,0.00443374,0.192833,-2.09252,0.323677,0.365411,-0.0841309,0.00447654,0.0780381,0.206509,-0.0744645,-0.301713,0.288907,-0.00082636,0,0,0,0,0,0,0,1.04694,-34.3477,0.588087,26.4313,1.24115,2.80785,0.14476,
-0.0171654,0.00210572,0.197384,-2.09645,0.308615,0.383532,-0.0831808,0.131653,-0.0129971,0.131144,-0.104848,-0.35586,0.402967,0.0121396,0.999601,-0.342043,0.893781,1.61914,2.73142,-1.49435,-0.134238,0,0,0,0,0,0,0,-0.0229909,0.00443374,0.192833,-2.09252,0.323677,0.365411,-0.0841309,0.00447654,0.0780381,0.206509,-0.0744645,-0.301713,0.288907,-0.00082636,0,0,0,0,0,0,0,1.04694,-34.3477,0.588087,26.4313,1.24115,2.80785,0.14476,
-0.0176729,0.00484283,0.198213,-2.09789,0.308208,0.384148,-0.0835017,0.133235,-0.011057,0.132993,-0.108251,-0.361196,0.413242,0.0126809,0.988873,1.2126,1.1556,-2.12691,-3.33501,6.42217,0.338301,0,0,0,0,0,0,0,-0.0229909,0.00443374,0.192833,-2.09252,0.323677,0.365411,-0.0841309,0.00447654,0.0780381,0.206509,-0.0744645,-0.301713,0.288907,-0.00082636,0,0,0,0,0,0,0,1.04694,-34.3477,0.588087,26.4313,1.24115,2.80785,0.14476,
-0.0165595,0.00479232,0.199333,-2.09881,0.305381,0.387584,-0.0833771,0.134424,-0.0101083,0.134391,-0.109627,-0.359622,0.416507,0.0132601,0.742907,0.592904,0.873779,-0.859918,0.983488,2.04058,0.362012,0,0,0,0,0,0,0,-0.0196236,0.0045838,0.19671,-2.09629,0.312803,0.375794,-0.0841309,0.102964,-0.0482065,0.114524,-0.134093,-0.355566,0.321353,-9.512e-05,12.3109,-15.7806,-11.4981,-7.4536,-6.73161,4.05574,0.0914051,0.793033,-34.3477,0.187391,25.3839,1.30798,2.38305,0.14476,
-0.0154611,0.00472226,0.200439,-2.09968,0.302868,0.390774,-0.0832772,0.134998,-0.00983818,0.135144,-0.109475,-0.350521,0.412956,0.0131055,0.358994,0.168833,0.470878,0.0950959,5.68825,-2.21955,-0.0966331,0,0,0,0,0,0,0,-0.0196236,0.0045838,0.19671,-2.09629,0.312803,0.375794,-0.0841309,0.102964,-0.0482065,0.114524,-0.134093,-0.355566,0.321353,-9.512e-05,0,0,0,0,0,0,0,0.793033,-34.3477,0.187391,25.3839,1.30798,2.38305,0.14476,
-0.0143652,0.00463655,0.201541,-2.10051,0.300429,0.393816,-0.083184,0.135396,-0.0100132,0.135678,-0.108281,-0.341395,0.406411,0.0128134,0.248724,-0.109402,0.333597,0.746549,5.70415,-4.09053,-0.182599,0,0,0,0,0,0,0,-0.0196236,0.0045838,0.19671,-2.09629,0.312803,0.375794,-0.0841309,0.102964,-0.0482065,0.114524,-0.134093,-0.355566,0.321353,-9.512e-05,0,0,0,0,0,0,0,0.793033,-34.3477,0.187391,25.3839,1.30798,2.38305,0.14476,
-0.014195,0.00337091,0.202126,-2.10148,0.298216,0.39378,-0.0835044,0.136586,-0.0124908,0.136725,-0.110047,-0.33885,0.413962,0.0130785,0.743947,-1.5485,0.654686,-1.10388,1.5902,4.71929,0.165736,0,0,0,0,0,0,0,-0.0196236,0.0045838,0.19671,-2.09629,0.312803,0.375794,-0.0841309,0.102964,-0.0482065,0.114524,-0.134093,-0.355566,0.321353,-9.512e-05,0,0,0,0,0,0,0,0.793033,-34.3477,0.187391,25.3839,1.30798,2.38305,0.14476,
-0.0130681,0.00320656,0.203249,-2.10237,0.295848,0.397152,-0.0833892,0.137443,-0.0141016,0.137467,-0.110387,-0.330294,0.415454,0.0133418,0.53556,-1.00674,0.463386,-0.212936,5.34759,0.932731,0.164562,0,0,0,0,0,0,0,-0.0152748,0.004222,0.200242,-2.10044,0.301232,0.38784,-0.0841262,0.204299,0.00278226,0.0182419,-0.117418,-0.339104,0.386606,0.000698696,12.6669,6.37359,-12.0352,2.08437,2.05781,8.15669,0.099227,-0.528073,-30.9517,-0.487047,25.1855,1.6806,2.31713,0.131027,
-0.0119546,0.0030515,0.204359,-2.10323,0.293775,0.400293,-0.0832963,0.137792,-0.0151578,0.137713,-0.109661,-0.316066,0.410909,0.0129977,0.217966,-0.660131,0.153497,0.454061,8.89235,-2.84054,-0.215054,0,0,0,0,0,0,0,-0.0152748,0.004222,0.200242,-2.10044,0.301232,0.38784,-0.0841262,0.204299,0.00278226,0.0182419,-0.117418,-0.339104,0.386606,0.000698696,0,0,0,0,0,0,0,-0.528073,-30.9517,-0.487047,25.1855,1.6806,2.31713,0.131027,
-0.0099419,0.0038421,0.205578,-2.10566,0.288935,0.40584,-0.0835429,0.137951,-0.014449,0.137958,-0.111767,-0.308119,0.412561,0.0131682,0.0995605,0.44302,0.153302,-1.31652,4.96736,1.03208,0.106552,0,0,0,0,0,0,0,-0.0152748,0.004222,0.200242,-2.10044,0.301232,0.38784,-0.0841262,0.204299,0.00278226,0.0182419,-0.117418,-0.339104,0.386606,0.000698696,0,0,0,0,0,0,0,-0.528073,-30.9517,-0.487047,25.1855,1.6806,2.31713,0.131027,
-0.00883446,0.00374298,0.206688,-2.10658,0.286947,0.40898,-0.0834291,0.138047,-0.0140373,0.13812,-0.112506,-0.296206,0.408539,0.0133806,0.0597482,0.25728,0.101615,-0.461906,7.44516,-2.51382,0.132763,0,0,0,0,0,0,0,-0.0152748,0.004222,0.200242,-2.10044,0.301232,0.38784,-0.0841262,0.204299,0.00278226,0.0182419,-0.117418,-0.339104,0.386606,0.000698696,0,0,0,0,0,0,0,-0.528073,-30.9517,-0.487047,25.1855,1.6806,2.31713,0.131027,
-0.00773904,0.00363706,0.207786,-2.10747,0.285236,0.411872,-0.0833394,0.137823,-0.0138778,0.137953,-0.11221,-0.279723,0.399153,0.012946,-0.13986,0.0997159,-0.104531,0.185248,10.302,-5.86573,-0.271659,0,0,0,0,0,0,0,-0.0107214,0.00499403,0.203814,-2.10381,0.290299,0.40058,-0.0841269,0.211512,0.0647968,0.0227186,-0.0800612,-0.317558,0.371968,-0.000157383,0.901559,7.75181,0.559576,4.66964,2.6932,-1.82973,-0.10701,-0.349545,-35.6926,-0.16173,26.3559,1.75384,2.33727,0.151169,
-0.00664376,0.00352508,0.208884,-2.10833,0.283559,0.414621,-0.0832554,0.137641,-0.0139017,0.13781,-0.111233,-0.265705,0.388033,0.0124562,-0.114114,-0.0149148,-0.0896128,0.610938,8.76144,-6.95055,-0.306093,0,0,0,0,0,0,0,-0.0107214,0.00499403,0.203814,-2.10381,0.290299,0.40058,-0.0841269,0.211512,0.0647968,0.0227186,-0.0800612,-0.317558,0.371968,-0.000157383,0,0,0,0,0,0,0,-0.349545,-35.6926,-0.16173,26.3559,1.75384,2.33727,0.151169,
-0.0054103,0.00514026,0.209103,-2.10922,0.280346,0.417351,-0.0835839,0.137524,-0.0126364,0.13761,-0.114313,-0.255418,0.38645,0.0125012,-0.072575,0.790787,-0.124941,-1.92515,6.42955,-0.989304,0.0281156,0,0,0,0,0,0,0,-0.0107214,0.00499403,0.203814,-2.10381,0.290299,0.40058,-0.0841269,0.211512,0.0647968,0.0227186,-0.0800612,-0.317558,0.371968,-0.000157383,0,0,0,0,0,0,0,-0.349545,-35.6926,-0.16173,26.3559,1.75384,2.33727,0.151169,
-0.00431439,0.00506333,0.210197,-2.11019,0.278848,0.420193,-0.0834818,0.137417,-0.0120323,0.137433,-0.115769,-0.241787,0.380206,0.0125536,-0.0669154,0.377559,-0.110715,-0.910086,8.51939,-3.90215,0.03272,0,0,0,0,0,0,0,-0.0107214,0.00499403,0.203814,-2.10381,0.290299,0.40058,-0.0841269,0.211512,0.0647968,0.0227186,-0.0800612,-0.317558,0.371968,-0.000157383,0,0,0,0,0,0,0,-0.349545,-35.6926,-0.16173,26.3559,1.75384,2.33727,0.151169,
-0.0032282,0.00497343,0.21128,-2.11112,0.277603,0.422813,-0.0834016,0.137089,-0.0118734,0.137041,-0.115997,-0.224562,0.369669,0.0120476,-0.20537,0.09934,-0.244991,-0.142624,10.7655,-6.58582,-0.316236,0,0,0,0,0,0,0,-0.00663106,0.00453104,0.207862,-2.10785,0.280949,0.413143,-0.0841304,0.152863,-0.080885,0.0756615,-0.154237,-0.239442,0.340769,0.00011443,-7.33113,-18.2102,6.61787,-9.27193,9.76451,-3.89998,0.0339766,-0.500302,-32.4236,0.0882092,25.011,1.65039,1.99853,0.151169,
-0.00214085,0.00487409,0.212365,-2.11203,0.276358,0.425297,-0.0833252,0.136855,-0.0119823,0.136758,-0.115338,-0.210771,0.357839,0.0115503,-0.146334,-0.0680718,-0.176832,0.412036,8.61906,-7.39338,-0.310798,0,0,0,0,0,0,0,-0.00663106,0.00453104,0.207862,-2.10785,0.280949,0.413143,-0.0841304,0.152863,-0.080885,0.0756615,-0.154237,-0.239442,0.340769,0.00011443,0,0,0,0,0,0,0,-0.500302,-32.4236,0.0882092,25.011,1.65039,1.99853,0.151169,
-0.00149297,0.00321112,0.212988,-2.11236,0.27364,0.425839,-0.0836726,0.135849,-0.014021,0.135746,-0.113262,-0.198785,0.345314,0.0114641,-0.628554,-1.27419,-0.632566,1.29726,7.49156,-7.82873,-0.0538945,0,0,0,0,0,0,0,-0.00663106,0.00453104,0.207862,-2.10785,0.280949,0.413143,-0.0841304,0.152863,-0.080885,0.0756615,-0.154237,-0.239442,0.340769,0.00011443,0,0,0,0,0,0,0,-0.500302,-32.4236,0.0882092,25.011,1.65039,1.99853,0.151169,
-0.000442847,0.00305082,0.214037,-2.11318,0.27264,0.428044,-0.0835851,0.134932,-0.0152243,0.134824,-0.11112,-0.184023,0.331374,0.0113579,-0.572985,-0.752084,-0.576167,1.33879,9.22597,-8.71196,-0.0663873,0,0,0,0,0,0,0,-0.00663106,0.00453104,0.207862,-2.10785,0.280949,0.413143,-0.0841304,0.152863,-0.080885,0.0756615,-0.154237,-0.239442,0.340769,0.00011443,0,0,0,0,0,0,0,-0.500302,-32.4236,0.0882092,25.011,1.65039,1.99853,0.151169,
0.000595237,0.00290088,0.215074,-2.11398,0.271883,0.430067,-0.0835195,0.133898,-0.0159279,0.13378,-0.108941,-0.166154,0.315664,0.0107262,-0.646456,-0.43977,-0.652138,1.36194,11.1685,-9.81923,-0.394816,0,0,0,0,0,0,0,-0.00663106,0.00453104,0.207862,-2.10785,0.280949,0.413143,-0.0841304,0.152863,-0.080885,0.0756615,-0.154237,-0.239442,0.340769,0.00011443,0,0,0,0,0,0,0,-0.500302,-32.4236,0.0882092,25.011,1.65039,1.99853,0.151169,
0.00210971,0.00451616,0.217129,-2.11595,0.269025,0.435024,-0.0837569,0.132226,-0.0143647,0.132083,-0.107381,-0.151346,0.297373,0.0103463,-1.04465,0.977038,-1.06074,0.97535,9.25449,-11.4315,-0.237413,0,0,0,0,0,0,0,-0.00287881,0.00451004,0.212138,-2.11168,0.273789,0.424445,-0.0841286,0.0640338,0.0337095,0.181769,-0.0968839,-0.182311,0.331453,0.000535989,-11.1036,14.3243,13.2635,7.1691,7.14133,-1.16447,0.0526948,1.2215,-32.0982,1.56404,26.2805,1.5158,2.37664,0.124619,
0.00310634,0.00444017,0.218123,-2.11674,0.268479,0.436673,-0.0836908,0.130697,-0.0133915,0.130532,-0.105587,-0.134721,0.279116,0.00992855,-0.955937,0.608217,-0.969361,1.12093,10.391,-11.4109,-0.261096,0,0,0,0,0,0,0,-0.00287881,0.00451004,0.212138,-2.11168,0.273789,0.424445,-0.0841286,0.0640338,0.0337095,0.181769,-0.0968839,-0.182311,0.331453,0.000535989,0,0,0,0,0,0,0,1.2215,-32.0982,1.56404,26.2805,1.5158,2.37664,0.124619,
0.00409037,0.00435498,0.219105,-2.11751,0.26813,0.438179,-0.0836453,0.129158,-0.0128432,0.128973,-0.103677,-0.116486,0.260945,0.00908055,-0.961563,0.342725,-0.974807,1.1939,11.3967,-11.3567,-0.530003,0,0,0,0,0,0,0,-0.00287881,0.00451004,0.212138,-2.11168,0.273789,0.424445,-0.0841286,0.0640338,0.0337095,0.181769,-0.0968839,-0.182311,0.331453,0.000535989,0,0,0,0,0,0,0,1.2215,-32.0982,1.56404,26.2805,1.5158,2.37664,0.124619,
0.00507234,0.00426384,0.220085,-2.11826,0.267727,0.43963,-0.0836068,0.127876,-0.012553,0.127674,-0.101708,-0.103285,0.245044,0.00822875,-0.801634,0.18136,-0.811847,1.23033,8.25038,-9.93833,-0.532374,0,0,0,0,0,0,0,-0.00287881,0.00451004,0.212138,-2.11168,0.273789,0.424445,-0.0841286,0.0640338,0.0337095,0.181769,-0.0968839,-0.182311,0.331453,0.000535989,0,0,0,0,0,0,0,1.2215,-32.0982,1.56404,26.2805,1.5158,2.37664,0.124619,
0.00560505,0.00539057,0.221554,-2.11874,0.26604,0.442546,-0.0838812,0.126317,-0.0113609,0.126084,-0.100187,-0.0926235,0.231154,0.00748608,-0.974113,0.74506,-0.993494,0.950947,6.66376,-8.68117,-0.46417,0,0,0,0,0,0,0,0.000765856,0.00527419,0.216707,-2.11485,0.268542,0.434299,-0.0841294,0.0108054,0.0467329,0.237815,-0.0699496,-0.12297,0.250576,-3.4569e-05,-6.65354,1.62793,7.00575,3.36679,7.41761,-10.1096,-0.0713197,1.40003,-35.518,1.16334,25.5347,1.38763,2.34368,0.131027,
0.00655462,0.00532622,0.222501,-2.11948,0.265712,0.443873,-0.0838556,0.124793,-0.0106975,0.124531,-0.0985209,-0.0822983,0.218103,0.00662753,-0.952598,0.414619,-0.970461,1.04119,6.45321,-8.157,-0.536593,0,0,0,0,0,0,0,0.000765856,0.00527419,0.216707,-2.11485,0.268542,0.434299,-0.0841294,0.0108054,0.0467329,0.237815,-0.0699496,-0.12297,0.250576,-3.4569e-05,0,0,0,0,0,0,0,1.40003,-35.518,1.16334,25.5347,1.38763,2.34368,0.131027,
0.00749386,0.00525088,0.223437,-2.1202,0.26538,0.445175,-0.0838365,0.123315,-0.0104415,0.123025,-0.0969114,-0.0741352,0.207032,0.00577975,-0.923624,0.159975,-0.941575,1.00588,5.10194,-6.91945,-0.529861,0,0,0,0,0,0,0,0.000765856,0.00527419,0.216707,-2.11485,0.268542,0.434299,-0.0841294,0.0108054,0.0467329,0.237815,-0.0699496,-0.12297,0.250576,-3.4569e-05,0,0,0,0,0,0,0,1.40003,-35.518,1.16334,25.5347,1.38763,2.34368,0.131027,
0.00842966,0.00516973,0.224369,-2.12091,0.264833,0.446533,-0.0838235,0.122047,-0.0103819,0.121736,-0.0953097,-0.0729928,0.199583,0.00494891,-0.792506,0.0372939,-0.805184,1.0011,0.713995,-4.6555,-0.519274,0,0,0,0,0,0,0,0.000765856,0.00527419,0.216707,-2.11485,0.268542,0.434299,-0.0841294,0.0108054,0.0467329,0.237815,-0.0699496,-0.12297,0.250576,-3.4569e-05,0,0,0,0,0,0,0,1.40003,-35.518,1.16334,25.5347,1.38763,2.34368,0.131027,
0.00540149,0.00544448,0.221347,-2.1185,0.26562,0.442167,-0.0840463,0.120405,-0.00941372,0.120074,-0.0939545,-0.0762912,0.195851,0.0041039,-1.02643,0.605098,-1.03914,0.846995,-2.06144,-2.33257,-0.528134,0,0,0,0,0,0,0,0.00430997,0.00470939,0.221429,-2.11842,0.265678,0.441887,-0.0841273,0.0215396,-0.0836083,0.221591,-0.136142,-0.0510879,0.205786,0.000851796,1.34177,-16.2927,-2.02805,-8.27402,8.98531,-5.59879,0.110796,0.816837,-31.6777,0.461134,23.8406,1.19171,2.11846,0.110886,
0.00630268,0.00538693,0.222245,-2.11919,0.264844,0.443588,-0.0840434,0.118854,-0.00896961,0.118505,-0.0924188,-0.080422,0.192192,0.00335543,-0.96949,0.277563,-0.980499,0.959817,-2.58176,-2.28643,-0.467796,0,0,0,0,0,0,0,0.00430997,0.00470939,0.221429,-2.11842,0.265678,0.441887,-0.0841273,0.0215396,-0.0836083,0.221591,-0.136142,-0.0510879,0.205786,0.000851796,0,0,0,0,0,0,0,0.816837,-31.6777,0.461134,23.8406,1.19171,2.11846,0.110886,
0.00719391,0.0053209,0.223133,-2.11986,0.264033,0.444982,-0.0840427,0.117364,-0.00882656,0.117,-0.090762,-0.0846314,0.188617,0.00270133,-0.931228,0.0894073,-0.940889,1.03551,-2.63089,-2.23444,-0.408811,0,0,0,0,0,0,0,0.00430997,0.00470939,0.221429,-2.11842,0.265678,0.441887,-0.0841273,0.0215396,-0.0836083,0.221591,-0.136142,-0.0510879,0.205786,0.000851796,0,0,0,0,0,0,0,0.816837,-31.6777,0.461134,23.8406,1.19171,2.11846,0.110886,
0.00807481,0.00524946,0.22401,-2.12052,0.263201,0.446349,-0.0840439,0.115913,-0.00884709,0.115536,-0.0890259,-0.0884881,0.185073,0.00213151,-0.906523,-0.0128312,-0.915045,1.08506,-2.41045,-2.21541,-0.356134,0,0,0,0,0,0,0,0.00430997,0.00470939,0.221429,-2.11842,0.265678,0.441887,-0.0841273,0.0215396,-0.0836083,0.221591,-0.136142,-0.0510879,0.205786,0.000851796,0,0,0,0,0,0,0,0.816837,-31.6777,0.461134,23.8406,1.19171,2.11846,0.110886,
0.00895186,0.00351236,0.226074,-2.12161,0.261962,0.448722,-0.0841184,0.115117,-0.0108862,0.114749,-0.0862447,-0.0904368,0.182248,0.00161148,-0.497816,-1.27446,-0.49187,1.73826,-1.21794,-1.76567,-0.325019,0,0,0,0,0,0,0,0.00852336,0.00497536,0.224953,-2.12127,0.263929,0.447914,-0.0841313,0.11612,0.0379379,0.10595,-0.0692995,-0.0514363,0.149786,0.000426332,11.8225,15.1933,-14.4551,8.35528,-0.0435555,-7.00003,-0.053183,-0.171017,-31.6261,-0.538622,24.7849,1.13678,2.27044,0.104477,
0.00983092,0.00337711,0.226951,-2.1222,0.261176,0.450064,-0.0841239,0.11407,-0.0120903,0.113711,-0.0838398,-0.0920041,0.179351,0.00115355,-0.654345,-0.752559,-0.648631,1.50304,-0.97955,-1.81014,-0.286205,0,0,0,0,0,0,0,0.00852336,0.00497536,0.224953,-2.12127,0.263929,0.447914,-0.0841313,0.11612,0.0379379,0.10595,-0.0692995,-0.0514363,0.149786,0.000426332,0,0,0,0,0,0,0,-0.171017,-31.6261,-0.538622,24.7849,1.13678,2.27044,0.104477,
0.0106942,0.00325442,0.227812,-2.12279,0.260397,0.451373,-0.084131,0.112837,-0.0127395,0.112486,-0.0817152,-0.0930753,0.176206,0.000744159,-0.770577,-0.405729,-0.765349,1.32787,-0.669519,-1.96585,-0.255871,0,0,0,0,0,0,0,0.00852336,0.00497536,0.224953,-2.12127,0.263929,0.447914,-0.0841313,0.11612,0.0379379,0.10595,-0.0692995,-0.0514363,0.149786,0.000426332,0,0,0,0,0,0,0,-0.171017,-31.6261,-0.538622,24.7849,1.13678,2.27044,0.104477,
0.0127964,0.00516875,0.229208,-2.12453,0.260448,0.453914,-0.0841588,0.110998,-0.0108446,0.110622,-0.0807715,-0.0933046,0.16921,0.000352307,-1.14922,1.18428,-1.16541,0.589835,-0.143288,-4.37223,-0.244908,0,0,0,0,0,0,0,0.00852336,0.00497536,0.224953,-2.12127,0.263929,0.447914,-0.0841313,0.11612,0.0379379,0.10595,-0.0692995,-0.0514363,0.149786,0.000426332,0,0,0,0,0,0,0,-0.171017,-31.6261,-0.538622,24.7849,1.13678,2.27044,0.104477,
0.0136121,0.00513018,0.23002,-2.12512,0.259709,0.455015,-0.0841703,0.109192,-0.00963998,0.108793,-0.0795216,-0.0931057,0.1629,-6.12813e-06,-1.12886,0.752911,-1.14302,0.781192,0.124297,-3.944,-0.224022,0,0,0,0,0,0,0,0.0127271,0.00540535,0.227961,-2.12384,0.261848,0.452282,-0.0841367,0.18289,-0.00211326,0.0242184,-0.0862905,-0.0693197,0.123993,-0.000442893,8.34635,-5.00639,-10.2164,-2.12387,-2.23542,-3.22404,-0.108653,-1.03589,-35.518,-0.788561,26.1298,0.941769,2.54235,0.110886,
0.0144144,0.00508315,0.230818,-2.1257,0.258994,0.456089,-0.0841835,0.10741,-0.00888758,0.106991,-0.0780581,-0.0923645,0.15717,-0.000333676,-1.11356,0.470254,-1.12579,0.914685,0.463228,-3.58103,-0.204717,0,0,0,0,0,0,0,0.0127271,0.00540535,0.227961,-2.12384,0.261848,0.452282,-0.0841367,0.18289,-0.00211326,0.0242184,-0.0862905,-0.0693197,0.123993,-0.000442893,0,0,0,0,0,0,0,-1.03589,-35.518,-0.788561,26.1298,0.941769,2.54235,0.110886,
0.0152032,0.0050304,0.231603,-2.12626,0.258306,0.457136,-0.0841981,0.105648,-0.00842887,0.105212,-0.0764503,-0.0910795,0.151909,-0.000633148,-1.10161,0.286694,-1.11213,1.00487,0.803183,-3.28863,-0.18717,0,0,0,0,0,0,0,0.0127271,0.00540535,0.227961,-2.12384,0.261848,0.452282,-0.0841367,0.18289,-0.00211326,0.0242184,-0.0862905,-0.0693197,0.123993,-0.000442893,0,0,0,0,0,0,0,-1.03589,-35.518,-0.788561,26.1298,0.941769,2.54235,0.110886,
0.0167578,0.00522331,0.231957,-2.1268,0.258471,0.457272,-0.0841961,0.10399,-0.00797121,0.103536,-0.074954,-0.0892353,0.146139,-0.000902981,-1.03599,0.286032,-1.04773,0.935181,1.15256,-3.60583,-0.168646,0,0,0,0,0,0,0,0.0127271,0.00540535,0.227961,-2.12384,0.261848,0.452282,-0.0841367,0.18289,-0.00211326,0.0242184,-0.0862905,-0.0693197,0.123993,-0.000442893,0,0,0,0,0,0,0,-1.03589,-35.518,-0.788561,26.1298,0.941769,2.54235,0.110886,
0.0175228,0.0051707,0.232718,-2.12734,0.257843,0.458239,-0.0842134,0.102317,-0.00769221,0.101846,-0.0733214,-0.0870858,0.14108,-0.00115283,-1.04583,0.174374,-1.05595,1.02039,1.34344,-3.16197,-0.156155,0,0,0,0,0,0,0,0.0163326,0.00491148,0.231268,-2.12674,0.259674,0.455751,-0.0841393,0.104641,-0.0544643,0.110852,-0.103609,-0.0613698,0.103648,0.000594004,-9.78118,-6.54388,10.8292,-2.16486,0.993732,-2.54321,0.129612,-1.05969,-30.8525,-0.487047,24.761,0.880428,2.58904,0.0907442,
0.0182739,0.00511565,0.233464,-2.12786,0.257244,0.459185,-0.0842318,0.10063,-0.00753019,0.100146,-0.0716015,-0.0846498,0.136512,-0.00138265,-1.05407,0.101268,-1.06276,1.07492,1.52252,-2.85504,-0.14364,0,0,0,0,0,0,0,0.0163326,0.00491148,0.231268,-2.12674,0.259674,0.455751,-0.0841393,0.104641,-0.0544643,0.110852,-0.103609,-0.0613698,0.103648,0.000594004,0,0,0,0,0,0,0,-1.05969,-30.8525,-0.487047,24.761,0.880428,2.58904,0.0907442,
0.0190111,0.00505896,0.234197,-2.12836,0.256674,0.460108,-0.0842513,0.0989341,-0.00744129,0.0984375,-0.0698297,-0.0819717,0.132281,-0.00159414,-1.06015,0.05556,-1.06764,1.10737,1.67384,-2.64436,-0.132177,0,0,0,0,0,0,0,0.0163326,0.00491148,0.231268,-2.12674,0.259674,0.455751,-0.0841393,0.104641,-0.0544643,0.110852,-0.103609,-0.0613698,0.103648,0.000594004,0,0,0,0,0,0,0,-1.05969,-30.8525,-0.487047,24.761,0.880428,2.58904,0.0907442,
0.0203323,0.00415341,0.235247,-2.12933,0.25676,0.459897,-0.0842267,0.0980167,-0.00833461,0.0975187,-0.0677579,-0.0792117,0.127852,-0.00179887,-0.573382,-0.558323,-0.574247,1.29485,1.72501,-2.76787,-0.127958,0,0,0,0,0,0,0,0.0163326,0.00491148,0.231268,-2.12674,0.259674,0.455751,-0.0841393,0.104641,-0.0544643,0.110852,-0.103609,-0.0613698,0.103648,0.000594004,0,0,0,0,0,0,0,-1.05969,-30.8525,-0.487047,24.761,0.880428,2.58904,0.0907442,
0.021067,0.00406794,0.235978,-2.1298,0.256235,0.460772,-0.0842485,0.0967818,-0.0088044,0.0962838,-0.0657841,-0.0764975,0.124159,-0.00198262,-0.771834,-0.29362,-0.771834,1.23367,1.69634,-2.30862,-0.114843,0,0,0,0,0,0,0,0.0163326,0.00491148,0.231268,-2.12674,0.259674,0.455751,-0.0841393,0.104641,-0.0544643,0.110852,-0.103609,-0.0613698,0.103648,0.000594004,0,0,0,0,0,0,0,-1.05969,-30.8525,-0.487047,24.761,0.880428,2.58904,0.0907442,
0.0217829,0.00398934,0.23669,-2.13025,0.255729,0.461633,-0.0842709,0.095324,-0.00900863,0.0948267,-0.0638891,-0.073842,0.120844,-0.00214633,-0.911118,-0.127647,-0.910663,1.18434,1.65969,-2.0715,-0.10232,0,0,0,0,0,0,0,0.01915,0.00563493,0.23538,-2.12912,0.257519,0.458636,-0.0841482,0.0123501,0.0835438,0.179999,-0.0361175,-0.065889,0.0636878,0.000400433,-11.5364,17.251,8.64336,8.43649,-0.564889,-4.99499,-0.0241963,0.487552,-34.3715,0.43733,26.5543,1.01501,2.8875,0.0843355,
0.0224811,0.00391576,0.237384,-2.13068,0.255242,0.462474,-0.0842939,0.0937142,-0.00904639,0.0932179,-0.062057,-0.0712504,0.117708,-0.00229294,-1.00609,-0.0235975,-1.00547,1.14511,1.61978,-1.96042,-0.0916334,0,0,0,0,0,0,0,0.01915,0.00563493,0.23538,-2.12912,0.257519,0.458636,-0.0841482,0.0123501,0.0835438,0.179999,-0.0361175,-0.065889,0.0636878,0.000400433,0,0,0,0,0,0,0,0.487552,-34.3715,0.43733,26.5543,1.01501,2.8875,0.0843355,
0.0233375,0.00651413,0.239551,-2.13228,0.252987,0.463521,-0.0842785,0.0914127,-0.00660265,0.0908718,-0.0612376,-0.0775024,0.114642,-0.00241774,-1.43843,1.52733,-1.46637,0.512086,-3.90753,-1.91625,-0.0779951,0,0,0,0,0,0,0,0.01915,0.00563493,0.23538,-2.12912,0.257519,0.458636,-0.0841482,0.0123501,0.0835438,0.179999,-0.0361175,-0.065889,0.0636878,0.000400433,0,0,0,0,0,0,0,0.487552,-34.3715,0.43733,26.5543,1.01501,2.8875,0.0843355,
0.0239797,0.00652163,0.240188,-2.13272,0.252171,0.464344,-0.0843023,0.0891849,-0.00509454,0.0886061,-0.0599448,-0.0823885,0.112279,-0.00252785,-1.39238,0.942573,-1.41601,0.807986,-3.05381,-1.47645,-0.0688221,0,0,0,0,0,0,0,0.01915,0.00563493,0.23538,-2.12912,0.257519,0.458636,-0.0841482,0.0123501,0.0835438,0.179999,-0.0361175,-0.065889,0.0636878,0.000400433,0,0,0,0,0,0,0,0.487552,-34.3715,0.43733,26.5543,1.01501,2.8875,0.0843355,
0.0246068,0.00651621,0.240809,-2.13313,0.25136,0.465169,-0.0843262,0.0870265,-0.00421123,0.0864158,-0.0583321,-0.0861897,0.110455,-0.00261969,-1.34905,0.552067,-1.36898,1.00798,-2.37576,-1.14037,-0.0574016,0,0,0,0,0,0,0,0.0216844,0.00564304,0.239045,-2.13138,0.255792,0.460587,-0.0841606,0.0318586,-0.050963,0.143295,-0.0818606,-0.0553023,0.0620554,-0.00114421,2.43857,-16.8133,-4.5879,-5.71789,1.32333,-0.204058,-0.193081,0.892215,-33.6733,0.26277,25.257,0.929867,2.68151,0.110886,
0.0235856,0.00638074,0.239805,-2.13243,0.251852,0.46485,-0.0842552,0.0873983,-0.00324559,0.0867937,-0.0587208,-0.0951194,0.115814,-0.00261603,0.232412,0.603526,0.236178,-0.242919,-5.58105,3.34974,0.00229283,0,0,0,0,0,0,0,0.0216844,0.00564304,0.239045,-2.13138,0.255792,0.460587,-0.0841606,0.0318586,-0.050963,0.143295,-0.0818606,-0.0553023,0.0620554,-0.00114421,0,0,0,0,0,0,0,0.892215,-33.6733,0.26277,25.257,0.929867,2.68151,0.110886,
0.0258823,0.00481857,0.24323,-2.13387,0.250197,0.466442,-0.0842721,0.0866249,-0.00467789,0.086043,-0.0561116,-0.101953,0.121036,-0.00262731,-0.483411,-0.89519,-0.46914,1.63073,-4.27126,3.26349,-0.00705489,0,0,0,0,0,0,0,0.0216844,0.00564304,0.239045,-2.13138,0.255792,0.460587,-0.0841606,0.0318586,-0.050963,0.143295,-0.0818606,-0.0553023,0.0620554,-0.00114421,0,0,0,0,0,0,0,0.892215,-33.6733,0.26277,25.257,0.929867,2.68151,0.110886,
0.0265349,0.00474142,0.243879,-2.13422,0.249133,0.467589,-0.0842933,0.0856158,-0.00567107,0.0850521,-0.0536578,-0.108152,0.125503,-0.00263073,-0.630662,-0.620735,-0.619334,1.5336,-3.87404,2.79195,-0.00213698,0,0,0,0,0,0,0,0.0216844,0.00564304,0.239045,-2.13138,0.255792,0.460587,-0.0841606,0.0318586,-0.050963,0.143295,-0.0818606,-0.0553023,0.0620554,-0.00114421,0,0,0,0,0,0,0,0.892215,-33.6733,0.26277,25.257,0.929867,2.68151,0.110886,
0.0271722,0.00466856,0.244512,-2.13455,0.248034,0.468742,-0.0843139,0.0844239,-0.00635845,0.0838747,-0.0513387,-0.114005,0.12922,-0.0026203,-0.744906,-0.429611,-0.735905,1.44948,-3.65844,2.32306,0.0065212,0,0,0,0,0,0,0,0.0250699,0.00564163,0.2415,-2.13358,0.253653,0.462635,-0.0841714,0.148079,0.0227202,0.0155018,-0.0492316,-0.0670968,0.0576035,-0.000100893,14.5275,9.2104,-15.9742,4.07863,-1.47431,-0.556485,0.130415,-0.805783,-31.3008,-0.812364,25.6577,1.00311,2.84081,0.0779268,
0.0289178,0.00568891,0.245329,-2.13617,0.250087,0.469413,-0.0841287,0.0873493,-0.00603232,0.0868556,-0.0525368,-0.109397,0.140015,-0.00197395,1.82836,0.203828,1.86307,-0.748836,2.88,6.74725,0.403965,0,0,0,0,0,0,0,0.0250699,0.00564163,0.2415,-2.13358,0.253653,0.462635,-0.0841714,0.148079,0.0227202,0.0155018,-0.0492316,-0.0670968,0.0576035,-0.000100893,0,0,0,0,0,0,0,-0.805783,-31.3008,-0.812364,25.6577,1.00311,2.84081,0.0779268,
0.0297083,0.00563595,0.246117,-2.13659,0.249362,0.470861,-0.0841241,0.0896427,-0.00614986,0.0891907,-0.0527589,-0.105661,0.148213,-0.00146262,1.43335,-0.0734609,1.45945,-0.138797,2.33495,5.1233,0.319582,0,0,0,0,0,0,0,0.0250699,0.00564163,0.2415,-2.13358,0.253653,0.462635,-0.0841714,0.148079,0.0227202,0.0155018,-0.0492316,-0.0670968,0.0576035,-0.000100893,0,0,0,0,0,0,0,-0.805783,-31.3008,-0.812364,25.6577,1.00311,2.84081,0.0779268,
0.0304939,0.00557075,0.2469,-2.137,0.248627,0.472283,-0.0841192,0.0913549,-0.00654985,0.0909352,-0.0522798,-0.102892,0.15412,-0.00104951,1.07012,-0.249995,1.0903,0.2994,1.73072,3.69187,0.258195,0,0,0,0,0,0,0,0.0250699,0.00564163,0.2415,-2.13358,0.253653,0.462635,-0.0841714,0.148079,0.0227202,0.0155018,-0.0492316,-0.0670968,0.0576035,-0.000100893,0,0,0,0,0,0,0,-0.805783,-31.3008,-0.812364,25.6577,1.00311,2.84081,0.0779268,
0.0312726,0.00549587,0.247677,-2.13738,0.247869,0.473676,-0.0841138,0.0925517,-0.00711183,0.0921578,-0.051306,-0.10126,0.158112,-0.000702746,0.748025,-0.351238,0.764149,0.608647,1.02013,2.49529,0.216728,0,0,0,0,0,0,0,0.0282504,0.00659569,0.243883,-2.13513,0.250501,0.464935,-0.0841816,0.0927906,0.0447635,0.0579273,-0.0377932,-0.0935084,0.0722749,0.000159023,-6.91103,2.75542,5.30319,1.4298,-3.30145,1.83393,0.0324895,-0.730404,-35.3435,-0.360094,25.856,0.862118,2.96715,0.0843355,
0.032126,0.00667493,0.247779,-2.13813,0.247139,0.473084,-0.0840465,0.0947786,-0.00687525,0.0945506,-0.0542765,-0.0971712,0.169164,3.77974e-05,1.39178,0.147861,1.49552,-1.85655,2.55555,6.90709,0.46284,0,0,0,0,0,0,0,0.0282504,0.00659569,0.243883,-2.13513,0.250501,0.464935,-0.0841816,0.0927906,0.0447635,0.0579273,-0.0377932,-0.0935084,0.0722749,0.000159023,0,0,0,0,0,0,0,-0.730404,-35.3435,-0.360094,25.856,0.862118,2.96715,0.0843355,
0.0329628,0.00661393,0.248619,-2.13862,0.24649,0.474757,-0.0840225,0.0967447,-0.00702521,0.0966436,-0.0557302,-0.0939584,0.177179,0.000629059,1.22884,-0.0937241,1.30807,-0.908548,2.00804,5.00973,0.369539,0,0,0,0,0,0,0,0.0282504,0.00659569,0.243883,-2.13513,0.250501,0.464935,-0.0841816,0.0927906,0.0447635,0.0579273,-0.0377932,-0.0935084,0.0722749,0.000159023,0,0,0,0,0,0,0,-0.730404,-35.3435,-0.360094,25.856,0.862118,2.96715,0.0843355,
0.0338021,0.00654297,0.249461,-2.13908,0.245821,0.476391,-0.0839982,0.0983776,-0.00739406,0.0983733,-0.0560955,-0.0918898,0.182587,0.00111124,1.02056,-0.23053,1.08111,-0.228371,1.29288,3.37986,0.301365,0,0,0,0,0,0,0,0.0282504,0.00659569,0.243883,-2.13513,0.250501,0.464935,-0.0841816,0.0927906,0.0447635,0.0579273,-0.0377932,-0.0935084,0.0722749,0.000159023,0,0,0,0,0,0,0,-0.730404,-35.3435,-0.360094,25.856,0.862118,2.96715,0.0843355,
0.0346403,0.00646486,0.250302,-2.13951,0.245114,0.477981,-0.0839729,0.0996558,-0.00786812,0.0997254,-0.0556898,-0.0912071,0.185824,0.00152152,0.798899,-0.296286,0.845017,0.253614,0.426682,2.02338,0.256421,0,0,0,0,0,0,0,0.0303814,0.00620346,0.247438,-2.13737,0.247883,0.46843,-0.0841865,0.00345158,-0.0575203,0.172768,-0.0890089,-0.0643204,0.114093,0.0005366,-11.1674,-12.7855,14.3552,-6.40196,3.6485,5.2272,0.0471971,1.04694,-31.1263,1.01259,24.8364,0.758663,2.89391,0.0843355,
0.0346985,0.00512774,0.251756,-2.14023,0.244968,0.477576,-0.083977,0.102302,-0.00998303,0.102274,-0.0569405,-0.0878076,0.197802,0.00216312,1.65357,-1.32182,1.5932,-0.781707,2.12466,7.48608,0.401005,0,0,0,0,0,0,0,0.0303814,0.00620346,0.247438,-2.13737,0.247883,0.46843,-0.0841865,0.00345158,-0.0575203,0.172768,-0.0890089,-0.0643204,0.114093,0.0005366,0,0,0,0,0,0,0,1.04694,-31.1263,1.01259,24.8364,0.758663,2.89391,0.0843355,
0.0356026,0.00499095,0.252656,-2.14069,0.244339,0.479502,-0.0839389,0.104444,-0.0114063,0.10434,-0.0572354,-0.0859713,0.20637,0.00268492,1.33874,-0.889522,1.29078,-0.184311,1.14768,5.3547,0.326122,0,0,0,0,0,0,0,0.0303814,0.00620346,0.247438,-2.13737,0.247883,0.46843,-0.0841865,0.00345158,-0.0575203,0.172768,-0.0890089,-0.0643204,0.114093,0.0005366,0,0,0,0,0,0,0,1.04694,-31.1263,1.01259,24.8364,0.758663,2.89391,0.0843355,
0.0365039,0.00486089,0.253555,-2.14114,0.243662,0.481369,-0.0839002,0.106087,-0.0123763,0.105923,-0.0568578,-0.0856897,0.211784,0.00311395,1.02711,-0.60626,0.989581,0.235999,0.176056,3.38384,0.268143,0,0,0,0,0,0,0,0.0303814,0.00620346,0.247438,-2.13737,0.247883,0.46843,-0.0841865,0.00345158,-0.0575203,0.172768,-0.0890089,-0.0643204,0.114093,0.0005366,0,0,0,0,0,0,0,1.04694,-31.1263,1.01259,24.8364,0.758663,2.89391,0.0843355,
0.0374,0.00473533,0.254447,-2.14156,0.242931,0.483169,-0.0838605,0.10727,-0.0130402,0.10706,-0.0560074,-0.0868357,0.214415,0.00348396,0.739575,-0.414965,0.710764,0.531525,-0.716265,1.64435,0.231259,0,0,0,0,0,0,0,0.032939,0.00681022,0.25072,-2.13913,0.245613,0.472773,-0.0841885,0.0783773,0.0706379,0.0914531,-0.0225773,-0.0673828,0.147649,-0.00135291,9.36572,16.0198,-10.1644,8.30395,-0.382796,4.19462,-0.236189,2.11017,-33.6971,1.71083,25.7568,0.91705,2.95983,0.131027,
0.0370978,0.00727606,0.254889,-2.14217,0.24228,0.482816,-0.0839309,0.107866,-0.0106176,0.107712,-0.0587066,-0.0890569,0.219608,0.00404311,0.372076,1.51417,0.407028,-1.68702,-1.38828,3.24615,0.349466,0,0,0,0,0,0,0,0.032939,0.00681022,0.25072,-2.13913,0.245613,0.472773,-0.0841885,0.0783773,0.0706379,0.0914531,-0.0225773,-0.0673828,0.147649,-0.00135291,0,0,0,0,0,0,0,2.11017,-33.6971,1.71083,25.7568,0.91705,2.95983,0.131027,
0.0379867,0.00724537,0.255778,-2.14269,0.241472,0.484642,-0.0838812,0.108513,-0.0092611,0.108396,-0.0600158,-0.091448,0.22135,0.00447632,0.404718,0.847784,0.427691,-0.818285,-1.4944,1.08844,0.27076,0,0,0,0,0,0,0,0.032939,0.00681022,0.25072,-2.13913,0.245613,0.472773,-0.0841885,0.0783773,0.0706379,0.0914531,-0.0225773,-0.0673828,0.147649,-0.00135291,0,0,0,0,0,0,0,2.11017,-33.6971,1.71083,25.7568,0.91705,2.95983,0.131027,
0.0388777,0.00719731,0.256669,-2.14319,0.240656,0.486366,-0.0838328,0.109086,-0.00861058,0.108991,-0.0603021,-0.0935621,0.220164,0.00478973,0.357789,0.406577,0.372094,-0.17892,-1.32135,-0.741218,0.195882,0,0,0,0,0,0,0,0.032939,0.00681022,0.25072,-2.13913,0.245613,0.472773,-0.0841885,0.0783773,0.0706379,0.0914531,-0.0225773,-0.0673828,0.147649,-0.00135291,0,0,0,0,0,0,0,2.11017,-33.6971,1.71083,25.7568,0.91705,2.95983,0.131027,
0.0371102,0.00699974,0.254895,-2.14235,0.242276,0.48285,-0.0838905,0.109366,-0.00829232,0.109282,-0.0627052,-0.0917388,0.223784,0.00516359,0.175391,0.198916,0.181725,-1.50191,1.13959,2.26258,0.233657,0,0,0,0,0,0,0,0.032939,0.00681022,0.25072,-2.13913,0.245613,0.472773,-0.0841885,0.0783773,0.0706379,0.0914531,-0.0225773,-0.0673828,0.147649,-0.00135291,0,0,0,0,0,0,0,2.11017,-33.6971,1.71083,25.7568,0.91705,2.95983,0.131027,
0.0380001,0.00692629,0.255784,-2.14289,0.241653,0.484639,-0.0838371,0.10974,-0.00847009,0.10966,-0.0636337,-0.0889665,0.223756,0.00546514,0.233655,-0.111109,0.23649,-0.580313,1.7327,-0.0174838,0.188474,0,0,0,0,0,0,0,0.0364796,0.00696265,0.253269,-2.14116,0.24333,0.47834,-0.084184,0.145499,-0.0414499,0.0306616,-0.0773604,-0.070321,0.17492,0.00067081,8.39021,-14.011,-7.59894,-6.84789,-0.367274,3.40887,0.252966,0.233646,-33.5225,0.536512,25.3323,0.764157,2.73461,0.104477,
0.0388927,0.00684071,0.256676,-2.14339,0.241066,0.486315,-0.0837808,0.110106,-0.00891548,0.110028,-0.063536,-0.0858438,0.220913,0.0057806,0.229007,-0.278366,0.229621,0.0610539,1.95169,-1.77676,0.197161,0,0,0,0,0,0,0,0.0364796,0.00696265,0.253269,-2.14116,0.24333,0.47834,-0.084184,0.145499,-0.0414499,0.0306616,-0.0773604,-0.070321,0.17492,0.00067081,0,0,0,0,0,0,0,0.233646,-33.5225,0.536512,25.3323,0.764157,2.73461,0.104477,
0.0397849,0.00674673,0.257568,-2.14387,0.240515,0.487887,-0.0837182,0.110391,-0.0094819,0.110313,-0.0627796,-0.0824645,0.216026,0.00618848,0.177968,-0.354013,0.178079,0.472736,2.11206,-3.05476,0.254924,0,0,0,0,0,0,0,0.0364796,0.00696265,0.253269,-2.14116,0.24333,0.47834,-0.084184,0.145499,-0.0414499,0.0306616,-0.0773604,-0.070321,0.17492,0.00067081,0,0,0,0,0,0,0,0.233646,-33.5225,0.536512,25.3323,0.764157,2.73461,0.104477,
0.0408065,0.00595944,0.25759,-2.1441,0.240482,0.488071,-0.0838261,0.110954,-0.0113436,0.110901,-0.0634128,-0.0779504,0.22018,0.00689071,0.351542,-1.16355,0.367777,-0.395759,2.82129,2.5965,0.438892,0,0,0,0,0,0,0,0.0364796,0.00696265,0.253269,-2.14116,0.24333,0.47834,-0.084184,0.145499,-0.0414499,0.0306616,-0.0773604,-0.070321,0.17492,0.00067081,0,0,0,0,0,0,0,0.233646,-33.5225,0.536512,25.3323,0.764157,2.73461,0.104477,
0.0417088,0.0058173,0.258493,-2.14461,0.240085,0.489868,-0.0837643,0.111323,-0.0126284,0.111288,-0.0633976,-0.0722994,0.221085,0.00705783,0.230521,-0.803009,0.241728,0.00948717,3.53189,0.565304,0.104455,0,0,0,0,0,0,0,0.0394188,0.00677029,0.256852,-2.14332,0.241155,0.484443,-0.0841815,0.0352814,0.0182231,0.164427,-0.0516955,-0.0535029,0.179091,-0.000289677,-13.7772,7.45912,16.7207,3.20811,2.10227,0.521371,-0.120061,0.717655,-31.0509,0.889601,25.6815,0.893246,2.86736,0.110886,
0.0426142,0.00568168,0.259398,-2.14509,0.239546,0.491617,-0.0837015,0.111692,-0.0134932,0.111671,-0.0628725,-0.071319,0.220599,0.00721718,0.230722,-0.540532,0.239186,0.328192,0.612723,-0.303528,0.0995891,0,0,0,0,0,0,0,0.0394188,0.00677029,0.256852,-2.14332,0.241155,0.484443,-0.0841815,0.0352814,0.0182231,0.164427,-0.0516955,-0.0535029,0.179091,-0.000289677,0,0,0,0,0,0,0,0.717655,-31.0509,0.889601,25.6815,0.893246,2.86736,0.110886,
0.0435177,0.00555056,0.260302,-2.14556,0.238925,0.493301,-0.0836312,0.111942,-0.0140725,0.111932,-0.0620151,-0.0725658,0.218565,0.00753074,0.156624,-0.362068,0.163226,0.535877,-0.779265,-1.27135,0.195979,0,0,0,0,0,0,0,0.0394188,0.00677029,0.256852,-2.14332,0.241155,0.484443,-0.0841815,0.0352814,0.0182231,0.164427,-0.0516955,-0.0535029,0.179091,-0.000289677,0,0,0,0,0,0,0,0.717655,-31.0509,0.889601,25.6815,0.893246,2.86736,0.110886,
0.0438721,0.00663088,0.261313,-2.14629,0.238376,0.493681,-0.0837909,0.112429,-0.0128328,0.11238,-0.0634101,-0.0750137,0.218588,0.007909,0.304236,0.774854,0.27992,-0.871889,-1.52989,0.0145504,0.236412,0,0,0,0,0,0,0,0.0394188,0.00677029,0.256852,-2.14332,0.241155,0.484443,-0.0841815,0.0352814,0.0182231,0.164427,-0.0516955,-0.0535029,0.179091,-0.000289677,0,0,0,0,0,0,0,0.717655,-31.0509,0.889601,25.6815,0.893246,2.86736,0.110886,
0.0447793,0.00655707,0.262218,-2.14682,0.23775,0.495321,-0.0837368,0.112622,-0.0121115,0.112537,-0.0639552,-0.0756672,0.215885,0.00768057,0.120844,0.450817,0.0982904,-0.340653,-0.408466,-1.68944,-0.142768,0,0,0,0,0,0,0,0.0422234,0.00745027,0.26061,-2.14479,0.239411,0.490304,-0.0841808,0.00827701,0.0203015,0.169701,-0.042665,-0.0445403,0.162248,0.00076921,-3.37555,0.259802,0.659195,1.12881,1.12033,-2.10548,0.132361,2.01099,-35.2959,1.46089,25.6339,0.776974,2.68151,0.11821,
0.0456882,0.00647573,0.263125,-2.14733,0.236953,0.496921,-0.0836752,0.112821,-0.0117227,0.112706,-0.0638825,-0.080445,0.2127,0.00768448,0.124361,0.242981,0.10561,0.0454308,-2.98612,-1.99057,0.00244086,0,0,0,0,0,0,0,0.0422234,0.00745027,0.26061,-2.14479,0.239411,0.490304,-0.0841808,0.00827701,0.0203015,0.169701,-0.042665,-0.0445403,0.162248,0.00076921,0,0,0,0,0,0,0,2.01099,-35.2959,1.46089,25.6339,0.776974,2.68151,0.11821,
0.0464226,0.00713096,0.26483,-2.14782,0.235975,0.499531,-0.0838208,0.112259,-0.0118058,0.112175,-0.0652855,-0.0850937,0.21463,0.00768638,-0.351256,-0.0519093,-0.331665,-0.876874,-2.90544,1.20645,0.0011896,0,0,0,0,0,0,0,0.0422234,0.00745027,0.26061,-2.14479,0.239411,0.490304,-0.0841808,0.00827701,0.0203015,0.169701,-0.042665,-0.0445403,0.162248,0.00076921,0,0,0,0,0,0,0,2.01099,-35.2959,1.46089,25.6339,0.776974,2.68151,0.11821,
0.0473031,0.0070269,0.265711,-2.14836,0.23518,0.50123,-0.0837692,0.11182,-0.0120459,0.111757,-0.065884,-0.0879623,0.214182,0.00743843,-0.274404,-0.150115,-0.261383,-0.374034,-1.79289,-0.280044,-0.15497,0,0,0,0,0,0,0,0.0422234,0.00745027,0.26061,-2.14479,0.239411,0.490304,-0.0841808,0.00827701,0.0203015,0.169701,-0.042665,-0.0445403,0.162248,0.00076921,0,0,0,0,0,0,0,2.01099,-35.2959,1.46089,25.6339,0.776974,2.68151,0.11821,
0.0481868,0.00691903,0.266595,-2.14889,0.234299,0.50289,-0.0837106,0.111548,-0.0123335,0.111499,-0.0658839,-0.0923798,0.212842,0.00741569,-0.170441,-0.179751,-0.161371,5.94234e-05,-2.76092,-0.837901,-0.0142139,0,0,0,0,0,0,0,0.0458223,0.00702259,0.263686,-2.147,0.237658,0.495895,-0.0841792,0.121203,-0.0336914,0.0694864,-0.0809477,-0.0571802,0.167076,0.000766859,14.1157,-6.74911,-12.5268,-4.78533,-1.57999,0.603581,-0.000293811,0.765262,-30.5788,0.461134,24.4873,0.880428,2.70165,0.104477,
0.0490673,0.0068086,0.267475,-2.14939,0.233399,0.504466,-0.0836487,0.111252,-0.0126276,0.111214,-0.0653409,-0.0964185,0.20968,0.00748008,-0.18456,-0.183808,-0.177783,0.33937,-2.52418,-1.97611,0.0402484,0,0,0,0,0,0,0,0.0458223,0.00702259,0.263686,-2.147,0.237658,0.495895,-0.0841792,0.121203,-0.0336914,0.0694864,-0.0809477,-0.0571802,0.167076,0.000766859,0,0,0,0,0,0,0,0.765262,-30.5788,0.461134,24.4873,0.880428,2.70165,0.104477,
0.0502035,0.00623222,0.268061,-2.14994,0.233329,0.50418,-0.0838519,0.111404,-0.0132503,0.111354,-0.0657613,-0.100118,0.207462,0.00705863,0.0948208,-0.389164,0.087236,-0.262769,-2.31244,-1.38624,-0.263405,0,0,0,0,0,0,0,0.0458223,0.00702259,0.263686,-2.147,0.237658,0.495895,-0.0841792,0.121203,-0.0336914,0.0694864,-0.0809477,-0.0571802,0.167076,0.000766859,0,0,0,0,0,0,0,0.765262,-30.5788,0.461134,24.4873,0.880428,2.70165,0.104477,
0.0511002,0.00611069,0.268957,-2.15046,0.232404,0.505708,-0.0838025,0.111541,-0.0136386,0.11148,-0.0657559,-0.103227,0.204171,0.00688255,0.0858061,-0.242715,0.0790983,0.00335508,-1.9427,-2.05654,-0.110053,0,0,0,0,0,0,0,0.0458223,0.00702259,0.263686,-2.147,0.237658,0.495895,-0.0841792,0.121203,-0.0336914,0.0694864,-0.0809477,-0.0571802,0.167076,0.000766859,0,0,0,0,0,0,0,0.765262,-30.5788,0.461134,24.4873,0.880428,2.70165,0.104477,
0.0519915,0.00599317,0.269848,-2.15098,0.231551,0.507204,-0.0837502,0.111514,-0.0138488,0.111444,-0.0655818,-0.103884,0.200742,0.00681513,-0.0167727,-0.131355,-0.0225616,0.108854,-0.410877,-2.14358,-0.0421395,0,0,0,0,0,0,0,0.0497084,0.00738245,0.266538,-2.14889,0.235153,0.501649,-0.084183,0.189124,0.03514,0.0013738,-0.0490807,-0.084542,0.168269,-0.0004242,8.4902,8.60393,-8.51407,3.98338,-3.42023,0.149149,-0.148882,-0.198788,-34.07,-0.16173,25.3839,0.813595,2.78771,0.138352,
0.0528774,0.00587848,0.270733,-2.15148,0.230694,0.508603,-0.0836953,0.111359,-0.0139464,0.111283,-0.06493,-0.104531,0.195551,0.00682441,-0.0969617,-0.0609827,-0.10106,0.407354,-0.404548,-3.24423,0.0057995,0,0,0,0,0,0,0,0.0497084,0.00738245,0.266538,-2.14889,0.235153,0.501649,-0.084183,0.189124,0.03514,0.0013738,-0.0490807,-0.084542,0.168269,-0.0004242,0,0,0,0,0,0,0,-0.198788,-34.07,-0.16173,25.3839,0.813595,2.78771,0.138352,
0.0539787,0.00739692,0.27079,-2.15197,0.230776,0.509704,-0.0839112,0.110896,-0.0125897,0.110806,-0.0663989,-0.105158,0.192716,0.00629803,-0.289755,0.847915,-0.297994,-0.91805,-0.391472,-1.7719,-0.328987,0,0,0,0,0,0,0,0.0497084,0.00738245,0.266538,-2.14889,0.235153,0.501649,-0.084183,0.189124,0.03514,0.0013738,-0.0490807,-0.084542,0.168269,-0.0004242,0,0,0,0,0,0,0,-0.198788,-34.07,-0.16173,25.3839,0.813595,2.78771,0.138352,
0.0548534,0.00732549,0.271664,-2.15253,0.229939,0.511071,-0.0838736,0.110583,-0.0118576,0.110479,-0.0671259,-0.10507,0.188344,0.00597982,-0.195586,0.457606,-0.20406,-0.454364,0.0549079,-2.73232,-0.198881,0,0,0,0,0,0,0,0.0497084,0.00738245,0.266538,-2.14889,0.235153,0.501649,-0.084183,0.189124,0.03514,0.0013738,-0.0490807,-0.084542,0.168269,-0.0004242,0,0,0,0,0,0,0,-0.198788,-34.07,-0.16173,25.3839,0.813595,2.78771,0.138352,
0.0557242,0.00724504,0.272533,-2.15308,0.229217,0.512391,-0.0838335,0.110237,-0.0114974,0.110119,-0.0674776,-0.102089,0.183682,0.00578649,-0.216409,0.225086,-0.225362,-0.219861,1.86278,-2.91363,-0.12083,0,0,0,0,0,0,0,0.0497084,0.00738245,0.266538,-2.14889,0.235153,0.501649,-0.084183,0.189124,0.03514,0.0013738,-0.0490807,-0.084542,0.168269,-0.0004242,0,0,0,0,0,0,0,-0.198788,-34.07,-0.16173,25.3839,0.813595,2.78771,0.138352,
0.0565914,0.00715814,0.273399,-2.15361,0.228532,0.513615,-0.0837904,0.10987,-0.0113705,0.10974,-0.0672534,-0.0988134,0.177546,0.00570713,-0.229269,0.0793242,-0.236588,0.140125,2.04754,-3.83522,-0.0495962,0,0,0,0,0,0,0,0.0497084,0.00738245,0.266538,-2.14889,0.235153,0.501649,-0.084183,0.189124,0.03514,0.0013738,-0.0490807,-0.084542,0.168269,-0.0004242,0,0,0,0,0,0,0,-0.198788,-34.07,-0.16173,25.3839,0.813595,2.78771,0.138352,
0.0539336,0.00726208,0.270749,-2.15202,0.231264,0.509132,-0.0839764,0.10941,-0.0110951,0.109304,-0.068597,-0.0957184,0.175169,0.00491057,-0.287543,0.17213,-0.272663,-0.839731,1.93438,-1.48544,-0.497853,0,0,0,0,0,0,0,0.0497084,0.00738245,0.266538,-2.14889,0.235153,0.501649,-0.084183,0.189124,0.03514,0.0013738,-0.0490807,-0.084542,0.168269,-0.0004242,0,0,0,0,0,0,0,-0.198788,-34.07,-0.16173,25.3839,0.813595,2.78771,0.138352,
0.0547953,0.0071722,0.271611,-2.15259,0.230658,0.510386,-0.0839673,0.10907,-0.0111229,0.108981,-0.069295,-0.0917183,0.171499,0.0041542,-0.212354,-0.0174082,-0.202051,-0.436253,2.50002,-2.29392,-0.472732,0,0,0,0,0,0,0,0.0497084,0.00738245,0.266538,-2.14889,0.235153,0.501649,-0.084183,0.189124,0.03514,0.0013738,-0.0490807,-0.084542,0.168269,-0.0004242,0,0,0,0,0,0,0,-0.198788,-34.07,-0.16173,25.3839,0.813595,2.78771,0.138352,
0.0556534,0.00707701,0.272469,-2.15316,0.23016,0.511624,-0.0839575,0.108707,-0.0112781,0.108629,-0.0696947,-0.0858412,0.16815,0.00357005,-0.226957,-0.0969955,-0.21962,-0.24983,3.67319,-2.09344,-0.365096,0,0,0,0,0,0,0,0.0536179,0.00702841,0.269741,-2.15122,0.232358,0.507253,-0.0841773,0.137096,-0.0307369,0.0698522,-0.0758921,-0.0787707,0.148468,0.00137703,-6.50355,-8.23461,8.5598,-3.35143,0.721417,-2.4752,0.225153,-0.373349,-31.4,0.361952,25.3085,0.831906,2.87377,0.0907442,
0.0550752,0.00678124,0.271912,-2.15313,0.229136,0.512239,-0.0838609,0.109738,-0.0123282,0.109663,-0.0718512,-0.0877006,0.174017,0.00326624,0.644373,-0.656264,0.645913,-1.34778,-1.16208,3.66742,-0.189878,0,0,0,0,0,0,0,0.0536179,0.00702841,0.269741,-2.15122,0.232358,0.507253,-0.0841773,0.137096,-0.0307369,0.0698522,-0.0758921,-0.0787707,0.148468,0.00137703,0,0,0,0,0,0,0,-0.373349,-31.4,0.361952,25.3085,0.831906,2.87377,0.0907442,
0.0588874,0.00603118,0.275005,-2.15484,0.228727,0.515587,-0.084133,0.109634,-0.0132606,0.109572,-0.0716728,-0.0859783,0.1721,0.00212182,-0.064715,-0.582774,-0.0568923,0.111491,1.07645,-1.19817,-0.715264,0,0,0,0,0,0,0,0.0536179,0.00702841,0.269741,-2.15122,0.232358,0.507253,-0.0841773,0.137096,-0.0307369,0.0698522,-0.0758921,-0.0787707,0.148468,0.00137703,0,0,0,0,0,0,0,-0.373349,-31.4,0.361952,25.3085,0.831906,2.87377,0.0907442,
0.0597545,0.00590094,0.275872,-2.15541,0.228028,0.516936,-0.0841519,0.109384,-0.0138645,0.109332,-0.0714915,-0.086249,0.171417,0.00122595,-0.156146,-0.377419,-0.149678,0.113312,-0.169226,-0.426841,-0.559916,0,0,0,0,0,0,0,0.0536179,0.00702841,0.269741,-2.15122,0.232358,0.507253,-0.0841773,0.137096,-0.0307369,0.0698522,-0.0758921,-0.0787707,0.148468,0.00137703,0,0,0,0,0,0,0,-0.373349,-31.4,0.361952,25.3085,0.831906,2.87377,0.0907442,
0.0606125,0.00577492,0.27673,-2.15597,0.227275,0.518284,-0.0841723,0.108958,-0.0142422,0.108915,-0.0711216,-0.0878231,0.170839,0.000469379,-0.266553,-0.236078,-0.261015,0.23116,-0.98378,-0.361582,-0.472859,0,0,0,0,0,0,0,0.0536179,0.00702841,0.269741,-2.15122,0.232358,0.507253,-0.0841773,0.137096,-0.0307369,0.0698522,-0.0758921,-0.0787707,0.148468,0.00137703,0,0,0,0,0,0,0,-0.373349,-31.4,0.361952,25.3085,0.831906,2.87377,0.0907442,
0.0607031,0.0070004,0.277942,-2.15642,0.22565,0.518734,-0.0842341,0.108358,-0.0131079,0.108276,-0.0722174,-0.0945018,0.170663,6.5416e-06,-0.374721,0.708928,-0.398912,-0.684842,-4.17421,-0.10968,-0.289273,0,0,0,0,0,0,0,0.0565738,0.00718344,0.273803,-2.15329,0.229732,0.512059,-0.0841814,0.0102127,0.0162882,0.177355,-0.0541783,-0.0611367,0.119659,0.000365767,-15.8604,5.87813,13.4379,2.71423,2.20425,-3.60107,-0.126408,0.209842,-33.1972,0.413527,24.5865,0.880428,2.62841,0.110886,
0.0615495,0.00692482,0.278786,-2.15702,0.224656,0.52006,-0.0842497,0.107846,-0.0123759,0.10773,-0.0726763,-0.100434,0.169663,-0.000385216,-0.320063,0.457481,-0.341569,-0.286839,-3.70739,-0.62528,-0.244848,0,0,0,0,0,0,0,0.0565738,0.00718344,0.273803,-2.15329,0.229732,0.512059,-0.0841814,0.0102127,0.0162882,0.177355,-0.0541783,-0.0611367,0.119659,0.000365767,0,0,0,0,0,0,0,0.209842,-33.1972,0.413527,24.5865,0.880428,2.62841,0.110886,
