xiao-wang007/linearmpc_panda/paper_data/panda_inverse_dynamics_controller_error_match_to_start/0/trajectory.csv
Commanded Joint 0 Position,Commanded Joint 1 Position,Commanded Joint 2 Position,Commanded Joint 3 Position,Commanded Joint 4 Position,Commanded Joint 5 Position,Commanded Joint 6 Position,Commanded Joint 0 Velocity,Commanded Joint 1 Velocity,Commanded Joint 2 Velocity,Commanded Joint 3 Velocity,Commanded Joint 4 Velocity,Commanded Joint 5 Velocity,Commanded Joint 6 Velocity,Commanded Joint 0 Acceleration,Commanded Joint 1 Acceleration,Commanded Joint 2 Acceleration,Commanded Joint 3 Acceleration,Commanded Joint 4 Acceleration,Commanded Joint 5 Acceleration,Commanded Joint 6 Acceleration,Commanded Joint 0 Torque,Commanded Joint 1 Torque,Commanded Joint 2 Torque,Commanded Joint 3 Torque,Commanded Joint 4 Torque,Commanded Joint 5 Torque,Commanded Joint 6 Torque,Actual Joint 0 Position,Actual Joint 1 Position,Actual Joint 2 Position,Actual Joint 3 Position,Actual Joint 4 Position,Actual Joint 5 Position,Actual Joint 6 Position,Actual Joint 0 Velocity,Actual Joint 1 Velocity,Actual Joint 2 Velocity,Actual Joint 3 Velocity,Actual Joint 4 Velocity,Actual Joint 5 Velocity,Actual Joint 6 Velocity,Actual Joint 0 Acceleration,Actual Joint 1 Acceleration,Actual Joint 2 Acceleration,Actual Joint 3 Acceleration,Actual Joint 4 Acceleration,Actual Joint 5 Acceleration,Actual Joint 6 Acceleration,Actual Joint 0 Torque,Actual Joint 1 Torque,Actual Joint 2 Torque,Actual Joint 3 Torque,Actual Joint 4 Torque,Actual Joint 5 Torque,Actual Joint 6 Torque,
0.0398012,-0.0635496,-0.0322373,-1.8983,-0.0152372,0.328872,-0.0103866,0.000289789,0.021008,0.000233462,-0.0340159,-0.00421178,0.0538295,-0.000368147,0.181118,13.13,0.145914,-21.2599,-2.63237,33.6434,-0.230092,0.0570963,22.6474,0.0530016,-24.5423,-0.547398,1.80621,-0.0238493,0.0397679,-0.0642735,-0.0322642,-1.89532,-0.0149851,0.323074,-0.0103378,0.000930105,0.000354741,0.000798407,-0.000524559,-0.00246849,0.00154036,0.000920946,0,0,0,0,0,0,0,0.134464,-33.7486,0.139784,27.4271,0.733944,3.11913,0.0239107,
0.039778,-0.0642637,-0.0322537,-1.89532,-0.0149966,0.323092,-0.0103383,0.000290258,0.0168818,0.000247423,-0.0272187,-0.00337031,0.0431859,-0.000298116,0.000292937,-2.5789,0.00872586,4.24823,0.525921,-6.65225,0.0437699,0.0513182,23.0911,0.0426194,-24.4578,-0.547625,1.55612,-0.0223378,0.0397688,-0.0641588,-0.0322638,-1.89539,-0.0149826,0.323068,-0.0103431,0.00542408,0.0041647,0.000106857,-0.00288338,-0.00233853,-0.000163699,-0.000222968,0.561746,0.476245,-0.0864437,-0.294853,0.0162447,-0.213008,-0.142989,0.158268,-33.4233,0.163588,27.3755,0.715634,3.17223,0.0706026,
0.0397798,-0.064261,-0.0322519,-1.89532,-0.0149953,0.323097,-0.0103384,0.000275652,0.0135743,0.000242841,-0.0217769,-0.00266569,0.0346615,-0.000240952,-0.00912901,-2.06718,-0.00286408,3.40111,0.440389,-5.32777,0.0357272,0.0440978,23.6627,0.0308649,-24.3497,-0.547079,1.20854,-0.0203688,0.0397688,-0.0641588,-0.0322638,-1.89539,-0.0149826,0.323068,-0.0103431,0.00542408,0.0041647,0.000106857,-0.00288338,-0.00233853,-0.000163699,-0.000222968,0,0,0,0,0,0,0,0.158268,-33.4233,0.163588,27.3755,0.715634,3.17223,0.0706026,
0.0397811,-0.0642584,-0.0322505,-1.89532,-0.0149936,0.323101,-0.0103384,0.000253465,0.0109231,0.000228208,-0.0174208,-0.00209022,0.0278371,-0.000194552,-0.0138666,-1.65696,-0.00914526,2.72261,0.35967,-4.26521,0.0289997,0.0381418,24.1868,0.0214249,-24.1819,-0.545018,0.823364,-0.0183684,0.0397688,-0.0641588,-0.0322638,-1.89539,-0.0149826,0.323068,-0.0103431,0.00542408,0.0041647,0.000106857,-0.00288338,-0.00233853,-0.000163699,-0.000222968,0,0,0,0,0,0,0,0.158268,-33.4233,0.163588,27.3755,0.715634,3.17223,0.0706026,
0.0397962,-0.0637291,-0.032239,-1.89597,-0.0151476,0.32335,-0.0103385,0.000887206,0.0194816,0.000802658,-0.028645,-0.00579665,0.0293082,-4.01145e-05,0.396088,5.34904,0.359031,-7.01512,-2.31652,0.919409,0.0965237,-2.0999e-05,28.8058,-0.00149761,-23.4462,-0.944308,-2.40878,0.00155462,0.0397688,-0.0641588,-0.0322638,-1.89539,-0.0149826,0.323068,-0.0103431,0.00542408,0.0041647,0.000106857,-0.00288338,-0.00233853,-0.000163699,-0.000222968,0,0,0,0,0,0,0,0.158268,-33.4233,0.163588,27.3755,0.715634,3.17223,0.0706026,
0.0397608,-0.0633167,-0.0322657,-1.89623,-0.0142527,0.322769,-0.0103578,-0.000174204,0.0258955,-2.63612e-05,-0.0292176,0.0177335,0.00892183,-0.000516799,-0.663381,4.00871,-0.518137,-0.35791,14.7063,-12.7415,-0.297928,0.497063,0.189706,0.492946,-0.245368,3.23463,-1.66292,-0.0016089,0.0397827,-0.0635021,-0.0322461,-1.89579,-0.0151055,0.322353,-0.0103417,0.00232155,0.032146,0.00221252,-0.038758,0.00133972,0.0119774,0.000325408,-0.387816,3.49767,0.263208,-4.48433,0.459782,1.51764,0.0685469,0.0551182,-30.2773,0.0366345,25.9552,0.6488,2.58904,0.0440523,
0.0397081,-0.0629878,-0.0323143,-1.89639,-0.0127394,0.321814,-0.0103699,-0.00145727,0.0289388,-0.00123593,-0.0273711,0.0520197,-0.0167294,-0.000714201,-0.801917,1.90204,-0.755977,1.15406,21.4289,-16.032,-0.123376,0.490671,0.187571,0.486437,-0.242572,3.20685,-1.64831,-0.00155638,0.0397827,-0.0635021,-0.0322461,-1.89579,-0.0151055,0.322353,-0.0103417,0.00232155,0.032146,0.00221252,-0.038758,0.00133972,0.0119774,0.000325408,0,0,0,0,0,0,0,0.0551182,-30.2773,0.0366345,25.9552,0.6488,2.58904,0.0440523,
0.0396563,-0.0627343,-0.0323647,-1.89651,-0.0108698,0.320669,-0.0103766,-0.00246123,0.0294876,-0.00224791,-0.0250014,0.0883559,-0.0420161,-0.000740005,-0.627472,0.343013,-0.632491,1.48108,22.7101,-15.8042,-0.0161277,0.484334,0.184836,0.480002,-0.240079,3.1793,-1.63376,-0.00153036,0.0397827,-0.0635021,-0.0322461,-1.89579,-0.0151055,0.322353,-0.0103417,0.00232155,0.032146,0.00221252,-0.038758,0.00133972,0.0119774,0.000325408,0,0,0,0,0,0,0,0.0551182,-30.2773,0.0366345,25.9552,0.6488,2.58904,0.0440523,
0.0398095,-0.0628651,-0.0322217,-1.89652,-0.0152785,0.322544,-0.0103363,-0.0012987,0.0395159,-0.00118747,-0.038464,0.0663605,-0.0288298,-0.000458241,0.726576,6.26769,0.662776,-8.41411,-13.7471,8.24139,0.176102,-3.72333e-05,28.8226,-0.00149438,-23.4376,-0.94336,-2.40004,0.00150506,0.0397827,-0.0635021,-0.0322461,-1.89579,-0.0151055,0.322353,-0.0103417,0.00232155,0.032146,0.00221252,-0.038758,0.00133972,0.0119774,0.000325408,0,0,0,0,0,0,0,0.0551182,-30.2773,0.0366345,25.9552,0.6488,2.58904,0.0440523,
0.0396935,-0.0622639,-0.0323113,-1.89663,-0.0120234,0.319644,-0.0103999,-0.00393907,0.0466404,-0.00318911,-0.0333936,0.134466,-0.0955793,-0.0019556,-1.65023,4.45278,-1.25103,3.16897,42.5658,-41.7184,-0.935851,3.91732,1.12104,3.94289,-1.79289,11.0561,-9.64822,-0.00892121,0.039854,-0.0633029,-0.0322114,-1.89659,-0.0148452,0.320312,-0.0103401,-0.000248412,0.101084,0.00415276,-0.039492,0.044401,-0.123475,-0.000209718,-0.321245,8.61719,0.24253,-0.0917543,5.38265,-16.9316,-0.0668906,0.590702,-22.664,0.639662,16.8384,0.740353,1.18279,0.0440523,
0.0395612,-0.0618231,-0.03243,-1.89663,-0.00674388,0.315119,-0.0104387,-0.00645835,0.0483347,-0.00551911,-0.0268367,0.23956,-0.189573,-0.0025345,-1.57455,1.05894,-1.45625,4.09809,65.6837,-58.7458,-0.36181,3.86137,1.19613,3.89354,-1.73181,11.0561,-9.50376,-0.00798687,0.039854,-0.0633029,-0.0322114,-1.89659,-0.0148452,0.320312,-0.0103401,-0.000248412,0.101084,0.00415276,-0.039492,0.044401,-0.123475,-0.000209718,0,0,0,0,0,0,0,0.590702,-22.664,0.639662,16.8384,0.740353,1.18279,0.0440523,
0.0398862,-0.062303,-0.0321818,-1.89751,-0.0148165,0.319815,-0.0103335,-0.00436116,0.0636657,-0.00367433,-0.0442473,0.192366,-0.164092,-0.00186135,1.31074,9.58188,1.15299,-10.8816,-29.4963,15.9252,0.420718,-0.00141939,28.8345,-0.00276573,-23.4262,-0.943939,-2.38323,0.00144962,0.039854,-0.0633029,-0.0322114,-1.89659,-0.0148452,0.320312,-0.0103401,-0.000248412,0.101084,0.00415276,-0.039492,0.044401,-0.123475,-0.000209718,0,0,0,0,0,0,0,0.590702,-22.664,0.639662,16.8384,0.740353,1.18279,0.0440523,
0.0402608,-0.0615548,-0.0317912,-1.89802,-0.0123207,0.315409,-0.0102984,0.00587633,0.069637,0.00682413,-0.0481903,0.216287,-0.241408,-0.00061297,6.39843,3.73206,6.56154,-2.4644,14.951,-48.3224,0.780237,27.0599,1.96848,27.4638,-11.3321,11.0561,-14.3832,0.0597228,0.039854,-0.0633029,-0.0322114,-1.89659,-0.0148452,0.320312,-0.0103401,-0.000248412,0.101084,0.00415276,-0.039492,0.044401,-0.123475,-0.000209718,0,0,0,0,0,0,0,0.590702,-22.664,0.639662,16.8384,0.740353,1.18279,0.0440523,
0.0409164,-0.0610052,-0.0311019,-1.89843,-0.00810488,0.308639,-0.0102537,0.021091,0.0694484,0.0226936,-0.0488162,0.278426,-0.362382,0.000628052,9.50918,-0.117887,9.91842,-0.391186,38.837,-75.6087,0.775639,25.7396,3.1092,26.3456,-9.62457,11.0422,-14.3352,0.0609008,0.0402185,-0.0623353,-0.0319683,-1.89933,-0.0120709,0.313702,-0.0103427,0.0300714,0.0528034,0.0269818,-0.139501,0.250741,-0.422726,0.00188317,3.78998,-6.03502,2.85364,-12.5011,25.7924,-37.4063,0.261611,3.35193,-21.8428,3.23823,14.3469,1.49749,-0.627207,0.0980684,
0.0417989,-0.0605946,-0.030179,-1.89882,-0.00267705,0.300359,-0.0102055,0.0389348,0.0658254,0.0412258,-0.0489211,0.358437,-0.496909,0.00170876,11.1523,-2.26438,11.5826,-0.0655578,50.0064,-84.0795,0.675446,24.5597,2.89854,25.2144,-8.2993,11.0422,-14.3352,0.059516,0.0402185,-0.0623353,-0.0319683,-1.89933,-0.0120709,0.313702,-0.0103427,0.0300714,0.0528034,0.0269818,-0.139501,0.250741,-0.422726,0.00188317,0,0,0,0,0,0,0,3.35193,-21.8428,3.23823,14.3469,1.49749,-0.627207,0.0980684,
0.0404507,-0.0614293,-0.0317419,-1.90059,-0.0109839,0.311227,-0.0103253,0.0369536,0.075312,0.0386409,-0.0707013,0.313926,-0.459417,0.00180289,-1.23822,5.92916,-1.6156,-13.6127,-27.8193,23.4326,0.0588301,-0.0236289,28.9321,-0.0243897,-23.4445,-0.957835,-2.33518,0.00148803,0.0402185,-0.0623353,-0.0319683,-1.89933,-0.0120709,0.313702,-0.0103427,0.0300714,0.0528034,0.0269818,-0.139501,0.250741,-0.422726,0.00188317,0,0,0,0,0,0,0,3.35193,-21.8428,3.23823,14.3469,1.49749,-0.627207,0.0980684,
0.0412628,-0.060945,-0.0309173,-1.90185,-0.0082358,0.305784,-0.0100752,0.0498645,0.0723555,0.0515277,-0.0880754,0.319843,-0.503606,0.0076926,8.06934,-1.84784,8.05427,-10.8588,3.69813,-27.618,3.68107,39.9313,-2.21229,40.5476,-20.8288,11.0422,-14.3352,0.301068,0.0402185,-0.0623353,-0.0319683,-1.89933,-0.0120709,0.313702,-0.0103427,0.0300714,0.0528034,0.0269818,-0.139501,0.250741,-0.422726,0.00188317,0,0,0,0,0,0,0,3.35193,-21.8428,3.23823,14.3469,1.49749,-0.627207,0.0980684,
0.0424496,-0.0606516,-0.0297122,-1.90307,-0.00401646,0.298384,-0.00995575,0.0695616,0.0652199,0.0713492,-0.101006,0.361358,-0.587875,0.00914146,12.3107,-4.45973,12.3884,-8.08139,25.9469,-52.6684,0.905534,35.0962,0.668317,35.5996,-19.4076,10.954,-14.1801,0.133455,0.0415724,-0.0591737,-0.0310266,-1.9056,0.00521759,0.295247,-0.0103623,0.123042,0.0498183,0.145526,-0.219614,0.965808,-0.888975,-0.000123893,11.6214,-0.373136,14.818,-10.0141,89.3834,-58.2811,-0.250882,17.9872,-30.1543,17.937,32.16,4.5874,0.274588,0.0239107,
0.0438798,-0.0604097,-0.0282565,-1.90423,0.00138993,0.289689,-0.0099291,0.0914048,0.0582234,0.0934715,-0.109684,0.424246,-0.687666,0.0079794,13.652,-4.3728,13.8264,-5.42397,39.305,-62.3689,-0.726288,31.7975,2.70028,32.2844,-17.6598,10.954,-14.1801,0.0242583,0.0415724,-0.0591737,-0.0310266,-1.9056,0.00521759,0.295247,-0.0103623,0.123042,0.0498183,0.145526,-0.219614,0.965808,-0.888975,-0.000123893,0,0,0,0,0,0,0,17.9872,-30.1543,17.937,32.16,4.5874,0.274588,0.0239107,
0.0452557,-0.0591429,-0.0273034,-1.9094,0.019197,0.277512,-0.00990608,0.122933,0.0461637,0.125272,-0.1343,0.515196,-0.78392,0.00930879,19.7052,-7.53729,19.8753,-15.3851,56.8439,-60.1587,0.830871,44.5536,-5.04983,45.2657,-27.3251,10.954,-14.1801,0.373031,0.0415724,-0.0591737,-0.0310266,-1.9056,0.00521759,0.295247,-0.0103623,0.123042,0.0498183,0.145526,-0.219614,0.965808,-0.888975,-0.000123893,0,0,0,0,0,0,0,17.9872,-30.1543,17.937,32.16,4.5874,0.274588,0.0239107,
0.047388,-0.059118,-0.0251348,-1.91114,0.0265864,0.267514,-0.00993098,0.151654,0.0375542,0.154432,-0.15102,0.596891,-0.877073,0.00682453,17.9507,-5.38098,18.2248,-10.45,51.0595,-58.2208,-1.55266,37.9018,-1.66355,38.5118,-25.2163,10.954,-14.1801,0.10755,0.0415724,-0.0591737,-0.0310266,-1.9056,0.00521759,0.295247,-0.0103623,0.123042,0.0498183,0.145526,-0.219614,0.965808,-0.888975,-0.000123893,0,0,0,0,0,0,0,17.9872,-30.1543,17.937,32.16,4.5874,0.274588,0.0239107,
0.0495782,-0.0590462,-0.0229032,-1.9128,0.0343555,0.257121,-0.010008,0.176079,0.0318376,0.179337,-0.162326,0.67174,-0.961484,0.00353394,15.2654,-3.57288,15.566,-7.06641,46.7805,-52.7568,-2.05662,33.733,1.10361,34.3043,-23.0586,10.9516,-13.8151,-0.0477872,0.0461798,-0.0565195,-0.0250595,-1.91326,0.0342696,0.262719,-0.0104095,0.244783,0.0813975,0.338517,-0.228556,1.15531,-1.17608,-0.0023047,15.2176,3.94739,24.124,-1.11782,23.6884,-35.8882,-0.272601,30.0835,-39.2632,30.0333,32.7313,4.61212,0.586783,0.0706026,
0.0554198,-0.0552,-0.0156337,-1.92036,0.0699356,0.221153,-0.0106921,0.196149,0.0299555,0.199887,-0.174612,0.76168,-1.03296,0.00026362,12.5439,-1.17631,12.8437,-7.67862,56.2125,-44.6717,-2.04395,31.0442,1.87771,31.5988,-21.6245,10.9516,-13.8151,-0.100461,0.0461798,-0.0565195,-0.0250595,-1.91326,0.0342696,0.262719,-0.0104095,0.244783,0.0813975,0.338517,-0.228556,1.15531,-1.17608,-0.0023047,0,0,0,0,0,0,0,30.0835,-39.2632,30.0333,32.7313,4.61212,0.586783,0.0706026,
0.057533,-0.0550476,-0.0134764,-1.92212,0.0789567,0.21071,-0.0108178,0.209751,0.0277752,0.213842,-0.18355,0.834871,-1.08745,-0.00293101,8.50108,-1.3627,8.72205,-5.58646,45.7439,-34.0547,-1.99664,28.9983,1.12335,29.5439,-21.1414,10.9516,-13.8151,-0.0611287,0.0461798,-0.0565195,-0.0250595,-1.91326,0.0342696,0.262719,-0.0104095,0.244783,0.0813975,0.338517,-0.228556,1.15531,-1.17608,-0.0023047,0,0,0,0,0,0,0,30.0835,-39.2632,30.0333,32.7313,4.61212,0.586783,0.0706026,
0.0595525,-0.054902,-0.0114141,-1.92382,0.087991,0.200436,-0.0109432,0.218286,0.0258597,0.222632,-0.189531,0.893754,-1.1268,-0.00548039,5.33467,-1.19717,5.49338,-3.73793,36.8024,-24.598,-1.59336,26.5827,-0.12976,27.0917,-21.3565,10.9516,-13.6283,-0.062591,0.0461798,-0.0565195,-0.0250595,-1.91326,0.0342696,0.262719,-0.0104095,0.244783,0.0813975,0.338517,-0.228556,1.15531,-1.17608,-0.0023047,0,0,0,0,0,0,0,30.0835,-39.2632,30.0333,32.7313,4.61212,0.586783,0.0706026,
0.0614871,-0.0547622,-0.00943764,-1.92552,0.0970142,0.190626,-0.0110563,0.222996,0.0241825,0.227516,-0.194144,0.940584,-1.1467,-0.00721013,2.94326,-1.04827,3.0527,-2.88324,29.2687,-12.4379,-1.08109,24.1866,-0.193985,24.651,-21.0938,10.9516,-13.1123,-0.119777,0.0589531,-0.0566619,-0.00778029,-1.92505,0.0787694,0.21076,-0.010417,0.277166,0.0128231,0.397998,-0.319302,1.31038,-1.61219,0.00297625,4.04783,-8.5718,7.43506,-11.3432,19.383,-54.5135,0.660118,14.5635,-35.0459,14.9854,21.1984,1.06353,0.76531,0.0440523,
0.0716606,-0.0550107,0.00520952,-1.93683,0.136515,0.154487,-0.0109904,0.223998,0.0252914,0.228639,-0.201781,0.982052,-1.07482,-0.00746898,0.626686,0.693118,0.701553,-4.77295,25.9175,44.9263,-0.161781,21.5053,1.00471,21.974,-19.8328,10.8604,-11.952,-0.146534,0.0589531,-0.0566619,-0.00778029,-1.92505,0.0787694,0.21076,-0.010417,0.277166,0.0128231,0.397998,-0.319302,1.31038,-1.61219,0.00297625,0,0,0,0,0,0,0,14.5635,-35.0459,14.9854,21.1984,1.06353,0.76531,0.0440523,
0.0734001,-0.0547972,0.00698868,-1.93864,0.145566,0.14931,-0.0110493,0.222686,0.0255708,0.22739,-0.206727,1.01192,-0.989284,-0.00744744,-0.820034,0.174626,-0.780438,-3.09144,18.665,53.4611,0.0134615,20.6291,1.18427,21.0876,-19.2971,10.8604,-10.7329,-0.131992,0.0589531,-0.0566619,-0.00778029,-1.92505,0.0787694,0.21076,-0.010417,0.277166,0.0128231,0.397998,-0.319302,1.31038,-1.61219,0.00297625,0,0,0,0,0,0,0,14.5635,-35.0459,14.9854,21.1984,1.06353,0.76531,0.0440523,
0.0750643,-0.0546083,0.00869132,-1.9404,0.154501,0.145158,-0.0110979,0.219754,0.0251795,0.224478,-0.209404,1.03291,-0.895224,-0.00717355,-1.83262,-0.244582,-1.81997,-1.67268,13.1185,58.7874,0.171183,19.8534,1.2,20.3004,-18.8411,10.8604,-8.75233,-0.116447,0.0589531,-0.0566619,-0.00778029,-1.92505,0.0787694,0.21076,-0.010417,0.277166,0.0128231,0.397998,-0.319302,1.31038,-1.61219,0.00297625,0,0,0,0,0,0,0,14.5635,-35.0459,14.9854,21.1984,1.06353,0.76531,0.0440523,
0.061427,-0.0563898,-0.00524546,-1.92719,0.0889089,0.198483,-0.0105368,0.237651,0.0269457,0.242953,-0.220887,1.07981,-1.0231,-0.00873346,11.1859,1.10386,11.5469,-7.17707,29.3171,-79.9233,-0.974944,21.5053,1.00471,21.974,-19.8328,10.8604,-11.952,-0.146534,0.0589531,-0.0566619,-0.00778029,-1.92505,0.0787694,0.21076,-0.010417,0.277166,0.0128231,0.397998,-0.319302,1.31038,-1.61219,0.00297625,0,0,0,0,0,0,0,14.5635,-35.0459,14.9854,21.1984,1.06353,0.76531,0.0440523,
0.0637313,-0.056086,-0.00289312,-1.92919,0.0988063,0.187161,-0.010652,0.247728,0.0291512,0.253171,-0.226607,1.11129,-1.10153,-0.00986797,6.29796,1.37842,6.38621,-3.57502,19.6702,-49.0169,-0.709069,20.5956,0.520469,21.0904,-18.7951,10.6193,-10.4106,-0.135618,0.06827,-0.0550017,0.00626299,-1.93479,0.129599,0.156566,-0.0104109,0.249459,0.0577196,0.412024,-0.182333,1.45412,-1.23731,-0.00474919,-3.46333,5.61207,1.75332,17.1211,17.9677,46.8604,-0.96568,-13.5606,-37.6405,-14.0869,35.2228,1.23474,8.04558,0.110886,
0.0658873,-0.0557896,-0.00069115,-1.93114,0.108496,0.177077,-0.0107541,0.252084,0.0307309,0.257586,-0.230214,1.13127,-1.13333,-0.0104458,2.72257,0.987332,2.75945,-2.2541,12.4902,-19.8753,-0.36115,19.8199,0.536191,20.3033,-18.3391,10.6193,-8.43,-0.120073,0.06827,-0.0550017,0.00626299,-1.93479,0.129599,0.156566,-0.0104109,0.249459,0.0577196,0.412024,-0.182333,1.45412,-1.23731,-0.00474919,0,0,0,0,0,0,0,-13.5606,-37.6405,-14.0869,35.2228,1.23474,8.04558,0.110886,
0.0679167,-0.0555091,0.00138226,-1.93307,0.117998,0.168293,-0.0108432,0.252402,0.0315972,0.257904,-0.232432,1.14257,-1.12625,-0.0105861,0.198868,0.541468,0.198836,-1.38666,7.0628,4.42664,-0.0876667,19.1003,0.413253,19.5702,-17.9803,10.6193,-6.7017,-0.10494,0.06827,-0.0550017,0.00626299,-1.93479,0.129599,0.156566,-0.0104109,0.249459,0.0577196,0.412024,-0.182333,1.45412,-1.23731,-0.00474919,0,0,0,0,0,0,0,-13.5606,-37.6405,-14.0869,35.2228,1.23474,8.04558,0.110886,
0.0802484,-0.0538507,0.0185123,-1.94537,0.189318,0.129802,-0.010706,0.243734,0.0285964,0.249094,-0.226494,1.14336,-0.948572,-0.00910406,-5.41748,-1.87555,-5.50608,3.71132,0.49634,111.046,0.926263,17.8402,0.0645472,18.2828,-17.4211,10.6193,-3.88292,-0.0791573,0.06827,-0.0550017,0.00626299,-1.93479,0.129599,0.156566,-0.0104109,0.249459,0.0577196,0.412024,-0.182333,1.45412,-1.23731,-0.00474919,0,0,0,0,0,0,0,-13.5606,-37.6405,-14.0869,35.2228,1.23474,8.04558,0.110886,
0.0818305,-0.0537378,0.0201314,-1.94693,0.198308,0.128608,-0.0107223,0.23454,0.0257003,0.239753,-0.220207,1.13944,-0.78871,-0.00769144,-5.74677,-1.81003,-5.83837,3.92926,-2.45559,99.9134,0.882883,17.3528,-0.354173,17.8098,-16.716,10.4898,-2.47837,-0.0695197,0.0764694,-0.0515069,0.0212629,-1.93757,0.177471,0.12799,-0.0104023,0.276199,0.0364194,0.496716,-0.0686745,1.29781,-1.06804,-0.00250977,3.34239,-2.66252,10.5865,14.2074,-19.5383,21.1575,0.279928,-0.95654,-20.244,-1.43523,11.9586,0.123287,-1.3697,0.0303194,
0.0833335,-0.0536426,0.0216703,-1.94843,0.207149,0.128024,-0.0107307,0.225208,0.0229409,0.230274,-0.213724,1.13256,-0.645578,-0.00636384,-5.83244,-1.72463,-5.9245,4.05214,-4.29694,89.4575,0.82975,16.8438,-0.436587,17.287,-16.4742,10.4898,-1.49012,-0.0564637,0.0764694,-0.0515069,0.0212629,-1.93757,0.177471,0.12799,-0.0104023,0.276199,0.0364194,0.496716,-0.0686745,1.29781,-1.06804,-0.00250977,0,0,0,0,0,0,0,-0.95654,-20.244,-1.43523,11.9586,0.123287,-1.3697,0.0303194,
0.0847669,-0.0535627,0.0231384,-1.94988,0.215866,0.127963,-0.0107311,0.216002,0.0203481,0.220923,-0.207177,1.12399,-0.517992,-0.00510021,-5.75352,-1.62048,-5.84441,4.0916,-5.35887,79.7411,0.789773,16.3667,-0.471056,16.7966,-16.232,10.4898,-0.642654,-0.0454623,0.0764694,-0.0515069,0.0212629,-1.93757,0.177471,0.12799,-0.0104023,0.276199,0.0364194,0.496716,-0.0686745,1.29781,-1.06804,-0.00250977,0,0,0,0,0,0,0,-0.95654,-20.244,-1.43523,11.9586,0.123287,-1.3697,0.0303194,
0.0873029,-0.051553,0.0323496,-1.94533,0.227412,0.114647,-0.0105488,0.217027,0.0169767,0.221956,-0.202771,1.13491,-0.430607,-0.00423726,0.640879,-2.10715,0.645506,2.7541,6.82509,54.6158,0.539339,15.9209,-0.461129,16.3377,-15.9894,10.4898,0.0867134,-0.0333619,0.0764694,-0.0515069,0.0212629,-1.93757,0.177471,0.12799,-0.0104023,0.276199,0.0364194,0.496716,-0.0686745,1.29781,-1.06804,-0.00250977,0,0,0,0,0,0,0,-0.95654,-20.244,-1.43523,11.9586,0.123287,-1.3697,0.0303194,
0.0889402,-0.0515198,0.0340247,-1.94675,0.236603,0.114609,-0.0105467,0.214555,0.0144101,0.219442,-0.197765,1.13771,-0.345444,-0.00333755,-1.54501,-1.60413,-1.57105,3.12869,1.74964,53.2272,0.562324,15.4714,-1.284,15.8946,-15.5981,10.2302,0.539523,-0.0270963,0.0803725,-0.0510592,0.0287695,-1.94035,0.209801,0.112453,-0.010449,0.131495,0.0207437,0.238512,-0.0676007,1.02688,0.210865,-0.0183139,-18.088,-1.95947,-32.2755,0.134224,-33.8669,159.864,-1.97552,-9.47827,-44.2778,-10.2109,44.2642,2.27295,5.28069,0.446884,
0.0904671,-0.0514863,0.0355877,-1.94812,0.245592,0.115068,-0.0105365,0.209816,0.0123659,0.214629,-0.192418,1.13488,-0.264872,-0.00241361,-2.96223,-1.27764,-3.00815,3.342,-1.76334,50.357,0.57746,15.0696,-1.215,15.4804,-15.3543,10.2302,1.0646,-0.0161444,0.0803725,-0.0510592,0.0287695,-1.94035,0.209801,0.112453,-0.010449,0.131495,0.0207437,0.238512,-0.0676007,1.02688,0.210865,-0.0183139,0,0,0,0,0,0,0,-9.47827,-44.2778,-10.2109,44.2642,2.27295,5.28069,0.446884,
0.0855638,-0.0514452,0.0341086,-1.9447,0.243451,0.119648,-0.0104572,0.19859,0.00724798,0.203245,-0.182524,1.11771,-0.166737,-0.00160488,-7.01633,-3.19869,-7.11521,6.18363,-10.7336,61.3343,0.505459,14.6827,-1.13048,15.0815,-15.1107,10.2302,1.50208,-0.00666873,0.0803725,-0.0510592,0.0287695,-1.94035,0.209801,0.112453,-0.010449,0.131495,0.0207437,0.238512,-0.0676007,1.02688,0.210865,-0.0183139,0,0,0,0,0,0,0,-9.47827,-44.2778,-10.2109,44.2642,2.27295,5.28069,0.446884,
0.086757,-0.051538,0.0353331,-1.94585,0.251805,0.12152,-0.010437,0.188701,0.00348062,0.193209,-0.174595,1.10302,-0.0865897,-0.000778342,-6.18032,-2.3546,-6.27228,4.95563,-9.18014,50.0923,0.516583,14.3117,-1.03463,14.6989,-14.8698,10.2302,1.86941,0.0031302,0.0803725,-0.0510592,0.0287695,-1.94035,0.209801,0.112453,-0.010449,0.131495,0.0207437,0.238512,-0.0676007,1.02688,0.210865,-0.0183139,0,0,0,0,0,0,0,-9.47827,-44.2778,-10.2109,44.2642,2.27295,5.28069,0.446884,
0.0879166,-0.0516165,0.0365233,-1.94698,0.26012,0.123475,-0.0104094,0.17995,0.0008203,0.184322,-0.1681,1.0903,-0.0204033,6.85984e-05,-5.46953,-1.6627,-5.55403,4.05916,-7.95127,41.3665,0.529338,13.9215,-0.709581,14.3073,-14.8173,10.1171,2.04786,0.0129368,0.0845897,-0.0481606,0.0381291,-1.93835,0.234718,0.135352,-0.0103654,0.0794389,0.0687253,0.226958,0.022838,0.605686,0.94183,0.00130469,-6.50696,5.99771,-1.44428,11.3048,-52.6492,91.3707,2.45232,-2.80926,-36.2679,-3.08562,31.1642,0.54443,3.48351,-0.0163725,
0.0890439,-0.0516812,0.0376806,-1.94811,0.268399,0.125517,-0.0103736,0.172142,-0.00096041,0.17639,-0.162662,1.0792,0.0347369,0.000949461,-4.88002,-1.11294,-4.95775,3.3991,-6.94064,34.4626,0.550539,13.5706,-0.60768,13.9454,-14.5836,10.1171,2.29896,0.0217781,0.0845897,-0.0481606,0.0381291,-1.93835,0.234718,0.135352,-0.0103654,0.0794389,0.0687253,0.226958,0.022838,0.605686,0.94183,0.00130469,0,0,0,0,0,0,0,-2.80926,-36.2679,-3.08562,31.1642,0.54443,3.48351,-0.0163725,
0.0885387,-0.048293,0.0422334,-1.94142,0.263014,0.154579,-0.010314,0.161321,-0.00349289,0.165458,-0.152972,1.05528,0.11919,0.00158931,-6.76325,-1.5828,-6.83237,6.05582,-14.9489,52.7832,0.399905,13.5706,-0.60768,13.9454,-14.5836,10.1171,2.29896,0.0217781,0.0845897,-0.0481606,0.0381291,-1.93835,0.234718,0.135352,-0.0103654,0.0794389,0.0687253,0.226958,0.022838,0.605686,0.94183,0.00130469,0,0,0,0,0,0,0,-2.80926,-36.2679,-3.08562,31.1642,0.54443,3.48351,-0.0163725,
0.0894733,-0.0483993,0.0431959,-1.94237,0.270849,0.157843,-0.0102729,0.152421,-0.00545206,0.15643,-0.146082,1.04009,0.176948,0.00229938,-5.56257,-1.22448,-5.64293,4.30669,-9.48922,36.0991,0.443792,13.2237,-0.507628,13.5874,-14.3546,10.1171,2.50416,0.0299419,0.0845897,-0.0481606,0.0381291,-1.93835,0.234718,0.135352,-0.0103654,0.0794389,0.0687253,0.226958,0.022838,0.605686,0.94183,0.00130469,0,0,0,0,0,0,0,-2.80926,-36.2679,-3.08562,31.1642,0.54443,3.48351,-0.0163725,
0.090398,-0.0484939,0.0441478,-1.94334,0.278782,0.16084,-0.0102277,0.145056,-0.00672564,0.148941,-0.14113,1.03039,0.216478,0.00297002,-4.60274,-0.795989,-4.68041,3.09453,-6.06557,24.7059,0.419151,13.016,-0.209759,13.3812,-14.4369,10.1258,2.45855,0.0400662,0.0854357,-0.0492843,0.0417827,-1.93817,0.254305,0.172197,-0.0103824,0.0244507,-0.0298119,0.105401,-0.00712913,0.599851,1.06407,-0.0161036,-6.87353,-12.3172,-15.1947,-3.74589,-0.729351,15.2798,-2.17604,-2.4284,-26.1592,-3.21257,22.2458,1.30798,2.92046,0.231735,
0.0877669,-0.0504959,0.0442297,-1.94056,0.281514,0.193544,-0.0102329,0.132193,-0.0117755,0.135942,-0.131657,1.01011,0.275476,0.00356745,-8.03981,-3.15619,-8.12408,5.9208,-12.6745,36.8735,0.373395,12.6553,-0.108985,13.0092,-14.2197,10.1258,2.59985,0.0500354,0.0854357,-0.0492843,0.0417827,-1.93817,0.254305,0.172197,-0.0103824,0.0244507,-0.0298119,0.105401,-0.00712913,0.599851,1.06407,-0.0161036,0,0,0,0,0,0,0,-2.4284,-26.1592,-3.21257,22.2458,1.30798,2.92046,0.231735,
0.0884554,-0.0507076,0.0449441,-1.94135,0.288938,0.19716,-0.0101811,0.122967,-0.0147138,0.126614,-0.125167,0.993696,0.310794,0.0041474,-5.76615,-1.83644,-5.83008,4.05604,-10.2589,22.0743,0.362469,12.2476,0.00212336,12.5882,-14.0064,10.1258,2.70026,0.057484,0.0854357,-0.0492843,0.0417827,-1.93817,0.254305,0.172197,-0.0103824,0.0244507,-0.0298119,0.105401,-0.00712913,0.599851,1.06407,-0.0161036,0,0,0,0,0,0,0,-2.4284,-26.1592,-3.21257,22.2458,1.30798,2.92046,0.231735,
0.089192,-0.05088,0.0457054,-1.94216,0.295985,0.200422,-0.0101259,0.116789,-0.0160802,0.120323,-0.12041,0.971127,0.330179,0.0046999,-3.86125,-0.85399,-3.93222,2.97313,-14.1052,12.1154,0.34531,11.8075,0.111555,12.1377,-13.807,10.1258,2.77162,0.0612901,0.0854357,-0.0492843,0.0417827,-1.93817,0.254305,0.172197,-0.0103824,0.0244507,-0.0298119,0.105401,-0.00712913,0.599851,1.06407,-0.0161036,0,0,0,0,0,0,0,-2.4284,-26.1592,-3.21257,22.2458,1.30798,2.92046,0.231735,
0.0899699,-0.0510198,0.0465074,-1.94298,0.30247,0.203413,-0.0100699,0.112877,-0.01636,0.116308,-0.116798,0.939028,0.338927,0.00515992,-2.44482,-0.174835,-2.50906,2.25806,-20.0622,5.46752,0.287517,11.2692,0.62811,11.6152,-13.943,10.0892,2.61188,0.0659154,0.0860966,-0.0491196,0.044874,-1.93707,0.26384,0.21784,-0.0103794,0.0102734,0.0503992,0.0530916,0.0285551,0.133458,1.40879,-0.00280098,-1.77217,10.0264,-6.53863,4.46053,-58.2991,43.0898,1.66283,-10.6724,-35.4189,-10.5362,35.3973,0.776974,4.34594,0.0907442,
0.0868327,-0.0492058,0.0457118,-1.93857,0.278465,0.239329,-0.0102877,0.0980615,-0.0155655,0.101489,-0.109335,0.89825,0.412004,0.00526838,-9.25967,0.496509,-9.26209,4.66434,-25.4862,45.6731,0.0677876,11.7166,0.492939,12.0513,-14.1472,10.0892,2.55829,0.0646143,0.0860966,-0.0491196,0.044874,-1.93707,0.26384,0.21784,-0.0103794,0.0102734,0.0503992,0.0530916,0.0285551,0.133458,1.40879,-0.00280098,0,0,0,0,0,0,0,-10.6724,-35.4189,-10.5362,35.3973,0.776974,4.34594,0.0907442,
0.087239,-0.0493177,0.0461418,-1.93926,0.28444,0.243994,-0.0102336,0.0886049,-0.015249,0.091942,-0.104715,0.867972,0.44621,0.00556809,-5.91041,0.197823,-5.96681,2.88737,-18.9237,21.3784,0.18732,11.2692,0.62811,11.6152,-13.943,10.0892,2.61188,0.0659154,0.0860966,-0.0491196,0.044874,-1.93707,0.26384,0.21784,-0.0103794,0.0102734,0.0503992,0.0530916,0.0285551,0.133458,1.40879,-0.00280098,0,0,0,0,0,0,0,-10.6724,-35.4189,-10.5362,35.3973,0.776974,4.34594,0.0907442,
0.0877362,-0.0494276,0.0466614,-1.93998,0.290158,0.247958,-0.0101761,0.0833156,-0.0149478,0.0865427,-0.1019,0.837326,0.456074,0.0058903,-3.30579,0.18828,-3.37452,1.75918,-19.1542,6.16518,0.201379,10.8469,0.795871,11.2095,-13.713,9.40542,2.64189,0.0669321,0.0860966,-0.0491196,0.044874,-1.93707,0.26384,0.21784,-0.0103794,0.0102734,0.0503992,0.0530916,0.0285551,0.133458,1.40879,-0.00280098,0,0,0,0,0,0,0,-10.6724,-35.4189,-10.5362,35.3973,0.776974,4.34594,0.0907442,
0.0883114,-0.0495279,0.0472583,-1.94073,0.295436,0.251409,-0.010118,0.0810309,-0.014465,0.0841566,-0.100277,0.801823,0.451135,0.00616662,-1.42793,0.301751,-1.49136,1.01416,-22.1888,-3.0868,0.172702,10.4679,0.96664,10.8395,-13.5636,8.15598,2.47343,0.0675813,0.0860448,-0.0507776,0.046324,-1.93767,0.268528,0.255578,-0.0103846,-0.0335155,-0.0482868,-0.0441237,-0.0520895,0.0144911,1.18495,0.00251669,-5.47362,-12.3357,-12.1519,-10.0806,-14.8709,-27.9797,0.664708,-13.4098,-32.5743,-13.0356,34.0286,0.166317,4.49151,0.050461,
0.085819,-0.0515675,0.0461747,-1.93931,0.27917,0.273814,-0.0102515,0.0668883,-0.0170908,0.0699062,-0.0953909,0.747281,0.483693,0.00632159,-8.83915,-1.64116,-8.90646,3.05408,-34.0889,20.3487,0.0968525,10.8491,0.799609,11.2174,-13.8045,9.44751,2.46761,0.0680714,0.0860448,-0.0507776,0.046324,-1.93767,0.268528,0.255578,-0.0103846,-0.0335155,-0.0482868,-0.0441237,-0.0520895,0.0144911,1.18495,0.00251669,0,0,0,0,0,0,0,-13.4098,-32.5743,-13.0356,34.0286,0.166317,4.49151,0.050461,
0.0860468,-0.0517533,0.0464217,-1.93996,0.283409,0.277972,-0.0101925,0.0592055,-0.018319,0.0621005,-0.0926805,0.703819,0.49091,0.00653147,-4.80173,-0.767595,-4.8786,1.69402,-27.1638,4.5109,0.131176,10.4679,0.96664,10.8395,-13.5636,8.15598,2.47343,0.0675813,0.0860448,-0.0507776,0.046324,-1.93767,0.268528,0.255578,-0.0103846,-0.0335155,-0.0482868,-0.0441237,-0.0520895,0.0144911,1.18495,0.00251669,0,0,0,0,0,0,0,-13.4098,-32.5743,-13.0356,34.0286,0.166317,4.49151,0.050461,
0.0863982,-0.0519072,0.0467921,-1.94065,0.287414,0.281565,-0.0101318,0.0561496,-0.0185008,0.0589386,-0.0914438,0.663173,0.482542,0.00674391,-1.90994,-0.113637,-1.97616,0.772935,-25.4036,-5.23046,0.132776,10.1374,1.10973,10.5052,-13.3232,7.01433,2.44559,0.0664223,0.0860448,-0.0507776,0.046324,-1.93767,0.268528,0.255578,-0.0103846,-0.0335155,-0.0482868,-0.0441237,-0.0520895,0.0144911,1.18495,0.00251669,0,0,0,0,0,0,0,-13.4098,-32.5743,-13.0356,34.0286,0.166317,4.49151,0.050461,
0.0861634,-0.0517385,0.046523,-1.9396,0.277198,0.277606,-0.010175,0.0509193,-0.0195419,0.053586,-0.0875688,0.590663,0.487367,0.0068986,-3.26893,-0.65067,-3.34537,2.42187,-45.3188,3.01566,0.0966819,9.86738,1.22701,10.2281,-13.0857,5.99514,2.40697,0.0652067,0.0860448,-0.0507776,0.046324,-1.93767,0.268528,0.255578,-0.0103846,-0.0335155,-0.0482868,-0.0441237,-0.0520895,0.0144911,1.18495,0.00251669,0,0,0,0,0,0,0,-13.4098,-32.5743,-13.0356,34.0286,0.166317,4.49151,0.050461,
0.0865128,-0.0518967,0.0468898,-1.94022,0.279406,0.281083,-0.0101131,0.0494705,-0.0195887,0.0520397,-0.0856595,0.527738,0.476823,0.0070649,-0.905512,-0.0292548,-0.966479,1.1933,-39.328,-6.58954,0.103935,9.4691,1.37127,9.82488,-12.9801,5.02022,2.19402,0.0665601,0.0864543,-0.0513079,0.0483954,-1.9387,0.264859,0.288708,-0.0103921,0.00803108,-0.0975176,0.0280033,-0.0497043,-0.319027,0.94093,0.00139777,5.19333,-6.15385,9.01589,0.298153,-41.6898,-30.5023,-0.139864,-11.1525,-34.4707,-10.5838,31.7117,0.642391,4.76342,0.0843355,
0.0869508,-0.052025,0.0473457,-1.94088,0.281344,0.284114,-0.01005,0.050528,-0.0188796,0.0530278,-0.0850583,0.470641,0.457241,0.00723003,0.660944,0.443195,0.617567,0.375757,-35.6858,-12.2388,0.10321,9.29521,1.43553,9.6416,-12.7489,4.18973,2.14049,0.066861,0.0864543,-0.0513079,0.0483954,-1.9387,0.264859,0.288708,-0.0103921,0.00803108,-0.0975176,0.0280033,-0.0497043,-0.319027,0.94093,0.00139777,0,0,0,0,0,0,0,-11.1525,-34.4707,-10.5838,31.7117,0.642391,4.76342,0.0843355,
0.0874586,-0.052126,0.0478717,-1.94157,0.282985,0.286794,-0.00998634,0.0531173,-0.0176268,0.0555728,-0.0852939,0.417527,0.432783,0.0073756,1.61832,0.782951,1.59062,-0.14723,-33.1964,-15.2865,0.0909798,9.15246,1.47572,9.48932,-12.5208,3.43783,2.07915,0.0681615,0.0864543,-0.0513079,0.0483954,-1.9387,0.264859,0.288708,-0.0103921,0.00803108,-0.0975176,0.0280033,-0.0497043,-0.319027,0.94093,0.00139777,0,0,0,0,0,0,0,-11.1525,-34.4707,-10.5838,31.7117,0.642391,4.76342,0.0843355,
0.0899363,-0.0536069,0.0520336,-1.94305,0.260003,0.31581,-0.00985031,0.0560661,-0.0159778,0.05844,-0.0840931,0.32335,0.383955,0.00747407,1.84297,1.03066,1.79204,0.750479,-58.8602,-30.5173,0.0615406,8.62617,1.42285,8.91474,-11.4321,0.830379,1.74415,0.0756401,0.0864543,-0.0513079,0.0483954,-1.9387,0.264859,0.288708,-0.0103921,0.00803108,-0.0975176,0.0280033,-0.0497043,-0.319027,0.94093,0.00139777,0,0,0,0,0,0,0,-11.1525,-34.4707,-10.5838,31.7117,0.642391,4.76342,0.0843355,
0.0904918,-0.0536593,0.0526056,-1.9437,0.259547,0.317149,-0.00978837,0.0587409,-0.014092,0.0610521,-0.0834217,0.247276,0.340638,0.00752778,1.67178,1.17859,1.63251,0.419646,-47.5468,-27.0734,0.0335726,8.52514,1.3807,8.80459,-11.2217,0.496395,1.67229,0.0770129,0.0864543,-0.0513079,0.0483954,-1.9387,0.264859,0.288708,-0.0103921,0.00803108,-0.0975176,0.0280033,-0.0497043,-0.319027,0.94093,0.00139777,0,0,0,0,0,0,0,-11.1525,-34.4707,-10.5838,31.7117,0.642391,4.76342,0.0843355,
0.0910546,-0.0536931,0.053185,-1.94435,0.259071,0.318343,-0.0097277,0.0610642,-0.0121182,0.0633258,-0.0830575,0.185906,0.30238,0.00753884,1.45201,1.23364,1.42108,0.227599,-38.3561,-23.9109,0.00691318,8.4198,1.33355,8.69023,-11.0134,0.218269,1.60278,0.0778572,0.0864543,-0.0513079,0.0483954,-1.9387,0.264859,0.288708,-0.0103921,0.00803108,-0.0975176,0.0280033,-0.0497043,-0.319027,0.94093,0.00139777,0,0,0,0,0,0,0,-11.1525,-34.4707,-10.5838,31.7117,0.642391,4.76342,0.0843355,
0.0916206,-0.0537116,0.0537674,-1.94501,0.258582,0.319415,-0.00966834,0.0630001,-0.010159,0.0652214,-0.0828399,0.136515,0.268683,0.00751502,1.20998,1.22455,1.18476,0.136025,-30.8691,-21.0606,-0.0148903,8.30953,1.28281,8.57131,-10.8062,-0.0180434,1.53173,0.0787052,0.0864543,-0.0513079,0.0483954,-1.9387,0.264859,0.288708,-0.0103921,0.00803108,-0.0975176,0.0280033,-0.0497043,-0.319027,0.94093,0.00139777,0,0,0,0,0,0,0,-11.1525,-34.4707,-10.5838,31.7117,0.642391,4.76342,0.0843355,
0.0886825,-0.0535147,0.0507241,-1.94114,0.257471,0.310653,-0.0099844,0.061357,-0.0119996,0.0634739,-0.07887,0.0925304,0.256307,0.00746627,-1.02693,-1.15039,-1.0922,2.48119,-27.4906,-7.73492,-0.0304683,7.94632,1.12361,8.18359,-10.1916,-0.488739,1.32973,0.0791298,0.0864543,-0.0513079,0.0483954,-1.9387,0.264859,0.288708,-0.0103921,0.00803108,-0.0975176,0.0280033,-0.0497043,-0.319027,0.94093,0.00139777,0,0,0,0,0,0,0,-11.1525,-34.4707,-10.5838,31.7117,0.642391,4.76342,0.0843355,
0.0891413,-0.0536354,0.0511967,-1.94167,0.256851,0.31207,-0.00992767,0.0605566,-0.0126161,0.0625954,-0.0763258,0.0585039,0.24047,0.00739132,-0.50025,-0.385327,-0.549052,1.59014,-21.2666,-9.89804,-0.0468421,7.86333,0.902523,8.09117,-9.89394,-0.50159,1.17423,0.0781734,0.0857971,-0.0517955,0.0485835,-1.94004,0.256004,0.310188,-0.0104157,0.0367612,-0.112882,0.0837306,-0.0689239,-0.14299,0.387142,-0.00127116,3.59127,-1.92054,6.96591,-2.40245,22.0047,-69.2236,-0.333617,9.43775,-26.5083,9.21297,18.3102,0.770565,-0.480722,0.0440523,
0.0896146,-0.0537272,0.051684,-1.94221,0.256273,0.313294,-0.00987263,0.0602775,-0.0123882,0.0622581,-0.0747365,0.0323505,0.222976,0.00728898,-0.17445,0.142426,-0.210806,0.993292,-16.3458,-10.9338,-0.0639672,7.72812,0.852094,7.94864,-9.69129,-0.569708,1.11285,0.0774741,0.0857971,-0.0517955,0.0485835,-1.94004,0.256004,0.310188,-0.0104157,0.0367612,-0.112882,0.0837306,-0.0689239,-0.14299,0.387142,-0.00127116,0,0,0,0,0,0,0,9.43775,-26.5083,9.21297,18.3102,0.770565,-0.480722,0.0440523,
0.0900973,-0.0537949,0.0521807,-1.94277,0.255735,0.314359,-0.00981935,0.0602886,-0.0116034,0.0622255,-0.0737572,0.0124529,0.20501,0.00716341,0.00695315,0.490491,-0.0203716,0.612033,-12.436,-11.229,-0.0784796,6.71784,0.573269,6.89561,-8.28308,-0.592378,0.747446,0.067191,0.0857971,-0.0517955,0.0485835,-1.94004,0.256004,0.310188,-0.0104157,0.0367612,-0.112882,0.0837306,-0.0689239,-0.14299,0.387142,-0.00127116,0,0,0,0,0,0,0,9.43775,-26.5083,9.21297,18.3102,0.770565,-0.480722,0.0440523,
0.0907891,-0.0540844,0.0537181,-1.94454,0.251973,0.32232,-0.00995383,0.0590921,-0.00991921,0.0609517,-0.0706482,0.00700034,0.175915,0.00656716,-0.747831,1.05264,-0.796154,1.94316,-3.40785,-18.1843,-0.372658,6.57083,0.54529,6.74362,-8.08313,-0.556192,0.706179,0.0650232,0.0857971,-0.0517955,0.0485835,-1.94004,0.256004,0.310188,-0.0104157,0.0367612,-0.112882,0.0837306,-0.0689239,-0.14299,0.387142,-0.00127116,0,0,0,0,0,0,0,9.43775,-26.5083,9.21297,18.3102,0.770565,-0.480722,0.0440523,
0.0912159,-0.0540972,0.0541572,-1.945,0.251884,0.32274,-0.00992232,0.057942,-0.00825641,0.0597377,-0.0680467,0.00339207,0.151234,0.00604153,-0.71879,1.03925,-0.758724,1.62593,-2.25517,-15.4257,-0.328517,6.48682,0.479585,6.65892,-7.8838,-0.454791,0.643894,0.0625129,0.0866361,-0.0524875,0.0509531,-1.94389,0.24656,0.313148,-0.0104715,0.0313278,-0.0198914,0.0825332,-0.112012,-0.398177,-0.0527651,-0.00201113,-0.679172,11.6238,-0.149673,-5.38596,-31.8984,-54.9883,-0.0924963,8.22376,-29.0791,8.03865,20.6509,1.31988,1.41533,0.0303194,
0.0916343,-0.0540999,0.0545878,-1.94545,0.251825,0.323112,-0.0098927,0.0568137,-0.00667149,0.0585557,-0.0657973,0.00122577,0.130278,0.00557362,-0.705208,0.990575,-0.738787,1.4059,-1.35394,-13.0972,-0.292442,6.34087,0.457012,6.50851,-7.68438,-0.41164,0.60775,0.0601541,0.0866361,-0.0524875,0.0509531,-1.94389,0.24656,0.313148,-0.0104715,0.0313278,-0.0198914,0.0825332,-0.112012,-0.398177,-0.0527651,-0.00201113,0,0,0,0,0,0,0,8.22376,-29.0791,8.03865,20.6509,1.31988,1.41533,0.0303194,
0.0902131,-0.0518006,0.0546637,-1.94924,0.241113,0.313243,-0.010236,0.0539508,-0.00365145,0.055599,-0.0629291,0.00230017,0.107353,0.00492735,-1.78933,1.88752,-1.84793,1.79259,0.671502,-14.3284,-0.403922,5.47749,0.367814,5.62263,-6.49259,-0.152531,0.436312,0.0452957,0.0866361,-0.0524875,0.0509531,-1.94389,0.24656,0.313148,-0.0104715,0.0313278,-0.0198914,0.0825332,-0.112012,-0.398177,-0.0527651,-0.00201113,0,0,0,0,0,0,0,8.22376,-29.0791,8.03865,20.6509,1.31988,1.41533,0.0303194,
0.0905457,-0.0517374,0.0550062,-1.94963,0.241218,0.313355,-0.0102191,0.0514748,-0.0013413,0.0530418,-0.0601184,0.00447097,0.0886934,0.00436636,-1.54746,1.44385,-1.59821,1.75671,1.35675,-11.6623,-0.350614,5.33449,0.359325,5.47635,-6.29447,-0.114714,0.413674,0.0428314,0.0866361,-0.0524875,0.0509531,-1.94389,0.24656,0.313148,-0.0104715,0.0313278,-0.0198914,0.0825332,-0.112012,-0.398177,-0.0527651,-0.00201113,0,0,0,0,0,0,0,8.22376,-29.0791,8.03865,20.6509,1.31988,1.41533,0.0303194,
0.0908697,-0.0516779,0.05534,-1.95001,0.241377,0.313448,-0.0102038,0.0492811,0.000415982,0.0507769,-0.0573686,0.00753716,0.0732872,0.00387412,-1.3711,1.0983,-1.41561,1.7186,1.91637,-9.62884,-0.307652,5.16814,0.268407,5.31043,-6.04718,-0.0428667,0.408273,0.0402946,0.0878073,-0.0533658,0.0529782,-1.94791,0.234153,0.312549,-0.0104862,0.0319701,-0.00997395,0.100165,-0.061255,-0.259772,-0.00440244,-0.0155637,0.0802818,1.23968,2.20398,6.34457,17.3006,6.04534,-1.69408,4.56989,-32.6973,4.03566,19.1077,0.312802,1.97198,0.198776,
0.0911843,-0.0516213,0.055664,-1.95036,0.241592,0.313516,-0.0101903,0.0472887,0.00174549,0.0487211,-0.0546786,0.0114163,0.0603176,0.00343687,-1.24522,0.830941,-1.28484,1.68125,2.42447,-8.10601,-0.273279,5.02462,0.262868,5.16372,-5.84899,-0.00859804,0.387064,0.0378975,0.0878073,-0.0533658,0.0529782,-1.94791,0.234153,0.312549,-0.0104862,0.0319701,-0.00997395,0.100165,-0.061255,-0.259772,-0.00440244,-0.0155637,0,0,0,0,0,0,0,4.56989,-32.6973,4.03566,19.1077,0.312802,1.97198,0.198776,
0.0903388,-0.0531885,0.0556068,-1.95081,0.232267,0.312991,-0.0103959,0.0457001,0.00253689,0.0470946,-0.0525161,0.0142006,0.0495037,0.00307595,-0.992906,0.494629,-1.01659,1.35161,1.74019,-6.75868,-0.225579,4.59161,0.253999,4.72088,-5.25309,0.0914591,0.320761,0.0309309,0.0878073,-0.0533658,0.0529782,-1.94791,0.234153,0.312549,-0.0104862,0.0319701,-0.00997395,0.100165,-0.061255,-0.259772,-0.00440244,-0.0155637,0,0,0,0,0,0,0,4.56989,-32.6973,4.03566,19.1077,0.312802,1.97198,0.198776,
0.0906426,-0.0531431,0.0559201,-1.95114,0.232548,0.313012,-0.0103844,0.0441535,0.00316544,0.045509,-0.0503008,0.0183924,0.0401239,0.00274932,-0.966581,0.392841,-0.990968,1.38453,2.61985,-5.86239,-0.204143,4.44668,0.253307,4.57252,-5.05367,0.126514,0.295336,0.0287274,0.0878073,-0.0533658,0.0529782,-1.94791,0.234153,0.312549,-0.0104862,0.0319701,-0.00997395,0.100165,-0.061255,-0.259772,-0.00440244,-0.0155637,0,0,0,0,0,0,0,4.56989,-32.6973,4.03566,19.1077,0.312802,1.97198,0.198776,
0.0909349,-0.0530982,0.0562218,-1.95145,0.232911,0.312994,-0.0103744,0.0426322,0.00365382,0.0439487,-0.0480499,0.0237914,0.0316578,0.00244764,-0.950854,0.305237,-0.975227,1.40683,3.37441,-5.2913,-0.188552,4.28845,0.21512,4.41397,-4.8131,0.173807,0.293738,0.0264669,0.0891185,-0.0530285,0.0562453,-1.94999,0.231368,0.311342,-0.0104641,0.0220311,0.0275741,0.0704448,-0.0524139,0.000746114,-0.030281,0.000935214,-1.24237,4.6935,-3.71503,1.10513,32.5648,-3.23482,2.06237,-2.73388,-27.4327,-2.93486,16.4893,0.306393,0.818411,0.0376436,
0.0909832,-0.0523342,0.0581753,-1.95221,0.233292,0.310452,-0.0104015,0.0409908,0.0049307,0.0422687,-0.0459929,0.0327924,0.0202951,0.00212085,-1.02586,0.79805,-1.04998,1.28561,5.62557,-7.10168,-0.204239,3.85761,0.220853,3.97158,-4.20953,0.328894,0.177061,0.0202878,0.0891185,-0.0530285,0.0562453,-1.94999,0.231368,0.311342,-0.0104641,0.0220311,0.0275741,0.0704448,-0.0524139,0.000746114,-0.030281,0.000935214,0,0,0,0,0,0,0,-2.73388,-27.4327,-2.93486,16.4893,0.306393,0.818411,0.0376436,
0.0912442,-0.0522617,0.058445,-1.95248,0.233966,0.310196,-0.0103967,0.0393182,0.00575783,0.0405563,-0.043738,0.0430686,0.00981273,0.00181648,-1.04537,0.51696,-1.07027,1.40931,6.42265,-6.55151,-0.190234,3.71706,0.224078,3.82681,-4.00705,0.402271,0.123047,0.0183088,0.0891185,-0.0530285,0.0562453,-1.94999,0.231368,0.311342,-0.0104641,0.0220311,0.0275741,0.0704448,-0.0524139,0.000746114,-0.030281,0.000935214,0,0,0,0,0,0,0,-2.73388,-27.4327,-2.93486,16.4893,0.306393,0.818411,0.0376436,
0.0914906,-0.0521954,0.0586996,-1.95274,0.234784,0.309867,-0.0103936,0.0376141,0.00626464,0.0388116,-0.0413497,0.0549031,-0.000359376,0.00152982,-1.06509,0.316751,-1.09041,1.4927,7.39655,-6.35756,-0.179165,3.57912,0.227821,3.68447,-3.80396,0.4911,0.0588311,0.0163802,0.0891185,-0.0530285,0.0562453,-1.94999,0.231368,0.311342,-0.0104641,0.0220311,0.0275741,0.0704448,-0.0524139,0.000746114,-0.030281,0.000935214,0,0,0,0,0,0,0,-2.73388,-27.4327,-2.93486,16.4893,0.306393,0.818411,0.0376436,
0.0917221,-0.052134,0.058939,-1.95297,0.235771,0.309451,-0.0103923,0.0358772,0.00654742,0.0370338,-0.0388751,0.0686065,-0.0106953,0.00125771,-1.08557,0.176741,-1.11112,1.54665,8.56465,-6.45996,-0.170067,3.43876,0.230598,3.53907,-3.58545,0.594922,-0.00522687,0.0144118,0.0897789,-0.0523718,0.0574125,-1.95092,0.23233,0.310296,-0.0104824,0.0220084,0.076744,0.0357027,-0.0131018,0.0307128,-0.0255317,-0.00613067,-0.00284199,6.14625,-4.34277,4.91401,3.74583,0.593653,-0.883236,0.868412,-30.0273,0.512709,20.8017,1.22284,1.5078,0.164902,
0.0906965,-0.0513626,0.0583669,-1.95231,0.234146,0.309821,-0.0104535,0.0343328,0.00937869,0.0354656,-0.039077,0.0699548,-0.0145676,0.00114689,-0.965232,1.76954,-0.980164,-0.126235,0.842665,-2.4202,-0.0692639,3.43876,0.230598,3.53907,-3.58545,0.594922,-0.00522687,0.0144118,0.0897789,-0.0523718,0.0574125,-1.95092,0.23233,0.310296,-0.0104824,0.0220084,0.076744,0.0357027,-0.0131018,0.0307128,-0.0255317,-0.00613067,0,0,0,0,0,0,0,0.868412,-30.0273,0.512709,20.8017,1.22284,1.5078,0.164902,
0.0909144,-0.0512258,0.0585927,-1.9526,0.234897,0.30949,-0.0104499,0.0329141,0.0109232,0.0340191,-0.0384757,0.0747386,-0.0199361,0.00100928,-0.886691,0.965294,-0.904044,0.375842,2.98988,-3.35528,-0.0860052,3.30819,0.235326,3.40368,-3.38144,0.726274,-0.095878,0.012554,0.0897789,-0.0523718,0.0574125,-1.95092,0.23233,0.310296,-0.0104824,0.0220084,0.076744,0.0357027,-0.0131018,0.0307128,-0.0255317,-0.00613067,0,0,0,0,0,0,0,0.868412,-30.0273,0.512709,20.8017,1.22284,1.5078,0.164902,
0.0911231,-0.0511102,0.0588091,-1.95286,0.235825,0.309061,-0.0104481,0.0315496,0.0116291,0.0326236,-0.0372732,0.0829818,-0.026679,0.000852252,-0.852815,0.441218,-0.872157,0.751542,5.15198,-4.21432,-0.0981408,3.18233,0.240603,3.27276,-3.17718,0.885205,-0.202923,0.0107286,0.0897789,-0.0523718,0.0574125,-1.95092,0.23233,0.310296,-0.0104824,0.0220084,0.076744,0.0357027,-0.0131018,0.0307128,-0.0255317,-0.00613067,0,0,0,0,0,0,0,0.868412,-30.0273,0.512709,20.8017,1.22284,1.5078,0.164902,
0.0913212,-0.0510103,0.0590144,-1.95309,0.236958,0.308523,-0.0104481,0.0301904,0.0117991,0.031231,-0.0356328,0.094721,-0.0348026,0.000681909,-0.849468,0.106275,-0.870401,1.02527,7.33703,-5.07725,-0.106464,3.06316,0.25879,3.14763,-2.96888,1.07256,-0.321804,0.00890763,0.0905404,-0.051632,0.0585038,-1.95136,0.23329,0.309968,-0.0104647,0.0150621,0.0505774,0.0311375,-0.0159439,0.0716817,-0.035749,0.00158207,-0.86828,-3.27082,-0.570644,-0.355254,5.12111,-1.27716,0.964093,2.61798,-32.8996,2.21467,27.2287,0.758663,2.36382,0.0440523,
0.0911364,-0.0510616,0.0591237,-1.95224,0.235353,0.309312,-0.0104454,0.0291695,0.0130203,0.0301877,-0.0355399,0.0953752,-0.0352469,0.000659264,-0.638054,0.763195,-0.652046,0.0580528,0.408858,-0.277716,-0.0141532,3.18382,0.252902,3.27357,-3.17323,0.882234,-0.196587,0.0106878,0.0905404,-0.051632,0.0585038,-1.95136,0.23329,0.309968,-0.0104647,0.0150621,0.0505774,0.0311375,-0.0159439,0.0716817,-0.035749,0.00158207,0,0,0,0,0,0,0,2.61798,-32.8996,2.21467,27.2287,0.758663,2.36382,0.0440523,
0.0913326,-0.0509429,0.0593272,-1.95249,0.236294,0.308911,-0.0104431,0.0282409,0.0133825,0.0292374,-0.0348191,0.0998145,-0.0382103,0.000586601,-0.580375,0.22639,-0.593968,0.450531,2.77454,-1.85208,-0.0454147,3.06316,0.25879,3.14763,-2.96888,1.07256,-0.321804,0.00890763,0.0905404,-0.051632,0.0585038,-1.95136,0.23329,0.309968,-0.0104647,0.0150621,0.0505774,0.0311375,-0.0159439,0.0716817,-0.035749,0.00158207,0,0,0,0,0,0,0,2.61798,-32.8996,2.21467,27.2287,0.758663,2.36382,0.0440523,
0.0915213,-0.0508417,0.0595229,-1.95272,0.23743,0.308396,-0.0104427,0.0273106,0.0132368,0.0282839,-0.0335946,0.10825,-0.0434676,0.00047834,-0.581474,-0.0910346,-0.595936,0.765253,5.27208,-3.28583,-0.0676628,2.94791,0.265456,3.02687,-2.76463,1.29895,-0.467227,0.007177,0.0905404,-0.051632,0.0585038,-1.95136,0.23329,0.309968,-0.0104647,0.0150621,0.0505774,0.0311375,-0.0159439,0.0716817,-0.035749,0.00158207,0,0,0,0,0,0,0,2.61798,-32.8996,2.21467,27.2287,0.758663,2.36382,0.0440523,
0.0907348,-0.0513852,0.0587072,-1.95166,0.233898,0.309814,-0.0104567,0.0267077,0.0167588,0.0277108,-0.0341353,0.101793,-0.0386265,0.00058325,-0.376828,2.20122,-0.358167,-0.337904,-4.03547,3.02566,0.0655684,3.18382,0.252902,3.27357,-3.17323,0.882234,-0.196587,0.0106878,0.0905404,-0.051632,0.0585038,-1.95136,0.23329,0.309968,-0.0104647,0.0150621,0.0505774,0.0311375,-0.0159439,0.0716817,-0.035749,0.00158207,0,0,0,0,0,0,0,2.61798,-32.8996,2.21467,27.2287,0.758663,2.36382,0.0440523,
0.0909357,-0.0512048,0.0589156,-1.95196,0.234569,0.309608,-0.01045,0.0263889,0.0179182,0.0273788,-0.0348496,0.0982187,-0.036034,0.000634628,-0.199231,0.724644,-0.207501,-0.446432,-2.23395,1.62031,0.0321112,3.06395,0.26419,3.14754,-2.96241,1.06765,-0.314336,0.00887933,0.0910366,-0.0511104,0.058956,-1.95188,0.234898,0.309411,-0.0104647,0.0154139,0.0242497,0.0220291,-0.0133898,0.0382606,-0.0333368,0.000263554,0.0439672,-3.29096,-1.13855,0.319261,-4.17763,0.30153,-0.164815,1.78089,-32.4751,1.38948,29.744,0.60577,2.8875,0.0440523,
0.0911364,-0.0510616,0.0591237,-1.95224,0.235353,0.309312,-0.0104454,0.0261283,0.0179155,0.027106,-0.0349133,0.0981733,-0.0362321,0.000621439,-0.162861,-0.00168701,-0.170523,-0.0398473,-0.0283541,-0.123785,-0.00824294,2.9487,0.270855,3.02678,-2.75816,1.29405,-0.45976,0.0071487,0.0910366,-0.0511104,0.058956,-1.95188,0.234898,0.309411,-0.0104647,0.0154139,0.0242497,0.0220291,-0.0133898,0.0382606,-0.0333368,0.000263554,0,0,0,0,0,0,0,1.78089,-32.4751,1.38948,29.744,0.60577,2.8875,0.0440523,
0.0913326,-0.0509429,0.0593272,-1.95249,0.236294,0.308911,-0.0104431,0.025808,0.0172987,0.026772,-0.0343178,0.102053,-0.0389984,0.00055634,-0.200221,-0.385516,-0.208749,0.372211,2.42477,-1.72893,-0.0406866,2.83865,0.27845,2.91098,-2.55418,1.56004,-0.626558,0.00548997,0.0910366,-0.0511104,0.058956,-1.95188,0.234898,0.309411,-0.0104647,0.0154139,0.0242497,0.0220291,-0.0133898,0.0382606,-0.0333368,0.000263554,0,0,0,0,0,0,0,1.78089,-32.4751,1.38948,29.744,0.60577,2.8875,0.0440523,
0.0914967,-0.0508316,0.0594378,-1.95253,0.237322,0.308442,-0.010461,0.0245052,0.015741,0.025443,-0.0326583,0.107736,-0.0420975,0.000450954,-0.814232,-0.973553,-0.830582,1.03718,3.55211,-1.93693,-0.0658662,2.9487,0.270855,3.02678,-2.75816,1.29405,-0.45976,0.0071487,0.0910366,-0.0511104,0.058956,-1.95188,0.234898,0.309411,-0.0104647,0.0154139,0.0242497,0.0220291,-0.0133898,0.0382606,-0.0333368,0.000263554,0,0,0,0,0,0,0,1.78089,-32.4751,1.38948,29.744,0.60577,2.8875,0.0440523,
0.0916477,-0.050763,0.0595951,-1.95272,0.238624,0.307865,-0.0104623,0.023378,0.014309,0.0242884,-0.0308312,0.118725,-0.0480982,0.000326248,-0.704501,-0.894979,-0.721637,1.14196,6.8676,-3.75043,-0.0779416,2.83985,0.284226,2.91172,-2.54852,1.55761,-0.621296,0.00546356,0.0917916,-0.0506309,0.0596541,-1.95224,0.235803,0.309165,-0.0104517,0.0178525,-0.0180423,0.0155551,-0.0247239,0.032176,-0.0208184,0.000494958,0.304835,-5.2865,-0.80925,-1.41677,-0.760576,1.56479,0.0289255,1.4516,-34.0462,1.16334,30.9897,0.672604,3.63,-0.0301054,
0.0917925,-0.0506994,0.0597461,-1.95289,0.240208,0.307135,-0.0104653,0.0223237,0.0130365,0.0232056,-0.0288585,0.134588,-0.0567448,0.000188016,-0.658916,-0.795322,-0.676788,1.2329,9.9144,-5.40417,-0.0863947,2.73412,0.292973,2.8,-2.34491,1.86668,-0.810413,0.00390062,0.0917916,-0.0506309,0.0596541,-1.95224,0.235803,0.309165,-0.0104517,0.0178525,-0.0180423,0.0155551,-0.0247239,0.032176,-0.0208184,0.000494958,0,0,0,0,0,0,0,1.4516,-34.0462,1.16334,30.9897,0.672604,3.63,-0.0301054,
0.091929,-0.0506394,0.0598885,-1.95303,0.242102,0.306238,-0.0104695,0.0212712,0.0119299,0.022123,-0.0267806,0.155023,-0.0678091,4.42509e-05,-0.657829,-0.691609,-0.67662,1.29873,12.7719,-6.91519,-0.0898534,2.63089,0.303034,2.69056,-2.14174,2.22036,-1.02122,0.00247288,0.0917916,-0.0506309,0.0596541,-1.95224,0.235803,0.309165,-0.0104517,0.0178525,-0.0180423,0.0155551,-0.0247239,0.032176,-0.0208184,0.000494958,0,0,0,0,0,0,0,1.4516,-34.0462,1.16334,30.9897,0.672604,3.63,-0.0301054,
0.0921578,-0.0507702,0.0600394,-1.95265,0.239091,0.307729,-0.010461,0.019993,0.00908352,0.0208222,-0.0244812,0.160711,-0.0701183,-6.04185e-05,-0.798865,-1.77901,-0.813006,1.43713,3.55532,-1.44321,-0.0654184,2.73412,0.292973,2.8,-2.34491,1.86668,-0.810413,0.00390062,0.0917916,-0.0506309,0.0596541,-1.95224,0.235803,0.309165,-0.0104517,0.0178525,-0.0180423,0.0155551,-0.0247239,0.032176,-0.0208184,0.000494958,0,0,0,0,0,0,0,1.4516,-34.0462,1.16334,30.9897,0.672604,3.63,-0.0301054,
0.0922722,-0.0507721,0.0601593,-1.95276,0.240915,0.306919,-0.0104657,0.0188532,0.00721956,0.0196556,-0.0223384,0.174177,-0.0763318,-0.000165674,-0.712377,-1.16497,-0.729112,1.33923,8.41616,-3.88346,-0.0657849,2.63012,0.306589,2.68931,-2.13806,2.2206,-1.01853,0.00245703,0.0923494,-0.0503422,0.0600432,-1.95294,0.235893,0.309516,-0.0104636,0.00756488,-0.0235677,0.0119332,-0.0135101,0.0146541,0.0125711,-0.000740412,-1.28596,-0.690676,-0.452739,1.40173,-2.19024,4.17369,-0.154421,0.919986,-32.6259,0.738844,27.1771,1.0086,2.98638,0.0376436,
0.0923799,-0.050762,0.0602723,-1.95286,0.243103,0.305923,-0.0104712,0.0177764,0.00603007,0.0185496,-0.0203121,0.194034,-0.0859707,-0.000268587,-0.673032,-0.743433,-0.691212,1.26642,12.4109,-6.02427,-0.0643201,2.52633,0.318121,2.57908,-1.93521,2.61881,-1.24944,0.00121896,0.0923494,-0.0503422,0.0600432,-1.95294,0.235893,0.309516,-0.0104636,0.00756488,-0.0235677,0.0119332,-0.0135101,0.0146541,0.0125711,-0.000740412,0,0,0,0,0,0,0,0.919986,-32.6259,0.738844,27.1771,1.0086,2.98638,0.0376436,
0.0924281,-0.0504661,0.0601287,-1.95303,0.236515,0.309417,-0.0104668,0.016187,0.00172646,0.0169756,-0.018657,0.17078,-0.0712648,-0.000294102,-0.993355,-2.68976,-0.983787,1.03445,-14.534,9.19113,-0.0159471,2.73334,0.296528,2.79874,-2.34123,1.86692,-0.807722,0.00388477,0.0923494,-0.0503422,0.0600432,-1.95294,0.235893,0.309516,-0.0104636,0.00756488,-0.0235677,0.0119332,-0.0135101,0.0146541,0.0125711,-0.000740412,0,0,0,0,0,0,0,0.919986,-32.6259,0.738844,27.1771,1.0086,2.98638,0.0376436,
0.0925123,-0.0505476,0.0602187,-1.95313,0.237556,0.309124,-0.0104699,0.015057,-0.000656178,0.0158325,-0.0172435,0.16265,-0.0643272,-0.000313895,-0.706238,-1.48915,-0.714426,0.883409,-5.08149,4.33601,-0.0123709,2.63012,0.306589,2.68931,-2.13806,2.2206,-1.01853,0.00245703,0.0923494,-0.0503422,0.0600432,-1.95294,0.235893,0.309516,-0.0104636,0.00756488,-0.0235677,0.0119332,-0.0135101,0.0146541,0.0125711,-0.000740412,0,0,0,0,0,0,0,0.919986,-32.6259,0.738844,27.1771,1.0086,2.98638,0.0376436,
0.0926005,-0.0505991,0.0603123,-1.95322,0.238977,0.308634,-0.0104737,0.0142496,-0.00181161,0.0150045,-0.0160151,0.165645,-0.0637286,-0.000344852,-0.504642,-0.722146,-0.517501,0.767776,1.87241,0.374133,-0.0193482,2.52598,0.320587,2.57954,-1.93787,2.615,-1.2493,0.00122288,0.0928257,-0.0503207,0.0604929,-1.9528,0.237067,0.30962,-0.0104606,0.0150191,-0.000911951,0.0106125,0.0200525,0.0710765,0.00899683,-0.000630003,0.931781,2.83196,-0.16509,4.19533,7.0528,-0.446779,0.0138011,0.967594,-33.1218,0.738844,25.1578,1.37573,2.08459,0.050461,
0.0926898,-0.0506284,0.0604067,-1.9533,0.240767,0.307938,-0.0104783,0.0136327,-0.00218185,0.0143644,-0.0148903,0.177268,-0.0683721,-0.000390285,-0.385542,-0.231399,-0.400067,0.702975,7.26382,-2.90217,-0.0283954,2.41691,0.333595,2.46384,-1.73515,3.0541,-1.49603,0.000242662,0.0928257,-0.0503207,0.0604929,-1.9528,0.237067,0.30962,-0.0104606,0.0150191,-0.000911951,0.0106125,0.0200525,0.0710765,0.00899683,-0.000630003,0,0,0,0,0,0,0,0.967594,-33.1218,0.738844,25.1578,1.37573,2.08459,0.050461,
0.0930136,-0.0504295,0.0606924,-1.95286,0.239573,0.309282,-0.0104721,0.0132447,-0.00304274,0.01397,-0.0131097,0.178008,-0.0619587,-0.000435935,-0.242498,-0.538055,-0.246481,1.11288,0.46289,4.00836,-0.0285313,2.62977,0.309055,2.68977,-2.14073,2.21678,-1.01839,0.00246095,0.0928257,-0.0503207,0.0604929,-1.9528,0.237067,0.30962,-0.0104606,0.0150191,-0.000911951,0.0106125,0.0200525,0.0710765,0.00899683,-0.000630003,0,0,0,0,0,0,0,0.967594,-33.1218,0.738844,25.1578,1.37573,2.08459,0.050461,
0.0931059,-0.0504669,0.0607898,-1.95291,0.241387,0.308735,-0.0104772,0.0129011,-0.00336966,0.0136105,-0.0118903,0.187758,-0.0632496,-0.000475682,-0.214785,-0.204328,-0.224712,0.762165,6.0934,-0.806798,-0.024842,2.52598,0.320587,2.57954,-1.93787,2.615,-1.2493,0.00122288,0.0928257,-0.0503207,0.0604929,-1.9528,0.237067,0.30962,-0.0104606,0.0150191,-0.000911951,0.0106125,0.0200525,0.0710765,0.00899683,-0.000630003,0,0,0,0,0,0,0,0.967594,-33.1218,0.738844,25.1578,1.37573,2.08459,0.050461,
0.0931949,-0.0504897,0.0608836,-1.95297,0.243569,0.307937,-0.0104828,0.0125458,-0.00326656,0.013235,-0.0108957,0.204753,-0.0705615,-0.0005202,-0.222066,0.06444,-0.234708,0.621617,10.6218,-4.56994,-0.0278239,2.41687,0.32055,2.46685,-1.7427,3.04734,-1.50044,0.000286231,0.0931683,-0.0509964,0.060626,-1.95219,0.239103,0.309746,-0.0104596,0.00656344,-0.0431239,-0.0157694,0.0257176,0.00764215,0.00943047,-0.000375483,-1.05696,-5.27649,-3.29773,0.70814,-7.92929,0.0542053,0.0318151,-3.79712,-34.2485,-3.96239,28.895,0.929867,3.28484,0.0303194,
0.0930859,-0.0516245,0.0605561,-1.95199,0.243965,0.308396,-0.0104884,0.00962746,-0.00633773,0.0102774,-0.00768908,0.219355,-0.0750224,-0.000600614,-1.82393,-1.91949,-1.84848,2.00413,9.12664,-2.78808,-0.0502582,2.41687,0.32055,2.46685,-1.7427,3.04734,-1.50044,0.000286231,0.0931683,-0.0509964,0.060626,-1.95219,0.239103,0.309746,-0.0104596,0.00656344,-0.0431239,-0.0157694,0.0257176,0.00764215,0.00943047,-0.000375483,0,0,0,0,0,0,0,-3.79712,-34.2485,-3.96239,28.895,0.929867,3.28484,0.0303194,
0.0930787,-0.0517306,0.0605523,-1.95196,0.246683,0.307373,-0.0104946,0.00752065,-0.00772227,0.00812899,-0.00540493,0.24342,-0.0855899,-0.000636732,-1.31676,-0.865334,-1.34275,1.42759,15.0405,-6.60468,-0.0225738,2.29573,0.334916,2.33889,-1.53958,3.51976,-1.75695,-0.000342709,0.0931683,-0.0509964,0.060626,-1.95219,0.239103,0.309746,-0.0104596,0.00656344,-0.0431239,-0.0157694,0.0257176,0.00764215,0.00943047,-0.000375483,0,0,0,0,0,0,0,-3.79712,-34.2485,-3.96239,28.895,0.929867,3.28484,0.0303194,
0.0930769,-0.0518035,0.0605538,-1.95194,0.249848,0.306091,-0.0104996,0.00597368,-0.00800017,0.00654087,-0.00374953,0.273876,-0.100521,-0.000633307,-0.966854,-0.173689,-0.992574,1.03462,19.0351,-9.33175,0.00214063,2.15332,0.350336,2.18953,-1.3356,4.01217,-2.01338,-0.000515929,0.0931683,-0.0509964,0.060626,-1.95219,0.239103,0.309746,-0.0104596,0.00656344,-0.0431239,-0.0157694,0.0257176,0.00764215,0.00943047,-0.000375483,0,0,0,0,0,0,0,-3.79712,-34.2485,-3.96239,28.895,0.929867,3.28484,0.0303194,
0.0930771,-0.0518504,0.0605568,-1.95192,0.253415,0.304578,-0.0105028,0.00478201,-0.00757289,0.00530785,-0.00252118,0.308266,-0.118235,-0.000585672,-0.744795,0.267052,-0.770637,0.76772,21.4936,-11.0714,0.0297715,1.97768,0.351311,2.00953,-1.13888,4.50294,-2.26501,-6.87638e-05,0.0936109,-0.0516621,0.0607347,-1.95144,0.239423,0.309873,-0.0104573,0.0125811,-0.0261917,-0.00496263,0.0247583,0.0268246,-0.000693373,0.000435744,0.752206,2.11652,1.35084,-0.119913,2.3978,-1.26548,0.101403,0.00751081,-29.2061,-0.0863513,24.8602,1.21002,2.57531,0.017502,
0.0936252,-0.0518486,0.0607546,-1.95138,0.240518,0.30965,-0.0104702,0.00418225,-0.0107206,0.00474313,-0.000390975,0.273979,-0.100164,-0.000791362,-0.374852,-1.96733,-0.352951,1.33138,-21.4295,11.2943,-0.128556,2.41689,0.305469,2.46957,-1.75172,3.04559,-1.50759,0.00032797,0.0936109,-0.0516621,0.0607347,-1.95144,0.239423,0.309873,-0.0104573,0.0125811,-0.0261917,-0.00496263,0.0247583,0.0268246,-0.000693373,0.000435744,0,0,0,0,0,0,0,0.00751081,-29.2061,-0.0863513,24.8602,1.21002,2.57531,0.017502,
0.0936388,-0.0519907,0.0607738,-1.95135,0.24226,0.309133,-0.0104797,0.0036858,-0.0121302,0.00427628,0.000358512,0.262743,-0.0930648,-0.00086968,-0.310281,-0.880966,-0.291781,0.468429,-7.02226,4.43701,-0.0489485,2.29575,0.319834,2.34161,-1.54861,3.518,-1.7641,-0.000300971,0.0936109,-0.0516621,0.0607347,-1.95144,0.239423,0.309873,-0.0104573,0.0125811,-0.0261917,-0.00496263,0.0247583,0.0268246,-0.000693373,0.000435744,0,0,0,0,0,0,0,0.00751081,-29.2061,-0.0863513,24.8602,1.21002,2.57531,0.017502,
0.0936554,-0.0520935,0.0607952,-1.95134,0.244541,0.308322,-0.0104873,0.00336399,-0.0122747,0.00395605,0.000600985,0.267216,-0.0947136,-0.000887224,-0.201128,-0.0903426,-0.200146,0.151546,2.7958,-1.03049,-0.0109651,2.15334,0.335254,2.19224,-1.34462,4.01041,-2.02053,-0.00047419,0.0936109,-0.0516621,0.0607347,-1.95144,0.239423,0.309873,-0.0104573,0.0125811,-0.0261917,-0.00496263,0.0247583,0.0268246,-0.000693373,0.000435744,0,0,0,0,0,0,0,0.00751081,-29.2061,-0.0863513,24.8602,1.21002,2.57531,0.017502,
0.0936743,-0.0521648,0.0608184,-1.95133,0.247301,0.307236,-0.0104938,0.00316371,-0.0116024,0.00374335,0.000634949,0.282766,-0.102934,-0.000871465,-0.125178,0.420162,-0.132933,0.0212272,9.71819,-5.13771,0.00984957,1.97938,0.338276,2.01439,-1.1513,4.49403,-2.2694,-3.8635e-05,0.0940698,-0.0524301,0.0606128,-1.95091,0.241975,0.30962,-0.0104644,0.00464439,-0.0200452,-0.00111083,0.0256034,0.160185,-0.00530821,-0.00177319,-0.992088,0.76832,0.481475,0.10563,16.6701,-0.576855,-0.276116,2.38788,-29.456,1.98854,21.1469,1.43615,1.49499,0.0843355,
0.0940671,-0.0527855,0.0606243,-1.95069,0.249744,0.307317,-0.010492,0.00249531,-0.0114922,0.00305827,0.00177037,0.304112,-0.110127,-0.000854234,-0.417749,0.0688927,-0.428174,0.709635,13.3413,-4.49545,0.0107693,2.15503,0.322218,2.1971,-1.35704,4.0015,-2.02492,-0.000444061,0.0940698,-0.0524301,0.0606128,-1.95091,0.241975,0.30962,-0.0104644,0.00464439,-0.0200452,-0.00111083,0.0256034,0.160185,-0.00530821,-0.00177319,0,0,0,0,0,0,0,2.38788,-29.456,1.98854,21.1469,1.43615,1.49499,0.0843355,
0.094065,-0.0528484,0.0606256,-1.95065,0.253286,0.305925,-0.0104959,0.00194378,-0.0107653,0.00247847,0.00243352,0.33184,-0.122913,-0.000779994,-0.344704,0.454324,-0.362378,0.414471,17.3302,-7.99169,0.0464002,1.97938,0.338276,2.01439,-1.1513,4.49403,-2.2694,-3.8635e-05,0.0940698,-0.0524301,0.0606128,-1.95091,0.241975,0.30962,-0.0104644,0.00464439,-0.0200452,-0.00111083,0.0256034,0.160185,-0.00530821,-0.00177319,0,0,0,0,0,0,0,2.38788,-29.456,1.98854,21.1469,1.43615,1.49499,0.0843355,
0.0940603,-0.0528899,0.0606238,-1.95062,0.257182,0.304304,-0.0104973,0.00143854,-0.00965202,0.0019373,0.00281057,0.362863,-0.138858,-0.000660467,-0.315775,0.695799,-0.33823,0.235657,19.3892,-9.96555,0.0747045,1.7558,0.354566,1.78373,-0.943258,4.95933,-2.48604,0.00104065,0.0940698,-0.0524301,0.0606128,-1.95091,0.241975,0.30962,-0.0104644,0.00464439,-0.0200452,-0.00111083,0.0256034,0.160185,-0.00530821,-0.00177319,0,0,0,0,0,0,0,2.38788,-29.456,1.98854,21.1469,1.43615,1.49499,0.0843355,
0.0944485,-0.0526103,0.0606115,-1.95012,0.254222,0.307357,-0.0105032,0.000617941,-0.00755717,0.00115,0.00321528,0.377554,-0.143414,-0.000700075,-0.512877,1.30928,-0.492061,0.252944,9.18234,-2.84729,-0.0247552,1.75371,0.350017,1.78302,-0.946937,4.94661,-2.48648,0.00106327,0.0944316,-0.0526557,0.0605665,-1.9503,0.245921,0.30991,-0.0104587,0.0101454,0.0136072,0.0228179,0.0309839,0.0690499,0.0291544,0.00415893,0.687621,4.20654,2.9911,0.672561,-11.3919,4.30783,0.741515,2.38788,-28.6546,2.03615,18.8577,0.690914,0.818411,-0.00996382,
0.0944163,-0.052602,0.0605827,-1.95008,0.25813,0.305784,-0.0105077,-0.000312142,-0.00583808,0.000200806,0.00340007,0.399728,-0.154073,-0.00067217,-0.581302,1.07443,-0.593249,0.115494,13.8583,-6.66182,0.0174407,1.46511,0.366053,1.48742,-0.735836,5.34942,-2.65854,0.00280968,0.0944316,-0.0526557,0.0605665,-1.9503,0.245921,0.30991,-0.0104587,0.0101454,0.0136072,0.0228179,0.0309839,0.0690499,0.0291544,0.00415893,0,0,0,0,0,0,0,2.38788,-28.6546,2.03615,18.8577,0.690914,0.818411,-0.00996382,
0.094382,-0.0525923,0.0605519,-1.95005,0.26221,0.304065,-0.0105287,-0.00110758,-0.00442621,-0.000611311,0.00340935,0.4218,-0.166234,-0.00106391,-0.497148,0.882417,-0.507573,0.00580022,13.7953,-7.6006,-0.244839,1.09441,0.380037,1.11022,-0.522299,5.64639,-2.76577,0.00465417,0.0944316,-0.0526557,0.0605665,-1.9503,0.245921,0.30991,-0.0104587,0.0101454,0.0136072,0.0228179,0.0309839,0.0690499,0.0291544,0.00415893,0,0,0,0,0,0,0,2.38788,-28.6546,2.03615,18.8577,0.690914,0.818411,-0.00996382,
0.094387,-0.0525926,0.0605663,-1.95005,0.265781,0.302518,-0.010529,-0.000759717,-0.00354824,-0.000129102,0.00293326,0.42671,-0.171649,-0.000856913,0.217414,0.548731,0.301381,-0.297555,3.06868,-3.38482,0.129375,0.636019,0.383436,0.647258,-0.310726,5.77552,-2.78012,0.00276679,0.0944316,-0.0526557,0.0605665,-1.9503,0.245921,0.30991,-0.0104587,0.0101454,0.0136072,0.0228179,0.0309839,0.0690499,0.0291544,0.00415893,0,0,0,0,0,0,0,2.38788,-28.6546,2.03615,18.8577,0.690914,0.818411,-0.00996382,
0.0944707,-0.0526266,0.06062,-1.95021,0.247869,0.309543,-0.0104822,0.000369378,-0.00211224,0.00123427,0.00460029,0.390081,-0.146487,-0.00127363,0.705684,0.897499,0.852108,1.04189,-22.8931,15.7267,-0.260449,1.75371,0.350017,1.78302,-0.946937,4.94661,-2.48648,0.00106327,0.0944316,-0.0526557,0.0605665,-1.9503,0.245921,0.30991,-0.0104587,0.0101454,0.0136072,0.0228179,0.0309839,0.0690499,0.0291544,0.00415893,0,0,0,0,0,0,0,2.38788,-28.6546,2.03615,18.8577,0.690914,0.818411,-0.00996382,
0.0944699,-0.0526169,0.0606275,-1.95015,0.250732,0.308651,-0.0104963,0.000275543,-0.00144667,0.00117497,0.00495253,0.383634,-0.13951,-0.00137193,-0.058647,0.415985,-0.0370599,0.22015,-4.02963,4.3604,-0.0614351,1.46922,0.371119,1.49343,-0.748354,5.33175,-2.65763,0.0027712,0.0946625,-0.0527278,0.0609058,-1.94985,0.251204,0.30911,-0.0104582,0.00157901,0.0271951,0.00314746,0.00375468,0.224678,-0.0162056,-0.000964607,-1.07079,1.69849,-2.45881,-3.40365,19.4535,-5.67,-0.640443,3.47889,-28.4563,3.21443,20.9247,1.44256,1.09032,0.0706026,
0.0944485,-0.0526103,0.0606115,-1.95012,0.254222,0.307357,-0.0105032,-0.00031246,-0.000992882,0.000540142,0.00492884,0.394171,-0.143935,-0.00126924,-0.367502,0.283615,-0.39677,-0.0148009,6.58595,-2.7658,0.0641773,1.09852,0.385104,1.11623,-0.534817,5.62872,-2.76486,0.00461569,0.0946625,-0.0527278,0.0609058,-1.94985,0.251204,0.30911,-0.0104582,0.00157901,0.0271951,0.00314746,0.00375468,0.224678,-0.0162056,-0.000964607,0,0,0,0,0,0,0,3.47889,-28.4563,3.21443,20.9247,1.44256,1.09032,0.0706026,
0.0944163,-0.052602,0.0605827,-1.95008,0.25813,0.305784,-0.0105077,-0.00105646,-0.000586649,-0.000287084,0.00477092,0.413021,-0.15449,-0.0011275,-0.465002,0.253896,-0.517016,-0.0987012,11.7812,-6.59662,0.0885867,0.640128,0.388502,0.653265,-0.323243,5.75785,-2.77921,0.00272831,0.0946625,-0.0527278,0.0609058,-1.94985,0.251204,0.30911,-0.0104582,0.00157901,0.0271951,0.00314746,0.00375468,0.224678,-0.0162056,-0.000964607,0,0,0,0,0,0,0,3.47889,-28.4563,3.21443,20.9247,1.44256,1.09032,0.0706026,
0.0944901,-0.052383,0.0607539,-1.94983,0.261366,0.305509,-0.0105048,-0.00255528,0.00162675,-0.00182337,0.0039792,0.425834,-0.161793,-0.0014833,-0.936761,1.38337,-0.960182,-0.494824,8.0078,-4.56428,-0.222371,1.09852,0.385104,1.11623,-0.534817,5.62872,-2.76486,0.00461569,0.0946625,-0.0527278,0.0609058,-1.94985,0.251204,0.30911,-0.0104582,0.00157901,0.0271951,0.00314746,0.00375468,0.224678,-0.0162056,-0.000964607,0,0,0,0,0,0,0,3.47889,-28.4563,3.21443,20.9247,1.44256,1.09032,0.0706026,
0.0944627,-0.052329,0.0607364,-1.94983,0.264758,0.30408,-0.010506,-0.00272929,0.00265216,-0.00189574,0.00295944,0.425479,-0.165142,-0.00121746,-0.108758,0.640884,-0.0452297,-0.637354,-0.221526,-2.09297,0.166146,0.64434,0.392712,0.659372,-0.328861,5.73185,-2.77026,0.00267761,0.0949188,-0.0527044,0.0611612,-1.95003,0.259752,0.308667,-0.0104583,0.00702085,0.00998658,0.0117208,-0.0123467,0.275888,0.00623162,0.000134847,0.680229,-2.15106,1.07167,-2.01267,6.40123,2.80465,0.137432,-0.528073,-31.6261,-0.76079,26.0822,0.63049,2.66137,0.0303194,
0.0945108,-0.0522989,0.0607908,-1.94985,0.267038,0.303063,-0.0104943,-0.00097945,0.00287518,-0.000157686,0.00188156,0.397364,-0.157541,-0.000680292,1.09365,0.139388,1.08628,-0.673675,-17.5718,4.75011,0.335733,0.178135,0.350745,0.212361,-0.133474,5.47848,-2.59058,-0.0239431,0.0949188,-0.0527044,0.0611612,-1.95003,0.259752,0.308667,-0.0104583,0.00702085,0.00998658,0.0117208,-0.0123467,0.275888,0.00623162,0.000134847,0,0,0,0,0,0,0,-0.528073,-31.6261,-0.76079,26.0822,0.63049,2.66137,0.0303194,
0.0945865,-0.0522795,0.0608771,-1.94987,0.268672,0.302303,-0.0104909,0.0011077,0.00278392,0.00203333,0.00105135,0.358749,-0.145041,-0.000458978,1.30447,-0.0570387,1.36938,-0.518883,-24.1347,7.81274,0.138321,0.216159,0.0985909,0.394958,-0.0419178,3.56937,-1.61734,-0.0111171,0.0949188,-0.0527044,0.0611612,-1.95003,0.259752,0.308667,-0.0104583,0.00702085,0.00998658,0.0117208,-0.0123467,0.275888,0.00623162,0.000134847,0,0,0,0,0,0,0,-0.528073,-31.6261,-0.76079,26.0822,0.63049,2.66137,0.0303194,
0.0949669,-0.0525283,0.0612432,-1.94999,0.267819,0.306297,-0.0104935,0.00227057,0.00294424,0.00321757,0.0010669,0.337866,-0.133216,-0.000175804,0.726793,0.1002,0.740149,0.00972284,-13.052,7.39093,0.176984,0.178135,0.350745,0.212361,-0.133474,5.47848,-2.59058,-0.0239431,0.0949188,-0.0527044,0.0611612,-1.95003,0.259752,0.308667,-0.0104583,0.00702085,0.00998658,0.0117208,-0.0123467,0.275888,0.00623162,0.000134847,0,0,0,0,0,0,0,-0.528073,-31.6261,-0.76079,26.0822,0.63049,2.66137,0.0303194,
0.0950404,-0.0525145,0.0613285,-1.94998,0.269312,0.30576,-0.0104923,0.00365393,0.00270202,0.00470752,0.00100137,0.307615,-0.119993,-0.000111518,0.864598,-0.15139,0.931223,-0.0409595,-18.9069,8.26427,0.040179,0.210384,0.100762,0.389445,-0.0388072,3.55414,-1.61343,-0.0110368,0.0950188,-0.0524795,0.0614239,-1.9498,0.264595,0.309194,-0.0104551,-0.00555659,0.0234742,-0.00276468,-0.0076157,0.152086,-0.00990021,0.00133496,-1.57218,1.68595,-1.81069,0.591377,-15.4752,-2.01648,0.150014,-0.908932,-29.2537,-1.18529,23.6145,1.44897,2.15142,0.00376909,
0.0951159,-0.0525082,0.0614179,-1.94998,0.270485,0.305319,-0.0104953,0.00481137,0.00231931,0.00600016,0.000935303,0.275408,-0.107006,-0.000163253,0.7234,-0.239194,0.807901,-0.0412897,-20.1293,8.11682,-0.0323348,0.0641308,0.0132781,0.256322,0.140685,0.794307,-0.287121,-0.009154,0.0950188,-0.0524795,0.0614239,-1.9498,0.264595,0.309194,-0.0104551,-0.00555659,0.0234742,-0.00276468,-0.0076157,0.152086,-0.00990021,0.00133496,0,0,0,0,0,0,0,-0.908932,-29.2537,-1.18529,23.6145,1.44897,2.15142,0.00376909,
0.0949244,-0.052235,0.0613601,-1.94986,0.267719,0.308244,-0.0104708,0.00327844,0.00435058,0.00450699,0.000122032,0.252944,-0.0963337,-8.51546e-05,-0.95808,1.26955,-0.933236,-0.508294,-14.0396,6.67008,0.0488117,0.210384,0.100762,0.389445,-0.0388072,3.55414,-1.61343,-0.0110368,0.0950188,-0.0524795,0.0614239,-1.9498,0.264595,0.309194,-0.0104551,-0.00555659,0.0234742,-0.00276468,-0.0076157,0.152086,-0.00990021,0.00133496,0,0,0,0,0,0,0,-0.908932,-29.2537,-1.18529,23.6145,1.44897,2.15142,0.00376909,
0.094923,-0.0521639,0.0613719,-1.94988,0.268732,0.307872,-0.0104725,0.00258815,0.00525589,0.00389829,-0.000409474,0.227699,-0.0863734,-0.000111305,-0.431431,0.565819,-0.380435,-0.332191,-15.778,6.22518,-0.0163441,0.0641308,0.0132781,0.256322,0.140685,0.794307,-0.287121,-0.009154,0.0950188,-0.0524795,0.0614239,-1.9498,0.264595,0.309194,-0.0104551,-0.00555659,0.0234742,-0.00276468,-0.0076157,0.152086,-0.00990021,0.00133496,0,0,0,0,0,0,0,-0.908932,-29.2537,-1.18529,23.6145,1.44897,2.15142,0.00376909,
0.0949317,-0.052112,0.0613948,-1.94989,0.269581,0.307538,-0.0104768,0.00228868,0.00550302,0.00369281,-0.000710345,0.203367,-0.0774612,-0.000194901,-0.187167,0.154459,-0.128424,-0.188044,-15.2078,5.57014,-0.0522473,0.0620238,0.0140068,0.253977,0.145308,0.789199,-0.282924,-0.00912775,0.0950996,-0.052305,0.0615488,-1.94996,0.266459,0.309429,-0.010455,0.00287872,-0.0010916,0.00578443,-0.0026586,-0.000146729,0.005141,0.0024181,1.05441,-3.07073,1.06864,0.619638,-19.0291,1.88015,0.135392,-0.246395,-32.5743,-0.237108,27.8,1.01501,3.37823,-0.0429228,
0.0949447,-0.0520731,0.0614226,-1.9499,0.270334,0.30723,-0.0104824,0.00215426,0.00537475,0.00364883,-0.000837236,0.181531,-0.069667,-0.000297034,-0.0840134,-0.0801704,-0.0274914,-0.0793067,-13.6476,4.87139,-0.0638329,0.0620238,0.0140068,0.253977,0.145308,0.789199,-0.282924,-0.00912775,0.0950996,-0.052305,0.0615488,-1.94996,0.266459,0.309429,-0.010455,0.00287872,-0.0010916,0.00578443,-0.0026586,-0.000146729,0.005141,0.0024181,0,0,0,0,0,0,0,-0.246395,-32.5743,-0.237108,27.8,1.01501,3.37823,-0.0429228,
0.0951022,-0.0522958,0.0615858,-1.94994,0.267113,0.309228,-0.0104756,0.00164804,0.00444336,0.00325914,-0.000450197,0.155267,-0.0589657,-0.000484534,-0.316391,-0.582122,-0.243551,0.241899,-16.415,6.68827,-0.117188,0.0620238,0.0140068,0.253977,0.145308,0.789199,-0.282924,-0.00912775,0.0950996,-0.052305,0.0615488,-1.94996,0.266459,0.309429,-0.010455,0.00287872,-0.0010916,0.00578443,-0.0026586,-0.000146729,0.005141,0.0024181,0,0,0,0,0,0,0,-0.246395,-32.5743,-0.237108,27.8,1.01501,3.37823,-0.0429228,
0.095096,-0.0522902,0.0615956,-1.94993,0.267602,0.309066,-0.0104843,0.00116401,0.00369589,0.00285277,-9.80326e-05,0.136424,-0.0512329,-0.000605229,-0.302515,-0.46717,-0.253987,0.220103,-11.7769,4.833,-0.0754343,0.0620238,0.0140068,0.253977,0.145308,0.789199,-0.282924,-0.00912775,0.0950996,-0.052305,0.0615488,-1.94996,0.266459,0.309429,-0.010455,0.00287872,-0.0010916,0.00578443,-0.0026586,-0.000146729,0.005141,0.0024181,0,0,0,0,0,0,0,-0.246395,-32.5743,-0.237108,27.8,1.01501,3.37823,-0.0429228,
0.0950895,-0.0522852,0.0616047,-1.94992,0.268141,0.308883,-0.0104923,0.000766761,0.00308091,0.0025093,0.000198375,0.122617,-0.0455492,-0.000684641,-0.248281,-0.384359,-0.214664,0.185255,-8.62942,3.55232,-0.0496326,0.0613974,0.0358222,0.250894,0.140455,0.795295,-0.289101,-0.00909181,0.0949311,-0.0518428,0.0613054,-1.94969,0.264706,0.310678,-0.010464,-0.000328549,0.00657824,-0.00624753,0.000784424,-0.0515803,0.0680219,-0.000114338,-0.400908,0.95873,-1.504,0.430378,-6.42919,7.86012,-0.316554,-2.32922,-31.7491,-2.58574,26.7526,0.709225,2.68792,0.0376436,
0.0950837,-0.052281,0.0616145,-1.94991,0.26871,0.308688,-0.0105,0.000470857,0.00257021,0.00225215,0.000441689,0.112318,-0.0413154,-0.000738807,-0.18494,-0.319186,-0.160721,0.152071,-6.43645,2.64613,-0.0338537,0.0613974,0.0358222,0.250894,0.140455,0.795295,-0.289101,-0.00909181,0.0949311,-0.0518428,0.0613054,-1.94969,0.264706,0.310678,-0.010464,-0.000328549,0.00657824,-0.00624753,0.000784424,-0.0515803,0.0680219,-0.000114338,0,0,0,0,0,0,0,-2.32922,-31.7491,-2.58574,26.7526,0.709225,2.68792,0.0376436,
0.0948782,-0.0518015,0.0612698,-1.94967,0.26469,0.310955,-0.0104773,-0.000946015,0.00308683,0.000912524,0.000882156,0.089467,-0.0261198,-0.000924362,-0.885545,0.322887,-0.837266,0.275292,-14.282,9.49723,-0.115972,0.0613974,0.0358222,0.250894,0.140455,0.795295,-0.289101,-0.00909181,0.0949311,-0.0518428,0.0613054,-1.94969,0.264706,0.310678,-0.010464,-0.000328549,0.00657824,-0.00624753,0.000784424,-0.0515803,0.0680219,-0.000114338,0,0,0,0,0,0,0,-2.32922,-31.7491,-2.58574,26.7526,0.709225,2.68792,0.0376436,
0.0948226,-0.051772,0.0612308,-1.94965,0.26491,0.311069,-0.0104881,-0.00214514,0.00320728,-0.000245645,0.00127678,0.0770686,-0.0180493,-0.00100885,-0.74945,0.0752759,-0.723856,0.246639,-7.74906,5.04409,-0.0528028,0.0613974,0.0358222,0.250894,0.140455,0.795295,-0.289101,-0.00909181,0.0949311,-0.0518428,0.0613054,-1.94969,0.264706,0.310678,-0.010464,-0.000328549,0.00657824,-0.00624753,0.000784424,-0.0515803,0.0680219,-0.000114338,0,0,0,0,0,0,0,-2.32922,-31.7491,-2.58574,26.7526,0.709225,2.68792,0.0376436,
0.0947714,-0.0517514,0.0611952,-1.94962,0.265271,0.311077,-0.0104971,-0.00299805,0.00308107,-0.0010876,0.00156357,0.0706898,-0.0142257,-0.00103207,-0.533071,-0.0788781,-0.526219,0.179247,-3.98675,2.38971,-0.0145167,0.0624085,0.0414115,0.252038,0.130057,0.801457,-0.301448,-0.00903681,0.0946667,-0.0520527,0.0610739,-1.94942,0.263382,0.312798,-0.0104625,-0.00738968,-0.00501341,-0.0170161,0.0163102,-0.0238674,0.0409067,0.000267507,-0.882641,-1.44896,-1.34607,1.94072,3.46411,-3.3894,0.0477305,0.511356,-31.7491,0.286573,26.2805,0.60577,2.75475,0.0239107,
0.0944804,-0.0521359,0.0609173,-1.94927,0.263799,0.31311,-0.0104825,-0.00457616,0.00149794,-0.00267322,0.00282981,0.0639907,-0.00879554,-0.00105196,-0.986322,-0.989455,-0.991014,0.791401,-4.18693,3.39388,-0.0124302,0.0624085,0.0414115,0.252038,0.130057,0.801457,-0.301448,-0.00903681,0.0946667,-0.0520527,0.0610739,-1.94942,0.263382,0.312798,-0.0104625,-0.00738968,-0.00501341,-0.0170161,0.0163102,-0.0238674,0.0409067,0.000267507,0,0,0,0,0,0,0,0.511356,-31.7491,0.286573,26.2805,0.60577,2.75475,0.0239107,
0.0944071,-0.0521679,0.0608587,-1.94922,0.264205,0.313133,-0.0104904,-0.00549339,0.000398935,-0.0036046,0.00357238,0.0613514,-0.00646101,-0.00103919,-0.573268,-0.686879,-0.582116,0.464105,-1.64955,1.45908,0.00798264,0.0624085,0.0414115,0.252038,0.130057,0.801457,-0.301448,-0.00903681,0.0946667,-0.0520527,0.0610739,-1.94942,0.263382,0.312798,-0.0104625,-0.00738968,-0.00501341,-0.0170161,0.0163102,-0.0238674,0.0409067,0.000267507,0,0,0,0,0,0,0,0.511356,-31.7491,0.286573,26.2805,0.60577,2.75475,0.0239107,
0.094347,-0.052194,0.060813,-1.94918,0.26468,0.313096,-0.0104977,-0.00589947,-0.000332883,-0.00402453,0.00396707,0.0609563,-0.00609412,-0.00101506,-0.253797,-0.457386,-0.262454,0.246677,-0.246954,0.229311,0.0150807,0.0624085,0.0414115,0.252038,0.130057,0.801457,-0.301448,-0.00903681,0.0946667,-0.0520527,0.0610739,-1.94942,0.263382,0.312798,-0.0104625,-0.00738968,-0.00501341,-0.0170161,0.0163102,-0.0238674,0.0409067,0.000267507,0,0,0,0,0,0,0,0.511356,-31.7491,0.286573,26.2805,0.60577,2.75475,0.0239107,
0.0942984,-0.0522151,0.0607791,-1.94914,0.2652,0.313014,-0.0105048,-0.00593341,-0.000794358,-0.00406921,0.00412349,0.0617569,-0.00692613,-0.000989345,-0.0212111,-0.288422,-0.0279226,0.0977623,0.500373,-0.52001,0.0160715,0.0630734,0.0537055,0.251454,0.120778,0.802619,-0.31032,-0.00898786,0.0942159,-0.0520886,0.0602254,-1.94887,0.263355,0.314183,-0.010461,-0.0129519,-0.0188995,-0.0227954,0.0116195,0.0264799,0.0371048,0.000754419,-0.695279,-1.73576,-0.722413,-0.586328,6.29342,-0.475244,0.060864,1.95942,-31.0033,1.61165,25.4593,0.635983,2.61559,0.0101778,
0.0939933,-0.052283,0.0600287,-1.94869,0.264119,0.314438,-0.0104745,-0.0072435,-0.00274923,-0.00541259,0.00540749,0.0600263,-0.00341751,-0.000963369,-0.818807,-1.22179,-0.839613,0.802504,-1.08158,2.19289,0.016235,0.0630734,0.0537055,0.251454,0.120778,0.802619,-0.31032,-0.00898786,0.0942159,-0.0520886,0.0602254,-1.94887,0.263355,0.314183,-0.010461,-0.0129519,-0.0188995,-0.0227954,0.0116195,0.0264799,0.0371048,0.000754419,0,0,0,0,0,0,0,1.95942,-31.0033,1.61165,25.4593,0.635983,2.61559,0.0101778,
0.0939132,-0.0523494,0.0599624,-1.94862,0.264602,0.314458,-0.0104812,-0.00779862,-0.00385806,-0.00598891,0.00611083,0.0600889,-0.00221939,-0.000939911,-0.346953,-0.693021,-0.360201,0.439584,0.0391193,0.748825,0.0146616,0.0630734,0.0537055,0.251454,0.120778,0.802619,-0.31032,-0.00898786,0.0942159,-0.0520886,0.0602254,-1.94887,0.263355,0.314183,-0.010461,-0.0129519,-0.0188995,-0.0227954,0.0116195,0.0264799,0.0371048,0.000754419,0,0,0,0,0,0,0,1.95942,-31.0033,1.61165,25.4593,0.635983,2.61559,0.0101778,
0.0938494,-0.0524018,0.0599126,-1.94856,0.265124,0.314427,-0.010488,-0.0078336,-0.00439754,-0.00603556,0.0063904,0.0611305,-0.00254386,-0.000920176,-0.0218608,-0.337174,-0.0291548,0.174733,0.650962,-0.202794,0.0123341,0.0630734,0.0537055,0.251454,0.120778,0.802619,-0.31032,-0.00898786,0.0942159,-0.0520886,0.0602254,-1.94887,0.263355,0.314183,-0.010461,-0.0129519,-0.0188995,-0.0227954,0.0116195,0.0264799,0.0371048,0.000754419,0,0,0,0,0,0,0,1.95942,-31.0033,1.61165,25.4593,0.635983,2.61559,0.0101778,
0.093799,-0.0524434,0.0598764,-1.94851,0.265674,0.314355,-0.0104947,-0.00752613,-0.00455668,-0.00573245,0.00637848,0.0626557,-0.00383923,-0.000904785,0.192165,-0.0994659,0.189444,-0.00744866,0.953276,-0.809606,0.00961973,0.0630734,0.0537055,0.251454,0.120778,0.802619,-0.31032,-0.00898786,0.0942159,-0.0520886,0.0602254,-1.94887,0.263355,0.314183,-0.010461,-0.0129519,-0.0188995,-0.0227954,0.0116195,0.0264799,0.0371048,0.000754419,0,0,0,0,0,0,0,1.95942,-31.0033,1.61165,25.4593,0.635983,2.61559,0.0101778,
0.0937645,-0.0524215,0.0594677,-1.948,0.264936,0.314553,-0.0104925,-0.00703871,-0.00433335,-0.00523903,0.00612736,0.0632873,-0.00543508,-0.000907786,0.304642,0.139585,0.308387,-0.156949,0.394726,-0.99741,-0.00187568,0.0622454,0.0540283,0.250512,0.113355,0.801254,-0.316984,-0.00894965,0.0939141,-0.0523217,0.0595731,-1.94816,0.263542,0.314711,-0.0104677,-0.00798784,-0.00335575,-0.00670023,0.0165433,0.0293565,0.000663915,-0.00173545,0.620508,1.94297,2.01189,0.615469,0.359574,-4.55511,-0.311233,2.79651,-30.4042,2.46461,23.7137,0.788876,2.31713,0.0706026,
0.0937319,-0.0524433,0.0594497,-1.94797,0.265494,0.314426,-0.0104996,-0.00644578,-0.00401135,-0.00464088,0.00576824,0.0645846,-0.00752805,-0.000904181,0.370579,0.201251,0.373839,-0.224453,0.81085,-1.30811,0.00225294,0.0622454,0.0540283,0.250512,0.113355,0.801254,-0.316984,-0.00894965,0.0939141,-0.0523217,0.0595731,-1.94816,0.263542,0.314711,-0.0104677,-0.00798784,-0.00335575,-0.00670023,0.0165433,0.0293565,0.000663915,-0.00173545,0,0,0,0,0,0,0,2.79651,-30.4042,2.46461,23.7137,0.788876,2.31713,0.0706026,
0.0937063,-0.0524603,0.0594388,-1.94794,0.266073,0.314273,-0.0105066,-0.00579698,-0.00363523,-0.00398649,0.00535902,0.0661358,-0.00983835,-0.000898906,0.4055,0.235071,0.408999,-0.255764,0.96949,-1.44393,0.00329698,0.0622454,0.0540283,0.250512,0.113355,0.801254,-0.316984,-0.00894965,0.0939141,-0.0523217,0.0595731,-1.94816,0.263542,0.314711,-0.0104677,-0.00798784,-0.00335575,-0.00670023,0.0165433,0.0293565,0.000663915,-0.00173545,0,0,0,0,0,0,0,2.79651,-30.4042,2.46461,23.7137,0.788876,2.31713,0.0706026,
0.0936866,-0.0524735,0.0594338,-1.94791,0.266665,0.314101,-0.0105136,-0.00513163,-0.00323783,-0.0033149,0.00493357,0.0677173,-0.0121808,-0.000893945,0.415847,0.248376,0.419745,-0.265901,0.988447,-1.46403,0.00310029,0.0622454,0.0540283,0.250512,0.113355,0.801254,-0.316984,-0.00894965,0.0939141,-0.0523217,0.0595731,-1.94816,0.263542,0.314711,-0.0104677,-0.00798784,-0.00335575,-0.00670023,0.0165433,0.0293565,0.000663915,-0.00173545,0,0,0,0,0,0,0,2.79651,-30.4042,2.46461,23.7137,0.788876,2.31713,0.0706026,
0.0937903,-0.0527922,0.0589297,-1.94713,0.265777,0.314459,-0.0104879,-0.00430206,-0.00330343,-0.00246974,0.0048556,0.0684849,-0.0133045,-0.000913889,0.518479,-0.0410009,0.52822,-0.0487361,0.479756,-0.702312,-0.0124649,0.0619697,0.0515392,0.250673,0.10605,0.798224,-0.32229,-0.00891414,0.0938109,-0.0526864,0.0589043,-1.94728,0.264235,0.314789,-0.0104609,0.00408077,-0.00412535,-0.000974811,0.0151678,0.0343944,-0.00878084,0.000119349,1.50858,-0.0962,0.715677,-0.171943,0.629735,-1.18059,0.231849,2.66956,-29.8805,2.31386,24.6381,1.1734,2.3565,0.0101778,
0.0937836,-0.0528145,0.058938,-1.9471,0.266375,0.314292,-0.0104955,-0.00360947,-0.00320176,-0.00176745,0.0046543,0.0697245,-0.0148165,-0.000919337,0.432871,0.0635446,0.438936,-0.125811,0.774712,-0.944995,-0.00340496,0.0619697,0.0515392,0.250673,0.10605,0.798224,-0.32229,-0.00891414,0.0938109,-0.0526864,0.0589043,-1.94728,0.264235,0.314789,-0.0104609,0.00408077,-0.00412535,-0.000974811,0.0151678,0.0343944,-0.00878084,0.000119349,0,0,0,0,0,0,0,2.66956,-29.8805,2.31386,24.6381,1.1734,2.3565,0.0101778,
0.0937785,-0.0528319,0.0589479,-1.94708,0.266986,0.314107,-0.0105028,-0.00301599,-0.00299582,-0.00116701,0.00438661,0.0710595,-0.016491,-0.000918321,0.370922,0.128712,0.375274,-0.167306,0.83442,-1.04658,0.000634859,0.0619697,0.0515392,0.250673,0.10605,0.798224,-0.32229,-0.00891414,0.0938109,-0.0526864,0.0589043,-1.94728,0.264235,0.314789,-0.0104609,0.00408077,-0.00412535,-0.000974811,0.0151678,0.0343944,-0.00878084,0.000119349,0,0,0,0,0,0,0,2.66956,-29.8805,2.31386,24.6381,1.1734,2.3565,0.0101778,
0.0938061,-0.0527279,0.0589149,-1.94721,0.264678,0.314713,-0.0104712,-0.00253296,-0.00343628,-0.000670475,0.0050807,0.0679103,-0.0151055,-0.000990773,0.301895,-0.275286,0.310332,0.433808,-1.9683,0.865966,-0.0452821,0.0619697,0.0515392,0.250673,0.10605,0.798224,-0.32229,-0.00891414,0.0938109,-0.0526864,0.0589043,-1.94728,0.264235,0.314789,-0.0104609,0.00408077,-0.00412535,-0.000974811,0.0151678,0.0343944,-0.00878084,0.000119349,0,0,0,0,0,0,0,2.66956,-29.8805,2.31386,24.6381,1.1734,2.3565,0.0101778,
0.0937982,-0.0527637,0.0589224,-1.94717,0.265205,0.314602,-0.01048,-0.00222267,-0.00364166,-0.000347198,0.00518411,0.0675017,-0.0148582,-0.00101257,0.19393,-0.128362,0.202048,0.0646323,-0.255335,0.154547,-0.0136262,0.0621915,0.0486776,0.251518,0.104221,0.796497,-0.323394,-0.00890629,0.093984,-0.0528235,0.0589151,-1.94702,0.264746,0.314749,-0.0104609,0.00778531,-0.0114518,0.00770788,-0.00569781,0.0208621,-0.00474838,0.000182772,0.463068,-0.915807,1.08534,-2.6082,-1.69154,0.504057,0.00792784,0.816837,-30.8525,0.488905,26.0544,1.03332,2.66869,0.0101778,
0.0937903,-0.0527922,0.0589297,-1.94713,0.265777,0.314459,-0.0104879,-0.00197489,-0.00362649,-9.55855e-05,0.00505603,0.0683125,-0.0154464,-0.00100879,0.15486,0.00947738,0.157258,-0.0800535,0.506704,-0.367637,0.00236378,0.0621915,0.0486776,0.251518,0.104221,0.796497,-0.323394,-0.00890629,0.093984,-0.0528235,0.0589151,-1.94702,0.264746,0.314749,-0.0104609,0.00778531,-0.0114518,0.00770788,-0.00569781,0.0208621,-0.00474838,0.000182772,0,0,0,0,0,0,0,0.816837,-30.8525,0.488905,26.0544,1.03332,2.66869,0.0101778,
0.0937836,-0.0528145,0.058938,-1.9471,0.266375,0.314292,-0.0104955,-0.00174773,-0.00346021,0.000131881,0.00481464,0.0695865,-0.01653,-0.00099526,0.141976,0.103927,0.142167,-0.150865,0.796271,-0.677256,0.00845796,0.0621915,0.0486776,0.251518,0.104221,0.796497,-0.323394,-0.00890629,0.093984,-0.0528235,0.0589151,-1.94702,0.264746,0.314749,-0.0104609,0.00778531,-0.0114518,0.00770788,-0.00569781,0.0208621,-0.00474838,0.000182772,0,0,0,0,0,0,0,0.816837,-30.8525,0.488905,26.0544,1.03332,2.66869,0.0101778,
0.0940329,-0.0528985,0.0589972,-1.94699,0.2656,0.314404,-0.010481,-0.00094165,-0.0034807,0.000969894,0.00432507,0.0678304,-0.0180575,-0.00103613,0.503802,-0.0128073,0.523758,-0.305984,-1.09755,-0.95465,-0.0255436,0.0621915,0.0486776,0.251518,0.104221,0.796497,-0.323394,-0.00890629,0.093984,-0.0528235,0.0589151,-1.94702,0.264746,0.314749,-0.0104609,0.00778531,-0.0114518,0.00770788,-0.00569781,0.0208621,-0.00474838,0.000182772,0,0,0,0,0,0,0,0.816837,-30.8525,0.488905,26.0544,1.03332,2.66869,0.0101778,
0.0940445,-0.0529176,0.0590247,-1.94697,0.266154,0.314191,-0.0104896,-0.000462138,-0.003262,0.00146181,0.0039439,0.0681123,-0.0197612,-0.00104344,0.299695,0.136691,0.307449,-0.238229,0.176171,-1.06483,-0.0045689,0.0620691,0.0408881,0.252893,0.102172,0.795694,-0.324891,-0.00889673,0.0942273,-0.0530985,0.0591882,-1.94688,0.264936,0.314709,-0.0104587,0.0111871,-0.0070813,0.0106268,0.0040503,0.0062642,-0.00438391,0.000463983,0.42522,0.546313,0.364868,1.21851,-1.82474,0.0455584,0.0351514,-0.627255,-32.0506,-0.859972,27.3001,0.984799,3.03307,-0.00996382,
0.0940526,-0.0529308,0.0590483,-1.94695,0.266745,0.313967,-0.0104976,-0.00016611,-0.00294013,0.00176062,0.00360307,0.0692617,-0.0213993,-0.00103343,0.185017,0.20117,0.186752,-0.213018,0.718362,-1.0238,0.00625362,0.0620691,0.0408881,0.252893,0.102172,0.795694,-0.324891,-0.00889673,0.0942273,-0.0530985,0.0591882,-1.94688,0.264936,0.314709,-0.0104587,0.0111871,-0.0070813,0.0106268,0.0040503,0.0062642,-0.00438391,0.000463983,0,0,0,0,0,0,0,-0.627255,-32.0506,-0.859972,27.3001,0.984799,3.03307,-0.00996382,
0.094059,-0.05294,0.05907,-1.94694,0.267355,0.313737,-0.0105052,2.56438e-05,-0.00258226,0.00195091,0.00329013,0.0706724,-0.0228852,-0.0010163,0.119846,0.223668,0.118934,-0.19559,0.881685,-0.928737,0.010708,0.0620691,0.0408881,0.252893,0.102172,0.795694,-0.324891,-0.00889673,0.0942273,-0.0530985,0.0591882,-1.94688,0.264936,0.314709,-0.0104587,0.0111871,-0.0070813,0.0106268,0.0040503,0.0062642,-0.00438391,0.000463983,0,0,0,0,0,0,0,-0.627255,-32.0506,-0.859972,27.3001,0.984799,3.03307,-0.00996382,
0.0942732,-0.0531381,0.059252,-1.94685,0.265257,0.314597,-0.0104712,0.00116775,-0.0030556,0.00315536,0.00337215,0.064551,-0.0211135,-0.00112591,0.713814,-0.295843,0.752782,0.0512648,-3.82588,1.10734,-0.0685052,0.0620691,0.0408881,0.252893,0.102172,0.795694,-0.324891,-0.00889673,0.0942273,-0.0530985,0.0591882,-1.94688,0.264936,0.314709,-0.0104587,0.0111871,-0.0070813,0.0106268,0.0040503,0.0062642,-0.00438391,0.000463983,0,0,0,0,0,0,0,-0.627255,-32.0506,-0.859972,27.3001,0.984799,3.03307,-0.00996382,
0.0943015,-0.0531665,0.0592972,-1.94682,0.265725,0.314438,-0.0104818,0.00164191,-0.00315498,0.00365387,0.00335837,0.0633429,-0.0208728,-0.00116476,0.29635,-0.0621119,0.311569,-0.00861456,-0.755045,0.150459,-0.0242826,0.0620691,0.0408881,0.252893,0.102172,0.795694,-0.324891,-0.00889673,0.0942273,-0.0530985,0.0591882,-1.94688,0.264936,0.314709,-0.0104587,0.0111871,-0.0070813,0.0106268,0.0040503,0.0062642,-0.00438391,0.000463983,0,0,0,0,0,0,0,-0.627255,-32.0506,-0.859972,27.3001,0.984799,3.03307,-0.00996382,
0.09432,-0.0531873,0.0593319,-1.9468,0.266273,0.314249,-0.0104909,0.00177572,-0.00304432,0.0037892,0.00327183,0.0643757,-0.0214187,-0.00115843,0.0836334,0.0691671,0.084579,-0.0540855,0.645484,-0.341221,0.00395751,0.0620691,0.0408881,0.252893,0.102172,0.795694,-0.324891,-0.00889673,0.0942273,-0.0530985,0.0591882,-1.94688,0.264936,0.314709,-0.0104587,0.0111871,-0.0070813,0.0106268,0.0040503,0.0062642,-0.00438391,0.000463983,0,0,0,0,0,0,0,-0.627255,-32.0506,-0.859972,27.3001,0.984799,3.03307,-0.00996382,
0.0942732,-0.0531381,0.059252,-1.94685,0.265257,0.314597,-0.0104712,0.00256781,-0.00342525,0.00462599,0.00335752,0.0595136,-0.0199403,-0.00123961,0.495055,-0.238085,0.522996,0.0535518,-3.03879,0.92402,-0.0507391,0.0620691,0.0408881,0.252893,0.102172,0.795694,-0.324891,-0.00889673,0.0942273,-0.0530985,0.0591882,-1.94688,0.264936,0.314709,-0.0104587,0.0111871,-0.0070813,0.0106268,0.0040503,0.0062642,-0.00438391,0.000463983,0,0,0,0,0,0,0,-0.627255,-32.0506,-0.859972,27.3001,0.984799,3.03307,-0.00996382,
0.0943015,-0.0531665,0.0592972,-1.94682,0.265725,0.314438,-0.0104818,0.00276195,-0.0034507,0.00483038,0.00334666,0.059313,-0.0199342,-0.00125572,0.121342,-0.0159059,0.12774,-0.00678491,-0.125375,0.00380743,-0.0100698,0.0620691,0.0408881,0.252893,0.102172,0.795694,-0.324891,-0.00889673,0.0942273,-0.0530985,0.0591882,-1.94688,0.264936,0.314709,-0.0104587,0.0111871,-0.0070813,0.0106268,0.0040503,0.0062642,-0.00438391,0.000463983,0,0,0,0,0,0,0,-0.627255,-32.0506,-0.859972,27.3001,0.984799,3.03307,-0.00996382,
0.09432,-0.0531873,0.0593319,-1.9468,0.266273,0.314249,-0.0104909,0.00267176,-0.00328089,0.0047304,0.00326247,0.0611518,-0.0206679,-0.0012312,-0.0563726,0.106132,-0.0624841,-0.0526218,1.14922,-0.458542,0.0153278,0.0620691,0.0408881,0.252893,0.102172,0.795694,-0.324891,-0.00889673,0.0942273,-0.0530985,0.0591882,-1.94688,0.264936,0.314709,-0.0104587,0.0111871,-0.0070813,0.0106268,0.0040503,0.0062642,-0.00438391,0.000463983,0,0,0,0,0,0,0,-0.627255,-32.0506,-0.859972,27.3001,0.984799,3.03307,-0.00996382,
0.0943329,-0.0532027,0.0593606,-1.94678,0.266863,0.314041,-0.0104991,0.0024608,-0.00301048,0.0045019,0.00312834,0.063688,-0.0217305,-0.00119027,-0.131846,0.169007,-0.142814,-0.0838312,1.58514,-0.664118,0.0255811,0.0620691,0.0408881,0.252893,0.102172,0.795694,-0.324891,-0.00889673,0.0942273,-0.0530985,0.0591882,-1.94688,0.264936,0.314709,-0.0104587,0.0111871,-0.0070813,0.0106268,0.0040503,0.0062642,-0.00438391,0.000463983,0,0,0,0,0,0,0,-0.627255,-32.0506,-0.859972,27.3001,0.984799,3.03307,-0.00996382,
0.0942732,-0.0531381,0.059252,-1.94685,0.265257,0.314597,-0.0104712,0.00311587,-0.00339818,0.00519615,0.00324272,0.0589635,-0.0201897,-0.00126508,0.409419,-0.242315,0.433908,0.0714891,-2.95283,0.962987,-0.0467591,0.0620691,0.0408881,0.252893,0.102172,0.795694,-0.324891,-0.00889673,0.0942273,-0.0530985,0.0591882,-1.94688,0.264936,0.314709,-0.0104587,0.0111871,-0.0070813,0.0106268,0.0040503,0.0062642,-0.00438391,0.000463983,0,0,0,0,0,0,0,-0.627255,-32.0506,-0.859972,27.3001,0.984799,3.03307,-0.00996382,
0.0943015,-0.0531665,0.0592972,-1.94682,0.265725,0.314438,-0.0104818,0.00320041,-0.00342905,0.0052865,0.00325482,0.0588729,-0.0201337,-0.0012761,0.0528338,-0.0192896,0.0564701,0.00756486,-0.0566065,0.0349806,-0.00688576,0.0620691,0.0408881,0.252893,0.102172,0.795694,-0.324891,-0.00889673,0.0942273,-0.0530985,0.0591882,-1.94688,0.264936,0.314709,-0.0104587,0.0111871,-0.0070813,0.0106268,0.0040503,0.0062642,-0.00438391,0.000463983,0,0,0,0,0,0,0,-0.627255,-32.0506,-0.859972,27.3001,0.984799,3.03307,-0.00996382,
0.09432,-0.0531873,0.0593319,-1.9468,0.266273,0.314249,-0.0104909,0.00302252,-0.00326357,0.0050953,0.003189,0.0607997,-0.0208275,-0.0012475,-0.111179,0.103425,-0.1195,-0.041142,1.20423,-0.433603,0.017875,0.0620691,0.0408881,0.252893,0.102172,0.795694,-0.324891,-0.00889673,0.0942273,-0.0530985,0.0591882,-1.94688,0.264936,0.314709,-0.0104587,0.0111871,-0.0070813,0.0106268,0.0040503,0.0062642,-0.00438391,0.000463983,0,0,0,0,0,0,0,-0.627255,-32.0506,-0.859972,27.3001,0.984799,3.03307,-0.00996382,
0.0943329,-0.0532027,0.0593606,-1.94678,0.266863,0.314041,-0.0104991,0.00274141,-0.00299662,0.00479382,0.00306956,0.0634063,-0.0218581,-0.00120331,-0.175692,0.166842,-0.188427,-0.0746474,1.62915,-0.644167,0.0276189,0.0620691,0.0408881,0.252893,0.102172,0.795694,-0.324891,-0.00889673,0.0942273,-0.0530985,0.0591882,-1.94688,0.264936,0.314709,-0.0104587,0.0111871,-0.0070813,0.0106268,0.0040503,0.0062642,-0.00438391,0.000463983,0,0,0,0,0,0,0,-0.627255,-32.0506,-0.859972,27.3001,0.984799,3.03307,-0.00996382,
0.0942732,-0.0531381,0.059252,-1.94685,0.265257,0.314597,-0.0104712,0.00334036,-0.0033871,0.00542969,0.0031957,0.0587381,-0.0202918,-0.00127552,0.374343,-0.244047,0.397418,0.0788362,-2.91762,0.978948,-0.0451289,0.0620691,0.0408881,0.252893,0.102172,0.795694,-0.324891,-0.00889673,0.0942273,-0.0530985,0.0591882,-1.94688,0.264936,0.314709,-0.0104587,0.0111871,-0.0070813,0.0106268,0.0040503,0.0062642,-0.00438391,0.000463983,0,0,0,0,0,0,0,-0.627255,-32.0506,-0.859972,27.3001,0.984799,3.03307,-0.00996382,
0.0943015,-0.0531665,0.0592972,-1.94682,0.265725,0.314438,-0.0104818,0.00338,-0.00342018,0.00547334,0.00321721,0.0586926,-0.0202154,-0.00128445,0.0247727,-0.0206756,0.0272779,0.0134425,-0.028439,0.0477492,-0.00558159,0.0620691,0.0408881,0.252893,0.102172,0.795694,-0.324891,-0.00889673,0.0942273,-0.0530985,0.0591882,-1.94688,0.264936,0.314709,-0.0104587,0.0111871,-0.0070813,0.0106268,0.0040503,0.0062642,-0.00438391,0.000463983,0,0,0,0,0,0,0,-0.627255,-32.0506,-0.859972,27.3001,0.984799,3.03307,-0.00996382,
0.09432,-0.0531873,0.0593319,-1.9468,0.266273,0.314249,-0.0104909,0.00316619,-0.00325647,0.00524477,0.0031589,0.0606554,-0.0208929,-0.00125418,-0.133628,0.102316,-0.142854,-0.0364398,1.22677,-0.423389,0.0189183,0.0620691,0.0408881,0.252893,0.102172,0.795694,-0.324891,-0.00889673,0.0942273,-0.0530985,0.0591882,-1.94688,0.264936,0.314709,-0.0104587,0.0111871,-0.0070813,0.0106268,0.0040503,0.0062642,-0.00438391,0.000463983,0,0,0,0,0,0,0,-0.627255,-32.0506,-0.859972,27.3001,0.984799,3.03307,-0.00996382,
0.0942732,-0.0531381,0.059252,-1.94685,0.265257,0.314597,-0.0104712,0.00368019,-0.00359498,0.00579045,0.00326717,0.0565374,-0.0195196,-0.00131621,0.321245,-0.211566,0.34105,0.0676684,-2.57376,0.858286,-0.0387705,0.0620691,0.0408881,0.252893,0.102172,0.795694,-0.324891,-0.00889673,0.0942273,-0.0530985,0.0591882,-1.94688,0.264936,0.314709,-0.0104587,0.0111871,-0.0070813,0.0106268,0.0040503,0.0062642,-0.00438391,0.000463983,0,0,0,0,0,0,0,-0.627255,-32.0506,-0.859972,27.3001,0.984799,3.03307,-0.00996382,
0.0943015,-0.0531665,0.0592972,-1.94682,0.265725,0.314438,-0.0104818,0.00365186,-0.00358648,0.00576194,0.00327438,0.0569321,-0.0195976,-0.001317,-0.0177053,0.00530952,-0.0178168,0.00450832,0.246647,-0.0487801,-0.000494843,0.0620691,0.0408881,0.252893,0.102172,0.795694,-0.324891,-0.00889673,0.0942273,-0.0530985,0.0591882,-1.94688,0.264936,0.314709,-0.0104587,0.0111871,-0.0070813,0.0106268,0.0040503,0.0062642,-0.00438391,0.000463983,0,0,0,0,0,0,0,-0.627255,-32.0506,-0.859972,27.3001,0.984799,3.03307,-0.00996382,
0.09432,-0.0531873,0.0593319,-1.9468,0.266273,0.314249,-0.0104909,0.00338368,-0.00338951,0.00547565,0.00320465,0.059247,-0.0203986,-0.00128022,-0.167611,0.123104,-0.17893,-0.0435872,1.44684,-0.500612,0.0229877,0.0620691,0.0408881,0.252893,0.102172,0.795694,-0.324891,-0.00889673,0.0942273,-0.0530985,0.0591882,-1.94688,0.264936,0.314709,-0.0104587,0.0111871,-0.0070813,0.0106268,0.0040503,0.0062642,-0.00438391,0.000463983,0,0,0,0,0,0,0,-0.627255,-32.0506,-0.859972,27.3001,0.984799,3.03307,-0.00996382,
0.0943329,-0.0532027,0.0593606,-1.94678,0.266863,0.314041,-0.0104991,0.00303034,-0.00309738,0.0050981,0.00308208,0.0621642,-0.0215151,-0.00122949,-0.220837,0.182585,-0.235971,-0.0766036,1.82324,-0.697774,0.031709,0.0620691,0.0408881,0.252893,0.102172,0.795694,-0.324891,-0.00889673,0.0942273,-0.0530985,0.0591882,-1.94688,0.264936,0.314709,-0.0104587,0.0111871,-0.0070813,0.0106268,0.0040503,0.0062642,-0.00438391,0.000463983,0,0,0,0,0,0,0,-0.627255,-32.0506,-0.859972,27.3001,0.984799,3.03307,-0.00996382,
0.0942732,-0.0531381,0.059252,-1.94685,0.265257,0.314597,-0.0104712,0.00357151,-0.0034677,0.00567311,0.00320571,0.0577444,-0.0200174,-0.00129646,0.338227,-0.231453,0.359383,0.0772712,-2.76235,0.936062,-0.0418568,0.0620691,0.0408881,0.252893,0.102172,0.795694,-0.324891,-0.00889673,0.0942273,-0.0530985,0.0591882,-1.94688,0.264936,0.314709,-0.0104587,0.0111871,-0.0070813,0.0106268,0.0040503,0.0062642,-0.00438391,0.000463983,0,0,0,0,0,0,0,-0.627255,-32.0506,-0.859972,27.3001,0.984799,3.03307,-0.00996382,
0.0943015,-0.0531665,0.0592972,-1.94682,0.265725,0.314438,-0.0104818,0.00356491,-0.00348466,0.00566807,0.00322522,0.0578976,-0.0199959,-0.0013012,-0.0041201,-0.0105998,-0.00315006,0.0121906,0.0957739,0.0134408,-0.00296387,0.0620691,0.0408881,0.252893,0.102172,0.795694,-0.324891,-0.00889673,0.0942273,-0.0530985,0.0591882,-1.94688,0.264936,0.314709,-0.0104587,0.0111871,-0.0070813,0.0106268,0.0040503,0.0062642,-0.00438391,0.000463983,0,0,0,0,0,0,0,-0.627255,-32.0506,-0.859972,27.3001,0.984799,3.03307,-0.00996382,
0.09432,-0.0531873,0.0593319,-1.9468,0.266273,0.314249,-0.0104909,0.00331413,-0.00330806,0.00540056,0.00316531,0.0600195,-0.0207172,-0.00126758,-0.156742,0.110377,-0.167196,-0.0374414,1.32614,-0.450835,0.0210125,0.0620691,0.0408881,0.252893,0.102172,0.795694,-0.324891,-0.00889673,0.0942273,-0.0530985,0.0591882,-1.94688,0.264936,0.314709,-0.0104587,0.0111871,-0.0070813,0.0106268,0.0040503,0.0062642,-0.00438391,0.000463983,0,0,0,0,0,0,0,-0.627255,-32.0506,-0.859972,27.3001,0.984799,3.03307,-0.00996382,
0.0943329,-0.0532027,0.0593606,-1.94678,0.266863,0.314041,-0.0104991,0.0029747,-0.00303221,0.00503803,0.00305061,0.0627822,-0.0217699,-0.00121938,-0.212142,0.172403,-0.226584,-0.0716869,1.72668,-0.657953,0.0301289,0.0620691,0.0408881,0.252893,0.102172,0.795694,-0.324891,-0.00889673,0.0942273,-0.0530985,0.0591882,-1.94688,0.264936,0.314709,-0.0104587,0.0111871,-0.0070813,0.0106268,0.0040503,0.0062642,-0.00438391,0.000463983,0,0,0,0,0,0,0,-0.627255,-32.0506,-0.859972,27.3001,0.984799,3.03307,-0.00996382,
