xiao-wang007/linearmpc_panda/paper_data/panda_inverse_dynamics_controller_Start_at_0/0/trajectory.csv
Commanded Joint 0 Position,Commanded Joint 1 Position,Commanded Joint 2 Position,Commanded Joint 3 Position,Commanded Joint 4 Position,Commanded Joint 5 Position,Commanded Joint 6 Position,Commanded Joint 0 Velocity,Commanded Joint 1 Velocity,Commanded Joint 2 Velocity,Commanded Joint 3 Velocity,Commanded Joint 4 Velocity,Commanded Joint 5 Velocity,Commanded Joint 6 Velocity,Commanded Joint 0 Acceleration,Commanded Joint 1 Acceleration,Commanded Joint 2 Acceleration,Commanded Joint 3 Acceleration,Commanded Joint 4 Acceleration,Commanded Joint 5 Acceleration,Commanded Joint 6 Acceleration,Commanded Joint 0 Torque,Commanded Joint 1 Torque,Commanded Joint 2 Torque,Commanded Joint 3 Torque,Commanded Joint 4 Torque,Commanded Joint 5 Torque,Commanded Joint 6 Torque,Actual Joint 0 Position,Actual Joint 1 Position,Actual Joint 2 Position,Actual Joint 3 Position,Actual Joint 4 Position,Actual Joint 5 Position,Actual Joint 6 Position,Actual Joint 0 Velocity,Actual Joint 1 Velocity,Actual Joint 2 Velocity,Actual Joint 3 Velocity,Actual Joint 4 Velocity,Actual Joint 5 Velocity,Actual Joint 6 Velocity,Actual Joint 0 Acceleration,Actual Joint 1 Acceleration,Actual Joint 2 Acceleration,Actual Joint 3 Acceleration,Actual Joint 4 Acceleration,Actual Joint 5 Acceleration,Actual Joint 6 Acceleration,Actual Joint 0 Torque,Actual Joint 1 Torque,Actual Joint 2 Torque,Actual Joint 3 Torque,Actual Joint 4 Torque,Actual Joint 5 Torque,Actual Joint 6 Torque,
-0.031599,-0.0388809,-0.0150628,-1.69091,-0.0393956,0.133938,0.103831,0.000299371,0.0197426,0.000277498,-0.0330465,-0.00248823,0.0484953,-0.000355249,0.187107,12.3392,0.173436,-20.6541,-1.55514,30.3096,-0.222031,0.0619883,23.0093,0.0751732,-24.0954,-0.3801,1.8265,-0.0241624,-0.0316279,-0.039505,-0.0150835,-1.68812,-0.039263,0.128729,0.103868,0.000963291,3.57516e-06,0.000919132,0.000499461,-0.00665286,0.000643545,-0.000606025,0,0,0,0,0,0,0,0.0313145,-33.6495,0.0366345,26.951,0.843807,3.33153,0.11821,
-0.0316203,-0.0395041,-0.0150756,-1.68812,-0.0393164,0.128752,0.103867,0.000271001,0.0158118,0.000254518,-0.0264163,-0.00220371,0.0389811,-0.000287902,-0.0177314,-2.45679,-0.0143627,4.14386,0.177823,-5.94638,0.0420918,0.0561881,23.4499,0.0647584,-24.0118,-0.380995,1.57597,-0.0226449,-0.0316279,-0.039505,-0.0150835,-1.68812,-0.039263,0.128729,0.103868,0.000963291,3.57516e-06,0.000919132,0.000499461,-0.00665286,0.000643545,-0.000606025,0,0,0,0,0,0,0,0.0313145,-33.6495,0.0366345,26.951,0.843807,3.33153,0.11821,
-0.0316196,-0.0395031,-0.0150749,-1.68812,-0.0393209,0.128759,0.103867,0.00023455,0.0126745,0.000221635,-0.0211156,-0.00187589,0.0313593,-0.000232678,-0.0227816,-1.96079,-0.0205518,3.31294,0.204889,-4.76364,0.0345153,0.0489005,24.0215,0.052955,-23.9037,-0.38106,1.22877,-0.0206762,-0.0316279,-0.039505,-0.0150835,-1.68812,-0.039263,0.128729,0.103868,0.000963291,3.57516e-06,0.000919132,0.000499461,-0.00665286,0.000643545,-0.000606025,0,0,0,0,0,0,0,0.0313145,-33.6495,0.0366345,26.951,0.843807,3.33153,0.11821,
-0.0316192,-0.0395018,-0.0150745,-1.68812,-0.0393232,0.128765,0.103867,0.000197759,0.0101703,0.00018729,-0.0168779,-0.00155856,0.0252522,-0.000187758,-0.0229944,-1.56515,-0.0214656,2.64859,0.198331,-3.81696,0.028075,0.0429134,24.549,0.043423,-23.7358,-0.3796,0.844774,-0.0186791,-0.0316328,-0.0393956,-0.0150892,-1.68819,-0.0392614,0.128728,0.103874,-0.000135817,0.00801922,0.00486366,-0.00454477,-0.00607998,-0.00132241,0.000102125,-0.137388,1.00196,0.493066,-0.630529,0.0716107,-0.245745,0.0885187,0.0828892,-33.7724,0.112013,26.828,0.800778,3.14568,0.0907442,
-0.0317491,-0.0392875,-0.0151982,-1.68815,-0.036669,0.127495,0.103854,-0.0015425,0.00927237,-0.00150152,-0.0129742,0.0387983,0.00128529,-0.000328303,-1.08766,-0.561187,-1.05551,2.43978,25.223,-14.9793,-0.0878408,0.534,0.185692,0.535305,-0.276898,3.47023,-1.74187,-0.00164253,-0.0316328,-0.0393956,-0.0150892,-1.68819,-0.0392614,0.128728,0.103874,-0.000135817,0.00801922,0.00486366,-0.00454477,-0.00607998,-0.00132241,0.000102125,0,0,0,0,0,0,0,0.0828892,-33.7724,0.112013,26.828,0.800778,3.14568,0.0907442,
-0.0318163,-0.0392563,-0.015265,-1.68814,-0.0347048,0.126555,0.103851,-0.00291405,0.0081963,-0.0028703,-0.0100378,0.0801441,-0.0224854,-0.000357574,-0.857218,-0.672543,-0.855487,1.83527,25.8411,-14.8567,-0.0182942,0.525142,0.184742,0.526152,-0.27269,3.44212,-1.72657,-0.00151852,-0.0316328,-0.0393956,-0.0150892,-1.68819,-0.0392614,0.128728,0.103874,-0.000135817,0.00801922,0.00486366,-0.00454477,-0.00607998,-0.00132241,0.000102125,0,0,0,0,0,0,0,0.0828892,-33.7724,0.112013,26.828,0.800778,3.14568,0.0907442,
-0.0318734,-0.0392348,-0.0153224,-1.68813,-0.0325242,0.125492,0.103849,-0.00375874,0.00709589,-0.00373073,-0.00788338,0.118629,-0.0445598,-0.000337271,-0.527929,-0.687758,-0.537766,1.34651,24.0528,-13.7965,0.0126894,0.516665,0.181791,0.517391,-0.269255,3.41533,-1.71174,-0.00152361,-0.0316328,-0.0393956,-0.0150892,-1.68819,-0.0392614,0.128728,0.103874,-0.000135817,0.00801922,0.00486366,-0.00454477,-0.00607998,-0.00132241,0.000102125,0,0,0,0,0,0,0,0.0828892,-33.7724,0.112013,26.828,0.800778,3.14568,0.0907442,
-0.0319171,-0.0392191,-0.0153666,-1.68813,-0.0302147,0.124349,0.103847,-0.00409865,0.0060696,-0.00409032,-0.00632303,0.15264,-0.0642301,-0.000298596,-0.212446,-0.641426,-0.224743,0.975216,21.2573,-12.2939,0.0241717,0.509306,0.168866,0.509965,-0.259804,3.38729,-1.68971,-0.00159513,-0.0316205,-0.0395272,-0.0150727,-1.6889,-0.0392922,0.128049,0.103869,-0.00259366,-0.070446,0.00665121,-0.00804615,0.00631342,-0.0143053,-0.00112518,-0.307231,-9.80815,0.223444,-0.437673,1.54917,-1.62286,-0.153413,0.412174,-38.914,0.43733,30.9897,1.10656,3.6895,0.138352,
-0.0318813,-0.040075,-0.0153132,-1.68818,-0.0310324,0.121273,0.103816,-0.00680007,-0.00123378,-0.00662437,0.00371407,0.24926,-0.153927,-0.000715894,-1.68839,-4.56462,-1.58379,6.27319,60.3876,-56.0607,-0.260812,4.355,1.60889,4.395,-2.09998,11.1438,-9.60827,-0.00616388,-0.0316205,-0.0395272,-0.0150727,-1.6889,-0.0392922,0.128049,0.103869,-0.00259366,-0.070446,0.00665121,-0.00804615,0.00631342,-0.0143053,-0.00112518,0,0,0,0,0,0,0,0.412174,-38.914,0.43733,30.9897,1.10656,3.6895,0.138352,
-0.0319943,-0.0402825,-0.0154228,-1.68792,-0.0247638,0.116252,0.103806,-0.00826304,-0.00617602,-0.00804065,0.00948768,0.356125,-0.248659,-0.000811417,-0.91436,-3.0889,-0.885172,3.6085,66.7907,-59.2076,-0.0597017,4.23669,1.63432,4.2838,-2.05062,11.1438,-9.48364,-0.00533217,-0.0316205,-0.0395272,-0.0150727,-1.6889,-0.0392922,0.128049,0.103869,-0.00259366,-0.070446,0.00665121,-0.00804615,0.00631342,-0.0143053,-0.00112518,0,0,0,0,0,0,0,0.412174,-38.914,0.43733,30.9897,1.10656,3.6895,0.138352,
-0.0320603,-0.040452,-0.0154871,-1.68775,-0.0177472,0.110614,0.103801,-0.00826013,-0.00917695,-0.00803987,0.0119308,0.460315,-0.339886,-0.000762228,0.00182175,-1.87558,0.000484058,1.52694,65.1186,-57.0169,0.0307431,4.11189,1.63634,4.16139,-2.01285,11.1438,-9.36155,-0.00523784,-0.0316205,-0.0395272,-0.0150727,-1.6889,-0.0392922,0.128049,0.103869,-0.00259366,-0.070446,0.00665121,-0.00804615,0.00631342,-0.0143053,-0.00112518,0,0,0,0,0,0,0,0.412174,-38.914,0.43733,30.9897,1.10656,3.6895,0.138352,
-0.0320754,-0.0405808,-0.0155012,-1.68765,-0.0102452,0.104561,0.1038,-0.00698767,-0.0105621,-0.00678291,0.0120655,0.5558,-0.423233,-0.000657103,0.795284,-0.86571,0.785601,0.0842285,59.6781,-52.0918,0.0657033,3.97833,1.63918,4.02924,-1.98974,11.1189,-9.23886,-0.005235,-0.0314916,-0.0395985,-0.0148464,-1.68964,-0.0344244,0.124857,0.103869,0.00832611,-0.0101261,0.0140523,0.000805478,0.25506,-0.197729,0.000426327,1.36497,7.53999,0.925133,1.10645,31.0934,-22.928,0.193939,4.18903,-36.4424,4.26179,24.3365,2.86529,0.334097,0.138352,
-0.0303093,-0.0398927,-0.0136032,-1.69008,-0.0261542,0.113959,0.104062,0.0125662,-0.0127824,0.0136166,0.0012862,0.563173,-0.498791,0.00167961,12.2211,-1.38773,12.7497,-6.73709,4.60774,-47.2237,1.46044,26.8459,4.01957,27.4277,-13.4623,11.1189,-14.3314,0.11768,-0.0314916,-0.0395985,-0.0148464,-1.68964,-0.0344244,0.124857,0.103869,0.00832611,-0.0101261,0.0140523,0.000805478,0.25506,-0.197729,0.000426327,0,0,0,0,0,0,0,4.18903,-36.4424,4.26179,24.3365,2.86529,0.334097,0.138352,
-0.029382,-0.0400633,-0.0126385,-1.69058,-0.0204557,0.106193,0.104169,0.033237,-0.0144901,0.0350096,-0.0114286,0.593,-0.593168,0.00403147,12.9193,-1.06728,13.3706,-7.94676,18.6419,-58.9852,1.46991,24.9925,3.05531,25.6297,-13.9841,11.1189,-14.3314,0.0959332,-0.0314916,-0.0395985,-0.0148464,-1.68964,-0.0344244,0.124857,0.103869,0.00832611,-0.0101261,0.0140523,0.000805478,0.25506,-0.197729,0.000426327,0,0,0,0,0,0,0,4.18903,-36.4424,4.26179,24.3365,2.86529,0.334097,0.138352,
-0.0283079,-0.0401484,-0.0115325,-1.69111,-0.0140059,0.0974117,0.104352,0.0534399,-0.0137197,0.055657,-0.0224664,0.635644,-0.694074,0.00779424,12.6268,0.481511,12.9046,-6.89863,26.6527,-63.0667,2.35173,23.5469,2.88073,24.1558,-13.8411,11.1189,-14.3314,0.124074,-0.0314916,-0.0395985,-0.0148464,-1.68964,-0.0344244,0.124857,0.103869,0.00832611,-0.0101261,0.0140523,0.000805478,0.25506,-0.197729,0.000426327,0,0,0,0,0,0,0,4.18903,-36.4424,4.26179,24.3365,2.86529,0.334097,0.138352,
-0.0271559,-0.0400734,-0.0103543,-1.69155,-0.00692512,0.0878489,0.104553,0.0715541,-0.00910052,0.0739804,-0.0289536,0.685536,-0.794329,0.0112694,11.3214,2.88698,11.4521,-4.05449,31.1824,-62.6594,2.17198,22.0087,4.29131,22.5161,-12.6269,10.9247,-14.2529,0.224221,-0.0305886,-0.0411579,-0.0136373,-1.69142,-0.00656612,0.0998736,0.103864,0.028152,0.0380833,0.0345458,-0.054393,1.03444,-0.901811,0.00341963,2.47824,6.02618,2.5617,-6.89981,97.4226,-88.0102,0.374162,11.7705,-27.5081,11.76,16.1401,4.74029,-1.48872,0.0239107,
-0.0282407,-0.0408634,-0.0112768,-1.69369,0.00737992,0.0830921,0.104197,0.0918499,-0.00347381,0.0941628,-0.0543313,0.719544,-0.854911,0.0126622,12.6849,3.51669,12.614,-15.8611,21.2554,-37.8635,0.870478,37.2855,8.28078,37.8217,-22.9733,10.9247,-14.2529,0.171122,-0.0305886,-0.0411579,-0.0136373,-1.69142,-0.00656612,0.0998736,0.103864,0.028152,0.0380833,0.0345458,-0.054393,1.03444,-0.901811,0.00341963,0,0,0,0,0,0,0,11.7705,-27.5081,11.76,16.1401,4.74029,-1.48872,0.0239107,
-0.0266064,-0.0406279,-0.00961312,-1.69501,0.0143765,0.0736803,0.104373,0.114339,0.00310883,0.116923,-0.0763038,0.75055,-0.919224,0.0145335,14.0556,4.11415,14.2252,-13.7328,19.3782,-40.1956,1.16957,34.0664,7.73347,34.5979,-22.7127,10.9247,-14.2529,0.139688,-0.0305886,-0.0411579,-0.0136373,-1.69142,-0.00656612,0.0998736,0.103864,0.028152,0.0380833,0.0345458,-0.054393,1.03444,-0.901811,0.00341963,0,0,0,0,0,0,0,11.7705,-27.5081,11.76,16.1401,4.74029,-1.48872,0.0239107,
-0.0248481,-0.0402568,-0.00781661,-1.69627,0.0217148,0.0637558,0.104542,0.135427,0.0117653,0.138451,-0.0925835,0.783898,-0.983492,0.0158349,13.1801,5.4103,13.4551,-10.1748,20.8429,-40.1674,0.813357,31.4725,8.01739,32.0434,-21.5485,10.9247,-14.2529,0.198372,-0.0305886,-0.0411579,-0.0136373,-1.69142,-0.00656612,0.0998736,0.103864,0.028152,0.0380833,0.0345458,-0.054393,1.03444,-0.901811,0.00341963,0,0,0,0,0,0,0,11.7705,-27.5081,11.76,16.1401,4.74029,-1.48872,0.0239107,
-0.0176081,-0.0421377,0.00204956,-1.70429,0.0471142,0.0353421,0.104029,0.172131,0.0151134,0.175683,-0.134003,0.825937,-1.06189,0.015344,22.9397,2.09253,23.2697,-25.8869,26.2744,-48.9961,-0.306785,39.6281,5.90547,40.3917,-32.0952,11.021,-13.7635,0.117365,-0.0226213,-0.0425001,-0.00306402,-1.69947,0.0313946,0.0574137,0.103813,0.229456,0.000307684,0.33479,-0.304679,0.986242,-1.39603,-0.00215821,25.1629,-4.72196,37.5305,-31.2858,-6.02494,-61.778,-0.69723,16.567,-15.8006,16.7111,8.16986,2.21801,-2.54981,0.124619,
-0.0150674,-0.0418071,0.0046348,-1.70659,0.0553562,0.0243332,0.104118,0.201222,0.0203555,0.205177,-0.164793,0.866798,-1.12473,0.0145039,18.182,3.27635,18.434,-19.2441,25.5383,-39.2783,-0.525052,35.9306,5.57382,36.5639,-31.048,11.021,-13.7635,0.125118,-0.0226213,-0.0425001,-0.00306402,-1.69947,0.0313946,0.0574137,0.103813,0.229456,0.000307684,0.33479,-0.304679,0.986242,-1.39603,-0.00215821,0,0,0,0,0,0,0,16.567,-15.8006,16.7111,8.16986,2.21801,-2.54981,0.124619,
-0.0126084,-0.0414721,0.0071372,-1.70891,0.0639149,0.013386,0.104072,0.222452,0.0246584,0.226702,-0.189736,0.907406,-1.17346,0.0104654,13.2689,2.68929,13.4528,-15.5894,25.3794,-30.4576,-2.52405,32.2377,6.02482,32.7779,-29.1074,11.021,-13.7635,0.111905,-0.0226213,-0.0425001,-0.00306402,-1.69947,0.0313946,0.0574137,0.103813,0.229456,0.000307684,0.33479,-0.304679,0.986242,-1.39603,-0.00215821,0,0,0,0,0,0,0,16.567,-15.8006,16.7111,8.16986,2.21801,-2.54981,0.124619,
-0.0102402,-0.0411932,0.00954695,-1.7113,0.0726939,0.00267526,0.103972,0.237167,0.0267004,0.241605,-0.211602,0.945399,-1.20654,0.00586598,9.19673,1.27629,9.31451,-13.6664,23.7461,-20.6731,-2.87466,28.5062,4.39027,28.9665,-28.9453,11.021,-13.7635,-0.0539128,-0.0226213,-0.0425001,-0.00306402,-1.69947,0.0313946,0.0574137,0.103813,0.229456,0.000307684,0.33479,-0.304679,0.986242,-1.39603,-0.00215821,0,0,0,0,0,0,0,16.567,-15.8006,16.7111,8.16986,2.21801,-2.54981,0.124619,
-0.0178821,-0.0424621,0.001784,-1.70534,0.0476397,0.0377254,0.103779,0.249325,0.0232347,0.254121,-0.24332,0.962314,-1.2036,0.00415997,7.59857,-2.16611,7.82272,-19.8235,10.5716,1.83759,-1.06625,35.6307,6.42128,36.3781,-39.032,11.4701,-10.456,-0.0330514,-0.0117056,-0.0412073,0.0129653,-1.71377,0.0706599,0.0060779,0.103635,0.557636,0.0122465,0.765946,-0.520373,1.17029,-1.63976,-0.00416442,41.0225,1.49235,53.8945,-26.9617,23.0055,-30.465,-0.250776,28.814,-10.5599,28.3829,1.96899,6.81671,-5.38795,0.0101778,
-0.0155505,-0.0423365,0.00416451,-1.70836,0.0561599,0.0287828,0.103636,0.25775,0.0217282,0.26281,-0.270133,0.982856,-1.18644,-0.000253622,5.26581,-0.941552,5.43029,-16.758,12.8391,10.7217,-2.7585,32.1441,6.59896,32.8108,-37.3012,11.4701,-9.57669,-0.034145,-0.0117056,-0.0412073,0.0129653,-1.71377,0.0706599,0.0060779,0.103635,0.557636,0.0122465,0.765946,-0.520373,1.17029,-1.63976,-0.00416442,0,0,0,0,0,0,0,28.814,-10.5599,28.3829,1.96899,6.81671,-5.38795,0.0101778,
-0.0132859,-0.0422094,0.00647683,-1.71145,0.0648808,0.0205368,0.10345,0.262814,0.0205582,0.268056,-0.293504,1.00431,-1.15531,-0.00485254,3.16509,-0.731216,3.27885,-14.6072,13.4083,19.4621,-2.87432,28.5975,5.18417,29.1822,-37.0694,11.4701,-8.85612,-0.183154,-0.0117056,-0.0412073,0.0129653,-1.71377,0.0706599,0.0060779,0.103635,0.557636,0.0122465,0.765946,-0.520373,1.17029,-1.63976,-0.00416442,0,0,0,0,0,0,0,28.814,-10.5599,28.3829,1.96899,6.81671,-5.38795,0.0101778,
-0.00317919,-0.0402621,0.0216909,-1.72085,0.0921902,-0.0165835,0.10338,0.309886,0.0290208,0.316154,-0.321432,1.07904,-1.19206,-0.00844683,29.42,5.28907,30.0614,-17.455,46.7067,-22.9717,-2.24643,32.1441,6.59896,32.8108,-37.3012,11.4701,-9.57669,-0.034145,-0.0117056,-0.0412073,0.0129653,-1.71377,0.0706599,0.0060779,0.103635,0.557636,0.0122465,0.765946,-0.520373,1.17029,-1.63976,-0.00416442,0,0,0,0,0,0,0,28.814,-10.5599,28.3829,1.96899,6.81671,-5.38795,0.0101778,
0.000365537,-0.0398007,0.025308,-1.72428,0.103296,-0.0260924,0.103165,0.336527,0.0347513,0.343349,-0.342866,1.14088,-1.19137,-0.0121449,16.6506,3.58156,16.9971,-13.3961,38.6511,0.430027,-2.31132,28.2613,3.34988,28.8729,-36.7091,11.0867,-9.21399,-0.187442,0.00317208,-0.0396321,0.0351116,-1.73103,0.0827782,-0.0412692,0.103635,0.346669,0.122342,0.554592,-0.472553,-0.00468065,-1.08053,0.000851393,-26.3708,13.762,-26.4193,5.97752,-146.871,69.9034,0.626976,-6.63769,-43.6073,-7.03703,33.0051,-0.151371,3.74261,0.11821,
0.00356697,-0.0393911,0.0285745,-1.72767,0.114242,-0.0344653,0.102955,0.349258,0.0380428,0.356342,-0.358868,1.18635,-1.16242,-0.0149481,7.95657,2.0572,8.12024,-10.0011,28.4144,18.0959,-1.752,26.5179,1.92878,27.096,-36.816,11.0867,-8.07424,-0.234741,0.00317208,-0.0396321,0.0351116,-1.73103,0.0827782,-0.0412692,0.103635,0.346669,0.122342,0.554592,-0.472553,-0.00468065,-1.08053,0.000851393,0,0,0,0,0,0,0,-6.63769,-43.6073,-7.03703,33.0051,-0.151371,3.74261,0.11821,
0.00649579,-0.0390258,0.0315631,-1.73098,0.124917,-0.0418095,0.102765,0.352626,0.0395654,0.359789,-0.369937,1.21595,-1.11354,-0.0167204,2.10552,0.951636,2.1546,-6.91843,18.5004,30.5488,-1.10765,25.4311,1.37023,25.9924,-36.4959,11.0867,-6.82121,-0.23328,0.00317208,-0.0396321,0.0351116,-1.73103,0.0827782,-0.0412692,0.103635,0.346669,0.122342,0.554592,-0.472553,-0.00468065,-1.08053,0.000851393,0,0,0,0,0,0,0,-6.63769,-43.6073,-7.03703,33.0051,-0.151371,3.74261,0.11821,
0.00882259,-0.0379474,0.0409391,-1.73809,0.0920633,-0.0579027,0.103247,0.348385,0.0508628,0.355894,-0.383523,1.11577,-1.09255,-0.0186168,-2.65071,7.06089,-2.43466,-8.49106,-62.6083,13.1201,-1.18527,28.2613,3.34988,28.8729,-36.7091,11.0867,-9.21399,-0.187442,0.00317208,-0.0396321,0.0351116,-1.73103,0.0827782,-0.0412692,0.103635,0.346669,0.122342,0.554592,-0.472553,-0.00468065,-1.08053,0.000851393,0,0,0,0,0,0,0,-6.63769,-43.6073,-7.03703,33.0051,-0.151371,3.74261,0.11821,
0.0112407,-0.0373105,0.0434184,-1.74153,0.0990409,-0.0652811,0.103046,0.339162,0.0566142,0.346698,-0.392886,1.06706,-1.0585,-0.0199185,-5.76463,3.59462,-5.74762,-5.85189,-30.4467,21.2803,-0.813572,26.5179,1.92878,27.096,-36.816,11.0867,-8.07424,-0.234741,0.00317208,-0.0396321,0.0351116,-1.73103,0.0827782,-0.0412692,0.103635,0.346669,0.122342,0.554592,-0.472553,-0.00468065,-1.08053,0.000851393,0,0,0,0,0,0,0,-6.63769,-43.6073,-7.03703,33.0051,-0.151371,3.74261,0.11821,
0.0135002,-0.0367762,0.0457329,-1.7449,0.106743,-0.0719152,0.102864,0.327816,0.0586479,0.335222,-0.398366,1.0462,-1.01265,-0.0204772,-7.09122,1.27109,-7.17199,-3.42518,-13.0391,28.6553,-0.349179,25.168,1.73382,25.7402,-35.8156,11.0152,-6.12902,-0.236804,0.0161229,-0.0344422,0.0595639,-1.74457,0.0977508,-0.0704353,0.103634,0.434941,0.278402,0.837474,-0.399066,0.611991,-0.685133,-0.000639228,11.034,19.5075,35.3603,9.18586,77.084,49.4244,-0.186328,-4.02722,-41.3579,-5.08513,39.7296,4.49035,5.13512,0.14476,
0.0156444,-0.0363215,0.0479283,-1.74817,0.114858,-0.077821,0.102703,0.315859,0.0582853,0.323063,-0.400435,1.03983,-0.957767,-0.0204124,-7.47332,-0.226652,-7.59974,-1.29305,-3.97581,34.303,0.0405323,24.3034,1.54727,24.8611,-35.3287,11.0152,-5.10639,-0.21836,0.0161229,-0.0344422,0.0595639,-1.74457,0.0977508,-0.0704353,0.103634,0.434941,0.278402,0.837474,-0.399066,0.611991,-0.685133,-0.000639228,0,0,0,0,0,0,0,-4.02722,-41.3579,-5.08513,39.7296,4.49035,5.13512,0.14476,
0.0237833,-0.0317,0.0674342,-1.75162,0.114033,-0.0818121,0.103149,0.341074,0.0759854,0.348769,-0.408365,1.05163,-0.908493,-0.0222315,15.7595,11.0626,16.0662,-4.95591,7.37297,30.7961,-1.13696,26.2547,2.29237,26.8438,-36.1357,11.0152,-7.38205,-0.238265,0.0161229,-0.0344422,0.0595639,-1.74457,0.0977508,-0.0704353,0.103634,0.434941,0.278402,0.837474,-0.399066,0.611991,-0.685133,-0.000639228,0,0,0,0,0,0,0,-4.02722,-41.3579,-5.08513,39.7296,4.49035,5.13512,0.14476,
0.0268923,-0.0307939,0.0706087,-1.75505,0.1234,-0.0872749,0.102942,0.350583,0.0834412,0.358378,-0.41246,1.07548,-0.863364,-0.0229768,5.94353,4.65984,6.00559,-2.55931,14.9034,28.2055,-0.465834,25.168,1.73382,25.7402,-35.8156,11.0152,-6.12902,-0.236804,0.0161229,-0.0344422,0.0595639,-1.74457,0.0977508,-0.0704353,0.103634,0.434941,0.278402,0.837474,-0.399066,0.611991,-0.685133,-0.000639228,0,0,0,0,0,0,0,-4.02722,-41.3579,-5.08513,39.7296,4.49035,5.13512,0.14476,
0.0296897,-0.0300812,0.0734644,-1.75837,0.13296,-0.0923671,0.102761,0.350401,0.08457,0.358094,-0.412966,1.09939,-0.817994,-0.0228985,-0.113957,0.705534,-0.177441,-0.316439,14.9458,28.3563,0.0489618,24.0782,-0.0610699,24.6341,-35.4892,10.5927,-5.58026,-0.216319,0.020861,-0.0280281,0.0746993,-1.75737,0.0959049,-0.0905616,0.103656,-0.0224572,0.128918,0.166272,-0.361553,0.101939,-0.566765,-0.00663405,-57.1748,-18.6855,-83.9003,4.68913,-63.7565,14.796,-0.749353,-22.5624,-44.0041,-22.7594,47.6523,0.361325,8.47039,0.110886,
0.0225789,-0.0267347,0.0765198,-1.76362,0.102805,-0.0997198,0.103337,0.304235,0.0817551,0.311444,-0.408784,0.983187,-0.767958,-0.0222082,-28.8537,-1.7593,-29.1559,2.61363,-72.6268,31.2727,0.431407,24.9428,0.125485,25.5132,-35.9761,10.5927,-6.60288,-0.234763,0.020861,-0.0280281,0.0746993,-1.75737,0.0959049,-0.0905616,0.103656,-0.0224572,0.128918,0.166272,-0.361553,0.101939,-0.566765,-0.00663405,0,0,0,0,0,0,0,-22.5624,-44.0041,-22.7594,47.6523,0.361325,8.47039,0.110886,
0.0236893,-0.0262774,0.0776714,-1.76672,0.107977,-0.104042,0.103196,0.271147,0.0768354,0.277944,-0.404543,0.915849,-0.722416,-0.0212844,-20.68,-3.07485,-20.9375,2.65047,-42.0861,28.4638,0.577377,24.0782,-0.0610699,24.6341,-35.4892,10.5927,-5.58026,-0.216319,0.020861,-0.0280281,0.0746993,-1.75737,0.0959049,-0.0905616,0.103656,-0.0224572,0.128918,0.166272,-0.361553,0.101939,-0.566765,-0.00663405,0,0,0,0,0,0,0,-22.5624,-44.0041,-22.7594,47.6523,0.361325,8.47039,0.110886,
0.0249216,-0.0258985,0.0789443,-1.76979,0.113918,-0.107863,0.103072,0.247727,0.0709407,0.254178,-0.400292,0.88121,-0.673473,-0.0201246,-14.6378,-3.68417,-14.8542,2.65717,-21.6496,30.5894,0.724895,23.2877,-0.0812825,23.8286,-34.9427,10.5927,-4.77394,-0.193755,0.020861,-0.0280281,0.0746993,-1.75737,0.0959049,-0.0905616,0.103656,-0.0224572,0.128918,0.166272,-0.361553,0.101939,-0.566765,-0.00663405,0,0,0,0,0,0,0,-22.5624,-44.0041,-22.7594,47.6523,0.361325,8.47039,0.110886,
0.0262485,-0.0255814,0.0803111,-1.77284,0.120443,-0.110805,0.102965,0.231353,0.0646793,0.237512,-0.396561,0.868082,-0.612312,-0.0187854,-10.2337,-3.9134,-10.4161,2.33157,-8.20449,38.2252,0.837018,22.5313,0.0189402,23.0577,-34.3282,10.5927,-3.40033,-0.169372,0.020861,-0.0280281,0.0746993,-1.75737,0.0959049,-0.0905616,0.103656,-0.0224572,0.128918,0.166272,-0.361553,0.101939,-0.566765,-0.00663405,0,0,0,0,0,0,0,-22.5624,-44.0041,-22.7594,47.6523,0.361325,8.47039,0.110886,
0.0225348,-0.0267361,0.0764743,-1.76363,0.102869,-0.0991107,0.103368,0.208314,0.0659451,0.214275,-0.395561,0.799003,-0.59455,-0.0184813,-14.3993,0.791117,-14.523,0.625208,-43.1747,11.1017,0.190079,24.0782,-0.0610699,24.6341,-35.4892,10.5927,-5.58026,-0.216319,0.020861,-0.0280281,0.0746993,-1.75737,0.0959049,-0.0905616,0.103656,-0.0224572,0.128918,0.166272,-0.361553,0.101939,-0.566765,-0.00663405,0,0,0,0,0,0,0,-22.5624,-44.0041,-22.7594,47.6523,0.361325,8.47039,0.110886,
0.0236116,-0.0262717,0.0775913,-1.76674,0.108075,-0.102853,0.103247,0.193571,0.064365,0.199346,-0.39397,0.769353,-0.569206,-0.0178162,-9.21418,-0.987506,-9.33076,0.994199,-18.5309,15.8395,0.415639,23.2877,-0.0812825,23.8286,-34.9427,10.5927,-4.77394,-0.193755,0.020861,-0.0280281,0.0746993,-1.75737,0.0959049,-0.0905616,0.103656,-0.0224572,0.128918,0.166272,-0.361553,0.101939,-0.566765,-0.00663405,0,0,0,0,0,0,0,-22.5624,-44.0041,-22.7594,47.6523,0.361325,8.47039,0.110886,
0.0248073,-0.0258864,0.0788265,-1.76982,0.114046,-0.105757,0.103142,0.184748,0.061127,0.190357,-0.392282,0.764763,-0.527951,-0.0168768,-5.51438,-2.0238,-5.6182,1.05537,-2.8693,25.7845,0.587165,22.5313,0.0189402,23.0577,-34.3282,10.5927,-3.40033,-0.169372,0.020861,-0.0280281,0.0746993,-1.75737,0.0959049,-0.0905616,0.103656,-0.0224572,0.128918,0.166272,-0.361553,0.101939,-0.566765,-0.00663405,0,0,0,0,0,0,0,-22.5624,-44.0041,-22.7594,47.6523,0.361325,8.47039,0.110886,
0.0260947,-0.0255575,0.0801529,-1.77288,0.120592,-0.10765,0.103052,0.179984,0.0571236,0.185444,-0.390214,0.775441,-0.469695,-0.015742,-2.97762,-2.50208,-3.07062,1.29245,6.67418,36.4103,0.709217,21.8019,0.117153,22.3151,-33.7204,10.5927,-1.31031,-0.146252,0.020861,-0.0280281,0.0746993,-1.75737,0.0959049,-0.0905616,0.103656,-0.0224572,0.128918,0.166272,-0.361553,0.101939,-0.566765,-0.00663405,0,0,0,0,0,0,0,-22.5624,-44.0041,-22.7594,47.6523,0.361325,8.47039,0.110886,
0.0224949,-0.0267287,0.0764328,-1.76365,0.102929,-0.0984477,0.103404,0.166604,0.0600419,0.171984,-0.390742,0.725745,-0.468722,-0.0155607,-8.36279,1.82394,-8.41259,-0.329776,-31.06,0.607637,0.113356,23.2877,-0.0812825,23.8286,-34.9427,10.5927,-4.77394,-0.193755,0.020861,-0.0280281,0.0746993,-1.75737,0.0959049,-0.0905616,0.103656,-0.0224572,0.128918,0.166272,-0.361553,0.101939,-0.566765,-0.00663405,0,0,0,0,0,0,0,-22.5624,-44.0041,-22.7594,47.6523,0.361325,8.47039,0.110886,
0.0235417,-0.0262577,0.077519,-1.76678,0.108169,-0.101349,0.103302,0.159454,0.0598101,0.164741,-0.390784,0.711599,-0.447517,-0.0150064,-4.46834,-0.144897,-4.52638,-0.0264914,-8.84124,13.2537,0.346427,22.5313,0.0189402,23.0577,-34.3282,10.5927,-3.40033,-0.169372,0.020861,-0.0280281,0.0746993,-1.75737,0.0959049,-0.0905616,0.103656,-0.0224572,0.128918,0.166272,-0.361553,0.101939,-0.566765,-0.00663405,0,0,0,0,0,0,0,-22.5624,-44.0041,-22.7594,47.6523,0.361325,8.47039,0.110886,
0.0247031,-0.0258592,0.078719,-1.76987,0.114167,-0.103259,0.103215,0.156599,0.0578096,0.161793,-0.389968,0.719219,-0.40576,-0.0141838,-1.78455,-1.25029,-1.8425,0.510187,4.76225,26.0976,0.514081,21.8019,0.117153,22.3151,-33.7204,10.5927,-1.31031,-0.146252,0.020861,-0.0280281,0.0746993,-1.75737,0.0959049,-0.0905616,0.103656,-0.0224572,0.128918,0.166272,-0.361553,0.101939,-0.566765,-0.00663405,0,0,0,0,0,0,0,-22.5624,-44.0041,-22.7594,47.6523,0.361325,8.47039,0.110886,
0.0224596,-0.0267218,0.076396,-1.7637,0.102989,-0.0973525,0.103442,0.147351,0.0607127,0.152499,-0.391428,0.681611,-0.398749,-0.0138419,-5.78004,1.81438,-5.80921,-0.912514,-23.5052,4.38215,0.213735,22.5313,0.0189402,23.0577,-34.3282,10.5927,-3.40033,-0.169372,0.020861,-0.0280281,0.0746993,-1.75737,0.0959049,-0.0905616,0.103656,-0.0224572,0.128918,0.166272,-0.361553,0.101939,-0.566765,-0.00663405,0,0,0,0,0,0,0,-22.5624,-44.0041,-22.7594,47.6523,0.361325,8.47039,0.110886,
0.0234783,-0.0262379,0.0774532,-1.76685,0.108259,-0.0993227,0.103357,0.14335,0.0606675,0.148429,-0.391744,0.67704,-0.368252,-0.0131865,-2.50034,-0.0282065,-2.54333,-0.197594,-2.85657,19.0607,0.4096,21.8019,0.117153,22.3151,-33.7204,10.5927,-1.31031,-0.146252,0.020861,-0.0280281,0.0746993,-1.75737,0.0959049,-0.0905616,0.103656,-0.0224572,0.128918,0.166272,-0.361553,0.101939,-0.566765,-0.00663405,0,0,0,0,0,0,0,-22.5624,-44.0041,-22.7594,47.6523,0.361325,8.47039,0.110886,
0.0246066,-0.0258233,0.0786191,-1.76994,0.11428,-0.100247,0.103286,0.142886,0.0589008,0.14789,-0.390644,0.692172,-0.317709,-0.0123316,-0.290068,-1.10419,-0.337105,0.687446,9.45751,31.5892,0.5343,21.1106,0.128667,21.6098,-33.1992,10.5927,0.440872,-0.12391,0.020861,-0.0280281,0.0746993,-1.75737,0.0959049,-0.0905616,0.103656,-0.0224572,0.128918,0.166272,-0.361553,0.101939,-0.566765,-0.00663405,0,0,0,0,0,0,0,-22.5624,-44.0041,-22.7594,47.6523,0.361325,8.47039,0.110886,
0.0258187,-0.0254614,0.0798681,-1.77296,0.120863,-0.100156,0.103227,0.144613,0.0561683,0.149536,-0.388119,0.718294,-0.251887,-0.0113497,1.07899,-1.70784,1.02891,1.57804,16.3264,41.1387,0.61371,20.4522,0.11205,20.9368,-32.7381,10.5927,1.91041,-0.103592,0.020861,-0.0280281,0.0746993,-1.75737,0.0959049,-0.0905616,0.103656,-0.0224572,0.128918,0.166272,-0.361553,0.101939,-0.566765,-0.00663405,0,0,0,0,0,0,0,-22.5624,-44.0041,-22.7594,47.6523,0.361325,8.47039,0.110886,
0.0224273,-0.0267179,0.0763622,-1.76378,0.103046,-0.096037,0.103478,0.137251,0.0595835,0.142162,-0.390663,0.681628,-0.256114,-0.0111268,-4.60082,2.13449,-4.60904,-1.58991,-22.9167,-2.64171,0.139286,21.8019,0.117153,22.3151,-33.7204,10.5927,-1.31031,-0.146252,0.020861,-0.0280281,0.0746993,-1.75737,0.0959049,-0.0905616,0.103656,-0.0224572,0.128918,0.166272,-0.361553,0.101939,-0.566765,-0.00663405,0,0,0,0,0,0,0,-22.5624,-44.0041,-22.7594,47.6523,0.361325,8.47039,0.110886,
0.0234189,-0.0262203,0.0773914,-1.76693,0.108343,-0.0971264,0.103409,0.134592,0.060107,0.139459,-0.391298,0.677744,-0.232129,-0.0106156,-1.66192,0.327205,-1.68956,-0.397215,-2.42743,14.991,0.319527,21.1106,0.128667,21.6098,-33.1992,10.5927,0.440872,-0.12391,0.020861,-0.0280281,0.0746993,-1.75737,0.0959049,-0.0905616,0.103656,-0.0224572,0.128918,0.166272,-0.361553,0.101939,-0.566765,-0.00663405,0,0,0,0,0,0,0,-22.5624,-44.0041,-22.7594,47.6523,0.361325,8.47039,0.110886,
0.0245147,-0.0257887,0.0785237,-1.77,0.114388,-0.0971696,0.103352,0.135067,0.0588756,0.139875,-0.389934,0.693311,-0.186782,-0.00991403,0.296864,-0.769633,0.260317,0.852764,9.72951,28.3418,0.438473,20.4522,0.11205,20.9368,-32.7381,10.5927,1.91041,-0.103592,0.020861,-0.0280281,0.0746993,-1.75737,0.0959049,-0.0905616,0.103656,-0.0224572,0.128918,0.166272,-0.361553,0.101939,-0.566765,-0.00663405,0,0,0,0,0,0,0,-22.5624,-44.0041,-22.7594,47.6523,0.361325,8.47039,0.110886,
0.0256903,-0.0254088,0.0797351,-1.773,0.120988,-0.096249,0.103305,0.137445,0.0565969,0.142185,-0.386801,0.719658,-0.12641,-0.00911028,1.48616,-1.42416,1.44374,1.95824,16.4669,37.7322,0.502343,19.8183,0.124192,20.2874,-32.2993,10.5927,3.09693,-0.0848614,0.020861,-0.0280281,0.0746993,-1.75737,0.0959049,-0.0905616,0.103656,-0.0224572,0.128918,0.166272,-0.361553,0.101939,-0.566765,-0.00663405,0,0,0,0,0,0,0,-22.5624,-44.0041,-22.7594,47.6523,0.361325,8.47039,0.110886,
0.0223956,-0.0267179,0.076329,-1.76384,0.1031,-0.0949357,0.103512,0.131018,0.0600448,0.135759,-0.39019,0.683442,-0.139385,-0.00892923,-4.01722,2.15494,-4.01622,-2.11808,-22.6351,-8.10931,0.113157,21.1106,0.128667,21.6098,-33.1992,10.5927,0.440872,-0.12391,0.020861,-0.0280281,0.0746993,-1.75737,0.0959049,-0.0905616,0.103656,-0.0224572,0.128918,0.166272,-0.361553,0.101939,-0.566765,-0.00663405,0,0,0,0,0,0,0,-22.5624,-44.0041,-22.7594,47.6523,0.361325,8.47039,0.110886,
0.0233608,-0.026208,0.0773306,-1.76699,0.108424,-0.0953019,0.103458,0.128942,0.0607842,0.133648,-0.390933,0.679863,-0.120665,-0.00849091,-1.29698,0.462133,-1.31912,-0.464237,-2.2364,11.7003,0.273953,20.4522,0.11205,20.9368,-32.7381,10.5927,1.91041,-0.103592,0.020861,-0.0280281,0.0746993,-1.75737,0.0959049,-0.0905616,0.103656,-0.0224572,0.128918,0.166272,-0.361553,0.101939,-0.566765,-0.00663405,0,0,0,0,0,0,0,-22.5624,-44.0041,-22.7594,47.6523,0.361325,8.47039,0.110886,
0.024425,-0.02576,0.0784304,-1.77005,0.114491,-0.0946264,0.103413,0.129761,0.0598266,0.134414,-0.389181,0.695571,-0.0796425,-0.00790549,0.511433,-0.598523,0.478577,1.09462,9.81751,25.6388,0.365887,19.8183,0.124192,20.2874,-32.2993,10.5927,3.09693,-0.0848614,0.020861,-0.0280281,0.0746993,-1.75737,0.0959049,-0.0905616,0.103656,-0.0224572,0.128918,0.166272,-0.361553,0.101939,-0.566765,-0.00663405,0,0,0,0,0,0,0,-22.5624,-44.0041,-22.7594,47.6523,0.361325,8.47039,0.110886,
0.0223645,-0.0267168,0.0762961,-1.76388,0.103151,-0.0940276,0.103542,0.124378,0.0627645,0.129027,-0.392459,0.664865,-0.0886307,-0.00759373,-3.36415,1.83621,-3.36726,-2.04887,-19.1913,-5.61761,0.194849,20.4522,0.11205,20.9368,-32.7381,10.5927,1.91041,-0.103592,0.020861,-0.0280281,0.0746993,-1.75737,0.0959049,-0.0905616,0.103656,-0.0224572,0.128918,0.166272,-0.361553,0.101939,-0.566765,-0.00663405,0,0,0,0,0,0,0,-22.5624,-44.0041,-22.7594,47.6523,0.361325,8.47039,0.110886,
0.0233038,-0.026194,0.0772709,-1.76703,0.108501,-0.0938072,0.103501,0.122985,0.0632835,0.127591,-0.392599,0.66565,-0.0653964,-0.00710954,-0.870926,0.324341,-0.897225,-0.0873496,0.490134,14.5214,0.302622,19.8183,0.124192,20.2874,-32.2993,10.5927,3.09693,-0.0848614,0.020861,-0.0280281,0.0746993,-1.75737,0.0959049,-0.0905616,0.103656,-0.0224572,0.128918,0.166272,-0.361553,0.101939,-0.566765,-0.00663405,0,0,0,0,0,0,0,-22.5624,-44.0041,-22.7594,47.6523,0.361325,8.47039,0.110886,
0.0243378,-0.0257289,0.0783395,-1.77006,0.11459,-0.0925615,0.103468,0.124238,0.062252,0.128786,-0.38993,0.684742,-0.0211743,-0.00650137,0.783525,-0.644669,0.74709,1.668,11.9327,27.6388,0.3801,19.2147,0.184613,19.6686,-31.8611,10.5927,4.05673,-0.0688743,0.020861,-0.0280281,0.0746993,-1.75737,0.0959049,-0.0905616,0.103656,-0.0224572,0.128918,0.166272,-0.361553,0.101939,-0.566765,-0.00663405,0,0,0,0,0,0,0,-22.5624,-44.0041,-22.7594,47.6523,0.361325,8.47039,0.110886,
0.0254453,-0.0253129,0.0794807,-1.77299,0.121225,-0.0904544,0.103444,0.127079,0.060202,0.131559,-0.385107,0.71367,0.0357375,-0.0058132,1.77535,-1.28125,1.73316,3.01453,18.0798,35.5699,0.43011,18.6517,0.284994,19.091,-31.4219,10.5927,4.78898,-0.0533565,0.020861,-0.0280281,0.0746993,-1.75737,0.0959049,-0.0905616,0.103656,-0.0224572,0.128918,0.166272,-0.361553,0.101939,-0.566765,-0.00663405,0,0,0,0,0,0,0,-22.5624,-44.0041,-22.7594,47.6523,0.361325,8.47039,0.110886,
0.0223339,-0.0267113,0.0762637,-1.76391,0.1032,-0.0933005,0.103569,0.121751,0.0632504,0.126237,-0.389351,0.680006,0.0143616,-0.00560345,-3.33011,1.90527,-3.32658,-2.65252,-21.0396,-13.36,0.131095,19.8183,0.124192,20.2874,-32.2993,10.5927,3.09693,-0.0848614,0.020861,-0.0280281,0.0746993,-1.75737,0.0959049,-0.0905616,0.103656,-0.0224572,0.128918,0.166272,-0.361553,0.101939,-0.566765,-0.00663405,0,0,0,0,0,0,0,-22.5624,-44.0041,-22.7594,47.6523,0.361325,8.47039,0.110886,
