xiao-wang007/linearmpc_panda/paper_data/panda_torque_PD_controller_opt_time_to_start_low_pass_filter/0/trajectory.csv
Commanded Joint 0 Position,Commanded Joint 1 Position,Commanded Joint 2 Position,Commanded Joint 3 Position,Commanded Joint 4 Position,Commanded Joint 5 Position,Commanded Joint 6 Position,Commanded Joint 0 Velocity,Commanded Joint 1 Velocity,Commanded Joint 2 Velocity,Commanded Joint 3 Velocity,Commanded Joint 4 Velocity,Commanded Joint 5 Velocity,Commanded Joint 6 Velocity,Commanded Joint 0 Acceleration,Commanded Joint 1 Acceleration,Commanded Joint 2 Acceleration,Commanded Joint 3 Acceleration,Commanded Joint 4 Acceleration,Commanded Joint 5 Acceleration,Commanded Joint 6 Acceleration,Commanded Joint 0 Torque,Commanded Joint 1 Torque,Commanded Joint 2 Torque,Commanded Joint 3 Torque,Commanded Joint 4 Torque,Commanded Joint 5 Torque,Commanded Joint 6 Torque,Actual Joint 0 Position,Actual Joint 1 Position,Actual Joint 2 Position,Actual Joint 3 Position,Actual Joint 4 Position,Actual Joint 5 Position,Actual Joint 6 Position,Actual Joint 0 Velocity,Actual Joint 1 Velocity,Actual Joint 2 Velocity,Actual Joint 3 Velocity,Actual Joint 4 Velocity,Actual Joint 5 Velocity,Actual Joint 6 Velocity,Actual Joint 0 Acceleration,Actual Joint 1 Acceleration,Actual Joint 2 Acceleration,Actual Joint 3 Acceleration,Actual Joint 4 Acceleration,Actual Joint 5 Acceleration,Actual Joint 6 Acceleration,Actual Joint 0 Torque,Actual Joint 1 Torque,Actual Joint 2 Torque,Actual Joint 3 Torque,Actual Joint 4 Torque,Actual Joint 5 Torque,Actual Joint 6 Torque,
0.0424419,-0.144323,-0.0946101,-2.01035,-0.0323901,0.366326,-0.0642681,2.08115e-05,0.0186595,-0.000462447,-0.0351927,-0.0035121,0.0537734,-0.000371637,0.0130072,11.6622,-0.289029,-21.9954,-2.19506,33.6084,-0.232273,0.0590807,19.9237,-0.224013,-24.5621,-0.496236,1.78056,-0.0237358,0.0424645,-0.14528,-0.0944606,-2.00705,-0.0322745,0.360442,-0.0642135,0.00198863,0.00148106,0.0014884,-0.000614311,-0.00617176,0.000652245,0.000986505,0,0,0,0,0,0,0,-0.119442,-30.2535,0.0366345,27.5024,0.984799,3.36449,-0.110672,
0.0424827,-0.145257,-0.0944401,-2.00706,-0.0323091,0.360445,-0.0642148,0.000117861,0.015074,-0.000256601,-0.0282198,-0.00287748,0.043011,-0.000304301,0.0606556,-2.24092,0.128653,4.35801,0.396638,-6.72647,0.0420845,0.053319,20.3645,-0.234414,-24.4784,-0.496812,1.52955,-0.0222195,0.0424645,-0.14528,-0.0944606,-2.00705,-0.0322745,0.360442,-0.0642135,0.00198863,0.00148106,0.0014884,-0.000614311,-0.00617176,0.000652245,0.000986505,0,0,0,0,0,0,0,-0.119442,-30.2535,0.0366345,27.5024,0.984799,3.36449,-0.110672,
0.0424857,-0.145252,-0.0944368,-2.00706,-0.0323087,0.360445,-0.0642149,0.000167565,0.0121777,-0.000123498,-0.0226272,-0.00229206,0.0343938,-0.000247745,0.0310651,-1.81023,0.0831893,3.49542,0.365886,-5.38576,0.035348,0.0460885,20.9376,-0.246078,-24.3697,-0.496521,1.18244,-0.0202526,0.0424677,-0.145222,-0.0944605,-2.00712,-0.0322691,0.360441,-0.0642188,0.00171581,0.00280343,0.00139236,-0.0033679,-0.00623667,0.00301011,-0.00104966,-0.0341024,0.165297,-0.0120056,-0.344198,-0.00811418,0.294733,-0.254521,-0.119442,-30.1265,0.112013,27.5262,0.960079,3.34435,-0.0630644,
0.0424878,-0.145248,-0.0944344,-2.00706,-0.032307,0.360444,-0.0642151,0.000188225,0.00983927,-3.82017e-05,-0.0181415,-0.00179028,0.0275017,-0.000200972,0.0129127,-1.46149,0.0533103,2.80356,0.313616,-4.30756,0.029233,0.0401129,21.4618,-0.25554,-24.2018,-0.49473,0.797176,-0.0182531,0.0424677,-0.145222,-0.0944605,-2.00712,-0.0322691,0.360441,-0.0642188,0.00171581,0.00280343,0.00139236,-0.0033679,-0.00623667,0.00301011,-0.00104966,0,0,0,0,0,0,0,-0.119442,-30.1265,0.112013,27.5262,0.960079,3.34435,-0.0630644,
0.0422317,-0.145176,-0.0946672,-2.00699,-0.0229238,0.356496,-0.0642628,-0.000533957,0.00778885,-0.000761352,-0.0142545,0.056967,-0.00374254,-0.000200796,-0.451364,-1.28151,-0.451969,2.42935,36.7233,-19.5277,0.000110123,0.497618,0.137556,0.483297,-0.251964,3.37197,-1.5821,-0.00126481,0.0424677,-0.145222,-0.0944605,-2.00712,-0.0322691,0.360441,-0.0642188,0.00171581,0.00280343,0.00139236,-0.0033679,-0.00623667,0.00301011,-0.00104966,0,0,0,0,0,0,0,-0.119442,-30.1265,0.112013,27.5262,0.960079,3.34435,-0.0630644,
0.0422171,-0.14518,-0.0946841,-2.00699,-0.0205309,0.355421,-0.0642637,-0.000792197,0.00613167,-0.0010313,-0.0113079,0.105398,-0.0298713,-0.000181417,-0.1614,-1.03574,-0.168715,1.84161,30.2693,-16.3305,0.0121119,0.4917,0.13498,0.477296,-0.249623,3.3417,-1.56779,-0.00125222,0.0424677,-0.145222,-0.0944605,-2.00712,-0.0322691,0.360441,-0.0642188,0.00171581,0.00280343,0.00139236,-0.0033679,-0.00623667,0.00301011,-0.00104966,0,0,0,0,0,0,0,-0.119442,-30.1265,0.112013,27.5262,0.960079,3.34435,-0.0630644,
0.0422136,-0.145183,-0.0946899,-2.00699,-0.0181112,0.354318,-0.0642641,-0.000722194,0.00482169,-0.000971091,-0.00908112,0.144809,-0.051466,-0.000156817,0.0437514,-0.818739,0.0376279,1.39176,24.6322,-13.4967,0.0153745,0.488108,0.183887,0.475475,-0.225997,3.31304,-1.54136,-0.00130328,0.0424393,-0.144229,-0.0944872,-2.00827,-0.0322229,0.362227,-0.0642188,-0.00149025,0.110975,-0.00162831,-0.127002,-0.00181447,0.194151,-0.000914786,-0.400758,13.5214,-0.377583,-15.4542,0.552775,23.8926,0.0168596,0.285221,-13.6305,0.413527,9.91547,0.343014,1.5078,-0.0630644,
0.0422193,-0.145185,-0.0946864,-2.007,-0.0156836,0.3532,-0.0642645,-0.000436068,0.00380617,-0.000688471,-0.0074025,0.176539,-0.069127,-0.000133273,0.178829,-0.6347,0.176638,1.04914,19.8311,-11.0381,0.0147153,0.482526,0.18162,0.469836,-0.22364,3.28241,-1.52705,-0.00128762,0.0424393,-0.144229,-0.0944872,-2.00827,-0.0322229,0.362227,-0.0642188,-0.00149025,0.110975,-0.00162831,-0.127002,-0.00181447,0.194151,-0.000914786,0,0,0,0,0,0,0,0.285221,-13.6305,0.413527,9.91547,0.343014,1.5078,-0.0630644,
0.0420257,-0.141858,-0.0948005,-2.00858,-0.00188843,0.338762,-0.0643797,-0.000264846,0.00878572,-0.000369101,-0.00755572,0.334414,-0.211723,-0.000382241,0.107014,3.11222,0.199606,-0.0957605,98.6716,-89.1224,-0.155605,3.67255,1.5913,3.70838,-1.64357,11.0812,-9.40542,-0.00854955,0.0424393,-0.144229,-0.0944872,-2.00827,-0.0322229,0.362227,-0.0642188,-0.00149025,0.110975,-0.00162831,-0.127002,-0.00181447,0.194151,-0.000914786,0,0,0,0,0,0,0,0.285221,-13.6305,0.413527,9.91547,0.343014,1.5078,-0.0630644,
0.0420727,-0.141672,-0.094751,-2.00867,0.00611685,0.332259,-0.0643883,0.000962807,0.0116849,0.000941276,-0.00823469,0.467663,-0.331937,-0.000520854,0.767283,1.81197,0.818986,-0.424355,83.2808,-75.1339,-0.0866336,3.57842,1.55597,3.60793,-1.62253,11.0812,-9.29602,-0.00892332,0.0424393,-0.144229,-0.0944872,-2.00827,-0.0322229,0.362227,-0.0642188,-0.00149025,0.110975,-0.00162831,-0.127002,-0.00181447,0.194151,-0.000914786,0,0,0,0,0,0,0,0.285221,-13.6305,0.413527,9.91547,0.343014,1.5078,-0.0630644,
0.0421561,-0.14151,-0.0946652,-2.00877,0.0143005,0.325622,-0.0643957,0.00285588,0.0133896,0.0028998,-0.00921316,0.578721,-0.431469,-0.000602468,1.18317,1.06542,1.22408,-0.611548,69.4114,-62.2077,-0.0510083,3.51595,1.59309,3.51913,-1.63181,11.0676,-9.18306,-0.00966174,0.0424251,-0.141758,-0.0944696,-2.01453,-0.0293513,0.366203,-0.0642166,-0.00320439,0.0289335,-0.00278402,-0.133457,0.276358,-0.137077,0.000134611,-0.214268,-10.2552,-0.144464,-0.806872,34.7716,-41.4034,0.131175,0.487552,-30.3526,0.43733,35.3973,2.34619,3.65014,-0.083206,
0.0461252,-0.143016,-0.0904784,-2.01701,0.000539492,0.326134,-0.0638716,0.0269042,-0.00221163,0.0288851,-0.0231541,0.650525,-0.594278,-0.000352402,15.0302,-9.75074,16.2408,-8.71307,44.8773,-101.755,0.156291,24.0777,-2.12592,25.1446,-8.71885,11.0676,-14.4162,0.148659,0.0424251,-0.141758,-0.0944696,-2.01453,-0.0293513,0.366203,-0.0642166,-0.00320439,0.0289335,-0.00278402,-0.133457,0.276358,-0.137077,0.000134611,0,0,0,0,0,0,0,0.487552,-30.3526,0.43733,35.3973,2.34619,3.65014,-0.083206,
0.0471559,-0.143547,-0.0893686,-2.01766,0.00840766,0.315763,-0.0638756,0.0472911,-0.015048,0.0508531,-0.0348452,0.717124,-0.734707,-0.000383054,12.7418,-8.02273,13.73,-7.30697,41.6246,-87.7682,-0.0191575,22.0757,-5.17285,23.0307,-9.71738,11.0676,-14.4162,0.154035,0.0424251,-0.141758,-0.0944696,-2.01453,-0.0293513,0.366203,-0.0642166,-0.00320439,0.0289335,-0.00278402,-0.133457,0.276358,-0.137077,0.000134611,0,0,0,0,0,0,0,0.487552,-30.3526,0.43733,35.3973,2.34619,3.65014,-0.083206,
0.0482151,-0.144073,-0.0882308,-2.01835,0.0165324,0.305242,-0.0638809,0.0643135,-0.0251769,0.0691274,-0.0449718,0.776817,-0.850793,-0.00043765,10.639,-6.33056,11.4214,-6.32911,37.3078,-72.5539,-0.0341223,19.7506,-6.70579,20.7385,-10.3239,11.0676,-14.4162,0.0918756,0.0424251,-0.141758,-0.0944696,-2.01453,-0.0293513,0.366203,-0.0642166,-0.00320439,0.0289335,-0.00278402,-0.133457,0.276358,-0.137077,0.000134611,0,0,0,0,0,0,0,0.487552,-30.3526,0.43733,35.3973,2.34619,3.65014,-0.083206,
0.0492901,-0.144581,-0.0870787,-2.01909,0.0248388,0.294944,-0.0638837,0.0783265,-0.0328508,0.0841044,-0.0545389,0.829113,-0.938078,-0.000420244,8.75814,-4.79617,9.36062,-5.97943,32.6853,-54.5533,0.0108784,17.5798,-6.32815,18.6227,-10.7248,10.8206,-14.4629,0.037344,0.0421769,-0.138468,-0.094567,-2.01493,-0.00750818,0.35104,-0.0642281,-0.00544145,0.140043,-0.0186947,0.0307609,1.27582,-0.896159,-0.0011361,-0.279633,13.8887,-1.98884,20.5272,124.933,-94.8853,-0.158838,5.18085,-37.1684,5.18617,23.5907,3.78814,-0.805734,-0.0227812,
0.0469358,-0.137262,-0.0896208,-2.01865,0.0332117,0.303849,-0.0642663,0.0939522,-0.0231409,0.100371,-0.0654763,0.865127,-1.01091,-0.000992147,9.76608,6.06865,10.1666,-6.83586,22.5086,-45.5171,-0.357439,23.1098,2.22612,24.2208,-14.1739,10.8206,-14.4629,-0.0295562,0.0421769,-0.138468,-0.094567,-2.01493,-0.00750818,0.35104,-0.0642281,-0.00544145,0.140043,-0.0186947,0.0307609,1.27582,-0.896159,-0.0011361,0,0,0,0,0,0,0,5.18085,-37.1684,5.18617,23.5907,3.78814,-0.805734,-0.0227812,
0.0482366,-0.137139,-0.0882438,-2.01961,0.0414202,0.293659,-0.0642899,0.107681,-0.015439,0.114724,-0.0763515,0.897314,-1.06349,-0.00138272,8.58059,4.81367,8.97043,-6.797,20.1168,-32.8625,-0.244107,21.8331,2.43084,22.9261,-13.7581,10.8206,-14.4629,-0.0447947,0.0421769,-0.138468,-0.094567,-2.01493,-0.00750818,0.35104,-0.0642281,-0.00544145,0.140043,-0.0186947,0.0307609,1.27582,-0.896159,-0.0011361,0,0,0,0,0,0,0,5.18085,-37.1684,5.18617,23.5907,3.78814,-0.805734,-0.0227812,
0.0495631,-0.137002,-0.0868393,-2.02064,0.0497495,0.283957,-0.0643104,0.119308,-0.00892638,0.12689,-0.0868335,0.926085,-1.09333,-0.00161865,7.26704,4.07042,7.60393,-6.55126,17.9819,-18.6525,-0.147455,20.8104,2.49848,21.8849,-13.4061,10.8206,-14.4629,-0.0480074,0.0421769,-0.138468,-0.094567,-2.01493,-0.00750818,0.35104,-0.0642281,-0.00544145,0.140043,-0.0186947,0.0307609,1.27582,-0.896159,-0.0011361,0,0,0,0,0,0,0,5.18085,-37.1684,5.18617,23.5907,3.78814,-0.805734,-0.0227812,
0.050899,-0.136842,-0.0854254,-2.02172,0.058175,0.274881,-0.0643291,0.128842,-0.00313686,0.13686,-0.0964102,0.951505,-1.10157,-0.00176439,5.95872,3.61845,6.23135,-5.98544,15.8872,-5.15155,-0.0910922,19.9302,2.46808,20.9841,-13.1107,10.8206,-14.4629,-0.0456012,0.0421769,-0.138468,-0.094567,-2.01493,-0.00750818,0.35104,-0.0642281,-0.00544145,0.140043,-0.0186947,0.0307609,1.27582,-0.896159,-0.0011361,0,0,0,0,0,0,0,5.18085,-37.1684,5.18617,23.5907,3.78814,-0.805734,-0.0227812,
0.0526673,-0.139661,-0.0834971,-2.02414,0.0748146,0.249432,-0.0645351,0.144415,-0.00440213,0.15255,-0.117168,0.976373,-1.12401,-0.00318352,9.7328,-0.790795,9.80637,-12.9735,15.5426,-14.0259,-0.886955,24.4816,1.22875,25.4884,-19.8805,10.7084,-14.1088,-0.102706,0.0448202,-0.138832,-0.0916008,-2.01687,0.0307158,0.304306,-0.0642029,0.172232,-0.029731,0.114515,-0.106453,1.29049,-1.59893,0.00163778,22.2092,-21.2217,16.6512,-17.1517,1.83327,-87.846,0.346735,13.4963,-35.9187,14.6362,21.0754,4.44091,-2.3841,-0.0767973,
0.0543152,-0.139706,-0.0817788,-2.02578,0.08343,0.240649,-0.0646014,0.15673,-0.0046631,0.164998,-0.134821,0.996484,-1.11878,-0.00420213,7.69667,-0.163102,7.78002,-11.033,12.5693,3.27191,-0.63663,23.2568,0.968437,24.1993,-19.4763,10.7084,-14.1088,-0.105544,0.0448202,-0.138832,-0.0916008,-2.01687,0.0307158,0.304306,-0.0642029,0.172232,-0.029731,0.114515,-0.106453,1.29049,-1.59893,0.00163778,0,0,0,0,0,0,0,13.4963,-35.9187,14.6362,21.0754,4.44091,-2.3841,-0.0767973,
0.0559478,-0.139729,-0.0800753,-2.02744,0.0920532,0.23281,-0.0646598,0.166198,-0.00429182,0.174586,-0.149392,1.01277,-1.09102,-0.00482356,5.91772,0.232048,5.99238,-9.10721,10.1766,17.352,-0.388393,22.1971,0.618769,23.1008,-19.1432,10.7084,-13.8529,-0.101963,0.0448202,-0.138832,-0.0916008,-2.01687,0.0307158,0.304306,-0.0642029,0.172232,-0.029731,0.114515,-0.106453,1.29049,-1.59893,0.00163778,0,0,0,0,0,0,0,13.4963,-35.9187,14.6362,21.0754,4.44091,-2.3841,-0.0767973,
0.0519659,-0.139644,-0.0842222,-2.02479,0.0754776,0.262084,-0.0644249,0.170143,-0.00465668,0.178354,-0.160564,1.02684,-1.03059,-0.00481571,2.46549,-0.228035,2.35504,-6.98218,8.79549,37.7655,0.00490443,20.4745,-0.0571128,21.3223,-18.5728,10.7084,-10.3598,-0.0886258,0.0448202,-0.138832,-0.0916008,-2.01687,0.0307158,0.304306,-0.0642029,0.172232,-0.029731,0.114515,-0.106453,1.29049,-1.59893,0.00163778,0,0,0,0,0,0,0,13.4963,-35.9187,14.6362,21.0754,4.44091,-2.3841,-0.0767973,
0.0534471,-0.139666,-0.0826796,-2.02641,0.0841166,0.256642,-0.064457,0.173144,-0.00426236,0.181246,-0.169002,1.03745,-0.960525,-0.00465559,1.87605,0.246448,1.80762,-5.27378,6.63035,43.7913,0.100076,20.0031,-0.326026,20.8746,-18.1314,10.6678,-8.51053,-0.0808374,0.0504689,-0.139899,-0.0857988,-2.02309,0.0724689,0.244896,-0.064207,0.240089,-0.135032,0.173892,-0.223331,1.21697,-1.8868,-0.00124364,8.48213,-13.1626,7.42219,-14.6098,-9.18989,-35.9837,-0.360178,9.99714,-22.1919,10.7602,20.6271,4.14795,-0.488046,-0.083206,
0.0549146,-0.13967,-0.0811505,-2.028,0.0927403,0.25199,-0.0644814,0.175201,-0.00352883,0.183225,-0.175044,1.04555,-0.884725,-0.00433372,1.28566,0.458457,1.23699,-3.77636,5.06352,47.375,0.201167,19.3681,-0.520287,20.2132,-17.8724,10.6678,-7.20974,-0.0693674,0.0504689,-0.139899,-0.0857988,-2.02309,0.0724689,0.244896,-0.064207,0.240089,-0.135032,0.173892,-0.223331,1.21697,-1.8868,-0.00124364,0,0,0,0,0,0,0,9.99714,-22.1919,10.7602,20.6271,4.14795,-0.488046,-0.083206,
0.0563631,-0.139666,-0.0796404,-2.02956,0.101352,0.248051,-0.0644988,0.176374,-0.0027175,0.184333,-0.179021,1.05173,-0.806264,-0.00390286,0.733019,0.507081,0.692258,-2.48578,3.85991,49.0381,0.269292,18.7881,-0.655638,19.6069,-17.6118,10.6678,-6.06315,-0.0595247,0.0504689,-0.139899,-0.0857988,-2.02309,0.0724689,0.244896,-0.064207,0.240089,-0.135032,0.173892,-0.223331,1.21697,-1.8868,-0.00124364,0,0,0,0,0,0,0,9.99714,-22.1919,10.7602,20.6271,4.14795,-0.488046,-0.083206,
0.0583231,-0.141279,-0.0776548,-2.03209,0.117853,0.20764,-0.0642979,0.178763,-0.00293548,0.186687,-0.184603,1.06147,-0.754745,-0.00333468,1.49304,-0.136238,1.47112,-3.4885,6.09082,32.1993,0.355108,18.2583,-0.737069,19.0502,-17.3517,10.6678,-5.04423,-0.0475424,0.0504689,-0.139899,-0.0857988,-2.02309,0.0724689,0.244896,-0.064207,0.240089,-0.135032,0.173892,-0.223331,1.21697,-1.8868,-0.00124364,0,0,0,0,0,0,0,9.99714,-22.1919,10.7602,20.6271,4.14795,-0.488046,-0.083206,
0.059792,-0.141279,-0.0761239,-2.03368,0.126582,0.204178,-0.0643005,0.179734,-0.00235781,0.187623,-0.187313,1.06739,-0.690338,-0.00273159,0.606842,0.361046,0.585307,-1.69408,3.6965,40.2545,0.376931,18.1566,-0.970505,18.9927,-16.5991,10.7211,-3.61256,-0.0412535,0.060776,-0.14314,-0.074702,-2.03402,0.117855,0.182149,-0.0642076,0.339987,-0.0899649,0.354918,-0.376084,1.34255,-1.69651,-0.000141164,12.4872,5.6334,22.6282,-19.0941,15.6981,23.7854,0.137809,3.50666,-22.2673,4.78547,25.1102,1.93145,3.12554,-0.163772,
0.0612234,-0.141268,-0.0746311,-2.0352,0.135249,0.201477,-0.0642963,0.179571,-0.00160777,0.187418,-0.187866,1.07059,-0.619805,-0.00208109,-0.101765,0.468775,-0.128612,-0.345306,2.00523,44.0831,0.406564,17.6953,-0.977407,18.5044,-16.3382,10.7211,-2.82412,-0.029674,0.060776,-0.14314,-0.074702,-2.03402,0.117855,0.182149,-0.0642076,0.339987,-0.0899649,0.354918,-0.376084,1.34255,-1.69651,-0.000141164,0,0,0,0,0,0,0,3.50666,-22.2673,4.78547,25.1102,1.93145,3.12554,-0.163772,
0.0626178,-0.141256,-0.0731762,-2.03666,0.143865,0.199405,-0.064286,0.178516,-0.000994019,0.186307,-0.186817,1.07189,-0.547639,-0.00140639,-0.65933,0.383593,-0.693894,0.655521,0.808276,45.1034,0.42169,17.2569,-0.962429,18.0392,-16.0775,10.7211,-2.13975,-0.0197034,0.060776,-0.14314,-0.074702,-2.03402,0.117855,0.182149,-0.0642076,0.339987,-0.0899649,0.354918,-0.376084,1.34255,-1.69651,-0.000141164,0,0,0,0,0,0,0,3.50666,-22.2673,4.78547,25.1102,1.93145,3.12554,-0.163772,
0.07093,-0.142892,-0.0641118,-2.04413,0.167034,0.151111,-0.0642183,0.185516,0.00293805,0.19364,-0.191453,1.08965,-0.515536,-0.000826761,4.37483,2.45754,4.58277,-2.89742,11.1002,20.0642,0.362266,16.8423,-0.930645,17.5981,-15.8198,10.7211,-1.53769,-0.00898409,0.060776,-0.14314,-0.074702,-2.03402,0.117855,0.182149,-0.0642076,0.339987,-0.0899649,0.354918,-0.376084,1.34255,-1.69651,-0.000141164,0,0,0,0,0,0,0,3.50666,-22.2673,4.78547,25.1102,1.93145,3.12554,-0.163772,
0.0725289,-0.142764,-0.0624408,-2.04569,0.176117,0.148908,-0.0641996,0.188386,0.00554767,0.196686,-0.192367,1.09878,-0.467506,-0.000193478,1.79373,1.63101,1.9041,-0.571233,5.7066,30.0192,0.395802,16.5012,-1.43394,17.3159,-14.8474,10.5964,-0.618727,-0.00555969,0.0737045,-0.143141,-0.0613853,-2.04844,0.16522,0.139958,-0.0642188,0.297212,0.0820736,0.524041,-0.371506,1.40509,-1.08239,-0.0015561,-5.34685,21.5048,21.1404,0.572299,7.81738,76.7661,-0.176867,2.74494,-30.9755,2.88911,26.9272,2.44415,3.95501,-0.0630644,
0.0740354,-0.142665,-0.0608653,-2.04717,0.185031,0.147414,-0.0641737,0.188371,0.00691587,0.196736,-0.190737,1.10188,-0.411357,0.000493221,-0.0095587,0.855125,0.0311281,1.01832,1.93701,35.0929,0.429187,16.1199,-1.38832,16.9086,-14.5968,10.5964,-0.164679,0.00418194,0.0737045,-0.143141,-0.0613853,-2.04844,0.16522,0.139958,-0.0642188,0.297212,0.0820736,0.524041,-0.371506,1.40509,-1.08239,-0.0015561,0,0,0,0,0,0,0,2.74494,-30.9755,2.88911,26.9272,2.44415,3.95501,-0.0630644,
0.0846517,-0.140617,-0.0498923,-2.05832,0.215374,0.120946,-0.0641492,0.194009,0.0133434,0.202757,-0.192562,1.11528,-0.369585,0.0012231,3.52421,4.0172,3.76318,-1.14064,8.37976,26.1073,0.456175,15.3917,-1.29665,16.1292,-14.1099,10.5964,0.564559,0.0216219,0.0737045,-0.143141,-0.0613853,-2.04844,0.16522,0.139958,-0.0642188,0.297212,0.0820736,0.524041,-0.371506,1.40509,-1.08239,-0.0015561,0,0,0,0,0,0,0,2.74494,-30.9755,2.88911,26.9272,2.44415,3.95501,-0.0630644,
0.0862401,-0.140385,-0.0482313,-2.05979,0.224478,0.119995,-0.0641079,0.194917,0.0164767,0.203732,-0.191014,1.11983,-0.319458,0.00201084,0.566953,1.95832,0.609208,0.967582,2.83808,31.3296,0.492335,15.04,-1.25336,15.7522,-13.8756,10.5964,0.857283,0.0297195,0.0737045,-0.143141,-0.0613853,-2.04844,0.16522,0.139958,-0.0642188,0.297212,0.0820736,0.524041,-0.371506,1.40509,-1.08239,-0.0015561,0,0,0,0,0,0,0,2.74494,-30.9755,2.88911,26.9272,2.44415,3.95501,-0.0630644,
0.0877075,-0.14022,-0.0466979,-2.06117,0.233381,0.119583,-0.0640625,0.192619,0.0173008,0.201321,-0.1873,1.11843,-0.265871,0.00274546,-1.43569,0.515073,-1.50683,2.32125,-0.871104,33.4916,0.459138,14.7561,-1.44209,15.5446,-13.284,10.4344,1.41085,0.0347854,0.0880083,-0.141108,-0.0465894,-2.06414,0.21561,0.111737,-0.0642132,0.401011,0.0492203,0.473938,-0.449341,1.55493,-0.759909,-0.000727267,12.9749,-4.10666,-6.26289,-9.72944,18.7299,40.3095,0.103604,-1.86902,-36.367,-1.28844,33.2034,0.63049,5.16167,-0.0703886,
0.0890671,-0.140108,-0.0452669,-2.06247,0.242121,0.119604,-0.0640148,0.188085,0.0166424,0.196832,-0.182198,1.11325,-0.212159,0.0033885,-2.83429,-0.411491,-2.8056,3.18893,-3.2387,33.5702,0.401899,14.4032,-1.39778,15.166,-13.0653,10.4344,1.64097,0.0440901,0.0880083,-0.141108,-0.0465894,-2.06414,0.21561,0.111737,-0.0642132,0.401011,0.0492203,0.473938,-0.449341,1.55493,-0.759909,-0.000727267,0,0,0,0,0,0,0,-1.86902,-36.367,-1.28844,33.2034,0.63049,5.16167,-0.0703886,
0.0991592,-0.138693,-0.0349003,-2.07357,0.267468,0.0982158,-0.0640552,0.192715,0.0206297,0.202027,-0.182419,1.12646,-0.190477,0.00375703,2.89416,2.49202,3.24654,-0.138061,8.25568,13.5511,0.230331,14.0237,-1.34232,14.7554,-12.853,10.4344,1.84247,0.0519016,0.0880083,-0.141108,-0.0465894,-2.06414,0.21561,0.111737,-0.0642132,0.401011,0.0492203,0.473938,-0.449341,1.55493,-0.759909,-0.000727267,0,0,0,0,0,0,0,-1.86902,-36.367,-1.28844,33.2034,0.63049,5.16167,-0.0703886,
0.100681,-0.138476,-0.0332908,-2.07492,0.276566,0.0979693,-0.0640097,0.19222,0.0219351,0.201861,-0.179557,1.12862,-0.158545,0.00414436,-0.30931,0.815881,-0.103771,1.78872,1.3538,19.9579,0.242084,13.6456,-1.27882,14.3016,-12.6502,10.4344,2.02119,0.0600187,0.0880083,-0.141108,-0.0465894,-2.06414,0.21561,0.111737,-0.0642132,0.401011,0.0492203,0.473938,-0.449341,1.55493,-0.759909,-0.000727267,0,0,0,0,0,0,0,-1.86902,-36.367,-1.28844,33.2034,0.63049,5.16167,-0.0703886,
0.102087,-0.138324,-0.0318085,-2.07615,0.285055,0.0981855,-0.0639589,0.188928,0.0213421,0.198545,-0.174383,1.11512,-0.121431,0.00458638,-2.05795,-0.370603,-2.07231,3.23387,-8.44096,23.1964,0.27626,13.2181,-1.67762,13.9247,-12.1679,10.196,2.3277,0.0608723,0.102836,-0.140428,-0.0323613,-2.07901,0.269005,0.0952592,-0.0642027,0.536878,-0.0404048,0.311436,-0.425533,1.60842,-0.284991,0.00219199,16.9834,-11.2031,-20.3128,2.97604,6.68671,59.3647,0.364907,-3.21392,-30.1543,-3.13719,26.9272,0.966488,3.5833,-0.083206,
0.103404,-0.13823,-0.0304229,-2.07728,0.292816,0.0987694,-0.0639057,0.184058,0.0194256,0.193475,-0.167769,1.08611,-0.0825458,0.00499721,-3.04378,-1.19782,-3.16834,4.13347,-18.1337,24.303,0.256768,12.7249,-1.53627,13.5236,-11.951,10.196,2.45856,0.0624208,0.102836,-0.140428,-0.0323613,-2.07901,0.269005,0.0952592,-0.0642027,0.536878,-0.0404048,0.311436,-0.425533,1.60842,-0.284991,0.00219199,0,0,0,0,0,0,0,-3.21392,-30.1543,-3.13719,26.9272,0.966488,3.5833,-0.083206,
0.113381,-0.139583,-0.0213175,-2.08645,0.318314,0.0901678,-0.0640173,0.187603,0.0176528,0.197162,-0.16251,1.06525,-0.0614988,0.00516544,2.21587,-1.10801,2.30408,3.28675,-13.0319,13.1543,0.105145,12.2917,-1.36689,13.1237,-11.7092,10.196,2.57557,0.0632937,0.102836,-0.140428,-0.0323613,-2.07901,0.269005,0.0952592,-0.0642027,0.536878,-0.0404048,0.311436,-0.425533,1.60842,-0.284991,0.00219199,0,0,0,0,0,0,0,-3.21392,-30.1543,-3.13719,26.9272,0.966488,3.5833,-0.083206,
0.11485,-0.13955,-0.0197744,-2.0875,0.325208,0.0907461,-0.0639678,0.186805,0.0149462,0.196308,-0.156093,1.02454,-0.0347425,0.00536807,-0.49899,-1.69164,-0.533765,4.01078,-25.4477,16.7227,0.126645,11.9084,-1.21432,12.7434,-11.4594,10.0916,2.66952,0.0648633,0.102836,-0.140428,-0.0323613,-2.07901,0.269005,0.0952592,-0.0642027,0.536878,-0.0404048,0.311436,-0.425533,1.60842,-0.284991,0.00219199,0,0,0,0,0,0,0,-3.21392,-30.1543,-3.13719,26.9272,0.966488,3.5833,-0.083206,
0.116202,-0.13956,-0.0183536,-2.08847,0.331211,0.0916407,-0.0639163,0.183236,0.0117002,0.192567,-0.149177,0.969724,-0.00542855,0.00558379,-2.23054,-2.02874,-2.33803,4.32262,-34.2589,18.3212,0.134822,11.3822,-1.33728,12.2764,-11.1078,8.62845,2.80104,0.0650723,0.115915,-0.138639,-0.0165921,-2.0921,0.321853,0.0927174,-0.0641873,0.590715,0.108976,0.184792,-0.307298,1.49431,0.02069,0.000824983,6.72954,18.6726,-15.8305,14.7794,-14.2638,38.2102,-0.170876,-5.90374,-32.0744,-6.3864,29.617,1.10016,2.03148,-0.050247,
0.125629,-0.13655,-0.00646112,-2.09851,0.35901,0.0939784,-0.0639851,0.183731,0.0127558,0.193114,-0.144531,0.903612,0.015948,0.0057319,0.309417,0.65975,0.342,2.90397,-41.3201,13.3603,0.0925694,10.8048,-1.20244,11.6517,-10.6439,6.57309,2.89182,0.0642954,0.115915,-0.138639,-0.0165921,-2.0921,0.321853,0.0927174,-0.0641873,0.590715,0.108976,0.184792,-0.307298,1.49431,0.02069,0.000824983,0,0,0,0,0,0,0,-5.90374,-32.0744,-6.3864,29.617,1.10016,2.03148,-0.050247,
0.126978,-0.136492,-0.00504123,-2.09944,0.363282,0.0950298,-0.0639311,0.180697,0.0116526,0.189989,-0.139008,0.829691,0.0390428,0.00593419,-1.89639,-0.689473,-1.95345,3.45133,-46.2005,14.4343,0.126432,10.5854,-1.16942,11.4059,-10.4192,5.68858,2.91717,0.0646747,0.115915,-0.138639,-0.0165921,-2.0921,0.321853,0.0927174,-0.0641873,0.590715,0.108976,0.184792,-0.307298,1.49431,0.02069,0.000824983,0,0,0,0,0,0,0,-5.90374,-32.0744,-6.3864,29.617,1.10016,2.03148,-0.050247,
0.128216,-0.136491,-0.00373588,-2.10032,0.366829,0.0962843,-0.0638746,0.175511,0.00933182,0.184625,-0.133135,0.752444,0.0625965,0.00615976,-3.24116,-1.45051,-3.35257,3.67117,-48.2792,14.7211,0.140982,10.4026,-1.1529,11.196,-10.1992,4.89514,2.94286,0.0651588,0.115915,-0.138639,-0.0165921,-2.0921,0.321853,0.0927174,-0.0641873,0.590715,0.108976,0.184792,-0.307298,1.49431,0.02069,0.000824983,0,0,0,0,0,0,0,-5.90374,-32.0744,-6.3864,29.617,1.10016,2.03148,-0.050247,
0.129364,-0.136533,-0.00252351,-2.10115,0.369751,0.0977058,-0.0638158,0.169122,0.00641426,0.178009,-0.127236,0.674999,0.085614,0.00639895,-3.99268,-1.82347,-4.1347,3.68692,-48.4032,14.3859,0.14949,10.2467,-1.14991,11.0139,-9.98167,4.1736,2.95693,0.06651,0.115915,-0.138639,-0.0165921,-2.0921,0.321853,0.0927174,-0.0641873,0.590715,0.108976,0.184792,-0.307298,1.49431,0.02069,0.000824983,0,0,0,0,0,0,0,-5.90374,-32.0744,-6.3864,29.617,1.10016,2.03148,-0.050247,
0.13536,-0.135212,0.00889668,-2.10787,0.395311,0.101804,-0.0639143,0.169373,0.00622913,0.178348,-0.123234,0.616992,0.098706,0.00651156,0.156599,-0.115707,0.211886,2.5008,-36.2544,8.18255,0.0703859,10.0431,-1.36236,10.8696,-9.68296,3.35082,2.97491,0.0690372,0.126411,-0.136676,-0.000496553,-2.10267,0.369851,0.096972,-0.0641482,0.380575,0.101533,0.330774,-0.229403,1.19877,0.177787,-0.00115837,-26.2674,-0.930425,18.2478,9.73685,-36.9428,19.6372,-0.24792,-3.39245,-33.9708,-5.08513,26.3281,0.709225,1.43548,-0.0227812,
0.136594,-0.135227,0.0102015,-2.10868,0.397736,0.103159,-0.0638558,0.166371,0.00458994,0.1753,-0.118816,0.554202,0.11286,0.0066706,-1.87602,-1.02449,-1.90527,2.76119,-39.2437,8.84617,0.0993984,9.91735,-1.37744,10.7186,-9.47128,2.77409,2.97978,0.0707446,0.126411,-0.136676,-0.000496553,-2.10267,0.369851,0.096972,-0.0641482,0.380575,0.101533,0.330774,-0.229403,1.19877,0.177787,-0.00115837,0,0,0,0,0,0,0,-3.39245,-33.9708,-5.08513,26.3281,0.709225,1.43548,-0.0227812,
0.137727,-0.135285,0.0114,-2.10945,0.399619,0.104646,-0.0637955,0.161405,0.00223346,0.170203,-0.114278,0.490448,0.127439,0.00684515,-3.10378,-1.4728,-3.18574,2.83628,-39.8462,9.11212,0.109094,9.79786,-1.39776,10.5741,-9.26277,2.26829,2.98516,0.0720845,0.126411,-0.136676,-0.000496553,-2.10267,0.369851,0.096972,-0.0641482,0.380575,0.101533,0.330774,-0.229403,1.19877,0.177787,-0.00115837,0,0,0,0,0,0,0,-3.39245,-33.9708,-5.08513,26.3281,0.709225,1.43548,-0.0227812,
0.138776,-0.135372,0.0125125,-2.11018,0.401053,0.106241,-0.0637336,0.155356,-0.000383601,0.163973,-0.109797,0.428219,0.141837,0.00702272,-3.78053,-1.63566,-3.89371,2.80077,-38.8933,8.99833,0.110983,9.68065,-1.42153,10.4328,-9.05576,1.81768,2.98201,0.0736617,0.126411,-0.136676,-0.000496553,-2.10267,0.369851,0.096972,-0.0641482,0.380575,0.101533,0.330774,-0.229403,1.19877,0.177787,-0.00115837,0,0,0,0,0,0,0,-3.39245,-33.9708,-5.08513,26.3281,0.709225,1.43548,-0.0227812,
0.135375,-0.135253,0.00886483,-2.10751,0.391226,0.101563,-0.0638936,0.157896,0.000476557,0.166522,-0.10763,0.397002,0.142427,0.00704471,1.58736,0.537599,1.59349,1.35472,-19.5105,0.369021,0.0137412,9.56516,-1.66026,10.356,-8.78939,1.33912,2.93747,0.0767444,0.139098,-0.136285,0.011389,-2.11178,0.401173,0.105746,-0.0640725,0.0470743,-0.0630578,0.615223,-0.270496,0.746393,0.27506,0.000236662,-41.6876,-20.5738,35.5561,-5.13655,-56.5471,12.1591,0.17438,-2.93621,-29.4283,-3.36333,21.8451,0.727535,1.06377,-0.0026396,
0.136582,-0.135279,0.0101365,-2.10826,0.392809,0.102865,-0.0638347,0.156481,-0.000271185,0.165009,-0.104783,0.357175,0.146481,0.00710851,-0.88435,-0.467339,-0.945859,1.77928,-24.8917,2.53351,0.0398744,9.44469,-1.68577,10.2126,-8.58588,0.994973,2.92777,0.0779272,0.139098,-0.136285,0.011389,-2.11178,0.401173,0.105746,-0.0640725,0.0470743,-0.0630578,0.615223,-0.270496,0.746393,0.27506,0.000236662,0,0,0,0,0,0,0,-2.93621,-29.4283,-3.36333,21.8451,0.727535,1.06377,-0.0026396,
0.137678,-0.135344,0.0112938,-2.10897,0.393927,0.104292,-0.0637747,0.152582,-0.0018455,0.160941,-0.101577,0.313703,0.152866,0.00718723,-2.43734,-0.983949,-2.54209,2.00328,-27.1704,3.99059,0.0491988,9.32022,-1.71014,10.0655,-8.38421,0.700792,2.91867,0.0786106,0.139098,-0.136285,0.011389,-2.11178,0.401173,0.105746,-0.0640725,0.0470743,-0.0630578,0.615223,-0.270496,0.746393,0.27506,0.000236662,0,0,0,0,0,0,0,-2.93621,-29.4283,-3.36333,21.8451,0.727535,1.06377,-0.0026396,
0.147297,-0.136795,0.0200897,-2.11578,0.413165,0.1112,-0.0638073,0.152453,-0.00475426,0.160853,-0.0976179,0.278973,0.153945,0.00713654,-0.0801497,-1.81797,-0.0553263,2.47471,-21.7061,0.674829,-0.0316797,9.05689,-1.75221,9.75888,-7.98366,0.228262,2.89011,0.0794361,0.139098,-0.136285,0.011389,-2.11178,0.401173,0.105746,-0.0640725,0.0470743,-0.0630578,0.615223,-0.270496,0.746393,0.27506,0.000236662,0,0,0,0,0,0,0,-2.93621,-29.4283,-3.36333,21.8451,0.727535,1.06377,-0.0026396,
0.148386,-0.136938,0.0212422,-2.11641,0.413902,0.112588,-0.0637505,0.14918,-0.00736529,0.157495,-0.0938288,0.241606,0.157848,0.00712854,-2.04594,-1.63189,-2.09898,2.36818,-23.3544,2.43941,-0.00500091,8.86872,-1.76272,9.58861,-7.86489,-0.0279451,2.83573,0.0806778,0.152816,-0.136254,0.0192094,-2.11988,0.419973,0.116771,-0.0639869,0.340733,-0.0465497,0.311213,-0.241249,0.406224,0.32023,-0.00141499,36.7074,2.06351,-38.0013,3.65579,-42.5211,5.64618,-0.206457,-3.62256,-28.2817,-3.21257,25.6061,0.874935,1.42815,0.0303194,
0.149374,-0.137087,0.0222903,-2.11702,0.414337,0.114079,-0.0636933,0.144041,-0.00961475,0.152198,-0.0902432,0.20416,0.163549,0.00713453,-3.21146,-1.40591,-3.31056,2.24099,-23.4036,3.56288,0.00374681,8.72454,-1.77537,9.42409,-7.66667,-0.181278,2.8185,0.0803357,0.152816,-0.136254,0.0192094,-2.11988,0.419973,0.116771,-0.0639869,0.340733,-0.0465497,0.311213,-0.241249,0.406224,0.32023,-0.00141499,0,0,0,0,0,0,0,-3.62256,-28.2817,-3.21257,25.6061,0.874935,1.42815,0.0303194,
0.150281,-0.137239,0.0232545,-2.11761,0.414535,0.115653,-0.063636,0.137906,-0.0114921,0.145863,-0.0868608,0.168271,0.170199,0.00713957,-3.83465,-1.17337,-3.95906,2.11405,-22.431,4.15615,0.0031515,8.57593,-1.78418,9.25584,-7.4687,-0.310918,2.7981,0.0798948,0.152816,-0.136254,0.0192094,-2.11988,0.419973,0.116771,-0.0639869,0.340733,-0.0465497,0.311213,-0.241249,0.406224,0.32023,-0.00141499,0,0,0,0,0,0,0,-3.62256,-28.2817,-3.21257,25.6061,0.874935,1.42815,0.0303194,
0.160403,-0.136611,0.0272246,-2.12364,0.426371,0.122685,-0.0637513,0.13792,-0.0119039,0.145953,-0.0848137,0.146789,0.167721,0.00700234,0.00869926,-0.257374,0.0561871,1.27943,-13.4261,-1.54885,-0.0857722,8.42319,-1.78893,9.08395,-7.27135,-0.414871,2.77869,0.0790538,0.152816,-0.136254,0.0192094,-2.11988,0.419973,0.116771,-0.0639869,0.340733,-0.0465497,0.311213,-0.241249,0.406224,0.32023,-0.00141499,0,0,0,0,0,0,0,-3.62256,-28.2817,-3.21257,25.6061,0.874935,1.42815,0.0303194,
0.161389,-0.136733,0.0282728,-2.12422,0.426611,0.124048,-0.063699,0.134995,-0.0125572,0.142966,-0.0824959,0.123429,0.168253,0.00690838,-1.82803,-0.408294,-1.86706,1.44858,-14.5996,0.332888,-0.0587242,8.15956,-1.87707,8.83903,-7.15007,-0.530982,2.71369,0.0787434,0.160241,-0.135843,0.0322602,-2.12629,0.429884,0.125903,-0.0639144,0.559619,0.0841405,-0.00345553,-0.151129,0.237799,0.258499,0.00231333,27.3608,16.3363,-39.3335,11.265,-21.0531,-7.71632,0.46604,-3.72174,-30.8287,-4.58525,28.0499,1.08184,2.42333,-0.0429228,
0.162283,-0.136862,0.0292246,-2.12478,0.426657,0.1255,-0.0636469,0.13034,-0.0132781,0.138169,-0.0800291,0.099899,0.1709,0.00682931,-2.90935,-0.450566,-2.99787,1.54177,-14.7065,1.65415,-0.0494165,8.0004,-1.87402,8.66207,-6.95324,-0.596534,2.69301,0.0774498,0.160241,-0.135843,0.0322602,-2.12629,0.429884,0.125903,-0.0639144,0.559619,0.0841405,-0.00345553,-0.151129,0.237799,0.258499,0.00231333,0,0,0,0,0,0,0,-3.72174,-30.8287,-4.58525,28.0499,1.08184,2.42333,-0.0429228,
0.160403,-0.136611,0.0272246,-2.12364,0.426371,0.122685,-0.0637513,0.131867,-0.0133327,0.139798,-0.0793484,0.0920915,0.168282,0.00675413,0.954435,-0.0341272,1.01794,0.425475,-4.87966,-1.63649,-0.0469896,7.67577,-1.85751,8.30424,-6.55975,-0.684526,2.64954,0.0743153,0.160241,-0.135843,0.0322602,-2.12629,0.429884,0.125903,-0.0639144,0.559619,0.0841405,-0.00345553,-0.151129,0.237799,0.258499,0.00231333,0,0,0,0,0,0,0,-3.72174,-30.8287,-4.58525,28.0499,1.08184,2.42333,-0.0429228,
0.167509,-0.134874,0.0399122,-2.1306,0.433214,0.133351,-0.0636528,0.12682,-0.0113615,0.134658,-0.0778723,0.0715528,0.168066,0.00657604,-3.15456,1.23198,-3.21226,0.92255,-12.8367,-0.134582,-0.111304,7.51143,-1.84476,8.1246,-6.363,-0.710694,2.62731,0.0724989,0.160241,-0.135843,0.0322602,-2.12629,0.429884,0.125903,-0.0639144,0.559619,0.0841405,-0.00345553,-0.151129,0.237799,0.258499,0.00231333,0,0,0,0,0,0,0,-3.72174,-30.8287,-4.58525,28.0499,1.08184,2.42333,-0.0429228,
0.168287,-0.134931,0.0407472,-2.13114,0.43301,0.134763,-0.0636069,0.120911,-0.0104995,0.128601,-0.0758005,0.0521294,0.169758,0.00640708,-3.69281,0.538801,-3.78602,1.29483,-12.1396,1.05749,-0.105602,7.39301,-1.87396,8.04864,-6.19864,-0.729824,2.56071,0.0709933,0.167451,-0.136035,0.0444211,-2.13209,0.433286,0.135517,-0.0638701,0.11614,0.0306913,0.421101,-0.128487,0.0817952,0.274281,0.0016941,-55.4349,-6.68115,53.0696,2.83027,-19.5005,1.97279,-0.077404,-2.73388,-30.0273,-4.11315,22.7695,1.23474,1.42174,-0.0227812,
0.169005,-0.135007,0.0415196,-2.13165,0.432718,0.13624,-0.0635624,0.114678,-0.010304,0.122191,-0.0733556,0.0344207,0.172732,0.00623801,-3.89609,0.122176,-4.00614,1.52809,-11.068,1.85839,-0.105671,7.22772,-1.85689,7.86997,-6.00182,-0.73767,2.53885,0.068831,0.167451,-0.136035,0.0444211,-2.13209,0.433286,0.135517,-0.0638701,0.11614,0.0306913,0.421101,-0.128487,0.0817952,0.274281,0.0016941,0,0,0,0,0,0,0,-2.73388,-30.0273,-4.11315,22.7695,1.23474,1.42174,-0.0227812,
0.17355,-0.13576,0.0509952,-2.1352,0.434268,0.142027,-0.0636953,0.113746,-0.00943842,0.121402,-0.0717247,0.0264358,0.169865,0.00594426,-0.582555,0.540978,-0.493119,1.0193,-4.99058,-1.79157,-0.183595,7.06248,-1.83842,7.69239,-5.80499,-0.737542,2.51785,0.0664528,0.167451,-0.136035,0.0444211,-2.13209,0.433286,0.135517,-0.0638701,0.11614,0.0306913,0.421101,-0.128487,0.0817952,0.274281,0.0016941,0,0,0,0,0,0,0,-2.73388,-30.0273,-4.11315,22.7695,1.23474,1.42174,-0.0227812,
0.174336,-0.135831,0.051843,-2.13569,0.434128,0.143355,-0.0636575,0.110655,-0.00933705,0.118315,-0.069595,0.0176433,0.169098,0.00570121,-1.93177,0.0633577,-1.92944,1.33106,-5.49531,-0.479227,-0.151904,6.89771,-1.81919,7.51642,-5.60796,-0.733094,2.49658,0.0640158,0.167451,-0.136035,0.0444211,-2.13209,0.433286,0.135517,-0.0638701,0.11614,0.0306913,0.421101,-0.128487,0.0817952,0.274281,0.0016941,0,0,0,0,0,0,0,-2.73388,-30.0273,-4.11315,22.7695,1.23474,1.42174,-0.0227812,
0.175049,-0.135919,0.0526143,-2.13615,0.433911,0.144744,-0.0636206,0.106349,-0.00966184,0.113935,-0.0671501,0.00869531,0.169989,0.00548267,-2.69141,-0.202994,-2.73738,1.52808,-5.59248,0.556795,-0.136587,6.78273,-1.90338,7.41885,-5.4237,-0.693661,2.42878,0.0615861,0.178589,-0.137151,0.0507674,-2.13818,0.433571,0.14518,-0.0638549,0.0192744,-0.11067,0.484923,-0.204796,-0.00473065,0.289231,0.00110499,-12.1082,-17.6702,7.9778,-9.53867,-10.8157,1.86866,-0.0736388,-2.60693,-26.909,-2.51036,24.6619,2.30957,1.48858,-0.0163725,
0.175704,-0.136018,0.0533251,-2.13658,0.433636,0.146185,-0.0635851,0.101443,-0.0102022,0.108917,-0.0645197,6.82861e-05,0.17203,0.00527457,-3.06566,-0.337719,-3.136,1.64398,-5.39189,1.27552,-0.130065,6.61938,-1.88418,7.24656,-5.22639,-0.681843,2.40815,0.0589564,0.178589,-0.137151,0.0507674,-2.13818,0.433571,0.14518,-0.0638549,0.0192744,-0.11067,0.484923,-0.204796,-0.00473065,0.289231,0.00110499,0,0,0,0,0,0,0,-2.60693,-26.909,-2.51036,24.6619,2.30957,1.48858,-0.0163725,
0.184269,-0.138296,0.0569402,-2.14084,0.433201,0.150746,-0.0637154,0.101411,-0.0120847,0.109029,-0.0619453,-0.00173114,0.167117,0.00493968,-0.0204763,-1.17658,0.0700829,1.60901,-1.12464,-3.07047,-0.209303,6.45686,-1.86575,7.07618,-5.02897,-0.666961,2.38805,0.0562085,0.178589,-0.137151,0.0507674,-2.13818,0.433571,0.14518,-0.0638549,0.0192744,-0.11067,0.484923,-0.204796,-0.00473065,0.289231,0.00110499,0,0,0,0,0,0,0,-2.60693,-26.909,-2.51036,24.6619,2.30957,1.48858,-0.0163725,
0.18499,-0.138446,0.057722,-2.14123,0.433077,0.152007,-0.0636868,0.0991363,-0.0134046,0.10677,-0.0593108,-0.00448693,0.165222,0.00466788,-1.42148,-0.824896,-1.412,1.64658,-1.72237,-1.1844,-0.169876,6.2953,-1.84857,6.90786,-4.8313,-0.651488,2.36784,0.0534571,0.178589,-0.137151,0.0507674,-2.13818,0.433571,0.14518,-0.0638549,0.0192744,-0.11067,0.484923,-0.204796,-0.00473065,0.289231,0.00110499,0,0,0,0,0,0,0,-2.60693,-26.909,-2.51036,24.6619,2.30957,1.48858,-0.0163725,
0.18564,-0.13859,0.058431,-2.1416,0.432903,0.153337,-0.0636589,0.0955616,-0.01434,0.103141,-0.056661,-0.00795587,0.165422,0.00443043,-2.23419,-0.584663,-2.2685,1.65614,-2.16808,0.124696,-0.148405,6.08199,-1.82759,6.7133,-4.72956,-0.644491,2.30576,0.0510519,0.186675,-0.137481,0.0572744,-2.143,0.432638,0.156172,-0.0638405,0.308419,0.00332868,0.133987,-0.13458,-0.0685573,0.334282,0.000305175,36.143,14.2498,-43.867,8.77701,-7.97834,5.63138,-0.0999765,-2.57916,-28.8808,-3.01024,28.4705,3.13446,1.35583,-0.0163725,
0.191452,-0.137445,0.0624413,-2.14546,0.431747,0.162987,-0.0637477,0.0935057,-0.0129913,0.10118,-0.0549438,-0.0103666,0.163504,0.00409383,-1.28494,0.842948,-1.22512,1.07324,-1.50668,-1.19866,-0.210379,5.76318,-1.80247,6.38555,-4.33299,-0.609732,2.26475,0.0454238,0.186675,-0.137481,0.0572744,-2.143,0.432638,0.156172,-0.0638405,0.308419,0.00332868,0.133987,-0.13458,-0.0685573,0.334282,0.000305175,0,0,0,0,0,0,0,-2.57916,-28.8808,-3.01024,28.4705,3.13446,1.35583,-0.0163725,
0.192062,-0.137525,0.063112,-2.14581,0.431561,0.164263,-0.0637262,0.0900495,-0.012389,0.0977118,-0.0527985,-0.0129425,0.162697,0.00381274,-2.16012,0.376422,-2.16793,1.34081,-1.60994,-0.504289,-0.175677,5.60499,-1.79332,6.22394,-4.13416,-0.592078,2.24329,0.0426544,0.186675,-0.137481,0.0572744,-2.143,0.432638,0.156172,-0.0638405,0.308419,0.00332868,0.133987,-0.13458,-0.0685573,0.334282,0.000305175,0,0,0,0,0,0,0,-2.57916,-28.8808,-3.01024,28.4705,3.13446,1.35583,-0.0163725,
0.192615,-0.137619,0.0637236,-2.14614,0.431353,0.165568,-0.0637056,0.0858645,-0.0122525,0.0934575,-0.0503827,-0.0155428,0.162793,0.00356374,-2.61563,0.085317,-2.65895,1.50984,-1.62521,0.060122,-0.155631,5.44755,-1.78658,6.06354,-3.93492,-0.573085,2.2207,0.0398873,0.186675,-0.137481,0.0572744,-2.143,0.432638,0.156172,-0.0638405,0.308419,0.00332868,0.133987,-0.13458,-0.0685573,0.334282,0.000305175,0,0,0,0,0,0,0,-2.57916,-28.8808,-3.01024,28.4705,3.13446,1.35583,-0.0163725,
0.193122,-0.137723,0.0642878,-2.14644,0.431133,0.166898,-0.0636863,0.0813757,-0.0123972,0.0888728,-0.0478066,-0.0179558,0.163462,0.00333356,-2.80553,-0.0904204,-2.86542,1.61011,-1.50815,0.418048,-0.143861,5.25128,-1.84384,5.88458,-3.76424,-0.534167,2.1584,0.0373448,0.191259,-0.137047,0.0653215,-2.14658,0.431121,0.166118,-0.0638334,0.348476,0.0787564,-0.0112808,-0.0671736,-0.06561,0.298562,0.000792786,5.00712,9.42847,-18.1585,8.42581,0.368415,-4.46493,0.0609513,-1.5675,-32.1498,-2.83568,26.9272,2.7124,1.46203,-0.0365141,
0.194961,-0.136327,0.0693526,-2.14869,0.430244,0.173346,-0.0637672,0.0787556,-0.0101366,0.0863119,-0.0466152,-0.0188634,0.162303,0.00307225,-1.63753,1.41285,-1.60055,0.744623,-0.567225,-0.724454,-0.163317,5.09548,-1.84199,5.7263,-3.56383,-0.511749,2.13195,0.0346782,0.191259,-0.137047,0.0653215,-2.14658,0.431121,0.166118,-0.0638334,0.348476,0.0787564,-0.0112808,-0.0671736,-0.06561,0.298562,0.000792786,0,0,0,0,0,0,0,-1.5675,-32.1498,-2.83568,26.9272,2.7124,1.46203,-0.0365141,
0.195455,-0.13637,0.0699063,-2.14899,0.430067,0.174595,-0.0637519,0.0753548,-0.00917632,0.082892,-0.0447954,-0.0195155,0.161067,0.00284104,-2.1255,0.600185,-2.13743,1.13734,-0.407547,-0.77245,-0.144507,4.94061,-1.84252,5.569,-3.36267,-0.486566,2.10267,0.0321087,0.191259,-0.137047,0.0653215,-2.14658,0.431121,0.166118,-0.0638334,0.348476,0.0787564,-0.0112808,-0.0671736,-0.06561,0.298562,0.000792786,0,0,0,0,0,0,0,-1.5675,-32.1498,-2.83568,26.9272,2.7124,1.46203,-0.0365141,
0.195907,-0.136437,0.0704163,-2.14926,0.429905,0.175835,-0.0637377,0.0715869,-0.00901313,0.0790633,-0.0425634,-0.0196506,0.159865,0.00262705,-2.35497,0.101993,-2.39295,1.39503,-0.0844236,-0.75113,-0.133744,4.78685,-1.84537,5.41263,-3.16075,-0.456253,2.0695,0.0295908,0.191259,-0.137047,0.0653215,-2.14658,0.431121,0.166118,-0.0638334,0.348476,0.0787564,-0.0112808,-0.0671736,-0.06561,0.298562,0.000792786,0,0,0,0,0,0,0,-1.5675,-32.1498,-2.83568,26.9272,2.7124,1.46203,-0.0365141,
0.196325,-0.136521,0.0708903,-2.1495,0.429773,0.177063,-0.0637249,0.0677064,-0.00932145,0.0751021,-0.0400742,-0.0190173,0.158586,0.0024236,-2.42526,-0.192694,-2.47573,1.55573,0.39577,-0.79975,-0.127155,4.63441,-1.85044,5.25732,-2.95794,-0.420022,2.03171,0.0271712,0.191259,-0.137047,0.0653215,-2.14658,0.431121,0.166118,-0.0638334,0.348476,0.0787564,-0.0112808,-0.0671736,-0.06561,0.298562,0.000792786,0,0,0,0,0,0,0,-1.5675,-32.1498,-2.83568,26.9272,2.7124,1.46203,-0.0365141,
0.199212,-0.138573,0.0755935,-2.15181,0.429979,0.181596,-0.063791,0.0662978,-0.0112159,0.0737385,-0.0370013,-0.0128544,0.154137,0.00216845,-0.880373,-1.18401,-0.852255,1.92055,3.85182,-2.78028,-0.159473,4.54588,-1.90931,5.20035,-2.78262,-0.351248,1.95037,0.0249114,0.195926,-0.137671,0.0719994,-2.15043,0.429688,0.175844,-0.0638354,0.28107,-0.0599342,0.00708466,-0.112708,-0.00579824,0.253692,0.000914401,-8.4257,-17.3363,2.29568,-5.69179,7.47647,-5.60879,0.0152019,-1.84521,-29.4283,-2.7603,23.3646,1.81518,1.37505,-0.0301054,
0.199647,-0.138721,0.0760883,-2.15199,0.430108,0.18267,-0.0637825,0.0639273,-0.0126751,0.0713605,-0.0340552,-0.00706437,0.150164,0.00194818,-1.48159,-0.912053,-1.4863,1.84133,3.61878,-2.48305,-0.137669,4.39692,-1.91852,5.04757,-2.57807,-0.296059,1.89941,0.0226707,0.195926,-0.137671,0.0719994,-2.15043,0.429688,0.175844,-0.0638354,0.28107,-0.0599342,0.00708466,-0.112708,-0.00579824,0.253692,0.000914401,0,0,0,0,0,0,0,-1.84521,-29.4283,-2.7603,23.3646,1.81518,1.37505,-0.0301054,
0.200042,-0.138868,0.076541,-2.15215,0.43029,0.183713,-0.0637748,0.0610084,-0.0138111,0.0684052,-0.0312243,-0.00109476,0.146203,0.0017512,-1.82433,-0.709963,-1.84702,1.76928,3.73101,-2.47583,-0.123109,4.25019,-1.92963,4.89638,-2.37275,-0.227466,1.83946,0.0205202,0.195926,-0.137671,0.0719994,-2.15043,0.429688,0.175844,-0.0638354,0.28107,-0.0599342,0.00708466,-0.112708,-0.00579824,0.253692,0.000914401,0,0,0,0,0,0,0,-1.84521,-29.4283,-2.7603,23.3646,1.81518,1.37505,-0.0301054,
0.200402,-0.139014,0.0769583,-2.15229,0.430548,0.184708,-0.063768,0.0578104,-0.0147047,0.0651564,-0.0284953,0.00557191,0.141838,0.00157096,-1.99871,-0.55849,-2.03053,1.70565,4.16667,-2.72786,-0.11265,4.10595,-1.94255,4.74702,-2.16677,-0.143404,1.76936,0.0184885,0.195926,-0.137671,0.0719994,-2.15043,0.429688,0.175844,-0.0638354,0.28107,-0.0599342,0.00708466,-0.112708,-0.00579824,0.253692,0.000914401,0,0,0,0,0,0,0,-1.84521,-29.4283,-2.7603,23.3646,1.81518,1.37505,-0.0301054,
0.199022,-0.138532,0.0754093,-2.15154,0.43115,0.180515,-0.0638258,0.057137,-0.0154251,0.0645283,-0.0261955,0.0162749,0.133115,0.00134056,-0.420885,-0.450282,-0.392532,1.4374,6.68938,-5.45205,-0.144002,3.97242,-2.00064,4.6369,-1.98052,-0.0218564,1.65351,0.0167135,0.199489,-0.13854,0.0789,-2.15371,0.429232,0.18471,-0.0638412,0.190868,-0.098979,0.0843699,-0.12875,-0.00910728,0.255215,0.000428734,-11.2752,-4.8806,9.66066,-2.00523,-0.413629,0.190421,-0.0607084,-1.64288,-27.3335,-2.68492,24.9594,1.99829,1.49499,-0.00996382,
0.199405,-0.138677,0.0758507,-2.15166,0.431732,0.181242,-0.0638225,0.055282,-0.0159846,0.0626587,-0.0238426,0.0275528,0.124661,0.00115443,-1.1594,-0.349684,-1.16849,1.47056,7.0487,-5.28384,-0.116332,3.83377,-2.01659,4.49168,-1.77417,0.102055,1.55745,0.0149236,0.199489,-0.13854,0.0789,-2.15371,0.429232,0.18471,-0.0638412,0.190868,-0.098979,0.0843699,-0.12875,-0.00910728,0.255215,0.000428734,0,0,0,0,0,0,0,-1.64288,-27.3335,-2.68492,24.9594,1.99829,1.49499,-0.00996382,
0.199744,-0.138823,0.0762476,-2.15175,0.432443,0.181895,-0.0638194,0.0527194,-0.0164282,0.0600494,-0.0214762,0.0398191,0.116042,0.00099945,-1.60158,-0.277268,-1.63082,1.47895,7.66641,-5.3868,-0.0968607,3.69786,-2.03359,4.3485,-1.56834,0.249874,1.44566,0.013279,0.199489,-0.13854,0.0789,-2.15371,0.429232,0.18471,-0.0638412,0.190868,-0.098979,0.0843699,-0.12875,-0.00910728,0.255215,0.000428734,0,0,0,0,0,0,0,-1.64288,-27.3335,-2.68492,24.9594,1.99829,1.49499,-0.00996382,
0.200048,-0.138969,0.0766073,-2.15183,0.433305,0.182459,-0.0638165,0.0497644,-0.0167829,0.0570317,-0.0191254,0.0534152,0.106928,0.000873868,-1.84689,-0.221685,-1.88607,1.46925,8.49756,-5.69607,-0.0784882,3.56423,-2.05112,4.20697,-1.36377,0.423261,1.31771,0.0118008,0.199489,-0.13854,0.0789,-2.15371,0.429232,0.18471,-0.0638412,0.190868,-0.098979,0.0843699,-0.12875,-0.00910728,0.255215,0.000428734,0,0,0,0,0,0,0,-1.64288,-27.3335,-2.68492,24.9594,1.99829,1.49499,-0.00996382,
0.202286,-0.139794,0.082049,-2.15445,0.432676,0.187609,-0.0638536,0.0491117,-0.0179155,0.0564775,-0.016798,0.0710095,0.0936385,0.00070131,-0.407924,-0.707851,-0.346393,1.45464,10.9965,-8.30624,-0.107849,3.39141,-2.06581,4.03842,-1.18837,0.632235,1.14632,0.0106508,0.203772,-0.138563,0.0837336,-2.15573,0.42945,0.192875,-0.0638439,0.104878,0.0459158,0.151308,-0.0370102,-0.00201914,0.22793,-0.00119757,-10.7488,18.1119,8.3673,11.4674,0.886018,-3.41061,-0.203288,-1.41278,-29.9043,-2.88725,28.6212,2.35901,1.68725,0.00376909,
0.202604,-0.139963,0.0824272,-2.1545,0.434004,0.187837,-0.0638532,0.0472484,-0.0185722,0.0546364,-0.0145447,0.0900236,0.0806134,0.000568913,-1.16457,-0.410426,-1.15071,1.40833,11.8838,-8.14066,-0.0827483,3.259,-2.08128,3.89732,-0.989424,0.85891,0.985612,0.00954127,0.203772,-0.138563,0.0837336,-2.15573,0.42945,0.192875,-0.0638439,0.104878,0.0459158,0.151308,-0.0370102,-0.00201914,0.22793,-0.00119757,0,0,0,0,0,0,0,-1.41278,-29.9043,-2.88725,28.6212,2.35901,1.68725,0.00376909,
0.202879,-0.140126,0.0827606,-2.15453,0.435519,0.187971,-0.0638519,0.0446807,-0.0189166,0.0520441,-0.0123873,0.109886,0.067847,0.000488502,-1.60485,-0.215281,-1.62017,1.34837,12.414,-7.97901,-0.0502568,3.1242,-2.09301,3.75387,-0.795568,1.10969,0.811558,0.00861528,0.203772,-0.138563,0.0837336,-2.15573,0.42945,0.192875,-0.0638439,0.104878,0.0459158,0.151308,-0.0370102,-0.00201914,0.22793,-0.00119757,0,0,0,0,0,0,0,-1.41278,-29.9043,-2.88725,28.6212,2.35901,1.68725,0.00376909,
0.206085,-0.138265,0.0864464,-2.1564,0.435922,0.194577,-0.0638701,0.0427755,-0.0162371,0.0502328,-0.0115598,0.134179,0.0516338,0.000484615,-1.19073,1.67472,-1.13204,0.517198,15.1834,-10.1332,-0.00242924,2.83289,-2.08936,3.4454,-0.428746,1.67861,0.440243,0.00801372,0.203772,-0.138563,0.0837336,-2.15573,0.42945,0.192875,-0.0638439,0.104878,0.0459158,0.151308,-0.0370102,-0.00201914,0.22793,-0.00119757,0,0,0,0,0,0,0,-1.41278,-29.9043,-2.88725,28.6212,2.35901,1.68725,0.00376909,
0.206313,-0.138327,0.0867342,-2.15645,0.438005,0.194392,-0.0638675,0.039924,-0.0145301,0.0473817,-0.0103264,0.159422,0.0366659,0.000452923,-1.7822,1.06689,-1.78196,0.770878,15.7764,-9.35494,-0.0198076,2.6647,-2.07819,3.28274,-0.272366,1.98567,0.236646,0.00701553,0.207441,-0.138419,0.0874994,-2.15682,0.431364,0.19809,-0.063848,0.08254,0.0352413,0.121057,-0.0154297,0.0716661,0.135733,0.000369309,-2.79224,-1.33431,-3.78142,2.69756,9.21065,-11.5246,0.19586,0.717655,-31.2254,-0.93535,26.0544,2.63366,0.997854,-0.0301054,
0.206502,-0.138406,0.0869811,-2.15648,0.440233,0.194216,-0.0638731,0.0366545,-0.0136015,0.0440761,-0.00906023,0.183249,0.0249443,0.000223,-2.04342,0.580349,-2.06601,0.791344,14.8922,-7.32598,-0.143702,2.46959,-2.03966,3.08373,-0.117231,2.2346,0.083104,0.00728217,0.207441,-0.138419,0.0874994,-2.15682,0.431364,0.19809,-0.063848,0.08254,0.0352413,0.121057,-0.0154297,0.0716661,0.135733,0.000369309,0,0,0,0,0,0,0,0.717655,-31.2254,-0.93535,26.0544,2.63366,0.997854,-0.0301054,
0.206671,-0.138492,0.0872026,-2.15649,0.442405,0.19416,-0.0638827,0.0335501,-0.0130521,0.0408001,-0.00755748,0.200907,0.0185585,-6.17857e-05,-1.94027,0.343376,-2.0475,0.939221,11.0362,-3.99115,-0.177991,2.23104,-1.94164,2.84135,0.0541213,2.43699,-0.0350102,0.00894991,0.207441,-0.138419,0.0874994,-2.15682,0.431364,0.19809,-0.063848,0.08254,0.0352413,0.121057,-0.0154297,0.0716661,0.135733,0.000369309,0,0,0,0,0,0,0,0.717655,-31.2254,-0.93535,26.0544,2.63366,0.997854,-0.0301054,
0.209134,-0.138261,0.0895628,-2.15717,0.440842,0.19857,-0.063903,0.0317432,-0.0115592,0.0389703,-0.00658788,0.216159,0.0141397,-0.000396687,-1.12926,0.933039,-1.14358,0.605995,9.53252,-2.76174,-0.209313,1.9514,-1.82212,2.54634,0.218444,2.75948,-0.115294,0.0123819,0.207441,-0.138419,0.0874994,-2.15682,0.431364,0.19809,-0.063848,0.08254,0.0352413,0.121057,-0.0154297,0.0716661,0.135733,0.000369309,0,0,0,0,0,0,0,0.717655,-31.2254,-0.93535,26.0544,2.63366,0.997854,-0.0301054,
0.209287,-0.138319,0.0897697,-2.15717,0.443194,0.198521,-0.0639227,0.0292172,-0.0107073,0.0363492,-0.00528599,0.231739,0.0100851,-0.000807803,-1.57877,0.532462,-1.6382,0.813682,9.73723,-2.53408,-0.256948,1.61191,-1.745,2.21697,0.378944,3.05342,-0.159248,0.00967771,0.210572,-0.139546,0.0901008,-2.15778,0.436822,0.200158,-0.0638508,0.122435,-0.0792233,0.0265022,-0.0413772,0.22425,0.0105045,-0.000944844,4.98685,-14.3081,-11.8193,-3.24344,19.073,-15.6536,-0.164269,-0.222592,-28.4325,-1.53838,26.8042,3.5675,1.40893,-0.00996382,
0.209415,-0.138391,0.0899455,-2.15715,0.445559,0.198485,-0.0639397,0.0265737,-0.0103445,0.0334737,-0.00375185,0.244496,0.00715369,-0.00107259,-1.6522,0.226732,-1.79721,0.95884,7.97331,-1.83216,-0.165493,1.26968,-1.82125,1.90364,0.459847,3.05782,0.0149255,-0.00295177,0.210572,-0.139546,0.0901008,-2.15778,0.436822,0.200158,-0.0638508,0.122435,-0.0792233,0.0265022,-0.0413772,0.22425,0.0105045,-0.000944844,0,0,0,0,0,0,0,-0.222592,-28.4325,-1.53838,26.8042,3.5675,1.40893,-0.00996382,
0.211886,-0.140764,0.0916947,-2.15754,0.448215,0.199299,-0.0639553,0.0251114,-0.0123704,0.0319954,-0.000728808,0.251135,0.00335123,-0.00136694,-0.913937,-1.26619,-0.923918,1.8894,4.14948,-2.37654,-0.18397,0.864285,-1.5826,1.45455,0.783689,2.93585,0.27936,-0.0124933,0.210572,-0.139546,0.0901008,-2.15778,0.436822,0.200158,-0.0638508,0.122435,-0.0792233,0.0265022,-0.0413772,0.22425,0.0105045,-0.000944844,0,0,0,0,0,0,0,-0.222592,-28.4325,-1.53838,26.8042,3.5675,1.40893,-0.00996382,
0.212011,-0.140915,0.091872,-2.15745,0.450333,0.199255,-0.0639798,0.0232094,-0.0136736,0.0300284,0.0017967,0.253857,0.00159169,-0.00170674,-1.18878,-0.814465,-1.22936,1.57844,1.70143,-1.09971,-0.212371,0.691174,-1.53993,1.25356,0.86254,3.18577,0.147671,-0.0202356,0.210572,-0.139546,0.0901008,-2.15778,0.436822,0.200158,-0.0638508,0.122435,-0.0792233,0.0265022,-0.0413772,0.22425,0.0105045,-0.000944844,0,0,0,0,0,0,0,-0.222592,-28.4325,-1.53838,26.8042,3.5675,1.40893,-0.00996382,
0.212116,-0.14106,0.0920504,-2.15735,0.452155,0.199346,-0.0639942,0.0211964,-0.0145605,0.028483,0.00397862,0.248619,0.00354005,-0.00172372,-1.25812,-0.554331,-0.965913,1.3637,-3.27413,1.21773,-0.0106137,0.627129,-1.56254,1.17651,0.890348,2.93187,0.19037,-0.0193446,0.212982,-0.139784,0.09191,-2.15801,0.446575,0.200145,-0.0638539,0.127131,0.0397478,-0.0249484,0.0158009,0.307993,-0.00178434,-0.00258171,0.587068,14.8714,-6.43132,7.14726,10.4678,-1.5361,-0.204608,-2.55536,-28.857,-3.21257,26.3797,3.32397,1.90606,0.017502,
0.212226,-0.141205,0.0922302,-2.15724,0.453475,0.199647,-0.0640041,0.0197158,-0.0152684,0.0272805,0.00591951,0.231907,0.0103743,-0.00162781,-0.925369,-0.442445,-0.751564,1.21306,-10.4447,4.27142,0.0599404,0.413133,-1.50404,1.05647,1.01547,2.36556,0.215352,-0.0211629,0.212982,-0.139784,0.09191,-2.15801,0.446575,0.200145,-0.0638539,0.127131,0.0397478,-0.0249484,0.0158009,0.307993,-0.00178434,-0.00258171,0,0,0,0,0,0,0,-2.55536,-28.857,-3.21257,26.3797,3.32397,1.90606,0.017502,
0.213913,-0.139736,0.093169,-2.15781,0.455567,0.200648,-0.0639447,0.0190925,-0.0140648,0.0270533,0.00643123,0.211322,0.0173583,-0.00161105,-0.389556,0.752264,-0.141991,0.319826,-12.8657,4.36498,0.0104785,0.297456,-1.4698,0.934308,1.0932,2.43117,0.164236,-0.0229794,0.212982,-0.139784,0.09191,-2.15801,0.446575,0.200145,-0.0638539,0.127131,0.0397478,-0.0249484,0.0158009,0.307993,-0.00178434,-0.00258171,0,0,0,0,0,0,0,-2.55536,-28.857,-3.21257,26.3797,3.32397,1.90606,0.017502,
0.214025,-0.139826,0.093359,-2.15773,0.456379,0.201114,-0.0639583,0.0180619,-0.0135084,0.0263942,0.00702587,0.189356,0.025524,-0.00162836,-0.644099,0.347711,-0.411911,0.371649,-13.7286,5.1036,-0.0108224,0.204305,-1.45903,0.833011,1.16422,2.28108,0.218639,-0.0294975,0.212982,-0.139784,0.09191,-2.15801,0.446575,0.200145,-0.0638539,0.127131,0.0397478,-0.0249484,0.0158009,0.307993,-0.00178434,-0.00258171,0,0,0,0,0,0,0,-2.55536,-28.857,-3.21257,26.3797,3.32397,1.90606,0.017502,
0.214117,-0.139926,0.0935309,-2.15765,0.457046,0.201656,-0.0639725,0.0167527,-0.0133177,0.025411,0.00763805,0.168169,0.0339687,-0.00165797,-0.818243,0.119215,-0.614529,0.382614,-13.2422,5.27791,-0.0185038,0.143976,-1.47661,1.13083,1.23679,1.49844,0.568804,-0.0199113,0.213909,-0.140218,0.0938627,-2.158,0.457029,0.200151,-0.0638582,-0.00543025,-0.0496399,0.0902743,-0.0113154,0.255762,-0.00806318,-0.000238269,-16.5702,-11.1735,14.4028,-3.38953,-6.52893,-0.784855,0.29293,-2.57916,-28.98,-2.91106,25.8798,2.39563,1.85296,-0.0301054,
0.214814,-0.141224,0.0951782,-2.1575,0.461906,0.201837,-0.0639278,0.016224,-0.0146414,0.0251938,0.00879946,0.1507,0.0409925,-0.00171242,-0.330497,-0.827307,-0.135753,0.725879,-10.9179,4.38986,-0.0340295,0.0827821,-1.5065,1.0814,1.29846,0.433533,1.01683,-0.01809,0.213909,-0.140218,0.0938627,-2.158,0.457029,0.200151,-0.0638582,-0.00543025,-0.0496399,0.0902743,-0.0113154,0.255762,-0.00806318,-0.000238269,0,0,0,0,0,0,0,-2.57916,-28.98,-2.91106,25.8798,2.39563,1.85296,-0.0301054,
0.214905,-0.141375,0.0953502,-2.15739,0.462474,0.202448,-0.0639431,0.0152333,-0.0154684,0.0244565,0.00967711,0.134764,0.048062,-0.00175237,-0.619186,-0.516881,-0.460797,0.54853,-9.96032,4.41847,-0.0249695,0.0827821,-1.5065,1.0814,1.29846,0.433533,1.01683,-0.01809,0.213909,-0.140218,0.0938627,-2.158,0.457029,0.200151,-0.0638582,-0.00543025,-0.0496399,0.0902743,-0.0113154,0.255762,-0.00806318,-0.000238269,0,0,0,0,0,0,0,-2.57916,-28.98,-2.91106,25.8798,2.39563,1.85296,-0.0301054,
0.214977,-0.141518,0.0955042,-2.15729,0.462984,0.203102,-0.0639583,0.0139879,-0.0159573,0.0234152,0.0103386,0.120568,0.0547914,-0.00178023,-0.778351,-0.305551,-0.650805,0.413437,-8.87255,4.20589,-0.0174139,0.0827821,-1.5065,1.0814,1.29846,0.433533,1.01683,-0.01809,0.213909,-0.140218,0.0938627,-2.158,0.457029,0.200151,-0.0638582,-0.00543025,-0.0496399,0.0902743,-0.0113154,0.255762,-0.00806318,-0.000238269,0,0,0,0,0,0,0,-2.57916,-28.98,-2.91106,25.8798,2.39563,1.85296,-0.0301054,
0.215034,-0.141656,0.0956439,-2.15718,0.463451,0.203787,-0.0639732,0.0126328,-0.0162191,0.0222235,0.0108366,0.108133,0.0609717,-0.00179859,-0.846906,-0.163651,-0.744817,0.311229,-7.77147,3.86265,-0.0114714,0.0827821,-1.5065,1.0814,1.29846,0.433533,1.01683,-0.01809,0.213909,-0.140218,0.0938627,-2.158,0.457029,0.200151,-0.0638582,-0.00543025,-0.0496399,0.0902743,-0.0113154,0.255762,-0.00806318,-0.000238269,0,0,0,0,0,0,0,-2.57916,-28.98,-2.91106,25.8798,2.39563,1.85296,-0.0301054,
0.214938,-0.140691,0.0971758,-2.15735,0.466273,0.203543,-0.0639412,0.0119791,-0.0151193,0.0217563,0.0104157,0.0975888,0.0647322,-0.00181831,-0.408581,0.687394,-0.292012,-0.263058,-6.5903,2.35031,-0.0123253,0.0765143,-1.51905,1.08803,1.28431,0.413572,1.01745,-0.0180272,0.214273,-0.14052,0.0960694,-2.15767,0.463493,0.200605,-0.0638588,0.0134595,0.0245675,0.0680831,0.0268074,0.0964491,0.0497782,0.00120279,2.36122,9.27593,-2.77389,4.76535,-19.9141,7.23017,0.180132,-0.373349,-28.6824,-1.33605,25.6577,1.91864,1.99853,-0.0630644,
0.214997,-0.140786,0.0973185,-2.15727,0.466686,0.204206,-0.0639562,0.0110599,-0.0144799,0.020971,0.0102272,0.0883962,0.0683622,-0.00182831,-0.574478,0.399629,-0.490798,-0.117811,-5.74539,2.26876,-0.00625149,0.0765143,-1.51905,1.08803,1.28431,0.413572,1.01745,-0.0180272,0.214273,-0.14052,0.0960694,-2.15767,0.463493,0.200605,-0.0638588,0.0134595,0.0245675,0.0680831,0.0268074,0.0964491,0.0497782,0.00120279,0,0,0,0,0,0,0,-0.373349,-28.6824,-1.33605,25.6577,1.91864,1.99853,-0.0630644,
0.215044,-0.140888,0.0974486,-2.15719,0.467077,0.204892,-0.0639709,0.0100227,-0.0141354,0.0200303,0.0101956,0.0804865,0.0718243,-0.00183213,-0.648255,0.215289,-0.587922,-0.0197426,-4.94354,2.16383,-0.00238712,0.0765143,-1.51905,1.08803,1.28431,0.413572,1.01745,-0.0180272,0.214273,-0.14052,0.0960694,-2.15767,0.463493,0.200605,-0.0638588,0.0134595,0.0245675,0.0680831,0.0268074,0.0964491,0.0497782,0.00120279,0,0,0,0,0,0,0,-0.373349,-28.6824,-1.33605,25.6577,1.91864,1.99853,-0.0630644,
0.214938,-0.140691,0.0971758,-2.15735,0.466273,0.203543,-0.0639412,0.00989103,-0.0134523,0.0200018,0.0099029,0.0754714,0.0734143,-0.00184514,-0.0823182,0.426931,-0.0178653,-0.182936,-3.13445,0.993733,-0.0081325,0.0765143,-1.51905,1.08803,1.28431,0.413572,1.01745,-0.0180272,0.214273,-0.14052,0.0960694,-2.15767,0.463493,0.200605,-0.0638588,0.0134595,0.0245675,0.0680831,0.0268074,0.0964491,0.0497782,0.00120279,0,0,0,0,0,0,0,-0.373349,-28.6824,-1.33605,25.6577,1.91864,1.99853,-0.0630644,
0.214997,-0.140786,0.0973185,-2.15727,0.466686,0.204206,-0.0639562,0.00938948,-0.0131463,0.0195674,0.00981696,0.0707022,0.0753079,-0.00184978,-0.313467,0.191259,-0.271481,-0.0537127,-2.98071,1.1835,-0.00289726,0.0808604,-1.51792,1.10092,1.25933,0.406417,1.00474,-0.0179287,0.215137,-0.14097,0.0971911,-2.15734,0.466974,0.203166,-0.0638622,0.0326082,-0.0423083,0.0199369,-0.00309592,0.0773901,0.0942355,0.000338324,2.39359,-8.35948,-6.01828,-3.73792,-2.38238,5.55717,-0.108058,-1.71826,-28.8808,-2.36357,25.5347,1.83349,1.79345,-0.0365141,
0.215044,-0.140888,0.0974486,-2.15719,0.467077,0.204892,-0.0639709,0.00868637,-0.0130686,0.0189074,0.00986741,0.0663314,0.0773809,-0.0018493,-0.439447,0.0485932,-0.412469,0.0315357,-2.7318,1.29562,0.000296256,0.0808604,-1.51792,1.10092,1.25933,0.406417,1.00474,-0.0179287,0.215137,-0.14097,0.0971911,-2.15734,0.466974,0.203166,-0.0638622,0.0326082,-0.0423083,0.0199369,-0.00309592,0.0773901,0.0942355,0.000338324,0,0,0,0,0,0,0,-1.71826,-28.8808,-2.36357,25.5347,1.83349,1.79345,-0.0365141,
0.215082,-0.140995,0.0975692,-2.15711,0.467451,0.205596,-0.0639856,0.00789261,-0.0131247,0.0181409,0.0100021,0.0624255,0.0795168,-0.00184576,-0.4961,-0.0350724,-0.479061,0.0841539,-2.44114,1.33494,0.00221135,0.0808604,-1.51792,1.10092,1.25933,0.406417,1.00474,-0.0179287,0.215137,-0.14097,0.0971911,-2.15734,0.466974,0.203166,-0.0638622,0.0326082,-0.0423083,0.0199369,-0.00309592,0.0773901,0.0942355,0.000338324,0,0,0,0,0,0,0,-1.71826,-28.8808,-2.36357,25.5347,1.83349,1.79345,-0.0365141,
0.215549,-0.141888,0.0980172,-2.15679,0.469343,0.206611,-0.0639388,0.00750775,-0.0142416,0.0177793,0.0107542,0.0604318,0.0818078,-0.00185317,-0.240539,-0.698046,-0.226029,0.470092,-1.24606,1.43189,-0.00463036,0.0808604,-1.51792,1.10092,1.25933,0.406417,1.00474,-0.0179287,0.215137,-0.14097,0.0971911,-2.15734,0.466974,0.203166,-0.0638622,0.0326082,-0.0423083,0.0199369,-0.00309592,0.0773901,0.0942355,0.000338324,0,0,0,0,0,0,0,-1.71826,-28.8808,-2.36357,25.5347,1.83349,1.79345,-0.0365141,
0.215587,-0.142031,0.0981382,-2.15668,0.469743,0.207352,-0.0639537,0.00696032,-0.0149595,0.0172482,0.0112849,0.0583534,0.083964,-0.00185357,-0.342141,-0.448725,-0.331934,0.331705,-1.29901,1.34759,-0.000246261,0.0782287,-1.51912,1.10802,1.23223,0.403588,0.986434,-0.0178215,0.21541,-0.14152,0.0988293,-2.15697,0.469156,0.206643,-0.0638604,-0.00190401,0.0078347,0.0594673,0.0162226,0.0544149,0.117687,0.000390497,-4.31403,6.26788,4.9413,2.41482,-2.8719,2.93144,0.00652164,-0.754208,-27.9326,-1.463,25.8322,2.13287,1.79345,-0.0566557,
0.215618,-0.142168,0.0982518,-2.15658,0.470127,0.208102,-0.0639683,0.0063384,-0.0154061,0.0166385,0.0116518,0.0562881,0.0859185,-0.00184968,-0.388699,-0.279114,-0.381083,0.229288,-1.29083,1.2216,0.00242913,0.0782287,-1.51912,1.10802,1.23223,0.403588,0.986434,-0.0178215,0.21541,-0.14152,0.0988293,-2.15697,0.469156,0.206643,-0.0638604,-0.00190401,0.0078347,0.0594673,0.0162226,0.0544149,0.117687,0.000390497,0,0,0,0,0,0,0,-0.754208,-27.9326,-1.463,25.8322,2.13287,1.79345,-0.0566557,
0.215807,-0.141853,0.0996719,-2.15657,0.471166,0.210528,-0.06394,0.00612798,-0.0148341,0.0164861,0.0114144,0.0543282,0.0870076,-0.00185072,-0.131517,0.357519,-0.0952014,-0.148381,-1.22495,0.680688,-0.000649559,0.0782287,-1.51912,1.10802,1.23223,0.403588,0.986434,-0.0178215,0.21541,-0.14152,0.0988293,-2.15697,0.469156,0.206643,-0.0638604,-0.00190401,0.0078347,0.0594673,0.0162226,0.0544149,0.117687,0.000390497,0,0,0,0,0,0,0,-0.754208,-27.9326,-1.463,25.8322,2.13287,1.79345,-0.0566557,
0.21584,-0.14196,0.0997894,-2.15649,0.471526,0.211259,-0.0639546,0.00573356,-0.0145325,0.0161255,0.0112843,0.0524751,0.0878604,-0.00184589,-0.246511,0.188507,-0.225397,-0.0813357,-1.15818,0.532995,0.00301569,0.0782287,-1.51912,1.10802,1.23223,0.403588,0.986434,-0.0178215,0.21541,-0.14152,0.0988293,-2.15697,0.469156,0.206643,-0.0638604,-0.00190401,0.0078347,0.0594673,0.0162226,0.0544149,0.117687,0.000390497,0,0,0,0,0,0,0,-0.754208,-27.9326,-1.463,25.8322,2.13287,1.79345,-0.0566557,
0.215867,-0.142071,0.0998999,-2.1564,0.471878,0.211991,-0.0639691,0.00525221,-0.0143959,0.0156634,0.0112271,0.0507678,0.0885971,-0.00183823,-0.300842,0.0853755,-0.288814,-0.0357363,-1.06704,0.460401,0.00479138,0.0797525,-1.50792,1.11554,1.20184,0.406093,0.962962,-0.0176798,0.215668,-0.141894,0.0998303,-2.15657,0.469874,0.210911,-0.0638655,0.0166217,-0.0266139,0.0111843,0.00433331,0.0071162,0.132461,0.000544463,2.31571,-4.30607,-6.03537,-1.48617,-5.91233,1.84675,0.0192457,-0.452694,-29.5274,-1.26067,26.2567,2.65747,1.6076,-0.050247,
0.215889,-0.142184,0.100005,-2.15631,0.472222,0.212726,-0.0639834,0.00474404,-0.0143578,0.015166,0.0112173,0.0492274,0.0892658,-0.00182942,-0.317605,0.0237766,-0.310871,-0.00611906,-0.962745,0.417994,0.0055013,0.0797525,-1.50792,1.11554,1.20184,0.406093,0.962962,-0.0176798,0.215668,-0.141894,0.0998303,-2.15657,0.469874,0.210911,-0.0638655,0.0166217,-0.0266139,0.0111843,0.00433331,0.0071162,0.132461,0.000544463,0,0,0,0,0,0,0,-0.452694,-29.5274,-1.26067,26.2567,2.65747,1.6076,-0.050247,
0.215783,-0.142615,0.10037,-2.15606,0.471162,0.21506,-0.0639415,0.00407708,-0.0147565,0.0145093,0.011517,0.0472616,0.0909921,-0.00182663,-0.416849,-0.249147,-0.410445,0.187302,-1.22864,1.07889,0.00174617,0.0797525,-1.50792,1.11554,1.20184,0.406093,0.962962,-0.0176798,0.215668,-0.141894,0.0998303,-2.15657,0.469874,0.210911,-0.0638655,0.0166217,-0.0266139,0.0111843,0.00433331,0.0071162,0.132461,0.000544463,0,0,0,0,0,0,0,-0.452694,-29.5274,-1.26067,26.2567,2.65747,1.6076,-0.050247,
0.215792,-0.142743,0.100463,-2.15596,0.471485,0.215834,-0.0639558,0.00349513,-0.0150136,0.0139314,0.0117148,0.0458778,0.0921438,-0.0018198,-0.363721,-0.160723,-0.361206,0.123667,-0.864893,0.719814,0.00426927,0.0797525,-1.50792,1.11554,1.20184,0.406093,0.962962,-0.0176798,0.215668,-0.141894,0.0998303,-2.15657,0.469874,0.210911,-0.0638655,0.0166217,-0.0266139,0.0111843,0.00433331,0.0071162,0.132461,0.000544463,0,0,0,0,0,0,0,-0.452694,-29.5274,-1.26067,26.2567,2.65747,1.6076,-0.050247,
0.215801,-0.14287,0.100554,-2.15586,0.471811,0.216601,-0.0639701,0.00299901,-0.0151748,0.0134371,0.0118375,0.0448662,0.0928876,-0.00181133,-0.310072,-0.100721,-0.308941,0.0766383,-0.632268,0.464871,0.00529616,0.0795664,-1.50468,1.12074,1.17563,0.411391,0.938854,-0.0175619,0.215702,-0.142437,0.100617,-2.15637,0.469976,0.215383,-0.0638611,-0.00564238,-0.000258482,0.0245829,0.0120932,0.000865396,0.122371,0.00190647,-2.78301,3.29442,1.67483,0.969981,-0.781351,-1.26131,0.170251,0.0313145,-28.2579,-0.610033,26.5781,2.84698,1.70739,-0.0905302,
0.215808,-0.142995,0.100645,-2.15576,0.47214,0.217362,-0.0639842,0.00258257,-0.0152708,0.0130223,0.0119052,0.0441001,0.0933367,-0.00180252,-0.260278,-0.0600126,-0.259256,0.0423315,-0.478778,0.280674,0.00550531,0.0795664,-1.50468,1.12074,1.17563,0.411391,0.938854,-0.0175619,0.215702,-0.142437,0.100617,-2.15637,0.469976,0.215383,-0.0638611,-0.00564238,-0.000258482,0.0245829,0.0120932,0.000865396,0.122371,0.00190647,0,0,0,0,0,0,0,0.0313145,-28.2579,-0.610033,26.5781,2.84698,1.70739,-0.0905302,
0.215735,-0.142828,0.101083,-2.15599,0.471077,0.219452,-0.0639343,0.00212422,-0.0147296,0.0125863,0.0115805,0.0423749,0.0935909,-0.00179486,-0.286467,0.338223,-0.272459,-0.202932,-1.07826,0.158917,0.00478793,0.0795664,-1.50468,1.12074,1.17563,0.411391,0.938854,-0.0175619,0.215702,-0.142437,0.100617,-2.15637,0.469976,0.215383,-0.0638611,-0.00564238,-0.000258482,0.0245829,0.0120932,0.000865396,0.122371,0.00190647,0,0,0,0,0,0,0,0.0313145,-28.2579,-0.610033,26.5781,2.84698,1.70739,-0.0905302,
0.215737,-0.142934,0.10117,-2.1559,0.471374,0.220198,-0.0639483,0.00176109,-0.0144229,0.0122349,0.0113734,0.0413161,0.0935371,-0.00178625,-0.226955,0.191698,-0.219649,-0.129405,-0.661737,-0.0336187,0.00537919,0.0795664,-1.50468,1.12074,1.17563,0.411391,0.938854,-0.0175619,0.215702,-0.142437,0.100617,-2.15637,0.469976,0.215383,-0.0638611,-0.00564238,-0.000258482,0.0245829,0.0120932,0.000865396,0.122371,0.00190647,0,0,0,0,0,0,0,0.0313145,-28.2579,-0.610033,26.5781,2.84698,1.70739,-0.0905302,
0.21574,-0.143043,0.101257,-2.15582,0.471679,0.220938,-0.0639622,0.00148023,-0.0142687,0.0119603,0.0112473,0.040694,0.0933219,-0.00177794,-0.175543,0.0963508,-0.171622,-0.0788462,-0.388814,-0.134547,0.00519579,0.0800683,-1.4891,1.12443,1.1503,0.416396,0.916788,-0.0174477,0.215564,-0.142666,0.101223,-2.15609,0.470022,0.21973,-0.0638671,-0.0086404,-0.0195585,0.0203803,0.00673818,0.00448404,0.134995,-0.000369207,-0.374753,-2.41251,-0.525329,-0.669372,0.452331,1.57803,-0.284459,0.793033,-29.456,0.0644055,25.9314,2.57232,1.52154,-0.0365141,
0.215538,-0.143293,0.101626,-2.15561,0.471169,0.223946,-0.0639391,0.00109131,-0.0144597,0.0115759,0.0114044,0.0399621,0.0940696,-0.00177376,-0.243074,-0.119323,-0.240236,0.0982218,-0.457446,0.467342,0.00261247,0.0800683,-1.4891,1.12443,1.1503,0.416396,0.916788,-0.0174477,0.215564,-0.142666,0.101223,-2.15609,0.470022,0.21973,-0.0638671,-0.0086404,-0.0195585,0.0203803,0.00673818,0.00448404,0.134995,-0.000369207,0,0,0,0,0,0,0,0.793033,-29.456,0.0644055,25.9314,2.57232,1.52154,-0.0365141,
0.215536,-0.143414,0.101708,-2.15552,0.471478,0.224707,-0.0639531,0.000817669,-0.0146012,0.0113041,0.0114993,0.039688,0.0942748,-0.00176774,-0.171024,-0.0884855,-0.169893,0.0592568,-0.171314,0.128275,0.00375862,0.0800683,-1.4891,1.12443,1.1503,0.416396,0.916788,-0.0174477,0.215564,-0.142666,0.101223,-2.15609,0.470022,0.21973,-0.0638671,-0.0086404,-0.0195585,0.0203803,0.00673818,0.00448404,0.134995,-0.000369207,0,0,0,0,0,0,0,0.793033,-29.456,0.0644055,25.9314,2.57232,1.52154,-0.0365141,
0.215535,-0.143535,0.101791,-2.15542,0.471795,0.225455,-0.063967,0.000633912,-0.0147058,0.011122,0.0115475,0.0396719,0.0941345,-0.0017613,-0.114848,-0.0653394,-0.113808,0.0301724,-0.010051,-0.0877069,0.00402785,0.0800683,-1.4891,1.12443,1.1503,0.416396,0.916788,-0.0174477,0.215564,-0.142666,0.101223,-2.15609,0.470022,0.21973,-0.0638671,-0.0086404,-0.0195585,0.0203803,0.00673818,0.00448404,0.134995,-0.000369207,0,0,0,0,0,0,0,0.793033,-29.456,0.0644055,25.9314,2.57232,1.52154,-0.0365141,
0.215536,-0.143656,0.101875,-2.15533,0.472117,0.226194,-0.0639808,0.000517829,-0.0147822,0.0110086,0.0115616,0.0397934,0.0937782,-0.0017551,-0.0725517,-0.0477491,-0.0708817,0.00881648,0.0759318,-0.222723,0.0038714,0.0800683,-1.4891,1.12443,1.1503,0.416396,0.916788,-0.0174477,0.215564,-0.142666,0.101223,-2.15609,0.470022,0.21973,-0.0638671,-0.0086404,-0.0195585,0.0203803,0.00673818,0.00448404,0.134995,-0.000369207,0,0,0,0,0,0,0,0.793033,-29.456,0.0644055,25.9314,2.57232,1.52154,-0.0365141,
0.215465,-0.143369,0.102051,-2.15564,0.47115,0.22818,-0.0639377,0.000210286,-0.0140883,0.0107182,0.0111173,0.0386596,0.0933372,-0.00174598,-0.192214,0.433657,-0.181509,-0.277745,-0.708638,-0.275582,0.00570314,0.0804669,-1.48127,1.12831,1.12629,0.421848,0.893872,-0.0173385,0.215533,-0.143068,0.10169,-2.15597,0.470093,0.224196,-0.0638678,-5.00128e-06,0.00383154,0.00770412,0.00714227,0.00404373,0.124815,-0.000648479,1.07943,2.92376,-1.58452,0.0505115,-0.0550386,-1.27253,-0.034909,0.384403,-28.5317,-0.33629,26.6058,2.39563,1.82,-0.0301054,
0.215459,-0.143467,0.10213,-2.15556,0.471438,0.2289,-0.0639514,3.08192e-05,-0.0137101,0.0105483,0.0108366,0.0381425,0.0926727,-0.00173819,-0.112167,0.236382,-0.10617,-0.175394,-0.323172,-0.415341,0.0048705,0.0804669,-1.48127,1.12831,1.12629,0.421848,0.893872,-0.0173385,0.215533,-0.143068,0.10169,-2.15597,0.470093,0.224196,-0.0638678,-5.00128e-06,0.00383154,0.00770412,0.00714227,0.00404373,0.124815,-0.000648479,0,0,0,0,0,0,0,0.384403,-28.5317,-0.33629,26.6058,2.39563,1.82,-0.0301054,
0.215456,-0.14357,0.102211,-2.15548,0.471739,0.229612,-0.063965,-5.59197e-05,-0.0135359,0.0104675,0.0106684,0.0380225,0.0919252,-0.00173186,-0.0542118,0.108899,-0.0505119,-0.105143,-0.0750022,-0.46716,0.003956,0.0804669,-1.48127,1.12831,1.12629,0.421848,0.893872,-0.0173385,0.215533,-0.143068,0.10169,-2.15597,0.470093,0.224196,-0.0638678,-5.00128e-06,0.00383154,0.00770412,0.00714227,0.00404373,0.124815,-0.000648479,0,0,0,0,0,0,0,0.384403,-28.5317,-0.33629,26.6058,2.39563,1.82,-0.0301054,
0.215455,-0.143676,0.102294,-2.1554,0.472048,0.230317,-0.0639787,-7.82149e-05,-0.0134904,0.0104496,0.0105754,0.0381493,0.0911698,-0.00172684,-0.0139345,0.0284251,-0.0111731,-0.0580931,0.0792329,-0.472109,0.00313449,0.0804669,-1.48127,1.12831,1.12629,0.421848,0.893872,-0.0173385,0.215533,-0.143068,0.10169,-2.15597,0.470093,0.224196,-0.0638678,-5.00128e-06,0.00383154,0.00770412,0.00714227,0.00404373,0.124815,-0.000648479,0,0,0,0,0,0,0,0.384403,-28.5317,-0.33629,26.6058,2.39563,1.82,-0.0301054,
0.215465,-0.143369,0.102051,-2.15564,0.47115,0.22818,-0.0639377,-0.000266549,-0.0130549,0.010271,0.0103283,0.0373443,0.0912506,-0.00172337,-0.117709,0.272184,-0.111636,-0.15447,-0.503122,0.0504565,0.00217032,0.0808966,-1.46364,1.13162,1.10115,0.426511,0.871851,-0.0172272,0.215526,-0.143223,0.102296,-2.15568,0.470351,0.228679,-0.0638648,-0.00601967,-0.0135419,0.0152984,0.000893517,0.0190462,0.132185,0.000882968,-0.751833,-2.17168,0.949286,-0.781094,1.87531,0.921294,0.191431,-0.119442,-29.1545,-0.661608,26.4313,2.15118,1.83922,-0.0566557,
0.215459,-0.143467,0.10213,-2.15556,0.471438,0.2289,-0.0639514,-0.000350649,-0.0128834,0.0101905,0.0102055,0.0370903,0.0910034,-0.0017201,-0.0525625,0.107204,-0.0502719,-0.0767738,-0.15876,-0.154511,0.00204424,0.0808966,-1.46364,1.13162,1.10115,0.426511,0.871851,-0.0172272,0.215526,-0.143223,0.102296,-2.15568,0.470351,0.228679,-0.0638648,-0.00601967,-0.0135419,0.0152984,0.000893517,0.0190462,0.132185,0.000882968,0,0,0,0,0,0,0,-0.119442,-29.1545,-0.661608,26.4313,2.15118,1.83922,-0.0566557,
0.215456,-0.14357,0.102211,-2.15548,0.471739,0.229612,-0.063965,-0.000361094,-0.0128745,0.0101813,0.0101635,0.0371807,0.0905898,-0.00171739,-0.0065283,0.00555686,-0.00579324,-0.0262471,0.056528,-0.258495,0.00169499,0.0808966,-1.46364,1.13162,1.10115,0.426511,0.871851,-0.0172272,0.215526,-0.143223,0.102296,-2.15568,0.470351,0.228679,-0.0638648,-0.00601967,-0.0135419,0.0152984,0.000893517,0.0190462,0.132185,0.000882968,0,0,0,0,0,0,0,-0.119442,-29.1545,-0.661608,26.4313,2.15118,1.83922,-0.0566557,
0.215487,-0.143733,0.102686,-2.15528,0.471633,0.232657,-0.0639332,-0.000402836,-0.0130342,0.0101447,0.010279,0.0373199,0.0907253,-0.00171723,-0.0260885,-0.0998218,-0.0228778,0.0722194,0.0870171,0.0846858,9.7971e-05,0.0808966,-1.46364,1.13162,1.10115,0.426511,0.871851,-0.0172272,0.215526,-0.143223,0.102296,-2.15568,0.470351,0.228679,-0.0638648,-0.00601967,-0.0135419,0.0152984,0.000893517,0.0190462,0.132185,0.000882968,0,0,0,0,0,0,0,-0.119442,-29.1545,-0.661608,26.4313,2.15118,1.83922,-0.0566557,
0.215485,-0.143844,0.102767,-2.1552,0.471946,0.233374,-0.0639468,-0.000390068,-0.0132169,0.01016,0.0103759,0.0376959,0.0904875,-0.00171576,0.00797962,-0.114183,0.0095926,0.0605547,0.234983,-0.148619,0.00091675,0.0808966,-1.46364,1.13162,1.10115,0.426511,0.871851,-0.0172272,0.215526,-0.143223,0.102296,-2.15568,0.470351,0.228679,-0.0638648,-0.00601967,-0.0135419,0.0152984,0.000893517,0.0190462,0.132185,0.000882968,0,0,0,0,0,0,0,-0.119442,-29.1545,-0.661608,26.4313,2.15118,1.83922,-0.0566557,
0.215484,-0.143958,0.102851,-2.15511,0.472267,0.234079,-0.0639605,-0.000339292,-0.0134019,0.010213,0.0104535,0.038183,0.0900371,-0.00171379,0.0317354,-0.115606,0.0331305,0.0484729,0.304438,-0.281496,0.00123019,0.0808966,-1.46364,1.13162,1.10115,0.426511,0.871851,-0.0172272,0.215526,-0.143223,0.102296,-2.15568,0.470351,0.228679,-0.0638648,-0.00601967,-0.0135419,0.0152984,0.000893517,0.0190462,0.132185,0.000882968,0,0,0,0,0,0,0,-0.119442,-29.1545,-0.661608,26.4313,2.15118,1.83922,-0.0566557,
0.215484,-0.144072,0.102936,-2.15503,0.472594,0.234777,-0.0639741,-0.00026436,-0.0135772,0.0102909,0.0105127,0.0387056,0.089473,-0.00171172,0.0468323,-0.109597,0.048658,0.0370439,0.32665,-0.352563,0.00129406,0.0808966,-1.46364,1.13162,1.10115,0.426511,0.871851,-0.0172272,0.215526,-0.143223,0.102296,-2.15568,0.470351,0.228679,-0.0638648,-0.00601967,-0.0135419,0.0152984,0.000893517,0.0190462,0.132185,0.000882968,0,0,0,0,0,0,0,-0.119442,-29.1545,-0.661608,26.4313,2.15118,1.83922,-0.0566557,
0.215487,-0.143733,0.102686,-2.15528,0.471633,0.232657,-0.0639332,-0.000325448,-0.0135964,0.0102324,0.0105584,0.0385399,0.0898318,-0.0017127,-0.0381803,-0.0119801,-0.0365784,0.0285612,-0.103601,0.224284,-0.000609823,0.0808966,-1.46364,1.13162,1.10115,0.426511,0.871851,-0.0172272,0.215526,-0.143223,0.102296,-2.15568,0.470351,0.228679,-0.0638648,-0.00601967,-0.0135419,0.0152984,0.000893517,0.0190462,0.132185,0.000882968,0,0,0,0,0,0,0,-0.119442,-29.1545,-0.661608,26.4313,2.15118,1.83922,-0.0566557,
0.215485,-0.143844,0.102767,-2.1552,0.471946,0.233374,-0.0639468,-0.000328159,-0.0136666,0.0102302,0.0105994,0.0386719,0.0897727,-0.00171214,-0.0016938,-0.0439097,-0.00136792,0.0256281,0.082489,-0.0369398,0.000350515,0.0798495,-1.45626,1.13491,1.07834,0.430167,0.850978,-0.0171224,0.215517,-0.143577,0.10299,-2.1555,0.470695,0.232819,-0.0638647,-0.00285735,0.00279631,0.0227374,0.00833157,0.0151153,0.110418,0.000414983,0.39529,2.04228,0.929872,0.929757,-0.491361,-2.72081,-0.0584981,0.106693,-28.6308,-0.610033,26.4035,2.29126,1.89965,-0.0566557,
0.215484,-0.143958,0.102851,-2.15511,0.472267,0.234079,-0.0639605,-0.000289764,-0.0137617,0.0102691,0.0106323,0.0389638,0.0894653,-0.0017109,0.0239967,-0.0593878,0.0243621,0.0205316,0.182443,-0.192153,0.000777199,0.0798495,-1.45626,1.13491,1.07834,0.430167,0.850978,-0.0171224,0.215517,-0.143577,0.10299,-2.1555,0.470695,0.232819,-0.0638647,-0.00285735,0.00279631,0.0227374,0.00833157,0.0151153,0.110418,0.000414983,0,0,0,0,0,0,0,0.106693,-28.6308,-0.610033,26.4035,2.29126,1.89965,-0.0566557,
0.215566,-0.1439,0.103477,-2.15519,0.472009,0.236431,-0.0639355,-0.000109288,-0.013311,0.0104775,0.0102822,0.038836,0.0884078,-0.0017116,0.112798,0.281654,0.130202,-0.218823,-0.0798914,-0.660905,-0.000441129,0.0798495,-1.45626,1.13491,1.07834,0.430167,0.850978,-0.0171224,0.215517,-0.143577,0.10299,-2.1555,0.470695,0.232819,-0.0638647,-0.00285735,0.00279631,0.0227374,0.00833157,0.0151153,0.110418,0.000414983,0,0,0,0,0,0,0,0.106693,-28.6308,-0.610033,26.4035,2.29126,1.89965,-0.0566557,
0.215571,-0.143999,0.103567,-2.15511,0.472325,0.237097,-0.0639492,2.77829e-05,-0.0131062,0.0106307,0.010073,0.0389725,0.0873817,-0.00171031,0.085669,0.128005,0.0957989,-0.130707,0.0853638,-0.641367,0.000808866,0.0798495,-1.45626,1.13491,1.07834,0.430167,0.850978,-0.0171224,0.215517,-0.143577,0.10299,-2.1555,0.470695,0.232819,-0.0638647,-0.00285735,0.00279631,0.0227374,0.00833157,0.0151153,0.110418,0.000414983,0,0,0,0,0,0,0,0.106693,-28.6308,-0.610033,26.4035,2.29126,1.89965,-0.0566557,
0.215575,-0.144101,0.103657,-2.15504,0.472648,0.237759,-0.0639628,0.000137537,-0.0130548,0.0107503,0.00995983,0.0392548,0.0864533,-0.00170821,0.0685961,0.0321381,0.0747314,-0.0707491,0.176412,-0.58022,0.00131191,0.0799752,-1.4444,1.13799,1.05796,0.434378,0.832425,-0.0170271,0.215514,-0.14374,0.103601,-2.15529,0.47084,0.236536,-0.0638678,9.24991e-05,-0.00866053,0.0147396,0.000296215,0.0093131,0.102099,-0.00103538,0.368731,-1.43211,-0.999718,-1.00442,-0.725277,-1.03999,-0.181295,0.233646,-29.1307,-0.586229,26.5781,2.40753,1.89965,-0.0301054,
0.21558,-0.144207,0.103747,-2.15496,0.472976,0.238419,-0.0639764,0.000228711,-0.0130957,0.010848,0.00990988,0.0396079,0.0856419,-0.00170588,0.0569839,-0.02557,0.0610614,-0.0312186,0.220723,-0.507131,0.00145569,0.0799752,-1.4444,1.13799,1.05796,0.434378,0.832425,-0.0170271,0.215514,-0.14374,0.103601,-2.15529,0.47084,0.236536,-0.0638678,9.24991e-05,-0.00866053,0.0147396,0.000296215,0.0093131,0.102099,-0.00103538,0,0,0,0,0,0,0,0.233646,-29.1307,-0.586229,26.5781,2.40753,1.89965,-0.0301054,
0.215528,-0.144167,0.10405,-2.15499,0.472043,0.239927,-0.0639373,0.000229374,-0.0129342,0.0108649,0.00971194,0.0392002,0.0848188,-0.00170521,0.000414328,0.100954,0.0105668,-0.123712,-0.254815,-0.514455,0.000420318,0.0799752,-1.4444,1.13799,1.05796,0.434378,0.832425,-0.0170271,0.215514,-0.14374,0.103601,-2.15529,0.47084,0.236536,-0.0638678,9.24991e-05,-0.00866053,0.0147396,0.000296215,0.0093131,0.102099,-0.00103538,0,0,0,0,0,0,0,0.233646,-29.1307,-0.586229,26.5781,2.40753,1.89965,-0.0301054,
0.215531,-0.144269,0.104138,-2.15491,0.472357,0.240576,-0.0639508,0.00024415,-0.0129032,0.0108886,0.00961557,0.039198,0.0840813,-0.00170304,0.00923495,0.0193535,0.014809,-0.0602297,-0.00138958,-0.460884,0.0013526,0.0799752,-1.4444,1.13799,1.05796,0.434378,0.832425,-0.0170271,0.215514,-0.14374,0.103601,-2.15529,0.47084,0.236536,-0.0638678,9.24991e-05,-0.00866053,0.0147396,0.000296215,0.0093131,0.102099,-0.00103538,0,0,0,0,0,0,0,0.233646,-29.1307,-0.586229,26.5781,2.40753,1.89965,-0.0301054,
0.215534,-0.144374,0.104226,-2.15484,0.472679,0.241223,-0.0639643,0.00027098,-0.0129537,0.0109208,0.00958486,0.0394234,0.0834402,-0.00170036,0.0167689,-0.0315664,0.020082,-0.0191949,0.140854,-0.400686,0.00167501,0.0803477,-1.43541,1.14155,1.03749,0.439143,0.813668,-0.0169323,0.215494,-0.14401,0.104142,-2.15524,0.470892,0.240349,-0.0638655,-0.00233458,-0.00356521,0.0119982,0.000361093,0.0103965,0.109795,0.000377097,-0.303385,0.636916,-0.342683,0.00810971,0.135419,0.962034,0.176559,0.309024,-28.857,-0.33629,26.6534,2.56042,1.95916,-0.050247,
0.215537,-0.144482,0.104315,-2.15476,0.473008,0.241869,-0.0639778,0.00030629,-0.0130519,0.0109599,0.00959465,0.0397653,0.082888,-0.00169764,0.0220691,-0.0613381,0.0244407,0.00611906,0.21369,-0.345154,0.00170401,0.0803477,-1.43541,1.14155,1.03749,0.439143,0.813668,-0.0169323,0.215494,-0.14401,0.104142,-2.15524,0.470892,0.240349,-0.0638655,-0.00233458,-0.00356521,0.0119982,0.000361093,0.0103965,0.109795,0.000377097,0,0,0,0,0,0,0,0.309024,-28.857,-0.33629,26.6534,2.56042,1.95916,-0.050247,
0.215456,-0.144366,0.10454,-2.15496,0.472062,0.243832,-0.063933,0.000142607,-0.0127417,0.0108084,0.00938509,0.0391279,0.0826416,-0.00169362,-0.102302,0.193868,-0.0946295,-0.130975,-0.398356,-0.154007,0.00251121,0.0803527,-1.43544,1.14159,1.03754,0.436382,0.815151,-0.0169308,0.215494,-0.14401,0.104142,-2.15524,0.470892,0.240349,-0.0638655,-0.00233458,-0.00356521,0.0119982,0.000361093,0.0103965,0.109795,0.000377097,0,0,0,0,0,0,0,0.309024,-28.857,-0.33629,26.6534,2.56042,1.95916,-0.050247,
0.215454,-0.144464,0.104623,-2.15489,0.472369,0.244478,-0.0639464,5.86247e-05,-0.0126314,0.0107307,0.00928816,0.038974,0.0822651,-0.00168962,-0.0524888,0.0689097,-0.048615,-0.0605841,-0.0962167,-0.235338,0.00250117,0.0803526,-1.43544,1.14159,1.03754,0.436406,0.815134,-0.0169309,0.215494,-0.14401,0.104142,-2.15524,0.470892,0.240349,-0.0638655,-0.00233458,-0.00356521,0.0119982,0.000361093,0.0103965,0.109795,0.000377097,0,0,0,0,0,0,0,0.309024,-28.857,-0.33629,26.6534,2.56042,1.95916,-0.050247,
0.215453,-0.144565,0.104708,-2.15482,0.472687,0.24512,-0.0639598,3.2e-05,-0.0126458,0.0107075,0.00926363,0.0391121,0.0818415,-0.00168606,-0.0166404,-0.00897943,-0.0144815,-0.0153306,0.086307,-0.264722,0.00222093,0.0802619,-1.42437,1.14388,1.0197,0.440941,0.798035,-0.0168455,0.215455,-0.144132,0.104683,-2.15518,0.470937,0.243933,-0.0638608,-0.00627419,0.000216239,0.0128858,0.00177142,0.00795879,0.0980934,0.0012332,-0.49245,0.472681,0.110958,0.176291,-0.304708,-1.46268,0.107012,0.487552,-29.0038,-0.0863513,26.4035,2.49267,1.85296,-0.083206,
0.215398,-0.144438,0.105062,-2.15493,0.471991,0.247279,-0.0639267,-0.000111493,-0.0122708,0.0105769,0.00898217,0.0380116,0.0814611,-0.00168029,-0.0896831,0.234376,-0.0815944,-0.175908,-0.687767,-0.23773,0.00360711,0.0803375,-1.4247,1.14428,1.02019,0.413489,0.812369,-0.0168312,0.215455,-0.144132,0.104683,-2.15518,0.470937,0.243933,-0.0638608,-0.00627419,0.000216239,0.0128858,0.00177142,0.00795879,0.0980934,0.0012332,0,0,0,0,0,0,0,0.487552,-29.0038,-0.0863513,26.4035,2.49267,1.85296,-0.083206,
0.215395,-0.14453,0.105144,-2.15486,0.472275,0.247914,-0.06394,-0.000168338,-0.0121348,0.0105272,0.00884972,0.0375107,0.0810459,-0.00167564,-0.035528,0.084975,-0.0310604,-0.0827856,-0.313108,-0.259513,0.00290826,0.0803349,-1.42469,1.14427,1.02018,0.413756,0.812189,-0.0168314,0.215455,-0.144132,0.104683,-2.15518,0.470937,0.243933,-0.0638608,-0.00627419,0.000216239,0.0128858,0.00177142,0.00795879,0.0980934,0.0012332,0,0,0,0,0,0,0,0.487552,-29.0038,-0.0863513,26.4035,2.49267,1.85296,-0.083206,
0.215394,-0.144628,0.105229,-2.15479,0.472571,0.248546,-0.0639532,-0.000165963,-0.012149,0.0105339,0.00881439,0.037397,0.080641,-0.00167206,0.00148422,-0.00886554,0.00418234,-0.0220796,-0.0710731,-0.253062,0.00223676,0.0803329,-1.42467,1.14427,1.02017,0.414024,0.81201,-0.0168317,0.215455,-0.144132,0.104683,-2.15518,0.470937,0.243933,-0.0638608,-0.00627419,0.000216239,0.0128858,0.00177142,0.00795879,0.0980934,0.0012332,0,0,0,0,0,0,0,0.487552,-29.0038,-0.0863513,26.4035,2.49267,1.85296,-0.083206,
0.215394,-0.144729,0.105315,-2.15472,0.472875,0.249176,-0.0639665,-0.000125377,-0.0122531,0.0105777,0.0088395,0.0375248,0.0802634,-0.00166937,0.0253665,-0.0650448,0.0273642,0.0156928,0.0799307,-0.236011,0.00167988,0.0803313,-1.42466,1.14426,1.02016,0.414293,0.811831,-0.016832,0.215455,-0.144132,0.104683,-2.15518,0.470937,0.243933,-0.0638608,-0.00627419,0.000216239,0.0128858,0.00177142,0.00795879,0.0980934,0.0012332,0,0,0,0,0,0,0,0.487552,-29.0038,-0.0863513,26.4035,2.49267,1.85296,-0.083206,
0.215463,-0.14467,0.105627,-2.15493,0.471397,0.251093,-0.0639333,-4.9437e-05,-0.0121547,0.0106704,0.00873107,0.0324985,0.0821619,-0.00166471,0.0474623,0.0614971,0.0579551,-0.0677661,-3.14145,1.18657,0.00291593,0.0817851,-1.41688,1.1512,1.00671,0.156178,0.930343,-0.0166112,0.21546,-0.14428,0.10519,-2.1552,0.471035,0.247427,-0.0638686,-0.00220368,-0.00656794,0.0130004,-0.00112505,0.00500967,0.103808,-0.000538852,0.508814,-0.848022,0.0143133,-0.362059,-0.36864,0.714281,-0.221506,0.182071,-29.0791,-0.435472,26.705,2.5238,1.95275,-0.0227812,
0.215466,-0.144769,0.105716,-2.15486,0.471505,0.251809,-0.0639464,2.83471e-05,-0.0121883,0.01076,0.00871107,0.0287142,0.0836263,-0.00166106,0.0486151,-0.0210265,0.055994,-0.0125018,-2.36523,0.915252,0.00227846,0.0817388,-1.41673,1.15114,1.00663,0.158725,0.928629,-0.0166137,0.21546,-0.14428,0.10519,-2.1552,0.471035,0.247427,-0.0638686,-0.00220368,-0.00656794,0.0130004,-0.00112505,0.00500967,0.103808,-0.000538852,0,0,0,0,0,0,0,0.182071,-29.0791,-0.435472,26.705,2.5238,1.95275,-0.0227812,
0.215469,-0.144871,0.105805,-2.15479,0.471622,0.252523,-0.0639596,0.000104785,-0.0122995,0.0108453,0.00874512,0.0258855,0.0847493,-0.00165818,0.0477738,-0.0694584,0.0532909,0.0212813,-1.76789,0.701855,0.00179917,0.0816997,-1.4166,1.15108,1.00654,0.161282,0.926918,-0.0166163,0.21546,-0.14428,0.10519,-2.1552,0.471035,0.247427,-0.0638686,-0.00220368,-0.00656794,0.0130004,-0.00112505,0.00500967,0.103808,-0.000538852,0,0,0,0,0,0,0,0.182071,-29.0791,-0.435472,26.705,2.5238,1.95275,-0.0227812,
0.215473,-0.144975,0.105895,-2.15471,0.471745,0.253235,-0.0639728,0.000177425,-0.0124518,0.0109251,0.00880959,0.0237917,0.0855969,-0.00165586,0.0453999,-0.095215,0.049854,0.0402953,-1.30865,0.529788,0.00144859,0.081667,-1.41649,1.15101,1.00645,0.16385,0.925208,-0.0166188,0.21546,-0.14428,0.10519,-2.1552,0.471035,0.247427,-0.0638686,-0.00220368,-0.00656794,0.0130004,-0.00112505,0.00500967,0.103808,-0.000538852,0,0,0,0,0,0,0,0.182071,-29.0791,-0.435472,26.705,2.5238,1.95275,-0.0227812,
0.215681,-0.144712,0.105822,-2.15491,0.466507,0.253502,-0.0639134,0.00112511,-0.0124952,0.0118968,0.00875277,-0.00964305,0.101916,-0.00162451,0.592301,-0.0271007,0.607324,-0.0355154,-20.8967,10.1996,0.0195965,0.147098,-1.41198,1.23546,1.01449,-1.65586,1.87898,-0.0155683,0.215463,-0.14437,0.105781,-2.15519,0.471152,0.250884,-0.0638646,-0.00119824,-0.000434529,0.0162553,-0.00110655,0.00326909,0.100506,-0.000735426,0.12568,0.766676,0.406866,0.00231332,-0.217572,-0.412644,-0.0245717,0.106693,-29.2061,-0.610033,26.6058,2.5357,1.86577,-0.0301054,
0.215715,-0.144816,0.105943,-2.15484,0.46533,0.254858,-0.0639257,0.00174328,-0.0126027,0.0125485,0.00876212,-0.0371356,0.115442,-0.00160833,0.38636,-0.0671829,0.407333,0.00584805,-17.1828,8.45354,0.0101108,0.146197,-1.41136,1.23504,1.01375,-1.63735,1.86471,-0.0155817,0.215463,-0.14437,0.105781,-2.15519,0.471152,0.250884,-0.0638646,-0.00119824,-0.000434529,0.0162553,-0.00110655,0.00326909,0.100506,-0.000735426,0,0,0,0,0,0,0,0.106693,-29.2061,-0.610033,26.6058,2.5357,1.86577,-0.0301054,
0.215744,-0.144922,0.10606,-2.15477,0.46414,0.256224,-0.0639382,0.0021087,-0.0127356,0.0129477,0.00881089,-0.0594432,0.126486,-0.0015999,0.228385,-0.0831203,0.249486,0.0304794,-13.9423,6.90217,0.0052673,0.145324,-1.41082,1.2345,1.01299,-1.61881,1.85051,-0.0155951,0.215463,-0.14437,0.105781,-2.15519,0.471152,0.250884,-0.0638646,-0.00119824,-0.000434529,0.0162553,-0.00110655,0.00326909,0.100506,-0.000735426,0,0,0,0,0,0,0,0.106693,-29.2061,-0.610033,26.6058,2.5357,1.86577,-0.0301054,
0.216679,-0.144704,0.107279,-2.15503,0.451941,0.265782,-0.0638404,0.00733845,-0.0121111,0.0180463,0.00812256,-0.167948,0.18989,-0.00146345,3.26859,0.390335,3.18666,-0.43021,-67.8157,39.6277,0.0852873,1.42761,-1.00179,2.39308,0.941309,-7.17613,5.48886,-0.0119851,0.215463,-0.14437,0.105781,-2.15519,0.471152,0.250884,-0.0638646,-0.00119824,-0.000434529,0.0162553,-0.00110655,0.00326909,0.100506,-0.000735426,0,0,0,0,0,0,0,0.106693,-29.2061,-0.610033,26.6058,2.5357,1.86577,-0.0301054,
0.21688,-0.14478,0.107565,-2.15499,0.44703,0.269386,-0.0638492,0.0109083,-0.0115835,0.0215997,0.0076493,-0.257117,0.242014,-0.00139285,2.23119,0.329738,2.22084,-0.295788,-55.7304,32.5777,0.0441248,1.43776,-1.00452,2.42542,0.91833,-7.0253,5.3529,-0.0117796,0.215479,-0.144448,0.106354,-2.15519,0.471215,0.254311,-0.0638626,-0.00250892,-0.00242194,0.0178551,0.000543002,-0.0007113,0.0973461,0.00127574,-0.163835,-0.248427,0.199982,0.206194,-0.497549,-0.395044,0.251396,-0.171017,-29.0553,-0.76079,26.5781,2.5357,1.91247,-0.0767973,
0.217059,-0.144854,0.107831,-2.15494,0.442101,0.272998,-0.0638589,0.0131924,-0.0111239,0.0239176,0.00733476,-0.328923,0.28392,-0.00135628,1.42751,0.287289,1.44872,-0.196582,-44.8789,26.1909,0.0228559,1.44269,-1.0185,2.44873,0.911646,-6.88084,5.23433,-0.0116608,0.215479,-0.144448,0.106354,-2.15519,0.471215,0.254311,-0.0638626,-0.00250892,-0.00242194,0.0178551,0.000543002,-0.0007113,0.0973461,0.00127574,0,0,0,0,0,0,0,-0.171017,-29.0553,-0.76079,26.5781,2.5357,1.91247,-0.0767973,
0.217217,-0.144927,0.108077,-2.15489,0.4372,0.276587,-0.063869,0.0145191,-0.0107198,0.0252944,0.00713681,-0.385656,0.316864,-0.00133678,0.829236,0.252519,0.860479,-0.123721,-35.4577,20.5906,0.0121837,1.44331,-1.03089,2.465,0.904973,-6.7382,5.11713,-0.0115632,0.215479,-0.144448,0.106354,-2.15519,0.471215,0.254311,-0.0638626,-0.00250892,-0.00242194,0.0178551,0.000543002,-0.0007113,0.0973461,0.00127574,0,0,0,0,0,0,0,-0.171017,-29.0553,-0.76079,26.5781,2.5357,1.91247,-0.0767973,
0.219219,-0.143588,0.109088,-2.1556,0.431332,0.284888,-0.0634827,0.0320216,-0.00161755,0.0362463,0.00287306,-0.565882,0.445444,0.000216004,10.939,5.68893,6.84496,-2.66484,-112.642,80.3624,0.970492,5.86976,4.24241,4.45749,-1.00619,-14.3586,11.0374,0.0549393,0.215479,-0.144448,0.106354,-2.15519,0.471215,0.254311,-0.0638626,-0.00250892,-0.00242194,0.0178551,0.000543002,-0.0007113,0.0973461,0.00127574,0,0,0,0,0,0,0,-0.171017,-29.0553,-0.76079,26.5781,2.5357,1.91247,-0.0767973,
0.220026,-0.143274,0.109719,-2.15572,0.420624,0.292844,-0.0634359,0.045778,0.00655158,0.0447724,-0.00082716,-0.720393,0.555243,0.00134348,8.59777,5.1057,5.32876,-2.31264,-96.5693,68.6239,0.704671,6.52804,4.32773,4.90948,-1.07375,-14.3491,11.0094,0.0549669,0.215514,-0.144497,0.107143,-2.15522,0.468519,0.259291,-0.0638632,-0.00146315,-1.77458e-05,0.0330627,-0.00240659,-0.124313,0.192,0.00127394,0.130721,0.300525,1.90094,-0.368699,-15.4502,11.8317,-0.000224925,-0.246395,-29.1545,-0.76079,26.9034,1.74743,2.50298,-0.0703886,
0.220819,-0.142932,0.110337,-2.15585,0.409653,0.300946,-0.0633924,0.0564628,0.0137894,0.0512684,-0.00394272,-0.850596,0.64675,0.00216168,6.67801,4.52364,4.06005,-1.94722,-81.3769,57.1919,0.511376,7.1156,4.37736,5.32971,-1.10539,-14.3491,11.0094,0.0543653,0.215514,-0.144497,0.107143,-2.15522,0.468519,0.259291,-0.0638632,-0.00146315,-1.77458e-05,0.0330627,-0.00240659,-0.124313,0.192,0.00127394,0,0,0,0,0,0,0,-0.246395,-29.1545,-0.76079,26.9034,1.74743,2.50298,-0.0703886,
0.219042,-0.14516,0.11127,-2.157,0.42678,0.291718,-0.0633945,0.0656913,0.00791889,0.065106,-0.0132979,-0.94298,0.713304,0.00345966,5.7678,-3.66907,8.64849,-5.84697,-57.7397,41.5963,0.811238,6.50762,-0.644064,9.04025,-4.14735,-14.3491,11.0094,0.0842833,0.215514,-0.144497,0.107143,-2.15522,0.468519,0.259291,-0.0638632,-0.00146315,-1.77458e-05,0.0330627,-0.00240659,-0.124313,0.192,0.00127394,0,0,0,0,0,0,0,-0.246395,-29.1545,-0.76079,26.9034,1.74743,2.50298,-0.0703886,
0.219871,-0.145277,0.112243,-2.15741,0.415909,0.299777,-0.0633295,0.0732754,0.00341643,0.0764237,-0.0210824,-1.02616,0.772117,0.00439145,4.74004,-2.81404,7.07354,-4.86533,-51.9846,36.7583,0.582371,7.28212,-0.992002,9.65049,-4.25191,-14.3491,11.0094,0.0787901,0.215514,-0.144497,0.107143,-2.15522,0.468519,0.259291,-0.0638632,-0.00146315,-1.77458e-05,0.0330627,-0.00240659,-0.124313,0.192,0.00127394,0,0,0,0,0,0,0,-0.246395,-29.1545,-0.76079,26.9034,1.74743,2.50298,-0.0703886,
0.220701,-0.145386,0.113221,-2.15784,0.40481,0.307968,-0.0632678,0.079389,-8.42534e-08,0.0855709,-0.027543,-1.0984,0.822476,0.00505735,3.82104,-2.13532,5.71701,-4.03785,-45.1546,31.4744,0.416185,7.94765,-1.01814,10.1945,-4.57136,-14.3325,10.8699,0.0754734,0.216497,-0.144497,0.108948,-2.15544,0.448554,0.277092,-0.063866,0.0388783,0.0030358,0.0505924,0.000402118,-0.578353,0.611674,-0.00145449,5.04268,0.381694,2.19121,0.351089,-56.7549,52.4593,-0.341054,-0.627255,-28.7816,-1.18529,26.705,0.434567,3.38463,-0.0026396,
0.22153,-0.145487,0.114197,-2.15827,0.393573,0.316196,-0.0632095,0.084223,-0.00252887,0.0928728,-0.0327476,-1.15965,0.863675,0.00550202,3.02122,-1.58049,4.56369,-3.25292,-38.2795,25.7493,0.277918,8.60963,-1.21259,10.7026,-4.6338,-14.3325,10.8699,0.074355,0.216497,-0.144497,0.108948,-2.15544,0.448554,0.277092,-0.063866,0.0388783,0.0030358,0.0505924,0.000402118,-0.578353,0.611674,-0.00145449,0,0,0,0,0,0,0,-0.627255,-28.7816,-1.18529,26.705,0.434567,3.38463,-0.0026396,
0.220414,-0.144357,0.112662,-2.15755,0.401679,0.315359,-0.0633526,0.0887376,0.00019052,0.095263,-0.039127,-1.19721,0.898341,0.00642937,2.82164,1.69962,1.49388,-3.98712,-23.478,21.6662,0.579595,8.59909,2.61516,8.66126,-6.67833,-14.3325,10.8699,0.113251,0.216497,-0.144497,0.108948,-2.15544,0.448554,0.277092,-0.063866,0.0388783,0.0030358,0.0505924,0.000402118,-0.578353,0.611674,-0.00145449,0,0,0,0,0,0,0,-0.627255,-28.7816,-1.18529,26.705,0.434567,3.38463,-0.0026396,
0.221275,-0.14424,0.113511,-2.15809,0.390659,0.323724,-0.0632786,0.0925085,0.00306821,0.0974214,-0.0447224,-1.23328,0.927786,0.00699142,2.3568,1.79856,1.349,-3.4971,-22.5416,18.4031,0.351281,9.13247,2.34264,9.15053,-6.77125,-14.3325,10.8699,0.108736,0.216497,-0.144497,0.108948,-2.15544,0.448554,0.277092,-0.063866,0.0388783,0.0030358,0.0505924,0.000402118,-0.578353,0.611674,-0.00145449,0,0,0,0,0,0,0,-0.627255,-28.7816,-1.18529,26.705,0.434567,3.38463,-0.0026396,
0.222142,-0.144098,0.114363,-2.15864,0.379491,0.332113,-0.0632081,0.0956917,0.00601617,0.0992543,-0.0495239,-1.26581,0.951955,0.00735603,1.98953,1.84247,1.14557,-3.00095,-20.3335,15.1054,0.227879,9.28498,3.15562,9.31239,-7.87483,-14.4694,10.426,0.108493,0.220398,-0.143906,0.113036,-2.15713,0.399653,0.318119,-0.0638457,0.096618,-0.0322869,0.200027,-0.0998339,-1.42637,1.39152,0.000524896,7.21746,-4.41534,18.6793,-12.5295,-106.002,97.4813,0.247423,2.64179,-27.8056,2.43684,24.6857,0.00152227,3.4771,0.0303194,
0.223018,-0.143933,0.115216,-2.1592,0.368238,0.3405,-0.0631405,0.0984442,0.00893342,0.100718,-0.0535966,-1.29399,0.971238,0.00757544,1.7203,1.82328,0.91467,-2.54543,-17.6112,12.0522,0.137132,9.65533,3.041,9.67316,-7.93692,-14.4694,10.426,0.10353,0.220398,-0.143906,0.113036,-2.15713,0.399653,0.318119,-0.0638457,0.096618,-0.0322869,0.200027,-0.0998339,-1.42637,1.39152,0.000524896,0,0,0,0,0,0,0,2.64179,-27.8056,2.43684,24.6857,0.00152227,3.4771,0.0303194,
0.225139,-0.143617,0.117771,-2.15943,0.342933,0.363665,-0.0635256,0.10096,0.0103992,0.102192,-0.0544331,-1.31752,0.986367,0.00758987,1.57253,0.916111,0.921222,-0.522839,-14.705,9.45571,0.00901816,9.9801,3.0053,9.94848,-7.97536,-14.4694,10.426,0.0969608,0.220398,-0.143906,0.113036,-2.15713,0.399653,0.318119,-0.0638457,0.096618,-0.0322869,0.200027,-0.0998339,-1.42637,1.39152,0.000524896,0,0,0,0,0,0,0,2.64179,-27.8056,2.43684,24.6857,0.00152227,3.4771,0.0303194,
0.226009,-0.143472,0.118615,-2.15987,0.331647,0.371483,-0.0634682,0.102505,0.0119419,0.102843,-0.0545353,-1.33615,0.984542,0.00750733,0.965481,0.964158,0.407297,-0.0638728,-11.6459,-1.14105,-0.0515872,10.2574,3.05613,10.2164,-7.96814,-14.4694,10.426,0.0904011,0.220398,-0.143906,0.113036,-2.15713,0.399653,0.318119,-0.0638457,0.096618,-0.0322869,0.200027,-0.0998339,-1.42637,1.39152,0.000524896,0,0,0,0,0,0,0,2.64179,-27.8056,2.43684,24.6857,0.00152227,3.4771,0.0303194,
0.226862,-0.143322,0.119442,-2.1603,0.320402,0.378696,-0.0634149,0.103329,0.0133082,0.102951,-0.0541989,-1.35006,0.967956,0.00733788,0.515285,0.853988,0.0672104,0.210284,-8.68967,-10.3662,-0.105907,10.2491,3.51927,10.1486,-8.2751,-14.3658,10.0871,0.0902916,0.226153,-0.143354,0.119345,-2.16079,0.342053,0.368833,-0.0637957,0.246841,0.0691029,0.135336,-0.121995,-1.6019,1.54767,-0.00201936,18.7779,12.6737,-8.08636,-2.77008,-21.9415,19.5185,-0.318032,0.638309,-27.0598,-0.213304,23.3408,0.617672,3.81585,0.0980684,
0.231201,-0.141662,0.124403,-2.16326,0.285865,0.408639,-0.063609,0.103648,0.0162614,0.103258,-0.0548773,-1.33144,0.927932,0.00665237,0.199372,1.84572,0.192206,-0.424002,11.633,-25.0145,-0.428441,10.6464,3.61192,10.3536,-8.19865,-14.3658,9.13958,0.0835691,0.226153,-0.143354,0.119345,-2.16079,0.342053,0.368833,-0.0637957,0.246841,0.0691029,0.135336,-0.121995,-1.6019,1.54767,-0.00201936,0,0,0,0,0,0,0,0.638309,-27.0598,-0.213304,23.3408,0.617672,3.81585,0.0980684,
0.231994,-0.141457,0.125194,-2.16373,0.276627,0.414138,-0.0635803,0.102753,0.0181321,0.102376,-0.0555735,-1.2961,0.879819,0.00603926,-0.559849,1.16918,-0.551624,-0.435162,22.0935,-30.0706,-0.383196,10.7323,3.6148,10.415,-8.16435,-14.3658,8.17763,0.0788079,0.226153,-0.143354,0.119345,-2.16079,0.342053,0.368833,-0.0637957,0.246841,0.0691029,0.135336,-0.121995,-1.6019,1.54767,-0.00201936,0,0,0,0,0,0,0,0.638309,-27.0598,-0.213304,23.3408,0.617672,3.81585,0.0980684,
0.232754,-0.141263,0.125952,-2.1642,0.268206,0.419066,-0.0635535,0.101206,0.0193558,0.100851,-0.056214,-1.24739,0.827061,0.00550046,-0.966823,0.764807,-0.953074,-0.400302,30.4387,-32.9741,-0.336752,10.7657,3.60464,10.4513,-8.12775,-14.2933,7.30694,0.0743239,0.226153,-0.143354,0.119345,-2.16079,0.342053,0.368833,-0.0637957,0.246841,0.0691029,0.135336,-0.121995,-1.6019,1.54767,-0.00201936,0,0,0,0,0,0,0,0.638309,-27.0598,-0.213304,23.3408,0.617672,3.81585,0.0980684,
0.23349,-0.141075,0.126686,-2.16467,0.260578,0.423484,-0.0635294,0.099365,0.0201831,0.0990332,-0.0567629,-1.18863,0.772115,0.00500337,-1.1505,0.517062,-1.13611,-0.343036,36.7248,-34.3413,-0.310678,10.7572,3.59049,10.4629,-8.0859,-12.9191,6.52218,0.0686701,0.226153,-0.143354,0.119345,-2.16079,0.342053,0.368833,-0.0637957,0.246841,0.0691029,0.135336,-0.121995,-1.6019,1.54767,-0.00201936,0,0,0,0,0,0,0,0.638309,-27.0598,-0.213304,23.3408,0.617672,3.81585,0.0980684,
0.238745,-0.139452,0.130994,-2.16831,0.233031,0.455827,-0.0636773,0.0984183,0.0218427,0.098286,-0.0563339,-1.12491,0.726459,0.0043779,-0.591675,1.03724,-0.466997,0.268116,39.8288,-28.5352,-0.390917,10.4116,4.00639,10.1562,-8.40629,-11.6029,5.46426,0.0680625,0.234014,-0.141329,0.126108,-2.16591,0.279537,0.42354,-0.0636906,0.288833,0.0795861,0.14446,-0.155194,-1.83788,1.63166,0.000530596,5.24908,1.3104,1.14046,-4.14993,-29.4974,10.4986,0.318745,-1.89679,-30.9041,-2.08586,27.0026,0.764157,2.84081,0.0577852,
0.239472,-0.13925,0.131722,-2.16875,0.226864,0.459601,-0.0636624,0.096906,0.022529,0.0968307,-0.0560799,-1.0541,0.675505,0.00387272,-0.945227,0.428981,-0.909544,0.158746,44.2522,-31.8459,-0.315739,10.3172,3.99292,10.1032,-8.35155,-10.5047,4.85877,0.0646466,0.234014,-0.141329,0.126108,-2.16591,0.279537,0.42354,-0.0636906,0.288833,0.0795861,0.14446,-0.155194,-1.83788,1.63166,0.000530596,0,0,0,0,0,0,0,-1.89679,-30.9041,-2.08586,27.0026,0.764157,2.84081,0.0577852,
0.240179,-0.139063,0.132428,-2.1692,0.221389,0.462901,-0.0636487,0.0952129,0.0227136,0.0951216,-0.0559556,-0.980145,0.622921,0.00344081,-1.05814,0.115381,-1.06819,0.0777158,46.2246,-32.865,-0.269946,10.1793,3.97924,10.0018,-8.29073,-9.51187,4.31494,0.0612934,0.234014,-0.141329,0.126108,-2.16591,0.279537,0.42354,-0.0636906,0.288833,0.0795861,0.14446,-0.155194,-1.83788,1.63166,0.000530596,0,0,0,0,0,0,0,-1.89679,-30.9041,-2.08586,27.0026,0.764157,2.84081,0.0577852,
0.23822,-0.139502,0.13055,-2.1681,0.242787,0.451326,-0.0637939,0.0929152,0.0234602,0.0930091,-0.0547106,-0.904431,0.58209,0.00278485,-1.43611,0.466611,-1.32032,0.778099,47.321,-25.5197,-0.409975,9.81139,3.94714,9.68753,-8.15453,-7.77663,3.393,0.052409,0.234014,-0.141329,0.126108,-2.16591,0.279537,0.42354,-0.0636906,0.288833,0.0795861,0.14446,-0.155194,-1.83788,1.63166,0.000530596,0,0,0,0,0,0,0,-1.89679,-30.9041,-2.08586,27.0026,0.764157,2.84081,0.0577852,
0.238873,-0.139316,0.131204,-2.16851,0.238636,0.454156,-0.0637912,0.090642,0.0234174,0.0907402,-0.0539193,-0.827323,0.536401,0.00229543,-1.42072,-0.0267551,-1.4181,0.494554,48.1923,-28.5555,-0.305884,9.69267,3.84806,9.56993,-7.99067,-6.70759,2.74527,0.0460238,0.241599,-0.139595,0.133174,-2.17124,0.21429,0.475287,-0.0636661,0.226795,-0.0161577,0.178037,-0.178775,-1.84862,1.35342,-5.74791e-05,-7.75478,-11.968,4.19724,-2.94762,-1.34216,-34.7806,-0.0735093,-0.655026,-28.8292,-1.26067,24.1144,3.12164,0.692984,0.0101778,
0.239516,-0.139144,0.131845,-2.16892,0.235019,0.456584,-0.0637886,0.0886059,0.0230405,0.0886274,-0.0534698,-0.752288,0.489824,0.00190307,-1.27255,-0.235577,-1.32046,0.28093,46.8972,-29.1106,-0.245226,9.47184,3.82537,9.36371,-7.91307,-6.03441,2.4024,0.0412961,0.241599,-0.139595,0.133174,-2.17124,0.21429,0.475287,-0.0636661,0.226795,-0.0161577,0.178037,-0.178775,-1.84862,1.35342,-5.74791e-05,0,0,0,0,0,0,0,-0.655026,-28.8292,-1.26067,24.1144,3.12164,0.692984,0.0101778,
0.240155,-0.138978,0.13248,-2.16934,0.231848,0.458695,-0.063787,0.0868578,0.0225726,0.0867744,-0.0532613,-0.681104,0.444628,0.00156217,-1.0926,-0.292412,-1.15814,0.130349,44.4899,-28.2478,-0.213065,9.24699,3.80017,9.15035,-7.83291,-5.42435,2.10166,0.036293,0.241599,-0.139595,0.133174,-2.17124,0.21429,0.475287,-0.0636661,0.226795,-0.0161577,0.178037,-0.178775,-1.84862,1.35342,-5.74791e-05,0,0,0,0,0,0,0,-0.655026,-28.8292,-1.26067,24.1144,3.12164,0.692984,0.0101778,
