xiao-wang007/linearmpc_panda/paper_data/panda_torque_PD_controller_error_match_to_start_no_torque_ff/1/trajectory.csv
Commanded Joint 0 Position,Commanded Joint 1 Position,Commanded Joint 2 Position,Commanded Joint 3 Position,Commanded Joint 4 Position,Commanded Joint 5 Position,Commanded Joint 6 Position,Commanded Joint 0 Velocity,Commanded Joint 1 Velocity,Commanded Joint 2 Velocity,Commanded Joint 3 Velocity,Commanded Joint 4 Velocity,Commanded Joint 5 Velocity,Commanded Joint 6 Velocity,Commanded Joint 0 Acceleration,Commanded Joint 1 Acceleration,Commanded Joint 2 Acceleration,Commanded Joint 3 Acceleration,Commanded Joint 4 Acceleration,Commanded Joint 5 Acceleration,Commanded Joint 6 Acceleration,Commanded Joint 0 Torque,Commanded Joint 1 Torque,Commanded Joint 2 Torque,Commanded Joint 3 Torque,Commanded Joint 4 Torque,Commanded Joint 5 Torque,Commanded Joint 6 Torque,Actual Joint 0 Position,Actual Joint 1 Position,Actual Joint 2 Position,Actual Joint 3 Position,Actual Joint 4 Position,Actual Joint 5 Position,Actual Joint 6 Position,Actual Joint 0 Velocity,Actual Joint 1 Velocity,Actual Joint 2 Velocity,Actual Joint 3 Velocity,Actual Joint 4 Velocity,Actual Joint 5 Velocity,Actual Joint 6 Velocity,Actual Joint 0 Acceleration,Actual Joint 1 Acceleration,Actual Joint 2 Acceleration,Actual Joint 3 Acceleration,Actual Joint 4 Acceleration,Actual Joint 5 Acceleration,Actual Joint 6 Acceleration,Actual Joint 0 Torque,Actual Joint 1 Torque,Actual Joint 2 Torque,Actual Joint 3 Torque,Actual Joint 4 Torque,Actual Joint 5 Torque,Actual Joint 6 Torque,
-0.075663,0.0866087,0.108005,-1.71352,0.0173724,0.209835,0.0160762,0.00109678,0.0247461,0.000590909,-0.0318246,-0.00561423,0.0571392,-0.000394782,0.685491,15.4663,0.369318,-19.8904,-3.5089,35.712,-0.246738,0,0,0,0,0,0,0,-0.0757529,0.0851674,0.107958,-1.7108,0.017701,0.203846,0.0161157,0.00190501,-0.000128962,0.00137848,-0.00184132,-0.00347746,0.000365915,-0.000480335,0,0,0,0,0,0,0,0.134464,-38.065,0.488905,27.1533,0.795284,2.98638,-0.0365141,
-0.07573,0.085176,0.107978,-1.71081,0.0176872,0.203834,0.0161147,0.00101449,0.0198688,0.000596018,-0.0255088,-0.00445682,0.045633,-0.00032083,-0.0514351,-3.04832,0.00319333,3.94733,0.723383,-7.19138,0.0462196,0,0,0,0,0,0,0,-0.0757529,0.0851674,0.107958,-1.7108,0.017701,0.203846,0.0161157,0.00190501,-0.000128962,0.00137848,-0.00184132,-0.00347746,0.000365915,-0.000480335,0,0,0,0,0,0,0,0.134464,-38.065,0.488905,27.1533,0.795284,2.98638,-0.0365141,
-0.0757259,0.0851786,0.107982,-1.71081,0.0176906,0.203832,0.0161145,0.000916086,0.0159597,0.000570478,-0.0204431,-0.00348041,0.0364603,-0.000260122,-0.0615018,-2.44319,-0.0159628,3.16611,0.610259,-5.7329,0.0379426,0,0,0,0,0,0,0,-0.0757529,0.0851674,0.107958,-1.7108,0.017701,0.203846,0.0161157,0.00190501,-0.000128962,0.00137848,-0.00184132,-0.00347746,0.000365915,-0.000480335,0,0,0,0,0,0,0,0.134464,-38.065,0.488905,27.1533,0.795284,2.98638,-0.0365141,
-0.0757226,0.0851809,0.107985,-1.71081,0.0176947,0.203831,0.0161144,0.000813912,0.0128254,0.000528479,-0.0163812,-0.00268206,0.0291495,-0.000210592,-0.0638589,-1.9589,-0.0262492,2.53869,0.498966,-4.56929,0.030956,0,0,0,0,0,0,0,-0.0757552,0.0852259,0.107963,-1.71098,0.0177005,0.203839,0.0161128,0.000657508,0.000895256,0.00144354,-0.00512136,-0.00314566,0.000627361,-0.00167669,-0.155938,0.128027,0.00813184,-0.410005,0.0414745,0.0326807,-0.149544,0.209842,-37.4422,0.536512,27.0026,0.758663,3.05321,-0.00996382,
-0.0757221,0.0857116,0.107988,-1.7115,0.017497,0.204109,0.016117,0.00147716,0.0224031,0.00104175,-0.0261347,-0.00723243,0.0300791,-6.25528e-05,0.414528,5.98608,0.320797,-6.09599,-2.84398,0.581044,0.0925248,0,0,0,0,0,0,0,-0.0757552,0.0852259,0.107963,-1.71098,0.0177005,0.203839,0.0161128,0.000657508,0.000895256,0.00144354,-0.00512136,-0.00314566,0.000627361,-0.00167669,0,0,0,0,0,0,0,0.209842,-37.4422,0.536512,27.0026,0.758663,3.05321,-0.00996382,
-0.0757329,0.0861565,0.107959,-1.71176,0.0180811,0.203677,0.0161052,0.000912222,0.0290434,0.000115367,-0.0272022,0.00881607,0.0132535,-0.000344762,-0.353084,4.15019,-0.578992,-0.667168,10.0303,-10.516,-0.176381,0,0,0,0,0,0,0,-0.0757552,0.0852259,0.107963,-1.71098,0.0177005,0.203839,0.0161128,0.000657508,0.000895256,0.00144354,-0.00512136,-0.00314566,0.000627361,-0.00167669,0,0,0,0,0,0,0,0.209842,-37.4422,0.536512,27.0026,0.758663,3.05321,-0.00996382,
-0.0757683,0.0865131,0.107914,-1.71193,0.019146,0.202927,0.0160975,-0.0001563,0.0321514,-0.00103594,-0.026133,0.033676,-0.0081417,-0.000469933,-0.667826,1.94247,-0.719565,0.668242,15.5375,-13.372,-0.0782318,0,0,0,0,0,0,0,-0.0757552,0.0852259,0.107963,-1.71098,0.0177005,0.203839,0.0161128,0.000657508,0.000895256,0.00144354,-0.00512136,-0.00314566,0.000627361,-0.00167669,0,0,0,0,0,0,0,0.209842,-37.4422,0.536512,27.0026,0.758663,3.05321,-0.00996382,
-0.07581,0.0867933,0.107867,-1.71207,0.0204974,0.202009,0.016093,-0.00116673,0.0327262,-0.00199498,-0.0244038,0.0607265,-0.0294573,-0.000488306,-0.631522,0.35928,-0.599405,1.08079,16.9065,-13.3223,-0.0114833,0,0,0,0,0,0,0,-0.075743,0.0853004,0.107963,-1.71144,0.0177065,0.203965,0.0161164,0.00254733,0.00830036,0.00188922,-0.0207985,-0.00205057,-0.000736983,0.000389127,0.236228,0.925638,0.05571,-1.95964,0.136887,-0.170543,0.258227,0.0828892,-36.367,0.512709,26.4313,0.703732,2.95983,-0.0429228,
-0.075701,0.0858534,0.107995,-1.71202,0.0175019,0.204166,0.0161214,0.000116585,0.0400067,-0.000785249,-0.0340273,0.0434668,-0.0185588,-0.000266745,0.802075,4.55027,0.756085,-6.01472,-10.7873,6.81156,0.138476,0,0,0,0,0,0,0,-0.075743,0.0853004,0.107963,-1.71144,0.0177065,0.203965,0.0161164,0.00254733,0.00830036,0.00188922,-0.0207985,-0.00205057,-0.000736983,0.000389127,0,0,0,0,0,0,0,0.0828892,-36.367,0.512709,26.4313,0.703732,2.95983,-0.0429228,
-0.0757735,0.0863463,0.107871,-1.71225,0.0203686,0.20255,0.0160816,-0.00171686,0.0443257,-0.00372173,-0.0329701,0.106441,-0.0552289,-0.00120757,-1.1459,2.69937,-1.8353,0.66075,39.3586,-22.9188,-0.588015,0,0,0,0,0,0,0,-0.075743,0.0853004,0.107963,-1.71144,0.0177065,0.203965,0.0161164,0.00254733,0.00830036,0.00188922,-0.0207985,-0.00205057,-0.000736983,0.000389127,0,0,0,0,0,0,0,0.0828892,-36.367,0.512709,26.4313,0.703732,2.95983,-0.0429228,
-0.0758877,0.0867213,0.107732,-1.71241,0.0250134,0.199957,0.01606,-0.00422973,0.044836,-0.00644985,-0.0303197,0.201273,-0.109016,-0.00150703,-1.57054,0.318961,-1.70508,1.65652,59.2706,-33.6168,-0.187164,0,0,0,0,0,0,0,-0.075743,0.0853004,0.107963,-1.71144,0.0177065,0.203965,0.0161164,0.00254733,0.00830036,0.00188922,-0.0207985,-0.00205057,-0.000736983,0.000389127,0,0,0,0,0,0,0,0.0828892,-36.367,0.512709,26.4313,0.703732,2.95983,-0.0429228,
-0.0759844,0.0870015,0.107625,-1.71255,0.0306664,0.196791,0.0160506,-0.005802,0.0428741,-0.0078459,-0.0278458,0.302344,-0.166354,-0.00143871,-0.982672,-1.22618,-0.87253,1.54619,63.1689,-35.8362,0.0426981,0,0,0,0,0,0,0,-0.0757418,0.0856813,0.107963,-1.71209,0.017733,0.203958,0.0161127,0.000354636,0.0225432,0.000281661,-0.0154236,-0.000709387,-0.00330531,-0.00150498,-0.274087,1.78035,-0.200944,0.671852,0.167648,-0.321041,-0.236764,0.106693,-36.6924,0.389723,26.4551,0.911556,2.86095,-0.00996382,
-0.0757131,0.0863018,0.107982,-1.71268,0.0175321,0.204173,0.016117,-0.00392611,0.0498102,-0.00578677,-0.0370341,0.236851,-0.127706,-0.0010457,1.17244,4.33501,1.28696,-5.74268,-40.9326,24.1547,0.245633,0,0,0,0,0,0,0,-0.0757418,0.0856813,0.107963,-1.71209,0.017733,0.203958,0.0161127,0.000354636,0.0225432,0.000281661,-0.0154236,-0.000709387,-0.00330531,-0.00150498,0,0,0,0,0,0,0,0.106693,-36.6924,0.389723,26.4551,0.911556,2.86095,-0.00996382,
-0.0753627,0.0867829,0.108318,-1.71295,0.0196459,0.20057,0.0161938,0.00561971,0.0518753,0.00375587,-0.0364894,0.242325,-0.19224,0.00108346,5.96614,1.29069,5.96415,0.340422,3.42111,-40.3335,1.33073,0,0,0,0,0,0,0,-0.0757418,0.0856813,0.107963,-1.71209,0.017733,0.203958,0.0161127,0.000354636,0.0225432,0.000281661,-0.0154236,-0.000709387,-0.00330531,-0.00150498,0,0,0,0,0,0,0,0.106693,-36.6924,0.389723,26.4551,0.911556,2.86095,-0.00996382,
-0.0747248,0.0871444,0.108902,-1.71316,0.0234262,0.194564,0.0162805,0.0204426,0.0505394,0.0176103,-0.0343601,0.288369,-0.303947,0.00303531,9.2643,-0.834889,8.659,1.33079,28.7771,-69.8169,1.21991,0,0,0,0,0,0,0,-0.0757418,0.0856813,0.107963,-1.71209,0.017733,0.203958,0.0161127,0.000354636,0.0225432,0.000281661,-0.0154236,-0.000709387,-0.00330531,-0.00150498,0,0,0,0,0,0,0,0.106693,-36.6924,0.389723,26.4551,0.911556,2.86095,-0.00996382,
-0.0738632,0.0874172,0.109698,-1.71337,0.0284163,0.186977,0.0163741,0.0378948,0.0472508,0.0339795,-0.0327858,0.355446,-0.432835,0.00476725,10.9077,-2.05537,10.2308,0.983951,41.9237,-80.5553,1.08246,0,0,0,0,0,0,0,-0.0757943,0.0863648,0.107893,-1.7129,0.019887,0.203652,0.0161179,-0.00511924,0.0180593,-0.00399791,-0.0243712,0.188556,-0.0420249,0.000836649,-0.684235,-0.560489,-0.534947,-1.11844,23.6581,-4.83995,0.292704,0.487552,-36.2441,0.786451,26.2567,1.8637,2.33727,-0.0566557,
-0.0757637,0.0869778,0.107926,-1.71351,0.0205938,0.203618,0.0161314,0.0310823,0.0531259,0.0280018,-0.0414783,0.302026,-0.347114,0.00415171,-4.25785,3.67191,-3.73609,-5.4328,-33.3876,53.5757,-0.384712,0,0,0,0,0,0,0,-0.0757943,0.0863648,0.107893,-1.7129,0.019887,0.203652,0.0161179,-0.00511924,0.0180593,-0.00399791,-0.0243712,0.188556,-0.0420249,0.000836649,0,0,0,0,0,0,0,0.487552,-36.2441,0.786451,26.2567,1.8637,2.33727,-0.0566557,
-0.0751948,0.0871596,0.108519,-1.7144,0.0228947,0.200297,0.016396,0.0390872,0.0470455,0.0372357,-0.0553181,0.299143,-0.36071,0.00993544,5.00306,-3.80022,5.77121,-8.64987,-1.80176,-8.49759,3.61483,0,0,0,0,0,0,0,-0.0757943,0.0863648,0.107893,-1.7129,0.019887,0.203652,0.0161179,-0.00511924,0.0180593,-0.00399791,-0.0243712,0.188556,-0.0420249,0.000836649,0,0,0,0,0,0,0,0.487552,-36.2441,0.786451,26.2567,1.8637,2.33727,-0.0566557,
-0.074241,0.087174,0.109481,-1.71534,0.0265978,0.194604,0.0165611,0.0551159,0.037995,0.0538383,-0.0678609,0.331892,-0.430895,0.0120744,10.018,-5.6566,10.3767,-7.83923,20.4678,-43.8654,1.33683,0,0,0,0,0,0,0,-0.0757943,0.0863648,0.107893,-1.7129,0.019887,0.203652,0.0161179,-0.00511924,0.0180593,-0.00399791,-0.0243712,0.188556,-0.0420249,0.000836649,0,0,0,0,0,0,0,0.487552,-36.2441,0.786451,26.2567,1.8637,2.33727,-0.0566557,
-0.0757637,0.0869778,0.107926,-1.71351,0.0205938,0.203618,0.0161314,0.0448592,0.0457212,0.0438888,-0.0695383,0.283183,-0.345562,0.0099974,-6.41048,4.82889,-6.21844,-1.04842,-30.4433,53.3332,-1.2981,0,0,0,0,0,0,0,-0.0759319,0.087513,0.107684,-1.71359,0.0269862,0.200008,0.0161204,-0.00182107,0.044529,0.00455888,-0.0120304,0.281552,-0.188511,0.000870883,0.412271,3.30872,1.0696,1.54259,11.6245,-18.3108,0.00427927,1.65393,-37.1922,1.93696,26.3043,1.88202,1.39519,-0.0365141,
-0.075008,0.0870081,0.10863,-1.71482,0.0226427,0.20065,0.0165119,0.0547799,0.037334,0.0527205,-0.0883192,0.27777,-0.35065,0.0175097,6.20047,-5.24198,5.5198,-11.7381,-3.38294,-3.18007,4.6952,0,0,0,0,0,0,0,-0.0759319,0.087513,0.107684,-1.71359,0.0269862,0.200008,0.0161204,-0.00182107,0.044529,0.00455888,-0.0120304,0.281552,-0.188511,0.000870883,0,0,0,0,0,0,0,1.65393,-37.1922,1.93696,26.3043,1.88202,1.39519,-0.0365141,
-0.073796,0.0869162,0.109771,-1.71622,0.0260591,0.195269,0.0167097,0.0741229,0.0275694,0.0706895,-0.105689,0.307625,-0.415027,0.0189516,12.0894,-6.10292,11.2306,-10.8558,18.6597,-40.2358,0.901196,0,0,0,0,0,0,0,-0.0759319,0.087513,0.107684,-1.71359,0.0269862,0.200008,0.0161204,-0.00182107,0.044529,0.00455888,-0.0120304,0.281552,-0.188511,0.000870883,0,0,0,0,0,0,0,1.65393,-37.1922,1.93696,26.3043,1.88202,1.39519,-0.0365141,
-0.072294,0.0868258,0.111195,-1.71763,0.0307006,0.188192,0.0167896,0.0968485,0.0197954,0.0921522,-0.119836,0.362138,-0.508946,0.0171589,14.2035,-4.85875,13.4142,-8.84236,34.0701,-58.699,-1.12045,0,0,0,0,0,0,0,-0.0759319,0.087513,0.107684,-1.71359,0.0269862,0.200008,0.0161204,-0.00182107,0.044529,0.00455888,-0.0120304,0.281552,-0.188511,0.000870883,0,0,0,0,0,0,0,1.65393,-37.1922,1.93696,26.3043,1.88202,1.39519,-0.0365141,
-0.0758529,0.0882413,0.107768,-1.71427,0.028191,0.199272,0.0161357,0.0794542,0.0340428,0.0758145,-0.112781,0.319832,-0.425547,0.0141086,-10.8714,8.90463,-10.211,4.4093,-26.4413,52.1242,-1.90648,0,0,0,0,0,0,0,-0.0759319,0.087513,0.107684,-1.71359,0.0269862,0.200008,0.0161204,-0.00182107,0.044529,0.00455888,-0.0120304,0.281552,-0.188511,0.000870883,0,0,0,0,0,0,0,1.65393,-37.1922,1.93696,26.3043,1.88202,1.39519,-0.0365141,
-0.0749898,0.0881954,0.108651,-1.71609,0.030419,0.19619,0.0166003,0.0851396,0.0260867,0.0827224,-0.135792,0.311564,-0.417487,0.0229028,3.55337,-4.97255,4.31741,-14.3818,-5.16749,5.03753,5.4964,0,0,0,0,0,0,0,-0.0758348,0.0886958,0.107863,-1.7147,0.0349027,0.191942,0.0161384,0.00745112,0.0376827,0.0154412,-0.0438141,0.298202,-0.234151,0.000600198,1.15902,-0.855793,1.36029,-3.97296,2.08124,-5.705,-0.0338356,3.02265,-37.9659,3.13905,26.3043,1.53412,1.44189,-0.0163725,
-0.0736332,0.0880228,0.109988,-1.71806,0.0339014,0.190805,0.0168044,0.102029,0.0165543,0.0996053,-0.157911,0.336311,-0.468628,0.023424,10.5556,-5.95775,10.5519,-13.8245,15.4672,-31.9631,0.325778,0,0,0,0,0,0,0,-0.0758348,0.0886958,0.107863,-1.7147,0.0349027,0.191942,0.0161384,0.00745112,0.0376827,0.0154412,-0.0438141,0.298202,-0.234151,0.000600198,0,0,0,0,0,0,0,3.02265,-37.9659,3.13905,26.3043,1.53412,1.44189,-0.0163725,
-0.0719827,0.0878542,0.111594,-1.72006,0.0385966,0.183761,0.01684,0.122885,0.00902822,0.119827,-0.176293,0.38643,-0.551007,0.0196288,13.0353,-4.7038,12.6383,-11.4888,31.3246,-51.4872,-2.37202,0,0,0,0,0,0,0,-0.0758348,0.0886958,0.107863,-1.7147,0.0349027,0.191942,0.0161384,0.00745112,0.0376827,0.0154412,-0.0438141,0.298202,-0.234151,0.000600198,0,0,0,0,0,0,0,3.02265,-37.9659,3.13905,26.3043,1.53412,1.44189,-0.0163725,
-0.0732782,0.0877168,0.110316,-1.71889,0.0416199,0.183161,0.0168789,0.136768,-0.00512428,0.132888,-0.196464,0.405477,-0.575941,0.0207886,8.6772,-8.84531,8.16324,-12.6068,11.9039,-15.5836,0.724861,0,0,0,0,0,0,0,-0.0758348,0.0886958,0.107863,-1.7147,0.0349027,0.191942,0.0161384,0.00745112,0.0376827,0.0154412,-0.0438141,0.298202,-0.234151,0.000600198,0,0,0,0,0,0,0,3.02265,-37.9659,3.13905,26.3043,1.53412,1.44189,-0.0163725,
-0.071451,0.0873194,0.112074,-1.72119,0.0465764,0.176226,0.0168659,0.155095,-0.0140342,0.150275,-0.214693,0.448294,-0.634115,0.016307,11.4542,-5.56872,10.8668,-11.3931,26.7608,-36.3589,-2.80102,0,0,0,0,0,0,0,-0.0750033,0.08931,0.108775,-1.71745,0.0425967,0.18352,0.016288,0.0345026,0.00788614,0.0367545,-0.076065,0.304868,-0.340004,0.0016078,3.38144,-3.72457,2.66416,-4.03137,0.833309,-13.2315,0.12595,3.9867,-36.8153,4.03566,25.0864,1.5094,1.6671,0.00376909,
-0.0694654,0.0870113,0.113984,-1.72356,0.052511,0.168212,0.016764,0.173714,-0.0189288,0.16796,-0.231054,0.507,-0.707656,0.0104972,11.6366,-3.05908,11.0535,-10.2254,36.6916,-45.9626,-3.63108,0,0,0,0,0,0,0,-0.0750033,0.08931,0.108775,-1.71745,0.0425967,0.18352,0.016288,0.0345026,0.00788614,0.0367545,-0.076065,0.304868,-0.340004,0.0016078,0,0,0,0,0,0,0,3.9867,-36.8153,4.03566,25.0864,1.5094,1.6671,0.00376909,
-0.0674016,0.0867521,0.115968,-1.72603,0.0592391,0.15945,0.0166936,0.190568,-0.0216242,0.183977,-0.246447,0.573802,-0.785154,0.00663838,10.5335,-1.68464,10.0108,-9.62084,41.7512,-48.4364,-2.41178,0,0,0,0,0,0,0,-0.0750033,0.08931,0.108775,-1.71745,0.0425967,0.18352,0.016288,0.0345026,0.00788614,0.0367545,-0.076065,0.304868,-0.340004,0.0016078,0,0,0,0,0,0,0,3.9867,-36.8153,4.03566,25.0864,1.5094,1.6671,0.00376909,
-0.0726948,0.088479,0.111022,-1.72135,0.0503703,0.173348,0.0164721,0.186476,-0.0277893,0.180164,-0.249619,0.569175,-0.776673,0.00516841,-2.55751,-3.85324,-2.3834,-1.98211,-2.89242,5.30043,-0.918735,0,0,0,0,0,0,0,-0.0750033,0.08931,0.108775,-1.71745,0.0425967,0.18352,0.016288,0.0345026,0.00788614,0.0367545,-0.076065,0.304868,-0.340004,0.0016078,0,0,0,0,0,0,0,3.9867,-36.8153,4.03566,25.0864,1.5094,1.6671,0.00376909,
-0.0710789,0.0881228,0.112582,-1.72359,0.0557504,0.166087,0.0163766,0.189576,-0.0311372,0.183127,-0.255606,0.589843,-0.802873,0.0017464,1.93763,-2.09238,1.85201,-3.74224,12.9175,-16.3747,-2.13876,0,0,0,0,0,0,0,-0.073371,0.0896723,0.110568,-1.72199,0.0516768,0.172387,0.0164538,0.0676298,-0.00237494,0.0608318,-0.128085,0.329128,-0.405858,0.000591244,4.1409,-1.28263,3.00967,-6.50253,3.0325,-8.23177,-0.127069,4.82379,-37.0653,4.81325,23.8129,1.87652,1.08391,0.050461,
-0.0693102,0.0878102,0.114286,-1.72595,0.0619625,0.157885,0.016311,0.19588,-0.0327239,0.189108,-0.263524,0.627176,-0.847331,-0.000241723,3.93989,-0.991739,3.73809,-4.94861,23.3335,-27.7862,-1.24257,0,0,0,0,0,0,0,-0.073371,0.0896723,0.110568,-1.72199,0.0516768,0.172387,0.0164538,0.0676298,-0.00237494,0.0608318,-0.128085,0.329128,-0.405858,0.000591244,0,0,0,0,0,0,0,4.82379,-37.0653,4.81325,23.8129,1.87652,1.08391,0.050461,
-0.069901,0.0886509,0.113929,-1.72816,0.0666006,0.153431,0.0162328,0.190851,-0.0353743,0.18426,-0.267888,0.649895,-0.867528,-0.00189666,-3.14268,-1.65647,-3.02986,-2.7272,14.1991,-12.623,-1.03434,0,0,0,0,0,0,0,-0.073371,0.0896723,0.110568,-1.72199,0.0516768,0.172387,0.0164538,0.0676298,-0.00237494,0.0608318,-0.128085,0.329128,-0.405858,0.000591244,0,0,0,0,0,0,0,4.82379,-37.0653,4.81325,23.8129,1.87652,1.08391,0.050461,
-0.068438,0.0883145,0.11534,-1.73057,0.0732587,0.145205,0.0161119,0.189254,-0.0367077,0.182669,-0.274588,0.68637,-0.899675,-0.00453991,-0.998188,-0.833378,-0.994581,-4.18756,22.7972,-20.0921,-1.65203,0,0,0,0,0,0,0,-0.073371,0.0896723,0.110568,-1.72199,0.0516768,0.172387,0.0164538,0.0676298,-0.00237494,0.0608318,-0.128085,0.329128,-0.405858,0.000591244,0,0,0,0,0,0,0,4.82379,-37.0653,4.81325,23.8129,1.87652,1.08391,0.050461,
-0.0669169,0.0880254,0.116805,-1.73314,0.0804793,0.137252,0.0159747,0.189431,-0.0365937,0.182764,-0.283898,0.72961,-0.918569,-0.00706191,0.110821,0.0712643,0.0596295,-5.81898,27.0247,-11.8088,-1.57625,0,0,0,0,0,0,0,-0.0704636,0.0891446,0.113582,-1.7287,0.0662446,0.154558,0.0164708,0.0892903,-0.0444913,0.112278,-0.215449,0.460055,-0.593541,-0.00120929,2.70756,-5.26454,6.43074,-10.9204,16.3659,-23.4604,-0.225067,5.73627,-36.5932,5.66224,23.1186,1.79046,1.21667,0.00376909,
-0.0653592,0.0877898,0.118304,-1.73583,0.0881043,0.130054,0.0158407,0.190488,-0.0351647,0.183693,-0.294569,0.774314,-0.914811,-0.00900042,0.660364,0.893107,0.580374,-6.66937,27.9402,2.3486,-1.21157,0,0,0,0,0,0,0,-0.0704636,0.0891446,0.113582,-1.7287,0.0662446,0.154558,0.0164708,0.0892903,-0.0444913,0.112278,-0.215449,0.460055,-0.593541,-0.00120929,0,0,0,0,0,0,0,5.73627,-36.5932,5.66224,23.1186,1.79046,1.21667,0.00376909,
-0.0658562,0.0876373,0.118019,-1.73822,0.0911896,0.130672,0.0159625,0.184757,-0.0357065,0.178116,-0.301404,0.799146,-0.866055,-0.0101536,-3.58169,-0.338644,-3.4854,-4.27157,15.52,30.4728,-0.720712,0,0,0,0,0,0,0,-0.0704636,0.0891446,0.113582,-1.7287,0.0662446,0.154558,0.0164708,0.0892903,-0.0444913,0.112278,-0.215449,0.460055,-0.593541,-0.00120929,0,0,0,0,0,0,0,5.73627,-36.5932,5.66224,23.1186,1.79046,1.21667,0.00376909,
-0.0645028,0.0873872,0.119322,-1.74093,0.098727,0.126162,0.0158576,0.18164,-0.0348157,0.175055,-0.308991,0.827753,-0.805575,-0.0107466,-1.94813,0.556754,-1.9131,-4.7423,17.8793,37.7997,-0.370643,0,0,0,0,0,0,0,-0.0704636,0.0891446,0.113582,-1.7287,0.0662446,0.154558,0.0164708,0.0892903,-0.0444913,0.112278,-0.215449,0.460055,-0.593541,-0.00120929,0,0,0,0,0,0,0,5.73627,-36.5932,5.66224,23.1186,1.79046,1.21667,0.00376909,
-0.0631081,0.0871834,0.120664,-1.74369,0.106515,0.122568,0.0157688,0.180181,-0.0329475,0.173589,-0.316165,0.856901,-0.73433,-0.0108151,-0.911833,1.16765,-0.91632,-4.48389,18.2175,44.5286,-0.0428015,0,0,0,0,0,0,0,-0.066538,0.0883625,0.117663,-1.7369,0.083851,0.133079,0.0164568,0.126883,-0.0203265,0.128456,-0.230705,0.566033,-0.685231,0.000485041,4.69904,3.02059,2.02232,-1.90705,13.2472,-11.4613,0.211792,3.73279,-35.6926,3.93648,22.0474,2.63366,0.314871,-0.0429228,
-0.0616866,0.0870185,0.122031,-1.74646,0.114483,0.119874,0.0156938,0.179683,-0.0304822,0.173046,-0.322205,0.884714,-0.654793,-0.0105285,-0.311805,1.54082,-0.339302,-3.77443,17.3834,49.7103,0.179087,0,0,0,0,0,0,0,-0.066538,0.0883625,0.117663,-1.7369,0.083851,0.133079,0.0164568,0.126883,-0.0203265,0.128456,-0.230705,0.566033,-0.685231,0.000485041,0,0,0,0,0,0,0,3.73279,-35.6926,3.93648,22.0474,2.63366,0.314871,-0.0429228,
-0.0617443,0.0873009,0.122256,-1.74734,0.110867,0.11901,0.0160645,0.175809,-0.0295623,0.169233,-0.325624,0.894863,-0.58286,-0.0102859,-2.42094,0.574934,-2.38314,-2.13739,6.34316,44.9583,0.151657,0,0,0,0,0,0,0,-0.066538,0.0883625,0.117663,-1.7369,0.083851,0.133079,0.0164568,0.126883,-0.0203265,0.128456,-0.230705,0.566033,-0.685231,0.000485041,0,0,0,0,0,0,0,3.73279,-35.6926,3.93648,22.0474,2.63366,0.314871,-0.0429228,
-0.0604259,0.0871319,0.123523,-1.75005,0.118603,0.11741,0.0160058,0.173606,-0.0278745,0.167053,-0.328322,0.909304,-0.506281,-0.00969621,-1.3769,1.05488,-1.36271,-1.68615,9.02542,47.862,0.368545,0,0,0,0,0,0,0,-0.066538,0.0883625,0.117663,-1.7369,0.083851,0.133079,0.0164568,0.126883,-0.0203265,0.128456,-0.230705,0.566033,-0.685231,0.000485041,0,0,0,0,0,0,0,3.73279,-35.6926,3.93648,22.0474,2.63366,0.314871,-0.0429228,
-0.0590836,0.086995,0.124812,-1.75274,0.126519,0.116516,0.0159605,0.172443,-0.0257207,0.165885,-0.329938,0.925344,-0.427376,-0.00888969,-0.727007,1.34613,-0.730012,-1.00981,10.0252,49.3151,0.504071,0,0,0,0,0,0,0,-0.0617233,0.0878815,0.122319,-1.74655,0.107713,0.109316,0.0164081,0.149701,-0.000144234,0.140399,-0.307665,0.774363,-0.641139,-0.00248297,2.85232,2.52279,1.49289,-9.61994,26.0413,5.51157,-0.371001,1.40003,-37.5176,1.7624,25.3323,2.10815,1.88592,-0.0365141,
-0.0553739,0.0876426,0.128404,-1.76034,0.145412,0.103141,0.0162594,0.17058,-0.0206576,0.164,-0.329989,0.93951,-0.332448,-0.00716127,-1.16441,3.16443,-1.17831,-0.0317323,8.85349,59.3304,1.08027,0,0,0,0,0,0,0,-0.0617233,0.0878815,0.122319,-1.74655,0.107713,0.109316,0.0164081,0.149701,-0.000144234,0.140399,-0.307665,0.774363,-0.641139,-0.00248297,0,0,0,0,0,0,0,1.40003,-37.5176,1.7624,25.3323,2.10815,1.88592,-0.0365141,
-0.0540682,0.0876488,0.129656,-1.76291,0.153482,0.104031,0.0162687,0.169105,-0.016373,0.162506,-0.328285,0.953344,-0.243704,-0.00549535,-0.921708,2.67787,-0.93347,1.06466,8.6465,55.4647,1.0412,0,0,0,0,0,0,0,-0.0617233,0.0878815,0.122319,-1.74655,0.107713,0.109316,0.0164081,0.149701,-0.000144234,0.140399,-0.307665,0.774363,-0.641139,-0.00248297,0,0,0,0,0,0,0,1.40003,-37.5176,1.7624,25.3323,2.10815,1.88592,-0.0365141,
-0.052769,0.0876606,0.130902,-1.76542,0.161623,0.10533,0.0162884,0.167765,-0.0128025,0.161162,-0.325243,0.966206,-0.162483,-0.0039044,-0.837389,2.23155,-0.840023,1.90148,8.03881,50.763,0.994344,0,0,0,0,0,0,0,-0.0617233,0.0878815,0.122319,-1.74655,0.107713,0.109316,0.0164081,0.149701,-0.000144234,0.140399,-0.307665,0.774363,-0.641139,-0.00248297,0,0,0,0,0,0,0,1.40003,-37.5176,1.7624,25.3323,2.10815,1.88592,-0.0365141,
-0.0514815,0.0876761,0.132137,-1.76786,0.169815,0.106956,0.0163177,0.166398,-0.00985419,0.159807,-0.321217,0.977758,-0.0893577,-0.00238947,-0.854494,1.84269,-0.84726,2.51594,7.21999,45.7036,0.946828,0,0,0,0,0,0,0,-0.0568138,0.0872457,0.127215,-1.75802,0.135671,0.0918143,0.0163701,0.134674,-0.0316681,0.158459,-0.367033,0.876704,-0.386752,0.000670024,-1.87838,-3.94049,2.25751,-7.42101,12.7926,31.7983,0.394124,1.04694,-35.2443,1.3141,25.257,1.6687,2.8344,-0.083206,
-0.0506108,0.0871361,0.133166,-1.77116,0.174587,0.0925176,0.0164812,0.164131,-0.00691271,0.15759,-0.318237,0.983623,-0.0355737,-0.000879235,-1.41689,1.83843,-1.38516,1.86256,3.66554,33.615,0.943897,0,0,0,0,0,0,0,-0.0568138,0.0872457,0.127215,-1.75802,0.135671,0.0918143,0.0163701,0.134674,-0.0316681,0.158459,-0.367033,0.876704,-0.386752,0.000670024,0,0,0,0,0,0,0,1.04694,-35.2443,1.3141,25.257,1.6687,2.8344,-0.083206,
-0.0493839,0.0871814,0.134343,-1.77353,0.182707,0.0943044,0.0165354,0.161978,-0.00439735,0.155492,-0.31408,0.98991,0.0162114,0.000652488,-1.34546,1.5721,-1.31158,2.5981,3.92931,32.3657,0.957327,0,0,0,0,0,0,0,-0.0568138,0.0872457,0.127215,-1.75802,0.135671,0.0918143,0.0163701,0.134674,-0.0316681,0.158459,-0.367033,0.876704,-0.386752,0.000670024,0,0,0,0,0,0,0,1.04694,-35.2443,1.3141,25.257,1.6687,2.8344,-0.083206,
-0.0481767,0.087229,0.135501,-1.77585,0.190865,0.0963482,0.0166002,0.159761,-0.00232643,0.153351,-0.309136,0.995866,0.0640658,0.00214116,-1.38545,1.29433,-1.33781,3.08995,3.72233,29.909,0.930419,0,0,0,0,0,0,0,-0.0568138,0.0872457,0.127215,-1.75802,0.135671,0.0918143,0.0163701,0.134674,-0.0316681,0.158459,-0.367033,0.876704,-0.386752,0.000670024,0,0,0,0,0,0,0,1.04694,-35.2443,1.3141,25.257,1.6687,2.8344,-0.083206,
-0.0469895,0.0872766,0.136646,-1.7781,0.198892,0.0985657,0.0166702,0.157488,-0.000671058,0.151288,-0.303524,0.997388,0.106689,0.00346299,-1.42075,1.0346,-1.28972,3.50763,0.951061,26.6392,0.826145,0,0,0,0,0,0,0,-0.0568138,0.0872457,0.127215,-1.75802,0.135671,0.0918143,0.0163701,0.134674,-0.0316681,0.158459,-0.367033,0.876704,-0.386752,0.000670024,0,0,0,0,0,0,0,1.04694,-35.2443,1.3141,25.257,1.6687,2.8344,-0.083206,
-0.0458728,0.0888336,0.138107,-1.78262,0.206508,0.0889569,0.0166787,0.155188,0.00426138,0.14914,-0.300438,0.988153,0.133206,0.00448391,-1.43777,3.08278,-1.34239,1.92868,-5.7713,16.5734,0.638073,0,0,0,0,0,0,0,-0.0518545,0.0875355,0.132368,-1.77004,0.167126,0.0832603,0.0163742,0.14275,0.0467873,0.154959,-0.357911,0.973593,-0.118132,0.00105648,1.00952,9.80693,-0.437507,1.14027,12.1111,33.5775,0.0483071,0.717655,-38.6403,0.889601,29.9899,1.58905,3.76275,-0.050247,
-0.0447024,0.0889964,0.139232,-1.78483,0.213431,0.0910329,0.0167456,0.153412,0.00747842,0.147422,-0.295449,0.963595,0.158465,0.00525983,-1.10992,2.01065,-1.07364,3.11812,-15.3492,15.787,0.484949,0,0,0,0,0,0,0,-0.0518545,0.0875355,0.132368,-1.77004,0.167126,0.0832603,0.0163742,0.14275,0.0467873,0.154959,-0.357911,0.973593,-0.118132,0.00105648,0,0,0,0,0,0,0,0.717655,-38.6403,0.889601,29.9899,1.58905,3.76275,-0.050247,
-0.0435296,0.0891317,0.140357,-1.78694,0.219503,0.0932096,0.0168079,0.152048,0.00936503,0.146065,-0.289225,0.922665,0.181189,0.0057655,-0.852649,1.17913,-0.847908,3.88997,-25.5813,14.2025,0.316045,0,0,0,0,0,0,0,-0.0518545,0.0875355,0.132368,-1.77004,0.167126,0.0832603,0.0163742,0.14275,0.0467873,0.154959,-0.357911,0.973593,-0.118132,0.00105648,0,0,0,0,0,0,0,0.717655,-38.6403,0.889601,29.9899,1.58905,3.76275,-0.050247,
-0.0423586,0.0892429,0.14148,-1.78898,0.224664,0.0954414,0.0168672,0.150914,0.0102731,0.144922,-0.282308,0.867159,0.200746,0.00609443,-0.708685,0.56753,-0.714759,4.32332,-34.6909,12.2227,0.205581,0,0,0,0,0,0,0,-0.0518545,0.0875355,0.132368,-1.77004,0.167126,0.0832603,0.0163742,0.14275,0.0467873,0.154959,-0.357911,0.973593,-0.118132,0.00105648,0,0,0,0,0,0,0,0.717655,-38.6403,0.889601,29.9899,1.58905,3.76275,-0.050247,
-0.0506361,0.0878664,0.133536,-1.77279,0.175016,0.0833136,0.0164171,0.151191,0.0164908,0.145142,-0.294457,0.890978,0.161929,0.00594919,0.172956,3.88606,0.137601,-7.59298,14.8868,-24.2606,-0.0907731,0,0,0,0,0,0,0,-0.0463626,0.0882564,0.137437,-1.7818,0.199883,0.0818614,0.0163788,0.179337,-0.0136013,0.135704,-0.343478,0.988486,0.0240005,0.00368827,4.57334,-7.54857,-2.40687,1.80403,1.86161,17.7666,0.328974,-1.61908,-38.7157,-0.963121,27.7484,1.39404,2.68792,-0.0026396,
-0.0494221,0.0881603,0.134698,-1.77541,0.182979,0.0840851,0.0164733,0.151304,0.0205397,0.145161,-0.30107,0.91187,0.14883,0.00616467,0.0710267,2.53057,0.0117625,-4.13305,13.0572,-8.18651,0.134676,0,0,0,0,0,0,0,-0.0463626,0.0882564,0.137437,-1.7818,0.199883,0.0818614,0.0163788,0.179337,-0.0136013,0.135704,-0.343478,0.988486,0.0240005,0.00368827,0,0,0,0,0,0,0,-1.61908,-38.7157,-0.963121,27.7484,1.39404,2.68792,-0.0026396,
-0.0482228,0.0884181,0.135846,-1.77792,0.190995,0.0853793,0.0165394,0.151025,0.0228768,0.14483,-0.303561,0.929885,0.151418,0.00658397,-0.17443,1.46067,-0.206624,-1.55699,11.2594,1.61755,0.26206,0,0,0,0,0,0,0,-0.0463626,0.0882564,0.137437,-1.7818,0.199883,0.0818614,0.0163788,0.179337,-0.0136013,0.135704,-0.343478,0.988486,0.0240005,0.00368827,0,0,0,0,0,0,0,-1.61908,-38.7157,-0.963121,27.7484,1.39404,2.68792,-0.0026396,
-0.0401588,0.0886179,0.14339,-1.79276,0.230061,0.0892809,0.0166925,0.151123,0.0202152,0.144911,-0.29286,0.851694,0.170557,0.00666258,0.0612652,-1.66345,0.0506456,6.68826,-48.8689,11.9617,0.0491298,0,0,0,0,0,0,0,-0.0463626,0.0882564,0.137437,-1.7818,0.199883,0.0818614,0.0163788,0.179337,-0.0136013,0.135704,-0.343478,0.988486,0.0240005,0.00368827,0,0,0,0,0,0,0,-1.61908,-38.7157,-0.963121,27.7484,1.39404,2.68792,-0.0026396,
-0.0389653,0.0886857,0.144534,-1.79469,0.233508,0.0913453,0.0167479,0.150735,0.0178678,0.144523,-0.282699,0.767527,0.188057,0.00671413,-0.242489,-1.46717,-0.242502,6.35056,-52.6045,10.9374,0.032218,0,0,0,0,0,0,0,-0.0411439,0.089098,0.143035,-1.79236,0.229978,0.0854735,0.0163928,0.120984,0.0471155,0.193761,-0.285091,0.762819,0.155591,-0.00105414,-7.29417,7.5896,7.25704,7.29842,-28.2083,16.4488,-0.592801,-1.41278,-36.494,-0.986925,27.6016,0.911556,2.05804,0.0101778,
-0.0377924,0.0887452,0.145658,-1.79657,0.236154,0.0934559,0.0168028,0.149913,0.0157824,0.143717,-0.273219,0.680182,0.20321,0.00674464,-0.514083,-1.30336,-0.504078,5.92464,-54.5907,9.47099,0.0190684,0,0,0,0,0,0,0,-0.0411439,0.089098,0.143035,-1.79236,0.229978,0.0854735,0.0163928,0.120984,0.0471155,0.193761,-0.285091,0.762819,0.155591,-0.00105414,0,0,0,0,0,0,0,-1.41278,-36.494,-0.986925,27.6016,0.911556,2.05804,0.0101778,
-0.0366406,0.0887976,0.146761,-1.79841,0.238071,0.0955832,0.0168589,0.148723,0.0139364,0.142559,-0.264475,0.592056,0.215749,0.00679828,-0.743535,-1.15377,-0.723663,5.4654,-55.0787,7.83661,0.0335248,0,0,0,0,0,0,0,-0.0411439,0.089098,0.143035,-1.79236,0.229978,0.0854735,0.0163928,0.120984,0.0471155,0.193761,-0.285091,0.762819,0.155591,-0.00105414,0,0,0,0,0,0,0,-1.41278,-36.494,-0.986925,27.6016,0.911556,2.05804,0.0101778,
-0.0338362,0.090278,0.15006,-1.8039,0.24331,0.0959738,0.016736,0.147575,0.0138953,0.141417,-0.256086,0.483093,0.220338,0.00690708,-0.717256,-0.0256694,-0.713721,5.24296,-68.1017,2.86838,0.0680024,0,0,0,0,0,0,0,-0.0411439,0.089098,0.143035,-1.79236,0.229978,0.0854735,0.0163928,0.120984,0.0471155,0.193761,-0.285091,0.762819,0.155591,-0.00105414,0,0,0,0,0,0,0,-1.41278,-36.494,-0.986925,27.6016,0.911556,2.05804,0.0101778,
-0.0327233,0.0903703,0.151124,-1.80564,0.243229,0.0978866,0.0167962,0.145883,0.0134233,0.139753,-0.248382,0.38445,0.22409,0.00702973,-1.05749,-0.294985,-1.04004,4.81469,-61.652,2.34469,0.0766583,0,0,0,0,0,0,0,-0.0359302,0.0910657,0.148085,-1.80165,0.255259,0.0903467,0.0164049,0.192289,0.0970925,0.100465,-0.239976,0.709662,0.153009,0.00469827,8.91319,6.24713,-11.6619,5.63937,-6.64463,-0.322635,0.719051,-0.424923,-40.3105,-0.0109729,27.5739,1.72363,1.80627,-0.0227812,
-0.0316398,0.0904492,0.152161,-1.80735,0.242777,0.0997897,0.016857,0.143794,0.0127118,0.13771,-0.241333,0.296244,0.22685,0.00714568,-1.30608,-0.444689,-1.27692,4.40586,-55.1288,1.72499,0.0724666,0,0,0,0,0,0,0,-0.0359302,0.0910657,0.148085,-1.80165,0.255259,0.0903467,0.0164049,0.192289,0.0970925,0.100465,-0.239976,0.709662,0.153009,0.00469827,0,0,0,0,0,0,0,-0.424923,-40.3105,-0.0109729,27.5739,1.72363,1.80627,-0.0227812,
-0.0287308,0.0928342,0.155021,-1.8123,0.260178,0.100059,0.0167907,0.142854,0.0135943,0.136766,-0.234525,0.217215,0.223571,0.00726729,-0.587472,0.551543,-0.590082,4.25488,-49.3931,-2.04953,0.0760081,0,0,0,0,0,0,0,-0.0359302,0.0910657,0.148085,-1.80165,0.255259,0.0903467,0.0164049,0.192289,0.0970925,0.100465,-0.239976,0.709662,0.153009,0.00469827,0,0,0,0,0,0,0,-0.424923,-40.3105,-0.0109729,27.5739,1.72363,1.80627,-0.0227812,
-0.0276577,0.0929454,0.156046,-1.81392,0.259133,0.101736,0.0168524,0.14111,0.013654,0.135037,-0.228143,0.14765,0.220772,0.0073563,-1.0896,0.0373101,-1.08064,3.98904,-43.4783,-1.74924,0.055629,0,0,0,0,0,0,0,-0.0359302,0.0910657,0.148085,-1.80165,0.255259,0.0903467,0.0164049,0.192289,0.0970925,0.100465,-0.239976,0.709662,0.153009,0.00469827,0,0,0,0,0,0,0,-0.424923,-40.3105,-0.0109729,27.5739,1.72363,1.80627,-0.0227812,
-0.0266215,0.0930378,0.157036,-1.8155,0.257913,0.103398,0.0169139,0.138794,0.0132328,0.132757,-0.222159,0.0876104,0.218176,0.00742405,-1.44749,-0.263214,-1.42493,3.74015,-37.5247,-1.62243,0.0423471,0,0,0,0,0,0,0,-0.0301655,0.0916221,0.152874,-1.81069,0.272399,0.0970929,0.0164085,0.173022,-0.0617759,0.133653,-0.287669,0.31236,0.204369,0.000591829,-2.40836,-19.8586,4.1485,-5.96167,-49.6627,6.41993,-0.513305,-2.12292,-35.518,-1.23686,23.4915,0.447384,1.50139,0.00376909,
-0.0256192,0.0931164,0.157992,-1.81706,0.256577,0.105041,0.0169749,0.136093,0.012552,0.130111,-0.216542,0.0366998,0.215614,0.00746424,-1.68815,-0.425552,-1.65333,3.51035,-31.8191,-1.60113,0.0251159,0,0,0,0,0,0,0,-0.0301655,0.0916221,0.152874,-1.81069,0.272399,0.0970929,0.0164085,0.173022,-0.0617759,0.133653,-0.287669,0.31236,0.204369,0.000591829,0,0,0,0,0,0,0,-2.12292,-35.518,-1.23686,23.4915,0.447384,1.50139,0.00376909,
-0.0232395,0.0911633,0.159544,-1.81986,0.270339,0.105845,0.0167885,0.134844,0.00943924,0.128948,-0.209455,0.00112351,0.211161,0.00743792,-0.781102,-1.94545,-0.726963,4.42959,-22.2352,-2.78339,-0.0164495,0,0,0,0,0,0,0,-0.0301655,0.0916221,0.152874,-1.81069,0.272399,0.0970929,0.0164085,0.173022,-0.0617759,0.133653,-0.287669,0.31236,0.204369,0.000591829,0,0,0,0,0,0,0,-2.12292,-35.518,-1.23686,23.4915,0.447384,1.50139,0.00376909,
-0.0222425,0.0911489,0.160498,-1.82129,0.269116,0.107381,0.0168462,0.1328,0.00719099,0.126996,-0.203227,-0.0296888,0.207326,0.0073942,-1.27714,-1.40516,-1.21994,3.89253,-19.2577,-2.39646,-0.0273236,0,0,0,0,0,0,0,-0.0301655,0.0916221,0.152874,-1.81069,0.272399,0.0970929,0.0164085,0.173022,-0.0617759,0.133653,-0.287669,0.31236,0.204369,0.000591829,0,0,0,0,0,0,0,-2.12292,-35.518,-1.23686,23.4915,0.447384,1.50139,0.00376909,
-0.0212834,0.0911424,0.161414,-1.82269,0.267841,0.108896,0.0169028,0.130216,0.00559108,0.124511,-0.197663,-0.0556207,0.203753,0.00733086,-1.61491,-0.999941,-1.5535,3.47737,-16.2075,-2.23358,-0.0395913,0,0,0,0,0,0,0,-0.0254109,0.0924312,0.158385,-1.81831,0.277115,0.103063,0.0164221,0.0535604,0.0713509,0.258585,-0.193653,0.0186879,0.162,0.000953855,-14.9327,16.6409,15.6164,11.7521,-36.709,-5.2961,0.0452532,-1.46435,-36.1925,-0.637804,27.0779,1.13128,2.29058,-0.0365141,
-0.0203588,0.0911425,0.162297,-1.82407,0.266545,0.110385,0.0169583,0.127289,0.00447358,0.121688,-0.192606,-0.0768951,0.20022,0.00725185,-1.82941,-0.698439,-1.76427,3.16078,-13.2965,-2.20789,-0.0493793,0,0,0,0,0,0,0,-0.0254109,0.0924312,0.158385,-1.81831,0.277115,0.103063,0.0164221,0.0535604,0.0713509,0.258585,-0.193653,0.0186879,0.162,0.000953855,0,0,0,0,0,0,0,-1.46435,-36.1925,-0.637804,27.0779,1.13128,2.29058,-0.0365141,
-0.0191663,0.0936953,0.164366,-1.82728,0.271846,0.110999,0.0167491,0.124897,0.00622331,0.119303,-0.188772,-0.0908185,0.192505,0.00710664,-1.49506,1.09358,-1.49067,2.39611,-8.70212,-4.82158,-0.0907579,0,0,0,0,0,0,0,-0.0254109,0.0924312,0.158385,-1.81831,0.277115,0.103063,0.0164221,0.0535604,0.0713509,0.258585,-0.193653,0.0186879,0.162,0.000953855,0,0,0,0,0,0,0,-1.46435,-36.1925,-0.637804,27.0779,1.13128,2.29058,-0.0365141,
-0.0182806,0.0937831,0.165208,-1.82863,0.270666,0.112278,0.0167999,0.122058,0.00717362,0.116504,-0.184747,-0.102151,0.185983,0.00695364,-1.77435,0.593944,-1.74948,2.51566,-7.0829,-4.07644,-0.0956232,0,0,0,0,0,0,0,-0.0254109,0.0924312,0.158385,-1.81831,0.277115,0.103063,0.0164221,0.0535604,0.0713509,0.258585,-0.193653,0.0186879,0.162,0.000953855,0,0,0,0,0,0,0,-1.46435,-36.1925,-0.637804,27.0779,1.13128,2.29058,-0.0365141,
-0.0174283,0.0938574,0.166019,-1.82994,0.269497,0.11354,0.0168491,0.118956,0.00759826,0.113465,-0.180613,-0.110946,0.180346,0.00679423,-1.93898,0.2654,-1.89921,2.58369,-5.49682,-3.52309,-0.0996299,0,0,0,0,0,0,0,-0.0204808,0.0941536,0.163895,-1.82508,0.276762,0.10749,0.0164255,0.00459851,0.0606048,0.281043,-0.184284,-0.039832,0.0986917,0.000342986,-6.12024,-1.34327,2.80732,1.17113,-7.315,-7.91355,-0.0763586,-1.26202,-40.0884,-0.685411,27.8754,1.14959,2.42974,-0.00996382,
-0.0148643,0.0953204,0.169264,-1.83329,0.271814,0.113565,0.0167057,0.115861,0.00870821,0.110402,-0.17577,-0.112991,0.170938,0.00652935,-1.93455,0.693721,-1.91446,3.0268,-1.27831,-5.88013,-0.165553,0,0,0,0,0,0,0,-0.0204808,0.0941536,0.163895,-1.82508,0.276762,0.10749,0.0164255,0.00459851,0.0606048,0.281043,-0.184284,-0.039832,0.0986917,0.000342986,0,0,0,0,0,0,0,-1.26202,-40.0884,-0.685411,27.8754,1.14959,2.42974,-0.00996382,
-0.0140708,0.0954087,0.170017,-1.8345,0.27085,0.114632,0.0167478,0.112527,0.0091738,0.107127,-0.17088,-0.114492,0.163423,0.00627722,-2.08327,0.290988,-2.04652,3.05619,-0.938017,-4.6967,-0.15758,0,0,0,0,0,0,0,-0.0204808,0.0941536,0.163895,-1.82508,0.276762,0.10749,0.0164255,0.00459851,0.0606048,0.281043,-0.184284,-0.039832,0.0986917,0.000342986,0,0,0,0,0,0,0,-1.26202,-40.0884,-0.685411,27.8754,1.14959,2.42974,-0.00996382,
-0.0133083,0.095484,0.170739,-1.83567,0.269901,0.115693,0.0167883,0.109085,0.00922071,0.103762,-0.166009,-0.115324,0.157276,0.00603428,-2.1515,0.02932,-2.10301,3.04425,-0.51996,-3.84219,-0.151833,0,0,0,0,0,0,0,-0.0204808,0.0941536,0.163895,-1.82508,0.276762,0.10749,0.0164255,0.00459851,0.0606048,0.281043,-0.184284,-0.039832,0.0986917,0.000342986,0,0,0,0,0,0,0,-1.26202,-40.0884,-0.685411,27.8754,1.14959,2.42974,-0.00996382,
-0.0125741,0.0955491,0.171434,-1.83681,0.268971,0.116744,0.0168272,0.105623,0.00900513,0.100391,-0.161198,-0.115494,0.152093,0.00579936,-2.16343,-0.134737,-2.10718,3.00684,-0.106368,-3.2392,-0.146827,0,0,0,0,0,0,0,-0.0157722,0.0942813,0.16846,-1.83185,0.274172,0.11195,0.0164268,0.00533637,-0.0690321,0.251238,-0.230531,-0.10224,0.151708,-0.000259552,0.0922328,-16.2046,-3.72565,-5.78097,-7.801,6.6271,-0.0753173,-0.829586,-35.2681,-0.110155,23.5907,1.62567,1.40893,0.0101778,
-0.0107543,0.0937317,0.173257,-1.83865,0.269313,0.117431,0.0166586,0.102813,0.00673677,0.0977008,-0.154921,-0.111909,0.146199,0.00550935,-1.75625,-1.41772,-1.6814,3.92353,2.24087,-3.68378,-0.181256,0,0,0,0,0,0,0,-0.0157722,0.0942813,0.16846,-1.83185,0.274172,0.11195,0.0164268,0.00533637,-0.0690321,0.251238,-0.230531,-0.10224,0.151708,-0.000259552,0,0,0,0,0,0,0,-0.829586,-35.2681,-0.110155,23.5907,1.62567,1.40893,0.0101778,
-0.0100536,0.0937228,0.173922,-1.83966,0.268539,0.118407,0.0166919,0.0997701,0.00516743,0.094781,-0.149212,-0.108868,0.141368,0.00524014,-1.90207,-0.980837,-1.82484,3.56808,1.90051,-3.0192,-0.168256,0,0,0,0,0,0,0,-0.0157722,0.0942813,0.16846,-1.83185,0.274172,0.11195,0.0164268,0.00533637,-0.0690321,0.251238,-0.230531,-0.10224,0.151708,-0.000259552,0,0,0,0,0,0,0,-0.829586,-35.2681,-0.110155,23.5907,1.62567,1.40893,0.0101778,
-0.00938166,0.093721,0.174559,-1.84064,0.267771,0.119371,0.0167238,0.0966134,0.00408919,0.0917481,-0.143952,-0.10629,0.137195,0.00498771,-1.97295,-0.673905,-1.89557,3.28737,1.61101,-2.60836,-0.15777,0,0,0,0,0,0,0,-0.0157722,0.0942813,0.16846,-1.83185,0.274172,0.11195,0.0164268,0.00533637,-0.0690321,0.251238,-0.230531,-0.10224,0.151708,-0.000259552,0,0,0,0,0,0,0,-0.829586,-35.2681,-0.110155,23.5907,1.62567,1.40893,0.0101778,
-0.00873629,0.0937244,0.17517,-1.8416,0.267008,0.120318,0.0167541,0.0934248,0.00335513,0.0886815,-0.139047,-0.104104,0.133427,0.0047479,-1.99283,-0.458785,-1.91665,3.06556,1.36633,-2.35465,-0.149884,0,0,0,0,0,0,0,-0.0119583,0.0951873,0.172674,-1.83773,0.270716,0.116745,0.0164336,0.0245434,0.0608618,0.195631,-0.15852,-0.114681,0.134495,0.00200799,2.40088,16.2367,-6.95085,9.0014,-1.55518,-2.15166,0.283442,-0.29797,-36.7439,0.238966,27.8238,2.10174,1.6671,-0.050247,
-0.00774249,0.0964504,0.176657,-1.84424,0.265955,0.121848,0.0166106,0.0901304,0.00547353,0.0854186,-0.13527,-0.102778,0.126667,0.00447451,-2.05901,1.324,-2.03933,2.36058,0.829156,-4.22515,-0.170865,0,0,0,0,0,0,0,-0.0119583,0.0951873,0.172674,-1.83773,0.270716,0.116745,0.0164336,0.0245434,0.0608618,0.195631,-0.15852,-0.114681,0.134495,0.00200799,0,0,0,0,0,0,0,-0.29797,-36.7439,0.238966,27.8238,2.10174,1.6671,-0.050247,
-0.00715295,0.0965426,0.177211,-1.84516,0.265178,0.122639,0.0166362,0.0868429,0.00668384,0.082188,-0.131225,-0.101634,0.121089,0.00422057,-2.05472,0.756447,-2.0191,2.5283,0.714876,-3.48641,-0.158714,0,0,0,0,0,0,0,-0.0119583,0.0951873,0.172674,-1.83773,0.270716,0.116745,0.0164336,0.0245434,0.0608618,0.195631,-0.15852,-0.114681,0.134495,0.00200799,0,0,0,0,0,0,0,-0.29797,-36.7439,0.238966,27.8238,2.10174,1.6671,-0.050247,
-0.00658738,0.0966198,0.177742,-1.84604,0.264404,0.123423,0.0166604,0.0836135,0.00727725,0.0790318,-0.127025,-0.100672,0.116474,0.00398121,-2.01838,0.370878,-1.97259,2.625,0.600968,-2.88424,-0.149596,0,0,0,0,0,0,0,-0.0119583,0.0951873,0.172674,-1.83773,0.270716,0.116745,0.0164336,0.0245434,0.0608618,0.195631,-0.15852,-0.114681,0.134495,0.00200799,0,0,0,0,0,0,0,-0.29797,-36.7439,0.238966,27.8238,2.10174,1.6671,-0.050247,
-0.00604416,0.0966853,0.178252,-1.84688,0.263629,0.124201,0.0166831,0.0804712,0.00745941,0.0759728,-0.122749,-0.0999006,0.112628,0.00375405,-1.96392,0.11385,-1.91191,2.6726,0.482291,-2.40393,-0.141975,0,0,0,0,0,0,0,-0.0119583,0.0951873,0.172674,-1.83773,0.270716,0.116745,0.0164336,0.0245434,0.0608618,0.195631,-0.15852,-0.114681,0.134495,0.00200799,0,0,0,0,0,0,0,-0.29797,-36.7439,0.238966,27.8238,2.10174,1.6671,-0.050247,
-0.00493917,0.0983823,0.17946,-1.84809,0.262505,0.124727,0.0165558,0.0773692,0.00932057,0.0728962,-0.118864,-0.09963,0.107394,0.00349314,-1.93872,1.16323,-1.92284,2.42786,0.169163,-3.27133,-0.163074,0,0,0,0,0,0,0,-0.00853665,0.0967714,0.176104,-1.84242,0.267206,0.120241,0.0164275,0.0933069,0.0964053,0.0943433,-0.102815,-0.116563,0.0887525,0.000121968,8.59544,4.44294,-12.661,6.96322,-0.235226,-5.71784,-0.235752,-0.500302,-39.8384,-0.288683,28.0499,2.05963,1.89965,0.00376909,
-0.00444308,0.0984918,0.179923,-1.84887,0.261713,0.125418,0.016574,0.0742978,0.0101955,0.0698767,-0.114681,-0.0995124,0.103178,0.00325023,-1.91967,0.546828,-1.88724,2.61454,0.0734835,-2.63481,-0.151815,0,0,0,0,0,0,0,-0.00853665,0.0967714,0.176104,-1.84242,0.267206,0.120241,0.0164275,0.0933069,0.0964053,0.0943433,-0.102815,-0.116563,0.0887525,0.000121968,0,0,0,0,0,0,0,-0.500302,-39.8384,-0.288683,28.0499,2.05963,1.89965,0.00376909,
-0.00396886,0.0985825,0.180364,-1.84961,0.260918,0.126109,0.0165908,0.0712936,0.0104229,0.0669412,-0.110327,-0.0994975,0.0998265,0.00302113,-1.87762,0.142099,-1.83464,2.72111,0.00931803,-2.09467,-0.14319,0,0,0,0,0,0,0,-0.00853665,0.0967714,0.176104,-1.84242,0.267206,0.120241,0.0164275,0.0933069,0.0964053,0.0943433,-0.102815,-0.116563,0.0887525,0.000121968,0,0,0,0,0,0,0,-0.500302,-39.8384,-0.288683,28.0499,2.05963,1.89965,0.00376909,
-0.00792885,0.0979463,0.176641,-1.84341,0.26651,0.120721,0.0164065,0.0722296,0.0377123,0.0669827,-0.1128,-0.0969902,0.0918415,0.00189117,0.585046,17.0559,0.0259298,-1.54561,1.56706,-4.99062,-0.706223,0,0,0,0,0,0,0,-0.00853665,0.0967714,0.176104,-1.84242,0.267206,0.120241,0.0164275,0.0933069,0.0964053,0.0943433,-0.102815,-0.116563,0.0887525,0.000121968,0,0,0,0,0,0,0,-0.500302,-39.8384,-0.288683,28.0499,2.05963,1.89965,0.00376909,
-0.00736526,0.0987377,0.177161,-1.84457,0.265765,0.121359,0.0164282,0.0718736,0.0499543,0.0665966,-0.119301,-0.0962245,0.0894397,0.00205442,-0.222499,7.65122,-0.241301,-4.06335,0.47854,-1.50113,0.102031,0,0,0,0,0,0,0,-0.00506522,0.0971971,0.178137,-1.84708,0.264426,0.123097,0.0164228,0.165882,-0.0527778,-0.0195401,-0.170585,-0.0776348,0.0723377,0.000586495,9.07194,-18.6479,-14.2354,-8.47126,4.86606,-2.05184,0.0580658,-1.3374,-36.1171,-0.387865,24.2374,1.54602,1.47484,0.00376909,
-0.00682336,0.0993242,0.177662,-1.84569,0.264948,0.121974,0.0164527,0.0710463,0.0546248,0.0657942,-0.123538,-0.0974035,0.0869324,0.00225699,-0.517082,2.91906,-0.501507,-2.64816,-0.736845,-1.56706,0.126608,0,0,0,0,0,0,0,-0.00506522,0.0971971,0.178137,-1.84708,0.264426,0.123097,0.0164228,0.165882,-0.0527778,-0.0195401,-0.170585,-0.0776348,0.0723377,0.000586495,0,0,0,0,0,0,0,-1.3374,-36.1171,-0.387865,24.2374,1.54602,1.47484,0.00376909,
-0.00630057,0.099775,0.178145,-1.84674,0.264087,0.122562,0.0164763,0.0699068,0.0549707,0.0647146,-0.125072,-0.0994476,0.0842367,0.0023954,-0.712166,0.216217,-0.674771,-0.958198,-1.27755,-1.68482,0.0865018,0,0,0,0,0,0,0,-0.00506522,0.0971971,0.178137,-1.84708,0.264426,0.123097,0.0164228,0.165882,-0.0527778,-0.0195401,-0.170585,-0.0776348,0.0723377,0.000586495,0,0,0,0,0,0,0,-1.3374,-36.1171,-0.387865,24.2374,1.54602,1.47484,0.00376909,
-0.00579598,0.100128,0.178612,-1.84772,0.263206,0.123141,0.0164983,0.0685401,0.0527968,0.0634331,-0.124463,-0.101583,0.0818575,0.00246754,-0.854184,-1.35868,-0.800952,0.380106,-1.33465,-1.48701,0.045089,0,0,0,0,0,0,0,-0.00506522,0.0971971,0.178137,-1.84708,0.264426,0.123097,0.0164228,0.165882,-0.0527778,-0.0195401,-0.170585,-0.0776348,0.0723377,0.000586495,0,0,0,0,0,0,0,-1.3374,-36.1171,-0.387865,24.2374,1.54602,1.47484,0.00376909,
-0.00279472,0.096916,0.180254,-1.85035,0.261333,0.125128,0.0165114,0.0678823,0.0418202,0.0629945,-0.117948,-0.100102,0.0809322,0.00242184,-0.411162,-6.86036,-0.274118,4.07212,0.925762,-0.578351,-0.0285624,0,0,0,0,0,0,0,-0.00234467,0.0980961,0.18014,-1.85119,0.262576,0.125003,0.0164224,0.0968535,0.0314118,0.0349918,-0.126009,-0.0382089,0.0520502,0.000933459,-8.62861,10.5237,6.81649,5.57198,4.92823,-2.53594,0.0433705,-1.44055,-35.0935,-0.16173,25.4831,1.5158,1.64055,-0.0227812,
-0.00229853,0.0969114,0.180719,-1.85105,0.26058,0.125789,0.0165279,0.0667104,0.0333413,0.0620213,-0.111947,-0.0988927,0.0812822,0.00235035,-0.732405,-5.29934,-0.608256,3.75052,0.755666,0.218759,-0.04468,0,0,0,0,0,0,0,-0.00234467,0.0980961,0.18014,-1.85119,0.262576,0.125003,0.0164224,0.0968535,0.0314118,0.0349918,-0.126009,-0.0382089,0.0520502,0.000933459,0,0,0,0,0,0,0,-1.44055,-35.0935,-0.16173,25.4831,1.5158,1.64055,-0.0227812,
-0.00182645,0.0969144,0.181161,-1.85172,0.259825,0.126477,0.016543,0.0651704,0.0267492,0.0606614,-0.106384,-0.0979849,0.0822305,0.00225785,-0.962525,-4.12007,-0.849891,3.47721,0.567381,0.592723,-0.0578103,0,0,0,0,0,0,0,-0.00234467,0.0980961,0.18014,-1.85119,0.262576,0.125003,0.0164224,0.0968535,0.0314118,0.0349918,-0.126009,-0.0382089,0.0520502,0.000933459,0,0,0,0,0,0,0,-1.44055,-35.0935,-0.16173,25.4831,1.5158,1.64055,-0.0227812,
-0.00137704,0.0969223,0.181581,-1.85237,0.259068,0.12718,0.0165567,0.0633716,0.0215963,0.0590266,-0.10118,-0.097309,0.0833457,0.00214821,-1.12426,-3.22058,-1.02179,3.25233,0.422473,0.696997,-0.0685286,0,0,0,0,0,0,0,-0.00234467,0.0980961,0.18014,-1.85119,0.262576,0.125003,0.0164224,0.0968535,0.0314118,0.0349918,-0.126009,-0.0382089,0.0520502,0.000933459,0,0,0,0,0,0,0,-1.44055,-35.0935,-0.16173,25.4831,1.5158,1.64055,-0.0227812,
6.14789e-05,0.0988861,0.182376,-1.85493,0.259045,0.127826,0.0164957,0.061444,0.0198014,0.0571838,-0.0970188,-0.0976588,0.0830562,0.00198788,-1.20473,-1.12181,-1.15173,2.60072,-0.218618,-0.180981,-0.100206,0,0,0,0,0,0,0,-0.000732834,0.100171,0.182954,-1.85446,0.261019,0.126272,0.0164182,0.00631499,0.0948765,0.124223,-0.0671341,-0.0580779,0.0321915,-0.000832554,-11.3173,7.93309,11.1539,7.35934,-2.48362,-2.48234,-0.220752,0.539127,-38.0888,0.961012,27.1255,1.46087,2.00493,0.0303194,
0.000467839,0.0989695,0.182752,-1.85553,0.258258,0.1285,0.0165048,0.0593142,0.0179262,0.0551442,-0.0926363,-0.0977922,0.083286,0.00181749,-1.33112,-1.172,-1.27479,2.73903,-0.0834103,0.143685,-0.106495,0,0,0,0,0,0,0,-0.000732834,0.100171,0.182954,-1.85446,0.261019,0.126272,0.0164182,0.00631499,0.0948765,0.124223,-0.0671341,-0.0580779,0.0321915,-0.000832554,0,0,0,0,0,0,0,0.539127,-38.0888,0.961012,27.1255,1.46087,2.00493,0.0303194,
0.000851842,0.099039,0.183107,-1.85609,0.257498,0.129178,0.0165122,0.0570514,0.0160787,0.0529748,-0.0881362,-0.0972431,0.0835856,0.00163798,-1.41424,-1.15468,-1.35584,2.81256,0.343168,0.187193,-0.11219,0,0,0,0,0,0,0,-0.000732834,0.100171,0.182954,-1.85446,0.261019,0.126272,0.0164182,0.00631499,0.0948765,0.124223,-0.0671341,-0.0580779,0.0321915,-0.000832554,0,0,0,0,0,0,0,0.539127,-38.0888,0.961012,27.1255,1.46087,2.00493,0.0303194,
0.00121452,0.0990975,0.18344,-1.85661,0.256786,0.129846,0.0165177,0.054708,0.0143249,0.0507262,-0.0835883,-0.0955857,0.0835733,0.00144938,-1.46465,-1.09614,-1.40541,2.84245,1.03589,-0.00766525,-0.117878,0,0,0,0,0,0,0,-0.000732834,0.100171,0.182954,-1.85446,0.261019,0.126272,0.0164182,0.00631499,0.0948765,0.124223,-0.0671341,-0.0580779,0.0321915,-0.000832554,0,0,0,0,0,0,0,0.539127,-38.0888,0.961012,27.1255,1.46087,2.00493,0.0303194,
0.00111885,0.101428,0.184683,-1.85737,0.257295,0.130435,0.0164598,0.0544828,0.0164994,0.0504414,-0.0831338,-0.104016,0.0969361,0.00137549,-0.140727,1.35908,-0.178006,0.284092,-5.26871,8.35177,-0.0461829,0,0,0,0,0,0,0,0.00168497,0.101227,0.184627,-1.85797,0.259047,0.12792,0.016412,0.123998,-0.0403657,-0.00769355,-0.138303,-0.0612812,0.06509,-0.00158307,14.7103,-16.9053,-16.4895,-8.89616,-0.400422,4.11231,-0.0938148,-0.984311,-37.6921,-0.0387439,25.0864,1.49109,1.42815,0.0577852,
0.00152212,0.101588,0.185053,-1.85796,0.256185,0.131677,0.0164664,0.053668,0.0171996,0.0495951,-0.081365,-0.110948,0.108585,0.00126374,-0.509275,0.437634,-0.528906,1.10549,-4.33261,7.28032,-0.0698396,0,0,0,0,0,0,0,0.00168497,0.101227,0.184627,-1.85797,0.259047,0.12792,0.016412,0.123998,-0.0403657,-0.00769355,-0.138303,-0.0612812,0.06509,-0.00158307,0,0,0,0,0,0,0,-0.984311,-37.6921,-0.0387439,25.0864,1.49109,1.42815,0.0577852,
0.0019006,0.101716,0.185398,-1.85851,0.255115,0.132929,0.0164708,0.0523964,0.0169621,0.0483188,-0.0786588,-0.115512,0.118174,0.0011224,-0.794732,-0.148467,-0.79772,1.69139,-2.85247,5.99306,-0.0883417,0,0,0,0,0,0,0,0.00168497,0.101227,0.184627,-1.85797,0.259047,0.12792,0.016412,0.123998,-0.0403657,-0.00769355,-0.138303,-0.0612812,0.06509,-0.00158307,0,0,0,0,0,0,0,-0.984311,-37.6921,-0.0387439,25.0864,1.49109,1.42815,0.0577852,
0.00225524,0.101819,0.185721,-1.859,0.254128,0.134165,0.0164732,0.0507832,0.0161537,0.0467231,-0.0753011,-0.117093,0.125433,0.000957194,-1.00824,-0.505205,-0.997275,2.09855,-0.988273,4.5369,-0.103251,0,0,0,0,0,0,0,0.00168497,0.101227,0.184627,-1.85797,0.259047,0.12792,0.016412,0.123998,-0.0403657,-0.00769355,-0.138303,-0.0612812,0.06509,-0.00158307,0,0,0,0,0,0,0,-0.984311,-37.6921,-0.0387439,25.0864,1.49109,1.42815,0.0577852,
0.0045199,0.0961289,0.185361,-1.85482,0.339163,0.122928,0.0155401,0.0408336,0.0105309,0.0368719,-0.0586309,-0.0576786,0.0953035,0.000436035,-6.21851,-3.51427,-6.15702,10.4188,37.134,-18.8307,-0.325725,0,0,0,0,0,0,0,0.00369292,0.102132,0.186509,-1.86126,0.256758,0.129922,0.0164202,0.0195021,0.027077,0.0900421,-0.101264,-0.0783255,0.0873439,0.00015688,-13.062,8.43034,12.217,4.62995,-2.13053,2.78174,0.217494,-1.23822,-36.5694,-0.185533,26.4551,1.70532,1.86577,-0.0163725,
0.00452818,0.096033,0.185341,-1.85476,0.340599,0.122727,0.0155269,0.0328738,0.00602743,0.0289914,-0.0452973,-0.010249,0.0712288,1.91236e-05,-4.97488,-2.81467,-4.92533,8.3335,29.6435,-15.0467,-0.260569,0,0,0,0,0,0,0,0.00369292,0.102132,0.186509,-1.86126,0.256758,0.129922,0.0164202,0.0195021,0.027077,0.0900421,-0.101264,-0.0783255,0.0873439,0.00015688,0,0,0,0,0,0,0,-1.23822,-36.5694,-0.185533,26.4551,1.70532,1.86577,-0.0163725,
0.00453645,0.0959369,0.185321,-1.85469,0.34203,0.122528,0.0155137,0.0265059,0.00241946,0.0226874,-0.034633,0.0275931,0.0519975,-0.000314388,-3.97998,-2.25498,-3.93997,6.66521,23.6513,-12.0196,-0.208445,0,0,0,0,0,0,0,0.00369292,0.102132,0.186509,-1.86126,0.256758,0.129922,0.0164202,0.0195021,0.027077,0.0900421,-0.101264,-0.0783255,0.0873439,0.00015688,0,0,0,0,0,0,0,-1.23822,-36.5694,-0.185533,26.4551,1.70532,1.86577,-0.0163725,
0.00454472,0.0958406,0.1853,-1.85463,0.343458,0.122329,0.0155006,0.0214114,-0.000472102,0.0176447,-0.0261041,0.0577655,0.0366408,-0.000581179,-3.18405,-1.80723,-3.15168,5.33058,18.8578,-9.59794,-0.166745,0,0,0,0,0,0,0,0.00369292,0.102132,0.186509,-1.86126,0.256758,0.129922,0.0164202,0.0195021,0.027077,0.0900421,-0.101264,-0.0783255,0.0873439,0.00015688,0,0,0,0,0,0,0,-1.23822,-36.5694,-0.185533,26.4551,1.70532,1.86577,-0.0163725,
0.0264413,0.0992416,0.207579,-1.86657,0.233999,0.161934,0.0164823,0.0405586,-0.00474586,0.0360109,-0.0239774,0.0200329,0.0520908,-0.000496832,11.967,-2.6711,11.4789,1.32915,-23.5829,9.65624,0.0527168,0,0,0,0,0,0,0,0.00498303,0.10393,0.188032,-1.86348,0.25734,0.131936,0.0164085,0.0430501,0.0924364,0.00826806,-0.0210404,0.203274,0.00802029,-0.00297207,2.94351,8.16993,-10.2218,10.0279,35.1999,-9.91545,-0.391119,-0.881161,-39.9614,0.0366345,28.3713,3.12805,1.8731,0.017502,
0.0273634,0.0990691,0.20844,-1.86669,0.232942,0.162806,0.016481,0.0555006,-0.00810854,0.0503467,-0.0222093,-0.0104031,0.0634691,-0.000429626,9.33875,-2.10168,8.95985,1.10507,-19.0225,7.11143,0.0420037,0,0,0,0,0,0,0,0.00498303,0.10393,0.188032,-1.86348,0.25734,0.131936,0.0164085,0.0430501,0.0924364,0.00826806,-0.0210404,0.203274,0.00802029,-0.00297207,0,0,0,0,0,0,0,-0.881161,-39.9614,0.0366345,28.3713,3.12805,1.8731,0.017502,
0.0282703,0.0988989,0.209287,-1.86681,0.231876,0.16364,0.0164797,0.0670727,-0.0107432,0.0614522,-0.0207284,-0.0349666,0.0716403,-0.000376041,7.23258,-1.64664,6.94097,0.925601,-15.3522,5.10703,0.0334906,0,0,0,0,0,0,0,0.00498303,0.10393,0.188032,-1.86348,0.25734,0.131936,0.0164085,0.0430501,0.0924364,0.00826806,-0.0210404,0.203274,0.00802029,-0.00297207,0,0,0,0,0,0,0,-0.881161,-39.9614,0.0366345,28.3713,3.12805,1.8731,0.017502,
0.02112,0.103934,0.20354,-1.87127,0.246249,0.172303,0.0163994,0.0671703,-0.0100004,0.0621181,-0.0212417,-0.0429722,0.0875001,-0.000309128,0.0609723,0.464252,0.416145,-0.320864,-5.00351,9.91239,0.0418208,0,0,0,0,0,0,0,0.00498303,0.10393,0.188032,-1.86348,0.25734,0.131936,0.0164085,0.0430501,0.0924364,0.00826806,-0.0210404,0.203274,0.00802029,-0.00297207,0,0,0,0,0,0,0,-0.881161,-39.9614,0.0366345,28.3713,3.12805,1.8731,0.017502,
0.0216456,0.10388,0.204044,-1.87145,0.245638,0.173478,0.0163993,0.0668782,-0.00932821,0.0622978,-0.021494,-0.0496542,0.099361,-0.000248808,-0.182542,0.420096,0.11236,-0.157642,-4.17622,7.41306,0.0377001,0,0,0,0,0,0,0,0.00498303,0.10393,0.188032,-1.86348,0.25734,0.131936,0.0164085,0.0430501,0.0924364,0.00826806,-0.0210404,0.203274,0.00802029,-0.00297207,0,0,0,0,0,0,0,-0.881161,-39.9614,0.0366345,28.3713,3.12805,1.8731,0.017502,
0.0221564,0.103831,0.204534,-1.87162,0.245016,0.17462,0.0163995,0.0662727,-0.00870926,0.0620873,-0.0215377,-0.0552754,0.108042,-0.000193766,-0.378418,0.386841,-0.131576,-0.027354,-3.51325,5.42578,0.0344014,0,0,0,0,0,0,0,0.00627817,0.104392,0.189125,-1.86519,0.258932,0.132797,0.0164122,0.0595623,-0.0529033,0.0487879,-0.0849895,-0.141566,0.0872827,0.000484458,2.06403,-18.1675,5.06497,-7.99363,-43.105,9.9078,0.432066,1.67774,-37.343,2.46461,25.733,1.5039,1.85296,-0.0163725,
0.0226523,0.103784,0.20501,-1.87179,0.244383,0.17573,0.0164,0.0654151,-0.00812984,0.0615633,-0.021415,-0.0600364,0.114193,-0.000143263,-0.536018,0.362139,-0.327499,0.0767401,-2.97565,3.84438,0.0315642,0,0,0,0,0,0,0,0.00627817,0.104392,0.189125,-1.86519,0.258932,0.132797,0.0164122,0.0595623,-0.0529033,0.0487879,-0.0849895,-0.141566,0.0872827,0.000484458,0,0,0,0,0,0,0,1.67774,-37.343,2.46461,25.733,1.5039,1.85296,-0.0163725,
0.021008,0.10121,0.203652,-1.87382,0.241143,0.169009,0.0169098,0.0604688,-0.00523166,0.058305,-0.0203054,-0.0562285,0.105873,-0.00018204,-3.09146,1.81136,-2.03642,0.693496,2.37994,-5.20028,-0.024236,0,0,0,0,0,0,0,0.00627817,0.104392,0.189125,-1.86519,0.258932,0.132797,0.0164122,0.0595623,-0.0529033,0.0487879,-0.0849895,-0.141566,0.0872827,0.000484458,0,0,0,0,0,0,0,1.67774,-37.343,2.46461,25.733,1.5039,1.85296,-0.0163725,
0.0213273,0.101272,0.204013,-1.87394,0.240972,0.169554,0.0169039,0.0563577,-0.00262613,0.0556618,-0.0192499,-0.0492464,0.0983205,-0.000292844,-2.56939,1.62845,-1.65204,0.659676,4.36381,-4.72023,-0.0692522,0,0,0,0,0,0,0,0.00627817,0.104392,0.189125,-1.86519,0.258932,0.132797,0.0164122,0.0595623,-0.0529033,0.0487879,-0.0849895,-0.141566,0.0872827,0.000484458,0,0,0,0,0,0,0,1.67774,-37.343,2.46461,25.733,1.5039,1.85296,-0.0163725,
0.0216423,0.101345,0.204375,-1.87405,0.24098,0.170064,0.0168943,0.0529628,-0.00027206,0.0535796,-0.0182136,-0.0392141,0.0914098,-0.000475165,-2.12181,1.4713,-1.30136,0.647665,6.27019,-4.3192,-0.11395,0,0,0,0,0,0,0,0.00746701,0.105036,0.190712,-1.8665,0.25635,0.137321,0.0164124,0.0302813,0.0593248,0.0628049,-0.0185668,-0.0858104,0.151859,0.000736687,-3.66012,14.0285,1.75213,8.30283,6.96947,8.07204,0.0315286,1.70551,-36.7439,2.5638,27.1017,1.77215,1.8731,-0.0301054,
0.0219558,0.101428,0.204742,-1.87415,0.241169,0.170539,0.0168804,0.0502068,0.00184633,0.0520421,-0.0171448,-0.0266372,0.0850166,-0.000727197,-1.72252,1.32399,-0.960966,0.667992,7.86058,-3.99573,-0.15752,0,0,0,0,0,0,0,0.00746701,0.105036,0.190712,-1.8665,0.25635,0.137321,0.0164124,0.0302813,0.0593248,0.0628049,-0.0185668,-0.0858104,0.151859,0.000736687,0,0,0,0,0,0,0,1.70551,-36.7439,2.5638,27.1017,1.77215,1.8731,-0.0301054,
0.0231379,0.104414,0.205428,-1.87483,0.243965,0.177366,0.0165946,0.0495901,0.00404384,0.0521483,-0.0153606,0.00493055,0.0764162,-0.00131414,-0.385413,1.37344,0.0664196,1.11513,19.7298,-5.37526,-0.366841,0,0,0,0,0,0,0,0.00746701,0.105036,0.190712,-1.8665,0.25635,0.137321,0.0164124,0.0302813,0.0593248,0.0628049,-0.0185668,-0.0858104,0.151859,0.000736687,0,0,0,0,0,0,0,1.70551,-36.7439,2.5638,27.1017,1.77215,1.8731,-0.0301054,
0.0235406,0.104506,0.205883,-1.87486,0.24494,0.177535,0.0165745,0.0497402,0.00551877,0.0530842,-0.0131371,0.028331,0.0653745,-0.00155208,0.0938109,0.921837,0.584915,1.38972,14.6253,-6.90103,-0.148712,0,0,0,0,0,0,0,0.00746701,0.105036,0.190712,-1.8665,0.25635,0.137321,0.0164124,0.0302813,0.0593248,0.0628049,-0.0185668,-0.0858104,0.151859,0.000736687,0,0,0,0,0,0,0,1.70551,-36.7439,2.5638,27.1017,1.77215,1.8731,-0.0301054,
0.0239831,0.104558,0.206361,-1.87489,0.245699,0.177537,0.0165785,0.0508541,0.00571888,0.0544143,-0.0111371,0.0416339,0.0523339,-0.00114357,0.69615,0.125065,0.831318,1.24996,8.3143,-8.1504,0.255319,0,0,0,0,0,0,0,0.00933459,0.105933,0.192508,-1.86745,0.255159,0.141659,0.0164041,0.0664617,1.47373e-05,0.0432353,-0.0437484,-0.0140867,0.125257,-0.00141471,4.52254,-7.41375,-2.44621,-3.1477,8.96546,-3.32524,-0.268925,-0.452694,-38.8387,0.389723,25.733,1.38122,1.46844,0.0440523,
0.0244684,0.104545,0.20683,-1.87495,0.246295,0.177431,0.0165937,0.0528161,0.00426283,0.0552717,-0.0103997,0.0482186,0.0392248,-0.000533338,1.22628,-0.910033,0.535874,0.460868,4.11543,-8.19319,0.381396,0,0,0,0,0,0,0,0.00933459,0.105933,0.192508,-1.86745,0.255159,0.141659,0.0164041,0.0664617,1.47373e-05,0.0432353,-0.0437484,-0.0140867,0.125257,-0.00141471,0,0,0,0,0,0,0,-0.452694,-38.8387,0.389723,25.733,1.38122,1.46844,0.0440523,
0.0253634,0.105046,0.208596,-1.87468,0.243063,0.178489,0.0164866,0.0535257,0.00343266,0.0564217,-0.00885585,0.0531971,0.0287604,-6.87733e-06,0.443451,-0.518853,0.718745,0.96493,3.11155,-6.54022,0.329038,0,0,0,0,0,0,0,0.00933459,0.105933,0.192508,-1.86745,0.255159,0.141659,0.0164041,0.0664617,1.47373e-05,0.0432353,-0.0437484,-0.0140867,0.125257,-0.00141471,0,0,0,0,0,0,0,-0.452694,-38.8387,0.389723,25.733,1.38122,1.46844,0.0440523,
0.0258657,0.10497,0.20904,-1.87475,0.24361,0.178232,0.0165017,0.0553778,0.00083331,0.0562268,-0.00882801,0.056234,0.016603,0.000373363,1.15761,-1.6246,-0.121835,0.017397,1.89807,-7.59842,0.23765,0,0,0,0,0,0,0,0.00933459,0.105933,0.192508,-1.86745,0.255159,0.141659,0.0164041,0.0664617,1.47373e-05,0.0432353,-0.0437484,-0.0140867,0.125257,-0.00141471,0,0,0,0,0,0,0,-0.452694,-38.8387,0.389723,25.733,1.38122,1.46844,0.0440523,
0.026381,0.10484,0.209453,-1.87486,0.244253,0.177896,0.0164956,0.0571862,-0.00257162,0.0553242,-0.00982209,0.0610639,0.00486347,0.000145731,1.13023,-2.12808,-0.564093,-0.6213,3.01873,-7.33718,-0.14227,0,0,0,0,0,0,0,0.0110338,0.10587,0.194362,-1.86858,0.25535,0.145395,0.0164107,0.0463166,0.00346497,0.0610589,-0.0189241,0.00123836,0.106509,0.00022498,-2.51814,0.431279,2.22795,3.10305,1.91563,-2.34353,0.204962,-0.0440639,-34.2961,1.11177,25.733,1.82708,1.54809,-0.0163725,
0.026912,0.104691,0.209851,-1.87499,0.244903,0.177617,0.0164758,0.0590232,-0.00578117,0.0541891,-0.0110897,0.0651103,-0.00307039,-0.000380009,1.14813,-2.00597,-0.709448,-0.792265,2.52897,-4.95867,-0.328587,0,0,0,0,0,0,0,0.0110338,0.10587,0.194362,-1.86858,0.25535,0.145395,0.0164107,0.0463166,0.00346497,0.0610589,-0.0189241,0.00123836,0.106509,0.00022498,0,0,0,0,0,0,0,-0.0440639,-34.2961,1.11177,25.733,1.82708,1.54809,-0.0163725,
0.026713,0.105025,0.21013,-1.87555,0.243698,0.183648,0.0164746,0.057448,-0.0033552,0.055649,-0.00903328,0.0713135,0.000531035,-0.000522128,-0.984507,1.51623,0.912426,1.28527,3.87701,2.25089,-0.0888241,0,0,0,0,0,0,0,0.0110338,0.10587,0.194362,-1.86858,0.25535,0.145395,0.0164107,0.0463166,0.00346497,0.0610589,-0.0189241,0.00123836,0.106509,0.00022498,0,0,0,0,0,0,0,-0.0440639,-34.2961,1.11177,25.733,1.82708,1.54809,-0.0163725,
0.0271766,0.105006,0.210617,-1.87557,0.244249,0.183536,0.0164964,0.0575469,-0.00315965,0.0566971,-0.00770356,0.0708208,-0.00238165,0.00012805,0.0618312,0.122214,0.655048,0.831076,-0.307926,-1.82043,0.406361,0,0,0,0,0,0,0,0.0110338,0.10587,0.194362,-1.86858,0.25535,0.145395,0.0164107,0.0463166,0.00346497,0.0610589,-0.0189241,0.00123836,0.106509,0.00022498,0,0,0,0,0,0,0,-0.0440639,-34.2961,1.11177,25.733,1.82708,1.54809,-0.0163725,
0.027685,0.104901,0.211055,-1.87565,0.24482,0.183235,0.01651,0.0587485,-0.0051494,0.0563076,-0.0080189,0.0709475,-0.00944261,0.000442844,0.751004,-1.24359,-0.243385,-0.197086,0.0791612,-4.4131,0.196746,0,0,0,0,0,0,0,0.0127189,0.107018,0.196186,-1.86876,0.255697,0.148361,0.0164095,0.0536444,0.0377009,0.0503332,-0.00296705,0.0183111,0.071326,-0.000155265,0.915977,4.2795,-1.34071,1.99463,2.1341,-4.39786,-0.0475306,1.01917,-39.4893,1.7386,25.0586,1.8637,1.03722,0.00376909,
0.0358133,0.100572,0.217337,-1.88664,0.243856,0.30447,0.0176376,0.0650612,-0.00762058,0.0597301,-0.014847,0.0654378,0.0269875,0.000529899,3.94543,-1.54449,2.13901,-4.26754,-3.44357,22.7688,0.0544098,0,0,0,0,0,0,0,0.0127189,0.107018,0.196186,-1.86876,0.255697,0.148361,0.0164095,0.0536444,0.0377009,0.0503332,-0.00296705,0.0183111,0.071326,-0.000155265,0,0,0,0,0,0,0,1.01917,-39.4893,1.7386,25.0586,1.8637,1.03722,0.00376909,
0.0288489,0.106744,0.212136,-1.87639,0.241579,0.187401,0.0164657,0.0609658,-0.00397624,0.058167,-0.0136388,0.0743159,0.0355704,-0.000474322,-2.55967,2.27771,-0.976924,0.755125,5.54886,5.36431,-0.627638,0,0,0,0,0,0,0,0.0127189,0.107018,0.196186,-1.86876,0.255697,0.148361,0.0164095,0.0536444,0.0377009,0.0503332,-0.00296705,0.0183111,0.071326,-0.000155265,0,0,0,0,0,0,0,1.01917,-39.4893,1.7386,25.0586,1.8637,1.03722,0.00376909,
0.0292234,0.10682,0.21259,-1.87642,0.242425,0.18777,0.016436,0.0581356,-0.00130495,0.0578801,-0.011576,0.0806082,0.0376783,-0.00112226,-1.76886,1.66956,-0.179329,1.28925,3.93268,1.31742,-0.404962,0,0,0,0,0,0,0,0.0127189,0.107018,0.196186,-1.86876,0.255697,0.148361,0.0164095,0.0536444,0.0377009,0.0503332,-0.00296705,0.0183111,0.071326,-0.000155265,0,0,0,0,0,0,0,1.01917,-39.4893,1.7386,25.0586,1.8637,1.03722,0.00376909,
0.0296329,0.106854,0.213074,-1.87642,0.243053,0.187888,0.0164364,0.0567452,-0.000174404,0.0583994,-0.00919914,0.08019,0.0331108,-0.000888559,-0.868984,0.706592,0.324612,1.48551,-0.261415,-2.85467,0.146064,0,0,0,0,0,0,0,0.0148175,0.106708,0.19774,-1.8701,0.255888,0.152744,0.0164064,0.0865221,-0.0266091,0.0344239,-0.0711561,-0.00300244,0.265726,-0.00129413,4.10971,-8.03876,-1.98866,-8.52363,-2.6642,24.2999,-0.142359,0.562931,-35.0697,1.7624,27.5262,2.25464,2.21093,0.0239107,
0.0305975,0.104168,0.212884,-1.878,0.244171,0.193087,0.0166315,0.0564879,-0.000767395,0.0577722,-0.0118418,0.0357067,0.0542443,-0.0005982,-0.160824,-0.370619,-0.392049,-1.65167,-27.802,13.2085,0.181474,0,0,0,0,0,0,0,0.0148175,0.106708,0.19774,-1.8701,0.255888,0.152744,0.0164064,0.0865221,-0.0266091,0.0344239,-0.0711561,-0.00300244,0.265726,-0.00129413,0,0,0,0,0,0,0,0.562931,-35.0697,1.7624,27.5262,2.25464,2.21093,0.0239107,
0.0310258,0.10415,0.213313,-1.87817,0.243067,0.194154,0.0166353,0.0558991,-0.00107505,0.0569376,-0.0137924,0.000963731,0.0700729,-0.00038483,-0.367981,-0.192282,-0.521626,-1.21911,-21.7144,9.89285,0.133356,0,0,0,0,0,0,0,0.0148175,0.106708,0.19774,-1.8701,0.255888,0.152744,0.0164064,0.0865221,-0.0266091,0.0344239,-0.0711561,-0.00300244,0.265726,-0.00129413,0,0,0,0,0,0,0,0.562931,-35.0697,1.7624,27.5262,2.25464,2.21093,0.0239107,
0.031439,0.104139,0.213729,-1.87834,0.242031,0.195175,0.016638,0.0550481,-0.00113575,0.0559454,-0.0151972,-0.025127,0.0815831,-0.000240996,-0.531856,-0.0379382,-0.620118,-0.878016,-16.3067,7.19389,0.0898965,0,0,0,0,0,0,0,0.0148175,0.106708,0.19774,-1.8701,0.255888,0.152744,0.0164064,0.0865221,-0.0266091,0.0344239,-0.0711561,-0.00300244,0.265726,-0.00129413,0,0,0,0,0,0,0,0.562931,-35.0697,1.7624,27.5262,2.25464,2.21093,0.0239107,
0.0318371,0.104136,0.214132,-1.8785,0.241105,0.196147,0.0166391,0.0539916,-0.000978569,0.0548389,-0.016175,-0.0432582,0.0895818,-0.000164322,-0.660319,0.098236,-0.69156,-0.611122,-11.332,4.99922,0.047921,0,0,0,0,0,0,0,0.0148175,0.106708,0.19774,-1.8701,0.255888,0.152744,0.0164064,0.0865221,-0.0266091,0.0344239,-0.0711561,-0.00300244,0.265726,-0.00129413,0,0,0,0,0,0,0,0.562931,-35.0697,1.7624,27.5262,2.25464,2.21093,0.0239107,
0.0317572,0.106015,0.214369,-1.87937,0.243404,0.194032,0.0167141,0.0561716,-0.00134386,0.0564798,-0.0181293,-0.0565241,0.0987431,-6.54228e-05,1.36245,-0.22831,1.02561,-1.22143,-8.29116,5.72579,0.0618119,0,0,0,0,0,0,0,0.0163643,0.107473,0.19981,-1.87049,0.256153,0.156306,0.0164063,0.0179045,0.0507051,0.0922787,-0.00632537,-0.0102878,0.108853,-0.00176891,-8.5772,9.66427,7.23185,8.10384,-0.910673,-19.6091,-0.0593469,0.25745,-38.2396,0.937208,25.7092,1.5039,2.14501,0.0239107,
0.0322606,0.105994,0.214859,-1.87957,0.242457,0.195104,0.0167167,0.0575233,-0.00160898,0.0574181,-0.0195092,-0.0689088,0.105812,1.45141e-05,0.844868,-0.165695,0.586442,-0.862453,-7.74042,4.41799,0.0499606,0,0,0,0,0,0,0,0.0163643,0.107473,0.19981,-1.87049,0.256153,0.156306,0.0164063,0.0179045,0.0507051,0.0922787,-0.00632537,-0.0102878,0.108853,-0.00176891,0,0,0,0,0,0,0,0.25745,-38.2396,0.937208,25.7092,1.5039,2.14501,0.0239107,
0.0327483,0.105974,0.215333,-1.87976,0.241448,0.196163,0.0167194,0.0582114,-0.00177774,0.0577986,-0.0204279,-0.0803417,0.111122,7.86544e-05,0.430025,-0.105476,0.237798,-0.57415,-7.14559,3.31912,0.0400877,0,0,0,0,0,0,0,0.0163643,0.107473,0.19981,-1.87049,0.256153,0.156306,0.0164063,0.0179045,0.0507051,0.0922787,-0.00632537,-0.0102878,0.108853,-0.00176891,0,0,0,0,0,0,0,0.25745,-38.2396,0.937208,25.7092,1.5039,2.14501,0.0239107,
0.0401554,0.103342,0.22293,-1.89042,0.237751,0.307374,0.0177023,0.0633413,-0.00546178,0.062186,-0.0273593,-0.0812784,0.14795,0.00066089,3.20618,-2.30252,2.7421,-4.33215,-0.585452,23.017,0.363897,0,0,0,0,0,0,0,0.0163643,0.107473,0.19981,-1.87049,0.256153,0.156306,0.0164063,0.0179045,0.0507051,0.0922787,-0.00632537,-0.0102878,0.108853,-0.00176891,0,0,0,0,0,0,0,0.25745,-38.2396,0.937208,25.7092,1.5039,2.14501,0.0239107,
0.0317267,0.10559,0.214604,-1.87962,0.240566,0.195315,0.0167141,0.0622737,-0.00475399,0.0611989,-0.0264549,-0.0863253,0.142251,0.000582359,-0.667205,0.442363,-0.616911,0.565262,-3.1543,-3.56153,-0.0490817,0,0,0,0,0,0,0,0.0184197,0.107173,0.201712,-1.8717,0.254695,0.160664,0.0164085,0.086742,-0.0456645,0.034053,-0.0570335,-0.0473483,0.147567,-0.000493297,8.60468,-12.0462,-7.27821,-6.33852,-4.63256,4.83928,0.159451,-0.0440639,-34.8714,0.838026,26.5027,1.22833,2.09191,0.00376909,
0.0321749,0.105576,0.215046,-1.87979,0.239655,0.196266,0.0167159,0.0610244,-0.00416619,0.0600217,-0.0255574,-0.091835,0.137582,0.000512635,-0.780824,0.36738,-0.735766,0.560943,-3.44354,-2.91819,-0.0435777,0,0,0,0,0,0,0,0.0184197,0.107173,0.201712,-1.8717,0.254695,0.160664,0.0164085,0.086742,-0.0456645,0.034053,-0.0570335,-0.0473483,0.147567,-0.000493297,0,0,0,0,0,0,0,-0.0440639,-34.8714,0.838026,26.5027,1.22833,2.09191,0.00376909,
0.0326071,0.105563,0.215473,-1.87996,0.238703,0.197207,0.0167175,0.0596242,-0.00365884,0.0586991,-0.0246633,-0.0972663,0.133589,0.000448819,-0.87512,0.317091,-0.826594,0.55878,-3.3946,-2.49584,-0.0398849,0,0,0,0,0,0,0,0.0184197,0.107173,0.201712,-1.8717,0.254695,0.160664,0.0164085,0.086742,-0.0456645,0.034053,-0.0570335,-0.0473483,0.147567,-0.000493297,0,0,0,0,0,0,0,-0.0440639,-34.8714,0.838026,26.5027,1.22833,2.09191,0.00376909,
0.0338516,0.10407,0.216497,-1.87996,0.238036,0.199022,0.0167265,0.0589227,-0.00315708,0.0580115,-0.0241234,-0.101263,0.130425,0.000420069,-0.438452,0.313597,-0.429783,0.337445,-2.4978,-1.97736,-0.0179692,0,0,0,0,0,0,0,0.0184197,0.107173,0.201712,-1.8717,0.254695,0.160664,0.0164085,0.086742,-0.0456645,0.034053,-0.0570335,-0.0473483,0.147567,-0.000493297,0,0,0,0,0,0,0,-0.0440639,-34.8714,0.838026,26.5027,1.22833,2.09191,0.00376909,
0.0342844,0.104062,0.216923,-1.88013,0.237074,0.199952,0.0167283,0.0579596,-0.00272193,0.0570696,-0.0235286,-0.105058,0.127588,0.000382436,-0.601936,0.271971,-0.588695,0.371744,-2.37196,-1.7731,-0.0235204,0,0,0,0,0,0,0,0.0205537,0.107846,0.203702,-1.87266,0.252034,0.168301,0.0164116,0.0441532,0.0639037,0.0744566,0.0131934,-0.0851404,0.159302,-0.00127345,-5.3236,13.696,5.05046,8.77836,-4.72401,1.46685,-0.0975186,-0.40112,-38.2634,0.611891,26.705,1.07635,1.28899,0.017502,
0.0347011,0.104057,0.217334,-1.8803,0.236117,0.200865,0.0167294,0.0567855,-0.00231563,0.0559351,-0.0228907,-0.10799,0.124888,0.000333808,-0.733821,0.253937,-0.709071,0.398719,-1.8323,-1.6873,-0.0303923,0,0,0,0,0,0,0,0.0205537,0.107846,0.203702,-1.87266,0.252034,0.168301,0.0164116,0.0441532,0.0639037,0.0744566,0.0131934,-0.0851404,0.159302,-0.00127345,0,0,0,0,0,0,0,-0.40112,-38.2634,0.611891,26.705,1.07635,1.28899,0.017502,
0.0351017,0.104055,0.217731,-1.88045,0.235198,0.201756,0.0167295,0.0554435,-0.00190437,0.054658,-0.0222228,-0.109366,0.122196,0.0002695,-0.838724,0.257036,-0.798158,0.417424,-0.860155,-1.68287,-0.0401925,0,0,0,0,0,0,0,0.0205537,0.107846,0.203702,-1.87266,0.252034,0.168301,0.0164116,0.0441532,0.0639037,0.0744566,0.0131934,-0.0851404,0.159302,-0.00127345,0,0,0,0,0,0,0,-0.40112,-38.2634,0.611891,26.705,1.07635,1.28899,0.017502,
0.0355381,0.106721,0.218079,-1.88114,0.235964,0.205814,0.0167,0.0563576,-0.00155436,0.0554057,-0.0224579,-0.110868,0.122071,0.000256783,0.571279,0.218759,0.46729,-0.146954,-0.939081,-0.0777061,-0.00794809,0,0,0,0,0,0,0,0.0205537,0.107846,0.203702,-1.87266,0.252034,0.168301,0.0164116,0.0441532,0.0639037,0.0744566,0.0131934,-0.0851404,0.159302,-0.00127345,0,0,0,0,0,0,0,-0.40112,-38.2634,0.611891,26.705,1.07635,1.28899,0.017502,
0.0360021,0.10672,0.21853,-1.88132,0.234975,0.20678,0.0167013,0.0566861,-0.00128156,0.055597,-0.022482,-0.11342,0.121807,0.000236401,0.205333,0.170501,0.119599,-0.015021,-1.59501,-0.165531,-0.0127387,0,0,0,0,0,0,0,0.0223116,0.107847,0.206111,-1.87368,0.2486,0.174155,0.0164119,0.0531346,-0.039645,0.0722784,-0.0396344,-0.104012,0.182084,0.000842403,1.12268,-12.9436,-0.272283,-6.60347,-2.35891,2.84771,0.264481,-0.0718349,-37.1684,0.687269,26.2567,1.24664,1.67351,-0.0227812,
0.0364499,0.106719,0.218965,-1.88149,0.23395,0.207735,0.016702,0.056543,-0.00104849,0.0553547,-0.0223353,-0.116343,0.121313,0.000208375,-0.0894368,0.145666,-0.151457,0.0916295,-1.82691,-0.308751,-0.0175163,0,0,0,0,0,0,0,0.0223116,0.107847,0.206111,-1.87368,0.2486,0.174155,0.0164119,0.0531346,-0.039645,0.0722784,-0.0396344,-0.104012,0.182084,0.000842403,0,0,0,0,0,0,0,-0.0718349,-37.1684,0.687269,26.2567,1.24664,1.67351,-0.0227812,
0.0368814,0.106719,0.219385,-1.88166,0.232915,0.208674,0.0167022,0.0560225,-0.000821153,0.0547765,-0.022054,-0.118971,0.120533,0.000170617,-0.325306,0.142087,-0.361411,0.175868,-1.64219,-0.486987,-0.0235992,0,0,0,0,0,0,0,0.0223116,0.107847,0.206111,-1.87368,0.2486,0.174155,0.0164119,0.0531346,-0.039645,0.0722784,-0.0396344,-0.104012,0.182084,0.000842403,0,0,0,0,0,0,0,-0.0718349,-37.1684,0.687269,26.2567,1.24664,1.67351,-0.0227812,
0.0370941,0.104534,0.220469,-1.88186,0.234029,0.211287,0.0166914,0.0576332,-0.000845264,0.0566619,-0.0227794,-0.111002,0.117908,0.00020261,1.00665,-0.0150691,1.1784,-0.453378,4.98039,-1.64068,0.0199957,0,0,0,0,0,0,0,0.0223116,0.107847,0.206111,-1.87368,0.2486,0.174155,0.0164119,0.0531346,-0.039645,0.0722784,-0.0396344,-0.104012,0.182084,0.000842403,0,0,0,0,0,0,0,-0.0718349,-37.1684,0.687269,26.2567,1.24664,1.67351,-0.0227812,
0.0375929,0.104525,0.220964,-1.88206,0.233302,0.212166,0.0166932,0.0585777,-0.000903544,0.0577164,-0.02322,-0.106975,0.116309,0.000207642,0.590308,-0.0364254,0.659101,-0.275428,2.5173,-0.999638,0.00314531,0,0,0,0,0,0,0,0.0245225,0.108038,0.207753,-1.87455,0.244636,0.179878,0.0164178,0.0894623,0.0388338,0.0151877,0.00336804,-0.132863,0.159513,0.000751471,4.54097,9.80985,-7.13633,5.37531,-3.60636,-2.82133,-0.0113665,-0.274166,-36.617,0.913405,25.2847,1.25946,1.74676,-0.050247,
0.0380765,0.104514,0.221442,-1.88225,0.232491,0.213057,0.0166944,0.0589532,-0.00100141,0.058118,-0.0234249,-0.10586,0.115329,0.000196731,0.234721,-0.0611634,0.25098,-0.128049,0.696652,-0.612412,-0.00681971,0,0,0,0,0,0,0,0.0245225,0.108038,0.207753,-1.87455,0.244636,0.179878,0.0164178,0.0894623,0.0388338,0.0151877,0.00336804,-0.132863,0.159513,0.000751471,0,0,0,0,0,0,0,-0.274166,-36.617,0.913405,25.2847,1.25946,1.74676,-0.050247,
0.0435312,0.105438,0.226391,-1.89012,0.230763,0.303157,0.0175942,0.0654552,-0.00458168,0.0635349,-0.0305251,-0.0943135,0.150271,0.000720057,4.06374,-2.23767,3.38553,-4.43762,7.21657,21.839,0.327079,0,0,0,0,0,0,0,0.0245225,0.108038,0.207753,-1.87455,0.244636,0.179878,0.0164178,0.0894623,0.0388338,0.0151877,0.00336804,-0.132863,0.159513,0.000751471,0,0,0,0,0,0,0,-0.274166,-36.617,0.913405,25.2847,1.25946,1.74676,-0.050247,
0.0389672,0.106294,0.221436,-1.88352,0.227388,0.21807,0.016723,0.0652603,-0.00323424,0.0647755,-0.0296311,-0.0835084,0.135082,0.000789933,-0.121833,0.842146,0.775385,0.558757,6.75322,-9.49332,0.0436728,0,0,0,0,0,0,0,0.0245225,0.108038,0.207753,-1.87455,0.244636,0.179878,0.0164178,0.0894623,0.0388338,0.0151877,0.00336804,-0.132863,0.159513,0.000751471,0,0,0,0,0,0,0,-0.274166,-36.617,0.913405,25.2847,1.25946,1.74676,-0.050247,
0.039482,0.106315,0.221976,-1.88373,0.22693,0.218733,0.0167292,0.0650784,-0.00206468,0.0653168,-0.0288124,-0.0782464,0.124637,0.000787491,-0.113671,0.730979,0.338331,0.511717,3.28871,-6.528,-0.00152619,0,0,0,0,0,0,0,0.0245225,0.108038,0.207753,-1.87455,0.244636,0.179878,0.0164178,0.0894623,0.0388338,0.0151877,0.00336804,-0.132863,0.159513,0.000751471,0,0,0,0,0,0,0,-0.274166,-36.617,0.913405,25.2847,1.25946,1.74676,-0.050247,
0.0399899,0.106337,0.222496,-1.88393,0.226361,0.219446,0.0167335,0.0647622,-0.00110372,0.0652503,-0.0280405,-0.0768326,0.11755,0.000738523,-0.197649,0.600597,-0.0415441,0.482418,0.883647,-4.42925,-0.0306054,0,0,0,0,0,0,0,0.0245225,0.108038,0.207753,-1.87455,0.244636,0.179878,0.0164178,0.0894623,0.0388338,0.0151877,0.00336804,-0.132863,0.159513,0.000751471,0,0,0,0,0,0,0,-0.274166,-36.617,0.913405,25.2847,1.25946,1.74676,-0.050247,
0.0386084,0.105691,0.22119,-1.88355,0.228159,0.217141,0.0166881,0.0638849,-0.000776751,0.0657645,-0.0274219,-0.0649971,0.105275,0.000841643,-0.548321,0.204357,0.321353,0.386649,7.39715,-7.67225,0.0644499,0,0,0,0,0,0,0,0.0245225,0.108038,0.207753,-1.87455,0.244636,0.179878,0.0164178,0.0894623,0.0388338,0.0151877,0.00336804,-0.132863,0.159513,0.000751471,0,0,0,0,0,0,0,-0.274166,-36.617,0.913405,25.2847,1.25946,1.74676,-0.050247,
0.0390976,0.105702,0.22172,-1.88375,0.227845,0.217683,0.0166958,0.0633389,-0.000348852,0.0658656,-0.026868,-0.0598476,0.0977722,0.00086761,-0.341231,0.267437,0.0631915,0.34617,3.21845,-4.68915,0.0162294,0,0,0,0,0,0,0,0.0245225,0.108038,0.207753,-1.87455,0.244636,0.179878,0.0164178,0.0894623,0.0388338,0.0151877,0.00336804,-0.132863,0.159513,0.000751471,0,0,0,0,0,0,0,-0.274166,-36.617,0.913405,25.2847,1.25946,1.74676,-0.050247,
0.0395848,0.105717,0.222233,-1.88394,0.227396,0.218297,0.0167012,0.062852,7.84572e-05,0.0655286,-0.0263431,-0.0591082,0.0935653,0.000827002,-0.304289,0.267068,-0.210619,0.328021,0.462144,-2.62931,-0.0253799,0,0,0,0,0,0,0,0.0261944,0.108374,0.20944,-1.87532,0.241261,0.185143,0.0164161,0.0339087,0.00163152,0.0747262,-0.0240057,-0.0985947,0.183731,0.00127209,-6.9442,-4.65028,7.44232,-3.42172,4.28349,3.02727,0.0650772,0.66608,-37.9659,1.68703,25.0864,1.25946,2.60918,-0.0227812,
0.0400646,0.105732,0.222728,-1.88413,0.226835,0.218966,0.0167045,0.0622765,0.000441796,0.0647839,-0.0258208,-0.0612988,0.0915698,0.000744884,-0.359717,0.227087,-0.465449,0.32644,-1.36911,-1.2472,-0.0513235,0,0,0,0,0,0,0,0.0261944,0.108374,0.20944,-1.87532,0.241261,0.185143,0.0164161,0.0339087,0.00163152,0.0747262,-0.0240057,-0.0985947,0.183731,0.00127209,0,0,0,0,0,0,0,0.66608,-37.9659,1.68703,25.0864,1.25946,2.60918,-0.0227812,
0.040393,0.105729,0.222789,-1.88394,0.225334,0.221601,0.0167012,0.0618379,0.000898912,0.0655407,-0.0254839,-0.05395,0.0841214,0.000902729,-0.274101,0.285697,0.47298,0.210608,4.59301,-4.65525,0.0986533,0,0,0,0,0,0,0,0.0261944,0.108374,0.20944,-1.87532,0.241261,0.185143,0.0164161,0.0339087,0.00163152,0.0747262,-0.0240057,-0.0985947,0.183731,0.00127209,0,0,0,0,0,0,0,0.66608,-37.9659,1.68703,25.0864,1.25946,2.60918,-0.0227812,
0.0408789,0.105757,0.223324,-1.88413,0.224967,0.222124,0.0167109,0.0616178,0.00140302,0.0658135,-0.0251789,-0.0523288,0.0803763,0.000965636,-0.137562,0.315065,0.170554,0.190589,1.01322,-2.34064,0.0393167,0,0,0,0,0,0,0,0.0261944,0.108374,0.20944,-1.87532,0.241261,0.185143,0.0164161,0.0339087,0.00163152,0.0747262,-0.0240057,-0.0985947,0.183731,0.00127209,0,0,0,0,0,0,0,0.66608,-37.9659,1.68703,25.0864,1.25946,2.60918,-0.0227812,
0.0413624,0.105787,0.223841,-1.88432,0.224469,0.222717,0.0167179,0.0613831,0.00186999,0.0655724,-0.0248695,-0.0543173,0.0791106,0.000948096,-0.146673,0.291862,-0.150712,0.193396,-1.24281,-0.791064,-0.0109624,0,0,0,0,0,0,0,0.0261944,0.108374,0.20944,-1.87532,0.241261,0.185143,0.0164161,0.0339087,0.00163152,0.0747262,-0.0240057,-0.0985947,0.183731,0.00127209,0,0,0,0,0,0,0,0.66608,-37.9659,1.68703,25.0864,1.25946,2.60918,-0.0227812,
0.0418385,0.105817,0.224337,-1.88451,0.223865,0.223363,0.0167227,0.0610082,0.00224616,0.0648542,-0.0245348,-0.058546,0.0794384,0.000877698,-0.234326,0.235103,-0.448901,0.209189,-2.6429,0.204833,-0.043999,0,0,0,0,0,0,0,0.0279036,0.10811,0.211964,-1.87696,0.238179,0.193598,0.0164147,0.058703,0.017004,0.0524,-0.0236361,-0.0560707,0.149746,0.000219697,3.09928,1.92156,-2.79078,0.0462065,5.3155,-4.24818,-0.131549,1.07074,-34.8952,1.96077,24.1898,1.49749,2.26403,-0.00996382,
0.042018,0.1056,0.22513,-1.88574,0.223858,0.227794,0.0167159,0.0606095,0.00217336,0.0661131,-0.0244561,-0.0450631,0.0708838,0.00100257,-0.249195,-0.0454971,0.78686,0.0491722,8.42677,-5.34661,0.0780429,0,0,0,0,0,0,0,0.0279036,0.10811,0.211964,-1.87696,0.238179,0.193598,0.0164147,0.058703,0.017004,0.0524,-0.0236361,-0.0560707,0.149746,0.000219697,0,0,0,0,0,0,0,1.07074,-34.8952,1.96077,24.1898,1.49749,2.26403,-0.00996382,
0.0425104,0.105622,0.225691,-1.88594,0.223701,0.228201,0.0167287,0.0607994,0.00228947,0.0669108,-0.0244759,-0.039961,0.0668949,0.00112066,0.118689,0.0725661,0.498542,-0.0123848,3.18884,-2.49304,0.0738077,0,0,0,0,0,0,0,0.0279036,0.10811,0.211964,-1.87696,0.238179,0.193598,0.0164147,0.058703,0.017004,0.0524,-0.0236361,-0.0560707,0.149746,0.000219697,0,0,0,0,0,0,0,1.07074,-34.8952,1.96077,24.1898,1.49749,2.26403,-0.00996382,
0.0430083,0.105649,0.226239,-1.88613,0.223372,0.228699,0.0167385,0.0610872,0.00250055,0.0672395,-0.0244807,-0.0402162,0.0659673,0.00114326,0.17987,0.131927,0.205403,-0.00297023,-0.159536,-0.579734,0.0141267,0,0,0,0,0,0,0,0.0279036,0.10811,0.211964,-1.87696,0.238179,0.193598,0.0164147,0.058703,0.017004,0.0524,-0.0236361,-0.0560707,0.149746,0.000219697,0,0,0,0,0,0,0,1.07074,-34.8952,1.96077,24.1898,1.49749,2.26403,-0.00996382,
0.0435041,0.105677,0.22677,-1.88633,0.222906,0.22927,0.0167456,0.0612627,0.00271396,0.0670573,-0.0244394,-0.0438205,0.0670448,0.00109036,0.109692,0.133378,-0.113846,0.025807,-2.25264,0.673395,-0.0330654,0,0,0,0,0,0,0,0.0299472,0.108694,0.213535,-1.87764,0.236238,0.197452,0.0164115,0.083187,0.0253447,0.0285467,-0.0217574,-0.040951,0.123492,0.000622406,3.06051,1.0426,-2.98167,0.234835,1.88996,-3.28179,0.0503387,-0.222592,-38.438,0.86183,24.7372,0.9967,1.70739,-0.00996382,
0.0441537,0.106487,0.226664,-1.88662,0.220724,0.231127,0.0166786,0.0610213,0.00265714,0.0674008,-0.0241407,-0.0315987,0.0592222,0.000994782,-0.150874,-0.0355137,0.214683,0.186676,7.63861,-4.88908,-0.0597344,0,0,0,0,0,0,0,0.0299472,0.108694,0.213535,-1.87764,0.236238,0.197452,0.0164115,0.083187,0.0253447,0.0285467,-0.0217574,-0.040951,0.123492,0.000622406,0,0,0,0,0,0,0,-0.222592,-38.438,0.86183,24.7372,0.9967,1.70739,-0.00996382,
0.0446246,0.106514,0.227227,-1.8868,0.220803,0.231352,0.0166908,0.0605911,0.00279331,0.067993,-0.0239554,-0.0232798,0.0530037,0.00110211,-0.268892,0.0851061,0.370149,0.115813,5.19932,-3.88659,0.0670793,0,0,0,0,0,0,0,0.0299472,0.108694,0.213535,-1.87764,0.236238,0.197452,0.0164115,0.083187,0.0253447,0.0285467,-0.0217574,-0.040951,0.123492,0.000622406,0,0,0,0,0,0,0,-0.222592,-38.438,0.86183,24.7372,0.9967,1.70739,-0.00996382,
0.0451137,0.106547,0.227783,-1.88699,0.220662,0.231689,0.0167037,0.0606994,0.00305472,0.068286,-0.0239048,-0.0221708,0.0508293,0.00120423,0.0676827,0.163384,0.183101,0.0316065,0.693136,-1.35901,0.0638268,0,0,0,0,0,0,0,0.0299472,0.108694,0.213535,-1.87764,0.236238,0.197452,0.0164115,0.083187,0.0253447,0.0285467,-0.0217574,-0.040951,0.123492,0.000622406,0,0,0,0,0,0,0,-0.222592,-38.438,0.86183,24.7372,0.9967,1.70739,-0.00996382,
0.045626,0.105923,0.229226,-1.88783,0.219487,0.235499,0.0166702,0.060307,0.00240826,0.0682428,-0.0240164,-0.0170728,0.0481822,0.00113952,-0.24523,-0.404035,-0.0269756,-0.069701,3.18624,-1.65441,-0.0404419,0,0,0,0,0,0,0,0.0314238,0.108646,0.21618,-1.87885,0.2344,0.201944,0.0164158,0.0054264,0.0116529,0.107099,-0.0342085,-0.0189911,0.132681,0.000225155,-9.72008,-1.71148,9.81899,-1.55639,2.74499,1.14865,-0.0496564,0.840641,-35.6212,1.61165,25.5347,1.21643,1.62041,-0.0227812,
0.0460937,0.105944,0.229764,-1.88801,0.219604,0.235692,0.0166758,0.0599378,0.00246699,0.0680212,-0.023564,-0.010743,0.0433779,0.00105229,-0.230756,0.0367054,-0.138525,0.282712,3.95611,-3.00271,-0.0545225,0,0,0,0,0,0,0,0.0314238,0.108646,0.21618,-1.87885,0.2344,0.201944,0.0164158,0.0054264,0.0116529,0.107099,-0.0342085,-0.0189911,0.132681,0.000225155,0,0,0,0,0,0,0,0.840641,-35.6212,1.61165,25.5347,1.21643,1.62041,-0.0227812,
0.0465523,0.105973,0.230313,-1.88818,0.219659,0.235885,0.0166892,0.0594167,0.00270108,0.0681504,-0.023257,-0.00721652,0.0395243,0.0011757,-0.325703,0.146305,0.0807811,0.191876,2.20406,-2.40846,0.0771328,0,0,0,0,0,0,0,0.0314238,0.108646,0.21618,-1.87885,0.2344,0.201944,0.0164158,0.0054264,0.0116529,0.107099,-0.0342085,-0.0189911,0.132681,0.000225155,0,0,0,0,0,0,0,0.840641,-35.6212,1.61165,25.5347,1.21643,1.62041,-0.0227812,
0.0470277,0.106008,0.230855,-1.88836,0.219495,0.236186,0.016703,0.0594182,0.00303827,0.0680822,-0.0231188,-0.00988301,0.0391578,0.00128618,0.000970364,0.21074,-0.0426256,0.0863681,-1.66656,-0.229098,0.0690476,0,0,0,0,0,0,0,0.0314238,0.108646,0.21618,-1.87885,0.2344,0.201944,0.0164158,0.0054264,0.0116529,0.107099,-0.0342085,-0.0189911,0.132681,0.000225155,0,0,0,0,0,0,0,0.840641,-35.6212,1.61165,25.5347,1.21643,1.62041,-0.0227812,
0.0478128,0.106611,0.230902,-1.88839,0.218437,0.236816,0.0166884,0.0592678,0.00269438,0.0681283,-0.0232552,-0.00742199,0.0385038,0.00119968,-0.0940292,-0.214931,0.0288099,-0.0852071,1.53814,-0.408739,-0.0540581,0,0,0,0,0,0,0,0.0335094,0.109122,0.2179,-1.87948,0.233168,0.205505,0.0164147,0.0949495,0.0109197,0.0122994,-0.0336741,-0.0104996,0.103705,0.000738676,11.1904,-0.0916497,-11.8499,0.0667998,1.06144,-3.62194,0.0641901,0.00751081,-38.188,1.11177,25.7092,1.08825,1.6607,-0.00996382,
0.0482822,0.106644,0.231442,-1.88856,0.218535,0.236998,0.0166946,0.0591498,0.00298972,0.068,-0.0228168,-0.00347314,0.0353322,0.00111475,-0.0737259,0.184588,-0.0801922,0.273996,2.46803,-1.98225,-0.0530812,0,0,0,0,0,0,0,0.0335094,0.109122,0.2179,-1.87948,0.233168,0.205505,0.0164147,0.0949495,0.0109197,0.0122994,-0.0336741,-0.0104996,0.103705,0.000738676,0,0,0,0,0,0,0,0.00751081,-38.188,1.11177,25.7092,1.08825,1.6607,-0.00996382,
0.0487441,0.106684,0.231995,-1.88873,0.218565,0.237179,0.016709,0.0588658,0.00338727,0.0682147,-0.0225393,-0.00203604,0.0327951,0.00125352,-0.177492,0.248474,0.134156,0.173397,0.898186,-1.58572,0.0867272,0,0,0,0,0,0,0,0.0335094,0.109122,0.2179,-1.87948,0.233168,0.205505,0.0164147,0.0949495,0.0109197,0.0122994,-0.0336741,-0.0104996,0.103705,0.000738676,0,0,0,0,0,0,0,0.00751081,-38.188,1.11177,25.7092,1.08825,1.6607,-0.00996382,
0.049222,0.106729,0.232542,-1.88891,0.218374,0.237466,0.0167237,0.0590405,0.00383655,0.068238,-0.0224325,-0.00639645,0.0334126,0.0013691,0.109163,0.2808,0.0145833,0.0667858,-2.72526,0.385988,0.0722391,0,0,0,0,0,0,0,0.0335094,0.109122,0.2179,-1.87948,0.233168,0.205505,0.0164147,0.0949495,0.0109197,0.0122994,-0.0336741,-0.0104996,0.103705,0.000738676,0,0,0,0,0,0,0,0.00751081,-38.188,1.11177,25.7092,1.08825,1.6607,-0.00996382,
0.0477644,0.106472,0.230951,-1.88831,0.21815,0.236815,0.0166668,0.0589566,0.00334185,0.0681475,-0.0225779,-0.00442263,0.0337518,0.0012498,-0.0524056,-0.309193,-0.0565618,-0.0908629,1.23364,0.211948,-0.0745629,0,0,0,0,0,0,0,0.0350232,0.109141,0.220232,-1.88048,0.232429,0.208499,0.0164132,0.0100014,0.00727944,0.103137,-0.0270344,-0.00877351,0.0883982,-0.000538698,-10.6185,-0.455028,11.3546,0.829972,0.215758,-1.91337,-0.159672,0.435978,-35.8196,1.53627,25.8084,1.25946,2.03148,0.00376909,
0.0482337,0.106506,0.231488,-1.88848,0.218254,0.236989,0.0166733,0.0588974,0.0035271,0.0679345,-0.0221526,-0.000928557,0.0313531,0.0011628,-0.0369925,0.115786,-0.133122,0.265786,2.1838,-1.49918,-0.0543749,0,0,0,0,0,0,0,0.0350232,0.109141,0.220232,-1.88048,0.232429,0.208499,0.0164132,0.0100014,0.00727944,0.103137,-0.0270344,-0.00877351,0.0883982,-0.000538698,0,0,0,0,0,0,0,0.435978,-35.8196,1.53627,25.8084,1.25946,2.03148,0.00376909,
0.0486949,0.106547,0.232038,-1.88864,0.218291,0.23716,0.0166882,0.0586479,0.00384147,0.0681016,-0.0218903,0.000170439,0.0293661,0.00130235,-0.155957,0.196481,0.104451,0.163936,0.686873,-1.24188,0.0872188,0,0,0,0,0,0,0,0.0350232,0.109141,0.220232,-1.88048,0.232429,0.208499,0.0164132,0.0100014,0.00727944,0.103137,-0.0270344,-0.00877351,0.0883982,-0.000538698,0,0,0,0,0,0,0,0.435978,-35.8196,1.53627,25.8084,1.25946,2.03148,0.00376909,
0.0491714,0.106593,0.232583,-1.88881,0.218109,0.237435,0.0167033,0.0588306,0.00422291,0.0681023,-0.021804,-0.00439539,0.030354,0.00141923,0.114159,0.238401,0.000390068,0.0539192,-2.85364,0.617481,0.0730496,0,0,0,0,0,0,0,0.0350232,0.109141,0.220232,-1.88048,0.232429,0.208499,0.0164132,0.0100014,0.00727944,0.103137,-0.0270344,-0.00877351,0.0883982,-0.000538698,0,0,0,0,0,0,0,0.435978,-35.8196,1.53627,25.8084,1.25946,2.03148,0.00376909,
0.0493041,0.106357,0.233279,-1.88916,0.217721,0.239318,0.0166532,0.0588252,0.00380661,0.0681611,-0.0220008,-0.00261586,0.0309742,0.00129024,-0.00335181,-0.260193,0.0367397,-0.12298,1.11221,0.387583,-0.0806207,0,0,0,0,0,0,0,0.0366871,0.10959,0.222413,-1.88121,0.231859,0.210851,0.016417,0.0701824,0.0121424,0.0283099,-0.0266741,-0.00934838,0.0688973,0.000702506,7.52263,0.607871,-9.35332,0.0450348,-0.0718586,-2.43761,0.155151,0.435978,-38.0412,1.28633,26.1298,1.1679,2.01867,-0.0301054,
0.0497764,0.106397,0.233822,-1.88932,0.217825,0.239478,0.0166607,0.0588667,0.00404803,0.0680822,-0.0216241,0.00050816,0.0287994,0.00122124,0.0259435,0.15089,-0.0492684,0.235444,1.95251,-1.35925,-0.0431205,0,0,0,0,0,0,0,0.0366871,0.10959,0.222413,-1.88121,0.231859,0.210851,0.016417,0.0701824,0.0121424,0.0283099,-0.0266741,-0.00934838,0.0688973,0.000702506,0,0,0,0,0,0,0,0.435978,-38.0412,1.28633,26.1298,1.1679,2.01867,-0.0301054,
0.0502422,0.106443,0.234376,-1.88949,0.217859,0.239634,0.0166767,0.0587394,0.00439312,0.0683269,-0.0214111,0.00124815,0.0269277,0.00137675,-0.0795963,0.215684,0.152923,0.133139,0.462491,-1.16982,0.0971903,0,0,0,0,0,0,0,0.0366871,0.10959,0.222413,-1.88121,0.231859,0.210851,0.016417,0.0701824,0.0121424,0.0283099,-0.0266741,-0.00934838,0.0688973,0.000702506,0,0,0,0,0,0,0,0.435978,-38.0412,1.28633,26.1298,1.1679,2.01867,-0.0301054,
0.0507226,0.106494,0.234926,-1.88965,0.217675,0.239888,0.0166928,0.0590007,0.00478778,0.0684002,-0.0213675,-0.0035953,0.0278971,0.00150402,0.163308,0.246662,0.0457957,0.0272225,-3.02715,0.605911,0.0795431,0,0,0,0,0,0,0,0.0366871,0.10959,0.222413,-1.88121,0.231859,0.210851,0.016417,0.0701824,0.0121424,0.0283099,-0.0266741,-0.00934838,0.0688973,0.000702506,0,0,0,0,0,0,0,0.435978,-38.0412,1.28633,26.1298,1.1679,2.01867,-0.0301054,
0.050616,0.106834,0.234892,-1.89001,0.216482,0.241827,0.0166686,0.0597802,0.00318876,0.0679032,-0.0225859,-0.00951999,0.0352275,0.00129106,0.487208,-0.999392,-0.310594,-0.761491,-3.70294,4.58149,-0.133101,0,0,0,0,0,0,0,0.0366871,0.10959,0.222413,-1.88121,0.231859,0.210851,0.016417,0.0701824,0.0121424,0.0283099,-0.0266741,-0.00934838,0.0688973,0.000702506,0,0,0,0,0,0,0,0.435978,-38.0412,1.28633,26.1298,1.1679,2.01867,-0.0301054,
0.0510928,0.10683,0.23544,-1.89021,0.216381,0.242212,0.0166702,0.0597449,0.00243222,0.0680235,-0.0231703,-0.0101518,0.0377981,0.00107358,-0.0220426,-0.472835,0.075176,-0.365265,-0.394871,1.60662,-0.135919,0,0,0,0,0,0,0,0.0388454,0.109619,0.22421,-1.88204,0.231353,0.212898,0.016417,0.0549501,0.00413601,0.0603536,-0.0217409,-0.0111394,0.0658909,0.00115677,-1.90404,-1.0008,4.00545,0.616643,-0.223874,-0.375797,0.0567826,0.309024,-35.9941,1.58784,25.733,1.23474,2.08459,-0.0301054,
0.0515658,0.106853,0.235986,-1.89039,0.216419,0.242462,0.016676,0.0596205,0.0025257,0.0680772,-0.0229876,-0.00717285,0.0364928,0.00100534,-0.0777841,0.0584244,0.0335457,0.114193,1.86184,-0.815793,-0.0426542,0,0,0,0,0,0,0,0.0388454,0.109619,0.22421,-1.88204,0.231353,0.212898,0.016417,0.0549501,0.00413601,0.0603536,-0.0217409,-0.0111394,0.0658909,0.00115677,0,0,0,0,0,0,0,0.309024,-35.9941,1.58784,25.733,1.23474,2.08459,-0.0301054,
0.0520417,0.106899,0.236529,-1.89055,0.216517,0.242606,0.0166842,0.0595945,0.003163,0.0680227,-0.0223168,-0.00327471,0.0327845,0.00100797,-0.0162349,0.398313,-0.0340703,0.419279,2.43634,-2.31766,0.00164615,0,0,0,0,0,0,0,0.0388454,0.109619,0.22421,-1.88204,0.231353,0.212898,0.016417,0.0549501,0.00413601,0.0603536,-0.0217409,-0.0111394,0.0658909,0.00115677,0,0,0,0,0,0,0,0.309024,-35.9941,1.58784,25.733,1.23474,2.08459,-0.0301054,
0.053101,0.106469,0.236985,-1.89084,0.216385,0.244019,0.0166466,0.0613046,0.00171156,0.0659608,-0.0231561,-0.0115426,0.0411534,0.000768869,1.06884,-0.907152,-1.28864,-0.524572,-5.16744,5.23054,-0.14944,0,0,0,0,0,0,0,0.0388454,0.109619,0.22421,-1.88204,0.231353,0.212898,0.016417,0.0549501,0.00413601,0.0603536,-0.0217409,-0.0111394,0.0658909,0.00115677,0,0,0,0,0,0,0,0.309024,-35.9941,1.58784,25.733,1.23474,2.08459,-0.0301054,
0.0535942,0.106441,0.237509,-1.89105,0.216117,0.244508,0.0166477,0.0613734,0.000678688,0.0658583,-0.0238997,-0.0159366,0.0451429,0.000643131,0.042995,-0.645543,-0.0640817,-0.464766,-2.74627,2.49346,-0.0785857,0,0,0,0,0,0,0,0.0403175,0.10998,0.22669,-1.88264,0.231027,0.214879,0.0164139,0.0357942,0.0150391,0.076554,-0.0133765,0.000710884,0.0531158,0.000472926,-2.39448,1.36288,2.02506,1.04556,1.48128,-1.59689,-0.0854801,0.793033,-37.343,1.71083,25.6577,1.1679,1.99853,-0.0026396,
0.054064,0.106434,0.23805,-1.89125,0.216013,0.244861,0.0166481,0.0608452,0.000378616,0.0662134,-0.0240701,-0.0153484,0.0449325,0.000522871,-0.330115,-0.187545,0.221913,-0.106492,0.367661,-0.131527,-0.0751627,0,0,0,0,0,0,0,0.0403175,0.10998,0.22669,-1.88264,0.231027,0.214879,0.0164139,0.0357942,0.0150391,0.076554,-0.0133765,0.000710884,0.0531158,0.000472926,0,0,0,0,0,0,0,0.793033,-37.343,1.71083,25.6577,1.1679,1.99853,-0.0026396,
0.0545304,0.106455,0.238589,-1.89143,0.216047,0.245078,0.0166532,0.0603362,0.0008139,0.0664486,-0.0235725,-0.011426,0.0413708,0.000545855,-0.318127,0.272052,0.147029,0.311001,2.45148,-2.22607,0.0143647,0,0,0,0,0,0,0,0.0403175,0.10998,0.22669,-1.88264,0.231027,0.214879,0.0164139,0.0357942,0.0150391,0.076554,-0.0133765,0.000710884,0.0531158,0.000472926,0,0,0,0,0,0,0,0.793033,-37.343,1.71083,25.6577,1.1679,1.99853,-0.0026396,
0.0544556,0.10701,0.239447,-1.89147,0.215268,0.24582,0.0166385,0.0616628,-0.000350554,0.0634434,-0.0244242,-0.0181102,0.0501386,-0.000324264,0.82908,-0.727783,-1.87827,-0.5323,-4.17764,5.47988,-0.543824,0,0,0,0,0,0,0,0.0403175,0.10998,0.22669,-1.88264,0.231027,0.214879,0.0164139,0.0357942,0.0150391,0.076554,-0.0133765,0.000710884,0.0531158,0.000472926,0,0,0,0,0,0,0,0.793033,-37.343,1.71083,25.6577,1.1679,1.99853,-0.0026396,
0.0549839,0.106983,0.239901,-1.89167,0.214882,0.246386,0.0166362,0.0625383,-0.000950248,0.0621108,-0.024667,-0.024149,0.054265,-0.000317993,0.54718,-0.374809,-0.832876,-0.151793,-3.7742,2.57903,0.00391977,0,0,0,0,0,0,0,0.0425892,0.110028,0.228466,-1.88343,0.230615,0.216818,0.0164138,0.0891612,-0.00461287,0.0163233,-0.0252138,-0.00856531,0.0521426,0.000711836,6.67087,-2.45649,-7.52884,-1.47967,-1.15952,-0.121645,0.0298638,-0.171017,-36.2163,1.11177,25.5347,1.21643,2.05804,-0.0026396,
0.0554608,0.106963,0.240415,-1.89188,0.214603,0.246843,0.0166342,0.0619512,-0.00124904,0.0625493,-0.0248885,-0.0262936,0.0548211,-0.000303184,-0.366939,-0.186742,0.274087,-0.13839,-1.3404,0.347524,0.00925523,0,0,0,0,0,0,0,0.0425892,0.110028,0.228466,-1.88343,0.230615,0.216818,0.0164138,0.0891612,-0.00461287,0.0163233,-0.0252138,-0.00856531,0.0521426,0.000711836,0,0,0,0,0,0,0,-0.171017,-36.2163,1.11177,25.5347,1.21643,2.05804,-0.0026396,
0.0559194,0.106966,0.240945,-1.89207,0.214483,0.247163,0.0166328,0.0610272,-0.000920663,0.0632776,-0.0245853,-0.0240199,0.0518564,-0.000277811,-0.577481,0.205233,0.455193,0.189475,1.42105,-1.85288,0.015858,0,0,0,0,0,0,0,0.0425892,0.110028,0.228466,-1.88343,0.230615,0.216818,0.0164138,0.0891612,-0.00461287,0.0163233,-0.0252138,-0.00856531,0.0521426,0.000711836,0,0,0,0,0,0,0,-0.171017,-36.2163,1.11177,25.5347,1.21643,2.05804,-0.0026396,
0.0566959,0.106662,0.241356,-1.89215,0.215025,0.24722,0.0166061,0.0620256,-0.00195923,0.0610465,-0.0252095,-0.0286314,0.0584604,-0.000988212,0.624041,-0.649107,-1.39446,-0.390129,-2.88219,4.12747,-0.444,0,0,0,0,0,0,0,0.0425892,0.110028,0.228466,-1.88343,0.230615,0.216818,0.0164138,0.0891612,-0.00461287,0.0163233,-0.0252138,-0.00856531,0.0521426,0.000711836,0,0,0,0,0,0,0,-0.171017,-36.2163,1.11177,25.5347,1.21643,2.05804,-0.0026396,
0.0572176,0.106627,0.241812,-1.89235,0.214629,0.247784,0.0166028,0.062663,-0.00244366,0.0602362,-0.0252785,-0.0328009,0.0608757,-0.000872087,0.398321,-0.302764,-0.50643,-0.0430877,-2.60591,1.50956,0.0725778,0,0,0,0,0,0,0,0.0442207,0.110182,0.230851,-1.88418,0.230024,0.218601,0.016417,0.00641075,0.00781724,0.106729,-0.0205417,-0.0134977,0.0511198,0.00122422,-10.3438,1.55376,11.3007,0.584015,-0.616555,-0.12785,0.0640484,0.336795,-36.7915,1.38948,25.5585,1.26495,2.10473,-0.0301054,
0.0576914,0.106601,0.242323,-1.89256,0.214349,0.248238,0.0165995,0.0619738,-0.00261236,0.0609511,-0.0253332,-0.033244,0.0600382,-0.000780319,-0.430724,-0.10544,0.446796,-0.0342453,-0.276983,-0.523429,0.0573553,0,0,0,0,0,0,0,0.0442207,0.110182,0.230851,-1.88418,0.230024,0.218601,0.016417,0.00641075,0.00781724,0.106729,-0.0205417,-0.0134977,0.0511198,0.00122422,0,0,0,0,0,0,0,0.336795,-36.7915,1.38948,25.5585,1.26495,2.10473,-0.0301054,
0.0581472,0.106599,0.242848,-1.89274,0.21423,0.248555,0.0165969,0.0609741,-0.00214396,0.0618871,-0.0248728,-0.0295671,0.0559568,-0.000687921,-0.624784,0.29275,0.585009,0.287757,2.29812,-2.55088,0.057749,0,0,0,0,0,0,0,0.0442207,0.110182,0.230851,-1.88418,0.230024,0.218601,0.016417,0.00641075,0.00781724,0.106729,-0.0205417,-0.0134977,0.0511198,0.00122422,0,0,0,0,0,0,0,0.336795,-36.7915,1.38948,25.5585,1.26495,2.10473,-0.0301054,
0.0582673,0.107123,0.243622,-1.89283,0.213896,0.248767,0.0165908,0.0620718,-0.00276296,0.0598292,-0.0252898,-0.0333927,0.0615374,-0.00126479,0.686051,-0.386874,-1.2862,-0.260572,-2.39104,3.48785,-0.360545,0,0,0,0,0,0,0,0.0442207,0.110182,0.230851,-1.88418,0.230024,0.218601,0.016417,0.00641075,0.00781724,0.106729,-0.0205417,-0.0134977,0.0511198,0.00122422,0,0,0,0,0,0,0,0.336795,-36.7915,1.38948,25.5585,1.26495,2.10473,-0.0301054,
0.0587842,0.107092,0.244081,-1.89303,0.2135,0.249327,0.0165867,0.0625803,-0.00297327,0.0593453,-0.0253047,-0.0366166,0.0632292,-0.0011146,0.317773,-0.131442,-0.302433,-0.0093558,-2.01495,1.05739,0.0938695,0,0,0,0,0,0,0,0.0462275,0.110184,0.232845,-1.88515,0.2289,0.220869,0.0164112,0.0871297,-0.00590639,0.024384,-0.030678,-0.0445796,0.0774083,0.000565446,10.0899,-1.71545,-10.2931,-1.26703,-3.88523,3.28606,-0.0823472,0.182071,-36.4662,1.06416,25.2332,1.21643,2.09191,-0.0163725,
0.0592536,0.107072,0.244594,-1.89323,0.21323,0.249772,0.0165815,0.0617983,-0.00288903,0.0603085,-0.0252662,-0.036041,0.0617015,-0.00102216,-0.488742,0.0526452,0.602029,0.0240566,0.359796,-0.954814,0.0577758,0,0,0,0,0,0,0,0.0462275,0.110184,0.232845,-1.88515,0.2289,0.220869,0.0164112,0.0871297,-0.00590639,0.024384,-0.030678,-0.0445796,0.0774083,0.000565446,0,0,0,0,0,0,0,0.182071,-36.4662,1.06416,25.2332,1.21643,2.09191,-0.0163725,
0.0602173,0.10689,0.245606,-1.8937,0.212197,0.251203,0.0165679,0.0625613,-0.00342256,0.0586807,-0.0255473,-0.0387783,0.0663072,-0.00149911,0.47687,-0.333453,-1.0174,-0.175675,-1.71084,2.87858,-0.298091,0,0,0,0,0,0,0,0.0462275,0.110184,0.232845,-1.88515,0.2289,0.220869,0.0164112,0.0871297,-0.00590639,0.024384,-0.030678,-0.0445796,0.0774083,0.000565446,0,0,0,0,0,0,0,0.182071,-36.4662,1.06416,25.2332,1.21643,2.09191,-0.0163725,
0.0607252,0.106856,0.246069,-1.8939,0.211808,0.251771,0.0165629,0.0627459,-0.00359158,0.0585253,-0.0255176,-0.0407602,0.067244,-0.00132256,0.115418,-0.105635,-0.0971016,0.0185749,-1.23869,0.585495,0.110342,0,0,0,0,0,0,0,0.0462275,0.110184,0.232845,-1.88515,0.2289,0.220869,0.0164112,0.0871297,-0.00590639,0.024384,-0.030678,-0.0445796,0.0774083,0.000565446,0,0,0,0,0,0,0,0.182071,-36.4662,1.06416,25.2332,1.21643,2.09191,-0.0163725,
0.0611903,0.106834,0.24658,-1.8941,0.211558,0.252219,0.0165563,0.0618255,-0.00343066,0.0595796,-0.0253885,-0.0388511,0.0649843,-0.00122396,-0.575245,0.100575,0.658925,0.0806747,1.1932,-1.41234,0.0616234,0,0,0,0,0,0,0,0.0483764,0.110205,0.234535,-1.88614,0.227524,0.22325,0.0164114,0.044082,-0.00556679,0.0681407,-0.0305205,-0.0437077,0.0746434,8.23086e-05,-5.38097,0.04245,5.46959,0.0196859,0.108984,-0.345612,-0.0603922,0.0313145,-36.5178,1.46089,25.7568,1.26495,2.10473,-0.0227812,
0.0616432,0.106837,0.247101,-1.89427,0.211472,0.252523,0.0165528,0.0607831,-0.0026581,0.060691,-0.0247121,-0.0332241,0.0595893,-0.00106782,-0.651529,0.482846,0.69459,0.422733,3.51686,-3.37185,0.0975904,0,0,0,0,0,0,0,0.0483764,0.110205,0.234535,-1.88614,0.227524,0.22325,0.0164114,0.044082,-0.00556679,0.0681407,-0.0305205,-0.0437077,0.0746434,8.23086e-05,0,0,0,0,0,0,0,0.0313145,-36.5178,1.46089,25.7568,1.26495,2.10473,-0.0227812,
0.0622687,0.10698,0.247164,-1.89462,0.210822,0.253141,0.0165501,0.0617697,-0.00314935,0.0589115,-0.0250511,-0.0364791,0.0647613,-0.00149024,0.616609,-0.307027,-1.11218,-0.211854,-2.03438,3.23252,-0.264017,0,0,0,0,0,0,0,0.0483764,0.110205,0.234535,-1.88614,0.227524,0.22325,0.0164114,0.044082,-0.00556679,0.0681407,-0.0305205,-0.0437077,0.0746434,8.23086e-05,0,0,0,0,0,0,0,0.0313145,-36.5178,1.46089,25.7568,1.26495,2.10473,-0.0227812,
0.0627709,0.106948,0.247629,-1.89482,0.210447,0.253718,0.0165439,0.0619704,-0.00331619,0.058755,-0.025128,-0.0385682,0.0662359,-0.00134874,0.125445,-0.104276,-0.0978125,-0.0480361,-1.30569,0.921622,0.0884425,0,0,0,0,0,0,0,0.0483764,0.110205,0.234535,-1.88614,0.227524,0.22325,0.0164114,0.044082,-0.00556679,0.0681407,-0.0305205,-0.0437077,0.0746434,8.23086e-05,0,0,0,0,0,0,0,0.0313145,-36.5178,1.46089,25.7568,1.26495,2.10473,-0.0227812,
0.0632318,0.106929,0.248139,-1.89502,0.210215,0.254173,0.0165362,0.0610998,-0.00312775,0.0597677,-0.0250323,-0.0366579,0.0643569,-0.00127088,-0.544095,0.117776,0.632947,0.0597912,1.19393,-1.17437,0.0486584,0,0,0,0,0,0,0,0.0499754,0.110209,0.236748,-1.88715,0.225963,0.225733,0.0164137,0.0466195,-0.000168726,0.0619975,-0.033002,-0.0553542,0.0817978,0.00114849,0.317197,0.674758,-0.767898,-0.310192,-1.4558,0.894304,0.133273,0.892215,-36.5416,1.7624,25.7568,1.35742,2.15142,-0.0429228,
