xiao-wang007/linearmpc_panda/paper_data/panda_torque_PD_controller_Start_at_0_no_torque_ff/3/trajectory.csv
Commanded Joint 0 Position,Commanded Joint 1 Position,Commanded Joint 2 Position,Commanded Joint 3 Position,Commanded Joint 4 Position,Commanded Joint 5 Position,Commanded Joint 6 Position,Commanded Joint 0 Velocity,Commanded Joint 1 Velocity,Commanded Joint 2 Velocity,Commanded Joint 3 Velocity,Commanded Joint 4 Velocity,Commanded Joint 5 Velocity,Commanded Joint 6 Velocity,Commanded Joint 0 Acceleration,Commanded Joint 1 Acceleration,Commanded Joint 2 Acceleration,Commanded Joint 3 Acceleration,Commanded Joint 4 Acceleration,Commanded Joint 5 Acceleration,Commanded Joint 6 Acceleration,Commanded Joint 0 Torque,Commanded Joint 1 Torque,Commanded Joint 2 Torque,Commanded Joint 3 Torque,Commanded Joint 4 Torque,Commanded Joint 5 Torque,Commanded Joint 6 Torque,Actual Joint 0 Position,Actual Joint 1 Position,Actual Joint 2 Position,Actual Joint 3 Position,Actual Joint 4 Position,Actual Joint 5 Position,Actual Joint 6 Position,Actual Joint 0 Velocity,Actual Joint 1 Velocity,Actual Joint 2 Velocity,Actual Joint 3 Velocity,Actual Joint 4 Velocity,Actual Joint 5 Velocity,Actual Joint 6 Velocity,Actual Joint 0 Acceleration,Actual Joint 1 Acceleration,Actual Joint 2 Acceleration,Actual Joint 3 Acceleration,Actual Joint 4 Acceleration,Actual Joint 5 Acceleration,Actual Joint 6 Acceleration,Actual Joint 0 Torque,Actual Joint 1 Torque,Actual Joint 2 Torque,Actual Joint 3 Torque,Actual Joint 4 Torque,Actual Joint 5 Torque,Actual Joint 6 Torque,
-0.0661234,0.0917621,0.0643767,-1.70035,0.0202049,0.275197,-0.00843888,0.000986112,0.0248787,0.000597358,-0.0315747,-0.00579599,0.0539595,-0.000382164,0.61632,15.5492,0.373349,-19.7342,-3.62249,33.7247,-0.238852,0,0,0,0,0,0,0,-0.0662162,0.0905416,0.0643407,-1.69756,0.0206688,0.26944,-0.00839669,-0.000295993,0.00018437,-0.000996395,-9.28871e-05,-0.00115469,-0.000842727,-0.000930376,0,0,0,0,0,0,0,-0.0440639,-38.914,0.139784,27.5262,0.843807,3.39745,-0.0163725,
-0.0662264,0.0905473,0.0643304,-1.69756,0.0206479,0.269436,-0.00839687,0.000721014,0.019953,0.000408665,-0.0252686,-0.00478152,0.0431779,-0.000305248,-0.165686,-3.07854,-0.117933,3.94129,0.634042,-6.73851,0.0480722,0,0,0,0,0,0,0,-0.0662162,0.0905416,0.0643407,-1.69756,0.0206688,0.26944,-0.00839669,-0.000295993,0.00018437,-0.000996395,-9.28871e-05,-0.00115469,-0.000842727,-0.000930376,0,0,0,0,0,0,0,-0.0440639,-38.914,0.139784,27.5262,0.843807,3.39745,-0.0163725,
-0.0662286,0.0905494,0.0643281,-1.69756,0.0206431,0.269438,-0.00839686,0.000521446,0.0160128,0.000269652,-0.0202209,-0.0039452,0.0345785,-0.000243951,-0.12473,-2.46263,-0.0868833,3.1548,0.522698,-5.37458,0.0383109,0,0,0,0,0,0,0,-0.0662162,0.0905416,0.0643407,-1.69756,0.0206688,0.26944,-0.00839669,-0.000295993,0.00018437,-0.000996395,-9.28871e-05,-0.00115469,-0.000842727,-0.000930376,0,0,0,0,0,0,0,-0.0440639,-38.914,0.139784,27.5262,0.843807,3.39745,-0.0163725,
-0.0662304,0.0905514,0.0643262,-1.69756,0.0206391,0.26944,-0.00839686,0.000371924,0.0128602,0.000168126,-0.0161805,-0.00325522,0.0277171,-0.000195094,-0.093451,-1.97041,-0.0634538,2.52529,0.431239,-4.28842,0.0305351,0,0,0,0,0,0,0,-0.0662169,0.090662,0.0643483,-1.69761,0.0206663,0.269439,-0.00839445,-0.000885294,0.00682784,-0.000447828,-0.00134238,0.000538368,-0.000120629,0.000236577,-0.0736626,0.830434,0.068571,-0.156187,0.211633,0.0902623,0.145869,-0.0440639,-38.438,0.112013,27.4747,0.886837,3.41118,-0.0365141,
-0.0663303,0.0907331,0.0642152,-1.6975,0.0231217,0.267723,-0.00842107,-0.0013553,0.0109039,-0.0016535,-0.0115988,0.0349081,-0.0041695,-0.000407954,-1.07952,-1.22267,-1.13852,2.86352,23.8521,-19.9291,-0.133037,0,0,0,0,0,0,0,-0.0662169,0.090662,0.0643483,-1.69761,0.0206663,0.269439,-0.00839445,-0.000885294,0.00682784,-0.000447828,-0.00134238,0.000538368,-0.000120629,0.000236577,0,0,0,0,0,0,0,-0.0440639,-38.438,0.112013,27.4747,0.886837,3.41118,-0.0365141,
-0.066396,0.0907423,0.0641487,-1.69746,0.0249349,0.266418,-0.00842685,-0.00272765,0.00895169,-0.00298628,-0.00825262,0.0732582,-0.0359598,-0.00047084,-0.857714,-1.22013,-0.832984,2.0914,23.9688,-19.8689,-0.0393038,0,0,0,0,0,0,0,-0.0662169,0.090662,0.0643483,-1.69761,0.0206663,0.269439,-0.00839445,-0.000885294,0.00682784,-0.000447828,-0.00134238,0.000538368,-0.000120629,0.000236577,0,0,0,0,0,0,0,-0.0440639,-38.438,0.112013,27.4747,0.886837,3.41118,-0.0365141,
-0.0664525,0.0907429,0.0640935,-1.69743,0.0269275,0.264949,-0.00843027,-0.00359542,0.00717707,-0.00376984,-0.00589491,0.108421,-0.0655052,-0.000462014,-0.542359,-1.10914,-0.489725,1.47357,21.977,-18.4659,0.00551666,0,0,0,0,0,0,0,-0.0662169,0.090662,0.0643483,-1.69761,0.0206663,0.269439,-0.00839445,-0.000885294,0.00682784,-0.000447828,-0.00134238,0.000538368,-0.000120629,0.000236577,0,0,0,0,0,0,0,-0.0440639,-38.438,0.112013,27.4747,0.886837,3.41118,-0.0365141,
-0.0664966,0.0907399,0.0640515,-1.69741,0.0290223,0.263372,-0.00843243,-0.00397848,0.00566622,-0.00406578,-0.00428105,0.139106,-0.0918222,-0.000423723,-0.23941,-0.944278,-0.184967,1.00867,19.1778,-16.4481,0.0239318,0,0,0,0,0,0,0,-0.0662176,0.0908857,0.0643485,-1.69793,0.0206596,0.269597,-0.00839293,-8.8642e-05,0.0104068,-0.000142321,-0.022764,-0.0012768,0.000772628,0.000601845,0.0995815,0.44737,0.0381883,-2.6777,-0.226896,0.111657,0.0456585,-0.0202602,-36.8431,0.0882092,26.2805,0.91705,3.08617,-0.050247,
-0.0664619,0.0910677,0.0640329,-1.69736,0.0289633,0.261037,-0.00847471,-0.00668138,0.00581171,-0.00729024,0.00371806,0.23817,-0.20382,-0.00108125,-1.68932,0.0909299,-2.01529,4.99944,61.9154,-69.9985,-0.410953,0,0,0,0,0,0,0,-0.0662176,0.0908857,0.0643485,-1.69793,0.0206596,0.269597,-0.00839293,-8.8642e-05,0.0104068,-0.000142321,-0.022764,-0.0012768,0.000772628,0.000601845,0,0,0,0,0,0,0,-0.0202602,-36.8431,0.0882092,26.2805,0.91705,3.08617,-0.050247,
-0.0665787,0.0910609,0.0639087,-1.69715,0.0350627,0.254665,-0.0084892,-0.00826463,0.00447782,-0.00893578,0.0082154,0.343019,-0.322363,-0.00122722,-0.989529,-0.833682,-1.02846,2.81084,65.5306,-74.0894,-0.0912344,0,0,0,0,0,0,0,-0.0662176,0.0908857,0.0643485,-1.69793,0.0206596,0.269597,-0.00839293,-8.8642e-05,0.0104068,-0.000142321,-0.022764,-0.0012768,0.000772628,0.000601845,0,0,0,0,0,0,0,-0.0202602,-36.8431,0.0882092,26.2805,0.91705,3.08617,-0.050247,
-0.0666474,0.091028,0.0638388,-1.69701,0.0417103,0.24756,-0.00849562,-0.00833111,0.00275976,-0.00889777,0.0098944,0.440607,-0.435516,-0.00114223,-0.0415496,-1.07379,0.0237541,1.04938,60.9926,-70.7206,0.0531177,0,0,0,0,0,0,0,-0.0662176,0.0908857,0.0643485,-1.69793,0.0206596,0.269597,-0.00839293,-8.8642e-05,0.0104068,-0.000142321,-0.022764,-0.0012768,0.000772628,0.000601845,0,0,0,0,0,0,0,-0.0202602,-36.8431,0.0882092,26.2805,0.91705,3.08617,-0.050247,
-0.0666613,0.0909911,0.0638259,-1.69695,0.0486297,0.240001,-0.00849814,-0.00701137,0.00128567,-0.0074401,0.00960829,0.525471,-0.537381,-0.000976846,0.824837,-0.921305,0.911047,-0.17882,53.0395,-63.6657,0.103368,0,0,0,0,0,0,0,-0.0662176,0.0908857,0.0643485,-1.69793,0.0206596,0.269597,-0.00839293,-8.8642e-05,0.0104068,-0.000142321,-0.022764,-0.0012768,0.000772628,0.000601845,0,0,0,0,0,0,0,-0.0202602,-36.8431,0.0882092,26.2805,0.91705,3.08617,-0.050247,
-0.0655224,0.0911254,0.0648929,-1.69847,0.0290261,0.260048,-0.00825058,0.00585456,-0.0028644,0.00341533,0.00344416,0.534544,-0.576278,0.000462701,8.04121,-2.59379,6.78464,-3.85258,5.6708,-24.3105,0.899717,0,0,0,0,0,0,0,-0.0662319,0.0912984,0.0643408,-1.6983,0.0214907,0.269493,-0.00839411,-0.00125744,0.0169664,-0.00326298,0.000628941,0.0783637,-0.010357,0.000316715,-0.146099,0.819947,-0.390083,2.92412,9.95506,-1.39121,-0.0356413,0.0828892,-38.4142,0.139784,27.3001,1.44256,3.07244,-0.0301054,
-0.064897,0.0908754,0.0654471,-1.69882,0.0346862,0.252657,-0.00822285,0.0203197,-0.00854193,0.016586,-0.00607521,0.569138,-0.645788,0.00106355,9.04074,-3.54845,8.23167,-5.94961,21.6212,-43.4441,0.375532,0,0,0,0,0,0,0,-0.0662319,0.0912984,0.0643408,-1.6983,0.0214907,0.269493,-0.00839411,-0.00125744,0.0169664,-0.00326298,0.000628941,0.0783637,-0.010357,0.000316715,0,0,0,0,0,0,0,0.0828892,-38.4142,0.139784,27.3001,1.44256,3.07244,-0.0301054,
-0.0641451,0.0906172,0.0661809,-1.69925,0.0410835,0.244148,-0.00802393,0.0350511,-0.0132894,0.0316142,-0.0157188,0.615244,-0.729354,0.00582375,9.20709,-2.96714,9.39264,-6.02723,28.8161,-52.2283,2.97513,0,0,0,0,0,0,0,-0.0662319,0.0912984,0.0643408,-1.6983,0.0214907,0.269493,-0.00839411,-0.00125744,0.0169664,-0.00326298,0.000628941,0.0783637,-0.010357,0.000316715,0,0,0,0,0,0,0,0.0828892,-38.4142,0.139784,27.3001,1.44256,3.07244,-0.0301054,
-0.0651221,0.0912108,0.065578,-1.69915,0.0281756,0.260756,-0.00812939,0.0464209,-0.0124853,0.0445174,-0.0262639,0.594483,-0.720529,0.00727884,7.10612,0.502528,8.06449,-6.59068,-12.9755,5.51561,0.909431,0,0,0,0,0,0,0,-0.0662319,0.0912984,0.0643408,-1.6983,0.0214907,0.269493,-0.00839411,-0.00125744,0.0169664,-0.00326298,0.000628941,0.0783637,-0.010357,0.000316715,0,0,0,0,0,0,0,0.0828892,-38.4142,0.139784,27.3001,1.44256,3.07244,-0.0301054,
-0.0640898,0.091147,0.0665666,-1.69985,0.0333774,0.253679,-0.00788322,0.0629456,-0.0115832,0.0603289,-0.0386831,0.605632,-0.753367,0.0119775,10.3279,0.563825,9.88216,-7.76201,6.9685,-20.5243,2.93667,0,0,0,0,0,0,0,-0.0664515,0.0917752,0.0641138,-1.69819,0.0292397,0.265178,-0.00839598,-0.016008,-5.65583e-05,-0.0148623,0.0130554,0.418384,-0.276013,0.000330019,-1.84382,-2.12787,-1.44991,1.5533,42.5025,-33.207,0.0016631,1.04694,-38.7157,1.08797,26.0306,2.62085,1.35583,-0.0227812,
-0.0629301,0.0911932,0.067742,-1.70057,0.0394917,0.245395,-0.00779179,0.079349,-0.00811217,0.0776478,-0.0488576,0.637362,-0.809791,0.0118677,10.2521,2.16939,10.8243,-6.35907,19.831,-35.2645,-0.0686084,0,0,0,0,0,0,0,-0.0664515,0.0917752,0.0641138,-1.69819,0.0292397,0.265178,-0.00839598,-0.016008,-5.65583e-05,-0.0148623,0.0130554,0.418384,-0.276013,0.000330019,0,0,0,0,0,0,0,1.04694,-38.7157,1.08797,26.0306,2.62085,1.35583,-0.0227812,
-0.0616637,0.0912406,0.0690228,-1.70145,0.0463007,0.236374,-0.00776683,0.0951384,-0.00530428,0.0941398,-0.0611722,0.680115,-0.873345,0.0101182,9.86838,1.75493,10.3075,-7.69663,26.7209,-39.7216,-1.09348,0,0,0,0,0,0,0,-0.0664515,0.0917752,0.0641138,-1.69819,0.0292397,0.265178,-0.00839598,-0.016008,-5.65583e-05,-0.0148623,0.0130554,0.418384,-0.276013,0.000330019,0,0,0,0,0,0,0,1.04694,-38.7157,1.08797,26.0306,2.62085,1.35583,-0.0227812,
-0.0651373,0.0912299,0.0654092,-1.69975,0.0382984,0.254701,-0.00796503,0.0977844,-0.0114147,0.0965167,-0.072198,0.667311,-0.852176,0.0148571,1.65373,-3.81904,1.48553,-6.89113,-8.0028,13.2309,2.96182,0,0,0,0,0,0,0,-0.0664515,0.0917752,0.0641138,-1.69819,0.0292397,0.265178,-0.00839598,-0.016008,-5.65583e-05,-0.0148623,0.0130554,0.418384,-0.276013,0.000330019,0,0,0,0,0,0,0,1.04694,-38.7157,1.08797,26.0306,2.62085,1.35583,-0.0227812,
-0.0640092,0.0910355,0.0664983,-1.70077,0.0440522,0.247154,-0.00787584,0.10643,-0.0139922,0.104439,-0.0832405,0.677694,-0.87042,0.0141153,5.40381,-1.61089,4.95155,-6.90155,6.48952,-11.4027,-0.463606,0,0,0,0,0,0,0,-0.0667027,0.0919548,0.0637993,-1.69793,0.0452542,0.250232,-0.00839623,-0.00143515,0.0097978,-0.00160263,-0.000156228,0.533782,-0.51292,0.000440483,1.8216,1.2318,1.65746,-1.65145,14.4248,-29.6134,0.013808,3.09803,-39.2632,3.11128,26.1575,2.59704,0.82482,-0.00996382,
-0.062709,0.0908452,0.0677494,-1.70199,0.0505087,0.238691,-0.00786994,0.117649,-0.0159493,0.11483,-0.0970821,0.703568,-0.907907,0.0114398,7.01168,-1.22321,6.4942,-8.65099,16.1712,-23.4292,-1.67218,0,0,0,0,0,0,0,-0.0667027,0.0919548,0.0637993,-1.69793,0.0452542,0.250232,-0.00839623,-0.00143515,0.0097978,-0.00160263,-0.000156228,0.533782,-0.51292,0.000440483,0,0,0,0,0,0,0,3.09803,-39.2632,3.11128,26.1575,2.59704,0.82482,-0.00996382,
-0.0612858,0.0906702,0.0691137,-1.70335,0.057506,0.229538,-0.00788844,0.129699,-0.0171349,0.125972,-0.11159,0.737786,-0.955139,0.00868949,7.53105,-0.74098,6.96406,-9.06717,21.3861,-29.5203,-1.71896,0,0,0,0,0,0,0,-0.0667027,0.0919548,0.0637993,-1.69793,0.0452542,0.250232,-0.00839623,-0.00143515,0.0097978,-0.00160263,-0.000156228,0.533782,-0.51292,0.000440483,0,0,0,0,0,0,0,3.09803,-39.2632,3.11128,26.1575,2.59704,0.82482,-0.00996382,
-0.0649952,0.0915834,0.06548,-1.7003,0.0550726,0.238156,-0.00790781,0.130309,-0.0178033,0.12665,-0.12268,0.721146,-0.932835,0.0101038,0.381313,-0.417793,0.423516,-6.93144,-10.4,13.9402,0.883946,0,0,0,0,0,0,0,-0.0667027,0.0919548,0.0637993,-1.69793,0.0452542,0.250232,-0.00839623,-0.00143515,0.0097978,-0.00160263,-0.000156228,0.533782,-0.51292,0.000440483,0,0,0,0,0,0,0,3.09803,-39.2632,3.11128,26.1575,2.59704,0.82482,-0.00996382,
-0.063664,0.0914294,0.0667655,-1.7019,0.061009,0.230355,-0.00790014,0.137527,-0.0180922,0.133458,-0.138358,0.725326,-0.941277,0.00827475,4.51138,-0.180526,4.25486,-9.79869,2.61269,-5.27665,-1.14316,0,0,0,0,0,0,0,-0.0664027,0.0917343,0.0641592,-1.69849,0.0624993,0.230621,-0.00836727,0.0226359,-0.0107483,0.0184529,-0.0201922,0.606661,-0.651498,0.00125578,3.00888,-2.56826,2.50694,-2.5045,9.10985,-17.3222,0.101911,5.9386,-36.4424,5.88838,24.0866,2.74353,0.997854,0.0101778,
-0.0621533,0.0913005,0.0682197,-1.70369,0.0675558,0.221733,-0.0079394,0.147789,-0.0176985,0.143122,-0.155285,0.743931,-0.968566,0.00563846,6.41361,0.246051,6.03987,-10.5796,11.6282,-17.0557,-1.64768,0,0,0,0,0,0,0,-0.0664027,0.0917343,0.0641592,-1.69849,0.0624993,0.230621,-0.00836727,0.0226359,-0.0107483,0.0184529,-0.0201922,0.606661,-0.651498,0.00125578,0,0,0,0,0,0,0,5.9386,-36.4424,5.88838,24.0866,2.74353,0.997854,0.0101778,
-0.0644478,0.0909651,0.0660808,-1.70178,0.0731927,0.217841,-0.00817184,0.147692,-0.0240269,0.143218,-0.171644,0.735253,-0.94792,0.00505918,-0.0603728,-3.95528,0.0605387,-10.224,-5.42383,12.904,-0.362046,0,0,0,0,0,0,0,-0.0664027,0.0917343,0.0641592,-1.69849,0.0624993,0.230621,-0.00836727,0.0226359,-0.0107483,0.0184529,-0.0201922,0.606661,-0.651498,0.00125578,0,0,0,0,0,0,0,5.9386,-36.4424,5.88838,24.0866,2.74353,0.997854,0.0101778,
-0.0630089,0.0906129,0.0674724,-1.70394,0.0793745,0.209959,-0.0082285,0.154126,-0.0280263,0.149364,-0.191258,0.742748,-0.955382,0.00263085,4.02099,-2.49962,3.84106,-12.2591,4.68416,-4.66394,-1.51771,0,0,0,0,0,0,0,-0.0664027,0.0917343,0.0641592,-1.69849,0.0624993,0.230621,-0.00836727,0.0226359,-0.0107483,0.0184529,-0.0201922,0.606661,-0.651498,0.00125578,0,0,0,0,0,0,0,5.9386,-36.4424,5.88838,24.0866,2.74353,0.997854,0.0101778,
-0.0614046,0.0903085,0.0690189,-1.70626,0.0860961,0.201312,-0.00833424,0.163408,-0.0300324,0.158154,-0.211087,0.762237,-0.980463,-0.000538883,5.80144,-1.2538,5.4937,-12.3932,12.1806,-15.6753,-1.98109,0,0,0,0,0,0,0,-0.0649729,0.0911716,0.0658137,-1.70063,0.0814509,0.207278,-0.00829916,0.053118,-0.0155277,0.0714015,-0.0778578,0.616087,-0.753558,-0.000103147,3.81026,-0.597435,6.61858,-7.2082,1.17823,-12.7576,-0.169865,5.43079,-36.1925,5.21394,23.7137,2.48718,1.79986,-0.0026396,
-0.0596974,0.0900448,0.0706617,-1.70869,0.0932747,0.192078,-0.00846388,0.173407,-0.0306182,0.167594,-0.229736,0.789256,-1.01524,-0.00367212,6.24899,-0.366096,5.89991,-11.6553,16.887,-21.7341,-1.95827,0,0,0,0,0,0,0,-0.0649729,0.0911716,0.0658137,-1.70063,0.0814509,0.207278,-0.00829916,0.053118,-0.0155277,0.0714015,-0.0778578,0.616087,-0.753558,-0.000103147,0,0,0,0,0,0,0,5.43079,-36.1925,5.21394,23.7137,2.48718,1.79986,-0.0026396,
-0.0627687,0.090382,0.0679685,-1.70438,0.0928644,0.193182,-0.00833623,0.170168,-0.0343681,0.164606,-0.235416,0.780775,-1.00011,-0.00428068,-2.02431,-2.34373,-1.86773,-3.55016,-5.30074,9.45468,-0.380351,0,0,0,0,0,0,0,-0.0649729,0.0911716,0.0658137,-1.70063,0.0814509,0.207278,-0.00829916,0.053118,-0.0155277,0.0714015,-0.0778578,0.616087,-0.753558,-0.000103147,0,0,0,0,0,0,0,5.43079,-36.1925,5.21394,23.7137,2.48718,1.79986,-0.0026396,
-0.0613072,0.0900314,0.0693801,-1.70664,0.0993639,0.184847,-0.00843935,0.172673,-0.0362608,0.166973,-0.244909,0.787105,-1.00845,-0.00600259,1.56592,-1.18289,1.47992,-5.93296,3.95666,-5.21293,-1.07619,0,0,0,0,0,0,0,-0.0649729,0.0911716,0.0658137,-1.70063,0.0814509,0.207278,-0.00829916,0.053118,-0.0155277,0.0714015,-0.0778578,0.616087,-0.753558,-0.000103147,0,0,0,0,0,0,0,5.43079,-36.1925,5.21394,23.7137,2.48718,1.79986,-0.0026396,
-0.0597134,0.0897254,0.0709152,-1.70903,0.106326,0.17587,-0.0085671,0.177982,-0.0366578,0.171957,-0.255639,0.803735,-1.03119,-0.00799588,3.31825,-0.248126,3.11445,-6.70663,10.3938,-14.2141,-1.24581,0,0,0,0,0,0,0,-0.062316,0.0905961,0.0684669,-1.70486,0.101155,0.182065,-0.00827135,0.0978614,-0.00261649,0.0966666,-0.147352,0.615923,-0.765177,0.000283443,5.59293,1.61391,3.15813,-8.68679,-0.0204364,-1.45225,0.0483238,2.72113,-37.2914,2.66298,25.2332,2.1878,2.08459,-0.0227812,
-0.0580369,0.0894573,0.0725277,-1.7115,0.11367,0.166401,-0.00870449,0.184299,-0.0360295,0.177878,-0.26627,0.8266,-1.06167,-0.00983146,3.94766,0.392642,3.70118,-6.64449,14.2902,-19.0509,-1.14724,0,0,0,0,0,0,0,-0.062316,0.0905961,0.0684669,-1.70486,0.101155,0.182065,-0.00827135,0.0978614,-0.00261649,0.0966666,-0.147352,0.615923,-0.765177,0.000283443,0,0,0,0,0,0,0,2.72113,-37.2914,2.66298,25.2332,2.1878,2.08459,-0.0227812,
-0.0598619,0.0900686,0.0708435,-1.70903,0.112965,0.167333,-0.00843132,0.18096,-0.0357191,0.174678,-0.268639,0.816208,-1.04514,-0.0104439,-2.08638,0.193999,-2.00024,-1.48039,-6.495,10.335,-0.382778,0,0,0,0,0,0,0,-0.062316,0.0905961,0.0684669,-1.70486,0.101155,0.182065,-0.00827135,0.0978614,-0.00261649,0.0966666,-0.147352,0.615923,-0.765177,0.000283443,0,0,0,0,0,0,0,2.72113,-37.2914,2.66298,25.2332,2.1878,2.08459,-0.0227812,
-0.0583678,0.0898077,0.0722823,-1.7114,0.119665,0.158737,-0.00855857,0.182122,-0.0350975,0.175714,-0.274127,0.820471,-1.051,-0.0115363,0.726097,0.388524,0.647254,-3.43004,2.66423,-3.66573,-0.682714,0,0,0,0,0,0,0,-0.062316,0.0905961,0.0684669,-1.70486,0.101155,0.182065,-0.00827135,0.0978614,-0.00261649,0.0966666,-0.147352,0.615923,-0.765177,0.000283443,0,0,0,0,0,0,0,2.72113,-37.2914,2.66298,25.2332,2.1878,2.08459,-0.0227812,
-0.0567731,0.0895677,0.0738156,-1.71386,0.126782,0.149559,-0.00869544,0.185563,-0.0340793,0.178902,-0.280712,0.83429,-1.07027,-0.0126508,2.15049,0.636372,1.99281,-4.11528,8.63699,-12.0425,-0.696591,0,0,0,0,0,0,0,-0.0583903,0.0896717,0.0722975,-1.71171,0.123199,0.154661,-0.00827459,0.130936,-0.0351185,0.118794,-0.211356,0.622381,-0.828259,-0.0001779,4.1343,-4.06275,2.76592,-8.00053,0.807244,-7.88528,-0.0576678,2.03479,-37.4422,2.23848,25.257,1.91314,1.83922,-0.0365141,
-0.0551158,0.0893474,0.0754078,-1.71637,0.134231,0.139944,-0.00883189,0.189885,-0.0327711,0.182928,-0.287306,0.853655,-1.09659,-0.0135319,2.70094,0.817635,2.51641,-4.12137,12.1035,-16.4474,-0.550697,0,0,0,0,0,0,0,-0.0583903,0.0896717,0.0722975,-1.71171,0.123199,0.154661,-0.00827459,0.130936,-0.0351185,0.118794,-0.211356,0.622381,-0.828259,-0.0001779,0,0,0,0,0,0,0,2.03479,-37.4422,2.23848,25.257,1.91314,1.83922,-0.0365141,
-0.0557229,0.0889922,0.0748649,-1.71614,0.135341,0.138904,-0.00850478,0.187309,-0.03448,0.180395,-0.287431,0.842385,-1.08422,-0.0140131,-1.60977,-1.06808,-1.58333,-0.0784884,-7.0442,7.73071,-0.300768,0,0,0,0,0,0,0,-0.0583903,0.0896717,0.0722975,-1.71171,0.123199,0.154661,-0.00827459,0.130936,-0.0351185,0.118794,-0.211356,0.622381,-0.828259,-0.0001779,0,0,0,0,0,0,0,2.03479,-37.4422,2.23848,25.257,1.91314,1.83922,-0.0365141,
-0.0541943,0.0886924,0.0763337,-1.71854,0.142207,0.129998,-0.00864158,0.188062,-0.0350792,0.181034,-0.290104,0.845543,-1.09003,-0.0146305,0.470911,-0.374485,0.399264,-1.67022,1.97397,-3.63274,-0.385841,0,0,0,0,0,0,0,-0.0583903,0.0896717,0.0722975,-1.71171,0.123199,0.154661,-0.00827459,0.130936,-0.0351185,0.118794,-0.211356,0.622381,-0.828259,-0.0001779,0,0,0,0,0,0,0,2.03479,-37.4422,2.23848,25.257,1.91314,1.83922,-0.0365141,
-0.0525919,0.0884213,0.0778723,-1.72101,0.149453,0.120616,-0.00877788,0.19051,-0.0348386,0.183294,-0.293796,0.857584,-1.10656,-0.015112,1.52997,0.150365,1.41248,-2.30751,7.52573,-10.328,-0.300927,0,0,0,0,0,0,0,-0.0583903,0.0896717,0.0722975,-1.71171,0.123199,0.154661,-0.00827459,0.130936,-0.0351185,0.118794,-0.211356,0.622381,-0.828259,-0.0001779,0,0,0,0,0,0,0,2.03479,-37.4422,2.23848,25.257,1.91314,1.83922,-0.0365141,
-0.0512657,0.0882195,0.0797583,-1.72493,0.15961,0.109999,-0.00854305,0.188856,-0.0342693,0.181616,-0.294855,0.852177,-1.0976,-0.0155031,-1.03397,0.35584,-1.04865,-0.661964,-3.3793,5.59728,-0.244455,0,0,0,0,0,0,0,-0.0540515,0.0887408,0.0770773,-1.72025,0.146837,0.126218,-0.00828217,0.112207,-0.032669,0.171968,-0.266454,0.681813,-0.836937,-0.000226842,-2.3411,0.30619,6.6468,-6.88721,7.42895,-1.08472,-0.00611778,2.51484,-37.1922,2.6114,25.4831,2.19329,1.614,-0.050247,
-0.0497217,0.0879764,0.0812393,-1.72739,0.166661,0.100935,-0.00867924,0.189684,-0.0334937,0.182319,-0.297294,0.858003,-1.10468,-0.0158074,0.5173,0.484738,0.439615,-1.52441,3.64092,-4.42478,-0.190161,0,0,0,0,0,0,0,-0.0540515,0.0887408,0.0770773,-1.72025,0.146837,0.126218,-0.00828217,0.112207,-0.032669,0.171968,-0.266454,0.681813,-0.836937,-0.000226842,0,0,0,0,0,0,0,2.51484,-37.1922,2.6114,25.4831,2.19329,1.614,-0.050247,
-0.0481223,0.0877464,0.0827731,-1.72988,0.174026,0.0914522,-0.0088078,0.191731,-0.0325455,0.184201,-0.300146,0.870529,-1.12082,-0.0158598,1.27989,0.592598,1.17595,-1.78228,7.82869,-10.0848,-0.0327962,0,0,0,0,0,0,0,-0.0540515,0.0887408,0.0770773,-1.72025,0.146837,0.126218,-0.00828217,0.112207,-0.032669,0.171968,-0.266454,0.681813,-0.836937,-0.000226842,0,0,0,0,0,0,0,2.51484,-37.1922,2.6114,25.4831,2.19329,1.614,-0.050247,
-0.0464908,0.0875286,0.0843376,-1.73239,0.181631,0.0816635,-0.00892431,0.194174,-0.0314803,0.186472,-0.302791,0.886555,-1.14137,-0.0156006,1.52687,0.665769,1.41916,-1.65343,10.0164,-12.846,0.162016,0,0,0,0,0,0,0,-0.0540515,0.0887408,0.0770773,-1.72025,0.146837,0.126218,-0.00828217,0.112207,-0.032669,0.171968,-0.266454,0.681813,-0.836937,-0.000226842,0,0,0,0,0,0,0,2.51484,-37.1922,2.6114,25.4831,2.19329,1.614,-0.050247,
-0.0457963,0.0884766,0.0847502,-1.73391,0.184414,0.0799094,-0.00856009,0.192596,-0.0278657,0.184831,-0.303833,0.879349,-1.12819,-0.0159124,-0.986334,2.25913,-1.02524,-0.651117,-4.50374,8.23991,-0.194898,0,0,0,0,0,0,0,-0.0486902,0.0886277,0.0819899,-1.7291,0.17127,0.0964211,-0.00828878,0.20398,0.0184709,0.104757,-0.247472,0.715373,-0.897286,0.000581347,11.4716,6.39248,-8.4014,2.37278,4.195,-7.54372,0.101024,0.614505,-38.2634,0.86183,24.8602,2.12646,0.818411,-0.0767973,
-0.0442438,0.0883411,0.0862362,-1.73642,0.191568,0.0707744,-0.00868922,0.192888,-0.025682,0.185016,-0.305719,0.882335,-1.13092,-0.0159582,0.18242,1.3648,0.115574,-1.17863,1.86629,-1.71176,-0.0286129,0,0,0,0,0,0,0,-0.0486902,0.0886277,0.0819899,-1.7291,0.17127,0.0964211,-0.00828878,0.20398,0.0184709,0.104757,-0.247472,0.715373,-0.897286,0.000581347,0,0,0,0,0,0,0,0.614505,-38.2634,0.86183,24.8602,2.12646,0.818411,-0.0767973,
-0.0426523,0.0881904,0.0877598,-1.73894,0.198989,0.061253,-0.00880607,0.194098,-0.0243121,0.186103,-0.307545,0.891384,-1.14277,-0.0156877,0.756133,0.856221,0.679253,-1.1413,5.65569,-7.40544,0.169074,0,0,0,0,0,0,0,-0.0486902,0.0886277,0.0819899,-1.7291,0.17127,0.0964211,-0.00828878,0.20398,0.0184709,0.104757,-0.247472,0.715373,-0.897286,0.000581347,0,0,0,0,0,0,0,0.614505,-38.2634,0.86183,24.8602,2.12646,0.818411,-0.0767973,
-0.0410401,0.0880315,0.0893034,-1.74145,0.206611,0.051456,-0.00890629,0.195585,-0.0234227,0.187472,-0.308863,0.903662,-1.15915,-0.0150557,0.929103,0.555848,0.855436,-0.823979,7.67399,-10.2328,0.395028,0,0,0,0,0,0,0,-0.0486902,0.0886277,0.0819899,-1.7291,0.17127,0.0964211,-0.00828878,0.20398,0.0184709,0.104757,-0.247472,0.715373,-0.897286,0.000581347,0,0,0,0,0,0,0,0.614505,-38.2634,0.86183,24.8602,2.12646,0.818411,-0.0767973,
-0.0458634,0.0884517,0.084683,-1.73388,0.184501,0.0798463,-0.00855198,0.192689,-0.0217841,0.184617,-0.308103,0.894229,-1.14333,-0.0152814,-1.80998,1.02411,-1.78433,0.475292,-5.89598,9.88279,-0.14109,0,0,0,0,0,0,0,-0.0426859,0.0881944,0.0869427,-1.7387,0.196926,0.0653203,-0.00830474,0.184072,-0.0228816,0.136846,-0.288129,0.77633,-0.950108,-0.00280746,-2.48846,-5.16906,4.01105,-5.08216,7.61972,-6.60274,-0.423601,0.539127,-37.5414,1.3141,24.884,2.20611,0.619742,-0.00996382,
-0.0443612,0.0883006,0.0861207,-1.73635,0.191698,0.0706722,-0.00866857,0.191706,-0.021204,0.183636,-0.308323,0.895304,-1.14402,-0.0151399,-0.614343,0.36255,-0.613118,-0.137719,0.672012,-0.428888,0.0884558,0,0,0,0,0,0,0,-0.0426859,0.0881944,0.0869427,-1.7387,0.196926,0.0653203,-0.00830474,0.184072,-0.0228816,0.136846,-0.288129,0.77633,-0.950108,-0.00280746,0,0,0,0,0,0,0,0.539127,-37.5414,1.3141,24.884,2.20611,0.619742,-0.00996382,
-0.0428246,0.0881356,0.0875918,-1.73883,0.199152,0.0611141,-0.00876823,0.191779,-0.0210881,0.183688,-0.308637,0.902584,-1.15417,-0.0146034,0.0459798,0.0724454,0.0326686,-0.196454,4.54965,-6.34222,0.335317,0,0,0,0,0,0,0,-0.0426859,0.0881944,0.0869427,-1.7387,0.196926,0.0653203,-0.00830474,0.184072,-0.0228816,0.136846,-0.288129,0.77633,-0.950108,-0.00280746,0,0,0,0,0,0,0,0.539127,-37.5414,1.3141,24.884,2.20611,0.619742,-0.00996382,
-0.0398114,0.0877573,0.0896869,-1.74351,0.210672,0.0480238,-0.00854523,0.190103,-0.0224607,0.182029,-0.307537,0.898481,-1.1466,-0.0145892,-1.04738,-0.857875,-1.0368,0.687694,-2.56416,4.72812,0.00886457,0,0,0,0,0,0,0,-0.0426859,0.0881944,0.0869427,-1.7387,0.196926,0.0653203,-0.00830474,0.184072,-0.0228816,0.136846,-0.288129,0.77633,-0.950108,-0.00280746,0,0,0,0,0,0,0,0.539127,-37.5414,1.3141,24.884,2.20611,0.619742,-0.00996382,
-0.0383029,0.0875325,0.0911302,-1.74595,0.218003,0.0386858,-0.00864492,0.189793,-0.0235865,0.181705,-0.306961,0.902051,-1.15073,-0.0141636,-0.19393,-0.703588,-0.202639,0.360149,2.2316,-2.58098,0.266002,0,0,0,0,0,0,0,-0.0373318,0.0882187,0.0927949,-1.74894,0.223576,0.0320495,-0.00831262,0.0756339,0.0154681,0.26796,-0.294265,0.803151,-1.01019,-0.00292071,-13.5548,4.79372,16.3893,-0.766952,3.35258,-7.51024,-0.0141564,2.23713,-37.8667,2.6114,26.2289,2.51739,0.871512,0.00376909,
-0.036771,0.0873102,0.0925964,-1.74838,0.22554,0.0290576,-0.00872581,0.190132,-0.0244282,0.182019,-0.306401,0.910051,-1.16129,-0.0133532,0.212028,-0.526097,0.196387,0.349797,4.99997,-6.59869,0.506514,0,0,0,0,0,0,0,-0.0373318,0.0882187,0.0927949,-1.74894,0.223576,0.0320495,-0.00831262,0.0756339,0.0154681,0.26796,-0.294265,0.803151,-1.01019,-0.00292071,0,0,0,0,0,0,0,2.23713,-37.8667,2.6114,26.2289,2.51739,0.871512,0.00376909,
-0.0352299,0.0870896,0.0940721,-1.75081,0.233232,0.0193077,-0.00879009,0.190633,-0.0250571,0.182508,-0.305833,0.92034,-1.17278,-0.0122897,0.312903,-0.393031,0.305393,0.355134,6.43052,-7.18209,0.664658,0,0,0,0,0,0,0,-0.0373318,0.0882187,0.0927949,-1.74894,0.223576,0.0320495,-0.00831262,0.0756339,0.0154681,0.26796,-0.294265,0.803151,-1.01019,-0.00292071,0,0,0,0,0,0,0,2.23713,-37.8667,2.6114,26.2289,2.51739,0.871512,0.00376909,
-0.034416,0.0881373,0.0955966,-1.75391,0.237658,0.0142587,-0.00852943,0.189629,-0.0218347,0.18145,-0.307002,0.915752,-1.16634,-0.0123384,-0.62755,2.01398,-0.661213,-0.730893,-2.86754,4.02374,-0.0304049,0,0,0,0,0,0,0,-0.0373318,0.0882187,0.0927949,-1.74894,0.223576,0.0320495,-0.00831262,0.0756339,0.0154681,0.26796,-0.294265,0.803151,-1.01019,-0.00292071,0,0,0,0,0,0,0,2.23713,-37.8667,2.6114,26.2289,2.51739,0.871512,0.00376909,
-0.0329039,0.0880283,0.0970409,-1.75639,0.245046,0.00480253,-0.0086107,0.189506,-0.020195,0.181266,-0.307608,0.917308,-1.16948,-0.0119025,-0.0770367,1.0248,-0.115113,-0.378815,0.972286,-1.95968,0.272436,0,0,0,0,0,0,0,-0.0316868,0.0882367,0.0989637,-1.75912,0.249452,-0.000125518,-0.00830821,0.0653902,-0.0115438,0.288446,-0.306467,0.80691,-0.930979,-0.00016967,-1.28046,-3.37649,2.56081,-1.52525,0.469914,9.90147,0.34388,1.57856,-37.3668,1.83778,25.0348,2.31598,0.672842,-0.050247,
-0.0313793,0.0878917,0.098498,-1.75886,0.252596,-0.0048022,-0.00867532,0.189719,-0.019569,0.18144,-0.307709,0.92259,-1.1757,-0.0111376,0.133335,0.391242,0.109102,-0.0628688,3.30149,-3.88927,0.478063,0,0,0,0,0,0,0,-0.0316868,0.0882367,0.0989637,-1.75912,0.249452,-0.000125518,-0.00830821,0.0653902,-0.0115438,0.288446,-0.306467,0.80691,-0.930979,-0.00016967,0,0,0,0,0,0,0,1.57856,-37.3668,1.83778,25.0348,2.31598,0.672842,-0.050247,
-0.0298458,0.0877239,0.0999654,-1.76137,0.260272,-0.0139196,-0.00872319,0.190113,-0.0198498,0.181837,-0.30893,0.929962,-1.16849,-0.0101068,0.246406,-0.175496,0.247983,-0.763289,4.60713,4.50379,0.644199,0,0,0,0,0,0,0,-0.0316868,0.0882367,0.0989637,-1.75912,0.249452,-0.000125518,-0.00830821,0.0653902,-0.0115438,0.288446,-0.306467,0.80691,-0.930979,-0.00016967,0,0,0,0,0,0,0,1.57856,-37.3668,1.83778,25.0348,2.31598,0.672842,-0.050247,
-0.0287599,0.087945,0.101773,-1.76393,0.263565,-0.0172408,-0.00849131,0.189131,-0.0199286,0.180774,-0.307226,0.923796,-1.1555,-0.0101506,-0.614135,-0.0492455,-0.664079,1.06547,-3.85345,8.11938,-0.0273566,0,0,0,0,0,0,0,-0.0316868,0.0882367,0.0989637,-1.75912,0.249452,-0.000125518,-0.00830821,0.0653902,-0.0115438,0.288446,-0.306467,0.80691,-0.930979,-0.00016967,0,0,0,0,0,0,0,1.57856,-37.3668,1.83778,25.0348,2.31598,0.672842,-0.050247,
-0.0272642,0.087758,0.1032,-1.76633,0.270961,-0.0263586,-0.00855692,0.188697,-0.0206163,0.180299,-0.305751,0.923929,-1.15235,-0.00976084,-0.2712,-0.42982,-0.297414,0.921533,0.08277,1.97211,0.243606,0,0,0,0,0,0,0,-0.0260336,0.0883704,0.104943,-1.76911,0.275872,-0.0322331,-0.00830915,0.0406774,0.021223,0.313856,-0.294101,0.792577,-0.986037,0.000793967,-3.08909,4.09585,3.17619,1.54574,-1.79168,-6.88235,0.120455,1.72931,-38.3666,1.86159,25.9076,2.13836,0.639883,-0.0703886,
-0.0257562,0.087542,0.104642,-1.76879,0.278508,-0.03509,-0.00860551,0.188658,-0.0218931,0.180273,-0.305945,0.927834,-1.14016,-0.0090234,-0.0240792,-0.797998,-0.0161172,-0.120963,2.44122,7.61624,0.460902,0,0,0,0,0,0,0,-0.0260336,0.0883704,0.104943,-1.76911,0.275872,-0.0322331,-0.00830915,0.0406774,0.021223,0.313856,-0.294101,0.792577,-0.986037,0.000793967,0,0,0,0,0,0,0,1.72931,-38.3666,1.86159,25.9076,2.13836,0.639883,-0.0703886,
-0.0231541,0.0883292,0.107706,-1.77398,0.289835,-0.0495584,-0.00845911,0.187298,-0.0190201,0.178821,-0.305718,0.920129,-1.13316,-0.00887295,-0.850143,1.79567,-0.907447,0.141381,-4.81596,4.37477,0.0940298,0,0,0,0,0,0,0,-0.0260336,0.0883704,0.104943,-1.76911,0.275872,-0.0322331,-0.00830915,0.0406774,0.021223,0.313856,-0.294101,0.792577,-0.986037,0.000793967,0,0,0,0,0,0,0,1.72931,-38.3666,1.86159,25.9076,2.13836,0.639883,-0.0703886,
-0.0216815,0.0882046,0.10911,-1.77646,0.297144,-0.0580694,-0.00850789,0.186653,-0.0183323,0.178157,-0.306716,0.918814,-1.11931,-0.00831771,-0.402859,0.429841,-0.414604,-0.623526,-0.821675,8.66073,0.347024,0,0,0,0,0,0,0,-0.0260336,0.0883704,0.104943,-1.76911,0.275872,-0.0322331,-0.00830915,0.0406774,0.021223,0.313856,-0.294101,0.792577,-0.986037,0.000793967,0,0,0,0,0,0,0,1.72931,-38.3666,1.86159,25.9076,2.13836,0.639883,-0.0703886,
-0.0201918,0.0880307,0.110533,-1.77901,0.304589,-0.0656738,-0.0085421,0.186566,-0.0190115,0.17809,-0.308985,0.921191,-1.08555,-0.00750951,-0.0543735,-0.4245,-0.0421282,-1.41791,1.48559,21.0945,0.505127,0,0,0,0,0,0,0,-0.02034,0.0885599,0.110971,-1.77951,0.302543,-0.0652389,-0.00831052,0.0299782,-0.0130234,0.320521,-0.300743,0.768513,-0.953495,0.00041547,-1.33741,-4.2808,0.833136,-0.830218,-3.00794,4.06777,-0.0473121,0.868412,-37.4898,1.18715,25.5585,2.46887,0.427481,-0.0566557,
-0.0186907,0.0878246,0.111967,-1.78158,0.312127,-0.0721028,-0.00856449,0.186779,-0.0203639,0.17833,-0.311573,0.925395,-1.02917,-0.00656739,0.132728,-0.845255,0.149748,-1.61796,2.6272,35.2406,0.588822,0,0,0,0,0,0,0,-0.02034,0.0885599,0.110971,-1.77951,0.302543,-0.0652389,-0.00831052,0.0299782,-0.0130234,0.320521,-0.300743,0.768513,-0.953495,0.00041547,0,0,0,0,0,0,0,0.868412,-37.4898,1.18715,25.5585,2.46887,0.427481,-0.0566557,
-0.0175122,0.088215,0.113685,-1.7843,0.316239,-0.0815385,-0.00842706,0.185184,-0.021194,0.176684,-0.309755,0.91533,-1.02462,-0.00648691,-0.996798,-0.518762,-1.02832,1.13651,-6.29021,2.84628,0.0503009,0,0,0,0,0,0,0,-0.02034,0.0885599,0.110971,-1.77951,0.302543,-0.0652389,-0.00831052,0.0299782,-0.0130234,0.320521,-0.300743,0.768513,-0.953495,0.00041547,0,0,0,0,0,0,0,0.868412,-37.4898,1.18715,25.5585,2.46887,0.427481,-0.0566557,
-0.01606,0.0879794,0.115069,-1.78679,0.32345,-0.0887731,-0.0084616,0.184453,-0.0228454,0.175961,-0.309954,0.912522,-1.00056,-0.00605319,-0.456998,-1.03218,-0.452328,-0.124534,-1.75537,15.0363,0.271073,0,0,0,0,0,0,0,-0.02034,0.0885599,0.110971,-1.77951,0.302543,-0.0652389,-0.00831052,0.0299782,-0.0130234,0.320521,-0.300743,0.768513,-0.953495,0.00041547,0,0,0,0,0,0,0,0.868412,-37.4898,1.18715,25.5585,2.46887,0.427481,-0.0566557,
-0.0145909,0.0877181,0.116471,-1.78931,0.3308,-0.0948959,-0.00848423,0.184289,-0.0248097,0.175823,-0.311068,0.913787,-0.953517,-0.00540821,-0.102425,-1.22769,-0.0857318,-0.695776,0.790999,29.4,0.403112,0,0,0,0,0,0,0,-0.0141776,0.0885275,0.116419,-1.7897,0.329359,-0.0966446,-0.00831478,0.0232763,0.00211339,0.315989,-0.293379,0.783859,-0.900896,-0.000449421,-0.837727,1.8921,-0.566482,0.920452,1.91822,6.5749,-0.108111,1.57856,-36.2163,1.7624,23.6145,2.67578,-0.533823,-0.0163725,
-0.011416,0.0882655,0.119069,-1.79457,0.343093,-0.110641,-0.00840171,0.182471,-0.0240767,0.173987,-0.310584,0.905771,-0.929882,-0.00520692,-1.13629,0.458137,-1.14804,0.30208,-5.01044,14.7719,0.125809,0,0,0,0,0,0,0,-0.0141776,0.0885275,0.116419,-1.7897,0.329359,-0.0966446,-0.00831478,0.0232763,0.00211339,0.315989,-0.293379,0.783859,-0.900896,-0.000449421,0,0,0,0,0,0,0,1.57856,-36.2163,1.7624,23.6145,2.67578,-0.533823,-0.0163725,
-0.00999029,0.0880448,0.120428,-1.79708,0.35025,-0.116341,-0.00842464,0.181619,-0.0247791,0.173143,-0.311148,0.90353,-0.886408,-0.00473891,-0.532509,-0.43899,-0.527203,-0.352139,-1.40044,27.1714,0.292508,0,0,0,0,0,0,0,-0.0141776,0.0885275,0.116419,-1.7897,0.329359,-0.0966446,-0.00831478,0.0232763,0.00211339,0.315989,-0.293379,0.783859,-0.900896,-0.000449421,0,0,0,0,0,0,0,1.57856,-36.2163,1.7624,23.6145,2.67578,-0.533823,-0.0163725,
-0.00854884,0.0877888,0.121802,-1.79959,0.357521,-0.120898,-0.00843702,0.181331,-0.0262251,0.172875,-0.311799,0.904611,-0.82305,-0.00410069,-0.179571,-0.903765,-0.16724,-0.407106,0.675526,39.5984,0.398884,0,0,0,0,0,0,0,-0.0141776,0.0885275,0.116419,-1.7897,0.329359,-0.0966446,-0.00831478,0.0232763,0.00211339,0.315989,-0.293379,0.783859,-0.900896,-0.000449421,0,0,0,0,0,0,0,1.57856,-36.2163,1.7624,23.6145,2.67578,-0.533823,-0.0163725,
-0.00710104,0.0875081,0.123183,-1.80209,0.364872,-0.124274,-0.00843932,0.18126,-0.0279962,0.172826,-0.311892,0.907458,-0.742854,-0.0033379,-0.0445777,-1.10689,-0.0306927,-0.0581444,1.77973,50.123,0.476743,0,0,0,0,0,0,0,-0.0141776,0.0885275,0.116419,-1.7897,0.329359,-0.0966446,-0.00831478,0.0232763,0.00211339,0.315989,-0.293379,0.783859,-0.900896,-0.000449421,0,0,0,0,0,0,0,1.57856,-36.2163,1.7624,23.6145,2.67578,-0.533823,-0.0163725,
-0.00597386,0.0884657,0.125285,-1.80537,0.369716,-0.137873,-0.00836872,0.180869,-0.0255741,0.172313,-0.31315,0.89897,-0.729661,-0.00326293,-0.244505,1.51377,-0.320645,-0.786135,-5.30548,8.2453,0.0468562,0,0,0,0,0,0,0,-0.00881791,0.0886397,0.122567,-1.80028,0.3561,-0.126176,-0.0083085,0.0670913,0.00486234,0.282471,-0.323669,0.788069,-0.829553,-0.000110324,5.47687,0.343618,-4.18977,-3.7862,0.526201,8.91792,0.0423871,0.336795,-37.5176,0.588087,27.0026,2.72522,0.57305,-0.0365141,
-0.00452904,0.0882761,0.126659,-1.80791,0.376793,-0.14221,-0.00838168,0.180816,-0.0251977,0.172201,-0.313972,0.8961,-0.692149,-0.00293441,-0.0333189,0.235246,-0.0700053,-0.514011,-1.79348,23.4454,0.205326,0,0,0,0,0,0,0,-0.00881791,0.0886397,0.122567,-1.80028,0.3561,-0.126176,-0.0083085,0.0670913,0.00486234,0.282471,-0.323669,0.788069,-0.829553,-0.000110324,0,0,0,0,0,0,0,0.336795,-37.5176,0.588087,27.0026,2.72522,0.57305,-0.0365141,
-0.0030808,0.0880404,0.128037,-1.81042,0.38398,-0.145406,-0.00838442,0.180858,-0.0260513,0.172224,-0.31396,0.896542,-0.633607,-0.0024159,0.0268152,-0.533506,0.0140038,0.00748606,0.27635,36.5883,0.324068,0,0,0,0,0,0,0,-0.00881791,0.0886397,0.122567,-1.80028,0.3561,-0.126176,-0.0083085,0.0670913,0.00486234,0.282471,-0.323669,0.788069,-0.829553,-0.000110324,0,0,0,0,0,0,0,0.336795,-37.5176,0.588087,27.0026,2.72522,0.57305,-0.0365141,
-0.00597816,0.0884361,0.125285,-1.80547,0.369739,-0.136415,-0.00834485,0.180462,-0.0242823,0.171784,-0.315854,0.890456,-0.620561,-0.00223607,-0.247806,1.10565,-0.274742,-1.18353,-3.80379,8.15425,0.112394,0,0,0,0,0,0,0,-0.00881791,0.0886397,0.122567,-1.80028,0.3561,-0.126176,-0.0083085,0.0670913,0.00486234,0.282471,-0.323669,0.788069,-0.829553,-0.000110324,0,0,0,0,0,0,0,0.336795,-37.5176,0.588087,27.0026,2.72522,0.57305,-0.0365141,
-0.00454187,0.0882453,0.126651,-1.80802,0.37682,-0.139774,-0.00834681,0.180277,-0.0241943,0.171589,-0.316497,0.889401,-0.580426,-0.00183781,-0.115689,0.0549882,-0.122257,-0.401605,-0.659765,25.0842,0.248916,0,0,0,0,0,0,0,-0.00319595,0.0885318,0.128579,-1.81103,0.383136,-0.152141,-0.00830909,0.073196,-0.00095247,0.280027,-0.3308,0.812644,-0.66083,-0.00154069,0.763082,-0.726851,-0.305444,-0.89139,3.07193,21.0903,-0.178795,0.717655,-35.8672,0.86183,25.257,2.78015,0.71221,0.00376909,
-0.00310803,0.0880149,0.128016,-1.81052,0.38401,-0.141974,-0.00833752,0.180068,-0.0251174,0.171394,-0.315777,0.891254,-0.519327,-0.00123809,-0.13082,-0.576914,-0.121341,0.449565,1.15869,38.1866,0.374822,0,0,0,0,0,0,0,-0.00319595,0.0885318,0.128579,-1.81103,0.383136,-0.152141,-0.00830909,0.073196,-0.00095247,0.280027,-0.3308,0.812644,-0.66083,-0.00154069,0,0,0,0,0,0,0,0.717655,-35.8672,0.86183,25.257,2.78015,0.71221,0.00376909,
-0.00168469,0.0877554,0.129371,-1.81297,0.391277,-0.143093,-0.0083177,0.179638,-0.026581,0.171,-0.31371,0.894676,-0.443446,-0.000494856,-0.268786,-0.914736,-0.246779,1.29176,2.13827,47.4258,0.464522,0,0,0,0,0,0,0,-0.00319595,0.0885318,0.128579,-1.81103,0.383136,-0.152141,-0.00830909,0.073196,-0.00095247,0.280027,-0.3308,0.812644,-0.66083,-0.00154069,0,0,0,0,0,0,0,0.717655,-35.8672,0.86183,25.257,2.78015,0.71221,0.00376909,
-0.000340718,0.0882687,0.13131,-1.81618,0.396904,-0.159555,-0.0083261,0.179579,-0.0254099,0.170877,-0.31477,0.889849,-0.433274,-0.000456574,-0.0365775,0.731895,-0.0766584,-0.662118,-3.01676,6.35741,0.0239264,0,0,0,0,0,0,0,-0.00319595,0.0885318,0.128579,-1.81103,0.383136,-0.152141,-0.00830909,0.073196,-0.00095247,0.280027,-0.3308,0.812644,-0.66083,-0.00154069,0,0,0,0,0,0,0,0.717655,-35.8672,0.86183,25.257,2.78015,0.71221,0.00376909,
0.00109142,0.0880506,0.132672,-1.81868,0.403984,-0.161571,-0.00831714,0.179467,-0.0257803,0.170738,-0.314264,0.888883,-0.396998,-0.000141337,-0.0702607,-0.231488,-0.0865981,0.316123,-0.603389,22.6725,0.197023,0,0,0,0,0,0,0,0.00278737,0.0884674,0.134137,-1.82179,0.410252,-0.171836,-0.00830785,0.0648457,0.0129351,0.279072,-0.328409,0.7378,-0.515652,-0.00107476,-1.04378,1.73595,-0.119361,0.298883,-9.3555,18.1472,0.0582405,0.309024,-36.0933,0.361952,26.5027,2.45605,0.51354,0.00376909,
0.0025131,0.0877942,0.134024,-1.82112,0.411148,-0.162528,-0.00829761,0.179115,-0.0270356,0.170394,-0.312296,0.890224,-0.341537,0.000375276,-0.219483,-0.784556,-0.215136,1.23021,0.838079,34.6631,0.322883,0,0,0,0,0,0,0,0.00278737,0.0884674,0.134137,-1.82179,0.410252,-0.171836,-0.00830785,0.0648457,0.0129351,0.279072,-0.328409,0.7378,-0.515652,-0.00107476,0,0,0,0,0,0,0,0.309024,-36.0933,0.361952,26.5027,2.45605,0.51354,0.00376909,
0.00391693,0.08751,0.135359,-1.82349,0.418376,-0.16252,-0.00826878,0.178388,-0.0287342,0.1697,-0.309068,0.892865,-0.273024,0.00102087,-0.45459,-1.06162,-0.433777,2.01704,1.65068,42.8209,0.403498,0,0,0,0,0,0,0,0.00278737,0.0884674,0.134137,-1.82179,0.410252,-0.171836,-0.00830785,0.0648457,0.0129351,0.279072,-0.328409,0.7378,-0.515652,-0.00107476,0,0,0,0,0,0,0,0.309024,-36.0933,0.361952,26.5027,2.45605,0.51354,0.00376909,
0.00555271,0.0883097,0.136775,-1.82695,0.42322,-0.176758,-0.00830159,0.177422,-0.0260546,0.168642,-0.310955,0.879588,-0.266011,0.00106886,-0.603682,1.67475,-0.661209,-1.17913,-8.29851,4.38316,0.029994,0,0,0,0,0,0,0,0.00278737,0.0884674,0.134137,-1.82179,0.410252,-0.171836,-0.00830785,0.0648457,0.0129351,0.279072,-0.328409,0.7378,-0.515652,-0.00107476,0,0,0,0,0,0,0,0.309024,-36.0933,0.361952,26.5027,2.45605,0.51354,0.00376909,
0.00693627,0.0881239,0.138087,-1.82943,0.430015,-0.177614,-0.00828094,0.176527,-0.0254875,0.167712,-0.310612,0.873547,-0.234198,0.00137138,-0.559725,0.354407,-0.581208,0.21422,-3.77579,19.8828,0.189074,0,0,0,0,0,0,0,0.00883301,0.0885349,0.140181,-1.83269,0.435469,-0.185656,-0.00830857,0.0544989,0.00754506,0.302265,-0.307426,0.72634,-0.301118,-0.00087181,-1.29336,-0.673756,2.89909,2.62283,-1.43254,26.8167,0.025369,-0.147213,-36.617,-0.0109729,26.4551,3.0365,0.149161,0.0101778,
0.00830757,0.0878916,0.139389,-1.83182,0.436945,-0.177509,-0.00825119,0.175504,-0.0261976,0.1667,-0.308423,0.872093,-0.184741,0.0018408,-0.639194,-0.443757,-0.632718,1.36834,-0.908726,30.9107,0.293386,0,0,0,0,0,0,0,0.00883301,0.0885349,0.140181,-1.83269,0.435469,-0.185656,-0.00830857,0.0544989,0.00754506,0.302265,-0.307426,0.72634,-0.301118,-0.00087181,0,0,0,0,0,0,0,-0.147213,-36.617,-0.0109729,26.4551,3.0365,0.149161,0.0101778,
0.0116226,0.0882592,0.14284,-1.83763,0.44838,-0.187595,-0.00828411,0.175201,-0.0254394,0.166269,-0.307876,0.862426,-0.160278,0.00196118,-0.189118,0.473819,-0.269269,0.342015,-6.04156,15.2895,0.0752375,0,0,0,0,0,0,0,0.00883301,0.0885349,0.140181,-1.83269,0.435469,-0.185656,-0.00830857,0.0544989,0.00754506,0.302265,-0.307426,0.72634,-0.301118,-0.00087181,0,0,0,0,0,0,0,-0.147213,-36.617,-0.0109729,26.4551,3.0365,0.149161,0.0101778,
0.0129958,0.0880249,0.144141,-1.84,0.455156,-0.187217,-0.00825486,0.174492,-0.0262077,0.165518,-0.305716,0.859327,-0.118775,0.00229998,-0.443484,-0.480139,-0.469303,1.34955,-1.93721,25.9394,0.211749,0,0,0,0,0,0,0,0.00883301,0.0885349,0.140181,-1.83269,0.435469,-0.185656,-0.00830857,0.0544989,0.00754506,0.302265,-0.307426,0.72634,-0.301118,-0.00087181,0,0,0,0,0,0,0,-0.147213,-36.617,-0.0109729,26.4551,3.0365,0.149161,0.0101778,
0.0143466,0.0877527,0.14542,-1.84231,0.462064,-0.186042,-0.00821721,0.173364,-0.0277722,0.164402,-0.302175,0.860163,-0.0656527,0.00278131,-0.704708,-0.977822,-0.697704,2.21317,0.523014,33.2014,0.30083,0,0,0,0,0,0,0,0.0149641,0.0883493,0.145788,-1.8432,0.461046,-0.193201,-0.00830126,0.0299027,-0.00865892,0.317497,-0.299646,0.728839,-0.14793,7.46722e-05,-3.07452,-2.0255,1.90393,0.972537,0.312326,19.1486,0.11831,0.463749,-35.0459,0.663466,24.8087,2.82318,-0.427622,-0.0163725,
0.0156705,0.0874555,0.146674,-1.84454,0.469069,-0.184162,-0.00816938,0.171789,-0.0296486,0.162869,-0.297541,0.863252,-0.0055276,0.00342075,-0.984698,-1.17274,-0.957921,2.89652,1.93024,37.5782,0.399653,0,0,0,0,0,0,0,0.0149641,0.0883493,0.145788,-1.8432,0.461046,-0.193201,-0.00830126,0.0299027,-0.00865892,0.317497,-0.299646,0.728839,-0.14793,7.46722e-05,0,0,0,0,0,0,0,0.463749,-35.0459,0.663466,24.8087,2.82318,-0.427622,-0.0163725,
0.0176722,0.0879112,0.148374,-1.84797,0.473938,-0.192957,-0.00825604,0.171242,-0.0299412,0.162258,-0.296949,0.854914,0.00922017,0.00347099,-0.341541,-0.182911,-0.381813,0.370035,-5.21091,9.21736,0.0314004,0,0,0,0,0,0,0,0.0149641,0.0883493,0.145788,-1.8432,0.461046,-0.193201,-0.00830126,0.0299027,-0.00865892,0.317497,-0.299646,0.728839,-0.14793,7.46722e-05,0,0,0,0,0,0,0,0.463749,-35.0459,0.663466,24.8087,2.82318,-0.427622,-0.0163725,
0.0190052,0.0876245,0.149635,-1.85026,0.480686,-0.191642,-0.00821804,0.17032,-0.0311204,0.161326,-0.294798,0.852623,0.0402565,0.00372679,-0.57658,-0.73696,-0.582594,1.34402,-1.43178,19.3977,0.159877,0,0,0,0,0,0,0,0.0149641,0.0883493,0.145788,-1.8432,0.461046,-0.193201,-0.00830126,0.0299027,-0.00865892,0.317497,-0.299646,0.728839,-0.14793,7.46722e-05,0,0,0,0,0,0,0,0.463749,-35.0459,0.663466,24.8087,2.82318,-0.427622,-0.0163725,
0.0203143,0.0873137,0.150873,-1.85248,0.487559,-0.189643,-0.00816991,0.168981,-0.032666,0.160017,-0.29134,0.853938,0.0821845,0.0041847,-0.83649,-0.966038,-0.818381,2.16163,0.821803,26.205,0.286191,0,0,0,0,0,0,0,0.0223044,0.0883756,0.149865,-1.85366,0.48635,-0.195775,-0.0082979,0.0440285,0.010167,0.304185,-0.306923,0.725526,-0.0200434,0.00117022,1.76573,2.35324,-1.66398,-0.909666,-0.414088,15.9858,0.136944,-0.246395,-36.2441,0.611891,26.3043,3.21319,-0.195993,-0.0429228,
0.0215923,0.086989,0.152082,-1.85463,0.494526,-0.187062,-0.00811932,0.167137,-0.0342495,0.158248,-0.28686,0.857328,0.130271,0.00461254,-1.1529,-0.989651,-1.10547,2.79968,2.11872,30.0538,0.267402,0,0,0,0,0,0,0,0.0223044,0.0883756,0.149865,-1.85366,0.48635,-0.195775,-0.0082979,0.0440285,0.010167,0.304185,-0.306923,0.725526,-0.0200434,0.00117022,0,0,0,0,0,0,0,-0.246395,-36.2441,0.611891,26.3043,3.21319,-0.195993,-0.0429228,
0.0249988,0.0881452,0.152429,-1.85845,0.499096,-0.193768,-0.00823396,0.167209,-0.0313578,0.158182,-0.288392,0.848179,0.138649,0.00464321,0.045333,1.80729,-0.040896,-0.956992,-5.71802,5.23669,0.0191671,0,0,0,0,0,0,0,0.0223044,0.0883756,0.149865,-1.85366,0.48635,-0.195775,-0.0082979,0.0440285,0.010167,0.304185,-0.306923,0.725526,-0.0200434,0.00117022,0,0,0,0,0,0,0,-0.246395,-36.2441,0.611891,26.3043,3.21319,-0.195993,-0.0429228,
0.0263108,0.0879299,0.153666,-1.86072,0.505759,-0.191723,-0.00818541,0.166567,-0.0304688,0.157482,-0.287544,0.845133,0.162046,0.00492814,-0.401669,0.555626,-0.437602,0.529681,-1.90421,14.6228,0.178078,0,0,0,0,0,0,0,0.0223044,0.0883756,0.149865,-1.85366,0.48635,-0.195775,-0.0082979,0.0440285,0.010167,0.304185,-0.306923,0.725526,-0.0200434,0.00117022,0,0,0,0,0,0,0,-0.246395,-36.2441,0.611891,26.3043,3.21319,-0.195993,-0.0429228,
0.0275895,0.0876766,0.154873,-1.86292,0.512551,-0.189105,-0.00813441,0.165221,-0.0307066,0.156159,-0.284851,0.845887,0.195079,0.00521766,-0.841149,-0.148636,-0.826767,1.6833,0.471479,20.6458,0.180953,0,0,0,0,0,0,0,0.028262,0.0882388,0.155117,-1.86362,0.511373,-0.19518,-0.00830378,0.0553725,-0.00507392,0.262219,-0.292197,0.743038,0.0564228,0.000314764,1.41799,-1.90512,-5.24575,1.84073,2.18902,9.55827,-0.106932,-0.67883,-34.8198,0.314344,24.1382,3.10333,-0.0504244,0.0101778,
0.0307868,0.0878476,0.157517,-1.86822,0.524196,-0.191865,-0.00821816,0.163726,-0.0302138,0.154668,-0.284573,0.8395,0.206585,0.005416,-0.934061,0.308038,-0.932109,0.173826,-3.99222,7.19099,0.123962,0,0,0,0,0,0,0,0.028262,0.0882388,0.155117,-1.86362,0.511373,-0.19518,-0.00830378,0.0553725,-0.00507392,0.262219,-0.292197,0.743038,0.0564228,0.000314764,0,0,0,0,0,0,0,-0.67883,-34.8198,0.314344,24.1382,3.10333,-0.0504244,0.0101778,
0.0320285,0.087585,0.158688,-1.87041,0.530856,-0.189242,-0.0081661,0.162023,-0.0307367,0.153008,-0.28242,0.838079,0.230855,0.00563447,-1.06478,-0.326868,-1.03774,1.34536,-0.887777,15.1693,0.136546,0,0,0,0,0,0,0,0.028262,0.0882388,0.155117,-1.86362,0.511373,-0.19518,-0.00830378,0.0553725,-0.00507392,0.262219,-0.292197,0.743038,0.0564228,0.000314764,0,0,0,0,0,0,0,-0.67883,-34.8198,0.314344,24.1382,3.10333,-0.0504244,0.0101778,
0.0332446,0.0873003,0.15983,-1.87253,0.537627,-0.186121,-0.00811586,0.160021,-0.0317067,0.150971,-0.278819,0.839755,0.262712,0.00576357,-1.25068,-0.606212,-1.27302,2.25071,1.04748,19.9101,0.0806849,0,0,0,0,0,0,0,0.028262,0.0882388,0.155117,-1.86362,0.511373,-0.19518,-0.00830378,0.0553725,-0.00507392,0.262219,-0.292197,0.743038,0.0564228,0.000314764,0,0,0,0,0,0,0,-0.67883,-34.8198,0.314344,24.1382,3.10333,-0.0504244,0.0101778,
0.0344448,0.0870003,0.160958,-1.87454,0.544072,-0.182597,-0.00806946,0.158022,-0.0328649,0.148981,-0.273382,0.832931,0.29827,0.00577084,-1.24937,-0.72388,-1.24375,3.39792,-4.2652,22.224,0.00454292,0,0,0,0,0,0,0,0.0336749,0.0880588,0.160551,-1.87315,0.536399,-0.191042,-0.00830239,0.0474374,0.00482911,0.243014,-0.281761,0.739232,0.148138,-0.00135376,-0.991885,1.23788,-2.40061,1.30448,-0.475803,11.4644,-0.208565,0.309024,-34.8714,1.26253,24.7849,3.42102,0.0823271,0.0376436,
0.0360228,0.0877531,0.162778,-1.87766,0.5491,-0.186403,-0.00820237,0.155863,-0.0310116,0.146888,-0.274261,0.827412,0.304602,0.00595193,-1.34964,1.15829,-1.30807,-0.549133,-3.44914,3.95744,0.113186,0,0,0,0,0,0,0,0.0336749,0.0880588,0.160551,-1.87315,0.536399,-0.191042,-0.00830239,0.0474374,0.00482911,0.243014,-0.281761,0.739232,0.148138,-0.00135376,0,0,0,0,0,0,0,0.309024,-34.8714,1.26253,24.7849,3.42102,0.0823271,0.0376436,
0.0371897,0.0875226,0.163872,-1.8798,0.555683,-0.183254,-0.00815074,0.153864,-0.030571,0.144849,-0.27301,0.826504,0.322424,0.00605236,-1.2495,0.27539,-1.27447,0.781588,-0.567588,11.1387,0.0627643,0,0,0,0,0,0,0,0.0336749,0.0880588,0.160551,-1.87315,0.536399,-0.191042,-0.00830239,0.0474374,0.00482911,0.243014,-0.281761,0.739232,0.148138,-0.00135376,0,0,0,0,0,0,0,0.309024,-34.8714,1.26253,24.7849,3.42102,0.0823271,0.0376436,
0.0383513,0.0872634,0.164961,-1.88184,0.561963,-0.179697,-0.00810315,0.152132,-0.030937,0.143111,-0.269297,0.818226,0.346864,0.00603163,-1.0827,-0.22872,-1.0861,2.32056,-5.17355,15.2754,-0.0129566,0,0,0,0,0,0,0,0.0336749,0.0880588,0.160551,-1.87315,0.536399,-0.191042,-0.00830239,0.0474374,0.00482911,0.243014,-0.281761,0.739232,0.148138,-0.00135376,0,0,0,0,0,0,0,0.309024,-34.8714,1.26253,24.7849,3.42102,0.0823271,0.0376436,
0.0395074,0.0869796,0.166047,-1.88377,0.567669,-0.175815,-0.0080602,0.150608,-0.0318456,0.141633,-0.26369,0.79722,0.374534,0.00589909,-0.95219,-0.567926,-0.923649,3.50439,-13.129,17.2935,-0.0828348,0,0,0,0,0,0,0,0.0336749,0.0880588,0.160551,-1.87315,0.536399,-0.191042,-0.00830239,0.0474374,0.00482911,0.243014,-0.281761,0.739232,0.148138,-0.00135376,0,0,0,0,0,0,0,0.309024,-34.8714,1.26253,24.7849,3.42102,0.0823271,0.0376436,
0.0416167,0.0877608,0.167616,-1.8872,0.574317,-0.178793,-0.00819695,0.149481,-0.0305944,0.140436,-0.264969,0.799051,0.377383,0.0060184,-0.704096,0.782025,-0.748117,-0.79899,1.14427,1.78053,0.0745676,0,0,0,0,0,0,0,0.039296,0.0881128,0.165425,-1.88281,0.56159,-0.184464,-0.00829885,0.0692496,-0.00269784,0.219417,-0.277824,0.74598,0.231398,0.000140143,2.72653,-0.940869,-2.9496,0.492171,0.84352,10.4075,0.186738,0.511356,-35.7204,1.46089,25.983,3.7323,0.413748,0.0101778,
0.0427728,0.0875199,0.168698,-1.88925,0.580487,-0.175256,-0.00814879,0.148489,-0.030499,0.139409,-0.26324,0.793491,0.390333,0.00601865,-0.620233,0.0596346,-0.642207,1.08041,-3.47464,8.09357,0.000157208,0,0,0,0,0,0,0,0.039296,0.0881128,0.165425,-1.88281,0.56159,-0.184464,-0.00829885,0.0692496,-0.00269784,0.219417,-0.277824,0.74598,0.231398,0.000140143,0,0,0,0,0,0,0,0.511356,-35.7204,1.46089,25.983,3.7323,0.413748,0.0101778,
0.0439243,0.0872494,0.169778,-1.89119,0.586098,-0.171383,-0.00810531,0.147578,-0.0311627,0.13852,-0.25913,0.775053,0.409107,0.00590192,-0.569497,-0.414824,-0.5553,2.56888,-11.5242,11.734,-0.072958,0,0,0,0,0,0,0,0.039296,0.0881128,0.165425,-1.88281,0.56159,-0.184464,-0.00829885,0.0692496,-0.00269784,0.219417,-0.277824,0.74598,0.231398,0.000140143,0,0,0,0,0,0,0,0.511356,-35.7204,1.46089,25.983,3.7323,0.413748,0.0101778,
0.0416122,0.0877866,0.167609,-1.88713,0.573918,-0.178636,-0.00820075,0.147093,-0.0296869,0.138003,-0.259943,0.771219,0.407323,0.00594561,-0.303318,0.922345,-0.3233,-0.508507,-2.39619,-1.11497,0.0273058,0,0,0,0,0,0,0,0.039296,0.0881128,0.165425,-1.88281,0.56159,-0.184464,-0.00829885,0.0692496,-0.00269784,0.219417,-0.277824,0.74598,0.231398,0.000140143,0,0,0,0,0,0,0,0.511356,-35.7204,1.46089,25.983,3.7323,0.413748,0.0101778,
0.0427701,0.0875568,0.168694,-1.88912,0.579437,-0.175001,-0.00815654,0.146621,-0.0294936,0.137546,-0.257639,0.754942,0.416727,0.0058617,-0.294713,0.12086,-0.285596,1.44027,-10.1728,5.87714,-0.0524447,0,0,0,0,0,0,0,0.0442137,0.0878965,0.170642,-1.89177,0.586215,-0.174939,-0.00829597,0.0281563,-0.00950971,0.257967,-0.254801,0.689868,0.307851,0.0014581,-5.13666,-0.851483,4.81877,2.87792,-7.01399,9.55665,0.164745,0.0313145,-34.8714,0.86183,24.2136,3.3908,-0.0366915,-0.0026396,
0.0439199,0.0872956,0.169774,-1.891,0.584285,-0.17104,-0.00811653,0.146043,-0.0301264,0.137024,-0.253178,0.72516,0.432402,0.00568951,-0.361011,-0.395502,-0.326282,2.78824,-18.6142,9.79717,-0.107616,0,0,0,0,0,0,0,0.0442137,0.0878965,0.170642,-1.89177,0.586215,-0.174939,-0.00829597,0.0281563,-0.00950971,0.257967,-0.254801,0.689868,0.307851,0.0014581,0,0,0,0,0,0,0,0.0313145,-34.8714,0.86183,24.2136,3.3908,-0.0366915,-0.0026396,
0.045058,0.08701,0.170843,-1.89279,0.588401,-0.166838,-0.0080785,0.145285,-0.0312408,0.136352,-0.247397,0.683017,0.450991,0.00550239,-0.473743,-0.696501,-0.420257,3.61291,-26.3392,11.6182,-0.116947,0,0,0,0,0,0,0,0.0442137,0.0878965,0.170642,-1.89177,0.586215,-0.174939,-0.00829597,0.0281563,-0.00950971,0.257967,-0.254801,0.689868,0.307851,0.0014581,0,0,0,0,0,0,0,0.0313145,-34.8714,0.86183,24.2136,3.3908,-0.0366915,-0.0026396,
0.0464861,0.0874608,0.172788,-1.89583,0.59704,-0.168199,-0.00820632,0.144729,-0.0310028,0.135743,-0.247557,0.676779,0.45099,0.00552441,-0.347754,0.148742,-0.380512,-0.0999016,-3.89872,-0.000955901,0.0137612,0,0,0,0,0,0,0,0.0442137,0.0878965,0.170642,-1.89177,0.586215,-0.174939,-0.00829597,0.0281563,-0.00950971,0.257967,-0.254801,0.689868,0.307851,0.0014581,0,0,0,0,0,0,0,0.0313145,-34.8714,0.86183,24.2136,3.3908,-0.0366915,-0.0026396,
0.0476197,0.0871919,0.17385,-1.89771,0.601666,-0.164248,-0.00816533,0.144123,-0.0315241,0.135142,-0.245223,0.657072,0.45955,0.00544437,-0.37847,-0.325831,-0.375769,1.45907,-12.317,5.35008,-0.0500236,0,0,0,0,0,0,0,0.0490575,0.0878243,0.175593,-1.90036,0.609262,-0.163591,-0.00829974,0.0244394,-0.00362169,0.258456,-0.259767,0.606713,0.347715,6.56574e-05,-0.464604,0.736003,0.0610966,-0.620853,-10.3943,4.98289,-0.174055,-0.40112,-35.1213,0.512709,24.7849,3.29925,-0.295786,0.017502,
0.0487433,0.0869018,0.174904,-1.89951,0.605614,-0.160048,-0.00812642,0.143388,-0.0324722,0.134457,-0.241153,0.624356,0.472655,0.00532837,-0.45942,-0.592545,-0.427968,2.54345,-20.4473,8.19103,-0.0725032,0,0,0,0,0,0,0,0.0490575,0.0878243,0.175593,-1.90036,0.609262,-0.163591,-0.00829974,0.0244394,-0.00362169,0.258456,-0.259767,0.606713,0.347715,6.56574e-05,0,0,0,0,0,0,0,-0.40112,-35.1213,0.512709,24.7849,3.29925,-0.295786,0.017502,
0.0498541,0.0865961,0.175946,-1.90124,0.608858,-0.155668,-0.00808824,0.142479,-0.0336215,0.133632,-0.236041,0.580584,0.487609,0.0052171,-0.568132,-0.718304,-0.515565,3.19471,-27.3573,9.34574,-0.069546,0,0,0,0,0,0,0,0.0490575,0.0878243,0.175593,-1.90036,0.609262,-0.163591,-0.00829974,0.0244394,-0.00362169,0.258456,-0.259767,0.606713,0.347715,6.56574e-05,0,0,0,0,0,0,0,-0.40112,-35.1213,0.512709,24.7849,3.29925,-0.295786,0.017502,
0.0513045,0.0874859,0.177711,-1.90436,0.618271,-0.156458,-0.00821541,0.142127,-0.0317918,0.133182,-0.237585,0.571239,0.484508,0.00523516,-0.220334,1.14357,-0.28139,-0.964619,-5.84068,-1.93789,0.0112894,0,0,0,0,0,0,0,0.0490575,0.0878243,0.175593,-1.90036,0.609262,-0.163591,-0.00829974,0.0244394,-0.00362169,0.258456,-0.259767,0.606713,0.347715,6.56574e-05,0,0,0,0,0,0,0,-0.40112,-35.1213,0.512709,24.7849,3.29925,-0.295786,0.017502,
0.0524207,0.0872538,0.178755,-1.90621,0.621947,-0.152382,-0.008175,0.141606,-0.0312382,0.132635,-0.236355,0.54889,0.489514,0.00519835,-0.325314,0.345968,-0.341564,0.768779,-13.9682,3.12887,-0.023005,0,0,0,0,0,0,0,0.0541349,0.0877855,0.180232,-1.90849,0.62872,-0.150838,-0.00829455,0.0130099,-0.000106703,0.267981,-0.224575,0.562051,0.389719,0.000707328,-1.4287,0.439374,1.19057,4.39906,-5.58284,5.2505,0.0802088,-0.40112,-34.6452,0.488905,23.8882,3.45764,-0.494455,0.00376909,
0.0535246,0.0869944,0.179788,-1.90798,0.624979,-0.148092,-0.00813558,0.140882,-0.0314749,0.131943,-0.233245,0.514913,0.498854,0.00514431,-0.452688,-0.147915,-0.432477,1.94361,-21.2356,5.83723,-0.0337779,0,0,0,0,0,0,0,0.0541349,0.0877855,0.180232,-1.90849,0.62872,-0.150838,-0.00829455,0.0130099,-0.000106703,0.267981,-0.224575,0.562051,0.389719,0.000707328,0,0,0,0,0,0,0,-0.40112,-34.6452,0.488905,23.8882,3.45764,-0.494455,0.00376909,
0.0563485,0.0873923,0.182324,-1.91222,0.636587,-0.143125,-0.00821816,0.140427,-0.0308457,0.131463,-0.23259,0.503088,0.499963,0.00511779,-0.284156,0.393267,-0.300059,0.409282,-7.39058,0.693325,-0.0165752,0,0,0,0,0,0,0,0.0541349,0.0877855,0.180232,-1.90849,0.62872,-0.150838,-0.00829455,0.0130099,-0.000106703,0.267981,-0.224575,0.562051,0.389719,0.000707328,0,0,0,0,0,0,0,-0.40112,-34.6452,0.488905,23.8882,3.45764,-0.494455,0.00376909,
0.0574469,0.0871331,0.183352,-1.91399,0.639592,-0.138856,-0.00817839,0.139801,-0.0311565,0.130855,-0.230191,0.477593,0.506692,0.00508851,-0.391218,-0.194282,-0.379838,1.49942,-15.9346,4.20586,-0.0182961,0,0,0,0,0,0,0,0.0541349,0.0877855,0.180232,-1.90849,0.62872,-0.150838,-0.00829455,0.0130099,-0.000106703,0.267981,-0.224575,0.562051,0.389719,0.000707328,0,0,0,0,0,0,0,-0.40112,-34.6452,0.488905,23.8882,3.45764,-0.494455,0.00376909,
0.0585326,0.0868526,0.184368,-1.91568,0.641946,-0.13443,-0.00813783,0.138985,-0.031938,0.130095,-0.226553,0.44094,0.516015,0.0050848,-0.510271,-0.488443,-0.475251,2.2739,-22.9079,5.82652,-0.00232182,0,0,0,0,0,0,0,0.0584951,0.0875906,0.185411,-1.91609,0.645589,-0.135978,-0.00829519,-0.0257939,-0.00597193,0.292928,-0.229705,0.474791,0.442181,0.00183426,-4.85047,-0.733153,3.11837,-0.641295,-10.9075,6.55779,0.140866,0.562931,-34.5461,1.38948,23.1186,3.32946,-0.858835,-0.00996382,
0.0596044,0.0865577,0.185372,-1.91732,0.643676,-0.129901,-0.0080959,0.137983,-0.0329229,0.129176,-0.222194,0.395985,0.526021,0.00511601,-0.626387,-0.615538,-0.574195,2.72459,-28.0968,6.25382,0.0195064,0,0,0,0,0,0,0,0.0584951,0.0875906,0.185411,-1.91609,0.645589,-0.135978,-0.00829519,-0.0257939,-0.00597193,0.292928,-0.229705,0.474791,0.442181,0.00183426,0,0,0,0,0,0,0,0.562931,-34.5461,1.38948,23.1186,3.32946,-0.858835,-0.00996382,
0.0606083,0.087196,0.187413,-1.91973,0.651857,-0.12784,-0.00821775,0.136978,-0.0318976,0.128164,-0.222442,0.387772,0.526038,0.00511424,-0.628046,0.640799,-0.632848,-0.155103,-5.13355,0.010816,-0.00110188,0,0,0,0,0,0,0,0.0584951,0.0875906,0.185411,-1.91609,0.645589,-0.135978,-0.00829519,-0.0257939,-0.00597193,0.292928,-0.229705,0.474791,0.442181,0.00183426,0,0,0,0,0,0,0,0.562931,-34.5461,1.38948,23.1186,3.32946,-0.858835,-0.00996382,
0.0616669,0.0869437,0.188402,-1.92145,0.65408,-0.123451,-0.00817596,0.136049,-0.0318261,0.127253,-0.220886,0.365778,0.530563,0.00513613,-0.580795,0.0446993,-0.56922,0.972588,-13.7457,2.82796,0.0136755,0,0,0,0,0,0,0,0.0584951,0.0875906,0.185411,-1.91609,0.645589,-0.135978,-0.00829519,-0.0257939,-0.00597193,0.292928,-0.229705,0.474791,0.442181,0.00183426,0,0,0,0,0,0,0,0.562931,-34.5461,1.38948,23.1186,3.32946,-0.858835,-0.00996382,
0.0627173,0.0866712,0.189384,-1.9231,0.655702,-0.118946,-0.00813298,0.135098,-0.0322748,0.126351,-0.218102,0.333176,0.537059,0.00518357,-0.594176,-0.280422,-0.563601,1.73996,-20.3765,4.05976,0.0296504,0,0,0,0,0,0,0,0.0632517,0.0873532,0.18963,-1.92347,0.659186,-0.120731,-0.00829349,0.0192791,-0.000588143,0.244469,-0.208406,0.330047,0.474,0.000379428,5.63412,0.672973,-6.05732,2.66239,-18.093,3.9774,-0.181854,0.412174,-34.8952,1.28633,24.8364,3.34228,-0.288462,0.00376909,
0.0637576,0.0863848,0.190357,-1.92471,0.656759,-0.114374,-0.00808792,0.134085,-0.0329787,0.125408,-0.214584,0.292979,0.54395,0.00527322,-0.632958,-0.439976,-0.589279,2.19823,-25.1231,4.30727,0.0560335,0,0,0,0,0,0,0,0.0632517,0.0873532,0.18963,-1.92347,0.659186,-0.120731,-0.00829349,0.0192791,-0.000588143,0.244469,-0.208406,0.330047,0.474,0.000379428,0,0,0,0,0,0,0,0.412174,-34.8952,1.28633,24.8364,3.34228,-0.288462,0.00376909,
0.0653357,0.0869809,0.191591,-1.92698,0.663508,-0.112205,-0.00821539,0.133362,-0.0317219,0.124619,-0.215127,0.282427,0.54437,0.00527283,-0.451821,0.785517,-0.493312,-0.338898,-6.59529,0.262502,-0.000244671,0,0,0,0,0,0,0,0.0632517,0.0873532,0.18963,-1.92347,0.659186,-0.120731,-0.00829349,0.0192791,-0.000588143,0.244469,-0.208406,0.330047,0.474,0.000379428,0,0,0,0,0,0,0,0.412174,-34.8952,1.28633,24.8364,3.34228,-0.288462,0.00376909,
0.0663717,0.0867382,0.192556,-1.92866,0.664914,-0.107715,-0.00817149,0.13259,-0.0314455,0.123836,-0.214109,0.261079,0.54773,0.00531574,-0.48264,0.172756,-0.489079,0.63592,-13.3423,2.09991,0.0268185,0,0,0,0,0,0,0,0.0632517,0.0873532,0.18963,-1.92347,0.659186,-0.120731,-0.00829349,0.0192791,-0.000588143,0.244469,-0.208406,0.330047,0.474,0.000379428,0,0,0,0,0,0,0,0.412174,-34.8952,1.28633,24.8364,3.34228,-0.288462,0.00376909,
0.067399,0.0864764,0.193515,-1.93029,0.665811,-0.103157,-0.00812554,0.131753,-0.0317009,0.123032,-0.211932,0.231301,0.552149,0.00540117,-0.523379,-0.159605,-0.502949,1.36083,-18.6112,2.76179,0.0533981,0,0,0,0,0,0,0,0.0682253,0.0870845,0.193483,-1.93065,0.668658,-0.104541,-0.00829282,0.0310829,-0.0157156,0.220677,-0.205577,0.196363,0.481401,0.000897284,1.47548,-1.89093,-2.97401,0.353599,-16.7104,0.925045,0.0647321,-0.0718349,-34.8714,1.06416,24.6619,3.48877,-0.0366915,-0.0026396,
0.0702403,0.0866082,0.195373,-1.93407,0.671173,-0.095981,-0.00820916,0.130666,-0.0316578,0.121915,-0.211866,0.21198,0.551112,0.00543877,-0.679095,0.0269103,-0.698269,0.0410664,-12.0757,-0.647832,0.0234985,0,0,0,0,0,0,0,0.0682253,0.0870845,0.193483,-1.93065,0.668658,-0.104541,-0.00829282,0.0310829,-0.0157156,0.220677,-0.205577,0.196363,0.481401,0.000897284,0,0,0,0,0,0,0,-0.0718349,-34.8714,1.06416,24.6619,3.48877,-0.0366915,-0.0026396,
0.0712468,0.0863434,0.19631,-1.93571,0.671841,-0.0914992,-0.00816217,0.129696,-0.0319443,0.120959,-0.210536,0.186294,0.552934,0.00552572,-0.606598,-0.179052,-0.597441,0.831533,-16.0538,1.13837,0.0543398,0,0,0,0,0,0,0,0.0682253,0.0870845,0.193483,-1.93065,0.668658,-0.104541,-0.00829282,0.0310829,-0.0157156,0.220677,-0.205577,0.196363,0.481401,0.000897284,0,0,0,0,0,0,0,-0.0718349,-34.8714,1.06416,24.6619,3.48877,-0.0366915,-0.0026396,
0.0722476,0.0860701,0.197243,-1.93731,0.672101,-0.0869627,-0.00811328,0.128776,-0.0323889,0.120089,-0.208273,0.155527,0.555759,0.0056429,-0.574948,-0.27786,-0.54358,1.41408,-19.2291,1.76547,0.073242,0,0,0,0,0,0,0,0.0682253,0.0870845,0.193483,-1.93065,0.668658,-0.104541,-0.00829282,0.0310829,-0.0157156,0.220677,-0.205577,0.196363,0.481401,0.000897284,0,0,0,0,0,0,0,-0.0718349,-34.8714,1.06416,24.6619,3.48877,-0.0366915,-0.0026396,
0.0732414,0.0857904,0.198171,-1.93886,0.671974,-0.0824072,-0.00806216,0.127866,-0.0329039,0.119251,-0.205425,0.121257,0.558496,0.00579239,-0.568774,-0.321927,-0.523758,1.7803,-21.4185,1.71074,0.0934298,0,0,0,0,0,0,0,0.0682253,0.0870845,0.193483,-1.93065,0.668658,-0.104541,-0.00829282,0.0310829,-0.0157156,0.220677,-0.205577,0.196363,0.481401,0.000897284,0,0,0,0,0,0,0,-0.0718349,-34.8714,1.06416,24.6619,3.48877,-0.0366915,-0.0026396,
0.0742474,0.0864451,0.200129,-1.94064,0.676361,-0.0791173,-0.0082103,0.127966,-0.0322956,0.119271,-0.2058,0.11049,0.556625,0.00579734,0.0626299,0.3802,0.0128718,-0.234829,-6.72944,-1.1695,0.00309494,0,0,0,0,0,0,0,0.0721922,0.0868889,0.198196,-1.9373,0.67495,-0.0877581,-0.00829596,0.0109215,-0.0108749,0.252372,-0.196842,0.121575,0.497943,0.00171924,-2.52018,0.605087,3.9619,1.09188,-9.34856,2.06782,0.102744,0.309024,-34.3199,1.3141,22.6187,3.63525,-0.427622,-0.0026396,
0.0752631,0.0861903,0.201075,-1.94226,0.676534,-0.074653,-0.0081612,0.127765,-0.0322067,0.119053,-0.204981,0.0927065,0.556909,0.0058653,-0.125257,0.0555897,-0.136638,0.512229,-11.1149,0.177566,0.0424709,0,0,0,0,0,0,0,0.0721922,0.0868889,0.198196,-1.9373,0.67495,-0.0877581,-0.00829596,0.0109215,-0.0108749,0.252372,-0.196842,0.121575,0.497943,0.00171924,0,0,0,0,0,0,0,0.309024,-34.3199,1.3141,22.6187,3.63525,-0.427622,-0.0026396,
0.076268,0.0859253,0.202011,-1.94383,0.676347,-0.070159,-0.00810977,0.127334,-0.0323923,0.118649,-0.20323,0.0694875,0.557876,0.00597808,-0.269464,-0.116037,-0.252229,1.094,-14.5119,0.604592,0.0704888,0,0,0,0,0,0,0,0.0721922,0.0868889,0.198196,-1.9373,0.67495,-0.0877581,-0.00829596,0.0109215,-0.0108749,0.252372,-0.196842,0.121575,0.497943,0.00171924,0,0,0,0,0,0,0,0.309024,-34.3199,1.3141,22.6187,3.63525,-0.427622,-0.0026396,
0.077262,0.0856528,0.202938,-1.94536,0.675828,-0.0656644,-0.00805633,0.126719,-0.0327254,0.118092,-0.200869,0.0426234,0.558667,0.00611845,-0.384625,-0.208192,-0.348363,1.47608,-16.7901,0.494195,0.0877295,0,0,0,0,0,0,0,0.0721922,0.0868889,0.198196,-1.9373,0.67495,-0.0877581,-0.00829596,0.0109215,-0.0108749,0.252372,-0.196842,0.121575,0.497943,0.00171924,0,0,0,0,0,0,0,0.309024,-34.3199,1.3141,22.6187,3.63525,-0.427622,-0.0026396,
0.0742543,0.0864579,0.200143,-1.94056,0.675929,-0.079185,-0.00820604,0.127148,-0.0320295,0.118511,-0.201127,0.0412011,0.555804,0.00610567,0.268493,0.434931,0.261903,-0.161313,-0.888906,-1.78907,-0.0079817,0,0,0,0,0,0,0,0.0760244,0.0866584,0.202735,-1.94404,0.678147,-0.0698636,-0.00830149,0.0239141,-0.00900561,0.221814,-0.197902,0.0563041,0.520875,-7.22511e-05,1.62407,0.233663,-3.81982,-0.132521,-8.15881,2.86652,-0.223936,0.892215,-34.2485,1.56404,23.2178,3.7387,-0.680307,0.0376436,
0.0752734,0.0862051,0.201093,-1.94214,0.675818,-0.0747649,-0.00815484,0.127195,-0.0319441,0.118574,-0.2003,0.0301768,0.555146,0.00616458,0.0293162,0.0533817,0.0392643,0.517027,-6.89018,-0.41148,0.0368169,0,0,0,0,0,0,0,0.0760244,0.0866584,0.202735,-1.94404,0.678147,-0.0698636,-0.00830149,0.0239141,-0.00900561,0.221814,-0.197902,0.0563041,0.520875,-7.22511e-05,0,0,0,0,0,0,0,0.892215,-34.2485,1.56404,23.2178,3.7387,-0.680307,0.0376436,
0.0762801,0.0859405,0.202033,-1.94368,0.67535,-0.0703216,-0.00810157,0.126923,-0.0321716,0.118345,-0.198652,0.0124415,0.555201,0.00626333,-0.170198,-0.142168,-0.143215,1.02976,-11.0846,0.0343299,0.061716,0,0,0,0,0,0,0,0.0760244,0.0866584,0.202735,-1.94404,0.678147,-0.0698636,-0.00830149,0.0239141,-0.00900561,0.221814,-0.197902,0.0563041,0.520875,-7.22511e-05,0,0,0,0,0,0,0,0.892215,-34.2485,1.56404,23.2178,3.7387,-0.680307,0.0376436,
0.0779894,0.0862753,0.204583,-1.94726,0.678127,-0.061131,-0.00820476,0.126179,-0.0310176,0.117611,-0.198766,0.00511974,0.554367,0.00630735,-0.465098,0.721226,-0.458739,-0.0714198,-4.57612,-0.521228,0.0275144,0,0,0,0,0,0,0,0.0760244,0.0866584,0.202735,-1.94404,0.678147,-0.0698636,-0.00830149,0.0239141,-0.00900561,0.221814,-0.197902,0.0563041,0.520875,-7.22511e-05,0,0,0,0,0,0,0,0.892215,-34.2485,1.56404,23.2178,3.7387,-0.680307,0.0376436,
0.0789697,0.0860416,0.205495,-1.94881,0.677595,-0.0566953,-0.00815062,0.12545,-0.0306556,0.116909,-0.197863,-0.00921769,0.554386,0.00639935,-0.455323,0.226291,-0.438706,0.564796,-8.96089,0.011943,0.0574993,0,0,0,0,0,0,0,0.0793973,0.0863789,0.207671,-1.95045,0.678767,-0.0522297,-0.00829813,-0.003515,-0.00513809,0.25314,-0.184537,-0.00589128,0.480016,-0.00053893,-3.42864,0.48344,3.91579,1.67072,-7.77442,-5.10744,-0.0583348,0.967594,-34.6214,1.46089,23.6383,3.45764,-1.01814,0.0440523,
0.0799429,0.085793,0.206402,-1.95033,0.676764,-0.0522648,-0.00809455,0.12469,-0.0307398,0.116194,-0.196201,-0.0281547,0.554271,0.0065213,-0.475028,-0.0526428,-0.446899,1.0384,-11.8356,-0.0717172,0.0762185,0,0,0,0,0,0,0,0.0793973,0.0863789,0.207671,-1.95045,0.678767,-0.0522297,-0.00829813,-0.003515,-0.00513809,0.25314,-0.184537,-0.00589128,0.480016,-0.00053893,0,0,0,0,0,0,0,0.967594,-34.6214,1.46089,23.6383,3.45764,-1.01814,0.0440523,
0.0809077,0.085534,0.207301,-1.95181,0.675678,-0.0478615,-0.00803696,0.123872,-0.0310677,0.115435,-0.194039,-0.0496541,0.5535,0.00665681,-0.51151,-0.20492,-0.474067,1.35129,-13.4372,-0.481983,0.084695,0,0,0,0,0,0,0,0.0793973,0.0863789,0.207671,-1.95045,0.678767,-0.0522297,-0.00829813,-0.003515,-0.00513809,0.25314,-0.184537,-0.00589128,0.480016,-0.00053893,0,0,0,0,0,0,0,0.967594,-34.6214,1.46089,23.6383,3.45764,-1.01814,0.0440523,
0.0813699,0.0859938,0.209534,-1.9536,0.677987,-0.0439116,-0.00819834,0.12385,-0.0302058,0.115409,-0.1945,-0.053408,0.548416,0.00667544,-0.0136018,0.538698,-0.0162033,-0.287909,-2.34616,-3.17758,0.0116441,0,0,0,0,0,0,0,0.0793973,0.0863789,0.207671,-1.95045,0.678767,-0.0522297,-0.00829813,-0.003515,-0.00513809,0.25314,-0.184537,-0.00589128,0.480016,-0.00053893,0,0,0,0,0,0,0,0.967594,-34.6214,1.46089,23.6383,3.45764,-1.01814,0.0440523,
0.0823531,0.0857583,0.21045,-1.95514,0.677148,-0.0396347,-0.00814189,0.123659,-0.0300522,0.115223,-0.193996,-0.0636986,0.545653,0.00675162,-0.11918,0.0959573,-0.11642,0.314657,-6.43163,-1.72675,0.0476099,0,0,0,0,0,0,0,0.0833467,0.0863223,0.211621,-1.95688,0.678511,-0.0355773,-0.0082942,0.0016899,0.00490275,0.238767,-0.186464,-0.0338876,0.499735,0.000220482,0.650612,1.2551,-1.79664,-0.240951,-3.49954,2.46486,0.0949265,1.17389,-35.3435,1.81398,24.8087,3.53088,-0.699533,0.0101778,
0.0833272,0.0855092,0.211357,-1.95664,0.676059,-0.0353485,-0.00808393,0.123281,-0.0302677,0.114868,-0.192699,-0.0781823,0.543679,0.00685028,-0.236706,-0.134686,-0.22187,0.810628,-9.05229,-1.23369,0.0616671,0,0,0,0,0,0,0,0.0833467,0.0863223,0.211621,-1.95688,0.678511,-0.0355773,-0.0082942,0.0016899,0.00490275,0.238767,-0.186464,-0.0338876,0.499735,0.000220482,0,0,0,0,0,0,0,1.17389,-35.3435,1.81398,24.8087,3.53088,-0.699533,0.0101778,
0.085264,0.0860485,0.213428,-1.96001,0.677205,-0.0271597,-0.00818836,0.122717,-0.0283802,0.114304,-0.19313,-0.0827679,0.541139,0.00689863,-0.352545,1.17969,-0.352619,-0.268877,-2.86599,-1.58768,0.0302184,0,0,0,0,0,0,0,0.0833467,0.0863223,0.211621,-1.95688,0.678511,-0.0355773,-0.0082942,0.0016899,0.00490275,0.238767,-0.186464,-0.0338876,0.499735,0.000220482,0,0,0,0,0,0,0,1.17389,-35.3435,1.81398,24.8087,3.53088,-0.699533,0.0101778,
0.0862233,0.085848,0.21432,-1.96153,0.676129,-0.0228959,-0.00812974,0.122155,-0.0277172,0.113748,-0.192565,-0.0931208,0.539505,0.00698439,-0.350952,0.414414,-0.347565,0.352673,-6.47056,-1.02108,0.0536,0,0,0,0,0,0,0,0.0833467,0.0863223,0.211621,-1.95688,0.678511,-0.0355773,-0.0082942,0.0016899,0.00490275,0.238767,-0.186464,-0.0338876,0.499735,0.000220482,0,0,0,0,0,0,0,1.17389,-35.3435,1.81398,24.8087,3.53088,-0.699533,0.0101778,
0.0871756,0.085625,0.215206,-1.96302,0.674835,-0.0186481,-0.00806985,0.121532,-0.0277472,0.113147,-0.1912,-0.106845,0.537799,0.00708483,-0.389271,-0.0187811,-0.375713,0.853271,-8.57751,-1.06621,0.0627693,0,0,0,0,0,0,0,0.0872291,0.0862715,0.215335,-1.96296,0.676718,-0.0187123,-0.00829502,0.0490476,-0.0030841,0.177435,-0.185093,-0.0790274,0.492223,0.000413189,5.91972,-0.998356,-7.66649,0.171385,-5.64247,-0.938916,0.0240883,0.868412,-35.2205,1.41328,24.2612,3.37249,-0.553964,0.017502,
0.0881192,0.0853864,0.216084,-1.96447,0.67337,-0.0144358,-0.00800914,0.120816,-0.0281638,0.112468,-0.189274,-0.122098,0.535548,0.00718562,-0.447504,-0.260348,-0.423807,1.20377,-9.53329,-1.40712,0.0629994,0,0,0,0,0,0,0,0.0872291,0.0862715,0.215335,-1.96296,0.676718,-0.0187123,-0.00829502,0.0490476,-0.0030841,0.177435,-0.185093,-0.0790274,0.492223,0.000413189,0,0,0,0,0,0,0,0.868412,-35.2205,1.41328,24.2612,3.37249,-0.553964,0.017502,
0.0890879,0.085948,0.217076,-1.96604,0.674781,-0.0104119,-0.00818281,0.120022,-0.0271601,0.111691,-0.189631,-0.125049,0.533052,0.00722299,-0.496464,0.627303,-0.485681,-0.223221,-1.8442,-1.56011,0.023355,0,0,0,0,0,0,0,0.0872291,0.0862715,0.215335,-1.96296,0.676718,-0.0187123,-0.00829502,0.0490476,-0.0030841,0.177435,-0.185093,-0.0790274,0.492223,0.000413189,0,0,0,0,0,0,0,0.868412,-35.2205,1.41328,24.2612,3.37249,-0.553964,0.017502,
0.0900223,0.085736,0.217944,-1.96753,0.673474,-0.00621816,-0.00812233,0.119376,-0.0270274,0.11106,-0.189067,-0.1327,0.531284,0.00729041,-0.403676,0.0829499,-0.394589,0.352876,-4.78183,-1.10496,0.042134,0,0,0,0,0,0,0,0.0872291,0.0862715,0.215335,-1.96296,0.676718,-0.0187123,-0.00829502,0.0490476,-0.0030841,0.177435,-0.185093,-0.0790274,0.492223,0.000413189,0,0,0,0,0,0,0,0.868412,-35.2205,1.41328,24.2612,3.37249,-0.553964,0.017502,
0.0909525,0.085506,0.218809,-1.96899,0.672002,-0.00204637,-0.00806112,0.118757,-0.0273707,0.110465,-0.187763,-0.14298,0.529322,0.00736271,-0.38693,-0.214558,-0.371669,0.814842,-6.4252,-1.22636,0.0451873,0,0,0,0,0,0,0,0.0912661,0.0860555,0.218507,-1.96915,0.673855,-0.00219398,-0.00829953,0.161502,-0.0102167,0.050996,-0.187984,-0.110848,0.496878,-0.000454355,14.0568,-0.89158,-15.8049,-0.361304,-3.97753,0.581868,-0.108443,-0.373349,-34.3477,0.286573,24.2612,3.01818,-0.0101412,0.0577852,
0.0930901,0.0857111,0.22019,-1.97219,0.671383,0.00610073,-0.00818054,0.117819,-0.0266675,0.109539,-0.187826,-0.147748,0.527501,0.00741453,-0.586266,0.439495,-0.578738,-0.0393186,-2.98018,-1.13786,0.0323869,0,0,0,0,0,0,0,0.0912661,0.0860555,0.218507,-1.96915,0.673855,-0.00219398,-0.00829953,0.161502,-0.0102167,0.050996,-0.187984,-0.110848,0.496878,-0.000454355,0,0,0,0,0,0,0,-0.373349,-34.3477,0.286573,24.2612,3.01818,-0.0101412,0.0577852,
0.0940034,0.0854969,0.221037,-1.97366,0.669891,0.0102479,-0.00811881,0.117088,-0.0266871,0.108828,-0.18702,-0.155505,0.525681,0.0074751,-0.456785,-0.0122565,-0.44442,0.50378,-4.84785,-1.13765,0.0378614,0,0,0,0,0,0,0,0.0912661,0.0860555,0.218507,-1.96915,0.673855,-0.00219398,-0.00829953,0.161502,-0.0102167,0.050996,-0.187984,-0.110848,0.496878,-0.000454355,0,0,0,0,0,0,0,-0.373349,-34.3477,0.286573,24.2612,3.01818,-0.0101412,0.0577852,
0.0949139,0.0852665,0.221883,-1.97509,0.66828,0.0143575,-0.00805662,0.116432,-0.0271105,0.108201,-0.185547,-0.164688,0.523285,0.00753475,-0.410214,-0.264645,-0.392103,0.920417,-5.73961,-1.49738,0.0372776,0,0,0,0,0,0,0,0.0912661,0.0860555,0.218507,-1.96915,0.673855,-0.00219398,-0.00829953,0.161502,-0.0102167,0.050996,-0.187984,-0.110848,0.496878,-0.000454355,0,0,0,0,0,0,0,-0.373349,-34.3477,0.286573,24.2612,3.01818,-0.0101412,0.0577852,
0.0958187,0.0850242,0.222724,-1.9765,0.666584,0.0184159,-0.00799435,0.115767,-0.0277468,0.107577,-0.183601,-0.174147,0.520087,0.0075846,-0.415556,-0.397666,-0.390263,1.21634,-5.91182,-1.99875,0.0311598,0,0,0,0,0,0,0,0.0955671,0.0859091,0.221375,-1.97518,0.670238,0.0143994,-0.00829868,0.193091,-0.00343299,0.0238123,-0.176617,-0.120765,0.495318,-0.00121993,3.94865,0.84797,-3.39796,1.42082,-1.23968,-0.195069,-0.0956966,-0.829586,-34.2961,0.43733,24.0628,2.76184,0.141836,0.050461,
0.0974148,0.0855997,0.223075,-1.97814,0.66762,0.0226345,-0.0081785,0.1156,-0.026682,0.107395,-0.183756,-0.174364,0.519003,0.00760633,-0.10406,0.665462,-0.113331,-0.0971817,-0.135261,-0.677485,0.0135817,0,0,0,0,0,0,0,0.0955671,0.0859091,0.221375,-1.97518,0.670238,0.0143994,-0.00829868,0.193091,-0.00343299,0.0238123,-0.176617,-0.120765,0.495318,-0.00121993,0,0,0,0,0,0,0,-0.829586,-34.2961,0.43733,24.0628,2.76184,0.141836,0.050461,
0.0983301,0.0853916,0.223925,-1.97959,0.666075,0.0267147,-0.00811618,0.115362,-0.0265475,0.107162,-0.183127,-0.17812,0.517207,0.00764295,-0.148762,0.0840936,-0.145946,0.39332,-2.34787,-1.12245,0.022887,0,0,0,0,0,0,0,0.0955671,0.0859091,0.221375,-1.97518,0.670238,0.0143994,-0.00829868,0.193091,-0.00343299,0.0238123,-0.176617,-0.120765,0.495318,-0.00121993,0,0,0,0,0,0,0,-0.829586,-34.2961,0.43733,24.0628,2.76184,0.141836,0.050461,
0.0992388,0.0851644,0.224768,-1.981,0.664428,0.0307424,-0.00805374,0.115009,-0.0269163,0.106829,-0.181841,-0.183656,0.514459,0.00767535,-0.221058,-0.230486,-0.208149,0.803882,-3.46012,-1.71754,0.0202464,0,0,0,0,0,0,0,0.0955671,0.0859091,0.221375,-1.97518,0.670238,0.0143994,-0.00829868,0.193091,-0.00343299,0.0238123,-0.176617,-0.120765,0.495318,-0.00121993,0,0,0,0,0,0,0,-0.829586,-34.2961,0.43733,24.0628,2.76184,0.141836,0.050461,
0.100139,0.084924,0.225605,-1.98238,0.662716,0.0347098,-0.00799143,0.114518,-0.0275454,0.106374,-0.180064,-0.189736,0.510751,0.00769822,-0.30695,-0.393226,-0.284425,1.11045,-3.7995,-2.31772,0.0142956,0,0,0,0,0,0,0,0.0992091,0.0859074,0.224822,-1.98128,0.665601,0.0305585,-0.00829913,0.089778,-0.00561884,0.121453,-0.175313,-0.141577,0.465315,-0.000480691,-12.9141,-0.273232,12.2051,0.163037,-2.60151,-3.75038,0.0924046,-0.0956386,-34.9468,1.26253,24.3365,2.73712,0.149161,0.0577852,
0.100986,0.0855716,0.226477,-1.9842,0.662809,0.038391,-0.00817747,0.113943,-0.0267787,0.105835,-0.180376,-0.1888,0.507077,0.00773137,-0.359008,0.479193,-0.336704,-0.195247,0.58455,-2.29633,0.0207192,0,0,0,0,0,0,0,0.0992091,0.0859074,0.224822,-1.98128,0.665601,0.0305585,-0.00829913,0.089778,-0.00561884,0.121453,-0.175313,-0.141577,0.465315,-0.000480691,0,0,0,0,0,0,0,-0.0956386,-34.9468,1.26253,24.3365,2.73712,0.149161,0.0577852,
0.10188,0.0853569,0.227307,-1.98562,0.661207,0.0423223,-0.00811436,0.113513,-0.0267895,0.105426,-0.17988,-0.191084,0.503943,0.00776284,-0.26912,-0.00676015,-0.255353,0.310155,-1.4272,-1.95867,0.0196707,0,0,0,0,0,0,0,0.0992091,0.0859074,0.224822,-1.98128,0.665601,0.0305585,-0.00829913,0.089778,-0.00561884,0.121453,-0.175313,-0.141577,0.465315,-0.000480691,0,0,0,0,0,0,0,-0.0956386,-34.9468,1.26253,24.3365,2.73712,0.149161,0.0577852,
0.102771,0.0851256,0.228134,-1.98701,0.659527,0.0462196,-0.00805153,0.113084,-0.0272139,0.105021,-0.178702,-0.194871,0.500588,0.00778101,-0.268136,-0.26522,-0.253291,0.736282,-2.36708,-2.09688,0.0113509,0,0,0,0,0,0,0,0.0992091,0.0859074,0.224822,-1.98128,0.665601,0.0305585,-0.00829913,0.089778,-0.00561884,0.121453,-0.175313,-0.141577,0.465315,-0.000480691,0,0,0,0,0,0,0,-0.0956386,-34.9468,1.26253,24.3365,2.73712,0.149161,0.0577852,
0.103656,0.0848825,0.228956,-1.98838,0.657803,0.0500687,-0.00798928,0.112577,-0.0278483,0.104547,-0.177011,-0.198991,0.496699,0.00778104,-0.316424,-0.396531,-0.296151,1.05704,-2.57515,-2.43049,2.44756e-05,0,0,0,0,0,0,0,0.0992091,0.0859074,0.224822,-1.98128,0.665601,0.0305585,-0.00829913,0.089778,-0.00561884,0.121453,-0.175313,-0.141577,0.465315,-0.000480691,0,0,0,0,0,0,0,-0.0956386,-34.9468,1.26253,24.3365,2.73712,0.149161,0.0577852,
0.103987,0.0855887,0.230391,-1.99,0.657318,0.0545695,-0.00817842,0.111704,-0.027004,0.103717,-0.177107,-0.197788,0.494339,0.00780328,-0.545532,0.527705,-0.518996,-0.0598423,0.752379,-1.47507,0.0138964,0,0,0,0,0,0,0,0.102275,0.0859154,0.228786,-1.98716,0.660273,0.0468587,-0.00829867,0.0222247,0.000359508,0.184602,-0.16094,-0.168305,0.456266,-0.000684417,-8.44416,0.747294,7.89355,1.7966,-3.34099,-1.13109,-0.0254657,0.840641,-34.9706,1.66322,23.8882,2.66388,-0.122751,0.050461,
0.104857,0.0853732,0.231197,-1.99139,0.65568,0.0584345,-0.00811507,0.111109,-0.0269919,0.103139,-0.176568,-0.199184,0.492096,0.00782634,-0.372011,0.00758327,-0.360878,0.336471,-0.87259,-1.40173,0.0144153,0,0,0,0,0,0,0,0.102275,0.0859154,0.228786,-1.98716,0.660273,0.0468587,-0.00829867,0.0222247,0.000359508,0.184602,-0.16094,-0.168305,0.456266,-0.000684417,0,0,0,0,0,0,0,0.840641,-34.9706,1.66322,23.8882,2.66388,-0.122751,0.050461,
0.105726,0.0851409,0.232003,-1.99276,0.653987,0.0622591,-0.00805234,0.110603,-0.0274019,0.102651,-0.175406,-0.201665,0.489292,0.00782913,-0.316193,-0.256263,-0.305447,0.726672,-1.55063,-1.75253,0.00173998,0,0,0,0,0,0,0,0.102275,0.0859154,0.228786,-1.98716,0.660273,0.0468587,-0.00829867,0.0222247,0.000359508,0.184602,-0.16094,-0.168305,0.456266,-0.000684417,0,0,0,0,0,0,0,0.840641,-34.9706,1.66322,23.8882,2.66388,-0.122751,0.050461,
0.10659,0.0848969,0.232804,-1.9941,0.652272,0.0660303,-0.00799046,0.110077,-0.0280214,0.102149,-0.173747,-0.204221,0.485715,0.00781032,-0.328777,-0.387188,-0.313326,1.03668,-1.5978,-2.2359,-0.0117547,0,0,0,0,0,0,0,0.102275,0.0859154,0.228786,-1.98716,0.660273,0.0468587,-0.00829867,0.0222247,0.000359508,0.184602,-0.16094,-0.168305,0.456266,-0.000684417,0,0,0,0,0,0,0,0.840641,-34.9706,1.66322,23.8882,2.66388,-0.122751,0.050461,
0.10398,0.0855977,0.230385,-1.98995,0.657281,0.0544839,-0.00817784,0.10959,-0.0270423,0.101702,-0.173891,-0.202419,0.484302,0.00782758,-0.304298,0.611946,-0.279695,-0.0897416,1.12651,-0.882547,0.0107886,0,0,0,0,0,0,0,0.105678,0.0858465,0.232257,-1.99292,0.654606,0.062735,-0.00829242,0.117302,-0.0071529,0.0812896,-0.171798,-0.158411,0.450044,0.00119732,11.8847,-0.939051,-12.914,-1.35728,1.23674,-0.777708,0.235217,0.412174,-34.669,1.03639,23.6899,2.64557,-0.315012,0.00376909,
0.104844,0.0853847,0.231186,-1.99133,0.655634,0.0582925,-0.00811488,0.109257,-0.0269575,0.101384,-0.173374,-0.203123,0.482655,0.00783607,-0.208292,0.0529678,-0.198431,0.322772,-0.440403,-1.02951,0.00530252,0,0,0,0,0,0,0,0.105678,0.0858465,0.232257,-1.99292,0.654606,0.062735,-0.00829242,0.117302,-0.0071529,0.0812896,-0.171798,-0.158411,0.450044,0.00119732,0,0,0,0,0,0,0,0.412174,-34.669,1.03639,23.6899,2.64557,-0.315012,0.00376909,
0.105704,0.085154,0.231984,-1.99267,0.653942,0.0620576,-0.00805278,0.108922,-0.0273338,0.101065,-0.172227,-0.204789,0.480252,0.00782117,-0.209357,-0.2352,-0.199598,0.717142,-1.04129,-1.50226,-0.00930697,0,0,0,0,0,0,0,0.105678,0.0858465,0.232257,-1.99292,0.654606,0.062735,-0.00829242,0.117302,-0.0071529,0.0812896,-0.171798,-0.158411,0.450044,0.00119732,0,0,0,0,0,0,0,0.412174,-34.669,1.03639,23.6899,2.64557,-0.315012,0.00376909,
0.107376,0.0855205,0.23383,-1.9957,0.651582,0.0701813,-0.00816668,0.108449,-0.0264793,0.100613,-0.172357,-0.203149,0.477439,0.00784596,-0.295465,0.534076,-0.282202,-0.0811733,1.02524,-1.75798,0.0154923,0,0,0,0,0,0,0,0.105678,0.0858465,0.232257,-1.99292,0.654606,0.062735,-0.00829242,0.117302,-0.0071529,0.0812896,-0.171798,-0.158411,0.450044,0.00119732,0,0,0,0,0,0,0,0.412174,-34.669,1.03639,23.6899,2.64557,-0.315012,0.00376909,
0.10823,0.0853096,0.234621,-1.99706,0.649942,0.0738854,-0.00810406,0.108098,-0.0264549,0.100272,-0.171691,-0.203511,0.474554,0.00784238,-0.219449,0.01529,-0.213409,0.415694,-0.226118,-1.80315,-0.00224128,0,0,0,0,0,0,0,0.109707,0.0856163,0.234904,-1.99875,0.648798,0.0778994,-0.00829747,0.178861,-0.00532513,0.0141522,-0.167961,-0.150764,0.439703,-0.000451089,7.69486,0.228471,-8.39217,0.479681,0.955937,-1.29272,-0.206051,-1.3374,-34.3199,-0.260912,24.5111,2.62725,-0.0238741,0.050461,
0.10908,0.0850809,0.235409,-1.99838,0.648277,0.0775463,-0.00804271,0.107725,-0.0268817,0.0999113,-0.170379,-0.204442,0.471166,0.00780754,-0.233369,-0.266796,-0.225425,0.820265,-0.581799,-2.11755,-0.0217731,0,0,0,0,0,0,0,0.109707,0.0856163,0.234904,-1.99875,0.648798,0.0778994,-0.00829747,0.178861,-0.00532513,0.0141522,-0.167961,-0.150764,0.439703,-0.000451089,0,0,0,0,0,0,0,-1.3374,-34.3199,-0.260912,24.5111,2.62725,-0.0238741,0.050461,
0.109923,0.0848396,0.23619,-1.99967,0.646615,0.0811548,-0.00798277,0.107252,-0.0275384,0.0994614,-0.168574,-0.205095,0.467144,0.00774466,-0.295433,-0.410418,-0.281178,1.12821,-0.408161,-2.51368,-0.0392989,0,0,0,0,0,0,0,0.109707,0.0856163,0.234904,-1.99875,0.648798,0.0778994,-0.00829747,0.178861,-0.00532513,0.0141522,-0.167961,-0.150764,0.439703,-0.000451089,0,0,0,0,0,0,0,-1.3374,-34.3199,-0.260912,24.5111,2.62725,-0.0238741,0.050461,
0.111391,0.0853111,0.23645,-2.00149,0.64583,0.0852056,-0.00817145,0.106842,-0.0264387,0.0990677,-0.168878,-0.202577,0.465051,0.00777512,-0.256421,0.687286,-0.246062,-0.19022,1.57342,-1.30827,0.0190372,0,0,0,0,0,0,0,0.109707,0.0856163,0.234904,-1.99875,0.648798,0.0778994,-0.00829747,0.178861,-0.00532513,0.0141522,-0.167961,-0.150764,0.439703,-0.000451089,0,0,0,0,0,0,0,-1.3374,-34.3199,-0.260912,24.5111,2.62725,-0.0238741,0.050461,
0.112232,0.0851056,0.23723,-2.00282,0.644233,0.0888263,-0.00810958,0.106513,-0.0262902,0.0987509,-0.168348,-0.201978,0.462559,0.00776679,-0.205291,0.0928615,-0.197991,0.331507,0.374368,-1.55717,-0.00520864,0,0,0,0,0,0,0,0.113018,0.0856901,0.237937,-2.00416,0.642885,0.0921818,-0.00829296,0.068567,0.00418462,0.109407,-0.154348,-0.176491,0.418627,-0.000147223,-13.7868,1.18872,11.9068,1.70154,-3.21584,-2.63439,0.0379832,0.384403,-35.9425,1.61165,25.4077,2.67028,0.334097,0.0376436,
0.113069,0.0848803,0.238006,-2.00412,0.642621,0.0923999,-0.00804924,0.106139,-0.0266639,0.0983925,-0.167133,-0.201892,0.459386,0.00772197,-0.233711,-0.233565,-0.224042,0.759548,0.054236,-1.98304,-0.0280104,0,0,0,0,0,0,0,0.113018,0.0856901,0.237937,-2.00416,0.642885,0.0921818,-0.00829296,0.068567,0.00418462,0.109407,-0.154348,-0.176491,0.418627,-0.000147223,0,0,0,0,0,0,0,0.384403,-35.9425,1.61165,25.4077,2.67028,0.334097,0.0376436,
0.114565,0.0854245,0.239372,-2.00684,0.639838,0.0992846,-0.00817029,0.104526,-0.0253837,0.0968471,-0.16712,-0.20056,0.456727,0.00774683,-1.00843,0.800115,-0.965823,0.00812026,0.83199,-1.66189,0.0155354,0,0,0,0,0,0,0,0.113018,0.0856901,0.237937,-2.00416,0.642885,0.0921818,-0.00829296,0.068567,0.00418462,0.109407,-0.154348,-0.176491,0.418627,-0.000147223,0,0,0,0,0,0,0,0.384403,-35.9425,1.61165,25.4077,2.67028,0.334097,0.0376436,
0.115359,0.0852293,0.240107,-2.00815,0.638243,0.102833,-0.00810889,0.103482,-0.0251871,0.0958361,-0.166406,-0.200325,0.454085,0.00773235,-0.652258,0.122881,-0.631917,0.445715,0.147364,-1.65146,-0.00904802,0,0,0,0,0,0,0,0.113018,0.0856901,0.237937,-2.00416,0.642885,0.0921818,-0.00829296,0.068567,0.00418462,0.109407,-0.154348,-0.176491,0.418627,-0.000147223,0,0,0,0,0,0,0,0.384403,-35.9425,1.61165,25.4077,2.67028,0.334097,0.0376436,
0.116157,0.0850123,0.240844,-2.00943,0.636651,0.106338,-0.00804937,0.102718,-0.0255741,0.095095,-0.165039,-0.200056,0.450903,0.00767403,-0.477658,-0.241911,-0.463146,0.854701,0.167938,-1.9887,-0.0364513,0,0,0,0,0,0,0,0.11549,0.0856378,0.241514,-2.00969,0.636981,0.105767,-0.00829648,0.0248417,-0.00496517,0.158884,-0.158059,-0.183607,0.39651,-0.000577812,-5.46567,-1.14372,6.18466,-0.463822,-0.889594,-2.76464,-0.0538236,1.12232,-35.0697,1.81398,24.1382,2.51739,0.367972,0.0440523,
0.116952,0.08478,0.241579,-2.01067,0.635087,0.109791,-0.00799179,0.102054,-0.0262668,0.0944576,-0.163157,-0.199136,0.44704,0.00757861,-0.414787,-0.432901,-0.398387,1.17644,0.574767,-2.41463,-0.0596356,0,0,0,0,0,0,0,0.11549,0.0856378,0.241514,-2.00969,0.636981,0.105767,-0.00829648,0.0248417,-0.00496517,0.158884,-0.158059,-0.183607,0.39651,-0.000577812,0,0,0,0,0,0,0,1.12232,-35.0697,1.81398,24.1382,2.51739,0.367972,0.0440523,
0.117048,0.0853054,0.242969,-2.01233,0.633959,0.112502,-0.00817657,0.101396,-0.025708,0.0938398,-0.163397,-0.19768,0.44254,0.007602,-0.411784,0.349247,-0.386156,-0.150231,0.910254,-2.81228,0.0146184,0,0,0,0,0,0,0,0.11549,0.0856378,0.241514,-2.00969,0.636981,0.105767,-0.00829648,0.0248417,-0.00496517,0.158884,-0.158059,-0.183607,0.39651,-0.000577812,0,0,0,0,0,0,0,1.12232,-35.0697,1.81398,24.1382,2.51739,0.367972,0.0440523,
0.117844,0.0850928,0.243705,-2.01362,0.632414,0.115899,-0.00811666,0.101029,-0.0258799,0.0934838,-0.162835,-0.196787,0.438966,0.00757923,-0.228986,-0.107442,-0.222486,0.351265,0.557829,-2.23367,-0.0142309,0,0,0,0,0,0,0,0.11549,0.0856378,0.241514,-2.00969,0.636981,0.105767,-0.00829648,0.0248417,-0.00496517,0.158884,-0.158059,-0.183607,0.39651,-0.000577812,0,0,0,0,0,0,0,1.12232,-35.0697,1.81398,24.1382,2.51739,0.367972,0.0440523,
0.11864,0.0848636,0.244441,-2.01487,0.630887,0.119271,-0.0080588,0.10073,-0.0264343,0.0931921,-0.161571,-0.195604,0.435465,0.0075099,-0.186897,-0.346503,-0.18232,0.790005,0.739619,-2.18821,-0.0433313,0,0,0,0,0,0,0,0.11885,0.0856066,0.244166,-2.01501,0.631226,0.119563,-0.00829258,0.149116,-0.00864724,0.0264104,-0.152083,-0.17261,0.38898,-0.000647925,15.5343,-0.460258,-16.5592,0.746995,1.37466,-0.941288,-0.00876406,-0.246395,-34.669,0.43733,23.4161,2.28485,0.20867,0.0376436,
0.119432,0.0846224,0.245173,-2.01609,0.629398,0.122603,-0.00800303,0.100374,-0.0271783,0.0928508,-0.159761,-0.193694,0.431684,0.00740216,-0.222858,-0.465027,-0.213324,1.13092,1.19381,-2.3631,-0.0673398,0,0,0,0,0,0,0,0.11885,0.0856066,0.244166,-2.01501,0.631226,0.119563,-0.00829258,0.149116,-0.00864724,0.0264104,-0.152083,-0.17261,0.38898,-0.000647925,0,0,0,0,0,0,0,-0.246395,-34.669,0.43733,23.4161,2.28485,0.20867,0.0376436,
0.120402,0.0852515,0.245589,-2.01759,0.628284,0.126234,-0.00817272,0.0997844,-0.0266824,0.0922847,-0.159863,-0.192082,0.429185,0.00742515,-0.368286,0.30998,-0.353818,-0.0632441,1.0074,-1.56167,0.014368,0,0,0,0,0,0,0,0.11885,0.0856066,0.244166,-2.01501,0.631226,0.119563,-0.00829258,0.149116,-0.00864724,0.0264104,-0.152083,-0.17261,0.38898,-0.000647925,0,0,0,0,0,0,0,-0.246395,-34.669,0.43733,23.4161,2.28485,0.20867,0.0376436,
0.121186,0.0850313,0.246313,-2.01884,0.626803,0.129575,-0.00811447,0.0994232,-0.0268515,0.0919327,-0.159225,-0.190703,0.426875,0.00739637,-0.225725,-0.105707,-0.219956,0.398239,0.861961,-1.44395,-0.0179875,0,0,0,0,0,0,0,0.11885,0.0856066,0.244166,-2.01501,0.631226,0.119563,-0.00829258,0.149116,-0.00864724,0.0264104,-0.152083,-0.17261,0.38898,-0.000647925,0,0,0,0,0,0,0,-0.246395,-34.669,0.43733,23.4161,2.28485,0.20867,0.0376436,
0.121968,0.084796,0.247036,-2.02006,0.62535,0.132882,-0.00805837,0.0990996,-0.0273633,0.0916188,-0.157929,-0.188888,0.424186,0.00731942,-0.202296,-0.319881,-0.196206,0.810227,1.13421,-1.68032,-0.0480914,0,0,0,0,0,0,0,0.122361,0.0854333,0.246605,-2.02034,0.625493,0.133016,-0.00829268,0.107301,-0.00384493,0.0706575,-0.157318,-0.157072,0.39411,0.000409201,-5.22693,0.600289,5.53089,-0.654428,1.94227,0.641297,0.132141,-0.476498,-34.1969,1.03639,23.9874,2.3645,0.341421,0.0303194,
0.122745,0.08455,0.247754,-2.02125,0.623941,0.136146,-0.00800448,0.0987053,-0.0280416,0.0912435,-0.156113,-0.186319,0.420938,0.00720276,-0.246434,-0.42395,-0.234575,1.13523,1.60551,-2.03059,-0.0729151,0,0,0,0,0,0,0,0.122361,0.0854333,0.246605,-2.02034,0.625493,0.133016,-0.00829268,0.107301,-0.00384493,0.0706575,-0.157318,-0.157072,0.39411,0.000409201,0,0,0,0,0,0,0,-0.476498,-34.1969,1.03639,23.9874,2.3645,0.341421,0.0303194,
0.123899,0.0851372,0.248022,-2.0229,0.622753,0.139567,-0.00817502,0.0982846,-0.0267361,0.0908341,-0.156655,-0.183855,0.418784,0.00723584,-0.262912,0.815961,-0.255878,-0.338922,1.53991,-1.34624,0.0206765,0,0,0,0,0,0,0,0.122361,0.0854333,0.246605,-2.02034,0.625493,0.133016,-0.00829268,0.107301,-0.00384493,0.0706575,-0.157318,-0.157072,0.39411,0.000409201,0,0,0,0,0,0,0,-0.476498,-34.1969,1.03639,23.9874,2.3645,0.341421,0.0303194,
0.124674,0.0849353,0.248737,-2.02414,0.621358,0.142825,-0.00811829,0.0980022,-0.0264371,0.0905542,-0.156258,-0.181948,0.416496,0.00720711,-0.176527,0.186874,-0.174903,0.248341,1.19236,-1.42942,-0.0179548,0,0,0,0,0,0,0,0.122361,0.0854333,0.246605,-2.02034,0.625493,0.133016,-0.00829268,0.107301,-0.00384493,0.0706575,-0.157318,-0.157072,0.39411,0.000409201,0,0,0,0,0,0,0,-0.476498,-34.1969,1.03639,23.9874,2.3645,0.341421,0.0303194,
0.125446,0.084713,0.24945,-2.02534,0.61999,0.146047,-0.00806392,0.0976998,-0.026707,0.0902598,-0.155087,-0.179769,0.41373,0.0071248,-0.188995,-0.168706,-0.183996,0.731492,1.36194,-1.72934,-0.0514433,0,0,0,0,0,0,0,0.122361,0.0854333,0.246605,-2.02034,0.625493,0.133016,-0.00829268,0.107301,-0.00384493,0.0706575,-0.157318,-0.157072,0.39411,0.000409201,0,0,0,0,0,0,0,-0.476498,-34.1969,1.03639,23.9874,2.3645,0.341421,0.0303194,
0.126086,0.0851869,0.251362,-2.02798,0.617458,0.152085,-0.00818405,0.0966068,-0.0249029,0.089209,-0.155412,-0.176824,0.410262,0.00713786,-0.683131,1.1276,-0.656751,-0.203216,1.84044,-2.16692,0.00816245,0,0,0,0,0,0,0,0.124635,0.0854016,0.250008,-2.02546,0.620056,0.14579,-0.00829538,0.00678797,0.0107298,0.164558,-0.144628,-0.161183,0.36884,-0.00181732,-12.5641,1.82184,11.7376,1.58634,-0.513902,-3.15874,-0.278316,1.32465,-35.3435,2.1631,24.7095,2.30316,0.380789,0.0641939,
0.126831,0.085006,0.252048,-2.0292,0.616132,0.155249,-0.00812866,0.0959143,-0.0244445,0.0885291,-0.154869,-0.174597,0.407305,0.00709513,-0.432768,0.286443,-0.42498,0.339918,1.39191,-1.84844,-0.0267055,0,0,0,0,0,0,0,0.124635,0.0854016,0.250008,-2.02546,0.620056,0.14579,-0.00829538,0.00678797,0.0107298,0.164558,-0.144628,-0.161183,0.36884,-0.00181732,0,0,0,0,0,0,0,1.32465,-35.3435,2.1631,24.7095,2.30316,0.380789,0.0641939,
0.127577,0.0847989,0.252735,-2.03038,0.614832,0.158383,-0.00807584,0.0953737,-0.0247324,0.0879992,-0.153537,-0.17219,0.404213,0.00699649,-0.337871,-0.179894,-0.33115,0.832293,1.50438,-1.93266,-0.0616489,0,0,0,0,0,0,0,0.124635,0.0854016,0.250008,-2.02546,0.620056,0.14579,-0.00829538,0.00678797,0.0107298,0.164558,-0.144628,-0.161183,0.36884,-0.00181732,0,0,0,0,0,0,0,1.32465,-35.3435,2.1631,24.7095,2.30316,0.380789,0.0641939,
0.128318,0.0845734,0.253419,-2.03153,0.613575,0.161479,-0.00802559,0.0948398,-0.025425,0.0874847,-0.151594,-0.16917,0.400765,0.0068535,-0.333695,-0.432864,-0.321599,1.21428,1.88767,-2.15454,-0.0893725,0,0,0,0,0,0,0,0.124635,0.0854016,0.250008,-2.02546,0.620056,0.14579,-0.00829538,0.00678797,0.0107298,0.164558,-0.144628,-0.161183,0.36884,-0.00181732,0,0,0,0,0,0,0,1.32465,-35.3435,2.1631,24.7095,2.30316,0.380789,0.0641939,
0.128809,0.0850633,0.25407,-2.03301,0.612134,0.165242,-0.00817648,0.0934443,-0.0247347,0.0861349,-0.151649,-0.167997,0.399864,0.00688507,-0.872176,0.431395,-0.84359,-0.0342908,0.732776,-0.563541,0.0197301,0,0,0,0,0,0,0,0.127421,0.0853692,0.2528,-2.03056,0.614734,0.158914,-0.00828941,0.11108,-0.00520294,0.042651,-0.149429,-0.15427,0.377793,0.0007606,13.0365,-1.99159,-15.2384,-0.600186,0.864174,1.11908,0.32224,0.717655,-35.1967,1.3379,25.011,2.27295,0.380789,0.0101778,
0.129523,0.0848592,0.254726,-2.03419,0.610847,0.168387,-0.00812303,0.0925873,-0.0248903,0.0853017,-0.150871,-0.166564,0.398529,0.00684431,-0.535627,-0.097212,-0.520782,0.486471,0.895627,-0.833978,-0.0254703,0,0,0,0,0,0,0,0.127421,0.0853692,0.2528,-2.03056,0.614734,0.158914,-0.00828941,0.11108,-0.00520294,0.042651,-0.149429,-0.15427,0.377793,0.0007606,0,0,0,0,0,0,0,0.717655,-35.1967,1.3379,25.011,2.27295,0.380789,0.0101778,
0.130239,0.0846355,0.255385,-2.03534,0.609602,0.171492,-0.00807229,0.0919836,-0.0255026,0.0847176,-0.149396,-0.164377,0.396458,0.00674397,-0.377362,-0.382725,-0.365056,0.921374,1.36696,-1.29451,-0.0627175,0,0,0,0,0,0,0,0.127421,0.0853692,0.2528,-2.03056,0.614734,0.158914,-0.00828941,0.11108,-0.00520294,0.042651,-0.149429,-0.15427,0.377793,0.0007606,0,0,0,0,0,0,0,0.717655,-35.1967,1.3379,25.011,2.27295,0.380789,0.0101778,
0.130954,0.0843979,0.256042,-2.03646,0.608411,0.174551,-0.00802415,0.0914575,-0.0263441,0.0842171,-0.147389,-0.161288,0.393631,0.00659859,-0.32878,-0.525936,-0.31277,1.25488,1.93076,-1.76689,-0.090857,0,0,0,0,0,0,0,0.127421,0.0853692,0.2528,-2.03056,0.614734,0.158914,-0.00828941,0.11108,-0.00520294,0.042651,-0.149429,-0.15427,0.377793,0.0007606,0,0,0,0,0,0,0,0.717655,-35.1967,1.3379,25.011,2.27295,0.380789,0.0101778,
0.128797,0.085074,0.254058,-2.03298,0.612174,0.165168,-0.00818046,0.0905457,-0.0253333,0.0833303,-0.147756,-0.16103,0.393102,0.0066278,-0.569875,0.63175,-0.554303,-0.229539,0.160997,-0.330892,0.0182567,0,0,0,0,0,0,0,0.127421,0.0853692,0.2528,-2.03056,0.614734,0.158914,-0.00828941,0.11108,-0.00520294,0.042651,-0.149429,-0.15427,0.377793,0.0007606,0,0,0,0,0,0,0,0.717655,-35.1967,1.3379,25.011,2.27295,0.380789,0.0101778,
0.129501,0.0848747,0.254704,-2.03413,0.610922,0.168268,-0.00812923,0.0900182,-0.0252502,0.0828161,-0.147178,-0.16011,0.391963,0.00658298,-0.329667,0.0519288,-0.321357,0.36093,0.574972,-0.711925,-0.0280123,0,0,0,0,0,0,0,0.127421,0.0853692,0.2528,-2.03056,0.614734,0.158914,-0.00828941,0.11108,-0.00520294,0.042651,-0.149429,-0.15427,0.377793,0.0007606,0,0,0,0,0,0,0,0.717655,-35.1967,1.3379,25.011,2.27295,0.380789,0.0101778,
0.130206,0.0846551,0.255352,-2.03526,0.609717,0.171326,-0.00808074,0.0896389,-0.02569,0.082452,-0.145836,-0.158212,0.390032,0.00647882,-0.237081,-0.274852,-0.22758,0.838627,1.18621,-1.20657,-0.0651002,0,0,0,0,0,0,0,0.127421,0.0853692,0.2528,-2.03056,0.614734,0.158914,-0.00828941,0.11108,-0.00520294,0.042651,-0.149429,-0.15427,0.377793,0.0007606,0,0,0,0,0,0,0,0.717655,-35.1967,1.3379,25.011,2.27295,0.380789,0.0101778,
0.130908,0.0844208,0.255997,-2.03635,0.608568,0.174339,-0.00803489,0.0892647,-0.026408,0.0821022,-0.143914,-0.155302,0.387337,0.00632922,-0.233893,-0.448761,-0.21859,1.20179,1.81903,-1.68425,-0.0935049,0,0,0,0,0,0,0,0.127421,0.0853692,0.2528,-2.03056,0.614734,0.158914,-0.00828941,0.11108,-0.00520294,0.042651,-0.149429,-0.15427,0.377793,0.0007606,0,0,0,0,0,0,0,0.717655,-35.1967,1.3379,25.011,2.27295,0.380789,0.0101778,
0.128785,0.0850849,0.254045,-2.03294,0.61221,0.165099,-0.00818466,0.0885991,-0.0252454,0.0814479,-0.144446,-0.155648,0.387066,0.00635631,-0.415998,0.726613,-0.408964,-0.332941,-0.216221,-0.169427,0.016934,0,0,0,0,0,0,0,0.130863,0.0853854,0.254859,-2.03563,0.609546,0.171367,-0.00828937,0.121028,0.00403923,0.041108,-0.145155,-0.14193,0.368003,-5.86585e-05,1.2435,1.15527,-0.192866,0.534247,1.54241,-1.22374,-0.102407,-0.40112,-35.2205,0.913405,25.0348,2.13287,0.818411,0.0101778,
0.129479,0.0848904,0.254682,-2.03407,0.610989,0.168155,-0.00813571,0.0882112,-0.0250584,0.0810685,-0.143952,-0.155023,0.386049,0.00630876,-0.242431,0.116892,-0.237101,0.309048,0.39036,-0.635651,-0.0297194,0,0,0,0,0,0,0,0.130863,0.0853854,0.254859,-2.03563,0.609546,0.171367,-0.00828937,0.121028,0.00403923,0.041108,-0.145155,-0.14193,0.368003,-5.86585e-05,0,0,0,0,0,0,0,-0.40112,-35.2205,0.913405,25.0348,2.13287,0.818411,0.0101778,
0.130172,0.0846749,0.255319,-2.03517,0.60982,0.171169,-0.00808953,0.0879037,-0.0254331,0.0807762,-0.142647,-0.153262,0.384204,0.00620145,-0.192205,-0.234186,-0.182669,0.815336,1.10066,-1.15334,-0.0670682,0,0,0,0,0,0,0,0.130863,0.0853854,0.254859,-2.03563,0.609546,0.171367,-0.00828937,0.121028,0.00403923,0.041108,-0.145155,-0.14193,0.368003,-5.86585e-05,0,0,0,0,0,0,0,-0.40112,-35.2205,0.913405,25.0348,2.13287,0.818411,0.0101778,
0.132263,0.0851732,0.256137,-2.03798,0.607187,0.177394,-0.00818987,0.0878404,-0.0237549,0.0806912,-0.14311,-0.152105,0.382526,0.00619388,-0.0395755,1.04888,-0.0531419,-0.288982,0.723021,-1.04854,-0.00472932,0,0,0,0,0,0,0,0.130863,0.0853854,0.254859,-2.03563,0.609546,0.171367,-0.00828937,0.121028,0.00403923,0.041108,-0.145155,-0.14193,0.368003,-5.86585e-05,0,0,0,0,0,0,0,-0.40112,-35.2205,0.913405,25.0348,2.13287,0.818411,0.0101778,
0.132963,0.0849982,0.256779,-2.0391,0.606032,0.180367,-0.00814325,0.087765,-0.0233792,0.0806084,-0.142507,-0.150555,0.380352,0.0061206,-0.0470814,0.23483,-0.0517378,0.376969,0.968905,-1.35896,-0.0458052,0,0,0,0,0,0,0,0.133148,0.085338,0.257971,-2.04031,0.604723,0.182583,-0.00828718,0.0121571,-0.00228522,0.137518,-0.135124,-0.139359,0.307902,0.000947772,-13.6088,-0.790555,12.0513,1.25395,0.321382,-7.51265,0.125804,0.562931,-34.6214,1.46089,24.1898,2.15118,0.593191,-0.00996382,
0.133658,0.0847965,0.257417,-2.04018,0.604919,0.183302,-0.00809936,0.0875821,-0.0237467,0.0804351,-0.141054,-0.14828,0.377641,0.00599376,-0.114324,-0.229706,-0.108351,0.908109,1.42216,-1.6941,-0.0792734,0,0,0,0,0,0,0,0.133148,0.085338,0.257971,-2.04031,0.604723,0.182583,-0.00828718,0.0121571,-0.00228522,0.137518,-0.135124,-0.139359,0.307902,0.000947772,0,0,0,0,0,0,0,0.562931,-34.6214,1.46089,24.1898,2.15118,0.593191,-0.00996382,
0.134345,0.0845756,0.258048,-2.04122,0.603855,0.186196,-0.00805811,0.0872418,-0.0245179,0.0801223,-0.138966,-0.145223,0.374457,0.0058262,-0.212664,-0.482027,-0.195485,1.30445,1.91068,-1.98999,-0.104722,0,0,0,0,0,0,0,0.133148,0.085338,0.257971,-2.04031,0.604723,0.182583,-0.00828718,0.0121571,-0.00228522,0.137518,-0.135124,-0.139359,0.307902,0.000947772,0,0,0,0,0,0,0,0.562931,-34.6214,1.46089,24.1898,2.15118,0.593191,-0.00996382,
0.134461,0.0850325,0.259194,-2.04257,0.602231,0.188254,-0.00818997,0.0865533,-0.0240251,0.0795391,-0.139207,-0.148382,0.372249,0.00588127,-0.430313,0.30804,-0.364476,-0.15014,-1.97468,-1.37997,0.0344175,0,0,0,0,0,0,0,0.133148,0.085338,0.257971,-2.04031,0.604723,0.182583,-0.00828718,0.0121571,-0.00228522,0.137518,-0.135124,-0.139359,0.307902,0.000947772,0,0,0,0,0,0,0,0.562931,-34.6214,1.46089,24.1898,2.15118,0.593191,-0.00996382,
0.13514,0.0848283,0.259819,-2.04366,0.600911,0.191222,-0.00814436,0.0862209,-0.0243252,0.0792488,-0.138519,-0.151704,0.372015,0.00584522,-0.207752,-0.187579,-0.181453,0.429607,-2.07597,-0.146787,-0.0225332,0,0,0,0,0,0,0,0.135913,0.0852872,0.260245,-2.04491,0.600696,0.193399,-0.00829536,0.121344,-0.0026026,0.0167745,-0.140857,-0.108947,0.315076,-0.000478583,13.6484,-0.039673,-15.093,-0.716702,3.80155,0.896789,-0.178294,-0.0440639,-34.0224,0.814222,23.7375,2.02301,0.619742,0.0239107,
0.135819,0.0846053,0.260443,-2.04471,0.599596,0.19421,-0.00810193,0.0859523,-0.0250361,0.0790021,-0.137042,-0.15425,0.372296,0.00573684,-0.167884,-0.444281,-0.154195,0.923523,-1.59137,0.176175,-0.0677378,0,0,0,0,0,0,0,0.135913,0.0852872,0.260245,-2.04491,0.600696,0.193399,-0.00829536,0.121344,-0.0026026,0.0167745,-0.140857,-0.108947,0.315076,-0.000478583,0,0,0,0,0,0,0,-0.0440639,-34.0224,0.814222,23.7375,2.02301,0.619742,0.0239107,
0.136492,0.0843687,0.261062,-2.04572,0.598305,0.197192,-0.0080624,0.0855955,-0.0259433,0.0786666,-0.134961,-0.155663,0.372399,0.00557791,-0.223012,-0.566996,-0.209691,1.30056,-0.883467,0.0639404,-0.0993298,0,0,0,0,0,0,0,0.135913,0.0852872,0.260245,-2.04491,0.600696,0.193399,-0.00829536,0.121344,-0.0026026,0.0167745,-0.140857,-0.108947,0.315076,-0.000478583,0,0,0,0,0,0,0,-0.0440639,-34.0224,0.814222,23.7375,2.02301,0.619742,0.0239107,
